FedericoMungari/DigitalTwin_service/Output/Output_script/script_ROSAPI_output_robots8_freq0_8.txt
timestamp,date,node,latency,joint_1,joint_2,joint_3,joint_4,joint_5,joint_6
1640670573100177152,2021-12-28-05:49:33,10.1.1.9,1640670573100.032,-0.000,-0.000,0.000,0.000,0.000,0.000
1640670577116118784,2021-12-28-05:49:37,10.1.1.9,17,-0.000,-0.000,0.000,0.000,0.000,0.000
1640670579134587904,2021-12-28-05:49:39,10.1.1.9,15,-0.000,-0.000,0.000,0.000,0.000,0.000
1640670581192146944,2021-12-28-05:49:41,10.1.1.9,13,-0.000,-0.000,0.000,0.000,0.000,0.000
1640670583228844800,2021-12-28-05:49:43,10.1.1.9,14,-0.000,-0.000,0.000,0.000,0.000,0.000
1640670585428468992,2021-12-28-05:49:45,10.1.1.9,4,-0.000,-0.000,0.000,0.000,0.000,0.000
1640670587521037056,2021-12-28-05:49:47,10.1.1.9,16,-0.000,-0.000,0.000,0.000,0.000,0.000
1640670589578265856,2021-12-28-05:49:49,10.1.1.9,13,-0.000,-0.000,0.000,0.000,0.000,0.000
1640670591733999872,2021-12-28-05:49:51,10.1.1.9,17,-0.000,-0.000,0.000,0.000,0.000,0.000
1640670593772003840,2021-12-28-05:49:53,10.1.1.9,15,-0.000,-0.000,0.000,0.000,0.000,0.000
1640670595830818816,2021-12-28-05:49:55,10.1.1.9,14,-0.000,-0.000,0.000,0.000,0.000,0.000
1640670597845371904,2021-12-28-05:49:57,10.1.1.9,1,-0.000,-0.000,0.000,0.000,0.000,0.000
1640670599942375936,2021-12-28-05:49:59,10.1.1.9,17,-0.000,-0.000,0.000,0.000,0.000,0.000
1640670601976918016,2021-12-28-05:50:01,10.1.1.9,4,-0.000,-0.000,0.000,0.000,0.000,0.000
1640670604013600000,2021-12-28-05:50:04,10.1.1.9,10,-0.000,-0.000,0.000,0.000,0.000,0.000
1640670606150955008,2021-12-28-05:50:06,10.1.1.9,15,-0.000,-0.000,0.000,0.000,0.000,0.000
1640670608166663936,2021-12-28-05:50:08,10.1.1.9,2,-0.000,-0.000,0.000,0.000,0.000,0.000
1640670610203432960,2021-12-28-05:50:10,10.1.1.9,13,-0.000,-0.000,0.000,0.000,0.000,0.000
1640670612259732992,2021-12-28-05:50:12,10.1.1.9,18,-0.000,-0.000,0.000,0.000,0.000,0.000
1640670614315819008,2021-12-28-05:50:14,10.1.1.9,9,-0.000,-0.000,0.000,0.000,0.000,0.000
1640670616352920064,2021-12-28-05:50:16,10.1.1.9,0,-0.000,-0.000,0.000,0.000,0.000,0.000
1640670618409050880,2021-12-28-05:50:18,10.1.1.9,4,-0.000,-0.000,0.000,0.000,0.000,0.000
1640670620524497152,2021-12-28-05:50:20,10.1.1.9,4,-0.000,-0.000,0.000,0.000,0.000,0.000
1640670622569332992,2021-12-28-05:50:22,10.1.1.9,14,-0.000,-0.000,0.000,0.000,0.000,0.000
1640670624629540864,2021-12-28-05:50:24,10.1.1.9,3,-0.000,-0.000,0.000,0.000,0.000,0.000
1640670626685590016,2021-12-28-05:50:26,10.1.1.9,5,-0.000,-0.000,0.000,0.000,0.000,0.000
1640670628716567040,2021-12-28-05:50:28,10.1.1.9,11,-0.000,-0.000,0.000,0.000,0.000,0.000
1640670630783742976,2021-12-28-05:50:30,10.1.1.9,8,-0.000,-0.000,0.000,0.000,0.000,0.000
1640670632828002048,2021-12-28-05:50:32,10.1.1.9,13,-0.000,-0.000,0.000,0.000,0.000,0.000
1640670634910381056,2021-12-28-05:50:34,10.1.1.9,17,-0.000,-0.000,0.000,0.000,0.000,0.000
1640670637092526080,2021-12-28-05:50:37,10.1.1.9,15,-0.000,-0.000,0.000,0.000,0.000,0.000
1640670639192250880,2021-12-28-05:50:39,10.1.1.9,19,-0.000,-0.000,0.000,0.000,0.000,0.000
1640670641231484928,2021-12-28-05:50:41,10.1.1.9,0,-0.000,-0.000,0.000,0.000,0.000,0.000
1640670643274006016,2021-12-28-05:50:43,10.1.1.9,0,-0.000,-0.000,0.000,0.000,0.000,0.000
1640670645327343104,2021-12-28-05:50:45,10.1.1.9,4,-0.000,-0.000,0.000,0.000,0.000,0.000
1640670647385629952,2021-12-28-05:50:47,10.1.1.9,12,-0.000,-0.000,0.000,0.000,0.000,0.000
1640670649502656000,2021-12-28-05:50:49,10.1.1.9,12,-0.000,-0.000,0.000,0.000,0.000,0.000
1640670651719073024,2021-12-28-05:50:51,10.1.1.9,18,-0.000,-0.000,0.000,0.000,0.000,0.000
1640670653755608064,2021-12-28-05:50:53,10.1.1.9,8,-0.000,-0.000,0.000,0.000,0.000,0.000
1640670655785389056,2021-12-28-05:50:55,10.1.1.9,15,-0.000,-0.000,0.000,0.000,0.000,0.000
1640670657812133120,2021-12-28-05:50:57,10.1.1.9,5,-0.000,-0.000,0.000,0.000,0.000,0.000
1640670659878106112,2021-12-28-05:50:59,10.1.1.9,3,-0.000,-0.000,0.000,0.000,0.000,0.000
1640670664022089984,2021-12-28-05:51:04,10.1.1.9,18,-0.000,-0.000,0.000,0.000,0.000,0.000
1640670666082516992,2021-12-28-05:51:06,10.1.1.9,12,-0.000,-0.000,0.000,0.000,0.000,0.000
1640670668161410048,2021-12-28-05:51:08,10.1.1.9,5,-0.000,-0.000,0.000,0.000,0.000,0.000
1640670670219949056,2021-12-28-05:51:10,10.1.1.9,2,-0.000,-0.000,0.000,0.000,0.000,0.000
1640670672278050048,2021-12-28-05:51:12,10.1.1.9,-1,-0.000,-0.000,0.000,0.000,0.000,0.000
1640670674396035840,2021-12-28-05:51:14,10.1.1.9,19,-0.000,-0.000,0.000,0.000,0.000,0.000
1640670676412823040,2021-12-28-05:51:16,10.1.1.9,11,-0.000,-0.000,0.000,0.000,0.000,0.000
1640670678470880000,2021-12-28-05:51:18,10.1.1.9,2,-0.000,-0.000,0.000,0.000,0.000,0.000
1640670680548154112,2021-12-28-05:51:20,10.1.1.9,14,-0.000,-0.000,0.000,0.000,0.000,0.000
1640670682584791040,2021-12-28-05:51:22,10.1.1.9,2,-0.000,-0.000,0.000,0.000,0.000,0.000
1640670684621597952,2021-12-28-05:51:24,10.1.1.9,11,-0.000,-0.000,0.000,0.000,0.000,0.000
1640670686657150976,2021-12-28-05:51:26,10.1.1.9,1,-0.000,-0.000,0.000,0.000,0.000,0.000
1640670688825438976,2021-12-28-05:51:28,10.1.1.9,1,-0.000,-0.000,0.000,0.000,0.000,0.000
1640670690933514240,2021-12-28-05:51:30,10.1.1.9,16,-0.000,-0.000,0.000,0.000,0.000,0.000
1640670693058512896,2021-12-28-05:51:33,10.1.1.9,12,-0.000,-0.000,0.000,0.000,0.000,0.000
1640670695100008960,2021-12-28-05:51:35,10.1.1.9,7,-0.000,-0.000,0.000,0.000,0.000,0.000
1640670697161436928,2021-12-28-05:51:37,10.1.1.9,10,-0.000,-0.000,0.000,0.000,0.000,0.000
1640670699200890112,2021-12-28-05:51:39,10.1.1.9,1,-0.000,-0.000,0.000,0.000,0.000,0.000
1640670701239631872,2021-12-28-05:51:41,10.1.1.9,11,-0.000,-0.000,0.000,0.000,0.000,0.000
1640670703258256896,2021-12-28-05:51:43,10.1.1.9,1,-0.000,-0.000,0.000,0.000,0.000,0.000
1640670705297586944,2021-12-28-05:51:45,10.1.1.9,9,-0.000,-0.000,0.000,0.000,0.000,0.000
1640670707413970944,2021-12-28-05:51:47,10.1.1.9,17,-0.000,-0.000,0.000,0.000,0.000,0.000
1640670709451879936,2021-12-28-05:51:49,10.1.1.9,13,-0.000,-0.000,0.000,0.000,0.000,0.000
1640670711489587968,2021-12-28-05:51:51,10.1.1.9,19,-0.000,-0.000,0.000,0.000,0.000,0.000
1640670713585235200,2021-12-28-05:51:53,10.1.1.9,2,-0.000,-0.000,0.000,0.000,0.000,0.000
1640670715662223104,2021-12-28-05:51:55,10.1.1.9,4,-0.000,-0.000,0.000,0.000,0.000,0.000
1640670717698755072,2021-12-28-05:51:57,10.1.1.9,11,-0.000,-0.000,0.000,0.000,0.000,0.000
1640670719741074944,2021-12-28-05:51:59,10.1.1.9,19,-0.000,-0.000,0.000,0.000,0.000,0.000
1640670721793147136,2021-12-28-05:52:01,10.1.1.9,1,-0.000,-0.000,0.000,0.000,0.000,0.000
1640670723836114944,2021-12-28-05:52:03,10.1.1.9,7,-0.000,-0.000,0.000,0.000,0.000,0.000
1640670725959721216,2021-12-28-05:52:05,10.1.1.9,14,-0.000,-0.000,0.000,0.000,0.000,0.000
1640670728021785088,2021-12-28-05:52:08,10.1.1.9,14,-0.000,-0.000,0.000,0.000,0.000,0.000
1640670730081276928,2021-12-28-05:52:10,10.1.1.9,4,-0.000,-0.000,0.000,0.000,0.000,0.000
1640670732201509888,2021-12-28-05:52:12,10.1.1.9,2,-0.000,-0.000,0.000,0.000,0.000,0.000
1640670734320395008,2021-12-28-05:52:14,10.1.1.9,8,-0.000,-0.000,0.000,0.000,0.000,0.000
1640670736358333184,2021-12-28-05:52:16,10.1.1.9,6,-0.000,-0.000,0.000,0.000,0.000,0.000
1640670738496841984,2021-12-28-05:52:18,10.1.1.9,13,-0.000,-0.000,0.000,0.000,0.000,0.000
1640670740574654208,2021-12-28-05:52:20,10.1.1.9,11,-0.000,-0.000,0.000,0.000,0.000,0.000
1640670742671762944,2021-12-28-05:52:22,10.1.1.9,18,-0.000,-0.000,0.000,0.000,0.000,0.000
1640670744807346944,2021-12-28-05:52:24,10.1.1.9,8,-0.000,-0.000,0.000,0.000,0.000,0.000
1640670746944320000,2021-12-28-05:52:26,10.1.1.9,2,-0.000,-0.000,0.000,0.000,0.000,0.000
1640670749001167104,2021-12-28-05:52:29,10.1.1.9,19,-0.000,-0.000,0.000,0.000,0.000,0.000
1640670751079736832,2021-12-28-05:52:31,10.1.1.9,2,-0.000,-0.000,0.000,0.000,0.000,0.000
1640670753208146176,2021-12-28-05:52:33,10.1.1.9,15,-0.000,-0.000,0.000,0.000,0.000,0.000
1640670755257217024,2021-12-28-05:52:35,10.1.1.9,4,-0.000,-0.000,0.000,0.000,0.000,0.000
1640670757318622208,2021-12-28-05:52:37,10.1.1.9,9,-0.000,-0.000,0.000,0.000,0.000,0.000
1640670759421000960,2021-12-28-05:52:39,10.1.1.9,19,-0.000,-0.000,0.000,0.000,0.000,0.000
1640670761461833984,2021-12-28-05:52:41,10.1.1.9,0,-0.000,-0.000,0.000,0.000,0.000,0.000
1640670763542354944,2021-12-28-05:52:43,10.1.1.9,5,-0.000,-0.000,0.000,0.000,0.000,0.000
1640670765660704000,2021-12-28-05:52:45,10.1.1.9,4,-0.000,-0.000,0.000,0.000,0.000,0.000
1640670767699461888,2021-12-28-05:52:47,10.1.1.9,0,-0.000,-0.000,0.000,0.000,0.000,0.000
1640670769858329088,2021-12-28-05:52:49,10.1.1.9,15,-0.000,-0.000,0.000,0.000,0.000,0.000
1640670771994615040,2021-12-28-05:52:51,10.1.1.9,11,-0.000,-0.000,0.000,0.000,0.000,0.000
1640670774051759104,2021-12-28-05:52:54,10.1.1.9,9,-0.000,-0.000,0.000,0.000,0.000,0.000
1640670776128834048,2021-12-28-05:52:56,10.1.1.9,13,-0.000,-0.000,0.000,0.000,0.000,0.000
1640670778185992960,2021-12-28-05:52:58,10.1.1.9,15,-0.000,-0.000,0.000,0.000,0.000,0.000
1640670780222668032,2021-12-28-05:53:00,10.1.1.9,9,-0.000,-0.000,0.000,0.000,0.000,0.000
1640670782320384000,2021-12-28-05:53:02,10.1.1.9,8,-0.000,-0.000,0.000,0.000,0.000,0.000
1640670784385729024,2021-12-28-05:53:04,10.1.1.9,19,-0.000,-0.000,0.000,0.000,0.000,0.000
1640670786414674944,2021-12-28-05:53:06,10.1.1.9,6,-0.000,-0.000,0.000,0.000,0.000,0.000
1640670788479440896,2021-12-28-05:53:08,10.1.1.9,19,-0.000,-0.000,0.000,0.000,0.000,0.000
1640670790502494208,2021-12-28-05:53:10,10.1.1.9,13,-0.000,-0.000,0.000,0.000,0.000,0.000
1640670792544646144,2021-12-28-05:53:12,10.1.1.9,17,-0.000,-0.000,0.000,0.000,0.000,0.000
1640670794564680960,2021-12-28-05:53:14,10.1.1.9,12,-0.000,-0.000,0.000,0.000,0.000,0.000
1640670796564194048,2021-12-28-05:53:16,10.1.1.9,6,-0.000,-0.000,0.000,0.000,0.000,0.000
1640670798724246016,2021-12-28-05:53:18,10.1.1.9,14,-0.000,-0.000,0.000,0.000,0.000,0.000
1640670800782206976,2021-12-28-05:53:20,10.1.1.9,19,-0.000,-0.000,0.000,0.000,0.000,0.000
1640670802859654912,2021-12-28-05:53:22,10.1.1.9,3,-0.000,-0.000,0.000,0.000,0.000,0.000
1640670804977134080,2021-12-28-05:53:24,10.1.1.9,4,-0.000,-0.000,0.000,0.000,0.000,0.000
1640670807053464832,2021-12-28-05:53:27,10.1.1.9,18,-0.000,-0.000,0.000,0.000,0.000,0.000
1640670809070554112,2021-12-28-05:53:29,10.1.1.9,5,-0.000,-0.000,0.000,0.000,0.000,0.000
1640670811148015104,2021-12-28-05:53:31,10.1.1.9,6,-0.000,-0.000,0.000,0.000,0.000,0.000
1640670813165036032,2021-12-28-05:53:33,10.1.1.9,4,-0.000,-0.000,0.000,0.000,0.000,0.000
1640670815201744128,2021-12-28-05:53:35,10.1.1.9,5,-0.000,-0.000,0.000,0.000,0.000,0.000
1640670817266233088,2021-12-28-05:53:37,10.1.1.9,1,-0.000,-0.000,0.000,0.000,0.000,0.000
1640670819332967168,2021-12-28-05:53:39,10.1.1.9,11,-0.000,-0.000,0.000,0.000,0.000,0.000
1640670821358208000,2021-12-28-05:53:41,10.1.1.9,0,-0.000,-0.000,0.000,0.000,0.000,0.000
1640670823461272064,2021-12-28-05:53:43,10.1.1.9,6,-0.000,-0.000,0.000,0.000,0.000,0.000
1640670825561949952,2021-12-28-05:53:45,10.1.1.9,13,-0.000,-0.000,0.000,0.000,0.000,0.000
1640670827602350080,2021-12-28-05:53:47,10.1.1.9,15,-0.000,-0.000,0.000,0.000,0.000,0.000
1640670829782676992,2021-12-28-05:53:49,10.1.1.9,18,-0.000,-0.000,0.000,0.000,0.000,0.000
1640670831840482048,2021-12-28-05:53:51,10.1.1.9,14,-0.000,-0.000,0.000,0.000,0.000,0.000
1640670833858172928,2021-12-28-05:53:53,10.1.1.9,9,-0.000,-0.000,0.000,0.000,0.000,0.000
1640670835895255040,2021-12-28-05:53:55,10.1.1.9,15,-0.000,-0.000,0.000,0.000,0.000,0.000
1640670838012797184,2021-12-28-05:53:58,10.1.1.9,13,-0.000,-0.000,0.000,0.000,0.000,0.000
1640670840049945088,2021-12-28-05:54:00,10.1.1.9,18,-0.000,-0.000,0.000,0.000,0.000,0.000
1640670842088148224,2021-12-28-05:54:02,10.1.1.9,18,-0.000,-0.000,0.000,0.000,0.000,0.000
1640670844146526976,2021-12-28-05:54:04,10.1.1.9,11,-0.000,-0.000,0.000,0.000,0.000,0.000
1640670846201698048,2021-12-28-05:54:06,10.1.1.9,17,-0.000,-0.000,0.000,0.000,0.000,0.000
1640670848319889152,2021-12-28-05:54:08,10.1.1.9,12,-0.000,-0.000,0.000,0.000,0.000,0.000
1640670850389169920,2021-12-28-05:54:10,10.1.1.9,12,-0.000,-0.000,0.000,0.000,0.000,0.000
1640670852476943104,2021-12-28-05:54:12,10.1.1.9,4,-0.000,-0.000,0.000,0.000,0.000,0.000
1640670854500425216,2021-12-28-05:54:14,10.1.1.9,7,-0.000,-0.000,0.000,0.000,0.000,0.000
1640670856543097856,2021-12-28-05:54:16,10.1.1.9,8,-0.000,-0.000,0.000,0.000,0.000,0.000
1640670858603201024,2021-12-28-05:54:18,10.1.1.9,2,-0.000,-0.000,0.000,0.000,0.000,0.000
1640670860644078080,2021-12-28-05:54:20,10.1.1.9,16,-0.000,-0.000,0.000,0.000,0.000,0.000
1640670862762489088,2021-12-28-05:54:22,10.1.1.9,9,-0.000,-0.000,0.000,0.000,0.000,0.000
1640670864820889088,2021-12-28-05:54:24,10.1.1.9,14,-0.000,-0.000,0.000,0.000,0.000,0.000
1640670866838521856,2021-12-28-05:54:26,10.1.1.9,1,-0.000,-0.000,0.000,0.000,0.000,0.000
1640670868896220928,2021-12-28-05:54:28,10.1.1.9,6,-0.000,-0.000,0.000,0.000,0.000,0.000
1640670871033658112,2021-12-28-05:54:31,10.1.1.9,6,-0.000,-0.000,0.000,0.000,0.000,0.000
1640670873110557952,2021-12-28-05:54:33,10.1.1.9,13,-0.000,-0.000,0.000,0.000,0.000,0.000
1640670875167706112,2021-12-28-05:54:35,10.1.1.9,10,-0.000,-0.000,0.000,0.000,0.000,0.000
1640670877284096000,2021-12-28-05:54:37,10.1.1.9,15,-0.000,-0.000,0.000,0.000,0.000,0.000
1640670879340850176,2021-12-28-05:54:39,10.1.1.9,2,-0.000,-0.000,0.000,0.000,0.000,0.000
1640670881386873088,2021-12-28-05:54:41,10.1.1.9,5,-0.000,-0.000,0.000,0.000,0.000,0.000
1640670883453999872,2021-12-28-05:54:43,10.1.1.9,13,-0.000,-0.000,0.000,0.000,0.000,0.000
1640670885479374848,2021-12-28-05:54:45,10.1.1.9,3,-0.000,-0.000,0.000,0.000,0.000,0.000
1640670887663638016,2021-12-28-05:54:47,10.1.1.9,12,-0.000,-0.000,0.000,0.000,0.000,0.000
1640670889703470848,2021-12-28-05:54:49,10.1.1.9,4,-0.000,-0.000,0.000,0.000,0.000,0.000
1640670891763374080,2021-12-28-05:54:51,10.1.1.9,14,-0.000,-0.000,0.000,0.000,0.000,0.000
1640670893803577856,2021-12-28-05:54:53,10.1.1.9,8,-0.000,-0.000,0.000,0.000,0.000,0.000
1640670895860851968,2021-12-28-05:54:55,10.1.1.9,14,-0.000,-0.000,0.000,0.000,0.000,0.000
1640670898040723968,2021-12-28-05:54:58,10.1.1.9,16,-0.000,-0.000,0.000,0.000,0.000,0.000
1640670900117182976,2021-12-28-05:55:00,10.1.1.9,3,-0.000,-0.000,0.000,0.000,0.000,0.000
1640670902213931008,2021-12-28-05:55:02,10.1.1.9,5,-0.000,-0.000,0.000,0.000,0.000,0.000
1640670904271347968,2021-12-28-05:55:04,10.1.1.9,16,-0.000,-0.000,0.000,0.000,0.000,0.000
1640670906308030976,2021-12-28-05:55:06,10.1.1.9,9,-0.000,-0.000,0.000,0.000,0.000,0.000
1640670908484532224,2021-12-28-05:55:08,10.1.1.9,16,-0.000,-0.000,0.000,0.000,0.000,0.000
1640670910706903040,2021-12-28-05:55:10,10.1.1.9,32,-0.000,-0.000,0.000,0.000,0.000,0.000
1640670912824322816,2021-12-28-05:55:12,10.1.1.9,15,-0.000,-0.000,0.000,0.000,0.000,0.000
1640670914894316800,2021-12-28-05:55:14,10.1.1.9,12,-0.000,-0.000,0.000,0.000,0.000,0.000
1640670916920227072,2021-12-28-05:55:16,10.1.1.9,12,-0.000,-0.000,0.000,0.000,0.000,0.000
1640670918943919872,2021-12-28-05:55:18,10.1.1.9,5,-0.000,-0.000,0.000,0.000,0.000,0.000
1640670921025517056,2021-12-28-05:55:21,10.1.1.9,12,-0.000,-0.000,0.000,0.000,0.000,0.000
1640670923066048000,2021-12-28-05:55:23,10.1.1.9,2,-0.000,-0.000,0.000,0.000,0.000,0.000
1640670925105943808,2021-12-28-05:55:25,10.1.1.9,2,-0.000,-0.000,0.000,0.000,0.000,0.000
1640670927244865792,2021-12-28-05:55:27,10.1.1.9,4,-0.000,-0.000,0.000,0.000,0.000,0.000
1640670929283389184,2021-12-28-05:55:29,10.1.1.9,13,-0.000,-0.000,0.000,0.000,0.000,0.000
1640670931361795840,2021-12-28-05:55:31,10.1.1.9,16,-0.000,-0.000,0.000,0.000,0.000,0.000
1640670933398923008,2021-12-28-05:55:33,10.1.1.9,8,-0.000,-0.000,0.000,0.000,0.000,0.000
1640670935496873984,2021-12-28-05:55:35,10.1.1.9,16,-0.000,-0.000,0.000,0.000,0.000,0.000
1640670937613008128,2021-12-28-05:55:37,10.1.1.9,15,-0.000,-0.000,0.000,0.000,0.000,0.000
1640670939648939008,2021-12-28-05:55:39,10.1.1.9,0,-0.000,-0.000,0.000,0.000,0.000,0.000
1640670941706285056,2021-12-28-05:55:41,10.1.1.9,7,-0.000,-0.000,0.000,0.000,0.000,0.000
1640670943763732992,2021-12-28-05:55:43,10.1.1.9,16,-0.000,-0.000,0.000,0.000,0.000,0.000
1640670945886266880,2021-12-28-05:55:45,10.1.1.9,4,-0.000,-0.000,0.000,0.000,0.000,0.000
1640670947933661952,2021-12-28-05:55:47,10.1.1.9,19,-0.000,-0.000,0.000,0.000,0.000,0.000
1640670949958348032,2021-12-28-05:55:49,10.1.1.9,15,-0.000,-0.000,0.000,0.000,0.000,0.000
1640670952041827072,2021-12-28-05:55:52,10.1.1.9,16,-0.000,-0.000,0.000,0.000,0.000,0.000
1640670954063444992,2021-12-28-05:55:54,10.1.1.9,15,-0.000,-0.000,0.000,0.000,0.000,0.000
1640670956083792896,2021-12-28-05:55:56,10.1.1.9,9,-0.000,-0.000,0.000,0.000,0.000,0.000
1640670958143020032,2021-12-28-05:55:58,10.1.1.9,5,-0.000,-0.000,0.000,0.000,0.000,0.000
1640670960182004992,2021-12-28-05:56:00,10.1.1.9,5,-0.000,-0.000,0.000,0.000,0.000,0.000
1640670962220172800,2021-12-28-05:56:02,10.1.1.9,0,-0.000,-0.000,0.000,0.000,0.000,0.000
1640670964257662976,2021-12-28-05:56:04,10.1.1.9,0,-0.000,-0.000,0.000,0.000,0.000,0.000
1640670966335567872,2021-12-28-05:56:06,10.1.1.9,12,-0.000,-0.000,0.000,0.000,0.000,0.000
1640670968371857920,2021-12-28-05:56:08,10.1.1.9,18,-0.000,-0.000,0.000,0.000,0.000,0.000
1640670970448893952,2021-12-28-05:56:10,10.1.1.9,8,-0.000,-0.000,0.000,0.000,0.000,0.000
1640670972486305024,2021-12-28-05:56:12,10.1.1.9,1,-0.000,-0.000,0.000,0.000,0.000,0.000
1640670974522817024,2021-12-28-05:56:14,10.1.1.9,2,-0.000,-0.000,0.000,0.000,0.000,0.000
1640670976562721024,2021-12-28-05:56:16,10.1.1.9,20,-0.000,-0.000,0.000,0.000,0.000,0.000
1640670978567022080,2021-12-28-05:56:18,10.1.1.9,1,-0.000,-0.000,0.000,0.000,0.000,0.000
1640670980654387968,2021-12-28-05:56:20,10.1.1.9,13,-0.000,-0.000,0.000,0.000,0.000,0.000
1640670982699872000,2021-12-28-05:56:22,10.1.1.9,2,-0.000,-0.000,0.000,0.000,0.000,0.000
1640670984762288128,2021-12-28-05:56:24,10.1.1.9,12,-0.000,-0.000,0.000,0.000,0.000,0.000
1640670986782955008,2021-12-28-05:56:26,10.1.1.9,3,-0.000,-0.000,0.000,0.000,0.000,0.000
1640670988843864832,2021-12-28-05:56:28,10.1.1.9,5,-0.000,-0.000,0.000,0.000,0.000,0.000
1640670990883172096,2021-12-28-05:56:30,10.1.1.9,15,-0.000,-0.000,0.000,0.000,0.000,0.000
1640670992901896960,2021-12-28-05:56:32,10.1.1.9,4,-0.000,-0.000,0.000,0.000,0.000,0.000
1640670995000243968,2021-12-28-05:56:35,10.1.1.9,16,-0.000,-0.000,0.000,0.000,0.000,0.000
1640670997017099008,2021-12-28-05:56:37,10.1.1.9,2,-0.000,-0.000,0.000,0.000,0.000,0.000
1640670999114772992,2021-12-28-05:56:39,10.1.1.9,13,-0.000,-0.000,0.000,0.000,0.000,0.000
1640671001171817984,2021-12-28-05:56:41,10.1.1.9,0,-0.000,-0.000,0.000,0.000,0.000,0.000
1640671003228813056,2021-12-28-05:56:43,10.1.1.9,15,-0.000,-0.000,0.000,0.000,0.000,0.000
1640671005305475072,2021-12-28-05:56:45,10.1.1.9,15,-0.000,-0.000,0.000,0.000,0.000,0.000
1640671007342458880,2021-12-28-05:56:47,10.1.1.9,5,-0.000,-0.000,0.000,0.000,0.000,0.000
1640671009462464000,2021-12-28-05:56:49,10.1.1.9,19,-0.000,-0.000,0.000,0.000,0.000,0.000
1640671011531431936,2021-12-28-05:56:51,10.1.1.9,18,-0.000,-0.000,0.000,0.000,0.000,0.000
1640671013557863936,2021-12-28-05:56:53,10.1.1.9,13,-0.000,-0.000,0.000,0.000,0.000,0.000
1640671015621870080,2021-12-28-05:56:55,10.1.1.9,8,-0.000,-0.000,0.000,0.000,0.000,0.000
1640671017643235840,2021-12-28-05:56:57,10.1.1.9,3,-0.000,-0.000,0.000,0.000,0.000,0.000
1640671019823705856,2021-12-28-05:56:59,10.1.1.9,7,-0.000,-0.000,0.000,0.000,0.000,0.000
1640671021863964928,2021-12-28-05:57:01,10.1.1.9,5,-0.000,-0.000,0.000,0.000,0.000,0.000
1640671024003580928,2021-12-28-05:57:04,10.1.1.9,13,-0.000,-0.000,0.000,0.000,0.000,0.000
1640671026021414912,2021-12-28-05:57:06,10.1.1.9,0,-0.000,-0.000,0.000,0.000,0.000,0.000
1640671028059081984,2021-12-28-05:57:08,10.1.1.9,6,-0.000,-0.000,0.000,0.000,0.000,0.000
1640671030096689920,2021-12-28-05:57:10,10.1.1.9,19,-0.000,-0.000,0.000,0.000,0.000,0.000
1640671032173993216,2021-12-28-05:57:12,10.1.1.9,8,-0.000,-0.000,0.000,0.000,0.000,0.000
1640671034329864960,2021-12-28-05:57:14,10.1.1.9,13,-0.000,-0.000,0.000,0.000,0.000,0.000
1640671036447017984,2021-12-28-05:57:16,10.1.1.9,5,-0.000,-0.000,0.000,0.000,0.000,0.000
1640671038504515840,2021-12-28-05:57:18,10.1.1.9,13,-0.000,-0.000,0.000,0.000,0.000,0.000
1640671040581018880,2021-12-28-05:57:20,10.1.1.9,5,-0.000,-0.000,0.000,0.000,0.000,0.000
1640671042648495872,2021-12-28-05:57:22,10.1.1.9,1,-0.000,-0.000,0.000,0.000,0.000,0.000
1640671044716176128,2021-12-28-05:57:24,10.1.1.9,19,-0.000,-0.000,0.000,0.000,0.000,0.000
1640671046760495872,2021-12-28-05:57:26,10.1.1.9,1,-0.000,-0.000,0.000,0.000,0.000,0.000
1640671048782962176,2021-12-28-05:57:28,10.1.1.9,7,-0.000,-0.000,0.000,0.000,0.000,0.000
1640671050904916992,2021-12-28-05:57:30,10.1.1.9,18,-0.000,-0.000,0.000,0.000,0.000,0.000
1640671052924647168,2021-12-28-05:57:32,10.1.1.9,11,-0.000,-0.000,0.000,0.000,0.000,0.000
1640671054984128000,2021-12-28-05:57:34,10.1.1.9,7,-0.000,-0.000,0.000,0.000,0.000,0.000
1640671057023211008,2021-12-28-05:57:37,10.1.1.9,12,-0.000,-0.000,0.000,0.000,0.000,0.000
1640671059080710912,2021-12-28-05:57:39,10.1.1.9,6,-0.000,-0.000,0.000,0.000,0.000,0.000
1640671061178505984,2021-12-28-05:57:41,10.1.1.9,12,-0.000,-0.000,0.000,0.000,0.000,0.000
1640671063257478912,2021-12-28-05:57:43,10.1.1.9,5,-0.000,-0.000,0.000,0.000,0.000,0.000
1640671065333563136,2021-12-28-05:57:45,10.1.1.9,5,-0.000,-0.000,0.000,0.000,0.000,0.000
1640671067350665984,2021-12-28-05:57:47,10.1.1.9,0,-0.000,-0.000,0.000,0.000,0.000,0.000
1640671069406758144,2021-12-28-05:57:49,10.1.1.9,19,-0.000,-0.000,0.000,0.000,0.000,0.000
1640671071443763968,2021-12-28-05:57:51,10.1.1.9,14,-0.000,-0.000,0.000,0.000,0.000,0.000
1640671073560832000,2021-12-28-05:57:53,10.1.1.9,12,-0.000,-0.000,0.000,0.000,0.000,0.000
1640671075627811840,2021-12-28-05:57:55,10.1.1.9,10,-0.000,-0.000,0.000,0.000,0.000,0.000
1640671077694770944,2021-12-28-05:57:57,10.1.1.9,6,-0.000,-0.000,0.000,0.000,0.000,0.000
1640671079760164864,2021-12-28-05:57:59,10.1.1.9,0,-0.000,-0.000,0.000,0.000,0.000,0.000
1640671081822115840,2021-12-28-05:58:01,10.1.1.9,1,-0.000,-0.000,0.000,0.000,0.000,0.000
1640671083884694016,2021-12-28-05:58:03,10.1.1.9,6,-0.000,-0.000,0.000,0.000,0.000,0.000
1640671085923465984,2021-12-28-05:58:05,10.1.1.9,15,-0.000,-0.000,0.000,0.000,0.000,0.000
1640671087943403008,2021-12-28-05:58:07,10.1.1.9,7,-0.000,-0.000,0.000,0.000,0.000,0.000
1640671089984009984,2021-12-28-05:58:09,10.1.1.9,13,-0.000,-0.000,0.000,0.000,0.000,0.000
1640671092080281856,2021-12-28-05:58:12,10.1.1.9,1,-0.000,-0.000,0.000,0.000,0.000,0.000
1640671094118107136,2021-12-28-05:58:14,10.1.1.9,1,-0.000,-0.000,0.000,0.000,0.000,0.000
1640671096194969856,2021-12-28-05:58:16,10.1.1.9,18,-0.000,-0.000,0.000,0.000,0.000,0.000
1640671098232686080,2021-12-28-05:58:18,10.1.1.9,13,-0.000,-0.000,0.000,0.000,0.000,0.000
1640671100289900032,2021-12-28-05:58:20,10.1.1.9,4,-0.000,-0.000,0.000,0.000,0.000,0.000
1640671102386182912,2021-12-28-05:58:22,10.1.1.9,11,-0.000,-0.000,0.000,0.000,0.000,0.000
1640671104442786048,2021-12-28-05:58:24,10.1.1.9,1,-0.000,-0.000,0.000,0.000,0.000,0.000
1640671106482878976,2021-12-28-05:58:26,10.1.1.9,5,-0.000,-0.000,0.000,0.000,0.000,0.000
1640671108632638976,2021-12-28-05:58:28,10.1.1.9,9,-0.000,-0.000,0.000,0.000,0.000,0.000
1640671110638631168,2021-12-28-05:58:30,10.1.1.9,6,-0.000,-0.000,0.000,0.000,0.000,0.000
1640671112902761984,2021-12-28-05:58:32,10.1.1.9,17,-0.000,-0.000,0.000,0.000,0.000,0.000
1640671114984051968,2021-12-28-05:58:34,10.1.1.9,8,-0.000,-0.000,0.000,0.000,0.000,0.000
1640671117184720896,2021-12-28-05:58:37,10.1.1.9,13,-0.000,-0.000,0.000,0.000,0.000,0.000
1640671119224093952,2021-12-28-05:58:39,10.1.1.9,13,-0.000,-0.000,0.000,0.000,0.000,0.000
1640671121283328000,2021-12-28-05:58:41,10.1.1.9,13,-0.000,-0.000,0.000,0.000,0.000,0.000
1640671123341849088,2021-12-28-05:58:43,10.1.1.9,3,-0.000,-0.000,0.000,0.000,0.000,0.000
1640671125480868096,2021-12-28-05:58:45,10.1.1.9,20,-0.000,-0.000,0.000,0.000,0.000,0.000
1640671127516674048,2021-12-28-05:58:47,10.1.1.9,6,-0.000,-0.000,0.000,0.000,0.000,0.000
1640671129554195968,2021-12-28-05:58:49,10.1.1.9,11,-0.000,-0.000,0.000,0.000,0.000,0.000
1640671131650824192,2021-12-28-05:58:51,10.1.1.9,6,-0.000,-0.000,0.000,0.000,0.000,0.000
1640671133727961088,2021-12-28-05:58:53,10.1.1.9,13,-0.000,-0.000,0.000,0.000,0.000,0.000
1640671135764120064,2021-12-28-05:58:55,10.1.1.9,8,-0.000,-0.000,0.000,0.000,0.000,0.000
1640671137922422784,2021-12-28-05:58:57,10.1.1.9,2,-0.000,-0.000,0.000,0.000,0.000,0.000
1640671140011262976,2021-12-28-05:59:00,10.1.1.9,8,-0.000,-0.000,0.000,0.000,0.000,0.000
1640671142037730048,2021-12-28-05:59:02,10.1.1.9,16,-0.000,-0.000,0.000,0.000,0.000,0.000
1640671144041920000,2021-12-28-05:59:04,10.1.1.9,9,-0.000,-0.000,0.000,0.000,0.000,0.000
1640671146064128000,2021-12-28-05:59:06,10.1.1.9,3,-0.000,-0.000,0.000,0.000,0.000,0.000
1640671148205310976,2021-12-28-05:59:08,10.1.1.9,13,-0.000,-0.000,0.000,0.000,0.000,0.000
1640671150325218048,2021-12-28-05:59:10,10.1.1.9,3,-0.000,-0.000,0.000,0.000,0.000,0.000
1640671152364409088,2021-12-28-05:59:12,10.1.1.9,17,-0.000,-0.000,0.000,0.000,0.000,0.000
1640671154423083008,2021-12-28-05:59:14,10.1.1.9,16,-0.000,-0.000,0.000,0.000,0.000,0.000
1640671156460948992,2021-12-28-05:59:16,10.1.1.9,13,-0.000,-0.000,0.000,0.000,0.000,0.000
1640671158498234112,2021-12-28-05:59:18,10.1.1.9,11,-0.000,-0.000,0.000,0.000,0.000,0.000
1640671160576212992,2021-12-28-05:59:20,10.1.1.9,6,-0.000,-0.000,0.000,0.000,0.000,0.000
1640671162613451008,2021-12-28-05:59:22,10.1.1.9,5,-0.000,-0.000,0.000,0.000,0.000,0.000
1640671164649956864,2021-12-28-05:59:24,10.1.1.9,12,-0.000,-0.000,0.000,0.000,0.000,0.000
1640671166688271104,2021-12-28-05:59:26,10.1.1.9,2,-0.000,-0.000,0.000,0.000,0.000,0.000
1640671168744456960,2021-12-28-05:59:28,10.1.1.9,12,-0.000,-0.000,0.000,0.000,0.000,0.000
1640671170826337024,2021-12-28-05:59:30,10.1.1.9,13,-0.000,-0.000,0.000,0.000,0.000,0.000
1640671172856082944,2021-12-28-05:59:32,10.1.1.9,3,-0.000,-0.000,0.000,0.000,0.000,0.000
1640671174902086144,2021-12-28-05:59:34,10.1.1.9,3,-0.000,-0.000,0.000,0.000,0.000,0.000
1640671176925869056,2021-12-28-05:59:36,10.1.1.9,8,-0.000,-0.000,0.000,0.000,0.000,0.000
1640671178967886080,2021-12-28-05:59:38,10.1.1.9,13,-0.000,-0.000,0.000,0.000,0.000,0.000
1640671180989420032,2021-12-28-05:59:40,10.1.1.9,6,-0.000,-0.000,0.000,0.000,0.000,0.000
1640671183128113152,2021-12-28-05:59:43,10.1.1.9,14,-0.000,-0.000,0.000,0.000,0.000,0.000
1640671185206526976,2021-12-28-05:59:45,10.1.1.9,12,-0.000,-0.000,0.000,0.000,0.000,0.000
1640671187266109952,2021-12-28-05:59:47,10.1.1.9,20,-0.000,-0.000,0.000,0.000,0.000,0.000
1640671189283504896,2021-12-28-05:59:49,10.1.1.9,0,-0.000,-0.000,0.000,0.000,0.000,0.000
1640671191341111040,2021-12-28-05:59:51,10.1.1.9,11,-0.000,-0.000,0.000,0.000,0.000,0.000
1640671193398272000,2021-12-28-05:59:53,10.1.1.9,19,-0.000,-0.000,0.000,0.000,0.000,0.000
1640671195455697152,2021-12-28-05:59:55,10.1.1.9,13,-0.000,-0.000,0.000,0.000,0.000,0.000
1640671197473499136,2021-12-28-05:59:57,10.1.1.9,0,-0.000,-0.000,0.000,0.000,0.000,0.000
1640671199508861952,2021-12-28-05:59:59,10.1.1.9,5,-0.000,-0.000,0.000,0.000,0.000,0.000
1640671201565735168,2021-12-28-06:00:01,10.1.1.9,10,-0.000,-0.000,0.000,0.000,0.000,0.000
1640671203606461952,2021-12-28-06:00:03,10.1.1.9,19,-0.000,-0.000,0.000,0.000,0.000,0.000
1640671205617103104,2021-12-28-06:00:05,10.1.1.9,4,-0.000,-0.000,0.000,0.000,0.000,0.000
1640671207661729024,2021-12-28-06:00:07,10.1.1.9,10,-0.000,-0.000,0.000,0.000,0.000,0.000
1640671209784744960,2021-12-28-06:00:09,10.1.1.9,16,-0.000,-0.000,0.000,0.000,0.000,0.000
1640671211785501952,2021-12-28-06:00:11,10.1.1.9,11,-0.000,-0.000,0.000,0.000,0.000,0.000
1640671213925682176,2021-12-28-06:00:13,10.1.1.9,10,-0.000,-0.000,0.000,0.000,0.000,0.000
1640671216045746176,2021-12-28-06:00:16,10.1.1.9,14,-0.000,-0.000,0.000,0.000,0.000,0.000
1640671218125180928,2021-12-28-06:00:18,10.1.1.9,15,-0.000,-0.000,0.000,0.000,0.000,0.000
1640671220182384128,2021-12-28-06:00:20,10.1.1.9,6,-0.000,-0.000,0.000,0.000,0.000,0.000
1640671222240811008,2021-12-28-06:00:22,10.1.1.9,16,-0.000,-0.000,0.000,0.000,0.000,0.000
1640671224297848064,2021-12-28-06:00:24,10.1.1.9,13,-0.000,-0.000,0.000,0.000,0.000,0.000
1640671226354535936,2021-12-28-06:00:26,10.1.1.9,11,-0.000,-0.000,0.000,0.000,0.000,0.000
1640671228391985920,2021-12-28-06:00:28,10.1.1.9,14,-0.000,-0.000,0.000,0.000,0.000,0.000
1640671230409069056,2021-12-28-06:00:30,10.1.1.9,7,-0.000,-0.000,0.000,0.000,0.000,0.000
1640671232525417984,2021-12-28-06:00:32,10.1.1.9,12,-0.000,-0.000,0.000,0.000,0.000,0.000
1640671234645043968,2021-12-28-06:00:34,10.1.1.9,15,-0.000,-0.000,0.000,0.000,0.000,0.000
1640671236692712960,2021-12-28-06:00:36,10.1.1.9,16,-0.000,-0.000,0.000,0.000,0.000,0.000
1640671238798245888,2021-12-28-06:00:38,10.1.1.9,3,-0.000,-0.000,0.000,0.000,0.000,0.000
1640671240882714112,2021-12-28-06:00:40,10.1.1.9,16,-0.000,-0.000,0.000,0.000,0.000,0.000
1640671242924918784,2021-12-28-06:00:42,10.1.1.9,8,-0.000,-0.000,0.000,0.000,0.000,0.000
1640671244986296064,2021-12-28-06:00:44,10.1.1.9,18,-0.000,-0.000,0.000,0.000,0.000,0.000
1640671247126136064,2021-12-28-06:00:47,10.1.1.9,16,-0.000,-0.000,0.000,0.000,0.000,0.000
1640671249245799168,2021-12-28-06:00:49,10.1.1.9,13,-0.000,-0.000,0.000,0.000,0.000,0.000
1640671251343053056,2021-12-28-06:00:51,10.1.1.9,17,-0.000,-0.000,0.000,0.000,0.000,0.000
1640671253402225920,2021-12-28-06:00:53,10.1.1.9,18,-0.000,-0.000,0.000,0.000,0.000,0.000
1640671255419373056,2021-12-28-06:00:55,10.1.1.9,13,-0.000,-0.000,0.000,0.000,0.000,0.000
1640671257477287168,2021-12-28-06:00:57,10.1.1.9,7,-0.000,-0.000,0.000,0.000,0.000,0.000
1640671259493850880,2021-12-28-06:00:59,10.1.1.9,14,-0.000,-0.000,0.000,0.000,0.000,0.000
1640671263607291904,2021-12-28-06:01:03,10.1.1.9,0,-0.000,-0.000,0.000,0.000,0.000,0.000
1640671265704349952,2021-12-28-06:01:05,10.1.1.9,11,-0.000,-0.000,0.000,0.000,0.000,0.000
1640671267767849984,2021-12-28-06:01:07,10.1.1.9,17,-0.000,-0.000,0.000,0.000,0.000,0.000
1640671269795495936,2021-12-28-06:01:09,10.1.1.9,11,-0.000,-0.000,0.000,0.000,0.000,0.000
1640671271802851072,2021-12-28-06:01:11,10.1.1.9,1,-0.000,-0.000,0.000,0.000,0.000,0.000
1640671273845761024,2021-12-28-06:01:13,10.1.1.9,16,-0.000,-0.000,0.000,0.000,0.000,0.000
1640671275847278080,2021-12-28-06:01:15,10.1.1.9,13,-0.000,-0.000,0.000,0.000,0.000,0.000
1640671277867904000,2021-12-28-06:01:17,10.1.1.9,19,-0.000,-0.000,0.000,0.000,0.000,0.000
1640671279928389120,2021-12-28-06:01:19,10.1.1.9,7,-0.000,-0.000,0.000,0.000,0.000,0.000
1640671281967747840,2021-12-28-06:01:21,10.1.1.9,2,-0.000,-0.000,0.000,0.000,0.000,0.000
1640671284025122816,2021-12-28-06:01:24,10.1.1.9,7,-0.000,-0.000,0.000,0.000,0.000,0.000
1640671286063215872,2021-12-28-06:01:26,10.1.1.9,19,-0.000,-0.000,0.000,0.000,0.000,0.000
1640671288080472832,2021-12-28-06:01:28,10.1.1.9,12,-0.000,-0.000,0.000,0.000,0.000,0.000
1640671290117635840,2021-12-28-06:01:30,10.1.1.9,18,-0.000,-0.000,0.000,0.000,0.000,0.000
1640671292115216128,2021-12-28-06:01:32,10.1.1.9,5,-0.000,-0.000,0.000,0.000,0.000,0.000
1640671294171489024,2021-12-28-06:01:34,10.1.1.9,13,-0.000,-0.000,0.000,0.000,0.000,0.000
1640671296229182976,2021-12-28-06:01:36,10.1.1.9,15,-0.000,-0.000,0.000,0.000,0.000,0.000
1640671298246445056,2021-12-28-06:01:38,10.1.1.9,11,-0.000,-0.000,0.000,0.000,0.000,0.000
1640671300291002112,2021-12-28-06:01:40,10.1.1.9,19,-0.000,-0.000,0.000,0.000,0.000,0.000
1640671302299320832,2021-12-28-06:01:42,10.1.1.9,3,-0.000,-0.000,0.000,0.000,0.000,0.000
1640671304346971904,2021-12-28-06:01:44,10.1.1.9,15,-0.000,-0.000,0.000,0.000,0.000,0.000
1640671306374560000,2021-12-28-06:01:46,10.1.1.9,20,-0.000,-0.000,0.000,0.000,0.000,0.000
1640671308509483008,2021-12-28-06:01:48,10.1.1.9,1,-0.000,-0.000,0.000,0.000,0.000,0.000
1640671313548978944,2021-12-28-06:01:53,10.1.1.9,14,-0.460,-0.460,-0.460,0.000,0.000,0.000
1640671313668530944,2021-12-28-06:01:53,10.1.1.9,7,-0.460,-0.460,-0.460,0.000,0.000,0.000
1640671315647290112,2021-12-28-06:01:55,10.1.1.9,5,-0.460,-0.460,-0.460,0.000,0.000,0.000
1640671315787111168,2021-12-28-06:01:55,10.1.1.9,17,-0.460,-0.460,-0.460,0.000,0.000,0.000
1640671317724880896,2021-12-28-06:01:57,10.1.1.9,12,-0.460,-0.460,-0.460,0.000,0.000,0.000
1640671317844922112,2021-12-28-06:01:57,10.1.1.9,6,-0.460,-0.460,-0.460,0.000,0.000,0.000
1640671319823854080,2021-12-28-06:01:59,10.1.1.9,18,-0.460,-0.460,-0.460,0.000,0.000,0.000
1640671319942846976,2021-12-28-06:01:59,10.1.1.9,13,-0.460,-0.460,-0.460,0.000,0.000,0.000
1640671321839732992,2021-12-28-06:02:01,10.1.1.9,6,-0.460,-0.460,-0.460,0.000,0.000,0.000
1640671321961359872,2021-12-28-06:02:01,10.1.1.9,5,-0.460,-0.460,-0.460,0.000,0.000,0.000
1640671323876599040,2021-12-28-06:02:03,10.1.1.9,17,-0.460,-0.460,-0.460,0.000,0.000,0.000
1640671323996651776,2021-12-28-06:02:03,10.1.1.9,13,-0.460,-0.460,-0.460,0.000,0.000,0.000
1640671325873445120,2021-12-28-06:02:05,10.1.1.9,2,-0.460,-0.460,-0.460,0.000,0.000,0.000
1640671325993725184,2021-12-28-06:02:05,10.1.1.9,0,-0.460,-0.460,-0.460,0.000,0.000,0.000
1640671327910345984,2021-12-28-06:02:07,10.1.1.9,13,-0.460,-0.460,-0.460,0.000,0.000,0.000
1640671328031069952,2021-12-28-06:02:08,10.1.1.9,8,-0.460,-0.460,-0.460,0.000,0.000,0.000
1640671329987741952,2021-12-28-06:02:09,10.1.1.9,12,-0.460,-0.460,-0.460,0.000,0.000,0.000
1640671330106903040,2021-12-28-06:02:10,10.1.1.9,7,-0.460,-0.460,-0.460,0.000,0.000,0.000
1640671332004240128,2021-12-28-06:02:12,10.1.1.9,5,-0.460,-0.460,-0.460,0.000,0.000,0.000
1640671332124769024,2021-12-28-06:02:12,10.1.1.9,2,-0.460,-0.460,-0.460,0.000,0.000,0.000
1640671334013315840,2021-12-28-06:02:14,10.1.1.9,5,-0.460,-0.460,-0.460,0.000,0.000,0.000
1640671334134110976,2021-12-28-06:02:14,10.1.1.9,2,-0.460,-0.460,-0.460,0.000,0.000,0.000
1640671336059750144,2021-12-28-06:02:16,10.1.1.9,16,-0.460,-0.460,-0.460,0.000,0.000,0.000
1640671336179809024,2021-12-28-06:02:16,10.1.1.9,13,-0.460,-0.460,-0.460,0.000,0.000,0.000
1640671338084038144,2021-12-28-06:02:18,10.1.1.9,20,-0.460,-0.460,-0.460,0.000,0.000,0.000
1640671338204071936,2021-12-28-06:02:18,10.1.1.9,14,-0.460,-0.460,-0.460,0.000,0.000,0.000
1640671340085812992,2021-12-28-06:02:20,10.1.1.9,6,-0.460,-0.460,-0.460,0.000,0.000,0.000
1640671340205661184,2021-12-28-06:02:20,10.1.1.9,2,-0.460,-0.460,-0.460,0.000,0.000,0.000
1640671342106205952,2021-12-28-06:02:22,10.1.1.9,5,-0.460,-0.460,-0.460,0.000,0.000,0.000
1640671342226422016,2021-12-28-06:02:22,10.1.1.9,2,-0.460,-0.460,-0.460,0.000,0.000,0.000
1640671344126734848,2021-12-28-06:02:24,10.1.1.9,18,-0.460,-0.460,-0.460,0.000,0.000,0.000
1640671344246434048,2021-12-28-06:02:24,10.1.1.9,15,-0.460,-0.460,-0.460,0.000,0.000,0.000
1640671346126003968,2021-12-28-06:02:26,10.1.1.9,2,-0.460,-0.460,-0.460,0.000,0.000,0.000
1640671346246355968,2021-12-28-06:02:26,10.1.1.9,1,-0.460,-0.460,-0.460,0.000,0.000,0.000
1640671348164768000,2021-12-28-06:02:28,10.1.1.9,6,-0.460,-0.460,-0.460,0.000,0.000,0.000
1640671348283913984,2021-12-28-06:02:28,10.1.1.9,2,-0.460,-0.460,-0.460,0.000,0.000,0.000
1640671350221971968,2021-12-28-06:02:30,10.1.1.9,13,-0.460,-0.460,-0.460,0.000,0.000,0.000
1640671350341458176,2021-12-28-06:02:30,10.1.1.9,10,-0.460,-0.460,-0.460,0.000,0.000,0.000
1640671352261008128,2021-12-28-06:02:32,10.1.1.9,21,-0.460,-0.460,-0.460,0.000,0.000,0.000
1640671352398951936,2021-12-28-06:02:32,10.1.1.9,3,-0.460,-0.460,-0.460,0.000,0.000,0.000
1640671354336803840,2021-12-28-06:02:34,10.1.1.9,19,-0.460,-0.460,-0.460,0.000,0.000,0.000
1640671354456440064,2021-12-28-06:02:34,10.1.1.9,15,-0.460,-0.460,-0.460,0.000,0.000,0.000
1640671356353289984,2021-12-28-06:02:36,10.1.1.9,9,-0.460,-0.460,-0.460,0.000,0.000,0.000
1640671356474544896,2021-12-28-06:02:36,10.1.1.9,6,-0.460,-0.460,-0.460,0.000,0.000,0.000
1640671358450850048,2021-12-28-06:02:38,10.1.1.9,16,-0.460,-0.460,-0.460,0.000,0.000,0.000
1640671358571491840,2021-12-28-06:02:38,10.1.1.9,12,-0.460,-0.460,-0.460,0.000,0.000,0.000
1640671360487258880,2021-12-28-06:02:40,10.1.1.9,7,-0.460,-0.460,-0.460,0.000,0.000,0.000
1640671360608304128,2021-12-28-06:02:40,10.1.1.9,4,-0.460,-0.460,-0.460,0.000,0.000,0.000
1640671362564079104,2021-12-28-06:02:42,10.1.1.9,17,-0.460,-0.460,-0.460,0.000,0.000,0.000
1640671362684953856,2021-12-28-06:02:42,10.1.1.9,12,-0.460,-0.460,-0.460,0.000,0.000,0.000
1640671364586791936,2021-12-28-06:02:44,10.1.1.9,14,-0.460,-0.460,-0.460,0.000,0.000,0.000
1640671364705710848,2021-12-28-06:02:44,10.1.1.9,12,-0.460,-0.460,-0.460,0.000,0.000,0.000
1640671366694621184,2021-12-28-06:02:46,10.1.1.9,12,-0.460,-0.460,-0.460,0.000,0.000,0.000
1640671366814812928,2021-12-28-06:02:46,10.1.1.9,9,-0.460,-0.460,-0.460,0.000,0.000,0.000
1640671368700491008,2021-12-28-06:02:48,10.1.1.9,12,-0.460,-0.460,-0.460,0.000,0.000,0.000
1640671368820606976,2021-12-28-06:02:48,10.1.1.9,10,-0.460,-0.460,-0.460,0.000,0.000,0.000
1640671370704696832,2021-12-28-06:02:50,10.1.1.9,0,-0.460,-0.460,-0.460,0.000,0.000,0.000
1640671370844486912,2021-12-28-06:02:50,10.1.1.9,16,-0.460,-0.460,-0.460,0.000,0.000,0.000
1640671372866246912,2021-12-28-06:02:52,10.1.1.9,18,-0.460,-0.460,-0.460,0.000,0.000,0.000
1640671372986373888,2021-12-28-06:02:52,10.1.1.9,11,-0.460,-0.460,-0.460,0.000,0.000,0.000
1640671374907366912,2021-12-28-06:02:54,10.1.1.9,15,-0.460,-0.460,-0.460,0.000,0.000,0.000
1640671375027281920,2021-12-28-06:02:55,10.1.1.9,12,-0.460,-0.460,-0.460,0.000,0.000,0.000
1640671376947683072,2021-12-28-06:02:56,10.1.1.9,8,-0.460,-0.460,-0.460,0.000,0.000,0.000
1640671377068582912,2021-12-28-06:02:57,10.1.1.9,5,-0.460,-0.460,-0.460,0.000,0.000,0.000
1640671379046316032,2021-12-28-06:02:59,10.1.1.9,15,-0.460,-0.460,-0.460,0.000,0.000,0.000
1640671379165504000,2021-12-28-06:02:59,10.1.1.9,10,-0.460,-0.460,-0.460,0.000,0.000,0.000
1640671381124874240,2021-12-28-06:03:01,10.1.1.9,14,-0.460,-0.460,-0.460,0.000,0.000,0.000
1640671381244966912,2021-12-28-06:03:01,10.1.1.9,6,-0.460,-0.460,-0.460,0.000,0.000,0.000
1640671383182086912,2021-12-28-06:03:03,10.1.1.9,8,-0.460,-0.460,-0.460,0.000,0.000,0.000
1640671383301840896,2021-12-28-06:03:03,10.1.1.9,5,-0.460,-0.460,-0.460,0.000,0.000,0.000
1640671385319495936,2021-12-28-06:03:05,10.1.1.9,12,-0.460,-0.460,-0.460,0.000,0.000,0.000
1640671385439058944,2021-12-28-06:03:05,10.1.1.9,8,-0.460,-0.460,-0.460,0.000,0.000,0.000
1640671387356872960,2021-12-28-06:03:07,10.1.1.9,19,-0.460,-0.460,-0.460,0.000,0.000,0.000
1640671387476422912,2021-12-28-06:03:07,10.1.1.9,14,-0.460,-0.460,-0.460,0.000,0.000,0.000
1640671389393219840,2021-12-28-06:03:09,10.1.1.9,19,-0.460,-0.460,-0.460,0.000,0.000,0.000
1640671389512798976,2021-12-28-06:03:09,10.1.1.9,10,-0.460,-0.460,-0.460,0.000,0.000,0.000
1640671391430886912,2021-12-28-06:03:11,10.1.1.9,11,-0.460,-0.460,-0.460,0.000,0.000,0.000
1640671391551614976,2021-12-28-06:03:11,10.1.1.9,8,-0.460,-0.460,-0.460,0.000,0.000,0.000
1640671393468338944,2021-12-28-06:03:13,10.1.1.9,1,-0.460,-0.460,-0.460,0.000,0.000,0.000
1640671393608097024,2021-12-28-06:03:13,10.1.1.9,14,-0.460,-0.460,-0.460,0.000,0.000,0.000
1640671395564625920,2021-12-28-06:03:15,10.1.1.9,4,-0.460,-0.460,-0.460,0.000,0.000,0.000
1640671395704380160,2021-12-28-06:03:15,10.1.1.9,19,-0.460,-0.460,-0.460,0.000,0.000,0.000
1640671397652308992,2021-12-28-06:03:17,10.1.1.9,6,-0.460,-0.460,-0.460,0.000,0.000,0.000
1640671397812151040,2021-12-28-06:03:17,10.1.1.9,6,-0.460,-0.460,-0.460,0.000,0.000,0.000
1640671399719206144,2021-12-28-06:03:19,10.1.1.9,3,-0.460,-0.460,-0.460,0.000,0.000,0.000
1640671399859375872,2021-12-28-06:03:19,10.1.1.9,18,-0.460,-0.460,-0.460,0.000,0.000,0.000
1640671401803403008,2021-12-28-06:03:21,10.1.1.9,12,-0.460,-0.460,-0.460,0.000,0.000,0.000
1640671401924197888,2021-12-28-06:03:21,10.1.1.9,7,-0.460,-0.460,-0.460,0.000,0.000,0.000
1640671403906121984,2021-12-28-06:03:23,10.1.1.9,4,-0.460,-0.460,-0.460,0.000,0.000,0.000
1640671404026461952,2021-12-28-06:03:24,10.1.1.9,0,-0.460,-0.460,-0.460,0.000,0.000,0.000
1640671405947638016,2021-12-28-06:03:25,10.1.1.9,10,-0.460,-0.460,-0.460,0.000,0.000,0.000
1640671406068172032,2021-12-28-06:03:26,10.1.1.9,1,-0.460,-0.460,-0.460,0.000,0.000,0.000
1640671408087876096,2021-12-28-06:03:28,10.1.1.9,6,-0.460,-0.460,-0.460,0.000,0.000,0.000
1640671408207545088,2021-12-28-06:03:28,10.1.1.9,1,-0.460,-0.460,-0.460,0.000,0.000,0.000
1640671410206855936,2021-12-28-06:03:30,10.1.1.9,2,-0.460,-0.460,-0.460,0.000,0.000,0.000
1640671410346352128,2021-12-28-06:03:30,10.1.1.9,17,-0.460,-0.460,-0.460,0.000,0.000,0.000
1640671412285203968,2021-12-28-06:03:32,10.1.1.9,8,-0.460,-0.460,-0.460,0.000,0.000,0.000
1640671412405026048,2021-12-28-06:03:32,10.1.1.9,3,-0.460,-0.460,-0.460,0.000,0.000,0.000
1640671414343389952,2021-12-28-06:03:34,10.1.1.9,17,-0.460,-0.460,-0.460,0.000,0.000,0.000
1640671416400921088,2021-12-28-06:03:36,10.1.1.9,18,-0.460,-0.460,-0.460,0.000,0.000,0.000
1640671416520869888,2021-12-28-06:03:36,10.1.1.9,12,-0.460,-0.460,-0.460,0.000,0.000,0.000
1640671418537494016,2021-12-28-06:03:38,10.1.1.9,8,-0.460,-0.460,-0.460,0.000,0.000,0.000
1640671418657195008,2021-12-28-06:03:38,10.1.1.9,3,-0.460,-0.460,-0.460,0.000,0.000,0.000
1640671420594824192,2021-12-28-06:03:40,10.1.1.9,12,-0.460,-0.460,-0.460,0.000,0.000,0.000
1640671420714270208,2021-12-28-06:03:40,10.1.1.9,9,-0.460,-0.460,-0.460,0.000,0.000,0.000
1640671422612627968,2021-12-28-06:03:42,10.1.1.9,3,-0.460,-0.460,-0.460,0.000,0.000,0.000
1640671422752168960,2021-12-28-06:03:42,10.1.1.9,15,-0.460,-0.460,-0.460,0.000,0.000,0.000
1640671424708670976,2021-12-28-06:03:44,10.1.1.9,18,-0.460,-0.460,-0.460,0.000,0.000,0.000
1640671424828604928,2021-12-28-06:03:44,10.1.1.9,13,-0.460,-0.460,-0.460,0.000,0.000,0.000
1640671426745532160,2021-12-28-06:03:46,10.1.1.9,6,-0.460,-0.460,-0.460,0.000,0.000,0.000
1640671426864988928,2021-12-28-06:03:46,10.1.1.9,3,-0.460,-0.460,-0.460,0.000,0.000,0.000
1640671428951638016,2021-12-28-06:03:48,10.1.1.9,47,-0.460,-0.460,-0.460,0.000,0.000,0.000
1640671429069560064,2021-12-28-06:03:49,10.1.1.9,8,-0.460,-0.460,-0.460,0.000,0.000,0.000
1640671430957100032,2021-12-28-06:03:50,10.1.1.9,1,-0.460,-0.460,-0.460,0.000,0.000,0.000
1640671431097328896,2021-12-28-06:03:51,10.1.1.9,18,-0.460,-0.460,-0.460,0.000,0.000,0.000
1640671432982361088,2021-12-28-06:03:52,10.1.1.9,5,-0.460,-0.460,-0.460,0.000,0.000,0.000
1640671433102519040,2021-12-28-06:03:53,10.1.1.9,2,-0.460,-0.460,-0.460,0.000,0.000,0.000
1640671435104898816,2021-12-28-06:03:55,10.1.1.9,1,-0.460,-0.460,-0.460,0.000,0.000,0.000
1640671435245273088,2021-12-28-06:03:55,10.1.1.9,16,-0.460,-0.460,-0.460,0.000,0.000,0.000
1640671437167844096,2021-12-28-06:03:57,10.1.1.9,8,-0.460,-0.460,-0.460,0.000,0.000,0.000
1640671437286944000,2021-12-28-06:03:57,10.1.1.9,2,-0.460,-0.460,-0.460,0.000,0.000,0.000
1640671439207788032,2021-12-28-06:03:59,10.1.1.9,12,-0.460,-0.460,-0.460,0.000,0.000,0.000
1640671439327616000,2021-12-28-06:03:59,10.1.1.9,7,-0.460,-0.460,-0.460,0.000,0.000,0.000
1640671441267066880,2021-12-28-06:04:01,10.1.1.9,12,-0.460,-0.460,-0.460,0.000,0.000,0.000
1640671441386753024,2021-12-28-06:04:01,10.1.1.9,8,-0.460,-0.460,-0.460,0.000,0.000,0.000
1640671443305510144,2021-12-28-06:04:03,10.1.1.9,0,-0.460,-0.460,-0.460,0.000,0.000,0.000
1640671443445548032,2021-12-28-06:04:03,10.1.1.9,16,-0.460,-0.460,-0.460,0.000,0.000,0.000
1640671445443984128,2021-12-28-06:04:05,10.1.1.9,11,-0.460,-0.460,-0.460,0.000,0.000,0.000
1640671445563614976,2021-12-28-06:04:05,10.1.1.9,4,-0.460,-0.460,-0.460,0.000,0.000,0.000
1640671447502320128,2021-12-28-06:04:07,10.1.1.9,11,-0.460,-0.460,-0.460,0.000,0.000,0.000
1640671447622426880,2021-12-28-06:04:07,10.1.1.9,3,-0.460,-0.460,-0.460,0.000,0.000,0.000
1640671449579674112,2021-12-28-06:04:09,10.1.1.9,19,-0.460,-0.460,-0.460,0.000,0.000,0.000
1640671449698793984,2021-12-28-06:04:09,10.1.1.9,15,-0.460,-0.460,-0.460,0.000,0.000,0.000
1640671451615659008,2021-12-28-06:04:11,10.1.1.9,15,-0.460,-0.460,-0.460,0.000,0.000,0.000
1640671451735938048,2021-12-28-06:04:11,10.1.1.9,12,-0.460,-0.460,-0.460,0.000,0.000,0.000
1640671453692513024,2021-12-28-06:04:13,10.1.1.9,17,-0.460,-0.460,-0.460,0.000,0.000,0.000
1640671453812488192,2021-12-28-06:04:13,10.1.1.9,14,-0.460,-0.460,-0.460,0.000,0.000,0.000
1640671455730246912,2021-12-28-06:04:15,10.1.1.9,20,-0.460,-0.460,-0.460,0.000,0.000,0.000
1640671455849705984,2021-12-28-06:04:15,10.1.1.9,15,-0.460,-0.460,-0.460,0.000,0.000,0.000
1640671457746663168,2021-12-28-06:04:17,10.1.1.9,7,-0.460,-0.460,-0.460,0.000,0.000,0.000
1640671457865922816,2021-12-28-06:04:17,10.1.1.9,3,-0.460,-0.460,-0.460,0.000,0.000,0.000
1640671459823527936,2021-12-28-06:04:19,10.1.1.9,6,-0.460,-0.460,-0.460,0.000,0.000,0.000
1640671459943608064,2021-12-28-06:04:19,10.1.1.9,1,-0.460,-0.460,-0.460,0.000,0.000,0.000
1640671461886276096,2021-12-28-06:04:21,10.1.1.9,12,-0.460,-0.460,-0.460,0.000,0.000,0.000
1640671462006458112,2021-12-28-06:04:22,10.1.1.9,8,-0.460,-0.460,-0.460,0.000,0.000,0.000
1640671464094974976,2021-12-28-06:04:24,10.1.1.9,19,-0.460,-0.460,-0.460,0.000,0.000,0.000
1640671464215845120,2021-12-28-06:04:24,10.1.1.9,16,-0.460,-0.460,-0.460,0.000,0.000,0.000
1640671466140080896,2021-12-28-06:04:26,10.1.1.9,1,-0.460,-0.460,-0.460,0.000,0.000,0.000
1640671466280508160,2021-12-28-06:04:26,10.1.1.9,16,-0.460,-0.460,-0.460,0.000,0.000,0.000
1640671468203869184,2021-12-28-06:04:28,10.1.1.9,6,-0.460,-0.460,-0.460,0.000,0.000,0.000
1640671468324296960,2021-12-28-06:04:28,10.1.1.9,1,-0.460,-0.460,-0.460,0.000,0.000,0.000
1640671470224331008,2021-12-28-06:04:30,10.1.1.9,2,-0.460,-0.460,-0.460,0.000,0.000,0.000
1640671470364729856,2021-12-28-06:04:30,10.1.1.9,19,-0.460,-0.460,-0.460,0.000,0.000,0.000
1640671472285906944,2021-12-28-06:04:32,10.1.1.9,3,-0.460,-0.460,-0.460,0.000,0.000,0.000
1640671472425824000,2021-12-28-06:04:32,10.1.1.9,18,-0.460,-0.460,-0.460,0.000,0.000,0.000
1640671474345370112,2021-12-28-06:04:34,10.1.1.9,14,-0.460,-0.460,-0.460,0.000,0.000,0.000
1640671474465261824,2021-12-28-06:04:34,10.1.1.9,6,-0.460,-0.460,-0.460,0.000,0.000,0.000
1640671476364087040,2021-12-28-06:04:36,10.1.1.9,0,-0.460,-0.460,-0.460,0.000,0.000,0.000
1640671476503526912,2021-12-28-06:04:36,10.1.1.9,16,-0.460,-0.460,-0.460,0.000,0.000,0.000
1640671478402329088,2021-12-28-06:04:38,10.1.1.9,7,-0.460,-0.460,-0.460,0.000,0.000,0.000
1640671478524028160,2021-12-28-06:04:38,10.1.1.9,3,-0.460,-0.460,-0.460,0.000,0.000,0.000
1640671480480435968,2021-12-28-06:04:40,10.1.1.9,14,-0.460,-0.460,-0.460,0.000,0.000,0.000
1640671480600573184,2021-12-28-06:04:40,10.1.1.9,3,-0.460,-0.460,-0.460,0.000,0.000,0.000
1640671482576441088,2021-12-28-06:04:42,10.1.1.9,19,-0.460,-0.460,-0.460,0.000,0.000,0.000
1640671482696825856,2021-12-28-06:04:42,10.1.1.9,12,-0.460,-0.460,-0.460,0.000,0.000,0.000
1640671484633933056,2021-12-28-06:04:44,10.1.1.9,16,-0.460,-0.460,-0.460,0.000,0.000,0.000
1640671484753357056,2021-12-28-06:04:44,10.1.1.9,11,-0.460,-0.460,-0.460,0.000,0.000,0.000
1640671486650397184,2021-12-28-06:04:46,10.1.1.9,8,-0.460,-0.460,-0.460,0.000,0.000,0.000
1640671486770334976,2021-12-28-06:04:46,10.1.1.9,5,-0.460,-0.460,-0.460,0.000,0.000,0.000
1640671488709144064,2021-12-28-06:04:48,10.1.1.9,2,-0.460,-0.460,-0.460,0.000,0.000,0.000
1640671488847706112,2021-12-28-06:04:48,10.1.1.9,14,-0.460,-0.460,-0.460,0.000,0.000,0.000
1640671490765571072,2021-12-28-06:04:50,10.1.1.9,19,-0.460,-0.460,-0.460,0.000,0.000,0.000
1640671490884531968,2021-12-28-06:04:50,10.1.1.9,7,-0.460,-0.460,-0.460,0.000,0.000,0.000
1640671492821815040,2021-12-28-06:04:52,10.1.1.9,5,-0.460,-0.460,-0.460,0.000,0.000,0.000
1640671492961929984,2021-12-28-06:04:52,10.1.1.9,20,-0.460,-0.460,-0.460,0.000,0.000,0.000
1640671494890255872,2021-12-28-06:04:54,10.1.1.9,6,-0.460,-0.460,-0.460,0.000,0.000,0.000
1640671495031354880,2021-12-28-06:04:55,10.1.1.9,14,-0.460,-0.460,-0.460,0.000,0.000,0.000
1640671496956990976,2021-12-28-06:04:56,10.1.1.9,8,-0.460,-0.460,-0.460,0.000,0.000,0.000
1640671497077835008,2021-12-28-06:04:57,10.1.1.9,5,-0.460,-0.460,-0.460,0.000,0.000,0.000
1640671499041479168,2021-12-28-06:04:59,10.1.1.9,2,-0.460,-0.460,-0.460,0.000,0.000,0.000
1640671499181987072,2021-12-28-06:04:59,10.1.1.9,13,-0.460,-0.460,-0.460,0.000,0.000,0.000
1640671501064634112,2021-12-28-06:05:01,10.1.1.9,0,-0.460,-0.460,-0.460,0.000,0.000,0.000
1640671501203835904,2021-12-28-06:05:01,10.1.1.9,17,-0.460,-0.460,-0.460,0.000,0.000,0.000
1640671503145110016,2021-12-28-06:05:03,10.1.1.9,17,-0.460,-0.460,-0.460,0.000,0.000,0.000
1640671503264707072,2021-12-28-06:05:03,10.1.1.9,6,-0.460,-0.460,-0.460,0.000,0.000,0.000
1640671505205526016,2021-12-28-06:05:05,10.1.1.9,15,-0.460,-0.460,-0.460,0.000,0.000,0.000
1640671505324878080,2021-12-28-06:05:05,10.1.1.9,9,-0.460,-0.460,-0.460,0.000,0.000,0.000
1640671507324402176,2021-12-28-06:05:07,10.1.1.9,11,-0.460,-0.460,-0.460,0.000,0.000,0.000
1640671507444582912,2021-12-28-06:05:07,10.1.1.9,5,-0.460,-0.460,-0.460,0.000,0.000,0.000
1640671509363312128,2021-12-28-06:05:09,10.1.1.9,8,-0.460,-0.460,-0.460,0.000,0.000,0.000
1640671509483270912,2021-12-28-06:05:09,10.1.1.9,4,-0.460,-0.460,-0.460,0.000,0.000,0.000
1640671511421509888,2021-12-28-06:05:11,10.1.1.9,18,-0.460,-0.460,-0.460,0.000,0.000,0.000
1640671511540985088,2021-12-28-06:05:11,10.1.1.9,14,-0.460,-0.460,-0.460,0.000,0.000,0.000
1640671513477832960,2021-12-28-06:05:13,10.1.1.9,5,-0.460,-0.460,-0.460,0.000,0.000,0.000
1640671513617896960,2021-12-28-06:05:13,10.1.1.9,6,-0.460,-0.460,-0.460,0.000,0.000,0.000
1640671515575168000,2021-12-28-06:05:15,10.1.1.9,5,-0.460,-0.460,-0.460,0.000,0.000,0.000
1640671515716212992,2021-12-28-06:05:15,10.1.1.9,20,-0.460,-0.460,-0.460,0.000,0.000,0.000
1640671517672476928,2021-12-28-06:05:17,10.1.1.9,19,-0.460,-0.460,-0.460,0.000,0.000,0.000
1640671517792386048,2021-12-28-06:05:17,10.1.1.9,11,-0.460,-0.460,-0.460,0.000,0.000,0.000
1640671519749600000,2021-12-28-06:05:19,10.1.1.9,8,-0.460,-0.460,-0.460,0.000,0.000,0.000
1640671519868926976,2021-12-28-06:05:19,10.1.1.9,3,-0.460,-0.460,-0.460,0.000,0.000,0.000
1640671521788384000,2021-12-28-06:05:21,10.1.1.9,13,-0.460,-0.460,-0.460,0.000,0.000,0.000
1640671521905927936,2021-12-28-06:05:21,10.1.1.9,6,-0.460,-0.460,-0.460,0.000,0.000,0.000
1640671523804139008,2021-12-28-06:05:23,10.1.1.9,1,-0.460,-0.460,-0.460,0.000,0.000,0.000
1640671523945416960,2021-12-28-06:05:23,10.1.1.9,17,-0.460,-0.460,-0.460,0.000,0.000,0.000
1640671525968754176,2021-12-28-06:05:25,10.1.1.9,8,-0.460,-0.460,-0.460,0.000,0.000,0.000
1640671526088710912,2021-12-28-06:05:26,10.1.1.9,0,-0.460,-0.460,-0.460,0.000,0.000,0.000
1640671528016769792,2021-12-28-06:05:28,10.1.1.9,14,-0.460,-0.460,-0.460,0.000,0.000,0.000
1640671528136403968,2021-12-28-06:05:28,10.1.1.9,9,-0.460,-0.460,-0.460,0.000,0.000,0.000
1640671530041558016,2021-12-28-06:05:30,10.1.1.9,0,-0.460,-0.460,-0.460,0.000,0.000,0.000
1640671530181741056,2021-12-28-06:05:30,10.1.1.9,18,-0.460,-0.460,-0.460,0.000,0.000,0.000
1640671532125494016,2021-12-28-06:05:32,10.1.1.9,4,-0.460,-0.460,-0.460,0.000,0.000,0.000
1640671532245185024,2021-12-28-06:05:32,10.1.1.9,0,-0.460,-0.460,-0.460,0.000,0.000,0.000
1640671534187558912,2021-12-28-06:05:34,10.1.1.9,8,-0.460,-0.460,-0.460,0.000,0.000,0.000
1640671534307301120,2021-12-28-06:05:34,10.1.1.9,5,-0.460,-0.460,-0.460,0.000,0.000,0.000
1640671536348377088,2021-12-28-06:05:36,10.1.1.9,10,-0.460,-0.460,-0.460,0.000,0.000,0.000
1640671536468147968,2021-12-28-06:05:36,10.1.1.9,2,-0.460,-0.460,-0.460,0.000,0.000,0.000
1640671538527895040,2021-12-28-06:05:38,10.1.1.9,7,-0.460,-0.460,-0.460,0.000,0.000,0.000
1640671538647838208,2021-12-28-06:05:38,10.1.1.9,3,-0.460,-0.460,-0.460,0.000,0.000,0.000
1640671540566292992,2021-12-28-06:05:40,10.1.1.9,5,-0.460,-0.460,-0.460,0.000,0.000,0.000
1640671540689256960,2021-12-28-06:05:40,10.1.1.9,2,-0.460,-0.460,-0.460,0.000,0.000,0.000
1640671542625974784,2021-12-28-06:05:42,10.1.1.9,2,-0.460,-0.460,-0.460,0.000,0.000,0.000
1640671542764777984,2021-12-28-06:05:42,10.1.1.9,11,-0.460,-0.460,-0.460,0.000,0.000,0.000
1640671544702246912,2021-12-28-06:05:44,10.1.1.9,6,-0.460,-0.460,-0.460,0.000,0.000,0.000
1640671544822628096,2021-12-28-06:05:44,10.1.1.9,2,-0.460,-0.460,-0.460,0.000,0.000,0.000
1640671546719766016,2021-12-28-06:05:46,10.1.1.9,2,-0.460,-0.460,-0.460,0.000,0.000,0.000
1640671546859576064,2021-12-28-06:05:46,10.1.1.9,19,-0.460,-0.460,-0.460,0.000,0.000,0.000
1640671548738347008,2021-12-28-06:05:48,10.1.1.9,1,-0.460,-0.460,-0.460,0.000,0.000,0.000
1640671548877059840,2021-12-28-06:05:48,10.1.1.9,16,-0.460,-0.460,-0.460,0.000,0.000,0.000
1640671550874636032,2021-12-28-06:05:50,10.1.1.9,6,-0.460,-0.460,-0.460,0.000,0.000,0.000
1640671550994607872,2021-12-28-06:05:50,10.1.1.9,2,-0.460,-0.460,-0.460,0.000,0.000,0.000
1640671552951075072,2021-12-28-06:05:52,10.1.1.9,9,-0.460,-0.460,-0.460,0.000,0.000,0.000
1640671553071523840,2021-12-28-06:05:53,10.1.1.9,6,-0.460,-0.460,-0.460,0.000,0.000,0.000
1640671555028098048,2021-12-28-06:05:55,10.1.1.9,12,-0.460,-0.460,-0.460,0.000,0.000,0.000
1640671555147768064,2021-12-28-06:05:55,10.1.1.9,6,-0.460,-0.460,-0.460,0.000,0.000,0.000
1640671557125512960,2021-12-28-06:05:57,10.1.1.9,2,-0.460,-0.460,-0.460,0.000,0.000,0.000
1640671557269702912,2021-12-28-06:05:57,10.1.1.9,21,-0.460,-0.460,-0.460,0.000,0.000,0.000
1640671559193882880,2021-12-28-06:05:59,10.1.1.9,9,-0.460,-0.460,-0.460,0.000,0.000,0.000
1640671559314539008,2021-12-28-06:05:59,10.1.1.9,6,-0.460,-0.460,-0.460,0.000,0.000,0.000
1640671561220601088,2021-12-28-06:06:01,10.1.1.9,4,-0.460,-0.460,-0.460,0.000,0.000,0.000
1640671561360372992,2021-12-28-06:06:01,10.1.1.9,7,-0.460,-0.460,-0.460,0.000,0.000,0.000
1640671563243806976,2021-12-28-06:06:03,10.1.1.9,0,-0.460,-0.460,-0.460,0.000,0.000,0.000
1640671563383804160,2021-12-28-06:06:03,10.1.1.9,17,-0.460,-0.460,-0.460,0.000,0.000,0.000
1640671565306796032,2021-12-28-06:06:05,10.1.1.9,12,-0.460,-0.460,-0.460,0.000,0.000,0.000
1640671565426731008,2021-12-28-06:06:05,10.1.1.9,9,-0.460,-0.460,-0.460,0.000,0.000,0.000
1640671567326914048,2021-12-28-06:06:07,10.1.1.9,4,-0.460,-0.460,-0.460,0.000,0.000,0.000
1640671567447389952,2021-12-28-06:06:07,10.1.1.9,0,-0.460,-0.460,-0.460,0.000,0.000,0.000
1640671569425698048,2021-12-28-06:06:09,10.1.1.9,1,-0.460,-0.460,-0.460,0.000,0.000,0.000
1640671569566318080,2021-12-28-06:06:09,10.1.1.9,18,-0.460,-0.460,-0.460,0.000,0.000,0.000
1640671571505568000,2021-12-28-06:06:11,10.1.1.9,6,-0.460,-0.460,-0.460,0.000,0.000,0.000
1640671571625114880,2021-12-28-06:06:11,10.1.1.9,1,-0.460,-0.460,-0.460,0.000,0.000,0.000
1640671573563479040,2021-12-28-06:06:13,10.1.1.9,7,-0.460,-0.460,-0.460,0.000,0.000,0.000
1640671573682918912,2021-12-28-06:06:13,10.1.1.9,3,-0.460,-0.460,-0.460,0.000,0.000,0.000
1640671575661056000,2021-12-28-06:06:15,10.1.1.9,18,-0.460,-0.460,-0.460,0.000,0.000,0.000
1640671575780219136,2021-12-28-06:06:15,10.1.1.9,15,-0.460,-0.460,-0.460,0.000,0.000,0.000
1640671577698566912,2021-12-28-06:06:17,10.1.1.9,16,-0.460,-0.460,-0.460,0.000,0.000,0.000
1640671577838641920,2021-12-28-06:06:17,10.1.1.9,16,-0.460,-0.460,-0.460,0.000,0.000,0.000
1640671579736201984,2021-12-28-06:06:19,10.1.1.9,5,-0.460,-0.460,-0.460,0.000,0.000,0.000
1640671579856050944,2021-12-28-06:06:19,10.1.1.9,1,-0.460,-0.460,-0.460,0.000,0.000,0.000
1640671581773719040,2021-12-28-06:06:21,10.1.1.9,0,-0.460,-0.460,-0.460,0.000,0.000,0.000
1640671581913240064,2021-12-28-06:06:21,10.1.1.9,14,-0.460,-0.460,-0.460,0.000,0.000,0.000
1640671583849839872,2021-12-28-06:06:23,10.1.1.9,12,-0.460,-0.460,-0.460,0.000,0.000,0.000
1640671583971972096,2021-12-28-06:06:23,10.1.1.9,11,-0.460,-0.460,-0.460,0.000,0.000,0.000
1640671585868189952,2021-12-28-06:06:25,10.1.1.9,14,-0.460,-0.460,-0.460,0.000,0.000,0.000
1640671585986767104,2021-12-28-06:06:25,10.1.1.9,8,-0.460,-0.460,-0.460,0.000,0.000,0.000
1640671587903356928,2021-12-28-06:06:27,10.1.1.9,11,-0.460,-0.460,-0.460,0.000,0.000,0.000
1640671588023875840,2021-12-28-06:06:28,10.1.1.9,7,-0.460,-0.460,-0.460,0.000,0.000,0.000
1640671589941897984,2021-12-28-06:06:29,10.1.1.9,9,-0.460,-0.460,-0.460,0.000,0.000,0.000
1640671590120733952,2021-12-28-06:06:30,10.1.1.9,11,-0.460,-0.460,-0.460,0.000,0.000,0.000
1640671592030790144,2021-12-28-06:06:32,10.1.1.9,10,-0.460,-0.460,-0.460,0.000,0.000,0.000
1640671592149911040,2021-12-28-06:06:32,10.1.1.9,6,-0.460,-0.460,-0.460,0.000,0.000,0.000
1640671594077656064,2021-12-28-06:06:34,10.1.1.9,6,-0.460,-0.460,-0.460,0.000,0.000,0.000
1640671594197169920,2021-12-28-06:06:34,10.1.1.9,2,-0.460,-0.460,-0.460,0.000,0.000,0.000
1640671596100829952,2021-12-28-06:06:36,10.1.1.9,3,-0.460,-0.460,-0.460,0.000,0.000,0.000
1640671596221147136,2021-12-28-06:06:36,10.1.1.9,0,-0.460,-0.460,-0.460,0.000,0.000,0.000
1640671598124574976,2021-12-28-06:06:38,10.1.1.9,1,-0.460,-0.460,-0.460,0.000,0.000,0.000
1640671598263582976,2021-12-28-06:06:38,10.1.1.9,14,-0.460,-0.460,-0.460,0.000,0.000,0.000
1640671600184510976,2021-12-28-06:06:40,10.1.1.9,15,-0.460,-0.460,-0.460,0.000,0.000,0.000
1640671600304433152,2021-12-28-06:06:40,10.1.1.9,13,-0.460,-0.460,-0.460,0.000,0.000,0.000
1640671602204464896,2021-12-28-06:06:42,10.1.1.9,19,-0.460,-0.460,-0.460,0.000,0.000,0.000
1640671602324049920,2021-12-28-06:06:42,10.1.1.9,14,-0.460,-0.460,-0.460,0.000,0.000,0.000
1640671604223086080,2021-12-28-06:06:44,10.1.1.9,6,-0.460,-0.460,-0.460,0.000,0.000,0.000
1640671604342942976,2021-12-28-06:06:44,10.1.1.9,4,-0.460,-0.460,-0.460,0.000,0.000,0.000
1640671606301537024,2021-12-28-06:06:46,10.1.1.9,1,-0.460,-0.460,-0.460,0.000,0.000,0.000
1640671606441315840,2021-12-28-06:06:46,10.1.1.9,18,-0.460,-0.460,-0.460,0.000,0.000,0.000
1640671608339615232,2021-12-28-06:06:48,10.1.1.9,10,-0.460,-0.460,-0.460,0.000,0.000,0.000
1640671608459827968,2021-12-28-06:06:48,10.1.1.9,6,-0.460,-0.460,-0.460,0.000,0.000,0.000
1640671610398050048,2021-12-28-06:06:50,10.1.1.9,5,-0.460,-0.460,-0.460,0.000,0.000,0.000
1640671610517428992,2021-12-28-06:06:50,10.1.1.9,0,-0.460,-0.460,-0.460,0.000,0.000,0.000
1640671612535685120,2021-12-28-06:06:52,10.1.1.9,18,-0.460,-0.460,-0.460,0.000,0.000,0.000
1640671612655385856,2021-12-28-06:06:52,10.1.1.9,8,-0.460,-0.460,-0.460,0.000,0.000,0.000
1640671614572115968,2021-12-28-06:06:54,10.1.1.9,8,-0.460,-0.460,-0.460,0.000,0.000,0.000
1640671614692262912,2021-12-28-06:06:54,10.1.1.9,4,-0.460,-0.460,-0.460,0.000,0.000,0.000
1640671616609083904,2021-12-28-06:06:56,10.1.1.9,13,-0.460,-0.460,-0.460,0.000,0.000,0.000
1640671616728977920,2021-12-28-06:06:56,10.1.1.9,9,-0.460,-0.460,-0.460,0.000,0.000,0.000
1640671618645771008,2021-12-28-06:06:58,10.1.1.9,7,-0.460,-0.460,-0.460,0.000,0.000,0.000
1640671618766074880,2021-12-28-06:06:58,10.1.1.9,3,-0.460,-0.460,-0.460,0.000,0.000,0.000
1640671620721616896,2021-12-28-06:07:00,10.1.1.9,16,-0.460,-0.460,-0.460,0.000,0.000,0.000
1640671620842457088,2021-12-28-06:07:00,10.1.1.9,9,-0.460,-0.460,-0.460,0.000,0.000,0.000
1640671622826812928,2021-12-28-06:07:02,10.1.1.9,6,-0.460,-0.460,-0.460,0.000,0.000,0.000
1640671622945106944,2021-12-28-06:07:02,10.1.1.9,0,-0.460,-0.460,-0.460,0.000,0.000,0.000
1640671624873276928,2021-12-28-06:07:04,10.1.1.9,19,-0.460,-0.460,-0.460,0.000,0.000,0.000
1640671626898710016,2021-12-28-06:07:06,10.1.1.9,2,-0.460,-0.460,-0.460,0.000,0.000,0.000
1640671627039693056,2021-12-28-06:07:07,10.1.1.9,17,-0.460,-0.460,-0.460,0.000,0.000,0.000
1640671628922866176,2021-12-28-06:07:08,10.1.1.9,7,-0.460,-0.460,-0.460,0.000,0.000,0.000
1640671629042978048,2021-12-28-06:07:09,10.1.1.9,2,-0.460,-0.460,-0.460,0.000,0.000,0.000
1640671630984253952,2021-12-28-06:07:10,10.1.1.9,7,-0.460,-0.460,-0.460,0.000,0.000,0.000
1640671631104259840,2021-12-28-06:07:11,10.1.1.9,3,-0.460,-0.460,-0.460,0.000,0.000,0.000
1640671633065254912,2021-12-28-06:07:13,10.1.1.9,8,-0.460,-0.460,-0.460,0.000,0.000,0.000
1640671633185400064,2021-12-28-06:07:13,10.1.1.9,5,-0.460,-0.460,-0.460,0.000,0.000,0.000
1640671635124874240,2021-12-28-06:07:15,10.1.1.9,8,-0.460,-0.460,-0.460,0.000,0.000,0.000
1640671635246918912,2021-12-28-06:07:15,10.1.1.9,7,-0.460,-0.460,-0.460,0.000,0.000,0.000
1640671637163606784,2021-12-28-06:07:17,10.1.1.9,2,-0.460,-0.460,-0.460,0.000,0.000,0.000
1640671637302483968,2021-12-28-06:07:17,10.1.1.9,16,-0.460,-0.460,-0.460,0.000,0.000,0.000
1640671639201134848,2021-12-28-06:07:19,10.1.1.9,8,-0.460,-0.460,-0.460,0.000,0.000,0.000
1640671639324734976,2021-12-28-06:07:19,10.1.1.9,7,-0.460,-0.460,-0.460,0.000,0.000,0.000
1640671641259115008,2021-12-28-06:07:21,10.1.1.9,8,-0.460,-0.460,-0.460,0.000,0.000,0.000
1640671641379788032,2021-12-28-06:07:21,10.1.1.9,5,-0.460,-0.460,-0.460,0.000,0.000,0.000
1640671643316574976,2021-12-28-06:07:23,10.1.1.9,18,-0.460,-0.460,-0.460,0.000,0.000,0.000
1640671643438828032,2021-12-28-06:07:23,10.1.1.9,17,-0.460,-0.460,-0.460,0.000,0.000,0.000
1640671645334322944,2021-12-28-06:07:25,10.1.1.9,6,-0.460,-0.460,-0.460,0.000,0.000,0.000
1640671645453851904,2021-12-28-06:07:25,10.1.1.9,0,-0.460,-0.460,-0.460,0.000,0.000,0.000
1640671647371359232,2021-12-28-06:07:27,10.1.1.9,6,-0.460,-0.460,-0.460,0.000,0.000,0.000
1640671647491451136,2021-12-28-06:07:27,10.1.1.9,4,-0.460,-0.460,-0.460,0.000,0.000,0.000
1640671649428308992,2021-12-28-06:07:29,10.1.1.9,18,-0.460,-0.460,-0.460,0.000,0.000,0.000
1640671649547892992,2021-12-28-06:07:29,10.1.1.9,13,-0.460,-0.460,-0.460,0.000,0.000,0.000
1640671651464912896,2021-12-28-06:07:31,10.1.1.9,6,-0.460,-0.460,-0.460,0.000,0.000,0.000
1640671651646146048,2021-12-28-06:07:31,10.1.1.9,7,-0.460,-0.460,-0.460,0.000,0.000,0.000
1640671653602430976,2021-12-28-06:07:33,10.1.1.9,15,-0.460,-0.460,-0.460,0.000,0.000,0.000
1640671653720913920,2021-12-28-06:07:33,10.1.1.9,6,-0.460,-0.460,-0.460,0.000,0.000,0.000
1640671655609463040,2021-12-28-06:07:35,10.1.1.9,0,-0.460,-0.460,-0.460,0.000,0.000,0.000
1640671655749358848,2021-12-28-06:07:35,10.1.1.9,16,-0.460,-0.460,-0.460,0.000,0.000,0.000
1640671657676378880,2021-12-28-06:07:37,10.1.1.9,4,-0.460,-0.460,-0.460,0.000,0.000,0.000
1640671657815934976,2021-12-28-06:07:37,10.1.1.9,19,-0.460,-0.460,-0.460,0.000,0.000,0.000
1640671659760684032,2021-12-28-06:07:39,10.1.1.9,2,-0.460,-0.460,-0.460,0.000,0.000,0.000
1640671659900954112,2021-12-28-06:07:39,10.1.1.9,18,-0.460,-0.460,-0.460,0.000,0.000,0.000
1640671661844278016,2021-12-28-06:07:41,10.1.1.9,18,-0.460,-0.460,-0.460,0.000,0.000,0.000
1640671661963879936,2021-12-28-06:07:41,10.1.1.9,14,-0.460,-0.460,-0.460,0.000,0.000,0.000
1640671663964589056,2021-12-28-06:07:43,10.1.1.9,10,-0.460,-0.460,-0.460,0.000,0.000,0.000
1640671664084786944,2021-12-28-06:07:44,10.1.1.9,5,-0.460,-0.460,-0.460,0.000,0.000,0.000
1640671666044507136,2021-12-28-06:07:46,10.1.1.9,2,-0.460,-0.460,-0.460,0.000,0.000,0.000
1640671666184578816,2021-12-28-06:07:46,10.1.1.9,14,-0.460,-0.460,-0.460,0.000,0.000,0.000
1640671668104969984,2021-12-28-06:07:48,10.1.1.9,19,-0.460,-0.460,-0.460,0.000,0.000,0.000
1640671668223931136,2021-12-28-06:07:48,10.1.1.9,13,-0.460,-0.460,-0.460,0.000,0.000,0.000
1640671670181870080,2021-12-28-06:07:50,10.1.1.9,1,-0.460,-0.460,-0.460,0.000,0.000,0.000
1640671670321788160,2021-12-28-06:07:50,10.1.1.9,13,-0.460,-0.460,-0.460,0.000,0.000,0.000
1640671672260468992,2021-12-28-06:07:52,10.1.1.9,3,-0.460,-0.460,-0.460,0.000,0.000,0.000
1640671672400371968,2021-12-28-06:07:52,10.1.1.9,16,-0.460,-0.460,-0.460,0.000,0.000,0.000
1640671674358002944,2021-12-28-06:07:54,10.1.1.9,0,-0.460,-0.460,-0.460,0.000,0.000,0.000
1640671674497505792,2021-12-28-06:07:54,10.1.1.9,16,-0.460,-0.460,-0.460,0.000,0.000,0.000
1640671676395649024,2021-12-28-06:07:56,10.1.1.9,13,-0.460,-0.460,-0.460,0.000,0.000,0.000
1640671676515889920,2021-12-28-06:07:56,10.1.1.9,6,-0.460,-0.460,-0.460,0.000,0.000,0.000
1640671678494518016,2021-12-28-06:07:58,10.1.1.9,14,-0.460,-0.460,-0.460,0.000,0.000,0.000
1640671678671703040,2021-12-28-06:07:58,10.1.1.9,18,-0.460,-0.460,-0.460,0.000,0.000,0.000
1640671680571022080,2021-12-28-06:08:00,10.1.1.9,2,-0.460,-0.460,-0.460,0.000,0.000,0.000
1640671680708893184,2021-12-28-06:08:00,10.1.1.9,16,-0.460,-0.460,-0.460,0.000,0.000,0.000
1640671682585293056,2021-12-28-06:08:02,10.1.1.9,3,-0.460,-0.460,-0.460,0.000,0.000,0.000
1640671682706358784,2021-12-28-06:08:02,10.1.1.9,0,-0.460,-0.460,-0.460,0.000,0.000,0.000
1640671684662888960,2021-12-28-06:08:04,10.1.1.9,5,-0.460,-0.460,-0.460,0.000,0.000,0.000
1640671684802149120,2021-12-28-06:08:04,10.1.1.9,19,-0.460,-0.460,-0.460,0.000,0.000,0.000
1640671686744240896,2021-12-28-06:08:06,10.1.1.9,18,-0.460,-0.460,-0.460,0.000,0.000,0.000
1640671686865611008,2021-12-28-06:08:06,10.1.1.9,14,-0.460,-0.460,-0.460,0.000,0.000,0.000
1640671688760190976,2021-12-28-06:08:08,10.1.1.9,1,-0.460,-0.460,-0.460,0.000,0.000,0.000
1640671688914046976,2021-12-28-06:08:08,10.1.1.9,10,-0.460,-0.460,-0.460,0.000,0.000,0.000
1640671690860066816,2021-12-28-06:08:10,10.1.1.9,18,-0.460,-0.460,-0.460,0.000,0.000,0.000
1640671690979620096,2021-12-28-06:08:10,10.1.1.9,13,-0.460,-0.460,-0.460,0.000,0.000,0.000
1640671692902704128,2021-12-28-06:08:12,10.1.1.9,2,-0.460,-0.460,-0.460,0.000,0.000,0.000
1640671693043294976,2021-12-28-06:08:13,10.1.1.9,19,-0.460,-0.460,-0.460,0.000,0.000,0.000
1640671694984952064,2021-12-28-06:08:14,10.1.1.9,6,-0.460,-0.460,-0.460,0.000,0.000,0.000
1640671695105259008,2021-12-28-06:08:15,10.1.1.9,0,-0.460,-0.460,-0.460,0.000,0.000,0.000
1640671697086055168,2021-12-28-06:08:17,10.1.1.9,9,-0.460,-0.460,-0.460,0.000,0.000,0.000
1640671697208672000,2021-12-28-06:08:17,10.1.1.9,7,-0.460,-0.460,-0.460,0.000,0.000,0.000
1640671699144998144,2021-12-28-06:08:19,10.1.1.9,16,-0.460,-0.460,-0.460,0.000,0.000,0.000
1640671699264630016,2021-12-28-06:08:19,10.1.1.9,13,-0.460,-0.460,-0.460,0.000,0.000,0.000
1640671701243264000,2021-12-28-06:08:21,10.1.1.9,19,-0.460,-0.460,-0.460,0.000,0.000,0.000
1640671701363689984,2021-12-28-06:08:21,10.1.1.9,15,-0.460,-0.460,-0.460,0.000,0.000,0.000
1640671703282807040,2021-12-28-06:08:23,10.1.1.9,16,-0.460,-0.460,-0.460,0.000,0.000,0.000
1640671703401654016,2021-12-28-06:08:23,10.1.1.9,11,-0.460,-0.460,-0.460,0.000,0.000,0.000
1640671705399866112,2021-12-28-06:08:25,10.1.1.9,15,-0.460,-0.460,-0.460,0.000,0.000,0.000
1640671705519260928,2021-12-28-06:08:25,10.1.1.9,4,-0.460,-0.460,-0.460,0.000,0.000,0.000
1640671707417117184,2021-12-28-06:08:27,10.1.1.9,6,-0.460,-0.460,-0.460,0.000,0.000,0.000
1640671707537372160,2021-12-28-06:08:27,10.1.1.9,1,-0.460,-0.460,-0.460,0.000,0.000,0.000
1640671709474201856,2021-12-28-06:08:29,10.1.1.9,15,-0.460,-0.460,-0.460,0.000,0.000,0.000
1640671709594501120,2021-12-28-06:08:29,10.1.1.9,6,-0.460,-0.460,-0.460,0.000,0.000,0.000
1640671711511421952,2021-12-28-06:08:31,10.1.1.9,2,-0.460,-0.460,-0.460,0.000,0.000,0.000
1640671711653565952,2021-12-28-06:08:31,10.1.1.9,19,-0.460,-0.460,-0.460,0.000,0.000,0.000
1640671713548520192,2021-12-28-06:08:33,10.1.1.9,0,-0.460,-0.460,-0.460,0.000,0.000,0.000
1640671713688740096,2021-12-28-06:08:33,10.1.1.9,17,-0.460,-0.460,-0.460,0.000,0.000,0.000
1640671715586019072,2021-12-28-06:08:35,10.1.1.9,0,-0.460,-0.460,-0.460,0.000,0.000,0.000
1640671715726882048,2021-12-28-06:08:35,10.1.1.9,17,-0.460,-0.460,-0.460,0.000,0.000,0.000
1640671717681381888,2021-12-28-06:08:37,10.1.1.9,19,-0.460,-0.460,-0.460,0.000,0.000,0.000
1640671717801729024,2021-12-28-06:08:37,10.1.1.9,16,-0.460,-0.460,-0.460,0.000,0.000,0.000
1640671719803347200,2021-12-28-06:08:39,10.1.1.9,12,-0.460,-0.460,-0.460,0.000,0.000,0.000
1640671719923901952,2021-12-28-06:08:39,10.1.1.9,8,-0.460,-0.460,-0.460,0.000,0.000,0.000
1640671721852144128,2021-12-28-06:08:41,10.1.1.9,13,-0.460,-0.460,-0.460,0.000,0.000,0.000
1640671721972785920,2021-12-28-06:08:41,10.1.1.9,9,-0.460,-0.460,-0.460,0.000,0.000,0.000
1640671724079014144,2021-12-28-06:08:44,10.1.1.9,12,-0.460,-0.460,-0.460,0.000,0.000,0.000
1640671724199668992,2021-12-28-06:08:44,10.1.1.9,4,-0.460,-0.460,-0.460,0.000,0.000,0.000
1640671726162259968,2021-12-28-06:08:46,10.1.1.9,10,-0.460,-0.460,-0.460,0.000,0.000,0.000
1640671726282830080,2021-12-28-06:08:46,10.1.1.9,7,-0.460,-0.460,-0.460,0.000,0.000,0.000
1640671728263959040,2021-12-28-06:08:48,10.1.1.9,7,-0.460,-0.460,-0.460,0.000,0.000,0.000
1640671728384303104,2021-12-28-06:08:48,10.1.1.9,1,-0.460,-0.460,-0.460,0.000,0.000,0.000
1640671730324194816,2021-12-28-06:08:50,10.1.1.9,2,-0.460,-0.460,-0.460,0.000,0.000,0.000
1640671730464494848,2021-12-28-06:08:50,10.1.1.9,18,-0.460,-0.460,-0.460,0.000,0.000,0.000
1640671732365040128,2021-12-28-06:08:52,10.1.1.9,16,-0.460,-0.460,-0.460,0.000,0.000,0.000
1640671732484286976,2021-12-28-06:08:52,10.1.1.9,12,-0.460,-0.460,-0.460,0.000,0.000,0.000
1640671734383693824,2021-12-28-06:08:54,10.1.1.9,4,-0.460,-0.460,-0.460,0.000,0.000,0.000
1640671734522767104,2021-12-28-06:08:54,10.1.1.9,19,-0.460,-0.460,-0.460,0.000,0.000,0.000
1640671736480523008,2021-12-28-06:08:56,10.1.1.9,1,-0.460,-0.460,-0.460,0.000,0.000,0.000
1640671736620958208,2021-12-28-06:08:56,10.1.1.9,19,-0.460,-0.460,-0.460,0.000,0.000,0.000
1640671738538567168,2021-12-28-06:08:58,10.1.1.9,11,-0.460,-0.460,-0.460,0.000,0.000,0.000
1640671738658694144,2021-12-28-06:08:58,10.1.1.9,8,-0.460,-0.460,-0.460,0.000,0.000,0.000
1640671740578066944,2021-12-28-06:09:00,10.1.1.9,1,-0.460,-0.460,-0.460,0.000,0.000,0.000
1640671740716414976,2021-12-28-06:09:00,10.1.1.9,16,-0.460,-0.460,-0.460,0.000,0.000,0.000
1640671742614161920,2021-12-28-06:09:02,10.1.1.9,1,-0.460,-0.460,-0.460,0.000,0.000,0.000
1640671742753447168,2021-12-28-06:09:02,10.1.1.9,17,-0.460,-0.460,-0.460,0.000,0.000,0.000
1640671744650772992,2021-12-28-06:09:04,10.1.1.9,5,-0.460,-0.460,-0.460,0.000,0.000,0.000
1640671744791853824,2021-12-28-06:09:04,10.1.1.9,16,-0.460,-0.460,-0.460,0.000,0.000,0.000
1640671746707762944,2021-12-28-06:09:06,10.1.1.9,6,-0.460,-0.460,-0.460,0.000,0.000,0.000
1640671746828297984,2021-12-28-06:09:06,10.1.1.9,3,-0.460,-0.460,-0.460,0.000,0.000,0.000
1640671748765083136,2021-12-28-06:09:08,10.1.1.9,2,-0.460,-0.460,-0.460,0.000,0.000,0.000
1640671748906160128,2021-12-28-06:09:08,10.1.1.9,19,-0.460,-0.460,-0.460,0.000,0.000,0.000
1640671750881353984,2021-12-28-06:09:10,10.1.1.9,17,-0.460,-0.460,-0.460,0.000,0.000,0.000
1640671751000303104,2021-12-28-06:09:11,10.1.1.9,11,-0.460,-0.460,-0.460,0.000,0.000,0.000
1640671752989496064,2021-12-28-06:09:12,10.1.1.9,12,-0.460,-0.460,-0.460,0.000,0.000,0.000
1640671753110081792,2021-12-28-06:09:13,10.1.1.9,7,-0.460,-0.460,-0.460,0.000,0.000,0.000
1640671755056380160,2021-12-28-06:09:15,10.1.1.9,15,-0.460,-0.460,-0.460,0.000,0.000,0.000
1640671755176398080,2021-12-28-06:09:15,10.1.1.9,11,-0.460,-0.460,-0.460,0.000,0.000,0.000
1640671757081131008,2021-12-28-06:09:17,10.1.1.9,10,-0.460,-0.460,-0.460,0.000,0.000,0.000
1640671757201131008,2021-12-28-06:09:17,10.1.1.9,6,-0.460,-0.460,-0.460,0.000,0.000,0.000
1640671759142810112,2021-12-28-06:09:19,10.1.1.9,5,-0.460,-0.460,-0.460,0.000,0.000,0.000
1640671759263132928,2021-12-28-06:09:19,10.1.1.9,2,-0.460,-0.460,-0.460,0.000,0.000,0.000
1640671761164668928,2021-12-28-06:09:21,10.1.1.9,16,-0.460,-0.460,-0.460,0.000,0.000,0.000
1640671761284269056,2021-12-28-06:09:21,10.1.1.9,13,-0.460,-0.460,-0.460,0.000,0.000,0.000
1640671763263567872,2021-12-28-06:09:23,10.1.1.9,15,-0.460,-0.460,-0.460,0.000,0.000,0.000
1640671763384080896,2021-12-28-06:09:23,10.1.1.9,11,-0.460,-0.460,-0.460,0.000,0.000,0.000
1640671765305100800,2021-12-28-06:09:25,10.1.1.9,11,-0.460,-0.460,-0.460,0.000,0.000,0.000
1640671765422338048,2021-12-28-06:09:25,10.1.1.9,5,-0.460,-0.460,-0.460,0.000,0.000,0.000
1640671767341574912,2021-12-28-06:09:27,10.1.1.9,12,-0.460,-0.460,-0.460,0.000,0.000,0.000
1640671767461068032,2021-12-28-06:09:27,10.1.1.9,6,-0.460,-0.460,-0.460,0.000,0.000,0.000
1640671769439516928,2021-12-28-06:09:29,10.1.1.9,8,-0.460,-0.460,-0.460,0.000,0.000,0.000
1640671769558918912,2021-12-28-06:09:29,10.1.1.9,4,-0.460,-0.460,-0.460,0.000,0.000,0.000
1640671771497165056,2021-12-28-06:09:31,10.1.1.9,18,-0.460,-0.460,-0.460,0.000,0.000,0.000
1640671771616655104,2021-12-28-06:09:31,10.1.1.9,13,-0.460,-0.460,-0.460,0.000,0.000,0.000
1640671773533287936,2021-12-28-06:09:33,10.1.1.9,15,-0.460,-0.460,-0.460,0.000,0.000,0.000
1640671773653625088,2021-12-28-06:09:33,10.1.1.9,11,-0.460,-0.460,-0.460,0.000,0.000,0.000
