FedericoMungari/DigitalTwin_service/Output/Output_script/script_ROSAPI_output_robots8_freq0_4.txt
timestamp,date,node,latency,joint_1,joint_2,joint_3,joint_4,joint_5,joint_6
1640670571708243968,2021-12-28-05:49:31,10.1.1.5,1640670571708.0452,-0.000,0.000,-0.000,-0.000,-0.000,-0.000
1640670575725291008,2021-12-28-05:49:35,10.1.1.5,8,-0.000,0.000,-0.000,-0.000,-0.000,-0.000
1640670577762473984,2021-12-28-05:49:37,10.1.1.5,8,-0.000,0.000,-0.000,-0.000,-0.000,-0.000
1640670579800570880,2021-12-28-05:49:39,10.1.1.5,12,-0.000,0.000,-0.000,-0.000,-0.000,-0.000
1640670581877427968,2021-12-28-05:49:41,10.1.1.5,18,-0.000,0.000,-0.000,-0.000,-0.000,-0.000
1640670583915096064,2021-12-28-05:49:43,10.1.1.5,20,-0.000,0.000,-0.000,-0.000,-0.000,-0.000
1640670586289169152,2021-12-28-05:49:46,10.1.1.5,6,-0.000,0.000,-0.000,-0.000,-0.000,-0.000
1640670588365255168,2021-12-28-05:49:48,10.1.1.5,11,-0.000,0.000,-0.000,-0.000,-0.000,-0.000
1640670590382684928,2021-12-28-05:49:50,10.1.1.5,5,-0.000,0.000,-0.000,-0.000,-0.000,-0.000
1640670592458430976,2021-12-28-05:49:52,10.1.1.5,5,-0.000,0.000,-0.000,-0.000,-0.000,-0.000
1640670594555418880,2021-12-28-05:49:54,10.1.1.5,12,-0.000,0.000,-0.000,-0.000,-0.000,-0.000
1640670596632642048,2021-12-28-05:49:56,10.1.1.5,7,-0.000,0.000,-0.000,-0.000,-0.000,-0.000
1640670598748704000,2021-12-28-05:49:58,10.1.1.5,20,-0.000,0.000,-0.000,-0.000,-0.000,-0.000
1640670600784802816,2021-12-28-05:50:00,10.1.1.5,3,-0.000,0.000,-0.000,-0.000,-0.000,-0.000
1640670602900998144,2021-12-28-05:50:02,10.1.1.5,14,-0.000,0.000,-0.000,-0.000,-0.000,-0.000
1640670604997891840,2021-12-28-05:50:04,10.1.1.5,5,-0.000,0.000,-0.000,-0.000,-0.000,-0.000
1640670607193399808,2021-12-28-05:50:07,10.1.1.5,16,-0.000,0.000,-0.000,-0.000,-0.000,-0.000
1640670609210625024,2021-12-28-05:50:09,10.1.1.5,4,-0.000,0.000,-0.000,-0.000,-0.000,-0.000
1640670611326653952,2021-12-28-05:50:11,10.1.1.5,8,-0.000,0.000,-0.000,-0.000,-0.000,-0.000
1640670613343179008,2021-12-28-05:50:13,10.1.1.5,5,-0.000,0.000,-0.000,-0.000,-0.000,-0.000
1640670615440339200,2021-12-28-05:50:15,10.1.1.5,17,-0.000,0.000,-0.000,-0.000,-0.000,-0.000
1640670617496385024,2021-12-28-05:50:17,10.1.1.5,19,-0.000,0.000,-0.000,-0.000,-0.000,-0.000
1640670619572747008,2021-12-28-05:50:19,10.1.1.5,1,-0.000,0.000,-0.000,-0.000,-0.000,-0.000
1640670621628987904,2021-12-28-05:50:21,10.1.1.5,18,-0.000,0.000,-0.000,-0.000,-0.000,-0.000
1640670623767541760,2021-12-28-05:50:23,10.1.1.5,13,-0.000,0.000,-0.000,-0.000,-0.000,-0.000
1640670625825295872,2021-12-28-05:50:25,10.1.1.5,8,-0.000,0.000,-0.000,-0.000,-0.000,-0.000
1640670627857188096,2021-12-28-05:50:27,10.1.1.5,6,-0.000,0.000,-0.000,-0.000,-0.000,-0.000
1640670629945772032,2021-12-28-05:50:29,10.1.1.5,18,-0.000,0.000,-0.000,-0.000,-0.000,-0.000
1640670631991619072,2021-12-28-05:50:31,10.1.1.5,4,-0.000,0.000,-0.000,-0.000,-0.000,-0.000
1640670634001206016,2021-12-28-05:50:34,10.1.1.5,6,-0.000,0.000,-0.000,-0.000,-0.000,-0.000
1640670636136421888,2021-12-28-05:50:36,10.1.1.5,19,-0.000,0.000,-0.000,-0.000,-0.000,-0.000
1640670638177434880,2021-12-28-05:50:38,10.1.1.5,18,-0.000,0.000,-0.000,-0.000,-0.000,-0.000
1640670640248875008,2021-12-28-05:50:40,10.1.1.5,11,-0.000,0.000,-0.000,-0.000,-0.000,-0.000
1640670642316329984,2021-12-28-05:50:42,10.1.1.5,8,-0.000,0.000,-0.000,-0.000,-0.000,-0.000
1640670644353518080,2021-12-28-05:50:44,10.1.1.5,6,-0.000,0.000,-0.000,-0.000,-0.000,-0.000
1640670646391511040,2021-12-28-05:50:46,10.1.1.5,17,-0.000,0.000,-0.000,-0.000,-0.000,-0.000
1640670648489976832,2021-12-28-05:50:48,10.1.1.5,13,-0.000,0.000,-0.000,-0.000,-0.000,-0.000
1640670650567544064,2021-12-28-05:50:50,10.1.1.5,18,-0.000,0.000,-0.000,-0.000,-0.000,-0.000
1640670652642780928,2021-12-28-05:50:52,10.1.1.5,14,-0.000,0.000,-0.000,-0.000,-0.000,-0.000
1640670654664338176,2021-12-28-05:50:54,10.1.1.5,4,-0.000,0.000,-0.000,-0.000,-0.000,-0.000
1640670656735714048,2021-12-28-05:50:56,10.1.1.5,2,-0.000,0.000,-0.000,-0.000,-0.000,-0.000
1640670658880662016,2021-12-28-05:50:58,10.1.1.5,6,-0.000,0.000,-0.000,-0.000,-0.000,-0.000
1640670660945321984,2021-12-28-05:51:00,10.1.1.5,9,-0.000,0.000,-0.000,-0.000,-0.000,-0.000
1640670663006560000,2021-12-28-05:51:03,10.1.1.5,4,-0.000,0.000,-0.000,-0.000,-0.000,-0.000
1640670665127543040,2021-12-28-05:51:05,10.1.1.5,2,-0.000,0.000,-0.000,-0.000,-0.000,-0.000
1640670667186702080,2021-12-28-05:51:07,10.1.1.5,12,-0.000,0.000,-0.000,-0.000,-0.000,-0.000
1640670669225751040,2021-12-28-05:51:09,10.1.1.5,2,-0.000,0.000,-0.000,-0.000,-0.000,-0.000
1640670671304280064,2021-12-28-05:51:11,10.1.1.5,7,-0.000,0.000,-0.000,-0.000,-0.000,-0.000
1640670673422593024,2021-12-28-05:51:13,10.1.1.5,3,-0.000,0.000,-0.000,-0.000,-0.000,-0.000
1640670675539891968,2021-12-28-05:51:15,10.1.1.5,18,-0.000,0.000,-0.000,-0.000,-0.000,-0.000
1640670677557438976,2021-12-28-05:51:17,10.1.1.5,5,-0.000,0.000,-0.000,-0.000,-0.000,-0.000
1640670679614022144,2021-12-28-05:51:19,10.1.1.5,10,-0.000,0.000,-0.000,-0.000,-0.000,-0.000
1640670681651026944,2021-12-28-05:51:21,10.1.1.5,7,-0.000,0.000,-0.000,-0.000,-0.000,-0.000
1640670683688849920,2021-12-28-05:51:23,10.1.1.5,7,-0.000,0.000,-0.000,-0.000,-0.000,-0.000
1640670685724556032,2021-12-28-05:51:25,10.1.1.5,7,-0.000,0.000,-0.000,-0.000,-0.000,-0.000
1640670687786104064,2021-12-28-05:51:27,10.1.1.5,18,-0.000,0.000,-0.000,-0.000,-0.000,-0.000
1640670692081911040,2021-12-28-05:51:32,10.1.1.5,3,-0.000,0.000,-0.000,-0.000,-0.000,-0.000
1640670694186400000,2021-12-28-05:51:34,10.1.1.5,1,-0.000,0.000,-0.000,-0.000,-0.000,-0.000
1640670696266606080,2021-12-28-05:51:36,10.1.1.5,4,-0.000,0.000,-0.000,-0.000,-0.000,-0.000
1640670698346551808,2021-12-28-05:51:38,10.1.1.5,10,-0.000,0.000,-0.000,-0.000,-0.000,-0.000
1640670700406279936,2021-12-28-05:51:40,10.1.1.5,1,-0.000,0.000,-0.000,-0.000,-0.000,-0.000
1640670702484761088,2021-12-28-05:51:42,10.1.1.5,6,-0.000,0.000,-0.000,-0.000,-0.000,-0.000
1640670704622771968,2021-12-28-05:51:44,10.1.1.5,12,-0.000,0.000,-0.000,-0.000,-0.000,-0.000
1640670706680912896,2021-12-28-05:51:46,10.1.1.5,14,-0.000,0.000,-0.000,-0.000,-0.000,-0.000
1640670708778393856,2021-12-28-05:51:48,10.1.1.5,7,-0.000,0.000,-0.000,-0.000,-0.000,-0.000
1640670710835705088,2021-12-28-05:51:50,10.1.1.5,10,-0.000,0.000,-0.000,-0.000,-0.000,-0.000
1640670712991666176,2021-12-28-05:51:52,10.1.1.5,13,-0.000,0.000,-0.000,-0.000,-0.000,-0.000
1640670715008809984,2021-12-28-05:51:55,10.1.1.5,3,-0.000,0.000,-0.000,-0.000,-0.000,-0.000
1640670717086266880,2021-12-28-05:51:57,10.1.1.5,11,-0.000,0.000,-0.000,-0.000,-0.000,-0.000
1640670719143447040,2021-12-28-05:51:59,10.1.1.5,11,-0.000,0.000,-0.000,-0.000,-0.000,-0.000
1640670721253901056,2021-12-28-05:52:01,10.1.1.5,17,-0.000,0.000,-0.000,-0.000,-0.000,-0.000
1640670723280096000,2021-12-28-05:52:03,10.1.1.5,4,-0.000,0.000,-0.000,-0.000,-0.000,-0.000
1640670725323689984,2021-12-28-05:52:05,10.1.1.5,12,-0.000,0.000,-0.000,-0.000,-0.000,-0.000
1640670727426769920,2021-12-28-05:52:07,10.1.1.5,13,-0.000,0.000,-0.000,-0.000,-0.000,-0.000
1640670729466769920,2021-12-28-05:52:09,10.1.1.5,2,-0.000,0.000,-0.000,-0.000,-0.000,-0.000
1640670731547051008,2021-12-28-05:52:11,10.1.1.5,5,-0.000,0.000,-0.000,-0.000,-0.000,-0.000
1640670733606082048,2021-12-28-05:52:13,10.1.1.5,1,-0.000,0.000,-0.000,-0.000,-0.000,-0.000
1640670735664310016,2021-12-28-05:52:15,10.1.1.5,14,-0.000,0.000,-0.000,-0.000,-0.000,-0.000
1640670737682465024,2021-12-28-05:52:17,10.1.1.5,4,-0.000,0.000,-0.000,-0.000,-0.000,-0.000
1640670739819358208,2021-12-28-05:52:19,10.1.1.5,4,-0.000,0.000,-0.000,-0.000,-0.000,-0.000
1640670741877024000,2021-12-28-05:52:21,10.1.1.5,5,-0.000,0.000,-0.000,-0.000,-0.000,-0.000
1640670743895076096,2021-12-28-05:52:23,10.1.1.5,0,-0.000,0.000,-0.000,-0.000,-0.000,-0.000
1640670746051827968,2021-12-28-05:52:26,10.1.1.5,1,-0.000,0.000,-0.000,-0.000,-0.000,-0.000
1640670748087398144,2021-12-28-05:52:28,10.1.1.5,5,-0.000,0.000,-0.000,-0.000,-0.000,-0.000
1640670750124478208,2021-12-28-05:52:30,10.1.1.5,4,-0.000,0.000,-0.000,-0.000,-0.000,-0.000
1640670752150077952,2021-12-28-05:52:32,10.1.1.5,4,-0.000,0.000,-0.000,-0.000,-0.000,-0.000
1640670754217533184,2021-12-28-05:52:34,10.1.1.5,16,-0.000,0.000,-0.000,-0.000,-0.000,-0.000
1640670756243495936,2021-12-28-05:52:36,10.1.1.5,17,-0.000,0.000,-0.000,-0.000,-0.000,-0.000
1640670758305611008,2021-12-28-05:52:38,10.1.1.5,19,-0.000,0.000,-0.000,-0.000,-0.000,-0.000
1640670760407622144,2021-12-28-05:52:40,10.1.1.5,11,-0.000,0.000,-0.000,-0.000,-0.000,-0.000
1640670762448230912,2021-12-28-05:52:42,10.1.1.5,2,-0.000,0.000,-0.000,-0.000,-0.000,-0.000
1640670764487147008,2021-12-28-05:52:44,10.1.1.5,4,-0.000,0.000,-0.000,-0.000,-0.000,-0.000
1640670766548288000,2021-12-28-05:52:46,10.1.1.5,12,-0.000,0.000,-0.000,-0.000,-0.000,-0.000
1640670768623814144,2021-12-28-05:52:48,10.1.1.5,15,-0.000,0.000,-0.000,-0.000,-0.000,-0.000
1640670770741595136,2021-12-28-05:52:50,10.1.1.5,10,-0.000,0.000,-0.000,-0.000,-0.000,-0.000
1640670772859649792,2021-12-28-05:52:52,10.1.1.5,14,-0.000,0.000,-0.000,-0.000,-0.000,-0.000
1640670774895757824,2021-12-28-05:52:54,10.1.1.5,19,-0.000,0.000,-0.000,-0.000,-0.000,-0.000
1640670776933118976,2021-12-28-05:52:56,10.1.1.5,14,-0.000,0.000,-0.000,-0.000,-0.000,-0.000
1640670778970198016,2021-12-28-05:52:58,10.1.1.5,2,-0.000,0.000,-0.000,-0.000,-0.000,-0.000
1640670780987118080,2021-12-28-05:53:00,10.1.1.5,4,-0.000,0.000,-0.000,-0.000,-0.000,-0.000
1640670783144475904,2021-12-28-05:53:03,10.1.1.5,14,-0.000,0.000,-0.000,-0.000,-0.000,-0.000
1640670785174531072,2021-12-28-05:53:05,10.1.1.5,8,-0.000,0.000,-0.000,-0.000,-0.000,-0.000
1640670787222272000,2021-12-28-05:53:07,10.1.1.5,6,-0.000,0.000,-0.000,-0.000,-0.000,-0.000
1640670789266156032,2021-12-28-05:53:09,10.1.1.5,12,-0.000,0.000,-0.000,-0.000,-0.000,-0.000
1640670791329089024,2021-12-28-05:53:11,10.1.1.5,14,-0.000,0.000,-0.000,-0.000,-0.000,-0.000
1640670793350331904,2021-12-28-05:53:13,10.1.1.5,3,-0.000,0.000,-0.000,-0.000,-0.000,-0.000
1640670795391442176,2021-12-28-05:53:15,10.1.1.5,7,-0.000,0.000,-0.000,-0.000,-0.000,-0.000
1640670797429351936,2021-12-28-05:53:17,10.1.1.5,12,-0.000,0.000,-0.000,-0.000,-0.000,-0.000
1640670799549516032,2021-12-28-05:53:19,10.1.1.5,2,-0.000,0.000,-0.000,-0.000,-0.000,-0.000
1640670801586661120,2021-12-28-05:53:21,10.1.1.5,9,-0.000,0.000,-0.000,-0.000,-0.000,-0.000
1640670803703876864,2021-12-28-05:53:23,10.1.1.5,5,-0.000,0.000,-0.000,-0.000,-0.000,-0.000
1640670805800820992,2021-12-28-05:53:25,10.1.1.5,0,-0.000,0.000,-0.000,-0.000,-0.000,-0.000
1640670807858141952,2021-12-28-05:53:27,10.1.1.5,12,-0.000,0.000,-0.000,-0.000,-0.000,-0.000
1640670809975816960,2021-12-28-05:53:29,10.1.1.5,11,-0.000,0.000,-0.000,-0.000,-0.000,-0.000
1640670812072297984,2021-12-28-05:53:32,10.1.1.5,14,-0.000,0.000,-0.000,-0.000,-0.000,-0.000
1640670814108849152,2021-12-28-05:53:34,10.1.1.5,5,-0.000,0.000,-0.000,-0.000,-0.000,-0.000
1640670816186667008,2021-12-28-05:53:36,10.1.1.5,18,-0.000,0.000,-0.000,-0.000,-0.000,-0.000
1640670818316185088,2021-12-28-05:53:38,10.1.1.5,0,-0.000,0.000,-0.000,-0.000,-0.000,-0.000
1640670820361843200,2021-12-28-05:53:40,10.1.1.5,11,-0.000,0.000,-0.000,-0.000,-0.000,-0.000
1640670822385071872,2021-12-28-05:53:42,10.1.1.5,6,-0.000,0.000,-0.000,-0.000,-0.000,-0.000
1640670824547232000,2021-12-28-05:53:44,10.1.1.5,18,-0.000,0.000,-0.000,-0.000,-0.000,-0.000
1640670826608845056,2021-12-28-05:53:46,10.1.1.5,0,-0.000,0.000,-0.000,-0.000,-0.000,-0.000
1640670828667517952,2021-12-28-05:53:48,10.1.1.5,17,-0.000,0.000,-0.000,-0.000,-0.000,-0.000
1640670830826983936,2021-12-28-05:53:50,10.1.1.5,13,-0.000,0.000,-0.000,-0.000,-0.000,-0.000
1640670832864366080,2021-12-28-05:53:52,10.1.1.5,10,-0.000,0.000,-0.000,-0.000,-0.000,-0.000
1640670834882242816,2021-12-28-05:53:54,10.1.1.5,2,-0.000,0.000,-0.000,-0.000,-0.000,-0.000
1640670836959527936,2021-12-28-05:53:56,10.1.1.5,6,-0.000,0.000,-0.000,-0.000,-0.000,-0.000
1640670839097148928,2021-12-28-05:53:59,10.1.1.5,5,-0.000,0.000,-0.000,-0.000,-0.000,-0.000
1640670841154381056,2021-12-28-05:54:01,10.1.1.5,14,-0.000,0.000,-0.000,-0.000,-0.000,-0.000
1640670843171068928,2021-12-28-05:54:03,10.1.1.5,9,-0.000,0.000,-0.000,-0.000,-0.000,-0.000
1640670845228980992,2021-12-28-05:54:05,10.1.1.5,1,-0.000,0.000,-0.000,-0.000,-0.000,-0.000
1640670847365511936,2021-12-28-05:54:07,10.1.1.5,2,-0.000,0.000,-0.000,-0.000,-0.000,-0.000
1640670849431042048,2021-12-28-05:54:09,10.1.1.5,17,-0.000,0.000,-0.000,-0.000,-0.000,-0.000
1640670853584009984,2021-12-28-05:54:13,10.1.1.5,12,-0.000,0.000,-0.000,-0.000,-0.000,-0.000
1640670855647336960,2021-12-28-05:54:15,10.1.1.5,12,-0.000,0.000,-0.000,-0.000,-0.000,-0.000
1640670857689278976,2021-12-28-05:54:17,10.1.1.5,18,-0.000,0.000,-0.000,-0.000,-0.000,-0.000
1640670859749444864,2021-12-28-05:54:19,10.1.1.5,2,-0.000,0.000,-0.000,-0.000,-0.000,-0.000
1640670861868434944,2021-12-28-05:54:21,10.1.1.5,3,-0.000,0.000,-0.000,-0.000,-0.000,-0.000
1640670863948101120,2021-12-28-05:54:23,10.1.1.5,12,-0.000,0.000,-0.000,-0.000,-0.000,-0.000
1640670866025676032,2021-12-28-05:54:26,10.1.1.5,18,-0.000,0.000,-0.000,-0.000,-0.000,-0.000
1640670868103449088,2021-12-28-05:54:28,10.1.1.5,16,-0.000,0.000,-0.000,-0.000,-0.000,-0.000
1640670870160795904,2021-12-28-05:54:30,10.1.1.5,5,-0.000,0.000,-0.000,-0.000,-0.000,-0.000
1640670872282610944,2021-12-28-05:54:32,10.1.1.5,21,-0.000,0.000,-0.000,-0.000,-0.000,-0.000
1640670874354199040,2021-12-28-05:54:34,10.1.1.5,6,-0.000,0.000,-0.000,-0.000,-0.000,-0.000
1640670876450684160,2021-12-28-05:54:36,10.1.1.5,6,-0.000,0.000,-0.000,-0.000,-0.000,-0.000
1640670878567877888,2021-12-28-05:54:38,10.1.1.5,6,-0.000,0.000,-0.000,-0.000,-0.000,-0.000
1640670880628962048,2021-12-28-05:54:40,10.1.1.5,15,-0.000,0.000,-0.000,-0.000,-0.000,-0.000
1640670882677125888,2021-12-28-05:54:42,10.1.1.5,2,-0.000,0.000,-0.000,-0.000,-0.000,-0.000
1640670884723046144,2021-12-28-05:54:44,10.1.1.5,15,-0.000,0.000,-0.000,-0.000,-0.000,-0.000
1640670886827043072,2021-12-28-05:54:46,10.1.1.5,18,-0.000,0.000,-0.000,-0.000,-0.000,-0.000
1640670888948744960,2021-12-28-05:54:48,10.1.1.5,14,-0.000,0.000,-0.000,-0.000,-0.000,-0.000
1640670890990743040,2021-12-28-05:54:50,10.1.1.5,19,-0.000,0.000,-0.000,-0.000,-0.000,-0.000
1640670893008618240,2021-12-28-05:54:53,10.1.1.5,9,-0.000,0.000,-0.000,-0.000,-0.000,-0.000
1640670895146991104,2021-12-28-05:54:55,10.1.1.5,4,-0.000,0.000,-0.000,-0.000,-0.000,-0.000
1640670897265356032,2021-12-28-05:54:57,10.1.1.5,18,-0.000,0.000,-0.000,-0.000,-0.000,-0.000
1640670899343243008,2021-12-28-05:54:59,10.1.1.5,7,-0.000,0.000,-0.000,-0.000,-0.000,-0.000
1640670901400850176,2021-12-28-05:55:01,10.1.1.5,18,-0.000,0.000,-0.000,-0.000,-0.000,-0.000
1640670903417933056,2021-12-28-05:55:03,10.1.1.5,8,-0.000,0.000,-0.000,-0.000,-0.000,-0.000
1640670905474910976,2021-12-28-05:55:05,10.1.1.5,19,-0.000,0.000,-0.000,-0.000,-0.000,-0.000
1640670907631815936,2021-12-28-05:55:07,10.1.1.5,11,-0.000,0.000,-0.000,-0.000,-0.000,-0.000
1640670909668188928,2021-12-28-05:55:09,10.1.1.5,6,-0.000,0.000,-0.000,-0.000,-0.000,-0.000
1640670911924595968,2021-12-28-05:55:11,10.1.1.5,11,-0.000,0.000,-0.000,-0.000,-0.000,-0.000
1640670913995415808,2021-12-28-05:55:13,10.1.1.5,17,-0.000,0.000,-0.000,-0.000,-0.000,-0.000
1640670916023499008,2021-12-28-05:55:16,10.1.1.5,4,-0.000,0.000,-0.000,-0.000,-0.000,-0.000
1640670918067450880,2021-12-28-05:55:18,10.1.1.5,3,-0.000,0.000,-0.000,-0.000,-0.000,-0.000
1640670920110310912,2021-12-28-05:55:20,10.1.1.5,10,-0.000,0.000,-0.000,-0.000,-0.000,-0.000
1640670922271958016,2021-12-28-05:55:22,10.1.1.5,2,-0.000,0.000,-0.000,-0.000,-0.000,-0.000
1640670924332550144,2021-12-28-05:55:24,10.1.1.5,11,-0.000,0.000,-0.000,-0.000,-0.000,-0.000
1640670926390469120,2021-12-28-05:55:26,10.1.1.5,4,-0.000,0.000,-0.000,-0.000,-0.000,-0.000
1640670928489660928,2021-12-28-05:55:28,10.1.1.5,14,-0.000,0.000,-0.000,-0.000,-0.000,-0.000
1640670930627435008,2021-12-28-05:55:30,10.1.1.5,13,-0.000,0.000,-0.000,-0.000,-0.000,-0.000
1640670932744880896,2021-12-28-05:55:32,10.1.1.5,12,-0.000,0.000,-0.000,-0.000,-0.000,-0.000
1640670934762281984,2021-12-28-05:55:34,10.1.1.5,4,-0.000,0.000,-0.000,-0.000,-0.000,-0.000
1640670936780168960,2021-12-28-05:55:36,10.1.1.5,2,-0.000,0.000,-0.000,-0.000,-0.000,-0.000
1640670938856865792,2021-12-28-05:55:38,10.1.1.5,12,-0.000,0.000,-0.000,-0.000,-0.000,-0.000
1640670940933408000,2021-12-28-05:55:40,10.1.1.5,6,-0.000,0.000,-0.000,-0.000,-0.000,-0.000
1640670942991301120,2021-12-28-05:55:42,10.1.1.5,7,-0.000,0.000,-0.000,-0.000,-0.000,-0.000
1640670945127814144,2021-12-28-05:55:45,10.1.1.5,9,-0.000,0.000,-0.000,-0.000,-0.000,-0.000
1640670947157100032,2021-12-28-05:55:47,10.1.1.5,11,-0.000,0.000,-0.000,-0.000,-0.000,-0.000
1640670949202260992,2021-12-28-05:55:49,10.1.1.5,15,-0.000,0.000,-0.000,-0.000,-0.000,-0.000
1640670951246753024,2021-12-28-05:55:51,10.1.1.5,10,-0.000,0.000,-0.000,-0.000,-0.000,-0.000
1640670953308904960,2021-12-28-05:55:53,10.1.1.5,0,-0.000,0.000,-0.000,-0.000,-0.000,-0.000
1640670955348712960,2021-12-28-05:55:55,10.1.1.5,9,-0.000,0.000,-0.000,-0.000,-0.000,-0.000
1640670957408660992,2021-12-28-05:55:57,10.1.1.5,7,-0.000,0.000,-0.000,-0.000,-0.000,-0.000
1640670959527492096,2021-12-28-05:55:59,10.1.1.5,13,-0.000,0.000,-0.000,-0.000,-0.000,-0.000
1640670961565835008,2021-12-28-05:56:01,10.1.1.5,0,-0.000,0.000,-0.000,-0.000,-0.000,-0.000
1640670963704349952,2021-12-28-05:56:03,10.1.1.5,3,-0.000,0.000,-0.000,-0.000,-0.000,-0.000
1640670965801342976,2021-12-28-05:56:05,10.1.1.5,6,-0.000,0.000,-0.000,-0.000,-0.000,-0.000
1640670967819091968,2021-12-28-05:56:07,10.1.1.5,2,-0.000,0.000,-0.000,-0.000,-0.000,-0.000
1640670969883752960,2021-12-28-05:56:09,10.1.1.5,13,-0.000,0.000,-0.000,-0.000,-0.000,-0.000
1640670971952002048,2021-12-28-05:56:11,10.1.1.5,3,-0.000,0.000,-0.000,-0.000,-0.000,-0.000
1640670974009003008,2021-12-28-05:56:14,10.1.1.5,7,-0.000,0.000,-0.000,-0.000,-0.000,-0.000
1640670976046865920,2021-12-28-05:56:16,10.1.1.5,13,-0.000,0.000,-0.000,-0.000,-0.000,-0.000
1640670978090470912,2021-12-28-05:56:18,10.1.1.5,11,-0.000,0.000,-0.000,-0.000,-0.000,-0.000
1640670980138996992,2021-12-28-05:56:20,10.1.1.5,2,-0.000,0.000,-0.000,-0.000,-0.000,-0.000
1640670982264158976,2021-12-28-05:56:22,10.1.1.5,19,-0.000,0.000,-0.000,-0.000,-0.000,-0.000
1640670984266856960,2021-12-28-05:56:24,10.1.1.5,1,-0.000,0.000,-0.000,-0.000,-0.000,-0.000
1640670986308825856,2021-12-28-05:56:26,10.1.1.5,12,-0.000,0.000,-0.000,-0.000,-0.000,-0.000
1640670988348609024,2021-12-28-05:56:28,10.1.1.5,19,-0.000,0.000,-0.000,-0.000,-0.000,-0.000
1640670990368491776,2021-12-28-05:56:30,10.1.1.5,9,-0.000,0.000,-0.000,-0.000,-0.000,-0.000
1640670992387868928,2021-12-28-05:56:32,10.1.1.5,1,-0.000,0.000,-0.000,-0.000,-0.000,-0.000
1640670994485373952,2021-12-28-05:56:34,10.1.1.5,3,-0.000,0.000,-0.000,-0.000,-0.000,-0.000
1640670996543575040,2021-12-28-05:56:36,10.1.1.5,16,-0.000,0.000,-0.000,-0.000,-0.000,-0.000
1640670998620768000,2021-12-28-05:56:38,10.1.1.5,19,-0.000,0.000,-0.000,-0.000,-0.000,-0.000
1640671000679006208,2021-12-28-05:56:40,10.1.1.5,7,-0.000,0.000,-0.000,-0.000,-0.000,-0.000
1640671002734635008,2021-12-28-05:56:42,10.1.1.5,18,-0.000,0.000,-0.000,-0.000,-0.000,-0.000
1640671004751597824,2021-12-28-05:56:44,10.1.1.5,13,-0.000,0.000,-0.000,-0.000,-0.000,-0.000
1640671006769076992,2021-12-28-05:56:46,10.1.1.5,13,-0.000,0.000,-0.000,-0.000,-0.000,-0.000
1640671008887584000,2021-12-28-05:56:48,10.1.1.5,8,-0.000,0.000,-0.000,-0.000,-0.000,-0.000
1640671011095834880,2021-12-28-05:56:51,10.1.1.5,8,-0.000,0.000,-0.000,-0.000,-0.000,-0.000
1640671013181860864,2021-12-28-05:56:53,10.1.1.5,13,-0.000,0.000,-0.000,-0.000,-0.000,-0.000
1640671015206760960,2021-12-28-05:56:55,10.1.1.5,13,-0.000,0.000,-0.000,-0.000,-0.000,-0.000
1640671017269234944,2021-12-28-05:56:57,10.1.1.5,11,-0.000,0.000,-0.000,-0.000,-0.000,-0.000
1640671019329686016,2021-12-28-05:56:59,10.1.1.5,6,-0.000,0.000,-0.000,-0.000,-0.000,-0.000
1640671021449400064,2021-12-28-05:57:01,10.1.1.5,8,-0.000,0.000,-0.000,-0.000,-0.000,-0.000
1640671023609652992,2021-12-28-05:57:03,10.1.1.5,5,-0.000,0.000,-0.000,-0.000,-0.000,-0.000
1640671025646724864,2021-12-28-05:57:05,10.1.1.5,6,-0.000,0.000,-0.000,-0.000,-0.000,-0.000
1640671027685065984,2021-12-28-05:57:07,10.1.1.5,20,-0.000,0.000,-0.000,-0.000,-0.000,-0.000
1640671029784043008,2021-12-28-05:57:09,10.1.1.5,5,-0.000,0.000,-0.000,-0.000,-0.000,-0.000
1640671031840060928,2021-12-28-05:57:11,10.1.1.5,18,-0.000,0.000,-0.000,-0.000,-0.000,-0.000
1640671033876844032,2021-12-28-05:57:13,10.1.1.5,18,-0.000,0.000,-0.000,-0.000,-0.000,-0.000
1640671037991585024,2021-12-28-05:57:17,10.1.1.5,12,-0.000,0.000,-0.000,-0.000,-0.000,-0.000
1640671040027399936,2021-12-28-05:57:20,10.1.1.5,14,-0.000,0.000,-0.000,-0.000,-0.000,-0.000
1640671042112168192,2021-12-28-05:57:22,10.1.1.5,11,-0.000,0.000,-0.000,-0.000,-0.000,-0.000
1640671044158864128,2021-12-28-05:57:24,10.1.1.5,9,-0.000,0.000,-0.000,-0.000,-0.000,-0.000
1640671046246226944,2021-12-28-05:57:26,10.1.1.5,17,-0.000,0.000,-0.000,-0.000,-0.000,-0.000
1640671048269010944,2021-12-28-05:57:28,10.1.1.5,5,-0.000,0.000,-0.000,-0.000,-0.000,-0.000
1640671050350050816,2021-12-28-05:57:30,10.1.1.5,18,-0.000,0.000,-0.000,-0.000,-0.000,-0.000
1640671052350430976,2021-12-28-05:57:32,10.1.1.5,9,-0.000,0.000,-0.000,-0.000,-0.000,-0.000
1640671054370706176,2021-12-28-05:57:34,10.1.1.5,12,-0.000,0.000,-0.000,-0.000,-0.000,-0.000
1640671056388953088,2021-12-28-05:57:36,10.1.1.5,5,-0.000,0.000,-0.000,-0.000,-0.000,-0.000
1640671058428123904,2021-12-28-05:57:38,10.1.1.5,10,-0.000,0.000,-0.000,-0.000,-0.000,-0.000
1640671060465115136,2021-12-28-05:57:40,10.1.1.5,5,-0.000,0.000,-0.000,-0.000,-0.000,-0.000
1640671062602184960,2021-12-28-05:57:42,10.1.1.5,15,-0.000,0.000,-0.000,-0.000,-0.000,-0.000
1640671064659759872,2021-12-28-05:57:44,10.1.1.5,11,-0.000,0.000,-0.000,-0.000,-0.000,-0.000
1640671066756354048,2021-12-28-05:57:46,10.1.1.5,6,-0.000,0.000,-0.000,-0.000,-0.000,-0.000
1640671068873116928,2021-12-28-05:57:48,10.1.1.5,4,-0.000,0.000,-0.000,-0.000,-0.000,-0.000
1640671070930774016,2021-12-28-05:57:50,10.1.1.5,8,-0.000,0.000,-0.000,-0.000,-0.000,-0.000
1640671073047436032,2021-12-28-05:57:53,10.1.1.5,10,-0.000,0.000,-0.000,-0.000,-0.000,-0.000
1640671075151457024,2021-12-28-05:57:55,10.1.1.5,8,-0.000,0.000,-0.000,-0.000,-0.000,-0.000
1640671077200589824,2021-12-28-05:57:57,10.1.1.5,11,-0.000,0.000,-0.000,-0.000,-0.000,-0.000
1640671079284705024,2021-12-28-05:57:59,10.1.1.5,6,-0.000,0.000,-0.000,-0.000,-0.000,-0.000
1640671081328849152,2021-12-28-05:58:01,10.1.1.5,8,-0.000,0.000,-0.000,-0.000,-0.000,-0.000
1640671083469472000,2021-12-28-05:58:03,10.1.1.5,12,-0.000,0.000,-0.000,-0.000,-0.000,-0.000
1640671085549716992,2021-12-28-05:58:05,10.1.1.5,6,-0.000,0.000,-0.000,-0.000,-0.000,-0.000
1640671087688513024,2021-12-28-05:58:07,10.1.1.5,1,-0.000,0.000,-0.000,-0.000,-0.000,-0.000
1640671089787619072,2021-12-28-05:58:09,10.1.1.5,7,-0.000,0.000,-0.000,-0.000,-0.000,-0.000
1640671091865806080,2021-12-28-05:58:11,10.1.1.5,12,-0.000,0.000,-0.000,-0.000,-0.000,-0.000
1640671093923970816,2021-12-28-05:58:13,10.1.1.5,18,-0.000,0.000,-0.000,-0.000,-0.000,-0.000
1640671095940692992,2021-12-28-05:58:15,10.1.1.5,8,-0.000,0.000,-0.000,-0.000,-0.000,-0.000
1640671097978356992,2021-12-28-05:58:17,10.1.1.5,4,-0.000,0.000,-0.000,-0.000,-0.000,-0.000
1640671100035036928,2021-12-28-05:58:20,10.1.1.5,11,-0.000,0.000,-0.000,-0.000,-0.000,-0.000
1640671102172199936,2021-12-28-05:58:22,10.1.1.5,9,-0.000,0.000,-0.000,-0.000,-0.000,-0.000
1640671104208182016,2021-12-28-05:58:24,10.1.1.5,5,-0.000,0.000,-0.000,-0.000,-0.000,-0.000
1640671106247323904,2021-12-28-05:58:26,10.1.1.5,18,-0.000,0.000,-0.000,-0.000,-0.000,-0.000
1640671108357029888,2021-12-28-05:58:28,10.1.1.5,20,-0.000,0.000,-0.000,-0.000,-0.000,-0.000
1640671110403747072,2021-12-28-05:58:30,10.1.1.5,9,-0.000,0.000,-0.000,-0.000,-0.000,-0.000
1640671114609782016,2021-12-28-05:58:34,10.1.1.5,3,-0.000,0.000,-0.000,-0.000,-0.000,-0.000
1640671116649873920,2021-12-28-05:58:36,10.1.1.5,10,-0.000,0.000,-0.000,-0.000,-0.000,-0.000
1640671118689806080,2021-12-28-05:58:38,10.1.1.5,4,-0.000,0.000,-0.000,-0.000,-0.000,-0.000
1640671120729672960,2021-12-28-05:58:40,10.1.1.5,8,-0.000,0.000,-0.000,-0.000,-0.000,-0.000
1640671122807598080,2021-12-28-05:58:42,10.1.1.5,11,-0.000,0.000,-0.000,-0.000,-0.000,-0.000
1640671124845362944,2021-12-28-05:58:44,10.1.1.5,7,-0.000,0.000,-0.000,-0.000,-0.000,-0.000
1640671126883119104,2021-12-28-05:58:46,10.1.1.5,18,-0.000,0.000,-0.000,-0.000,-0.000,-0.000
1640671128940412160,2021-12-28-05:58:48,10.1.1.5,18,-0.000,0.000,-0.000,-0.000,-0.000,-0.000
1640671131037659904,2021-12-28-05:58:51,10.1.1.5,11,-0.000,0.000,-0.000,-0.000,-0.000,-0.000
1640671133173844992,2021-12-28-05:58:53,10.1.1.5,20,-0.000,0.000,-0.000,-0.000,-0.000,-0.000
1640671135210750976,2021-12-28-05:58:55,10.1.1.5,1,-0.000,0.000,-0.000,-0.000,-0.000,-0.000
1640671137288532992,2021-12-28-05:58:57,10.1.1.5,7,-0.000,0.000,-0.000,-0.000,-0.000,-0.000
1640671139394248960,2021-12-28-05:58:59,10.1.1.5,16,-0.000,0.000,-0.000,-0.000,-0.000,-0.000
1640671141420759808,2021-12-28-05:59:01,10.1.1.5,2,-0.000,0.000,-0.000,-0.000,-0.000,-0.000
1640671143465954048,2021-12-28-05:59:03,10.1.1.5,17,-0.000,0.000,-0.000,-0.000,-0.000,-0.000
1640671145489306880,2021-12-28-05:59:05,10.1.1.5,13,-0.000,0.000,-0.000,-0.000,-0.000,-0.000
1640671147611783936,2021-12-28-05:59:07,10.1.1.5,4,-0.000,0.000,-0.000,-0.000,-0.000,-0.000
1640671149746409984,2021-12-28-05:59:09,10.1.1.5,13,-0.000,0.000,-0.000,-0.000,-0.000,-0.000
1640671151792356864,2021-12-28-05:59:11,10.1.1.5,6,-0.000,0.000,-0.000,-0.000,-0.000,-0.000
1640671153849283072,2021-12-28-05:59:13,10.1.1.5,18,-0.000,0.000,-0.000,-0.000,-0.000,-0.000
1640671155987546880,2021-12-28-05:59:15,10.1.1.5,19,-0.000,0.000,-0.000,-0.000,-0.000,-0.000
1640671158024722944,2021-12-28-05:59:18,10.1.1.5,13,-0.000,0.000,-0.000,-0.000,-0.000,-0.000
1640671160042275840,2021-12-28-05:59:20,10.1.1.5,1,-0.000,0.000,-0.000,-0.000,-0.000,-0.000
1640671162099212800,2021-12-28-05:59:22,10.1.1.5,16,-0.000,0.000,-0.000,-0.000,-0.000,-0.000
1640671164136495104,2021-12-28-05:59:24,10.1.1.5,12,-0.000,0.000,-0.000,-0.000,-0.000,-0.000
1640671166192990976,2021-12-28-05:59:26,10.1.1.5,17,-0.000,0.000,-0.000,-0.000,-0.000,-0.000
1640671168249949952,2021-12-28-05:59:28,10.1.1.5,16,-0.000,0.000,-0.000,-0.000,-0.000,-0.000
1640671170308969984,2021-12-28-05:59:30,10.1.1.5,5,-0.000,0.000,-0.000,-0.000,-0.000,-0.000
1640671172399084032,2021-12-28-05:59:32,10.1.1.5,4,-0.000,0.000,-0.000,-0.000,-0.000,-0.000
1640671174445893120,2021-12-28-05:59:34,10.1.1.5,13,-0.000,0.000,-0.000,-0.000,-0.000,-0.000
1640671176470247936,2021-12-28-05:59:36,10.1.1.5,11,-0.000,0.000,-0.000,-0.000,-0.000,-0.000
1640671178492628992,2021-12-28-05:59:38,10.1.1.5,13,-0.000,0.000,-0.000,-0.000,-0.000,-0.000
1640671180514117120,2021-12-28-05:59:40,10.1.1.5,10,-0.000,0.000,-0.000,-0.000,-0.000,-0.000
1640671182574181120,2021-12-28-05:59:42,10.1.1.5,9,-0.000,0.000,-0.000,-0.000,-0.000,-0.000
1640671184652445952,2021-12-28-05:59:44,10.1.1.5,10,-0.000,0.000,-0.000,-0.000,-0.000,-0.000
1640671186691070976,2021-12-28-05:59:46,10.1.1.5,17,-0.000,0.000,-0.000,-0.000,-0.000,-0.000
1640671188789638912,2021-12-28-05:59:48,10.1.1.5,8,-0.000,0.000,-0.000,-0.000,-0.000,-0.000
1640671190887548928,2021-12-28-05:59:50,10.1.1.5,11,-0.000,0.000,-0.000,-0.000,-0.000,-0.000
1640671193025063936,2021-12-28-05:59:53,10.1.1.5,19,-0.000,0.000,-0.000,-0.000,-0.000,-0.000
1640671195201533184,2021-12-28-05:59:55,10.1.1.5,19,-0.000,0.000,-0.000,-0.000,-0.000,-0.000
1640671197218806016,2021-12-28-05:59:57,10.1.1.5,3,-0.000,0.000,-0.000,-0.000,-0.000,-0.000
1640671199295723008,2021-12-28-05:59:59,10.1.1.5,1,-0.000,0.000,-0.000,-0.000,-0.000,-0.000
1640671201431799040,2021-12-28-06:00:01,10.1.1.5,17,-0.000,0.000,-0.000,-0.000,-0.000,-0.000
1640671203492567040,2021-12-28-06:00:03,10.1.1.5,18,-0.000,0.000,-0.000,-0.000,-0.000,-0.000
1640671205520056064,2021-12-28-06:00:05,10.1.1.5,8,-0.000,0.000,-0.000,-0.000,-0.000,-0.000
1640671207545892096,2021-12-28-06:00:07,10.1.1.5,7,-0.000,0.000,-0.000,-0.000,-0.000,-0.000
1640671209669236992,2021-12-28-06:00:09,10.1.1.5,18,-0.000,0.000,-0.000,-0.000,-0.000,-0.000
1640671211691798016,2021-12-28-06:00:11,10.1.1.5,3,-0.000,0.000,-0.000,-0.000,-0.000,-0.000
1640671213811796992,2021-12-28-06:00:13,10.1.1.5,17,-0.000,0.000,-0.000,-0.000,-0.000,-0.000
1640671215890928128,2021-12-28-06:00:15,10.1.1.5,9,-0.000,0.000,-0.000,-0.000,-0.000,-0.000
1640671218049746944,2021-12-28-06:00:18,10.1.1.5,19,-0.000,0.000,-0.000,-0.000,-0.000,-0.000
1640671220088211968,2021-12-28-06:00:20,10.1.1.5,7,-0.000,0.000,-0.000,-0.000,-0.000,-0.000
1640671222126444032,2021-12-28-06:00:22,10.1.1.5,9,-0.000,0.000,-0.000,-0.000,-0.000,-0.000
1640671224143120896,2021-12-28-06:00:24,10.1.1.5,16,-0.000,0.000,-0.000,-0.000,-0.000,-0.000
1640671226180859136,2021-12-28-06:00:26,10.1.1.5,11,-0.000,0.000,-0.000,-0.000,-0.000,-0.000
1640671228217569024,2021-12-28-06:00:28,10.1.1.5,7,-0.000,0.000,-0.000,-0.000,-0.000,-0.000
1640671230254728960,2021-12-28-06:00:30,10.1.1.5,9,-0.000,0.000,-0.000,-0.000,-0.000,-0.000
1640671232291446016,2021-12-28-06:00:32,10.1.1.5,9,-0.000,0.000,-0.000,-0.000,-0.000,-0.000
1640671234407821824,2021-12-28-06:00:34,10.1.1.5,7,-0.000,0.000,-0.000,-0.000,-0.000,-0.000
1640671236434286080,2021-12-28-06:00:36,10.1.1.5,15,-0.000,0.000,-0.000,-0.000,-0.000,-0.000
1640671238462759936,2021-12-28-06:00:38,10.1.1.5,8,-0.000,0.000,-0.000,-0.000,-0.000,-0.000
1640671240527048192,2021-12-28-06:00:40,10.1.1.5,16,-0.000,0.000,-0.000,-0.000,-0.000,-0.000
1640671242530496000,2021-12-28-06:00:42,10.1.1.5,5,-0.000,0.000,-0.000,-0.000,-0.000,-0.000
1640671244552462080,2021-12-28-06:00:44,10.1.1.5,14,-0.000,0.000,-0.000,-0.000,-0.000,-0.000
1640671246671725056,2021-12-28-06:00:46,10.1.1.5,2,-0.000,0.000,-0.000,-0.000,-0.000,-0.000
1640671248770638080,2021-12-28-06:00:48,10.1.1.5,16,-0.000,0.000,-0.000,-0.000,-0.000,-0.000
1640671250809632000,2021-12-28-06:00:50,10.1.1.5,10,-0.000,0.000,-0.000,-0.000,-0.000,-0.000
1640671252888474112,2021-12-28-06:00:52,10.1.1.5,18,-0.000,0.000,-0.000,-0.000,-0.000,-0.000
1640671254886443008,2021-12-28-06:00:54,10.1.1.5,4,-0.000,0.000,-0.000,-0.000,-0.000,-0.000
1640671256963051008,2021-12-28-06:00:56,10.1.1.5,9,-0.000,0.000,-0.000,-0.000,-0.000,-0.000
1640671259020286976,2021-12-28-06:00:59,10.1.1.5,13,-0.000,0.000,-0.000,-0.000,-0.000,-0.000
1640671261057391872,2021-12-28-06:01:01,10.1.1.5,3,-0.000,0.000,-0.000,-0.000,-0.000,-0.000
1640671263154018048,2021-12-28-06:01:03,10.1.1.5,2,-0.000,0.000,-0.000,-0.000,-0.000,-0.000
1640671265231574016,2021-12-28-06:01:05,10.1.1.5,10,-0.000,0.000,-0.000,-0.000,-0.000,-0.000
1640671267349518080,2021-12-28-06:01:07,10.1.1.5,1,-0.000,0.000,-0.000,-0.000,-0.000,-0.000
1640671269419398144,2021-12-28-06:01:09,10.1.1.5,12,-0.000,0.000,-0.000,-0.000,-0.000,-0.000
1640671271445638912,2021-12-28-06:01:11,10.1.1.5,19,-0.000,0.000,-0.000,-0.000,-0.000,-0.000
1640671273450139904,2021-12-28-06:01:13,10.1.1.5,5,-0.000,0.000,-0.000,-0.000,-0.000,-0.000
1640671275492440064,2021-12-28-06:01:15,10.1.1.5,19,-0.000,0.000,-0.000,-0.000,-0.000,-0.000
1640671277513504000,2021-12-28-06:01:17,10.1.1.5,16,-0.000,0.000,-0.000,-0.000,-0.000,-0.000
1640671279633326080,2021-12-28-06:01:19,10.1.1.5,15,-0.000,0.000,-0.000,-0.000,-0.000,-0.000
1640671281732409088,2021-12-28-06:01:21,10.1.1.5,6,-0.000,0.000,-0.000,-0.000,-0.000,-0.000
1640671283810489856,2021-12-28-06:01:23,10.1.1.5,8,-0.000,0.000,-0.000,-0.000,-0.000,-0.000
1640671285868679936,2021-12-28-06:01:25,10.1.1.5,6,-0.000,0.000,-0.000,-0.000,-0.000,-0.000
1640671287946475008,2021-12-28-06:01:27,10.1.1.5,2,-0.000,0.000,-0.000,-0.000,-0.000,-0.000
1640671289983657984,2021-12-28-06:01:29,10.1.1.5,3,-0.000,0.000,-0.000,-0.000,-0.000,-0.000
1640671292021390848,2021-12-28-06:01:32,10.1.1.5,5,-0.000,0.000,-0.000,-0.000,-0.000,-0.000
1640671294117489152,2021-12-28-06:01:34,10.1.1.5,13,-0.000,0.000,-0.000,-0.000,-0.000,-0.000
1640671296154714112,2021-12-28-06:01:36,10.1.1.5,15,-0.000,0.000,-0.000,-0.000,-0.000,-0.000
1640671298171396096,2021-12-28-06:01:38,10.1.1.5,0,-0.000,0.000,-0.000,-0.000,-0.000,-0.000
1640671300217419008,2021-12-28-06:01:40,10.1.1.5,16,-0.000,0.000,-0.000,-0.000,-0.000,-0.000
1640671302244312064,2021-12-28-06:01:42,10.1.1.5,19,-0.000,0.000,-0.000,-0.000,-0.000,-0.000
1640671304270270208,2021-12-28-06:01:44,10.1.1.5,15,-0.000,0.000,-0.000,-0.000,-0.000,-0.000
1640671306292954880,2021-12-28-06:01:46,10.1.1.5,8,-0.000,0.000,-0.000,-0.000,-0.000,-0.000
1640671308417882880,2021-12-28-06:01:48,10.1.1.5,30,-0.000,0.000,-0.000,-0.000,-0.000,-0.000
1640671311475096832,2021-12-28-06:01:51,10.1.1.5,1,-0.480,-0.480,-0.480,0.000,0.000,0.000
1640671312915302144,2021-12-28-06:01:52,10.1.1.5,8,-0.210,-0.210,-0.210,0.000,0.000,0.000
1640671314054604032,2021-12-28-06:01:54,10.1.1.5,1,-0.210,-0.210,-0.210,0.000,0.000,0.000
1640671314933613056,2021-12-28-06:01:54,10.1.1.5,18,-0.210,-0.210,-0.210,0.000,0.000,0.000
1640671316072531968,2021-12-28-06:01:56,10.1.1.5,4,-0.210,-0.210,-0.210,0.000,0.000,0.000
1640671316931010048,2021-12-28-06:01:56,10.1.1.5,4,-0.210,-0.210,-0.210,0.000,0.000,0.000
1640671318089735936,2021-12-28-06:01:58,10.1.1.5,11,-0.210,-0.210,-0.210,0.000,0.000,0.000
1640671319009538816,2021-12-28-06:01:59,10.1.1.5,5,-0.210,-0.210,-0.210,0.000,0.000,0.000
1640671320227207936,2021-12-28-06:02:00,10.1.1.5,18,-0.210,-0.210,-0.210,0.000,0.000,0.000
1640671321067131136,2021-12-28-06:02:01,10.1.1.5,0,-0.210,-0.210,-0.210,0.000,0.000,0.000
1640671322224569088,2021-12-28-06:02:02,10.1.1.5,11,-0.210,-0.210,-0.210,0.000,0.000,0.000
1640671323083378176,2021-12-28-06:02:03,10.1.1.5,7,-0.210,-0.210,-0.210,0.000,0.000,0.000
1640671324241748992,2021-12-28-06:02:04,10.1.1.5,12,-0.210,-0.210,-0.210,0.000,0.000,0.000
1640671325100456960,2021-12-28-06:02:05,10.1.1.5,9,-0.210,-0.210,-0.210,0.000,0.000,0.000
1640671326238932992,2021-12-28-06:02:06,10.1.1.5,1,-0.210,-0.210,-0.210,0.000,0.000,0.000
1640671327117876992,2021-12-28-06:02:07,10.1.1.5,19,-0.210,-0.210,-0.210,0.000,0.000,0.000
1640671328255995136,2021-12-28-06:02:08,10.1.1.5,3,-0.210,-0.210,-0.210,0.000,0.000,0.000
1640671329134466816,2021-12-28-06:02:09,10.1.1.5,15,-0.210,-0.210,-0.210,0.000,0.000,0.000
1640671330352265984,2021-12-28-06:02:10,10.1.1.5,15,-0.210,-0.210,-0.210,0.000,0.000,0.000
1640671331211250176,2021-12-28-06:02:11,10.1.1.5,12,-0.210,-0.210,-0.210,0.000,0.000,0.000
1640671332371695872,2021-12-28-06:02:12,10.1.1.5,13,-0.210,-0.210,-0.210,0.000,0.000,0.000
1640671333236596992,2021-12-28-06:02:13,10.1.1.5,8,-0.210,-0.210,-0.210,0.000,0.000,0.000
1640671334400559872,2021-12-28-06:02:14,10.1.1.5,10,-0.210,-0.210,-0.210,0.000,0.000,0.000
1640671335303425024,2021-12-28-06:02:15,10.1.1.5,8,-0.210,-0.210,-0.210,0.000,0.000,0.000
1640671336466081024,2021-12-28-06:02:16,10.1.1.5,3,-0.210,-0.210,-0.210,0.000,0.000,0.000
1640671337348102144,2021-12-28-06:02:17,10.1.1.5,2,-0.210,-0.210,-0.210,0.000,0.000,0.000
1640671338509572864,2021-12-28-06:02:18,10.1.1.5,2,-0.210,-0.210,-0.210,0.000,0.000,0.000
1640671339391365888,2021-12-28-06:02:19,10.1.1.5,10,-0.210,-0.210,-0.210,0.000,0.000,0.000
1640671340611147008,2021-12-28-06:02:20,10.1.1.5,16,-0.210,-0.210,-0.210,0.000,0.000,0.000
1640671341492097024,2021-12-28-06:02:21,10.1.1.5,3,-0.210,-0.210,-0.210,0.000,0.000,0.000
1640671342691865088,2021-12-28-06:02:22,10.1.1.5,14,-0.210,-0.210,-0.210,0.000,0.000,0.000
1640671343593147904,2021-12-28-06:02:23,10.1.1.5,19,-0.210,-0.210,-0.210,0.000,0.000,0.000
1640671344792741888,2021-12-28-06:02:24,10.1.1.5,18,-0.210,-0.210,-0.210,0.000,0.000,0.000
1640671345670789120,2021-12-28-06:02:25,10.1.1.5,3,-0.210,-0.210,-0.210,0.000,0.000,0.000
1640671346850738176,2021-12-28-06:02:26,10.1.1.5,2,-0.210,-0.210,-0.210,0.000,0.000,0.000
1640671347729945856,2021-12-28-06:02:27,10.1.1.5,18,-0.210,-0.210,-0.210,0.000,0.000,0.000
1640671348929015040,2021-12-28-06:02:28,10.1.1.5,9,-0.210,-0.210,-0.210,0.000,0.000,0.000
1640671349847617024,2021-12-28-06:02:29,10.1.1.5,7,-0.210,-0.210,-0.210,0.000,0.000,0.000
1640671351006855936,2021-12-28-06:02:31,10.1.1.5,2,-0.210,-0.210,-0.210,0.000,0.000,0.000
1640671351885458944,2021-12-28-06:02:31,10.1.1.5,9,-0.210,-0.210,-0.210,0.000,0.000,0.000
1640671353124192000,2021-12-28-06:02:33,10.1.1.5,19,-0.210,-0.210,-0.210,0.000,0.000,0.000
1640671353983529984,2021-12-28-06:02:33,10.1.1.5,5,-0.210,-0.210,-0.210,0.000,0.000,0.000
1640671355160995840,2021-12-28-06:02:35,10.1.1.5,7,-0.210,-0.210,-0.210,0.000,0.000,0.000
1640671356039213056,2021-12-28-06:02:36,10.1.1.5,16,-0.210,-0.210,-0.210,0.000,0.000,0.000
1640671357218302976,2021-12-28-06:02:37,10.1.1.5,17,-0.210,-0.210,-0.210,0.000,0.000,0.000
1640671358117140992,2021-12-28-06:02:38,10.1.1.5,1,-0.210,-0.210,-0.210,0.000,0.000,0.000
1640671359274806016,2021-12-28-06:02:39,10.1.1.5,5,-0.210,-0.210,-0.210,0.000,0.000,0.000
1640671360213221120,2021-12-28-06:02:40,10.1.1.5,14,-0.210,-0.210,-0.210,0.000,0.000,0.000
1640671361451396096,2021-12-28-06:02:41,10.1.1.5,2,-0.210,-0.210,-0.210,0.000,0.000,0.000
1640671363548508928,2021-12-28-06:02:43,10.1.1.5,19,-0.210,-0.210,-0.210,0.000,0.000,0.000
1640671364409638912,2021-12-28-06:02:44,10.1.1.5,11,-0.210,-0.210,-0.210,0.000,0.000,0.000
1640671365604034816,2021-12-28-06:02:45,10.1.1.5,32,-0.210,-0.210,-0.210,0.000,0.000,0.000
1640671366499732992,2021-12-28-06:02:46,10.1.1.5,16,-0.210,-0.210,-0.210,0.000,0.000,0.000
1640671367664026112,2021-12-28-06:02:47,10.1.1.5,4,-0.210,-0.210,-0.210,0.000,0.000,0.000
1640671368525850112,2021-12-28-06:02:48,10.1.1.5,3,-0.210,-0.210,-0.210,0.000,0.000,0.000
1640671369687959040,2021-12-28-06:02:49,10.1.1.5,16,-0.210,-0.210,-0.210,0.000,0.000,0.000
1640671370569363968,2021-12-28-06:02:50,10.1.1.5,17,-0.210,-0.210,-0.210,0.000,0.000,0.000
1640671371771161088,2021-12-28-06:02:51,10.1.1.5,16,-0.210,-0.210,-0.210,0.000,0.000,0.000
1640671372632013056,2021-12-28-06:02:52,10.1.1.5,7,-0.210,-0.210,-0.210,0.000,0.000,0.000
1640671373792118016,2021-12-28-06:02:53,10.1.1.5,5,-0.210,-0.210,-0.210,0.000,0.000,0.000
1640671374712884992,2021-12-28-06:02:54,10.1.1.5,3,-0.210,-0.210,-0.210,0.000,0.000,0.000
1640671375872397056,2021-12-28-06:02:55,10.1.1.5,7,-0.210,-0.210,-0.210,0.000,0.000,0.000
1640671376733143040,2021-12-28-06:02:56,10.1.1.5,1,-0.210,-0.210,-0.210,0.000,0.000,0.000
1640671377911972096,2021-12-28-06:02:57,10.1.1.5,19,-0.210,-0.210,-0.210,0.000,0.000,0.000
1640671378852103936,2021-12-28-06:02:58,10.1.1.5,18,-0.210,-0.210,-0.210,0.000,0.000,0.000
1640671380010294016,2021-12-28-06:03:00,10.1.1.5,6,-0.210,-0.210,-0.210,0.000,0.000,0.000
1640671380929673984,2021-12-28-06:03:00,10.1.1.5,6,-0.210,-0.210,-0.210,0.000,0.000,0.000
1640671382089991936,2021-12-28-06:03:02,10.1.1.5,7,-0.210,-0.210,-0.210,0.000,0.000,0.000
1640671382967642112,2021-12-28-06:03:02,10.1.1.5,6,-0.210,-0.210,-0.210,0.000,0.000,0.000
1640671384126724864,2021-12-28-06:03:04,10.1.1.5,5,-0.210,-0.210,-0.210,0.000,0.000,0.000
1640671385025209856,2021-12-28-06:03:05,10.1.1.5,0,-0.210,-0.210,-0.210,0.000,0.000,0.000
1640671386263747072,2021-12-28-06:03:06,10.1.1.5,15,-0.210,-0.210,-0.210,0.000,0.000,0.000
1640671387142038016,2021-12-28-06:03:07,10.1.1.5,18,-0.210,-0.210,-0.210,0.000,0.000,0.000
1640671388300887040,2021-12-28-06:03:08,10.1.1.5,3,-0.210,-0.210,-0.210,0.000,0.000,0.000
1640671389178838016,2021-12-28-06:03:09,10.1.1.5,1,-0.210,-0.210,-0.210,0.000,0.000,0.000
1640671390357906944,2021-12-28-06:03:10,10.1.1.5,7,-0.210,-0.210,-0.210,0.000,0.000,0.000
1640671391258198016,2021-12-28-06:03:11,10.1.1.5,6,-0.210,-0.210,-0.210,0.000,0.000,0.000
1640671392454392064,2021-12-28-06:03:12,10.1.1.5,2,-0.210,-0.210,-0.210,0.000,0.000,0.000
1640671393353760000,2021-12-28-06:03:13,10.1.1.5,14,-0.210,-0.210,-0.210,0.000,0.000,0.000
1640671394532077056,2021-12-28-06:03:14,10.1.1.5,6,-0.210,-0.210,-0.210,0.000,0.000,0.000
1640671395429369856,2021-12-28-06:03:15,10.1.1.5,0,-0.210,-0.210,-0.210,0.000,0.000,0.000
1640671396651916032,2021-12-28-06:03:16,10.1.1.5,17,-0.210,-0.210,-0.210,0.000,0.000,0.000
1640671397516217856,2021-12-28-06:03:17,10.1.1.5,5,-0.210,-0.210,-0.210,0.000,0.000,0.000
1640671398780822016,2021-12-28-06:03:18,10.1.1.5,16,-0.210,-0.210,-0.210,0.000,0.000,0.000
1640671399643880960,2021-12-28-06:03:19,10.1.1.5,9,-0.210,-0.210,-0.210,0.000,0.000,0.000
1640671400847683840,2021-12-28-06:03:20,10.1.1.5,19,-0.210,-0.210,-0.210,0.000,0.000,0.000
1640671401708306176,2021-12-28-06:03:21,10.1.1.5,5,-0.210,-0.210,-0.210,0.000,0.000,0.000
1640671402951108096,2021-12-28-06:03:22,10.1.1.5,14,-0.210,-0.210,-0.210,0.000,0.000,0.000
1640671403812637184,2021-12-28-06:03:23,10.1.1.5,2,-0.210,-0.210,-0.210,0.000,0.000,0.000
1640671404972656896,2021-12-28-06:03:24,10.1.1.5,7,-0.210,-0.210,-0.210,0.000,0.000,0.000
1640671405853131008,2021-12-28-06:03:25,10.1.1.5,8,-0.210,-0.210,-0.210,0.000,0.000,0.000
1640671407034585088,2021-12-28-06:03:27,10.1.1.5,13,-0.210,-0.210,-0.210,0.000,0.000,0.000
1640671407953984000,2021-12-28-06:03:27,10.1.1.5,18,-0.210,-0.210,-0.210,0.000,0.000,0.000
1640671409133095936,2021-12-28-06:03:29,10.1.1.5,6,-0.210,-0.210,-0.210,0.000,0.000,0.000
1640671410012945920,2021-12-28-06:03:30,10.1.1.5,8,-0.210,-0.210,-0.210,0.000,0.000,0.000
1640671411192354048,2021-12-28-06:03:31,10.1.1.5,20,-0.210,-0.210,-0.210,0.000,0.000,0.000
1640671412050614016,2021-12-28-06:03:32,10.1.1.5,11,-0.210,-0.210,-0.210,0.000,0.000,0.000
1640671413210649856,2021-12-28-06:03:33,10.1.1.5,0,-0.210,-0.210,-0.210,0.000,0.000,0.000
1640671414108536832,2021-12-28-06:03:34,10.1.1.5,17,-0.210,-0.210,-0.210,0.000,0.000,0.000
1640671415407490048,2021-12-28-06:03:35,10.1.1.5,13,-0.210,-0.210,-0.210,0.000,0.000,0.000
1640671416286117120,2021-12-28-06:03:36,10.1.1.5,12,-0.210,-0.210,-0.210,0.000,0.000,0.000
1640671417525082112,2021-12-28-06:03:37,10.1.1.5,9,-0.210,-0.210,-0.210,0.000,0.000,0.000
1640671418404026880,2021-12-28-06:03:38,10.1.1.5,14,-0.210,-0.210,-0.210,0.000,0.000,0.000
1640671419641469952,2021-12-28-06:03:39,10.1.1.5,12,-0.210,-0.210,-0.210,0.000,0.000,0.000
1640671420500862976,2021-12-28-06:03:40,10.1.1.5,6,-0.210,-0.210,-0.210,0.000,0.000,0.000
1640671421678817024,2021-12-28-06:03:41,10.1.1.5,14,-0.210,-0.210,-0.210,0.000,0.000,0.000
1640671422537349888,2021-12-28-06:03:42,10.1.1.5,9,-0.210,-0.210,-0.210,0.000,0.000,0.000
1640671423736381952,2021-12-28-06:03:43,10.1.1.5,19,-0.210,-0.210,-0.210,0.000,0.000,0.000
1640671424594748928,2021-12-28-06:03:44,10.1.1.5,5,-0.210,-0.210,-0.210,0.000,0.000,0.000
1640671425772428032,2021-12-28-06:03:45,10.1.1.5,0,-0.210,-0.210,-0.210,0.000,0.000,0.000
1640671426651616000,2021-12-28-06:03:46,10.1.1.5,4,-0.210,-0.210,-0.210,0.000,0.000,0.000
1640671427830195968,2021-12-28-06:03:47,10.1.1.5,2,-0.210,-0.210,-0.210,0.000,0.000,0.000
1640671428772638208,2021-12-28-06:03:48,10.1.1.5,8,-0.210,-0.210,-0.210,0.000,0.000,0.000
1640671429958750976,2021-12-28-06:03:49,10.1.1.5,4,-0.210,-0.210,-0.210,0.000,0.000,0.000
1640671430821376000,2021-12-28-06:03:50,10.1.1.5,4,-0.210,-0.210,-0.210,0.000,0.000,0.000
1640671431985865984,2021-12-28-06:03:51,10.1.1.5,10,-0.210,-0.210,-0.210,0.000,0.000,0.000
1640671432867621888,2021-12-28-06:03:52,10.1.1.5,4,-0.210,-0.210,-0.210,0.000,0.000,0.000
1640671434068902912,2021-12-28-06:03:54,10.1.1.5,1,-0.210,-0.210,-0.210,0.000,0.000,0.000
1640671435031915776,2021-12-28-06:03:55,10.1.1.5,5,-0.210,-0.210,-0.210,0.000,0.000,0.000
1640671436192076032,2021-12-28-06:03:56,10.1.1.5,12,-0.210,-0.210,-0.210,0.000,0.000,0.000
1640671437072097024,2021-12-28-06:03:57,10.1.1.5,18,-0.210,-0.210,-0.210,0.000,0.000,0.000
1640671438212904960,2021-12-28-06:03:58,10.1.1.5,0,-0.210,-0.210,-0.210,0.000,0.000,0.000
1640671439093859840,2021-12-28-06:03:59,10.1.1.5,19,-0.210,-0.210,-0.210,0.000,0.000,0.000
1640671440232732160,2021-12-28-06:04:00,10.1.1.5,0,-0.210,-0.210,-0.210,0.000,0.000,0.000
1640671441152795136,2021-12-28-06:04:01,10.1.1.5,10,-0.210,-0.210,-0.210,0.000,0.000,0.000
1640671442333637120,2021-12-28-06:04:02,10.1.1.5,11,-0.210,-0.210,-0.210,0.000,0.000,0.000
1640671443212096000,2021-12-28-06:04:03,10.1.1.5,15,-0.210,-0.210,-0.210,0.000,0.000,0.000
1640671444371077120,2021-12-28-06:04:04,10.1.1.5,12,-0.210,-0.210,-0.210,0.000,0.000,0.000
1640671445269632000,2021-12-28-06:04:05,10.1.1.5,4,-0.210,-0.210,-0.210,0.000,0.000,0.000
1640671446429127936,2021-12-28-06:04:06,10.1.1.5,1,-0.210,-0.210,-0.210,0.000,0.000,0.000
1640671447307488000,2021-12-28-06:04:07,10.1.1.5,17,-0.210,-0.210,-0.210,0.000,0.000,0.000
1640671448466088960,2021-12-28-06:04:08,10.1.1.5,19,-0.210,-0.210,-0.210,0.000,0.000,0.000
1640671449325534976,2021-12-28-06:04:09,10.1.1.5,2,-0.210,-0.210,-0.210,0.000,0.000,0.000
1640671450483628032,2021-12-28-06:04:10,10.1.1.5,12,-0.210,-0.210,-0.210,0.000,0.000,0.000
1640671451361597184,2021-12-28-06:04:11,10.1.1.5,18,-0.210,-0.210,-0.210,0.000,0.000,0.000
1640671452499918080,2021-12-28-06:04:12,10.1.1.5,1,-0.210,-0.210,-0.210,0.000,0.000,0.000
1640671453378658048,2021-12-28-06:04:13,10.1.1.5,6,-0.210,-0.210,-0.210,0.000,0.000,0.000
1640671454536815872,2021-12-28-06:04:14,10.1.1.5,9,-0.210,-0.210,-0.210,0.000,0.000,0.000
1640671455435992832,2021-12-28-06:04:15,10.1.1.5,6,-0.210,-0.210,-0.210,0.000,0.000,0.000
1640671456613888000,2021-12-28-06:04:16,10.1.1.5,13,-0.210,-0.210,-0.210,0.000,0.000,0.000
1640671457493602048,2021-12-28-06:04:17,10.1.1.5,4,-0.210,-0.210,-0.210,0.000,0.000,0.000
1640671458650657024,2021-12-28-06:04:18,10.1.1.5,7,-0.210,-0.210,-0.210,0.000,0.000,0.000
1640671459570262784,2021-12-28-06:04:19,10.1.1.5,15,-0.210,-0.210,-0.210,0.000,0.000,0.000
1640671460747865856,2021-12-28-06:04:20,10.1.1.5,18,-0.210,-0.210,-0.210,0.000,0.000,0.000
1640671461610960896,2021-12-28-06:04:21,10.1.1.5,17,-0.210,-0.210,-0.210,0.000,0.000,0.000
1640671462775600896,2021-12-28-06:04:22,10.1.1.5,19,-0.210,-0.210,-0.210,0.000,0.000,0.000
1640671463659898880,2021-12-28-06:04:23,10.1.1.5,19,-0.210,-0.210,-0.210,0.000,0.000,0.000
1640671464862806016,2021-12-28-06:04:24,10.1.1.5,19,-0.210,-0.210,-0.210,0.000,0.000,0.000
1640671465724733184,2021-12-28-06:04:25,10.1.1.5,11,-0.210,-0.210,-0.210,0.000,0.000,0.000
1640671466907635968,2021-12-28-06:04:26,10.1.1.5,7,-0.210,-0.210,-0.210,0.000,0.000,0.000
1640671467808270080,2021-12-28-06:04:27,10.1.1.5,15,-0.210,-0.210,-0.210,0.000,0.000,0.000
1640671468970055936,2021-12-28-06:04:28,10.1.1.5,3,-0.210,-0.210,-0.210,0.000,0.000,0.000
1640671469850353920,2021-12-28-06:04:29,10.1.1.5,10,-0.210,-0.210,-0.210,0.000,0.000,0.000
1640671471010974976,2021-12-28-06:04:31,10.1.1.5,10,-0.210,-0.210,-0.210,0.000,0.000,0.000
1640671471890508800,2021-12-28-06:04:31,10.1.1.5,18,-0.210,-0.210,-0.210,0.000,0.000,0.000
1640671473051556096,2021-12-28-06:04:33,10.1.1.5,17,-0.210,-0.210,-0.210,0.000,0.000,0.000
1640671475089885952,2021-12-28-06:04:35,10.1.1.5,15,-0.210,-0.210,-0.210,0.000,0.000,0.000
1640671475949376000,2021-12-28-06:04:35,10.1.1.5,16,-0.210,-0.210,-0.210,0.000,0.000,0.000
1640671477108787968,2021-12-28-06:04:37,10.1.1.5,5,-0.210,-0.210,-0.210,0.000,0.000,0.000
1640671478028094976,2021-12-28-06:04:38,10.1.1.5,9,-0.210,-0.210,-0.210,0.000,0.000,0.000
1640671479186758912,2021-12-28-06:04:39,10.1.1.5,6,-0.210,-0.210,-0.210,0.000,0.000,0.000
1640671480105376000,2021-12-28-06:04:40,10.1.1.5,17,-0.210,-0.210,-0.210,0.000,0.000,0.000
1640671481243994880,2021-12-28-06:04:41,10.1.1.5,1,-0.210,-0.210,-0.210,0.000,0.000,0.000
1640671482204197888,2021-12-28-06:04:42,10.1.1.5,2,-0.210,-0.210,-0.210,0.000,0.000,0.000
1640671483381761024,2021-12-28-06:04:43,10.1.1.5,9,-0.210,-0.210,-0.210,0.000,0.000,0.000
1640671484260037888,2021-12-28-06:04:44,10.1.1.5,16,-0.210,-0.210,-0.210,0.000,0.000,0.000
1640671485417923072,2021-12-28-06:04:45,10.1.1.5,18,-0.210,-0.210,-0.210,0.000,0.000,0.000
1640671486296915968,2021-12-28-06:04:46,10.1.1.5,15,-0.210,-0.210,-0.210,0.000,0.000,0.000
1640671487455697152,2021-12-28-06:04:47,10.1.1.5,2,-0.210,-0.210,-0.210,0.000,0.000,0.000
1640671488334914048,2021-12-28-06:04:48,10.1.1.5,7,-0.210,-0.210,-0.210,0.000,0.000,0.000
1640671489492551936,2021-12-28-06:04:49,10.1.1.5,4,-0.210,-0.210,-0.210,0.000,0.000,0.000
1640671490371066112,2021-12-28-06:04:50,10.1.1.5,1,-0.210,-0.210,-0.210,0.000,0.000,0.000
1640671492447961088,2021-12-28-06:04:52,10.1.1.5,0,-0.210,-0.210,-0.210,0.000,0.000,0.000
1640671493629977856,2021-12-28-06:04:53,10.1.1.5,3,-0.210,-0.210,-0.210,0.000,0.000,0.000
1640671494514420992,2021-12-28-06:04:54,10.1.1.5,3,-0.210,-0.210,-0.210,0.000,0.000,0.000
1640671495699480064,2021-12-28-06:04:55,10.1.1.5,7,-0.210,-0.210,-0.210,0.000,0.000,0.000
1640671496661775104,2021-12-28-06:04:56,10.1.1.5,18,-0.210,-0.210,-0.210,0.000,0.000,0.000
1640671497825131776,2021-12-28-06:04:57,10.1.1.5,12,-0.210,-0.210,-0.210,0.000,0.000,0.000
1640671498687145984,2021-12-28-06:04:58,10.1.1.5,7,-0.210,-0.210,-0.210,0.000,0.000,0.000
1640671499908973824,2021-12-28-06:04:59,10.1.1.5,16,-0.210,-0.210,-0.210,0.000,0.000,0.000
1640671500789277184,2021-12-28-06:05:00,10.1.1.5,17,-0.210,-0.210,-0.210,0.000,0.000,0.000
1640671501932248064,2021-12-28-06:05:01,10.1.1.5,2,-0.210,-0.210,-0.210,0.000,0.000,0.000
1640671502830504960,2021-12-28-06:05:02,10.1.1.5,13,-0.210,-0.210,-0.210,0.000,0.000,0.000
1640671503990824960,2021-12-28-06:05:03,10.1.1.5,6,-0.210,-0.210,-0.210,0.000,0.000,0.000
1640671504870726144,2021-12-28-06:05:04,10.1.1.5,7,-0.210,-0.210,-0.210,0.000,0.000,0.000
1640671506070714112,2021-12-28-06:05:06,10.1.1.5,0,-0.210,-0.210,-0.210,0.000,0.000,0.000
1640671506990407936,2021-12-28-06:05:06,10.1.1.5,4,-0.210,-0.210,-0.210,0.000,0.000,0.000
1640671509069340928,2021-12-28-06:05:09,10.1.1.5,18,-0.210,-0.210,-0.210,0.000,0.000,0.000
1640671510247344128,2021-12-28-06:05:10,10.1.1.5,14,-0.210,-0.210,-0.210,0.000,0.000,0.000
1640671511106245888,2021-12-28-06:05:11,10.1.1.5,3,-0.210,-0.210,-0.210,0.000,0.000,0.000
1640671512325319168,2021-12-28-06:05:12,10.1.1.5,4,-0.210,-0.210,-0.210,0.000,0.000,0.000
1640671513204224000,2021-12-28-06:05:13,10.1.1.5,5,-0.210,-0.210,-0.210,0.000,0.000,0.000
1640671514402987008,2021-12-28-06:05:14,10.1.1.5,10,-0.210,-0.210,-0.210,0.000,0.000,0.000
1640671515281857024,2021-12-28-06:05:15,10.1.1.5,19,-0.210,-0.210,-0.210,0.000,0.000,0.000
1640671516479553024,2021-12-28-06:05:16,10.1.1.5,7,-0.210,-0.210,-0.210,0.000,0.000,0.000
1640671517359788800,2021-12-28-06:05:17,10.1.1.5,17,-0.210,-0.210,-0.210,0.000,0.000,0.000
1640671518537362176,2021-12-28-06:05:18,10.1.1.5,5,-0.210,-0.210,-0.210,0.000,0.000,0.000
1640671519415689984,2021-12-28-06:05:19,10.1.1.5,0,-0.210,-0.210,-0.210,0.000,0.000,0.000
1640671520574632960,2021-12-28-06:05:20,10.1.1.5,8,-0.210,-0.210,-0.210,0.000,0.000,0.000
1640671521452869888,2021-12-28-06:05:21,10.1.1.5,11,-0.210,-0.210,-0.210,0.000,0.000,0.000
1640671522610828032,2021-12-28-06:05:22,10.1.1.5,15,-0.210,-0.210,-0.210,0.000,0.000,0.000
1640671523468983808,2021-12-28-06:05:23,10.1.1.5,11,-0.210,-0.210,-0.210,0.000,0.000,0.000
1640671524647465984,2021-12-28-06:05:24,10.1.1.5,6,-0.210,-0.210,-0.210,0.000,0.000,0.000
1640671525590590976,2021-12-28-06:05:25,10.1.1.5,11,-0.210,-0.210,-0.210,0.000,0.000,0.000
1640671526756722944,2021-12-28-06:05:26,10.1.1.5,17,-0.210,-0.210,-0.210,0.000,0.000,0.000
1640671527619777792,2021-12-28-06:05:27,10.1.1.5,13,-0.210,-0.210,-0.210,0.000,0.000,0.000
1640671528783912960,2021-12-28-06:05:28,10.1.1.5,6,-0.210,-0.210,-0.210,0.000,0.000,0.000
1640671529667212032,2021-12-28-06:05:29,10.1.1.5,14,-0.210,-0.210,-0.210,0.000,0.000,0.000
1640671530848704000,2021-12-28-06:05:30,10.1.1.5,2,-0.210,-0.210,-0.210,0.000,0.000,0.000
1640671531750416128,2021-12-28-06:05:31,10.1.1.5,4,-0.210,-0.210,-0.210,0.000,0.000,0.000
1640671532931659008,2021-12-28-06:05:32,10.1.1.5,8,-0.210,-0.210,-0.210,0.000,0.000,0.000
1640671533812578048,2021-12-28-06:05:33,10.1.1.5,14,-0.210,-0.210,-0.210,0.000,0.000,0.000
1640671534974284032,2021-12-28-06:05:34,10.1.1.5,5,-0.210,-0.210,-0.210,0.000,0.000,0.000
1640671535853895936,2021-12-28-06:05:35,10.1.1.5,1,-0.210,-0.210,-0.210,0.000,0.000,0.000
1640671537053601024,2021-12-28-06:05:37,10.1.1.5,12,-0.210,-0.210,-0.210,0.000,0.000,0.000
1640671537933926144,2021-12-28-06:05:37,10.1.1.5,7,-0.210,-0.210,-0.210,0.000,0.000,0.000
1640671539093008128,2021-12-28-06:05:39,10.1.1.5,8,-0.210,-0.210,-0.210,0.000,0.000,0.000
1640671539972773120,2021-12-28-06:05:39,10.1.1.5,10,-0.210,-0.210,-0.210,0.000,0.000,0.000
1640671541151985920,2021-12-28-06:05:41,10.1.1.5,7,-0.210,-0.210,-0.210,0.000,0.000,0.000
1640671542031019008,2021-12-28-06:05:42,10.1.1.5,16,-0.210,-0.210,-0.210,0.000,0.000,0.000
1640671543209899776,2021-12-28-06:05:43,10.1.1.5,5,-0.210,-0.210,-0.210,0.000,0.000,0.000
1640671544108211968,2021-12-28-06:05:44,10.1.1.5,18,-0.210,-0.210,-0.210,0.000,0.000,0.000
1640671545287036928,2021-12-28-06:05:45,10.1.1.5,20,-0.210,-0.210,-0.210,0.000,0.000,0.000
1640671546145603840,2021-12-28-06:05:46,10.1.1.5,8,-0.210,-0.210,-0.210,0.000,0.000,0.000
1640671547324722176,2021-12-28-06:05:47,10.1.1.5,13,-0.210,-0.210,-0.210,0.000,0.000,0.000
1640671548203278080,2021-12-28-06:05:48,10.1.1.5,4,-0.210,-0.210,-0.210,0.000,0.000,0.000
1640671549362958848,2021-12-28-06:05:49,10.1.1.5,2,-0.210,-0.210,-0.210,0.000,0.000,0.000
1640671550280424192,2021-12-28-06:05:50,10.1.1.5,10,-0.210,-0.210,-0.210,0.000,0.000,0.000
1640671551578663168,2021-12-28-06:05:51,10.1.1.5,17,-0.210,-0.210,-0.210,0.000,0.000,0.000
1640671552457443840,2021-12-28-06:05:52,10.1.1.5,1,-0.210,-0.210,-0.210,0.000,0.000,0.000
1640671553615806208,2021-12-28-06:05:53,10.1.1.5,0,-0.210,-0.210,-0.210,0.000,0.000,0.000
1640671554535172096,2021-12-28-06:05:54,10.1.1.5,6,-0.210,-0.210,-0.210,0.000,0.000,0.000
1640671555692413184,2021-12-28-06:05:55,10.1.1.5,3,-0.210,-0.210,-0.210,0.000,0.000,0.000
1640671556570807040,2021-12-28-06:05:56,10.1.1.5,14,-0.210,-0.210,-0.210,0.000,0.000,0.000
1640671557753390080,2021-12-28-06:05:57,10.1.1.5,5,-0.210,-0.210,-0.210,0.000,0.000,0.000
1640671558618124032,2021-12-28-06:05:58,10.1.1.5,0,-0.210,-0.210,-0.210,0.000,0.000,0.000
1640671559782533888,2021-12-28-06:05:59,10.1.1.5,4,-0.210,-0.210,-0.210,0.000,0.000,0.000
1640671560663793920,2021-12-28-06:06:00,10.1.1.5,15,-0.210,-0.210,-0.210,0.000,0.000,0.000
1640671561826715904,2021-12-28-06:06:01,10.1.1.5,6,-0.210,-0.210,-0.210,0.000,0.000,0.000
1640671562688698112,2021-12-28-06:06:02,10.1.1.5,7,-0.210,-0.210,-0.210,0.000,0.000,0.000
1640671563849894912,2021-12-28-06:06:03,10.1.1.5,17,-0.210,-0.210,-0.210,0.000,0.000,0.000
1640671564710756096,2021-12-28-06:06:04,10.1.1.5,15,-0.210,-0.210,-0.210,0.000,0.000,0.000
1640671565851681024,2021-12-28-06:06:05,10.1.1.5,3,-0.210,-0.210,-0.210,0.000,0.000,0.000
1640671566731746816,2021-12-28-06:06:06,10.1.1.5,6,-0.210,-0.210,-0.210,0.000,0.000,0.000
1640671567951962880,2021-12-28-06:06:07,10.1.1.5,11,-0.210,-0.210,-0.210,0.000,0.000,0.000
1640671568831677952,2021-12-28-06:06:08,10.1.1.5,3,-0.210,-0.210,-0.210,0.000,0.000,0.000
1640671570071291904,2021-12-28-06:06:10,10.1.1.5,12,-0.210,-0.210,-0.210,0.000,0.000,0.000
1640671570970951936,2021-12-28-06:06:10,10.1.1.5,4,-0.210,-0.210,-0.210,0.000,0.000,0.000
1640671572138708224,2021-12-28-06:06:12,10.1.1.5,0,-0.210,-0.210,-0.210,0.000,0.000,0.000
1640671573009406976,2021-12-28-06:06:13,10.1.1.5,3,-0.210,-0.210,-0.210,0.000,0.000,0.000
1640671574208152064,2021-12-28-06:06:14,10.1.1.5,5,-0.210,-0.210,-0.210,0.000,0.000,0.000
1640671576245117952,2021-12-28-06:06:16,10.1.1.5,6,-0.210,-0.210,-0.210,0.000,0.000,0.000
1640671577124787200,2021-12-28-06:06:17,10.1.1.5,17,-0.210,-0.210,-0.210,0.000,0.000,0.000
1640671578283250944,2021-12-28-06:06:18,10.1.1.5,20,-0.210,-0.210,-0.210,0.000,0.000,0.000
1640671579141938944,2021-12-28-06:06:19,10.1.1.5,17,-0.210,-0.210,-0.210,0.000,0.000,0.000
1640671580280595968,2021-12-28-06:06:20,10.1.1.5,4,-0.210,-0.210,-0.210,0.000,0.000,0.000
1640671581159471104,2021-12-28-06:06:21,10.1.1.5,18,-0.210,-0.210,-0.210,0.000,0.000,0.000
1640671582298331904,2021-12-28-06:06:22,10.1.1.5,3,-0.210,-0.210,-0.210,0.000,0.000,0.000
1640671583216689152,2021-12-28-06:06:23,10.1.1.5,2,-0.210,-0.210,-0.210,0.000,0.000,0.000
1640671584394505984,2021-12-28-06:06:24,10.1.1.5,4,-0.210,-0.210,-0.210,0.000,0.000,0.000
1640671585272876032,2021-12-28-06:06:25,10.1.1.5,15,-0.210,-0.210,-0.210,0.000,0.000,0.000
1640671586431341056,2021-12-28-06:06:26,10.1.1.5,19,-0.210,-0.210,-0.210,0.000,0.000,0.000
1640671587290416896,2021-12-28-06:06:27,10.1.1.5,15,-0.210,-0.210,-0.210,0.000,0.000,0.000
1640671588428338176,2021-12-28-06:06:28,10.1.1.5,4,-0.210,-0.210,-0.210,0.000,0.000,0.000
1640671589306467072,2021-12-28-06:06:29,10.1.1.5,9,-0.210,-0.210,-0.210,0.000,0.000,0.000
1640671590527874048,2021-12-28-06:06:30,10.1.1.5,6,-0.210,-0.210,-0.210,0.000,0.000,0.000
1640671591412098048,2021-12-28-06:06:31,10.1.1.5,14,-0.210,-0.210,-0.210,0.000,0.000,0.000
1640671592557058048,2021-12-28-06:06:32,10.1.1.5,3,-0.210,-0.210,-0.210,0.000,0.000,0.000
1640671593480151808,2021-12-28-06:06:33,10.1.1.5,16,-0.210,-0.210,-0.210,0.000,0.000,0.000
1640671594643228160,2021-12-28-06:06:34,10.1.1.5,4,-0.210,-0.210,-0.210,0.000,0.000,0.000
1640671595525121024,2021-12-28-06:06:35,10.1.1.5,10,-0.210,-0.210,-0.210,0.000,0.000,0.000
1640671596666838016,2021-12-28-06:06:36,10.1.1.5,1,-0.210,-0.210,-0.210,0.000,0.000,0.000
1640671597567955968,2021-12-28-06:06:37,10.1.1.5,14,-0.210,-0.210,-0.210,0.000,0.000,0.000
1640671598728705792,2021-12-28-06:06:38,10.1.1.5,1,-0.210,-0.210,-0.210,0.000,0.000,0.000
1640671599609240064,2021-12-28-06:06:39,10.1.1.5,12,-0.210,-0.210,-0.210,0.000,0.000,0.000
1640671600769617920,2021-12-28-06:06:40,10.1.1.5,15,-0.210,-0.210,-0.210,0.000,0.000,0.000
1640671601630278144,2021-12-28-06:06:41,10.1.1.5,10,-0.210,-0.210,-0.210,0.000,0.000,0.000
1640671602791335936,2021-12-28-06:06:42,10.1.1.5,13,-0.210,-0.210,-0.210,0.000,0.000,0.000
1640671603649152000,2021-12-28-06:06:43,10.1.1.5,11,-0.210,-0.210,-0.210,0.000,0.000,0.000
1640671604907873024,2021-12-28-06:06:44,10.1.1.5,9,-0.210,-0.210,-0.210,0.000,0.000,0.000
1640671605788348928,2021-12-28-06:06:45,10.1.1.5,11,-0.210,-0.210,-0.210,0.000,0.000,0.000
1640671606946196992,2021-12-28-06:06:46,10.1.1.5,4,-0.210,-0.210,-0.210,0.000,0.000,0.000
1640671607826667008,2021-12-28-06:06:47,10.1.1.5,15,-0.210,-0.210,-0.210,0.000,0.000,0.000
1640671608984497920,2021-12-28-06:06:48,10.1.1.5,14,-0.210,-0.210,-0.210,0.000,0.000,0.000
1640671609843290112,2021-12-28-06:06:49,10.1.1.5,3,-0.210,-0.210,-0.210,0.000,0.000,0.000
1640671611043776000,2021-12-28-06:06:51,10.1.1.5,16,-0.210,-0.210,-0.210,0.000,0.000,0.000
1640671611921370112,2021-12-28-06:06:51,10.1.1.5,3,-0.210,-0.210,-0.210,0.000,0.000,0.000
1640671613079838976,2021-12-28-06:06:53,10.1.1.5,11,-0.210,-0.210,-0.210,0.000,0.000,0.000
1640671613939390976,2021-12-28-06:06:53,10.1.1.5,3,-0.210,-0.210,-0.210,0.000,0.000,0.000
1640671615156555776,2021-12-28-06:06:55,10.1.1.5,16,-0.210,-0.210,-0.210,0.000,0.000,0.000
1640671616056051968,2021-12-28-06:06:56,10.1.1.5,19,-0.210,-0.210,-0.210,0.000,0.000,0.000
1640671617233067008,2021-12-28-06:06:57,10.1.1.5,18,-0.210,-0.210,-0.210,0.000,0.000,0.000
1640671618091543040,2021-12-28-06:06:58,10.1.1.5,4,-0.210,-0.210,-0.210,0.000,0.000,0.000
1640671619249747968,2021-12-28-06:06:59,10.1.1.5,7,-0.210,-0.210,-0.210,0.000,0.000,0.000
1640671620168598784,2021-12-28-06:07:00,10.1.1.5,10,-0.210,-0.210,-0.210,0.000,0.000,0.000
1640671621406352896,2021-12-28-06:07:01,10.1.1.5,5,-0.210,-0.210,-0.210,0.000,0.000,0.000
1640671622266671872,2021-12-28-06:07:02,10.1.1.5,4,-0.210,-0.210,-0.210,0.000,0.000,0.000
1640671623432903936,2021-12-28-06:07:03,10.1.1.5,6,-0.210,-0.210,-0.210,0.000,0.000,0.000
1640671624316638976,2021-12-28-06:07:04,10.1.1.5,7,-0.210,-0.210,-0.210,0.000,0.000,0.000
1640671625481388032,2021-12-28-06:07:05,10.1.1.5,13,-0.210,-0.210,-0.210,0.000,0.000,0.000
1640671626342920960,2021-12-28-06:07:06,10.1.1.5,8,-0.210,-0.210,-0.210,0.000,0.000,0.000
1640671627506372864,2021-12-28-06:07:07,10.1.1.5,13,-0.210,-0.210,-0.210,0.000,0.000,0.000
1640671628387880192,2021-12-28-06:07:08,10.1.1.5,9,-0.210,-0.210,-0.210,0.000,0.000,0.000
1640671629550339840,2021-12-28-06:07:09,10.1.1.5,3,-0.210,-0.210,-0.210,0.000,0.000,0.000
1640671630450505984,2021-12-28-06:07:10,10.1.1.5,15,-0.210,-0.210,-0.210,0.000,0.000,0.000
1640671631630507008,2021-12-28-06:07:11,10.1.1.5,16,-0.210,-0.210,-0.210,0.000,0.000,0.000
1640671632490952960,2021-12-28-06:07:12,10.1.1.5,1,-0.210,-0.210,-0.210,0.000,0.000,0.000
1640671633670259968,2021-12-28-06:07:13,10.1.1.5,17,-0.210,-0.210,-0.210,0.000,0.000,0.000
1640671634550108928,2021-12-28-06:07:14,10.1.1.5,9,-0.210,-0.210,-0.210,0.000,0.000,0.000
1640671635709547008,2021-12-28-06:07:15,10.1.1.5,2,-0.210,-0.210,-0.210,0.000,0.000,0.000
1640671636589196032,2021-12-28-06:07:16,10.1.1.5,5,-0.210,-0.210,-0.210,0.000,0.000,0.000
1640671637768518912,2021-12-28-06:07:17,10.1.1.5,1,-0.210,-0.210,-0.210,0.000,0.000,0.000
1640671638647994112,2021-12-28-06:07:18,10.1.1.5,2,-0.210,-0.210,-0.210,0.000,0.000,0.000
1640671639827075840,2021-12-28-06:07:19,10.1.1.5,15,-0.210,-0.210,-0.210,0.000,0.000,0.000
1640671640726577152,2021-12-28-06:07:20,10.1.1.5,13,-0.210,-0.210,-0.210,0.000,0.000,0.000
1640671641884545024,2021-12-28-06:07:21,10.1.1.5,9,-0.210,-0.210,-0.210,0.000,0.000,0.000
1640671642762779904,2021-12-28-06:07:22,10.1.1.5,7,-0.210,-0.210,-0.210,0.000,0.000,0.000
1640671643921576960,2021-12-28-06:07:23,10.1.1.5,9,-0.210,-0.210,-0.210,0.000,0.000,0.000
1640671644780282112,2021-12-28-06:07:24,10.1.1.5,1,-0.210,-0.210,-0.210,0.000,0.000,0.000
1640671645958606080,2021-12-28-06:07:25,10.1.1.5,16,-0.210,-0.210,-0.210,0.000,0.000,0.000
1640671646818362880,2021-12-28-06:07:26,10.1.1.5,10,-0.210,-0.210,-0.210,0.000,0.000,0.000
1640671647976244992,2021-12-28-06:07:27,10.1.1.5,7,-0.210,-0.210,-0.210,0.000,0.000,0.000
1640671648914032896,2021-12-28-06:07:28,10.1.1.5,3,-0.210,-0.210,-0.210,0.000,0.000,0.000
1640671650092401152,2021-12-28-06:07:30,10.1.1.5,1,-0.210,-0.210,-0.210,0.000,0.000,0.000
1640671650970611200,2021-12-28-06:07:30,10.1.1.5,2,-0.210,-0.210,-0.210,0.000,0.000,0.000
1640671652149805056,2021-12-28-06:07:32,10.1.1.5,3,-0.210,-0.210,-0.210,0.000,0.000,0.000
1640671653047928064,2021-12-28-06:07:33,10.1.1.5,4,-0.210,-0.210,-0.210,0.000,0.000,0.000
1640671654206834944,2021-12-28-06:07:34,10.1.1.5,1,-0.210,-0.210,-0.210,0.000,0.000,0.000
1640671655091821824,2021-12-28-06:07:35,10.1.1.5,16,-0.210,-0.210,-0.210,0.000,0.000,0.000
1640671656236742144,2021-12-28-06:07:36,10.1.1.5,7,-0.210,-0.210,-0.210,0.000,0.000,0.000
1640671657140057088,2021-12-28-06:07:37,10.1.1.5,9,-0.210,-0.210,-0.210,0.000,0.000,0.000
1640671658323441920,2021-12-28-06:07:38,10.1.1.5,19,-0.210,-0.210,-0.210,0.000,0.000,0.000
1640671659225675008,2021-12-28-06:07:39,10.1.1.5,3,-0.210,-0.210,-0.210,0.000,0.000,0.000
1640671660427350016,2021-12-28-06:07:40,10.1.1.5,12,-0.210,-0.210,-0.210,0.000,0.000,0.000
1640671661308329216,2021-12-28-06:07:41,10.1.1.5,9,-0.210,-0.210,-0.210,0.000,0.000,0.000
1640671662490309120,2021-12-28-06:07:42,10.1.1.5,16,-0.210,-0.210,-0.210,0.000,0.000,0.000
1640671663349953024,2021-12-28-06:07:43,10.1.1.5,1,-0.210,-0.210,-0.210,0.000,0.000,0.000
1640671664570435072,2021-12-28-06:07:44,10.1.1.5,17,-0.210,-0.210,-0.210,0.000,0.000,0.000
1640671665430674176,2021-12-28-06:07:45,10.1.1.5,1,-0.210,-0.210,-0.210,0.000,0.000,0.000
1640671666630153984,2021-12-28-06:07:46,10.1.1.5,1,-0.210,-0.210,-0.210,0.000,0.000,0.000
1640671667509822976,2021-12-28-06:07:47,10.1.1.5,12,-0.210,-0.210,-0.210,0.000,0.000,0.000
1640671668708570112,2021-12-28-06:07:48,10.1.1.5,7,-0.210,-0.210,-0.210,0.000,0.000,0.000
1640671669588288000,2021-12-28-06:07:49,10.1.1.5,12,-0.210,-0.210,-0.210,0.000,0.000,0.000
1640671670807862016,2021-12-28-06:07:50,10.1.1.5,8,-0.210,-0.210,-0.210,0.000,0.000,0.000
1640671671686438144,2021-12-28-06:07:51,10.1.1.5,18,-0.210,-0.210,-0.210,0.000,0.000,0.000
1640671672845681920,2021-12-28-06:07:52,10.1.1.5,5,-0.210,-0.210,-0.210,0.000,0.000,0.000
1640671673763990016,2021-12-28-06:07:53,10.1.1.5,10,-0.210,-0.210,-0.210,0.000,0.000,0.000
1640671674922895872,2021-12-28-06:07:54,10.1.1.5,13,-0.210,-0.210,-0.210,0.000,0.000,0.000
1640671675783458048,2021-12-28-06:07:55,10.1.1.5,3,-0.210,-0.210,-0.210,0.000,0.000,0.000
1640671677000579072,2021-12-28-06:07:57,10.1.1.5,6,-0.210,-0.210,-0.210,0.000,0.000,0.000
1640671677920336896,2021-12-28-06:07:57,10.1.1.5,18,-0.210,-0.210,-0.210,0.000,0.000,0.000
1640671679116663040,2021-12-28-06:07:59,10.1.1.5,5,-0.210,-0.210,-0.210,0.000,0.000,0.000
1640671679995258112,2021-12-28-06:07:59,10.1.1.5,10,-0.210,-0.210,-0.210,0.000,0.000,0.000
1640671681174082048,2021-12-28-06:08:01,10.1.1.5,12,-0.210,-0.210,-0.210,0.000,0.000,0.000
1640671682051950080,2021-12-28-06:08:02,10.1.1.5,16,-0.210,-0.210,-0.210,0.000,0.000,0.000
1640671683270510848,2021-12-28-06:08:03,10.1.1.5,19,-0.210,-0.210,-0.210,0.000,0.000,0.000
1640671684189188096,2021-12-28-06:08:04,10.1.1.5,8,-0.210,-0.210,-0.210,0.000,0.000,0.000
1640671685348222976,2021-12-28-06:08:05,10.1.1.5,5,-0.210,-0.210,-0.210,0.000,0.000,0.000
1640671686227302144,2021-12-28-06:08:06,10.1.1.5,2,-0.210,-0.210,-0.210,0.000,0.000,0.000
1640671687433492992,2021-12-28-06:08:07,10.1.1.5,13,-0.210,-0.210,-0.210,0.000,0.000,0.000
1640671688317241856,2021-12-28-06:08:08,10.1.1.5,15,-0.210,-0.210,-0.210,0.000,0.000,0.000
1640671689542931200,2021-12-28-06:08:09,10.1.1.5,7,-0.210,-0.210,-0.210,0.000,0.000,0.000
1640671690444359168,2021-12-28-06:08:10,10.1.1.5,2,-0.210,-0.210,-0.210,0.000,0.000,0.000
1640671691647536128,2021-12-28-06:08:11,10.1.1.5,13,-0.210,-0.210,-0.210,0.000,0.000,0.000
1640671692508048128,2021-12-28-06:08:12,10.1.1.5,0,-0.210,-0.210,-0.210,0.000,0.000,0.000
1640671693709580800,2021-12-28-06:08:13,10.1.1.5,16,-0.210,-0.210,-0.210,0.000,0.000,0.000
1640671694570323968,2021-12-28-06:08:14,10.1.1.5,10,-0.210,-0.210,-0.210,0.000,0.000,0.000
1640671695771876096,2021-12-28-06:08:15,10.1.1.5,14,-0.210,-0.210,-0.210,0.000,0.000,0.000
1640671696670883840,2021-12-28-06:08:16,10.1.1.5,0,-0.210,-0.210,-0.210,0.000,0.000,0.000
1640671697831155968,2021-12-28-06:08:17,10.1.1.5,12,-0.210,-0.210,-0.210,0.000,0.000,0.000
1640671698691969024,2021-12-28-06:08:18,10.1.1.5,6,-0.210,-0.210,-0.210,0.000,0.000,0.000
1640671699850251008,2021-12-28-06:08:19,10.1.1.5,6,-0.210,-0.210,-0.210,0.000,0.000,0.000
1640671700729594112,2021-12-28-06:08:20,10.1.1.5,18,-0.210,-0.210,-0.210,0.000,0.000,0.000
1640671701888324096,2021-12-28-06:08:21,10.1.1.5,10,-0.210,-0.210,-0.210,0.000,0.000,0.000
1640671702767461120,2021-12-28-06:08:22,10.1.1.5,19,-0.210,-0.210,-0.210,0.000,0.000,0.000
1640671703926637056,2021-12-28-06:08:23,10.1.1.5,16,-0.210,-0.210,-0.210,0.000,0.000,0.000
1640671704805958144,2021-12-28-06:08:24,10.1.1.5,6,-0.210,-0.210,-0.210,0.000,0.000,0.000
1640671706024665088,2021-12-28-06:08:26,10.1.1.5,0,-0.210,-0.210,-0.210,0.000,0.000,0.000
1640671706903943168,2021-12-28-06:08:26,10.1.1.5,11,-0.210,-0.210,-0.210,0.000,0.000,0.000
1640671708064697088,2021-12-28-06:08:28,10.1.1.5,1,-0.210,-0.210,-0.210,0.000,0.000,0.000
1640671708980904192,2021-12-28-06:08:28,10.1.1.5,12,-0.210,-0.210,-0.210,0.000,0.000,0.000
1640671710178886912,2021-12-28-06:08:30,10.1.1.5,19,-0.210,-0.210,-0.210,0.000,0.000,0.000
1640671711037203200,2021-12-28-06:08:31,10.1.1.5,4,-0.210,-0.210,-0.210,0.000,0.000,0.000
1640671712215812864,2021-12-28-06:08:32,10.1.1.5,0,-0.210,-0.210,-0.210,0.000,0.000,0.000
1640671713117209856,2021-12-28-06:08:33,10.1.1.5,3,-0.210,-0.210,-0.210,0.000,0.000,0.000
1640671714292947968,2021-12-28-06:08:34,10.1.1.5,13,-0.210,-0.210,-0.210,0.000,0.000,0.000
1640671715171347968,2021-12-28-06:08:35,10.1.1.5,17,-0.210,-0.210,-0.210,0.000,0.000,0.000
1640671716369906944,2021-12-28-06:08:36,10.1.1.5,10,-0.210,-0.210,-0.210,0.000,0.000,0.000
1640671717307962880,2021-12-28-06:08:37,10.1.1.5,5,-0.210,-0.210,-0.210,0.000,0.000,0.000
1640671718485165056,2021-12-28-06:08:38,10.1.1.5,2,-0.210,-0.210,-0.210,0.000,0.000,0.000
1640671719488576768,2021-12-28-06:08:39,10.1.1.5,1,-0.210,-0.210,-0.210,0.000,0.000,0.000
1640671720694797056,2021-12-28-06:08:40,10.1.1.5,8,-0.210,-0.210,-0.210,0.000,0.000,0.000
1640671721556977920,2021-12-28-06:08:41,10.1.1.5,2,-0.210,-0.210,-0.210,0.000,0.000,0.000
1640671722761435904,2021-12-28-06:08:42,10.1.1.5,18,-0.210,-0.210,-0.210,0.000,0.000,0.000
1640671723684550912,2021-12-28-06:08:43,10.1.1.5,0,-0.210,-0.210,-0.210,0.000,0.000,0.000
1640671724886850048,2021-12-28-06:08:44,10.1.1.5,9,-0.210,-0.210,-0.210,0.000,0.000,0.000
1640671725769058816,2021-12-28-06:08:45,10.1.1.5,11,-0.210,-0.210,-0.210,0.000,0.000,0.000
1640671726969219072,2021-12-28-06:08:46,10.1.1.5,2,-0.210,-0.210,-0.210,0.000,0.000,0.000
1640671727850151936,2021-12-28-06:08:47,10.1.1.5,18,-0.210,-0.210,-0.210,0.000,0.000,0.000
1640671728989820928,2021-12-28-06:08:48,10.1.1.5,1,-0.210,-0.210,-0.210,0.000,0.000,0.000
1640671729950753024,2021-12-28-06:08:49,10.1.1.5,18,-0.210,-0.210,-0.210,0.000,0.000,0.000
1640671731110863872,2021-12-28-06:08:51,10.1.1.5,15,-0.210,-0.210,-0.210,0.000,0.000,0.000
1640671731971128064,2021-12-28-06:08:51,10.1.1.5,9,-0.210,-0.210,-0.210,0.000,0.000,0.000
1640671733129600000,2021-12-28-06:08:53,10.1.1.5,5,-0.210,-0.210,-0.210,0.000,0.000,0.000
1640671734008192000,2021-12-28-06:08:54,10.1.1.5,18,-0.210,-0.210,-0.210,0.000,0.000,0.000
1640671735187761152,2021-12-28-06:08:55,10.1.1.5,2,-0.210,-0.210,-0.210,0.000,0.000,0.000
1640671736107848960,2021-12-28-06:08:56,10.1.1.5,10,-0.210,-0.210,-0.210,0.000,0.000,0.000
1640671737265459968,2021-12-28-06:08:57,10.1.1.5,11,-0.210,-0.210,-0.210,0.000,0.000,0.000
1640671738125431040,2021-12-28-06:08:58,10.1.1.5,2,-0.210,-0.210,-0.210,0.000,0.000,0.000
1640671739303042048,2021-12-28-06:08:59,10.1.1.5,18,-0.210,-0.210,-0.210,0.000,0.000,0.000
1640671740162872064,2021-12-28-06:09:00,10.1.1.5,3,-0.210,-0.210,-0.210,0.000,0.000,0.000
1640671741321067008,2021-12-28-06:09:01,10.1.1.5,8,-0.210,-0.210,-0.210,0.000,0.000,0.000
1640671742200843008,2021-12-28-06:09:02,10.1.1.5,19,-0.210,-0.210,-0.210,0.000,0.000,0.000
1640671743358921984,2021-12-28-06:09:03,10.1.1.5,4,-0.210,-0.210,-0.210,0.000,0.000,0.000
1640671744236977152,2021-12-28-06:09:04,10.1.1.5,7,-0.210,-0.210,-0.210,0.000,0.000,0.000
1640671745417334016,2021-12-28-06:09:05,10.1.1.5,12,-0.210,-0.210,-0.210,0.000,0.000,0.000
1640671746333952000,2021-12-28-06:09:06,10.1.1.5,5,-0.210,-0.210,-0.210,0.000,0.000,0.000
1640671747512222976,2021-12-28-06:09:07,10.1.1.5,11,-0.210,-0.210,-0.210,0.000,0.000,0.000
1640671748410945792,2021-12-28-06:09:08,10.1.1.5,3,-0.210,-0.210,-0.210,0.000,0.000,0.000
1640671749728897024,2021-12-28-06:09:09,10.1.1.5,8,-0.210,-0.210,-0.210,0.000,0.000,0.000
1640671750606967808,2021-12-28-06:09:10,10.1.1.5,17,-0.210,-0.210,-0.210,0.000,0.000,0.000
1640671751772707072,2021-12-28-06:09:11,10.1.1.5,14,-0.210,-0.210,-0.210,0.000,0.000,0.000
1640671752634594816,2021-12-28-06:09:12,10.1.1.5,0,-0.210,-0.210,-0.210,0.000,0.000,0.000
1640671753868020992,2021-12-28-06:09:13,10.1.1.5,20,-0.210,-0.210,-0.210,0.000,0.000,0.000
1640671754760997120,2021-12-28-06:09:14,10.1.1.5,11,-0.210,-0.210,-0.210,0.000,0.000,0.000
1640671755924601088,2021-12-28-06:09:15,10.1.1.5,10,-0.210,-0.210,-0.210,0.000,0.000,0.000
1640671756785805824,2021-12-28-06:09:16,10.1.1.5,9,-0.210,-0.210,-0.210,0.000,0.000,0.000
1640671757927515136,2021-12-28-06:09:17,10.1.1.5,2,-0.210,-0.210,-0.210,0.000,0.000,0.000
1640671758809155840,2021-12-28-06:09:18,10.1.1.5,14,-0.210,-0.210,-0.210,0.000,0.000,0.000
1640671759969523968,2021-12-28-06:09:19,10.1.1.5,10,-0.210,-0.210,-0.210,0.000,0.000,0.000
1640671760869777920,2021-12-28-06:09:20,10.1.1.5,19,-0.210,-0.210,-0.210,0.000,0.000,0.000
1640671762029588992,2021-12-28-06:09:22,10.1.1.5,7,-0.210,-0.210,-0.210,0.000,0.000,0.000
1640671762969670144,2021-12-28-06:09:22,10.1.1.5,18,-0.210,-0.210,-0.210,0.000,0.000,0.000
1640671764128950016,2021-12-28-06:09:24,10.1.1.5,7,-0.210,-0.210,-0.210,0.000,0.000,0.000
1640671765008402944,2021-12-28-06:09:25,10.1.1.5,12,-0.210,-0.210,-0.210,0.000,0.000,0.000
1640671766147835904,2021-12-28-06:09:26,10.1.1.5,3,-0.210,-0.210,-0.210,0.000,0.000,0.000
1640671767007443968,2021-12-28-06:09:27,10.1.1.5,4,-0.210,-0.210,-0.210,0.000,0.000,0.000
1640671768166571008,2021-12-28-06:09:28,10.1.1.5,13,-0.210,-0.210,-0.210,0.000,0.000,0.000
1640671769085490944,2021-12-28-06:09:29,10.1.1.5,15,-0.210,-0.210,-0.210,0.000,0.000,0.000
1640671770244497920,2021-12-28-06:09:30,10.1.1.5,13,-0.210,-0.210,-0.210,0.000,0.000,0.000
1640671771162589952,2021-12-28-06:09:31,10.1.1.5,1,-0.210,-0.210,-0.210,0.000,0.000,0.000
1640671772340657920,2021-12-28-06:09:32,10.1.1.5,19,-0.210,-0.210,-0.210,0.000,0.000,0.000
1640671773200432896,2021-12-28-06:09:33,10.1.1.5,4,-0.210,-0.210,-0.210,0.000,0.000,0.000
