FedericoMungari/DigitalTwin_service/Output/Output_script/script_rosapi_2_output_robots8_freq0_2.txt
timestamp,date,node,latency,joint_1,joint_2,joint_3,joint_4,joint_5,joint_6
1641102609848512768,2022-01-02-05:50:09,10.1.1.3,187,-0.010,-0.010,-0.010,0.000,0.000,0.000
1641102610046726912,2022-01-02-05:50:10,10.1.1.3,185,-0.020,-0.020,-0.020,0.000,0.000,0.000
1641102610246654976,2022-01-02-05:50:10,10.1.1.3,184,-0.030,-0.030,-0.030,0.000,0.000,0.000
1641102610446604032,2022-01-02-05:50:10,10.1.1.3,184,-0.040,-0.040,-0.040,0.000,0.000,0.000
1641102610645844992,2022-01-02-05:50:10,10.1.1.3,182,-0.050,-0.050,-0.050,0.000,0.000,0.000
1641102610849587968,2022-01-02-05:50:10,10.1.1.3,186,-0.060,-0.060,-0.060,0.000,0.000,0.000
1641102611045479168,2022-01-02-05:50:11,10.1.1.3,181,-0.070,-0.070,-0.070,0.000,0.000,0.000
1641102611246056192,2022-01-02-05:50:11,10.1.1.3,181,-0.080,-0.080,-0.080,0.000,0.000,0.000
1641102611445564928,2022-01-02-05:50:11,10.1.1.3,179,-0.090,-0.090,-0.090,0.000,0.000,0.000
1641102611645189888,2022-01-02-05:50:11,10.1.1.3,176,-0.100,-0.100,-0.100,0.000,0.000,0.000
1641102611845030912,2022-01-02-05:50:11,10.1.1.3,175,-0.110,-0.110,-0.110,0.000,0.000,0.000
1641102612044083200,2022-01-02-05:50:12,10.1.1.3,173,-0.120,-0.120,-0.120,0.000,0.000,0.000
1641102612243609856,2022-01-02-05:50:12,10.1.1.3,172,-0.130,-0.130,-0.130,0.000,0.000,0.000
1641102612445043200,2022-01-02-05:50:12,10.1.1.3,172,-0.140,-0.140,-0.140,0.000,0.000,0.000
1641102612643004928,2022-01-02-05:50:12,10.1.1.3,171,-0.150,-0.150,-0.150,0.000,0.000,0.000
1641102612842624000,2022-01-02-05:50:12,10.1.1.3,169,-0.160,-0.160,-0.160,0.000,0.000,0.000
1641102613042742016,2022-01-02-05:50:13,10.1.1.3,168,-0.170,-0.170,-0.170,0.000,0.000,0.000
1641102613245662976,2022-01-02-05:50:13,10.1.1.3,167,-0.180,-0.180,-0.180,0.000,0.000,0.000
1641102613441873920,2022-01-02-05:50:13,10.1.1.3,166,-0.190,-0.190,-0.190,0.000,0.000,0.000
1641102613641772032,2022-01-02-05:50:13,10.1.1.3,166,-0.200,-0.200,-0.200,0.000,0.000,0.000
1641102613841188864,2022-01-02-05:50:13,10.1.1.3,165,-0.210,-0.210,-0.210,0.000,0.000,0.000
1641102614041270016,2022-01-02-05:50:14,10.1.1.3,165,-0.220,-0.220,-0.220,0.000,0.000,0.000
1641102614239904000,2022-01-02-05:50:14,10.1.1.3,163,-0.230,-0.230,-0.230,0.000,0.000,0.000
1641102614460654848,2022-01-02-05:50:14,10.1.1.3,182,-0.240,-0.240,-0.240,0.000,0.000,0.000
1641102614659604992,2022-01-02-05:50:14,10.1.1.3,180,-0.250,-0.250,-0.250,0.000,0.000,0.000
1641102614859860992,2022-01-02-05:50:14,10.1.1.3,180,-0.260,-0.260,-0.260,0.000,0.000,0.000
1641102615059469824,2022-01-02-05:50:15,10.1.1.3,177,-0.270,-0.270,-0.270,0.000,0.000,0.000
1641102615262016000,2022-01-02-05:50:15,10.1.1.3,177,-0.280,-0.280,-0.280,0.000,0.000,0.000
1641102615459259136,2022-01-02-05:50:15,10.1.1.3,176,-0.290,-0.290,-0.290,0.000,0.000,0.000
1641102615658720000,2022-01-02-05:50:15,10.1.1.3,175,-0.300,-0.300,-0.300,0.000,0.000,0.000
1641102615858608128,2022-01-02-05:50:15,10.1.1.3,173,-0.310,-0.310,-0.310,0.000,0.000,0.000
1641102616057696000,2022-01-02-05:50:16,10.1.1.3,172,-0.320,-0.320,-0.320,0.000,0.000,0.000
1641102616262264064,2022-01-02-05:50:16,10.1.1.3,176,-0.330,-0.330,-0.330,0.000,0.000,0.000
1641102616458380032,2022-01-02-05:50:16,10.1.1.3,171,-0.340,-0.340,-0.340,0.000,0.000,0.000
1641102616656322048,2022-01-02-05:50:16,10.1.1.3,169,-0.350,-0.350,-0.350,0.000,0.000,0.000
1641102616863337984,2022-01-02-05:50:16,10.1.1.3,175,-0.360,-0.360,-0.360,0.000,0.000,0.000
1641102617060482048,2022-01-02-05:50:17,10.1.1.3,169,-0.370,-0.370,-0.370,0.000,0.000,0.000
1641102617255299072,2022-01-02-05:50:17,10.1.1.3,166,-0.380,-0.380,-0.380,0.000,0.000,0.000
1641102617455718912,2022-01-02-05:50:17,10.1.1.3,166,-0.390,-0.390,-0.390,0.000,0.000,0.000
1641102617656111872,2022-01-02-05:50:17,10.1.1.3,166,-0.400,-0.400,-0.400,0.000,0.000,0.000
1641102617855240192,2022-01-02-05:50:17,10.1.1.3,164,-0.410,-0.410,-0.410,0.000,0.000,0.000
1641102618054238208,2022-01-02-05:50:18,10.1.1.3,163,-0.420,-0.420,-0.420,0.000,0.000,0.000
1641102618254219008,2022-01-02-05:50:18,10.1.1.3,162,-0.430,-0.430,-0.430,0.000,0.000,0.000
1641102618453885184,2022-01-02-05:50:18,10.1.1.3,161,-0.440,-0.440,-0.440,0.000,0.000,0.000
1641102618654344960,2022-01-02-05:50:18,10.1.1.3,160,-0.450,-0.450,-0.450,0.000,0.000,0.000
1641102618853956096,2022-01-02-05:50:18,10.1.1.3,159,-0.460,-0.460,-0.460,0.000,0.000,0.000
1641102619053715968,2022-01-02-05:50:19,10.1.1.3,158,-0.470,-0.470,-0.470,0.000,0.000,0.000
1641102619254843904,2022-01-02-05:50:19,10.1.1.3,158,-0.480,-0.480,-0.480,0.000,0.000,0.000
1641102619475186176,2022-01-02-05:50:19,10.1.1.3,176,-0.490,-0.490,-0.490,0.000,0.000,0.000
1641102619677277184,2022-01-02-05:50:19,10.1.1.3,177,-0.480,-0.480,-0.480,0.000,0.000,0.000
1641102619878889984,2022-01-02-05:50:19,10.1.1.3,177,-0.470,-0.470,-0.470,0.000,0.000,0.000
1641102620080944896,2022-01-02-05:50:20,10.1.1.3,179,-0.460,-0.460,-0.460,0.000,0.000,0.000
1641102620279785984,2022-01-02-05:50:20,10.1.1.3,177,-0.450,-0.450,-0.450,0.000,0.000,0.000
1641102620480595968,2022-01-02-05:50:20,10.1.1.3,175,-0.440,-0.440,-0.440,0.000,0.000,0.000
1641102620682095104,2022-01-02-05:50:20,10.1.1.3,176,-0.430,-0.430,-0.430,0.000,0.000,0.000
1641102620882550016,2022-01-02-05:50:20,10.1.1.3,176,-0.420,-0.420,-0.420,0.000,0.000,0.000
1641102621083399168,2022-01-02-05:50:21,10.1.1.3,176,-0.410,-0.410,-0.410,0.000,0.000,0.000
1641102621285156096,2022-01-02-05:50:21,10.1.1.3,177,-0.400,-0.400,-0.400,0.000,0.000,0.000
1641102621484731904,2022-01-02-05:50:21,10.1.1.3,176,-0.390,-0.390,-0.390,0.000,0.000,0.000
1641102621687377920,2022-01-02-05:50:21,10.1.1.3,178,-0.380,-0.380,-0.380,0.000,0.000,0.000
1641102621887705088,2022-01-02-05:50:21,10.1.1.3,175,-0.370,-0.370,-0.370,0.000,0.000,0.000
1641102622086780928,2022-01-02-05:50:22,10.1.1.3,174,-0.360,-0.360,-0.360,0.000,0.000,0.000
1641102622289647104,2022-01-02-05:50:22,10.1.1.3,176,-0.350,-0.350,-0.350,0.000,0.000,0.000
1641102622488652032,2022-01-02-05:50:22,10.1.1.3,174,-0.340,-0.340,-0.340,0.000,0.000,0.000
1641102622688518912,2022-01-02-05:50:22,10.1.1.3,173,-0.330,-0.330,-0.330,0.000,0.000,0.000
1641102622891678208,2022-01-02-05:50:22,10.1.1.3,175,-0.320,-0.320,-0.320,0.000,0.000,0.000
1641102623109376000,2022-01-02-05:50:23,10.1.1.3,191,-0.310,-0.310,-0.310,0.000,0.000,0.000
1641102623303389952,2022-01-02-05:50:23,10.1.1.3,183,-0.300,-0.300,-0.300,0.000,0.000,0.000
1641102623510021888,2022-01-02-05:50:23,10.1.1.3,189,-0.290,-0.290,-0.290,0.000,0.000,0.000
1641102623714843904,2022-01-02-05:50:23,10.1.1.3,190,-0.280,-0.280,-0.280,0.000,0.000,0.000
1641102623912000768,2022-01-02-05:50:23,10.1.1.3,190,-0.270,-0.270,-0.270,0.000,0.000,0.000
1641102624111467008,2022-01-02-05:50:24,10.1.1.3,189,-0.260,-0.260,-0.260,0.000,0.000,0.000
1641102624312779776,2022-01-02-05:50:24,10.1.1.3,190,-0.250,-0.250,-0.250,0.000,0.000,0.000
1641102624506114048,2022-01-02-05:50:24,10.1.1.3,182,-0.240,-0.240,-0.240,0.000,0.000,0.000
1641102624716467968,2022-01-02-05:50:24,10.1.1.3,190,-0.230,-0.230,-0.230,0.000,0.000,0.000
1641102624906539008,2022-01-02-05:50:24,10.1.1.3,181,-0.220,-0.220,-0.220,0.000,0.000,0.000
1641102625112972032,2022-01-02-05:50:25,10.1.1.3,187,-0.210,-0.210,-0.210,0.000,0.000,0.000
1641102625314055936,2022-01-02-05:50:25,10.1.1.3,188,-0.200,-0.200,-0.200,0.000,0.000,0.000
1641102625513827072,2022-01-02-05:50:25,10.1.1.3,187,-0.190,-0.190,-0.190,0.000,0.000,0.000
1641102625925196032,2022-01-02-05:50:25,10.1.1.3,190,-0.170,-0.170,-0.170,0.000,0.000,0.000
1641102626143127040,2022-01-02-05:50:26,10.1.1.3,-1,-0.160,-0.160,-0.160,0.000,0.000,0.000
1641102626735513088,2022-01-02-05:50:26,10.1.1.3,187,-0.130,-0.130,-0.130,0.000,0.000,0.000
1641102626936319232,2022-01-02-05:50:26,10.1.1.3,187,-0.120,-0.120,-0.120,0.000,0.000,0.000
1641102627136375040,2022-01-02-05:50:27,10.1.1.3,186,-0.110,-0.110,-0.110,0.000,0.000,0.000
1641102627344308992,2022-01-02-05:50:27,10.1.1.3,185,-0.100,-0.100,-0.100,0.000,0.000,0.000
1641102627536849920,2022-01-02-05:50:27,10.1.1.3,185,-0.090,-0.090,-0.090,0.000,0.000,0.000
1641102627736675072,2022-01-02-05:50:27,10.1.1.3,184,-0.080,-0.080,-0.080,0.000,0.000,0.000
1641102627937811968,2022-01-02-05:50:27,10.1.1.3,184,-0.070,-0.070,-0.070,0.000,0.000,0.000
1641102628136553984,2022-01-02-05:50:28,10.1.1.3,183,-0.060,-0.060,-0.060,0.000,0.000,0.000
1641102628336782080,2022-01-02-05:50:28,10.1.1.3,182,-0.050,-0.050,-0.050,0.000,0.000,0.000
1641102628536827136,2022-01-02-05:50:28,10.1.1.3,181,-0.040,-0.040,-0.040,0.000,0.000,0.000
1641102628736854016,2022-01-02-05:50:28,10.1.1.3,181,-0.030,-0.030,-0.030,0.000,0.000,0.000
1641102628936822016,2022-01-02-05:50:28,10.1.1.3,180,-0.020,-0.020,-0.020,0.000,0.000,0.000
1641102629136704000,2022-01-02-05:50:29,10.1.1.3,179,-0.010,-0.010,-0.010,0.000,0.000,0.000
1641102629356761088,2022-01-02-05:50:29,10.1.1.3,199,0.000,0.000,0.000,0.000,0.000,0.000
1641102629557071872,2022-01-02-05:50:29,10.1.1.3,198,-0.010,-0.010,-0.010,0.000,0.000,0.000
1641102629756702976,2022-01-02-05:50:29,10.1.1.3,197,-0.020,-0.020,-0.020,0.000,0.000,0.000
1641102629957039104,2022-01-02-05:50:29,10.1.1.3,197,-0.030,-0.030,-0.030,0.000,0.000,0.000
1641102630157215232,2022-01-02-05:50:30,10.1.1.3,197,-0.040,-0.040,-0.040,0.000,0.000,0.000
1641102630357462016,2022-01-02-05:50:30,10.1.1.3,196,-0.050,-0.050,-0.050,0.000,0.000,0.000
1641102630557050112,2022-01-02-05:50:30,10.1.1.3,195,-0.060,-0.060,-0.060,0.000,0.000,0.000
1641102630756733952,2022-01-02-05:50:30,10.1.1.3,195,-0.070,-0.070,-0.070,0.000,0.000,0.000
1641102630956595968,2022-01-02-05:50:30,10.1.1.3,194,-0.080,-0.080,-0.080,0.000,0.000,0.000
1641102631156930048,2022-01-02-05:50:31,10.1.1.3,194,-0.090,-0.090,-0.090,0.000,0.000,0.000
1641102631561964032,2022-01-02-05:50:31,10.1.1.3,197,-0.110,-0.110,-0.110,0.000,0.000,0.000
1641102631757404160,2022-01-02-05:50:31,10.1.1.3,192,-0.120,-0.120,-0.120,0.000,0.000,0.000
1641102631957140992,2022-01-02-05:50:31,10.1.1.3,191,-0.130,-0.130,-0.130,0.000,0.000,0.000
1641102632159678976,2022-01-02-05:50:32,10.1.1.3,192,-0.140,-0.140,-0.140,0.000,0.000,0.000
1641102632361016064,2022-01-02-05:50:32,10.1.1.3,193,-0.150,-0.150,-0.150,0.000,0.000,0.000
1641102632563024896,2022-01-02-05:50:32,10.1.1.3,194,-0.160,-0.160,-0.160,0.000,0.000,0.000
1641102632762382080,2022-01-02-05:50:32,10.1.1.3,192,-0.170,-0.170,-0.170,0.000,0.000,0.000
1641102632963112192,2022-01-02-05:50:32,10.1.1.3,191,-0.180,-0.180,-0.180,0.000,0.000,0.000
1641102633375938816,2022-01-02-05:50:33,10.1.1.3,188,-0.200,-0.200,-0.200,0.000,0.000,0.000
1641102633583731968,2022-01-02-05:50:33,10.1.1.3,196,-0.210,-0.210,-0.210,0.000,0.000,0.000
1641102633783576064,2022-01-02-05:50:33,10.1.1.3,195,-0.220,-0.220,-0.220,0.000,0.000,0.000
1641102633980738048,2022-01-02-05:50:33,10.1.1.3,191,-0.230,-0.230,-0.230,0.000,0.000,0.000
1641102634176625920,2022-01-02-05:50:34,10.1.1.3,186,-0.240,-0.240,-0.240,0.000,0.000,0.000
1641102634381950976,2022-01-02-05:50:34,10.1.1.3,191,-0.250,-0.250,-0.250,0.000,0.000,0.000
1641102634583059200,2022-01-02-05:50:34,10.1.1.3,191,-0.260,-0.260,-0.260,0.000,0.000,0.000
1641102634785306880,2022-01-02-05:50:34,10.1.1.3,192,-0.270,-0.270,-0.270,0.000,0.000,0.000
1641102634980786176,2022-01-02-05:50:34,10.1.1.3,187,-0.280,-0.280,-0.280,0.000,0.000,0.000
1641102635179832064,2022-01-02-05:50:35,10.1.1.3,185,-0.290,-0.290,-0.290,0.000,0.000,0.000
1641102635380681984,2022-01-02-05:50:35,10.1.1.3,183,-0.300,-0.300,-0.300,0.000,0.000,0.000
1641102635599940096,2022-01-02-05:50:35,10.1.1.3,200,-0.310,-0.310,-0.310,0.000,0.000,0.000
1641102635798536960,2022-01-02-05:50:35,10.1.1.3,197,-0.320,-0.320,-0.320,0.000,0.000,0.000
1641102635997300992,2022-01-02-05:50:35,10.1.1.3,195,-0.330,-0.330,-0.330,0.000,0.000,0.000
1641102636194048000,2022-01-02-05:50:36,10.1.1.3,191,-0.340,-0.340,-0.340,0.000,0.000,0.000
1641102636399522048,2022-01-02-05:50:36,10.1.1.3,194,-0.350,-0.350,-0.350,0.000,0.000,0.000
1641102636593221888,2022-01-02-05:50:36,10.1.1.3,186,-0.360,-0.360,-0.360,0.000,0.000,0.000
1641102636793037824,2022-01-02-05:50:36,10.1.1.3,184,-0.370,-0.370,-0.370,0.000,0.000,0.000
1641102636992770048,2022-01-02-05:50:36,10.1.1.3,183,-0.380,-0.380,-0.380,0.000,0.000,0.000
1641102637193298944,2022-01-02-05:50:37,10.1.1.3,183,-0.390,-0.390,-0.390,0.000,0.000,0.000
1641102637392460032,2022-01-02-05:50:37,10.1.1.3,181,-0.400,-0.400,-0.400,0.000,0.000,0.000
1641102637594601984,2022-01-02-05:50:37,10.1.1.3,180,-0.410,-0.410,-0.410,0.000,0.000,0.000
1641102637796881920,2022-01-02-05:50:37,10.1.1.3,181,-0.420,-0.420,-0.420,0.000,0.000,0.000
1641102637997148928,2022-01-02-05:50:37,10.1.1.3,184,-0.430,-0.430,-0.430,0.000,0.000,0.000
1641102638192975872,2022-01-02-05:50:38,10.1.1.3,179,-0.440,-0.440,-0.440,0.000,0.000,0.000
1641102638391350016,2022-01-02-05:50:38,10.1.1.3,177,-0.450,-0.450,-0.450,0.000,0.000,0.000
1641102638590756864,2022-01-02-05:50:38,10.1.1.3,176,-0.460,-0.460,-0.460,0.000,0.000,0.000
1641102638792614912,2022-01-02-05:50:38,10.1.1.3,176,-0.470,-0.470,-0.470,0.000,0.000,0.000
1641102638990520064,2022-01-02-05:50:38,10.1.1.3,174,-0.480,-0.480,-0.480,0.000,0.000,0.000
1641102639193121024,2022-01-02-05:50:39,10.1.1.3,175,-0.490,-0.490,-0.490,0.000,0.000,0.000
1641102639409917952,2022-01-02-05:50:39,10.1.1.3,192,-0.480,-0.480,-0.480,0.000,0.000,0.000
1641102639609954048,2022-01-02-05:50:39,10.1.1.3,191,-0.470,-0.470,-0.470,0.000,0.000,0.000
1641102639808996864,2022-01-02-05:50:39,10.1.1.3,190,-0.460,-0.460,-0.460,0.000,0.000,0.000
1641102640009319168,2022-01-02-05:50:40,10.1.1.3,190,-0.450,-0.450,-0.450,0.000,0.000,0.000
1641102640208823040,2022-01-02-05:50:40,10.1.1.3,188,-0.440,-0.440,-0.440,0.000,0.000,0.000
1641102640409532160,2022-01-02-05:50:40,10.1.1.3,189,-0.430,-0.430,-0.430,0.000,0.000,0.000
1641102640608377088,2022-01-02-05:50:40,10.1.1.3,187,-0.420,-0.420,-0.420,0.000,0.000,0.000
1641102640808204032,2022-01-02-05:50:40,10.1.1.3,187,-0.410,-0.410,-0.410,0.000,0.000,0.000
1641102641008879872,2022-01-02-05:50:41,10.1.1.3,187,-0.400,-0.400,-0.400,0.000,0.000,0.000
1641102641208688896,2022-01-02-05:50:41,10.1.1.3,185,-0.390,-0.390,-0.390,0.000,0.000,0.000
1641102641408633088,2022-01-02-05:50:41,10.1.1.3,185,-0.380,-0.380,-0.380,0.000,0.000,0.000
1641102641607099904,2022-01-02-05:50:41,10.1.1.3,182,-0.370,-0.370,-0.370,0.000,0.000,0.000
1641102641806546944,2022-01-02-05:50:41,10.1.1.3,182,-0.360,-0.360,-0.360,0.000,0.000,0.000
1641102642006875136,2022-01-02-05:50:42,10.1.1.3,181,-0.350,-0.350,-0.350,0.000,0.000,0.000
1641102642206247936,2022-01-02-05:50:42,10.1.1.3,180,-0.340,-0.340,-0.340,0.000,0.000,0.000
1641102642418371840,2022-01-02-05:50:42,10.1.1.3,190,-0.330,-0.330,-0.330,0.000,0.000,0.000
1641102642605720064,2022-01-02-05:50:42,10.1.1.3,177,-0.320,-0.320,-0.320,0.000,0.000,0.000
1641102642805458176,2022-01-02-05:50:42,10.1.1.3,176,-0.310,-0.310,-0.310,0.000,0.000,0.000
1641102643004785152,2022-01-02-05:50:43,10.1.1.3,175,-0.300,-0.300,-0.300,0.000,0.000,0.000
1641102643205241088,2022-01-02-05:50:43,10.1.1.3,175,-0.290,-0.290,-0.290,0.000,0.000,0.000
1641102643406258176,2022-01-02-05:50:43,10.1.1.3,175,-0.280,-0.280,-0.280,0.000,0.000,0.000
1641102643604751104,2022-01-02-05:50:43,10.1.1.3,173,-0.270,-0.270,-0.270,0.000,0.000,0.000
1641102643807992064,2022-01-02-05:50:43,10.1.1.3,174,-0.260,-0.260,-0.260,0.000,0.000,0.000
1641102644003883008,2022-01-02-05:50:44,10.1.1.3,170,-0.250,-0.250,-0.250,0.000,0.000,0.000
1641102644203826944,2022-01-02-05:50:44,10.1.1.3,169,-0.240,-0.240,-0.240,0.000,0.000,0.000
1641102644403676160,2022-01-02-05:50:44,10.1.1.3,169,-0.230,-0.230,-0.230,0.000,0.000,0.000
1641102644604705024,2022-01-02-05:50:44,10.1.1.3,168,-0.220,-0.220,-0.220,0.000,0.000,0.000
1641102644802537984,2022-01-02-05:50:44,10.1.1.3,166,-0.210,-0.210,-0.210,0.000,0.000,0.000
1641102645002217984,2022-01-02-05:50:45,10.1.1.3,164,-0.200,-0.200,-0.200,0.000,0.000,0.000
1641102645222127872,2022-01-02-05:50:45,10.1.1.3,184,-0.190,-0.190,-0.190,0.000,0.000,0.000
1641102645421647104,2022-01-02-05:50:45,10.1.1.3,183,-0.180,-0.180,-0.180,0.000,0.000,0.000
1641102645621222912,2022-01-02-05:50:45,10.1.1.3,182,-0.170,-0.170,-0.170,0.000,0.000,0.000
1641102645825142016,2022-01-02-05:50:45,10.1.1.3,186,-0.160,-0.160,-0.160,0.000,0.000,0.000
1641102646020482048,2022-01-02-05:50:46,10.1.1.3,181,-0.150,-0.150,-0.150,0.000,0.000,0.000
1641102646220973056,2022-01-02-05:50:46,10.1.1.3,180,-0.140,-0.140,-0.140,0.000,0.000,0.000
1641102646420689152,2022-01-02-05:50:46,10.1.1.3,179,-0.130,-0.130,-0.130,0.000,0.000,0.000
1641102646622639872,2022-01-02-05:50:46,10.1.1.3,181,-0.120,-0.120,-0.120,0.000,0.000,0.000
1641102646820049920,2022-01-02-05:50:46,10.1.1.3,178,-0.110,-0.110,-0.110,0.000,0.000,0.000
1641102647024656896,2022-01-02-05:50:47,10.1.1.3,181,-0.100,-0.100,-0.100,0.000,0.000,0.000
1641102647213072128,2022-01-02-05:50:47,10.1.1.3,169,-0.090,-0.090,-0.090,0.000,0.000,0.000
1641102647425411840,2022-01-02-05:50:47,10.1.1.3,181,-0.080,-0.080,-0.080,0.000,0.000,0.000
1641102647613246976,2022-01-02-05:50:47,10.1.1.3,168,-0.070,-0.070,-0.070,0.000,0.000,0.000
1641102647820872960,2022-01-02-05:50:47,10.1.1.3,173,-0.060,-0.060,-0.060,0.000,0.000,0.000
1641102648018084096,2022-01-02-05:50:48,10.1.1.3,172,-0.050,-0.050,-0.050,0.000,0.000,0.000
1641102648219855104,2022-01-02-05:50:48,10.1.1.3,171,-0.040,-0.040,-0.040,0.000,0.000,0.000
1641102648422460928,2022-01-02-05:50:48,10.1.1.3,175,-0.030,-0.030,-0.030,0.000,0.000,0.000
1641102648621766144,2022-01-02-05:50:48,10.1.1.3,174,-0.020,-0.020,-0.020,0.000,0.000,0.000
1641102648823288064,2022-01-02-05:50:48,10.1.1.3,175,-0.010,-0.010,-0.010,0.000,0.000,0.000
1641102649016536832,2022-01-02-05:50:49,10.1.1.3,167,0.000,0.000,0.000,0.000,0.000,0.000
1641102649216284928,2022-01-02-05:50:49,10.1.1.3,167,-0.010,-0.010,-0.010,0.000,0.000,0.000
1641102649424843008,2022-01-02-05:50:49,10.1.1.3,175,-0.020,-0.020,-0.020,0.000,0.000,0.000
1641102649624506112,2022-01-02-05:50:49,10.1.1.3,174,-0.030,-0.030,-0.030,0.000,0.000,0.000
1641102649821907968,2022-01-02-05:50:49,10.1.1.3,165,-0.040,-0.040,-0.040,0.000,0.000,0.000
1641102650014926080,2022-01-02-05:50:50,10.1.1.3,162,-0.050,-0.050,-0.050,0.000,0.000,0.000
1641102650237287936,2022-01-02-05:50:50,10.1.1.3,176,-0.060,-0.060,-0.060,0.000,0.000,0.000
1641102650437670912,2022-01-02-05:50:50,10.1.1.3,176,-0.070,-0.070,-0.070,0.000,0.000,0.000
1641102650633570048,2022-01-02-05:50:50,10.1.1.3,171,-0.080,-0.080,-0.080,0.000,0.000,0.000
1641102650834891008,2022-01-02-05:50:50,10.1.1.3,171,-0.090,-0.090,-0.090,0.000,0.000,0.000
1641102651033617920,2022-01-02-05:50:51,10.1.1.3,170,-0.100,-0.100,-0.100,0.000,0.000,0.000
1641102651234585088,2022-01-02-05:50:51,10.1.1.3,170,-0.110,-0.110,-0.110,0.000,0.000,0.000
1641102651441966080,2022-01-02-05:50:51,10.1.1.3,177,-0.120,-0.120,-0.120,0.000,0.000,0.000
1641102651643798016,2022-01-02-05:50:51,10.1.1.3,177,-0.130,-0.130,-0.130,0.000,0.000,0.000
1641102651845248000,2022-01-02-05:50:51,10.1.1.3,177,-0.140,-0.140,-0.140,0.000,0.000,0.000
1641102652045458176,2022-01-02-05:50:52,10.1.1.3,175,-0.150,-0.150,-0.150,0.000,0.000,0.000
1641102652247138048,2022-01-02-05:50:52,10.1.1.3,176,-0.160,-0.160,-0.160,0.000,0.000,0.000
1641102652445668096,2022-01-02-05:50:52,10.1.1.3,174,-0.170,-0.170,-0.170,0.000,0.000,0.000
1641102652647944960,2022-01-02-05:50:52,10.1.1.3,175,-0.180,-0.180,-0.180,0.000,0.000,0.000
1641102652842605056,2022-01-02-05:50:52,10.1.1.3,169,-0.190,-0.190,-0.190,0.000,0.000,0.000
1641102653048641024,2022-01-02-05:50:53,10.1.1.3,175,-0.200,-0.200,-0.200,0.000,0.000,0.000
1641102653247450112,2022-01-02-05:50:53,10.1.1.3,172,-0.210,-0.210,-0.210,0.000,0.000,0.000
1641102653451240960,2022-01-02-05:50:53,10.1.1.3,176,-0.220,-0.220,-0.220,0.000,0.000,0.000
1641102653651456000,2022-01-02-05:50:53,10.1.1.3,176,-0.230,-0.230,-0.230,0.000,0.000,0.000
1641102653852550144,2022-01-02-05:50:53,10.1.1.3,171,-0.240,-0.240,-0.240,0.000,0.000,0.000
1641102654054179072,2022-01-02-05:50:54,10.1.1.3,177,-0.250,-0.250,-0.250,0.000,0.000,0.000
1641102654257978880,2022-01-02-05:50:54,10.1.1.3,180,-0.260,-0.260,-0.260,0.000,0.000,0.000
1641102654474537984,2022-01-02-05:50:54,10.1.1.3,195,-0.270,-0.270,-0.270,0.000,0.000,0.000
1641102654676428032,2022-01-02-05:50:54,10.1.1.3,196,-0.280,-0.280,-0.280,0.000,0.000,0.000
1641102654870131968,2022-01-02-05:50:54,10.1.1.3,189,-0.290,-0.290,-0.290,0.000,0.000,0.000
1641102655070373120,2022-01-02-05:50:55,10.1.1.3,189,-0.300,-0.300,-0.300,0.000,0.000,0.000
1641102655271131136,2022-01-02-05:50:55,10.1.1.3,189,-0.310,-0.310,-0.310,0.000,0.000,0.000
1641102655471721984,2022-01-02-05:50:55,10.1.1.3,189,-0.320,-0.320,-0.320,0.000,0.000,0.000
1641102655677846784,2022-01-02-05:50:55,10.1.1.3,194,-0.330,-0.330,-0.330,0.000,0.000,0.000
1641102655872443904,2022-01-02-05:50:55,10.1.1.3,187,-0.340,-0.340,-0.340,0.000,0.000,0.000
1641102656075356928,2022-01-02-05:50:56,10.1.1.3,188,-0.350,-0.350,-0.350,0.000,0.000,0.000
1641102656273381888,2022-01-02-05:50:56,10.1.1.3,187,-0.360,-0.360,-0.360,0.000,0.000,0.000
1641102656474354944,2022-01-02-05:50:56,10.1.1.3,187,-0.370,-0.370,-0.370,0.000,0.000,0.000
1641102656678388992,2022-01-02-05:50:56,10.1.1.3,190,-0.380,-0.380,-0.380,0.000,0.000,0.000
1641102656880830976,2022-01-02-05:50:56,10.1.1.3,191,-0.390,-0.390,-0.390,0.000,0.000,0.000
1641102657078484992,2022-01-02-05:50:57,10.1.1.3,188,-0.400,-0.400,-0.400,0.000,0.000,0.000
1641102657275424000,2022-01-02-05:50:57,10.1.1.3,185,-0.410,-0.410,-0.410,0.000,0.000,0.000
1641102657478903040,2022-01-02-05:50:57,10.1.1.3,185,-0.420,-0.420,-0.420,0.000,0.000,0.000
1641102657676070912,2022-01-02-05:50:57,10.1.1.3,182,-0.430,-0.430,-0.430,0.000,0.000,0.000
1641102657884987136,2022-01-02-05:50:57,10.1.1.3,182,-0.440,-0.440,-0.440,0.000,0.000,0.000
1641102658076577792,2022-01-02-05:50:58,10.1.1.3,181,-0.450,-0.450,-0.450,0.000,0.000,0.000
1641102658281199872,2022-01-02-05:50:58,10.1.1.3,184,-0.460,-0.460,-0.460,0.000,0.000,0.000
1641102658697182976,2022-01-02-05:50:58,10.1.1.3,197,-0.480,-0.480,-0.480,0.000,0.000,0.000
1641102658897030144,2022-01-02-05:50:58,10.1.1.3,196,-0.490,-0.490,-0.490,0.000,0.000,0.000
1641102659108069888,2022-01-02-05:50:59,10.1.1.3,196,-0.480,-0.480,-0.480,0.000,0.000,0.000
1641102659297633792,2022-01-02-05:50:59,10.1.1.3,184,-0.470,-0.470,-0.470,0.000,0.000,0.000
1641102659498009856,2022-01-02-05:50:59,10.1.1.3,183,-0.460,-0.460,-0.460,0.000,0.000,0.000
1641102659697639936,2022-01-02-05:50:59,10.1.1.3,182,-0.450,-0.450,-0.450,0.000,0.000,0.000
1641102659898116096,2022-01-02-05:50:59,10.1.1.3,181,-0.440,-0.440,-0.440,0.000,0.000,0.000
1641102660098370048,2022-01-02-05:51:00,10.1.1.3,180,-0.430,-0.430,-0.430,0.000,0.000,0.000
1641102660319257856,2022-01-02-05:51:00,10.1.1.3,200,-0.420,-0.420,-0.420,0.000,0.000,0.000
1641102660523958016,2022-01-02-05:51:00,10.1.1.3,205,-0.410,-0.410,-0.410,0.000,0.000,0.000
1641102660921340928,2022-01-02-05:51:00,10.1.1.3,196,-0.390,-0.390,-0.390,0.000,0.000,0.000
1641102661118483968,2022-01-02-05:51:01,10.1.1.3,192,-0.380,-0.380,-0.380,0.000,0.000,0.000
1641102661318658048,2022-01-02-05:51:01,10.1.1.3,192,-0.370,-0.370,-0.370,0.000,0.000,0.000
1641102661518863872,2022-01-02-05:51:01,10.1.1.3,191,-0.360,-0.360,-0.360,0.000,0.000,0.000
1641102661718551040,2022-01-02-05:51:01,10.1.1.3,190,-0.350,-0.350,-0.350,0.000,0.000,0.000
1641102661922106112,2022-01-02-05:51:01,10.1.1.3,193,-0.340,-0.340,-0.340,0.000,0.000,0.000
1641102662318876928,2022-01-02-05:51:02,10.1.1.3,189,-0.320,-0.320,-0.320,0.000,0.000,0.000
1641102662518713088,2022-01-02-05:51:02,10.1.1.3,188,-0.310,-0.310,-0.310,0.000,0.000,0.000
1641102662718482944,2022-01-02-05:51:02,10.1.1.3,186,-0.300,-0.300,-0.300,0.000,0.000,0.000
1641102662920447232,2022-01-02-05:51:02,10.1.1.3,186,-0.290,-0.290,-0.290,0.000,0.000,0.000
1641102663118876928,2022-01-02-05:51:03,10.1.1.3,184,-0.280,-0.280,-0.280,0.000,0.000,0.000
1641102663317931008,2022-01-02-05:51:03,10.1.1.3,183,-0.270,-0.270,-0.270,0.000,0.000,0.000
1641102663517879040,2022-01-02-05:51:03,10.1.1.3,182,-0.260,-0.260,-0.260,0.000,0.000,0.000
1641102663738760960,2022-01-02-05:51:03,10.1.1.3,200,-0.250,-0.250,-0.250,0.000,0.000,0.000
1641102663937956096,2022-01-02-05:51:03,10.1.1.3,198,-0.240,-0.240,-0.240,0.000,0.000,0.000
1641102664138461184,2022-01-02-05:51:04,10.1.1.3,197,-0.230,-0.230,-0.230,0.000,0.000,0.000
1641102664344147968,2022-01-02-05:51:04,10.1.1.3,-1,-0.220,-0.220,-0.220,0.000,0.000,0.000
1641102664737655040,2022-01-02-05:51:04,10.1.1.3,192,-0.200,-0.200,-0.200,0.000,0.000,0.000
1641102664937778944,2022-01-02-05:51:04,10.1.1.3,191,-0.190,-0.190,-0.190,0.000,0.000,0.000
1641102665137562112,2022-01-02-05:51:05,10.1.1.3,191,-0.180,-0.180,-0.180,0.000,0.000,0.000
1641102665337660928,2022-01-02-05:51:05,10.1.1.3,190,-0.170,-0.170,-0.170,0.000,0.000,0.000
1641102665540792064,2022-01-02-05:51:05,10.1.1.3,192,-0.160,-0.160,-0.160,0.000,0.000,0.000
1641102665736870144,2022-01-02-05:51:05,10.1.1.3,188,-0.150,-0.150,-0.150,0.000,0.000,0.000
1641102665937588992,2022-01-02-05:51:05,10.1.1.3,188,-0.140,-0.140,-0.140,0.000,0.000,0.000
1641102666139055872,2022-01-02-05:51:06,10.1.1.3,188,-0.130,-0.130,-0.130,0.000,0.000,0.000
1641102666337507072,2022-01-02-05:51:06,10.1.1.3,186,-0.120,-0.120,-0.120,0.000,0.000,0.000
1641102666537646080,2022-01-02-05:51:06,10.1.1.3,185,-0.110,-0.110,-0.110,0.000,0.000,0.000
1641102666736398848,2022-01-02-05:51:06,10.1.1.3,181,-0.100,-0.100,-0.100,0.000,0.000,0.000
1641102666940566016,2022-01-02-05:51:06,10.1.1.3,181,-0.090,-0.090,-0.090,0.000,0.000,0.000
1641102667137280000,2022-01-02-05:51:07,10.1.1.3,180,-0.080,-0.080,-0.080,0.000,0.000,0.000
1641102667356615936,2022-01-02-05:51:07,10.1.1.3,184,-0.070,-0.070,-0.070,0.000,0.000,0.000
1641102667561014784,2022-01-02-05:51:07,10.1.1.3,187,-0.060,-0.060,-0.060,0.000,0.000,0.000
1641102667760637952,2022-01-02-05:51:07,10.1.1.3,186,-0.050,-0.050,-0.050,0.000,0.000,0.000
1641102667955646976,2022-01-02-05:51:07,10.1.1.3,181,-0.040,-0.040,-0.040,0.000,0.000,0.000
1641102668156214016,2022-01-02-05:51:08,10.1.1.3,181,-0.030,-0.030,-0.030,0.000,0.000,0.000
1641102668359479040,2022-01-02-05:51:08,10.1.1.3,180,-0.020,-0.020,-0.020,0.000,0.000,0.000
1641102668578249984,2022-01-02-05:51:08,10.1.1.3,196,-0.010,-0.010,-0.010,0.000,0.000,0.000
1641102668777612032,2022-01-02-05:51:08,10.1.1.3,192,0.000,0.000,0.000,0.000,0.000,0.000
1641102668974541824,2022-01-02-05:51:08,10.1.1.3,191,-0.010,-0.010,-0.010,0.000,0.000,0.000
1641102669176843776,2022-01-02-05:51:09,10.1.1.3,192,-0.020,-0.020,-0.020,0.000,0.000,0.000
1641102669373853952,2022-01-02-05:51:09,10.1.1.3,182,-0.030,-0.030,-0.030,0.000,0.000,0.000
1641102669574328832,2022-01-02-05:51:09,10.1.1.3,182,-0.040,-0.040,-0.040,0.000,0.000,0.000
1641102669798085888,2022-01-02-05:51:09,10.1.1.3,199,-0.050,-0.050,-0.050,0.000,0.000,0.000
1641102670193767936,2022-01-02-05:51:10,10.1.1.3,189,-0.070,-0.070,-0.070,0.000,0.000,0.000
1641102670398441984,2022-01-02-05:51:10,10.1.1.3,192,-0.080,-0.080,-0.080,0.000,0.000,0.000
1641102670592909056,2022-01-02-05:51:10,10.1.1.3,186,-0.090,-0.090,-0.090,0.000,0.000,0.000
1641102670794272000,2022-01-02-05:51:10,10.1.1.3,186,-0.100,-0.100,-0.100,0.000,0.000,0.000
1641102670992527104,2022-01-02-05:51:10,10.1.1.3,184,-0.110,-0.110,-0.110,0.000,0.000,0.000
1641102671191890944,2022-01-02-05:51:11,10.1.1.3,183,-0.120,-0.120,-0.120,0.000,0.000,0.000
1641102671392379136,2022-01-02-05:51:11,10.1.1.3,182,-0.130,-0.130,-0.130,0.000,0.000,0.000
1641102671593240064,2022-01-02-05:51:11,10.1.1.3,183,-0.140,-0.140,-0.140,0.000,0.000,0.000
1641102671791763968,2022-01-02-05:51:11,10.1.1.3,180,-0.150,-0.150,-0.150,0.000,0.000,0.000
1641102671998547968,2022-01-02-05:51:11,10.1.1.3,185,-0.160,-0.160,-0.160,0.000,0.000,0.000
1641102672190778112,2022-01-02-05:51:12,10.1.1.3,175,-0.170,-0.170,-0.170,0.000,0.000,0.000
1641102672393202176,2022-01-02-05:51:12,10.1.1.3,176,-0.180,-0.180,-0.180,0.000,0.000,0.000
1641102672591123200,2022-01-02-05:51:12,10.1.1.3,174,-0.190,-0.190,-0.190,0.000,0.000,0.000
1641102672791723008,2022-01-02-05:51:12,10.1.1.3,174,-0.200,-0.200,-0.200,0.000,0.000,0.000
1641102672990704896,2022-01-02-05:51:12,10.1.1.3,172,-0.210,-0.210,-0.210,0.000,0.000,0.000
1641102673209378048,2022-01-02-05:51:13,10.1.1.3,191,-0.220,-0.220,-0.220,0.000,0.000,0.000
1641102673409552128,2022-01-02-05:51:13,10.1.1.3,190,-0.230,-0.230,-0.230,0.000,0.000,0.000
1641102673609680896,2022-01-02-05:51:13,10.1.1.3,190,-0.240,-0.240,-0.240,0.000,0.000,0.000
1641102673812474880,2022-01-02-05:51:13,10.1.1.3,190,-0.250,-0.250,-0.250,0.000,0.000,0.000
1641102674013775104,2022-01-02-05:51:14,10.1.1.3,187,-0.260,-0.260,-0.260,0.000,0.000,0.000
1641102674213326080,2022-01-02-05:51:14,10.1.1.3,189,-0.270,-0.270,-0.270,0.000,0.000,0.000
1641102674408154112,2022-01-02-05:51:14,10.1.1.3,182,-0.280,-0.280,-0.280,0.000,0.000,0.000
1641102674627813120,2022-01-02-05:51:14,10.1.1.3,193,-0.290,-0.290,-0.290,0.000,0.000,0.000
1641102674810370048,2022-01-02-05:51:14,10.1.1.3,172,-0.300,-0.300,-0.300,0.000,0.000,0.000
1641102675010771968,2022-01-02-05:51:15,10.1.1.3,173,-0.310,-0.310,-0.310,0.000,0.000,0.000
1641102675227067904,2022-01-02-05:51:15,10.1.1.3,188,-0.320,-0.320,-0.320,0.000,0.000,0.000
1641102675426068992,2022-01-02-05:51:15,10.1.1.3,187,-0.330,-0.330,-0.330,0.000,0.000,0.000
1641102675625829888,2022-01-02-05:51:15,10.1.1.3,186,-0.340,-0.340,-0.340,0.000,0.000,0.000
1641102675826001920,2022-01-02-05:51:15,10.1.1.3,185,-0.350,-0.350,-0.350,0.000,0.000,0.000
1641102676025477888,2022-01-02-05:51:16,10.1.1.3,184,-0.360,-0.360,-0.360,0.000,0.000,0.000
1641102676228278016,2022-01-02-05:51:16,10.1.1.3,186,-0.370,-0.370,-0.370,0.000,0.000,0.000
1641102676425585152,2022-01-02-05:51:16,10.1.1.3,183,-0.380,-0.380,-0.380,0.000,0.000,0.000
1641102676625169152,2022-01-02-05:51:16,10.1.1.3,182,-0.390,-0.390,-0.390,0.000,0.000,0.000
1641102676824492032,2022-01-02-05:51:16,10.1.1.3,180,-0.400,-0.400,-0.400,0.000,0.000,0.000
1641102677024171008,2022-01-02-05:51:17,10.1.1.3,174,-0.410,-0.410,-0.410,0.000,0.000,0.000
1641102677224011008,2022-01-02-05:51:17,10.1.1.3,173,-0.420,-0.420,-0.420,0.000,0.000,0.000
1641102677430191104,2022-01-02-05:51:17,10.1.1.3,177,-0.430,-0.430,-0.430,0.000,0.000,0.000
1641102677623630080,2022-01-02-05:51:17,10.1.1.3,169,-0.440,-0.440,-0.440,0.000,0.000,0.000
1641102677825319936,2022-01-02-05:51:17,10.1.1.3,171,-0.450,-0.450,-0.450,0.000,0.000,0.000
1641102678022298112,2022-01-02-05:51:18,10.1.1.3,168,-0.460,-0.460,-0.460,0.000,0.000,0.000
1641102678234062080,2022-01-02-05:51:18,10.1.1.3,178,-0.470,-0.470,-0.470,0.000,0.000,0.000
1641102678422394112,2022-01-02-05:51:18,10.1.1.3,166,-0.480,-0.480,-0.480,0.000,0.000,0.000
1641102678657655040,2022-01-02-05:51:18,10.1.1.3,196,-0.490,-0.490,-0.490,0.000,0.000,0.000
1641102678841892096,2022-01-02-05:51:18,10.1.1.3,183,-0.480,-0.480,-0.480,0.000,0.000,0.000
1641102679041363968,2022-01-02-05:51:19,10.1.1.3,182,-0.470,-0.470,-0.470,0.000,0.000,0.000
1641102679247270144,2022-01-02-05:51:19,10.1.1.3,188,-0.460,-0.460,-0.460,0.000,0.000,0.000
1641102679445761792,2022-01-02-05:51:19,10.1.1.3,185,-0.450,-0.450,-0.450,0.000,0.000,0.000
1641102679642496000,2022-01-02-05:51:19,10.1.1.3,178,-0.440,-0.440,-0.440,0.000,0.000,0.000
1641102679840118016,2022-01-02-05:51:19,10.1.1.3,174,-0.430,-0.430,-0.430,0.000,0.000,0.000
1641102680041703936,2022-01-02-05:51:20,10.1.1.3,175,-0.420,-0.420,-0.420,0.000,0.000,0.000
1641102680244916992,2022-01-02-05:51:20,10.1.1.3,178,-0.410,-0.410,-0.410,0.000,0.000,0.000
1641102680440443136,2022-01-02-05:51:20,10.1.1.3,170,-0.400,-0.400,-0.400,0.000,0.000,0.000
1641102680643079936,2022-01-02-05:51:20,10.1.1.3,172,-0.390,-0.390,-0.390,0.000,0.000,0.000
1641102680838078976,2022-01-02-05:51:20,10.1.1.3,167,-0.380,-0.380,-0.380,0.000,0.000,0.000
1641102681037682944,2022-01-02-05:51:21,10.1.1.3,164,-0.370,-0.370,-0.370,0.000,0.000,0.000
1641102681237922816,2022-01-02-05:51:21,10.1.1.3,164,-0.360,-0.360,-0.360,0.000,0.000,0.000
1641102681436862976,2022-01-02-05:51:21,10.1.1.3,163,-0.350,-0.350,-0.350,0.000,0.000,0.000
1641102681638548992,2022-01-02-05:51:21,10.1.1.3,163,-0.340,-0.340,-0.340,0.000,0.000,0.000
1641102681840292096,2022-01-02-05:51:21,10.1.1.3,164,-0.330,-0.330,-0.330,0.000,0.000,0.000
1641102682049463040,2022-01-02-05:51:22,10.1.1.3,173,-0.320,-0.320,-0.320,0.000,0.000,0.000
1641102682258384896,2022-01-02-05:51:22,10.1.1.3,177,-0.310,-0.310,-0.310,0.000,0.000,0.000
1641102682456476928,2022-01-02-05:51:22,10.1.1.3,175,-0.300,-0.300,-0.300,0.000,0.000,0.000
1641102682656555776,2022-01-02-05:51:22,10.1.1.3,173,-0.290,-0.290,-0.290,0.000,0.000,0.000
1641102682860537088,2022-01-02-05:51:22,10.1.1.3,177,-0.280,-0.280,-0.280,0.000,0.000,0.000
1641102683048867840,2022-01-02-05:51:23,10.1.1.3,164,-0.270,-0.270,-0.270,0.000,0.000,0.000
1641102683255759872,2022-01-02-05:51:23,10.1.1.3,170,-0.260,-0.260,-0.260,0.000,0.000,0.000
1641102683447336960,2022-01-02-05:51:23,10.1.1.3,160,-0.250,-0.250,-0.250,0.000,0.000,0.000
1641102683653362944,2022-01-02-05:51:23,10.1.1.3,165,-0.240,-0.240,-0.240,0.000,0.000,0.000
1641102683853065984,2022-01-02-05:51:23,10.1.1.3,164,-0.230,-0.230,-0.230,0.000,0.000,0.000
1641102684058226176,2022-01-02-05:51:24,10.1.1.3,168,-0.220,-0.220,-0.220,0.000,0.000,0.000
1641102684253981184,2022-01-02-05:51:24,10.1.1.3,163,-0.210,-0.210,-0.210,0.000,0.000,0.000
1641102684455959040,2022-01-02-05:51:24,10.1.1.3,164,-0.200,-0.200,-0.200,0.000,0.000,0.000
1641102684657267968,2022-01-02-05:51:24,10.1.1.3,165,-0.190,-0.190,-0.190,0.000,0.000,0.000
1641102684857750016,2022-01-02-05:51:24,10.1.1.3,165,-0.180,-0.180,-0.180,0.000,0.000,0.000
1641102685058818048,2022-01-02-05:51:25,10.1.1.3,166,-0.170,-0.170,-0.170,0.000,0.000,0.000
1641102685262142976,2022-01-02-05:51:25,10.1.1.3,167,-0.160,-0.160,-0.160,0.000,0.000,0.000
1641102685482899968,2022-01-02-05:51:25,10.1.1.3,173,-0.150,-0.150,-0.150,0.000,0.000,0.000
1641102685698481152,2022-01-02-05:51:25,10.1.1.3,199,-0.140,-0.140,-0.140,0.000,0.000,0.000
1641102685881486848,2022-01-02-05:51:25,10.1.1.3,182,-0.130,-0.130,-0.130,0.000,0.000,0.000
1641102686083329024,2022-01-02-05:51:26,10.1.1.3,183,-0.120,-0.120,-0.120,0.000,0.000,0.000
1641102686284524800,2022-01-02-05:51:26,10.1.1.3,183,-0.110,-0.110,-0.110,0.000,0.000,0.000
1641102686484279040,2022-01-02-05:51:26,10.1.1.3,182,-0.100,-0.100,-0.100,0.000,0.000,0.000
1641102686686213120,2022-01-02-05:51:26,10.1.1.3,184,-0.090,-0.090,-0.090,0.000,0.000,0.000
1641102686885699072,2022-01-02-05:51:26,10.1.1.3,182,-0.080,-0.080,-0.080,0.000,0.000,0.000
1641102687086348032,2022-01-02-05:51:27,10.1.1.3,182,-0.070,-0.070,-0.070,0.000,0.000,0.000
1641102687298007040,2022-01-02-05:51:27,10.1.1.3,192,-0.060,-0.060,-0.060,0.000,0.000,0.000
1641102687487453952,2022-01-02-05:51:27,10.1.1.3,180,-0.050,-0.050,-0.050,0.000,0.000,0.000
1641102687507904000,2022-01-02-05:51:27,10.1.1.3,-1,-0.050,-0.050,-0.050,0.000,0.000,0.000
1641102687888780032,2022-01-02-05:51:27,10.1.1.3,180,-0.030,-0.030,-0.030,0.000,0.000,0.000
1641102688089608960,2022-01-02-05:51:28,10.1.1.3,180,-0.020,-0.020,-0.020,0.000,0.000,0.000
1641102688293306112,2022-01-02-05:51:28,10.1.1.3,179,-0.010,-0.010,-0.010,0.000,0.000,0.000
1641102688490580992,2022-01-02-05:51:28,10.1.1.3,175,0.000,0.000,0.000,0.000,0.000,0.000
1641102688693906176,2022-01-02-05:51:28,10.1.1.3,178,-0.010,-0.010,-0.010,0.000,0.000,0.000
1641102688894200064,2022-01-02-05:51:28,10.1.1.3,175,-0.020,-0.020,-0.020,0.000,0.000,0.000
1641102689091739904,2022-01-02-05:51:29,10.1.1.3,174,-0.030,-0.030,-0.030,0.000,0.000,0.000
1641102689512660992,2022-01-02-05:51:29,10.1.1.3,193,-0.050,-0.050,-0.050,0.000,0.000,0.000
1641102689713069056,2022-01-02-05:51:29,10.1.1.3,193,-0.060,-0.060,-0.060,0.000,0.000,0.000
1641102689917736960,2022-01-02-05:51:29,10.1.1.3,192,-0.070,-0.070,-0.070,0.000,0.000,0.000
1641102690107603968,2022-01-02-05:51:30,10.1.1.3,185,-0.080,-0.080,-0.080,0.000,0.000,0.000
1641102690318501888,2022-01-02-05:51:30,10.1.1.3,192,-0.090,-0.090,-0.090,0.000,0.000,0.000
1641102690514281984,2022-01-02-05:51:30,10.1.1.3,189,-0.100,-0.100,-0.100,0.000,0.000,0.000
1641102690714567936,2022-01-02-05:51:30,10.1.1.3,190,-0.110,-0.110,-0.110,0.000,0.000,0.000
1641102690914244864,2022-01-02-05:51:30,10.1.1.3,188,-0.120,-0.120,-0.120,0.000,0.000,0.000
1641102691114859008,2022-01-02-05:51:31,10.1.1.3,188,-0.130,-0.130,-0.130,0.000,0.000,0.000
1641102691315994880,2022-01-02-05:51:31,10.1.1.3,188,-0.140,-0.140,-0.140,0.000,0.000,0.000
1641102691514297088,2022-01-02-05:51:31,10.1.1.3,186,-0.150,-0.150,-0.150,0.000,0.000,0.000
1641102691919460096,2022-01-02-05:51:31,10.1.1.3,189,-0.170,-0.170,-0.170,0.000,0.000,0.000
1641102692115358976,2022-01-02-05:51:32,10.1.1.3,184,-0.180,-0.180,-0.180,0.000,0.000,0.000
1641102692320929024,2022-01-02-05:51:32,10.1.1.3,190,-0.190,-0.190,-0.190,0.000,0.000,0.000
1641102692516067072,2022-01-02-05:51:32,10.1.1.3,184,-0.200,-0.200,-0.200,0.000,0.000,0.000
1641102692715606016,2022-01-02-05:51:32,10.1.1.3,183,-0.210,-0.210,-0.210,0.000,0.000,0.000
1641102692916454144,2022-01-02-05:51:32,10.1.1.3,183,-0.220,-0.220,-0.220,0.000,0.000,0.000
1641102693115945216,2022-01-02-05:51:33,10.1.1.3,182,-0.230,-0.230,-0.230,0.000,0.000,0.000
1641102693319303936,2022-01-02-05:51:33,10.1.1.3,185,-0.240,-0.240,-0.240,0.000,0.000,0.000
1641102693516897792,2022-01-02-05:51:33,10.1.1.3,182,-0.250,-0.250,-0.250,0.000,0.000,0.000
1641102693719635968,2022-01-02-05:51:33,10.1.1.3,183,-0.260,-0.260,-0.260,0.000,0.000,0.000
1641102693936829952,2022-01-02-05:51:33,10.1.1.3,196,-0.270,-0.270,-0.270,0.000,0.000,0.000
1641102694139904000,2022-01-02-05:51:34,10.1.1.3,199,-0.280,-0.280,-0.280,0.000,0.000,0.000
1641102694736160000,2022-01-02-05:51:34,10.1.1.3,187,-0.310,-0.310,-0.310,0.000,0.000,0.000
1641102694936130048,2022-01-02-05:51:34,10.1.1.3,184,-0.320,-0.320,-0.320,0.000,0.000,0.000
1641102695135982080,2022-01-02-05:51:35,10.1.1.3,183,-0.330,-0.330,-0.330,0.000,0.000,0.000
1641102695336339968,2022-01-02-05:51:35,10.1.1.3,182,-0.340,-0.340,-0.340,0.000,0.000,0.000
1641102695547339008,2022-01-02-05:51:35,10.1.1.3,192,-0.350,-0.350,-0.350,0.000,0.000,0.000
1641102695737346816,2022-01-02-05:51:35,10.1.1.3,181,-0.360,-0.360,-0.360,0.000,0.000,0.000
1641102695940722944,2022-01-02-05:51:35,10.1.1.3,180,-0.370,-0.370,-0.370,0.000,0.000,0.000
1641102696157010944,2022-01-02-05:51:36,10.1.1.3,198,-0.380,-0.380,-0.380,0.000,0.000,0.000
1641102696362788864,2022-01-02-05:51:36,10.1.1.3,192,-0.390,-0.390,-0.390,0.000,0.000,0.000
1641102696562891008,2022-01-02-05:51:36,10.1.1.3,197,-0.400,-0.400,-0.400,0.000,0.000,0.000
1641102696756925952,2022-01-02-05:51:36,10.1.1.3,190,-0.410,-0.410,-0.410,0.000,0.000,0.000
1641102696956166912,2022-01-02-05:51:36,10.1.1.3,189,-0.420,-0.420,-0.420,0.000,0.000,0.000
1641102697156219904,2022-01-02-05:51:37,10.1.1.3,188,-0.430,-0.430,-0.430,0.000,0.000,0.000
1641102697355930112,2022-01-02-05:51:37,10.1.1.3,187,-0.440,-0.440,-0.440,0.000,0.000,0.000
1641102697561350144,2022-01-02-05:51:37,10.1.1.3,192,-0.450,-0.450,-0.450,0.000,0.000,0.000
1641102697756943104,2022-01-02-05:51:37,10.1.1.3,187,-0.460,-0.460,-0.460,0.000,0.000,0.000
1641102697955720960,2022-01-02-05:51:37,10.1.1.3,184,-0.470,-0.470,-0.470,0.000,0.000,0.000
1641102698158629888,2022-01-02-05:51:38,10.1.1.3,186,-0.480,-0.480,-0.480,0.000,0.000,0.000
1641102698362776064,2022-01-02-05:51:38,10.1.1.3,188,-0.490,-0.490,-0.490,0.000,0.000,0.000
1641102698561274880,2022-01-02-05:51:38,10.1.1.3,186,-0.480,-0.480,-0.480,0.000,0.000,0.000
1641102698776670976,2022-01-02-05:51:38,10.1.1.3,189,-0.470,-0.470,-0.470,0.000,0.000,0.000
1641102698980720896,2022-01-02-05:51:38,10.1.1.3,190,-0.460,-0.460,-0.460,0.000,0.000,0.000
1641102699178437888,2022-01-02-05:51:39,10.1.1.3,184,-0.450,-0.450,-0.450,0.000,0.000,0.000
1641102699374631936,2022-01-02-05:51:39,10.1.1.3,183,-0.440,-0.440,-0.440,0.000,0.000,0.000
1641102699577004800,2022-01-02-05:51:39,10.1.1.3,182,-0.430,-0.430,-0.430,0.000,0.000,0.000
1641102699778814976,2022-01-02-05:51:39,10.1.1.3,181,-0.420,-0.420,-0.420,0.000,0.000,0.000
1641102699979047168,2022-01-02-05:51:39,10.1.1.3,184,-0.410,-0.410,-0.410,0.000,0.000,0.000
1641102700193795840,2022-01-02-05:51:40,10.1.1.3,192,-0.400,-0.400,-0.400,0.000,0.000,0.000
1641102700393811968,2022-01-02-05:51:40,10.1.1.3,192,-0.390,-0.390,-0.390,0.000,0.000,0.000
1641102700600649216,2022-01-02-05:51:40,10.1.1.3,198,-0.380,-0.380,-0.380,0.000,0.000,0.000
1641102700798384896,2022-01-02-05:51:40,10.1.1.3,188,-0.370,-0.370,-0.370,0.000,0.000,0.000
1641102700992690944,2022-01-02-05:51:40,10.1.1.3,186,-0.360,-0.360,-0.360,0.000,0.000,0.000
1641102701192869888,2022-01-02-05:51:41,10.1.1.3,185,-0.350,-0.350,-0.350,0.000,0.000,0.000
1641102701394404864,2022-01-02-05:51:41,10.1.1.3,184,-0.340,-0.340,-0.340,0.000,0.000,0.000
1641102701597134080,2022-01-02-05:51:41,10.1.1.3,186,-0.330,-0.330,-0.330,0.000,0.000,0.000
1641102701793062912,2022-01-02-05:51:41,10.1.1.3,181,-0.320,-0.320,-0.320,0.000,0.000,0.000
1641102701994176000,2022-01-02-05:51:41,10.1.1.3,182,-0.310,-0.310,-0.310,0.000,0.000,0.000
1641102702211215872,2022-01-02-05:51:42,10.1.1.3,194,-0.300,-0.300,-0.300,0.000,0.000,0.000
1641102702412222976,2022-01-02-05:51:42,10.1.1.3,194,-0.290,-0.290,-0.290,0.000,0.000,0.000
1641102702611670016,2022-01-02-05:51:42,10.1.1.3,193,-0.280,-0.280,-0.280,0.000,0.000,0.000
1641102702811021056,2022-01-02-05:51:42,10.1.1.3,191,-0.270,-0.270,-0.270,0.000,0.000,0.000
1641102703012110080,2022-01-02-05:51:43,10.1.1.3,192,-0.260,-0.260,-0.260,0.000,0.000,0.000
1641102703210868992,2022-01-02-05:51:43,10.1.1.3,189,-0.250,-0.250,-0.250,0.000,0.000,0.000
1641102703410310144,2022-01-02-05:51:43,10.1.1.3,187,-0.240,-0.240,-0.240,0.000,0.000,0.000
1641102703618575104,2022-01-02-05:51:43,10.1.1.3,194,-0.230,-0.230,-0.230,0.000,0.000,0.000
1641102703810185984,2022-01-02-05:51:43,10.1.1.3,184,-0.220,-0.220,-0.220,0.000,0.000,0.000
1641102704009876992,2022-01-02-05:51:44,10.1.1.3,183,-0.210,-0.210,-0.210,0.000,0.000,0.000
1641102704209724928,2022-01-02-05:51:44,10.1.1.3,182,-0.200,-0.200,-0.200,0.000,0.000,0.000
1641102704408881920,2022-01-02-05:51:44,10.1.1.3,180,-0.190,-0.190,-0.190,0.000,0.000,0.000
1641102704608985856,2022-01-02-05:51:44,10.1.1.3,180,-0.180,-0.180,-0.180,0.000,0.000,0.000
1641102704808888064,2022-01-02-05:51:44,10.1.1.3,179,-0.170,-0.170,-0.170,0.000,0.000,0.000
1641102705009243136,2022-01-02-05:51:45,10.1.1.3,178,-0.160,-0.160,-0.160,0.000,0.000,0.000
1641102705211644928,2022-01-02-05:51:45,10.1.1.3,178,-0.150,-0.150,-0.150,0.000,0.000,0.000
1641102705408332032,2022-01-02-05:51:45,10.1.1.3,174,-0.140,-0.140,-0.140,0.000,0.000,0.000
1641102705608515072,2022-01-02-05:51:45,10.1.1.3,174,-0.130,-0.130,-0.130,0.000,0.000,0.000
1641102705807693056,2022-01-02-05:51:45,10.1.1.3,173,-0.120,-0.120,-0.120,0.000,0.000,0.000
1641102706006912000,2022-01-02-05:51:46,10.1.1.3,171,-0.110,-0.110,-0.110,0.000,0.000,0.000
1641102706207465984,2022-01-02-05:51:46,10.1.1.3,170,-0.100,-0.100,-0.100,0.000,0.000,0.000
1641102706411556864,2022-01-02-05:51:46,10.1.1.3,170,-0.090,-0.090,-0.090,0.000,0.000,0.000
1641102706626162176,2022-01-02-05:51:46,10.1.1.3,188,-0.080,-0.080,-0.080,0.000,0.000,0.000
1641102706826060032,2022-01-02-05:51:46,10.1.1.3,188,-0.070,-0.070,-0.070,0.000,0.000,0.000
1641102707025643008,2022-01-02-05:51:47,10.1.1.3,186,-0.060,-0.060,-0.060,0.000,0.000,0.000
1641102707225488896,2022-01-02-05:51:47,10.1.1.3,186,-0.050,-0.050,-0.050,0.000,0.000,0.000
1641102707426024960,2022-01-02-05:51:47,10.1.1.3,186,-0.040,-0.040,-0.040,0.000,0.000,0.000
1641102707625388032,2022-01-02-05:51:47,10.1.1.3,184,-0.030,-0.030,-0.030,0.000,0.000,0.000
1641102707825254912,2022-01-02-05:51:47,10.1.1.3,184,-0.020,-0.020,-0.020,0.000,0.000,0.000
1641102708024002048,2022-01-02-05:51:48,10.1.1.3,182,-0.010,-0.010,-0.010,0.000,0.000,0.000
1641102708223697920,2022-01-02-05:51:48,10.1.1.3,181,0.000,0.000,0.000,0.000,0.000,0.000
1641102708427985920,2022-01-02-05:51:48,10.1.1.3,185,-0.010,-0.010,-0.010,0.000,0.000,0.000
1641102708624536064,2022-01-02-05:51:48,10.1.1.3,180,-0.020,-0.020,-0.020,0.000,0.000,0.000
1641102708826958848,2022-01-02-05:51:48,10.1.1.3,180,-0.030,-0.030,-0.030,0.000,0.000,0.000
1641102709023030016,2022-01-02-05:51:49,10.1.1.3,175,-0.040,-0.040,-0.040,0.000,0.000,0.000
1641102709222575872,2022-01-02-05:51:49,10.1.1.3,174,-0.050,-0.050,-0.050,0.000,0.000,0.000
1641102709422795008,2022-01-02-05:51:49,10.1.1.3,173,-0.060,-0.060,-0.060,0.000,0.000,0.000
1641102709622846976,2022-01-02-05:51:49,10.1.1.3,173,-0.070,-0.070,-0.070,0.000,0.000,0.000
1641102709821690112,2022-01-02-05:51:49,10.1.1.3,171,-0.080,-0.080,-0.080,0.000,0.000,0.000
1641102710020734976,2022-01-02-05:51:50,10.1.1.3,169,-0.090,-0.090,-0.090,0.000,0.000,0.000
1641102710220933888,2022-01-02-05:51:50,10.1.1.3,169,-0.100,-0.100,-0.100,0.000,0.000,0.000
1641102710421217024,2022-01-02-05:51:50,10.1.1.3,168,-0.110,-0.110,-0.110,0.000,0.000,0.000
1641102710620862976,2022-01-02-05:51:50,10.1.1.3,167,-0.120,-0.120,-0.120,0.000,0.000,0.000
1641102710820283904,2022-01-02-05:51:50,10.1.1.3,166,-0.130,-0.130,-0.130,0.000,0.000,0.000
1641102711019873024,2022-01-02-05:51:51,10.1.1.3,165,-0.140,-0.140,-0.140,0.000,0.000,0.000
1641102711219949056,2022-01-02-05:51:51,10.1.1.3,165,-0.150,-0.150,-0.150,0.000,0.000,0.000
1641102711419811072,2022-01-02-05:51:51,10.1.1.3,164,-0.160,-0.160,-0.160,0.000,0.000,0.000
1641102711619587840,2022-01-02-05:51:51,10.1.1.3,163,-0.170,-0.170,-0.170,0.000,0.000,0.000
1641102711838973952,2022-01-02-05:51:51,10.1.1.3,181,-0.180,-0.180,-0.180,0.000,0.000,0.000
1641102712038224896,2022-01-02-05:51:52,10.1.1.3,180,-0.190,-0.190,-0.190,0.000,0.000,0.000
1641102712239147008,2022-01-02-05:51:52,10.1.1.3,174,-0.200,-0.200,-0.200,0.000,0.000,0.000
1641102712437547008,2022-01-02-05:51:52,10.1.1.3,172,-0.210,-0.210,-0.210,0.000,0.000,0.000
1641102712637324032,2022-01-02-05:51:52,10.1.1.3,171,-0.220,-0.220,-0.220,0.000,0.000,0.000
1641102712837271040,2022-01-02-05:51:52,10.1.1.3,170,-0.230,-0.230,-0.230,0.000,0.000,0.000
1641102713037569024,2022-01-02-05:51:53,10.1.1.3,170,-0.240,-0.240,-0.240,0.000,0.000,0.000
1641102713237600000,2022-01-02-05:51:53,10.1.1.3,169,-0.250,-0.250,-0.250,0.000,0.000,0.000
1641102713440654080,2022-01-02-05:51:53,10.1.1.3,171,-0.260,-0.260,-0.260,0.000,0.000,0.000
1641102713640017920,2022-01-02-05:51:53,10.1.1.3,166,-0.270,-0.270,-0.270,0.000,0.000,0.000
1641102713838601984,2022-01-02-05:51:53,10.1.1.3,168,-0.280,-0.280,-0.280,0.000,0.000,0.000
1641102714039779840,2022-01-02-05:51:54,10.1.1.3,164,-0.290,-0.290,-0.290,0.000,0.000,0.000
1641102714234877952,2022-01-02-05:51:54,10.1.1.3,163,-0.300,-0.300,-0.300,0.000,0.000,0.000
1641102714435516160,2022-01-02-05:51:54,10.1.1.3,163,-0.310,-0.310,-0.310,0.000,0.000,0.000
1641102714634667008,2022-01-02-05:51:54,10.1.1.3,161,-0.320,-0.320,-0.320,0.000,0.000,0.000
1641102714834438912,2022-01-02-05:51:54,10.1.1.3,159,-0.330,-0.330,-0.330,0.000,0.000,0.000
1641102715034130176,2022-01-02-05:51:55,10.1.1.3,158,-0.340,-0.340,-0.340,0.000,0.000,0.000
1641102715263465984,2022-01-02-05:51:55,10.1.1.3,185,-0.350,-0.350,-0.350,0.000,0.000,0.000
1641102715452845056,2022-01-02-05:51:55,10.1.1.3,173,-0.360,-0.360,-0.360,0.000,0.000,0.000
1641102715653801984,2022-01-02-05:51:55,10.1.1.3,174,-0.370,-0.370,-0.370,0.000,0.000,0.000
1641102715852977152,2022-01-02-05:51:55,10.1.1.3,173,-0.380,-0.380,-0.380,0.000,0.000,0.000
1641102716052550912,2022-01-02-05:51:56,10.1.1.3,171,-0.390,-0.390,-0.390,0.000,0.000,0.000
1641102716255484160,2022-01-02-05:51:56,10.1.1.3,174,-0.400,-0.400,-0.400,0.000,0.000,0.000
1641102716454742784,2022-01-02-05:51:56,10.1.1.3,172,-0.410,-0.410,-0.410,0.000,0.000,0.000
1641102716656007168,2022-01-02-05:51:56,10.1.1.3,172,-0.420,-0.420,-0.420,0.000,0.000,0.000
1641102716856858880,2022-01-02-05:51:56,10.1.1.3,171,-0.430,-0.430,-0.430,0.000,0.000,0.000
1641102717057858816,2022-01-02-05:51:57,10.1.1.3,171,-0.440,-0.440,-0.440,0.000,0.000,0.000
1641102717258970880,2022-01-02-05:51:57,10.1.1.3,171,-0.450,-0.450,-0.450,0.000,0.000,0.000
1641102717462539008,2022-01-02-05:51:57,10.1.1.3,174,-0.460,-0.460,-0.460,0.000,0.000,0.000
1641102717660235008,2022-01-02-05:51:57,10.1.1.3,171,-0.470,-0.470,-0.470,0.000,0.000,0.000
1641102717864943872,2022-01-02-05:51:57,10.1.1.3,172,-0.480,-0.480,-0.480,0.000,0.000,0.000
1641102718062292224,2022-01-02-05:51:58,10.1.1.3,171,-0.490,-0.490,-0.490,0.000,0.000,0.000
1641102718262862848,2022-01-02-05:51:58,10.1.1.3,171,-0.480,-0.480,-0.480,0.000,0.000,0.000
1641102718467259904,2022-01-02-05:51:58,10.1.1.3,170,-0.470,-0.470,-0.470,0.000,0.000,0.000
1641102718663759104,2022-01-02-05:51:58,10.1.1.3,169,-0.460,-0.460,-0.460,0.000,0.000,0.000
1641102718865175040,2022-01-02-05:51:58,10.1.1.3,169,-0.450,-0.450,-0.450,0.000,0.000,0.000
1641102719065659136,2022-01-02-05:51:59,10.1.1.3,168,-0.440,-0.440,-0.440,0.000,0.000,0.000
1641102719266149888,2022-01-02-05:51:59,10.1.1.3,168,-0.430,-0.430,-0.430,0.000,0.000,0.000
1641102719490937856,2022-01-02-05:51:59,10.1.1.3,192,-0.420,-0.420,-0.420,0.000,0.000,0.000
1641102719690972928,2022-01-02-05:51:59,10.1.1.3,191,-0.410,-0.410,-0.410,0.000,0.000,0.000
1641102719892430080,2022-01-02-05:51:59,10.1.1.3,191,-0.400,-0.400,-0.400,0.000,0.000,0.000
1641102720090064128,2022-01-02-05:52:00,10.1.1.3,189,-0.390,-0.390,-0.390,0.000,0.000,0.000
1641102720290419200,2022-01-02-05:52:00,10.1.1.3,188,-0.380,-0.380,-0.380,0.000,0.000,0.000
1641102720490530048,2022-01-02-05:52:00,10.1.1.3,187,-0.370,-0.370,-0.370,0.000,0.000,0.000
1641102720690042112,2022-01-02-05:52:00,10.1.1.3,185,-0.360,-0.360,-0.360,0.000,0.000,0.000
1641102720890672896,2022-01-02-05:52:00,10.1.1.3,185,-0.350,-0.350,-0.350,0.000,0.000,0.000
1641102721095565056,2022-01-02-05:52:01,10.1.1.3,189,-0.340,-0.340,-0.340,0.000,0.000,0.000
1641102721296215040,2022-01-02-05:52:01,10.1.1.3,189,-0.330,-0.330,-0.330,0.000,0.000,0.000
1641102721493900032,2022-01-02-05:52:01,10.1.1.3,184,-0.320,-0.320,-0.320,0.000,0.000,0.000
1641102721692913920,2022-01-02-05:52:01,10.1.1.3,184,-0.310,-0.310,-0.310,0.000,0.000,0.000
1641102721893213952,2022-01-02-05:52:01,10.1.1.3,183,-0.300,-0.300,-0.300,0.000,0.000,0.000
1641102722092793856,2022-01-02-05:52:02,10.1.1.3,182,-0.290,-0.290,-0.290,0.000,0.000,0.000
1641102722297008128,2022-01-02-05:52:02,10.1.1.3,186,-0.280,-0.280,-0.280,0.000,0.000,0.000
1641102722493718016,2022-01-02-05:52:02,10.1.1.3,181,-0.270,-0.270,-0.270,0.000,0.000,0.000
1641102722694024192,2022-01-02-05:52:02,10.1.1.3,178,-0.260,-0.260,-0.260,0.000,0.000,0.000
1641102722718315008,2022-01-02-05:52:02,10.1.1.3,-5,-0.260,-0.260,-0.260,0.000,0.000,0.000
1641102723114669056,2022-01-02-05:52:03,10.1.1.3,196,-0.240,-0.240,-0.240,0.000,0.000,0.000
1641102723314924032,2022-01-02-05:52:03,10.1.1.3,195,-0.230,-0.230,-0.230,0.000,0.000,0.000
1641102723518127872,2022-01-02-05:52:03,10.1.1.3,195,-0.220,-0.220,-0.220,0.000,0.000,0.000
1641102723715070976,2022-01-02-05:52:03,10.1.1.3,194,-0.210,-0.210,-0.210,0.000,0.000,0.000
1641102723919539968,2022-01-02-05:52:03,10.1.1.3,198,-0.200,-0.200,-0.200,0.000,0.000,0.000
1641102724115305984,2022-01-02-05:52:04,10.1.1.3,193,-0.190,-0.190,-0.190,0.000,0.000,0.000
1641102724315902976,2022-01-02-05:52:04,10.1.1.3,194,-0.180,-0.180,-0.180,0.000,0.000,0.000
1641102724515953152,2022-01-02-05:52:04,10.1.1.3,193,-0.170,-0.170,-0.170,0.000,0.000,0.000
1641102724714892032,2022-01-02-05:52:04,10.1.1.3,191,-0.160,-0.160,-0.160,0.000,0.000,0.000
1641102724915710976,2022-01-02-05:52:04,10.1.1.3,191,-0.150,-0.150,-0.150,0.000,0.000,0.000
1641102725115834112,2022-01-02-05:52:05,10.1.1.3,190,-0.140,-0.140,-0.140,0.000,0.000,0.000
1641102725316040960,2022-01-02-05:52:05,10.1.1.3,189,-0.130,-0.130,-0.130,0.000,0.000,0.000
1641102725517172992,2022-01-02-05:52:05,10.1.1.3,190,-0.120,-0.120,-0.120,0.000,0.000,0.000
1641102725715570944,2022-01-02-05:52:05,10.1.1.3,188,-0.110,-0.110,-0.110,0.000,0.000,0.000
1641102725920439040,2022-01-02-05:52:05,10.1.1.3,192,-0.100,-0.100,-0.100,0.000,0.000,0.000
1641102726116627968,2022-01-02-05:52:06,10.1.1.3,188,-0.090,-0.090,-0.090,0.000,0.000,0.000
1641102726322722816,2022-01-02-05:52:06,10.1.1.3,189,-0.080,-0.080,-0.080,0.000,0.000,0.000
1641102726516484096,2022-01-02-05:52:06,10.1.1.3,185,-0.070,-0.070,-0.070,0.000,0.000,0.000
1641102726716217088,2022-01-02-05:52:06,10.1.1.3,184,-0.060,-0.060,-0.060,0.000,0.000,0.000
1641102726915971072,2022-01-02-05:52:06,10.1.1.3,183,-0.050,-0.050,-0.050,0.000,0.000,0.000
1641102727116276992,2022-01-02-05:52:07,10.1.1.3,183,-0.040,-0.040,-0.040,0.000,0.000,0.000
1641102727316055040,2022-01-02-05:52:07,10.1.1.3,182,-0.030,-0.030,-0.030,0.000,0.000,0.000
1641102727516567040,2022-01-02-05:52:07,10.1.1.3,181,-0.020,-0.020,-0.020,0.000,0.000,0.000
1641102727716609024,2022-01-02-05:52:07,10.1.1.3,179,-0.010,-0.010,-0.010,0.000,0.000,0.000
1641102727935590144,2022-01-02-05:52:07,10.1.1.3,197,0.000,0.000,0.000,0.000,0.000,0.000
1641102728135868160,2022-01-02-05:52:08,10.1.1.3,195,-0.010,-0.010,-0.010,0.000,0.000,0.000
1641102728336443904,2022-01-02-05:52:08,10.1.1.3,195,-0.020,-0.020,-0.020,0.000,0.000,0.000
1641102728536689920,2022-01-02-05:52:08,10.1.1.3,195,-0.030,-0.030,-0.030,0.000,0.000,0.000
1641102728735409920,2022-01-02-05:52:08,10.1.1.3,192,-0.040,-0.040,-0.040,0.000,0.000,0.000
1641102728936119040,2022-01-02-05:52:08,10.1.1.3,193,-0.050,-0.050,-0.050,0.000,0.000,0.000
1641102729136200960,2022-01-02-05:52:09,10.1.1.3,192,-0.060,-0.060,-0.060,0.000,0.000,0.000
1641102729336647936,2022-01-02-05:52:09,10.1.1.3,191,-0.070,-0.070,-0.070,0.000,0.000,0.000
1641102729535654912,2022-01-02-05:52:09,10.1.1.3,189,-0.080,-0.080,-0.080,0.000,0.000,0.000
1641102729735440128,2022-01-02-05:52:09,10.1.1.3,188,-0.090,-0.090,-0.090,0.000,0.000,0.000
1641102729935890944,2022-01-02-05:52:09,10.1.1.3,188,-0.100,-0.100,-0.100,0.000,0.000,0.000
1641102730134799872,2022-01-02-05:52:10,10.1.1.3,187,-0.110,-0.110,-0.110,0.000,0.000,0.000
1641102730336188160,2022-01-02-05:52:10,10.1.1.3,186,-0.120,-0.120,-0.120,0.000,0.000,0.000
1641102730534778112,2022-01-02-05:52:10,10.1.1.3,185,-0.130,-0.130,-0.130,0.000,0.000,0.000
1641102730735256064,2022-01-02-05:52:10,10.1.1.3,185,-0.140,-0.140,-0.140,0.000,0.000,0.000
1641102730937444864,2022-01-02-05:52:10,10.1.1.3,183,-0.150,-0.150,-0.150,0.000,0.000,0.000
1641102731135150848,2022-01-02-05:52:11,10.1.1.3,184,-0.160,-0.160,-0.160,0.000,0.000,0.000
1641102731335148032,2022-01-02-05:52:11,10.1.1.3,183,-0.170,-0.170,-0.170,0.000,0.000,0.000
1641102731533840896,2022-01-02-05:52:11,10.1.1.3,181,-0.180,-0.180,-0.180,0.000,0.000,0.000
1641102731734344960,2022-01-02-05:52:11,10.1.1.3,181,-0.190,-0.190,-0.190,0.000,0.000,0.000
1641102731934035968,2022-01-02-05:52:11,10.1.1.3,180,-0.200,-0.200,-0.200,0.000,0.000,0.000
1641102732133355008,2022-01-02-05:52:12,10.1.1.3,179,-0.210,-0.210,-0.210,0.000,0.000,0.000
1641102732366244096,2022-01-02-05:52:12,10.1.1.3,197,-0.220,-0.220,-0.220,0.000,0.000,0.000
1641102732561415936,2022-01-02-05:52:12,10.1.1.3,191,-0.230,-0.230,-0.230,0.000,0.000,0.000
1641102732753960960,2022-01-02-05:52:12,10.1.1.3,183,-0.240,-0.240,-0.240,0.000,0.000,0.000
1641102732957236992,2022-01-02-05:52:12,10.1.1.3,183,-0.250,-0.250,-0.250,0.000,0.000,0.000
1641102733152921856,2022-01-02-05:52:13,10.1.1.3,181,-0.260,-0.260,-0.260,0.000,0.000,0.000
1641102733353125120,2022-01-02-05:52:13,10.1.1.3,180,-0.270,-0.270,-0.270,0.000,0.000,0.000
1641102733552617984,2022-01-02-05:52:13,10.1.1.3,180,-0.280,-0.280,-0.280,0.000,0.000,0.000
1641102733752269056,2022-01-02-05:52:13,10.1.1.3,179,-0.290,-0.290,-0.290,0.000,0.000,0.000
1641102733956582912,2022-01-02-05:52:13,10.1.1.3,181,-0.300,-0.300,-0.300,0.000,0.000,0.000
1641102734152692992,2022-01-02-05:52:14,10.1.1.3,176,-0.310,-0.310,-0.310,0.000,0.000,0.000
1641102734352243968,2022-01-02-05:52:14,10.1.1.3,175,-0.320,-0.320,-0.320,0.000,0.000,0.000
1641102734572453888,2022-01-02-05:52:14,10.1.1.3,194,-0.330,-0.330,-0.330,0.000,0.000,0.000
1641102734775825920,2022-01-02-05:52:14,10.1.1.3,197,-0.340,-0.340,-0.340,0.000,0.000,0.000
1641102734970642176,2022-01-02-05:52:14,10.1.1.3,191,-0.350,-0.350,-0.350,0.000,0.000,0.000
1641102735173048064,2022-01-02-05:52:15,10.1.1.3,192,-0.360,-0.360,-0.360,0.000,0.000,0.000
1641102735370939136,2022-01-02-05:52:15,10.1.1.3,191,-0.370,-0.370,-0.370,0.000,0.000,0.000
1641102735571124992,2022-01-02-05:52:15,10.1.1.3,190,-0.380,-0.380,-0.380,0.000,0.000,0.000
1641102735773817088,2022-01-02-05:52:15,10.1.1.3,192,-0.390,-0.390,-0.390,0.000,0.000,0.000
1641102736175803904,2022-01-02-05:52:16,10.1.1.3,191,-0.410,-0.410,-0.410,0.000,0.000,0.000
1641102736380944896,2022-01-02-05:52:16,10.1.1.3,193,-0.420,-0.420,-0.420,0.000,0.000,0.000
1641102736575558912,2022-01-02-05:52:16,10.1.1.3,187,-0.430,-0.430,-0.430,0.000,0.000,0.000
1641102736771682048,2022-01-02-05:52:16,10.1.1.3,182,-0.440,-0.440,-0.440,0.000,0.000,0.000
1641102736973844992,2022-01-02-05:52:16,10.1.1.3,180,-0.450,-0.450,-0.450,0.000,0.000,0.000
1641102737168317952,2022-01-02-05:52:17,10.1.1.3,173,-0.460,-0.460,-0.460,0.000,0.000,0.000
1641102737368634112,2022-01-02-05:52:17,10.1.1.3,172,-0.470,-0.470,-0.470,0.000,0.000,0.000
1641102737570065920,2022-01-02-05:52:17,10.1.1.3,172,-0.480,-0.480,-0.480,0.000,0.000,0.000
1641102737792700928,2022-01-02-05:52:17,10.1.1.3,194,-0.490,-0.490,-0.490,0.000,0.000,0.000
1641102737987941888,2022-01-02-05:52:17,10.1.1.3,189,-0.480,-0.480,-0.480,0.000,0.000,0.000
1641102738186674176,2022-01-02-05:52:18,10.1.1.3,185,-0.470,-0.470,-0.470,0.000,0.000,0.000
1641102738391078912,2022-01-02-05:52:18,10.1.1.3,188,-0.460,-0.460,-0.460,0.000,0.000,0.000
1641102738586912000,2022-01-02-05:52:18,10.1.1.3,183,-0.450,-0.450,-0.450,0.000,0.000,0.000
1641102738792279040,2022-01-02-05:52:18,10.1.1.3,188,-0.440,-0.440,-0.440,0.000,0.000,0.000
1641102738991183104,2022-01-02-05:52:18,10.1.1.3,182,-0.430,-0.430,-0.430,0.000,0.000,0.000
1641102739190062080,2022-01-02-05:52:19,10.1.1.3,179,-0.420,-0.420,-0.420,0.000,0.000,0.000
1641102739389460992,2022-01-02-05:52:19,10.1.1.3,178,-0.410,-0.410,-0.410,0.000,0.000,0.000
1641102739585391872,2022-01-02-05:52:19,10.1.1.3,169,-0.400,-0.400,-0.400,0.000,0.000,0.000
1641102739786935040,2022-01-02-05:52:19,10.1.1.3,169,-0.390,-0.390,-0.390,0.000,0.000,0.000
1641102739991717120,2022-01-02-05:52:19,10.1.1.3,174,-0.380,-0.380,-0.380,0.000,0.000,0.000
1641102740204324096,2022-01-02-05:52:20,10.1.1.3,186,-0.370,-0.370,-0.370,0.000,0.000,0.000
1641102740409320192,2022-01-02-05:52:20,10.1.1.3,190,-0.360,-0.360,-0.360,0.000,0.000,0.000
1641102740603517952,2022-01-02-05:52:20,10.1.1.3,184,-0.350,-0.350,-0.350,0.000,0.000,0.000
1641102740804246016,2022-01-02-05:52:20,10.1.1.3,183,-0.340,-0.340,-0.340,0.000,0.000,0.000
1641102741002952960,2022-01-02-05:52:21,10.1.1.3,180,-0.330,-0.330,-0.330,0.000,0.000,0.000
1641102741202640896,2022-01-02-05:52:21,10.1.1.3,178,-0.320,-0.320,-0.320,0.000,0.000,0.000
1641102741402668032,2022-01-02-05:52:21,10.1.1.3,173,-0.310,-0.310,-0.310,0.000,0.000,0.000
1641102741605849088,2022-01-02-05:52:21,10.1.1.3,175,-0.300,-0.300,-0.300,0.000,0.000,0.000
1641102741803838976,2022-01-02-05:52:21,10.1.1.3,173,-0.290,-0.290,-0.290,0.000,0.000,0.000
1641102742002516992,2022-01-02-05:52:22,10.1.1.3,171,-0.280,-0.280,-0.280,0.000,0.000,0.000
1641102742201381888,2022-01-02-05:52:22,10.1.1.3,169,-0.270,-0.270,-0.270,0.000,0.000,0.000
1641102742401175040,2022-01-02-05:52:22,10.1.1.3,167,-0.260,-0.260,-0.260,0.000,0.000,0.000
1641102742603811072,2022-01-02-05:52:22,10.1.1.3,169,-0.250,-0.250,-0.250,0.000,0.000,0.000
1641102742800945152,2022-01-02-05:52:22,10.1.1.3,166,-0.240,-0.240,-0.240,0.000,0.000,0.000
1641102743005161984,2022-01-02-05:52:23,10.1.1.3,169,-0.230,-0.230,-0.230,0.000,0.000,0.000
1641102743203635968,2022-01-02-05:52:23,10.1.1.3,164,-0.220,-0.220,-0.220,0.000,0.000,0.000
1641102743420312832,2022-01-02-05:52:23,10.1.1.3,182,-0.210,-0.210,-0.210,0.000,0.000,0.000
1641102743624603904,2022-01-02-05:52:23,10.1.1.3,186,-0.200,-0.200,-0.200,0.000,0.000,0.000
1641102743834196992,2022-01-02-05:52:23,10.1.1.3,191,-0.190,-0.190,-0.190,0.000,0.000,0.000
1641102744023792128,2022-01-02-05:52:24,10.1.1.3,178,-0.180,-0.180,-0.180,0.000,0.000,0.000
1641102744218603008,2022-01-02-05:52:24,10.1.1.3,173,-0.170,-0.170,-0.170,0.000,0.000,0.000
1641102744421873920,2022-01-02-05:52:24,10.1.1.3,175,-0.160,-0.160,-0.160,0.000,0.000,0.000
1641102744622242048,2022-01-02-05:52:24,10.1.1.3,170,-0.150,-0.150,-0.150,0.000,0.000,0.000
1641102744818115840,2022-01-02-05:52:24,10.1.1.3,168,-0.140,-0.140,-0.140,0.000,0.000,0.000
1641102745025065984,2022-01-02-05:52:25,10.1.1.3,174,-0.130,-0.130,-0.130,0.000,0.000,0.000
1641102745218221824,2022-01-02-05:52:25,10.1.1.3,165,-0.120,-0.120,-0.120,0.000,0.000,0.000
1641102745444386048,2022-01-02-05:52:25,10.1.1.3,190,-0.110,-0.110,-0.110,0.000,0.000,0.000
1641102745616368896,2022-01-02-05:52:25,10.1.1.3,161,-0.100,-0.100,-0.100,0.000,0.000,0.000
1641102745816640000,2022-01-02-05:52:25,10.1.1.3,160,-0.090,-0.090,-0.090,0.000,0.000,0.000
1641102746035950848,2022-01-02-05:52:26,10.1.1.3,175,-0.080,-0.080,-0.080,0.000,0.000,0.000
1641102746241008896,2022-01-02-05:52:26,10.1.1.3,179,-0.070,-0.070,-0.070,0.000,0.000,0.000
1641102746439111936,2022-01-02-05:52:26,10.1.1.3,176,-0.060,-0.060,-0.060,0.000,0.000,0.000
1641102746635865088,2022-01-02-05:52:26,10.1.1.3,169,-0.050,-0.050,-0.050,0.000,0.000,0.000
1641102746839062016,2022-01-02-05:52:26,10.1.1.3,171,-0.040,-0.040,-0.040,0.000,0.000,0.000
1641102747034472960,2022-01-02-05:52:27,10.1.1.3,164,-0.030,-0.030,-0.030,0.000,0.000,0.000
1641102747233829888,2022-01-02-05:52:27,10.1.1.3,163,-0.020,-0.020,-0.020,0.000,0.000,0.000
1641102747432817920,2022-01-02-05:52:27,10.1.1.3,161,-0.010,-0.010,-0.010,0.000,0.000,0.000
1641102747632317952,2022-01-02-05:52:27,10.1.1.3,160,0.000,0.000,0.000,0.000,0.000,0.000
1641102747832860928,2022-01-02-05:52:27,10.1.1.3,160,-0.010,-0.010,-0.010,0.000,0.000,0.000
1641102748033235200,2022-01-02-05:52:28,10.1.1.3,156,-0.020,-0.020,-0.020,0.000,0.000,0.000
1641102748253544960,2022-01-02-05:52:28,10.1.1.3,175,-0.030,-0.030,-0.030,0.000,0.000,0.000
1641102748454574080,2022-01-02-05:52:28,10.1.1.3,176,-0.040,-0.040,-0.040,0.000,0.000,0.000
1641102748661976064,2022-01-02-05:52:28,10.1.1.3,182,-0.050,-0.050,-0.050,0.000,0.000,0.000
1641102748859986944,2022-01-02-05:52:28,10.1.1.3,173,-0.060,-0.060,-0.060,0.000,0.000,0.000
1641102749057145088,2022-01-02-05:52:29,10.1.1.3,169,-0.070,-0.070,-0.070,0.000,0.000,0.000
1641102749259435008,2022-01-02-05:52:29,10.1.1.3,170,-0.080,-0.080,-0.080,0.000,0.000,0.000
1641102749460347904,2022-01-02-05:52:29,10.1.1.3,171,-0.090,-0.090,-0.090,0.000,0.000,0.000
1641102749660953088,2022-01-02-05:52:29,10.1.1.3,170,-0.100,-0.100,-0.100,0.000,0.000,0.000
1641102749862188032,2022-01-02-05:52:29,10.1.1.3,171,-0.110,-0.110,-0.110,0.000,0.000,0.000
1641102750062673152,2022-01-02-05:52:30,10.1.1.3,170,-0.120,-0.120,-0.120,0.000,0.000,0.000
1641102750263889920,2022-01-02-05:52:30,10.1.1.3,170,-0.130,-0.130,-0.130,0.000,0.000,0.000
1641102750466365184,2022-01-02-05:52:30,10.1.1.3,172,-0.140,-0.140,-0.140,0.000,0.000,0.000
1641102750665204992,2022-01-02-05:52:30,10.1.1.3,171,-0.150,-0.150,-0.150,0.000,0.000,0.000
1641102750865822976,2022-01-02-05:52:30,10.1.1.3,171,-0.160,-0.160,-0.160,0.000,0.000,0.000
1641102751066208000,2022-01-02-05:52:31,10.1.1.3,170,-0.170,-0.170,-0.170,0.000,0.000,0.000
1641102751269989888,2022-01-02-05:52:31,10.1.1.3,173,-0.180,-0.180,-0.180,0.000,0.000,0.000
1641102751471538944,2022-01-02-05:52:31,10.1.1.3,174,-0.190,-0.190,-0.190,0.000,0.000,0.000
1641102751668973824,2022-01-02-05:52:31,10.1.1.3,171,-0.200,-0.200,-0.200,0.000,0.000,0.000
1641102751888701952,2022-01-02-05:52:31,10.1.1.3,190,-0.210,-0.210,-0.210,0.000,0.000,0.000
1641102752093692928,2022-01-02-05:52:32,10.1.1.3,195,-0.220,-0.220,-0.220,0.000,0.000,0.000
1641102752289853184,2022-01-02-05:52:32,10.1.1.3,190,-0.230,-0.230,-0.230,0.000,0.000,0.000
1641102752490446080,2022-01-02-05:52:32,10.1.1.3,190,-0.240,-0.240,-0.240,0.000,0.000,0.000
1641102752690539008,2022-01-02-05:52:32,10.1.1.3,190,-0.250,-0.250,-0.250,0.000,0.000,0.000
1641102752895796992,2022-01-02-05:52:32,10.1.1.3,195,-0.260,-0.260,-0.260,0.000,0.000,0.000
1641102753091495936,2022-01-02-05:52:33,10.1.1.3,190,-0.270,-0.270,-0.270,0.000,0.000,0.000
1641102753292679936,2022-01-02-05:52:33,10.1.1.3,190,-0.280,-0.280,-0.280,0.000,0.000,0.000
1641102753492753152,2022-01-02-05:52:33,10.1.1.3,190,-0.290,-0.290,-0.290,0.000,0.000,0.000
1641102753692503040,2022-01-02-05:52:33,10.1.1.3,190,-0.300,-0.300,-0.300,0.000,0.000,0.000
1641102753892679936,2022-01-02-05:52:33,10.1.1.3,189,-0.310,-0.310,-0.310,0.000,0.000,0.000
1641102754092956928,2022-01-02-05:52:34,10.1.1.3,189,-0.320,-0.320,-0.320,0.000,0.000,0.000
1641102754295501056,2022-01-02-05:52:34,10.1.1.3,191,-0.330,-0.330,-0.330,0.000,0.000,0.000
1641102754493675008,2022-01-02-05:52:34,10.1.1.3,189,-0.340,-0.340,-0.340,0.000,0.000,0.000
1641102754694318080,2022-01-02-05:52:34,10.1.1.3,189,-0.350,-0.350,-0.350,0.000,0.000,0.000
1641102754894638080,2022-01-02-05:52:34,10.1.1.3,189,-0.360,-0.360,-0.360,0.000,0.000,0.000
1641102755098444032,2022-01-02-05:52:35,10.1.1.3,192,-0.370,-0.370,-0.370,0.000,0.000,0.000
1641102755298664192,2022-01-02-05:52:35,10.1.1.3,191,-0.380,-0.380,-0.380,0.000,0.000,0.000
1641102755495695104,2022-01-02-05:52:35,10.1.1.3,188,-0.390,-0.390,-0.390,0.000,0.000,0.000
1641102755896167936,2022-01-02-05:52:35,10.1.1.3,187,-0.410,-0.410,-0.410,0.000,0.000,0.000
1641102756095841792,2022-01-02-05:52:36,10.1.1.3,186,-0.420,-0.420,-0.420,0.000,0.000,0.000
1641102756296210944,2022-01-02-05:52:36,10.1.1.3,186,-0.430,-0.430,-0.430,0.000,0.000,0.000
1641102756496625920,2022-01-02-05:52:36,10.1.1.3,185,-0.440,-0.440,-0.440,0.000,0.000,0.000
1641102756698402816,2022-01-02-05:52:36,10.1.1.3,185,-0.450,-0.450,-0.450,0.000,0.000,0.000
1641102756896953088,2022-01-02-05:52:36,10.1.1.3,184,-0.460,-0.460,-0.460,0.000,0.000,0.000
1641102757102013952,2022-01-02-05:52:37,10.1.1.3,188,-0.470,-0.470,-0.470,0.000,0.000,0.000
1641102757297595136,2022-01-02-05:52:37,10.1.1.3,183,-0.480,-0.480,-0.480,0.000,0.000,0.000
1641102757497042944,2022-01-02-05:52:37,10.1.1.3,182,-0.490,-0.490,-0.490,0.000,0.000,0.000
1641102757697110016,2022-01-02-05:52:37,10.1.1.3,181,-0.480,-0.480,-0.480,0.000,0.000,0.000
1641102757900342016,2022-01-02-05:52:37,10.1.1.3,180,-0.470,-0.470,-0.470,0.000,0.000,0.000
1641102758122076928,2022-01-02-05:52:38,10.1.1.3,195,-0.460,-0.460,-0.460,0.000,0.000,0.000
1641102758324079872,2022-01-02-05:52:38,10.1.1.3,193,-0.450,-0.450,-0.450,0.000,0.000,0.000
1641102758521892096,2022-01-02-05:52:38,10.1.1.3,196,-0.440,-0.440,-0.440,0.000,0.000,0.000
1641102758717677056,2022-01-02-05:52:38,10.1.1.3,189,-0.430,-0.430,-0.430,0.000,0.000,0.000
1641102758924738048,2022-01-02-05:52:38,10.1.1.3,196,-0.420,-0.420,-0.420,0.000,0.000,0.000
1641102759124434944,2022-01-02-05:52:39,10.1.1.3,194,-0.410,-0.410,-0.410,0.000,0.000,0.000
1641102759325144064,2022-01-02-05:52:39,10.1.1.3,193,-0.400,-0.400,-0.400,0.000,0.000,0.000
1641102759530445056,2022-01-02-05:52:39,10.1.1.3,197,-0.390,-0.390,-0.390,0.000,0.000,0.000
1641102759717916928,2022-01-02-05:52:39,10.1.1.3,182,-0.380,-0.380,-0.380,0.000,0.000,0.000
1641102759920754944,2022-01-02-05:52:39,10.1.1.3,184,-0.370,-0.370,-0.370,0.000,0.000,0.000
1641102760136985088,2022-01-02-05:52:40,10.1.1.3,198,-0.360,-0.360,-0.360,0.000,0.000,0.000
1641102760337181952,2022-01-02-05:52:40,10.1.1.3,194,-0.350,-0.350,-0.350,0.000,0.000,0.000
1641102760542059008,2022-01-02-05:52:40,10.1.1.3,198,-0.340,-0.340,-0.340,0.000,0.000,0.000
1641102760737297152,2022-01-02-05:52:40,10.1.1.3,192,-0.330,-0.330,-0.330,0.000,0.000,0.000
1641102760937010944,2022-01-02-05:52:40,10.1.1.3,190,-0.320,-0.320,-0.320,0.000,0.000,0.000
1641102761142235904,2022-01-02-05:52:41,10.1.1.3,194,-0.310,-0.310,-0.310,0.000,0.000,0.000
1641102761336599040,2022-01-02-05:52:41,10.1.1.3,187,-0.300,-0.300,-0.300,0.000,0.000,0.000
1641102761536955136,2022-01-02-05:52:41,10.1.1.3,186,-0.290,-0.290,-0.290,0.000,0.000,0.000
1641102761737790976,2022-01-02-05:52:41,10.1.1.3,187,-0.280,-0.280,-0.280,0.000,0.000,0.000
1641102761941121024,2022-01-02-05:52:41,10.1.1.3,189,-0.270,-0.270,-0.270,0.000,0.000,0.000
1641102762140307968,2022-01-02-05:52:42,10.1.1.3,188,-0.260,-0.260,-0.260,0.000,0.000,0.000
1641102762349209088,2022-01-02-05:52:42,10.1.1.3,196,-0.250,-0.250,-0.250,0.000,0.000,0.000
1641102762536590080,2022-01-02-05:52:42,10.1.1.3,182,-0.240,-0.240,-0.240,0.000,0.000,0.000
1641102762736532992,2022-01-02-05:52:42,10.1.1.3,181,-0.230,-0.230,-0.230,0.000,0.000,0.000
1641102762939457024,2022-01-02-05:52:42,10.1.1.3,183,-0.220,-0.220,-0.220,0.000,0.000,0.000
1641102763159907072,2022-01-02-05:52:43,10.1.1.3,197,-0.210,-0.210,-0.210,0.000,0.000,0.000
1641102763563066112,2022-01-02-05:52:43,10.1.1.3,193,-0.190,-0.190,-0.190,0.000,0.000,0.000
1641102763759488000,2022-01-02-05:52:43,10.1.1.3,185,-0.180,-0.180,-0.180,0.000,0.000,0.000
1641102763980770048,2022-01-02-05:52:43,10.1.1.3,199,-0.170,-0.170,-0.170,0.000,0.000,0.000
1641102764181993984,2022-01-02-05:52:44,10.1.1.3,199,-0.160,-0.160,-0.160,0.000,0.000,0.000
1641102764374563840,2022-01-02-05:52:44,10.1.1.3,189,-0.150,-0.150,-0.150,0.000,0.000,0.000
1641102764579912960,2022-01-02-05:52:44,10.1.1.3,194,-0.140,-0.140,-0.140,0.000,0.000,0.000
1641102764781750016,2022-01-02-05:52:44,10.1.1.3,189,-0.130,-0.130,-0.130,0.000,0.000,0.000
1641102764974766848,2022-01-02-05:52:44,10.1.1.3,188,-0.120,-0.120,-0.120,0.000,0.000,0.000
1641102765175972096,2022-01-02-05:52:45,10.1.1.3,188,-0.110,-0.110,-0.110,0.000,0.000,0.000
1641102765374583040,2022-01-02-05:52:45,10.1.1.3,185,-0.100,-0.100,-0.100,0.000,0.000,0.000
1641102765573758976,2022-01-02-05:52:45,10.1.1.3,184,-0.090,-0.090,-0.090,0.000,0.000,0.000
1641102765775567104,2022-01-02-05:52:45,10.1.1.3,185,-0.080,-0.080,-0.080,0.000,0.000,0.000
1641102765976352000,2022-01-02-05:52:45,10.1.1.3,184,-0.070,-0.070,-0.070,0.000,0.000,0.000
1641102766180003840,2022-01-02-05:52:46,10.1.1.3,186,-0.060,-0.060,-0.060,0.000,0.000,0.000
1641102766393289984,2022-01-02-05:52:46,10.1.1.3,193,-0.050,-0.050,-0.050,0.000,0.000,0.000
1641102766600747008,2022-01-02-05:52:46,10.1.1.3,200,-0.040,-0.040,-0.040,0.000,0.000,0.000
1641102766792551936,2022-01-02-05:52:46,10.1.1.3,190,-0.030,-0.030,-0.030,0.000,0.000,0.000
1641102766998740992,2022-01-02-05:52:46,10.1.1.3,189,-0.020,-0.020,-0.020,0.000,0.000,0.000
1641102767198038016,2022-01-02-05:52:47,10.1.1.3,192,-0.010,-0.010,-0.010,0.000,0.000,0.000
1641102767398351872,2022-01-02-05:52:47,10.1.1.3,192,0.000,0.000,0.000,0.000,0.000,0.000
1641102767590958080,2022-01-02-05:52:47,10.1.1.3,182,-0.010,-0.010,-0.010,0.000,0.000,0.000
1641102767796775168,2022-01-02-05:52:47,10.1.1.3,187,-0.020,-0.020,-0.020,0.000,0.000,0.000
1641102767990770944,2022-01-02-05:52:47,10.1.1.3,179,-0.030,-0.030,-0.030,0.000,0.000,0.000
1641102768190898944,2022-01-02-05:52:48,10.1.1.3,173,-0.040,-0.040,-0.040,0.000,0.000,0.000
1641102768391149056,2022-01-02-05:52:48,10.1.1.3,173,-0.050,-0.050,-0.050,0.000,0.000,0.000
1641102768609733120,2022-01-02-05:52:48,10.1.1.3,191,-0.060,-0.060,-0.060,0.000,0.000,0.000
1641102768810106112,2022-01-02-05:52:48,10.1.1.3,189,-0.070,-0.070,-0.070,0.000,0.000,0.000
1641102769016980992,2022-01-02-05:52:49,10.1.1.3,196,-0.080,-0.080,-0.080,0.000,0.000,0.000
1641102769209894912,2022-01-02-05:52:49,10.1.1.3,188,-0.090,-0.090,-0.090,0.000,0.000,0.000
1641102769416118016,2022-01-02-05:52:49,10.1.1.3,194,-0.100,-0.100,-0.100,0.000,0.000,0.000
1641102769610179840,2022-01-02-05:52:49,10.1.1.3,186,-0.110,-0.110,-0.110,0.000,0.000,0.000
1641102769813564928,2022-01-02-05:52:49,10.1.1.3,186,-0.120,-0.120,-0.120,0.000,0.000,0.000
1641102770009267968,2022-01-02-05:52:50,10.1.1.3,183,-0.130,-0.130,-0.130,0.000,0.000,0.000
1641102770211819008,2022-01-02-05:52:50,10.1.1.3,185,-0.140,-0.140,-0.140,0.000,0.000,0.000
1641102770413285120,2022-01-02-05:52:50,10.1.1.3,185,-0.150,-0.150,-0.150,0.000,0.000,0.000
1641102770608148992,2022-01-02-05:52:50,10.1.1.3,171,-0.160,-0.160,-0.160,0.000,0.000,0.000
1641102770838528000,2022-01-02-05:52:50,10.1.1.3,201,-0.170,-0.170,-0.170,0.000,0.000,0.000
1641102771026676992,2022-01-02-05:52:51,10.1.1.3,187,-0.180,-0.180,-0.180,0.000,0.000,0.000
1641102771430286848,2022-01-02-05:52:51,10.1.1.3,183,-0.200,-0.200,-0.200,0.000,0.000,0.000
1641102771625948928,2022-01-02-05:52:51,10.1.1.3,181,-0.210,-0.210,-0.210,0.000,0.000,0.000
1641102771833080064,2022-01-02-05:52:51,10.1.1.3,179,-0.220,-0.220,-0.220,0.000,0.000,0.000
1641102772036186880,2022-01-02-05:52:52,10.1.1.3,184,-0.230,-0.230,-0.230,0.000,0.000,0.000
1641102772230499072,2022-01-02-05:52:52,10.1.1.3,177,-0.240,-0.240,-0.240,0.000,0.000,0.000
1641102772432305152,2022-01-02-05:52:52,10.1.1.3,176,-0.250,-0.250,-0.250,0.000,0.000,0.000
1641102772629550080,2022-01-02-05:52:52,10.1.1.3,169,-0.260,-0.260,-0.260,0.000,0.000,0.000
1641102772826405120,2022-01-02-05:52:52,10.1.1.3,168,-0.270,-0.270,-0.270,0.000,0.000,0.000
1641102773047894016,2022-01-02-05:52:53,10.1.1.3,190,-0.280,-0.280,-0.280,0.000,0.000,0.000
1641102773248672000,2022-01-02-05:52:53,10.1.1.3,189,-0.290,-0.290,-0.290,0.000,0.000,0.000
1641102773447207936,2022-01-02-05:52:53,10.1.1.3,183,-0.300,-0.300,-0.300,0.000,0.000,0.000
1641102773647187968,2022-01-02-05:52:53,10.1.1.3,186,-0.310,-0.310,-0.310,0.000,0.000,0.000
1641102773844870144,2022-01-02-05:52:53,10.1.1.3,182,-0.320,-0.320,-0.320,0.000,0.000,0.000
1641102774043219968,2022-01-02-05:52:54,10.1.1.3,180,-0.330,-0.330,-0.330,0.000,0.000,0.000
1641102774242785024,2022-01-02-05:52:54,10.1.1.3,178,-0.340,-0.340,-0.340,0.000,0.000,0.000
1641102774442588160,2022-01-02-05:52:54,10.1.1.3,176,-0.350,-0.350,-0.350,0.000,0.000,0.000
1641102774642658048,2022-01-02-05:52:54,10.1.1.3,172,-0.360,-0.360,-0.360,0.000,0.000,0.000
1641102774841468928,2022-01-02-05:52:54,10.1.1.3,169,-0.370,-0.370,-0.370,0.000,0.000,0.000
1641102775045010944,2022-01-02-05:52:55,10.1.1.3,172,-0.380,-0.380,-0.380,0.000,0.000,0.000
1641102775240591104,2022-01-02-05:52:55,10.1.1.3,168,-0.390,-0.390,-0.390,0.000,0.000,0.000
1641102775441070080,2022-01-02-05:52:55,10.1.1.3,167,-0.400,-0.400,-0.400,0.000,0.000,0.000
1641102775640048128,2022-01-02-05:52:55,10.1.1.3,166,-0.410,-0.410,-0.410,0.000,0.000,0.000
1641102775840102912,2022-01-02-05:52:55,10.1.1.3,165,-0.420,-0.420,-0.420,0.000,0.000,0.000
1641102776040457984,2022-01-02-05:52:56,10.1.1.3,165,-0.430,-0.430,-0.430,0.000,0.000,0.000
1641102776239745024,2022-01-02-05:52:56,10.1.1.3,163,-0.440,-0.440,-0.440,0.000,0.000,0.000
1641102776441982976,2022-01-02-05:52:56,10.1.1.3,164,-0.450,-0.450,-0.450,0.000,0.000,0.000
1641102776659235840,2022-01-02-05:52:56,10.1.1.3,181,-0.460,-0.460,-0.460,0.000,0.000,0.000
1641102776858807040,2022-01-02-05:52:56,10.1.1.3,180,-0.470,-0.470,-0.470,0.000,0.000,0.000
1641102777058320896,2022-01-02-05:52:57,10.1.1.3,176,-0.480,-0.480,-0.480,0.000,0.000,0.000
1641102777261172992,2022-01-02-05:52:57,10.1.1.3,176,-0.490,-0.490,-0.490,0.000,0.000,0.000
1641102777457856000,2022-01-02-05:52:57,10.1.1.3,171,-0.480,-0.480,-0.480,0.000,0.000,0.000
1641102777662121984,2022-01-02-05:52:57,10.1.1.3,173,-0.470,-0.470,-0.470,0.000,0.000,0.000
1641102777861267968,2022-01-02-05:52:57,10.1.1.3,171,-0.460,-0.460,-0.460,0.000,0.000,0.000
1641102778061917184,2022-01-02-05:52:58,10.1.1.3,167,-0.450,-0.450,-0.450,0.000,0.000,0.000
1641102778257266944,2022-01-02-05:52:58,10.1.1.3,166,-0.440,-0.440,-0.440,0.000,0.000,0.000
1641102778456617984,2022-01-02-05:52:58,10.1.1.3,165,-0.430,-0.430,-0.430,0.000,0.000,0.000
1641102778661693952,2022-01-02-05:52:58,10.1.1.3,170,-0.420,-0.420,-0.420,0.000,0.000,0.000
1641102778855827200,2022-01-02-05:52:58,10.1.1.3,163,-0.410,-0.410,-0.410,0.000,0.000,0.000
1641102779059365888,2022-01-02-05:52:59,10.1.1.3,166,-0.400,-0.400,-0.400,0.000,0.000,0.000
1641102779261310976,2022-01-02-05:52:59,10.1.1.3,167,-0.390,-0.390,-0.390,0.000,0.000,0.000
1641102779458622976,2022-01-02-05:52:59,10.1.1.3,164,-0.380,-0.380,-0.380,0.000,0.000,0.000
1641102779657847808,2022-01-02-05:52:59,10.1.1.3,162,-0.370,-0.370,-0.370,0.000,0.000,0.000
1641102779877264896,2022-01-02-05:52:59,10.1.1.3,177,-0.360,-0.360,-0.360,0.000,0.000,0.000
1641102780079993088,2022-01-02-05:53:00,10.1.1.3,178,-0.350,-0.350,-0.350,0.000,0.000,0.000
1641102780278786048,2022-01-02-05:53:00,10.1.1.3,171,-0.340,-0.340,-0.340,0.000,0.000,0.000
1641102780481435904,2022-01-02-05:53:00,10.1.1.3,176,-0.330,-0.330,-0.330,0.000,0.000,0.000
1641102780683168768,2022-01-02-05:53:00,10.1.1.3,175,-0.320,-0.320,-0.320,0.000,0.000,0.000
1641102780878561024,2022-01-02-05:53:00,10.1.1.3,171,-0.310,-0.310,-0.310,0.000,0.000,0.000
1641102781085383936,2022-01-02-05:53:01,10.1.1.3,177,-0.300,-0.300,-0.300,0.000,0.000,0.000
1641102781292183040,2022-01-02-05:53:01,10.1.1.3,183,-0.290,-0.290,-0.290,0.000,0.000,0.000
1641102781491319808,2022-01-02-05:53:01,10.1.1.3,179,-0.280,-0.280,-0.280,0.000,0.000,0.000
1641102781682307072,2022-01-02-05:53:01,10.1.1.3,170,-0.270,-0.270,-0.270,0.000,0.000,0.000
1641102781889938944,2022-01-02-05:53:01,10.1.1.3,174,-0.260,-0.260,-0.260,0.000,0.000,0.000
1641102782083117056,2022-01-02-05:53:02,10.1.1.3,166,-0.250,-0.250,-0.250,0.000,0.000,0.000
1641102782305211904,2022-01-02-05:53:02,10.1.1.3,187,-0.240,-0.240,-0.240,0.000,0.000,0.000
1641102782505361920,2022-01-02-05:53:02,10.1.1.3,185,-0.230,-0.230,-0.230,0.000,0.000,0.000
1641102782711410944,2022-01-02-05:53:02,10.1.1.3,190,-0.220,-0.220,-0.220,0.000,0.000,0.000
1641102782911034112,2022-01-02-05:53:02,10.1.1.3,189,-0.210,-0.210,-0.210,0.000,0.000,0.000
1641102783111598080,2022-01-02-05:53:03,10.1.1.3,189,-0.200,-0.200,-0.200,0.000,0.000,0.000
1641102783308556032,2022-01-02-05:53:03,10.1.1.3,185,-0.190,-0.190,-0.190,0.000,0.000,0.000
1641102783514049024,2022-01-02-05:53:03,10.1.1.3,190,-0.180,-0.180,-0.180,0.000,0.000,0.000
1641102783711024128,2022-01-02-05:53:03,10.1.1.3,186,-0.170,-0.170,-0.170,0.000,0.000,0.000
1641102783914225152,2022-01-02-05:53:03,10.1.1.3,189,-0.160,-0.160,-0.160,0.000,0.000,0.000
1641102784113688064,2022-01-02-05:53:04,10.1.1.3,185,-0.150,-0.150,-0.150,0.000,0.000,0.000
1641102784310795008,2022-01-02-05:53:04,10.1.1.3,184,-0.140,-0.140,-0.140,0.000,0.000,0.000
1641102784504750080,2022-01-02-05:53:04,10.1.1.3,177,-0.130,-0.130,-0.130,0.000,0.000,0.000
1641102784714665984,2022-01-02-05:53:04,10.1.1.3,186,-0.120,-0.120,-0.120,0.000,0.000,0.000
1641102784912740096,2022-01-02-05:53:04,10.1.1.3,184,-0.110,-0.110,-0.110,0.000,0.000,0.000
1641102785118061056,2022-01-02-05:53:05,10.1.1.3,189,-0.100,-0.100,-0.100,0.000,0.000,0.000
1641102785312912896,2022-01-02-05:53:05,10.1.1.3,183,-0.090,-0.090,-0.090,0.000,0.000,0.000
1641102785513501952,2022-01-02-05:53:05,10.1.1.3,182,-0.080,-0.080,-0.080,0.000,0.000,0.000
1641102785718529024,2022-01-02-05:53:05,10.1.1.3,186,-0.070,-0.070,-0.070,0.000,0.000,0.000
1641102786121200128,2022-01-02-05:53:06,10.1.1.3,182,-0.050,-0.050,-0.050,0.000,0.000,0.000
1641102786322112000,2022-01-02-05:53:06,10.1.1.3,188,-0.040,-0.040,-0.040,0.000,0.000,0.000
1641102786542052096,2022-01-02-05:53:06,10.1.1.3,195,-0.030,-0.030,-0.030,0.000,0.000,0.000
1641102786739852800,2022-01-02-05:53:06,10.1.1.3,197,-0.020,-0.020,-0.020,0.000,0.000,0.000
1641102786936111872,2022-01-02-05:53:06,10.1.1.3,192,-0.010,-0.010,-0.010,0.000,0.000,0.000
1641102787135902976,2022-01-02-05:53:07,10.1.1.3,192,0.000,0.000,0.000,0.000,0.000,0.000
1641102787336397056,2022-01-02-05:53:07,10.1.1.3,192,-0.010,-0.010,-0.010,0.000,0.000,0.000
1641102787537168896,2022-01-02-05:53:07,10.1.1.3,191,-0.020,-0.020,-0.020,0.000,0.000,0.000
1641102787736964864,2022-01-02-05:53:07,10.1.1.3,190,-0.030,-0.030,-0.030,0.000,0.000,0.000
1641102787936825088,2022-01-02-05:53:07,10.1.1.3,189,-0.040,-0.040,-0.040,0.000,0.000,0.000
1641102788138881024,2022-01-02-05:53:08,10.1.1.3,189,-0.050,-0.050,-0.050,0.000,0.000,0.000
1641102788337294080,2022-01-02-05:53:08,10.1.1.3,188,-0.060,-0.060,-0.060,0.000,0.000,0.000
1641102788537090048,2022-01-02-05:53:08,10.1.1.3,186,-0.070,-0.070,-0.070,0.000,0.000,0.000
1641102788737807872,2022-01-02-05:53:08,10.1.1.3,187,-0.080,-0.080,-0.080,0.000,0.000,0.000
1641102788937755136,2022-01-02-05:53:08,10.1.1.3,185,-0.090,-0.090,-0.090,0.000,0.000,0.000
1641102789138150912,2022-01-02-05:53:09,10.1.1.3,185,-0.100,-0.100,-0.100,0.000,0.000,0.000
1641102789338311936,2022-01-02-05:53:09,10.1.1.3,183,-0.110,-0.110,-0.110,0.000,0.000,0.000
1641102789543428864,2022-01-02-05:53:09,10.1.1.3,187,-0.120,-0.120,-0.120,0.000,0.000,0.000
1641102789758151168,2022-01-02-05:53:09,10.1.1.3,193,-0.130,-0.130,-0.130,0.000,0.000,0.000
1641102789958424064,2022-01-02-05:53:09,10.1.1.3,193,-0.140,-0.140,-0.140,0.000,0.000,0.000
1641102790158520832,2022-01-02-05:53:10,10.1.1.3,192,-0.150,-0.150,-0.150,0.000,0.000,0.000
1641102790358755072,2022-01-02-05:53:10,10.1.1.3,192,-0.160,-0.160,-0.160,0.000,0.000,0.000
1641102790558247936,2022-01-02-05:53:10,10.1.1.3,191,-0.170,-0.170,-0.170,0.000,0.000,0.000
1641102790758680064,2022-01-02-05:53:10,10.1.1.3,190,-0.180,-0.180,-0.180,0.000,0.000,0.000
1641102790957966080,2022-01-02-05:53:10,10.1.1.3,189,-0.190,-0.190,-0.190,0.000,0.000,0.000
1641102791162333952,2022-01-02-05:53:11,10.1.1.3,193,-0.200,-0.200,-0.200,0.000,0.000,0.000
1641102791361812992,2022-01-02-05:53:11,10.1.1.3,191,-0.210,-0.210,-0.210,0.000,0.000,0.000
1641102791558769920,2022-01-02-05:53:11,10.1.1.3,187,-0.220,-0.220,-0.220,0.000,0.000,0.000
1641102791762311936,2022-01-02-05:53:11,10.1.1.3,191,-0.230,-0.230,-0.230,0.000,0.000,0.000
1641102791961872128,2022-01-02-05:53:11,10.1.1.3,190,-0.240,-0.240,-0.240,0.000,0.000,0.000
1641102792158215168,2022-01-02-05:53:12,10.1.1.3,185,-0.250,-0.250,-0.250,0.000,0.000,0.000
1641102792357783040,2022-01-02-05:53:12,10.1.1.3,185,-0.260,-0.260,-0.260,0.000,0.000,0.000
1641102792557265152,2022-01-02-05:53:12,10.1.1.3,184,-0.270,-0.270,-0.270,0.000,0.000,0.000
1641102792757762048,2022-01-02-05:53:12,10.1.1.3,184,-0.280,-0.280,-0.280,0.000,0.000,0.000
1641102792957573888,2022-01-02-05:53:12,10.1.1.3,182,-0.290,-0.290,-0.290,0.000,0.000,0.000
1641102793158054144,2022-01-02-05:53:13,10.1.1.3,182,-0.300,-0.300,-0.300,0.000,0.000,0.000
1641102793357954048,2022-01-02-05:53:13,10.1.1.3,181,-0.310,-0.310,-0.310,0.000,0.000,0.000
1641102793557883904,2022-01-02-05:53:13,10.1.1.3,181,-0.320,-0.320,-0.320,0.000,0.000,0.000
1641102793758179072,2022-01-02-05:53:13,10.1.1.3,180,-0.330,-0.330,-0.330,0.000,0.000,0.000
1641102793977724160,2022-01-02-05:53:13,10.1.1.3,199,-0.340,-0.340,-0.340,0.000,0.000,0.000
1641102794178638080,2022-01-02-05:53:14,10.1.1.3,199,-0.350,-0.350,-0.350,0.000,0.000,0.000
1641102794377456896,2022-01-02-05:53:14,10.1.1.3,197,-0.360,-0.360,-0.360,0.000,0.000,0.000
1641102794577729024,2022-01-02-05:53:14,10.1.1.3,197,-0.370,-0.370,-0.370,0.000,0.000,0.000
1641102794778950912,2022-01-02-05:53:14,10.1.1.3,195,-0.380,-0.380,-0.380,0.000,0.000,0.000
1641102794977068032,2022-01-02-05:53:14,10.1.1.3,195,-0.390,-0.390,-0.390,0.000,0.000,0.000
1641102795177246208,2022-01-02-05:53:15,10.1.1.3,194,-0.400,-0.400,-0.400,0.000,0.000,0.000
1641102795376666112,2022-01-02-05:53:15,10.1.1.3,193,-0.410,-0.410,-0.410,0.000,0.000,0.000
1641102795576585984,2022-01-02-05:53:15,10.1.1.3,193,-0.420,-0.420,-0.420,0.000,0.000,0.000
1641102795776321024,2022-01-02-05:53:15,10.1.1.3,191,-0.430,-0.430,-0.430,0.000,0.000,0.000
1641102795975888128,2022-01-02-05:53:15,10.1.1.3,190,-0.440,-0.440,-0.440,0.000,0.000,0.000
1641102796178607872,2022-01-02-05:53:16,10.1.1.3,190,-0.450,-0.450,-0.450,0.000,0.000,0.000
1641102796380279040,2022-01-02-05:53:16,10.1.1.3,193,-0.460,-0.460,-0.460,0.000,0.000,0.000
1641102796577935872,2022-01-02-05:53:16,10.1.1.3,190,-0.470,-0.470,-0.470,0.000,0.000,0.000
1641102796778820864,2022-01-02-05:53:16,10.1.1.3,190,-0.480,-0.480,-0.480,0.000,0.000,0.000
1641102796974909952,2022-01-02-05:53:16,10.1.1.3,185,-0.490,-0.490,-0.490,0.000,0.000,0.000
1641102797176450048,2022-01-02-05:53:17,10.1.1.3,186,-0.480,-0.480,-0.480,0.000,0.000,0.000
1641102797374771968,2022-01-02-05:53:17,10.1.1.3,184,-0.470,-0.470,-0.470,0.000,0.000,0.000
1641102797576020992,2022-01-02-05:53:17,10.1.1.3,184,-0.460,-0.460,-0.460,0.000,0.000,0.000
1641102797773669120,2022-01-02-05:53:17,10.1.1.3,182,-0.450,-0.450,-0.450,0.000,0.000,0.000
1641102797973635840,2022-01-02-05:53:17,10.1.1.3,182,-0.440,-0.440,-0.440,0.000,0.000,0.000
1641102798173139200,2022-01-02-05:53:18,10.1.1.3,181,-0.430,-0.430,-0.430,0.000,0.000,0.000
1641102798373050880,2022-01-02-05:53:18,10.1.1.3,180,-0.420,-0.420,-0.420,0.000,0.000,0.000
1641102798575706880,2022-01-02-05:53:18,10.1.1.3,182,-0.410,-0.410,-0.410,0.000,0.000,0.000
1641102798772721152,2022-01-02-05:53:18,10.1.1.3,177,-0.400,-0.400,-0.400,0.000,0.000,0.000
1641102798973161984,2022-01-02-05:53:18,10.1.1.3,176,-0.390,-0.390,-0.390,0.000,0.000,0.000
1641102799174069760,2022-01-02-05:53:19,10.1.1.3,176,-0.380,-0.380,-0.380,0.000,0.000,0.000
1641102799396215808,2022-01-02-05:53:19,10.1.1.3,198,-0.370,-0.370,-0.370,0.000,0.000,0.000
1641102799593561856,2022-01-02-05:53:19,10.1.1.3,194,-0.360,-0.360,-0.360,0.000,0.000,0.000
1641102799795651840,2022-01-02-05:53:19,10.1.1.3,196,-0.350,-0.350,-0.350,0.000,0.000,0.000
1641102799992317952,2022-01-02-05:53:19,10.1.1.3,192,-0.340,-0.340,-0.340,0.000,0.000,0.000
1641102800192521216,2022-01-02-05:53:20,10.1.1.3,191,-0.330,-0.330,-0.330,0.000,0.000,0.000
1641102800393646080,2022-01-02-05:53:20,10.1.1.3,190,-0.320,-0.320,-0.320,0.000,0.000,0.000
1641102800591768064,2022-01-02-05:53:20,10.1.1.3,189,-0.310,-0.310,-0.310,0.000,0.000,0.000
1641102800790966016,2022-01-02-05:53:20,10.1.1.3,188,-0.300,-0.300,-0.300,0.000,0.000,0.000
1641102800991095040,2022-01-02-05:53:20,10.1.1.3,187,-0.290,-0.290,-0.290,0.000,0.000,0.000
1641102801196568064,2022-01-02-05:53:21,10.1.1.3,192,-0.280,-0.280,-0.280,0.000,0.000,0.000
1641102801393261056,2022-01-02-05:53:21,10.1.1.3,185,-0.270,-0.270,-0.270,0.000,0.000,0.000
1641102801592075008,2022-01-02-05:53:21,10.1.1.3,186,-0.260,-0.260,-0.260,0.000,0.000,0.000
1641102801789249792,2022-01-02-05:53:21,10.1.1.3,183,-0.250,-0.250,-0.250,0.000,0.000,0.000
1641102801988712960,2022-01-02-05:53:21,10.1.1.3,182,-0.240,-0.240,-0.240,0.000,0.000,0.000
1641102802188590080,2022-01-02-05:53:22,10.1.1.3,181,-0.230,-0.230,-0.230,0.000,0.000,0.000
1641102802388241920,2022-01-02-05:53:22,10.1.1.3,180,-0.220,-0.220,-0.220,0.000,0.000,0.000
1641102802589035008,2022-01-02-05:53:22,10.1.1.3,180,-0.210,-0.210,-0.210,0.000,0.000,0.000
1641102802794054912,2022-01-02-05:53:22,10.1.1.3,183,-0.200,-0.200,-0.200,0.000,0.000,0.000
1641102802988521216,2022-01-02-05:53:22,10.1.1.3,176,-0.190,-0.190,-0.190,0.000,0.000,0.000
1641102803188345856,2022-01-02-05:53:23,10.1.1.3,171,-0.180,-0.180,-0.180,0.000,0.000,0.000
1641102803408278016,2022-01-02-05:53:23,10.1.1.3,190,-0.170,-0.170,-0.170,0.000,0.000,0.000
1641102803607839232,2022-01-02-05:53:23,10.1.1.3,189,-0.160,-0.160,-0.160,0.000,0.000,0.000
1641102803806854912,2022-01-02-05:53:23,10.1.1.3,187,-0.150,-0.150,-0.150,0.000,0.000,0.000
1641102804006593024,2022-01-02-05:53:24,10.1.1.3,186,-0.140,-0.140,-0.140,0.000,0.000,0.000
1641102804206240000,2022-01-02-05:53:24,10.1.1.3,186,-0.130,-0.130,-0.130,0.000,0.000,0.000
1641102804406444032,2022-01-02-05:53:24,10.1.1.3,186,-0.120,-0.120,-0.120,0.000,0.000,0.000
1641102804605170944,2022-01-02-05:53:24,10.1.1.3,184,-0.110,-0.110,-0.110,0.000,0.000,0.000
1641102804806027776,2022-01-02-05:53:24,10.1.1.3,184,-0.100,-0.100,-0.100,0.000,0.000,0.000
1641102805006081024,2022-01-02-05:53:25,10.1.1.3,184,-0.090,-0.090,-0.090,0.000,0.000,0.000
1641102805205683968,2022-01-02-05:53:25,10.1.1.3,182,-0.080,-0.080,-0.080,0.000,0.000,0.000
1641102805404825856,2022-01-02-05:53:25,10.1.1.3,181,-0.070,-0.070,-0.070,0.000,0.000,0.000
1641102805604278016,2022-01-02-05:53:25,10.1.1.3,180,-0.060,-0.060,-0.060,0.000,0.000,0.000
1641102805804088064,2022-01-02-05:53:25,10.1.1.3,178,-0.050,-0.050,-0.050,0.000,0.000,0.000
1641102806003719168,2022-01-02-05:53:26,10.1.1.3,177,-0.040,-0.040,-0.040,0.000,0.000,0.000
1641102806203814144,2022-01-02-05:53:26,10.1.1.3,176,-0.030,-0.030,-0.030,0.000,0.000,0.000
1641102806403160064,2022-01-02-05:53:26,10.1.1.3,175,-0.020,-0.020,-0.020,0.000,0.000,0.000
1641102806603768064,2022-01-02-05:53:26,10.1.1.3,175,-0.010,-0.010,-0.010,0.000,0.000,0.000
1641102806806457088,2022-01-02-05:53:26,10.1.1.3,175,0.000,0.000,0.000,0.000,0.000,0.000
1641102807002286080,2022-01-02-05:53:27,10.1.1.3,172,-0.010,-0.010,-0.010,0.000,0.000,0.000
1641102807201384192,2022-01-02-05:53:27,10.1.1.3,171,-0.020,-0.020,-0.020,0.000,0.000,0.000
1641102807401319936,2022-01-02-05:53:27,10.1.1.3,170,-0.030,-0.030,-0.030,0.000,0.000,0.000
1641102807601490944,2022-01-02-05:53:27,10.1.1.3,170,-0.040,-0.040,-0.040,0.000,0.000,0.000
1641102807801815040,2022-01-02-05:53:27,10.1.1.3,169,-0.050,-0.050,-0.050,0.000,0.000,0.000
1641102808005917184,2022-01-02-05:53:28,10.1.1.3,173,-0.060,-0.060,-0.060,0.000,0.000,0.000
1641102808205487872,2022-01-02-05:53:28,10.1.1.3,172,-0.070,-0.070,-0.070,0.000,0.000,0.000
1641102808400346880,2022-01-02-05:53:28,10.1.1.3,165,-0.080,-0.080,-0.080,0.000,0.000,0.000
1641102808601124096,2022-01-02-05:53:28,10.1.1.3,166,-0.090,-0.090,-0.090,0.000,0.000,0.000
1641102808802827008,2022-01-02-05:53:28,10.1.1.3,167,-0.100,-0.100,-0.100,0.000,0.000,0.000
1641102809002173952,2022-01-02-05:53:29,10.1.1.3,163,-0.110,-0.110,-0.110,0.000,0.000,0.000
1641102809198934016,2022-01-02-05:53:29,10.1.1.3,161,-0.120,-0.120,-0.120,0.000,0.000,0.000
1641102809421540096,2022-01-02-05:53:29,10.1.1.3,184,-0.130,-0.130,-0.130,0.000,0.000,0.000
1641102809618252032,2022-01-02-05:53:29,10.1.1.3,175,-0.140,-0.140,-0.140,0.000,0.000,0.000
1641102809821885952,2022-01-02-05:53:29,10.1.1.3,178,-0.150,-0.150,-0.150,0.000,0.000,0.000
1641102810017844992,2022-01-02-05:53:30,10.1.1.3,173,-0.160,-0.160,-0.160,0.000,0.000,0.000
1641102810222048000,2022-01-02-05:53:30,10.1.1.3,176,-0.170,-0.170,-0.170,0.000,0.000,0.000
1641102810419749888,2022-01-02-05:53:30,10.1.1.3,171,-0.180,-0.180,-0.180,0.000,0.000,0.000
1641102810622456064,2022-01-02-05:53:30,10.1.1.3,175,-0.190,-0.190,-0.190,0.000,0.000,0.000
1641102810821469184,2022-01-02-05:53:30,10.1.1.3,173,-0.200,-0.200,-0.200,0.000,0.000,0.000
1641102811023410176,2022-01-02-05:53:31,10.1.1.3,174,-0.210,-0.210,-0.210,0.000,0.000,0.000
1641102811219645952,2022-01-02-05:53:31,10.1.1.3,170,-0.220,-0.220,-0.220,0.000,0.000,0.000
1641102811415960064,2022-01-02-05:53:31,10.1.1.3,166,-0.230,-0.230,-0.230,0.000,0.000,0.000
1641102811617458176,2022-01-02-05:53:31,10.1.1.3,165,-0.240,-0.240,-0.240,0.000,0.000,0.000
1641102811814548992,2022-01-02-05:53:31,10.1.1.3,161,-0.250,-0.250,-0.250,0.000,0.000,0.000
1641102812014627072,2022-01-02-05:53:32,10.1.1.3,160,-0.260,-0.260,-0.260,0.000,0.000,0.000
1641102812234498048,2022-01-02-05:53:32,10.1.1.3,174,-0.270,-0.270,-0.270,0.000,0.000,0.000
1641102812434243840,2022-01-02-05:53:32,10.1.1.3,172,-0.280,-0.280,-0.280,0.000,0.000,0.000
1641102812635837952,2022-01-02-05:53:32,10.1.1.3,172,-0.290,-0.290,-0.290,0.000,0.000,0.000
1641102812836094976,2022-01-02-05:53:32,10.1.1.3,173,-0.300,-0.300,-0.300,0.000,0.000,0.000
1641102813036685056,2022-01-02-05:53:33,10.1.1.3,172,-0.310,-0.310,-0.310,0.000,0.000,0.000
1641102813233767936,2022-01-02-05:53:33,10.1.1.3,168,-0.320,-0.320,-0.320,0.000,0.000,0.000
1641102813434711808,2022-01-02-05:53:33,10.1.1.3,168,-0.330,-0.330,-0.330,0.000,0.000,0.000
1641102813636131072,2022-01-02-05:53:33,10.1.1.3,169,-0.340,-0.340,-0.340,0.000,0.000,0.000
1641102813837137920,2022-01-02-05:53:33,10.1.1.3,168,-0.350,-0.350,-0.350,0.000,0.000,0.000
1641102814038338816,2022-01-02-05:53:34,10.1.1.3,168,-0.360,-0.360,-0.360,0.000,0.000,0.000
1641102814242502912,2022-01-02-05:53:34,10.1.1.3,172,-0.370,-0.370,-0.370,0.000,0.000,0.000
1641102814439521024,2022-01-02-05:53:34,10.1.1.3,168,-0.380,-0.380,-0.380,0.000,0.000,0.000
1641102814640393984,2022-01-02-05:53:34,10.1.1.3,169,-0.390,-0.390,-0.390,0.000,0.000,0.000
1641102814841913856,2022-01-02-05:53:34,10.1.1.3,169,-0.400,-0.400,-0.400,0.000,0.000,0.000
1641102815042017024,2022-01-02-05:53:35,10.1.1.3,169,-0.410,-0.410,-0.410,0.000,0.000,0.000
1641102815242619136,2022-01-02-05:53:35,10.1.1.3,169,-0.420,-0.420,-0.420,0.000,0.000,0.000
1641102815444185088,2022-01-02-05:53:35,10.1.1.3,170,-0.430,-0.430,-0.430,0.000,0.000,0.000
1641102815645576960,2022-01-02-05:53:35,10.1.1.3,169,-0.440,-0.440,-0.440,0.000,0.000,0.000
1641102815844666880,2022-01-02-05:53:35,10.1.1.3,168,-0.450,-0.450,-0.450,0.000,0.000,0.000
1641102816066014976,2022-01-02-05:53:36,10.1.1.3,188,-0.460,-0.460,-0.460,0.000,0.000,0.000
1641102816268944896,2022-01-02-05:53:36,10.1.1.3,188,-0.470,-0.470,-0.470,0.000,0.000,0.000
1641102816466491904,2022-01-02-05:53:36,10.1.1.3,186,-0.480,-0.480,-0.480,0.000,0.000,0.000
1641102816671587840,2022-01-02-05:53:36,10.1.1.3,191,-0.490,-0.490,-0.490,0.000,0.000,0.000
1641102816872179968,2022-01-02-05:53:36,10.1.1.3,190,-0.480,-0.480,-0.480,0.000,0.000,0.000
1641102817073401856,2022-01-02-05:53:37,10.1.1.3,191,-0.470,-0.470,-0.470,0.000,0.000,0.000
1641102817269552896,2022-01-02-05:53:37,10.1.1.3,186,-0.460,-0.460,-0.460,0.000,0.000,0.000
1641102817469716992,2022-01-02-05:53:37,10.1.1.3,186,-0.450,-0.450,-0.450,0.000,0.000,0.000
1641102817673831936,2022-01-02-05:53:37,10.1.1.3,190,-0.440,-0.440,-0.440,0.000,0.000,0.000
1641102817871074816,2022-01-02-05:53:37,10.1.1.3,186,-0.430,-0.430,-0.430,0.000,0.000,0.000
1641102818074307072,2022-01-02-05:53:38,10.1.1.3,186,-0.420,-0.420,-0.420,0.000,0.000,0.000
1641102818271892992,2022-01-02-05:53:38,10.1.1.3,182,-0.410,-0.410,-0.410,0.000,0.000,0.000
1641102818472694016,2022-01-02-05:53:38,10.1.1.3,184,-0.400,-0.400,-0.400,0.000,0.000,0.000
1641102818672608000,2022-01-02-05:53:38,10.1.1.3,182,-0.390,-0.390,-0.390,0.000,0.000,0.000
1641102818872912896,2022-01-02-05:53:38,10.1.1.3,182,-0.380,-0.380,-0.380,0.000,0.000,0.000
1641102819072939008,2022-01-02-05:53:39,10.1.1.3,177,-0.370,-0.370,-0.370,0.000,0.000,0.000
1641102819296673024,2022-01-02-05:53:39,10.1.1.3,198,-0.360,-0.360,-0.360,0.000,0.000,0.000
1641102819493438976,2022-01-02-05:53:39,10.1.1.3,194,-0.350,-0.350,-0.350,0.000,0.000,0.000
1641102819693383936,2022-01-02-05:53:39,10.1.1.3,192,-0.340,-0.340,-0.340,0.000,0.000,0.000
1641102819893591808,2022-01-02-05:53:39,10.1.1.3,192,-0.330,-0.330,-0.330,0.000,0.000,0.000
1641102820094624000,2022-01-02-05:53:40,10.1.1.3,192,-0.320,-0.320,-0.320,0.000,0.000,0.000
1641102820297938944,2022-01-02-05:53:40,10.1.1.3,195,-0.310,-0.310,-0.310,0.000,0.000,0.000
1641102820499149056,2022-01-02-05:53:40,10.1.1.3,194,-0.300,-0.300,-0.300,0.000,0.000,0.000
1641102820695388160,2022-01-02-05:53:40,10.1.1.3,190,-0.290,-0.290,-0.290,0.000,0.000,0.000
1641102820897980928,2022-01-02-05:53:40,10.1.1.3,188,-0.280,-0.280,-0.280,0.000,0.000,0.000
1641102821095571968,2022-01-02-05:53:41,10.1.1.3,188,-0.270,-0.270,-0.270,0.000,0.000,0.000
1641102821299670016,2022-01-02-05:53:41,10.1.1.3,191,-0.260,-0.260,-0.260,0.000,0.000,0.000
1641102821497172224,2022-01-02-05:53:41,10.1.1.3,187,-0.250,-0.250,-0.250,0.000,0.000,0.000
1641102821696333824,2022-01-02-05:53:41,10.1.1.3,185,-0.240,-0.240,-0.240,0.000,0.000,0.000
1641102821897028864,2022-01-02-05:53:41,10.1.1.3,185,-0.230,-0.230,-0.230,0.000,0.000,0.000
1641102822095761152,2022-01-02-05:53:42,10.1.1.3,183,-0.220,-0.220,-0.220,0.000,0.000,0.000
1641102822295824896,2022-01-02-05:53:42,10.1.1.3,183,-0.210,-0.210,-0.210,0.000,0.000,0.000
1641102822495628032,2022-01-02-05:53:42,10.1.1.3,182,-0.200,-0.200,-0.200,0.000,0.000,0.000
1641102822695572992,2022-01-02-05:53:42,10.1.1.3,181,-0.190,-0.190,-0.190,0.000,0.000,0.000
1641102822896684032,2022-01-02-05:53:42,10.1.1.3,182,-0.180,-0.180,-0.180,0.000,0.000,0.000
1641102823095571968,2022-01-02-05:53:43,10.1.1.3,180,-0.170,-0.170,-0.170,0.000,0.000,0.000
1641102823316914176,2022-01-02-05:53:43,10.1.1.3,194,-0.160,-0.160,-0.160,0.000,0.000,0.000
1641102823519952128,2022-01-02-05:53:43,10.1.1.3,197,-0.150,-0.150,-0.150,0.000,0.000,0.000
1641102823719837952,2022-01-02-05:53:43,10.1.1.3,196,-0.140,-0.140,-0.140,0.000,0.000,0.000
1641102823919011072,2022-01-02-05:53:43,10.1.1.3,194,-0.130,-0.130,-0.130,0.000,0.000,0.000
1641102824121711104,2022-01-02-05:53:44,10.1.1.3,195,-0.120,-0.120,-0.120,0.000,0.000,0.000
1641102824317912064,2022-01-02-05:53:44,10.1.1.3,190,-0.110,-0.110,-0.110,0.000,0.000,0.000
1641102824521159936,2022-01-02-05:53:44,10.1.1.3,190,-0.100,-0.100,-0.100,0.000,0.000,0.000
1641102824720089856,2022-01-02-05:53:44,10.1.1.3,192,-0.090,-0.090,-0.090,0.000,0.000,0.000
1641102824916748032,2022-01-02-05:53:44,10.1.1.3,188,-0.080,-0.080,-0.080,0.000,0.000,0.000
1641102825120779008,2022-01-02-05:53:45,10.1.1.3,190,-0.070,-0.070,-0.070,0.000,0.000,0.000
1641102825317497856,2022-01-02-05:53:45,10.1.1.3,186,-0.060,-0.060,-0.060,0.000,0.000,0.000
1641102825516713984,2022-01-02-05:53:45,10.1.1.3,184,-0.050,-0.050,-0.050,0.000,0.000,0.000
1641102825720199168,2022-01-02-05:53:45,10.1.1.3,184,-0.040,-0.040,-0.040,0.000,0.000,0.000
1641102825920480000,2022-01-02-05:53:45,10.1.1.3,186,-0.030,-0.030,-0.030,0.000,0.000,0.000
1641102826116660224,2022-01-02-05:53:46,10.1.1.3,181,-0.020,-0.020,-0.020,0.000,0.000,0.000
1641102826336026880,2022-01-02-05:53:46,10.1.1.3,187,-0.010,-0.010,-0.010,0.000,0.000,0.000
1641102826537404928,2022-01-02-05:53:46,10.1.1.3,185,0.000,0.000,0.000,0.000,0.000,0.000
1641102826736289024,2022-01-02-05:53:46,10.1.1.3,184,-0.010,-0.010,-0.010,0.000,0.000,0.000
1641102826935657984,2022-01-02-05:53:46,10.1.1.3,182,-0.020,-0.020,-0.020,0.000,0.000,0.000
1641102827138121984,2022-01-02-05:53:47,10.1.1.3,182,-0.030,-0.030,-0.030,0.000,0.000,0.000
1641102827335220992,2022-01-02-05:53:47,10.1.1.3,181,-0.040,-0.040,-0.040,0.000,0.000,0.000
1641102827534821120,2022-01-02-05:53:47,10.1.1.3,180,-0.050,-0.050,-0.050,0.000,0.000,0.000
1641102827735142912,2022-01-02-05:53:47,10.1.1.3,178,-0.060,-0.060,-0.060,0.000,0.000,0.000
1641102827954984960,2022-01-02-05:53:47,10.1.1.3,195,-0.070,-0.070,-0.070,0.000,0.000,0.000
1641102828155554048,2022-01-02-05:53:48,10.1.1.3,195,-0.080,-0.080,-0.080,0.000,0.000,0.000
1641102828354077952,2022-01-02-05:53:48,10.1.1.3,193,-0.090,-0.090,-0.090,0.000,0.000,0.000
1641102828554258944,2022-01-02-05:53:48,10.1.1.3,192,-0.100,-0.100,-0.100,0.000,0.000,0.000
1641102828754297856,2022-01-02-05:53:48,10.1.1.3,192,-0.110,-0.110,-0.110,0.000,0.000,0.000
1641102828953309184,2022-01-02-05:53:48,10.1.1.3,189,-0.120,-0.120,-0.120,0.000,0.000,0.000
1641102829153964032,2022-01-02-05:53:49,10.1.1.3,189,-0.130,-0.130,-0.130,0.000,0.000,0.000
1641102829357145088,2022-01-02-05:53:49,10.1.1.3,191,-0.140,-0.140,-0.140,0.000,0.000,0.000
1641102829753216000,2022-01-02-05:53:49,10.1.1.3,182,-0.160,-0.160,-0.160,0.000,0.000,0.000
