FedericoMungari/DigitalTwin_service/Output/Output_script/script_ROSAPI_output_robots12_freq0_7.txt.csv
timestamp,node,latency,joint_1,joint_2,joint_3,joint_4,joint_5,joint_6
1640078848792481792,"2021-12-21,09:27:22",10.1.1.8,81779,0.000,0.000,0.000,0.000,0.000,0.000
1640078863566083072,"2021-12-21,09:27:35",10.1.1.8,2977,-0.010,-0.010,-0.010,0.000,0.000,0.000
1640078872896313856,"2021-12-21,09:27:45",10.1.1.8,12.985588073730469,-0.010,-0.010,-0.010,0.000,0.000,0.000
1640078909741282816,"2021-12-21,09:28:29",10.1.1.8,36.66621708869934,-0.020,-0.020,-0.020,0.000,0.000,0.000
1640078909741410048,"2021-12-21,09:28:16",10.1.1.8,23611,-0.020,-0.020,-0.020,0.000,0.000,0.000
1640078910903204864,"2021-12-21,09:28:30",10.1.1.8,1142,-0.030,-0.030,-0.030,0.000,0.000,0.000
1640078910940205056,"2021-12-21,09:28:30",10.1.1.8,1.182431936264038,-0.030,-0.030,-0.030,0.000,0.000,0.000
1640078911249507840,"2021-12-21,09:28:31",10.1.1.8,308,-0.040,-0.040,-0.040,0.000,0.000,0.000
1640078911284615936,"2021-12-21,09:28:31",10.1.1.8,0.34319019317626953,-0.040,-0.040,-0.040,0.000,0.000,0.000
1640078912457714176,"2021-12-21,09:28:32",10.1.1.8,371,-0.050,-0.050,-0.050,0.000,0.000,0.000
1640078912492440064,"2021-12-21,09:28:32",10.1.1.8,0.4065208435058594,-0.050,-0.050,-0.050,0.000,0.000,0.000
1640078912956175104,"2021-12-21,09:28:32",10.1.1.8,462,-0.060,-0.060,-0.060,0.000,0.000,0.000
1640078912996953856,"2021-12-21,09:28:32",10.1.1.8,0.5031111240386963,-0.060,-0.060,-0.060,0.000,0.000,0.000
1640078913865024000,"2021-12-21,09:28:33",10.1.1.8,866,-0.070,-0.070,-0.070,0.000,0.000,0.000
1640078913904530944,"2021-12-21,09:28:33",10.1.1.8,0.905987024307251,-0.070,-0.070,-0.070,0.000,0.000,0.000
1640078914256695040,"2021-12-21,09:28:34",10.1.1.8,350,-0.080,-0.080,-0.080,0.000,0.000,0.000
1640078914289180928,"2021-12-21,09:28:34",10.1.1.8,0.38085007667541504,-0.080,-0.080,-0.080,0.000,0.000,0.000
1640078914724883200,"2021-12-21,09:28:34",10.1.1.8,430,-0.090,-0.090,-0.090,0.000,0.000,0.000
1640078914808713984,"2021-12-21,09:28:34",10.1.1.8,0.5147230625152588,-0.090,-0.090,-0.090,0.000,0.000,0.000
1640078915624610816,"2021-12-21,09:28:35",10.1.1.8,814,-0.100,-0.100,-0.100,0.000,0.000,0.000
1640078915756676864,"2021-12-21,09:28:35",10.1.1.8,0.943993091583252,-0.100,-0.100,-0.100,0.000,0.000,0.000
1640078916151134976,"2021-12-21,09:28:36",10.1.1.8,392,-0.110,-0.110,-0.110,0.000,0.000,0.000
1640078916181932032,"2021-12-21,09:28:36",10.1.1.8,0.423084020614624,-0.110,-0.110,-0.110,0.000,0.000,0.000
1640078916552067072,"2021-12-21,09:28:36",10.1.1.8,368,-0.120,-0.120,-0.120,0.000,0.000,0.000
1640078916560216832,"2021-12-21,09:28:36",10.1.1.8,0.3767540454864502,-0.120,-0.120,-0.120,0.000,0.000,0.000
1640078916892451072,"2021-12-21,09:28:36",10.1.1.8,330,-0.130,-0.130,-0.130,0.000,0.000,0.000
1640078916915524864,"2021-12-21,09:28:36",10.1.1.8,0.35323119163513184,-0.130,-0.130,-0.130,0.000,0.000,0.000
1640078917229486848,"2021-12-21,09:28:37",10.1.1.8,310,-0.140,-0.140,-0.140,0.000,0.000,0.000
1640078917274982912,"2021-12-21,09:28:37",10.1.1.8,0.3555481433868408,-0.140,-0.140,-0.140,0.000,0.000,0.000
1640078917598629888,"2021-12-21,09:28:37",10.1.1.8,319,-0.150,-0.150,-0.150,0.000,0.000,0.000
1640078917649719040,"2021-12-21,09:28:37",10.1.1.8,0.37033700942993164,-0.150,-0.150,-0.150,0.000,0.000,0.000
1640078924497191936,"2021-12-21,09:28:44",10.1.1.8,6845,-0.160,-0.160,-0.160,0.000,0.000,0.000
1640078924533936896,"2021-12-21,09:28:44",10.1.1.8,6.882805824279785,-0.160,-0.160,-0.160,0.000,0.000,0.000
1640078924907421184,"2021-12-21,09:28:44",10.1.1.8,371,-0.170,-0.170,-0.170,0.000,0.000,0.000
1640078924951354880,"2021-12-21,09:28:44",10.1.1.8,0.41552090644836426,-0.170,-0.170,-0.170,0.000,0.000,0.000
1640078925375629056,"2021-12-21,09:28:45",10.1.1.8,422,-0.180,-0.180,-0.180,0.000,0.000,0.000
1640078925380002048,"2021-12-21,09:28:45",10.1.1.8,0.42691993713378906,-0.180,-0.180,-0.180,0.000,0.000,0.000
1640078925748128768,"2021-12-21,09:28:45",10.1.1.8,364,-0.190,-0.190,-0.190,0.000,0.000,0.000
1640078925796089856,"2021-12-21,09:28:45",10.1.1.8,0.4145689010620117,-0.190,-0.190,-0.190,0.000,0.000,0.000
1640078926158824960,"2021-12-21,09:28:46",10.1.1.8,360,-0.200,-0.200,-0.200,0.000,0.000,0.000
1640078926229129984,"2021-12-21,09:28:46",10.1.1.8,0.43058204650878906,-0.200,-0.200,-0.200,0.000,0.000,0.000
1640078926606369024,"2021-12-21,09:28:46",10.1.1.8,362,-0.210,-0.210,-0.210,0.000,0.000,0.000
1640078926633860096,"2021-12-21,09:28:46",10.1.1.8,0.3897559642791748,-0.210,-0.210,-0.210,0.000,0.000,0.000
1640078927032378880,"2021-12-21,09:28:47",10.1.1.8,397,-0.220,-0.220,-0.220,0.000,0.000,0.000
1640078927077084928,"2021-12-21,09:28:47",10.1.1.8,0.4418618679046631,-0.220,-0.220,-0.220,0.000,0.000,0.000
1640078927409024000,"2021-12-21,09:28:47",10.1.1.8,330,-0.230,-0.230,-0.230,0.000,0.000,0.000
1640078927448900096,"2021-12-21,09:28:47",10.1.1.8,0.37059998512268066,-0.230,-0.230,-0.230,0.000,0.000,0.000
1640078927919759104,"2021-12-21,09:28:47",10.1.1.8,455,-0.240,-0.240,-0.240,0.000,0.000,0.000
1640078927965073152,"2021-12-21,09:28:47",10.1.1.8,0.5013909339904785,-0.240,-0.240,-0.240,0.000,0.000,0.000
1640078928350320128,"2021-12-21,09:28:48",10.1.1.8,379,-0.250,-0.250,-0.250,0.000,0.000,0.000
1640078928382350848,"2021-12-21,09:28:48",10.1.1.8,0.4120490550994873,-0.250,-0.250,-0.250,0.000,0.000,0.000
1640078928787452928,"2021-12-21,09:28:48",10.1.1.8,403,-0.260,-0.260,-0.260,0.000,0.000,0.000
1640078928813932800,"2021-12-21,09:28:48",10.1.1.8,0.42960309982299805,-0.260,-0.260,-0.260,0.000,0.000,0.000
1640078929737686016,"2021-12-21,09:28:49",10.1.1.8,0.5260369777679443,-0.270,-0.270,-0.270,0.000,0.000,0.000
1640078930137486848,"2021-12-21,09:28:50",10.1.1.8,393,-0.280,-0.280,-0.280,0.000,0.000,0.000
1640078930153348864,"2021-12-21,09:28:50",10.1.1.8,0.40934109687805176,-0.280,-0.280,-0.280,0.000,0.000,0.000
1640078930547213056,"2021-12-21,09:28:50",10.1.1.8,390,-0.290,-0.290,-0.290,0.000,0.000,0.000
1640078930600663808,"2021-12-21,09:28:50",10.1.1.8,0.4439067840576172,-0.290,-0.290,-0.290,0.000,0.000,0.000
1640078930995304960,"2021-12-21,09:28:50",10.1.1.8,392,-0.300,-0.300,-0.300,0.000,0.000,0.000
1640078931030715904,"2021-12-21,09:28:51",10.1.1.8,0.42763805389404297,-0.300,-0.300,-0.300,0.000,0.000,0.000
1640078931416125952,"2021-12-21,09:28:51",10.1.1.8,382,-0.310,-0.310,-0.310,0.000,0.000,0.000
1640078931481908992,"2021-12-21,09:28:51",10.1.1.8,0.44878101348876953,-0.310,-0.310,-0.310,0.000,0.000,0.000
1640078931917274880,"2021-12-21,09:28:51",10.1.1.8,432,-0.320,-0.320,-0.320,0.000,0.000,0.000
1640078931939024896,"2021-12-21,09:28:51",10.1.1.8,0.45469093322753906,-0.320,-0.320,-0.320,0.000,0.000,0.000
1640078932279552000,"2021-12-21,09:28:52",10.1.1.8,339,-0.330,-0.330,-0.330,0.000,0.000,0.000
1640078932316747776,"2021-12-21,09:28:52",10.1.1.8,0.3761110305786133,-0.330,-0.330,-0.330,0.000,0.000,0.000
1640078932742622976,"2021-12-21,09:28:52",10.1.1.8,423,-0.340,-0.340,-0.340,0.000,0.000,0.000
1640078932760567040,"2021-12-21,09:28:52",10.1.1.8,0.4407830238342285,-0.340,-0.340,-0.340,0.000,0.000,0.000
1640078933131836928,"2021-12-21,09:28:53",10.1.1.8,368,-0.350,-0.350,-0.350,0.000,0.000,0.000
1640078933149192192,"2021-12-21,09:28:53",10.1.1.8,0.3863849639892578,-0.350,-0.350,-0.350,0.000,0.000,0.000
1640078933521296128,"2021-12-21,09:28:53",10.1.1.8,370,-0.360,-0.360,-0.360,0.000,0.000,0.000
1640078933597821952,"2021-12-21,09:28:53",10.1.1.8,0.4462721347808838,-0.360,-0.360,-0.360,0.000,0.000,0.000
1640078933923817984,"2021-12-21,09:28:53",10.1.1.8,324,-0.370,-0.370,-0.370,0.000,0.000,0.000
1640078933956315904,"2021-12-21,09:28:53",10.1.1.8,0.35680389404296875,-0.370,-0.370,-0.370,0.000,0.000,0.000
1640078934301097984,"2021-12-21,09:28:54",10.1.1.8,342,-0.380,-0.380,-0.380,0.000,0.000,0.000
1640078934313345024,"2021-12-21,09:28:54",10.1.1.8,0.35434913635253906,-0.380,-0.380,-0.380,0.000,0.000,0.000
1640078934675273984,"2021-12-21,09:28:54",10.1.1.8,345,-0.390,-0.390,-0.390,0.000,0.000,0.000
1640078934703654144,"2021-12-21,09:28:54",10.1.1.8,0.3726949691772461,-0.390,-0.390,-0.390,0.000,0.000,0.000
1640078935078212864,"2021-12-21,09:28:55",10.1.1.8,368,-0.400,-0.400,-0.400,0.000,0.000,0.000
1640078935154316032,"2021-12-21,09:28:55",10.1.1.8,0.44455385208129883,-0.400,-0.400,-0.400,0.000,0.000,0.000
1640078935477972992,"2021-12-21,09:28:55",10.1.1.8,320,-0.410,-0.410,-0.410,0.000,0.000,0.000
1640078935509954048,"2021-12-21,09:28:55",10.1.1.8,0.35289907455444336,-0.410,-0.410,-0.410,0.000,0.000,0.000
1640078935847635968,"2021-12-21,09:28:55",10.1.1.8,335,-0.420,-0.420,-0.420,0.000,0.000,0.000
1640078935927704064,"2021-12-21,09:28:55",10.1.1.8,0.416003942489624,-0.420,-0.420,-0.420,0.000,0.000,0.000
1640078936266119936,"2021-12-21,09:28:56",10.1.1.8,336,-0.430,-0.430,-0.430,0.000,0.000,0.000
1640078936331109888,"2021-12-21,09:28:56",10.1.1.8,0.40166211128234863,-0.430,-0.430,-0.430,0.000,0.000,0.000
1640078936675853056,"2021-12-21,09:28:56",10.1.1.8,339,-0.440,-0.440,-0.440,0.000,0.000,0.000
1640078936708098816,"2021-12-21,09:28:56",10.1.1.8,0.3714439868927002,-0.440,-0.440,-0.440,0.000,0.000,0.000
1640078937126162176,"2021-12-21,09:28:57",10.1.1.8,416,-0.450,-0.450,-0.450,0.000,0.000,0.000
1640078937155292160,"2021-12-21,09:28:57",10.1.1.8,0.44568300247192383,-0.450,-0.450,-0.450,0.000,0.000,0.000
1640078937585270784,"2021-12-21,09:28:57",10.1.1.8,426,-0.460,-0.460,-0.460,0.000,0.000,0.000
1640078937627779072,"2021-12-21,09:28:57",10.1.1.8,0.4695100784301758,-0.460,-0.460,-0.460,0.000,0.000,0.000
1640078938063708160,"2021-12-21,09:28:58",10.1.1.8,433,-0.470,-0.470,-0.470,0.000,0.000,0.000
1640078938119761920,"2021-12-21,09:28:58",10.1.1.8,0.48994994163513184,-0.470,-0.470,-0.470,0.000,0.000,0.000
1640078939092084992,"2021-12-21,09:28:59",10.1.1.8,966,-0.480,-0.480,-0.480,0.000,0.000,0.000
1640078939166152960,"2021-12-21,09:28:59",10.1.1.8,1.0405290126800537,-0.480,-0.480,-0.480,0.000,0.000,0.000
1640078939959842816,"2021-12-21,09:28:59",10.1.1.8,791,-0.490,-0.490,-0.490,0.000,0.000,0.000
1640078939987533056,"2021-12-21,09:28:59",10.1.1.8,0.8186221122741699,-0.490,-0.490,-0.490,0.000,0.000,0.000
1640078940454052096,"2021-12-21,09:29:00",10.1.1.8,460,-0.480,-0.480,-0.480,0.000,0.000,0.000
1640078940516994048,"2021-12-21,09:29:00",10.1.1.8,0.523900032043457,-0.480,-0.480,-0.480,0.000,0.000,0.000
1640078940855068928,"2021-12-21,09:29:00",10.1.1.8,335,-0.470,-0.470,-0.470,0.000,0.000,0.000
1640078940888164096,"2021-12-21,09:29:00",10.1.1.8,0.3694159984588623,-0.470,-0.470,-0.470,0.000,0.000,0.000
1640078941284976128,"2021-12-21,09:29:01",10.1.1.8,392,-0.460,-0.460,-0.460,0.000,0.000,0.000
1640078941333148928,"2021-12-21,09:29:01",10.1.1.8,0.4407389163970947,-0.460,-0.460,-0.460,0.000,0.000,0.000
1640078941772291840,"2021-12-21,09:29:01",10.1.1.8,435,-0.450,-0.450,-0.450,0.000,0.000,0.000
1640078941832425216,"2021-12-21,09:29:01",10.1.1.8,0.4960751533508301,-0.450,-0.450,-0.450,0.000,0.000,0.000
1640078943272020224,"2021-12-21,09:29:03",10.1.1.8,1438,-0.440,-0.440,-0.440,0.000,0.000,0.000
1640078943309989888,"2021-12-21,09:29:03",10.1.1.8,1.476121187210083,-0.440,-0.440,-0.440,0.000,0.000,0.000
1640078944079616000,"2021-12-21,09:29:04",10.1.1.8,0.7673890590667725,-0.430,-0.430,-0.430,0.000,0.000,0.000
1640078945130189056,"2021-12-21,09:29:05",10.1.1.8,1048,-0.420,-0.420,-0.420,0.000,0.000,0.000
1640078945146125056,"2021-12-21,09:29:05",10.1.1.8,1.0649569034576416,-0.420,-0.420,-0.420,0.000,0.000,0.000
1640078945454850048,"2021-12-21,09:29:05",10.1.1.8,306,-0.410,-0.410,-0.410,0.000,0.000,0.000
1640078945505740800,"2021-12-21,09:29:05",10.1.1.8,0.3578159809112549,-0.410,-0.410,-0.410,0.000,0.000,0.000
1640078945900870912,"2021-12-21,09:29:05",10.1.1.8,393,-0.400,-0.400,-0.400,0.000,0.000,0.000
1640078945987721984,"2021-12-21,09:29:05",10.1.1.8,0.480090856552124,-0.400,-0.400,-0.400,0.000,0.000,0.000
1640078946325454080,"2021-12-21,09:29:06",10.1.1.8,332,-0.390,-0.390,-0.390,0.000,0.000,0.000
1640078946364395008,"2021-12-21,09:29:06",10.1.1.8,0.3709981441497803,-0.390,-0.390,-0.390,0.000,0.000,0.000
1640078946713628928,"2021-12-21,09:29:06",10.1.1.8,347,-0.380,-0.380,-0.380,0.000,0.000,0.000
1640078946793032960,"2021-12-21,09:29:06",10.1.1.8,0.42694091796875,-0.380,-0.380,-0.380,0.000,0.000,0.000
1640078948599812096,"2021-12-21,09:29:08",10.1.1.8,1804,-0.370,-0.370,-0.370,0.000,0.000,0.000
1640078948683481088,"2021-12-21,09:29:08",10.1.1.8,1.8886210918426514,-0.370,-0.370,-0.370,0.000,0.000,0.000
1640078949356004864,"2021-12-21,09:29:09",10.1.1.8,671,-0.360,-0.360,-0.360,0.000,0.000,0.000
1640078949398221056,"2021-12-21,09:29:09",10.1.1.8,0.7134559154510498,-0.360,-0.360,-0.360,0.000,0.000,0.000
1640078950023198976,"2021-12-21,09:29:10",10.1.1.8,623,-0.350,-0.350,-0.350,0.000,0.000,0.000
1640078950073835008,"2021-12-21,09:29:10",10.1.1.8,0.674206018447876,-0.350,-0.350,-0.350,0.000,0.000,0.000
1640078950534810112,"2021-12-21,09:29:10",10.1.1.8,458,-0.340,-0.340,-0.340,0.000,0.000,0.000
1640078950586767872,"2021-12-21,09:29:10",10.1.1.8,0.4709639549255371,-0.340,-0.340,-0.340,0.000,0.000,0.000
1640078951080398080,"2021-12-21,09:29:11",10.1.1.8,479,-0.330,-0.330,-0.330,0.000,0.000,0.000
1640078951125044224,"2021-12-21,09:29:11",10.1.1.8,0.5264778137207031,-0.330,-0.330,-0.330,0.000,0.000,0.000
1640078952172473856,"2021-12-21,09:29:12",10.1.1.8,1045,-0.320,-0.320,-0.320,0.000,0.000,0.000
1640078952222803200,"2021-12-21,09:29:12",10.1.1.8,1.0959351062774658,-0.320,-0.320,-0.320,0.000,0.000,0.000
1640078952635044096,"2021-12-21,09:29:12",10.1.1.8,409,-0.310,-0.310,-0.310,0.000,0.000,0.000
1640078952692879872,"2021-12-21,09:29:12",10.1.1.8,0.46756577491760254,-0.310,-0.310,-0.310,0.000,0.000,0.000
1640078953803705088,"2021-12-21,09:29:13",10.1.1.8,1105,-0.300,-0.300,-0.300,0.000,0.000,0.000
1640078953831863040,"2021-12-21,09:29:13",10.1.1.8,1.1336019039154053,-0.300,-0.300,-0.300,0.000,0.000,0.000
1640078954300916992,"2021-12-21,09:29:14",10.1.1.8,458,-0.290,-0.290,-0.290,0.000,0.000,0.000
1640078954348273920,"2021-12-21,09:29:14",10.1.1.8,0.505979061126709,-0.290,-0.290,-0.290,0.000,0.000,0.000
1640078954832524032,"2021-12-21,09:29:14",10.1.1.8,482,-0.280,-0.280,-0.280,0.000,0.000,0.000
1640078954863209984,"2021-12-21,09:29:14",10.1.1.8,0.5121769905090332,-0.280,-0.280,-0.280,0.000,0.000,0.000
1640078955645425152,"2021-12-21,09:29:15",10.1.1.8,780,-0.270,-0.270,-0.270,0.000,0.000,0.000
1640078955680619008,"2021-12-21,09:29:15",10.1.1.8,0.8159470558166504,-0.270,-0.270,-0.270,0.000,0.000,0.000
1640078956185516032,"2021-12-21,09:29:16",10.1.1.8,503,-0.260,-0.260,-0.260,0.000,0.000,0.000
1640078956221616896,"2021-12-21,09:29:16",10.1.1.8,0.539376974105835,-0.260,-0.260,-0.260,0.000,0.000,0.000
1640078956647888896,"2021-12-21,09:29:16",10.1.1.8,424,-0.250,-0.250,-0.250,0.000,0.000,0.000
1640078956685566976,"2021-12-21,09:29:16",10.1.1.8,0.462475061416626,-0.250,-0.250,-0.250,0.000,0.000,0.000
1640078957688674816,"2021-12-21,09:29:17",10.1.1.8,998,-0.240,-0.240,-0.240,0.000,0.000,0.000
1640078957727449856,"2021-12-21,09:29:17",10.1.1.8,1.0376100540161133,-0.240,-0.240,-0.240,0.000,0.000,0.000
1640078958079320064,"2021-12-21,09:29:18",10.1.1.8,349,-0.230,-0.230,-0.230,0.000,0.000,0.000
1640078958098351872,"2021-12-21,09:29:18",10.1.1.8,0.368419885635376,-0.230,-0.230,-0.230,0.000,0.000,0.000
1640078959111452160,"2021-12-21,09:29:19",10.1.1.8,1010,-0.220,-0.220,-0.220,0.000,0.000,0.000
1640078959164456960,"2021-12-21,09:29:19",10.1.1.8,1.0638840198516846,-0.220,-0.220,-0.220,0.000,0.000,0.000
1640078959509989888,"2021-12-21,09:29:19",10.1.1.8,344,-0.210,-0.210,-0.210,0.000,0.000,0.000
1640078959582226944,"2021-12-21,09:29:19",10.1.1.8,0.4163851737976074,-0.210,-0.210,-0.210,0.000,0.000,0.000
1640078959951612928,"2021-12-21,09:29:19",10.1.1.8,367,-0.200,-0.200,-0.200,0.000,0.000,0.000
1640078959964657920,"2021-12-21,09:29:19",10.1.1.8,0.38094305992126465,-0.200,-0.200,-0.200,0.000,0.000,0.000
1640078960352957952,"2021-12-21,09:29:20",10.1.1.8,374,-0.190,-0.190,-0.190,0.000,0.000,0.000
1640078960372438784,"2021-12-21,09:29:20",10.1.1.8,0.4061260223388672,-0.190,-0.190,-0.190,0.000,0.000,0.000
1640078960765153792,"2021-12-21,09:29:20",10.1.1.8,389,-0.180,-0.180,-0.180,0.000,0.000,0.000
1640078960772470016,"2021-12-21,09:29:20",10.1.1.8,0.3968839645385742,-0.180,-0.180,-0.180,0.000,0.000,0.000
1640078961287853056,"2021-12-21,09:29:21",10.1.1.8,510,-0.170,-0.170,-0.170,0.000,0.000,0.000
1640078961378438912,"2021-12-21,09:29:21",10.1.1.8,0.601959228515625,-0.170,-0.170,-0.170,0.000,0.000,0.000
1640078961851593984,"2021-12-21,09:29:21",10.1.1.8,464,-0.160,-0.160,-0.160,0.000,0.000,0.000
1640078961917957120,"2021-12-21,09:29:21",10.1.1.8,0.5351879596710205,-0.160,-0.160,-0.160,0.000,0.000,0.000
1640078962380994048,"2021-12-21,09:29:22",10.1.1.8,458,-0.150,-0.150,-0.150,0.000,0.000,0.000
1640078962449527040,"2021-12-21,09:29:22",10.1.1.8,0.527400016784668,-0.150,-0.150,-0.150,0.000,0.000,0.000
1640078962891926016,"2021-12-21,09:29:22",10.1.1.8,438,-0.140,-0.140,-0.140,0.000,0.000,0.000
1640078962951017984,"2021-12-21,09:29:22",10.1.1.8,0.4982471466064453,-0.140,-0.140,-0.140,0.000,0.000,0.000
1640078963351885056,"2021-12-21,09:29:23",10.1.1.8,398,-0.130,-0.130,-0.130,0.000,0.000,0.000
1640078963385116160,"2021-12-21,09:29:23",10.1.1.8,0.43173885345458984,-0.130,-0.130,-0.130,0.000,0.000,0.000
1640078963752424960,"2021-12-21,09:29:23",10.1.1.8,360,-0.120,-0.120,-0.120,0.000,0.000,0.000
1640078963810787840,"2021-12-21,09:29:23",10.1.1.8,0.41715288162231445,-0.120,-0.120,-0.120,0.000,0.000,0.000
1640078964221460992,"2021-12-21,09:29:24",10.1.1.8,408,-0.110,-0.110,-0.110,0.000,0.000,0.000
1640078964258297856,"2021-12-21,09:29:24",10.1.1.8,0.44547104835510254,-0.110,-0.110,-0.110,0.000,0.000,0.000
1640078964630420992,"2021-12-21,09:29:24",10.1.1.8,370,-0.100,-0.100,-0.100,0.000,0.000,0.000
1640078964685338112,"2021-12-21,09:29:24",10.1.1.8,0.4251580238342285,-0.100,-0.100,-0.100,0.000,0.000,0.000
1640078965050298880,"2021-12-21,09:29:25",10.1.1.8,360,-0.090,-0.090,-0.090,0.000,0.000,0.000
1640078965084613120,"2021-12-21,09:29:25",10.1.1.8,0.39513516426086426,-0.090,-0.090,-0.090,0.000,0.000,0.000
1640078965480953856,"2021-12-21,09:29:25",10.1.1.8,394,-0.080,-0.080,-0.080,0.000,0.000,0.000
1640078965560317952,"2021-12-21,09:29:25",10.1.1.8,0.4741511344909668,-0.080,-0.080,-0.080,0.000,0.000,0.000
1640078965929526016,"2021-12-21,09:29:25",10.1.1.8,366,-0.070,-0.070,-0.070,0.000,0.000,0.000
1640078965976346112,"2021-12-21,09:29:25",10.1.1.8,0.4137558937072754,-0.070,-0.070,-0.070,0.000,0.000,0.000
1640078966299692032,"2021-12-21,09:29:26",10.1.1.8,320,-0.060,-0.060,-0.060,0.000,0.000,0.000
1640078966349724928,"2021-12-21,09:29:26",10.1.1.8,0.37096190452575684,-0.060,-0.060,-0.060,0.000,0.000,0.000
1640078966759569920,"2021-12-21,09:29:26",10.1.1.8,405,-0.050,-0.050,-0.050,0.000,0.000,0.000
1640078966786177024,"2021-12-21,09:29:26",10.1.1.8,0.4324319362640381,-0.050,-0.050,-0.050,0.000,0.000,0.000
1640078967148366848,"2021-12-21,09:29:27",10.1.1.8,354,-0.040,-0.040,-0.040,0.000,0.000,0.000
1640078967201585152,"2021-12-21,09:29:27",10.1.1.8,0.4078218936920166,-0.040,-0.040,-0.040,0.000,0.000,0.000
1640078967558469120,"2021-12-21,09:29:27",10.1.1.8,355,-0.030,-0.030,-0.030,0.000,0.000,0.000
1640078967600927232,"2021-12-21,09:29:27",10.1.1.8,0.39789700508117676,-0.030,-0.030,-0.030,0.000,0.000,0.000
1640078967957937920,"2021-12-21,09:29:27",10.1.1.8,355,-0.020,-0.020,-0.020,0.000,0.000,0.000
1640078967990333952,"2021-12-21,09:29:27",10.1.1.8,0.3876969814300537,-0.020,-0.020,-0.020,0.000,0.000,0.000
1640078968371289856,"2021-12-21,09:29:28",10.1.1.8,379,-0.010,-0.010,-0.010,0.000,0.000,0.000
1640078968382215936,"2021-12-21,09:29:28",10.1.1.8,0.39035487174987793,-0.010,-0.010,-0.010,0.000,0.000,0.000
1640078968737787904,"2021-12-21,09:29:28",10.1.1.8,347,0.000,0.000,0.000,0.000,0.000,0.000
1640078968757127936,"2021-12-21,09:29:28",10.1.1.8,0.3666369915008545,0.000,0.000,0.000,0.000,0.000,0.000
1640078969138281984,"2021-12-21,09:29:29",10.1.1.8,378,-0.010,-0.010,-0.010,0.000,0.000,0.000
1640078969160304128,"2021-12-21,09:29:29",10.1.1.8,0.40105104446411133,-0.010,-0.010,-0.010,0.000,0.000,0.000
1640078969541726208,"2021-12-21,09:29:29",10.1.1.8,378,-0.020,-0.020,-0.020,0.000,0.000,0.000
1640078969561865984,"2021-12-21,09:29:29",10.1.1.8,0.39862704277038574,-0.020,-0.020,-0.020,0.000,0.000,0.000
1640078969897769984,"2021-12-21,09:29:29",10.1.1.8,334,-0.030,-0.030,-0.030,0.000,0.000,0.000
1640078969999748096,"2021-12-21,09:29:29",10.1.1.8,0.43645596504211426,-0.030,-0.030,-0.030,0.000,0.000,0.000
1640078970346699008,"2021-12-21,09:29:30",10.1.1.8,344,-0.040,-0.040,-0.040,0.000,0.000,0.000
1640078970398475008,"2021-12-21,09:29:30",10.1.1.8,0.3964121341705322,-0.040,-0.040,-0.040,0.000,0.000,0.000
1640078970797233152,"2021-12-21,09:29:30",10.1.1.8,390,-0.050,-0.050,-0.050,0.000,0.000,0.000
1640078970840395008,"2021-12-21,09:29:30",10.1.1.8,0.43515801429748535,-0.050,-0.050,-0.050,0.000,0.000,0.000
1640078971187500032,"2021-12-21,09:29:31",10.1.1.8,342,-0.060,-0.060,-0.060,0.000,0.000,0.000
1640078971211364096,"2021-12-21,09:29:31",10.1.1.8,0.36554884910583496,-0.060,-0.060,-0.060,0.000,0.000,0.000
1640078971573720064,"2021-12-21,09:29:31",10.1.1.8,358,-0.070,-0.070,-0.070,0.000,0.000,0.000
1640078971588396032,"2021-12-21,09:29:31",10.1.1.8,0.3730459213256836,-0.070,-0.070,-0.070,0.000,0.000,0.000
1640078971983567872,"2021-12-21,09:29:31",10.1.1.8,374,-0.080,-0.080,-0.080,0.000,0.000,0.000
1640078972021565952,"2021-12-21,09:29:32",10.1.1.8,0.41234588623046875,-0.080,-0.080,-0.080,0.000,0.000,0.000
1640078972363440128,"2021-12-21,09:29:32",10.1.1.8,339,-0.090,-0.090,-0.090,0.000,0.000,0.000
1640078972419155968,"2021-12-21,09:29:32",10.1.1.8,0.394913911819458,-0.090,-0.090,-0.090,0.000,0.000,0.000
1640078972743452160,"2021-12-21,09:29:32",10.1.1.8,321,-0.100,-0.100,-0.100,0.000,0.000,0.000
1640078972804416768,"2021-12-21,09:29:32",10.1.1.8,0.3833198547363281,-0.100,-0.100,-0.100,0.000,0.000,0.000
1640078973151973120,"2021-12-21,09:29:33",10.1.1.8,343,-0.110,-0.110,-0.110,0.000,0.000,0.000
1640078973171641088,"2021-12-21,09:29:33",10.1.1.8,0.36220884323120117,-0.110,-0.110,-0.110,0.000,0.000,0.000
1640078973501146112,"2021-12-21,09:29:33",10.1.1.8,324,-0.120,-0.120,-0.120,0.000,0.000,0.000
1640078973523803904,"2021-12-21,09:29:33",10.1.1.8,0.3474118709564209,-0.120,-0.120,-0.120,0.000,0.000,0.000
1640078973886822912,"2021-12-21,09:29:33",10.1.1.8,361,-0.130,-0.130,-0.130,0.000,0.000,0.000
1640078973952284160,"2021-12-21,09:29:33",10.1.1.8,0.4265880584716797,-0.130,-0.130,-0.130,0.000,0.000,0.000
1640078974320132096,"2021-12-21,09:29:34",10.1.1.8,365,-0.140,-0.140,-0.140,0.000,0.000,0.000
1640078974354758912,"2021-12-21,09:29:34",10.1.1.8,0.3997011184692383,-0.140,-0.140,-0.140,0.000,0.000,0.000
1640078974699975936,"2021-12-21,09:29:34",10.1.1.8,343,-0.150,-0.150,-0.150,0.000,0.000,0.000
1640078974742001920,"2021-12-21,09:29:34",10.1.1.8,0.3855738639831543,-0.150,-0.150,-0.150,0.000,0.000,0.000
1640078975070193152,"2021-12-21,09:29:35",10.1.1.8,318,-0.160,-0.160,-0.160,0.000,0.000,0.000
1640078975124790016,"2021-12-21,09:29:35",10.1.1.8,0.3731350898742676,-0.160,-0.160,-0.160,0.000,0.000,0.000
1640078975573402880,"2021-12-21,09:29:35",10.1.1.8,447,-0.170,-0.170,-0.170,0.000,0.000,0.000
1640078975620150016,"2021-12-21,09:29:35",10.1.1.8,0.4939849376678467,-0.170,-0.170,-0.170,0.000,0.000,0.000
1640078975938267904,"2021-12-21,09:29:35",10.1.1.8,315,-0.180,-0.180,-0.180,0.000,0.000,0.000
1640078975985232128,"2021-12-21,09:29:35",10.1.1.8,0.3627359867095947,-0.180,-0.180,-0.180,0.000,0.000,0.000
1640078976371893760,"2021-12-21,09:29:36",10.1.1.8,384,-0.190,-0.190,-0.190,0.000,0.000,0.000
1640078976416408064,"2021-12-21,09:29:36",10.1.1.8,0.42871594429016113,-0.190,-0.190,-0.190,0.000,0.000,0.000
1640078976760427008,"2021-12-21,09:29:36",10.1.1.8,342,-0.200,-0.200,-0.200,0.000,0.000,0.000
1640078976826208000,"2021-12-21,09:29:36",10.1.1.8,0.40796685218811035,-0.200,-0.200,-0.200,0.000,0.000,0.000
1640078977172445952,"2021-12-21,09:29:37",10.1.1.8,344,-0.210,-0.210,-0.210,0.000,0.000,0.000
1640078977214968064,"2021-12-21,09:29:37",10.1.1.8,0.38718605041503906,-0.210,-0.210,-0.210,0.000,0.000,0.000
1640078977594501888,"2021-12-21,09:29:37",10.1.1.8,378,-0.220,-0.220,-0.220,0.000,0.000,0.000
1640078977657046016,"2021-12-21,09:29:37",10.1.1.8,0.4407470226287842,-0.220,-0.220,-0.220,0.000,0.000,0.000
1640078978046144000,"2021-12-21,09:29:38",10.1.1.8,387,-0.230,-0.230,-0.230,0.000,0.000,0.000
1640078978074027008,"2021-12-21,09:29:38",10.1.1.8,0.4152560234069824,-0.230,-0.230,-0.230,0.000,0.000,0.000
1640078978418756096,"2021-12-21,09:29:38",10.1.1.8,342,-0.240,-0.240,-0.240,0.000,0.000,0.000
1640078978491767040,"2021-12-21,09:29:38",10.1.1.8,0.416431188583374,-0.240,-0.240,-0.240,0.000,0.000,0.000
1640078978900271872,"2021-12-21,09:29:38",10.1.1.8,406,-0.250,-0.250,-0.250,0.000,0.000,0.000
1640078978970158080,"2021-12-21,09:29:38",10.1.1.8,0.4764571189880371,-0.250,-0.250,-0.250,0.000,0.000,0.000
1640078979343310080,"2021-12-21,09:29:39",10.1.1.8,369,-0.260,-0.260,-0.260,0.000,0.000,0.000
1640078979377986816,"2021-12-21,09:29:39",10.1.1.8,0.4039738178253174,-0.260,-0.260,-0.260,0.000,0.000,0.000
1640078979733065984,"2021-12-21,09:29:39",10.1.1.8,353,-0.270,-0.270,-0.270,0.000,0.000,0.000
1640078979776763904,"2021-12-21,09:29:39",10.1.1.8,0.3966660499572754,-0.270,-0.270,-0.270,0.000,0.000,0.000
1640078980144527872,"2021-12-21,09:29:40",10.1.1.8,364,-0.280,-0.280,-0.280,0.000,0.000,0.000
1640078980185722112,"2021-12-21,09:29:40",10.1.1.8,0.4063148498535156,-0.280,-0.280,-0.280,0.000,0.000,0.000
1640078980574338048,"2021-12-21,09:29:40",10.1.1.8,386,-0.290,-0.290,-0.290,0.000,0.000,0.000
1640078980616374016,"2021-12-21,09:29:40",10.1.1.8,0.4288759231567383,-0.290,-0.290,-0.290,0.000,0.000,0.000
1640078981011292928,"2021-12-21,09:29:41",10.1.1.8,392,-0.300,-0.300,-0.300,0.000,0.000,0.000
1640078981070601984,"2021-12-21,09:29:41",10.1.1.8,0.45155882835388184,-0.300,-0.300,-0.300,0.000,0.000,0.000
1640078981406151168,"2021-12-21,09:29:41",10.1.1.8,333,-0.310,-0.310,-0.310,0.000,0.000,0.000
1640078981466743040,"2021-12-21,09:29:41",10.1.1.8,0.39377403259277344,-0.310,-0.310,-0.310,0.000,0.000,0.000
1640078981847902976,"2021-12-21,09:29:41",10.1.1.8,379,-0.320,-0.320,-0.320,0.000,0.000,0.000
1640078981879139072,"2021-12-21,09:29:41",10.1.1.8,0.4108428955078125,-0.320,-0.320,-0.320,0.000,0.000,0.000
1640078982243577856,"2021-12-21,09:29:42",10.1.1.8,361,-0.330,-0.330,-0.330,0.000,0.000,0.000
1640078982333150976,"2021-12-21,09:29:42",10.1.1.8,0.4507930278778076,-0.330,-0.330,-0.330,0.000,0.000,0.000
1640078982729629952,"2021-12-21,09:29:42",10.1.1.8,389,-0.340,-0.340,-0.340,0.000,0.000,0.000
1640078982778744832,"2021-12-21,09:29:42",10.1.1.8,0.43863916397094727,-0.340,-0.340,-0.340,0.000,0.000,0.000
1640078983319705856,"2021-12-21,09:29:43",10.1.1.8,539,-0.350,-0.350,-0.350,0.000,0.000,0.000
1640078983371443968,"2021-12-21,09:29:43",10.1.1.8,0.5908021926879883,-0.350,-0.350,-0.350,0.000,0.000,0.000
1640078983732137984,"2021-12-21,09:29:43",10.1.1.8,358,-0.360,-0.360,-0.360,0.000,0.000,0.000
1640078983781358848,"2021-12-21,09:29:43",10.1.1.8,0.40744686126708984,-0.360,-0.360,-0.360,0.000,0.000,0.000
1640078983792495872,"2021-12-21,09:29:43",10.1.1.8,-2,-0.370,-0.370,-0.370,0.000,0.000,0.000
1640078984167945984,"2021-12-21,09:29:44",10.1.1.8,0.38507795333862305,-0.370,-0.370,-0.370,0.000,0.000,0.000
1640078984500916992,"2021-12-21,09:29:44",10.1.1.8,331,-0.380,-0.380,-0.380,0.000,0.000,0.000
1640078984556704000,"2021-12-21,09:29:44",10.1.1.8,0.3872511386871338,-0.380,-0.380,-0.380,0.000,0.000,0.000
1640078984940925952,"2021-12-21,09:29:44",10.1.1.8,377,-0.390,-0.390,-0.390,0.000,0.000,0.000
1640078984966562048,"2021-12-21,09:29:44",10.1.1.8,0.4028642177581787,-0.390,-0.390,-0.390,0.000,0.000,0.000
1640078985411938048,"2021-12-21,09:29:45",10.1.1.8,440,-0.400,-0.400,-0.400,0.000,0.000,0.000
1640078985477310976,"2021-12-21,09:29:45",10.1.1.8,0.505756139755249,-0.400,-0.400,-0.400,0.000,0.000,0.000
1640078985495801856,"2021-12-21,09:29:45",10.1.1.8,-7,-0.410,-0.410,-0.410,0.000,0.000,0.000
1640078985920958976,"2021-12-21,09:29:45",10.1.1.8,0.4287710189819336,-0.410,-0.410,-0.410,0.000,0.000,0.000
1640078986301584896,"2021-12-21,09:29:46",10.1.1.8,379,-0.420,-0.420,-0.420,0.000,0.000,0.000
1640078986365438976,"2021-12-21,09:29:46",10.1.1.8,0.44290709495544434,-0.420,-0.420,-0.420,0.000,0.000,0.000
1640078986711958784,"2021-12-21,09:29:46",10.1.1.8,344,-0.430,-0.430,-0.430,0.000,0.000,0.000
1640078986755532032,"2021-12-21,09:29:46",10.1.1.8,0.38831281661987305,-0.430,-0.430,-0.430,0.000,0.000,0.000
1640078987091969024,"2021-12-21,09:29:47",10.1.1.8,334,-0.440,-0.440,-0.440,0.000,0.000,0.000
1640078987123047168,"2021-12-21,09:29:47",10.1.1.8,0.3654801845550537,-0.440,-0.440,-0.440,0.000,0.000,0.000
1640078987531475968,"2021-12-21,09:29:47",10.1.1.8,404,-0.450,-0.450,-0.450,0.000,0.000,0.000
1640078987565752064,"2021-12-21,09:29:47",10.1.1.8,0.43865513801574707,-0.450,-0.450,-0.450,0.000,0.000,0.000
1640078987983025920,"2021-12-21,09:29:47",10.1.1.8,413,-0.460,-0.460,-0.460,0.000,0.000,0.000
1640078988051027968,"2021-12-21,09:29:48",10.1.1.8,0.4828341007232666,-0.460,-0.460,-0.460,0.000,0.000,0.000
1640078988411834880,"2021-12-21,09:29:48",10.1.1.8,359,-0.470,-0.470,-0.470,0.000,0.000,0.000
1640078988454394112,"2021-12-21,09:29:48",10.1.1.8,0.40198302268981934,-0.470,-0.470,-0.470,0.000,0.000,0.000
1640078988861358848,"2021-12-21,09:29:48",10.1.1.8,405,-0.480,-0.480,-0.480,0.000,0.000,0.000
1640078988881993984,"2021-12-21,09:29:48",10.1.1.8,0.4260280132293701,-0.480,-0.480,-0.480,0.000,0.000,0.000
1640078989241509888,"2021-12-21,09:29:49",10.1.1.8,356,-0.490,-0.490,-0.490,0.000,0.000,0.000
1640078989306904064,"2021-12-21,09:29:49",10.1.1.8,0.42226219177246094,-0.490,-0.490,-0.490,0.000,0.000,0.000
1640078989680870912,"2021-12-21,09:29:49",10.1.1.8,372,-0.480,-0.480,-0.480,0.000,0.000,0.000
1640078989762821888,"2021-12-21,09:29:49",10.1.1.8,0.4509131908416748,-0.480,-0.480,-0.480,0.000,0.000,0.000
1640078990131287040,"2021-12-21,09:29:50",10.1.1.8,362,-0.470,-0.470,-0.470,0.000,0.000,0.000
1640078990153188096,"2021-12-21,09:29:50",10.1.1.8,0.38410496711730957,-0.470,-0.470,-0.470,0.000,0.000,0.000
1640078990501223168,"2021-12-21,09:29:50",10.1.1.8,346,-0.460,-0.460,-0.460,0.000,0.000,0.000
1640078990534316032,"2021-12-21,09:29:50",10.1.1.8,0.379802942276001,-0.460,-0.460,-0.460,0.000,0.000,0.000
1640078990940102144,"2021-12-21,09:29:50",10.1.1.8,404,-0.450,-0.450,-0.450,0.000,0.000,0.000
1640078991020633088,"2021-12-21,09:29:51",10.1.1.8,0.48467206954956055,-0.450,-0.450,-0.450,0.000,0.000,0.000
1640078991499902976,"2021-12-21,09:29:51",10.1.1.8,476,-0.440,-0.440,-0.440,0.000,0.000,0.000
1640078991550065152,"2021-12-21,09:29:51",10.1.1.8,0.5264551639556885,-0.440,-0.440,-0.440,0.000,0.000,0.000
1640078991917520128,"2021-12-21,09:29:51",10.1.1.8,362,-0.430,-0.430,-0.430,0.000,0.000,0.000
1640078991977314048,"2021-12-21,09:29:51",10.1.1.8,0.4228219985961914,-0.430,-0.430,-0.430,0.000,0.000,0.000
1640078992299744000,"2021-12-21,09:29:52",10.1.1.8,320,-0.420,-0.420,-0.420,0.000,0.000,0.000
1640078992328933120,"2021-12-21,09:29:52",10.1.1.8,0.3495769500732422,-0.420,-0.420,-0.420,0.000,0.000,0.000
1640078992678874880,"2021-12-21,09:29:52",10.1.1.8,348,-0.410,-0.410,-0.410,0.000,0.000,0.000
1640078992748136960,"2021-12-21,09:29:52",10.1.1.8,0.41785597801208496,-0.410,-0.410,-0.410,0.000,0.000,0.000
1640078993128654848,"2021-12-21,09:29:53",10.1.1.8,377,-0.400,-0.400,-0.400,0.000,0.000,0.000
1640078993197779968,"2021-12-21,09:29:53",10.1.1.8,0.446530818939209,-0.400,-0.400,-0.400,0.000,0.000,0.000
1640078993607912960,"2021-12-21,09:29:53",10.1.1.8,407,-0.390,-0.390,-0.390,0.000,0.000,0.000
1640078993631360000,"2021-12-21,09:29:53",10.1.1.8,0.4293649196624756,-0.390,-0.390,-0.390,0.000,0.000,0.000
1640078994028103168,"2021-12-21,09:29:54",10.1.1.8,389,-0.380,-0.380,-0.380,0.000,0.000,0.000
1640078994058876928,"2021-12-21,09:29:54",10.1.1.8,0.42588090896606445,-0.380,-0.380,-0.380,0.000,0.000,0.000
1640078994417843968,"2021-12-21,09:29:54",10.1.1.8,357,-0.370,-0.370,-0.370,0.000,0.000,0.000
1640078994460109824,"2021-12-21,09:29:54",10.1.1.8,0.3994450569152832,-0.370,-0.370,-0.370,0.000,0.000,0.000
1640078994837526016,"2021-12-21,09:29:54",10.1.1.8,375,-0.360,-0.360,-0.360,0.000,0.000,0.000
1640078994856657920,"2021-12-21,09:29:54",10.1.1.8,0.39472293853759766,-0.360,-0.360,-0.360,0.000,0.000,0.000
1640078995226819072,"2021-12-21,09:29:55",10.1.1.8,364,-0.350,-0.350,-0.350,0.000,0.000,0.000
1640078995272638976,"2021-12-21,09:29:55",10.1.1.8,0.41057515144348145,-0.350,-0.350,-0.350,0.000,0.000,0.000
1640078995586227968,"2021-12-21,09:29:55",10.1.1.8,311,-0.340,-0.340,-0.340,0.000,0.000,0.000
1640078995618029056,"2021-12-21,09:29:55",10.1.1.8,0.34211111068725586,-0.340,-0.340,-0.340,0.000,0.000,0.000
1640078995976077056,"2021-12-21,09:29:55",10.1.1.8,355,-0.330,-0.330,-0.330,0.000,0.000,0.000
1640078996066586112,"2021-12-21,09:29:56",10.1.1.8,0.44629502296447754,-0.330,-0.330,-0.330,0.000,0.000,0.000
1640078996424781056,"2021-12-21,09:29:56",10.1.1.8,353,-0.320,-0.320,-0.320,0.000,0.000,0.000
1640078996478123776,"2021-12-21,09:29:56",10.1.1.8,0.40662503242492676,-0.320,-0.320,-0.320,0.000,0.000,0.000
1640078996814505984,"2021-12-21,09:29:56",10.1.1.8,334,-0.310,-0.310,-0.310,0.000,0.000,0.000
1640078996874041088,"2021-12-21,09:29:56",10.1.1.8,0.39365601539611816,-0.310,-0.310,-0.310,0.000,0.000,0.000
1640078997223732992,"2021-12-21,09:29:57",10.1.1.8,347,-0.300,-0.300,-0.300,0.000,0.000,0.000
1640078997280595968,"2021-12-21,09:29:57",10.1.1.8,0.4046058654785156,-0.300,-0.300,-0.300,0.000,0.000,0.000
1640078997633698048,"2021-12-21,09:29:57",10.1.1.8,351,-0.290,-0.290,-0.290,0.000,0.000,0.000
1640078997679820032,"2021-12-21,09:29:57",10.1.1.8,0.3975510597229004,-0.290,-0.290,-0.290,0.000,0.000,0.000
1640078998033723136,"2021-12-21,09:29:58",10.1.1.8,352,-0.280,-0.280,-0.280,0.000,0.000,0.000
1640078998067399936,"2021-12-21,09:29:58",10.1.1.8,0.38636183738708496,-0.280,-0.280,-0.280,0.000,0.000,0.000
1640078998452114176,"2021-12-21,09:29:58",10.1.1.8,382,-0.270,-0.270,-0.270,0.000,0.000,0.000
1640078998513042944,"2021-12-21,09:29:58",10.1.1.8,0.44377994537353516,-0.270,-0.270,-0.270,0.000,0.000,0.000
1640078998881573888,"2021-12-21,09:29:58",10.1.1.8,367,-0.260,-0.260,-0.260,0.000,0.000,0.000
1640078998934668032,"2021-12-21,09:29:58",10.1.1.8,0.4200279712677002,-0.260,-0.260,-0.260,0.000,0.000,0.000
1640078999361720064,"2021-12-21,09:29:59",10.1.1.8,423,-0.250,-0.250,-0.250,0.000,0.000,0.000
1640078999424662016,"2021-12-21,09:29:59",10.1.1.8,0.4874541759490967,-0.250,-0.250,-0.250,0.000,0.000,0.000
1640078999810561024,"2021-12-21,09:29:59",10.1.1.8,383,-0.240,-0.240,-0.240,0.000,0.000,0.000
1640078999901138944,"2021-12-21,09:29:59",10.1.1.8,0.4744749069213867,-0.240,-0.240,-0.240,0.000,0.000,0.000
1640079000261702912,"2021-12-21,09:30:00",10.1.1.8,359,-0.230,-0.230,-0.230,0.000,0.000,0.000
1640079000322208768,"2021-12-21,09:30:00",10.1.1.8,0.41982388496398926,-0.230,-0.230,-0.230,0.000,0.000,0.000
1640079000690253056,"2021-12-21,09:30:00",10.1.1.8,366,-0.220,-0.220,-0.220,0.000,0.000,0.000
1640079000710566144,"2021-12-21,09:30:00",10.1.1.8,0.3869011402130127,-0.220,-0.220,-0.220,0.000,0.000,0.000
1640079001089548032,"2021-12-21,09:30:01",10.1.1.8,377,-0.210,-0.210,-0.210,0.000,0.000,0.000
1640079001155097088,"2021-12-21,09:30:01",10.1.1.8,0.44291114807128906,-0.210,-0.210,-0.210,0.000,0.000,0.000
1640079001508239872,"2021-12-21,09:30:01",10.1.1.8,349,-0.200,-0.200,-0.200,0.000,0.000,0.000
1640079001542247936,"2021-12-21,09:30:01",10.1.1.8,0.3834059238433838,-0.200,-0.200,-0.200,0.000,0.000,0.000
1640079001859222016,"2021-12-21,09:30:01",10.1.1.8,315,-0.190,-0.190,-0.190,0.000,0.000,0.000
1640079001892537088,"2021-12-21,09:30:01",10.1.1.8,0.34852004051208496,-0.190,-0.190,-0.190,0.000,0.000,0.000
1640079002207764992,"2021-12-21,09:30:02",10.1.1.8,311,-0.180,-0.180,-0.180,0.000,0.000,0.000
1640079002236608000,"2021-12-21,09:30:02",10.1.1.8,0.3399980068206787,-0.180,-0.180,-0.180,0.000,0.000,0.000
1640079002596875008,"2021-12-21,09:30:02",10.1.1.8,352,-0.170,-0.170,-0.170,0.000,0.000,0.000
1640079002635801088,"2021-12-21,09:30:02",10.1.1.8,0.3891620635986328,-0.170,-0.170,-0.170,0.000,0.000,0.000
1640079003007834880,"2021-12-21,09:30:03",10.1.1.8,370,-0.160,-0.160,-0.160,0.000,0.000,0.000
1640079003040882944,"2021-12-21,09:30:03",10.1.1.8,0.4034299850463867,-0.160,-0.160,-0.160,0.000,0.000,0.000
1640079003419558912,"2021-12-21,09:30:03",10.1.1.8,377,-0.150,-0.150,-0.150,0.000,0.000,0.000
1640079003432570880,"2021-12-21,09:30:03",10.1.1.8,0.3901209831237793,-0.150,-0.150,-0.150,0.000,0.000,0.000
1640079003834630912,"2021-12-21,09:30:03",10.1.1.8,398,-0.140,-0.140,-0.140,0.000,0.000,0.000
1640079003919128064,"2021-12-21,09:30:03",10.1.1.8,0.4830319881439209,-0.140,-0.140,-0.140,0.000,0.000,0.000
1640079004263653120,"2021-12-21,09:30:04",10.1.1.8,342,-0.130,-0.130,-0.130,0.000,0.000,0.000
1640079004300535808,"2021-12-21,09:30:04",10.1.1.8,0.3796069622039795,-0.130,-0.130,-0.130,0.000,0.000,0.000
1640079004693291008,"2021-12-21,09:30:04",10.1.1.8,388,-0.120,-0.120,-0.120,0.000,0.000,0.000
1640079004767170816,"2021-12-21,09:30:04",10.1.1.8,0.4628582000732422,-0.120,-0.120,-0.120,0.000,0.000,0.000
1640079005105927936,"2021-12-21,09:30:05",10.1.1.8,337,-0.110,-0.110,-0.110,0.000,0.000,0.000
1640079005171991040,"2021-12-21,09:30:05",10.1.1.8,0.4034130573272705,-0.110,-0.110,-0.110,0.000,0.000,0.000
1640079005503757056,"2021-12-21,09:30:05",10.1.1.8,330,-0.100,-0.100,-0.100,0.000,0.000,0.000
1640079005566308864,"2021-12-21,09:30:05",10.1.1.8,0.3927481174468994,-0.100,-0.100,-0.100,0.000,0.000,0.000
1640079005932756992,"2021-12-21,09:30:05",10.1.1.8,364,-0.090,-0.090,-0.090,0.000,0.000,0.000
1640079005975554048,"2021-12-21,09:30:05",10.1.1.8,0.407865047454834,-0.090,-0.090,-0.090,0.000,0.000,0.000
1640079006330746880,"2021-12-21,09:30:06",10.1.1.8,352,-0.080,-0.080,-0.080,0.000,0.000,0.000
1640079006379225856,"2021-12-21,09:30:06",10.1.1.8,0.4008519649505615,-0.080,-0.080,-0.080,0.000,0.000,0.000
1640079006742063872,"2021-12-21,09:30:06",10.1.1.8,361,-0.070,-0.070,-0.070,0.000,0.000,0.000
1640079006781913088,"2021-12-21,09:30:06",10.1.1.8,0.4011690616607666,-0.070,-0.070,-0.070,0.000,0.000,0.000
1640079007099652096,"2021-12-21,09:30:07",10.1.1.8,316,-0.060,-0.060,-0.060,0.000,0.000,0.000
1640079007133709824,"2021-12-21,09:30:07",10.1.1.8,0.35047411918640137,-0.060,-0.060,-0.060,0.000,0.000,0.000
1640079007528758016,"2021-12-21,09:30:07",10.1.1.8,392,-0.050,-0.050,-0.050,0.000,0.000,0.000
1640079007589193216,"2021-12-21,09:30:07",10.1.1.8,0.4533860683441162,-0.050,-0.050,-0.050,0.000,0.000,0.000
1640079007921458944,"2021-12-21,09:30:07",10.1.1.8,329,-0.040,-0.040,-0.040,0.000,0.000,0.000
1640079007960536832,"2021-12-21,09:30:07",10.1.1.8,0.36835694313049316,-0.040,-0.040,-0.040,0.000,0.000,0.000
1640079008339823872,"2021-12-21,09:30:08",10.1.1.8,373,-0.030,-0.030,-0.030,0.000,0.000,0.000
1640079008397780992,"2021-12-21,09:30:08",10.1.1.8,0.43136000633239746,-0.030,-0.030,-0.030,0.000,0.000,0.000
1640079008741756928,"2021-12-21,09:30:08",10.1.1.8,341,-0.020,-0.020,-0.020,0.000,0.000,0.000
1640079008764948992,"2021-12-21,09:30:08",10.1.1.8,0.36484503746032715,-0.020,-0.020,-0.020,0.000,0.000,0.000
1640079009093750016,"2021-12-21,09:30:09",10.1.1.8,324,-0.010,-0.010,-0.010,0.000,0.000,0.000
1640079009147654912,"2021-12-21,09:30:09",10.1.1.8,0.37876200675964355,-0.010,-0.010,-0.010,0.000,0.000,0.000
1640079009535510016,"2021-12-21,09:30:09",10.1.1.8,377,0.000,0.000,0.000,0.000,0.000,0.000
1640079009566234112,"2021-12-21,09:30:09",10.1.1.8,0.40851402282714844,0.000,0.000,0.000,0.000,0.000,0.000
1640079009940891136,"2021-12-21,09:30:09",10.1.1.8,372,-0.010,-0.010,-0.010,0.000,0.000,0.000
1640079009990468864,"2021-12-21,09:30:09",10.1.1.8,0.4220759868621826,-0.010,-0.010,-0.010,0.000,0.000,0.000
1640079010348974848,"2021-12-21,09:30:10",10.1.1.8,349,-0.020,-0.020,-0.020,0.000,0.000,0.000
1640079010420120064,"2021-12-21,09:30:10",10.1.1.8,0.42058897018432617,-0.020,-0.020,-0.020,0.000,0.000,0.000
1640079010780653056,"2021-12-21,09:30:10",10.1.1.8,358,-0.030,-0.030,-0.030,0.000,0.000,0.000
1640079010823432960,"2021-12-21,09:30:10",10.1.1.8,0.4009850025177002,-0.030,-0.030,-0.030,0.000,0.000,0.000
1640079011132965120,"2021-12-21,09:30:11",10.1.1.8,306,-0.040,-0.040,-0.040,0.000,0.000,0.000
1640079011174137088,"2021-12-21,09:30:11",10.1.1.8,0.34747910499572754,-0.040,-0.040,-0.040,0.000,0.000,0.000
1640079011515994112,"2021-12-21,09:30:11",10.1.1.8,338,-0.050,-0.050,-0.050,0.000,0.000,0.000
1640079011531200768,"2021-12-21,09:30:11",10.1.1.8,0.3535439968109131,-0.050,-0.050,-0.050,0.000,0.000,0.000
1640079011939827968,"2021-12-21,09:30:11",10.1.1.8,405,-0.060,-0.060,-0.060,0.000,0.000,0.000
1640079011997064192,"2021-12-21,09:30:11",10.1.1.8,0.4645519256591797,-0.060,-0.060,-0.060,0.000,0.000,0.000
1640079012346350848,"2021-12-21,09:30:12",10.1.1.8,345,-0.070,-0.070,-0.070,0.000,0.000,0.000
1640079012373735936,"2021-12-21,09:30:12",10.1.1.8,0.3733940124511719,-0.070,-0.070,-0.070,0.000,0.000,0.000
1640079012709042944,"2021-12-21,09:30:12",10.1.1.8,333,-0.080,-0.080,-0.080,0.000,0.000,0.000
1640079012783726080,"2021-12-21,09:30:12",10.1.1.8,0.4085359573364258,-0.080,-0.080,-0.080,0.000,0.000,0.000
1640079013107386112,"2021-12-21,09:30:13",10.1.1.8,319,-0.090,-0.090,-0.090,0.000,0.000,0.000
1640079013508913920,"2021-12-21,09:30:13",10.1.1.8,0.7214961051940918,-0.090,-0.090,-0.090,0.000,0.000,0.000
1640079013828582144,"2021-12-21,09:30:13",10.1.1.8,317,-0.100,-0.100,-0.100,0.000,0.000,0.000
1640079013837905920,"2021-12-21,09:30:13",10.1.1.8,0.32730889320373535,-0.100,-0.100,-0.100,0.000,0.000,0.000
1640079014179835136,"2021-12-21,09:30:14",10.1.1.8,339,-0.110,-0.110,-0.110,0.000,0.000,0.000
1640079014207554048,"2021-12-21,09:30:14",10.1.1.8,0.3673279285430908,-0.110,-0.110,-0.110,0.000,0.000,0.000
1640079014551665152,"2021-12-21,09:30:14",10.1.1.8,342,-0.120,-0.120,-0.120,0.000,0.000,0.000
1640079014579852032,"2021-12-21,09:30:14",10.1.1.8,0.37058496475219727,-0.120,-0.120,-0.120,0.000,0.000,0.000
1640079014960854016,"2021-12-21,09:30:14",10.1.1.8,379,-0.130,-0.130,-0.130,0.000,0.000,0.000
1640079015014448896,"2021-12-21,09:30:15",10.1.1.8,0.4330589771270752,-0.130,-0.130,-0.130,0.000,0.000,0.000
1640079015350579968,"2021-12-21,09:30:15",10.1.1.8,333,-0.140,-0.140,-0.140,0.000,0.000,0.000
1640079015397212928,"2021-12-21,09:30:15",10.1.1.8,0.37912893295288086,-0.140,-0.140,-0.140,0.000,0.000,0.000
1640079015765698816,"2021-12-21,09:30:15",10.1.1.8,362,-0.150,-0.150,-0.150,0.000,0.000,0.000
1640079015862224128,"2021-12-21,09:30:15",10.1.1.8,0.4594571590423584,-0.150,-0.150,-0.150,0.000,0.000,0.000
1640079016201665024,"2021-12-21,09:30:16",10.1.1.8,337,-0.160,-0.160,-0.160,0.000,0.000,0.000
1640079016226098176,"2021-12-21,09:30:16",10.1.1.8,0.36226701736450195,-0.160,-0.160,-0.160,0.000,0.000,0.000
1640079016572771072,"2021-12-21,09:30:16",10.1.1.8,340,-0.170,-0.170,-0.170,0.000,0.000,0.000
1640079016635780096,"2021-12-21,09:30:16",10.1.1.8,0.4037032127380371,-0.170,-0.170,-0.170,0.000,0.000,0.000
1640079017015031040,"2021-12-21,09:30:17",10.1.1.8,366,-0.180,-0.180,-0.180,0.000,0.000,0.000
1640079017140691968,"2021-12-21,09:30:17",10.1.1.8,0.503303050994873,-0.180,-0.180,-0.180,0.000,0.000,0.000
1640079017582931968,"2021-12-21,09:30:17",10.1.1.8,431,-0.190,-0.190,-0.190,0.000,0.000,0.000
1640079017621182976,"2021-12-21,09:30:17",10.1.1.8,0.46976494789123535,-0.190,-0.190,-0.190,0.000,0.000,0.000
1640079017992387072,"2021-12-21,09:30:17",10.1.1.8,369,-0.200,-0.200,-0.200,0.000,0.000,0.000
1640079018034418176,"2021-12-21,09:30:18",10.1.1.8,0.41044187545776367,-0.200,-0.200,-0.200,0.000,0.000,0.000
1640079018392749056,"2021-12-21,09:30:18",10.1.1.8,354,-0.210,-0.210,-0.210,0.000,0.000,0.000
1640079018408473088,"2021-12-21,09:30:18",10.1.1.8,0.3705441951751709,-0.210,-0.210,-0.210,0.000,0.000,0.000
1640079018792794880,"2021-12-21,09:30:18",10.1.1.8,381,-0.220,-0.220,-0.220,0.000,0.000,0.000
1640079018846816000,"2021-12-21,09:30:18",10.1.1.8,0.43542909622192383,-0.220,-0.220,-0.220,0.000,0.000,0.000
1640079019224121088,"2021-12-21,09:30:19",10.1.1.8,367,-0.230,-0.230,-0.230,0.000,0.000,0.000
1640079019309369088,"2021-12-21,09:30:19",10.1.1.8,0.4524350166320801,-0.230,-0.230,-0.230,0.000,0.000,0.000
1640079019668189952,"2021-12-21,09:30:19",10.1.1.8,352,-0.240,-0.240,-0.240,0.000,0.000,0.000
1640079019695222016,"2021-12-21,09:30:19",10.1.1.8,0.3792099952697754,-0.240,-0.240,-0.240,0.000,0.000,0.000
1640079020083281920,"2021-12-21,09:30:20",10.1.1.8,385,-0.250,-0.250,-0.250,0.000,0.000,0.000
1640079020156513024,"2021-12-21,09:30:20",10.1.1.8,0.45926809310913086,-0.250,-0.250,-0.250,0.000,0.000,0.000
1640079020515108096,"2021-12-21,09:30:20",10.1.1.8,356,-0.260,-0.260,-0.260,0.000,0.000,0.000
1640079020592385024,"2021-12-21,09:30:20",10.1.1.8,0.4338979721069336,-0.260,-0.260,-0.260,0.000,0.000,0.000
1640079020921997056,"2021-12-21,09:30:20",10.1.1.8,326,-0.270,-0.270,-0.270,0.000,0.000,0.000
1640079020988028928,"2021-12-21,09:30:20",10.1.1.8,0.39272499084472656,-0.270,-0.270,-0.270,0.000,0.000,0.000
1640079021372653056,"2021-12-21,09:30:21",10.1.1.8,379,-0.280,-0.280,-0.280,0.000,0.000,0.000
1640079021426407168,"2021-12-21,09:30:21",10.1.1.8,0.429455041885376,-0.280,-0.280,-0.280,0.000,0.000,0.000
1640079021772131072,"2021-12-21,09:30:21",10.1.1.8,343,-0.290,-0.290,-0.290,0.000,0.000,0.000
1640079021845619968,"2021-12-21,09:30:21",10.1.1.8,0.4169900417327881,-0.290,-0.290,-0.290,0.000,0.000,0.000
1640079022253545984,"2021-12-21,09:30:22",10.1.1.8,406,-0.300,-0.300,-0.300,0.000,0.000,0.000
1640079022321924096,"2021-12-21,09:30:22",10.1.1.8,0.4747788906097412,-0.300,-0.300,-0.300,0.000,0.000,0.000
1640079022708856064,"2021-12-21,09:30:22",10.1.1.8,384,-0.310,-0.310,-0.310,0.000,0.000,0.000
1640079022751380992,"2021-12-21,09:30:22",10.1.1.8,0.42751193046569824,-0.310,-0.310,-0.310,0.000,0.000,0.000
1640079023121083904,"2021-12-21,09:30:23",10.1.1.8,367,-0.320,-0.320,-0.320,0.000,0.000,0.000
1640079023167136000,"2021-12-21,09:30:23",10.1.1.8,0.41318297386169434,-0.320,-0.320,-0.320,0.000,0.000,0.000
1640079023530374912,"2021-12-21,09:30:23",10.1.1.8,358,-0.330,-0.330,-0.330,0.000,0.000,0.000
1640079023611977984,"2021-12-21,09:30:23",10.1.1.8,0.4418058395385742,-0.330,-0.330,-0.330,0.000,0.000,0.000
1640079023971865856,"2021-12-21,09:30:23",10.1.1.8,358,-0.340,-0.340,-0.340,0.000,0.000,0.000
1640079024011408128,"2021-12-21,09:30:24",10.1.1.8,0.3979179859161377,-0.340,-0.340,-0.340,0.000,0.000,0.000
1640079024400027904,"2021-12-21,09:30:24",10.1.1.8,377,-0.350,-0.350,-0.350,0.000,0.000,0.000
1640079024425649920,"2021-12-21,09:30:24",10.1.1.8,0.4029970169067383,-0.350,-0.350,-0.350,0.000,0.000,0.000
1640079024810297088,"2021-12-21,09:30:24",10.1.1.8,378,-0.360,-0.360,-0.360,0.000,0.000,0.000
1640079024879031808,"2021-12-21,09:30:24",10.1.1.8,0.4474148750305176,-0.360,-0.360,-0.360,0.000,0.000,0.000
1640079025270136064,"2021-12-21,09:30:25",10.1.1.8,389,-0.370,-0.370,-0.370,0.000,0.000,0.000
1640079025304733952,"2021-12-21,09:30:25",10.1.1.8,0.42383718490600586,-0.370,-0.370,-0.370,0.000,0.000,0.000
1640079025664220160,"2021-12-21,09:30:25",10.1.1.8,347,-0.380,-0.380,-0.380,0.000,0.000,0.000
1640079025764420864,"2021-12-21,09:30:25",10.1.1.8,0.4543919563293457,-0.380,-0.380,-0.380,0.000,0.000,0.000
1640079026138358016,"2021-12-21,09:30:26",10.1.1.8,367,-0.390,-0.390,-0.390,0.000,0.000,0.000
1640079026235558144,"2021-12-21,09:30:26",10.1.1.8,0.46497011184692383,-0.390,-0.390,-0.390,0.000,0.000,0.000
1640079026607764992,"2021-12-21,09:30:26",10.1.1.8,370,-0.400,-0.400,-0.400,0.000,0.000,0.000
1640079026656841984,"2021-12-21,09:30:26",10.1.1.8,0.41910386085510254,-0.400,-0.400,-0.400,0.000,0.000,0.000
1640079027037596928,"2021-12-21,09:30:27",10.1.1.8,379,-0.410,-0.410,-0.410,0.000,0.000,0.000
1640079027107409920,"2021-12-21,09:30:27",10.1.1.8,0.44893693923950195,-0.410,-0.410,-0.410,0.000,0.000,0.000
1640079027476972032,"2021-12-21,09:30:27",10.1.1.8,354,-0.420,-0.420,-0.420,0.000,0.000,0.000
1640079027575720192,"2021-12-21,09:30:27",10.1.1.8,0.4536561965942383,-0.420,-0.420,-0.420,0.000,0.000,0.000
1640079027926459904,"2021-12-21,09:30:27",10.1.1.8,349,-0.430,-0.430,-0.430,0.000,0.000,0.000
1640079027991379968,"2021-12-21,09:30:27",10.1.1.8,0.414201021194458,-0.430,-0.430,-0.430,0.000,0.000,0.000
1640079028336707072,"2021-12-21,09:30:28",10.1.1.8,343,-0.440,-0.440,-0.440,0.000,0.000,0.000
1640079028371113984,"2021-12-21,09:30:28",10.1.1.8,0.3784210681915283,-0.440,-0.440,-0.440,0.000,0.000,0.000
1640079028735480064,"2021-12-21,09:30:28",10.1.1.8,362,-0.450,-0.450,-0.450,0.000,0.000,0.000
1640079028777595904,"2021-12-21,09:30:28",10.1.1.8,0.40465617179870605,-0.450,-0.450,-0.450,0.000,0.000,0.000
1640079029115241984,"2021-12-21,09:30:29",10.1.1.8,329,-0.460,-0.460,-0.460,0.000,0.000,0.000
1640079029185926912,"2021-12-21,09:30:29",10.1.1.8,0.4002549648284912,-0.460,-0.460,-0.460,0.000,0.000,0.000
1640079029587661056,"2021-12-21,09:30:29",10.1.1.8,399,-0.470,-0.470,-0.470,0.000,0.000,0.000
1640079029628321024,"2021-12-21,09:30:29",10.1.1.8,0.44060802459716797,-0.470,-0.470,-0.470,0.000,0.000,0.000
1640079029983520000,"2021-12-21,09:30:29",10.1.1.8,350,-0.480,-0.480,-0.480,0.000,0.000,0.000
1640079030019934976,"2021-12-21,09:30:30",10.1.1.8,0.38727712631225586,-0.480,-0.480,-0.480,0.000,0.000,0.000
1640079030363504896,"2021-12-21,09:30:30",10.1.1.8,342,-0.490,-0.490,-0.490,0.000,0.000,0.000
1640079030415819776,"2021-12-21,09:30:30",10.1.1.8,0.3944969177246094,-0.490,-0.490,-0.490,0.000,0.000,0.000
1640079030773118976,"2021-12-21,09:30:30",10.1.1.8,355,-0.480,-0.480,-0.480,0.000,0.000,0.000
1640079030850593024,"2021-12-21,09:30:30",10.1.1.8,0.4333789348602295,-0.480,-0.480,-0.480,0.000,0.000,0.000
1640079031202511104,"2021-12-21,09:30:31",10.1.1.8,346,-0.470,-0.470,-0.470,0.000,0.000,0.000
1640079031240803072,"2021-12-21,09:30:31",10.1.1.8,0.38548994064331055,-0.470,-0.470,-0.470,0.000,0.000,0.000
1640079031585371136,"2021-12-21,09:30:31",10.1.1.8,342,-0.460,-0.460,-0.460,0.000,0.000,0.000
1640079031651921920,"2021-12-21,09:30:31",10.1.1.8,0.40902090072631836,-0.460,-0.460,-0.460,0.000,0.000,0.000
1640079032003844096,"2021-12-21,09:30:32",10.1.1.8,350,-0.450,-0.450,-0.450,0.000,0.000,0.000
1640079032079319040,"2021-12-21,09:30:32",10.1.1.8,0.42580080032348633,-0.450,-0.450,-0.450,0.000,0.000,0.000
1640079032410062080,"2021-12-21,09:30:32",10.1.1.8,329,-0.440,-0.440,-0.440,0.000,0.000,0.000
1640079032448124928,"2021-12-21,09:30:32",10.1.1.8,0.36760902404785156,-0.440,-0.440,-0.440,0.000,0.000,0.000
1640079032809529088,"2021-12-21,09:30:32",10.1.1.8,359,-0.430,-0.430,-0.430,0.000,0.000,0.000
1640079032862662144,"2021-12-21,09:30:32",10.1.1.8,0.4126579761505127,-0.430,-0.430,-0.430,0.000,0.000,0.000
1640079033258790144,"2021-12-21,09:30:33",10.1.1.8,393,-0.420,-0.420,-0.420,0.000,0.000,0.000
1640079033275339008,"2021-12-21,09:30:33",10.1.1.8,0.4096081256866455,-0.420,-0.420,-0.420,0.000,0.000,0.000
1640079033609106944,"2021-12-21,09:30:33",10.1.1.8,330,-0.410,-0.410,-0.410,0.000,0.000,0.000
1640079033648318976,"2021-12-21,09:30:33",10.1.1.8,0.3701479434967041,-0.410,-0.410,-0.410,0.000,0.000,0.000
1640079034018121984,"2021-12-21,09:30:34",10.1.1.8,367,-0.400,-0.400,-0.400,0.000,0.000,0.000
1640079034062174208,"2021-12-21,09:30:34",10.1.1.8,0.41183900833129883,-0.400,-0.400,-0.400,0.000,0.000,0.000
1640079034417662976,"2021-12-21,09:30:34",10.1.1.8,351,-0.390,-0.390,-0.390,0.000,0.000,0.000
1640079034483577856,"2021-12-21,09:30:34",10.1.1.8,0.4172239303588867,-0.390,-0.390,-0.390,0.000,0.000,0.000
1640079034797158912,"2021-12-21,09:30:34",10.1.1.8,311,-0.380,-0.380,-0.380,0.000,0.000,0.000
1640079034860045824,"2021-12-21,09:30:34",10.1.1.8,0.3743159770965576,-0.380,-0.380,-0.380,0.000,0.000,0.000
1640079035202121984,"2021-12-21,09:30:35",10.1.1.8,339,-0.370,-0.370,-0.370,0.000,0.000,0.000
1640079035220911104,"2021-12-21,09:30:35",10.1.1.8,0.35803985595703125,-0.370,-0.370,-0.370,0.000,0.000,0.000
1640079035576868096,"2021-12-21,09:30:35",10.1.1.8,351,-0.360,-0.360,-0.360,0.000,0.000,0.000
1640079035635845888,"2021-12-21,09:30:35",10.1.1.8,0.41130995750427246,-0.360,-0.360,-0.360,0.000,0.000,0.000
1640079035985883904,"2021-12-21,09:30:35",10.1.1.8,347,-0.350,-0.350,-0.350,0.000,0.000,0.000
1640079036019195136,"2021-12-21,09:30:36",10.1.1.8,0.3811619281768799,-0.350,-0.350,-0.350,0.000,0.000,0.000
1640079036394963968,"2021-12-21,09:30:36",10.1.1.8,371,-0.340,-0.340,-0.340,0.000,0.000,0.000
1640079036478385920,"2021-12-21,09:30:36",10.1.1.8,0.4548790454864502,-0.340,-0.340,-0.340,0.000,0.000,0.000
1640079036833580032,"2021-12-21,09:30:36",10.1.1.8,352,-0.330,-0.330,-0.330,0.000,0.000,0.000
1640079036895526912,"2021-12-21,09:30:36",10.1.1.8,0.4145991802215576,-0.330,-0.330,-0.330,0.000,0.000,0.000
1640079037302917888,"2021-12-21,09:30:37",10.1.1.8,405,-0.320,-0.320,-0.320,0.000,0.000,0.000
1640079037322928896,"2021-12-21,09:30:37",10.1.1.8,0.4257230758666992,-0.320,-0.320,-0.320,0.000,0.000,0.000
1640079037654498048,"2021-12-21,09:30:37",10.1.1.8,327,-0.310,-0.310,-0.310,0.000,0.000,0.000
1640079037697990912,"2021-12-21,09:30:37",10.1.1.8,0.37096095085144043,-0.310,-0.310,-0.310,0.000,0.000,0.000
1640079038041764096,"2021-12-21,09:30:38",10.1.1.8,342,-0.300,-0.300,-0.300,0.000,0.000,0.000
1640079038097861120,"2021-12-21,09:30:38",10.1.1.8,0.39819979667663574,-0.300,-0.300,-0.300,0.000,0.000,0.000
1640079038466537984,"2021-12-21,09:30:38",10.1.1.8,364,-0.290,-0.290,-0.290,0.000,0.000,0.000
1640079038524832000,"2021-12-21,09:30:38",10.1.1.8,0.42504096031188965,-0.290,-0.290,-0.290,0.000,0.000,0.000
1640079040228790016,"2021-12-21,09:30:40",10.1.1.8,1698,-0.280,-0.280,-0.280,0.000,0.000,0.000
1640079040283524864,"2021-12-21,09:30:40",10.1.1.8,1.7542049884796143,-0.280,-0.280,-0.280,0.000,0.000,0.000
1640079040658386944,"2021-12-21,09:30:40",10.1.1.8,370,-0.270,-0.270,-0.270,0.000,0.000,0.000
1640079040751358976,"2021-12-21,09:30:40",10.1.1.8,0.4644310474395752,-0.270,-0.270,-0.270,0.000,0.000,0.000
1640079041098563840,"2021-12-21,09:30:41",10.1.1.8,344,-0.260,-0.260,-0.260,0.000,0.000,0.000
1640079041157325056,"2021-12-21,09:30:41",10.1.1.8,0.4032759666442871,-0.260,-0.260,-0.260,0.000,0.000,0.000
1640079041509713920,"2021-12-21,09:30:41",10.1.1.8,350,-0.250,-0.250,-0.250,0.000,0.000,0.000
1640079041592004096,"2021-12-21,09:30:41",10.1.1.8,0.43251895904541016,-0.250,-0.250,-0.250,0.000,0.000,0.000
1640079041973062144,"2021-12-21,09:30:41",10.1.1.8,379,-0.240,-0.240,-0.240,0.000,0.000,0.000
1640079042020080128,"2021-12-21,09:30:42",10.1.1.8,0.4267129898071289,-0.240,-0.240,-0.240,0.000,0.000,0.000
1640079042469211136,"2021-12-21,09:30:42",10.1.1.8,446,-0.230,-0.230,-0.230,0.000,0.000,0.000
1640079042521239040,"2021-12-21,09:30:42",10.1.1.8,0.4981560707092285,-0.230,-0.230,-0.230,0.000,0.000,0.000
1640079042876486912,"2021-12-21,09:30:42",10.1.1.8,350,-0.220,-0.220,-0.220,0.000,0.000,0.000
1640079042920360192,"2021-12-21,09:30:42",10.1.1.8,0.394320011138916,-0.220,-0.220,-0.220,0.000,0.000,0.000
1640079043338354944,"2021-12-21,09:30:43",10.1.1.8,396,-0.210,-0.210,-0.210,0.000,0.000,0.000
1640079043417016064,"2021-12-21,09:30:43",10.1.1.8,0.4749631881713867,-0.210,-0.210,-0.210,0.000,0.000,0.000
1640079043791495168,"2021-12-21,09:30:43",10.1.1.8,372,-0.200,-0.200,-0.200,0.000,0.000,0.000
1640079043828374016,"2021-12-21,09:30:43",10.1.1.8,0.4096109867095947,-0.200,-0.200,-0.200,0.000,0.000,0.000
1640079044192573952,"2021-12-21,09:30:44",10.1.1.8,362,-0.190,-0.190,-0.190,0.000,0.000,0.000
1640079044228024832,"2021-12-21,09:30:44",10.1.1.8,0.3979630470275879,-0.190,-0.190,-0.190,0.000,0.000,0.000
1640079044582590208,"2021-12-21,09:30:44",10.1.1.8,353,-0.180,-0.180,-0.180,0.000,0.000,0.000
1640079044618567936,"2021-12-21,09:30:44",10.1.1.8,0.38913702964782715,-0.180,-0.180,-0.180,0.000,0.000,0.000
1640079044995447040,"2021-12-21,09:30:44",10.1.1.8,375,-0.170,-0.170,-0.170,0.000,0.000,0.000
1640079045026809088,"2021-12-21,09:30:45",10.1.1.8,0.4067201614379883,-0.170,-0.170,-0.170,0.000,0.000,0.000
1640079045335153152,"2021-12-21,09:30:45",10.1.1.8,306,-0.160,-0.160,-0.160,0.000,0.000,0.000
1640079045410300928,"2021-12-21,09:30:45",10.1.1.8,0.3819010257720947,-0.160,-0.160,-0.160,0.000,0.000,0.000
1640079046146750976,"2021-12-21,09:30:46",10.1.1.8,733,-0.150,-0.150,-0.150,0.000,0.000,0.000
1640079046187129088,"2021-12-21,09:30:46",10.1.1.8,0.7734901905059814,-0.150,-0.150,-0.150,0.000,0.000,0.000
1640079046547986944,"2021-12-21,09:30:46",10.1.1.8,353,-0.140,-0.140,-0.140,0.000,0.000,0.000
1640079046575470080,"2021-12-21,09:30:46",10.1.1.8,0.3809020519256592,-0.140,-0.140,-0.140,0.000,0.000,0.000
1640079046999316992,"2021-12-21,09:30:46",10.1.1.8,419,-0.130,-0.130,-0.130,0.000,0.000,0.000
1640079047118899200,"2021-12-21,09:30:47",10.1.1.8,0.5400440692901611,-0.130,-0.130,-0.130,0.000,0.000,0.000
1640079047489033984,"2021-12-21,09:30:47",10.1.1.8,368,-0.120,-0.120,-0.120,0.000,0.000,0.000
1640079047585064960,"2021-12-21,09:30:47",10.1.1.8,0.4648780822753906,-0.120,-0.120,-0.120,0.000,0.000,0.000
1640079047933712128,"2021-12-21,09:30:47",10.1.1.8,346,-0.110,-0.110,-0.110,0.000,0.000,0.000
1640079048012561920,"2021-12-21,09:30:48",10.1.1.8,0.42509984970092773,-0.110,-0.110,-0.110,0.000,0.000,0.000
1640079048410234880,"2021-12-21,09:30:48",10.1.1.8,388,-0.100,-0.100,-0.100,0.000,0.000,0.000
1640079048478799104,"2021-12-21,09:30:48",10.1.1.8,0.45690488815307617,-0.100,-0.100,-0.100,0.000,0.000,0.000
1640079048840923136,"2021-12-21,09:30:48",10.1.1.8,359,-0.090,-0.090,-0.090,0.000,0.000,0.000
1640079048885718016,"2021-12-21,09:30:48",10.1.1.8,0.4028949737548828,-0.090,-0.090,-0.090,0.000,0.000,0.000
1640079049231940864,"2021-12-21,09:30:49",10.1.1.8,344,-0.080,-0.080,-0.080,0.000,0.000,0.000
1640079049286564096,"2021-12-21,09:30:49",10.1.1.8,0.39914703369140625,-0.080,-0.080,-0.080,0.000,0.000,0.000
1640079049942204928,"2021-12-21,09:30:49",10.1.1.8,351,-0.070,-0.070,-0.070,0.000,0.000,0.000
1640079050015355136,"2021-12-21,09:30:50",10.1.1.8,0.7239120006561279,-0.070,-0.070,-0.070,0.000,0.000,0.000
1640079050413021952,"2021-12-21,09:30:50",10.1.1.8,393,-0.060,-0.060,-0.060,0.000,0.000,0.000
1640079050471169024,"2021-12-21,09:30:50",10.1.1.8,0.45192909240722656,-0.060,-0.060,-0.060,0.000,0.000,0.000
1640079050812661760,"2021-12-21,09:30:50",10.1.1.8,339,-0.050,-0.050,-0.050,0.000,0.000,0.000
1640079050916549888,"2021-12-21,09:30:50",10.1.1.8,0.44365692138671875,-0.050,-0.050,-0.050,0.000,0.000,0.000
1640079051324836864,"2021-12-21,09:30:51",10.1.1.8,405,-0.040,-0.040,-0.040,0.000,0.000,0.000
1640079051414701056,"2021-12-21,09:30:51",10.1.1.8,0.49576592445373535,-0.040,-0.040,-0.040,0.000,0.000,0.000
1640079051845153024,"2021-12-21,09:30:51",10.1.1.8,427,-0.030,-0.030,-0.030,0.000,0.000,0.000
1640079051889110016,"2021-12-21,09:30:51",10.1.1.8,0.47159886360168457,-0.030,-0.030,-0.030,0.000,0.000,0.000
1640079052273433856,"2021-12-21,09:30:52",10.1.1.8,381,-0.020,-0.020,-0.020,0.000,0.000,0.000
1640079052372338176,"2021-12-21,09:30:52",10.1.1.8,0.47996091842651367,-0.020,-0.020,-0.020,0.000,0.000,0.000
1640079052802664960,"2021-12-21,09:30:52",10.1.1.8,428,-0.010,-0.010,-0.010,0.000,0.000,0.000
1640079052885986048,"2021-12-21,09:30:52",10.1.1.8,0.5117270946502686,-0.010,-0.010,-0.010,0.000,0.000,0.000
1640079053342057984,"2021-12-21,09:30:53",10.1.1.8,445,0.000,0.000,0.000,0.000,0.000,0.000
1640079053385171968,"2021-12-21,09:30:53",10.1.1.8,0.4882240295410156,0.000,0.000,0.000,0.000,0.000,0.000
1640079053742167040,"2021-12-21,09:30:53",10.1.1.8,354,-0.010,-0.010,-0.010,0.000,0.000,0.000
1640079053812274944,"2021-12-21,09:30:53",10.1.1.8,0.4249739646911621,-0.010,-0.010,-0.010,0.000,0.000,0.000
1640079054181999872,"2021-12-21,09:30:54",10.1.1.8,368,-0.020,-0.020,-0.020,0.000,0.000,0.000
1640079054283632896,"2021-12-21,09:30:54",10.1.1.8,0.46988987922668457,-0.020,-0.020,-0.020,0.000,0.000,0.000
1640079054732934912,"2021-12-21,09:30:54",10.1.1.8,447,-0.030,-0.030,-0.030,0.000,0.000,0.000
1640079054972180992,"2021-12-21,09:30:54",10.1.1.8,0.6866469383239746,-0.030,-0.030,-0.030,0.000,0.000,0.000
1640079055481838080,"2021-12-21,09:30:55",10.1.1.8,498,-0.040,-0.040,-0.040,0.000,0.000,0.000
1640079055528765952,"2021-12-21,09:30:55",10.1.1.8,0.5457100868225098,-0.040,-0.040,-0.040,0.000,0.000,0.000
1640079055923121920,"2021-12-21,09:30:55",10.1.1.8,385,-0.050,-0.050,-0.050,0.000,0.000,0.000
1640079055977210880,"2021-12-21,09:30:55",10.1.1.8,0.4397389888763428,-0.050,-0.050,-0.050,0.000,0.000,0.000
1640079056372734976,"2021-12-21,09:30:56",10.1.1.8,393,-0.060,-0.060,-0.060,0.000,0.000,0.000
1640079056401124096,"2021-12-21,09:30:56",10.1.1.8,0.4219498634338379,-0.060,-0.060,-0.060,0.000,0.000,0.000
1640079056800456960,"2021-12-21,09:30:56",10.1.1.8,397,-0.070,-0.070,-0.070,0.000,0.000,0.000
1640079056883449088,"2021-12-21,09:30:56",10.1.1.8,0.47696805000305176,-0.070,-0.070,-0.070,0.000,0.000,0.000
1640079057261532928,"2021-12-21,09:30:57",10.1.1.8,374,-0.080,-0.080,-0.080,0.000,0.000,0.000
1640079057320420096,"2021-12-21,09:30:57",10.1.1.8,0.43357396125793457,-0.080,-0.080,-0.080,0.000,0.000,0.000
1640079057730050048,"2021-12-21,09:30:57",10.1.1.8,407,-0.090,-0.090,-0.090,0.000,0.000,0.000
1640079057770023936,"2021-12-21,09:30:57",10.1.1.8,0.44818687438964844,-0.090,-0.090,-0.090,0.000,0.000,0.000
1640079058219489024,"2021-12-21,09:30:58",10.1.1.8,448,-0.100,-0.100,-0.100,0.000,0.000,0.000
1640079058267627008,"2021-12-21,09:30:58",10.1.1.8,0.4962649345397949,-0.100,-0.100,-0.100,0.000,0.000,0.000
1640079058661551104,"2021-12-21,09:30:58",10.1.1.8,388,-0.110,-0.110,-0.110,0.000,0.000,0.000
1640079058714263808,"2021-12-21,09:30:58",10.1.1.8,0.44084906578063965,-0.110,-0.110,-0.110,0.000,0.000,0.000
1640079059122110976,"2021-12-21,09:30:59",10.1.1.8,0.40609002113342285,-0.120,-0.120,-0.120,0.000,0.000,0.000
1640079059123020032,"2021-12-21,09:30:59",10.1.1.8,407,-0.120,-0.120,-0.120,0.000,0.000,0.000
1640079059540146176,"2021-12-21,09:30:59",10.1.1.8,405,-0.130,-0.130,-0.130,0.000,0.000,0.000
1640079059624412928,"2021-12-21,09:30:59",10.1.1.8,0.49165916442871094,-0.130,-0.130,-0.130,0.000,0.000,0.000
1640079059988937984,"2021-12-21,09:30:59",10.1.1.8,358,-0.140,-0.140,-0.140,0.000,0.000,0.000
1640079060051896064,"2021-12-21,09:31:00",10.1.1.8,0.4188392162322998,-0.140,-0.140,-0.140,0.000,0.000,0.000
1640079060468403200,"2021-12-21,09:31:00",10.1.1.8,413,-0.150,-0.150,-0.150,0.000,0.000,0.000
1640079060510919168,"2021-12-21,09:31:00",10.1.1.8,0.4560239315032959,-0.150,-0.150,-0.150,0.000,0.000,0.000
1640079060907779840,"2021-12-21,09:31:00",10.1.1.8,394,-0.160,-0.160,-0.160,0.000,0.000,0.000
1640079060949789952,"2021-12-21,09:31:00",10.1.1.8,0.437000036239624,-0.160,-0.160,-0.160,0.000,0.000,0.000
1640079061349273088,"2021-12-21,09:31:01",10.1.1.8,374,-0.170,-0.170,-0.170,0.000,0.000,0.000
1640079061417340928,"2021-12-21,09:31:01",10.1.1.8,0.44571495056152344,-0.170,-0.170,-0.170,0.000,0.000,0.000
1640079061795460864,"2021-12-21,09:31:01",10.1.1.8,375,-0.180,-0.180,-0.180,0.000,0.000,0.000
1640079061847119104,"2021-12-21,09:31:01",10.1.1.8,0.4271080493927002,-0.180,-0.180,-0.180,0.000,0.000,0.000
1640079062322004992,"2021-12-21,09:31:02",10.1.1.8,471,-0.190,-0.190,-0.190,0.000,0.000,0.000
1640079062341286912,"2021-12-21,09:31:02",10.1.1.8,0.4909360408782959,-0.190,-0.190,-0.190,0.000,0.000,0.000
1640079062704039936,"2021-12-21,09:31:02",10.1.1.8,330,-0.200,-0.200,-0.200,0.000,0.000,0.000
1640079062757713920,"2021-12-21,09:31:02",10.1.1.8,0.3847470283508301,-0.200,-0.200,-0.200,0.000,0.000,0.000
1640079063086742016,"2021-12-21,09:31:03",10.1.1.8,325,-0.210,-0.210,-0.210,0.000,0.000,0.000
1640079063134521088,"2021-12-21,09:31:03",10.1.1.8,0.37335205078125,-0.210,-0.210,-0.210,0.000,0.000,0.000
1640079068032445952,"2021-12-21,09:31:08",10.1.1.8,4896,-0.220,-0.220,-0.220,0.000,0.000,0.000
1640079068114710016,"2021-12-21,09:31:08",10.1.1.8,4.978639841079712,-0.220,-0.220,-0.220,0.000,0.000,0.000
1640079068446999040,"2021-12-21,09:31:08",10.1.1.8,330,-0.230,-0.230,-0.230,0.000,0.000,0.000
1640079068513392896,"2021-12-21,09:31:08",10.1.1.8,0.3971419334411621,-0.230,-0.230,-0.230,0.000,0.000,0.000
1640079068515486976,"2021-12-21,09:31:08",10.1.1.8,-2,-0.240,-0.240,-0.240,0.000,0.000,0.000
1640079068896160000,"2021-12-21,09:31:08",10.1.1.8,0.3803441524505615,-0.240,-0.240,-0.240,0.000,0.000,0.000
1640079069325984000,"2021-12-21,09:31:09",10.1.1.8,427,-0.250,-0.250,-0.250,0.000,0.000,0.000
1640079069387453952,"2021-12-21,09:31:09",10.1.1.8,0.48998188972473145,-0.250,-0.250,-0.250,0.000,0.000,0.000
1640079070594908928,"2021-12-21,09:31:09",10.1.1.8,475,-0.260,-0.260,-0.260,0.000,0.000,0.000
1640079070638027008,"2021-12-21,09:31:10",10.1.1.8,1.2490708827972412,-0.260,-0.260,-0.260,0.000,0.000,0.000
1640079071043617024,"2021-12-21,09:31:11",10.1.1.8,401,-0.270,-0.270,-0.270,0.000,0.000,0.000
1640079071108690944,"2021-12-21,09:31:11",10.1.1.8,0.4678819179534912,-0.270,-0.270,-0.270,0.000,0.000,0.000
1640079071431323904,"2021-12-21,09:31:11",10.1.1.8,321,-0.280,-0.280,-0.280,0.000,0.000,0.000
1640079071527612928,"2021-12-21,09:31:11",10.1.1.8,0.4175081253051758,-0.280,-0.280,-0.280,0.000,0.000,0.000
1640079183797657856,"2021-12-21,09:33:03",10.1.1.8,112.2462329864502,-0.290,-0.290,-0.290,0.000,0.000,0.000
1640079184467314944,"2021-12-21,09:33:04",10.1.1.8,0.6665961742401123,-0.300,-0.300,-0.300,0.000,0.000,0.000
1640079185127693056,"2021-12-21,09:33:05",10.1.1.8,0.6482009887695312,-0.310,-0.310,-0.310,0.000,0.000,0.000
1640079185970352896,"2021-12-21,09:33:05",10.1.1.8,0.8152189254760742,-0.320,-0.320,-0.320,0.000,0.000,0.000
1640079186986272000,"2021-12-21,09:33:06",10.1.1.8,0.975517988204956,-0.330,-0.330,-0.330,0.000,0.000,0.000
1640079187678031872,"2021-12-21,09:33:07",10.1.1.8,0.6898350715637207,-0.340,-0.340,-0.340,0.000,0.000,0.000
1640079188507200000,"2021-12-21,09:33:08",10.1.1.8,0.7927079200744629,-0.350,-0.350,-0.350,0.000,0.000,0.000
1640079189069835776,"2021-12-21,09:33:09",10.1.1.8,0.561021089553833,-0.360,-0.360,-0.360,0.000,0.000,0.000
1640079189749324032,"2021-12-21,09:33:09",10.1.1.8,0.6746420860290527,-0.370,-0.370,-0.370,0.000,0.000,0.000
1640079190404550144,"2021-12-21,09:33:10",10.1.1.8,0.6508660316467285,-0.380,-0.380,-0.380,0.000,0.000,0.000
1640079190913583104,"2021-12-21,09:33:10",10.1.1.8,0.5075690746307373,-0.390,-0.390,-0.390,0.000,0.000,0.000
1640079191594145024,"2021-12-21,09:33:11",10.1.1.8,0.6474881172180176,-0.400,-0.400,-0.400,0.000,0.000,0.000
1640079192288128000,"2021-12-21,09:33:12",10.1.1.8,0.6758918762207031,-0.410,-0.410,-0.410,0.000,0.000,0.000
1640079192929294080,"2021-12-21,09:33:12",10.1.1.8,0.6388571262359619,-0.420,-0.420,-0.420,0.000,0.000,0.000
1640079193804316928,"2021-12-21,09:33:13",10.1.1.8,0.8671841621398926,-0.430,-0.430,-0.430,0.000,0.000,0.000
1640079194507339008,"2021-12-21,09:33:14",10.1.1.8,0.6939120292663574,-0.440,-0.440,-0.440,0.000,0.000,0.000
1640079195288825088,"2021-12-21,09:33:15",10.1.1.8,0.7798581123352051,-0.450,-0.450,-0.450,0.000,0.000,0.000
1640079196120985088,"2021-12-21,09:33:16",10.1.1.8,0.8208799362182617,-0.460,-0.460,-0.460,0.000,0.000,0.000
1640079196726958080,"2021-12-21,09:33:16",10.1.1.8,0.586946964263916,-0.470,-0.470,-0.470,0.000,0.000,0.000
1640079197290179072,"2021-12-21,09:33:17",10.1.1.8,561,-0.480,-0.480,-0.480,0.000,0.000,0.000
1640079197408454912,"2021-12-21,09:33:17",10.1.1.8,0.6802198886871338,-0.480,-0.480,-0.480,0.000,0.000,0.000
1640079197932089088,"2021-12-21,09:33:17",10.1.1.8,504,-0.490,-0.490,-0.490,0.000,0.000,0.000
1640079198005063168,"2021-12-21,09:33:18",10.1.1.8,0.57771897315979,-0.490,-0.490,-0.490,0.000,0.000,0.000
1640079198414073856,"2021-12-21,09:33:18",10.1.1.8,378,-0.480,-0.480,-0.480,0.000,0.000,0.000
1640079198571150080,"2021-12-21,09:33:18",10.1.1.8,0.5357999801635742,-0.480,-0.480,-0.480,0.000,0.000,0.000
1640079199213402112,"2021-12-21,09:33:19",10.1.1.8,639,-0.470,-0.470,-0.470,0.000,0.000,0.000
1640079199287499008,"2021-12-21,09:33:19",10.1.1.8,0.7132570743560791,-0.470,-0.470,-0.470,0.000,0.000,0.000
1640079199803430144,"2021-12-21,09:33:19",10.1.1.8,514,-0.460,-0.460,-0.460,0.000,0.000,0.000
1640079199923559936,"2021-12-21,09:33:19",10.1.1.8,0.6346819400787354,-0.460,-0.460,-0.460,0.000,0.000,0.000
1640079200369144832,"2021-12-21,09:33:20",10.1.1.8,443,-0.450,-0.450,-0.450,0.000,0.000,0.000
1640079200569075200,"2021-12-21,09:33:20",10.1.1.8,0.6430120468139648,-0.450,-0.450,-0.450,0.000,0.000,0.000
1640079200997750016,"2021-12-21,09:33:20",10.1.1.8,427,-0.440,-0.440,-0.440,0.000,0.000,0.000
1640079201039606016,"2021-12-21,09:33:21",10.1.1.8,0.4691948890686035,-0.440,-0.440,-0.440,0.000,0.000,0.000
1640079201427751168,"2021-12-21,09:33:21",10.1.1.8,384,-0.430,-0.430,-0.430,0.000,0.000,0.000
1640079201516127232,"2021-12-21,09:33:21",10.1.1.8,0.472822904586792,-0.430,-0.430,-0.430,0.000,0.000,0.000
1640079202087399936,"2021-12-21,09:33:22",10.1.1.8,492,-0.420,-0.420,-0.420,0.000,0.000,0.000
1640079202276439040,"2021-12-21,09:33:22",10.1.1.8,0.6819210052490234,-0.420,-0.420,-0.420,0.000,0.000,0.000
1640079202778456832,"2021-12-21,09:33:22",10.1.1.8,499,-0.410,-0.410,-0.410,0.000,0.000,0.000
1640079202864492032,"2021-12-21,09:33:22",10.1.1.8,0.5859830379486084,-0.410,-0.410,-0.410,0.000,0.000,0.000
1640079203366862080,"2021-12-21,09:33:23",10.1.1.8,497,-0.400,-0.400,-0.400,0.000,0.000,0.000
1640079203445467904,"2021-12-21,09:33:23",10.1.1.8,0.5760297775268555,-0.400,-0.400,-0.400,0.000,0.000,0.000
1640079204062264064,"2021-12-21,09:33:24",10.1.1.8,575,-0.390,-0.390,-0.390,0.000,0.000,0.000
1640079204137135872,"2021-12-21,09:33:24",10.1.1.8,0.6506929397583008,-0.390,-0.390,-0.390,0.000,0.000,0.000
1640079204695417856,"2021-12-21,09:33:24",10.1.1.8,536,-0.380,-0.380,-0.380,0.000,0.000,0.000
1640079204914845952,"2021-12-21,09:33:24",10.1.1.8,0.75541090965271,-0.380,-0.380,-0.380,0.000,0.000,0.000
1640079205393630976,"2021-12-21,09:33:25",10.1.1.8,468,-0.370,-0.370,-0.370,0.000,0.000,0.000
1640079205482409984,"2021-12-21,09:33:25",10.1.1.8,0.5572018623352051,-0.370,-0.370,-0.370,0.000,0.000,0.000
1640079206000312064,"2021-12-21,09:33:25",10.1.1.8,510,-0.360,-0.360,-0.360,0.000,0.000,0.000
1640079206149465088,"2021-12-21,09:33:26",10.1.1.8,0.6617178916931152,-0.360,-0.360,-0.360,0.000,0.000,0.000
1640079206755522048,"2021-12-21,09:33:26",10.1.1.8,585,-0.350,-0.350,-0.350,0.000,0.000,0.000
1640079206850222080,"2021-12-21,09:33:26",10.1.1.8,0.689439058303833,-0.350,-0.350,-0.350,0.000,0.000,0.000
1640079207400072960,"2021-12-21,09:33:27",10.1.1.8,542,-0.340,-0.340,-0.340,0.000,0.000,0.000
1640079207568864000,"2021-12-21,09:33:27",10.1.1.8,0.7117118835449219,-0.340,-0.340,-0.340,0.000,0.000,0.000
1640079208000241152,"2021-12-21,09:33:28",10.1.1.8,408,-0.330,-0.330,-0.330,0.000,0.000,0.000
1640079208115993088,"2021-12-21,09:33:28",10.1.1.8,0.5241189002990723,-0.330,-0.330,-0.330,0.000,0.000,0.000
1640079208661360896,"2021-12-21,09:33:28",10.1.1.8,532,-0.320,-0.320,-0.320,0.000,0.000,0.000
1640079208753068032,"2021-12-21,09:33:28",10.1.1.8,0.6246378421783447,-0.320,-0.320,-0.320,0.000,0.000,0.000
1640079209261946880,"2021-12-21,09:33:29",10.1.1.8,499,-0.310,-0.310,-0.310,0.000,0.000,0.000
1640079209461563136,"2021-12-21,09:33:29",10.1.1.8,0.6992261409759521,-0.310,-0.310,-0.310,0.000,0.000,0.000
1640079209975864832,"2021-12-21,09:33:29",10.1.1.8,512,-0.300,-0.300,-0.300,0.000,0.000,0.000
1640079210176071936,"2021-12-21,09:33:30",10.1.1.8,0.7125089168548584,-0.300,-0.300,-0.300,0.000,0.000,0.000
1640079210703494912,"2021-12-21,09:33:30",10.1.1.8,521,-0.290,-0.290,-0.290,0.000,0.000,0.000
1640079210825033984,"2021-12-21,09:33:30",10.1.1.8,0.6435811519622803,-0.290,-0.290,-0.290,0.000,0.000,0.000
1640079211392611072,"2021-12-21,09:33:31",10.1.1.8,541,-0.280,-0.280,-0.280,0.000,0.000,0.000
1640079211637993216,"2021-12-21,09:33:31",10.1.1.8,0.7869160175323486,-0.280,-0.280,-0.280,0.000,0.000,0.000
1640079212477161984,"2021-12-21,09:33:32",10.1.1.8,748,-0.270,-0.270,-0.270,0.000,0.000,0.000
1640079212594724864,"2021-12-21,09:33:32",10.1.1.8,0.9309830665588379,-0.270,-0.270,-0.270,0.000,0.000,0.000
1640079213449099008,"2021-12-21,09:33:33",10.1.1.8,800,-0.260,-0.260,-0.260,0.000,0.000,0.000
1640079213667474944,"2021-12-21,09:33:33",10.1.1.8,1.0190088748931885,-0.260,-0.260,-0.260,0.000,0.000,0.000
1640079214302339072,"2021-12-21,09:33:34",10.1.1.8,631,-0.250,-0.250,-0.250,0.000,0.000,0.000
1640079214516115968,"2021-12-21,09:33:34",10.1.1.8,0.8449180126190186,-0.250,-0.250,-0.250,0.000,0.000,0.000
1640079215115289088,"2021-12-21,09:33:35",10.1.1.8,597,-0.240,-0.240,-0.240,0.000,0.000,0.000
1640079215220657152,"2021-12-21,09:33:35",10.1.1.8,0.7024819850921631,-0.240,-0.240,-0.240,0.000,0.000,0.000
1640079215925436928,"2021-12-21,09:33:35",10.1.1.8,694,-0.230,-0.230,-0.230,0.000,0.000,0.000
1640079216055512832,"2021-12-21,09:33:36",10.1.1.8,0.8250470161437988,-0.230,-0.230,-0.230,0.000,0.000,0.000
1640079216518857984,"2021-12-21,09:33:36",10.1.1.8,454,-0.220,-0.220,-0.220,0.000,0.000,0.000
1640079216804876032,"2021-12-21,09:33:36",10.1.1.8,0.7354519367218018,-0.220,-0.220,-0.220,0.000,0.000,0.000
1640079217375840000,"2021-12-21,09:33:37",10.1.1.8,564,-0.210,-0.210,-0.210,0.000,0.000,0.000
1640079217517961984,"2021-12-21,09:33:37",10.1.1.8,0.706683874130249,-0.210,-0.210,-0.210,0.000,0.000,0.000
1640079218144131072,"2021-12-21,09:33:38",10.1.1.8,602,-0.200,-0.200,-0.200,0.000,0.000,0.000
1640079218291358976,"2021-12-21,09:33:38",10.1.1.8,0.7501261234283447,-0.200,-0.200,-0.200,0.000,0.000,0.000
1640079218889876992,"2021-12-21,09:33:38",10.1.1.8,584,-0.190,-0.190,-0.190,0.000,0.000,0.000
1640079219079099904,"2021-12-21,09:33:39",10.1.1.8,0.7756350040435791,-0.190,-0.190,-0.190,0.000,0.000,0.000
1640079219606123008,"2021-12-21,09:33:39",10.1.1.8,522,-0.180,-0.180,-0.180,0.000,0.000,0.000
1640079219752788992,"2021-12-21,09:33:39",10.1.1.8,0.668830156326294,-0.180,-0.180,-0.180,0.000,0.000,0.000
1640079220282270976,"2021-12-21,09:33:40",10.1.1.8,524,-0.170,-0.170,-0.170,0.000,0.000,0.000
1640079220392247040,"2021-12-21,09:33:40",10.1.1.8,0.6344070434570312,-0.170,-0.170,-0.170,0.000,0.000,0.000
1640079220950259968,"2021-12-21,09:33:40",10.1.1.8,554,-0.160,-0.160,-0.160,0.000,0.000,0.000
1640079221141794048,"2021-12-21,09:33:41",10.1.1.8,0.7456510066986084,-0.160,-0.160,-0.160,0.000,0.000,0.000
1640079221701797120,"2021-12-21,09:33:41",10.1.1.8,543,-0.150,-0.150,-0.150,0.000,0.000,0.000
1640079221803916032,"2021-12-21,09:33:41",10.1.1.8,0.6606080532073975,-0.150,-0.150,-0.150,0.000,0.000,0.000
1640079222346467072,"2021-12-21,09:33:42",10.1.1.8,530,-0.140,-0.140,-0.140,0.000,0.000,0.000
1640079222563364096,"2021-12-21,09:33:42",10.1.1.8,0.7475979328155518,-0.140,-0.140,-0.140,0.000,0.000,0.000
1640079223343772928,"2021-12-21,09:33:43",10.1.1.8,778,-0.130,-0.130,-0.130,0.000,0.000,0.000
1640079223374813952,"2021-12-21,09:33:43",10.1.1.8,0.8093080520629883,-0.130,-0.130,-0.130,0.000,0.000,0.000
1640079224084211968,"2021-12-21,09:33:44",10.1.1.8,0.7065579891204834,-0.120,-0.120,-0.120,0.000,0.000,0.000
1640079224165689856,"2021-12-21,09:33:44",10.1.1.8,-1,-0.110,-0.110,-0.110,0.000,0.000,0.000
1640079224710350080,"2021-12-21,09:33:44",10.1.1.8,0.6173748970031738,-0.110,-0.110,-0.110,0.000,0.000,0.000
1640079225136965888,"2021-12-21,09:33:45",10.1.1.8,420,-0.100,-0.100,-0.100,0.000,0.000,0.000
1640079225221158912,"2021-12-21,09:33:45",10.1.1.8,0.501356840133667,-0.100,-0.100,-0.100,0.000,0.000,0.000
1640079225697664000,"2021-12-21,09:33:45",10.1.1.8,472,-0.090,-0.090,-0.090,0.000,0.000,0.000
1640079225809526016,"2021-12-21,09:33:45",10.1.1.8,0.584388017654419,-0.090,-0.090,-0.090,0.000,0.000,0.000
1640079226314116864,"2021-12-21,09:33:46",10.1.1.8,502,-0.080,-0.080,-0.080,0.000,0.000,0.000
1640079226477474816,"2021-12-21,09:33:46",10.1.1.8,0.6656551361083984,-0.080,-0.080,-0.080,0.000,0.000,0.000
1640079226987986944,"2021-12-21,09:33:46",10.1.1.8,498,-0.070,-0.070,-0.070,0.000,0.000,0.000
1640079227251143936,"2021-12-21,09:33:47",10.1.1.8,0.7716941833496094,-0.070,-0.070,-0.070,0.000,0.000,0.000
1640079227800021760,"2021-12-21,09:33:47",10.1.1.8,547,-0.060,-0.060,-0.060,0.000,0.000,0.000
1640079227900936960,"2021-12-21,09:33:47",10.1.1.8,0.6483409404754639,-0.060,-0.060,-0.060,0.000,0.000,0.000
1640079228403247104,"2021-12-21,09:33:48",10.1.1.8,452,-0.050,-0.050,-0.050,0.000,0.000,0.000
1640079228508559104,"2021-12-21,09:33:48",10.1.1.8,0.5573267936706543,-0.050,-0.050,-0.050,0.000,0.000,0.000
1640079229132528896,"2021-12-21,09:33:49",10.1.1.8,614,-0.040,-0.040,-0.040,0.000,0.000,0.000
1640079229258824192,"2021-12-21,09:33:49",10.1.1.8,0.7402088642120361,-0.040,-0.040,-0.040,0.000,0.000,0.000
1640079229776982016,"2021-12-21,09:33:49",10.1.1.8,513,-0.030,-0.030,-0.030,0.000,0.000,0.000
1640079229953406976,"2021-12-21,09:33:49",10.1.1.8,0.6899230480194092,-0.030,-0.030,-0.030,0.000,0.000,0.000
1640079230472342016,"2021-12-21,09:33:50",10.1.1.8,498,-0.020,-0.020,-0.020,0.000,0.000,0.000
1640079230695798016,"2021-12-21,09:33:50",10.1.1.8,0.7223989963531494,-0.020,-0.020,-0.020,0.000,0.000,0.000
1640079231145937920,"2021-12-21,09:33:51",10.1.1.8,430,-0.010,-0.010,-0.010,0.000,0.000,0.000
1640079231226323968,"2021-12-21,09:33:51",10.1.1.8,0.5110399723052979,-0.010,-0.010,-0.010,0.000,0.000,0.000
1640079231652964096,"2021-12-21,09:33:51",10.1.1.8,414,0.000,0.000,0.000,0.000,0.000,0.000
1640079231752552960,"2021-12-21,09:33:51",10.1.1.8,0.5140409469604492,0.000,0.000,0.000,0.000,0.000,0.000
1640079232227200000,"2021-12-21,09:33:52",10.1.1.8,469,-0.010,-0.010,-0.010,0.000,0.000,0.000
1640079232469444864,"2021-12-21,09:33:52",10.1.1.8,0.7113571166992188,-0.010,-0.010,-0.010,0.000,0.000,0.000
1640079232982810112,"2021-12-21,09:33:52",10.1.1.8,496,-0.020,-0.020,-0.020,0.000,0.000,0.000
1640079233129600000,"2021-12-21,09:33:53",10.1.1.8,0.6433758735656738,-0.020,-0.020,-0.020,0.000,0.000,0.000
1640079233677395968,"2021-12-21,09:33:53",10.1.1.8,458,-0.030,-0.030,-0.030,0.000,0.000,0.000
1640079233827241984,"2021-12-21,09:33:53",10.1.1.8,0.6270232200622559,-0.030,-0.030,-0.030,0.000,0.000,0.000
1640079234339724032,"2021-12-21,09:33:54",10.1.1.8,510,-0.040,-0.040,-0.040,0.000,0.000,0.000
1640079234508270080,"2021-12-21,09:33:54",10.1.1.8,0.6791911125183105,-0.040,-0.040,-0.040,0.000,0.000,0.000
1640079234994006016,"2021-12-21,09:33:54",10.1.1.8,456,-0.050,-0.050,-0.050,0.000,0.000,0.000
1640079235086447104,"2021-12-21,09:33:55",10.1.1.8,0.5491430759429932,-0.050,-0.050,-0.050,0.000,0.000,0.000
1640079235514867968,"2021-12-21,09:33:55",10.1.1.8,425,-0.060,-0.060,-0.060,0.000,0.000,0.000
1640079235612251904,"2021-12-21,09:33:55",10.1.1.8,0.5224740505218506,-0.060,-0.060,-0.060,0.000,0.000,0.000
1640079236076515072,"2021-12-21,09:33:56",10.1.1.8,453,-0.070,-0.070,-0.070,0.000,0.000,0.000
1640079236171117056,"2021-12-21,09:33:56",10.1.1.8,0.5484318733215332,-0.070,-0.070,-0.070,0.000,0.000,0.000
1640079236802182912,"2021-12-21,09:33:56",10.1.1.8,604,-0.080,-0.080,-0.080,0.000,0.000,0.000
1640079236896948992,"2021-12-21,09:33:56",10.1.1.8,0.7086708545684814,-0.080,-0.080,-0.080,0.000,0.000,0.000
1640079237436261888,"2021-12-21,09:33:57",10.1.1.8,536,-0.090,-0.090,-0.090,0.000,0.000,0.000
1640079237585896960,"2021-12-21,09:33:57",10.1.1.8,0.6871111392974854,-0.090,-0.090,-0.090,0.000,0.000,0.000
1640079237638863104,"2021-12-21,09:33:57",10.1.1.8,-2,-0.100,-0.100,-0.100,0.000,0.000,0.000
1640079238399336192,"2021-12-21,09:33:58",10.1.1.8,0.7394149303436279,-0.100,-0.100,-0.100,0.000,0.000,0.000
1640079239012208896,"2021-12-21,09:33:59",10.1.1.8,610,-0.110,-0.110,-0.110,0.000,0.000,0.000
1640079239080666112,"2021-12-21,09:33:59",10.1.1.8,0.6790399551391602,-0.110,-0.110,-0.110,0.000,0.000,0.000
1640079239582042880,"2021-12-21,09:33:59",10.1.1.8,484,-0.120,-0.120,-0.120,0.000,0.000,0.000
1640079239695065856,"2021-12-21,09:33:59",10.1.1.8,0.5967650413513184,-0.120,-0.120,-0.120,0.000,0.000,0.000
1640079240405684992,"2021-12-21,09:34:00",10.1.1.8,699,-0.130,-0.130,-0.130,0.000,0.000,0.000
1640079240517884928,"2021-12-21,09:34:00",10.1.1.8,0.8210499286651611,-0.130,-0.130,-0.130,0.000,0.000,0.000
1640079241029714176,"2021-12-21,09:34:01",10.1.1.8,503,-0.140,-0.140,-0.140,0.000,0.000,0.000
1640079241117590784,"2021-12-21,09:34:01",10.1.1.8,0.5917041301727295,-0.140,-0.140,-0.140,0.000,0.000,0.000
1640079241740578048,"2021-12-21,09:34:01",10.1.1.8,605,-0.150,-0.150,-0.150,0.000,0.000,0.000
1640079241777522176,"2021-12-21,09:34:01",10.1.1.8,0.6427690982818604,-0.150,-0.150,-0.150,0.000,0.000,0.000
1640079242278299136,"2021-12-21,09:34:02",10.1.1.8,457,-0.160,-0.160,-0.160,0.000,0.000,0.000
1640079242386373888,"2021-12-21,09:34:02",10.1.1.8,0.565608024597168,-0.160,-0.160,-0.160,0.000,0.000,0.000
1640079242886881024,"2021-12-21,09:34:02",10.1.1.8,494,-0.170,-0.170,-0.170,0.000,0.000,0.000
1640079243113027072,"2021-12-21,09:34:03",10.1.1.8,0.7213611602783203,-0.170,-0.170,-0.170,0.000,0.000,0.000
1640079243670202112,"2021-12-21,09:34:03",10.1.1.8,543,-0.180,-0.180,-0.180,0.000,0.000,0.000
1640079243927745024,"2021-12-21,09:34:03",10.1.1.8,0.8011109828948975,-0.180,-0.180,-0.180,0.000,0.000,0.000
1640079244496999936,"2021-12-21,09:34:04",10.1.1.8,565,-0.190,-0.190,-0.190,0.000,0.000,0.000
1640079244875348992,"2021-12-21,09:34:04",10.1.1.8,0.9443771839141846,-0.190,-0.190,-0.190,0.000,0.000,0.000
1640079245433507840,"2021-12-21,09:34:05",10.1.1.8,537,-0.200,-0.200,-0.200,0.000,0.000,0.000
1640079245592752896,"2021-12-21,09:34:05",10.1.1.8,0.7159059047698975,-0.200,-0.200,-0.200,0.000,0.000,0.000
1640079246221757952,"2021-12-21,09:34:06",10.1.1.8,625,-0.210,-0.210,-0.210,0.000,0.000,0.000
1640079246323385088,"2021-12-21,09:34:06",10.1.1.8,0.7276818752288818,-0.210,-0.210,-0.210,0.000,0.000,0.000
1640079246947336960,"2021-12-21,09:34:06",10.1.1.8,622,-0.220,-0.220,-0.220,0.000,0.000,0.000
1640079247225807872,"2021-12-21,09:34:07",10.1.1.8,0.9010300636291504,-0.220,-0.220,-0.220,0.000,0.000,0.000
1640079247766354176,"2021-12-21,09:34:07",10.1.1.8,534,-0.230,-0.230,-0.230,0.000,0.000,0.000
1640079247846690048,"2021-12-21,09:34:07",10.1.1.8,0.6153359413146973,-0.230,-0.230,-0.230,0.000,0.000,0.000
1640079248428247808,"2021-12-21,09:34:08",10.1.1.8,578,-0.240,-0.240,-0.240,0.000,0.000,0.000
1640079248542323968,"2021-12-21,09:34:08",10.1.1.8,0.692816972732544,-0.240,-0.240,-0.240,0.000,0.000,0.000
1640079249192549888,"2021-12-21,09:34:09",10.1.1.8,644,-0.250,-0.250,-0.250,0.000,0.000,0.000
1640079249317166080,"2021-12-21,09:34:09",10.1.1.8,0.7689368724822998,-0.250,-0.250,-0.250,0.000,0.000,0.000
1640079249860515072,"2021-12-21,09:34:09",10.1.1.8,540,-0.260,-0.260,-0.260,0.000,0.000,0.000
1640079250015852032,"2021-12-21,09:34:10",10.1.1.8,0.6960320472717285,-0.260,-0.260,-0.260,0.000,0.000,0.000
1640079250649934080,"2021-12-21,09:34:10",10.1.1.8,601,-0.270,-0.270,-0.270,0.000,0.000,0.000
1640079250724073984,"2021-12-21,09:34:10",10.1.1.8,0.6755380630493164,-0.270,-0.270,-0.270,0.000,0.000,0.000
1640079251189416960,"2021-12-21,09:34:11",10.1.1.8,463,-0.280,-0.280,-0.280,0.000,0.000,0.000
1640079251388777984,"2021-12-21,09:34:11",10.1.1.8,0.6625480651855469,-0.280,-0.280,-0.280,0.000,0.000,0.000
1640079251919883008,"2021-12-21,09:34:11",10.1.1.8,528,-0.290,-0.290,-0.290,0.000,0.000,0.000
1640079252076633088,"2021-12-21,09:34:12",10.1.1.8,0.6851248741149902,-0.290,-0.290,-0.290,0.000,0.000,0.000
1640079252650036224,"2021-12-21,09:34:12",10.1.1.8,566,-0.300,-0.300,-0.300,0.000,0.000,0.000
1640079253006308096,"2021-12-21,09:34:13",10.1.1.8,0.9225358963012695,-0.300,-0.300,-0.300,0.000,0.000,0.000
1640079253612310784,"2021-12-21,09:34:13",10.1.1.8,604,-0.310,-0.310,-0.310,0.000,0.000,0.000
1640079253925307136,"2021-12-21,09:34:13",10.1.1.8,0.9171650409698486,-0.310,-0.310,-0.310,0.000,0.000,0.000
1640079254455849984,"2021-12-21,09:34:14",10.1.1.8,523,-0.320,-0.320,-0.320,0.000,0.000,0.000
1640079254620523008,"2021-12-21,09:34:14",10.1.1.8,0.6884129047393799,-0.320,-0.320,-0.320,0.000,0.000,0.000
1640079255120958976,"2021-12-21,09:34:15",10.1.1.8,497,-0.330,-0.330,-0.330,0.000,0.000,0.000
1640079255288235776,"2021-12-21,09:34:15",10.1.1.8,0.6651420593261719,-0.330,-0.330,-0.330,0.000,0.000,0.000
1640079255871661824,"2021-12-21,09:34:15",10.1.1.8,528,-0.340,-0.340,-0.340,0.000,0.000,0.000
1640079256185401088,"2021-12-21,09:34:16",10.1.1.8,0.8635179996490479,-0.340,-0.340,-0.340,0.000,0.000,0.000
1640079256714999808,"2021-12-21,09:34:16",10.1.1.8,502,-0.350,-0.350,-0.350,0.000,0.000,0.000
1640079257091158016,"2021-12-21,09:34:17",10.1.1.8,0.8893740177154541,-0.350,-0.350,-0.350,0.000,0.000,0.000
1640079257639456000,"2021-12-21,09:34:17",10.1.1.8,546,-0.360,-0.360,-0.360,0.000,0.000,0.000
1640079257708753152,"2021-12-21,09:34:17",10.1.1.8,0.6158111095428467,-0.360,-0.360,-0.360,0.000,0.000,0.000
1640079258333349888,"2021-12-21,09:34:18",10.1.1.8,615,-0.370,-0.370,-0.370,0.000,0.000,0.000
1640079258551376128,"2021-12-21,09:34:18",10.1.1.8,0.8401980400085449,-0.370,-0.370,-0.370,0.000,0.000,0.000
1640079259115798016,"2021-12-21,09:34:19",10.1.1.8,562,-0.380,-0.380,-0.380,0.000,0.000,0.000
1640079259280928000,"2021-12-21,09:34:19",10.1.1.8,0.7280580997467041,-0.380,-0.380,-0.380,0.000,0.000,0.000
1640079259758046976,"2021-12-21,09:34:19",10.1.1.8,465,-0.390,-0.390,-0.390,0.000,0.000,0.000
1640079260084496896,"2021-12-21,09:34:20",10.1.1.8,0.7919111251831055,-0.390,-0.390,-0.390,0.000,0.000,0.000
1640079260604003840,"2021-12-21,09:34:20",10.1.1.8,511,-0.400,-0.400,-0.400,0.000,0.000,0.000
1640079260773618944,"2021-12-21,09:34:20",10.1.1.8,0.6808440685272217,-0.400,-0.400,-0.400,0.000,0.000,0.000
1640079261229985024,"2021-12-21,09:34:21",10.1.1.8,449,-0.410,-0.410,-0.410,0.000,0.000,0.000
1640079261361347072,"2021-12-21,09:34:21",10.1.1.8,0.5813918113708496,-0.410,-0.410,-0.410,0.000,0.000,0.000
1640079262022882048,"2021-12-21,09:34:22",10.1.1.8,605,-0.420,-0.420,-0.420,0.000,0.000,0.000
1640079262320760064,"2021-12-21,09:34:22",10.1.1.8,0.9036037921905518,-0.420,-0.420,-0.420,0.000,0.000,0.000
1640079262781186048,"2021-12-21,09:34:22",10.1.1.8,457,-0.430,-0.430,-0.430,0.000,0.000,0.000
1640079263007489792,"2021-12-21,09:34:23",10.1.1.8,0.6814749240875244,-0.430,-0.430,-0.430,0.000,0.000,0.000
1640079263542964992,"2021-12-21,09:34:23",10.1.1.8,525,-0.440,-0.440,-0.440,0.000,0.000,0.000
1640079263782269952,"2021-12-21,09:34:23",10.1.1.8,0.7651598453521729,-0.440,-0.440,-0.440,0.000,0.000,0.000
1640079264269676800,"2021-12-21,09:34:24",10.1.1.8,485,-0.450,-0.450,-0.450,0.000,0.000,0.000
1640079264377276928,"2021-12-21,09:34:24",10.1.1.8,0.586421012878418,-0.450,-0.450,-0.450,0.000,0.000,0.000
1640079264986331904,"2021-12-21,09:34:24",10.1.1.8,606,-0.460,-0.460,-0.460,0.000,0.000,0.000
1640079265327089152,"2021-12-21,09:34:25",10.1.1.8,0.9468798637390137,-0.460,-0.460,-0.460,0.000,0.000,0.000
1640079265906076928,"2021-12-21,09:34:25",10.1.1.8,573,-0.470,-0.470,-0.470,0.000,0.000,0.000
1640079266114478080,"2021-12-21,09:34:26",10.1.1.8,0.7817411422729492,-0.470,-0.470,-0.470,0.000,0.000,0.000
1640079266669923072,"2021-12-21,09:34:26",10.1.1.8,553,-0.480,-0.480,-0.480,0.000,0.000,0.000
1640079266846363904,"2021-12-21,09:34:26",10.1.1.8,0.7304000854492188,-0.480,-0.480,-0.480,0.000,0.000,0.000
1640079267359142912,"2021-12-21,09:34:27",10.1.1.8,502,-0.490,-0.490,-0.490,0.000,0.000,0.000
1640079267449928960,"2021-12-21,09:34:27",10.1.1.8,0.6007068157196045,-0.490,-0.490,-0.490,0.000,0.000,0.000
1640079267933337088,"2021-12-21,09:34:27",10.1.1.8,481,-0.480,-0.480,-0.480,0.000,0.000,0.000
1640079268067558912,"2021-12-21,09:34:28",10.1.1.8,0.6141982078552246,-0.480,-0.480,-0.480,0.000,0.000,0.000
1640079268513694976,"2021-12-21,09:34:28",10.1.1.8,437,-0.470,-0.470,-0.470,0.000,0.000,0.000
1640079268607757056,"2021-12-21,09:34:28",10.1.1.8,0.5319459438323975,-0.470,-0.470,-0.470,0.000,0.000,0.000
1640079269163191040,"2021-12-21,09:34:29",10.1.1.8,542,-0.460,-0.460,-0.460,0.000,0.000,0.000
1640079269258387200,"2021-12-21,09:34:29",10.1.1.8,0.637559175491333,-0.460,-0.460,-0.460,0.000,0.000,0.000
1640079269737148928,"2021-12-21,09:34:29",10.1.1.8,473,-0.450,-0.450,-0.450,0.000,0.000,0.000
1640079269852107008,"2021-12-21,09:34:29",10.1.1.8,0.5885310173034668,-0.450,-0.450,-0.450,0.000,0.000,0.000
1640079270449662976,"2021-12-21,09:34:30",10.1.1.8,596,-0.440,-0.440,-0.440,0.000,0.000,0.000
1640079270621323008,"2021-12-21,09:34:30",10.1.1.8,0.7677700519561768,-0.440,-0.440,-0.440,0.000,0.000,0.000
1640079271148144896,"2021-12-21,09:34:31",10.1.1.8,495,-0.430,-0.430,-0.430,0.000,0.000,0.000
1640079271378913024,"2021-12-21,09:34:31",10.1.1.8,0.7101428508758545,-0.430,-0.430,-0.430,0.000,0.000,0.000
1640079271921318912,"2021-12-21,09:34:31",10.1.1.8,539,-0.420,-0.420,-0.420,0.000,0.000,0.000
1640079272064288000,"2021-12-21,09:34:32",10.1.1.8,0.6824679374694824,-0.420,-0.420,-0.420,0.000,0.000,0.000
1640079272560220928,"2021-12-21,09:34:32",10.1.1.8,480,-0.410,-0.410,-0.410,0.000,0.000,0.000
1640079272610133760,"2021-12-21,09:34:32",10.1.1.8,0.5307409763336182,-0.410,-0.410,-0.410,0.000,0.000,0.000
1640079273170129152,"2021-12-21,09:34:33",10.1.1.8,547,-0.400,-0.400,-0.400,0.000,0.000,0.000
1640079273376452864,"2021-12-21,09:34:33",10.1.1.8,0.754188060760498,-0.400,-0.400,-0.400,0.000,0.000,0.000
1640079273954985984,"2021-12-21,09:34:33",10.1.1.8,559,-0.390,-0.390,-0.390,0.000,0.000,0.000
1640079274183495936,"2021-12-21,09:34:34",10.1.1.8,0.7879900932312012,-0.390,-0.390,-0.390,0.000,0.000,0.000
1640079274640571136,"2021-12-21,09:34:34",10.1.1.8,440,-0.380,-0.380,-0.380,0.000,0.000,0.000
1640079274724530944,"2021-12-21,09:34:34",10.1.1.8,0.5247559547424316,-0.380,-0.380,-0.380,0.000,0.000,0.000
1640079275208310016,"2021-12-21,09:34:35",10.1.1.8,482,-0.370,-0.370,-0.370,0.000,0.000,0.000
1640079275275862016,"2021-12-21,09:34:35",10.1.1.8,0.5486941337585449,-0.370,-0.370,-0.370,0.000,0.000,0.000
1640079275861874944,"2021-12-21,09:34:35",10.1.1.8,582,-0.360,-0.360,-0.360,0.000,0.000,0.000
1640079275950071040,"2021-12-21,09:34:35",10.1.1.8,0.6705408096313477,-0.360,-0.360,-0.360,0.000,0.000,0.000
1640079276580275968,"2021-12-21,09:34:36",10.1.1.8,628,-0.350,-0.350,-0.350,0.000,0.000,0.000
1640079276727579136,"2021-12-21,09:34:36",10.1.1.8,0.7675390243530273,-0.350,-0.350,-0.350,0.000,0.000,0.000
1640079277413624064,"2021-12-21,09:34:37",10.1.1.8,683,-0.340,-0.340,-0.340,0.000,0.000,0.000
1640079277646772992,"2021-12-21,09:34:37",10.1.1.8,0.9164688587188721,-0.340,-0.340,-0.340,0.000,0.000,0.000
1640079278422486016,"2021-12-21,09:34:38",10.1.1.8,771,-0.330,-0.330,-0.330,0.000,0.000,0.000
1640079278829998080,"2021-12-21,09:34:38",10.1.1.8,1.178645133972168,-0.330,-0.330,-0.330,0.000,0.000,0.000
1640079279748090112,"2021-12-21,09:34:39",10.1.1.8,0.9091229438781738,-0.320,-0.320,-0.320,0.000,0.000,0.000
1640079280406024960,"2021-12-21,09:34:40",10.1.1.8,647,-0.310,-0.310,-0.310,0.000,0.000,0.000
1640079280911578880,"2021-12-21,09:34:40",10.1.1.8,1.1527090072631836,-0.310,-0.310,-0.310,0.000,0.000,0.000
1640079281781942016,"2021-12-21,09:34:41",10.1.1.8,840,-0.300,-0.300,-0.300,0.000,0.000,0.000
1640079281993072896,"2021-12-21,09:34:41",10.1.1.8,1.0515260696411133,-0.300,-0.300,-0.300,0.000,0.000,0.000
1640079282936582144,"2021-12-21,09:34:42",10.1.1.8,883,-0.290,-0.290,-0.290,0.000,0.000,0.000
1640079283183664128,"2021-12-21,09:34:43",10.1.1.8,1.1308801174163818,-0.290,-0.290,-0.290,0.000,0.000,0.000
1640079283868721920,"2021-12-21,09:34:43",10.1.1.8,614,-0.280,-0.280,-0.280,0.000,0.000,0.000
1640079284072487168,"2021-12-21,09:34:44",10.1.1.8,0.8178369998931885,-0.280,-0.280,-0.280,0.000,0.000,0.000
1640079284739578880,"2021-12-21,09:34:44",10.1.1.8,641,-0.270,-0.270,-0.270,0.000,0.000,0.000
1640079284964366080,"2021-12-21,09:34:44",10.1.1.8,0.866121768951416,-0.270,-0.270,-0.270,0.000,0.000,0.000
1640079285801191936,"2021-12-21,09:34:45",10.1.1.8,835,-0.260,-0.260,-0.260,0.000,0.000,0.000
1640079286161561856,"2021-12-21,09:34:46",10.1.1.8,1.1955740451812744,-0.260,-0.260,-0.260,0.000,0.000,0.000
1640079287243155968,"2021-12-21,09:34:46",10.1.1.8,690,-0.250,-0.250,-0.250,0.000,0.000,0.000
1640079287477150976,"2021-12-21,09:34:47",10.1.1.8,1.2974450588226318,-0.250,-0.250,-0.250,0.000,0.000,0.000
1640079294348964864,"2021-12-21,09:34:54",10.1.1.8,6735,-0.240,-0.240,-0.240,0.000,0.000,0.000
1640079294604797952,"2021-12-21,09:34:54",10.1.1.8,7.089335918426514,-0.240,-0.240,-0.240,0.000,0.000,0.000
1640079295313273856,"2021-12-21,09:34:55",10.1.1.8,692,-0.230,-0.230,-0.230,0.000,0.000,0.000
1640079295362449920,"2021-12-21,09:34:55",10.1.1.8,0.7415139675140381,-0.230,-0.230,-0.230,0.000,0.000,0.000
1640079296256880128,"2021-12-21,09:34:56",10.1.1.8,740,-0.220,-0.220,-0.220,0.000,0.000,0.000
1640079296718960896,"2021-12-21,09:34:56",10.1.1.8,1.2430529594421387,-0.220,-0.220,-0.220,0.000,0.000,0.000
1640079297470870016,"2021-12-21,09:34:57",10.1.1.8,731,-0.210,-0.210,-0.210,0.000,0.000,0.000
1640079297621884160,"2021-12-21,09:34:57",10.1.1.8,0.8829030990600586,-0.210,-0.210,-0.210,0.000,0.000,0.000
1640079298777271040,"2021-12-21,09:34:58",10.1.1.8,1074,-0.200,-0.200,-0.200,0.000,0.000,0.000
1640079299441014016,"2021-12-21,09:34:59",10.1.1.8,1.767874002456665,-0.200,-0.200,-0.200,0.000,0.000,0.000
1640079300645097984,"2021-12-21,09:35:00",10.1.1.8,1202,-0.190,-0.190,-0.190,0.000,0.000,0.000
1640079301404109056,"2021-12-21,09:35:01",10.1.1.8,1.9615459442138672,-0.190,-0.190,-0.190,0.000,0.000,0.000
1640079305724963072,"2021-12-21,09:35:03",10.1.1.8,2277,-0.180,-0.180,-0.180,0.000,0.000,0.000
1640079306027703040,"2021-12-21,09:35:06",10.1.1.8,4.611502170562744,-0.180,-0.180,-0.180,0.000,0.000,0.000
1640079307428765184,"2021-12-21,09:35:07",10.1.1.8,1380,-0.170,-0.170,-0.170,0.000,0.000,0.000
1640079307724589056,"2021-12-21,09:35:07",10.1.1.8,1.677123785018921,-0.170,-0.170,-0.170,0.000,0.000,0.000
1640079307745573120,"2021-12-21,09:35:07",10.1.1.8,-1,-0.160,-0.160,-0.160,0.000,0.000,0.000
1640079308557316096,"2021-12-21,09:35:08",10.1.1.8,0.8132450580596924,-0.160,-0.160,-0.160,0.000,0.000,0.000
1640079309187084032,"2021-12-21,09:35:09",10.1.1.8,609,-0.150,-0.150,-0.150,0.000,0.000,0.000
1640079309432838912,"2021-12-21,09:35:09",10.1.1.8,0.8554449081420898,-0.150,-0.150,-0.150,0.000,0.000,0.000
1640079310217657088,"2021-12-21,09:35:10",10.1.1.8,740,-0.140,-0.140,-0.140,0.000,0.000,0.000
1640079310651473152,"2021-12-21,09:35:10",10.1.1.8,1.173501968383789,-0.140,-0.140,-0.140,0.000,0.000,0.000
1640079311775824128,"2021-12-21,09:35:11",10.1.1.8,1031,-0.130,-0.130,-0.130,0.000,0.000,0.000
1640079311908296960,"2021-12-21,09:35:11",10.1.1.8,1.2449798583984375,-0.130,-0.130,-0.130,0.000,0.000,0.000
1640079312686369024,"2021-12-21,09:35:12",10.1.1.8,769,-0.120,-0.120,-0.120,0.000,0.000,0.000
1640079314000613888,"2021-12-21,09:35:14",10.1.1.8,2.0838160514831543,-0.120,-0.120,-0.120,0.000,0.000,0.000
1640079315095448064,"2021-12-21,09:35:15",10.1.1.8,1046,-0.110,-0.110,-0.110,0.000,0.000,0.000
1640079315507905024,"2021-12-21,09:35:15",10.1.1.8,1.4590120315551758,-0.110,-0.110,-0.110,0.000,0.000,0.000
1640079316547961856,"2021-12-21,09:35:16",10.1.1.8,1023,-0.100,-0.100,-0.100,0.000,0.000,0.000
1640079316651012864,"2021-12-21,09:35:16",10.1.1.8,1.126593828201294,-0.100,-0.100,-0.100,0.000,0.000,0.000
1640079317358018048,"2021-12-21,09:35:17",10.1.1.8,705,-0.090,-0.090,-0.090,0.000,0.000,0.000
1640079318037676032,"2021-12-21,09:35:18",10.1.1.8,1.384768009185791,-0.090,-0.090,-0.090,0.000,0.000,0.000
1640079318731715840,"2021-12-21,09:35:18",10.1.1.8,632,-0.080,-0.080,-0.080,0.000,0.000,0.000
1640079318842466048,"2021-12-21,09:35:18",10.1.1.8,0.743427038192749,-0.080,-0.080,-0.080,0.000,0.000,0.000
1640079319623724032,"2021-12-21,09:35:19",10.1.1.8,778,-0.070,-0.070,-0.070,0.000,0.000,0.000
1640079319809280000,"2021-12-21,09:35:19",10.1.1.8,0.9645740985870361,-0.070,-0.070,-0.070,0.000,0.000,0.000
1640079320452356096,"2021-12-21,09:35:20",10.1.1.8,625,-0.060,-0.060,-0.060,0.000,0.000,0.000
1640079320761063168,"2021-12-21,09:35:20",10.1.1.8,0.9501450061798096,-0.060,-0.060,-0.060,0.000,0.000,0.000
1640079321798400000,"2021-12-21,09:35:21",10.1.1.8,1008,-0.050,-0.050,-0.050,0.000,0.000,0.000
1640079322326051840,"2021-12-21,09:35:22",10.1.1.8,1.5078308582305908,-0.050,-0.050,-0.050,0.000,0.000,0.000
1640079323020681984,"2021-12-21,09:35:23",10.1.1.8,691,-0.040,-0.040,-0.040,0.000,0.000,0.000
1640079323373039872,"2021-12-21,09:35:23",10.1.1.8,1.043945074081421,-0.040,-0.040,-0.040,0.000,0.000,0.000
1640079324627921152,"2021-12-21,09:35:24",10.1.1.8,1186,-0.030,-0.030,-0.030,0.000,0.000,0.000
1640079325976866048,"2021-12-21,09:35:25",10.1.1.8,1.743363857269287,-0.030,-0.030,-0.030,0.000,0.000,0.000
1640079327124444928,"2021-12-21,09:35:27",10.1.1.8,1079,-0.020,-0.020,-0.020,0.000,0.000,0.000
1640079327564491008,"2021-12-21,09:35:27",10.1.1.8,1.5302040576934814,-0.020,-0.020,-0.020,0.000,0.000,0.000
1640079328413997824,"2021-12-21,09:35:28",10.1.1.8,847,-0.010,-0.010,-0.010,0.000,0.000,0.000
1640079328414304000,"2021-12-21,09:35:28",10.1.1.8,0.8481330871582031,-0.010,-0.010,-0.010,0.000,0.000,0.000
1640079329538522112,"2021-12-21,09:35:29",10.1.1.8,779,0.000,0.000,0.000,0.000,0.000,0.000
1640079329580672000,"2021-12-21,09:35:29",10.1.1.8,1.1472630500793457,0.000,0.000,0.000,0.000,0.000,0.000
1640079330850324992,"2021-12-21,09:35:30",10.1.1.8,623,-0.010,-0.010,-0.010,0.000,0.000,0.000
1640079331057012992,"2021-12-21,09:35:31",10.1.1.8,0.8302888870239258,-0.010,-0.010,-0.010,0.000,0.000,0.000
1640079332135668992,"2021-12-21,09:35:32",10.1.1.8,1027,-0.020,-0.020,-0.020,0.000,0.000,0.000
1640079332664509184,"2021-12-21,09:35:32",10.1.1.8,1.5980300903320312,-0.020,-0.020,-0.020,0.000,0.000,0.000
1640079334056651008,"2021-12-21,09:35:33",10.1.1.8,1184,-0.030,-0.030,-0.030,0.000,0.000,0.000
1640079334362394112,"2021-12-21,09:35:34",10.1.1.8,1.6964809894561768,-0.030,-0.030,-0.030,0.000,0.000,0.000
1640079336391159040,"2021-12-21,09:35:36",10.1.1.8,2.016091823577881,-0.040,-0.040,-0.040,0.000,0.000,0.000
1640079336889305088,"2021-12-21,09:35:36",10.1.1.8,469,-0.050,-0.050,-0.050,0.000,0.000,0.000
1640079337063465216,"2021-12-21,09:35:37",10.1.1.8,0.6434321403503418,-0.050,-0.050,-0.050,0.000,0.000,0.000
1640079337740689920,"2021-12-21,09:35:37",10.1.1.8,675,-0.060,-0.060,-0.060,0.000,0.000,0.000
1640079337961310976,"2021-12-21,09:35:37",10.1.1.8,0.8960800170898438,-0.060,-0.060,-0.060,0.000,0.000,0.000
1640079337974929920,"2021-12-21,09:35:37",10.1.1.8,-4,-0.070,-0.070,-0.070,0.000,0.000,0.000
1640079339004913152,"2021-12-21,09:35:38",10.1.1.8,0.9059569835662842,-0.070,-0.070,-0.070,0.000,0.000,0.000
1640079339752568064,"2021-12-21,09:35:39",10.1.1.8,746,-0.080,-0.080,-0.080,0.000,0.000,0.000
