FedericoMungari/DigitalTwin_service/Output/Output_script/script_rosapi_2_output_robots8_freq0_6.txt
timestamp,date,node,latency,joint_1,joint_2,joint_3,joint_4,joint_5,joint_6
1641102612904079872,2022-01-02-05:50:12,10.1.1.7,178,-0.010,-0.010,-0.010,0.000,0.000,0.000
1641102613104152064,2022-01-02-05:50:13,10.1.1.7,177,-0.020,-0.020,-0.020,0.000,0.000,0.000
1641102613304176128,2022-01-02-05:50:13,10.1.1.7,177,-0.030,-0.030,-0.030,0.000,0.000,0.000
1641102613503369216,2022-01-02-05:50:13,10.1.1.7,176,-0.040,-0.040,-0.040,0.000,0.000,0.000
1641102613702842880,2022-01-02-05:50:13,10.1.1.7,175,-0.050,-0.050,-0.050,0.000,0.000,0.000
1641102613902384896,2022-01-02-05:50:13,10.1.1.7,174,-0.060,-0.060,-0.060,0.000,0.000,0.000
1641102614106690816,2022-01-02-05:50:14,10.1.1.7,178,-0.070,-0.070,-0.070,0.000,0.000,0.000
1641102614304850176,2022-01-02-05:50:14,10.1.1.7,175,-0.080,-0.080,-0.080,0.000,0.000,0.000
1641102614502272000,2022-01-02-05:50:14,10.1.1.7,172,-0.090,-0.090,-0.090,0.000,0.000,0.000
1641102614702744064,2022-01-02-05:50:14,10.1.1.7,171,-0.100,-0.100,-0.100,0.000,0.000,0.000
1641102614901583872,2022-01-02-05:50:14,10.1.1.7,170,-0.110,-0.110,-0.110,0.000,0.000,0.000
1641102615100933120,2022-01-02-05:50:15,10.1.1.7,168,-0.120,-0.120,-0.120,0.000,0.000,0.000
1641102615303129856,2022-01-02-05:50:15,10.1.1.7,170,-0.130,-0.130,-0.130,0.000,0.000,0.000
1641102615503642112,2022-01-02-05:50:15,10.1.1.7,170,-0.140,-0.140,-0.140,0.000,0.000,0.000
1641102615702759936,2022-01-02-05:50:15,10.1.1.7,168,-0.150,-0.150,-0.150,0.000,0.000,0.000
1641102615900888064,2022-01-02-05:50:15,10.1.1.7,166,-0.160,-0.160,-0.160,0.000,0.000,0.000
1641102616100195840,2022-01-02-05:50:16,10.1.1.7,165,-0.170,-0.170,-0.170,0.000,0.000,0.000
1641102616301294080,2022-01-02-05:50:16,10.1.1.7,165,-0.180,-0.180,-0.180,0.000,0.000,0.000
1641102616500828928,2022-01-02-05:50:16,10.1.1.7,164,-0.190,-0.190,-0.190,0.000,0.000,0.000
1641102616702301952,2022-01-02-05:50:16,10.1.1.7,165,-0.200,-0.200,-0.200,0.000,0.000,0.000
1641102616918577920,2022-01-02-05:50:16,10.1.1.7,178,-0.210,-0.210,-0.210,0.000,0.000,0.000
1641102617120871936,2022-01-02-05:50:17,10.1.1.7,179,-0.220,-0.220,-0.220,0.000,0.000,0.000
1641102617320055040,2022-01-02-05:50:17,10.1.1.7,177,-0.230,-0.230,-0.230,0.000,0.000,0.000
1641102617517744128,2022-01-02-05:50:17,10.1.1.7,174,-0.240,-0.240,-0.240,0.000,0.000,0.000
1641102617716438016,2022-01-02-05:50:17,10.1.1.7,173,-0.250,-0.250,-0.250,0.000,0.000,0.000
1641102617917326080,2022-01-02-05:50:17,10.1.1.7,172,-0.260,-0.260,-0.260,0.000,0.000,0.000
1641102618118834944,2022-01-02-05:50:18,10.1.1.7,173,-0.270,-0.270,-0.270,0.000,0.000,0.000
1641102618316508160,2022-01-02-05:50:18,10.1.1.7,170,-0.280,-0.280,-0.280,0.000,0.000,0.000
1641102618517658112,2022-01-02-05:50:18,10.1.1.7,171,-0.290,-0.290,-0.290,0.000,0.000,0.000
1641102618715241984,2022-01-02-05:50:18,10.1.1.7,168,-0.300,-0.300,-0.300,0.000,0.000,0.000
1641102618917776128,2022-01-02-05:50:18,10.1.1.7,168,-0.310,-0.310,-0.310,0.000,0.000,0.000
1641102619118798848,2022-01-02-05:50:19,10.1.1.7,170,-0.320,-0.320,-0.320,0.000,0.000,0.000
1641102619315984896,2022-01-02-05:50:19,10.1.1.7,166,-0.330,-0.330,-0.330,0.000,0.000,0.000
1641102619517321984,2022-01-02-05:50:19,10.1.1.7,167,-0.340,-0.340,-0.340,0.000,0.000,0.000
1641102619718543104,2022-01-02-05:50:19,10.1.1.7,168,-0.350,-0.350,-0.350,0.000,0.000,0.000
1641102619919374848,2022-01-02-05:50:19,10.1.1.7,168,-0.360,-0.360,-0.360,0.000,0.000,0.000
1641102620124769024,2022-01-02-05:50:20,10.1.1.7,172,-0.370,-0.370,-0.370,0.000,0.000,0.000
1641102620321635072,2022-01-02-05:50:20,10.1.1.7,169,-0.380,-0.380,-0.380,0.000,0.000,0.000
1641102620522041088,2022-01-02-05:50:20,10.1.1.7,168,-0.390,-0.390,-0.390,0.000,0.000,0.000
1641102620725052160,2022-01-02-05:50:20,10.1.1.7,170,-0.400,-0.400,-0.400,0.000,0.000,0.000
1641102620925304832,2022-01-02-05:50:20,10.1.1.7,170,-0.410,-0.410,-0.410,0.000,0.000,0.000
1641102621126840064,2022-01-02-05:50:21,10.1.1.7,171,-0.420,-0.420,-0.420,0.000,0.000,0.000
1641102621327735808,2022-01-02-05:50:21,10.1.1.7,169,-0.430,-0.430,-0.430,0.000,0.000,0.000
1641102621526972928,2022-01-02-05:50:21,10.1.1.7,169,-0.440,-0.440,-0.440,0.000,0.000,0.000
1641102621727938048,2022-01-02-05:50:21,10.1.1.7,168,-0.450,-0.450,-0.450,0.000,0.000,0.000
1641102621948478976,2022-01-02-05:50:21,10.1.1.7,188,-0.460,-0.460,-0.460,0.000,0.000,0.000
1641102622149939968,2022-01-02-05:50:22,10.1.1.7,188,-0.470,-0.470,-0.470,0.000,0.000,0.000
1641102622349517056,2022-01-02-05:50:22,10.1.1.7,189,-0.480,-0.480,-0.480,0.000,0.000,0.000
1641102622552144896,2022-01-02-05:50:22,10.1.1.7,190,-0.490,-0.490,-0.490,0.000,0.000,0.000
1641102622750377984,2022-01-02-05:50:22,10.1.1.7,188,-0.480,-0.480,-0.480,0.000,0.000,0.000
1641102622951031040,2022-01-02-05:50:22,10.1.1.7,188,-0.470,-0.470,-0.470,0.000,0.000,0.000
1641102623152931840,2022-01-02-05:50:23,10.1.1.7,188,-0.460,-0.460,-0.460,0.000,0.000,0.000
1641102623353914880,2022-01-02-05:50:23,10.1.1.7,189,-0.450,-0.450,-0.450,0.000,0.000,0.000
1641102623553531904,2022-01-02-05:50:23,10.1.1.7,188,-0.440,-0.440,-0.440,0.000,0.000,0.000
1641102623756020992,2022-01-02-05:50:23,10.1.1.7,186,-0.430,-0.430,-0.430,0.000,0.000,0.000
1641102623953282048,2022-01-02-05:50:23,10.1.1.7,186,-0.420,-0.420,-0.420,0.000,0.000,0.000
1641102624156718080,2022-01-02-05:50:24,10.1.1.7,189,-0.410,-0.410,-0.410,0.000,0.000,0.000
1641102624355528192,2022-01-02-05:50:24,10.1.1.7,187,-0.400,-0.400,-0.400,0.000,0.000,0.000
1641102624556590080,2022-01-02-05:50:24,10.1.1.7,187,-0.390,-0.390,-0.390,0.000,0.000,0.000
1641102624756521984,2022-01-02-05:50:24,10.1.1.7,186,-0.380,-0.380,-0.380,0.000,0.000,0.000
1641102624956631808,2022-01-02-05:50:24,10.1.1.7,186,-0.370,-0.370,-0.370,0.000,0.000,0.000
1641102625158044160,2022-01-02-05:50:25,10.1.1.7,187,-0.360,-0.360,-0.360,0.000,0.000,0.000
1641102625356065024,2022-01-02-05:50:25,10.1.1.7,184,-0.350,-0.350,-0.350,0.000,0.000,0.000
1641102625558212096,2022-01-02-05:50:25,10.1.1.7,186,-0.340,-0.340,-0.340,0.000,0.000,0.000
1641102626382110976,2022-01-02-05:50:26,10.1.1.7,197,-0.300,-0.300,-0.300,0.000,0.000,0.000
1641102626581074944,2022-01-02-05:50:26,10.1.1.7,188,-0.290,-0.290,-0.290,0.000,0.000,0.000
1641102626779261952,2022-01-02-05:50:26,10.1.1.7,185,-0.280,-0.280,-0.280,0.000,0.000,0.000
1641102626979337984,2022-01-02-05:50:26,10.1.1.7,183,-0.270,-0.270,-0.270,0.000,0.000,0.000
1641102627185779968,2022-01-02-05:50:27,10.1.1.7,187,-0.260,-0.260,-0.260,0.000,0.000,0.000
1641102627378243840,2022-01-02-05:50:27,10.1.1.7,179,-0.250,-0.250,-0.250,0.000,0.000,0.000
1641102627597889024,2022-01-02-05:50:27,10.1.1.7,197,-0.240,-0.240,-0.240,0.000,0.000,0.000
1641102627802395136,2022-01-02-05:50:27,10.1.1.7,199,-0.230,-0.230,-0.230,0.000,0.000,0.000
1641102628002000128,2022-01-02-05:50:28,10.1.1.7,195,-0.220,-0.220,-0.220,0.000,0.000,0.000
1641102628203084032,2022-01-02-05:50:28,10.1.1.7,196,-0.210,-0.210,-0.210,0.000,0.000,0.000
1641102628403161088,2022-01-02-05:50:28,10.1.1.7,193,-0.200,-0.200,-0.200,0.000,0.000,0.000
1641102628601100800,2022-01-02-05:50:28,10.1.1.7,191,-0.190,-0.190,-0.190,0.000,0.000,0.000
1641102628801430016,2022-01-02-05:50:28,10.1.1.7,190,-0.180,-0.180,-0.180,0.000,0.000,0.000
1641102629001863936,2022-01-02-05:50:29,10.1.1.7,190,-0.170,-0.170,-0.170,0.000,0.000,0.000
1641102629201679104,2022-01-02-05:50:29,10.1.1.7,188,-0.160,-0.160,-0.160,0.000,0.000,0.000
1641102629404428032,2022-01-02-05:50:29,10.1.1.7,190,-0.150,-0.150,-0.150,0.000,0.000,0.000
1641102629601360128,2022-01-02-05:50:29,10.1.1.7,186,-0.140,-0.140,-0.140,0.000,0.000,0.000
1641102629801204992,2022-01-02-05:50:29,10.1.1.7,183,-0.130,-0.130,-0.130,0.000,0.000,0.000
1641102630420350976,2022-01-02-05:50:30,10.1.1.7,197,-0.100,-0.100,-0.100,0.000,0.000,0.000
1641102630622555136,2022-01-02-05:50:30,10.1.1.7,195,-0.090,-0.090,-0.090,0.000,0.000,0.000
1641102630822099968,2022-01-02-05:50:30,10.1.1.7,198,-0.080,-0.080,-0.080,0.000,0.000,0.000
1641102631022603008,2022-01-02-05:50:31,10.1.1.7,198,-0.070,-0.070,-0.070,0.000,0.000,0.000
1641102631419971840,2022-01-02-05:50:31,10.1.1.7,190,-0.050,-0.050,-0.050,0.000,0.000,0.000
1641102631619294976,2022-01-02-05:50:31,10.1.1.7,188,-0.040,-0.040,-0.040,0.000,0.000,0.000
1641102631822680832,2022-01-02-05:50:31,10.1.1.7,191,-0.030,-0.030,-0.030,0.000,0.000,0.000
1641102632018626816,2022-01-02-05:50:32,10.1.1.7,186,-0.020,-0.020,-0.020,0.000,0.000,0.000
1641102632228705024,2022-01-02-05:50:32,10.1.1.7,195,-0.010,-0.010,-0.010,0.000,0.000,0.000
1641102632418525952,2022-01-02-05:50:32,10.1.1.7,184,0.000,0.000,0.000,0.000,0.000,0.000
1641102632618840064,2022-01-02-05:50:32,10.1.1.7,184,-0.010,-0.010,-0.010,0.000,0.000,0.000
1641102632819436032,2022-01-02-05:50:32,10.1.1.7,184,-0.020,-0.020,-0.020,0.000,0.000,0.000
1641102633018312960,2022-01-02-05:50:33,10.1.1.7,182,-0.030,-0.030,-0.030,0.000,0.000,0.000
1641102633221585152,2022-01-02-05:50:33,10.1.1.7,183,-0.040,-0.040,-0.040,0.000,0.000,0.000
1641102633441261056,2022-01-02-05:50:33,10.1.1.7,200,-0.050,-0.050,-0.050,0.000,0.000,0.000
1641102633641915136,2022-01-02-05:50:33,10.1.1.7,198,-0.060,-0.060,-0.060,0.000,0.000,0.000
1641102633837620992,2022-01-02-05:50:33,10.1.1.7,191,-0.070,-0.070,-0.070,0.000,0.000,0.000
1641102634043288064,2022-01-02-05:50:34,10.1.1.7,196,-0.080,-0.080,-0.080,0.000,0.000,0.000
1641102634240946944,2022-01-02-05:50:34,10.1.1.7,191,-0.090,-0.090,-0.090,0.000,0.000,0.000
1641102634438982912,2022-01-02-05:50:34,10.1.1.7,190,-0.100,-0.100,-0.100,0.000,0.000,0.000
1641102634636556032,2022-01-02-05:50:34,10.1.1.7,187,-0.110,-0.110,-0.110,0.000,0.000,0.000
1641102634836768000,2022-01-02-05:50:34,10.1.1.7,185,-0.120,-0.120,-0.120,0.000,0.000,0.000
1641102635038659072,2022-01-02-05:50:35,10.1.1.7,187,-0.130,-0.130,-0.130,0.000,0.000,0.000
1641102635236183040,2022-01-02-05:50:35,10.1.1.7,182,-0.140,-0.140,-0.140,0.000,0.000,0.000
1641102635438843136,2022-01-02-05:50:35,10.1.1.7,184,-0.150,-0.150,-0.150,0.000,0.000,0.000
1641102635636359936,2022-01-02-05:50:35,10.1.1.7,177,-0.160,-0.160,-0.160,0.000,0.000,0.000
1641102635856139008,2022-01-02-05:50:35,10.1.1.7,195,-0.170,-0.170,-0.170,0.000,0.000,0.000
1641102636035656960,2022-01-02-05:50:36,10.1.1.7,174,-0.180,-0.180,-0.180,0.000,0.000,0.000
1641102636256664064,2022-01-02-05:50:36,10.1.1.7,194,-0.190,-0.190,-0.190,0.000,0.000,0.000
1641102636454737920,2022-01-02-05:50:36,10.1.1.7,191,-0.200,-0.200,-0.200,0.000,0.000,0.000
1641102636654799872,2022-01-02-05:50:36,10.1.1.7,191,-0.210,-0.210,-0.210,0.000,0.000,0.000
1641102636869057792,2022-01-02-05:50:36,10.1.1.7,198,-0.220,-0.220,-0.220,0.000,0.000,0.000
1641102637078577920,2022-01-02-05:50:37,10.1.1.7,191,-0.230,-0.230,-0.230,0.000,0.000,0.000
1641102637275175168,2022-01-02-05:50:37,10.1.1.7,187,-0.240,-0.240,-0.240,0.000,0.000,0.000
1641102637475902976,2022-01-02-05:50:37,10.1.1.7,187,-0.250,-0.250,-0.250,0.000,0.000,0.000
1641102637674750976,2022-01-02-05:50:37,10.1.1.7,184,-0.260,-0.260,-0.260,0.000,0.000,0.000
1641102637873358080,2022-01-02-05:50:37,10.1.1.7,181,-0.270,-0.270,-0.270,0.000,0.000,0.000
1641102638074804992,2022-01-02-05:50:38,10.1.1.7,182,-0.280,-0.280,-0.280,0.000,0.000,0.000
1641102638275002112,2022-01-02-05:50:38,10.1.1.7,181,-0.290,-0.290,-0.290,0.000,0.000,0.000
1641102638473783040,2022-01-02-05:50:38,10.1.1.7,177,-0.300,-0.300,-0.300,0.000,0.000,0.000
1641102638675983872,2022-01-02-05:50:38,10.1.1.7,179,-0.310,-0.310,-0.310,0.000,0.000,0.000
1641102638873637888,2022-01-02-05:50:38,10.1.1.7,176,-0.320,-0.320,-0.320,0.000,0.000,0.000
1641102639085300992,2022-01-02-05:50:39,10.1.1.7,187,-0.330,-0.330,-0.330,0.000,0.000,0.000
1641102639272526080,2022-01-02-05:50:39,10.1.1.7,173,-0.340,-0.340,-0.340,0.000,0.000,0.000
1641102639493138944,2022-01-02-05:50:39,10.1.1.7,184,-0.350,-0.350,-0.350,0.000,0.000,0.000
1641102639691814912,2022-01-02-05:50:39,10.1.1.7,183,-0.360,-0.360,-0.360,0.000,0.000,0.000
1641102639892123904,2022-01-02-05:50:39,10.1.1.7,181,-0.370,-0.370,-0.370,0.000,0.000,0.000
1641102640091028992,2022-01-02-05:50:40,10.1.1.7,180,-0.380,-0.380,-0.380,0.000,0.000,0.000
1641102640292726016,2022-01-02-05:50:40,10.1.1.7,180,-0.390,-0.390,-0.390,0.000,0.000,0.000
1641102640491624960,2022-01-02-05:50:40,10.1.1.7,178,-0.400,-0.400,-0.400,0.000,0.000,0.000
1641102640690579968,2022-01-02-05:50:40,10.1.1.7,177,-0.410,-0.410,-0.410,0.000,0.000,0.000
1641102640891832064,2022-01-02-05:50:40,10.1.1.7,177,-0.420,-0.420,-0.420,0.000,0.000,0.000
1641102641091563008,2022-01-02-05:50:41,10.1.1.7,177,-0.430,-0.430,-0.430,0.000,0.000,0.000
1641102641290475008,2022-01-02-05:50:41,10.1.1.7,175,-0.440,-0.440,-0.440,0.000,0.000,0.000
1641102641503449856,2022-01-02-05:50:41,10.1.1.7,187,-0.450,-0.450,-0.450,0.000,0.000,0.000
1641102641690656000,2022-01-02-05:50:41,10.1.1.7,171,-0.460,-0.460,-0.460,0.000,0.000,0.000
1641102641909063936,2022-01-02-05:50:41,10.1.1.7,189,-0.470,-0.470,-0.470,0.000,0.000,0.000
1641102642109138944,2022-01-02-05:50:42,10.1.1.7,187,-0.480,-0.480,-0.480,0.000,0.000,0.000
1641102642311165184,2022-01-02-05:50:42,10.1.1.7,189,-0.490,-0.490,-0.490,0.000,0.000,0.000
1641102642509038080,2022-01-02-05:50:42,10.1.1.7,185,-0.480,-0.480,-0.480,0.000,0.000,0.000
1641102642708840960,2022-01-02-05:50:42,10.1.1.7,184,-0.470,-0.470,-0.470,0.000,0.000,0.000
1641102642909293824,2022-01-02-05:50:42,10.1.1.7,185,-0.460,-0.460,-0.460,0.000,0.000,0.000
1641102643113975040,2022-01-02-05:50:43,10.1.1.7,189,-0.450,-0.450,-0.450,0.000,0.000,0.000
1641102643309039104,2022-01-02-05:50:43,10.1.1.7,183,-0.440,-0.440,-0.440,0.000,0.000,0.000
1641102643508057088,2022-01-02-05:50:43,10.1.1.7,181,-0.430,-0.430,-0.430,0.000,0.000,0.000
1641102643708689920,2022-01-02-05:50:43,10.1.1.7,181,-0.420,-0.420,-0.420,0.000,0.000,0.000
1641102643914927104,2022-01-02-05:50:43,10.1.1.7,187,-0.410,-0.410,-0.410,0.000,0.000,0.000
1641102644108445952,2022-01-02-05:50:44,10.1.1.7,180,-0.400,-0.400,-0.400,0.000,0.000,0.000
1641102644307956992,2022-01-02-05:50:44,10.1.1.7,179,-0.390,-0.390,-0.390,0.000,0.000,0.000
1641102644505785088,2022-01-02-05:50:44,10.1.1.7,176,-0.380,-0.380,-0.380,0.000,0.000,0.000
1641102644708018944,2022-01-02-05:50:44,10.1.1.7,175,-0.370,-0.370,-0.370,0.000,0.000,0.000
1641102644906984192,2022-01-02-05:50:44,10.1.1.7,176,-0.360,-0.360,-0.360,0.000,0.000,0.000
1641102645106290176,2022-01-02-05:50:45,10.1.1.7,174,-0.350,-0.350,-0.350,0.000,0.000,0.000
1641102645306834944,2022-01-02-05:50:45,10.1.1.7,174,-0.340,-0.340,-0.340,0.000,0.000,0.000
1641102645504417792,2022-01-02-05:50:45,10.1.1.7,171,-0.330,-0.330,-0.330,0.000,0.000,0.000
1641102645703136000,2022-01-02-05:50:45,10.1.1.7,169,-0.320,-0.320,-0.320,0.000,0.000,0.000
1641102645905561856,2022-01-02-05:50:45,10.1.1.7,171,-0.310,-0.310,-0.310,0.000,0.000,0.000
1641102646104352000,2022-01-02-05:50:46,10.1.1.7,168,-0.300,-0.300,-0.300,0.000,0.000,0.000
1641102646303278080,2022-01-02-05:50:46,10.1.1.7,167,-0.290,-0.290,-0.290,0.000,0.000,0.000
1641102646504893184,2022-01-02-05:50:46,10.1.1.7,168,-0.280,-0.280,-0.280,0.000,0.000,0.000
1641102646704237056,2022-01-02-05:50:46,10.1.1.7,167,-0.270,-0.270,-0.270,0.000,0.000,0.000
1641102646914840832,2022-01-02-05:50:46,10.1.1.7,176,-0.260,-0.260,-0.260,0.000,0.000,0.000
1641102647122904064,2022-01-02-05:50:47,10.1.1.7,182,-0.250,-0.250,-0.250,0.000,0.000,0.000
1641102647320622848,2022-01-02-05:50:47,10.1.1.7,173,-0.240,-0.240,-0.240,0.000,0.000,0.000
1641102647521500160,2022-01-02-05:50:47,10.1.1.7,174,-0.230,-0.230,-0.230,0.000,0.000,0.000
1641102647721597952,2022-01-02-05:50:47,10.1.1.7,173,-0.220,-0.220,-0.220,0.000,0.000,0.000
1641102647933083136,2022-01-02-05:50:47,10.1.1.7,184,-0.210,-0.210,-0.210,0.000,0.000,0.000
1641102648120615936,2022-01-02-05:50:48,10.1.1.7,170,-0.200,-0.200,-0.200,0.000,0.000,0.000
1641102648321263104,2022-01-02-05:50:48,10.1.1.7,169,-0.190,-0.190,-0.190,0.000,0.000,0.000
1641102648519900928,2022-01-02-05:50:48,10.1.1.7,167,-0.180,-0.180,-0.180,0.000,0.000,0.000
1641102648719248128,2022-01-02-05:50:48,10.1.1.7,166,-0.170,-0.170,-0.170,0.000,0.000,0.000
1641102648919651072,2022-01-02-05:50:48,10.1.1.7,166,-0.160,-0.160,-0.160,0.000,0.000,0.000
1641102649118458112,2022-01-02-05:50:49,10.1.1.7,164,-0.150,-0.150,-0.150,0.000,0.000,0.000
1641102649331458048,2022-01-02-05:50:49,10.1.1.7,177,-0.140,-0.140,-0.140,0.000,0.000,0.000
1641102649519119104,2022-01-02-05:50:49,10.1.1.7,163,-0.130,-0.130,-0.130,0.000,0.000,0.000
1641102649740397056,2022-01-02-05:50:49,10.1.1.7,176,-0.120,-0.120,-0.120,0.000,0.000,0.000
1641102649936544000,2022-01-02-05:50:49,10.1.1.7,171,-0.110,-0.110,-0.110,0.000,0.000,0.000
1641102650139604992,2022-01-02-05:50:50,10.1.1.7,173,-0.100,-0.100,-0.100,0.000,0.000,0.000
1641102650335339008,2022-01-02-05:50:50,10.1.1.7,166,-0.090,-0.090,-0.090,0.000,0.000,0.000
1641102650535054848,2022-01-02-05:50:50,10.1.1.7,164,-0.080,-0.080,-0.080,0.000,0.000,0.000
1641102650735003904,2022-01-02-05:50:50,10.1.1.7,163,-0.070,-0.070,-0.070,0.000,0.000,0.000
1641102650941083904,2022-01-02-05:50:50,10.1.1.7,169,-0.060,-0.060,-0.060,0.000,0.000,0.000
1641102651139267840,2022-01-02-05:50:51,10.1.1.7,167,-0.050,-0.050,-0.050,0.000,0.000,0.000
1641102651340792832,2022-01-02-05:50:51,10.1.1.7,165,-0.040,-0.040,-0.040,0.000,0.000,0.000
1641102651564548864,2022-01-02-05:50:51,10.1.1.7,184,-0.030,-0.030,-0.030,0.000,0.000,0.000
1641102651764591104,2022-01-02-05:50:51,10.1.1.7,181,-0.020,-0.020,-0.020,0.000,0.000,0.000
1641102651785341952,2022-01-02-05:50:51,10.1.1.7,-3,-0.020,-0.020,-0.020,0.000,0.000,0.000
1641102652165869824,2022-01-02-05:50:52,10.1.1.7,180,0.000,0.000,0.000,0.000,0.000,0.000
1641102652361715968,2022-01-02-05:50:52,10.1.1.7,174,-0.010,-0.010,-0.010,0.000,0.000,0.000
1641102652562841856,2022-01-02-05:50:52,10.1.1.7,174,-0.020,-0.020,-0.020,0.000,0.000,0.000
1641102652764293888,2022-01-02-05:50:52,10.1.1.7,173,-0.030,-0.030,-0.030,0.000,0.000,0.000
1641102652968368896,2022-01-02-05:50:52,10.1.1.7,176,-0.040,-0.040,-0.040,0.000,0.000,0.000
1641102653166344960,2022-01-02-05:50:53,10.1.1.7,173,-0.050,-0.050,-0.050,0.000,0.000,0.000
1641102653368133120,2022-01-02-05:50:53,10.1.1.7,174,-0.060,-0.060,-0.060,0.000,0.000,0.000
1641102653573074944,2022-01-02-05:50:53,10.1.1.7,178,-0.070,-0.070,-0.070,0.000,0.000,0.000
1641102653768433152,2022-01-02-05:50:53,10.1.1.7,173,-0.080,-0.080,-0.080,0.000,0.000,0.000
1641102653971621120,2022-01-02-05:50:53,10.1.1.7,175,-0.090,-0.090,-0.090,0.000,0.000,0.000
1641102654170511872,2022-01-02-05:50:54,10.1.1.7,172,-0.100,-0.100,-0.100,0.000,0.000,0.000
1641102654370359808,2022-01-02-05:50:54,10.1.1.7,171,-0.110,-0.110,-0.110,0.000,0.000,0.000
1641102654594209024,2022-01-02-05:50:54,10.1.1.7,193,-0.120,-0.120,-0.120,0.000,0.000,0.000
1641102654796438016,2022-01-02-05:50:54,10.1.1.7,195,-0.130,-0.130,-0.130,0.000,0.000,0.000
1641102654995663872,2022-01-02-05:50:54,10.1.1.7,194,-0.140,-0.140,-0.140,0.000,0.000,0.000
1641102655192900864,2022-01-02-05:50:55,10.1.1.7,190,-0.150,-0.150,-0.150,0.000,0.000,0.000
1641102655396012032,2022-01-02-05:50:55,10.1.1.7,193,-0.160,-0.160,-0.160,0.000,0.000,0.000
1641102655597462016,2022-01-02-05:50:55,10.1.1.7,193,-0.170,-0.170,-0.170,0.000,0.000,0.000
1641102655797730048,2022-01-02-05:50:55,10.1.1.7,191,-0.180,-0.180,-0.180,0.000,0.000,0.000
1641102655998328064,2022-01-02-05:50:55,10.1.1.7,191,-0.190,-0.190,-0.190,0.000,0.000,0.000
1641102656195235840,2022-01-02-05:50:56,10.1.1.7,187,-0.200,-0.200,-0.200,0.000,0.000,0.000
1641102656397889024,2022-01-02-05:50:56,10.1.1.7,188,-0.210,-0.210,-0.210,0.000,0.000,0.000
1641102656599200000,2022-01-02-05:50:56,10.1.1.7,189,-0.220,-0.220,-0.220,0.000,0.000,0.000
1641102656797038080,2022-01-02-05:50:56,10.1.1.7,186,-0.230,-0.230,-0.230,0.000,0.000,0.000
1641102656999842816,2022-01-02-05:50:56,10.1.1.7,186,-0.240,-0.240,-0.240,0.000,0.000,0.000
1641102657198479872,2022-01-02-05:50:57,10.1.1.7,184,-0.250,-0.250,-0.250,0.000,0.000,0.000
1641102657400256000,2022-01-02-05:50:57,10.1.1.7,185,-0.260,-0.260,-0.260,0.000,0.000,0.000
1641102657599288832,2022-01-02-05:50:57,10.1.1.7,180,-0.270,-0.270,-0.270,0.000,0.000,0.000
1641102657819813888,2022-01-02-05:50:57,10.1.1.7,197,-0.280,-0.280,-0.280,0.000,0.000,0.000
1641102658022665984,2022-01-02-05:50:58,10.1.1.7,198,-0.290,-0.290,-0.290,0.000,0.000,0.000
1641102658223742976,2022-01-02-05:50:58,10.1.1.7,194,-0.300,-0.300,-0.300,0.000,0.000,0.000
1641102658422445056,2022-01-02-05:50:58,10.1.1.7,196,-0.310,-0.310,-0.310,0.000,0.000,0.000
1641102658621869056,2022-01-02-05:50:58,10.1.1.7,194,-0.320,-0.320,-0.320,0.000,0.000,0.000
1641102658820514816,2022-01-02-05:50:58,10.1.1.7,192,-0.330,-0.330,-0.330,0.000,0.000,0.000
1641102659020544000,2022-01-02-05:50:59,10.1.1.7,191,-0.340,-0.340,-0.340,0.000,0.000,0.000
1641102659218769920,2022-01-02-05:50:59,10.1.1.7,188,-0.350,-0.350,-0.350,0.000,0.000,0.000
1641102659425124864,2022-01-02-05:50:59,10.1.1.7,194,-0.360,-0.360,-0.360,0.000,0.000,0.000
1641102659623593216,2022-01-02-05:50:59,10.1.1.7,192,-0.370,-0.370,-0.370,0.000,0.000,0.000
1641102659820646912,2022-01-02-05:50:59,10.1.1.7,187,-0.380,-0.380,-0.380,0.000,0.000,0.000
1641102660023316992,2022-01-02-05:51:00,10.1.1.7,186,-0.390,-0.390,-0.390,0.000,0.000,0.000
1641102660222800128,2022-01-02-05:51:00,10.1.1.7,185,-0.400,-0.400,-0.400,0.000,0.000,0.000
1641102660420815872,2022-01-02-05:51:00,10.1.1.7,184,-0.410,-0.410,-0.410,0.000,0.000,0.000
1641102660620472064,2022-01-02-05:51:00,10.1.1.7,182,-0.420,-0.420,-0.420,0.000,0.000,0.000
1641102660821014784,2022-01-02-05:51:00,10.1.1.7,182,-0.430,-0.430,-0.430,0.000,0.000,0.000
1641102661240147968,2022-01-02-05:51:01,10.1.1.7,199,-0.450,-0.450,-0.450,0.000,0.000,0.000
1641102661440210176,2022-01-02-05:51:01,10.1.1.7,197,-0.460,-0.460,-0.460,0.000,0.000,0.000
1641102661642766080,2022-01-02-05:51:01,10.1.1.7,198,-0.470,-0.470,-0.470,0.000,0.000,0.000
1641102661843864832,2022-01-02-05:51:01,10.1.1.7,198,-0.480,-0.480,-0.480,0.000,0.000,0.000
1641102662041116928,2022-01-02-05:51:02,10.1.1.7,195,-0.490,-0.490,-0.490,0.000,0.000,0.000
1641102662246004224,2022-01-02-05:51:02,10.1.1.7,199,-0.480,-0.480,-0.480,0.000,0.000,0.000
1641102662440444928,2022-01-02-05:51:02,10.1.1.7,189,-0.470,-0.470,-0.470,0.000,0.000,0.000
1641102662646641920,2022-01-02-05:51:02,10.1.1.7,186,-0.460,-0.460,-0.460,0.000,0.000,0.000
1641102662862017024,2022-01-02-05:51:02,10.1.1.7,200,-0.450,-0.450,-0.450,0.000,0.000,0.000
1641102663064179968,2022-01-02-05:51:03,10.1.1.7,200,-0.440,-0.440,-0.440,0.000,0.000,0.000
1641102663260268032,2022-01-02-05:51:03,10.1.1.7,195,-0.430,-0.430,-0.430,0.000,0.000,0.000
1641102663462109184,2022-01-02-05:51:03,10.1.1.7,195,-0.420,-0.420,-0.420,0.000,0.000,0.000
1641102663660090880,2022-01-02-05:51:03,10.1.1.7,193,-0.410,-0.410,-0.410,0.000,0.000,0.000
1641102663863436032,2022-01-02-05:51:03,10.1.1.7,195,-0.400,-0.400,-0.400,0.000,0.000,0.000
1641102664060119040,2022-01-02-05:51:04,10.1.1.7,191,-0.390,-0.390,-0.390,0.000,0.000,0.000
1641102664262859008,2022-01-02-05:51:04,10.1.1.7,193,-0.380,-0.380,-0.380,0.000,0.000,0.000
1641102664461095168,2022-01-02-05:51:04,10.1.1.7,190,-0.370,-0.370,-0.370,0.000,0.000,0.000
1641102664665608960,2022-01-02-05:51:04,10.1.1.7,194,-0.360,-0.360,-0.360,0.000,0.000,0.000
1641102664861391104,2022-01-02-05:51:04,10.1.1.7,188,-0.350,-0.350,-0.350,0.000,0.000,0.000
1641102665059022848,2022-01-02-05:51:05,10.1.1.7,185,-0.340,-0.340,-0.340,0.000,0.000,0.000
1641102665260241920,2022-01-02-05:51:05,10.1.1.7,186,-0.330,-0.330,-0.330,0.000,0.000,0.000
1641102665463254016,2022-01-02-05:51:05,10.1.1.7,188,-0.320,-0.320,-0.320,0.000,0.000,0.000
1641102665659645184,2022-01-02-05:51:05,10.1.1.7,183,-0.310,-0.310,-0.310,0.000,0.000,0.000
1641102665862234112,2022-01-02-05:51:05,10.1.1.7,182,-0.300,-0.300,-0.300,0.000,0.000,0.000
1641102666081415936,2022-01-02-05:51:06,10.1.1.7,200,-0.290,-0.290,-0.290,0.000,0.000,0.000
1641102666281435136,2022-01-02-05:51:06,10.1.1.7,197,-0.280,-0.280,-0.280,0.000,0.000,0.000
1641102666481113856,2022-01-02-05:51:06,10.1.1.7,198,-0.270,-0.270,-0.270,0.000,0.000,0.000
1641102666680788992,2022-01-02-05:51:06,10.1.1.7,195,-0.260,-0.260,-0.260,0.000,0.000,0.000
1641102666877918976,2022-01-02-05:51:06,10.1.1.7,188,-0.250,-0.250,-0.250,0.000,0.000,0.000
1641102667078126848,2022-01-02-05:51:07,10.1.1.7,188,-0.240,-0.240,-0.240,0.000,0.000,0.000
1641102667278616832,2022-01-02-05:51:07,10.1.1.7,188,-0.230,-0.230,-0.230,0.000,0.000,0.000
1641102667478174976,2022-01-02-05:51:07,10.1.1.7,186,-0.220,-0.220,-0.220,0.000,0.000,0.000
1641102667679578112,2022-01-02-05:51:07,10.1.1.7,187,-0.210,-0.210,-0.210,0.000,0.000,0.000
1641102667879528960,2022-01-02-05:51:07,10.1.1.7,186,-0.200,-0.200,-0.200,0.000,0.000,0.000
1641102668078924032,2022-01-02-05:51:08,10.1.1.7,185,-0.190,-0.190,-0.190,0.000,0.000,0.000
1641102668277795072,2022-01-02-05:51:08,10.1.1.7,182,-0.180,-0.180,-0.180,0.000,0.000,0.000
1641102668478183936,2022-01-02-05:51:08,10.1.1.7,181,-0.170,-0.170,-0.170,0.000,0.000,0.000
1641102668677164032,2022-01-02-05:51:08,10.1.1.7,179,-0.160,-0.160,-0.160,0.000,0.000,0.000
1641102668897828096,2022-01-02-05:51:08,10.1.1.7,198,-0.150,-0.150,-0.150,0.000,0.000,0.000
1641102669097166080,2022-01-02-05:51:09,10.1.1.7,196,-0.140,-0.140,-0.140,0.000,0.000,0.000
1641102669297831168,2022-01-02-05:51:09,10.1.1.7,194,-0.130,-0.130,-0.130,0.000,0.000,0.000
1641102669695342080,2022-01-02-05:51:09,10.1.1.7,192,-0.110,-0.110,-0.110,0.000,0.000,0.000
1641102669897777152,2022-01-02-05:51:09,10.1.1.7,194,-0.100,-0.100,-0.100,0.000,0.000,0.000
1641102670297213184,2022-01-02-05:51:10,10.1.1.7,191,-0.080,-0.080,-0.080,0.000,0.000,0.000
1641102670497091072,2022-01-02-05:51:10,10.1.1.7,184,-0.070,-0.070,-0.070,0.000,0.000,0.000
1641102670694052864,2022-01-02-05:51:10,10.1.1.7,180,-0.060,-0.060,-0.060,0.000,0.000,0.000
1641102670895465984,2022-01-02-05:51:10,10.1.1.7,177,-0.050,-0.050,-0.050,0.000,0.000,0.000
1641102671095683072,2022-01-02-05:51:11,10.1.1.7,177,-0.040,-0.040,-0.040,0.000,0.000,0.000
1641102671314353920,2022-01-02-05:51:11,10.1.1.7,194,-0.030,-0.030,-0.030,0.000,0.000,0.000
1641102671516551936,2022-01-02-05:51:11,10.1.1.7,194,-0.020,-0.020,-0.020,0.000,0.000,0.000
1641102671721234944,2022-01-02-05:51:11,10.1.1.7,199,-0.010,-0.010,-0.010,0.000,0.000,0.000
1641102671918919168,2022-01-02-05:51:11,10.1.1.7,195,0.000,0.000,0.000,0.000,0.000,0.000
1641102672113481984,2022-01-02-05:51:12,10.1.1.7,189,-0.010,-0.010,-0.010,0.000,0.000,0.000
1641102672313460224,2022-01-02-05:51:12,10.1.1.7,186,-0.020,-0.020,-0.020,0.000,0.000,0.000
1641102672513920000,2022-01-02-05:51:12,10.1.1.7,186,-0.030,-0.030,-0.030,0.000,0.000,0.000
1641102672713335040,2022-01-02-05:51:12,10.1.1.7,184,-0.040,-0.040,-0.040,0.000,0.000,0.000
1641102672913858048,2022-01-02-05:51:12,10.1.1.7,185,-0.050,-0.050,-0.050,0.000,0.000,0.000
1641102673111915008,2022-01-02-05:51:13,10.1.1.7,183,-0.060,-0.060,-0.060,0.000,0.000,0.000
1641102673313595904,2022-01-02-05:51:13,10.1.1.7,183,-0.070,-0.070,-0.070,0.000,0.000,0.000
1641102673512751104,2022-01-02-05:51:13,10.1.1.7,182,-0.080,-0.080,-0.080,0.000,0.000,0.000
1641102673710747904,2022-01-02-05:51:13,10.1.1.7,179,-0.090,-0.090,-0.090,0.000,0.000,0.000
1641102673910953984,2022-01-02-05:51:13,10.1.1.7,178,-0.100,-0.100,-0.100,0.000,0.000,0.000
1641102674110546944,2022-01-02-05:51:14,10.1.1.7,177,-0.110,-0.110,-0.110,0.000,0.000,0.000
1641102674310585856,2022-01-02-05:51:14,10.1.1.7,177,-0.120,-0.120,-0.120,0.000,0.000,0.000
1641102674509746176,2022-01-02-05:51:14,10.1.1.7,175,-0.130,-0.130,-0.130,0.000,0.000,0.000
1641102674709672960,2022-01-02-05:51:14,10.1.1.7,175,-0.140,-0.140,-0.140,0.000,0.000,0.000
1641102674910386176,2022-01-02-05:51:14,10.1.1.7,175,-0.150,-0.150,-0.150,0.000,0.000,0.000
1641102675109880064,2022-01-02-05:51:15,10.1.1.7,173,-0.160,-0.160,-0.160,0.000,0.000,0.000
1641102675313416960,2022-01-02-05:51:15,10.1.1.7,175,-0.170,-0.170,-0.170,0.000,0.000,0.000
1641102675530860800,2022-01-02-05:51:15,10.1.1.7,179,-0.180,-0.180,-0.180,0.000,0.000,0.000
1641102675730772992,2022-01-02-05:51:15,10.1.1.7,177,-0.190,-0.190,-0.190,0.000,0.000,0.000
1641102675931642112,2022-01-02-05:51:15,10.1.1.7,177,-0.200,-0.200,-0.200,0.000,0.000,0.000
1641102676129481984,2022-01-02-05:51:16,10.1.1.7,174,-0.210,-0.210,-0.210,0.000,0.000,0.000
1641102676330451968,2022-01-02-05:51:16,10.1.1.7,174,-0.220,-0.220,-0.220,0.000,0.000,0.000
1641102676530411008,2022-01-02-05:51:16,10.1.1.7,172,-0.230,-0.230,-0.230,0.000,0.000,0.000
1641102676746104832,2022-01-02-05:51:16,10.1.1.7,185,-0.240,-0.240,-0.240,0.000,0.000,0.000
1641102676945671168,2022-01-02-05:51:16,10.1.1.7,183,-0.250,-0.250,-0.250,0.000,0.000,0.000
1641102677146138880,2022-01-02-05:51:17,10.1.1.7,179,-0.260,-0.260,-0.260,0.000,0.000,0.000
1641102677345716992,2022-01-02-05:51:17,10.1.1.7,178,-0.270,-0.270,-0.270,0.000,0.000,0.000
1641102677545538048,2022-01-02-05:51:17,10.1.1.7,177,-0.280,-0.280,-0.280,0.000,0.000,0.000
1641102677746563840,2022-01-02-05:51:17,10.1.1.7,176,-0.290,-0.290,-0.290,0.000,0.000,0.000
1641102677946150912,2022-01-02-05:51:17,10.1.1.7,177,-0.300,-0.300,-0.300,0.000,0.000,0.000
1641102678144380160,2022-01-02-05:51:18,10.1.1.7,175,-0.310,-0.310,-0.310,0.000,0.000,0.000
1641102678343819008,2022-01-02-05:51:18,10.1.1.7,173,-0.320,-0.320,-0.320,0.000,0.000,0.000
1641102678543670016,2022-01-02-05:51:18,10.1.1.7,173,-0.330,-0.330,-0.330,0.000,0.000,0.000
1641102678743089920,2022-01-02-05:51:18,10.1.1.7,171,-0.340,-0.340,-0.340,0.000,0.000,0.000
1641102678943051008,2022-01-02-05:51:18,10.1.1.7,170,-0.350,-0.350,-0.350,0.000,0.000,0.000
1641102679142652160,2022-01-02-05:51:19,10.1.1.7,169,-0.360,-0.360,-0.360,0.000,0.000,0.000
1641102679342607104,2022-01-02-05:51:19,10.1.1.7,168,-0.370,-0.370,-0.370,0.000,0.000,0.000
1641102679544110080,2022-01-02-05:51:19,10.1.1.7,169,-0.380,-0.380,-0.380,0.000,0.000,0.000
1641102679742456832,2022-01-02-05:51:19,10.1.1.7,167,-0.390,-0.390,-0.390,0.000,0.000,0.000
1641102679942894080,2022-01-02-05:51:19,10.1.1.7,167,-0.400,-0.400,-0.400,0.000,0.000,0.000
1641102680154636032,2022-01-02-05:51:20,10.1.1.7,178,-0.410,-0.410,-0.410,0.000,0.000,0.000
1641102680341273088,2022-01-02-05:51:20,10.1.1.7,164,-0.420,-0.420,-0.420,0.000,0.000,0.000
1641102680540372992,2022-01-02-05:51:20,10.1.1.7,162,-0.430,-0.430,-0.430,0.000,0.000,0.000
1641102680741664768,2022-01-02-05:51:20,10.1.1.7,163,-0.440,-0.440,-0.440,0.000,0.000,0.000
1641102680962702080,2022-01-02-05:51:20,10.1.1.7,181,-0.450,-0.450,-0.450,0.000,0.000,0.000
1641102681161261056,2022-01-02-05:51:21,10.1.1.7,179,-0.460,-0.460,-0.460,0.000,0.000,0.000
1641102681360312064,2022-01-02-05:51:21,10.1.1.7,177,-0.470,-0.470,-0.470,0.000,0.000,0.000
1641102681559547904,2022-01-02-05:51:21,10.1.1.7,172,-0.480,-0.480,-0.480,0.000,0.000,0.000
1641102681761298944,2022-01-02-05:51:21,10.1.1.7,173,-0.490,-0.490,-0.490,0.000,0.000,0.000
1641102681963591936,2022-01-02-05:51:21,10.1.1.7,174,-0.480,-0.480,-0.480,0.000,0.000,0.000
1641102682162203904,2022-01-02-05:51:22,10.1.1.7,169,-0.470,-0.470,-0.470,0.000,0.000,0.000
1641102682358115072,2022-01-02-05:51:22,10.1.1.7,163,-0.460,-0.460,-0.460,0.000,0.000,0.000
1641102682559571968,2022-01-02-05:51:22,10.1.1.7,163,-0.450,-0.450,-0.450,0.000,0.000,0.000
1641102682762736128,2022-01-02-05:51:22,10.1.1.7,166,-0.440,-0.440,-0.440,0.000,0.000,0.000
1641102682956391936,2022-01-02-05:51:22,10.1.1.7,158,-0.430,-0.430,-0.430,0.000,0.000,0.000
1641102683157329920,2022-01-02-05:51:23,10.1.1.7,159,-0.420,-0.420,-0.420,0.000,0.000,0.000
1641102683378312192,2022-01-02-05:51:23,10.1.1.7,179,-0.410,-0.410,-0.410,0.000,0.000,0.000
1641102683575900928,2022-01-02-05:51:23,10.1.1.7,176,-0.400,-0.400,-0.400,0.000,0.000,0.000
1641102683778828032,2022-01-02-05:51:23,10.1.1.7,174,-0.390,-0.390,-0.390,0.000,0.000,0.000
1641102683974971904,2022-01-02-05:51:23,10.1.1.7,174,-0.380,-0.380,-0.380,0.000,0.000,0.000
1641102684178116096,2022-01-02-05:51:24,10.1.1.7,176,-0.370,-0.370,-0.370,0.000,0.000,0.000
1641102684382055936,2022-01-02-05:51:24,10.1.1.7,179,-0.360,-0.360,-0.360,0.000,0.000,0.000
1641102684580408064,2022-01-02-05:51:24,10.1.1.7,175,-0.350,-0.350,-0.350,0.000,0.000,0.000
1641102684778791936,2022-01-02-05:51:24,10.1.1.7,173,-0.340,-0.340,-0.340,0.000,0.000,0.000
1641102684979624960,2022-01-02-05:51:24,10.1.1.7,172,-0.330,-0.330,-0.330,0.000,0.000,0.000
1641102685181523968,2022-01-02-05:51:25,10.1.1.7,173,-0.320,-0.320,-0.320,0.000,0.000,0.000
1641102685381522944,2022-01-02-05:51:25,10.1.1.7,173,-0.310,-0.310,-0.310,0.000,0.000,0.000
1641102685584206080,2022-01-02-05:51:25,10.1.1.7,172,-0.300,-0.300,-0.300,0.000,0.000,0.000
1641102685783223040,2022-01-02-05:51:25,10.1.1.7,172,-0.290,-0.290,-0.290,0.000,0.000,0.000
1641102685985500160,2022-01-02-05:51:25,10.1.1.7,174,-0.280,-0.280,-0.280,0.000,0.000,0.000
1641102686185890048,2022-01-02-05:51:26,10.1.1.7,173,-0.270,-0.270,-0.270,0.000,0.000,0.000
1641102686388278016,2022-01-02-05:51:26,10.1.1.7,175,-0.260,-0.260,-0.260,0.000,0.000,0.000
1641102686588726016,2022-01-02-05:51:26,10.1.1.7,175,-0.250,-0.250,-0.250,0.000,0.000,0.000
1641102686786694144,2022-01-02-05:51:26,10.1.1.7,171,-0.240,-0.240,-0.240,0.000,0.000,0.000
1641102686989708032,2022-01-02-05:51:26,10.1.1.7,173,-0.230,-0.230,-0.230,0.000,0.000,0.000
1641102687188077056,2022-01-02-05:51:27,10.1.1.7,170,-0.220,-0.220,-0.220,0.000,0.000,0.000
1641102687388768000,2022-01-02-05:51:27,10.1.1.7,170,-0.210,-0.210,-0.210,0.000,0.000,0.000
1641102687610929920,2022-01-02-05:51:27,10.1.1.7,191,-0.200,-0.200,-0.200,0.000,0.000,0.000
1641102687813182976,2022-01-02-05:51:27,10.1.1.7,193,-0.190,-0.190,-0.190,0.000,0.000,0.000
1641102688011485184,2022-01-02-05:51:28,10.1.1.7,190,-0.180,-0.180,-0.180,0.000,0.000,0.000
1641102688211319808,2022-01-02-05:51:28,10.1.1.7,189,-0.170,-0.170,-0.170,0.000,0.000,0.000
1641102688412830208,2022-01-02-05:51:28,10.1.1.7,190,-0.160,-0.160,-0.160,0.000,0.000,0.000
1641102688622647040,2022-01-02-05:51:28,10.1.1.7,200,-0.150,-0.150,-0.150,0.000,0.000,0.000
1641102688815387136,2022-01-02-05:51:28,10.1.1.7,187,-0.140,-0.140,-0.140,0.000,0.000,0.000
1641102689015073024,2022-01-02-05:51:29,10.1.1.7,188,-0.130,-0.130,-0.130,0.000,0.000,0.000
1641102689213455872,2022-01-02-05:51:29,10.1.1.7,186,-0.120,-0.120,-0.120,0.000,0.000,0.000
1641102689415055104,2022-01-02-05:51:29,10.1.1.7,187,-0.110,-0.110,-0.110,0.000,0.000,0.000
1641102689614362112,2022-01-02-05:51:29,10.1.1.7,185,-0.100,-0.100,-0.100,0.000,0.000,0.000
1641102689817206016,2022-01-02-05:51:29,10.1.1.7,186,-0.090,-0.090,-0.090,0.000,0.000,0.000
1641102690015169024,2022-01-02-05:51:30,10.1.1.7,185,-0.080,-0.080,-0.080,0.000,0.000,0.000
1641102690218338048,2022-01-02-05:51:30,10.1.1.7,187,-0.070,-0.070,-0.070,0.000,0.000,0.000
1641102690416125184,2022-01-02-05:51:30,10.1.1.7,183,-0.060,-0.060,-0.060,0.000,0.000,0.000
1641102690615986944,2022-01-02-05:51:30,10.1.1.7,182,-0.050,-0.050,-0.050,0.000,0.000,0.000
1641102690819250944,2022-01-02-05:51:30,10.1.1.7,183,-0.040,-0.040,-0.040,0.000,0.000,0.000
1641102691016699136,2022-01-02-05:51:31,10.1.1.7,180,-0.030,-0.030,-0.030,0.000,0.000,0.000
1641102691218363136,2022-01-02-05:51:31,10.1.1.7,179,-0.020,-0.020,-0.020,0.000,0.000,0.000
1641102691437530880,2022-01-02-05:51:31,10.1.1.7,186,-0.010,-0.010,-0.010,0.000,0.000,0.000
1641102691637953024,2022-01-02-05:51:31,10.1.1.7,185,0.000,0.000,0.000,0.000,0.000,0.000
1641102691837516032,2022-01-02-05:51:31,10.1.1.7,184,-0.010,-0.010,-0.010,0.000,0.000,0.000
1641102692040355840,2022-01-02-05:51:32,10.1.1.7,187,-0.020,-0.020,-0.020,0.000,0.000,0.000
1641102692240150016,2022-01-02-05:51:32,10.1.1.7,186,-0.030,-0.030,-0.030,0.000,0.000,0.000
1641102692437836032,2022-01-02-05:51:32,10.1.1.7,183,-0.040,-0.040,-0.040,0.000,0.000,0.000
1641102692639239936,2022-01-02-05:51:32,10.1.1.7,184,-0.050,-0.050,-0.050,0.000,0.000,0.000
1641102692838155008,2022-01-02-05:51:32,10.1.1.7,181,-0.060,-0.060,-0.060,0.000,0.000,0.000
1641102693040146944,2022-01-02-05:51:33,10.1.1.7,183,-0.070,-0.070,-0.070,0.000,0.000,0.000
1641102693239154944,2022-01-02-05:51:33,10.1.1.7,181,-0.080,-0.080,-0.080,0.000,0.000,0.000
1641102693440571904,2022-01-02-05:51:33,10.1.1.7,179,-0.090,-0.090,-0.090,0.000,0.000,0.000
1641102693861316864,2022-01-02-05:51:33,10.1.1.7,200,-0.110,-0.110,-0.110,0.000,0.000,0.000
1641102694058907136,2022-01-02-05:51:34,10.1.1.7,197,-0.120,-0.120,-0.120,0.000,0.000,0.000
1641102694260601088,2022-01-02-05:51:34,10.1.1.7,198,-0.130,-0.130,-0.130,0.000,0.000,0.000
1641102694660188928,2022-01-02-05:51:34,10.1.1.7,193,-0.150,-0.150,-0.150,0.000,0.000,0.000
1641102694859045120,2022-01-02-05:51:34,10.1.1.7,188,-0.160,-0.160,-0.160,0.000,0.000,0.000
1641102695058656000,2022-01-02-05:51:35,10.1.1.7,187,-0.170,-0.170,-0.170,0.000,0.000,0.000
1641102695260008960,2022-01-02-05:51:35,10.1.1.7,187,-0.180,-0.180,-0.180,0.000,0.000,0.000
1641102695460553984,2022-01-02-05:51:35,10.1.1.7,186,-0.190,-0.190,-0.190,0.000,0.000,0.000
1641102695859913216,2022-01-02-05:51:35,10.1.1.7,185,-0.210,-0.210,-0.210,0.000,0.000,0.000
1641102696280525056,2022-01-02-05:51:36,10.1.1.7,199,-0.230,-0.230,-0.230,0.000,0.000,0.000
1641102696481609216,2022-01-02-05:51:36,10.1.1.7,199,-0.240,-0.240,-0.240,0.000,0.000,0.000
1641102696679220992,2022-01-02-05:51:36,10.1.1.7,194,-0.250,-0.250,-0.250,0.000,0.000,0.000
1641102696879951104,2022-01-02-05:51:36,10.1.1.7,194,-0.260,-0.260,-0.260,0.000,0.000,0.000
1641102697081607168,2022-01-02-05:51:37,10.1.1.7,195,-0.270,-0.270,-0.270,0.000,0.000,0.000
1641102697280363008,2022-01-02-05:51:37,10.1.1.7,191,-0.280,-0.280,-0.280,0.000,0.000,0.000
1641102697478089984,2022-01-02-05:51:37,10.1.1.7,187,-0.290,-0.290,-0.290,0.000,0.000,0.000
1641102697678749952,2022-01-02-05:51:37,10.1.1.7,187,-0.300,-0.300,-0.300,0.000,0.000,0.000
1641102697878573824,2022-01-02-05:51:37,10.1.1.7,186,-0.310,-0.310,-0.310,0.000,0.000,0.000
1641102698077671168,2022-01-02-05:51:38,10.1.1.7,185,-0.320,-0.320,-0.320,0.000,0.000,0.000
1641102698279141888,2022-01-02-05:51:38,10.1.1.7,186,-0.330,-0.330,-0.330,0.000,0.000,0.000
1641102698477481984,2022-01-02-05:51:38,10.1.1.7,183,-0.340,-0.340,-0.340,0.000,0.000,0.000
1641102698680030208,2022-01-02-05:51:38,10.1.1.7,185,-0.350,-0.350,-0.350,0.000,0.000,0.000
1641102698877136896,2022-01-02-05:51:38,10.1.1.7,181,-0.360,-0.360,-0.360,0.000,0.000,0.000
1641102699080297984,2022-01-02-05:51:39,10.1.1.7,184,-0.370,-0.370,-0.370,0.000,0.000,0.000
1641102699700037120,2022-01-02-05:51:39,10.1.1.7,195,-0.400,-0.400,-0.400,0.000,0.000,0.000
1641102699898587904,2022-01-02-05:51:39,10.1.1.7,193,-0.410,-0.410,-0.410,0.000,0.000,0.000
1641102700095449856,2022-01-02-05:51:40,10.1.1.7,189,-0.420,-0.420,-0.420,0.000,0.000,0.000
1641102700297632000,2022-01-02-05:51:40,10.1.1.7,191,-0.430,-0.430,-0.430,0.000,0.000,0.000
1641102700496179968,2022-01-02-05:51:40,10.1.1.7,188,-0.440,-0.440,-0.440,0.000,0.000,0.000
1641102700694310912,2022-01-02-05:51:40,10.1.1.7,186,-0.450,-0.450,-0.450,0.000,0.000,0.000
1641102700895601152,2022-01-02-05:51:40,10.1.1.7,187,-0.460,-0.460,-0.460,0.000,0.000,0.000
1641102701094672896,2022-01-02-05:51:41,10.1.1.7,185,-0.470,-0.470,-0.470,0.000,0.000,0.000
1641102701294164992,2022-01-02-05:51:41,10.1.1.7,184,-0.480,-0.480,-0.480,0.000,0.000,0.000
1641102701495603200,2022-01-02-05:51:41,10.1.1.7,184,-0.490,-0.490,-0.490,0.000,0.000,0.000
1641102701694680064,2022-01-02-05:51:41,10.1.1.7,182,-0.480,-0.480,-0.480,0.000,0.000,0.000
1641102701893230848,2022-01-02-05:51:41,10.1.1.7,180,-0.470,-0.470,-0.470,0.000,0.000,0.000
1641102702098540032,2022-01-02-05:51:42,10.1.1.7,183,-0.460,-0.460,-0.460,0.000,0.000,0.000
1641102702293272064,2022-01-02-05:51:42,10.1.1.7,178,-0.450,-0.450,-0.450,0.000,0.000,0.000
1641102702493369088,2022-01-02-05:51:42,10.1.1.7,176,-0.440,-0.440,-0.440,0.000,0.000,0.000
1641102702693479168,2022-01-02-05:51:42,10.1.1.7,176,-0.430,-0.430,-0.430,0.000,0.000,0.000
1641102702893212160,2022-01-02-05:51:42,10.1.1.7,175,-0.420,-0.420,-0.420,0.000,0.000,0.000
1641102703095155968,2022-01-02-05:51:43,10.1.1.7,176,-0.410,-0.410,-0.410,0.000,0.000,0.000
1641102703292769024,2022-01-02-05:51:43,10.1.1.7,173,-0.400,-0.400,-0.400,0.000,0.000,0.000
1641102703515304960,2022-01-02-05:51:43,10.1.1.7,195,-0.390,-0.390,-0.390,0.000,0.000,0.000
1641102703712590080,2022-01-02-05:51:43,10.1.1.7,192,-0.380,-0.380,-0.380,0.000,0.000,0.000
1641102703912674816,2022-01-02-05:51:43,10.1.1.7,191,-0.370,-0.370,-0.370,0.000,0.000,0.000
1641102704113483008,2022-01-02-05:51:44,10.1.1.7,192,-0.360,-0.360,-0.360,0.000,0.000,0.000
1641102704311912960,2022-01-02-05:51:44,10.1.1.7,189,-0.350,-0.350,-0.350,0.000,0.000,0.000
1641102704513350912,2022-01-02-05:51:44,10.1.1.7,190,-0.340,-0.340,-0.340,0.000,0.000,0.000
1641102704712807936,2022-01-02-05:51:44,10.1.1.7,189,-0.330,-0.330,-0.330,0.000,0.000,0.000
1641102704912560896,2022-01-02-05:51:44,10.1.1.7,188,-0.320,-0.320,-0.320,0.000,0.000,0.000
1641102705110403072,2022-01-02-05:51:45,10.1.1.7,185,-0.310,-0.310,-0.310,0.000,0.000,0.000
1641102705311824128,2022-01-02-05:51:45,10.1.1.7,186,-0.300,-0.300,-0.300,0.000,0.000,0.000
1641102705512972032,2022-01-02-05:51:45,10.1.1.7,183,-0.290,-0.290,-0.290,0.000,0.000,0.000
1641102705710603008,2022-01-02-05:51:45,10.1.1.7,184,-0.280,-0.280,-0.280,0.000,0.000,0.000
1641102705909893120,2022-01-02-05:51:45,10.1.1.7,182,-0.270,-0.270,-0.270,0.000,0.000,0.000
1641102706110797056,2022-01-02-05:51:46,10.1.1.7,182,-0.260,-0.260,-0.260,0.000,0.000,0.000
1641102706309729024,2022-01-02-05:51:46,10.1.1.7,180,-0.250,-0.250,-0.250,0.000,0.000,0.000
1641102706509560064,2022-01-02-05:51:46,10.1.1.7,179,-0.240,-0.240,-0.240,0.000,0.000,0.000
1641102706710649088,2022-01-02-05:51:46,10.1.1.7,179,-0.230,-0.230,-0.230,0.000,0.000,0.000
1641102706908099840,2022-01-02-05:51:46,10.1.1.7,176,-0.220,-0.220,-0.220,0.000,0.000,0.000
1641102707111116800,2022-01-02-05:51:47,10.1.1.7,179,-0.210,-0.210,-0.210,0.000,0.000,0.000
1641102707307037952,2022-01-02-05:51:47,10.1.1.7,174,-0.200,-0.200,-0.200,0.000,0.000,0.000
1641102707508333056,2022-01-02-05:51:47,10.1.1.7,173,-0.190,-0.190,-0.190,0.000,0.000,0.000
1641102707706682880,2022-01-02-05:51:47,10.1.1.7,171,-0.180,-0.180,-0.180,0.000,0.000,0.000
1641102707907514112,2022-01-02-05:51:47,10.1.1.7,171,-0.170,-0.170,-0.170,0.000,0.000,0.000
1641102708106502144,2022-01-02-05:51:48,10.1.1.7,169,-0.160,-0.160,-0.160,0.000,0.000,0.000
1641102708310846208,2022-01-02-05:51:48,10.1.1.7,173,-0.150,-0.150,-0.150,0.000,0.000,0.000
1641102708507235072,2022-01-02-05:51:48,10.1.1.7,169,-0.140,-0.140,-0.140,0.000,0.000,0.000
1641102708708014848,2022-01-02-05:51:48,10.1.1.7,169,-0.130,-0.130,-0.130,0.000,0.000,0.000
1641102708907982080,2022-01-02-05:51:48,10.1.1.7,169,-0.120,-0.120,-0.120,0.000,0.000,0.000
1641102709123687936,2022-01-02-05:51:49,10.1.1.7,184,-0.110,-0.110,-0.110,0.000,0.000,0.000
1641102709323537152,2022-01-02-05:51:49,10.1.1.7,182,-0.100,-0.100,-0.100,0.000,0.000,0.000
1641102709526245120,2022-01-02-05:51:49,10.1.1.7,183,-0.090,-0.090,-0.090,0.000,0.000,0.000
1641102709725390848,2022-01-02-05:51:49,10.1.1.7,182,-0.080,-0.080,-0.080,0.000,0.000,0.000
1641102709925463808,2022-01-02-05:51:49,10.1.1.7,179,-0.070,-0.070,-0.070,0.000,0.000,0.000
1641102710124894976,2022-01-02-05:51:50,10.1.1.7,178,-0.060,-0.060,-0.060,0.000,0.000,0.000
1641102710325859072,2022-01-02-05:51:50,10.1.1.7,176,-0.050,-0.050,-0.050,0.000,0.000,0.000
1641102710525670144,2022-01-02-05:51:50,10.1.1.7,174,-0.040,-0.040,-0.040,0.000,0.000,0.000
1641102710722839040,2022-01-02-05:51:50,10.1.1.7,170,-0.030,-0.030,-0.030,0.000,0.000,0.000
1641102710922574080,2022-01-02-05:51:50,10.1.1.7,169,-0.020,-0.020,-0.020,0.000,0.000,0.000
1641102711121933056,2022-01-02-05:51:51,10.1.1.7,168,-0.010,-0.010,-0.010,0.000,0.000,0.000
1641102711324784896,2022-01-02-05:51:51,10.1.1.7,169,0.000,0.000,0.000,0.000,0.000,0.000
1641102711523868160,2022-01-02-05:51:51,10.1.1.7,169,-0.010,-0.010,-0.010,0.000,0.000,0.000
1641102711720904960,2022-01-02-05:51:51,10.1.1.7,164,-0.020,-0.020,-0.020,0.000,0.000,0.000
1641102711922774016,2022-01-02-05:51:51,10.1.1.7,165,-0.030,-0.030,-0.030,0.000,0.000,0.000
1641102712122024960,2022-01-02-05:51:52,10.1.1.7,163,-0.040,-0.040,-0.040,0.000,0.000,0.000
1641102712341950976,2022-01-02-05:51:52,10.1.1.7,183,-0.050,-0.050,-0.050,0.000,0.000,0.000
1641102712540323072,2022-01-02-05:51:52,10.1.1.7,180,-0.060,-0.060,-0.060,0.000,0.000,0.000
1641102712741198080,2022-01-02-05:51:52,10.1.1.7,180,-0.070,-0.070,-0.070,0.000,0.000,0.000
1641102712940182016,2022-01-02-05:51:52,10.1.1.7,179,-0.080,-0.080,-0.080,0.000,0.000,0.000
1641102713141814016,2022-01-02-05:51:53,10.1.1.7,180,-0.090,-0.090,-0.090,0.000,0.000,0.000
1641102713338288128,2022-01-02-05:51:53,10.1.1.7,175,-0.100,-0.100,-0.100,0.000,0.000,0.000
1641102713539266048,2022-01-02-05:51:53,10.1.1.7,175,-0.110,-0.110,-0.110,0.000,0.000,0.000
1641102713737384960,2022-01-02-05:51:53,10.1.1.7,173,-0.120,-0.120,-0.120,0.000,0.000,0.000
1641102713938624000,2022-01-02-05:51:53,10.1.1.7,173,-0.130,-0.130,-0.130,0.000,0.000,0.000
1641102714137788928,2022-01-02-05:51:54,10.1.1.7,171,-0.140,-0.140,-0.140,0.000,0.000,0.000
1641102714338243840,2022-01-02-05:51:54,10.1.1.7,171,-0.150,-0.150,-0.150,0.000,0.000,0.000
1641102714538129920,2022-01-02-05:51:54,10.1.1.7,171,-0.160,-0.160,-0.160,0.000,0.000,0.000
1641102714736709120,2022-01-02-05:51:54,10.1.1.7,169,-0.170,-0.170,-0.170,0.000,0.000,0.000
1641102714936557056,2022-01-02-05:51:54,10.1.1.7,167,-0.180,-0.180,-0.180,0.000,0.000,0.000
1641102715136987904,2022-01-02-05:51:55,10.1.1.7,167,-0.190,-0.190,-0.190,0.000,0.000,0.000
1641102715334963200,2022-01-02-05:51:55,10.1.1.7,165,-0.200,-0.200,-0.200,0.000,0.000,0.000
1641102715534190848,2022-01-02-05:51:55,10.1.1.7,164,-0.210,-0.210,-0.210,0.000,0.000,0.000
1641102715734164992,2022-01-02-05:51:55,10.1.1.7,163,-0.220,-0.220,-0.220,0.000,0.000,0.000
1641102715936727040,2022-01-02-05:51:55,10.1.1.7,165,-0.230,-0.230,-0.230,0.000,0.000,0.000
1641102716134577920,2022-01-02-05:51:56,10.1.1.7,161,-0.240,-0.240,-0.240,0.000,0.000,0.000
1641102716336262912,2022-01-02-05:51:56,10.1.1.7,162,-0.250,-0.250,-0.250,0.000,0.000,0.000
1641102716538912000,2022-01-02-05:51:56,10.1.1.7,164,-0.260,-0.260,-0.260,0.000,0.000,0.000
1641102716740338944,2022-01-02-05:51:56,10.1.1.7,165,-0.270,-0.270,-0.270,0.000,0.000,0.000
1641102716939933184,2022-01-02-05:51:56,10.1.1.7,162,-0.280,-0.280,-0.280,0.000,0.000,0.000
1641102717141889024,2022-01-02-05:51:57,10.1.1.7,165,-0.290,-0.290,-0.290,0.000,0.000,0.000
1641102717342561024,2022-01-02-05:51:57,10.1.1.7,165,-0.300,-0.300,-0.300,0.000,0.000,0.000
1641102717542085888,2022-01-02-05:51:57,10.1.1.7,164,-0.310,-0.310,-0.310,0.000,0.000,0.000
1641102717743570944,2022-01-02-05:51:57,10.1.1.7,164,-0.320,-0.320,-0.320,0.000,0.000,0.000
1641102717945952000,2022-01-02-05:51:57,10.1.1.7,167,-0.330,-0.330,-0.330,0.000,0.000,0.000
1641102718165890816,2022-01-02-05:51:58,10.1.1.7,184,-0.340,-0.340,-0.340,0.000,0.000,0.000
1641102718365638144,2022-01-02-05:51:58,10.1.1.7,183,-0.350,-0.350,-0.350,0.000,0.000,0.000
1641102718566284800,2022-01-02-05:51:58,10.1.1.7,184,-0.360,-0.360,-0.360,0.000,0.000,0.000
1641102718768975104,2022-01-02-05:51:58,10.1.1.7,182,-0.370,-0.370,-0.370,0.000,0.000,0.000
1641102718969573888,2022-01-02-05:51:58,10.1.1.7,184,-0.380,-0.380,-0.380,0.000,0.000,0.000
1641102719168035072,2022-01-02-05:51:59,10.1.1.7,182,-0.390,-0.390,-0.390,0.000,0.000,0.000
1641102719368721920,2022-01-02-05:51:59,10.1.1.7,178,-0.400,-0.400,-0.400,0.000,0.000,0.000
1641102719568646912,2022-01-02-05:51:59,10.1.1.7,177,-0.410,-0.410,-0.410,0.000,0.000,0.000
1641102719771666944,2022-01-02-05:51:59,10.1.1.7,179,-0.420,-0.420,-0.420,0.000,0.000,0.000
1641102719972300032,2022-01-02-05:51:59,10.1.1.7,178,-0.430,-0.430,-0.430,0.000,0.000,0.000
1641102720173446912,2022-01-02-05:52:00,10.1.1.7,179,-0.440,-0.440,-0.440,0.000,0.000,0.000
1641102720370989056,2022-01-02-05:52:00,10.1.1.7,176,-0.450,-0.450,-0.450,0.000,0.000,0.000
1641102720573156096,2022-01-02-05:52:00,10.1.1.7,177,-0.460,-0.460,-0.460,0.000,0.000,0.000
1641102720772655104,2022-01-02-05:52:00,10.1.1.7,176,-0.470,-0.470,-0.470,0.000,0.000,0.000
1641102720974172160,2022-01-02-05:52:00,10.1.1.7,177,-0.480,-0.480,-0.480,0.000,0.000,0.000
1641102721174870016,2022-01-02-05:52:01,10.1.1.7,178,-0.490,-0.490,-0.490,0.000,0.000,0.000
1641102721372430080,2022-01-02-05:52:01,10.1.1.7,175,-0.480,-0.480,-0.480,0.000,0.000,0.000
1641102721575713024,2022-01-02-05:52:01,10.1.1.7,178,-0.470,-0.470,-0.470,0.000,0.000,0.000
1641102721795726080,2022-01-02-05:52:01,10.1.1.7,195,-0.460,-0.460,-0.460,0.000,0.000,0.000
1641102721998624000,2022-01-02-05:52:01,10.1.1.7,198,-0.450,-0.450,-0.450,0.000,0.000,0.000
1641102722196899840,2022-01-02-05:52:02,10.1.1.7,196,-0.440,-0.440,-0.440,0.000,0.000,0.000
1641102722395673088,2022-01-02-05:52:02,10.1.1.7,193,-0.430,-0.430,-0.430,0.000,0.000,0.000
1641102722595902976,2022-01-02-05:52:02,10.1.1.7,192,-0.420,-0.420,-0.420,0.000,0.000,0.000
1641102722795303168,2022-01-02-05:52:02,10.1.1.7,191,-0.410,-0.410,-0.410,0.000,0.000,0.000
1641102722997456128,2022-01-02-05:52:02,10.1.1.7,193,-0.400,-0.400,-0.400,0.000,0.000,0.000
1641102723197910016,2022-01-02-05:52:03,10.1.1.7,193,-0.390,-0.390,-0.390,0.000,0.000,0.000
1641102723399048960,2022-01-02-05:52:03,10.1.1.7,193,-0.380,-0.380,-0.380,0.000,0.000,0.000
1641102723598835968,2022-01-02-05:52:03,10.1.1.7,193,-0.370,-0.370,-0.370,0.000,0.000,0.000
1641102723798640896,2022-01-02-05:52:03,10.1.1.7,191,-0.360,-0.360,-0.360,0.000,0.000,0.000
1641102723998075904,2022-01-02-05:52:03,10.1.1.7,189,-0.350,-0.350,-0.350,0.000,0.000,0.000
1641102724198882048,2022-01-02-05:52:04,10.1.1.7,190,-0.340,-0.340,-0.340,0.000,0.000,0.000
1641102724399308800,2022-01-02-05:52:04,10.1.1.7,189,-0.330,-0.330,-0.330,0.000,0.000,0.000
1641102724597359872,2022-01-02-05:52:04,10.1.1.7,186,-0.320,-0.320,-0.320,0.000,0.000,0.000
1641102724799218944,2022-01-02-05:52:04,10.1.1.7,187,-0.310,-0.310,-0.310,0.000,0.000,0.000
1641102724997278976,2022-01-02-05:52:04,10.1.1.7,184,-0.300,-0.300,-0.300,0.000,0.000,0.000
1641102725198291968,2022-01-02-05:52:05,10.1.1.7,184,-0.290,-0.290,-0.290,0.000,0.000,0.000
1641102725397200128,2022-01-02-05:52:05,10.1.1.7,183,-0.280,-0.280,-0.280,0.000,0.000,0.000
1641102725599476992,2022-01-02-05:52:05,10.1.1.7,184,-0.270,-0.270,-0.270,0.000,0.000,0.000
1641102725798265088,2022-01-02-05:52:05,10.1.1.7,182,-0.260,-0.260,-0.260,0.000,0.000,0.000
1641102725998198016,2022-01-02-05:52:05,10.1.1.7,181,-0.250,-0.250,-0.250,0.000,0.000,0.000
1641102726218296064,2022-01-02-05:52:06,10.1.1.7,197,-0.240,-0.240,-0.240,0.000,0.000,0.000
1641102726419924992,2022-01-02-05:52:06,10.1.1.7,197,-0.230,-0.230,-0.230,0.000,0.000,0.000
1641102726617511936,2022-01-02-05:52:06,10.1.1.7,195,-0.220,-0.220,-0.220,0.000,0.000,0.000
1641102726818767104,2022-01-02-05:52:06,10.1.1.7,195,-0.210,-0.210,-0.210,0.000,0.000,0.000
1641102727020196864,2022-01-02-05:52:07,10.1.1.7,195,-0.200,-0.200,-0.200,0.000,0.000,0.000
1641102727220211968,2022-01-02-05:52:07,10.1.1.7,194,-0.190,-0.190,-0.190,0.000,0.000,0.000
1641102727418895872,2022-01-02-05:52:07,10.1.1.7,192,-0.180,-0.180,-0.180,0.000,0.000,0.000
1641102727619267072,2022-01-02-05:52:07,10.1.1.7,191,-0.170,-0.170,-0.170,0.000,0.000,0.000
1641102727819078912,2022-01-02-05:52:07,10.1.1.7,189,-0.160,-0.160,-0.160,0.000,0.000,0.000
1641102728017772032,2022-01-02-05:52:08,10.1.1.7,187,-0.150,-0.150,-0.150,0.000,0.000,0.000
1641102728217724928,2022-01-02-05:52:08,10.1.1.7,186,-0.140,-0.140,-0.140,0.000,0.000,0.000
1641102728417804032,2022-01-02-05:52:08,10.1.1.7,184,-0.130,-0.130,-0.130,0.000,0.000,0.000
1641102728618205952,2022-01-02-05:52:08,10.1.1.7,183,-0.120,-0.120,-0.120,0.000,0.000,0.000
1641102728817379840,2022-01-02-05:52:08,10.1.1.7,182,-0.110,-0.110,-0.110,0.000,0.000,0.000
1641102729017142016,2022-01-02-05:52:09,10.1.1.7,180,-0.100,-0.100,-0.100,0.000,0.000,0.000
1641102729217597952,2022-01-02-05:52:09,10.1.1.7,178,-0.090,-0.090,-0.090,0.000,0.000,0.000
1641102729437267968,2022-01-02-05:52:09,10.1.1.7,196,-0.080,-0.080,-0.080,0.000,0.000,0.000
1641102729638258944,2022-01-02-05:52:09,10.1.1.7,197,-0.070,-0.070,-0.070,0.000,0.000,0.000
1641102729837178880,2022-01-02-05:52:09,10.1.1.7,195,-0.060,-0.060,-0.060,0.000,0.000,0.000
1641102730038963200,2022-01-02-05:52:10,10.1.1.7,196,-0.050,-0.050,-0.050,0.000,0.000,0.000
1641102730238632960,2022-01-02-05:52:10,10.1.1.7,194,-0.040,-0.040,-0.040,0.000,0.000,0.000
1641102730436904960,2022-01-02-05:52:10,10.1.1.7,192,-0.030,-0.030,-0.030,0.000,0.000,0.000
1641102730638695936,2022-01-02-05:52:10,10.1.1.7,193,-0.020,-0.020,-0.020,0.000,0.000,0.000
1641102730838802944,2022-01-02-05:52:10,10.1.1.7,193,-0.010,-0.010,-0.010,0.000,0.000,0.000
1641102731037895936,2022-01-02-05:52:11,10.1.1.7,191,0.000,0.000,0.000,0.000,0.000,0.000
1641102731236807168,2022-01-02-05:52:11,10.1.1.7,189,-0.010,-0.010,-0.010,0.000,0.000,0.000
1641102731436871936,2022-01-02-05:52:11,10.1.1.7,188,-0.020,-0.020,-0.020,0.000,0.000,0.000
1641102731637914880,2022-01-02-05:52:11,10.1.1.7,188,-0.030,-0.030,-0.030,0.000,0.000,0.000
1641102731835194112,2022-01-02-05:52:11,10.1.1.7,185,-0.040,-0.040,-0.040,0.000,0.000,0.000
1641102732036921856,2022-01-02-05:52:12,10.1.1.7,186,-0.050,-0.050,-0.050,0.000,0.000,0.000
1641102732237227008,2022-01-02-05:52:12,10.1.1.7,186,-0.060,-0.060,-0.060,0.000,0.000,0.000
1641102732435894016,2022-01-02-05:52:12,10.1.1.7,184,-0.070,-0.070,-0.070,0.000,0.000,0.000
1641102732637960960,2022-01-02-05:52:12,10.1.1.7,182,-0.080,-0.080,-0.080,0.000,0.000,0.000
1641102732836513024,2022-01-02-05:52:12,10.1.1.7,179,-0.090,-0.090,-0.090,0.000,0.000,0.000
1641102733034707968,2022-01-02-05:52:13,10.1.1.7,177,-0.100,-0.100,-0.100,0.000,0.000,0.000
1641102733234950144,2022-01-02-05:52:13,10.1.1.7,176,-0.110,-0.110,-0.110,0.000,0.000,0.000
1641102733436333824,2022-01-02-05:52:13,10.1.1.7,177,-0.120,-0.120,-0.120,0.000,0.000,0.000
1641102733655109888,2022-01-02-05:52:13,10.1.1.7,194,-0.130,-0.130,-0.130,0.000,0.000,0.000
1641102733855945984,2022-01-02-05:52:13,10.1.1.7,194,-0.140,-0.140,-0.140,0.000,0.000,0.000
1641102734055744768,2022-01-02-05:52:14,10.1.1.7,193,-0.150,-0.150,-0.150,0.000,0.000,0.000
1641102734255001088,2022-01-02-05:52:14,10.1.1.7,191,-0.160,-0.160,-0.160,0.000,0.000,0.000
1641102734453459968,2022-01-02-05:52:14,10.1.1.7,189,-0.170,-0.170,-0.170,0.000,0.000,0.000
1641102734654233856,2022-01-02-05:52:14,10.1.1.7,189,-0.180,-0.180,-0.180,0.000,0.000,0.000
1641102734852240128,2022-01-02-05:52:14,10.1.1.7,186,-0.190,-0.190,-0.190,0.000,0.000,0.000
1641102735054660096,2022-01-02-05:52:15,10.1.1.7,187,-0.200,-0.200,-0.200,0.000,0.000,0.000
1641102735252697088,2022-01-02-05:52:15,10.1.1.7,184,-0.210,-0.210,-0.210,0.000,0.000,0.000
1641102735451433984,2022-01-02-05:52:15,10.1.1.7,182,-0.220,-0.220,-0.220,0.000,0.000,0.000
1641102735654330112,2022-01-02-05:52:15,10.1.1.7,184,-0.230,-0.230,-0.230,0.000,0.000,0.000
1641102735852809984,2022-01-02-05:52:15,10.1.1.7,182,-0.240,-0.240,-0.240,0.000,0.000,0.000
1641102736056420096,2022-01-02-05:52:16,10.1.1.7,184,-0.250,-0.250,-0.250,0.000,0.000,0.000
1641102736254447104,2022-01-02-05:52:16,10.1.1.7,179,-0.260,-0.260,-0.260,0.000,0.000,0.000
1641102736451264000,2022-01-02-05:52:16,10.1.1.7,175,-0.270,-0.270,-0.270,0.000,0.000,0.000
1641102736651983872,2022-01-02-05:52:16,10.1.1.7,175,-0.280,-0.280,-0.280,0.000,0.000,0.000
1641102736853841152,2022-01-02-05:52:16,10.1.1.7,175,-0.290,-0.290,-0.290,0.000,0.000,0.000
1641102737054209024,2022-01-02-05:52:17,10.1.1.7,175,-0.300,-0.300,-0.300,0.000,0.000,0.000
1641102737272229888,2022-01-02-05:52:17,10.1.1.7,191,-0.310,-0.310,-0.310,0.000,0.000,0.000
1641102737470670848,2022-01-02-05:52:17,10.1.1.7,188,-0.320,-0.320,-0.320,0.000,0.000,0.000
1641102737669904896,2022-01-02-05:52:17,10.1.1.7,187,-0.330,-0.330,-0.330,0.000,0.000,0.000
1641102737877056000,2022-01-02-05:52:17,10.1.1.7,186,-0.340,-0.340,-0.340,0.000,0.000,0.000
1641102738073082880,2022-01-02-05:52:18,10.1.1.7,189,-0.350,-0.350,-0.350,0.000,0.000,0.000
1641102738272139008,2022-01-02-05:52:18,10.1.1.7,187,-0.360,-0.360,-0.360,0.000,0.000,0.000
1641102738473225984,2022-01-02-05:52:18,10.1.1.7,188,-0.370,-0.370,-0.370,0.000,0.000,0.000
1641102738674059008,2022-01-02-05:52:18,10.1.1.7,179,-0.380,-0.380,-0.380,0.000,0.000,0.000
1641102738874557952,2022-01-02-05:52:18,10.1.1.7,180,-0.390,-0.390,-0.390,0.000,0.000,0.000
1641102739070638848,2022-01-02-05:52:19,10.1.1.7,174,-0.400,-0.400,-0.400,0.000,0.000,0.000
1641102739270638848,2022-01-02-05:52:19,10.1.1.7,173,-0.410,-0.410,-0.410,0.000,0.000,0.000
1641102739470225152,2022-01-02-05:52:19,10.1.1.7,172,-0.420,-0.420,-0.420,0.000,0.000,0.000
1641102739688322048,2022-01-02-05:52:19,10.1.1.7,188,-0.430,-0.430,-0.430,0.000,0.000,0.000
1641102739888806144,2022-01-02-05:52:19,10.1.1.7,187,-0.440,-0.440,-0.440,0.000,0.000,0.000
1641102740090606080,2022-01-02-05:52:20,10.1.1.7,189,-0.450,-0.450,-0.450,0.000,0.000,0.000
1641102740287440896,2022-01-02-05:52:20,10.1.1.7,184,-0.460,-0.460,-0.460,0.000,0.000,0.000
1641102740486156032,2022-01-02-05:52:20,10.1.1.7,182,-0.470,-0.470,-0.470,0.000,0.000,0.000
1641102740686123008,2022-01-02-05:52:20,10.1.1.7,176,-0.480,-0.480,-0.480,0.000,0.000,0.000
1641102740887831040,2022-01-02-05:52:20,10.1.1.7,176,-0.490,-0.490,-0.490,0.000,0.000,0.000
1641102741087742976,2022-01-02-05:52:21,10.1.1.7,176,-0.480,-0.480,-0.480,0.000,0.000,0.000
1641102741285139968,2022-01-02-05:52:21,10.1.1.7,172,-0.470,-0.470,-0.470,0.000,0.000,0.000
1641102741485115904,2022-01-02-05:52:21,10.1.1.7,172,-0.460,-0.460,-0.460,0.000,0.000,0.000
1641102741686842880,2022-01-02-05:52:21,10.1.1.7,171,-0.450,-0.450,-0.450,0.000,0.000,0.000
1641102741886509824,2022-01-02-05:52:21,10.1.1.7,169,-0.440,-0.440,-0.440,0.000,0.000,0.000
1641102742084414976,2022-01-02-05:52:22,10.1.1.7,167,-0.430,-0.430,-0.430,0.000,0.000,0.000
1641102742283251968,2022-01-02-05:52:22,10.1.1.7,164,-0.420,-0.420,-0.420,0.000,0.000,0.000
1641102742483501824,2022-01-02-05:52:22,10.1.1.7,164,-0.410,-0.410,-0.410,0.000,0.000,0.000
1641102742703834112,2022-01-02-05:52:22,10.1.1.7,183,-0.400,-0.400,-0.400,0.000,0.000,0.000
1641102742904939008,2022-01-02-05:52:22,10.1.1.7,183,-0.390,-0.390,-0.390,0.000,0.000,0.000
1641102743102896896,2022-01-02-05:52:23,10.1.1.7,176,-0.380,-0.380,-0.380,0.000,0.000,0.000
1641102743303184896,2022-01-02-05:52:23,10.1.1.7,175,-0.370,-0.370,-0.370,0.000,0.000,0.000
1641102743501156096,2022-01-02-05:52:23,10.1.1.7,171,-0.360,-0.360,-0.360,0.000,0.000,0.000
1641102743702810880,2022-01-02-05:52:23,10.1.1.7,172,-0.350,-0.350,-0.350,0.000,0.000,0.000
1641102743902287872,2022-01-02-05:52:23,10.1.1.7,171,-0.340,-0.340,-0.340,0.000,0.000,0.000
1641102744102689024,2022-01-02-05:52:24,10.1.1.7,169,-0.330,-0.330,-0.330,0.000,0.000,0.000
1641102744302455808,2022-01-02-05:52:24,10.1.1.7,168,-0.320,-0.320,-0.320,0.000,0.000,0.000
1641102744501882112,2022-01-02-05:52:24,10.1.1.7,166,-0.310,-0.310,-0.310,0.000,0.000,0.000
1641102744700891136,2022-01-02-05:52:24,10.1.1.7,163,-0.300,-0.300,-0.300,0.000,0.000,0.000
1641102744898320896,2022-01-02-05:52:24,10.1.1.7,161,-0.290,-0.290,-0.290,0.000,0.000,0.000
1641102745100655104,2022-01-02-05:52:25,10.1.1.7,160,-0.280,-0.280,-0.280,0.000,0.000,0.000
1641102745319643136,2022-01-02-05:52:25,10.1.1.7,177,-0.270,-0.270,-0.270,0.000,0.000,0.000
1641102745520611072,2022-01-02-05:52:25,10.1.1.7,176,-0.260,-0.260,-0.260,0.000,0.000,0.000
1641102745717257984,2022-01-02-05:52:25,10.1.1.7,172,-0.250,-0.250,-0.250,0.000,0.000,0.000
1641102745917200128,2022-01-02-05:52:25,10.1.1.7,171,-0.240,-0.240,-0.240,0.000,0.000,0.000
1641102746117603072,2022-01-02-05:52:26,10.1.1.7,171,-0.230,-0.230,-0.230,0.000,0.000,0.000
1641102746319411968,2022-01-02-05:52:26,10.1.1.7,172,-0.220,-0.220,-0.220,0.000,0.000,0.000
1641102746518002944,2022-01-02-05:52:26,10.1.1.7,170,-0.210,-0.210,-0.210,0.000,0.000,0.000
1641102746718841088,2022-01-02-05:52:26,10.1.1.7,171,-0.200,-0.200,-0.200,0.000,0.000,0.000
1641102746915891968,2022-01-02-05:52:26,10.1.1.7,167,-0.190,-0.190,-0.190,0.000,0.000,0.000
1641102747116052992,2022-01-02-05:52:27,10.1.1.7,166,-0.180,-0.180,-0.180,0.000,0.000,0.000
1641102747316937984,2022-01-02-05:52:27,10.1.1.7,166,-0.170,-0.170,-0.170,0.000,0.000,0.000
1641102747514996992,2022-01-02-05:52:27,10.1.1.7,164,-0.160,-0.160,-0.160,0.000,0.000,0.000
1641102747716763904,2022-01-02-05:52:27,10.1.1.7,165,-0.150,-0.150,-0.150,0.000,0.000,0.000
1641102747916573952,2022-01-02-05:52:27,10.1.1.7,164,-0.140,-0.140,-0.140,0.000,0.000,0.000
1641102748116087040,2022-01-02-05:52:28,10.1.1.7,163,-0.130,-0.130,-0.130,0.000,0.000,0.000
1641102748316833024,2022-01-02-05:52:28,10.1.1.7,162,-0.120,-0.120,-0.120,0.000,0.000,0.000
1641102748520143872,2022-01-02-05:52:28,10.1.1.7,163,-0.110,-0.110,-0.110,0.000,0.000,0.000
1641102748738395904,2022-01-02-05:52:28,10.1.1.7,164,-0.100,-0.100,-0.100,0.000,0.000,0.000
1641102748938904064,2022-01-02-05:52:28,10.1.1.7,164,-0.090,-0.090,-0.090,0.000,0.000,0.000
1641102749141145856,2022-01-02-05:52:29,10.1.1.7,165,-0.080,-0.080,-0.080,0.000,0.000,0.000
1641102749340374016,2022-01-02-05:52:29,10.1.1.7,164,-0.070,-0.070,-0.070,0.000,0.000,0.000
1641102749542272000,2022-01-02-05:52:29,10.1.1.7,166,-0.060,-0.060,-0.060,0.000,0.000,0.000
1641102749747347200,2022-01-02-05:52:29,10.1.1.7,170,-0.050,-0.050,-0.050,0.000,0.000,0.000
1641102749944773888,2022-01-02-05:52:29,10.1.1.7,167,-0.040,-0.040,-0.040,0.000,0.000,0.000
1641102750147564800,2022-01-02-05:52:30,10.1.1.7,169,-0.030,-0.030,-0.030,0.000,0.000,0.000
1641102750346405888,2022-01-02-05:52:30,10.1.1.7,167,-0.020,-0.020,-0.020,0.000,0.000,0.000
1641102750548249856,2022-01-02-05:52:30,10.1.1.7,169,-0.010,-0.010,-0.010,0.000,0.000,0.000
1641102750766561024,2022-01-02-05:52:30,10.1.1.7,186,0.000,0.000,0.000,0.000,0.000,0.000
1641102750968471040,2022-01-02-05:52:30,10.1.1.7,186,-0.010,-0.010,-0.010,0.000,0.000,0.000
1641102751168587008,2022-01-02-05:52:31,10.1.1.7,185,-0.020,-0.020,-0.020,0.000,0.000,0.000
1641102751369987072,2022-01-02-05:52:31,10.1.1.7,185,-0.030,-0.030,-0.030,0.000,0.000,0.000
1641102751569318912,2022-01-02-05:52:31,10.1.1.7,183,-0.040,-0.040,-0.040,0.000,0.000,0.000
1641102751771235072,2022-01-02-05:52:31,10.1.1.7,184,-0.050,-0.050,-0.050,0.000,0.000,0.000
1641102752172780032,2022-01-02-05:52:32,10.1.1.7,179,-0.070,-0.070,-0.070,0.000,0.000,0.000
1641102752373334016,2022-01-02-05:52:32,10.1.1.7,176,-0.080,-0.080,-0.080,0.000,0.000,0.000
1641102752573924096,2022-01-02-05:52:32,10.1.1.7,178,-0.090,-0.090,-0.090,0.000,0.000,0.000
1641102752779102208,2022-01-02-05:52:32,10.1.1.7,183,-0.100,-0.100,-0.100,0.000,0.000,0.000
1641102752973321984,2022-01-02-05:52:32,10.1.1.7,176,-0.110,-0.110,-0.110,0.000,0.000,0.000
1641102753192595968,2022-01-02-05:52:33,10.1.1.7,186,-0.120,-0.120,-0.120,0.000,0.000,0.000
1641102753393982976,2022-01-02-05:52:33,10.1.1.7,187,-0.130,-0.130,-0.130,0.000,0.000,0.000
1641102753594429952,2022-01-02-05:52:33,10.1.1.7,187,-0.140,-0.140,-0.140,0.000,0.000,0.000
1641102753794958080,2022-01-02-05:52:33,10.1.1.7,187,-0.150,-0.150,-0.150,0.000,0.000,0.000
1641102753999011072,2022-01-02-05:52:33,10.1.1.7,191,-0.160,-0.160,-0.160,0.000,0.000,0.000
1641102754197746944,2022-01-02-05:52:34,10.1.1.7,189,-0.170,-0.170,-0.170,0.000,0.000,0.000
1641102754396125184,2022-01-02-05:52:34,10.1.1.7,186,-0.180,-0.180,-0.180,0.000,0.000,0.000
1641102754596306176,2022-01-02-05:52:34,10.1.1.7,186,-0.190,-0.190,-0.190,0.000,0.000,0.000
1641102754798533888,2022-01-02-05:52:34,10.1.1.7,188,-0.200,-0.200,-0.200,0.000,0.000,0.000
1641102754998574848,2022-01-02-05:52:34,10.1.1.7,187,-0.210,-0.210,-0.210,0.000,0.000,0.000
1641102755197481984,2022-01-02-05:52:35,10.1.1.7,185,-0.220,-0.220,-0.220,0.000,0.000,0.000
1641102755396985088,2022-01-02-05:52:35,10.1.1.7,184,-0.230,-0.230,-0.230,0.000,0.000,0.000
1641102755601451008,2022-01-02-05:52:35,10.1.1.7,187,-0.240,-0.240,-0.240,0.000,0.000,0.000
1641102755800466176,2022-01-02-05:52:35,10.1.1.7,185,-0.250,-0.250,-0.250,0.000,0.000,0.000
1641102755999222016,2022-01-02-05:52:35,10.1.1.7,183,-0.260,-0.260,-0.260,0.000,0.000,0.000
1641102756199316992,2022-01-02-05:52:36,10.1.1.7,182,-0.270,-0.270,-0.270,0.000,0.000,0.000
1641102756402034944,2022-01-02-05:52:36,10.1.1.7,180,-0.280,-0.280,-0.280,0.000,0.000,0.000
1641102756626925824,2022-01-02-05:52:36,10.1.1.7,204,-0.290,-0.290,-0.290,0.000,0.000,0.000
1641102756820168960,2022-01-02-05:52:36,10.1.1.7,186,-0.300,-0.300,-0.300,0.000,0.000,0.000
1641102757041793024,2022-01-02-05:52:37,10.1.1.7,198,-0.310,-0.310,-0.310,0.000,0.000,0.000
1641102757242990080,2022-01-02-05:52:37,10.1.1.7,196,-0.320,-0.320,-0.320,0.000,0.000,0.000
1641102757439567104,2022-01-02-05:52:37,10.1.1.7,191,-0.330,-0.330,-0.330,0.000,0.000,0.000
1641102757640739072,2022-01-02-05:52:37,10.1.1.7,191,-0.340,-0.340,-0.340,0.000,0.000,0.000
1641102757841449984,2022-01-02-05:52:37,10.1.1.7,191,-0.350,-0.350,-0.350,0.000,0.000,0.000
1641102758042126848,2022-01-02-05:52:38,10.1.1.7,189,-0.360,-0.360,-0.360,0.000,0.000,0.000
1641102758241923072,2022-01-02-05:52:38,10.1.1.7,187,-0.370,-0.370,-0.370,0.000,0.000,0.000
1641102758442348032,2022-01-02-05:52:38,10.1.1.7,187,-0.380,-0.380,-0.380,0.000,0.000,0.000
1641102758638878976,2022-01-02-05:52:38,10.1.1.7,182,-0.390,-0.390,-0.390,0.000,0.000,0.000
1641102758838784000,2022-01-02-05:52:38,10.1.1.7,180,-0.400,-0.400,-0.400,0.000,0.000,0.000
1641102759062309120,2022-01-02-05:52:39,10.1.1.7,200,-0.410,-0.410,-0.410,0.000,0.000,0.000
1641102759260359168,2022-01-02-05:52:39,10.1.1.7,197,-0.420,-0.420,-0.420,0.000,0.000,0.000
1641102759460339968,2022-01-02-05:52:39,10.1.1.7,196,-0.430,-0.430,-0.430,0.000,0.000,0.000
1641102759660464896,2022-01-02-05:52:39,10.1.1.7,196,-0.440,-0.440,-0.440,0.000,0.000,0.000
1641102759859714048,2022-01-02-05:52:39,10.1.1.7,194,-0.450,-0.450,-0.450,0.000,0.000,0.000
1641102760059092992,2022-01-02-05:52:40,10.1.1.7,193,-0.460,-0.460,-0.460,0.000,0.000,0.000
1641102760259694080,2022-01-02-05:52:40,10.1.1.7,190,-0.470,-0.470,-0.470,0.000,0.000,0.000
1641102760458893056,2022-01-02-05:52:40,10.1.1.7,189,-0.480,-0.480,-0.480,0.000,0.000,0.000
1641102760660676864,2022-01-02-05:52:40,10.1.1.7,190,-0.490,-0.490,-0.490,0.000,0.000,0.000
1641102760862494976,2022-01-02-05:52:40,10.1.1.7,188,-0.480,-0.480,-0.480,0.000,0.000,0.000
1641102761062364928,2022-01-02-05:52:41,10.1.1.7,189,-0.470,-0.470,-0.470,0.000,0.000,0.000
1641102761259932160,2022-01-02-05:52:41,10.1.1.7,185,-0.460,-0.460,-0.460,0.000,0.000,0.000
1641102761458690048,2022-01-02-05:52:41,10.1.1.7,183,-0.450,-0.450,-0.450,0.000,0.000,0.000
1641102761659794944,2022-01-02-05:52:41,10.1.1.7,184,-0.440,-0.440,-0.440,0.000,0.000,0.000
1641102761857726976,2022-01-02-05:52:41,10.1.1.7,181,-0.430,-0.430,-0.430,0.000,0.000,0.000
1641102762080642048,2022-01-02-05:52:42,10.1.1.7,196,-0.420,-0.420,-0.420,0.000,0.000,0.000
1641102762281692928,2022-01-02-05:52:42,10.1.1.7,200,-0.410,-0.410,-0.410,0.000,0.000,0.000
1641102762478820096,2022-01-02-05:52:42,10.1.1.7,196,-0.400,-0.400,-0.400,0.000,0.000,0.000
1641102762677601024,2022-01-02-05:52:42,10.1.1.7,194,-0.390,-0.390,-0.390,0.000,0.000,0.000
1641102762877451776,2022-01-02-05:52:42,10.1.1.7,193,-0.380,-0.380,-0.380,0.000,0.000,0.000
1641102763079153152,2022-01-02-05:52:43,10.1.1.7,193,-0.370,-0.370,-0.370,0.000,0.000,0.000
1641102763478740992,2022-01-02-05:52:43,10.1.1.7,191,-0.350,-0.350,-0.350,0.000,0.000,0.000
1641102763678169856,2022-01-02-05:52:43,10.1.1.7,190,-0.340,-0.340,-0.340,0.000,0.000,0.000
1641102763877424128,2022-01-02-05:52:43,10.1.1.7,189,-0.330,-0.330,-0.330,0.000,0.000,0.000
1641102764081152000,2022-01-02-05:52:44,10.1.1.7,190,-0.320,-0.320,-0.320,0.000,0.000,0.000
1641102764278683904,2022-01-02-05:52:44,10.1.1.7,187,-0.310,-0.310,-0.310,0.000,0.000,0.000
1641102764476936192,2022-01-02-05:52:44,10.1.1.7,186,-0.300,-0.300,-0.300,0.000,0.000,0.000
1641102764677808896,2022-01-02-05:52:44,10.1.1.7,187,-0.290,-0.290,-0.290,0.000,0.000,0.000
1641102764877480960,2022-01-02-05:52:44,10.1.1.7,185,-0.280,-0.280,-0.280,0.000,0.000,0.000
1641102765078073088,2022-01-02-05:52:45,10.1.1.7,183,-0.270,-0.270,-0.270,0.000,0.000,0.000
1641102765279192832,2022-01-02-05:52:45,10.1.1.7,185,-0.260,-0.260,-0.260,0.000,0.000,0.000
1641102765479422976,2022-01-02-05:52:45,10.1.1.7,184,-0.250,-0.250,-0.250,0.000,0.000,0.000
1641102765679565824,2022-01-02-05:52:45,10.1.1.7,180,-0.240,-0.240,-0.240,0.000,0.000,0.000
1641102765879019008,2022-01-02-05:52:45,10.1.1.7,179,-0.230,-0.230,-0.230,0.000,0.000,0.000
1641102766094942976,2022-01-02-05:52:46,10.1.1.7,194,-0.220,-0.220,-0.220,0.000,0.000,0.000
1641102766275484928,2022-01-02-05:52:46,10.1.1.7,174,-0.210,-0.210,-0.210,0.000,0.000,0.000
1641102766494191872,2022-01-02-05:52:46,10.1.1.7,191,-0.200,-0.200,-0.200,0.000,0.000,0.000
1641102766694013184,2022-01-02-05:52:46,10.1.1.7,191,-0.190,-0.190,-0.190,0.000,0.000,0.000
1641102766893323776,2022-01-02-05:52:46,10.1.1.7,189,-0.180,-0.180,-0.180,0.000,0.000,0.000
1641102767093793024,2022-01-02-05:52:47,10.1.1.7,189,-0.170,-0.170,-0.170,0.000,0.000,0.000
1641102767294912000,2022-01-02-05:52:47,10.1.1.7,189,-0.160,-0.160,-0.160,0.000,0.000,0.000
1641102767497975040,2022-01-02-05:52:47,10.1.1.7,191,-0.150,-0.150,-0.150,0.000,0.000,0.000
1641102767693059072,2022-01-02-05:52:47,10.1.1.7,186,-0.140,-0.140,-0.140,0.000,0.000,0.000
1641102767893080832,2022-01-02-05:52:47,10.1.1.7,182,-0.130,-0.130,-0.130,0.000,0.000,0.000
1641102768095580928,2022-01-02-05:52:48,10.1.1.7,183,-0.120,-0.120,-0.120,0.000,0.000,0.000
1641102768294672128,2022-01-02-05:52:48,10.1.1.7,182,-0.110,-0.110,-0.110,0.000,0.000,0.000
1641102768494204928,2022-01-02-05:52:48,10.1.1.7,180,-0.100,-0.100,-0.100,0.000,0.000,0.000
1641102768697521920,2022-01-02-05:52:48,10.1.1.7,182,-0.090,-0.090,-0.090,0.000,0.000,0.000
1641102768893783040,2022-01-02-05:52:48,10.1.1.7,178,-0.080,-0.080,-0.080,0.000,0.000,0.000
1641102769093251840,2022-01-02-05:52:49,10.1.1.7,175,-0.070,-0.070,-0.070,0.000,0.000,0.000
1641102769294370048,2022-01-02-05:52:49,10.1.1.7,176,-0.060,-0.060,-0.060,0.000,0.000,0.000
1641102769512535040,2022-01-02-05:52:49,10.1.1.7,192,-0.050,-0.050,-0.050,0.000,0.000,0.000
1641102769713160960,2022-01-02-05:52:49,10.1.1.7,192,-0.040,-0.040,-0.040,0.000,0.000,0.000
1641102769914036992,2022-01-02-05:52:49,10.1.1.7,192,-0.030,-0.030,-0.030,0.000,0.000,0.000
1641102770111321856,2022-01-02-05:52:50,10.1.1.7,188,-0.020,-0.020,-0.020,0.000,0.000,0.000
1641102770310705920,2022-01-02-05:52:50,10.1.1.7,187,-0.010,-0.010,-0.010,0.000,0.000,0.000
1641102770510208000,2022-01-02-05:52:50,10.1.1.7,186,0.000,0.000,0.000,0.000,0.000,0.000
1641102770712152064,2022-01-02-05:52:50,10.1.1.7,188,-0.010,-0.010,-0.010,0.000,0.000,0.000
1641102770908820992,2022-01-02-05:52:50,10.1.1.7,184,-0.020,-0.020,-0.020,0.000,0.000,0.000
1641102771112369152,2022-01-02-05:52:51,10.1.1.7,187,-0.030,-0.030,-0.030,0.000,0.000,0.000
1641102771309940992,2022-01-02-05:52:51,10.1.1.7,184,-0.040,-0.040,-0.040,0.000,0.000,0.000
1641102771509804032,2022-01-02-05:52:51,10.1.1.7,181,-0.050,-0.050,-0.050,0.000,0.000,0.000
1641102771710772992,2022-01-02-05:52:51,10.1.1.7,183,-0.060,-0.060,-0.060,0.000,0.000,0.000
1641102771909803008,2022-01-02-05:52:51,10.1.1.7,180,-0.070,-0.070,-0.070,0.000,0.000,0.000
1641102772109169920,2022-01-02-05:52:52,10.1.1.7,178,-0.080,-0.080,-0.080,0.000,0.000,0.000
1641102772310033152,2022-01-02-05:52:52,10.1.1.7,175,-0.090,-0.090,-0.090,0.000,0.000,0.000
1641102772506830080,2022-01-02-05:52:52,10.1.1.7,173,-0.100,-0.100,-0.100,0.000,0.000,0.000
1641102772708724992,2022-01-02-05:52:52,10.1.1.7,172,-0.110,-0.110,-0.110,0.000,0.000,0.000
1641102772907421184,2022-01-02-05:52:52,10.1.1.7,172,-0.120,-0.120,-0.120,0.000,0.000,0.000
1641102773108215040,2022-01-02-05:52:53,10.1.1.7,172,-0.130,-0.130,-0.130,0.000,0.000,0.000
1641102773305977088,2022-01-02-05:52:53,10.1.1.7,169,-0.140,-0.140,-0.140,0.000,0.000,0.000
1641102773510149888,2022-01-02-05:52:53,10.1.1.7,168,-0.150,-0.150,-0.150,0.000,0.000,0.000
1641102773705235968,2022-01-02-05:52:53,10.1.1.7,167,-0.160,-0.160,-0.160,0.000,0.000,0.000
1641102773904484096,2022-01-02-05:52:53,10.1.1.7,166,-0.170,-0.170,-0.170,0.000,0.000,0.000
1641102774105240064,2022-01-02-05:52:54,10.1.1.7,166,-0.180,-0.180,-0.180,0.000,0.000,0.000
1641102774325483008,2022-01-02-05:52:54,10.1.1.7,185,-0.190,-0.190,-0.190,0.000,0.000,0.000
1641102774525293056,2022-01-02-05:52:54,10.1.1.7,184,-0.200,-0.200,-0.200,0.000,0.000,0.000
1641102774725158912,2022-01-02-05:52:54,10.1.1.7,183,-0.210,-0.210,-0.210,0.000,0.000,0.000
1641102774923988992,2022-01-02-05:52:54,10.1.1.7,180,-0.220,-0.220,-0.220,0.000,0.000,0.000
1641102775123938048,2022-01-02-05:52:55,10.1.1.7,179,-0.230,-0.230,-0.230,0.000,0.000,0.000
1641102775330884864,2022-01-02-05:52:55,10.1.1.7,181,-0.240,-0.240,-0.240,0.000,0.000,0.000
1641102775523536896,2022-01-02-05:52:55,10.1.1.7,177,-0.250,-0.250,-0.250,0.000,0.000,0.000
1641102775723602944,2022-01-02-05:52:55,10.1.1.7,176,-0.260,-0.260,-0.260,0.000,0.000,0.000
1641102775925612032,2022-01-02-05:52:55,10.1.1.7,178,-0.270,-0.270,-0.270,0.000,0.000,0.000
1641102776125700864,2022-01-02-05:52:56,10.1.1.7,177,-0.280,-0.280,-0.280,0.000,0.000,0.000
1641102776322856960,2022-01-02-05:52:56,10.1.1.7,173,-0.290,-0.290,-0.290,0.000,0.000,0.000
1641102776522182912,2022-01-02-05:52:56,10.1.1.7,171,-0.300,-0.300,-0.300,0.000,0.000,0.000
1641102776725713920,2022-01-02-05:52:56,10.1.1.7,174,-0.310,-0.310,-0.310,0.000,0.000,0.000
1641102776920231168,2022-01-02-05:52:56,10.1.1.7,168,-0.320,-0.320,-0.320,0.000,0.000,0.000
1641102777122087936,2022-01-02-05:52:57,10.1.1.7,169,-0.330,-0.330,-0.330,0.000,0.000,0.000
1641102777320130048,2022-01-02-05:52:57,10.1.1.7,166,-0.340,-0.340,-0.340,0.000,0.000,0.000
1641102777520091136,2022-01-02-05:52:57,10.1.1.7,165,-0.350,-0.350,-0.350,0.000,0.000,0.000
1641102777721571840,2022-01-02-05:52:57,10.1.1.7,167,-0.360,-0.360,-0.360,0.000,0.000,0.000
1641102777922561024,2022-01-02-05:52:57,10.1.1.7,167,-0.370,-0.370,-0.370,0.000,0.000,0.000
1641102778141711872,2022-01-02-05:52:58,10.1.1.7,180,-0.380,-0.380,-0.380,0.000,0.000,0.000
1641102778338522880,2022-01-02-05:52:58,10.1.1.7,176,-0.390,-0.390,-0.390,0.000,0.000,0.000
1641102778541172992,2022-01-02-05:52:58,10.1.1.7,178,-0.400,-0.400,-0.400,0.000,0.000,0.000
1641102778741422848,2022-01-02-05:52:58,10.1.1.7,176,-0.410,-0.410,-0.410,0.000,0.000,0.000
1641102778937602048,2022-01-02-05:52:58,10.1.1.7,171,-0.420,-0.420,-0.420,0.000,0.000,0.000
1641102779138462976,2022-01-02-05:52:59,10.1.1.7,171,-0.430,-0.430,-0.430,0.000,0.000,0.000
1641102779337598208,2022-01-02-05:52:59,10.1.1.7,169,-0.440,-0.440,-0.440,0.000,0.000,0.000
1641102779535689984,2022-01-02-05:52:59,10.1.1.7,166,-0.450,-0.450,-0.450,0.000,0.000,0.000
1641102779737957120,2022-01-02-05:52:59,10.1.1.7,168,-0.460,-0.460,-0.460,0.000,0.000,0.000
1641102779936188928,2022-01-02-05:52:59,10.1.1.7,165,-0.470,-0.470,-0.470,0.000,0.000,0.000
1641102780139910912,2022-01-02-05:53:00,10.1.1.7,168,-0.480,-0.480,-0.480,0.000,0.000,0.000
1641102780340496128,2022-01-02-05:53:00,10.1.1.7,168,-0.490,-0.490,-0.490,0.000,0.000,0.000
1641102780538681088,2022-01-02-05:53:00,10.1.1.7,165,-0.480,-0.480,-0.480,0.000,0.000,0.000
1641102780741056000,2022-01-02-05:53:00,10.1.1.7,167,-0.470,-0.470,-0.470,0.000,0.000,0.000
1641102780942981888,2022-01-02-05:53:00,10.1.1.7,168,-0.460,-0.460,-0.460,0.000,0.000,0.000
1641102781142725888,2022-01-02-05:53:01,10.1.1.7,167,-0.450,-0.450,-0.450,0.000,0.000,0.000
1641102781342850048,2022-01-02-05:53:01,10.1.1.7,166,-0.440,-0.440,-0.440,0.000,0.000,0.000
1641102781546513152,2022-01-02-05:53:01,10.1.1.7,169,-0.430,-0.430,-0.430,0.000,0.000,0.000
1641102781744143104,2022-01-02-05:53:01,10.1.1.7,166,-0.420,-0.420,-0.420,0.000,0.000,0.000
1641102781947859968,2022-01-02-05:53:01,10.1.1.7,168,-0.410,-0.410,-0.410,0.000,0.000,0.000
1641102782167505920,2022-01-02-05:53:02,10.1.1.7,186,-0.400,-0.400,-0.400,0.000,0.000,0.000
1641102782369575936,2022-01-02-05:53:02,10.1.1.7,188,-0.390,-0.390,-0.390,0.000,0.000,0.000
1641102782570262016,2022-01-02-05:53:02,10.1.1.7,188,-0.380,-0.380,-0.380,0.000,0.000,0.000
1641102782767288064,2022-01-02-05:53:02,10.1.1.7,185,-0.370,-0.370,-0.370,0.000,0.000,0.000
1641102782971673856,2022-01-02-05:53:02,10.1.1.7,188,-0.360,-0.360,-0.360,0.000,0.000,0.000
1641102783169362944,2022-01-02-05:53:03,10.1.1.7,185,-0.350,-0.350,-0.350,0.000,0.000,0.000
1641102783370473984,2022-01-02-05:53:03,10.1.1.7,186,-0.340,-0.340,-0.340,0.000,0.000,0.000
1641102783574359040,2022-01-02-05:53:03,10.1.1.7,188,-0.330,-0.330,-0.330,0.000,0.000,0.000
1641102783773231104,2022-01-02-05:53:03,10.1.1.7,186,-0.320,-0.320,-0.320,0.000,0.000,0.000
1641102783971563008,2022-01-02-05:53:03,10.1.1.7,184,-0.310,-0.310,-0.310,0.000,0.000,0.000
1641102784174680064,2022-01-02-05:53:04,10.1.1.7,186,-0.300,-0.300,-0.300,0.000,0.000,0.000
1641102784374489088,2022-01-02-05:53:04,10.1.1.7,185,-0.290,-0.290,-0.290,0.000,0.000,0.000
1641102784578903808,2022-01-02-05:53:04,10.1.1.7,189,-0.280,-0.280,-0.280,0.000,0.000,0.000
1641102784778223872,2022-01-02-05:53:04,10.1.1.7,182,-0.270,-0.270,-0.270,0.000,0.000,0.000
1641102784976545024,2022-01-02-05:53:04,10.1.1.7,179,-0.260,-0.260,-0.260,0.000,0.000,0.000
1641102785182089984,2022-01-02-05:53:05,10.1.1.7,183,-0.250,-0.250,-0.250,0.000,0.000,0.000
1641102785396657920,2022-01-02-05:53:05,10.1.1.7,196,-0.240,-0.240,-0.240,0.000,0.000,0.000
1641102785597091840,2022-01-02-05:53:05,10.1.1.7,196,-0.230,-0.230,-0.230,0.000,0.000,0.000
1641102785800376064,2022-01-02-05:53:05,10.1.1.7,198,-0.220,-0.220,-0.220,0.000,0.000,0.000
1641102786001075968,2022-01-02-05:53:06,10.1.1.7,197,-0.210,-0.210,-0.210,0.000,0.000,0.000
1641102786198481920,2022-01-02-05:53:06,10.1.1.7,194,-0.200,-0.200,-0.200,0.000,0.000,0.000
1641102786397944832,2022-01-02-05:53:06,10.1.1.7,192,-0.190,-0.190,-0.190,0.000,0.000,0.000
1641102786600914944,2022-01-02-05:53:06,10.1.1.7,194,-0.180,-0.180,-0.180,0.000,0.000,0.000
1641102786798646016,2022-01-02-05:53:06,10.1.1.7,191,-0.170,-0.170,-0.170,0.000,0.000,0.000
1641102786997137920,2022-01-02-05:53:06,10.1.1.7,189,-0.160,-0.160,-0.160,0.000,0.000,0.000
1641102787202563072,2022-01-02-05:53:07,10.1.1.7,194,-0.150,-0.150,-0.150,0.000,0.000,0.000
1641102787400741120,2022-01-02-05:53:07,10.1.1.7,191,-0.140,-0.140,-0.140,0.000,0.000,0.000
1641102787601672960,2022-01-02-05:53:07,10.1.1.7,191,-0.130,-0.130,-0.130,0.000,0.000,0.000
1641102787800282112,2022-01-02-05:53:07,10.1.1.7,189,-0.120,-0.120,-0.120,0.000,0.000,0.000
1641102788000880128,2022-01-02-05:53:08,10.1.1.7,190,-0.110,-0.110,-0.110,0.000,0.000,0.000
1641102788200730112,2022-01-02-05:53:08,10.1.1.7,188,-0.100,-0.100,-0.100,0.000,0.000,0.000
1641102788399164928,2022-01-02-05:53:08,10.1.1.7,186,-0.090,-0.090,-0.090,0.000,0.000,0.000
1641102788603458048,2022-01-02-05:53:08,10.1.1.7,190,-0.080,-0.080,-0.080,0.000,0.000,0.000
1641102788799704064,2022-01-02-05:53:08,10.1.1.7,186,-0.070,-0.070,-0.070,0.000,0.000,0.000
1641102789001020928,2022-01-02-05:53:09,10.1.1.7,185,-0.060,-0.060,-0.060,0.000,0.000,0.000
1641102789202241792,2022-01-02-05:53:09,10.1.1.7,186,-0.050,-0.050,-0.050,0.000,0.000,0.000
1641102789400155904,2022-01-02-05:53:09,10.1.1.7,183,-0.040,-0.040,-0.040,0.000,0.000,0.000
1641102789600199936,2022-01-02-05:53:09,10.1.1.7,181,-0.030,-0.030,-0.030,0.000,0.000,0.000
1641102789821829120,2022-01-02-05:53:09,10.1.1.7,202,-0.020,-0.020,-0.020,0.000,0.000,0.000
1641102790022422016,2022-01-02-05:53:10,10.1.1.7,198,-0.010,-0.010,-0.010,0.000,0.000,0.000
1641102790219960064,2022-01-02-05:53:10,10.1.1.7,195,0.000,0.000,0.000,0.000,0.000,0.000
1641102790422189056,2022-01-02-05:53:10,10.1.1.7,196,-0.010,-0.010,-0.010,0.000,0.000,0.000
1641102790622603776,2022-01-02-05:53:10,10.1.1.7,193,-0.020,-0.020,-0.020,0.000,0.000,0.000
1641102790820388096,2022-01-02-05:53:10,10.1.1.7,190,-0.030,-0.030,-0.030,0.000,0.000,0.000
1641102791019484160,2022-01-02-05:53:11,10.1.1.7,188,-0.040,-0.040,-0.040,0.000,0.000,0.000
1641102791221414144,2022-01-02-05:53:11,10.1.1.7,189,-0.050,-0.050,-0.050,0.000,0.000,0.000
1641102791420100096,2022-01-02-05:53:11,10.1.1.7,187,-0.060,-0.060,-0.060,0.000,0.000,0.000
1641102791621954048,2022-01-02-05:53:11,10.1.1.7,188,-0.070,-0.070,-0.070,0.000,0.000,0.000
1641102791828813056,2022-01-02-05:53:11,10.1.1.7,195,-0.080,-0.080,-0.080,0.000,0.000,0.000
1641102792019237888,2022-01-02-05:53:12,10.1.1.7,184,-0.090,-0.090,-0.090,0.000,0.000,0.000
1641102792220143104,2022-01-02-05:53:12,10.1.1.7,185,-0.100,-0.100,-0.100,0.000,0.000,0.000
1641102792419941888,2022-01-02-05:53:12,10.1.1.7,184,-0.110,-0.110,-0.110,0.000,0.000,0.000
1641102792620182016,2022-01-02-05:53:12,10.1.1.7,184,-0.120,-0.120,-0.120,0.000,0.000,0.000
1641102792820427776,2022-01-02-05:53:12,10.1.1.7,184,-0.130,-0.130,-0.130,0.000,0.000,0.000
1641102793020008960,2022-01-02-05:53:13,10.1.1.7,182,-0.140,-0.140,-0.140,0.000,0.000,0.000
1641102793218550016,2022-01-02-05:53:13,10.1.1.7,179,-0.150,-0.150,-0.150,0.000,0.000,0.000
1641102793439360000,2022-01-02-05:53:13,10.1.1.7,199,-0.160,-0.160,-0.160,0.000,0.000,0.000
1641102793640635904,2022-01-02-05:53:13,10.1.1.7,199,-0.170,-0.170,-0.170,0.000,0.000,0.000
1641102793840802816,2022-01-02-05:53:13,10.1.1.7,199,-0.180,-0.180,-0.180,0.000,0.000,0.000
1641102794038906112,2022-01-02-05:53:14,10.1.1.7,196,-0.190,-0.190,-0.190,0.000,0.000,0.000
1641102794239063040,2022-01-02-05:53:14,10.1.1.7,194,-0.200,-0.200,-0.200,0.000,0.000,0.000
1641102794438735104,2022-01-02-05:53:14,10.1.1.7,193,-0.210,-0.210,-0.210,0.000,0.000,0.000
1641102794640549888,2022-01-02-05:53:14,10.1.1.7,194,-0.220,-0.220,-0.220,0.000,0.000,0.000
1641102794838648064,2022-01-02-05:53:14,10.1.1.7,192,-0.230,-0.230,-0.230,0.000,0.000,0.000
1641102795040349952,2022-01-02-05:53:15,10.1.1.7,193,-0.240,-0.240,-0.240,0.000,0.000,0.000
1641102795239300864,2022-01-02-05:53:15,10.1.1.7,191,-0.250,-0.250,-0.250,0.000,0.000,0.000
1641102795437170944,2022-01-02-05:53:15,10.1.1.7,188,-0.260,-0.260,-0.260,0.000,0.000,0.000
1641102795637569792,2022-01-02-05:53:15,10.1.1.7,188,-0.270,-0.270,-0.270,0.000,0.000,0.000
1641102795837480192,2022-01-02-05:53:15,10.1.1.7,187,-0.280,-0.280,-0.280,0.000,0.000,0.000
1641102796037727232,2022-01-02-05:53:16,10.1.1.7,187,-0.290,-0.290,-0.290,0.000,0.000,0.000
1641102796237940992,2022-01-02-05:53:16,10.1.1.7,187,-0.300,-0.300,-0.300,0.000,0.000,0.000
1641102796436610048,2022-01-02-05:53:16,10.1.1.7,185,-0.310,-0.310,-0.310,0.000,0.000,0.000
1641102796636993792,2022-01-02-05:53:16,10.1.1.7,184,-0.320,-0.320,-0.320,0.000,0.000,0.000
1641102796837244928,2022-01-02-05:53:16,10.1.1.7,184,-0.330,-0.330,-0.330,0.000,0.000,0.000
1641102797037755904,2022-01-02-05:53:17,10.1.1.7,184,-0.340,-0.340,-0.340,0.000,0.000,0.000
1641102797237090048,2022-01-02-05:53:17,10.1.1.7,182,-0.350,-0.350,-0.350,0.000,0.000,0.000
1641102797441103872,2022-01-02-05:53:17,10.1.1.7,186,-0.360,-0.360,-0.360,0.000,0.000,0.000
1641102797639472128,2022-01-02-05:53:17,10.1.1.7,184,-0.370,-0.370,-0.370,0.000,0.000,0.000
1641102797840406784,2022-01-02-05:53:17,10.1.1.7,184,-0.380,-0.380,-0.380,0.000,0.000,0.000
1641102798037617920,2022-01-02-05:53:18,10.1.1.7,180,-0.390,-0.390,-0.390,0.000,0.000,0.000
1641102798236254976,2022-01-02-05:53:18,10.1.1.7,178,-0.400,-0.400,-0.400,0.000,0.000,0.000
1641102798437287936,2022-01-02-05:53:18,10.1.1.7,178,-0.410,-0.410,-0.410,0.000,0.000,0.000
1641102798636408064,2022-01-02-05:53:18,10.1.1.7,177,-0.420,-0.420,-0.420,0.000,0.000,0.000
1641102798836573952,2022-01-02-05:53:18,10.1.1.7,176,-0.430,-0.430,-0.430,0.000,0.000,0.000
1641102799054094080,2022-01-02-05:53:19,10.1.1.7,193,-0.440,-0.440,-0.440,0.000,0.000,0.000
1641102799255880960,2022-01-02-05:53:19,10.1.1.7,194,-0.450,-0.450,-0.450,0.000,0.000,0.000
1641102799455857920,2022-01-02-05:53:19,10.1.1.7,193,-0.460,-0.460,-0.460,0.000,0.000,0.000
1641102799655364864,2022-01-02-05:53:19,10.1.1.7,192,-0.470,-0.470,-0.470,0.000,0.000,0.000
1641102799855976960,2022-01-02-05:53:19,10.1.1.7,193,-0.480,-0.480,-0.480,0.000,0.000,0.000
1641102800053831168,2022-01-02-05:53:20,10.1.1.7,190,-0.490,-0.490,-0.490,0.000,0.000,0.000
1641102800255714048,2022-01-02-05:53:20,10.1.1.7,191,-0.480,-0.480,-0.480,0.000,0.000,0.000
1641102800453460992,2022-01-02-05:53:20,10.1.1.7,188,-0.470,-0.470,-0.470,0.000,0.000,0.000
1641102800653862912,2022-01-02-05:53:20,10.1.1.7,188,-0.460,-0.460,-0.460,0.000,0.000,0.000
1641102800855515904,2022-01-02-05:53:20,10.1.1.7,189,-0.450,-0.450,-0.450,0.000,0.000,0.000
1641102801053206016,2022-01-02-05:53:21,10.1.1.7,186,-0.440,-0.440,-0.440,0.000,0.000,0.000
1641102801252952064,2022-01-02-05:53:21,10.1.1.7,185,-0.430,-0.430,-0.430,0.000,0.000,0.000
1641102801451458048,2022-01-02-05:53:21,10.1.1.7,183,-0.420,-0.420,-0.420,0.000,0.000,0.000
1641102801653296896,2022-01-02-05:53:21,10.1.1.7,184,-0.410,-0.410,-0.410,0.000,0.000,0.000
1641102801851787008,2022-01-02-05:53:21,10.1.1.7,182,-0.400,-0.400,-0.400,0.000,0.000,0.000
1641102802051983104,2022-01-02-05:53:22,10.1.1.7,181,-0.390,-0.390,-0.390,0.000,0.000,0.000
1641102802252169984,2022-01-02-05:53:22,10.1.1.7,178,-0.380,-0.380,-0.380,0.000,0.000,0.000
1641102802451144960,2022-01-02-05:53:22,10.1.1.7,176,-0.370,-0.370,-0.370,0.000,0.000,0.000
1641102802650228992,2022-01-02-05:53:22,10.1.1.7,174,-0.360,-0.360,-0.360,0.000,0.000,0.000
1641102802849522176,2022-01-02-05:53:22,10.1.1.7,173,-0.350,-0.350,-0.350,0.000,0.000,0.000
1641102803055424000,2022-01-02-05:53:23,10.1.1.7,178,-0.340,-0.340,-0.340,0.000,0.000,0.000
1641102803250494976,2022-01-02-05:53:23,10.1.1.7,172,-0.330,-0.330,-0.330,0.000,0.000,0.000
1641102803469444096,2022-01-02-05:53:23,10.1.1.7,188,-0.320,-0.320,-0.320,0.000,0.000,0.000
1641102803671683072,2022-01-02-05:53:23,10.1.1.7,189,-0.310,-0.310,-0.310,0.000,0.000,0.000
1641102803868620032,2022-01-02-05:53:23,10.1.1.7,185,-0.300,-0.300,-0.300,0.000,0.000,0.000
1641102804071088128,2022-01-02-05:53:24,10.1.1.7,187,-0.290,-0.290,-0.290,0.000,0.000,0.000
1641102804267761920,2022-01-02-05:53:24,10.1.1.7,183,-0.280,-0.280,-0.280,0.000,0.000,0.000
1641102804470038016,2022-01-02-05:53:24,10.1.1.7,184,-0.270,-0.270,-0.270,0.000,0.000,0.000
1641102804668192000,2022-01-02-05:53:24,10.1.1.7,178,-0.260,-0.260,-0.260,0.000,0.000,0.000
1641102804870093056,2022-01-02-05:53:24,10.1.1.7,179,-0.250,-0.250,-0.250,0.000,0.000,0.000
1641102805068103936,2022-01-02-05:53:25,10.1.1.7,176,-0.240,-0.240,-0.240,0.000,0.000,0.000
1641102805268791040,2022-01-02-05:53:25,10.1.1.7,176,-0.230,-0.230,-0.230,0.000,0.000,0.000
1641102805466998016,2022-01-02-05:53:25,10.1.1.7,173,-0.220,-0.220,-0.220,0.000,0.000,0.000
1641102805666571008,2022-01-02-05:53:25,10.1.1.7,172,-0.210,-0.210,-0.210,0.000,0.000,0.000
1641102805868551936,2022-01-02-05:53:25,10.1.1.7,174,-0.200,-0.200,-0.200,0.000,0.000,0.000
1641102806065131776,2022-01-02-05:53:26,10.1.1.7,170,-0.190,-0.190,-0.190,0.000,0.000,0.000
1641102806268444160,2022-01-02-05:53:26,10.1.1.7,172,-0.180,-0.180,-0.180,0.000,0.000,0.000
1641102806467184128,2022-01-02-05:53:26,10.1.1.7,170,-0.170,-0.170,-0.170,0.000,0.000,0.000
1641102806665684992,2022-01-02-05:53:26,10.1.1.7,167,-0.160,-0.160,-0.160,0.000,0.000,0.000
1641102806866913024,2022-01-02-05:53:26,10.1.1.7,166,-0.150,-0.150,-0.150,0.000,0.000,0.000
1641102807065181952,2022-01-02-05:53:27,10.1.1.7,164,-0.140,-0.140,-0.140,0.000,0.000,0.000
1641102807286061056,2022-01-02-05:53:27,10.1.1.7,186,-0.130,-0.130,-0.130,0.000,0.000,0.000
1641102807685592064,2022-01-02-05:53:27,10.1.1.7,173,-0.110,-0.110,-0.110,0.000,0.000,0.000
1641102807903563008,2022-01-02-05:53:27,10.1.1.7,184,-0.100,-0.100,-0.100,0.000,0.000,0.000
1641102808103447040,2022-01-02-05:53:28,10.1.1.7,183,-0.090,-0.090,-0.090,0.000,0.000,0.000
1641102808305305088,2022-01-02-05:53:28,10.1.1.7,178,-0.080,-0.080,-0.080,0.000,0.000,0.000
1641102808501539840,2022-01-02-05:53:28,10.1.1.7,174,-0.070,-0.070,-0.070,0.000,0.000,0.000
1641102808701136128,2022-01-02-05:53:28,10.1.1.7,173,-0.060,-0.060,-0.060,0.000,0.000,0.000
1641102808902491136,2022-01-02-05:53:28,10.1.1.7,173,-0.050,-0.050,-0.050,0.000,0.000,0.000
1641102809100538112,2022-01-02-05:53:29,10.1.1.7,170,-0.040,-0.040,-0.040,0.000,0.000,0.000
1641102809300584960,2022-01-02-05:53:29,10.1.1.7,169,-0.030,-0.030,-0.030,0.000,0.000,0.000
1641102809500334080,2022-01-02-05:53:29,10.1.1.7,168,-0.020,-0.020,-0.020,0.000,0.000,0.000
1641102809701948928,2022-01-02-05:53:29,10.1.1.7,169,-0.010,-0.010,-0.010,0.000,0.000,0.000
1641102809900940800,2022-01-02-05:53:29,10.1.1.7,168,0.000,0.000,0.000,0.000,0.000,0.000
1641102810098797056,2022-01-02-05:53:30,10.1.1.7,165,-0.010,-0.010,-0.010,0.000,0.000,0.000
1641102810302809088,2022-01-02-05:53:30,10.1.1.7,168,-0.020,-0.020,-0.020,0.000,0.000,0.000
1641102810499147008,2022-01-02-05:53:30,10.1.1.7,164,-0.030,-0.030,-0.030,0.000,0.000,0.000
1641102810701548032,2022-01-02-05:53:30,10.1.1.7,166,-0.040,-0.040,-0.040,0.000,0.000,0.000
1641102810897905152,2022-01-02-05:53:30,10.1.1.7,161,-0.050,-0.050,-0.050,0.000,0.000,0.000
1641102811098205184,2022-01-02-05:53:31,10.1.1.7,159,-0.060,-0.060,-0.060,0.000,0.000,0.000
1641102811318505984,2022-01-02-05:53:31,10.1.1.7,179,-0.070,-0.070,-0.070,0.000,0.000,0.000
1641102811517408000,2022-01-02-05:53:31,10.1.1.7,177,-0.080,-0.080,-0.080,0.000,0.000,0.000
1641102811719994112,2022-01-02-05:53:31,10.1.1.7,178,-0.090,-0.090,-0.090,0.000,0.000,0.000
1641102811916080896,2022-01-02-05:53:31,10.1.1.7,171,-0.100,-0.100,-0.100,0.000,0.000,0.000
1641102812116153856,2022-01-02-05:53:32,10.1.1.7,170,-0.110,-0.110,-0.110,0.000,0.000,0.000
1641102812314748928,2022-01-02-05:53:32,10.1.1.7,168,-0.120,-0.120,-0.120,0.000,0.000,0.000
1641102812514940928,2022-01-02-05:53:32,10.1.1.7,166,-0.130,-0.130,-0.130,0.000,0.000,0.000
1641102812716370176,2022-01-02-05:53:32,10.1.1.7,167,-0.140,-0.140,-0.140,0.000,0.000,0.000
1641102812915435008,2022-01-02-05:53:32,10.1.1.7,165,-0.150,-0.150,-0.150,0.000,0.000,0.000
1641102813117039872,2022-01-02-05:53:33,10.1.1.7,166,-0.160,-0.160,-0.160,0.000,0.000,0.000
1641102813315721984,2022-01-02-05:53:33,10.1.1.7,164,-0.170,-0.170,-0.170,0.000,0.000,0.000
1641102813517203968,2022-01-02-05:53:33,10.1.1.7,165,-0.180,-0.180,-0.180,0.000,0.000,0.000
1641102813717968896,2022-01-02-05:53:33,10.1.1.7,165,-0.190,-0.190,-0.190,0.000,0.000,0.000
1641102813919821056,2022-01-02-05:53:33,10.1.1.7,166,-0.200,-0.200,-0.200,0.000,0.000,0.000
1641102814124808960,2022-01-02-05:53:34,10.1.1.7,170,-0.210,-0.210,-0.210,0.000,0.000,0.000
1641102814322092032,2022-01-02-05:53:34,10.1.1.7,165,-0.220,-0.220,-0.220,0.000,0.000,0.000
1641102814522362880,2022-01-02-05:53:34,10.1.1.7,165,-0.230,-0.230,-0.230,0.000,0.000,0.000
1641102814725353984,2022-01-02-05:53:34,10.1.1.7,167,-0.240,-0.240,-0.240,0.000,0.000,0.000
1641102814926786048,2022-01-02-05:53:34,10.1.1.7,168,-0.250,-0.250,-0.250,0.000,0.000,0.000
1641102815125240064,2022-01-02-05:53:35,10.1.1.7,166,-0.260,-0.260,-0.260,0.000,0.000,0.000
1641102815345248000,2022-01-02-05:53:35,10.1.1.7,185,-0.270,-0.270,-0.270,0.000,0.000,0.000
1641102815545541120,2022-01-02-05:53:35,10.1.1.7,185,-0.280,-0.280,-0.280,0.000,0.000,0.000
1641102815746056192,2022-01-02-05:53:35,10.1.1.7,184,-0.290,-0.290,-0.290,0.000,0.000,0.000
1641102815950431232,2022-01-02-05:53:35,10.1.1.7,188,-0.300,-0.300,-0.300,0.000,0.000,0.000
1641102816148024064,2022-01-02-05:53:36,10.1.1.7,185,-0.310,-0.310,-0.310,0.000,0.000,0.000
1641102816350595840,2022-01-02-05:53:36,10.1.1.7,186,-0.320,-0.320,-0.320,0.000,0.000,0.000
1641102816550827008,2022-01-02-05:53:36,10.1.1.7,186,-0.330,-0.330,-0.330,0.000,0.000,0.000
1641102816749399808,2022-01-02-05:53:36,10.1.1.7,184,-0.340,-0.340,-0.340,0.000,0.000,0.000
1641102816949876992,2022-01-02-05:53:36,10.1.1.7,183,-0.350,-0.350,-0.350,0.000,0.000,0.000
1641102817149985024,2022-01-02-05:53:37,10.1.1.7,182,-0.360,-0.360,-0.360,0.000,0.000,0.000
1641102817351401216,2022-01-02-05:53:37,10.1.1.7,182,-0.370,-0.370,-0.370,0.000,0.000,0.000
1641102817551717888,2022-01-02-05:53:37,10.1.1.7,181,-0.380,-0.380,-0.380,0.000,0.000,0.000
1641102817757338112,2022-01-02-05:53:37,10.1.1.7,186,-0.390,-0.390,-0.390,0.000,0.000,0.000
1641102817953944832,2022-01-02-05:53:37,10.1.1.7,178,-0.400,-0.400,-0.400,0.000,0.000,0.000
1641102818156073984,2022-01-02-05:53:38,10.1.1.7,181,-0.410,-0.410,-0.410,0.000,0.000,0.000
1641102818355201024,2022-01-02-05:53:38,10.1.1.7,179,-0.420,-0.420,-0.420,0.000,0.000,0.000
1641102818555155968,2022-01-02-05:53:38,10.1.1.7,178,-0.430,-0.430,-0.430,0.000,0.000,0.000
1641102818757083904,2022-01-02-05:53:38,10.1.1.7,180,-0.440,-0.440,-0.440,0.000,0.000,0.000
1641102818957082112,2022-01-02-05:53:38,10.1.1.7,179,-0.450,-0.450,-0.450,0.000,0.000,0.000
1641102819155646208,2022-01-02-05:53:39,10.1.1.7,177,-0.460,-0.460,-0.460,0.000,0.000,0.000
1641102819355107072,2022-01-02-05:53:39,10.1.1.7,176,-0.470,-0.470,-0.470,0.000,0.000,0.000
1641102819781457920,2022-01-02-05:53:39,10.1.1.7,190,-0.490,-0.490,-0.490,0.000,0.000,0.000
1641102819975824128,2022-01-02-05:53:39,10.1.1.7,188,-0.480,-0.480,-0.480,0.000,0.000,0.000
1641102820188436992,2022-01-02-05:53:40,10.1.1.7,199,-0.470,-0.470,-0.470,0.000,0.000,0.000
1641102820378590976,2022-01-02-05:53:40,10.1.1.7,187,-0.460,-0.460,-0.460,0.000,0.000,0.000
1641102820579030016,2022-01-02-05:53:40,10.1.1.7,187,-0.450,-0.450,-0.450,0.000,0.000,0.000
1641102820778223104,2022-01-02-05:53:40,10.1.1.7,186,-0.440,-0.440,-0.440,0.000,0.000,0.000
1641102820980647168,2022-01-02-05:53:40,10.1.1.7,187,-0.430,-0.430,-0.430,0.000,0.000,0.000
1641102821178956032,2022-01-02-05:53:41,10.1.1.7,185,-0.420,-0.420,-0.420,0.000,0.000,0.000
1641102821379607808,2022-01-02-05:53:41,10.1.1.7,185,-0.410,-0.410,-0.410,0.000,0.000,0.000
1641102821579505920,2022-01-02-05:53:41,10.1.1.7,185,-0.400,-0.400,-0.400,0.000,0.000,0.000
1641102821778631936,2022-01-02-05:53:41,10.1.1.7,183,-0.390,-0.390,-0.390,0.000,0.000,0.000
1641102821993860096,2022-01-02-05:53:41,10.1.1.7,198,-0.380,-0.380,-0.380,0.000,0.000,0.000
1641102822178801152,2022-01-02-05:53:42,10.1.1.7,182,-0.370,-0.370,-0.370,0.000,0.000,0.000
1641102822399403008,2022-01-02-05:53:42,10.1.1.7,189,-0.360,-0.360,-0.360,0.000,0.000,0.000
1641102822600297984,2022-01-02-05:53:42,10.1.1.7,190,-0.350,-0.350,-0.350,0.000,0.000,0.000
1641102822799264000,2022-01-02-05:53:42,10.1.1.7,188,-0.340,-0.340,-0.340,0.000,0.000,0.000
1641102823001691136,2022-01-02-05:53:43,10.1.1.7,190,-0.330,-0.330,-0.330,0.000,0.000,0.000
1641102823199866112,2022-01-02-05:53:43,10.1.1.7,188,-0.320,-0.320,-0.320,0.000,0.000,0.000
1641102823398511872,2022-01-02-05:53:43,10.1.1.7,186,-0.310,-0.310,-0.310,0.000,0.000,0.000
1641102823597734912,2022-01-02-05:53:43,10.1.1.7,185,-0.300,-0.300,-0.300,0.000,0.000,0.000
1641102823799499008,2022-01-02-05:53:43,10.1.1.7,184,-0.290,-0.290,-0.290,0.000,0.000,0.000
1641102824001372928,2022-01-02-05:53:44,10.1.1.7,187,-0.280,-0.280,-0.280,0.000,0.000,0.000
1641102824197680896,2022-01-02-05:53:44,10.1.1.7,183,-0.270,-0.270,-0.270,0.000,0.000,0.000
1641102824398258944,2022-01-02-05:53:44,10.1.1.7,183,-0.260,-0.260,-0.260,0.000,0.000,0.000
1641102824598411008,2022-01-02-05:53:44,10.1.1.7,183,-0.250,-0.250,-0.250,0.000,0.000,0.000
1641102824800910848,2022-01-02-05:53:44,10.1.1.7,184,-0.240,-0.240,-0.240,0.000,0.000,0.000
1641102824998162944,2022-01-02-05:53:44,10.1.1.7,181,-0.230,-0.230,-0.230,0.000,0.000,0.000
1641102825201699072,2022-01-02-05:53:45,10.1.1.7,181,-0.220,-0.220,-0.220,0.000,0.000,0.000
1641102825419369984,2022-01-02-05:53:45,10.1.1.7,199,-0.210,-0.210,-0.210,0.000,0.000,0.000
1641102825617381120,2022-01-02-05:53:45,10.1.1.7,197,-0.200,-0.200,-0.200,0.000,0.000,0.000
1641102825799383040,2022-01-02-05:53:45,10.1.1.7,178,-0.190,-0.190,-0.190,0.000,0.000,0.000
1641102826019715072,2022-01-02-05:53:46,10.1.1.7,197,-0.180,-0.180,-0.180,0.000,0.000,0.000
1641102826221550848,2022-01-02-05:53:46,10.1.1.7,198,-0.170,-0.170,-0.170,0.000,0.000,0.000
1641102826416873984,2022-01-02-05:53:46,10.1.1.7,192,-0.160,-0.160,-0.160,0.000,0.000,0.000
1641102826619270912,2022-01-02-05:53:46,10.1.1.7,192,-0.150,-0.150,-0.150,0.000,0.000,0.000
1641102826818721024,2022-01-02-05:53:46,10.1.1.7,189,-0.140,-0.140,-0.140,0.000,0.000,0.000
1641102827016958976,2022-01-02-05:53:47,10.1.1.7,186,-0.130,-0.130,-0.130,0.000,0.000,0.000
1641102827216336128,2022-01-02-05:53:47,10.1.1.7,184,-0.120,-0.120,-0.120,0.000,0.000,0.000
1641102827418699008,2022-01-02-05:53:47,10.1.1.7,186,-0.110,-0.110,-0.110,0.000,0.000,0.000
1641102827616777984,2022-01-02-05:53:47,10.1.1.7,183,-0.100,-0.100,-0.100,0.000,0.000,0.000
1641102827817349888,2022-01-02-05:53:47,10.1.1.7,183,-0.090,-0.090,-0.090,0.000,0.000,0.000
1641102828019924992,2022-01-02-05:53:48,10.1.1.7,184,-0.080,-0.080,-0.080,0.000,0.000,0.000
1641102828236035072,2022-01-02-05:53:48,10.1.1.7,195,-0.070,-0.070,-0.070,0.000,0.000,0.000
1641102828638725888,2022-01-02-05:53:48,10.1.1.7,196,-0.050,-0.050,-0.050,0.000,0.000,0.000
1641102828835910144,2022-01-02-05:53:48,10.1.1.7,192,-0.040,-0.040,-0.040,0.000,0.000,0.000
1641102829036637184,2022-01-02-05:53:49,10.1.1.7,192,-0.030,-0.030,-0.030,0.000,0.000,0.000
1641102829235488000,2022-01-02-05:53:49,10.1.1.7,190,-0.020,-0.020,-0.020,0.000,0.000,0.000
1641102829436358912,2022-01-02-05:53:49,10.1.1.7,190,-0.010,-0.010,-0.010,0.000,0.000,0.000
1641102829634917888,2022-01-02-05:53:49,10.1.1.7,187,0.000,0.000,0.000,0.000,0.000,0.000
1641102829836482048,2022-01-02-05:53:49,10.1.1.7,188,-0.010,-0.010,-0.010,0.000,0.000,0.000
1641102830036796928,2022-01-02-05:53:50,10.1.1.7,188,-0.020,-0.020,-0.020,0.000,0.000,0.000
1641102830236131072,2022-01-02-05:53:50,10.1.1.7,186,-0.030,-0.030,-0.030,0.000,0.000,0.000
1641102830436732160,2022-01-02-05:53:50,10.1.1.7,187,-0.040,-0.040,-0.040,0.000,0.000,0.000
1641102830644183040,2022-01-02-05:53:50,10.1.1.7,193,-0.050,-0.050,-0.050,0.000,0.000,0.000
1641102830836649984,2022-01-02-05:53:50,10.1.1.7,184,-0.060,-0.060,-0.060,0.000,0.000,0.000
1641102831036748800,2022-01-02-05:53:51,10.1.1.7,181,-0.070,-0.070,-0.070,0.000,0.000,0.000
1641102831235787008,2022-01-02-05:53:51,10.1.1.7,179,-0.080,-0.080,-0.080,0.000,0.000,0.000
1641102831434676992,2022-01-02-05:53:51,10.1.1.7,175,-0.090,-0.090,-0.090,0.000,0.000,0.000
1641102831654330112,2022-01-02-05:53:51,10.1.1.7,193,-0.100,-0.100,-0.100,0.000,0.000,0.000
1641102831855963904,2022-01-02-05:53:51,10.1.1.7,195,-0.110,-0.110,-0.110,0.000,0.000,0.000
1641102832055254016,2022-01-02-05:53:52,10.1.1.7,194,-0.120,-0.120,-0.120,0.000,0.000,0.000
1641102832254710016,2022-01-02-05:53:52,10.1.1.7,192,-0.130,-0.130,-0.130,0.000,0.000,0.000
1641102832453673984,2022-01-02-05:53:52,10.1.1.7,190,-0.140,-0.140,-0.140,0.000,0.000,0.000
1641102832653639168,2022-01-02-05:53:52,10.1.1.7,188,-0.150,-0.150,-0.150,0.000,0.000,0.000
1641102832852182016,2022-01-02-05:53:52,10.1.1.7,186,-0.160,-0.160,-0.160,0.000,0.000,0.000
