FedericoMungari/DigitalTwin_service/Output/Output_script/script_ROSAPI_output_robots8_freq0_6.txt
timestamp,date,node,latency,joint_1,joint_2,joint_3,joint_4,joint_5,joint_6
1640670572063070976,2021-12-28-05:49:32,10.1.1.7,1640670572062.884,-0.000,-0.000,-0.000,-0.000,-0.000,-0.000
1640670576059577856,2021-12-28-05:49:36,10.1.1.7,13,-0.000,-0.000,-0.000,-0.000,-0.000,-0.000
1640670578077810176,2021-12-28-05:49:38,10.1.1.7,6,-0.000,-0.000,-0.000,-0.000,-0.000,-0.000
1640670580097637888,2021-12-28-05:49:40,10.1.1.7,3,-0.000,-0.000,-0.000,-0.000,-0.000,-0.000
1640670582254078976,2021-12-28-05:49:42,10.1.1.7,9,-0.000,-0.000,-0.000,-0.000,-0.000,-0.000
1640670584385099008,2021-12-28-05:49:44,10.1.1.7,0,-0.000,-0.000,-0.000,-0.000,-0.000,-0.000
1640670586548916992,2021-12-28-05:49:46,10.1.1.7,17,-0.000,-0.000,-0.000,-0.000,-0.000,-0.000
1640670588582397952,2021-12-28-05:49:48,10.1.1.7,5,-0.000,-0.000,-0.000,-0.000,-0.000,-0.000
1640670590619680768,2021-12-28-05:49:50,10.1.1.7,10,-0.000,-0.000,-0.000,-0.000,-0.000,-0.000
1640670592695430912,2021-12-28-05:49:52,10.1.1.7,13,-0.000,-0.000,-0.000,-0.000,-0.000,-0.000
1640670594692488960,2021-12-28-05:49:54,10.1.1.7,3,-0.000,-0.000,-0.000,-0.000,-0.000,-0.000
1640670596768912128,2021-12-28-05:49:56,10.1.1.7,14,-0.000,-0.000,-0.000,-0.000,-0.000,-0.000
1640670598825767168,2021-12-28-05:49:58,10.1.1.7,7,-0.000,-0.000,-0.000,-0.000,-0.000,-0.000
1640670600861830912,2021-12-28-05:50:00,10.1.1.7,1,-0.000,-0.000,-0.000,-0.000,-0.000,-0.000
1640670602938659840,2021-12-28-05:50:02,10.1.1.7,2,-0.000,-0.000,-0.000,-0.000,-0.000,-0.000
1640670605014612992,2021-12-28-05:50:05,10.1.1.7,15,-0.000,-0.000,-0.000,-0.000,-0.000,-0.000
1640670607111627008,2021-12-28-05:50:07,10.1.1.7,3,-0.000,-0.000,-0.000,-0.000,-0.000,-0.000
1640670609167865088,2021-12-28-05:50:09,10.1.1.7,6,-0.000,-0.000,-0.000,-0.000,-0.000,-0.000
1640670611243990016,2021-12-28-05:50:11,10.1.1.7,10,-0.000,-0.000,-0.000,-0.000,-0.000,-0.000
1640670613261532928,2021-12-28-05:50:13,10.1.1.7,3,-0.000,-0.000,-0.000,-0.000,-0.000,-0.000
1640670615397851904,2021-12-28-05:50:15,10.1.1.7,6,-0.000,-0.000,-0.000,-0.000,-0.000,-0.000
1640670617433975808,2021-12-28-05:50:17,10.1.1.7,13,-0.000,-0.000,-0.000,-0.000,-0.000,-0.000
1640670619490638848,2021-12-28-05:50:19,10.1.1.7,10,-0.000,-0.000,-0.000,-0.000,-0.000,-0.000
1640670621527312128,2021-12-28-05:50:21,10.1.1.7,11,-0.000,-0.000,-0.000,-0.000,-0.000,-0.000
1640670623643624960,2021-12-28-05:50:23,10.1.1.7,19,-0.000,-0.000,-0.000,-0.000,-0.000,-0.000
1640670625681438976,2021-12-28-05:50:25,10.1.1.7,4,-0.000,-0.000,-0.000,-0.000,-0.000,-0.000
1640670627715811840,2021-12-28-05:50:27,10.1.1.7,1,-0.000,-0.000,-0.000,-0.000,-0.000,-0.000
1640670629782812160,2021-12-28-05:50:29,10.1.1.7,7,-0.000,-0.000,-0.000,-0.000,-0.000,-0.000
1640670631828294144,2021-12-28-05:50:31,10.1.1.7,5,-0.000,-0.000,-0.000,-0.000,-0.000,-0.000
1640670633852212992,2021-12-28-05:50:33,10.1.1.7,3,-0.000,-0.000,-0.000,-0.000,-0.000,-0.000
1640670635893559808,2021-12-28-05:50:35,10.1.1.7,19,-0.000,-0.000,-0.000,-0.000,-0.000,-0.000
1640670637956235776,2021-12-28-05:50:37,10.1.1.7,11,-0.000,-0.000,-0.000,-0.000,-0.000,-0.000
1640670640034439168,2021-12-28-05:50:40,10.1.1.7,18,-0.000,-0.000,-0.000,-0.000,-0.000,-0.000
1640670642094897920,2021-12-28-05:50:42,10.1.1.7,10,-0.000,-0.000,-0.000,-0.000,-0.000,-0.000
1640670644131560192,2021-12-28-05:50:44,10.1.1.7,18,-0.000,-0.000,-0.000,-0.000,-0.000,-0.000
1640670646129170944,2021-12-28-05:50:46,10.1.1.7,7,-0.000,-0.000,-0.000,-0.000,-0.000,-0.000
1640670648206859008,2021-12-28-05:50:48,10.1.1.7,17,-0.000,-0.000,-0.000,-0.000,-0.000,-0.000
1640670650244611072,2021-12-28-05:50:50,10.1.1.7,4,-0.000,-0.000,-0.000,-0.000,-0.000,-0.000
1640670652381042944,2021-12-28-05:50:52,10.1.1.7,14,-0.000,-0.000,-0.000,-0.000,-0.000,-0.000
1640670654400572160,2021-12-28-05:50:54,10.1.1.7,4,-0.000,-0.000,-0.000,-0.000,-0.000,-0.000
1640670656451339008,2021-12-28-05:50:56,10.1.1.7,15,-0.000,-0.000,-0.000,-0.000,-0.000,-0.000
1640670658478089984,2021-12-28-05:50:58,10.1.1.7,11,-0.000,-0.000,-0.000,-0.000,-0.000,-0.000
1640670660562066176,2021-12-28-05:51:00,10.1.1.7,18,-0.000,-0.000,-0.000,-0.000,-0.000,-0.000
1640670662623791872,2021-12-28-05:51:02,10.1.1.7,10,-0.000,-0.000,-0.000,-0.000,-0.000,-0.000
1640670664745058048,2021-12-28-05:51:04,10.1.1.7,8,-0.000,-0.000,-0.000,-0.000,-0.000,-0.000
1640670666804557056,2021-12-28-05:51:06,10.1.1.7,9,-0.000,-0.000,-0.000,-0.000,-0.000,-0.000
1640670668844054016,2021-12-28-05:51:08,10.1.1.7,9,-0.000,-0.000,-0.000,-0.000,-0.000,-0.000
1640670670921667072,2021-12-28-05:51:10,10.1.1.7,15,-0.000,-0.000,-0.000,-0.000,-0.000,-0.000
1640670673008424960,2021-12-28-05:51:12,10.1.1.7,20,-0.000,-0.000,-0.000,-0.000,-0.000,-0.000
1640670675097927168,2021-12-28-05:51:15,10.1.1.7,3,-0.000,-0.000,-0.000,-0.000,-0.000,-0.000
1640670677135479040,2021-12-28-05:51:17,10.1.1.7,9,-0.000,-0.000,-0.000,-0.000,-0.000,-0.000
1640670679212057088,2021-12-28-05:51:19,10.1.1.7,16,-0.000,-0.000,-0.000,-0.000,-0.000,-0.000
1640670681288763136,2021-12-28-05:51:21,10.1.1.7,7,-0.000,-0.000,-0.000,-0.000,-0.000,-0.000
1640670683346551808,2021-12-28-05:51:23,10.1.1.7,17,-0.000,-0.000,-0.000,-0.000,-0.000,-0.000
1640670685364154112,2021-12-28-05:51:25,10.1.1.7,11,-0.000,-0.000,-0.000,-0.000,-0.000,-0.000
1640670687401485056,2021-12-28-05:51:27,10.1.1.7,16,-0.000,-0.000,-0.000,-0.000,-0.000,-0.000
1640670689471072000,2021-12-28-05:51:29,10.1.1.7,16,-0.000,-0.000,-0.000,-0.000,-0.000,-0.000
1640670691577555968,2021-12-28-05:51:31,10.1.1.7,7,-0.000,-0.000,-0.000,-0.000,-0.000,-0.000
1640670693701195008,2021-12-28-05:51:33,10.1.1.7,11,-0.000,-0.000,-0.000,-0.000,-0.000,-0.000
1640670695723220224,2021-12-28-05:51:35,10.1.1.7,12,-0.000,-0.000,-0.000,-0.000,-0.000,-0.000
1640670697744137984,2021-12-28-05:51:37,10.1.1.7,3,-0.000,-0.000,-0.000,-0.000,-0.000,-0.000
1640670699783795968,2021-12-28-05:51:39,10.1.1.7,17,-0.000,-0.000,-0.000,-0.000,-0.000,-0.000
1640670701805587968,2021-12-28-05:51:41,10.1.1.7,12,-0.000,-0.000,-0.000,-0.000,-0.000,-0.000
1640670703821361152,2021-12-28-05:51:43,10.1.1.7,3,-0.000,-0.000,-0.000,-0.000,-0.000,-0.000
1640670705859875072,2021-12-28-05:51:45,10.1.1.7,2,-0.000,-0.000,-0.000,-0.000,-0.000,-0.000
1640670707956720128,2021-12-28-05:51:47,10.1.1.7,8,-0.000,-0.000,-0.000,-0.000,-0.000,-0.000
1640670710013959936,2021-12-28-05:51:50,10.1.1.7,5,-0.000,-0.000,-0.000,-0.000,-0.000,-0.000
1640670712070683904,2021-12-28-05:51:52,10.1.1.7,3,-0.000,-0.000,-0.000,-0.000,-0.000,-0.000
1640670714187955968,2021-12-28-05:51:54,10.1.1.7,19,-0.000,-0.000,-0.000,-0.000,-0.000,-0.000
1640670716244443904,2021-12-28-05:51:56,10.1.1.7,10,-0.000,-0.000,-0.000,-0.000,-0.000,-0.000
1640670718320587008,2021-12-28-05:51:58,10.1.1.7,9,-0.000,-0.000,-0.000,-0.000,-0.000,-0.000
1640670720368151040,2021-12-28-05:52:00,10.1.1.7,4,-0.000,-0.000,-0.000,-0.000,-0.000,-0.000
1640670722435833856,2021-12-28-05:52:02,10.1.1.7,15,-0.000,-0.000,-0.000,-0.000,-0.000,-0.000
1640670724499929856,2021-12-28-05:52:04,10.1.1.7,14,-0.000,-0.000,-0.000,-0.000,-0.000,-0.000
1640670726583067904,2021-12-28-05:52:06,10.1.1.7,19,-0.000,-0.000,-0.000,-0.000,-0.000,-0.000
1640670728645006848,2021-12-28-05:52:08,10.1.1.7,12,-0.000,-0.000,-0.000,-0.000,-0.000,-0.000
1640670730664087040,2021-12-28-05:52:10,10.1.1.7,7,-0.000,-0.000,-0.000,-0.000,-0.000,-0.000
1640670732763238912,2021-12-28-05:52:12,10.1.1.7,15,-0.000,-0.000,-0.000,-0.000,-0.000,-0.000
1640670734803251968,2021-12-28-05:52:14,10.1.1.7,12,-0.000,-0.000,-0.000,-0.000,-0.000,-0.000
1640670736861020160,2021-12-28-05:52:16,10.1.1.7,0,-0.000,-0.000,-0.000,-0.000,-0.000,-0.000
1640670738938759936,2021-12-28-05:52:18,10.1.1.7,12,-0.000,-0.000,-0.000,-0.000,-0.000,-0.000
1640670741015988224,2021-12-28-05:52:21,10.1.1.7,15,-0.000,-0.000,-0.000,-0.000,-0.000,-0.000
1640670743093458944,2021-12-28-05:52:23,10.1.1.7,11,-0.000,-0.000,-0.000,-0.000,-0.000,-0.000
1640670745149957888,2021-12-28-05:52:25,10.1.1.7,3,-0.000,-0.000,-0.000,-0.000,-0.000,-0.000
1640670747287599104,2021-12-28-05:52:27,10.1.1.7,16,-0.000,-0.000,-0.000,-0.000,-0.000,-0.000
1640670749323364096,2021-12-28-05:52:29,10.1.1.7,18,-0.000,-0.000,-0.000,-0.000,-0.000,-0.000
1640670751362350848,2021-12-28-05:52:31,10.1.1.7,8,-0.000,-0.000,-0.000,-0.000,-0.000,-0.000
1640670753391674880,2021-12-28-05:52:33,10.1.1.7,1,-0.000,-0.000,-0.000,-0.000,-0.000,-0.000
1640670755418450944,2021-12-28-05:52:35,10.1.1.7,16,-0.000,-0.000,-0.000,-0.000,-0.000,-0.000
1640670757542644992,2021-12-28-05:52:37,10.1.1.7,15,-0.000,-0.000,-0.000,-0.000,-0.000,-0.000
1640670759603984128,2021-12-28-05:52:39,10.1.1.7,1,-0.000,-0.000,-0.000,-0.000,-0.000,-0.000
1640670761705310208,2021-12-28-05:52:41,10.1.1.7,17,-0.000,-0.000,-0.000,-0.000,-0.000,-0.000
1640670763765181184,2021-12-28-05:52:43,10.1.1.7,16,-0.000,-0.000,-0.000,-0.000,-0.000,-0.000
1640670765844014848,2021-12-28-05:52:45,10.1.1.7,5,-0.000,-0.000,-0.000,-0.000,-0.000,-0.000
1640670767898134016,2021-12-28-05:52:47,10.1.1.7,1,-0.000,-0.000,-0.000,-0.000,-0.000,-0.000
1640670770059887872,2021-12-28-05:52:50,10.1.1.7,18,-0.000,-0.000,-0.000,-0.000,-0.000,-0.000
1640670772137146880,2021-12-28-05:52:52,10.1.1.7,5,-0.000,-0.000,-0.000,-0.000,-0.000,-0.000
1640670774154691840,2021-12-28-05:52:54,10.1.1.7,1,-0.000,-0.000,-0.000,-0.000,-0.000,-0.000
1640670776212006144,2021-12-28-05:52:56,10.1.1.7,7,-0.000,-0.000,-0.000,-0.000,-0.000,-0.000
1640670778268690176,2021-12-28-05:52:58,10.1.1.7,6,-0.000,-0.000,-0.000,-0.000,-0.000,-0.000
1640670780325608960,2021-12-28-05:53:00,10.1.1.7,8,-0.000,-0.000,-0.000,-0.000,-0.000,-0.000
1640670782422440960,2021-12-28-05:53:02,10.1.1.7,5,-0.000,-0.000,-0.000,-0.000,-0.000,-0.000
1640670784488876032,2021-12-28-05:53:04,10.1.1.7,12,-0.000,-0.000,-0.000,-0.000,-0.000,-0.000
1640670786537412864,2021-12-28-05:53:06,10.1.1.7,17,-0.000,-0.000,-0.000,-0.000,-0.000,-0.000
1640670788623100160,2021-12-28-05:53:08,10.1.1.7,7,-0.000,-0.000,-0.000,-0.000,-0.000,-0.000
1640670790686256896,2021-12-28-05:53:10,10.1.1.7,1,-0.000,-0.000,-0.000,-0.000,-0.000,-0.000
1640670792748246016,2021-12-28-05:53:12,10.1.1.7,16,-0.000,-0.000,-0.000,-0.000,-0.000,-0.000
1640670794807657984,2021-12-28-05:53:14,10.1.1.7,19,-0.000,-0.000,-0.000,-0.000,-0.000,-0.000
1640670796827356160,2021-12-28-05:53:16,10.1.1.7,14,-0.000,-0.000,-0.000,-0.000,-0.000,-0.000
1640670799006829056,2021-12-28-05:53:19,10.1.1.7,17,-0.000,-0.000,-0.000,-0.000,-0.000,-0.000
1640670801044442880,2021-12-28-05:53:21,10.1.1.7,10,-0.000,-0.000,-0.000,-0.000,-0.000,-0.000
1640670803229913088,2021-12-28-05:53:23,10.1.1.7,32,-0.000,-0.000,-0.000,-0.000,-0.000,-0.000
1640670805378892032,2021-12-28-05:53:25,10.1.1.7,17,-0.000,-0.000,-0.000,-0.000,-0.000,-0.000
1640670807415963904,2021-12-28-05:53:27,10.1.1.7,9,-0.000,-0.000,-0.000,-0.000,-0.000,-0.000
1640670809513195008,2021-12-28-05:53:29,10.1.1.7,16,-0.000,-0.000,-0.000,-0.000,-0.000,-0.000
1640670811611500032,2021-12-28-05:53:31,10.1.1.7,12,-0.000,-0.000,-0.000,-0.000,-0.000,-0.000
1640670813646668032,2021-12-28-05:53:33,10.1.1.7,9,-0.000,-0.000,-0.000,-0.000,-0.000,-0.000
1640670815683675136,2021-12-28-05:53:35,10.1.1.7,11,-0.000,-0.000,-0.000,-0.000,-0.000,-0.000
1640670817790872064,2021-12-28-05:53:37,10.1.1.7,5,-0.000,-0.000,-0.000,-0.000,-0.000,-0.000
1640670819837768960,2021-12-28-05:53:39,10.1.1.7,12,-0.000,-0.000,-0.000,-0.000,-0.000,-0.000
1640670821881372928,2021-12-28-05:53:41,10.1.1.7,8,-0.000,-0.000,-0.000,-0.000,-0.000,-0.000
1640670824064690944,2021-12-28-05:53:44,10.1.1.7,7,-0.000,-0.000,-0.000,-0.000,-0.000,-0.000
1640670826165744896,2021-12-28-05:53:46,10.1.1.7,3,-0.000,-0.000,-0.000,-0.000,-0.000,-0.000
1640670828225985024,2021-12-28-05:53:48,10.1.1.7,11,-0.000,-0.000,-0.000,-0.000,-0.000,-0.000
1640670830324242176,2021-12-28-05:53:50,10.1.1.7,5,-0.000,-0.000,-0.000,-0.000,-0.000,-0.000
1640670832382692096,2021-12-28-05:53:52,10.1.1.7,10,-0.000,-0.000,-0.000,-0.000,-0.000,-0.000
1640670834400039936,2021-12-28-05:53:54,10.1.1.7,10,-0.000,-0.000,-0.000,-0.000,-0.000,-0.000
1640670836537831936,2021-12-28-05:53:56,10.1.1.7,17,-0.000,-0.000,-0.000,-0.000,-0.000,-0.000
1640670838575457024,2021-12-28-05:53:58,10.1.1.7,6,-0.000,-0.000,-0.000,-0.000,-0.000,-0.000
1640670840593041920,2021-12-28-05:54:00,10.1.1.7,10,-0.000,-0.000,-0.000,-0.000,-0.000,-0.000
1640670842630878976,2021-12-28-05:54:02,10.1.1.7,10,-0.000,-0.000,-0.000,-0.000,-0.000,-0.000
1640670844706397184,2021-12-28-05:54:04,10.1.1.7,9,-0.000,-0.000,-0.000,-0.000,-0.000,-0.000
1640670846742942976,2021-12-28-05:54:06,10.1.1.7,6,-0.000,-0.000,-0.000,-0.000,-0.000,-0.000
1640670848825577984,2021-12-28-05:54:08,10.1.1.7,9,-0.000,-0.000,-0.000,-0.000,-0.000,-0.000
1640670850934305792,2021-12-28-05:54:10,10.1.1.7,18,-0.000,-0.000,-0.000,-0.000,-0.000,-0.000
1640670853040352000,2021-12-28-05:54:13,10.1.1.7,4,-0.000,-0.000,-0.000,-0.000,-0.000,-0.000
1640670855124023808,2021-12-28-05:54:15,10.1.1.7,8,-0.000,-0.000,-0.000,-0.000,-0.000,-0.000
1640670857206057984,2021-12-28-05:54:17,10.1.1.7,7,-0.000,-0.000,-0.000,-0.000,-0.000,-0.000
1640670859327143936,2021-12-28-05:54:19,10.1.1.7,14,-0.000,-0.000,-0.000,-0.000,-0.000,-0.000
1640670861406428160,2021-12-28-05:54:21,10.1.1.7,0,-0.000,-0.000,-0.000,-0.000,-0.000,-0.000
1640670863524228096,2021-12-28-05:54:23,10.1.1.7,10,-0.000,-0.000,-0.000,-0.000,-0.000,-0.000
1640670865584502016,2021-12-28-05:54:25,10.1.1.7,2,-0.000,-0.000,-0.000,-0.000,-0.000,-0.000
1640670867622076928,2021-12-28-05:54:27,10.1.1.7,9,-0.000,-0.000,-0.000,-0.000,-0.000,-0.000
1640670869659185920,2021-12-28-05:54:29,10.1.1.7,1,-0.000,-0.000,-0.000,-0.000,-0.000,-0.000
1640670871775849216,2021-12-28-05:54:31,10.1.1.7,9,-0.000,-0.000,-0.000,-0.000,-0.000,-0.000
1640670873872598016,2021-12-28-05:54:33,10.1.1.7,6,-0.000,-0.000,-0.000,-0.000,-0.000,-0.000
1640670875910635008,2021-12-28-05:54:35,10.1.1.7,2,-0.000,-0.000,-0.000,-0.000,-0.000,-0.000
1640670878145708032,2021-12-28-05:54:38,10.1.1.7,4,-0.000,-0.000,-0.000,-0.000,-0.000,-0.000
1640670880243941120,2021-12-28-05:54:40,10.1.1.7,19,-0.000,-0.000,-0.000,-0.000,-0.000,-0.000
1640670882313334016,2021-12-28-05:54:42,10.1.1.7,10,-0.000,-0.000,-0.000,-0.000,-0.000,-0.000
1640670884340715008,2021-12-28-05:54:44,10.1.1.7,18,-0.000,-0.000,-0.000,-0.000,-0.000,-0.000
1640670886424130816,2021-12-28-05:54:46,10.1.1.7,14,-0.000,-0.000,-0.000,-0.000,-0.000,-0.000
1640670888566209024,2021-12-28-05:54:48,10.1.1.7,11,-0.000,-0.000,-0.000,-0.000,-0.000,-0.000
1640670890607460864,2021-12-28-05:54:50,10.1.1.7,10,-0.000,-0.000,-0.000,-0.000,-0.000,-0.000
1640670892625945088,2021-12-28-05:54:52,10.1.1.7,6,-0.000,-0.000,-0.000,-0.000,-0.000,-0.000
1640670894724637952,2021-12-28-05:54:54,10.1.1.7,6,-0.000,-0.000,-0.000,-0.000,-0.000,-0.000
1640670896883456000,2021-12-28-05:54:56,10.1.1.7,15,-0.000,-0.000,-0.000,-0.000,-0.000,-0.000
1640670898940825088,2021-12-28-05:54:58,10.1.1.7,3,-0.000,-0.000,-0.000,-0.000,-0.000,-0.000
1640670900978816000,2021-12-28-05:55:00,10.1.1.7,14,-0.000,-0.000,-0.000,-0.000,-0.000,-0.000
1640670903056582912,2021-12-28-05:55:03,10.1.1.7,14,-0.000,-0.000,-0.000,-0.000,-0.000,-0.000
1640670905112921856,2021-12-28-05:55:05,10.1.1.7,12,-0.000,-0.000,-0.000,-0.000,-0.000,-0.000
1640670907154017024,2021-12-28-05:55:07,10.1.1.7,0,-0.000,-0.000,-0.000,-0.000,-0.000,-0.000
1640670909306077952,2021-12-28-05:55:09,10.1.1.7,9,-0.000,-0.000,-0.000,-0.000,-0.000,-0.000
1640670911442949120,2021-12-28-05:55:11,10.1.1.7,0,-0.000,-0.000,-0.000,-0.000,-0.000,-0.000
1640670913510701056,2021-12-28-05:55:13,10.1.1.7,3,-0.000,-0.000,-0.000,-0.000,-0.000,-0.000
1640670915559127040,2021-12-28-05:55:15,10.1.1.7,1,-0.000,-0.000,-0.000,-0.000,-0.000,-0.000
1640670917624037120,2021-12-28-05:55:17,10.1.1.7,4,-0.000,-0.000,-0.000,-0.000,-0.000,-0.000
1640670919667746048,2021-12-28-05:55:19,10.1.1.7,1,-0.000,-0.000,-0.000,-0.000,-0.000,-0.000
1640670921830136064,2021-12-28-05:55:21,10.1.1.7,15,-0.000,-0.000,-0.000,-0.000,-0.000,-0.000
1640670923870038016,2021-12-28-05:55:23,10.1.1.7,0,-0.000,-0.000,-0.000,-0.000,-0.000,-0.000
1640670925988639232,2021-12-28-05:55:25,10.1.1.7,2,-0.000,-0.000,-0.000,-0.000,-0.000,-0.000
1640670928127394816,2021-12-28-05:55:28,10.1.1.7,14,-0.000,-0.000,-0.000,-0.000,-0.000,-0.000
1640670930203668992,2021-12-28-05:55:30,10.1.1.7,16,-0.000,-0.000,-0.000,-0.000,-0.000,-0.000
1640670932303618048,2021-12-28-05:55:32,10.1.1.7,6,-0.000,-0.000,-0.000,-0.000,-0.000,-0.000
1640670934360711936,2021-12-28-05:55:34,10.1.1.7,17,-0.000,-0.000,-0.000,-0.000,-0.000,-0.000
1640670936377790976,2021-12-28-05:55:36,10.1.1.7,5,-0.000,-0.000,-0.000,-0.000,-0.000,-0.000
1640670938455702016,2021-12-28-05:55:38,10.1.1.7,17,-0.000,-0.000,-0.000,-0.000,-0.000,-0.000
1640670940531016960,2021-12-28-05:55:40,10.1.1.7,18,-0.000,-0.000,-0.000,-0.000,-0.000,-0.000
1640670942567740928,2021-12-28-05:55:42,10.1.1.7,13,-0.000,-0.000,-0.000,-0.000,-0.000,-0.000
1640670944664948992,2021-12-28-05:55:44,10.1.1.7,2,-0.000,-0.000,-0.000,-0.000,-0.000,-0.000
1640670946753363968,2021-12-28-05:55:46,10.1.1.7,10,-0.000,-0.000,-0.000,-0.000,-0.000,-0.000
1640670948778873088,2021-12-28-05:55:48,10.1.1.7,9,-0.000,-0.000,-0.000,-0.000,-0.000,-0.000
1640670950784059904,2021-12-28-05:55:50,10.1.1.7,8,-0.000,-0.000,-0.000,-0.000,-0.000,-0.000
1640670952806356992,2021-12-28-05:55:52,10.1.1.7,7,-0.000,-0.000,-0.000,-0.000,-0.000,-0.000
1640670954847496960,2021-12-28-05:55:54,10.1.1.7,1,-0.000,-0.000,-0.000,-0.000,-0.000,-0.000
1640670956886482944,2021-12-28-05:55:56,10.1.1.7,2,-0.000,-0.000,-0.000,-0.000,-0.000,-0.000
1640670959005278208,2021-12-28-05:55:59,10.1.1.7,10,-0.000,-0.000,-0.000,-0.000,-0.000,-0.000
1640670961043705088,2021-12-28-05:56:01,10.1.1.7,10,-0.000,-0.000,-0.000,-0.000,-0.000,-0.000
1640670963102433792,2021-12-28-05:56:03,10.1.1.7,11,-0.000,-0.000,-0.000,-0.000,-0.000,-0.000
1640670965159876096,2021-12-28-05:56:05,10.1.1.7,13,-0.000,-0.000,-0.000,-0.000,-0.000,-0.000
1640670967197266176,2021-12-28-05:56:07,10.1.1.7,16,-0.000,-0.000,-0.000,-0.000,-0.000,-0.000
1640670969213756928,2021-12-28-05:56:09,10.1.1.7,4,-0.000,-0.000,-0.000,-0.000,-0.000,-0.000
1640670971310408192,2021-12-28-05:56:11,10.1.1.7,16,-0.000,-0.000,-0.000,-0.000,-0.000,-0.000
1640670973368174080,2021-12-28-05:56:13,10.1.1.7,3,-0.000,-0.000,-0.000,-0.000,-0.000,-0.000
1640670975444657920,2021-12-28-05:56:15,10.1.1.7,18,-0.000,-0.000,-0.000,-0.000,-0.000,-0.000
1640670977465105920,2021-12-28-05:56:17,10.1.1.7,12,-0.000,-0.000,-0.000,-0.000,-0.000,-0.000
1640670979494630144,2021-12-28-05:56:19,10.1.1.7,5,-0.000,-0.000,-0.000,-0.000,-0.000,-0.000
1640670981619633920,2021-12-28-05:56:21,10.1.1.7,15,-0.000,-0.000,-0.000,-0.000,-0.000,-0.000
1640670983685112064,2021-12-28-05:56:23,10.1.1.7,15,-0.000,-0.000,-0.000,-0.000,-0.000,-0.000
1640670985706124032,2021-12-28-05:56:25,10.1.1.7,12,-0.000,-0.000,-0.000,-0.000,-0.000,-0.000
1640670987746520064,2021-12-28-05:56:27,10.1.1.7,16,-0.000,-0.000,-0.000,-0.000,-0.000,-0.000
1640670989767689984,2021-12-28-05:56:29,10.1.1.7,18,-0.000,-0.000,-0.000,-0.000,-0.000,-0.000
1640670991805172992,2021-12-28-05:56:31,10.1.1.7,16,-0.000,-0.000,-0.000,-0.000,-0.000,-0.000
1640670993864126976,2021-12-28-05:56:33,10.1.1.7,8,-0.000,-0.000,-0.000,-0.000,-0.000,-0.000
1640670995941579008,2021-12-28-05:56:35,10.1.1.7,9,-0.000,-0.000,-0.000,-0.000,-0.000,-0.000
1640670997979078912,2021-12-28-05:56:37,10.1.1.7,9,-0.000,-0.000,-0.000,-0.000,-0.000,-0.000
1640670999997478912,2021-12-28-05:56:39,10.1.1.7,2,-0.000,-0.000,-0.000,-0.000,-0.000,-0.000
1640671002053762816,2021-12-28-05:56:42,10.1.1.7,16,-0.000,-0.000,-0.000,-0.000,-0.000,-0.000
1640671004070061824,2021-12-28-05:56:44,10.1.1.7,6,-0.000,-0.000,-0.000,-0.000,-0.000,-0.000
1640671006108210944,2021-12-28-05:56:46,10.1.1.7,13,-0.000,-0.000,-0.000,-0.000,-0.000,-0.000
1640671008145454848,2021-12-28-05:56:48,10.1.1.7,13,-0.000,-0.000,-0.000,-0.000,-0.000,-0.000
1640671010276040960,2021-12-28-05:56:50,10.1.1.7,27,-0.000,-0.000,-0.000,-0.000,-0.000,-0.000
1640671012417661952,2021-12-28-05:56:52,10.1.1.7,19,-0.000,-0.000,-0.000,-0.000,-0.000,-0.000
1640671014442349824,2021-12-28-05:56:54,10.1.1.7,11,-0.000,-0.000,-0.000,-0.000,-0.000,-0.000
1640671016525340160,2021-12-28-05:56:56,10.1.1.7,15,-0.000,-0.000,-0.000,-0.000,-0.000,-0.000
1640671018587183872,2021-12-28-05:56:58,10.1.1.7,12,-0.000,-0.000,-0.000,-0.000,-0.000,-0.000
1640671020647666944,2021-12-28-05:57:00,10.1.1.7,10,-0.000,-0.000,-0.000,-0.000,-0.000,-0.000
1640671022726545152,2021-12-28-05:57:02,10.1.1.7,4,-0.000,-0.000,-0.000,-0.000,-0.000,-0.000
1640671024785305856,2021-12-28-05:57:04,10.1.1.7,10,-0.000,-0.000,-0.000,-0.000,-0.000,-0.000
1640671026843463936,2021-12-28-05:57:06,10.1.1.7,18,-0.000,-0.000,-0.000,-0.000,-0.000,-0.000
1640671028861496832,2021-12-28-05:57:08,10.1.1.7,2,-0.000,-0.000,-0.000,-0.000,-0.000,-0.000
1640671030999641856,2021-12-28-05:57:10,10.1.1.7,8,-0.000,-0.000,-0.000,-0.000,-0.000,-0.000
1640671033115312128,2021-12-28-05:57:13,10.1.1.7,12,-0.000,-0.000,-0.000,-0.000,-0.000,-0.000
1640671035173403136,2021-12-28-05:57:15,10.1.1.7,6,-0.000,-0.000,-0.000,-0.000,-0.000,-0.000
1640671037256056064,2021-12-28-05:57:17,10.1.1.7,1,-0.000,-0.000,-0.000,-0.000,-0.000,-0.000
1640671039326416896,2021-12-28-05:57:19,10.1.1.7,16,-0.000,-0.000,-0.000,-0.000,-0.000,-0.000
1640671041465545984,2021-12-28-05:57:21,10.1.1.7,15,-0.000,-0.000,-0.000,-0.000,-0.000,-0.000
1640671043535779840,2021-12-28-05:57:23,10.1.1.7,4,-0.000,-0.000,-0.000,-0.000,-0.000,-0.000
1640671045602274048,2021-12-28-05:57:25,10.1.1.7,3,-0.000,-0.000,-0.000,-0.000,-0.000,-0.000
1640671047645262848,2021-12-28-05:57:27,10.1.1.7,11,-0.000,-0.000,-0.000,-0.000,-0.000,-0.000
1640671049668381952,2021-12-28-05:57:29,10.1.1.7,5,-0.000,-0.000,-0.000,-0.000,-0.000,-0.000
1640671051708687104,2021-12-28-05:57:31,10.1.1.7,5,-0.000,-0.000,-0.000,-0.000,-0.000,-0.000
1640671053748066048,2021-12-28-05:57:33,10.1.1.7,17,-0.000,-0.000,-0.000,-0.000,-0.000,-0.000
1640671055787499008,2021-12-28-05:57:35,10.1.1.7,16,-0.000,-0.000,-0.000,-0.000,-0.000,-0.000
1640671057825187072,2021-12-28-05:57:37,10.1.1.7,9,-0.000,-0.000,-0.000,-0.000,-0.000,-0.000
1640671059844072960,2021-12-28-05:57:39,10.1.1.7,2,-0.000,-0.000,-0.000,-0.000,-0.000,-0.000
1640671061960562944,2021-12-28-05:57:41,10.1.1.7,13,-0.000,-0.000,-0.000,-0.000,-0.000,-0.000
1640671064078667008,2021-12-28-05:57:44,10.1.1.7,4,-0.000,-0.000,-0.000,-0.000,-0.000,-0.000
1640671066115480832,2021-12-28-05:57:46,10.1.1.7,13,-0.000,-0.000,-0.000,-0.000,-0.000,-0.000
1640671068232171008,2021-12-28-05:57:48,10.1.1.7,19,-0.000,-0.000,-0.000,-0.000,-0.000,-0.000
1640671070268727040,2021-12-28-05:57:50,10.1.1.7,8,-0.000,-0.000,-0.000,-0.000,-0.000,-0.000
1640671072304918016,2021-12-28-05:57:52,10.1.1.7,16,-0.000,-0.000,-0.000,-0.000,-0.000,-0.000
1640671074345900032,2021-12-28-05:57:54,10.1.1.7,0,-0.000,-0.000,-0.000,-0.000,-0.000,-0.000
1640671076494412032,2021-12-28-05:57:56,10.1.1.7,16,-0.000,-0.000,-0.000,-0.000,-0.000,-0.000
1640671078560788992,2021-12-28-05:57:58,10.1.1.7,19,-0.000,-0.000,-0.000,-0.000,-0.000,-0.000
1640671080605084928,2021-12-28-05:58:00,10.1.1.7,11,-0.000,-0.000,-0.000,-0.000,-0.000,-0.000
1640671082667164160,2021-12-28-05:58:02,10.1.1.7,18,-0.000,-0.000,-0.000,-0.000,-0.000,-0.000
1640671084768347136,2021-12-28-05:58:04,10.1.1.7,16,-0.000,-0.000,-0.000,-0.000,-0.000,-0.000
1640671086787219968,2021-12-28-05:58:06,10.1.1.7,1,-0.000,-0.000,-0.000,-0.000,-0.000,-0.000
1640671088846322176,2021-12-28-05:58:08,10.1.1.7,2,-0.000,-0.000,-0.000,-0.000,-0.000,-0.000
1640671090964487168,2021-12-28-05:58:10,10.1.1.7,15,-0.000,-0.000,-0.000,-0.000,-0.000,-0.000
1640671092981884928,2021-12-28-05:58:12,10.1.1.7,10,-0.000,-0.000,-0.000,-0.000,-0.000,-0.000
1640671095039917056,2021-12-28-05:58:15,10.1.1.7,13,-0.000,-0.000,-0.000,-0.000,-0.000,-0.000
1640671097117518848,2021-12-28-05:58:17,10.1.1.7,9,-0.000,-0.000,-0.000,-0.000,-0.000,-0.000
1640671099214097920,2021-12-28-05:58:19,10.1.1.7,9,-0.000,-0.000,-0.000,-0.000,-0.000,-0.000
1640671101310220032,2021-12-28-05:58:21,10.1.1.7,5,-0.000,-0.000,-0.000,-0.000,-0.000,-0.000
1640671103347358976,2021-12-28-05:58:23,10.1.1.7,17,-0.000,-0.000,-0.000,-0.000,-0.000,-0.000
1640671105365217024,2021-12-28-05:58:25,10.1.1.7,2,-0.000,-0.000,-0.000,-0.000,-0.000,-0.000
1640671107490618880,2021-12-28-05:58:27,10.1.1.7,9,-0.000,-0.000,-0.000,-0.000,-0.000,-0.000
1640671109518074112,2021-12-28-05:58:29,10.1.1.7,8,-0.000,-0.000,-0.000,-0.000,-0.000,-0.000
1640671111523560960,2021-12-28-05:58:31,10.1.1.7,8,-0.000,-0.000,-0.000,-0.000,-0.000,-0.000
1640671113606627840,2021-12-28-05:58:33,10.1.1.7,4,-0.000,-0.000,-0.000,-0.000,-0.000,-0.000
1640671115727385088,2021-12-28-05:58:35,10.1.1.7,2,-0.000,-0.000,-0.000,-0.000,-0.000,-0.000
1640671117927449856,2021-12-28-05:58:37,10.1.1.7,15,-0.000,-0.000,-0.000,-0.000,-0.000,-0.000
1640671119968111104,2021-12-28-05:58:39,10.1.1.7,18,-0.000,-0.000,-0.000,-0.000,-0.000,-0.000
1640671122005978112,2021-12-28-05:58:42,10.1.1.7,12,-0.000,-0.000,-0.000,-0.000,-0.000,-0.000
1640671124045107968,2021-12-28-05:58:44,10.1.1.7,2,-0.000,-0.000,-0.000,-0.000,-0.000,-0.000
1640671126102344960,2021-12-28-05:58:46,10.1.1.7,3,-0.000,-0.000,-0.000,-0.000,-0.000,-0.000
1640671128138822144,2021-12-28-05:58:48,10.1.1.7,3,-0.000,-0.000,-0.000,-0.000,-0.000,-0.000
1640671130214905856,2021-12-28-05:58:50,10.1.1.7,2,-0.000,-0.000,-0.000,-0.000,-0.000,-0.000
1640671132292811008,2021-12-28-05:58:52,10.1.1.7,14,-0.000,-0.000,-0.000,-0.000,-0.000,-0.000
1640671134330096128,2021-12-28-05:58:54,10.1.1.7,4,-0.000,-0.000,-0.000,-0.000,-0.000,-0.000
1640671136406811904,2021-12-28-05:58:56,10.1.1.7,8,-0.000,-0.000,-0.000,-0.000,-0.000,-0.000
1640671138467592960,2021-12-28-05:58:58,10.1.1.7,13,-0.000,-0.000,-0.000,-0.000,-0.000,-0.000
1640671140515805952,2021-12-28-05:59:00,10.1.1.7,17,-0.000,-0.000,-0.000,-0.000,-0.000,-0.000
1640671142541420032,2021-12-28-05:59:02,10.1.1.7,14,-0.000,-0.000,-0.000,-0.000,-0.000,-0.000
1640671144566051072,2021-12-28-05:59:04,10.1.1.7,11,-0.000,-0.000,-0.000,-0.000,-0.000,-0.000
1640671146608596992,2021-12-28-05:59:06,10.1.1.7,8,-0.000,-0.000,-0.000,-0.000,-0.000,-0.000
1640671148708289024,2021-12-28-05:59:08,10.1.1.7,11,-0.000,-0.000,-0.000,-0.000,-0.000,-0.000
1640671150828270848,2021-12-28-05:59:10,10.1.1.7,16,-0.000,-0.000,-0.000,-0.000,-0.000,-0.000
1640671152867496960,2021-12-28-05:59:12,10.1.1.7,11,-0.000,-0.000,-0.000,-0.000,-0.000,-0.000
1640671154925748992,2021-12-28-05:59:14,10.1.1.7,12,-0.000,-0.000,-0.000,-0.000,-0.000,-0.000
1640671157003550976,2021-12-28-05:59:17,10.1.1.7,16,-0.000,-0.000,-0.000,-0.000,-0.000,-0.000
1640671159021007104,2021-12-28-05:59:19,10.1.1.7,2,-0.000,-0.000,-0.000,-0.000,-0.000,-0.000
1640671161099772928,2021-12-28-05:59:21,10.1.1.7,3,-0.000,-0.000,-0.000,-0.000,-0.000,-0.000
1640671163175194880,2021-12-28-05:59:23,10.1.1.7,18,-0.000,-0.000,-0.000,-0.000,-0.000,-0.000
1640671165211992064,2021-12-28-05:59:25,10.1.1.7,3,-0.000,-0.000,-0.000,-0.000,-0.000,-0.000
1640671167289148928,2021-12-28-05:59:27,10.1.1.7,10,-0.000,-0.000,-0.000,-0.000,-0.000,-0.000
1640671169325395968,2021-12-28-05:59:29,10.1.1.7,17,-0.000,-0.000,-0.000,-0.000,-0.000,-0.000
1640671171371824896,2021-12-28-05:59:31,10.1.1.7,4,-0.000,-0.000,-0.000,-0.000,-0.000,-0.000
1640671173400496896,2021-12-28-05:59:33,10.1.1.7,3,-0.000,-0.000,-0.000,-0.000,-0.000,-0.000
1640671175425961984,2021-12-28-05:59:35,10.1.1.7,6,-0.000,-0.000,-0.000,-0.000,-0.000,-0.000
1640671177469235968,2021-12-28-05:59:37,10.1.1.7,13,-0.000,-0.000,-0.000,-0.000,-0.000,-0.000
1640671179491184896,2021-12-28-05:59:39,10.1.1.7,10,-0.000,-0.000,-0.000,-0.000,-0.000,-0.000
1640671181533050112,2021-12-28-05:59:41,10.1.1.7,0,-0.000,-0.000,-0.000,-0.000,-0.000,-0.000
1640671183630348800,2021-12-28-05:59:43,10.1.1.7,1,-0.000,-0.000,-0.000,-0.000,-0.000,-0.000
1640671185669060096,2021-12-28-05:59:45,10.1.1.7,10,-0.000,-0.000,-0.000,-0.000,-0.000,-0.000
1640671189746115840,2021-12-28-05:59:49,10.1.1.7,16,-0.000,-0.000,-0.000,-0.000,-0.000,-0.000
1640671191783440128,2021-12-28-05:59:51,10.1.1.7,2,-0.000,-0.000,-0.000,-0.000,-0.000,-0.000
1640671193940752128,2021-12-28-05:59:53,10.1.1.7,18,-0.000,-0.000,-0.000,-0.000,-0.000,-0.000
1640671196058171136,2021-12-28-05:59:56,10.1.1.7,3,-0.000,-0.000,-0.000,-0.000,-0.000,-0.000
1640671198134814976,2021-12-28-05:59:58,10.1.1.7,18,-0.000,-0.000,-0.000,-0.000,-0.000,-0.000
1640671200210892800,2021-12-28-06:00:00,10.1.1.7,2,-0.000,-0.000,-0.000,-0.000,-0.000,-0.000
1640671202248537088,2021-12-28-06:00:02,10.1.1.7,14,-0.000,-0.000,-0.000,-0.000,-0.000,-0.000
1640671204312737024,2021-12-28-06:00:04,10.1.1.7,16,-0.000,-0.000,-0.000,-0.000,-0.000,-0.000
1640671206320379136,2021-12-28-06:00:06,10.1.1.7,2,-0.000,-0.000,-0.000,-0.000,-0.000,-0.000
1640671208384748032,2021-12-28-06:00:08,10.1.1.7,2,-0.000,-0.000,-0.000,-0.000,-0.000,-0.000
1640671210487731968,2021-12-28-06:00:10,10.1.1.7,19,-0.000,-0.000,-0.000,-0.000,-0.000,-0.000
1640671212549253888,2021-12-28-06:00:12,10.1.1.7,12,-0.000,-0.000,-0.000,-0.000,-0.000,-0.000
1640671214628838912,2021-12-28-06:00:14,10.1.1.7,18,-0.000,-0.000,-0.000,-0.000,-0.000,-0.000
1640671216731400960,2021-12-28-06:00:16,10.1.1.7,19,-0.000,-0.000,-0.000,-0.000,-0.000,-0.000
1640671218890770944,2021-12-28-06:00:18,10.1.1.7,13,-0.000,-0.000,-0.000,-0.000,-0.000,-0.000
1640671220924570112,2021-12-28-06:00:20,10.1.1.7,2,-0.000,-0.000,-0.000,-0.000,-0.000,-0.000
1640671222942293760,2021-12-28-06:00:22,10.1.1.7,11,-0.000,-0.000,-0.000,-0.000,-0.000,-0.000
1640671224959842816,2021-12-28-06:00:24,10.1.1.7,11,-0.000,-0.000,-0.000,-0.000,-0.000,-0.000
1640671226997102848,2021-12-28-06:00:26,10.1.1.7,14,-0.000,-0.000,-0.000,-0.000,-0.000,-0.000
1640671229013926144,2021-12-28-06:00:29,10.1.1.7,4,-0.000,-0.000,-0.000,-0.000,-0.000,-0.000
1640671231070575104,2021-12-28-06:00:31,10.1.1.7,13,-0.000,-0.000,-0.000,-0.000,-0.000,-0.000
1640671233107837952,2021-12-28-06:00:33,10.1.1.7,0,-0.000,-0.000,-0.000,-0.000,-0.000,-0.000
1640671235225240064,2021-12-28-06:00:35,10.1.1.7,4,-0.000,-0.000,-0.000,-0.000,-0.000,-0.000
1640671237295095040,2021-12-28-06:00:37,10.1.1.7,17,-0.000,-0.000,-0.000,-0.000,-0.000,-0.000
1640671239302668032,2021-12-28-06:00:39,10.1.1.7,1,-0.000,-0.000,-0.000,-0.000,-0.000,-0.000
1640671241426605056,2021-12-28-06:00:41,10.1.1.7,18,-0.000,-0.000,-0.000,-0.000,-0.000,-0.000
1640671243448820224,2021-12-28-06:00:43,10.1.1.7,14,-0.000,-0.000,-0.000,-0.000,-0.000,-0.000
1640671245469831936,2021-12-28-06:00:45,10.1.1.7,0,-0.000,-0.000,-0.000,-0.000,-0.000,-0.000
1640671247629565952,2021-12-28-06:00:47,10.1.1.7,0,-0.000,-0.000,-0.000,-0.000,-0.000,-0.000
1640671249727847936,2021-12-28-06:00:49,10.1.1.7,13,-0.000,-0.000,-0.000,-0.000,-0.000,-0.000
1640671251786216960,2021-12-28-06:00:51,10.1.1.7,17,-0.000,-0.000,-0.000,-0.000,-0.000,-0.000
1640671253884280064,2021-12-28-06:00:53,10.1.1.7,12,-0.000,-0.000,-0.000,-0.000,-0.000,-0.000
1640671255902506240,2021-12-28-06:00:55,10.1.1.7,4,-0.000,-0.000,-0.000,-0.000,-0.000,-0.000
1640671257959266816,2021-12-28-06:00:57,10.1.1.7,9,-0.000,-0.000,-0.000,-0.000,-0.000,-0.000
1640671259975734016,2021-12-28-06:00:59,10.1.1.7,4,-0.000,-0.000,-0.000,-0.000,-0.000,-0.000
1640671262090670080,2021-12-28-06:01:02,10.1.1.7,23,-0.000,-0.000,-0.000,-0.000,-0.000,-0.000
1640671264149699840,2021-12-28-06:01:04,10.1.1.7,9,-0.000,-0.000,-0.000,-0.000,-0.000,-0.000
1640671266286440960,2021-12-28-06:01:06,10.1.1.7,10,-0.000,-0.000,-0.000,-0.000,-0.000,-0.000
1640671268332091136,2021-12-28-06:01:08,10.1.1.7,11,-0.000,-0.000,-0.000,-0.000,-0.000,-0.000
1640671270380589056,2021-12-28-06:01:10,10.1.1.7,11,-0.000,-0.000,-0.000,-0.000,-0.000,-0.000
1640671272405618944,2021-12-28-06:01:12,10.1.1.7,5,-0.000,-0.000,-0.000,-0.000,-0.000,-0.000
1640671274449255936,2021-12-28-06:01:14,10.1.1.7,4,-0.000,-0.000,-0.000,-0.000,-0.000,-0.000
1640671276470523136,2021-12-28-06:01:16,10.1.1.7,0,-0.000,-0.000,-0.000,-0.000,-0.000,-0.000
1640671278570831104,2021-12-28-06:01:18,10.1.1.7,4,-0.000,-0.000,-0.000,-0.000,-0.000,-0.000
1640671280690490880,2021-12-28-06:01:20,10.1.1.7,11,-0.000,-0.000,-0.000,-0.000,-0.000,-0.000
1640671282728868096,2021-12-28-06:01:22,10.1.1.7,10,-0.000,-0.000,-0.000,-0.000,-0.000,-0.000
1640671284786878208,2021-12-28-06:01:24,10.1.1.7,17,-0.000,-0.000,-0.000,-0.000,-0.000,-0.000
1640671286805147904,2021-12-28-06:01:26,10.1.1.7,4,-0.000,-0.000,-0.000,-0.000,-0.000,-0.000
1640671288865263104,2021-12-28-06:01:28,10.1.1.7,-1,-0.000,-0.000,-0.000,-0.000,-0.000,-0.000
1640671290920206080,2021-12-28-06:01:30,10.1.1.7,10,-0.000,-0.000,-0.000,-0.000,-0.000,-0.000
1640671293016078848,2021-12-28-06:01:33,10.1.1.7,13,-0.000,-0.000,-0.000,-0.000,-0.000,-0.000
1640671295093058048,2021-12-28-06:01:35,10.1.1.7,18,-0.000,-0.000,-0.000,-0.000,-0.000,-0.000
1640671297093817088,2021-12-28-06:01:37,10.1.1.7,14,-0.000,-0.000,-0.000,-0.000,-0.000,-0.000
1640671299089204992,2021-12-28-06:01:39,10.1.1.7,0,-0.000,-0.000,-0.000,-0.000,-0.000,-0.000
1640671301099273984,2021-12-28-06:01:41,10.1.1.7,1,-0.000,-0.000,-0.000,-0.000,-0.000,-0.000
1640671303105221888,2021-12-28-06:01:43,10.1.1.7,0,-0.000,-0.000,-0.000,-0.000,-0.000,-0.000
1640671305129008128,2021-12-28-06:01:45,10.1.1.7,8,-0.000,-0.000,-0.000,-0.000,-0.000,-0.000
1640671307132294912,2021-12-28-06:01:47,10.1.1.7,7,-0.000,-0.000,-0.000,-0.000,-0.000,-0.000
1640671311692264960,2021-12-28-06:01:51,10.1.1.7,18,-0.240,-0.240,-0.240,0.000,0.000,0.000
1640671311952189952,2021-12-28-06:01:51,10.1.1.7,12,-0.370,-0.370,-0.370,0.000,0.000,0.000
1640671312432420864,2021-12-28-06:01:52,10.1.1.7,0,-0.370,-0.370,-0.370,0.000,0.000,0.000
1640671313952524032,2021-12-28-06:01:53,10.1.1.7,3,-0.370,-0.370,-0.370,0.000,0.000,0.000
1640671314450823168,2021-12-28-06:01:54,10.1.1.7,10,-0.370,-0.370,-0.370,0.000,0.000,0.000
1640671315969906944,2021-12-28-06:01:55,10.1.1.7,11,-0.370,-0.370,-0.370,0.000,0.000,0.000
1640671317967145984,2021-12-28-06:01:57,10.1.1.7,0,-0.370,-0.370,-0.370,0.000,0.000,0.000
1640671318487235072,2021-12-28-06:01:58,10.1.1.7,5,-0.370,-0.370,-0.370,0.000,0.000,0.000
1640671320045641984,2021-12-28-06:02:00,10.1.1.7,8,-0.370,-0.370,-0.370,0.000,0.000,0.000
1640671320544249088,2021-12-28-06:02:00,10.1.1.7,14,-0.370,-0.370,-0.370,0.000,0.000,0.000
1640671322063446016,2021-12-28-06:02:02,10.1.1.7,1,-0.370,-0.370,-0.370,0.000,0.000,0.000
1640671322564537088,2021-12-28-06:02:02,10.1.1.7,0,-0.370,-0.370,-0.370,0.000,0.000,0.000
1640671324104360960,2021-12-28-06:02:04,10.1.1.7,4,-0.370,-0.370,-0.370,0.000,0.000,0.000
1640671324599378944,2021-12-28-06:02:04,10.1.1.7,2,-0.370,-0.370,-0.370,0.000,0.000,0.000
1640671326139139840,2021-12-28-06:02:06,10.1.1.7,7,-0.370,-0.370,-0.370,0.000,0.000,0.000
1640671326636133888,2021-12-28-06:02:06,10.1.1.7,9,-0.370,-0.370,-0.370,0.000,0.000,0.000
1640671328173520128,2021-12-28-06:02:08,10.1.1.7,9,-0.370,-0.370,-0.370,0.000,0.000,0.000
1640671328672825088,2021-12-28-06:02:08,10.1.1.7,11,-0.370,-0.370,-0.370,0.000,0.000,0.000
1640671330250544128,2021-12-28-06:02:10,10.1.1.7,17,-0.370,-0.370,-0.370,0.000,0.000,0.000
1640671330750784000,2021-12-28-06:02:10,10.1.1.7,15,-0.370,-0.370,-0.370,0.000,0.000,0.000
1640671332309329920,2021-12-28-06:02:12,10.1.1.7,7,-0.370,-0.370,-0.370,0.000,0.000,0.000
1640671332811668992,2021-12-28-06:02:12,10.1.1.7,4,-0.370,-0.370,-0.370,0.000,0.000,0.000
1640671334358462208,2021-12-28-06:02:14,10.1.1.7,4,-0.370,-0.370,-0.370,0.000,0.000,0.000
1640671334901988096,2021-12-28-06:02:14,10.1.1.7,12,-0.370,-0.370,-0.370,0.000,0.000,0.000
1640671336424616960,2021-12-28-06:02:16,10.1.1.7,1,-0.370,-0.370,-0.370,0.000,0.000,0.000
1640671336944741888,2021-12-28-06:02:16,10.1.1.7,14,-0.370,-0.370,-0.370,0.000,0.000,0.000
1640671338467169024,2021-12-28-06:02:18,10.1.1.7,4,-0.370,-0.370,-0.370,0.000,0.000,0.000
1640671338968854784,2021-12-28-06:02:18,10.1.1.7,10,-0.370,-0.370,-0.370,0.000,0.000,0.000
1640671340495425024,2021-12-28-06:02:20,10.1.1.7,5,-0.370,-0.370,-0.370,0.000,0.000,0.000
1640671341029086208,2021-12-28-06:02:21,10.1.1.7,11,-0.370,-0.370,-0.370,0.000,0.000,0.000
1640671342570496000,2021-12-28-06:02:22,10.1.1.7,12,-0.370,-0.370,-0.370,0.000,0.000,0.000
1640671343069094912,2021-12-28-06:02:23,10.1.1.7,15,-0.370,-0.370,-0.370,0.000,0.000,0.000
1640671344589145856,2021-12-28-06:02:24,10.1.1.7,7,-0.370,-0.370,-0.370,0.000,0.000,0.000
1640671345088896000,2021-12-28-06:02:25,10.1.1.7,11,-0.370,-0.370,-0.370,0.000,0.000,0.000
1640671346627731200,2021-12-28-06:02:26,10.1.1.7,18,-0.370,-0.370,-0.370,0.000,0.000,0.000
1640671347108165120,2021-12-28-06:02:27,10.1.1.7,4,-0.370,-0.370,-0.370,0.000,0.000,0.000
1640671348666234880,2021-12-28-06:02:28,10.1.1.7,5,-0.370,-0.370,-0.370,0.000,0.000,0.000
1640671350704909056,2021-12-28-06:02:30,10.1.1.7,1,-0.370,-0.370,-0.370,0.000,0.000,0.000
1640671351204406016,2021-12-28-06:02:31,10.1.1.7,4,-0.370,-0.370,-0.370,0.000,0.000,0.000
1640671352802423040,2021-12-28-06:02:32,10.1.1.7,2,-0.370,-0.370,-0.370,0.000,0.000,0.000
1640671353300870912,2021-12-28-06:02:33,10.1.1.7,7,-0.370,-0.370,-0.370,0.000,0.000,0.000
1640671354819757824,2021-12-28-06:02:34,10.1.1.7,6,-0.370,-0.370,-0.370,0.000,0.000,0.000
1640671355318283008,2021-12-28-06:02:35,10.1.1.7,11,-0.370,-0.370,-0.370,0.000,0.000,0.000
1640671356838874112,2021-12-28-06:02:36,10.1.1.7,17,-0.370,-0.370,-0.370,0.000,0.000,0.000
1640671357334661888,2021-12-28-06:02:37,10.1.1.7,15,-0.370,-0.370,-0.370,0.000,0.000,0.000
1640671358872958976,2021-12-28-06:02:38,10.1.1.7,16,-0.370,-0.370,-0.370,0.000,0.000,0.000
1640671359372649984,2021-12-28-06:02:39,10.1.1.7,17,-0.370,-0.370,-0.370,0.000,0.000,0.000
1640671360930188800,2021-12-28-06:02:40,10.1.1.7,8,-0.370,-0.370,-0.370,0.000,0.000,0.000
1640671361469820928,2021-12-28-06:02:41,10.1.1.7,19,-0.370,-0.370,-0.370,0.000,0.000,0.000
1640671363026622976,2021-12-28-06:02:43,10.1.1.7,2,-0.370,-0.370,-0.370,0.000,0.000,0.000
1640671363525517056,2021-12-28-06:02:43,10.1.1.7,1,-0.370,-0.370,-0.370,0.000,0.000,0.000
1640671365090558976,2021-12-28-06:02:45,10.1.1.7,16,-0.370,-0.370,-0.370,0.000,0.000,0.000
1640671365590050048,2021-12-28-06:02:45,10.1.1.7,18,-0.370,-0.370,-0.370,0.000,0.000,0.000
1640671367219321856,2021-12-28-06:02:47,10.1.1.7,19,-0.370,-0.370,-0.370,0.000,0.000,0.000
1640671367701179136,2021-12-28-06:02:47,10.1.1.7,2,-0.370,-0.370,-0.370,0.000,0.000,0.000
1640671369245726976,2021-12-28-06:02:49,10.1.1.7,3,-0.370,-0.370,-0.370,0.000,0.000,0.000
1640671369745560832,2021-12-28-06:02:49,10.1.1.7,2,-0.370,-0.370,-0.370,0.000,0.000,0.000
1640671371368593920,2021-12-28-06:02:51,10.1.1.7,6,-0.370,-0.370,-0.370,0.000,0.000,0.000
1640671371888919040,2021-12-28-06:02:51,10.1.1.7,18,-0.370,-0.370,-0.370,0.000,0.000,0.000
1640671373469388032,2021-12-28-06:02:53,10.1.1.7,2,-0.370,-0.370,-0.370,0.000,0.000,0.000
1640671374029957888,2021-12-28-06:02:54,10.1.1.7,17,-0.370,-0.370,-0.370,0.000,0.000,0.000
1640671375550048000,2021-12-28-06:02:55,10.1.1.7,4,-0.370,-0.370,-0.370,0.000,0.000,0.000
1640671376050038016,2021-12-28-06:02:56,10.1.1.7,10,-0.370,-0.370,-0.370,0.000,0.000,0.000
1640671377570192128,2021-12-28-06:02:57,10.1.1.7,2,-0.370,-0.370,-0.370,0.000,0.000,0.000
1640671378069148160,2021-12-28-06:02:58,10.1.1.7,2,-0.370,-0.370,-0.370,0.000,0.000,0.000
1640671379648802048,2021-12-28-06:02:59,10.1.1.7,5,-0.370,-0.370,-0.370,0.000,0.000,0.000
1640671380148005888,2021-12-28-06:03:00,10.1.1.7,8,-0.370,-0.370,-0.370,0.000,0.000,0.000
1640671381707282176,2021-12-28-06:03:01,10.1.1.7,1,-0.370,-0.370,-0.370,0.000,0.000,0.000
1640671382225720832,2021-12-28-06:03:02,10.1.1.7,15,-0.370,-0.370,-0.370,0.000,0.000,0.000
1640671383764393984,2021-12-28-06:03:03,10.1.1.7,15,-0.370,-0.370,-0.370,0.000,0.000,0.000
1640671384243804928,2021-12-28-06:03:04,10.1.1.7,0,-0.370,-0.370,-0.370,0.000,0.000,0.000
1640671385864226048,2021-12-28-06:03:05,10.1.1.7,2,-0.370,-0.370,-0.370,0.000,0.000,0.000
1640671386360560896,2021-12-28-06:03:06,10.1.1.7,2,-0.370,-0.370,-0.370,0.000,0.000,0.000
1640671387898075136,2021-12-28-06:03:07,10.1.1.7,14,-0.370,-0.370,-0.370,0.000,0.000,0.000
1640671388377954048,2021-12-28-06:03:08,10.1.1.7,2,-0.370,-0.370,-0.370,0.000,0.000,0.000
1640671389915188992,2021-12-28-06:03:09,10.1.1.7,11,-0.370,-0.370,-0.370,0.000,0.000,0.000
1640671390414798080,2021-12-28-06:03:10,10.1.1.7,5,-0.370,-0.370,-0.370,0.000,0.000,0.000
1640671391972513792,2021-12-28-06:03:11,10.1.1.7,5,-0.370,-0.370,-0.370,0.000,0.000,0.000
1640671392472239872,2021-12-28-06:03:12,10.1.1.7,9,-0.370,-0.370,-0.370,0.000,0.000,0.000
1640671394009624832,2021-12-28-06:03:14,10.1.1.7,4,-0.370,-0.370,-0.370,0.000,0.000,0.000
1640671394509017088,2021-12-28-06:03:14,10.1.1.7,1,-0.370,-0.370,-0.370,0.000,0.000,0.000
1640671396126795008,2021-12-28-06:03:16,10.1.1.7,18,-0.370,-0.370,-0.370,0.000,0.000,0.000
1640671396649376000,2021-12-28-06:03:16,10.1.1.7,9,-0.370,-0.370,-0.370,0.000,0.000,0.000
1640671398277549056,2021-12-28-06:03:18,10.1.1.7,2,-0.370,-0.370,-0.370,0.000,0.000,0.000
1640671398778491136,2021-12-28-06:03:18,10.1.1.7,5,-0.370,-0.370,-0.370,0.000,0.000,0.000
1640671400363346944,2021-12-28-06:03:20,10.1.1.7,5,-0.370,-0.370,-0.370,0.000,0.000,0.000
1640671400864561152,2021-12-28-06:03:20,10.1.1.7,15,-0.370,-0.370,-0.370,0.000,0.000,0.000
1640671402407991040,2021-12-28-06:03:22,10.1.1.7,19,-0.370,-0.370,-0.370,0.000,0.000,0.000
1640671402888439808,2021-12-28-06:03:22,10.1.1.7,3,-0.370,-0.370,-0.370,0.000,0.000,0.000
1640671404429210880,2021-12-28-06:03:24,10.1.1.7,5,-0.370,-0.370,-0.370,0.000,0.000,0.000
1640671404729611008,2021-12-28-06:03:24,10.1.1.7,15,-0.470,-0.470,-0.470,0.000,0.000,0.000
1640671406670595840,2021-12-28-06:03:26,10.1.1.7,0,-0.470,-0.470,-0.470,0.000,0.000,0.000
1640671406770648832,2021-12-28-06:03:26,10.1.1.7,16,-0.470,-0.470,-0.470,0.000,0.000,0.000
1640671408870295040,2021-12-28-06:03:28,10.1.1.7,19,-0.470,-0.470,-0.470,0.000,0.000,0.000
1640671408950092032,2021-12-28-06:03:28,10.1.1.7,16,-0.470,-0.470,-0.470,0.000,0.000,0.000
1640671410888968960,2021-12-28-06:03:30,10.1.1.7,15,-0.470,-0.470,-0.470,0.000,0.000,0.000
1640671410968751872,2021-12-28-06:03:30,10.1.1.7,12,-0.470,-0.470,-0.470,0.000,0.000,0.000
1640671412948460032,2021-12-28-06:03:32,10.1.1.7,5,-0.470,-0.470,-0.470,0.000,0.000,0.000
1640671413049772032,2021-12-28-06:03:33,10.1.1.7,4,-0.470,-0.470,-0.470,0.000,0.000,0.000
1640671415005111808,2021-12-28-06:03:35,10.1.1.7,7,-0.470,-0.470,-0.470,0.000,0.000,0.000
1640671415084973056,2021-12-28-06:03:35,10.1.1.7,5,-0.470,-0.470,-0.470,0.000,0.000,0.000
1640671417022648064,2021-12-28-06:03:37,10.1.1.7,11,-0.470,-0.470,-0.470,0.000,0.000,0.000
1640671417103473920,2021-12-28-06:03:37,10.1.1.7,10,-0.470,-0.470,-0.470,0.000,0.000,0.000
1640671419101111808,2021-12-28-06:03:39,10.1.1.7,0,-0.470,-0.470,-0.470,0.000,0.000,0.000
1640671419200494080,2021-12-28-06:03:39,10.1.1.7,17,-0.470,-0.470,-0.470,0.000,0.000,0.000
1640671421177012992,2021-12-28-06:03:41,10.1.1.7,0,-0.470,-0.470,-0.470,0.000,0.000,0.000
1640671421277483008,2021-12-28-06:03:41,10.1.1.7,18,-0.470,-0.470,-0.470,0.000,0.000,0.000
1640671423234627072,2021-12-28-06:03:43,10.1.1.7,9,-0.470,-0.470,-0.470,0.000,0.000,0.000
1640671423313607936,2021-12-28-06:03:43,10.1.1.7,3,-0.470,-0.470,-0.470,0.000,0.000,0.000
1640671425271450880,2021-12-28-06:03:45,10.1.1.7,8,-0.470,-0.470,-0.470,0.000,0.000,0.000
1640671425351250944,2021-12-28-06:03:45,10.1.1.7,4,-0.470,-0.470,-0.470,0.000,0.000,0.000
1640671427307785984,2021-12-28-06:03:47,10.1.1.7,16,-0.470,-0.470,-0.470,0.000,0.000,0.000
1640671427387793920,2021-12-28-06:03:47,10.1.1.7,14,-0.470,-0.470,-0.470,0.000,0.000,0.000
1640671429434104832,2021-12-28-06:03:49,10.1.1.7,16,-0.470,-0.470,-0.470,0.000,0.000,0.000
1640671429514435072,2021-12-28-06:03:49,10.1.1.7,12,-0.470,-0.470,-0.470,0.000,0.000,0.000
1640671431461314816,2021-12-28-06:03:51,10.1.1.7,7,-0.470,-0.470,-0.470,0.000,0.000,0.000
1640671431541369088,2021-12-28-06:03:51,10.1.1.7,2,-0.470,-0.470,-0.470,0.000,0.000,0.000
1640671433526864128,2021-12-28-06:03:53,10.1.1.7,6,-0.470,-0.470,-0.470,0.000,0.000,0.000
1640671433606776064,2021-12-28-06:03:53,10.1.1.7,2,-0.470,-0.470,-0.470,0.000,0.000,0.000
1640671435609498880,2021-12-28-06:03:55,10.1.1.7,14,-0.470,-0.470,-0.470,0.000,0.000,0.000
1640671435689164032,2021-12-28-06:03:55,10.1.1.7,11,-0.470,-0.470,-0.470,0.000,0.000,0.000
1640671437650114048,2021-12-28-06:03:57,10.1.1.7,8,-0.470,-0.470,-0.470,0.000,0.000,0.000
1640671437730214144,2021-12-28-06:03:57,10.1.1.7,5,-0.470,-0.470,-0.470,0.000,0.000,0.000
1640671439670296064,2021-12-28-06:03:59,10.1.1.7,6,-0.470,-0.470,-0.470,0.000,0.000,0.000
1640671439750479872,2021-12-28-06:03:59,10.1.1.7,4,-0.470,-0.470,-0.470,0.000,0.000,0.000
1640671441769210112,2021-12-28-06:04:01,10.1.1.7,8,-0.470,-0.470,-0.470,0.000,0.000,0.000
1640671441869692160,2021-12-28-06:04:01,10.1.1.7,18,-0.470,-0.470,-0.470,0.000,0.000,0.000
1640671443808485888,2021-12-28-06:04:03,10.1.1.7,1,-0.470,-0.470,-0.470,0.000,0.000,0.000
1640671443908463104,2021-12-28-06:04:03,10.1.1.7,19,-0.470,-0.470,-0.470,0.000,0.000,0.000
1640671445866142976,2021-12-28-06:04:05,10.1.1.7,9,-0.470,-0.470,-0.470,0.000,0.000,0.000
1640671445946180096,2021-12-28-06:04:05,10.1.1.7,7,-0.470,-0.470,-0.470,0.000,0.000,0.000
1640671447884099072,2021-12-28-06:04:07,10.1.1.7,8,-0.470,-0.470,-0.470,0.000,0.000,0.000
1640671447964286976,2021-12-28-06:04:07,10.1.1.7,5,-0.470,-0.470,-0.470,0.000,0.000,0.000
1640671449961942016,2021-12-28-06:04:09,10.1.1.7,7,-0.470,-0.470,-0.470,0.000,0.000,0.000
1640671450042743808,2021-12-28-06:04:10,10.1.1.7,5,-0.470,-0.470,-0.470,0.000,0.000,0.000
1640671451998275072,2021-12-28-06:04:11,10.1.1.7,8,-0.470,-0.470,-0.470,0.000,0.000,0.000
1640671452078347008,2021-12-28-06:04:12,10.1.1.7,4,-0.470,-0.470,-0.470,0.000,0.000,0.000
1640671454055094016,2021-12-28-06:04:14,10.1.1.7,6,-0.470,-0.470,-0.470,0.000,0.000,0.000
1640671454135575040,2021-12-28-06:04:14,10.1.1.7,3,-0.470,-0.470,-0.470,0.000,0.000,0.000
1640671456111851008,2021-12-28-06:04:16,10.1.1.7,8,-0.470,-0.470,-0.470,0.000,0.000,0.000
1640671456192049152,2021-12-28-06:04:16,10.1.1.7,3,-0.470,-0.470,-0.470,0.000,0.000,0.000
1640671458208869888,2021-12-28-06:04:18,10.1.1.7,14,-0.470,-0.470,-0.470,0.000,0.000,0.000
1640671458288588032,2021-12-28-06:04:18,10.1.1.7,11,-0.470,-0.470,-0.470,0.000,0.000,0.000
1640671460284976128,2021-12-28-06:04:20,10.1.1.7,19,-0.470,-0.470,-0.470,0.000,0.000,0.000
1640671460365502208,2021-12-28-06:04:20,10.1.1.7,17,-0.470,-0.470,-0.470,0.000,0.000,0.000
1640671462291197184,2021-12-28-06:04:22,10.1.1.7,16,-0.470,-0.470,-0.470,0.000,0.000,0.000
1640671462372005888,2021-12-28-06:04:22,10.1.1.7,15,-0.470,-0.470,-0.470,0.000,0.000,0.000
1640671464399010816,2021-12-28-06:04:24,10.1.1.7,20,-0.470,-0.470,-0.470,0.000,0.000,0.000
1640671464479854080,2021-12-28-06:04:24,10.1.1.7,19,-0.470,-0.470,-0.470,0.000,0.000,0.000
1640671466423739904,2021-12-28-06:04:26,10.1.1.7,7,-0.470,-0.470,-0.470,0.000,0.000,0.000
1640671466503976960,2021-12-28-06:04:26,10.1.1.7,4,-0.470,-0.470,-0.470,0.000,0.000,0.000
1640671468447385088,2021-12-28-06:04:28,10.1.1.7,4,-0.470,-0.470,-0.470,0.000,0.000,0.000
1640671468526663168,2021-12-28-06:04:28,10.1.1.7,2,-0.470,-0.470,-0.470,0.000,0.000,0.000
1640671470488985088,2021-12-28-06:04:30,10.1.1.7,9,-0.470,-0.470,-0.470,0.000,0.000,0.000
1640671470568374016,2021-12-28-06:04:30,10.1.1.7,5,-0.470,-0.470,-0.470,0.000,0.000,0.000
1640671472548677888,2021-12-28-06:04:32,10.1.1.7,1,-0.470,-0.470,-0.470,0.000,0.000,0.000
1640671472650744832,2021-12-28-06:04:32,10.1.1.7,18,-0.470,-0.470,-0.470,0.000,0.000,0.000
1640671474608665088,2021-12-28-06:04:34,10.1.1.7,7,-0.470,-0.470,-0.470,0.000,0.000,0.000
1640671474688728064,2021-12-28-06:04:34,10.1.1.7,6,-0.470,-0.470,-0.470,0.000,0.000,0.000
1640671476646279936,2021-12-28-06:04:36,10.1.1.7,16,-0.470,-0.470,-0.470,0.000,0.000,0.000
1640671476730380032,2021-12-28-06:04:36,10.1.1.7,13,-0.470,-0.470,-0.470,0.000,0.000,0.000
1640671478646166016,2021-12-28-06:04:38,10.1.1.7,3,-0.470,-0.470,-0.470,0.000,0.000,0.000
1640671478724962048,2021-12-28-06:04:38,10.1.1.7,0,-0.470,-0.470,-0.470,0.000,0.000,0.000
1640671480722116864,2021-12-28-06:04:40,10.1.1.7,19,-0.470,-0.470,-0.470,0.000,0.000,0.000
1640671480802377984,2021-12-28-06:04:40,10.1.1.7,18,-0.470,-0.470,-0.470,0.000,0.000,0.000
1640671482779464960,2021-12-28-06:04:42,10.1.1.7,4,-0.470,-0.470,-0.470,0.000,0.000,0.000
1640671482860073984,2021-12-28-06:04:42,10.1.1.7,2,-0.470,-0.470,-0.470,0.000,0.000,0.000
1640671484798104064,2021-12-28-06:04:44,10.1.1.7,5,-0.470,-0.470,-0.470,0.000,0.000,0.000
1640671484876837120,2021-12-28-06:04:44,10.1.1.7,0,-0.470,-0.470,-0.470,0.000,0.000,0.000
1640671486833421056,2021-12-28-06:04:46,10.1.1.7,5,-0.470,-0.470,-0.470,0.000,0.000,0.000
1640671486913652992,2021-12-28-06:04:46,10.1.1.7,2,-0.470,-0.470,-0.470,0.000,0.000,0.000
1640671488890791936,2021-12-28-06:04:48,10.1.1.7,3,-0.470,-0.470,-0.470,0.000,0.000,0.000
1640671488990361088,2021-12-28-06:04:48,10.1.1.7,19,-0.470,-0.470,-0.470,0.000,0.000,0.000
1640671490948216064,2021-12-28-06:04:50,10.1.1.7,9,-0.470,-0.470,-0.470,0.000,0.000,0.000
1640671491027344896,2021-12-28-06:04:51,10.1.1.7,3,-0.470,-0.470,-0.470,0.000,0.000,0.000
1640671493065124864,2021-12-28-06:04:53,10.1.1.7,0,-0.470,-0.470,-0.470,0.000,0.000,0.000
1640671493165696000,2021-12-28-06:04:53,10.1.1.7,15,-0.470,-0.470,-0.470,0.000,0.000,0.000
1640671495154316032,2021-12-28-06:04:55,10.1.1.7,18,-0.470,-0.470,-0.470,0.000,0.000,0.000
1640671495235491072,2021-12-28-06:04:55,10.1.1.7,11,-0.470,-0.470,-0.470,0.000,0.000,0.000
1640671497221241088,2021-12-28-06:04:57,10.1.1.7,18,-0.470,-0.470,-0.470,0.000,0.000,0.000
1640671497301003008,2021-12-28-06:04:57,10.1.1.7,16,-0.470,-0.470,-0.470,0.000,0.000,0.000
1640671499285234944,2021-12-28-06:04:59,10.1.1.7,11,-0.470,-0.470,-0.470,0.000,0.000,0.000
1640671499366486016,2021-12-28-06:04:59,10.1.1.7,10,-0.470,-0.470,-0.470,0.000,0.000,0.000
1640671501307506944,2021-12-28-06:05:01,10.1.1.7,6,-0.470,-0.470,-0.470,0.000,0.000,0.000
1640671501387821056,2021-12-28-06:05:01,10.1.1.7,4,-0.470,-0.470,-0.470,0.000,0.000,0.000
1640671503327927040,2021-12-28-06:05:03,10.1.1.7,4,-0.470,-0.470,-0.470,0.000,0.000,0.000
1640671503408890112,2021-12-28-06:05:03,10.1.1.7,2,-0.470,-0.470,-0.470,0.000,0.000,0.000
1640671505369658880,2021-12-28-06:05:05,10.1.1.7,6,-0.470,-0.470,-0.470,0.000,0.000,0.000
1640671505468087808,2021-12-28-06:05:05,10.1.1.7,18,-0.470,-0.470,-0.470,0.000,0.000,0.000
1640671507467689984,2021-12-28-06:05:07,10.1.1.7,12,-0.470,-0.470,-0.470,0.000,0.000,0.000
1640671507547282944,2021-12-28-06:05:07,10.1.1.7,9,-0.470,-0.470,-0.470,0.000,0.000,0.000
1640671509505405952,2021-12-28-06:05:09,10.1.1.7,10,-0.470,-0.470,-0.470,0.000,0.000,0.000
1640671509585292032,2021-12-28-06:05:09,10.1.1.7,4,-0.470,-0.470,-0.470,0.000,0.000,0.000
1640671511544120064,2021-12-28-06:05:11,10.1.1.7,0,-0.470,-0.470,-0.470,0.000,0.000,0.000
1640671511666871040,2021-12-28-06:05:11,10.1.1.7,6,-0.470,-0.470,-0.470,0.000,0.000,0.000
1640671513661558016,2021-12-28-06:05:13,10.1.1.7,5,-0.470,-0.470,-0.470,0.000,0.000,0.000
1640671513740599040,2021-12-28-06:05:13,10.1.1.7,2,-0.470,-0.470,-0.470,0.000,0.000,0.000
1640671515775163904,2021-12-28-06:05:15,10.1.1.7,0,-0.470,-0.470,-0.470,0.000,0.000,0.000
1640671515857920000,2021-12-28-06:05:15,10.1.1.7,1,-0.470,-0.470,-0.470,0.000,0.000,0.000
1640671517816237824,2021-12-28-06:05:17,10.1.1.7,11,-0.470,-0.470,-0.470,0.000,0.000,0.000
1640671517895904000,2021-12-28-06:05:17,10.1.1.7,7,-0.470,-0.470,-0.470,0.000,0.000,0.000
1640671519913352960,2021-12-28-06:05:19,10.1.1.7,14,-0.470,-0.470,-0.470,0.000,0.000,0.000
1640671520013281024,2021-12-28-06:05:20,10.1.1.7,19,-0.470,-0.470,-0.470,0.000,0.000,0.000
1640671521968792832,2021-12-28-06:05:21,10.1.1.7,18,-0.470,-0.470,-0.470,0.000,0.000,0.000
1640671522049004032,2021-12-28-06:05:22,10.1.1.7,15,-0.470,-0.470,-0.470,0.000,0.000,0.000
1640671524006189056,2021-12-28-06:05:24,10.1.1.7,17,-0.470,-0.470,-0.470,0.000,0.000,0.000
1640671524086436864,2021-12-28-06:05:24,10.1.1.7,13,-0.470,-0.470,-0.470,0.000,0.000,0.000
1640671526091859200,2021-12-28-06:05:26,10.1.1.7,16,-0.470,-0.470,-0.470,0.000,0.000,0.000
1640671526171622912,2021-12-28-06:05:26,10.1.1.7,11,-0.470,-0.470,-0.470,0.000,0.000,0.000
1640671528160628992,2021-12-28-06:05:28,10.1.1.7,16,-0.470,-0.470,-0.470,0.000,0.000,0.000
1640671528239864064,2021-12-28-06:05:28,10.1.1.7,10,-0.470,-0.470,-0.470,0.000,0.000,0.000
1640671530184972032,2021-12-28-06:05:30,10.1.1.7,6,-0.470,-0.470,-0.470,0.000,0.000,0.000
1640671530281244928,2021-12-28-06:05:30,10.1.1.7,0,-0.470,-0.470,-0.470,0.000,0.000,0.000
1640671532268158976,2021-12-28-06:05:32,10.1.1.7,5,-0.470,-0.470,-0.470,0.000,0.000,0.000
1640671532348403968,2021-12-28-06:05:32,10.1.1.7,3,-0.470,-0.470,-0.470,0.000,0.000,0.000
1640671534330193152,2021-12-28-06:05:34,10.1.1.7,10,-0.470,-0.470,-0.470,0.000,0.000,0.000
1640671534410407936,2021-12-28-06:05:34,10.1.1.7,9,-0.470,-0.470,-0.470,0.000,0.000,0.000
1640671536491343872,2021-12-28-06:05:36,10.1.1.7,16,-0.470,-0.470,-0.470,0.000,0.000,0.000
1640671536571351040,2021-12-28-06:05:36,10.1.1.7,11,-0.470,-0.470,-0.470,0.000,0.000,0.000
1640671538631089920,2021-12-28-06:05:38,10.1.1.7,8,-0.470,-0.470,-0.470,0.000,0.000,0.000
1640671538710449920,2021-12-28-06:05:38,10.1.1.7,1,-0.470,-0.470,-0.470,0.000,0.000,0.000
1640671540669325056,2021-12-28-06:05:40,10.1.1.7,4,-0.470,-0.470,-0.470,0.000,0.000,0.000
1640671540750159872,2021-12-28-06:05:40,10.1.1.7,3,-0.470,-0.470,-0.470,0.000,0.000,0.000
1640671542707902976,2021-12-28-06:05:42,10.1.1.7,6,-0.470,-0.470,-0.470,0.000,0.000,0.000
1640671542787524864,2021-12-28-06:05:42,10.1.1.7,3,-0.470,-0.470,-0.470,0.000,0.000,0.000
1640671544784910848,2021-12-28-06:05:44,10.1.1.7,3,-0.470,-0.470,-0.470,0.000,0.000,0.000
1640671544884654080,2021-12-28-06:05:44,10.1.1.7,18,-0.470,-0.470,-0.470,0.000,0.000,0.000
1640671546822923776,2021-12-28-06:05:46,10.1.1.7,5,-0.470,-0.470,-0.470,0.000,0.000,0.000
1640671546903184896,2021-12-28-06:05:46,10.1.1.7,3,-0.470,-0.470,-0.470,0.000,0.000,0.000
1640671548860284928,2021-12-28-06:05:48,10.1.1.7,5,-0.470,-0.470,-0.470,0.000,0.000,0.000
1640671548940499968,2021-12-28-06:05:48,10.1.1.7,1,-0.470,-0.470,-0.470,0.000,0.000,0.000
1640671550997064960,2021-12-28-06:05:50,10.1.1.7,0,-0.470,-0.470,-0.470,0.000,0.000,0.000
1640671551136940032,2021-12-28-06:05:51,10.1.1.7,1,-0.470,-0.470,-0.470,0.000,0.000,0.000
1640671553094640896,2021-12-28-06:05:53,10.1.1.7,14,-0.470,-0.470,-0.470,0.000,0.000,0.000
1640671553173487872,2021-12-28-06:05:53,10.1.1.7,11,-0.470,-0.470,-0.470,0.000,0.000,0.000
1640671555130341888,2021-12-28-06:05:55,10.1.1.7,3,-0.470,-0.470,-0.470,0.000,0.000,0.000
1640671555230514176,2021-12-28-06:05:55,10.1.1.7,19,-0.470,-0.470,-0.470,0.000,0.000,0.000
1640671557231525888,2021-12-28-06:05:57,10.1.1.7,18,-0.470,-0.470,-0.470,0.000,0.000,0.000
1640671557328984064,2021-12-28-06:05:57,10.1.1.7,12,-0.470,-0.470,-0.470,0.000,0.000,0.000
1640671559297612032,2021-12-28-06:05:59,10.1.1.7,10,-0.470,-0.470,-0.470,0.000,0.000,0.000
1640671559377526016,2021-12-28-06:05:59,10.1.1.7,9,-0.470,-0.470,-0.470,0.000,0.000,0.000
1640671561342788096,2021-12-28-06:06:01,10.1.1.7,14,-0.470,-0.470,-0.470,0.000,0.000,0.000
1640671561423463936,2021-12-28-06:06:01,10.1.1.7,11,-0.470,-0.470,-0.470,0.000,0.000,0.000
1640671563367233024,2021-12-28-06:06:03,10.1.1.7,17,-0.470,-0.470,-0.470,0.000,0.000,0.000
1640671563447259904,2021-12-28-06:06:03,10.1.1.7,15,-0.470,-0.470,-0.470,0.000,0.000,0.000
1640671565388737024,2021-12-28-06:06:05,10.1.1.7,5,-0.470,-0.470,-0.470,0.000,0.000,0.000
1640671565469036032,2021-12-28-06:06:05,10.1.1.7,3,-0.470,-0.470,-0.470,0.000,0.000,0.000
1640671567409529856,2021-12-28-06:06:07,10.1.1.7,0,-0.470,-0.470,-0.470,0.000,0.000,0.000
1640671567550713088,2021-12-28-06:06:07,10.1.1.7,5,-0.470,-0.470,-0.470,0.000,0.000,0.000
1640671569509273088,2021-12-28-06:06:09,10.1.1.7,6,-0.470,-0.470,-0.470,0.000,0.000,0.000
1640671569589008128,2021-12-28-06:06:09,10.1.1.7,3,-0.470,-0.470,-0.470,0.000,0.000,0.000
1640671571587826944,2021-12-28-06:06:11,10.1.1.7,15,-0.470,-0.470,-0.470,0.000,0.000,0.000
1640671571667995904,2021-12-28-06:06:11,10.1.1.7,11,-0.470,-0.470,-0.470,0.000,0.000,0.000
1640671573626228992,2021-12-28-06:06:13,10.1.1.7,15,-0.470,-0.470,-0.470,0.000,0.000,0.000
1640671573706171904,2021-12-28-06:06:13,10.1.1.7,12,-0.470,-0.470,-0.470,0.000,0.000,0.000
1640671575703838976,2021-12-28-06:06:15,10.1.1.7,12,-0.470,-0.470,-0.470,0.000,0.000,0.000
1640671575783776000,2021-12-28-06:06:15,10.1.1.7,8,-0.470,-0.470,-0.470,0.000,0.000,0.000
1640671577761499904,2021-12-28-06:06:17,10.1.1.7,15,-0.470,-0.470,-0.470,0.000,0.000,0.000
1640671577842114048,2021-12-28-06:06:17,10.1.1.7,13,-0.470,-0.470,-0.470,0.000,0.000,0.000
1640671579779213824,2021-12-28-06:06:19,10.1.1.7,9,-0.470,-0.470,-0.470,0.000,0.000,0.000
1640671579858787072,2021-12-28-06:06:19,10.1.1.7,6,-0.470,-0.470,-0.470,0.000,0.000,0.000
1640671581815553024,2021-12-28-06:06:21,10.1.1.7,12,-0.470,-0.470,-0.470,0.000,0.000,0.000
1640671581895726080,2021-12-28-06:06:21,10.1.1.7,11,-0.470,-0.470,-0.470,0.000,0.000,0.000
1640671583833335040,2021-12-28-06:06:23,10.1.1.7,0,-0.470,-0.470,-0.470,0.000,0.000,0.000
1640671583932580096,2021-12-28-06:06:23,10.1.1.7,18,-0.470,-0.470,-0.470,0.000,0.000,0.000
1640671585849715968,2021-12-28-06:06:25,10.1.1.7,4,-0.470,-0.470,-0.470,0.000,0.000,0.000
1640671585929737984,2021-12-28-06:06:25,10.1.1.7,1,-0.470,-0.470,-0.470,0.000,0.000,0.000
1640671587887392000,2021-12-28-06:06:27,10.1.1.7,19,-0.470,-0.470,-0.470,0.000,0.000,0.000
1640671587966938112,2021-12-28-06:06:27,10.1.1.7,17,-0.470,-0.470,-0.470,0.000,0.000,0.000
1640671589903804160,2021-12-28-06:06:29,10.1.1.7,2,-0.470,-0.470,-0.470,0.000,0.000,0.000
1640671590002554880,2021-12-28-06:06:30,10.1.1.7,0,-0.470,-0.470,-0.470,0.000,0.000,0.000
1640671591951945984,2021-12-28-06:06:31,10.1.1.7,2,-0.470,-0.470,-0.470,0.000,0.000,0.000
1640671592033025024,2021-12-28-06:06:32,10.1.1.7,0,-0.470,-0.470,-0.470,0.000,0.000,0.000
1640671594019748864,2021-12-28-06:06:34,10.1.1.7,6,-0.470,-0.470,-0.470,0.000,0.000,0.000
1640671594100542976,2021-12-28-06:06:34,10.1.1.7,5,-0.470,-0.470,-0.470,0.000,0.000,0.000
1640671596023361024,2021-12-28-06:06:36,10.1.1.7,1,-0.470,-0.470,-0.470,0.000,0.000,0.000
1640671596103956992,2021-12-28-06:06:36,10.1.1.7,0,-0.470,-0.470,-0.470,0.000,0.000,0.000
1640671598086046976,2021-12-28-06:06:38,10.1.1.7,14,-0.470,-0.470,-0.470,0.000,0.000,0.000
1640671598166404096,2021-12-28-06:06:38,10.1.1.7,7,-0.470,-0.470,-0.470,0.000,0.000,0.000
1640671600111803136,2021-12-28-06:06:40,10.1.1.7,18,-0.470,-0.470,-0.470,0.000,0.000,0.000
1640671600187468032,2021-12-28-06:06:40,10.1.1.7,12,-0.470,-0.470,-0.470,0.000,0.000,0.000
1640671602126982912,2021-12-28-06:06:42,10.1.1.7,4,-0.470,-0.470,-0.470,0.000,0.000,0.000
1640671602208282880,2021-12-28-06:06:42,10.1.1.7,2,-0.470,-0.470,-0.470,0.000,0.000,0.000
1640671604186481920,2021-12-28-06:06:44,10.1.1.7,6,-0.470,-0.470,-0.470,0.000,0.000,0.000
1640671604267232768,2021-12-28-06:06:44,10.1.1.7,3,-0.470,-0.470,-0.470,0.000,0.000,0.000
1640671606265036032,2021-12-28-06:06:46,10.1.1.7,2,-0.470,-0.470,-0.470,0.000,0.000,0.000
1640671606364280064,2021-12-28-06:06:46,10.1.1.7,18,-0.470,-0.470,-0.470,0.000,0.000,0.000
1640671608282458112,2021-12-28-06:06:48,10.1.1.7,1,-0.470,-0.470,-0.470,0.000,0.000,0.000
1640671608382267904,2021-12-28-06:06:48,10.1.1.7,18,-0.470,-0.470,-0.470,0.000,0.000,0.000
1640671610301018112,2021-12-28-06:06:50,10.1.1.7,8,-0.470,-0.470,-0.470,0.000,0.000,0.000
1640671610380495104,2021-12-28-06:06:50,10.1.1.7,6,-0.470,-0.470,-0.470,0.000,0.000,0.000
1640671612398117120,2021-12-28-06:06:52,10.1.1.7,15,-0.470,-0.470,-0.470,0.000,0.000,0.000
1640671612478135040,2021-12-28-06:06:52,10.1.1.7,12,-0.470,-0.470,-0.470,0.000,0.000,0.000
1640671614415393024,2021-12-28-06:06:54,10.1.1.7,5,-0.470,-0.470,-0.470,0.000,0.000,0.000
1640671614495523840,2021-12-28-06:06:54,10.1.1.7,0,-0.470,-0.470,-0.470,0.000,0.000,0.000
1640671616472055808,2021-12-28-06:06:56,10.1.1.7,6,-0.470,-0.470,-0.470,0.000,0.000,0.000
1640671616552079872,2021-12-28-06:06:56,10.1.1.7,4,-0.470,-0.470,-0.470,0.000,0.000,0.000
1640671618508611840,2021-12-28-06:06:58,10.1.1.7,10,-0.470,-0.470,-0.470,0.000,0.000,0.000
1640671618588335872,2021-12-28-06:06:58,10.1.1.7,7,-0.470,-0.470,-0.470,0.000,0.000,0.000
1640671620684835072,2021-12-28-06:07:00,10.1.1.7,15,-0.470,-0.470,-0.470,0.000,0.000,0.000
1640671620765400832,2021-12-28-06:07:00,10.1.1.7,14,-0.470,-0.470,-0.470,0.000,0.000,0.000
1640671622747732992,2021-12-28-06:07:02,10.1.1.7,0,-0.470,-0.470,-0.470,0.000,0.000,0.000
1640671622847547904,2021-12-28-06:07:02,10.1.1.7,18,-0.470,-0.470,-0.470,0.000,0.000,0.000
1640671624796487936,2021-12-28-06:07:04,10.1.1.7,18,-0.470,-0.470,-0.470,0.000,0.000,0.000
1640671624876094208,2021-12-28-06:07:04,10.1.1.7,16,-0.470,-0.470,-0.470,0.000,0.000,0.000
1640671626821619968,2021-12-28-06:07:06,10.1.1.7,16,-0.470,-0.470,-0.470,0.000,0.000,0.000
1640671626902332160,2021-12-28-06:07:06,10.1.1.7,15,-0.470,-0.470,-0.470,0.000,0.000,0.000
1640671628845458944,2021-12-28-06:07:08,10.1.1.7,2,-0.470,-0.470,-0.470,0.000,0.000,0.000
1640671628945971968,2021-12-28-06:07:08,10.1.1.7,19,-0.470,-0.470,-0.470,0.000,0.000,0.000
1640671630887499008,2021-12-28-06:07:10,10.1.1.7,0,-0.470,-0.470,-0.470,0.000,0.000,0.000
1640671630986856960,2021-12-28-06:07:10,10.1.1.7,16,-0.470,-0.470,-0.470,0.000,0.000,0.000
1640671632967653120,2021-12-28-06:07:12,10.1.1.7,19,-0.470,-0.470,-0.470,0.000,0.000,0.000
1640671633047454208,2021-12-28-06:07:13,10.1.1.7,16,-0.470,-0.470,-0.470,0.000,0.000,0.000
1640671635007830016,2021-12-28-06:07:15,10.1.1.7,12,-0.470,-0.470,-0.470,0.000,0.000,0.000
1640671635088078080,2021-12-28-06:07:15,10.1.1.7,11,-0.470,-0.470,-0.470,0.000,0.000,0.000
1640671637046438912,2021-12-28-06:07:17,10.1.1.7,15,-0.470,-0.470,-0.470,0.000,0.000,0.000
1640671637126494976,2021-12-28-06:07:17,10.1.1.7,12,-0.470,-0.470,-0.470,0.000,0.000,0.000
1640671639084537088,2021-12-28-06:07:19,10.1.1.7,4,-0.470,-0.470,-0.470,0.000,0.000,0.000
1640671639164115968,2021-12-28-06:07:19,10.1.1.7,0,-0.470,-0.470,-0.470,0.000,0.000,0.000
1640671641142211840,2021-12-28-06:07:21,10.1.1.7,11,-0.470,-0.470,-0.470,0.000,0.000,0.000
1640671641222710016,2021-12-28-06:07:21,10.1.1.7,9,-0.470,-0.470,-0.470,0.000,0.000,0.000
1640671643259588864,2021-12-28-06:07:23,10.1.1.7,13,-0.470,-0.470,-0.470,0.000,0.000,0.000
1640671643339642112,2021-12-28-06:07:23,10.1.1.7,9,-0.470,-0.470,-0.470,0.000,0.000,0.000
1640671645277139968,2021-12-28-06:07:25,10.1.1.7,2,-0.470,-0.470,-0.470,0.000,0.000,0.000
1640671645358274816,2021-12-28-06:07:25,10.1.1.7,0,-0.470,-0.470,-0.470,0.000,0.000,0.000
1640671647294621952,2021-12-28-06:07:27,10.1.1.7,5,-0.470,-0.470,-0.470,0.000,0.000,0.000
1640671647374371072,2021-12-28-06:07:27,10.1.1.7,0,-0.470,-0.470,-0.470,0.000,0.000,0.000
1640671649391731968,2021-12-28-06:07:29,10.1.1.7,4,-0.470,-0.470,-0.470,0.000,0.000,0.000
1640671649470609920,2021-12-28-06:07:29,10.1.1.7,1,-0.470,-0.470,-0.470,0.000,0.000,0.000
1640671651428919040,2021-12-28-06:07:31,10.1.1.7,7,-0.470,-0.470,-0.470,0.000,0.000,0.000
1640671651507955968,2021-12-28-06:07:31,10.1.1.7,2,-0.470,-0.470,-0.470,0.000,0.000,0.000
1640671653485979136,2021-12-28-06:07:33,10.1.1.7,13,-0.470,-0.470,-0.470,0.000,0.000,0.000
1640671653564587008,2021-12-28-06:07:33,10.1.1.7,9,-0.470,-0.470,-0.470,0.000,0.000,0.000
1640671655531023872,2021-12-28-06:07:35,10.1.1.7,4,-0.470,-0.470,-0.470,0.000,0.000,0.000
1640671655632227840,2021-12-28-06:07:35,10.1.1.7,11,-0.470,-0.470,-0.470,0.000,0.000,0.000
1640671657599852032,2021-12-28-06:07:37,10.1.1.7,19,-0.470,-0.470,-0.470,0.000,0.000,0.000
1640671657678877184,2021-12-28-06:07:37,10.1.1.7,16,-0.470,-0.470,-0.470,0.000,0.000,0.000
1640671659643763968,2021-12-28-06:07:39,10.1.1.7,14,-0.470,-0.470,-0.470,0.000,0.000,0.000
1640671659724240896,2021-12-28-06:07:39,10.1.1.7,11,-0.470,-0.470,-0.470,0.000,0.000,0.000
1640671661726001152,2021-12-28-06:07:41,10.1.1.7,0,-0.470,-0.470,-0.470,0.000,0.000,0.000
1640671661826884096,2021-12-28-06:07:41,10.1.1.7,18,-0.470,-0.470,-0.470,0.000,0.000,0.000
1640671663788556032,2021-12-28-06:07:43,10.1.1.7,5,-0.470,-0.470,-0.470,0.000,0.000,0.000
1640671663873862912,2021-12-28-06:07:43,10.1.1.7,2,-0.470,-0.470,-0.470,0.000,0.000,0.000
1640671665887942144,2021-12-28-06:07:45,10.1.1.7,4,-0.470,-0.470,-0.470,0.000,0.000,0.000
1640671665968645120,2021-12-28-06:07:45,10.1.1.7,3,-0.470,-0.470,-0.470,0.000,0.000,0.000
1640671667986553856,2021-12-28-06:07:47,10.1.1.7,9,-0.470,-0.470,-0.470,0.000,0.000,0.000
1640671668066507008,2021-12-28-06:07:48,10.1.1.7,4,-0.470,-0.470,-0.470,0.000,0.000,0.000
1640671670124965888,2021-12-28-06:07:50,10.1.1.7,20,-0.470,-0.470,-0.470,0.000,0.000,0.000
1640671670204808960,2021-12-28-06:07:50,10.1.1.7,16,-0.470,-0.470,-0.470,0.000,0.000,0.000
1640671672187992064,2021-12-28-06:07:52,10.1.1.7,12,-0.470,-0.470,-0.470,0.000,0.000,0.000
1640671672264547072,2021-12-28-06:07:52,10.1.1.7,3,-0.470,-0.470,-0.470,0.000,0.000,0.000
1640671674301132800,2021-12-28-06:07:54,10.1.1.7,16,-0.470,-0.470,-0.470,0.000,0.000,0.000
1640671674380787968,2021-12-28-06:07:54,10.1.1.7,4,-0.470,-0.470,-0.470,0.000,0.000,0.000
1640671676357945856,2021-12-28-06:07:56,10.1.1.7,1,-0.470,-0.470,-0.470,0.000,0.000,0.000
1640671676458398976,2021-12-28-06:07:56,10.1.1.7,19,-0.470,-0.470,-0.470,0.000,0.000,0.000
1640671678456178944,2021-12-28-06:07:58,10.1.1.7,3,-0.470,-0.470,-0.470,0.000,0.000,0.000
1640671678615436032,2021-12-28-06:07:58,10.1.1.7,9,-0.470,-0.470,-0.470,0.000,0.000,0.000
1640671680552741120,2021-12-28-06:08:00,10.1.1.7,4,-0.470,-0.470,-0.470,0.000,0.000,0.000
1640671680633223936,2021-12-28-06:08:00,10.1.1.7,3,-0.470,-0.470,-0.470,0.000,0.000,0.000
1640671682589293056,2021-12-28-06:08:02,10.1.1.7,15,-0.470,-0.470,-0.470,0.000,0.000,0.000
1640671682668837120,2021-12-28-06:08:02,10.1.1.7,12,-0.470,-0.470,-0.470,0.000,0.000,0.000
1640671684705650944,2021-12-28-06:08:04,10.1.1.7,3,-0.470,-0.470,-0.470,0.000,0.000,0.000
1640671684805083904,2021-12-28-06:08:04,10.1.1.7,18,-0.470,-0.470,-0.470,0.000,0.000,0.000
1640671686748496896,2021-12-28-06:08:06,10.1.1.7,14,-0.470,-0.470,-0.470,0.000,0.000,0.000
1640671686827740928,2021-12-28-06:08:06,10.1.1.7,8,-0.470,-0.470,-0.470,0.000,0.000,0.000
1640671688814801920,2021-12-28-06:08:08,10.1.1.7,6,-0.470,-0.470,-0.470,0.000,0.000,0.000
1640671688917154048,2021-12-28-06:08:08,10.1.1.7,18,-0.470,-0.470,-0.470,0.000,0.000,0.000
1640671690922578944,2021-12-28-06:08:10,10.1.1.7,12,-0.470,-0.470,-0.470,0.000,0.000,0.000
1640671691003421184,2021-12-28-06:08:11,10.1.1.7,10,-0.470,-0.470,-0.470,0.000,0.000,0.000
1640671693005854976,2021-12-28-06:08:13,10.1.1.7,13,-0.470,-0.470,-0.470,0.000,0.000,0.000
1640671693086491136,2021-12-28-06:08:13,10.1.1.7,10,-0.470,-0.470,-0.470,0.000,0.000,0.000
1640671695048805888,2021-12-28-06:08:15,10.1.1.7,19,-0.470,-0.470,-0.470,0.000,0.000,0.000
1640671695129939200,2021-12-28-06:08:15,10.1.1.7,16,-0.470,-0.470,-0.470,0.000,0.000,0.000
1640671697108450816,2021-12-28-06:08:17,10.1.1.7,10,-0.470,-0.470,-0.470,0.000,0.000,0.000
1640671697188412928,2021-12-28-06:08:17,10.1.1.7,8,-0.470,-0.470,-0.470,0.000,0.000,0.000
1640671699127645952,2021-12-28-06:08:19,10.1.1.7,10,-0.470,-0.470,-0.470,0.000,0.000,0.000
1640671699207323136,2021-12-28-06:08:19,10.1.1.7,7,-0.470,-0.470,-0.470,0.000,0.000,0.000
1640671701266050048,2021-12-28-06:08:21,10.1.1.7,2,-0.470,-0.470,-0.470,0.000,0.000,0.000
1640671701366266880,2021-12-28-06:08:21,10.1.1.7,18,-0.470,-0.470,-0.470,0.000,0.000,0.000
1640671703304310016,2021-12-28-06:08:23,10.1.1.7,3,-0.470,-0.470,-0.470,0.000,0.000,0.000
1640671703385110016,2021-12-28-06:08:23,10.1.1.7,0,-0.470,-0.470,-0.470,0.000,0.000,0.000
1640671705442451968,2021-12-28-06:08:25,10.1.1.7,11,-0.470,-0.470,-0.470,0.000,0.000,0.000
1640671705522756096,2021-12-28-06:08:25,10.1.1.7,7,-0.470,-0.470,-0.470,0.000,0.000,0.000
1640671707519970816,2021-12-28-06:08:27,10.1.1.7,10,-0.470,-0.470,-0.470,0.000,0.000,0.000
1640671707601232128,2021-12-28-06:08:27,10.1.1.7,5,-0.470,-0.470,-0.470,0.000,0.000,0.000
1640671709576880896,2021-12-28-06:08:29,10.1.1.7,3,-0.470,-0.470,-0.470,0.000,0.000,0.000
1640671709658319104,2021-12-28-06:08:29,10.1.1.7,2,-0.470,-0.470,-0.470,0.000,0.000,0.000
1640671711614737920,2021-12-28-06:08:31,10.1.1.7,10,-0.470,-0.470,-0.470,0.000,0.000,0.000
1640671711704816128,2021-12-28-06:08:31,10.1.1.7,10,-0.470,-0.470,-0.470,0.000,0.000,0.000
1640671713671212800,2021-12-28-06:08:33,10.1.1.7,19,-0.470,-0.470,-0.470,0.000,0.000,0.000
1640671713750555136,2021-12-28-06:08:33,10.1.1.7,16,-0.470,-0.470,-0.470,0.000,0.000,0.000
1640671715707796224,2021-12-28-06:08:35,10.1.1.7,16,-0.470,-0.470,-0.470,0.000,0.000,0.000
1640671715787683840,2021-12-28-06:08:35,10.1.1.7,12,-0.470,-0.470,-0.470,0.000,0.000,0.000
1640671717764626944,2021-12-28-06:08:37,10.1.1.7,1,-0.470,-0.470,-0.470,0.000,0.000,0.000
1640671717864135936,2021-12-28-06:08:37,10.1.1.7,16,-0.470,-0.470,-0.470,0.000,0.000,0.000
1640671719907584000,2021-12-28-06:08:39,10.1.1.7,17,-0.470,-0.470,-0.470,0.000,0.000,0.000
1640671719987517184,2021-12-28-06:08:39,10.1.1.7,14,-0.470,-0.470,-0.470,0.000,0.000,0.000
1640671721956185088,2021-12-28-06:08:41,10.1.1.7,10,-0.470,-0.470,-0.470,0.000,0.000,0.000
1640671722035964928,2021-12-28-06:08:42,10.1.1.7,5,-0.470,-0.470,-0.470,0.000,0.000,0.000
1640671724123339008,2021-12-28-06:08:44,10.1.1.7,1,-0.470,-0.470,-0.470,0.000,0.000,0.000
1640671724223697920,2021-12-28-06:08:44,10.1.1.7,19,-0.470,-0.470,-0.470,0.000,0.000,0.000
1640671726225644032,2021-12-28-06:08:46,10.1.1.7,14,-0.470,-0.470,-0.470,0.000,0.000,0.000
1640671726307014912,2021-12-28-06:08:46,10.1.1.7,12,-0.470,-0.470,-0.470,0.000,0.000,0.000
1640671728288387072,2021-12-28-06:08:48,10.1.1.7,3,-0.470,-0.470,-0.470,0.000,0.000,0.000
1640671728368331008,2021-12-28-06:08:48,10.1.1.7,0,-0.470,-0.470,-0.470,0.000,0.000,0.000
1640671730407977984,2021-12-28-06:08:50,10.1.1.7,5,-0.470,-0.470,-0.470,0.000,0.000,0.000
1640671730487796992,2021-12-28-06:08:50,10.1.1.7,3,-0.470,-0.470,-0.470,0.000,0.000,0.000
1640671732428550912,2021-12-28-06:08:52,10.1.1.7,1,-0.470,-0.470,-0.470,0.000,0.000,0.000
1640671732528013056,2021-12-28-06:08:52,10.1.1.7,18,-0.470,-0.470,-0.470,0.000,0.000,0.000
1640671734485775872,2021-12-28-06:08:54,10.1.1.7,18,-0.470,-0.470,-0.470,0.000,0.000,0.000
1640671734570554112,2021-12-28-06:08:54,10.1.1.7,14,-0.470,-0.470,-0.470,0.000,0.000,0.000
1640671736583762944,2021-12-28-06:08:56,10.1.1.7,15,-0.470,-0.470,-0.470,0.000,0.000,0.000
1640671736663952128,2021-12-28-06:08:56,10.1.1.7,12,-0.470,-0.470,-0.470,0.000,0.000,0.000
1640671738621548800,2021-12-28-06:08:58,10.1.1.7,9,-0.470,-0.470,-0.470,0.000,0.000,0.000
1640671738702065920,2021-12-28-06:08:58,10.1.1.7,7,-0.470,-0.470,-0.470,0.000,0.000,0.000
1640671740679474176,2021-12-28-06:09:00,10.1.1.7,8,-0.470,-0.470,-0.470,0.000,0.000,0.000
1640671740759232000,2021-12-28-06:09:00,10.1.1.7,6,-0.470,-0.470,-0.470,0.000,0.000,0.000
1640671742718144768,2021-12-28-06:09:02,10.1.1.7,1,-0.470,-0.470,-0.470,0.000,0.000,0.000
1640671742816199936,2021-12-28-06:09:02,10.1.1.7,17,-0.470,-0.470,-0.470,0.000,0.000,0.000
1640671744773325824,2021-12-28-06:09:04,10.1.1.7,17,-0.470,-0.470,-0.470,0.000,0.000,0.000
1640671744853265920,2021-12-28-06:09:04,10.1.1.7,15,-0.470,-0.470,-0.470,0.000,0.000,0.000
1640671746831042048,2021-12-28-06:09:06,10.1.1.7,9,-0.470,-0.470,-0.470,0.000,0.000,0.000
1640671746910732032,2021-12-28-06:09:06,10.1.1.7,6,-0.470,-0.470,-0.470,0.000,0.000,0.000
1640671748867686912,2021-12-28-06:09:08,10.1.1.7,1,-0.470,-0.470,-0.470,0.000,0.000,0.000
1640671748987878144,2021-12-28-06:09:08,10.1.1.7,3,-0.470,-0.470,-0.470,0.000,0.000,0.000
1640671750984147968,2021-12-28-06:09:10,10.1.1.7,11,-0.470,-0.470,-0.470,0.000,0.000,0.000
1640671751064322048,2021-12-28-06:09:11,10.1.1.7,2,-0.470,-0.470,-0.470,0.000,0.000,0.000
1640671753053180928,2021-12-28-06:09:13,10.1.1.7,4,-0.470,-0.470,-0.470,0.000,0.000,0.000
1640671753133764096,2021-12-28-06:09:13,10.1.1.7,1,-0.470,-0.470,-0.470,0.000,0.000,0.000
1640671755100406784,2021-12-28-06:09:15,10.1.1.7,10,-0.470,-0.470,-0.470,0.000,0.000,0.000
1640671755179898112,2021-12-28-06:09:15,10.1.1.7,8,-0.470,-0.470,-0.470,0.000,0.000,0.000
1640671757124058112,2021-12-28-06:09:17,10.1.1.7,12,-0.470,-0.470,-0.470,0.000,0.000,0.000
1640671757204282880,2021-12-28-06:09:17,10.1.1.7,10,-0.470,-0.470,-0.470,0.000,0.000,0.000
1640671759146022144,2021-12-28-06:09:19,10.1.1.7,2,-0.470,-0.470,-0.470,0.000,0.000,0.000
1640671759226578944,2021-12-28-06:09:19,10.1.1.7,-1,-0.470,-0.470,-0.470,0.000,0.000,0.000
1640671761267267840,2021-12-28-06:09:21,10.1.1.7,9,-0.470,-0.470,-0.470,0.000,0.000,0.000
1640671761346825984,2021-12-28-06:09:21,10.1.1.7,3,-0.470,-0.470,-0.470,0.000,0.000,0.000
1640671763347011072,2021-12-28-06:09:23,10.1.1.7,11,-0.470,-0.470,-0.470,0.000,0.000,0.000
1640671763428240128,2021-12-28-06:09:23,10.1.1.7,9,-0.470,-0.470,-0.470,0.000,0.000,0.000
1640671765366781952,2021-12-28-06:09:25,10.1.1.7,17,-0.470,-0.470,-0.470,0.000,0.000,0.000
1640671765445987072,2021-12-28-06:09:25,10.1.1.7,14,-0.470,-0.470,-0.470,0.000,0.000,0.000
1640671767383901952,2021-12-28-06:09:27,10.1.1.7,7,-0.470,-0.470,-0.470,0.000,0.000,0.000
1640671767464452096,2021-12-28-06:09:27,10.1.1.7,6,-0.470,-0.470,-0.470,0.000,0.000,0.000
1640671769442475008,2021-12-28-06:09:29,10.1.1.7,9,-0.470,-0.470,-0.470,0.000,0.000,0.000
1640671769522177024,2021-12-28-06:09:29,10.1.1.7,5,-0.470,-0.470,-0.470,0.000,0.000,0.000
1640671771599670016,2021-12-28-06:09:31,10.1.1.7,19,-0.470,-0.470,-0.470,0.000,0.000,0.000
1640671771678926848,2021-12-28-06:09:31,10.1.1.7,13,-0.470,-0.470,-0.470,0.000,0.000,0.000
1640671773636670976,2021-12-28-06:09:33,10.1.1.7,7,-0.470,-0.470,-0.470,0.000,0.000,0.000
1640671773716162816,2021-12-28-06:09:33,10.1.1.7,4,-0.470,-0.470,-0.470,0.000,0.000,0.000
