FedericoMungari/DigitalTwin_service/Output/Output_script/script_ROSAPI_output_robots12_freq0_2.txt.csv
timestamp,node,latency,joint_1,joint_2,joint_3,joint_4,joint_5,joint_6
1640078371268649984,"2021-12-21,09:19:31",10.1.1.3,53815,0.000,0.000,0.000,0.000,0.000,0.000
1640078373734397952,"2021-12-21,09:19:33",10.1.1.3,0.47544097900390625,-0.010,-0.010,-0.010,0.000,0.000,0.000
1640078377879810048,"2021-12-21,09:19:35",10.1.1.3,1.3216829299926758,-0.020,-0.020,-0.020,0.000,0.000,0.000
1640078377926430976,"2021-12-21,09:19:37",10.1.1.3,4091,-0.020,-0.020,-0.020,0.000,0.000,0.000
1640078380084923904,"2021-12-21,09:19:40",10.1.1.3,2145,-0.030,-0.030,-0.030,0.000,0.000,0.000
1640078380100723968,"2021-12-21,09:19:40",10.1.1.3,2.16110897064209,-0.030,-0.030,-0.030,0.000,0.000,0.000
1640078380453536000,"2021-12-21,09:19:40",10.1.1.3,349,-0.040,-0.040,-0.040,0.000,0.000,0.000
1640078380483624960,"2021-12-21,09:19:40",10.1.1.3,0.37980103492736816,-0.040,-0.040,-0.040,0.000,0.000,0.000
1640078381059021824,"2021-12-21,09:19:41",10.1.1.3,573,-0.050,-0.050,-0.050,0.000,0.000,0.000
1640078381072957952,"2021-12-21,09:19:41",10.1.1.3,0.5872788429260254,-0.050,-0.050,-0.050,0.000,0.000,0.000
1640078381653790976,"2021-12-21,09:19:41",10.1.1.3,574,-0.060,-0.060,-0.060,0.000,0.000,0.000
1640078381667757056,"2021-12-21,09:19:41",10.1.1.3,0.5887899398803711,-0.060,-0.060,-0.060,0.000,0.000,0.000
1640078382081469184,"2021-12-21,09:19:42",10.1.1.3,400,-0.070,-0.070,-0.070,0.000,0.000,0.000
1640078382140651008,"2021-12-21,09:19:42",10.1.1.3,0.4681248664855957,-0.070,-0.070,-0.070,0.000,0.000,0.000
1640078382604737024,"2021-12-21,09:19:42",10.1.1.3,462,-0.080,-0.080,-0.080,0.000,0.000,0.000
1640078382654462976,"2021-12-21,09:19:42",10.1.1.3,0.5111579895019531,-0.080,-0.080,-0.080,0.000,0.000,0.000
1640078383013506816,"2021-12-21,09:19:43",10.1.1.3,356,-0.090,-0.090,-0.090,0.000,0.000,0.000
1640078383082803968,"2021-12-21,09:19:43",10.1.1.3,0.3972148895263672,-0.090,-0.090,-0.090,0.000,0.000,0.000
1640078383588547072,"2021-12-21,09:19:43",10.1.1.3,0.5039739608764648,-0.100,-0.100,-0.100,0.000,0.000,0.000
1640078384048830976,"2021-12-21,09:19:44",10.1.1.3,424,-0.110,-0.110,-0.110,0.000,0.000,0.000
1640078384086870016,"2021-12-21,09:19:44",10.1.1.3,0.4596731662750244,-0.110,-0.110,-0.110,0.000,0.000,0.000
1640078384456590848,"2021-12-21,09:19:44",10.1.1.3,366,-0.120,-0.120,-0.120,0.000,0.000,0.000
1640078384483465984,"2021-12-21,09:19:44",10.1.1.3,0.3949241638183594,-0.120,-0.120,-0.120,0.000,0.000,0.000
1640078384861454848,"2021-12-21,09:19:44",10.1.1.3,371,-0.130,-0.130,-0.130,0.000,0.000,0.000
1640078384893282816,"2021-12-21,09:19:44",10.1.1.3,0.4031641483306885,-0.130,-0.130,-0.130,0.000,0.000,0.000
1640078385253537792,"2021-12-21,09:19:45",10.1.1.3,357,-0.140,-0.140,-0.140,0.000,0.000,0.000
1640078385289207808,"2021-12-21,09:19:45",10.1.1.3,0.3942759037017822,-0.140,-0.140,-0.140,0.000,0.000,0.000
1640078385833347072,"2021-12-21,09:19:45",10.1.1.3,488,-0.150,-0.150,-0.150,0.000,0.000,0.000
1640078385870765056,"2021-12-21,09:19:45",10.1.1.3,0.5258359909057617,-0.150,-0.150,-0.150,0.000,0.000,0.000
1640078388097812992,"2021-12-21,09:19:48",10.1.1.3,2225,-0.160,-0.160,-0.160,0.000,0.000,0.000
1640078388127543040,"2021-12-21,09:19:48",10.1.1.3,2.2550418376922607,-0.160,-0.160,-0.160,0.000,0.000,0.000
1640078388538149120,"2021-12-21,09:19:48",10.1.1.3,407,-0.170,-0.170,-0.170,0.000,0.000,0.000
1640078388598195200,"2021-12-21,09:19:48",10.1.1.3,0.4680910110473633,-0.170,-0.170,-0.170,0.000,0.000,0.000
1640078389222071808,"2021-12-21,09:19:49",10.1.1.3,619,-0.180,-0.180,-0.180,0.000,0.000,0.000
1640078389242470144,"2021-12-21,09:19:49",10.1.1.3,0.6396801471710205,-0.180,-0.180,-0.180,0.000,0.000,0.000
1640078389590765056,"2021-12-21,09:19:49",10.1.1.3,344,-0.190,-0.190,-0.190,0.000,0.000,0.000
1640078389616697088,"2021-12-21,09:19:49",10.1.1.3,0.3706979751586914,-0.190,-0.190,-0.190,0.000,0.000,0.000
1640078390000495872,"2021-12-21,09:19:50",10.1.1.3,381,-0.200,-0.200,-0.200,0.000,0.000,0.000
1640078390065063936,"2021-12-21,09:19:50",10.1.1.3,0.4461479187011719,-0.200,-0.200,-0.200,0.000,0.000,0.000
1640078390469549824,"2021-12-21,09:19:50",10.1.1.3,399,-0.210,-0.210,-0.210,0.000,0.000,0.000
1640078390485481984,"2021-12-21,09:19:50",10.1.1.3,0.41597700119018555,-0.210,-0.210,-0.210,0.000,0.000,0.000
1640078391068588032,"2021-12-21,09:19:51",10.1.1.3,572,-0.220,-0.220,-0.220,0.000,0.000,0.000
1640078391077249024,"2021-12-21,09:19:51",10.1.1.3,0.581089973449707,-0.220,-0.220,-0.220,0.000,0.000,0.000
1640078391478488832,"2021-12-21,09:19:51",10.1.1.3,399,-0.230,-0.230,-0.230,0.000,0.000,0.000
1640078391488763136,"2021-12-21,09:19:51",10.1.1.3,0.4096381664276123,-0.230,-0.230,-0.230,0.000,0.000,0.000
1640078391847462912,"2021-12-21,09:19:51",10.1.1.3,353,-0.240,-0.240,-0.240,0.000,0.000,0.000
1640078391865581056,"2021-12-21,09:19:51",10.1.1.3,0.37132692337036133,-0.240,-0.240,-0.240,0.000,0.000,0.000
1640078392242476032,"2021-12-21,09:19:52",10.1.1.3,374,-0.250,-0.250,-0.250,0.000,0.000,0.000
1640078392271764992,"2021-12-21,09:19:52",10.1.1.3,0.40428590774536133,-0.250,-0.250,-0.250,0.000,0.000,0.000
1640078392720530944,"2021-12-21,09:19:52",10.1.1.3,445,-0.260,-0.260,-0.260,0.000,0.000,0.000
1640078392789940992,"2021-12-21,09:19:52",10.1.1.3,0.5153870582580566,-0.260,-0.260,-0.260,0.000,0.000,0.000
1640078393119200000,"2021-12-21,09:19:53",10.1.1.3,325,-0.270,-0.270,-0.270,0.000,0.000,0.000
1640078393163088128,"2021-12-21,09:19:53",10.1.1.3,0.3692798614501953,-0.270,-0.270,-0.270,0.000,0.000,0.000
1640078393499094016,"2021-12-21,09:19:53",10.1.1.3,334,-0.280,-0.280,-0.280,0.000,0.000,0.000
1640078393544964096,"2021-12-21,09:19:53",10.1.1.3,0.38065600395202637,-0.280,-0.280,-0.280,0.000,0.000,0.000
1640078393909416960,"2021-12-21,09:19:53",10.1.1.3,363,-0.290,-0.290,-0.290,0.000,0.000,0.000
1640078393938159872,"2021-12-21,09:19:53",10.1.1.3,0.39186787605285645,-0.290,-0.290,-0.290,0.000,0.000,0.000
1640078394307041792,"2021-12-21,09:19:54",10.1.1.3,364,-0.300,-0.300,-0.300,0.000,0.000,0.000
1640078394357220864,"2021-12-21,09:19:54",10.1.1.3,0.414931058883667,-0.300,-0.300,-0.300,0.000,0.000,0.000
1640078394743782912,"2021-12-21,09:19:54",10.1.1.3,384,-0.310,-0.310,-0.310,0.000,0.000,0.000
1640078394811485952,"2021-12-21,09:19:54",10.1.1.3,0.4526228904724121,-0.310,-0.310,-0.310,0.000,0.000,0.000
1640078395177530112,"2021-12-21,09:19:55",10.1.1.3,361,-0.320,-0.320,-0.320,0.000,0.000,0.000
1640078395208289024,"2021-12-21,09:19:55",10.1.1.3,0.3918740749359131,-0.320,-0.320,-0.320,0.000,0.000,0.000
1640078395568381184,"2021-12-21,09:19:55",10.1.1.3,349,-0.330,-0.330,-0.330,0.000,0.000,0.000
1640078395592622080,"2021-12-21,09:19:55",10.1.1.3,0.3733799457550049,-0.330,-0.330,-0.330,0.000,0.000,0.000
1640078395935142144,"2021-12-21,09:19:55",10.1.1.3,339,-0.340,-0.340,-0.340,0.000,0.000,0.000
1640078396003165952,"2021-12-21,09:19:56",10.1.1.3,0.4076120853424072,-0.340,-0.340,-0.340,0.000,0.000,0.000
1640078396487328000,"2021-12-21,09:19:56",10.1.1.3,0.4795651435852051,-0.350,-0.350,-0.350,0.000,0.000,0.000
1640078396488083968,"2021-12-21,09:19:56",10.1.1.3,480,-0.350,-0.350,-0.350,0.000,0.000,0.000
1640078396854710016,"2021-12-21,09:19:56",10.1.1.3,357,-0.360,-0.360,-0.360,0.000,0.000,0.000
1640078396897743104,"2021-12-21,09:19:56",10.1.1.3,0.4010279178619385,-0.360,-0.360,-0.360,0.000,0.000,0.000
1640078397233784832,"2021-12-21,09:19:57",10.1.1.3,334,-0.370,-0.370,-0.370,0.000,0.000,0.000
1640078397281472000,"2021-12-21,09:19:57",10.1.1.3,0.3817899227142334,-0.370,-0.370,-0.370,0.000,0.000,0.000
1640078397662721024,"2021-12-21,09:19:57",10.1.1.3,379,-0.380,-0.380,-0.380,0.000,0.000,0.000
1640078397663686912,"2021-12-21,09:19:57",10.1.1.3,0.3808479309082031,-0.380,-0.380,-0.380,0.000,0.000,0.000
1640078398033561856,"2021-12-21,09:19:58",10.1.1.3,368,-0.390,-0.390,-0.390,0.000,0.000,0.000
1640078398097385984,"2021-12-21,09:19:58",10.1.1.3,0.43191981315612793,-0.390,-0.390,-0.390,0.000,0.000,0.000
1640078398439819008,"2021-12-21,09:19:58",10.1.1.3,340,-0.400,-0.400,-0.400,0.000,0.000,0.000
1640078398457192960,"2021-12-21,09:19:58",10.1.1.3,0.35813212394714355,-0.400,-0.400,-0.400,0.000,0.000,0.000
1640078398821274112,"2021-12-21,09:19:58",10.1.1.3,362,-0.410,-0.410,-0.410,0.000,0.000,0.000
1640078398856355072,"2021-12-21,09:19:58",10.1.1.3,0.3971891403198242,-0.410,-0.410,-0.410,0.000,0.000,0.000
1640078399223673088,"2021-12-21,09:19:59",10.1.1.3,364,-0.420,-0.420,-0.420,0.000,0.000,0.000
1640078399264434944,"2021-12-21,09:19:59",10.1.1.3,0.4053499698638916,-0.420,-0.420,-0.420,0.000,0.000,0.000
1640078399597059840,"2021-12-21,09:19:59",10.1.1.3,328,-0.430,-0.430,-0.430,0.000,0.000,0.000
1640078399623374848,"2021-12-21,09:19:59",10.1.1.3,0.3559579849243164,-0.430,-0.430,-0.430,0.000,0.000,0.000
1640078401232090112,"2021-12-21,09:20:01",10.1.1.3,1.60664701461792,-0.440,-0.440,-0.440,0.000,0.000,0.000
1640078401221744896,"2021-12-21,09:20:00",10.1.1.3,486,-0.440,-0.450,-0.450,0.000,0.000,0.000
1640078401845886976,"2021-12-21,09:20:01",10.1.1.3,583,-0.450,-0.450,-0.450,0.000,0.000,0.000
1640078401878139136,"2021-12-21,09:20:01",10.1.1.3,0.6159939765930176,-0.450,-0.450,-0.450,0.000,0.000,0.000
1640078402304590848,"2021-12-21,09:20:02",10.1.1.3,425,-0.460,-0.460,-0.460,0.000,0.000,0.000
1640078402311283968,"2021-12-21,09:20:02",10.1.1.3,0.4319019317626953,-0.460,-0.460,-0.460,0.000,0.000,0.000
1640078402637588992,"2021-12-21,09:20:02",10.1.1.3,324,-0.470,-0.470,-0.470,0.000,0.000,0.000
1640078402664488192,"2021-12-21,09:20:02",10.1.1.3,0.35152697563171387,-0.470,-0.470,-0.470,0.000,0.000,0.000
1640078403035814144,"2021-12-21,09:20:03",10.1.1.3,369,-0.480,-0.480,-0.480,0.000,0.000,0.000
1640078403066971136,"2021-12-21,09:20:03",10.1.1.3,0.4005570411682129,-0.480,-0.480,-0.480,0.000,0.000,0.000
1640078403417095936,"2021-12-21,09:20:03",10.1.1.3,348,-0.490,-0.490,-0.490,0.000,0.000,0.000
1640078403446386944,"2021-12-21,09:20:03",10.1.1.3,0.3775980472564697,-0.490,-0.490,-0.490,0.000,0.000,0.000
1640078403837575936,"2021-12-21,09:20:03",10.1.1.3,388,-0.480,-0.480,-0.480,0.000,0.000,0.000
1640078404008999168,"2021-12-21,09:20:04",10.1.1.3,0.5604708194732666,-0.480,-0.480,-0.480,0.000,0.000,0.000
1640078404405519104,"2021-12-21,09:20:04",10.1.1.3,378,-0.470,-0.470,-0.470,0.000,0.000,0.000
1640078404447504896,"2021-12-21,09:20:04",10.1.1.3,0.420259952545166,-0.470,-0.470,-0.470,0.000,0.000,0.000
1640078404827887104,"2021-12-21,09:20:04",10.1.1.3,378,-0.460,-0.460,-0.460,0.000,0.000,0.000
1640078404871900160,"2021-12-21,09:20:04",10.1.1.3,0.4226720333099365,-0.460,-0.460,-0.460,0.000,0.000,0.000
1640078405302892032,"2021-12-21,09:20:05",10.1.1.3,426,-0.450,-0.450,-0.450,0.000,0.000,0.000
1640078405330790912,"2021-12-21,09:20:05",10.1.1.3,0.45420002937316895,-0.450,-0.450,-0.450,0.000,0.000,0.000
1640078405678872064,"2021-12-21,09:20:05",10.1.1.3,346,-0.440,-0.440,-0.440,0.000,0.000,0.000
1640078405721115136,"2021-12-21,09:20:05",10.1.1.3,0.3888280391693115,-0.440,-0.440,-0.440,0.000,0.000,0.000
1640078406076184064,"2021-12-21,09:20:06",10.1.1.3,353,-0.430,-0.430,-0.430,0.000,0.000,0.000
1640078406129910016,"2021-12-21,09:20:06",10.1.1.3,0.40695810317993164,-0.430,-0.430,-0.430,0.000,0.000,0.000
1640078406506861056,"2021-12-21,09:20:06",10.1.1.3,367,-0.420,-0.420,-0.420,0.000,0.000,0.000
1640078406542375168,"2021-12-21,09:20:06",10.1.1.3,0.40311694145202637,-0.420,-0.420,-0.420,0.000,0.000,0.000
1640078406939654144,"2021-12-21,09:20:06",10.1.1.3,395,-0.410,-0.410,-0.410,0.000,0.000,0.000
1640078406960966144,"2021-12-21,09:20:06",10.1.1.3,0.4101831912994385,-0.410,-0.410,-0.410,0.000,0.000,0.000
1640078407360943104,"2021-12-21,09:20:07",10.1.1.3,392,-0.400,-0.400,-0.400,0.000,0.000,0.000
1640078407388273920,"2021-12-21,09:20:07",10.1.1.3,0.41954708099365234,-0.400,-0.400,-0.400,0.000,0.000,0.000
1640078407818580992,"2021-12-21,09:20:07",10.1.1.3,426,-0.390,-0.390,-0.390,0.000,0.000,0.000
1640078407851695104,"2021-12-21,09:20:07",10.1.1.3,0.460068941116333,-0.390,-0.390,-0.390,0.000,0.000,0.000
1640078408212333056,"2021-12-21,09:20:08",10.1.1.3,358,-0.380,-0.380,-0.380,0.000,0.000,0.000
1640078408223081216,"2021-12-21,09:20:08",10.1.1.3,0.3697018623352051,-0.380,-0.380,-0.380,0.000,0.000,0.000
1640078408566893056,"2021-12-21,09:20:08",10.1.1.3,340,-0.370,-0.370,-0.370,0.000,0.000,0.000
1640078408589468928,"2021-12-21,09:20:08",10.1.1.3,0.36305999755859375,-0.370,-0.370,-0.370,0.000,0.000,0.000
1640078408979958016,"2021-12-21,09:20:08",10.1.1.3,369,-0.360,-0.360,-0.360,0.000,0.000,0.000
1640078409002664192,"2021-12-21,09:20:09",10.1.1.3,0.3911778926849365,-0.360,-0.360,-0.360,0.000,0.000,0.000
1640078409408220928,"2021-12-21,09:20:09",10.1.1.3,401,-0.350,-0.350,-0.350,0.000,0.000,0.000
1640078409457015040,"2021-12-21,09:20:09",10.1.1.3,0.45053911209106445,-0.350,-0.350,-0.350,0.000,0.000,0.000
1640078409848912128,"2021-12-21,09:20:09",10.1.1.3,389,-0.340,-0.340,-0.340,0.000,0.000,0.000
1640078409904508160,"2021-12-21,09:20:09",10.1.1.3,0.4452359676361084,-0.340,-0.340,-0.340,0.000,0.000,0.000
1640078410417714176,"2021-12-21,09:20:10",10.1.1.3,495,-0.330,-0.330,-0.330,0.000,0.000,0.000
1640078410439269120,"2021-12-21,09:20:10",10.1.1.3,0.5168099403381348,-0.330,-0.330,-0.330,0.000,0.000,0.000
1640078410846635008,"2021-12-21,09:20:10",10.1.1.3,405,-0.320,-0.320,-0.320,0.000,0.000,0.000
1640078410900621056,"2021-12-21,09:20:10",10.1.1.3,0.4593541622161865,-0.320,-0.320,-0.320,0.000,0.000,0.000
1640078411354000128,"2021-12-21,09:20:11",10.1.1.3,449,-0.310,-0.310,-0.310,0.000,0.000,0.000
1640078411373724928,"2021-12-21,09:20:11",10.1.1.3,0.4690580368041992,-0.310,-0.310,-0.310,0.000,0.000,0.000
1640078411779632128,"2021-12-21,09:20:11",10.1.1.3,403,-0.300,-0.300,-0.300,0.000,0.000,0.000
1640078411837946880,"2021-12-21,09:20:11",10.1.1.3,0.46206116676330566,-0.300,-0.300,-0.300,0.000,0.000,0.000
1640078412545136896,"2021-12-21,09:20:12",10.1.1.3,462,-0.290,-0.290,-0.290,0.000,0.000,0.000
1640078412570092800,"2021-12-21,09:20:12",10.1.1.3,0.5463740825653076,-0.290,-0.290,-0.290,0.000,0.000,0.000
1640078412956217088,"2021-12-21,09:20:12",10.1.1.3,384,-0.280,-0.280,-0.280,0.000,0.000,0.000
1640078413027976960,"2021-12-21,09:20:13",10.1.1.3,0.4560511112213135,-0.280,-0.280,-0.280,0.000,0.000,0.000
1640078413357865984,"2021-12-21,09:20:13",10.1.1.3,328,-0.270,-0.270,-0.270,0.000,0.000,0.000
1640078413387480064,"2021-12-21,09:20:13",10.1.1.3,0.3581380844116211,-0.270,-0.270,-0.270,0.000,0.000,0.000
1640078413766465024,"2021-12-21,09:20:13",10.1.1.3,374,-0.260,-0.260,-0.260,0.000,0.000,0.000
1640078413849710080,"2021-12-21,09:20:13",10.1.1.3,0.4578111171722412,-0.260,-0.260,-0.260,0.000,0.000,0.000
1640078414187820032,"2021-12-21,09:20:14",10.1.1.3,336,-0.250,-0.250,-0.250,0.000,0.000,0.000
1640078414241125120,"2021-12-21,09:20:14",10.1.1.3,0.38983798027038574,-0.250,-0.250,-0.250,0.000,0.000,0.000
1640078414577086976,"2021-12-21,09:20:14",10.1.1.3,334,-0.240,-0.240,-0.240,0.000,0.000,0.000
1640078414617186048,"2021-12-21,09:20:14",10.1.1.3,0.3746981620788574,-0.240,-0.240,-0.240,0.000,0.000,0.000
1640078415046749184,"2021-12-21,09:20:15",10.1.1.3,427,-0.230,-0.230,-0.230,0.000,0.000,0.000
1640078415089282048,"2021-12-21,09:20:15",10.1.1.3,0.47074317932128906,-0.230,-0.230,-0.230,0.000,0.000,0.000
1640078415505573888,"2021-12-21,09:20:15",10.1.1.3,412,-0.220,-0.220,-0.220,0.000,0.000,0.000
1640078415532273920,"2021-12-21,09:20:15",10.1.1.3,0.4390261173248291,-0.220,-0.220,-0.220,0.000,0.000,0.000
1640078415960499968,"2021-12-21,09:20:15",10.1.1.3,426,-0.210,-0.210,-0.210,0.000,0.000,0.000
1640078416090456064,"2021-12-21,09:20:16",10.1.1.3,0.5411150455474854,-0.210,-0.210,-0.210,0.000,0.000,0.000
1640078416625419008,"2021-12-21,09:20:16",10.1.1.3,0.49785709381103516,-0.200,-0.200,-0.200,0.000,0.000,0.000
1640078417093719040,"2021-12-21,09:20:17",10.1.1.3,451,-0.190,-0.190,-0.190,0.000,0.000,0.000
1640078417138426112,"2021-12-21,09:20:17",10.1.1.3,0.49661684036254883,-0.190,-0.190,-0.190,0.000,0.000,0.000
1640078417518019072,"2021-12-21,09:20:17",10.1.1.3,376,-0.180,-0.180,-0.180,0.000,0.000,0.000
1640078417534240000,"2021-12-21,09:20:17",10.1.1.3,0.39286112785339355,-0.180,-0.180,-0.180,0.000,0.000,0.000
1640078417894092032,"2021-12-21,09:20:17",10.1.1.3,353,-0.170,-0.170,-0.170,0.000,0.000,0.000
1640078417971483904,"2021-12-21,09:20:17",10.1.1.3,0.4313700199127197,-0.170,-0.170,-0.170,0.000,0.000,0.000
1640078418375289088,"2021-12-21,09:20:18",10.1.1.3,401,-0.160,-0.160,-0.160,0.000,0.000,0.000
1640078418436016128,"2021-12-21,09:20:18",10.1.1.3,0.4625680446624756,-0.160,-0.160,-0.160,0.000,0.000,0.000
1640078419045382144,"2021-12-21,09:20:19",10.1.1.3,597,-0.150,-0.150,-0.150,0.000,0.000,0.000
1640078419074484224,"2021-12-21,09:20:19",10.1.1.3,0.6290500164031982,-0.150,-0.150,-0.150,0.000,0.000,0.000
1640078419439752192,"2021-12-21,09:20:19",10.1.1.3,361,-0.140,-0.140,-0.140,0.000,0.000,0.000
1640078419469326080,"2021-12-21,09:20:19",10.1.1.3,0.38602399826049805,-0.140,-0.140,-0.140,0.000,0.000,0.000
1640078419971426048,"2021-12-21,09:20:19",10.1.1.3,499,-0.130,-0.130,-0.130,0.000,0.000,0.000
1640078420024514816,"2021-12-21,09:20:20",10.1.1.3,0.5504519939422607,-0.130,-0.130,-0.130,0.000,0.000,0.000
1640078420504650240,"2021-12-21,09:20:20",10.1.1.3,478,-0.120,-0.120,-0.120,0.000,0.000,0.000
1640078420525208832,"2021-12-21,09:20:20",10.1.1.3,0.4992098808288574,-0.120,-0.120,-0.120,0.000,0.000,0.000
1640078421087259136,"2021-12-21,09:20:21",10.1.1.3,557,-0.110,-0.110,-0.110,0.000,0.000,0.000
1640078421130361088,"2021-12-21,09:20:21",10.1.1.3,0.6032190322875977,-0.110,-0.110,-0.110,0.000,0.000,0.000
1640078426647604992,"2021-12-21,09:20:21",10.1.1.3,566,-0.100,-0.100,-0.100,0.000,0.000,0.000
1640078433000905984,"2021-12-21,09:20:26",10.1.1.3,5.776443958282471,-0.100,-0.100,-0.100,0.000,0.000,0.000
1640078433978324992,"2021-12-21,09:20:33",10.1.1.3,854,-0.090,-0.090,-0.090,0.000,0.000,0.000
1640078433983196928,"2021-12-21,09:20:33",10.1.1.3,0.8601300716400146,-0.090,-0.090,-0.090,0.000,0.000,0.000
1640078434274929920,"2021-12-21,09:20:34",10.1.1.3,289,-0.080,-0.080,-0.080,0.000,0.000,0.000
1640078434317061888,"2021-12-21,09:20:34",10.1.1.3,0.33196115493774414,-0.080,-0.080,-0.080,0.000,0.000,0.000
1640078434628602112,"2021-12-21,09:20:34",10.1.1.3,307,-0.070,-0.070,-0.070,0.000,0.000,0.000
1640078434678107136,"2021-12-21,09:20:34",10.1.1.3,0.35829615592956543,-0.070,-0.070,-0.070,0.000,0.000,0.000
1640078434993632000,"2021-12-21,09:20:34",10.1.1.3,313,-0.060,-0.060,-0.060,0.000,0.000,0.000
1640078435025158912,"2021-12-21,09:20:35",10.1.1.3,0.3451530933380127,-0.060,-0.060,-0.060,0.000,0.000,0.000
1640078435392846080,"2021-12-21,09:20:35",10.1.1.3,365,-0.050,-0.050,-0.050,0.000,0.000,0.000
1640078435407496960,"2021-12-21,09:20:35",10.1.1.3,0.3804759979248047,-0.050,-0.050,-0.050,0.000,0.000,0.000
1640078435762195968,"2021-12-21,09:20:35",10.1.1.3,353,-0.040,-0.040,-0.040,0.000,0.000,0.000
1640078435785414912,"2021-12-21,09:20:35",10.1.1.3,0.37631797790527344,-0.040,-0.040,-0.040,0.000,0.000,0.000
1640078436091609088,"2021-12-21,09:20:36",10.1.1.3,301,-0.030,-0.030,-0.030,0.000,0.000,0.000
1640078436123589888,"2021-12-21,09:20:36",10.1.1.3,0.33404111862182617,-0.030,-0.030,-0.030,0.000,0.000,0.000
1640078436462291968,"2021-12-21,09:20:36",10.1.1.3,337,-0.020,-0.020,-0.020,0.000,0.000,0.000
1640078436476301056,"2021-12-21,09:20:36",10.1.1.3,0.35152506828308105,-0.020,-0.020,-0.020,0.000,0.000,0.000
1640078436812029952,"2021-12-21,09:20:36",10.1.1.3,334,-0.010,-0.010,-0.010,0.000,0.000,0.000
1640078436849556992,"2021-12-21,09:20:36",10.1.1.3,0.370743989944458,-0.010,-0.010,-0.010,0.000,0.000,0.000
1640078437161412096,"2021-12-21,09:20:37",10.1.1.3,309,0.000,0.000,0.000,0.000,0.000,0.000
1640078437192097024,"2021-12-21,09:20:37",10.1.1.3,0.3404510021209717,0.000,0.000,0.000,0.000,0.000,0.000
1640078437500664832,"2021-12-21,09:20:37",10.1.1.3,306,-0.010,-0.010,-0.010,0.000,0.000,0.000
1640078437533508096,"2021-12-21,09:20:37",10.1.1.3,0.3396570682525635,-0.010,-0.010,-0.010,0.000,0.000,0.000
1640078437830071040,"2021-12-21,09:20:37",10.1.1.3,294,-0.020,-0.020,-0.020,0.000,0.000,0.000
1640078437859169024,"2021-12-21,09:20:37",10.1.1.3,0.3240010738372803,-0.020,-0.020,-0.020,0.000,0.000,0.000
1640078438209630976,"2021-12-21,09:20:38",10.1.1.3,345,-0.030,-0.030,-0.030,0.000,0.000,0.000
1640078438223995904,"2021-12-21,09:20:38",10.1.1.3,0.36150598526000977,-0.030,-0.030,-0.030,0.000,0.000,0.000
1640078438531852032,"2021-12-21,09:20:38",10.1.1.3,306,-0.040,-0.040,-0.040,0.000,0.000,0.000
1640078438593615104,"2021-12-21,09:20:38",10.1.1.3,0.36821484565734863,-0.040,-0.040,-0.040,0.000,0.000,0.000
1640078438908780032,"2021-12-21,09:20:38",10.1.1.3,312,-0.050,-0.050,-0.050,0.000,0.000,0.000
1640078438952802048,"2021-12-21,09:20:38",10.1.1.3,0.3573949337005615,-0.050,-0.050,-0.050,0.000,0.000,0.000
1640078439293998848,"2021-12-21,09:20:39",10.1.1.3,0.3399178981781006,-0.060,-0.060,-0.060,0.000,0.000,0.000
1640078439294384128,"2021-12-21,09:20:39",10.1.1.3,340,-0.060,-0.060,-0.060,0.000,0.000,0.000
1640078439651539968,"2021-12-21,09:20:39",10.1.1.3,356,-0.070,-0.070,-0.070,0.000,0.000,0.000
1640078439685286912,"2021-12-21,09:20:39",10.1.1.3,0.3898930549621582,-0.070,-0.070,-0.070,0.000,0.000,0.000
1640078440021694976,"2021-12-21,09:20:40",10.1.1.3,327,-0.080,-0.080,-0.080,0.000,0.000,0.000
1640078440092619008,"2021-12-21,09:20:40",10.1.1.3,0.3979918956756592,-0.080,-0.080,-0.080,0.000,0.000,0.000
1640078440465789184,"2021-12-21,09:20:40",10.1.1.3,367,-0.090,-0.090,-0.090,0.000,0.000,0.000
1640078440529395200,"2021-12-21,09:20:40",10.1.1.3,0.43120312690734863,-0.090,-0.090,-0.090,0.000,0.000,0.000
1640078440835508224,"2021-12-21,09:20:40",10.1.1.3,304,-0.100,-0.100,-0.100,0.000,0.000,0.000
1640078440891063808,"2021-12-21,09:20:40",10.1.1.3,0.3604729175567627,-0.100,-0.100,-0.100,0.000,0.000,0.000
1640078441205224960,"2021-12-21,09:20:41",10.1.1.3,309,-0.110,-0.110,-0.110,0.000,0.000,0.000
1640078441239883776,"2021-12-21,09:20:41",10.1.1.3,0.34389495849609375,-0.110,-0.110,-0.110,0.000,0.000,0.000
1640078441567529984,"2021-12-21,09:20:41",10.1.1.3,325,-0.120,-0.120,-0.120,0.000,0.000,0.000
1640078441586258944,"2021-12-21,09:20:41",10.1.1.3,0.34458184242248535,-0.120,-0.120,-0.120,0.000,0.000,0.000
1640078441939083008,"2021-12-21,09:20:41",10.1.1.3,349,-0.130,-0.130,-0.130,0.000,0.000,0.000
1640078442008718848,"2021-12-21,09:20:42",10.1.1.3,0.41875386238098145,-0.130,-0.130,-0.130,0.000,0.000,0.000
1640078442368530944,"2021-12-21,09:20:42",10.1.1.3,357,-0.140,-0.140,-0.140,0.000,0.000,0.000
1640078442387612160,"2021-12-21,09:20:42",10.1.1.3,0.3776209354400635,-0.140,-0.140,-0.140,0.000,0.000,0.000
1640078442732274944,"2021-12-21,09:20:42",10.1.1.3,343,-0.150,-0.150,-0.150,0.000,0.000,0.000
1640078442764125184,"2021-12-21,09:20:42",10.1.1.3,0.3750309944152832,-0.150,-0.150,-0.150,0.000,0.000,0.000
1640078443141836800,"2021-12-21,09:20:43",10.1.1.3,376,-0.160,-0.160,-0.160,0.000,0.000,0.000
1640078443205033984,"2021-12-21,09:20:43",10.1.1.3,0.4391648769378662,-0.160,-0.160,-0.160,0.000,0.000,0.000
1640078443630712064,"2021-12-21,09:20:43",10.1.1.3,398,-0.170,-0.170,-0.170,0.000,0.000,0.000
1640078444058752000,"2021-12-21,09:20:43",10.1.1.3,0.49922895431518555,-0.170,-0.170,-0.170,0.000,0.000,0.000
1640078444090848000,"2021-12-21,09:20:44",10.1.1.3,-2,-0.180,-0.180,-0.180,0.000,0.000,0.000
1640078445831888896,"2021-12-21,09:20:45",10.1.1.3,1.7638180255889893,-0.180,-0.180,-0.180,0.000,0.000,0.000
1640078446216499968,"2021-12-21,09:20:46",10.1.1.3,374,-0.190,-0.190,-0.190,0.000,0.000,0.000
1640078446255127808,"2021-12-21,09:20:46",10.1.1.3,0.4130370616912842,-0.190,-0.190,-0.190,0.000,0.000,0.000
1640078446632913152,"2021-12-21,09:20:46",10.1.1.3,372,-0.200,-0.200,-0.200,0.000,0.000,0.000
1640078446660720128,"2021-12-21,09:20:46",10.1.1.3,0.40236592292785645,-0.200,-0.200,-0.200,0.000,0.000,0.000
1640078447044322048,"2021-12-21,09:20:47",10.1.1.3,381,-0.210,-0.210,-0.210,0.000,0.000,0.000
1640078447081218048,"2021-12-21,09:20:47",10.1.1.3,0.4185810089111328,-0.210,-0.210,-0.210,0.000,0.000,0.000
1640078447471188992,"2021-12-21,09:20:47",10.1.1.3,386,-0.220,-0.220,-0.220,0.000,0.000,0.000
1640078447487148032,"2021-12-21,09:20:47",10.1.1.3,0.40197205543518066,-0.220,-0.220,-0.220,0.000,0.000,0.000
1640078448145996032,"2021-12-21,09:20:48",10.1.1.3,655,-0.230,-0.230,-0.230,0.000,0.000,0.000
1640078448188100096,"2021-12-21,09:20:48",10.1.1.3,0.6971688270568848,-0.230,-0.230,-0.230,0.000,0.000,0.000
1640078448634685952,"2021-12-21,09:20:48",10.1.1.3,412,-0.240,-0.240,-0.240,0.000,0.000,0.000
1640078448676045824,"2021-12-21,09:20:48",10.1.1.3,0.4782710075378418,-0.240,-0.240,-0.240,0.000,0.000,0.000
1640078449107741184,"2021-12-21,09:20:49",10.1.1.3,428,-0.250,-0.250,-0.250,0.000,0.000,0.000
1640078449192040960,"2021-12-21,09:20:49",10.1.1.3,0.5107278823852539,-0.250,-0.250,-0.250,0.000,0.000,0.000
1640078449621321984,"2021-12-21,09:20:49",10.1.1.3,427,-0.260,-0.260,-0.260,0.000,0.000,0.000
1640078449749234944,"2021-12-21,09:20:49",10.1.1.3,0.5552470684051514,-0.260,-0.260,-0.260,0.000,0.000,0.000
1640078450202163968,"2021-12-21,09:20:50",10.1.1.3,444,-0.270,-0.270,-0.270,0.000,0.000,0.000
1640078450240730880,"2021-12-21,09:20:50",10.1.1.3,0.46849513053894043,-0.270,-0.270,-0.270,0.000,0.000,0.000
1640078450870420992,"2021-12-21,09:20:50",10.1.1.3,624,-0.280,-0.280,-0.280,0.000,0.000,0.000
1640078450932719104,"2021-12-21,09:20:50",10.1.1.3,0.6866540908813477,-0.280,-0.280,-0.280,0.000,0.000,0.000
1640078451289758976,"2021-12-21,09:20:51",10.1.1.3,355,-0.290,-0.290,-0.290,0.000,0.000,0.000
1640078451328630016,"2021-12-21,09:20:51",10.1.1.3,0.3945908546447754,-0.290,-0.290,-0.290,0.000,0.000,0.000
1640078451724672000,"2021-12-21,09:20:51",10.1.1.3,392,-0.300,-0.300,-0.300,0.000,0.000,0.000
1640078451761532160,"2021-12-21,09:20:51",10.1.1.3,0.4295639991760254,-0.300,-0.300,-0.300,0.000,0.000,0.000
1640078452126458880,"2021-12-21,09:20:52",10.1.1.3,353,-0.310,-0.310,-0.310,0.000,0.000,0.000
1640078452179739904,"2021-12-21,09:20:52",10.1.1.3,0.40724682807922363,-0.310,-0.310,-0.310,0.000,0.000,0.000
1640078452528551168,"2021-12-21,09:20:52",10.1.1.3,345,-0.320,-0.320,-0.320,0.000,0.000,0.000
1640078452551762176,"2021-12-21,09:20:52",10.1.1.3,0.3685178756713867,-0.320,-0.320,-0.320,0.000,0.000,0.000
1640078452985614080,"2021-12-21,09:20:52",10.1.1.3,0.4248828887939453,-0.330,-0.330,-0.330,0.000,0.000,0.000
1640078452991489792,"2021-12-21,09:20:52",10.1.1.3,430,-0.330,-0.330,-0.330,0.000,0.000,0.000
1640078453377682944,"2021-12-21,09:20:53",10.1.1.3,385,-0.340,-0.340,-0.340,0.000,0.000,0.000
1640078453450195200,"2021-12-21,09:20:53",10.1.1.3,0.45824503898620605,-0.340,-0.340,-0.340,0.000,0.000,0.000
1640078453793843968,"2021-12-21,09:20:53",10.1.1.3,341,-0.350,-0.350,-0.350,0.000,0.000,0.000
1640078453841103104,"2021-12-21,09:20:53",10.1.1.3,0.38563108444213867,-0.350,-0.350,-0.350,0.000,0.000,0.000
1640078454244729088,"2021-12-21,09:20:54",10.1.1.3,401,-0.360,-0.360,-0.360,0.000,0.000,0.000
1640078454328982016,"2021-12-21,09:20:54",10.1.1.3,0.4863121509552002,-0.360,-0.360,-0.360,0.000,0.000,0.000
1640078454873725952,"2021-12-21,09:20:54",10.1.1.3,534,-0.370,-0.370,-0.370,0.000,0.000,0.000
1640078454930006016,"2021-12-21,09:20:54",10.1.1.3,0.5909709930419922,-0.370,-0.370,-0.370,0.000,0.000,0.000
1640078455321434880,"2021-12-21,09:20:55",10.1.1.3,389,-0.380,-0.380,-0.380,0.000,0.000,0.000
1640078455353198080,"2021-12-21,09:20:55",10.1.1.3,0.42095088958740234,-0.380,-0.380,-0.380,0.000,0.000,0.000
1640078455753516032,"2021-12-21,09:20:55",10.1.1.3,397,-0.390,-0.390,-0.390,0.000,0.000,0.000
1640078455810482944,"2021-12-21,09:20:55",10.1.1.3,0.45554614067077637,-0.390,-0.390,-0.390,0.000,0.000,0.000
1640078456163835904,"2021-12-21,09:20:56",10.1.1.3,349,-0.400,-0.400,-0.400,0.000,0.000,0.000
1640078456188092928,"2021-12-21,09:20:56",10.1.1.3,0.37340402603149414,-0.400,-0.400,-0.400,0.000,0.000,0.000
1640078456529933824,"2021-12-21,09:20:56",10.1.1.3,340,-0.410,-0.410,-0.410,0.000,0.000,0.000
1640078456555974912,"2021-12-21,09:20:56",10.1.1.3,0.36628198623657227,-0.410,-0.410,-0.410,0.000,0.000,0.000
1640078456919860992,"2021-12-21,09:20:56",10.1.1.3,361,-0.420,-0.420,-0.420,0.000,0.000,0.000
1640078456987534080,"2021-12-21,09:20:56",10.1.1.3,0.42916202545166016,-0.420,-0.420,-0.420,0.000,0.000,0.000
1640078457381836800,"2021-12-21,09:20:57",10.1.1.3,388,-0.430,-0.430,-0.430,0.000,0.000,0.000
1640078457457225984,"2021-12-21,09:20:57",10.1.1.3,0.463900089263916,-0.430,-0.430,-0.430,0.000,0.000,0.000
1640078457867947008,"2021-12-21,09:20:57",10.1.1.3,404,-0.440,-0.440,-0.440,0.000,0.000,0.000
1640078457964713216,"2021-12-21,09:20:57",10.1.1.3,0.4986391067504883,-0.440,-0.440,-0.440,0.000,0.000,0.000
1640078458327759104,"2021-12-21,09:20:58",10.1.1.3,353,-0.450,-0.450,-0.450,0.000,0.000,0.000
1640078458353008896,"2021-12-21,09:20:58",10.1.1.3,0.3786940574645996,-0.450,-0.450,-0.450,0.000,0.000,0.000
1640078458813318912,"2021-12-21,09:20:58",10.1.1.3,458,-0.460,-0.460,-0.460,0.000,0.000,0.000
1640078458885111040,"2021-12-21,09:20:58",10.1.1.3,0.5299849510192871,-0.460,-0.460,-0.460,0.000,0.000,0.000
1640078459488510976,"2021-12-21,09:20:59",10.1.1.3,600,-0.470,-0.470,-0.470,0.000,0.000,0.000
1640078459533595136,"2021-12-21,09:20:59",10.1.1.3,0.6454010009765625,-0.470,-0.470,-0.470,0.000,0.000,0.000
1640078459954878976,"2021-12-21,09:20:59",10.1.1.3,419,-0.480,-0.480,-0.480,0.000,0.000,0.000
1640078460022868992,"2021-12-21,09:21:00",10.1.1.3,0.4874238967895508,-0.480,-0.480,-0.480,0.000,0.000,0.000
1640078460376243200,"2021-12-21,09:21:00",10.1.1.3,349,-0.490,-0.490,-0.490,0.000,0.000,0.000
1640078460397102080,"2021-12-21,09:21:00",10.1.1.3,0.369873046875,-0.490,-0.490,-0.490,0.000,0.000,0.000
1640078460812738816,"2021-12-21,09:21:00",10.1.1.3,412,-0.480,-0.480,-0.480,0.000,0.000,0.000
1640078460864940032,"2021-12-21,09:21:00",10.1.1.3,0.4641749858856201,-0.480,-0.480,-0.480,0.000,0.000,0.000
1640078461203640064,"2021-12-21,09:21:01",10.1.1.3,337,-0.470,-0.470,-0.470,0.000,0.000,0.000
1640078461258913024,"2021-12-21,09:21:01",10.1.1.3,0.3924269676208496,-0.470,-0.470,-0.470,0.000,0.000,0.000
1640078461601232128,"2021-12-21,09:21:01",10.1.1.3,340,-0.460,-0.460,-0.460,0.000,0.000,0.000
1640078461671303936,"2021-12-21,09:21:01",10.1.1.3,0.4106740951538086,-0.460,-0.460,-0.460,0.000,0.000,0.000
1640078462044390912,"2021-12-21,09:21:02",10.1.1.3,367,-0.450,-0.450,-0.450,0.000,0.000,0.000
1640078462096333056,"2021-12-21,09:21:02",10.1.1.3,0.42095279693603516,-0.450,-0.450,-0.450,0.000,0.000,0.000
1640078462451441920,"2021-12-21,09:21:02",10.1.1.3,352,-0.440,-0.440,-0.440,0.000,0.000,0.000
1640078462467042048,"2021-12-21,09:21:02",10.1.1.3,0.3685610294342041,-0.440,-0.440,-0.440,0.000,0.000,0.000
1640078462829854976,"2021-12-21,09:21:02",10.1.1.3,359,-0.430,-0.430,-0.430,0.000,0.000,0.000
1640078462854511104,"2021-12-21,09:21:02",10.1.1.3,0.38390398025512695,-0.430,-0.430,-0.430,0.000,0.000,0.000
1640078463330470144,"2021-12-21,09:21:03",10.1.1.3,467,-0.420,-0.420,-0.420,0.000,0.000,0.000
1640078463363590912,"2021-12-21,09:21:03",10.1.1.3,0.500622034072876,-0.420,-0.420,-0.420,0.000,0.000,0.000
1640078463727751936,"2021-12-21,09:21:03",10.1.1.3,361,-0.410,-0.410,-0.410,0.000,0.000,0.000
1640078463775751168,"2021-12-21,09:21:03",10.1.1.3,0.4094810485839844,-0.410,-0.410,-0.410,0.000,0.000,0.000
1640078464323392000,"2021-12-21,09:21:04",10.1.1.3,539,-0.400,-0.400,-0.400,0.000,0.000,0.000
1640078464452459008,"2021-12-21,09:21:04",10.1.1.3,0.6689739227294922,-0.400,-0.400,-0.400,0.000,0.000,0.000
1640078464894844928,"2021-12-21,09:21:04",10.1.1.3,0.4366910457611084,-0.390,-0.390,-0.390,0.000,0.000,0.000
1640078465408119808,"2021-12-21,09:21:05",10.1.1.3,507,-0.380,-0.380,-0.380,0.000,0.000,0.000
1640078465465246976,"2021-12-21,09:21:05",10.1.1.3,0.5648660659790039,-0.380,-0.380,-0.380,0.000,0.000,0.000
1640078465864026112,"2021-12-21,09:21:05",10.1.1.3,392,-0.370,-0.370,-0.370,0.000,0.000,0.000
1640078465904475904,"2021-12-21,09:21:05",10.1.1.3,0.432952880859375,-0.370,-0.370,-0.370,0.000,0.000,0.000
1640078466383578112,"2021-12-21,09:21:06",10.1.1.3,462,-0.360,-0.360,-0.360,0.000,0.000,0.000
1640078466416727040,"2021-12-21,09:21:06",10.1.1.3,0.4952700138092041,-0.360,-0.360,-0.360,0.000,0.000,0.000
1640078466761590016,"2021-12-21,09:21:06",10.1.1.3,339,-0.350,-0.350,-0.350,0.000,0.000,0.000
1640078466824748032,"2021-12-21,09:21:06",10.1.1.3,0.40317797660827637,-0.350,-0.350,-0.350,0.000,0.000,0.000
1640078467172792832,"2021-12-21,09:21:07",10.1.1.3,345,-0.340,-0.340,-0.340,0.000,0.000,0.000
1640078467191417856,"2021-12-21,09:21:07",10.1.1.3,0.3634469509124756,-0.340,-0.340,-0.340,0.000,0.000,0.000
1640078467534405120,"2021-12-21,09:21:07",10.1.1.3,338,-0.330,-0.330,-0.330,0.000,0.000,0.000
1640078467556385024,"2021-12-21,09:21:07",10.1.1.3,0.3605620861053467,-0.330,-0.330,-0.330,0.000,0.000,0.000
1640078467926191104,"2021-12-21,09:21:07",10.1.1.3,368,-0.320,-0.320,-0.320,0.000,0.000,0.000
1640078467993187072,"2021-12-21,09:21:07",10.1.1.3,0.43512797355651855,-0.320,-0.320,-0.320,0.000,0.000,0.000
1640078468361927936,"2021-12-21,09:21:08",10.1.1.3,367,-0.310,-0.310,-0.310,0.000,0.000,0.000
1640078468441440000,"2021-12-21,09:21:08",10.1.1.3,0.447023868560791,-0.310,-0.310,-0.310,0.000,0.000,0.000
1640078469554156032,"2021-12-21,09:21:09",10.1.1.3,1111,-0.300,-0.300,-0.300,0.000,0.000,0.000
1640078469658704896,"2021-12-21,09:21:09",10.1.1.3,1.215743064880371,-0.300,-0.300,-0.300,0.000,0.000,0.000
1640078470256707840,"2021-12-21,09:21:10",10.1.1.3,595,-0.290,-0.290,-0.290,0.000,0.000,0.000
1640078470327219968,"2021-12-21,09:21:10",10.1.1.3,0.6667320728302002,-0.290,-0.290,-0.290,0.000,0.000,0.000
1640078470777210880,"2021-12-21,09:21:10",10.1.1.3,444,-0.280,-0.280,-0.280,0.000,0.000,0.000
1640078470817903872,"2021-12-21,09:21:10",10.1.1.3,0.4850649833679199,-0.280,-0.280,-0.280,0.000,0.000,0.000
1640078471233705984,"2021-12-21,09:21:11",10.1.1.3,412,-0.270,-0.270,-0.270,0.000,0.000,0.000
1640078471254632960,"2021-12-21,09:21:11",10.1.1.3,0.4331650733947754,-0.270,-0.270,-0.270,0.000,0.000,0.000
1640078471692295168,"2021-12-21,09:21:11",10.1.1.3,431,-0.260,-0.260,-0.260,0.000,0.000,0.000
1640078471735730944,"2021-12-21,09:21:11",10.1.1.3,0.47529077529907227,-0.260,-0.260,-0.260,0.000,0.000,0.000
1640078472149651968,"2021-12-21,09:21:12",10.1.1.3,412,-0.250,-0.250,-0.250,0.000,0.000,0.000
1640078472213979904,"2021-12-21,09:21:12",10.1.1.3,0.4763679504394531,-0.250,-0.250,-0.250,0.000,0.000,0.000
1640078472653281024,"2021-12-21,09:21:12",10.1.1.3,437,-0.240,-0.240,-0.240,0.000,0.000,0.000
1640078472709081856,"2021-12-21,09:21:12",10.1.1.3,0.49379801750183105,-0.240,-0.240,-0.240,0.000,0.000,0.000
1640078473123482112,"2021-12-21,09:21:13",10.1.1.3,411,-0.230,-0.230,-0.230,0.000,0.000,0.000
1640078473145415936,"2021-12-21,09:21:13",10.1.1.3,0.4341130256652832,-0.230,-0.230,-0.230,0.000,0.000,0.000
1640078473523721984,"2021-12-21,09:21:13",10.1.1.3,376,-0.220,-0.220,-0.220,0.000,0.000,0.000
1640078473588256000,"2021-12-21,09:21:13",10.1.1.3,0.43909311294555664,-0.220,-0.220,-0.220,0.000,0.000,0.000
1640078474091476992,"2021-12-21,09:21:14",10.1.1.3,501,-0.210,-0.210,-0.210,0.000,0.000,0.000
1640078474140908032,"2021-12-21,09:21:14",10.1.1.3,0.551102876663208,-0.210,-0.210,-0.210,0.000,0.000,0.000
1640078474505059072,"2021-12-21,09:21:14",10.1.1.3,354,-0.200,-0.200,-0.200,0.000,0.000,0.000
1640078474588185088,"2021-12-21,09:21:14",10.1.1.3,0.43819093704223633,-0.200,-0.200,-0.200,0.000,0.000,0.000
1640078475301665024,"2021-12-21,09:21:15",10.1.1.3,700,-0.190,-0.190,-0.190,0.000,0.000,0.000
1640078475391479040,"2021-12-21,09:21:15",10.1.1.3,0.7900240421295166,-0.190,-0.190,-0.190,0.000,0.000,0.000
1640078475977999872,"2021-12-21,09:21:15",10.1.1.3,584,-0.180,-0.180,-0.180,0.000,0.000,0.000
1640078475999542016,"2021-12-21,09:21:15",10.1.1.3,0.6057090759277344,-0.180,-0.180,-0.180,0.000,0.000,0.000
1640078476759536896,"2021-12-21,09:21:16",10.1.1.3,758,-0.170,-0.170,-0.170,0.000,0.000,0.000
1640078476829783040,"2021-12-21,09:21:16",10.1.1.3,0.8281149864196777,-0.170,-0.170,-0.170,0.000,0.000,0.000
1640078477928772096,"2021-12-21,09:21:17",10.1.1.3,1097,-0.160,-0.160,-0.160,0.000,0.000,0.000
1640078477949441792,"2021-12-21,09:21:17",10.1.1.3,1.117793083190918,-0.160,-0.160,-0.160,0.000,0.000,0.000
1640078478492137984,"2021-12-21,09:21:18",10.1.1.3,537,-0.150,-0.150,-0.150,0.000,0.000,0.000
1640078478564306944,"2021-12-21,09:21:18",10.1.1.3,0.6100780963897705,-0.150,-0.150,-0.150,0.000,0.000,0.000
1640078479092924160,"2021-12-21,09:21:19",10.1.1.3,525,-0.140,-0.140,-0.140,0.000,0.000,0.000
1640078479247962880,"2021-12-21,09:21:19",10.1.1.3,0.6807339191436768,-0.140,-0.140,-0.140,0.000,0.000,0.000
1640078479843832064,"2021-12-21,09:21:19",10.1.1.3,561,-0.130,-0.130,-0.130,0.000,0.000,0.000
1640078479860950016,"2021-12-21,09:21:19",10.1.1.3,0.5788118839263916,-0.130,-0.130,-0.130,0.000,0.000,0.000
1640078480449266944,"2021-12-21,09:21:20",10.1.1.3,580,-0.120,-0.120,-0.120,0.000,0.000,0.000
1640078480455426048,"2021-12-21,09:21:20",10.1.1.3,0.5867807865142822,-0.120,-0.120,-0.120,0.000,0.000,0.000
1640078480840123904,"2021-12-21,09:21:20",10.1.1.3,382,-0.110,-0.110,-0.110,0.000,0.000,0.000
1640078480887435008,"2021-12-21,09:21:20",10.1.1.3,0.4302999973297119,-0.110,-0.110,-0.110,0.000,0.000,0.000
1640078481245670912,"2021-12-21,09:21:21",10.1.1.3,354,-0.100,-0.100,-0.100,0.000,0.000,0.000
1640078481292409856,"2021-12-21,09:21:21",10.1.1.3,0.4013960361480713,-0.100,-0.100,-0.100,0.000,0.000,0.000
1640078481937565184,"2021-12-21,09:21:21",10.1.1.3,638,-0.090,-0.090,-0.090,0.000,0.000,0.000
1640078482027846144,"2021-12-21,09:21:22",10.1.1.3,0.7284369468688965,-0.090,-0.090,-0.090,0.000,0.000,0.000
1640078482461047040,"2021-12-21,09:21:22",10.1.1.3,424,-0.080,-0.080,-0.080,0.000,0.000,0.000
1640078482540951040,"2021-12-21,09:21:22",10.1.1.3,0.5044751167297363,-0.080,-0.080,-0.080,0.000,0.000,0.000
1640078483007941888,"2021-12-21,09:21:23",10.1.1.3,465,-0.070,-0.070,-0.070,0.000,0.000,0.000
1640078483059878144,"2021-12-21,09:21:23",10.1.1.3,0.5170679092407227,-0.070,-0.070,-0.070,0.000,0.000,0.000
1640078483806680064,"2021-12-21,09:21:23",10.1.1.3,745,-0.060,-0.060,-0.060,0.000,0.000,0.000
1640078483886868992,"2021-12-21,09:21:23",10.1.1.3,0.8257339000701904,-0.060,-0.060,-0.060,0.000,0.000,0.000
1640078484238009856,"2021-12-21,09:21:24",10.1.1.3,344,-0.050,-0.050,-0.050,0.000,0.000,0.000
1640078484366158848,"2021-12-21,09:21:24",10.1.1.3,0.47295093536376953,-0.050,-0.050,-0.050,0.000,0.000,0.000
1640078484817454080,"2021-12-21,09:21:24",10.1.1.3,425,-0.040,-0.040,-0.040,0.000,0.000,0.000
1640078484860582144,"2021-12-21,09:21:24",10.1.1.3,0.46842002868652344,-0.040,-0.040,-0.040,0.000,0.000,0.000
1640078485319773952,"2021-12-21,09:21:25",10.1.1.3,457,-0.030,-0.030,-0.030,0.000,0.000,0.000
1640078485345969920,"2021-12-21,09:21:25",10.1.1.3,0.4841768741607666,-0.030,-0.030,-0.030,0.000,0.000,0.000
1640078485715689984,"2021-12-21,09:21:25",10.1.1.3,366,-0.020,-0.020,-0.020,0.000,0.000,0.000
1640078485786993152,"2021-12-21,09:21:25",10.1.1.3,0.4379899501800537,-0.020,-0.020,-0.020,0.000,0.000,0.000
1640078486145917952,"2021-12-21,09:21:26",10.1.1.3,356,-0.010,-0.010,-0.010,0.000,0.000,0.000
1640078486216568064,"2021-12-21,09:21:26",10.1.1.3,0.4245879650115967,-0.010,-0.010,-0.010,0.000,0.000,0.000
1640078486575865088,"2021-12-21,09:21:26",10.1.1.3,356,0.000,0.000,0.000,0.000,0.000,0.000
1640078486628179200,"2021-12-21,09:21:26",10.1.1.3,0.40408992767333984,0.000,0.000,0.000,0.000,0.000,0.000
1640078487578885120,"2021-12-21,09:21:27",10.1.1.3,0.945850133895874,-0.010,-0.010,-0.010,0.000,0.000,0.000
1640078487568825088,"2021-12-21,09:21:27",10.1.1.3,454,-0.010,-0.010,-0.010,0.000,0.000,0.000
1640078487897563904,"2021-12-21,09:21:27",10.1.1.3,316,-0.020,-0.020,-0.020,0.000,0.000,0.000
1640078487947761152,"2021-12-21,09:21:27",10.1.1.3,0.3670229911804199,-0.020,-0.020,-0.020,0.000,0.000,0.000
1640078488295751168,"2021-12-21,09:21:28",10.1.1.3,344,-0.030,-0.030,-0.030,0.000,0.000,0.000
1640078488370973184,"2021-12-21,09:21:28",10.1.1.3,0.4194161891937256,-0.030,-0.030,-0.030,0.000,0.000,0.000
1640078488759725056,"2021-12-21,09:21:28",10.1.1.3,385,-0.040,-0.040,-0.040,0.000,0.000,0.000
1640078488809040128,"2021-12-21,09:21:28",10.1.1.3,0.43509483337402344,-0.040,-0.040,-0.040,0.000,0.000,0.000
1640078489226514944,"2021-12-21,09:21:29",10.1.1.3,412,-0.050,-0.050,-0.050,0.000,0.000,0.000
1640078489332003072,"2021-12-21,09:21:29",10.1.1.3,0.5184750556945801,-0.050,-0.050,-0.050,0.000,0.000,0.000
1640078489762908928,"2021-12-21,09:21:29",10.1.1.3,428,-0.060,-0.060,-0.060,0.000,0.000,0.000
1640078489799671040,"2021-12-21,09:21:29",10.1.1.3,0.46605491638183594,-0.060,-0.060,-0.060,0.000,0.000,0.000
1640078490417952000,"2021-12-21,09:21:30",10.1.1.3,608,-0.070,-0.070,-0.070,0.000,0.000,0.000
1640078490512156928,"2021-12-21,09:21:30",10.1.1.3,0.7037830352783203,-0.070,-0.070,-0.070,0.000,0.000,0.000
1640078500807374080,"2021-12-21,09:21:31",10.1.1.3,539,-0.080,-0.080,-0.080,0.000,0.000,0.000
1640078504988694016,"2021-12-21,09:21:44",10.1.1.3,13.989156007766724,-0.080,-0.080,-0.080,0.000,0.000,0.000
1640078524518354944,"2021-12-21,09:22:02",10.1.1.3,17496,-0.090,-0.090,-0.090,0.000,0.000,0.000
1640078524537338880,"2021-12-21,09:22:04",10.1.1.3,19.545449018478394,-0.090,-0.090,-0.090,0.000,0.000,0.000
1640078524854355200,"2021-12-21,09:22:04",10.1.1.3,306,-0.100,-0.100,-0.100,0.000,0.000,0.000
1640078524883988992,"2021-12-21,09:22:04",10.1.1.3,0.3358309268951416,-0.100,-0.100,-0.100,0.000,0.000,0.000
1640078525217662208,"2021-12-21,09:22:05",10.1.1.3,329,-0.110,-0.110,-0.110,0.000,0.000,0.000
1640078525279655936,"2021-12-21,09:22:05",10.1.1.3,0.392315149307251,-0.110,-0.110,-0.110,0.000,0.000,0.000
1640078525610603008,"2021-12-21,09:22:05",10.1.1.3,329,-0.120,-0.120,-0.120,0.000,0.000,0.000
1640078525629304832,"2021-12-21,09:22:05",10.1.1.3,0.3482859134674072,-0.120,-0.120,-0.120,0.000,0.000,0.000
1640078525932760064,"2021-12-21,09:22:05",10.1.1.3,297,-0.130,-0.130,-0.130,0.000,0.000,0.000
1640078525956198912,"2021-12-21,09:22:05",10.1.1.3,0.3213539123535156,-0.130,-0.130,-0.130,0.000,0.000,0.000
1640078526285364992,"2021-12-21,09:22:06",10.1.1.3,322,-0.140,-0.140,-0.140,0.000,0.000,0.000
1640078526309611008,"2021-12-21,09:22:06",10.1.1.3,0.34931302070617676,-0.140,-0.140,-0.140,0.000,0.000,0.000
1640078526661936896,"2021-12-21,09:22:06",10.1.1.3,349,-0.150,-0.150,-0.150,0.000,0.000,0.000
1640078526752572160,"2021-12-21,09:22:06",10.1.1.3,0.44099903106689453,-0.150,-0.150,-0.150,0.000,0.000,0.000
1640078527060653824,"2021-12-21,09:22:07",10.1.1.3,306,-0.160,-0.160,-0.160,0.000,0.000,0.000
1640078527103010048,"2021-12-21,09:22:07",10.1.1.3,0.3490900993347168,-0.160,-0.160,-0.160,0.000,0.000,0.000
1640078527442853888,"2021-12-21,09:22:07",10.1.1.3,0.336245059967041,-0.170,-0.170,-0.170,0.000,0.000,0.000
1640078527443696128,"2021-12-21,09:22:07",10.1.1.3,336,-0.170,-0.170,-0.170,0.000,0.000,0.000
1640078527821116928,"2021-12-21,09:22:07",10.1.1.3,376,-0.180,-0.180,-0.180,0.000,0.000,0.000
1640078527839646976,"2021-12-21,09:22:07",10.1.1.3,0.3952908515930176,-0.180,-0.180,-0.180,0.000,0.000,0.000
1640078538064623104,"2021-12-21,09:22:08",10.1.1.3,418,-0.190,-0.190,-0.190,0.000,0.000,0.000
1640078542841630976,"2021-12-21,09:22:18",10.1.1.3,10.407696008682251,-0.190,-0.190,-0.190,0.000,0.000,0.000
1640078557091600896,"2021-12-21,09:22:36",10.1.1.3,11937,-0.200,-0.200,-0.200,0.000,0.000,0.000
1640078557106514944,"2021-12-21,09:22:37",10.1.1.3,12.520164012908936,-0.200,-0.200,-0.200,0.000,0.000,0.000
1640078557503561984,"2021-12-21,09:22:37",10.1.1.3,394,-0.210,-0.210,-0.210,0.000,0.000,0.000
1640078557608465920,"2021-12-21,09:22:37",10.1.1.3,0.4999241828918457,-0.210,-0.210,-0.210,0.000,0.000,0.000
1640078558039828992,"2021-12-21,09:22:38",10.1.1.3,428,-0.220,-0.220,-0.220,0.000,0.000,0.000
1640078558115329024,"2021-12-21,09:22:38",10.1.1.3,0.5038900375366211,-0.220,-0.220,-0.220,0.000,0.000,0.000
1640078558500722944,"2021-12-21,09:22:38",10.1.1.3,382,-0.230,-0.230,-0.230,0.000,0.000,0.000
1640078558524753152,"2021-12-21,09:22:38",10.1.1.3,0.40744709968566895,-0.230,-0.230,-0.230,0.000,0.000,0.000
1640078558958901760,"2021-12-21,09:22:38",10.1.1.3,432,-0.240,-0.240,-0.240,0.000,0.000,0.000
1640078559089759232,"2021-12-21,09:22:39",10.1.1.3,0.5635240077972412,-0.240,-0.240,-0.240,0.000,0.000,0.000
1640078559464580096,"2021-12-21,09:22:39",10.1.1.3,373,-0.250,-0.250,-0.250,0.000,0.000,0.000
1640078559538050816,"2021-12-21,09:22:39",10.1.1.3,0.4465310573577881,-0.250,-0.250,-0.250,0.000,0.000,0.000
1640078560132497920,"2021-12-21,09:22:40",10.1.1.3,335,-0.260,-0.260,-0.260,0.000,0.000,0.000
1640078560204584960,"2021-12-21,09:22:40",10.1.1.3,0.40784406661987305,-0.260,-0.260,-0.260,0.000,0.000,0.000
1640078560535897856,"2021-12-21,09:22:40",10.1.1.3,329,-0.270,-0.270,-0.270,0.000,0.000,0.000
1640078560569538048,"2021-12-21,09:22:40",10.1.1.3,0.36231088638305664,-0.270,-0.270,-0.270,0.000,0.000,0.000
1640078560894691840,"2021-12-21,09:22:40",10.1.1.3,319,-0.280,-0.280,-0.280,0.000,0.000,0.000
1640078560936194816,"2021-12-21,09:22:40",10.1.1.3,0.3615078926086426,-0.280,-0.280,-0.280,0.000,0.000,0.000
1640078561295828224,"2021-12-21,09:22:41",10.1.1.3,357,-0.290,-0.290,-0.290,0.000,0.000,0.000
1640078561377172992,"2021-12-21,09:22:41",10.1.1.3,0.4394528865814209,-0.290,-0.290,-0.290,0.000,0.000,0.000
1640078561813960960,"2021-12-21,09:22:41",10.1.1.3,402,-0.300,-0.300,-0.300,0.000,0.000,0.000
1640078561849863936,"2021-12-21,09:22:41",10.1.1.3,0.47121286392211914,-0.300,-0.300,-0.300,0.000,0.000,0.000
1640078562212840960,"2021-12-21,09:22:42",10.1.1.3,357,-0.310,-0.310,-0.310,0.000,0.000,0.000
1640078562290326016,"2021-12-21,09:22:42",10.1.1.3,0.4353609085083008,-0.310,-0.310,-0.310,0.000,0.000,0.000
1640078562672625152,"2021-12-21,09:22:42",10.1.1.3,379,-0.320,-0.320,-0.320,0.000,0.000,0.000
1640078562711813888,"2021-12-21,09:22:42",10.1.1.3,0.418165922164917,-0.320,-0.320,-0.320,0.000,0.000,0.000
1640078563111078144,"2021-12-21,09:22:43",10.1.1.3,393,-0.330,-0.330,-0.330,0.000,0.000,0.000
1640078563164398080,"2021-12-21,09:22:43",10.1.1.3,0.4464271068572998,-0.330,-0.330,-0.330,0.000,0.000,0.000
1640078563695544832,"2021-12-21,09:22:43",10.1.1.3,529,-0.340,-0.340,-0.340,0.000,0.000,0.000
1640078563732947200,"2021-12-21,09:22:43",10.1.1.3,0.5669190883636475,-0.340,-0.340,-0.340,0.000,0.000,0.000
1640078564198272000,"2021-12-21,09:22:44",10.1.1.3,440,-0.350,-0.350,-0.350,0.000,0.000,0.000
1640078564236648960,"2021-12-21,09:22:44",10.1.1.3,0.4787890911102295,-0.350,-0.350,-0.350,0.000,0.000,0.000
1640078564641380096,"2021-12-21,09:22:44",10.1.1.3,400,-0.360,-0.360,-0.360,0.000,0.000,0.000
1640078564688333056,"2021-12-21,09:22:44",10.1.1.3,0.4473381042480469,-0.360,-0.360,-0.360,0.000,0.000,0.000
1640078565036516864,"2021-12-21,09:22:45",10.1.1.3,345,-0.370,-0.370,-0.370,0.000,0.000,0.000
1640078565104000000,"2021-12-21,09:22:45",10.1.1.3,0.4131910800933838,-0.370,-0.370,-0.370,0.000,0.000,0.000
1640078565446252032,"2021-12-21,09:22:45",10.1.1.3,338,-0.380,-0.380,-0.380,0.000,0.000,0.000
1640078565498016000,"2021-12-21,09:22:45",10.1.1.3,0.3905918598175049,-0.380,-0.380,-0.380,0.000,0.000,0.000
1640078565896708096,"2021-12-21,09:22:45",10.1.1.3,393,-0.390,-0.390,-0.390,0.000,0.000,0.000
1640078565921278976,"2021-12-21,09:22:45",10.1.1.3,0.41855311393737793,-0.390,-0.390,-0.390,0.000,0.000,0.000
1640078566277111040,"2021-12-21,09:22:46",10.1.1.3,353,-0.400,-0.400,-0.400,0.000,0.000,0.000
1640078566370475008,"2021-12-21,09:22:46",10.1.1.3,0.44714903831481934,-0.400,-0.400,-0.400,0.000,0.000,0.000
1640078566825826816,"2021-12-21,09:22:46",10.1.1.3,447,-0.410,-0.410,-0.410,0.000,0.000,0.000
1640078566842010880,"2021-12-21,09:22:46",10.1.1.3,0.4638631343841553,-0.410,-0.410,-0.410,0.000,0.000,0.000
1640078567164119040,"2021-12-21,09:22:47",10.1.1.3,316,-0.420,-0.420,-0.420,0.000,0.000,0.000
1640078567210597120,"2021-12-21,09:22:47",10.1.1.3,0.36296987533569336,-0.420,-0.420,-0.420,0.000,0.000,0.000
1640078567594917120,"2021-12-21,09:22:47",10.1.1.3,379,-0.430,-0.430,-0.430,0.000,0.000,0.000
1640078567708627968,"2021-12-21,09:22:47",10.1.1.3,0.4935300350189209,-0.430,-0.430,-0.430,0.000,0.000,0.000
1640078568121400064,"2021-12-21,09:22:48",10.1.1.3,408,-0.440,-0.440,-0.440,0.000,0.000,0.000
1640078568179936768,"2021-12-21,09:22:48",10.1.1.3,0.46700286865234375,-0.440,-0.440,-0.440,0.000,0.000,0.000
1640078568613683968,"2021-12-21,09:22:48",10.1.1.3,411,-0.450,-0.450,-0.450,0.000,0.000,0.000
1640078568639256064,"2021-12-21,09:22:48",10.1.1.3,0.44171595573425293,-0.450,-0.450,-0.450,0.000,0.000,0.000
1640078569079988992,"2021-12-21,09:22:49",10.1.1.3,435,-0.460,-0.460,-0.460,0.000,0.000,0.000
1640078569143680000,"2021-12-21,09:22:49",10.1.1.3,0.49971604347229004,-0.460,-0.460,-0.460,0.000,0.000,0.000
1640078569570394112,"2021-12-21,09:22:49",10.1.1.3,425,-0.470,-0.470,-0.470,0.000,0.000,0.000
1640078569664093952,"2021-12-21,09:22:49",10.1.1.3,0.5187840461730957,-0.470,-0.470,-0.470,0.000,0.000,0.000
1640078569674069760,"2021-12-21,09:22:49",10.1.1.3,-6,-0.480,-0.480,-0.480,0.000,0.000,0.000
1640078570066124032,"2021-12-21,09:22:50",10.1.1.3,0.39403510093688965,-0.480,-0.480,-0.480,0.000,0.000,0.000
1640078570428311040,"2021-12-21,09:22:50",10.1.1.3,356,-0.490,-0.490,-0.490,0.000,0.000,0.000
1640078570485209088,"2021-12-21,09:22:50",10.1.1.3,0.4130868911743164,-0.490,-0.490,-0.490,0.000,0.000,0.000
1640078570837763072,"2021-12-21,09:22:50",10.1.1.3,350,-0.480,-0.480,-0.480,0.000,0.000,0.000
1640078570893558016,"2021-12-21,09:22:50",10.1.1.3,0.40612292289733887,-0.480,-0.480,-0.480,0.000,0.000,0.000
1640078571429361152,"2021-12-21,09:22:51",10.1.1.3,528,-0.470,-0.470,-0.470,0.000,0.000,0.000
1640078571472600064,"2021-12-21,09:22:51",10.1.1.3,0.571962833404541,-0.470,-0.470,-0.470,0.000,0.000,0.000
1640078571815969024,"2021-12-21,09:22:51",10.1.1.3,341,-0.460,-0.460,-0.460,0.000,0.000,0.000
1640078571875868928,"2021-12-21,09:22:51",10.1.1.3,0.3997349739074707,-0.460,-0.460,-0.460,0.000,0.000,0.000
1640078572211632896,"2021-12-21,09:22:52",10.1.1.3,332,-0.450,-0.450,-0.450,0.000,0.000,0.000
1640078572241012224,"2021-12-21,09:22:52",10.1.1.3,0.3626739978790283,-0.450,-0.450,-0.450,0.000,0.000,0.000
1640078572616733952,"2021-12-21,09:22:52",10.1.1.3,364,-0.440,-0.440,-0.440,0.000,0.000,0.000
1640078572715941888,"2021-12-21,09:22:52",10.1.1.3,0.4646768569946289,-0.440,-0.440,-0.440,0.000,0.000,0.000
1640078573114778880,"2021-12-21,09:22:53",10.1.1.3,395,-0.430,-0.430,-0.430,0.000,0.000,0.000
1640078573124353792,"2021-12-21,09:22:53",10.1.1.3,0.4051539897918701,-0.430,-0.430,-0.430,0.000,0.000,0.000
1640078573503660032,"2021-12-21,09:22:53",10.1.1.3,377,-0.420,-0.420,-0.420,0.000,0.000,0.000
1640078573556371968,"2021-12-21,09:22:53",10.1.1.3,0.4303569793701172,-0.420,-0.420,-0.420,0.000,0.000,0.000
1640078573923808000,"2021-12-21,09:22:53",10.1.1.3,365,-0.410,-0.410,-0.410,0.000,0.000,0.000
1640078573996231168,"2021-12-21,09:22:53",10.1.1.3,0.4379739761352539,-0.410,-0.410,-0.410,0.000,0.000,0.000
1640078574392180992,"2021-12-21,09:22:54",10.1.1.3,384,-0.400,-0.400,-0.400,0.000,0.000,0.000
1640078574432722176,"2021-12-21,09:22:54",10.1.1.3,0.42503809928894043,-0.400,-0.400,-0.400,0.000,0.000,0.000
1640078574793668864,"2021-12-21,09:22:54",10.1.1.3,357,-0.390,-0.390,-0.390,0.000,0.000,0.000
1640078574813366784,"2021-12-21,09:22:54",10.1.1.3,0.37685298919677734,-0.390,-0.390,-0.390,0.000,0.000,0.000
1640078575166318848,"2021-12-21,09:22:55",10.1.1.3,342,-0.380,-0.380,-0.380,0.000,0.000,0.000
1640078575263364096,"2021-12-21,09:22:55",10.1.1.3,0.43986082077026367,-0.380,-0.380,-0.380,0.000,0.000,0.000
1640078575649256960,"2021-12-21,09:22:55",10.1.1.3,384,-0.370,-0.370,-0.370,0.000,0.000,0.000
1640078575752826880,"2021-12-21,09:22:55",10.1.1.3,0.48386216163635254,-0.370,-0.370,-0.370,0.000,0.000,0.000
1640078576225974016,"2021-12-21,09:22:56",10.1.1.3,466,-0.360,-0.360,-0.360,0.000,0.000,0.000
1640078576244965120,"2021-12-21,09:22:56",10.1.1.3,0.4851357936859131,-0.360,-0.360,-0.360,0.000,0.000,0.000
1640078576611591168,"2021-12-21,09:22:56",10.1.1.3,365,-0.350,-0.350,-0.350,0.000,0.000,0.000
1640078576681587968,"2021-12-21,09:22:56",10.1.1.3,0.435405969619751,-0.350,-0.350,-0.350,0.000,0.000,0.000
1640078577049370880,"2021-12-21,09:22:57",10.1.1.3,365,-0.340,-0.340,-0.340,0.000,0.000,0.000
1640078577079901952,"2021-12-21,09:22:57",10.1.1.3,0.39634108543395996,-0.340,-0.340,-0.340,0.000,0.000,0.000
1640078577417843200,"2021-12-21,09:22:57",10.1.1.3,336,-0.330,-0.330,-0.330,0.000,0.000,0.000
1640078577492072192,"2021-12-21,09:22:57",10.1.1.3,0.41083502769470215,-0.330,-0.330,-0.330,0.000,0.000,0.000
1640078577858743040,"2021-12-21,09:22:57",10.1.1.3,365,-0.320,-0.320,-0.320,0.000,0.000,0.000
1640078577876806912,"2021-12-21,09:22:57",10.1.1.3,0.38335514068603516,-0.320,-0.320,-0.320,0.000,0.000,0.000
1640078578324969984,"2021-12-21,09:22:58",10.1.1.3,444,-0.310,-0.310,-0.310,0.000,0.000,0.000
1640078578409918976,"2021-12-21,09:22:58",10.1.1.3,0.5293340682983398,-0.310,-0.310,-0.310,0.000,0.000,0.000
1640078578825666048,"2021-12-21,09:22:58",10.1.1.3,411,-0.300,-0.300,-0.300,0.000,0.000,0.000
1640078578906258944,"2021-12-21,09:22:58",10.1.1.3,0.49205517768859863,-0.300,-0.300,-0.300,0.000,0.000,0.000
1640078579302999040,"2021-12-21,09:22:59",10.1.1.3,386,-0.290,-0.290,-0.290,0.000,0.000,0.000
1640078579364353792,"2021-12-21,09:22:59",10.1.1.3,0.44820380210876465,-0.290,-0.290,-0.290,0.000,0.000,0.000
1640078580313848064,"2021-12-21,09:23:00",10.1.1.3,943,-0.280,-0.280,-0.280,0.000,0.000,0.000
1640078580360506112,"2021-12-21,09:23:00",10.1.1.3,0.990574836730957,-0.280,-0.280,-0.280,0.000,0.000,0.000
1640078581539894016,"2021-12-21,09:23:00",10.1.1.3,437,-0.270,-0.270,-0.270,0.000,0.000,0.000
1640078581573246976,"2021-12-21,09:23:01",10.1.1.3,1.211111068725586,-0.270,-0.270,-0.270,0.000,0.000,0.000
1640078581978183936,"2021-12-21,09:23:01",10.1.1.3,403,-0.260,-0.260,-0.260,0.000,0.000,0.000
1640078582071572992,"2021-12-21,09:23:02",10.1.1.3,0.49648594856262207,-0.260,-0.260,-0.260,0.000,0.000,0.000
1640078582407067136,"2021-12-21,09:23:02",10.1.1.3,332,-0.250,-0.250,-0.250,0.000,0.000,0.000
1640078582483782912,"2021-12-21,09:23:02",10.1.1.3,0.4093761444091797,-0.250,-0.250,-0.250,0.000,0.000,0.000
1640078582806595072,"2021-12-21,09:23:02",10.1.1.3,321,-0.240,-0.240,-0.240,0.000,0.000,0.000
1640078582868891904,"2021-12-21,09:23:02",10.1.1.3,0.3838019371032715,-0.240,-0.240,-0.240,0.000,0.000,0.000
1640079203065062144,"2021-12-21,09:33:22",10.1.1.3,620.088828086853,-0.230,-0.230,-0.230,0.000,0.000,0.000
1640079204160442112,"2021-12-21,09:33:24",10.1.1.3,1.0268831253051758,-0.220,-0.220,-0.220,0.000,0.000,0.000
1640079205189198080,"2021-12-21,09:33:25",10.1.1.3,1.014389991760254,-0.210,-0.210,-0.210,0.000,0.000,0.000
1640079206100888064,"2021-12-21,09:33:26",10.1.1.3,0.90118408203125,-0.200,-0.200,-0.200,0.000,0.000,0.000
1640079206820812032,"2021-12-21,09:33:26",10.1.1.3,0.6406230926513672,-0.190,-0.190,-0.190,0.000,0.000,0.000
1640079207606939136,"2021-12-21,09:33:27",10.1.1.3,0.7522900104522705,-0.180,-0.180,-0.180,0.000,0.000,0.000
1640079208285916160,"2021-12-21,09:33:28",10.1.1.3,0.6731529235839844,-0.170,-0.170,-0.170,0.000,0.000,0.000
1640079208963377920,"2021-12-21,09:33:28",10.1.1.3,0.6643631458282471,-0.160,-0.160,-0.160,0.000,0.000,0.000
1640079209813751808,"2021-12-21,09:33:29",10.1.1.3,0.8487608432769775,-0.150,-0.150,-0.150,0.000,0.000,0.000
1640079210649853952,"2021-12-21,09:33:30",10.1.1.3,0.8296430110931396,-0.140,-0.140,-0.140,0.000,0.000,0.000
1640079211257289984,"2021-12-21,09:33:31",10.1.1.3,0.5955989360809326,-0.130,-0.130,-0.130,0.000,0.000,0.000
1640079211992649984,"2021-12-21,09:33:31",10.1.1.3,0.7216100692749023,-0.120,-0.120,-0.120,0.000,0.000,0.000
1640079213227085056,"2021-12-21,09:33:33",10.1.1.3,1.231626033782959,-0.110,-0.110,-0.110,0.000,0.000,0.000
1640079214071089920,"2021-12-21,09:33:34",10.1.1.3,0.8125531673431396,-0.100,-0.100,-0.100,0.000,0.000,0.000
1640079214930563840,"2021-12-21,09:33:34",10.1.1.3,0.8114340305328369,-0.090,-0.090,-0.090,0.000,0.000,0.000
1640079215630104064,"2021-12-21,09:33:35",10.1.1.3,0.6880049705505371,-0.080,-0.080,-0.080,0.000,0.000,0.000
1640079216368033792,"2021-12-21,09:33:36",10.1.1.3,0.7327370643615723,-0.070,-0.070,-0.070,0.000,0.000,0.000
1640079216999109120,"2021-12-21,09:33:36",10.1.1.3,628,-0.060,-0.060,-0.060,0.000,0.000,0.000
1640079217121021952,"2021-12-21,09:33:37",10.1.1.3,0.7400898933410645,-0.060,-0.060,-0.060,0.000,0.000,0.000
1640079218083373056,"2021-12-21,09:33:38",10.1.1.3,941,-0.050,-0.050,-0.050,0.000,0.000,0.000
1640079218273092096,"2021-12-21,09:33:38",10.1.1.3,1.1313908100128174,-0.050,-0.050,-0.050,0.000,0.000,0.000
1640079219113697024,"2021-12-21,09:33:39",10.1.1.3,0.8278830051422119,-0.040,-0.040,-0.040,0.000,0.000,0.000
1640079220065992192,"2021-12-21,09:33:40",10.1.1.3,950,-0.030,-0.030,-0.030,0.000,0.000,0.000
1640079220128675072,"2021-12-21,09:33:40",10.1.1.3,1.0132579803466797,-0.030,-0.030,-0.030,0.000,0.000,0.000
1640079220852883200,"2021-12-21,09:33:40",10.1.1.3,713,-0.020,-0.020,-0.020,0.000,0.000,0.000
1640079221034443008,"2021-12-21,09:33:41",10.1.1.3,0.8946349620819092,-0.020,-0.020,-0.020,0.000,0.000,0.000
1640079222216822016,"2021-12-21,09:33:42",10.1.1.3,1154,-0.010,-0.010,-0.010,0.000,0.000,0.000
1640079222354319104,"2021-12-21,09:33:42",10.1.1.3,1.2923970222473145,-0.010,-0.010,-0.010,0.000,0.000,0.000
1640079223019921920,"2021-12-21,09:33:43",10.1.1.3,651,0.000,0.000,0.000,0.000,0.000,0.000
1640079223215860992,"2021-12-21,09:33:43",10.1.1.3,0.8474700450897217,0.000,0.000,0.000,0.000,0.000,0.000
1640079223874102016,"2021-12-21,09:33:43",10.1.1.3,651,-0.010,-0.010,-0.010,0.000,0.000,0.000
1640079224023444992,"2021-12-21,09:33:44",10.1.1.3,0.8008031845092773,-0.010,-0.010,-0.010,0.000,0.000,0.000
1640079224730678016,"2021-12-21,09:33:44",10.1.1.3,688,-0.020,-0.020,-0.020,0.000,0.000,0.000
1640079224781160192,"2021-12-21,09:33:44",10.1.1.3,0.7396249771118164,-0.020,-0.020,-0.020,0.000,0.000,0.000
1640079225457724160,"2021-12-21,09:33:45",10.1.1.3,662,-0.030,-0.030,-0.030,0.000,0.000,0.000
1640079225707910912,"2021-12-21,09:33:45",10.1.1.3,0.9128201007843018,-0.030,-0.030,-0.030,0.000,0.000,0.000
1640079226384825856,"2021-12-21,09:33:46",10.1.1.3,604,-0.040,-0.040,-0.040,0.000,0.000,0.000
1640079226449687040,"2021-12-21,09:33:46",10.1.1.3,0.6696999073028564,-0.040,-0.040,-0.040,0.000,0.000,0.000
1640079227189816064,"2021-12-21,09:33:47",10.1.1.3,727,-0.050,-0.050,-0.050,0.000,0.000,0.000
1640079227281186048,"2021-12-21,09:33:47",10.1.1.3,0.8191368579864502,-0.050,-0.050,-0.050,0.000,0.000,0.000
1640079227964876032,"2021-12-21,09:33:47",10.1.1.3,682,-0.060,-0.060,-0.060,0.000,0.000,0.000
1640079228132301056,"2021-12-21,09:33:48",10.1.1.3,0.8496789932250977,-0.060,-0.060,-0.060,0.000,0.000,0.000
1640079228856281088,"2021-12-21,09:33:48",10.1.1.3,646,-0.070,-0.070,-0.070,0.000,0.000,0.000
1640079229045874176,"2021-12-21,09:33:49",10.1.1.3,0.8356931209564209,-0.070,-0.070,-0.070,0.000,0.000,0.000
1640079229753256192,"2021-12-21,09:33:49",10.1.1.3,662,-0.080,-0.080,-0.080,0.000,0.000,0.000
1640079229877726976,"2021-12-21,09:33:49",10.1.1.3,0.787449836730957,-0.080,-0.080,-0.080,0.000,0.000,0.000
1640079230488320000,"2021-12-21,09:33:50",10.1.1.3,601,-0.090,-0.090,-0.090,0.000,0.000,0.000
1640079230643582976,"2021-12-21,09:33:50",10.1.1.3,0.7566041946411133,-0.090,-0.090,-0.090,0.000,0.000,0.000
1640079231196914944,"2021-12-21,09:33:51",10.1.1.3,540,-0.100,-0.100,-0.100,0.000,0.000,0.000
1640079231325784064,"2021-12-21,09:33:51",10.1.1.3,0.6692168712615967,-0.100,-0.100,-0.100,0.000,0.000,0.000
1640079231858066944,"2021-12-21,09:33:51",10.1.1.3,516,-0.110,-0.110,-0.110,0.000,0.000,0.000
1640079232064210944,"2021-12-21,09:33:52",10.1.1.3,0.722337007522583,-0.110,-0.110,-0.110,0.000,0.000,0.000
1640079232778938112,"2021-12-21,09:33:52",10.1.1.3,0.6537179946899414,-0.120,-0.120,-0.120,0.000,0.000,0.000
1640079232779472128,"2021-12-21,09:33:52",10.1.1.3,654,-0.120,-0.120,-0.120,0.000,0.000,0.000
1640079233523049216,"2021-12-21,09:33:53",10.1.1.3,716,-0.130,-0.130,-0.130,0.000,0.000,0.000
1640079233597614080,"2021-12-21,09:33:53",10.1.1.3,0.7915821075439453,-0.130,-0.130,-0.130,0.000,0.000,0.000
1640079234175740928,"2021-12-21,09:33:54",10.1.1.3,559,-0.140,-0.140,-0.140,0.000,0.000,0.000
1640079234204062976,"2021-12-21,09:33:54",10.1.1.3,0.5885159969329834,-0.140,-0.140,-0.140,0.000,0.000,0.000
1640079234881648896,"2021-12-21,09:33:54",10.1.1.3,662,-0.150,-0.150,-0.150,0.000,0.000,0.000
1640079235102082048,"2021-12-21,09:33:55",10.1.1.3,0.8834140300750732,-0.150,-0.150,-0.150,0.000,0.000,0.000
1640079235761218048,"2021-12-21,09:33:55",10.1.1.3,629,-0.160,-0.160,-0.160,0.000,0.000,0.000
1640079235919128064,"2021-12-21,09:33:55",10.1.1.3,0.7987208366394043,-0.160,-0.160,-0.160,0.000,0.000,0.000
1640079236604302848,"2021-12-21,09:33:56",10.1.1.3,652,-0.170,-0.170,-0.170,0.000,0.000,0.000
1640079236828468992,"2021-12-21,09:33:56",10.1.1.3,0.8763329982757568,-0.170,-0.170,-0.170,0.000,0.000,0.000
1640079237616163072,"2021-12-21,09:33:57",10.1.1.3,763,-0.180,-0.180,-0.180,0.000,0.000,0.000
1640079237917172992,"2021-12-21,09:33:57",10.1.1.3,1.0684030055999756,-0.180,-0.180,-0.180,0.000,0.000,0.000
1640079238614085888,"2021-12-21,09:33:58",10.1.1.3,688,-0.190,-0.190,-0.190,0.000,0.000,0.000
1640079238727776000,"2021-12-21,09:33:58",10.1.1.3,0.802250862121582,-0.190,-0.190,-0.190,0.000,0.000,0.000
1640079239377211136,"2021-12-21,09:33:59",10.1.1.3,644,-0.200,-0.200,-0.200,0.000,0.000,0.000
1640079239773592064,"2021-12-21,09:33:59",10.1.1.3,1.0411880016326904,-0.200,-0.200,-0.200,0.000,0.000,0.000
1640079240363203072,"2021-12-21,09:34:00",10.1.1.3,574,-0.210,-0.210,-0.210,0.000,0.000,0.000
1640079240477691904,"2021-12-21,09:34:00",10.1.1.3,0.6894710063934326,-0.210,-0.210,-0.210,0.000,0.000,0.000
1640079243354528000,"2021-12-21,09:34:03",10.1.1.3,2754,-0.220,-0.220,-0.220,0.000,0.000,0.000
1640079243458126080,"2021-12-21,09:34:03",10.1.1.3,2.952036142349243,-0.220,-0.220,-0.220,0.000,0.000,0.000
1640079244247503872,"2021-12-21,09:34:04",10.1.1.3,748,-0.230,-0.230,-0.230,0.000,0.000,0.000
1640079244356401920,"2021-12-21,09:34:04",10.1.1.3,0.8578450679779053,-0.230,-0.230,-0.230,0.000,0.000,0.000
1640079245010483968,"2021-12-21,09:34:05",10.1.1.3,652,-0.240,-0.240,-0.240,0.000,0.000,0.000
1640079245128743936,"2021-12-21,09:34:05",10.1.1.3,0.77081298828125,-0.240,-0.240,-0.240,0.000,0.000,0.000
1640079246081187072,"2021-12-21,09:34:06",10.1.1.3,903,-0.250,-0.250,-0.250,0.000,0.000,0.000
1640079246210241024,"2021-12-21,09:34:06",10.1.1.3,1.0329930782318115,-0.250,-0.250,-0.250,0.000,0.000,0.000
1640079246924065024,"2021-12-21,09:34:06",10.1.1.3,655,-0.260,-0.260,-0.260,0.000,0.000,0.000
1640079247070807808,"2021-12-21,09:34:07",10.1.1.3,0.831913948059082,-0.260,-0.260,-0.260,0.000,0.000,0.000
1640079247558454016,"2021-12-21,09:34:07",10.1.1.3,486,-0.270,-0.270,-0.270,0.000,0.000,0.000
1640079247776331008,"2021-12-21,09:34:07",10.1.1.3,0.7039608955383301,-0.270,-0.270,-0.270,0.000,0.000,0.000
1640079248533906944,"2021-12-21,09:34:08",10.1.1.3,695,-0.280,-0.280,-0.280,0.000,0.000,0.000
1640079248677005056,"2021-12-21,09:34:08",10.1.1.3,0.8974649906158447,-0.280,-0.280,-0.280,0.000,0.000,0.000
1640079249072079872,"2021-12-21,09:34:09",10.1.1.3,393,-0.290,-0.290,-0.290,0.000,0.000,0.000
1640079249214301952,"2021-12-21,09:34:09",10.1.1.3,0.5357620716094971,-0.290,-0.290,-0.290,0.000,0.000,0.000
1640079249876024064,"2021-12-21,09:34:09",10.1.1.3,587,-0.300,-0.300,-0.300,0.000,0.000,0.000
1640079250074449920,"2021-12-21,09:34:10",10.1.1.3,0.7857198715209961,-0.300,-0.300,-0.300,0.000,0.000,0.000
1640079250577392128,"2021-12-21,09:34:10",10.1.1.3,475,-0.310,-0.310,-0.310,0.000,0.000,0.000
1640079250930070016,"2021-12-21,09:34:10",10.1.1.3,0.8278179168701172,-0.310,-0.310,-0.310,0.000,0.000,0.000
1640079251520470016,"2021-12-21,09:34:11",10.1.1.3,576,-0.320,-0.320,-0.320,0.000,0.000,0.000
1640079251655446016,"2021-12-21,09:34:11",10.1.1.3,0.711108922958374,-0.320,-0.320,-0.320,0.000,0.000,0.000
1640079251717042944,"2021-12-21,09:34:11",10.1.1.3,-2,-0.330,-0.330,-0.330,0.000,0.000,0.000
1640079252479627008,"2021-12-21,09:34:12",10.1.1.3,0.8215639591217041,-0.330,-0.330,-0.330,0.000,0.000,0.000
1640079253210535168,"2021-12-21,09:34:13",10.1.1.3,717,-0.340,-0.340,-0.340,0.000,0.000,0.000
1640079253229320960,"2021-12-21,09:34:13",10.1.1.3,0.7367770671844482,-0.340,-0.340,-0.340,0.000,0.000,0.000
1640079254034316032,"2021-12-21,09:34:14",10.1.1.3,803,-0.350,-0.350,-0.350,0.000,0.000,0.000
1640079254118855936,"2021-12-21,09:34:14",10.1.1.3,0.8877542018890381,-0.350,-0.350,-0.350,0.000,0.000,0.000
1640079254786304000,"2021-12-21,09:34:14",10.1.1.3,665,-0.360,-0.360,-0.360,0.000,0.000,0.000
1640079254891227904,"2021-12-21,09:34:14",10.1.1.3,0.770888090133667,-0.360,-0.360,-0.360,0.000,0.000,0.000
1640079255582412032,"2021-12-21,09:34:15",10.1.1.3,678,-0.370,-0.370,-0.370,0.000,0.000,0.000
1640079255794289152,"2021-12-21,09:34:15",10.1.1.3,0.8476231098175049,-0.370,-0.370,-0.370,0.000,0.000,0.000
1640079256548237056,"2021-12-21,09:34:16",10.1.1.3,679,-0.380,-0.380,-0.380,0.000,0.000,0.000
1640079256646526208,"2021-12-21,09:34:16",10.1.1.3,0.7782731056213379,-0.380,-0.380,-0.380,0.000,0.000,0.000
1640079257303000064,"2021-12-21,09:34:17",10.1.1.3,643,-0.390,-0.390,-0.390,0.000,0.000,0.000
1640079257432649984,"2021-12-21,09:34:17",10.1.1.3,0.7732868194580078,-0.390,-0.390,-0.390,0.000,0.000,0.000
1640079258269670912,"2021-12-21,09:34:18",10.1.1.3,0.8272378444671631,-0.400,-0.400,-0.400,0.000,0.000,0.000
1640079258924819968,"2021-12-21,09:34:18",10.1.1.3,0.6506481170654297,-0.410,-0.410,-0.410,0.000,0.000,0.000
1640079259416485120,"2021-12-21,09:34:19",10.1.1.3,483,-0.420,-0.420,-0.420,0.000,0.000,0.000
1640079259594284032,"2021-12-21,09:34:19",10.1.1.3,0.6601698398590088,-0.420,-0.420,-0.420,0.000,0.000,0.000
1640079260627495936,"2021-12-21,09:34:20",10.1.1.3,952,-0.430,-0.430,-0.430,0.000,0.000,0.000
1640079260783677184,"2021-12-21,09:34:20",10.1.1.3,1.108422040939331,-0.430,-0.430,-0.430,0.000,0.000,0.000
1640079261420984064,"2021-12-21,09:34:21",10.1.1.3,633,-0.440,-0.440,-0.440,0.000,0.000,0.000
1640079261533634048,"2021-12-21,09:34:21",10.1.1.3,0.7465879917144775,-0.440,-0.440,-0.440,0.000,0.000,0.000
1640079262118081024,"2021-12-21,09:34:22",10.1.1.3,577,-0.450,-0.450,-0.450,0.000,0.000,0.000
1640079262349355008,"2021-12-21,09:34:22",10.1.1.3,0.809175968170166,-0.450,-0.450,-0.450,0.000,0.000,0.000
1640079263059624960,"2021-12-21,09:34:23",10.1.1.3,705,-0.460,-0.460,-0.460,0.000,0.000,0.000
1640079263135211008,"2021-12-21,09:34:23",10.1.1.3,0.7769091129302979,-0.460,-0.460,-0.460,0.000,0.000,0.000
1640079263841500928,"2021-12-21,09:34:23",10.1.1.3,697,-0.470,-0.470,-0.470,0.000,0.000,0.000
1640079264013100032,"2021-12-21,09:34:24",10.1.1.3,0.869603157043457,-0.470,-0.470,-0.470,0.000,0.000,0.000
1640079264613549824,"2021-12-21,09:34:24",10.1.1.3,575,-0.480,-0.480,-0.480,0.000,0.000,0.000
1640079264756185088,"2021-12-21,09:34:24",10.1.1.3,0.7182691097259521,-0.480,-0.480,-0.480,0.000,0.000,0.000
1640079265500755968,"2021-12-21,09:34:25",10.1.1.3,742,-0.490,-0.490,-0.490,0.000,0.000,0.000
1640079265735107072,"2021-12-21,09:34:25",10.1.1.3,0.977043867111206,-0.490,-0.490,-0.490,0.000,0.000,0.000
1640079266328862976,"2021-12-21,09:34:26",10.1.1.3,571,-0.480,-0.480,-0.480,0.000,0.000,0.000
1640079266848823040,"2021-12-21,09:34:26",10.1.1.3,1.1005849838256836,-0.480,-0.480,-0.480,0.000,0.000,0.000
1640079267433918976,"2021-12-21,09:34:27",10.1.1.3,580,-0.470,-0.470,-0.470,0.000,0.000,0.000
1640079267617750016,"2021-12-21,09:34:27",10.1.1.3,0.764693021774292,-0.470,-0.470,-0.470,0.000,0.000,0.000
1640079268126184960,"2021-12-21,09:34:28",10.1.1.3,506,-0.460,-0.460,-0.460,0.000,0.000,0.000
1640079268316409088,"2021-12-21,09:34:28",10.1.1.3,0.696976900100708,-0.460,-0.460,-0.460,0.000,0.000,0.000
1640079269038779904,"2021-12-21,09:34:29",10.1.1.3,700,-0.450,-0.450,-0.450,0.000,0.000,0.000
1640079269265456896,"2021-12-21,09:34:29",10.1.1.3,0.9273278713226318,-0.450,-0.450,-0.450,0.000,0.000,0.000
1640079269919529984,"2021-12-21,09:34:29",10.1.1.3,626,-0.440,-0.440,-0.440,0.000,0.000,0.000
1640079269988528128,"2021-12-21,09:34:29",10.1.1.3,0.7116038799285889,-0.440,-0.440,-0.440,0.000,0.000,0.000
1640079270627717888,"2021-12-21,09:34:30",10.1.1.3,636,-0.430,-0.430,-0.430,0.000,0.000,0.000
1640079270666906112,"2021-12-21,09:34:30",10.1.1.3,0.6754400730133057,-0.430,-0.430,-0.430,0.000,0.000,0.000
1640079271402084096,"2021-12-21,09:34:31",10.1.1.3,706,-0.420,-0.420,-0.420,0.000,0.000,0.000
1640079271447491840,"2021-12-21,09:34:31",10.1.1.3,0.7548141479492188,-0.420,-0.420,-0.420,0.000,0.000,0.000
1640079272109932032,"2021-12-21,09:34:32",10.1.1.3,640,-0.410,-0.410,-0.410,0.000,0.000,0.000
1640079272194427136,"2021-12-21,09:34:32",10.1.1.3,0.7444579601287842,-0.410,-0.410,-0.410,0.000,0.000,0.000
1640079272925172992,"2021-12-21,09:34:32",10.1.1.3,702,-0.400,-0.400,-0.400,0.000,0.000,0.000
1640079273189867008,"2021-12-21,09:34:33",10.1.1.3,0.9677188396453857,-0.400,-0.400,-0.400,0.000,0.000,0.000
1640079273835886848,"2021-12-21,09:34:33",10.1.1.3,638,-0.390,-0.390,-0.390,0.000,0.000,0.000
1640079274168813824,"2021-12-21,09:34:34",10.1.1.3,0.9773471355438232,-0.390,-0.390,-0.390,0.000,0.000,0.000
1640079274779993088,"2021-12-21,09:34:34",10.1.1.3,609,-0.380,-0.380,-0.380,0.000,0.000,0.000
1640079274917934848,"2021-12-21,09:34:34",10.1.1.3,0.7473869323730469,-0.380,-0.380,-0.380,0.000,0.000,0.000
1640079275678678016,"2021-12-21,09:34:35",10.1.1.3,753,-0.370,-0.370,-0.370,0.000,0.000,0.000
1640079275791280128,"2021-12-21,09:34:35",10.1.1.3,0.8659961223602295,-0.370,-0.370,-0.370,0.000,0.000,0.000
1640079276463800064,"2021-12-21,09:34:36",10.1.1.3,670,-0.360,-0.360,-0.360,0.000,0.000,0.000
1640079276657757952,"2021-12-21,09:34:36",10.1.1.3,0.852031946182251,-0.360,-0.360,-0.360,0.000,0.000,0.000
1640079277191240192,"2021-12-21,09:34:37",10.1.1.3,529,-0.350,-0.350,-0.350,0.000,0.000,0.000
1640079277490562816,"2021-12-21,09:34:37",10.1.1.3,0.8291499614715576,-0.350,-0.350,-0.350,0.000,0.000,0.000
1640079278194771968,"2021-12-21,09:34:38",10.1.1.3,680,-0.340,-0.340,-0.340,0.000,0.000,0.000
1640079278461857024,"2021-12-21,09:34:38",10.1.1.3,0.9477598667144775,-0.340,-0.340,-0.340,0.000,0.000,0.000
1640079279050301184,"2021-12-21,09:34:39",10.1.1.3,586,-0.330,-0.330,-0.330,0.000,0.000,0.000
1640079279430455040,"2021-12-21,09:34:39",10.1.1.3,0.9669020175933838,-0.330,-0.330,-0.330,0.000,0.000,0.000
1640079279937868032,"2021-12-21,09:34:39",10.1.1.3,482,-0.320,-0.320,-0.320,0.000,0.000,0.000
1640079280202827008,"2021-12-21,09:34:40",10.1.1.3,0.7473940849304199,-0.320,-0.320,-0.320,0.000,0.000,0.000
1640079280856855040,"2021-12-21,09:34:40",10.1.1.3,643,-0.310,-0.310,-0.310,0.000,0.000,0.000
1640079281119469824,"2021-12-21,09:34:41",10.1.1.3,0.9062371253967285,-0.310,-0.310,-0.310,0.000,0.000,0.000
1640079281783799808,"2021-12-21,09:34:41",10.1.1.3,630,-0.300,-0.300,-0.300,0.000,0.000,0.000
1640079282045799936,"2021-12-21,09:34:42",10.1.1.3,0.8928840160369873,-0.300,-0.300,-0.300,0.000,0.000,0.000
1640079282937387008,"2021-12-21,09:34:42",10.1.1.3,0.8056740760803223,-0.290,-0.290,-0.290,0.000,0.000,0.000
1640079282938126080,"2021-12-21,09:34:42",10.1.1.3,874,-0.290,-0.290,-0.290,0.000,0.000,0.000
1640079283550107904,"2021-12-21,09:34:43",10.1.1.3,611,-0.280,-0.280,-0.280,0.000,0.000,0.000
1640079283733957888,"2021-12-21,09:34:43",10.1.1.3,0.7948529720306396,-0.280,-0.280,-0.280,0.000,0.000,0.000
1640079283766326016,"2021-12-21,09:34:43",10.1.1.3,-18,-0.270,-0.270,-0.270,0.000,0.000,0.000
1640079284609689088,"2021-12-21,09:34:44",10.1.1.3,0.858893871307373,-0.270,-0.270,-0.270,0.000,0.000,0.000
1640079294435403008,"2021-12-21,09:34:54",10.1.1.3,9595,-0.260,-0.260,-0.260,0.000,0.000,0.000
1640079294457091072,"2021-12-21,09:34:54",10.1.1.3,9.826130151748657,-0.260,-0.260,-0.260,0.000,0.000,0.000
1640079295153327104,"2021-12-21,09:34:55",10.1.1.3,694,-0.250,-0.250,-0.250,0.000,0.000,0.000
1640079295371184128,"2021-12-21,09:34:55",10.1.1.3,0.9122600555419922,-0.250,-0.250,-0.250,0.000,0.000,0.000
1640079296095642112,"2021-12-21,09:34:56",10.1.1.3,0.6071188449859619,-0.240,-0.240,-0.240,0.000,0.000,0.000
1640079296113650944,"2021-12-21,09:34:56",10.1.1.3,623,-0.240,-0.240,-0.240,0.000,0.000,0.000
1640079296922189824,"2021-12-21,09:34:56",10.1.1.3,808,-0.230,-0.230,-0.230,0.000,0.000,0.000
1640079296959894784,"2021-12-21,09:34:56",10.1.1.3,0.8460450172424316,-0.230,-0.230,-0.230,0.000,0.000,0.000
1640079297635972096,"2021-12-21,09:34:57",10.1.1.3,674,-0.220,-0.220,-0.220,0.000,0.000,0.000
1640079297636503040,"2021-12-21,09:34:57",10.1.1.3,0.6748089790344238,-0.220,-0.220,-0.220,0.000,0.000,0.000
1640079298615068928,"2021-12-21,09:34:58",10.1.1.3,891,-0.210,-0.210,-0.210,0.000,0.000,0.000
1640079298643683840,"2021-12-21,09:34:58",10.1.1.3,0.9413058757781982,-0.210,-0.210,-0.210,0.000,0.000,0.000
1640079299140558848,"2021-12-21,09:34:59",10.1.1.3,495,-0.200,-0.200,-0.200,0.000,0.000,0.000
1640079299327683072,"2021-12-21,09:34:59",10.1.1.3,0.6826949119567871,-0.200,-0.200,-0.200,0.000,0.000,0.000
1640079299814755072,"2021-12-21,09:34:59",10.1.1.3,455,-0.190,-0.190,-0.190,0.000,0.000,0.000
1640079299902493952,"2021-12-21,09:34:59",10.1.1.3,0.542978048324585,-0.190,-0.190,-0.190,0.000,0.000,0.000
1640079300782459904,"2021-12-21,09:35:00",10.1.1.3,874,-0.180,-0.180,-0.180,0.000,0.000,0.000
1640079300992688896,"2021-12-21,09:35:00",10.1.1.3,1.084733009338379,-0.180,-0.180,-0.180,0.000,0.000,0.000
1640079302044397056,"2021-12-21,09:35:01",10.1.1.3,759,-0.170,-0.170,-0.170,0.000,0.000,0.000
1640079303020126976,"2021-12-21,09:35:02",10.1.1.3,1.8686199188232422,-0.170,-0.170,-0.170,0.000,0.000,0.000
1640079303125690880,"2021-12-21,09:35:03",10.1.1.3,-294,-0.160,-0.160,-0.160,0.000,0.000,0.000
1640079305725067008,"2021-12-21,09:35:04",10.1.1.3,1.8531949520111084,-0.160,-0.160,-0.160,0.000,0.000,0.000
1640079307406568960,"2021-12-21,09:35:07",10.1.1.3,1534,-0.150,-0.150,-0.150,0.000,0.000,0.000
1640079307696836864,"2021-12-21,09:35:07",10.1.1.3,1.8258061408996582,-0.150,-0.150,-0.150,0.000,0.000,0.000
1640079308368423936,"2021-12-21,09:35:08",10.1.1.3,651,-0.140,-0.140,-0.140,0.000,0.000,0.000
1640079308701356032,"2021-12-21,09:35:08",10.1.1.3,1.0023338794708252,-0.140,-0.140,-0.140,0.000,0.000,0.000
1640079308877694976,"2021-12-21,09:35:08",10.1.1.3,-47,-0.130,-0.130,-0.130,0.000,0.000,0.000
1640079309419582976,"2021-12-21,09:35:09",10.1.1.3,0.6510720252990723,-0.130,-0.130,-0.130,0.000,0.000,0.000
1640079310033120000,"2021-12-21,09:35:10",10.1.1.3,560,-0.120,-0.120,-0.120,0.000,0.000,0.000
1640079310177489920,"2021-12-21,09:35:10",10.1.1.3,0.705258846282959,-0.120,-0.120,-0.120,0.000,0.000,0.000
1640079310980033024,"2021-12-21,09:35:10",10.1.1.3,775,-0.110,-0.110,-0.110,0.000,0.000,0.000
1640079311206664960,"2021-12-21,09:35:11",10.1.1.3,1.0017189979553223,-0.110,-0.110,-0.110,0.000,0.000,0.000
1640079312124542976,"2021-12-21,09:35:12",10.1.1.3,915,-0.100,-0.100,-0.100,0.000,0.000,0.000
1640079312451206912,"2021-12-21,09:35:12",10.1.1.3,1.2428598403930664,-0.100,-0.100,-0.100,0.000,0.000,0.000
1640079313312812032,"2021-12-21,09:35:13",10.1.1.3,859,-0.090,-0.090,-0.090,0.000,0.000,0.000
1640079314059698176,"2021-12-21,09:35:14",10.1.1.3,1.5930111408233643,-0.090,-0.090,-0.090,0.000,0.000,0.000
1640079315016024064,"2021-12-21,09:35:15",10.1.1.3,847,-0.080,-0.080,-0.080,0.000,0.000,0.000
1640079315175880960,"2021-12-21,09:35:15",10.1.1.3,1.0041441917419434,-0.080,-0.080,-0.080,0.000,0.000,0.000
1640079316152528128,"2021-12-21,09:35:16",10.1.1.3,0.9750511646270752,-0.070,-0.070,-0.070,0.000,0.000,0.000
1640079317191874048,"2021-12-21,09:35:17",10.1.1.3,846,-0.060,-0.060,-0.060,0.000,0.000,0.000
1640079317756519936,"2021-12-21,09:35:17",10.1.1.3,1.411620855331421,-0.060,-0.060,-0.060,0.000,0.000,0.000
1640079318823245056,"2021-12-21,09:35:18",10.1.1.3,1040,-0.050,-0.050,-0.050,0.000,0.000,0.000
1640079318856080128,"2021-12-21,09:35:18",10.1.1.3,1.0980300903320312,-0.050,-0.050,-0.050,0.000,0.000,0.000
1640079319549154048,"2021-12-21,09:35:19",10.1.1.3,691,-0.040,-0.040,-0.040,0.000,0.000,0.000
1640079319781294080,"2021-12-21,09:35:19",10.1.1.3,0.923590898513794,-0.040,-0.040,-0.040,0.000,0.000,0.000
1640079319805541888,"2021-12-21,09:35:19",10.1.1.3,-6,-0.030,-0.030,-0.030,0.000,0.000,0.000
1640079320907279872,"2021-12-21,09:35:20",10.1.1.3,1.1157259941101074,-0.030,-0.030,-0.030,0.000,0.000,0.000
1640079321566284032,"2021-12-21,09:35:21",10.1.1.3,625,-0.020,-0.020,-0.020,0.000,0.000,0.000
1640079321643160064,"2021-12-21,09:35:21",10.1.1.3,0.7027499675750732,-0.020,-0.020,-0.020,0.000,0.000,0.000
1640079322550408960,"2021-12-21,09:35:22",10.1.1.3,889,-0.010,-0.010,-0.010,0.000,0.000,0.000
1640079322829340928,"2021-12-21,09:35:22",10.1.1.3,1.1848618984222412,-0.010,-0.010,-0.010,0.000,0.000,0.000
1640079322932830976,"2021-12-21,09:35:22",10.1.1.3,-1,0.000,0.000,0.000,0.000,0.000,0.000
1640079323573250048,"2021-12-21,09:35:23",10.1.1.3,0.6823549270629883,0.000,0.000,0.000,0.000,0.000,0.000
1640079324728519936,"2021-12-21,09:35:24",10.1.1.3,1.0586779117584229,-0.010,-0.010,-0.010,0.000,0.000,0.000
1640079326009687808,"2021-12-21,09:35:25",10.1.1.3,1157,-0.020,-0.020,-0.020,0.000,0.000,0.000
1640079326386002176,"2021-12-21,09:35:26",10.1.1.3,1.6388819217681885,-0.020,-0.020,-0.020,0.000,0.000,0.000
1640079327235693824,"2021-12-21,09:35:27",10.1.1.3,756,-0.030,-0.030,-0.030,0.000,0.000,0.000
1640079327420749824,"2021-12-21,09:35:27",10.1.1.3,1.0281381607055664,-0.030,-0.030,-0.030,0.000,0.000,0.000
1640079328377796864,"2021-12-21,09:35:28",10.1.1.3,696,-0.040,-0.040,-0.040,0.000,0.000,0.000
1640079328534009856,"2021-12-21,09:35:28",10.1.1.3,0.853193998336792,-0.040,-0.040,-0.040,0.000,0.000,0.000
1640079329897204992,"2021-12-21,09:35:29",10.1.1.3,1168,-0.050,-0.050,-0.050,0.000,0.000,0.000
1640079329923134976,"2021-12-21,09:35:29",10.1.1.3,1.3145160675048828,-0.050,-0.050,-0.050,0.000,0.000,0.000
1640079330833225984,"2021-12-21,09:35:30",10.1.1.3,899,-0.060,-0.060,-0.060,0.000,0.000,0.000
1640079331305860096,"2021-12-21,09:35:31",10.1.1.3,1.3612899780273438,-0.060,-0.060,-0.060,0.000,0.000,0.000
1640079332371886080,"2021-12-21,09:35:32",10.1.1.3,745,-0.070,-0.070,-0.070,0.000,0.000,0.000
1640079332456936960,"2021-12-21,09:35:32",10.1.1.3,0.9693210124969482,-0.070,-0.070,-0.070,0.000,0.000,0.000
1640079334022042112,"2021-12-21,09:35:33",10.1.1.3,1487,-0.080,-0.080,-0.080,0.000,0.000,0.000
1640079334368592128,"2021-12-21,09:35:34",10.1.1.3,1.9099740982055664,-0.080,-0.080,-0.080,0.000,0.000,0.000
1640079336265083136,"2021-12-21,09:35:36",10.1.1.3,1890,-0.090,-0.090,-0.090,0.000,0.000,0.000
1640079336532871936,"2021-12-21,09:35:36",10.1.1.3,2.1579418182373047,-0.090,-0.090,-0.090,0.000,0.000,0.000
1640079337417288192,"2021-12-21,09:35:37",10.1.1.3,882,-0.100,-0.100,-0.100,0.000,0.000,0.000
1640079337503869184,"2021-12-21,09:35:37",10.1.1.3,0.9692699909210205,-0.100,-0.100,-0.100,0.000,0.000,0.000
1640079338152303872,"2021-12-21,09:35:38",10.1.1.3,645,-0.110,-0.110,-0.110,0.000,0.000,0.000
1640079339794910976,"2021-12-21,09:35:38",10.1.1.3,1.1877210140228271,-0.110,-0.110,-0.110,0.000,0.000,0.000
1640079341199446016,"2021-12-21,09:35:41",10.1.1.3,1378,-0.120,-0.120,-0.120,0.000,0.000,0.000
1640079341775240960,"2021-12-21,09:35:41",10.1.1.3,1.9544649124145508,-0.120,-0.120,-0.120,0.000,0.000,0.000
1640079342808232960,"2021-12-21,09:35:42",10.1.1.3,892,-0.130,-0.130,-0.130,0.000,0.000,0.000
1640079342871376896,"2021-12-21,09:35:42",10.1.1.3,1.071444034576416,-0.130,-0.130,-0.130,0.000,0.000,0.000
1640079343714051072,"2021-12-21,09:35:43",10.1.1.3,762,-0.140,-0.140,-0.140,0.000,0.000,0.000
1640079344190352896,"2021-12-21,09:35:43",10.1.1.3,1.0366270542144775,-0.140,-0.140,-0.140,0.000,0.000,0.000
1640079344986594816,"2021-12-21,09:35:44",10.1.1.3,793,-0.150,-0.150,-0.150,0.000,0.000,0.000
1640079345084176128,"2021-12-21,09:35:45",10.1.1.3,0.8911340236663818,-0.150,-0.150,-0.150,0.000,0.000,0.000
1640079346613049088,"2021-12-21,09:35:45",10.1.1.3,880,-0.160,-0.160,-0.160,0.000,0.000,0.000
1640079346654642176,"2021-12-21,09:35:46",10.1.1.3,1.537397861480713,-0.160,-0.160,-0.160,0.000,0.000,0.000
1640079348093539072,"2021-12-21,09:35:47",10.1.1.3,1156,-0.170,-0.170,-0.170,0.000,0.000,0.000
1640079348124562944,"2021-12-21,09:35:48",10.1.1.3,1.4657599925994873,-0.170,-0.170,-0.170,0.000,0.000,0.000
1640079351132365056,"2021-12-21,09:35:49",10.1.1.3,1004,-0.180,-0.180,-0.180,0.000,0.000,0.000
1640079351903661056,"2021-12-21,09:35:51",10.1.1.3,3.523806095123291,-0.180,-0.180,-0.180,0.000,0.000,0.000
1640079352835962112,"2021-12-21,09:35:52",10.1.1.3,728,-0.190,-0.190,-0.190,0.000,0.000,0.000
1640079353179794176,"2021-12-21,09:35:53",10.1.1.3,1.0722041130065918,-0.190,-0.190,-0.190,0.000,0.000,0.000
1640079354329991936,"2021-12-21,09:35:54",10.1.1.3,842,-0.200,-0.200,-0.200,0.000,0.000,0.000
1640079354437342976,"2021-12-21,09:35:54",10.1.1.3,1.190735101699829,-0.200,-0.200,-0.200,0.000,0.000,0.000
1640079354460231936,"2021-12-21,09:35:54",10.1.1.3,-1,-0.210,-0.210,-0.210,0.000,0.000,0.000
1640079355544429056,"2021-12-21,09:35:55",10.1.1.3,1.0852251052856445,-0.210,-0.210,-0.210,0.000,0.000,0.000
1640079356300493056,"2021-12-21,09:35:56",10.1.1.3,576,-0.220,-0.220,-0.220,0.000,0.000,0.000
1640079356718621952,"2021-12-21,09:35:56",10.1.1.3,1.1096470355987549,-0.220,-0.220,-0.220,0.000,0.000,0.000
1640079358266340864,"2021-12-21,09:35:57",10.1.1.3,1143,-0.230,-0.230,-0.230,0.000,0.000,0.000
1640079358546361856,"2021-12-21,09:35:58",10.1.1.3,1.8217661380767822,-0.230,-0.230,-0.230,0.000,0.000,0.000
1640079367138494976,"2021-12-21,09:36:04",10.1.1.3,5618,-0.240,-0.240,-0.240,0.000,0.000,0.000
1640079370877484032,"2021-12-21,09:36:07",10.1.1.3,9.27024793624878,-0.240,-0.240,-0.240,0.000,0.000,0.000
1640079372689559040,"2021-12-21,09:36:12",10.1.1.3,1599,-0.250,-0.250,-0.250,0.000,0.000,0.000
1640079373049114880,"2021-12-21,09:36:13",10.1.1.3,1.9591968059539795,-0.250,-0.250,-0.250,0.000,0.000,0.000
1640079374061510912,"2021-12-21,09:36:14",10.1.1.3,988,-0.260,-0.260,-0.260,0.000,0.000,0.000
1640079375085596928,"2021-12-21,09:36:14",10.1.1.3,1.713594913482666,-0.260,-0.260,-0.260,0.000,0.000,0.000
1640079383128133888,"2021-12-21,09:36:21",10.1.1.3,6223,-0.270,-0.270,-0.270,0.000,0.000,0.000
1640079385723937024,"2021-12-21,09:36:23",10.1.1.3,8.510838031768799,-0.270,-0.270,-0.270,0.000,0.000,0.000
1640079394995912960,"2021-12-21,09:36:34",10.1.1.3,8796,-0.280,-0.280,-0.280,0.000,0.000,0.000
1640079394997516032,"2021-12-21,09:36:34",10.1.1.3,8.949949979782104,-0.280,-0.280,-0.280,0.000,0.000,0.000
1640079396009707008,"2021-12-21,09:36:36",10.1.1.3,1010,-0.290,-0.290,-0.290,0.000,0.000,0.000
1640079396071522048,"2021-12-21,09:36:36",10.1.1.3,1.0721909999847412,-0.290,-0.290,-0.290,0.000,0.000,0.000
1640079399775821056,"2021-12-21,09:36:37",10.1.1.3,1076,-0.300,-0.300,-0.300,0.000,0.000,0.000
1640079400253861888,"2021-12-21,09:36:40",10.1.1.3,4.174397945404053,-0.300,-0.300,-0.300,0.000,0.000,0.000
1640079403463772928,"2021-12-21,09:36:41",10.1.1.3,1253,-0.310,-0.310,-0.310,0.000,0.000,0.000
1640079407065803008,"2021-12-21,09:36:43",10.1.1.3,3.501312017440796,-0.310,-0.310,-0.310,0.000,0.000,0.000
1640079418866648064,"2021-12-21,09:36:56",10.1.1.3,9.042351007461548,-0.320,-0.320,-0.320,0.000,0.000,0.000
1640079424053443840,"2021-12-21,09:37:02",10.1.1.3,3138,-0.330,-0.330,-0.330,0.000,0.000,0.000
1640079430764882176,"2021-12-21,09:37:08",10.1.1.3,8.829675197601318,-0.330,-0.330,-0.330,0.000,0.000,0.000
1640079438947591936,"2021-12-21,09:37:18",10.1.1.3,6438,-0.340,-0.340,-0.340,0.000,0.000,0.000
1640079442560043008,"2021-12-21,09:37:21",10.1.1.3,9.893155097961426,-0.340,-0.340,-0.340,0.000,0.000,0.000
1640079450938302976,"2021-12-21,09:37:30",10.1.1.3,7.241052865982056,-0.350,-0.350,-0.350,0.000,0.000,0.000
1640079451093044992,"2021-12-21,09:37:30",10.1.1.3,7052,-0.360,-0.360,-0.360,0.000,0.000,0.000
1640079460228521984,"2021-12-21,09:37:38",10.1.1.3,7.964010000228882,-0.360,-0.360,-0.360,0.000,0.000,0.000
1640079469787136000,"2021-12-21,09:37:47",10.1.1.3,6.2492711544036865,-0.370,-0.370,-0.370,0.000,0.000,0.000
1640079485520190976,"2021-12-21,09:38:02",10.1.1.3,11.922296047210693,-0.380,-0.380,-0.380,0.000,0.000,0.000
1640079487446296064,"2021-12-21,09:38:05",10.1.1.3,15370,-0.380,-0.380,-0.380,0.000,0.000,0.000
1640079510496818176,"2021-12-21,09:38:28",10.1.1.3,21.088134050369263,-0.390,-0.390,-0.390,0.000,0.000,0.000
1640079513230021120,"2021-12-21,09:38:33",10.1.1.3,2603,-0.400,-0.400,-0.400,0.000,0.000,0.000
1640079513379985920,"2021-12-21,09:38:33",10.1.1.3,2.7536301612854004,-0.400,-0.400,-0.400,0.000,0.000,0.000
1640079514074985984,"2021-12-21,09:38:34",10.1.1.3,688,-0.410,-0.410,-0.410,0.000,0.000,0.000
1640079514521292800,"2021-12-21,09:38:34",10.1.1.3,1.1350460052490234,-0.410,-0.410,-0.410,0.000,0.000,0.000
1640079516649446912,"2021-12-21,09:38:36",10.1.1.3,907,-0.420,-0.420,-0.420,0.000,0.000,0.000
1640079517056953856,"2021-12-21,09:38:37",10.1.1.3,1.314650058746338,-0.420,-0.420,-0.420,0.000,0.000,0.000
1640079517716542976,"2021-12-21,09:38:37",10.1.1.3,639,-0.430,-0.430,-0.430,0.000,0.000,0.000
1640079517989850880,"2021-12-21,09:38:37",10.1.1.3,0.92923903465271,-0.430,-0.430,-0.430,0.000,0.000,0.000
1640079518567273984,"2021-12-21,09:38:38",10.1.1.3,570,-0.440,-0.440,-0.440,0.000,0.000,0.000
1640079518732047104,"2021-12-21,09:38:38",10.1.1.3,0.7350819110870361,-0.440,-0.440,-0.440,0.000,0.000,0.000
1640079519304404992,"2021-12-21,09:38:39",10.1.1.3,568,-0.450,-0.450,-0.450,0.000,0.000,0.000
1640079519769408000,"2021-12-21,09:38:39",10.1.1.3,1.0332801342010498,-0.450,-0.450,-0.450,0.000,0.000,0.000
1640079520418950912,"2021-12-21,09:38:40",10.1.1.3,616,-0.460,-0.460,-0.460,0.000,0.000,0.000
1640079520599280128,"2021-12-21,09:38:40",10.1.1.3,0.7978370189666748,-0.460,-0.460,-0.460,0.000,0.000,0.000
1640079521503590144,"2021-12-21,09:38:41",10.1.1.3,888,-0.470,-0.470,-0.470,0.000,0.000,0.000
1640079521743393024,"2021-12-21,09:38:41",10.1.1.3,1.1288938522338867,-0.470,-0.470,-0.470,0.000,0.000,0.000
1640079522299599872,"2021-12-21,09:38:42",10.1.1.3,527,-0.480,-0.480,-0.480,0.000,0.000,0.000
1640079522365629952,"2021-12-21,09:38:42",10.1.1.3,0.5932071208953857,-0.480,-0.480,-0.480,0.000,0.000,0.000
1640079523053922048,"2021-12-21,09:38:43",10.1.1.3,682,-0.490,-0.490,-0.490,0.000,0.000,0.000
1640079523163753984,"2021-12-21,09:38:43",10.1.1.3,0.7968628406524658,-0.490,-0.490,-0.490,0.000,0.000,0.000
1640079523833743104,"2021-12-21,09:38:43",10.1.1.3,659,-0.480,-0.480,-0.480,0.000,0.000,0.000
1640079524174722816,"2021-12-21,09:38:44",10.1.1.3,1.0006608963012695,-0.480,-0.480,-0.480,0.000,0.000,0.000
1640079524783255040,"2021-12-21,09:38:44",10.1.1.3,583,-0.470,-0.470,-0.470,0.000,0.000,0.000
1640079525099194880,"2021-12-21,09:38:45",10.1.1.3,0.8881549835205078,-0.470,-0.470,-0.470,0.000,0.000,0.000
1640079525819827968,"2021-12-21,09:38:45",10.1.1.3,718,-0.460,-0.460,-0.460,0.000,0.000,0.000
1640079525986891008,"2021-12-21,09:38:45",10.1.1.3,0.8860979080200195,-0.460,-0.460,-0.460,0.000,0.000,0.000
1640079526130009856,"2021-12-21,09:38:46",10.1.1.3,-142,-0.450,-0.450,-0.450,0.000,0.000,0.000
1640079526818617088,"2021-12-21,09:38:46",10.1.1.3,0.6910829544067383,-0.450,-0.450,-0.450,0.000,0.000,0.000
1640079527465323008,"2021-12-21,09:38:47",10.1.1.3,641,-0.440,-0.440,-0.440,0.000,0.000,0.000
1640079527593851136,"2021-12-21,09:38:47",10.1.1.3,0.770233154296875,-0.440,-0.440,-0.440,0.000,0.000,0.000
1640079528102535936,"2021-12-21,09:38:48",10.1.1.3,485,-0.430,-0.430,-0.430,0.000,0.000,0.000
1640079528735045888,"2021-12-21,09:38:48",10.1.1.3,1.1184160709381104,-0.430,-0.430,-0.430,0.000,0.000,0.000
1640079529274903040,"2021-12-21,09:38:49",10.1.1.3,538,-0.420,-0.420,-0.420,0.000,0.000,0.000
1640079529491822848,"2021-12-21,09:38:49",10.1.1.3,0.7552649974822998,-0.420,-0.420,-0.420,0.000,0.000,0.000
1640079530196793088,"2021-12-21,09:38:50",10.1.1.3,694,-0.410,-0.410,-0.410,0.000,0.000,0.000
1640079530406287872,"2021-12-21,09:38:50",10.1.1.3,0.9038348197937012,-0.410,-0.410,-0.410,0.000,0.000,0.000
1640079531109949952,"2021-12-21,09:38:51",10.1.1.3,693,-0.400,-0.400,-0.400,0.000,0.000,0.000
1640079531514641152,"2021-12-21,09:38:51",10.1.1.3,1.0978400707244873,-0.400,-0.400,-0.400,0.000,0.000,0.000
1640079532280033024,"2021-12-21,09:38:52",10.1.1.3,754,-0.390,-0.390,-0.390,0.000,0.000,0.000
1640079532302431232,"2021-12-21,09:38:52",10.1.1.3,0.7767429351806641,-0.390,-0.390,-0.390,0.000,0.000,0.000
1640079533092859904,"2021-12-21,09:38:53",10.1.1.3,769,-0.380,-0.380,-0.380,0.000,0.000,0.000
1640079533313428992,"2021-12-21,09:38:53",10.1.1.3,1.0008299350738525,-0.380,-0.380,-0.380,0.000,0.000,0.000
1640079534123491072,"2021-12-21,09:38:54",10.1.1.3,695,-0.370,-0.370,-0.370,0.000,0.000,0.000
1640079534316442880,"2021-12-21,09:38:54",10.1.1.3,0.8880679607391357,-0.370,-0.370,-0.370,0.000,0.000,0.000
1640079534673659136,"2021-12-21,09:38:54",10.1.1.3,348,-0.360,-0.360,-0.360,0.000,0.000,0.000
1640079535135720960,"2021-12-21,09:38:55",10.1.1.3,0.8110859394073486,-0.360,-0.360,-0.360,0.000,0.000,0.000
1640079536011504896,"2021-12-21,09:38:56",10.1.1.3,854,-0.350,-0.350,-0.350,0.000,0.000,0.000
1640079536118093056,"2021-12-21,09:38:56",10.1.1.3,0.9616689682006836,-0.350,-0.350,-0.350,0.000,0.000,0.000
1640079536983496960,"2021-12-21,09:38:56",10.1.1.3,546,-0.340,-0.340,-0.340,0.000,0.000,0.000
1640079537103959040,"2021-12-21,09:38:57",10.1.1.3,0.9546689987182617,-0.340,-0.340,-0.340,0.000,0.000,0.000
1640079537611970048,"2021-12-21,09:38:57",10.1.1.3,487,-0.330,-0.330,-0.330,0.000,0.000,0.000
1640079537809172992,"2021-12-21,09:38:57",10.1.1.3,0.6851940155029297,-0.330,-0.330,-0.330,0.000,0.000,0.000
1640079538498955008,"2021-12-21,09:38:58",10.1.1.3,684,-0.320,-0.320,-0.320,0.000,0.000,0.000
1640079538658947072,"2021-12-21,09:38:58",10.1.1.3,0.8441810607910156,-0.320,-0.320,-0.320,0.000,0.000,0.000
1640079539244380928,"2021-12-21,09:38:59",10.1.1.3,583,-0.310,-0.310,-0.310,0.000,0.000,0.000
1640079539433293056,"2021-12-21,09:38:59",10.1.1.3,0.7728121280670166,-0.310,-0.310,-0.310,0.000,0.000,0.000
1640079540004289024,"2021-12-21,09:39:00",10.1.1.3,569,-0.300,-0.300,-0.300,0.000,0.000,0.000
1640079540392584960,"2021-12-21,09:39:00",10.1.1.3,0.9573559761047363,-0.300,-0.300,-0.300,0.000,0.000,0.000
1640079541215395072,"2021-12-21,09:39:01",10.1.1.3,797,-0.290,-0.290,-0.290,0.000,0.000,0.000
1640079541255350016,"2021-12-21,09:39:01",10.1.1.3,0.8377149105072021,-0.290,-0.290,-0.290,0.000,0.000,0.000
1640079541811578112,"2021-12-21,09:39:01",10.1.1.3,536,-0.280,-0.280,-0.280,0.000,0.000,0.000
1640079542061522944,"2021-12-21,09:39:02",10.1.1.3,0.7861309051513672,-0.280,-0.280,-0.280,0.000,0.000,0.000
1640079542790328064,"2021-12-21,09:39:02",10.1.1.3,703,-0.270,-0.270,-0.270,0.000,0.000,0.000
1640079543098877952,"2021-12-21,09:39:03",10.1.1.3,1.0123510360717773,-0.270,-0.270,-0.270,0.000,0.000,0.000
1640079543807712000,"2021-12-21,09:39:03",10.1.1.3,664,-0.260,-0.260,-0.260,0.000,0.000,0.000
1640079544022233088,"2021-12-21,09:39:04",10.1.1.3,0.8793771266937256,-0.260,-0.260,-0.260,0.000,0.000,0.000
1640079544667834112,"2021-12-21,09:39:04",10.1.1.3,620,-0.250,-0.250,-0.250,0.000,0.000,0.000
1640079544861857792,"2021-12-21,09:39:04",10.1.1.3,0.8142719268798828,-0.250,-0.250,-0.250,0.000,0.000,0.000
1640079545668631040,"2021-12-21,09:39:05",10.1.1.3,632,-0.240,-0.240,-0.240,0.000,0.000,0.000
1640079545984824832,"2021-12-21,09:39:05",10.1.1.3,1.1039350032806396,-0.240,-0.240,-0.240,0.000,0.000,0.000
1640079547019010048,"2021-12-21,09:39:06",10.1.1.3,967,-0.230,-0.230,-0.230,0.000,0.000,0.000
1640079547256814080,"2021-12-21,09:39:07",10.1.1.3,1.2364730834960938,-0.230,-0.230,-0.230,0.000,0.000,0.000
1640079548157843200,"2021-12-21,09:39:08",10.1.1.3,859,-0.220,-0.220,-0.220,0.000,0.000,0.000
1640079548389044992,"2021-12-21,09:39:08",10.1.1.3,1.0905649662017822,-0.220,-0.220,-0.220,0.000,0.000,0.000
1640079549138597120,"2021-12-21,09:39:09",10.1.1.3,714,-0.210,-0.210,-0.210,0.000,0.000,0.000
1640079549356209920,"2021-12-21,09:39:09",10.1.1.3,0.9645740985870361,-0.210,-0.210,-0.210,0.000,0.000,0.000
1640079550023750144,"2021-12-21,09:39:10",10.1.1.3,665,-0.200,-0.200,-0.200,0.000,0.000,0.000
1640079550285944064,"2021-12-21,09:39:10",10.1.1.3,0.9279639720916748,-0.200,-0.200,-0.200,0.000,0.000,0.000
1640079551004308992,"2021-12-21,09:39:11",10.1.1.3,715,-0.190,-0.190,-0.190,0.000,0.000,0.000
1640079551268470016,"2021-12-21,09:39:11",10.1.1.3,0.9800581932067871,-0.190,-0.190,-0.190,0.000,0.000,0.000
1640079552000012032,"2021-12-21,09:39:11",10.1.1.3,702,-0.180,-0.180,-0.180,0.000,0.000,0.000
1640079552198533120,"2021-12-21,09:39:12",10.1.1.3,0.9024279117584229,-0.180,-0.180,-0.180,0.000,0.000,0.000
1640079552788578048,"2021-12-21,09:39:12",10.1.1.3,585,-0.170,-0.170,-0.170,0.000,0.000,0.000
1640079552975788032,"2021-12-21,09:39:12",10.1.1.3,0.7625529766082764,-0.170,-0.170,-0.170,0.000,0.000,0.000
1640079553660315136,"2021-12-21,09:39:13",10.1.1.3,677,-0.160,-0.160,-0.160,0.000,0.000,0.000
1640079553842169088,"2021-12-21,09:39:13",10.1.1.3,0.8592109680175781,-0.160,-0.160,-0.160,0.000,0.000,0.000
1640079554600749056,"2021-12-21,09:39:14",10.1.1.3,730,-0.150,-0.150,-0.150,0.000,0.000,0.000
1640079555048126976,"2021-12-21,09:39:15",10.1.1.3,1.1780600547790527,-0.150,-0.150,-0.150,0.000,0.000,0.000
1640079555512089088,"2021-12-21,09:39:15",10.1.1.3,454,-0.140,-0.140,-0.140,0.000,0.000,0.000
1640079555670892032,"2021-12-21,09:39:15",10.1.1.3,0.6072368621826172,-0.140,-0.140,-0.140,0.000,0.000,0.000
1640079556272941056,"2021-12-21,09:39:16",10.1.1.3,599,-0.130,-0.130,-0.130,0.000,0.000,0.000
1640079556423200000,"2021-12-21,09:39:16",10.1.1.3,0.7471539974212646,-0.130,-0.130,-0.130,0.000,0.000,0.000
1640079556915371008,"2021-12-21,09:39:16",10.1.1.3,490,-0.120,-0.120,-0.120,0.000,0.000,0.000
1640079557116669952,"2021-12-21,09:39:17",10.1.1.3,0.6917679309844971,-0.120,-0.120,-0.120,0.000,0.000,0.000
1640079557623405824,"2021-12-21,09:39:17",10.1.1.3,475,-0.110,-0.110,-0.110,0.000,0.000,0.000
1640079557899298048,"2021-12-21,09:39:17",10.1.1.3,0.7517380714416504,-0.110,-0.110,-0.110,0.000,0.000,0.000
1640079558542700032,"2021-12-21,09:39:18",10.1.1.3,606,-0.100,-0.100,-0.100,0.000,0.000,0.000
1640079558723176960,"2021-12-21,09:39:18",10.1.1.3,0.8222131729125977,-0.100,-0.100,-0.100,0.000,0.000,0.000
1640079559375813120,"2021-12-21,09:39:19",10.1.1.3,650,-0.090,-0.090,-0.090,0.000,0.000,0.000
1640079559569886976,"2021-12-21,09:39:19",10.1.1.3,0.8449661731719971,-0.090,-0.090,-0.090,0.000,0.000,0.000
1640079560150016000,"2021-12-21,09:39:20",10.1.1.3,578,-0.080,-0.080,-0.080,0.000,0.000,0.000
1640079560432254976,"2021-12-21,09:39:20",10.1.1.3,0.8610169887542725,-0.080,-0.080,-0.080,0.000,0.000,0.000
1640079560962251008,"2021-12-21,09:39:20",10.1.1.3,492,-0.070,-0.070,-0.070,0.000,0.000,0.000
1640079561100187136,"2021-12-21,09:39:21",10.1.1.3,0.6392490863800049,-0.070,-0.070,-0.070,0.000,0.000,0.000
1640079561870683904,"2021-12-21,09:39:21",10.1.1.3,766,-0.060,-0.060,-0.060,0.000,0.000,0.000
1640079561981267968,"2021-12-21,09:39:21",10.1.1.3,0.8774149417877197,-0.060,-0.060,-0.060,0.000,0.000,0.000
1640079562499303168,"2021-12-21,09:39:22",10.1.1.3,516,-0.050,-0.050,-0.050,0.000,0.000,0.000
1640079562778039040,"2021-12-21,09:39:22",10.1.1.3,0.7953071594238281,-0.050,-0.050,-0.050,0.000,0.000,0.000
1640079563306305792,"2021-12-21,09:39:23",10.1.1.3,518,-0.040,-0.040,-0.040,0.000,0.000,0.000
1640079563509705984,"2021-12-21,09:39:23",10.1.1.3,0.7218358516693115,-0.040,-0.040,-0.040,0.000,0.000,0.000
1640079563960652032,"2021-12-21,09:39:23",10.1.1.3,417,-0.030,-0.030,-0.030,0.000,0.000,0.000
1640079564173276928,"2021-12-21,09:39:24",10.1.1.3,0.630626916885376,-0.030,-0.030,-0.030,0.000,0.000,0.000
1640079564690260992,"2021-12-21,09:39:24",10.1.1.3,454,-0.020,-0.020,-0.020,0.000,0.000,0.000
1640079564925984000,"2021-12-21,09:39:24",10.1.1.3,0.6899199485778809,-0.020,-0.020,-0.020,0.000,0.000,0.000
1640079565480922880,"2021-12-21,09:39:25",10.1.1.3,540,-0.010,-0.010,-0.010,0.000,0.000,0.000
1640079565668737792,"2021-12-21,09:39:25",10.1.1.3,0.7283689975738525,-0.010,-0.010,-0.010,0.000,0.000,0.000
1640079566307600896,"2021-12-21,09:39:26",10.1.1.3,636,0.000,0.000,0.000,0.000,0.000,0.000
1640079566466793984,"2021-12-21,09:39:26",10.1.1.3,0.78531813621521,0.000,0.000,0.000,0.000,0.000,0.000
1640079566948894976,"2021-12-21,09:39:26",10.1.1.3,441,-0.010,-0.010,-0.010,0.000,0.000,0.000
1640079567042990848,"2021-12-21,09:39:27",10.1.1.3,0.535775899887085,-0.010,-0.010,-0.010,0.000,0.000,0.000
1640079567611411968,"2021-12-21,09:39:27",10.1.1.3,562,-0.020,-0.020,-0.020,0.000,0.000,0.000
1640079567706949120,"2021-12-21,09:39:27",10.1.1.3,0.6577329635620117,-0.020,-0.020,-0.020,0.000,0.000,0.000
1640079568329523200,"2021-12-21,09:39:28",10.1.1.3,621,-0.030,-0.030,-0.030,0.000,0.000,0.000
1640079568447886080,"2021-12-21,09:39:28",10.1.1.3,0.739408016204834,-0.030,-0.030,-0.030,0.000,0.000,0.000
1640079569117614080,"2021-12-21,09:39:29",10.1.1.3,659,-0.040,-0.040,-0.040,0.000,0.000,0.000
1640079569436809984,"2021-12-21,09:39:29",10.1.1.3,0.9783229827880859,-0.040,-0.040,-0.040,0.000,0.000,0.000
1640079569946052096,"2021-12-21,09:39:29",10.1.1.3,481,-0.050,-0.050,-0.050,0.000,0.000,0.000
1640079570293842176,"2021-12-21,09:39:30",10.1.1.3,0.8296208381652832,-0.050,-0.050,-0.050,0.000,0.000,0.000
1640079570956873984,"2021-12-21,09:39:30",10.1.1.3,650,-0.060,-0.060,-0.060,0.000,0.000,0.000
1640079571183492864,"2021-12-21,09:39:31",10.1.1.3,0.8775820732116699,-0.060,-0.060,-0.060,0.000,0.000,0.000
1640079572059604992,"2021-12-21,09:39:32",10.1.1.3,832,-0.070,-0.070,-0.070,0.000,0.000,0.000
1640079572391133184,"2021-12-21,09:39:32",10.1.1.3,1.1635949611663818,-0.070,-0.070,-0.070,0.000,0.000,0.000
1640079573063403008,"2021-12-21,09:39:33",10.1.1.3,650,-0.080,-0.080,-0.080,0.000,0.000,0.000
1640079573211209984,"2021-12-21,09:39:33",10.1.1.3,0.7949948310852051,-0.080,-0.080,-0.080,0.000,0.000,0.000
1640079573802697984,"2021-12-21,09:39:33",10.1.1.3,589,-0.090,-0.090,-0.090,0.000,0.000,0.000
1640079573912352000,"2021-12-21,09:39:33",10.1.1.3,0.699700117111206,-0.090,-0.090,-0.090,0.000,0.000,0.000
1640079574468267008,"2021-12-21,09:39:34",10.1.1.3,543,-0.100,-0.100,-0.100,0.000,0.000,0.000
1640079574632237056,"2021-12-21,09:39:34",10.1.1.3,0.7080090045928955,-0.100,-0.100,-0.100,0.000,0.000,0.000
1640079575420846848,"2021-12-21,09:39:35",10.1.1.3,762,-0.110,-0.110,-0.110,0.000,0.000,0.000
