FedericoMungari/DigitalTwin_service/Output/Output_script/script_rosapi_2_output_robots4_freq0_3.txt
timestamp,date,node,latency,joint_1,joint_2,joint_3,joint_4,joint_5,joint_6
1641079829826889984,2022-01-01-23:30:29,10.1.1.4,152,-0.010,-0.010,-0.010,0.000,0.000,0.000
1641079830025253120,2022-01-01-23:30:30,10.1.1.4,151,-0.020,-0.020,-0.020,0.000,0.000,0.000
1641079830225828864,2022-01-01-23:30:30,10.1.1.4,150,-0.030,-0.030,-0.030,0.000,0.000,0.000
1641079830425195008,2022-01-01-23:30:30,10.1.1.4,149,-0.040,-0.040,-0.040,0.000,0.000,0.000
1641079830625783040,2022-01-01-23:30:30,10.1.1.4,149,-0.050,-0.050,-0.050,0.000,0.000,0.000
1641079830826294784,2022-01-01-23:30:30,10.1.1.4,149,-0.060,-0.060,-0.060,0.000,0.000,0.000
1641079831025541120,2022-01-01-23:30:31,10.1.1.4,147,-0.070,-0.070,-0.070,0.000,0.000,0.000
1641079831226657024,2022-01-01-23:30:31,10.1.1.4,147,-0.080,-0.080,-0.080,0.000,0.000,0.000
1641079831426599936,2022-01-01-23:30:31,10.1.1.4,143,-0.090,-0.090,-0.090,0.000,0.000,0.000
1641079831626738176,2022-01-01-23:30:31,10.1.1.4,142,-0.100,-0.100,-0.100,0.000,0.000,0.000
1641079831828953088,2022-01-01-23:30:31,10.1.1.4,143,-0.110,-0.110,-0.110,0.000,0.000,0.000
1641079832047951872,2022-01-01-23:30:32,10.1.1.4,161,-0.120,-0.120,-0.120,0.000,0.000,0.000
1641079832247348992,2022-01-01-23:30:32,10.1.1.4,159,-0.130,-0.130,-0.130,0.000,0.000,0.000
1641079832448771840,2022-01-01-23:30:32,10.1.1.4,158,-0.140,-0.140,-0.140,0.000,0.000,0.000
1641079832648769024,2022-01-01-23:30:32,10.1.1.4,156,-0.150,-0.150,-0.150,0.000,0.000,0.000
1641079832848954880,2022-01-01-23:30:32,10.1.1.4,155,-0.160,-0.160,-0.160,0.000,0.000,0.000
1641079833048976896,2022-01-01-23:30:33,10.1.1.4,149,-0.170,-0.170,-0.170,0.000,0.000,0.000
1641079833248292096,2022-01-01-23:30:33,10.1.1.4,146,-0.180,-0.180,-0.180,0.000,0.000,0.000
1641079833449630976,2022-01-01-23:30:33,10.1.1.4,146,-0.190,-0.190,-0.190,0.000,0.000,0.000
1641079833649400064,2022-01-01-23:30:33,10.1.1.4,144,-0.200,-0.200,-0.200,0.000,0.000,0.000
1641079833869700864,2022-01-01-23:30:33,10.1.1.4,163,-0.210,-0.210,-0.210,0.000,0.000,0.000
1641079834069572864,2022-01-01-23:30:34,10.1.1.4,162,-0.220,-0.220,-0.220,0.000,0.000,0.000
1641079834269305088,2022-01-01-23:30:34,10.1.1.4,160,-0.230,-0.230,-0.230,0.000,0.000,0.000
1641079834470630912,2022-01-01-23:30:34,10.1.1.4,159,-0.240,-0.240,-0.240,0.000,0.000,0.000
1641079834669771008,2022-01-01-23:30:34,10.1.1.4,157,-0.250,-0.250,-0.250,0.000,0.000,0.000
1641079834870673920,2022-01-01-23:30:34,10.1.1.4,157,-0.260,-0.260,-0.260,0.000,0.000,0.000
1641079835070547968,2022-01-01-23:30:35,10.1.1.4,156,-0.270,-0.270,-0.270,0.000,0.000,0.000
1641079835270742016,2022-01-01-23:30:35,10.1.1.4,156,-0.280,-0.280,-0.280,0.000,0.000,0.000
1641079835470753792,2022-01-01-23:30:35,10.1.1.4,154,-0.290,-0.290,-0.290,0.000,0.000,0.000
1641079835670910976,2022-01-01-23:30:35,10.1.1.4,152,-0.300,-0.300,-0.300,0.000,0.000,0.000
1641079835870841856,2022-01-01-23:30:35,10.1.1.4,150,-0.310,-0.310,-0.310,0.000,0.000,0.000
1641079836071216128,2022-01-01-23:30:36,10.1.1.4,150,-0.320,-0.320,-0.320,0.000,0.000,0.000
1641079836270605056,2022-01-01-23:30:36,10.1.1.4,148,-0.330,-0.330,-0.330,0.000,0.000,0.000
1641079836472465152,2022-01-01-23:30:36,10.1.1.4,149,-0.340,-0.340,-0.340,0.000,0.000,0.000
1641079836670955008,2022-01-01-23:30:36,10.1.1.4,145,-0.350,-0.350,-0.350,0.000,0.000,0.000
1641079836891974912,2022-01-01-23:30:36,10.1.1.4,164,-0.360,-0.360,-0.360,0.000,0.000,0.000
1641079837091926016,2022-01-01-23:30:37,10.1.1.4,162,-0.370,-0.370,-0.370,0.000,0.000,0.000
1641079837291075072,2022-01-01-23:30:37,10.1.1.4,160,-0.380,-0.380,-0.380,0.000,0.000,0.000
1641079837490881792,2022-01-01-23:30:37,10.1.1.4,158,-0.390,-0.390,-0.390,0.000,0.000,0.000
1641079837692084992,2022-01-01-23:30:37,10.1.1.4,158,-0.400,-0.400,-0.400,0.000,0.000,0.000
1641079837892486144,2022-01-01-23:30:37,10.1.1.4,157,-0.410,-0.410,-0.410,0.000,0.000,0.000
1641079838091352832,2022-01-01-23:30:38,10.1.1.4,155,-0.420,-0.420,-0.420,0.000,0.000,0.000
1641079838291117824,2022-01-01-23:30:38,10.1.1.4,153,-0.430,-0.430,-0.430,0.000,0.000,0.000
1641079838490963968,2022-01-01-23:30:38,10.1.1.4,151,-0.440,-0.440,-0.440,0.000,0.000,0.000
1641079838691843072,2022-01-01-23:30:38,10.1.1.4,151,-0.450,-0.450,-0.450,0.000,0.000,0.000
1641079838894162944,2022-01-01-23:30:38,10.1.1.4,152,-0.460,-0.460,-0.460,0.000,0.000,0.000
1641079839091430912,2022-01-01-23:30:39,10.1.1.4,148,-0.470,-0.470,-0.470,0.000,0.000,0.000
1641079839292155136,2022-01-01-23:30:39,10.1.1.4,148,-0.480,-0.480,-0.480,0.000,0.000,0.000
1641079839491646976,2022-01-01-23:30:39,10.1.1.4,145,-0.490,-0.490,-0.490,0.000,0.000,0.000
1641079839712014848,2022-01-01-23:30:39,10.1.1.4,164,-0.480,-0.480,-0.480,0.000,0.000,0.000
1641079839912363008,2022-01-01-23:30:39,10.1.1.4,163,-0.470,-0.470,-0.470,0.000,0.000,0.000
1641079840111246080,2022-01-01-23:30:40,10.1.1.4,158,-0.460,-0.460,-0.460,0.000,0.000,0.000
1641079840311572992,2022-01-01-23:30:40,10.1.1.4,156,-0.450,-0.450,-0.450,0.000,0.000,0.000
1641079840511450112,2022-01-01-23:30:40,10.1.1.4,155,-0.440,-0.440,-0.440,0.000,0.000,0.000
1641079840711288832,2022-01-01-23:30:40,10.1.1.4,152,-0.430,-0.430,-0.430,0.000,0.000,0.000
1641079840911813888,2022-01-01-23:30:40,10.1.1.4,151,-0.420,-0.420,-0.420,0.000,0.000,0.000
1641079841111987200,2022-01-01-23:30:41,10.1.1.4,150,-0.410,-0.410,-0.410,0.000,0.000,0.000
1641079841311800832,2022-01-01-23:30:41,10.1.1.4,148,-0.400,-0.400,-0.400,0.000,0.000,0.000
1641079841511929088,2022-01-01-23:30:41,10.1.1.4,148,-0.390,-0.390,-0.390,0.000,0.000,0.000
1641079841710690048,2022-01-01-23:30:41,10.1.1.4,146,-0.380,-0.380,-0.380,0.000,0.000,0.000
1641079841911739136,2022-01-01-23:30:41,10.1.1.4,146,-0.370,-0.370,-0.370,0.000,0.000,0.000
1641079842111155968,2022-01-01-23:30:42,10.1.1.4,145,-0.360,-0.360,-0.360,0.000,0.000,0.000
1641079842331091968,2022-01-01-23:30:42,10.1.1.4,162,-0.350,-0.350,-0.350,0.000,0.000,0.000
1641079842531127040,2022-01-01-23:30:42,10.1.1.4,162,-0.340,-0.340,-0.340,0.000,0.000,0.000
1641079842732600064,2022-01-01-23:30:42,10.1.1.4,162,-0.330,-0.330,-0.330,0.000,0.000,0.000
1641079842932135936,2022-01-01-23:30:42,10.1.1.4,161,-0.320,-0.320,-0.320,0.000,0.000,0.000
1641079843145179136,2022-01-01-23:30:43,10.1.1.4,172,-0.310,-0.310,-0.310,0.000,0.000,0.000
1641079843330467840,2022-01-01-23:30:43,10.1.1.4,154,-0.300,-0.300,-0.300,0.000,0.000,0.000
1641079843530181888,2022-01-01-23:30:43,10.1.1.4,153,-0.290,-0.290,-0.290,0.000,0.000,0.000
1641079843745483008,2022-01-01-23:30:43,10.1.1.4,163,-0.280,-0.280,-0.280,0.000,0.000,0.000
1641079843932302848,2022-01-01-23:30:43,10.1.1.4,150,-0.270,-0.270,-0.270,0.000,0.000,0.000
1641079844130222080,2022-01-01-23:30:44,10.1.1.4,146,-0.260,-0.260,-0.260,0.000,0.000,0.000
1641079844330241024,2022-01-01-23:30:44,10.1.1.4,145,-0.250,-0.250,-0.250,0.000,0.000,0.000
1641079844529783040,2022-01-01-23:30:44,10.1.1.4,144,-0.240,-0.240,-0.240,0.000,0.000,0.000
1641079844750270976,2022-01-01-23:30:44,10.1.1.4,164,-0.230,-0.230,-0.230,0.000,0.000,0.000
1641079844951184128,2022-01-01-23:30:44,10.1.1.4,161,-0.220,-0.220,-0.220,0.000,0.000,0.000
1641079845149713152,2022-01-01-23:30:45,10.1.1.4,158,-0.210,-0.210,-0.210,0.000,0.000,0.000
1641079845349911808,2022-01-01-23:30:45,10.1.1.4,157,-0.200,-0.200,-0.200,0.000,0.000,0.000
1641079845550390016,2022-01-01-23:30:45,10.1.1.4,157,-0.190,-0.190,-0.190,0.000,0.000,0.000
1641079845750941952,2022-01-01-23:30:45,10.1.1.4,154,-0.180,-0.180,-0.180,0.000,0.000,0.000
1641079845950417920,2022-01-01-23:30:45,10.1.1.4,152,-0.170,-0.170,-0.170,0.000,0.000,0.000
1641079846150077184,2022-01-01-23:30:46,10.1.1.4,151,-0.160,-0.160,-0.160,0.000,0.000,0.000
1641079846349668864,2022-01-01-23:30:46,10.1.1.4,149,-0.150,-0.150,-0.150,0.000,0.000,0.000
1641079846549793024,2022-01-01-23:30:46,10.1.1.4,149,-0.140,-0.140,-0.140,0.000,0.000,0.000
1641079846749843968,2022-01-01-23:30:46,10.1.1.4,148,-0.130,-0.130,-0.130,0.000,0.000,0.000
1641079846971354112,2022-01-01-23:30:46,10.1.1.4,163,-0.120,-0.120,-0.120,0.000,0.000,0.000
1641079847169255936,2022-01-01-23:30:47,10.1.1.4,159,-0.110,-0.110,-0.110,0.000,0.000,0.000
1641079847369214976,2022-01-01-23:30:47,10.1.1.4,157,-0.100,-0.100,-0.100,0.000,0.000,0.000
1641079847570254080,2022-01-01-23:30:47,10.1.1.4,156,-0.090,-0.090,-0.090,0.000,0.000,0.000
1641079847769608960,2022-01-01-23:30:47,10.1.1.4,149,-0.080,-0.080,-0.080,0.000,0.000,0.000
1641079847969622016,2022-01-01-23:30:47,10.1.1.4,148,-0.070,-0.070,-0.070,0.000,0.000,0.000
1641079848168610048,2022-01-01-23:30:48,10.1.1.4,145,-0.060,-0.060,-0.060,0.000,0.000,0.000
1641079848371030016,2022-01-01-23:30:48,10.1.1.4,147,-0.050,-0.050,-0.050,0.000,0.000,0.000
1641079848569617920,2022-01-01-23:30:48,10.1.1.4,144,-0.040,-0.040,-0.040,0.000,0.000,0.000
1641079848769186048,2022-01-01-23:30:48,10.1.1.4,143,-0.030,-0.030,-0.030,0.000,0.000,0.000
1641079848988576000,2022-01-01-23:30:48,10.1.1.4,161,-0.020,-0.020,-0.020,0.000,0.000,0.000
1641079849188678144,2022-01-01-23:30:49,10.1.1.4,159,-0.010,-0.010,-0.010,0.000,0.000,0.000
1641079849387943936,2022-01-01-23:30:49,10.1.1.4,157,0.000,0.000,0.000,0.000,0.000,0.000
1641079849587729920,2022-01-01-23:30:49,10.1.1.4,155,-0.010,-0.010,-0.010,0.000,0.000,0.000
1641079849787734016,2022-01-01-23:30:49,10.1.1.4,153,-0.020,-0.020,-0.020,0.000,0.000,0.000
1641079849987901952,2022-01-01-23:30:49,10.1.1.4,152,-0.030,-0.030,-0.030,0.000,0.000,0.000
1641079850187575040,2022-01-01-23:30:50,10.1.1.4,150,-0.040,-0.040,-0.040,0.000,0.000,0.000
1641079850386756864,2022-01-01-23:30:50,10.1.1.4,148,-0.050,-0.050,-0.050,0.000,0.000,0.000
1641079850586821120,2022-01-01-23:30:50,10.1.1.4,147,-0.060,-0.060,-0.060,0.000,0.000,0.000
1641079850787219968,2022-01-01-23:30:50,10.1.1.4,147,-0.070,-0.070,-0.070,0.000,0.000,0.000
1641079850986254080,2022-01-01-23:30:50,10.1.1.4,145,-0.080,-0.080,-0.080,0.000,0.000,0.000
1641079851185820160,2022-01-01-23:30:51,10.1.1.4,144,-0.090,-0.090,-0.090,0.000,0.000,0.000
1641079851386273024,2022-01-01-23:30:51,10.1.1.4,143,-0.100,-0.100,-0.100,0.000,0.000,0.000
1641079851586475008,2022-01-01-23:30:51,10.1.1.4,142,-0.110,-0.110,-0.110,0.000,0.000,0.000
1641079851786251008,2022-01-01-23:30:51,10.1.1.4,141,-0.120,-0.120,-0.120,0.000,0.000,0.000
1641079851985940992,2022-01-01-23:30:51,10.1.1.4,140,-0.130,-0.130,-0.130,0.000,0.000,0.000
1641079852204984064,2022-01-01-23:30:52,10.1.1.4,158,-0.140,-0.140,-0.140,0.000,0.000,0.000
1641079852404944896,2022-01-01-23:30:52,10.1.1.4,158,-0.150,-0.150,-0.150,0.000,0.000,0.000
1641079852605665024,2022-01-01-23:30:52,10.1.1.4,157,-0.160,-0.160,-0.160,0.000,0.000,0.000
1641079852805092096,2022-01-01-23:30:52,10.1.1.4,156,-0.170,-0.170,-0.170,0.000,0.000,0.000
1641079853005264896,2022-01-01-23:30:53,10.1.1.4,155,-0.180,-0.180,-0.180,0.000,0.000,0.000
1641079853204932096,2022-01-01-23:30:53,10.1.1.4,154,-0.190,-0.190,-0.190,0.000,0.000,0.000
1641079853405762048,2022-01-01-23:30:53,10.1.1.4,149,-0.200,-0.200,-0.200,0.000,0.000,0.000
1641079853604419072,2022-01-01-23:30:53,10.1.1.4,147,-0.210,-0.210,-0.210,0.000,0.000,0.000
1641079853804402176,2022-01-01-23:30:53,10.1.1.4,142,-0.220,-0.220,-0.220,0.000,0.000,0.000
1641079854006959872,2022-01-01-23:30:54,10.1.1.4,144,-0.230,-0.230,-0.230,0.000,0.000,0.000
1641079854203641856,2022-01-01-23:30:54,10.1.1.4,139,-0.240,-0.240,-0.240,0.000,0.000,0.000
1641079854404643072,2022-01-01-23:30:54,10.1.1.4,139,-0.250,-0.250,-0.250,0.000,0.000,0.000
1641079854603308800,2022-01-01-23:30:54,10.1.1.4,137,-0.260,-0.260,-0.260,0.000,0.000,0.000
1641079854823921920,2022-01-01-23:30:54,10.1.1.4,156,-0.270,-0.270,-0.270,0.000,0.000,0.000
1641079855022692864,2022-01-01-23:30:55,10.1.1.4,155,-0.280,-0.280,-0.280,0.000,0.000,0.000
1641079855222615040,2022-01-01-23:30:55,10.1.1.4,153,-0.290,-0.290,-0.290,0.000,0.000,0.000
1641079855422959104,2022-01-01-23:30:55,10.1.1.4,151,-0.300,-0.300,-0.300,0.000,0.000,0.000
1641079855623264000,2022-01-01-23:30:55,10.1.1.4,149,-0.310,-0.310,-0.310,0.000,0.000,0.000
1641079855822248960,2022-01-01-23:30:55,10.1.1.4,148,-0.320,-0.320,-0.320,0.000,0.000,0.000
1641079856022226176,2022-01-01-23:30:56,10.1.1.4,147,-0.330,-0.330,-0.330,0.000,0.000,0.000
1641079856222269952,2022-01-01-23:30:56,10.1.1.4,147,-0.340,-0.340,-0.340,0.000,0.000,0.000
1641079856421816064,2022-01-01-23:30:56,10.1.1.4,145,-0.350,-0.350,-0.350,0.000,0.000,0.000
1641079856621263872,2022-01-01-23:30:56,10.1.1.4,143,-0.360,-0.360,-0.360,0.000,0.000,0.000
1641079856821913856,2022-01-01-23:30:56,10.1.1.4,143,-0.370,-0.370,-0.370,0.000,0.000,0.000
1641079857021500160,2022-01-01-23:30:57,10.1.1.4,141,-0.380,-0.380,-0.380,0.000,0.000,0.000
1641079857220210176,2022-01-01-23:30:57,10.1.1.4,138,-0.390,-0.390,-0.390,0.000,0.000,0.000
1641079857420537856,2022-01-01-23:30:57,10.1.1.4,138,-0.400,-0.400,-0.400,0.000,0.000,0.000
1641079857621274880,2022-01-01-23:30:57,10.1.1.4,138,-0.410,-0.410,-0.410,0.000,0.000,0.000
1641079857820143872,2022-01-01-23:30:57,10.1.1.4,135,-0.420,-0.420,-0.420,0.000,0.000,0.000
1641079858019570176,2022-01-01-23:30:58,10.1.1.4,133,-0.430,-0.430,-0.430,0.000,0.000,0.000
1641079858246951168,2022-01-01-23:30:58,10.1.1.4,159,-0.440,-0.440,-0.440,0.000,0.000,0.000
1641079858441292032,2022-01-01-23:30:58,10.1.1.4,153,-0.450,-0.450,-0.450,0.000,0.000,0.000
1641079858639496960,2022-01-01-23:30:58,10.1.1.4,150,-0.460,-0.460,-0.460,0.000,0.000,0.000
1641079858839337216,2022-01-01-23:30:58,10.1.1.4,149,-0.470,-0.470,-0.470,0.000,0.000,0.000
1641079859038189824,2022-01-01-23:30:59,10.1.1.4,146,-0.480,-0.480,-0.480,0.000,0.000,0.000
1641079859237915904,2022-01-01-23:30:59,10.1.1.4,145,-0.490,-0.490,-0.490,0.000,0.000,0.000
1641079859439280896,2022-01-01-23:30:59,10.1.1.4,146,-0.480,-0.480,-0.480,0.000,0.000,0.000
1641079859637899008,2022-01-01-23:30:59,10.1.1.4,143,-0.470,-0.470,-0.470,0.000,0.000,0.000
1641079859839230976,2022-01-01-23:30:59,10.1.1.4,144,-0.460,-0.460,-0.460,0.000,0.000,0.000
1641079860038135040,2022-01-01-23:31:00,10.1.1.4,142,-0.450,-0.450,-0.450,0.000,0.000,0.000
1641079860238738176,2022-01-01-23:31:00,10.1.1.4,142,-0.440,-0.440,-0.440,0.000,0.000,0.000
1641079860437721088,2022-01-01-23:31:00,10.1.1.4,140,-0.430,-0.430,-0.430,0.000,0.000,0.000
1641079860637937152,2022-01-01-23:31:00,10.1.1.4,139,-0.420,-0.420,-0.420,0.000,0.000,0.000
1641079860839611904,2022-01-01-23:31:00,10.1.1.4,140,-0.410,-0.410,-0.410,0.000,0.000,0.000
1641079861039454976,2022-01-01-23:31:01,10.1.1.4,138,-0.400,-0.400,-0.400,0.000,0.000,0.000
1641079861236478208,2022-01-01-23:31:01,10.1.1.4,134,-0.390,-0.390,-0.390,0.000,0.000,0.000
1641079861435183104,2022-01-01-23:31:01,10.1.1.4,132,-0.380,-0.380,-0.380,0.000,0.000,0.000
1641079861635495936,2022-01-01-23:31:01,10.1.1.4,130,-0.370,-0.370,-0.370,0.000,0.000,0.000
1641079861834774016,2022-01-01-23:31:01,10.1.1.4,128,-0.360,-0.360,-0.360,0.000,0.000,0.000
1641079862054956800,2022-01-01-23:31:02,10.1.1.4,148,-0.350,-0.350,-0.350,0.000,0.000,0.000
1641079862255064064,2022-01-01-23:31:02,10.1.1.4,147,-0.340,-0.340,-0.340,0.000,0.000,0.000
1641079862454315008,2022-01-01-23:31:02,10.1.1.4,145,-0.330,-0.330,-0.330,0.000,0.000,0.000
1641079862653940992,2022-01-01-23:31:02,10.1.1.4,144,-0.320,-0.320,-0.320,0.000,0.000,0.000
1641079862854971904,2022-01-01-23:31:02,10.1.1.4,144,-0.310,-0.310,-0.310,0.000,0.000,0.000
1641079863053047040,2022-01-01-23:31:03,10.1.1.4,141,-0.300,-0.300,-0.300,0.000,0.000,0.000
1641079863253121024,2022-01-01-23:31:03,10.1.1.4,139,-0.290,-0.290,-0.290,0.000,0.000,0.000
1641079863453016064,2022-01-01-23:31:03,10.1.1.4,138,-0.280,-0.280,-0.280,0.000,0.000,0.000
1641079863653976832,2022-01-01-23:31:03,10.1.1.4,138,-0.270,-0.270,-0.270,0.000,0.000,0.000
1641079863858637056,2022-01-01-23:31:03,10.1.1.4,141,-0.260,-0.260,-0.260,0.000,0.000,0.000
1641079864052130816,2022-01-01-23:31:04,10.1.1.4,132,-0.250,-0.250,-0.250,0.000,0.000,0.000
1641079864251510016,2022-01-01-23:31:04,10.1.1.4,131,-0.240,-0.240,-0.240,0.000,0.000,0.000
1641079864452164864,2022-01-01-23:31:04,10.1.1.4,130,-0.230,-0.230,-0.230,0.000,0.000,0.000
1641079864651726848,2022-01-01-23:31:04,10.1.1.4,129,-0.220,-0.220,-0.220,0.000,0.000,0.000
1641079864850476032,2022-01-01-23:31:04,10.1.1.4,126,-0.210,-0.210,-0.210,0.000,0.000,0.000
1641079865050966016,2022-01-01-23:31:05,10.1.1.4,125,-0.200,-0.200,-0.200,0.000,0.000,0.000
1641079865270601984,2022-01-01-23:31:05,10.1.1.4,144,-0.190,-0.190,-0.190,0.000,0.000,0.000
1641079865470124032,2022-01-01-23:31:05,10.1.1.4,143,-0.180,-0.180,-0.180,0.000,0.000,0.000
1641079865669138944,2022-01-01-23:31:05,10.1.1.4,141,-0.170,-0.170,-0.170,0.000,0.000,0.000
1641079865870321152,2022-01-01-23:31:05,10.1.1.4,141,-0.160,-0.160,-0.160,0.000,0.000,0.000
1641079866070151168,2022-01-01-23:31:06,10.1.1.4,139,-0.150,-0.150,-0.150,0.000,0.000,0.000
1641079866268378880,2022-01-01-23:31:06,10.1.1.4,137,-0.140,-0.140,-0.140,0.000,0.000,0.000
1641079866468197120,2022-01-01-23:31:06,10.1.1.4,136,-0.130,-0.130,-0.130,0.000,0.000,0.000
1641079866668967936,2022-01-01-23:31:06,10.1.1.4,136,-0.120,-0.120,-0.120,0.000,0.000,0.000
1641079866869123840,2022-01-01-23:31:06,10.1.1.4,135,-0.110,-0.110,-0.110,0.000,0.000,0.000
1641079867067298048,2022-01-01-23:31:07,10.1.1.4,131,-0.100,-0.100,-0.100,0.000,0.000,0.000
1641079867267878912,2022-01-01-23:31:07,10.1.1.4,130,-0.090,-0.090,-0.090,0.000,0.000,0.000
1641079867467257856,2022-01-01-23:31:07,10.1.1.4,128,-0.080,-0.080,-0.080,0.000,0.000,0.000
1641079867669928192,2022-01-01-23:31:07,10.1.1.4,131,-0.070,-0.070,-0.070,0.000,0.000,0.000
1641079867865902848,2022-01-01-23:31:07,10.1.1.4,126,-0.060,-0.060,-0.060,0.000,0.000,0.000
1641079868066287104,2022-01-01-23:31:08,10.1.1.4,125,-0.050,-0.050,-0.050,0.000,0.000,0.000
1641079868265326080,2022-01-01-23:31:08,10.1.1.4,124,-0.040,-0.040,-0.040,0.000,0.000,0.000
1641079868465640192,2022-01-01-23:31:08,10.1.1.4,124,-0.030,-0.030,-0.030,0.000,0.000,0.000
1641079868665649920,2022-01-01-23:31:08,10.1.1.4,123,-0.020,-0.020,-0.020,0.000,0.000,0.000
1641079868864896000,2022-01-01-23:31:08,10.1.1.4,121,-0.010,-0.010,-0.010,0.000,0.000,0.000
1641079869064857856,2022-01-01-23:31:09,10.1.1.4,120,0.000,0.000,0.000,0.000,0.000,0.000
1641079869265059840,2022-01-01-23:31:09,10.1.1.4,119,-0.010,-0.010,-0.010,0.000,0.000,0.000
1641079869484071936,2022-01-01-23:31:09,10.1.1.4,137,-0.020,-0.020,-0.020,0.000,0.000,0.000
1641079869684818944,2022-01-01-23:31:09,10.1.1.4,136,-0.030,-0.030,-0.030,0.000,0.000,0.000
1641079869883398912,2022-01-01-23:31:09,10.1.1.4,135,-0.040,-0.040,-0.040,0.000,0.000,0.000
1641079870082906112,2022-01-01-23:31:10,10.1.1.4,133,-0.050,-0.050,-0.050,0.000,0.000,0.000
1641079870282668032,2022-01-01-23:31:10,10.1.1.4,131,-0.060,-0.060,-0.060,0.000,0.000,0.000
1641079870482461952,2022-01-01-23:31:10,10.1.1.4,130,-0.070,-0.070,-0.070,0.000,0.000,0.000
1641079870684315904,2022-01-01-23:31:10,10.1.1.4,131,-0.080,-0.080,-0.080,0.000,0.000,0.000
1641079870881755136,2022-01-01-23:31:10,10.1.1.4,127,-0.090,-0.090,-0.090,0.000,0.000,0.000
1641079871082909952,2022-01-01-23:31:11,10.1.1.4,127,-0.100,-0.100,-0.100,0.000,0.000,0.000
1641079871282252032,2022-01-01-23:31:11,10.1.1.4,124,-0.110,-0.110,-0.110,0.000,0.000,0.000
1641079871481543936,2022-01-01-23:31:11,10.1.1.4,124,-0.120,-0.120,-0.120,0.000,0.000,0.000
1641079871680708864,2022-01-01-23:31:11,10.1.1.4,122,-0.130,-0.130,-0.130,0.000,0.000,0.000
1641079871880201984,2022-01-01-23:31:11,10.1.1.4,121,-0.140,-0.140,-0.140,0.000,0.000,0.000
1641079872080864000,2022-01-01-23:31:12,10.1.1.4,120,-0.150,-0.150,-0.150,0.000,0.000,0.000
1641079872282403072,2022-01-01-23:31:12,10.1.1.4,119,-0.160,-0.160,-0.160,0.000,0.000,0.000
1641079872480568832,2022-01-01-23:31:12,10.1.1.4,117,-0.170,-0.170,-0.170,0.000,0.000,0.000
1641079872679430912,2022-01-01-23:31:12,10.1.1.4,115,-0.180,-0.180,-0.180,0.000,0.000,0.000
1641079872880323840,2022-01-01-23:31:12,10.1.1.4,114,-0.190,-0.190,-0.190,0.000,0.000,0.000
1641079873098252032,2022-01-01-23:31:13,10.1.1.4,131,-0.200,-0.200,-0.200,0.000,0.000,0.000
1641079873299030016,2022-01-01-23:31:13,10.1.1.4,130,-0.210,-0.210,-0.210,0.000,0.000,0.000
1641079873498626048,2022-01-01-23:31:13,10.1.1.4,129,-0.220,-0.220,-0.220,0.000,0.000,0.000
1641079873700233984,2022-01-01-23:31:13,10.1.1.4,129,-0.230,-0.230,-0.230,0.000,0.000,0.000
1641079873898854144,2022-01-01-23:31:13,10.1.1.4,127,-0.240,-0.240,-0.240,0.000,0.000,0.000
1641079874098577920,2022-01-01-23:31:14,10.1.1.4,126,-0.250,-0.250,-0.250,0.000,0.000,0.000
1641079874297251840,2022-01-01-23:31:14,10.1.1.4,123,-0.260,-0.260,-0.260,0.000,0.000,0.000
1641079874497713920,2022-01-01-23:31:14,10.1.1.4,121,-0.270,-0.270,-0.270,0.000,0.000,0.000
1641079874697794048,2022-01-01-23:31:14,10.1.1.4,120,-0.280,-0.280,-0.280,0.000,0.000,0.000
1641079874896423168,2022-01-01-23:31:14,10.1.1.4,117,-0.290,-0.290,-0.290,0.000,0.000,0.000
1641079875095230976,2022-01-01-23:31:15,10.1.1.4,115,-0.300,-0.300,-0.300,0.000,0.000,0.000
1641079875295149056,2022-01-01-23:31:15,10.1.1.4,113,-0.310,-0.310,-0.310,0.000,0.000,0.000
1641079875496295936,2022-01-01-23:31:15,10.1.1.4,113,-0.320,-0.320,-0.320,0.000,0.000,0.000
1641079875695688960,2022-01-01-23:31:15,10.1.1.4,111,-0.330,-0.330,-0.330,0.000,0.000,0.000
1641079875895770112,2022-01-01-23:31:15,10.1.1.4,110,-0.340,-0.340,-0.340,0.000,0.000,0.000
1641079876114295040,2022-01-01-23:31:16,10.1.1.4,127,-0.350,-0.350,-0.350,0.000,0.000,0.000
1641079876315131904,2022-01-01-23:31:16,10.1.1.4,125,-0.360,-0.360,-0.360,0.000,0.000,0.000
1641079876513809920,2022-01-01-23:31:16,10.1.1.4,123,-0.370,-0.370,-0.370,0.000,0.000,0.000
1641079876714147072,2022-01-01-23:31:16,10.1.1.4,122,-0.380,-0.380,-0.380,0.000,0.000,0.000
1641079876914452992,2022-01-01-23:31:16,10.1.1.4,121,-0.390,-0.390,-0.390,0.000,0.000,0.000
1641079877112580096,2022-01-01-23:31:17,10.1.1.4,118,-0.400,-0.400,-0.400,0.000,0.000,0.000
1641079877313882112,2022-01-01-23:31:17,10.1.1.4,118,-0.410,-0.410,-0.410,0.000,0.000,0.000
1641079877512815872,2022-01-01-23:31:17,10.1.1.4,117,-0.420,-0.420,-0.420,0.000,0.000,0.000
1641079877711593984,2022-01-01-23:31:17,10.1.1.4,114,-0.430,-0.430,-0.430,0.000,0.000,0.000
1641079877912836096,2022-01-01-23:31:17,10.1.1.4,111,-0.440,-0.440,-0.440,0.000,0.000,0.000
1641079878111305984,2022-01-01-23:31:18,10.1.1.4,110,-0.450,-0.450,-0.450,0.000,0.000,0.000
1641079878310141184,2022-01-01-23:31:18,10.1.1.4,105,-0.460,-0.460,-0.460,0.000,0.000,0.000
1641079878530204928,2022-01-01-23:31:18,10.1.1.4,124,-0.470,-0.470,-0.470,0.000,0.000,0.000
1641079878730916864,2022-01-01-23:31:18,10.1.1.4,124,-0.480,-0.480,-0.480,0.000,0.000,0.000
1641079878930031104,2022-01-01-23:31:18,10.1.1.4,122,-0.490,-0.490,-0.490,0.000,0.000,0.000
1641079879130157056,2022-01-01-23:31:19,10.1.1.4,121,-0.480,-0.480,-0.480,0.000,0.000,0.000
1641079879329242112,2022-01-01-23:31:19,10.1.1.4,119,-0.470,-0.470,-0.470,0.000,0.000,0.000
1641079879529159936,2022-01-01-23:31:19,10.1.1.4,117,-0.460,-0.460,-0.460,0.000,0.000,0.000
1641079879730878976,2022-01-01-23:31:19,10.1.1.4,118,-0.450,-0.450,-0.450,0.000,0.000,0.000
1641079879927802112,2022-01-01-23:31:19,10.1.1.4,114,-0.440,-0.440,-0.440,0.000,0.000,0.000
1641079880127791872,2022-01-01-23:31:20,10.1.1.4,110,-0.430,-0.430,-0.430,0.000,0.000,0.000
1641079880327752960,2022-01-01-23:31:20,10.1.1.4,109,-0.420,-0.420,-0.420,0.000,0.000,0.000
1641079880526659840,2022-01-01-23:31:20,10.1.1.4,106,-0.410,-0.410,-0.410,0.000,0.000,0.000
1641079880727369984,2022-01-01-23:31:20,10.1.1.4,106,-0.400,-0.400,-0.400,0.000,0.000,0.000
1641079880926439936,2022-01-01-23:31:20,10.1.1.4,104,-0.390,-0.390,-0.390,0.000,0.000,0.000
1641079881126396928,2022-01-01-23:31:21,10.1.1.4,103,-0.380,-0.380,-0.380,0.000,0.000,0.000
1641079881328336896,2022-01-01-23:31:21,10.1.1.4,104,-0.370,-0.370,-0.370,0.000,0.000,0.000
1641079881525496832,2022-01-01-23:31:21,10.1.1.4,100,-0.360,-0.360,-0.360,0.000,0.000,0.000
1641079881746437120,2022-01-01-23:31:21,10.1.1.4,120,-0.350,-0.350,-0.350,0.000,0.000,0.000
1641079881944807936,2022-01-01-23:31:21,10.1.1.4,117,-0.340,-0.340,-0.340,0.000,0.000,0.000
1641079882145634816,2022-01-01-23:31:22,10.1.1.4,117,-0.330,-0.330,-0.330,0.000,0.000,0.000
1641079882347057152,2022-01-01-23:31:22,10.1.1.4,118,-0.320,-0.320,-0.320,0.000,0.000,0.000
1641079882547641088,2022-01-01-23:31:22,10.1.1.4,117,-0.310,-0.310,-0.310,0.000,0.000,0.000
1641079882748684800,2022-01-01-23:31:22,10.1.1.4,117,-0.300,-0.300,-0.300,0.000,0.000,0.000
1641079882950892800,2022-01-01-23:31:22,10.1.1.4,118,-0.290,-0.290,-0.290,0.000,0.000,0.000
1641079883150697984,2022-01-01-23:31:23,10.1.1.4,117,-0.280,-0.280,-0.280,0.000,0.000,0.000
1641079883352653056,2022-01-01-23:31:23,10.1.1.4,118,-0.270,-0.270,-0.270,0.000,0.000,0.000
1641079883555672832,2022-01-01-23:31:23,10.1.1.4,120,-0.260,-0.260,-0.260,0.000,0.000,0.000
1641079883754813952,2022-01-01-23:31:23,10.1.1.4,118,-0.250,-0.250,-0.250,0.000,0.000,0.000
1641079883955785984,2022-01-01-23:31:23,10.1.1.4,117,-0.240,-0.240,-0.240,0.000,0.000,0.000
1641079884157416192,2022-01-01-23:31:24,10.1.1.4,118,-0.230,-0.230,-0.230,0.000,0.000,0.000
1641079884370909952,2022-01-01-23:31:24,10.1.1.4,131,-0.220,-0.220,-0.220,0.000,0.000,0.000
1641079884559151872,2022-01-01-23:31:24,10.1.1.4,118,-0.210,-0.210,-0.210,0.000,0.000,0.000
1641079884758969088,2022-01-01-23:31:24,10.1.1.4,117,-0.200,-0.200,-0.200,0.000,0.000,0.000
1641079884960224000,2022-01-01-23:31:24,10.1.1.4,118,-0.190,-0.190,-0.190,0.000,0.000,0.000
1641079885161379072,2022-01-01-23:31:25,10.1.1.4,118,-0.180,-0.180,-0.180,0.000,0.000,0.000
1641079885361881856,2022-01-01-23:31:25,10.1.1.4,118,-0.170,-0.170,-0.170,0.000,0.000,0.000
1641079885563198208,2022-01-01-23:31:25,10.1.1.4,118,-0.160,-0.160,-0.160,0.000,0.000,0.000
1641079885763699968,2022-01-01-23:31:25,10.1.1.4,118,-0.150,-0.150,-0.150,0.000,0.000,0.000
1641079885985060096,2022-01-01-23:31:25,10.1.1.4,138,-0.140,-0.140,-0.140,0.000,0.000,0.000
1641079886185466880,2022-01-01-23:31:26,10.1.1.4,138,-0.130,-0.130,-0.130,0.000,0.000,0.000
1641079886391247104,2022-01-01-23:31:26,10.1.1.4,141,-0.120,-0.120,-0.120,0.000,0.000,0.000
1641079886586668032,2022-01-01-23:31:26,10.1.1.4,137,-0.110,-0.110,-0.110,0.000,0.000,0.000
1641079886788439040,2022-01-01-23:31:26,10.1.1.4,138,-0.100,-0.100,-0.100,0.000,0.000,0.000
1641079886990178048,2022-01-01-23:31:26,10.1.1.4,139,-0.090,-0.090,-0.090,0.000,0.000,0.000
1641079887192068096,2022-01-01-23:31:27,10.1.1.4,140,-0.080,-0.080,-0.080,0.000,0.000,0.000
1641079887390391040,2022-01-01-23:31:27,10.1.1.4,138,-0.070,-0.070,-0.070,0.000,0.000,0.000
1641079887591805952,2022-01-01-23:31:27,10.1.1.4,139,-0.060,-0.060,-0.060,0.000,0.000,0.000
1641079887793307136,2022-01-01-23:31:27,10.1.1.4,138,-0.050,-0.050,-0.050,0.000,0.000,0.000
1641079887994092032,2022-01-01-23:31:27,10.1.1.4,139,-0.040,-0.040,-0.040,0.000,0.000,0.000
1641079888193187072,2022-01-01-23:31:28,10.1.1.4,137,-0.030,-0.030,-0.030,0.000,0.000,0.000
1641079888393906176,2022-01-01-23:31:28,10.1.1.4,137,-0.020,-0.020,-0.020,0.000,0.000,0.000
1641079888596712192,2022-01-01-23:31:28,10.1.1.4,139,-0.010,-0.010,-0.010,0.000,0.000,0.000
1641079888795763968,2022-01-01-23:31:28,10.1.1.4,137,0.000,0.000,0.000,0.000,0.000,0.000
1641079888998370048,2022-01-01-23:31:28,10.1.1.4,139,-0.010,-0.010,-0.010,0.000,0.000,0.000
1641079889198363136,2022-01-01-23:31:29,10.1.1.4,138,-0.020,-0.020,-0.020,0.000,0.000,0.000
1641079889396826112,2022-01-01-23:31:29,10.1.1.4,136,-0.030,-0.030,-0.030,0.000,0.000,0.000
1641079889597730048,2022-01-01-23:31:29,10.1.1.4,135,-0.040,-0.040,-0.040,0.000,0.000,0.000
1641079889799235072,2022-01-01-23:31:29,10.1.1.4,134,-0.050,-0.050,-0.050,0.000,0.000,0.000
1641079890019025152,2022-01-01-23:31:30,10.1.1.4,152,-0.060,-0.060,-0.060,0.000,0.000,0.000
1641079890219748096,2022-01-01-23:31:30,10.1.1.4,151,-0.070,-0.070,-0.070,0.000,0.000,0.000
1641079890420388096,2022-01-01-23:31:30,10.1.1.4,151,-0.080,-0.080,-0.080,0.000,0.000,0.000
1641079890620961024,2022-01-01-23:31:30,10.1.1.4,150,-0.090,-0.090,-0.090,0.000,0.000,0.000
1641079890822151936,2022-01-01-23:31:30,10.1.1.4,151,-0.100,-0.100,-0.100,0.000,0.000,0.000
1641079891022251008,2022-01-01-23:31:31,10.1.1.4,150,-0.110,-0.110,-0.110,0.000,0.000,0.000
1641079891224092928,2022-01-01-23:31:31,10.1.1.4,151,-0.120,-0.120,-0.120,0.000,0.000,0.000
1641079891422523136,2022-01-01-23:31:31,10.1.1.4,149,-0.130,-0.130,-0.130,0.000,0.000,0.000
1641079891622593024,2022-01-01-23:31:31,10.1.1.4,148,-0.140,-0.140,-0.140,0.000,0.000,0.000
1641079891825020928,2022-01-01-23:31:31,10.1.1.4,149,-0.150,-0.150,-0.150,0.000,0.000,0.000
1641079892023962880,2022-01-01-23:31:32,10.1.1.4,148,-0.160,-0.160,-0.160,0.000,0.000,0.000
1641079892224948992,2022-01-01-23:31:32,10.1.1.4,148,-0.170,-0.170,-0.170,0.000,0.000,0.000
1641079892425072896,2022-01-01-23:31:32,10.1.1.4,147,-0.180,-0.180,-0.180,0.000,0.000,0.000
1641079892625746944,2022-01-01-23:31:32,10.1.1.4,147,-0.190,-0.190,-0.190,0.000,0.000,0.000
1641079892825740032,2022-01-01-23:31:32,10.1.1.4,146,-0.200,-0.200,-0.200,0.000,0.000,0.000
1641079893034682112,2022-01-01-23:31:33,10.1.1.4,154,-0.210,-0.210,-0.210,0.000,0.000,0.000
1641079893227372800,2022-01-01-23:31:33,10.1.1.4,146,-0.220,-0.220,-0.220,0.000,0.000,0.000
1641079893426706176,2022-01-01-23:31:33,10.1.1.4,144,-0.230,-0.230,-0.230,0.000,0.000,0.000
1641079893628279040,2022-01-01-23:31:33,10.1.1.4,144,-0.240,-0.240,-0.240,0.000,0.000,0.000
1641079893828192000,2022-01-01-23:31:33,10.1.1.4,143,-0.250,-0.250,-0.250,0.000,0.000,0.000
1641079894028736000,2022-01-01-23:31:34,10.1.1.4,143,-0.260,-0.260,-0.260,0.000,0.000,0.000
1641079894228619008,2022-01-01-23:31:34,10.1.1.4,142,-0.270,-0.270,-0.270,0.000,0.000,0.000
1641079894450620928,2022-01-01-23:31:34,10.1.1.4,163,-0.280,-0.280,-0.280,0.000,0.000,0.000
1641079894653224960,2022-01-01-23:31:34,10.1.1.4,165,-0.290,-0.290,-0.290,0.000,0.000,0.000
1641079894849479936,2022-01-01-23:31:34,10.1.1.4,157,-0.300,-0.300,-0.300,0.000,0.000,0.000
1641079895050313984,2022-01-01-23:31:35,10.1.1.4,157,-0.310,-0.310,-0.310,0.000,0.000,0.000
1641079895251789056,2022-01-01-23:31:35,10.1.1.4,158,-0.320,-0.320,-0.320,0.000,0.000,0.000
1641079895450969856,2022-01-01-23:31:35,10.1.1.4,156,-0.330,-0.330,-0.330,0.000,0.000,0.000
1641079895651592960,2022-01-01-23:31:35,10.1.1.4,155,-0.340,-0.340,-0.340,0.000,0.000,0.000
1641079895852866048,2022-01-01-23:31:35,10.1.1.4,155,-0.350,-0.350,-0.350,0.000,0.000,0.000
1641079896051441920,2022-01-01-23:31:36,10.1.1.4,151,-0.360,-0.360,-0.360,0.000,0.000,0.000
1641079896252628992,2022-01-01-23:31:36,10.1.1.4,151,-0.370,-0.370,-0.370,0.000,0.000,0.000
1641079896452843008,2022-01-01-23:31:36,10.1.1.4,151,-0.380,-0.380,-0.380,0.000,0.000,0.000
1641079896653124096,2022-01-01-23:31:36,10.1.1.4,150,-0.390,-0.390,-0.390,0.000,0.000,0.000
1641079896856070912,2022-01-01-23:31:36,10.1.1.4,152,-0.400,-0.400,-0.400,0.000,0.000,0.000
1641079897053144064,2022-01-01-23:31:37,10.1.1.4,147,-0.410,-0.410,-0.410,0.000,0.000,0.000
1641079897273245184,2022-01-01-23:31:37,10.1.1.4,166,-0.420,-0.420,-0.420,0.000,0.000,0.000
1641079897475378944,2022-01-01-23:31:37,10.1.1.4,166,-0.430,-0.430,-0.430,0.000,0.000,0.000
1641079897672988928,2022-01-01-23:31:37,10.1.1.4,163,-0.440,-0.440,-0.440,0.000,0.000,0.000
1641079897874274048,2022-01-01-23:31:37,10.1.1.4,163,-0.450,-0.450,-0.450,0.000,0.000,0.000
1641079898073746944,2022-01-01-23:31:38,10.1.1.4,162,-0.460,-0.460,-0.460,0.000,0.000,0.000
1641079898274583040,2022-01-01-23:31:38,10.1.1.4,161,-0.470,-0.470,-0.470,0.000,0.000,0.000
1641079898473691904,2022-01-01-23:31:38,10.1.1.4,159,-0.480,-0.480,-0.480,0.000,0.000,0.000
1641079898674621952,2022-01-01-23:31:38,10.1.1.4,159,-0.490,-0.490,-0.490,0.000,0.000,0.000
1641079898874938880,2022-01-01-23:31:38,10.1.1.4,158,-0.480,-0.480,-0.480,0.000,0.000,0.000
1641079899077253120,2022-01-01-23:31:39,10.1.1.4,158,-0.470,-0.470,-0.470,0.000,0.000,0.000
1641079899274616064,2022-01-01-23:31:39,10.1.1.4,150,-0.460,-0.460,-0.460,0.000,0.000,0.000
1641079899476828160,2022-01-01-23:31:39,10.1.1.4,151,-0.450,-0.450,-0.450,0.000,0.000,0.000
1641079899695049984,2022-01-01-23:31:39,10.1.1.4,168,-0.440,-0.440,-0.440,0.000,0.000,0.000
1641079899896017920,2022-01-01-23:31:39,10.1.1.4,168,-0.430,-0.430,-0.430,0.000,0.000,0.000
1641079900095258880,2022-01-01-23:31:40,10.1.1.4,166,-0.420,-0.420,-0.420,0.000,0.000,0.000
1641079900295350016,2022-01-01-23:31:40,10.1.1.4,164,-0.410,-0.410,-0.410,0.000,0.000,0.000
1641079900499821056,2022-01-01-23:31:40,10.1.1.4,167,-0.400,-0.400,-0.400,0.000,0.000,0.000
1641079900696451840,2022-01-01-23:31:40,10.1.1.4,163,-0.390,-0.390,-0.390,0.000,0.000,0.000
1641079900896118016,2022-01-01-23:31:40,10.1.1.4,162,-0.380,-0.380,-0.380,0.000,0.000,0.000
1641079901095848960,2022-01-01-23:31:41,10.1.1.4,160,-0.370,-0.370,-0.370,0.000,0.000,0.000
1641079901296049152,2022-01-01-23:31:41,10.1.1.4,158,-0.360,-0.360,-0.360,0.000,0.000,0.000
1641079901495929856,2022-01-01-23:31:41,10.1.1.4,156,-0.350,-0.350,-0.350,0.000,0.000,0.000
1641079901695926016,2022-01-01-23:31:41,10.1.1.4,155,-0.340,-0.340,-0.340,0.000,0.000,0.000
1641079901897114112,2022-01-01-23:31:41,10.1.1.4,154,-0.330,-0.330,-0.330,0.000,0.000,0.000
1641079902097504000,2022-01-01-23:31:42,10.1.1.4,153,-0.320,-0.320,-0.320,0.000,0.000,0.000
1641079902318628096,2022-01-01-23:31:42,10.1.1.4,172,-0.310,-0.310,-0.310,0.000,0.000,0.000
1641079902517255936,2022-01-01-23:31:42,10.1.1.4,170,-0.300,-0.300,-0.300,0.000,0.000,0.000
1641079902716960000,2022-01-01-23:31:42,10.1.1.4,168,-0.290,-0.290,-0.290,0.000,0.000,0.000
1641079902917810944,2022-01-01-23:31:42,10.1.1.4,167,-0.280,-0.280,-0.280,0.000,0.000,0.000
1641079903117219072,2022-01-01-23:31:43,10.1.1.4,166,-0.270,-0.270,-0.270,0.000,0.000,0.000
1641079903317110016,2022-01-01-23:31:43,10.1.1.4,165,-0.260,-0.260,-0.260,0.000,0.000,0.000
1641079903517608960,2022-01-01-23:31:43,10.1.1.4,163,-0.250,-0.250,-0.250,0.000,0.000,0.000
1641079903717987072,2022-01-01-23:31:43,10.1.1.4,162,-0.240,-0.240,-0.240,0.000,0.000,0.000
1641079903917699072,2022-01-01-23:31:43,10.1.1.4,162,-0.230,-0.230,-0.230,0.000,0.000,0.000
1641079904117007104,2022-01-01-23:31:44,10.1.1.4,160,-0.220,-0.220,-0.220,0.000,0.000,0.000
1641079904317188864,2022-01-01-23:31:44,10.1.1.4,158,-0.210,-0.210,-0.210,0.000,0.000,0.000
1641079904519185152,2022-01-01-23:31:44,10.1.1.4,158,-0.200,-0.200,-0.200,0.000,0.000,0.000
1641079904718252800,2022-01-01-23:31:44,10.1.1.4,157,-0.190,-0.190,-0.190,0.000,0.000,0.000
1641079904918086912,2022-01-01-23:31:44,10.1.1.4,156,-0.180,-0.180,-0.180,0.000,0.000,0.000
1641079905117752064,2022-01-01-23:31:45,10.1.1.4,155,-0.170,-0.170,-0.170,0.000,0.000,0.000
1641079905318422016,2022-01-01-23:31:45,10.1.1.4,154,-0.160,-0.160,-0.160,0.000,0.000,0.000
1641079905537532928,2022-01-01-23:31:45,10.1.1.4,170,-0.150,-0.150,-0.150,0.000,0.000,0.000
1641079905738364928,2022-01-01-23:31:45,10.1.1.4,170,-0.140,-0.140,-0.140,0.000,0.000,0.000
1641079905937117184,2022-01-01-23:31:45,10.1.1.4,168,-0.130,-0.130,-0.130,0.000,0.000,0.000
1641079906138552832,2022-01-01-23:31:46,10.1.1.4,169,-0.120,-0.120,-0.120,0.000,0.000,0.000
1641079906337078016,2022-01-01-23:31:46,10.1.1.4,167,-0.110,-0.110,-0.110,0.000,0.000,0.000
1641079906537046016,2022-01-01-23:31:46,10.1.1.4,165,-0.100,-0.100,-0.100,0.000,0.000,0.000
1641079906740335104,2022-01-01-23:31:46,10.1.1.4,167,-0.090,-0.090,-0.090,0.000,0.000,0.000
1641079906937438976,2022-01-01-23:31:46,10.1.1.4,163,-0.080,-0.080,-0.080,0.000,0.000,0.000
1641079907137837056,2022-01-01-23:31:47,10.1.1.4,163,-0.070,-0.070,-0.070,0.000,0.000,0.000
1641079907337622016,2022-01-01-23:31:47,10.1.1.4,162,-0.060,-0.060,-0.060,0.000,0.000,0.000
1641079907538649088,2022-01-01-23:31:47,10.1.1.4,160,-0.050,-0.050,-0.050,0.000,0.000,0.000
1641079907738210816,2022-01-01-23:31:47,10.1.1.4,158,-0.040,-0.040,-0.040,0.000,0.000,0.000
1641079907936561152,2022-01-01-23:31:47,10.1.1.4,156,-0.030,-0.030,-0.030,0.000,0.000,0.000
1641079908138885120,2022-01-01-23:31:48,10.1.1.4,157,-0.020,-0.020,-0.020,0.000,0.000,0.000
1641079908339878144,2022-01-01-23:31:48,10.1.1.4,156,-0.010,-0.010,-0.010,0.000,0.000,0.000
1641079908537808896,2022-01-01-23:31:48,10.1.1.4,152,-0.000,-0.000,-0.000,0.000,0.000,0.000
1641079908757348096,2022-01-01-23:31:48,10.1.1.4,170,-0.010,-0.010,-0.010,0.000,0.000,0.000
1641079908958259968,2022-01-01-23:31:48,10.1.1.4,169,-0.020,-0.020,-0.020,0.000,0.000,0.000
1641079909156354816,2022-01-01-23:31:49,10.1.1.4,166,-0.030,-0.030,-0.030,0.000,0.000,0.000
1641079909357548032,2022-01-01-23:31:49,10.1.1.4,165,-0.040,-0.040,-0.040,0.000,0.000,0.000
1641079909556345856,2022-01-01-23:31:49,10.1.1.4,162,-0.050,-0.050,-0.050,0.000,0.000,0.000
1641079909756517888,2022-01-01-23:31:49,10.1.1.4,159,-0.060,-0.060,-0.060,0.000,0.000,0.000
1641079909958265088,2022-01-01-23:31:49,10.1.1.4,159,-0.070,-0.070,-0.070,0.000,0.000,0.000
1641079910156097024,2022-01-01-23:31:50,10.1.1.4,153,-0.080,-0.080,-0.080,0.000,0.000,0.000
1641079910355747840,2022-01-01-23:31:50,10.1.1.4,150,-0.090,-0.090,-0.090,0.000,0.000,0.000
1641079910575643136,2022-01-01-23:31:50,10.1.1.4,169,-0.100,-0.100,-0.100,0.000,0.000,0.000
1641079910776047104,2022-01-01-23:31:50,10.1.1.4,168,-0.110,-0.110,-0.110,0.000,0.000,0.000
1641079910975945984,2022-01-01-23:31:50,10.1.1.4,167,-0.120,-0.120,-0.120,0.000,0.000,0.000
1641079911175055872,2022-01-01-23:31:51,10.1.1.4,165,-0.130,-0.130,-0.130,0.000,0.000,0.000
1641079911380832000,2022-01-01-23:31:51,10.1.1.4,169,-0.140,-0.140,-0.140,0.000,0.000,0.000
1641079911576452864,2022-01-01-23:31:51,10.1.1.4,164,-0.150,-0.150,-0.150,0.000,0.000,0.000
1641079911775118080,2022-01-01-23:31:51,10.1.1.4,162,-0.160,-0.160,-0.160,0.000,0.000,0.000
1641079911975686912,2022-01-01-23:31:51,10.1.1.4,162,-0.170,-0.170,-0.170,0.000,0.000,0.000
1641079912174670848,2022-01-01-23:31:52,10.1.1.4,159,-0.180,-0.180,-0.180,0.000,0.000,0.000
1641079912375072000,2022-01-01-23:31:52,10.1.1.4,157,-0.190,-0.190,-0.190,0.000,0.000,0.000
1641079912576457984,2022-01-01-23:31:52,10.1.1.4,158,-0.200,-0.200,-0.200,0.000,0.000,0.000
1641079912774509824,2022-01-01-23:31:52,10.1.1.4,155,-0.210,-0.210,-0.210,0.000,0.000,0.000
1641079912974168064,2022-01-01-23:31:52,10.1.1.4,151,-0.220,-0.220,-0.220,0.000,0.000,0.000
1641079913174014976,2022-01-01-23:31:53,10.1.1.4,150,-0.230,-0.230,-0.230,0.000,0.000,0.000
1641079913374190080,2022-01-01-23:31:53,10.1.1.4,149,-0.240,-0.240,-0.240,0.000,0.000,0.000
1641079913593497088,2022-01-01-23:31:53,10.1.1.4,166,-0.250,-0.250,-0.250,0.000,0.000,0.000
1641079913793412864,2022-01-01-23:31:53,10.1.1.4,165,-0.260,-0.260,-0.260,0.000,0.000,0.000
1641079913994767872,2022-01-01-23:31:53,10.1.1.4,165,-0.270,-0.270,-0.270,0.000,0.000,0.000
1641079914193932032,2022-01-01-23:31:54,10.1.1.4,163,-0.280,-0.280,-0.280,0.000,0.000,0.000
1641079914393872128,2022-01-01-23:31:54,10.1.1.4,162,-0.290,-0.290,-0.290,0.000,0.000,0.000
1641079914593115136,2022-01-01-23:31:54,10.1.1.4,159,-0.300,-0.300,-0.300,0.000,0.000,0.000
1641079914794341120,2022-01-01-23:31:54,10.1.1.4,159,-0.310,-0.310,-0.310,0.000,0.000,0.000
1641079914996960000,2022-01-01-23:31:54,10.1.1.4,158,-0.320,-0.320,-0.320,0.000,0.000,0.000
1641079915193105920,2022-01-01-23:31:55,10.1.1.4,154,-0.330,-0.330,-0.330,0.000,0.000,0.000
1641079915392695808,2022-01-01-23:31:55,10.1.1.4,150,-0.340,-0.340,-0.340,0.000,0.000,0.000
1641079915592935168,2022-01-01-23:31:55,10.1.1.4,148,-0.350,-0.350,-0.350,0.000,0.000,0.000
1641079915792175104,2022-01-01-23:31:55,10.1.1.4,147,-0.360,-0.360,-0.360,0.000,0.000,0.000
1641079916015970048,2022-01-01-23:31:56,10.1.1.4,170,-0.370,-0.370,-0.370,0.000,0.000,0.000
1641079916212771840,2022-01-01-23:31:56,10.1.1.4,164,-0.380,-0.380,-0.380,0.000,0.000,0.000
1641079916411389952,2022-01-01-23:31:56,10.1.1.4,163,-0.390,-0.390,-0.390,0.000,0.000,0.000
1641079916611623936,2022-01-01-23:31:56,10.1.1.4,162,-0.400,-0.400,-0.400,0.000,0.000,0.000
1641079916811113984,2022-01-01-23:31:56,10.1.1.4,160,-0.410,-0.410,-0.410,0.000,0.000,0.000
1641079917012916992,2022-01-01-23:31:57,10.1.1.4,159,-0.420,-0.420,-0.420,0.000,0.000,0.000
1641079917210932992,2022-01-01-23:31:57,10.1.1.4,157,-0.430,-0.430,-0.430,0.000,0.000,0.000
1641079917410310912,2022-01-01-23:31:57,10.1.1.4,155,-0.440,-0.440,-0.440,0.000,0.000,0.000
1641079917610456064,2022-01-01-23:31:57,10.1.1.4,152,-0.450,-0.450,-0.450,0.000,0.000,0.000
1641079917810044160,2022-01-01-23:31:57,10.1.1.4,150,-0.460,-0.460,-0.460,0.000,0.000,0.000
1641079918009886976,2022-01-01-23:31:58,10.1.1.4,149,-0.470,-0.470,-0.470,0.000,0.000,0.000
1641079918209721088,2022-01-01-23:31:58,10.1.1.4,147,-0.480,-0.480,-0.480,0.000,0.000,0.000
1641079918410268928,2022-01-01-23:31:58,10.1.1.4,145,-0.490,-0.490,-0.490,0.000,0.000,0.000
1641079918610840064,2022-01-01-23:31:58,10.1.1.4,145,-0.480,-0.480,-0.480,0.000,0.000,0.000
1641079918829863168,2022-01-01-23:31:58,10.1.1.4,162,-0.470,-0.470,-0.470,0.000,0.000,0.000
1641079919030476032,2022-01-01-23:31:59,10.1.1.4,162,-0.460,-0.460,-0.460,0.000,0.000,0.000
1641079919229531136,2022-01-01-23:31:59,10.1.1.4,159,-0.450,-0.450,-0.450,0.000,0.000,0.000
1641079919428253952,2022-01-01-23:31:59,10.1.1.4,154,-0.440,-0.440,-0.440,0.000,0.000,0.000
1641079919628498944,2022-01-01-23:31:59,10.1.1.4,153,-0.430,-0.430,-0.430,0.000,0.000,0.000
1641079919828096000,2022-01-01-23:31:59,10.1.1.4,152,-0.420,-0.420,-0.420,0.000,0.000,0.000
1641079920029583104,2022-01-01-23:32:00,10.1.1.4,152,-0.410,-0.410,-0.410,0.000,0.000,0.000
1641079920228987904,2022-01-01-23:32:00,10.1.1.4,150,-0.400,-0.400,-0.400,0.000,0.000,0.000
1641079920427938816,2022-01-01-23:32:00,10.1.1.4,148,-0.390,-0.390,-0.390,0.000,0.000,0.000
1641079920628382976,2022-01-01-23:32:00,10.1.1.4,147,-0.380,-0.380,-0.380,0.000,0.000,0.000
1641079920827699968,2022-01-01-23:32:00,10.1.1.4,146,-0.370,-0.370,-0.370,0.000,0.000,0.000
1641079921026827008,2022-01-01-23:32:01,10.1.1.4,144,-0.360,-0.360,-0.360,0.000,0.000,0.000
1641079921227785216,2022-01-01-23:32:01,10.1.1.4,144,-0.350,-0.350,-0.350,0.000,0.000,0.000
1641079921426835968,2022-01-01-23:32:01,10.1.1.4,142,-0.340,-0.340,-0.340,0.000,0.000,0.000
1641079921647100928,2022-01-01-23:32:01,10.1.1.4,159,-0.330,-0.330,-0.330,0.000,0.000,0.000
1641079921846636032,2022-01-01-23:32:01,10.1.1.4,156,-0.320,-0.320,-0.320,0.000,0.000,0.000
1641079922046977024,2022-01-01-23:32:02,10.1.1.4,156,-0.310,-0.310,-0.310,0.000,0.000,0.000
1641079922249289984,2022-01-01-23:32:02,10.1.1.4,156,-0.300,-0.300,-0.300,0.000,0.000,0.000
1641079922446070784,2022-01-01-23:32:02,10.1.1.4,152,-0.290,-0.290,-0.290,0.000,0.000,0.000
1641079922647015936,2022-01-01-23:32:02,10.1.1.4,152,-0.280,-0.280,-0.280,0.000,0.000,0.000
1641079922845773824,2022-01-01-23:32:02,10.1.1.4,150,-0.270,-0.270,-0.270,0.000,0.000,0.000
1641079923045284096,2022-01-01-23:32:03,10.1.1.4,149,-0.260,-0.260,-0.260,0.000,0.000,0.000
1641079923245209856,2022-01-01-23:32:03,10.1.1.4,147,-0.250,-0.250,-0.250,0.000,0.000,0.000
1641079923446025984,2022-01-01-23:32:03,10.1.1.4,147,-0.240,-0.240,-0.240,0.000,0.000,0.000
1641079923645047040,2022-01-01-23:32:03,10.1.1.4,145,-0.230,-0.230,-0.230,0.000,0.000,0.000
1641079923846234112,2022-01-01-23:32:03,10.1.1.4,146,-0.220,-0.220,-0.220,0.000,0.000,0.000
1641079924045051136,2022-01-01-23:32:04,10.1.1.4,143,-0.210,-0.210,-0.210,0.000,0.000,0.000
1641079924243087104,2022-01-01-23:32:04,10.1.1.4,141,-0.200,-0.200,-0.200,0.000,0.000,0.000
1641079924444252928,2022-01-01-23:32:04,10.1.1.4,140,-0.190,-0.190,-0.190,0.000,0.000,0.000
1641079924647325952,2022-01-01-23:32:04,10.1.1.4,143,-0.180,-0.180,-0.180,0.000,0.000,0.000
1641079924842487040,2022-01-01-23:32:04,10.1.1.4,136,-0.170,-0.170,-0.170,0.000,0.000,0.000
1641079925062490880,2022-01-01-23:32:05,10.1.1.4,155,-0.160,-0.160,-0.160,0.000,0.000,0.000
1641079925262001152,2022-01-01-23:32:05,10.1.1.4,154,-0.150,-0.150,-0.150,0.000,0.000,0.000
1641079925461321984,2022-01-01-23:32:05,10.1.1.4,150,-0.140,-0.140,-0.140,0.000,0.000,0.000
1641079925662115072,2022-01-01-23:32:05,10.1.1.4,149,-0.130,-0.130,-0.130,0.000,0.000,0.000
1641079925861084928,2022-01-01-23:32:05,10.1.1.4,147,-0.120,-0.120,-0.120,0.000,0.000,0.000
1641079926061193984,2022-01-01-23:32:06,10.1.1.4,145,-0.110,-0.110,-0.110,0.000,0.000,0.000
1641079926261305088,2022-01-01-23:32:06,10.1.1.4,145,-0.100,-0.100,-0.100,0.000,0.000,0.000
1641079926460990976,2022-01-01-23:32:06,10.1.1.4,143,-0.090,-0.090,-0.090,0.000,0.000,0.000
1641079926661040896,2022-01-01-23:32:06,10.1.1.4,142,-0.080,-0.080,-0.080,0.000,0.000,0.000
1641079926860080128,2022-01-01-23:32:06,10.1.1.4,140,-0.070,-0.070,-0.070,0.000,0.000,0.000
1641079927062100992,2022-01-01-23:32:07,10.1.1.4,140,-0.060,-0.060,-0.060,0.000,0.000,0.000
1641079927259602944,2022-01-01-23:32:07,10.1.1.4,137,-0.050,-0.050,-0.050,0.000,0.000,0.000
1641079927460158208,2022-01-01-23:32:07,10.1.1.4,135,-0.040,-0.040,-0.040,0.000,0.000,0.000
1641079927678884096,2022-01-01-23:32:07,10.1.1.4,152,-0.030,-0.030,-0.030,0.000,0.000,0.000
1641079927878530048,2022-01-01-23:32:07,10.1.1.4,150,-0.020,-0.020,-0.020,0.000,0.000,0.000
1641079928077730816,2022-01-01-23:32:08,10.1.1.4,148,-0.010,-0.010,-0.010,0.000,0.000,0.000
1641079928277696000,2022-01-01-23:32:08,10.1.1.4,147,0.000,0.000,0.000,0.000,0.000,0.000
1641079928478363136,2022-01-01-23:32:08,10.1.1.4,147,-0.010,-0.010,-0.010,0.000,0.000,0.000
1641079928677664000,2022-01-01-23:32:08,10.1.1.4,144,-0.020,-0.020,-0.020,0.000,0.000,0.000
1641079928878257152,2022-01-01-23:32:08,10.1.1.4,144,-0.030,-0.030,-0.030,0.000,0.000,0.000
1641079929077390848,2022-01-01-23:32:09,10.1.1.4,143,-0.040,-0.040,-0.040,0.000,0.000,0.000
1641079929276945152,2022-01-01-23:32:09,10.1.1.4,141,-0.050,-0.050,-0.050,0.000,0.000,0.000
1641079929476195072,2022-01-01-23:32:09,10.1.1.4,140,-0.060,-0.060,-0.060,0.000,0.000,0.000
1641079929676558848,2022-01-01-23:32:09,10.1.1.4,139,-0.070,-0.070,-0.070,0.000,0.000,0.000
1641079929876240896,2022-01-01-23:32:09,10.1.1.4,138,-0.080,-0.080,-0.080,0.000,0.000,0.000
1641079930076320000,2022-01-01-23:32:10,10.1.1.4,137,-0.090,-0.090,-0.090,0.000,0.000,0.000
1641079930275859968,2022-01-01-23:32:10,10.1.1.4,135,-0.100,-0.100,-0.100,0.000,0.000,0.000
1641079930475145984,2022-01-01-23:32:10,10.1.1.4,134,-0.110,-0.110,-0.110,0.000,0.000,0.000
1641079930675457024,2022-01-01-23:32:10,10.1.1.4,133,-0.120,-0.120,-0.120,0.000,0.000,0.000
1641079930877760768,2022-01-01-23:32:10,10.1.1.4,134,-0.130,-0.130,-0.130,0.000,0.000,0.000
1641079931074057216,2022-01-01-23:32:11,10.1.1.4,130,-0.140,-0.140,-0.140,0.000,0.000,0.000
1641079931273931008,2022-01-01-23:32:11,10.1.1.4,129,-0.150,-0.150,-0.150,0.000,0.000,0.000
1641079931474545920,2022-01-01-23:32:11,10.1.1.4,129,-0.160,-0.160,-0.160,0.000,0.000,0.000
1641079931693125120,2022-01-01-23:32:11,10.1.1.4,146,-0.170,-0.170,-0.170,0.000,0.000,0.000
1641079931873737216,2022-01-01-23:32:11,10.1.1.4,125,-0.180,-0.180,-0.180,0.000,0.000,0.000
1641079932093169920,2022-01-01-23:32:12,10.1.1.4,143,-0.190,-0.190,-0.190,0.000,0.000,0.000
1641079932292638976,2022-01-01-23:32:12,10.1.1.4,142,-0.200,-0.200,-0.200,0.000,0.000,0.000
1641079932492935936,2022-01-01-23:32:12,10.1.1.4,140,-0.210,-0.210,-0.210,0.000,0.000,0.000
1641079932693325056,2022-01-01-23:32:12,10.1.1.4,140,-0.220,-0.220,-0.220,0.000,0.000,0.000
1641079932891341056,2022-01-01-23:32:12,10.1.1.4,137,-0.230,-0.230,-0.230,0.000,0.000,0.000
1641079933091589888,2022-01-01-23:32:13,10.1.1.4,137,-0.240,-0.240,-0.240,0.000,0.000,0.000
1641079933292035072,2022-01-01-23:32:13,10.1.1.4,136,-0.250,-0.250,-0.250,0.000,0.000,0.000
1641079933493838080,2022-01-01-23:32:13,10.1.1.4,137,-0.260,-0.260,-0.260,0.000,0.000,0.000
1641079933691163904,2022-01-01-23:32:13,10.1.1.4,133,-0.270,-0.270,-0.270,0.000,0.000,0.000
1641079933890084096,2022-01-01-23:32:13,10.1.1.4,131,-0.280,-0.280,-0.280,0.000,0.000,0.000
1641079934090331904,2022-01-01-23:32:14,10.1.1.4,130,-0.290,-0.290,-0.290,0.000,0.000,0.000
1641079934291205888,2022-01-01-23:32:14,10.1.1.4,130,-0.300,-0.300,-0.300,0.000,0.000,0.000
1641079934489509120,2022-01-01-23:32:14,10.1.1.4,127,-0.310,-0.310,-0.310,0.000,0.000,0.000
1641079934691490048,2022-01-01-23:32:14,10.1.1.4,128,-0.320,-0.320,-0.320,0.000,0.000,0.000
1641079934888364032,2022-01-01-23:32:14,10.1.1.4,124,-0.330,-0.330,-0.330,0.000,0.000,0.000
1641079935088218880,2022-01-01-23:32:15,10.1.1.4,123,-0.340,-0.340,-0.340,0.000,0.000,0.000
1641079935287614976,2022-01-01-23:32:15,10.1.1.4,122,-0.350,-0.350,-0.350,0.000,0.000,0.000
1641079935509888000,2022-01-01-23:32:15,10.1.1.4,142,-0.360,-0.360,-0.360,0.000,0.000,0.000
1641079935707806208,2022-01-01-23:32:15,10.1.1.4,140,-0.370,-0.370,-0.370,0.000,0.000,0.000
1641079935909625088,2022-01-01-23:32:15,10.1.1.4,140,-0.380,-0.380,-0.380,0.000,0.000,0.000
1641079936107229952,2022-01-01-23:32:16,10.1.1.4,136,-0.390,-0.390,-0.390,0.000,0.000,0.000
1641079936309270016,2022-01-01-23:32:16,10.1.1.4,138,-0.400,-0.400,-0.400,0.000,0.000,0.000
1641079936507570944,2022-01-01-23:32:16,10.1.1.4,135,-0.410,-0.410,-0.410,0.000,0.000,0.000
1641079936705689856,2022-01-01-23:32:16,10.1.1.4,132,-0.420,-0.420,-0.420,0.000,0.000,0.000
1641079936907187968,2022-01-01-23:32:16,10.1.1.4,132,-0.430,-0.430,-0.430,0.000,0.000,0.000
1641079937106579968,2022-01-01-23:32:17,10.1.1.4,130,-0.440,-0.440,-0.440,0.000,0.000,0.000
1641079937306196992,2022-01-01-23:32:17,10.1.1.4,129,-0.450,-0.450,-0.450,0.000,0.000,0.000
1641079937503971072,2022-01-01-23:32:17,10.1.1.4,126,-0.460,-0.460,-0.460,0.000,0.000,0.000
1641079937705040896,2022-01-01-23:32:17,10.1.1.4,126,-0.470,-0.470,-0.470,0.000,0.000,0.000
1641079937904002816,2022-01-01-23:32:17,10.1.1.4,125,-0.480,-0.480,-0.480,0.000,0.000,0.000
1641079938103714048,2022-01-01-23:32:18,10.1.1.4,123,-0.490,-0.490,-0.490,0.000,0.000,0.000
1641079938303203072,2022-01-01-23:32:18,10.1.1.4,119,-0.480,-0.480,-0.480,0.000,0.000,0.000
1641079938503902976,2022-01-01-23:32:18,10.1.1.4,119,-0.470,-0.470,-0.470,0.000,0.000,0.000
1641079938702857984,2022-01-01-23:32:18,10.1.1.4,117,-0.460,-0.460,-0.460,0.000,0.000,0.000
1641079938923603968,2022-01-01-23:32:18,10.1.1.4,137,-0.450,-0.450,-0.450,0.000,0.000,0.000
1641079939122055168,2022-01-01-23:32:19,10.1.1.4,133,-0.440,-0.440,-0.440,0.000,0.000,0.000
1641079939322711040,2022-01-01-23:32:19,10.1.1.4,131,-0.430,-0.430,-0.430,0.000,0.000,0.000
1641079939522142976,2022-01-01-23:32:19,10.1.1.4,130,-0.420,-0.420,-0.420,0.000,0.000,0.000
1641079939721609984,2022-01-01-23:32:19,10.1.1.4,129,-0.410,-0.410,-0.410,0.000,0.000,0.000
1641079939921462016,2022-01-01-23:32:19,10.1.1.4,128,-0.400,-0.400,-0.400,0.000,0.000,0.000
1641079940121735936,2022-01-01-23:32:20,10.1.1.4,126,-0.390,-0.390,-0.390,0.000,0.000,0.000
1641079940320297984,2022-01-01-23:32:20,10.1.1.4,124,-0.380,-0.380,-0.380,0.000,0.000,0.000
1641079940520590080,2022-01-01-23:32:20,10.1.1.4,123,-0.370,-0.370,-0.370,0.000,0.000,0.000
1641079940719702016,2022-01-01-23:32:20,10.1.1.4,121,-0.360,-0.360,-0.360,0.000,0.000,0.000
1641079940919774976,2022-01-01-23:32:20,10.1.1.4,120,-0.350,-0.350,-0.350,0.000,0.000,0.000
1641079941119600896,2022-01-01-23:32:21,10.1.1.4,119,-0.340,-0.340,-0.340,0.000,0.000,0.000
1641079941319677184,2022-01-01-23:32:21,10.1.1.4,118,-0.330,-0.330,-0.330,0.000,0.000,0.000
1641079941518467840,2022-01-01-23:32:21,10.1.1.4,116,-0.320,-0.320,-0.320,0.000,0.000,0.000
1641079941718499840,2022-01-01-23:32:21,10.1.1.4,114,-0.310,-0.310,-0.310,0.000,0.000,0.000
1641079941917989888,2022-01-01-23:32:21,10.1.1.4,113,-0.300,-0.300,-0.300,0.000,0.000,0.000
1641079942118658048,2022-01-01-23:32:22,10.1.1.4,113,-0.290,-0.290,-0.290,0.000,0.000,0.000
1641079942338557952,2022-01-01-23:32:22,10.1.1.4,131,-0.280,-0.280,-0.280,0.000,0.000,0.000
1641079942539120896,2022-01-01-23:32:22,10.1.1.4,130,-0.270,-0.270,-0.270,0.000,0.000,0.000
1641079942736460032,2022-01-01-23:32:22,10.1.1.4,127,-0.260,-0.260,-0.260,0.000,0.000,0.000
1641079942936163072,2022-01-01-23:32:22,10.1.1.4,125,-0.250,-0.250,-0.250,0.000,0.000,0.000
1641079943136598016,2022-01-01-23:32:23,10.1.1.4,125,-0.240,-0.240,-0.240,0.000,0.000,0.000
1641079943335812096,2022-01-01-23:32:23,10.1.1.4,124,-0.230,-0.230,-0.230,0.000,0.000,0.000
1641079943536411904,2022-01-01-23:32:23,10.1.1.4,122,-0.220,-0.220,-0.220,0.000,0.000,0.000
1641079943735083008,2022-01-01-23:32:23,10.1.1.4,121,-0.210,-0.210,-0.210,0.000,0.000,0.000
1641079943939299072,2022-01-01-23:32:23,10.1.1.4,121,-0.200,-0.200,-0.200,0.000,0.000,0.000
1641079944134896128,2022-01-01-23:32:24,10.1.1.4,116,-0.190,-0.190,-0.190,0.000,0.000,0.000
1641079944335033856,2022-01-01-23:32:24,10.1.1.4,115,-0.180,-0.180,-0.180,0.000,0.000,0.000
1641079944537856000,2022-01-01-23:32:24,10.1.1.4,114,-0.170,-0.170,-0.170,0.000,0.000,0.000
1641079944733448960,2022-01-01-23:32:24,10.1.1.4,109,-0.160,-0.160,-0.160,0.000,0.000,0.000
1641079944934870016,2022-01-01-23:32:24,10.1.1.4,110,-0.150,-0.150,-0.150,0.000,0.000,0.000
1641079945153767168,2022-01-01-23:32:25,10.1.1.4,128,-0.140,-0.140,-0.140,0.000,0.000,0.000
1641079945352478976,2022-01-01-23:32:25,10.1.1.4,126,-0.130,-0.130,-0.130,0.000,0.000,0.000
1641079945552089088,2022-01-01-23:32:25,10.1.1.4,125,-0.120,-0.120,-0.120,0.000,0.000,0.000
1641079945758472960,2022-01-01-23:32:25,10.1.1.4,130,-0.110,-0.110,-0.110,0.000,0.000,0.000
1641079945951771904,2022-01-01-23:32:25,10.1.1.4,121,-0.100,-0.100,-0.100,0.000,0.000,0.000
1641079946152123904,2022-01-01-23:32:26,10.1.1.4,119,-0.090,-0.090,-0.090,0.000,0.000,0.000
1641079946353193984,2022-01-01-23:32:26,10.1.1.4,119,-0.080,-0.080,-0.080,0.000,0.000,0.000
1641079946553998080,2022-01-01-23:32:26,10.1.1.4,118,-0.070,-0.070,-0.070,0.000,0.000,0.000
1641079946755179008,2022-01-01-23:32:26,10.1.1.4,118,-0.060,-0.060,-0.060,0.000,0.000,0.000
1641079946956975872,2022-01-01-23:32:26,10.1.1.4,118,-0.050,-0.050,-0.050,0.000,0.000,0.000
1641079947157479936,2022-01-01-23:32:27,10.1.1.4,117,-0.040,-0.040,-0.040,0.000,0.000,0.000
1641079947358768896,2022-01-01-23:32:27,10.1.1.4,118,-0.030,-0.030,-0.030,0.000,0.000,0.000
1641079947559187968,2022-01-01-23:32:27,10.1.1.4,117,-0.020,-0.020,-0.020,0.000,0.000,0.000
1641079947761702912,2022-01-01-23:32:27,10.1.1.4,116,-0.010,-0.010,-0.010,0.000,0.000,0.000
1641079947961092864,2022-01-01-23:32:27,10.1.1.4,117,0.000,0.000,0.000,0.000,0.000,0.000
1641079948161361920,2022-01-01-23:32:28,10.1.1.4,116,-0.010,-0.010,-0.010,0.000,0.000,0.000
1641079948382280192,2022-01-01-23:32:28,10.1.1.4,136,-0.020,-0.020,-0.020,0.000,0.000,0.000
1641079948583545088,2022-01-01-23:32:28,10.1.1.4,136,-0.030,-0.030,-0.030,0.000,0.000,0.000
1641079948785465856,2022-01-01-23:32:28,10.1.1.4,137,-0.040,-0.040,-0.040,0.000,0.000,0.000
1641079948984687104,2022-01-01-23:32:28,10.1.1.4,135,-0.050,-0.050,-0.050,0.000,0.000,0.000
1641079949186499072,2022-01-01-23:32:29,10.1.1.4,134,-0.060,-0.060,-0.060,0.000,0.000,0.000
1641079949387124992,2022-01-01-23:32:29,10.1.1.4,132,-0.070,-0.070,-0.070,0.000,0.000,0.000
1641079949588123136,2022-01-01-23:32:29,10.1.1.4,131,-0.080,-0.080,-0.080,0.000,0.000,0.000
1641079949788749056,2022-01-01-23:32:29,10.1.1.4,131,-0.090,-0.090,-0.090,0.000,0.000,0.000
1641079949989159936,2022-01-01-23:32:29,10.1.1.4,130,-0.100,-0.100,-0.100,0.000,0.000,0.000
1641079950190172928,2022-01-01-23:32:30,10.1.1.4,131,-0.110,-0.110,-0.110,0.000,0.000,0.000
1641079950391040000,2022-01-01-23:32:30,10.1.1.4,130,-0.120,-0.120,-0.120,0.000,0.000,0.000
1641079950592020992,2022-01-01-23:32:30,10.1.1.4,129,-0.130,-0.130,-0.130,0.000,0.000,0.000
1641079950792870912,2022-01-01-23:32:30,10.1.1.4,129,-0.140,-0.140,-0.140,0.000,0.000,0.000
1641079950992621056,2022-01-01-23:32:30,10.1.1.4,129,-0.150,-0.150,-0.150,0.000,0.000,0.000
1641079951195020800,2022-01-01-23:32:31,10.1.1.4,129,-0.160,-0.160,-0.160,0.000,0.000,0.000
1641079951394710016,2022-01-01-23:32:31,10.1.1.4,129,-0.170,-0.170,-0.170,0.000,0.000,0.000
1641079951613989120,2022-01-01-23:32:31,10.1.1.4,147,-0.180,-0.180,-0.180,0.000,0.000,0.000
1641079951815355904,2022-01-01-23:32:31,10.1.1.4,148,-0.190,-0.190,-0.190,0.000,0.000,0.000
1641079952015865088,2022-01-01-23:32:32,10.1.1.4,148,-0.200,-0.200,-0.200,0.000,0.000,0.000
1641079952217202944,2022-01-01-23:32:32,10.1.1.4,148,-0.210,-0.210,-0.210,0.000,0.000,0.000
1641079952417960960,2022-01-01-23:32:32,10.1.1.4,148,-0.220,-0.220,-0.220,0.000,0.000,0.000
1641079952616904960,2022-01-01-23:32:32,10.1.1.4,146,-0.230,-0.230,-0.230,0.000,0.000,0.000
1641079952817476864,2022-01-01-23:32:32,10.1.1.4,146,-0.240,-0.240,-0.240,0.000,0.000,0.000
1641079953018877952,2022-01-01-23:32:33,10.1.1.4,146,-0.250,-0.250,-0.250,0.000,0.000,0.000
1641079953218987008,2022-01-01-23:32:33,10.1.1.4,145,-0.260,-0.260,-0.260,0.000,0.000,0.000
1641079953421283840,2022-01-01-23:32:33,10.1.1.4,146,-0.270,-0.270,-0.270,0.000,0.000,0.000
1641079953620126976,2022-01-01-23:32:33,10.1.1.4,144,-0.280,-0.280,-0.280,0.000,0.000,0.000
1641079953819927808,2022-01-01-23:32:33,10.1.1.4,143,-0.290,-0.290,-0.290,0.000,0.000,0.000
1641079954021730816,2022-01-01-23:32:34,10.1.1.4,144,-0.300,-0.300,-0.300,0.000,0.000,0.000
1641079954221859840,2022-01-01-23:32:34,10.1.1.4,144,-0.310,-0.310,-0.310,0.000,0.000,0.000
1641079954421539072,2022-01-01-23:32:34,10.1.1.4,143,-0.320,-0.320,-0.320,0.000,0.000,0.000
1641079954622510080,2022-01-01-23:32:34,10.1.1.4,142,-0.330,-0.330,-0.330,0.000,0.000,0.000
1641079954824062208,2022-01-01-23:32:34,10.1.1.4,143,-0.340,-0.340,-0.340,0.000,0.000,0.000
1641079955023240960,2022-01-01-23:32:35,10.1.1.4,141,-0.350,-0.350,-0.350,0.000,0.000,0.000
1641079955224150784,2022-01-01-23:32:35,10.1.1.4,141,-0.360,-0.360,-0.360,0.000,0.000,0.000
1641079955425798912,2022-01-01-23:32:35,10.1.1.4,141,-0.370,-0.370,-0.370,0.000,0.000,0.000
1641079955625003008,2022-01-01-23:32:35,10.1.1.4,139,-0.380,-0.380,-0.380,0.000,0.000,0.000
1641079955848459008,2022-01-01-23:32:35,10.1.1.4,161,-0.390,-0.390,-0.390,0.000,0.000,0.000
1641079956046031872,2022-01-01-23:32:36,10.1.1.4,157,-0.400,-0.400,-0.400,0.000,0.000,0.000
1641079956246931200,2022-01-01-23:32:36,10.1.1.4,156,-0.410,-0.410,-0.410,0.000,0.000,0.000
1641079956446927104,2022-01-01-23:32:36,10.1.1.4,151,-0.420,-0.420,-0.420,0.000,0.000,0.000
1641079956647502848,2022-01-01-23:32:36,10.1.1.4,150,-0.430,-0.430,-0.430,0.000,0.000,0.000
1641079956846671104,2022-01-01-23:32:36,10.1.1.4,148,-0.440,-0.440,-0.440,0.000,0.000,0.000
1641079957047643904,2022-01-01-23:32:37,10.1.1.4,149,-0.450,-0.450,-0.450,0.000,0.000,0.000
1641079957249191936,2022-01-01-23:32:37,10.1.1.4,149,-0.460,-0.460,-0.460,0.000,0.000,0.000
1641079957453315072,2022-01-01-23:32:37,10.1.1.4,151,-0.470,-0.470,-0.470,0.000,0.000,0.000
1641079957649274112,2022-01-01-23:32:37,10.1.1.4,147,-0.480,-0.480,-0.480,0.000,0.000,0.000
1641079957850339840,2022-01-01-23:32:37,10.1.1.4,145,-0.490,-0.490,-0.490,0.000,0.000,0.000
1641079958049632000,2022-01-01-23:32:38,10.1.1.4,144,-0.480,-0.480,-0.480,0.000,0.000,0.000
1641079958270056960,2022-01-01-23:32:38,10.1.1.4,162,-0.470,-0.470,-0.470,0.000,0.000,0.000
1641079958470057984,2022-01-01-23:32:38,10.1.1.4,160,-0.460,-0.460,-0.460,0.000,0.000,0.000
1641079958670628096,2022-01-01-23:32:38,10.1.1.4,160,-0.450,-0.450,-0.450,0.000,0.000,0.000
1641079958870263040,2022-01-01-23:32:38,10.1.1.4,158,-0.440,-0.440,-0.440,0.000,0.000,0.000
1641079959070724096,2022-01-01-23:32:39,10.1.1.4,158,-0.430,-0.430,-0.430,0.000,0.000,0.000
1641079959270444032,2022-01-01-23:32:39,10.1.1.4,156,-0.420,-0.420,-0.420,0.000,0.000,0.000
1641079959470509056,2022-01-01-23:32:39,10.1.1.4,156,-0.410,-0.410,-0.410,0.000,0.000,0.000
1641079959670919936,2022-01-01-23:32:39,10.1.1.4,150,-0.400,-0.400,-0.400,0.000,0.000,0.000
1641079959870616064,2022-01-01-23:32:39,10.1.1.4,149,-0.390,-0.390,-0.390,0.000,0.000,0.000
1641079960071429888,2022-01-01-23:32:40,10.1.1.4,149,-0.380,-0.380,-0.380,0.000,0.000,0.000
1641079960271397120,2022-01-01-23:32:40,10.1.1.4,148,-0.370,-0.370,-0.370,0.000,0.000,0.000
1641079960471858944,2022-01-01-23:32:40,10.1.1.4,147,-0.360,-0.360,-0.360,0.000,0.000,0.000
1641079960672281088,2022-01-01-23:32:40,10.1.1.4,146,-0.350,-0.350,-0.350,0.000,0.000,0.000
1641079960891303936,2022-01-01-23:32:40,10.1.1.4,164,-0.340,-0.340,-0.340,0.000,0.000,0.000
1641079961092418816,2022-01-01-23:32:41,10.1.1.4,165,-0.330,-0.330,-0.330,0.000,0.000,0.000
1641079961291846912,2022-01-01-23:32:41,10.1.1.4,163,-0.320,-0.320,-0.320,0.000,0.000,0.000
1641079961492827904,2022-01-01-23:32:41,10.1.1.4,163,-0.310,-0.310,-0.310,0.000,0.000,0.000
1641079961693280000,2022-01-01-23:32:41,10.1.1.4,163,-0.300,-0.300,-0.300,0.000,0.000,0.000
1641079961893552896,2022-01-01-23:32:41,10.1.1.4,162,-0.290,-0.290,-0.290,0.000,0.000,0.000
1641079962101826048,2022-01-01-23:32:42,10.1.1.4,170,-0.280,-0.280,-0.280,0.000,0.000,0.000
1641079962293997056,2022-01-01-23:32:42,10.1.1.4,160,-0.270,-0.270,-0.270,0.000,0.000,0.000
1641079962494452992,2022-01-01-23:32:42,10.1.1.4,158,-0.260,-0.260,-0.260,0.000,0.000,0.000
1641079962693597952,2022-01-01-23:32:42,10.1.1.4,156,-0.250,-0.250,-0.250,0.000,0.000,0.000
1641079962894115840,2022-01-01-23:32:42,10.1.1.4,150,-0.240,-0.240,-0.240,0.000,0.000,0.000
1641079963098497024,2022-01-01-23:32:43,10.1.1.4,152,-0.230,-0.230,-0.230,0.000,0.000,0.000
1641079963314124032,2022-01-01-23:32:43,10.1.1.4,165,-0.220,-0.220,-0.220,0.000,0.000,0.000
1641079963513851904,2022-01-01-23:32:43,10.1.1.4,163,-0.210,-0.210,-0.210,0.000,0.000,0.000
1641079963714799872,2022-01-01-23:32:43,10.1.1.4,162,-0.200,-0.200,-0.200,0.000,0.000,0.000
1641079963915353088,2022-01-01-23:32:43,10.1.1.4,160,-0.190,-0.190,-0.190,0.000,0.000,0.000
1641079964114715136,2022-01-01-23:32:44,10.1.1.4,158,-0.180,-0.180,-0.180,0.000,0.000,0.000
1641079964314588160,2022-01-01-23:32:44,10.1.1.4,157,-0.170,-0.170,-0.170,0.000,0.000,0.000
1641079964515222016,2022-01-01-23:32:44,10.1.1.4,153,-0.160,-0.160,-0.160,0.000,0.000,0.000
1641079964717200128,2022-01-01-23:32:44,10.1.1.4,153,-0.150,-0.150,-0.150,0.000,0.000,0.000
1641079964914200064,2022-01-01-23:32:44,10.1.1.4,149,-0.140,-0.140,-0.140,0.000,0.000,0.000
1641079965114674176,2022-01-01-23:32:45,10.1.1.4,148,-0.130,-0.130,-0.130,0.000,0.000,0.000
1641079965335289856,2022-01-01-23:32:45,10.1.1.4,168,-0.120,-0.120,-0.120,0.000,0.000,0.000
1641079965537626880,2022-01-01-23:32:45,10.1.1.4,169,-0.110,-0.110,-0.110,0.000,0.000,0.000
1641079965735068160,2022-01-01-23:32:45,10.1.1.4,165,-0.100,-0.100,-0.100,0.000,0.000,0.000
1641079965936750848,2022-01-01-23:32:45,10.1.1.4,166,-0.090,-0.090,-0.090,0.000,0.000,0.000
1641079966134789888,2022-01-01-23:32:46,10.1.1.4,163,-0.080,-0.080,-0.080,0.000,0.000,0.000
1641079966334301952,2022-01-01-23:32:46,10.1.1.4,162,-0.070,-0.070,-0.070,0.000,0.000,0.000
1641079966534756864,2022-01-01-23:32:46,10.1.1.4,161,-0.060,-0.060,-0.060,0.000,0.000,0.000
1641079966735256064,2022-01-01-23:32:46,10.1.1.4,160,-0.050,-0.050,-0.050,0.000,0.000,0.000
1641079966935111168,2022-01-01-23:32:46,10.1.1.4,159,-0.040,-0.040,-0.040,0.000,0.000,0.000
1641079967135781888,2022-01-01-23:32:47,10.1.1.4,159,-0.030,-0.030,-0.030,0.000,0.000,0.000
1641079967334791936,2022-01-01-23:32:47,10.1.1.4,157,-0.020,-0.020,-0.020,0.000,0.000,0.000
1641079967535953152,2022-01-01-23:32:47,10.1.1.4,157,-0.010,-0.010,-0.010,0.000,0.000,0.000
1641079967735228160,2022-01-01-23:32:47,10.1.1.4,156,0.000,0.000,0.000,0.000,0.000,0.000
1641079967935472128,2022-01-01-23:32:47,10.1.1.4,154,-0.010,-0.010,-0.010,0.000,0.000,0.000
1641079968135543040,2022-01-01-23:32:48,10.1.1.4,153,-0.020,-0.020,-0.020,0.000,0.000,0.000
1641079968335116032,2022-01-01-23:32:48,10.1.1.4,152,-0.030,-0.030,-0.030,0.000,0.000,0.000
1641079968535492864,2022-01-01-23:32:48,10.1.1.4,151,-0.040,-0.040,-0.040,0.000,0.000,0.000
1641079968737679104,2022-01-01-23:32:48,10.1.1.4,152,-0.050,-0.050,-0.050,0.000,0.000,0.000
1641079968955048192,2022-01-01-23:32:48,10.1.1.4,168,-0.060,-0.060,-0.060,0.000,0.000,0.000
1641079969155390976,2022-01-01-23:32:49,10.1.1.4,167,-0.070,-0.070,-0.070,0.000,0.000,0.000
1641079969355730944,2022-01-01-23:32:49,10.1.1.4,166,-0.080,-0.080,-0.080,0.000,0.000,0.000
1641079969555744000,2022-01-01-23:32:49,10.1.1.4,163,-0.090,-0.090,-0.090,0.000,0.000,0.000
1641079969754263040,2022-01-01-23:32:49,10.1.1.4,162,-0.100,-0.100,-0.100,0.000,0.000,0.000
1641079969955276032,2022-01-01-23:32:49,10.1.1.4,162,-0.110,-0.110,-0.110,0.000,0.000,0.000
1641079970154565120,2022-01-01-23:32:50,10.1.1.4,160,-0.120,-0.120,-0.120,0.000,0.000,0.000
1641079970355200000,2022-01-01-23:32:50,10.1.1.4,160,-0.130,-0.130,-0.130,0.000,0.000,0.000
1641079970554320128,2022-01-01-23:32:50,10.1.1.4,157,-0.140,-0.140,-0.140,0.000,0.000,0.000
1641079970754287872,2022-01-01-23:32:50,10.1.1.4,155,-0.150,-0.150,-0.150,0.000,0.000,0.000
1641079970955097856,2022-01-01-23:32:50,10.1.1.4,155,-0.160,-0.160,-0.160,0.000,0.000,0.000
1641079971155600128,2022-01-01-23:32:51,10.1.1.4,155,-0.170,-0.170,-0.170,0.000,0.000,0.000
1641079971355240192,2022-01-01-23:32:51,10.1.1.4,153,-0.180,-0.180,-0.180,0.000,0.000,0.000
1641079971554766848,2022-01-01-23:32:51,10.1.1.4,151,-0.190,-0.190,-0.190,0.000,0.000,0.000
1641079971753786112,2022-01-01-23:32:51,10.1.1.4,149,-0.200,-0.200,-0.200,0.000,0.000,0.000
1641079971956302848,2022-01-01-23:32:51,10.1.1.4,151,-0.210,-0.210,-0.210,0.000,0.000,0.000
1641079972154673152,2022-01-01-23:32:52,10.1.1.4,149,-0.220,-0.220,-0.220,0.000,0.000,0.000
1641079972374521088,2022-01-01-23:32:52,10.1.1.4,167,-0.230,-0.230,-0.230,0.000,0.000,0.000
1641079972577193984,2022-01-01-23:32:52,10.1.1.4,169,-0.240,-0.240,-0.240,0.000,0.000,0.000
1641079972773742080,2022-01-01-23:32:52,10.1.1.4,165,-0.250,-0.250,-0.250,0.000,0.000,0.000
1641079972973714176,2022-01-01-23:32:52,10.1.1.4,163,-0.260,-0.260,-0.260,0.000,0.000,0.000
1641079973173326848,2022-01-01-23:32:53,10.1.1.4,162,-0.270,-0.270,-0.270,0.000,0.000,0.000
1641079973374528000,2022-01-01-23:32:53,10.1.1.4,163,-0.280,-0.280,-0.280,0.000,0.000,0.000
1641079973573349120,2022-01-01-23:32:53,10.1.1.4,160,-0.290,-0.290,-0.290,0.000,0.000,0.000
1641079973775779072,2022-01-01-23:32:53,10.1.1.4,161,-0.300,-0.300,-0.300,0.000,0.000,0.000
1641079973973204992,2022-01-01-23:32:53,10.1.1.4,157,-0.310,-0.310,-0.310,0.000,0.000,0.000
1641079974173434880,2022-01-01-23:32:54,10.1.1.4,156,-0.320,-0.320,-0.320,0.000,0.000,0.000
1641079974373517056,2022-01-01-23:32:54,10.1.1.4,153,-0.330,-0.330,-0.330,0.000,0.000,0.000
1641079974572572928,2022-01-01-23:32:54,10.1.1.4,151,-0.340,-0.340,-0.340,0.000,0.000,0.000
1641079974772691968,2022-01-01-23:32:54,10.1.1.4,149,-0.350,-0.350,-0.350,0.000,0.000,0.000
1641079974972956928,2022-01-01-23:32:54,10.1.1.4,148,-0.360,-0.360,-0.360,0.000,0.000,0.000
1641079975172198144,2022-01-01-23:32:55,10.1.1.4,146,-0.370,-0.370,-0.370,0.000,0.000,0.000
1641079975392239104,2022-01-01-23:32:55,10.1.1.4,165,-0.380,-0.380,-0.380,0.000,0.000,0.000
1641079975591437056,2022-01-01-23:32:55,10.1.1.4,163,-0.390,-0.390,-0.390,0.000,0.000,0.000
1641079975792071168,2022-01-01-23:32:55,10.1.1.4,162,-0.400,-0.400,-0.400,0.000,0.000,0.000
1641079975993374208,2022-01-01-23:32:55,10.1.1.4,161,-0.410,-0.410,-0.410,0.000,0.000,0.000
1641079976191821056,2022-01-01-23:32:56,10.1.1.4,159,-0.420,-0.420,-0.420,0.000,0.000,0.000
1641079976391566080,2022-01-01-23:32:56,10.1.1.4,158,-0.430,-0.430,-0.430,0.000,0.000,0.000
1641079976590772992,2022-01-01-23:32:56,10.1.1.4,156,-0.440,-0.440,-0.440,0.000,0.000,0.000
1641079976791394048,2022-01-01-23:32:56,10.1.1.4,156,-0.450,-0.450,-0.450,0.000,0.000,0.000
1641079976991182080,2022-01-01-23:32:56,10.1.1.4,154,-0.460,-0.460,-0.460,0.000,0.000,0.000
1641079977190817024,2022-01-01-23:32:57,10.1.1.4,151,-0.470,-0.470,-0.470,0.000,0.000,0.000
1641079977391251968,2022-01-01-23:32:57,10.1.1.4,150,-0.480,-0.480,-0.480,0.000,0.000,0.000
1641079977589970176,2022-01-01-23:32:57,10.1.1.4,147,-0.490,-0.490,-0.490,0.000,0.000,0.000
1641079977790877184,2022-01-01-23:32:57,10.1.1.4,147,-0.480,-0.480,-0.480,0.000,0.000,0.000
1641079977990758912,2022-01-01-23:32:57,10.1.1.4,145,-0.470,-0.470,-0.470,0.000,0.000,0.000
1641079978210792192,2022-01-01-23:32:58,10.1.1.4,164,-0.460,-0.460,-0.460,0.000,0.000,0.000
1641079978411994880,2022-01-01-23:32:58,10.1.1.4,162,-0.450,-0.450,-0.450,0.000,0.000,0.000
1641079978609361920,2022-01-01-23:32:58,10.1.1.4,157,-0.440,-0.440,-0.440,0.000,0.000,0.000
1641079978812256000,2022-01-01-23:32:58,10.1.1.4,159,-0.430,-0.430,-0.430,0.000,0.000,0.000
1641079979010010880,2022-01-01-23:32:59,10.1.1.4,156,-0.420,-0.420,-0.420,0.000,0.000,0.000
1641079979209604096,2022-01-01-23:32:59,10.1.1.4,151,-0.410,-0.410,-0.410,0.000,0.000,0.000
1641079979409166080,2022-01-01-23:32:59,10.1.1.4,149,-0.400,-0.400,-0.400,0.000,0.000,0.000
1641079979608165120,2022-01-01-23:32:59,10.1.1.4,147,-0.390,-0.390,-0.390,0.000,0.000,0.000
1641079979808280832,2022-01-01-23:32:59,10.1.1.4,146,-0.380,-0.380,-0.380,0.000,0.000,0.000
1641079980008889856,2022-01-01-23:33:00,10.1.1.4,145,-0.370,-0.370,-0.370,0.000,0.000,0.000
1641079980209266944,2022-01-01-23:33:00,10.1.1.4,145,-0.360,-0.360,-0.360,0.000,0.000,0.000
1641079980407927040,2022-01-01-23:33:00,10.1.1.4,142,-0.350,-0.350,-0.350,0.000,0.000,0.000
1641079980627216128,2022-01-01-23:33:00,10.1.1.4,160,-0.340,-0.340,-0.340,0.000,0.000,0.000
1641079980827294976,2022-01-01-23:33:00,10.1.1.4,158,-0.330,-0.330,-0.330,0.000,0.000,0.000
1641079981027284992,2022-01-01-23:33:01,10.1.1.4,157,-0.320,-0.320,-0.320,0.000,0.000,0.000
1641079981226962176,2022-01-01-23:33:01,10.1.1.4,155,-0.310,-0.310,-0.310,0.000,0.000,0.000
1641079981426574080,2022-01-01-23:33:01,10.1.1.4,153,-0.300,-0.300,-0.300,0.000,0.000,0.000
1641079981626883072,2022-01-01-23:33:01,10.1.1.4,150,-0.290,-0.290,-0.290,0.000,0.000,0.000
1641079981826174976,2022-01-01-23:33:01,10.1.1.4,149,-0.280,-0.280,-0.280,0.000,0.000,0.000
1641079982026477056,2022-01-01-23:33:02,10.1.1.4,147,-0.270,-0.270,-0.270,0.000,0.000,0.000
1641079982225660928,2022-01-01-23:33:02,10.1.1.4,146,-0.260,-0.260,-0.260,0.000,0.000,0.000
1641079982427004160,2022-01-01-23:33:02,10.1.1.4,146,-0.250,-0.250,-0.250,0.000,0.000,0.000
1641079982634991872,2022-01-01-23:33:02,10.1.1.4,153,-0.240,-0.240,-0.240,0.000,0.000,0.000
1641079982826864128,2022-01-01-23:33:02,10.1.1.4,144,-0.230,-0.230,-0.230,0.000,0.000,0.000
1641079983025483008,2022-01-01-23:33:03,10.1.1.4,142,-0.220,-0.220,-0.220,0.000,0.000,0.000
1641079983225796864,2022-01-01-23:33:03,10.1.1.4,141,-0.210,-0.210,-0.210,0.000,0.000,0.000
1641079983445627904,2022-01-01-23:33:03,10.1.1.4,159,-0.200,-0.200,-0.200,0.000,0.000,0.000
1641079983645891840,2022-01-01-23:33:03,10.1.1.4,158,-0.190,-0.190,-0.190,0.000,0.000,0.000
1641079983847471104,2022-01-01-23:33:03,10.1.1.4,159,-0.180,-0.180,-0.180,0.000,0.000,0.000
1641079984044410880,2022-01-01-23:33:04,10.1.1.4,156,-0.170,-0.170,-0.170,0.000,0.000,0.000
1641079984246915072,2022-01-01-23:33:04,10.1.1.4,156,-0.160,-0.160,-0.160,0.000,0.000,0.000
1641079984445265152,2022-01-01-23:33:04,10.1.1.4,154,-0.150,-0.150,-0.150,0.000,0.000,0.000
1641079984645337088,2022-01-01-23:33:04,10.1.1.4,152,-0.140,-0.140,-0.140,0.000,0.000,0.000
1641079984843396864,2022-01-01-23:33:04,10.1.1.4,150,-0.130,-0.130,-0.130,0.000,0.000,0.000
1641079985044257024,2022-01-01-23:33:05,10.1.1.4,148,-0.120,-0.120,-0.120,0.000,0.000,0.000
1641079985244173056,2022-01-01-23:33:05,10.1.1.4,147,-0.110,-0.110,-0.110,0.000,0.000,0.000
1641079985443488000,2022-01-01-23:33:05,10.1.1.4,145,-0.100,-0.100,-0.100,0.000,0.000,0.000
1641079985642573056,2022-01-01-23:33:05,10.1.1.4,143,-0.090,-0.090,-0.090,0.000,0.000,0.000
1641079985842611200,2022-01-01-23:33:05,10.1.1.4,142,-0.080,-0.080,-0.080,0.000,0.000,0.000
1641079986042742016,2022-01-01-23:33:06,10.1.1.4,139,-0.070,-0.070,-0.070,0.000,0.000,0.000
1641079986244822016,2022-01-01-23:33:06,10.1.1.4,140,-0.060,-0.060,-0.060,0.000,0.000,0.000
1641079986442359040,2022-01-01-23:33:06,10.1.1.4,137,-0.050,-0.050,-0.050,0.000,0.000,0.000
1641079986661073920,2022-01-01-23:33:06,10.1.1.4,152,-0.040,-0.040,-0.040,0.000,0.000,0.000
1641079986860306944,2022-01-01-23:33:06,10.1.1.4,151,-0.030,-0.030,-0.030,0.000,0.000,0.000
1641079987061103104,2022-01-01-23:33:07,10.1.1.4,150,-0.020,-0.020,-0.020,0.000,0.000,0.000
1641079987261797888,2022-01-01-23:33:07,10.1.1.4,149,-0.010,-0.010,-0.010,0.000,0.000,0.000
1641079987463643136,2022-01-01-23:33:07,10.1.1.4,150,0.000,0.000,0.000,0.000,0.000,0.000
1641079987660058112,2022-01-01-23:33:07,10.1.1.4,145,-0.010,-0.010,-0.010,0.000,0.000,0.000
1641079987859673088,2022-01-01-23:33:07,10.1.1.4,144,-0.020,-0.020,-0.020,0.000,0.000,0.000
1641079988060011008,2022-01-01-23:33:08,10.1.1.4,144,-0.030,-0.030,-0.030,0.000,0.000,0.000
1641079988258536960,2022-01-01-23:33:08,10.1.1.4,141,-0.040,-0.040,-0.040,0.000,0.000,0.000
1641079988458380032,2022-01-01-23:33:08,10.1.1.4,140,-0.050,-0.050,-0.050,0.000,0.000,0.000
1641079988658188032,2022-01-01-23:33:08,10.1.1.4,139,-0.060,-0.060,-0.060,0.000,0.000,0.000
1641079988858031872,2022-01-01-23:33:08,10.1.1.4,136,-0.070,-0.070,-0.070,0.000,0.000,0.000
1641079989058254080,2022-01-01-23:33:09,10.1.1.4,135,-0.080,-0.080,-0.080,0.000,0.000,0.000
1641079989257828096,2022-01-01-23:33:09,10.1.1.4,132,-0.090,-0.090,-0.090,0.000,0.000,0.000
1641079989477273088,2022-01-01-23:33:09,10.1.1.4,151,-0.100,-0.100,-0.100,0.000,0.000,0.000
1641079989677553920,2022-01-01-23:33:09,10.1.1.4,149,-0.110,-0.110,-0.110,0.000,0.000,0.000
1641079989877275904,2022-01-01-23:33:09,10.1.1.4,149,-0.120,-0.120,-0.120,0.000,0.000,0.000
1641079990076494848,2022-01-01-23:33:10,10.1.1.4,147,-0.130,-0.130,-0.130,0.000,0.000,0.000
1641079990276744960,2022-01-01-23:33:10,10.1.1.4,147,-0.140,-0.140,-0.140,0.000,0.000,0.000
1641079990476655872,2022-01-01-23:33:10,10.1.1.4,146,-0.150,-0.150,-0.150,0.000,0.000,0.000
1641079990677550080,2022-01-01-23:33:10,10.1.1.4,146,-0.160,-0.160,-0.160,0.000,0.000,0.000
1641079990877326080,2022-01-01-23:33:10,10.1.1.4,144,-0.170,-0.170,-0.170,0.000,0.000,0.000
1641079991075668224,2022-01-01-23:33:11,10.1.1.4,141,-0.180,-0.180,-0.180,0.000,0.000,0.000
1641079991275788032,2022-01-01-23:33:11,10.1.1.4,139,-0.190,-0.190,-0.190,0.000,0.000,0.000
1641079991475720960,2022-01-01-23:33:11,10.1.1.4,138,-0.200,-0.200,-0.200,0.000,0.000,0.000
1641079991674347008,2022-01-01-23:33:11,10.1.1.4,135,-0.210,-0.210,-0.210,0.000,0.000,0.000
1641079991874114048,2022-01-01-23:33:11,10.1.1.4,133,-0.220,-0.220,-0.220,0.000,0.000,0.000
1641079992075130880,2022-01-01-23:33:12,10.1.1.4,132,-0.230,-0.230,-0.230,0.000,0.000,0.000
1641079992273860096,2022-01-01-23:33:12,10.1.1.4,129,-0.240,-0.240,-0.240,0.000,0.000,0.000
1641079992474635008,2022-01-01-23:33:12,10.1.1.4,129,-0.250,-0.250,-0.250,0.000,0.000,0.000
1641079992693543936,2022-01-01-23:33:12,10.1.1.4,147,-0.260,-0.260,-0.260,0.000,0.000,0.000
1641079992893271040,2022-01-01-23:33:12,10.1.1.4,145,-0.270,-0.270,-0.270,0.000,0.000,0.000
1641079993092749056,2022-01-01-23:33:13,10.1.1.4,145,-0.280,-0.280,-0.280,0.000,0.000,0.000
1641079993291561984,2022-01-01-23:33:13,10.1.1.4,142,-0.290,-0.290,-0.290,0.000,0.000,0.000
1641079993491774976,2022-01-01-23:33:13,10.1.1.4,142,-0.300,-0.300,-0.300,0.000,0.000,0.000
1641079993691886848,2022-01-01-23:33:13,10.1.1.4,141,-0.310,-0.310,-0.310,0.000,0.000,0.000
1641079993891073024,2022-01-01-23:33:13,10.1.1.4,139,-0.320,-0.320,-0.320,0.000,0.000,0.000
1641079994091444992,2022-01-01-23:33:14,10.1.1.4,139,-0.330,-0.330,-0.330,0.000,0.000,0.000
1641079994290999808,2022-01-01-23:33:14,10.1.1.4,137,-0.340,-0.340,-0.340,0.000,0.000,0.000
1641079994490644992,2022-01-01-23:33:14,10.1.1.4,136,-0.350,-0.350,-0.350,0.000,0.000,0.000
1641079994691219968,2022-01-01-23:33:14,10.1.1.4,134,-0.360,-0.360,-0.360,0.000,0.000,0.000
1641079994891707904,2022-01-01-23:33:14,10.1.1.4,134,-0.370,-0.370,-0.370,0.000,0.000,0.000
1641079995090054144,2022-01-01-23:33:15,10.1.1.4,131,-0.380,-0.380,-0.380,0.000,0.000,0.000
1641079995289402880,2022-01-01-23:33:15,10.1.1.4,130,-0.390,-0.390,-0.390,0.000,0.000,0.000
1641079995489857024,2022-01-01-23:33:15,10.1.1.4,129,-0.400,-0.400,-0.400,0.000,0.000,0.000
1641079995689022976,2022-01-01-23:33:15,10.1.1.4,126,-0.410,-0.410,-0.410,0.000,0.000,0.000
1641079995893935872,2022-01-01-23:33:15,10.1.1.4,130,-0.420,-0.420,-0.420,0.000,0.000,0.000
1641079996088943872,2022-01-01-23:33:16,10.1.1.4,125,-0.430,-0.430,-0.430,0.000,0.000,0.000
1641079996287745024,2022-01-01-23:33:16,10.1.1.4,123,-0.440,-0.440,-0.440,0.000,0.000,0.000
1641079996488003072,2022-01-01-23:33:16,10.1.1.4,122,-0.450,-0.450,-0.450,0.000,0.000,0.000
1641079996709035008,2022-01-01-23:33:16,10.1.1.4,141,-0.460,-0.460,-0.460,0.000,0.000,0.000
1641079996906571008,2022-01-01-23:33:16,10.1.1.4,137,-0.470,-0.470,-0.470,0.000,0.000,0.000
1641079997107866112,2022-01-01-23:33:17,10.1.1.4,138,-0.480,-0.480,-0.480,0.000,0.000,0.000
1641079997312433920,2022-01-01-23:33:17,10.1.1.4,141,-0.490,-0.490,-0.490,0.000,0.000,0.000
1641079997506308096,2022-01-01-23:33:17,10.1.1.4,134,-0.480,-0.480,-0.480,0.000,0.000,0.000
1641079997705417984,2022-01-01-23:33:17,10.1.1.4,131,-0.470,-0.470,-0.470,0.000,0.000,0.000
1641079997906304000,2022-01-01-23:33:17,10.1.1.4,131,-0.460,-0.460,-0.460,0.000,0.000,0.000
1641079998106231808,2022-01-01-23:33:18,10.1.1.4,130,-0.450,-0.450,-0.450,0.000,0.000,0.000
1641079998307373056,2022-01-01-23:33:18,10.1.1.4,130,-0.440,-0.440,-0.440,0.000,0.000,0.000
1641079998505458944,2022-01-01-23:33:18,10.1.1.4,127,-0.430,-0.430,-0.430,0.000,0.000,0.000
1641079998704695040,2022-01-01-23:33:18,10.1.1.4,124,-0.420,-0.420,-0.420,0.000,0.000,0.000
1641079998905431040,2022-01-01-23:33:18,10.1.1.4,124,-0.410,-0.410,-0.410,0.000,0.000,0.000
1641079999104212992,2022-01-01-23:33:19,10.1.1.4,122,-0.400,-0.400,-0.400,0.000,0.000,0.000
1641079999303877120,2022-01-01-23:33:19,10.1.1.4,120,-0.390,-0.390,-0.390,0.000,0.000,0.000
1641079999506141952,2022-01-01-23:33:19,10.1.1.4,121,-0.380,-0.380,-0.380,0.000,0.000,0.000
1641079999705646080,2022-01-01-23:33:19,10.1.1.4,119,-0.370,-0.370,-0.370,0.000,0.000,0.000
1641079999923057920,2022-01-01-23:33:19,10.1.1.4,135,-0.360,-0.360,-0.360,0.000,0.000,0.000
1641080000122353152,2022-01-01-23:33:20,10.1.1.4,133,-0.350,-0.350,-0.350,0.000,0.000,0.000
1641080000322323968,2022-01-01-23:33:20,10.1.1.4,131,-0.340,-0.340,-0.340,0.000,0.000,0.000
1641080000523158016,2022-01-01-23:33:20,10.1.1.4,131,-0.330,-0.330,-0.330,0.000,0.000,0.000
1641080000721922048,2022-01-01-23:33:20,10.1.1.4,129,-0.320,-0.320,-0.320,0.000,0.000,0.000
1641080000921052928,2022-01-01-23:33:20,10.1.1.4,127,-0.310,-0.310,-0.310,0.000,0.000,0.000
1641080001121223936,2022-01-01-23:33:21,10.1.1.4,126,-0.300,-0.300,-0.300,0.000,0.000,0.000
1641080001320320000,2022-01-01-23:33:21,10.1.1.4,124,-0.290,-0.290,-0.290,0.000,0.000,0.000
1641080001519990016,2022-01-01-23:33:21,10.1.1.4,123,-0.280,-0.280,-0.280,0.000,0.000,0.000
1641080001720029952,2022-01-01-23:33:21,10.1.1.4,122,-0.270,-0.270,-0.270,0.000,0.000,0.000
1641080001920295936,2022-01-01-23:33:21,10.1.1.4,118,-0.260,-0.260,-0.260,0.000,0.000,0.000
1641080002119890944,2022-01-01-23:33:22,10.1.1.4,117,-0.250,-0.250,-0.250,0.000,0.000,0.000
1641080002318738944,2022-01-01-23:33:22,10.1.1.4,115,-0.240,-0.240,-0.240,0.000,0.000,0.000
1641080002520312064,2022-01-01-23:33:22,10.1.1.4,114,-0.230,-0.230,-0.230,0.000,0.000,0.000
1641080002738561024,2022-01-01-23:33:22,10.1.1.4,131,-0.220,-0.220,-0.220,0.000,0.000,0.000
1641080002940570112,2022-01-01-23:33:22,10.1.1.4,132,-0.210,-0.210,-0.210,0.000,0.000,0.000
1641080003137761024,2022-01-01-23:33:23,10.1.1.4,128,-0.200,-0.200,-0.200,0.000,0.000,0.000
1641080003338216960,2022-01-01-23:33:23,10.1.1.4,126,-0.190,-0.190,-0.190,0.000,0.000,0.000
1641080003536941056,2022-01-01-23:33:23,10.1.1.4,122,-0.180,-0.180,-0.180,0.000,0.000,0.000
1641080003736990976,2022-01-01-23:33:23,10.1.1.4,119,-0.170,-0.170,-0.170,0.000,0.000,0.000
1641080003937103104,2022-01-01-23:33:23,10.1.1.4,117,-0.160,-0.160,-0.160,0.000,0.000,0.000
1641080004136163072,2022-01-01-23:33:24,10.1.1.4,116,-0.150,-0.150,-0.150,0.000,0.000,0.000
1641080004335959040,2022-01-01-23:33:24,10.1.1.4,115,-0.140,-0.140,-0.140,0.000,0.000,0.000
1641080004535316992,2022-01-01-23:33:24,10.1.1.4,113,-0.130,-0.130,-0.130,0.000,0.000,0.000
1641080004735265024,2022-01-01-23:33:24,10.1.1.4,111,-0.120,-0.120,-0.120,0.000,0.000,0.000
1641080004937246976,2022-01-01-23:33:24,10.1.1.4,112,-0.110,-0.110,-0.110,0.000,0.000,0.000
1641080005154385152,2022-01-01-23:33:25,10.1.1.4,128,-0.100,-0.100,-0.100,0.000,0.000,0.000
1641080005355431936,2022-01-01-23:33:25,10.1.1.4,127,-0.090,-0.090,-0.090,0.000,0.000,0.000
1641080005554014976,2022-01-01-23:33:25,10.1.1.4,125,-0.080,-0.080,-0.080,0.000,0.000,0.000
1641080005753302016,2022-01-01-23:33:25,10.1.1.4,123,-0.070,-0.070,-0.070,0.000,0.000,0.000
1641080005954601984,2022-01-01-23:33:25,10.1.1.4,123,-0.060,-0.060,-0.060,0.000,0.000,0.000
1641080006154423040,2022-01-01-23:33:26,10.1.1.4,122,-0.050,-0.050,-0.050,0.000,0.000,0.000
1641080006353025792,2022-01-01-23:33:26,10.1.1.4,119,-0.040,-0.040,-0.040,0.000,0.000,0.000
1641080006553337088,2022-01-01-23:33:26,10.1.1.4,118,-0.030,-0.030,-0.030,0.000,0.000,0.000
1641080006752062976,2022-01-01-23:33:26,10.1.1.4,116,-0.020,-0.020,-0.020,0.000,0.000,0.000
1641080006951361792,2022-01-01-23:33:26,10.1.1.4,114,-0.010,-0.010,-0.010,0.000,0.000,0.000
1641080007151369216,2022-01-01-23:33:27,10.1.1.4,112,0.000,0.000,0.000,0.000,0.000,0.000
1641080007350647040,2022-01-01-23:33:27,10.1.1.4,109,-0.010,-0.010,-0.010,0.000,0.000,0.000
1641080007550990080,2022-01-01-23:33:27,10.1.1.4,108,-0.020,-0.020,-0.020,0.000,0.000,0.000
1641080007751183872,2022-01-01-23:33:27,10.1.1.4,107,-0.030,-0.030,-0.030,0.000,0.000,0.000
1641080007950704128,2022-01-01-23:33:27,10.1.1.4,106,-0.040,-0.040,-0.040,0.000,0.000,0.000
1641080008170579968,2022-01-01-23:33:28,10.1.1.4,124,-0.050,-0.050,-0.050,0.000,0.000,0.000
1641080008369255168,2022-01-01-23:33:28,10.1.1.4,118,-0.060,-0.060,-0.060,0.000,0.000,0.000
1641080008568869120,2022-01-01-23:33:28,10.1.1.4,116,-0.070,-0.070,-0.070,0.000,0.000,0.000
1641080008771059968,2022-01-01-23:33:28,10.1.1.4,116,-0.080,-0.080,-0.080,0.000,0.000,0.000
1641080008971264000,2022-01-01-23:33:28,10.1.1.4,115,-0.090,-0.090,-0.090,0.000,0.000,0.000
1641080009174955008,2022-01-01-23:33:29,10.1.1.4,115,-0.100,-0.100,-0.100,0.000,0.000,0.000
1641080009367492864,2022-01-01-23:33:29,10.1.1.4,108,-0.110,-0.110,-0.110,0.000,0.000,0.000
1641080009566660864,2022-01-01-23:33:29,10.1.1.4,105,-0.120,-0.120,-0.120,0.000,0.000,0.000
1641080009767004928,2022-01-01-23:33:29,10.1.1.4,104,-0.130,-0.130,-0.130,0.000,0.000,0.000
1641080009966820864,2022-01-01-23:33:29,10.1.1.4,103,-0.140,-0.140,-0.140,0.000,0.000,0.000
1641080010169376000,2022-01-01-23:33:30,10.1.1.4,102,-0.150,-0.150,-0.150,0.000,0.000,0.000
1641080010390717952,2022-01-01-23:33:30,10.1.1.4,123,-0.160,-0.160,-0.160,0.000,0.000,0.000
1641080010589616896,2022-01-01-23:33:30,10.1.1.4,121,-0.170,-0.170,-0.170,0.000,0.000,0.000
1641080010790630144,2022-01-01-23:33:30,10.1.1.4,120,-0.180,-0.180,-0.180,0.000,0.000,0.000
1641080010992016128,2022-01-01-23:33:30,10.1.1.4,120,-0.190,-0.190,-0.190,0.000,0.000,0.000
1641080011195518976,2022-01-01-23:33:31,10.1.1.4,119,-0.200,-0.200,-0.200,0.000,0.000,0.000
1641080011395586048,2022-01-01-23:33:31,10.1.1.4,119,-0.210,-0.210,-0.210,0.000,0.000,0.000
1641080011594724864,2022-01-01-23:33:31,10.1.1.4,116,-0.220,-0.220,-0.220,0.000,0.000,0.000
1641080011795678976,2022-01-01-23:33:31,10.1.1.4,117,-0.230,-0.230,-0.230,0.000,0.000,0.000
1641080011997294848,2022-01-01-23:33:31,10.1.1.4,117,-0.240,-0.240,-0.240,0.000,0.000,0.000
1641080012198564096,2022-01-01-23:33:32,10.1.1.4,118,-0.250,-0.250,-0.250,0.000,0.000,0.000
1641080012399347968,2022-01-01-23:33:32,10.1.1.4,117,-0.260,-0.260,-0.260,0.000,0.000,0.000
1641080012599781120,2022-01-01-23:33:32,10.1.1.4,117,-0.270,-0.270,-0.270,0.000,0.000,0.000
1641080012800865024,2022-01-01-23:33:32,10.1.1.4,116,-0.280,-0.280,-0.280,0.000,0.000,0.000
1641080013002718976,2022-01-01-23:33:33,10.1.1.4,117,-0.290,-0.290,-0.290,0.000,0.000,0.000
1641080013222904832,2022-01-01-23:33:33,10.1.1.4,136,-0.300,-0.300,-0.300,0.000,0.000,0.000
1641080013424297216,2022-01-01-23:33:33,10.1.1.4,135,-0.310,-0.310,-0.310,0.000,0.000,0.000
1641080013624448000,2022-01-01-23:33:33,10.1.1.4,134,-0.320,-0.320,-0.320,0.000,0.000,0.000
1641080013827508992,2022-01-01-23:33:33,10.1.1.4,136,-0.330,-0.330,-0.330,0.000,0.000,0.000
1641080014027026944,2022-01-01-23:33:34,10.1.1.4,133,-0.340,-0.340,-0.340,0.000,0.000,0.000
1641080014229483008,2022-01-01-23:33:34,10.1.1.4,136,-0.350,-0.350,-0.350,0.000,0.000,0.000
1641080014429285888,2022-01-01-23:33:34,10.1.1.4,134,-0.360,-0.360,-0.360,0.000,0.000,0.000
1641080014628925952,2022-01-01-23:33:34,10.1.1.4,133,-0.370,-0.370,-0.370,0.000,0.000,0.000
1641080014828931072,2022-01-01-23:33:34,10.1.1.4,132,-0.380,-0.380,-0.380,0.000,0.000,0.000
1641080015031824128,2022-01-01-23:33:35,10.1.1.4,133,-0.390,-0.390,-0.390,0.000,0.000,0.000
1641080015231779072,2022-01-01-23:33:35,10.1.1.4,132,-0.400,-0.400,-0.400,0.000,0.000,0.000
1641080015432545024,2022-01-01-23:33:35,10.1.1.4,132,-0.410,-0.410,-0.410,0.000,0.000,0.000
1641080015633363968,2022-01-01-23:33:35,10.1.1.4,131,-0.420,-0.420,-0.420,0.000,0.000,0.000
1641080015834206976,2022-01-01-23:33:35,10.1.1.4,132,-0.430,-0.430,-0.430,0.000,0.000,0.000
1641080016034374912,2022-01-01-23:33:36,10.1.1.4,131,-0.440,-0.440,-0.440,0.000,0.000,0.000
1641080016235401984,2022-01-01-23:33:36,10.1.1.4,130,-0.450,-0.450,-0.450,0.000,0.000,0.000
1641080016435753216,2022-01-01-23:33:36,10.1.1.4,130,-0.460,-0.460,-0.460,0.000,0.000,0.000
1641080016655906048,2022-01-01-23:33:36,10.1.1.4,149,-0.470,-0.470,-0.470,0.000,0.000,0.000
1641080016856673024,2022-01-01-23:33:36,10.1.1.4,149,-0.480,-0.480,-0.480,0.000,0.000,0.000
1641080017056958976,2022-01-01-23:33:37,10.1.1.4,149,-0.490,-0.490,-0.490,0.000,0.000,0.000
1641080017257585152,2022-01-01-23:33:37,10.1.1.4,148,-0.480,-0.480,-0.480,0.000,0.000,0.000
1641080017458374912,2022-01-01-23:33:37,10.1.1.4,148,-0.470,-0.470,-0.470,0.000,0.000,0.000
1641080017658981120,2022-01-01-23:33:37,10.1.1.4,148,-0.460,-0.460,-0.460,0.000,0.000,0.000
1641080017859265024,2022-01-01-23:33:37,10.1.1.4,147,-0.450,-0.450,-0.450,0.000,0.000,0.000
1641080018060930048,2022-01-01-23:33:38,10.1.1.4,147,-0.440,-0.440,-0.440,0.000,0.000,0.000
1641080018261220864,2022-01-01-23:33:38,10.1.1.4,147,-0.430,-0.430,-0.430,0.000,0.000,0.000
1641080018462019072,2022-01-01-23:33:38,10.1.1.4,146,-0.420,-0.420,-0.420,0.000,0.000,0.000
1641080018660825856,2022-01-01-23:33:38,10.1.1.4,145,-0.410,-0.410,-0.410,0.000,0.000,0.000
1641080018861885952,2022-01-01-23:33:38,10.1.1.4,146,-0.400,-0.400,-0.400,0.000,0.000,0.000
1641080019062588928,2022-01-01-23:33:39,10.1.1.4,145,-0.390,-0.390,-0.390,0.000,0.000,0.000
1641080019263476992,2022-01-01-23:33:39,10.1.1.4,142,-0.380,-0.380,-0.380,0.000,0.000,0.000
1641080019465810944,2022-01-01-23:33:39,10.1.1.4,142,-0.370,-0.370,-0.370,0.000,0.000,0.000
1641080019525168896,2022-01-01-23:33:39,10.1.1.4,-1,-0.370,-0.370,-0.370,0.000,0.000,0.000
1641080019864792064,2022-01-01-23:33:39,10.1.1.4,139,-0.350,-0.350,-0.350,0.000,0.000,0.000
1641080020086518016,2022-01-01-23:33:40,10.1.1.4,160,-0.340,-0.340,-0.340,0.000,0.000,0.000
1641080020288280064,2022-01-01-23:33:40,10.1.1.4,160,-0.330,-0.330,-0.330,0.000,0.000,0.000
1641080020486601216,2022-01-01-23:33:40,10.1.1.4,157,-0.320,-0.320,-0.320,0.000,0.000,0.000
1641080020687021056,2022-01-01-23:33:40,10.1.1.4,156,-0.310,-0.310,-0.310,0.000,0.000,0.000
1641080020888624896,2022-01-01-23:33:40,10.1.1.4,155,-0.300,-0.300,-0.300,0.000,0.000,0.000
1641080021088176128,2022-01-01-23:33:41,10.1.1.4,153,-0.290,-0.290,-0.290,0.000,0.000,0.000
1641080021287621888,2022-01-01-23:33:41,10.1.1.4,151,-0.280,-0.280,-0.280,0.000,0.000,0.000
1641080021489412096,2022-01-01-23:33:41,10.1.1.4,151,-0.270,-0.270,-0.270,0.000,0.000,0.000
1641080021687820032,2022-01-01-23:33:41,10.1.1.4,148,-0.260,-0.260,-0.260,0.000,0.000,0.000
1641080021888160000,2022-01-01-23:33:41,10.1.1.4,148,-0.250,-0.250,-0.250,0.000,0.000,0.000
1641080022088360960,2022-01-01-23:33:42,10.1.1.4,147,-0.240,-0.240,-0.240,0.000,0.000,0.000
1641080022289078016,2022-01-01-23:33:42,10.1.1.4,143,-0.230,-0.230,-0.230,0.000,0.000,0.000
1641080022508498944,2022-01-01-23:33:42,10.1.1.4,161,-0.220,-0.220,-0.220,0.000,0.000,0.000
1641080022709777152,2022-01-01-23:33:42,10.1.1.4,160,-0.210,-0.210,-0.210,0.000,0.000,0.000
1641080022910900224,2022-01-01-23:33:42,10.1.1.4,161,-0.200,-0.200,-0.200,0.000,0.000,0.000
1641080023109606144,2022-01-01-23:33:43,10.1.1.4,158,-0.190,-0.190,-0.190,0.000,0.000,0.000
1641080023310066944,2022-01-01-23:33:43,10.1.1.4,157,-0.180,-0.180,-0.180,0.000,0.000,0.000
1641080023511382016,2022-01-01-23:33:43,10.1.1.4,157,-0.170,-0.170,-0.170,0.000,0.000,0.000
1641080023711416064,2022-01-01-23:33:43,10.1.1.4,156,-0.160,-0.160,-0.160,0.000,0.000,0.000
1641080023911442944,2022-01-01-23:33:43,10.1.1.4,155,-0.150,-0.150,-0.150,0.000,0.000,0.000
1641080024112107008,2022-01-01-23:33:44,10.1.1.4,153,-0.140,-0.140,-0.140,0.000,0.000,0.000
1641080024312110848,2022-01-01-23:33:44,10.1.1.4,151,-0.130,-0.130,-0.130,0.000,0.000,0.000
1641080024514637824,2022-01-01-23:33:44,10.1.1.4,150,-0.120,-0.120,-0.120,0.000,0.000,0.000
1641080024712218880,2022-01-01-23:33:44,10.1.1.4,149,-0.110,-0.110,-0.110,0.000,0.000,0.000
1641080024912389120,2022-01-01-23:33:44,10.1.1.4,148,-0.100,-0.100,-0.100,0.000,0.000,0.000
1641080025112284928,2022-01-01-23:33:45,10.1.1.4,146,-0.090,-0.090,-0.090,0.000,0.000,0.000
1641080025334098944,2022-01-01-23:33:45,10.1.1.4,166,-0.080,-0.080,-0.080,0.000,0.000,0.000
1641080025534380800,2022-01-01-23:33:45,10.1.1.4,165,-0.070,-0.070,-0.070,0.000,0.000,0.000
1641080025733388800,2022-01-01-23:33:45,10.1.1.4,164,-0.060,-0.060,-0.060,0.000,0.000,0.000
1641080025934409984,2022-01-01-23:33:45,10.1.1.4,163,-0.050,-0.050,-0.050,0.000,0.000,0.000
1641080026133294080,2022-01-01-23:33:46,10.1.1.4,161,-0.040,-0.040,-0.040,0.000,0.000,0.000
1641080026338843136,2022-01-01-23:33:46,10.1.1.4,165,-0.030,-0.030,-0.030,0.000,0.000,0.000
1641080026534929920,2022-01-01-23:33:46,10.1.1.4,160,-0.020,-0.020,-0.020,0.000,0.000,0.000
1641080026734309888,2022-01-01-23:33:46,10.1.1.4,159,-0.010,-0.010,-0.010,0.000,0.000,0.000
1641080026935585024,2022-01-01-23:33:46,10.1.1.4,159,0.000,0.000,0.000,0.000,0.000,0.000
1641080027135942912,2022-01-01-23:33:47,10.1.1.4,158,-0.010,-0.010,-0.010,0.000,0.000,0.000
1641080027334717952,2022-01-01-23:33:47,10.1.1.4,156,-0.020,-0.020,-0.020,0.000,0.000,0.000
1641080027535183872,2022-01-01-23:33:47,10.1.1.4,155,-0.030,-0.030,-0.030,0.000,0.000,0.000
1641080027735068160,2022-01-01-23:33:47,10.1.1.4,154,-0.040,-0.040,-0.040,0.000,0.000,0.000
1641080027934982144,2022-01-01-23:33:47,10.1.1.4,153,-0.050,-0.050,-0.050,0.000,0.000,0.000
1641080028135479808,2022-01-01-23:33:48,10.1.1.4,153,-0.060,-0.060,-0.060,0.000,0.000,0.000
1641080028335595008,2022-01-01-23:33:48,10.1.1.4,152,-0.070,-0.070,-0.070,0.000,0.000,0.000
1641080028536626176,2022-01-01-23:33:48,10.1.1.4,152,-0.080,-0.080,-0.080,0.000,0.000,0.000
1641080028735462912,2022-01-01-23:33:48,10.1.1.4,149,-0.090,-0.090,-0.090,0.000,0.000,0.000
1641080028955749888,2022-01-01-23:33:48,10.1.1.4,169,-0.100,-0.100,-0.100,0.000,0.000,0.000
1641080029155496960,2022-01-01-23:33:49,10.1.1.4,168,-0.110,-0.110,-0.110,0.000,0.000,0.000
1641080029355483136,2022-01-01-23:33:49,10.1.1.4,167,-0.120,-0.120,-0.120,0.000,0.000,0.000
1641080029555393024,2022-01-01-23:33:49,10.1.1.4,166,-0.130,-0.130,-0.130,0.000,0.000,0.000
1641080029755791872,2022-01-01-23:33:49,10.1.1.4,165,-0.140,-0.140,-0.140,0.000,0.000,0.000
1641080029956696064,2022-01-01-23:33:49,10.1.1.4,165,-0.150,-0.150,-0.150,0.000,0.000,0.000
1641080030156402176,2022-01-01-23:33:50,10.1.1.4,164,-0.160,-0.160,-0.160,0.000,0.000,0.000
1641080030355820032,2022-01-01-23:33:50,10.1.1.4,163,-0.170,-0.170,-0.170,0.000,0.000,0.000
1641080030555699968,2022-01-01-23:33:50,10.1.1.4,162,-0.180,-0.180,-0.180,0.000,0.000,0.000
1641080030756115968,2022-01-01-23:33:50,10.1.1.4,161,-0.190,-0.190,-0.190,0.000,0.000,0.000
1641080030957369088,2022-01-01-23:33:50,10.1.1.4,161,-0.200,-0.200,-0.200,0.000,0.000,0.000
1641080031157327872,2022-01-01-23:33:51,10.1.1.4,159,-0.210,-0.210,-0.210,0.000,0.000,0.000
1641080031356336128,2022-01-01-23:33:51,10.1.1.4,158,-0.220,-0.220,-0.220,0.000,0.000,0.000
1641080031557799936,2022-01-01-23:33:51,10.1.1.4,158,-0.230,-0.230,-0.230,0.000,0.000,0.000
1641080031756781056,2022-01-01-23:33:51,10.1.1.4,156,-0.240,-0.240,-0.240,0.000,0.000,0.000
1641080031957068800,2022-01-01-23:33:51,10.1.1.4,156,-0.250,-0.250,-0.250,0.000,0.000,0.000
1641080032157555200,2022-01-01-23:33:52,10.1.1.4,154,-0.260,-0.260,-0.260,0.000,0.000,0.000
1641080032377125120,2022-01-01-23:33:52,10.1.1.4,170,-0.270,-0.270,-0.270,0.000,0.000,0.000
1641080032577006080,2022-01-01-23:33:52,10.1.1.4,168,-0.280,-0.280,-0.280,0.000,0.000,0.000
1641080032778594048,2022-01-01-23:33:52,10.1.1.4,167,-0.290,-0.290,-0.290,0.000,0.000,0.000
1641080032979792128,2022-01-01-23:33:52,10.1.1.4,167,-0.300,-0.300,-0.300,0.000,0.000,0.000
1641080033177053952,2022-01-01-23:33:53,10.1.1.4,163,-0.310,-0.310,-0.310,0.000,0.000,0.000
1641080033377240064,2022-01-01-23:33:53,10.1.1.4,162,-0.320,-0.320,-0.320,0.000,0.000,0.000
1641080033576775168,2022-01-01-23:33:53,10.1.1.4,161,-0.330,-0.330,-0.330,0.000,0.000,0.000
1641080033776855040,2022-01-01-23:33:53,10.1.1.4,159,-0.340,-0.340,-0.340,0.000,0.000,0.000
1641080033977703936,2022-01-01-23:33:53,10.1.1.4,159,-0.350,-0.350,-0.350,0.000,0.000,0.000
1641080034178522112,2022-01-01-23:33:54,10.1.1.4,158,-0.360,-0.360,-0.360,0.000,0.000,0.000
1641080034376940032,2022-01-01-23:33:54,10.1.1.4,153,-0.370,-0.370,-0.370,0.000,0.000,0.000
1641080034578948096,2022-01-01-23:33:54,10.1.1.4,154,-0.380,-0.380,-0.380,0.000,0.000,0.000
1641080034776638976,2022-01-01-23:33:54,10.1.1.4,151,-0.390,-0.390,-0.390,0.000,0.000,0.000
1641080034997111040,2022-01-01-23:33:54,10.1.1.4,170,-0.400,-0.400,-0.400,0.000,0.000,0.000
1641080035197155840,2022-01-01-23:33:55,10.1.1.4,169,-0.410,-0.410,-0.410,0.000,0.000,0.000
1641080035397221120,2022-01-01-23:33:55,10.1.1.4,168,-0.420,-0.420,-0.420,0.000,0.000,0.000
1641080035596820992,2022-01-01-23:33:55,10.1.1.4,167,-0.430,-0.430,-0.430,0.000,0.000,0.000
1641080035796721920,2022-01-01-23:33:55,10.1.1.4,166,-0.440,-0.440,-0.440,0.000,0.000,0.000
1641080035997329920,2022-01-01-23:33:55,10.1.1.4,166,-0.450,-0.450,-0.450,0.000,0.000,0.000
1641080036195905024,2022-01-01-23:33:56,10.1.1.4,164,-0.460,-0.460,-0.460,0.000,0.000,0.000
1641080036396269056,2022-01-01-23:33:56,10.1.1.4,164,-0.470,-0.470,-0.470,0.000,0.000,0.000
1641080036596396800,2022-01-01-23:33:56,10.1.1.4,162,-0.480,-0.480,-0.480,0.000,0.000,0.000
1641080036796030976,2022-01-01-23:33:56,10.1.1.4,161,-0.490,-0.490,-0.490,0.000,0.000,0.000
1641080036995532032,2022-01-01-23:33:56,10.1.1.4,159,-0.480,-0.480,-0.480,0.000,0.000,0.000
1641080037195992832,2022-01-01-23:33:57,10.1.1.4,158,-0.470,-0.470,-0.470,0.000,0.000,0.000
1641080037395962112,2022-01-01-23:33:57,10.1.1.4,157,-0.460,-0.460,-0.460,0.000,0.000,0.000
1641080037595500032,2022-01-01-23:33:57,10.1.1.4,156,-0.450,-0.450,-0.450,0.000,0.000,0.000
1641080037794790912,2022-01-01-23:33:57,10.1.1.4,154,-0.440,-0.440,-0.440,0.000,0.000,0.000
1641080037995091968,2022-01-01-23:33:57,10.1.1.4,154,-0.430,-0.430,-0.430,0.000,0.000,0.000
1641080038196028928,2022-01-01-23:33:58,10.1.1.4,153,-0.420,-0.420,-0.420,0.000,0.000,0.000
1641080038395618816,2022-01-01-23:33:58,10.1.1.4,151,-0.410,-0.410,-0.410,0.000,0.000,0.000
1641080038595505920,2022-01-01-23:33:58,10.1.1.4,151,-0.400,-0.400,-0.400,0.000,0.000,0.000
1641080038796776960,2022-01-01-23:33:58,10.1.1.4,151,-0.390,-0.390,-0.390,0.000,0.000,0.000
1641080039016623872,2022-01-01-23:33:59,10.1.1.4,168,-0.380,-0.380,-0.380,0.000,0.000,0.000
1641080039215859968,2022-01-01-23:33:59,10.1.1.4,167,-0.370,-0.370,-0.370,0.000,0.000,0.000
1641080039415056896,2022-01-01-23:33:59,10.1.1.4,165,-0.360,-0.360,-0.360,0.000,0.000,0.000
1641080039614913024,2022-01-01-23:33:59,10.1.1.4,163,-0.350,-0.350,-0.350,0.000,0.000,0.000
1641080039815128064,2022-01-01-23:33:59,10.1.1.4,162,-0.340,-0.340,-0.340,0.000,0.000,0.000
1641080040014501120,2022-01-01-23:34:00,10.1.1.4,161,-0.330,-0.330,-0.330,0.000,0.000,0.000
1641080040215002112,2022-01-01-23:34:00,10.1.1.4,160,-0.320,-0.320,-0.320,0.000,0.000,0.000
1641080040414125056,2022-01-01-23:34:00,10.1.1.4,158,-0.310,-0.310,-0.310,0.000,0.000,0.000
1641080040614522880,2022-01-01-23:34:00,10.1.1.4,158,-0.300,-0.300,-0.300,0.000,0.000,0.000
1641080040814838016,2022-01-01-23:34:00,10.1.1.4,157,-0.290,-0.290,-0.290,0.000,0.000,0.000
1641080041014000896,2022-01-01-23:34:01,10.1.1.4,156,-0.280,-0.280,-0.280,0.000,0.000,0.000
1641080041214260224,2022-01-01-23:34:01,10.1.1.4,154,-0.270,-0.270,-0.270,0.000,0.000,0.000
1641080041413938944,2022-01-01-23:34:01,10.1.1.4,149,-0.260,-0.260,-0.260,0.000,0.000,0.000
1641080041613564928,2022-01-01-23:34:01,10.1.1.4,147,-0.250,-0.250,-0.250,0.000,0.000,0.000
1641080041835286016,2022-01-01-23:34:01,10.1.1.4,168,-0.240,-0.240,-0.240,0.000,0.000,0.000
1641080042033646080,2022-01-01-23:34:02,10.1.1.4,165,-0.230,-0.230,-0.230,0.000,0.000,0.000
1641080042232768000,2022-01-01-23:34:02,10.1.1.4,163,-0.220,-0.220,-0.220,0.000,0.000,0.000
1641080042432672000,2022-01-01-23:34:02,10.1.1.4,162,-0.210,-0.210,-0.210,0.000,0.000,0.000
1641080042632563968,2022-01-01-23:34:02,10.1.1.4,161,-0.200,-0.200,-0.200,0.000,0.000,0.000
1641080042834041088,2022-01-01-23:34:02,10.1.1.4,161,-0.190,-0.190,-0.190,0.000,0.000,0.000
1641080043031680000,2022-01-01-23:34:03,10.1.1.4,159,-0.180,-0.180,-0.180,0.000,0.000,0.000
1641080043232340224,2022-01-01-23:34:03,10.1.1.4,158,-0.170,-0.170,-0.170,0.000,0.000,0.000
1641080043431889920,2022-01-01-23:34:03,10.1.1.4,157,-0.160,-0.160,-0.160,0.000,0.000,0.000
1641080043631339008,2022-01-01-23:34:03,10.1.1.4,156,-0.150,-0.150,-0.150,0.000,0.000,0.000
1641080043831030016,2022-01-01-23:34:03,10.1.1.4,154,-0.140,-0.140,-0.140,0.000,0.000,0.000
1641080044031617024,2022-01-01-23:34:04,10.1.1.4,152,-0.130,-0.130,-0.130,0.000,0.000,0.000
1641080044230433024,2022-01-01-23:34:04,10.1.1.4,150,-0.120,-0.120,-0.120,0.000,0.000,0.000
1641080044430330880,2022-01-01-23:34:04,10.1.1.4,149,-0.110,-0.110,-0.110,0.000,0.000,0.000
1641080044632246016,2022-01-01-23:34:04,10.1.1.4,148,-0.100,-0.100,-0.100,0.000,0.000,0.000
1641080044830849792,2022-01-01-23:34:04,10.1.1.4,148,-0.090,-0.090,-0.090,0.000,0.000,0.000
1641080045030769152,2022-01-01-23:34:05,10.1.1.4,147,-0.080,-0.080,-0.080,0.000,0.000,0.000
1641080045230842112,2022-01-01-23:34:05,10.1.1.4,146,-0.070,-0.070,-0.070,0.000,0.000,0.000
1641080045429968128,2022-01-01-23:34:05,10.1.1.4,144,-0.060,-0.060,-0.060,0.000,0.000,0.000
1641080045650991872,2022-01-01-23:34:05,10.1.1.4,164,-0.050,-0.050,-0.050,0.000,0.000,0.000
1641080045850588160,2022-01-01-23:34:05,10.1.1.4,163,-0.040,-0.040,-0.040,0.000,0.000,0.000
