FedericoMungari/DigitalTwin_service/Output/Output_script/script_ROSAPI_output_robots4_freq0_2.txt.csv
timestamp,node,latency,joint_1,joint_2,joint_3,joint_4,joint_5,joint_6
1640060650875502080,"2021-12-21,04:24:10",10.1.1.3,4433,0.000,0.000,0.000,0.000,0.000,0.000
1640060653169886976,"2021-12-21,04:24:13",10.1.1.3,304,-0.010,-0.010,-0.010,0.000,0.000,0.000
1640060653193954048,"2021-12-21,04:24:13",10.1.1.3,0.32863903045654297,-0.010,-0.010,-0.010,0.000,0.000,0.000
1640060653489731072,"2021-12-21,04:24:13",10.1.1.3,294,-0.020,-0.020,-0.020,0.000,0.000,0.000
1640060653512468992,"2021-12-21,04:24:13",10.1.1.3,0.3170750141143799,-0.020,-0.020,-0.020,0.000,0.000,0.000
1640060653808386048,"2021-12-21,04:24:13",10.1.1.3,292,-0.030,-0.030,-0.030,0.000,0.000,0.000
1640060653837378048,"2021-12-21,04:24:13",10.1.1.3,0.32136988639831543,-0.030,-0.030,-0.030,0.000,0.000,0.000
1640060654148109824,"2021-12-21,04:24:14",10.1.1.3,308,-0.040,-0.040,-0.040,0.000,0.000,0.000
1640060654167732992,"2021-12-21,04:24:14",10.1.1.3,0.32845497131347656,-0.040,-0.040,-0.040,0.000,0.000,0.000
1640060654456948992,"2021-12-21,04:24:14",10.1.1.3,287,-0.050,-0.050,-0.050,0.000,0.000,0.000
1640060654487876864,"2021-12-21,04:24:14",10.1.1.3,0.31885790824890137,-0.050,-0.050,-0.050,0.000,0.000,0.000
1640060654787180800,"2021-12-21,04:24:14",10.1.1.3,297,-0.060,-0.060,-0.060,0.000,0.000,0.000
1640060654819039232,"2021-12-21,04:24:14",10.1.1.3,0.3298678398132324,-0.060,-0.060,-0.060,0.000,0.000,0.000
1640060655108040960,"2021-12-21,04:24:15",10.1.1.3,286,-0.070,-0.070,-0.070,0.000,0.000,0.000
1640060655131663104,"2021-12-21,04:24:15",10.1.1.3,0.3113870620727539,-0.070,-0.070,-0.070,0.000,0.000,0.000
1640060655419298816,"2021-12-21,04:24:15",10.1.1.3,283,-0.080,-0.080,-0.080,0.000,0.000,0.000
1640060655449629184,"2021-12-21,04:24:15",10.1.1.3,0.31659388542175293,-0.080,-0.080,-0.080,0.000,0.000,0.000
1640060655756823040,"2021-12-21,04:24:15",10.1.1.3,305,-0.090,-0.090,-0.090,0.000,0.000,0.000
1640060655800360960,"2021-12-21,04:24:15",10.1.1.3,0.348891019821167,-0.090,-0.090,-0.090,0.000,0.000,0.000
1640060656135597824,"2021-12-21,04:24:16",10.1.1.3,332,-0.100,-0.100,-0.100,0.000,0.000,0.000
1640060656143100928,"2021-12-21,04:24:16",10.1.1.3,0.3406250476837158,-0.100,-0.100,-0.100,0.000,0.000,0.000
1640060656504386816,"2021-12-21,04:24:16",10.1.1.3,359,-0.110,-0.110,-0.110,0.000,0.000,0.000
1640060656554067968,"2021-12-21,04:24:16",10.1.1.3,0.4092090129852295,-0.110,-0.110,-0.110,0.000,0.000,0.000
1640060656855288064,"2021-12-21,04:24:16",10.1.1.3,299,-0.120,-0.120,-0.120,0.000,0.000,0.000
1640060656881742848,"2021-12-21,04:24:16",10.1.1.3,0.32610201835632324,-0.120,-0.120,-0.120,0.000,0.000,0.000
1640060657224407040,"2021-12-21,04:24:17",10.1.1.3,340,-0.130,-0.130,-0.130,0.000,0.000,0.000
1640060657234373120,"2021-12-21,04:24:17",10.1.1.3,0.3504350185394287,-0.130,-0.130,-0.130,0.000,0.000,0.000
1640060657593598976,"2021-12-21,04:24:17",10.1.1.3,357,-0.140,-0.140,-0.140,0.000,0.000,0.000
1640060657608516096,"2021-12-21,04:24:17",10.1.1.3,0.3720581531524658,-0.140,-0.140,-0.140,0.000,0.000,0.000
1640060657933691904,"2021-12-21,04:24:17",10.1.1.3,322,-0.150,-0.150,-0.150,0.000,0.000,0.000
1640060657961348096,"2021-12-21,04:24:17",10.1.1.3,0.34960508346557617,-0.150,-0.150,-0.150,0.000,0.000,0.000
1640060658292604928,"2021-12-21,04:24:18",10.1.1.3,310,-0.160,-0.160,-0.160,0.000,0.000,0.000
1640060658300910848,"2021-12-21,04:24:18",10.1.1.3,0.31906604766845703,-0.160,-0.160,-0.160,0.000,0.000,0.000
1640060658630588160,"2021-12-21,04:24:18",10.1.1.3,328,-0.170,-0.170,-0.170,0.000,0.000,0.000
1640060658654145024,"2021-12-21,04:24:18",10.1.1.3,0.35155487060546875,-0.170,-0.170,-0.170,0.000,0.000,0.000
1640060659031685120,"2021-12-21,04:24:19",10.1.1.3,376,-0.180,-0.180,-0.180,0.000,0.000,0.000
1640060659047933184,"2021-12-21,04:24:19",10.1.1.3,0.3923768997192383,-0.180,-0.180,-0.180,0.000,0.000,0.000
1640060659410341120,"2021-12-21,04:24:19",10.1.1.3,359,-0.190,-0.190,-0.190,0.000,0.000,0.000
1640060659425817856,"2021-12-21,04:24:19",10.1.1.3,0.37542200088500977,-0.190,-0.190,-0.190,0.000,0.000,0.000
1640060659739279872,"2021-12-21,04:24:19",10.1.1.3,274,-0.200,-0.200,-0.200,0.000,0.000,0.000
1640060659784416000,"2021-12-21,04:24:19",10.1.1.3,0.33736610412597656,-0.200,-0.200,-0.200,0.000,0.000,0.000
1640060660129538048,"2021-12-21,04:24:20",10.1.1.3,342,-0.210,-0.210,-0.210,0.000,0.000,0.000
1640060660170020096,"2021-12-21,04:24:20",10.1.1.3,0.38416004180908203,-0.210,-0.210,-0.210,0.000,0.000,0.000
1640060660478125056,"2021-12-21,04:24:20",10.1.1.3,299,-0.220,-0.220,-0.220,0.000,0.000,0.000
1640060660505132800,"2021-12-21,04:24:20",10.1.1.3,0.332625150680542,-0.220,-0.220,-0.220,0.000,0.000,0.000
1640060660884396032,"2021-12-21,04:24:20",10.1.1.3,0.37590503692626953,-0.230,-0.230,-0.230,0.000,0.000,0.000
1640060661210786048,"2021-12-21,04:24:21",10.1.1.3,311,-0.240,-0.240,-0.240,0.000,0.000,0.000
1640060661256573952,"2021-12-21,04:24:21",10.1.1.3,0.35742688179016113,-0.240,-0.240,-0.240,0.000,0.000,0.000
1640060661600838912,"2021-12-21,04:24:21",10.1.1.3,333,-0.250,-0.250,-0.250,0.000,0.000,0.000
1640060661617463040,"2021-12-21,04:24:21",10.1.1.3,0.3580789566040039,-0.250,-0.250,-0.250,0.000,0.000,0.000
1640060661917516032,"2021-12-21,04:24:21",10.1.1.3,297,-0.260,-0.260,-0.260,0.000,0.000,0.000
1640060661949431808,"2021-12-21,04:24:21",10.1.1.3,0.32948899269104004,-0.260,-0.260,-0.260,0.000,0.000,0.000
1640060662236825856,"2021-12-21,04:24:22",10.1.1.3,285,-0.270,-0.270,-0.270,0.000,0.000,0.000
1640060662266531072,"2021-12-21,04:24:22",10.1.1.3,0.3151741027832031,-0.270,-0.270,-0.270,0.000,0.000,0.000
1640060662604667904,"2021-12-21,04:24:22",10.1.1.3,334,-0.280,-0.280,-0.280,0.000,0.000,0.000
1640060662637675008,"2021-12-21,04:24:22",10.1.1.3,0.3677549362182617,-0.280,-0.280,-0.280,0.000,0.000,0.000
1640060662995877888,"2021-12-21,04:24:22",10.1.1.3,340,-0.290,-0.290,-0.290,0.000,0.000,0.000
1640060663007888128,"2021-12-21,04:24:23",10.1.1.3,0.3521749973297119,-0.290,-0.290,-0.290,0.000,0.000,0.000
1640060663367654144,"2021-12-21,04:24:23",10.1.1.3,356,-0.300,-0.300,-0.300,0.000,0.000,0.000
1640060663398528000,"2021-12-21,04:24:23",10.1.1.3,0.3878350257873535,-0.300,-0.300,-0.300,0.000,0.000,0.000
1640060663722913024,"2021-12-21,04:24:23",10.1.1.3,321,-0.310,-0.310,-0.310,0.000,0.000,0.000
1640060663739828992,"2021-12-21,04:24:23",10.1.1.3,0.33981895446777344,-0.310,-0.310,-0.310,0.000,0.000,0.000
1640060664061955840,"2021-12-21,04:24:24",10.1.1.3,318,-0.320,-0.320,-0.320,0.000,0.000,0.000
1640060664106885888,"2021-12-21,04:24:24",10.1.1.3,0.3634169101715088,-0.320,-0.320,-0.320,0.000,0.000,0.000
1640060664442459136,"2021-12-21,04:24:24",10.1.1.3,333,-0.330,-0.330,-0.330,0.000,0.000,0.000
1640060664516781056,"2021-12-21,04:24:24",10.1.1.3,0.40820884704589844,-0.330,-0.330,-0.330,0.000,0.000,0.000
1640060664801444096,"2021-12-21,04:24:24",10.1.1.3,282,-0.340,-0.340,-0.340,0.000,0.000,0.000
1640060664832328960,"2021-12-21,04:24:24",10.1.1.3,0.31412601470947266,-0.340,-0.340,-0.340,0.000,0.000,0.000
1640060665159198976,"2021-12-21,04:24:25",10.1.1.3,324,-0.350,-0.350,-0.350,0.000,0.000,0.000
1640060665200628992,"2021-12-21,04:24:25",10.1.1.3,0.3650069236755371,-0.350,-0.350,-0.350,0.000,0.000,0.000
1640060665538772992,"2021-12-21,04:24:25",10.1.1.3,335,-0.360,-0.360,-0.360,0.000,0.000,0.000
1640060665554753024,"2021-12-21,04:24:25",10.1.1.3,0.35134220123291016,-0.360,-0.360,-0.360,0.000,0.000,0.000
1640060665916838912,"2021-12-21,04:24:25",10.1.1.3,357,-0.370,-0.370,-0.370,0.000,0.000,0.000
1640060665957043968,"2021-12-21,04:24:25",10.1.1.3,0.3988938331604004,-0.370,-0.370,-0.370,0.000,0.000,0.000
1640060666269260032,"2021-12-21,04:24:26",10.1.1.3,302,-0.380,-0.380,-0.380,0.000,0.000,0.000
1640060666305185024,"2021-12-21,04:24:26",10.1.1.3,0.3386850357055664,-0.380,-0.380,-0.380,0.000,0.000,0.000
1640060666637203968,"2021-12-21,04:24:26",10.1.1.3,327,-0.390,-0.390,-0.390,0.000,0.000,0.000
1640060666652612096,"2021-12-21,04:24:26",10.1.1.3,0.3424839973449707,-0.390,-0.390,-0.390,0.000,0.000,0.000
1640060666996933888,"2021-12-21,04:24:26",10.1.1.3,342,-0.400,-0.400,-0.400,0.000,0.000,0.000
1640060667020153088,"2021-12-21,04:24:27",10.1.1.3,0.3661320209503174,-0.400,-0.400,-0.400,0.000,0.000,0.000
1640060667376209920,"2021-12-21,04:24:27",10.1.1.3,352,-0.410,-0.410,-0.410,0.000,0.000,0.000
1640060667422938112,"2021-12-21,04:24:27",10.1.1.3,0.39893484115600586,-0.410,-0.410,-0.410,0.000,0.000,0.000
1640060667768517888,"2021-12-21,04:24:27",10.1.1.3,331,-0.420,-0.420,-0.420,0.000,0.000,0.000
1640060667775286016,"2021-12-21,04:24:27",10.1.1.3,0.33831000328063965,-0.420,-0.420,-0.420,0.000,0.000,0.000
1640060668136354048,"2021-12-21,04:24:28",10.1.1.3,356,-0.430,-0.430,-0.430,0.000,0.000,0.000
1640060668155427840,"2021-12-21,04:24:28",10.1.1.3,0.37574291229248047,-0.430,-0.430,-0.430,0.000,0.000,0.000
1640060668493190144,"2021-12-21,04:24:28",10.1.1.3,335,-0.440,-0.440,-0.440,0.000,0.000,0.000
1640060668544632064,"2021-12-21,04:24:28",10.1.1.3,0.3868720531463623,-0.440,-0.440,-0.440,0.000,0.000,0.000
1640060668861822976,"2021-12-21,04:24:28",10.1.1.3,315,-0.450,-0.450,-0.450,0.000,0.000,0.000
1640060668930274048,"2021-12-21,04:24:28",10.1.1.3,0.3839130401611328,-0.450,-0.450,-0.450,0.000,0.000,0.000
1640060669219049984,"2021-12-21,04:24:29",10.1.1.3,287,-0.460,-0.460,-0.460,0.000,0.000,0.000
1640060669257074176,"2021-12-21,04:24:29",10.1.1.3,0.32537198066711426,-0.460,-0.460,-0.460,0.000,0.000,0.000
1640060669617084928,"2021-12-21,04:24:29",10.1.1.3,358,-0.470,-0.470,-0.470,0.000,0.000,0.000
1640060669677042944,"2021-12-21,04:24:29",10.1.1.3,0.41848301887512207,-0.470,-0.470,-0.470,0.000,0.000,0.000
1640060669971406080,"2021-12-21,04:24:29",10.1.1.3,292,-0.480,-0.480,-0.480,0.000,0.000,0.000
1640060670030275072,"2021-12-21,04:24:30",10.1.1.3,0.35108208656311035,-0.480,-0.480,-0.480,0.000,0.000,0.000
1640060670357975040,"2021-12-21,04:24:30",10.1.1.3,323,-0.490,-0.490,-0.490,0.000,0.000,0.000
1640060670386334976,"2021-12-21,04:24:30",10.1.1.3,0.35214900970458984,-0.490,-0.490,-0.490,0.000,0.000,0.000
1640060670703986944,"2021-12-21,04:24:30",10.1.1.3,313,-0.480,-0.480,-0.480,0.000,0.000,0.000
1640060670732950016,"2021-12-21,04:24:30",10.1.1.3,0.3430509567260742,-0.480,-0.480,-0.480,0.000,0.000,0.000
1640060671066836992,"2021-12-21,04:24:31",10.1.1.3,331,-0.470,-0.470,-0.470,0.000,0.000,0.000
1640060671082935040,"2021-12-21,04:24:31",10.1.1.3,0.34795308113098145,-0.470,-0.470,-0.470,0.000,0.000,0.000
1640060671422081024,"2021-12-21,04:24:31",10.1.1.3,321,-0.460,-0.460,-0.460,0.000,0.000,0.000
1640060671487643904,"2021-12-21,04:24:31",10.1.1.3,0.388286828994751,-0.460,-0.460,-0.460,0.000,0.000,0.000
1640060671822168064,"2021-12-21,04:24:31",10.1.1.3,326,-0.450,-0.450,-0.450,0.000,0.000,0.000
1640060671851675904,"2021-12-21,04:24:31",10.1.1.3,0.3572201728820801,-0.450,-0.450,-0.450,0.000,0.000,0.000
1640060672185024000,"2021-12-21,04:24:32",10.1.1.3,320,-0.440,-0.440,-0.440,0.000,0.000,0.000
1640060672208093952,"2021-12-21,04:24:32",10.1.1.3,0.3419051170349121,-0.440,-0.440,-0.440,0.000,0.000,0.000
1640060672585800960,"2021-12-21,04:24:32",10.1.1.3,374,-0.430,-0.430,-0.430,0.000,0.000,0.000
1640060672596619008,"2021-12-21,04:24:32",10.1.1.3,0.3858029842376709,-0.430,-0.430,-0.430,0.000,0.000,0.000
1640060672892059136,"2021-12-21,04:24:32",10.1.1.3,290,-0.420,-0.420,-0.420,0.000,0.000,0.000
1640060672947487232,"2021-12-21,04:24:32",10.1.1.3,0.34940099716186523,-0.420,-0.420,-0.420,0.000,0.000,0.000
1640060673265875200,"2021-12-21,04:24:33",10.1.1.3,304,-0.410,-0.410,-0.410,0.000,0.000,0.000
1640060673285618944,"2021-12-21,04:24:33",10.1.1.3,0.3251619338989258,-0.410,-0.410,-0.410,0.000,0.000,0.000
1640060673623193856,"2021-12-21,04:24:33",10.1.1.3,326,-0.400,-0.400,-0.400,0.000,0.000,0.000
1640060673662992896,"2021-12-21,04:24:33",10.1.1.3,0.36670613288879395,-0.400,-0.400,-0.400,0.000,0.000,0.000
1640060673985600000,"2021-12-21,04:24:33",10.1.1.3,320,-0.390,-0.390,-0.390,0.000,0.000,0.000
1640060674028122880,"2021-12-21,04:24:34",10.1.1.3,0.36335086822509766,-0.390,-0.390,-0.390,0.000,0.000,0.000
1640060674356441088,"2021-12-21,04:24:34",10.1.1.3,326,-0.380,-0.380,-0.380,0.000,0.000,0.000
1640060674367769088,"2021-12-21,04:24:34",10.1.1.3,0.3381469249725342,-0.380,-0.380,-0.380,0.000,0.000,0.000
1640060674725325056,"2021-12-21,04:24:34",10.1.1.3,0.355334997177124,-0.370,-0.370,-0.370,0.000,0.000,0.000
1640060675069969920,"2021-12-21,04:24:35",10.1.1.3,341,-0.360,-0.360,-0.360,0.000,0.000,0.000
1640060675147915008,"2021-12-21,04:24:35",10.1.1.3,0.41944193840026855,-0.360,-0.360,-0.360,0.000,0.000,0.000
1640060675497082880,"2021-12-21,04:24:35",10.1.1.3,343,-0.350,-0.350,-0.350,0.000,0.000,0.000
1640060675513369088,"2021-12-21,04:24:35",10.1.1.3,0.36360597610473633,-0.350,-0.350,-0.350,0.000,0.000,0.000
1640060675823069952,"2021-12-21,04:24:35",10.1.1.3,306,-0.340,-0.340,-0.340,0.000,0.000,0.000
1640060675859332096,"2021-12-21,04:24:35",10.1.1.3,0.34334611892700195,-0.340,-0.340,-0.340,0.000,0.000,0.000
1640060676202692864,"2021-12-21,04:24:36",10.1.1.3,325,-0.330,-0.330,-0.330,0.000,0.000,0.000
1640060676228022016,"2021-12-21,04:24:36",10.1.1.3,0.35347795486450195,-0.330,-0.330,-0.330,0.000,0.000,0.000
1640060676546385920,"2021-12-21,04:24:36",10.1.1.3,302,-0.320,-0.320,-0.320,0.000,0.000,0.000
1640060676631095808,"2021-12-21,04:24:36",10.1.1.3,0.387556791305542,-0.320,-0.320,-0.320,0.000,0.000,0.000
1640060676930695936,"2021-12-21,04:24:36",10.1.1.3,295,-0.310,-0.310,-0.310,0.000,0.000,0.000
1640060676961447936,"2021-12-21,04:24:36",10.1.1.3,0.3289029598236084,-0.310,-0.310,-0.310,0.000,0.000,0.000
1640060677289190912,"2021-12-21,04:24:37",10.1.1.3,320,-0.300,-0.300,-0.300,0.000,0.000,0.000
1640060677343907072,"2021-12-21,04:24:37",10.1.1.3,0.37505602836608887,-0.300,-0.300,-0.300,0.000,0.000,0.000
1640060677669449216,"2021-12-21,04:24:37",10.1.1.3,322,-0.290,-0.290,-0.290,0.000,0.000,0.000
1640060677712516096,"2021-12-21,04:24:37",10.1.1.3,0.36598992347717285,-0.290,-0.290,-0.290,0.000,0.000,0.000
1640060678053155072,"2021-12-21,04:24:38",10.1.1.3,330,-0.280,-0.280,-0.280,0.000,0.000,0.000
1640060678093274112,"2021-12-21,04:24:38",10.1.1.3,0.3710000514984131,-0.280,-0.280,-0.280,0.000,0.000,0.000
1640060678439981824,"2021-12-21,04:24:38",10.1.1.3,344,-0.270,-0.270,-0.270,0.000,0.000,0.000
1640060678516079872,"2021-12-21,04:24:38",10.1.1.3,0.42047905921936035,-0.270,-0.270,-0.270,0.000,0.000,0.000
1640060678800329984,"2021-12-21,04:24:38",10.1.1.3,282,-0.260,-0.260,-0.260,0.000,0.000,0.000
1640060678845755136,"2021-12-21,04:24:38",10.1.1.3,0.3284108638763428,-0.260,-0.260,-0.260,0.000,0.000,0.000
1640060679182394112,"2021-12-21,04:24:39",10.1.1.3,333,-0.250,-0.250,-0.250,0.000,0.000,0.000
1640060679193396992,"2021-12-21,04:24:39",10.1.1.3,0.3461768627166748,-0.250,-0.250,-0.250,0.000,0.000,0.000
1640060679522032128,"2021-12-21,04:24:39",10.1.1.3,322,-0.240,-0.240,-0.240,0.000,0.000,0.000
1640060679563739136,"2021-12-21,04:24:39",10.1.1.3,0.36464905738830566,-0.240,-0.240,-0.240,0.000,0.000,0.000
1640060679873213952,"2021-12-21,04:24:39",10.1.1.3,306,-0.230,-0.230,-0.230,0.000,0.000,0.000
1640060679958075904,"2021-12-21,04:24:39",10.1.1.3,0.3914170265197754,-0.230,-0.230,-0.230,0.000,0.000,0.000
1640060680243294976,"2021-12-21,04:24:40",10.1.1.3,282,-0.220,-0.220,-0.220,0.000,0.000,0.000
1640060680277646080,"2021-12-21,04:24:40",10.1.1.3,0.31807613372802734,-0.220,-0.220,-0.220,0.000,0.000,0.000
1640060680648369152,"2021-12-21,04:24:40",10.1.1.3,357,-0.210,-0.210,-0.210,0.000,0.000,0.000
1640060680686546944,"2021-12-21,04:24:40",10.1.1.3,0.39598703384399414,-0.210,-0.210,-0.210,0.000,0.000,0.000
1640060680966710016,"2021-12-21,04:24:40",10.1.1.3,278,-0.200,-0.200,-0.200,0.000,0.000,0.000
1640060681007788032,"2021-12-21,04:24:41",10.1.1.3,0.31992197036743164,-0.200,-0.200,-0.200,0.000,0.000,0.000
1640060681343497984,"2021-12-21,04:24:41",10.1.1.3,330,-0.190,-0.190,-0.190,0.000,0.000,0.000
1640060681379132928,"2021-12-21,04:24:41",10.1.1.3,0.362293004989624,-0.190,-0.190,-0.190,0.000,0.000,0.000
1640060681688570880,"2021-12-21,04:24:41",10.1.1.3,307,-0.180,-0.180,-0.180,0.000,0.000,0.000
1640060681745414912,"2021-12-21,04:24:41",10.1.1.3,0.3645181655883789,-0.180,-0.180,-0.180,0.000,0.000,0.000
1640060682036207872,"2021-12-21,04:24:42",10.1.1.3,288,-0.170,-0.170,-0.170,0.000,0.000,0.000
1640060682088861952,"2021-12-21,04:24:42",10.1.1.3,0.3412470817565918,-0.170,-0.170,-0.170,0.000,0.000,0.000
1640060682413536000,"2021-12-21,04:24:42",10.1.1.3,317,-0.160,-0.160,-0.160,0.000,0.000,0.000
1640060682440282112,"2021-12-21,04:24:42",10.1.1.3,0.344149112701416,-0.160,-0.160,-0.160,0.000,0.000,0.000
1640060682773175040,"2021-12-21,04:24:42",10.1.1.3,323,-0.150,-0.150,-0.150,0.000,0.000,0.000
1640060682779056128,"2021-12-21,04:24:42",10.1.1.3,0.3296999931335449,-0.150,-0.150,-0.150,0.000,0.000,0.000
1640060683095652096,"2021-12-21,04:24:43",10.1.1.3,313,-0.140,-0.140,-0.140,0.000,0.000,0.000
1640060683100716032,"2021-12-21,04:24:43",10.1.1.3,0.318911075592041,-0.140,-0.140,-0.140,0.000,0.000,0.000
1640060683434264832,"2021-12-21,04:24:43",10.1.1.3,331,-0.130,-0.130,-0.130,0.000,0.000,0.000
1640060683490382080,"2021-12-21,04:24:43",10.1.1.3,0.38802003860473633,-0.130,-0.130,-0.130,0.000,0.000,0.000
1640060683804646912,"2021-12-21,04:24:43",10.1.1.3,312,-0.120,-0.120,-0.120,0.000,0.000,0.000
1640060683840317952,"2021-12-21,04:24:43",10.1.1.3,0.34837794303894043,-0.120,-0.120,-0.120,0.000,0.000,0.000
1640060684133652992,"2021-12-21,04:24:44",10.1.1.3,291,-0.110,-0.110,-0.110,0.000,0.000,0.000
1640060684159769088,"2021-12-21,04:24:44",10.1.1.3,0.31776905059814453,-0.110,-0.110,-0.110,0.000,0.000,0.000
1640060684463612928,"2021-12-21,04:24:44",10.1.1.3,302,-0.100,-0.100,-0.100,0.000,0.000,0.000
1640060684486750976,"2021-12-21,04:24:44",10.1.1.3,0.3252079486846924,-0.100,-0.100,-0.100,0.000,0.000,0.000
1640060684784747008,"2021-12-21,04:24:44",10.1.1.3,296,-0.090,-0.090,-0.090,0.000,0.000,0.000
1640060684813117952,"2021-12-21,04:24:44",10.1.1.3,0.32499003410339355,-0.090,-0.090,-0.090,0.000,0.000,0.000
1640060685124419840,"2021-12-21,04:24:45",10.1.1.3,309,-0.080,-0.080,-0.080,0.000,0.000,0.000
1640060685137061120,"2021-12-21,04:24:45",10.1.1.3,0.3217182159423828,-0.080,-0.080,-0.080,0.000,0.000,0.000
1640060685454812160,"2021-12-21,04:24:45",10.1.1.3,315,-0.070,-0.070,-0.070,0.000,0.000,0.000
1640060685483896064,"2021-12-21,04:24:45",10.1.1.3,0.34542393684387207,-0.070,-0.070,-0.070,0.000,0.000,0.000
1640060685793852928,"2021-12-21,04:24:45",10.1.1.3,308,-0.060,-0.060,-0.060,0.000,0.000,0.000
1640060685819207936,"2021-12-21,04:24:45",10.1.1.3,0.33359384536743164,-0.060,-0.060,-0.060,0.000,0.000,0.000
1640060686133519872,"2021-12-21,04:24:46",10.1.1.3,312,-0.050,-0.050,-0.050,0.000,0.000,0.000
1640060686158008064,"2021-12-21,04:24:46",10.1.1.3,0.3367741107940674,-0.050,-0.050,-0.050,0.000,0.000,0.000
1640060686466092032,"2021-12-21,04:24:46",10.1.1.3,304,-0.040,-0.040,-0.040,0.000,0.000,0.000
1640060686499121920,"2021-12-21,04:24:46",10.1.1.3,0.33948397636413574,-0.040,-0.040,-0.040,0.000,0.000,0.000
1640060686863782912,"2021-12-21,04:24:46",10.1.1.3,356,-0.030,-0.030,-0.030,0.000,0.000,0.000
1640060686921611008,"2021-12-21,04:24:46",10.1.1.3,0.4146919250488281,-0.030,-0.030,-0.030,0.000,0.000,0.000
1640060687224397824,"2021-12-21,04:24:47",10.1.1.3,300,-0.020,-0.020,-0.020,0.000,0.000,0.000
1640060687248198912,"2021-12-21,04:24:47",10.1.1.3,0.3243680000305176,-0.020,-0.020,-0.020,0.000,0.000,0.000
1640060687532660992,"2021-12-21,04:24:47",10.1.1.3,282,-0.010,-0.010,-0.010,0.000,0.000,0.000
1640060687574263040,"2021-12-21,04:24:47",10.1.1.3,0.32399511337280273,-0.010,-0.010,-0.010,0.000,0.000,0.000
1640060687903206144,"2021-12-21,04:24:47",10.1.1.3,324,0.000,0.000,0.000,0.000,0.000,0.000
1640060687937262080,"2021-12-21,04:24:47",10.1.1.3,0.35904884338378906,0.000,0.000,0.000,0.000,0.000,0.000
1640060688263830016,"2021-12-21,04:24:48",10.1.1.3,324,-0.010,-0.010,-0.010,0.000,0.000,0.000
1640060688275644160,"2021-12-21,04:24:48",10.1.1.3,0.33674097061157227,-0.010,-0.010,-0.010,0.000,0.000,0.000
1640060688640396032,"2021-12-21,04:24:48",10.1.1.3,360,-0.020,-0.020,-0.020,0.000,0.000,0.000
1640060688678921984,"2021-12-21,04:24:48",10.1.1.3,0.39897990226745605,-0.020,-0.020,-0.020,0.000,0.000,0.000
1640060688992432128,"2021-12-21,04:24:48",10.1.1.3,311,-0.030,-0.030,-0.030,0.000,0.000,0.000
1640060689046520832,"2021-12-21,04:24:49",10.1.1.3,0.36573100090026855,-0.030,-0.030,-0.030,0.000,0.000,0.000
1640060689385582080,"2021-12-21,04:24:49",10.1.1.3,334,-0.040,-0.040,-0.040,0.000,0.000,0.000
1640060689456845056,"2021-12-21,04:24:49",10.1.1.3,0.40622591972351074,-0.040,-0.040,-0.040,0.000,0.000,0.000
1640060689752542976,"2021-12-21,04:24:49",10.1.1.3,293,-0.050,-0.050,-0.050,0.000,0.000,0.000
1640060689786092032,"2021-12-21,04:24:49",10.1.1.3,0.32744288444519043,-0.050,-0.050,-0.050,0.000,0.000,0.000
1640060690084755968,"2021-12-21,04:24:50",10.1.1.3,295,-0.060,-0.060,-0.060,0.000,0.000,0.000
1640060690177812224,"2021-12-21,04:24:50",10.1.1.3,0.390078067779541,-0.060,-0.060,-0.060,0.000,0.000,0.000
1640060690460788992,"2021-12-21,04:24:50",10.1.1.3,281,-0.070,-0.070,-0.070,0.000,0.000,0.000
1640060690506319104,"2021-12-21,04:24:50",10.1.1.3,0.32674503326416016,-0.070,-0.070,-0.070,0.000,0.000,0.000
1640060690865880064,"2021-12-21,04:24:50",10.1.1.3,0.3320789337158203,-0.080,-0.080,-0.080,0.000,0.000,0.000
1640060690866147072,"2021-12-21,04:24:50",10.1.1.3,332,-0.080,-0.080,-0.080,0.000,0.000,0.000
1640060691201420032,"2021-12-21,04:24:51",10.1.1.3,321,-0.090,-0.090,-0.090,0.000,0.000,0.000
1640060691242209024,"2021-12-21,04:24:51",10.1.1.3,0.3639850616455078,-0.090,-0.090,-0.090,0.000,0.000,0.000
1640060691582750208,"2021-12-21,04:24:51",10.1.1.3,335,-0.100,-0.100,-0.100,0.000,0.000,0.000
1640060691613096960,"2021-12-21,04:24:51",10.1.1.3,0.36563611030578613,-0.100,-0.100,-0.100,0.000,0.000,0.000
1640060691920628992,"2021-12-21,04:24:51",10.1.1.3,305,-0.110,-0.110,-0.110,0.000,0.000,0.000
1640060691995501056,"2021-12-21,04:24:51",10.1.1.3,0.3809530735015869,-0.110,-0.110,-0.110,0.000,0.000,0.000
1640060692300380928,"2021-12-21,04:24:52",10.1.1.3,302,-0.120,-0.120,-0.120,0.000,0.000,0.000
1640060692397043968,"2021-12-21,04:24:52",10.1.1.3,0.39954280853271484,-0.120,-0.120,-0.120,0.000,0.000,0.000
1640060692712642048,"2021-12-21,04:24:52",10.1.1.3,313,-0.130,-0.130,-0.130,0.000,0.000,0.000
1640060692722699008,"2021-12-21,04:24:52",10.1.1.3,0.3241119384765625,-0.130,-0.130,-0.130,0.000,0.000,0.000
1640060693088887808,"2021-12-21,04:24:53",10.1.1.3,361,-0.140,-0.140,-0.140,0.000,0.000,0.000
1640060693138892032,"2021-12-21,04:24:53",10.1.1.3,0.41147685050964355,-0.140,-0.140,-0.140,0.000,0.000,0.000
1640060693447988992,"2021-12-21,04:24:53",10.1.1.3,306,-0.150,-0.150,-0.150,0.000,0.000,0.000
1640060693469888000,"2021-12-21,04:24:53",10.1.1.3,0.32866978645324707,-0.150,-0.150,-0.150,0.000,0.000,0.000
1640060693797363968,"2021-12-21,04:24:53",10.1.1.3,324,-0.160,-0.160,-0.160,0.000,0.000,0.000
1640060693882551040,"2021-12-21,04:24:53",10.1.1.3,0.4100010395050049,-0.160,-0.160,-0.160,0.000,0.000,0.000
1640060694193795072,"2021-12-21,04:24:54",10.1.1.3,309,-0.170,-0.170,-0.170,0.000,0.000,0.000
1640060694210108160,"2021-12-21,04:24:54",10.1.1.3,0.32631897926330566,-0.170,-0.170,-0.170,0.000,0.000,0.000
1640060694536204032,"2021-12-21,04:24:54",10.1.1.3,322,-0.180,-0.180,-0.180,0.000,0.000,0.000
1640060694593067776,"2021-12-21,04:24:54",10.1.1.3,0.37906408309936523,-0.180,-0.180,-0.180,0.000,0.000,0.000
1640060694906156032,"2021-12-21,04:24:54",10.1.1.3,311,-0.190,-0.190,-0.190,0.000,0.000,0.000
1640060694961724160,"2021-12-21,04:24:54",10.1.1.3,0.36713194847106934,-0.190,-0.190,-0.190,0.000,0.000,0.000
1640060695265188864,"2021-12-21,04:24:55",10.1.1.3,300,-0.200,-0.200,-0.200,0.000,0.000,0.000
1640060695319431936,"2021-12-21,04:24:55",10.1.1.3,0.35524582862854004,-0.200,-0.200,-0.200,0.000,0.000,0.000
1640060695678036992,"2021-12-21,04:24:55",10.1.1.3,355,-0.210,-0.210,-0.210,0.000,0.000,0.000
1640060695755533056,"2021-12-21,04:24:55",10.1.1.3,0.4327430725097656,-0.210,-0.210,-0.210,0.000,0.000,0.000
1640060696055896064,"2021-12-21,04:24:56",10.1.1.3,297,-0.220,-0.220,-0.220,0.000,0.000,0.000
1640060696100616960,"2021-12-21,04:24:56",10.1.1.3,0.3418910503387451,-0.220,-0.220,-0.220,0.000,0.000,0.000
1640060696413122048,"2021-12-21,04:24:56",10.1.1.3,297,-0.230,-0.230,-0.230,0.000,0.000,0.000
1640060696455198976,"2021-12-21,04:24:56",10.1.1.3,0.338054895401001,-0.230,-0.230,-0.230,0.000,0.000,0.000
1640060696783749120,"2021-12-21,04:24:56",10.1.1.3,326,-0.240,-0.240,-0.240,0.000,0.000,0.000
1640060696820934144,"2021-12-21,04:24:56",10.1.1.3,0.3642120361328125,-0.240,-0.240,-0.240,0.000,0.000,0.000
1640060697185009920,"2021-12-21,04:24:57",10.1.1.3,349,-0.250,-0.250,-0.250,0.000,0.000,0.000
1640060697242331904,"2021-12-21,04:24:57",10.1.1.3,0.4072890281677246,-0.250,-0.250,-0.250,0.000,0.000,0.000
1640060697532702976,"2021-12-21,04:24:57",10.1.1.3,288,-0.260,-0.260,-0.260,0.000,0.000,0.000
1640060697569014016,"2021-12-21,04:24:57",10.1.1.3,0.32476210594177246,-0.260,-0.260,-0.260,0.000,0.000,0.000
1640060697921422848,"2021-12-21,04:24:57",10.1.1.3,351,-0.270,-0.270,-0.270,0.000,0.000,0.000
1640060697984960000,"2021-12-21,04:24:57",10.1.1.3,0.41456103324890137,-0.270,-0.270,-0.270,0.000,0.000,0.000
1640060698322670848,"2021-12-21,04:24:58",10.1.1.3,336,-0.280,-0.280,-0.280,0.000,0.000,0.000
1640060698341240832,"2021-12-21,04:24:58",10.1.1.3,0.3549380302429199,-0.280,-0.280,-0.280,0.000,0.000,0.000
1640060698660933120,"2021-12-21,04:24:58",10.1.1.3,313,-0.290,-0.290,-0.290,0.000,0.000,0.000
1640060698698724096,"2021-12-21,04:24:58",10.1.1.3,0.35549378395080566,-0.290,-0.290,-0.290,0.000,0.000,0.000
1640060699013029120,"2021-12-21,04:24:59",10.1.1.3,312,-0.300,-0.300,-0.300,0.000,0.000,0.000
1640060699061620992,"2021-12-21,04:24:59",10.1.1.3,0.36097216606140137,-0.300,-0.300,-0.300,0.000,0.000,0.000
1640060699369469952,"2021-12-21,04:24:59",10.1.1.3,303,-0.310,-0.310,-0.310,0.000,0.000,0.000
1640060699412641024,"2021-12-21,04:24:59",10.1.1.3,0.34662890434265137,-0.310,-0.310,-0.310,0.000,0.000,0.000
1640060699752615936,"2021-12-21,04:24:59",10.1.1.3,330,-0.320,-0.320,-0.320,0.000,0.000,0.000
1640060699793308928,"2021-12-21,04:24:59",10.1.1.3,0.374345064163208,-0.320,-0.320,-0.320,0.000,0.000,0.000
1640060700134438144,"2021-12-21,04:25:00",10.1.1.3,338,-0.330,-0.330,-0.330,0.000,0.000,0.000
1640060700206629888,"2021-12-21,04:25:00",10.1.1.3,0.4110128879547119,-0.330,-0.330,-0.330,0.000,0.000,0.000
1640060700501832960,"2021-12-21,04:25:00",10.1.1.3,293,-0.340,-0.340,-0.340,0.000,0.000,0.000
1640060700552769792,"2021-12-21,04:25:00",10.1.1.3,0.3447530269622803,-0.340,-0.340,-0.340,0.000,0.000,0.000
1640060700875966976,"2021-12-21,04:25:00",10.1.1.3,318,-0.350,-0.350,-0.350,0.000,0.000,0.000
1640060700925569024,"2021-12-21,04:25:00",10.1.1.3,0.3701648712158203,-0.350,-0.350,-0.350,0.000,0.000,0.000
1640060701235140096,"2021-12-21,04:25:01",10.1.1.3,307,-0.360,-0.360,-0.360,0.000,0.000,0.000
1640060701314801920,"2021-12-21,04:25:01",10.1.1.3,0.38762784004211426,-0.360,-0.360,-0.360,0.000,0.000,0.000
1640060701618379008,"2021-12-21,04:25:01",10.1.1.3,301,-0.370,-0.370,-0.370,0.000,0.000,0.000
1640060701699767040,"2021-12-21,04:25:01",10.1.1.3,0.38378381729125977,-0.370,-0.370,-0.370,0.000,0.000,0.000
1640060702009416192,"2021-12-21,04:25:02",10.1.1.3,308,-0.380,-0.380,-0.380,0.000,0.000,0.000
1640060702028249856,"2021-12-21,04:25:02",10.1.1.3,0.32704997062683105,-0.380,-0.380,-0.380,0.000,0.000,0.000
1640060702392999936,"2021-12-21,04:25:02",10.1.1.3,361,-0.390,-0.390,-0.390,0.000,0.000,0.000
1640060702409878016,"2021-12-21,04:25:02",10.1.1.3,0.3779439926147461,-0.390,-0.390,-0.390,0.000,0.000,0.000
1640060702765000192,"2021-12-21,04:25:02",10.1.1.3,344,-0.400,-0.400,-0.400,0.000,0.000,0.000
1640060702791078144,"2021-12-21,04:25:02",10.1.1.3,0.37817811965942383,-0.400,-0.400,-0.400,0.000,0.000,0.000
1640060703149775872,"2021-12-21,04:25:03",10.1.1.3,356,-0.410,-0.410,-0.410,0.000,0.000,0.000
1640060703164800000,"2021-12-21,04:25:03",10.1.1.3,0.37122607231140137,-0.410,-0.410,-0.410,0.000,0.000,0.000
1640060703473505024,"2021-12-21,04:25:03",10.1.1.3,306,-0.420,-0.420,-0.420,0.000,0.000,0.000
1640060703529261056,"2021-12-21,04:25:03",10.1.1.3,0.3625509738922119,-0.420,-0.420,-0.420,0.000,0.000,0.000
1640060703922178048,"2021-12-21,04:25:03",10.1.1.3,0.3878159523010254,-0.430,-0.430,-0.430,0.000,0.000,0.000
1640060703879297024,"2021-12-21,04:25:03",10.1.1.3,343,-0.430,-0.430,-0.430,0.000,0.000,0.000
1640060704251414016,"2021-12-21,04:25:04",10.1.1.3,323,-0.440,-0.440,-0.440,0.000,0.000,0.000
1640060704328835072,"2021-12-21,04:25:04",10.1.1.3,0.4011800289154053,-0.440,-0.440,-0.440,0.000,0.000,0.000
1640060704639791872,"2021-12-21,04:25:04",10.1.1.3,308,-0.450,-0.450,-0.450,0.000,0.000,0.000
1640060704679582976,"2021-12-21,04:25:04",10.1.1.3,0.3494269847869873,-0.450,-0.450,-0.450,0.000,0.000,0.000
1640060704998467072,"2021-12-21,04:25:04",10.1.1.3,315,-0.460,-0.460,-0.460,0.000,0.000,0.000
1640060705019980800,"2021-12-21,04:25:05",10.1.1.3,0.3373839855194092,-0.460,-0.460,-0.460,0.000,0.000,0.000
1640060705341437184,"2021-12-21,04:25:05",10.1.1.3,319,-0.470,-0.470,-0.470,0.000,0.000,0.000
1640060705388217088,"2021-12-21,04:25:05",10.1.1.3,0.36649298667907715,-0.470,-0.470,-0.470,0.000,0.000,0.000
1640060705722397952,"2021-12-21,04:25:05",10.1.1.3,332,-0.480,-0.480,-0.480,0.000,0.000,0.000
1640060705790955008,"2021-12-21,04:25:05",10.1.1.3,0.39803004264831543,-0.480,-0.480,-0.480,0.000,0.000,0.000
1640060706108599808,"2021-12-21,04:25:06",10.1.1.3,314,-0.490,-0.490,-0.490,0.000,0.000,0.000
1640060706168528128,"2021-12-21,04:25:06",10.1.1.3,0.3755760192871094,-0.490,-0.490,-0.490,0.000,0.000,0.000
1640060706461988096,"2021-12-21,04:25:06",10.1.1.3,291,-0.480,-0.480,-0.480,0.000,0.000,0.000
1640060706520894976,"2021-12-21,04:25:06",10.1.1.3,0.3509039878845215,-0.480,-0.480,-0.480,0.000,0.000,0.000
1640060706833726976,"2021-12-21,04:25:06",10.1.1.3,311,-0.470,-0.470,-0.470,0.000,0.000,0.000
1640060706913049856,"2021-12-21,04:25:06",10.1.1.3,0.3907930850982666,-0.470,-0.470,-0.470,0.000,0.000,0.000
1640060707202519808,"2021-12-21,04:25:07",10.1.1.3,288,-0.460,-0.460,-0.460,0.000,0.000,0.000
1640060707232856064,"2021-12-21,04:25:07",10.1.1.3,0.31833600997924805,-0.460,-0.460,-0.460,0.000,0.000,0.000
1640060707573152000,"2021-12-21,04:25:07",10.1.1.3,338,-0.450,-0.450,-0.450,0.000,0.000,0.000
1640060707628771072,"2021-12-21,04:25:07",10.1.1.3,0.39447689056396484,-0.450,-0.450,-0.450,0.000,0.000,0.000
1640060707915343872,"2021-12-21,04:25:07",10.1.1.3,284,-0.440,-0.440,-0.440,0.000,0.000,0.000
1640060708027023104,"2021-12-21,04:25:08",10.1.1.3,0.39695096015930176,-0.440,-0.440,-0.440,0.000,0.000,0.000
1640060708334148864,"2021-12-21,04:25:08",10.1.1.3,305,-0.430,-0.430,-0.430,0.000,0.000,0.000
1640060708363805952,"2021-12-21,04:25:08",10.1.1.3,0.33534908294677734,-0.430,-0.430,-0.430,0.000,0.000,0.000
1640060708686963968,"2021-12-21,04:25:08",10.1.1.3,317,-0.420,-0.420,-0.420,0.000,0.000,0.000
1640060708747900928,"2021-12-21,04:25:08",10.1.1.3,0.37894701957702637,-0.420,-0.420,-0.420,0.000,0.000,0.000
1640060709044296960,"2021-12-21,04:25:09",10.1.1.3,293,-0.410,-0.410,-0.410,0.000,0.000,0.000
1640060709090120192,"2021-12-21,04:25:09",10.1.1.3,0.3399171829223633,-0.410,-0.410,-0.410,0.000,0.000,0.000
1640060709425839872,"2021-12-21,04:25:09",10.1.1.3,325,-0.400,-0.400,-0.400,0.000,0.000,0.000
1640060709470418944,"2021-12-21,04:25:09",10.1.1.3,0.37110114097595215,-0.400,-0.400,-0.400,0.000,0.000,0.000
1640060709785274880,"2021-12-21,04:25:09",10.1.1.3,311,-0.390,-0.390,-0.390,0.000,0.000,0.000
1640060709868865024,"2021-12-21,04:25:09",10.1.1.3,0.3954770565032959,-0.390,-0.390,-0.390,0.000,0.000,0.000
1640060710169414144,"2021-12-21,04:25:10",10.1.1.3,297,-0.380,-0.380,-0.380,0.000,0.000,0.000
1640060710210059008,"2021-12-21,04:25:10",10.1.1.3,0.34003496170043945,-0.380,-0.380,-0.380,0.000,0.000,0.000
1640060710487677184,"2021-12-21,04:25:10",10.1.1.3,275,-0.370,-0.370,-0.370,0.000,0.000,0.000
1640060710525558016,"2021-12-21,04:25:10",10.1.1.3,0.31285905838012695,-0.370,-0.370,-0.370,0.000,0.000,0.000
1640060710888957952,"2021-12-21,04:25:10",10.1.1.3,359,-0.360,-0.360,-0.360,0.000,0.000,0.000
1640060710954446080,"2021-12-21,04:25:10",10.1.1.3,0.4269101619720459,-0.360,-0.360,-0.360,0.000,0.000,0.000
1640060711288576000,"2021-12-21,04:25:11",10.1.1.3,332,-0.350,-0.350,-0.350,0.000,0.000,0.000
1640060711364599040,"2021-12-21,04:25:11",10.1.1.3,0.40862202644348145,-0.350,-0.350,-0.350,0.000,0.000,0.000
1640060711675966976,"2021-12-21,04:25:11",10.1.1.3,309,-0.340,-0.340,-0.340,0.000,0.000,0.000
1640060711743497984,"2021-12-21,04:25:11",10.1.1.3,0.3777339458465576,-0.340,-0.340,-0.340,0.000,0.000,0.000
1640060712037367040,"2021-12-21,04:25:12",10.1.1.3,291,-0.330,-0.330,-0.330,0.000,0.000,0.000
1640060712067190784,"2021-12-21,04:25:12",10.1.1.3,0.32236599922180176,-0.330,-0.330,-0.330,0.000,0.000,0.000
1640060712375627008,"2021-12-21,04:25:12",10.1.1.3,306,-0.320,-0.320,-0.320,0.000,0.000,0.000
1640060712437378048,"2021-12-21,04:25:12",10.1.1.3,0.36800503730773926,-0.320,-0.320,-0.320,0.000,0.000,0.000
1640060712764619008,"2021-12-21,04:25:12",10.1.1.3,325,-0.310,-0.310,-0.310,0.000,0.000,0.000
1640060712774673920,"2021-12-21,04:25:12",10.1.1.3,0.3356750011444092,-0.310,-0.310,-0.310,0.000,0.000,0.000
1640060713118334976,"2021-12-21,04:25:13",10.1.1.3,340,-0.300,-0.300,-0.300,0.000,0.000,0.000
1640060713186184960,"2021-12-21,04:25:13",10.1.1.3,0.40985608100891113,-0.300,-0.300,-0.300,0.000,0.000,0.000
1640060713475169024,"2021-12-21,04:25:13",10.1.1.3,287,-0.290,-0.290,-0.290,0.000,0.000,0.000
1640060713525816832,"2021-12-21,04:25:13",10.1.1.3,0.33679795265197754,-0.290,-0.290,-0.290,0.000,0.000,0.000
1640060713854686976,"2021-12-21,04:25:13",10.1.1.3,327,-0.280,-0.280,-0.280,0.000,0.000,0.000
1640060713920200192,"2021-12-21,04:25:13",10.1.1.3,0.3927469253540039,-0.280,-0.280,-0.280,0.000,0.000,0.000
1640060714234056960,"2021-12-21,04:25:14",10.1.1.3,302,-0.270,-0.270,-0.270,0.000,0.000,0.000
1640060714306999040,"2021-12-21,04:25:14",10.1.1.3,0.3749880790710449,-0.270,-0.270,-0.270,0.000,0.000,0.000
1640060714624222976,"2021-12-21,04:25:14",10.1.1.3,314,-0.260,-0.260,-0.260,0.000,0.000,0.000
1640060714699919104,"2021-12-21,04:25:14",10.1.1.3,0.3905620574951172,-0.260,-0.260,-0.260,0.000,0.000,0.000
1640060714995217920,"2021-12-21,04:25:14",10.1.1.3,293,-0.250,-0.250,-0.250,0.000,0.000,0.000
1640060715024691200,"2021-12-21,04:25:15",10.1.1.3,0.32035398483276367,-0.250,-0.250,-0.250,0.000,0.000,0.000
1640060715367988224,"2021-12-21,04:25:15",10.1.1.3,339,-0.240,-0.240,-0.240,0.000,0.000,0.000
1640060715406181120,"2021-12-21,04:25:15",10.1.1.3,0.37775397300720215,-0.240,-0.240,-0.240,0.000,0.000,0.000
1640060715724574976,"2021-12-21,04:25:15",10.1.1.3,314,-0.230,-0.230,-0.230,0.000,0.000,0.000
1640060715768204800,"2021-12-21,04:25:15",10.1.1.3,0.3581728935241699,-0.230,-0.230,-0.230,0.000,0.000,0.000
1640060716143763968,"2021-12-21,04:25:16",10.1.1.3,351,-0.220,-0.220,-0.220,0.000,0.000,0.000
1640060716145231104,"2021-12-21,04:25:16",10.1.1.3,0.3744070529937744,-0.220,-0.220,-0.220,0.000,0.000,0.000
1640060716481527040,"2021-12-21,04:25:16",10.1.1.3,324,-0.210,-0.210,-0.210,0.000,0.000,0.000
1640060716563785984,"2021-12-21,04:25:16",10.1.1.3,0.4071650505065918,-0.210,-0.210,-0.210,0.000,0.000,0.000
1640060716852128000,"2021-12-21,04:25:16",10.1.1.3,286,-0.200,-0.200,-0.200,0.000,0.000,0.000
1640060716938245888,"2021-12-21,04:25:16",10.1.1.3,0.3730161190032959,-0.200,-0.200,-0.200,0.000,0.000,0.000
1640060717242077952,"2021-12-21,04:25:17",10.1.1.3,302,-0.190,-0.190,-0.190,0.000,0.000,0.000
1640060717304649984,"2021-12-21,04:25:17",10.1.1.3,0.3651890754699707,-0.190,-0.190,-0.190,0.000,0.000,0.000
1640060717602797056,"2021-12-21,04:25:17",10.1.1.3,295,-0.180,-0.180,-0.180,0.000,0.000,0.000
1640060717634362880,"2021-12-21,04:25:17",10.1.1.3,0.32720112800598145,-0.180,-0.180,-0.180,0.000,0.000,0.000
1640060717913299968,"2021-12-21,04:25:17",10.1.1.3,271,-0.170,-0.170,-0.170,0.000,0.000,0.000
1640060717983463168,"2021-12-21,04:25:17",10.1.1.3,0.341778039932251,-0.170,-0.170,-0.170,0.000,0.000,0.000
1640060718318494208,"2021-12-21,04:25:18",10.1.1.3,331,-0.160,-0.160,-0.160,0.000,0.000,0.000
1640060718331696896,"2021-12-21,04:25:18",10.1.1.3,0.3458130359649658,-0.160,-0.160,-0.160,0.000,0.000,0.000
1640060718650289920,"2021-12-21,04:25:18",10.1.1.3,316,-0.150,-0.150,-0.150,0.000,0.000,0.000
1640060718687515136,"2021-12-21,04:25:18",10.1.1.3,0.3533458709716797,-0.150,-0.150,-0.150,0.000,0.000,0.000
1640060719030225152,"2021-12-21,04:25:19",10.1.1.3,316,-0.140,-0.140,-0.140,0.000,0.000,0.000
1640060719080104192,"2021-12-21,04:25:19",10.1.1.3,0.36742115020751953,-0.140,-0.140,-0.140,0.000,0.000,0.000
1640060719460510976,"2021-12-21,04:25:19",10.1.1.3,341,-0.130,-0.130,-0.130,0.000,0.000,0.000
1640060719483912960,"2021-12-21,04:25:19",10.1.1.3,0.364940881729126,-0.130,-0.130,-0.130,0.000,0.000,0.000
1640060719789830912,"2021-12-21,04:25:19",10.1.1.3,297,-0.120,-0.120,-0.120,0.000,0.000,0.000
1640060719843072768,"2021-12-21,04:25:19",10.1.1.3,0.35040807723999023,-0.120,-0.120,-0.120,0.000,0.000,0.000
1640060720139781888,"2021-12-21,04:25:20",10.1.1.3,295,-0.110,-0.110,-0.110,0.000,0.000,0.000
1640060720167712000,"2021-12-21,04:25:20",10.1.1.3,0.32343101501464844,-0.110,-0.110,-0.110,0.000,0.000,0.000
1640060720508577024,"2021-12-21,04:25:20",10.1.1.3,339,-0.100,-0.100,-0.100,0.000,0.000,0.000
1640060720572977920,"2021-12-21,04:25:20",10.1.1.3,0.4040398597717285,-0.100,-0.100,-0.100,0.000,0.000,0.000
1640060720890778112,"2021-12-21,04:25:20",10.1.1.3,315,-0.090,-0.090,-0.090,0.000,0.000,0.000
1640060720969063168,"2021-12-21,04:25:20",10.1.1.3,0.3938450813293457,-0.090,-0.090,-0.090,0.000,0.000,0.000
1640060721267486976,"2021-12-21,04:25:21",10.1.1.3,296,-0.080,-0.080,-0.080,0.000,0.000,0.000
1640060721312486912,"2021-12-21,04:25:21",10.1.1.3,0.3420898914337158,-0.080,-0.080,-0.080,0.000,0.000,0.000
1640060721616563200,"2021-12-21,04:25:21",10.1.1.3,302,-0.070,-0.070,-0.070,0.000,0.000,0.000
1640060721647696896,"2021-12-21,04:25:21",10.1.1.3,0.33353114128112793,-0.070,-0.070,-0.070,0.000,0.000,0.000
1640060722016516096,"2021-12-21,04:25:22",10.1.1.3,366,-0.060,-0.060,-0.060,0.000,0.000,0.000
1640060722073260032,"2021-12-21,04:25:22",10.1.1.3,0.42363715171813965,-0.060,-0.060,-0.060,0.000,0.000,0.000
1640060722427428864,"2021-12-21,04:25:22",10.1.1.3,344,-0.050,-0.050,-0.050,0.000,0.000,0.000
1640060722495400960,"2021-12-21,04:25:22",10.1.1.3,0.4121830463409424,-0.050,-0.050,-0.050,0.000,0.000,0.000
1640060722766653952,"2021-12-21,04:25:22",10.1.1.3,269,-0.040,-0.040,-0.040,0.000,0.000,0.000
1640060722830153984,"2021-12-21,04:25:22",10.1.1.3,0.3332641124725342,-0.040,-0.040,-0.040,0.000,0.000,0.000
1640060723161235200,"2021-12-21,04:25:23",10.1.1.3,324,-0.030,-0.030,-0.030,0.000,0.000,0.000
1640060723197906944,"2021-12-21,04:25:23",10.1.1.3,0.3615689277648926,-0.030,-0.030,-0.030,0.000,0.000,0.000
1640060723525816064,"2021-12-21,04:25:23",10.1.1.3,323,-0.020,-0.020,-0.020,0.000,0.000,0.000
1640060723557245952,"2021-12-21,04:25:23",10.1.1.3,0.35460710525512695,-0.020,-0.020,-0.020,0.000,0.000,0.000
1640060723895286016,"2021-12-21,04:25:23",10.1.1.3,327,-0.010,-0.010,-0.010,0.000,0.000,0.000
1640060723952354816,"2021-12-21,04:25:23",10.1.1.3,0.3844430446624756,-0.010,-0.010,-0.010,0.000,0.000,0.000
1640060724296112896,"2021-12-21,04:25:24",10.1.1.3,333,0.000,0.000,0.000,0.000,0.000,0.000
1640060724328726016,"2021-12-21,04:25:24",10.1.1.3,0.36063504219055176,0.000,0.000,0.000,0.000,0.000,0.000
1640060724664824064,"2021-12-21,04:25:24",10.1.1.3,334,-0.010,-0.010,-0.010,0.000,0.000,0.000
1640060724745517056,"2021-12-21,04:25:24",10.1.1.3,0.4151020050048828,-0.010,-0.010,-0.010,0.000,0.000,0.000
1640060725041765888,"2021-12-21,04:25:25",10.1.1.3,294,-0.020,-0.020,-0.020,0.000,0.000,0.000
1640060725101273088,"2021-12-21,04:25:25",10.1.1.3,0.3538808822631836,-0.020,-0.020,-0.020,0.000,0.000,0.000
1640060725412809984,"2021-12-21,04:25:25",10.1.1.3,308,-0.030,-0.030,-0.030,0.000,0.000,0.000
1640060725500719104,"2021-12-21,04:25:25",10.1.1.3,0.3970468044281006,-0.030,-0.030,-0.030,0.000,0.000,0.000
1640060725791132928,"2021-12-21,04:25:25",10.1.1.3,288,-0.040,-0.040,-0.040,0.000,0.000,0.000
1640060725849057024,"2021-12-21,04:25:25",10.1.1.3,0.3470618724822998,-0.040,-0.040,-0.040,0.000,0.000,0.000
1640060726187072000,"2021-12-21,04:25:26",10.1.1.3,330,-0.050,-0.050,-0.050,0.000,0.000,0.000
1640060726222070016,"2021-12-21,04:25:26",10.1.1.3,0.36694812774658203,-0.050,-0.050,-0.050,0.000,0.000,0.000
1640060726557997824,"2021-12-21,04:25:26",10.1.1.3,333,-0.060,-0.060,-0.060,0.000,0.000,0.000
1640060726615287040,"2021-12-21,04:25:26",10.1.1.3,0.390949010848999,-0.060,-0.060,-0.060,0.000,0.000,0.000
1640060726942876160,"2021-12-21,04:25:26",10.1.1.3,325,-0.070,-0.070,-0.070,0.000,0.000,0.000
1640060727007504896,"2021-12-21,04:25:27",10.1.1.3,0.3898138999938965,-0.070,-0.070,-0.070,0.000,0.000,0.000
1640060727311227136,"2021-12-21,04:25:27",10.1.1.3,299,-0.080,-0.080,-0.080,0.000,0.000,0.000
1640060727382018048,"2021-12-21,04:25:27",10.1.1.3,0.37073397636413574,-0.080,-0.080,-0.080,0.000,0.000,0.000
1640060727707459840,"2021-12-21,04:25:27",10.1.1.3,323,-0.090,-0.090,-0.090,0.000,0.000,0.000
1640060727775425792,"2021-12-21,04:25:27",10.1.1.3,0.39209794998168945,-0.090,-0.090,-0.090,0.000,0.000,0.000
1640060728079952128,"2021-12-21,04:25:28",10.1.1.3,302,-0.100,-0.100,-0.100,0.000,0.000,0.000
1640060728139888128,"2021-12-21,04:25:28",10.1.1.3,0.3620638847351074,-0.100,-0.100,-0.100,0.000,0.000,0.000
1640060728481671168,"2021-12-21,04:25:28",10.1.1.3,340,-0.110,-0.110,-0.110,0.000,0.000,0.000
1640060728530380032,"2021-12-21,04:25:28",10.1.1.3,0.3889620304107666,-0.110,-0.110,-0.110,0.000,0.000,0.000
1640060728838138112,"2021-12-21,04:25:28",10.1.1.3,304,-0.120,-0.120,-0.120,0.000,0.000,0.000
1640060728935616000,"2021-12-21,04:25:28",10.1.1.3,0.40311598777770996,-0.120,-0.120,-0.120,0.000,0.000,0.000
1640060729226435840,"2021-12-21,04:25:29",10.1.1.3,288,-0.130,-0.130,-0.130,0.000,0.000,0.000
1640060729277997056,"2021-12-21,04:25:29",10.1.1.3,0.3404810428619385,-0.130,-0.130,-0.130,0.000,0.000,0.000
1640060729597115904,"2021-12-21,04:25:29",10.1.1.3,314,-0.140,-0.140,-0.140,0.000,0.000,0.000
1640060729673661952,"2021-12-21,04:25:29",10.1.1.3,0.3913109302520752,-0.140,-0.140,-0.140,0.000,0.000,0.000
1640060729996176128,"2021-12-21,04:25:29",10.1.1.3,320,-0.150,-0.150,-0.150,0.000,0.000,0.000
1640060730039247104,"2021-12-21,04:25:30",10.1.1.3,0.36407899856567383,-0.150,-0.150,-0.150,0.000,0.000,0.000
1640060730392242944,"2021-12-21,04:25:30",10.1.1.3,351,-0.160,-0.160,-0.160,0.000,0.000,0.000
1640060730440995840,"2021-12-21,04:25:30",10.1.1.3,0.40017104148864746,-0.160,-0.160,-0.160,0.000,0.000,0.000
1640060730734103040,"2021-12-21,04:25:30",10.1.1.3,290,-0.170,-0.170,-0.170,0.000,0.000,0.000
1640060730785943040,"2021-12-21,04:25:30",10.1.1.3,0.34299683570861816,-0.170,-0.170,-0.170,0.000,0.000,0.000
1640060731191062016,"2021-12-21,04:25:31",10.1.1.3,403,-0.180,-0.180,-0.180,0.000,0.000,0.000
1640060731208608000,"2021-12-21,04:25:31",10.1.1.3,0.42104196548461914,-0.180,-0.180,-0.180,0.000,0.000,0.000
1640060731521633024,"2021-12-21,04:25:31",10.1.1.3,311,-0.190,-0.190,-0.190,0.000,0.000,0.000
1640060731548705024,"2021-12-21,04:25:31",10.1.1.3,0.3388829231262207,-0.190,-0.190,-0.190,0.000,0.000,0.000
1640060731862807040,"2021-12-21,04:25:31",10.1.1.3,312,-0.200,-0.200,-0.200,0.000,0.000,0.000
1640060731960493056,"2021-12-21,04:25:31",10.1.1.3,0.4101269245147705,-0.200,-0.200,-0.200,0.000,0.000,0.000
1640060732243401984,"2021-12-21,04:25:32",10.1.1.3,279,-0.210,-0.210,-0.210,0.000,0.000,0.000
1640060732274522112,"2021-12-21,04:25:32",10.1.1.3,0.3127250671386719,-0.210,-0.210,-0.210,0.000,0.000,0.000
1640060732621592064,"2021-12-21,04:25:32",10.1.1.3,343,-0.220,-0.220,-0.220,0.000,0.000,0.000
1640060732696867072,"2021-12-21,04:25:32",10.1.1.3,0.4193298816680908,-0.220,-0.220,-0.220,0.000,0.000,0.000
1640060732990597120,"2021-12-21,04:25:32",10.1.1.3,292,-0.230,-0.230,-0.230,0.000,0.000,0.000
1640060733031894016,"2021-12-21,04:25:33",10.1.1.3,0.33376407623291016,-0.230,-0.230,-0.230,0.000,0.000,0.000
1640060733364547840,"2021-12-21,04:25:33",10.1.1.3,328,-0.240,-0.240,-0.240,0.000,0.000,0.000
1640060733433779968,"2021-12-21,04:25:33",10.1.1.3,0.3982090950012207,-0.240,-0.240,-0.240,0.000,0.000,0.000
1640060733724320768,"2021-12-21,04:25:33",10.1.1.3,289,-0.250,-0.250,-0.250,0.000,0.000,0.000
1640060733769310976,"2021-12-21,04:25:33",10.1.1.3,0.33158302307128906,-0.250,-0.250,-0.250,0.000,0.000,0.000
1640060734097017088,"2021-12-21,04:25:34",10.1.1.3,323,-0.260,-0.260,-0.260,0.000,0.000,0.000
1640060734154648064,"2021-12-21,04:25:34",10.1.1.3,0.3814380168914795,-0.260,-0.260,-0.260,0.000,0.000,0.000
1640060734483161088,"2021-12-21,04:25:34",10.1.1.3,326,-0.270,-0.270,-0.270,0.000,0.000,0.000
1640060734539525888,"2021-12-21,04:25:34",10.1.1.3,0.3827939033508301,-0.270,-0.270,-0.270,0.000,0.000,0.000
1640060734849374976,"2021-12-21,04:25:34",10.1.1.3,306,-0.280,-0.280,-0.280,0.000,0.000,0.000
1640060734926958080,"2021-12-21,04:25:34",10.1.1.3,0.384814977645874,-0.280,-0.280,-0.280,0.000,0.000,0.000
1640060735240118016,"2021-12-21,04:25:35",10.1.1.3,310,-0.290,-0.290,-0.290,0.000,0.000,0.000
1640060735276310016,"2021-12-21,04:25:35",10.1.1.3,0.3469219207763672,-0.290,-0.290,-0.290,0.000,0.000,0.000
1640060735639774208,"2021-12-21,04:25:35",10.1.1.3,0.3610999584197998,-0.300,-0.300,-0.300,0.000,0.000,0.000
1640060735674923776,"2021-12-21,04:25:35",10.1.1.3,-4,-0.310,-0.310,-0.310,0.000,0.000,0.000
1640060736087706112,"2021-12-21,04:25:36",10.1.1.3,0.44557905197143555,-0.310,-0.310,-0.310,0.000,0.000,0.000
1640060736397110016,"2021-12-21,04:25:36",10.1.1.3,305,-0.320,-0.320,-0.320,0.000,0.000,0.000
1640060736428587008,"2021-12-21,04:25:36",10.1.1.3,0.33746910095214844,-0.320,-0.320,-0.320,0.000,0.000,0.000
1640060736759283968,"2021-12-21,04:25:36",10.1.1.3,328,-0.330,-0.330,-0.330,0.000,0.000,0.000
1640060736800946944,"2021-12-21,04:25:36",10.1.1.3,0.3706519603729248,-0.330,-0.330,-0.330,0.000,0.000,0.000
1640060737138659072,"2021-12-21,04:25:37",10.1.1.3,333,-0.340,-0.340,-0.340,0.000,0.000,0.000
1640060737219369984,"2021-12-21,04:25:37",10.1.1.3,0.4163839817047119,-0.340,-0.340,-0.340,0.000,0.000,0.000
1640060737530680064,"2021-12-21,04:25:37",10.1.1.3,307,-0.350,-0.350,-0.350,0.000,0.000,0.000
1640060737569943040,"2021-12-21,04:25:37",10.1.1.3,0.34886717796325684,-0.350,-0.350,-0.350,0.000,0.000,0.000
1640060737886493952,"2021-12-21,04:25:37",10.1.1.3,313,-0.360,-0.360,-0.360,0.000,0.000,0.000
1640060737916750080,"2021-12-21,04:25:37",10.1.1.3,0.34493017196655273,-0.360,-0.360,-0.360,0.000,0.000,0.000
1640060738220595968,"2021-12-21,04:25:38",10.1.1.3,300,-0.370,-0.370,-0.370,0.000,0.000,0.000
1640060738263636224,"2021-12-21,04:25:38",10.1.1.3,0.3437309265136719,-0.370,-0.370,-0.370,0.000,0.000,0.000
1640060738600191232,"2021-12-21,04:25:38",10.1.1.3,333,-0.380,-0.380,-0.380,0.000,0.000,0.000
1640060738640868864,"2021-12-21,04:25:38",10.1.1.3,0.3754558563232422,-0.380,-0.380,-0.380,0.000,0.000,0.000
1640060738990840832,"2021-12-21,04:25:38",10.1.1.3,348,-0.390,-0.390,-0.390,0.000,0.000,0.000
1640060739063628800,"2021-12-21,04:25:39",10.1.1.3,0.42124199867248535,-0.390,-0.390,-0.390,0.000,0.000,0.000
1640060739373064960,"2021-12-21,04:25:39",10.1.1.3,307,-0.400,-0.400,-0.400,0.000,0.000,0.000
1640060739400971776,"2021-12-21,04:25:39",10.1.1.3,0.33539700508117676,-0.400,-0.400,-0.400,0.000,0.000,0.000
1640060739745763072,"2021-12-21,04:25:39",10.1.1.3,333,-0.410,-0.410,-0.410,0.000,0.000,0.000
1640060739783309824,"2021-12-21,04:25:39",10.1.1.3,0.3708381652832031,-0.410,-0.410,-0.410,0.000,0.000,0.000
1640060740111972096,"2021-12-21,04:25:40",10.1.1.3,324,-0.420,-0.420,-0.420,0.000,0.000,0.000
1640060740166038016,"2021-12-21,04:25:40",10.1.1.3,0.37883591651916504,-0.420,-0.420,-0.420,0.000,0.000,0.000
1640060740476221952,"2021-12-21,04:25:40",10.1.1.3,305,-0.430,-0.430,-0.430,0.000,0.000,0.000
1640060740537645056,"2021-12-21,04:25:40",10.1.1.3,0.3674631118774414,-0.430,-0.430,-0.430,0.000,0.000,0.000
1640060740844646912,"2021-12-21,04:25:40",10.1.1.3,301,-0.440,-0.440,-0.440,0.000,0.000,0.000
1640060740881705984,"2021-12-21,04:25:40",10.1.1.3,0.3392910957336426,-0.440,-0.440,-0.440,0.000,0.000,0.000
1640060741246426112,"2021-12-21,04:25:41",10.1.1.3,358,-0.450,-0.450,-0.450,0.000,0.000,0.000
1640060741256280832,"2021-12-21,04:25:41",10.1.1.3,0.3680899143218994,-0.450,-0.450,-0.450,0.000,0.000,0.000
1640060741607919872,"2021-12-21,04:25:41",10.1.1.3,346,-0.460,-0.460,-0.460,0.000,0.000,0.000
1640060741616300032,"2021-12-21,04:25:41",10.1.1.3,0.35477280616760254,-0.460,-0.460,-0.460,0.000,0.000,0.000
1640060742024943104,"2021-12-21,04:25:42",10.1.1.3,406,-0.470,-0.470,-0.470,0.000,0.000,0.000
1640060742089271040,"2021-12-21,04:25:42",10.1.1.3,0.4707200527191162,-0.470,-0.470,-0.470,0.000,0.000,0.000
1640060742383966976,"2021-12-21,04:25:42",10.1.1.3,292,-0.480,-0.480,-0.480,0.000,0.000,0.000
1640060742400209920,"2021-12-21,04:25:42",10.1.1.3,0.3089320659637451,-0.480,-0.480,-0.480,0.000,0.000,0.000
1640060742774648832,"2021-12-21,04:25:42",10.1.1.3,369,-0.490,-0.490,-0.490,0.000,0.000,0.000
1640060742825093888,"2021-12-21,04:25:42",10.1.1.3,0.4204061031341553,-0.490,-0.490,-0.490,0.000,0.000,0.000
1640060743148372992,"2021-12-21,04:25:43",10.1.1.3,321,-0.480,-0.480,-0.480,0.000,0.000,0.000
1640060743183002112,"2021-12-21,04:25:43",10.1.1.3,0.35634398460388184,-0.480,-0.480,-0.480,0.000,0.000,0.000
1640060743513330944,"2021-12-21,04:25:43",10.1.1.3,321,-0.470,-0.470,-0.470,0.000,0.000,0.000
1640060743577444096,"2021-12-21,04:25:43",10.1.1.3,0.3900279998779297,-0.470,-0.470,-0.470,0.000,0.000,0.000
1640060743867314944,"2021-12-21,04:25:43",10.1.1.3,288,-0.460,-0.460,-0.460,0.000,0.000,0.000
1640060743910094080,"2021-12-21,04:25:43",10.1.1.3,0.33106398582458496,-0.460,-0.460,-0.460,0.000,0.000,0.000
1640060744224306176,"2021-12-21,04:25:44",10.1.1.3,299,-0.450,-0.450,-0.450,0.000,0.000,0.000
1640060744270359040,"2021-12-21,04:25:44",10.1.1.3,0.34564709663391113,-0.450,-0.450,-0.450,0.000,0.000,0.000
1640060744595535104,"2021-12-21,04:25:44",10.1.1.3,316,-0.440,-0.440,-0.440,0.000,0.000,0.000
1640060744624222976,"2021-12-21,04:25:44",10.1.1.3,0.34534287452697754,-0.440,-0.440,-0.440,0.000,0.000,0.000
1640060744943515136,"2021-12-21,04:25:44",10.1.1.3,315,-0.430,-0.430,-0.430,0.000,0.000,0.000
1640060744965030912,"2021-12-21,04:25:44",10.1.1.3,0.33693981170654297,-0.430,-0.430,-0.430,0.000,0.000,0.000
1640060745303883008,"2021-12-21,04:25:45",10.1.1.3,329,-0.420,-0.420,-0.420,0.000,0.000,0.000
1640060745322283008,"2021-12-21,04:25:45",10.1.1.3,0.34841299057006836,-0.420,-0.420,-0.420,0.000,0.000,0.000
1640060745633534976,"2021-12-21,04:25:45",10.1.1.3,308,-0.410,-0.410,-0.410,0.000,0.000,0.000
1640060745658842112,"2021-12-21,04:25:45",10.1.1.3,0.33400893211364746,-0.410,-0.410,-0.410,0.000,0.000,0.000
1640060745964133120,"2021-12-21,04:25:45",10.1.1.3,303,-0.400,-0.400,-0.400,0.000,0.000,0.000
1640060745992225792,"2021-12-21,04:25:45",10.1.1.3,0.331679105758667,-0.400,-0.400,-0.400,0.000,0.000,0.000
1640060746322964992,"2021-12-21,04:25:46",10.1.1.3,328,-0.390,-0.390,-0.390,0.000,0.000,0.000
1640060746355056128,"2021-12-21,04:25:46",10.1.1.3,0.36072301864624023,-0.390,-0.390,-0.390,0.000,0.000,0.000
1640060746662213120,"2021-12-21,04:25:46",10.1.1.3,305,-0.380,-0.380,-0.380,0.000,0.000,0.000
1640060746701097984,"2021-12-21,04:25:46",10.1.1.3,0.3448660373687744,-0.380,-0.380,-0.380,0.000,0.000,0.000
1640060747022126080,"2021-12-21,04:25:47",10.1.1.3,318,-0.370,-0.370,-0.370,0.000,0.000,0.000
1640060747034849024,"2021-12-21,04:25:47",10.1.1.3,0.33104515075683594,-0.370,-0.370,-0.370,0.000,0.000,0.000
1640060747405143040,"2021-12-21,04:25:47",10.1.1.3,365,-0.360,-0.360,-0.360,0.000,0.000,0.000
1640060747432608000,"2021-12-21,04:25:47",10.1.1.3,0.3931570053100586,-0.360,-0.360,-0.360,0.000,0.000,0.000
1640060747733699072,"2021-12-21,04:25:47",10.1.1.3,299,-0.350,-0.350,-0.350,0.000,0.000,0.000
1640060747782733056,"2021-12-21,04:25:47",10.1.1.3,0.3484959602355957,-0.350,-0.350,-0.350,0.000,0.000,0.000
1640060748072527872,"2021-12-21,04:25:48",10.1.1.3,287,-0.340,-0.340,-0.340,0.000,0.000,0.000
1640060748116601088,"2021-12-21,04:25:48",10.1.1.3,0.3314089775085449,-0.340,-0.340,-0.340,0.000,0.000,0.000
1640060748431802880,"2021-12-21,04:25:48",10.1.1.3,312,-0.330,-0.330,-0.330,0.000,0.000,0.000
1640060748480736000,"2021-12-21,04:25:48",10.1.1.3,0.36141490936279297,-0.330,-0.330,-0.330,0.000,0.000,0.000
1640060748832212992,"2021-12-21,04:25:48",10.1.1.3,349,-0.320,-0.320,-0.320,0.000,0.000,0.000
1640060748911490048,"2021-12-21,04:25:48",10.1.1.3,0.4294149875640869,-0.320,-0.320,-0.320,0.000,0.000,0.000
1640060749202579968,"2021-12-21,04:25:49",10.1.1.3,289,-0.310,-0.310,-0.310,0.000,0.000,0.000
1640060749234585088,"2021-12-21,04:25:49",10.1.1.3,0.3218240737915039,-0.310,-0.310,-0.310,0.000,0.000,0.000
1640060749606219008,"2021-12-21,04:25:49",10.1.1.3,370,-0.300,-0.300,-0.300,0.000,0.000,0.000
1640060749639952896,"2021-12-21,04:25:49",10.1.1.3,0.4041750431060791,-0.300,-0.300,-0.300,0.000,0.000,0.000
1640060749932129024,"2021-12-21,04:25:49",10.1.1.3,290,-0.290,-0.290,-0.290,0.000,0.000,0.000
1640060749991023104,"2021-12-21,04:25:49",10.1.1.3,0.349606990814209,-0.290,-0.290,-0.290,0.000,0.000,0.000
1640060750331300096,"2021-12-21,04:25:50",10.1.1.3,333,-0.280,-0.280,-0.280,0.000,0.000,0.000
1640060750414002944,"2021-12-21,04:25:50",10.1.1.3,0.41805410385131836,-0.280,-0.280,-0.280,0.000,0.000,0.000
1640060750713617152,"2021-12-21,04:25:50",10.1.1.3,298,-0.270,-0.270,-0.270,0.000,0.000,0.000
1640060750783729920,"2021-12-21,04:25:50",10.1.1.3,0.36844491958618164,-0.270,-0.270,-0.270,0.000,0.000,0.000
1640060751100294144,"2021-12-21,04:25:51",10.1.1.3,312,-0.260,-0.260,-0.260,0.000,0.000,0.000
1640060751172609024,"2021-12-21,04:25:51",10.1.1.3,0.38480114936828613,-0.260,-0.260,-0.260,0.000,0.000,0.000
1640060751470128896,"2021-12-21,04:25:51",10.1.1.3,295,-0.250,-0.250,-0.250,0.000,0.000,0.000
1640060751494221056,"2021-12-21,04:25:51",10.1.1.3,0.31976890563964844,-0.250,-0.250,-0.250,0.000,0.000,0.000
1640060751839922944,"2021-12-21,04:25:51",10.1.1.3,343,-0.240,-0.240,-0.240,0.000,0.000,0.000
1640060751908404992,"2021-12-21,04:25:51",10.1.1.3,0.41252994537353516,-0.240,-0.240,-0.240,0.000,0.000,0.000
1640060752210498048,"2021-12-21,04:25:52",10.1.1.3,300,-0.230,-0.230,-0.230,0.000,0.000,0.000
1640060752248992000,"2021-12-21,04:25:52",10.1.1.3,0.3392219543457031,-0.230,-0.230,-0.230,0.000,0.000,0.000
1640060752568792064,"2021-12-21,04:25:52",10.1.1.3,317,-0.220,-0.220,-0.220,0.000,0.000,0.000
1640060752643879936,"2021-12-21,04:25:52",10.1.1.3,0.3924558162689209,-0.220,-0.220,-0.220,0.000,0.000,0.000
1640060752936853760,"2021-12-21,04:25:52",10.1.1.3,291,-0.210,-0.210,-0.210,0.000,0.000,0.000
1640060752970934016,"2021-12-21,04:25:52",10.1.1.3,0.3253471851348877,-0.210,-0.210,-0.210,0.000,0.000,0.000
1640060753356961024,"2021-12-21,04:25:53",10.1.1.3,383,-0.200,-0.200,-0.200,0.000,0.000,0.000
1640060753411799040,"2021-12-21,04:25:53",10.1.1.3,0.4384942054748535,-0.200,-0.200,-0.200,0.000,0.000,0.000
1640060753734353152,"2021-12-21,04:25:53",10.1.1.3,316,-0.190,-0.190,-0.190,0.000,0.000,0.000
1640060753776456192,"2021-12-21,04:25:53",10.1.1.3,0.35926318168640137,-0.190,-0.190,-0.190,0.000,0.000,0.000
1640060754097346048,"2021-12-21,04:25:54",10.1.1.3,317,-0.180,-0.180,-0.180,0.000,0.000,0.000
1640060754180044032,"2021-12-21,04:25:54",10.1.1.3,0.40192699432373047,-0.180,-0.180,-0.180,0.000,0.000,0.000
1640060754500961024,"2021-12-21,04:25:54",10.1.1.3,317,-0.170,-0.170,-0.170,0.000,0.000,0.000
1640060754558659072,"2021-12-21,04:25:54",10.1.1.3,0.37670302391052246,-0.170,-0.170,-0.170,0.000,0.000,0.000
1640060754906212096,"2021-12-21,04:25:54",10.1.1.3,340,-0.160,-0.160,-0.160,0.000,0.000,0.000
1640060754959068928,"2021-12-21,04:25:54",10.1.1.3,0.3977971076965332,-0.160,-0.160,-0.160,0.000,0.000,0.000
1640060755301158912,"2021-12-21,04:25:55",10.1.1.3,336,-0.150,-0.150,-0.150,0.000,0.000,0.000
1640060755329933056,"2021-12-21,04:25:55",10.1.1.3,0.3660571575164795,-0.150,-0.150,-0.150,0.000,0.000,0.000
1640060755633197056,"2021-12-21,04:25:55",10.1.1.3,301,-0.140,-0.140,-0.140,0.000,0.000,0.000
1640060755662682112,"2021-12-21,04:25:55",10.1.1.3,0.3310678005218506,-0.140,-0.140,-0.140,0.000,0.000,0.000
1640060755942641920,"2021-12-21,04:25:55",10.1.1.3,278,-0.130,-0.130,-0.130,0.000,0.000,0.000
1640060756002206208,"2021-12-21,04:25:56",10.1.1.3,0.3378469944000244,-0.130,-0.130,-0.130,0.000,0.000,0.000
1640060756352960000,"2021-12-21,04:25:56",10.1.1.3,348,-0.120,-0.120,-0.120,0.000,0.000,0.000
1640060756436086784,"2021-12-21,04:25:56",10.1.1.3,0.43165111541748047,-0.120,-0.120,-0.120,0.000,0.000,0.000
1640060756752728064,"2021-12-21,04:25:56",10.1.1.3,314,-0.110,-0.110,-0.110,0.000,0.000,0.000
1640060756779222016,"2021-12-21,04:25:56",10.1.1.3,0.34149789810180664,-0.110,-0.110,-0.110,0.000,0.000,0.000
1640060757093265920,"2021-12-21,04:25:57",10.1.1.3,311,-0.100,-0.100,-0.100,0.000,0.000,0.000
1640060757130949888,"2021-12-21,04:25:57",10.1.1.3,0.3498549461364746,-0.100,-0.100,-0.100,0.000,0.000,0.000
1640060757461647104,"2021-12-21,04:25:57",10.1.1.3,322,-0.090,-0.090,-0.090,0.000,0.000,0.000
1640060757519481856,"2021-12-21,04:25:57",10.1.1.3,0.3802800178527832,-0.090,-0.090,-0.090,0.000,0.000,0.000
1640060757820971008,"2021-12-21,04:25:57",10.1.1.3,294,-0.080,-0.080,-0.080,0.000,0.000,0.000
1640060757910568960,"2021-12-21,04:25:57",10.1.1.3,0.3840928077697754,-0.080,-0.080,-0.080,0.000,0.000,0.000
1640060758247003136,"2021-12-21,04:25:58",10.1.1.3,331,-0.070,-0.070,-0.070,0.000,0.000,0.000
1640060758294408192,"2021-12-21,04:25:58",10.1.1.3,0.3791651725769043,-0.070,-0.070,-0.070,0.000,0.000,0.000
1640060758630109952,"2021-12-21,04:25:58",10.1.1.3,323,-0.060,-0.060,-0.060,0.000,0.000,0.000
1640060758650432000,"2021-12-21,04:25:58",10.1.1.3,0.3423900604248047,-0.060,-0.060,-0.060,0.000,0.000,0.000
1640060759015755008,"2021-12-21,04:25:59",10.1.1.3,361,-0.050,-0.050,-0.050,0.000,0.000,0.000
1640060759092967936,"2021-12-21,04:25:59",10.1.1.3,0.43924903869628906,-0.050,-0.050,-0.050,0.000,0.000,0.000
1640060759388824832,"2021-12-21,04:25:59",10.1.1.3,293,-0.040,-0.040,-0.040,0.000,0.000,0.000
1640060759474889984,"2021-12-21,04:25:59",10.1.1.3,0.3804490566253662,-0.040,-0.040,-0.040,0.000,0.000,0.000
1640060759787851008,"2021-12-21,04:25:59",10.1.1.3,306,-0.030,-0.030,-0.030,0.000,0.000,0.000
1640060759845993984,"2021-12-21,04:25:59",10.1.1.3,0.36516404151916504,-0.030,-0.030,-0.030,0.000,0.000,0.000
1640060760183866880,"2021-12-21,04:26:00",10.1.1.3,336,-0.020,-0.020,-0.020,0.000,0.000,0.000
1640060760233553920,"2021-12-21,04:26:00",10.1.1.3,0.38602304458618164,-0.020,-0.020,-0.020,0.000,0.000,0.000
1640060760526032896,"2021-12-21,04:26:00",10.1.1.3,290,-0.010,-0.010,-0.010,0.000,0.000,0.000
1640060760579248896,"2021-12-21,04:26:00",10.1.1.3,0.344235897064209,-0.010,-0.010,-0.010,0.000,0.000,0.000
1640060760925467904,"2021-12-21,04:26:00",10.1.1.3,318,0.000,0.000,0.000,0.000,0.000,0.000
1640060760939791872,"2021-12-21,04:26:00",10.1.1.3,0.33336710929870605,0.000,0.000,0.000,0.000,0.000,0.000
1640060761267600896,"2021-12-21,04:26:01",10.1.1.3,323,-0.010,-0.010,-0.010,0.000,0.000,0.000
1640060761294923008,"2021-12-21,04:26:01",10.1.1.3,0.35384583473205566,-0.010,-0.010,-0.010,0.000,0.000,0.000
1640060761628209152,"2021-12-21,04:26:01",10.1.1.3,331,-0.020,-0.020,-0.020,0.000,0.000,0.000
1640060761745665024,"2021-12-21,04:26:01",10.1.1.3,0.449387788772583,-0.020,-0.020,-0.020,0.000,0.000,0.000
1640060762038779136,"2021-12-21,04:26:02",10.1.1.3,287,-0.030,-0.030,-0.030,0.000,0.000,0.000
1640060762123778048,"2021-12-21,04:26:02",10.1.1.3,0.3768770694732666,-0.030,-0.030,-0.030,0.000,0.000,0.000
1640060762413288960,"2021-12-21,04:26:02",10.1.1.3,287,-0.040,-0.040,-0.040,0.000,0.000,0.000
1640060762446567936,"2021-12-21,04:26:02",10.1.1.3,0.32053303718566895,-0.040,-0.040,-0.040,0.000,0.000,0.000
1640060762782653184,"2021-12-21,04:26:02",10.1.1.3,334,-0.050,-0.050,-0.050,0.000,0.000,0.000
1640060762810946816,"2021-12-21,04:26:02",10.1.1.3,0.36297106742858887,-0.050,-0.050,-0.050,0.000,0.000,0.000
1640060763112973824,"2021-12-21,04:26:03",10.1.1.3,298,-0.060,-0.060,-0.060,0.000,0.000,0.000
1640060763209922048,"2021-12-21,04:26:03",10.1.1.3,0.39571189880371094,-0.060,-0.060,-0.060,0.000,0.000,0.000
1640060763550913024,"2021-12-21,04:26:03",10.1.1.3,339,-0.070,-0.070,-0.070,0.000,0.000,0.000
1640060763570099968,"2021-12-21,04:26:03",10.1.1.3,0.3589510917663574,-0.070,-0.070,-0.070,0.000,0.000,0.000
1640060763861121024,"2021-12-21,04:26:03",10.1.1.3,288,-0.080,-0.080,-0.080,0.000,0.000,0.000
1640060763966716928,"2021-12-21,04:26:03",10.1.1.3,0.3938939571380615,-0.080,-0.080,-0.080,0.000,0.000,0.000
1640060764318540032,"2021-12-21,04:26:04",10.1.1.3,323,-0.090,-0.090,-0.090,0.000,0.000,0.000
1640060764372358912,"2021-12-21,04:26:04",10.1.1.3,0.3798658847808838,-0.090,-0.090,-0.090,0.000,0.000,0.000
1640060764663037184,"2021-12-21,04:26:04",10.1.1.3,286,-0.100,-0.100,-0.100,0.000,0.000,0.000
1640060764754633984,"2021-12-21,04:26:04",10.1.1.3,0.3795650005340576,-0.100,-0.100,-0.100,0.000,0.000,0.000
1640060765070350848,"2021-12-21,04:26:05",10.1.1.3,313,-0.110,-0.110,-0.110,0.000,0.000,0.000
1640060765127000064,"2021-12-21,04:26:05",10.1.1.3,0.3701300621032715,-0.110,-0.110,-0.110,0.000,0.000,0.000
1640060765432231936,"2021-12-21,04:26:05",10.1.1.3,302,-0.120,-0.120,-0.120,0.000,0.000,0.000
1640060765501677056,"2021-12-21,04:26:05",10.1.1.3,0.37244582176208496,-0.120,-0.120,-0.120,0.000,0.000,0.000
1640060765824794112,"2021-12-21,04:26:05",10.1.1.3,321,-0.130,-0.130,-0.130,0.000,0.000,0.000
1640060765896229120,"2021-12-21,04:26:05",10.1.1.3,0.3933370113372803,-0.130,-0.130,-0.130,0.000,0.000,0.000
1640060766187575040,"2021-12-21,04:26:06",10.1.1.3,289,-0.140,-0.140,-0.140,0.000,0.000,0.000
1640060766235322112,"2021-12-21,04:26:06",10.1.1.3,0.3368690013885498,-0.140,-0.140,-0.140,0.000,0.000,0.000
1640060766547601920,"2021-12-21,04:26:06",10.1.1.3,308,-0.150,-0.150,-0.150,0.000,0.000,0.000
1640060766592151040,"2021-12-21,04:26:06",10.1.1.3,0.3527829647064209,-0.150,-0.150,-0.150,0.000,0.000,0.000
1640060766901773824,"2021-12-21,04:26:06",10.1.1.3,308,-0.160,-0.160,-0.160,0.000,0.000,0.000
1640060766968846080,"2021-12-21,04:26:06",10.1.1.3,0.37522387504577637,-0.160,-0.160,-0.160,0.000,0.000,0.000
1640060767304003840,"2021-12-21,04:26:07",10.1.1.3,332,-0.170,-0.170,-0.170,0.000,0.000,0.000
1640060767345593088,"2021-12-21,04:26:07",10.1.1.3,0.37501001358032227,-0.170,-0.170,-0.170,0.000,0.000,0.000
1640060767632656128,"2021-12-21,04:26:07",10.1.1.3,285,-0.180,-0.180,-0.180,0.000,0.000,0.000
1640060767694956032,"2021-12-21,04:26:07",10.1.1.3,0.34749698638916016,-0.180,-0.180,-0.180,0.000,0.000,0.000
1640060768024493824,"2021-12-21,04:26:08",10.1.1.3,317,-0.190,-0.190,-0.190,0.000,0.000,0.000
1640060768056736000,"2021-12-21,04:26:08",10.1.1.3,0.34966206550598145,-0.190,-0.190,-0.190,0.000,0.000,0.000
1640060768404730112,"2021-12-21,04:26:08",10.1.1.3,345,-0.200,-0.200,-0.200,0.000,0.000,0.000
1640060768479182080,"2021-12-21,04:26:08",10.1.1.3,0.4197850227355957,-0.200,-0.200,-0.200,0.000,0.000,0.000
1640060768775616768,"2021-12-21,04:26:08",10.1.1.3,294,-0.210,-0.210,-0.210,0.000,0.000,0.000
1640060768825385984,"2021-12-21,04:26:08",10.1.1.3,0.3446660041809082,-0.210,-0.210,-0.210,0.000,0.000,0.000
1640060769188841984,"2021-12-21,04:26:09",10.1.1.3,360,-0.220,-0.220,-0.220,0.000,0.000,0.000
1640060769214394112,"2021-12-21,04:26:09",10.1.1.3,0.38675498962402344,-0.220,-0.220,-0.220,0.000,0.000,0.000
1640060769560313856,"2021-12-21,04:26:09",10.1.1.3,343,-0.230,-0.230,-0.230,0.000,0.000,0.000
1640060769598404864,"2021-12-21,04:26:09",10.1.1.3,0.3810849189758301,-0.230,-0.230,-0.230,0.000,0.000,0.000
1640060769918961920,"2021-12-21,04:26:09",10.1.1.3,309,-0.240,-0.240,-0.240,0.000,0.000,0.000
1640060770019404800,"2021-12-21,04:26:10",10.1.1.3,0.40971803665161133,-0.240,-0.240,-0.240,0.000,0.000,0.000
1640060770320339968,"2021-12-21,04:26:10",10.1.1.3,299,-0.250,-0.250,-0.250,0.000,0.000,0.000
1640060770426628096,"2021-12-21,04:26:10",10.1.1.3,0.4060049057006836,-0.250,-0.250,-0.250,0.000,0.000,0.000
1640060770741713152,"2021-12-21,04:26:10",10.1.1.3,313,-0.260,-0.260,-0.260,0.000,0.000,0.000
1640060770815964928,"2021-12-21,04:26:10",10.1.1.3,0.38818907737731934,-0.260,-0.260,-0.260,0.000,0.000,0.000
1640060771144898048,"2021-12-21,04:26:11",10.1.1.3,324,-0.270,-0.270,-0.270,0.000,0.000,0.000
1640060771188962816,"2021-12-21,04:26:11",10.1.1.3,0.3715221881866455,-0.270,-0.270,-0.270,0.000,0.000,0.000
1640060771504643072,"2021-12-21,04:26:11",10.1.1.3,311,-0.280,-0.280,-0.280,0.000,0.000,0.000
1640060771598292224,"2021-12-21,04:26:11",10.1.1.3,0.4080500602722168,-0.280,-0.280,-0.280,0.000,0.000,0.000
1640060771898611968,"2021-12-21,04:26:11",10.1.1.3,299,-0.290,-0.290,-0.290,0.000,0.000,0.000
1640060771975402240,"2021-12-21,04:26:11",10.1.1.3,0.37592196464538574,-0.290,-0.290,-0.290,0.000,0.000,0.000
1640060772305803008,"2021-12-21,04:26:12",10.1.1.3,328,-0.300,-0.300,-0.300,0.000,0.000,0.000
1640060772347538944,"2021-12-21,04:26:12",10.1.1.3,0.37078309059143066,-0.300,-0.300,-0.300,0.000,0.000,0.000
1640060772633317888,"2021-12-21,04:26:12",10.1.1.3,281,-0.310,-0.310,-0.310,0.000,0.000,0.000
1640060772677289984,"2021-12-21,04:26:12",10.1.1.3,0.3257479667663574,-0.310,-0.310,-0.310,0.000,0.000,0.000
1640060773054290944,"2021-12-21,04:26:13",10.1.1.3,360,-0.320,-0.320,-0.320,0.000,0.000,0.000
1640060773100062976,"2021-12-21,04:26:13",10.1.1.3,0.4061751365661621,-0.320,-0.320,-0.320,0.000,0.000,0.000
1640060773452956928,"2021-12-21,04:26:13",10.1.1.3,351,-0.330,-0.330,-0.330,0.000,0.000,0.000
1640060773549516800,"2021-12-21,04:26:13",10.1.1.3,0.44797778129577637,-0.330,-0.330,-0.330,0.000,0.000,0.000
1640060773843446016,"2021-12-21,04:26:13",10.1.1.3,292,-0.340,-0.340,-0.340,0.000,0.000,0.000
1640060773869008896,"2021-12-21,04:26:13",10.1.1.3,0.31825709342956543,-0.340,-0.340,-0.340,0.000,0.000,0.000
1640060774183987968,"2021-12-21,04:26:14",10.1.1.3,308,-0.350,-0.350,-0.350,0.000,0.000,0.000
1640060774216945920,"2021-12-21,04:26:14",10.1.1.3,0.3417229652404785,-0.350,-0.350,-0.350,0.000,0.000,0.000
1640060774503526912,"2021-12-21,04:26:14",10.1.1.3,285,-0.360,-0.360,-0.360,0.000,0.000,0.000
1640060774536171008,"2021-12-21,04:26:14",10.1.1.3,0.3180248737335205,-0.360,-0.360,-0.360,0.000,0.000,0.000
1640060774845309952,"2021-12-21,04:26:14",10.1.1.3,307,-0.370,-0.370,-0.370,0.000,0.000,0.000
1640060774854178048,"2021-12-21,04:26:14",10.1.1.3,0.31664299964904785,-0.370,-0.370,-0.370,0.000,0.000,0.000
1640060775144736000,"2021-12-21,04:26:15",10.1.1.3,289,-0.380,-0.380,-0.380,0.000,0.000,0.000
1640060775195055872,"2021-12-21,04:26:15",10.1.1.3,0.33948612213134766,-0.380,-0.380,-0.380,0.000,0.000,0.000
1640060775505112832,"2021-12-21,04:26:15",10.1.1.3,308,-0.390,-0.390,-0.390,0.000,0.000,0.000
1640060775523566848,"2021-12-21,04:26:15",10.1.1.3,0.3269059658050537,-0.390,-0.390,-0.390,0.000,0.000,0.000
1640060775873812992,"2021-12-21,04:26:15",10.1.1.3,348,-0.400,-0.400,-0.400,0.000,0.000,0.000
1640060775901641984,"2021-12-21,04:26:15",10.1.1.3,0.3759310245513916,-0.400,-0.400,-0.400,0.000,0.000,0.000
1640060776265551104,"2021-12-21,04:26:16",10.1.1.3,360,-0.410,-0.410,-0.410,0.000,0.000,0.000
1640060776331237120,"2021-12-21,04:26:16",10.1.1.3,0.4273548126220703,-0.410,-0.410,-0.410,0.000,0.000,0.000
1640060776654525952,"2021-12-21,04:26:16",10.1.1.3,321,-0.420,-0.420,-0.420,0.000,0.000,0.000
1640060776699172864,"2021-12-21,04:26:16",10.1.1.3,0.3662409782409668,-0.420,-0.420,-0.420,0.000,0.000,0.000
1640060777005104896,"2021-12-21,04:26:17",10.1.1.3,304,-0.430,-0.430,-0.430,0.000,0.000,0.000
1640060777038969088,"2021-12-21,04:26:17",10.1.1.3,0.33818602561950684,-0.430,-0.430,-0.430,0.000,0.000,0.000
1640060777345416960,"2021-12-21,04:26:17",10.1.1.3,304,-0.440,-0.440,-0.440,0.000,0.000,0.000
1640060777462565888,"2021-12-21,04:26:17",10.1.1.3,0.421583890914917,-0.440,-0.440,-0.440,0.000,0.000,0.000
1640060777773832960,"2021-12-21,04:26:17",10.1.1.3,309,-0.450,-0.450,-0.450,0.000,0.000,0.000
1640060777847124224,"2021-12-21,04:26:17",10.1.1.3,0.38324809074401855,-0.450,-0.450,-0.450,0.000,0.000,0.000
1640060778145136128,"2021-12-21,04:26:18",10.1.1.3,296,-0.460,-0.460,-0.460,0.000,0.000,0.000
1640060778166030848,"2021-12-21,04:26:18",10.1.1.3,0.3175239562988281,-0.460,-0.460,-0.460,0.000,0.000,0.000
1640060778473854976,"2021-12-21,04:26:18",10.1.1.3,306,-0.470,-0.470,-0.470,0.000,0.000,0.000
1640060778489080832,"2021-12-21,04:26:18",10.1.1.3,0.32166385650634766,-0.470,-0.470,-0.470,0.000,0.000,0.000
1640060778784739072,"2021-12-21,04:26:18",10.1.1.3,293,-0.480,-0.480,-0.480,0.000,0.000,0.000
1640060778807109120,"2021-12-21,04:26:18",10.1.1.3,0.31623220443725586,-0.480,-0.480,-0.480,0.000,0.000,0.000
1640060779097271040,"2021-12-21,04:26:19",10.1.1.3,288,-0.490,-0.490,-0.490,0.000,0.000,0.000
1640060779216679168,"2021-12-21,04:26:19",10.1.1.3,0.4081599712371826,-0.490,-0.490,-0.490,0.000,0.000,0.000
1640060779524967936,"2021-12-21,04:26:19",10.1.1.3,306,-0.480,-0.480,-0.480,0.000,0.000,0.000
1640060779604640000,"2021-12-21,04:26:19",10.1.1.3,0.3867919445037842,-0.480,-0.480,-0.480,0.000,0.000,0.000
1640060779894955008,"2021-12-21,04:26:19",10.1.1.3,288,-0.470,-0.470,-0.470,0.000,0.000,0.000
1640060779971340800,"2021-12-21,04:26:19",10.1.1.3,0.3654310703277588,-0.470,-0.470,-0.470,0.000,0.000,0.000
1640060780307343104,"2021-12-21,04:26:20",10.1.1.3,334,-0.460,-0.460,-0.460,0.000,0.000,0.000
1640060780383450880,"2021-12-21,04:26:20",10.1.1.3,0.4108619689941406,-0.460,-0.460,-0.460,0.000,0.000,0.000
1640060780691858176,"2021-12-21,04:26:20",10.1.1.3,306,-0.450,-0.450,-0.450,0.000,0.000,0.000
1640060780797853952,"2021-12-21,04:26:20",10.1.1.3,0.41301608085632324,-0.450,-0.450,-0.450,0.000,0.000,0.000
1640060781105217024,"2021-12-21,04:26:21",10.1.1.3,305,-0.440,-0.440,-0.440,0.000,0.000,0.000
1640060781163276032,"2021-12-21,04:26:21",10.1.1.3,0.36337709426879883,-0.440,-0.440,-0.440,0.000,0.000,0.000
1640060781496044032,"2021-12-21,04:26:21",10.1.1.3,325,-0.430,-0.430,-0.430,0.000,0.000,0.000
1640060781514811904,"2021-12-21,04:26:21",10.1.1.3,0.34395790100097656,-0.430,-0.430,-0.430,0.000,0.000,0.000
1640060781831460096,"2021-12-21,04:26:21",10.1.1.3,313,-0.420,-0.420,-0.420,0.000,0.000,0.000
1640060781898302976,"2021-12-21,04:26:21",10.1.1.3,0.37996912002563477,-0.420,-0.420,-0.420,0.000,0.000,0.000
1640060782221084160,"2021-12-21,04:26:22",10.1.1.3,318,-0.410,-0.410,-0.410,0.000,0.000,0.000
1640060782335974912,"2021-12-21,04:26:22",10.1.1.3,0.4337010383605957,-0.410,-0.410,-0.410,0.000,0.000,0.000
1640060782666981888,"2021-12-21,04:26:22",10.1.1.3,328,-0.400,-0.400,-0.400,0.000,0.000,0.000
1640060782758091008,"2021-12-21,04:26:22",10.1.1.3,0.4205021858215332,-0.400,-0.400,-0.400,0.000,0.000,0.000
1640060783076503040,"2021-12-21,04:26:23",10.1.1.3,314,-0.390,-0.390,-0.390,0.000,0.000,0.000
1640060783119920128,"2021-12-21,04:26:23",10.1.1.3,0.3579580783843994,-0.390,-0.390,-0.390,0.000,0.000,0.000
1640060783450695936,"2021-12-21,04:26:23",10.1.1.3,329,-0.380,-0.380,-0.380,0.000,0.000,0.000
1640060783503216128,"2021-12-21,04:26:23",10.1.1.3,0.38178300857543945,-0.380,-0.380,-0.380,0.000,0.000,0.000
1640060783859790080,"2021-12-21,04:26:23",10.1.1.3,354,-0.370,-0.370,-0.370,0.000,0.000,0.000
1640060783895726080,"2021-12-21,04:26:23",10.1.1.3,0.39001989364624023,-0.370,-0.370,-0.370,0.000,0.000,0.000
1640060784238477056,"2021-12-21,04:26:24",10.1.1.3,341,-0.360,-0.360,-0.360,0.000,0.000,0.000
1640060784251161088,"2021-12-21,04:26:24",10.1.1.3,0.35402488708496094,-0.360,-0.360,-0.360,0.000,0.000,0.000
1640060784547931904,"2021-12-21,04:26:24",10.1.1.3,295,-0.350,-0.350,-0.350,0.000,0.000,0.000
1640060784575699200,"2021-12-21,04:26:24",10.1.1.3,0.32291698455810547,-0.350,-0.350,-0.350,0.000,0.000,0.000
1640060784922753024,"2021-12-21,04:26:24",10.1.1.3,344,-0.340,-0.340,-0.340,0.000,0.000,0.000
1640060784994577920,"2021-12-21,04:26:24",10.1.1.3,0.4173591136932373,-0.340,-0.340,-0.340,0.000,0.000,0.000
1640060785278575872,"2021-12-21,04:26:25",10.1.1.3,281,-0.330,-0.330,-0.330,0.000,0.000,0.000
1640060785319222016,"2021-12-21,04:26:25",10.1.1.3,0.32267212867736816,-0.330,-0.330,-0.330,0.000,0.000,0.000
1640060785646612992,"2021-12-21,04:26:25",10.1.1.3,324,-0.320,-0.320,-0.320,0.000,0.000,0.000
1640060785703867904,"2021-12-21,04:26:25",10.1.1.3,0.3815791606903076,-0.320,-0.320,-0.320,0.000,0.000,0.000
1640060786037081088,"2021-12-21,04:26:26",10.1.1.3,330,-0.310,-0.310,-0.310,0.000,0.000,0.000
1640060786084304128,"2021-12-21,04:26:26",10.1.1.3,0.3775050640106201,-0.310,-0.310,-0.310,0.000,0.000,0.000
1640060786398902784,"2021-12-21,04:26:26",10.1.1.3,312,-0.300,-0.300,-0.300,0.000,0.000,0.000
1640060786450819072,"2021-12-21,04:26:26",10.1.1.3,0.3649630546569824,-0.300,-0.300,-0.300,0.000,0.000,0.000
1640060786771003904,"2021-12-21,04:26:26",10.1.1.3,318,-0.290,-0.290,-0.290,0.000,0.000,0.000
1640060786835766016,"2021-12-21,04:26:26",10.1.1.3,0.3835768699645996,-0.290,-0.290,-0.290,0.000,0.000,0.000
1640060787136056064,"2021-12-21,04:26:27",10.1.1.3,296,-0.280,-0.280,-0.280,0.000,0.000,0.000
1640060787220824832,"2021-12-21,04:26:27",10.1.1.3,0.3815419673919678,-0.280,-0.280,-0.280,0.000,0.000,0.000
1640060787542896128,"2021-12-21,04:26:27",10.1.1.3,314,-0.270,-0.270,-0.270,0.000,0.000,0.000
1640060787594374912,"2021-12-21,04:26:27",10.1.1.3,0.37185120582580566,-0.270,-0.270,-0.270,0.000,0.000,0.000
1640060787904882944,"2021-12-21,04:26:27",10.1.1.3,306,-0.260,-0.260,-0.260,0.000,0.000,0.000
1640060787980068096,"2021-12-21,04:26:27",10.1.1.3,0.3820769786834717,-0.260,-0.260,-0.260,0.000,0.000,0.000
1640060788328228096,"2021-12-21,04:26:28",10.1.1.3,344,-0.250,-0.250,-0.250,0.000,0.000,0.000
1640060788387762944,"2021-12-21,04:26:28",10.1.1.3,0.40431809425354004,-0.250,-0.250,-0.250,0.000,0.000,0.000
1640060788703769856,"2021-12-21,04:26:28",10.1.1.3,314,-0.240,-0.240,-0.240,0.000,0.000,0.000
1640060788750350848,"2021-12-21,04:26:28",10.1.1.3,0.3609318733215332,-0.240,-0.240,-0.240,0.000,0.000,0.000
1640060789104388864,"2021-12-21,04:26:29",10.1.1.3,350,-0.230,-0.230,-0.230,0.000,0.000,0.000
1640060789161863168,"2021-12-21,04:26:29",10.1.1.3,0.40859198570251465,-0.230,-0.230,-0.230,0.000,0.000,0.000
1640060789481883136,"2021-12-21,04:26:29",10.1.1.3,318,-0.220,-0.220,-0.220,0.000,0.000,0.000
1640060789505031936,"2021-12-21,04:26:29",10.1.1.3,0.341310977935791,-0.220,-0.220,-0.220,0.000,0.000,0.000
1640060789804044032,"2021-12-21,04:26:29",10.1.1.3,297,-0.210,-0.210,-0.210,0.000,0.000,0.000
1640060789891956992,"2021-12-21,04:26:29",10.1.1.3,0.3856070041656494,-0.210,-0.210,-0.210,0.000,0.000,0.000
1640060790212589056,"2021-12-21,04:26:30",10.1.1.3,318,-0.200,-0.200,-0.200,0.000,0.000,0.000
1640060790293294848,"2021-12-21,04:26:30",10.1.1.3,0.3994128704071045,-0.200,-0.200,-0.200,0.000,0.000,0.000
1640060790591474944,"2021-12-21,04:26:30",10.1.1.3,296,-0.190,-0.190,-0.190,0.000,0.000,0.000
1640060790659913984,"2021-12-21,04:26:30",10.1.1.3,0.36500000953674316,-0.190,-0.190,-0.190,0.000,0.000,0.000
1640060790993001984,"2021-12-21,04:26:30",10.1.1.3,329,-0.180,-0.180,-0.180,0.000,0.000,0.000
1640060791022084864,"2021-12-21,04:26:31",10.1.1.3,0.35961008071899414,-0.180,-0.180,-0.180,0.000,0.000,0.000
1640060791362500864,"2021-12-21,04:26:31",10.1.1.3,338,-0.170,-0.170,-0.170,0.000,0.000,0.000
1640060791420208896,"2021-12-21,04:26:31",10.1.1.3,0.39632296562194824,-0.170,-0.170,-0.170,0.000,0.000,0.000
1640060791739305984,"2021-12-21,04:26:31",10.1.1.3,317,-0.160,-0.160,-0.160,0.000,0.000,0.000
1640060791815161856,"2021-12-21,04:26:31",10.1.1.3,0.3935558795928955,-0.160,-0.160,-0.160,0.000,0.000,0.000
1640060792145113856,"2021-12-21,04:26:32",10.1.1.3,326,-0.150,-0.150,-0.150,0.000,0.000,0.000
1640060792173660928,"2021-12-21,04:26:32",10.1.1.3,0.35541510581970215,-0.150,-0.150,-0.150,0.000,0.000,0.000
1640060792467323136,"2021-12-21,04:26:32",10.1.1.3,291,-0.140,-0.140,-0.140,0.000,0.000,0.000
1640060792509176064,"2021-12-21,04:26:32",10.1.1.3,0.3338289260864258,-0.140,-0.140,-0.140,0.000,0.000,0.000
1640060792869550848,"2021-12-21,04:26:32",10.1.1.3,348,-0.130,-0.130,-0.130,0.000,0.000,0.000
1640060792929830912,"2021-12-21,04:26:32",10.1.1.3,0.4090428352355957,-0.130,-0.130,-0.130,0.000,0.000,0.000
1640060793236741120,"2021-12-21,04:26:33",10.1.1.3,305,-0.120,-0.120,-0.120,0.000,0.000,0.000
1640060793309331968,"2021-12-21,04:26:33",10.1.1.3,0.3776421546936035,-0.120,-0.120,-0.120,0.000,0.000,0.000
1640060793655979008,"2021-12-21,04:26:33",10.1.1.3,338,-0.110,-0.110,-0.110,0.000,0.000,0.000
1640060793691448832,"2021-12-21,04:26:33",10.1.1.3,0.37437891960144043,-0.110,-0.110,-0.110,0.000,0.000,0.000
1640060794025281792,"2021-12-21,04:26:34",10.1.1.3,332,-0.100,-0.100,-0.100,0.000,0.000,0.000
1640060794072168192,"2021-12-21,04:26:34",10.1.1.3,0.3791840076446533,-0.100,-0.100,-0.100,0.000,0.000,0.000
1640060794384546048,"2021-12-21,04:26:34",10.1.1.3,310,-0.090,-0.090,-0.090,0.000,0.000,0.000
1640060794445102080,"2021-12-21,04:26:34",10.1.1.3,0.371506929397583,-0.090,-0.090,-0.090,0.000,0.000,0.000
1640060794743657984,"2021-12-21,04:26:34",10.1.1.3,297,-0.080,-0.080,-0.080,0.000,0.000,0.000
1640060794790275072,"2021-12-21,04:26:34",10.1.1.3,0.3439970016479492,-0.080,-0.080,-0.080,0.000,0.000,0.000
1640060795095355904,"2021-12-21,04:26:35",10.1.1.3,303,-0.070,-0.070,-0.070,0.000,0.000,0.000
1640060795103357184,"2021-12-21,04:26:35",10.1.1.3,0.3114030361175537,-0.070,-0.070,-0.070,0.000,0.000,0.000
1640060795403655936,"2021-12-21,04:26:35",10.1.1.3,299,-0.060,-0.060,-0.060,0.000,0.000,0.000
1640060795462748928,"2021-12-21,04:26:35",10.1.1.3,0.35819506645202637,-0.060,-0.060,-0.060,0.000,0.000,0.000
1640060795771891968,"2021-12-21,04:26:35",10.1.1.3,297,-0.050,-0.050,-0.050,0.000,0.000,0.000
1640060795791101952,"2021-12-21,04:26:35",10.1.1.3,0.31680893898010254,-0.050,-0.050,-0.050,0.000,0.000,0.000
1640060796091522048,"2021-12-21,04:26:36",10.1.1.3,298,-0.040,-0.040,-0.040,0.000,0.000,0.000
1640060796141607936,"2021-12-21,04:26:36",10.1.1.3,0.3489539623260498,-0.040,-0.040,-0.040,0.000,0.000,0.000
1640060796420571136,"2021-12-21,04:26:36",10.1.1.3,277,-0.030,-0.030,-0.030,0.000,0.000,0.000
1640060796483642112,"2021-12-21,04:26:36",10.1.1.3,0.34087705612182617,-0.030,-0.030,-0.030,0.000,0.000,0.000
1640060796780332032,"2021-12-21,04:26:36",10.1.1.3,295,-0.020,-0.020,-0.020,0.000,0.000,0.000
1640060796801539072,"2021-12-21,04:26:36",10.1.1.3,0.31642699241638184,-0.020,-0.020,-0.020,0.000,0.000,0.000
1640060797121160960,"2021-12-21,04:26:37",10.1.1.3,318,-0.010,-0.010,-0.010,0.000,0.000,0.000
1640060797214036992,"2021-12-21,04:26:37",10.1.1.3,0.41095590591430664,-0.010,-0.010,-0.010,0.000,0.000,0.000
1640060797504034048,"2021-12-21,04:26:37",10.1.1.3,287,0.000,0.000,0.000,0.000,0.000,0.000
1640060797555464960,"2021-12-21,04:26:37",10.1.1.3,0.3392829895019531,0.000,0.000,0.000,0.000,0.000,0.000
1640060797855420160,"2021-12-21,04:26:37",10.1.1.3,297,-0.010,-0.010,-0.010,0.000,0.000,0.000
1640060797940382976,"2021-12-21,04:26:37",10.1.1.3,0.3831348419189453,-0.010,-0.010,-0.010,0.000,0.000,0.000
1640060798290638080,"2021-12-21,04:26:38",10.1.1.3,347,-0.020,-0.020,-0.020,0.000,0.000,0.000
1640060798300015872,"2021-12-21,04:26:38",10.1.1.3,0.35713791847229004,-0.020,-0.020,-0.020,0.000,0.000,0.000
1640060798640476928,"2021-12-21,04:26:38",10.1.1.3,338,-0.030,-0.030,-0.030,0.000,0.000,0.000
1640060798686317056,"2021-12-21,04:26:38",10.1.1.3,0.38414597511291504,-0.030,-0.030,-0.030,0.000,0.000,0.000
1640060799012443904,"2021-12-21,04:26:39",10.1.1.3,323,-0.040,-0.040,-0.040,0.000,0.000,0.000
1640060799071427072,"2021-12-21,04:26:39",10.1.1.3,0.382936954498291,-0.040,-0.040,-0.040,0.000,0.000,0.000
1640060799412941056,"2021-12-21,04:26:39",10.1.1.3,339,-0.050,-0.050,-0.050,0.000,0.000,0.000
1640060799456843008,"2021-12-21,04:26:39",10.1.1.3,0.3841280937194824,-0.050,-0.050,-0.050,0.000,0.000,0.000
1640060799831373824,"2021-12-21,04:26:39",10.1.1.3,368,-0.060,-0.060,-0.060,0.000,0.000,0.000
1640060799881107200,"2021-12-21,04:26:39",10.1.1.3,0.4188539981842041,-0.060,-0.060,-0.060,0.000,0.000,0.000
1640060800179543040,"2021-12-21,04:26:40",10.1.1.3,296,-0.070,-0.070,-0.070,0.000,0.000,0.000
1640060800223387904,"2021-12-21,04:26:40",10.1.1.3,0.3407559394836426,-0.070,-0.070,-0.070,0.000,0.000,0.000
1640060800506896128,"2021-12-21,04:26:40",10.1.1.3,281,-0.080,-0.080,-0.080,0.000,0.000,0.000
1640060800615710976,"2021-12-21,04:26:40",10.1.1.3,0.391110897064209,-0.080,-0.080,-0.080,0.000,0.000,0.000
1640060800917489920,"2021-12-21,04:26:40",10.1.1.3,299,-0.090,-0.090,-0.090,0.000,0.000,0.000
1640060800976916992,"2021-12-21,04:26:40",10.1.1.3,0.3595459461212158,-0.090,-0.090,-0.090,0.000,0.000,0.000
1640060801297484032,"2021-12-21,04:26:41",10.1.1.3,314,-0.100,-0.100,-0.100,0.000,0.000,0.000
1640060801384758016,"2021-12-21,04:26:41",10.1.1.3,0.4017798900604248,-0.100,-0.100,-0.100,0.000,0.000,0.000
1640060801708504064,"2021-12-21,04:26:41",10.1.1.3,321,-0.110,-0.110,-0.110,0.000,0.000,0.000
1640060801753752832,"2021-12-21,04:26:41",10.1.1.3,0.3663778305053711,-0.110,-0.110,-0.110,0.000,0.000,0.000
1640060802051397120,"2021-12-21,04:26:42",10.1.1.3,296,-0.120,-0.120,-0.120,0.000,0.000,0.000
1640060802084592128,"2021-12-21,04:26:42",10.1.1.3,0.32940006256103516,-0.120,-0.120,-0.120,0.000,0.000,0.000
1640060802400964864,"2021-12-21,04:26:42",10.1.1.3,310,-0.130,-0.130,-0.130,0.000,0.000,0.000
1640060802482533888,"2021-12-21,04:26:42",10.1.1.3,0.39251708984375,-0.130,-0.130,-0.130,0.000,0.000,0.000
1640060802821146880,"2021-12-21,04:26:42",10.1.1.3,336,-0.140,-0.140,-0.140,0.000,0.000,0.000
1640060802905672960,"2021-12-21,04:26:42",10.1.1.3,0.42161107063293457,-0.140,-0.140,-0.140,0.000,0.000,0.000
1640060803222233088,"2021-12-21,04:26:43",10.1.1.3,311,-0.150,-0.150,-0.150,0.000,0.000,0.000
1640060803299635968,"2021-12-21,04:26:43",10.1.1.3,0.3896780014038086,-0.150,-0.150,-0.150,0.000,0.000,0.000
1640060803621718016,"2021-12-21,04:26:43",10.1.1.3,320,-0.160,-0.160,-0.160,0.000,0.000,0.000
1640060803661776128,"2021-12-21,04:26:43",10.1.1.3,0.3605921268463135,-0.160,-0.160,-0.160,0.000,0.000,0.000
1640060804002831872,"2021-12-21,04:26:44",10.1.1.3,338,-0.170,-0.170,-0.170,0.000,0.000,0.000
1640060804026109952,"2021-12-21,04:26:44",10.1.1.3,0.36156201362609863,-0.170,-0.170,-0.170,0.000,0.000,0.000
1640060804303847936,"2021-12-21,04:26:44",10.1.1.3,275,-0.180,-0.180,-0.180,0.000,0.000,0.000
1640060804366658816,"2021-12-21,04:26:44",10.1.1.3,0.33888721466064453,-0.180,-0.180,-0.180,0.000,0.000,0.000
1640060804674333184,"2021-12-21,04:26:44",10.1.1.3,305,-0.190,-0.190,-0.190,0.000,0.000,0.000
1640060804755002112,"2021-12-21,04:26:44",10.1.1.3,0.38614606857299805,-0.190,-0.190,-0.190,0.000,0.000,0.000
1640060805106205952,"2021-12-21,04:26:45",10.1.1.3,347,-0.200,-0.200,-0.200,0.000,0.000,0.000
1640060805196557056,"2021-12-21,04:26:45",10.1.1.3,0.4383890628814697,-0.200,-0.200,-0.200,0.000,0.000,0.000
1640060805484446976,"2021-12-21,04:26:45",10.1.1.3,286,-0.210,-0.210,-0.210,0.000,0.000,0.000
1640060805554265856,"2021-12-21,04:26:45",10.1.1.3,0.35643982887268066,-0.210,-0.210,-0.210,0.000,0.000,0.000
1640060805854600960,"2021-12-21,04:26:45",10.1.1.3,297,-0.220,-0.220,-0.220,0.000,0.000,0.000
1640060805979783168,"2021-12-21,04:26:45",10.1.1.3,0.42250585556030273,-0.220,-0.220,-0.220,0.000,0.000,0.000
1640060806284542976,"2021-12-21,04:26:46",10.1.1.3,303,-0.230,-0.230,-0.230,0.000,0.000,0.000
1640060806356579072,"2021-12-21,04:26:46",10.1.1.3,0.37529611587524414,-0.230,-0.230,-0.230,0.000,0.000,0.000
1640060806675195904,"2021-12-21,04:26:46",10.1.1.3,317,-0.240,-0.240,-0.240,0.000,0.000,0.000
1640060806710494976,"2021-12-21,04:26:46",10.1.1.3,0.35248279571533203,-0.240,-0.240,-0.240,0.000,0.000,0.000
1640060807061718016,"2021-12-21,04:26:47",10.1.1.3,349,-0.250,-0.250,-0.250,0.000,0.000,0.000
1640060807138444032,"2021-12-21,04:26:47",10.1.1.3,0.42675209045410156,-0.250,-0.250,-0.250,0.000,0.000,0.000
1640060807435652096,"2021-12-21,04:26:47",10.1.1.3,295,-0.260,-0.260,-0.260,0.000,0.000,0.000
1640060807552689152,"2021-12-21,04:26:47",10.1.1.3,0.4130411148071289,-0.260,-0.260,-0.260,0.000,0.000,0.000
1640060807845814016,"2021-12-21,04:26:47",10.1.1.3,289,-0.270,-0.270,-0.270,0.000,0.000,0.000
1640060807944093952,"2021-12-21,04:26:47",10.1.1.3,0.3884599208831787,-0.270,-0.270,-0.270,0.000,0.000,0.000
1640060808235598080,"2021-12-21,04:26:48",10.1.1.3,289,-0.280,-0.280,-0.280,0.000,0.000,0.000
1640060808341563904,"2021-12-21,04:26:48",10.1.1.3,0.39517998695373535,-0.280,-0.280,-0.280,0.000,0.000,0.000
1640060808674205184,"2021-12-21,04:26:48",10.1.1.3,330,-0.290,-0.290,-0.290,0.000,0.000,0.000
1640060808765851904,"2021-12-21,04:26:48",10.1.1.3,0.42266392707824707,-0.290,-0.290,-0.290,0.000,0.000,0.000
1640060809086272000,"2021-12-21,04:26:49",10.1.1.3,318,-0.300,-0.300,-0.300,0.000,0.000,0.000
1640060809154565120,"2021-12-21,04:26:49",10.1.1.3,0.38714098930358887,-0.300,-0.300,-0.300,0.000,0.000,0.000
1640060809484100096,"2021-12-21,04:26:49",10.1.1.3,327,-0.310,-0.310,-0.310,0.000,0.000,0.000
1640060809570065920,"2021-12-21,04:26:49",10.1.1.3,0.41367220878601074,-0.310,-0.310,-0.310,0.000,0.000,0.000
1640060809888252928,"2021-12-21,04:26:49",10.1.1.3,316,-0.320,-0.320,-0.320,0.000,0.000,0.000
1640060809964397056,"2021-12-21,04:26:49",10.1.1.3,0.39270901679992676,-0.320,-0.320,-0.320,0.000,0.000,0.000
1640060810245094144,"2021-12-21,04:26:50",10.1.1.3,278,-0.330,-0.330,-0.330,0.000,0.000,0.000
1640060810357233152,"2021-12-21,04:26:50",10.1.1.3,0.3910191059112549,-0.330,-0.330,-0.330,0.000,0.000,0.000
1640060810649040896,"2021-12-21,04:26:50",10.1.1.3,289,-0.340,-0.340,-0.340,0.000,0.000,0.000
1640060810750260224,"2021-12-21,04:26:50",10.1.1.3,0.39142799377441406,-0.340,-0.340,-0.340,0.000,0.000,0.000
1640060811070113792,"2021-12-21,04:26:51",10.1.1.3,318,-0.350,-0.350,-0.350,0.000,0.000,0.000
1640060811133760000,"2021-12-21,04:26:51",10.1.1.3,0.3822669982910156,-0.350,-0.350,-0.350,0.000,0.000,0.000
1640060811445529856,"2021-12-21,04:26:51",10.1.1.3,308,-0.360,-0.360,-0.360,0.000,0.000,0.000
1640060811545923072,"2021-12-21,04:26:51",10.1.1.3,0.40935301780700684,-0.360,-0.360,-0.360,0.000,0.000,0.000
1640060811835303168,"2021-12-21,04:26:51",10.1.1.3,287,-0.370,-0.370,-0.370,0.000,0.000,0.000
1640060811934902784,"2021-12-21,04:26:51",10.1.1.3,0.38738203048706055,-0.370,-0.370,-0.370,0.000,0.000,0.000
1640060812280124928,"2021-12-21,04:26:52",10.1.1.3,331,-0.380,-0.380,-0.380,0.000,0.000,0.000
1640060812342011904,"2021-12-21,04:26:52",10.1.1.3,0.3936910629272461,-0.380,-0.380,-0.380,0.000,0.000,0.000
1640060812623999232,"2021-12-21,04:26:52",10.1.1.3,280,-0.390,-0.390,-0.390,0.000,0.000,0.000
1640060812674923008,"2021-12-21,04:26:52",10.1.1.3,0.3316340446472168,-0.390,-0.390,-0.390,0.000,0.000,0.000
1640060813022157824,"2021-12-21,04:26:53",10.1.1.3,345,-0.400,-0.400,-0.400,0.000,0.000,0.000
1640060813060507904,"2021-12-21,04:26:53",10.1.1.3,0.3843419551849365,-0.400,-0.400,-0.400,0.000,0.000,0.000
1640060813382951936,"2021-12-21,04:26:53",10.1.1.3,318,-0.410,-0.410,-0.410,0.000,0.000,0.000
1640060813396784896,"2021-12-21,04:26:53",10.1.1.3,0.3328440189361572,-0.410,-0.410,-0.410,0.000,0.000,0.000
1640060813727108864,"2021-12-21,04:26:53",10.1.1.3,328,-0.420,-0.420,-0.420,0.000,0.000,0.000
1640060813799561984,"2021-12-21,04:26:53",10.1.1.3,0.40137195587158203,-0.420,-0.420,-0.420,0.000,0.000,0.000
1640060814082670080,"2021-12-21,04:26:54",10.1.1.3,281,-0.430,-0.430,-0.430,0.000,0.000,0.000
1640060814136802048,"2021-12-21,04:26:54",10.1.1.3,0.3359529972076416,-0.430,-0.430,-0.430,0.000,0.000,0.000
1640060814471234048,"2021-12-21,04:26:54",10.1.1.3,329,-0.440,-0.440,-0.440,0.000,0.000,0.000
1640060814549148928,"2021-12-21,04:26:54",10.1.1.3,0.4074840545654297,-0.440,-0.440,-0.440,0.000,0.000,0.000
1640060814900909824,"2021-12-21,04:26:54",10.1.1.3,349,-0.450,-0.450,-0.450,0.000,0.000,0.000
1640060814962827008,"2021-12-21,04:26:54",10.1.1.3,0.4118199348449707,-0.450,-0.450,-0.450,0.000,0.000,0.000
1640060815290710016,"2021-12-21,04:26:55",10.1.1.3,324,-0.460,-0.460,-0.460,0.000,0.000,0.000
1640060815379302144,"2021-12-21,04:26:55",10.1.1.3,0.4133570194244385,-0.460,-0.460,-0.460,0.000,0.000,0.000
1640060815670790912,"2021-12-21,04:26:55",10.1.1.3,289,-0.470,-0.470,-0.470,0.000,0.000,0.000
1640060815705414912,"2021-12-21,04:26:55",10.1.1.3,0.3245849609375,-0.470,-0.470,-0.470,0.000,0.000,0.000
1640060816052123904,"2021-12-21,04:26:56",10.1.1.3,341,-0.480,-0.480,-0.480,0.000,0.000,0.000
1640060816083073024,"2021-12-21,04:26:56",10.1.1.3,0.37287402153015137,-0.480,-0.480,-0.480,0.000,0.000,0.000
1640060816441349120,"2021-12-21,04:26:56",10.1.1.3,356,-0.490,-0.490,-0.490,0.000,0.000,0.000
1640060816519656960,"2021-12-21,04:26:56",10.1.1.3,0.4352860450744629,-0.490,-0.490,-0.490,0.000,0.000,0.000
1640060816857063936,"2021-12-21,04:26:56",10.1.1.3,329,-0.480,-0.480,-0.480,0.000,0.000,0.000
1640060816926223872,"2021-12-21,04:26:56",10.1.1.3,0.40482306480407715,-0.480,-0.480,-0.480,0.000,0.000,0.000
1640060817238169856,"2021-12-21,04:26:57",10.1.1.3,309,-0.470,-0.470,-0.470,0.000,0.000,0.000
1640060817321955072,"2021-12-21,04:26:57",10.1.1.3,0.39307522773742676,-0.470,-0.470,-0.470,0.000,0.000,0.000
1640060817648869888,"2021-12-21,04:26:57",10.1.1.3,323,-0.460,-0.460,-0.460,0.000,0.000,0.000
1640060817716269056,"2021-12-21,04:26:57",10.1.1.3,0.39170098304748535,-0.460,-0.460,-0.460,0.000,0.000,0.000
1640060818026458112,"2021-12-21,04:26:58",10.1.1.3,308,-0.450,-0.450,-0.450,0.000,0.000,0.000
1640060818102375936,"2021-12-21,04:26:58",10.1.1.3,0.3846561908721924,-0.450,-0.450,-0.450,0.000,0.000,0.000
1640060818397556992,"2021-12-21,04:26:58",10.1.1.3,293,-0.440,-0.440,-0.440,0.000,0.000,0.000
1640060818505945088,"2021-12-21,04:26:58",10.1.1.3,0.4022648334503174,-0.440,-0.440,-0.440,0.000,0.000,0.000
1640060818817819136,"2021-12-21,04:26:58",10.1.1.3,310,-0.430,-0.430,-0.430,0.000,0.000,0.000
1640060818894017024,"2021-12-21,04:26:58",10.1.1.3,0.3865389823913574,-0.430,-0.430,-0.430,0.000,0.000,0.000
1640060819216237056,"2021-12-21,04:26:59",10.1.1.3,320,-0.420,-0.420,-0.420,0.000,0.000,0.000
1640060819302158080,"2021-12-21,04:26:59",10.1.1.3,0.4065380096435547,-0.420,-0.420,-0.420,0.000,0.000,0.000
1640060819595031040,"2021-12-21,04:26:59",10.1.1.3,291,-0.410,-0.410,-0.410,0.000,0.000,0.000
1640060819686638080,"2021-12-21,04:26:59",10.1.1.3,0.3787250518798828,-0.410,-0.410,-0.410,0.000,0.000,0.000
1640060820006578944,"2021-12-21,04:27:00",10.1.1.3,316,-0.400,-0.400,-0.400,0.000,0.000,0.000
1640060820094561024,"2021-12-21,04:27:00",10.1.1.3,0.4047088623046875,-0.400,-0.400,-0.400,0.000,0.000,0.000
1640060820425527040,"2021-12-21,04:27:00",10.1.1.3,328,-0.390,-0.390,-0.390,0.000,0.000,0.000
1640060820513894912,"2021-12-21,04:27:00",10.1.1.3,0.4172329902648926,-0.390,-0.390,-0.390,0.000,0.000,0.000
1640060820846461952,"2021-12-21,04:27:00",10.1.1.3,330,-0.380,-0.380,-0.380,0.000,0.000,0.000
1640060820929991936,"2021-12-21,04:27:00",10.1.1.3,0.41458797454833984,-0.380,-0.380,-0.380,0.000,0.000,0.000
1640060821235955968,"2021-12-21,04:27:01",10.1.1.3,300,-0.370,-0.370,-0.370,0.000,0.000,0.000
1640060821344996864,"2021-12-21,04:27:01",10.1.1.3,0.4124031066894531,-0.370,-0.370,-0.370,0.000,0.000,0.000
1640060821669030912,"2021-12-21,04:27:01",10.1.1.3,322,-0.360,-0.360,-0.360,0.000,0.000,0.000
1640060821745954048,"2021-12-21,04:27:01",10.1.1.3,0.3996250629425049,-0.360,-0.360,-0.360,0.000,0.000,0.000
1640060822062429952,"2021-12-21,04:27:02",10.1.1.3,313,-0.350,-0.350,-0.350,0.000,0.000,0.000
1640060822136523008,"2021-12-21,04:27:02",10.1.1.3,0.3881051540374756,-0.350,-0.350,-0.350,0.000,0.000,0.000
1640060822435486976,"2021-12-21,04:27:02",10.1.1.3,296,-0.340,-0.340,-0.340,0.000,0.000,0.000
1640060822526448896,"2021-12-21,04:27:02",10.1.1.3,0.38810205459594727,-0.340,-0.340,-0.340,0.000,0.000,0.000
1640060822841252096,"2021-12-21,04:27:02",10.1.1.3,311,-0.330,-0.330,-0.330,0.000,0.000,0.000
1640060822945404160,"2021-12-21,04:27:02",10.1.1.3,0.416003942489624,-0.330,-0.330,-0.330,0.000,0.000,0.000
1640060823254795008,"2021-12-21,04:27:03",10.1.1.3,304,-0.320,-0.320,-0.320,0.000,0.000,0.000
1640060823313585920,"2021-12-21,04:27:03",10.1.1.3,0.3637239933013916,-0.320,-0.320,-0.320,0.000,0.000,0.000
1640060823629801984,"2021-12-21,04:27:03",10.1.1.3,313,-0.310,-0.310,-0.310,0.000,0.000,0.000
1640060823687609856,"2021-12-21,04:27:03",10.1.1.3,0.37175989151000977,-0.310,-0.310,-0.310,0.000,0.000,0.000
1640060824019411200,"2021-12-21,04:27:04",10.1.1.3,330,-0.300,-0.300,-0.300,0.000,0.000,0.000
1640060824046679040,"2021-12-21,04:27:04",10.1.1.3,0.35750389099121094,-0.300,-0.300,-0.300,0.000,0.000,0.000
1640060824348812032,"2021-12-21,04:27:04",10.1.1.3,300,-0.290,-0.290,-0.290,0.000,0.000,0.000
1640060824396951808,"2021-12-21,04:27:04",10.1.1.3,0.34824109077453613,-0.290,-0.290,-0.290,0.000,0.000,0.000
1640060824721422848,"2021-12-21,04:27:04",10.1.1.3,319,-0.280,-0.280,-0.280,0.000,0.000,0.000
1640060824832737024,"2021-12-21,04:27:04",10.1.1.3,0.43114590644836426,-0.280,-0.280,-0.280,0.000,0.000,0.000
1640060825150995968,"2021-12-21,04:27:05",10.1.1.3,314,-0.270,-0.270,-0.270,0.000,0.000,0.000
1640060825165913088,"2021-12-21,04:27:05",10.1.1.3,0.3302879333496094,-0.270,-0.270,-0.270,0.000,0.000,0.000
1640060825447969024,"2021-12-21,04:27:05",10.1.1.3,280,-0.260,-0.260,-0.260,0.000,0.000,0.000
1640060825554678016,"2021-12-21,04:27:05",10.1.1.3,0.3872230052947998,-0.260,-0.260,-0.260,0.000,0.000,0.000
1640060825888394240,"2021-12-21,04:27:05",10.1.1.3,330,-0.250,-0.250,-0.250,0.000,0.000,0.000
1640060825966118144,"2021-12-21,04:27:05",10.1.1.3,0.40850210189819336,-0.250,-0.250,-0.250,0.000,0.000,0.000
1640060826275870976,"2021-12-21,04:27:06",10.1.1.3,307,-0.240,-0.240,-0.240,0.000,0.000,0.000
1640060826381522944,"2021-12-21,04:27:06",10.1.1.3,0.4133179187774658,-0.240,-0.240,-0.240,0.000,0.000,0.000
1640060826696027136,"2021-12-21,04:27:06",10.1.1.3,312,-0.230,-0.230,-0.230,0.000,0.000,0.000
1640060826800171008,"2021-12-21,04:27:06",10.1.1.3,0.41697096824645996,-0.230,-0.230,-0.230,0.000,0.000,0.000
1640060827104454144,"2021-12-21,04:27:07",10.1.1.3,302,-0.220,-0.220,-0.220,0.000,0.000,0.000
1640060827146462976,"2021-12-21,04:27:07",10.1.1.3,0.3448460102081299,-0.220,-0.220,-0.220,0.000,0.000,0.000
1640060827432625152,"2021-12-21,04:27:07",10.1.1.3,284,-0.210,-0.210,-0.210,0.000,0.000,0.000
1640060827512408064,"2021-12-21,04:27:07",10.1.1.3,0.3639531135559082,-0.210,-0.210,-0.210,0.000,0.000,0.000
1640060827823997952,"2021-12-21,04:27:07",10.1.1.3,308,-0.200,-0.200,-0.200,0.000,0.000,0.000
1640060827843020032,"2021-12-21,04:27:07",10.1.1.3,0.3280980587005615,-0.200,-0.200,-0.200,0.000,0.000,0.000
1640060828144504064,"2021-12-21,04:27:08",10.1.1.3,300,-0.190,-0.190,-0.190,0.000,0.000,0.000
1640060828240008960,"2021-12-21,04:27:08",10.1.1.3,0.39563894271850586,-0.190,-0.190,-0.190,0.000,0.000,0.000
1640060828551290880,"2021-12-21,04:27:08",10.1.1.3,309,-0.180,-0.180,-0.180,0.000,0.000,0.000
1640060828595047936,"2021-12-21,04:27:08",10.1.1.3,0.3532419204711914,-0.180,-0.180,-0.180,0.000,0.000,0.000
1640060828911173120,"2021-12-21,04:27:08",10.1.1.3,312,-0.170,-0.170,-0.170,0.000,0.000,0.000
1640060828936052992,"2021-12-21,04:27:08",10.1.1.3,0.3375251293182373,-0.170,-0.170,-0.170,0.000,0.000,0.000
1640060829273107968,"2021-12-21,04:27:09",10.1.1.3,333,-0.160,-0.160,-0.160,0.000,0.000,0.000
1640060829354612224,"2021-12-21,04:27:09",10.1.1.3,0.41559791564941406,-0.160,-0.160,-0.160,0.000,0.000,0.000
1640060829694780160,"2021-12-21,04:27:09",10.1.1.3,335,-0.150,-0.150,-0.150,0.000,0.000,0.000
1640060829740036096,"2021-12-21,04:27:09",10.1.1.3,0.3829059600830078,-0.150,-0.150,-0.150,0.000,0.000,0.000
1640060830061373952,"2021-12-21,04:27:10",10.1.1.3,314,-0.140,-0.140,-0.140,0.000,0.000,0.000
1640060830165486080,"2021-12-21,04:27:10",10.1.1.3,0.422515869140625,-0.140,-0.140,-0.140,0.000,0.000,0.000
1640060830470963968,"2021-12-21,04:27:10",10.1.1.3,303,-0.130,-0.130,-0.130,0.000,0.000,0.000
1640060830536958976,"2021-12-21,04:27:10",10.1.1.3,0.36930108070373535,-0.130,-0.130,-0.130,0.000,0.000,0.000
1640060830879663872,"2021-12-21,04:27:10",10.1.1.3,339,-0.120,-0.120,-0.120,0.000,0.000,0.000
1640060830934566912,"2021-12-21,04:27:10",10.1.1.3,0.39490604400634766,-0.120,-0.120,-0.120,0.000,0.000,0.000
1640060831257091072,"2021-12-21,04:27:11",10.1.1.3,320,-0.110,-0.110,-0.110,0.000,0.000,0.000
1640060831332293888,"2021-12-21,04:27:11",10.1.1.3,0.39634203910827637,-0.110,-0.110,-0.110,0.000,0.000,0.000
1640060831654727936,"2021-12-21,04:27:11",10.1.1.3,320,-0.100,-0.100,-0.100,0.000,0.000,0.000
1640060831755812864,"2021-12-21,04:27:11",10.1.1.3,0.42223501205444336,-0.100,-0.100,-0.100,0.000,0.000,0.000
1640060832069027072,"2021-12-21,04:27:12",10.1.1.3,311,-0.090,-0.090,-0.090,0.000,0.000,0.000
1640060832151616000,"2021-12-21,04:27:12",10.1.1.3,0.3945958614349365,-0.090,-0.090,-0.090,0.000,0.000,0.000
1640060832500338944,"2021-12-21,04:27:12",10.1.1.3,346,-0.080,-0.080,-0.080,0.000,0.000,0.000
1640060832579977984,"2021-12-21,04:27:12",10.1.1.3,0.42664194107055664,-0.080,-0.080,-0.080,0.000,0.000,0.000
1640060832892198144,"2021-12-21,04:27:12",10.1.1.3,309,-0.070,-0.070,-0.070,0.000,0.000,0.000
1640060832987011840,"2021-12-21,04:27:12",10.1.1.3,0.40564393997192383,-0.070,-0.070,-0.070,0.000,0.000,0.000
1640060833300772864,"2021-12-21,04:27:13",10.1.1.3,311,-0.060,-0.060,-0.060,0.000,0.000,0.000
1640060833336251136,"2021-12-21,04:27:13",10.1.1.3,0.347912073135376,-0.060,-0.060,-0.060,0.000,0.000,0.000
1640060833641246976,"2021-12-21,04:27:13",10.1.1.3,300,-0.050,-0.050,-0.050,0.000,0.000,0.000
1640060833765937152,"2021-12-21,04:27:13",10.1.1.3,0.4259040355682373,-0.050,-0.050,-0.050,0.000,0.000,0.000
1640060834081736960,"2021-12-21,04:27:14",10.1.1.3,314,-0.040,-0.040,-0.040,0.000,0.000,0.000
1640060834155884032,"2021-12-21,04:27:14",10.1.1.3,0.3884739875793457,-0.040,-0.040,-0.040,0.000,0.000,0.000
1640060834460936192,"2021-12-21,04:27:14",10.1.1.3,303,-0.030,-0.030,-0.030,0.000,0.000,0.000
1640060834537810944,"2021-12-21,04:27:14",10.1.1.3,0.38027095794677734,-0.030,-0.030,-0.030,0.000,0.000,0.000
1640060834852762880,"2021-12-21,04:27:14",10.1.1.3,313,-0.020,-0.020,-0.020,0.000,0.000,0.000
