FedericoMungari/DigitalTwin_service/Output/Output_script/script_rosapi_2_output_robots12_freq0_2.txt
timestamp,date,node,latency,joint_1,joint_2,joint_3,joint_4,joint_5,joint_6
1640699592289336832,2021-12-28-13:53:11,10.1.1.3,21,-0.160,-0.160,-0.160,0.000,0.000,0.000
1640699593018914048,2021-12-28-13:53:13,10.1.1.3,1,-0.160,-0.160,-0.160,0.000,0.000,0.000
1640699594554106112,2021-12-28-13:53:14,10.1.1.3,20,-0.160,-0.160,-0.160,0.000,0.000,0.000
1640699595276038912,2021-12-28-13:53:15,10.1.1.3,8,-0.160,-0.160,-0.160,0.000,0.000,0.000
1640699596714579200,2021-12-28-13:53:16,10.1.1.3,2,-0.160,-0.160,-0.160,0.000,0.000,0.000
1640699597395927040,2021-12-28-13:53:17,10.1.1.3,2,-0.160,-0.160,-0.160,0.000,0.000,0.000
1640699598812634880,2021-12-28-13:53:18,10.1.1.3,13,-0.160,-0.160,-0.160,0.000,0.000,0.000
1640699599471121152,2021-12-28-13:53:19,10.1.1.3,1,-0.160,-0.160,-0.160,0.000,0.000,0.000
1640699600890836992,2021-12-28-13:53:20,10.1.1.3,15,-0.160,-0.160,-0.160,0.000,0.000,0.000
1640699601608753920,2021-12-28-13:53:21,10.1.1.3,15,-0.160,-0.160,-0.160,0.000,0.000,0.000
1640699603086774016,2021-12-28-13:53:23,10.1.1.3,19,-0.160,-0.160,-0.160,0.000,0.000,0.000
1640699603764990976,2021-12-28-13:53:23,10.1.1.3,17,-0.160,-0.160,-0.160,0.000,0.000,0.000
1640699605144078080,2021-12-28-13:53:25,10.1.1.3,3,-0.160,-0.160,-0.160,0.000,0.000,0.000
1640699605824306944,2021-12-28-13:53:25,10.1.1.3,14,-0.160,-0.160,-0.160,0.000,0.000,0.000
1640699607319984896,2021-12-28-13:53:27,10.1.1.3,14,-0.160,-0.160,-0.160,0.000,0.000,0.000
1640699608000418048,2021-12-28-13:53:28,10.1.1.3,4,-0.160,-0.160,-0.160,0.000,0.000,0.000
1640699609397180928,2021-12-28-13:53:29,10.1.1.3,14,-0.160,-0.160,-0.160,0.000,0.000,0.000
1640699610058192128,2021-12-28-13:53:30,10.1.1.3,6,-0.160,-0.160,-0.160,0.000,0.000,0.000
1640699611464477952,2021-12-28-13:53:31,10.1.1.3,8,-0.160,-0.160,-0.160,0.000,0.000,0.000
1640699612146076928,2021-12-28-13:53:32,10.1.1.3,3,-0.160,-0.160,-0.160,0.000,0.000,0.000
1640699613571731968,2021-12-28-13:53:33,10.1.1.3,1,-0.160,-0.160,-0.160,0.000,0.000,0.000
1640699614274588160,2021-12-28-13:53:34,10.1.1.3,18,-0.160,-0.160,-0.160,0.000,0.000,0.000
1640699615676497920,2021-12-28-13:53:35,10.1.1.3,3,-0.160,-0.160,-0.160,0.000,0.000,0.000
1640699616379034112,2021-12-28-13:53:36,10.1.1.3,12,-0.160,-0.160,-0.160,0.000,0.000,0.000
1640699617780658944,2021-12-28-13:53:37,10.1.1.3,5,-0.160,-0.160,-0.160,0.000,0.000,0.000
1640699618460946944,2021-12-28-13:53:38,10.1.1.3,1,-0.160,-0.160,-0.160,0.000,0.000,0.000
1640699620182511104,2021-12-28-13:53:40,10.1.1.3,2,-0.160,-0.160,-0.160,0.000,0.000,0.000
1640699621122535936,2021-12-28-13:53:41,10.1.1.3,3,-0.160,-0.160,-0.160,0.000,0.000,0.000
1640699622561197056,2021-12-28-13:53:42,10.1.1.3,0,-0.160,-0.160,-0.160,0.000,0.000,0.000
1640699623342770944,2021-12-28-13:53:43,10.1.1.3,16,-0.160,-0.160,-0.160,0.000,0.000,0.000
1640699624881373952,2021-12-28-13:53:44,10.1.1.3,17,-0.160,-0.160,-0.160,0.000,0.000,0.000
1640699625600605952,2021-12-28-13:53:45,10.1.1.3,11,-0.160,-0.160,-0.160,0.000,0.000,0.000
1640699627064268032,2021-12-28-13:53:47,10.1.1.3,6,-0.160,-0.160,-0.160,0.000,0.000,0.000
1640699627782212864,2021-12-28-13:53:47,10.1.1.3,14,-0.160,-0.160,-0.160,0.000,0.000,0.000
1640699629896152064,2021-12-28-13:53:49,10.1.1.3,7,-0.160,-0.160,-0.160,0.000,0.000,0.000
1640699631274681088,2021-12-28-13:53:51,10.1.1.3,11,-0.160,-0.160,-0.160,0.000,0.000,0.000
1640699631933187072,2021-12-28-13:53:51,10.1.1.3,0,-0.160,-0.160,-0.160,0.000,0.000,0.000
1640699633352659968,2021-12-28-13:53:53,10.1.1.3,12,-0.160,-0.160,-0.160,0.000,0.000,0.000
1640699634098660096,2021-12-28-13:53:54,10.1.1.3,8,-0.160,-0.160,-0.160,0.000,0.000,0.000
1640699635568628992,2021-12-28-13:53:55,10.1.1.3,16,-0.160,-0.160,-0.160,0.000,0.000,0.000
1640699636249684992,2021-12-28-13:53:56,10.1.1.3,5,-0.160,-0.160,-0.160,0.000,0.000,0.000
1640699637646519040,2021-12-28-13:53:57,10.1.1.3,15,-0.160,-0.160,-0.160,0.000,0.000,0.000
1640699638345815808,2021-12-28-13:53:58,10.1.1.3,20,-0.160,-0.160,-0.160,0.000,0.000,0.000
1640699639782494976,2021-12-28-13:53:59,10.1.1.3,20,-0.160,-0.160,-0.160,0.000,0.000,0.000
1640699640460392960,2021-12-28-13:54:00,10.1.1.3,3,-0.160,-0.160,-0.160,0.000,0.000,0.000
1640699641897965824,2021-12-28-13:54:01,10.1.1.3,17,-0.160,-0.160,-0.160,0.000,0.000,0.000
1640699642556901888,2021-12-28-13:54:02,10.1.1.3,9,-0.160,-0.160,-0.160,0.000,0.000,0.000
1640699644122697984,2021-12-28-13:54:04,10.1.1.3,3,-0.160,-0.160,-0.160,0.000,0.000,0.000
1640699644815538944,2021-12-28-13:54:04,10.1.1.3,12,-0.160,-0.160,-0.160,0.000,0.000,0.000
1640699646391164160,2021-12-28-13:54:06,10.1.1.3,20,-0.160,-0.160,-0.160,0.000,0.000,0.000
1640699647052851968,2021-12-28-13:54:07,10.1.1.3,17,-0.160,-0.160,-0.160,0.000,0.000,0.000
1640699648498120960,2021-12-28-13:54:08,10.1.1.3,5,-0.160,-0.160,-0.160,0.000,0.000,0.000
1640699649196683008,2021-12-28-13:54:09,10.1.1.3,7,-0.160,-0.160,-0.160,0.000,0.000,0.000
1640699650598287104,2021-12-28-13:54:10,10.1.1.3,13,-0.160,-0.160,-0.160,0.000,0.000,0.000
1640699651279526912,2021-12-28-13:54:11,10.1.1.3,7,-0.160,-0.160,-0.160,0.000,0.000,0.000
1640699652739659008,2021-12-28-13:54:12,10.1.1.3,18,-0.160,-0.160,-0.160,0.000,0.000,0.000
1640699653439560960,2021-12-28-13:54:13,10.1.1.3,18,-0.160,-0.160,-0.160,0.000,0.000,0.000
1640699654859592960,2021-12-28-13:54:14,10.1.1.3,11,-0.160,-0.160,-0.160,0.000,0.000,0.000
1640699655531806976,2021-12-28-13:54:15,10.1.1.3,3,-0.160,-0.160,-0.160,0.000,0.000,0.000
1640699656919085056,2021-12-28-13:54:16,10.1.1.3,6,-0.160,-0.160,-0.160,0.000,0.000,0.000
1640699657618573056,2021-12-28-13:54:17,10.1.1.3,6,-0.160,-0.160,-0.160,0.000,0.000,0.000
1640699659057379840,2021-12-28-13:54:19,10.1.1.3,17,-0.160,-0.160,-0.160,0.000,0.000,0.000
1640699659755549952,2021-12-28-13:54:19,10.1.1.3,14,-0.160,-0.160,-0.160,0.000,0.000,0.000
1640699661155034112,2021-12-28-13:54:21,10.1.1.3,20,-0.160,-0.160,-0.160,0.000,0.000,0.000
1640699661814913024,2021-12-28-13:54:21,10.1.1.3,5,-0.160,-0.160,-0.160,0.000,0.000,0.000
1640699663254717952,2021-12-28-13:54:23,10.1.1.3,8,-0.160,-0.160,-0.160,0.000,0.000,0.000
1640699663932219136,2021-12-28-13:54:23,10.1.1.3,14,-0.160,-0.160,-0.160,0.000,0.000,0.000
1640699665311144960,2021-12-28-13:54:25,10.1.1.3,13,-0.160,-0.160,-0.160,0.000,0.000,0.000
1640699665970864896,2021-12-28-13:54:25,10.1.1.3,1,-0.160,-0.160,-0.160,0.000,0.000,0.000
1640699667579924992,2021-12-28-13:54:27,10.1.1.3,5,-0.160,-0.160,-0.160,0.000,0.000,0.000
1640699668431014912,2021-12-28-13:54:28,10.1.1.3,28,-0.160,-0.160,-0.160,0.000,0.000,0.000
1640699670204461056,2021-12-28-13:54:30,10.1.1.3,4,-0.160,-0.160,-0.160,0.000,0.000,0.000
1640699671064857856,2021-12-28-13:54:31,10.1.1.3,1,-0.160,-0.160,-0.160,0.000,0.000,0.000
1640699672680003840,2021-12-28-13:54:32,10.1.1.3,10,-0.160,-0.160,-0.160,0.000,0.000,0.000
1640699673358185984,2021-12-28-13:54:33,10.1.1.3,6,-0.160,-0.160,-0.160,0.000,0.000,0.000
1640699674796918016,2021-12-28-13:54:34,10.1.1.3,19,-0.160,-0.160,-0.160,0.000,0.000,0.000
1640699675478641920,2021-12-28-13:54:35,10.1.1.3,4,-0.160,-0.160,-0.160,0.000,0.000,0.000
1640699676924464896,2021-12-28-13:54:36,10.1.1.3,15,-0.160,-0.160,-0.160,0.000,0.000,0.000
1640699677587981824,2021-12-28-13:54:37,10.1.1.3,6,-0.160,-0.160,-0.160,0.000,0.000,0.000
1640699679059501056,2021-12-28-13:54:39,10.1.1.3,7,-0.160,-0.160,-0.160,0.000,0.000,0.000
1640699679833945088,2021-12-28-13:54:39,10.1.1.3,5,-0.160,-0.160,-0.160,0.000,0.000,0.000
1640699681236219904,2021-12-28-13:54:41,10.1.1.3,9,-0.160,-0.160,-0.160,0.000,0.000,0.000
1640699681919279104,2021-12-28-13:54:41,10.1.1.3,13,-0.160,-0.160,-0.160,0.000,0.000,0.000
1640699683351234048,2021-12-28-13:54:43,10.1.1.3,18,-0.160,-0.160,-0.160,0.000,0.000,0.000
1640699684020532992,2021-12-28-13:54:44,10.1.1.3,2,-0.160,-0.160,-0.160,0.000,0.000,0.000
1640699685440866048,2021-12-28-13:54:45,10.1.1.3,0,-0.160,-0.160,-0.160,0.000,0.000,0.000
1640699686159945984,2021-12-28-13:54:46,10.1.1.3,13,-0.160,-0.160,-0.160,0.000,0.000,0.000
1640699687540791040,2021-12-28-13:54:47,10.1.1.3,12,-0.160,-0.160,-0.160,0.000,0.000,0.000
1640699688219986944,2021-12-28-13:54:48,10.1.1.3,16,-0.160,-0.160,-0.160,0.000,0.000,0.000
1640699689658565888,2021-12-28-13:54:49,10.1.1.3,17,-0.160,-0.160,-0.160,0.000,0.000,0.000
1640699690320889856,2021-12-28-13:54:50,10.1.1.3,9,-0.160,-0.160,-0.160,0.000,0.000,0.000
1640699691838014976,2021-12-28-13:54:51,10.1.1.3,16,-0.160,-0.160,-0.160,0.000,0.000,0.000
1640699692517072896,2021-12-28-13:54:52,10.1.1.3,13,-0.160,-0.160,-0.160,0.000,0.000,0.000
1640699693935229952,2021-12-28-13:54:53,10.1.1.3,6,-0.160,-0.160,-0.160,0.000,0.000,0.000
1640699694614771968,2021-12-28-13:54:54,10.1.1.3,10,-0.160,-0.160,-0.160,0.000,0.000,0.000
1640699696142617088,2021-12-28-13:54:56,10.1.1.3,9,-0.160,-0.160,-0.160,0.000,0.000,0.000
1640699696812020992,2021-12-28-13:54:56,10.1.1.3,7,-0.160,-0.160,-0.160,0.000,0.000,0.000
1640699698214326016,2021-12-28-13:54:58,10.1.1.3,19,-0.160,-0.160,-0.160,0.000,0.000,0.000
1640699698875514880,2021-12-28-13:54:58,10.1.1.3,6,-0.160,-0.160,-0.160,0.000,0.000,0.000
1640699700367474944,2021-12-28-13:55:00,10.1.1.3,12,-0.160,-0.160,-0.160,0.000,0.000,0.000
1640699701045476864,2021-12-28-13:55:01,10.1.1.3,4,-0.160,-0.160,-0.160,0.000,0.000,0.000
1640699702463988992,2021-12-28-13:55:02,10.1.1.3,12,-0.160,-0.160,-0.160,0.000,0.000,0.000
1640699703122270976,2021-12-28-13:55:03,10.1.1.3,2,-0.160,-0.160,-0.160,0.000,0.000,0.000
1640699704540930048,2021-12-28-13:55:04,10.1.1.3,19,-0.160,-0.160,-0.160,0.000,0.000,0.000
1640699705219343872,2021-12-28-13:55:05,10.1.1.3,7,-0.160,-0.160,-0.160,0.000,0.000,0.000
1640699706678520064,2021-12-28-13:55:06,10.1.1.3,5,-0.160,-0.160,-0.160,0.000,0.000,0.000
1640699707480859136,2021-12-28-13:55:07,10.1.1.3,4,-0.160,-0.160,-0.160,0.000,0.000,0.000
1640699709268444928,2021-12-28-13:55:09,10.1.1.3,17,-0.160,-0.160,-0.160,0.000,0.000,0.000
1640699709990153984,2021-12-28-13:55:09,10.1.1.3,16,-0.160,-0.160,-0.160,0.000,0.000,0.000
1640699711374650880,2021-12-28-13:55:11,10.1.1.3,15,-0.160,-0.160,-0.160,0.000,0.000,0.000
1640699712035347968,2021-12-28-13:55:12,10.1.1.3,2,-0.160,-0.160,-0.160,0.000,0.000,0.000
1640699713439867136,2021-12-28-13:55:13,10.1.1.3,13,-0.160,-0.160,-0.160,0.000,0.000,0.000
1640699714120686080,2021-12-28-13:55:14,10.1.1.3,15,-0.160,-0.160,-0.160,0.000,0.000,0.000
1640699715601113088,2021-12-28-13:55:15,10.1.1.3,12,-0.160,-0.160,-0.160,0.000,0.000,0.000
1640699716280046080,2021-12-28-13:55:16,10.1.1.3,15,-0.160,-0.160,-0.160,0.000,0.000,0.000
1640699717760559104,2021-12-28-13:55:17,10.1.1.3,18,-0.160,-0.160,-0.160,0.000,0.000,0.000
1640699718523792896,2021-12-28-13:55:18,10.1.1.3,19,-0.160,-0.160,-0.160,0.000,0.000,0.000
1640699719941689088,2021-12-28-13:55:19,10.1.1.3,19,-0.160,-0.160,-0.160,0.000,0.000,0.000
1640699720621756928,2021-12-28-13:55:20,10.1.1.3,3,-0.160,-0.160,-0.160,0.000,0.000,0.000
1640699722020020992,2021-12-28-13:55:22,10.1.1.3,2,-0.160,-0.160,-0.160,0.000,0.000,0.000
1640699722979095040,2021-12-28-13:55:22,10.1.1.3,15,-0.160,-0.160,-0.160,0.000,0.000,0.000
1640699724376476928,2021-12-28-13:55:24,10.1.1.3,9,-0.160,-0.160,-0.160,0.000,0.000,0.000
1640699725060477952,2021-12-28-13:55:25,10.1.1.3,5,-0.160,-0.160,-0.160,0.000,0.000,0.000
1640699726534526208,2021-12-28-13:55:26,10.1.1.3,19,-0.160,-0.160,-0.160,0.000,0.000,0.000
1640699727194833920,2021-12-28-13:55:27,10.1.1.3,9,-0.160,-0.160,-0.160,0.000,0.000,0.000
1640699728573910016,2021-12-28-13:55:28,10.1.1.3,4,-0.160,-0.160,-0.160,0.000,0.000,0.000
1640699729271899904,2021-12-28-13:55:29,10.1.1.3,16,-0.160,-0.160,-0.160,0.000,0.000,0.000
1640699730708364032,2021-12-28-13:55:30,10.1.1.3,20,-0.160,-0.160,-0.160,0.000,0.000,0.000
1640699731410181888,2021-12-28-13:55:31,10.1.1.3,5,-0.160,-0.160,-0.160,0.000,0.000,0.000
1640699732846306048,2021-12-28-13:55:32,10.1.1.3,16,-0.160,-0.160,-0.160,0.000,0.000,0.000
1640699733506540032,2021-12-28-13:55:33,10.1.1.3,3,-0.160,-0.160,-0.160,0.000,0.000,0.000
1640699734943289088,2021-12-28-13:55:34,10.1.1.3,15,-0.160,-0.160,-0.160,0.000,0.000,0.000
1640699735622736896,2021-12-28-13:55:35,10.1.1.3,9,-0.160,-0.160,-0.160,0.000,0.000,0.000
1640699737067708928,2021-12-28-13:55:37,10.1.1.3,1,-0.160,-0.160,-0.160,0.000,0.000,0.000
1640699737939511040,2021-12-28-13:55:37,10.1.1.3,7,-0.160,-0.160,-0.160,0.000,0.000,0.000
1640699739660403968,2021-12-28-13:55:39,10.1.1.3,19,-0.160,-0.160,-0.160,0.000,0.000,0.000
1640699740383636992,2021-12-28-13:55:40,10.1.1.3,7,-0.160,-0.160,-0.160,0.000,0.000,0.000
1640699741849554176,2021-12-28-13:55:41,10.1.1.3,15,-0.160,-0.160,-0.160,0.000,0.000,0.000
1640699742512926208,2021-12-28-13:55:42,10.1.1.3,7,-0.160,-0.160,-0.160,0.000,0.000,0.000
1640699743955363072,2021-12-28-13:55:43,10.1.1.3,9,-0.160,-0.160,-0.160,0.000,0.000,0.000
1640699744637031168,2021-12-28-13:55:44,10.1.1.3,4,-0.160,-0.160,-0.160,0.000,0.000,0.000
1640699746119350016,2021-12-28-13:55:46,10.1.1.3,0,-0.160,-0.160,-0.160,0.000,0.000,0.000
1640699746799723008,2021-12-28-13:55:46,10.1.1.3,4,-0.160,-0.160,-0.160,0.000,0.000,0.000
1640699748318187008,2021-12-28-13:55:48,10.1.1.3,17,-0.160,-0.160,-0.160,0.000,0.000,0.000
1640699749143197952,2021-12-28-13:55:49,10.1.1.3,8,-0.160,-0.160,-0.160,0.000,0.000,0.000
1640699750543056128,2021-12-28-13:55:50,10.1.1.3,18,-0.160,-0.160,-0.160,0.000,0.000,0.000
1640699751222876160,2021-12-28-13:55:51,10.1.1.3,12,-0.160,-0.160,-0.160,0.000,0.000,0.000
1640699752784149760,2021-12-28-13:55:52,10.1.1.3,16,-0.160,-0.160,-0.160,0.000,0.000,0.000
1640699753482456064,2021-12-28-13:55:53,10.1.1.3,17,-0.160,-0.160,-0.160,0.000,0.000,0.000
1640699754859976960,2021-12-28-13:55:54,10.1.1.3,10,-0.160,-0.160,-0.160,0.000,0.000,0.000
1640699755539515136,2021-12-28-13:55:55,10.1.1.3,11,-0.160,-0.160,-0.160,0.000,0.000,0.000
1640699756997725952,2021-12-28-13:55:56,10.1.1.3,11,-0.160,-0.160,-0.160,0.000,0.000,0.000
1640699757677607936,2021-12-28-13:55:57,10.1.1.3,11,-0.160,-0.160,-0.160,0.000,0.000,0.000
1640699759296793856,2021-12-28-13:55:59,10.1.1.3,5,-0.160,-0.160,-0.160,0.000,0.000,0.000
1640699760054797824,2021-12-28-13:56:00,10.1.1.3,13,-0.160,-0.160,-0.160,0.000,0.000,0.000
1640699761472356096,2021-12-28-13:56:01,10.1.1.3,15,-0.160,-0.160,-0.160,0.000,0.000,0.000
1640699762130712064,2021-12-28-13:56:02,10.1.1.3,2,-0.160,-0.160,-0.160,0.000,0.000,0.000
1640699763589010944,2021-12-28-13:56:03,10.1.1.3,11,-0.160,-0.160,-0.160,0.000,0.000,0.000
1640699764267899136,2021-12-28-13:56:04,10.1.1.3,8,-0.160,-0.160,-0.160,0.000,0.000,0.000
1640699765665356032,2021-12-28-13:56:05,10.1.1.3,10,-0.160,-0.160,-0.160,0.000,0.000,0.000
1640699766345901056,2021-12-28-13:56:06,10.1.1.3,18,-0.160,-0.160,-0.160,0.000,0.000,0.000
1640699767805701888,2021-12-28-13:56:07,10.1.1.3,1,-0.160,-0.160,-0.160,0.000,0.000,0.000
1640699768541455872,2021-12-28-13:56:08,10.1.1.3,1,-0.160,-0.160,-0.160,0.000,0.000,0.000
1640699769961755904,2021-12-28-13:56:09,10.1.1.3,7,-0.160,-0.160,-0.160,0.000,0.000,0.000
1640699770659950848,2021-12-28-13:56:10,10.1.1.3,14,-0.160,-0.160,-0.160,0.000,0.000,0.000
1640699772136635136,2021-12-28-13:56:12,10.1.1.3,14,-0.160,-0.160,-0.160,0.000,0.000,0.000
1640699773004762880,2021-12-28-13:56:13,10.1.1.3,12,-0.160,-0.160,-0.160,0.000,0.000,0.000
1640699774752620032,2021-12-28-13:56:14,10.1.1.3,6,-0.160,-0.160,-0.160,0.000,0.000,0.000
1640699775546786048,2021-12-28-13:56:15,10.1.1.3,5,-0.160,-0.160,-0.160,0.000,0.000,0.000
1640699776994543104,2021-12-28-13:56:16,10.1.1.3,1,-0.160,-0.160,-0.160,0.000,0.000,0.000
1640699777676847104,2021-12-28-13:56:17,10.1.1.3,2,-0.160,-0.160,-0.160,0.000,0.000,0.000
1640699779099545856,2021-12-28-13:56:19,10.1.1.3,7,-0.160,-0.160,-0.160,0.000,0.000,0.000
1640699779779028992,2021-12-28-13:56:19,10.1.1.3,18,-0.160,-0.160,-0.160,0.000,0.000,0.000
1640699781202471936,2021-12-28-13:56:21,10.1.1.3,4,-0.160,-0.160,-0.160,0.000,0.000,0.000
1640699781919783168,2021-12-28-13:56:21,10.1.1.3,18,-0.160,-0.160,-0.160,0.000,0.000,0.000
1640699783321031936,2021-12-28-13:56:23,10.1.1.3,3,-0.160,-0.160,-0.160,0.000,0.000,0.000
1640699784123665152,2021-12-28-13:56:24,10.1.1.3,15,-0.160,-0.160,-0.160,0.000,0.000,0.000
1640699785738781952,2021-12-28-13:56:25,10.1.1.3,15,-0.160,-0.160,-0.160,0.000,0.000,0.000
1640699786399014912,2021-12-28-13:56:26,10.1.1.3,5,-0.160,-0.160,-0.160,0.000,0.000,0.000
1640699787939043072,2021-12-28-13:56:27,10.1.1.3,4,-0.160,-0.160,-0.160,0.000,0.000,0.000
1640699788666203136,2021-12-28-13:56:28,10.1.1.3,11,-0.160,-0.160,-0.160,0.000,0.000,0.000
1640699790055648000,2021-12-28-13:56:30,10.1.1.3,11,-0.160,-0.160,-0.160,0.000,0.000,0.000
1640699790715350016,2021-12-28-13:56:30,10.1.1.3,0,-0.160,-0.160,-0.160,0.000,0.000,0.000
1640699792115034112,2021-12-28-13:56:32,10.1.1.3,9,-0.160,-0.160,-0.160,0.000,0.000,0.000
1640699792793658880,2021-12-28-13:56:32,10.1.1.3,4,-0.160,-0.160,-0.160,0.000,0.000,0.000
1640699794190776064,2021-12-28-13:56:34,10.1.1.3,4,-0.160,-0.160,-0.160,0.000,0.000,0.000
1640699794870117888,2021-12-28-13:56:34,10.1.1.3,16,-0.160,-0.160,-0.160,0.000,0.000,0.000
1640699796578563072,2021-12-28-13:56:36,10.1.1.3,9,-0.160,-0.160,-0.160,0.000,0.000,0.000
1640699799403499008,2021-12-28-13:56:39,10.1.1.3,12,-0.160,-0.160,-0.160,0.000,0.000,0.000
1640699800201273856,2021-12-28-13:56:40,10.1.1.3,14,-0.160,-0.160,-0.160,0.000,0.000,0.000
1640699801859118080,2021-12-28-13:56:41,10.1.1.3,15,-0.160,-0.160,-0.160,0.000,0.000,0.000
1640699802558633216,2021-12-28-13:56:42,10.1.1.3,14,-0.160,-0.160,-0.160,0.000,0.000,0.000
1640699803935485952,2021-12-28-13:56:43,10.1.1.3,1,-0.160,-0.160,-0.160,0.000,0.000,0.000
1640699804650964992,2021-12-28-13:56:44,10.1.1.3,8,-0.160,-0.160,-0.160,0.000,0.000,0.000
1640699806328397056,2021-12-28-13:56:46,10.1.1.3,11,-0.160,-0.160,-0.160,0.000,0.000,0.000
1640699808834050048,2021-12-28-13:56:48,10.1.1.3,6,-0.160,-0.160,-0.160,0.000,0.000,0.000
1640699809560728064,2021-12-28-13:56:49,10.1.1.3,16,-0.160,-0.160,-0.160,0.000,0.000,0.000
1640699811019494144,2021-12-28-13:56:51,10.1.1.3,3,-0.160,-0.160,-0.160,0.000,0.000,0.000
1640699811807593216,2021-12-28-13:56:51,10.1.1.3,16,-0.160,-0.160,-0.160,0.000,0.000,0.000
1640699813581373952,2021-12-28-13:56:53,10.1.1.3,2,-0.160,-0.160,-0.160,0.000,0.000,0.000
1640699814380417024,2021-12-28-13:56:54,10.1.1.3,19,-0.160,-0.160,-0.160,0.000,0.000,0.000
1640699815802021888,2021-12-28-13:56:55,10.1.1.3,13,-0.160,-0.160,-0.160,0.000,0.000,0.000
1640699816501192960,2021-12-28-13:56:56,10.1.1.3,12,-0.160,-0.160,-0.160,0.000,0.000,0.000
1640699818059994880,2021-12-28-13:56:58,10.1.1.3,14,-0.160,-0.160,-0.160,0.000,0.000,0.000
1640699818759197952,2021-12-28-13:56:58,10.1.1.3,12,-0.160,-0.160,-0.160,0.000,0.000,0.000
1640699820178874880,2021-12-28-13:57:00,10.1.1.3,12,-0.160,-0.160,-0.160,0.000,0.000,0.000
1640699820989036032,2021-12-28-13:57:00,10.1.1.3,19,-0.160,-0.160,-0.160,0.000,0.000,0.000
1640699822556494848,2021-12-28-13:57:02,10.1.1.3,11,-0.160,-0.160,-0.160,0.000,0.000,0.000
1640699823334216960,2021-12-28-13:57:03,10.1.1.3,11,-0.160,-0.160,-0.160,0.000,0.000,0.000
1640699824970323968,2021-12-28-13:57:04,10.1.1.3,4,-0.160,-0.160,-0.160,0.000,0.000,0.000
1640699827331265024,2021-12-28-13:57:07,10.1.1.3,7,-0.160,-0.160,-0.160,0.000,0.000,0.000
1640699828008763136,2021-12-28-13:57:08,10.1.1.3,0,-0.160,-0.160,-0.160,0.000,0.000,0.000
1640699829426616832,2021-12-28-13:57:09,10.1.1.3,19,-0.160,-0.160,-0.160,0.000,0.000,0.000
1640699830165010944,2021-12-28-13:57:10,10.1.1.3,0,-0.160,-0.160,-0.160,0.000,0.000,0.000
1640699831582743808,2021-12-28-13:57:11,10.1.1.3,18,-0.160,-0.160,-0.160,0.000,0.000,0.000
1640699832242209024,2021-12-28-13:57:12,10.1.1.3,10,-0.160,-0.160,-0.160,0.000,0.000,0.000
1640699833680388096,2021-12-28-13:57:13,10.1.1.3,15,-0.160,-0.160,-0.160,0.000,0.000,0.000
1640699834359482112,2021-12-28-13:57:14,10.1.1.3,4,-0.160,-0.160,-0.160,0.000,0.000,0.000
1640699835796346880,2021-12-28-13:57:15,10.1.1.3,16,-0.160,-0.160,-0.160,0.000,0.000,0.000
1640699836478745856,2021-12-28-13:57:16,10.1.1.3,15,-0.160,-0.160,-0.160,0.000,0.000,0.000
1640699837866841088,2021-12-28-13:57:17,10.1.1.3,4,-0.160,-0.160,-0.160,0.000,0.000,0.000
1640699838548593920,2021-12-28-13:57:18,10.1.1.3,14,-0.160,-0.160,-0.160,0.000,0.000,0.000
1640699839992027904,2021-12-28-13:57:19,10.1.1.3,18,-0.160,-0.160,-0.160,0.000,0.000,0.000
1640699840772098048,2021-12-28-13:57:20,10.1.1.3,24,-0.160,-0.160,-0.160,0.000,0.000,0.000
1640699842398114048,2021-12-28-13:57:22,10.1.1.3,2,-0.160,-0.160,-0.160,0.000,0.000,0.000
1640699843083673088,2021-12-28-13:57:23,10.1.1.3,10,-0.160,-0.160,-0.160,0.000,0.000,0.000
1640699844461710080,2021-12-28-13:57:24,10.1.1.3,2,-0.160,-0.160,-0.160,0.000,0.000,0.000
1640699845200623872,2021-12-28-13:57:25,10.1.1.3,15,-0.160,-0.160,-0.160,0.000,0.000,0.000
1640699847040608768,2021-12-28-13:57:27,10.1.1.3,14,-0.160,-0.160,-0.160,0.000,0.000,0.000
1640699847880524032,2021-12-28-13:57:27,10.1.1.3,14,-0.160,-0.160,-0.160,0.000,0.000,0.000
1640699849404694016,2021-12-28-13:57:29,10.1.1.3,0,-0.160,-0.160,-0.160,0.000,0.000,0.000
1640699850159864064,2021-12-28-13:57:30,10.1.1.3,7,-0.160,-0.160,-0.160,0.000,0.000,0.000
1640699851599194112,2021-12-28-13:57:31,10.1.1.3,13,-0.160,-0.160,-0.160,0.000,0.000,0.000
1640699852259438080,2021-12-28-13:57:32,10.1.1.3,4,-0.160,-0.160,-0.160,0.000,0.000,0.000
1640699853658775040,2021-12-28-13:57:33,10.1.1.3,19,-0.160,-0.160,-0.160,0.000,0.000,0.000
1640699854356630016,2021-12-28-13:57:34,10.1.1.3,11,-0.160,-0.160,-0.160,0.000,0.000,0.000
1640699855834883072,2021-12-28-13:57:35,10.1.1.3,1,-0.160,-0.160,-0.160,0.000,0.000,0.000
1640699856561025024,2021-12-28-13:57:36,10.1.1.3,2,-0.160,-0.160,-0.160,0.000,0.000,0.000
1640699858112379136,2021-12-28-13:57:38,10.1.1.3,3,-0.160,-0.160,-0.160,0.000,0.000,0.000
1640699858790934016,2021-12-28-13:57:38,10.1.1.3,5,-0.160,-0.160,-0.160,0.000,0.000,0.000
1640699860189259008,2021-12-28-13:57:40,10.1.1.3,11,-0.160,-0.160,-0.160,0.000,0.000,0.000
1640699860848612096,2021-12-28-13:57:40,10.1.1.3,2,-0.160,-0.160,-0.160,0.000,0.000,0.000
1640699862246391040,2021-12-28-13:57:42,10.1.1.3,12,-0.160,-0.160,-0.160,0.000,0.000,0.000
1640699862924972032,2021-12-28-13:57:42,10.1.1.3,15,-0.160,-0.160,-0.160,0.000,0.000,0.000
1640699864387226112,2021-12-28-13:57:44,10.1.1.3,18,-0.160,-0.160,-0.160,0.000,0.000,0.000
1640699865182915840,2021-12-28-13:57:45,10.1.1.3,17,-0.160,-0.160,-0.160,0.000,0.000,0.000
1640699866619293952,2021-12-28-13:57:46,10.1.1.3,13,-0.160,-0.160,-0.160,0.000,0.000,0.000
1640699867298147840,2021-12-28-13:57:47,10.1.1.3,18,-0.160,-0.160,-0.160,0.000,0.000,0.000
1640699868680124928,2021-12-28-13:57:48,10.1.1.3,3,-0.160,-0.160,-0.160,0.000,0.000,0.000
1640699869363532032,2021-12-28-13:57:49,10.1.1.3,12,-0.160,-0.160,-0.160,0.000,0.000,0.000
1640699870788882944,2021-12-28-13:57:50,10.1.1.3,3,-0.160,-0.160,-0.160,0.000,0.000,0.000
1640699871495842816,2021-12-28-13:57:51,10.1.1.3,11,-0.160,-0.160,-0.160,0.000,0.000,0.000
1640699872936001024,2021-12-28-13:57:52,10.1.1.3,8,-0.160,-0.160,-0.160,0.000,0.000,0.000
1640699873639399168,2021-12-28-13:57:53,10.1.1.3,20,-0.160,-0.160,-0.160,0.000,0.000,0.000
1640699875180315136,2021-12-28-13:57:55,10.1.1.3,2,-0.160,-0.160,-0.160,0.000,0.000,0.000
1640699876068862976,2021-12-28-13:57:56,10.1.1.3,21,-0.160,-0.160,-0.160,0.000,0.000,0.000
1640699877781344768,2021-12-28-13:57:57,10.1.1.3,9,-0.160,-0.160,-0.160,0.000,0.000,0.000
1640699878523868160,2021-12-28-13:57:58,10.1.1.3,33,-0.160,-0.160,-0.160,0.000,0.000,0.000
1640699879923561984,2021-12-28-13:57:59,10.1.1.3,4,-0.160,-0.160,-0.160,0.000,0.000,0.000
1640699880621825024,2021-12-28-13:58:00,10.1.1.3,15,-0.160,-0.160,-0.160,0.000,0.000,0.000
1640699882024792832,2021-12-28-13:58:02,10.1.1.3,6,-0.160,-0.160,-0.160,0.000,0.000,0.000
1640699882722289920,2021-12-28-13:58:02,10.1.1.3,6,-0.160,-0.160,-0.160,0.000,0.000,0.000
1640699884268083968,2021-12-28-13:58:04,10.1.1.3,2,-0.160,-0.160,-0.160,0.000,0.000,0.000
1640699885219710208,2021-12-28-13:58:05,10.1.1.3,5,-0.160,-0.160,-0.160,0.000,0.000,0.000
1640699886737310976,2021-12-28-13:58:06,10.1.1.3,7,-0.160,-0.160,-0.160,0.000,0.000,0.000
1640699887475910912,2021-12-28-13:58:07,10.1.1.3,10,-0.160,-0.160,-0.160,0.000,0.000,0.000
1640699888854574080,2021-12-28-13:58:08,10.1.1.3,1,-0.160,-0.160,-0.160,0.000,0.000,0.000
1640699889533262080,2021-12-28-13:58:09,10.1.1.3,9,-0.160,-0.160,-0.160,0.000,0.000,0.000
1640699890910765824,2021-12-28-13:58:10,10.1.1.3,7,-0.160,-0.160,-0.160,0.000,0.000,0.000
1640699891589981184,2021-12-28-13:58:11,10.1.1.3,17,-0.160,-0.160,-0.160,0.000,0.000,0.000
1640699892970614784,2021-12-28-13:58:12,10.1.1.3,5,-0.160,-0.160,-0.160,0.000,0.000,0.000
1640699893672072960,2021-12-28-13:58:13,10.1.1.3,17,-0.160,-0.160,-0.160,0.000,0.000,0.000
1640699895046797056,2021-12-28-13:58:15,10.1.1.3,10,-0.160,-0.160,-0.160,0.000,0.000,0.000
1640699895744334080,2021-12-28-13:58:15,10.1.1.3,4,-0.160,-0.160,-0.160,0.000,0.000,0.000
1640699897202931968,2021-12-28-13:58:17,10.1.1.3,5,-0.160,-0.160,-0.160,0.000,0.000,0.000
1640699897941188096,2021-12-28-13:58:17,10.1.1.3,9,-0.160,-0.160,-0.160,0.000,0.000,0.000
1640699899651112960,2021-12-28-13:58:19,10.1.1.3,9,-0.160,-0.160,-0.160,0.000,0.000,0.000
1640699900477766144,2021-12-28-13:58:20,10.1.1.3,9,-0.160,-0.160,-0.160,0.000,0.000,0.000
1640699901963751168,2021-12-28-13:58:21,10.1.1.3,16,-0.160,-0.160,-0.160,0.000,0.000,0.000
1640699902691816960,2021-12-28-13:58:22,10.1.1.3,14,-0.160,-0.160,-0.160,0.000,0.000,0.000
1640699904149889024,2021-12-28-13:58:24,10.1.1.3,14,-0.160,-0.160,-0.160,0.000,0.000,0.000
1640699906582782976,2021-12-28-13:58:26,10.1.1.3,1,-0.160,-0.160,-0.160,0.000,0.000,0.000
1640699907359816192,2021-12-28-13:58:27,10.1.1.3,14,-0.160,-0.160,-0.160,0.000,0.000,0.000
1640699908921140992,2021-12-28-13:58:28,10.1.1.3,7,-0.160,-0.160,-0.160,0.000,0.000,0.000
1640699909599478016,2021-12-28-13:58:29,10.1.1.3,3,-0.160,-0.160,-0.160,0.000,0.000,0.000
1640699911243074816,2021-12-28-13:58:31,10.1.1.3,3,-0.160,-0.160,-0.160,0.000,0.000,0.000
1640699911941545984,2021-12-28-13:58:31,10.1.1.3,16,-0.160,-0.160,-0.160,0.000,0.000,0.000
1640699913341086976,2021-12-28-13:58:33,10.1.1.3,15,-0.160,-0.160,-0.160,0.000,0.000,0.000
1640699914000616192,2021-12-28-13:58:34,10.1.1.3,3,-0.160,-0.160,-0.160,0.000,0.000,0.000
1640699915399003904,2021-12-28-13:58:35,10.1.1.3,17,-0.160,-0.160,-0.160,0.000,0.000,0.000
1640699916078455040,2021-12-28-13:58:36,10.1.1.3,18,-0.160,-0.160,-0.160,0.000,0.000,0.000
1640699917458353152,2021-12-28-13:58:37,10.1.1.3,3,-0.160,-0.160,-0.160,0.000,0.000,0.000
1640699918137038848,2021-12-28-13:58:38,10.1.1.3,8,-0.160,-0.160,-0.160,0.000,0.000,0.000
1640699919577574912,2021-12-28-13:58:39,10.1.1.3,20,-0.160,-0.160,-0.160,0.000,0.000,0.000
1640699920255894784,2021-12-28-13:58:40,10.1.1.3,12,-0.160,-0.160,-0.160,0.000,0.000,0.000
1640699921694772992,2021-12-28-13:58:41,10.1.1.3,8,-0.160,-0.160,-0.160,0.000,0.000,0.000
1640699922372848128,2021-12-28-13:58:42,10.1.1.3,14,-0.160,-0.160,-0.160,0.000,0.000,0.000
1640699923892082944,2021-12-28-13:58:43,10.1.1.3,4,-0.160,-0.160,-0.160,0.000,0.000,0.000
1640699924590673920,2021-12-28-13:58:44,10.1.1.3,4,-0.160,-0.160,-0.160,0.000,0.000,0.000
1640699926126887168,2021-12-28-13:58:46,10.1.1.3,6,-0.160,-0.160,-0.160,0.000,0.000,0.000
1640699926819616000,2021-12-28-13:58:46,10.1.1.3,0,-0.160,-0.160,-0.160,0.000,0.000,0.000
1640699928605129984,2021-12-28-13:58:48,10.1.1.3,11,-0.160,-0.160,-0.160,0.000,0.000,0.000
1640699929518019840,2021-12-28-13:58:49,10.1.1.3,17,-0.160,-0.160,-0.160,0.000,0.000,0.000
1640699931444624896,2021-12-28-13:58:51,10.1.1.3,12,-0.160,-0.160,-0.160,0.000,0.000,0.000
1640699932357267968,2021-12-28-13:58:52,10.1.1.3,1,-0.160,-0.160,-0.160,0.000,0.000,0.000
1640699933861103104,2021-12-28-13:58:53,10.1.1.3,2,-0.160,-0.160,-0.160,0.000,0.000,0.000
1640699934547671040,2021-12-28-13:58:54,10.1.1.3,12,-0.160,-0.160,-0.160,0.000,0.000,0.000
1640699935949079040,2021-12-28-13:58:55,10.1.1.3,14,-0.160,-0.160,-0.160,0.000,0.000,0.000
1640699936651762944,2021-12-28-13:58:56,10.1.1.3,3,-0.160,-0.160,-0.160,0.000,0.000,0.000
1640699938260449024,2021-12-28-13:58:58,10.1.1.3,8,-0.160,-0.160,-0.160,0.000,0.000,0.000
1640699939036729088,2021-12-28-13:58:59,10.1.1.3,3,-0.160,-0.160,-0.160,0.000,0.000,0.000
1640699940438416896,2021-12-28-13:59:00,10.1.1.3,18,-0.160,-0.160,-0.160,0.000,0.000,0.000
1640699941100559872,2021-12-28-13:59:01,10.1.1.3,7,-0.160,-0.160,-0.160,0.000,0.000,0.000
1640699942483261952,2021-12-28-13:59:02,10.1.1.3,1,-0.160,-0.160,-0.160,0.000,0.000,0.000
1640699943180978944,2021-12-28-13:59:03,10.1.1.3,4,-0.160,-0.160,-0.160,0.000,0.000,0.000
1640699944580739072,2021-12-28-13:59:04,10.1.1.3,12,-0.160,-0.160,-0.160,0.000,0.000,0.000
1640699945280808960,2021-12-28-13:59:05,10.1.1.3,4,-0.160,-0.160,-0.160,0.000,0.000,0.000
1640699946680952064,2021-12-28-13:59:06,10.1.1.3,10,-0.160,-0.160,-0.160,0.000,0.000,0.000
1640699947359661056,2021-12-28-13:59:07,10.1.1.3,4,-0.160,-0.160,-0.160,0.000,0.000,0.000
1640699948800115968,2021-12-28-13:59:08,10.1.1.3,7,-0.160,-0.160,-0.160,0.000,0.000,0.000
1640699949479398912,2021-12-28-13:59:09,10.1.1.3,15,-0.160,-0.160,-0.160,0.000,0.000,0.000
1640699951076680960,2021-12-28-13:59:11,10.1.1.3,7,-0.160,-0.160,-0.160,0.000,0.000,0.000
1640699951755848960,2021-12-28-13:59:11,10.1.1.3,0,-0.160,-0.160,-0.160,0.000,0.000,0.000
1640699953355915008,2021-12-28-13:59:13,10.1.1.3,19,-0.160,-0.160,-0.160,0.000,0.000,0.000
1640699954074644992,2021-12-28-13:59:14,10.1.1.3,3,-0.160,-0.160,-0.160,0.000,0.000,0.000
1640699955553841152,2021-12-28-13:59:15,10.1.1.3,0,-0.160,-0.160,-0.160,0.000,0.000,0.000
1640699956292516096,2021-12-28-13:59:16,10.1.1.3,1,-0.160,-0.160,-0.160,0.000,0.000,0.000
1640699957768791040,2021-12-28-13:59:17,10.1.1.3,13,-0.160,-0.160,-0.160,0.000,0.000,0.000
1640699958467195904,2021-12-28-13:59:18,10.1.1.3,18,-0.160,-0.160,-0.160,0.000,0.000,0.000
1640699959864571136,2021-12-28-13:59:19,10.1.1.3,8,-0.160,-0.160,-0.160,0.000,0.000,0.000
1640699960572107008,2021-12-28-13:59:20,10.1.1.3,9,-0.160,-0.160,-0.160,0.000,0.000,0.000
1640699962083055872,2021-12-28-13:59:22,10.1.1.3,9,-0.160,-0.160,-0.160,0.000,0.000,0.000
1640699962761574912,2021-12-28-13:59:22,10.1.1.3,11,-0.160,-0.160,-0.160,0.000,0.000,0.000
1640699964258512896,2021-12-28-13:59:24,10.1.1.3,18,-0.160,-0.160,-0.160,0.000,0.000,0.000
1640699965017415168,2021-12-28-13:59:25,10.1.1.3,11,-0.160,-0.160,-0.160,0.000,0.000,0.000
1640699966752322048,2021-12-28-13:59:26,10.1.1.3,18,-0.160,-0.160,-0.160,0.000,0.000,0.000
1640699967516748800,2021-12-28-13:59:27,10.1.1.3,7,-0.160,-0.160,-0.160,0.000,0.000,0.000
1640699968994110976,2021-12-28-13:59:28,10.1.1.3,2,-0.160,-0.160,-0.160,0.000,0.000,0.000
1640699969680867840,2021-12-28-13:59:29,10.1.1.3,5,-0.160,-0.160,-0.160,0.000,0.000,0.000
1640699971158822144,2021-12-28-13:59:31,10.1.1.3,16,-0.160,-0.160,-0.160,0.000,0.000,0.000
1640699971858661888,2021-12-28-13:59:31,10.1.1.3,18,-0.160,-0.160,-0.160,0.000,0.000,0.000
1640699973280881920,2021-12-28-13:59:33,10.1.1.3,13,-0.160,-0.160,-0.160,0.000,0.000,0.000
1640699973962569984,2021-12-28-13:59:33,10.1.1.3,11,-0.160,-0.160,-0.160,0.000,0.000,0.000
1640699975401897984,2021-12-28-13:59:35,10.1.1.3,13,-0.160,-0.160,-0.160,0.000,0.000,0.000
1640699976101656832,2021-12-28-13:59:36,10.1.1.3,13,-0.160,-0.160,-0.160,0.000,0.000,0.000
1640699977621234944,2021-12-28-13:59:37,10.1.1.3,5,-0.160,-0.160,-0.160,0.000,0.000,0.000
1640699978301148928,2021-12-28-13:59:38,10.1.1.3,14,-0.160,-0.160,-0.160,0.000,0.000,0.000
1640699979680630016,2021-12-28-13:59:39,10.1.1.3,14,-0.160,-0.160,-0.160,0.000,0.000,0.000
1640699980350127872,2021-12-28-13:59:40,10.1.1.3,9,-0.160,-0.160,-0.160,0.000,0.000,0.000
1640699981799351808,2021-12-28-13:59:41,10.1.1.3,19,-0.160,-0.160,-0.160,0.000,0.000,0.000
1640699982480081152,2021-12-28-13:59:42,10.1.1.3,13,-0.160,-0.160,-0.160,0.000,0.000,0.000
1640699984240001024,2021-12-28-13:59:44,10.1.1.3,17,-0.160,-0.160,-0.160,0.000,0.000,0.000
1640699985099877120,2021-12-28-13:59:45,10.1.1.3,46,-0.160,-0.160,-0.160,0.000,0.000,0.000
1640699986753408000,2021-12-28-13:59:46,10.1.1.3,16,-0.160,-0.160,-0.160,0.000,0.000,0.000
1640699987413609984,2021-12-28-13:59:47,10.1.1.3,6,-0.160,-0.160,-0.160,0.000,0.000,0.000
1640699988850992896,2021-12-28-13:59:48,10.1.1.3,14,-0.160,-0.160,-0.160,0.000,0.000,0.000
1640699989530764032,2021-12-28-13:59:49,10.1.1.3,7,-0.160,-0.160,-0.160,0.000,0.000,0.000
1640699990927058944,2021-12-28-13:59:50,10.1.1.3,13,-0.160,-0.160,-0.160,0.000,0.000,0.000
1640699991607163904,2021-12-28-13:59:51,10.1.1.3,18,-0.160,-0.160,-0.160,0.000,0.000,0.000
1640699992985698816,2021-12-28-13:59:52,10.1.1.3,0,-0.160,-0.160,-0.160,0.000,0.000,0.000
1640699993683592960,2021-12-28-13:59:53,10.1.1.3,11,-0.160,-0.160,-0.160,0.000,0.000,0.000
1640699995081656064,2021-12-28-13:59:55,10.1.1.3,9,-0.160,-0.160,-0.160,0.000,0.000,0.000
1640699995760006912,2021-12-28-13:59:55,10.1.1.3,3,-0.160,-0.160,-0.160,0.000,0.000,0.000
1640699997178072832,2021-12-28-13:59:57,10.1.1.3,19,-0.160,-0.160,-0.160,0.000,0.000,0.000
1640699997845643008,2021-12-28-13:59:57,10.1.1.3,17,-0.160,-0.160,-0.160,0.000,0.000,0.000
1640699999247875840,2021-12-28-13:59:59,10.1.1.3,5,-0.160,-0.160,-0.160,0.000,0.000,0.000
1640700000004015872,2021-12-28-13:59:59,10.1.1.3,10,-0.160,-0.160,-0.160,0.000,0.000,0.000
1640700001374494976,2021-12-28-14:00:01,10.1.1.3,3,-0.160,-0.160,-0.160,0.000,0.000,0.000
1640700002058904832,2021-12-28-14:00:02,10.1.1.3,14,-0.160,-0.160,-0.160,0.000,0.000,0.000
1640700003459666944,2021-12-28-14:00:03,10.1.1.3,12,-0.160,-0.160,-0.160,0.000,0.000,0.000
1640700004235618048,2021-12-28-14:00:04,10.1.1.3,13,-0.160,-0.160,-0.160,0.000,0.000,0.000
1640700006208681216,2021-12-28-14:00:06,10.1.1.3,8,-0.160,-0.160,-0.160,0.000,0.000,0.000
1640700006998524928,2021-12-28-14:00:06,10.1.1.3,5,-0.160,-0.160,-0.160,0.000,0.000,0.000
1640700008482567936,2021-12-28-14:00:08,10.1.1.3,11,-0.160,-0.160,-0.160,0.000,0.000,0.000
1640700009182579968,2021-12-28-14:00:09,10.1.1.3,18,-0.160,-0.160,-0.160,0.000,0.000,0.000
1640700010603212032,2021-12-28-14:00:10,10.1.1.3,10,-0.160,-0.160,-0.160,0.000,0.000,0.000
1640700011282857984,2021-12-28-14:00:11,10.1.1.3,4,-0.160,-0.160,-0.160,0.000,0.000,0.000
1640700012720316928,2021-12-28-14:00:12,10.1.1.3,5,-0.160,-0.160,-0.160,0.000,0.000,0.000
1640700013406177024,2021-12-28-14:00:13,10.1.1.3,20,-0.160,-0.160,-0.160,0.000,0.000,0.000
1640700014779617024,2021-12-28-14:00:14,10.1.1.3,2,-0.160,-0.160,-0.160,0.000,0.000,0.000
1640700015459655936,2021-12-28-14:00:15,10.1.1.3,10,-0.160,-0.160,-0.160,0.000,0.000,0.000
1640700017025906176,2021-12-28-14:00:17,10.1.1.3,9,-0.160,-0.160,-0.160,0.000,0.000,0.000
1640700017737033984,2021-12-28-14:00:17,10.1.1.3,11,-0.160,-0.160,-0.160,0.000,0.000,0.000
1640700019152834816,2021-12-28-14:00:19,10.1.1.3,8,-0.160,-0.160,-0.160,0.000,0.000,0.000
1640700019832321792,2021-12-28-14:00:19,10.1.1.3,4,-0.160,-0.160,-0.160,0.000,0.000,0.000
1640700021230236160,2021-12-28-14:00:21,10.1.1.3,12,-0.160,-0.160,-0.160,0.000,0.000,0.000
1640700021910386176,2021-12-28-14:00:21,10.1.1.3,16,-0.160,-0.160,-0.160,0.000,0.000,0.000
1640700023271561984,2021-12-28-14:00:23,10.1.1.3,5,-0.160,-0.160,-0.160,0.000,0.000,0.000
1640700023967397888,2021-12-28-14:00:23,10.1.1.3,11,-0.160,-0.160,-0.160,0.000,0.000,0.000
1640700025364513024,2021-12-28-14:00:25,10.1.1.3,4,-0.160,-0.160,-0.160,0.000,0.000,0.000
1640700026063481088,2021-12-28-14:00:26,10.1.1.3,15,-0.160,-0.160,-0.160,0.000,0.000,0.000
1640700027563307008,2021-12-28-14:00:27,10.1.1.3,10,-0.160,-0.160,-0.160,0.000,0.000,0.000
1640700028239826944,2021-12-28-14:00:28,10.1.1.3,1,-0.160,-0.160,-0.160,0.000,0.000,0.000
1640700029658966016,2021-12-28-14:00:29,10.1.1.3,3,-0.160,-0.160,-0.160,0.000,0.000,0.000
1640700030339972864,2021-12-28-14:00:30,10.1.1.3,10,-0.160,-0.160,-0.160,0.000,0.000,0.000
1640700031787138048,2021-12-28-14:00:31,10.1.1.3,11,-0.160,-0.160,-0.160,0.000,0.000,0.000
1640700032518269184,2021-12-28-14:00:32,10.1.1.3,10,-0.160,-0.160,-0.160,0.000,0.000,0.000
1640700033953350912,2021-12-28-14:00:33,10.1.1.3,12,-0.160,-0.160,-0.160,0.000,0.000,0.000
1640700034635183104,2021-12-28-14:00:34,10.1.1.3,4,-0.160,-0.160,-0.160,0.000,0.000,0.000
1640700036077873920,2021-12-28-14:00:36,10.1.1.3,11,-0.160,-0.160,-0.160,0.000,0.000,0.000
1640700036781399040,2021-12-28-14:00:36,10.1.1.3,9,-0.160,-0.160,-0.160,0.000,0.000,0.000
1640700038240369920,2021-12-28-14:00:38,10.1.1.3,16,-0.160,-0.160,-0.160,0.000,0.000,0.000
1640700038921120000,2021-12-28-14:00:38,10.1.1.3,15,-0.160,-0.160,-0.160,0.000,0.000,0.000
1640700040302391040,2021-12-28-14:00:40,10.1.1.3,8,-0.160,-0.160,-0.160,0.000,0.000,0.000
1640700041002003968,2021-12-28-14:00:41,10.1.1.3,11,-0.160,-0.160,-0.160,0.000,0.000,0.000
1640700042440869120,2021-12-28-14:00:42,10.1.1.3,2,-0.160,-0.160,-0.160,0.000,0.000,0.000
1640700043160739840,2021-12-28-14:00:43,10.1.1.3,20,-0.160,-0.160,-0.160,0.000,0.000,0.000
1640700044560048128,2021-12-28-14:00:44,10.1.1.3,7,-0.160,-0.160,-0.160,0.000,0.000,0.000
1640700045259368960,2021-12-28-14:00:45,10.1.1.3,17,-0.160,-0.160,-0.160,0.000,0.000,0.000
1640700046680478208,2021-12-28-14:00:46,10.1.1.3,19,-0.160,-0.160,-0.160,0.000,0.000,0.000
1640700047418066944,2021-12-28-14:00:47,10.1.1.3,13,-0.160,-0.160,-0.160,0.000,0.000,0.000
1640700048817339904,2021-12-28-14:00:48,10.1.1.3,14,-0.160,-0.160,-0.160,0.000,0.000,0.000
1640700049497123840,2021-12-28-14:00:49,10.1.1.3,15,-0.160,-0.160,-0.160,0.000,0.000,0.000
1640700050898042880,2021-12-28-14:00:50,10.1.1.3,0,-0.160,-0.160,-0.160,0.000,0.000,0.000
1640700051697017856,2021-12-28-14:00:51,10.1.1.3,18,-0.160,-0.160,-0.160,0.000,0.000,0.000
1640700053230371840,2021-12-28-14:00:53,10.1.1.3,6,-0.160,-0.160,-0.160,0.000,0.000,0.000
1640700053910262016,2021-12-28-14:00:53,10.1.1.3,16,-0.160,-0.160,-0.160,0.000,0.000,0.000
1640700055328316928,2021-12-28-14:00:55,10.1.1.3,17,-0.160,-0.160,-0.160,0.000,0.000,0.000
1640700056008315136,2021-12-28-14:00:56,10.1.1.3,9,-0.160,-0.160,-0.160,0.000,0.000,0.000
1640700057468692992,2021-12-28-14:00:57,10.1.1.3,20,-0.160,-0.160,-0.160,0.000,0.000,0.000
1640700058206381056,2021-12-28-14:00:58,10.1.1.3,20,-0.160,-0.160,-0.160,0.000,0.000,0.000
1640700059646626048,2021-12-28-14:00:59,10.1.1.3,7,-0.160,-0.160,-0.160,0.000,0.000,0.000
1640700060380711936,2021-12-28-14:01:00,10.1.1.3,1,-0.160,-0.160,-0.160,0.000,0.000,0.000
1640700061902892032,2021-12-28-14:01:01,10.1.1.3,6,-0.160,-0.160,-0.160,0.000,0.000,0.000
1640700062654838016,2021-12-28-14:01:02,10.1.1.3,7,-0.160,-0.160,-0.160,0.000,0.000,0.000
1640700064107836928,2021-12-28-14:01:04,10.1.1.3,10,-0.160,-0.160,-0.160,0.000,0.000,0.000
1640700064790616064,2021-12-28-14:01:04,10.1.1.3,2,-0.160,-0.160,-0.160,0.000,0.000,0.000
1640700066234647040,2021-12-28-14:01:06,10.1.1.3,11,-0.160,-0.160,-0.160,0.000,0.000,0.000
1640700066915118848,2021-12-28-14:01:06,10.1.1.3,17,-0.160,-0.160,-0.160,0.000,0.000,0.000
1640700068318768896,2021-12-28-14:01:08,10.1.1.3,3,-0.160,-0.160,-0.160,0.000,0.000,0.000
1640700069019258112,2021-12-28-14:01:09,10.1.1.3,11,-0.160,-0.160,-0.160,0.000,0.000,0.000
1640700070482755072,2021-12-28-14:01:10,10.1.1.3,2,-0.160,-0.160,-0.160,0.000,0.000,0.000
1640700071222721024,2021-12-28-14:01:11,10.1.1.3,12,-0.160,-0.160,-0.160,0.000,0.000,0.000
1640700072697846016,2021-12-28-14:01:12,10.1.1.3,6,-0.160,-0.160,-0.160,0.000,0.000,0.000
1640700073432948224,2021-12-28-14:01:13,10.1.1.3,15,-0.160,-0.160,-0.160,0.000,0.000,0.000
1640700075181839104,2021-12-28-14:01:15,10.1.1.3,16,-0.160,-0.160,-0.160,0.000,0.000,0.000
1640700076016113152,2021-12-28-14:01:16,10.1.1.3,20,-0.160,-0.160,-0.160,0.000,0.000,0.000
1640700077558999040,2021-12-28-14:01:17,10.1.1.3,10,-0.160,-0.160,-0.160,0.000,0.000,0.000
1640700078258233088,2021-12-28-14:01:18,10.1.1.3,7,-0.160,-0.160,-0.160,0.000,0.000,0.000
1640700079978679808,2021-12-28-14:01:19,10.1.1.3,5,-0.160,-0.160,-0.160,0.000,0.000,0.000
1640700080698128896,2021-12-28-14:01:20,10.1.1.3,1,-0.160,-0.160,-0.160,0.000,0.000,0.000
1640700082123888896,2021-12-28-14:01:22,10.1.1.3,2,-0.160,-0.160,-0.160,0.000,0.000,0.000
1640700082866724096,2021-12-28-14:01:22,10.1.1.3,13,-0.160,-0.160,-0.160,0.000,0.000,0.000
1640700084612529920,2021-12-28-14:01:24,10.1.1.3,12,-0.160,-0.160,-0.160,0.000,0.000,0.000
1640700085390739968,2021-12-28-14:01:25,10.1.1.3,16,-0.160,-0.160,-0.160,0.000,0.000,0.000
1640700086770374912,2021-12-28-14:01:26,10.1.1.3,1,-0.160,-0.160,-0.160,0.000,0.000,0.000
1640700087468292096,2021-12-28-14:01:27,10.1.1.3,15,-0.160,-0.160,-0.160,0.000,0.000,0.000
1640700088865183232,2021-12-28-14:01:28,10.1.1.3,15,-0.160,-0.160,-0.160,0.000,0.000,0.000
1640700089529174016,2021-12-28-14:01:29,10.1.1.3,6,-0.160,-0.160,-0.160,0.000,0.000,0.000
1640700090962008832,2021-12-28-14:01:30,10.1.1.3,16,-0.160,-0.160,-0.160,0.000,0.000,0.000
1640700091641384960,2021-12-28-14:01:31,10.1.1.3,8,-0.160,-0.160,-0.160,0.000,0.000,0.000
1640700093018585856,2021-12-28-14:01:33,10.1.1.3,7,-0.160,-0.160,-0.160,0.000,0.000,0.000
1640700093709796864,2021-12-28-14:01:33,10.1.1.3,21,-0.160,-0.160,-0.160,0.000,0.000,0.000
1640700095103628032,2021-12-28-14:01:35,10.1.1.3,1,-0.160,-0.160,-0.160,0.000,0.000,0.000
1640700095806283008,2021-12-28-14:01:35,10.1.1.3,6,-0.160,-0.160,-0.160,0.000,0.000,0.000
1640700097200992000,2021-12-28-14:01:37,10.1.1.3,11,-0.160,-0.160,-0.160,0.000,0.000,0.000
1640700097894644992,2021-12-28-14:01:37,10.1.1.3,3,-0.160,-0.160,-0.160,0.000,0.000,0.000
1640700099323065088,2021-12-28-14:01:39,10.1.1.3,9,-0.160,-0.160,-0.160,0.000,0.000,0.000
1640700100078907136,2021-12-28-14:01:40,10.1.1.3,16,-0.160,-0.160,-0.160,0.000,0.000,0.000
1640700101782022912,2021-12-28-14:01:41,10.1.1.3,14,-0.160,-0.160,-0.160,0.000,0.000,0.000
1640700102682409984,2021-12-28-14:01:42,10.1.1.3,0,-0.160,-0.160,-0.160,0.000,0.000,0.000
1640700104142475008,2021-12-28-14:01:44,10.1.1.3,3,-0.160,-0.160,-0.160,0.000,0.000,0.000
1640700104863091968,2021-12-28-14:01:44,10.1.1.3,19,-0.160,-0.160,-0.160,0.000,0.000,0.000
1640700106282702848,2021-12-28-14:01:46,10.1.1.3,7,-0.160,-0.160,-0.160,0.000,0.000,0.000
1640700107049735168,2021-12-28-14:01:47,10.1.1.3,10,-0.160,-0.160,-0.160,0.000,0.000,0.000
1640700108483251200,2021-12-28-14:01:48,10.1.1.3,4,-0.160,-0.160,-0.160,0.000,0.000,0.000
1640700110579181824,2021-12-28-14:01:50,10.1.1.3,6,-0.160,-0.160,-0.160,0.000,0.000,0.000
1640700111326582016,2021-12-28-14:01:51,10.1.1.3,1,-0.160,-0.160,-0.160,0.000,0.000,0.000
1640700112936646912,2021-12-28-14:01:52,10.1.1.3,3,-0.160,-0.160,-0.160,0.000,0.000,0.000
1640700113655698176,2021-12-28-14:01:53,10.1.1.3,18,-0.160,-0.160,-0.160,0.000,0.000,0.000
1640700115054830080,2021-12-28-14:01:55,10.1.1.3,14,-0.160,-0.160,-0.160,0.000,0.000,0.000
1640700115734547968,2021-12-28-14:01:55,10.1.1.3,6,-0.160,-0.160,-0.160,0.000,0.000,0.000
1640700117171441920,2021-12-28-14:01:57,10.1.1.3,3,-0.160,-0.160,-0.160,0.000,0.000,0.000
1640700117850738944,2021-12-28-14:01:57,10.1.1.3,3,-0.160,-0.160,-0.160,0.000,0.000,0.000
1640700119289149952,2021-12-28-14:01:59,10.1.1.3,2,-0.160,-0.160,-0.160,0.000,0.000,0.000
1640700119967993856,2021-12-28-14:01:59,10.1.1.3,2,-0.160,-0.160,-0.160,0.000,0.000,0.000
1640700121624561920,2021-12-28-14:02:01,10.1.1.3,15,-0.160,-0.160,-0.160,0.000,0.000,0.000
1640700122514769920,2021-12-28-14:02:02,10.1.1.3,3,-0.160,-0.160,-0.160,0.000,0.000,0.000
1640700124363781888,2021-12-28-14:02:04,10.1.1.3,10,-0.160,-0.160,-0.160,0.000,0.000,0.000
1640700125164321792,2021-12-28-14:02:05,10.1.1.3,5,-0.160,-0.160,-0.160,0.000,0.000,0.000
1640700126782025216,2021-12-28-14:02:06,10.1.1.3,4,-0.160,-0.160,-0.160,0.000,0.000,0.000
1640700127445923072,2021-12-28-14:02:07,10.1.1.3,1,-0.160,-0.160,-0.160,0.000,0.000,0.000
1640700129036552960,2021-12-28-14:02:09,10.1.1.3,10,-0.160,-0.160,-0.160,0.000,0.000,0.000
1640700129713509120,2021-12-28-14:02:09,10.1.1.3,7,-0.160,-0.160,-0.160,0.000,0.000,0.000
1640700131197926144,2021-12-28-14:02:11,10.1.1.3,18,-0.160,-0.160,-0.160,0.000,0.000,0.000
1640700131879218176,2021-12-28-14:02:11,10.1.1.3,11,-0.160,-0.160,-0.160,0.000,0.000,0.000
1640700133309763072,2021-12-28-14:02:13,10.1.1.3,12,-0.160,-0.160,-0.160,0.000,0.000,0.000
1640700133981901824,2021-12-28-14:02:13,10.1.1.3,8,-0.160,-0.160,-0.160,0.000,0.000,0.000
1640700135562804992,2021-12-28-14:02:15,10.1.1.3,17,-0.160,-0.160,-0.160,0.000,0.000,0.000
1640700136243393792,2021-12-28-14:02:16,10.1.1.3,7,-0.160,-0.160,-0.160,0.000,0.000,0.000
1640700137683073024,2021-12-28-14:02:17,10.1.1.3,17,-0.160,-0.160,-0.160,0.000,0.000,0.000
1640700138344145920,2021-12-28-14:02:18,10.1.1.3,1,-0.160,-0.160,-0.160,0.000,0.000,0.000
1640700139763417856,2021-12-28-14:02:19,10.1.1.3,18,-0.160,-0.160,-0.160,0.000,0.000,0.000
1640700140422328832,2021-12-28-14:02:20,10.1.1.3,0,-0.160,-0.160,-0.160,0.000,0.000,0.000
1640700141844044800,2021-12-28-14:02:21,10.1.1.3,18,-0.160,-0.160,-0.160,0.000,0.000,0.000
1640700142581088000,2021-12-28-14:02:22,10.1.1.3,8,-0.160,-0.160,-0.160,0.000,0.000,0.000
1640700144171693056,2021-12-28-14:02:24,10.1.1.3,18,-0.160,-0.160,-0.160,0.000,0.000,0.000
1640700145038932992,2021-12-28-14:02:25,10.1.1.3,6,-0.160,-0.160,-0.160,0.000,0.000,0.000
1640700146435885056,2021-12-28-14:02:26,10.1.1.3,7,-0.160,-0.160,-0.160,0.000,0.000,0.000
1640700147115257088,2021-12-28-14:02:27,10.1.1.3,16,-0.160,-0.160,-0.160,0.000,0.000,0.000
1640700148513238016,2021-12-28-14:02:28,10.1.1.3,2,-0.160,-0.160,-0.160,0.000,0.000,0.000
1640700149232312064,2021-12-28-14:02:29,10.1.1.3,15,-0.160,-0.160,-0.160,0.000,0.000,0.000
1640700150850469120,2021-12-28-14:02:30,10.1.1.3,7,-0.160,-0.160,-0.160,0.000,0.000,0.000
1640700151593571840,2021-12-28-14:02:31,10.1.1.3,15,-0.160,-0.160,-0.160,0.000,0.000,0.000
1640700153168143104,2021-12-28-14:02:33,10.1.1.3,3,-0.160,-0.160,-0.160,0.000,0.000,0.000
1640700153867352064,2021-12-28-14:02:33,10.1.1.3,20,-0.160,-0.160,-0.160,0.000,0.000,0.000
1640700155263660800,2021-12-28-14:02:35,10.1.1.3,6,-0.160,-0.160,-0.160,0.000,0.000,0.000
1640700156062542848,2021-12-28-14:02:36,10.1.1.3,13,-0.160,-0.160,-0.160,0.000,0.000,0.000
1640700157441707008,2021-12-28-14:02:37,10.1.1.3,1,-0.160,-0.160,-0.160,0.000,0.000,0.000
1640700158159854848,2021-12-28-14:02:38,10.1.1.3,9,-0.160,-0.160,-0.160,0.000,0.000,0.000
1640700159560700928,2021-12-28-14:02:39,10.1.1.3,16,-0.160,-0.160,-0.160,0.000,0.000,0.000
1640700160224747776,2021-12-28-14:02:40,10.1.1.3,5,-0.160,-0.160,-0.160,0.000,0.000,0.000
1640700161811450880,2021-12-28-14:02:41,10.1.1.3,1,-0.160,-0.160,-0.160,0.000,0.000,0.000
1640700162573056000,2021-12-28-14:02:42,10.1.1.3,13,-0.160,-0.160,-0.160,0.000,0.000,0.000
1640700164049339136,2021-12-28-14:02:44,10.1.1.3,16,-0.160,-0.160,-0.160,0.000,0.000,0.000
1640700164873692160,2021-12-28-14:02:44,10.1.1.3,11,-0.160,-0.160,-0.160,0.000,0.000,0.000
1640700166575086080,2021-12-28-14:02:46,10.1.1.3,22,-0.160,-0.160,-0.160,0.000,0.000,0.000
1640700167321078016,2021-12-28-14:02:47,10.1.1.3,17,-0.160,-0.160,-0.160,0.000,0.000,0.000
1640700168760974848,2021-12-28-14:02:48,10.1.1.3,7,-0.160,-0.160,-0.160,0.000,0.000,0.000
1640700169440963072,2021-12-28-14:02:49,10.1.1.3,10,-0.160,-0.160,-0.160,0.000,0.000,0.000
1640700170862656000,2021-12-28-14:02:50,10.1.1.3,10,-0.160,-0.160,-0.160,0.000,0.000,0.000
1640700171622790144,2021-12-28-14:02:51,10.1.1.3,12,-0.160,-0.160,-0.160,0.000,0.000,0.000
1640700173070195968,2021-12-28-14:02:53,10.1.1.3,15,-0.160,-0.160,-0.160,0.000,0.000,0.000
1640700173745604864,2021-12-28-14:02:53,10.1.1.3,11,-0.160,-0.160,-0.160,0.000,0.000,0.000
1640700175219917056,2021-12-28-14:02:55,10.1.1.3,6,-0.160,-0.160,-0.160,0.000,0.000,0.000
1640700175899691008,2021-12-28-14:02:55,10.1.1.3,6,-0.160,-0.160,-0.160,0.000,0.000,0.000
1640700177324375040,2021-12-28-14:02:57,10.1.1.3,13,-0.160,-0.160,-0.160,0.000,0.000,0.000
1640700177996201984,2021-12-28-14:02:57,10.1.1.3,4,-0.160,-0.160,-0.160,0.000,0.000,0.000
1640700179397635072,2021-12-28-14:02:59,10.1.1.3,4,-0.160,-0.160,-0.160,0.000,0.000,0.000
1640700180113328896,2021-12-28-14:03:00,10.1.1.3,9,-0.160,-0.160,-0.160,0.000,0.000,0.000
1640700181531996928,2021-12-28-14:03:01,10.1.1.3,12,-0.160,-0.160,-0.160,0.000,0.000,0.000
1640700182211659008,2021-12-28-14:03:02,10.1.1.3,0,-0.160,-0.160,-0.160,0.000,0.000,0.000
1640700183748609024,2021-12-28-14:03:03,10.1.1.3,19,-0.160,-0.160,-0.160,0.000,0.000,0.000
1640700184468363008,2021-12-28-14:03:04,10.1.1.3,1,-0.160,-0.160,-0.160,0.000,0.000,0.000
1640700185906797056,2021-12-28-14:03:05,10.1.1.3,15,-0.160,-0.160,-0.160,0.000,0.000,0.000
1640700186585128960,2021-12-28-14:03:06,10.1.1.3,2,-0.160,-0.160,-0.160,0.000,0.000,0.000
1640700188083100160,2021-12-28-14:03:08,10.1.1.3,18,-0.160,-0.160,-0.160,0.000,0.000,0.000
1640700188743695104,2021-12-28-14:03:08,10.1.1.3,2,-0.160,-0.160,-0.160,0.000,0.000,0.000
1640700190158757888,2021-12-28-14:03:10,10.1.1.3,14,-0.160,-0.160,-0.160,0.000,0.000,0.000
1640700190817992960,2021-12-28-14:03:10,10.1.1.3,5,-0.160,-0.160,-0.160,0.000,0.000,0.000
1640700192223789824,2021-12-28-14:03:12,10.1.1.3,15,-0.160,-0.160,-0.160,0.000,0.000,0.000
1640700192906790144,2021-12-28-14:03:12,10.1.1.3,4,-0.160,-0.160,-0.160,0.000,0.000,0.000
1640700194312953088,2021-12-28-14:03:14,10.1.1.3,4,-0.160,-0.160,-0.160,0.000,0.000,0.000
1640700194994551808,2021-12-28-14:03:14,10.1.1.3,16,-0.160,-0.160,-0.160,0.000,0.000,0.000
1640700197243014144,2021-12-28-14:03:17,10.1.1.3,22,-0.160,-0.160,-0.160,0.000,0.000,0.000
1640700199001943040,2021-12-28-14:03:19,10.1.1.3,16,-0.160,-0.160,-0.160,0.000,0.000,0.000
1640700199682969088,2021-12-28-14:03:19,10.1.1.3,2,-0.160,-0.160,-0.160,0.000,0.000,0.000
1640700201336646912,2021-12-28-14:03:21,10.1.1.3,14,-0.160,-0.160,-0.160,0.000,0.000,0.000
1640700202183276800,2021-12-28-14:03:22,10.1.1.3,3,-0.160,-0.160,-0.160,0.000,0.000,0.000
1640700203646233088,2021-12-28-14:03:23,10.1.1.3,20,-0.160,-0.160,-0.160,0.000,0.000,0.000
1640700204341958912,2021-12-28-14:03:24,10.1.1.3,20,-0.160,-0.160,-0.160,0.000,0.000,0.000
1640700205843326976,2021-12-28-14:03:25,10.1.1.3,17,-0.160,-0.160,-0.160,0.000,0.000,0.000
1640700206620644096,2021-12-28-14:03:26,10.1.1.3,14,-0.160,-0.160,-0.160,0.000,0.000,0.000
1640700208178757888,2021-12-28-14:03:28,10.1.1.3,18,-0.160,-0.160,-0.160,0.000,0.000,0.000
1640700208918086144,2021-12-28-14:03:28,10.1.1.3,5,-0.160,-0.160,-0.160,0.000,0.000,0.000
1640700210416555008,2021-12-28-14:03:30,10.1.1.3,5,-0.160,-0.160,-0.160,0.000,0.000,0.000
1640700211135757824,2021-12-28-14:03:31,10.1.1.3,16,-0.160,-0.160,-0.160,0.000,0.000,0.000
1640700212534217984,2021-12-28-14:03:32,10.1.1.3,10,-0.160,-0.160,-0.160,0.000,0.000,0.000
1640700213212569088,2021-12-28-14:03:33,10.1.1.3,12,-0.160,-0.160,-0.160,0.000,0.000,0.000
1640700214710802176,2021-12-28-14:03:34,10.1.1.3,13,-0.160,-0.160,-0.160,0.000,0.000,0.000
1640700215371382016,2021-12-28-14:03:35,10.1.1.3,5,-0.160,-0.160,-0.160,0.000,0.000,0.000
1640700216809634048,2021-12-28-14:03:36,10.1.1.3,9,-0.160,-0.160,-0.160,0.000,0.000,0.000
1640700217489121024,2021-12-28-14:03:37,10.1.1.3,16,-0.160,-0.160,-0.160,0.000,0.000,0.000
1640700218887900160,2021-12-28-14:03:38,10.1.1.3,3,-0.160,-0.160,-0.160,0.000,0.000,0.000
1640700219565803008,2021-12-28-14:03:39,10.1.1.3,2,-0.160,-0.160,-0.160,0.000,0.000,0.000
1640700220963815936,2021-12-28-14:03:40,10.1.1.3,3,-0.160,-0.160,-0.160,0.000,0.000,0.000
1640700221660137984,2021-12-28-14:03:41,10.1.1.3,0,-0.160,-0.160,-0.160,0.000,0.000,0.000
1640700223200431104,2021-12-28-14:03:43,10.1.1.3,20,-0.160,-0.160,-0.160,0.000,0.000,0.000
1640700223883279104,2021-12-28-14:03:43,10.1.1.3,17,-0.160,-0.160,-0.160,0.000,0.000,0.000
1640700225330123008,2021-12-28-14:03:45,10.1.1.3,6,-0.160,-0.160,-0.160,0.000,0.000,0.000
1640700226031416832,2021-12-28-14:03:46,10.1.1.3,16,-0.160,-0.160,-0.160,0.000,0.000,0.000
1640700227415264000,2021-12-28-14:03:47,10.1.1.3,18,-0.160,-0.160,-0.160,0.000,0.000,0.000
1640700228096517120,2021-12-28-14:03:48,10.1.1.3,15,-0.160,-0.160,-0.160,0.000,0.000,0.000
1640700229540126976,2021-12-28-14:03:49,10.1.1.3,4,-0.160,-0.160,-0.160,0.000,0.000,0.000
1640700230324908032,2021-12-28-14:03:50,10.1.1.3,3,-0.160,-0.160,-0.160,0.000,0.000,0.000
1640700231765913856,2021-12-28-14:03:51,10.1.1.3,15,-0.160,-0.160,-0.160,0.000,0.000,0.000
1640700232449150976,2021-12-28-14:03:52,10.1.1.3,3,-0.160,-0.160,-0.160,0.000,0.000,0.000
1640700234083484928,2021-12-28-14:03:54,10.1.1.3,10,-0.160,-0.160,-0.160,0.000,0.000,0.000
1640700234783629824,2021-12-28-14:03:54,10.1.1.3,16,-0.160,-0.160,-0.160,0.000,0.000,0.000
1640700236202465024,2021-12-28-14:03:56,10.1.1.3,6,-0.160,-0.160,-0.160,0.000,0.000,0.000
1640700236868338944,2021-12-28-14:03:56,10.1.1.3,0,-0.160,-0.160,-0.160,0.000,0.000,0.000
1640700238401894144,2021-12-28-14:03:58,10.1.1.3,7,-0.160,-0.160,-0.160,0.000,0.000,0.000
1640700239269593856,2021-12-28-14:03:59,10.1.1.3,16,-0.160,-0.160,-0.160,0.000,0.000,0.000
1640700240723252992,2021-12-28-14:04:00,10.1.1.3,13,-0.160,-0.160,-0.160,0.000,0.000,0.000
1640700241618472192,2021-12-28-14:04:01,10.1.1.3,1,-0.160,-0.160,-0.160,0.000,0.000,0.000
1640700243276787968,2021-12-28-14:04:03,10.1.1.3,17,-0.160,-0.160,-0.160,0.000,0.000,0.000
1640700244094553088,2021-12-28-14:04:04,10.1.1.3,7,-0.160,-0.160,-0.160,0.000,0.000,0.000
1640700245512727040,2021-12-28-14:04:05,10.1.1.3,2,-0.160,-0.160,-0.160,0.000,0.000,0.000
1640700246191888128,2021-12-28-14:04:06,10.1.1.3,18,-0.160,-0.160,-0.160,0.000,0.000,0.000
1640700247590477824,2021-12-28-14:04:07,10.1.1.3,7,-0.160,-0.160,-0.160,0.000,0.000,0.000
1640700248288728064,2021-12-28-14:04:08,10.1.1.3,12,-0.160,-0.160,-0.160,0.000,0.000,0.000
1640700249727917824,2021-12-28-14:04:09,10.1.1.3,0,-0.160,-0.160,-0.160,0.000,0.000,0.000
1640700250425883904,2021-12-28-14:04:10,10.1.1.3,18,-0.160,-0.160,-0.160,0.000,0.000,0.000
1640700251825377024,2021-12-28-14:04:11,10.1.1.3,17,-0.160,-0.160,-0.160,0.000,0.000,0.000
1640700252508424960,2021-12-28-14:04:12,10.1.1.3,7,-0.160,-0.160,-0.160,0.000,0.000,0.000
1640700253961478912,2021-12-28-14:04:13,10.1.1.3,1,-0.160,-0.160,-0.160,0.000,0.000,0.000
1640700254719657984,2021-12-28-14:04:14,10.1.1.3,20,-0.160,-0.160,-0.160,0.000,0.000,0.000
1640700256151921920,2021-12-28-14:04:16,10.1.1.3,10,-0.160,-0.160,-0.160,0.000,0.000,0.000
1640700256949043968,2021-12-28-14:04:16,10.1.1.3,13,-0.160,-0.160,-0.160,0.000,0.000,0.000
1640700258516850944,2021-12-28-14:04:18,10.1.1.3,17,-0.160,-0.160,-0.160,0.000,0.000,0.000
1640700259296559104,2021-12-28-14:04:19,10.1.1.3,7,-0.160,-0.160,-0.160,0.000,0.000,0.000
1640700260698971904,2021-12-28-14:04:20,10.1.1.3,10,-0.160,-0.160,-0.160,0.000,0.000,0.000
1640700261380687872,2021-12-28-14:04:21,10.1.1.3,19,-0.160,-0.160,-0.160,0.000,0.000,0.000
1640700262782731008,2021-12-28-14:04:22,10.1.1.3,14,-0.160,-0.160,-0.160,0.000,0.000,0.000
1640700263462914816,2021-12-28-14:04:23,10.1.1.3,15,-0.160,-0.160,-0.160,0.000,0.000,0.000
1640700264923606016,2021-12-28-14:04:24,10.1.1.3,15,-0.160,-0.160,-0.160,0.000,0.000,0.000
1640700265588376064,2021-12-28-14:04:25,10.1.1.3,12,-0.160,-0.160,-0.160,0.000,0.000,0.000
1640700266999747072,2021-12-28-14:04:26,10.1.1.3,9,-0.160,-0.160,-0.160,0.000,0.000,0.000
1640700267835258112,2021-12-28-14:04:27,10.1.1.3,8,-0.160,-0.160,-0.160,0.000,0.000,0.000
1640700269662547200,2021-12-28-14:04:29,10.1.1.3,18,-0.160,-0.160,-0.160,0.000,0.000,0.000
1640700270406302976,2021-12-28-14:04:30,10.1.1.3,10,-0.160,-0.160,-0.160,0.000,0.000,0.000
1640700272002572032,2021-12-28-14:04:32,10.1.1.3,10,-0.160,-0.160,-0.160,0.000,0.000,0.000
1640700272685007104,2021-12-28-14:04:32,10.1.1.3,16,-0.160,-0.160,-0.160,0.000,0.000,0.000
1640700274184160000,2021-12-28-14:04:34,10.1.1.3,5,-0.160,-0.160,-0.160,0.000,0.000,0.000
1640700274858401024,2021-12-28-14:04:34,10.1.1.3,14,-0.160,-0.160,-0.160,0.000,0.000,0.000
1640700276255747072,2021-12-28-14:04:36,10.1.1.3,11,-0.160,-0.160,-0.160,0.000,0.000,0.000
1640700276936017920,2021-12-28-14:04:36,10.1.1.3,16,-0.160,-0.160,-0.160,0.000,0.000,0.000
1640700278332942848,2021-12-28-14:04:38,10.1.1.3,6,-0.160,-0.160,-0.160,0.000,0.000,0.000
1640700279072064000,2021-12-28-14:04:39,10.1.1.3,3,-0.160,-0.160,-0.160,0.000,0.000,0.000
1640700280574716928,2021-12-28-14:04:40,10.1.1.3,10,-0.160,-0.160,-0.160,0.000,0.000,0.000
1640700281392997120,2021-12-28-14:04:41,10.1.1.3,10,-0.160,-0.160,-0.160,0.000,0.000,0.000
1640700283190483968,2021-12-28-14:04:43,10.1.1.3,9,-0.160,-0.160,-0.160,0.000,0.000,0.000
1640700284005937152,2021-12-28-14:04:44,10.1.1.3,5,-0.160,-0.160,-0.160,0.000,0.000,0.000
1640700285382827008,2021-12-28-14:04:45,10.1.1.3,1,-0.160,-0.160,-0.160,0.000,0.000,0.000
1640700286061670912,2021-12-28-14:04:46,10.1.1.3,3,-0.160,-0.160,-0.160,0.000,0.000,0.000
1640700287501195008,2021-12-28-14:04:47,10.1.1.3,8,-0.160,-0.160,-0.160,0.000,0.000,0.000
1640700288280038144,2021-12-28-14:04:48,10.1.1.3,12,-0.160,-0.160,-0.160,0.000,0.000,0.000
1640700289666778112,2021-12-28-14:04:49,10.1.1.3,3,-0.160,-0.160,-0.160,0.000,0.000,0.000
1640700290349617920,2021-12-28-14:04:50,10.1.1.3,10,-0.160,-0.160,-0.160,0.000,0.000,0.000
1640700291780150784,2021-12-28-14:04:51,10.1.1.3,19,-0.160,-0.160,-0.160,0.000,0.000,0.000
1640700292436134144,2021-12-28-14:04:52,10.1.1.3,7,-0.160,-0.160,-0.160,0.000,0.000,0.000
1640700293860691968,2021-12-28-14:04:53,10.1.1.3,13,-0.160,-0.160,-0.160,0.000,0.000,0.000
1640700294541939968,2021-12-28-14:04:54,10.1.1.3,17,-0.160,-0.160,-0.160,0.000,0.000,0.000
1640700296126200832,2021-12-28-14:04:56,10.1.1.3,6,-0.160,-0.160,-0.160,0.000,0.000,0.000
1640700296965636096,2021-12-28-14:04:56,10.1.1.3,19,-0.160,-0.160,-0.160,0.000,0.000,0.000
1640700298486875136,2021-12-28-14:04:58,10.1.1.3,17,-0.160,-0.160,-0.160,0.000,0.000,0.000
1640700299202568960,2021-12-28-14:04:59,10.1.1.3,8,-0.160,-0.160,-0.160,0.000,0.000,0.000
1640700300682777856,2021-12-28-14:05:00,10.1.1.3,2,-0.160,-0.160,-0.160,0.000,0.000,0.000
1640700301382023936,2021-12-28-14:05:01,10.1.1.3,3,-0.160,-0.160,-0.160,0.000,0.000,0.000
1640700302841022976,2021-12-28-14:05:02,10.1.1.3,5,-0.160,-0.160,-0.160,0.000,0.000,0.000
1640700303527884032,2021-12-28-14:05:03,10.1.1.3,15,-0.160,-0.160,-0.160,0.000,0.000,0.000
1640700304958787840,2021-12-28-14:05:04,10.1.1.3,1,-0.160,-0.160,-0.160,0.000,0.000,0.000
1640700305662167040,2021-12-28-14:05:05,10.1.1.3,12,-0.160,-0.160,-0.160,0.000,0.000,0.000
1640700307076567808,2021-12-28-14:05:07,10.1.1.3,17,-0.160,-0.160,-0.160,0.000,0.000,0.000
1640700307795456000,2021-12-28-14:05:07,10.1.1.3,19,-0.160,-0.160,-0.160,0.000,0.000,0.000
1640700309195079168,2021-12-28-14:05:09,10.1.1.3,0,-0.160,-0.160,-0.160,0.000,0.000,0.000
1640700309912749056,2021-12-28-14:05:09,10.1.1.3,9,-0.160,-0.160,-0.160,0.000,0.000,0.000
1640700311371453952,2021-12-28-14:05:11,10.1.1.3,3,-0.160,-0.160,-0.160,0.000,0.000,0.000
1640700312049985024,2021-12-28-14:05:12,10.1.1.3,17,-0.160,-0.160,-0.160,0.000,0.000,0.000
1640700313448358912,2021-12-28-14:05:13,10.1.1.3,18,-0.160,-0.160,-0.160,0.000,0.000,0.000
1640700314107186176,2021-12-28-14:05:14,10.1.1.3,6,-0.160,-0.160,-0.160,0.000,0.000,0.000
1640700315509132032,2021-12-28-14:05:15,10.1.1.3,5,-0.160,-0.160,-0.160,0.000,0.000,0.000
1640700316284720896,2021-12-28-14:05:16,10.1.1.3,17,-0.160,-0.160,-0.160,0.000,0.000,0.000
1640700317920981760,2021-12-28-14:05:17,10.1.1.3,14,-0.160,-0.160,-0.160,0.000,0.000,0.000
1640700318620979968,2021-12-28-14:05:18,10.1.1.3,18,-0.160,-0.160,-0.160,0.000,0.000,0.000
1640700320000201984,2021-12-28-14:05:20,10.1.1.3,4,-0.160,-0.160,-0.160,0.000,0.000,0.000
1640700320722985984,2021-12-28-14:05:20,10.1.1.3,16,-0.160,-0.160,-0.160,0.000,0.000,0.000
1640700322148271104,2021-12-28-14:05:22,10.1.1.3,14,-0.160,-0.160,-0.160,0.000,0.000,0.000
1640700322963834880,2021-12-28-14:05:22,10.1.1.3,26,-0.160,-0.160,-0.160,0.000,0.000,0.000
1640700324478236928,2021-12-28-14:05:24,10.1.1.3,4,-0.160,-0.160,-0.160,0.000,0.000,0.000
1640700325156882944,2021-12-28-14:05:25,10.1.1.3,7,-0.160,-0.160,-0.160,0.000,0.000,0.000
1640700326579224064,2021-12-28-14:05:26,10.1.1.3,12,-0.160,-0.160,-0.160,0.000,0.000,0.000
1640700327239804928,2021-12-28-14:05:27,10.1.1.3,2,-0.160,-0.160,-0.160,0.000,0.000,0.000
1640700328642589952,2021-12-28-14:05:28,10.1.1.3,2,-0.160,-0.160,-0.160,0.000,0.000,0.000
1640700329343415040,2021-12-28-14:05:29,10.1.1.3,15,-0.160,-0.160,-0.160,0.000,0.000,0.000
1640700330744834048,2021-12-28-14:05:30,10.1.1.3,2,-0.160,-0.160,-0.160,0.000,0.000,0.000
1640700331442797056,2021-12-28-14:05:31,10.1.1.3,18,-0.160,-0.160,-0.160,0.000,0.000,0.000
1640700332994391808,2021-12-28-14:05:32,10.1.1.3,17,-0.160,-0.160,-0.160,0.000,0.000,0.000
1640700333661811200,2021-12-28-14:05:33,10.1.1.3,14,-0.160,-0.160,-0.160,0.000,0.000,0.000
1640700335063602944,2021-12-28-14:05:35,10.1.1.3,11,-0.160,-0.160,-0.160,0.000,0.000,0.000
1640700335741056000,2021-12-28-14:05:35,10.1.1.3,5,-0.160,-0.160,-0.160,0.000,0.000,0.000
1640700337178775040,2021-12-28-14:05:37,10.1.1.3,12,-0.160,-0.160,-0.160,0.000,0.000,0.000
1640700337858844928,2021-12-28-14:05:37,10.1.1.3,17,-0.160,-0.160,-0.160,0.000,0.000,0.000
1640700339278883072,2021-12-28-14:05:39,10.1.1.3,7,-0.160,-0.160,-0.160,0.000,0.000,0.000
1640700340157628160,2021-12-28-14:05:40,10.1.1.3,6,-0.160,-0.160,-0.160,0.000,0.000,0.000
1640700341574616832,2021-12-28-14:05:41,10.1.1.3,14,-0.160,-0.160,-0.160,0.000,0.000,0.000
1640700342313699072,2021-12-28-14:05:42,10.1.1.3,20,-0.160,-0.160,-0.160,0.000,0.000,0.000
1640700343732100864,2021-12-28-14:05:43,10.1.1.3,15,-0.160,-0.160,-0.160,0.000,0.000,0.000
1640700344394419968,2021-12-28-14:05:44,10.1.1.3,5,-0.160,-0.160,-0.160,0.000,0.000,0.000
1640700345967665920,2021-12-28-14:05:45,10.1.1.3,13,-0.160,-0.160,-0.160,0.000,0.000,0.000
1640700346646557952,2021-12-28-14:05:46,10.1.1.3,8,-0.160,-0.160,-0.160,0.000,0.000,0.000
1640700348024980992,2021-12-28-14:05:48,10.1.1.3,9,-0.160,-0.160,-0.160,0.000,0.000,0.000
1640700348704984832,2021-12-28-14:05:48,10.1.1.3,4,-0.160,-0.160,-0.160,0.000,0.000,0.000
1640700350121779968,2021-12-28-14:05:50,10.1.1.3,0,-0.160,-0.160,-0.160,0.000,0.000,0.000
1640700350840007936,2021-12-28-14:05:50,10.1.1.3,18,-0.160,-0.160,-0.160,0.000,0.000,0.000
1640700352280094976,2021-12-28-14:05:52,10.1.1.3,2,-0.160,-0.160,-0.160,0.000,0.000,0.000
1640700352964194048,2021-12-28-14:05:52,10.1.1.3,17,-0.160,-0.160,-0.160,0.000,0.000,0.000
1640700354350652928,2021-12-28-14:05:54,10.1.1.3,5,-0.160,-0.160,-0.160,0.000,0.000,0.000
1640700355034605056,2021-12-28-14:05:55,10.1.1.3,11,-0.160,-0.160,-0.160,0.000,0.000,0.000
1640700356416338944,2021-12-28-14:05:56,10.1.1.3,10,-0.160,-0.160,-0.160,0.000,0.000,0.000
1640700357102402048,2021-12-28-14:05:57,10.1.1.3,7,-0.160,-0.160,-0.160,0.000,0.000,0.000
1640700358504038144,2021-12-28-14:05:58,10.1.1.3,13,-0.160,-0.160,-0.160,0.000,0.000,0.000
1640700359310532096,2021-12-28-14:05:59,10.1.1.3,13,-0.160,-0.160,-0.160,0.000,0.000,0.000
1640700361146255872,2021-12-28-14:06:01,10.1.1.3,9,-0.160,-0.160,-0.160,0.000,0.000,0.000
1640700361824364032,2021-12-28-14:06:01,10.1.1.3,2,-0.160,-0.160,-0.160,0.000,0.000,0.000
1640700363288844032,2021-12-28-14:06:03,10.1.1.3,5,-0.160,-0.160,-0.160,0.000,0.000,0.000
1640700364003889152,2021-12-28-14:06:04,10.1.1.3,15,-0.160,-0.160,-0.160,0.000,0.000,0.000
1640700365423774976,2021-12-28-14:06:05,10.1.1.3,3,-0.160,-0.160,-0.160,0.000,0.000,0.000
1640700366103971840,2021-12-28-14:06:06,10.1.1.3,7,-0.160,-0.160,-0.160,0.000,0.000,0.000
1640700367530931968,2021-12-28-14:06:07,10.1.1.3,26,-0.160,-0.160,-0.160,0.000,0.000,0.000
1640700368321521920,2021-12-28-14:06:08,10.1.1.3,16,-0.160,-0.160,-0.160,0.000,0.000,0.000
1640700369759569920,2021-12-28-14:06:09,10.1.1.3,5,-0.160,-0.160,-0.160,0.000,0.000,0.000
1640700370439801856,2021-12-28-14:06:10,10.1.1.3,11,-0.160,-0.160,-0.160,0.000,0.000,0.000
1640700371887390976,2021-12-28-14:06:11,10.1.1.3,22,-0.160,-0.160,-0.160,0.000,0.000,0.000
1640700372697865984,2021-12-28-14:06:12,10.1.1.3,2,-0.160,-0.160,-0.160,0.000,0.000,0.000
1640700374195586816,2021-12-28-14:06:14,10.1.1.3,1,-0.160,-0.160,-0.160,0.000,0.000,0.000
1640700374893709824,2021-12-28-14:06:14,10.1.1.3,19,-0.160,-0.160,-0.160,0.000,0.000,0.000
1640700376352932096,2021-12-28-14:06:16,10.1.1.3,3,-0.160,-0.160,-0.160,0.000,0.000,0.000
1640700377051186944,2021-12-28-14:06:17,10.1.1.3,7,-0.160,-0.160,-0.160,0.000,0.000,0.000
1640700378570669824,2021-12-28-14:06:18,10.1.1.3,9,-0.160,-0.160,-0.160,0.000,0.000,0.000
1640700379267905024,2021-12-28-14:06:19,10.1.1.3,19,-0.160,-0.160,-0.160,0.000,0.000,0.000
1640700380645436928,2021-12-28-14:06:20,10.1.1.3,2,-0.160,-0.160,-0.160,0.000,0.000,0.000
1640700381324029952,2021-12-28-14:06:21,10.1.1.3,1,-0.160,-0.160,-0.160,0.000,0.000,0.000
1640700382782265856,2021-12-28-14:06:22,10.1.1.3,13,-0.160,-0.160,-0.160,0.000,0.000,0.000
1640700383462039040,2021-12-28-14:06:23,10.1.1.3,2,-0.160,-0.160,-0.160,0.000,0.000,0.000
1640700384884735232,2021-12-28-14:06:24,10.1.1.3,18,-0.160,-0.160,-0.160,0.000,0.000,0.000
1640700385565326848,2021-12-28-14:06:25,10.1.1.3,16,-0.160,-0.160,-0.160,0.000,0.000,0.000
1640700387075230976,2021-12-28-14:06:27,10.1.1.3,8,-0.160,-0.160,-0.160,0.000,0.000,0.000
1640700387759796992,2021-12-28-14:06:27,10.1.1.3,6,-0.160,-0.160,-0.160,0.000,0.000,0.000
1640700389160588032,2021-12-28-14:06:29,10.1.1.3,7,-0.160,-0.160,-0.160,0.000,0.000,0.000
1640700389883382016,2021-12-28-14:06:29,10.1.1.3,11,-0.160,-0.160,-0.160,0.000,0.000,0.000
1640700391545166080,2021-12-28-14:06:31,10.1.1.3,2,-0.160,-0.160,-0.160,0.000,0.000,0.000
1640700392226528768,2021-12-28-14:06:32,10.1.1.3,7,-0.160,-0.160,-0.160,0.000,0.000,0.000
1640700393886284032,2021-12-28-14:06:33,10.1.1.3,21,-0.160,-0.160,-0.160,0.000,0.000,0.000
1640700394846232064,2021-12-28-14:06:34,10.1.1.3,2,-0.160,-0.160,-0.160,0.000,0.000,0.000
1640700396466979072,2021-12-28-14:06:36,10.1.1.3,6,-0.160,-0.160,-0.160,0.000,0.000,0.000
1640700397186761984,2021-12-28-14:06:37,10.1.1.3,19,-0.160,-0.160,-0.160,0.000,0.000,0.000
1640700398767836928,2021-12-28-14:06:38,10.1.1.3,17,-0.160,-0.160,-0.160,0.000,0.000,0.000
1640700399665111040,2021-12-28-14:06:39,10.1.1.3,16,-0.160,-0.160,-0.160,0.000,0.000,0.000
1640700401122596864,2021-12-28-14:06:41,10.1.1.3,13,-0.160,-0.160,-0.160,0.000,0.000,0.000
1640700401802671872,2021-12-28-14:06:41,10.1.1.3,12,-0.160,-0.160,-0.160,0.000,0.000,0.000
1640700403200406016,2021-12-28-14:06:43,10.1.1.3,4,-0.160,-0.160,-0.160,0.000,0.000,0.000
1640700403899773952,2021-12-28-14:06:43,10.1.1.3,4,-0.160,-0.160,-0.160,0.000,0.000,0.000
1640700405338776064,2021-12-28-14:06:45,10.1.1.3,5,-0.160,-0.160,-0.160,0.000,0.000,0.000
1640700406039298048,2021-12-28-14:06:46,10.1.1.3,2,-0.160,-0.160,-0.160,0.000,0.000,0.000
1640700407436881152,2021-12-28-14:06:47,10.1.1.3,19,-0.160,-0.160,-0.160,0.000,0.000,0.000
1640700408114651904,2021-12-28-14:06:48,10.1.1.3,14,-0.160,-0.160,-0.160,0.000,0.000,0.000
1640700409494514944,2021-12-28-14:06:49,10.1.1.3,11,-0.160,-0.160,-0.160,0.000,0.000,0.000
1640700410171464960,2021-12-28-14:06:50,10.1.1.3,6,-0.160,-0.160,-0.160,0.000,0.000,0.000
1640700411610251776,2021-12-28-14:06:51,10.1.1.3,3,-0.160,-0.160,-0.160,0.000,0.000,0.000
1640700412350042112,2021-12-28-14:06:52,10.1.1.3,6,-0.160,-0.160,-0.160,0.000,0.000,0.000
1640700413923345920,2021-12-28-14:06:53,10.1.1.3,20,-0.160,-0.160,-0.160,0.000,0.000,0.000
1640700414649490944,2021-12-28-14:06:54,10.1.1.3,4,-0.160,-0.160,-0.160,0.000,0.000,0.000
1640700416127037952,2021-12-28-14:06:56,10.1.1.3,3,-0.160,-0.160,-0.160,0.000,0.000,0.000
1640700416842155008,2021-12-28-14:06:56,10.1.1.3,19,-0.160,-0.160,-0.160,0.000,0.000,0.000
1640700418226268928,2021-12-28-14:06:58,10.1.1.3,1,-0.160,-0.160,-0.160,0.000,0.000,0.000
1640700418951333120,2021-12-28-14:06:58,10.1.1.3,17,-0.160,-0.160,-0.160,0.000,0.000,0.000
1640700420474675968,2021-12-28-14:07:00,10.1.1.3,4,-0.160,-0.160,-0.160,0.000,0.000,0.000
1640700421195779072,2021-12-28-14:07:01,10.1.1.3,5,-0.160,-0.160,-0.160,0.000,0.000,0.000
1640700422680263168,2021-12-28-14:07:02,10.1.1.3,15,-0.160,-0.160,-0.160,0.000,0.000,0.000
1640700423416348928,2021-12-28-14:07:03,10.1.1.3,10,-0.160,-0.160,-0.160,0.000,0.000,0.000
1640700425042733056,2021-12-28-14:07:05,10.1.1.3,5,-0.160,-0.160,-0.160,0.000,0.000,0.000
1640700425742678016,2021-12-28-14:07:05,10.1.1.3,5,-0.160,-0.160,-0.160,0.000,0.000,0.000
1640700427222969088,2021-12-28-14:07:07,10.1.1.3,19,-0.160,-0.160,-0.160,0.000,0.000,0.000
1640700427906795008,2021-12-28-14:07:07,10.1.1.3,15,-0.160,-0.160,-0.160,0.000,0.000,0.000
1640700429322930176,2021-12-28-14:07:09,10.1.1.3,7,-0.160,-0.160,-0.160,0.000,0.000,0.000
1640700430004216064,2021-12-28-14:07:10,10.1.1.3,14,-0.160,-0.160,-0.160,0.000,0.000,0.000
1640700431682280960,2021-12-28-14:07:11,10.1.1.3,20,-0.160,-0.160,-0.160,0.000,0.000,0.000
1640700432400727040,2021-12-28-14:07:12,10.1.1.3,17,-0.160,-0.160,-0.160,0.000,0.000,0.000
1640700433891348992,2021-12-28-14:07:13,10.1.1.3,17,-0.160,-0.160,-0.160,0.000,0.000,0.000
1640700434703313152,2021-12-28-14:07:14,10.1.1.3,1,-0.160,-0.160,-0.160,0.000,0.000,0.000
1640700436237137152,2021-12-28-14:07:16,10.1.1.3,16,-0.160,-0.160,-0.160,0.000,0.000,0.000
1640700436917166848,2021-12-28-14:07:16,10.1.1.3,0,-0.160,-0.160,-0.160,0.000,0.000,0.000
1640700438394306816,2021-12-28-14:07:18,10.1.1.3,18,-0.160,-0.160,-0.160,0.000,0.000,0.000
1640700439074348032,2021-12-28-14:07:19,10.1.1.3,5,-0.160,-0.160,-0.160,0.000,0.000,0.000
1640700440532841984,2021-12-28-14:07:20,10.1.1.3,15,-0.160,-0.160,-0.160,0.000,0.000,0.000
1640700441230546944,2021-12-28-14:07:21,10.1.1.3,5,-0.160,-0.160,-0.160,0.000,0.000,0.000
1640700442609052928,2021-12-28-14:07:22,10.1.1.3,0,-0.160,-0.160,-0.160,0.000,0.000,0.000
1640700443348342016,2021-12-28-14:07:23,10.1.1.3,1,-0.160,-0.160,-0.160,0.000,0.000,0.000
1640700444905059072,2021-12-28-14:07:24,10.1.1.3,18,-0.160,-0.160,-0.160,0.000,0.000,0.000
1640700445563826944,2021-12-28-14:07:25,10.1.1.3,2,-0.160,-0.160,-0.160,0.000,0.000,0.000
1640700446961613824,2021-12-28-14:07:26,10.1.1.3,12,-0.160,-0.160,-0.160,0.000,0.000,0.000
1640700447640003072,2021-12-28-14:07:27,10.1.1.3,17,-0.160,-0.160,-0.160,0.000,0.000,0.000
1640700449038470912,2021-12-28-14:07:29,10.1.1.3,2,-0.160,-0.160,-0.160,0.000,0.000,0.000
1640700449721307136,2021-12-28-14:07:29,10.1.1.3,15,-0.160,-0.160,-0.160,0.000,0.000,0.000
1640700451309488128,2021-12-28-14:07:31,10.1.1.3,22,-0.160,-0.160,-0.160,0.000,0.000,0.000
1640700452075325952,2021-12-28-14:07:32,10.1.1.3,5,-0.160,-0.160,-0.160,0.000,0.000,0.000
1640700453476759040,2021-12-28-14:07:33,10.1.1.3,13,-0.160,-0.160,-0.160,0.000,0.000,0.000
1640700454157708800,2021-12-28-14:07:34,10.1.1.3,19,-0.160,-0.160,-0.160,0.000,0.000,0.000
1640700455543486208,2021-12-28-14:07:35,10.1.1.3,12,-0.160,-0.160,-0.160,0.000,0.000,0.000
1640700456221265152,2021-12-28-14:07:36,10.1.1.3,17,-0.160,-0.160,-0.160,0.000,0.000,0.000
1640700457682388992,2021-12-28-14:07:37,10.1.1.3,17,-0.160,-0.160,-0.160,0.000,0.000,0.000
1640700458343321088,2021-12-28-14:07:38,10.1.1.3,2,-0.160,-0.160,-0.160,0.000,0.000,0.000
1640700459743074816,2021-12-28-14:07:39,10.1.1.3,11,-0.160,-0.160,-0.160,0.000,0.000,0.000
1640700460404700928,2021-12-28-14:07:40,10.1.1.3,2,-0.160,-0.160,-0.160,0.000,0.000,0.000
1640700460423557888,2021-12-28-14:07:40,10.1.1.3,-1,-0.160,-0.160,-0.160,0.000,0.000,0.000
1640700461803739904,2021-12-28-14:07:41,10.1.1.3,4,-0.160,-0.160,-0.160,0.000,0.000,0.000
1640700462503241984,2021-12-28-14:07:42,10.1.1.3,16,-0.160,-0.160,-0.160,0.000,0.000,0.000
1640700463881426944,2021-12-28-14:07:43,10.1.1.3,13,-0.160,-0.160,-0.160,0.000,0.000,0.000
1640700464561564928,2021-12-28-14:07:44,10.1.1.3,17,-0.160,-0.160,-0.160,0.000,0.000,0.000
1640700465942022912,2021-12-28-14:07:45,10.1.1.3,5,-0.160,-0.160,-0.160,0.000,0.000,0.000
1640700466619510784,2021-12-28-14:07:46,10.1.1.3,8,-0.160,-0.160,-0.160,0.000,0.000,0.000
1640700468017538048,2021-12-28-14:07:48,10.1.1.3,1,-0.160,-0.160,-0.160,0.000,0.000,0.000
1640700468715010048,2021-12-28-14:07:48,10.1.1.3,3,-0.160,-0.160,-0.160,0.000,0.000,0.000
1640700470094914816,2021-12-28-14:07:50,10.1.1.3,3,-0.160,-0.160,-0.160,0.000,0.000,0.000
1640700470774117120,2021-12-28-14:07:50,10.1.1.3,9,-0.160,-0.160,-0.160,0.000,0.000,0.000
1640700472193185024,2021-12-28-14:07:52,10.1.1.3,8,-0.160,-0.160,-0.160,0.000,0.000,0.000
1640700472931101952,2021-12-28-14:07:52,10.1.1.3,7,-0.160,-0.160,-0.160,0.000,0.000,0.000
1640700474350686976,2021-12-28-14:07:54,10.1.1.3,9,-0.160,-0.160,-0.160,0.000,0.000,0.000
1640700475029009152,2021-12-28-14:07:55,10.1.1.3,12,-0.160,-0.160,-0.160,0.000,0.000,0.000
1640700476607924992,2021-12-28-14:07:56,10.1.1.3,4,-0.160,-0.160,-0.160,0.000,0.000,0.000
1640700477344780032,2021-12-28-14:07:57,10.1.1.3,6,-0.160,-0.160,-0.160,0.000,0.000,0.000
1640700478763879168,2021-12-28-14:07:58,10.1.1.3,4,-0.160,-0.160,-0.160,0.000,0.000,0.000
1640700479461682176,2021-12-28-14:07:59,10.1.1.3,16,-0.160,-0.160,-0.160,0.000,0.000,0.000
1640700480859250176,2021-12-28-14:08:00,10.1.1.3,10,-0.160,-0.160,-0.160,0.000,0.000,0.000
1640700481541652992,2021-12-28-14:08:01,10.1.1.3,1,-0.160,-0.160,-0.160,0.000,0.000,0.000
1640700482948344832,2021-12-28-14:08:02,10.1.1.3,7,-0.160,-0.160,-0.160,0.000,0.000,0.000
1640700483655174144,2021-12-28-14:08:03,10.1.1.3,14,-0.160,-0.160,-0.160,0.000,0.000,0.000
1640700485136297984,2021-12-28-14:08:05,10.1.1.3,5,-0.160,-0.160,-0.160,0.000,0.000,0.000
1640700485838407936,2021-12-28-14:08:05,10.1.1.3,2,-0.160,-0.160,-0.160,0.000,0.000,0.000
1640700487340236032,2021-12-28-14:08:07,10.1.1.3,15,-0.160,-0.160,-0.160,0.000,0.000,0.000
1640700488002717952,2021-12-28-14:08:08,10.1.1.3,5,-0.160,-0.160,-0.160,0.000,0.000,0.000
1640700490103499008,2021-12-28-14:08:10,10.1.1.3,3,-0.160,-0.160,-0.160,0.000,0.000,0.000
1640700491564734976,2021-12-28-14:08:11,10.1.1.3,16,-0.160,-0.160,-0.160,0.000,0.000,0.000
1640700492224780032,2021-12-28-14:08:12,10.1.1.3,3,-0.160,-0.160,-0.160,0.000,0.000,0.000
1640700493623454208,2021-12-28-14:08:13,10.1.1.3,15,-0.160,-0.160,-0.160,0.000,0.000,0.000
1640700494283313152,2021-12-28-14:08:14,10.1.1.3,1,-0.160,-0.160,-0.160,0.000,0.000,0.000
1640700495723545088,2021-12-28-14:08:15,10.1.1.3,16,-0.160,-0.160,-0.160,0.000,0.000,0.000
1640700496402364928,2021-12-28-14:08:16,10.1.1.3,14,-0.160,-0.160,-0.160,0.000,0.000,0.000
1640700497801810944,2021-12-28-14:08:17,10.1.1.3,15,-0.160,-0.160,-0.160,0.000,0.000,0.000
1640700498460210176,2021-12-28-14:08:18,10.1.1.3,0,-0.160,-0.160,-0.160,0.000,0.000,0.000
1640700499899831040,2021-12-28-14:08:19,10.1.1.3,12,-0.160,-0.160,-0.160,0.000,0.000,0.000
1640700500579542016,2021-12-28-14:08:20,10.1.1.3,3,-0.160,-0.160,-0.160,0.000,0.000,0.000
1640700502136684800,2021-12-28-14:08:22,10.1.1.3,18,-0.160,-0.160,-0.160,0.000,0.000,0.000
1640700502834675200,2021-12-28-14:08:22,10.1.1.3,12,-0.160,-0.160,-0.160,0.000,0.000,0.000
1640700504252999168,2021-12-28-14:08:24,10.1.1.3,8,-0.160,-0.160,-0.160,0.000,0.000,0.000
1640700504932111104,2021-12-28-14:08:24,10.1.1.3,2,-0.160,-0.160,-0.160,0.000,0.000,0.000
1640700506311162880,2021-12-28-14:08:26,10.1.1.3,0,-0.160,-0.160,-0.160,0.000,0.000,0.000
1640700506993072896,2021-12-28-14:08:26,10.1.1.3,11,-0.160,-0.160,-0.160,0.000,0.000,0.000
1640700508366995968,2021-12-28-14:08:28,10.1.1.3,6,-0.160,-0.160,-0.160,0.000,0.000,0.000
1640700509051397120,2021-12-28-14:08:29,10.1.1.3,12,-0.160,-0.160,-0.160,0.000,0.000,0.000
1640700510463623936,2021-12-28-14:08:30,10.1.1.3,7,-0.160,-0.160,-0.160,0.000,0.000,0.000
1640700511162753024,2021-12-28-14:08:31,10.1.1.3,3,-0.160,-0.160,-0.160,0.000,0.000,0.000
1640700512600272896,2021-12-28-14:08:32,10.1.1.3,18,-0.160,-0.160,-0.160,0.000,0.000,0.000
1640700514680589056,2021-12-28-14:08:34,10.1.1.3,4,-0.160,-0.160,-0.160,0.000,0.000,0.000
1640700515356448768,2021-12-28-14:08:35,10.1.1.3,7,-0.160,-0.160,-0.160,0.000,0.000,0.000
1640700516754615040,2021-12-28-14:08:36,10.1.1.3,12,-0.160,-0.160,-0.160,0.000,0.000,0.000
1640700517432694016,2021-12-28-14:08:37,10.1.1.3,12,-0.160,-0.160,-0.160,0.000,0.000,0.000
1640700518811491840,2021-12-28-14:08:38,10.1.1.3,0,-0.160,-0.160,-0.160,0.000,0.000,0.000
1640700519488928000,2021-12-28-14:08:39,10.1.1.3,4,-0.160,-0.160,-0.160,0.000,0.000,0.000
1640700520887485952,2021-12-28-14:08:40,10.1.1.3,13,-0.160,-0.160,-0.160,0.000,0.000,0.000
1640700521567131136,2021-12-28-14:08:41,10.1.1.3,2,-0.160,-0.160,-0.160,0.000,0.000,0.000
1640700523170864128,2021-12-28-14:08:43,10.1.1.3,0,-0.160,-0.160,-0.160,0.000,0.000,0.000
1640700524084301056,2021-12-28-14:08:44,10.1.1.3,32,-0.160,-0.160,-0.160,0.000,0.000,0.000
1640700525678242816,2021-12-28-14:08:45,10.1.1.3,18,-0.160,-0.160,-0.160,0.000,0.000,0.000
1640700526358290944,2021-12-28-14:08:46,10.1.1.3,7,-0.160,-0.160,-0.160,0.000,0.000,0.000
1640700527774743040,2021-12-28-14:08:47,10.1.1.3,11,-0.160,-0.160,-0.160,0.000,0.000,0.000
1640700528473715968,2021-12-28-14:08:48,10.1.1.3,7,-0.160,-0.160,-0.160,0.000,0.000,0.000
1640700529931735040,2021-12-28-14:08:49,10.1.1.3,11,-0.160,-0.160,-0.160,0.000,0.000,0.000
1640700530691173120,2021-12-28-14:08:50,10.1.1.3,12,-0.160,-0.160,-0.160,0.000,0.000,0.000
1640700532208614144,2021-12-28-14:08:52,10.1.1.3,4,-0.160,-0.160,-0.160,0.000,0.000,0.000
1640700532886769920,2021-12-28-14:08:52,10.1.1.3,9,-0.160,-0.160,-0.160,0.000,0.000,0.000
1640700534283248896,2021-12-28-14:08:54,10.1.1.3,16,-0.160,-0.160,-0.160,0.000,0.000,0.000
1640700535002038016,2021-12-28-14:08:55,10.1.1.3,18,-0.160,-0.160,-0.160,0.000,0.000,0.000
1640700536381468928,2021-12-28-14:08:56,10.1.1.3,15,-0.160,-0.160,-0.160,0.000,0.000,0.000
1640700537079150080,2021-12-28-14:08:57,10.1.1.3,14,-0.160,-0.160,-0.160,0.000,0.000,0.000
1640700538579963904,2021-12-28-14:08:58,10.1.1.3,6,-0.160,-0.160,-0.160,0.000,0.000,0.000
1640700539295557120,2021-12-28-14:08:59,10.1.1.3,19,-0.160,-0.160,-0.160,0.000,0.000,0.000
1640700540732796928,2021-12-28-14:09:00,10.1.1.3,14,-0.160,-0.160,-0.160,0.000,0.000,0.000
1640700541411549184,2021-12-28-14:09:01,10.1.1.3,13,-0.160,-0.160,-0.160,0.000,0.000,0.000
1640700542850903040,2021-12-28-14:09:02,10.1.1.3,1,-0.160,-0.160,-0.160,0.000,0.000,0.000
1640700543587315968,2021-12-28-14:09:03,10.1.1.3,1,-0.160,-0.160,-0.160,0.000,0.000,0.000
1640700545005466880,2021-12-28-14:09:05,10.1.1.3,18,-0.160,-0.160,-0.160,0.000,0.000,0.000
1640700545663728896,2021-12-28-14:09:05,10.1.1.3,5,-0.160,-0.160,-0.160,0.000,0.000,0.000
1640700547080337920,2021-12-28-14:09:07,10.1.1.3,3,-0.160,-0.160,-0.160,0.000,0.000,0.000
1640700547762945792,2021-12-28-14:09:07,10.1.1.3,7,-0.160,-0.160,-0.160,0.000,0.000,0.000
1640700549155891968,2021-12-28-14:09:09,10.1.1.3,14,-0.160,-0.160,-0.160,0.000,0.000,0.000
1640700549861134080,2021-12-28-14:09:09,10.1.1.3,6,-0.160,-0.160,-0.160,0.000,0.000,0.000
1640700551271686144,2021-12-28-14:09:11,10.1.1.3,4,-0.160,-0.160,-0.160,0.000,0.000,0.000
1640700551975301120,2021-12-28-14:09:11,10.1.1.3,4,-0.160,-0.160,-0.160,0.000,0.000,0.000
1640700553447283968,2021-12-28-14:09:13,10.1.1.3,27,-0.160,-0.160,-0.160,0.000,0.000,0.000
1640700554364267008,2021-12-28-14:09:14,10.1.1.3,3,-0.160,-0.160,-0.160,0.000,0.000,0.000
1640700555807565824,2021-12-28-14:09:15,10.1.1.3,18,-0.160,-0.160,-0.160,0.000,0.000,0.000
1640700556669742080,2021-12-28-14:09:16,10.1.1.3,15,-0.160,-0.160,-0.160,0.000,0.000,0.000
1640700558111315968,2021-12-28-14:09:18,10.1.1.3,18,-0.160,-0.160,-0.160,0.000,0.000,0.000
1640700558791838976,2021-12-28-14:09:18,10.1.1.3,16,-0.160,-0.160,-0.160,0.000,0.000,0.000
1640700560172809984,2021-12-28-14:09:20,10.1.1.3,6,-0.160,-0.160,-0.160,0.000,0.000,0.000
1640700560993643008,2021-12-28-14:09:20,10.1.1.3,12,-0.160,-0.160,-0.160,0.000,0.000,0.000
1640700562413319168,2021-12-28-14:09:22,10.1.1.3,16,-0.160,-0.160,-0.160,0.000,0.000,0.000
1640700563074258944,2021-12-28-14:09:23,10.1.1.3,8,-0.160,-0.160,-0.160,0.000,0.000,0.000
1640700564492718848,2021-12-28-14:09:24,10.1.1.3,7,-0.160,-0.160,-0.160,0.000,0.000,0.000
1640700565172583168,2021-12-28-14:09:25,10.1.1.3,19,-0.160,-0.160,-0.160,0.000,0.000,0.000
1640700566570925824,2021-12-28-14:09:26,10.1.1.3,19,-0.160,-0.160,-0.160,0.000,0.000,0.000
1640700567230302208,2021-12-28-14:09:27,10.1.1.3,11,-0.160,-0.160,-0.160,0.000,0.000,0.000
1640700568630006016,2021-12-28-14:09:28,10.1.1.3,11,-0.160,-0.160,-0.160,0.000,0.000,0.000
1640700569448687104,2021-12-28-14:09:29,10.1.1.3,15,-0.160,-0.160,-0.160,0.000,0.000,0.000
1640700571166359808,2021-12-28-14:09:31,10.1.1.3,12,-0.160,-0.160,-0.160,0.000,0.000,0.000
1640700571825881088,2021-12-28-14:09:31,10.1.1.3,12,-0.160,-0.160,-0.160,0.000,0.000,0.000
1640700573283715072,2021-12-28-14:09:33,10.1.1.3,7,-0.160,-0.160,-0.160,0.000,0.000,0.000
1640700574023255040,2021-12-28-14:09:34,10.1.1.3,0,-0.160,-0.160,-0.160,0.000,0.000,0.000
1640700575522150912,2021-12-28-14:09:35,10.1.1.3,6,-0.160,-0.160,-0.160,0.000,0.000,0.000
1640700576199378944,2021-12-28-14:09:36,10.1.1.3,6,-0.160,-0.160,-0.160,0.000,0.000,0.000
1640700577658086144,2021-12-28-14:09:37,10.1.1.3,18,-0.160,-0.160,-0.160,0.000,0.000,0.000
1640700578339531776,2021-12-28-14:09:38,10.1.1.3,6,-0.160,-0.160,-0.160,0.000,0.000,0.000
1640700579726671872,2021-12-28-14:09:39,10.1.1.3,9,-0.160,-0.160,-0.160,0.000,0.000,0.000
1640700580408587008,2021-12-28-14:09:40,10.1.1.3,18,-0.160,-0.160,-0.160,0.000,0.000,0.000
1640700581854414080,2021-12-28-14:09:41,10.1.1.3,4,-0.160,-0.160,-0.160,0.000,0.000,0.000
1640700582578198016,2021-12-28-14:09:42,10.1.1.3,9,-0.160,-0.160,-0.160,0.000,0.000,0.000
1640700583961057024,2021-12-28-14:09:43,10.1.1.3,10,-0.160,-0.160,-0.160,0.000,0.000,0.000
1640700584660929792,2021-12-28-14:09:44,10.1.1.3,11,-0.160,-0.160,-0.160,0.000,0.000,0.000
1640700586082781184,2021-12-28-14:09:46,10.1.1.3,20,-0.160,-0.160,-0.160,0.000,0.000,0.000
1640700586767505920,2021-12-28-14:09:46,10.1.1.3,12,-0.160,-0.160,-0.160,0.000,0.000,0.000
1640700588143464960,2021-12-28-14:09:48,10.1.1.3,4,-0.160,-0.160,-0.160,0.000,0.000,0.000
1640700588823906048,2021-12-28-14:09:48,10.1.1.3,10,-0.160,-0.160,-0.160,0.000,0.000,0.000
1640700590224275200,2021-12-28-14:09:50,10.1.1.3,9,-0.160,-0.160,-0.160,0.000,0.000,0.000
1640700590904606976,2021-12-28-14:09:50,10.1.1.3,16,-0.160,-0.160,-0.160,0.000,0.000,0.000
1640700592363437056,2021-12-28-14:09:52,10.1.1.3,5,-0.160,-0.160,-0.160,0.000,0.000,0.000
1640700593042212096,2021-12-28-14:09:53,10.1.1.3,19,-0.160,-0.160,-0.160,0.000,0.000,0.000
1640700594434952960,2021-12-28-14:09:54,10.1.1.3,0,-0.160,-0.160,-0.160,0.000,0.000,0.000
1640700595122020864,2021-12-28-14:09:55,10.1.1.3,6,-0.160,-0.160,-0.160,0.000,0.000,0.000
1640700596560736000,2021-12-28-14:09:56,10.1.1.3,8,-0.160,-0.160,-0.160,0.000,0.000,0.000
1640700597356559872,2021-12-28-14:09:57,10.1.1.3,0,-0.160,-0.160,-0.160,0.000,0.000,0.000
1640700599099003136,2021-12-28-14:09:59,10.1.1.3,25,-0.160,-0.160,-0.160,0.000,0.000,0.000
1640700599996745984,2021-12-28-14:09:59,10.1.1.3,5,-0.160,-0.160,-0.160,0.000,0.000,0.000
1640700601394139904,2021-12-28-14:10:01,10.1.1.3,3,-0.160,-0.160,-0.160,0.000,0.000,0.000
1640700602092408832,2021-12-28-14:10:02,10.1.1.3,1,-0.160,-0.160,-0.160,0.000,0.000,0.000
1640700603491781888,2021-12-28-14:10:03,10.1.1.3,9,-0.160,-0.160,-0.160,0.000,0.000,0.000
1640700604170640896,2021-12-28-14:10:04,10.1.1.3,19,-0.160,-0.160,-0.160,0.000,0.000,0.000
1640700605547748096,2021-12-28-14:10:05,10.1.1.3,14,-0.160,-0.160,-0.160,0.000,0.000,0.000
1640700606226375168,2021-12-28-14:10:06,10.1.1.3,16,-0.160,-0.160,-0.160,0.000,0.000,0.000
1640700607765406976,2021-12-28-14:10:07,10.1.1.3,15,-0.160,-0.160,-0.160,0.000,0.000,0.000
1640700608463079936,2021-12-28-14:10:08,10.1.1.3,1,-0.160,-0.160,-0.160,0.000,0.000,0.000
1640700609861224960,2021-12-28-14:10:09,10.1.1.3,2,-0.160,-0.160,-0.160,0.000,0.000,0.000
1640700610583173120,2021-12-28-14:10:10,10.1.1.3,10,-0.160,-0.160,-0.160,0.000,0.000,0.000
1640700612009478144,2021-12-28-14:10:12,10.1.1.3,18,-0.160,-0.160,-0.160,0.000,0.000,0.000
1640700612707160064,2021-12-28-14:10:12,10.1.1.3,15,-0.160,-0.160,-0.160,0.000,0.000,0.000
1640700614136966912,2021-12-28-14:10:14,10.1.1.3,4,-0.160,-0.160,-0.160,0.000,0.000,0.000
1640700614858441984,2021-12-28-14:10:14,10.1.1.3,17,-0.160,-0.160,-0.160,0.000,0.000,0.000
1640700616280666112,2021-12-28-14:10:16,10.1.1.3,17,-0.160,-0.160,-0.160,0.000,0.000,0.000
1640700616986565120,2021-12-28-14:10:16,10.1.1.3,14,-0.160,-0.160,-0.160,0.000,0.000,0.000
1640700618403081984,2021-12-28-14:10:18,10.1.1.3,16,-0.160,-0.160,-0.160,0.000,0.000,0.000
1640700619084422144,2021-12-28-14:10:19,10.1.1.3,19,-0.160,-0.160,-0.160,0.000,0.000,0.000
1640700620464456192,2021-12-28-14:10:20,10.1.1.3,9,-0.160,-0.160,-0.160,0.000,0.000,0.000
1640700621143808000,2021-12-28-14:10:21,10.1.1.3,11,-0.160,-0.160,-0.160,0.000,0.000,0.000
1640700622544652032,2021-12-28-14:10:22,10.1.1.3,20,-0.160,-0.160,-0.160,0.000,0.000,0.000
1640700623223855872,2021-12-28-14:10:23,10.1.1.3,18,-0.160,-0.160,-0.160,0.000,0.000,0.000
1640700624724664832,2021-12-28-14:10:24,10.1.1.3,16,-0.160,-0.160,-0.160,0.000,0.000,0.000
1640700625443658240,2021-12-28-14:10:25,10.1.1.3,11,-0.160,-0.160,-0.160,0.000,0.000,0.000
1640700626901675008,2021-12-28-14:10:26,10.1.1.3,0,-0.160,-0.160,-0.160,0.000,0.000,0.000
1640700627659853056,2021-12-28-14:10:27,10.1.1.3,2,-0.160,-0.160,-0.160,0.000,0.000,0.000
1640700629080029952,2021-12-28-14:10:29,10.1.1.3,16,-0.160,-0.160,-0.160,0.000,0.000,0.000
1640700629759170048,2021-12-28-14:10:29,10.1.1.3,18,-0.160,-0.160,-0.160,0.000,0.000,0.000
1640700631160955904,2021-12-28-14:10:31,10.1.1.3,13,-0.160,-0.160,-0.160,0.000,0.000,0.000
1640700631818268160,2021-12-28-14:10:31,10.1.1.3,6,-0.160,-0.160,-0.160,0.000,0.000,0.000
1640700633253580032,2021-12-28-14:10:33,10.1.1.3,14,-0.160,-0.160,-0.160,0.000,0.000,0.000
1640700633953433088,2021-12-28-14:10:33,10.1.1.3,20,-0.160,-0.160,-0.160,0.000,0.000,0.000
1640700635349947904,2021-12-28-14:10:35,10.1.1.3,4,-0.160,-0.160,-0.160,0.000,0.000,0.000
1640700637566706944,2021-12-28-14:10:37,10.1.1.3,17,-0.160,-0.160,-0.160,0.000,0.000,0.000
1640700638246159104,2021-12-28-14:10:38,10.1.1.3,16,-0.160,-0.160,-0.160,0.000,0.000,0.000
1640700639643094016,2021-12-28-14:10:39,10.1.1.3,10,-0.160,-0.160,-0.160,0.000,0.000,0.000
1640700640342679040,2021-12-28-14:10:40,10.1.1.3,13,-0.160,-0.160,-0.160,0.000,0.000,0.000
1640700641839840000,2021-12-28-14:10:41,10.1.1.3,11,-0.160,-0.160,-0.160,0.000,0.000,0.000
1640700642589806080,2021-12-28-14:10:42,10.1.1.3,8,-0.160,-0.160,-0.160,0.000,0.000,0.000
1640700644011282944,2021-12-28-14:10:44,10.1.1.3,14,-0.160,-0.160,-0.160,0.000,0.000,0.000
1640700644693531136,2021-12-28-14:10:44,10.1.1.3,17,-0.160,-0.160,-0.160,0.000,0.000,0.000
1640700646197747968,2021-12-28-14:10:46,10.1.1.3,12,-0.160,-0.160,-0.160,0.000,0.000,0.000
1640700646880034816,2021-12-28-14:10:46,10.1.1.3,4,-0.160,-0.160,-0.160,0.000,0.000,0.000
1640700648322352896,2021-12-28-14:10:48,10.1.1.3,14,-0.160,-0.160,-0.160,0.000,0.000,0.000
1640700649004364032,2021-12-28-14:10:49,10.1.1.3,8,-0.160,-0.160,-0.160,0.000,0.000,0.000
1640700650466984960,2021-12-28-14:10:50,10.1.1.3,0,-0.160,-0.160,-0.160,0.000,0.000,0.000
1640700651145447936,2021-12-28-14:10:51,10.1.1.3,4,-0.160,-0.160,-0.160,0.000,0.000,0.000
1640700652547097088,2021-12-28-14:10:52,10.1.1.3,2,-0.160,-0.160,-0.160,0.000,0.000,0.000
1640700653271832832,2021-12-28-14:10:53,10.1.1.3,16,-0.160,-0.160,-0.160,0.000,0.000,0.000
1640700654686718976,2021-12-28-14:10:54,10.1.1.3,9,-0.160,-0.160,-0.160,0.000,0.000,0.000
1640700655406091008,2021-12-28-14:10:55,10.1.1.3,5,-0.160,-0.160,-0.160,0.000,0.000,0.000
1640700657104346880,2021-12-28-14:10:57,10.1.1.3,14,-0.160,-0.160,-0.160,0.000,0.000,0.000
1640700657844589824,2021-12-28-14:10:57,10.1.1.3,8,-0.160,-0.160,-0.160,0.000,0.000,0.000
1640700659222980096,2021-12-28-14:10:59,10.1.1.3,15,-0.160,-0.160,-0.160,0.000,0.000,0.000
1640700659882424064,2021-12-28-14:10:59,10.1.1.3,13,-0.160,-0.160,-0.160,0.000,0.000,0.000
1640700661260242944,2021-12-28-14:11:01,10.1.1.3,10,-0.160,-0.160,-0.160,0.000,0.000,0.000
1640700661959948032,2021-12-28-14:11:01,10.1.1.3,13,-0.160,-0.160,-0.160,0.000,0.000,0.000
1640700663358726912,2021-12-28-14:11:03,10.1.1.3,16,-0.160,-0.160,-0.160,0.000,0.000,0.000
1640700664017816064,2021-12-28-14:11:04,10.1.1.3,6,-0.160,-0.160,-0.160,0.000,0.000,0.000
1640700665436156160,2021-12-28-14:11:05,10.1.1.3,0,-0.160,-0.160,-0.160,0.000,0.000,0.000
1640700666115609856,2021-12-28-14:11:06,10.1.1.3,2,-0.160,-0.160,-0.160,0.000,0.000,0.000
1640700667631812096,2021-12-28-14:11:07,10.1.1.3,16,-0.160,-0.160,-0.160,0.000,0.000,0.000
1640700668327580928,2021-12-28-14:11:08,10.1.1.3,10,-0.160,-0.160,-0.160,0.000,0.000,0.000
1640700669847955968,2021-12-28-14:11:09,10.1.1.3,6,-0.160,-0.160,-0.160,0.000,0.000,0.000
1640700670528132864,2021-12-28-14:11:10,10.1.1.3,7,-0.160,-0.160,-0.160,0.000,0.000,0.000
1640700671905443072,2021-12-28-14:11:11,10.1.1.3,2,-0.160,-0.160,-0.160,0.000,0.000,0.000
1640700672584647936,2021-12-28-14:11:12,10.1.1.3,8,-0.160,-0.160,-0.160,0.000,0.000,0.000
1640700673983849984,2021-12-28-14:11:13,10.1.1.3,6,-0.160,-0.160,-0.160,0.000,0.000,0.000
1640700674686088960,2021-12-28-14:11:14,10.1.1.3,19,-0.160,-0.160,-0.160,0.000,0.000,0.000
1640700676086540032,2021-12-28-14:11:16,10.1.1.3,7,-0.160,-0.160,-0.160,0.000,0.000,0.000
1640700676768573952,2021-12-28-14:11:16,10.1.1.3,18,-0.160,-0.160,-0.160,0.000,0.000,0.000
1640700678134146048,2021-12-28-14:11:18,10.1.1.3,1,-0.160,-0.160,-0.160,0.000,0.000,0.000
1640700678815409920,2021-12-28-14:11:18,10.1.1.3,11,-0.160,-0.160,-0.160,0.000,0.000,0.000
1640700680238799104,2021-12-28-14:11:20,10.1.1.3,10,-0.160,-0.160,-0.160,0.000,0.000,0.000
1640700680900051200,2021-12-28-14:11:20,10.1.1.3,0,-0.160,-0.160,-0.160,0.000,0.000,0.000
1640700682361618944,2021-12-28-14:11:22,10.1.1.3,15,-0.160,-0.160,-0.160,0.000,0.000,0.000
1640700683024879104,2021-12-28-14:11:23,10.1.1.3,7,-0.160,-0.160,-0.160,0.000,0.000,0.000
1640700684423758080,2021-12-28-14:11:24,10.1.1.3,3,-0.160,-0.160,-0.160,0.000,0.000,0.000
1640700685105121024,2021-12-28-14:11:25,10.1.1.3,1,-0.160,-0.160,-0.160,0.000,0.000,0.000
1640700686564254976,2021-12-28-14:11:26,10.1.1.3,14,-0.160,-0.160,-0.160,0.000,0.000,0.000
1640700687305113088,2021-12-28-14:11:27,10.1.1.3,16,-0.160,-0.160,-0.160,0.000,0.000,0.000
1640700688742938112,2021-12-28-14:11:28,10.1.1.3,9,-0.160,-0.160,-0.160,0.000,0.000,0.000
1640700689422651136,2021-12-28-14:11:29,10.1.1.3,10,-0.160,-0.160,-0.160,0.000,0.000,0.000
1640700690841473024,2021-12-28-14:11:30,10.1.1.3,2,-0.160,-0.160,-0.160,0.000,0.000,0.000
1640700691560299008,2021-12-28-14:11:31,10.1.1.3,17,-0.160,-0.160,-0.160,0.000,0.000,0.000
1640700692920636928,2021-12-28-14:11:32,10.1.1.3,5,-0.160,-0.160,-0.160,0.000,0.000,0.000
1640700693598985984,2021-12-28-14:11:33,10.1.1.3,13,-0.160,-0.160,-0.160,0.000,0.000,0.000
1640700695056726016,2021-12-28-14:11:35,10.1.1.3,10,-0.160,-0.160,-0.160,0.000,0.000,0.000
1640700695760888064,2021-12-28-14:11:35,10.1.1.3,3,-0.160,-0.160,-0.160,0.000,0.000,0.000
