FedericoMungari/DigitalTwin_service/Output/Output_script/script_ROSAPI_output_robots12_freq0_8.txt.csv
timestamp,node,latency,joint_1,joint_2,joint_3,joint_4,joint_5,joint_6
1640078740799364096,"2021-12-21,09:25:40",10.1.1.9,81916,0.000,0.000,0.000,0.000,0.000,0.000
1640078743510948864,"2021-12-21,09:25:43",10.1.1.9,939,-0.010,-0.010,-0.010,0.000,0.000,0.000
1640078743577199104,"2021-12-21,09:25:43",10.1.1.9,1.0054330825805664,-0.010,-0.010,-0.010,0.000,0.000,0.000
1640078743881380096,"2021-12-21,09:25:43",10.1.1.9,302,-0.020,-0.020,-0.020,0.000,0.000,0.000
1640078743924808960,"2021-12-21,09:25:43",10.1.1.9,0.3460228443145752,-0.020,-0.020,-0.020,0.000,0.000,0.000
1640078744230198016,"2021-12-21,09:25:44",10.1.1.9,304,-0.030,-0.030,-0.030,0.000,0.000,0.000
1640078744255919872,"2021-12-21,09:25:44",10.1.1.9,0.3297550678253174,-0.030,-0.030,-0.030,0.000,0.000,0.000
1640078744569736960,"2021-12-21,09:25:44",10.1.1.9,312,-0.040,-0.040,-0.040,0.000,0.000,0.000
1640078744601378816,"2021-12-21,09:25:44",10.1.1.9,0.343796968460083,-0.040,-0.040,-0.040,0.000,0.000,0.000
1640078744919778048,"2021-12-21,09:25:44",10.1.1.9,316,-0.050,-0.050,-0.050,0.000,0.000,0.000
1640078744948613888,"2021-12-21,09:25:44",10.1.1.9,0.3459169864654541,-0.050,-0.050,-0.050,0.000,0.000,0.000
1640078745249191168,"2021-12-21,09:25:45",10.1.1.9,298,-0.060,-0.060,-0.060,0.000,0.000,0.000
1640078745297835008,"2021-12-21,09:25:45",10.1.1.9,0.34735107421875,-0.060,-0.060,-0.060,0.000,0.000,0.000
1640078745946835968,"2021-12-21,09:25:45",10.1.1.9,644,-0.070,-0.070,-0.070,0.000,0.000,0.000
1640078745978766848,"2021-12-21,09:25:45",10.1.1.9,0.6738889217376709,-0.070,-0.070,-0.070,0.000,0.000,0.000
1640078746585940992,"2021-12-21,09:25:46",10.1.1.9,604,-0.080,-0.080,-0.080,0.000,0.000,0.000
1640078746625140992,"2021-12-21,09:25:46",10.1.1.9,0.6436469554901123,-0.080,-0.080,-0.080,0.000,0.000,0.000
1640078746957882880,"2021-12-21,09:25:46",10.1.1.9,330,-0.090,-0.090,-0.090,0.000,0.000,0.000
1640078746958215936,"2021-12-21,09:25:46",10.1.1.9,0.330718994140625,-0.090,-0.090,-0.090,0.000,0.000,0.000
1640078747255671040,"2021-12-21,09:25:47",10.1.1.9,295,-0.100,-0.100,-0.100,0.000,0.000,0.000
1640078747302222080,"2021-12-21,09:25:47",10.1.1.9,0.34236717224121094,-0.100,-0.100,-0.100,0.000,0.000,0.000
1640078747609316096,"2021-12-21,09:25:47",10.1.1.9,303,-0.110,-0.110,-0.110,0.000,0.000,0.000
1640078747648487168,"2021-12-21,09:25:47",10.1.1.9,0.3427419662475586,-0.110,-0.110,-0.110,0.000,0.000,0.000
1640078747995038976,"2021-12-21,09:25:47",10.1.1.9,338,-0.120,-0.120,-0.120,0.000,0.000,0.000
1640078748040932864,"2021-12-21,09:25:48",10.1.1.9,0.3839390277862549,-0.120,-0.120,-0.120,0.000,0.000,0.000
1640078748423279104,"2021-12-21,09:25:48",10.1.1.9,378,-0.130,-0.130,-0.130,0.000,0.000,0.000
1640078748446063872,"2021-12-21,09:25:48",10.1.1.9,0.4013831615447998,-0.130,-0.130,-0.130,0.000,0.000,0.000
1640078748781773056,"2021-12-21,09:25:48",10.1.1.9,333,-0.140,-0.140,-0.140,0.000,0.000,0.000
1640078748822139904,"2021-12-21,09:25:48",10.1.1.9,0.37424707412719727,-0.140,-0.140,-0.140,0.000,0.000,0.000
1640078749121596928,"2021-12-21,09:25:49",10.1.1.9,297,-0.150,-0.150,-0.150,0.000,0.000,0.000
1640078749152339968,"2021-12-21,09:25:49",10.1.1.9,0.32837700843811035,-0.150,-0.150,-0.150,0.000,0.000,0.000
1640078782559937024,"2021-12-21,09:26:16",10.1.1.9,27.826924085617065,-0.160,-0.160,-0.160,0.000,0.000,0.000
1640078793905214976,"2021-12-21,09:26:26",10.1.1.9,2624,-0.170,-0.170,-0.170,0.000,0.000,0.000
1640078802780988928,"2021-12-21,09:26:34",10.1.1.9,10.821437120437622,-0.170,-0.170,-0.170,0.000,0.000,0.000
1640078821539333120,"2021-12-21,09:26:53",10.1.1.9,10164,-0.180,-0.180,-0.180,0.000,0.000,0.000
1640078825012176896,"2021-12-21,09:27:02",10.1.1.9,18.442547082901,-0.180,-0.180,-0.180,0.000,0.000,0.000
1640078825125596160,"2021-12-21,09:27:05",10.1.1.9,-1,-0.190,-0.190,-0.190,0.000,0.000,0.000
1640078825517980160,"2021-12-21,09:27:05",10.1.1.9,0.39861607551574707,-0.190,-0.190,-0.190,0.000,0.000,0.000
1640078825845395968,"2021-12-21,09:27:05",10.1.1.9,325,-0.200,-0.200,-0.200,0.000,0.000,0.000
1640078825881537792,"2021-12-21,09:27:05",10.1.1.9,0.36171698570251465,-0.200,-0.200,-0.200,0.000,0.000,0.000
1640078826525451008,"2021-12-21,09:27:06",10.1.1.9,0.3583409786224365,-0.210,-0.210,-0.210,0.000,0.000,0.000
1640078827176840960,"2021-12-21,09:27:07",10.1.1.9,645,-0.220,-0.220,-0.220,0.000,0.000,0.000
1640078827233360128,"2021-12-21,09:27:07",10.1.1.9,0.7037229537963867,-0.220,-0.220,-0.220,0.000,0.000,0.000
1640078848702011136,"2021-12-21,09:27:20",10.1.1.9,13.367865085601807,-0.230,-0.230,-0.230,0.000,0.000,0.000
1640078863657987072,"2021-12-21,09:27:35",10.1.1.9,6544,-0.240,-0.240,-0.240,0.000,0.000,0.000
1640078872895545856,"2021-12-21,09:27:48",10.1.1.9,18.779892921447754,-0.240,-0.240,-0.240,0.000,0.000,0.000
1640078909721524992,"2021-12-21,09:28:17",10.1.1.9,23926,-0.250,-0.250,-0.250,0.000,0.000,0.000
1640078909763188992,"2021-12-21,09:28:29",10.1.1.9,36.67333388328552,-0.250,-0.250,-0.250,0.000,0.000,0.000
1640078912480505856,"2021-12-21,09:28:32",10.1.1.9,2705,-0.260,-0.260,-0.260,0.000,0.000,0.000
1640078912550468864,"2021-12-21,09:28:32",10.1.1.9,2.7719409465789795,-0.260,-0.260,-0.260,0.000,0.000,0.000
1640078913289748992,"2021-12-21,09:28:33",10.1.1.9,722,-0.270,-0.270,-0.270,0.000,0.000,0.000
1640078913322416896,"2021-12-21,09:28:33",10.1.1.9,0.7556190490722656,-0.270,-0.270,-0.270,0.000,0.000,0.000
1640078913635499008,"2021-12-21,09:28:33",10.1.1.9,311,-0.280,-0.280,-0.280,0.000,0.000,0.000
1640078913660482816,"2021-12-21,09:28:33",10.1.1.9,0.3362748622894287,-0.280,-0.280,-0.280,0.000,0.000,0.000
1640078914058365184,"2021-12-21,09:28:34",10.1.1.9,393,-0.290,-0.290,-0.290,0.000,0.000,0.000
1640078914094221056,"2021-12-21,09:28:34",10.1.1.9,0.4294750690460205,-0.290,-0.290,-0.290,0.000,0.000,0.000
1640078914509793024,"2021-12-21,09:28:34",10.1.1.9,414,-0.300,-0.300,-0.300,0.000,0.000,0.000
1640078914527159040,"2021-12-21,09:28:34",10.1.1.9,0.4315371513366699,-0.300,-0.300,-0.300,0.000,0.000,0.000
1640078915172449024,"2021-12-21,09:28:35",10.1.1.9,643,-0.310,-0.310,-0.310,0.000,0.000,0.000
1640078915218885888,"2021-12-21,09:28:35",10.1.1.9,0.6896419525146484,-0.310,-0.310,-0.310,0.000,0.000,0.000
1640078915691150848,"2021-12-21,09:28:35",10.1.1.9,468,-0.320,-0.320,-0.320,0.000,0.000,0.000
1640078915793484800,"2021-12-21,09:28:35",10.1.1.9,0.5706138610839844,-0.320,-0.320,-0.320,0.000,0.000,0.000
1640078917741341184,"2021-12-21,09:28:37",10.1.1.9,1943,-0.330,-0.330,-0.330,0.000,0.000,0.000
1640078917803610112,"2021-12-21,09:28:37",10.1.1.9,2.0061941146850586,-0.330,-0.330,-0.330,0.000,0.000,0.000
1640078918180530944,"2021-12-21,09:28:38",10.1.1.9,373,-0.340,-0.340,-0.340,0.000,0.000,0.000
1640078918203090944,"2021-12-21,09:28:38",10.1.1.9,0.39597296714782715,-0.340,-0.340,-0.340,0.000,0.000,0.000
1640078919047799040,"2021-12-21,09:28:39",10.1.1.9,842,-0.350,-0.350,-0.350,0.000,0.000,0.000
1640078919134670848,"2021-12-21,09:28:39",10.1.1.9,0.9296340942382812,-0.350,-0.350,-0.350,0.000,0.000,0.000
1640078920728510976,"2021-12-21,09:28:40",10.1.1.9,1592,-0.360,-0.360,-0.360,0.000,0.000,0.000
1640078920788548096,"2021-12-21,09:28:40",10.1.1.9,1.6523418426513672,-0.360,-0.360,-0.360,0.000,0.000,0.000
1640078921201297152,"2021-12-21,09:28:41",10.1.1.9,409,-0.370,-0.370,-0.370,0.000,0.000,0.000
1640078921223131904,"2021-12-21,09:28:41",10.1.1.9,0.43178415298461914,-0.370,-0.370,-0.370,0.000,0.000,0.000
1640078923091970048,"2021-12-21,09:28:43",10.1.1.9,1864,-0.380,-0.380,-0.380,0.000,0.000,0.000
1640078923118729984,"2021-12-21,09:28:43",10.1.1.9,1.890981912612915,-0.380,-0.380,-0.380,0.000,0.000,0.000
1640078923497152000,"2021-12-21,09:28:43",10.1.1.9,373,-0.390,-0.390,-0.390,0.000,0.000,0.000
1640078923521334016,"2021-12-21,09:28:43",10.1.1.9,0.39741992950439453,-0.390,-0.390,-0.390,0.000,0.000,0.000
1640078924310113024,"2021-12-21,09:28:44",10.1.1.9,787,-0.400,-0.400,-0.400,0.000,0.000,0.000
1640078924397134080,"2021-12-21,09:28:44",10.1.1.9,0.8744368553161621,-0.400,-0.400,-0.400,0.000,0.000,0.000
1640078925407491072,"2021-12-21,09:28:45",10.1.1.9,1007,-0.410,-0.410,-0.410,0.000,0.000,0.000
1640078925459930880,"2021-12-21,09:28:45",10.1.1.9,1.0604870319366455,-0.410,-0.410,-0.410,0.000,0.000,0.000
1640078926013409024,"2021-12-21,09:28:46",10.1.1.9,545,-0.420,-0.420,-0.420,0.000,0.000,0.000
1640078926048928000,"2021-12-21,09:28:46",10.1.1.9,0.5813388824462891,-0.420,-0.420,-0.420,0.000,0.000,0.000
1640078926482571008,"2021-12-21,09:28:46",10.1.1.9,430,-0.430,-0.430,-0.430,0.000,0.000,0.000
1640078926548676096,"2021-12-21,09:28:46",10.1.1.9,0.4965529441833496,-0.430,-0.430,-0.430,0.000,0.000,0.000
1640078926891100928,"2021-12-21,09:28:46",10.1.1.9,339,-0.440,-0.440,-0.440,0.000,0.000,0.000
1640078926976040960,"2021-12-21,09:28:46",10.1.1.9,0.4248850345611572,-0.440,-0.440,-0.440,0.000,0.000,0.000
1640078927322724096,"2021-12-21,09:28:47",10.1.1.9,344,-0.450,-0.450,-0.450,0.000,0.000,0.000
1640078927515976960,"2021-12-21,09:28:47",10.1.1.9,0.538214921951294,-0.450,-0.450,-0.450,0.000,0.000,0.000
1640078928033262080,"2021-12-21,09:28:48",10.1.1.9,507,-0.460,-0.460,-0.460,0.000,0.000,0.000
1640078928082923776,"2021-12-21,09:28:48",10.1.1.9,0.5566990375518799,-0.460,-0.460,-0.460,0.000,0.000,0.000
1640078928508398080,"2021-12-21,09:28:48",10.1.1.9,422,-0.470,-0.470,-0.470,0.000,0.000,0.000
1640078928561500160,"2021-12-21,09:28:48",10.1.1.9,0.4763150215148926,-0.470,-0.470,-0.470,0.000,0.000,0.000
1640078929218266112,"2021-12-21,09:28:49",10.1.1.9,652,-0.480,-0.480,-0.480,0.000,0.000,0.000
1640078929227724032,"2021-12-21,09:28:49",10.1.1.9,0.6624209880828857,-0.480,-0.480,-0.480,0.000,0.000,0.000
1640078929587089920,"2021-12-21,09:28:49",10.1.1.9,357,-0.490,-0.490,-0.490,0.000,0.000,0.000
1640078929598752000,"2021-12-21,09:28:49",10.1.1.9,0.36913180351257324,-0.490,-0.490,-0.490,0.000,0.000,0.000
1640078929955884032,"2021-12-21,09:28:49",10.1.1.9,353,-0.480,-0.480,-0.480,0.000,0.000,0.000
1640078929999120896,"2021-12-21,09:28:49",10.1.1.9,0.3966939449310303,-0.480,-0.480,-0.480,0.000,0.000,0.000
1640078930387572992,"2021-12-21,09:28:50",10.1.1.9,386,-0.470,-0.470,-0.470,0.000,0.000,0.000
1640078930432384000,"2021-12-21,09:28:50",10.1.1.9,0.43181514739990234,-0.470,-0.470,-0.470,0.000,0.000,0.000
1640078930807343104,"2021-12-21,09:28:50",10.1.1.9,371,-0.460,-0.460,-0.460,0.000,0.000,0.000
1640078930876188160,"2021-12-21,09:28:50",10.1.1.9,0.4376039505004883,-0.460,-0.460,-0.460,0.000,0.000,0.000
1640078931256134912,"2021-12-21,09:28:51",10.1.1.9,378,-0.450,-0.450,-0.450,0.000,0.000,0.000
1640078931311412224,"2021-12-21,09:28:51",10.1.1.9,0.4335968494415283,-0.450,-0.450,-0.450,0.000,0.000,0.000
1640078931882145024,"2021-12-21,09:28:51",10.1.1.9,568,-0.440,-0.440,-0.440,0.000,0.000,0.000
1640078931918319872,"2021-12-21,09:28:51",10.1.1.9,0.604327917098999,-0.440,-0.440,-0.440,0.000,0.000,0.000
1640078932387790848,"2021-12-21,09:28:52",10.1.1.9,0.4680209159851074,-0.430,-0.430,-0.430,0.000,0.000,0.000
1640078932841103104,"2021-12-21,09:28:52",10.1.1.9,448,-0.420,-0.420,-0.420,0.000,0.000,0.000
1640078932897958912,"2021-12-21,09:28:52",10.1.1.9,0.5049779415130615,-0.420,-0.420,-0.420,0.000,0.000,0.000
1640078933320504832,"2021-12-21,09:28:53",10.1.1.9,420,-0.410,-0.410,-0.410,0.000,0.000,0.000
1640078933384637184,"2021-12-21,09:28:53",10.1.1.9,0.48475003242492676,-0.410,-0.410,-0.410,0.000,0.000,0.000
1640078934240689920,"2021-12-21,09:28:54",10.1.1.9,845,-0.400,-0.400,-0.400,0.000,0.000,0.000
1640078934297584128,"2021-12-21,09:28:54",10.1.1.9,0.9027879238128662,-0.400,-0.400,-0.400,0.000,0.000,0.000
1640078934618531072,"2021-12-21,09:28:54",10.1.1.9,317,-0.390,-0.390,-0.390,0.000,0.000,0.000
1640078934662401024,"2021-12-21,09:28:54",10.1.1.9,0.36133503913879395,-0.390,-0.390,-0.390,0.000,0.000,0.000
1640078935227062016,"2021-12-21,09:28:55",10.1.1.9,550,-0.380,-0.380,-0.380,0.000,0.000,0.000
1640078935258522112,"2021-12-21,09:28:55",10.1.1.9,0.5816810131072998,-0.380,-0.380,-0.380,0.000,0.000,0.000
1640078935618825984,"2021-12-21,09:28:55",10.1.1.9,0.35406994819641113,-0.370,-0.370,-0.370,0.000,0.000,0.000
1640078935620075008,"2021-12-21,09:28:55",10.1.1.9,359,-0.370,-0.370,-0.370,0.000,0.000,0.000
1640078935956217088,"2021-12-21,09:28:55",10.1.1.9,335,-0.360,-0.360,-0.360,0.000,0.000,0.000
1640078935989396992,"2021-12-21,09:28:55",10.1.1.9,0.36864304542541504,-0.360,-0.360,-0.360,0.000,0.000,0.000
1640078936357696000,"2021-12-21,09:28:56",10.1.1.9,359,-0.350,-0.350,-0.350,0.000,0.000,0.000
1640078936391294976,"2021-12-21,09:28:56",10.1.1.9,0.393388032913208,-0.350,-0.350,-0.350,0.000,0.000,0.000
1640078936882482944,"2021-12-21,09:28:56",10.1.1.9,489,-0.340,-0.340,-0.340,0.000,0.000,0.000
1640078936887765760,"2021-12-21,09:28:56",10.1.1.9,0.49390411376953125,-0.340,-0.340,-0.340,0.000,0.000,0.000
1640078937643537152,"2021-12-21,09:28:57",10.1.1.9,743,-0.330,-0.330,-0.330,0.000,0.000,0.000
1640078937683918848,"2021-12-21,09:28:57",10.1.1.9,0.7835347652435303,-0.330,-0.330,-0.330,0.000,0.000,0.000
1640078938631383040,"2021-12-21,09:28:58",10.1.1.9,945,-0.320,-0.320,-0.320,0.000,0.000,0.000
1640078938699940864,"2021-12-21,09:28:58",10.1.1.9,1.0145847797393799,-0.320,-0.320,-0.320,0.000,0.000,0.000
1640078939090118912,"2021-12-21,09:28:59",10.1.1.9,384,-0.310,-0.310,-0.310,0.000,0.000,0.000
1640078939111656960,"2021-12-21,09:28:59",10.1.1.9,0.40636181831359863,-0.310,-0.310,-0.310,0.000,0.000,0.000
1640078939490316032,"2021-12-21,09:28:59",10.1.1.9,376,-0.300,-0.300,-0.300,0.000,0.000,0.000
1640078939547364096,"2021-12-21,09:28:59",10.1.1.9,0.4335010051727295,-0.300,-0.300,-0.300,0.000,0.000,0.000
1640078939869699840,"2021-12-21,09:28:59",10.1.1.9,320,-0.290,-0.290,-0.290,0.000,0.000,0.000
1640078939911689984,"2021-12-21,09:28:59",10.1.1.9,0.36241793632507324,-0.290,-0.290,-0.290,0.000,0.000,0.000
1640078940296911872,"2021-12-21,09:29:00",10.1.1.9,382,-0.280,-0.280,-0.280,0.000,0.000,0.000
1640078940393601792,"2021-12-21,09:29:00",10.1.1.9,0.47942113876342773,-0.280,-0.280,-0.280,0.000,0.000,0.000
1640078940761374976,"2021-12-21,09:29:00",10.1.1.9,365,-0.270,-0.270,-0.270,0.000,0.000,0.000
1640078940828108032,"2021-12-21,09:29:00",10.1.1.9,0.43242883682250977,-0.270,-0.270,-0.270,0.000,0.000,0.000
1640078941252872960,"2021-12-21,09:29:01",10.1.1.9,423,-0.260,-0.260,-0.260,0.000,0.000,0.000
1640078941320892160,"2021-12-21,09:29:01",10.1.1.9,0.49127197265625,-0.260,-0.260,-0.260,0.000,0.000,0.000
1640078941752430080,"2021-12-21,09:29:01",10.1.1.9,0.3958160877227783,-0.250,-0.250,-0.250,0.000,0.000,0.000
1640078941758054912,"2021-12-21,09:29:01",10.1.1.9,435,-0.250,-0.250,-0.250,0.000,0.000,0.000
1640078942154304000,"2021-12-21,09:29:02",10.1.1.9,394,-0.240,-0.240,-0.240,0.000,0.000,0.000
1640078942179985152,"2021-12-21,09:29:02",10.1.1.9,0.42008495330810547,-0.240,-0.240,-0.240,0.000,0.000,0.000
1640078942553771008,"2021-12-21,09:29:02",10.1.1.9,372,-0.230,-0.230,-0.230,0.000,0.000,0.000
1640078942631592960,"2021-12-21,09:29:02",10.1.1.9,0.45021820068359375,-0.230,-0.230,-0.230,0.000,0.000,0.000
1640078942966054912,"2021-12-21,09:29:02",10.1.1.9,331,-0.220,-0.220,-0.220,0.000,0.000,0.000
1640078943035422976,"2021-12-21,09:29:03",10.1.1.9,0.40260887145996094,-0.220,-0.220,-0.220,0.000,0.000,0.000
1640078943452370944,"2021-12-21,09:29:03",10.1.1.9,415,-0.210,-0.210,-0.210,0.000,0.000,0.000
1640078943485220864,"2021-12-21,09:29:03",10.1.1.9,0.4485161304473877,-0.210,-0.210,-0.210,0.000,0.000,0.000
1640078943911329024,"2021-12-21,09:29:03",10.1.1.9,424,-0.200,-0.200,-0.200,0.000,0.000,0.000
1640078944034167040,"2021-12-21,09:29:04",10.1.1.9,0.5475587844848633,-0.200,-0.200,-0.200,0.000,0.000,0.000
1640078944521822976,"2021-12-21,09:29:04",10.1.1.9,409,-0.190,-0.190,-0.190,0.000,0.000,0.000
1640078944560215040,"2021-12-21,09:29:04",10.1.1.9,0.44785618782043457,-0.190,-0.190,-0.190,0.000,0.000,0.000
1640078944928523008,"2021-12-21,09:29:04",10.1.1.9,366,-0.180,-0.180,-0.180,0.000,0.000,0.000
1640078945012898048,"2021-12-21,09:29:05",10.1.1.9,0.4513230323791504,-0.180,-0.180,-0.180,0.000,0.000,0.000
1640078945361776128,"2021-12-21,09:29:05",10.1.1.9,346,-0.170,-0.170,-0.170,0.000,0.000,0.000
1640078945408381952,"2021-12-21,09:29:05",10.1.1.9,0.39270591735839844,-0.170,-0.170,-0.170,0.000,0.000,0.000
1640078945751492096,"2021-12-21,09:29:05",10.1.1.9,339,-0.160,-0.160,-0.160,0.000,0.000,0.000
1640078945806680064,"2021-12-21,09:29:05",10.1.1.9,0.39513707160949707,-0.160,-0.160,-0.160,0.000,0.000,0.000
1640078946185798912,"2021-12-21,09:29:06",10.1.1.9,375,-0.150,-0.150,-0.150,0.000,0.000,0.000
1640078946208636928,"2021-12-21,09:29:06",10.1.1.9,0.3989238739013672,-0.150,-0.150,-0.150,0.000,0.000,0.000
1640078946529097984,"2021-12-21,09:29:06",10.1.1.9,318,-0.140,-0.140,-0.140,0.000,0.000,0.000
1640078946628377856,"2021-12-21,09:29:06",10.1.1.9,0.41745710372924805,-0.140,-0.140,-0.140,0.000,0.000,0.000
1640078946952388096,"2021-12-21,09:29:06",10.1.1.9,320,-0.130,-0.130,-0.130,0.000,0.000,0.000
1640078947023773952,"2021-12-21,09:29:07",10.1.1.9,0.3921699523925781,-0.130,-0.130,-0.130,0.000,0.000,0.000
1640078947358208768,"2021-12-21,09:29:07",10.1.1.9,331,-0.120,-0.120,-0.120,0.000,0.000,0.000
1640078947380738048,"2021-12-21,09:29:07",10.1.1.9,0.35436391830444336,-0.120,-0.120,-0.120,0.000,0.000,0.000
1640078947729922048,"2021-12-21,09:29:07",10.1.1.9,347,-0.110,-0.110,-0.110,0.000,0.000,0.000
1640078947740411904,"2021-12-21,09:29:07",10.1.1.9,0.35811805725097656,-0.110,-0.110,-0.110,0.000,0.000,0.000
1640078948104280064,"2021-12-21,09:29:08",10.1.1.9,362,-0.100,-0.100,-0.100,0.000,0.000,0.000
1640078948188972032,"2021-12-21,09:29:08",10.1.1.9,0.44730305671691895,-0.100,-0.100,-0.100,0.000,0.000,0.000
1640078948557569024,"2021-12-21,09:29:08",10.1.1.9,366,-0.090,-0.090,-0.090,0.000,0.000,0.000
1640078948594700032,"2021-12-21,09:29:08",10.1.1.9,0.4037759304046631,-0.090,-0.090,-0.090,0.000,0.000,0.000
1640078948992481024,"2021-12-21,09:29:08",10.1.1.9,396,-0.080,-0.080,-0.080,0.000,0.000,0.000
1640078949036047104,"2021-12-21,09:29:09",10.1.1.9,0.4398500919342041,-0.080,-0.080,-0.080,0.000,0.000,0.000
1640078949414618112,"2021-12-21,09:29:09",10.1.1.9,376,-0.070,-0.070,-0.070,0.000,0.000,0.000
1640078949457700096,"2021-12-21,09:29:09",10.1.1.9,0.41943907737731934,-0.070,-0.070,-0.070,0.000,0.000,0.000
1640078949787533056,"2021-12-21,09:29:09",10.1.1.9,327,-0.060,-0.060,-0.060,0.000,0.000,0.000
1640078949831838976,"2021-12-21,09:29:09",10.1.1.9,0.3722379207611084,-0.060,-0.060,-0.060,0.000,0.000,0.000
1640078950181651200,"2021-12-21,09:29:10",10.1.1.9,347,-0.050,-0.050,-0.050,0.000,0.000,0.000
1640078950251118848,"2021-12-21,09:29:10",10.1.1.9,0.41706013679504395,-0.050,-0.050,-0.050,0.000,0.000,0.000
1640078950633558016,"2021-12-21,09:29:10",10.1.1.9,0.3805830478668213,-0.040,-0.040,-0.040,0.000,0.000,0.000
1640078951069803008,"2021-12-21,09:29:11",10.1.1.9,417,-0.030,-0.030,-0.030,0.000,0.000,0.000
1640078951127343872,"2021-12-21,09:29:11",10.1.1.9,0.4761810302734375,-0.030,-0.030,-0.030,0.000,0.000,0.000
1640078951497736960,"2021-12-21,09:29:11",10.1.1.9,363,-0.020,-0.020,-0.020,0.000,0.000,0.000
1640078951545373952,"2021-12-21,09:29:11",10.1.1.9,0.4114699363708496,-0.020,-0.020,-0.020,0.000,0.000,0.000
1640078951930046976,"2021-12-21,09:29:11",10.1.1.9,382,-0.010,-0.010,-0.010,0.000,0.000,0.000
1640078951998203904,"2021-12-21,09:29:11",10.1.1.9,0.4505751132965088,-0.010,-0.010,-0.010,0.000,0.000,0.000
1640078952412301056,"2021-12-21,09:29:12",10.1.1.9,412,0.000,0.000,0.000,0.000,0.000,0.000
1640078952477495040,"2021-12-21,09:29:12",10.1.1.9,0.4776318073272705,0.000,0.000,0.000,0.000,0.000,0.000
1640078952895979776,"2021-12-21,09:29:12",10.1.1.9,398,-0.010,-0.010,-0.010,0.000,0.000,0.000
1640078952929639936,"2021-12-21,09:29:12",10.1.1.9,0.43229103088378906,-0.010,-0.010,-0.010,0.000,0.000,0.000
1640078953308940032,"2021-12-21,09:29:13",10.1.1.9,373,-0.020,-0.020,-0.020,0.000,0.000,0.000
1640078953365664000,"2021-12-21,09:29:13",10.1.1.9,0.43053603172302246,-0.020,-0.020,-0.020,0.000,0.000,0.000
1640078953829360896,"2021-12-21,09:29:13",10.1.1.9,462,-0.030,-0.030,-0.030,0.000,0.000,0.000
1640078953859607808,"2021-12-21,09:29:13",10.1.1.9,0.4923548698425293,-0.030,-0.030,-0.030,0.000,0.000,0.000
1640078954301104896,"2021-12-21,09:29:14",10.1.1.9,439,-0.040,-0.040,-0.040,0.000,0.000,0.000
1640078954346945024,"2021-12-21,09:29:14",10.1.1.9,0.48583197593688965,-0.040,-0.040,-0.040,0.000,0.000,0.000
1640078954751517184,"2021-12-21,09:29:14",10.1.1.9,387,-0.050,-0.050,-0.050,0.000,0.000,0.000
1640078954829608960,"2021-12-21,09:29:14",10.1.1.9,0.46752405166625977,-0.050,-0.050,-0.050,0.000,0.000,0.000
1640078955302658048,"2021-12-21,09:29:15",10.1.1.9,467,-0.060,-0.060,-0.060,0.000,0.000,0.000
1640078955325938944,"2021-12-21,09:29:15",10.1.1.9,0.4904780387878418,-0.060,-0.060,-0.060,0.000,0.000,0.000
1640078955776513024,"2021-12-21,09:29:15",10.1.1.9,422,-0.070,-0.070,-0.070,0.000,0.000,0.000
1640078955825799936,"2021-12-21,09:29:15",10.1.1.9,0.4705479145050049,-0.070,-0.070,-0.070,0.000,0.000,0.000
1640078956261733888,"2021-12-21,09:29:16",10.1.1.9,427,-0.080,-0.080,-0.080,0.000,0.000,0.000
1640078956321302016,"2021-12-21,09:29:16",10.1.1.9,0.4874000549316406,-0.080,-0.080,-0.080,0.000,0.000,0.000
1640078956717964032,"2021-12-21,09:29:16",10.1.1.9,395,-0.090,-0.090,-0.090,0.000,0.000,0.000
1640078956790885888,"2021-12-21,09:29:16",10.1.1.9,0.4681210517883301,-0.090,-0.090,-0.090,0.000,0.000,0.000
1640078957157510144,"2021-12-21,09:29:17",10.1.1.9,364,-0.100,-0.100,-0.100,0.000,0.000,0.000
1640078957223367936,"2021-12-21,09:29:17",10.1.1.9,0.4267299175262451,-0.100,-0.100,-0.100,0.000,0.000,0.000
1640078957573491968,"2021-12-21,09:29:17",10.1.1.9,348,-0.110,-0.110,-0.110,0.000,0.000,0.000
1640078957603943936,"2021-12-21,09:29:17",10.1.1.9,0.3787510395050049,-0.110,-0.110,-0.110,0.000,0.000,0.000
1640078957968410112,"2021-12-21,09:29:17",10.1.1.9,358,-0.120,-0.120,-0.120,0.000,0.000,0.000
1640078958017996032,"2021-12-21,09:29:18",10.1.1.9,0.4070870876312256,-0.120,-0.120,-0.120,0.000,0.000,0.000
1640078958934689024,"2021-12-21,09:29:18",10.1.1.9,0.4173269271850586,-0.130,-0.130,-0.130,0.000,0.000,0.000
1640078958967950080,"2021-12-21,09:29:18",10.1.1.9,948,-0.130,-0.130,-0.130,0.000,0.000,0.000
1640078959433044992,"2021-12-21,09:29:19",10.1.1.9,438,-0.140,-0.140,-0.140,0.000,0.000,0.000
1640078959503794944,"2021-12-21,09:29:19",10.1.1.9,0.5090479850769043,-0.140,-0.140,-0.140,0.000,0.000,0.000
1640078959857396992,"2021-12-21,09:29:19",10.1.1.9,351,-0.150,-0.150,-0.150,0.000,0.000,0.000
1640078959923580928,"2021-12-21,09:29:19",10.1.1.9,0.4174530506134033,-0.150,-0.150,-0.150,0.000,0.000,0.000
1640078960400088064,"2021-12-21,09:29:20",10.1.1.9,474,-0.160,-0.160,-0.160,0.000,0.000,0.000
1640078960445933056,"2021-12-21,09:29:20",10.1.1.9,0.5204689502716064,-0.160,-0.160,-0.160,0.000,0.000,0.000
1640078960867656960,"2021-12-21,09:29:20",10.1.1.9,414,-0.170,-0.170,-0.170,0.000,0.000,0.000
1640078960906812928,"2021-12-21,09:29:20",10.1.1.9,0.4545578956604004,-0.170,-0.170,-0.170,0.000,0.000,0.000
1640078961332904960,"2021-12-21,09:29:21",10.1.1.9,420,-0.180,-0.180,-0.180,0.000,0.000,0.000
1640078961361735168,"2021-12-21,09:29:21",10.1.1.9,0.4487590789794922,-0.180,-0.180,-0.180,0.000,0.000,0.000
1640078961759586048,"2021-12-21,09:29:21",10.1.1.9,395,-0.190,-0.190,-0.190,0.000,0.000,0.000
1640078961782550016,"2021-12-21,09:29:21",10.1.1.9,0.418673038482666,-0.190,-0.190,-0.190,0.000,0.000,0.000
1640078962178287104,"2021-12-21,09:29:22",10.1.1.9,392,-0.200,-0.200,-0.200,0.000,0.000,0.000
1640078962207395072,"2021-12-21,09:29:22",10.1.1.9,0.4219961166381836,-0.200,-0.200,-0.200,0.000,0.000,0.000
1640079052314727168,"2021-12-21,09:30:51",10.1.1.9,89.62998795509338,-0.210,-0.210,-0.210,0.000,0.000,0.000
1640079052865673984,"2021-12-21,09:30:52",10.1.1.9,0.5484721660614014,-0.220,-0.220,-0.220,0.000,0.000,0.000
1640079053457757952,"2021-12-21,09:30:53",10.1.1.9,0.588508129119873,-0.230,-0.230,-0.230,0.000,0.000,0.000
1640079054004802048,"2021-12-21,09:30:54",10.1.1.9,0.5400879383087158,-0.240,-0.240,-0.240,0.000,0.000,0.000
1640079054570280960,"2021-12-21,09:30:54",10.1.1.9,0.5565919876098633,-0.250,-0.250,-0.250,0.000,0.000,0.000
1640079055151858944,"2021-12-21,09:30:55",10.1.1.9,0.5798289775848389,-0.260,-0.260,-0.260,0.000,0.000,0.000
1640079056267219968,"2021-12-21,09:30:56",10.1.1.9,1106,-0.270,-0.270,-0.270,0.000,0.000,0.000
1640079056330887936,"2021-12-21,09:30:56",10.1.1.9,1.1699180603027344,-0.270,-0.270,-0.270,0.000,0.000,0.000
1640079056769912064,"2021-12-21,09:30:56",10.1.1.9,428,-0.280,-0.280,-0.280,0.000,0.000,0.000
1640079056858280960,"2021-12-21,09:30:56",10.1.1.9,0.5164768695831299,-0.280,-0.280,-0.280,0.000,0.000,0.000
1640079057299815936,"2021-12-21,09:30:57",10.1.1.9,433,-0.290,-0.290,-0.290,0.000,0.000,0.000
1640079057341147904,"2021-12-21,09:30:57",10.1.1.9,0.47539210319519043,-0.290,-0.290,-0.290,0.000,0.000,0.000
1640079057820514048,"2021-12-21,09:30:57",10.1.1.9,464,-0.300,-0.300,-0.300,0.000,0.000,0.000
1640079057895396096,"2021-12-21,09:30:57",10.1.1.9,0.5389621257781982,-0.300,-0.300,-0.300,0.000,0.000,0.000
1640079058358642944,"2021-12-21,09:30:58",10.1.1.9,452,-0.310,-0.310,-0.310,0.000,0.000,0.000
1640079058430821888,"2021-12-21,09:30:58",10.1.1.9,0.5251891613006592,-0.310,-0.310,-0.310,0.000,0.000,0.000
1640079058910292992,"2021-12-21,09:30:58",10.1.1.9,477,-0.320,-0.320,-0.320,0.000,0.000,0.000
1640079058976436992,"2021-12-21,09:30:58",10.1.1.9,0.5441172122955322,-0.320,-0.320,-0.320,0.000,0.000,0.000
1640079059359184128,"2021-12-21,09:30:59",10.1.1.9,374,-0.330,-0.330,-0.330,0.000,0.000,0.000
1640079059435532032,"2021-12-21,09:30:59",10.1.1.9,0.45090222358703613,-0.330,-0.330,-0.330,0.000,0.000,0.000
1640079059861123072,"2021-12-21,09:30:59",10.1.1.9,424,-0.340,-0.340,-0.340,0.000,0.000,0.000
1640079059977477120,"2021-12-21,09:30:59",10.1.1.9,0.5405020713806152,-0.340,-0.340,-0.340,0.000,0.000,0.000
1640079060371346944,"2021-12-21,09:31:00",10.1.1.9,391,-0.350,-0.350,-0.350,0.000,0.000,0.000
1640079060393414144,"2021-12-21,09:31:00",10.1.1.9,0.4134511947631836,-0.350,-0.350,-0.350,0.000,0.000,0.000
1640079060836660992,"2021-12-21,09:31:00",10.1.1.9,438,-0.360,-0.360,-0.360,0.000,0.000,0.000
1640079060856316160,"2021-12-21,09:31:00",10.1.1.9,0.4578850269317627,-0.360,-0.360,-0.360,0.000,0.000,0.000
1640079061250465024,"2021-12-21,09:31:01",10.1.1.9,391,-0.370,-0.370,-0.370,0.000,0.000,0.000
1640079061269197824,"2021-12-21,09:31:01",10.1.1.9,0.4100480079650879,-0.370,-0.370,-0.370,0.000,0.000,0.000
1640079061654208000,"2021-12-21,09:31:01",10.1.1.9,379,-0.380,-0.380,-0.380,0.000,0.000,0.000
1640079061707547904,"2021-12-21,09:31:01",10.1.1.9,0.4333460330963135,-0.380,-0.380,-0.380,0.000,0.000,0.000
1640079062073780992,"2021-12-21,09:31:02",10.1.1.9,364,-0.390,-0.390,-0.390,0.000,0.000,0.000
1640079062119503104,"2021-12-21,09:31:02",10.1.1.9,0.41046690940856934,-0.390,-0.390,-0.390,0.000,0.000,0.000
1640079063362971904,"2021-12-21,09:31:02",10.1.1.9,341,-0.400,-0.400,-0.400,0.000,0.000,0.000
1640079063481487104,"2021-12-21,09:31:03",10.1.1.9,1.3566570281982422,-0.400,-0.400,-0.400,0.000,0.000,0.000
1640079063821465088,"2021-12-21,09:31:03",10.1.1.9,337,-0.410,-0.410,-0.410,0.000,0.000,0.000
1640079063849659904,"2021-12-21,09:31:03",10.1.1.9,0.36613893508911133,-0.410,-0.410,-0.410,0.000,0.000,0.000
1640079064230328064,"2021-12-21,09:31:04",10.1.1.9,379,-0.420,-0.420,-0.420,0.000,0.000,0.000
1640079064286968832,"2021-12-21,09:31:04",10.1.1.9,0.4359879493713379,-0.420,-0.420,-0.420,0.000,0.000,0.000
1640079064682089984,"2021-12-21,09:31:04",10.1.1.9,393,-0.430,-0.430,-0.430,0.000,0.000,0.000
1640079064732464128,"2021-12-21,09:31:04",10.1.1.9,0.4443020820617676,-0.430,-0.430,-0.430,0.000,0.000,0.000
1640079065074376192,"2021-12-21,09:31:05",10.1.1.9,340,-0.440,-0.440,-0.440,0.000,0.000,0.000
1640079065133148928,"2021-12-21,09:31:05",10.1.1.9,0.39925098419189453,-0.440,-0.440,-0.440,0.000,0.000,0.000
1640079065491041792,"2021-12-21,09:31:05",10.1.1.9,348,-0.450,-0.450,-0.450,0.000,0.000,0.000
1640079065548834048,"2021-12-21,09:31:05",10.1.1.9,0.40622496604919434,-0.450,-0.450,-0.450,0.000,0.000,0.000
1640079065883547904,"2021-12-21,09:31:05",10.1.1.9,330,-0.460,-0.460,-0.460,0.000,0.000,0.000
1640079065935593984,"2021-12-21,09:31:05",10.1.1.9,0.38259100914001465,-0.460,-0.460,-0.460,0.000,0.000,0.000
1640079066390307840,"2021-12-21,09:31:06",10.1.1.9,0.4495871067047119,-0.470,-0.470,-0.470,0.000,0.000,0.000
1640079066400275968,"2021-12-21,09:31:06",10.1.1.9,459,-0.470,-0.470,-0.470,0.000,0.000,0.000
1640079066746872832,"2021-12-21,09:31:06",10.1.1.9,342,-0.480,-0.480,-0.480,0.000,0.000,0.000
1640079066828815104,"2021-12-21,09:31:06",10.1.1.9,0.4241759777069092,-0.480,-0.480,-0.480,0.000,0.000,0.000
1640079067136365824,"2021-12-21,09:31:07",10.1.1.9,306,-0.490,-0.490,-0.490,0.000,0.000,0.000
1640079067213659136,"2021-12-21,09:31:07",10.1.1.9,0.3834269046783447,-0.490,-0.490,-0.490,0.000,0.000,0.000
1640079067525680896,"2021-12-21,09:31:07",10.1.1.9,307,-0.480,-0.480,-0.480,0.000,0.000,0.000
1640079067581278208,"2021-12-21,09:31:07",10.1.1.9,0.3631439208984375,-0.480,-0.480,-0.480,0.000,0.000,0.000
1640079067919934976,"2021-12-21,09:31:07",10.1.1.9,336,-0.470,-0.470,-0.470,0.000,0.000,0.000
1640079067951726080,"2021-12-21,09:31:07",10.1.1.9,0.3679349422454834,-0.470,-0.470,-0.470,0.000,0.000,0.000
1640079068286566144,"2021-12-21,09:31:08",10.1.1.9,322,-0.460,-0.460,-0.460,0.000,0.000,0.000
1640079068332741120,"2021-12-21,09:31:08",10.1.1.9,0.3680760860443115,-0.460,-0.460,-0.460,0.000,0.000,0.000
1640079068684869888,"2021-12-21,09:31:08",10.1.1.9,349,-0.450,-0.450,-0.450,0.000,0.000,0.000
1640079068707478016,"2021-12-21,09:31:08",10.1.1.9,0.3719780445098877,-0.450,-0.450,-0.450,0.000,0.000,0.000
1640079069053554944,"2021-12-21,09:31:09",10.1.1.9,344,-0.440,-0.440,-0.440,0.000,0.000,0.000
1640079069169511936,"2021-12-21,09:31:09",10.1.1.9,0.46068406105041504,-0.440,-0.440,-0.440,0.000,0.000,0.000
1640079069585072128,"2021-12-21,09:31:09",10.1.1.9,405,-0.430,-0.430,-0.430,0.000,0.000,0.000
1640079069703874048,"2021-12-21,09:31:09",10.1.1.9,0.5248050689697266,-0.430,-0.430,-0.430,0.000,0.000,0.000
1640079070101633024,"2021-12-21,09:31:10",10.1.1.9,394,-0.420,-0.420,-0.420,0.000,0.000,0.000
1640079070122275072,"2021-12-21,09:31:10",10.1.1.9,0.41567397117614746,-0.420,-0.420,-0.420,0.000,0.000,0.000
1640079070461043968,"2021-12-21,09:31:10",10.1.1.9,336,-0.410,-0.410,-0.410,0.000,0.000,0.000
1640079070513058816,"2021-12-21,09:31:10",10.1.1.9,0.3885819911956787,-0.410,-0.410,-0.410,0.000,0.000,0.000
1640079070851398912,"2021-12-21,09:31:10",10.1.1.9,337,-0.400,-0.400,-0.400,0.000,0.000,0.000
1640079070901091072,"2021-12-21,09:31:10",10.1.1.9,0.38455986976623535,-0.400,-0.400,-0.400,0.000,0.000,0.000
1640079071260173056,"2021-12-21,09:31:11",10.1.1.9,356,-0.390,-0.390,-0.390,0.000,0.000,0.000
1640079071326507008,"2021-12-21,09:31:11",10.1.1.9,0.4230470657348633,-0.390,-0.390,-0.390,0.000,0.000,0.000
1640079071650595840,"2021-12-21,09:31:11",10.1.1.9,322,-0.380,-0.380,-0.380,0.000,0.000,0.000
1640079071722027008,"2021-12-21,09:31:11",10.1.1.9,0.39415693283081055,-0.380,-0.380,-0.380,0.000,0.000,0.000
1640079072050000896,"2021-12-21,09:31:12",10.1.1.9,325,-0.370,-0.370,-0.370,0.000,0.000,0.000
1640079072066126080,"2021-12-21,09:31:12",10.1.1.9,0.3423340320587158,-0.370,-0.370,-0.370,0.000,0.000,0.000
1640079072449464064,"2021-12-21,09:31:12",10.1.1.9,380,-0.360,-0.360,-0.360,0.000,0.000,0.000
1640079072497314816,"2021-12-21,09:31:12",10.1.1.9,0.42890405654907227,-0.360,-0.360,-0.360,0.000,0.000,0.000
1640079072872681984,"2021-12-21,09:31:12",10.1.1.9,373,-0.350,-0.350,-0.350,0.000,0.000,0.000
1640079072880312064,"2021-12-21,09:31:12",10.1.1.9,0.38141703605651855,-0.350,-0.350,-0.350,0.000,0.000,0.000
1640079073218962944,"2021-12-21,09:31:13",10.1.1.9,334,-0.340,-0.340,-0.340,0.000,0.000,0.000
1640079073312199168,"2021-12-21,09:31:13",10.1.1.9,0.4281768798828125,-0.340,-0.340,-0.340,0.000,0.000,0.000
1640079073836730112,"2021-12-21,09:31:13",10.1.1.9,485,-0.330,-0.330,-0.330,0.000,0.000,0.000
1640079073908473088,"2021-12-21,09:31:13",10.1.1.9,0.5565528869628906,-0.330,-0.330,-0.330,0.000,0.000,0.000
1640079074280988928,"2021-12-21,09:31:14",10.1.1.9,370,-0.320,-0.320,-0.320,0.000,0.000,0.000
1640079074297623040,"2021-12-21,09:31:14",10.1.1.9,0.38741207122802734,-0.320,-0.320,-0.320,0.000,0.000,0.000
1640079074645946112,"2021-12-21,09:31:14",10.1.1.9,346,-0.310,-0.310,-0.310,0.000,0.000,0.000
1640079074710035968,"2021-12-21,09:31:14",10.1.1.9,0.4103701114654541,-0.310,-0.310,-0.310,0.000,0.000,0.000
1640079099491923968,"2021-12-21,09:31:28",10.1.1.9,14204,-0.300,-0.300,-0.300,0.000,0.000,0.000
1640079099559025920,"2021-12-21,09:31:39",10.1.1.9,24.847067832946777,-0.300,-0.300,-0.300,0.000,0.000,0.000
1640079102250153984,"2021-12-21,09:31:42",10.1.1.9,2682,-0.290,-0.290,-0.290,0.000,0.000,0.000
1640079102324878080,"2021-12-21,09:31:42",10.1.1.9,2.7575058937072754,-0.290,-0.290,-0.290,0.000,0.000,0.000
1640079102693507840,"2021-12-21,09:31:42",10.1.1.9,364,-0.280,-0.280,-0.280,0.000,0.000,0.000
1640079102747347968,"2021-12-21,09:31:42",10.1.1.9,0.41861605644226074,-0.280,-0.280,-0.280,0.000,0.000,0.000
1640079103132273920,"2021-12-21,09:31:43",10.1.1.9,380,-0.270,-0.270,-0.270,0.000,0.000,0.000
1640079103151878144,"2021-12-21,09:31:43",10.1.1.9,0.399932861328125,-0.270,-0.270,-0.270,0.000,0.000,0.000
1640079103473123072,"2021-12-21,09:31:43",10.1.1.9,318,-0.260,-0.260,-0.260,0.000,0.000,0.000
1640079103566505984,"2021-12-21,09:31:43",10.1.1.9,0.4130408763885498,-0.260,-0.260,-0.260,0.000,0.000,0.000
1640079103921305856,"2021-12-21,09:31:43",10.1.1.9,353,-0.250,-0.250,-0.250,0.000,0.000,0.000
1640079103952099072,"2021-12-21,09:31:43",10.1.1.9,0.38390398025512695,-0.250,-0.250,-0.250,0.000,0.000,0.000
1640079104352582912,"2021-12-21,09:31:44",10.1.1.9,398,-0.240,-0.240,-0.240,0.000,0.000,0.000
1640079104434626048,"2021-12-21,09:31:44",10.1.1.9,0.4803488254547119,-0.240,-0.240,-0.240,0.000,0.000,0.000
1640079104896076032,"2021-12-21,09:31:44",10.1.1.9,459,-0.230,-0.230,-0.230,0.000,0.000,0.000
1640079104986699008,"2021-12-21,09:31:44",10.1.1.9,0.5499241352081299,-0.230,-0.230,-0.230,0.000,0.000,0.000
1640079105005723904,"2021-12-21,09:31:45",10.1.1.9,-31,-0.220,-0.220,-0.220,0.000,0.000,0.000
1640079105547651072,"2021-12-21,09:31:45",10.1.1.9,0.5583541393280029,-0.220,-0.220,-0.220,0.000,0.000,0.000
1640079105880187904,"2021-12-21,09:31:45",10.1.1.9,331,-0.210,-0.210,-0.210,0.000,0.000,0.000
1640079105974081024,"2021-12-21,09:31:45",10.1.1.9,0.4250659942626953,-0.210,-0.210,-0.210,0.000,0.000,0.000
1640079106458671104,"2021-12-21,09:31:46",10.1.1.9,482,-0.200,-0.200,-0.200,0.000,0.000,0.000
1640079106517957888,"2021-12-21,09:31:46",10.1.1.9,0.5420260429382324,-0.200,-0.200,-0.200,0.000,0.000,0.000
1640079106906502912,"2021-12-21,09:31:46",10.1.1.9,383,-0.190,-0.190,-0.190,0.000,0.000,0.000
1640079106921310976,"2021-12-21,09:31:46",10.1.1.9,0.39903998374938965,-0.190,-0.190,-0.190,0.000,0.000,0.000
1640079107415529984,"2021-12-21,09:31:47",10.1.1.9,483,-0.180,-0.180,-0.180,0.000,0.000,0.000
1640079107486203904,"2021-12-21,09:31:47",10.1.1.9,0.5545601844787598,-0.180,-0.180,-0.180,0.000,0.000,0.000
1640079107869564928,"2021-12-21,09:31:47",10.1.1.9,380,-0.170,-0.170,-0.170,0.000,0.000,0.000
1640079107918135808,"2021-12-21,09:31:47",10.1.1.9,0.4295690059661865,-0.170,-0.170,-0.170,0.000,0.000,0.000
1640079111057954048,"2021-12-21,09:31:48",10.1.1.9,0.4781348705291748,-0.160,-0.160,-0.160,0.000,0.000,0.000
1640079118347462912,"2021-12-21,09:31:54",10.1.1.9,3188,-0.150,-0.150,-0.150,0.000,0.000,0.000
1640079119780877056,"2021-12-21,09:31:59",10.1.1.9,8.328963041305542,-0.150,-0.150,-0.150,0.000,0.000,0.000
1640079120145042944,"2021-12-21,09:32:00",10.1.1.9,361,-0.140,-0.140,-0.140,0.000,0.000,0.000
1640079120186881024,"2021-12-21,09:32:00",10.1.1.9,0.4034759998321533,-0.140,-0.140,-0.140,0.000,0.000,0.000
1640079120553242880,"2021-12-21,09:32:00",10.1.1.9,361,-0.130,-0.130,-0.130,0.000,0.000,0.000
1640079120631228928,"2021-12-21,09:32:00",10.1.1.9,0.4423370361328125,-0.130,-0.130,-0.130,0.000,0.000,0.000
1640079121012407040,"2021-12-21,09:32:01",10.1.1.9,378,-0.120,-0.120,-0.120,0.000,0.000,0.000
1640079121116734976,"2021-12-21,09:32:01",10.1.1.9,0.4797959327697754,-0.120,-0.120,-0.120,0.000,0.000,0.000
1640079121543154944,"2021-12-21,09:32:01",10.1.1.9,424,-0.110,-0.110,-0.110,0.000,0.000,0.000
1640079121586002944,"2021-12-21,09:32:01",10.1.1.9,0.4677879810333252,-0.110,-0.110,-0.110,0.000,0.000,0.000
1640079122098190080,"2021-12-21,09:32:02",10.1.1.9,468,-0.100,-0.100,-0.100,0.000,0.000,0.000
1640079122186827776,"2021-12-21,09:32:02",10.1.1.9,0.5575919151306152,-0.100,-0.100,-0.100,0.000,0.000,0.000
1640079122696574976,"2021-12-21,09:32:02",10.1.1.9,506,-0.090,-0.090,-0.090,0.000,0.000,0.000
1640079122746964992,"2021-12-21,09:32:02",10.1.1.9,0.5568459033966064,-0.090,-0.090,-0.090,0.000,0.000,0.000
1640079123164489984,"2021-12-21,09:32:03",10.1.1.9,413,-0.080,-0.080,-0.080,0.000,0.000,0.000
1640079123235397120,"2021-12-21,09:32:03",10.1.1.9,0.48471903800964355,-0.080,-0.080,-0.080,0.000,0.000,0.000
1640079123723109120,"2021-12-21,09:32:03",10.1.1.9,470,-0.070,-0.070,-0.070,0.000,0.000,0.000
1640079123782469120,"2021-12-21,09:32:03",10.1.1.9,0.529979944229126,-0.070,-0.070,-0.070,0.000,0.000,0.000
1640079124402976000,"2021-12-21,09:32:04",10.1.1.9,618,-0.060,-0.060,-0.060,0.000,0.000,0.000
1640079124495837952,"2021-12-21,09:32:04",10.1.1.9,0.7114298343658447,-0.060,-0.060,-0.060,0.000,0.000,0.000
1640079125040188928,"2021-12-21,09:32:05",10.1.1.9,0.5427169799804688,-0.050,-0.050,-0.050,0.000,0.000,0.000
1640079125040509952,"2021-12-21,09:32:05",10.1.1.9,543,-0.050,-0.050,-0.050,0.000,0.000,0.000
1640079126005695232,"2021-12-21,09:32:05",10.1.1.9,518,-0.040,-0.040,-0.040,0.000,0.000,0.000
1640079126037633024,"2021-12-21,09:32:06",10.1.1.9,0.9940409660339355,-0.040,-0.040,-0.040,0.000,0.000,0.000
1640079126617396992,"2021-12-21,09:32:06",10.1.1.9,572,-0.030,-0.030,-0.030,0.000,0.000,0.000
1640079126628762112,"2021-12-21,09:32:06",10.1.1.9,0.584022045135498,-0.030,-0.030,-0.030,0.000,0.000,0.000
1640079127107217152,"2021-12-21,09:32:07",10.1.1.9,471,-0.020,-0.020,-0.020,0.000,0.000,0.000
1640079127159375872,"2021-12-21,09:32:07",10.1.1.9,0.523582935333252,-0.020,-0.020,-0.020,0.000,0.000,0.000
1640079127570836992,"2021-12-21,09:32:07",10.1.1.9,402,-0.010,-0.010,-0.010,0.000,0.000,0.000
1640079127607414016,"2021-12-21,09:32:07",10.1.1.9,0.4393000602722168,-0.010,-0.010,-0.010,0.000,0.000,0.000
1640079128040026880,"2021-12-21,09:32:08",10.1.1.9,426,0.000,0.000,0.000,0.000,0.000,0.000
1640079128096455168,"2021-12-21,09:32:08",10.1.1.9,0.48330187797546387,0.000,0.000,0.000,0.000,0.000,0.000
1640079128631355904,"2021-12-21,09:32:08",10.1.1.9,533,-0.010,-0.010,-0.010,0.000,0.000,0.000
1640079128752410880,"2021-12-21,09:32:08",10.1.1.9,0.65437912940979,-0.010,-0.010,-0.010,0.000,0.000,0.000
1640079129170576128,"2021-12-21,09:32:09",10.1.1.9,412,-0.020,-0.020,-0.020,0.000,0.000,0.000
1640079129188766976,"2021-12-21,09:32:09",10.1.1.9,0.4305078983306885,-0.020,-0.020,-0.020,0.000,0.000,0.000
1640079129608833024,"2021-12-21,09:32:09",10.1.1.9,414,-0.030,-0.030,-0.030,0.000,0.000,0.000
1640079129666769152,"2021-12-21,09:32:09",10.1.1.9,0.465181827545166,-0.030,-0.030,-0.030,0.000,0.000,0.000
1640079130109981184,"2021-12-21,09:32:10",10.1.1.9,439,-0.040,-0.040,-0.040,0.000,0.000,0.000
1640079130159718912,"2021-12-21,09:32:10",10.1.1.9,0.4897329807281494,-0.040,-0.040,-0.040,0.000,0.000,0.000
1640079130561265920,"2021-12-21,09:32:10",10.1.1.9,397,-0.050,-0.050,-0.050,0.000,0.000,0.000
1640079130624663040,"2021-12-21,09:32:10",10.1.1.9,0.4608190059661865,-0.050,-0.050,-0.050,0.000,0.000,0.000
1640079131188270080,"2021-12-21,09:32:11",10.1.1.9,556,-0.060,-0.060,-0.060,0.000,0.000,0.000
1640079131232024832,"2021-12-21,09:32:11",10.1.1.9,0.6001532077789307,-0.060,-0.060,-0.060,0.000,0.000,0.000
1640079131637455872,"2021-12-21,09:32:11",10.1.1.9,403,-0.070,-0.070,-0.070,0.000,0.000,0.000
1640079131686865920,"2021-12-21,09:32:11",10.1.1.9,0.45299482345581055,-0.070,-0.070,-0.070,0.000,0.000,0.000
1640079132146249984,"2021-12-21,09:32:12",10.1.1.9,444,-0.080,-0.080,-0.080,0.000,0.000,0.000
1640079132167300864,"2021-12-21,09:32:12",10.1.1.9,0.46604204177856445,-0.080,-0.080,-0.080,0.000,0.000,0.000
1640079132515966976,"2021-12-21,09:32:12",10.1.1.9,346,-0.090,-0.090,-0.090,0.000,0.000,0.000
1640079132587625984,"2021-12-21,09:32:12",10.1.1.9,0.4182450771331787,-0.090,-0.090,-0.090,0.000,0.000,0.000
1640079132975323904,"2021-12-21,09:32:12",10.1.1.9,380,-0.100,-0.100,-0.100,0.000,0.000,0.000
1640079133014290176,"2021-12-21,09:32:13",10.1.1.9,0.4193899631500244,-0.100,-0.100,-0.100,0.000,0.000,0.000
1640079133407975936,"2021-12-21,09:32:13",10.1.1.9,381,-0.110,-0.110,-0.110,0.000,0.000,0.000
1640079133426491136,"2021-12-21,09:32:13",10.1.1.9,0.40015101432800293,-0.110,-0.110,-0.110,0.000,0.000,0.000
1640079133832433920,"2021-12-21,09:32:13",10.1.1.9,403,-0.120,-0.120,-0.120,0.000,0.000,0.000
1640079133910893056,"2021-12-21,09:32:13",10.1.1.9,0.4822511672973633,-0.120,-0.120,-0.120,0.000,0.000,0.000
1640079134304070912,"2021-12-21,09:32:14",10.1.1.9,391,-0.130,-0.130,-0.130,0.000,0.000,0.000
1640079134360193024,"2021-12-21,09:32:14",10.1.1.9,0.44739508628845215,-0.130,-0.130,-0.130,0.000,0.000,0.000
1640079134731992064,"2021-12-21,09:32:14",10.1.1.9,365,-0.140,-0.140,-0.140,0.000,0.000,0.000
1640079134806288896,"2021-12-21,09:32:14",10.1.1.9,0.44463610649108887,-0.140,-0.140,-0.140,0.000,0.000,0.000
1640079135351947008,"2021-12-21,09:32:15",10.1.1.9,544,-0.150,-0.150,-0.150,0.000,0.000,0.000
1640079135417124864,"2021-12-21,09:32:15",10.1.1.9,0.6018428802490234,-0.150,-0.150,-0.150,0.000,0.000,0.000
1640079135852804864,"2021-12-21,09:32:15",10.1.1.9,431,-0.160,-0.160,-0.160,0.000,0.000,0.000
1640079135897527040,"2021-12-21,09:32:15",10.1.1.9,0.47710490226745605,-0.160,-0.160,-0.160,0.000,0.000,0.000
1640079136492111872,"2021-12-21,09:32:16",10.1.1.9,582,-0.170,-0.170,-0.170,0.000,0.000,0.000
1640079136550476032,"2021-12-21,09:32:16",10.1.1.9,0.6413440704345703,-0.170,-0.170,-0.170,0.000,0.000,0.000
1640079137009565184,"2021-12-21,09:32:17",10.1.1.9,457,-0.180,-0.180,-0.180,0.000,0.000,0.000
1640079137046106112,"2021-12-21,09:32:17",10.1.1.9,0.49429988861083984,-0.180,-0.180,-0.180,0.000,0.000,0.000
1640079137481419008,"2021-12-21,09:32:17",10.1.1.9,430,-0.190,-0.190,-0.190,0.000,0.000,0.000
1640079137684701952,"2021-12-21,09:32:17",10.1.1.9,0.6335129737854004,-0.190,-0.190,-0.190,0.000,0.000,0.000
1640079138517968896,"2021-12-21,09:32:18",10.1.1.9,828,-0.200,-0.200,-0.200,0.000,0.000,0.000
1640079138585935104,"2021-12-21,09:32:18",10.1.1.9,0.896165132522583,-0.200,-0.200,-0.200,0.000,0.000,0.000
1640079139166874880,"2021-12-21,09:32:19",10.1.1.9,577,-0.210,-0.210,-0.210,0.000,0.000,0.000
1640079139225081856,"2021-12-21,09:32:19",10.1.1.9,0.6362178325653076,-0.210,-0.210,-0.210,0.000,0.000,0.000
1640079139696187136,"2021-12-21,09:32:19",10.1.1.9,465,-0.220,-0.220,-0.220,0.000,0.000,0.000
1640079139784567040,"2021-12-21,09:32:19",10.1.1.9,0.5541970729827881,-0.220,-0.220,-0.220,0.000,0.000,0.000
1640079140185038080,"2021-12-21,09:32:20",10.1.1.9,398,-0.230,-0.230,-0.230,0.000,0.000,0.000
1640079140275027968,"2021-12-21,09:32:20",10.1.1.9,0.48863720893859863,-0.230,-0.230,-0.230,0.000,0.000,0.000
1640079140654327040,"2021-12-21,09:32:20",10.1.1.9,377,-0.240,-0.240,-0.240,0.000,0.000,0.000
1640079140786448896,"2021-12-21,09:32:20",10.1.1.9,0.5098788738250732,-0.240,-0.240,-0.240,0.000,0.000,0.000
1640079141193201920,"2021-12-21,09:32:21",10.1.1.9,401,-0.250,-0.250,-0.250,0.000,0.000,0.000
1640079141257196800,"2021-12-21,09:32:21",10.1.1.9,0.4653470516204834,-0.250,-0.250,-0.250,0.000,0.000,0.000
1640079141682644992,"2021-12-21,09:32:21",10.1.1.9,403,-0.260,-0.260,-0.260,0.000,0.000,0.000
1640079141749975808,"2021-12-21,09:32:21",10.1.1.9,0.47107887268066406,-0.260,-0.260,-0.260,0.000,0.000,0.000
1640079142122803968,"2021-12-21,09:32:22",10.1.1.9,367,-0.270,-0.270,-0.270,0.000,0.000,0.000
1640079142164338176,"2021-12-21,09:32:22",10.1.1.9,0.40886592864990234,-0.270,-0.270,-0.270,0.000,0.000,0.000
1640079142651457024,"2021-12-21,09:32:22",10.1.1.9,484,-0.280,-0.280,-0.280,0.000,0.000,0.000
1640079142736154112,"2021-12-21,09:32:22",10.1.1.9,0.5589139461517334,-0.280,-0.280,-0.280,0.000,0.000,0.000
1640079143200148224,"2021-12-21,09:32:23",10.1.1.9,458,-0.290,-0.290,-0.290,0.000,0.000,0.000
1640079143242018048,"2021-12-21,09:32:23",10.1.1.9,0.5006341934204102,-0.290,-0.290,-0.290,0.000,0.000,0.000
1640079143689934848,"2021-12-21,09:32:23",10.1.1.9,446,-0.300,-0.300,-0.300,0.000,0.000,0.000
1640079143806418944,"2021-12-21,09:32:23",10.1.1.9,0.5628719329833984,-0.300,-0.300,-0.300,0.000,0.000,0.000
1640079144298772992,"2021-12-21,09:32:24",10.1.1.9,487,-0.310,-0.310,-0.310,0.000,0.000,0.000
1640079144382496000,"2021-12-21,09:32:24",10.1.1.9,0.5713980197906494,-0.310,-0.310,-0.310,0.000,0.000,0.000
1640079144777234944,"2021-12-21,09:32:24",10.1.1.9,392,-0.320,-0.320,-0.320,0.000,0.000,0.000
1640079144831624960,"2021-12-21,09:32:24",10.1.1.9,0.4416959285736084,-0.320,-0.320,-0.320,0.000,0.000,0.000
1640079145278893824,"2021-12-21,09:32:25",10.1.1.9,444,-0.330,-0.330,-0.330,0.000,0.000,0.000
1640079145362621184,"2021-12-21,09:32:25",10.1.1.9,0.5285749435424805,-0.330,-0.330,-0.330,0.000,0.000,0.000
1640079145785618944,"2021-12-21,09:32:25",10.1.1.9,413,-0.340,-0.340,-0.340,0.000,0.000,0.000
1640079145880642048,"2021-12-21,09:32:25",10.1.1.9,0.5081920623779297,-0.340,-0.340,-0.340,0.000,0.000,0.000
1640079146388328960,"2021-12-21,09:32:26",10.1.1.9,505,-0.350,-0.350,-0.350,0.000,0.000,0.000
1640079146530308864,"2021-12-21,09:32:26",10.1.1.9,0.6479220390319824,-0.350,-0.350,-0.350,0.000,0.000,0.000
1640079147238953984,"2021-12-21,09:32:27",10.1.1.9,706,-0.360,-0.360,-0.360,0.000,0.000,0.000
1640079147307353088,"2021-12-21,09:32:27",10.1.1.9,0.7750978469848633,-0.360,-0.360,-0.360,0.000,0.000,0.000
1640079147788690944,"2021-12-21,09:32:27",10.1.1.9,479,-0.370,-0.370,-0.370,0.000,0.000,0.000
1640079147812800000,"2021-12-21,09:32:27",10.1.1.9,0.5012640953063965,-0.370,-0.370,-0.370,0.000,0.000,0.000
1640079148217509120,"2021-12-21,09:32:28",10.1.1.9,397,-0.380,-0.380,-0.380,0.000,0.000,0.000
1640079148421660928,"2021-12-21,09:32:28",10.1.1.9,0.6020030975341797,-0.380,-0.380,-0.380,0.000,0.000,0.000
1640079149019518976,"2021-12-21,09:32:29",10.1.1.9,532,-0.390,-0.390,-0.390,0.000,0.000,0.000
1640079149089412864,"2021-12-21,09:32:29",10.1.1.9,0.6028130054473877,-0.390,-0.390,-0.390,0.000,0.000,0.000
1640079149731036928,"2021-12-21,09:32:29",10.1.1.9,627,-0.400,-0.400,-0.400,0.000,0.000,0.000
1640079149769906944,"2021-12-21,09:32:29",10.1.1.9,0.6724390983581543,-0.400,-0.400,-0.400,0.000,0.000,0.000
1640079150324438016,"2021-12-21,09:32:30",10.1.1.9,550,-0.410,-0.410,-0.410,0.000,0.000,0.000
1640079150407073024,"2021-12-21,09:32:30",10.1.1.9,0.6336050033569336,-0.410,-0.410,-0.410,0.000,0.000,0.000
1640079150889512960,"2021-12-21,09:32:30",10.1.1.9,480,-0.420,-0.420,-0.420,0.000,0.000,0.000
1640079150943515904,"2021-12-21,09:32:30",10.1.1.9,0.5343937873840332,-0.420,-0.420,-0.420,0.000,0.000,0.000
1640079151376804096,"2021-12-21,09:32:31",10.1.1.9,429,-0.430,-0.430,-0.430,0.000,0.000,0.000
1640079151527826944,"2021-12-21,09:32:31",10.1.1.9,0.5812880992889404,-0.430,-0.430,-0.430,0.000,0.000,0.000
1640079152017512960,"2021-12-21,09:32:32",10.1.1.9,487,-0.440,-0.440,-0.440,0.000,0.000,0.000
1640079152132024064,"2021-12-21,09:32:32",10.1.1.9,0.6020359992980957,-0.440,-0.440,-0.440,0.000,0.000,0.000
1640079152550409984,"2021-12-21,09:32:32",10.1.1.9,416,-0.450,-0.450,-0.450,0.000,0.000,0.000
1640079152695858944,"2021-12-21,09:32:32",10.1.1.9,0.5620179176330566,-0.450,-0.450,-0.450,0.000,0.000,0.000
1640079153219880192,"2021-12-21,09:32:33",10.1.1.9,494,-0.460,-0.460,-0.460,0.000,0.000,0.000
1640079153234530816,"2021-12-21,09:32:33",10.1.1.9,0.509361982345581,-0.460,-0.460,-0.460,0.000,0.000,0.000
1640079153732774912,"2021-12-21,09:32:33",10.1.1.9,481,-0.470,-0.470,-0.470,0.000,0.000,0.000
1640079153863696128,"2021-12-21,09:32:33",10.1.1.9,0.6120579242706299,-0.470,-0.470,-0.470,0.000,0.000,0.000
1640079154300923136,"2021-12-21,09:32:34",10.1.1.9,434,-0.480,-0.480,-0.480,0.000,0.000,0.000
1640079154388577024,"2021-12-21,09:32:34",10.1.1.9,0.522629976272583,-0.480,-0.480,-0.480,0.000,0.000,0.000
1640079154842356992,"2021-12-21,09:32:34",10.1.1.9,0.45250415802001953,-0.490,-0.490,-0.490,0.000,0.000,0.000
1640079154843198976,"2021-12-21,09:32:34",10.1.1.9,453,-0.490,-0.490,-0.490,0.000,0.000,0.000
1640079155253030912,"2021-12-21,09:32:35",10.1.1.9,0.4076058864593506,-0.480,-0.480,-0.480,0.000,0.000,0.000
1640079155260675072,"2021-12-21,09:32:35",10.1.1.9,408,-0.480,-0.480,-0.480,0.000,0.000,0.000
1640079155702315008,"2021-12-21,09:32:35",10.1.1.9,440,-0.470,-0.470,-0.470,0.000,0.000,0.000
1640079155779323136,"2021-12-21,09:32:35",10.1.1.9,0.5168111324310303,-0.470,-0.470,-0.470,0.000,0.000,0.000
1640079156183214848,"2021-12-21,09:32:36",10.1.1.9,396,-0.460,-0.460,-0.460,0.000,0.000,0.000
1640079156282505984,"2021-12-21,09:32:36",10.1.1.9,0.4959430694580078,-0.460,-0.460,-0.460,0.000,0.000,0.000
1640079156889605888,"2021-12-21,09:32:36",10.1.1.9,586,-0.450,-0.450,-0.450,0.000,0.000,0.000
1640079156921329920,"2021-12-21,09:32:36",10.1.1.9,0.6180570125579834,-0.450,-0.450,-0.450,0.000,0.000,0.000
1640079157419675136,"2021-12-21,09:32:37",10.1.1.9,485,-0.440,-0.440,-0.440,0.000,0.000,0.000
1640079157429261056,"2021-12-21,09:32:37",10.1.1.9,0.4948420524597168,-0.440,-0.440,-0.440,0.000,0.000,0.000
1640079157862909184,"2021-12-21,09:32:37",10.1.1.9,418,-0.430,-0.430,-0.430,0.000,0.000,0.000
1640079157941627136,"2021-12-21,09:32:37",10.1.1.9,0.49706292152404785,-0.430,-0.430,-0.430,0.000,0.000,0.000
1640079158442539008,"2021-12-21,09:32:38",10.1.1.9,485,-0.420,-0.420,-0.420,0.000,0.000,0.000
1640079158506861824,"2021-12-21,09:32:38",10.1.1.9,0.5499591827392578,-0.420,-0.420,-0.420,0.000,0.000,0.000
1640079159031401984,"2021-12-21,09:32:39",10.1.1.9,513,-0.410,-0.410,-0.410,0.000,0.000,0.000
1640079159088252160,"2021-12-21,09:32:39",10.1.1.9,0.5709121227264404,-0.410,-0.410,-0.410,0.000,0.000,0.000
1640079159583276032,"2021-12-21,09:32:39",10.1.1.9,492,-0.400,-0.400,-0.400,0.000,0.000,0.000
1640079159633974016,"2021-12-21,09:32:39",10.1.1.9,0.5437848567962646,-0.400,-0.400,-0.400,0.000,0.000,0.000
1640079160051467008,"2021-12-21,09:32:40",10.1.1.9,414,-0.390,-0.390,-0.390,0.000,0.000,0.000
1640079160105797888,"2021-12-21,09:32:40",10.1.1.9,0.4685490131378174,-0.390,-0.390,-0.390,0.000,0.000,0.000
1640079160601042944,"2021-12-21,09:32:40",10.1.1.9,491,-0.380,-0.380,-0.380,0.000,0.000,0.000
1640079160659614976,"2021-12-21,09:32:40",10.1.1.9,0.5505449771881104,-0.380,-0.380,-0.380,0.000,0.000,0.000
1640079161191847168,"2021-12-21,09:32:41",10.1.1.9,530,-0.370,-0.370,-0.370,0.000,0.000,0.000
1640079161288783104,"2021-12-21,09:32:41",10.1.1.9,0.6275019645690918,-0.370,-0.370,-0.370,0.000,0.000,0.000
1640079161780056064,"2021-12-21,09:32:41",10.1.1.9,463,-0.360,-0.360,-0.360,0.000,0.000,0.000
1640079161844595968,"2021-12-21,09:32:41",10.1.1.9,0.5277080535888672,-0.360,-0.360,-0.360,0.000,0.000,0.000
1640079162296612096,"2021-12-21,09:32:42",10.1.1.9,440,-0.350,-0.350,-0.350,0.000,0.000,0.000
1640079162406100992,"2021-12-21,09:32:42",10.1.1.9,0.555778980255127,-0.350,-0.350,-0.350,0.000,0.000,0.000
1640079162820177920,"2021-12-21,09:32:42",10.1.1.9,412,-0.340,-0.340,-0.340,0.000,0.000,0.000
1640079162875224064,"2021-12-21,09:32:42",10.1.1.9,0.4674081802368164,-0.340,-0.340,-0.340,0.000,0.000,0.000
1640079163304079104,"2021-12-21,09:32:43",10.1.1.9,427,-0.330,-0.330,-0.330,0.000,0.000,0.000
1640079163408121088,"2021-12-21,09:32:43",10.1.1.9,0.5313150882720947,-0.330,-0.330,-0.330,0.000,0.000,0.000
1640079163894843136,"2021-12-21,09:32:43",10.1.1.9,476,-0.320,-0.320,-0.320,0.000,0.000,0.000
1640079164000189952,"2021-12-21,09:32:44",10.1.1.9,0.5818099975585938,-0.320,-0.320,-0.320,0.000,0.000,0.000
1640079164448503040,"2021-12-21,09:32:44",10.1.1.9,445,-0.310,-0.310,-0.310,0.000,0.000,0.000
1640079164680971008,"2021-12-21,09:32:44",10.1.1.9,0.6781339645385742,-0.310,-0.310,-0.310,0.000,0.000,0.000
1640079165256385024,"2021-12-21,09:32:45",10.1.1.9,538,-0.300,-0.300,-0.300,0.000,0.000,0.000
1640079165312269824,"2021-12-21,09:32:45",10.1.1.9,0.5912039279937744,-0.300,-0.300,-0.300,0.000,0.000,0.000
1640079165747715840,"2021-12-21,09:32:45",10.1.1.9,421,-0.290,-0.290,-0.290,0.000,0.000,0.000
1640079165809547776,"2021-12-21,09:32:45",10.1.1.9,0.4831690788269043,-0.290,-0.290,-0.290,0.000,0.000,0.000
1640079171656701184,"2021-12-21,09:32:51",10.1.1.9,5656,-0.280,-0.280,-0.280,0.000,0.000,0.000
1640079171758289152,"2021-12-21,09:32:51",10.1.1.9,5.947016954421997,-0.280,-0.280,-0.280,0.000,0.000,0.000
1640079171778008832,"2021-12-21,09:32:51",10.1.1.9,-12,-0.270,-0.270,-0.270,0.000,0.000,0.000
1640079172397092096,"2021-12-21,09:32:52",10.1.1.9,0.626655101776123,-0.270,-0.270,-0.270,0.000,0.000,0.000
1640079172777641984,"2021-12-21,09:32:52",10.1.1.9,373,-0.260,-0.260,-0.260,0.000,0.000,0.000
1640079172821957120,"2021-12-21,09:32:52",10.1.1.9,0.41887879371643066,-0.260,-0.260,-0.260,0.000,0.000,0.000
1640079173361046016,"2021-12-21,09:32:53",10.1.1.9,520,-0.250,-0.250,-0.250,0.000,0.000,0.000
1640079173407887872,"2021-12-21,09:32:53",10.1.1.9,0.5823590755462646,-0.250,-0.250,-0.250,0.000,0.000,0.000
1640079174036282112,"2021-12-21,09:32:54",10.1.1.9,615,-0.240,-0.240,-0.240,0.000,0.000,0.000
1640079174182213120,"2021-12-21,09:32:54",10.1.1.9,0.7543239593505859,-0.240,-0.240,-0.240,0.000,0.000,0.000
1640079174800417792,"2021-12-21,09:32:54",10.1.1.9,603,-0.230,-0.230,-0.230,0.000,0.000,0.000
1640079175015016960,"2021-12-21,09:32:55",10.1.1.9,0.8166708946228027,-0.230,-0.230,-0.230,0.000,0.000,0.000
1640079175507319040,"2021-12-21,09:32:55",10.1.1.9,479,-0.220,-0.220,-0.220,0.000,0.000,0.000
1640079175626308864,"2021-12-21,09:32:55",10.1.1.9,0.5987660884857178,-0.220,-0.220,-0.220,0.000,0.000,0.000
1640079176193325056,"2021-12-21,09:32:56",10.1.1.9,563,-0.210,-0.210,-0.210,0.000,0.000,0.000
1640079176291024896,"2021-12-21,09:32:56",10.1.1.9,0.6611959934234619,-0.210,-0.210,-0.210,0.000,0.000,0.000
1640079176752621824,"2021-12-21,09:32:56",10.1.1.9,453,-0.200,-0.200,-0.200,0.000,0.000,0.000
1640079176834428928,"2021-12-21,09:32:56",10.1.1.9,0.5353059768676758,-0.200,-0.200,-0.200,0.000,0.000,0.000
1640079177339188992,"2021-12-21,09:32:57",10.1.1.9,499,-0.190,-0.190,-0.190,0.000,0.000,0.000
1640079177349064192,"2021-12-21,09:32:57",10.1.1.9,0.509436845779419,-0.190,-0.190,-0.190,0.000,0.000,0.000
1640079177853709056,"2021-12-21,09:32:57",10.1.1.9,502,-0.180,-0.180,-0.180,0.000,0.000,0.000
1640079178013238784,"2021-12-21,09:32:58",10.1.1.9,0.66184401512146,-0.180,-0.180,-0.180,0.000,0.000,0.000
1640079178463987968,"2021-12-21,09:32:58",10.1.1.9,448,-0.170,-0.170,-0.170,0.000,0.000,0.000
1640079178794351104,"2021-12-21,09:32:58",10.1.1.9,0.7786240577697754,-0.170,-0.170,-0.170,0.000,0.000,0.000
1640079179314810880,"2021-12-21,09:32:59",10.1.1.9,505,-0.160,-0.160,-0.160,0.000,0.000,0.000
1640079179374320128,"2021-12-21,09:32:59",10.1.1.9,0.5650749206542969,-0.160,-0.160,-0.160,0.000,0.000,0.000
1640079179953350144,"2021-12-21,09:32:59",10.1.1.9,576,-0.150,-0.150,-0.150,0.000,0.000,0.000
1640079180036156928,"2021-12-21,09:33:00",10.1.1.9,0.6595499515533447,-0.150,-0.150,-0.150,0.000,0.000,0.000
1640079180583444992,"2021-12-21,09:33:00",10.1.1.9,522,-0.140,-0.140,-0.140,0.000,0.000,0.000
1640079180715433984,"2021-12-21,09:33:00",10.1.1.9,0.6547589302062988,-0.140,-0.140,-0.140,0.000,0.000,0.000
1640079181173726208,"2021-12-21,09:33:01",10.1.1.9,437,-0.130,-0.130,-0.130,0.000,0.000,0.000
1640079181248368128,"2021-12-21,09:33:01",10.1.1.9,0.5119519233703613,-0.130,-0.130,-0.130,0.000,0.000,0.000
1640079181668595968,"2021-12-21,09:33:01",10.1.1.9,418,-0.120,-0.120,-0.120,0.000,0.000,0.000
1640079181809801984,"2021-12-21,09:33:01",10.1.1.9,0.5596749782562256,-0.120,-0.120,-0.120,0.000,0.000,0.000
1640079182384744960,"2021-12-21,09:33:02",10.1.1.9,570,-0.110,-0.110,-0.110,0.000,0.000,0.000
1640079182448750080,"2021-12-21,09:33:02",10.1.1.9,0.6363389492034912,-0.110,-0.110,-0.110,0.000,0.000,0.000
1640079183084305152,"2021-12-21,09:33:03",10.1.1.9,631,-0.100,-0.100,-0.100,0.000,0.000,0.000
1640079183248506112,"2021-12-21,09:33:03",10.1.1.9,0.7960021495819092,-0.100,-0.100,-0.100,0.000,0.000,0.000
1640079183919499008,"2021-12-21,09:33:03",10.1.1.9,658,-0.090,-0.090,-0.090,0.000,0.000,0.000
1640079183930288128,"2021-12-21,09:33:03",10.1.1.9,0.670989990234375,-0.090,-0.090,-0.090,0.000,0.000,0.000
1640079184536915968,"2021-12-21,09:33:04",10.1.1.9,591,-0.080,-0.080,-0.080,0.000,0.000,0.000
1640079184796025088,"2021-12-21,09:33:04",10.1.1.9,0.8509931564331055,-0.080,-0.080,-0.080,0.000,0.000,0.000
1640079185327414016,"2021-12-21,09:33:05",10.1.1.9,514,-0.070,-0.070,-0.070,0.000,0.000,0.000
1640079185491201024,"2021-12-21,09:33:05",10.1.1.9,0.6787419319152832,-0.070,-0.070,-0.070,0.000,0.000,0.000
1640079186354775808,"2021-12-21,09:33:06",10.1.1.9,681,-0.060,-0.060,-0.060,0.000,0.000,0.000
1640079186617582080,"2021-12-21,09:33:06",10.1.1.9,1.1209537982940674,-0.060,-0.060,-0.060,0.000,0.000,0.000
1640079187281167872,"2021-12-21,09:33:07",10.1.1.9,661,-0.050,-0.050,-0.050,0.000,0.000,0.000
1640079187353990144,"2021-12-21,09:33:07",10.1.1.9,0.7340919971466064,-0.050,-0.050,-0.050,0.000,0.000,0.000
1640079188373487104,"2021-12-21,09:33:08",10.1.1.9,976,-0.040,-0.040,-0.040,0.000,0.000,0.000
1640079188449112064,"2021-12-21,09:33:08",10.1.1.9,1.0521891117095947,-0.040,-0.040,-0.040,0.000,0.000,0.000
1640079188925103872,"2021-12-21,09:33:08",10.1.1.9,420,-0.030,-0.030,-0.030,0.000,0.000,0.000
1640079189203772928,"2021-12-21,09:33:09",10.1.1.9,0.6988310813903809,-0.030,-0.030,-0.030,0.000,0.000,0.000
1640079189891002880,"2021-12-21,09:33:09",10.1.1.9,677,-0.020,-0.020,-0.020,0.000,0.000,0.000
1640079189952264192,"2021-12-21,09:33:09",10.1.1.9,0.7460250854492188,-0.020,-0.020,-0.020,0.000,0.000,0.000
1640079190506181120,"2021-12-21,09:33:10",10.1.1.9,545,-0.010,-0.010,-0.010,0.000,0.000,0.000
1640079190688252928,"2021-12-21,09:33:10",10.1.1.9,0.7273080348968506,-0.010,-0.010,-0.010,0.000,0.000,0.000
1640079191509902848,"2021-12-21,09:33:11",10.1.1.9,0.820220947265625,0.000,0.000,0.000,0.000,0.000,0.000
1640079192149058048,"2021-12-21,09:33:12",10.1.1.9,624,-0.010,-0.010,-0.010,0.000,0.000,0.000
1640079192443376896,"2021-12-21,09:33:12",10.1.1.9,0.9190201759338379,-0.010,-0.010,-0.010,0.000,0.000,0.000
1640079193020569088,"2021-12-21,09:33:13",10.1.1.9,0.5665268898010254,-0.020,-0.020,-0.020,0.000,0.000,0.000
1640079192991975936,"2021-12-21,09:33:12",10.1.1.9,526,-0.020,-0.020,-0.020,0.000,0.000,0.000
1640079193748940032,"2021-12-21,09:33:13",10.1.1.9,716,-0.030,-0.030,-0.030,0.000,0.000,0.000
1640079193924640000,"2021-12-21,09:33:13",10.1.1.9,0.8922600746154785,-0.030,-0.030,-0.030,0.000,0.000,0.000
1640079194668936960,"2021-12-21,09:33:14",10.1.1.9,714,-0.040,-0.040,-0.040,0.000,0.000,0.000
1640079194737698048,"2021-12-21,09:33:14",10.1.1.9,0.7833330631256104,-0.040,-0.040,-0.040,0.000,0.000,0.000
1640079195251367168,"2021-12-21,09:33:15",10.1.1.9,507,-0.050,-0.050,-0.050,0.000,0.000,0.000
1640079195415972096,"2021-12-21,09:33:15",10.1.1.9,0.6767361164093018,-0.050,-0.050,-0.050,0.000,0.000,0.000
1640079195925892096,"2021-12-21,09:33:15",10.1.1.9,481,-0.060,-0.060,-0.060,0.000,0.000,0.000
1640079196163724032,"2021-12-21,09:33:16",10.1.1.9,0.71905517578125,-0.060,-0.060,-0.060,0.000,0.000,0.000
1640079196791088128,"2021-12-21,09:33:16",10.1.1.9,622,-0.070,-0.070,-0.070,0.000,0.000,0.000
1640079196963154176,"2021-12-21,09:33:16",10.1.1.9,0.7950417995452881,-0.070,-0.070,-0.070,0.000,0.000,0.000
1640079197640836864,"2021-12-21,09:33:17",10.1.1.9,637,-0.080,-0.080,-0.080,0.000,0.000,0.000
1640079197805902080,"2021-12-21,09:33:17",10.1.1.9,0.8035521507263184,-0.080,-0.080,-0.080,0.000,0.000,0.000
1640079198275100928,"2021-12-21,09:33:18",10.1.1.9,450,-0.090,-0.090,-0.090,0.000,0.000,0.000
1640079198380822784,"2021-12-21,09:33:18",10.1.1.9,0.5558860301971436,-0.090,-0.090,-0.090,0.000,0.000,0.000
1640079198845336064,"2021-12-21,09:33:18",10.1.1.9,453,-0.100,-0.100,-0.100,0.000,0.000,0.000
1640079198906514944,"2021-12-21,09:33:18",10.1.1.9,0.5151209831237793,-0.100,-0.100,-0.100,0.000,0.000,0.000
1640079199556588032,"2021-12-21,09:33:19",10.1.1.9,630,-0.110,-0.110,-0.110,0.000,0.000,0.000
1640079199725646080,"2021-12-21,09:33:19",10.1.1.9,0.799299955368042,-0.110,-0.110,-0.110,0.000,0.000,0.000
1640079200394612992,"2021-12-21,09:33:20",10.1.1.9,640,-0.120,-0.120,-0.120,0.000,0.000,0.000
1640079200465431808,"2021-12-21,09:33:20",10.1.1.9,0.711296796798706,-0.120,-0.120,-0.120,0.000,0.000,0.000
1640079201101847040,"2021-12-21,09:33:21",10.1.1.9,601,-0.130,-0.130,-0.130,0.000,0.000,0.000
1640079201428247808,"2021-12-21,09:33:21",10.1.1.9,0.9605510234832764,-0.130,-0.130,-0.130,0.000,0.000,0.000
1640079202046010880,"2021-12-21,09:33:22",10.1.1.9,614,-0.140,-0.140,-0.140,0.000,0.000,0.000
1640079202165501952,"2021-12-21,09:33:22",10.1.1.9,0.7338769435882568,-0.140,-0.140,-0.140,0.000,0.000,0.000
1640079202785118208,"2021-12-21,09:33:22",10.1.1.9,588,-0.150,-0.150,-0.150,0.000,0.000,0.000
1640079202894640896,"2021-12-21,09:33:22",10.1.1.9,0.6950361728668213,-0.150,-0.150,-0.150,0.000,0.000,0.000
1640079203560001024,"2021-12-21,09:33:23",10.1.1.9,658,-0.160,-0.160,-0.160,0.000,0.000,0.000
1640079203714258944,"2021-12-21,09:33:23",10.1.1.9,0.817425012588501,-0.160,-0.160,-0.160,0.000,0.000,0.000
1640079204396699904,"2021-12-21,09:33:24",10.1.1.9,644,-0.170,-0.170,-0.170,0.000,0.000,0.000
1640079204546649856,"2021-12-21,09:33:24",10.1.1.9,0.7948470115661621,-0.170,-0.170,-0.170,0.000,0.000,0.000
1640079205200700928,"2021-12-21,09:33:25",10.1.1.9,651,-0.180,-0.180,-0.180,0.000,0.000,0.000
1640079205257026048,"2021-12-21,09:33:25",10.1.1.9,0.7078731060028076,-0.180,-0.180,-0.180,0.000,0.000,0.000
1640079205945715968,"2021-12-21,09:33:25",10.1.1.9,628,-0.190,-0.190,-0.190,0.000,0.000,0.000
1640079206057943040,"2021-12-21,09:33:26",10.1.1.9,0.7596340179443359,-0.190,-0.190,-0.190,0.000,0.000,0.000
1640079206670646016,"2021-12-21,09:33:26",10.1.1.9,585,-0.200,-0.200,-0.200,0.000,0.000,0.000
1640079206872689920,"2021-12-21,09:33:26",10.1.1.9,0.7913680076599121,-0.200,-0.200,-0.200,0.000,0.000,0.000
1640079207435222016,"2021-12-21,09:33:27",10.1.1.9,536,-0.210,-0.210,-0.210,0.000,0.000,0.000
1640079207696979968,"2021-12-21,09:33:27",10.1.1.9,0.7984678745269775,-0.210,-0.210,-0.210,0.000,0.000,0.000
1640079208751112960,"2021-12-21,09:33:28",10.1.1.9,1048,-0.220,-0.220,-0.220,0.000,0.000,0.000
1640079208804461056,"2021-12-21,09:33:28",10.1.1.9,1.1017940044403076,-0.220,-0.220,-0.220,0.000,0.000,0.000
1640079209338917120,"2021-12-21,09:33:29",10.1.1.9,518,-0.230,-0.230,-0.230,0.000,0.000,0.000
1640079209410403840,"2021-12-21,09:33:29",10.1.1.9,0.6039109230041504,-0.230,-0.230,-0.230,0.000,0.000,0.000
1640079210005650944,"2021-12-21,09:33:30",10.1.1.9,583,-0.240,-0.240,-0.240,0.000,0.000,0.000
1640079210116241920,"2021-12-21,09:33:30",10.1.1.9,0.6966550350189209,-0.240,-0.240,-0.240,0.000,0.000,0.000
1640079210641777152,"2021-12-21,09:33:30",10.1.1.9,478,-0.250,-0.250,-0.250,0.000,0.000,0.000
1640079210721172992,"2021-12-21,09:33:30",10.1.1.9,0.5582149028778076,-0.250,-0.250,-0.250,0.000,0.000,0.000
1640079211415534848,"2021-12-21,09:33:31",10.1.1.9,688,-0.260,-0.260,-0.260,0.000,0.000,0.000
1640079211606398976,"2021-12-21,09:33:31",10.1.1.9,0.8793890476226807,-0.260,-0.260,-0.260,0.000,0.000,0.000
1640079212169487872,"2021-12-21,09:33:32",10.1.1.9,551,-0.270,-0.270,-0.270,0.000,0.000,0.000
1640079212352699136,"2021-12-21,09:33:32",10.1.1.9,0.7347440719604492,-0.270,-0.270,-0.270,0.000,0.000,0.000
1640079213171345920,"2021-12-21,09:33:33",10.1.1.9,816,-0.280,-0.280,-0.280,0.000,0.000,0.000
1640079213201227776,"2021-12-21,09:33:33",10.1.1.9,0.8457438945770264,-0.280,-0.280,-0.280,0.000,0.000,0.000
1640079213892923136,"2021-12-21,09:33:33",10.1.1.9,647,-0.290,-0.290,-0.290,0.000,0.000,0.000
1640079214031011072,"2021-12-21,09:33:34",10.1.1.9,0.7851901054382324,-0.290,-0.290,-0.290,0.000,0.000,0.000
1640079214605499904,"2021-12-21,09:33:34",10.1.1.9,569,-0.300,-0.300,-0.300,0.000,0.000,0.000
1640079214811101952,"2021-12-21,09:33:34",10.1.1.9,0.7753710746765137,-0.300,-0.300,-0.300,0.000,0.000,0.000
1640079215443224064,"2021-12-21,09:33:35",10.1.1.9,630,-0.310,-0.310,-0.310,0.000,0.000,0.000
1640079215614001920,"2021-12-21,09:33:35",10.1.1.9,0.8013930320739746,-0.310,-0.310,-0.310,0.000,0.000,0.000
1640079216141412864,"2021-12-21,09:33:36",10.1.1.9,521,-0.320,-0.320,-0.320,0.000,0.000,0.000
1640079216487549952,"2021-12-21,09:33:36",10.1.1.9,0.8686869144439697,-0.320,-0.320,-0.320,0.000,0.000,0.000
1640079216983421952,"2021-12-21,09:33:36",10.1.1.9,493,-0.330,-0.330,-0.330,0.000,0.000,0.000
1640079217160795904,"2021-12-21,09:33:37",10.1.1.9,0.6711158752441406,-0.330,-0.330,-0.330,0.000,0.000,0.000
1640079217850828032,"2021-12-21,09:33:37",10.1.1.9,640,-0.340,-0.340,-0.340,0.000,0.000,0.000
1640079217893421824,"2021-12-21,09:33:37",10.1.1.9,0.7280440330505371,-0.340,-0.340,-0.340,0.000,0.000,0.000
1640079218503122176,"2021-12-21,09:33:38",10.1.1.9,601,-0.350,-0.350,-0.350,0.000,0.000,0.000
1640079218714842112,"2021-12-21,09:33:38",10.1.1.9,0.7986180782318115,-0.350,-0.350,-0.350,0.000,0.000,0.000
1640079219244776960,"2021-12-21,09:33:39",10.1.1.9,525,-0.360,-0.360,-0.360,0.000,0.000,0.000
1640079219410286848,"2021-12-21,09:33:39",10.1.1.9,0.6907858848571777,-0.360,-0.360,-0.360,0.000,0.000,0.000
1640079220162332928,"2021-12-21,09:33:40",10.1.1.9,746,-0.370,-0.370,-0.370,0.000,0.000,0.000
1640079220227513088,"2021-12-21,09:33:40",10.1.1.9,0.8114869594573975,-0.370,-0.370,-0.370,0.000,0.000,0.000
1640079220978339072,"2021-12-21,09:33:40",10.1.1.9,697,-0.380,-0.380,-0.380,0.000,0.000,0.000
1640079221196798976,"2021-12-21,09:33:41",10.1.1.9,0.9163558483123779,-0.380,-0.380,-0.380,0.000,0.000,0.000
1640079221822384128,"2021-12-21,09:33:41",10.1.1.9,0.619035005569458,-0.390,-0.390,-0.390,0.000,0.000,0.000
1640079222357396992,"2021-12-21,09:33:42",10.1.1.9,521,-0.400,-0.400,-0.400,0.000,0.000,0.000
1640079222469969152,"2021-12-21,09:33:42",10.1.1.9,0.6335480213165283,-0.400,-0.400,-0.400,0.000,0.000,0.000
1640079223092366080,"2021-12-21,09:33:43",10.1.1.9,584,-0.410,-0.410,-0.410,0.000,0.000,0.000
1640079223265105920,"2021-12-21,09:33:43",10.1.1.9,0.7571849822998047,-0.410,-0.410,-0.410,0.000,0.000,0.000
1640079223789357824,"2021-12-21,09:33:43",10.1.1.9,522,-0.420,-0.420,-0.420,0.000,0.000,0.000
1640079224004756992,"2021-12-21,09:33:44",10.1.1.9,0.7378408908843994,-0.420,-0.420,-0.420,0.000,0.000,0.000
1640079224589634048,"2021-12-21,09:33:44",10.1.1.9,577,-0.430,-0.430,-0.430,0.000,0.000,0.000
1640079224724344064,"2021-12-21,09:33:44",10.1.1.9,0.7043120861053467,-0.430,-0.430,-0.430,0.000,0.000,0.000
1640079225248871168,"2021-12-21,09:33:45",10.1.1.9,507,-0.440,-0.440,-0.440,0.000,0.000,0.000
1640079225344388096,"2021-12-21,09:33:45",10.1.1.9,0.6030938625335693,-0.440,-0.440,-0.440,0.000,0.000,0.000
1640079225888468992,"2021-12-21,09:33:45",10.1.1.9,542,-0.450,-0.450,-0.450,0.000,0.000,0.000
1640079226104125952,"2021-12-21,09:33:46",10.1.1.9,0.7581379413604736,-0.450,-0.450,-0.450,0.000,0.000,0.000
1640079226904814080,"2021-12-21,09:33:46",10.1.1.9,0.7924818992614746,-0.460,-0.460,-0.460,0.000,0.000,0.000
1640079227612731904,"2021-12-21,09:33:47",10.1.1.9,677,-0.470,-0.470,-0.470,0.000,0.000,0.000
1640079227768403968,"2021-12-21,09:33:47",10.1.1.9,0.8329341411590576,-0.470,-0.470,-0.470,0.000,0.000,0.000
1640079228367811072,"2021-12-21,09:33:48",10.1.1.9,588,-0.480,-0.480,-0.480,0.000,0.000,0.000
1640079228375629056,"2021-12-21,09:33:48",10.1.1.9,0.596013069152832,-0.480,-0.480,-0.480,0.000,0.000,0.000
1640079229001435136,"2021-12-21,09:33:49",10.1.1.9,622,-0.490,-0.490,-0.490,0.000,0.000,0.000
1640079229108678144,"2021-12-21,09:33:49",10.1.1.9,0.7297041416168213,-0.490,-0.490,-0.490,0.000,0.000,0.000
1640079229672688896,"2021-12-21,09:33:49",10.1.1.9,557,-0.480,-0.480,-0.480,0.000,0.000,0.000
1640079229863475968,"2021-12-21,09:33:49",10.1.1.9,0.747877836227417,-0.480,-0.480,-0.480,0.000,0.000,0.000
1640079230431709952,"2021-12-21,09:33:50",10.1.1.9,546,-0.470,-0.470,-0.470,0.000,0.000,0.000
1640079230596094976,"2021-12-21,09:33:50",10.1.1.9,0.7112879753112793,-0.470,-0.470,-0.470,0.000,0.000,0.000
1640079231121215232,"2021-12-21,09:33:51",10.1.1.9,518,-0.460,-0.460,-0.460,0.000,0.000,0.000
1640079231219710976,"2021-12-21,09:33:51",10.1.1.9,0.6173222064971924,-0.460,-0.460,-0.460,0.000,0.000,0.000
1640079231776348160,"2021-12-21,09:33:51",10.1.1.9,554,-0.450,-0.450,-0.450,0.000,0.000,0.000
1640079231991305984,"2021-12-21,09:33:51",10.1.1.9,0.7691268920898438,-0.450,-0.450,-0.450,0.000,0.000,0.000
1640079232684197888,"2021-12-21,09:33:52",10.1.1.9,688,-0.440,-0.440,-0.440,0.000,0.000,0.000
1640079232907303168,"2021-12-21,09:33:52",10.1.1.9,0.8947629928588867,-0.440,-0.440,-0.440,0.000,0.000,0.000
1640079233549593856,"2021-12-21,09:33:53",10.1.1.9,617,-0.430,-0.430,-0.430,0.000,0.000,0.000
1640079233697670912,"2021-12-21,09:33:53",10.1.1.9,0.7658810615539551,-0.430,-0.430,-0.430,0.000,0.000,0.000
1640079234401956096,"2021-12-21,09:33:54",10.1.1.9,682,-0.420,-0.420,-0.420,0.000,0.000,0.000
1640079234623516928,"2021-12-21,09:33:54",10.1.1.9,0.9038538932800293,-0.420,-0.420,-0.420,0.000,0.000,0.000
1640079235230246912,"2021-12-21,09:33:55",10.1.1.9,554,-0.410,-0.410,-0.410,0.000,0.000,0.000
1640079235402801920,"2021-12-21,09:33:55",10.1.1.9,0.7273061275482178,-0.410,-0.410,-0.410,0.000,0.000,0.000
1640079236076147968,"2021-12-21,09:33:56",10.1.1.9,660,-0.400,-0.400,-0.400,0.000,0.000,0.000
1640079236212677888,"2021-12-21,09:33:56",10.1.1.9,0.7979230880737305,-0.400,-0.400,-0.400,0.000,0.000,0.000
1640079236917430016,"2021-12-21,09:33:56",10.1.1.9,701,-0.390,-0.390,-0.390,0.000,0.000,0.000
1640079237021409024,"2021-12-21,09:33:57",10.1.1.9,0.8069150447845459,-0.390,-0.390,-0.390,0.000,0.000,0.000
1640079237524645120,"2021-12-21,09:33:57",10.1.1.9,501,-0.380,-0.380,-0.380,0.000,0.000,0.000
1640079237811383040,"2021-12-21,09:33:57",10.1.1.9,0.7883479595184326,-0.380,-0.380,-0.380,0.000,0.000,0.000
1640079238650942976,"2021-12-21,09:33:58",10.1.1.9,776,-0.370,-0.370,-0.370,0.000,0.000,0.000
1640079238776649984,"2021-12-21,09:33:58",10.1.1.9,0.9636659622192383,-0.370,-0.370,-0.370,0.000,0.000,0.000
1640079239404685056,"2021-12-21,09:33:59",10.1.1.9,626,-0.360,-0.360,-0.360,0.000,0.000,0.000
1640079239506547968,"2021-12-21,09:33:59",10.1.1.9,0.7282319068908691,-0.360,-0.360,-0.360,0.000,0.000,0.000
1640079240192111872,"2021-12-21,09:34:00",10.1.1.9,676,-0.350,-0.350,-0.350,0.000,0.000,0.000
1640079240583853056,"2021-12-21,09:34:00",10.1.1.9,1.0679500102996826,-0.350,-0.350,-0.350,0.000,0.000,0.000
1640079241087061760,"2021-12-21,09:34:01",10.1.1.9,485,-0.340,-0.340,-0.340,0.000,0.000,0.000
1640079241208865024,"2021-12-21,09:34:01",10.1.1.9,0.6074860095977783,-0.340,-0.340,-0.340,0.000,0.000,0.000
1640079241841732096,"2021-12-21,09:34:01",10.1.1.9,631,-0.330,-0.330,-0.330,0.000,0.000,0.000
1640079241906699776,"2021-12-21,09:34:01",10.1.1.9,0.6964271068572998,-0.330,-0.330,-0.330,0.000,0.000,0.000
1640079242423571968,"2021-12-21,09:34:02",10.1.1.9,508,-0.320,-0.320,-0.320,0.000,0.000,0.000
1640079242558064896,"2021-12-21,09:34:02",10.1.1.9,0.6430971622467041,-0.320,-0.320,-0.320,0.000,0.000,0.000
1640079243327169024,"2021-12-21,09:34:03",10.1.1.9,708,-0.310,-0.310,-0.310,0.000,0.000,0.000
1640079243462498816,"2021-12-21,09:34:03",10.1.1.9,0.8396098613739014,-0.310,-0.310,-0.310,0.000,0.000,0.000
1640079244086682112,"2021-12-21,09:34:04",10.1.1.9,614,-0.300,-0.300,-0.300,0.000,0.000,0.000
1640079244175136000,"2021-12-21,09:34:04",10.1.1.9,0.702733039855957,-0.300,-0.300,-0.300,0.000,0.000,0.000
1640079244650310912,"2021-12-21,09:34:04",10.1.1.9,459,-0.290,-0.290,-0.290,0.000,0.000,0.000
1640079244767517184,"2021-12-21,09:34:04",10.1.1.9,0.5772130489349365,-0.290,-0.290,-0.290,0.000,0.000,0.000
1640079245280216832,"2021-12-21,09:34:05",10.1.1.9,501,-0.280,-0.280,-0.280,0.000,0.000,0.000
1640079245465419008,"2021-12-21,09:34:05",10.1.1.9,0.6866390705108643,-0.280,-0.280,-0.280,0.000,0.000,0.000
1640079245938786048,"2021-12-21,09:34:05",10.1.1.9,472,-0.270,-0.270,-0.270,0.000,0.000,0.000
1640079246207813888,"2021-12-21,09:34:06",10.1.1.9,0.7411229610443115,-0.270,-0.270,-0.270,0.000,0.000,0.000
1640079246758173952,"2021-12-21,09:34:06",10.1.1.9,536,-0.260,-0.260,-0.260,0.000,0.000,0.000
1640079247177373952,"2021-12-21,09:34:07",10.1.1.9,0.9557030200958252,-0.260,-0.260,-0.260,0.000,0.000,0.000
1640079247790457088,"2021-12-21,09:34:07",10.1.1.9,605,-0.250,-0.250,-0.250,0.000,0.000,0.000
1640079248057265152,"2021-12-21,09:34:08",10.1.1.9,0.872096061706543,-0.250,-0.250,-0.250,0.000,0.000,0.000
1640079248185480192,"2021-12-21,09:34:08",10.1.1.9,-18,-0.240,-0.240,-0.240,0.000,0.000,0.000
1640079249099984896,"2021-12-21,09:34:09",10.1.1.9,0.990077018737793,-0.240,-0.240,-0.240,0.000,0.000,0.000
1640079249727035136,"2021-12-21,09:34:09",10.1.1.9,599,-0.230,-0.230,-0.230,0.000,0.000,0.000
1640079249854077184,"2021-12-21,09:34:09",10.1.1.9,0.7262799739837646,-0.230,-0.230,-0.230,0.000,0.000,0.000
1640079250797677056,"2021-12-21,09:34:10",10.1.1.9,0.8775970935821533,-0.220,-0.220,-0.220,0.000,0.000,0.000
1640079250827518976,"2021-12-21,09:34:10",10.1.1.9,825,-0.210,-0.210,-0.210,0.000,0.000,0.000
1640079251293612032,"2021-12-21,09:34:11",10.1.1.9,476,-0.210,-0.210,-0.210,0.000,0.000,0.000
1640079251402842880,"2021-12-21,09:34:11",10.1.1.9,0.58201003074646,-0.210,-0.210,-0.210,0.000,0.000,0.000
1640079252065340160,"2021-12-21,09:34:12",10.1.1.9,659,-0.200,-0.200,-0.200,0.000,0.000,0.000
1640079252374031104,"2021-12-21,09:34:12",10.1.1.9,0.968731164932251,-0.200,-0.200,-0.200,0.000,0.000,0.000
1640079252990978048,"2021-12-21,09:34:12",10.1.1.9,610,-0.190,-0.190,-0.190,0.000,0.000,0.000
1640079253203672832,"2021-12-21,09:34:13",10.1.1.9,0.8230130672454834,-0.190,-0.190,-0.190,0.000,0.000,0.000
1640079253793505024,"2021-12-21,09:34:13",10.1.1.9,588,-0.180,-0.180,-0.180,0.000,0.000,0.000
1640079253968679936,"2021-12-21,09:34:13",10.1.1.9,0.7634139060974121,-0.180,-0.180,-0.180,0.000,0.000,0.000
1640079254740217856,"2021-12-21,09:34:14",10.1.1.9,719,-0.170,-0.170,-0.170,0.000,0.000,0.000
1640079254938121984,"2021-12-21,09:34:14",10.1.1.9,0.9178009033203125,-0.170,-0.170,-0.170,0.000,0.000,0.000
1640079255516596992,"2021-12-21,09:34:15",10.1.1.9,568,-0.160,-0.160,-0.160,0.000,0.000,0.000
1640079255660052992,"2021-12-21,09:34:15",10.1.1.9,0.7116448879241943,-0.160,-0.160,-0.160,0.000,0.000,0.000
1640079256232691968,"2021-12-21,09:34:16",10.1.1.9,557,-0.150,-0.150,-0.150,0.000,0.000,0.000
1640079256384141824,"2021-12-21,09:34:16",10.1.1.9,0.7088871002197266,-0.150,-0.150,-0.150,0.000,0.000,0.000
1640079257128942848,"2021-12-21,09:34:17",10.1.1.9,714,-0.140,-0.140,-0.140,0.000,0.000,0.000
1640079257159224064,"2021-12-21,09:34:17",10.1.1.9,0.7452981472015381,-0.140,-0.140,-0.140,0.000,0.000,0.000
1640079257725960960,"2021-12-21,09:34:17",10.1.1.9,561,-0.130,-0.130,-0.130,0.000,0.000,0.000
1640079257772947200,"2021-12-21,09:34:17",10.1.1.9,0.6086690425872803,-0.130,-0.130,-0.130,0.000,0.000,0.000
1640079258233102080,"2021-12-21,09:34:18",10.1.1.9,440,-0.120,-0.120,-0.120,0.000,0.000,0.000
1640079258504225024,"2021-12-21,09:34:18",10.1.1.9,0.7113471031188965,-0.120,-0.120,-0.120,0.000,0.000,0.000
1640079259084840960,"2021-12-21,09:34:19",10.1.1.9,578,-0.110,-0.110,-0.110,0.000,0.000,0.000
1640079259315736064,"2021-12-21,09:34:19",10.1.1.9,0.8096151351928711,-0.110,-0.110,-0.110,0.000,0.000,0.000
1640079259787558912,"2021-12-21,09:34:19",10.1.1.9,462,-0.100,-0.100,-0.100,0.000,0.000,0.000
1640079259988936960,"2021-12-21,09:34:19",10.1.1.9,0.6645588874816895,-0.100,-0.100,-0.100,0.000,0.000,0.000
1640079260630494208,"2021-12-21,09:34:20",10.1.1.9,638,-0.090,-0.090,-0.090,0.000,0.000,0.000
1640079260757009152,"2021-12-21,09:34:20",10.1.1.9,0.7656910419464111,-0.090,-0.090,-0.090,0.000,0.000,0.000
1640079261490156800,"2021-12-21,09:34:21",10.1.1.9,670,-0.080,-0.080,-0.080,0.000,0.000,0.000
1640079261760366080,"2021-12-21,09:34:21",10.1.1.9,0.9406740665435791,-0.080,-0.080,-0.080,0.000,0.000,0.000
1640079262602771968,"2021-12-21,09:34:22",10.1.1.9,833,-0.070,-0.070,-0.070,0.000,0.000,0.000
1640079262737780992,"2021-12-21,09:34:22",10.1.1.9,0.9758939743041992,-0.070,-0.070,-0.070,0.000,0.000,0.000
1640079263429863936,"2021-12-21,09:34:23",10.1.1.9,688,-0.060,-0.060,-0.060,0.000,0.000,0.000
1640079263802297088,"2021-12-21,09:34:23",10.1.1.9,1.0614781379699707,-0.060,-0.060,-0.060,0.000,0.000,0.000
1640079264714544896,"2021-12-21,09:34:24",10.1.1.9,870,-0.050,-0.050,-0.050,0.000,0.000,0.000
1640079264968813824,"2021-12-21,09:34:24",10.1.1.9,1.1249349117279053,-0.050,-0.050,-0.050,0.000,0.000,0.000
1640079265522848000,"2021-12-21,09:34:25",10.1.1.9,549,-0.040,-0.040,-0.040,0.000,0.000,0.000
1640079265790308096,"2021-12-21,09:34:25",10.1.1.9,0.8171398639678955,-0.040,-0.040,-0.040,0.000,0.000,0.000
1640079266522046976,"2021-12-21,09:34:26",10.1.1.9,723,-0.030,-0.030,-0.030,0.000,0.000,0.000
1640079266701338112,"2021-12-21,09:34:26",10.1.1.9,0.9088799953460693,-0.030,-0.030,-0.030,0.000,0.000,0.000
1640079267495244032,"2021-12-21,09:34:27",10.1.1.9,789,-0.020,-0.020,-0.020,0.000,0.000,0.000
1640079267685401088,"2021-12-21,09:34:27",10.1.1.9,0.9795041084289551,-0.020,-0.020,-0.020,0.000,0.000,0.000
1640079268321188864,"2021-12-21,09:34:28",10.1.1.9,634,-0.010,-0.010,-0.010,0.000,0.000,0.000
1640079268444114944,"2021-12-21,09:34:28",10.1.1.9,0.7571151256561279,-0.010,-0.010,-0.010,0.000,0.000,0.000
1640079269224025856,"2021-12-21,09:34:29",10.1.1.9,684,0.000,0.000,0.000,0.000,0.000,0.000
1640079269365093120,"2021-12-21,09:34:29",10.1.1.9,0.8256871700286865,0.000,0.000,0.000,0.000,0.000,0.000
1640079270112749056,"2021-12-21,09:34:30",10.1.1.9,734,-0.010,-0.010,-0.010,0.000,0.000,0.000
1640079270276534016,"2021-12-21,09:34:30",10.1.1.9,0.8989529609680176,-0.010,-0.010,-0.010,0.000,0.000,0.000
1640079270761070080,"2021-12-21,09:34:30",10.1.1.9,413,-0.020,-0.020,-0.020,0.000,0.000,0.000
1640079271028687104,"2021-12-21,09:34:31",10.1.1.9,0.6806299686431885,-0.020,-0.020,-0.020,0.000,0.000,0.000
1640079271732402176,"2021-12-21,09:34:31",10.1.1.9,669,-0.030,-0.030,-0.030,0.000,0.000,0.000
1640079271819644928,"2021-12-21,09:34:31",10.1.1.9,0.7571330070495605,-0.030,-0.030,-0.030,0.000,0.000,0.000
1640079272534234880,"2021-12-21,09:34:32",10.1.1.9,706,-0.040,-0.040,-0.040,0.000,0.000,0.000
1640079272777414912,"2021-12-21,09:34:32",10.1.1.9,0.9501738548278809,-0.040,-0.040,-0.040,0.000,0.000,0.000
1640079273395117056,"2021-12-21,09:34:33",10.1.1.9,616,-0.050,-0.050,-0.050,0.000,0.000,0.000
1640079273654063872,"2021-12-21,09:34:33",10.1.1.9,0.875154972076416,-0.050,-0.050,-0.050,0.000,0.000,0.000
1640079274229233920,"2021-12-21,09:34:34",10.1.1.9,558,-0.060,-0.060,-0.060,0.000,0.000,0.000
1640079274540102912,"2021-12-21,09:34:34",10.1.1.9,0.8691470623016357,-0.060,-0.060,-0.060,0.000,0.000,0.000
1640079275097735936,"2021-12-21,09:34:35",10.1.1.9,547,-0.070,-0.070,-0.070,0.000,0.000,0.000
1640079275439150080,"2021-12-21,09:34:35",10.1.1.9,0.8890888690948486,-0.070,-0.070,-0.070,0.000,0.000,0.000
1640079276192132096,"2021-12-21,09:34:35",10.1.1.9,490,-0.080,-0.080,-0.080,0.000,0.000,0.000
1640079276328474112,"2021-12-21,09:34:36",10.1.1.9,0.8704938888549805,-0.080,-0.080,-0.080,0.000,0.000,0.000
1640079277136143872,"2021-12-21,09:34:37",10.1.1.9,779,-0.090,-0.090,-0.090,0.000,0.000,0.000
1640079277317325056,"2021-12-21,09:34:37",10.1.1.9,0.9611368179321289,-0.090,-0.090,-0.090,0.000,0.000,0.000
1640079277828807168,"2021-12-21,09:34:37",10.1.1.9,466,-0.100,-0.100,-0.100,0.000,0.000,0.000
1640079278016401152,"2021-12-21,09:34:38",10.1.1.9,0.654062032699585,-0.100,-0.100,-0.100,0.000,0.000,0.000
1640079278642110976,"2021-12-21,09:34:38",10.1.1.9,622,-0.110,-0.110,-0.110,0.000,0.000,0.000
1640079278739291904,"2021-12-21,09:34:38",10.1.1.9,0.7195489406585693,-0.110,-0.110,-0.110,0.000,0.000,0.000
1640079279241064960,"2021-12-21,09:34:39",10.1.1.9,494,-0.120,-0.120,-0.120,0.000,0.000,0.000
1640079279424308992,"2021-12-21,09:34:39",10.1.1.9,0.6780619621276855,-0.120,-0.120,-0.120,0.000,0.000,0.000
1640079280028555008,"2021-12-21,09:34:40",10.1.1.9,602,-0.130,-0.130,-0.130,0.000,0.000,0.000
1640079280155087104,"2021-12-21,09:34:40",10.1.1.9,0.7214679718017578,-0.130,-0.130,-0.130,0.000,0.000,0.000
1640079280708785152,"2021-12-21,09:34:40",10.1.1.9,538,-0.140,-0.140,-0.140,0.000,0.000,0.000
1640079280744422912,"2021-12-21,09:34:40",10.1.1.9,0.5739459991455078,-0.140,-0.140,-0.140,0.000,0.000,0.000
1640079281334147072,"2021-12-21,09:34:41",10.1.1.9,550,-0.150,-0.150,-0.150,0.000,0.000,0.000
1640079281609590016,"2021-12-21,09:34:41",10.1.1.9,0.8252010345458984,-0.150,-0.150,-0.150,0.000,0.000,0.000
1640079282391302144,"2021-12-21,09:34:42",10.1.1.9,778,-0.160,-0.160,-0.160,0.000,0.000,0.000
1640079282503934976,"2021-12-21,09:34:42",10.1.1.9,0.8909511566162109,-0.160,-0.160,-0.160,0.000,0.000,0.000
1640079283151504128,"2021-12-21,09:34:43",10.1.1.9,645,-0.170,-0.170,-0.170,0.000,0.000,0.000
1640079283266813952,"2021-12-21,09:34:43",10.1.1.9,0.760883092880249,-0.170,-0.170,-0.170,0.000,0.000,0.000
1640079283819976960,"2021-12-21,09:34:43",10.1.1.9,550,-0.180,-0.180,-0.180,0.000,0.000,0.000
1640079283934313984,"2021-12-21,09:34:43",10.1.1.9,0.6647400856018066,-0.180,-0.180,-0.180,0.000,0.000,0.000
1640079284570491904,"2021-12-21,09:34:44",10.1.1.9,625,-0.190,-0.190,-0.190,0.000,0.000,0.000
1640079284837403136,"2021-12-21,09:34:44",10.1.1.9,0.897982120513916,-0.190,-0.190,-0.190,0.000,0.000,0.000
1640079285538163968,"2021-12-21,09:34:45",10.1.1.9,653,-0.200,-0.200,-0.200,0.000,0.000,0.000
1640079285832817920,"2021-12-21,09:34:45",10.1.1.9,0.9485712051391602,-0.200,-0.200,-0.200,0.000,0.000,0.000
1640079287215264000,"2021-12-21,09:34:46",10.1.1.9,666,-0.210,-0.210,-0.210,0.000,0.000,0.000
1640079287407407872,"2021-12-21,09:34:47",10.1.1.9,1.479114055633545,-0.210,-0.210,-0.210,0.000,0.000,0.000
1640079290786685952,"2021-12-21,09:34:48",10.1.1.9,744,-0.220,-0.220,-0.220,0.000,0.000,0.000
1640079294310488832,"2021-12-21,09:34:53",10.1.1.9,6.061774015426636,-0.220,-0.220,-0.220,0.000,0.000,0.000
1640079295837775872,"2021-12-21,09:34:55",10.1.1.9,1408,-0.230,-0.230,-0.230,0.000,0.000,0.000
1640079295953139968,"2021-12-21,09:34:55",10.1.1.9,1.5009078979492188,-0.230,-0.230,-0.230,0.000,0.000,0.000
1640079297704359936,"2021-12-21,09:34:57",10.1.1.9,1627,-0.240,-0.240,-0.240,0.000,0.000,0.000
1640079298140891904,"2021-12-21,09:34:58",10.1.1.9,1.996199131011963,-0.240,-0.240,-0.240,0.000,0.000,0.000
1640079298810054912,"2021-12-21,09:34:58",10.1.1.9,667,-0.250,-0.250,-0.250,0.000,0.000,0.000
1640079299088165888,"2021-12-21,09:34:59",10.1.1.9,0.9458858966827393,-0.250,-0.250,-0.250,0.000,0.000,0.000
1640079299572092928,"2021-12-21,09:34:59",10.1.1.9,479,-0.260,-0.260,-0.260,0.000,0.000,0.000
1640079300317236992,"2021-12-21,09:35:00",10.1.1.9,1.0061049461364746,-0.260,-0.260,-0.260,0.000,0.000,0.000
1640079300953899008,"2021-12-21,09:35:00",10.1.1.9,575,-0.270,-0.270,-0.270,0.000,0.000,0.000
1640079301413090048,"2021-12-21,09:35:01",10.1.1.9,1.0618581771850586,-0.270,-0.270,-0.270,0.000,0.000,0.000
1640079302299921920,"2021-12-21,09:35:02",10.1.1.9,743,-0.280,-0.280,-0.280,0.000,0.000,0.000
1640079303016503040,"2021-12-21,09:35:03",10.1.1.9,1.5862290859222412,-0.280,-0.280,-0.280,0.000,0.000,0.000
1640079305724299008,"2021-12-21,09:35:03",10.1.1.9,915,-0.290,-0.290,-0.290,0.000,0.000,0.000
1640079306016366848,"2021-12-21,09:35:06",10.1.1.9,2.948538064956665,-0.290,-0.290,-0.290,0.000,0.000,0.000
1640079306039122176,"2021-12-21,09:35:06",10.1.1.9,-2,-0.300,-0.300,-0.300,0.000,0.000,0.000
1640079307645339904,"2021-12-21,09:35:07",10.1.1.9,1.6276581287384033,-0.300,-0.300,-0.300,0.000,0.000,0.000
1640079308449656064,"2021-12-21,09:35:08",10.1.1.9,747,-0.310,-0.310,-0.310,0.000,0.000,0.000
1640079308960253952,"2021-12-21,09:35:08",10.1.1.9,1.3042068481445312,-0.310,-0.310,-0.310,0.000,0.000,0.000
1640079309596968960,"2021-12-21,09:35:09",10.1.1.9,617,-0.320,-0.320,-0.320,0.000,0.000,0.000
1640079309707884032,"2021-12-21,09:35:09",10.1.1.9,0.7354271411895752,-0.320,-0.320,-0.320,0.000,0.000,0.000
1640079310248344064,"2021-12-21,09:35:10",10.1.1.9,538,-0.330,-0.330,-0.330,0.000,0.000,0.000
1640079310940700160,"2021-12-21,09:35:10",10.1.1.9,1.2303719520568848,-0.330,-0.330,-0.330,0.000,0.000,0.000
1640079312186355968,"2021-12-21,09:35:12",10.1.1.9,1076,-0.340,-0.340,-0.340,0.000,0.000,0.000
1640079312319420160,"2021-12-21,09:35:12",10.1.1.9,1.2829151153564453,-0.340,-0.340,-0.340,0.000,0.000,0.000
1640079313312345856,"2021-12-21,09:35:13",10.1.1.9,965,-0.350,-0.350,-0.350,0.000,0.000,0.000
1640079313919489024,"2021-12-21,09:35:13",10.1.1.9,1.5724351406097412,-0.350,-0.350,-0.350,0.000,0.000,0.000
1640079315023149056,"2021-12-21,09:35:15",10.1.1.9,1101,-0.360,-0.360,-0.360,0.000,0.000,0.000
1640079315243781120,"2021-12-21,09:35:15",10.1.1.9,1.3226211071014404,-0.360,-0.360,-0.360,0.000,0.000,0.000
1640079316014920960,"2021-12-21,09:35:16",10.1.1.9,697,-0.370,-0.370,-0.370,0.000,0.000,0.000
1640079316160613888,"2021-12-21,09:35:16",10.1.1.9,0.9119880199432373,-0.370,-0.370,-0.370,0.000,0.000,0.000
1640079316205164800,"2021-12-21,09:35:16",10.1.1.9,-14,-0.380,-0.380,-0.380,0.000,0.000,0.000
1640079317114156032,"2021-12-21,09:35:17",10.1.1.9,0.9393589496612549,-0.380,-0.380,-0.380,0.000,0.000,0.000
1640079317622152960,"2021-12-21,09:35:17",10.1.1.9,506,-0.390,-0.390,-0.390,0.000,0.000,0.000
1640079317658247936,"2021-12-21,09:35:17",10.1.1.9,0.5426437854766846,-0.390,-0.390,-0.390,0.000,0.000,0.000
1640079318600003072,"2021-12-21,09:35:18",10.1.1.9,914,-0.400,-0.400,-0.400,0.000,0.000,0.000
1640079318791976960,"2021-12-21,09:35:18",10.1.1.9,1.1061220169067383,-0.400,-0.400,-0.400,0.000,0.000,0.000
1640079319654561024,"2021-12-21,09:35:19",10.1.1.9,838,-0.410,-0.410,-0.410,0.000,0.000,0.000
1640079320008523008,"2021-12-21,09:35:20",10.1.1.9,1.1919891834259033,-0.410,-0.410,-0.410,0.000,0.000,0.000
1640079320959374848,"2021-12-21,09:35:20",10.1.1.9,927,-0.420,-0.420,-0.420,0.000,0.000,0.000
1640079321239237120,"2021-12-21,09:35:21",10.1.1.9,1.2070789337158203,-0.420,-0.420,-0.420,0.000,0.000,0.000
1640079322507756032,"2021-12-21,09:35:22",10.1.1.9,1100,-0.430,-0.430,-0.430,0.000,0.000,0.000
1640079322820733184,"2021-12-21,09:35:22",10.1.1.9,1.4685487747192383,-0.430,-0.430,-0.430,0.000,0.000,0.000
1640079323909753088,"2021-12-21,09:35:23",10.1.1.9,1064,-0.440,-0.440,-0.440,0.000,0.000,0.000
1640079324145082880,"2021-12-21,09:35:24",10.1.1.9,1.2994298934936523,-0.440,-0.440,-0.440,0.000,0.000,0.000
1640079325977313024,"2021-12-21,09:35:25",10.1.1.9,1.338460922241211,-0.450,-0.450,-0.450,0.000,0.000,0.000
1640079327328728832,"2021-12-21,09:35:27",10.1.1.9,1287,-0.460,-0.460,-0.460,0.000,0.000,0.000
1640079327376083968,"2021-12-21,09:35:27",10.1.1.9,1.3892481327056885,-0.460,-0.460,-0.460,0.000,0.000,0.000
1640079328163662848,"2021-12-21,09:35:28",10.1.1.9,739,-0.470,-0.470,-0.470,0.000,0.000,0.000
1640079328431788032,"2021-12-21,09:35:28",10.1.1.9,1.007897138595581,-0.470,-0.470,-0.470,0.000,0.000,0.000
1640079329985954048,"2021-12-21,09:35:29",10.1.1.9,1144,-0.480,-0.480,-0.480,0.000,0.000,0.000
1640079330106370816,"2021-12-21,09:35:30",10.1.1.9,1.672976016998291,-0.480,-0.480,-0.480,0.000,0.000,0.000
1640079330551752192,"2021-12-21,09:35:30",10.1.1.9,438,-0.490,-0.490,-0.490,0.000,0.000,0.000
1640079330894144000,"2021-12-21,09:35:30",10.1.1.9,0.7814099788665771,-0.490,-0.490,-0.490,0.000,0.000,0.000
1640079332017703936,"2021-12-21,09:35:32",10.1.1.9,1.1143109798431396,-0.480,-0.480,-0.480,0.000,0.000,0.000
1640079332729885952,"2021-12-21,09:35:32",10.1.1.9,690,-0.470,-0.470,-0.470,0.000,0.000,0.000
1640079333189131008,"2021-12-21,09:35:33",10.1.1.9,1.15106201171875,-0.470,-0.470,-0.470,0.000,0.000,0.000
1640079334601184000,"2021-12-21,09:35:34",10.1.1.9,1168,-0.460,-0.460,-0.460,0.000,0.000,0.000
1640079334603897088,"2021-12-21,09:35:34",10.1.1.9,1.4017460346221924,-0.460,-0.460,-0.460,0.000,0.000,0.000
1640079336217079040,"2021-12-21,09:35:36",10.1.1.9,1610,-0.450,-0.450,-0.450,0.000,0.000,0.000
1640079336469208064,"2021-12-21,09:35:36",10.1.1.9,1.8627009391784668,-0.450,-0.450,-0.450,0.000,0.000,0.000
1640079337148946944,"2021-12-21,09:35:37",10.1.1.9,677,-0.440,-0.440,-0.440,0.000,0.000,0.000
1640079337195770112,"2021-12-21,09:35:37",10.1.1.9,0.7247951030731201,-0.440,-0.440,-0.440,0.000,0.000,0.000
1640079337695773952,"2021-12-21,09:35:37",10.1.1.9,498,-0.430,-0.430,-0.430,0.000,0.000,0.000
1640079337864955904,"2021-12-21,09:35:37",10.1.1.9,0.6677749156951904,-0.430,-0.430,-0.430,0.000,0.000,0.000
1640079338437980928,"2021-12-21,09:35:38",10.1.1.9,568,-0.420,-0.420,-0.420,0.000,0.000,0.000
1640079338650595840,"2021-12-21,09:35:38",10.1.1.9,0.7811980247497559,-0.420,-0.420,-0.420,0.000,0.000,0.000
1640079339106980096,"2021-12-21,09:35:39",10.1.1.9,441,-0.410,-0.410,-0.410,0.000,0.000,0.000
1640079339304434176,"2021-12-21,09:35:39",10.1.1.9,0.6387631893157959,-0.410,-0.410,-0.410,0.000,0.000,0.000
1640079339779261952,"2021-12-21,09:35:39",10.1.1.9,473,-0.400,-0.400,-0.400,0.000,0.000,0.000
1640079339858258944,"2021-12-21,09:35:39",10.1.1.9,0.5523910522460938,-0.400,-0.400,-0.400,0.000,0.000,0.000
1640079340626524928,"2021-12-21,09:35:40",10.1.1.9,765,-0.390,-0.390,-0.390,0.000,0.000,0.000
1640079340870013952,"2021-12-21,09:35:40",10.1.1.9,1.0087990760803223,-0.390,-0.390,-0.390,0.000,0.000,0.000
1640079342800025856,"2021-12-21,09:35:42",10.1.1.9,1.4313368797302246,-0.380,-0.380,-0.380,0.000,0.000,0.000
1640079342800815104,"2021-12-21,09:35:42",10.1.1.9,1890,-0.380,-0.380,-0.380,0.000,0.000,0.000
1640079344096043008,"2021-12-21,09:35:43",10.1.1.9,977,-0.370,-0.370,-0.370,0.000,0.000,0.000
1640079344432663808,"2021-12-21,09:35:44",10.1.1.9,1.592057228088379,-0.370,-0.370,-0.370,0.000,0.000,0.000
1640079345195337984,"2021-12-21,09:35:45",10.1.1.9,714,-0.360,-0.360,-0.360,0.000,0.000,0.000
1640079345995750912,"2021-12-21,09:35:45",10.1.1.9,1.514549970626831,-0.360,-0.360,-0.360,0.000,0.000,0.000
1640079346601667840,"2021-12-21,09:35:46",10.1.1.9,602,-0.350,-0.350,-0.350,0.000,0.000,0.000
1640079347202727168,"2021-12-21,09:35:47",10.1.1.9,1.20318603515625,-0.350,-0.350,-0.350,0.000,0.000,0.000
1640079348117204992,"2021-12-21,09:35:48",10.1.1.9,810,-0.340,-0.340,-0.340,0.000,0.000,0.000
1640079348627091968,"2021-12-21,09:35:48",10.1.1.9,1.4091591835021973,-0.340,-0.340,-0.340,0.000,0.000,0.000
1640079351131719168,"2021-12-21,09:35:49",10.1.1.9,810,-0.330,-0.330,-0.330,0.000,0.000,0.000
1640079351903971072,"2021-12-21,09:35:51",10.1.1.9,2.8736419677734375,-0.330,-0.330,-0.330,0.000,0.000,0.000
1640079354162259200,"2021-12-21,09:35:53",10.1.1.9,1366,-0.320,-0.320,-0.320,0.000,0.000,0.000
1640079354491493888,"2021-12-21,09:35:54",10.1.1.9,2.304574966430664,-0.320,-0.320,-0.320,0.000,0.000,0.000
1640079355554743040,"2021-12-21,09:35:55",10.1.1.9,1061,-0.310,-0.310,-0.310,0.000,0.000,0.000
1640079355590297088,"2021-12-21,09:35:55",10.1.1.9,1.0970709323883057,-0.310,-0.310,-0.310,0.000,0.000,0.000
1640079356271333888,"2021-12-21,09:35:56",10.1.1.9,520,-0.300,-0.300,-0.300,0.000,0.000,0.000
1640079356552898816,"2021-12-21,09:35:56",10.1.1.9,0.9205350875854492,-0.300,-0.300,-0.300,0.000,0.000,0.000
1640079358288183040,"2021-12-21,09:35:58",10.1.1.9,1181,-0.290,-0.290,-0.290,0.000,0.000,0.000
1640079358295192064,"2021-12-21,09:35:58",10.1.1.9,1.4018361568450928,-0.290,-0.290,-0.290,0.000,0.000,0.000
1640079358396524032,"2021-12-21,09:35:58",10.1.1.9,-2,-0.280,-0.280,-0.280,0.000,0.000,0.000
1640079360192454144,"2021-12-21,09:35:59",10.1.1.9,1.4838759899139404,-0.280,-0.280,-0.280,0.000,0.000,0.000
1640079361413316864,"2021-12-21,09:36:01",10.1.1.9,1217,-0.270,-0.270,-0.270,0.000,0.000,0.000
1640079362805401088,"2021-12-21,09:36:01",10.1.1.9,1.774535894393921,-0.270,-0.270,-0.270,0.000,0.000,0.000
1640079367143374848,"2021-12-21,09:36:04",10.1.1.9,1499,-0.260,-0.260,-0.260,0.000,0.000,0.000
1640079370881211904,"2021-12-21,09:36:07",10.1.1.9,4.9912190437316895,-0.260,-0.260,-0.260,0.000,0.000,0.000
1640079372619684096,"2021-12-21,09:36:12",10.1.1.9,1559,-0.250,-0.250,-0.250,0.000,0.000,0.000
1640079372968194048,"2021-12-21,09:36:12",10.1.1.9,1.9081618785858154,-0.250,-0.250,-0.250,0.000,0.000,0.000
1640079383204988928,"2021-12-21,09:36:21",10.1.1.9,8044,-0.240,-0.240,-0.240,0.000,0.000,0.000
1640079385715764992,"2021-12-21,09:36:23",10.1.1.9,10.763258934020996,-0.240,-0.240,-0.240,0.000,0.000,0.000
1640079394782654976,"2021-12-21,09:36:34",10.1.1.9,8417,-0.230,-0.230,-0.230,0.000,0.000,0.000
1640079394822683136,"2021-12-21,09:36:34",10.1.1.9,8.598654985427856,-0.230,-0.230,-0.230,0.000,0.000,0.000
1640079395978924032,"2021-12-21,09:36:35",10.1.1.9,1111,-0.220,-0.220,-0.220,0.000,0.000,0.000
1640079396069874944,"2021-12-21,09:36:36",10.1.1.9,1.2025659084320068,-0.220,-0.220,-0.220,0.000,0.000,0.000
1640079399776843008,"2021-12-21,09:36:37",10.1.1.9,1200,-0.210,-0.210,-0.210,0.000,0.000,0.000
1640079400227483904,"2021-12-21,09:36:40",10.1.1.9,4.1520819664001465,-0.210,-0.210,-0.210,0.000,0.000,0.000
1640079401169281024,"2021-12-21,09:36:41",10.1.1.9,919,-0.200,-0.200,-0.200,0.000,0.000,0.000
1640079403420160000,"2021-12-21,09:36:42",10.1.1.9,2.535900115966797,-0.200,-0.200,-0.200,0.000,0.000,0.000
1640079418868925184,"2021-12-21,09:36:56",10.1.1.9,12.49533200263977,-0.190,-0.190,-0.190,0.000,0.000,0.000
1640079424089544960,"2021-12-21,09:37:02",10.1.1.9,3345,-0.180,-0.180,-0.180,0.000,0.000,0.000
1640079427014533888,"2021-12-21,09:37:04",10.1.1.9,4.854151010513306,-0.180,-0.180,-0.180,0.000,0.000,0.000
1640079444368236032,"2021-12-21,09:37:22",10.1.1.9,15.212340831756592,-0.170,-0.170,-0.170,0.000,0.000,0.000
1640079450913713920,"2021-12-21,09:37:30",10.1.1.9,5.211656808853149,-0.160,-0.160,-0.160,0.000,0.000,0.000
1640079463892487168,"2021-12-21,09:37:41",10.1.1.9,10.751922845840454,-0.150,-0.150,-0.150,0.000,0.000,0.000
1640079481684444928,"2021-12-21,09:38:00",10.1.1.9,15.581801891326904,-0.140,-0.140,-0.140,0.000,0.000,0.000
1640079510151341056,"2021-12-21,09:38:26",10.1.1.9,24022,-0.130,-0.130,-0.130,0.000,0.000,0.000
1640079512278408960,"2021-12-21,09:38:30",10.1.1.9,28.556344985961914,-0.130,-0.130,-0.130,0.000,0.000,0.000
1640079513457860096,"2021-12-21,09:38:33",10.1.1.9,1129,-0.120,-0.120,-0.120,0.000,0.000,0.000
1640079513697634816,"2021-12-21,09:38:33",10.1.1.9,1.369452953338623,-0.120,-0.120,-0.120,0.000,0.000,0.000
1640079514553881856,"2021-12-21,09:38:34",10.1.1.9,818,-0.110,-0.110,-0.110,0.000,0.000,0.000
1640079514556350976,"2021-12-21,09:38:34",10.1.1.9,0.8209178447723389,-0.110,-0.110,-0.110,0.000,0.000,0.000
1640079515195877120,"2021-12-21,09:38:35",10.1.1.9,636,-0.100,-0.100,-0.100,0.000,0.000,0.000
1640079515316364032,"2021-12-21,09:38:35",10.1.1.9,0.7573812007904053,-0.100,-0.100,-0.100,0.000,0.000,0.000
1640079515840186112,"2021-12-21,09:38:35",10.1.1.9,520,-0.090,-0.090,-0.090,0.000,0.000,0.000
1640079515963538944,"2021-12-21,09:38:35",10.1.1.9,0.6443731784820557,-0.090,-0.090,-0.090,0.000,0.000,0.000
1640079516585788928,"2021-12-21,09:38:36",10.1.1.9,611,-0.080,-0.080,-0.080,0.000,0.000,0.000
1640079516884326912,"2021-12-21,09:38:36",10.1.1.9,0.9138970375061035,-0.080,-0.080,-0.080,0.000,0.000,0.000
1640079517490080000,"2021-12-21,09:38:37",10.1.1.9,588,-0.070,-0.070,-0.070,0.000,0.000,0.000
1640079517762754048,"2021-12-21,09:38:37",10.1.1.9,0.8475520610809326,-0.070,-0.070,-0.070,0.000,0.000,0.000
1640079518204124928,"2021-12-21,09:38:38",10.1.1.9,436,-0.060,-0.060,-0.060,0.000,0.000,0.000
1640079518476690176,"2021-12-21,09:38:38",10.1.1.9,0.7092411518096924,-0.060,-0.060,-0.060,0.000,0.000,0.000
1640079519533512192,"2021-12-21,09:38:39",10.1.1.9,1037,-0.050,-0.050,-0.050,0.000,0.000,0.000
1640079519779858944,"2021-12-21,09:38:39",10.1.1.9,1.2843399047851562,-0.050,-0.050,-0.050,0.000,0.000,0.000
1640079520397278976,"2021-12-21,09:38:40",10.1.1.9,607,-0.040,-0.040,-0.040,0.000,0.000,0.000
1640079520601495040,"2021-12-21,09:38:40",10.1.1.9,0.8119809627532959,-0.040,-0.040,-0.040,0.000,0.000,0.000
1640079521065606144,"2021-12-21,09:38:41",10.1.1.9,445,-0.030,-0.030,-0.030,0.000,0.000,0.000
1640079521283788800,"2021-12-21,09:38:41",10.1.1.9,0.6634960174560547,-0.030,-0.030,-0.030,0.000,0.000,0.000
1640079522127504128,"2021-12-21,09:38:42",10.1.1.9,830,-0.020,-0.020,-0.020,0.000,0.000,0.000
1640079522342977024,"2021-12-21,09:38:42",10.1.1.9,1.045915126800537,-0.020,-0.020,-0.020,0.000,0.000,0.000
1640079522812363008,"2021-12-21,09:38:42",10.1.1.9,467,-0.010,-0.010,-0.010,0.000,0.000,0.000
1640079522922390016,"2021-12-21,09:38:42",10.1.1.9,0.5776810646057129,-0.010,-0.010,-0.010,0.000,0.000,0.000
1640079524004546048,"2021-12-21,09:38:44",10.1.1.9,914,0.000,0.000,0.000,0.000,0.000,0.000
1640079524301025024,"2021-12-21,09:38:44",10.1.1.9,1.2107369899749756,0.000,0.000,0.000,0.000,0.000,0.000
1640079525259193856,"2021-12-21,09:38:45",10.1.1.9,0.9301230907440186,-0.010,-0.010,-0.010,0.000,0.000,0.000
1640079526066652160,"2021-12-21,09:38:46",10.1.1.9,786,-0.020,-0.020,-0.020,0.000,0.000,0.000
1640079526137052160,"2021-12-21,09:38:46",10.1.1.9,0.8731329441070557,-0.020,-0.020,-0.020,0.000,0.000,0.000
1640079526759452160,"2021-12-21,09:38:46",10.1.1.9,604,-0.030,-0.030,-0.030,0.000,0.000,0.000
1640079526861361920,"2021-12-21,09:38:46",10.1.1.9,0.7073459625244141,-0.030,-0.030,-0.030,0.000,0.000,0.000
1640079527629741824,"2021-12-21,09:38:47",10.1.1.9,766,-0.040,-0.040,-0.040,0.000,0.000,0.000
1640079528155174144,"2021-12-21,09:38:48",10.1.1.9,1.2921950817108154,-0.040,-0.040,-0.040,0.000,0.000,0.000
1640079528839728128,"2021-12-21,09:38:48",10.1.1.9,671,-0.050,-0.050,-0.050,0.000,0.000,0.000
1640079529632240128,"2021-12-21,09:38:49",10.1.1.9,1.4640650749206543,-0.050,-0.050,-0.050,0.000,0.000,0.000
1640079530720303104,"2021-12-21,09:38:50",10.1.1.9,1014,-0.060,-0.060,-0.060,0.000,0.000,0.000
1640079530941101056,"2021-12-21,09:38:50",10.1.1.9,1.2465460300445557,-0.060,-0.060,-0.060,0.000,0.000,0.000
1640079532056390912,"2021-12-21,09:38:52",10.1.1.9,1085,-0.070,-0.070,-0.070,0.000,0.000,0.000
1640079532373699072,"2021-12-21,09:38:52",10.1.1.9,1.4205079078674316,-0.070,-0.070,-0.070,0.000,0.000,0.000
1640079533215981056,"2021-12-21,09:38:53",10.1.1.9,797,-0.080,-0.080,-0.080,0.000,0.000,0.000
