FedericoMungari/DigitalTwin_service/Output/Output_script/script_ROSAPI_output_robots4_freq0_4.txt.csv
timestamp,node,latency,joint_1,joint_2,joint_3,joint_4,joint_5,joint_6
1640060650705395968,"2021-12-21,04:24:10",10.1.1.5,4705,0.000,0.000,0.000,0.000,0.000,0.000
1640060653012284928,"2021-12-21,04:24:13",10.1.1.5,314,-0.010,-0.010,-0.010,0.000,0.000,0.000
1640060653037614080,"2021-12-21,04:24:13",10.1.1.5,0.34021902084350586,-0.010,-0.010,-0.010,0.000,0.000,0.000
1640060653341517824,"2021-12-21,04:24:13",10.1.1.5,302,-0.020,-0.020,-0.020,0.000,0.000,0.000
1640060653368574976,"2021-12-21,04:24:13",10.1.1.5,0.3296661376953125,-0.020,-0.020,-0.020,0.000,0.000,0.000
1640060653670257920,"2021-12-21,04:24:13",10.1.1.5,299,-0.030,-0.030,-0.030,0.000,0.000,0.000
1640060653691803904,"2021-12-21,04:24:13",10.1.1.5,0.32137107849121094,-0.030,-0.030,-0.030,0.000,0.000,0.000
1640060653989048832,"2021-12-21,04:24:13",10.1.1.5,295,-0.040,-0.040,-0.040,0.000,0.000,0.000
1640060654023361024,"2021-12-21,04:24:14",10.1.1.5,0.33002400398254395,-0.040,-0.040,-0.040,0.000,0.000,0.000
1640060654358084864,"2021-12-21,04:24:14",10.1.1.5,333,-0.050,-0.050,-0.050,0.000,0.000,0.000
1640060654374877952,"2021-12-21,04:24:14",10.1.1.5,0.34998416900634766,-0.050,-0.050,-0.050,0.000,0.000,0.000
1640060654690790912,"2021-12-21,04:24:14",10.1.1.5,313,-0.060,-0.060,-0.060,0.000,0.000,0.000
1640060654707453952,"2021-12-21,04:24:14",10.1.1.5,0.3305191993713379,-0.060,-0.060,-0.060,0.000,0.000,0.000
1640060655038748928,"2021-12-21,04:24:15",10.1.1.5,329,-0.070,-0.070,-0.070,0.000,0.000,0.000
1640060655069158912,"2021-12-21,04:24:15",10.1.1.5,0.3599429130554199,-0.070,-0.070,-0.070,0.000,0.000,0.000
1640060655398215936,"2021-12-21,04:24:15",10.1.1.5,327,-0.080,-0.080,-0.080,0.000,0.000,0.000
1640060655432344832,"2021-12-21,04:24:15",10.1.1.5,0.36145901679992676,-0.080,-0.080,-0.080,0.000,0.000,0.000
1640060655768055808,"2021-12-21,04:24:15",10.1.1.5,329,-0.090,-0.090,-0.090,0.000,0.000,0.000
1640060655820204032,"2021-12-21,04:24:15",10.1.1.5,0.38051700592041016,-0.090,-0.090,-0.090,0.000,0.000,0.000
1640060656155922944,"2021-12-21,04:24:16",10.1.1.5,331,-0.100,-0.100,-0.100,0.000,0.000,0.000
1640060656169915904,"2021-12-21,04:24:16",10.1.1.5,0.3453948497772217,-0.100,-0.100,-0.100,0.000,0.000,0.000
1640060656515923968,"2021-12-21,04:24:16",10.1.1.5,343,-0.110,-0.110,-0.110,0.000,0.000,0.000
1640060656531277824,"2021-12-21,04:24:16",10.1.1.5,0.35839104652404785,-0.110,-0.110,-0.110,0.000,0.000,0.000
1640060656839458816,"2021-12-21,04:24:16",10.1.1.5,306,-0.120,-0.120,-0.120,0.000,0.000,0.000
1640060656864641024,"2021-12-21,04:24:16",10.1.1.5,0.33188915252685547,-0.120,-0.120,-0.120,0.000,0.000,0.000
1640060657203907072,"2021-12-21,04:24:17",10.1.1.5,337,-0.130,-0.130,-0.130,0.000,0.000,0.000
1640060657244122880,"2021-12-21,04:24:17",10.1.1.5,0.3780181407928467,-0.130,-0.130,-0.130,0.000,0.000,0.000
1640060657593539840,"2021-12-21,04:24:17",10.1.1.5,347,-0.140,-0.140,-0.140,0.000,0.000,0.000
1640060657619119872,"2021-12-21,04:24:17",10.1.1.5,0.3732779026031494,-0.140,-0.140,-0.140,0.000,0.000,0.000
1640060657953739776,"2021-12-21,04:24:17",10.1.1.5,333,-0.150,-0.150,-0.150,0.000,0.000,0.000
1640060657985040896,"2021-12-21,04:24:17",10.1.1.5,0.3646271228790283,-0.150,-0.150,-0.150,0.000,0.000,0.000
1640060658306016000,"2021-12-21,04:24:18",10.1.1.5,319,-0.160,-0.160,-0.160,0.000,0.000,0.000
1640060658365799936,"2021-12-21,04:24:18",10.1.1.5,0.3795180320739746,-0.160,-0.160,-0.160,0.000,0.000,0.000
1640060658681660928,"2021-12-21,04:24:18",10.1.1.5,314,-0.170,-0.170,-0.170,0.000,0.000,0.000
1640060658706620928,"2021-12-21,04:24:18",10.1.1.5,0.33931803703308105,-0.170,-0.170,-0.170,0.000,0.000,0.000
1640060659065285888,"2021-12-21,04:24:19",10.1.1.5,356,-0.180,-0.180,-0.180,0.000,0.000,0.000
1640060659067940096,"2021-12-21,04:24:19",10.1.1.5,0.3594169616699219,-0.180,-0.180,-0.180,0.000,0.000,0.000
1640060659380909056,"2021-12-21,04:24:19",10.1.1.5,309,-0.190,-0.190,-0.190,0.000,0.000,0.000
1640060659429732096,"2021-12-21,04:24:19",10.1.1.5,0.35816502571105957,-0.190,-0.190,-0.190,0.000,0.000,0.000
1640060659790205952,"2021-12-21,04:24:19",10.1.1.5,357,-0.200,-0.200,-0.200,0.000,0.000,0.000
1640060659803604992,"2021-12-21,04:24:19",10.1.1.5,0.37081003189086914,-0.200,-0.200,-0.200,0.000,0.000,0.000
1640060660140284160,"2021-12-21,04:24:20",10.1.1.5,334,-0.210,-0.210,-0.210,0.000,0.000,0.000
1640060660171027968,"2021-12-21,04:24:20",10.1.1.5,0.36559510231018066,-0.210,-0.210,-0.210,0.000,0.000,0.000
1640060660479661824,"2021-12-21,04:24:20",10.1.1.5,306,-0.220,-0.220,-0.220,0.000,0.000,0.000
1640060660490562816,"2021-12-21,04:24:20",10.1.1.5,0.3176419734954834,-0.220,-0.220,-0.220,0.000,0.000,0.000
1640060660848819968,"2021-12-21,04:24:20",10.1.1.5,347,-0.230,-0.230,-0.230,0.000,0.000,0.000
1640060660887343872,"2021-12-21,04:24:20",10.1.1.5,0.3870699405670166,-0.230,-0.230,-0.230,0.000,0.000,0.000
1640060661198040064,"2021-12-21,04:24:21",10.1.1.5,306,-0.240,-0.240,-0.240,0.000,0.000,0.000
1640060661229767168,"2021-12-21,04:24:21",10.1.1.5,0.33924198150634766,-0.240,-0.240,-0.240,0.000,0.000,0.000
1640060661588218880,"2021-12-21,04:24:21",10.1.1.5,353,-0.250,-0.250,-0.250,0.000,0.000,0.000
1640060661607432960,"2021-12-21,04:24:21",10.1.1.5,0.3741910457611084,-0.250,-0.250,-0.250,0.000,0.000,0.000
1640060661917529088,"2021-12-21,04:24:21",10.1.1.5,307,-0.260,-0.260,-0.260,0.000,0.000,0.000
1640060661988723968,"2021-12-21,04:24:21",10.1.1.5,0.3789510726928711,-0.260,-0.260,-0.260,0.000,0.000,0.000
1640060662276133888,"2021-12-21,04:24:22",10.1.1.5,285,-0.270,-0.270,-0.270,0.000,0.000,0.000
1640060662307447040,"2021-12-21,04:24:22",10.1.1.5,0.31733107566833496,-0.270,-0.270,-0.270,0.000,0.000,0.000
1640060662625026816,"2021-12-21,04:24:22",10.1.1.5,315,-0.280,-0.280,-0.280,0.000,0.000,0.000
1640060662708976896,"2021-12-21,04:24:22",10.1.1.5,0.39923906326293945,-0.280,-0.280,-0.280,0.000,0.000,0.000
1640060662994894080,"2021-12-21,04:24:22",10.1.1.5,284,-0.290,-0.290,-0.290,0.000,0.000,0.000
1640060663032548864,"2021-12-21,04:24:23",10.1.1.5,0.32221198081970215,-0.290,-0.290,-0.290,0.000,0.000,0.000
1640060663380320000,"2021-12-21,04:24:23",10.1.1.5,345,-0.300,-0.300,-0.300,0.000,0.000,0.000
1640060663389602816,"2021-12-21,04:24:23",10.1.1.5,0.3546321392059326,-0.300,-0.300,-0.300,0.000,0.000,0.000
1640060663725539072,"2021-12-21,04:24:23",10.1.1.5,332,-0.310,-0.310,-0.310,0.000,0.000,0.000
1640060663751090944,"2021-12-21,04:24:23",10.1.1.5,0.3582298755645752,-0.310,-0.310,-0.310,0.000,0.000,0.000
1640060664084101888,"2021-12-21,04:24:24",10.1.1.5,328,-0.320,-0.320,-0.320,0.000,0.000,0.000
1640060664181081088,"2021-12-21,04:24:24",10.1.1.5,0.42600107192993164,-0.320,-0.320,-0.320,0.000,0.000,0.000
1640060664483942144,"2021-12-21,04:24:24",10.1.1.5,301,-0.330,-0.330,-0.330,0.000,0.000,0.000
1640060664504834816,"2021-12-21,04:24:24",10.1.1.5,0.32234692573547363,-0.330,-0.330,-0.330,0.000,0.000,0.000
1640060664804476928,"2021-12-21,04:24:24",10.1.1.5,297,-0.340,-0.340,-0.340,0.000,0.000,0.000
1640060664857664000,"2021-12-21,04:24:24",10.1.1.5,0.3512589931488037,-0.340,-0.340,-0.340,0.000,0.000,0.000
1640060665173576960,"2021-12-21,04:24:25",10.1.1.5,311,-0.350,-0.350,-0.350,0.000,0.000,0.000
1640060665208500992,"2021-12-21,04:24:25",10.1.1.5,0.34877896308898926,-0.350,-0.350,-0.350,0.000,0.000,0.000
1640060665540393984,"2021-12-21,04:24:25",10.1.1.5,329,-0.360,-0.360,-0.360,0.000,0.000,0.000
1640060665586489088,"2021-12-21,04:24:25",10.1.1.5,0.3755979537963867,-0.360,-0.360,-0.360,0.000,0.000,0.000
1640060665920679936,"2021-12-21,04:24:25",10.1.1.5,331,-0.370,-0.370,-0.370,0.000,0.000,0.000
1640060665965240064,"2021-12-21,04:24:25",10.1.1.5,0.3772468566894531,-0.370,-0.370,-0.370,0.000,0.000,0.000
1640060666280851968,"2021-12-21,04:24:26",10.1.1.5,309,-0.380,-0.380,-0.380,0.000,0.000,0.000
1640060666342829056,"2021-12-21,04:24:26",10.1.1.5,0.3724098205566406,-0.380,-0.380,-0.380,0.000,0.000,0.000
1640060666640084992,"2021-12-21,04:24:26",10.1.1.5,295,-0.390,-0.390,-0.390,0.000,0.000,0.000
1640060666663360000,"2021-12-21,04:24:26",10.1.1.5,0.31897592544555664,-0.390,-0.390,-0.390,0.000,0.000,0.000
1640060666998639104,"2021-12-21,04:24:26",10.1.1.5,333,-0.400,-0.400,-0.400,0.000,0.000,0.000
1640060667040194048,"2021-12-21,04:24:27",10.1.1.5,0.37510204315185547,-0.400,-0.400,-0.400,0.000,0.000,0.000
1640060667357850112,"2021-12-21,04:24:27",10.1.1.5,315,-0.410,-0.410,-0.410,0.000,0.000,0.000
1640060667388613888,"2021-12-21,04:24:27",10.1.1.5,0.34667491912841797,-0.410,-0.410,-0.410,0.000,0.000,0.000
1640060667736120064,"2021-12-21,04:24:27",10.1.1.5,340,-0.420,-0.420,-0.420,0.000,0.000,0.000
1640060667774210048,"2021-12-21,04:24:27",10.1.1.5,0.37874913215637207,-0.420,-0.420,-0.420,0.000,0.000,0.000
1640060668131602944,"2021-12-21,04:24:28",10.1.1.5,341,-0.430,-0.430,-0.430,0.000,0.000,0.000
1640060668158088960,"2021-12-21,04:24:28",10.1.1.5,0.36559605598449707,-0.430,-0.430,-0.430,0.000,0.000,0.000
1640060668488739840,"2021-12-21,04:24:28",10.1.1.5,325,-0.440,-0.440,-0.440,0.000,0.000,0.000
1640060668496354048,"2021-12-21,04:24:28",10.1.1.5,0.334489107131958,-0.440,-0.440,-0.440,0.000,0.000,0.000
1640060668816517120,"2021-12-21,04:24:28",10.1.1.5,309,-0.450,-0.450,-0.450,0.000,0.000,0.000
1640060668851376128,"2021-12-21,04:24:28",10.1.1.5,0.34151601791381836,-0.450,-0.450,-0.450,0.000,0.000,0.000
1640060669190022912,"2021-12-21,04:24:29",10.1.1.5,321,-0.460,-0.460,-0.460,0.000,0.000,0.000
1640060669216545024,"2021-12-21,04:24:29",10.1.1.5,0.34779787063598633,-0.460,-0.460,-0.460,0.000,0.000,0.000
1640060669575086080,"2021-12-21,04:24:29",10.1.1.5,352,-0.470,-0.470,-0.470,0.000,0.000,0.000
1640060669643913984,"2021-12-21,04:24:29",10.1.1.5,0.42216992378234863,-0.470,-0.470,-0.470,0.000,0.000,0.000
1640060669978787840,"2021-12-21,04:24:29",10.1.1.5,332,-0.480,-0.480,-0.480,0.000,0.000,0.000
1640060670024089088,"2021-12-21,04:24:30",10.1.1.5,0.37012815475463867,-0.480,-0.480,-0.480,0.000,0.000,0.000
1640060670371192832,"2021-12-21,04:24:30",10.1.1.5,340,-0.490,-0.490,-0.490,0.000,0.000,0.000
1640060670454150912,"2021-12-21,04:24:30",10.1.1.5,0.42366790771484375,-0.490,-0.490,-0.490,0.000,0.000,0.000
1640060670745569024,"2021-12-21,04:24:30",10.1.1.5,289,-0.480,-0.480,-0.480,0.000,0.000,0.000
1640060670787514880,"2021-12-21,04:24:30",10.1.1.5,0.3319520950317383,-0.480,-0.480,-0.480,0.000,0.000,0.000
1640060671104902144,"2021-12-21,04:24:31",10.1.1.5,315,-0.470,-0.470,-0.470,0.000,0.000,0.000
1640060671121063936,"2021-12-21,04:24:31",10.1.1.5,0.33187389373779297,-0.470,-0.470,-0.470,0.000,0.000,0.000
1640060671421394176,"2021-12-21,04:24:31",10.1.1.5,298,-0.460,-0.460,-0.460,0.000,0.000,0.000
1640060671473405952,"2021-12-21,04:24:31",10.1.1.5,0.35030412673950195,-0.460,-0.460,-0.460,0.000,0.000,0.000
1640060671793282048,"2021-12-21,04:24:31",10.1.1.5,317,-0.450,-0.450,-0.450,0.000,0.000,0.000
1640060671864538880,"2021-12-21,04:24:31",10.1.1.5,0.3892171382904053,-0.450,-0.450,-0.450,0.000,0.000,0.000
1640060672176729856,"2021-12-21,04:24:32",10.1.1.5,309,-0.440,-0.440,-0.440,0.000,0.000,0.000
1640060672216043008,"2021-12-21,04:24:32",10.1.1.5,0.34981489181518555,-0.440,-0.440,-0.440,0.000,0.000,0.000
1640060672549485824,"2021-12-21,04:24:32",10.1.1.5,318,-0.430,-0.430,-0.430,0.000,0.000,0.000
1640060672576958976,"2021-12-21,04:24:32",10.1.1.5,0.3459749221801758,-0.430,-0.430,-0.430,0.000,0.000,0.000
1640060672870160128,"2021-12-21,04:24:32",10.1.1.5,287,-0.420,-0.420,-0.420,0.000,0.000,0.000
1640060672924562944,"2021-12-21,04:24:32",10.1.1.5,0.34184908866882324,-0.420,-0.420,-0.420,0.000,0.000,0.000
1640060673280740096,"2021-12-21,04:24:33",10.1.1.5,0.3530261516571045,-0.410,-0.410,-0.410,0.000,0.000,0.000
1640060673654705152,"2021-12-21,04:24:33",10.1.1.5,0.3697237968444824,-0.400,-0.400,-0.400,0.000,0.000,0.000
1640060673957349888,"2021-12-21,04:24:33",10.1.1.5,300,-0.390,-0.390,-0.390,0.000,0.000,0.000
1640060674037607936,"2021-12-21,04:24:34",10.1.1.5,0.38149118423461914,-0.390,-0.390,-0.390,0.000,0.000,0.000
1640060674337985024,"2021-12-21,04:24:34",10.1.1.5,298,-0.380,-0.380,-0.380,0.000,0.000,0.000
1640060674416584960,"2021-12-21,04:24:34",10.1.1.5,0.37748289108276367,-0.380,-0.380,-0.380,0.000,0.000,0.000
1640060674759473920,"2021-12-21,04:24:34",10.1.1.5,0.34145116806030273,-0.370,-0.370,-0.370,0.000,0.000,0.000
1640060675073210112,"2021-12-21,04:24:35",10.1.1.5,310,-0.360,-0.360,-0.360,0.000,0.000,0.000
1640060675131216128,"2021-12-21,04:24:35",10.1.1.5,0.36931610107421875,-0.360,-0.360,-0.360,0.000,0.000,0.000
1640060675472867840,"2021-12-21,04:24:35",10.1.1.5,332,-0.350,-0.350,-0.350,0.000,0.000,0.000
1640060675515127040,"2021-12-21,04:24:35",10.1.1.5,0.3745439052581787,-0.350,-0.350,-0.350,0.000,0.000,0.000
1640060675824139008,"2021-12-21,04:24:35",10.1.1.5,306,-0.340,-0.340,-0.340,0.000,0.000,0.000
1640060675860177920,"2021-12-21,04:24:35",10.1.1.5,0.34246206283569336,-0.340,-0.340,-0.340,0.000,0.000,0.000
1640060676185080064,"2021-12-21,04:24:36",10.1.1.5,321,-0.330,-0.330,-0.330,0.000,0.000,0.000
1640060676221671168,"2021-12-21,04:24:36",10.1.1.5,0.35868406295776367,-0.330,-0.330,-0.330,0.000,0.000,0.000
1640060676546010880,"2021-12-21,04:24:36",10.1.1.5,317,-0.320,-0.320,-0.320,0.000,0.000,0.000
1640060676582548992,"2021-12-21,04:24:36",10.1.1.5,0.3545248508453369,-0.320,-0.320,-0.320,0.000,0.000,0.000
1640060676951496960,"2021-12-21,04:24:36",10.1.1.5,0.3650400638580322,-0.310,-0.310,-0.310,0.000,0.000,0.000
1640060677289620992,"2021-12-21,04:24:37",10.1.1.5,336,-0.300,-0.300,-0.300,0.000,0.000,0.000
1640060677335463936,"2021-12-21,04:24:37",10.1.1.5,0.38214707374572754,-0.300,-0.300,-0.300,0.000,0.000,0.000
1640060677681405184,"2021-12-21,04:24:37",10.1.1.5,325,-0.290,-0.290,-0.290,0.000,0.000,0.000
1640060677690980864,"2021-12-21,04:24:37",10.1.1.5,0.3358609676361084,-0.290,-0.290,-0.290,0.000,0.000,0.000
1640060678051420928,"2021-12-21,04:24:38",10.1.1.5,359,-0.280,-0.280,-0.280,0.000,0.000,0.000
1640060678095272192,"2021-12-21,04:24:38",10.1.1.5,0.40302300453186035,-0.280,-0.280,-0.280,0.000,0.000,0.000
1640060678412089088,"2021-12-21,04:24:38",10.1.1.5,313,-0.270,-0.270,-0.270,0.000,0.000,0.000
1640060678462486016,"2021-12-21,04:24:38",10.1.1.5,0.36461710929870605,-0.270,-0.270,-0.270,0.000,0.000,0.000
1640060678760472064,"2021-12-21,04:24:38",10.1.1.5,293,-0.260,-0.260,-0.260,0.000,0.000,0.000
1640060678798813184,"2021-12-21,04:24:38",10.1.1.5,0.33144402503967285,-0.260,-0.260,-0.260,0.000,0.000,0.000
1640060679172620032,"2021-12-21,04:24:39",10.1.1.5,369,-0.250,-0.250,-0.250,0.000,0.000,0.000
1640060679182784000,"2021-12-21,04:24:39",10.1.1.5,0.3804919719696045,-0.250,-0.250,-0.250,0.000,0.000,0.000
1640060679517647104,"2021-12-21,04:24:39",10.1.1.5,332,-0.240,-0.240,-0.240,0.000,0.000,0.000
1640060679540456960,"2021-12-21,04:24:39",10.1.1.5,0.35529613494873047,-0.240,-0.240,-0.240,0.000,0.000,0.000
1640060679856046848,"2021-12-21,04:24:39",10.1.1.5,308,-0.230,-0.230,-0.230,0.000,0.000,0.000
1640060679887633152,"2021-12-21,04:24:39",10.1.1.5,0.3403148651123047,-0.230,-0.230,-0.230,0.000,0.000,0.000
1640060680258513920,"2021-12-21,04:24:40",10.1.1.5,369,-0.220,-0.220,-0.220,0.000,0.000,0.000
1640060680274318848,"2021-12-21,04:24:40",10.1.1.5,0.3851010799407959,-0.220,-0.220,-0.220,0.000,0.000,0.000
1640060680636257792,"2021-12-21,04:24:40",10.1.1.5,353,-0.210,-0.210,-0.210,0.000,0.000,0.000
1640060680722008832,"2021-12-21,04:24:40",10.1.1.5,0.43970489501953125,-0.210,-0.210,-0.210,0.000,0.000,0.000
1640060681043255040,"2021-12-21,04:24:41",10.1.1.5,319,-0.200,-0.200,-0.200,0.000,0.000,0.000
1640060681068613888,"2021-12-21,04:24:41",10.1.1.5,0.34524106979370117,-0.200,-0.200,-0.200,0.000,0.000,0.000
1640060681355325952,"2021-12-21,04:24:41",10.1.1.5,285,-0.190,-0.190,-0.190,0.000,0.000,0.000
1640060681387672064,"2021-12-21,04:24:41",10.1.1.5,0.31389689445495605,-0.190,-0.190,-0.190,0.000,0.000,0.000
1640060681706598912,"2021-12-21,04:24:41",10.1.1.5,315,-0.180,-0.180,-0.180,0.000,0.000,0.000
1640060681723741952,"2021-12-21,04:24:41",10.1.1.5,0.32725095748901367,-0.180,-0.180,-0.180,0.000,0.000,0.000
1640060682099736064,"2021-12-21,04:24:42",10.1.1.5,0.3596200942993164,-0.170,-0.170,-0.170,0.000,0.000,0.000
1640060682435653888,"2021-12-21,04:24:42",10.1.1.5,332,-0.160,-0.160,-0.160,0.000,0.000,0.000
1640060682495150080,"2021-12-21,04:24:42",10.1.1.5,0.3921780586242676,-0.160,-0.160,-0.160,0.000,0.000,0.000
1640060682785474048,"2021-12-21,04:24:42",10.1.1.5,288,-0.150,-0.150,-0.150,0.000,0.000,0.000
1640060682816975104,"2021-12-21,04:24:42",10.1.1.5,0.320512056350708,-0.150,-0.150,-0.150,0.000,0.000,0.000
1640060683124780800,"2021-12-21,04:24:43",10.1.1.5,306,-0.140,-0.140,-0.140,0.000,0.000,0.000
1640060683138564096,"2021-12-21,04:24:43",10.1.1.5,0.3201429843902588,-0.140,-0.140,-0.140,0.000,0.000,0.000
1640060683466028032,"2021-12-21,04:24:43",10.1.1.5,325,-0.130,-0.130,-0.130,0.000,0.000,0.000
1640060683491659008,"2021-12-21,04:24:43",10.1.1.5,0.3512139320373535,-0.130,-0.130,-0.130,0.000,0.000,0.000
1640060683805715200,"2021-12-21,04:24:43",10.1.1.5,312,-0.120,-0.120,-0.120,0.000,0.000,0.000
1640060683835837952,"2021-12-21,04:24:43",10.1.1.5,0.3429141044616699,-0.120,-0.120,-0.120,0.000,0.000,0.000
1640060684145374976,"2021-12-21,04:24:44",10.1.1.5,307,-0.110,-0.110,-0.110,0.000,0.000,0.000
1640060684169581824,"2021-12-21,04:24:44",10.1.1.5,0.3321199417114258,-0.110,-0.110,-0.110,0.000,0.000,0.000
1640060684465105920,"2021-12-21,04:24:44",10.1.1.5,293,-0.100,-0.100,-0.100,0.000,0.000,0.000
1640060684490191872,"2021-12-21,04:24:44",10.1.1.5,0.3193199634552002,-0.100,-0.100,-0.100,0.000,0.000,0.000
1640060684804999168,"2021-12-21,04:24:44",10.1.1.5,311,-0.090,-0.090,-0.090,0.000,0.000,0.000
1640060684812028928,"2021-12-21,04:24:44",10.1.1.5,0.3186929225921631,-0.090,-0.090,-0.090,0.000,0.000,0.000
1640060685104747008,"2021-12-21,04:24:45",10.1.1.5,291,-0.080,-0.080,-0.080,0.000,0.000,0.000
1640060685134912000,"2021-12-21,04:24:45",10.1.1.5,0.3214728832244873,-0.080,-0.080,-0.080,0.000,0.000,0.000
1640060685456800000,"2021-12-21,04:24:45",10.1.1.5,320,-0.070,-0.070,-0.070,0.000,0.000,0.000
1640060685475645184,"2021-12-21,04:24:45",10.1.1.5,0.3394351005554199,-0.070,-0.070,-0.070,0.000,0.000,0.000
1640060685806627072,"2021-12-21,04:24:45",10.1.1.5,328,-0.060,-0.060,-0.060,0.000,0.000,0.000
1640060685844051968,"2021-12-21,04:24:45",10.1.1.5,0.3657989501953125,-0.060,-0.060,-0.060,0.000,0.000,0.000
1640060686188028160,"2021-12-21,04:24:46",10.1.1.5,340,-0.050,-0.050,-0.050,0.000,0.000,0.000
1640060686275474944,"2021-12-21,04:24:46",10.1.1.5,0.4299130439758301,-0.050,-0.050,-0.050,0.000,0.000,0.000
1640060686586146048,"2021-12-21,04:24:46",10.1.1.5,309,-0.040,-0.040,-0.040,0.000,0.000,0.000
1640060686612256000,"2021-12-21,04:24:46",10.1.1.5,0.3354501724243164,-0.040,-0.040,-0.040,0.000,0.000,0.000
1640060686896884992,"2021-12-21,04:24:46",10.1.1.5,283,-0.030,-0.030,-0.030,0.000,0.000,0.000
1640060686924101120,"2021-12-21,04:24:46",10.1.1.5,0.31058502197265625,-0.030,-0.030,-0.030,0.000,0.000,0.000
1640060687214195968,"2021-12-21,04:24:47",10.1.1.5,288,-0.020,-0.020,-0.020,0.000,0.000,0.000
1640060687242116864,"2021-12-21,04:24:47",10.1.1.5,0.3159780502319336,-0.020,-0.020,-0.020,0.000,0.000,0.000
1640060687577869056,"2021-12-21,04:24:47",10.1.1.5,331,-0.010,-0.010,-0.010,0.000,0.000,0.000
1640060687630232064,"2021-12-21,04:24:47",10.1.1.5,0.3839881420135498,-0.010,-0.010,-0.010,0.000,0.000,0.000
1640060687943964928,"2021-12-21,04:24:47",10.1.1.5,306,0.000,0.000,0.000,0.000,0.000,0.000
1640060687976568064,"2021-12-21,04:24:47",10.1.1.5,0.33957695960998535,0.000,0.000,0.000,0.000,0.000,0.000
1640060688298791936,"2021-12-21,04:24:48",10.1.1.5,320,-0.010,-0.010,-0.010,0.000,0.000,0.000
1640060688314529792,"2021-12-21,04:24:48",10.1.1.5,0.3365910053253174,-0.010,-0.010,-0.010,0.000,0.000,0.000
1640060688633858816,"2021-12-21,04:24:48",10.1.1.5,316,-0.020,-0.020,-0.020,0.000,0.000,0.000
1640060688671663104,"2021-12-21,04:24:48",10.1.1.5,0.35402798652648926,-0.020,-0.020,-0.020,0.000,0.000,0.000
1640060688993295872,"2021-12-21,04:24:48",10.1.1.5,318,-0.030,-0.030,-0.030,0.000,0.000,0.000
1640060689043195136,"2021-12-21,04:24:49",10.1.1.5,0.36856913566589355,-0.030,-0.030,-0.030,0.000,0.000,0.000
1640060689355284992,"2021-12-21,04:24:49",10.1.1.5,309,-0.040,-0.040,-0.040,0.000,0.000,0.000
1640060689426699008,"2021-12-21,04:24:49",10.1.1.5,0.3812270164489746,-0.040,-0.040,-0.040,0.000,0.000,0.000
1640060689714294016,"2021-12-21,04:24:49",10.1.1.5,285,-0.050,-0.050,-0.050,0.000,0.000,0.000
1640060689756759040,"2021-12-21,04:24:49",10.1.1.5,0.32765913009643555,-0.050,-0.050,-0.050,0.000,0.000,0.000
1640060690097347072,"2021-12-21,04:24:50",10.1.1.5,319,-0.060,-0.060,-0.060,0.000,0.000,0.000
1640060690149522176,"2021-12-21,04:24:50",10.1.1.5,0.37194108963012695,-0.060,-0.060,-0.060,0.000,0.000,0.000
1640060690452899840,"2021-12-21,04:24:50",10.1.1.5,299,-0.070,-0.070,-0.070,0.000,0.000,0.000
1640060690487909120,"2021-12-21,04:24:50",10.1.1.5,0.33410000801086426,-0.070,-0.070,-0.070,0.000,0.000,0.000
1640060690810985984,"2021-12-21,04:24:50",10.1.1.5,315,-0.080,-0.080,-0.080,0.000,0.000,0.000
1640060690859361024,"2021-12-21,04:24:50",10.1.1.5,0.36412715911865234,-0.080,-0.080,-0.080,0.000,0.000,0.000
1640060691201585152,"2021-12-21,04:24:51",10.1.1.5,333,-0.090,-0.090,-0.090,0.000,0.000,0.000
1640060691233086976,"2021-12-21,04:24:51",10.1.1.5,0.36451101303100586,-0.090,-0.090,-0.090,0.000,0.000,0.000
1640060691591661056,"2021-12-21,04:24:51",10.1.1.5,356,-0.100,-0.100,-0.100,0.000,0.000,0.000
1640060691597489152,"2021-12-21,04:24:51",10.1.1.5,0.3625071048736572,-0.100,-0.100,-0.100,0.000,0.000,0.000
1640060691921309952,"2021-12-21,04:24:51",10.1.1.5,319,-0.110,-0.110,-0.110,0.000,0.000,0.000
1640060692014246912,"2021-12-21,04:24:52",10.1.1.5,0.41254615783691406,-0.110,-0.110,-0.110,0.000,0.000,0.000
1640060692323299840,"2021-12-21,04:24:52",10.1.1.5,306,-0.120,-0.120,-0.120,0.000,0.000,0.000
1640060692373435136,"2021-12-21,04:24:52",10.1.1.5,0.3571510314941406,-0.120,-0.120,-0.120,0.000,0.000,0.000
1640060692680677888,"2021-12-21,04:24:52",10.1.1.5,304,-0.130,-0.130,-0.130,0.000,0.000,0.000
1640060692746049792,"2021-12-21,04:24:52",10.1.1.5,0.37098002433776855,-0.130,-0.130,-0.130,0.000,0.000,0.000
1640060693091842816,"2021-12-21,04:24:53",10.1.1.5,343,-0.140,-0.140,-0.140,0.000,0.000,0.000
1640060693123666176,"2021-12-21,04:24:53",10.1.1.5,0.37580299377441406,-0.140,-0.140,-0.140,0.000,0.000,0.000
1640060693408327936,"2021-12-21,04:24:53",10.1.1.5,281,-0.150,-0.150,-0.150,0.000,0.000,0.000
1640060693446482944,"2021-12-21,04:24:53",10.1.1.5,0.3200221061706543,-0.150,-0.150,-0.150,0.000,0.000,0.000
1640060693799725056,"2021-12-21,04:24:53",10.1.1.5,345,-0.160,-0.160,-0.160,0.000,0.000,0.000
1640060693820029952,"2021-12-21,04:24:53",10.1.1.5,0.36493682861328125,-0.160,-0.160,-0.160,0.000,0.000,0.000
1640060694173058048,"2021-12-21,04:24:54",10.1.1.5,350,-0.170,-0.170,-0.170,0.000,0.000,0.000
1640060694210959872,"2021-12-21,04:24:54",10.1.1.5,0.3885951042175293,-0.170,-0.170,-0.170,0.000,0.000,0.000
1640060694527123968,"2021-12-21,04:24:54",10.1.1.5,310,-0.180,-0.180,-0.180,0.000,0.000,0.000
1640060694606798848,"2021-12-21,04:24:54",10.1.1.5,0.38989901542663574,-0.180,-0.180,-0.180,0.000,0.000,0.000
1640060694897581056,"2021-12-21,04:24:54",10.1.1.5,287,-0.190,-0.190,-0.190,0.000,0.000,0.000
1640060694978085888,"2021-12-21,04:24:54",10.1.1.5,0.3687450885772705,-0.190,-0.190,-0.190,0.000,0.000,0.000
1640060695296721920,"2021-12-21,04:24:55",10.1.1.5,317,-0.200,-0.200,-0.200,0.000,0.000,0.000
1640060695302174208,"2021-12-21,04:24:55",10.1.1.5,0.3226430416107178,-0.200,-0.200,-0.200,0.000,0.000,0.000
1640060695689186048,"2021-12-21,04:24:55",10.1.1.5,377,-0.210,-0.210,-0.210,0.000,0.000,0.000
1640060695736017920,"2021-12-21,04:24:55",10.1.1.5,0.4245331287384033,-0.210,-0.210,-0.210,0.000,0.000,0.000
1640060696066488064,"2021-12-21,04:24:56",10.1.1.5,326,-0.220,-0.220,-0.220,0.000,0.000,0.000
1640060696144646912,"2021-12-21,04:24:56",10.1.1.5,0.4053359031677246,-0.220,-0.220,-0.220,0.000,0.000,0.000
1640060696454987008,"2021-12-21,04:24:56",10.1.1.5,308,-0.230,-0.230,-0.230,0.000,0.000,0.000
1640060696522330880,"2021-12-21,04:24:56",10.1.1.5,0.3762660026550293,-0.230,-0.230,-0.230,0.000,0.000,0.000
1640060696806958848,"2021-12-21,04:24:56",10.1.1.5,283,-0.240,-0.240,-0.240,0.000,0.000,0.000
1640060696871804928,"2021-12-21,04:24:56",10.1.1.5,0.3481321334838867,-0.240,-0.240,-0.240,0.000,0.000,0.000
1640060697205137920,"2021-12-21,04:24:57",10.1.1.5,329,-0.250,-0.250,-0.250,0.000,0.000,0.000
1640060697246692864,"2021-12-21,04:24:57",10.1.1.5,0.3712620735168457,-0.250,-0.250,-0.250,0.000,0.000,0.000
1640060697574494976,"2021-12-21,04:24:57",10.1.1.5,324,-0.260,-0.260,-0.260,0.000,0.000,0.000
1640060697594021120,"2021-12-21,04:24:57",10.1.1.5,0.3443279266357422,-0.260,-0.260,-0.260,0.000,0.000,0.000
1640060697923324160,"2021-12-21,04:24:57",10.1.1.5,325,-0.270,-0.270,-0.270,0.000,0.000,0.000
1640060697964210944,"2021-12-21,04:24:57",10.1.1.5,0.3667781352996826,-0.270,-0.270,-0.270,0.000,0.000,0.000
1640060698292891904,"2021-12-21,04:24:58",10.1.1.5,326,-0.280,-0.280,-0.280,0.000,0.000,0.000
1640060698353552128,"2021-12-21,04:24:58",10.1.1.5,0.3879220485687256,-0.280,-0.280,-0.280,0.000,0.000,0.000
1640060698643632896,"2021-12-21,04:24:58",10.1.1.5,287,-0.290,-0.290,-0.290,0.000,0.000,0.000
1640060698693775872,"2021-12-21,04:24:58",10.1.1.5,0.33890509605407715,-0.290,-0.290,-0.290,0.000,0.000,0.000
1640060699032088064,"2021-12-21,04:24:59",10.1.1.5,336,-0.300,-0.300,-0.300,0.000,0.000,0.000
1640060699057859840,"2021-12-21,04:24:59",10.1.1.5,0.36268186569213867,-0.300,-0.300,-0.300,0.000,0.000,0.000
1640060699416454912,"2021-12-21,04:24:59",10.1.1.5,0.3532681465148926,-0.310,-0.310,-0.310,0.000,0.000,0.000
1640060699416722944,"2021-12-21,04:24:59",10.1.1.5,353,-0.310,-0.310,-0.310,0.000,0.000,0.000
1640060699772144128,"2021-12-21,04:24:59",10.1.1.5,351,-0.320,-0.320,-0.320,0.000,0.000,0.000
1640060699798458112,"2021-12-21,04:24:59",10.1.1.5,0.37770795822143555,-0.320,-0.320,-0.320,0.000,0.000,0.000
1640060700130359040,"2021-12-21,04:25:00",10.1.1.5,324,-0.330,-0.330,-0.330,0.000,0.000,0.000
1640060700175552000,"2021-12-21,04:25:00",10.1.1.5,0.37013816833496094,-0.330,-0.330,-0.330,0.000,0.000,0.000
1640060700494131968,"2021-12-21,04:25:00",10.1.1.5,314,-0.340,-0.340,-0.340,0.000,0.000,0.000
1640060700590265088,"2021-12-21,04:25:00",10.1.1.5,0.41313600540161133,-0.340,-0.340,-0.340,0.000,0.000,0.000
1640060700887796992,"2021-12-21,04:25:00",10.1.1.5,291,-0.350,-0.350,-0.350,0.000,0.000,0.000
1640060700935527936,"2021-12-21,04:25:00",10.1.1.5,0.34031105041503906,-0.350,-0.350,-0.350,0.000,0.000,0.000
1640060701239278080,"2021-12-21,04:25:01",10.1.1.5,300,-0.360,-0.360,-0.360,0.000,0.000,0.000
1640060701310326016,"2021-12-21,04:25:01",10.1.1.5,0.37334299087524414,-0.360,-0.360,-0.360,0.000,0.000,0.000
1640060701632599040,"2021-12-21,04:25:01",10.1.1.5,319,-0.370,-0.370,-0.370,0.000,0.000,0.000
1640060701671843072,"2021-12-21,04:25:01",10.1.1.5,0.3600900173187256,-0.370,-0.370,-0.370,0.000,0.000,0.000
1640060702002820096,"2021-12-21,04:25:02",10.1.1.5,324,-0.380,-0.380,-0.380,0.000,0.000,0.000
1640060702020500992,"2021-12-21,04:25:02",10.1.1.5,0.34197497367858887,-0.380,-0.380,-0.380,0.000,0.000,0.000
1640060702372045056,"2021-12-21,04:25:02",10.1.1.5,348,-0.390,-0.390,-0.390,0.000,0.000,0.000
1640060702402941952,"2021-12-21,04:25:02",10.1.1.5,0.3798351287841797,-0.390,-0.390,-0.390,0.000,0.000,0.000
1640060702773398016,"2021-12-21,04:25:02",10.1.1.5,350,-0.400,-0.400,-0.400,0.000,0.000,0.000
1640060702801956864,"2021-12-21,04:25:02",10.1.1.5,0.39583492279052734,-0.400,-0.400,-0.400,0.000,0.000,0.000
1640060703105612032,"2021-12-21,04:25:03",10.1.1.5,301,-0.410,-0.410,-0.410,0.000,0.000,0.000
1640060703146781952,"2021-12-21,04:25:03",10.1.1.5,0.34334492683410645,-0.410,-0.410,-0.410,0.000,0.000,0.000
1640060703485369088,"2021-12-21,04:25:03",10.1.1.5,325,-0.420,-0.420,-0.420,0.000,0.000,0.000
1640060703579885056,"2021-12-21,04:25:03",10.1.1.5,0.42067980766296387,-0.420,-0.420,-0.420,0.000,0.000,0.000
1640060703888387840,"2021-12-21,04:25:03",10.1.1.5,306,-0.430,-0.430,-0.430,0.000,0.000,0.000
1640060703901596160,"2021-12-21,04:25:03",10.1.1.5,0.3199160099029541,-0.430,-0.430,-0.430,0.000,0.000,0.000
1640060704290190848,"2021-12-21,04:25:04",10.1.1.5,386,-0.440,-0.440,-0.440,0.000,0.000,0.000
1640060704291716096,"2021-12-21,04:25:04",10.1.1.5,0.38810014724731445,-0.440,-0.440,-0.440,0.000,0.000,0.000
1640060704650154240,"2021-12-21,04:25:04",10.1.1.5,356,-0.450,-0.450,-0.450,0.000,0.000,0.000
1640060704691116032,"2021-12-21,04:25:04",10.1.1.5,0.3974440097808838,-0.450,-0.450,-0.450,0.000,0.000,0.000
1640060704981900032,"2021-12-21,04:25:04",10.1.1.5,288,-0.460,-0.460,-0.460,0.000,0.000,0.000
1640060705007213056,"2021-12-21,04:25:05",10.1.1.5,0.3143439292907715,-0.460,-0.460,-0.460,0.000,0.000,0.000
1640060705372553984,"2021-12-21,04:25:05",10.1.1.5,362,-0.470,-0.470,-0.470,0.000,0.000,0.000
1640060705434253824,"2021-12-21,04:25:05",10.1.1.5,0.4248380661010742,-0.470,-0.470,-0.470,0.000,0.000,0.000
1640060705725416960,"2021-12-21,04:25:05",10.1.1.5,289,-0.480,-0.480,-0.480,0.000,0.000,0.000
1640060705767589120,"2021-12-21,04:25:05",10.1.1.5,0.33192896842956543,-0.480,-0.480,-0.480,0.000,0.000,0.000
1640060706084388864,"2021-12-21,04:25:06",10.1.1.5,312,-0.490,-0.490,-0.490,0.000,0.000,0.000
1640060706127260928,"2021-12-21,04:25:06",10.1.1.5,0.35516881942749023,-0.490,-0.490,-0.490,0.000,0.000,0.000
1640060706455333120,"2021-12-21,04:25:06",10.1.1.5,320,-0.480,-0.480,-0.480,0.000,0.000,0.000
1640060706486156032,"2021-12-21,04:25:06",10.1.1.5,0.35188817977905273,-0.480,-0.480,-0.480,0.000,0.000,0.000
1640060706838073088,"2021-12-21,04:25:06",10.1.1.5,335,-0.470,-0.470,-0.470,0.000,0.000,0.000
1640060706877017088,"2021-12-21,04:25:06",10.1.1.5,0.3749730587005615,-0.470,-0.470,-0.470,0.000,0.000,0.000
1640060707193576192,"2021-12-21,04:25:07",10.1.1.5,309,-0.460,-0.460,-0.460,0.000,0.000,0.000
1640060707230916096,"2021-12-21,04:25:07",10.1.1.5,0.3471660614013672,-0.460,-0.460,-0.460,0.000,0.000,0.000
1640060707577369856,"2021-12-21,04:25:07",10.1.1.5,343,-0.450,-0.450,-0.450,0.000,0.000,0.000
1640060707634398976,"2021-12-21,04:25:07",10.1.1.5,0.40146398544311523,-0.450,-0.450,-0.450,0.000,0.000,0.000
1640060707934455040,"2021-12-21,04:25:07",10.1.1.5,298,-0.440,-0.440,-0.440,0.000,0.000,0.000
1640060707997338112,"2021-12-21,04:25:07",10.1.1.5,0.3617420196533203,-0.440,-0.440,-0.440,0.000,0.000,0.000
1640060708315206144,"2021-12-21,04:25:08",10.1.1.5,316,-0.430,-0.430,-0.430,0.000,0.000,0.000
1640060708367631872,"2021-12-21,04:25:08",10.1.1.5,0.36855006217956543,-0.430,-0.430,-0.430,0.000,0.000,0.000
1640060708679932160,"2021-12-21,04:25:08",10.1.1.5,302,-0.420,-0.420,-0.420,0.000,0.000,0.000
1640060708711360000,"2021-12-21,04:25:08",10.1.1.5,0.3344290256500244,-0.420,-0.420,-0.420,0.000,0.000,0.000
1640060709065614848,"2021-12-21,04:25:09",10.1.1.5,351,-0.410,-0.410,-0.410,0.000,0.000,0.000
1640060709095129856,"2021-12-21,04:25:09",10.1.1.5,0.38169097900390625,-0.410,-0.410,-0.410,0.000,0.000,0.000
1640060709416506112,"2021-12-21,04:25:09",10.1.1.5,319,-0.400,-0.400,-0.400,0.000,0.000,0.000
1640060709471102976,"2021-12-21,04:25:09",10.1.1.5,0.3744218349456787,-0.400,-0.400,-0.400,0.000,0.000,0.000
1640060709808967168,"2021-12-21,04:25:09",10.1.1.5,331,-0.390,-0.390,-0.390,0.000,0.000,0.000
1640060709849234944,"2021-12-21,04:25:09",10.1.1.5,0.37218499183654785,-0.390,-0.390,-0.390,0.000,0.000,0.000
1640060710200977152,"2021-12-21,04:25:10",10.1.1.5,0.3505740165710449,-0.380,-0.380,-0.380,0.000,0.000,0.000
1640060710201148928,"2021-12-21,04:25:10",10.1.1.5,350,-0.380,-0.380,-0.380,0.000,0.000,0.000
1640060710507123968,"2021-12-21,04:25:10",10.1.1.5,304,-0.370,-0.370,-0.370,0.000,0.000,0.000
1640060710550411008,"2021-12-21,04:25:10",10.1.1.5,0.3479440212249756,-0.370,-0.370,-0.370,0.000,0.000,0.000
1640060710886081024,"2021-12-21,04:25:10",10.1.1.5,332,-0.360,-0.360,-0.360,0.000,0.000,0.000
1640060710935740928,"2021-12-21,04:25:10",10.1.1.5,0.3825039863586426,-0.360,-0.360,-0.360,0.000,0.000,0.000
1640060711255662848,"2021-12-21,04:25:11",10.1.1.5,309,-0.350,-0.350,-0.350,0.000,0.000,0.000
1640060711300744960,"2021-12-21,04:25:11",10.1.1.5,0.35474705696105957,-0.350,-0.350,-0.350,0.000,0.000,0.000
1640060711657958912,"2021-12-21,04:25:11",10.1.1.5,354,-0.340,-0.340,-0.340,0.000,0.000,0.000
1640060711678320896,"2021-12-21,04:25:11",10.1.1.5,0.3753809928894043,-0.340,-0.340,-0.340,0.000,0.000,0.000
1640060711996273920,"2021-12-21,04:25:11",10.1.1.5,310,-0.330,-0.330,-0.330,0.000,0.000,0.000
1640060712037046016,"2021-12-21,04:25:12",10.1.1.5,0.351046085357666,-0.330,-0.330,-0.330,0.000,0.000,0.000
1640060712427460864,"2021-12-21,04:25:12",10.1.1.5,379,-0.320,-0.320,-0.320,0.000,0.000,0.000
1640060712466321920,"2021-12-21,04:25:12",10.1.1.5,0.41916918754577637,-0.320,-0.320,-0.320,0.000,0.000,0.000
1640060712755336960,"2021-12-21,04:25:12",10.1.1.5,287,-0.310,-0.310,-0.310,0.000,0.000,0.000
1640060712803985152,"2021-12-21,04:25:12",10.1.1.5,0.3357269763946533,-0.310,-0.310,-0.310,0.000,0.000,0.000
1640060713137761024,"2021-12-21,04:25:13",10.1.1.5,328,-0.300,-0.300,-0.300,0.000,0.000,0.000
1640060713209518848,"2021-12-21,04:25:13",10.1.1.5,0.4015061855316162,-0.300,-0.300,-0.300,0.000,0.000,0.000
1640060713545995008,"2021-12-21,04:25:13",10.1.1.5,334,-0.290,-0.290,-0.290,0.000,0.000,0.000
1640060713591077120,"2021-12-21,04:25:13",10.1.1.5,0.38019490242004395,-0.290,-0.290,-0.290,0.000,0.000,0.000
1640060713887741184,"2021-12-21,04:25:13",10.1.1.5,294,-0.280,-0.280,-0.280,0.000,0.000,0.000
1640060713931316992,"2021-12-21,04:25:13",10.1.1.5,0.33886098861694336,-0.280,-0.280,-0.280,0.000,0.000,0.000
1640060714225291008,"2021-12-21,04:25:14",10.1.1.5,291,-0.270,-0.270,-0.270,0.000,0.000,0.000
1640060714260648960,"2021-12-21,04:25:14",10.1.1.5,0.32741689682006836,-0.270,-0.270,-0.270,0.000,0.000,0.000
1640060714596350976,"2021-12-21,04:25:14",10.1.1.5,333,-0.260,-0.260,-0.260,0.000,0.000,0.000
1640060714690955008,"2021-12-21,04:25:14",10.1.1.5,0.4287068843841553,-0.260,-0.260,-0.260,0.000,0.000,0.000
1640060714985690112,"2021-12-21,04:25:14",10.1.1.5,292,-0.250,-0.250,-0.250,0.000,0.000,0.000
1640060715017211904,"2021-12-21,04:25:15",10.1.1.5,0.3242959976196289,-0.250,-0.250,-0.250,0.000,0.000,0.000
1640060715356818944,"2021-12-21,04:25:15",10.1.1.5,336,-0.240,-0.240,-0.240,0.000,0.000,0.000
1640060715456843008,"2021-12-21,04:25:15",10.1.1.5,0.4376099109649658,-0.240,-0.240,-0.240,0.000,0.000,0.000
1640060715775495936,"2021-12-21,04:25:15",10.1.1.5,316,-0.230,-0.230,-0.230,0.000,0.000,0.000
1640060715792675072,"2021-12-21,04:25:15",10.1.1.5,0.3339850902557373,-0.230,-0.230,-0.230,0.000,0.000,0.000
1640060716114280960,"2021-12-21,04:25:16",10.1.1.5,319,-0.220,-0.220,-0.220,0.000,0.000,0.000
1640060716128995840,"2021-12-21,04:25:16",10.1.1.5,0.33391404151916504,-0.220,-0.220,-0.220,0.000,0.000,0.000
1640060716467102976,"2021-12-21,04:25:16",10.1.1.5,326,-0.210,-0.210,-0.210,0.000,0.000,0.000
1640060716538785024,"2021-12-21,04:25:16",10.1.1.5,0.3980538845062256,-0.210,-0.210,-0.210,0.000,0.000,0.000
1640060716843844864,"2021-12-21,04:25:16",10.1.1.5,302,-0.200,-0.200,-0.200,0.000,0.000,0.000
1640060716931088896,"2021-12-21,04:25:16",10.1.1.5,0.39016008377075195,-0.200,-0.200,-0.200,0.000,0.000,0.000
1640060717223485952,"2021-12-21,04:25:17",10.1.1.5,290,-0.190,-0.190,-0.190,0.000,0.000,0.000
1640060717285772032,"2021-12-21,04:25:17",10.1.1.5,0.3524158000946045,-0.190,-0.190,-0.190,0.000,0.000,0.000
1640060717617538816,"2021-12-21,04:25:17",10.1.1.5,325,-0.180,-0.180,-0.180,0.000,0.000,0.000
1640060717690030080,"2021-12-21,04:25:17",10.1.1.5,0.3980081081390381,-0.180,-0.180,-0.180,0.000,0.000,0.000
1640060717992613120,"2021-12-21,04:25:17",10.1.1.5,301,-0.170,-0.170,-0.170,0.000,0.000,0.000
1640060718013849856,"2021-12-21,04:25:18",10.1.1.5,0.3225409984588623,-0.170,-0.170,-0.170,0.000,0.000,0.000
1640060718304183040,"2021-12-21,04:25:18",10.1.1.5,287,-0.160,-0.160,-0.160,0.000,0.000,0.000
1640060718345400064,"2021-12-21,04:25:18",10.1.1.5,0.3289010524749756,-0.160,-0.160,-0.160,0.000,0.000,0.000
1640060718718068992,"2021-12-21,04:25:18",10.1.1.5,362,-0.150,-0.150,-0.150,0.000,0.000,0.000
1640060718758019072,"2021-12-21,04:25:18",10.1.1.5,0.40123891830444336,-0.150,-0.150,-0.150,0.000,0.000,0.000
1640060719053134080,"2021-12-21,04:25:19",10.1.1.5,293,-0.140,-0.140,-0.140,0.000,0.000,0.000
1640060719122983936,"2021-12-21,04:25:19",10.1.1.5,0.36331605911254883,-0.140,-0.140,-0.140,0.000,0.000,0.000
1640060719429985024,"2021-12-21,04:25:19",10.1.1.5,304,-0.130,-0.130,-0.130,0.000,0.000,0.000
1640060719453197056,"2021-12-21,04:25:19",10.1.1.5,0.327625036239624,-0.130,-0.130,-0.130,0.000,0.000,0.000
1640060719806654976,"2021-12-21,04:25:19",10.1.1.5,350,-0.120,-0.120,-0.120,0.000,0.000,0.000
1640060719869707008,"2021-12-21,04:25:19",10.1.1.5,0.41416311264038086,-0.120,-0.120,-0.120,0.000,0.000,0.000
1640060720179507968,"2021-12-21,04:25:20",10.1.1.5,308,-0.110,-0.110,-0.110,0.000,0.000,0.000
1640060720244720896,"2021-12-21,04:25:20",10.1.1.5,0.3735690116882324,-0.110,-0.110,-0.110,0.000,0.000,0.000
1640060720539501824,"2021-12-21,04:25:20",10.1.1.5,293,-0.100,-0.100,-0.100,0.000,0.000,0.000
1640060720571227904,"2021-12-21,04:25:20",10.1.1.5,0.3247640132904053,-0.100,-0.100,-0.100,0.000,0.000,0.000
1640060720889659904,"2021-12-21,04:25:20",10.1.1.5,306,-0.090,-0.090,-0.090,0.000,0.000,0.000
1640060720947377920,"2021-12-21,04:25:20",10.1.1.5,0.3645610809326172,-0.090,-0.090,-0.090,0.000,0.000,0.000
1640060720950024960,"2021-12-21,04:25:20",10.1.1.5,-1,-0.080,-0.080,-0.080,0.000,0.000,0.000
1640060721281473024,"2021-12-21,04:25:21",10.1.1.5,0.33240199089050293,-0.080,-0.080,-0.080,0.000,0.000,0.000
1640060721631303168,"2021-12-21,04:25:21",10.1.1.5,335,-0.070,-0.070,-0.070,0.000,0.000,0.000
1640060721633414912,"2021-12-21,04:25:21",10.1.1.5,0.338299036026001,-0.070,-0.070,-0.070,0.000,0.000,0.000
1640060721997741824,"2021-12-21,04:25:21",10.1.1.5,358,-0.060,-0.060,-0.060,0.000,0.000,0.000
1640060722099816192,"2021-12-21,04:25:22",10.1.1.5,0.46076107025146484,-0.060,-0.060,-0.060,0.000,0.000,0.000
1640060722397847808,"2021-12-21,04:25:22",10.1.1.5,295,-0.050,-0.050,-0.050,0.000,0.000,0.000
1640060722460859136,"2021-12-21,04:25:22",10.1.1.5,0.35906195640563965,-0.050,-0.050,-0.050,0.000,0.000,0.000
1640060722798536960,"2021-12-21,04:25:22",10.1.1.5,336,-0.040,-0.040,-0.040,0.000,0.000,0.000
1640060722819087104,"2021-12-21,04:25:22",10.1.1.5,0.3567519187927246,-0.040,-0.040,-0.040,0.000,0.000,0.000
1640060723127284992,"2021-12-21,04:25:23",10.1.1.5,305,-0.030,-0.030,-0.030,0.000,0.000,0.000
1640060723150286080,"2021-12-21,04:25:23",10.1.1.5,0.3290271759033203,-0.030,-0.030,-0.030,0.000,0.000,0.000
1640060723505825024,"2021-12-21,04:25:23",10.1.1.5,352,-0.020,-0.020,-0.020,0.000,0.000,0.000
1640060723595580160,"2021-12-21,04:25:23",10.1.1.5,0.4422910213470459,-0.020,-0.020,-0.020,0.000,0.000,0.000
1640060723906434048,"2021-12-21,04:25:23",10.1.1.5,308,-0.010,-0.010,-0.010,0.000,0.000,0.000
1640060723955649024,"2021-12-21,04:25:23",10.1.1.5,0.35868287086486816,-0.010,-0.010,-0.010,0.000,0.000,0.000
1640060724276879104,"2021-12-21,04:25:24",10.1.1.5,319,0.000,0.000,0.000,0.000,0.000,0.000
1640060724296244992,"2021-12-21,04:25:24",10.1.1.5,0.33610105514526367,0.000,0.000,0.000,0.000,0.000,0.000
1640060724656079104,"2021-12-21,04:25:24",10.1.1.5,348,-0.010,-0.010,-0.010,0.000,0.000,0.000
1640060724691740928,"2021-12-21,04:25:24",10.1.1.5,0.38454484939575195,-0.010,-0.010,-0.010,0.000,0.000,0.000
1640060725013936896,"2021-12-21,04:25:25",10.1.1.5,313,-0.020,-0.020,-0.020,0.000,0.000,0.000
1640060725126034944,"2021-12-21,04:25:25",10.1.1.5,0.42553210258483887,-0.020,-0.020,-0.020,0.000,0.000,0.000
1640060725482363904,"2021-12-21,04:25:25",10.1.1.5,0.3551030158996582,-0.030,-0.030,-0.030,0.000,0.000,0.000
1640060725817047040,"2021-12-21,04:25:25",10.1.1.5,332,-0.040,-0.040,-0.040,0.000,0.000,0.000
1640060725899540992,"2021-12-21,04:25:25",10.1.1.5,0.41464686393737793,-0.040,-0.040,-0.040,0.000,0.000,0.000
1640060726210330112,"2021-12-21,04:25:26",10.1.1.5,294,-0.050,-0.050,-0.050,0.000,0.000,0.000
1640060726235737088,"2021-12-21,04:25:26",10.1.1.5,0.3349580764770508,-0.050,-0.050,-0.050,0.000,0.000,0.000
1640060726551728128,"2021-12-21,04:25:26",10.1.1.5,314,-0.060,-0.060,-0.060,0.000,0.000,0.000
1640060726597353984,"2021-12-21,04:25:26",10.1.1.5,0.3599839210510254,-0.060,-0.060,-0.060,0.000,0.000,0.000
1640060726913458944,"2021-12-21,04:25:26",10.1.1.5,306,-0.070,-0.070,-0.070,0.000,0.000,0.000
1640060727022547968,"2021-12-21,04:25:27",10.1.1.5,0.41591906547546387,-0.070,-0.070,-0.070,0.000,0.000,0.000
1640060727322444800,"2021-12-21,04:25:27",10.1.1.5,293,-0.080,-0.080,-0.080,0.000,0.000,0.000
1640060727383738112,"2021-12-21,04:25:27",10.1.1.5,0.35687708854675293,-0.080,-0.080,-0.080,0.000,0.000,0.000
1640060727679151104,"2021-12-21,04:25:27",10.1.1.5,293,-0.090,-0.090,-0.090,0.000,0.000,0.000
1640060727740748032,"2021-12-21,04:25:27",10.1.1.5,0.355288028717041,-0.090,-0.090,-0.090,0.000,0.000,0.000
1640060728069637120,"2021-12-21,04:25:28",10.1.1.5,324,-0.100,-0.100,-0.100,0.000,0.000,0.000
1640060728122138880,"2021-12-21,04:25:28",10.1.1.5,0.3766520023345947,-0.100,-0.100,-0.100,0.000,0.000,0.000
1640060728449660160,"2021-12-21,04:25:28",10.1.1.5,319,-0.110,-0.110,-0.110,0.000,0.000,0.000
1640060728549923840,"2021-12-21,04:25:28",10.1.1.5,0.4195730686187744,-0.110,-0.110,-0.110,0.000,0.000,0.000
1640060728848040192,"2021-12-21,04:25:28",10.1.1.5,296,-0.120,-0.120,-0.120,0.000,0.000,0.000
1640060728909362944,"2021-12-21,04:25:28",10.1.1.5,0.35822081565856934,-0.120,-0.120,-0.120,0.000,0.000,0.000
1640060729217339904,"2021-12-21,04:25:29",10.1.1.5,301,-0.130,-0.130,-0.130,0.000,0.000,0.000
1640060729281533952,"2021-12-21,04:25:29",10.1.1.5,0.36606407165527344,-0.130,-0.130,-0.130,0.000,0.000,0.000
1640060729597794048,"2021-12-21,04:25:29",10.1.1.5,308,-0.140,-0.140,-0.140,0.000,0.000,0.000
1640060729662454016,"2021-12-21,04:25:29",10.1.1.5,0.37296104431152344,-0.140,-0.140,-0.140,0.000,0.000,0.000
1640060730013942016,"2021-12-21,04:25:30",10.1.1.5,346,-0.150,-0.150,-0.150,0.000,0.000,0.000
1640060730043682048,"2021-12-21,04:25:30",10.1.1.5,0.37595295906066895,-0.150,-0.150,-0.150,0.000,0.000,0.000
1640060730347440896,"2021-12-21,04:25:30",10.1.1.5,301,-0.160,-0.160,-0.160,0.000,0.000,0.000
1640060730428973824,"2021-12-21,04:25:30",10.1.1.5,0.3840148448944092,-0.160,-0.160,-0.160,0.000,0.000,0.000
1640060730734242048,"2021-12-21,04:25:30",10.1.1.5,302,-0.170,-0.170,-0.170,0.000,0.000,0.000
1640060730804641024,"2021-12-21,04:25:30",10.1.1.5,0.37308692932128906,-0.170,-0.170,-0.170,0.000,0.000,0.000
1640060731134440960,"2021-12-21,04:25:31",10.1.1.5,327,-0.180,-0.180,-0.180,0.000,0.000,0.000
1640060731165630208,"2021-12-21,04:25:31",10.1.1.5,0.3561270236968994,-0.180,-0.180,-0.180,0.000,0.000,0.000
1640060731503634944,"2021-12-21,04:25:31",10.1.1.5,336,-0.190,-0.190,-0.190,0.000,0.000,0.000
1640060731539633152,"2021-12-21,04:25:31",10.1.1.5,0.3726010322570801,-0.190,-0.190,-0.190,0.000,0.000,0.000
1640060731857299200,"2021-12-21,04:25:31",10.1.1.5,315,-0.200,-0.200,-0.200,0.000,0.000,0.000
1640060731904624896,"2021-12-21,04:25:31",10.1.1.5,0.36257195472717285,-0.200,-0.200,-0.200,0.000,0.000,0.000
1640060732222304000,"2021-12-21,04:25:32",10.1.1.5,306,-0.210,-0.210,-0.210,0.000,0.000,0.000
1640060732244754944,"2021-12-21,04:25:32",10.1.1.5,0.32982492446899414,-0.210,-0.210,-0.210,0.000,0.000,0.000
1640060732602590976,"2021-12-21,04:25:32",10.1.1.5,355,-0.220,-0.220,-0.220,0.000,0.000,0.000
1640060732679214080,"2021-12-21,04:25:32",10.1.1.5,0.4327371120452881,-0.220,-0.220,-0.220,0.000,0.000,0.000
1640060733013592832,"2021-12-21,04:25:33",10.1.1.5,332,-0.230,-0.230,-0.230,0.000,0.000,0.000
1640060733067003904,"2021-12-21,04:25:33",10.1.1.5,0.38633012771606445,-0.230,-0.230,-0.230,0.000,0.000,0.000
1640060733386082816,"2021-12-21,04:25:33",10.1.1.5,317,-0.240,-0.240,-0.240,0.000,0.000,0.000
1640060733446584064,"2021-12-21,04:25:33",10.1.1.5,0.37821006774902344,-0.240,-0.240,-0.240,0.000,0.000,0.000
1640060733736599040,"2021-12-21,04:25:33",10.1.1.5,288,-0.250,-0.250,-0.250,0.000,0.000,0.000
1640060733769779968,"2021-12-21,04:25:33",10.1.1.5,0.3219339847564697,-0.250,-0.250,-0.250,0.000,0.000,0.000
1640060734086530048,"2021-12-21,04:25:34",10.1.1.5,314,-0.260,-0.260,-0.260,0.000,0.000,0.000
1640060734159017984,"2021-12-21,04:25:34",10.1.1.5,0.38716602325439453,-0.260,-0.260,-0.260,0.000,0.000,0.000
1640060734460148224,"2021-12-21,04:25:34",10.1.1.5,298,-0.270,-0.270,-0.270,0.000,0.000,0.000
1640060734559961088,"2021-12-21,04:25:34",10.1.1.5,0.39878416061401367,-0.270,-0.270,-0.270,0.000,0.000,0.000
1640060734878625024,"2021-12-21,04:25:34",10.1.1.5,310,-0.280,-0.280,-0.280,0.000,0.000,0.000
1640060734916470016,"2021-12-21,04:25:34",10.1.1.5,0.35465407371520996,-0.280,-0.280,-0.280,0.000,0.000,0.000
1640060735268315904,"2021-12-21,04:25:35",10.1.1.5,0.3485441207885742,-0.290,-0.290,-0.290,0.000,0.000,0.000
1640060735269105920,"2021-12-21,04:25:35",10.1.1.5,348,-0.290,-0.290,-0.290,0.000,0.000,0.000
1640060735608918016,"2021-12-21,04:25:35",10.1.1.5,338,-0.300,-0.300,-0.300,0.000,0.000,0.000
1640060735693284864,"2021-12-21,04:25:35",10.1.1.5,0.4233388900756836,-0.300,-0.300,-0.300,0.000,0.000,0.000
1640060736026376960,"2021-12-21,04:25:36",10.1.1.5,330,-0.310,-0.310,-0.310,0.000,0.000,0.000
1640060736057084160,"2021-12-21,04:25:36",10.1.1.5,0.3622729778289795,-0.310,-0.310,-0.310,0.000,0.000,0.000
1640060736388091136,"2021-12-21,04:25:36",10.1.1.5,324,-0.320,-0.320,-0.320,0.000,0.000,0.000
1640060736431461120,"2021-12-21,04:25:36",10.1.1.5,0.3702859878540039,-0.320,-0.320,-0.320,0.000,0.000,0.000
1640060736737234944,"2021-12-21,04:25:36",10.1.1.5,303,-0.330,-0.330,-0.330,0.000,0.000,0.000
1640060736812459008,"2021-12-21,04:25:36",10.1.1.5,0.37941694259643555,-0.330,-0.330,-0.330,0.000,0.000,0.000
1640060737138631168,"2021-12-21,04:25:37",10.1.1.5,323,-0.340,-0.340,-0.340,0.000,0.000,0.000
1640060737167706112,"2021-12-21,04:25:37",10.1.1.5,0.35311102867126465,-0.340,-0.340,-0.340,0.000,0.000,0.000
1640060737482990080,"2021-12-21,04:25:37",10.1.1.5,304,-0.350,-0.350,-0.350,0.000,0.000,0.000
1640060737568332032,"2021-12-21,04:25:37",10.1.1.5,0.39000916481018066,-0.350,-0.350,-0.350,0.000,0.000,0.000
1640060737899192064,"2021-12-21,04:25:37",10.1.1.5,327,-0.360,-0.360,-0.360,0.000,0.000,0.000
1640060737919514880,"2021-12-21,04:25:37",10.1.1.5,0.34781479835510254,-0.360,-0.360,-0.360,0.000,0.000,0.000
1640060738210799104,"2021-12-21,04:25:38",10.1.1.5,289,-0.370,-0.370,-0.370,0.000,0.000,0.000
1640060738294382080,"2021-12-21,04:25:38",10.1.1.5,0.37349510192871094,-0.370,-0.370,-0.370,0.000,0.000,0.000
1640060738600923904,"2021-12-21,04:25:38",10.1.1.5,304,-0.380,-0.380,-0.380,0.000,0.000,0.000
1640060738637537024,"2021-12-21,04:25:38",10.1.1.5,0.3415360450744629,-0.380,-0.380,-0.380,0.000,0.000,0.000
1640060738963012096,"2021-12-21,04:25:38",10.1.1.5,323,-0.390,-0.390,-0.390,0.000,0.000,0.000
1640060739055527936,"2021-12-21,04:25:39",10.1.1.5,0.4160759449005127,-0.390,-0.390,-0.390,0.000,0.000,0.000
1640060739343721984,"2021-12-21,04:25:39",10.1.1.5,286,-0.400,-0.400,-0.400,0.000,0.000,0.000
1640060739422115072,"2021-12-21,04:25:39",10.1.1.5,0.36529088020324707,-0.400,-0.400,-0.400,0.000,0.000,0.000
1640060739712079104,"2021-12-21,04:25:39",10.1.1.5,287,-0.410,-0.410,-0.410,0.000,0.000,0.000
1640060739754302976,"2021-12-21,04:25:39",10.1.1.5,0.32996702194213867,-0.410,-0.410,-0.410,0.000,0.000,0.000
1640060740092987136,"2021-12-21,04:25:40",10.1.1.5,336,-0.420,-0.420,-0.420,0.000,0.000,0.000
1640060740150306048,"2021-12-21,04:25:40",10.1.1.5,0.39419007301330566,-0.420,-0.420,-0.420,0.000,0.000,0.000
1640060740456314112,"2021-12-21,04:25:40",10.1.1.5,304,-0.430,-0.430,-0.430,0.000,0.000,0.000
1640060740531843840,"2021-12-21,04:25:40",10.1.1.5,0.3801429271697998,-0.430,-0.430,-0.430,0.000,0.000,0.000
1640060740874779904,"2021-12-21,04:25:40",10.1.1.5,341,-0.440,-0.440,-0.440,0.000,0.000,0.000
1640060740940690944,"2021-12-21,04:25:40",10.1.1.5,0.40733885765075684,-0.440,-0.440,-0.440,0.000,0.000,0.000
1640060741243917056,"2021-12-21,04:25:41",10.1.1.5,301,-0.450,-0.450,-0.450,0.000,0.000,0.000
1640060741277324800,"2021-12-21,04:25:41",10.1.1.5,0.33508801460266113,-0.450,-0.450,-0.450,0.000,0.000,0.000
1640060741614600960,"2021-12-21,04:25:41",10.1.1.5,334,-0.460,-0.460,-0.460,0.000,0.000,0.000
1640060741701462016,"2021-12-21,04:25:41",10.1.1.5,0.42163991928100586,-0.460,-0.460,-0.460,0.000,0.000,0.000
1640060742006368000,"2021-12-21,04:25:42",10.1.1.5,303,-0.470,-0.470,-0.470,0.000,0.000,0.000
1640060742061705984,"2021-12-21,04:25:42",10.1.1.5,0.35898303985595703,-0.470,-0.470,-0.470,0.000,0.000,0.000
1640060742354500096,"2021-12-21,04:25:42",10.1.1.5,291,-0.480,-0.480,-0.480,0.000,0.000,0.000
1640060742405894144,"2021-12-21,04:25:42",10.1.1.5,0.342883825302124,-0.480,-0.480,-0.480,0.000,0.000,0.000
1640060742736637952,"2021-12-21,04:25:42",10.1.1.5,326,-0.490,-0.490,-0.490,0.000,0.000,0.000
1640060742786250240,"2021-12-21,04:25:42",10.1.1.5,0.37660694122314453,-0.490,-0.490,-0.490,0.000,0.000,0.000
1640060743094635008,"2021-12-21,04:25:43",10.1.1.5,305,-0.480,-0.480,-0.480,0.000,0.000,0.000
1640060743122226944,"2021-12-21,04:25:43",10.1.1.5,0.3337581157684326,-0.480,-0.480,-0.480,0.000,0.000,0.000
1640060743484706048,"2021-12-21,04:25:43",10.1.1.5,360,-0.470,-0.470,-0.470,0.000,0.000,0.000
1640060743562049024,"2021-12-21,04:25:43",10.1.1.5,0.4383211135864258,-0.470,-0.470,-0.470,0.000,0.000,0.000
1640060743855997952,"2021-12-21,04:25:43",10.1.1.5,291,-0.460,-0.460,-0.460,0.000,0.000,0.000
1640060743908360960,"2021-12-21,04:25:43",10.1.1.5,0.34408116340637207,-0.460,-0.460,-0.460,0.000,0.000,0.000
1640060744256413952,"2021-12-21,04:25:44",10.1.1.5,346,-0.450,-0.450,-0.450,0.000,0.000,0.000
1640060744323503872,"2021-12-21,04:25:44",10.1.1.5,0.4137229919433594,-0.450,-0.450,-0.450,0.000,0.000,0.000
1640060744614610944,"2021-12-21,04:25:44",10.1.1.5,289,-0.440,-0.440,-0.440,0.000,0.000,0.000
1640060744635533056,"2021-12-21,04:25:44",10.1.1.5,0.31069207191467285,-0.440,-0.440,-0.440,0.000,0.000,0.000
1640060744954513920,"2021-12-21,04:25:44",10.1.1.5,316,-0.430,-0.430,-0.430,0.000,0.000,0.000
1640060744987618048,"2021-12-21,04:25:44",10.1.1.5,0.34969091415405273,-0.430,-0.430,-0.430,0.000,0.000,0.000
1640060745294279936,"2021-12-21,04:25:45",10.1.1.5,303,-0.420,-0.420,-0.420,0.000,0.000,0.000
1640060745330174976,"2021-12-21,04:25:45",10.1.1.5,0.33969902992248535,-0.420,-0.420,-0.420,0.000,0.000,0.000
1640060745645356032,"2021-12-21,04:25:45",10.1.1.5,313,-0.410,-0.410,-0.410,0.000,0.000,0.000
1640060745671560960,"2021-12-21,04:25:45",10.1.1.5,0.33974790573120117,-0.410,-0.410,-0.410,0.000,0.000,0.000
1640060746004205056,"2021-12-21,04:25:46",10.1.1.5,329,-0.400,-0.400,-0.400,0.000,0.000,0.000
1640060746084873984,"2021-12-21,04:25:46",10.1.1.5,0.41070079803466797,-0.400,-0.400,-0.400,0.000,0.000,0.000
1640060746404701952,"2021-12-21,04:25:46",10.1.1.5,318,-0.390,-0.390,-0.390,0.000,0.000,0.000
1640060746412396800,"2021-12-21,04:25:46",10.1.1.5,0.3262059688568115,-0.390,-0.390,-0.390,0.000,0.000,0.000
1640060746703597056,"2021-12-21,04:25:46",10.1.1.5,289,-0.380,-0.380,-0.380,0.000,0.000,0.000
1640060746734793984,"2021-12-21,04:25:46",10.1.1.5,0.32042694091796875,-0.380,-0.380,-0.380,0.000,0.000,0.000
1640060747044747008,"2021-12-21,04:25:47",10.1.1.5,306,-0.370,-0.370,-0.370,0.000,0.000,0.000
1640060747062434048,"2021-12-21,04:25:47",10.1.1.5,0.326092004776001,-0.370,-0.370,-0.370,0.000,0.000,0.000
1640060747383152128,"2021-12-21,04:25:47",10.1.1.5,307,-0.360,-0.360,-0.360,0.000,0.000,0.000
1640060747436150016,"2021-12-21,04:25:47",10.1.1.5,0.360698938369751,-0.360,-0.360,-0.360,0.000,0.000,0.000
1640060747767837952,"2021-12-21,04:25:47",10.1.1.5,330,-0.350,-0.350,-0.350,0.000,0.000,0.000
1640060747829811968,"2021-12-21,04:25:47",10.1.1.5,0.3923530578613281,-0.350,-0.350,-0.350,0.000,0.000,0.000
1640060748132643840,"2021-12-21,04:25:48",10.1.1.5,301,-0.340,-0.340,-0.340,0.000,0.000,0.000
1640060748145041920,"2021-12-21,04:25:48",10.1.1.5,0.3138279914855957,-0.340,-0.340,-0.340,0.000,0.000,0.000
1640060748443695104,"2021-12-21,04:25:48",10.1.1.5,296,-0.330,-0.330,-0.330,0.000,0.000,0.000
1640060748476944896,"2021-12-21,04:25:48",10.1.1.5,0.32991790771484375,-0.330,-0.330,-0.330,0.000,0.000,0.000
1640060748825211136,"2021-12-21,04:25:48",10.1.1.5,340,-0.320,-0.320,-0.320,0.000,0.000,0.000
1640060748886328064,"2021-12-21,04:25:48",10.1.1.5,0.40226006507873535,-0.320,-0.320,-0.320,0.000,0.000,0.000
1640060749183568896,"2021-12-21,04:25:49",10.1.1.5,295,-0.310,-0.310,-0.310,0.000,0.000,0.000
1640060749209743104,"2021-12-21,04:25:49",10.1.1.5,0.3220391273498535,-0.310,-0.310,-0.310,0.000,0.000,0.000
1640060749597786880,"2021-12-21,04:25:49",10.1.1.5,381,-0.300,-0.300,-0.300,0.000,0.000,0.000
1640060749635449856,"2021-12-21,04:25:49",10.1.1.5,0.419356107711792,-0.300,-0.300,-0.300,0.000,0.000,0.000
1640060749943636992,"2021-12-21,04:25:49",10.1.1.5,306,-0.290,-0.290,-0.290,0.000,0.000,0.000
1640060750017083904,"2021-12-21,04:25:50",10.1.1.5,0.3798348903656006,-0.290,-0.290,-0.290,0.000,0.000,0.000
1640060750352395008,"2021-12-21,04:25:50",10.1.1.5,325,-0.280,-0.280,-0.280,0.000,0.000,0.000
1640060750437846784,"2021-12-21,04:25:50",10.1.1.5,0.4193379878997803,-0.280,-0.280,-0.280,0.000,0.000,0.000
1640060750753176064,"2021-12-21,04:25:50",10.1.1.5,313,-0.270,-0.270,-0.270,0.000,0.000,0.000
1640060750783038976,"2021-12-21,04:25:50",10.1.1.5,0.34332919120788574,-0.270,-0.270,-0.270,0.000,0.000,0.000
1640060751095201024,"2021-12-21,04:25:51",10.1.1.5,310,-0.260,-0.260,-0.260,0.000,0.000,0.000
1640060751143212032,"2021-12-21,04:25:51",10.1.1.5,0.3583500385284424,-0.260,-0.260,-0.260,0.000,0.000,0.000
1640060751441840896,"2021-12-21,04:25:51",10.1.1.5,296,-0.250,-0.250,-0.250,0.000,0.000,0.000
1640060751498048000,"2021-12-21,04:25:51",10.1.1.5,0.3530299663543701,-0.250,-0.250,-0.250,0.000,0.000,0.000
1640060751809725952,"2021-12-21,04:25:51",10.1.1.5,310,-0.240,-0.240,-0.240,0.000,0.000,0.000
1640060751897739776,"2021-12-21,04:25:51",10.1.1.5,0.3982279300689697,-0.240,-0.240,-0.240,0.000,0.000,0.000
1640060752189017088,"2021-12-21,04:25:52",10.1.1.5,288,-0.230,-0.230,-0.230,0.000,0.000,0.000
1640060752286277888,"2021-12-21,04:25:52",10.1.1.5,0.38573193550109863,-0.230,-0.230,-0.230,0.000,0.000,0.000
1640060752592633856,"2021-12-21,04:25:52",10.1.1.5,304,-0.220,-0.220,-0.220,0.000,0.000,0.000
1640060752686785024,"2021-12-21,04:25:52",10.1.1.5,0.39923906326293945,-0.220,-0.220,-0.220,0.000,0.000,0.000
1640060752978512128,"2021-12-21,04:25:52",10.1.1.5,290,-0.210,-0.210,-0.210,0.000,0.000,0.000
1640060753028565760,"2021-12-21,04:25:53",10.1.1.5,0.3403759002685547,-0.210,-0.210,-0.210,0.000,0.000,0.000
1640060753327707904,"2021-12-21,04:25:53",10.1.1.5,297,-0.200,-0.200,-0.200,0.000,0.000,0.000
1640060753393733888,"2021-12-21,04:25:53",10.1.1.5,0.36331701278686523,-0.200,-0.200,-0.200,0.000,0.000,0.000
1640060753712232960,"2021-12-21,04:25:53",10.1.1.5,303,-0.190,-0.190,-0.190,0.000,0.000,0.000
1640060753775687936,"2021-12-21,04:25:53",10.1.1.5,0.3670639991760254,-0.190,-0.190,-0.190,0.000,0.000,0.000
1640060754147182080,"2021-12-21,04:25:54",10.1.1.5,367,-0.180,-0.180,-0.180,0.000,0.000,0.000
1640060754204688128,"2021-12-21,04:25:54",10.1.1.5,0.4248998165130615,-0.180,-0.180,-0.180,0.000,0.000,0.000
1640060754509957120,"2021-12-21,04:25:54",10.1.1.5,301,-0.170,-0.170,-0.170,0.000,0.000,0.000
1640060754560461056,"2021-12-21,04:25:54",10.1.1.5,0.3535890579223633,-0.170,-0.170,-0.170,0.000,0.000,0.000
1640060754877129984,"2021-12-21,04:25:54",10.1.1.5,314,-0.160,-0.160,-0.160,0.000,0.000,0.000
1640060754958163968,"2021-12-21,04:25:54",10.1.1.5,0.3959829807281494,-0.160,-0.160,-0.160,0.000,0.000,0.000
1640060755257268992,"2021-12-21,04:25:55",10.1.1.5,297,-0.150,-0.150,-0.150,0.000,0.000,0.000
1640060755327697920,"2021-12-21,04:25:55",10.1.1.5,0.36789584159851074,-0.150,-0.150,-0.150,0.000,0.000,0.000
1640060755654159104,"2021-12-21,04:25:55",10.1.1.5,319,-0.140,-0.140,-0.140,0.000,0.000,0.000
1640060755664731904,"2021-12-21,04:25:55",10.1.1.5,0.3299438953399658,-0.140,-0.140,-0.140,0.000,0.000,0.000
1640060755965336064,"2021-12-21,04:25:55",10.1.1.5,298,-0.130,-0.130,-0.130,0.000,0.000,0.000
1640060755986074880,"2021-12-21,04:25:55",10.1.1.5,0.3196229934692383,-0.130,-0.130,-0.130,0.000,0.000,0.000
1640060756338424064,"2021-12-21,04:25:56",10.1.1.5,350,-0.120,-0.120,-0.120,0.000,0.000,0.000
1640060756413047040,"2021-12-21,04:25:56",10.1.1.5,0.42562198638916016,-0.120,-0.120,-0.120,0.000,0.000,0.000
1640060756703046144,"2021-12-21,04:25:56",10.1.1.5,288,-0.110,-0.110,-0.110,0.000,0.000,0.000
1640060756789972992,"2021-12-21,04:25:56",10.1.1.5,0.37563300132751465,-0.110,-0.110,-0.110,0.000,0.000,0.000
1640060757083579904,"2021-12-21,04:25:57",10.1.1.5,292,-0.100,-0.100,-0.100,0.000,0.000,0.000
1640060757120436992,"2021-12-21,04:25:57",10.1.1.5,0.3291029930114746,-0.100,-0.100,-0.100,0.000,0.000,0.000
1640060757463566080,"2021-12-21,04:25:57",10.1.1.5,340,-0.090,-0.090,-0.090,0.000,0.000,0.000
1640060757544802816,"2021-12-21,04:25:57",10.1.1.5,0.42236900329589844,-0.090,-0.090,-0.090,0.000,0.000,0.000
1640060757865181952,"2021-12-21,04:25:57",10.1.1.5,317,-0.080,-0.080,-0.080,0.000,0.000,0.000
1640060757943216128,"2021-12-21,04:25:57",10.1.1.5,0.396223783493042,-0.080,-0.080,-0.080,0.000,0.000,0.000
1640060758251727104,"2021-12-21,04:25:58",10.1.1.5,307,-0.070,-0.070,-0.070,0.000,0.000,0.000
1640060758305859072,"2021-12-21,04:25:58",10.1.1.5,0.36141204833984375,-0.070,-0.070,-0.070,0.000,0.000,0.000
1640060758633363968,"2021-12-21,04:25:58",10.1.1.5,325,-0.060,-0.060,-0.060,0.000,0.000,0.000
1640060758661117184,"2021-12-21,04:25:58",10.1.1.5,0.35352396965026855,-0.060,-0.060,-0.060,0.000,0.000,0.000
1640060759011586816,"2021-12-21,04:25:59",10.1.1.5,344,-0.050,-0.050,-0.050,0.000,0.000,0.000
1640060759089812992,"2021-12-21,04:25:59",10.1.1.5,0.4226360321044922,-0.050,-0.050,-0.050,0.000,0.000,0.000
1640060759380583168,"2021-12-21,04:25:59",10.1.1.5,289,-0.040,-0.040,-0.040,0.000,0.000,0.000
1640060759454817024,"2021-12-21,04:25:59",10.1.1.5,0.3636460304260254,-0.040,-0.040,-0.040,0.000,0.000,0.000
1640060759779710976,"2021-12-21,04:25:59",10.1.1.5,312,-0.030,-0.030,-0.030,0.000,0.000,0.000
1640060759858189056,"2021-12-21,04:25:59",10.1.1.5,0.3907279968261719,-0.030,-0.030,-0.030,0.000,0.000,0.000
1640060760168345856,"2021-12-21,04:26:00",10.1.1.5,308,-0.020,-0.020,-0.020,0.000,0.000,0.000
1640060760248019968,"2021-12-21,04:26:00",10.1.1.5,0.3885061740875244,-0.020,-0.020,-0.020,0.000,0.000,0.000
1640060760577306880,"2021-12-21,04:26:00",10.1.1.5,327,-0.010,-0.010,-0.010,0.000,0.000,0.000
1640060760622864128,"2021-12-21,04:26:00",10.1.1.5,0.3734259605407715,-0.010,-0.010,-0.010,0.000,0.000,0.000
1640060760968358912,"2021-12-21,04:26:00",10.1.1.5,344,0.000,0.000,0.000,0.000,0.000,0.000
1640060760979363072,"2021-12-21,04:26:00",10.1.1.5,0.35514211654663086,0.000,0.000,0.000,0.000,0.000,0.000
1640060761326797056,"2021-12-21,04:26:01",10.1.1.5,339,-0.010,-0.010,-0.010,0.000,0.000,0.000
1640060761356966912,"2021-12-21,04:26:01",10.1.1.5,0.3696131706237793,-0.010,-0.010,-0.010,0.000,0.000,0.000
1640060761667286016,"2021-12-21,04:26:01",10.1.1.5,308,-0.020,-0.020,-0.020,0.000,0.000,0.000
1640060761716375040,"2021-12-21,04:26:01",10.1.1.5,0.357943058013916,-0.020,-0.020,-0.020,0.000,0.000,0.000
1640060762038113024,"2021-12-21,04:26:02",10.1.1.5,318,-0.030,-0.030,-0.030,0.000,0.000,0.000
1640060762138382080,"2021-12-21,04:26:02",10.1.1.5,0.4192650318145752,-0.030,-0.030,-0.030,0.000,0.000,0.000
1640060762446296832,"2021-12-21,04:26:02",10.1.1.5,302,-0.040,-0.040,-0.040,0.000,0.000,0.000
1640060762468941056,"2021-12-21,04:26:02",10.1.1.5,0.32506299018859863,-0.040,-0.040,-0.040,0.000,0.000,0.000
1640060762793641216,"2021-12-21,04:26:02",10.1.1.5,315,-0.050,-0.050,-0.050,0.000,0.000,0.000
1640060762837512960,"2021-12-21,04:26:02",10.1.1.5,0.36670613288879395,-0.050,-0.050,-0.050,0.000,0.000,0.000
1640060763134667008,"2021-12-21,04:26:03",10.1.1.5,295,-0.060,-0.060,-0.060,0.000,0.000,0.000
1640060763207729152,"2021-12-21,04:26:03",10.1.1.5,0.3686239719390869,-0.060,-0.060,-0.060,0.000,0.000,0.000
1640060763503703040,"2021-12-21,04:26:03",10.1.1.5,293,-0.070,-0.070,-0.070,0.000,0.000,0.000
1640060763528902144,"2021-12-21,04:26:03",10.1.1.5,0.3186910152435303,-0.070,-0.070,-0.070,0.000,0.000,0.000
1640060763902291968,"2021-12-21,04:26:03",10.1.1.5,359,-0.080,-0.080,-0.080,0.000,0.000,0.000
1640060763984407808,"2021-12-21,04:26:03",10.1.1.5,0.4416952133178711,-0.080,-0.080,-0.080,0.000,0.000,0.000
1640060764332665856,"2021-12-21,04:26:04",10.1.1.5,345,-0.090,-0.090,-0.090,0.000,0.000,0.000
1640060764409660928,"2021-12-21,04:26:04",10.1.1.5,0.42239809036254883,-0.090,-0.090,-0.090,0.000,0.000,0.000
1640060764701071104,"2021-12-21,04:26:04",10.1.1.5,289,-0.100,-0.100,-0.100,0.000,0.000,0.000
1640060764733094912,"2021-12-21,04:26:04",10.1.1.5,0.31963014602661133,-0.100,-0.100,-0.100,0.000,0.000,0.000
1640060765040839936,"2021-12-21,04:26:05",10.1.1.5,305,-0.110,-0.110,-0.110,0.000,0.000,0.000
1640060765091883008,"2021-12-21,04:26:05",10.1.1.5,0.35694313049316406,-0.110,-0.110,-0.110,0.000,0.000,0.000
1640060765456748032,"2021-12-21,04:26:05",10.1.1.5,361,-0.120,-0.120,-0.120,0.000,0.000,0.000
1640060765476727040,"2021-12-21,04:26:05",10.1.1.5,0.3819599151611328,-0.120,-0.120,-0.120,0.000,0.000,0.000
1640060765785918976,"2021-12-21,04:26:05",10.1.1.5,306,-0.130,-0.130,-0.130,0.000,0.000,0.000
1640060765861534976,"2021-12-21,04:26:05",10.1.1.5,0.383105993270874,-0.130,-0.130,-0.130,0.000,0.000,0.000
1640060766170974976,"2021-12-21,04:26:06",10.1.1.5,307,-0.140,-0.140,-0.140,0.000,0.000,0.000
1640060766222328832,"2021-12-21,04:26:06",10.1.1.5,0.3590681552886963,-0.140,-0.140,-0.140,0.000,0.000,0.000
1640060766552452096,"2021-12-21,04:26:06",10.1.1.5,320,-0.150,-0.150,-0.150,0.000,0.000,0.000
1640060766620357888,"2021-12-21,04:26:06",10.1.1.5,0.388167142868042,-0.150,-0.150,-0.150,0.000,0.000,0.000
1640060766921829888,"2021-12-21,04:26:06",10.1.1.5,297,-0.160,-0.160,-0.160,0.000,0.000,0.000
1640060766974616064,"2021-12-21,04:26:06",10.1.1.5,0.35051894187927246,-0.160,-0.160,-0.160,0.000,0.000,0.000
1640060767274554112,"2021-12-21,04:26:07",10.1.1.5,289,-0.170,-0.170,-0.170,0.000,0.000,0.000
1640060767366373120,"2021-12-21,04:26:07",10.1.1.5,0.3815779685974121,-0.170,-0.170,-0.170,0.000,0.000,0.000
1640060767667116032,"2021-12-21,04:26:07",10.1.1.5,297,-0.180,-0.180,-0.180,0.000,0.000,0.000
1640060767719356928,"2021-12-21,04:26:07",10.1.1.5,0.3508930206298828,-0.180,-0.180,-0.180,0.000,0.000,0.000
1640060768024702976,"2021-12-21,04:26:08",10.1.1.5,303,-0.190,-0.190,-0.190,0.000,0.000,0.000
1640060768048079104,"2021-12-21,04:26:08",10.1.1.5,0.32674193382263184,-0.190,-0.190,-0.190,0.000,0.000,0.000
1640060768377093120,"2021-12-21,04:26:08",10.1.1.5,327,-0.200,-0.200,-0.200,0.000,0.000,0.000
1640060768462078976,"2021-12-21,04:26:08",10.1.1.5,0.4114551544189453,-0.200,-0.200,-0.200,0.000,0.000,0.000
1640060768766638080,"2021-12-21,04:26:08",10.1.1.5,295,-0.210,-0.210,-0.210,0.000,0.000,0.000
1640060768802341888,"2021-12-21,04:26:08",10.1.1.5,0.33099889755249023,-0.210,-0.210,-0.210,0.000,0.000,0.000
1640060769191063808,"2021-12-21,04:26:09",10.1.1.5,386,-0.220,-0.220,-0.220,0.000,0.000,0.000
1640060769271372032,"2021-12-21,04:26:09",10.1.1.5,0.4674830436706543,-0.220,-0.220,-0.220,0.000,0.000,0.000
1640060769579566848,"2021-12-21,04:26:09",10.1.1.5,306,-0.230,-0.230,-0.230,0.000,0.000,0.000
1640060769624016128,"2021-12-21,04:26:09",10.1.1.5,0.35095810890197754,-0.230,-0.230,-0.230,0.000,0.000,0.000
1640060769962362112,"2021-12-21,04:26:09",10.1.1.5,336,-0.240,-0.240,-0.240,0.000,0.000,0.000
1640060770044477952,"2021-12-21,04:26:10",10.1.1.5,0.4189779758453369,-0.240,-0.240,-0.240,0.000,0.000,0.000
1640060770331227904,"2021-12-21,04:26:10",10.1.1.5,284,-0.250,-0.250,-0.250,0.000,0.000,0.000
1640060770394088960,"2021-12-21,04:26:10",10.1.1.5,0.34731507301330566,-0.250,-0.250,-0.250,0.000,0.000,0.000
1640060770731350784,"2021-12-21,04:26:10",10.1.1.5,335,-0.260,-0.260,-0.260,0.000,0.000,0.000
1640060770812526848,"2021-12-21,04:26:10",10.1.1.5,0.41669392585754395,-0.260,-0.260,-0.260,0.000,0.000,0.000
1640060771132508160,"2021-12-21,04:26:11",10.1.1.5,318,-0.270,-0.270,-0.270,0.000,0.000,0.000
1640060771196655104,"2021-12-21,04:26:11",10.1.1.5,0.3826749324798584,-0.270,-0.270,-0.270,0.000,0.000,0.000
1640060771492346880,"2021-12-21,04:26:11",10.1.1.5,294,-0.280,-0.280,-0.280,0.000,0.000,0.000
1640060771523014144,"2021-12-21,04:26:11",10.1.1.5,0.32503604888916016,-0.280,-0.280,-0.280,0.000,0.000,0.000
1640060771875827200,"2021-12-21,04:26:11",10.1.1.5,350,-0.290,-0.290,-0.290,0.000,0.000,0.000
1640060771918752000,"2021-12-21,04:26:11",10.1.1.5,0.39392995834350586,-0.290,-0.290,-0.290,0.000,0.000,0.000
1640060772300441856,"2021-12-21,04:26:12",10.1.1.5,378,-0.300,-0.300,-0.300,0.000,0.000,0.000
1640060772356795136,"2021-12-21,04:26:12",10.1.1.5,0.4352250099182129,-0.300,-0.300,-0.300,0.000,0.000,0.000
1640060772676232960,"2021-12-21,04:26:12",10.1.1.5,316,-0.310,-0.310,-0.310,0.000,0.000,0.000
1640060772705661184,"2021-12-21,04:26:12",10.1.1.5,0.3464789390563965,-0.310,-0.310,-0.310,0.000,0.000,0.000
1640060773068641792,"2021-12-21,04:26:13",10.1.1.5,360,-0.320,-0.320,-0.320,0.000,0.000,0.000
1640060773154429952,"2021-12-21,04:26:13",10.1.1.5,0.44649291038513184,-0.320,-0.320,-0.320,0.000,0.000,0.000
1640060773455172096,"2021-12-21,04:26:13",10.1.1.5,299,-0.330,-0.330,-0.330,0.000,0.000,0.000
1640060773492520960,"2021-12-21,04:26:13",10.1.1.5,0.3367769718170166,-0.330,-0.330,-0.330,0.000,0.000,0.000
1640060773835459840,"2021-12-21,04:26:13",10.1.1.5,340,-0.340,-0.340,-0.340,0.000,0.000,0.000
1640060773905102848,"2021-12-21,04:26:13",10.1.1.5,0.41059112548828125,-0.340,-0.340,-0.340,0.000,0.000,0.000
1640060774224911872,"2021-12-21,04:26:14",10.1.1.5,318,-0.350,-0.350,-0.350,0.000,0.000,0.000
1640060774264209152,"2021-12-21,04:26:14",10.1.1.5,0.3573641777038574,-0.350,-0.350,-0.350,0.000,0.000,0.000
1640060774564833024,"2021-12-21,04:26:14",10.1.1.5,299,-0.360,-0.360,-0.360,0.000,0.000,0.000
1640060774613956864,"2021-12-21,04:26:14",10.1.1.5,0.34836506843566895,-0.360,-0.360,-0.360,0.000,0.000,0.000
1640060774924949760,"2021-12-21,04:26:14",10.1.1.5,309,-0.370,-0.370,-0.370,0.000,0.000,0.000
1640060774954289920,"2021-12-21,04:26:14",10.1.1.5,0.3390030860900879,-0.370,-0.370,-0.370,0.000,0.000,0.000
1640060775244668928,"2021-12-21,04:26:15",10.1.1.5,288,-0.380,-0.380,-0.380,0.000,0.000,0.000
1640060775270695936,"2021-12-21,04:26:15",10.1.1.5,0.3149220943450928,-0.380,-0.380,-0.380,0.000,0.000,0.000
1640060775557609984,"2021-12-21,04:26:15",10.1.1.5,284,-0.390,-0.390,-0.390,0.000,0.000,0.000
1640060775672316928,"2021-12-21,04:26:15",10.1.1.5,0.4000420570373535,-0.390,-0.390,-0.390,0.000,0.000,0.000
1640060775967299840,"2021-12-21,04:26:15",10.1.1.5,292,-0.400,-0.400,-0.400,0.000,0.000,0.000
1640060776009965824,"2021-12-21,04:26:16",10.1.1.5,0.336345911026001,-0.400,-0.400,-0.400,0.000,0.000,0.000
1640060776335879936,"2021-12-21,04:26:16",10.1.1.5,323,-0.410,-0.410,-0.410,0.000,0.000,0.000
1640060776389718016,"2021-12-21,04:26:16",10.1.1.5,0.377748966217041,-0.410,-0.410,-0.410,0.000,0.000,0.000
1640060776705605888,"2021-12-21,04:26:16",10.1.1.5,313,-0.420,-0.420,-0.420,0.000,0.000,0.000
1640060776738305024,"2021-12-21,04:26:16",10.1.1.5,0.3465690612792969,-0.420,-0.420,-0.420,0.000,0.000,0.000
1640060777036272128,"2021-12-21,04:26:17",10.1.1.5,296,-0.430,-0.430,-0.430,0.000,0.000,0.000
1640060777087826944,"2021-12-21,04:26:17",10.1.1.5,0.3479011058807373,-0.430,-0.430,-0.430,0.000,0.000,0.000
1640060777405738240,"2021-12-21,04:26:17",10.1.1.5,316,-0.440,-0.440,-0.440,0.000,0.000,0.000
1640060777474312960,"2021-12-21,04:26:17",10.1.1.5,0.3850829601287842,-0.440,-0.440,-0.440,0.000,0.000,0.000
1640060777775963136,"2021-12-21,04:26:17",10.1.1.5,300,-0.450,-0.450,-0.450,0.000,0.000,0.000
1640060777808555008,"2021-12-21,04:26:17",10.1.1.5,0.33265209197998047,-0.450,-0.450,-0.450,0.000,0.000,0.000
1640060778084654080,"2021-12-21,04:26:18",10.1.1.5,274,-0.460,-0.460,-0.460,0.000,0.000,0.000
1640060778128300032,"2021-12-21,04:26:18",10.1.1.5,0.3181898593902588,-0.460,-0.460,-0.460,0.000,0.000,0.000
1640060778437521920,"2021-12-21,04:26:18",10.1.1.5,307,-0.470,-0.470,-0.470,0.000,0.000,0.000
1640060778454180864,"2021-12-21,04:26:18",10.1.1.5,0.32465291023254395,-0.470,-0.470,-0.470,0.000,0.000,0.000
1640060778755729920,"2021-12-21,04:26:18",10.1.1.5,300,-0.480,-0.480,-0.480,0.000,0.000,0.000
1640060778813890816,"2021-12-21,04:26:18",10.1.1.5,0.3584721088409424,-0.480,-0.480,-0.480,0.000,0.000,0.000
1640060779139143936,"2021-12-21,04:26:19",10.1.1.5,322,-0.490,-0.490,-0.490,0.000,0.000,0.000
1640060779232327936,"2021-12-21,04:26:19",10.1.1.5,0.4154350757598877,-0.490,-0.490,-0.490,0.000,0.000,0.000
1640060779536835072,"2021-12-21,04:26:19",10.1.1.5,302,-0.480,-0.480,-0.480,0.000,0.000,0.000
1640060779588768000,"2021-12-21,04:26:19",10.1.1.5,0.3545961380004883,-0.480,-0.480,-0.480,0.000,0.000,0.000
1640060779914500864,"2021-12-21,04:26:19",10.1.1.5,323,-0.470,-0.470,-0.470,0.000,0.000,0.000
1640060779975815168,"2021-12-21,04:26:19",10.1.1.5,0.3844640254974365,-0.470,-0.470,-0.470,0.000,0.000,0.000
1640060780284472064,"2021-12-21,04:26:20",10.1.1.5,307,-0.460,-0.460,-0.460,0.000,0.000,0.000
1640060780357336064,"2021-12-21,04:26:20",10.1.1.5,0.37998008728027344,-0.460,-0.460,-0.460,0.000,0.000,0.000
1640060780714584064,"2021-12-21,04:26:20",10.1.1.5,354,-0.450,-0.450,-0.450,0.000,0.000,0.000
1640060780759069952,"2021-12-21,04:26:20",10.1.1.5,0.3988039493560791,-0.450,-0.450,-0.450,0.000,0.000,0.000
1640060781095091968,"2021-12-21,04:26:21",10.1.1.5,331,-0.440,-0.440,-0.440,0.000,0.000,0.000
1640060781188054016,"2021-12-21,04:26:21",10.1.1.5,0.4253730773925781,-0.440,-0.440,-0.440,0.000,0.000,0.000
1640060781484280064,"2021-12-21,04:26:21",10.1.1.5,293,-0.430,-0.430,-0.430,0.000,0.000,0.000
1640060781524490240,"2021-12-21,04:26:21",10.1.1.5,0.33495306968688965,-0.430,-0.430,-0.430,0.000,0.000,0.000
1640060781844376064,"2021-12-21,04:26:21",10.1.1.5,317,-0.420,-0.420,-0.420,0.000,0.000,0.000
1640060781920738048,"2021-12-21,04:26:21",10.1.1.5,0.3942568302154541,-0.420,-0.420,-0.420,0.000,0.000,0.000
1640060782265389824,"2021-12-21,04:26:22",10.1.1.5,342,-0.410,-0.410,-0.410,0.000,0.000,0.000
1640060782339344896,"2021-12-21,04:26:22",10.1.1.5,0.4172968864440918,-0.410,-0.410,-0.410,0.000,0.000,0.000
1640060782672946944,"2021-12-21,04:26:22",10.1.1.5,330,-0.400,-0.400,-0.400,0.000,0.000,0.000
1640060782727036928,"2021-12-21,04:26:22",10.1.1.5,0.3856070041656494,-0.400,-0.400,-0.400,0.000,0.000,0.000
1640060783075622912,"2021-12-21,04:26:23",10.1.1.5,344,-0.390,-0.390,-0.390,0.000,0.000,0.000
1640060783125889024,"2021-12-21,04:26:23",10.1.1.5,0.39308595657348633,-0.390,-0.390,-0.390,0.000,0.000,0.000
1640060783461569024,"2021-12-21,04:26:23",10.1.1.5,334,-0.380,-0.380,-0.380,0.000,0.000,0.000
1640060783509700096,"2021-12-21,04:26:23",10.1.1.5,0.3823671340942383,-0.380,-0.380,-0.380,0.000,0.000,0.000
1640060783861576960,"2021-12-21,04:26:23",10.1.1.5,350,-0.370,-0.370,-0.370,0.000,0.000,0.000
1640060783897715200,"2021-12-21,04:26:23",10.1.1.5,0.386660099029541,-0.370,-0.370,-0.370,0.000,0.000,0.000
1640060784200484864,"2021-12-21,04:26:24",10.1.1.5,301,-0.360,-0.360,-0.360,0.000,0.000,0.000
1640060784225426944,"2021-12-21,04:26:24",10.1.1.5,0.3262288570404053,-0.360,-0.360,-0.360,0.000,0.000,0.000
1640060784529968896,"2021-12-21,04:26:24",10.1.1.5,302,-0.350,-0.350,-0.350,0.000,0.000,0.000
1640060784579486976,"2021-12-21,04:26:24",10.1.1.5,0.3524818420410156,-0.350,-0.350,-0.350,0.000,0.000,0.000
1640060784923550976,"2021-12-21,04:26:24",10.1.1.5,342,-0.340,-0.340,-0.340,0.000,0.000,0.000
1640060784947333120,"2021-12-21,04:26:24",10.1.1.5,0.36596083641052246,-0.340,-0.340,-0.340,0.000,0.000,0.000
1640060785249718784,"2021-12-21,04:26:25",10.1.1.5,300,-0.330,-0.330,-0.330,0.000,0.000,0.000
1640060785324332032,"2021-12-21,04:26:25",10.1.1.5,0.3662421703338623,-0.330,-0.330,-0.330,0.000,0.000,0.000
1640060785657943040,"2021-12-21,04:26:25",10.1.1.5,317,-0.320,-0.320,-0.320,0.000,0.000,0.000
1640060785690547968,"2021-12-21,04:26:25",10.1.1.5,0.3497779369354248,-0.320,-0.320,-0.320,0.000,0.000,0.000
1640060786008235008,"2021-12-21,04:26:26",10.1.1.5,315,-0.310,-0.310,-0.310,0.000,0.000,0.000
1640060786039794944,"2021-12-21,04:26:26",10.1.1.5,0.34773802757263184,-0.310,-0.310,-0.310,0.000,0.000,0.000
1640060786388283136,"2021-12-21,04:26:26",10.1.1.5,346,-0.300,-0.300,-0.300,0.000,0.000,0.000
1640060786475568896,"2021-12-21,04:26:26",10.1.1.5,0.4344151020050049,-0.300,-0.300,-0.300,0.000,0.000,0.000
1640060786768431872,"2021-12-21,04:26:26",10.1.1.5,290,-0.290,-0.290,-0.290,0.000,0.000,0.000
1640060786843736832,"2021-12-21,04:26:26",10.1.1.5,0.36591005325317383,-0.290,-0.290,-0.290,0.000,0.000,0.000
1640060787191816960,"2021-12-21,04:26:27",10.1.1.5,343,-0.280,-0.280,-0.280,0.000,0.000,0.000
1640060787212765952,"2021-12-21,04:26:27",10.1.1.5,0.36476707458496094,-0.280,-0.280,-0.280,0.000,0.000,0.000
1640060787532346880,"2021-12-21,04:26:27",10.1.1.5,314,-0.270,-0.270,-0.270,0.000,0.000,0.000
1640060787603090944,"2021-12-21,04:26:27",10.1.1.5,0.38899683952331543,-0.270,-0.270,-0.270,0.000,0.000,0.000
1640060787906067968,"2021-12-21,04:26:27",10.1.1.5,301,-0.260,-0.260,-0.260,0.000,0.000,0.000
1640060787993671936,"2021-12-21,04:26:27",10.1.1.5,0.38910412788391113,-0.260,-0.260,-0.260,0.000,0.000,0.000
1640060788346057984,"2021-12-21,04:26:28",10.1.1.5,350,-0.250,-0.250,-0.250,0.000,0.000,0.000
1640060788414585088,"2021-12-21,04:26:28",10.1.1.5,0.4193990230560303,-0.250,-0.250,-0.250,0.000,0.000,0.000
1640060788736828928,"2021-12-21,04:26:28",10.1.1.5,320,-0.240,-0.240,-0.240,0.000,0.000,0.000
1640060788742161152,"2021-12-21,04:26:28",10.1.1.5,0.32550907135009766,-0.240,-0.240,-0.240,0.000,0.000,0.000
1640060789104264960,"2021-12-21,04:26:29",10.1.1.5,356,-0.230,-0.230,-0.230,0.000,0.000,0.000
1640060789143960064,"2021-12-21,04:26:29",10.1.1.5,0.39662599563598633,-0.230,-0.230,-0.230,0.000,0.000,0.000
1640060789463489024,"2021-12-21,04:26:29",10.1.1.5,317,-0.220,-0.220,-0.220,0.000,0.000,0.000
1640060789503400960,"2021-12-21,04:26:29",10.1.1.5,0.35777997970581055,-0.220,-0.220,-0.220,0.000,0.000,0.000
1640060789851667968,"2021-12-21,04:26:29",10.1.1.5,338,-0.210,-0.210,-0.210,0.000,0.000,0.000
1640060789895510784,"2021-12-21,04:26:29",10.1.1.5,0.3824319839477539,-0.210,-0.210,-0.210,0.000,0.000,0.000
1640060790217530880,"2021-12-21,04:26:30",10.1.1.5,320,-0.200,-0.200,-0.200,0.000,0.000,0.000
1640060790284270080,"2021-12-21,04:26:30",10.1.1.5,0.3871128559112549,-0.200,-0.200,-0.200,0.000,0.000,0.000
1640060790591991808,"2021-12-21,04:26:30",10.1.1.5,305,-0.190,-0.190,-0.190,0.000,0.000,0.000
1640060790672450048,"2021-12-21,04:26:30",10.1.1.5,0.386782169342041,-0.190,-0.190,-0.190,0.000,0.000,0.000
1640060790991849984,"2021-12-21,04:26:30",10.1.1.5,317,-0.180,-0.180,-0.180,0.000,0.000,0.000
1640060791055465984,"2021-12-21,04:26:31",10.1.1.5,0.3815648555755615,-0.180,-0.180,-0.180,0.000,0.000,0.000
1640060791340267776,"2021-12-21,04:26:31",10.1.1.5,283,-0.170,-0.170,-0.170,0.000,0.000,0.000
1640060791424024064,"2021-12-21,04:26:31",10.1.1.5,0.366955041885376,-0.170,-0.170,-0.170,0.000,0.000,0.000
1640060791740441088,"2021-12-21,04:26:31",10.1.1.5,314,-0.160,-0.160,-0.160,0.000,0.000,0.000
1640060791762592000,"2021-12-21,04:26:31",10.1.1.5,0.3328421115875244,-0.160,-0.160,-0.160,0.000,0.000,0.000
1640060792093667072,"2021-12-21,04:26:32",10.1.1.5,322,-0.150,-0.150,-0.150,0.000,0.000,0.000
1640060792181613056,"2021-12-21,04:26:32",10.1.1.5,0.41068100929260254,-0.150,-0.150,-0.150,0.000,0.000,0.000
1640060792513654016,"2021-12-21,04:26:32",10.1.1.5,330,-0.140,-0.140,-0.140,0.000,0.000,0.000
1640060792554632960,"2021-12-21,04:26:32",10.1.1.5,0.37109899520874023,-0.140,-0.140,-0.140,0.000,0.000,0.000
1640060792892082944,"2021-12-21,04:26:32",10.1.1.5,335,-0.130,-0.130,-0.130,0.000,0.000,0.000
1640060792967070976,"2021-12-21,04:26:32",10.1.1.5,0.41101813316345215,-0.130,-0.130,-0.130,0.000,0.000,0.000
1640060793284647936,"2021-12-21,04:26:33",10.1.1.5,300,-0.120,-0.120,-0.120,0.000,0.000,0.000
1640060793320296960,"2021-12-21,04:26:33",10.1.1.5,0.35051703453063965,-0.120,-0.120,-0.120,0.000,0.000,0.000
1640060793639702016,"2021-12-21,04:26:33",10.1.1.5,318,-0.110,-0.110,-0.110,0.000,0.000,0.000
1640060793645314048,"2021-12-21,04:26:33",10.1.1.5,0.3237590789794922,-0.110,-0.110,-0.110,0.000,0.000,0.000
1640060793975514880,"2021-12-21,04:26:33",10.1.1.5,328,-0.100,-0.100,-0.100,0.000,0.000,0.000
1640060793990853120,"2021-12-21,04:26:33",10.1.1.5,0.34403514862060547,-0.100,-0.100,-0.100,0.000,0.000,0.000
1640060794277175808,"2021-12-21,04:26:34",10.1.1.5,284,-0.090,-0.090,-0.090,0.000,0.000,0.000
1640060794333827072,"2021-12-21,04:26:34",10.1.1.5,0.34168219566345215,-0.090,-0.090,-0.090,0.000,0.000,0.000
1640060794625797120,"2021-12-21,04:26:34",10.1.1.5,290,-0.080,-0.080,-0.080,0.000,0.000,0.000
1640060794666403072,"2021-12-21,04:26:34",10.1.1.5,0.33086490631103516,-0.080,-0.080,-0.080,0.000,0.000,0.000
1640060795015089152,"2021-12-21,04:26:35",10.1.1.5,322,-0.070,-0.070,-0.070,0.000,0.000,0.000
1640060795088120064,"2021-12-21,04:26:35",10.1.1.5,0.39534592628479004,-0.070,-0.070,-0.070,0.000,0.000,0.000
1640060795404460032,"2021-12-21,04:26:35",10.1.1.5,314,-0.060,-0.060,-0.060,0.000,0.000,0.000
1640060795424057856,"2021-12-21,04:26:35",10.1.1.5,0.334414005279541,-0.060,-0.060,-0.060,0.000,0.000,0.000
1640060795723738880,"2021-12-21,04:26:35",10.1.1.5,297,-0.050,-0.050,-0.050,0.000,0.000,0.000
1640060795755287040,"2021-12-21,04:26:35",10.1.1.5,0.3287019729614258,-0.050,-0.050,-0.050,0.000,0.000,0.000
1640060796044253952,"2021-12-21,04:26:36",10.1.1.5,286,-0.040,-0.040,-0.040,0.000,0.000,0.000
1640060796084079872,"2021-12-21,04:26:36",10.1.1.5,0.32676196098327637,-0.040,-0.040,-0.040,0.000,0.000,0.000
1640060796372109056,"2021-12-21,04:26:36",10.1.1.5,286,-0.030,-0.030,-0.030,0.000,0.000,0.000
1640060796427406080,"2021-12-21,04:26:36",10.1.1.5,0.34173011779785156,-0.030,-0.030,-0.030,0.000,0.000,0.000
1640060796732178944,"2021-12-21,04:26:36",10.1.1.5,303,-0.020,-0.020,-0.020,0.000,0.000,0.000
1640060796746905088,"2021-12-21,04:26:36",10.1.1.5,0.3182179927825928,-0.020,-0.020,-0.020,0.000,0.000,0.000
1640060797071297792,"2021-12-21,04:26:37",10.1.1.5,323,-0.010,-0.010,-0.010,0.000,0.000,0.000
1640060797097999104,"2021-12-21,04:26:37",10.1.1.5,0.34978795051574707,-0.010,-0.010,-0.010,0.000,0.000,0.000
1640060797454333184,"2021-12-21,04:26:37",10.1.1.5,354,0.000,0.000,0.000,0.000,0.000,0.000
1640060797519664896,"2021-12-21,04:26:37",10.1.1.5,0.41999220848083496,0.000,0.000,0.000,0.000,0.000,0.000
1640060797846460160,"2021-12-21,04:26:37",10.1.1.5,325,-0.010,-0.010,-0.010,0.000,0.000,0.000
1640060797930632192,"2021-12-21,04:26:37",10.1.1.5,0.4094510078430176,-0.010,-0.010,-0.010,0.000,0.000,0.000
1640060798260327936,"2021-12-21,04:26:38",10.1.1.5,328,-0.020,-0.020,-0.020,0.000,0.000,0.000
1640060798306103040,"2021-12-21,04:26:38",10.1.1.5,0.3740720748901367,-0.020,-0.020,-0.020,0.000,0.000,0.000
1640060798609357056,"2021-12-21,04:26:38",10.1.1.5,301,-0.030,-0.030,-0.030,0.000,0.000,0.000
1640060798657939968,"2021-12-21,04:26:38",10.1.1.5,0.3499331474304199,-0.030,-0.030,-0.030,0.000,0.000,0.000
1640060798992454144,"2021-12-21,04:26:38",10.1.1.5,332,-0.040,-0.040,-0.040,0.000,0.000,0.000
1640060799084732160,"2021-12-21,04:26:39",10.1.1.5,0.4253420829772949,-0.040,-0.040,-0.040,0.000,0.000,0.000
1640060799403397120,"2021-12-21,04:26:39",10.1.1.5,314,-0.050,-0.050,-0.050,0.000,0.000,0.000
1640060799451668992,"2021-12-21,04:26:39",10.1.1.5,0.3628499507904053,-0.050,-0.050,-0.050,0.000,0.000,0.000
1640060799767389184,"2021-12-21,04:26:39",10.1.1.5,311,-0.060,-0.060,-0.060,0.000,0.000,0.000
1640060799884735232,"2021-12-21,04:26:39",10.1.1.5,0.4290800094604492,-0.060,-0.060,-0.060,0.000,0.000,0.000
1640060800200570112,"2021-12-21,04:26:40",10.1.1.5,313,-0.070,-0.070,-0.070,0.000,0.000,0.000
1640060800269177856,"2021-12-21,04:26:40",10.1.1.5,0.3829350471496582,-0.070,-0.070,-0.070,0.000,0.000,0.000
1640060800581218048,"2021-12-21,04:26:40",10.1.1.5,310,-0.080,-0.080,-0.080,0.000,0.000,0.000
1640060800626432768,"2021-12-21,04:26:40",10.1.1.5,0.35589599609375,-0.080,-0.080,-0.080,0.000,0.000,0.000
1640060800936857856,"2021-12-21,04:26:40",10.1.1.5,307,-0.090,-0.090,-0.090,0.000,0.000,0.000
1640060801020692224,"2021-12-21,04:26:41",10.1.1.5,0.39186716079711914,-0.090,-0.090,-0.090,0.000,0.000,0.000
1640060801309207808,"2021-12-21,04:26:41",10.1.1.5,287,-0.100,-0.100,-0.100,0.000,0.000,0.000
1640060801356602880,"2021-12-21,04:26:41",10.1.1.5,0.33463001251220703,-0.100,-0.100,-0.100,0.000,0.000,0.000
1640060801670140928,"2021-12-21,04:26:41",10.1.1.5,311,-0.110,-0.110,-0.110,0.000,0.000,0.000
1640060801710583040,"2021-12-21,04:26:41",10.1.1.5,0.35157108306884766,-0.110,-0.110,-0.110,0.000,0.000,0.000
1640060802041220864,"2021-12-21,04:26:42",10.1.1.5,328,-0.120,-0.120,-0.120,0.000,0.000,0.000
1640060802074480896,"2021-12-21,04:26:42",10.1.1.5,0.36138200759887695,-0.120,-0.120,-0.120,0.000,0.000,0.000
1640060802416667904,"2021-12-21,04:26:42",10.1.1.5,340,-0.130,-0.130,-0.130,0.000,0.000,0.000
1640060802488649984,"2021-12-21,04:26:42",10.1.1.5,0.41225385665893555,-0.130,-0.130,-0.130,0.000,0.000,0.000
1640060802817636864,"2021-12-21,04:26:42",10.1.1.5,325,-0.140,-0.140,-0.140,0.000,0.000,0.000
1640060802881457152,"2021-12-21,04:26:42",10.1.1.5,0.3902149200439453,-0.140,-0.140,-0.140,0.000,0.000,0.000
1640060803233158144,"2021-12-21,04:26:43",10.1.1.5,348,-0.150,-0.150,-0.150,0.000,0.000,0.000
1640060803305305088,"2021-12-21,04:26:43",10.1.1.5,0.42066502571105957,-0.150,-0.150,-0.150,0.000,0.000,0.000
1640060803624370944,"2021-12-21,04:26:43",10.1.1.5,316,-0.160,-0.160,-0.160,0.000,0.000,0.000
1640060803713988096,"2021-12-21,04:26:43",10.1.1.5,0.4060180187225342,-0.160,-0.160,-0.160,0.000,0.000,0.000
1640060804023922944,"2021-12-21,04:26:44",10.1.1.5,308,-0.170,-0.170,-0.170,0.000,0.000,0.000
1640060804067109120,"2021-12-21,04:26:44",10.1.1.5,0.3515779972076416,-0.170,-0.170,-0.170,0.000,0.000,0.000
1640060804394514176,"2021-12-21,04:26:44",10.1.1.5,326,-0.180,-0.180,-0.180,0.000,0.000,0.000
1640060804424860928,"2021-12-21,04:26:44",10.1.1.5,0.35652804374694824,-0.180,-0.180,-0.180,0.000,0.000,0.000
1640060804728820992,"2021-12-21,04:26:44",10.1.1.5,302,-0.190,-0.190,-0.190,0.000,0.000,0.000
1640060804841667840,"2021-12-21,04:26:44",10.1.1.5,0.415571928024292,-0.190,-0.190,-0.190,0.000,0.000,0.000
1640060805162249216,"2021-12-21,04:26:45",10.1.1.5,319,-0.200,-0.200,-0.200,0.000,0.000,0.000
1640060805173076992,"2021-12-21,04:26:45",10.1.1.5,0.3299980163574219,-0.200,-0.200,-0.200,0.000,0.000,0.000
1640060805488480000,"2021-12-21,04:26:45",10.1.1.5,313,-0.210,-0.210,-0.210,0.000,0.000,0.000
1640060805546344960,"2021-12-21,04:26:45",10.1.1.5,0.3717179298400879,-0.210,-0.210,-0.210,0.000,0.000,0.000
1640060805887813120,"2021-12-21,04:26:45",10.1.1.5,339,-0.220,-0.220,-0.220,0.000,0.000,0.000
1640060805959405056,"2021-12-21,04:26:45",10.1.1.5,0.4114351272583008,-0.220,-0.220,-0.220,0.000,0.000,0.000
1640060806276064000,"2021-12-21,04:26:46",10.1.1.5,314,-0.230,-0.230,-0.230,0.000,0.000,0.000
1640060806331876096,"2021-12-21,04:26:46",10.1.1.5,0.37078213691711426,-0.230,-0.230,-0.230,0.000,0.000,0.000
1640060806658621952,"2021-12-21,04:26:46",10.1.1.5,317,-0.240,-0.240,-0.240,0.000,0.000,0.000
1640060806698811904,"2021-12-21,04:26:46",10.1.1.5,0.3577430248260498,-0.240,-0.240,-0.240,0.000,0.000,0.000
1640060807081433088,"2021-12-21,04:26:47",10.1.1.5,380,-0.250,-0.250,-0.250,0.000,0.000,0.000
1640060807162059008,"2021-12-21,04:26:47",10.1.1.5,0.4616658687591553,-0.250,-0.250,-0.250,0.000,0.000,0.000
1640060807457920000,"2021-12-21,04:26:47",10.1.1.5,290,-0.260,-0.260,-0.260,0.000,0.000,0.000
1640060807524672000,"2021-12-21,04:26:47",10.1.1.5,0.35704898834228516,-0.260,-0.260,-0.260,0.000,0.000,0.000
1640060807856378112,"2021-12-21,04:26:47",10.1.1.5,327,-0.270,-0.270,-0.270,0.000,0.000,0.000
1640060807925800192,"2021-12-21,04:26:47",10.1.1.5,0.39702606201171875,-0.270,-0.270,-0.270,0.000,0.000,0.000
1640060808257735936,"2021-12-21,04:26:48",10.1.1.5,330,-0.280,-0.280,-0.280,0.000,0.000,0.000
1640060808355448064,"2021-12-21,04:26:48",10.1.1.5,0.4283289909362793,-0.280,-0.280,-0.280,0.000,0.000,0.000
1640060808657316864,"2021-12-21,04:26:48",10.1.1.5,298,-0.290,-0.290,-0.290,0.000,0.000,0.000
1640060808760046848,"2021-12-21,04:26:48",10.1.1.5,0.40206313133239746,-0.290,-0.290,-0.290,0.000,0.000,0.000
1640060809068676864,"2021-12-21,04:26:49",10.1.1.5,307,-0.300,-0.300,-0.300,0.000,0.000,0.000
1640060809133553152,"2021-12-21,04:26:49",10.1.1.5,0.372283935546875,-0.300,-0.300,-0.300,0.000,0.000,0.000
1640060809455735040,"2021-12-21,04:26:49",10.1.1.5,319,-0.310,-0.310,-0.310,0.000,0.000,0.000
1640060809580979968,"2021-12-21,04:26:49",10.1.1.5,0.44518303871154785,-0.310,-0.310,-0.310,0.000,0.000,0.000
1640060809885286144,"2021-12-21,04:26:49",10.1.1.5,302,-0.320,-0.320,-0.320,0.000,0.000,0.000
1640060809955282944,"2021-12-21,04:26:49",10.1.1.5,0.372938871383667,-0.320,-0.320,-0.320,0.000,0.000,0.000
1640060810266280960,"2021-12-21,04:26:50",10.1.1.5,309,-0.330,-0.330,-0.330,0.000,0.000,0.000
1640060810370331136,"2021-12-21,04:26:50",10.1.1.5,0.41360998153686523,-0.330,-0.330,-0.330,0.000,0.000,0.000
1640060810686598144,"2021-12-21,04:26:50",10.1.1.5,314,-0.340,-0.340,-0.340,0.000,0.000,0.000
1640060810750494976,"2021-12-21,04:26:50",10.1.1.5,0.37881994247436523,-0.340,-0.340,-0.340,0.000,0.000,0.000
1640060811055435008,"2021-12-21,04:26:51",10.1.1.5,302,-0.350,-0.350,-0.350,0.000,0.000,0.000
1640060811107866112,"2021-12-21,04:26:51",10.1.1.5,0.3548619747161865,-0.350,-0.350,-0.350,0.000,0.000,0.000
1640060811435897088,"2021-12-21,04:26:51",10.1.1.5,318,-0.360,-0.360,-0.360,0.000,0.000,0.000
1640060811545273088,"2021-12-21,04:26:51",10.1.1.5,0.42783117294311523,-0.360,-0.360,-0.360,0.000,0.000,0.000
1640060811879215104,"2021-12-21,04:26:51",10.1.1.5,332,-0.370,-0.370,-0.370,0.000,0.000,0.000
1640060811938654976,"2021-12-21,04:26:51",10.1.1.5,0.392193078994751,-0.370,-0.370,-0.370,0.000,0.000,0.000
1640060812259699968,"2021-12-21,04:26:52",10.1.1.5,316,-0.380,-0.380,-0.380,0.000,0.000,0.000
1640060812333489920,"2021-12-21,04:26:52",10.1.1.5,0.3903229236602783,-0.380,-0.380,-0.380,0.000,0.000,0.000
1640060812663515136,"2021-12-21,04:26:52",10.1.1.5,328,-0.390,-0.390,-0.390,0.000,0.000,0.000
1640060812692007936,"2021-12-21,04:26:52",10.1.1.5,0.35681915283203125,-0.390,-0.390,-0.390,0.000,0.000,0.000
1640060813013103104,"2021-12-21,04:26:53",10.1.1.5,319,-0.400,-0.400,-0.400,0.000,0.000,0.000
1640060813059860992,"2021-12-21,04:26:53",10.1.1.5,0.36631107330322266,-0.400,-0.400,-0.400,0.000,0.000,0.000
1640060813371416064,"2021-12-21,04:26:53",10.1.1.5,310,-0.410,-0.410,-0.410,0.000,0.000,0.000
1640060813387224064,"2021-12-21,04:26:53",10.1.1.5,0.3261251449584961,-0.410,-0.410,-0.410,0.000,0.000,0.000
1640060813705502976,"2021-12-21,04:26:53",10.1.1.5,310,-0.420,-0.420,-0.420,0.000,0.000,0.000
1640060813756484864,"2021-12-21,04:26:53",10.1.1.5,0.3616490364074707,-0.420,-0.420,-0.420,0.000,0.000,0.000
1640060814095932928,"2021-12-21,04:26:54",10.1.1.5,337,-0.430,-0.430,-0.430,0.000,0.000,0.000
1640060814143172096,"2021-12-21,04:26:54",10.1.1.5,0.38548898696899414,-0.430,-0.430,-0.430,0.000,0.000,0.000
1640060814484129024,"2021-12-21,04:26:54",10.1.1.5,336,-0.440,-0.440,-0.440,0.000,0.000,0.000
1640060814555793920,"2021-12-21,04:26:54",10.1.1.5,0.4086568355560303,-0.440,-0.440,-0.440,0.000,0.000,0.000
1640060814882527232,"2021-12-21,04:26:54",10.1.1.5,325,-0.450,-0.450,-0.450,0.000,0.000,0.000
1640060814914063872,"2021-12-21,04:26:54",10.1.1.5,0.35700201988220215,-0.450,-0.450,-0.450,0.000,0.000,0.000
1640060815262348032,"2021-12-21,04:26:55",10.1.1.5,343,-0.460,-0.460,-0.460,0.000,0.000,0.000
1640060815290132992,"2021-12-21,04:26:55",10.1.1.5,0.3715791702270508,-0.460,-0.460,-0.460,0.000,0.000,0.000
1640060815642825984,"2021-12-21,04:26:55",10.1.1.5,350,-0.470,-0.470,-0.470,0.000,0.000,0.000
1640060815705091072,"2021-12-21,04:26:55",10.1.1.5,0.4129979610443115,-0.470,-0.470,-0.470,0.000,0.000,0.000
1640060816020876032,"2021-12-21,04:26:56",10.1.1.5,313,-0.480,-0.480,-0.480,0.000,0.000,0.000
1640060816125744128,"2021-12-21,04:26:56",10.1.1.5,0.4188239574432373,-0.480,-0.480,-0.480,0.000,0.000,0.000
1640060816443744000,"2021-12-21,04:26:56",10.1.1.5,316,-0.490,-0.490,-0.490,0.000,0.000,0.000
1640060816549864960,"2021-12-21,04:26:56",10.1.1.5,0.42247891426086426,-0.490,-0.490,-0.490,0.000,0.000,0.000
1640060816851411200,"2021-12-21,04:26:56",10.1.1.5,299,-0.480,-0.480,-0.480,0.000,0.000,0.000
1640060816906013952,"2021-12-21,04:26:56",10.1.1.5,0.35468387603759766,-0.480,-0.480,-0.480,0.000,0.000,0.000
1640060817240179968,"2021-12-21,04:26:57",10.1.1.5,332,-0.470,-0.470,-0.470,0.000,0.000,0.000
1640060817305272064,"2021-12-21,04:26:57",10.1.1.5,0.3974180221557617,-0.470,-0.470,-0.470,0.000,0.000,0.000
1640060817676279040,"2021-12-21,04:26:57",10.1.1.5,363,-0.460,-0.460,-0.460,0.000,0.000,0.000
1640060817725157120,"2021-12-21,04:26:57",10.1.1.5,0.4142940044403076,-0.460,-0.460,-0.460,0.000,0.000,0.000
1640060818028246016,"2021-12-21,04:26:58",10.1.1.5,295,-0.450,-0.450,-0.450,0.000,0.000,0.000
1640060818085148928,"2021-12-21,04:26:58",10.1.1.5,0.34993600845336914,-0.450,-0.450,-0.450,0.000,0.000,0.000
1640060818407668992,"2021-12-21,04:26:58",10.1.1.5,320,-0.440,-0.440,-0.440,0.000,0.000,0.000
1640060818506674176,"2021-12-21,04:26:58",10.1.1.5,0.4194920063018799,-0.440,-0.440,-0.440,0.000,0.000,0.000
1640060818818003968,"2021-12-21,04:26:58",10.1.1.5,309,-0.430,-0.430,-0.430,0.000,0.000,0.000
1640060818892941824,"2021-12-21,04:26:58",10.1.1.5,0.3848550319671631,-0.430,-0.430,-0.430,0.000,0.000,0.000
1640060819207660800,"2021-12-21,04:26:59",10.1.1.5,312,-0.420,-0.420,-0.420,0.000,0.000,0.000
1640060819297646080,"2021-12-21,04:26:59",10.1.1.5,0.40229201316833496,-0.420,-0.420,-0.420,0.000,0.000,0.000
1640060819608068096,"2021-12-21,04:26:59",10.1.1.5,308,-0.410,-0.410,-0.410,0.000,0.000,0.000
1640060819679363072,"2021-12-21,04:26:59",10.1.1.5,0.3802011013031006,-0.410,-0.410,-0.410,0.000,0.000,0.000
1640060820007174912,"2021-12-21,04:27:00",10.1.1.5,319,-0.400,-0.400,-0.400,0.000,0.000,0.000
1640060820102217984,"2021-12-21,04:27:00",10.1.1.5,0.4157140254974365,-0.400,-0.400,-0.400,0.000,0.000,0.000
1640060820417413120,"2021-12-21,04:27:00",10.1.1.5,313,-0.390,-0.390,-0.390,0.000,0.000,0.000
1640060820515266048,"2021-12-21,04:27:00",10.1.1.5,0.4117109775543213,-0.390,-0.390,-0.390,0.000,0.000,0.000
1640060820857270016,"2021-12-21,04:27:00",10.1.1.5,338,-0.380,-0.380,-0.380,0.000,0.000,0.000
1640060820926364928,"2021-12-21,04:27:00",10.1.1.5,0.4076039791107178,-0.380,-0.380,-0.380,0.000,0.000,0.000
1640060821215620096,"2021-12-21,04:27:01",10.1.1.5,286,-0.370,-0.370,-0.370,0.000,0.000,0.000
1640060821340413952,"2021-12-21,04:27:01",10.1.1.5,0.4120001792907715,-0.370,-0.370,-0.370,0.000,0.000,0.000
1640060821637048832,"2021-12-21,04:27:01",10.1.1.5,294,-0.360,-0.360,-0.360,0.000,0.000,0.000
1640060821727406080,"2021-12-21,04:27:01",10.1.1.5,0.38530993461608887,-0.360,-0.360,-0.360,0.000,0.000,0.000
1640060822052516864,"2021-12-21,04:27:02",10.1.1.5,321,-0.350,-0.350,-0.350,0.000,0.000,0.000
1640060822102100992,"2021-12-21,04:27:02",10.1.1.5,0.3708319664001465,-0.350,-0.350,-0.350,0.000,0.000,0.000
1640060822442308864,"2021-12-21,04:27:02",10.1.1.5,337,-0.340,-0.340,-0.340,0.000,0.000,0.000
1640060822539855104,"2021-12-21,04:27:02",10.1.1.5,0.4354710578918457,-0.340,-0.340,-0.340,0.000,0.000,0.000
1640060822863500032,"2021-12-21,04:27:02",10.1.1.5,321,-0.330,-0.330,-0.330,0.000,0.000,0.000
1640060822933746944,"2021-12-21,04:27:02",10.1.1.5,0.3924291133880615,-0.330,-0.330,-0.330,0.000,0.000,0.000
1640060823261921024,"2021-12-21,04:27:03",10.1.1.5,326,-0.320,-0.320,-0.320,0.000,0.000,0.000
1640060823302018048,"2021-12-21,04:27:03",10.1.1.5,0.3670039176940918,-0.320,-0.320,-0.320,0.000,0.000,0.000
1640060823631540992,"2021-12-21,04:27:03",10.1.1.5,324,-0.310,-0.310,-0.310,0.000,0.000,0.000
1640060823677426944,"2021-12-21,04:27:03",10.1.1.5,0.37010812759399414,-0.310,-0.310,-0.310,0.000,0.000,0.000
1640060824009777920,"2021-12-21,04:27:04",10.1.1.5,330,-0.300,-0.300,-0.300,0.000,0.000,0.000
1640060824090387968,"2021-12-21,04:27:04",10.1.1.5,0.4112129211425781,-0.300,-0.300,-0.300,0.000,0.000,0.000
1640060824389728000,"2021-12-21,04:27:04",10.1.1.5,297,-0.290,-0.290,-0.290,0.000,0.000,0.000
1640060824413969920,"2021-12-21,04:27:04",10.1.1.5,0.32112598419189453,-0.290,-0.290,-0.290,0.000,0.000,0.000
1640060824730269952,"2021-12-21,04:27:04",10.1.1.5,313,-0.280,-0.280,-0.280,0.000,0.000,0.000
1640060824778404096,"2021-12-21,04:27:04",10.1.1.5,0.36266422271728516,-0.280,-0.280,-0.280,0.000,0.000,0.000
1640060825117989120,"2021-12-21,04:27:05",10.1.1.5,335,-0.270,-0.270,-0.270,0.000,0.000,0.000
1640060825217870080,"2021-12-21,04:27:05",10.1.1.5,0.43583083152770996,-0.270,-0.270,-0.270,0.000,0.000,0.000
1640060825523030016,"2021-12-21,04:27:05",10.1.1.5,301,-0.260,-0.260,-0.260,0.000,0.000,0.000
1640060825569138944,"2021-12-21,04:27:05",10.1.1.5,0.34981703758239746,-0.260,-0.260,-0.260,0.000,0.000,0.000
1640060825898806016,"2021-12-21,04:27:05",10.1.1.5,327,-0.250,-0.250,-0.250,0.000,0.000,0.000
1640060825981640192,"2021-12-21,04:27:05",10.1.1.5,0.4110579490661621,-0.250,-0.250,-0.250,0.000,0.000,0.000
1640060826328452096,"2021-12-21,04:27:06",10.1.1.5,345,-0.240,-0.240,-0.240,0.000,0.000,0.000
1640060826392162048,"2021-12-21,04:27:06",10.1.1.5,0.40937304496765137,-0.240,-0.240,-0.240,0.000,0.000,0.000
1640060826696988160,"2021-12-21,04:27:06",10.1.1.5,302,-0.230,-0.230,-0.230,0.000,0.000,0.000
1640060826777564160,"2021-12-21,04:27:06",10.1.1.5,0.383591890335083,-0.230,-0.230,-0.230,0.000,0.000,0.000
1640060827064923136,"2021-12-21,04:27:07",10.1.1.5,284,-0.220,-0.220,-0.220,0.000,0.000,0.000
1640060827096837888,"2021-12-21,04:27:07",10.1.1.5,0.3163759708404541,-0.220,-0.220,-0.220,0.000,0.000,0.000
1640060827394110976,"2021-12-21,04:27:07",10.1.1.5,296,-0.210,-0.210,-0.210,0.000,0.000,0.000
1640060827444184064,"2021-12-21,04:27:07",10.1.1.5,0.346081018447876,-0.210,-0.210,-0.210,0.000,0.000,0.000
1640060827754756864,"2021-12-21,04:27:07",10.1.1.5,309,-0.200,-0.200,-0.200,0.000,0.000,0.000
1640060827840569088,"2021-12-21,04:27:07",10.1.1.5,0.39506101608276367,-0.200,-0.200,-0.200,0.000,0.000,0.000
1640060828164450048,"2021-12-21,04:27:08",10.1.1.5,318,-0.190,-0.190,-0.190,0.000,0.000,0.000
1640060828208087808,"2021-12-21,04:27:08",10.1.1.5,0.3628671169281006,-0.190,-0.190,-0.190,0.000,0.000,0.000
1640060828524817920,"2021-12-21,04:27:08",10.1.1.5,312,-0.180,-0.180,-0.180,0.000,0.000,0.000
1640060828549666048,"2021-12-21,04:27:08",10.1.1.5,0.337597131729126,-0.180,-0.180,-0.180,0.000,0.000,0.000
1640060828872589056,"2021-12-21,04:27:08",10.1.1.5,321,-0.170,-0.170,-0.170,0.000,0.000,0.000
1640060828927664128,"2021-12-21,04:27:08",10.1.1.5,0.37674903869628906,-0.170,-0.170,-0.170,0.000,0.000,0.000
1640060829265420800,"2021-12-21,04:27:09",10.1.1.5,328,-0.160,-0.160,-0.160,0.000,0.000,0.000
1640060829355034112,"2021-12-21,04:27:09",10.1.1.5,0.41858911514282227,-0.160,-0.160,-0.160,0.000,0.000,0.000
1640060829688765952,"2021-12-21,04:27:09",10.1.1.5,331,-0.150,-0.150,-0.150,0.000,0.000,0.000
1640060829758660096,"2021-12-21,04:27:09",10.1.1.5,0.4018709659576416,-0.150,-0.150,-0.150,0.000,0.000,0.000
1640060830097938176,"2021-12-21,04:27:10",10.1.1.5,337,-0.140,-0.140,-0.140,0.000,0.000,0.000
1640060830185236992,"2021-12-21,04:27:10",10.1.1.5,0.42496395111083984,-0.140,-0.140,-0.140,0.000,0.000,0.000
1640060830501598976,"2021-12-21,04:27:10",10.1.1.5,314,-0.130,-0.130,-0.130,0.000,0.000,0.000
1640060830591464960,"2021-12-21,04:27:10",10.1.1.5,0.40497303009033203,-0.130,-0.130,-0.130,0.000,0.000,0.000
1640060830901328128,"2021-12-21,04:27:10",10.1.1.5,308,-0.120,-0.120,-0.120,0.000,0.000,0.000
1640060830976207872,"2021-12-21,04:27:10",10.1.1.5,0.38289594650268555,-0.120,-0.120,-0.120,0.000,0.000,0.000
1640060831294050048,"2021-12-21,04:27:11",10.1.1.5,315,-0.110,-0.110,-0.110,0.000,0.000,0.000
1640060831336690944,"2021-12-21,04:27:11",10.1.1.5,0.35892319679260254,-0.110,-0.110,-0.110,0.000,0.000,0.000
1640060831637703936,"2021-12-21,04:27:11",10.1.1.5,296,-0.100,-0.100,-0.100,0.000,0.000,0.000
1640060831750684928,"2021-12-21,04:27:11",10.1.1.5,0.40986204147338867,-0.100,-0.100,-0.100,0.000,0.000,0.000
1640060832078471936,"2021-12-21,04:27:12",10.1.1.5,325,-0.090,-0.090,-0.090,0.000,0.000,0.000
1640060832170679040,"2021-12-21,04:27:12",10.1.1.5,0.4184088706970215,-0.090,-0.090,-0.090,0.000,0.000,0.000
1640060832477335040,"2021-12-21,04:27:12",10.1.1.5,305,-0.080,-0.080,-0.080,0.000,0.000,0.000
1640060832588747008,"2021-12-21,04:27:12",10.1.1.5,0.41687512397766113,-0.080,-0.080,-0.080,0.000,0.000,0.000
1640060832920571136,"2021-12-21,04:27:12",10.1.1.5,329,-0.070,-0.070,-0.070,0.000,0.000,0.000
1640060832983704064,"2021-12-21,04:27:12",10.1.1.5,0.39352893829345703,-0.070,-0.070,-0.070,0.000,0.000,0.000
1640060833271261952,"2021-12-21,04:27:13",10.1.1.5,285,-0.060,-0.060,-0.060,0.000,0.000,0.000
1640060833368453120,"2021-12-21,04:27:13",10.1.1.5,0.38289380073547363,-0.060,-0.060,-0.060,0.000,0.000,0.000
1640060833700939776,"2021-12-21,04:27:13",10.1.1.5,329,-0.050,-0.050,-0.050,0.000,0.000,0.000
1640060833726360064,"2021-12-21,04:27:13",10.1.1.5,0.3548898696899414,-0.050,-0.050,-0.050,0.000,0.000,0.000
1640060834042070016,"2021-12-21,04:27:14",10.1.1.5,314,-0.040,-0.040,-0.040,0.000,0.000,0.000
1640060834125325824,"2021-12-21,04:27:14",10.1.1.5,0.3973839282989502,-0.040,-0.040,-0.040,0.000,0.000,0.000
1640060834464411904,"2021-12-21,04:27:14",10.1.1.5,336,-0.030,-0.030,-0.030,0.000,0.000,0.000
1640060834527475200,"2021-12-21,04:27:14",10.1.1.5,0.4002411365509033,-0.030,-0.030,-0.030,0.000,0.000,0.000
1640060834836730112,"2021-12-21,04:27:14",10.1.1.5,302,-0.020,-0.020,-0.020,0.000,0.000,0.000
1640060834955600128,"2021-12-21,04:27:14",10.1.1.5,0.42102718353271484,-0.020,-0.020,-0.020,0.000,0.000,0.000
1640060835283233792,"2021-12-21,04:27:15",10.1.1.5,317,-0.010,-0.010,-0.010,0.000,0.000,0.000
