FedericoMungari/DigitalTwin_service/Output/Output_script/script_ROSAPI_output_robots4_freq0_3.txt.csv
timestamp,node,latency,joint_1,joint_2,joint_3,joint_4,joint_5,joint_6
1640060650672400896,"2021-12-21,04:24:10",10.1.1.4,4515,0.000,0.000,0.000,0.000,0.000,0.000
1640060652987961088,"2021-12-21,04:24:12",10.1.1.4,327,-0.010,-0.010,-0.010,0.000,0.000,0.000
1640060653016734976,"2021-12-21,04:24:13",10.1.1.4,0.3566710948944092,-0.010,-0.010,-0.010,0.000,0.000,0.000
1640060653348624896,"2021-12-21,04:24:13",10.1.1.4,330,-0.020,-0.020,-0.020,0.000,0.000,0.000
1640060653354540032,"2021-12-21,04:24:13",10.1.1.4,0.3363609313964844,-0.020,-0.020,-0.020,0.000,0.000,0.000
1640060653636912128,"2021-12-21,04:24:13",10.1.1.4,280,-0.030,-0.030,-0.030,0.000,0.000,0.000
1640060653683717120,"2021-12-21,04:24:13",10.1.1.4,0.32774806022644043,-0.030,-0.030,-0.030,0.000,0.000,0.000
1640060653995991040,"2021-12-21,04:24:13",10.1.1.4,310,-0.040,-0.040,-0.040,0.000,0.000,0.000
1640060654009166080,"2021-12-21,04:24:14",10.1.1.4,0.3240208625793457,-0.040,-0.040,-0.040,0.000,0.000,0.000
1640060654335804928,"2021-12-21,04:24:14",10.1.1.4,325,-0.050,-0.050,-0.050,0.000,0.000,0.000
1640060654357742080,"2021-12-21,04:24:14",10.1.1.4,0.3471720218658447,-0.050,-0.050,-0.050,0.000,0.000,0.000
1640060654654696960,"2021-12-21,04:24:14",10.1.1.4,295,-0.060,-0.060,-0.060,0.000,0.000,0.000
1640060654683054848,"2021-12-21,04:24:14",10.1.1.4,0.32381391525268555,-0.060,-0.060,-0.060,0.000,0.000,0.000
1640060655036344064,"2021-12-21,04:24:15",10.1.1.4,351,-0.070,-0.070,-0.070,0.000,0.000,0.000
1640060655064666880,"2021-12-21,04:24:15",10.1.1.4,0.37972187995910645,-0.070,-0.070,-0.070,0.000,0.000,0.000
1640060655384513024,"2021-12-21,04:24:15",10.1.1.4,318,-0.080,-0.080,-0.080,0.000,0.000,0.000
1640060655410139136,"2021-12-21,04:24:15",10.1.1.4,0.34390902519226074,-0.080,-0.080,-0.080,0.000,0.000,0.000
1640060655753366016,"2021-12-21,04:24:15",10.1.1.4,341,-0.090,-0.090,-0.090,0.000,0.000,0.000
1640060655789825792,"2021-12-21,04:24:15",10.1.1.4,0.3780069351196289,-0.090,-0.090,-0.090,0.000,0.000,0.000
1640060656133913088,"2021-12-21,04:24:16",10.1.1.4,341,-0.100,-0.100,-0.100,0.000,0.000,0.000
1640060656166409984,"2021-12-21,04:24:16",10.1.1.4,0.3744029998779297,-0.100,-0.100,-0.100,0.000,0.000,0.000
1640060656512773120,"2021-12-21,04:24:16",10.1.1.4,344,-0.110,-0.110,-0.110,0.000,0.000,0.000
1640060656576570112,"2021-12-21,04:24:16",10.1.1.4,0.40854907035827637,-0.110,-0.110,-0.110,0.000,0.000,0.000
1640060656916781056,"2021-12-21,04:24:16",10.1.1.4,335,-0.120,-0.120,-0.120,0.000,0.000,0.000
1640060656920550144,"2021-12-21,04:24:16",10.1.1.4,0.342728853225708,-0.120,-0.120,-0.120,0.000,0.000,0.000
1640060657211982080,"2021-12-21,04:24:17",10.1.1.4,287,-0.130,-0.130,-0.130,0.000,0.000,0.000
1640060657242233088,"2021-12-21,04:24:17",10.1.1.4,0.3178260326385498,-0.130,-0.130,-0.130,0.000,0.000,0.000
1640060657610663936,"2021-12-21,04:24:17",10.1.1.4,365,-0.140,-0.140,-0.140,0.000,0.000,0.000
1640060657623395840,"2021-12-21,04:24:17",10.1.1.4,0.3783140182495117,-0.140,-0.140,-0.140,0.000,0.000,0.000
1640060657970576128,"2021-12-21,04:24:17",10.1.1.4,343,-0.150,-0.150,-0.150,0.000,0.000,0.000
1640060657997885952,"2021-12-21,04:24:17",10.1.1.4,0.37157106399536133,-0.150,-0.150,-0.150,0.000,0.000,0.000
1640060658309075200,"2021-12-21,04:24:18",10.1.1.4,309,-0.160,-0.160,-0.160,0.000,0.000,0.000
1640060658375988992,"2021-12-21,04:24:18",10.1.1.4,0.37682104110717773,-0.160,-0.160,-0.160,0.000,0.000,0.000
1640060658706095872,"2021-12-21,04:24:18",10.1.1.4,0.3285789489746094,-0.170,-0.170,-0.170,0.000,0.000,0.000
1640060658726146816,"2021-12-21,04:24:18",10.1.1.4,324,-0.170,-0.170,-0.170,0.000,0.000,0.000
1640060659059355904,"2021-12-21,04:24:19",10.1.1.4,327,-0.180,-0.180,-0.180,0.000,0.000,0.000
1640060659135247872,"2021-12-21,04:24:19",10.1.1.4,0.40405797958374023,-0.180,-0.180,-0.180,0.000,0.000,0.000
1640060659437958912,"2021-12-21,04:24:19",10.1.1.4,301,-0.190,-0.190,-0.190,0.000,0.000,0.000
1640060659466799872,"2021-12-21,04:24:19",10.1.1.4,0.3303039073944092,-0.190,-0.190,-0.190,0.000,0.000,0.000
1640060659757984000,"2021-12-21,04:24:19",10.1.1.4,288,-0.200,-0.200,-0.200,0.000,0.000,0.000
1640060659781897984,"2021-12-21,04:24:19",10.1.1.4,0.3134148120880127,-0.200,-0.200,-0.200,0.000,0.000,0.000
1640060660142748160,"2021-12-21,04:24:20",10.1.1.4,358,-0.210,-0.210,-0.210,0.000,0.000,0.000
1640060660204065024,"2021-12-21,04:24:20",10.1.1.4,0.4203948974609375,-0.210,-0.210,-0.210,0.000,0.000,0.000
1640060660496148224,"2021-12-21,04:24:20",10.1.1.4,288,-0.220,-0.220,-0.220,0.000,0.000,0.000
1640060660532488960,"2021-12-21,04:24:20",10.1.1.4,0.32590699195861816,-0.220,-0.220,-0.220,0.000,0.000,0.000
1640060660868505856,"2021-12-21,04:24:20",10.1.1.4,331,-0.230,-0.230,-0.230,0.000,0.000,0.000
1640060660884541952,"2021-12-21,04:24:20",10.1.1.4,0.35047197341918945,-0.230,-0.230,-0.230,0.000,0.000,0.000
1640060661215831040,"2021-12-21,04:24:21",10.1.1.4,318,-0.240,-0.240,-0.240,0.000,0.000,0.000
1640060661246731008,"2021-12-21,04:24:21",10.1.1.4,0.34946203231811523,-0.240,-0.240,-0.240,0.000,0.000,0.000
1640060661565661952,"2021-12-21,04:24:21",10.1.1.4,313,-0.250,-0.250,-0.250,0.000,0.000,0.000
1640060661615674112,"2021-12-21,04:24:21",10.1.1.4,0.3639659881591797,-0.250,-0.250,-0.250,0.000,0.000,0.000
1640060661924658176,"2021-12-21,04:24:21",10.1.1.4,307,-0.260,-0.260,-0.260,0.000,0.000,0.000
1640060661945722112,"2021-12-21,04:24:21",10.1.1.4,0.3282039165496826,-0.260,-0.260,-0.260,0.000,0.000,0.000
1640060662243067136,"2021-12-21,04:24:22",10.1.1.4,295,-0.270,-0.270,-0.270,0.000,0.000,0.000
1640060662269449984,"2021-12-21,04:24:22",10.1.1.4,0.3219940662384033,-0.270,-0.270,-0.270,0.000,0.000,0.000
1640060662612231936,"2021-12-21,04:24:22",10.1.1.4,339,-0.280,-0.280,-0.280,0.000,0.000,0.000
1640060662660828160,"2021-12-21,04:24:22",10.1.1.4,0.38841795921325684,-0.280,-0.280,-0.280,0.000,0.000,0.000
1640060662981571072,"2021-12-21,04:24:22",10.1.1.4,314,-0.290,-0.290,-0.290,0.000,0.000,0.000
1640060663028865024,"2021-12-21,04:24:23",10.1.1.4,0.36223506927490234,-0.290,-0.290,-0.290,0.000,0.000,0.000
1640060663387564032,"2021-12-21,04:24:23",10.1.1.4,354,-0.300,-0.300,-0.300,0.000,0.000,0.000
1640060663405113088,"2021-12-21,04:24:23",10.1.1.4,0.37228894233703613,-0.300,-0.300,-0.300,0.000,0.000,0.000
1640060663709654016,"2021-12-21,04:24:23",10.1.1.4,303,-0.310,-0.310,-0.310,0.000,0.000,0.000
1640060663751522048,"2021-12-21,04:24:23",10.1.1.4,0.34519410133361816,-0.310,-0.310,-0.310,0.000,0.000,0.000
1640060664081434112,"2021-12-21,04:24:24",10.1.1.4,325,-0.320,-0.320,-0.320,0.000,0.000,0.000
1640060664118861056,"2021-12-21,04:24:24",10.1.1.4,0.36298608779907227,-0.320,-0.320,-0.320,0.000,0.000,0.000
1640060664439526144,"2021-12-21,04:24:24",10.1.1.4,318,-0.330,-0.330,-0.330,0.000,0.000,0.000
1640060664448829952,"2021-12-21,04:24:24",10.1.1.4,0.3266270160675049,-0.330,-0.330,-0.330,0.000,0.000,0.000
1640060664824356096,"2021-12-21,04:24:24",10.1.1.4,372,-0.340,-0.340,-0.340,0.000,0.000,0.000
1640060664886823936,"2021-12-21,04:24:24",10.1.1.4,0.43551182746887207,-0.340,-0.340,-0.340,0.000,0.000,0.000
1640060665188851968,"2021-12-21,04:24:25",10.1.1.4,300,-0.350,-0.350,-0.350,0.000,0.000,0.000
1640060665215159040,"2021-12-21,04:24:25",10.1.1.4,0.3270988464355469,-0.350,-0.350,-0.350,0.000,0.000,0.000
1640060665569952000,"2021-12-21,04:24:25",10.1.1.4,353,-0.360,-0.360,-0.360,0.000,0.000,0.000
1640060665587127808,"2021-12-21,04:24:25",10.1.1.4,0.3702859878540039,-0.360,-0.360,-0.360,0.000,0.000,0.000
1640060665934320896,"2021-12-21,04:24:25",10.1.1.4,0.3416121006011963,-0.370,-0.370,-0.370,0.000,0.000,0.000
1640060666282301952,"2021-12-21,04:24:26",10.1.1.4,341,-0.380,-0.380,-0.380,0.000,0.000,0.000
1640060666366599168,"2021-12-21,04:24:26",10.1.1.4,0.43036317825317383,-0.380,-0.380,-0.380,0.000,0.000,0.000
1640060666676812800,"2021-12-21,04:24:26",10.1.1.4,308,-0.390,-0.390,-0.390,0.000,0.000,0.000
1640060666685914880,"2021-12-21,04:24:26",10.1.1.4,0.3150451183319092,-0.390,-0.390,-0.390,0.000,0.000,0.000
1640060667014983936,"2021-12-21,04:24:27",10.1.1.4,326,-0.400,-0.400,-0.400,0.000,0.000,0.000
1640060667086066944,"2021-12-21,04:24:27",10.1.1.4,0.39830994606018066,-0.400,-0.400,-0.400,0.000,0.000,0.000
1640060667385474816,"2021-12-21,04:24:27",10.1.1.4,297,-0.410,-0.410,-0.410,0.000,0.000,0.000
1640060667410115840,"2021-12-21,04:24:27",10.1.1.4,0.3226490020751953,-0.410,-0.410,-0.410,0.000,0.000,0.000
1640060667753811968,"2021-12-21,04:24:27",10.1.1.4,339,-0.420,-0.420,-0.420,0.000,0.000,0.000
1640060667773436160,"2021-12-21,04:24:27",10.1.1.4,0.359205961227417,-0.420,-0.420,-0.420,0.000,0.000,0.000
1640060668083915008,"2021-12-21,04:24:28",10.1.1.4,308,-0.430,-0.430,-0.430,0.000,0.000,0.000
1640060668127213056,"2021-12-21,04:24:28",10.1.1.4,0.352053165435791,-0.430,-0.430,-0.430,0.000,0.000,0.000
1640060668492239104,"2021-12-21,04:24:28",10.1.1.4,361,-0.440,-0.440,-0.440,0.000,0.000,0.000
1640060668515664128,"2021-12-21,04:24:28",10.1.1.4,0.38468194007873535,-0.440,-0.440,-0.440,0.000,0.000,0.000
1640060668838771200,"2021-12-21,04:24:28",10.1.1.4,319,-0.450,-0.450,-0.450,0.000,0.000,0.000
1640060668879869952,"2021-12-21,04:24:28",10.1.1.4,0.36028385162353516,-0.450,-0.450,-0.450,0.000,0.000,0.000
1640060669206716160,"2021-12-21,04:24:29",10.1.1.4,323,-0.460,-0.460,-0.460,0.000,0.000,0.000
1640060669223810048,"2021-12-21,04:24:29",10.1.1.4,0.34047794342041016,-0.460,-0.460,-0.460,0.000,0.000,0.000
1640060669592084992,"2021-12-21,04:24:29",10.1.1.4,364,-0.470,-0.470,-0.470,0.000,0.000,0.000
1640060669610147840,"2021-12-21,04:24:29",10.1.1.4,0.3837549686431885,-0.470,-0.470,-0.470,0.000,0.000,0.000
1640060669976249088,"2021-12-21,04:24:29",10.1.1.4,364,-0.480,-0.480,-0.480,0.000,0.000,0.000
1640060670044464128,"2021-12-21,04:24:30",10.1.1.4,0.4330160617828369,-0.480,-0.480,-0.480,0.000,0.000,0.000
1640060670341466880,"2021-12-21,04:24:30",10.1.1.4,292,-0.490,-0.490,-0.490,0.000,0.000,0.000
1640060670377222912,"2021-12-21,04:24:30",10.1.1.4,0.33138513565063477,-0.490,-0.490,-0.490,0.000,0.000,0.000
1640060670692593152,"2021-12-21,04:24:30",10.1.1.4,312,-0.480,-0.480,-0.480,0.000,0.000,0.000
1640060670791735040,"2021-12-21,04:24:30",10.1.1.4,0.41148805618286133,-0.480,-0.480,-0.480,0.000,0.000,0.000
1640060671089171968,"2021-12-21,04:24:31",10.1.1.4,293,-0.470,-0.470,-0.470,0.000,0.000,0.000
1640060671139610880,"2021-12-21,04:24:31",10.1.1.4,0.3465549945831299,-0.470,-0.470,-0.470,0.000,0.000,0.000
1640060671439464192,"2021-12-21,04:24:31",10.1.1.4,298,-0.460,-0.460,-0.460,0.000,0.000,0.000
1640060671476370176,"2021-12-21,04:24:31",10.1.1.4,0.3355541229248047,-0.460,-0.460,-0.460,0.000,0.000,0.000
1640060671829608960,"2021-12-21,04:24:31",10.1.1.4,351,-0.450,-0.450,-0.450,0.000,0.000,0.000
1640060671869755136,"2021-12-21,04:24:31",10.1.1.4,0.3916358947753906,-0.450,-0.450,-0.450,0.000,0.000,0.000
1640060672184146944,"2021-12-21,04:24:32",10.1.1.4,312,-0.440,-0.440,-0.440,0.000,0.000,0.000
1640060672221227008,"2021-12-21,04:24:32",10.1.1.4,0.3495359420776367,-0.440,-0.440,-0.440,0.000,0.000,0.000
1640060672524893952,"2021-12-21,04:24:32",10.1.1.4,301,-0.430,-0.430,-0.430,0.000,0.000,0.000
1640060672581263104,"2021-12-21,04:24:32",10.1.1.4,0.3576631546020508,-0.430,-0.430,-0.430,0.000,0.000,0.000
1640060672897293056,"2021-12-21,04:24:32",10.1.1.4,310,-0.420,-0.420,-0.420,0.000,0.000,0.000
1640060672943243008,"2021-12-21,04:24:32",10.1.1.4,0.35698390007019043,-0.420,-0.420,-0.420,0.000,0.000,0.000
1640060673239718912,"2021-12-21,04:24:33",10.1.1.4,293,-0.410,-0.410,-0.410,0.000,0.000,0.000
1640060673283556864,"2021-12-21,04:24:33",10.1.1.4,0.33731508255004883,-0.410,-0.410,-0.410,0.000,0.000,0.000
1640060673630697984,"2021-12-21,04:24:33",10.1.1.4,338,-0.400,-0.400,-0.400,0.000,0.000,0.000
1640060673655236864,"2021-12-21,04:24:33",10.1.1.4,0.3633151054382324,-0.400,-0.400,-0.400,0.000,0.000,0.000
1640060673953238016,"2021-12-21,04:24:33",10.1.1.4,294,-0.390,-0.390,-0.390,0.000,0.000,0.000
1640060673998554112,"2021-12-21,04:24:33",10.1.1.4,0.34021806716918945,-0.390,-0.390,-0.390,0.000,0.000,0.000
1640060674296626944,"2021-12-21,04:24:34",10.1.1.4,295,-0.380,-0.380,-0.380,0.000,0.000,0.000
1640060674354523904,"2021-12-21,04:24:34",10.1.1.4,0.35319018363952637,-0.380,-0.380,-0.380,0.000,0.000,0.000
1640060674690636032,"2021-12-21,04:24:34",10.1.1.4,330,-0.370,-0.370,-0.370,0.000,0.000,0.000
1640060674753914112,"2021-12-21,04:24:34",10.1.1.4,0.3940269947052002,-0.370,-0.370,-0.370,0.000,0.000,0.000
1640060675077803008,"2021-12-21,04:24:35",10.1.1.4,322,-0.360,-0.360,-0.360,0.000,0.000,0.000
1640060675110930944,"2021-12-21,04:24:35",10.1.1.4,0.3549189567565918,-0.360,-0.360,-0.360,0.000,0.000,0.000
1640060675495220992,"2021-12-21,04:24:35",10.1.1.4,375,-0.350,-0.350,-0.350,0.000,0.000,0.000
1640060675557327872,"2021-12-21,04:24:35",10.1.1.4,0.4378969669342041,-0.350,-0.350,-0.350,0.000,0.000,0.000
1640060675854316032,"2021-12-21,04:24:35",10.1.1.4,286,-0.340,-0.340,-0.340,0.000,0.000,0.000
1640060675879448832,"2021-12-21,04:24:35",10.1.1.4,0.3208351135253906,-0.340,-0.340,-0.340,0.000,0.000,0.000
1640060676206813184,"2021-12-21,04:24:36",10.1.1.4,309,-0.330,-0.330,-0.330,0.000,0.000,0.000
1640060676275454976,"2021-12-21,04:24:36",10.1.1.4,0.3921928405761719,-0.330,-0.330,-0.330,0.000,0.000,0.000
1640060676614619136,"2021-12-21,04:24:36",10.1.1.4,0.3371570110321045,-0.320,-0.320,-0.320,0.000,0.000,0.000
1640060676618438912,"2021-12-21,04:24:36",10.1.1.4,340,-0.320,-0.320,-0.320,0.000,0.000,0.000
1640060676929091840,"2021-12-21,04:24:36",10.1.1.4,308,-0.310,-0.310,-0.310,0.000,0.000,0.000
1640060676952936960,"2021-12-21,04:24:36",10.1.1.4,0.332794189453125,-0.310,-0.310,-0.310,0.000,0.000,0.000
1640060677295175168,"2021-12-21,04:24:37",10.1.1.4,339,-0.300,-0.300,-0.300,0.000,0.000,0.000
1640060677323009024,"2021-12-21,04:24:37",10.1.1.4,0.3676731586456299,-0.300,-0.300,-0.300,0.000,0.000,0.000
1640060677636434944,"2021-12-21,04:24:37",10.1.1.4,311,-0.290,-0.290,-0.290,0.000,0.000,0.000
1640060677673115136,"2021-12-21,04:24:37",10.1.1.4,0.3482511043548584,-0.290,-0.290,-0.290,0.000,0.000,0.000
1640060678042989056,"2021-12-21,04:24:38",10.1.1.4,354,-0.280,-0.280,-0.280,0.000,0.000,0.000
1640060678084555008,"2021-12-21,04:24:38",10.1.1.4,0.4014170169830322,-0.280,-0.280,-0.280,0.000,0.000,0.000
1640060678427566080,"2021-12-21,04:24:38",10.1.1.4,340,-0.270,-0.270,-0.270,0.000,0.000,0.000
1640060678484338944,"2021-12-21,04:24:38",10.1.1.4,0.39736104011535645,-0.270,-0.270,-0.270,0.000,0.000,0.000
1640060678777893120,"2021-12-21,04:24:38",10.1.1.4,292,-0.260,-0.260,-0.260,0.000,0.000,0.000
1640060678814809088,"2021-12-21,04:24:38",10.1.1.4,0.329010009765625,-0.260,-0.260,-0.260,0.000,0.000,0.000
1640060679162064128,"2021-12-21,04:24:39",10.1.1.4,328,-0.250,-0.250,-0.250,0.000,0.000,0.000
1640060679185041920,"2021-12-21,04:24:39",10.1.1.4,0.35121893882751465,-0.250,-0.250,-0.250,0.000,0.000,0.000
1640060679532080896,"2021-12-21,04:24:39",10.1.1.4,344,-0.240,-0.240,-0.240,0.000,0.000,0.000
1640060679569308928,"2021-12-21,04:24:39",10.1.1.4,0.38223719596862793,-0.240,-0.240,-0.240,0.000,0.000,0.000
1640060679880922112,"2021-12-21,04:24:39",10.1.1.4,310,-0.230,-0.230,-0.230,0.000,0.000,0.000
1640060679909176064,"2021-12-21,04:24:39",10.1.1.4,0.3384819030761719,-0.230,-0.230,-0.230,0.000,0.000,0.000
1640060680249600768,"2021-12-21,04:24:40",10.1.1.4,0.3363919258117676,-0.220,-0.220,-0.220,0.000,0.000,0.000
1640060680251070976,"2021-12-21,04:24:40",10.1.1.4,337,-0.220,-0.220,-0.220,0.000,0.000,0.000
1640060680582040064,"2021-12-21,04:24:40",10.1.1.4,300,-0.210,-0.210,-0.210,0.000,0.000,0.000
1640060680610835968,"2021-12-21,04:24:40",10.1.1.4,0.33002400398254395,-0.210,-0.210,-0.210,0.000,0.000,0.000
1640060680937332992,"2021-12-21,04:24:40",10.1.1.4,323,-0.200,-0.200,-0.200,0.000,0.000,0.000
1640060680978420992,"2021-12-21,04:24:40",10.1.1.4,0.365786075592041,-0.200,-0.200,-0.200,0.000,0.000,0.000
1640060681311649024,"2021-12-21,04:24:41",10.1.1.4,331,-0.190,-0.190,-0.190,0.000,0.000,0.000
1640060681418544128,"2021-12-21,04:24:41",10.1.1.4,0.43863487243652344,-0.190,-0.190,-0.190,0.000,0.000,0.000
1640060681726121984,"2021-12-21,04:24:41",10.1.1.4,302,-0.180,-0.180,-0.180,0.000,0.000,0.000
1640060681746070016,"2021-12-21,04:24:41",10.1.1.4,0.3261680603027344,-0.180,-0.180,-0.180,0.000,0.000,0.000
1640060682068818944,"2021-12-21,04:24:42",10.1.1.4,317,-0.170,-0.170,-0.170,0.000,0.000,0.000
1640060682074134016,"2021-12-21,04:24:42",10.1.1.4,0.3224790096282959,-0.170,-0.170,-0.170,0.000,0.000,0.000
1640060682411837184,"2021-12-21,04:24:42",10.1.1.4,329,-0.160,-0.160,-0.160,0.000,0.000,0.000
1640060682450449920,"2021-12-21,04:24:42",10.1.1.4,0.3685109615325928,-0.160,-0.160,-0.160,0.000,0.000,0.000
1640060682741512960,"2021-12-21,04:24:42",10.1.1.4,289,-0.150,-0.150,-0.150,0.000,0.000,0.000
1640060682765678848,"2021-12-21,04:24:42",10.1.1.4,0.3135240077972412,-0.150,-0.150,-0.150,0.000,0.000,0.000
1640060683061944064,"2021-12-21,04:24:43",10.1.1.4,294,-0.140,-0.140,-0.140,0.000,0.000,0.000
1640060683095101952,"2021-12-21,04:24:43",10.1.1.4,0.3278820514678955,-0.140,-0.140,-0.140,0.000,0.000,0.000
1640060683392136960,"2021-12-21,04:24:43",10.1.1.4,295,-0.130,-0.130,-0.130,0.000,0.000,0.000
1640060683420561152,"2021-12-21,04:24:43",10.1.1.4,0.32417821884155273,-0.130,-0.130,-0.130,0.000,0.000,0.000
1640060683711155968,"2021-12-21,04:24:43",10.1.1.4,288,-0.120,-0.120,-0.120,0.000,0.000,0.000
1640060683742490112,"2021-12-21,04:24:43",10.1.1.4,0.3201770782470703,-0.120,-0.120,-0.120,0.000,0.000,0.000
1640060684041570048,"2021-12-21,04:24:44",10.1.1.4,297,-0.110,-0.110,-0.110,0.000,0.000,0.000
1640060684063203072,"2021-12-21,04:24:44",10.1.1.4,0.3190298080444336,-0.110,-0.110,-0.110,0.000,0.000,0.000
1640060684361885184,"2021-12-21,04:24:44",10.1.1.4,296,-0.100,-0.100,-0.100,0.000,0.000,0.000
1640060684376260096,"2021-12-21,04:24:44",10.1.1.4,0.31114697456359863,-0.100,-0.100,-0.100,0.000,0.000,0.000
1640060684691912960,"2021-12-21,04:24:44",10.1.1.4,314,-0.090,-0.090,-0.090,0.000,0.000,0.000
1640060684699651072,"2021-12-21,04:24:44",10.1.1.4,0.3221101760864258,-0.090,-0.090,-0.090,0.000,0.000,0.000
1640060684991986944,"2021-12-21,04:24:44",10.1.1.4,290,-0.080,-0.080,-0.080,0.000,0.000,0.000
1640060685019542016,"2021-12-21,04:24:45",10.1.1.4,0.31809210777282715,-0.080,-0.080,-0.080,0.000,0.000,0.000
1640060685346267904,"2021-12-21,04:24:45",10.1.1.4,325,-0.070,-0.070,-0.070,0.000,0.000,0.000
1640060685357332992,"2021-12-21,04:24:45",10.1.1.4,0.33654212951660156,-0.070,-0.070,-0.070,0.000,0.000,0.000
1640060685661950976,"2021-12-21,04:24:45",10.1.1.4,303,-0.060,-0.060,-0.060,0.000,0.000,0.000
1640060685688653056,"2021-12-21,04:24:45",10.1.1.4,0.3299548625946045,-0.060,-0.060,-0.060,0.000,0.000,0.000
1640060686013138176,"2021-12-21,04:24:46",10.1.1.4,320,-0.050,-0.050,-0.050,0.000,0.000,0.000
1640060686026968832,"2021-12-21,04:24:46",10.1.1.4,0.33515405654907227,-0.050,-0.050,-0.050,0.000,0.000,0.000
1640060686343416064,"2021-12-21,04:24:46",10.1.1.4,312,-0.040,-0.040,-0.040,0.000,0.000,0.000
1640060686411667200,"2021-12-21,04:24:46",10.1.1.4,0.3818080425262451,-0.040,-0.040,-0.040,0.000,0.000,0.000
1640060686700817152,"2021-12-21,04:24:46",10.1.1.4,287,-0.030,-0.030,-0.030,0.000,0.000,0.000
1640060686756889088,"2021-12-21,04:24:46",10.1.1.4,0.34387898445129395,-0.030,-0.030,-0.030,0.000,0.000,0.000
1640060687050995200,"2021-12-21,04:24:47",10.1.1.4,292,-0.020,-0.020,-0.020,0.000,0.000,0.000
1640060687085752064,"2021-12-21,04:24:47",10.1.1.4,0.327592134475708,-0.020,-0.020,-0.020,0.000,0.000,0.000
1640060687401597952,"2021-12-21,04:24:47",10.1.1.4,314,-0.010,-0.010,-0.010,0.000,0.000,0.000
1640060687403933952,"2021-12-21,04:24:47",10.1.1.4,0.3168821334838867,-0.010,-0.010,-0.010,0.000,0.000,0.000
1640060687711531008,"2021-12-21,04:24:47",10.1.1.4,306,0.000,0.000,0.000,0.000,0.000,0.000
1640060687718964224,"2021-12-21,04:24:47",10.1.1.4,0.31368517875671387,0.000,0.000,0.000,0.000,0.000,0.000
1640060688024321024,"2021-12-21,04:24:48",10.1.1.4,302,-0.010,-0.010,-0.010,0.000,0.000,0.000
1640060688035087104,"2021-12-21,04:24:48",10.1.1.4,0.3135221004486084,-0.010,-0.010,-0.010,0.000,0.000,0.000
1640060688329394176,"2021-12-21,04:24:48",10.1.1.4,292,-0.020,-0.020,-0.020,0.000,0.000,0.000
1640060688343910912,"2021-12-21,04:24:48",10.1.1.4,0.30753302574157715,-0.020,-0.020,-0.020,0.000,0.000,0.000
1640060688633837056,"2021-12-21,04:24:48",10.1.1.4,288,-0.030,-0.030,-0.030,0.000,0.000,0.000
1640060688681512192,"2021-12-21,04:24:48",10.1.1.4,0.3363320827484131,-0.030,-0.030,-0.030,0.000,0.000,0.000
1640060688994393088,"2021-12-21,04:24:48",10.1.1.4,309,-0.040,-0.040,-0.040,0.000,0.000,0.000
1640060689057966080,"2021-12-21,04:24:49",10.1.1.4,0.3727090358734131,-0.040,-0.040,-0.040,0.000,0.000,0.000
1640060689390387968,"2021-12-21,04:24:49",10.1.1.4,323,-0.050,-0.050,-0.050,0.000,0.000,0.000
1640060689454173184,"2021-12-21,04:24:49",10.1.1.4,0.3875091075897217,-0.050,-0.050,-0.050,0.000,0.000,0.000
1640060689742309120,"2021-12-21,04:24:49",10.1.1.4,285,-0.060,-0.060,-0.060,0.000,0.000,0.000
1640060689775762944,"2021-12-21,04:24:49",10.1.1.4,0.3202691078186035,-0.060,-0.060,-0.060,0.000,0.000,0.000
1640060690111017984,"2021-12-21,04:24:50",10.1.1.4,330,-0.070,-0.070,-0.070,0.000,0.000,0.000
1640060690129487104,"2021-12-21,04:24:50",10.1.1.4,0.3486948013305664,-0.070,-0.070,-0.070,0.000,0.000,0.000
1640060690448913152,"2021-12-21,04:24:50",10.1.1.4,317,-0.080,-0.080,-0.080,0.000,0.000,0.000
1640060690500758784,"2021-12-21,04:24:50",10.1.1.4,0.36954498291015625,-0.080,-0.080,-0.080,0.000,0.000,0.000
1640060690841465088,"2021-12-21,04:24:50",10.1.1.4,325,-0.090,-0.090,-0.090,0.000,0.000,0.000
1640060690870372096,"2021-12-21,04:24:50",10.1.1.4,0.3568079471588135,-0.090,-0.090,-0.090,0.000,0.000,0.000
1640060691188445952,"2021-12-21,04:24:51",10.1.1.4,314,-0.100,-0.100,-0.100,0.000,0.000,0.000
1640060691227350016,"2021-12-21,04:24:51",10.1.1.4,0.35363101959228516,-0.100,-0.100,-0.100,0.000,0.000,0.000
1640060691567374848,"2021-12-21,04:24:51",10.1.1.4,337,-0.110,-0.110,-0.110,0.000,0.000,0.000
1640060691595896832,"2021-12-21,04:24:51",10.1.1.4,0.3659029006958008,-0.110,-0.110,-0.110,0.000,0.000,0.000
1640060691933701888,"2021-12-21,04:24:51",10.1.1.4,322,-0.120,-0.120,-0.120,0.000,0.000,0.000
1640060691980770048,"2021-12-21,04:24:51",10.1.1.4,0.3731510639190674,-0.120,-0.120,-0.120,0.000,0.000,0.000
1640060692277617920,"2021-12-21,04:24:52",10.1.1.4,294,-0.130,-0.130,-0.130,0.000,0.000,0.000
1640060692382579968,"2021-12-21,04:24:52",10.1.1.4,0.3991889953613281,-0.130,-0.130,-0.130,0.000,0.000,0.000
1640060692684401152,"2021-12-21,04:24:52",10.1.1.4,299,-0.140,-0.140,-0.140,0.000,0.000,0.000
1640060692719144960,"2021-12-21,04:24:52",10.1.1.4,0.3351449966430664,-0.140,-0.140,-0.140,0.000,0.000,0.000
1640060693036933888,"2021-12-21,04:24:53",10.1.1.4,312,-0.150,-0.150,-0.150,0.000,0.000,0.000
1640060693066304000,"2021-12-21,04:24:53",10.1.1.4,0.3420720100402832,-0.150,-0.150,-0.150,0.000,0.000,0.000
1640060693445084928,"2021-12-21,04:24:53",10.1.1.4,372,-0.160,-0.160,-0.160,0.000,0.000,0.000
1640060693469796864,"2021-12-21,04:24:53",10.1.1.4,0.3977689743041992,-0.160,-0.160,-0.160,0.000,0.000,0.000
1640060693825160960,"2021-12-21,04:24:53",10.1.1.4,353,-0.170,-0.170,-0.170,0.000,0.000,0.000
1640060693869167104,"2021-12-21,04:24:53",10.1.1.4,0.39717793464660645,-0.170,-0.170,-0.170,0.000,0.000,0.000
1640060694219314944,"2021-12-21,04:24:54",10.1.1.4,0.3488750457763672,-0.180,-0.180,-0.180,0.000,0.000,0.000
1640060694534277888,"2021-12-21,04:24:54",10.1.1.4,310,-0.190,-0.190,-0.190,0.000,0.000,0.000
1640060694581159168,"2021-12-21,04:24:54",10.1.1.4,0.35724592208862305,-0.190,-0.190,-0.190,0.000,0.000,0.000
1640060694954009088,"2021-12-21,04:24:54",10.1.1.4,370,-0.200,-0.200,-0.200,0.000,0.000,0.000
1640060694994272000,"2021-12-21,04:24:54",10.1.1.4,0.41129398345947266,-0.200,-0.200,-0.200,0.000,0.000,0.000
1640060695293248000,"2021-12-21,04:24:55",10.1.1.4,297,-0.210,-0.210,-0.210,0.000,0.000,0.000
1640060695327991040,"2021-12-21,04:24:55",10.1.1.4,0.3319680690765381,-0.210,-0.210,-0.210,0.000,0.000,0.000
1640060695694279936,"2021-12-21,04:24:55",10.1.1.4,364,-0.220,-0.220,-0.220,0.000,0.000,0.000
1640060695722776064,"2021-12-21,04:24:55",10.1.1.4,0.39320802688598633,-0.220,-0.220,-0.220,0.000,0.000,0.000
1640060696044542976,"2021-12-21,04:24:56",10.1.1.4,316,-0.230,-0.230,-0.230,0.000,0.000,0.000
1640060696115059968,"2021-12-21,04:24:56",10.1.1.4,0.3870508670806885,-0.230,-0.230,-0.230,0.000,0.000,0.000
1640060696451305984,"2021-12-21,04:24:56",10.1.1.4,327,-0.240,-0.240,-0.240,0.000,0.000,0.000
1640060696537136128,"2021-12-21,04:24:56",10.1.1.4,0.41411900520324707,-0.240,-0.240,-0.240,0.000,0.000,0.000
1640060696832156928,"2021-12-21,04:24:56",10.1.1.4,293,-0.250,-0.250,-0.250,0.000,0.000,0.000
1640060696873025024,"2021-12-21,04:24:56",10.1.1.4,0.3345639705657959,-0.250,-0.250,-0.250,0.000,0.000,0.000
1640060697185427968,"2021-12-21,04:24:57",10.1.1.4,309,-0.260,-0.260,-0.260,0.000,0.000,0.000
1640060697205234944,"2021-12-21,04:24:57",10.1.1.4,0.3281409740447998,-0.260,-0.260,-0.260,0.000,0.000,0.000
1640060697540188928,"2021-12-21,04:24:57",10.1.1.4,329,-0.270,-0.270,-0.270,0.000,0.000,0.000
1640060697570277888,"2021-12-21,04:24:57",10.1.1.4,0.35990405082702637,-0.270,-0.270,-0.270,0.000,0.000,0.000
1640060697910726912,"2021-12-21,04:24:57",10.1.1.4,332,-0.280,-0.280,-0.280,0.000,0.000,0.000
1640060697928082944,"2021-12-21,04:24:57",10.1.1.4,0.350383996963501,-0.280,-0.280,-0.280,0.000,0.000,0.000
1640060698239548928,"2021-12-21,04:24:58",10.1.1.4,309,-0.290,-0.290,-0.290,0.000,0.000,0.000
1640060698318584064,"2021-12-21,04:24:58",10.1.1.4,0.3886129856109619,-0.290,-0.290,-0.290,0.000,0.000,0.000
1640060698659128832,"2021-12-21,04:24:58",10.1.1.4,325,-0.300,-0.300,-0.300,0.000,0.000,0.000
1640060698704230912,"2021-12-21,04:24:58",10.1.1.4,0.3713037967681885,-0.300,-0.300,-0.300,0.000,0.000,0.000
1640060699008201984,"2021-12-21,04:24:59",10.1.1.4,301,-0.310,-0.310,-0.310,0.000,0.000,0.000
1640060699077737216,"2021-12-21,04:24:59",10.1.1.4,0.37145185470581055,-0.310,-0.310,-0.310,0.000,0.000,0.000
1640060699374099968,"2021-12-21,04:24:59",10.1.1.4,293,-0.320,-0.320,-0.320,0.000,0.000,0.000
1640060699420667904,"2021-12-21,04:24:59",10.1.1.4,0.3415510654449463,-0.320,-0.320,-0.320,0.000,0.000,0.000
1640060699749084928,"2021-12-21,04:24:59",10.1.1.4,326,-0.330,-0.330,-0.330,0.000,0.000,0.000
1640060699781836032,"2021-12-21,04:24:59",10.1.1.4,0.3568880558013916,-0.330,-0.330,-0.330,0.000,0.000,0.000
1640060700124393984,"2021-12-21,04:25:00",10.1.1.4,340,-0.340,-0.340,-0.340,0.000,0.000,0.000
1640060700160329984,"2021-12-21,04:25:00",10.1.1.4,0.37603211402893066,-0.340,-0.340,-0.340,0.000,0.000,0.000
1640060700500515840,"2021-12-21,04:25:00",10.1.1.4,336,-0.350,-0.350,-0.350,0.000,0.000,0.000
1640060700570393088,"2021-12-21,04:25:00",10.1.1.4,0.4074540138244629,-0.350,-0.350,-0.350,0.000,0.000,0.000
1640060700886651904,"2021-12-21,04:25:00",10.1.1.4,311,-0.360,-0.360,-0.360,0.000,0.000,0.000
1640060700975578112,"2021-12-21,04:25:00",10.1.1.4,0.40100598335266113,-0.360,-0.360,-0.360,0.000,0.000,0.000
1640060701270562048,"2021-12-21,04:25:01",10.1.1.4,293,-0.370,-0.370,-0.370,0.000,0.000,0.000
1640060701297204992,"2021-12-21,04:25:01",10.1.1.4,0.3202831745147705,-0.370,-0.370,-0.370,0.000,0.000,0.000
1640060701605833984,"2021-12-21,04:25:01",10.1.1.4,305,-0.380,-0.380,-0.380,0.000,0.000,0.000
1640060701651779840,"2021-12-21,04:25:01",10.1.1.4,0.35184192657470703,-0.380,-0.380,-0.380,0.000,0.000,0.000
1640060701996801024,"2021-12-21,04:25:01",10.1.1.4,337,-0.390,-0.390,-0.390,0.000,0.000,0.000
1640060702010312960,"2021-12-21,04:25:02",10.1.1.4,0.35072898864746094,-0.390,-0.390,-0.390,0.000,0.000,0.000
1640060702345235200,"2021-12-21,04:25:02",10.1.1.4,333,-0.400,-0.400,-0.400,0.000,0.000,0.000
1640060702359055872,"2021-12-21,04:25:02",10.1.1.4,0.3468308448791504,-0.400,-0.400,-0.400,0.000,0.000,0.000
1640060702699638016,"2021-12-21,04:25:02",10.1.1.4,338,-0.410,-0.410,-0.410,0.000,0.000,0.000
1640060702798535168,"2021-12-21,04:25:02",10.1.1.4,0.43787217140197754,-0.410,-0.410,-0.410,0.000,0.000,0.000
1640060703120620032,"2021-12-21,04:25:03",10.1.1.4,320,-0.420,-0.420,-0.420,0.000,0.000,0.000
1640060703148855040,"2021-12-21,04:25:03",10.1.1.4,0.34894299507141113,-0.420,-0.420,-0.420,0.000,0.000,0.000
1640060703472430848,"2021-12-21,04:25:03",10.1.1.4,305,-0.430,-0.430,-0.430,0.000,0.000,0.000
1640060703509804032,"2021-12-21,04:25:03",10.1.1.4,0.3423891067504883,-0.430,-0.430,-0.430,0.000,0.000,0.000
1640060703843254016,"2021-12-21,04:25:03",10.1.1.4,330,-0.440,-0.440,-0.440,0.000,0.000,0.000
1640060703911709952,"2021-12-21,04:25:03",10.1.1.4,0.39891505241394043,-0.440,-0.440,-0.440,0.000,0.000,0.000
1640060704225636096,"2021-12-21,04:25:04",10.1.1.4,312,-0.450,-0.450,-0.450,0.000,0.000,0.000
1640060704279980800,"2021-12-21,04:25:04",10.1.1.4,0.36659717559814453,-0.450,-0.450,-0.450,0.000,0.000,0.000
1640060704615614976,"2021-12-21,04:25:04",10.1.1.4,325,-0.460,-0.460,-0.460,0.000,0.000,0.000
1640060704711425024,"2021-12-21,04:25:04",10.1.1.4,0.4216890335083008,-0.460,-0.460,-0.460,0.000,0.000,0.000
1640060705008094976,"2021-12-21,04:25:05",10.1.1.4,295,-0.470,-0.470,-0.470,0.000,0.000,0.000
1640060705049288960,"2021-12-21,04:25:05",10.1.1.4,0.33663010597229004,-0.470,-0.470,-0.470,0.000,0.000,0.000
1640060705410173952,"2021-12-21,04:25:05",10.1.1.4,359,-0.480,-0.480,-0.480,0.000,0.000,0.000
1640060705411681792,"2021-12-21,04:25:05",10.1.1.4,0.361055850982666,-0.480,-0.480,-0.480,0.000,0.000,0.000
1640060705729901056,"2021-12-21,04:25:05",10.1.1.4,312,-0.490,-0.490,-0.490,0.000,0.000,0.000
1640060705805551104,"2021-12-21,04:25:05",10.1.1.4,0.38930797576904297,-0.490,-0.490,-0.490,0.000,0.000,0.000
1640060706116013056,"2021-12-21,04:25:06",10.1.1.4,305,-0.480,-0.480,-0.480,0.000,0.000,0.000
1640060706218774016,"2021-12-21,04:25:06",10.1.1.4,0.41191601753234863,-0.480,-0.480,-0.480,0.000,0.000,0.000
1640060706528646912,"2021-12-21,04:25:06",10.1.1.4,308,-0.470,-0.470,-0.470,0.000,0.000,0.000
1640060706537782784,"2021-12-21,04:25:06",10.1.1.4,0.3177931308746338,-0.470,-0.470,-0.470,0.000,0.000,0.000
1640060706830148864,"2021-12-21,04:25:06",10.1.1.4,290,-0.460,-0.460,-0.460,0.000,0.000,0.000
1640060706899444992,"2021-12-21,04:25:06",10.1.1.4,0.36041998863220215,-0.460,-0.460,-0.460,0.000,0.000,0.000
1640060707203773952,"2021-12-21,04:25:07",10.1.1.4,299,-0.450,-0.450,-0.450,0.000,0.000,0.000
1640060707229327872,"2021-12-21,04:25:07",10.1.1.4,0.32826685905456543,-0.450,-0.450,-0.450,0.000,0.000,0.000
1640060707579393024,"2021-12-21,04:25:07",10.1.1.4,346,-0.440,-0.440,-0.440,0.000,0.000,0.000
1640060707639697152,"2021-12-21,04:25:07",10.1.1.4,0.4081850051879883,-0.440,-0.440,-0.440,0.000,0.000,0.000
1640060707932333056,"2021-12-21,04:25:07",10.1.1.4,289,-0.430,-0.430,-0.430,0.000,0.000,0.000
1640060707995496960,"2021-12-21,04:25:07",10.1.1.4,0.3535470962524414,-0.430,-0.430,-0.430,0.000,0.000,0.000
1640060708313668864,"2021-12-21,04:25:08",10.1.1.4,316,-0.420,-0.420,-0.420,0.000,0.000,0.000
1640060708340775936,"2021-12-21,04:25:08",10.1.1.4,0.3437380790710449,-0.420,-0.420,-0.420,0.000,0.000,0.000
1640060708673037056,"2021-12-21,04:25:08",10.1.1.4,330,-0.410,-0.410,-0.410,0.000,0.000,0.000
1640060708725307904,"2021-12-21,04:25:08",10.1.1.4,0.38239002227783203,-0.410,-0.410,-0.410,0.000,0.000,0.000
1640060709067480064,"2021-12-21,04:25:09",10.1.1.4,339,-0.400,-0.400,-0.400,0.000,0.000,0.000
1640060709068442112,"2021-12-21,04:25:09",10.1.1.4,0.34101295471191406,-0.400,-0.400,-0.400,0.000,0.000,0.000
1640060709422134016,"2021-12-21,04:25:09",10.1.1.4,349,-0.390,-0.390,-0.390,0.000,0.000,0.000
1640060709460276992,"2021-12-21,04:25:09",10.1.1.4,0.38771581649780273,-0.390,-0.390,-0.390,0.000,0.000,0.000
1640060709783087104,"2021-12-21,04:25:09",10.1.1.4,315,-0.380,-0.380,-0.380,0.000,0.000,0.000
1640060709840337152,"2021-12-21,04:25:09",10.1.1.4,0.3727869987487793,-0.380,-0.380,-0.380,0.000,0.000,0.000
1640060710161204224,"2021-12-21,04:25:10",10.1.1.4,319,-0.370,-0.370,-0.370,0.000,0.000,0.000
1640060710205504000,"2021-12-21,04:25:10",10.1.1.4,0.36362409591674805,-0.370,-0.370,-0.370,0.000,0.000,0.000
1640060710503606016,"2021-12-21,04:25:10",10.1.1.4,292,-0.360,-0.360,-0.360,0.000,0.000,0.000
1640060710535927040,"2021-12-21,04:25:10",10.1.1.4,0.32562708854675293,-0.360,-0.360,-0.360,0.000,0.000,0.000
1640060710893681152,"2021-12-21,04:25:10",10.1.1.4,355,-0.350,-0.350,-0.350,0.000,0.000,0.000
1640060710941888000,"2021-12-21,04:25:10",10.1.1.4,0.40385890007019043,-0.350,-0.350,-0.350,0.000,0.000,0.000
1640060711288067072,"2021-12-21,04:25:11",10.1.1.4,330,-0.340,-0.340,-0.340,0.000,0.000,0.000
1640060711335606016,"2021-12-21,04:25:11",10.1.1.4,0.37834906578063965,-0.340,-0.340,-0.340,0.000,0.000,0.000
1640060711663703808,"2021-12-21,04:25:11",10.1.1.4,325,-0.330,-0.330,-0.330,0.000,0.000,0.000
1640060711689255936,"2021-12-21,04:25:11",10.1.1.4,0.35183119773864746,-0.330,-0.330,-0.330,0.000,0.000,0.000
1640060712044205824,"2021-12-21,04:25:12",10.1.1.4,352,-0.320,-0.320,-0.320,0.000,0.000,0.000
1640060712102343936,"2021-12-21,04:25:12",10.1.1.4,0.41048693656921387,-0.320,-0.320,-0.320,0.000,0.000,0.000
1640060712433146112,"2021-12-21,04:25:12",10.1.1.4,327,-0.310,-0.310,-0.310,0.000,0.000,0.000
1640060712456603136,"2021-12-21,04:25:12",10.1.1.4,0.35232114791870117,-0.310,-0.310,-0.310,0.000,0.000,0.000
1640060712753778944,"2021-12-21,04:25:12",10.1.1.4,295,-0.300,-0.300,-0.300,0.000,0.000,0.000
1640060712795898880,"2021-12-21,04:25:12",10.1.1.4,0.3374359607696533,-0.300,-0.300,-0.300,0.000,0.000,0.000
1640060713113218048,"2021-12-21,04:25:13",10.1.1.4,315,-0.290,-0.290,-0.290,0.000,0.000,0.000
1640060713151457024,"2021-12-21,04:25:13",10.1.1.4,0.35356688499450684,-0.290,-0.290,-0.290,0.000,0.000,0.000
1640060713492641024,"2021-12-21,04:25:13",10.1.1.4,333,-0.280,-0.280,-0.280,0.000,0.000,0.000
1640060713588609024,"2021-12-21,04:25:13",10.1.1.4,0.4301948547363281,-0.280,-0.280,-0.280,0.000,0.000,0.000
1640060713887048960,"2021-12-21,04:25:13",10.1.1.4,296,-0.270,-0.270,-0.270,0.000,0.000,0.000
1640060713934241024,"2021-12-21,04:25:13",10.1.1.4,0.34439706802368164,-0.270,-0.270,-0.270,0.000,0.000,0.000
1640060714256000000,"2021-12-21,04:25:14",10.1.1.4,317,-0.260,-0.260,-0.260,0.000,0.000,0.000
1640060714314030848,"2021-12-21,04:25:14",10.1.1.4,0.37654590606689453,-0.260,-0.260,-0.260,0.000,0.000,0.000
1640060714623718912,"2021-12-21,04:25:14",10.1.1.4,308,-0.250,-0.250,-0.250,0.000,0.000,0.000
1640060714668843008,"2021-12-21,04:25:14",10.1.1.4,0.35352611541748047,-0.250,-0.250,-0.250,0.000,0.000,0.000
1640060714969944064,"2021-12-21,04:25:14",10.1.1.4,299,-0.240,-0.240,-0.240,0.000,0.000,0.000
1640060715081673984,"2021-12-21,04:25:15",10.1.1.4,0.41116809844970703,-0.240,-0.240,-0.240,0.000,0.000,0.000
1640060715373230848,"2021-12-21,04:25:15",10.1.1.4,290,-0.230,-0.230,-0.230,0.000,0.000,0.000
1640060715416156928,"2021-12-21,04:25:15",10.1.1.4,0.333331823348999,-0.230,-0.230,-0.230,0.000,0.000,0.000
1640060715711360000,"2021-12-21,04:25:15",10.1.1.4,293,-0.220,-0.220,-0.220,0.000,0.000,0.000
1640060715753844992,"2021-12-21,04:25:15",10.1.1.4,0.3353610038757324,-0.220,-0.220,-0.220,0.000,0.000,0.000
1640060716090539008,"2021-12-21,04:25:16",10.1.1.4,332,-0.210,-0.210,-0.210,0.000,0.000,0.000
1640060716121472000,"2021-12-21,04:25:16",10.1.1.4,0.36347293853759766,-0.210,-0.210,-0.210,0.000,0.000,0.000
1640060716471868928,"2021-12-21,04:25:16",10.1.1.4,335,-0.200,-0.200,-0.200,0.000,0.000,0.000
1640060716525245952,"2021-12-21,04:25:16",10.1.1.4,0.3878481388092041,-0.200,-0.200,-0.200,0.000,0.000,0.000
1640060716840118016,"2021-12-21,04:25:16",10.1.1.4,313,-0.190,-0.190,-0.190,0.000,0.000,0.000
1640060716866584064,"2021-12-21,04:25:16",10.1.1.4,0.3399031162261963,-0.190,-0.190,-0.190,0.000,0.000,0.000
1640060717220261120,"2021-12-21,04:25:17",10.1.1.4,345,-0.180,-0.180,-0.180,0.000,0.000,0.000
1640060717295866112,"2021-12-21,04:25:17",10.1.1.4,0.4212911128997803,-0.180,-0.180,-0.180,0.000,0.000,0.000
1640060717610491904,"2021-12-21,04:25:17",10.1.1.4,310,-0.170,-0.170,-0.170,0.000,0.000,0.000
1640060717632999936,"2021-12-21,04:25:17",10.1.1.4,0.33236217498779297,-0.170,-0.170,-0.170,0.000,0.000,0.000
1640060717929637888,"2021-12-21,04:25:17",10.1.1.4,294,-0.160,-0.160,-0.160,0.000,0.000,0.000
1640060717962172928,"2021-12-21,04:25:17",10.1.1.4,0.32717299461364746,-0.160,-0.160,-0.160,0.000,0.000,0.000
1640060718309807104,"2021-12-21,04:25:18",10.1.1.4,331,-0.150,-0.150,-0.150,0.000,0.000,0.000
1640060718378490880,"2021-12-21,04:25:18",10.1.1.4,0.40003299713134766,-0.150,-0.150,-0.150,0.000,0.000,0.000
1640060718674333184,"2021-12-21,04:25:18",10.1.1.4,294,-0.140,-0.140,-0.140,0.000,0.000,0.000
1640060718742170112,"2021-12-21,04:25:18",10.1.1.4,0.3623640537261963,-0.140,-0.140,-0.140,0.000,0.000,0.000
1640060719058462976,"2021-12-21,04:25:19",10.1.1.4,308,-0.130,-0.130,-0.130,0.000,0.000,0.000
1640060719098833920,"2021-12-21,04:25:19",10.1.1.4,0.34932398796081543,-0.130,-0.130,-0.130,0.000,0.000,0.000
1640060719406939136,"2021-12-21,04:25:19",10.1.1.4,305,-0.120,-0.120,-0.120,0.000,0.000,0.000
1640060719445733120,"2021-12-21,04:25:19",10.1.1.4,0.34395694732666016,-0.120,-0.120,-0.120,0.000,0.000,0.000
1640060719781018880,"2021-12-21,04:25:19",10.1.1.4,333,-0.110,-0.110,-0.110,0.000,0.000,0.000
1640060719799475968,"2021-12-21,04:25:19",10.1.1.4,0.35199499130249023,-0.110,-0.110,-0.110,0.000,0.000,0.000
1640060720136486144,"2021-12-21,04:25:20",10.1.1.4,335,-0.100,-0.100,-0.100,0.000,0.000,0.000
1640060720155255040,"2021-12-21,04:25:20",10.1.1.4,0.3541538715362549,-0.100,-0.100,-0.100,0.000,0.000,0.000
1640060720496640000,"2021-12-21,04:25:20",10.1.1.4,322,-0.090,-0.090,-0.090,0.000,0.000,0.000
1640060720538484224,"2021-12-21,04:25:20",10.1.1.4,0.3641479015350342,-0.090,-0.090,-0.090,0.000,0.000,0.000
1640060720876323072,"2021-12-21,04:25:20",10.1.1.4,335,-0.080,-0.080,-0.080,0.000,0.000,0.000
1640060720944529152,"2021-12-21,04:25:20",10.1.1.4,0.4038410186767578,-0.080,-0.080,-0.080,0.000,0.000,0.000
1640060721256702976,"2021-12-21,04:25:21",10.1.1.4,310,-0.070,-0.070,-0.070,0.000,0.000,0.000
1640060721342885120,"2021-12-21,04:25:21",10.1.1.4,0.39679479598999023,-0.070,-0.070,-0.070,0.000,0.000,0.000
1640060721634445824,"2021-12-21,04:25:21",10.1.1.4,290,-0.060,-0.060,-0.060,0.000,0.000,0.000
1640060721668749056,"2021-12-21,04:25:21",10.1.1.4,0.3245999813079834,-0.060,-0.060,-0.060,0.000,0.000,0.000
1640060722004579072,"2021-12-21,04:25:22",10.1.1.4,333,-0.050,-0.050,-0.050,0.000,0.000,0.000
1640060722098093056,"2021-12-21,04:25:22",10.1.1.4,0.4273240566253662,-0.050,-0.050,-0.050,0.000,0.000,0.000
1640060722436445952,"2021-12-21,04:25:22",10.1.1.4,334,-0.040,-0.040,-0.040,0.000,0.000,0.000
1640060722456675072,"2021-12-21,04:25:22",10.1.1.4,0.35421204566955566,-0.040,-0.040,-0.040,0.000,0.000,0.000
1640060722794924032,"2021-12-21,04:25:22",10.1.1.4,333,-0.030,-0.030,-0.030,0.000,0.000,0.000
1640060722859042816,"2021-12-21,04:25:22",10.1.1.4,0.398364782333374,-0.030,-0.030,-0.030,0.000,0.000,0.000
1640060723162860032,"2021-12-21,04:25:23",10.1.1.4,301,-0.020,-0.020,-0.020,0.000,0.000,0.000
1640060723206440960,"2021-12-21,04:25:23",10.1.1.4,0.34522104263305664,-0.020,-0.020,-0.020,0.000,0.000,0.000
1640060723525816064,"2021-12-21,04:25:23",10.1.1.4,317,-0.010,-0.010,-0.010,0.000,0.000,0.000
1640060723553921024,"2021-12-21,04:25:23",10.1.1.4,0.34582996368408203,-0.010,-0.010,-0.010,0.000,0.000,0.000
1640060723912432896,"2021-12-21,04:25:23",10.1.1.4,340,0.000,0.000,0.000,0.000,0.000,0.000
1640060723992568064,"2021-12-21,04:25:23",10.1.1.4,0.4211699962615967,0.000,0.000,0.000,0.000,0.000,0.000
1640060724298202880,"2021-12-21,04:25:24",10.1.1.4,304,-0.010,-0.010,-0.010,0.000,0.000,0.000
1640060724375109888,"2021-12-21,04:25:24",10.1.1.4,0.38115406036376953,-0.010,-0.010,-0.010,0.000,0.000,0.000
1640060724665324800,"2021-12-21,04:25:24",10.1.1.4,288,-0.020,-0.020,-0.020,0.000,0.000,0.000
1640060724737997056,"2021-12-21,04:25:24",10.1.1.4,0.3611929416656494,-0.020,-0.020,-0.020,0.000,0.000,0.000
1640060725068350976,"2021-12-21,04:25:25",10.1.1.4,328,-0.030,-0.030,-0.030,0.000,0.000,0.000
1640060725103890944,"2021-12-21,04:25:25",10.1.1.4,0.3643970489501953,-0.030,-0.030,-0.030,0.000,0.000,0.000
1640060725422077952,"2021-12-21,04:25:25",10.1.1.4,315,-0.040,-0.040,-0.040,0.000,0.000,0.000
1640060725509281024,"2021-12-21,04:25:25",10.1.1.4,0.4029700756072998,-0.040,-0.040,-0.040,0.000,0.000,0.000
1640060725819389184,"2021-12-21,04:25:25",10.1.1.4,308,-0.050,-0.050,-0.050,0.000,0.000,0.000
1640060725858668032,"2021-12-21,04:25:25",10.1.1.4,0.3478989601135254,-0.050,-0.050,-0.050,0.000,0.000,0.000
1640060726148852992,"2021-12-21,04:25:26",10.1.1.4,286,-0.060,-0.060,-0.060,0.000,0.000,0.000
1640060726228670976,"2021-12-21,04:25:26",10.1.1.4,0.36663198471069336,-0.060,-0.060,-0.060,0.000,0.000,0.000
1640060726527609088,"2021-12-21,04:25:26",10.1.1.4,291,-0.070,-0.070,-0.070,0.000,0.000,0.000
1640060726618976000,"2021-12-21,04:25:26",10.1.1.4,0.3827650547027588,-0.070,-0.070,-0.070,0.000,0.000,0.000
1640060726938228992,"2021-12-21,04:25:26",10.1.1.4,315,-0.080,-0.080,-0.080,0.000,0.000,0.000
1640060726979616000,"2021-12-21,04:25:26",10.1.1.4,0.35724592208862305,-0.080,-0.080,-0.080,0.000,0.000,0.000
1640060727308968960,"2021-12-21,04:25:27",10.1.1.4,311,-0.090,-0.090,-0.090,0.000,0.000,0.000
1640060727363208960,"2021-12-21,04:25:27",10.1.1.4,0.36561107635498047,-0.090,-0.090,-0.090,0.000,0.000,0.000
1640060727702366976,"2021-12-21,04:25:27",10.1.1.4,337,-0.100,-0.100,-0.100,0.000,0.000,0.000
1640060727771014912,"2021-12-21,04:25:27",10.1.1.4,0.40605807304382324,-0.100,-0.100,-0.100,0.000,0.000,0.000
1640060728098454016,"2021-12-21,04:25:28",10.1.1.4,325,-0.110,-0.110,-0.110,0.000,0.000,0.000
1640060728168428032,"2021-12-21,04:25:28",10.1.1.4,0.3955550193786621,-0.110,-0.110,-0.110,0.000,0.000,0.000
1640060728496265984,"2021-12-21,04:25:28",10.1.1.4,326,-0.120,-0.120,-0.120,0.000,0.000,0.000
1640060728527792896,"2021-12-21,04:25:28",10.1.1.4,0.35814404487609863,-0.120,-0.120,-0.120,0.000,0.000,0.000
1640060728845478912,"2021-12-21,04:25:28",10.1.1.4,316,-0.130,-0.130,-0.130,0.000,0.000,0.000
1640060728911407872,"2021-12-21,04:25:28",10.1.1.4,0.3823380470275879,-0.130,-0.130,-0.130,0.000,0.000,0.000
1640060729234371840,"2021-12-21,04:25:29",10.1.1.4,319,-0.140,-0.140,-0.140,0.000,0.000,0.000
1640060729279438848,"2021-12-21,04:25:29",10.1.1.4,0.3646271228790283,-0.140,-0.140,-0.140,0.000,0.000,0.000
1640060729604785920,"2021-12-21,04:25:29",10.1.1.4,320,-0.150,-0.150,-0.150,0.000,0.000,0.000
1640060729703685888,"2021-12-21,04:25:29",10.1.1.4,0.42026209831237793,-0.150,-0.150,-0.150,0.000,0.000,0.000
1640060729996339200,"2021-12-21,04:25:29",10.1.1.4,290,-0.160,-0.160,-0.160,0.000,0.000,0.000
1640060730026616064,"2021-12-21,04:25:30",10.1.1.4,0.3214559555053711,-0.160,-0.160,-0.160,0.000,0.000,0.000
1640060730389473024,"2021-12-21,04:25:30",10.1.1.4,360,-0.170,-0.170,-0.170,0.000,0.000,0.000
1640060730415666944,"2021-12-21,04:25:30",10.1.1.4,0.3874218463897705,-0.170,-0.170,-0.170,0.000,0.000,0.000
1640060730743051008,"2021-12-21,04:25:30",10.1.1.4,324,-0.180,-0.180,-0.180,0.000,0.000,0.000
1640060730805378816,"2021-12-21,04:25:30",10.1.1.4,0.38761091232299805,-0.180,-0.180,-0.180,0.000,0.000,0.000
1640060731101001984,"2021-12-21,04:25:31",10.1.1.4,293,-0.190,-0.190,-0.190,0.000,0.000,0.000
1640060731140489984,"2021-12-21,04:25:31",10.1.1.4,0.33306002616882324,-0.190,-0.190,-0.190,0.000,0.000,0.000
1640060731490008064,"2021-12-21,04:25:31",10.1.1.4,347,-0.200,-0.200,-0.200,0.000,0.000,0.000
1640060731539284992,"2021-12-21,04:25:31",10.1.1.4,0.3968238830566406,-0.200,-0.200,-0.200,0.000,0.000,0.000
1640060731850617856,"2021-12-21,04:25:31",10.1.1.4,302,-0.210,-0.210,-0.210,0.000,0.000,0.000
1640060731900830976,"2021-12-21,04:25:31",10.1.1.4,0.35239410400390625,-0.210,-0.210,-0.210,0.000,0.000,0.000
1640060732229174016,"2021-12-21,04:25:32",10.1.1.4,312,-0.220,-0.220,-0.220,0.000,0.000,0.000
1640060732288952064,"2021-12-21,04:25:32",10.1.1.4,0.3722341060638428,-0.220,-0.220,-0.220,0.000,0.000,0.000
1640060732609181952,"2021-12-21,04:25:32",10.1.1.4,316,-0.230,-0.230,-0.230,0.000,0.000,0.000
1640060732670049024,"2021-12-21,04:25:32",10.1.1.4,0.37737488746643066,-0.230,-0.230,-0.230,0.000,0.000,0.000
1640060733020668928,"2021-12-21,04:25:33",10.1.1.4,348,-0.240,-0.240,-0.240,0.000,0.000,0.000
1640060733036276992,"2021-12-21,04:25:33",10.1.1.4,0.3644261360168457,-0.240,-0.240,-0.240,0.000,0.000,0.000
1640060733039511808,"2021-12-21,04:25:33",10.1.1.4,-1,-0.250,-0.250,-0.250,0.000,0.000,0.000
1640060733386656000,"2021-12-21,04:25:33",10.1.1.4,0.34785985946655273,-0.250,-0.250,-0.250,0.000,0.000,0.000
1640060733692361984,"2021-12-21,04:25:33",10.1.1.4,302,-0.260,-0.260,-0.260,0.000,0.000,0.000
1640060733749522944,"2021-12-21,04:25:33",10.1.1.4,0.35994601249694824,-0.260,-0.260,-0.260,0.000,0.000,0.000
1640060734074387200,"2021-12-21,04:25:34",10.1.1.4,321,-0.270,-0.270,-0.270,0.000,0.000,0.000
1640060734117240832,"2021-12-21,04:25:34",10.1.1.4,0.36462998390197754,-0.270,-0.270,-0.270,0.000,0.000,0.000
1640060734504265984,"2021-12-21,04:25:34",10.1.1.4,0.36971187591552734,-0.280,-0.280,-0.280,0.000,0.000,0.000
1640060734836674816,"2021-12-21,04:25:34",10.1.1.4,330,-0.290,-0.290,-0.290,0.000,0.000,0.000
1640060734910264064,"2021-12-21,04:25:34",10.1.1.4,0.40384793281555176,-0.290,-0.290,-0.290,0.000,0.000,0.000
1640060734914909952,"2021-12-21,04:25:34",10.1.1.4,-1,-0.300,-0.300,-0.300,0.000,0.000,0.000
1640060735249545216,"2021-12-21,04:25:35",10.1.1.4,0.3374748229980469,-0.300,-0.300,-0.300,0.000,0.000,0.000
1640060735600136960,"2021-12-21,04:25:35",10.1.1.4,347,-0.310,-0.310,-0.310,0.000,0.000,0.000
1640060735681018112,"2021-12-21,04:25:35",10.1.1.4,0.42861199378967285,-0.310,-0.310,-0.310,0.000,0.000,0.000
1640060735991792896,"2021-12-21,04:25:35",10.1.1.4,305,-0.320,-0.320,-0.320,0.000,0.000,0.000
1640060736063878912,"2021-12-21,04:25:36",10.1.1.4,0.37805700302124023,-0.320,-0.320,-0.320,0.000,0.000,0.000
1640060736363589888,"2021-12-21,04:25:36",10.1.1.4,297,-0.330,-0.330,-0.330,0.000,0.000,0.000
1640060736466244096,"2021-12-21,04:25:36",10.1.1.4,0.4003291130065918,-0.330,-0.330,-0.330,0.000,0.000,0.000
1640060736799820800,"2021-12-21,04:25:36",10.1.1.4,0.3321850299835205,-0.340,-0.340,-0.340,0.000,0.000,0.000
1640060736800064000,"2021-12-21,04:25:36",10.1.1.4,332,-0.340,-0.340,-0.340,0.000,0.000,0.000
1640060737126492928,"2021-12-21,04:25:37",10.1.1.4,323,-0.350,-0.350,-0.350,0.000,0.000,0.000
1640060737166853888,"2021-12-21,04:25:37",10.1.1.4,0.36516404151916504,-0.350,-0.350,-0.350,0.000,0.000,0.000
1640060737465006080,"2021-12-21,04:25:37",10.1.1.4,294,-0.360,-0.360,-0.360,0.000,0.000,0.000
1640060737561899008,"2021-12-21,04:25:37",10.1.1.4,0.391434907913208,-0.360,-0.360,-0.360,0.000,0.000,0.000
1640060737919624192,"2021-12-21,04:25:37",10.1.1.4,0.35588812828063965,-0.370,-0.370,-0.370,0.000,0.000,0.000
1640060738239523840,"2021-12-21,04:25:38",10.1.1.4,317,-0.380,-0.380,-0.380,0.000,0.000,0.000
1640060738268545024,"2021-12-21,04:25:38",10.1.1.4,0.3461132049560547,-0.380,-0.380,-0.380,0.000,0.000,0.000
1640060738587361024,"2021-12-21,04:25:38",10.1.1.4,316,-0.390,-0.390,-0.390,0.000,0.000,0.000
1640060738695697920,"2021-12-21,04:25:38",10.1.1.4,0.4248330593109131,-0.390,-0.390,-0.390,0.000,0.000,0.000
1640060739009783040,"2021-12-21,04:25:39",10.1.1.4,312,-0.400,-0.400,-0.400,0.000,0.000,0.000
1640060739029817088,"2021-12-21,04:25:39",10.1.1.4,0.33246684074401855,-0.400,-0.400,-0.400,0.000,0.000,0.000
1640060739341200128,"2021-12-21,04:25:39",10.1.1.4,309,-0.410,-0.410,-0.410,0.000,0.000,0.000
1640060739364969984,"2021-12-21,04:25:39",10.1.1.4,0.3337409496307373,-0.410,-0.410,-0.410,0.000,0.000,0.000
1640060739709014016,"2021-12-21,04:25:39",10.1.1.4,341,-0.420,-0.420,-0.420,0.000,0.000,0.000
1640060739778908928,"2021-12-21,04:25:39",10.1.1.4,0.41100001335144043,-0.420,-0.420,-0.420,0.000,0.000,0.000
1640060740079230976,"2021-12-21,04:25:40",10.1.1.4,297,-0.430,-0.430,-0.430,0.000,0.000,0.000
1640060740178287872,"2021-12-21,04:25:40",10.1.1.4,0.39705610275268555,-0.430,-0.430,-0.430,0.000,0.000,0.000
1640060740469510912,"2021-12-21,04:25:40",10.1.1.4,288,-0.440,-0.440,-0.440,0.000,0.000,0.000
1640060740533221888,"2021-12-21,04:25:40",10.1.1.4,0.3521080017089844,-0.440,-0.440,-0.440,0.000,0.000,0.000
1640060740855886848,"2021-12-21,04:25:40",10.1.1.4,320,-0.450,-0.450,-0.450,0.000,0.000,0.000
1640060740936295936,"2021-12-21,04:25:40",10.1.1.4,0.40143704414367676,-0.450,-0.450,-0.450,0.000,0.000,0.000
1640060741261976064,"2021-12-21,04:25:41",10.1.1.4,323,-0.460,-0.460,-0.460,0.000,0.000,0.000
1640060741327964928,"2021-12-21,04:25:41",10.1.1.4,0.38985705375671387,-0.460,-0.460,-0.460,0.000,0.000,0.000
1640060741643620864,"2021-12-21,04:25:41",10.1.1.4,312,-0.470,-0.470,-0.470,0.000,0.000,0.000
1640060741686194944,"2021-12-21,04:25:41",10.1.1.4,0.3548920154571533,-0.470,-0.470,-0.470,0.000,0.000,0.000
1640060742039282176,"2021-12-21,04:25:42",10.1.1.4,342,-0.480,-0.480,-0.480,0.000,0.000,0.000
1640060742080984064,"2021-12-21,04:25:42",10.1.1.4,0.3913590908050537,-0.480,-0.480,-0.480,0.000,0.000,0.000
1640060742400857856,"2021-12-21,04:25:42",10.1.1.4,318,-0.490,-0.490,-0.490,0.000,0.000,0.000
1640060742432996096,"2021-12-21,04:25:42",10.1.1.4,0.3505289554595947,-0.490,-0.490,-0.490,0.000,0.000,0.000
1640060742811175936,"2021-12-21,04:25:42",10.1.1.4,374,-0.480,-0.480,-0.480,0.000,0.000,0.000
1640060742869733120,"2021-12-21,04:25:42",10.1.1.4,0.4331181049346924,-0.480,-0.480,-0.480,0.000,0.000,0.000
1640060743172700928,"2021-12-21,04:25:43",10.1.1.4,301,-0.470,-0.470,-0.470,0.000,0.000,0.000
1640060743209230848,"2021-12-21,04:25:43",10.1.1.4,0.33829212188720703,-0.470,-0.470,-0.470,0.000,0.000,0.000
1640060743523261184,"2021-12-21,04:25:43",10.1.1.4,311,-0.460,-0.460,-0.460,0.000,0.000,0.000
1640060743549839104,"2021-12-21,04:25:43",10.1.1.4,0.33873605728149414,-0.460,-0.460,-0.460,0.000,0.000,0.000
1640060743831763968,"2021-12-21,04:25:43",10.1.1.4,280,-0.450,-0.450,-0.450,0.000,0.000,0.000
1640060743861486848,"2021-12-21,04:25:43",10.1.1.4,0.3104398250579834,-0.450,-0.450,-0.450,0.000,0.000,0.000
1640060744202248192,"2021-12-21,04:25:44",10.1.1.4,335,-0.440,-0.440,-0.440,0.000,0.000,0.000
1640060744246660096,"2021-12-21,04:25:44",10.1.1.4,0.3798952102661133,-0.440,-0.440,-0.440,0.000,0.000,0.000
1640060744581413120,"2021-12-21,04:25:44",10.1.1.4,332,-0.430,-0.430,-0.430,0.000,0.000,0.000
1640060744596393984,"2021-12-21,04:25:44",10.1.1.4,0.34804296493530273,-0.430,-0.430,-0.430,0.000,0.000,0.000
1640060744891319040,"2021-12-21,04:25:44",10.1.1.4,293,-0.420,-0.420,-0.420,0.000,0.000,0.000
1640060744944054016,"2021-12-21,04:25:44",10.1.1.4,0.3451361656188965,-0.420,-0.420,-0.420,0.000,0.000,0.000
1640060745241486080,"2021-12-21,04:25:45",10.1.1.4,295,-0.410,-0.410,-0.410,0.000,0.000,0.000
1640060745279195136,"2021-12-21,04:25:45",10.1.1.4,0.3328099250793457,-0.410,-0.410,-0.410,0.000,0.000,0.000
1640060745600941056,"2021-12-21,04:25:45",10.1.1.4,320,-0.400,-0.400,-0.400,0.000,0.000,0.000
1640060745607392000,"2021-12-21,04:25:45",10.1.1.4,0.32687807083129883,-0.400,-0.400,-0.400,0.000,0.000,0.000
1640060745901381888,"2021-12-21,04:25:45",10.1.1.4,292,-0.390,-0.390,-0.390,0.000,0.000,0.000
1640060745942011136,"2021-12-21,04:25:45",10.1.1.4,0.33321380615234375,-0.390,-0.390,-0.390,0.000,0.000,0.000
1640060746240369920,"2021-12-21,04:25:46",10.1.1.4,294,-0.380,-0.380,-0.380,0.000,0.000,0.000
1640060746276156928,"2021-12-21,04:25:46",10.1.1.4,0.33009791374206543,-0.380,-0.380,-0.380,0.000,0.000,0.000
1640060746560364032,"2021-12-21,04:25:46",10.1.1.4,281,-0.370,-0.370,-0.370,0.000,0.000,0.000
1640060746591789056,"2021-12-21,04:25:46",10.1.1.4,0.31357598304748535,-0.370,-0.370,-0.370,0.000,0.000,0.000
1640060746892321024,"2021-12-21,04:25:46",10.1.1.4,297,-0.360,-0.360,-0.360,0.000,0.000,0.000
1640060746950281984,"2021-12-21,04:25:46",10.1.1.4,0.3564939498901367,-0.360,-0.360,-0.360,0.000,0.000,0.000
1640060747261094144,"2021-12-21,04:25:47",10.1.1.4,308,-0.350,-0.350,-0.350,0.000,0.000,0.000
1640060747313426944,"2021-12-21,04:25:47",10.1.1.4,0.3601691722869873,-0.350,-0.350,-0.350,0.000,0.000,0.000
1640060747691917824,"2021-12-21,04:25:47",10.1.1.4,377,-0.340,-0.340,-0.340,0.000,0.000,0.000
1640060747723264000,"2021-12-21,04:25:47",10.1.1.4,0.4084780216217041,-0.340,-0.340,-0.340,0.000,0.000,0.000
1640060748073937920,"2021-12-21,04:25:48",10.1.1.4,345,-0.330,-0.330,-0.330,0.000,0.000,0.000
1640060748122683904,"2021-12-21,04:25:48",10.1.1.4,0.39806604385375977,-0.330,-0.330,-0.330,0.000,0.000,0.000
1640060748449414912,"2021-12-21,04:25:48",10.1.1.4,324,-0.320,-0.320,-0.320,0.000,0.000,0.000
1640060748483355904,"2021-12-21,04:25:48",10.1.1.4,0.35884976387023926,-0.320,-0.320,-0.320,0.000,0.000,0.000
1640060748819809024,"2021-12-21,04:25:48",10.1.1.4,333,-0.310,-0.310,-0.310,0.000,0.000,0.000
1640060748905109760,"2021-12-21,04:25:48",10.1.1.4,0.419313907623291,-0.310,-0.310,-0.310,0.000,0.000,0.000
1640060749189867008,"2021-12-21,04:25:49",10.1.1.4,283,-0.300,-0.300,-0.300,0.000,0.000,0.000
1640060749242359040,"2021-12-21,04:25:49",10.1.1.4,0.33594202995300293,-0.300,-0.300,-0.300,0.000,0.000,0.000
1640060749569236992,"2021-12-21,04:25:49",10.1.1.4,324,-0.290,-0.290,-0.290,0.000,0.000,0.000
1640060749639271936,"2021-12-21,04:25:49",10.1.1.4,0.3949289321899414,-0.290,-0.290,-0.290,0.000,0.000,0.000
1640060749970560000,"2021-12-21,04:25:49",10.1.1.4,319,-0.280,-0.280,-0.280,0.000,0.000,0.000
1640060750002134016,"2021-12-21,04:25:50",10.1.1.4,0.36147093772888184,-0.280,-0.280,-0.280,0.000,0.000,0.000
1640060750324502016,"2021-12-21,04:25:50",10.1.1.4,320,-0.270,-0.270,-0.270,0.000,0.000,0.000
1640060750414881024,"2021-12-21,04:25:50",10.1.1.4,0.41074490547180176,-0.270,-0.270,-0.270,0.000,0.000,0.000
1640060750750086912,"2021-12-21,04:25:50",10.1.1.4,325,-0.260,-0.260,-0.260,0.000,0.000,0.000
1640060750812215040,"2021-12-21,04:25:50",10.1.1.4,0.3890979290008545,-0.260,-0.260,-0.260,0.000,0.000,0.000
1640060751121294848,"2021-12-21,04:25:51",10.1.1.4,307,-0.250,-0.250,-0.250,0.000,0.000,0.000
1640060751139235072,"2021-12-21,04:25:51",10.1.1.4,0.3257560729980469,-0.250,-0.250,-0.250,0.000,0.000,0.000
1640060751447171072,"2021-12-21,04:25:51",10.1.1.4,305,-0.240,-0.240,-0.240,0.000,0.000,0.000
1640060751487862016,"2021-12-21,04:25:51",10.1.1.4,0.3466610908508301,-0.240,-0.240,-0.240,0.000,0.000,0.000
1640060751837235968,"2021-12-21,04:25:51",10.1.1.4,347,-0.230,-0.230,-0.230,0.000,0.000,0.000
1640060751916681984,"2021-12-21,04:25:51",10.1.1.4,0.4272768497467041,-0.230,-0.230,-0.230,0.000,0.000,0.000
1640060752205817856,"2021-12-21,04:25:52",10.1.1.4,287,-0.220,-0.220,-0.220,0.000,0.000,0.000
1640060752280263936,"2021-12-21,04:25:52",10.1.1.4,0.3623678684234619,-0.220,-0.220,-0.220,0.000,0.000,0.000
1640060752585918976,"2021-12-21,04:25:52",10.1.1.4,303,-0.210,-0.210,-0.210,0.000,0.000,0.000
1640060752663037952,"2021-12-21,04:25:52",10.1.1.4,0.38124799728393555,-0.210,-0.210,-0.210,0.000,0.000,0.000
1640060752975563008,"2021-12-21,04:25:52",10.1.1.4,311,-0.200,-0.200,-0.200,0.000,0.000,0.000
1640060753058576128,"2021-12-21,04:25:53",10.1.1.4,0.39432501792907715,-0.200,-0.200,-0.200,0.000,0.000,0.000
1640060753344451840,"2021-12-21,04:25:53",10.1.1.4,284,-0.190,-0.190,-0.190,0.000,0.000,0.000
1640060753433410048,"2021-12-21,04:25:53",10.1.1.4,0.3735198974609375,-0.190,-0.190,-0.190,0.000,0.000,0.000
1640060753748429056,"2021-12-21,04:25:53",10.1.1.4,313,-0.180,-0.180,-0.180,0.000,0.000,0.000
1640060753779376128,"2021-12-21,04:25:53",10.1.1.4,0.34451818466186523,-0.180,-0.180,-0.180,0.000,0.000,0.000
1640060754093590016,"2021-12-21,04:25:54",10.1.1.4,308,-0.170,-0.170,-0.170,0.000,0.000,0.000
1640060754176232192,"2021-12-21,04:25:54",10.1.1.4,0.3917820453643799,-0.170,-0.170,-0.170,0.000,0.000,0.000
1640060754497431040,"2021-12-21,04:25:54",10.1.1.4,318,-0.160,-0.160,-0.160,0.000,0.000,0.000
1640060754561847808,"2021-12-21,04:25:54",10.1.1.4,0.3842959403991699,-0.160,-0.160,-0.160,0.000,0.000,0.000
1640060754907108096,"2021-12-21,04:25:54",10.1.1.4,329,-0.150,-0.150,-0.150,0.000,0.000,0.000
1640060754970045952,"2021-12-21,04:25:54",10.1.1.4,0.4068000316619873,-0.150,-0.150,-0.150,0.000,0.000,0.000
1640060755275515136,"2021-12-21,04:25:55",10.1.1.4,302,-0.140,-0.140,-0.140,0.000,0.000,0.000
1640060755374553856,"2021-12-21,04:25:55",10.1.1.4,0.4029250144958496,-0.140,-0.140,-0.140,0.000,0.000,0.000
1640060755670494976,"2021-12-21,04:25:55",10.1.1.4,294,-0.130,-0.130,-0.130,0.000,0.000,0.000
1640060755694585088,"2021-12-21,04:25:55",10.1.1.4,0.3187689781188965,-0.130,-0.130,-0.130,0.000,0.000,0.000
1640060756001297920,"2021-12-21,04:25:56",10.1.1.4,301,-0.120,-0.120,-0.120,0.000,0.000,0.000
1640060756028434944,"2021-12-21,04:25:56",10.1.1.4,0.32860708236694336,-0.120,-0.120,-0.120,0.000,0.000,0.000
1640060756354065920,"2021-12-21,04:25:56",10.1.1.4,320,-0.110,-0.110,-0.110,0.000,0.000,0.000
1640060756415664896,"2021-12-21,04:25:56",10.1.1.4,0.38257312774658203,-0.110,-0.110,-0.110,0.000,0.000,0.000
1640060756701029888,"2021-12-21,04:25:56",10.1.1.4,284,-0.100,-0.100,-0.100,0.000,0.000,0.000
1640060756763720960,"2021-12-21,04:25:56",10.1.1.4,0.346851110458374,-0.100,-0.100,-0.100,0.000,0.000,0.000
1640060757079675904,"2021-12-21,04:25:57",10.1.1.4,313,-0.090,-0.090,-0.090,0.000,0.000,0.000
1640060757154636032,"2021-12-21,04:25:57",10.1.1.4,0.3889741897583008,-0.090,-0.090,-0.090,0.000,0.000,0.000
1640060757528137984,"2021-12-21,04:25:57",10.1.1.4,372,-0.080,-0.080,-0.080,0.000,0.000,0.000
1640060757532585984,"2021-12-21,04:25:57",10.1.1.4,0.37654900550842285,-0.080,-0.080,-0.080,0.000,0.000,0.000
1640060757822680064,"2021-12-21,04:25:57",10.1.1.4,287,-0.070,-0.070,-0.070,0.000,0.000,0.000
1640060757918831104,"2021-12-21,04:25:57",10.1.1.4,0.38349413871765137,-0.070,-0.070,-0.070,0.000,0.000,0.000
1640060758244350976,"2021-12-21,04:25:58",10.1.1.4,323,-0.060,-0.060,-0.060,0.000,0.000,0.000
1640060758295758848,"2021-12-21,04:25:58",10.1.1.4,0.37511205673217773,-0.060,-0.060,-0.060,0.000,0.000,0.000
1640060758627692032,"2021-12-21,04:25:58",10.1.1.4,324,-0.050,-0.050,-0.050,0.000,0.000,0.000
1640060758679867904,"2021-12-21,04:25:58",10.1.1.4,0.37699103355407715,-0.050,-0.050,-0.050,0.000,0.000,0.000
1640060759017628928,"2021-12-21,04:25:59",10.1.1.4,333,-0.040,-0.040,-0.040,0.000,0.000,0.000
1640060759105294848,"2021-12-21,04:25:59",10.1.1.4,0.42160582542419434,-0.040,-0.040,-0.040,0.000,0.000,0.000
1640060759397262080,"2021-12-21,04:25:59",10.1.1.4,289,-0.030,-0.030,-0.030,0.000,0.000,0.000
1640060759467643136,"2021-12-21,04:25:59",10.1.1.4,0.36016297340393066,-0.030,-0.030,-0.030,0.000,0.000,0.000
1640060759822045952,"2021-12-21,04:25:59",10.1.1.4,349,-0.020,-0.020,-0.020,0.000,0.000,0.000
1640060759848480000,"2021-12-21,04:25:59",10.1.1.4,0.37741518020629883,-0.020,-0.020,-0.020,0.000,0.000,0.000
1640060760176521984,"2021-12-21,04:26:00",10.1.1.4,326,-0.010,-0.010,-0.010,0.000,0.000,0.000
1640060760244476928,"2021-12-21,04:26:00",10.1.1.4,0.3941521644592285,-0.010,-0.010,-0.010,0.000,0.000,0.000
1640060760575058944,"2021-12-21,04:26:00",10.1.1.4,328,0.000,0.000,0.000,0.000,0.000,0.000
1640060760627648000,"2021-12-21,04:26:00",10.1.1.4,0.3816399574279785,0.000,0.000,0.000,0.000,0.000,0.000
1640060760944295936,"2021-12-21,04:26:00",10.1.1.4,315,-0.010,-0.010,-0.010,0.000,0.000,0.000
1640060760986301952,"2021-12-21,04:26:00",10.1.1.4,0.35730481147766113,-0.010,-0.010,-0.010,0.000,0.000,0.000
1640060761303819776,"2021-12-21,04:26:01",10.1.1.4,315,-0.020,-0.020,-0.020,0.000,0.000,0.000
1640060761347556096,"2021-12-21,04:26:01",10.1.1.4,0.35684895515441895,-0.020,-0.020,-0.020,0.000,0.000,0.000
1640060761654710016,"2021-12-21,04:26:01",10.1.1.4,303,-0.030,-0.030,-0.030,0.000,0.000,0.000
1640060761740956160,"2021-12-21,04:26:01",10.1.1.4,0.3905928134918213,-0.030,-0.030,-0.030,0.000,0.000,0.000
1640060762052679936,"2021-12-21,04:26:02",10.1.1.4,310,-0.040,-0.040,-0.040,0.000,0.000,0.000
1640060762131927040,"2021-12-21,04:26:02",10.1.1.4,0.3894228935241699,-0.040,-0.040,-0.040,0.000,0.000,0.000
1640060762461090048,"2021-12-21,04:26:02",10.1.1.4,320,-0.050,-0.050,-0.050,0.000,0.000,0.000
1640060762474138880,"2021-12-21,04:26:02",10.1.1.4,0.3334228992462158,-0.050,-0.050,-0.050,0.000,0.000,0.000
1640060762830445056,"2021-12-21,04:26:02",10.1.1.4,354,-0.060,-0.060,-0.060,0.000,0.000,0.000
1640060762844808960,"2021-12-21,04:26:02",10.1.1.4,0.36896395683288574,-0.060,-0.060,-0.060,0.000,0.000,0.000
1640060763157814016,"2021-12-21,04:26:03",10.1.1.4,298,-0.070,-0.070,-0.070,0.000,0.000,0.000
1640060763192073216,"2021-12-21,04:26:03",10.1.1.4,0.345958948135376,-0.070,-0.070,-0.070,0.000,0.000,0.000
1640060763502525952,"2021-12-21,04:26:03",10.1.1.4,308,-0.080,-0.080,-0.080,0.000,0.000,0.000
1640060763568474112,"2021-12-21,04:26:03",10.1.1.4,0.3748610019683838,-0.080,-0.080,-0.080,0.000,0.000,0.000
1640060763879304960,"2021-12-21,04:26:03",10.1.1.4,307,-0.090,-0.090,-0.090,0.000,0.000,0.000
1640060763990941952,"2021-12-21,04:26:03",10.1.1.4,0.4187769889831543,-0.090,-0.090,-0.090,0.000,0.000,0.000
1640060764309065216,"2021-12-21,04:26:04",10.1.1.4,314,-0.100,-0.100,-0.100,0.000,0.000,0.000
1640060764381449984,"2021-12-21,04:26:04",10.1.1.4,0.38713908195495605,-0.100,-0.100,-0.100,0.000,0.000,0.000
1640060764698002176,"2021-12-21,04:26:04",10.1.1.4,314,-0.110,-0.110,-0.110,0.000,0.000,0.000
1640060764777696000,"2021-12-21,04:26:04",10.1.1.4,0.39452481269836426,-0.110,-0.110,-0.110,0.000,0.000,0.000
1640060765099857152,"2021-12-21,04:26:05",10.1.1.4,319,-0.120,-0.120,-0.120,0.000,0.000,0.000
1640060765164311808,"2021-12-21,04:26:05",10.1.1.4,0.38520121574401855,-0.120,-0.120,-0.120,0.000,0.000,0.000
1640060765452581888,"2021-12-21,04:26:05",10.1.1.4,286,-0.130,-0.130,-0.130,0.000,0.000,0.000
1640060765481342976,"2021-12-21,04:26:05",10.1.1.4,0.31549596786499023,-0.130,-0.130,-0.130,0.000,0.000,0.000
1640060765801434112,"2021-12-21,04:26:05",10.1.1.4,314,-0.140,-0.140,-0.140,0.000,0.000,0.000
1640060765855695872,"2021-12-21,04:26:05",10.1.1.4,0.3683340549468994,-0.140,-0.140,-0.140,0.000,0.000,0.000
1640060766165788928,"2021-12-21,04:26:06",10.1.1.4,306,-0.150,-0.150,-0.150,0.000,0.000,0.000
1640060766238651136,"2021-12-21,04:26:06",10.1.1.4,0.3792760372161865,-0.150,-0.150,-0.150,0.000,0.000,0.000
1640060766545756928,"2021-12-21,04:26:06",10.1.1.4,304,-0.160,-0.160,-0.160,0.000,0.000,0.000
1640060766613903104,"2021-12-21,04:26:06",10.1.1.4,0.37332606315612793,-0.160,-0.160,-0.160,0.000,0.000,0.000
1640060766945672960,"2021-12-21,04:26:06",10.1.1.4,330,-0.170,-0.170,-0.170,0.000,0.000,0.000
1640060767011176192,"2021-12-21,04:26:07",10.1.1.4,0.39566493034362793,-0.170,-0.170,-0.170,0.000,0.000,0.000
1640060767319174912,"2021-12-21,04:26:07",10.1.1.4,306,-0.180,-0.180,-0.180,0.000,0.000,0.000
1640060767393080832,"2021-12-21,04:26:07",10.1.1.4,0.38068509101867676,-0.180,-0.180,-0.180,0.000,0.000,0.000
1640060767677118976,"2021-12-21,04:26:07",10.1.1.4,282,-0.190,-0.190,-0.190,0.000,0.000,0.000
1640060767727618816,"2021-12-21,04:26:07",10.1.1.4,0.33334803581237793,-0.190,-0.190,-0.190,0.000,0.000,0.000
1640060768052090880,"2021-12-21,04:26:08",10.1.1.4,322,-0.200,-0.200,-0.200,0.000,0.000,0.000
1640060768127305984,"2021-12-21,04:26:08",10.1.1.4,0.39766597747802734,-0.200,-0.200,-0.200,0.000,0.000,0.000
1640060768423676928,"2021-12-21,04:26:08",10.1.1.4,294,-0.210,-0.210,-0.210,0.000,0.000,0.000
1640060768484643072,"2021-12-21,04:26:08",10.1.1.4,0.35608887672424316,-0.210,-0.210,-0.210,0.000,0.000,0.000
1640060768804029952,"2021-12-21,04:26:08",10.1.1.4,317,-0.220,-0.220,-0.220,0.000,0.000,0.000
1640060768865202944,"2021-12-21,04:26:08",10.1.1.4,0.379194974899292,-0.220,-0.220,-0.220,0.000,0.000,0.000
1640060769176029952,"2021-12-21,04:26:09",10.1.1.4,308,-0.230,-0.230,-0.230,0.000,0.000,0.000
1640060769284156160,"2021-12-21,04:26:09",10.1.1.4,0.41711997985839844,-0.230,-0.230,-0.230,0.000,0.000,0.000
1640060769575736064,"2021-12-21,04:26:09",10.1.1.4,290,-0.240,-0.240,-0.240,0.000,0.000,0.000
1640060769641979904,"2021-12-21,04:26:09",10.1.1.4,0.3565678596496582,-0.240,-0.240,-0.240,0.000,0.000,0.000
1640060769976385024,"2021-12-21,04:26:09",10.1.1.4,332,-0.250,-0.250,-0.250,0.000,0.000,0.000
1640060770041491968,"2021-12-21,04:26:10",10.1.1.4,0.3975510597229004,-0.250,-0.250,-0.250,0.000,0.000,0.000
1640060770348606208,"2021-12-21,04:26:10",10.1.1.4,305,-0.260,-0.260,-0.260,0.000,0.000,0.000
1640060770400327936,"2021-12-21,04:26:10",10.1.1.4,0.3573009967803955,-0.260,-0.260,-0.260,0.000,0.000,0.000
1640060770739123968,"2021-12-21,04:26:10",10.1.1.4,337,-0.270,-0.270,-0.270,0.000,0.000,0.000
1640060770816317952,"2021-12-21,04:26:10",10.1.1.4,0.41475486755371094,-0.270,-0.270,-0.270,0.000,0.000,0.000
1640060771135198976,"2021-12-21,04:26:11",10.1.1.4,316,-0.280,-0.280,-0.280,0.000,0.000,0.000
1640060771223686912,"2021-12-21,04:26:11",10.1.1.4,0.40552687644958496,-0.280,-0.280,-0.280,0.000,0.000,0.000
1640060771529058048,"2021-12-21,04:26:11",10.1.1.4,303,-0.290,-0.290,-0.290,0.000,0.000,0.000
1640060771602828032,"2021-12-21,04:26:11",10.1.1.4,0.37773990631103516,-0.290,-0.290,-0.290,0.000,0.000,0.000
1640060771895661056,"2021-12-21,04:26:11",10.1.1.4,290,-0.300,-0.300,-0.300,0.000,0.000,0.000
1640060771953206016,"2021-12-21,04:26:11",10.1.1.4,0.3480031490325928,-0.300,-0.300,-0.300,0.000,0.000,0.000
1640060772281107968,"2021-12-21,04:26:12",10.1.1.4,320,-0.310,-0.310,-0.310,0.000,0.000,0.000
1640060772354465024,"2021-12-21,04:26:12",10.1.1.4,0.39452195167541504,-0.310,-0.310,-0.310,0.000,0.000,0.000
1640060772684086016,"2021-12-21,04:26:12",10.1.1.4,325,-0.320,-0.320,-0.320,0.000,0.000,0.000
1640060772743267072,"2021-12-21,04:26:12",10.1.1.4,0.3870389461517334,-0.320,-0.320,-0.320,0.000,0.000,0.000
1640060773041179904,"2021-12-21,04:26:13",10.1.1.4,294,-0.330,-0.330,-0.330,0.000,0.000,0.000
1640060773081676032,"2021-12-21,04:26:13",10.1.1.4,0.3350088596343994,-0.330,-0.330,-0.330,0.000,0.000,0.000
1640060773400985856,"2021-12-21,04:26:13",10.1.1.4,315,-0.340,-0.340,-0.340,0.000,0.000,0.000
1640060773429219072,"2021-12-21,04:26:13",10.1.1.4,0.34371280670166016,-0.340,-0.340,-0.340,0.000,0.000,0.000
1640060773755032064,"2021-12-21,04:26:13",10.1.1.4,321,-0.350,-0.350,-0.350,0.000,0.000,0.000
1640060773785573120,"2021-12-21,04:26:13",10.1.1.4,0.3522191047668457,-0.350,-0.350,-0.350,0.000,0.000,0.000
1640060774095256064,"2021-12-21,04:26:14",10.1.1.4,308,-0.360,-0.360,-0.360,0.000,0.000,0.000
1640060774133050880,"2021-12-21,04:26:14",10.1.1.4,0.34610891342163086,-0.360,-0.360,-0.360,0.000,0.000,0.000
1640060774431952896,"2021-12-21,04:26:14",10.1.1.4,297,-0.370,-0.370,-0.370,0.000,0.000,0.000
1640060774442423040,"2021-12-21,04:26:14",10.1.1.4,0.30813097953796387,-0.370,-0.370,-0.370,0.000,0.000,0.000
1640060774731887104,"2021-12-21,04:26:14",10.1.1.4,287,-0.380,-0.380,-0.380,0.000,0.000,0.000
1640060774791585024,"2021-12-21,04:26:14",10.1.1.4,0.3470652103424072,-0.380,-0.380,-0.380,0.000,0.000,0.000
1640060775102124032,"2021-12-21,04:26:15",10.1.1.4,308,-0.390,-0.390,-0.390,0.000,0.000,0.000
1640060775134243840,"2021-12-21,04:26:15",10.1.1.4,0.3407161235809326,-0.390,-0.390,-0.390,0.000,0.000,0.000
1640060775431681024,"2021-12-21,04:26:15",10.1.1.4,296,-0.400,-0.400,-0.400,0.000,0.000,0.000
1640060775461571072,"2021-12-21,04:26:15",10.1.1.4,0.32616496086120605,-0.400,-0.400,-0.400,0.000,0.000,0.000
1640060775782864128,"2021-12-21,04:26:15",10.1.1.4,319,-0.410,-0.410,-0.410,0.000,0.000,0.000
1640060775846045952,"2021-12-21,04:26:15",10.1.1.4,0.38312792778015137,-0.410,-0.410,-0.410,0.000,0.000,0.000
1640060776172226816,"2021-12-21,04:26:16",10.1.1.4,323,-0.420,-0.420,-0.420,0.000,0.000,0.000
1640060776258065920,"2021-12-21,04:26:16",10.1.1.4,0.4095878601074219,-0.420,-0.420,-0.420,0.000,0.000,0.000
1640060776591847936,"2021-12-21,04:26:16",10.1.1.4,331,-0.430,-0.430,-0.430,0.000,0.000,0.000
1640060776637070848,"2021-12-21,04:26:16",10.1.1.4,0.37757015228271484,-0.430,-0.430,-0.430,0.000,0.000,0.000
1640060776942428160,"2021-12-21,04:26:16",10.1.1.4,303,-0.440,-0.440,-0.440,0.000,0.000,0.000
1640060776988055040,"2021-12-21,04:26:16",10.1.1.4,0.34952712059020996,-0.440,-0.440,-0.440,0.000,0.000,0.000
1640060777334567936,"2021-12-21,04:26:17",10.1.1.4,343,-0.450,-0.450,-0.450,0.000,0.000,0.000
1640060777406021120,"2021-12-21,04:26:17",10.1.1.4,0.4157228469848633,-0.450,-0.450,-0.450,0.000,0.000,0.000
1640060777713171968,"2021-12-21,04:26:17",10.1.1.4,305,-0.460,-0.460,-0.460,0.000,0.000,0.000
1640060777717266176,"2021-12-21,04:26:17",10.1.1.4,0.30991697311401367,-0.460,-0.460,-0.460,0.000,0.000,0.000
1640060778021744128,"2021-12-21,04:26:18",10.1.1.4,302,-0.470,-0.470,-0.470,0.000,0.000,0.000
1640060778061369856,"2021-12-21,04:26:18",10.1.1.4,0.3421299457550049,-0.470,-0.470,-0.470,0.000,0.000,0.000
1640060778362150912,"2021-12-21,04:26:18",10.1.1.4,299,-0.480,-0.480,-0.480,0.000,0.000,0.000
1640060778424404992,"2021-12-21,04:26:18",10.1.1.4,0.3614199161529541,-0.480,-0.480,-0.480,0.000,0.000,0.000
1640060778744034048,"2021-12-21,04:26:18",10.1.1.4,316,-0.490,-0.490,-0.490,0.000,0.000,0.000
1640060778823843840,"2021-12-21,04:26:18",10.1.1.4,0.396975040435791,-0.490,-0.490,-0.490,0.000,0.000,0.000
1640060779143502080,"2021-12-21,04:26:19",10.1.1.4,318,-0.480,-0.480,-0.480,0.000,0.000,0.000
1640060779189928960,"2021-12-21,04:26:19",10.1.1.4,0.36470985412597656,-0.480,-0.480,-0.480,0.000,0.000,0.000
1640060779492018944,"2021-12-21,04:26:19",10.1.1.4,300,-0.470,-0.470,-0.470,0.000,0.000,0.000
1640060779518925056,"2021-12-21,04:26:19",10.1.1.4,0.32712602615356445,-0.470,-0.470,-0.470,0.000,0.000,0.000
1640060779892606976,"2021-12-21,04:26:19",10.1.1.4,366,-0.460,-0.460,-0.460,0.000,0.000,0.000
1640060779964327168,"2021-12-21,04:26:19",10.1.1.4,0.4389979839324951,-0.460,-0.460,-0.460,0.000,0.000,0.000
1640060780263864064,"2021-12-21,04:26:20",10.1.1.4,296,-0.450,-0.450,-0.450,0.000,0.000,0.000
1640060780318607104,"2021-12-21,04:26:20",10.1.1.4,0.35202503204345703,-0.450,-0.450,-0.450,0.000,0.000,0.000
1640060780670108928,"2021-12-21,04:26:20",10.1.1.4,348,-0.440,-0.440,-0.440,0.000,0.000,0.000
1640060780721821952,"2021-12-21,04:26:20",10.1.1.4,0.40023303031921387,-0.440,-0.440,-0.440,0.000,0.000,0.000
1640060781069787904,"2021-12-21,04:26:21",10.1.1.4,340,-0.430,-0.430,-0.430,0.000,0.000,0.000
1640060781126173952,"2021-12-21,04:26:21",10.1.1.4,0.3971750736236572,-0.430,-0.430,-0.430,0.000,0.000,0.000
1640060781460064000,"2021-12-21,04:26:21",10.1.1.4,330,-0.420,-0.420,-0.420,0.000,0.000,0.000
1640060781494112000,"2021-12-21,04:26:21",10.1.1.4,0.36447620391845703,-0.420,-0.420,-0.420,0.000,0.000,0.000
1640060781809837056,"2021-12-21,04:26:21",10.1.1.4,313,-0.410,-0.410,-0.410,0.000,0.000,0.000
1640060781861088000,"2021-12-21,04:26:21",10.1.1.4,0.3647589683532715,-0.410,-0.410,-0.410,0.000,0.000,0.000
1640060782229274112,"2021-12-21,04:26:22",10.1.1.4,347,-0.400,-0.400,-0.400,0.000,0.000,0.000
1640060782323931904,"2021-12-21,04:26:22",10.1.1.4,0.44219493865966797,-0.400,-0.400,-0.400,0.000,0.000,0.000
1640060782619476992,"2021-12-21,04:26:22",10.1.1.4,293,-0.390,-0.390,-0.390,0.000,0.000,0.000
1640060782695727104,"2021-12-21,04:26:22",10.1.1.4,0.36975884437561035,-0.390,-0.390,-0.390,0.000,0.000,0.000
1640060783078715136,"2021-12-21,04:26:23",10.1.1.4,373,-0.380,-0.380,-0.380,0.000,0.000,0.000
1640060783125530880,"2021-12-21,04:26:23",10.1.1.4,0.42006802558898926,-0.380,-0.380,-0.380,0.000,0.000,0.000
1640060783492996096,"2021-12-21,04:26:23",10.1.1.4,356,-0.370,-0.370,-0.370,0.000,0.000,0.000
1640060783513498112,"2021-12-21,04:26:23",10.1.1.4,0.37679505348205566,-0.370,-0.370,-0.370,0.000,0.000,0.000
1640060783847502848,"2021-12-21,04:26:23",10.1.1.4,332,-0.360,-0.360,-0.360,0.000,0.000,0.000
1640060783941725952,"2021-12-21,04:26:23",10.1.1.4,0.4265129566192627,-0.360,-0.360,-0.360,0.000,0.000,0.000
1640060784237425152,"2021-12-21,04:26:24",10.1.1.4,294,-0.350,-0.350,-0.350,0.000,0.000,0.000
1640060784277817088,"2021-12-21,04:26:24",10.1.1.4,0.3344569206237793,-0.350,-0.350,-0.350,0.000,0.000,0.000
1640060784572499968,"2021-12-21,04:26:24",10.1.1.4,293,-0.340,-0.340,-0.340,0.000,0.000,0.000
1640060784611969024,"2021-12-21,04:26:24",10.1.1.4,0.3329629898071289,-0.340,-0.340,-0.340,0.000,0.000,0.000
1640060784965797888,"2021-12-21,04:26:24",10.1.1.4,352,-0.330,-0.330,-0.330,0.000,0.000,0.000
1640060785000698112,"2021-12-21,04:26:25",10.1.1.4,0.38745903968811035,-0.330,-0.330,-0.330,0.000,0.000,0.000
1640060785301569024,"2021-12-21,04:26:25",10.1.1.4,296,-0.320,-0.320,-0.320,0.000,0.000,0.000
1640060785366085888,"2021-12-21,04:26:25",10.1.1.4,0.36333489418029785,-0.320,-0.320,-0.320,0.000,0.000,0.000
1640060785674964992,"2021-12-21,04:26:25",10.1.1.4,307,-0.310,-0.310,-0.310,0.000,0.000,0.000
1640060785706391040,"2021-12-21,04:26:25",10.1.1.4,0.33855319023132324,-0.310,-0.310,-0.310,0.000,0.000,0.000
1640060786045000192,"2021-12-21,04:26:26",10.1.1.4,336,-0.300,-0.300,-0.300,0.000,0.000,0.000
1640060786074235904,"2021-12-21,04:26:26",10.1.1.4,0.3657689094543457,-0.300,-0.300,-0.300,0.000,0.000,0.000
1640060786384761088,"2021-12-21,04:26:26",10.1.1.4,308,-0.290,-0.290,-0.290,0.000,0.000,0.000
1640060786440006144,"2021-12-21,04:26:26",10.1.1.4,0.3641631603240967,-0.290,-0.290,-0.290,0.000,0.000,0.000
1640060786798016000,"2021-12-21,04:26:26",10.1.1.4,341,-0.280,-0.280,-0.280,0.000,0.000,0.000
1640060786815362048,"2021-12-21,04:26:26",10.1.1.4,0.3613438606262207,-0.280,-0.280,-0.280,0.000,0.000,0.000
1640060787143742976,"2021-12-21,04:26:27",10.1.1.4,324,-0.270,-0.270,-0.270,0.000,0.000,0.000
1640060787211364864,"2021-12-21,04:26:27",10.1.1.4,0.3926248550415039,-0.270,-0.270,-0.270,0.000,0.000,0.000
1640060787513041920,"2021-12-21,04:26:27",10.1.1.4,299,-0.260,-0.260,-0.260,0.000,0.000,0.000
1640060787580185856,"2021-12-21,04:26:27",10.1.1.4,0.36677002906799316,-0.260,-0.260,-0.260,0.000,0.000,0.000
1640060787587953920,"2021-12-21,04:26:27",10.1.1.4,-3,-0.250,-0.250,-0.250,0.000,0.000,0.000
1640060787988282880,"2021-12-21,04:26:27",10.1.1.4,0.4058229923248291,-0.250,-0.250,-0.250,0.000,0.000,0.000
1640060788312248064,"2021-12-21,04:26:28",10.1.1.4,321,-0.240,-0.240,-0.240,0.000,0.000,0.000
1640060788398824960,"2021-12-21,04:26:28",10.1.1.4,0.4080989360809326,-0.240,-0.240,-0.240,0.000,0.000,0.000
1640060788730385152,"2021-12-21,04:26:28",10.1.1.4,329,-0.230,-0.230,-0.230,0.000,0.000,0.000
1640060788761660160,"2021-12-21,04:26:28",10.1.1.4,0.3611440658569336,-0.230,-0.230,-0.230,0.000,0.000,0.000
1640060789067902976,"2021-12-21,04:26:29",10.1.1.4,304,-0.220,-0.220,-0.220,0.000,0.000,0.000
1640060789123620864,"2021-12-21,04:26:29",10.1.1.4,0.36069798469543457,-0.220,-0.220,-0.220,0.000,0.000,0.000
1640060789429696000,"2021-12-21,04:26:29",10.1.1.4,304,-0.210,-0.210,-0.210,0.000,0.000,0.000
1640060789475405056,"2021-12-21,04:26:29",10.1.1.4,0.35053110122680664,-0.210,-0.210,-0.210,0.000,0.000,0.000
1640060789801879808,"2021-12-21,04:26:29",10.1.1.4,324,-0.200,-0.200,-0.200,0.000,0.000,0.000
1640060789916673024,"2021-12-21,04:26:29",10.1.1.4,0.43980908393859863,-0.200,-0.200,-0.200,0.000,0.000,0.000
1640060790240057856,"2021-12-21,04:26:30",10.1.1.4,321,-0.190,-0.190,-0.190,0.000,0.000,0.000
1640060790329158144,"2021-12-21,04:26:30",10.1.1.4,0.41128015518188477,-0.190,-0.190,-0.190,0.000,0.000,0.000
1640060790620069888,"2021-12-21,04:26:30",10.1.1.4,289,-0.180,-0.180,-0.180,0.000,0.000,0.000
1640060790658178048,"2021-12-21,04:26:30",10.1.1.4,0.32734203338623047,-0.180,-0.180,-0.180,0.000,0.000,0.000
1640060791017564160,"2021-12-21,04:26:31",10.1.1.4,357,-0.170,-0.170,-0.170,0.000,0.000,0.000
1640060791059947008,"2021-12-21,04:26:31",10.1.1.4,0.40005993843078613,-0.170,-0.170,-0.170,0.000,0.000,0.000
1640060791358334976,"2021-12-21,04:26:31",10.1.1.4,296,-0.160,-0.160,-0.160,0.000,0.000,0.000
1640060791445001984,"2021-12-21,04:26:31",10.1.1.4,0.38370394706726074,-0.160,-0.160,-0.160,0.000,0.000,0.000
1640060791747616000,"2021-12-21,04:26:31",10.1.1.4,301,-0.150,-0.150,-0.150,0.000,0.000,0.000
1640060791805014016,"2021-12-21,04:26:31",10.1.1.4,0.3586559295654297,-0.150,-0.150,-0.150,0.000,0.000,0.000
1640060792143887872,"2021-12-21,04:26:32",10.1.1.4,335,-0.140,-0.140,-0.140,0.000,0.000,0.000
1640060792206042112,"2021-12-21,04:26:32",10.1.1.4,0.3993380069732666,-0.140,-0.140,-0.140,0.000,0.000,0.000
1640060792485629184,"2021-12-21,04:26:32",10.1.1.4,272,-0.130,-0.130,-0.130,0.000,0.000,0.000
1640060792534588928,"2021-12-21,04:26:32",10.1.1.4,0.3218660354614258,-0.130,-0.130,-0.130,0.000,0.000,0.000
1640060792541356032,"2021-12-21,04:26:32",10.1.1.4,-1,-0.120,-0.120,-0.120,0.000,0.000,0.000
1640060792952660992,"2021-12-21,04:26:32",10.1.1.4,0.41304707527160645,-0.120,-0.120,-0.120,0.000,0.000,0.000
1640060793298226944,"2021-12-21,04:26:33",10.1.1.4,0.34412479400634766,-0.110,-0.110,-0.110,0.000,0.000,0.000
1640060793634292992,"2021-12-21,04:26:33",10.1.1.4,333,-0.100,-0.100,-0.100,0.000,0.000,0.000
1640060793697225984,"2021-12-21,04:26:33",10.1.1.4,0.39686012268066406,-0.100,-0.100,-0.100,0.000,0.000,0.000
1640060793993270016,"2021-12-21,04:26:33",10.1.1.4,289,-0.090,-0.090,-0.090,0.000,0.000,0.000
1640060794045211904,"2021-12-21,04:26:34",10.1.1.4,0.3414878845214844,-0.090,-0.090,-0.090,0.000,0.000,0.000
1640060794356301056,"2021-12-21,04:26:34",10.1.1.4,309,-0.080,-0.080,-0.080,0.000,0.000,0.000
1640060794356699904,"2021-12-21,04:26:34",10.1.1.4,0.3103151321411133,-0.080,-0.080,-0.080,0.000,0.000,0.000
1640060794681133056,"2021-12-21,04:26:34",10.1.1.4,322,-0.070,-0.070,-0.070,0.000,0.000,0.000
1640060794710480896,"2021-12-21,04:26:34",10.1.1.4,0.3525428771972656,-0.070,-0.070,-0.070,0.000,0.000,0.000
1640060795012278016,"2021-12-21,04:26:35",10.1.1.4,300,-0.060,-0.060,-0.060,0.000,0.000,0.000
1640060795055790848,"2021-12-21,04:26:35",10.1.1.4,0.3439021110534668,-0.060,-0.060,-0.060,0.000,0.000,0.000
1640060795391793920,"2021-12-21,04:26:35",10.1.1.4,334,-0.050,-0.050,-0.050,0.000,0.000,0.000
1640060795421276160,"2021-12-21,04:26:35",10.1.1.4,0.36421799659729004,-0.050,-0.050,-0.050,0.000,0.000,0.000
1640060795720283136,"2021-12-21,04:26:35",10.1.1.4,294,-0.040,-0.040,-0.040,0.000,0.000,0.000
1640060795757123072,"2021-12-21,04:26:35",10.1.1.4,0.33171701431274414,-0.040,-0.040,-0.040,0.000,0.000,0.000
1640060796049891840,"2021-12-21,04:26:36",10.1.1.4,290,-0.030,-0.030,-0.030,0.000,0.000,0.000
1640060796077016064,"2021-12-21,04:26:36",10.1.1.4,0.3178720474243164,-0.030,-0.030,-0.030,0.000,0.000,0.000
1640060796369547008,"2021-12-21,04:26:36",10.1.1.4,291,-0.020,-0.020,-0.020,0.000,0.000,0.000
1640060796402158080,"2021-12-21,04:26:36",10.1.1.4,0.32368016242980957,-0.020,-0.020,-0.020,0.000,0.000,0.000
1640060796698735104,"2021-12-21,04:26:36",10.1.1.4,295,-0.010,-0.010,-0.010,0.000,0.000,0.000
1640060796747297024,"2021-12-21,04:26:36",10.1.1.4,0.3439159393310547,-0.010,-0.010,-0.010,0.000,0.000,0.000
1640060797048880128,"2021-12-21,04:26:37",10.1.1.4,298,0.000,0.000,0.000,0.000,0.000,0.000
1640060797096928000,"2021-12-21,04:26:37",10.1.1.4,0.3466451168060303,0.000,0.000,0.000,0.000,0.000,0.000
1640060797465890048,"2021-12-21,04:26:37",10.1.1.4,365,-0.010,-0.010,-0.010,0.000,0.000,0.000
1640060797477044224,"2021-12-21,04:26:37",10.1.1.4,0.37859511375427246,-0.010,-0.010,-0.010,0.000,0.000,0.000
1640060797843869952,"2021-12-21,04:26:37",10.1.1.4,364,-0.020,-0.020,-0.020,0.000,0.000,0.000
1640060797944140032,"2021-12-21,04:26:37",10.1.1.4,0.46495580673217773,-0.020,-0.020,-0.020,0.000,0.000,0.000
1640060798256481024,"2021-12-21,04:26:38",10.1.1.4,307,-0.030,-0.030,-0.030,0.000,0.000,0.000
1640060798289187072,"2021-12-21,04:26:38",10.1.1.4,0.3415229320526123,-0.030,-0.030,-0.030,0.000,0.000,0.000
1640060798626213120,"2021-12-21,04:26:38",10.1.1.4,329,-0.040,-0.040,-0.040,0.000,0.000,0.000
1640060798649935872,"2021-12-21,04:26:38",10.1.1.4,0.35306382179260254,-0.040,-0.040,-0.040,0.000,0.000,0.000
1640060799017196800,"2021-12-21,04:26:39",10.1.1.4,364,-0.050,-0.050,-0.050,0.000,0.000,0.000
1640060799084413952,"2021-12-21,04:26:39",10.1.1.4,0.4332540035247803,-0.050,-0.050,-0.050,0.000,0.000,0.000
1640060799399729920,"2021-12-21,04:26:39",10.1.1.4,312,-0.060,-0.060,-0.060,0.000,0.000,0.000
1640060799410593024,"2021-12-21,04:26:39",10.1.1.4,0.3240180015563965,-0.060,-0.060,-0.060,0.000,0.000,0.000
1640060799755357952,"2021-12-21,04:26:39",10.1.1.4,340,-0.070,-0.070,-0.070,0.000,0.000,0.000
1640060799801801984,"2021-12-21,04:26:39",10.1.1.4,0.38672804832458496,-0.070,-0.070,-0.070,0.000,0.000,0.000
1640060800143127040,"2021-12-21,04:26:40",10.1.1.4,339,-0.080,-0.080,-0.080,0.000,0.000,0.000
1640060800229294080,"2021-12-21,04:26:40",10.1.1.4,0.4261178970336914,-0.080,-0.080,-0.080,0.000,0.000,0.000
1640060800528197120,"2021-12-21,04:26:40",10.1.1.4,296,-0.090,-0.090,-0.090,0.000,0.000,0.000
1640060800625297920,"2021-12-21,04:26:40",10.1.1.4,0.3943500518798828,-0.090,-0.090,-0.090,0.000,0.000,0.000
1640060800915580160,"2021-12-21,04:26:40",10.1.1.4,288,-0.100,-0.100,-0.100,0.000,0.000,0.000
1640060800975692032,"2021-12-21,04:26:40",10.1.1.4,0.3488738536834717,-0.100,-0.100,-0.100,0.000,0.000,0.000
1640060801285654016,"2021-12-21,04:26:41",10.1.1.4,307,-0.110,-0.110,-0.110,0.000,0.000,0.000
1640060801368653056,"2021-12-21,04:26:41",10.1.1.4,0.3908989429473877,-0.110,-0.110,-0.110,0.000,0.000,0.000
1640060801695860992,"2021-12-21,04:26:41",10.1.1.4,325,-0.120,-0.120,-0.120,0.000,0.000,0.000
1640060801741985024,"2021-12-21,04:26:41",10.1.1.4,0.37116479873657227,-0.120,-0.120,-0.120,0.000,0.000,0.000
1640060802057383936,"2021-12-21,04:26:42",10.1.1.4,313,-0.130,-0.130,-0.130,0.000,0.000,0.000
1640060802097027072,"2021-12-21,04:26:42",10.1.1.4,0.35339903831481934,-0.130,-0.130,-0.130,0.000,0.000,0.000
1640060802444345856,"2021-12-21,04:26:42",10.1.1.4,340,-0.140,-0.140,-0.140,0.000,0.000,0.000
1640060802488979968,"2021-12-21,04:26:42",10.1.1.4,0.39023900032043457,-0.140,-0.140,-0.140,0.000,0.000,0.000
1640060802809595136,"2021-12-21,04:26:42",10.1.1.4,316,-0.150,-0.150,-0.150,0.000,0.000,0.000
1640060802884638976,"2021-12-21,04:26:42",10.1.1.4,0.3915231227874756,-0.150,-0.150,-0.150,0.000,0.000,0.000
1640060803209899776,"2021-12-21,04:26:43",10.1.1.4,318,-0.160,-0.160,-0.160,0.000,0.000,0.000
1640060803307991040,"2021-12-21,04:26:43",10.1.1.4,0.41665101051330566,-0.160,-0.160,-0.160,0.000,0.000,0.000
1640060803639699968,"2021-12-21,04:26:43",10.1.1.4,330,-0.170,-0.170,-0.170,0.000,0.000,0.000
1640060803706782208,"2021-12-21,04:26:43",10.1.1.4,0.39740705490112305,-0.170,-0.170,-0.170,0.000,0.000,0.000
1640060804050633984,"2021-12-21,04:26:44",10.1.1.4,342,-0.180,-0.180,-0.180,0.000,0.000,0.000
1640060804060956928,"2021-12-21,04:26:44",10.1.1.4,0.3527369499206543,-0.180,-0.180,-0.180,0.000,0.000,0.000
1640060804388215040,"2021-12-21,04:26:44",10.1.1.4,308,-0.190,-0.190,-0.190,0.000,0.000,0.000
1640060804427450880,"2021-12-21,04:26:44",10.1.1.4,0.34908604621887207,-0.190,-0.190,-0.190,0.000,0.000,0.000
1640060804730071040,"2021-12-21,04:26:44",10.1.1.4,300,-0.200,-0.200,-0.200,0.000,0.000,0.000
1640060804842857984,"2021-12-21,04:26:44",10.1.1.4,0.4135470390319824,-0.200,-0.200,-0.200,0.000,0.000,0.000
1640060805159130112,"2021-12-21,04:26:45",10.1.1.4,315,-0.210,-0.210,-0.210,0.000,0.000,0.000
1640060805171849984,"2021-12-21,04:26:45",10.1.1.4,0.3277769088745117,-0.210,-0.210,-0.210,0.000,0.000,0.000
1640060805461596928,"2021-12-21,04:26:45",10.1.1.4,288,-0.220,-0.220,-0.220,0.000,0.000,0.000
1640060805562087936,"2021-12-21,04:26:45",10.1.1.4,0.3887510299682617,-0.220,-0.220,-0.220,0.000,0.000,0.000
1640060805874705920,"2021-12-21,04:26:45",10.1.1.4,307,-0.230,-0.230,-0.230,0.000,0.000,0.000
1640060805952868096,"2021-12-21,04:26:45",10.1.1.4,0.38574695587158203,-0.230,-0.230,-0.230,0.000,0.000,0.000
1640060806252659968,"2021-12-21,04:26:46",10.1.1.4,297,-0.240,-0.240,-0.240,0.000,0.000,0.000
1640060806298082048,"2021-12-21,04:26:46",10.1.1.4,0.34339094161987305,-0.240,-0.240,-0.240,0.000,0.000,0.000
1640060806660903936,"2021-12-21,04:26:46",10.1.1.4,360,-0.250,-0.250,-0.250,0.000,0.000,0.000
1640060806677204992,"2021-12-21,04:26:46",10.1.1.4,0.37704014778137207,-0.250,-0.250,-0.250,0.000,0.000,0.000
1640060807063642880,"2021-12-21,04:26:47",10.1.1.4,385,-0.260,-0.260,-0.260,0.000,0.000,0.000
1640060807119944192,"2021-12-21,04:26:47",10.1.1.4,0.4414939880371094,-0.260,-0.260,-0.260,0.000,0.000,0.000
1640060807424078080,"2021-12-21,04:26:47",10.1.1.4,302,-0.270,-0.270,-0.270,0.000,0.000,0.000
1640060807500448000,"2021-12-21,04:26:47",10.1.1.4,0.37912702560424805,-0.270,-0.270,-0.270,0.000,0.000,0.000
1640060807813047040,"2021-12-21,04:26:47",10.1.1.4,307,-0.280,-0.280,-0.280,0.000,0.000,0.000
1640060807881069824,"2021-12-21,04:26:47",10.1.1.4,0.37606310844421387,-0.280,-0.280,-0.280,0.000,0.000,0.000
1640060808249026048,"2021-12-21,04:26:48",10.1.1.4,364,-0.290,-0.290,-0.290,0.000,0.000,0.000
1640060808324913920,"2021-12-21,04:26:48",10.1.1.4,0.44203901290893555,-0.290,-0.290,-0.290,0.000,0.000,0.000
1640060808685321216,"2021-12-21,04:26:48",10.1.1.4,358,-0.300,-0.300,-0.300,0.000,0.000,0.000
1640060808699328000,"2021-12-21,04:26:48",10.1.1.4,0.37255191802978516,-0.300,-0.300,-0.300,0.000,0.000,0.000
1640060809033225984,"2021-12-21,04:26:49",10.1.1.4,332,-0.310,-0.310,-0.310,0.000,0.000,0.000
1640060809132474880,"2021-12-21,04:26:49",10.1.1.4,0.4315829277038574,-0.310,-0.310,-0.310,0.000,0.000,0.000
1640060809482289152,"2021-12-21,04:26:49",10.1.1.4,348,-0.320,-0.320,-0.320,0.000,0.000,0.000
1640060809572776192,"2021-12-21,04:26:49",10.1.1.4,0.43866801261901855,-0.320,-0.320,-0.320,0.000,0.000,0.000
1640060809883104000,"2021-12-21,04:26:49",10.1.1.4,308,-0.330,-0.330,-0.330,0.000,0.000,0.000
1640060809967070976,"2021-12-21,04:26:49",10.1.1.4,0.39280080795288086,-0.330,-0.330,-0.330,0.000,0.000,0.000
1640060810275401216,"2021-12-21,04:26:50",10.1.1.4,305,-0.340,-0.340,-0.340,0.000,0.000,0.000
1640060810308627968,"2021-12-21,04:26:50",10.1.1.4,0.3381011486053467,-0.340,-0.340,-0.340,0.000,0.000,0.000
1640060810656279040,"2021-12-21,04:26:50",10.1.1.4,332,-0.350,-0.350,-0.350,0.000,0.000,0.000
1640060810751849984,"2021-12-21,04:26:50",10.1.1.4,0.42862486839294434,-0.350,-0.350,-0.350,0.000,0.000,0.000
1640060811042062080,"2021-12-21,04:26:51",10.1.1.4,288,-0.360,-0.360,-0.360,0.000,0.000,0.000
1640060811101372928,"2021-12-21,04:26:51",10.1.1.4,0.34757304191589355,-0.360,-0.360,-0.360,0.000,0.000,0.000
1640060811433051136,"2021-12-21,04:26:51",10.1.1.4,329,-0.370,-0.370,-0.370,0.000,0.000,0.000
1640060811531460096,"2021-12-21,04:26:51",10.1.1.4,0.4274320602416992,-0.370,-0.370,-0.370,0.000,0.000,0.000
1640060811822336000,"2021-12-21,04:26:51",10.1.1.4,289,-0.380,-0.380,-0.380,0.000,0.000,0.000
1640060811921905152,"2021-12-21,04:26:51",10.1.1.4,0.3887310028076172,-0.380,-0.380,-0.380,0.000,0.000,0.000
1640060812235232000,"2021-12-21,04:26:52",10.1.1.4,308,-0.390,-0.390,-0.390,0.000,0.000,0.000
1640060812285696000,"2021-12-21,04:26:52",10.1.1.4,0.3621511459350586,-0.390,-0.390,-0.390,0.000,0.000,0.000
1640060812640867840,"2021-12-21,04:26:52",10.1.1.4,353,-0.400,-0.400,-0.400,0.000,0.000,0.000
1640060812687639040,"2021-12-21,04:26:52",10.1.1.4,0.40070414543151855,-0.400,-0.400,-0.400,0.000,0.000,0.000
1640060812980889088,"2021-12-21,04:26:52",10.1.1.4,289,-0.410,-0.410,-0.410,0.000,0.000,0.000
1640060813023955968,"2021-12-21,04:26:53",10.1.1.4,0.33275389671325684,-0.410,-0.410,-0.410,0.000,0.000,0.000
1640060813320718080,"2021-12-21,04:26:53",10.1.1.4,293,-0.420,-0.420,-0.420,0.000,0.000,0.000
1640060813382283008,"2021-12-21,04:26:53",10.1.1.4,0.355039119720459,-0.420,-0.420,-0.420,0.000,0.000,0.000
1640060813706546176,"2021-12-21,04:26:53",10.1.1.4,317,-0.430,-0.430,-0.430,0.000,0.000,0.000
1640060813751420928,"2021-12-21,04:26:53",10.1.1.4,0.3671739101409912,-0.430,-0.430,-0.430,0.000,0.000,0.000
1640060814080368128,"2021-12-21,04:26:54",10.1.1.4,327,-0.440,-0.440,-0.440,0.000,0.000,0.000
1640060814148137216,"2021-12-21,04:26:54",10.1.1.4,0.39520692825317383,-0.440,-0.440,-0.440,0.000,0.000,0.000
1640060814449902080,"2021-12-21,04:26:54",10.1.1.4,283,-0.450,-0.450,-0.450,0.000,0.000,0.000
1640060814500205056,"2021-12-21,04:26:54",10.1.1.4,0.33389902114868164,-0.450,-0.450,-0.450,0.000,0.000,0.000
1640060814839417856,"2021-12-21,04:26:54",10.1.1.4,335,-0.460,-0.460,-0.460,0.000,0.000,0.000
1640060814904884224,"2021-12-21,04:26:54",10.1.1.4,0.40065884590148926,-0.460,-0.460,-0.460,0.000,0.000,0.000
1640060815237828096,"2021-12-21,04:26:55",10.1.1.4,331,-0.470,-0.470,-0.470,0.000,0.000,0.000
1640060815268805888,"2021-12-21,04:26:55",10.1.1.4,0.3624138832092285,-0.470,-0.470,-0.470,0.000,0.000,0.000
1640060815657329920,"2021-12-21,04:26:55",10.1.1.4,380,-0.480,-0.480,-0.480,0.000,0.000,0.000
1640060815720628992,"2021-12-21,04:26:55",10.1.1.4,0.44417405128479004,-0.480,-0.480,-0.480,0.000,0.000,0.000
1640060816037563136,"2021-12-21,04:26:56",10.1.1.4,315,-0.490,-0.490,-0.490,0.000,0.000,0.000
1640060816086220032,"2021-12-21,04:26:56",10.1.1.4,0.3642239570617676,-0.490,-0.490,-0.490,0.000,0.000,0.000
1640060816462683904,"2021-12-21,04:26:56",10.1.1.4,373,-0.480,-0.480,-0.480,0.000,0.000,0.000
1640060816516464896,"2021-12-21,04:26:56",10.1.1.4,0.4278860092163086,-0.480,-0.480,-0.480,0.000,0.000,0.000
1640060816817500160,"2021-12-21,04:26:56",10.1.1.4,297,-0.470,-0.470,-0.470,0.000,0.000,0.000
1640060816900171008,"2021-12-21,04:26:56",10.1.1.4,0.3798370361328125,-0.470,-0.470,-0.470,0.000,0.000,0.000
1640060817218569984,"2021-12-21,04:26:57",10.1.1.4,303,-0.460,-0.460,-0.460,0.000,0.000,0.000
1640060817321639936,"2021-12-21,04:26:57",10.1.1.4,0.40715622901916504,-0.460,-0.460,-0.460,0.000,0.000,0.000
1640060817635526912,"2021-12-21,04:26:57",10.1.1.4,312,-0.450,-0.450,-0.450,0.000,0.000,0.000
1640060817689886976,"2021-12-21,04:26:57",10.1.1.4,0.36691904067993164,-0.450,-0.450,-0.450,0.000,0.000,0.000
1640060818025374976,"2021-12-21,04:26:58",10.1.1.4,329,-0.440,-0.440,-0.440,0.000,0.000,0.000
1640060818055241984,"2021-12-21,04:26:58",10.1.1.4,0.35901784896850586,-0.440,-0.440,-0.440,0.000,0.000,0.000
1640060818386063104,"2021-12-21,04:26:58",10.1.1.4,329,-0.430,-0.430,-0.430,0.000,0.000,0.000
1640060818478880768,"2021-12-21,04:26:58",10.1.1.4,0.42214012145996094,-0.430,-0.430,-0.430,0.000,0.000,0.000
1640060818814982912,"2021-12-21,04:26:58",10.1.1.4,334,-0.420,-0.420,-0.420,0.000,0.000,0.000
1640060818876133888,"2021-12-21,04:26:58",10.1.1.4,0.3954470157623291,-0.420,-0.420,-0.420,0.000,0.000,0.000
1640060819205797888,"2021-12-21,04:26:59",10.1.1.4,326,-0.410,-0.410,-0.410,0.000,0.000,0.000
1640060819271372032,"2021-12-21,04:26:59",10.1.1.4,0.3922750949859619,-0.410,-0.410,-0.410,0.000,0.000,0.000
1640060819624193024,"2021-12-21,04:26:59",10.1.1.4,351,-0.400,-0.400,-0.400,0.000,0.000,0.000
1640060819701870080,"2021-12-21,04:26:59",10.1.1.4,0.4288671016693115,-0.400,-0.400,-0.400,0.000,0.000,0.000
1640060820026326016,"2021-12-21,04:27:00",10.1.1.4,318,-0.390,-0.390,-0.390,0.000,0.000,0.000
1640060820104336128,"2021-12-21,04:27:00",10.1.1.4,0.3986549377441406,-0.390,-0.390,-0.390,0.000,0.000,0.000
1640060820428092928,"2021-12-21,04:27:00",10.1.1.4,316,-0.380,-0.380,-0.380,0.000,0.000,0.000
1640060820499165184,"2021-12-21,04:27:00",10.1.1.4,0.39287304878234863,-0.380,-0.380,-0.380,0.000,0.000,0.000
1640060820859527168,"2021-12-21,04:27:00",10.1.1.4,355,-0.370,-0.370,-0.370,0.000,0.000,0.000
1640060820921568000,"2021-12-21,04:27:00",10.1.1.4,0.41811704635620117,-0.370,-0.370,-0.370,0.000,0.000,0.000
1640060821211575040,"2021-12-21,04:27:01",10.1.1.4,288,-0.360,-0.360,-0.360,0.000,0.000,0.000
1640060821330956032,"2021-12-21,04:27:01",10.1.1.4,0.4081699848175049,-0.360,-0.360,-0.360,0.000,0.000,0.000
1640060821663526912,"2021-12-21,04:27:01",10.1.1.4,330,-0.350,-0.350,-0.350,0.000,0.000,0.000
1640060821743177984,"2021-12-21,04:27:01",10.1.1.4,0.410175085067749,-0.350,-0.350,-0.350,0.000,0.000,0.000
1640060822069107968,"2021-12-21,04:27:02",10.1.1.4,324,-0.340,-0.340,-0.340,0.000,0.000,0.000
1640060822087526144,"2021-12-21,04:27:02",10.1.1.4,0.34305787086486816,-0.340,-0.340,-0.340,0.000,0.000,0.000
1640060822461283072,"2021-12-21,04:27:02",10.1.1.4,367,-0.330,-0.330,-0.330,0.000,0.000,0.000
1640060822518313984,"2021-12-21,04:27:02",10.1.1.4,0.4245920181274414,-0.330,-0.330,-0.330,0.000,0.000,0.000
1640060822819549184,"2021-12-21,04:27:02",10.1.1.4,295,-0.320,-0.320,-0.320,0.000,0.000,0.000
1640060822906919936,"2021-12-21,04:27:02",10.1.1.4,0.382922887802124,-0.320,-0.320,-0.320,0.000,0.000,0.000
1640060823207449856,"2021-12-21,04:27:03",10.1.1.4,299,-0.310,-0.310,-0.310,0.000,0.000,0.000
1640060823292519168,"2021-12-21,04:27:03",10.1.1.4,0.3843979835510254,-0.310,-0.310,-0.310,0.000,0.000,0.000
1640060823597734912,"2021-12-21,04:27:03",10.1.1.4,302,-0.300,-0.300,-0.300,0.000,0.000,0.000
1640060823696696064,"2021-12-21,04:27:03",10.1.1.4,0.40128302574157715,-0.300,-0.300,-0.300,0.000,0.000,0.000
1640060824016762880,"2021-12-21,04:27:04",10.1.1.4,318,-0.290,-0.290,-0.290,0.000,0.000,0.000
1640060824075831808,"2021-12-21,04:27:04",10.1.1.4,0.37761807441711426,-0.290,-0.290,-0.290,0.000,0.000,0.000
1640060824385914112,"2021-12-21,04:27:04",10.1.1.4,307,-0.280,-0.280,-0.280,0.000,0.000,0.000
1640060824459175168,"2021-12-21,04:27:04",10.1.1.4,0.3811659812927246,-0.280,-0.280,-0.280,0.000,0.000,0.000
1640060824784979200,"2021-12-21,04:27:04",10.1.1.4,324,-0.270,-0.270,-0.270,0.000,0.000,0.000
1640060824823759104,"2021-12-21,04:27:04",10.1.1.4,0.36316704750061035,-0.270,-0.270,-0.270,0.000,0.000,0.000
1640060825105284096,"2021-12-21,04:27:05",10.1.1.4,279,-0.260,-0.260,-0.260,0.000,0.000,0.000
1640060825179667968,"2021-12-21,04:27:05",10.1.1.4,0.3542971611022949,-0.260,-0.260,-0.260,0.000,0.000,0.000
1640060825476603136,"2021-12-21,04:27:05",10.1.1.4,294,-0.250,-0.250,-0.250,0.000,0.000,0.000
1640060825577995008,"2021-12-21,04:27:05",10.1.1.4,0.39577198028564453,-0.250,-0.250,-0.250,0.000,0.000,0.000
1640060825899622912,"2021-12-21,04:27:05",10.1.1.4,316,-0.240,-0.240,-0.240,0.000,0.000,0.000
1640060825957828096,"2021-12-21,04:27:05",10.1.1.4,0.378403902053833,-0.240,-0.240,-0.240,0.000,0.000,0.000
1640060826333131008,"2021-12-21,04:27:06",10.1.1.4,371,-0.230,-0.230,-0.230,0.000,0.000,0.000
1640060826381288960,"2021-12-21,04:27:06",10.1.1.4,0.4216499328613281,-0.230,-0.230,-0.230,0.000,0.000,0.000
1640060826713038080,"2021-12-21,04:27:06",10.1.1.4,330,-0.220,-0.220,-0.220,0.000,0.000,0.000
1640060826803427072,"2021-12-21,04:27:06",10.1.1.4,0.4208338260650635,-0.220,-0.220,-0.220,0.000,0.000,0.000
1640060827091465984,"2021-12-21,04:27:07",10.1.1.4,285,-0.210,-0.210,-0.210,0.000,0.000,0.000
1640060827135736832,"2021-12-21,04:27:07",10.1.1.4,0.3301072120666504,-0.210,-0.210,-0.210,0.000,0.000,0.000
1640060827431117056,"2021-12-21,04:27:07",10.1.1.4,294,-0.200,-0.200,-0.200,0.000,0.000,0.000
1640060827461755136,"2021-12-21,04:27:07",10.1.1.4,0.32472705841064453,-0.200,-0.200,-0.200,0.000,0.000,0.000
1640060827807404032,"2021-12-21,04:27:07",10.1.1.4,327,-0.190,-0.190,-0.190,0.000,0.000,0.000
1640060827858701056,"2021-12-21,04:27:07",10.1.1.4,0.3952159881591797,-0.190,-0.190,-0.190,0.000,0.000,0.000
1640060828200813056,"2021-12-21,04:27:08",10.1.1.4,340,-0.180,-0.180,-0.180,0.000,0.000,0.000
1640060828243161856,"2021-12-21,04:27:08",10.1.1.4,0.3831660747528076,-0.180,-0.180,-0.180,0.000,0.000,0.000
1640060828539556864,"2021-12-21,04:27:08",10.1.1.4,294,-0.170,-0.170,-0.170,0.000,0.000,0.000
1640060828588336896,"2021-12-21,04:27:08",10.1.1.4,0.3438749313354492,-0.170,-0.170,-0.170,0.000,0.000,0.000
1640060828898508032,"2021-12-21,04:27:08",10.1.1.4,308,-0.160,-0.160,-0.160,0.000,0.000,0.000
1640060828957483008,"2021-12-21,04:27:08",10.1.1.4,0.3676879405975342,-0.160,-0.160,-0.160,0.000,0.000,0.000
1640060829281500160,"2021-12-21,04:27:09",10.1.1.4,321,-0.150,-0.150,-0.150,0.000,0.000,0.000
1640060829360609024,"2021-12-21,04:27:09",10.1.1.4,0.40113306045532227,-0.150,-0.150,-0.150,0.000,0.000,0.000
1640060829662460928,"2021-12-21,04:27:09",10.1.1.4,299,-0.140,-0.140,-0.140,0.000,0.000,0.000
1640060829759133184,"2021-12-21,04:27:09",10.1.1.4,0.396198034286499,-0.140,-0.140,-0.140,0.000,0.000,0.000
1640060830081312768,"2021-12-21,04:27:10",10.1.1.4,319,-0.130,-0.130,-0.130,0.000,0.000,0.000
1640060830176770048,"2021-12-21,04:27:10",10.1.1.4,0.4151730537414551,-0.130,-0.130,-0.130,0.000,0.000,0.000
1640060830508218880,"2021-12-21,04:27:10",10.1.1.4,329,-0.120,-0.120,-0.120,0.000,0.000,0.000
1640060830565574912,"2021-12-21,04:27:10",10.1.1.4,0.3870429992675781,-0.120,-0.120,-0.120,0.000,0.000,0.000
1640060830897926144,"2021-12-21,04:27:10",10.1.1.4,326,-0.110,-0.110,-0.110,0.000,0.000,0.000
1640060830950689024,"2021-12-21,04:27:10",10.1.1.4,0.379518985748291,-0.110,-0.110,-0.110,0.000,0.000,0.000
1640060831262234880,"2021-12-21,04:27:11",10.1.1.4,298,-0.100,-0.100,-0.100,0.000,0.000,0.000
1640060831306950144,"2021-12-21,04:27:11",10.1.1.4,0.35434889793395996,-0.100,-0.100,-0.100,0.000,0.000,0.000
1640060831642452992,"2021-12-21,04:27:11",10.1.1.4,333,-0.090,-0.090,-0.090,0.000,0.000,0.000
1640060831731970048,"2021-12-21,04:27:11",10.1.1.4,0.42350220680236816,-0.090,-0.090,-0.090,0.000,0.000,0.000
1640060832054583040,"2021-12-21,04:27:12",10.1.1.4,319,-0.080,-0.080,-0.080,0.000,0.000,0.000
1640060832138194944,"2021-12-21,04:27:12",10.1.1.4,0.40306782722473145,-0.080,-0.080,-0.080,0.000,0.000,0.000
1640060832464566016,"2021-12-21,04:27:12",10.1.1.4,322,-0.070,-0.070,-0.070,0.000,0.000,0.000
1640060832569220096,"2021-12-21,04:27:12",10.1.1.4,0.4275369644165039,-0.070,-0.070,-0.070,0.000,0.000,0.000
1640060832886070016,"2021-12-21,04:27:12",10.1.1.4,314,-0.060,-0.060,-0.060,0.000,0.000,0.000
1640060832955612928,"2021-12-21,04:27:12",10.1.1.4,0.38431811332702637,-0.060,-0.060,-0.060,0.000,0.000,0.000
1640060833299350016,"2021-12-21,04:27:13",10.1.1.4,341,-0.050,-0.050,-0.050,0.000,0.000,0.000
1640060833352940032,"2021-12-21,04:27:13",10.1.1.4,0.3960897922515869,-0.050,-0.050,-0.050,0.000,0.000,0.000
1640060833665859072,"2021-12-21,04:27:13",10.1.1.4,310,-0.040,-0.040,-0.040,0.000,0.000,0.000
1640060833766067968,"2021-12-21,04:27:13",10.1.1.4,0.410675048828125,-0.040,-0.040,-0.040,0.000,0.000,0.000
1640060834071206144,"2021-12-21,04:27:14",10.1.1.4,302,-0.030,-0.030,-0.030,0.000,0.000,0.000
1640060834097544960,"2021-12-21,04:27:14",10.1.1.4,0.32883596420288086,-0.030,-0.030,-0.030,0.000,0.000,0.000
1640060834420602112,"2021-12-21,04:27:14",10.1.1.4,320,-0.020,-0.020,-0.020,0.000,0.000,0.000
1640060834530607104,"2021-12-21,04:27:14",10.1.1.4,0.4304800033569336,-0.020,-0.020,-0.020,0.000,0.000,0.000
