FedericoMungari/DigitalTwin_service/Output/Output_script/script_rosapi_2_output_robots2_freq0_1.txt
timestamp,date,node,latency,joint_1,joint_2,joint_3,joint_4,joint_5,joint_6
1641069091039726848,2022-01-01-20:31:31,10.1.1.2,187,-0.010,-0.010,-0.010,0.000,0.000,0.000
1641069091239460096,2022-01-01-20:31:31,10.1.1.2,186,-0.020,-0.020,-0.020,0.000,0.000,0.000
1641069091440073984,2022-01-01-20:31:31,10.1.1.2,185,-0.030,-0.030,-0.030,0.000,0.000,0.000
1641069091638835968,2022-01-01-20:31:31,10.1.1.2,183,-0.040,-0.040,-0.040,0.000,0.000,0.000
1641069091838893824,2022-01-01-20:31:31,10.1.1.2,183,-0.050,-0.050,-0.050,0.000,0.000,0.000
1641069092037568000,2022-01-01-20:31:32,10.1.1.2,177,-0.060,-0.060,-0.060,0.000,0.000,0.000
1641069092238068224,2022-01-01-20:31:32,10.1.1.2,176,-0.070,-0.070,-0.070,0.000,0.000,0.000
1641069092460787968,2022-01-01-20:31:32,10.1.1.2,195,-0.080,-0.080,-0.080,0.000,0.000,0.000
1641069092657846016,2022-01-01-20:31:32,10.1.1.2,190,-0.090,-0.090,-0.090,0.000,0.000,0.000
1641069092857789952,2022-01-01-20:31:32,10.1.1.2,189,-0.100,-0.100,-0.100,0.000,0.000,0.000
1641069093057009920,2022-01-01-20:31:33,10.1.1.2,188,-0.110,-0.110,-0.110,0.000,0.000,0.000
1641069093258002944,2022-01-01-20:31:33,10.1.1.2,188,-0.120,-0.120,-0.120,0.000,0.000,0.000
1641069093457655040,2022-01-01-20:31:33,10.1.1.2,187,-0.130,-0.130,-0.130,0.000,0.000,0.000
1641069093657972992,2022-01-01-20:31:33,10.1.1.2,186,-0.140,-0.140,-0.140,0.000,0.000,0.000
1641069093856500992,2022-01-01-20:31:33,10.1.1.2,184,-0.150,-0.150,-0.150,0.000,0.000,0.000
1641069094055630848,2022-01-01-20:31:34,10.1.1.2,182,-0.160,-0.160,-0.160,0.000,0.000,0.000
1641069094255859968,2022-01-01-20:31:34,10.1.1.2,182,-0.170,-0.170,-0.170,0.000,0.000,0.000
1641069094455777792,2022-01-01-20:31:34,10.1.1.2,180,-0.180,-0.180,-0.180,0.000,0.000,0.000
1641069094656256000,2022-01-01-20:31:34,10.1.1.2,180,-0.190,-0.190,-0.190,0.000,0.000,0.000
1641069094856093952,2022-01-01-20:31:34,10.1.1.2,178,-0.200,-0.200,-0.200,0.000,0.000,0.000
1641069095055275008,2022-01-01-20:31:35,10.1.1.2,177,-0.210,-0.210,-0.210,0.000,0.000,0.000
1641069095255642880,2022-01-01-20:31:35,10.1.1.2,176,-0.220,-0.220,-0.220,0.000,0.000,0.000
1641069095456079104,2022-01-01-20:31:35,10.1.1.2,176,-0.230,-0.230,-0.230,0.000,0.000,0.000
1641069095653651968,2022-01-01-20:31:35,10.1.1.2,173,-0.240,-0.240,-0.240,0.000,0.000,0.000
1641069095853766912,2022-01-01-20:31:35,10.1.1.2,172,-0.250,-0.250,-0.250,0.000,0.000,0.000
1641069096053430016,2022-01-01-20:31:36,10.1.1.2,171,-0.260,-0.260,-0.260,0.000,0.000,0.000
1641069096254725888,2022-01-01-20:31:36,10.1.1.2,171,-0.270,-0.270,-0.270,0.000,0.000,0.000
1641069096454974976,2022-01-01-20:31:36,10.1.1.2,171,-0.280,-0.280,-0.280,0.000,0.000,0.000
1641069096673260800,2022-01-01-20:31:36,10.1.1.2,188,-0.290,-0.290,-0.290,0.000,0.000,0.000
1641069096873419008,2022-01-01-20:31:36,10.1.1.2,188,-0.300,-0.300,-0.300,0.000,0.000,0.000
1641069097072668928,2022-01-01-20:31:37,10.1.1.2,187,-0.310,-0.310,-0.310,0.000,0.000,0.000
1641069097266974976,2022-01-01-20:31:37,10.1.1.2,180,-0.320,-0.320,-0.320,0.000,0.000,0.000
1641069097466029056,2022-01-01-20:31:37,10.1.1.2,178,-0.330,-0.330,-0.330,0.000,0.000,0.000
1641069097666887936,2022-01-01-20:31:37,10.1.1.2,178,-0.340,-0.340,-0.340,0.000,0.000,0.000
1641069097867337984,2022-01-01-20:31:37,10.1.1.2,178,-0.350,-0.350,-0.350,0.000,0.000,0.000
1641069098064989184,2022-01-01-20:31:38,10.1.1.2,175,-0.360,-0.360,-0.360,0.000,0.000,0.000
1641069098265248000,2022-01-01-20:31:38,10.1.1.2,174,-0.370,-0.370,-0.370,0.000,0.000,0.000
1641069098465591040,2022-01-01-20:31:38,10.1.1.2,173,-0.380,-0.380,-0.380,0.000,0.000,0.000
1641069098665697024,2022-01-01-20:31:38,10.1.1.2,172,-0.390,-0.390,-0.390,0.000,0.000,0.000
1641069098864512000,2022-01-01-20:31:38,10.1.1.2,170,-0.400,-0.400,-0.400,0.000,0.000,0.000
1641069099063325952,2022-01-01-20:31:39,10.1.1.2,167,-0.410,-0.410,-0.410,0.000,0.000,0.000
1641069099263022848,2022-01-01-20:31:39,10.1.1.2,166,-0.420,-0.420,-0.420,0.000,0.000,0.000
1641069099463390208,2022-01-01-20:31:39,10.1.1.2,165,-0.430,-0.430,-0.430,0.000,0.000,0.000
1641069099683085824,2022-01-01-20:31:39,10.1.1.2,184,-0.440,-0.440,-0.440,0.000,0.000,0.000
1641069099883441920,2022-01-01-20:31:39,10.1.1.2,184,-0.450,-0.450,-0.450,0.000,0.000,0.000
1641069100082665984,2022-01-01-20:31:40,10.1.1.2,182,-0.460,-0.460,-0.460,0.000,0.000,0.000
1641069100285021952,2022-01-01-20:31:40,10.1.1.2,183,-0.470,-0.470,-0.470,0.000,0.000,0.000
1641069100482242048,2022-01-01-20:31:40,10.1.1.2,179,-0.480,-0.480,-0.480,0.000,0.000,0.000
1641069100681826048,2022-01-01-20:31:40,10.1.1.2,177,-0.490,-0.490,-0.490,0.000,0.000,0.000
1641069100880753152,2022-01-01-20:31:40,10.1.1.2,174,-0.480,-0.480,-0.480,0.000,0.000,0.000
1641069101080465920,2022-01-01-20:31:41,10.1.1.2,172,-0.470,-0.470,-0.470,0.000,0.000,0.000
1641069101283042816,2022-01-01-20:31:41,10.1.1.2,173,-0.460,-0.460,-0.460,0.000,0.000,0.000
1641069101480099840,2022-01-01-20:31:41,10.1.1.2,169,-0.450,-0.450,-0.450,0.000,0.000,0.000
1641069101680052992,2022-01-01-20:31:41,10.1.1.2,168,-0.440,-0.440,-0.440,0.000,0.000,0.000
1641069101880215040,2022-01-01-20:31:41,10.1.1.2,167,-0.430,-0.430,-0.430,0.000,0.000,0.000
1641069102079819008,2022-01-01-20:31:42,10.1.1.2,166,-0.420,-0.420,-0.420,0.000,0.000,0.000
1641069102279284992,2022-01-01-20:31:42,10.1.1.2,164,-0.410,-0.410,-0.410,0.000,0.000,0.000
1641069102479116032,2022-01-01-20:31:42,10.1.1.2,163,-0.400,-0.400,-0.400,0.000,0.000,0.000
1641069102678797056,2022-01-01-20:31:42,10.1.1.2,162,-0.390,-0.390,-0.390,0.000,0.000,0.000
1641069102877892864,2022-01-01-20:31:42,10.1.1.2,160,-0.380,-0.380,-0.380,0.000,0.000,0.000
1641069103098368768,2022-01-01-20:31:43,10.1.1.2,180,-0.370,-0.370,-0.370,0.000,0.000,0.000
1641069103298494976,2022-01-01-20:31:43,10.1.1.2,179,-0.360,-0.360,-0.360,0.000,0.000,0.000
1641069103498245120,2022-01-01-20:31:43,10.1.1.2,178,-0.350,-0.350,-0.350,0.000,0.000,0.000
1641069103697221120,2022-01-01-20:31:43,10.1.1.2,176,-0.340,-0.340,-0.340,0.000,0.000,0.000
1641069103898427136,2022-01-01-20:31:43,10.1.1.2,172,-0.330,-0.330,-0.330,0.000,0.000,0.000
1641069104096233984,2022-01-01-20:31:44,10.1.1.2,170,-0.320,-0.320,-0.320,0.000,0.000,0.000
1641069104309236992,2022-01-01-20:31:44,10.1.1.2,181,-0.310,-0.310,-0.310,0.000,0.000,0.000
1641069104520519936,2022-01-01-20:31:44,10.1.1.2,179,-0.300,-0.300,-0.300,0.000,0.000,0.000
1641069104729896960,2022-01-01-20:31:44,10.1.1.2,187,-0.290,-0.290,-0.290,0.000,0.000,0.000
1641069104925323008,2022-01-01-20:31:44,10.1.1.2,182,-0.280,-0.280,-0.280,0.000,0.000,0.000
1641069105113233920,2022-01-01-20:31:45,10.1.1.2,169,-0.270,-0.270,-0.270,0.000,0.000,0.000
1641069105313075968,2022-01-01-20:31:45,10.1.1.2,168,-0.260,-0.260,-0.260,0.000,0.000,0.000
1641069105513230080,2022-01-01-20:31:45,10.1.1.2,167,-0.250,-0.250,-0.250,0.000,0.000,0.000
1641069105712965888,2022-01-01-20:31:45,10.1.1.2,166,-0.240,-0.240,-0.240,0.000,0.000,0.000
1641069105912730880,2022-01-01-20:31:45,10.1.1.2,163,-0.230,-0.230,-0.230,0.000,0.000,0.000
1641069106113467904,2022-01-01-20:31:46,10.1.1.2,163,-0.220,-0.220,-0.220,0.000,0.000,0.000
1641069106314016000,2022-01-01-20:31:46,10.1.1.2,163,-0.210,-0.210,-0.210,0.000,0.000,0.000
1641069106521046016,2022-01-01-20:31:46,10.1.1.2,169,-0.200,-0.200,-0.200,0.000,0.000,0.000
1641069106716016128,2022-01-01-20:31:46,10.1.1.2,163,-0.190,-0.190,-0.190,0.000,0.000,0.000
1641069106918176768,2022-01-01-20:31:46,10.1.1.2,164,-0.180,-0.180,-0.180,0.000,0.000,0.000
1641069107119232000,2022-01-01-20:31:47,10.1.1.2,164,-0.170,-0.170,-0.170,0.000,0.000,0.000
1641069107320224000,2022-01-01-20:31:47,10.1.1.2,165,-0.160,-0.160,-0.160,0.000,0.000,0.000
1641069107521511936,2022-01-01-20:31:47,10.1.1.2,165,-0.150,-0.150,-0.150,0.000,0.000,0.000
1641069107721447936,2022-01-01-20:31:47,10.1.1.2,164,-0.140,-0.140,-0.140,0.000,0.000,0.000
1641069107942526208,2022-01-01-20:31:47,10.1.1.2,184,-0.130,-0.130,-0.130,0.000,0.000,0.000
1641069108143244032,2022-01-01-20:31:48,10.1.1.2,180,-0.120,-0.120,-0.120,0.000,0.000,0.000
1641069108344335104,2022-01-01-20:31:48,10.1.1.2,179,-0.110,-0.110,-0.110,0.000,0.000,0.000
1641069108544569088,2022-01-01-20:31:48,10.1.1.2,179,-0.100,-0.100,-0.100,0.000,0.000,0.000
1641069108745583104,2022-01-01-20:31:48,10.1.1.2,178,-0.090,-0.090,-0.090,0.000,0.000,0.000
1641069108946486016,2022-01-01-20:31:48,10.1.1.2,178,-0.080,-0.080,-0.080,0.000,0.000,0.000
1641069109146471936,2022-01-01-20:31:49,10.1.1.2,177,-0.070,-0.070,-0.070,0.000,0.000,0.000
1641069109348102144,2022-01-01-20:31:49,10.1.1.2,177,-0.060,-0.060,-0.060,0.000,0.000,0.000
1641069109547909888,2022-01-01-20:31:49,10.1.1.2,176,-0.050,-0.050,-0.050,0.000,0.000,0.000
1641069109748577024,2022-01-01-20:31:49,10.1.1.2,176,-0.040,-0.040,-0.040,0.000,0.000,0.000
1641069109949156096,2022-01-01-20:31:49,10.1.1.2,175,-0.030,-0.030,-0.030,0.000,0.000,0.000
1641069110150423040,2022-01-01-20:31:50,10.1.1.2,175,-0.020,-0.020,-0.020,0.000,0.000,0.000
1641069110371433984,2022-01-01-20:31:50,10.1.1.2,193,-0.010,-0.010,-0.010,0.000,0.000,0.000
1641069110571990016,2022-01-01-20:31:50,10.1.1.2,192,0.000,0.000,0.000,0.000,0.000,0.000
1641069110771600128,2022-01-01-20:31:50,10.1.1.2,191,-0.010,-0.010,-0.010,0.000,0.000,0.000
1641069110972770048,2022-01-01-20:31:50,10.1.1.2,191,-0.020,-0.020,-0.020,0.000,0.000,0.000
1641069111172172032,2022-01-01-20:31:51,10.1.1.2,190,-0.030,-0.030,-0.030,0.000,0.000,0.000
1641069111372724992,2022-01-01-20:31:51,10.1.1.2,189,-0.040,-0.040,-0.040,0.000,0.000,0.000
1641069111573803776,2022-01-01-20:31:51,10.1.1.2,189,-0.050,-0.050,-0.050,0.000,0.000,0.000
1641069111779931136,2022-01-01-20:31:51,10.1.1.2,195,-0.060,-0.060,-0.060,0.000,0.000,0.000
1641069111974448896,2022-01-01-20:31:51,10.1.1.2,188,-0.070,-0.070,-0.070,0.000,0.000,0.000
1641069112174557952,2022-01-01-20:31:52,10.1.1.2,187,-0.080,-0.080,-0.080,0.000,0.000,0.000
1641069112375351040,2022-01-01-20:31:52,10.1.1.2,186,-0.090,-0.090,-0.090,0.000,0.000,0.000
1641069112575383808,2022-01-01-20:31:52,10.1.1.2,186,-0.100,-0.100,-0.100,0.000,0.000,0.000
1641069112774785024,2022-01-01-20:31:52,10.1.1.2,185,-0.110,-0.110,-0.110,0.000,0.000,0.000
1641069112975714816,2022-01-01-20:31:52,10.1.1.2,184,-0.120,-0.120,-0.120,0.000,0.000,0.000
1641069113176727040,2022-01-01-20:31:53,10.1.1.2,185,-0.130,-0.130,-0.130,0.000,0.000,0.000
1641069113376061952,2022-01-01-20:31:53,10.1.1.2,183,-0.140,-0.140,-0.140,0.000,0.000,0.000
1641069113576015872,2022-01-01-20:31:53,10.1.1.2,182,-0.150,-0.150,-0.150,0.000,0.000,0.000
1641069113776051968,2022-01-01-20:31:53,10.1.1.2,181,-0.160,-0.160,-0.160,0.000,0.000,0.000
1641069113977103104,2022-01-01-20:31:53,10.1.1.2,181,-0.170,-0.170,-0.170,0.000,0.000,0.000
1641069114177843968,2022-01-01-20:31:54,10.1.1.2,180,-0.180,-0.180,-0.180,0.000,0.000,0.000
1641069114398587904,2022-01-01-20:31:54,10.1.1.2,199,-0.190,-0.190,-0.190,0.000,0.000,0.000
1641069114596855040,2022-01-01-20:31:54,10.1.1.2,196,-0.200,-0.200,-0.200,0.000,0.000,0.000
1641069114797227008,2022-01-01-20:31:54,10.1.1.2,195,-0.210,-0.210,-0.210,0.000,0.000,0.000
1641069114998592000,2022-01-01-20:31:54,10.1.1.2,195,-0.220,-0.220,-0.220,0.000,0.000,0.000
1641069115197395200,2022-01-01-20:31:55,10.1.1.2,194,-0.230,-0.230,-0.230,0.000,0.000,0.000
1641069115398112000,2022-01-01-20:31:55,10.1.1.2,192,-0.240,-0.240,-0.240,0.000,0.000,0.000
1641069115597070848,2022-01-01-20:31:55,10.1.1.2,190,-0.250,-0.250,-0.250,0.000,0.000,0.000
1641069115797116160,2022-01-01-20:31:55,10.1.1.2,190,-0.260,-0.260,-0.260,0.000,0.000,0.000
1641069115997594112,2022-01-01-20:31:55,10.1.1.2,189,-0.270,-0.270,-0.270,0.000,0.000,0.000
1641069116197632000,2022-01-01-20:31:56,10.1.1.2,188,-0.280,-0.280,-0.280,0.000,0.000,0.000
1641069116397399040,2022-01-01-20:31:56,10.1.1.2,187,-0.290,-0.290,-0.290,0.000,0.000,0.000
1641069116597274112,2022-01-01-20:31:56,10.1.1.2,186,-0.300,-0.300,-0.300,0.000,0.000,0.000
1641069116798456832,2022-01-01-20:31:56,10.1.1.2,186,-0.310,-0.310,-0.310,0.000,0.000,0.000
1641069116997620992,2022-01-01-20:31:56,10.1.1.2,184,-0.320,-0.320,-0.320,0.000,0.000,0.000
1641069117197627136,2022-01-01-20:31:57,10.1.1.2,182,-0.330,-0.330,-0.330,0.000,0.000,0.000
1641069117398680832,2022-01-01-20:31:57,10.1.1.2,182,-0.340,-0.340,-0.340,0.000,0.000,0.000
1641069117617626880,2022-01-01-20:31:57,10.1.1.2,198,-0.350,-0.350,-0.350,0.000,0.000,0.000
1641069117818675968,2022-01-01-20:31:57,10.1.1.2,198,-0.360,-0.360,-0.360,0.000,0.000,0.000
1641069118018042112,2022-01-01-20:31:58,10.1.1.2,197,-0.370,-0.370,-0.370,0.000,0.000,0.000
1641069118218914048,2022-01-01-20:31:58,10.1.1.2,196,-0.380,-0.380,-0.380,0.000,0.000,0.000
1641069118417027072,2022-01-01-20:31:58,10.1.1.2,193,-0.390,-0.390,-0.390,0.000,0.000,0.000
1641069118617302016,2022-01-01-20:31:58,10.1.1.2,191,-0.400,-0.400,-0.400,0.000,0.000,0.000
1641069118817220864,2022-01-01-20:31:58,10.1.1.2,189,-0.410,-0.410,-0.410,0.000,0.000,0.000
1641069119017180928,2022-01-01-20:31:59,10.1.1.2,189,-0.420,-0.420,-0.420,0.000,0.000,0.000
1641069119216851968,2022-01-01-20:31:59,10.1.1.2,187,-0.430,-0.430,-0.430,0.000,0.000,0.000
1641069119417402112,2022-01-01-20:31:59,10.1.1.2,187,-0.440,-0.440,-0.440,0.000,0.000,0.000
1641069119616749056,2022-01-01-20:31:59,10.1.1.2,186,-0.450,-0.450,-0.450,0.000,0.000,0.000
1641069119816566016,2022-01-01-20:31:59,10.1.1.2,184,-0.460,-0.460,-0.460,0.000,0.000,0.000
1641069120017026048,2022-01-01-20:32:00,10.1.1.2,182,-0.470,-0.470,-0.470,0.000,0.000,0.000
1641069120216708864,2022-01-01-20:32:00,10.1.1.2,180,-0.480,-0.480,-0.480,0.000,0.000,0.000
1641069120416822016,2022-01-01-20:32:00,10.1.1.2,178,-0.490,-0.490,-0.490,0.000,0.000,0.000
1641069120635906816,2022-01-01-20:32:00,10.1.1.2,196,-0.480,-0.480,-0.480,0.000,0.000,0.000
1641069120839643904,2022-01-01-20:32:00,10.1.1.2,199,-0.470,-0.470,-0.470,0.000,0.000,0.000
1641069121036658176,2022-01-01-20:32:01,10.1.1.2,195,-0.460,-0.460,-0.460,0.000,0.000,0.000
1641069121236617216,2022-01-01-20:32:01,10.1.1.2,194,-0.450,-0.450,-0.450,0.000,0.000,0.000
1641069121435885824,2022-01-01-20:32:01,10.1.1.2,193,-0.440,-0.440,-0.440,0.000,0.000,0.000
1641069121635892992,2022-01-01-20:32:01,10.1.1.2,190,-0.430,-0.430,-0.430,0.000,0.000,0.000
1641069121835696896,2022-01-01-20:32:01,10.1.1.2,189,-0.420,-0.420,-0.420,0.000,0.000,0.000
1641069122035357952,2022-01-01-20:32:02,10.1.1.2,188,-0.410,-0.410,-0.410,0.000,0.000,0.000
1641069122235193856,2022-01-01-20:32:02,10.1.1.2,183,-0.400,-0.400,-0.400,0.000,0.000,0.000
1641069122435162112,2022-01-01-20:32:02,10.1.1.2,182,-0.390,-0.390,-0.390,0.000,0.000,0.000
1641069122634141952,2022-01-01-20:32:02,10.1.1.2,180,-0.380,-0.380,-0.380,0.000,0.000,0.000
1641069122835304960,2022-01-01-20:32:02,10.1.1.2,181,-0.370,-0.370,-0.370,0.000,0.000,0.000
1641069123034267904,2022-01-01-20:32:03,10.1.1.2,179,-0.360,-0.360,-0.360,0.000,0.000,0.000
1641069123254100992,2022-01-01-20:32:03,10.1.1.2,194,-0.350,-0.350,-0.350,0.000,0.000,0.000
1641069123453875968,2022-01-01-20:32:03,10.1.1.2,193,-0.340,-0.340,-0.340,0.000,0.000,0.000
1641069123653666048,2022-01-01-20:32:03,10.1.1.2,192,-0.330,-0.330,-0.330,0.000,0.000,0.000
1641069123853417984,2022-01-01-20:32:03,10.1.1.2,189,-0.320,-0.320,-0.320,0.000,0.000,0.000
1641069124053533952,2022-01-01-20:32:04,10.1.1.2,189,-0.310,-0.310,-0.310,0.000,0.000,0.000
1641069124253292032,2022-01-01-20:32:04,10.1.1.2,188,-0.300,-0.300,-0.300,0.000,0.000,0.000
1641069124453078016,2022-01-01-20:32:04,10.1.1.2,187,-0.290,-0.290,-0.290,0.000,0.000,0.000
1641069124653480960,2022-01-01-20:32:04,10.1.1.2,186,-0.280,-0.280,-0.280,0.000,0.000,0.000
1641069124853063168,2022-01-01-20:32:04,10.1.1.2,185,-0.270,-0.270,-0.270,0.000,0.000,0.000
1641069125051284992,2022-01-01-20:32:05,10.1.1.2,183,-0.260,-0.260,-0.260,0.000,0.000,0.000
1641069125253305856,2022-01-01-20:32:05,10.1.1.2,184,-0.250,-0.250,-0.250,0.000,0.000,0.000
1641069125451334912,2022-01-01-20:32:05,10.1.1.2,181,-0.240,-0.240,-0.240,0.000,0.000,0.000
1641069125651771904,2022-01-01-20:32:05,10.1.1.2,180,-0.230,-0.230,-0.230,0.000,0.000,0.000
1641069125851435776,2022-01-01-20:32:05,10.1.1.2,179,-0.220,-0.220,-0.220,0.000,0.000,0.000
1641069126051203840,2022-01-01-20:32:06,10.1.1.2,178,-0.210,-0.210,-0.210,0.000,0.000,0.000
1641069126250222848,2022-01-01-20:32:06,10.1.1.2,176,-0.200,-0.200,-0.200,0.000,0.000,0.000
1641069126451168000,2022-01-01-20:32:06,10.1.1.2,173,-0.190,-0.190,-0.190,0.000,0.000,0.000
1641069126650240000,2022-01-01-20:32:06,10.1.1.2,172,-0.180,-0.180,-0.180,0.000,0.000,0.000
1641069126870647808,2022-01-01-20:32:06,10.1.1.2,190,-0.170,-0.170,-0.170,0.000,0.000,0.000
1641069127070283776,2022-01-01-20:32:07,10.1.1.2,189,-0.160,-0.160,-0.160,0.000,0.000,0.000
1641069127269576960,2022-01-01-20:32:07,10.1.1.2,188,-0.150,-0.150,-0.150,0.000,0.000,0.000
1641069127468833024,2022-01-01-20:32:07,10.1.1.2,183,-0.140,-0.140,-0.140,0.000,0.000,0.000
1641069127670038016,2022-01-01-20:32:07,10.1.1.2,184,-0.130,-0.130,-0.130,0.000,0.000,0.000
1641069127869107968,2022-01-01-20:32:07,10.1.1.2,182,-0.120,-0.120,-0.120,0.000,0.000,0.000
1641069128067856128,2022-01-01-20:32:08,10.1.1.2,180,-0.110,-0.110,-0.110,0.000,0.000,0.000
1641069128268718848,2022-01-01-20:32:08,10.1.1.2,178,-0.100,-0.100,-0.100,0.000,0.000,0.000
1641069128468712960,2022-01-01-20:32:08,10.1.1.2,178,-0.090,-0.090,-0.090,0.000,0.000,0.000
1641069128668008192,2022-01-01-20:32:08,10.1.1.2,177,-0.080,-0.080,-0.080,0.000,0.000,0.000
1641069128867436800,2022-01-01-20:32:08,10.1.1.2,173,-0.070,-0.070,-0.070,0.000,0.000,0.000
1641069129067364096,2022-01-01-20:32:09,10.1.1.2,172,-0.060,-0.060,-0.060,0.000,0.000,0.000
1641069129268846080,2022-01-01-20:32:09,10.1.1.2,172,-0.050,-0.050,-0.050,0.000,0.000,0.000
1641069129467520000,2022-01-01-20:32:09,10.1.1.2,170,-0.040,-0.040,-0.040,0.000,0.000,0.000
1641069129685745920,2022-01-01-20:32:09,10.1.1.2,187,-0.030,-0.030,-0.030,0.000,0.000,0.000
1641069129886370816,2022-01-01-20:32:09,10.1.1.2,187,-0.020,-0.020,-0.020,0.000,0.000,0.000
1641069130085326848,2022-01-01-20:32:10,10.1.1.2,185,-0.010,-0.010,-0.010,0.000,0.000,0.000
1641069130284882944,2022-01-01-20:32:10,10.1.1.2,183,0.000,0.000,0.000,0.000,0.000,0.000
1641069130484814848,2022-01-01-20:32:10,10.1.1.2,182,-0.010,-0.010,-0.010,0.000,0.000,0.000
1641069130684547072,2022-01-01-20:32:10,10.1.1.2,181,-0.020,-0.020,-0.020,0.000,0.000,0.000
1641069130884876032,2022-01-01-20:32:10,10.1.1.2,181,-0.030,-0.030,-0.030,0.000,0.000,0.000
1641069131085046016,2022-01-01-20:32:11,10.1.1.2,180,-0.040,-0.040,-0.040,0.000,0.000,0.000
1641069131284457984,2022-01-01-20:32:11,10.1.1.2,178,-0.050,-0.050,-0.050,0.000,0.000,0.000
1641069131484532224,2022-01-01-20:32:11,10.1.1.2,176,-0.060,-0.060,-0.060,0.000,0.000,0.000
1641069131683738112,2022-01-01-20:32:11,10.1.1.2,175,-0.070,-0.070,-0.070,0.000,0.000,0.000
1641069131884115968,2022-01-01-20:32:11,10.1.1.2,174,-0.080,-0.080,-0.080,0.000,0.000,0.000
1641069132082321920,2022-01-01-20:32:12,10.1.1.2,171,-0.090,-0.090,-0.090,0.000,0.000,0.000
1641069132283140864,2022-01-01-20:32:12,10.1.1.2,171,-0.100,-0.100,-0.100,0.000,0.000,0.000
1641069132482235904,2022-01-01-20:32:12,10.1.1.2,169,-0.110,-0.110,-0.110,0.000,0.000,0.000
1641069132681673984,2022-01-01-20:32:12,10.1.1.2,168,-0.120,-0.120,-0.120,0.000,0.000,0.000
1641069132881172992,2022-01-01-20:32:12,10.1.1.2,166,-0.130,-0.130,-0.130,0.000,0.000,0.000
1641069133081649152,2022-01-01-20:32:13,10.1.1.2,166,-0.140,-0.140,-0.140,0.000,0.000,0.000
1641069133281604096,2022-01-01-20:32:13,10.1.1.2,165,-0.150,-0.150,-0.150,0.000,0.000,0.000
1641069133483817216,2022-01-01-20:32:13,10.1.1.2,164,-0.160,-0.160,-0.160,0.000,0.000,0.000
1641069133683465984,2022-01-01-20:32:13,10.1.1.2,163,-0.170,-0.170,-0.170,0.000,0.000,0.000
1641069133883580928,2022-01-01-20:32:13,10.1.1.2,162,-0.180,-0.180,-0.180,0.000,0.000,0.000
1641069134103680000,2022-01-01-20:32:14,10.1.1.2,181,-0.190,-0.190,-0.190,0.000,0.000,0.000
1641069134282816768,2022-01-01-20:32:14,10.1.1.2,158,-0.200,-0.200,-0.200,0.000,0.000,0.000
1641069134502247168,2022-01-01-20:32:14,10.1.1.2,176,-0.210,-0.210,-0.210,0.000,0.000,0.000
1641069134702938112,2022-01-01-20:32:14,10.1.1.2,176,-0.220,-0.220,-0.220,0.000,0.000,0.000
1641069134901766144,2022-01-01-20:32:14,10.1.1.2,173,-0.230,-0.230,-0.230,0.000,0.000,0.000
1641069135108285952,2022-01-01-20:32:15,10.1.1.2,177,-0.240,-0.240,-0.240,0.000,0.000,0.000
1641069135302331904,2022-01-01-20:32:15,10.1.1.2,170,-0.250,-0.250,-0.250,0.000,0.000,0.000
1641069135502577920,2022-01-01-20:32:15,10.1.1.2,169,-0.260,-0.260,-0.260,0.000,0.000,0.000
1641069135703365120,2022-01-01-20:32:15,10.1.1.2,168,-0.270,-0.270,-0.270,0.000,0.000,0.000
1641069135902702080,2022-01-01-20:32:15,10.1.1.2,166,-0.280,-0.280,-0.280,0.000,0.000,0.000
1641069136102149120,2022-01-01-20:32:16,10.1.1.2,165,-0.290,-0.290,-0.290,0.000,0.000,0.000
1641069136301372928,2022-01-01-20:32:16,10.1.1.2,163,-0.300,-0.300,-0.300,0.000,0.000,0.000
1641069136502995968,2022-01-01-20:32:16,10.1.1.2,164,-0.310,-0.310,-0.310,0.000,0.000,0.000
1641069136700632064,2022-01-01-20:32:16,10.1.1.2,160,-0.320,-0.320,-0.320,0.000,0.000,0.000
1641069136920743936,2022-01-01-20:32:16,10.1.1.2,177,-0.330,-0.330,-0.330,0.000,0.000,0.000
1641069137119982848,2022-01-01-20:32:17,10.1.1.2,175,-0.340,-0.340,-0.340,0.000,0.000,0.000
1641069137320122880,2022-01-01-20:32:17,10.1.1.2,174,-0.350,-0.350,-0.350,0.000,0.000,0.000
1641069137519255040,2022-01-01-20:32:17,10.1.1.2,173,-0.360,-0.360,-0.360,0.000,0.000,0.000
1641069137720297984,2022-01-01-20:32:17,10.1.1.2,172,-0.370,-0.370,-0.370,0.000,0.000,0.000
1641069137919412992,2022-01-01-20:32:17,10.1.1.2,170,-0.380,-0.380,-0.380,0.000,0.000,0.000
1641069138118725120,2022-01-01-20:32:18,10.1.1.2,168,-0.390,-0.390,-0.390,0.000,0.000,0.000
1641069138319736832,2022-01-01-20:32:18,10.1.1.2,168,-0.400,-0.400,-0.400,0.000,0.000,0.000
1641069138521526016,2022-01-01-20:32:18,10.1.1.2,168,-0.410,-0.410,-0.410,0.000,0.000,0.000
1641069138723042048,2022-01-01-20:32:18,10.1.1.2,169,-0.420,-0.420,-0.420,0.000,0.000,0.000
1641069138924015104,2022-01-01-20:32:18,10.1.1.2,169,-0.430,-0.430,-0.430,0.000,0.000,0.000
1641069139125427968,2022-01-01-20:32:19,10.1.1.2,170,-0.440,-0.440,-0.440,0.000,0.000,0.000
1641069139325902080,2022-01-01-20:32:19,10.1.1.2,169,-0.450,-0.450,-0.450,0.000,0.000,0.000
1641069139526331904,2022-01-01-20:32:19,10.1.1.2,169,-0.460,-0.460,-0.460,0.000,0.000,0.000
1641069139726360064,2022-01-01-20:32:19,10.1.1.2,168,-0.470,-0.470,-0.470,0.000,0.000,0.000
1641069139928062976,2022-01-01-20:32:19,10.1.1.2,169,-0.480,-0.480,-0.480,0.000,0.000,0.000
1641069140128436992,2022-01-01-20:32:20,10.1.1.2,169,-0.490,-0.490,-0.490,0.000,0.000,0.000
1641069140330004992,2022-01-01-20:32:20,10.1.1.2,168,-0.480,-0.480,-0.480,0.000,0.000,0.000
1641069140534912000,2022-01-01-20:32:20,10.1.1.2,171,-0.470,-0.470,-0.470,0.000,0.000,0.000
1641069140750740992,2022-01-01-20:32:20,10.1.1.2,186,-0.460,-0.460,-0.460,0.000,0.000,0.000
1641069140953079040,2022-01-01-20:32:20,10.1.1.2,187,-0.450,-0.450,-0.450,0.000,0.000,0.000
1641069141152354048,2022-01-01-20:32:21,10.1.1.2,186,-0.440,-0.440,-0.440,0.000,0.000,0.000
1641069141353293824,2022-01-01-20:32:21,10.1.1.2,186,-0.430,-0.430,-0.430,0.000,0.000,0.000
1641069141554460160,2022-01-01-20:32:21,10.1.1.2,186,-0.420,-0.420,-0.420,0.000,0.000,0.000
1641069141754177024,2022-01-01-20:32:21,10.1.1.2,185,-0.410,-0.410,-0.410,0.000,0.000,0.000
1641069141954307072,2022-01-01-20:32:21,10.1.1.2,181,-0.400,-0.400,-0.400,0.000,0.000,0.000
1641069142156728064,2022-01-01-20:32:22,10.1.1.2,180,-0.390,-0.390,-0.390,0.000,0.000,0.000
1641069142356913152,2022-01-01-20:32:22,10.1.1.2,180,-0.380,-0.380,-0.380,0.000,0.000,0.000
1641069142557261824,2022-01-01-20:32:22,10.1.1.2,179,-0.370,-0.370,-0.370,0.000,0.000,0.000
1641069142757047040,2022-01-01-20:32:22,10.1.1.2,178,-0.360,-0.360,-0.360,0.000,0.000,0.000
1641069142958298880,2022-01-01-20:32:22,10.1.1.2,178,-0.350,-0.350,-0.350,0.000,0.000,0.000
1641069143157856000,2022-01-01-20:32:23,10.1.1.2,177,-0.340,-0.340,-0.340,0.000,0.000,0.000
1641069143358541056,2022-01-01-20:32:23,10.1.1.2,177,-0.330,-0.330,-0.330,0.000,0.000,0.000
1641069143559010048,2022-01-01-20:32:23,10.1.1.2,177,-0.320,-0.320,-0.320,0.000,0.000,0.000
1641069143759661824,2022-01-01-20:32:23,10.1.1.2,176,-0.310,-0.310,-0.310,0.000,0.000,0.000
1641069143961764096,2022-01-01-20:32:23,10.1.1.2,177,-0.300,-0.300,-0.300,0.000,0.000,0.000
1641069144179553024,2022-01-01-20:32:24,10.1.1.2,191,-0.290,-0.290,-0.290,0.000,0.000,0.000
1641069144380229888,2022-01-01-20:32:24,10.1.1.2,191,-0.280,-0.280,-0.280,0.000,0.000,0.000
1641069144580871168,2022-01-01-20:32:24,10.1.1.2,190,-0.270,-0.270,-0.270,0.000,0.000,0.000
1641069144786176000,2022-01-01-20:32:24,10.1.1.2,195,-0.260,-0.260,-0.260,0.000,0.000,0.000
1641069144985966080,2022-01-01-20:32:24,10.1.1.2,194,-0.250,-0.250,-0.250,0.000,0.000,0.000
1641069145182204928,2022-01-01-20:32:25,10.1.1.2,189,-0.240,-0.240,-0.240,0.000,0.000,0.000
1641069145381056000,2022-01-01-20:32:25,10.1.1.2,187,-0.230,-0.230,-0.230,0.000,0.000,0.000
1641069145582993152,2022-01-01-20:32:25,10.1.1.2,187,-0.220,-0.220,-0.220,0.000,0.000,0.000
1641069145781692928,2022-01-01-20:32:25,10.1.1.2,184,-0.210,-0.210,-0.210,0.000,0.000,0.000
1641069145982345216,2022-01-01-20:32:25,10.1.1.2,184,-0.200,-0.200,-0.200,0.000,0.000,0.000
1641069146182281984,2022-01-01-20:32:26,10.1.1.2,183,-0.190,-0.190,-0.190,0.000,0.000,0.000
1641069146382324992,2022-01-01-20:32:26,10.1.1.2,182,-0.180,-0.180,-0.180,0.000,0.000,0.000
1641069146582305024,2022-01-01-20:32:26,10.1.1.2,180,-0.170,-0.170,-0.170,0.000,0.000,0.000
1641069146783462144,2022-01-01-20:32:26,10.1.1.2,180,-0.160,-0.160,-0.160,0.000,0.000,0.000
1641069147003614976,2022-01-01-20:32:27,10.1.1.2,198,-0.150,-0.150,-0.150,0.000,0.000,0.000
1641069147202622976,2022-01-01-20:32:27,10.1.1.2,197,-0.140,-0.140,-0.140,0.000,0.000,0.000
1641069147402237952,2022-01-01-20:32:27,10.1.1.2,196,-0.130,-0.130,-0.130,0.000,0.000,0.000
1641069147603346944,2022-01-01-20:32:27,10.1.1.2,193,-0.120,-0.120,-0.120,0.000,0.000,0.000
1641069147803361024,2022-01-01-20:32:27,10.1.1.2,191,-0.110,-0.110,-0.110,0.000,0.000,0.000
1641069148002831872,2022-01-01-20:32:28,10.1.1.2,190,-0.100,-0.100,-0.100,0.000,0.000,0.000
1641069148202611968,2022-01-01-20:32:28,10.1.1.2,189,-0.090,-0.090,-0.090,0.000,0.000,0.000
1641069148404833024,2022-01-01-20:32:28,10.1.1.2,190,-0.080,-0.080,-0.080,0.000,0.000,0.000
1641069148606280192,2022-01-01-20:32:28,10.1.1.2,190,-0.070,-0.070,-0.070,0.000,0.000,0.000
1641069148803782912,2022-01-01-20:32:28,10.1.1.2,186,-0.060,-0.060,-0.060,0.000,0.000,0.000
1641069149004251904,2022-01-01-20:32:29,10.1.1.2,186,-0.050,-0.050,-0.050,0.000,0.000,0.000
1641069149202599936,2022-01-01-20:32:29,10.1.1.2,183,-0.040,-0.040,-0.040,0.000,0.000,0.000
1641069149404526080,2022-01-01-20:32:29,10.1.1.2,184,-0.030,-0.030,-0.030,0.000,0.000,0.000
1641069149603099136,2022-01-01-20:32:29,10.1.1.2,182,-0.020,-0.020,-0.020,0.000,0.000,0.000
1641069149807447808,2022-01-01-20:32:29,10.1.1.2,185,-0.010,-0.010,-0.010,0.000,0.000,0.000
1641069150022991872,2022-01-01-20:32:30,10.1.1.2,198,0.000,0.000,0.000,0.000,0.000,0.000
1641069150224280064,2022-01-01-20:32:30,10.1.1.2,197,-0.010,-0.010,-0.010,0.000,0.000,0.000
1641069150423118080,2022-01-01-20:32:30,10.1.1.2,196,-0.020,-0.020,-0.020,0.000,0.000,0.000
1641069150625169920,2022-01-01-20:32:30,10.1.1.2,195,-0.030,-0.030,-0.030,0.000,0.000,0.000
1641069150824475904,2022-01-01-20:32:30,10.1.1.2,193,-0.040,-0.040,-0.040,0.000,0.000,0.000
1641069151023098112,2022-01-01-20:32:31,10.1.1.2,190,-0.050,-0.050,-0.050,0.000,0.000,0.000
1641069151223412992,2022-01-01-20:32:31,10.1.1.2,190,-0.060,-0.060,-0.060,0.000,0.000,0.000
1641069151422491136,2022-01-01-20:32:31,10.1.1.2,188,-0.070,-0.070,-0.070,0.000,0.000,0.000
1641069151623133952,2022-01-01-20:32:31,10.1.1.2,188,-0.080,-0.080,-0.080,0.000,0.000,0.000
1641069151822778112,2022-01-01-20:32:31,10.1.1.2,187,-0.090,-0.090,-0.090,0.000,0.000,0.000
1641069152022169088,2022-01-01-20:32:32,10.1.1.2,184,-0.100,-0.100,-0.100,0.000,0.000,0.000
1641069152222230784,2022-01-01-20:32:32,10.1.1.2,183,-0.110,-0.110,-0.110,0.000,0.000,0.000
1641069152621782016,2022-01-01-20:32:32,10.1.1.2,180,-0.130,-0.130,-0.130,0.000,0.000,0.000
1641069152822264064,2022-01-01-20:32:32,10.1.1.2,178,-0.140,-0.140,-0.140,0.000,0.000,0.000
1641069153041225984,2022-01-01-20:32:33,10.1.1.2,196,-0.150,-0.150,-0.150,0.000,0.000,0.000
1641069153241614080,2022-01-01-20:32:33,10.1.1.2,196,-0.160,-0.160,-0.160,0.000,0.000,0.000
1641069153441297920,2022-01-01-20:32:33,10.1.1.2,194,-0.170,-0.170,-0.170,0.000,0.000,0.000
1641069153641155840,2022-01-01-20:32:33,10.1.1.2,193,-0.180,-0.180,-0.180,0.000,0.000,0.000
1641069153841803008,2022-01-01-20:32:33,10.1.1.2,192,-0.190,-0.190,-0.190,0.000,0.000,0.000
1641069154041003008,2022-01-01-20:32:34,10.1.1.2,190,-0.200,-0.200,-0.200,0.000,0.000,0.000
1641069154240616960,2022-01-01-20:32:34,10.1.1.2,189,-0.210,-0.210,-0.210,0.000,0.000,0.000
1641069154441137920,2022-01-01-20:32:34,10.1.1.2,188,-0.220,-0.220,-0.220,0.000,0.000,0.000
1641069154640352000,2022-01-01-20:32:34,10.1.1.2,187,-0.230,-0.230,-0.230,0.000,0.000,0.000
1641069154840049152,2022-01-01-20:32:34,10.1.1.2,185,-0.240,-0.240,-0.240,0.000,0.000,0.000
1641069155041307904,2022-01-01-20:32:35,10.1.1.2,185,-0.250,-0.250,-0.250,0.000,0.000,0.000
1641069155240075008,2022-01-01-20:32:35,10.1.1.2,183,-0.260,-0.260,-0.260,0.000,0.000,0.000
1641069155441147136,2022-01-01-20:32:35,10.1.1.2,182,-0.270,-0.270,-0.270,0.000,0.000,0.000
1641069155639617024,2022-01-01-20:32:35,10.1.1.2,179,-0.280,-0.280,-0.280,0.000,0.000,0.000
1641069155839133952,2022-01-01-20:32:35,10.1.1.2,178,-0.290,-0.290,-0.290,0.000,0.000,0.000
1641069156039447040,2022-01-01-20:32:36,10.1.1.2,176,-0.300,-0.300,-0.300,0.000,0.000,0.000
1641069156239371008,2022-01-01-20:32:36,10.1.1.2,175,-0.310,-0.310,-0.310,0.000,0.000,0.000
1641069156458739968,2022-01-01-20:32:36,10.1.1.2,194,-0.320,-0.320,-0.320,0.000,0.000,0.000
1641069156658336000,2022-01-01-20:32:36,10.1.1.2,193,-0.330,-0.330,-0.330,0.000,0.000,0.000
1641069156858329088,2022-01-01-20:32:36,10.1.1.2,191,-0.340,-0.340,-0.340,0.000,0.000,0.000
1641069157057657088,2022-01-01-20:32:37,10.1.1.2,190,-0.350,-0.350,-0.350,0.000,0.000,0.000
1641069157257234944,2022-01-01-20:32:37,10.1.1.2,188,-0.360,-0.360,-0.360,0.000,0.000,0.000
1641069157459259904,2022-01-01-20:32:37,10.1.1.2,189,-0.370,-0.370,-0.370,0.000,0.000,0.000
1641069157656800000,2022-01-01-20:32:37,10.1.1.2,186,-0.380,-0.380,-0.380,0.000,0.000,0.000
1641069157856781056,2022-01-01-20:32:37,10.1.1.2,185,-0.390,-0.390,-0.390,0.000,0.000,0.000
1641069158056487168,2022-01-01-20:32:38,10.1.1.2,184,-0.400,-0.400,-0.400,0.000,0.000,0.000
1641069158257028096,2022-01-01-20:32:38,10.1.1.2,183,-0.410,-0.410,-0.410,0.000,0.000,0.000
1641069158456534016,2022-01-01-20:32:38,10.1.1.2,180,-0.420,-0.420,-0.420,0.000,0.000,0.000
1641069158656646912,2022-01-01-20:32:38,10.1.1.2,179,-0.430,-0.430,-0.430,0.000,0.000,0.000
1641069158855557888,2022-01-01-20:32:38,10.1.1.2,177,-0.440,-0.440,-0.440,0.000,0.000,0.000
1641069159055501824,2022-01-01-20:32:39,10.1.1.2,176,-0.450,-0.450,-0.450,0.000,0.000,0.000
1641069159255374848,2022-01-01-20:32:39,10.1.1.2,175,-0.460,-0.460,-0.460,0.000,0.000,0.000
1641069159457239040,2022-01-01-20:32:39,10.1.1.2,176,-0.470,-0.470,-0.470,0.000,0.000,0.000
1641069159655406848,2022-01-01-20:32:39,10.1.1.2,173,-0.480,-0.480,-0.480,0.000,0.000,0.000
1641069159854126080,2022-01-01-20:32:39,10.1.1.2,171,-0.490,-0.490,-0.490,0.000,0.000,0.000
1641069160074050048,2022-01-01-20:32:40,10.1.1.2,190,-0.480,-0.480,-0.480,0.000,0.000,0.000
1641069160273890048,2022-01-01-20:32:40,10.1.1.2,188,-0.470,-0.470,-0.470,0.000,0.000,0.000
1641069160474733056,2022-01-01-20:32:40,10.1.1.2,189,-0.460,-0.460,-0.460,0.000,0.000,0.000
1641069160673597952,2022-01-01-20:32:40,10.1.1.2,187,-0.450,-0.450,-0.450,0.000,0.000,0.000
1641069160872854016,2022-01-01-20:32:40,10.1.1.2,185,-0.440,-0.440,-0.440,0.000,0.000,0.000
1641069161073616896,2022-01-01-20:32:41,10.1.1.2,185,-0.430,-0.430,-0.430,0.000,0.000,0.000
1641069161272989952,2022-01-01-20:32:41,10.1.1.2,179,-0.420,-0.420,-0.420,0.000,0.000,0.000
1641069161473263104,2022-01-01-20:32:41,10.1.1.2,178,-0.410,-0.410,-0.410,0.000,0.000,0.000
1641069161672578048,2022-01-01-20:32:41,10.1.1.2,176,-0.400,-0.400,-0.400,0.000,0.000,0.000
1641069161872529152,2022-01-01-20:32:41,10.1.1.2,175,-0.390,-0.390,-0.390,0.000,0.000,0.000
1641069162071463168,2022-01-01-20:32:42,10.1.1.2,173,-0.380,-0.380,-0.380,0.000,0.000,0.000
1641069162271239936,2022-01-01-20:32:42,10.1.1.2,170,-0.370,-0.370,-0.370,0.000,0.000,0.000
1641069162470843136,2022-01-01-20:32:42,10.1.1.2,169,-0.360,-0.360,-0.360,0.000,0.000,0.000
1641069162670172928,2022-01-01-20:32:42,10.1.1.2,167,-0.350,-0.350,-0.350,0.000,0.000,0.000
1641069162891262976,2022-01-01-20:32:42,10.1.1.2,187,-0.340,-0.340,-0.340,0.000,0.000,0.000
1641069163089529088,2022-01-01-20:32:43,10.1.1.2,184,-0.330,-0.330,-0.330,0.000,0.000,0.000
1641069163289773056,2022-01-01-20:32:43,10.1.1.2,184,-0.320,-0.320,-0.320,0.000,0.000,0.000
1641069163489170176,2022-01-01-20:32:43,10.1.1.2,180,-0.310,-0.310,-0.310,0.000,0.000,0.000
1641069163689115136,2022-01-01-20:32:43,10.1.1.2,178,-0.300,-0.300,-0.300,0.000,0.000,0.000
1641069163889573120,2022-01-01-20:32:43,10.1.1.2,178,-0.290,-0.290,-0.290,0.000,0.000,0.000
1641069164088761088,2022-01-01-20:32:44,10.1.1.2,176,-0.280,-0.280,-0.280,0.000,0.000,0.000
1641069164288989184,2022-01-01-20:32:44,10.1.1.2,175,-0.270,-0.270,-0.270,0.000,0.000,0.000
1641069164487732992,2022-01-01-20:32:44,10.1.1.2,173,-0.260,-0.260,-0.260,0.000,0.000,0.000
1641069164689006080,2022-01-01-20:32:44,10.1.1.2,173,-0.250,-0.250,-0.250,0.000,0.000,0.000
1641069164888354048,2022-01-01-20:32:44,10.1.1.2,172,-0.240,-0.240,-0.240,0.000,0.000,0.000
1641069165086356992,2022-01-01-20:32:45,10.1.1.2,168,-0.230,-0.230,-0.230,0.000,0.000,0.000
1641069165286061056,2022-01-01-20:32:45,10.1.1.2,167,-0.220,-0.220,-0.220,0.000,0.000,0.000
1641069165485829120,2022-01-01-20:32:45,10.1.1.2,165,-0.210,-0.210,-0.210,0.000,0.000,0.000
1641069165687406080,2022-01-01-20:32:45,10.1.1.2,164,-0.200,-0.200,-0.200,0.000,0.000,0.000
1641069165905647104,2022-01-01-20:32:45,10.1.1.2,180,-0.190,-0.190,-0.190,0.000,0.000,0.000
1641069166105458944,2022-01-01-20:32:46,10.1.1.2,179,-0.180,-0.180,-0.180,0.000,0.000,0.000
1641069166306400000,2022-01-01-20:32:46,10.1.1.2,179,-0.170,-0.170,-0.170,0.000,0.000,0.000
1641069166506632192,2022-01-01-20:32:46,10.1.1.2,178,-0.160,-0.160,-0.160,0.000,0.000,0.000
1641069166705383168,2022-01-01-20:32:46,10.1.1.2,175,-0.150,-0.150,-0.150,0.000,0.000,0.000
1641069166905684992,2022-01-01-20:32:46,10.1.1.2,172,-0.140,-0.140,-0.140,0.000,0.000,0.000
1641069167105004032,2022-01-01-20:32:47,10.1.1.2,170,-0.130,-0.130,-0.130,0.000,0.000,0.000
1641069167304816128,2022-01-01-20:32:47,10.1.1.2,169,-0.120,-0.120,-0.120,0.000,0.000,0.000
1641069167504193024,2022-01-01-20:32:47,10.1.1.2,167,-0.110,-0.110,-0.110,0.000,0.000,0.000
1641069167703296000,2022-01-01-20:32:47,10.1.1.2,165,-0.100,-0.100,-0.100,0.000,0.000,0.000
1641069167902184960,2022-01-01-20:32:47,10.1.1.2,160,-0.090,-0.090,-0.090,0.000,0.000,0.000
1641069168123516160,2022-01-01-20:32:48,10.1.1.2,180,-0.080,-0.080,-0.080,0.000,0.000,0.000
1641069168322232064,2022-01-01-20:32:48,10.1.1.2,177,-0.070,-0.070,-0.070,0.000,0.000,0.000
1641069168521709056,2022-01-01-20:32:48,10.1.1.2,175,-0.060,-0.060,-0.060,0.000,0.000,0.000
1641069168721622016,2022-01-01-20:32:48,10.1.1.2,174,-0.050,-0.050,-0.050,0.000,0.000,0.000
1641069168921241088,2022-01-01-20:32:48,10.1.1.2,173,-0.040,-0.040,-0.040,0.000,0.000,0.000
1641069169120847872,2022-01-01-20:32:49,10.1.1.2,172,-0.030,-0.030,-0.030,0.000,0.000,0.000
1641069169320413952,2022-01-01-20:32:49,10.1.1.2,170,-0.020,-0.020,-0.020,0.000,0.000,0.000
1641069169520076032,2022-01-01-20:32:49,10.1.1.2,169,-0.010,-0.010,-0.010,0.000,0.000,0.000
1641069169720300800,2022-01-01-20:32:49,10.1.1.2,168,0.000,0.000,0.000,0.000,0.000,0.000
1641069169920964096,2022-01-01-20:32:49,10.1.1.2,167,-0.010,-0.010,-0.010,0.000,0.000,0.000
1641069170119985152,2022-01-01-20:32:50,10.1.1.2,166,-0.020,-0.020,-0.020,0.000,0.000,0.000
1641069170321789952,2022-01-01-20:32:50,10.1.1.2,167,-0.030,-0.030,-0.030,0.000,0.000,0.000
1641069170522049024,2022-01-01-20:32:50,10.1.1.2,166,-0.040,-0.040,-0.040,0.000,0.000,0.000
1641069170723154176,2022-01-01-20:32:50,10.1.1.2,166,-0.050,-0.050,-0.050,0.000,0.000,0.000
1641069170924890112,2022-01-01-20:32:50,10.1.1.2,167,-0.060,-0.060,-0.060,0.000,0.000,0.000
1641069171125262848,2022-01-01-20:32:51,10.1.1.2,167,-0.070,-0.070,-0.070,0.000,0.000,0.000
1641069171326569984,2022-01-01-20:32:51,10.1.1.2,165,-0.080,-0.080,-0.080,0.000,0.000,0.000
1641069171526722816,2022-01-01-20:32:51,10.1.1.2,164,-0.090,-0.090,-0.090,0.000,0.000,0.000
1641069171727469056,2022-01-01-20:32:51,10.1.1.2,164,-0.100,-0.100,-0.100,0.000,0.000,0.000
1641069171949392128,2022-01-01-20:32:51,10.1.1.2,185,-0.110,-0.110,-0.110,0.000,0.000,0.000
1641069172150567936,2022-01-01-20:32:52,10.1.1.2,184,-0.120,-0.120,-0.120,0.000,0.000,0.000
1641069172351152896,2022-01-01-20:32:52,10.1.1.2,185,-0.130,-0.130,-0.130,0.000,0.000,0.000
1641069172552251136,2022-01-01-20:32:52,10.1.1.2,185,-0.140,-0.140,-0.140,0.000,0.000,0.000
1641069172752199936,2022-01-01-20:32:52,10.1.1.2,183,-0.150,-0.150,-0.150,0.000,0.000,0.000
1641069172952514048,2022-01-01-20:32:52,10.1.1.2,183,-0.160,-0.160,-0.160,0.000,0.000,0.000
1641069173153240832,2022-01-01-20:32:53,10.1.1.2,181,-0.170,-0.170,-0.170,0.000,0.000,0.000
1641069173354150144,2022-01-01-20:32:53,10.1.1.2,180,-0.180,-0.180,-0.180,0.000,0.000,0.000
1641069173554614016,2022-01-01-20:32:53,10.1.1.2,179,-0.190,-0.190,-0.190,0.000,0.000,0.000
1641069173754590976,2022-01-01-20:32:53,10.1.1.2,178,-0.200,-0.200,-0.200,0.000,0.000,0.000
1641069173976228096,2022-01-01-20:32:53,10.1.1.2,199,-0.210,-0.210,-0.210,0.000,0.000,0.000
1641069174155848960,2022-01-01-20:32:54,10.1.1.2,177,-0.220,-0.220,-0.220,0.000,0.000,0.000
1641069174356615936,2022-01-01-20:32:54,10.1.1.2,177,-0.230,-0.230,-0.230,0.000,0.000,0.000
1641069174557820160,2022-01-01-20:32:54,10.1.1.2,177,-0.240,-0.240,-0.240,0.000,0.000,0.000
1641069174758274048,2022-01-01-20:32:54,10.1.1.2,177,-0.250,-0.250,-0.250,0.000,0.000,0.000
1641069174958089216,2022-01-01-20:32:54,10.1.1.2,176,-0.260,-0.260,-0.260,0.000,0.000,0.000
1641069175158848000,2022-01-01-20:32:55,10.1.1.2,176,-0.270,-0.270,-0.270,0.000,0.000,0.000
1641069175359054080,2022-01-01-20:32:55,10.1.1.2,175,-0.280,-0.280,-0.280,0.000,0.000,0.000
1641069175581132800,2022-01-01-20:32:55,10.1.1.2,196,-0.290,-0.290,-0.290,0.000,0.000,0.000
1641069175779982080,2022-01-01-20:32:55,10.1.1.2,194,-0.300,-0.300,-0.300,0.000,0.000,0.000
1641069175980699904,2022-01-01-20:32:55,10.1.1.2,194,-0.310,-0.310,-0.310,0.000,0.000,0.000
1641069176182109952,2022-01-01-20:32:56,10.1.1.2,195,-0.320,-0.320,-0.320,0.000,0.000,0.000
1641069176381114112,2022-01-01-20:32:56,10.1.1.2,191,-0.330,-0.330,-0.330,0.000,0.000,0.000
1641069176581330176,2022-01-01-20:32:56,10.1.1.2,190,-0.340,-0.340,-0.340,0.000,0.000,0.000
1641069176782007040,2022-01-01-20:32:56,10.1.1.2,189,-0.350,-0.350,-0.350,0.000,0.000,0.000
1641069176982217984,2022-01-01-20:32:56,10.1.1.2,189,-0.360,-0.360,-0.360,0.000,0.000,0.000
1641069177185363968,2022-01-01-20:32:57,10.1.1.2,191,-0.370,-0.370,-0.370,0.000,0.000,0.000
1641069177383106048,2022-01-01-20:32:57,10.1.1.2,188,-0.380,-0.380,-0.380,0.000,0.000,0.000
1641069177583128832,2022-01-01-20:32:57,10.1.1.2,186,-0.390,-0.390,-0.390,0.000,0.000,0.000
1641069177783736832,2022-01-01-20:32:57,10.1.1.2,186,-0.400,-0.400,-0.400,0.000,0.000,0.000
1641069177984765952,2022-01-01-20:32:57,10.1.1.2,186,-0.410,-0.410,-0.410,0.000,0.000,0.000
1641069178184047104,2022-01-01-20:32:58,10.1.1.2,184,-0.420,-0.420,-0.420,0.000,0.000,0.000
1641069178386027008,2022-01-01-20:32:58,10.1.1.2,182,-0.430,-0.430,-0.430,0.000,0.000,0.000
1641069178605635840,2022-01-01-20:32:58,10.1.1.2,198,-0.440,-0.440,-0.440,0.000,0.000,0.000
1641069178804424960,2022-01-01-20:32:58,10.1.1.2,197,-0.450,-0.450,-0.450,0.000,0.000,0.000
1641069179005143808,2022-01-01-20:32:59,10.1.1.2,197,-0.460,-0.460,-0.460,0.000,0.000,0.000
1641069179205391872,2022-01-01-20:32:59,10.1.1.2,196,-0.470,-0.470,-0.470,0.000,0.000,0.000
1641069179405926912,2022-01-01-20:32:59,10.1.1.2,194,-0.480,-0.480,-0.480,0.000,0.000,0.000
1641069179605530112,2022-01-01-20:32:59,10.1.1.2,192,-0.490,-0.490,-0.490,0.000,0.000,0.000
1641069179804985088,2022-01-01-20:32:59,10.1.1.2,190,-0.480,-0.480,-0.480,0.000,0.000,0.000
1641069180005137920,2022-01-01-20:33:00,10.1.1.2,189,-0.470,-0.470,-0.470,0.000,0.000,0.000
1641069180207437056,2022-01-01-20:33:00,10.1.1.2,189,-0.460,-0.460,-0.460,0.000,0.000,0.000
1641069180404971008,2022-01-01-20:33:00,10.1.1.2,185,-0.450,-0.450,-0.450,0.000,0.000,0.000
1641069180605334016,2022-01-01-20:33:00,10.1.1.2,185,-0.440,-0.440,-0.440,0.000,0.000,0.000
1641069180807084032,2022-01-01-20:33:00,10.1.1.2,184,-0.430,-0.430,-0.430,0.000,0.000,0.000
1641069181006179072,2022-01-01-20:33:01,10.1.1.2,183,-0.420,-0.420,-0.420,0.000,0.000,0.000
1641069181225935872,2022-01-01-20:33:01,10.1.1.2,201,-0.410,-0.410,-0.410,0.000,0.000,0.000
1641069181425408000,2022-01-01-20:33:01,10.1.1.2,198,-0.400,-0.400,-0.400,0.000,0.000,0.000
1641069181625854976,2022-01-01-20:33:01,10.1.1.2,198,-0.390,-0.390,-0.390,0.000,0.000,0.000
1641069181826579200,2022-01-01-20:33:01,10.1.1.2,198,-0.380,-0.380,-0.380,0.000,0.000,0.000
1641069182024055040,2022-01-01-20:33:02,10.1.1.2,195,-0.370,-0.370,-0.370,0.000,0.000,0.000
1641069182225312000,2022-01-01-20:33:02,10.1.1.2,195,-0.360,-0.360,-0.360,0.000,0.000,0.000
1641069182425342976,2022-01-01-20:33:02,10.1.1.2,194,-0.350,-0.350,-0.350,0.000,0.000,0.000
1641069182625200896,2022-01-01-20:33:02,10.1.1.2,192,-0.340,-0.340,-0.340,0.000,0.000,0.000
1641069182824331008,2022-01-01-20:33:02,10.1.1.2,191,-0.330,-0.330,-0.330,0.000,0.000,0.000
1641069183027421952,2022-01-01-20:33:03,10.1.1.2,194,-0.320,-0.320,-0.320,0.000,0.000,0.000
1641069183225292800,2022-01-01-20:33:03,10.1.1.2,191,-0.310,-0.310,-0.310,0.000,0.000,0.000
1641069183423712000,2022-01-01-20:33:03,10.1.1.2,188,-0.300,-0.300,-0.300,0.000,0.000,0.000
1641069183625024000,2022-01-01-20:33:03,10.1.1.2,189,-0.290,-0.290,-0.290,0.000,0.000,0.000
1641069183825314048,2022-01-01-20:33:03,10.1.1.2,188,-0.280,-0.280,-0.280,0.000,0.000,0.000
1641069184025382144,2022-01-01-20:33:04,10.1.1.2,187,-0.270,-0.270,-0.270,0.000,0.000,0.000
1641069184225806848,2022-01-01-20:33:04,10.1.1.2,185,-0.260,-0.260,-0.260,0.000,0.000,0.000
1641069184425335808,2022-01-01-20:33:04,10.1.1.2,183,-0.250,-0.250,-0.250,0.000,0.000,0.000
1641069184824827904,2022-01-01-20:33:04,10.1.1.2,182,-0.230,-0.230,-0.230,0.000,0.000,0.000
1641069185024259072,2022-01-01-20:33:05,10.1.1.2,180,-0.220,-0.220,-0.220,0.000,0.000,0.000
1641069185243179008,2022-01-01-20:33:05,10.1.1.2,198,-0.210,-0.210,-0.210,0.000,0.000,0.000
1641069185444336896,2022-01-01-20:33:05,10.1.1.2,198,-0.200,-0.200,-0.200,0.000,0.000,0.000
1641069185643729920,2022-01-01-20:33:05,10.1.1.2,197,-0.190,-0.190,-0.190,0.000,0.000,0.000
1641069185843663104,2022-01-01-20:33:05,10.1.1.2,196,-0.180,-0.180,-0.180,0.000,0.000,0.000
1641069186044099072,2022-01-01-20:33:06,10.1.1.2,195,-0.170,-0.170,-0.170,0.000,0.000,0.000
1641069186242479104,2022-01-01-20:33:06,10.1.1.2,193,-0.160,-0.160,-0.160,0.000,0.000,0.000
1641069186442513920,2022-01-01-20:33:06,10.1.1.2,192,-0.150,-0.150,-0.150,0.000,0.000,0.000
1641069186643250944,2022-01-01-20:33:06,10.1.1.2,192,-0.140,-0.140,-0.140,0.000,0.000,0.000
1641069186842242048,2022-01-01-20:33:06,10.1.1.2,190,-0.130,-0.130,-0.130,0.000,0.000,0.000
1641069187042653952,2022-01-01-20:33:07,10.1.1.2,186,-0.120,-0.120,-0.120,0.000,0.000,0.000
1641069187242342912,2022-01-01-20:33:07,10.1.1.2,184,-0.110,-0.110,-0.110,0.000,0.000,0.000
1641069187441523968,2022-01-01-20:33:07,10.1.1.2,183,-0.100,-0.100,-0.100,0.000,0.000,0.000
1641069187642155008,2022-01-01-20:33:07,10.1.1.2,181,-0.090,-0.090,-0.090,0.000,0.000,0.000
1641069187841605888,2022-01-01-20:33:07,10.1.1.2,179,-0.080,-0.080,-0.080,0.000,0.000,0.000
1641069188040887040,2022-01-01-20:33:08,10.1.1.2,177,-0.070,-0.070,-0.070,0.000,0.000,0.000
1641069188260770048,2022-01-01-20:33:08,10.1.1.2,196,-0.060,-0.060,-0.060,0.000,0.000,0.000
1641069188461445120,2022-01-01-20:33:08,10.1.1.2,195,-0.050,-0.050,-0.050,0.000,0.000,0.000
1641069188661808128,2022-01-01-20:33:08,10.1.1.2,191,-0.040,-0.040,-0.040,0.000,0.000,0.000
1641069188860523008,2022-01-01-20:33:08,10.1.1.2,189,-0.030,-0.030,-0.030,0.000,0.000,0.000
1641069189061145088,2022-01-01-20:33:09,10.1.1.2,188,-0.020,-0.020,-0.020,0.000,0.000,0.000
1641069189259777024,2022-01-01-20:33:09,10.1.1.2,186,-0.010,-0.010,-0.010,0.000,0.000,0.000
1641069189459894784,2022-01-01-20:33:09,10.1.1.2,185,0.000,0.000,0.000,0.000,0.000,0.000
1641069189658678016,2022-01-01-20:33:09,10.1.1.2,180,-0.010,-0.010,-0.010,0.000,0.000,0.000
1641069189873780992,2022-01-01-20:33:09,10.1.1.2,193,-0.020,-0.020,-0.020,0.000,0.000,0.000
1641069190079091968,2022-01-01-20:33:10,10.1.1.2,193,-0.030,-0.030,-0.030,0.000,0.000,0.000
1641069190278451968,2022-01-01-20:33:10,10.1.1.2,192,-0.040,-0.040,-0.040,0.000,0.000,0.000
1641069190478164992,2022-01-01-20:33:10,10.1.1.2,191,-0.050,-0.050,-0.050,0.000,0.000,0.000
1641069190678231040,2022-01-01-20:33:10,10.1.1.2,190,-0.060,-0.060,-0.060,0.000,0.000,0.000
1641069190878774016,2022-01-01-20:33:10,10.1.1.2,190,-0.070,-0.070,-0.070,0.000,0.000,0.000
1641069191080404992,2022-01-01-20:33:11,10.1.1.2,190,-0.080,-0.080,-0.080,0.000,0.000,0.000
1641069191277180928,2022-01-01-20:33:11,10.1.1.2,186,-0.090,-0.090,-0.090,0.000,0.000,0.000
1641069191477384960,2022-01-01-20:33:11,10.1.1.2,185,-0.100,-0.100,-0.100,0.000,0.000,0.000
1641069191677131008,2022-01-01-20:33:11,10.1.1.2,185,-0.110,-0.110,-0.110,0.000,0.000,0.000
1641069191876660992,2022-01-01-20:33:11,10.1.1.2,182,-0.120,-0.120,-0.120,0.000,0.000,0.000
1641069192076497152,2022-01-01-20:33:12,10.1.1.2,181,-0.130,-0.130,-0.130,0.000,0.000,0.000
1641069192276165888,2022-01-01-20:33:12,10.1.1.2,179,-0.140,-0.140,-0.140,0.000,0.000,0.000
1641069192476155904,2022-01-01-20:33:12,10.1.1.2,178,-0.150,-0.150,-0.150,0.000,0.000,0.000
1641069192679086080,2022-01-01-20:33:12,10.1.1.2,180,-0.160,-0.160,-0.160,0.000,0.000,0.000
1641069192875264000,2022-01-01-20:33:12,10.1.1.2,175,-0.170,-0.170,-0.170,0.000,0.000,0.000
1641069193074148864,2022-01-01-20:33:13,10.1.1.2,173,-0.180,-0.180,-0.180,0.000,0.000,0.000
1641069193275482880,2022-01-01-20:33:13,10.1.1.2,173,-0.190,-0.190,-0.190,0.000,0.000,0.000
1641069193475172096,2022-01-01-20:33:13,10.1.1.2,172,-0.200,-0.200,-0.200,0.000,0.000,0.000
1641069193675656960,2022-01-01-20:33:13,10.1.1.2,172,-0.210,-0.210,-0.210,0.000,0.000,0.000
1641069193894222848,2022-01-01-20:33:13,10.1.1.2,186,-0.220,-0.220,-0.220,0.000,0.000,0.000
1641069194093430016,2022-01-01-20:33:14,10.1.1.2,185,-0.230,-0.230,-0.230,0.000,0.000,0.000
1641069194293489920,2022-01-01-20:33:14,10.1.1.2,184,-0.240,-0.240,-0.240,0.000,0.000,0.000
1641069194493082112,2022-01-01-20:33:14,10.1.1.2,183,-0.250,-0.250,-0.250,0.000,0.000,0.000
1641069194692022016,2022-01-01-20:33:14,10.1.1.2,181,-0.260,-0.260,-0.260,0.000,0.000,0.000
1641069194892424192,2022-01-01-20:33:14,10.1.1.2,180,-0.270,-0.270,-0.270,0.000,0.000,0.000
1641069195093767936,2022-01-01-20:33:15,10.1.1.2,179,-0.280,-0.280,-0.280,0.000,0.000,0.000
1641069195291780864,2022-01-01-20:33:15,10.1.1.2,176,-0.290,-0.290,-0.290,0.000,0.000,0.000
1641069195493146880,2022-01-01-20:33:15,10.1.1.2,176,-0.300,-0.300,-0.300,0.000,0.000,0.000
1641069195691463936,2022-01-01-20:33:15,10.1.1.2,174,-0.310,-0.310,-0.310,0.000,0.000,0.000
1641069195910639104,2022-01-01-20:33:15,10.1.1.2,191,-0.320,-0.320,-0.320,0.000,0.000,0.000
1641069196091063040,2022-01-01-20:33:16,10.1.1.2,170,-0.330,-0.330,-0.330,0.000,0.000,0.000
1641069196290419200,2022-01-01-20:33:16,10.1.1.2,167,-0.340,-0.340,-0.340,0.000,0.000,0.000
1641069196489803008,2022-01-01-20:33:16,10.1.1.2,166,-0.350,-0.350,-0.350,0.000,0.000,0.000
1641069196710297088,2022-01-01-20:33:16,10.1.1.2,184,-0.360,-0.360,-0.360,0.000,0.000,0.000
1641069196909396992,2022-01-01-20:33:16,10.1.1.2,181,-0.370,-0.370,-0.370,0.000,0.000,0.000
1641069197109435136,2022-01-01-20:33:17,10.1.1.2,180,-0.380,-0.380,-0.380,0.000,0.000,0.000
1641069197309097984,2022-01-01-20:33:17,10.1.1.2,178,-0.390,-0.390,-0.390,0.000,0.000,0.000
1641069197511159040,2022-01-01-20:33:17,10.1.1.2,178,-0.400,-0.400,-0.400,0.000,0.000,0.000
1641069197710834944,2022-01-01-20:33:17,10.1.1.2,179,-0.410,-0.410,-0.410,0.000,0.000,0.000
1641069197909935872,2022-01-01-20:33:17,10.1.1.2,177,-0.420,-0.420,-0.420,0.000,0.000,0.000
1641069198109805056,2022-01-01-20:33:18,10.1.1.2,176,-0.430,-0.430,-0.430,0.000,0.000,0.000
1641069198306301952,2022-01-01-20:33:18,10.1.1.2,171,-0.440,-0.440,-0.440,0.000,0.000,0.000
1641069198510616064,2022-01-01-20:33:18,10.1.1.2,175,-0.450,-0.450,-0.450,0.000,0.000,0.000
1641069198705467904,2022-01-01-20:33:18,10.1.1.2,168,-0.460,-0.460,-0.460,0.000,0.000,0.000
1641069198905905920,2022-01-01-20:33:18,10.1.1.2,167,-0.470,-0.470,-0.470,0.000,0.000,0.000
1641069199106604032,2022-01-01-20:33:19,10.1.1.2,167,-0.480,-0.480,-0.480,0.000,0.000,0.000
1641069199305649920,2022-01-01-20:33:19,10.1.1.2,165,-0.490,-0.490,-0.490,0.000,0.000,0.000
1641069199507390976,2022-01-01-20:33:19,10.1.1.2,166,-0.480,-0.480,-0.480,0.000,0.000,0.000
1641069199725389056,2022-01-01-20:33:19,10.1.1.2,181,-0.470,-0.470,-0.470,0.000,0.000,0.000
1641069199924304128,2022-01-01-20:33:19,10.1.1.2,178,-0.460,-0.460,-0.460,0.000,0.000,0.000
1641069200124984064,2022-01-01-20:33:20,10.1.1.2,177,-0.450,-0.450,-0.450,0.000,0.000,0.000
1641069200324194816,2022-01-01-20:33:20,10.1.1.2,176,-0.440,-0.440,-0.440,0.000,0.000,0.000
1641069200525698048,2022-01-01-20:33:20,10.1.1.2,176,-0.430,-0.430,-0.430,0.000,0.000,0.000
1641069200724442880,2022-01-01-20:33:20,10.1.1.2,173,-0.420,-0.420,-0.420,0.000,0.000,0.000
1641069200923163904,2022-01-01-20:33:20,10.1.1.2,171,-0.410,-0.410,-0.410,0.000,0.000,0.000
1641069201123868928,2022-01-01-20:33:21,10.1.1.2,171,-0.400,-0.400,-0.400,0.000,0.000,0.000
1641069201322936064,2022-01-01-20:33:21,10.1.1.2,169,-0.390,-0.390,-0.390,0.000,0.000,0.000
1641069201522516992,2022-01-01-20:33:21,10.1.1.2,168,-0.380,-0.380,-0.380,0.000,0.000,0.000
1641069201721536000,2022-01-01-20:33:21,10.1.1.2,167,-0.370,-0.370,-0.370,0.000,0.000,0.000
1641069201921339136,2022-01-01-20:33:21,10.1.1.2,165,-0.360,-0.360,-0.360,0.000,0.000,0.000
1641069202120726016,2022-01-01-20:33:22,10.1.1.2,164,-0.350,-0.350,-0.350,0.000,0.000,0.000
1641069202322080000,2022-01-01-20:33:22,10.1.1.2,165,-0.340,-0.340,-0.340,0.000,0.000,0.000
1641069202521383936,2022-01-01-20:33:22,10.1.1.2,161,-0.330,-0.330,-0.330,0.000,0.000,0.000
1641069202720828160,2022-01-01-20:33:22,10.1.1.2,159,-0.320,-0.320,-0.320,0.000,0.000,0.000
1641069202919354880,2022-01-01-20:33:22,10.1.1.2,156,-0.310,-0.310,-0.310,0.000,0.000,0.000
1641069203141459968,2022-01-01-20:33:23,10.1.1.2,177,-0.300,-0.300,-0.300,0.000,0.000,0.000
1641069203341310976,2022-01-01-20:33:23,10.1.1.2,176,-0.290,-0.290,-0.290,0.000,0.000,0.000
1641069203544380928,2022-01-01-20:33:23,10.1.1.2,177,-0.280,-0.280,-0.280,0.000,0.000,0.000
1641069203742945024,2022-01-01-20:33:23,10.1.1.2,176,-0.270,-0.270,-0.270,0.000,0.000,0.000
1641069203945974016,2022-01-01-20:33:23,10.1.1.2,178,-0.260,-0.260,-0.260,0.000,0.000,0.000
1641069204145659904,2022-01-01-20:33:24,10.1.1.2,177,-0.250,-0.250,-0.250,0.000,0.000,0.000
1641069204346443008,2022-01-01-20:33:24,10.1.1.2,177,-0.240,-0.240,-0.240,0.000,0.000,0.000
1641069204548593152,2022-01-01-20:33:24,10.1.1.2,178,-0.230,-0.230,-0.230,0.000,0.000,0.000
1641069204750096128,2022-01-01-20:33:24,10.1.1.2,179,-0.220,-0.220,-0.220,0.000,0.000,0.000
1641069204949630976,2022-01-01-20:33:24,10.1.1.2,176,-0.210,-0.210,-0.210,0.000,0.000,0.000
1641069205150885120,2022-01-01-20:33:25,10.1.1.2,177,-0.200,-0.200,-0.200,0.000,0.000,0.000
1641069205352406016,2022-01-01-20:33:25,10.1.1.2,176,-0.190,-0.190,-0.190,0.000,0.000,0.000
1641069205552474880,2022-01-01-20:33:25,10.1.1.2,175,-0.180,-0.180,-0.180,0.000,0.000,0.000
1641069205752334080,2022-01-01-20:33:25,10.1.1.2,174,-0.170,-0.170,-0.170,0.000,0.000,0.000
1641069205955307008,2022-01-01-20:33:25,10.1.1.2,173,-0.160,-0.160,-0.160,0.000,0.000,0.000
1641069206154580224,2022-01-01-20:33:26,10.1.1.2,171,-0.150,-0.150,-0.150,0.000,0.000,0.000
1641069206356598016,2022-01-01-20:33:26,10.1.1.2,172,-0.140,-0.140,-0.140,0.000,0.000,0.000
1641069206575177984,2022-01-01-20:33:26,10.1.1.2,190,-0.130,-0.130,-0.130,0.000,0.000,0.000
1641069206777798912,2022-01-01-20:33:26,10.1.1.2,191,-0.120,-0.120,-0.120,0.000,0.000,0.000
1641069206977620992,2022-01-01-20:33:26,10.1.1.2,187,-0.110,-0.110,-0.110,0.000,0.000,0.000
1641069207177303040,2022-01-01-20:33:27,10.1.1.2,183,-0.100,-0.100,-0.100,0.000,0.000,0.000
1641069207378260992,2022-01-01-20:33:27,10.1.1.2,181,-0.090,-0.090,-0.090,0.000,0.000,0.000
1641069207578629888,2022-01-01-20:33:27,10.1.1.2,179,-0.080,-0.080,-0.080,0.000,0.000,0.000
1641069207779185152,2022-01-01-20:33:27,10.1.1.2,178,-0.070,-0.070,-0.070,0.000,0.000,0.000
1641069207980678144,2022-01-01-20:33:27,10.1.1.2,177,-0.060,-0.060,-0.060,0.000,0.000,0.000
1641069208179704832,2022-01-01-20:33:28,10.1.1.2,175,-0.050,-0.050,-0.050,0.000,0.000,0.000
1641069208400914944,2022-01-01-20:33:28,10.1.1.2,195,-0.040,-0.040,-0.040,0.000,0.000,0.000
1641069208600843008,2022-01-01-20:33:28,10.1.1.2,194,-0.030,-0.030,-0.030,0.000,0.000,0.000
1641069208801462784,2022-01-01-20:33:28,10.1.1.2,194,-0.020,-0.020,-0.020,0.000,0.000,0.000
1641069209005662976,2022-01-01-20:33:29,10.1.1.2,196,-0.010,-0.010,-0.010,0.000,0.000,0.000
1641069209201792000,2022-01-01-20:33:29,10.1.1.2,190,0.000,0.000,0.000,0.000,0.000,0.000
1641069209401016832,2022-01-01-20:33:29,10.1.1.2,188,-0.010,-0.010,-0.010,0.000,0.000,0.000
1641069209603058176,2022-01-01-20:33:29,10.1.1.2,188,-0.020,-0.020,-0.020,0.000,0.000,0.000
1641069209802179072,2022-01-01-20:33:29,10.1.1.2,186,-0.030,-0.030,-0.030,0.000,0.000,0.000
1641069210011439104,2022-01-01-20:33:30,10.1.1.2,195,-0.040,-0.040,-0.040,0.000,0.000,0.000
1641069210203044864,2022-01-01-20:33:30,10.1.1.2,185,-0.050,-0.050,-0.050,0.000,0.000,0.000
1641069210402947072,2022-01-01-20:33:30,10.1.1.2,183,-0.060,-0.060,-0.060,0.000,0.000,0.000
1641069210607264000,2022-01-01-20:33:30,10.1.1.2,186,-0.070,-0.070,-0.070,0.000,0.000,0.000
1641069210824163072,2022-01-01-20:33:30,10.1.1.2,198,-0.080,-0.080,-0.080,0.000,0.000,0.000
1641069211026227968,2022-01-01-20:33:31,10.1.1.2,200,-0.090,-0.090,-0.090,0.000,0.000,0.000
1641069211224998912,2022-01-01-20:33:31,10.1.1.2,198,-0.100,-0.100,-0.100,0.000,0.000,0.000
1641069211624445952,2022-01-01-20:33:31,10.1.1.2,195,-0.120,-0.120,-0.120,0.000,0.000,0.000
1641069211823993856,2022-01-01-20:33:31,10.1.1.2,193,-0.130,-0.130,-0.130,0.000,0.000,0.000
1641069212023969792,2022-01-01-20:33:32,10.1.1.2,193,-0.140,-0.140,-0.140,0.000,0.000,0.000
1641069212231610112,2022-01-01-20:33:32,10.1.1.2,199,-0.150,-0.150,-0.150,0.000,0.000,0.000
1641069212426842880,2022-01-01-20:33:32,10.1.1.2,194,-0.160,-0.160,-0.160,0.000,0.000,0.000
1641069212625283840,2022-01-01-20:33:32,10.1.1.2,191,-0.170,-0.170,-0.170,0.000,0.000,0.000
1641069212825527808,2022-01-01-20:33:32,10.1.1.2,191,-0.180,-0.180,-0.180,0.000,0.000,0.000
1641069213025142784,2022-01-01-20:33:33,10.1.1.2,189,-0.190,-0.190,-0.190,0.000,0.000,0.000
1641069213225688832,2022-01-01-20:33:33,10.1.1.2,186,-0.200,-0.200,-0.200,0.000,0.000,0.000
1641069213425030912,2022-01-01-20:33:33,10.1.1.2,185,-0.210,-0.210,-0.210,0.000,0.000,0.000
1641069213625431040,2022-01-01-20:33:33,10.1.1.2,184,-0.220,-0.220,-0.220,0.000,0.000,0.000
1641069213825721088,2022-01-01-20:33:33,10.1.1.2,183,-0.230,-0.230,-0.230,0.000,0.000,0.000
1641069214025146112,2022-01-01-20:33:34,10.1.1.2,182,-0.240,-0.240,-0.240,0.000,0.000,0.000
1641069214245976832,2022-01-01-20:33:34,10.1.1.2,201,-0.250,-0.250,-0.250,0.000,0.000,0.000
1641069214445230080,2022-01-01-20:33:34,10.1.1.2,198,-0.260,-0.260,-0.260,0.000,0.000,0.000
1641069214645221888,2022-01-01-20:33:34,10.1.1.2,197,-0.270,-0.270,-0.270,0.000,0.000,0.000
1641069214845624064,2022-01-01-20:33:34,10.1.1.2,196,-0.280,-0.280,-0.280,0.000,0.000,0.000
1641069215044684800,2022-01-01-20:33:35,10.1.1.2,194,-0.290,-0.290,-0.290,0.000,0.000,0.000
1641069215246673152,2022-01-01-20:33:35,10.1.1.2,191,-0.300,-0.300,-0.300,0.000,0.000,0.000
1641069215445820160,2022-01-01-20:33:35,10.1.1.2,187,-0.310,-0.310,-0.310,0.000,0.000,0.000
1641069215645107968,2022-01-01-20:33:35,10.1.1.2,182,-0.320,-0.320,-0.320,0.000,0.000,0.000
1641069215864843008,2022-01-01-20:33:35,10.1.1.2,200,-0.330,-0.330,-0.330,0.000,0.000,0.000
1641069216066268928,2022-01-01-20:33:36,10.1.1.2,200,-0.340,-0.340,-0.340,0.000,0.000,0.000
1641069216265367040,2022-01-01-20:33:36,10.1.1.2,198,-0.350,-0.350,-0.350,0.000,0.000,0.000
1641069216466778880,2022-01-01-20:33:36,10.1.1.2,198,-0.360,-0.360,-0.360,0.000,0.000,0.000
1641069216665206784,2022-01-01-20:33:36,10.1.1.2,196,-0.370,-0.370,-0.370,0.000,0.000,0.000
1641069216864318976,2022-01-01-20:33:36,10.1.1.2,193,-0.380,-0.380,-0.380,0.000,0.000,0.000
1641069217064968960,2022-01-01-20:33:37,10.1.1.2,192,-0.390,-0.390,-0.390,0.000,0.000,0.000
1641069217265403904,2022-01-01-20:33:37,10.1.1.2,192,-0.400,-0.400,-0.400,0.000,0.000,0.000
1641069217466501120,2022-01-01-20:33:37,10.1.1.2,192,-0.410,-0.410,-0.410,0.000,0.000,0.000
1641069217664573952,2022-01-01-20:33:37,10.1.1.2,187,-0.420,-0.420,-0.420,0.000,0.000,0.000
1641069217864886016,2022-01-01-20:33:37,10.1.1.2,182,-0.430,-0.430,-0.430,0.000,0.000,0.000
1641069218064673024,2022-01-01-20:33:38,10.1.1.2,180,-0.440,-0.440,-0.440,0.000,0.000,0.000
1641069218285479936,2022-01-01-20:33:38,10.1.1.2,199,-0.450,-0.450,-0.450,0.000,0.000,0.000
1641069218484515072,2022-01-01-20:33:38,10.1.1.2,197,-0.460,-0.460,-0.460,0.000,0.000,0.000
1641069218683352832,2022-01-01-20:33:38,10.1.1.2,194,-0.470,-0.470,-0.470,0.000,0.000,0.000
1641069218882371072,2022-01-01-20:33:38,10.1.1.2,193,-0.480,-0.480,-0.480,0.000,0.000,0.000
1641069219083475968,2022-01-01-20:33:39,10.1.1.2,192,-0.490,-0.490,-0.490,0.000,0.000,0.000
1641069219283731968,2022-01-01-20:33:39,10.1.1.2,191,-0.480,-0.480,-0.480,0.000,0.000,0.000
1641069219483612928,2022-01-01-20:33:39,10.1.1.2,189,-0.470,-0.470,-0.470,0.000,0.000,0.000
1641069219683399936,2022-01-01-20:33:39,10.1.1.2,187,-0.460,-0.460,-0.460,0.000,0.000,0.000
1641069219883290880,2022-01-01-20:33:39,10.1.1.2,185,-0.450,-0.450,-0.450,0.000,0.000,0.000
1641069220082982912,2022-01-01-20:33:40,10.1.1.2,184,-0.440,-0.440,-0.440,0.000,0.000,0.000
1641069220282100992,2022-01-01-20:33:40,10.1.1.2,179,-0.430,-0.430,-0.430,0.000,0.000,0.000
1641069220702123008,2022-01-01-20:33:40,10.1.1.2,196,-0.410,-0.410,-0.410,0.000,0.000,0.000
1641069220903224064,2022-01-01-20:33:40,10.1.1.2,195,-0.400,-0.400,-0.400,0.000,0.000,0.000
1641069221100647936,2022-01-01-20:33:41,10.1.1.2,192,-0.390,-0.390,-0.390,0.000,0.000,0.000
1641069221302497024,2022-01-01-20:33:41,10.1.1.2,193,-0.380,-0.380,-0.380,0.000,0.000,0.000
1641069221501594112,2022-01-01-20:33:41,10.1.1.2,189,-0.370,-0.370,-0.370,0.000,0.000,0.000
1641069221702013952,2022-01-01-20:33:41,10.1.1.2,189,-0.360,-0.360,-0.360,0.000,0.000,0.000
1641069221900713984,2022-01-01-20:33:41,10.1.1.2,186,-0.350,-0.350,-0.350,0.000,0.000,0.000
1641069222100871936,2022-01-01-20:33:42,10.1.1.2,185,-0.340,-0.340,-0.340,0.000,0.000,0.000
1641069222301314048,2022-01-01-20:33:42,10.1.1.2,183,-0.330,-0.330,-0.330,0.000,0.000,0.000
1641069222500747008,2022-01-01-20:33:42,10.1.1.2,178,-0.320,-0.320,-0.320,0.000,0.000,0.000
1641069222700207104,2022-01-01-20:33:42,10.1.1.2,176,-0.310,-0.310,-0.310,0.000,0.000,0.000
1641069222919291904,2022-01-01-20:33:42,10.1.1.2,194,-0.300,-0.300,-0.300,0.000,0.000,0.000
1641069223119374080,2022-01-01-20:33:43,10.1.1.2,193,-0.290,-0.290,-0.290,0.000,0.000,0.000
1641069223322199040,2022-01-01-20:33:43,10.1.1.2,196,-0.280,-0.280,-0.280,0.000,0.000,0.000
1641069223518784000,2022-01-01-20:33:43,10.1.1.2,191,-0.270,-0.270,-0.270,0.000,0.000,0.000
1641069223717777920,2022-01-01-20:33:43,10.1.1.2,188,-0.260,-0.260,-0.260,0.000,0.000,0.000
1641069223920391168,2022-01-01-20:33:43,10.1.1.2,188,-0.250,-0.250,-0.250,0.000,0.000,0.000
1641069224122451968,2022-01-01-20:33:44,10.1.1.2,189,-0.240,-0.240,-0.240,0.000,0.000,0.000
1641069224317285888,2022-01-01-20:33:44,10.1.1.2,182,-0.230,-0.230,-0.230,0.000,0.000,0.000
1641069224518213888,2022-01-01-20:33:44,10.1.1.2,182,-0.220,-0.220,-0.220,0.000,0.000,0.000
1641069224717533184,2022-01-01-20:33:44,10.1.1.2,178,-0.210,-0.210,-0.210,0.000,0.000,0.000
1641069224937580032,2022-01-01-20:33:44,10.1.1.2,198,-0.200,-0.200,-0.200,0.000,0.000,0.000
1641069225116662016,2022-01-01-20:33:45,10.1.1.2,176,-0.190,-0.190,-0.190,0.000,0.000,0.000
1641069225337667840,2022-01-01-20:33:45,10.1.1.2,197,-0.180,-0.180,-0.180,0.000,0.000,0.000
1641069225516633088,2022-01-01-20:33:45,10.1.1.2,175,-0.170,-0.170,-0.170,0.000,0.000,0.000
1641069225715857920,2022-01-01-20:33:45,10.1.1.2,172,-0.160,-0.160,-0.160,0.000,0.000,0.000
1641069225934875136,2022-01-01-20:33:45,10.1.1.2,190,-0.150,-0.150,-0.150,0.000,0.000,0.000
1641069226139131904,2022-01-01-20:33:46,10.1.1.2,192,-0.140,-0.140,-0.140,0.000,0.000,0.000
1641069226334553088,2022-01-01-20:33:46,10.1.1.2,186,-0.130,-0.130,-0.130,0.000,0.000,0.000
1641069226535250944,2022-01-01-20:33:46,10.1.1.2,186,-0.120,-0.120,-0.120,0.000,0.000,0.000
1641069226734281984,2022-01-01-20:33:46,10.1.1.2,184,-0.110,-0.110,-0.110,0.000,0.000,0.000
1641069226933448192,2022-01-01-20:33:46,10.1.1.2,181,-0.100,-0.100,-0.100,0.000,0.000,0.000
1641069227134417920,2022-01-01-20:33:47,10.1.1.2,175,-0.090,-0.090,-0.090,0.000,0.000,0.000
1641069227333864960,2022-01-01-20:33:47,10.1.1.2,173,-0.080,-0.080,-0.080,0.000,0.000,0.000
1641069227533380864,2022-01-01-20:33:47,10.1.1.2,171,-0.070,-0.070,-0.070,0.000,0.000,0.000
1641069227733254912,2022-01-01-20:33:47,10.1.1.2,170,-0.060,-0.060,-0.060,0.000,0.000,0.000
1641069227933520128,2022-01-01-20:33:47,10.1.1.2,169,-0.050,-0.050,-0.050,0.000,0.000,0.000
1641069228152709888,2022-01-01-20:33:48,10.1.1.2,188,-0.040,-0.040,-0.040,0.000,0.000,0.000
1641069228351058944,2022-01-01-20:33:48,10.1.1.2,184,-0.030,-0.030,-0.030,0.000,0.000,0.000
1641069228550806016,2022-01-01-20:33:48,10.1.1.2,183,-0.020,-0.020,-0.020,0.000,0.000,0.000
1641069228753367808,2022-01-01-20:33:48,10.1.1.2,183,-0.010,-0.010,-0.010,0.000,0.000,0.000
1641069228952742144,2022-01-01-20:33:48,10.1.1.2,182,0.000,0.000,0.000,0.000,0.000,0.000
1641069229151247104,2022-01-01-20:33:49,10.1.1.2,179,-0.010,-0.010,-0.010,0.000,0.000,0.000
1641069229351404800,2022-01-01-20:33:49,10.1.1.2,177,-0.020,-0.020,-0.020,0.000,0.000,0.000
1641069229551431936,2022-01-01-20:33:49,10.1.1.2,177,-0.030,-0.030,-0.030,0.000,0.000,0.000
1641069229750621184,2022-01-01-20:33:49,10.1.1.2,175,-0.040,-0.040,-0.040,0.000,0.000,0.000
1641069229949843968,2022-01-01-20:33:49,10.1.1.2,173,-0.050,-0.050,-0.050,0.000,0.000,0.000
1641069230150288128,2022-01-01-20:33:50,10.1.1.2,173,-0.060,-0.060,-0.060,0.000,0.000,0.000
1641069230349673984,2022-01-01-20:33:50,10.1.1.2,171,-0.070,-0.070,-0.070,0.000,0.000,0.000
1641069230549447936,2022-01-01-20:33:50,10.1.1.2,170,-0.080,-0.080,-0.080,0.000,0.000,0.000
1641069230769705984,2022-01-01-20:33:50,10.1.1.2,188,-0.090,-0.090,-0.090,0.000,0.000,0.000
1641069230947858944,2022-01-01-20:33:50,10.1.1.2,164,-0.100,-0.100,-0.100,0.000,0.000,0.000
1641069231167758080,2022-01-01-20:33:51,10.1.1.2,181,-0.110,-0.110,-0.110,0.000,0.000,0.000
1641069231368932864,2022-01-01-20:33:51,10.1.1.2,179,-0.120,-0.120,-0.120,0.000,0.000,0.000
1641069231567721984,2022-01-01-20:33:51,10.1.1.2,178,-0.130,-0.130,-0.130,0.000,0.000,0.000
1641069231767102976,2022-01-01-20:33:51,10.1.1.2,177,-0.140,-0.140,-0.140,0.000,0.000,0.000
1641069231967153152,2022-01-01-20:33:51,10.1.1.2,175,-0.150,-0.150,-0.150,0.000,0.000,0.000
1641069232167804928,2022-01-01-20:33:52,10.1.1.2,175,-0.160,-0.160,-0.160,0.000,0.000,0.000
1641069232366121984,2022-01-01-20:33:52,10.1.1.2,172,-0.170,-0.170,-0.170,0.000,0.000,0.000
1641069232566402816,2022-01-01-20:33:52,10.1.1.2,172,-0.180,-0.180,-0.180,0.000,0.000,0.000
1641069232770028032,2022-01-01-20:33:52,10.1.1.2,175,-0.190,-0.190,-0.190,0.000,0.000,0.000
1641069232966579968,2022-01-01-20:33:52,10.1.1.2,169,-0.200,-0.200,-0.200,0.000,0.000,0.000
1641069233164568832,2022-01-01-20:33:53,10.1.1.2,167,-0.210,-0.210,-0.210,0.000,0.000,0.000
1641069233365484032,2022-01-01-20:33:53,10.1.1.2,167,-0.220,-0.220,-0.220,0.000,0.000,0.000
1641069233563587840,2022-01-01-20:33:53,10.1.1.2,164,-0.230,-0.230,-0.230,0.000,0.000,0.000
1641069233763994880,2022-01-01-20:33:53,10.1.1.2,162,-0.240,-0.240,-0.240,0.000,0.000,0.000
1641069233964029184,2022-01-01-20:33:53,10.1.1.2,160,-0.250,-0.250,-0.250,0.000,0.000,0.000
1641069234183131904,2022-01-01-20:33:54,10.1.1.2,176,-0.260,-0.260,-0.260,0.000,0.000,0.000
1641069234381708032,2022-01-01-20:33:54,10.1.1.2,174,-0.270,-0.270,-0.270,0.000,0.000,0.000
1641069234582258944,2022-01-01-20:33:54,10.1.1.2,174,-0.280,-0.280,-0.280,0.000,0.000,0.000
1641069234782418944,2022-01-01-20:33:54,10.1.1.2,173,-0.290,-0.290,-0.290,0.000,0.000,0.000
1641069234983463168,2022-01-01-20:33:54,10.1.1.2,173,-0.300,-0.300,-0.300,0.000,0.000,0.000
1641069235183219968,2022-01-01-20:33:55,10.1.1.2,171,-0.310,-0.310,-0.310,0.000,0.000,0.000
1641069235385132032,2022-01-01-20:33:55,10.1.1.2,171,-0.320,-0.320,-0.320,0.000,0.000,0.000
1641069235585037824,2022-01-01-20:33:55,10.1.1.2,171,-0.330,-0.330,-0.330,0.000,0.000,0.000
1641069235787191040,2022-01-01-20:33:55,10.1.1.2,171,-0.340,-0.340,-0.340,0.000,0.000,0.000
1641069236006963968,2022-01-01-20:33:56,10.1.1.2,189,-0.350,-0.350,-0.350,0.000,0.000,0.000
1641069236187772928,2022-01-01-20:33:56,10.1.1.2,167,-0.360,-0.360,-0.360,0.000,0.000,0.000
1641069236388407040,2022-01-01-20:33:56,10.1.1.2,167,-0.370,-0.370,-0.370,0.000,0.000,0.000
1641069236589986048,2022-01-01-20:33:56,10.1.1.2,167,-0.380,-0.380,-0.380,0.000,0.000,0.000
1641069236790502144,2022-01-01-20:33:56,10.1.1.2,167,-0.390,-0.390,-0.390,0.000,0.000,0.000
1641069237010867200,2022-01-01-20:33:57,10.1.1.2,186,-0.400,-0.400,-0.400,0.000,0.000,0.000
1641069237210917888,2022-01-01-20:33:57,10.1.1.2,185,-0.410,-0.410,-0.410,0.000,0.000,0.000
1641069237413831936,2022-01-01-20:33:57,10.1.1.2,187,-0.420,-0.420,-0.420,0.000,0.000,0.000
1641069237614784000,2022-01-01-20:33:57,10.1.1.2,187,-0.430,-0.430,-0.430,0.000,0.000,0.000
1641069237813950976,2022-01-01-20:33:57,10.1.1.2,183,-0.440,-0.440,-0.440,0.000,0.000,0.000
1641069238015995136,2022-01-01-20:33:58,10.1.1.2,184,-0.450,-0.450,-0.450,0.000,0.000,0.000
1641069238215086080,2022-01-01-20:33:58,10.1.1.2,180,-0.460,-0.460,-0.460,0.000,0.000,0.000
1641069238417156096,2022-01-01-20:33:58,10.1.1.2,181,-0.470,-0.470,-0.470,0.000,0.000,0.000
1641069238616424960,2022-01-01-20:33:58,10.1.1.2,179,-0.480,-0.480,-0.480,0.000,0.000,0.000
1641069238817046016,2022-01-01-20:33:58,10.1.1.2,179,-0.490,-0.490,-0.490,0.000,0.000,0.000
1641069239018828032,2022-01-01-20:33:59,10.1.1.2,178,-0.480,-0.480,-0.480,0.000,0.000,0.000
1641069239218070016,2022-01-01-20:33:59,10.1.1.2,177,-0.470,-0.470,-0.470,0.000,0.000,0.000
1641069239418641920,2022-01-01-20:33:59,10.1.1.2,174,-0.460,-0.460,-0.460,0.000,0.000,0.000
1641069239619962880,2022-01-01-20:33:59,10.1.1.2,176,-0.450,-0.450,-0.450,0.000,0.000,0.000
1641069239840724992,2022-01-01-20:33:59,10.1.1.2,195,-0.440,-0.440,-0.440,0.000,0.000,0.000
1641069240039803904,2022-01-01-20:34:00,10.1.1.2,193,-0.430,-0.430,-0.430,0.000,0.000,0.000
1641069240240382976,2022-01-01-20:34:00,10.1.1.2,192,-0.420,-0.420,-0.420,0.000,0.000,0.000
1641069240441836032,2022-01-01-20:34:00,10.1.1.2,190,-0.410,-0.410,-0.410,0.000,0.000,0.000
1641069240641297152,2022-01-01-20:34:00,10.1.1.2,187,-0.400,-0.400,-0.400,0.000,0.000,0.000
1641069240841468160,2022-01-01-20:34:00,10.1.1.2,180,-0.390,-0.390,-0.390,0.000,0.000,0.000
1641069241042126848,2022-01-01-20:34:01,10.1.1.2,179,-0.380,-0.380,-0.380,0.000,0.000,0.000
1641069241263490048,2022-01-01-20:34:01,10.1.1.2,195,-0.370,-0.370,-0.370,0.000,0.000,0.000
1641069241463638016,2022-01-01-20:34:01,10.1.1.2,194,-0.360,-0.360,-0.360,0.000,0.000,0.000
1641069241662518016,2022-01-01-20:34:01,10.1.1.2,192,-0.350,-0.350,-0.350,0.000,0.000,0.000
1641069241863256064,2022-01-01-20:34:01,10.1.1.2,191,-0.340,-0.340,-0.340,0.000,0.000,0.000
1641069242062684928,2022-01-01-20:34:02,10.1.1.2,190,-0.330,-0.330,-0.330,0.000,0.000,0.000
1641069242264007936,2022-01-01-20:34:02,10.1.1.2,187,-0.320,-0.320,-0.320,0.000,0.000,0.000
1641069242462838784,2022-01-01-20:34:02,10.1.1.2,185,-0.310,-0.310,-0.310,0.000,0.000,0.000
1641069242664165888,2022-01-01-20:34:02,10.1.1.2,185,-0.300,-0.300,-0.300,0.000,0.000,0.000
1641069242864100096,2022-01-01-20:34:02,10.1.1.2,182,-0.290,-0.290,-0.290,0.000,0.000,0.000
1641069243063684864,2022-01-01-20:34:03,10.1.1.2,179,-0.280,-0.280,-0.280,0.000,0.000,0.000
1641069243284354816,2022-01-01-20:34:03,10.1.1.2,197,-0.270,-0.270,-0.270,0.000,0.000,0.000
1641069243484576000,2022-01-01-20:34:03,10.1.1.2,193,-0.260,-0.260,-0.260,0.000,0.000,0.000
1641069243685389056,2022-01-01-20:34:03,10.1.1.2,189,-0.250,-0.250,-0.250,0.000,0.000,0.000
1641069243885094912,2022-01-01-20:34:03,10.1.1.2,183,-0.240,-0.240,-0.240,0.000,0.000,0.000
1641069244085486848,2022-01-01-20:34:04,10.1.1.2,181,-0.230,-0.230,-0.230,0.000,0.000,0.000
1641069244304606976,2022-01-01-20:34:04,10.1.1.2,200,-0.220,-0.220,-0.220,0.000,0.000,0.000
1641069244504879104,2022-01-01-20:34:04,10.1.1.2,199,-0.210,-0.210,-0.210,0.000,0.000,0.000
1641069244705321984,2022-01-01-20:34:04,10.1.1.2,198,-0.200,-0.200,-0.200,0.000,0.000,0.000
1641069244905368064,2022-01-01-20:34:04,10.1.1.2,196,-0.190,-0.190,-0.190,0.000,0.000,0.000
1641069245105884928,2022-01-01-20:34:05,10.1.1.2,196,-0.180,-0.180,-0.180,0.000,0.000,0.000
1641069245305760000,2022-01-01-20:34:05,10.1.1.2,195,-0.170,-0.170,-0.170,0.000,0.000,0.000
1641069245505716992,2022-01-01-20:34:05,10.1.1.2,194,-0.160,-0.160,-0.160,0.000,0.000,0.000
1641069245706068992,2022-01-01-20:34:05,10.1.1.2,194,-0.150,-0.150,-0.150,0.000,0.000,0.000
1641069245905092864,2022-01-01-20:34:05,10.1.1.2,191,-0.140,-0.140,-0.140,0.000,0.000,0.000
1641069246105357056,2022-01-01-20:34:06,10.1.1.2,191,-0.130,-0.130,-0.130,0.000,0.000,0.000
1641069246305552896,2022-01-01-20:34:06,10.1.1.2,189,-0.120,-0.120,-0.120,0.000,0.000,0.000
1641069246505882880,2022-01-01-20:34:06,10.1.1.2,188,-0.110,-0.110,-0.110,0.000,0.000,0.000
1641069246705195008,2022-01-01-20:34:06,10.1.1.2,186,-0.100,-0.100,-0.100,0.000,0.000,0.000
1641069246905127168,2022-01-01-20:34:06,10.1.1.2,185,-0.090,-0.090,-0.090,0.000,0.000,0.000
1641069247104940800,2022-01-01-20:34:07,10.1.1.2,182,-0.080,-0.080,-0.080,0.000,0.000,0.000
1641069247304352000,2022-01-01-20:34:07,10.1.1.2,180,-0.070,-0.070,-0.070,0.000,0.000,0.000
1641069247524555008,2022-01-01-20:34:07,10.1.1.2,200,-0.060,-0.060,-0.060,0.000,0.000,0.000
1641069247725632000,2022-01-01-20:34:07,10.1.1.2,200,-0.050,-0.050,-0.050,0.000,0.000,0.000
1641069247924674048,2022-01-01-20:34:07,10.1.1.2,198,-0.040,-0.040,-0.040,0.000,0.000,0.000
1641069248123895040,2022-01-01-20:34:08,10.1.1.2,196,-0.030,-0.030,-0.030,0.000,0.000,0.000
1641069248324325120,2022-01-01-20:34:08,10.1.1.2,196,-0.020,-0.020,-0.020,0.000,0.000,0.000
1641069248525670144,2022-01-01-20:34:08,10.1.1.2,196,-0.010,-0.010,-0.010,0.000,0.000,0.000
1641069248725632000,2022-01-01-20:34:08,10.1.1.2,195,0.000,0.000,0.000,0.000,0.000,0.000
1641069248925225984,2022-01-01-20:34:08,10.1.1.2,192,-0.010,-0.010,-0.010,0.000,0.000,0.000
1641069249124385024,2022-01-01-20:34:09,10.1.1.2,190,-0.020,-0.020,-0.020,0.000,0.000,0.000
1641069249325072128,2022-01-01-20:34:09,10.1.1.2,190,-0.030,-0.030,-0.030,0.000,0.000,0.000
1641069249523934976,2022-01-01-20:34:09,10.1.1.2,186,-0.040,-0.040,-0.040,0.000,0.000,0.000
1641069249722765056,2022-01-01-20:34:09,10.1.1.2,184,-0.050,-0.050,-0.050,0.000,0.000,0.000
1641069249924242944,2022-01-01-20:34:09,10.1.1.2,185,-0.060,-0.060,-0.060,0.000,0.000,0.000
1641069250124380160,2022-01-01-20:34:10,10.1.1.2,184,-0.070,-0.070,-0.070,0.000,0.000,0.000
1641069250322983936,2022-01-01-20:34:10,10.1.1.2,182,-0.080,-0.080,-0.080,0.000,0.000,0.000
1641069250524683008,2022-01-01-20:34:10,10.1.1.2,183,-0.090,-0.090,-0.090,0.000,0.000,0.000
1641069250723012864,2022-01-01-20:34:10,10.1.1.2,180,-0.100,-0.100,-0.100,0.000,0.000,0.000
1641069250923943936,2022-01-01-20:34:10,10.1.1.2,180,-0.110,-0.110,-0.110,0.000,0.000,0.000
1641069251122280960,2022-01-01-20:34:11,10.1.1.2,178,-0.120,-0.120,-0.120,0.000,0.000,0.000
1641069251342767104,2022-01-01-20:34:11,10.1.1.2,197,-0.130,-0.130,-0.130,0.000,0.000,0.000
1641069251542761984,2022-01-01-20:34:11,10.1.1.2,196,-0.140,-0.140,-0.140,0.000,0.000,0.000
1641069251741929984,2022-01-01-20:34:11,10.1.1.2,195,-0.150,-0.150,-0.150,0.000,0.000,0.000
1641069251942177024,2022-01-01-20:34:11,10.1.1.2,193,-0.160,-0.160,-0.160,0.000,0.000,0.000
1641069252142599936,2022-01-01-20:34:12,10.1.1.2,192,-0.170,-0.170,-0.170,0.000,0.000,0.000
1641069252341852928,2022-01-01-20:34:12,10.1.1.2,191,-0.180,-0.180,-0.180,0.000,0.000,0.000
1641069252542170112,2022-01-01-20:34:12,10.1.1.2,190,-0.190,-0.190,-0.190,0.000,0.000,0.000
1641069252742234880,2022-01-01-20:34:12,10.1.1.2,190,-0.200,-0.200,-0.200,0.000,0.000,0.000
1641069252941806080,2022-01-01-20:34:12,10.1.1.2,188,-0.210,-0.210,-0.210,0.000,0.000,0.000
1641069253140410880,2022-01-01-20:34:13,10.1.1.2,186,-0.220,-0.220,-0.220,0.000,0.000,0.000
1641069253341438976,2022-01-01-20:34:13,10.1.1.2,186,-0.230,-0.230,-0.230,0.000,0.000,0.000
1641069253539885056,2022-01-01-20:34:13,10.1.1.2,184,-0.240,-0.240,-0.240,0.000,0.000,0.000
1641069253740775936,2022-01-01-20:34:13,10.1.1.2,184,-0.250,-0.250,-0.250,0.000,0.000,0.000
1641069253939749120,2022-01-01-20:34:13,10.1.1.2,182,-0.260,-0.260,-0.260,0.000,0.000,0.000
1641069254144331008,2022-01-01-20:34:14,10.1.1.2,185,-0.270,-0.270,-0.270,0.000,0.000,0.000
1641069254339451904,2022-01-01-20:34:14,10.1.1.2,178,-0.280,-0.280,-0.280,0.000,0.000,0.000
1641069254539482112,2022-01-01-20:34:14,10.1.1.2,177,-0.290,-0.290,-0.290,0.000,0.000,0.000
1641069254738919936,2022-01-01-20:34:14,10.1.1.2,176,-0.300,-0.300,-0.300,0.000,0.000,0.000
1641069254938433024,2022-01-01-20:34:14,10.1.1.2,175,-0.310,-0.310,-0.310,0.000,0.000,0.000
1641069255158866944,2022-01-01-20:34:15,10.1.1.2,194,-0.320,-0.320,-0.320,0.000,0.000,0.000
1641069255358594816,2022-01-01-20:34:15,10.1.1.2,193,-0.330,-0.330,-0.330,0.000,0.000,0.000
1641069255558167040,2022-01-01-20:34:15,10.1.1.2,191,-0.340,-0.340,-0.340,0.000,0.000,0.000
1641069255758761984,2022-01-01-20:34:15,10.1.1.2,191,-0.350,-0.350,-0.350,0.000,0.000,0.000
1641069255957558016,2022-01-01-20:34:15,10.1.1.2,189,-0.360,-0.360,-0.360,0.000,0.000,0.000
1641069256157465088,2022-01-01-20:34:16,10.1.1.2,188,-0.370,-0.370,-0.370,0.000,0.000,0.000
1641069256357465088,2022-01-01-20:34:16,10.1.1.2,187,-0.380,-0.380,-0.380,0.000,0.000,0.000
1641069256557271040,2022-01-01-20:34:16,10.1.1.2,186,-0.390,-0.390,-0.390,0.000,0.000,0.000
1641069256758219008,2022-01-01-20:34:16,10.1.1.2,182,-0.400,-0.400,-0.400,0.000,0.000,0.000
1641069256956592128,2022-01-01-20:34:16,10.1.1.2,179,-0.410,-0.410,-0.410,0.000,0.000,0.000
1641069257156708096,2022-01-01-20:34:17,10.1.1.2,178,-0.420,-0.420,-0.420,0.000,0.000,0.000
1641069257356518912,2022-01-01-20:34:17,10.1.1.2,177,-0.430,-0.430,-0.430,0.000,0.000,0.000
1641069257555609856,2022-01-01-20:34:17,10.1.1.2,175,-0.440,-0.440,-0.440,0.000,0.000,0.000
1641069257755495936,2022-01-01-20:34:17,10.1.1.2,173,-0.450,-0.450,-0.450,0.000,0.000,0.000
1641069257956957184,2022-01-01-20:34:17,10.1.1.2,173,-0.460,-0.460,-0.460,0.000,0.000,0.000
1641069258176375040,2022-01-01-20:34:18,10.1.1.2,190,-0.470,-0.470,-0.470,0.000,0.000,0.000
1641069258374031104,2022-01-01-20:34:18,10.1.1.2,187,-0.480,-0.480,-0.480,0.000,0.000,0.000
1641069258554409984,2022-01-01-20:34:18,10.1.1.2,166,-0.490,-0.490,-0.490,0.000,0.000,0.000
1641069258775352064,2022-01-01-20:34:18,10.1.1.2,187,-0.480,-0.480,-0.480,0.000,0.000,0.000
1641069258973180160,2022-01-01-20:34:18,10.1.1.2,184,-0.470,-0.470,-0.470,0.000,0.000,0.000
1641069259183491072,2022-01-01-20:34:19,10.1.1.2,193,-0.460,-0.460,-0.460,0.000,0.000,0.000
1641069259374054912,2022-01-01-20:34:19,10.1.1.2,183,-0.450,-0.450,-0.450,0.000,0.000,0.000
1641069259573961984,2022-01-01-20:34:19,10.1.1.2,182,-0.440,-0.440,-0.440,0.000,0.000,0.000
1641069259773313024,2022-01-01-20:34:19,10.1.1.2,180,-0.430,-0.430,-0.430,0.000,0.000,0.000
1641069259973697792,2022-01-01-20:34:19,10.1.1.2,180,-0.420,-0.420,-0.420,0.000,0.000,0.000
1641069260186970880,2022-01-01-20:34:20,10.1.1.2,192,-0.410,-0.410,-0.410,0.000,0.000,0.000
1641069260371298048,2022-01-01-20:34:20,10.1.1.2,176,-0.400,-0.400,-0.400,0.000,0.000,0.000
1641069260571867904,2022-01-01-20:34:20,10.1.1.2,175,-0.390,-0.390,-0.390,0.000,0.000,0.000
1641069260791009792,2022-01-01-20:34:20,10.1.1.2,194,-0.380,-0.380,-0.380,0.000,0.000,0.000
1641069260971546880,2022-01-01-20:34:20,10.1.1.2,173,-0.370,-0.370,-0.370,0.000,0.000,0.000
1641069261170941184,2022-01-01-20:34:21,10.1.1.2,172,-0.360,-0.360,-0.360,0.000,0.000,0.000
1641069261369921024,2022-01-01-20:34:21,10.1.1.2,170,-0.350,-0.350,-0.350,0.000,0.000,0.000
1641069261569874944,2022-01-01-20:34:21,10.1.1.2,169,-0.340,-0.340,-0.340,0.000,0.000,0.000
1641069261770255104,2022-01-01-20:34:21,10.1.1.2,169,-0.330,-0.330,-0.330,0.000,0.000,0.000
1641069261969253120,2022-01-01-20:34:21,10.1.1.2,167,-0.320,-0.320,-0.320,0.000,0.000,0.000
1641069262170968064,2022-01-01-20:34:22,10.1.1.2,168,-0.310,-0.310,-0.310,0.000,0.000,0.000
1641069262369280000,2022-01-01-20:34:22,10.1.1.2,165,-0.300,-0.300,-0.300,0.000,0.000,0.000
1641069262588926976,2022-01-01-20:34:22,10.1.1.2,184,-0.290,-0.290,-0.290,0.000,0.000,0.000
1641069262788923136,2022-01-01-20:34:22,10.1.1.2,179,-0.280,-0.280,-0.280,0.000,0.000,0.000
1641069262989472000,2022-01-01-20:34:22,10.1.1.2,180,-0.270,-0.270,-0.270,0.000,0.000,0.000
1641069263186737152,2022-01-01-20:34:23,10.1.1.2,176,-0.260,-0.260,-0.260,0.000,0.000,0.000
1641069263386351104,2022-01-01-20:34:23,10.1.1.2,175,-0.250,-0.250,-0.250,0.000,0.000,0.000
1641069263587284992,2022-01-01-20:34:23,10.1.1.2,174,-0.240,-0.240,-0.240,0.000,0.000,0.000
1641069263786806016,2022-01-01-20:34:23,10.1.1.2,170,-0.230,-0.230,-0.230,0.000,0.000,0.000
1641069263985921024,2022-01-01-20:34:23,10.1.1.2,167,-0.220,-0.220,-0.220,0.000,0.000,0.000
1641069264185380096,2022-01-01-20:34:24,10.1.1.2,163,-0.210,-0.210,-0.210,0.000,0.000,0.000
1641069264405772800,2022-01-01-20:34:24,10.1.1.2,180,-0.200,-0.200,-0.200,0.000,0.000,0.000
1641069264605051136,2022-01-01-20:34:24,10.1.1.2,178,-0.190,-0.190,-0.190,0.000,0.000,0.000
1641069264804707072,2022-01-01-20:34:24,10.1.1.2,176,-0.180,-0.180,-0.180,0.000,0.000,0.000
1641069265003801088,2022-01-01-20:34:25,10.1.1.2,175,-0.170,-0.170,-0.170,0.000,0.000,0.000
1641069265203984128,2022-01-01-20:34:25,10.1.1.2,174,-0.160,-0.160,-0.160,0.000,0.000,0.000
1641069265403169024,2022-01-01-20:34:25,10.1.1.2,173,-0.150,-0.150,-0.150,0.000,0.000,0.000
1641069265602785024,2022-01-01-20:34:25,10.1.1.2,171,-0.140,-0.140,-0.140,0.000,0.000,0.000
1641069265802689024,2022-01-01-20:34:25,10.1.1.2,170,-0.130,-0.130,-0.130,0.000,0.000,0.000
1641069266001863936,2022-01-01-20:34:26,10.1.1.2,168,-0.120,-0.120,-0.120,0.000,0.000,0.000
1641069266201527040,2022-01-01-20:34:26,10.1.1.2,167,-0.110,-0.110,-0.110,0.000,0.000,0.000
1641069266401432064,2022-01-01-20:34:26,10.1.1.2,167,-0.100,-0.100,-0.100,0.000,0.000,0.000
1641069266600860160,2022-01-01-20:34:26,10.1.1.2,165,-0.090,-0.090,-0.090,0.000,0.000,0.000
1641069266800705024,2022-01-01-20:34:26,10.1.1.2,164,-0.080,-0.080,-0.080,0.000,0.000,0.000
1641069267000321024,2022-01-01-20:34:27,10.1.1.2,164,-0.070,-0.070,-0.070,0.000,0.000,0.000
1641069267201512960,2022-01-01-20:34:27,10.1.1.2,162,-0.060,-0.060,-0.060,0.000,0.000,0.000
1641069267403137024,2022-01-01-20:34:27,10.1.1.2,163,-0.050,-0.050,-0.050,0.000,0.000,0.000
1641069267624445952,2022-01-01-20:34:27,10.1.1.2,180,-0.040,-0.040,-0.040,0.000,0.000,0.000
1641069267826117888,2022-01-01-20:34:27,10.1.1.2,180,-0.030,-0.030,-0.030,0.000,0.000,0.000
1641069268025819904,2022-01-01-20:34:28,10.1.1.2,179,-0.020,-0.020,-0.020,0.000,0.000,0.000
1641069268227144960,2022-01-01-20:34:28,10.1.1.2,180,-0.010,-0.010,-0.010,0.000,0.000,0.000
1641069268429059072,2022-01-01-20:34:28,10.1.1.2,180,0.000,0.000,0.000,0.000,0.000,0.000
1641069268629265152,2022-01-01-20:34:28,10.1.1.2,179,-0.010,-0.010,-0.010,0.000,0.000,0.000
1641069268831707904,2022-01-01-20:34:28,10.1.1.2,180,-0.020,-0.020,-0.020,0.000,0.000,0.000
1641069269030926848,2022-01-01-20:34:29,10.1.1.2,178,-0.030,-0.030,-0.030,0.000,0.000,0.000
1641069269233042944,2022-01-01-20:34:29,10.1.1.2,179,-0.040,-0.040,-0.040,0.000,0.000,0.000
1641069269432943104,2022-01-01-20:34:29,10.1.1.2,179,-0.050,-0.050,-0.050,0.000,0.000,0.000
1641069269633886976,2022-01-01-20:34:29,10.1.1.2,179,-0.060,-0.060,-0.060,0.000,0.000,0.000
1641069269835259904,2022-01-01-20:34:29,10.1.1.2,178,-0.070,-0.070,-0.070,0.000,0.000,0.000
1641069270034243072,2022-01-01-20:34:30,10.1.1.2,176,-0.080,-0.080,-0.080,0.000,0.000,0.000
1641069270235757056,2022-01-01-20:34:30,10.1.1.2,176,-0.090,-0.090,-0.090,0.000,0.000,0.000
1641069270434946048,2022-01-01-20:34:30,10.1.1.2,174,-0.100,-0.100,-0.100,0.000,0.000,0.000
1641069270638205952,2022-01-01-20:34:30,10.1.1.2,177,-0.110,-0.110,-0.110,0.000,0.000,0.000
1641069270837879040,2022-01-01-20:34:30,10.1.1.2,175,-0.120,-0.120,-0.120,0.000,0.000,0.000
1641069271037091072,2022-01-01-20:34:31,10.1.1.2,174,-0.130,-0.130,-0.130,0.000,0.000,0.000
1641069271237005056,2022-01-01-20:34:31,10.1.1.2,173,-0.140,-0.140,-0.140,0.000,0.000,0.000
1641069271461116928,2022-01-01-20:34:31,10.1.1.2,196,-0.150,-0.150,-0.150,0.000,0.000,0.000
1641069271659257856,2022-01-01-20:34:31,10.1.1.2,192,-0.160,-0.160,-0.160,0.000,0.000,0.000
1641069271860033024,2022-01-01-20:34:31,10.1.1.2,192,-0.170,-0.170,-0.170,0.000,0.000,0.000
1641069272060476160,2022-01-01-20:34:32,10.1.1.2,192,-0.180,-0.180,-0.180,0.000,0.000,0.000
1641069272260701952,2022-01-01-20:34:32,10.1.1.2,191,-0.190,-0.190,-0.190,0.000,0.000,0.000
1641069272462205952,2022-01-01-20:34:32,10.1.1.2,188,-0.200,-0.200,-0.200,0.000,0.000,0.000
1641069272663333888,2022-01-01-20:34:32,10.1.1.2,188,-0.210,-0.210,-0.210,0.000,0.000,0.000
1641069272862044160,2022-01-01-20:34:32,10.1.1.2,186,-0.220,-0.220,-0.220,0.000,0.000,0.000
1641069273060749056,2022-01-01-20:34:33,10.1.1.2,184,-0.230,-0.230,-0.230,0.000,0.000,0.000
1641069273261442048,2022-01-01-20:34:33,10.1.1.2,184,-0.240,-0.240,-0.240,0.000,0.000,0.000
1641069273462941952,2022-01-01-20:34:33,10.1.1.2,185,-0.250,-0.250,-0.250,0.000,0.000,0.000
1641069273662412800,2022-01-01-20:34:33,10.1.1.2,183,-0.260,-0.260,-0.260,0.000,0.000,0.000
1641069273864963072,2022-01-01-20:34:33,10.1.1.2,184,-0.270,-0.270,-0.270,0.000,0.000,0.000
1641069274065206016,2022-01-01-20:34:34,10.1.1.2,183,-0.280,-0.280,-0.280,0.000,0.000,0.000
1641069274264104960,2022-01-01-20:34:34,10.1.1.2,181,-0.290,-0.290,-0.290,0.000,0.000,0.000
1641069274463671040,2022-01-01-20:34:34,10.1.1.2,179,-0.300,-0.300,-0.300,0.000,0.000,0.000
1641069274683897856,2022-01-01-20:34:34,10.1.1.2,199,-0.310,-0.310,-0.310,0.000,0.000,0.000
1641069274882945024,2022-01-01-20:34:34,10.1.1.2,197,-0.320,-0.320,-0.320,0.000,0.000,0.000
1641069275086468864,2022-01-01-20:34:35,10.1.1.2,200,-0.330,-0.330,-0.330,0.000,0.000,0.000
1641069275284962816,2022-01-01-20:34:35,10.1.1.2,196,-0.340,-0.340,-0.340,0.000,0.000,0.000
1641069275487273984,2022-01-01-20:34:35,10.1.1.2,197,-0.350,-0.350,-0.350,0.000,0.000,0.000
1641069275684067840,2022-01-01-20:34:35,10.1.1.2,193,-0.360,-0.360,-0.360,0.000,0.000,0.000
1641069275885102080,2022-01-01-20:34:35,10.1.1.2,193,-0.370,-0.370,-0.370,0.000,0.000,0.000
1641069276084680960,2022-01-01-20:34:36,10.1.1.2,192,-0.380,-0.380,-0.380,0.000,0.000,0.000
1641069276285635072,2022-01-01-20:34:36,10.1.1.2,192,-0.390,-0.390,-0.390,0.000,0.000,0.000
1641069276485060096,2022-01-01-20:34:36,10.1.1.2,191,-0.400,-0.400,-0.400,0.000,0.000,0.000
1641069276684724992,2022-01-01-20:34:36,10.1.1.2,189,-0.410,-0.410,-0.410,0.000,0.000,0.000
1641069276885073920,2022-01-01-20:34:36,10.1.1.2,189,-0.420,-0.420,-0.420,0.000,0.000,0.000
1641069277286243840,2022-01-01-20:34:37,10.1.1.2,187,-0.440,-0.440,-0.440,0.000,0.000,0.000
1641069277505959936,2022-01-01-20:34:37,10.1.1.2,201,-0.450,-0.450,-0.450,0.000,0.000,0.000
1641069277705523968,2022-01-01-20:34:37,10.1.1.2,197,-0.460,-0.460,-0.460,0.000,0.000,0.000
1641069277904864000,2022-01-01-20:34:37,10.1.1.2,196,-0.470,-0.470,-0.470,0.000,0.000,0.000
1641069278105266944,2022-01-01-20:34:38,10.1.1.2,195,-0.480,-0.480,-0.480,0.000,0.000,0.000
1641069278306852096,2022-01-01-20:34:38,10.1.1.2,196,-0.490,-0.490,-0.490,0.000,0.000,0.000
1641069278505629952,2022-01-01-20:34:38,10.1.1.2,194,-0.480,-0.480,-0.480,0.000,0.000,0.000
1641069278704606976,2022-01-01-20:34:38,10.1.1.2,192,-0.470,-0.470,-0.470,0.000,0.000,0.000
1641069278905356032,2022-01-01-20:34:38,10.1.1.2,192,-0.460,-0.460,-0.460,0.000,0.000,0.000
1641069279105134848,2022-01-01-20:34:39,10.1.1.2,191,-0.450,-0.450,-0.450,0.000,0.000,0.000
1641069279305969920,2022-01-01-20:34:39,10.1.1.2,191,-0.440,-0.440,-0.440,0.000,0.000,0.000
1641069279505585920,2022-01-01-20:34:39,10.1.1.2,190,-0.430,-0.430,-0.430,0.000,0.000,0.000
1641069279705897216,2022-01-01-20:34:39,10.1.1.2,189,-0.420,-0.420,-0.420,0.000,0.000,0.000
1641069279904221184,2022-01-01-20:34:39,10.1.1.2,187,-0.410,-0.410,-0.410,0.000,0.000,0.000
1641069280104129024,2022-01-01-20:34:40,10.1.1.2,186,-0.400,-0.400,-0.400,0.000,0.000,0.000
1641069280304594944,2022-01-01-20:34:40,10.1.1.2,186,-0.390,-0.390,-0.390,0.000,0.000,0.000
1641069280505480960,2022-01-01-20:34:40,10.1.1.2,186,-0.380,-0.380,-0.380,0.000,0.000,0.000
1641069280704788992,2022-01-01-20:34:40,10.1.1.2,184,-0.370,-0.370,-0.370,0.000,0.000,0.000
1641069280904494080,2022-01-01-20:34:40,10.1.1.2,183,-0.360,-0.360,-0.360,0.000,0.000,0.000
1641069281104299008,2022-01-01-20:34:41,10.1.1.2,182,-0.350,-0.350,-0.350,0.000,0.000,0.000
1641069281325722880,2022-01-01-20:34:41,10.1.1.2,200,-0.340,-0.340,-0.340,0.000,0.000,0.000
1641069281524468992,2022-01-01-20:34:41,10.1.1.2,198,-0.330,-0.330,-0.330,0.000,0.000,0.000
1641069281724410112,2022-01-01-20:34:41,10.1.1.2,196,-0.320,-0.320,-0.320,0.000,0.000,0.000
1641069281923965952,2022-01-01-20:34:41,10.1.1.2,195,-0.310,-0.310,-0.310,0.000,0.000,0.000
1641069282123851008,2022-01-01-20:34:42,10.1.1.2,193,-0.300,-0.300,-0.300,0.000,0.000,0.000
1641069282324545024,2022-01-01-20:34:42,10.1.1.2,191,-0.290,-0.290,-0.290,0.000,0.000,0.000
1641069282522728960,2022-01-01-20:34:42,10.1.1.2,189,-0.280,-0.280,-0.280,0.000,0.000,0.000
1641069282723002880,2022-01-01-20:34:42,10.1.1.2,189,-0.270,-0.270,-0.270,0.000,0.000,0.000
1641069282924922880,2022-01-01-20:34:42,10.1.1.2,189,-0.260,-0.260,-0.260,0.000,0.000,0.000
1641069283122327040,2022-01-01-20:34:43,10.1.1.2,186,-0.250,-0.250,-0.250,0.000,0.000,0.000
1641069283323259136,2022-01-01-20:34:43,10.1.1.2,185,-0.240,-0.240,-0.240,0.000,0.000,0.000
1641069283523160064,2022-01-01-20:34:43,10.1.1.2,184,-0.230,-0.230,-0.230,0.000,0.000,0.000
1641069283722572032,2022-01-01-20:34:43,10.1.1.2,181,-0.220,-0.220,-0.220,0.000,0.000,0.000
1641069283922278912,2022-01-01-20:34:43,10.1.1.2,179,-0.210,-0.210,-0.210,0.000,0.000,0.000
1641069284123377920,2022-01-01-20:34:44,10.1.1.2,178,-0.200,-0.200,-0.200,0.000,0.000,0.000
1641069284342472960,2022-01-01-20:34:44,10.1.1.2,197,-0.190,-0.190,-0.190,0.000,0.000,0.000
1641069284542787072,2022-01-01-20:34:44,10.1.1.2,196,-0.180,-0.180,-0.180,0.000,0.000,0.000
1641069284742031104,2022-01-01-20:34:44,10.1.1.2,194,-0.170,-0.170,-0.170,0.000,0.000,0.000
1641069284942135040,2022-01-01-20:34:44,10.1.1.2,194,-0.160,-0.160,-0.160,0.000,0.000,0.000
1641069285141103104,2022-01-01-20:34:45,10.1.1.2,192,-0.150,-0.150,-0.150,0.000,0.000,0.000
1641069285340421888,2022-01-01-20:34:45,10.1.1.2,186,-0.140,-0.140,-0.140,0.000,0.000,0.000
1641069285540905984,2022-01-01-20:34:45,10.1.1.2,185,-0.130,-0.130,-0.130,0.000,0.000,0.000
1641069285740825856,2022-01-01-20:34:45,10.1.1.2,180,-0.120,-0.120,-0.120,0.000,0.000,0.000
1641069285940504064,2022-01-01-20:34:45,10.1.1.2,178,-0.110,-0.110,-0.110,0.000,0.000,0.000
1641069286160630016,2022-01-01-20:34:46,10.1.1.2,195,-0.100,-0.100,-0.100,0.000,0.000,0.000
1641069286360388096,2022-01-01-20:34:46,10.1.1.2,193,-0.090,-0.090,-0.090,0.000,0.000,0.000
1641069286559632896,2022-01-01-20:34:46,10.1.1.2,191,-0.080,-0.080,-0.080,0.000,0.000,0.000
1641069286759468032,2022-01-01-20:34:46,10.1.1.2,190,-0.070,-0.070,-0.070,0.000,0.000,0.000
1641069286961787904,2022-01-01-20:34:46,10.1.1.2,191,-0.060,-0.060,-0.060,0.000,0.000,0.000
1641069287158635008,2022-01-01-20:34:47,10.1.1.2,187,-0.050,-0.050,-0.050,0.000,0.000,0.000
1641069287358508032,2022-01-01-20:34:47,10.1.1.2,187,-0.040,-0.040,-0.040,0.000,0.000,0.000
1641069287558264064,2022-01-01-20:34:47,10.1.1.2,185,-0.030,-0.030,-0.030,0.000,0.000,0.000
1641069287758589952,2022-01-01-20:34:47,10.1.1.2,185,-0.020,-0.020,-0.020,0.000,0.000,0.000
1641069287959389952,2022-01-01-20:34:47,10.1.1.2,184,-0.010,-0.010,-0.010,0.000,0.000,0.000
1641069288157440000,2022-01-01-20:34:48,10.1.1.2,182,0.000,0.000,0.000,0.000,0.000,0.000
1641069288357852928,2022-01-01-20:34:48,10.1.1.2,181,-0.010,-0.010,-0.010,0.000,0.000,0.000
1641069288557456128,2022-01-01-20:34:48,10.1.1.2,179,-0.020,-0.020,-0.020,0.000,0.000,0.000
1641069288776356096,2022-01-01-20:34:48,10.1.1.2,197,-0.030,-0.030,-0.030,0.000,0.000,0.000
1641069288956445952,2022-01-01-20:34:48,10.1.1.2,176,-0.040,-0.040,-0.040,0.000,0.000,0.000
1641069289157086976,2022-01-01-20:34:49,10.1.1.2,176,-0.050,-0.050,-0.050,0.000,0.000,0.000
1641069289357096960,2022-01-01-20:34:49,10.1.1.2,175,-0.060,-0.060,-0.060,0.000,0.000,0.000
1641069289556051968,2022-01-01-20:34:49,10.1.1.2,173,-0.070,-0.070,-0.070,0.000,0.000,0.000
1641069289778315008,2022-01-01-20:34:49,10.1.1.2,194,-0.080,-0.080,-0.080,0.000,0.000,0.000
1641069289977110016,2022-01-01-20:34:49,10.1.1.2,192,-0.090,-0.090,-0.090,0.000,0.000,0.000
1641069290175708160,2022-01-01-20:34:50,10.1.1.2,189,-0.100,-0.100,-0.100,0.000,0.000,0.000
1641069290374960896,2022-01-01-20:34:50,10.1.1.2,188,-0.110,-0.110,-0.110,0.000,0.000,0.000
1641069290575606016,2022-01-01-20:34:50,10.1.1.2,187,-0.120,-0.120,-0.120,0.000,0.000,0.000
1641069290774194944,2022-01-01-20:34:50,10.1.1.2,185,-0.130,-0.130,-0.130,0.000,0.000,0.000
1641069290973572096,2022-01-01-20:34:50,10.1.1.2,183,-0.140,-0.140,-0.140,0.000,0.000,0.000
1641069291173715968,2022-01-01-20:34:51,10.1.1.2,182,-0.150,-0.150,-0.150,0.000,0.000,0.000
1641069291374932992,2022-01-01-20:34:51,10.1.1.2,181,-0.160,-0.160,-0.160,0.000,0.000,0.000
1641069291395766016,2022-01-01-20:34:51,10.1.1.2,-1,-0.160,-0.160,-0.160,0.000,0.000,0.000
1641069291772495872,2022-01-01-20:34:51,10.1.1.2,175,-0.180,-0.180,-0.180,0.000,0.000,0.000
1641069291972378880,2022-01-01-20:34:51,10.1.1.2,175,-0.190,-0.190,-0.190,0.000,0.000,0.000
1641069292173598976,2022-01-01-20:34:52,10.1.1.2,176,-0.200,-0.200,-0.200,0.000,0.000,0.000
1641069292372500992,2022-01-01-20:34:52,10.1.1.2,174,-0.210,-0.210,-0.210,0.000,0.000,0.000
1641069292571202048,2022-01-01-20:34:52,10.1.1.2,171,-0.220,-0.220,-0.220,0.000,0.000,0.000
1641069292770344960,2022-01-01-20:34:52,10.1.1.2,167,-0.230,-0.230,-0.230,0.000,0.000,0.000
1641069292985820160,2022-01-01-20:34:52,10.1.1.2,182,-0.240,-0.240,-0.240,0.000,0.000,0.000
1641069293191378944,2022-01-01-20:34:53,10.1.1.2,184,-0.250,-0.250,-0.250,0.000,0.000,0.000
1641069293391920128,2022-01-01-20:34:53,10.1.1.2,183,-0.260,-0.260,-0.260,0.000,0.000,0.000
1641069293590818048,2022-01-01-20:34:53,10.1.1.2,179,-0.270,-0.270,-0.270,0.000,0.000,0.000
1641069293790456064,2022-01-01-20:34:53,10.1.1.2,177,-0.280,-0.280,-0.280,0.000,0.000,0.000
1641069293989650944,2022-01-01-20:34:53,10.1.1.2,175,-0.290,-0.290,-0.290,0.000,0.000,0.000
1641069294193586944,2022-01-01-20:34:54,10.1.1.2,177,-0.300,-0.300,-0.300,0.000,0.000,0.000
1641069294388601088,2022-01-01-20:34:54,10.1.1.2,172,-0.310,-0.310,-0.310,0.000,0.000,0.000
1641069294588893952,2022-01-01-20:34:54,10.1.1.2,171,-0.320,-0.320,-0.320,0.000,0.000,0.000
1641069294787447808,2022-01-01-20:34:54,10.1.1.2,169,-0.330,-0.330,-0.330,0.000,0.000,0.000
1641069294987596032,2022-01-01-20:34:54,10.1.1.2,168,-0.340,-0.340,-0.340,0.000,0.000,0.000
1641069295188036864,2022-01-01-20:34:55,10.1.1.2,168,-0.350,-0.350,-0.350,0.000,0.000,0.000
1641069295386552064,2022-01-01-20:34:55,10.1.1.2,166,-0.360,-0.360,-0.360,0.000,0.000,0.000
1641069295586875904,2022-01-01-20:34:55,10.1.1.2,165,-0.370,-0.370,-0.370,0.000,0.000,0.000
1641069295787463936,2022-01-01-20:34:55,10.1.1.2,164,-0.380,-0.380,-0.380,0.000,0.000,0.000
1641069296006663168,2022-01-01-20:34:56,10.1.1.2,182,-0.390,-0.390,-0.390,0.000,0.000,0.000
1641069296206525952,2022-01-01-20:34:56,10.1.1.2,181,-0.400,-0.400,-0.400,0.000,0.000,0.000
1641069296405404928,2022-01-01-20:34:56,10.1.1.2,177,-0.410,-0.410,-0.410,0.000,0.000,0.000
1641069296604882944,2022-01-01-20:34:56,10.1.1.2,175,-0.420,-0.420,-0.420,0.000,0.000,0.000
1641069296805086976,2022-01-01-20:34:56,10.1.1.2,175,-0.430,-0.430,-0.430,0.000,0.000,0.000
1641069297005362944,2022-01-01-20:34:57,10.1.1.2,174,-0.440,-0.440,-0.440,0.000,0.000,0.000
1641069297204446976,2022-01-01-20:34:57,10.1.1.2,171,-0.450,-0.450,-0.450,0.000,0.000,0.000
1641069297403741952,2022-01-01-20:34:57,10.1.1.2,168,-0.460,-0.460,-0.460,0.000,0.000,0.000
1641069297603172096,2022-01-01-20:34:57,10.1.1.2,166,-0.470,-0.470,-0.470,0.000,0.000,0.000
1641069297804420864,2022-01-01-20:34:57,10.1.1.2,166,-0.480,-0.480,-0.480,0.000,0.000,0.000
1641069298003432960,2022-01-01-20:34:58,10.1.1.2,165,-0.490,-0.490,-0.490,0.000,0.000,0.000
1641069298204545024,2022-01-01-20:34:58,10.1.1.2,165,-0.480,-0.480,-0.480,0.000,0.000,0.000
1641069298403747072,2022-01-01-20:34:58,10.1.1.2,163,-0.470,-0.470,-0.470,0.000,0.000,0.000
1641069298602232064,2022-01-01-20:34:58,10.1.1.2,158,-0.460,-0.460,-0.460,0.000,0.000,0.000
1641069298821847808,2022-01-01-20:34:58,10.1.1.2,176,-0.450,-0.450,-0.450,0.000,0.000,0.000
1641069299021287936,2022-01-01-20:34:59,10.1.1.2,175,-0.440,-0.440,-0.440,0.000,0.000,0.000
1641069299225164800,2022-01-01-20:34:59,10.1.1.2,178,-0.430,-0.430,-0.430,0.000,0.000,0.000
1641069299423084032,2022-01-01-20:34:59,10.1.1.2,175,-0.420,-0.420,-0.420,0.000,0.000,0.000
1641069299624576000,2022-01-01-20:34:59,10.1.1.2,176,-0.410,-0.410,-0.410,0.000,0.000,0.000
1641069299824918016,2022-01-01-20:34:59,10.1.1.2,175,-0.400,-0.400,-0.400,0.000,0.000,0.000
1641069300027333120,2022-01-01-20:35:00,10.1.1.2,177,-0.390,-0.390,-0.390,0.000,0.000,0.000
1641069300229257216,2022-01-01-20:35:00,10.1.1.2,178,-0.380,-0.380,-0.380,0.000,0.000,0.000
1641069300428577792,2022-01-01-20:35:00,10.1.1.2,177,-0.370,-0.370,-0.370,0.000,0.000,0.000
1641069300629786880,2022-01-01-20:35:00,10.1.1.2,176,-0.360,-0.360,-0.360,0.000,0.000,0.000
1641069300830939904,2022-01-01-20:35:00,10.1.1.2,176,-0.350,-0.350,-0.350,0.000,0.000,0.000
1641069301030287872,2022-01-01-20:35:01,10.1.1.2,174,-0.340,-0.340,-0.340,0.000,0.000,0.000
1641069301233057024,2022-01-01-20:35:01,10.1.1.2,174,-0.330,-0.330,-0.330,0.000,0.000,0.000
1641069301432069120,2022-01-01-20:35:01,10.1.1.2,173,-0.320,-0.320,-0.320,0.000,0.000,0.000
1641069301634331904,2022-01-01-20:35:01,10.1.1.2,174,-0.310,-0.310,-0.310,0.000,0.000,0.000
1641069301833815040,2022-01-01-20:35:01,10.1.1.2,172,-0.300,-0.300,-0.300,0.000,0.000,0.000
1641069302034964992,2022-01-01-20:35:02,10.1.1.2,172,-0.290,-0.290,-0.290,0.000,0.000,0.000
1641069302235779072,2022-01-01-20:35:02,10.1.1.2,171,-0.280,-0.280,-0.280,0.000,0.000,0.000
1641069302456870912,2022-01-01-20:35:02,10.1.1.2,191,-0.270,-0.270,-0.270,0.000,0.000,0.000
1641069302656382208,2022-01-01-20:35:02,10.1.1.2,190,-0.260,-0.260,-0.260,0.000,0.000,0.000
1641069302857755904,2022-01-01-20:35:02,10.1.1.2,189,-0.250,-0.250,-0.250,0.000,0.000,0.000
1641069303058153984,2022-01-01-20:35:03,10.1.1.2,187,-0.240,-0.240,-0.240,0.000,0.000,0.000
1641069303260623872,2022-01-01-20:35:03,10.1.1.2,189,-0.230,-0.230,-0.230,0.000,0.000,0.000
1641069303461225984,2022-01-01-20:35:03,10.1.1.2,188,-0.220,-0.220,-0.220,0.000,0.000,0.000
1641069303659200000,2022-01-01-20:35:03,10.1.1.2,184,-0.210,-0.210,-0.210,0.000,0.000,0.000
1641069303858855936,2022-01-01-20:35:03,10.1.1.2,182,-0.200,-0.200,-0.200,0.000,0.000,0.000
1641069304060785920,2022-01-01-20:35:04,10.1.1.2,183,-0.190,-0.190,-0.190,0.000,0.000,0.000
1641069304261694976,2022-01-01-20:35:04,10.1.1.2,183,-0.180,-0.180,-0.180,0.000,0.000,0.000
1641069304461068032,2022-01-01-20:35:04,10.1.1.2,181,-0.170,-0.170,-0.170,0.000,0.000,0.000
1641069304662046976,2022-01-01-20:35:04,10.1.1.2,179,-0.160,-0.160,-0.160,0.000,0.000,0.000
1641069304861725184,2022-01-01-20:35:04,10.1.1.2,178,-0.150,-0.150,-0.150,0.000,0.000,0.000
1641069305082770944,2022-01-01-20:35:05,10.1.1.2,197,-0.140,-0.140,-0.140,0.000,0.000,0.000
1641069305282038016,2022-01-01-20:35:05,10.1.1.2,196,-0.130,-0.130,-0.130,0.000,0.000,0.000
1641069305483719168,2022-01-01-20:35:05,10.1.1.2,197,-0.120,-0.120,-0.120,0.000,0.000,0.000
1641069305684477184,2022-01-01-20:35:05,10.1.1.2,197,-0.110,-0.110,-0.110,0.000,0.000,0.000
1641069305884492032,2022-01-01-20:35:05,10.1.1.2,196,-0.100,-0.100,-0.100,0.000,0.000,0.000
1641069306085700096,2022-01-01-20:35:06,10.1.1.2,196,-0.090,-0.090,-0.090,0.000,0.000,0.000
1641069306284608000,2022-01-01-20:35:06,10.1.1.2,193,-0.080,-0.080,-0.080,0.000,0.000,0.000
1641069306484740096,2022-01-01-20:35:06,10.1.1.2,192,-0.070,-0.070,-0.070,0.000,0.000,0.000
1641069306693047040,2022-01-01-20:35:06,10.1.1.2,198,-0.060,-0.060,-0.060,0.000,0.000,0.000
1641069306884318976,2022-01-01-20:35:06,10.1.1.2,188,-0.050,-0.050,-0.050,0.000,0.000,0.000
1641069307087511040,2022-01-01-20:35:07,10.1.1.2,189,-0.040,-0.040,-0.040,0.000,0.000,0.000
1641069307286298112,2022-01-01-20:35:07,10.1.1.2,187,-0.030,-0.030,-0.030,0.000,0.000,0.000
1641069307487706880,2022-01-01-20:35:07,10.1.1.2,188,-0.020,-0.020,-0.020,0.000,0.000,0.000
1641069307705337088,2022-01-01-20:35:07,10.1.1.2,200,-0.010,-0.010,-0.010,0.000,0.000,0.000
1641069307906385920,2022-01-01-20:35:07,10.1.1.2,200,0.000,0.000,0.000,0.000,0.000,0.000
1641069308107727104,2022-01-01-20:35:08,10.1.1.2,198,-0.010,-0.010,-0.010,0.000,0.000,0.000
