FedericoMungari/DigitalTwin_service/Output/Output_script/script_ROSAPI_output_robots1_freq0_1.txt
timestamp,date,node,latency,joint_1,joint_2,joint_3,joint_4,joint_5,joint_6
1640634988814760960,2021-12-27-19:56:28,10.1.1.2,1640634988814.32,0.000,-0.000,0.000,-0.000,0.000,-0.000
1640634991694206976,2021-12-27-19:56:31,10.1.1.2,9,-0.430,-0.430,-0.430,0.000,0.000,0.000
1640634991950905088,2021-12-27-19:56:31,10.1.1.2,4,-0.430,-0.430,-0.430,0.000,0.000,0.000
1640634994096221952,2021-12-27-19:56:34,10.1.1.2,6,-0.410,-0.410,-0.410,0.000,0.000,0.000
1640634996155752960,2021-12-27-19:56:36,10.1.1.2,17,-0.440,-0.440,-0.440,0.000,0.000,0.000
1640634998080375040,2021-12-27-19:56:38,10.1.1.2,3,-0.440,-0.440,-0.440,0.000,0.000,0.000
1640634998315926016,2021-12-27-19:56:38,10.1.1.2,16,-0.440,-0.440,-0.440,0.000,0.000,0.000
1640635000174828032,2021-12-27-19:56:40,10.1.1.2,13,-0.440,-0.440,-0.440,0.000,0.000,0.000
1640635002255470080,2021-12-27-19:56:42,10.1.1.2,0,-0.440,-0.440,-0.440,0.000,0.000,0.000
1640635002472288000,2021-12-27-19:56:42,10.1.1.2,4,-0.440,-0.440,-0.440,0.000,0.000,0.000
1640635004390166016,2021-12-27-19:56:44,10.1.1.2,17,-0.440,-0.440,-0.440,0.000,0.000,0.000
1640635004592444928,2021-12-27-19:56:44,10.1.1.2,2,-0.440,-0.440,-0.440,0.000,0.000,0.000
1640635006508567040,2021-12-27-19:56:46,10.1.1.2,6,-0.440,-0.440,-0.440,0.000,0.000,0.000
1640635006728475136,2021-12-27-19:56:46,10.1.1.2,16,-0.440,-0.440,-0.440,0.000,0.000,0.000
1640635008604526080,2021-12-27-19:56:48,10.1.1.2,15,-0.440,-0.440,-0.440,0.000,0.000,0.000
1640635008805238016,2021-12-27-19:56:48,10.1.1.2,4,-0.440,-0.440,-0.440,0.000,0.000,0.000
1640635010682336000,2021-12-27-19:56:50,10.1.1.2,6,-0.440,-0.440,-0.440,0.000,0.000,0.000
1640635010901254912,2021-12-27-19:56:50,10.1.1.2,7,-0.440,-0.440,-0.440,0.000,0.000,0.000
1640635012796196096,2021-12-27-19:56:52,10.1.1.2,2,-0.440,-0.440,-0.440,0.000,0.000,0.000
1640635013019616000,2021-12-27-19:56:53,10.1.1.2,5,-0.440,-0.440,-0.440,0.000,0.000,0.000
1640635015131838208,2021-12-27-19:56:55,10.1.1.2,17,-0.440,-0.440,-0.440,0.000,0.000,0.000
1640635017020387840,2021-12-27-19:56:57,10.1.1.2,5,-0.440,-0.440,-0.440,0.000,0.000,0.000
1640635017241647872,2021-12-27-19:56:57,10.1.1.2,11,-0.440,-0.440,-0.440,0.000,0.000,0.000
1640635019094039040,2021-12-27-19:56:59,10.1.1.2,0,-0.440,-0.440,-0.440,0.000,0.000,0.000
1640635021252801792,2021-12-27-19:57:01,10.1.1.2,4,-0.440,-0.440,-0.440,0.000,0.000,0.000
1640635021470508032,2021-12-27-19:57:01,10.1.1.2,4,-0.440,-0.440,-0.440,0.000,0.000,0.000
1640635023373991936,2021-12-27-19:57:03,10.1.1.2,15,-0.440,-0.440,-0.440,0.000,0.000,0.000
1640635023593853952,2021-12-27-19:57:03,10.1.1.2,2,-0.440,-0.440,-0.440,0.000,0.000,0.000
1640635024393510144,2021-12-27-19:57:04,10.1.1.2,4,-0.070,-0.070,-0.070,0.000,0.000,0.000
1640635026558476800,2021-12-27-19:57:06,10.1.1.2,10,-0.030,-0.030,-0.030,0.000,0.000,0.000
1640635026676222976,2021-12-27-19:57:06,10.1.1.2,2,-0.030,-0.030,-0.030,0.000,0.000,0.000
1640635028654031872,2021-12-27-19:57:08,10.1.1.2,11,-0.030,-0.030,-0.030,0.000,0.000,0.000
1640635028775373056,2021-12-27-19:57:08,10.1.1.2,5,-0.030,-0.030,-0.030,0.000,0.000,0.000
1640635030711762944,2021-12-27-19:57:10,10.1.1.2,1,-0.030,-0.030,-0.030,0.000,0.000,0.000
1640635030853108992,2021-12-27-19:57:10,10.1.1.2,18,-0.030,-0.030,-0.030,0.000,0.000,0.000
1640635032779906048,2021-12-27-19:57:12,10.1.1.2,3,-0.030,-0.030,-0.030,0.000,0.000,0.000
1640635032907953920,2021-12-27-19:57:12,10.1.1.2,4,-0.030,-0.030,-0.030,0.000,0.000,0.000
1640635034870800128,2021-12-27-19:57:14,10.1.1.2,10,-0.030,-0.030,-0.030,0.000,0.000,0.000
1640635035010286080,2021-12-27-19:57:15,10.1.1.2,9,-0.030,-0.030,-0.030,0.000,0.000,0.000
1640635036988697088,2021-12-27-19:57:16,10.1.1.2,4,-0.030,-0.030,-0.030,0.000,0.000,0.000
1640635039123339008,2021-12-27-19:57:19,10.1.1.2,19,-0.030,-0.030,-0.030,0.000,0.000,0.000
1640635039243853056,2021-12-27-19:57:19,10.1.1.2,14,-0.030,-0.030,-0.030,0.000,0.000,0.000
1640635041200038912,2021-12-27-19:57:21,10.1.1.2,17,-0.030,-0.030,-0.030,0.000,0.000,0.000
1640635041340393984,2021-12-27-19:57:21,10.1.1.2,19,-0.030,-0.030,-0.030,0.000,0.000,0.000
1640635043378739968,2021-12-27-19:57:23,10.1.1.2,9,-0.030,-0.030,-0.030,0.000,0.000,0.000
1640635043518703104,2021-12-27-19:57:23,10.1.1.2,16,-0.030,-0.030,-0.030,0.000,0.000,0.000
1640635045535737088,2021-12-27-19:57:25,10.1.1.2,2,-0.030,-0.030,-0.030,0.000,0.000,0.000
1640635045675932928,2021-12-27-19:57:25,10.1.1.2,13,-0.030,-0.030,-0.030,0.000,0.000,0.000
1640635047712076800,2021-12-27-19:57:27,10.1.1.2,14,-0.030,-0.030,-0.030,0.000,0.000,0.000
1640635047836931840,2021-12-27-19:57:27,10.1.1.2,1,-0.030,-0.030,-0.030,0.000,0.000,0.000
1640635049829754112,2021-12-27-19:57:29,10.1.1.2,1,-0.030,-0.030,-0.030,0.000,0.000,0.000
1640635049959777024,2021-12-27-19:57:29,10.1.1.2,1,-0.030,-0.030,-0.030,0.000,0.000,0.000
1640635051968563200,2021-12-27-19:57:31,10.1.1.2,19,-0.030,-0.030,-0.030,0.000,0.000,0.000
1640635052090064896,2021-12-27-19:57:32,10.1.1.2,14,-0.030,-0.030,-0.030,0.000,0.000,0.000
1640635054093159936,2021-12-27-19:57:34,10.1.1.2,8,-0.030,-0.030,-0.030,0.000,0.000,0.000
1640635054212673024,2021-12-27-19:57:34,10.1.1.2,3,-0.030,-0.030,-0.030,0.000,0.000,0.000
1640635056207808000,2021-12-27-19:57:36,10.1.1.2,3,-0.030,-0.030,-0.030,0.000,0.000,0.000
1640635056356973056,2021-12-27-19:57:36,10.1.1.2,19,-0.030,-0.030,-0.030,0.000,0.000,0.000
1640635058316462080,2021-12-27-19:57:38,10.1.1.2,16,-0.030,-0.030,-0.030,0.000,0.000,0.000
1640635058435923200,2021-12-27-19:57:38,10.1.1.2,11,-0.030,-0.030,-0.030,0.000,0.000,0.000
1640635060577296128,2021-12-27-19:57:40,10.1.1.2,2,-0.030,-0.030,-0.030,0.000,0.000,0.000
1640635062595837184,2021-12-27-19:57:42,10.1.1.2,1,-0.030,-0.030,-0.030,0.000,0.000,0.000
1640635062737804800,2021-12-27-19:57:42,10.1.1.2,11,-0.030,-0.030,-0.030,0.000,0.000,0.000
1640635064715522048,2021-12-27-19:57:44,10.1.1.2,6,-0.030,-0.030,-0.030,0.000,0.000,0.000
1640635064854499072,2021-12-27-19:57:44,10.1.1.2,17,-0.030,-0.030,-0.030,0.000,0.000,0.000
1640635066794403072,2021-12-27-19:57:46,10.1.1.2,2,-0.030,-0.030,-0.030,0.000,0.000,0.000
1640635066921112064,2021-12-27-19:57:46,10.1.1.2,4,-0.030,-0.030,-0.030,0.000,0.000,0.000
1640635069022164224,2021-12-27-19:57:49,10.1.1.2,6,-0.030,-0.030,-0.030,0.000,0.000,0.000
1640635071021233152,2021-12-27-19:57:51,10.1.1.2,2,-0.030,-0.030,-0.030,0.000,0.000,0.000
1640635071172892160,2021-12-27-19:57:51,10.1.1.2,24,-0.030,-0.030,-0.030,0.000,0.000,0.000
1640635073178647040,2021-12-27-19:57:53,10.1.1.2,3,-0.030,-0.030,-0.030,0.000,0.000,0.000
1640635073322718976,2021-12-27-19:57:53,10.1.1.2,1,-0.030,-0.030,-0.030,0.000,0.000,0.000
1640635075305763840,2021-12-27-19:57:55,10.1.1.2,1,-0.030,-0.030,-0.030,0.000,0.000,0.000
1640635075447265024,2021-12-27-19:57:55,10.1.1.2,3,-0.030,-0.030,-0.030,0.000,0.000,0.000
1640635077495724800,2021-12-27-19:57:57,10.1.1.2,13,-0.030,-0.030,-0.030,0.000,0.000,0.000
1640635077635981056,2021-12-27-19:57:57,10.1.1.2,17,-0.030,-0.030,-0.030,0.000,0.000,0.000
1640635079593202944,2021-12-27-19:57:59,10.1.1.2,3,-0.030,-0.030,-0.030,0.000,0.000,0.000
1640635079733330944,2021-12-27-19:57:59,10.1.1.2,7,-0.030,-0.030,-0.030,0.000,0.000,0.000
1640635081702846976,2021-12-27-19:58:01,10.1.1.2,3,-0.030,-0.030,-0.030,0.000,0.000,0.000
1640635081841080832,2021-12-27-19:58:01,10.1.1.2,2,-0.030,-0.030,-0.030,0.000,0.000,0.000
1640635083813299968,2021-12-27-19:58:03,10.1.1.2,5,-0.030,-0.030,-0.030,0.000,0.000,0.000
1640635083950225152,2021-12-27-19:58:03,10.1.1.2,12,-0.030,-0.030,-0.030,0.000,0.000,0.000
1640635085912268032,2021-12-27-19:58:05,10.1.1.2,9,-0.030,-0.030,-0.030,0.000,0.000,0.000
1640635086032910080,2021-12-27-19:58:06,10.1.1.2,2,-0.030,-0.030,-0.030,0.000,0.000,0.000
1640635087999307008,2021-12-27-19:58:07,10.1.1.2,17,-0.030,-0.030,-0.030,0.000,0.000,0.000
1640635088115604992,2021-12-27-19:58:08,10.1.1.2,5,-0.030,-0.030,-0.030,0.000,0.000,0.000
1640635090096372992,2021-12-27-19:58:10,10.1.1.2,18,-0.030,-0.030,-0.030,0.000,0.000,0.000
1640635090242053888,2021-12-27-19:58:10,10.1.1.2,16,-0.030,-0.030,-0.030,0.000,0.000,0.000
1640635092236587008,2021-12-27-19:58:12,10.1.1.2,1,-0.030,-0.030,-0.030,0.000,0.000,0.000
1640635092376614144,2021-12-27-19:58:12,10.1.1.2,15,-0.030,-0.030,-0.030,0.000,0.000,0.000
1640635094377090816,2021-12-27-19:58:14,10.1.1.2,17,-0.030,-0.030,-0.030,0.000,0.000,0.000
1640635094499759872,2021-12-27-19:58:14,10.1.1.2,2,-0.030,-0.030,-0.030,0.000,0.000,0.000
1640635096516560128,2021-12-27-19:58:16,10.1.1.2,21,-0.030,-0.030,-0.030,0.000,0.000,0.000
1640635096633900800,2021-12-27-19:58:16,10.1.1.2,7,-0.030,-0.030,-0.030,0.000,0.000,0.000
1640635098571723008,2021-12-27-19:58:18,10.1.1.2,14,-0.030,-0.030,-0.030,0.000,0.000,0.000
1640635098690233088,2021-12-27-19:58:18,10.1.1.2,4,-0.030,-0.030,-0.030,0.000,0.000,0.000
1640635100669761792,2021-12-27-19:58:20,10.1.1.2,5,-0.030,-0.030,-0.030,0.000,0.000,0.000
1640635100809902080,2021-12-27-19:58:20,10.1.1.2,18,-0.030,-0.030,-0.030,0.000,0.000,0.000
1640635102767097088,2021-12-27-19:58:22,10.1.1.2,17,-0.030,-0.030,-0.030,0.000,0.000,0.000
1640635102887578112,2021-12-27-19:58:22,10.1.1.2,13,-0.030,-0.030,-0.030,0.000,0.000,0.000
1640635105024104960,2021-12-27-19:58:25,10.1.1.2,2,-0.030,-0.030,-0.030,0.000,0.000,0.000
1640635107060439040,2021-12-27-19:58:27,10.1.1.2,12,-0.030,-0.030,-0.030,0.000,0.000,0.000
1640635107199721984,2021-12-27-19:58:27,10.1.1.2,14,-0.030,-0.030,-0.030,0.000,0.000,0.000
1640635109177541888,2021-12-27-19:58:29,10.1.1.2,10,-0.030,-0.030,-0.030,0.000,0.000,0.000
1640635109299815936,2021-12-27-19:58:29,10.1.1.2,3,-0.030,-0.030,-0.030,0.000,0.000,0.000
1640635111370168064,2021-12-27-19:58:31,10.1.1.2,13,-0.030,-0.030,-0.030,0.000,0.000,0.000
1640635111493388800,2021-12-27-19:58:31,10.1.1.2,4,-0.030,-0.030,-0.030,0.000,0.000,0.000
1640635113459884032,2021-12-27-19:58:33,10.1.1.2,1,-0.030,-0.030,-0.030,0.000,0.000,0.000
1640635113589883136,2021-12-27-19:58:33,10.1.1.2,3,-0.030,-0.030,-0.030,0.000,0.000,0.000
1640635115566405888,2021-12-27-19:58:35,10.1.1.2,4,-0.030,-0.030,-0.030,0.000,0.000,0.000
1640635115709500160,2021-12-27-19:58:35,10.1.1.2,18,-0.030,-0.030,-0.030,0.000,0.000,0.000
1640635117670406144,2021-12-27-19:58:37,10.1.1.2,2,-0.030,-0.030,-0.030,0.000,0.000,0.000
1640635119765611008,2021-12-27-19:58:39,10.1.1.2,4,-0.030,-0.030,-0.030,0.000,0.000,0.000
1640635119891910144,2021-12-27-19:58:39,10.1.1.2,1,-0.030,-0.030,-0.030,0.000,0.000,0.000
1640635122782579968,2021-12-27-19:58:42,10.1.1.2,4,-0.380,-0.380,-0.380,0.000,0.000,0.000
1640635123281999104,2021-12-27-19:58:43,10.1.1.2,16,-0.370,-0.370,-0.370,0.000,0.000,0.000
1640635124913566208,2021-12-27-19:58:44,10.1.1.2,7,-0.370,-0.370,-0.370,0.000,0.000,0.000
1640635125434967040,2021-12-27-19:58:45,10.1.1.2,2,-0.370,-0.370,-0.370,0.000,0.000,0.000
1640635127053352960,2021-12-27-19:58:47,10.1.1.2,18,-0.370,-0.370,-0.370,0.000,0.000,0.000
1640635129192045056,2021-12-27-19:58:49,10.1.1.2,2,-0.370,-0.370,-0.370,0.000,0.000,0.000
1640635129740036864,2021-12-27-19:58:49,10.1.1.2,3,-0.370,-0.370,-0.370,0.000,0.000,0.000
1640635131329655040,2021-12-27-19:58:51,10.1.1.2,12,-0.370,-0.370,-0.370,0.000,0.000,0.000
1640635131850341120,2021-12-27-19:58:51,10.1.1.2,9,-0.370,-0.370,-0.370,0.000,0.000,0.000
1640635133457163008,2021-12-27-19:58:53,10.1.1.2,3,-0.370,-0.370,-0.370,0.000,0.000,0.000
1640635133973092096,2021-12-27-19:58:53,10.1.1.2,4,-0.370,-0.370,-0.370,0.000,0.000,0.000
1640635134486000896,2021-12-27-19:58:54,10.1.1.2,8,-0.130,-0.130,-0.130,0.000,0.000,0.000
1640635135027255040,2021-12-27-19:58:55,10.1.1.2,3,-0.130,-0.130,-0.130,0.000,0.000,0.000
1640635136570663936,2021-12-27-19:58:56,10.1.1.2,4,-0.130,-0.130,-0.130,0.000,0.000,0.000
1640635137141843200,2021-12-27-19:58:57,10.1.1.2,12,-0.130,-0.130,-0.130,0.000,0.000,0.000
1640635138747728128,2021-12-27-19:58:58,10.1.1.2,2,-0.130,-0.130,-0.130,0.000,0.000,0.000
1640635139323590912,2021-12-27-19:58:59,10.1.1.2,4,-0.130,-0.130,-0.130,0.000,0.000,0.000
1640635140878191872,2021-12-27-19:59:00,10.1.1.2,19,-0.130,-0.130,-0.130,0.000,0.000,0.000
1640635141436562944,2021-12-27-19:59:01,10.1.1.2,14,-0.130,-0.130,-0.130,0.000,0.000,0.000
1640635142976048896,2021-12-27-19:59:02,10.1.1.2,1,-0.130,-0.130,-0.130,0.000,0.000,0.000
1640635143573483008,2021-12-27-19:59:03,10.1.1.2,9,-0.130,-0.130,-0.130,0.000,0.000,0.000
1640635145140166144,2021-12-27-19:59:05,10.1.1.2,20,-0.130,-0.130,-0.130,0.000,0.000,0.000
1640635147286766080,2021-12-27-19:59:07,10.1.1.2,12,-0.130,-0.130,-0.130,0.000,0.000,0.000
1640635147869116160,2021-12-27-19:59:07,10.1.1.2,13,-0.130,-0.130,-0.130,0.000,0.000,0.000
1640635149427289856,2021-12-27-19:59:09,10.1.1.2,1,-0.130,-0.130,-0.130,0.000,0.000,0.000
1640635149993766912,2021-12-27-19:59:09,10.1.1.2,1,-0.130,-0.130,-0.130,0.000,0.000,0.000
1640635151535465984,2021-12-27-19:59:11,10.1.1.2,3,-0.130,-0.130,-0.130,0.000,0.000,0.000
1640635152095032832,2021-12-27-19:59:12,10.1.1.2,2,-0.130,-0.130,-0.130,0.000,0.000,0.000
1640635153678427904,2021-12-27-19:59:13,10.1.1.2,4,-0.130,-0.130,-0.130,0.000,0.000,0.000
1640635154249901056,2021-12-27-19:59:14,10.1.1.2,2,-0.130,-0.130,-0.130,0.000,0.000,0.000
1640635155801939968,2021-12-27-19:59:15,10.1.1.2,14,-0.130,-0.130,-0.130,0.000,0.000,0.000
1640635156219651072,2021-12-27-19:59:16,10.1.1.2,2,-0.070,-0.070,-0.070,0.000,0.000,0.000
1640635158017710848,2021-12-27-19:59:18,10.1.1.2,2,-0.070,-0.070,-0.070,0.000,0.000,0.000
1640635158331216128,2021-12-27-19:59:18,10.1.1.2,14,-0.070,-0.070,-0.070,0.000,0.000,0.000
1640635160117209856,2021-12-27-19:59:20,10.1.1.2,18,-0.070,-0.070,-0.070,0.000,0.000,0.000
1640635160395469824,2021-12-27-19:59:20,10.1.1.2,6,-0.070,-0.070,-0.070,0.000,0.000,0.000
1640635162203852032,2021-12-27-19:59:22,10.1.1.2,3,-0.070,-0.070,-0.070,0.000,0.000,0.000
1640635162233346048,2021-12-27-19:59:22,10.1.1.2,11,-0.060,-0.060,-0.060,0.000,0.000,0.000
1640635162494919168,2021-12-27-19:59:22,10.1.1.2,8,-0.060,-0.060,-0.060,0.000,0.000,0.000
1640635164352258816,2021-12-27-19:59:24,10.1.1.2,14,-0.060,-0.060,-0.060,0.000,0.000,0.000
1640635164590564096,2021-12-27-19:59:24,10.1.1.2,3,-0.060,-0.060,-0.060,0.000,0.000,0.000
1640635165945702144,2021-12-27-19:59:25,10.1.1.2,1,-0.290,-0.290,-0.290,0.000,0.000,0.000
1640635167210685952,2021-12-27-19:59:27,10.1.1.2,11,-0.290,-0.290,-0.290,0.000,0.000,0.000
1640635169345637120,2021-12-27-19:59:29,10.1.1.2,11,-0.290,-0.290,-0.290,0.000,0.000,0.000
1640635170224081920,2021-12-27-19:59:30,10.1.1.2,17,-0.290,-0.290,-0.290,0.000,0.000,0.000
1640635171462744064,2021-12-27-19:59:31,10.1.1.2,2,-0.290,-0.290,-0.290,0.000,0.000,0.000
1640635172341465856,2021-12-27-19:59:32,10.1.1.2,20,-0.290,-0.290,-0.290,0.000,0.000,0.000
1640635173572317952,2021-12-27-19:59:33,10.1.1.2,2,-0.290,-0.290,-0.290,0.000,0.000,0.000
1640635174434046976,2021-12-27-19:59:34,10.1.1.2,3,-0.290,-0.290,-0.290,0.000,0.000,0.000
1640635175671752960,2021-12-27-19:59:35,10.1.1.2,11,-0.290,-0.290,-0.290,0.000,0.000,0.000
1640635176529577984,2021-12-27-19:59:36,10.1.1.2,3,-0.290,-0.290,-0.290,0.000,0.000,0.000
1640635177752816896,2021-12-27-19:59:37,10.1.1.2,4,-0.290,-0.290,-0.290,0.000,0.000,0.000
1640635178600498944,2021-12-27-19:59:38,10.1.1.2,5,-0.290,-0.290,-0.290,0.000,0.000,0.000
1640635179881870080,2021-12-27-19:59:39,10.1.1.2,7,-0.290,-0.290,-0.290,0.000,0.000,0.000
1640635180769701888,2021-12-27-19:59:40,10.1.1.2,4,-0.290,-0.290,-0.290,0.000,0.000,0.000
1640635182010902784,2021-12-27-19:59:42,10.1.1.2,2,-0.290,-0.290,-0.290,0.000,0.000,0.000
1640635182859970048,2021-12-27-19:59:42,10.1.1.2,3,-0.290,-0.290,-0.290,0.000,0.000,0.000
1640635185372893184,2021-12-27-19:59:45,10.1.1.2,14,-0.100,-0.100,-0.100,0.000,0.000,0.000
1640635185594791936,2021-12-27-19:59:45,10.1.1.2,2,-0.010,-0.010,-0.010,0.000,0.000,0.000
1640635186172339968,2021-12-27-19:59:46,10.1.1.2,6,-0.280,-0.280,-0.280,0.000,0.000,0.000
1640635187093825024,2021-12-27-19:59:47,10.1.1.2,11,-0.280,-0.280,-0.280,0.000,0.000,0.000
1640635188292755968,2021-12-27-19:59:48,10.1.1.2,12,-0.280,-0.280,-0.280,0.000,0.000,0.000
1640635189197541120,2021-12-27-19:59:49,10.1.1.2,20,-0.280,-0.280,-0.280,0.000,0.000,0.000
1640635190432771072,2021-12-27-19:59:50,10.1.1.2,11,-0.280,-0.280,-0.280,0.000,0.000,0.000
1640635190870796032,2021-12-27-19:59:50,10.1.1.2,14,-0.480,-0.480,-0.480,0.000,0.000,0.000
1640635192991780096,2021-12-27-19:59:52,10.1.1.2,8,-0.480,-0.480,-0.480,0.000,0.000,0.000
1640635193030419968,2021-12-27-19:59:53,10.1.1.2,3,-0.480,-0.480,-0.480,0.000,0.000,0.000
1640635195069888000,2021-12-27-19:59:55,10.1.1.2,10,-0.480,-0.480,-0.480,0.000,0.000,0.000
1640635195107724800,2021-12-27-19:59:55,10.1.1.2,7,-0.480,-0.480,-0.480,0.000,0.000,0.000
1640635198249224960,2021-12-27-19:59:58,10.1.1.2,2,-0.010,-0.010,-0.010,0.000,0.000,0.000
1640635198307689984,2021-12-27-19:59:58,10.1.1.2,16,-0.010,-0.010,-0.010,0.000,0.000,0.000
1640635200385391872,2021-12-27-20:00:00,10.1.1.2,10,-0.010,-0.010,-0.010,0.000,0.000,0.000
1640635200424599808,2021-12-27-20:00:00,10.1.1.2,6,-0.010,-0.010,-0.010,0.000,0.000,0.000
1640635202461895936,2021-12-27-20:00:02,10.1.1.2,3,-0.010,-0.010,-0.010,0.000,0.000,0.000
1640635202521814016,2021-12-27-20:00:02,10.1.1.2,18,-0.010,-0.010,-0.010,0.000,0.000,0.000
1640635204579184128,2021-12-27-20:00:04,10.1.1.2,3,-0.010,-0.010,-0.010,0.000,0.000,0.000
1640635204639211776,2021-12-27-20:00:04,10.1.1.2,19,-0.010,-0.010,-0.010,0.000,0.000,0.000
1640635206657670144,2021-12-27-20:00:06,10.1.1.2,19,-0.010,-0.010,-0.010,0.000,0.000,0.000
1640635206683090944,2021-12-27-20:00:06,10.1.1.2,3,-0.010,-0.010,-0.010,0.000,0.000,0.000
1640635208772104960,2021-12-27-20:00:08,10.1.1.2,1,-0.010,-0.010,-0.010,0.000,0.000,0.000
1640635208832745984,2021-12-27-20:00:08,10.1.1.2,13,-0.010,-0.010,-0.010,0.000,0.000,0.000
1640635210924029184,2021-12-27-20:00:10,10.1.1.2,3,-0.010,-0.010,-0.010,0.000,0.000,0.000
1640635213030371840,2021-12-27-20:00:13,10.1.1.2,3,-0.010,-0.010,-0.010,0.000,0.000,0.000
1640635213070308864,2021-12-27-20:00:13,10.1.1.2,2,-0.010,-0.010,-0.010,0.000,0.000,0.000
1640635215255609088,2021-12-27-20:00:15,10.1.1.2,4,-0.010,-0.010,-0.010,0.000,0.000,0.000
1640635215313910016,2021-12-27-20:00:15,10.1.1.2,18,-0.010,-0.010,-0.010,0.000,0.000,0.000
1640635217378256128,2021-12-27-20:00:17,10.1.1.2,2,-0.010,-0.010,-0.010,0.000,0.000,0.000
1640635217436803072,2021-12-27-20:00:17,10.1.1.2,17,-0.010,-0.010,-0.010,0.000,0.000,0.000
1640635219552997120,2021-12-27-20:00:19,10.1.1.2,3,-0.010,-0.010,-0.010,0.000,0.000,0.000
1640635221616364032,2021-12-27-20:00:21,10.1.1.2,4,-0.010,-0.010,-0.010,0.000,0.000,0.000
1640635221661746944,2021-12-27-20:00:21,10.1.1.2,8,-0.010,-0.010,-0.010,0.000,0.000,0.000
1640635223717825024,2021-12-27-20:00:23,10.1.1.2,15,-0.010,-0.010,-0.010,0.000,0.000,0.000
1640635223749316096,2021-12-27-20:00:23,10.1.1.2,3,-0.010,-0.010,-0.010,0.000,0.000,0.000
1640635225792448000,2021-12-27-20:00:25,10.1.1.2,3,-0.010,-0.010,-0.010,0.000,0.000,0.000
1640635227952379904,2021-12-27-20:00:27,10.1.1.2,2,-0.010,-0.010,-0.010,0.000,0.000,0.000
1640635227991794176,2021-12-27-20:00:27,10.1.1.2,1,-0.010,-0.010,-0.010,0.000,0.000,0.000
1640635230249517056,2021-12-27-20:00:30,10.1.1.2,17,-0.070,-0.070,-0.070,0.000,0.000,0.000
1640635232047058944,2021-12-27-20:00:32,10.1.1.2,2,-0.070,-0.070,-0.070,0.000,0.000,0.000
1640635232366617088,2021-12-27-20:00:32,10.1.1.2,10,-0.070,-0.070,-0.070,0.000,0.000,0.000
1640635234231738112,2021-12-27-20:00:34,10.1.1.2,2,-0.070,-0.070,-0.070,0.000,0.000,0.000
1640635236345626112,2021-12-27-20:00:36,10.1.1.2,3,-0.070,-0.070,-0.070,0.000,0.000,0.000
1640635236644203776,2021-12-27-20:00:36,10.1.1.2,4,-0.070,-0.070,-0.070,0.000,0.000,0.000
1640635238800142080,2021-12-27-20:00:38,10.1.1.2,3,-0.070,-0.070,-0.070,0.000,0.000,0.000
1640635240630428160,2021-12-27-20:00:40,10.1.1.2,2,-0.070,-0.070,-0.070,0.000,0.000,0.000
1640635240963449856,2021-12-27-20:00:40,10.1.1.2,4,-0.070,-0.070,-0.070,0.000,0.000,0.000
1640635242764123904,2021-12-27-20:00:42,10.1.1.2,3,-0.070,-0.070,-0.070,0.000,0.000,0.000
1640635243064624128,2021-12-27-20:00:43,10.1.1.2,11,-0.070,-0.070,-0.070,0.000,0.000,0.000
1640635244911563008,2021-12-27-20:00:44,10.1.1.2,18,-0.070,-0.070,-0.070,0.000,0.000,0.000
1640635245211271168,2021-12-27-20:00:45,10.1.1.2,15,-0.070,-0.070,-0.070,0.000,0.000,0.000
1640635247016009984,2021-12-27-20:00:47,10.1.1.2,2,-0.070,-0.070,-0.070,0.000,0.000,0.000
1640635247316184064,2021-12-27-20:00:47,10.1.1.2,2,-0.070,-0.070,-0.070,0.000,0.000,0.000
1640635249129827072,2021-12-27-20:00:49,10.1.1.2,15,-0.070,-0.070,-0.070,0.000,0.000,0.000
1640635249431799808,2021-12-27-20:00:49,10.1.1.2,19,-0.070,-0.070,-0.070,0.000,0.000,0.000
1640635251291672832,2021-12-27-20:00:51,10.1.1.2,17,-0.070,-0.070,-0.070,0.000,0.000,0.000
1640635251591289088,2021-12-27-20:00:51,10.1.1.2,19,-0.070,-0.070,-0.070,0.000,0.000,0.000
1640635253450859008,2021-12-27-20:00:53,10.1.1.2,18,-0.070,-0.070,-0.070,0.000,0.000,0.000
1640635253750906112,2021-12-27-20:00:53,10.1.1.2,11,-0.070,-0.070,-0.070,0.000,0.000,0.000
1640635255604273920,2021-12-27-20:00:55,10.1.1.2,3,-0.070,-0.070,-0.070,0.000,0.000,0.000
1640635255911789056,2021-12-27-20:00:55,10.1.1.2,2,-0.070,-0.070,-0.070,0.000,0.000,0.000
1640635257732346112,2021-12-27-20:00:57,10.1.1.2,17,-0.070,-0.070,-0.070,0.000,0.000,0.000
1640635258032000000,2021-12-27-20:00:58,10.1.1.2,9,-0.070,-0.070,-0.070,0.000,0.000,0.000
1640635259870710016,2021-12-27-20:00:59,10.1.1.2,2,-0.070,-0.070,-0.070,0.000,0.000,0.000
1640635260171709952,2021-12-27-20:01:00,10.1.1.2,5,-0.070,-0.070,-0.070,0.000,0.000,0.000
1640635261988599040,2021-12-27-20:01:01,10.1.1.2,13,-0.070,-0.070,-0.070,0.000,0.000,0.000
1640635262277828096,2021-12-27-20:01:02,10.1.1.2,3,-0.070,-0.070,-0.070,0.000,0.000,0.000
1640635264066557952,2021-12-27-20:01:04,10.1.1.2,6,-0.070,-0.070,-0.070,0.000,0.000,0.000
1640635264365959936,2021-12-27-20:01:04,10.1.1.2,13,-0.070,-0.070,-0.070,0.000,0.000,0.000
1640635266174894080,2021-12-27-20:01:06,10.1.1.2,4,-0.070,-0.070,-0.070,0.000,0.000,0.000
1640635266483129856,2021-12-27-20:01:06,10.1.1.2,3,-0.070,-0.070,-0.070,0.000,0.000,0.000
1640635268281421056,2021-12-27-20:01:08,10.1.1.2,5,-0.070,-0.070,-0.070,0.000,0.000,0.000
1640635268579890944,2021-12-27-20:01:08,10.1.1.2,8,-0.070,-0.070,-0.070,0.000,0.000,0.000
1640635270378022912,2021-12-27-20:01:10,10.1.1.2,1,-0.070,-0.070,-0.070,0.000,0.000,0.000
1640635270676088064,2021-12-27-20:01:10,10.1.1.2,1,-0.070,-0.070,-0.070,0.000,0.000,0.000
1640635272473815040,2021-12-27-20:01:12,10.1.1.2,9,-0.070,-0.070,-0.070,0.000,0.000,0.000
1640635272761924864,2021-12-27-20:01:12,10.1.1.2,3,-0.070,-0.070,-0.070,0.000,0.000,0.000
1640635274561139968,2021-12-27-20:01:14,10.1.1.2,10,-0.070,-0.070,-0.070,0.000,0.000,0.000
1640635274884538880,2021-12-27-20:01:14,10.1.1.2,15,-0.070,-0.070,-0.070,0.000,0.000,0.000
1640635277003639040,2021-12-27-20:01:17,10.1.1.2,1,-0.070,-0.070,-0.070,0.000,0.000,0.000
1640635277271841024,2021-12-27-20:01:17,10.1.1.2,8,-0.190,-0.190,-0.190,0.000,0.000,0.000
1640635278595643136,2021-12-27-20:01:18,10.1.1.2,17,-0.190,-0.190,-0.190,0.000,0.000,0.000
1640635279416089088,2021-12-27-20:01:19,10.1.1.2,12,-0.190,-0.190,-0.190,0.000,0.000,0.000
1640635280119714048,2021-12-27-20:01:20,10.1.1.2,-1,-0.460,-0.460,-0.460,0.000,0.000,0.000
1640635282139373056,2021-12-27-20:01:22,10.1.1.2,11,-0.460,-0.460,-0.460,0.000,0.000,0.000
1640635283623072000,2021-12-27-20:01:23,10.1.1.2,16,-0.160,-0.160,-0.160,0.000,0.000,0.000
1640635284855767040,2021-12-27-20:01:24,10.1.1.2,19,-0.260,-0.260,-0.260,0.000,0.000,0.000
1640635285945817088,2021-12-27-20:01:25,10.1.1.2,2,-0.260,-0.260,-0.260,0.000,0.000,0.000
1640635286931395072,2021-12-27-20:01:26,10.1.1.2,3,-0.260,-0.260,-0.260,0.000,0.000,0.000
1640635287616069120,2021-12-27-20:01:27,10.1.1.2,11,-0.050,-0.050,-0.050,0.000,0.000,0.000
1640635288875277056,2021-12-27-20:01:28,10.1.1.2,17,-0.350,-0.350,-0.350,0.000,0.000,0.000
1640635290393728000,2021-12-27-20:01:30,10.1.1.2,4,-0.350,-0.350,-0.350,0.000,0.000,0.000
1640635290995501056,2021-12-27-20:01:30,10.1.1.2,2,-0.350,-0.350,-0.350,0.000,0.000,0.000
1640635292470951168,2021-12-27-20:01:32,10.1.1.2,2,-0.350,-0.350,-0.350,0.000,0.000,0.000
1640635293070245888,2021-12-27-20:01:33,10.1.1.2,3,-0.350,-0.350,-0.350,0.000,0.000,0.000
1640635294569565184,2021-12-27-20:01:34,10.1.1.2,1,-0.350,-0.350,-0.350,0.000,0.000,0.000
1640635295208836096,2021-12-27-20:01:35,10.1.1.2,16,-0.350,-0.350,-0.350,0.000,0.000,0.000
1640635296688901888,2021-12-27-20:01:36,10.1.1.2,4,-0.350,-0.350,-0.350,0.000,0.000,0.000
1640635297306086912,2021-12-27-20:01:37,10.1.1.2,17,-0.350,-0.350,-0.350,0.000,0.000,0.000
1640635298804861184,2021-12-27-20:01:38,10.1.1.2,1,-0.350,-0.350,-0.350,0.000,0.000,0.000
1640635299411368960,2021-12-27-20:01:39,10.1.1.2,16,-0.350,-0.350,-0.350,0.000,0.000,0.000
1640635300907694080,2021-12-27-20:01:40,10.1.1.2,3,-0.350,-0.350,-0.350,0.000,0.000,0.000
1640635301523163136,2021-12-27-20:01:41,10.1.1.2,13,-0.350,-0.350,-0.350,0.000,0.000,0.000
1640635303040697088,2021-12-27-20:01:43,10.1.1.2,12,-0.350,-0.350,-0.350,0.000,0.000,0.000
1640635303638989056,2021-12-27-20:01:43,10.1.1.2,4,-0.350,-0.350,-0.350,0.000,0.000,0.000
1640635305136228096,2021-12-27-20:01:45,10.1.1.2,1,-0.350,-0.350,-0.350,0.000,0.000,0.000
1640635305756051968,2021-12-27-20:01:45,10.1.1.2,18,-0.350,-0.350,-0.350,0.000,0.000,0.000
1640635307220777984,2021-12-27-20:01:47,10.1.1.2,4,-0.350,-0.350,-0.350,0.000,0.000,0.000
1640635309288513792,2021-12-27-20:01:49,10.1.1.2,13,-0.350,-0.350,-0.350,0.000,0.000,0.000
1640635309894200064,2021-12-27-20:01:49,10.1.1.2,4,-0.350,-0.350,-0.350,0.000,0.000,0.000
1640635311434483968,2021-12-27-20:01:51,10.1.1.2,13,-0.350,-0.350,-0.350,0.000,0.000,0.000
1640635313536112128,2021-12-27-20:01:53,10.1.1.2,7,-0.350,-0.350,-0.350,0.000,0.000,0.000
1640635315612210944,2021-12-27-20:01:55,10.1.1.2,18,-0.350,-0.350,-0.350,0.000,0.000,0.000
1640635316198316032,2021-12-27-20:01:56,10.1.1.2,19,-0.350,-0.350,-0.350,0.000,0.000,0.000
1640635316458272000,2021-12-27-20:01:56,10.1.1.2,5,-0.220,-0.220,-0.220,0.000,0.000,0.000
1640635317417984000,2021-12-27-20:01:57,10.1.1.2,11,-0.220,-0.220,-0.220,0.000,0.000,0.000
1640635318579783936,2021-12-27-20:01:58,10.1.1.2,17,-0.220,-0.220,-0.220,0.000,0.000,0.000
1640635318981295104,2021-12-27-20:01:58,10.1.1.2,14,-0.030,-0.030,-0.030,0.000,0.000,0.000
1640635319099056896,2021-12-27-20:01:59,10.1.1.2,5,-0.030,-0.030,-0.030,0.000,0.000,0.000
1640635321118504960,2021-12-27-20:02:01,10.1.1.2,3,-0.030,-0.030,-0.030,0.000,0.000,0.000
1640635321517874944,2021-12-27-20:02:01,10.1.1.2,17,-0.140,-0.140,-0.140,0.000,0.000,0.000
1640635323037529088,2021-12-27-20:02:03,10.1.1.2,16,-0.140,-0.140,-0.140,0.000,0.000,0.000
1640635323676621824,2021-12-27-20:02:03,10.1.1.2,18,-0.140,-0.140,-0.140,0.000,0.000,0.000
1640635325194534144,2021-12-27-20:02:05,10.1.1.2,7,-0.140,-0.140,-0.140,0.000,0.000,0.000
1640635325794748928,2021-12-27-20:02:05,10.1.1.2,1,-0.140,-0.140,-0.140,0.000,0.000,0.000
1640635327311528960,2021-12-27-20:02:07,10.1.1.2,10,-0.140,-0.140,-0.140,0.000,0.000,0.000
1640635327970159104,2021-12-27-20:02:07,10.1.1.2,14,-0.140,-0.140,-0.140,0.000,0.000,0.000
1640635329471069952,2021-12-27-20:02:09,10.1.1.2,0,-0.140,-0.140,-0.140,0.000,0.000,0.000
1640635330067068160,2021-12-27-20:02:10,10.1.1.2,10,-0.140,-0.140,-0.140,0.000,0.000,0.000
1640635332205652992,2021-12-27-20:02:12,10.1.1.2,11,-0.140,-0.140,-0.140,0.000,0.000,0.000
1640635333734801920,2021-12-27-20:02:13,10.1.1.2,4,-0.140,-0.140,-0.140,0.000,0.000,0.000
1640635334353899008,2021-12-27-20:02:14,10.1.1.2,12,-0.140,-0.140,-0.140,0.000,0.000,0.000
1640635335870769920,2021-12-27-20:02:15,10.1.1.2,9,-0.140,-0.140,-0.140,0.000,0.000,0.000
1640635336469778944,2021-12-27-20:02:16,10.1.1.2,14,-0.140,-0.140,-0.140,0.000,0.000,0.000
1640635337968077824,2021-12-27-20:02:17,10.1.1.2,6,-0.140,-0.140,-0.140,0.000,0.000,0.000
1640635338571151104,2021-12-27-20:02:18,10.1.1.2,10,-0.140,-0.140,-0.140,0.000,0.000,0.000
1640635340084388864,2021-12-27-20:02:20,10.1.1.2,1,-0.140,-0.140,-0.140,0.000,0.000,0.000
1640635342230493952,2021-12-27-20:02:22,10.1.1.2,10,-0.140,-0.140,-0.140,0.000,0.000,0.000
1640635342831758848,2021-12-27-20:02:22,10.1.1.2,11,-0.140,-0.140,-0.140,0.000,0.000,0.000
1640635343711277056,2021-12-27-20:02:23,10.1.1.2,1,-0.450,-0.450,-0.450,0.000,0.000,0.000
1640635345673378048,2021-12-27-20:02:25,10.1.1.2,17,-0.450,-0.450,-0.450,0.000,0.000,0.000
1640635345836857088,2021-12-27-20:02:25,10.1.1.2,2,-0.450,-0.450,-0.450,0.000,0.000,0.000
1640635347837598208,2021-12-27-20:02:27,10.1.1.2,14,-0.450,-0.450,-0.450,0.000,0.000,0.000
1640635348116708096,2021-12-27-20:02:28,10.1.1.2,7,-0.410,-0.410,-0.410,0.000,0.000,0.000
1640635349897146880,2021-12-27-20:02:29,10.1.1.2,1,-0.410,-0.410,-0.410,0.000,0.000,0.000
1640635350238068992,2021-12-27-20:02:30,10.1.1.2,1,-0.410,-0.410,-0.410,0.000,0.000,0.000
1640635351996524032,2021-12-27-20:02:31,10.1.1.2,13,-0.410,-0.410,-0.410,0.000,0.000,0.000
1640635352338113024,2021-12-27-20:02:32,10.1.1.2,1,-0.410,-0.410,-0.410,0.000,0.000,0.000
1640635354116516096,2021-12-27-20:02:34,10.1.1.2,16,-0.410,-0.410,-0.410,0.000,0.000,0.000
1640635354459779072,2021-12-27-20:02:34,10.1.1.2,4,-0.410,-0.410,-0.410,0.000,0.000,0.000
1640635356243347968,2021-12-27-20:02:36,10.1.1.2,1,-0.410,-0.410,-0.410,0.000,0.000,0.000
1640635356581657856,2021-12-27-20:02:36,10.1.1.2,3,-0.410,-0.410,-0.410,0.000,0.000,0.000
1640635358312675072,2021-12-27-20:02:38,10.1.1.2,6,-0.410,-0.410,-0.410,0.000,0.000,0.000
1640635358652595968,2021-12-27-20:02:38,10.1.1.2,10,-0.410,-0.410,-0.410,0.000,0.000,0.000
1640635360370834176,2021-12-27-20:02:40,10.1.1.2,4,-0.410,-0.410,-0.410,0.000,0.000,0.000
1640635360707435008,2021-12-27-20:02:40,10.1.1.2,2,-0.410,-0.410,-0.410,0.000,0.000,0.000
1640635362453571072,2021-12-27-20:02:42,10.1.1.2,3,-0.410,-0.410,-0.410,0.000,0.000,0.000
1640635364619702016,2021-12-27-20:02:44,10.1.1.2,16,-0.410,-0.410,-0.410,0.000,0.000,0.000
1640635364959410944,2021-12-27-20:02:44,10.1.1.2,8,-0.410,-0.410,-0.410,0.000,0.000,0.000
1640635367053658880,2021-12-27-20:02:47,10.1.1.2,4,-0.410,-0.410,-0.410,0.000,0.000,0.000
1640635368854272000,2021-12-27-20:02:48,10.1.1.2,3,-0.410,-0.410,-0.410,0.000,0.000,0.000
1640635370999486976,2021-12-27-20:02:50,10.1.1.2,3,-0.410,-0.410,-0.410,0.000,0.000,0.000
1640635371340274176,2021-12-27-20:02:51,10.1.1.2,-1,-0.410,-0.410,-0.410,0.000,0.000,0.000
1640635373109275136,2021-12-27-20:02:53,10.1.1.2,19,-0.410,-0.410,-0.410,0.000,0.000,0.000
1640635373432326144,2021-12-27-20:02:53,10.1.1.2,1,-0.410,-0.410,-0.410,0.000,0.000,0.000
1640635375773571072,2021-12-27-20:02:55,10.1.1.2,3,-0.300,-0.300,-0.300,0.000,0.000,0.000
1640635377079353088,2021-12-27-20:02:57,10.1.1.2,5,-0.300,-0.300,-0.300,0.000,0.000,0.000
1640635379242793984,2021-12-27-20:02:59,10.1.1.2,6,-0.300,-0.300,-0.300,0.000,0.000,0.000
1640635380071731200,2021-12-27-20:03:00,10.1.1.2,14,-0.300,-0.300,-0.300,0.000,0.000,0.000
1640635381331484928,2021-12-27-20:03:01,10.1.1.2,6,-0.300,-0.300,-0.300,0.000,0.000,0.000
1640635382143945984,2021-12-27-20:03:02,10.1.1.2,11,-0.300,-0.300,-0.300,0.000,0.000,0.000
1640635384219791872,2021-12-27-20:03:04,10.1.1.2,3,-0.300,-0.300,-0.300,0.000,0.000,0.000
1640635386318764032,2021-12-27-20:03:06,10.1.1.2,4,-0.300,-0.300,-0.300,0.000,0.000,0.000
1640635387619607808,2021-12-27-20:03:07,10.1.1.2,2,-0.300,-0.300,-0.300,0.000,0.000,0.000
1640635389755665152,2021-12-27-20:03:09,10.1.1.2,13,-0.300,-0.300,-0.300,0.000,0.000,0.000
1640635390569763072,2021-12-27-20:03:10,10.1.1.2,1,-0.300,-0.300,-0.300,0.000,0.000,0.000
1640635394027520768,2021-12-27-20:03:14,10.1.1.2,2,-0.300,-0.300,-0.300,0.000,0.000,0.000
1640635394844878848,2021-12-27-20:03:14,10.1.1.2,5,-0.300,-0.300,-0.300,0.000,0.000,0.000
1640635396139341056,2021-12-27-20:03:16,10.1.1.2,3,-0.300,-0.300,-0.300,0.000,0.000,0.000
1640635396996567040,2021-12-27-20:03:16,10.1.1.2,1,-0.300,-0.300,-0.300,0.000,0.000,0.000
1640635398334089984,2021-12-27-20:03:18,10.1.1.2,5,-0.300,-0.300,-0.300,0.000,0.000,0.000
1640635399175162112,2021-12-27-20:03:19,10.1.1.2,16,-0.300,-0.300,-0.300,0.000,0.000,0.000
1640635400470146048,2021-12-27-20:03:20,10.1.1.2,3,-0.300,-0.300,-0.300,0.000,0.000,0.000
1640635401310339840,2021-12-27-20:03:21,10.1.1.2,17,-0.300,-0.300,-0.300,0.000,0.000,0.000
1640635402613807872,2021-12-27-20:03:22,10.1.1.2,1,-0.300,-0.300,-0.300,0.000,0.000,0.000
1640635403416791040,2021-12-27-20:03:23,10.1.1.2,4,-0.300,-0.300,-0.300,0.000,0.000,0.000
1640635404689196032,2021-12-27-20:03:24,10.1.1.2,4,-0.300,-0.300,-0.300,0.000,0.000,0.000
1640635405525257216,2021-12-27-20:03:25,10.1.1.2,1,-0.300,-0.300,-0.300,0.000,0.000,0.000
1640635406847819008,2021-12-27-20:03:26,10.1.1.2,4,-0.300,-0.300,-0.300,0.000,0.000,0.000
1640635407692358912,2021-12-27-20:03:27,10.1.1.2,6,-0.300,-0.300,-0.300,0.000,0.000,0.000
1640635409837712896,2021-12-27-20:03:29,10.1.1.2,8,-0.300,-0.300,-0.300,0.000,0.000,0.000
1640635410298190080,2021-12-27-20:03:30,10.1.1.2,9,-0.090,-0.090,-0.090,0.000,0.000,0.000
1640635410672787968,2021-12-27-20:03:30,10.1.1.2,2,-0.090,-0.090,-0.090,0.000,0.000,0.000
1640635412437052928,2021-12-27-20:03:32,10.1.1.2,1,-0.090,-0.090,-0.090,0.000,0.000,0.000
1640635412820552192,2021-12-27-20:03:32,10.1.1.2,1,-0.090,-0.090,-0.090,0.000,0.000,0.000
1640635414955665152,2021-12-27-20:03:34,10.1.1.2,8,-0.090,-0.090,-0.090,0.000,0.000,0.000
1640635416679841024,2021-12-27-20:03:36,10.1.1.2,3,-0.090,-0.090,-0.090,0.000,0.000,0.000
1640635417078892032,2021-12-27-20:03:37,10.1.1.2,16,-0.090,-0.090,-0.090,0.000,0.000,0.000
1640635418816047872,2021-12-27-20:03:38,10.1.1.2,17,-0.090,-0.090,-0.090,0.000,0.000,0.000
1640635419195842048,2021-12-27-20:03:39,10.1.1.2,15,-0.090,-0.090,-0.090,0.000,0.000,0.000
1640635420914624000,2021-12-27-20:03:40,10.1.1.2,12,-0.090,-0.090,-0.090,0.000,0.000,0.000
1640635421293958912,2021-12-27-20:03:41,10.1.1.2,15,-0.090,-0.090,-0.090,0.000,0.000,0.000
1640635422971596032,2021-12-27-20:03:42,10.1.1.2,12,-0.090,-0.090,-0.090,0.000,0.000,0.000
1640635423351000064,2021-12-27-20:03:43,10.1.1.2,11,-0.090,-0.090,-0.090,0.000,0.000,0.000
1640635425082969856,2021-12-27-20:03:45,10.1.1.2,13,-0.090,-0.090,-0.090,0.000,0.000,0.000
1640635425462938112,2021-12-27-20:03:45,10.1.1.2,13,-0.090,-0.090,-0.090,0.000,0.000,0.000
1640635427200311040,2021-12-27-20:03:47,10.1.1.2,8,-0.090,-0.090,-0.090,0.000,0.000,0.000
1640635427608254976,2021-12-27-20:03:47,10.1.1.2,17,-0.090,-0.090,-0.090,0.000,0.000,0.000
1640635429436384000,2021-12-27-20:03:49,10.1.1.2,16,-0.090,-0.090,-0.090,0.000,0.000,0.000
1640635429816303872,2021-12-27-20:03:49,10.1.1.2,10,-0.090,-0.090,-0.090,0.000,0.000,0.000
1640635431571051008,2021-12-27-20:03:51,10.1.1.2,3,-0.090,-0.090,-0.090,0.000,0.000,0.000
1640635431975549952,2021-12-27-20:03:51,10.1.1.2,4,-0.090,-0.090,-0.090,0.000,0.000,0.000
1640635433693517824,2021-12-27-20:03:53,10.1.1.2,7,-0.090,-0.090,-0.090,0.000,0.000,0.000
1640635434064107008,2021-12-27-20:03:54,10.1.1.2,3,-0.090,-0.090,-0.090,0.000,0.000,0.000
1640635435776574976,2021-12-27-20:03:55,10.1.1.2,6,-0.090,-0.090,-0.090,0.000,0.000,0.000
1640635436159721984,2021-12-27-20:03:56,10.1.1.2,3,-0.090,-0.090,-0.090,0.000,0.000,0.000
1640635437885488896,2021-12-27-20:03:57,10.1.1.2,3,-0.090,-0.090,-0.090,0.000,0.000,0.000
1640635438287339008,2021-12-27-20:03:58,10.1.1.2,1,-0.090,-0.090,-0.090,0.000,0.000,0.000
1640635439769052928,2021-12-27-20:03:59,10.1.1.2,16,-0.230,-0.230,-0.230,0.000,0.000,0.000
1640635440751493888,2021-12-27-20:04:00,10.1.1.2,11,-0.230,-0.230,-0.230,0.000,0.000,0.000
1640635441873630976,2021-12-27-20:04:01,10.1.1.2,2,-0.230,-0.230,-0.230,0.000,0.000,0.000
1640635442854039040,2021-12-27-20:04:02,10.1.1.2,18,-0.230,-0.230,-0.230,0.000,0.000,0.000
1640635443934999040,2021-12-27-20:04:03,10.1.1.2,7,-0.230,-0.230,-0.230,0.000,0.000,0.000
1640635444935888128,2021-12-27-20:04:04,10.1.1.2,3,-0.230,-0.230,-0.230,0.000,0.000,0.000
1640635446055309056,2021-12-27-20:04:06,10.1.1.2,5,-0.230,-0.230,-0.230,0.000,0.000,0.000
1640635447035234816,2021-12-27-20:04:07,10.1.1.2,7,-0.230,-0.230,-0.230,0.000,0.000,0.000
1640635449139686144,2021-12-27-20:04:09,10.1.1.2,2,-0.230,-0.230,-0.230,0.000,0.000,0.000
1640635450275130880,2021-12-27-20:04:10,10.1.1.2,6,-0.230,-0.230,-0.230,0.000,0.000,0.000
1640635451252752128,2021-12-27-20:04:11,10.1.1.2,4,-0.230,-0.230,-0.230,0.000,0.000,0.000
1640635452332434944,2021-12-27-20:04:12,10.1.1.2,9,-0.240,-0.240,-0.240,0.000,0.000,0.000
1640635453352129024,2021-12-27-20:04:13,10.1.1.2,14,-0.240,-0.240,-0.240,0.000,0.000,0.000
1640635454434156032,2021-12-27-20:04:14,10.1.1.2,15,-0.240,-0.240,-0.240,0.000,0.000,0.000
1640635455449464064,2021-12-27-20:04:15,10.1.1.2,10,-0.240,-0.240,-0.240,0.000,0.000,0.000
1640635456548558080,2021-12-27-20:04:16,10.1.1.2,9,-0.240,-0.240,-0.240,0.000,0.000,0.000
1640635457580941056,2021-12-27-20:04:17,10.1.1.2,2,-0.240,-0.240,-0.240,0.000,0.000,0.000
1640635458663036160,2021-12-27-20:04:18,10.1.1.2,13,-0.240,-0.240,-0.240,0.000,0.000,0.000
1640635459687234048,2021-12-27-20:04:19,10.1.1.2,3,-0.240,-0.240,-0.240,0.000,0.000,0.000
1640635461821768960,2021-12-27-20:04:21,10.1.1.2,11,-0.240,-0.240,-0.240,0.000,0.000,0.000
1640635462900114176,2021-12-27-20:04:22,10.1.1.2,8,-0.240,-0.240,-0.240,0.000,0.000,0.000
1640635463921099008,2021-12-27-20:04:23,10.1.1.2,7,-0.240,-0.240,-0.240,0.000,0.000,0.000
1640635464977835776,2021-12-27-20:04:24,10.1.1.2,1,-0.240,-0.240,-0.240,0.000,0.000,0.000
1640635466036361984,2021-12-27-20:04:26,10.1.1.2,16,-0.240,-0.240,-0.240,0.000,0.000,0.000
1640635467093889024,2021-12-27-20:04:27,10.1.1.2,6,-0.240,-0.240,-0.240,0.000,0.000,0.000
1640635468139859968,2021-12-27-20:04:28,10.1.1.2,18,-0.240,-0.240,-0.240,0.000,0.000,0.000
1640635470241859840,2021-12-27-20:04:30,10.1.1.2,3,-0.240,-0.240,-0.240,0.000,0.000,0.000
1640635471348036096,2021-12-27-20:04:31,10.1.1.2,2,-0.240,-0.240,-0.240,0.000,0.000,0.000
1640635472377128960,2021-12-27-20:04:32,10.1.1.2,1,-0.240,-0.240,-0.240,0.000,0.000,0.000
1640635473479425792,2021-12-27-20:04:33,10.1.1.2,15,-0.240,-0.240,-0.240,0.000,0.000,0.000
1640635475973882880,2021-12-27-20:04:35,10.1.1.2,11,-0.060,-0.060,-0.060,0.000,0.000,0.000
1640635476233726976,2021-12-27-20:04:36,10.1.1.2,14,-0.060,-0.060,-0.060,0.000,0.000,0.000
1640635478103288832,2021-12-27-20:04:38,10.1.1.2,4,-0.060,-0.060,-0.060,0.000,0.000,0.000
1640635478374452224,2021-12-27-20:04:38,10.1.1.2,18,-0.060,-0.060,-0.060,0.000,0.000,0.000
1640635480194124032,2021-12-27-20:04:40,10.1.1.2,2,-0.060,-0.060,-0.060,0.000,0.000,0.000
1640635480453191936,2021-12-27-20:04:40,10.1.1.2,10,-0.060,-0.060,-0.060,0.000,0.000,0.000
1640635482274107904,2021-12-27-20:04:42,10.1.1.2,0,-0.060,-0.060,-0.060,0.000,0.000,0.000
1640635482533998080,2021-12-27-20:04:42,10.1.1.2,8,-0.060,-0.060,-0.060,0.000,0.000,0.000
1640635484391393792,2021-12-27-20:04:44,10.1.1.2,15,-0.060,-0.060,-0.060,0.000,0.000,0.000
1640635484642404096,2021-12-27-20:04:44,10.1.1.2,6,-0.060,-0.060,-0.060,0.000,0.000,0.000
1640635486509334016,2021-12-27-20:04:46,10.1.1.2,17,-0.060,-0.060,-0.060,0.000,0.000,0.000
1640635486749522944,2021-12-27-20:04:46,10.1.1.2,5,-0.060,-0.060,-0.060,0.000,0.000,0.000
1640635488506383872,2021-12-27-20:04:48,10.1.1.2,7,-0.110,-0.110,-0.110,0.000,0.000,0.000
1640635488985979136,2021-12-27-20:04:48,10.1.1.2,15,-0.110,-0.110,-0.110,0.000,0.000,0.000
1640635490622728960,2021-12-27-20:04:50,10.1.1.2,18,-0.110,-0.110,-0.110,0.000,0.000,0.000
1640635491084633088,2021-12-27-20:04:51,10.1.1.2,2,-0.110,-0.110,-0.110,0.000,0.000,0.000
1640635492700747008,2021-12-27-20:04:52,10.1.1.2,10,-0.110,-0.110,-0.110,0.000,0.000,0.000
1640635493159465984,2021-12-27-20:04:53,10.1.1.2,7,-0.110,-0.110,-0.110,0.000,0.000,0.000
1640635494778119936,2021-12-27-20:04:54,10.1.1.2,7,-0.110,-0.110,-0.110,0.000,0.000,0.000
1640635495256881920,2021-12-27-20:04:55,10.1.1.2,19,-0.110,-0.110,-0.110,0.000,0.000,0.000
1640635496833750016,2021-12-27-20:04:56,10.1.1.2,3,-0.110,-0.110,-0.110,0.000,0.000,0.000
1640635497293409024,2021-12-27-20:04:57,10.1.1.2,5,-0.110,-0.110,-0.110,0.000,0.000,0.000
1640635498911892992,2021-12-27-20:04:58,10.1.1.2,4,-0.110,-0.110,-0.110,0.000,0.000,0.000
1640635501023513088,2021-12-27-20:05:01,10.1.1.2,15,-0.110,-0.110,-0.110,0.000,0.000,0.000
1640635503148630016,2021-12-27-20:05:03,10.1.1.2,17,-0.110,-0.110,-0.110,0.000,0.000,0.000
1640635503610727936,2021-12-27-20:05:03,10.1.1.2,6,-0.110,-0.110,-0.110,0.000,0.000,0.000
1640635504732084992,2021-12-27-20:05:04,10.1.1.2,12,-0.360,-0.360,-0.360,0.000,0.000,0.000
1640635505674180864,2021-12-27-20:05:05,10.1.1.2,14,-0.090,-0.090,-0.090,0.000,0.000,0.000
1640635507396702976,2021-12-27-20:05:07,10.1.1.2,4,-0.090,-0.090,-0.090,0.000,0.000,0.000
1640635507779520000,2021-12-27-20:05:07,10.1.1.2,0,-0.090,-0.090,-0.090,0.000,0.000,0.000
1640635509517731072,2021-12-27-20:05:09,10.1.1.2,12,-0.090,-0.090,-0.090,0.000,0.000,0.000
1640635511577900032,2021-12-27-20:05:11,10.1.1.2,1,-0.090,-0.090,-0.090,0.000,0.000,0.000
1640635511977622016,2021-12-27-20:05:11,10.1.1.2,7,-0.090,-0.090,-0.090,0.000,0.000,0.000
1640635513698245888,2021-12-27-20:05:13,10.1.1.2,-1,-0.090,-0.090,-0.090,0.000,0.000,0.000
1640635515894018816,2021-12-27-20:05:15,10.1.1.2,9,-0.030,-0.030,-0.030,0.000,0.000,0.000
1640635516013710080,2021-12-27-20:05:16,10.1.1.2,2,-0.030,-0.030,-0.030,0.000,0.000,0.000
1640635518035678976,2021-12-27-20:05:18,10.1.1.2,11,-0.030,-0.030,-0.030,0.000,0.000,0.000
1640635518174343936,2021-12-27-20:05:18,10.1.1.2,18,-0.030,-0.030,-0.030,0.000,0.000,0.000
1640635520312961024,2021-12-27-20:05:20,10.1.1.2,1,-0.060,-0.060,-0.060,0.000,0.000,0.000
1640635522201967872,2021-12-27-20:05:22,10.1.1.2,13,-0.060,-0.060,-0.060,0.000,0.000,0.000
1640635522462760960,2021-12-27-20:05:22,10.1.1.2,12,-0.060,-0.060,-0.060,0.000,0.000,0.000
1640635524539918848,2021-12-27-20:05:24,10.1.1.2,3,-0.060,-0.060,-0.060,0.000,0.000,0.000
1640635526357754880,2021-12-27-20:05:26,10.1.1.2,11,-0.060,-0.060,-0.060,0.000,0.000,0.000
1640635526620194048,2021-12-27-20:05:26,10.1.1.2,20,-0.060,-0.060,-0.060,0.000,0.000,0.000
1640635528434361088,2021-12-27-20:05:28,10.1.1.2,1,-0.060,-0.060,-0.060,0.000,0.000,0.000
1640635528692864000,2021-12-27-20:05:28,10.1.1.2,7,-0.060,-0.060,-0.060,0.000,0.000,0.000
1640635530609996032,2021-12-27-20:05:30,10.1.1.2,16,-0.060,-0.060,-0.060,0.000,0.000,0.000
1640635530869196032,2021-12-27-20:05:30,10.1.1.2,16,-0.060,-0.060,-0.060,0.000,0.000,0.000
1640635532737415936,2021-12-27-20:05:32,10.1.1.2,11,-0.060,-0.060,-0.060,0.000,0.000,0.000
1640635532999201024,2021-12-27-20:05:32,10.1.1.2,15,-0.060,-0.060,-0.060,0.000,0.000,0.000
1640635534868196096,2021-12-27-20:05:34,10.1.1.2,14,-0.060,-0.060,-0.060,0.000,0.000,0.000
1640635535128948992,2021-12-27-20:05:35,10.1.1.2,18,-0.060,-0.060,-0.060,0.000,0.000,0.000
1640635536964870912,2021-12-27-20:05:36,10.1.1.2,2,-0.060,-0.060,-0.060,0.000,0.000,0.000
1640635537234051072,2021-12-27-20:05:37,10.1.1.2,13,-0.060,-0.060,-0.060,0.000,0.000,0.000
1640635539095185920,2021-12-27-20:05:39,10.1.1.2,5,-0.060,-0.060,-0.060,0.000,0.000,0.000
1640635539359534080,2021-12-27-20:05:39,10.1.1.2,2,-0.060,-0.060,-0.060,0.000,0.000,0.000
1640635541238092032,2021-12-27-20:05:41,10.1.1.2,7,-0.060,-0.060,-0.060,0.000,0.000,0.000
1640635541497182976,2021-12-27-20:05:41,10.1.1.2,3,-0.060,-0.060,-0.060,0.000,0.000,0.000
1640635543322732800,2021-12-27-20:05:43,10.1.1.2,4,-0.060,-0.060,-0.060,0.000,0.000,0.000
1640635543587342080,2021-12-27-20:05:43,10.1.1.2,5,-0.060,-0.060,-0.060,0.000,0.000,0.000
1640635543621662976,2021-12-27-20:05:43,10.1.1.2,17,-0.070,-0.070,-0.070,0.000,0.000,0.000
1640635545457398784,2021-12-27-20:05:45,10.1.1.2,7,-0.070,-0.070,-0.070,0.000,0.000,0.000
1640635545758161152,2021-12-27-20:05:45,10.1.1.2,5,-0.070,-0.070,-0.070,0.000,0.000,0.000
1640635547591904000,2021-12-27-20:05:47,10.1.1.2,3,-0.070,-0.070,-0.070,0.000,0.000,0.000
1640635547883655936,2021-12-27-20:05:47,10.1.1.2,2,-0.070,-0.070,-0.070,0.000,0.000,0.000
1640635549692729088,2021-12-27-20:05:49,10.1.1.2,13,-0.070,-0.070,-0.070,0.000,0.000,0.000
1640635549992534016,2021-12-27-20:05:49,10.1.1.2,19,-0.070,-0.070,-0.070,0.000,0.000,0.000
1640635551741734144,2021-12-27-20:05:51,10.1.1.2,2,-0.070,-0.070,-0.070,0.000,0.000,0.000
1640635552049787904,2021-12-27-20:05:52,10.1.1.2,17,-0.070,-0.070,-0.070,0.000,0.000,0.000
1640635553821417984,2021-12-27-20:05:53,10.1.1.2,4,-0.070,-0.070,-0.070,0.000,0.000,0.000
1640635554120506880,2021-12-27-20:05:54,10.1.1.2,5,-0.070,-0.070,-0.070,0.000,0.000,0.000
1640635556206574080,2021-12-27-20:05:56,10.1.1.2,19,-0.070,-0.070,-0.070,0.000,0.000,0.000
1640635558023198976,2021-12-27-20:05:58,10.1.1.2,9,-0.070,-0.070,-0.070,0.000,0.000,0.000
1640635558322592000,2021-12-27-20:05:58,10.1.1.2,6,-0.070,-0.070,-0.070,0.000,0.000,0.000
1640635560140336128,2021-12-27-20:06:00,10.1.1.2,13,-0.070,-0.070,-0.070,0.000,0.000,0.000
1640635562218611968,2021-12-27-20:06:02,10.1.1.2,13,-0.070,-0.070,-0.070,0.000,0.000,0.000
1640635562516124928,2021-12-27-20:06:02,10.1.1.2,11,-0.070,-0.070,-0.070,0.000,0.000,0.000
1640635564308199936,2021-12-27-20:06:04,10.1.1.2,5,-0.070,-0.070,-0.070,0.000,0.000,0.000
1640635564611696128,2021-12-27-20:06:04,10.1.1.2,10,-0.070,-0.070,-0.070,0.000,0.000,0.000
1640635566396876032,2021-12-27-20:06:06,10.1.1.2,6,-0.070,-0.070,-0.070,0.000,0.000,0.000
1640635566688472064,2021-12-27-20:06:06,10.1.1.2,2,-0.070,-0.070,-0.070,0.000,0.000,0.000
1640635568545661952,2021-12-27-20:06:08,10.1.1.2,4,-0.070,-0.070,-0.070,0.000,0.000,0.000
1640635568846831104,2021-12-27-20:06:08,10.1.1.2,12,-0.070,-0.070,-0.070,0.000,0.000,0.000
1640635570610574848,2021-12-27-20:06:10,10.1.1.2,3,-0.070,-0.070,-0.070,0.000,0.000,0.000
1640635570911559168,2021-12-27-20:06:10,10.1.1.2,4,-0.070,-0.070,-0.070,0.000,0.000,0.000
1640635572711878144,2021-12-27-20:06:12,10.1.1.2,14,-0.070,-0.070,-0.070,0.000,0.000,0.000
1640635573011902208,2021-12-27-20:06:13,10.1.1.2,17,-0.070,-0.070,-0.070,0.000,0.000,0.000
1640635574812366848,2021-12-27-20:06:14,10.1.1.2,2,-0.070,-0.070,-0.070,0.000,0.000,0.000
1640635575133007104,2021-12-27-20:06:15,10.1.1.2,6,-0.070,-0.070,-0.070,0.000,0.000,0.000
1640635577016012032,2021-12-27-20:06:17,10.1.1.2,10,-0.070,-0.070,-0.070,0.000,0.000,0.000
1640635577314599936,2021-12-27-20:06:17,10.1.1.2,5,-0.070,-0.070,-0.070,0.000,0.000,0.000
1640635578494977024,2021-12-27-20:06:18,10.1.1.2,6,-0.360,-0.360,-0.360,0.000,0.000,0.000
1640635578893511168,2021-12-27-20:06:18,10.1.1.2,6,-0.180,-0.180,-0.180,0.000,0.000,0.000
1640635579692930816,2021-12-27-20:06:19,10.1.1.2,16,-0.180,-0.180,-0.180,0.000,0.000,0.000
1640635581040396032,2021-12-27-20:06:21,10.1.1.2,3,-0.180,-0.180,-0.180,0.000,0.000,0.000
1640635581811606016,2021-12-27-20:06:21,10.1.1.2,8,-0.180,-0.180,-0.180,0.000,0.000,0.000
1640635582111619072,2021-12-27-20:06:22,10.1.1.2,13,-0.320,-0.320,-0.320,0.000,0.000,0.000
1640635582850157056,2021-12-27-20:06:22,10.1.1.2,14,-0.320,-0.320,-0.320,0.000,0.000,0.000
1640635584209149952,2021-12-27-20:06:24,10.1.1.2,14,-0.320,-0.320,-0.320,0.000,0.000,0.000
1640635584923078912,2021-12-27-20:06:24,10.1.1.2,4,-0.320,-0.320,-0.320,0.000,0.000,0.000
1640635586296521984,2021-12-27-20:06:26,10.1.1.2,2,-0.320,-0.320,-0.320,0.000,0.000,0.000
1640635587024902144,2021-12-27-20:06:27,10.1.1.2,17,-0.320,-0.320,-0.320,0.000,0.000,0.000
1640635588383673856,2021-12-27-20:06:28,10.1.1.2,15,-0.320,-0.320,-0.320,0.000,0.000,0.000
1640635589122216960,2021-12-27-20:06:29,10.1.1.2,19,-0.320,-0.320,-0.320,0.000,0.000,0.000
1640635591215598080,2021-12-27-20:06:31,10.1.1.2,4,-0.320,-0.320,-0.320,0.000,0.000,0.000
1640635592577634048,2021-12-27-20:06:32,10.1.1.2,3,-0.320,-0.320,-0.320,0.000,0.000,0.000
1640635593287467008,2021-12-27-20:06:33,10.1.1.2,2,-0.320,-0.320,-0.320,0.000,0.000,0.000
1640635594693414912,2021-12-27-20:06:34,10.1.1.2,13,-0.320,-0.320,-0.320,0.000,0.000,0.000
1640635595419311104,2021-12-27-20:06:35,10.1.1.2,16,-0.320,-0.320,-0.320,0.000,0.000,0.000
1640635596790780928,2021-12-27-20:06:36,10.1.1.2,3,-0.320,-0.320,-0.320,0.000,0.000,0.000
1640635597540743168,2021-12-27-20:06:37,10.1.1.2,15,-0.320,-0.320,-0.320,0.000,0.000,0.000
1640635598969431040,2021-12-27-20:06:38,10.1.1.2,1,-0.320,-0.320,-0.320,0.000,0.000,0.000
1640635599714577920,2021-12-27-20:06:39,10.1.1.2,3,-0.320,-0.320,-0.320,0.000,0.000,0.000
1640635601111011072,2021-12-27-20:06:41,10.1.1.2,4,-0.320,-0.320,-0.320,0.000,0.000,0.000
1640635601849809920,2021-12-27-20:06:41,10.1.1.2,1,-0.320,-0.320,-0.320,0.000,0.000,0.000
1640635603250946048,2021-12-27-20:06:43,10.1.1.2,17,-0.320,-0.320,-0.320,0.000,0.000,0.000
1640635603972070912,2021-12-27-20:06:43,10.1.1.2,8,-0.320,-0.320,-0.320,0.000,0.000,0.000
1640635605352737024,2021-12-27-20:06:45,10.1.1.2,17,-0.320,-0.320,-0.320,0.000,0.000,0.000
1640635606112150784,2021-12-27-20:06:46,10.1.1.2,11,-0.320,-0.320,-0.320,0.000,0.000,0.000
1640635607452153856,2021-12-27-20:06:47,10.1.1.2,2,-0.320,-0.320,-0.320,0.000,0.000,0.000
1640635608172666112,2021-12-27-20:06:48,10.1.1.2,1,-0.320,-0.320,-0.320,0.000,0.000,0.000
1640635609574574848,2021-12-27-20:06:49,10.1.1.2,3,-0.320,-0.320,-0.320,0.000,0.000,0.000
1640635610308777984,2021-12-27-20:06:50,10.1.1.2,3,-0.320,-0.320,-0.320,0.000,0.000,0.000
1640635611691427072,2021-12-27-20:06:51,10.1.1.2,1,-0.320,-0.320,-0.320,0.000,0.000,0.000
1640635612470833152,2021-12-27-20:06:52,10.1.1.2,15,-0.320,-0.320,-0.320,0.000,0.000,0.000
1640635613909840128,2021-12-27-20:06:53,10.1.1.2,17,-0.320,-0.320,-0.320,0.000,0.000,0.000
1640635614628596992,2021-12-27-20:06:54,10.1.1.2,5,-0.320,-0.320,-0.320,0.000,0.000,0.000
1640635615487077888,2021-12-27-20:06:55,10.1.1.2,16,-0.070,-0.070,-0.070,0.000,0.000,0.000
1640635617287977984,2021-12-27-20:06:57,10.1.1.2,10,-0.070,-0.070,-0.070,0.000,0.000,0.000
1640635617586225152,2021-12-27-20:06:57,10.1.1.2,17,-0.070,-0.070,-0.070,0.000,0.000,0.000
1640635618924491776,2021-12-27-20:06:58,10.1.1.2,5,-0.280,-0.280,-0.280,0.000,0.000,0.000
1640635620183520000,2021-12-27-20:07:00,10.1.1.2,10,-0.280,-0.280,-0.280,0.000,0.000,0.000
1640635621093102080,2021-12-27-20:07:01,10.1.1.2,3,-0.280,-0.280,-0.280,0.000,0.000,0.000
1640635622280702208,2021-12-27-20:07:02,10.1.1.2,6,-0.280,-0.280,-0.280,0.000,0.000,0.000
1640635623179849984,2021-12-27-20:07:03,10.1.1.2,8,-0.280,-0.280,-0.280,0.000,0.000,0.000
1640635624400121856,2021-12-27-20:07:04,10.1.1.2,17,-0.280,-0.280,-0.280,0.000,0.000,0.000
1640635625323947008,2021-12-27-20:07:05,10.1.1.2,1,-0.280,-0.280,-0.280,0.000,0.000,0.000
1640635626597185024,2021-12-27-20:07:06,10.1.1.2,16,-0.280,-0.280,-0.280,0.000,0.000,0.000
1640635627483456000,2021-12-27-20:07:07,10.1.1.2,2,-0.280,-0.280,-0.280,0.000,0.000,0.000
1640635628714950144,2021-12-27-20:07:08,10.1.1.2,19,-0.280,-0.280,-0.280,0.000,0.000,0.000
1640635629617113088,2021-12-27-20:07:09,10.1.1.2,6,-0.280,-0.280,-0.280,0.000,0.000,0.000
1640635630800942848,2021-12-27-20:07:10,10.1.1.2,10,-0.280,-0.280,-0.280,0.000,0.000,0.000
1640635631704826112,2021-12-27-20:07:11,10.1.1.2,10,-0.280,-0.280,-0.280,0.000,0.000,0.000
1640635632928221952,2021-12-27-20:07:12,10.1.1.2,6,-0.280,-0.280,-0.280,0.000,0.000,0.000
1640635633856282880,2021-12-27-20:07:13,10.1.1.2,8,-0.280,-0.280,-0.280,0.000,0.000,0.000
1640635635051310080,2021-12-27-20:07:15,10.1.1.2,2,-0.280,-0.280,-0.280,0.000,0.000,0.000
1640635637530982912,2021-12-27-20:07:17,10.1.1.2,10,-0.430,-0.430,-0.430,0.000,0.000,0.000
1640635637790947072,2021-12-27-20:07:17,10.1.1.2,15,-0.430,-0.430,-0.430,0.000,0.000,0.000
1640635639653094144,2021-12-27-20:07:19,10.1.1.2,9,-0.430,-0.430,-0.430,0.000,0.000,0.000
1640635639911692032,2021-12-27-20:07:19,10.1.1.2,17,-0.430,-0.430,-0.430,0.000,0.000,0.000
1640635641970521856,2021-12-27-20:07:21,10.1.1.2,2,-0.430,-0.430,-0.430,0.000,0.000,0.000
1640635643670707968,2021-12-27-20:07:23,10.1.1.2,13,-0.360,-0.360,-0.360,0.000,0.000,0.000
1640635644229733888,2021-12-27-20:07:24,10.1.1.2,12,-0.360,-0.360,-0.360,0.000,0.000,0.000
1640635645792032000,2021-12-27-20:07:25,10.1.1.2,4,-0.360,-0.360,-0.360,0.000,0.000,0.000
1640635646050033152,2021-12-27-20:07:26,10.1.1.2,13,-0.470,-0.470,-0.470,0.000,0.000,0.000
1640635646130042112,2021-12-27-20:07:26,10.1.1.2,6,-0.470,-0.470,-0.470,0.000,0.000,0.000
1640635647268215808,2021-12-27-20:07:27,10.1.1.2,1,-0.050,-0.050,-0.050,0.000,0.000,0.000
1640635649165726976,2021-12-27-20:07:29,10.1.1.2,5,-0.050,-0.050,-0.050,0.000,0.000,0.000
1640635649385879040,2021-12-27-20:07:29,10.1.1.2,9,-0.050,-0.050,-0.050,0.000,0.000,0.000
1640635651282629120,2021-12-27-20:07:31,10.1.1.2,19,-0.050,-0.050,-0.050,0.000,0.000,0.000
1640635651481779200,2021-12-27-20:07:31,10.1.1.2,4,-0.050,-0.050,-0.050,0.000,0.000,0.000
1640635653379607808,2021-12-27-20:07:33,10.1.1.2,4,-0.050,-0.050,-0.050,0.000,0.000,0.000
1640635653599205120,2021-12-27-20:07:33,10.1.1.2,15,-0.050,-0.050,-0.050,0.000,0.000,0.000
1640635655476339200,2021-12-27-20:07:35,10.1.1.2,19,-0.050,-0.050,-0.050,0.000,0.000,0.000
1640635655676538880,2021-12-27-20:07:35,10.1.1.2,10,-0.050,-0.050,-0.050,0.000,0.000,0.000
1640635657533693952,2021-12-27-20:07:37,10.1.1.2,7,-0.050,-0.050,-0.050,0.000,0.000,0.000
1640635657753544192,2021-12-27-20:07:37,10.1.1.2,18,-0.050,-0.050,-0.050,0.000,0.000,0.000
1640635659610835200,2021-12-27-20:07:39,10.1.1.2,10,-0.050,-0.050,-0.050,0.000,0.000,0.000
1640635659831003904,2021-12-27-20:07:39,10.1.1.2,19,-0.050,-0.050,-0.050,0.000,0.000,0.000
1640635661765778176,2021-12-27-20:07:41,10.1.1.2,2,-0.050,-0.050,-0.050,0.000,0.000,0.000
1640635661980624896,2021-12-27-20:07:41,10.1.1.2,2,-0.050,-0.050,-0.050,0.000,0.000,0.000
1640635663851074048,2021-12-27-20:07:43,10.1.1.2,3,-0.050,-0.050,-0.050,0.000,0.000,0.000
1640635664066060032,2021-12-27-20:07:44,10.1.1.2,8,-0.050,-0.050,-0.050,0.000,0.000,0.000
1640635665969882880,2021-12-27-20:07:45,10.1.1.2,17,-0.050,-0.050,-0.050,0.000,0.000,0.000
1640635666190288128,2021-12-27-20:07:46,10.1.1.2,18,-0.050,-0.050,-0.050,0.000,0.000,0.000
1640635668052400128,2021-12-27-20:07:48,10.1.1.2,2,-0.050,-0.050,-0.050,0.000,0.000,0.000
1640635668282188032,2021-12-27-20:07:48,10.1.1.2,17,-0.050,-0.050,-0.050,0.000,0.000,0.000
1640635670214819072,2021-12-27-20:07:50,10.1.1.2,2,-0.050,-0.050,-0.050,0.000,0.000,0.000
1640635670433548032,2021-12-27-20:07:50,10.1.1.2,6,-0.050,-0.050,-0.050,0.000,0.000,0.000
1640635672914226944,2021-12-27-20:07:52,10.1.1.2,8,-0.240,-0.240,-0.240,0.000,0.000,0.000
1640635673971781120,2021-12-27-20:07:53,10.1.1.2,5,-0.240,-0.240,-0.240,0.000,0.000,0.000
1640635675011769088,2021-12-27-20:07:55,10.1.1.2,15,-0.240,-0.240,-0.240,0.000,0.000,0.000
1640635676111227136,2021-12-27-20:07:56,10.1.1.2,14,-0.240,-0.240,-0.240,0.000,0.000,0.000
1640635677128645888,2021-12-27-20:07:57,10.1.1.2,5,-0.240,-0.240,-0.240,0.000,0.000,0.000
1640635677449223168,2021-12-27-20:07:57,10.1.1.2,16,-0.380,-0.380,-0.380,0.000,0.000,0.000
1640635677909177088,2021-12-27-20:07:57,10.1.1.2,5,-0.380,-0.380,-0.380,0.000,0.000,0.000
1640635679547542016,2021-12-27-20:07:59,10.1.1.2,2,-0.380,-0.380,-0.380,0.000,0.000,0.000
1640635680026347008,2021-12-27-20:08:00,10.1.1.2,8,-0.380,-0.380,-0.380,0.000,0.000,0.000
1640635682105186048,2021-12-27-20:08:02,10.1.1.2,3,-0.380,-0.380,-0.380,0.000,0.000,0.000
1640635683721484800,2021-12-27-20:08:03,10.1.1.2,12,-0.380,-0.380,-0.380,0.000,0.000,0.000
1640635684200702976,2021-12-27-20:08:04,10.1.1.2,15,-0.380,-0.380,-0.380,0.000,0.000,0.000
1640635685824614144,2021-12-27-20:08:05,10.1.1.2,3,-0.380,-0.380,-0.380,0.000,0.000,0.000
1640635686318369024,2021-12-27-20:08:06,10.1.1.2,2,-0.380,-0.380,-0.380,0.000,0.000,0.000
1640635688030834944,2021-12-27-20:08:08,10.1.1.2,3,-0.380,-0.380,-0.380,0.000,0.000,0.000
1640635688511454208,2021-12-27-20:08:08,10.1.1.2,1,-0.380,-0.380,-0.380,0.000,0.000,0.000
1640635690238100992,2021-12-27-20:08:10,10.1.1.2,7,-0.380,-0.380,-0.380,0.000,0.000,0.000
1640635690724868096,2021-12-27-20:08:10,10.1.1.2,3,-0.380,-0.380,-0.380,0.000,0.000,0.000
1640635692414604032,2021-12-27-20:08:12,10.1.1.2,12,-0.380,-0.380,-0.380,0.000,0.000,0.000
1640635692874375936,2021-12-27-20:08:12,10.1.1.2,3,-0.380,-0.380,-0.380,0.000,0.000,0.000
1640635694521811968,2021-12-27-20:08:14,10.1.1.2,7,-0.380,-0.380,-0.380,0.000,0.000,0.000
1640635695003886080,2021-12-27-20:08:15,10.1.1.2,10,-0.380,-0.380,-0.380,0.000,0.000,0.000
1640635697126204928,2021-12-27-20:08:17,10.1.1.2,2,-0.380,-0.380,-0.380,0.000,0.000,0.000
1640635698723810816,2021-12-27-20:08:18,10.1.1.2,3,-0.380,-0.380,-0.380,0.000,0.000,0.000
1640635699191131136,2021-12-27-20:08:19,10.1.1.2,3,-0.380,-0.380,-0.380,0.000,0.000,0.000
1640635701311575808,2021-12-27-20:08:21,10.1.1.2,11,-0.380,-0.380,-0.380,0.000,0.000,0.000
1640635704120384000,2021-12-27-20:08:24,10.1.1.2,14,-0.030,-0.030,-0.030,0.000,0.000,0.000
1640635704238380800,2021-12-27-20:08:24,10.1.1.2,3,-0.030,-0.030,-0.030,0.000,0.000,0.000
1640635705775963136,2021-12-27-20:08:25,10.1.1.2,2,-0.220,-0.220,-0.220,0.000,0.000,0.000
1640635706712766976,2021-12-27-20:08:26,10.1.1.2,18,-0.220,-0.220,-0.220,0.000,0.000,0.000
1640635707871234816,2021-12-27-20:08:27,10.1.1.2,15,-0.220,-0.220,-0.220,0.000,0.000,0.000
1640635708830715904,2021-12-27-20:08:28,10.1.1.2,16,-0.220,-0.220,-0.220,0.000,0.000,0.000
1640635709993074944,2021-12-27-20:08:29,10.1.1.2,10,-0.220,-0.220,-0.220,0.000,0.000,0.000
1640635710937112064,2021-12-27-20:08:30,10.1.1.2,1,-0.220,-0.220,-0.220,0.000,0.000,0.000
1640635713089715968,2021-12-27-20:08:33,10.1.1.2,16,-0.220,-0.220,-0.220,0.000,0.000,0.000
1640635714670032896,2021-12-27-20:08:34,10.1.1.2,6,-0.020,-0.020,-0.020,0.000,0.000,0.000
1640635714767486208,2021-12-27-20:08:34,10.1.1.2,16,-0.020,-0.020,-0.020,0.000,0.000,0.000
1640635716824975104,2021-12-27-20:08:36,10.1.1.2,13,-0.020,-0.020,-0.020,0.000,0.000,0.000
1640635716904584960,2021-12-27-20:08:36,10.1.1.2,8,-0.020,-0.020,-0.020,0.000,0.000,0.000
1640635718921266176,2021-12-27-20:08:38,10.1.1.2,4,-0.020,-0.020,-0.020,0.000,0.000,0.000
1640635719008904960,2021-12-27-20:08:39,10.1.1.2,3,-0.020,-0.020,-0.020,0.000,0.000,0.000
1640635721078397952,2021-12-27-20:08:41,10.1.1.2,4,-0.020,-0.020,-0.020,0.000,0.000,0.000
1640635721179388160,2021-12-27-20:08:41,10.1.1.2,17,-0.020,-0.020,-0.020,0.000,0.000,0.000
1640635723227657984,2021-12-27-20:08:43,10.1.1.2,3,-0.020,-0.020,-0.020,0.000,0.000,0.000
1640635723310386944,2021-12-27-20:08:43,10.1.1.2,3,-0.020,-0.020,-0.020,0.000,0.000,0.000
1640635725328198912,2021-12-27-20:08:45,10.1.1.2,17,-0.020,-0.020,-0.020,0.000,0.000,0.000
1640635725408219136,2021-12-27-20:08:45,10.1.1.2,12,-0.020,-0.020,-0.020,0.000,0.000,0.000
1640635727442308864,2021-12-27-20:08:47,10.1.1.2,2,-0.020,-0.020,-0.020,0.000,0.000,0.000
1640635727541986048,2021-12-27-20:08:47,10.1.1.2,14,-0.020,-0.020,-0.020,0.000,0.000,0.000
1640635729563930112,2021-12-27-20:08:49,10.1.1.2,11,-0.020,-0.020,-0.020,0.000,0.000,0.000
1640635729644766208,2021-12-27-20:08:49,10.1.1.2,9,-0.020,-0.020,-0.020,0.000,0.000,0.000
1640635731648040960,2021-12-27-20:08:51,10.1.1.2,8,-0.020,-0.020,-0.020,0.000,0.000,0.000
1640635731748729088,2021-12-27-20:08:51,10.1.1.2,19,-0.020,-0.020,-0.020,0.000,0.000,0.000
1640635733812812032,2021-12-27-20:08:53,10.1.1.2,3,-0.020,-0.020,-0.020,0.000,0.000,0.000
1640635735832699904,2021-12-27-20:08:55,10.1.1.2,2,-0.020,-0.020,-0.020,0.000,0.000,0.000
1640635735915268864,2021-12-27-20:08:55,10.1.1.2,1,-0.020,-0.020,-0.020,0.000,0.000,0.000
1640635736175725056,2021-12-27-20:08:56,10.1.1.2,13,-0.140,-0.140,-0.140,0.000,0.000,0.000
1640635737676153856,2021-12-27-20:08:57,10.1.1.2,13,-0.140,-0.140,-0.140,0.000,0.000,0.000
1640635738255915008,2021-12-27-20:08:58,10.1.1.2,5,-0.140,-0.140,-0.140,0.000,0.000,0.000
1640635739774560000,2021-12-27-20:08:59,10.1.1.2,17,-0.140,-0.140,-0.140,0.000,0.000,0.000
1640635740373873920,2021-12-27-20:09:00,10.1.1.2,12,-0.140,-0.140,-0.140,0.000,0.000,0.000
1640635741856081920,2021-12-27-20:09:01,10.1.1.2,3,-0.140,-0.140,-0.140,0.000,0.000,0.000
1640635744238096896,2021-12-27-20:09:04,10.1.1.2,3,-0.020,-0.020,-0.020,0.000,0.000,0.000
1640635746327332096,2021-12-27-20:09:06,10.1.1.2,3,-0.020,-0.020,-0.020,0.000,0.000,0.000
1640635746407674112,2021-12-27-20:09:06,10.1.1.2,1,-0.020,-0.020,-0.020,0.000,0.000,0.000
1640635748474270208,2021-12-27-20:09:08,10.1.1.2,2,-0.020,-0.020,-0.020,0.000,0.000,0.000
1640635750525206016,2021-12-27-20:09:10,10.1.1.2,7,-0.020,-0.020,-0.020,0.000,0.000,0.000
1640635750606526976,2021-12-27-20:09:10,10.1.1.2,2,-0.020,-0.020,-0.020,0.000,0.000,0.000
1640635752603725824,2021-12-27-20:09:12,10.1.1.2,5,-0.020,-0.020,-0.020,0.000,0.000,0.000
1640635754682529024,2021-12-27-20:09:14,10.1.1.2,2,-0.020,-0.020,-0.020,0.000,0.000,0.000
1640635754780109056,2021-12-27-20:09:14,10.1.1.2,9,-0.020,-0.020,-0.020,0.000,0.000,0.000
1640635756816293120,2021-12-27-20:09:16,10.1.1.2,16,-0.020,-0.020,-0.020,0.000,0.000,0.000
1640635756886155008,2021-12-27-20:09:16,10.1.1.2,1,-0.020,-0.020,-0.020,0.000,0.000,0.000
1640635758925852928,2021-12-27-20:09:18,10.1.1.2,18,-0.020,-0.020,-0.020,0.000,0.000,0.000
1640635758997963008,2021-12-27-20:09:18,10.1.1.2,2,-0.020,-0.020,-0.020,0.000,0.000,0.000
1640635761002331136,2021-12-27-20:09:21,10.1.1.2,4,-0.020,-0.020,-0.020,0.000,0.000,0.000
1640635761085473024,2021-12-27-20:09:21,10.1.1.2,3,-0.020,-0.020,-0.020,0.000,0.000,0.000
1640635761285160960,2021-12-27-20:09:21,10.1.1.2,11,-0.110,-0.110,-0.110,0.000,0.000,0.000
1640635762953074944,2021-12-27-20:09:22,10.1.1.2,7,-0.110,-0.110,-0.110,0.000,0.000,0.000
1640635763434711040,2021-12-27-20:09:23,10.1.1.2,4,-0.110,-0.110,-0.110,0.000,0.000,0.000
1640635765056222976,2021-12-27-20:09:25,10.1.1.2,14,-0.110,-0.110,-0.110,0.000,0.000,0.000
1640635765538187008,2021-12-27-20:09:25,10.1.1.2,11,-0.110,-0.110,-0.110,0.000,0.000,0.000
1640635767219222016,2021-12-27-20:09:27,10.1.1.2,18,-0.110,-0.110,-0.110,0.000,0.000,0.000
1640635769318275840,2021-12-27-20:09:29,10.1.1.2,3,-0.110,-0.110,-0.110,0.000,0.000,0.000
1640635769813890816,2021-12-27-20:09:29,10.1.1.2,14,-0.110,-0.110,-0.110,0.000,0.000,0.000
1640635770818073088,2021-12-27-20:09:30,10.1.1.2,11,-0.410,-0.410,-0.410,0.000,0.000,0.000
1640635772602231040,2021-12-27-20:09:32,10.1.1.2,9,-0.410,-0.410,-0.410,0.000,0.000,0.000
1640635772943783168,2021-12-27-20:09:32,10.1.1.2,3,-0.410,-0.410,-0.410,0.000,0.000,0.000
1640635775094827776,2021-12-27-20:09:35,10.1.1.2,13,-0.410,-0.410,-0.410,0.000,0.000,0.000
1640635776353728000,2021-12-27-20:09:36,10.1.1.2,19,-0.180,-0.180,-0.180,0.000,0.000,0.000
1640635777693048832,2021-12-27-20:09:37,10.1.1.2,15,-0.180,-0.180,-0.180,0.000,0.000,0.000
1640635778452529920,2021-12-27-20:09:38,10.1.1.2,4,-0.180,-0.180,-0.180,0.000,0.000,0.000
1640635779791860992,2021-12-27-20:09:39,10.1.1.2,3,-0.180,-0.180,-0.180,0.000,0.000,0.000
1640635780569097984,2021-12-27-20:09:40,10.1.1.2,15,-0.180,-0.180,-0.180,0.000,0.000,0.000
1640635781907124992,2021-12-27-20:09:41,10.1.1.2,15,-0.180,-0.180,-0.180,0.000,0.000,0.000
1640635782668157952,2021-12-27-20:09:42,10.1.1.2,4,-0.180,-0.180,-0.180,0.000,0.000,0.000
1640635784044236800,2021-12-27-20:09:44,10.1.1.2,6,-0.180,-0.180,-0.180,0.000,0.000,0.000
1640635784803642880,2021-12-27-20:09:44,10.1.1.2,2,-0.180,-0.180,-0.180,0.000,0.000,0.000
1640635786162713088,2021-12-27-20:09:46,10.1.1.2,1,-0.180,-0.180,-0.180,0.000,0.000,0.000
1640635786940474112,2021-12-27-20:09:46,10.1.1.2,4,-0.180,-0.180,-0.180,0.000,0.000,0.000
1640635788281732096,2021-12-27-20:09:48,10.1.1.2,2,-0.180,-0.180,-0.180,0.000,0.000,0.000
1640635789071033856,2021-12-27-20:09:49,10.1.1.2,19,-0.180,-0.180,-0.180,0.000,0.000,0.000
1640635790435504896,2021-12-27-20:09:50,10.1.1.2,16,-0.180,-0.180,-0.180,0.000,0.000,0.000
1640635792531874816,2021-12-27-20:09:52,10.1.1.2,3,-0.180,-0.180,-0.180,0.000,0.000,0.000
1640635793330009088,2021-12-27-20:09:53,10.1.1.2,14,-0.180,-0.180,-0.180,0.000,0.000,0.000
1640635794672637952,2021-12-27-20:09:54,10.1.1.2,4,-0.180,-0.180,-0.180,0.000,0.000,0.000
1640635795434561024,2021-12-27-20:09:55,10.1.1.2,3,-0.180,-0.180,-0.180,0.000,0.000,0.000
1640635796806582016,2021-12-27-20:09:56,10.1.1.2,20,-0.180,-0.180,-0.180,0.000,0.000,0.000
1640635797581090048,2021-12-27-20:09:57,10.1.1.2,3,-0.180,-0.180,-0.180,0.000,0.000,0.000
1640635797720328192,2021-12-27-20:09:57,10.1.1.2,17,-0.240,-0.240,-0.240,0.000,0.000,0.000
1640635798798953984,2021-12-27-20:09:58,10.1.1.2,19,-0.240,-0.240,-0.240,0.000,0.000,0.000
1640635799820125184,2021-12-27-20:09:59,10.1.1.2,15,-0.240,-0.240,-0.240,0.000,0.000,0.000
1640635800879887104,2021-12-27-20:10:00,10.1.1.2,3,-0.240,-0.240,-0.240,0.000,0.000,0.000
1640635801920461056,2021-12-27-20:10:01,10.1.1.2,3,-0.240,-0.240,-0.240,0.000,0.000,0.000
1640635802997632000,2021-12-27-20:10:02,10.1.1.2,12,-0.240,-0.240,-0.240,0.000,0.000,0.000
1640635804026374144,2021-12-27-20:10:04,10.1.1.2,2,-0.240,-0.240,-0.240,0.000,0.000,0.000
1640635805095557888,2021-12-27-20:10:05,10.1.1.2,4,-0.240,-0.240,-0.240,0.000,0.000,0.000
1640635807215640064,2021-12-27-20:10:07,10.1.1.2,11,-0.240,-0.240,-0.240,0.000,0.000,0.000
1640635808233272064,2021-12-27-20:10:08,10.1.1.2,9,-0.240,-0.240,-0.240,0.000,0.000,0.000
1640635809311929088,2021-12-27-20:10:09,10.1.1.2,18,-0.240,-0.240,-0.240,0.000,0.000,0.000
1640635810330940928,2021-12-27-20:10:10,10.1.1.2,15,-0.240,-0.240,-0.240,0.000,0.000,0.000
1640635811389094144,2021-12-27-20:10:11,10.1.1.2,10,-0.240,-0.240,-0.240,0.000,0.000,0.000
1640635812422849024,2021-12-27-20:10:12,10.1.1.2,4,-0.240,-0.240,-0.240,0.000,0.000,0.000
1640635813499110912,2021-12-27-20:10:13,10.1.1.2,13,-0.240,-0.240,-0.240,0.000,0.000,0.000
1640635814517704960,2021-12-27-20:10:14,10.1.1.2,16,-0.240,-0.240,-0.240,0.000,0.000,0.000
1640635815619920896,2021-12-27-20:10:15,10.1.1.2,15,-0.240,-0.240,-0.240,0.000,0.000,0.000
1640635816645629952,2021-12-27-20:10:16,10.1.1.2,1,-0.240,-0.240,-0.240,0.000,0.000,0.000
1640635817718139904,2021-12-27-20:10:17,10.1.1.2,14,-0.240,-0.240,-0.240,0.000,0.000,0.000
1640635820853295104,2021-12-27-20:10:20,10.1.1.2,3,-0.240,-0.240,-0.240,0.000,0.000,0.000
1640635821919145216,2021-12-27-20:10:21,10.1.1.2,1,-0.240,-0.240,-0.240,0.000,0.000,0.000
1640635822978315008,2021-12-27-20:10:22,10.1.1.2,2,-0.240,-0.240,-0.240,0.000,0.000,0.000
1640635824049334016,2021-12-27-20:10:24,10.1.1.2,3,-0.240,-0.240,-0.240,0.000,0.000,0.000
1640635825086716928,2021-12-27-20:10:25,10.1.1.2,6,-0.240,-0.240,-0.240,0.000,0.000,0.000
1640635826168813056,2021-12-27-20:10:26,10.1.1.2,6,-0.240,-0.240,-0.240,0.000,0.000,0.000
1640635827211473920,2021-12-27-20:10:27,10.1.1.2,14,-0.240,-0.240,-0.240,0.000,0.000,0.000
1640635828274791936,2021-12-27-20:10:28,10.1.1.2,2,-0.240,-0.240,-0.240,0.000,0.000,0.000
1640635829314281984,2021-12-27-20:10:29,10.1.1.2,7,-0.240,-0.240,-0.240,0.000,0.000,0.000
1640635830396791040,2021-12-27-20:10:30,10.1.1.2,3,-0.240,-0.240,-0.240,0.000,0.000,0.000
1640635831459224832,2021-12-27-20:10:31,10.1.1.2,3,-0.240,-0.240,-0.240,0.000,0.000,0.000
1640635832538798080,2021-12-27-20:10:32,10.1.1.2,3,-0.240,-0.240,-0.240,0.000,0.000,0.000
1640635833559184128,2021-12-27-20:10:33,10.1.1.2,4,-0.240,-0.240,-0.240,0.000,0.000,0.000
1640635834658447872,2021-12-27-20:10:34,10.1.1.2,11,-0.240,-0.240,-0.240,0.000,0.000,0.000
1640635835677434880,2021-12-27-20:10:35,10.1.1.2,4,-0.240,-0.240,-0.240,0.000,0.000,0.000
1640635836776284928,2021-12-27-20:10:36,10.1.1.2,13,-0.240,-0.240,-0.240,0.000,0.000,0.000
1640635837774807040,2021-12-27-20:10:37,10.1.1.2,4,-0.240,-0.240,-0.240,0.000,0.000,0.000
1640635838835702016,2021-12-27-20:10:38,10.1.1.2,4,-0.240,-0.240,-0.240,0.000,0.000,0.000
1640635839855202816,2021-12-27-20:10:39,10.1.1.2,7,-0.240,-0.240,-0.240,0.000,0.000,0.000
1640635842931574016,2021-12-27-20:10:42,10.1.1.2,17,-0.270,-0.270,-0.270,0.000,0.000,0.000
1640635844130134016,2021-12-27-20:10:44,10.1.1.2,11,-0.270,-0.270,-0.270,0.000,0.000,0.000
1640635845077502976,2021-12-27-20:10:45,10.1.1.2,17,-0.270,-0.270,-0.270,0.000,0.000,0.000
1640635846241677056,2021-12-27-20:10:46,10.1.1.2,2,-0.270,-0.270,-0.270,0.000,0.000,0.000
1640635847218976000,2021-12-27-20:10:47,10.1.1.2,6,-0.270,-0.270,-0.270,0.000,0.000,0.000
1640635848399204864,2021-12-27-20:10:48,10.1.1.2,3,-0.270,-0.270,-0.270,0.000,0.000,0.000
1640635849397774848,2021-12-27-20:10:49,10.1.1.2,5,-0.270,-0.270,-0.270,0.000,0.000,0.000
1640635850577074176,2021-12-27-20:10:50,10.1.1.2,18,-0.270,-0.270,-0.270,0.000,0.000,0.000
1640635851515355136,2021-12-27-20:10:51,10.1.1.2,16,-0.270,-0.270,-0.270,0.000,0.000,0.000
1640635852653824000,2021-12-27-20:10:52,10.1.1.2,7,-0.270,-0.270,-0.270,0.000,0.000,0.000
1640635853593949952,2021-12-27-20:10:53,10.1.1.2,13,-0.270,-0.270,-0.270,0.000,0.000,0.000
1640635855701500928,2021-12-27-20:10:55,10.1.1.2,11,-0.270,-0.270,-0.270,0.000,0.000,0.000
1640635856865480960,2021-12-27-20:10:56,10.1.1.2,15,-0.270,-0.270,-0.270,0.000,0.000,0.000
1640635857794428160,2021-12-27-20:10:57,10.1.1.2,4,-0.270,-0.270,-0.270,0.000,0.000,0.000
1640635858952294144,2021-12-27-20:10:58,10.1.1.2,17,-0.270,-0.270,-0.270,0.000,0.000,0.000
1640635859872435968,2021-12-27-20:10:59,10.1.1.2,4,-0.270,-0.270,-0.270,0.000,0.000,0.000
1640635861056785152,2021-12-27-20:11:01,10.1.1.2,1,-0.270,-0.270,-0.270,0.000,0.000,0.000
1640635862030690048,2021-12-27-20:11:02,10.1.1.2,2,-0.270,-0.270,-0.270,0.000,0.000,0.000
1640635863189580800,2021-12-27-20:11:03,10.1.1.2,3,-0.270,-0.270,-0.270,0.000,0.000,0.000
1640635864152626944,2021-12-27-20:11:04,10.1.1.2,3,-0.270,-0.270,-0.270,0.000,0.000,0.000
1640635865313433856,2021-12-27-20:11:05,10.1.1.2,19,-0.270,-0.270,-0.270,0.000,0.000,0.000
1640635866272478208,2021-12-27-20:11:06,10.1.1.2,15,-0.270,-0.270,-0.270,0.000,0.000,0.000
1640635867411609856,2021-12-27-20:11:07,10.1.1.2,3,-0.270,-0.270,-0.270,0.000,0.000,0.000
1640635868391570176,2021-12-27-20:11:08,10.1.1.2,16,-0.270,-0.270,-0.270,0.000,0.000,0.000
1640635869530807040,2021-12-27-20:11:09,10.1.1.2,4,-0.270,-0.270,-0.270,0.000,0.000,0.000
1640635870470057984,2021-12-27-20:11:10,10.1.1.2,12,-0.270,-0.270,-0.270,0.000,0.000,0.000
1640635871609431040,2021-12-27-20:11:11,10.1.1.2,4,-0.270,-0.270,-0.270,0.000,0.000,0.000
1640635872550040064,2021-12-27-20:11:12,10.1.1.2,3,-0.270,-0.270,-0.270,0.000,0.000,0.000
1640635873724409088,2021-12-27-20:11:13,10.1.1.2,8,-0.270,-0.270,-0.270,0.000,0.000,0.000
1640635874686359808,2021-12-27-20:11:14,10.1.1.2,8,-0.270,-0.270,-0.270,0.000,0.000,0.000
1640635875844283136,2021-12-27-20:11:15,10.1.1.2,5,-0.270,-0.270,-0.270,0.000,0.000,0.000
1640635876811703808,2021-12-27-20:11:16,10.1.1.2,19,-0.270,-0.270,-0.270,0.000,0.000,0.000
1640635877949771776,2021-12-27-20:11:17,10.1.1.2,3,-0.270,-0.270,-0.270,0.000,0.000,0.000
1640635878919219968,2021-12-27-20:11:18,10.1.1.2,16,-0.270,-0.270,-0.270,0.000,0.000,0.000
1640635880057774080,2021-12-27-20:11:20,10.1.1.2,9,-0.270,-0.270,-0.270,0.000,0.000,0.000
1640635880996038912,2021-12-27-20:11:20,10.1.1.2,8,-0.270,-0.270,-0.270,0.000,0.000,0.000
1640635882190365184,2021-12-27-20:11:22,10.1.1.2,4,-0.270,-0.270,-0.270,0.000,0.000,0.000
1640635883147151872,2021-12-27-20:11:23,10.1.1.2,4,-0.270,-0.270,-0.270,0.000,0.000,0.000
1640635884294100992,2021-12-27-20:11:24,10.1.1.2,2,-0.270,-0.270,-0.270,0.000,0.000,0.000
1640635885249944832,2021-12-27-20:11:25,10.1.1.2,18,-0.270,-0.270,-0.270,0.000,0.000,0.000
1640635886411151872,2021-12-27-20:11:26,10.1.1.2,4,-0.270,-0.270,-0.270,0.000,0.000,0.000
1640635887375545856,2021-12-27-20:11:27,10.1.1.2,9,-0.270,-0.270,-0.270,0.000,0.000,0.000
1640635888520873984,2021-12-27-20:11:28,10.1.1.2,2,-0.270,-0.270,-0.270,0.000,0.000,0.000
1640635889464214016,2021-12-27-20:11:29,10.1.1.2,14,-0.270,-0.270,-0.270,0.000,0.000,0.000
1640635890609033984,2021-12-27-20:11:30,10.1.1.2,0,-0.270,-0.270,-0.270,0.000,0.000,0.000
1640635891548860160,2021-12-27-20:11:31,10.1.1.2,6,-0.270,-0.270,-0.270,0.000,0.000,0.000
1640635892710924032,2021-12-27-20:11:32,10.1.1.2,16,-0.270,-0.270,-0.270,0.000,0.000,0.000
1640635893652988928,2021-12-27-20:11:33,10.1.1.2,9,-0.270,-0.270,-0.270,0.000,0.000,0.000
1640635894833148928,2021-12-27-20:11:34,10.1.1.2,3,-0.270,-0.270,-0.270,0.000,0.000,0.000
1640635895814115072,2021-12-27-20:11:35,10.1.1.2,15,-0.270,-0.270,-0.270,0.000,0.000,0.000
1640635896973757952,2021-12-27-20:11:36,10.1.1.2,16,-0.270,-0.270,-0.270,0.000,0.000,0.000
1640635897894262016,2021-12-27-20:11:37,10.1.1.2,15,-0.270,-0.270,-0.270,0.000,0.000,0.000
1640635899053806080,2021-12-27-20:11:39,10.1.1.2,16,-0.270,-0.270,-0.270,0.000,0.000,0.000
1640635899975009024,2021-12-27-20:11:39,10.1.1.2,1,-0.270,-0.270,-0.270,0.000,0.000,0.000
1640635901155045888,2021-12-27-20:11:41,10.1.1.2,20,-0.270,-0.270,-0.270,0.000,0.000,0.000
1640635903272763136,2021-12-27-20:11:43,10.1.1.2,8,-0.270,-0.270,-0.270,0.000,0.000,0.000
1640635904239136000,2021-12-27-20:11:44,10.1.1.2,3,-0.270,-0.270,-0.270,0.000,0.000,0.000
1640635905436147968,2021-12-27-20:11:45,10.1.1.2,2,-0.270,-0.270,-0.270,0.000,0.000,0.000
1640635906409827840,2021-12-27-20:11:46,10.1.1.2,12,-0.270,-0.270,-0.270,0.000,0.000,0.000
1640635907568374016,2021-12-27-20:11:47,10.1.1.2,1,-0.270,-0.270,-0.270,0.000,0.000,0.000
1640635908507503104,2021-12-27-20:11:48,10.1.1.2,12,-0.270,-0.270,-0.270,0.000,0.000,0.000
1640635909647241984,2021-12-27-20:11:49,10.1.1.2,7,-0.270,-0.270,-0.270,0.000,0.000,0.000
1640635910565534208,2021-12-27-20:11:50,10.1.1.2,3,-0.270,-0.270,-0.270,0.000,0.000,0.000
1640635911807095040,2021-12-27-20:11:51,10.1.1.2,13,-0.270,-0.270,-0.270,0.000,0.000,0.000
1640635912746572032,2021-12-27-20:11:52,10.1.1.2,13,-0.270,-0.270,-0.270,0.000,0.000,0.000
1640635913894661888,2021-12-27-20:11:53,10.1.1.2,3,-0.270,-0.270,-0.270,0.000,0.000,0.000
1640635914862852096,2021-12-27-20:11:54,10.1.1.2,2,-0.270,-0.270,-0.270,0.000,0.000,0.000
1640635916040293888,2021-12-27-20:11:56,10.1.1.2,2,-0.270,-0.270,-0.270,0.000,0.000,0.000
1640635918150049024,2021-12-27-20:11:58,10.1.1.2,2,-0.270,-0.270,-0.270,0.000,0.000,0.000
1640635919164544000,2021-12-27-20:11:59,10.1.1.2,19,-0.270,-0.270,-0.270,0.000,0.000,0.000
1640635920329999872,2021-12-27-20:12:00,10.1.1.2,18,-0.270,-0.270,-0.270,0.000,0.000,0.000
1640635921260690944,2021-12-27-20:12:01,10.1.1.2,3,-0.270,-0.270,-0.270,0.000,0.000,0.000
1640635922466247168,2021-12-27-20:12:02,10.1.1.2,17,-0.270,-0.270,-0.270,0.000,0.000,0.000
1640635923368201984,2021-12-27-20:12:03,10.1.1.2,2,-0.270,-0.270,-0.270,0.000,0.000,0.000
1640635924538180096,2021-12-27-20:12:04,10.1.1.2,7,-0.270,-0.270,-0.270,0.000,0.000,0.000
1640635925490727936,2021-12-27-20:12:05,10.1.1.2,15,-0.270,-0.270,-0.270,0.000,0.000,0.000
1640635926633292800,2021-12-27-20:12:06,10.1.1.2,5,-0.270,-0.270,-0.270,0.000,0.000,0.000
1640635927573345792,2021-12-27-20:12:07,10.1.1.2,18,-0.270,-0.270,-0.270,0.000,0.000,0.000
1640635928713388032,2021-12-27-20:12:08,10.1.1.2,10,-0.270,-0.270,-0.270,0.000,0.000,0.000
1640635929656055040,2021-12-27-20:12:09,10.1.1.2,4,-0.270,-0.270,-0.270,0.000,0.000,0.000
1640635930814019840,2021-12-27-20:12:10,10.1.1.2,3,-0.270,-0.270,-0.270,0.000,0.000,0.000
1640635931774272000,2021-12-27-20:12:11,10.1.1.2,11,-0.270,-0.270,-0.270,0.000,0.000,0.000
1640635932093300992,2021-12-27-20:12:12,10.1.1.2,17,-0.120,-0.120,-0.120,0.000,0.000,0.000
1640635932612894976,2021-12-27-20:12:12,10.1.1.2,18,-0.120,-0.120,-0.120,0.000,0.000,0.000
1640635934277831168,2021-12-27-20:12:14,10.1.1.2,3,-0.120,-0.120,-0.120,0.000,0.000,0.000
1640635934791136000,2021-12-27-20:12:14,10.1.1.2,1,-0.120,-0.120,-0.120,0.000,0.000,0.000
1640635936414358016,2021-12-27-20:12:16,10.1.1.2,1,-0.120,-0.120,-0.120,0.000,0.000,0.000
1640635936807590912,2021-12-27-20:12:16,10.1.1.2,7,-0.050,-0.050,-0.050,0.000,0.000,0.000
1640635937627698944,2021-12-27-20:12:17,10.1.1.2,13,-0.420,-0.420,-0.420,0.000,0.000,0.000
1640635937927740160,2021-12-27-20:12:17,10.1.1.2,7,-0.420,-0.420,-0.420,0.000,0.000,0.000
1640635939750340096,2021-12-27-20:12:19,10.1.1.2,7,-0.420,-0.420,-0.420,0.000,0.000,0.000
1640635940070681088,2021-12-27-20:12:20,10.1.1.2,15,-0.420,-0.420,-0.420,0.000,0.000,0.000
1640635941835578880,2021-12-27-20:12:21,10.1.1.2,3,-0.420,-0.420,-0.420,0.000,0.000,0.000
1640635942133085952,2021-12-27-20:12:22,10.1.1.2,4,-0.420,-0.420,-0.420,0.000,0.000,0.000
1640635943980576000,2021-12-27-20:12:23,10.1.1.2,3,-0.420,-0.420,-0.420,0.000,0.000,0.000
1640635944302716928,2021-12-27-20:12:24,10.1.1.2,1,-0.420,-0.420,-0.420,0.000,0.000,0.000
1640635946126210048,2021-12-27-20:12:26,10.1.1.2,13,-0.420,-0.420,-0.420,0.000,0.000,0.000
1640635946409515008,2021-12-27-20:12:26,10.1.1.2,2,-0.420,-0.420,-0.420,0.000,0.000,0.000
1640635948196013824,2021-12-27-20:12:28,10.1.1.2,3,-0.420,-0.420,-0.420,0.000,0.000,0.000
1640635948495749120,2021-12-27-20:12:28,10.1.1.2,1,-0.420,-0.420,-0.420,0.000,0.000,0.000
1640635950356218112,2021-12-27-20:12:30,10.1.1.2,12,-0.420,-0.420,-0.420,0.000,0.000,0.000
1640635950656073216,2021-12-27-20:12:30,10.1.1.2,13,-0.420,-0.420,-0.420,0.000,0.000,0.000
1640635952745697024,2021-12-27-20:12:32,10.1.1.2,3,-0.420,-0.420,-0.420,0.000,0.000,0.000
1640635954566239232,2021-12-27-20:12:34,10.1.1.2,2,-0.420,-0.420,-0.420,0.000,0.000,0.000
1640635954882286080,2021-12-27-20:12:34,10.1.1.2,17,-0.420,-0.420,-0.420,0.000,0.000,0.000
1640635956674590976,2021-12-27-20:12:36,10.1.1.2,13,-0.420,-0.420,-0.420,0.000,0.000,0.000
1640635956959139072,2021-12-27-20:12:36,10.1.1.2,2,-0.420,-0.420,-0.420,0.000,0.000,0.000
1640635958818960896,2021-12-27-20:12:38,10.1.1.2,6,-0.420,-0.420,-0.420,0.000,0.000,0.000
1640635959118757120,2021-12-27-20:12:39,10.1.1.2,10,-0.420,-0.420,-0.420,0.000,0.000,0.000
1640635960960361984,2021-12-27-20:12:40,10.1.1.2,8,-0.420,-0.420,-0.420,0.000,0.000,0.000
1640635961280792064,2021-12-27-20:12:41,10.1.1.2,14,-0.420,-0.420,-0.420,0.000,0.000,0.000
1640635963100934144,2021-12-27-20:12:43,10.1.1.2,4,-0.420,-0.420,-0.420,0.000,0.000,0.000
1640635963399584000,2021-12-27-20:12:43,10.1.1.2,2,-0.420,-0.420,-0.420,0.000,0.000,0.000
1640635967339316992,2021-12-27-20:12:47,10.1.1.2,3,-0.420,-0.420,-0.420,0.000,0.000,0.000
1640635967655038208,2021-12-27-20:12:47,10.1.1.2,14,-0.420,-0.420,-0.420,0.000,0.000,0.000
1640635969468792832,2021-12-27-20:12:49,10.1.1.2,13,-0.420,-0.420,-0.420,0.000,0.000,0.000
1640635969766562048,2021-12-27-20:12:49,10.1.1.2,4,-0.420,-0.420,-0.420,0.000,0.000,0.000
1640635971589313024,2021-12-27-20:12:51,10.1.1.2,16,-0.420,-0.420,-0.420,0.000,0.000,0.000
1640635971883539968,2021-12-27-20:12:51,10.1.1.2,17,-0.420,-0.420,-0.420,0.000,0.000,0.000
1640635973988178944,2021-12-27-20:12:53,10.1.1.2,2,-0.420,-0.420,-0.420,0.000,0.000,0.000
1640635977860922112,2021-12-27-20:12:57,10.1.1.2,10,-0.420,-0.420,-0.420,0.000,0.000,0.000
1640635978160673024,2021-12-27-20:12:58,10.1.1.2,8,-0.420,-0.420,-0.420,0.000,0.000,0.000
1640635979955859968,2021-12-27-20:12:59,10.1.1.2,3,-0.420,-0.420,-0.420,0.000,0.000,0.000
1640635980275823104,2021-12-27-20:13:00,10.1.1.2,18,-0.420,-0.420,-0.420,0.000,0.000,0.000
1640635982112250112,2021-12-27-20:13:02,10.1.1.2,9,-0.420,-0.420,-0.420,0.000,0.000,0.000
1640635984198484992,2021-12-27-20:13:04,10.1.1.2,-1,-0.420,-0.420,-0.420,0.000,0.000,0.000
1640635984498923008,2021-12-27-20:13:04,10.1.1.2,3,-0.420,-0.420,-0.420,0.000,0.000,0.000
1640635986345808128,2021-12-27-20:13:06,10.1.1.2,15,-0.420,-0.420,-0.420,0.000,0.000,0.000
1640635986626967808,2021-12-27-20:13:06,10.1.1.2,2,-0.420,-0.420,-0.420,0.000,0.000,0.000
1640635988411232000,2021-12-27-20:13:08,10.1.1.2,14,-0.420,-0.420,-0.420,0.000,0.000,0.000
1640635988720765952,2021-12-27-20:13:08,10.1.1.2,18,-0.420,-0.420,-0.420,0.000,0.000,0.000
1640635988951956992,2021-12-27-20:13:08,10.1.1.2,18,-0.310,-0.310,-0.310,0.000,0.000,0.000
1640635990253740032,2021-12-27-20:13:10,10.1.1.2,11,-0.310,-0.310,-0.310,0.000,0.000,0.000
1640635991015333888,2021-12-27-20:13:11,10.1.1.2,12,-0.310,-0.310,-0.310,0.000,0.000,0.000
1640635992317179904,2021-12-27-20:13:12,10.1.1.2,3,-0.310,-0.310,-0.310,0.000,0.000,0.000
1640635993077178112,2021-12-27-20:13:13,10.1.1.2,3,-0.310,-0.310,-0.310,0.000,0.000,0.000
1640635994421644032,2021-12-27-20:13:14,10.1.1.2,2,-0.310,-0.310,-0.310,0.000,0.000,0.000
1640635995247885824,2021-12-27-20:13:15,10.1.1.2,5,-0.310,-0.310,-0.310,0.000,0.000,0.000
1640635996595590144,2021-12-27-20:13:16,10.1.1.2,3,-0.310,-0.310,-0.310,0.000,0.000,0.000
1640635997376677888,2021-12-27-20:13:17,10.1.1.2,17,-0.310,-0.310,-0.310,0.000,0.000,0.000
1640635998674653952,2021-12-27-20:13:18,10.1.1.2,1,-0.310,-0.310,-0.310,0.000,0.000,0.000
1640635999474189056,2021-12-27-20:13:19,10.1.1.2,6,-0.310,-0.310,-0.310,0.000,0.000,0.000
1640636000791523072,2021-12-27-20:13:20,10.1.1.2,6,-0.310,-0.310,-0.310,0.000,0.000,0.000
1640636001551405056,2021-12-27-20:13:21,10.1.1.2,5,-0.310,-0.310,-0.310,0.000,0.000,0.000
1640636002849591040,2021-12-27-20:13:22,10.1.1.2,1,-0.310,-0.310,-0.310,0.000,0.000,0.000
1640636003629139968,2021-12-27-20:13:23,10.1.1.2,4,-0.310,-0.310,-0.310,0.000,0.000,0.000
1640636004488354048,2021-12-27-20:13:24,10.1.1.2,14,-0.070,-0.070,-0.070,0.000,0.000,0.000
1640636006285561088,2021-12-27-20:13:26,10.1.1.2,5,-0.070,-0.070,-0.070,0.000,0.000,0.000
1640636006584079104,2021-12-27-20:13:26,10.1.1.2,3,-0.070,-0.070,-0.070,0.000,0.000,0.000
1640636008382415104,2021-12-27-20:13:28,10.1.1.2,11,-0.070,-0.070,-0.070,0.000,0.000,0.000
1640636008682053120,2021-12-27-20:13:28,10.1.1.2,2,-0.070,-0.070,-0.070,0.000,0.000,0.000
1640636010839531008,2021-12-27-20:13:30,10.1.1.2,18,-0.070,-0.070,-0.070,0.000,0.000,0.000
1640636012915365888,2021-12-27-20:13:32,10.1.1.2,16,-0.070,-0.070,-0.070,0.000,0.000,0.000
1640636014672332032,2021-12-27-20:13:34,10.1.1.2,8,-0.070,-0.070,-0.070,0.000,0.000,0.000
1640636014972955904,2021-12-27-20:13:34,10.1.1.2,6,-0.070,-0.070,-0.070,0.000,0.000,0.000
1640636016760741888,2021-12-27-20:13:36,10.1.1.2,2,-0.070,-0.070,-0.070,0.000,0.000,0.000
1640636017082288896,2021-12-27-20:13:37,10.1.1.2,3,-0.070,-0.070,-0.070,0.000,0.000,0.000
1640636018868808960,2021-12-27-20:13:38,10.1.1.2,1,-0.070,-0.070,-0.070,0.000,0.000,0.000
1640636019178615040,2021-12-27-20:13:39,10.1.1.2,2,-0.070,-0.070,-0.070,0.000,0.000,0.000
1640636021033324032,2021-12-27-20:13:41,10.1.1.2,12,-0.070,-0.070,-0.070,0.000,0.000,0.000
1640636021331790080,2021-12-27-20:13:41,10.1.1.2,3,-0.070,-0.070,-0.070,0.000,0.000,0.000
1640636023139659008,2021-12-27-20:13:43,10.1.1.2,7,-0.070,-0.070,-0.070,0.000,0.000,0.000
1640636023440496896,2021-12-27-20:13:43,10.1.1.2,2,-0.070,-0.070,-0.070,0.000,0.000,0.000
1640636025285420800,2021-12-27-20:13:45,10.1.1.2,13,-0.070,-0.070,-0.070,0.000,0.000,0.000
1640636025580265984,2021-12-27-20:13:45,10.1.1.2,14,-0.070,-0.070,-0.070,0.000,0.000,0.000
1640636027361383936,2021-12-27-20:13:47,10.1.1.2,17,-0.070,-0.070,-0.070,0.000,0.000,0.000
1640636027657157888,2021-12-27-20:13:47,10.1.1.2,16,-0.070,-0.070,-0.070,0.000,0.000,0.000
1640636029716857856,2021-12-27-20:13:49,10.1.1.2,4,-0.070,-0.070,-0.070,0.000,0.000,0.000
1640636031510166784,2021-12-27-20:13:51,10.1.1.2,3,-0.070,-0.070,-0.070,0.000,0.000,0.000
1640636031809725952,2021-12-27-20:13:51,10.1.1.2,6,-0.070,-0.070,-0.070,0.000,0.000,0.000
1640636033951950080,2021-12-27-20:13:53,10.1.1.2,2,-0.070,-0.070,-0.070,0.000,0.000,0.000
1640636035786817024,2021-12-27-20:13:55,10.1.1.2,15,-0.070,-0.070,-0.070,0.000,0.000,0.000
1640636037930572032,2021-12-27-20:13:57,10.1.1.2,2,-0.070,-0.070,-0.070,0.000,0.000,0.000
1640636040078396928,2021-12-27-20:14:00,10.1.1.2,1,-0.070,-0.070,-0.070,0.000,0.000,0.000
1640636040383641088,2021-12-27-20:14:00,10.1.1.2,3,-0.070,-0.070,-0.070,0.000,0.000,0.000
1640636041882179072,2021-12-27-20:14:01,10.1.1.2,2,-0.210,-0.210,-0.210,0.000,0.000,0.000
1640636042781657088,2021-12-27-20:14:02,10.1.1.2,11,-0.210,-0.210,-0.210,0.000,0.000,0.000
1640636043998770944,2021-12-27-20:14:03,10.1.1.2,14,-0.210,-0.210,-0.210,0.000,0.000,0.000
1640636044898251008,2021-12-27-20:14:04,10.1.1.2,15,-0.210,-0.210,-0.210,0.000,0.000,0.000
1640636047001108992,2021-12-27-20:14:07,10.1.1.2,3,-0.210,-0.210,-0.210,0.000,0.000,0.000
1640636048194612992,2021-12-27-20:14:08,10.1.1.2,9,-0.210,-0.210,-0.210,0.000,0.000,0.000
1640636049080732160,2021-12-27-20:14:09,10.1.1.2,1,-0.210,-0.210,-0.210,0.000,0.000,0.000
1640636050267108864,2021-12-27-20:14:10,10.1.1.2,4,-0.210,-0.210,-0.210,0.000,0.000,0.000
1640636052276411136,2021-12-27-20:14:12,10.1.1.2,17,-0.260,-0.260,-0.260,0.000,0.000,0.000
1640636053357545984,2021-12-27-20:14:13,10.1.1.2,1,-0.260,-0.260,-0.260,0.000,0.000,0.000
1640636054380058112,2021-12-27-20:14:14,10.1.1.2,17,-0.260,-0.260,-0.260,0.000,0.000,0.000
1640636055159404032,2021-12-27-20:14:15,10.1.1.2,2,-0.100,-0.100,-0.100,0.000,0.000,0.000
1640636057820608000,2021-12-27-20:14:17,10.1.1.2,6,-0.350,-0.350,-0.350,0.000,0.000,0.000
1640636058421789952,2021-12-27-20:14:18,10.1.1.2,4,-0.350,-0.350,-0.350,0.000,0.000,0.000
1640636059201675008,2021-12-27-20:14:19,10.1.1.2,19,-0.010,-0.010,-0.010,0.000,0.000,0.000
1640636061241724928,2021-12-27-20:14:21,10.1.1.2,1,-0.010,-0.010,-0.010,0.000,0.000,0.000
1640636061302094080,2021-12-27-20:14:21,10.1.1.2,19,-0.010,-0.010,-0.010,0.000,0.000,0.000
1640636063433166080,2021-12-27-20:14:23,10.1.1.2,14,-0.010,-0.010,-0.010,0.000,0.000,0.000
1640636065473879040,2021-12-27-20:14:25,10.1.1.2,18,-0.010,-0.010,-0.010,0.000,0.000,0.000
1640636065512978944,2021-12-27-20:14:25,10.1.1.2,15,-0.010,-0.010,-0.010,0.000,0.000,0.000
1640636067637579008,2021-12-27-20:14:27,10.1.1.2,5,-0.010,-0.010,-0.010,0.000,0.000,0.000
1640636067682712064,2021-12-27-20:14:27,10.1.1.2,1,-0.010,-0.010,-0.010,0.000,0.000,0.000
1640636069764903168,2021-12-27-20:14:29,10.1.1.2,6,-0.010,-0.010,-0.010,0.000,0.000,0.000
1640636069804992000,2021-12-27-20:14:29,10.1.1.2,3,-0.010,-0.010,-0.010,0.000,0.000,0.000
1640636071880760832,2021-12-27-20:14:31,10.1.1.2,15,-0.010,-0.010,-0.010,0.000,0.000,0.000
1640636071922270976,2021-12-27-20:14:31,10.1.1.2,11,-0.010,-0.010,-0.010,0.000,0.000,0.000
1640636074039966976,2021-12-27-20:14:34,10.1.1.2,7,-0.010,-0.010,-0.010,0.000,0.000,0.000
1640636074081837056,2021-12-27-20:14:34,10.1.1.2,3,-0.010,-0.010,-0.010,0.000,0.000,0.000
1640636076195746816,2021-12-27-20:14:36,10.1.1.2,16,-0.010,-0.010,-0.010,0.000,0.000,0.000
1640636076234994944,2021-12-27-20:14:36,10.1.1.2,14,-0.010,-0.010,-0.010,0.000,0.000,0.000
1640636078337177088,2021-12-27-20:14:38,10.1.1.2,3,-0.010,-0.010,-0.010,0.000,0.000,0.000
1640636080373550848,2021-12-27-20:14:40,10.1.1.2,15,-0.010,-0.010,-0.010,0.000,0.000,0.000
1640636080413742080,2021-12-27-20:14:40,10.1.1.2,14,-0.010,-0.010,-0.010,0.000,0.000,0.000
1640636082462524928,2021-12-27-20:14:42,10.1.1.2,10,-0.010,-0.010,-0.010,0.000,0.000,0.000
1640636082512360192,2021-12-27-20:14:42,10.1.1.2,19,-0.010,-0.010,-0.010,0.000,0.000,0.000
1640636084581383936,2021-12-27-20:14:44,10.1.1.2,2,-0.010,-0.010,-0.010,0.000,0.000,0.000
1640636084631828992,2021-12-27-20:14:44,10.1.1.2,8,-0.010,-0.010,-0.010,0.000,0.000,0.000
1640636086754665984,2021-12-27-20:14:46,10.1.1.2,15,-0.010,-0.010,-0.010,0.000,0.000,0.000
1640636086792696064,2021-12-27-20:14:46,10.1.1.2,12,-0.010,-0.010,-0.010,0.000,0.000,0.000
1640636088878701824,2021-12-27-20:14:48,10.1.1.2,3,-0.010,-0.010,-0.010,0.000,0.000,0.000
1640636088920878848,2021-12-27-20:14:48,10.1.1.2,3,-0.010,-0.010,-0.010,0.000,0.000,0.000
1640636091016491776,2021-12-27-20:14:51,10.1.1.2,17,-0.010,-0.010,-0.010,0.000,0.000,0.000
1640636091056279808,2021-12-27-20:14:51,10.1.1.2,14,-0.010,-0.010,-0.010,0.000,0.000,0.000
1640636094036612096,2021-12-27-20:14:54,10.1.1.2,7,-0.400,-0.400,-0.400,0.000,0.000,0.000
1640636094432486912,2021-12-27-20:14:54,10.1.1.2,1,-0.400,-0.400,-0.400,0.000,0.000,0.000
1640636096177377024,2021-12-27-20:14:56,10.1.1.2,16,-0.400,-0.400,-0.400,0.000,0.000,0.000
1640636098254318848,2021-12-27-20:14:58,10.1.1.2,4,-0.400,-0.400,-0.400,0.000,0.000,0.000
1640636098654493952,2021-12-27-20:14:58,10.1.1.2,8,-0.400,-0.400,-0.400,0.000,0.000,0.000
1640636099035314176,2021-12-27-20:14:59,10.1.1.2,13,-0.230,-0.230,-0.230,0.000,0.000,0.000
1640636100032542976,2021-12-27-20:15:00,10.1.1.2,9,-0.230,-0.230,-0.230,0.000,0.000,0.000
1640636101200515072,2021-12-27-20:15:01,10.1.1.2,3,-0.230,-0.230,-0.230,0.000,0.000,0.000
1640636102199127040,2021-12-27-20:15:02,10.1.1.2,1,-0.230,-0.230,-0.230,0.000,0.000,0.000
1640636103349019136,2021-12-27-20:15:03,10.1.1.2,1,-0.230,-0.230,-0.230,0.000,0.000,0.000
1640636104367420928,2021-12-27-20:15:04,10.1.1.2,1,-0.230,-0.230,-0.230,0.000,0.000,0.000
1640636105485601024,2021-12-27-20:15:05,10.1.1.2,13,-0.230,-0.230,-0.230,0.000,0.000,0.000
1640636106522839040,2021-12-27-20:15:06,10.1.1.2,6,-0.230,-0.230,-0.230,0.000,0.000,0.000
1640636107662810112,2021-12-27-20:15:07,10.1.1.2,9,-0.230,-0.230,-0.230,0.000,0.000,0.000
1640636108659095040,2021-12-27-20:15:08,10.1.1.2,3,-0.230,-0.230,-0.230,0.000,0.000,0.000
1640636109815134976,2021-12-27-20:15:09,10.1.1.2,4,-0.230,-0.230,-0.230,0.000,0.000,0.000
1640636110813366784,2021-12-27-20:15:10,10.1.1.2,8,-0.230,-0.230,-0.230,0.000,0.000,0.000
1640636111932645120,2021-12-27-20:15:11,10.1.1.2,5,-0.230,-0.230,-0.230,0.000,0.000,0.000
1640636112918960128,2021-12-27-20:15:12,10.1.1.2,13,-0.230,-0.230,-0.230,0.000,0.000,0.000
1640636114027890944,2021-12-27-20:15:14,10.1.1.2,3,-0.230,-0.230,-0.230,0.000,0.000,0.000
1640636115007749120,2021-12-27-20:15:15,10.1.1.2,13,-0.230,-0.230,-0.230,0.000,0.000,0.000
1640636116130461952,2021-12-27-20:15:16,10.1.1.2,18,-0.230,-0.230,-0.230,0.000,0.000,0.000
1640636118255090944,2021-12-27-20:15:18,10.1.1.2,11,-0.230,-0.230,-0.230,0.000,0.000,0.000
1640636119216445952,2021-12-27-20:15:19,10.1.1.2,3,-0.230,-0.230,-0.230,0.000,0.000,0.000
1640636120355460864,2021-12-27-20:15:20,10.1.1.2,4,-0.230,-0.230,-0.230,0.000,0.000,0.000
1640636121338082048,2021-12-27-20:15:21,10.1.1.2,3,-0.230,-0.230,-0.230,0.000,0.000,0.000
1640636122460730112,2021-12-27-20:15:22,10.1.1.2,15,-0.230,-0.230,-0.230,0.000,0.000,0.000
1640636123458318848,2021-12-27-20:15:23,10.1.1.2,10,-0.230,-0.230,-0.230,0.000,0.000,0.000
1640636124561563904,2021-12-27-20:15:24,10.1.1.2,4,-0.230,-0.230,-0.230,0.000,0.000,0.000
1640636125577881088,2021-12-27-20:15:25,10.1.1.2,8,-0.230,-0.230,-0.230,0.000,0.000,0.000
1640636126734586112,2021-12-27-20:15:26,10.1.1.2,6,-0.230,-0.230,-0.230,0.000,0.000,0.000
1640636127734482944,2021-12-27-20:15:27,10.1.1.2,8,-0.230,-0.230,-0.230,0.000,0.000,0.000
1640636128842454784,2021-12-27-20:15:28,10.1.1.2,6,-0.230,-0.230,-0.230,0.000,0.000,0.000
1640636129830213120,2021-12-27-20:15:29,10.1.1.2,3,-0.230,-0.230,-0.230,0.000,0.000,0.000
1640636130051628032,2021-12-27-20:15:30,10.1.1.2,11,-0.330,-0.330,-0.330,0.000,0.000,0.000
1640636130756974848,2021-12-27-20:15:30,10.1.1.2,3,-0.330,-0.330,-0.330,0.000,0.000,0.000
1640636132233020160,2021-12-27-20:15:32,10.1.1.2,14,-0.330,-0.330,-0.330,0.000,0.000,0.000
1640636132913422080,2021-12-27-20:15:32,10.1.1.2,7,-0.330,-0.330,-0.330,0.000,0.000,0.000
1640636134350543872,2021-12-27-20:15:34,10.1.1.2,19,-0.330,-0.330,-0.330,0.000,0.000,0.000
1640636135009849088,2021-12-27-20:15:35,10.1.1.2,14,-0.330,-0.330,-0.330,0.000,0.000,0.000
1640636136448262912,2021-12-27-20:15:36,10.1.1.2,2,-0.330,-0.330,-0.330,0.000,0.000,0.000
1640636137172776960,2021-12-27-20:15:37,10.1.1.2,9,-0.330,-0.330,-0.330,0.000,0.000,0.000
1640636138625113088,2021-12-27-20:15:38,10.1.1.2,11,-0.330,-0.330,-0.330,0.000,0.000,0.000
1640636139315284992,2021-12-27-20:15:39,10.1.1.2,3,-0.330,-0.330,-0.330,0.000,0.000,0.000
1640636140742259968,2021-12-27-20:15:40,10.1.1.2,13,-0.330,-0.330,-0.330,0.000,0.000,0.000
1640636141440403968,2021-12-27-20:15:41,10.1.1.2,17,-0.330,-0.330,-0.330,0.000,0.000,0.000
1640636142876226816,2021-12-27-20:15:42,10.1.1.2,2,-0.330,-0.330,-0.330,0.000,0.000,0.000
1640636145023066112,2021-12-27-20:15:45,10.1.1.2,6,-0.330,-0.330,-0.330,0.000,0.000,0.000
1640636145725166080,2021-12-27-20:15:45,10.1.1.2,16,-0.330,-0.330,-0.330,0.000,0.000,0.000
1640636147150824960,2021-12-27-20:15:47,10.1.1.2,9,-0.330,-0.330,-0.330,0.000,0.000,0.000
1640636147831553024,2021-12-27-20:15:47,10.1.1.2,16,-0.330,-0.330,-0.330,0.000,0.000,0.000
1640636149235430912,2021-12-27-20:15:49,10.1.1.2,6,-0.330,-0.330,-0.330,0.000,0.000,0.000
1640636149917892096,2021-12-27-20:15:49,10.1.1.2,4,-0.330,-0.330,-0.330,0.000,0.000,0.000
1640636151379318016,2021-12-27-20:15:51,10.1.1.2,19,-0.330,-0.330,-0.330,0.000,0.000,0.000
1640636152059618048,2021-12-27-20:15:52,10.1.1.2,7,-0.330,-0.330,-0.330,0.000,0.000,0.000
1640636153480310016,2021-12-27-20:15:53,10.1.1.2,8,-0.330,-0.330,-0.330,0.000,0.000,0.000
1640636155593200896,2021-12-27-20:15:55,10.1.1.2,4,-0.330,-0.330,-0.330,0.000,0.000,0.000
1640636156320729088,2021-12-27-20:15:56,10.1.1.2,19,-0.330,-0.330,-0.330,0.000,0.000,0.000
1640636157742016000,2021-12-27-20:15:57,10.1.1.2,3,-0.330,-0.330,-0.330,0.000,0.000,0.000
1640636158457225984,2021-12-27-20:15:58,10.1.1.2,8,-0.330,-0.330,-0.330,0.000,0.000,0.000
1640636159895086080,2021-12-27-20:15:59,10.1.1.2,14,-0.330,-0.330,-0.330,0.000,0.000,0.000
1640636160595397120,2021-12-27-20:16:00,10.1.1.2,5,-0.330,-0.330,-0.330,0.000,0.000,0.000
1640636162063527936,2021-12-27-20:16:02,10.1.1.2,11,-0.330,-0.330,-0.330,0.000,0.000,0.000
1640636162775578880,2021-12-27-20:16:02,10.1.1.2,17,-0.330,-0.330,-0.330,0.000,0.000,0.000
1640636164162897152,2021-12-27-20:16:04,10.1.1.2,1,-0.330,-0.330,-0.330,0.000,0.000,0.000
1640636164891685120,2021-12-27-20:16:04,10.1.1.2,5,-0.330,-0.330,-0.330,0.000,0.000,0.000
1640636166390827776,2021-12-27-20:16:06,10.1.1.2,15,-0.330,-0.330,-0.330,0.000,0.000,0.000
1640636167090034944,2021-12-27-20:16:07,10.1.1.2,6,-0.330,-0.330,-0.330,0.000,0.000,0.000
1640636168546931968,2021-12-27-20:16:08,10.1.1.2,12,-0.330,-0.330,-0.330,0.000,0.000,0.000
1640636170716692992,2021-12-27-20:16:10,10.1.1.2,9,-0.330,-0.330,-0.330,0.000,0.000,0.000
1640636171422383104,2021-12-27-20:16:11,10.1.1.2,13,-0.330,-0.330,-0.330,0.000,0.000,0.000
1640636172896364800,2021-12-27-20:16:12,10.1.1.2,11,-0.330,-0.330,-0.330,0.000,0.000,0.000
1640636173583329792,2021-12-27-20:16:13,10.1.1.2,3,-0.330,-0.330,-0.330,0.000,0.000,0.000
1640636175024597760,2021-12-27-20:16:15,10.1.1.2,1,-0.330,-0.330,-0.330,0.000,0.000,0.000
1640636175772838144,2021-12-27-20:16:15,10.1.1.2,19,-0.330,-0.330,-0.330,0.000,0.000,0.000
1640636177197616128,2021-12-27-20:16:17,10.1.1.2,16,-0.330,-0.330,-0.330,0.000,0.000,0.000
1640636177879843840,2021-12-27-20:16:17,10.1.1.2,2,-0.330,-0.330,-0.330,0.000,0.000,0.000
1640636179309788928,2021-12-27-20:16:19,10.1.1.2,3,-0.330,-0.330,-0.330,0.000,0.000,0.000
1640636180030014976,2021-12-27-20:16:20,10.1.1.2,18,-0.330,-0.330,-0.330,0.000,0.000,0.000
1640636180953970944,2021-12-27-20:16:20,10.1.1.2,12,-0.100,-0.100,-0.100,0.000,0.000,0.000
1640636183078092032,2021-12-27-20:16:23,10.1.1.2,19,-0.100,-0.100,-0.100,0.000,0.000,0.000
1640636184743622912,2021-12-27-20:16:24,10.1.1.2,3,-0.100,-0.100,-0.100,0.000,0.000,0.000
1640636185174963968,2021-12-27-20:16:25,10.1.1.2,4,-0.100,-0.100,-0.100,0.000,0.000,0.000
1640636187961318912,2021-12-27-20:16:27,10.1.1.2,7,-0.410,-0.410,-0.410,0.000,0.000,0.000
1640636188322580224,2021-12-27-20:16:28,10.1.1.2,10,-0.410,-0.410,-0.410,0.000,0.000,0.000
1640636190057252864,2021-12-27-20:16:30,10.1.1.2,3,-0.410,-0.410,-0.410,0.000,0.000,0.000
