FedericoMungari/DigitalTwin_service/Output/Output_script/script_ROSAPI_output_robots8_freq0_3.txt
timestamp,date,node,latency,joint_1,joint_2,joint_3,joint_4,joint_5,joint_6
1640670570512065024,2021-12-28-05:49:30,10.1.1.4,1640670570511.852,-0.000,-0.000,0.000,-0.000,-0.000,-0.000
1640670574530503936,2021-12-28-05:49:34,10.1.1.4,18,-0.000,-0.000,0.000,-0.000,-0.000,-0.000
1640670576569030144,2021-12-28-05:49:36,10.1.1.4,8,-0.000,-0.000,0.000,-0.000,-0.000,-0.000
1640670578645790208,2021-12-28-05:49:38,10.1.1.4,4,-0.000,-0.000,0.000,-0.000,-0.000,-0.000
1640670580722254080,2021-12-28-05:49:40,10.1.1.4,6,-0.000,-0.000,0.000,-0.000,-0.000,-0.000
1640670582799074816,2021-12-28-05:49:42,10.1.1.4,11,-0.000,-0.000,0.000,-0.000,-0.000,-0.000
1640670585194784000,2021-12-28-05:49:45,10.1.1.4,15,-0.000,-0.000,0.000,-0.000,-0.000,-0.000
1640670587291933952,2021-12-28-05:49:47,10.1.1.4,15,-0.000,-0.000,0.000,-0.000,-0.000,-0.000
1640670589329318144,2021-12-28-05:49:49,10.1.1.4,17,-0.000,-0.000,0.000,-0.000,-0.000,-0.000
1640670591387053056,2021-12-28-05:49:51,10.1.1.4,17,-0.000,-0.000,0.000,-0.000,-0.000,-0.000
1640670593544249088,2021-12-28-05:49:53,10.1.1.4,17,-0.000,-0.000,0.000,-0.000,-0.000,-0.000
1640670597636071936,2021-12-28-05:49:57,10.1.1.4,17,-0.000,-0.000,0.000,-0.000,-0.000,-0.000
1640670599711802112,2021-12-28-05:49:59,10.1.1.4,8,-0.000,-0.000,0.000,-0.000,-0.000,-0.000
1640670601809408000,2021-12-28-05:50:01,10.1.1.4,0,-0.000,-0.000,0.000,-0.000,-0.000,-0.000
1640670603845218048,2021-12-28-05:50:03,10.1.1.4,9,-0.000,-0.000,0.000,-0.000,-0.000,-0.000
1640670606021562112,2021-12-28-05:50:06,10.1.1.4,1,-0.000,-0.000,0.000,-0.000,-0.000,-0.000
1640670608096360960,2021-12-28-05:50:08,10.1.1.4,14,-0.000,-0.000,0.000,-0.000,-0.000,-0.000
1640670610156444928,2021-12-28-05:50:10,10.1.1.4,5,-0.000,-0.000,0.000,-0.000,-0.000,-0.000
1640670612209712896,2021-12-28-05:50:12,10.1.1.4,3,-0.000,-0.000,0.000,-0.000,-0.000,-0.000
1640670614307034112,2021-12-28-05:50:14,10.1.1.4,5,-0.000,-0.000,0.000,-0.000,-0.000,-0.000
1640670616422077952,2021-12-28-05:50:16,10.1.1.4,1,-0.000,-0.000,0.000,-0.000,-0.000,-0.000
1640670618459198976,2021-12-28-05:50:18,10.1.1.4,8,-0.000,-0.000,0.000,-0.000,-0.000,-0.000
1640670620594780928,2021-12-28-05:50:20,10.1.1.4,10,-0.000,-0.000,0.000,-0.000,-0.000,-0.000
1640670622642131968,2021-12-28-05:50:22,10.1.1.4,11,-0.000,-0.000,0.000,-0.000,-0.000,-0.000
1640670624681460992,2021-12-28-05:50:24,10.1.1.4,9,-0.000,-0.000,0.000,-0.000,-0.000,-0.000
1640670626716559872,2021-12-28-05:50:26,10.1.1.4,8,-0.000,-0.000,0.000,-0.000,-0.000,-0.000
1640670628747570944,2021-12-28-05:50:28,10.1.1.4,1,-0.000,-0.000,0.000,-0.000,-0.000,-0.000
1640670630854265088,2021-12-28-05:50:30,10.1.1.4,3,-0.000,-0.000,0.000,-0.000,-0.000,-0.000
1640670632919675136,2021-12-28-05:50:32,10.1.1.4,14,-0.000,-0.000,0.000,-0.000,-0.000,-0.000
1640670635020813056,2021-12-28-05:50:35,10.1.1.4,10,-0.000,-0.000,0.000,-0.000,-0.000,-0.000
1640670637063564032,2021-12-28-05:50:37,10.1.1.4,18,-0.000,-0.000,0.000,-0.000,-0.000,-0.000
1640670639183410944,2021-12-28-05:50:39,10.1.1.4,9,-0.000,-0.000,0.000,-0.000,-0.000,-0.000
1640670641281253120,2021-12-28-05:50:41,10.1.1.4,13,-0.000,-0.000,0.000,-0.000,-0.000,-0.000
1640670643319076096,2021-12-28-05:50:43,10.1.1.4,12,-0.000,-0.000,0.000,-0.000,-0.000,-0.000
1640670645399291904,2021-12-28-05:50:45,10.1.1.4,16,-0.000,-0.000,0.000,-0.000,-0.000,-0.000
1640670647435885824,2021-12-28-05:50:47,10.1.1.4,18,-0.000,-0.000,0.000,-0.000,-0.000,-0.000
1640670649612032768,2021-12-28-05:50:49,10.1.1.4,17,-0.000,-0.000,0.000,-0.000,-0.000,-0.000
1640670651748610048,2021-12-28-05:50:51,10.1.1.4,11,-0.000,-0.000,0.000,-0.000,-0.000,-0.000
1640670653805494016,2021-12-28-05:50:53,10.1.1.4,12,-0.000,-0.000,0.000,-0.000,-0.000,-0.000
1640670655897548800,2021-12-28-05:50:55,10.1.1.4,3,-0.000,-0.000,0.000,-0.000,-0.000,-0.000
1640670657983831808,2021-12-28-05:50:57,10.1.1.4,8,-0.000,-0.000,0.000,-0.000,-0.000,-0.000
1640670660068331008,2021-12-28-05:51:00,10.1.1.4,10,-0.000,-0.000,0.000,-0.000,-0.000,-0.000
1640670662212395008,2021-12-28-05:51:02,10.1.1.4,10,-0.000,-0.000,0.000,-0.000,-0.000,-0.000
1640670664353437952,2021-12-28-05:51:04,10.1.1.4,6,-0.000,-0.000,0.000,-0.000,-0.000,-0.000
1640670666453340928,2021-12-28-05:51:06,10.1.1.4,3,-0.000,-0.000,0.000,-0.000,-0.000,-0.000
1640670668510597888,2021-12-28-05:51:08,10.1.1.4,12,-0.000,-0.000,0.000,-0.000,-0.000,-0.000
1640670670589591040,2021-12-28-05:51:10,10.1.1.4,11,-0.000,-0.000,0.000,-0.000,-0.000,-0.000
1640670672627908096,2021-12-28-05:51:12,10.1.1.4,15,-0.000,-0.000,0.000,-0.000,-0.000,-0.000
1640670674785538048,2021-12-28-05:51:14,10.1.1.4,11,-0.000,-0.000,0.000,-0.000,-0.000,-0.000
1640670676823059968,2021-12-28-05:51:16,10.1.1.4,1,-0.000,-0.000,0.000,-0.000,-0.000,-0.000
1640670678881297152,2021-12-28-05:51:18,10.1.1.4,8,-0.000,-0.000,0.000,-0.000,-0.000,-0.000
1640670681037801984,2021-12-28-05:51:21,10.1.1.4,18,-0.000,-0.000,0.000,-0.000,-0.000,-0.000
1640670683093985024,2021-12-28-05:51:23,10.1.1.4,1,-0.000,-0.000,0.000,-0.000,-0.000,-0.000
1640670685110317824,2021-12-28-05:51:25,10.1.1.4,8,-0.000,-0.000,0.000,-0.000,-0.000,-0.000
1640670687167889152,2021-12-28-05:51:27,10.1.1.4,1,-0.000,-0.000,0.000,-0.000,-0.000,-0.000
1640670689277129984,2021-12-28-05:51:29,10.1.1.4,12,-0.000,-0.000,0.000,-0.000,-0.000,-0.000
1640670691325624064,2021-12-28-05:51:31,10.1.1.4,14,-0.000,-0.000,0.000,-0.000,-0.000,-0.000
1640670693428845824,2021-12-28-05:51:33,10.1.1.4,19,-0.000,-0.000,0.000,-0.000,-0.000,-0.000
1640670695491542016,2021-12-28-05:51:35,10.1.1.4,19,-0.000,-0.000,0.000,-0.000,-0.000,-0.000
1640670697551781888,2021-12-28-05:51:37,10.1.1.4,0,-0.000,-0.000,0.000,-0.000,-0.000,-0.000
1640670699590507008,2021-12-28-05:51:39,10.1.1.4,9,-0.000,-0.000,0.000,-0.000,-0.000,-0.000
1640670701630052096,2021-12-28-05:51:41,10.1.1.4,8,-0.000,-0.000,0.000,-0.000,-0.000,-0.000
1640670703668824064,2021-12-28-05:51:43,10.1.1.4,3,-0.000,-0.000,0.000,-0.000,-0.000,-0.000
1640670705787224064,2021-12-28-05:51:45,10.1.1.4,15,-0.000,-0.000,0.000,-0.000,-0.000,-0.000
1640670707944518144,2021-12-28-05:51:47,10.1.1.4,13,-0.000,-0.000,0.000,-0.000,-0.000,-0.000
1640670710000463104,2021-12-28-05:51:50,10.1.1.4,3,-0.000,-0.000,0.000,-0.000,-0.000,-0.000
1640670712098240000,2021-12-28-05:51:52,10.1.1.4,5,-0.000,-0.000,0.000,-0.000,-0.000,-0.000
1640670714156090880,2021-12-28-05:51:54,10.1.1.4,4,-0.000,-0.000,0.000,-0.000,-0.000,-0.000
1640670716231358976,2021-12-28-05:51:56,10.1.1.4,5,-0.000,-0.000,0.000,-0.000,-0.000,-0.000
1640670718269143040,2021-12-28-05:51:58,10.1.1.4,4,-0.000,-0.000,0.000,-0.000,-0.000,-0.000
1640670720315243008,2021-12-28-05:52:00,10.1.1.4,9,-0.000,-0.000,0.000,-0.000,-0.000,-0.000
1640670722405974016,2021-12-28-05:52:02,10.1.1.4,11,-0.000,-0.000,0.000,-0.000,-0.000,-0.000
1640670724448115968,2021-12-28-05:52:04,10.1.1.4,7,-0.000,-0.000,0.000,-0.000,-0.000,-0.000
1640670726550035968,2021-12-28-05:52:06,10.1.1.4,6,-0.000,-0.000,0.000,-0.000,-0.000,-0.000
1640670728631810816,2021-12-28-05:52:08,10.1.1.4,9,-0.000,-0.000,0.000,-0.000,-0.000,-0.000
1640670730671977984,2021-12-28-05:52:10,10.1.1.4,2,-0.000,-0.000,0.000,-0.000,-0.000,-0.000
1640670732751472896,2021-12-28-05:52:12,10.1.1.4,8,-0.000,-0.000,0.000,-0.000,-0.000,-0.000
1640670734790705920,2021-12-28-05:52:14,10.1.1.4,3,-0.000,-0.000,0.000,-0.000,-0.000,-0.000
1640670736849165056,2021-12-28-05:52:16,10.1.1.4,12,-0.000,-0.000,0.000,-0.000,-0.000,-0.000
1640670738905337088,2021-12-28-05:52:18,10.1.1.4,6,-0.000,-0.000,0.000,-0.000,-0.000,-0.000
1640670740943252992,2021-12-28-05:52:20,10.1.1.4,3,-0.000,-0.000,0.000,-0.000,-0.000,-0.000
1640670743060333056,2021-12-28-05:52:23,10.1.1.4,18,-0.000,-0.000,0.000,-0.000,-0.000,-0.000
1640670745236582144,2021-12-28-05:52:25,10.1.1.4,1,-0.000,-0.000,0.000,-0.000,-0.000,-0.000
1640670747314603008,2021-12-28-05:52:27,10.1.1.4,8,-0.000,-0.000,0.000,-0.000,-0.000,-0.000
1640670749351439104,2021-12-28-05:52:29,10.1.1.4,9,-0.000,-0.000,0.000,-0.000,-0.000,-0.000
1640670751391689984,2021-12-28-05:52:31,10.1.1.4,14,-0.000,-0.000,0.000,-0.000,-0.000,-0.000
1640670753441338112,2021-12-28-05:52:33,10.1.1.4,0,-0.000,-0.000,0.000,-0.000,-0.000,-0.000
1640670755506362880,2021-12-28-05:52:35,10.1.1.4,12,-0.000,-0.000,0.000,-0.000,-0.000,-0.000
1640670757550565888,2021-12-28-05:52:37,10.1.1.4,6,-0.000,-0.000,0.000,-0.000,-0.000,-0.000
1640670759631462144,2021-12-28-05:52:39,10.1.1.4,16,-0.000,-0.000,0.000,-0.000,-0.000,-0.000
1640670761712114944,2021-12-28-05:52:41,10.1.1.4,15,-0.000,-0.000,0.000,-0.000,-0.000,-0.000
1640670763772113152,2021-12-28-05:52:43,10.1.1.4,10,-0.000,-0.000,0.000,-0.000,-0.000,-0.000
1640670765852905984,2021-12-28-05:52:45,10.1.1.4,5,-0.000,-0.000,0.000,-0.000,-0.000,-0.000
1640670767950896128,2021-12-28-05:52:47,10.1.1.4,15,-0.000,-0.000,0.000,-0.000,-0.000,-0.000
1640670770088660992,2021-12-28-05:52:50,10.1.1.4,2,-0.000,-0.000,0.000,-0.000,-0.000,-0.000
1640670772165112064,2021-12-28-05:52:52,10.1.1.4,14,-0.000,-0.000,0.000,-0.000,-0.000,-0.000
1640670774201507072,2021-12-28-05:52:54,10.1.1.4,6,-0.000,-0.000,0.000,-0.000,-0.000,-0.000
1640670776278952960,2021-12-28-05:52:56,10.1.1.4,10,-0.000,-0.000,0.000,-0.000,-0.000,-0.000
1640670778295651840,2021-12-28-05:52:58,10.1.1.4,3,-0.000,-0.000,0.000,-0.000,-0.000,-0.000
1640670780352332032,2021-12-28-05:53:00,10.1.1.4,6,-0.000,-0.000,0.000,-0.000,-0.000,-0.000
1640670782409265152,2021-12-28-05:53:02,10.1.1.4,17,-0.000,-0.000,0.000,-0.000,-0.000,-0.000
1640670784456201984,2021-12-28-05:53:04,10.1.1.4,3,-0.000,-0.000,0.000,-0.000,-0.000,-0.000
1640670786524385024,2021-12-28-05:53:06,10.1.1.4,7,-0.000,-0.000,0.000,-0.000,-0.000,-0.000
1640670788569790976,2021-12-28-05:53:08,10.1.1.4,1,-0.000,-0.000,0.000,-0.000,-0.000,-0.000
1640670790692626944,2021-12-28-05:53:10,10.1.1.4,11,-0.000,-0.000,0.000,-0.000,-0.000,-0.000
1640670792756155136,2021-12-28-05:53:12,10.1.1.4,9,-0.000,-0.000,0.000,-0.000,-0.000,-0.000
1640670794817677056,2021-12-28-05:53:14,10.1.1.4,13,-0.000,-0.000,0.000,-0.000,-0.000,-0.000
1640670796856637952,2021-12-28-05:53:16,10.1.1.4,3,-0.000,-0.000,0.000,-0.000,-0.000,-0.000
1640670799034313984,2021-12-28-05:53:19,10.1.1.4,8,-0.000,-0.000,0.000,-0.000,-0.000,-0.000
1640670801072526848,2021-12-28-05:53:21,10.1.1.4,10,-0.000,-0.000,0.000,-0.000,-0.000,-0.000
1640670805306295040,2021-12-28-05:53:25,10.1.1.4,10,-0.000,-0.000,0.000,-0.000,-0.000,-0.000
1640670807344525056,2021-12-28-05:53:27,10.1.1.4,4,-0.000,-0.000,0.000,-0.000,-0.000,-0.000
1640670809402006016,2021-12-28-05:53:29,10.1.1.4,15,-0.000,-0.000,0.000,-0.000,-0.000,-0.000
1640670811498213888,2021-12-28-05:53:31,10.1.1.4,12,-0.000,-0.000,0.000,-0.000,-0.000,-0.000
1640670813576500992,2021-12-28-05:53:33,10.1.1.4,7,-0.000,-0.000,0.000,-0.000,-0.000,-0.000
1640670815650546176,2021-12-28-05:53:35,10.1.1.4,18,-0.000,-0.000,0.000,-0.000,-0.000,-0.000
1640670817798145024,2021-12-28-05:53:37,10.1.1.4,17,-0.000,-0.000,0.000,-0.000,-0.000,-0.000
1640670819825185024,2021-12-28-05:53:39,10.1.1.4,14,-0.000,-0.000,0.000,-0.000,-0.000,-0.000
1640670821868286976,2021-12-28-05:53:41,10.1.1.4,11,-0.000,-0.000,0.000,-0.000,-0.000,-0.000
1640670824052539136,2021-12-28-05:53:44,10.1.1.4,12,-0.000,-0.000,0.000,-0.000,-0.000,-0.000
1640670826153601792,2021-12-28-05:53:46,10.1.1.4,14,-0.000,-0.000,0.000,-0.000,-0.000,-0.000
1640670828173240832,2021-12-28-05:53:48,10.1.1.4,1,-0.000,-0.000,0.000,-0.000,-0.000,-0.000
1640670830351286016,2021-12-28-05:53:50,10.1.1.4,19,-0.000,-0.000,0.000,-0.000,-0.000,-0.000
1640670832389969152,2021-12-28-05:53:52,10.1.1.4,16,-0.000,-0.000,0.000,-0.000,-0.000,-0.000
1640670834426924032,2021-12-28-05:53:54,10.1.1.4,7,-0.000,-0.000,0.000,-0.000,-0.000,-0.000
1640670836524643072,2021-12-28-05:53:56,10.1.1.4,15,-0.000,-0.000,0.000,-0.000,-0.000,-0.000
1640670838623663872,2021-12-28-05:53:58,10.1.1.4,2,-0.000,-0.000,0.000,-0.000,-0.000,-0.000
1640670840680105984,2021-12-28-05:54:00,10.1.1.4,12,-0.000,-0.000,0.000,-0.000,-0.000,-0.000
1640670842716715008,2021-12-28-05:54:02,10.1.1.4,19,-0.000,-0.000,0.000,-0.000,-0.000,-0.000
1640670844774075904,2021-12-28-05:54:04,10.1.1.4,12,-0.000,-0.000,0.000,-0.000,-0.000,-0.000
1640670846811261952,2021-12-28-05:54:06,10.1.1.4,3,-0.000,-0.000,0.000,-0.000,-0.000,-0.000
1640670848933110016,2021-12-28-05:54:08,10.1.1.4,9,-0.000,-0.000,0.000,-0.000,-0.000,-0.000
1640670851043752960,2021-12-28-05:54:11,10.1.1.4,7,-0.000,-0.000,0.000,-0.000,-0.000,-0.000
1640670853148590080,2021-12-28-05:54:13,10.1.1.4,6,-0.000,-0.000,0.000,-0.000,-0.000,-0.000
1640670855231668992,2021-12-28-05:54:15,10.1.1.4,19,-0.000,-0.000,0.000,-0.000,-0.000,-0.000
1640670857313549056,2021-12-28-05:54:17,10.1.1.4,6,-0.000,-0.000,0.000,-0.000,-0.000,-0.000
1640670859414482176,2021-12-28-05:54:19,10.1.1.4,3,-0.000,-0.000,0.000,-0.000,-0.000,-0.000
1640670861537363968,2021-12-28-05:54:21,10.1.1.4,44,-0.000,-0.000,0.000,-0.000,-0.000,-0.000
1640670863592381952,2021-12-28-05:54:23,10.1.1.4,4,-0.000,-0.000,0.000,-0.000,-0.000,-0.000
1640670865670542080,2021-12-28-05:54:25,10.1.1.4,7,-0.000,-0.000,0.000,-0.000,-0.000,-0.000
1640670867688833024,2021-12-28-05:54:27,10.1.1.4,3,-0.000,-0.000,0.000,-0.000,-0.000,-0.000
1640670869826544896,2021-12-28-05:54:29,10.1.1.4,7,-0.000,-0.000,0.000,-0.000,-0.000,-0.000
1640670871882100992,2021-12-28-05:54:31,10.1.1.4,4,-0.000,-0.000,0.000,-0.000,-0.000,-0.000
1640670874039990784,2021-12-28-05:54:34,10.1.1.4,11,-0.000,-0.000,0.000,-0.000,-0.000,-0.000
1640670876216020992,2021-12-28-05:54:36,10.1.1.4,9,-0.000,-0.000,0.000,-0.000,-0.000,-0.000
1640670878332626176,2021-12-28-05:54:38,10.1.1.4,19,-0.000,-0.000,0.000,-0.000,-0.000,-0.000
1640670880393496064,2021-12-28-05:54:40,10.1.1.4,5,-0.000,-0.000,0.000,-0.000,-0.000,-0.000
1640670882502424832,2021-12-28-05:54:42,10.1.1.4,5,-0.000,-0.000,0.000,-0.000,-0.000,-0.000
1640670884530489088,2021-12-28-05:54:44,10.1.1.4,6,-0.000,-0.000,0.000,-0.000,-0.000,-0.000
1640670886652427008,2021-12-28-05:54:46,10.1.1.4,17,-0.000,-0.000,0.000,-0.000,-0.000,-0.000
1640670888774252800,2021-12-28-05:54:48,10.1.1.4,19,-0.000,-0.000,0.000,-0.000,-0.000,-0.000
1640670890815792128,2021-12-28-05:54:50,10.1.1.4,5,-0.000,-0.000,0.000,-0.000,-0.000,-0.000
1640670892872999936,2021-12-28-05:54:52,10.1.1.4,7,-0.000,-0.000,0.000,-0.000,-0.000,-0.000
1640670895052790016,2021-12-28-05:54:55,10.1.1.4,15,-0.000,-0.000,0.000,-0.000,-0.000,-0.000
1640670897212340992,2021-12-28-05:54:57,10.1.1.4,18,-0.000,-0.000,0.000,-0.000,-0.000,-0.000
1640670899287584000,2021-12-28-05:54:59,10.1.1.4,15,-0.000,-0.000,0.000,-0.000,-0.000,-0.000
1640670901365145856,2021-12-28-05:55:01,10.1.1.4,1,-0.000,-0.000,0.000,-0.000,-0.000,-0.000
1640670903443744000,2021-12-28-05:55:03,10.1.1.4,19,-0.000,-0.000,0.000,-0.000,-0.000,-0.000
1640670905480910080,2021-12-28-05:55:05,10.1.1.4,18,-0.000,-0.000,0.000,-0.000,-0.000,-0.000
1640670907616259072,2021-12-28-05:55:07,10.1.1.4,10,-0.000,-0.000,0.000,-0.000,-0.000,-0.000
1640670909692868096,2021-12-28-05:55:09,10.1.1.4,6,-0.000,-0.000,0.000,-0.000,-0.000,-0.000
1640670911889421824,2021-12-28-05:55:11,10.1.1.4,14,-0.000,-0.000,0.000,-0.000,-0.000,-0.000
1640670914021733888,2021-12-28-05:55:14,10.1.1.4,7,-0.000,-0.000,0.000,-0.000,-0.000,-0.000
1640670916067922944,2021-12-28-05:55:16,10.1.1.4,16,-0.000,-0.000,0.000,-0.000,-0.000,-0.000
1640670918113199104,2021-12-28-05:55:18,10.1.1.4,19,-0.000,-0.000,0.000,-0.000,-0.000,-0.000
1640670922397923840,2021-12-28-05:55:22,10.1.1.4,11,-0.000,-0.000,0.000,-0.000,-0.000,-0.000
1640670924455774976,2021-12-28-05:55:24,10.1.1.4,14,-0.000,-0.000,0.000,-0.000,-0.000,-0.000
1640670926516827136,2021-12-28-05:55:26,10.1.1.4,4,-0.000,-0.000,0.000,-0.000,-0.000,-0.000
1640670928633554944,2021-12-28-05:55:28,10.1.1.4,19,-0.000,-0.000,0.000,-0.000,-0.000,-0.000
1640670930712380928,2021-12-28-05:55:30,10.1.1.4,13,-0.000,-0.000,0.000,-0.000,-0.000,-0.000
1640670932811356160,2021-12-28-05:55:32,10.1.1.4,14,-0.000,-0.000,0.000,-0.000,-0.000,-0.000
1640670934849052928,2021-12-28-05:55:34,10.1.1.4,4,-0.000,-0.000,0.000,-0.000,-0.000,-0.000
1640670936924338176,2021-12-28-05:55:36,10.1.1.4,13,-0.000,-0.000,0.000,-0.000,-0.000,-0.000
1640670938984390144,2021-12-28-05:55:38,10.1.1.4,13,-0.000,-0.000,0.000,-0.000,-0.000,-0.000
1640670941137594880,2021-12-28-05:55:41,10.1.1.4,18,-0.000,-0.000,0.000,-0.000,-0.000,-0.000
1640670943175828992,2021-12-28-05:55:43,10.1.1.4,9,-0.000,-0.000,0.000,-0.000,-0.000,-0.000
1640670945295599104,2021-12-28-05:55:45,10.1.1.4,11,-0.000,-0.000,0.000,-0.000,-0.000,-0.000
1640670947342128128,2021-12-28-05:55:47,10.1.1.4,10,-0.000,-0.000,0.000,-0.000,-0.000,-0.000
1640670949408557824,2021-12-28-05:55:49,10.1.1.4,9,-0.000,-0.000,0.000,-0.000,-0.000,-0.000
1640670951472158976,2021-12-28-05:55:51,10.1.1.4,10,-0.000,-0.000,0.000,-0.000,-0.000,-0.000
1640670953494340864,2021-12-28-05:55:53,10.1.1.4,5,-0.000,-0.000,0.000,-0.000,-0.000,-0.000
1640670955553529856,2021-12-28-05:55:55,10.1.1.4,16,-0.000,-0.000,0.000,-0.000,-0.000,-0.000
1640670957573057792,2021-12-28-05:55:57,10.1.1.4,2,-0.000,-0.000,0.000,-0.000,-0.000,-0.000
1640670959672933120,2021-12-28-05:55:59,10.1.1.4,1,-0.000,-0.000,0.000,-0.000,-0.000,-0.000
1640670961712956928,2021-12-28-05:56:01,10.1.1.4,14,-0.000,-0.000,0.000,-0.000,-0.000,-0.000
1640670963769017856,2021-12-28-05:56:03,10.1.1.4,11,-0.000,-0.000,0.000,-0.000,-0.000,-0.000
1640670965845516032,2021-12-28-05:56:05,10.1.1.4,4,-0.000,-0.000,0.000,-0.000,-0.000,-0.000
1640670967885457920,2021-12-28-05:56:07,10.1.1.4,8,-0.000,-0.000,0.000,-0.000,-0.000,-0.000
1640670970000907008,2021-12-28-05:56:10,10.1.1.4,0,-0.000,-0.000,0.000,-0.000,-0.000,-0.000
1640670972057140224,2021-12-28-05:56:12,10.1.1.4,19,-0.000,-0.000,0.000,-0.000,-0.000,-0.000
1640670974094504960,2021-12-28-05:56:14,10.1.1.4,10,-0.000,-0.000,0.000,-0.000,-0.000,-0.000
1640670976172451072,2021-12-28-05:56:16,10.1.1.4,16,-0.000,-0.000,0.000,-0.000,-0.000,-0.000
1640670978197422080,2021-12-28-05:56:18,10.1.1.4,9,-0.000,-0.000,0.000,-0.000,-0.000,-0.000
1640670980285072128,2021-12-28-05:56:20,10.1.1.4,2,-0.000,-0.000,0.000,-0.000,-0.000,-0.000
1640670982328701952,2021-12-28-05:56:22,10.1.1.4,4,-0.000,-0.000,0.000,-0.000,-0.000,-0.000
1640670984412077056,2021-12-28-05:56:24,10.1.1.4,18,-0.000,-0.000,0.000,-0.000,-0.000,-0.000
1640670986454483968,2021-12-28-05:56:26,10.1.1.4,6,-0.000,-0.000,0.000,-0.000,-0.000,-0.000
1640670988514306048,2021-12-28-05:56:28,10.1.1.4,1,-0.000,-0.000,0.000,-0.000,-0.000,-0.000
1640670990576884992,2021-12-28-05:56:30,10.1.1.4,14,-0.000,-0.000,0.000,-0.000,-0.000,-0.000
1640670992611798016,2021-12-28-05:56:32,10.1.1.4,15,-0.000,-0.000,0.000,-0.000,-0.000,-0.000
1640670994651924992,2021-12-28-05:56:34,10.1.1.4,10,-0.000,-0.000,0.000,-0.000,-0.000,-0.000
1640670996749617152,2021-12-28-05:56:36,10.1.1.4,20,-0.000,-0.000,0.000,-0.000,-0.000,-0.000
1640670998787200000,2021-12-28-05:56:38,10.1.1.4,14,-0.000,-0.000,0.000,-0.000,-0.000,-0.000
1640671000842187008,2021-12-28-05:56:40,10.1.1.4,4,-0.000,-0.000,0.000,-0.000,-0.000,-0.000
1640671002880024832,2021-12-28-05:56:42,10.1.1.4,2,-0.000,-0.000,0.000,-0.000,-0.000,-0.000
1640671004937123072,2021-12-28-05:56:44,10.1.1.4,2,-0.000,-0.000,0.000,-0.000,-0.000,-0.000
1640671006995546112,2021-12-28-05:56:46,10.1.1.4,5,-0.000,-0.000,0.000,-0.000,-0.000,-0.000
1640671009131267072,2021-12-28-05:56:49,10.1.1.4,16,-0.000,-0.000,0.000,-0.000,-0.000,-0.000
1640671011160643072,2021-12-28-05:56:51,10.1.1.4,1,-0.000,-0.000,0.000,-0.000,-0.000,-0.000
1640671013247760896,2021-12-28-05:56:53,10.1.1.4,7,-0.000,-0.000,0.000,-0.000,-0.000,-0.000
1640671015330913024,2021-12-28-05:56:55,10.1.1.4,5,-0.000,-0.000,0.000,-0.000,-0.000,-0.000
1640671017375228928,2021-12-28-05:56:57,10.1.1.4,19,-0.000,-0.000,0.000,-0.000,-0.000,-0.000
1640671019476367104,2021-12-28-05:56:59,10.1.1.4,2,-0.000,-0.000,0.000,-0.000,-0.000,-0.000
1640671021533859072,2021-12-28-05:57:01,10.1.1.4,4,-0.000,-0.000,0.000,-0.000,-0.000,-0.000
1640671023694824960,2021-12-28-05:57:03,10.1.1.4,19,-0.000,-0.000,0.000,-0.000,-0.000,-0.000
1640671025771694848,2021-12-28-05:57:05,10.1.1.4,9,-0.000,-0.000,0.000,-0.000,-0.000,-0.000
1640671027809839872,2021-12-28-05:57:07,10.1.1.4,3,-0.000,-0.000,0.000,-0.000,-0.000,-0.000
1640671029906955008,2021-12-28-05:57:09,10.1.1.4,15,-0.000,-0.000,0.000,-0.000,-0.000,-0.000
1640671031964871936,2021-12-28-05:57:11,10.1.1.4,10,-0.000,-0.000,0.000,-0.000,-0.000,-0.000
1640671034123035904,2021-12-28-05:57:14,10.1.1.4,19,-0.000,-0.000,0.000,-0.000,-0.000,-0.000
1640671036197949952,2021-12-28-05:57:16,10.1.1.4,8,-0.000,-0.000,0.000,-0.000,-0.000,-0.000
1640671038256077056,2021-12-28-05:57:18,10.1.1.4,12,-0.000,-0.000,0.000,-0.000,-0.000,-0.000
1640671040391923968,2021-12-28-05:57:20,10.1.1.4,3,-0.000,-0.000,0.000,-0.000,-0.000,-0.000
1640671042460419840,2021-12-28-05:57:22,10.1.1.4,3,-0.000,-0.000,0.000,-0.000,-0.000,-0.000
1640671044486332928,2021-12-28-05:57:24,10.1.1.4,4,-0.000,-0.000,0.000,-0.000,-0.000,-0.000
1640671046590382080,2021-12-28-05:57:26,10.1.1.4,3,-0.000,-0.000,0.000,-0.000,-0.000,-0.000
1640671048673103104,2021-12-28-05:57:28,10.1.1.4,17,-0.000,-0.000,0.000,-0.000,-0.000,-0.000
1640671050774707200,2021-12-28-05:57:30,10.1.1.4,5,-0.000,-0.000,0.000,-0.000,-0.000,-0.000
1640671052815252992,2021-12-28-05:57:32,10.1.1.4,16,-0.000,-0.000,0.000,-0.000,-0.000,-0.000
1640671054857678848,2021-12-28-05:57:34,10.1.1.4,15,-0.000,-0.000,0.000,-0.000,-0.000,-0.000
1640671056933441024,2021-12-28-05:57:36,10.1.1.4,18,-0.000,-0.000,0.000,-0.000,-0.000,-0.000
1640671058974068992,2021-12-28-05:57:38,10.1.1.4,0,-0.000,-0.000,0.000,-0.000,-0.000,-0.000
1640671061130301952,2021-12-28-05:57:41,10.1.1.4,20,-0.000,-0.000,0.000,-0.000,-0.000,-0.000
1640671063225895936,2021-12-28-05:57:43,10.1.1.4,16,-0.000,-0.000,0.000,-0.000,-0.000,-0.000
1640671065323296000,2021-12-28-05:57:45,10.1.1.4,14,-0.000,-0.000,0.000,-0.000,-0.000,-0.000
1640671067380937984,2021-12-28-05:57:47,10.1.1.4,15,-0.000,-0.000,0.000,-0.000,-0.000,-0.000
1640671069459401984,2021-12-28-05:57:49,10.1.1.4,16,-0.000,-0.000,0.000,-0.000,-0.000,-0.000
1640671071513750016,2021-12-28-05:57:51,10.1.1.4,10,-0.000,-0.000,0.000,-0.000,-0.000,-0.000
1640671073590565888,2021-12-28-05:57:53,10.1.1.4,7,-0.000,-0.000,0.000,-0.000,-0.000,-0.000
1640671075659470080,2021-12-28-05:57:55,10.1.1.4,13,-0.000,-0.000,0.000,-0.000,-0.000,-0.000
1640671077748427008,2021-12-28-05:57:57,10.1.1.4,9,-0.000,-0.000,0.000,-0.000,-0.000,-0.000
1640671079851784960,2021-12-28-05:57:59,10.1.1.4,19,-0.000,-0.000,0.000,-0.000,-0.000,-0.000
1640671081893707008,2021-12-28-05:58:01,10.1.1.4,6,-0.000,-0.000,0.000,-0.000,-0.000,-0.000
1640671083975563008,2021-12-28-05:58:03,10.1.1.4,1,-0.000,-0.000,0.000,-0.000,-0.000,-0.000
1640671086035553024,2021-12-28-05:58:06,10.1.1.4,12,-0.000,-0.000,0.000,-0.000,-0.000,-0.000
1640671088095479040,2021-12-28-05:58:08,10.1.1.4,0,-0.000,-0.000,0.000,-0.000,-0.000,-0.000
1640671090172438016,2021-12-28-05:58:10,10.1.1.4,19,-0.000,-0.000,0.000,-0.000,-0.000,-0.000
1640671092290385920,2021-12-28-05:58:12,10.1.1.4,19,-0.000,-0.000,0.000,-0.000,-0.000,-0.000
1640671094310362112,2021-12-28-05:58:14,10.1.1.4,4,-0.000,-0.000,0.000,-0.000,-0.000,-0.000
1640671096364943872,2021-12-28-05:58:16,10.1.1.4,5,-0.000,-0.000,0.000,-0.000,-0.000,-0.000
1640671098442437888,2021-12-28-05:58:18,10.1.1.4,12,-0.000,-0.000,0.000,-0.000,-0.000,-0.000
1640671100481381888,2021-12-28-05:58:20,10.1.1.4,4,-0.000,-0.000,0.000,-0.000,-0.000,-0.000
1640671102614813952,2021-12-28-05:58:22,10.1.1.4,13,-0.000,-0.000,0.000,-0.000,-0.000,-0.000
1640671104672530944,2021-12-28-05:58:24,10.1.1.4,15,-0.000,-0.000,0.000,-0.000,-0.000,-0.000
1640671106714061056,2021-12-28-05:58:26,10.1.1.4,18,-0.000,-0.000,0.000,-0.000,-0.000,-0.000
1640671108863961856,2021-12-28-05:58:28,10.1.1.4,7,-0.000,-0.000,0.000,-0.000,-0.000,-0.000
1640671110892573952,2021-12-28-05:58:30,10.1.1.4,5,-0.000,-0.000,0.000,-0.000,-0.000,-0.000
1640671113034099200,2021-12-28-05:58:33,10.1.1.4,0,-0.000,-0.000,0.000,-0.000,-0.000,-0.000
1640671115156489984,2021-12-28-05:58:35,10.1.1.4,10,-0.000,-0.000,0.000,-0.000,-0.000,-0.000
1640671117275828992,2021-12-28-05:58:37,10.1.1.4,1,-0.000,-0.000,0.000,-0.000,-0.000,-0.000
1640671119354449920,2021-12-28-05:58:39,10.1.1.4,13,-0.000,-0.000,0.000,-0.000,-0.000,-0.000
1640671121454184960,2021-12-28-05:58:41,10.1.1.4,19,-0.000,-0.000,0.000,-0.000,-0.000,-0.000
1640671123533113088,2021-12-28-05:58:43,10.1.1.4,17,-0.000,-0.000,0.000,-0.000,-0.000,-0.000
1640671125569433088,2021-12-28-05:58:45,10.1.1.4,7,-0.000,-0.000,0.000,-0.000,-0.000,-0.000
1640671127627352832,2021-12-28-05:58:47,10.1.1.4,12,-0.000,-0.000,0.000,-0.000,-0.000,-0.000
1640671129666283008,2021-12-28-05:58:49,10.1.1.4,4,-0.000,-0.000,0.000,-0.000,-0.000,-0.000
1640671131761775872,2021-12-28-05:58:51,10.1.1.4,0,-0.000,-0.000,0.000,-0.000,-0.000,-0.000
1640671133817027072,2021-12-28-05:58:53,10.1.1.4,13,-0.000,-0.000,0.000,-0.000,-0.000,-0.000
1640671135874063104,2021-12-28-05:58:55,10.1.1.4,17,-0.000,-0.000,0.000,-0.000,-0.000,-0.000
1640671137991009024,2021-12-28-05:58:57,10.1.1.4,16,-0.000,-0.000,0.000,-0.000,-0.000,-0.000
1640671140062260992,2021-12-28-05:59:00,10.1.1.4,16,-0.000,-0.000,0.000,-0.000,-0.000,-0.000
1640671142068439040,2021-12-28-05:59:02,10.1.1.4,3,-0.000,-0.000,0.000,-0.000,-0.000,-0.000
1640671144112720128,2021-12-28-05:59:04,10.1.1.4,14,-0.000,-0.000,0.000,-0.000,-0.000,-0.000
1640671146175113984,2021-12-28-05:59:06,10.1.1.4,19,-0.000,-0.000,0.000,-0.000,-0.000,-0.000
1640671148336030976,2021-12-28-05:59:08,10.1.1.4,18,-0.000,-0.000,0.000,-0.000,-0.000,-0.000
1640671150555676928,2021-12-28-05:59:10,10.1.1.4,13,-0.000,-0.000,0.000,-0.000,-0.000,-0.000
1640671152614039808,2021-12-28-05:59:12,10.1.1.4,4,-0.000,-0.000,0.000,-0.000,-0.000,-0.000
1640671154672497152,2021-12-28-05:59:14,10.1.1.4,6,-0.000,-0.000,0.000,-0.000,-0.000,-0.000
1640671156771195904,2021-12-28-05:59:16,10.1.1.4,3,-0.000,-0.000,0.000,-0.000,-0.000,-0.000
1640671158849520896,2021-12-28-05:59:18,10.1.1.4,17,-0.000,-0.000,0.000,-0.000,-0.000,-0.000
1640671160947002880,2021-12-28-05:59:20,10.1.1.4,13,-0.000,-0.000,0.000,-0.000,-0.000,-0.000
1640671163002311936,2021-12-28-05:59:23,10.1.1.4,9,-0.000,-0.000,0.000,-0.000,-0.000,-0.000
1640671165060893952,2021-12-28-05:59:25,10.1.1.4,7,-0.000,-0.000,0.000,-0.000,-0.000,-0.000
1640671167076175872,2021-12-28-05:59:27,10.1.1.4,1,-0.000,-0.000,0.000,-0.000,-0.000,-0.000
1640671169152688896,2021-12-28-05:59:29,10.1.1.4,14,-0.000,-0.000,0.000,-0.000,-0.000,-0.000
1640671171239330048,2021-12-28-05:59:31,10.1.1.4,9,-0.000,-0.000,0.000,-0.000,-0.000,-0.000
1640671173287065856,2021-12-28-05:59:33,10.1.1.4,15,-0.000,-0.000,0.000,-0.000,-0.000,-0.000
1640671175354429952,2021-12-28-05:59:35,10.1.1.4,6,-0.000,-0.000,0.000,-0.000,-0.000,-0.000
1640671177436847872,2021-12-28-05:59:37,10.1.1.4,3,-0.000,-0.000,0.000,-0.000,-0.000,-0.000
1640671179498554112,2021-12-28-05:59:39,10.1.1.4,10,-0.000,-0.000,0.000,-0.000,-0.000,-0.000
1640671181579227904,2021-12-28-05:59:41,10.1.1.4,7,-0.000,-0.000,0.000,-0.000,-0.000,-0.000
1640671183698813952,2021-12-28-05:59:43,10.1.1.4,1,-0.000,-0.000,0.000,-0.000,-0.000,-0.000
1640671185757020928,2021-12-28-05:59:45,10.1.1.4,12,-0.000,-0.000,0.000,-0.000,-0.000,-0.000
1640671187858223872,2021-12-28-05:59:47,10.1.1.4,17,-0.000,-0.000,0.000,-0.000,-0.000,-0.000
1640671189893639936,2021-12-28-05:59:49,10.1.1.4,1,-0.000,-0.000,0.000,-0.000,-0.000,-0.000
1640671191935985920,2021-12-28-05:59:51,10.1.1.4,18,-0.000,-0.000,0.000,-0.000,-0.000,-0.000
1640671194029761024,2021-12-28-05:59:54,10.1.1.4,8,-0.000,-0.000,0.000,-0.000,-0.000,-0.000
1640671196104752128,2021-12-28-05:59:56,10.1.1.4,7,-0.000,-0.000,0.000,-0.000,-0.000,-0.000
1640671198141690880,2021-12-28-05:59:58,10.1.1.4,17,-0.000,-0.000,0.000,-0.000,-0.000,-0.000
1640671200158152960,2021-12-28-06:00:00,10.1.1.4,3,-0.000,-0.000,0.000,-0.000,-0.000,-0.000
1640671202196497920,2021-12-28-06:00:02,10.1.1.4,2,-0.000,-0.000,0.000,-0.000,-0.000,-0.000
1640671204259814912,2021-12-28-06:00:04,10.1.1.4,19,-0.000,-0.000,0.000,-0.000,-0.000,-0.000
1640671206267137024,2021-12-28-06:00:06,10.1.1.4,0,-0.000,-0.000,0.000,-0.000,-0.000,-0.000
1640671208352601088,2021-12-28-06:00:08,10.1.1.4,18,-0.000,-0.000,0.000,-0.000,-0.000,-0.000
1640671210416134144,2021-12-28-06:00:10,10.1.1.4,19,-0.000,-0.000,0.000,-0.000,-0.000,-0.000
1640671212475531008,2021-12-28-06:00:12,10.1.1.4,8,-0.000,-0.000,0.000,-0.000,-0.000,-0.000
1640671214577115136,2021-12-28-06:00:14,10.1.1.4,16,-0.000,-0.000,0.000,-0.000,-0.000,-0.000
1640671216676840192,2021-12-28-06:00:16,10.1.1.4,3,-0.000,-0.000,0.000,-0.000,-0.000,-0.000
1640671218835649024,2021-12-28-06:00:18,10.1.1.4,18,-0.000,-0.000,0.000,-0.000,-0.000,-0.000
1640671220872082944,2021-12-28-06:00:20,10.1.1.4,7,-0.000,-0.000,0.000,-0.000,-0.000,-0.000
1640671222909364992,2021-12-28-06:00:22,10.1.1.4,5,-0.000,-0.000,0.000,-0.000,-0.000,-0.000
1640671224946952960,2021-12-28-06:00:24,10.1.1.4,4,-0.000,-0.000,0.000,-0.000,-0.000,-0.000
1640671229061193984,2021-12-28-06:00:29,10.1.1.4,18,-0.000,-0.000,0.000,-0.000,-0.000,-0.000
1640671231201894912,2021-12-28-06:00:31,10.1.1.4,17,-0.000,-0.000,0.000,-0.000,-0.000,-0.000
1640671233296664064,2021-12-28-06:00:33,10.1.1.4,6,-0.000,-0.000,0.000,-0.000,-0.000,-0.000
1640671235333911808,2021-12-28-06:00:35,10.1.1.4,1,-0.000,-0.000,0.000,-0.000,-0.000,-0.000
1640671237404090880,2021-12-28-06:00:37,10.1.1.4,1,-0.000,-0.000,0.000,-0.000,-0.000,-0.000
1640671239451368960,2021-12-28-06:00:39,10.1.1.4,18,-0.000,-0.000,0.000,-0.000,-0.000,-0.000
1640671241513500928,2021-12-28-06:00:41,10.1.1.4,16,-0.000,-0.000,0.000,-0.000,-0.000,-0.000
1640671243515949056,2021-12-28-06:00:43,10.1.1.4,7,-0.000,-0.000,0.000,-0.000,-0.000,-0.000
1640671245535842816,2021-12-28-06:00:45,10.1.1.4,12,-0.000,-0.000,0.000,-0.000,-0.000,-0.000
1640671247638220032,2021-12-28-06:00:47,10.1.1.4,7,-0.000,-0.000,0.000,-0.000,-0.000,-0.000
1640671249718131968,2021-12-28-06:00:49,10.1.1.4,14,-0.000,-0.000,0.000,-0.000,-0.000,-0.000
1640671251775115008,2021-12-28-06:00:51,10.1.1.4,9,-0.000,-0.000,0.000,-0.000,-0.000,-0.000
1640671253873752064,2021-12-28-06:00:53,10.1.1.4,17,-0.000,-0.000,0.000,-0.000,-0.000,-0.000
1640671255889057024,2021-12-28-06:00:55,10.1.1.4,11,-0.000,-0.000,0.000,-0.000,-0.000,-0.000
1640671257945946880,2021-12-28-06:00:57,10.1.1.4,10,-0.000,-0.000,0.000,-0.000,-0.000,-0.000
1640671260003974912,2021-12-28-06:01:00,10.1.1.4,17,-0.000,-0.000,0.000,-0.000,-0.000,-0.000
1640671262161040896,2021-12-28-06:01:02,10.1.1.4,7,-0.000,-0.000,0.000,-0.000,-0.000,-0.000
1640671264236860928,2021-12-28-06:01:04,10.1.1.4,15,-0.000,-0.000,0.000,-0.000,-0.000,-0.000
1640671266315480832,2021-12-28-06:01:06,10.1.1.4,13,-0.000,-0.000,0.000,-0.000,-0.000,-0.000
1640671268400197888,2021-12-28-06:01:08,10.1.1.4,9,-0.000,-0.000,0.000,-0.000,-0.000,-0.000
1640671270428983808,2021-12-28-06:01:10,10.1.1.4,5,-0.000,-0.000,0.000,-0.000,-0.000,-0.000
1640671272452763136,2021-12-28-06:01:12,10.1.1.4,18,-0.000,-0.000,0.000,-0.000,-0.000,-0.000
1640671274478109952,2021-12-28-06:01:14,10.1.1.4,5,-0.000,-0.000,0.000,-0.000,-0.000,-0.000
1640671276537360896,2021-12-28-06:01:16,10.1.1.4,18,-0.000,-0.000,0.000,-0.000,-0.000,-0.000
1640671278578779904,2021-12-28-06:01:18,10.1.1.4,17,-0.000,-0.000,0.000,-0.000,-0.000,-0.000
1640671280641100800,2021-12-28-06:01:20,10.1.1.4,0,-0.000,-0.000,0.000,-0.000,-0.000,-0.000
1640671282716484096,2021-12-28-06:01:22,10.1.1.4,4,-0.000,-0.000,0.000,-0.000,-0.000,-0.000
1640671284754247936,2021-12-28-06:01:24,10.1.1.4,1,-0.000,-0.000,0.000,-0.000,-0.000,-0.000
1640671286793875968,2021-12-28-06:01:26,10.1.1.4,7,-0.000,-0.000,0.000,-0.000,-0.000,-0.000
1640671288850078208,2021-12-28-06:01:28,10.1.1.4,12,-0.000,-0.000,0.000,-0.000,-0.000,-0.000
1640671290887553024,2021-12-28-06:01:30,10.1.1.4,14,-0.000,-0.000,0.000,-0.000,-0.000,-0.000
1640671292927241984,2021-12-28-06:01:32,10.1.1.4,4,-0.000,-0.000,0.000,-0.000,-0.000,-0.000
1640671295081731072,2021-12-28-06:01:35,10.1.1.4,9,-0.000,-0.000,0.000,-0.000,-0.000,-0.000
1640671297121120000,2021-12-28-06:01:37,10.1.1.4,13,-0.000,-0.000,0.000,-0.000,-0.000,-0.000
1640671299135803904,2021-12-28-06:01:39,10.1.1.4,4,-0.000,-0.000,0.000,-0.000,-0.000,-0.000
1640671301166512896,2021-12-28-06:01:41,10.1.1.4,11,-0.000,-0.000,0.000,-0.000,-0.000,-0.000
1640671303192790016,2021-12-28-06:01:43,10.1.1.4,6,-0.000,-0.000,0.000,-0.000,-0.000,-0.000
1640671305218462976,2021-12-28-06:01:45,10.1.1.4,3,-0.000,-0.000,0.000,-0.000,-0.000,-0.000
1640671307260449792,2021-12-28-06:01:47,10.1.1.4,18,-0.000,-0.000,0.000,-0.000,-0.000,-0.000
1640671309820599040,2021-12-28-06:01:49,10.1.1.4,16,-0.230,-0.230,-0.230,0.000,-0.000,0.000
1640671310899543040,2021-12-28-06:01:50,10.1.1.4,16,-0.230,-0.230,-0.230,0.000,-0.000,0.000
1640671311859312896,2021-12-28-06:01:51,10.1.1.4,19,-0.230,-0.230,-0.230,0.000,-0.000,0.000
1640671312919308032,2021-12-28-06:01:52,10.1.1.4,7,-0.230,-0.230,-0.230,0.000,-0.000,0.000
1640671313861201920,2021-12-28-06:01:53,10.1.1.4,1,-0.230,-0.230,-0.230,0.000,-0.000,0.000
1640671314938785024,2021-12-28-06:01:54,10.1.1.4,13,-0.230,-0.230,-0.230,0.000,-0.000,0.000
1640671315878268928,2021-12-28-06:01:55,10.1.1.4,10,-0.230,-0.230,-0.230,0.000,-0.000,0.000
1640671316936557056,2021-12-28-06:01:56,10.1.1.4,1,-0.230,-0.230,-0.230,0.000,-0.000,0.000
1640671317895121152,2021-12-28-06:01:57,10.1.1.4,18,-0.230,-0.230,-0.230,0.000,-0.000,0.000
1640671318997395968,2021-12-28-06:01:58,10.1.1.4,11,-0.230,-0.230,-0.230,0.000,-0.000,0.000
1640671319994676224,2021-12-28-06:01:59,10.1.1.4,15,-0.230,-0.230,-0.230,0.000,-0.000,0.000
1640671321052557056,2021-12-28-06:02:01,10.1.1.4,3,-0.230,-0.230,-0.230,0.000,-0.000,0.000
1640671322010825984,2021-12-28-06:02:02,10.1.1.4,4,-0.230,-0.230,-0.230,0.000,-0.000,0.000
1640671323090112000,2021-12-28-06:02:03,10.1.1.4,5,-0.230,-0.230,-0.230,0.000,-0.000,0.000
1640671324047838976,2021-12-28-06:02:04,10.1.1.4,12,-0.230,-0.230,-0.230,0.000,-0.000,0.000
1640671325124776960,2021-12-28-06:02:05,10.1.1.4,14,-0.230,-0.230,-0.230,0.000,-0.000,0.000
1640671326083919104,2021-12-28-06:02:06,10.1.1.4,16,-0.230,-0.230,-0.230,0.000,-0.000,0.000
1640671327142383104,2021-12-28-06:02:07,10.1.1.4,1,-0.230,-0.230,-0.230,0.000,-0.000,0.000
1640671328100881152,2021-12-28-06:02:08,10.1.1.4,2,-0.230,-0.230,-0.230,0.000,-0.000,0.000
1640671329181382912,2021-12-28-06:02:09,10.1.1.4,6,-0.230,-0.230,-0.230,0.000,-0.000,0.000
1640671330237595136,2021-12-28-06:02:10,10.1.1.4,17,-0.230,-0.230,-0.230,0.000,-0.000,0.000
1640671331315538944,2021-12-28-06:02:11,10.1.1.4,16,-0.230,-0.230,-0.230,0.000,-0.000,0.000
1640671332257093888,2021-12-28-06:02:12,10.1.1.4,5,-0.230,-0.230,-0.230,0.000,-0.000,0.000
1640671333340894976,2021-12-28-06:02:13,10.1.1.4,10,-0.230,-0.230,-0.230,0.000,-0.000,0.000
1640671334284626944,2021-12-28-06:02:14,10.1.1.4,3,-0.230,-0.230,-0.230,0.000,-0.000,0.000
1640671335408060928,2021-12-28-06:02:15,10.1.1.4,9,-0.230,-0.230,-0.230,0.000,-0.000,0.000
1640671336371864064,2021-12-28-06:02:16,10.1.1.4,13,-0.230,-0.230,-0.230,0.000,-0.000,0.000
1640671337493812992,2021-12-28-06:02:17,10.1.1.4,1,-0.230,-0.230,-0.230,0.000,-0.000,0.000
1640671338474800128,2021-12-28-06:02:18,10.1.1.4,17,-0.230,-0.230,-0.230,0.000,-0.000,0.000
1640671339576167168,2021-12-28-06:02:19,10.1.1.4,13,-0.230,-0.230,-0.230,0.000,-0.000,0.000
1640671340596070912,2021-12-28-06:02:20,10.1.1.4,12,-0.230,-0.230,-0.230,0.000,-0.000,0.000
1640671341676897024,2021-12-28-06:02:21,10.1.1.4,16,-0.230,-0.230,-0.230,0.000,-0.000,0.000
1640671342616774912,2021-12-28-06:02:22,10.1.1.4,6,-0.230,-0.230,-0.230,0.000,-0.000,0.000
1640671343696891136,2021-12-28-06:02:23,10.1.1.4,8,-0.230,-0.230,-0.230,0.000,-0.000,0.000
1640671344657948928,2021-12-28-06:02:24,10.1.1.4,18,-0.230,-0.230,-0.230,0.000,-0.000,0.000
1640671345736082176,2021-12-28-06:02:25,10.1.1.4,17,-0.230,-0.230,-0.230,0.000,-0.000,0.000
1640671346676222208,2021-12-28-06:02:26,10.1.1.4,7,-0.230,-0.230,-0.230,0.000,-0.000,0.000
1640671347754488832,2021-12-28-06:02:27,10.1.1.4,9,-0.230,-0.230,-0.230,0.000,-0.000,0.000
1640671348713604864,2021-12-28-06:02:28,10.1.1.4,12,-0.230,-0.230,-0.230,0.000,-0.000,0.000
1640671349792160000,2021-12-28-06:02:29,10.1.1.4,2,-0.230,-0.230,-0.230,0.000,-0.000,0.000
1640671350730670848,2021-12-28-06:02:30,10.1.1.4,0,-0.230,-0.230,-0.230,0.000,-0.000,0.000
1640671351809928960,2021-12-28-06:02:31,10.1.1.4,11,-0.230,-0.230,-0.230,0.000,-0.000,0.000
1640671353869394176,2021-12-28-06:02:33,10.1.1.4,18,-0.230,-0.230,-0.230,0.000,-0.000,0.000
1640671354805718784,2021-12-28-06:02:34,10.1.1.4,4,-0.230,-0.230,-0.230,0.000,-0.000,0.000
1640671355905281024,2021-12-28-06:02:35,10.1.1.4,11,-0.230,-0.230,-0.230,0.000,-0.000,0.000
1640671356910557952,2021-12-28-06:02:36,10.1.1.4,1,-0.230,-0.230,-0.230,0.000,-0.000,0.000
1640671358064073984,2021-12-28-06:02:38,10.1.1.4,5,-0.230,-0.230,-0.230,0.000,-0.000,0.000
1640671359039625984,2021-12-28-06:02:39,10.1.1.4,15,-0.230,-0.230,-0.230,0.000,-0.000,0.000
1640671360101635840,2021-12-28-06:02:40,10.1.1.4,5,-0.230,-0.230,-0.230,0.000,-0.000,0.000
1640671361057565952,2021-12-28-06:02:41,10.1.1.4,7,-0.230,-0.230,-0.230,0.000,-0.000,0.000
1640671362194786048,2021-12-28-06:02:42,10.1.1.4,17,-0.230,-0.230,-0.230,0.000,-0.000,0.000
1640671363173712128,2021-12-28-06:02:43,10.1.1.4,11,-0.230,-0.230,-0.230,0.000,-0.000,0.000
1640671364254172928,2021-12-28-06:02:44,10.1.1.4,17,-0.230,-0.230,-0.230,0.000,-0.000,0.000
1640671365201021952,2021-12-28-06:02:45,10.1.1.4,6,-0.230,-0.230,-0.230,0.000,-0.000,0.000
1640671366343950080,2021-12-28-06:02:46,10.1.1.4,13,-0.230,-0.230,-0.230,0.000,-0.000,0.000
1640671367308456960,2021-12-28-06:02:47,10.1.1.4,9,-0.230,-0.230,-0.230,0.000,-0.000,0.000
1640671368389938176,2021-12-28-06:02:48,10.1.1.4,17,-0.230,-0.230,-0.230,0.000,-0.000,0.000
1640671369332465920,2021-12-28-06:02:49,10.1.1.4,16,-0.230,-0.230,-0.230,0.000,-0.000,0.000
1640671370394300928,2021-12-28-06:02:50,10.1.1.4,0,-0.230,-0.230,-0.230,0.000,-0.000,0.000
1640671371415757824,2021-12-28-06:02:51,10.1.1.4,7,-0.230,-0.230,-0.230,0.000,-0.000,0.000
1640671372556550144,2021-12-28-06:02:52,10.1.1.4,12,-0.230,-0.230,-0.230,0.000,-0.000,0.000
1640671373517131008,2021-12-28-06:02:53,10.1.1.4,17,-0.230,-0.230,-0.230,0.000,-0.000,0.000
1640671374637713920,2021-12-28-06:02:54,10.1.1.4,19,-0.230,-0.230,-0.230,0.000,-0.000,0.000
1640671375599239168,2021-12-28-06:02:55,10.1.1.4,20,-0.230,-0.230,-0.230,0.000,-0.000,0.000
1640671376676577024,2021-12-28-06:02:56,10.1.1.4,7,-0.230,-0.230,-0.230,0.000,-0.000,0.000
1640671377638863104,2021-12-28-06:02:57,10.1.1.4,1,-0.230,-0.230,-0.230,0.000,-0.000,0.000
1640671378776817920,2021-12-28-06:02:58,10.1.1.4,16,-0.230,-0.230,-0.230,0.000,-0.000,0.000
1640671379795792128,2021-12-28-06:02:59,10.1.1.4,10,-0.230,-0.230,-0.230,0.000,-0.000,0.000
1640671380936717056,2021-12-28-06:03:00,10.1.1.4,19,-0.230,-0.230,-0.230,0.000,-0.000,0.000
1640671381895651072,2021-12-28-06:03:01,10.1.1.4,20,-0.230,-0.230,-0.230,0.000,-0.000,0.000
1640671382992919040,2021-12-28-06:03:02,10.1.1.4,10,-0.230,-0.230,-0.230,0.000,-0.000,0.000
1640671383952235008,2021-12-28-06:03:03,10.1.1.4,11,-0.230,-0.230,-0.230,0.000,-0.000,0.000
1640671385031867136,2021-12-28-06:03:05,10.1.1.4,19,-0.230,-0.230,-0.230,0.000,-0.000,0.000
1640671386028260096,2021-12-28-06:03:06,10.1.1.4,16,-0.230,-0.230,-0.230,0.000,-0.000,0.000
1640671387107443968,2021-12-28-06:03:07,10.1.1.4,3,-0.230,-0.230,-0.230,0.000,-0.000,0.000
1640671388065150976,2021-12-28-06:03:08,10.1.1.4,8,-0.230,-0.230,-0.230,0.000,-0.000,0.000
1640671389164035072,2021-12-28-06:03:09,10.1.1.4,6,-0.230,-0.230,-0.230,0.000,-0.000,0.000
1640671390142806016,2021-12-28-06:03:10,10.1.1.4,7,-0.230,-0.230,-0.230,0.000,-0.000,0.000
1640671391265960960,2021-12-28-06:03:11,10.1.1.4,17,-0.230,-0.230,-0.230,0.000,-0.000,0.000
1640671392259206144,2021-12-28-06:03:12,10.1.1.4,16,-0.230,-0.230,-0.230,0.000,-0.000,0.000
1640671393397422080,2021-12-28-06:03:13,10.1.1.4,6,-0.230,-0.230,-0.230,0.000,-0.000,0.000
1640671394356921856,2021-12-28-06:03:14,10.1.1.4,6,-0.230,-0.230,-0.230,0.000,-0.000,0.000
1640671395494860800,2021-12-28-06:03:15,10.1.1.4,12,-0.230,-0.230,-0.230,0.000,-0.000,0.000
1640671396456211200,2021-12-28-06:03:16,10.1.1.4,16,-0.230,-0.230,-0.230,0.000,-0.000,0.000
1640671397560948992,2021-12-28-06:03:17,10.1.1.4,11,-0.230,-0.230,-0.230,0.000,-0.000,0.000
1640671398545191168,2021-12-28-06:03:18,10.1.1.4,17,-0.230,-0.230,-0.230,0.000,-0.000,0.000
1640671399608432128,2021-12-28-06:03:19,10.1.1.4,2,-0.230,-0.230,-0.230,0.000,-0.000,0.000
1640671400631992064,2021-12-28-06:03:20,10.1.1.4,4,-0.230,-0.230,-0.230,0.000,-0.000,0.000
1640671401713196032,2021-12-28-06:03:21,10.1.1.4,7,-0.230,-0.230,-0.230,0.000,-0.000,0.000
1640671402714876928,2021-12-28-06:03:22,10.1.1.4,2,-0.230,-0.230,-0.230,0.000,-0.000,0.000
1640671403796365056,2021-12-28-06:03:23,10.1.1.4,5,-0.230,-0.230,-0.230,0.000,-0.000,0.000
1640671404776734208,2021-12-28-06:03:24,10.1.1.4,9,-0.230,-0.230,-0.230,0.000,-0.000,0.000
1640671405857863936,2021-12-28-06:03:25,10.1.1.4,1,-0.230,-0.230,-0.230,0.000,-0.000,0.000
1640671406837795072,2021-12-28-06:03:26,10.1.1.4,1,-0.230,-0.230,-0.230,0.000,-0.000,0.000
1640671407980449792,2021-12-28-06:03:27,10.1.1.4,18,-0.230,-0.230,-0.230,0.000,-0.000,0.000
1640671408957945088,2021-12-28-06:03:28,10.1.1.4,16,-0.230,-0.230,-0.230,0.000,-0.000,0.000
1640671410038708992,2021-12-28-06:03:30,10.1.1.4,13,-0.230,-0.230,-0.230,0.000,-0.000,0.000
1640671410996741120,2021-12-28-06:03:30,10.1.1.4,5,-0.230,-0.230,-0.230,0.000,-0.000,0.000
1640671412115446016,2021-12-28-06:03:32,10.1.1.4,4,-0.230,-0.230,-0.230,0.000,-0.000,0.000
1640671413094643968,2021-12-28-06:03:33,10.1.1.4,8,-0.230,-0.230,-0.230,0.000,-0.000,0.000
1640671415232089088,2021-12-28-06:03:35,10.1.1.4,6,-0.230,-0.230,-0.230,0.000,-0.000,0.000
1640671416331698944,2021-12-28-06:03:36,10.1.1.4,2,-0.230,-0.230,-0.230,0.000,-0.000,0.000
1640671417352207872,2021-12-28-06:03:37,10.1.1.4,16,-0.230,-0.230,-0.230,0.000,-0.000,0.000
1640671418427802112,2021-12-28-06:03:38,10.1.1.4,10,-0.230,-0.230,-0.230,0.000,-0.000,0.000
1640671419486279936,2021-12-28-06:03:39,10.1.1.4,7,-0.230,-0.230,-0.230,0.000,-0.000,0.000
1640671420584774144,2021-12-28-06:03:40,10.1.1.4,4,-0.230,-0.230,-0.230,0.000,-0.000,0.000
1640671421565652992,2021-12-28-06:03:41,10.1.1.4,18,-0.230,-0.230,-0.230,0.000,-0.000,0.000
1640671422643827968,2021-12-28-06:03:42,10.1.1.4,4,-0.230,-0.230,-0.230,0.000,-0.000,0.000
1640671423621238016,2021-12-28-06:03:43,10.1.1.4,8,-0.230,-0.230,-0.230,0.000,-0.000,0.000
1640671424719501056,2021-12-28-06:03:44,10.1.1.4,11,-0.230,-0.230,-0.230,0.000,-0.000,0.000
1640671425678973952,2021-12-28-06:03:45,10.1.1.4,19,-0.230,-0.230,-0.230,0.000,-0.000,0.000
1640671426735644160,2021-12-28-06:03:46,10.1.1.4,3,-0.230,-0.230,-0.230,0.000,-0.000,0.000
1640671427694413056,2021-12-28-06:03:47,10.1.1.4,8,-0.230,-0.230,-0.230,0.000,-0.000,0.000
1640671428858875136,2021-12-28-06:03:48,10.1.1.4,17,-0.230,-0.230,-0.230,0.000,-0.000,0.000
1640671429862181888,2021-12-28-06:03:49,10.1.1.4,1,-0.230,-0.230,-0.230,0.000,-0.000,0.000
1640671430966523904,2021-12-28-06:03:50,10.1.1.4,9,-0.230,-0.230,-0.230,0.000,-0.000,0.000
1640671431929643008,2021-12-28-06:03:51,10.1.1.4,16,-0.230,-0.230,-0.230,0.000,-0.000,0.000
1640671432992243968,2021-12-28-06:03:52,10.1.1.4,2,-0.230,-0.230,-0.230,0.000,-0.000,0.000
1640671434033562880,2021-12-28-06:03:54,10.1.1.4,17,-0.230,-0.230,-0.230,0.000,-0.000,0.000
1640671435114895104,2021-12-28-06:03:55,10.1.1.4,0,-0.230,-0.230,-0.230,0.000,-0.000,0.000
1640671436077204992,2021-12-28-06:03:56,10.1.1.4,7,-0.230,-0.230,-0.230,0.000,-0.000,0.000
1640671437157027840,2021-12-28-06:03:57,10.1.1.4,13,-0.230,-0.230,-0.230,0.000,-0.000,0.000
1640671438097704960,2021-12-28-06:03:58,10.1.1.4,1,-0.230,-0.230,-0.230,0.000,-0.000,0.000
1640671439177635072,2021-12-28-06:03:59,10.1.1.4,2,-0.230,-0.230,-0.230,0.000,-0.000,0.000
1640671440157718016,2021-12-28-06:04:00,10.1.1.4,19,-0.230,-0.230,-0.230,0.000,-0.000,0.000
1640671441278386944,2021-12-28-06:04:01,10.1.1.4,18,-0.230,-0.230,-0.230,0.000,-0.000,0.000
1640671442258682880,2021-12-28-06:04:02,10.1.1.4,18,-0.230,-0.230,-0.230,0.000,-0.000,0.000
1640671443337081856,2021-12-28-06:04:03,10.1.1.4,6,-0.230,-0.230,-0.230,0.000,-0.000,0.000
1640671444315366144,2021-12-28-06:04:04,10.1.1.4,16,-0.230,-0.230,-0.230,0.000,-0.000,0.000
1640671445434626048,2021-12-28-06:04:05,10.1.1.4,13,-0.230,-0.230,-0.230,0.000,-0.000,0.000
1640671446373348096,2021-12-28-06:04:06,10.1.1.4,4,-0.230,-0.230,-0.230,0.000,-0.000,0.000
1640671447453267200,2021-12-28-06:04:07,10.1.1.4,7,-0.230,-0.230,-0.230,0.000,-0.000,0.000
1640671448411045120,2021-12-28-06:04:08,10.1.1.4,15,-0.230,-0.230,-0.230,0.000,-0.000,0.000
1640671449488732928,2021-12-28-06:04:09,10.1.1.4,5,-0.230,-0.230,-0.230,0.000,-0.000,0.000
1640671450449208064,2021-12-28-06:04:10,10.1.1.4,12,-0.230,-0.230,-0.230,0.000,-0.000,0.000
1640671451546850816,2021-12-28-06:04:11,10.1.1.4,12,-0.230,-0.230,-0.230,0.000,-0.000,0.000
1640671452504323840,2021-12-28-06:04:12,10.1.1.4,9,-0.230,-0.230,-0.230,0.000,-0.000,0.000
1640671453602652160,2021-12-28-06:04:13,10.1.1.4,18,-0.230,-0.230,-0.230,0.000,-0.000,0.000
1640671454542179072,2021-12-28-06:04:14,10.1.1.4,0,-0.230,-0.230,-0.230,0.000,-0.000,0.000
1640671455681227008,2021-12-28-06:04:15,10.1.1.4,16,-0.230,-0.230,-0.230,0.000,-0.000,0.000
1640671456658369024,2021-12-28-06:04:16,10.1.1.4,13,-0.230,-0.230,-0.230,0.000,-0.000,0.000
1640671457778317056,2021-12-28-06:04:17,10.1.1.4,15,-0.230,-0.230,-0.230,0.000,-0.000,0.000
1640671458735145216,2021-12-28-06:04:18,10.1.1.4,14,-0.230,-0.230,-0.230,0.000,-0.000,0.000
1640671459873735936,2021-12-28-06:04:19,10.1.1.4,8,-0.230,-0.230,-0.230,0.000,-0.000,0.000
1640671460832818944,2021-12-28-06:04:20,10.1.1.4,8,-0.230,-0.230,-0.230,0.000,-0.000,0.000
1640671461917916928,2021-12-28-06:04:21,10.1.1.4,9,-0.230,-0.230,-0.230,0.000,-0.000,0.000
1640671462881505024,2021-12-28-06:04:22,10.1.1.4,18,-0.230,-0.230,-0.230,0.000,-0.000,0.000
1640671464026182912,2021-12-28-06:04:24,10.1.1.4,17,-0.230,-0.230,-0.230,0.000,-0.000,0.000
1640671464967614976,2021-12-28-06:04:24,10.1.1.4,2,-0.230,-0.230,-0.230,0.000,-0.000,0.000
1640671466070825216,2021-12-28-06:04:26,10.1.1.4,16,-0.230,-0.230,-0.230,0.000,-0.000,0.000
1640671467034486016,2021-12-28-06:04:27,10.1.1.4,20,-0.230,-0.230,-0.230,0.000,-0.000,0.000
1640671468113688832,2021-12-28-06:04:28,10.1.1.4,0,-0.230,-0.230,-0.230,0.000,-0.000,0.000
1640671469074556160,2021-12-28-06:04:29,10.1.1.4,6,-0.230,-0.230,-0.230,0.000,-0.000,0.000
1640671470174803968,2021-12-28-06:04:30,10.1.1.4,17,-0.230,-0.230,-0.230,0.000,-0.000,0.000
1640671471116076032,2021-12-28-06:04:31,10.1.1.4,4,-0.230,-0.230,-0.230,0.000,-0.000,0.000
1640671472215296000,2021-12-28-06:04:32,10.1.1.4,17,-0.230,-0.230,-0.230,0.000,-0.000,0.000
1640671473155294976,2021-12-28-06:04:33,10.1.1.4,4,-0.230,-0.230,-0.230,0.000,-0.000,0.000
1640671474296435200,2021-12-28-06:04:34,10.1.1.4,10,-0.230,-0.230,-0.230,0.000,-0.000,0.000
1640671475256845056,2021-12-28-06:04:35,10.1.1.4,4,-0.230,-0.230,-0.230,0.000,-0.000,0.000
1640671476357285888,2021-12-28-06:04:36,10.1.1.4,7,-0.230,-0.230,-0.230,0.000,-0.000,0.000
1640671477335347968,2021-12-28-06:04:37,10.1.1.4,15,-0.230,-0.230,-0.230,0.000,-0.000,0.000
1640671478411499008,2021-12-28-06:04:38,10.1.1.4,18,-0.230,-0.230,-0.230,0.000,-0.000,0.000
1640671479352547840,2021-12-28-06:04:39,10.1.1.4,6,-0.230,-0.230,-0.230,0.000,-0.000,0.000
1640671480470295040,2021-12-28-06:04:40,10.1.1.4,17,-0.230,-0.230,-0.230,0.000,-0.000,0.000
1640671481469481984,2021-12-28-06:04:41,10.1.1.4,19,-0.230,-0.230,-0.230,0.000,-0.000,0.000
1640671482567367936,2021-12-28-06:04:42,10.1.1.4,12,-0.230,-0.230,-0.230,0.000,-0.000,0.000
1640671483507673856,2021-12-28-06:04:43,10.1.1.4,1,-0.230,-0.230,-0.230,0.000,-0.000,0.000
1640671484586657024,2021-12-28-06:04:44,10.1.1.4,3,-0.230,-0.230,-0.230,0.000,-0.000,0.000
1640671485542702080,2021-12-28-06:04:45,10.1.1.4,15,-0.230,-0.230,-0.230,0.000,-0.000,0.000
1640671486642637056,2021-12-28-06:04:46,10.1.1.4,15,-0.230,-0.230,-0.230,0.000,-0.000,0.000
1640671487701836032,2021-12-28-06:04:47,10.1.1.4,20,-0.230,-0.230,-0.230,0.000,-0.000,0.000
1640671488800205056,2021-12-28-06:04:48,10.1.1.4,2,-0.230,-0.230,-0.230,0.000,-0.000,0.000
1640671489777918976,2021-12-28-06:04:49,10.1.1.4,9,-0.230,-0.230,-0.230,0.000,-0.000,0.000
1640671490856980992,2021-12-28-06:04:50,10.1.1.4,4,-0.230,-0.230,-0.230,0.000,-0.000,0.000
1640671491853693952,2021-12-28-06:04:51,10.1.1.4,4,-0.230,-0.230,-0.230,0.000,-0.000,0.000
1640671492952466944,2021-12-28-06:04:52,10.1.1.4,10,-0.230,-0.230,-0.230,0.000,-0.000,0.000
1640671493917061120,2021-12-28-06:04:53,10.1.1.4,6,-0.230,-0.230,-0.230,0.000,-0.000,0.000
1640671495002646016,2021-12-28-06:04:55,10.1.1.4,7,-0.230,-0.230,-0.230,0.000,-0.000,0.000
1640671495966703872,2021-12-28-06:04:55,10.1.1.4,12,-0.230,-0.230,-0.230,0.000,-0.000,0.000
1640671497069506816,2021-12-28-06:04:57,10.1.1.4,11,-0.230,-0.230,-0.230,0.000,-0.000,0.000
1640671498029961216,2021-12-28-06:04:58,10.1.1.4,9,-0.230,-0.230,-0.230,0.000,-0.000,0.000
1640671499132594944,2021-12-28-06:04:59,10.1.1.4,6,-0.230,-0.230,-0.230,0.000,-0.000,0.000
1640671500093959168,2021-12-28-06:05:00,10.1.1.4,5,-0.230,-0.230,-0.230,0.000,-0.000,0.000
1640671501174220032,2021-12-28-06:05:01,10.1.1.4,10,-0.230,-0.230,-0.230,0.000,-0.000,0.000
1640671502134577152,2021-12-28-06:05:02,10.1.1.4,13,-0.230,-0.230,-0.230,0.000,-0.000,0.000
1640671504175755008,2021-12-28-06:05:04,10.1.1.4,15,-0.230,-0.230,-0.230,0.000,-0.000,0.000
1640671505257689856,2021-12-28-06:05:05,10.1.1.4,17,-0.230,-0.230,-0.230,0.000,-0.000,0.000
1640671506294717952,2021-12-28-06:05:06,10.1.1.4,17,-0.230,-0.230,-0.230,0.000,-0.000,0.000
1640671507413989120,2021-12-28-06:05:07,10.1.1.4,9,-0.230,-0.230,-0.230,0.000,-0.000,0.000
1640671508374473216,2021-12-28-06:05:08,10.1.1.4,6,-0.230,-0.230,-0.230,0.000,-0.000,0.000
1640671509453565952,2021-12-28-06:05:09,10.1.1.4,2,-0.230,-0.230,-0.230,0.000,-0.000,0.000
1640671510412695808,2021-12-28-06:05:10,10.1.1.4,2,-0.230,-0.230,-0.230,0.000,-0.000,0.000
1640671511491621888,2021-12-28-06:05:11,10.1.1.4,4,-0.230,-0.230,-0.230,0.000,-0.000,0.000
1640671512510489856,2021-12-28-06:05:12,10.1.1.4,7,-0.230,-0.230,-0.230,0.000,-0.000,0.000
1640671513589067008,2021-12-28-06:05:13,10.1.1.4,8,-0.230,-0.230,-0.230,0.000,-0.000,0.000
1640671514546595072,2021-12-28-06:05:14,10.1.1.4,4,-0.230,-0.230,-0.230,0.000,-0.000,0.000
1640671515646526208,2021-12-28-06:05:15,10.1.1.4,15,-0.230,-0.230,-0.230,0.000,-0.000,0.000
1640671516645071872,2021-12-28-06:05:16,10.1.1.4,18,-0.230,-0.230,-0.230,0.000,-0.000,0.000
1640671517721782016,2021-12-28-06:05:17,10.1.1.4,11,-0.230,-0.230,-0.230,0.000,-0.000,0.000
1640671518702029824,2021-12-28-06:05:18,10.1.1.4,2,-0.230,-0.230,-0.230,0.000,-0.000,0.000
1640671519780327936,2021-12-28-06:05:19,10.1.1.4,0,-0.230,-0.230,-0.230,0.000,-0.000,0.000
1640671520739734016,2021-12-28-06:05:20,10.1.1.4,2,-0.230,-0.230,-0.230,0.000,-0.000,0.000
1640671521837132032,2021-12-28-06:05:21,10.1.1.4,4,-0.230,-0.230,-0.230,0.000,-0.000,0.000
1640671522815799040,2021-12-28-06:05:22,10.1.1.4,3,-0.230,-0.230,-0.230,0.000,-0.000,0.000
1640671523913983232,2021-12-28-06:05:23,10.1.1.4,11,-0.230,-0.230,-0.230,0.000,-0.000,0.000
1640671524892214016,2021-12-28-06:05:24,10.1.1.4,15,-0.230,-0.230,-0.230,0.000,-0.000,0.000
1640671526017329920,2021-12-28-06:05:26,10.1.1.4,15,-0.230,-0.230,-0.230,0.000,-0.000,0.000
1640671526981723904,2021-12-28-06:05:26,10.1.1.4,18,-0.230,-0.230,-0.230,0.000,-0.000,0.000
1640671528046449920,2021-12-28-06:05:28,10.1.1.4,13,-0.230,-0.230,-0.230,0.000,-0.000,0.000
1640671529009937920,2021-12-28-06:05:29,10.1.1.4,17,-0.230,-0.230,-0.230,0.000,-0.000,0.000
1640671530073268992,2021-12-28-06:05:30,10.1.1.4,1,-0.230,-0.230,-0.230,0.000,-0.000,0.000
1640671531113292032,2021-12-28-06:05:31,10.1.1.4,18,-0.230,-0.230,-0.230,0.000,-0.000,0.000
1640671532175862016,2021-12-28-06:05:32,10.1.1.4,8,-0.230,-0.230,-0.230,0.000,-0.000,0.000
1640671533136784128,2021-12-28-06:05:33,10.1.1.4,12,-0.230,-0.230,-0.230,0.000,-0.000,0.000
1640671534197374208,2021-12-28-06:05:34,10.1.1.4,1,-0.230,-0.230,-0.230,0.000,-0.000,0.000
1640671535179236864,2021-12-28-06:05:35,10.1.1.4,11,-0.230,-0.230,-0.230,0.000,-0.000,0.000
1640671536300406016,2021-12-28-06:05:36,10.1.1.4,8,-0.230,-0.230,-0.230,0.000,-0.000,0.000
1640671537279234048,2021-12-28-06:05:37,10.1.1.4,19,-0.230,-0.230,-0.230,0.000,-0.000,0.000
1640671538420204032,2021-12-28-06:05:38,10.1.1.4,13,-0.230,-0.230,-0.230,0.000,-0.000,0.000
1640671539378198016,2021-12-28-06:05:39,10.1.1.4,17,-0.230,-0.230,-0.230,0.000,-0.000,0.000
1640671540457707008,2021-12-28-06:05:40,10.1.1.4,10,-0.230,-0.230,-0.230,0.000,-0.000,0.000
1640671541416014080,2021-12-28-06:05:41,10.1.1.4,7,-0.230,-0.230,-0.230,0.000,-0.000,0.000
1640671542517081088,2021-12-28-06:05:42,10.1.1.4,7,-0.230,-0.230,-0.230,0.000,-0.000,0.000
1640671543474237952,2021-12-28-06:05:43,10.1.1.4,9,-0.230,-0.230,-0.230,0.000,-0.000,0.000
1640671544613754880,2021-12-28-06:05:44,10.1.1.4,3,-0.230,-0.230,-0.230,0.000,-0.000,0.000
1640671545572144128,2021-12-28-06:05:45,10.1.1.4,2,-0.230,-0.230,-0.230,0.000,-0.000,0.000
1640671546669660160,2021-12-28-06:05:46,10.1.1.4,8,-0.230,-0.230,-0.230,0.000,-0.000,0.000
1640671547628689920,2021-12-28-06:05:47,10.1.1.4,16,-0.230,-0.230,-0.230,0.000,-0.000,0.000
1640671548708638976,2021-12-28-06:05:48,10.1.1.4,16,-0.230,-0.230,-0.230,0.000,-0.000,0.000
1640671549666071808,2021-12-28-06:05:49,10.1.1.4,9,-0.230,-0.230,-0.230,0.000,-0.000,0.000
1640671550787532032,2021-12-28-06:05:50,10.1.1.4,19,-0.230,-0.230,-0.230,0.000,-0.000,0.000
1640671551823791104,2021-12-28-06:05:51,10.1.1.4,14,-0.230,-0.230,-0.230,0.000,-0.000,0.000
1640671552901239040,2021-12-28-06:05:52,10.1.1.4,3,-0.230,-0.230,-0.230,0.000,-0.000,0.000
1640671553860212992,2021-12-28-06:05:53,10.1.1.4,4,-0.230,-0.230,-0.230,0.000,-0.000,0.000
1640671554977889024,2021-12-28-06:05:54,10.1.1.4,18,-0.230,-0.230,-0.230,0.000,-0.000,0.000
1640671555916604928,2021-12-28-06:05:55,10.1.1.4,3,-0.230,-0.230,-0.230,0.000,-0.000,0.000
1640671557008769024,2021-12-28-06:05:57,10.1.1.4,20,-0.230,-0.230,-0.230,0.000,-0.000,0.000
1640671557959130112,2021-12-28-06:05:57,10.1.1.4,14,-0.230,-0.230,-0.230,0.000,-0.000,0.000
1640671559044361984,2021-12-28-06:05:59,10.1.1.4,14,-0.230,-0.230,-0.230,0.000,-0.000,0.000
1640671559986775040,2021-12-28-06:05:59,10.1.1.4,3,-0.230,-0.230,-0.230,0.000,-0.000,0.000
1640671561090109952,2021-12-28-06:06:01,10.1.1.4,6,-0.230,-0.230,-0.230,0.000,-0.000,0.000
1640671562092668928,2021-12-28-06:06:02,10.1.1.4,9,-0.230,-0.230,-0.230,0.000,-0.000,0.000
1640671563174135808,2021-12-28-06:06:03,10.1.1.4,13,-0.230,-0.230,-0.230,0.000,-0.000,0.000
1640671564136668928,2021-12-28-06:06:04,10.1.1.4,4,-0.230,-0.230,-0.230,0.000,-0.000,0.000
1640671565257332992,2021-12-28-06:06:05,10.1.1.4,5,-0.230,-0.230,-0.230,0.000,-0.000,0.000
1640671566216495104,2021-12-28-06:06:06,10.1.1.4,5,-0.230,-0.230,-0.230,0.000,-0.000,0.000
1640671567317619200,2021-12-28-06:06:07,10.1.1.4,18,-0.230,-0.230,-0.230,0.000,-0.000,0.000
1640671568298562048,2021-12-28-06:06:08,10.1.1.4,8,-0.230,-0.230,-0.230,0.000,-0.000,0.000
1640671569437709056,2021-12-28-06:06:09,10.1.1.4,12,-0.230,-0.230,-0.230,0.000,-0.000,0.000
1640671570436687104,2021-12-28-06:06:10,10.1.1.4,10,-0.230,-0.230,-0.230,0.000,-0.000,0.000
1640671571576366848,2021-12-28-06:06:11,10.1.1.4,9,-0.230,-0.230,-0.230,0.000,-0.000,0.000
1640671572535764992,2021-12-28-06:06:12,10.1.1.4,5,-0.230,-0.230,-0.230,0.000,-0.000,0.000
1640671573613164800,2021-12-28-06:06:13,10.1.1.4,9,-0.230,-0.230,-0.230,0.000,-0.000,0.000
1640671574572370176,2021-12-28-06:06:14,10.1.1.4,14,-0.230,-0.230,-0.230,0.000,-0.000,0.000
1640671575691514880,2021-12-28-06:06:15,10.1.1.4,13,-0.230,-0.230,-0.230,0.000,-0.000,0.000
1640671576630332928,2021-12-28-06:06:16,10.1.1.4,1,-0.230,-0.230,-0.230,0.000,-0.000,0.000
1640671577708903168,2021-12-28-06:06:17,10.1.1.4,4,-0.230,-0.230,-0.230,0.000,-0.000,0.000
1640671578668638976,2021-12-28-06:06:18,10.1.1.4,13,-0.230,-0.230,-0.230,0.000,-0.000,0.000
1640671579746824960,2021-12-28-06:06:19,10.1.1.4,2,-0.230,-0.230,-0.230,0.000,-0.000,0.000
1640671580706617088,2021-12-28-06:06:20,10.1.1.4,3,-0.230,-0.230,-0.230,0.000,-0.000,0.000
1640671581806572800,2021-12-28-06:06:21,10.1.1.4,14,-0.230,-0.230,-0.230,0.000,-0.000,0.000
1640671582761379072,2021-12-28-06:06:22,10.1.1.4,18,-0.230,-0.230,-0.230,0.000,-0.000,0.000
1640671583840431872,2021-12-28-06:06:23,10.1.1.4,19,-0.230,-0.230,-0.230,0.000,-0.000,0.000
1640671584779481856,2021-12-28-06:06:24,10.1.1.4,5,-0.230,-0.230,-0.230,0.000,-0.000,0.000
1640671585857740032,2021-12-28-06:06:25,10.1.1.4,13,-0.230,-0.230,-0.230,0.000,-0.000,0.000
1640671586816036864,2021-12-28-06:06:26,10.1.1.4,12,-0.230,-0.230,-0.230,0.000,-0.000,0.000
1640671587893449984,2021-12-28-06:06:27,10.1.1.4,5,-0.230,-0.230,-0.230,0.000,-0.000,0.000
1640671588852692992,2021-12-28-06:06:28,10.1.1.4,20,-0.230,-0.230,-0.230,0.000,-0.000,0.000
1640671589946476032,2021-12-28-06:06:29,10.1.1.4,29,-0.230,-0.230,-0.230,0.000,-0.000,0.000
1640671590916603136,2021-12-28-06:06:30,10.1.1.4,2,-0.230,-0.230,-0.230,0.000,-0.000,0.000
1640671592019545088,2021-12-28-06:06:32,10.1.1.4,10,-0.230,-0.230,-0.230,0.000,-0.000,0.000
1640671592984293888,2021-12-28-06:06:32,10.1.1.4,5,-0.230,-0.230,-0.230,0.000,-0.000,0.000
1640671594066127104,2021-12-28-06:06:34,10.1.1.4,12,-0.230,-0.230,-0.230,0.000,-0.000,0.000
1640671595049416960,2021-12-28-06:06:35,10.1.1.4,16,-0.230,-0.230,-0.230,0.000,-0.000,0.000
1640671596113428992,2021-12-28-06:06:36,10.1.1.4,3,-0.230,-0.230,-0.230,0.000,-0.000,0.000
1640671597093627904,2021-12-28-06:06:37,10.1.1.4,14,-0.230,-0.230,-0.230,0.000,-0.000,0.000
1640671598153615872,2021-12-28-06:06:38,10.1.1.4,7,-0.230,-0.230,-0.230,0.000,-0.000,0.000
1640671599096971008,2021-12-28-06:06:39,10.1.1.4,-1,-0.230,-0.230,-0.230,0.000,-0.000,0.000
1640671600216056064,2021-12-28-06:06:40,10.1.1.4,19,-0.230,-0.230,-0.230,0.000,-0.000,0.000
1640671601177064960,2021-12-28-06:06:41,10.1.1.4,14,-0.230,-0.230,-0.230,0.000,-0.000,0.000
1640671602254633984,2021-12-28-06:06:42,10.1.1.4,3,-0.230,-0.230,-0.230,0.000,-0.000,0.000
1640671603216147968,2021-12-28-06:06:43,10.1.1.4,12,-0.230,-0.230,-0.230,0.000,-0.000,0.000
1640671604334283008,2021-12-28-06:06:44,10.1.1.4,17,-0.230,-0.230,-0.230,0.000,-0.000,0.000
1640671605333132032,2021-12-28-06:06:45,10.1.1.4,2,-0.230,-0.230,-0.230,0.000,-0.000,0.000
1640671606410998016,2021-12-28-06:06:46,10.1.1.4,5,-0.230,-0.230,-0.230,0.000,-0.000,0.000
1640671607370796032,2021-12-28-06:06:47,10.1.1.4,12,-0.230,-0.230,-0.230,0.000,-0.000,0.000
1640671608449285120,2021-12-28-06:06:48,10.1.1.4,9,-0.230,-0.230,-0.230,0.000,-0.000,0.000
1640671609408690944,2021-12-28-06:06:49,10.1.1.4,17,-0.230,-0.230,-0.230,0.000,-0.000,0.000
1640671610488145152,2021-12-28-06:06:50,10.1.1.4,11,-0.230,-0.230,-0.230,0.000,-0.000,0.000
1640671611450298112,2021-12-28-06:06:51,10.1.1.4,7,-0.230,-0.230,-0.230,0.000,-0.000,0.000
1640671612585218048,2021-12-28-06:06:52,10.1.1.4,14,-0.230,-0.230,-0.230,0.000,-0.000,0.000
1640671613544836096,2021-12-28-06:06:53,10.1.1.4,8,-0.230,-0.230,-0.230,0.000,-0.000,0.000
1640671614661904128,2021-12-28-06:06:54,10.1.1.4,11,-0.230,-0.230,-0.230,0.000,-0.000,0.000
1640671615640985088,2021-12-28-06:06:55,10.1.1.4,10,-0.230,-0.230,-0.230,0.000,-0.000,0.000
1640671616720550912,2021-12-28-06:06:56,10.1.1.4,6,-0.230,-0.230,-0.230,0.000,-0.000,0.000
1640671617698127104,2021-12-28-06:06:57,10.1.1.4,19,-0.230,-0.230,-0.230,0.000,-0.000,0.000
1640671618756422144,2021-12-28-06:06:58,10.1.1.4,4,-0.230,-0.230,-0.230,0.000,-0.000,0.000
1640671619714548224,2021-12-28-06:06:59,10.1.1.4,5,-0.230,-0.230,-0.230,0.000,-0.000,0.000
1640671620812408832,2021-12-28-06:07:00,10.1.1.4,15,-0.230,-0.230,-0.230,0.000,-0.000,0.000
1640671621771545856,2021-12-28-06:07:01,10.1.1.4,9,-0.230,-0.230,-0.230,0.000,-0.000,0.000
1640671622855646976,2021-12-28-06:07:02,10.1.1.4,12,-0.230,-0.230,-0.230,0.000,-0.000,0.000
1640671623820184064,2021-12-28-06:07:03,10.1.1.4,13,-0.230,-0.230,-0.230,0.000,-0.000,0.000
1640671624903710976,2021-12-28-06:07:04,10.1.1.4,9,-0.230,-0.230,-0.230,0.000,-0.000,0.000
1640671625866077952,2021-12-28-06:07:05,10.1.1.4,18,-0.230,-0.230,-0.230,0.000,-0.000,0.000
1640671626949122816,2021-12-28-06:07:06,10.1.1.4,3,-0.230,-0.230,-0.230,0.000,-0.000,0.000
1640671627933821952,2021-12-28-06:07:07,10.1.1.4,5,-0.230,-0.230,-0.230,0.000,-0.000,0.000
1640671629034753024,2021-12-28-06:07:09,10.1.1.4,18,-0.230,-0.230,-0.230,0.000,-0.000,0.000
1640671629994556928,2021-12-28-06:07:09,10.1.1.4,7,-0.230,-0.230,-0.230,0.000,-0.000,0.000
1640671631075815936,2021-12-28-06:07:11,10.1.1.4,7,-0.230,-0.230,-0.230,0.000,-0.000,0.000
1640671632075141888,2021-12-28-06:07:12,10.1.1.4,5,-0.230,-0.230,-0.230,0.000,-0.000,0.000
1640671633195702016,2021-12-28-06:07:13,10.1.1.4,9,-0.230,-0.230,-0.230,0.000,-0.000,0.000
1640671634154611200,2021-12-28-06:07:14,10.1.1.4,19,-0.230,-0.230,-0.230,0.000,-0.000,0.000
1640671635254622976,2021-12-28-06:07:15,10.1.1.4,17,-0.230,-0.230,-0.230,0.000,-0.000,0.000
1640671636213443072,2021-12-28-06:07:16,10.1.1.4,1,-0.230,-0.230,-0.230,0.000,-0.000,0.000
1640671637312973056,2021-12-28-06:07:17,10.1.1.4,14,-0.230,-0.230,-0.230,0.000,-0.000,0.000
1640671638273278976,2021-12-28-06:07:18,10.1.1.4,12,-0.230,-0.230,-0.230,0.000,-0.000,0.000
1640671639392834048,2021-12-28-06:07:19,10.1.1.4,7,-0.230,-0.230,-0.230,0.000,-0.000,0.000
1640671640351388928,2021-12-28-06:07:20,10.1.1.4,4,-0.230,-0.230,-0.230,0.000,-0.000,0.000
1640671641429504000,2021-12-28-06:07:21,10.1.1.4,0,-0.230,-0.230,-0.230,0.000,-0.000,0.000
1640671642409490944,2021-12-28-06:07:22,10.1.1.4,17,-0.230,-0.230,-0.230,0.000,-0.000,0.000
1640671643507610112,2021-12-28-06:07:23,10.1.1.4,5,-0.230,-0.230,-0.230,0.000,-0.000,0.000
1640671644466406144,2021-12-28-06:07:24,10.1.1.4,6,-0.230,-0.230,-0.230,0.000,-0.000,0.000
1640671645545326848,2021-12-28-06:07:25,10.1.1.4,7,-0.230,-0.230,-0.230,0.000,-0.000,0.000
1640671646502928128,2021-12-28-06:07:26,10.1.1.4,4,-0.230,-0.230,-0.230,0.000,-0.000,0.000
1640671647642360064,2021-12-28-06:07:27,10.1.1.4,15,-0.230,-0.230,-0.230,0.000,-0.000,0.000
1640671648641172992,2021-12-28-06:07:28,10.1.1.4,13,-0.230,-0.230,-0.230,0.000,-0.000,0.000
1640671649739686912,2021-12-28-06:07:29,10.1.1.4,10,-0.230,-0.230,-0.230,0.000,-0.000,0.000
1640671650700598016,2021-12-28-06:07:30,10.1.1.4,13,-0.230,-0.230,-0.230,0.000,-0.000,0.000
1640671651834498048,2021-12-28-06:07:31,10.1.1.4,12,-0.230,-0.230,-0.230,0.000,-0.000,0.000
1640671652813273856,2021-12-28-06:07:32,10.1.1.4,12,-0.230,-0.230,-0.230,0.000,-0.000,0.000
1640671653891095040,2021-12-28-06:07:33,10.1.1.4,4,-0.230,-0.230,-0.230,0.000,-0.000,0.000
1640671654855282176,2021-12-28-06:07:34,10.1.1.4,9,-0.230,-0.230,-0.230,0.000,-0.000,0.000
1640671655940500992,2021-12-28-06:07:35,10.1.1.4,16,-0.230,-0.230,-0.230,0.000,-0.000,0.000
1640671656925167104,2021-12-28-06:07:36,10.1.1.4,12,-0.230,-0.230,-0.230,0.000,-0.000,0.000
1640671657988188928,2021-12-28-06:07:37,10.1.1.4,0,-0.230,-0.230,-0.230,0.000,-0.000,0.000
1640671658929826048,2021-12-28-06:07:38,10.1.1.4,0,-0.230,-0.230,-0.230,0.000,-0.000,0.000
1640671660011276032,2021-12-28-06:07:40,10.1.1.4,1,-0.230,-0.230,-0.230,0.000,-0.000,0.000
1640671660976280832,2021-12-28-06:07:40,10.1.1.4,11,-0.230,-0.230,-0.230,0.000,-0.000,0.000
1640671662074515968,2021-12-28-06:07:42,10.1.1.4,3,-0.230,-0.230,-0.230,0.000,-0.000,0.000
1640671663074722048,2021-12-28-06:07:43,10.1.1.4,7,-0.230,-0.230,-0.230,0.000,-0.000,0.000
1640671664255358976,2021-12-28-06:07:44,10.1.1.4,12,-0.230,-0.230,-0.230,0.000,-0.000,0.000
1640671665257232896,2021-12-28-06:07:45,10.1.1.4,18,-0.230,-0.230,-0.230,0.000,-0.000,0.000
1640671666377412096,2021-12-28-06:07:46,10.1.1.4,12,-0.230,-0.230,-0.230,0.000,-0.000,0.000
1640671667334388992,2021-12-28-06:07:47,10.1.1.4,18,-0.230,-0.230,-0.230,0.000,-0.000,0.000
1640671668433167104,2021-12-28-06:07:48,10.1.1.4,8,-0.230,-0.230,-0.230,0.000,-0.000,0.000
1640671670493516800,2021-12-28-06:07:50,10.1.1.4,2,-0.230,-0.230,-0.230,0.000,-0.000,0.000
1640671671471579904,2021-12-28-06:07:51,10.1.1.4,18,-0.230,-0.230,-0.230,0.000,-0.000,0.000
1640671672550596864,2021-12-28-06:07:52,10.1.1.4,8,-0.230,-0.230,-0.230,0.000,-0.000,0.000
1640671673549499904,2021-12-28-06:07:53,10.1.1.4,15,-0.230,-0.230,-0.230,0.000,-0.000,0.000
1640671674627134208,2021-12-28-06:07:54,10.1.1.4,3,-0.230,-0.230,-0.230,0.000,-0.000,0.000
1640671675589049088,2021-12-28-06:07:55,10.1.1.4,9,-0.230,-0.230,-0.230,0.000,-0.000,0.000
1640671676666469120,2021-12-28-06:07:56,10.1.1.4,0,-0.230,-0.230,-0.230,0.000,-0.000,0.000
1640671677704872960,2021-12-28-06:07:57,10.1.1.4,19,-0.230,-0.230,-0.230,0.000,-0.000,0.000
1640671678804059136,2021-12-28-06:07:58,10.1.1.4,13,-0.230,-0.230,-0.230,0.000,-0.000,0.000
1640671679781161984,2021-12-28-06:07:59,10.1.1.4,19,-0.230,-0.230,-0.230,0.000,-0.000,0.000
1640671680860322048,2021-12-28-06:08:00,10.1.1.4,15,-0.230,-0.230,-0.230,0.000,-0.000,0.000
1640671681817298944,2021-12-28-06:08:01,10.1.1.4,4,-0.230,-0.230,-0.230,0.000,-0.000,0.000
1640671682975531008,2021-12-28-06:08:02,10.1.1.4,19,-0.230,-0.230,-0.230,0.000,-0.000,0.000
1640671683914932992,2021-12-28-06:08:03,10.1.1.4,6,-0.230,-0.230,-0.230,0.000,-0.000,0.000
1640671685032710912,2021-12-28-06:08:05,10.1.1.4,1,-0.230,-0.230,-0.230,0.000,-0.000,0.000
1640671685991556864,2021-12-28-06:08:05,10.1.1.4,7,-0.230,-0.230,-0.230,0.000,-0.000,0.000
1640671687077410048,2021-12-28-06:08:07,10.1.1.4,2,-0.230,-0.230,-0.230,0.000,-0.000,0.000
1640671688101593856,2021-12-28-06:08:08,10.1.1.4,19,-0.230,-0.230,-0.230,0.000,-0.000,0.000
1640671689165190912,2021-12-28-06:08:09,10.1.1.4,6,-0.230,-0.230,-0.230,0.000,-0.000,0.000
1640671690168647168,2021-12-28-06:08:10,10.1.1.4,7,-0.230,-0.230,-0.230,0.000,-0.000,0.000
1640671691290690048,2021-12-28-06:08:11,10.1.1.4,15,-0.230,-0.230,-0.230,0.000,-0.000,0.000
1640671692252739072,2021-12-28-06:08:12,10.1.1.4,17,-0.230,-0.230,-0.230,0.000,-0.000,0.000
1640671693333559040,2021-12-28-06:08:13,10.1.1.4,8,-0.230,-0.230,-0.230,0.000,-0.000,0.000
1640671694302701824,2021-12-28-06:08:14,10.1.1.4,14,-0.230,-0.230,-0.230,0.000,-0.000,0.000
1640671695395764992,2021-12-28-06:08:15,10.1.1.4,3,-0.230,-0.230,-0.230,0.000,-0.000,0.000
1640671696416888064,2021-12-28-06:08:16,10.1.1.4,12,-0.230,-0.230,-0.230,0.000,-0.000,0.000
1640671697516227072,2021-12-28-06:08:17,10.1.1.4,14,-0.230,-0.230,-0.230,0.000,-0.000,0.000
1640671698476336896,2021-12-28-06:08:18,10.1.1.4,13,-0.230,-0.230,-0.230,0.000,-0.000,0.000
1640671699554060032,2021-12-28-06:08:19,10.1.1.4,13,-0.230,-0.230,-0.230,0.000,-0.000,0.000
1640671700513474048,2021-12-28-06:08:20,10.1.1.4,6,-0.230,-0.230,-0.230,0.000,-0.000,0.000
1640671701653779968,2021-12-28-06:08:21,10.1.1.4,7,-0.230,-0.230,-0.230,0.000,-0.000,0.000
1640671702614054912,2021-12-28-06:08:22,10.1.1.4,10,-0.230,-0.230,-0.230,0.000,-0.000,0.000
1640671703711403008,2021-12-28-06:08:23,10.1.1.4,2,-0.230,-0.230,-0.230,0.000,-0.000,0.000
1640671704732253184,2021-12-28-06:08:24,10.1.1.4,20,-0.230,-0.230,-0.230,0.000,-0.000,0.000
1640671705849756928,2021-12-28-06:08:25,10.1.1.4,9,-0.230,-0.230,-0.230,0.000,-0.000,0.000
1640671706808402176,2021-12-28-06:08:26,10.1.1.4,19,-0.230,-0.230,-0.230,0.000,-0.000,0.000
1640671707888158976,2021-12-28-06:08:27,10.1.1.4,17,-0.230,-0.230,-0.230,0.000,-0.000,0.000
1640671708854317056,2021-12-28-06:08:28,10.1.1.4,9,-0.230,-0.230,-0.230,0.000,-0.000,0.000
1640671709924884992,2021-12-28-06:08:29,10.1.1.4,1,-0.230,-0.230,-0.230,0.000,-0.000,0.000
1640671710902867200,2021-12-28-06:08:30,10.1.1.4,16,-0.230,-0.230,-0.230,0.000,-0.000,0.000
1640671712020834048,2021-12-28-06:08:32,10.1.1.4,4,-0.230,-0.230,-0.230,0.000,-0.000,0.000
1640671712999527936,2021-12-28-06:08:32,10.1.1.4,15,-0.230,-0.230,-0.230,0.000,-0.000,0.000
1640671714078319104,2021-12-28-06:08:34,10.1.1.4,19,-0.230,-0.230,-0.230,0.000,-0.000,0.000
1640671715018227968,2021-12-28-06:08:35,10.1.1.4,8,-0.230,-0.230,-0.230,0.000,-0.000,0.000
1640671716094310144,2021-12-28-06:08:36,10.1.1.4,1,-0.230,-0.230,-0.230,0.000,-0.000,0.000
1640671717072489984,2021-12-28-06:08:37,10.1.1.4,13,-0.230,-0.230,-0.230,0.000,-0.000,0.000
1640671718151540992,2021-12-28-06:08:38,10.1.1.4,12,-0.230,-0.230,-0.230,0.000,-0.000,0.000
1640671719150747136,2021-12-28-06:08:39,10.1.1.4,12,-0.230,-0.230,-0.230,0.000,-0.000,0.000
1640671720256344064,2021-12-28-06:08:40,10.1.1.4,15,-0.230,-0.230,-0.230,0.000,-0.000,0.000
1640671721220590080,2021-12-28-06:08:41,10.1.1.4,12,-0.230,-0.230,-0.230,0.000,-0.000,0.000
1640671722326690048,2021-12-28-06:08:42,10.1.1.4,0,-0.230,-0.230,-0.230,0.000,-0.000,0.000
1640671723350533120,2021-12-28-06:08:43,10.1.1.4,20,-0.230,-0.230,-0.230,0.000,-0.000,0.000
1640671724494082816,2021-12-28-06:08:44,10.1.1.4,16,-0.230,-0.230,-0.230,0.000,-0.000,0.000
1640671725452475904,2021-12-28-06:08:45,10.1.1.4,17,-0.230,-0.230,-0.230,0.000,-0.000,0.000
1640671726534317056,2021-12-28-06:08:46,10.1.1.4,8,-0.230,-0.230,-0.230,0.000,-0.000,0.000
1640671727574998016,2021-12-28-06:08:47,10.1.1.4,2,-0.230,-0.230,-0.230,0.000,-0.000,0.000
1640671728675565056,2021-12-28-06:08:48,10.1.1.4,9,-0.230,-0.230,-0.230,0.000,-0.000,0.000
1640671729696013056,2021-12-28-06:08:49,10.1.1.4,9,-0.230,-0.230,-0.230,0.000,-0.000,0.000
1640671730797089024,2021-12-28-06:08:50,10.1.1.4,8,-0.230,-0.230,-0.230,0.000,-0.000,0.000
1640671731755475968,2021-12-28-06:08:51,10.1.1.4,10,-0.230,-0.230,-0.230,0.000,-0.000,0.000
1640671732835047936,2021-12-28-06:08:52,10.1.1.4,9,-0.230,-0.230,-0.230,0.000,-0.000,0.000
1640671733816324096,2021-12-28-06:08:53,10.1.1.4,11,-0.230,-0.230,-0.230,0.000,-0.000,0.000
1640671734897191168,2021-12-28-06:08:54,10.1.1.4,1,-0.230,-0.230,-0.230,0.000,-0.000,0.000
1640671735894264064,2021-12-28-06:08:55,10.1.1.4,3,-0.230,-0.230,-0.230,0.000,-0.000,0.000
1640671736990131968,2021-12-28-06:08:56,10.1.1.4,13,-0.230,-0.230,-0.230,0.000,-0.000,0.000
1640671737952406784,2021-12-28-06:08:57,10.1.1.4,10,-0.230,-0.230,-0.230,0.000,-0.000,0.000
1640671739028505088,2021-12-28-06:08:59,10.1.1.4,17,-0.230,-0.230,-0.230,0.000,-0.000,0.000
1640671739968684800,2021-12-28-06:08:59,10.1.1.4,11,-0.230,-0.230,-0.230,0.000,-0.000,0.000
1640671741046127104,2021-12-28-06:09:01,10.1.1.4,12,-0.230,-0.230,-0.230,0.000,-0.000,0.000
1640671741986501888,2021-12-28-06:09:01,10.1.1.4,0,-0.230,-0.230,-0.230,0.000,-0.000,0.000
1640671743063815168,2021-12-28-06:09:03,10.1.1.4,9,-0.230,-0.230,-0.230,0.000,-0.000,0.000
1640671744024502016,2021-12-28-06:09:04,10.1.1.4,18,-0.230,-0.230,-0.230,0.000,-0.000,0.000
1640671745100016128,2021-12-28-06:09:05,10.1.1.4,5,-0.230,-0.230,-0.230,0.000,-0.000,0.000
1640671746078597120,2021-12-28-06:09:06,10.1.1.4,4,-0.230,-0.230,-0.230,0.000,-0.000,0.000
1640671747157208832,2021-12-28-06:09:07,10.1.1.4,1,-0.230,-0.230,-0.230,0.000,-0.000,0.000
1640671748135691776,2021-12-28-06:09:08,10.1.1.4,14,-0.230,-0.230,-0.230,0.000,-0.000,0.000
1640671749294793984,2021-12-28-06:09:09,10.1.1.4,16,-0.230,-0.230,-0.230,0.000,-0.000,0.000
1640671750272096000,2021-12-28-06:09:10,10.1.1.4,16,-0.230,-0.230,-0.230,0.000,-0.000,0.000
1640671751333466880,2021-12-28-06:09:11,10.1.1.4,8,-0.230,-0.230,-0.230,0.000,-0.000,0.000
1640671752319897856,2021-12-28-06:09:12,10.1.1.4,20,-0.230,-0.230,-0.230,0.000,-0.000,0.000
1640671753421111040,2021-12-28-06:09:13,10.1.1.4,8,-0.230,-0.230,-0.230,0.000,-0.000,0.000
1640671754405364992,2021-12-28-06:09:14,10.1.1.4,13,-0.230,-0.230,-0.230,0.000,-0.000,0.000
1640671755487250944,2021-12-28-06:09:15,10.1.1.4,11,-0.230,-0.230,-0.230,0.000,-0.000,0.000
1640671756469780992,2021-12-28-06:09:16,10.1.1.4,13,-0.230,-0.230,-0.230,0.000,-0.000,0.000
1640671757551600896,2021-12-28-06:09:17,10.1.1.4,17,-0.230,-0.230,-0.230,0.000,-0.000,0.000
1640671758513680896,2021-12-28-06:09:18,10.1.1.4,1,-0.230,-0.230,-0.230,0.000,-0.000,0.000
1640671759613185792,2021-12-28-06:09:19,10.1.1.4,14,-0.230,-0.230,-0.230,0.000,-0.000,0.000
1640671760633848832,2021-12-28-06:09:20,10.1.1.4,16,-0.230,-0.230,-0.230,0.000,-0.000,0.000
1640671761734968064,2021-12-28-06:09:21,10.1.1.4,9,-0.230,-0.230,-0.230,0.000,-0.000,0.000
1640671762735101952,2021-12-28-06:09:22,10.1.1.4,18,-0.230,-0.230,-0.230,0.000,-0.000,0.000
1640671763816492032,2021-12-28-06:09:23,10.1.1.4,17,-0.230,-0.230,-0.230,0.000,-0.000,0.000
1640671764773960192,2021-12-28-06:09:24,10.1.1.4,17,-0.230,-0.230,-0.230,0.000,-0.000,0.000
1640671765833548032,2021-12-28-06:09:25,10.1.1.4,3,-0.230,-0.230,-0.230,0.000,-0.000,0.000
1640671766792503040,2021-12-28-06:09:26,10.1.1.4,5,-0.230,-0.230,-0.230,0.000,-0.000,0.000
1640671767870595072,2021-12-28-06:09:27,10.1.1.4,5,-0.230,-0.230,-0.230,0.000,-0.000,0.000
1640671768861041920,2021-12-28-06:09:28,10.1.1.4,15,-0.230,-0.230,-0.230,0.000,-0.000,0.000
1640671769968722176,2021-12-28-06:09:29,10.1.1.4,3,-0.230,-0.230,-0.230,0.000,-0.000,0.000
1640671770962523904,2021-12-28-06:09:30,10.1.1.4,6,-0.230,-0.230,-0.230,0.000,-0.000,0.000
1640671772045833984,2021-12-28-06:09:32,10.1.1.4,5,-0.230,-0.230,-0.230,0.000,-0.000,0.000
