FedericoMungari/DigitalTwin_service/Output/Output_script/script_ROSAPI_output_robots12_freq0_11.txt.csv
timestamp,node,latency,joint_1,joint_2,joint_3,joint_4,joint_5,joint_6
1640079060965032192,"2021-12-21,09:31:00",10.1.1.12,11737,0.000,0.000,0.000,0.000,0.000,0.000
1640079063302118144,"2021-12-21,09:31:03",10.1.1.12,345,-0.010,-0.010,-0.010,0.000,0.000,0.000
1640079063324642816,"2021-12-21,09:31:03",10.1.1.12,0.3653688430786133,-0.010,-0.010,-0.010,0.000,0.000,0.000
1640079063671789824,"2021-12-21,09:31:03",10.1.1.12,345,-0.020,-0.020,-0.020,0.000,0.000,0.000
1640079063693906944,"2021-12-21,09:31:03",10.1.1.12,0.3677191734313965,-0.020,-0.020,-0.020,0.000,0.000,0.000
1640079064001308928,"2021-12-21,09:31:04",10.1.1.12,305,-0.030,-0.030,-0.030,0.000,0.000,0.000
1640079064037915904,"2021-12-21,09:31:04",10.1.1.12,0.34240198135375977,-0.030,-0.030,-0.030,0.000,0.000,0.000
1640079064360924928,"2021-12-21,09:31:04",10.1.1.12,321,-0.040,-0.040,-0.040,0.000,0.000,0.000
1640079064406888960,"2021-12-21,09:31:04",10.1.1.12,0.36734485626220703,-0.040,-0.040,-0.040,0.000,0.000,0.000
1640079064739382016,"2021-12-21,09:31:04",10.1.1.12,330,-0.050,-0.050,-0.050,0.000,0.000,0.000
1640079064771523072,"2021-12-21,09:31:04",10.1.1.12,0.3631110191345215,-0.050,-0.050,-0.050,0.000,0.000,0.000
1640079065079650048,"2021-12-21,09:31:05",10.1.1.12,306,-0.060,-0.060,-0.060,0.000,0.000,0.000
1640079065105384192,"2021-12-21,09:31:05",10.1.1.12,0.33170199394226074,-0.060,-0.060,-0.060,0.000,0.000,0.000
1640079065518420992,"2021-12-21,09:31:05",10.1.1.12,411,-0.070,-0.070,-0.070,0.000,0.000,0.000
1640079065533438976,"2021-12-21,09:31:05",10.1.1.12,0.42666101455688477,-0.070,-0.070,-0.070,0.000,0.000,0.000
1640079065868964864,"2021-12-21,09:31:05",10.1.1.12,333,-0.080,-0.080,-0.080,0.000,0.000,0.000
1640079065917146880,"2021-12-21,09:31:05",10.1.1.12,0.3815619945526123,-0.080,-0.080,-0.080,0.000,0.000,0.000
1640079066263994880,"2021-12-21,09:31:06",10.1.1.12,344,-0.090,-0.090,-0.090,0.000,0.000,0.000
1640079066345402112,"2021-12-21,09:31:06",10.1.1.12,0.4193751811981201,-0.090,-0.090,-0.090,0.000,0.000,0.000
1640079067645733120,"2021-12-21,09:31:07",10.1.1.12,1295,-0.100,-0.100,-0.100,0.000,0.000,0.000
1640079067684160000,"2021-12-21,09:31:07",10.1.1.12,1.3338639736175537,-0.100,-0.100,-0.100,0.000,0.000,0.000
1640079068034321920,"2021-12-21,09:31:08",10.1.1.12,348,-0.110,-0.110,-0.110,0.000,0.000,0.000
1640079068111654912,"2021-12-21,09:31:08",10.1.1.12,0.4259788990020752,-0.110,-0.110,-0.110,0.000,0.000,0.000
1640079068473812224,"2021-12-21,09:31:08",10.1.1.12,356,-0.120,-0.120,-0.120,0.000,0.000,0.000
1640079068520505856,"2021-12-21,09:31:08",10.1.1.12,0.4033679962158203,-0.120,-0.120,-0.120,0.000,0.000,0.000
1640079068897273088,"2021-12-21,09:31:08",10.1.1.12,375,-0.130,-0.130,-0.130,0.000,0.000,0.000
1640079068966968064,"2021-12-21,09:31:08",10.1.1.12,0.44495487213134766,-0.130,-0.130,-0.130,0.000,0.000,0.000
1640079069287347968,"2021-12-21,09:31:09",10.1.1.12,317,-0.140,-0.140,-0.140,0.000,0.000,0.000
1640079069318227968,"2021-12-21,09:31:09",10.1.1.12,0.34965085983276367,-0.140,-0.140,-0.140,0.000,0.000,0.000
1640079071831670016,"2021-12-21,09:31:09",10.1.1.12,382,-0.150,-0.150,-0.150,0.000,0.000,0.000
1640079071853949952,"2021-12-21,09:31:11",10.1.1.12,2.533890962600708,-0.150,-0.150,-0.150,0.000,0.000,0.000
1640079099489609984,"2021-12-21,09:31:28",10.1.1.12,16641,-0.160,-0.160,-0.160,0.000,0.000,0.000
1640079099538430976,"2021-12-21,09:31:39",10.1.1.12,27.263593196868896,-0.160,-0.160,-0.160,0.000,0.000,0.000
1640079102632067072,"2021-12-21,09:31:42",10.1.1.12,3073,-0.170,-0.170,-0.170,0.000,0.000,0.000
1640079102662695936,"2021-12-21,09:31:42",10.1.1.12,3.1045210361480713,-0.170,-0.170,-0.170,0.000,0.000,0.000
1640079103071737088,"2021-12-21,09:31:43",10.1.1.12,407,-0.180,-0.180,-0.180,0.000,0.000,0.000
1640079103094902016,"2021-12-21,09:31:43",10.1.1.12,0.4305729866027832,-0.180,-0.180,-0.180,0.000,0.000,0.000
1640079103431533056,"2021-12-21,09:31:43",10.1.1.12,335,-0.190,-0.190,-0.190,0.000,0.000,0.000
1640079103462308864,"2021-12-21,09:31:43",10.1.1.12,0.36590099334716797,-0.190,-0.190,-0.190,0.000,0.000,0.000
1640079103842659072,"2021-12-21,09:31:43",10.1.1.12,378,-0.200,-0.200,-0.200,0.000,0.000,0.000
1640079103931755008,"2021-12-21,09:31:43",10.1.1.12,0.46798205375671387,-0.200,-0.200,-0.200,0.000,0.000,0.000
1640079104321362944,"2021-12-21,09:31:44",10.1.1.12,385,-0.210,-0.210,-0.210,0.000,0.000,0.000
1640079104382574080,"2021-12-21,09:31:44",10.1.1.12,0.44740891456604004,-0.210,-0.210,-0.210,0.000,0.000,0.000
1640079104885957888,"2021-12-21,09:31:44",10.1.1.12,0.49863409996032715,-0.220,-0.220,-0.220,0.000,0.000,0.000
1640079104866471936,"2021-12-21,09:31:44",10.1.1.12,465,-0.220,-0.220,-0.220,0.000,0.000,0.000
1640079105318830080,"2021-12-21,09:31:45",10.1.1.12,425,-0.230,-0.230,-0.230,0.000,0.000,0.000
1640079105373558016,"2021-12-21,09:31:45",10.1.1.12,0.47987890243530273,-0.230,-0.230,-0.230,0.000,0.000,0.000
1640079105717593856,"2021-12-21,09:31:45",10.1.1.12,341,-0.240,-0.240,-0.240,0.000,0.000,0.000
1640079105737982976,"2021-12-21,09:31:45",10.1.1.12,0.36237096786499023,-0.240,-0.240,-0.240,0.000,0.000,0.000
1640079106136745984,"2021-12-21,09:31:46",10.1.1.12,397,-0.250,-0.250,-0.250,0.000,0.000,0.000
1640079106182213120,"2021-12-21,09:31:46",10.1.1.12,0.4426090717315674,-0.250,-0.250,-0.250,0.000,0.000,0.000
1640079106606055936,"2021-12-21,09:31:46",10.1.1.12,421,-0.260,-0.260,-0.260,0.000,0.000,0.000
1640079106656097792,"2021-12-21,09:31:46",10.1.1.12,0.47186803817749023,-0.260,-0.260,-0.260,0.000,0.000,0.000
1640079107039339008,"2021-12-21,09:31:47",10.1.1.12,381,-0.270,-0.270,-0.270,0.000,0.000,0.000
1640079107085618944,"2021-12-21,09:31:47",10.1.1.12,0.4280049800872803,-0.270,-0.270,-0.270,0.000,0.000,0.000
1640079111068836096,"2021-12-21,09:31:51",10.1.1.12,3969,-0.280,-0.280,-0.280,0.000,0.000,0.000
1640079111066544896,"2021-12-21,09:31:48",10.1.1.12,1.1987409591674805,-0.280,-0.280,-0.280,0.000,0.000,0.000
1640079118347546112,"2021-12-21,09:31:54",10.1.1.12,3087,-0.290,-0.290,-0.290,0.000,0.000,0.000
1640079119699590912,"2021-12-21,09:31:59",10.1.1.12,8.233869075775146,-0.290,-0.290,-0.290,0.000,0.000,0.000
1640079120675916800,"2021-12-21,09:32:00",10.1.1.12,958,-0.300,-0.300,-0.300,0.000,0.000,0.000
1640079120682646016,"2021-12-21,09:32:00",10.1.1.12,0.9654419422149658,-0.300,-0.300,-0.300,0.000,0.000,0.000
1640079121078209024,"2021-12-21,09:32:01",10.1.1.12,394,-0.310,-0.310,-0.310,0.000,0.000,0.000
1640079121120788224,"2021-12-21,09:32:01",10.1.1.12,0.43668699264526367,-0.310,-0.310,-0.310,0.000,0.000,0.000
1640079121458519808,"2021-12-21,09:32:01",10.1.1.12,334,-0.320,-0.320,-0.320,0.000,0.000,0.000
1640079121549879040,"2021-12-21,09:32:01",10.1.1.12,0.42628908157348633,-0.320,-0.320,-0.320,0.000,0.000,0.000
1640079121979048960,"2021-12-21,09:32:01",10.1.1.12,0.421069860458374,-0.330,-0.330,-0.330,0.000,0.000,0.000
1640079121981451008,"2021-12-21,09:32:01",10.1.1.12,424,-0.330,-0.330,-0.330,0.000,0.000,0.000
1640079122578619904,"2021-12-21,09:32:02",10.1.1.12,596,-0.340,-0.340,-0.340,0.000,0.000,0.000
1640079122687446016,"2021-12-21,09:32:02",10.1.1.12,0.7053751945495605,-0.340,-0.340,-0.340,0.000,0.000,0.000
1640079123098681856,"2021-12-21,09:32:03",10.1.1.12,409,-0.350,-0.350,-0.350,0.000,0.000,0.000
1640079123125582080,"2021-12-21,09:32:03",10.1.1.12,0.4365410804748535,-0.350,-0.350,-0.350,0.000,0.000,0.000
1640079123485349888,"2021-12-21,09:32:03",10.1.1.12,356,-0.360,-0.360,-0.360,0.000,0.000,0.000
1640079123520251136,"2021-12-21,09:32:03",10.1.1.12,0.3916780948638916,-0.360,-0.360,-0.360,0.000,0.000,0.000
1640079123960045056,"2021-12-21,09:32:03",10.1.1.12,433,-0.370,-0.370,-0.370,0.000,0.000,0.000
1640079124004728064,"2021-12-21,09:32:04",10.1.1.12,0.4779698848724365,-0.370,-0.370,-0.370,0.000,0.000,0.000
1640079124489144064,"2021-12-21,09:32:04",10.1.1.12,482,-0.380,-0.380,-0.380,0.000,0.000,0.000
1640079124516953856,"2021-12-21,09:32:04",10.1.1.12,0.5106780529022217,-0.380,-0.380,-0.380,0.000,0.000,0.000
1640079124910830848,"2021-12-21,09:32:04",10.1.1.12,391,-0.390,-0.390,-0.390,0.000,0.000,0.000
1640079124961297920,"2021-12-21,09:32:04",10.1.1.12,0.44214892387390137,-0.390,-0.390,-0.390,0.000,0.000,0.000
1640079126004254208,"2021-12-21,09:32:05",10.1.1.12,454,-0.400,-0.400,-0.400,0.000,0.000,0.000
1640079126035361024,"2021-12-21,09:32:06",10.1.1.12,1.071864128112793,-0.400,-0.400,-0.400,0.000,0.000,0.000
1640079126627597056,"2021-12-21,09:32:06",10.1.1.12,590,-0.410,-0.410,-0.410,0.000,0.000,0.000
1640079126671451136,"2021-12-21,09:32:06",10.1.1.12,0.6344540119171143,-0.410,-0.410,-0.410,0.000,0.000,0.000
1640079127075299072,"2021-12-21,09:32:07",10.1.1.12,0.4008610248565674,-0.420,-0.420,-0.420,0.000,0.000,0.000
1640079127497369088,"2021-12-21,09:32:07",10.1.1.12,411,-0.430,-0.430,-0.430,0.000,0.000,0.000
1640079127534457088,"2021-12-21,09:32:07",10.1.1.12,0.4484899044036865,-0.430,-0.430,-0.430,0.000,0.000,0.000
1640079128076349952,"2021-12-21,09:32:08",10.1.1.12,539,-0.440,-0.440,-0.440,0.000,0.000,0.000
1640079128148142080,"2021-12-21,09:32:08",10.1.1.12,0.6109421253204346,-0.440,-0.440,-0.440,0.000,0.000,0.000
1640079128645484800,"2021-12-21,09:32:08",10.1.1.12,495,-0.450,-0.450,-0.450,0.000,0.000,0.000
1640079128668203008,"2021-12-21,09:32:08",10.1.1.12,0.518265962600708,-0.450,-0.450,-0.450,0.000,0.000,0.000
1640079129005712128,"2021-12-21,09:32:09",10.1.1.12,336,-0.460,-0.460,-0.460,0.000,0.000,0.000
1640079129132969984,"2021-12-21,09:32:09",10.1.1.12,0.46352577209472656,-0.460,-0.460,-0.460,0.000,0.000,0.000
1640079129596067840,"2021-12-21,09:32:09",10.1.1.12,459,-0.470,-0.470,-0.470,0.000,0.000,0.000
1640079129625071104,"2021-12-21,09:32:09",10.1.1.12,0.4888880252838135,-0.470,-0.470,-0.470,0.000,0.000,0.000
1640079130064904960,"2021-12-21,09:32:10",10.1.1.12,437,-0.480,-0.480,-0.480,0.000,0.000,0.000
1640079130111393024,"2021-12-21,09:32:10",10.1.1.12,0.48447489738464355,-0.480,-0.480,-0.480,0.000,0.000,0.000
1640079130525177856,"2021-12-21,09:32:10",10.1.1.12,411,-0.490,-0.490,-0.490,0.000,0.000,0.000
1640079130600595968,"2021-12-21,09:32:10",10.1.1.12,0.4872629642486572,-0.490,-0.490,-0.490,0.000,0.000,0.000
1640079131526324992,"2021-12-21,09:32:11",10.1.1.12,843,-0.480,-0.480,-0.480,0.000,0.000,0.000
1640079131557074176,"2021-12-21,09:32:11",10.1.1.12,0.8746640682220459,-0.480,-0.480,-0.480,0.000,0.000,0.000
1640079131962359040,"2021-12-21,09:32:11",10.1.1.12,402,-0.470,-0.470,-0.470,0.000,0.000,0.000
1640079132024162048,"2021-12-21,09:32:12",10.1.1.12,0.4628939628601074,-0.470,-0.470,-0.470,0.000,0.000,0.000
1640079132362588928,"2021-12-21,09:32:12",10.1.1.12,334,-0.460,-0.460,-0.460,0.000,0.000,0.000
1640079132391225088,"2021-12-21,09:32:12",10.1.1.12,0.3634989261627197,-0.460,-0.460,-0.460,0.000,0.000,0.000
1640079132773348096,"2021-12-21,09:32:12",10.1.1.12,379,-0.450,-0.450,-0.450,0.000,0.000,0.000
1640079132816420096,"2021-12-21,09:32:12",10.1.1.12,0.42249417304992676,-0.450,-0.450,-0.450,0.000,0.000,0.000
1640079133181457152,"2021-12-21,09:32:13",10.1.1.12,362,-0.440,-0.440,-0.440,0.000,0.000,0.000
1640079133214100992,"2021-12-21,09:32:13",10.1.1.12,0.39519500732421875,-0.440,-0.440,-0.440,0.000,0.000,0.000
1640079133566694912,"2021-12-21,09:32:13",10.1.1.12,351,-0.430,-0.430,-0.430,0.000,0.000,0.000
1640079133601871104,"2021-12-21,09:32:13",10.1.1.12,0.3865010738372803,-0.430,-0.430,-0.430,0.000,0.000,0.000
1640079134041323008,"2021-12-21,09:32:14",10.1.1.12,433,-0.420,-0.420,-0.420,0.000,0.000,0.000
1640079134146921984,"2021-12-21,09:32:14",10.1.1.12,0.5394458770751953,-0.420,-0.420,-0.420,0.000,0.000,0.000
1640079134828228096,"2021-12-21,09:32:14",10.1.1.12,653,-0.410,-0.410,-0.410,0.000,0.000,0.000
1640079134902960128,"2021-12-21,09:32:14",10.1.1.12,0.7273340225219727,-0.410,-0.410,-0.410,0.000,0.000,0.000
1640079135288561152,"2021-12-21,09:32:15",10.1.1.12,382,-0.400,-0.400,-0.400,0.000,0.000,0.000
1640079135339601152,"2021-12-21,09:32:15",10.1.1.12,0.43357396125793457,-0.400,-0.400,-0.400,0.000,0.000,0.000
1640079136126536960,"2021-12-21,09:32:16",10.1.1.12,784,-0.390,-0.390,-0.390,0.000,0.000,0.000
1640079136170856960,"2021-12-21,09:32:16",10.1.1.12,0.8286588191986084,-0.390,-0.390,-0.390,0.000,0.000,0.000
1640079136647661056,"2021-12-21,09:32:16",10.1.1.12,475,-0.380,-0.380,-0.380,0.000,0.000,0.000
1640079136692610048,"2021-12-21,09:32:16",10.1.1.12,0.5202670097351074,-0.380,-0.380,-0.380,0.000,0.000,0.000
1640079137096398080,"2021-12-21,09:32:17",10.1.1.12,397,-0.370,-0.370,-0.370,0.000,0.000,0.000
1640079137161658880,"2021-12-21,09:32:17",10.1.1.12,0.46300315856933594,-0.370,-0.370,-0.370,0.000,0.000,0.000
1640079137740696064,"2021-12-21,09:32:17",10.1.1.12,565,-0.360,-0.360,-0.360,0.000,0.000,0.000
1640079137762577920,"2021-12-21,09:32:17",10.1.1.12,0.5990171432495117,-0.360,-0.360,-0.360,0.000,0.000,0.000
1640079138135899136,"2021-12-21,09:32:18",10.1.1.12,368,-0.350,-0.350,-0.350,0.000,0.000,0.000
1640079138192121856,"2021-12-21,09:32:18",10.1.1.12,0.42432284355163574,-0.350,-0.350,-0.350,0.000,0.000,0.000
1640079138654858240,"2021-12-21,09:32:18",10.1.1.12,459,-0.340,-0.340,-0.340,0.000,0.000,0.000
1640079138684407040,"2021-12-21,09:32:18",10.1.1.12,0.4897921085357666,-0.340,-0.340,-0.340,0.000,0.000,0.000
1640079139104099072,"2021-12-21,09:32:19",10.1.1.12,416,-0.330,-0.330,-0.330,0.000,0.000,0.000
1640079139173181184,"2021-12-21,09:32:19",10.1.1.12,0.48539113998413086,-0.330,-0.330,-0.330,0.000,0.000,0.000
1640079140163954944,"2021-12-21,09:32:20",10.1.1.12,988,-0.320,-0.320,-0.320,0.000,0.000,0.000
1640079140219712000,"2021-12-21,09:32:20",10.1.1.12,1.0451622009277344,-0.320,-0.320,-0.320,0.000,0.000,0.000
1640079140881274880,"2021-12-21,09:32:20",10.1.1.12,659,-0.310,-0.310,-0.310,0.000,0.000,0.000
1640079140920919040,"2021-12-21,09:32:20",10.1.1.12,0.6997981071472168,-0.310,-0.310,-0.310,0.000,0.000,0.000
1640079141301794048,"2021-12-21,09:32:21",10.1.1.12,379,-0.300,-0.300,-0.300,0.000,0.000,0.000
1640079141359750912,"2021-12-21,09:32:21",10.1.1.12,0.42798781394958496,-0.300,-0.300,-0.300,0.000,0.000,0.000
1640079141822354176,"2021-12-21,09:32:21",10.1.1.12,456,-0.290,-0.290,-0.290,0.000,0.000,0.000
1640079141858042880,"2021-12-21,09:32:21",10.1.1.12,0.49243617057800293,-0.290,-0.290,-0.290,0.000,0.000,0.000
1640079142289138944,"2021-12-21,09:32:22",10.1.1.12,427,-0.280,-0.280,-0.280,0.000,0.000,0.000
1640079142342251008,"2021-12-21,09:32:22",10.1.1.12,0.48067617416381836,-0.280,-0.280,-0.280,0.000,0.000,0.000
1640079142720547840,"2021-12-21,09:32:22",10.1.1.12,376,-0.270,-0.270,-0.270,0.000,0.000,0.000
1640079142775564800,"2021-12-21,09:32:22",10.1.1.12,0.4314711093902588,-0.270,-0.270,-0.270,0.000,0.000,0.000
1640079143208453888,"2021-12-21,09:32:23",10.1.1.12,431,-0.260,-0.260,-0.260,0.000,0.000,0.000
1640079143249358848,"2021-12-21,09:32:23",10.1.1.12,0.47179102897644043,-0.260,-0.260,-0.260,0.000,0.000,0.000
1640079143765753088,"2021-12-21,09:32:23",10.1.1.12,511,-0.250,-0.250,-0.250,0.000,0.000,0.000
1640079143800889088,"2021-12-21,09:32:23",10.1.1.12,0.5476219654083252,-0.250,-0.250,-0.250,0.000,0.000,0.000
1640079144505630976,"2021-12-21,09:32:24",10.1.1.12,699,-0.240,-0.240,-0.240,0.000,0.000,0.000
1640079144546096128,"2021-12-21,09:32:24",10.1.1.12,0.7399718761444092,-0.240,-0.240,-0.240,0.000,0.000,0.000
1640079145056876032,"2021-12-21,09:32:25",10.1.1.12,508,-0.230,-0.230,-0.230,0.000,0.000,0.000
1640079145097103104,"2021-12-21,09:32:25",10.1.1.12,0.549252986907959,-0.230,-0.230,-0.230,0.000,0.000,0.000
1640079145505094912,"2021-12-21,09:32:25",10.1.1.12,406,-0.220,-0.220,-0.220,0.000,0.000,0.000
1640079145573368064,"2021-12-21,09:32:25",10.1.1.12,0.47494006156921387,-0.220,-0.220,-0.220,0.000,0.000,0.000
1640079145953751040,"2021-12-21,09:32:25",10.1.1.12,377,-0.210,-0.210,-0.210,0.000,0.000,0.000
1640079146025825024,"2021-12-21,09:32:26",10.1.1.12,0.44425201416015625,-0.210,-0.210,-0.210,0.000,0.000,0.000
1640079146458578176,"2021-12-21,09:32:26",10.1.1.12,426,-0.200,-0.200,-0.200,0.000,0.000,0.000
1640079146489137920,"2021-12-21,09:32:26",10.1.1.12,0.4578890800476074,-0.200,-0.200,-0.200,0.000,0.000,0.000
1640079146958951936,"2021-12-21,09:32:26",10.1.1.12,464,-0.190,-0.190,-0.190,0.000,0.000,0.000
1640079147018184960,"2021-12-21,09:32:27",10.1.1.12,0.5233108997344971,-0.190,-0.190,-0.190,0.000,0.000,0.000
1640079147481122048,"2021-12-21,09:32:27",10.1.1.12,461,-0.180,-0.180,-0.180,0.000,0.000,0.000
1640079147524800000,"2021-12-21,09:32:27",10.1.1.12,0.5051000118255615,-0.180,-0.180,-0.180,0.000,0.000,0.000
1640079147942894080,"2021-12-21,09:32:27",10.1.1.12,413,-0.170,-0.170,-0.170,0.000,0.000,0.000
1640079147980185088,"2021-12-21,09:32:27",10.1.1.12,0.4509439468383789,-0.170,-0.170,-0.170,0.000,0.000,0.000
1640079148349111040,"2021-12-21,09:32:28",10.1.1.12,367,-0.160,-0.160,-0.160,0.000,0.000,0.000
1640079148414063872,"2021-12-21,09:32:28",10.1.1.12,0.43250298500061035,-0.160,-0.160,-0.160,0.000,0.000,0.000
1640079148896482048,"2021-12-21,09:32:28",10.1.1.12,475,-0.150,-0.150,-0.150,0.000,0.000,0.000
1640079148955621888,"2021-12-21,09:32:28",10.1.1.12,0.5351290702819824,-0.150,-0.150,-0.150,0.000,0.000,0.000
1640079149345747968,"2021-12-21,09:32:29",10.1.1.12,388,-0.140,-0.140,-0.140,0.000,0.000,0.000
1640079149402373120,"2021-12-21,09:32:29",10.1.1.12,0.44487905502319336,-0.140,-0.140,-0.140,0.000,0.000,0.000
1640079149859726848,"2021-12-21,09:32:29",10.1.1.12,455,-0.130,-0.130,-0.130,0.000,0.000,0.000
1640079149913337856,"2021-12-21,09:32:29",10.1.1.12,0.5096340179443359,-0.130,-0.130,-0.130,0.000,0.000,0.000
1640079150432280064,"2021-12-21,09:32:30",10.1.1.12,516,-0.120,-0.120,-0.120,0.000,0.000,0.000
1640079150469372160,"2021-12-21,09:32:30",10.1.1.12,0.553961992263794,-0.120,-0.120,-0.120,0.000,0.000,0.000
1640079150901870080,"2021-12-21,09:32:30",10.1.1.12,429,-0.110,-0.110,-0.110,0.000,0.000,0.000
1640079150952132864,"2021-12-21,09:32:30",10.1.1.12,0.47943711280822754,-0.110,-0.110,-0.110,0.000,0.000,0.000
1640079151374541056,"2021-12-21,09:32:31",10.1.1.12,413,-0.100,-0.100,-0.100,0.000,0.000,0.000
1640079151543577856,"2021-12-21,09:32:31",10.1.1.12,0.5823850631713867,-0.100,-0.100,-0.100,0.000,0.000,0.000
1640079152154323968,"2021-12-21,09:32:32",10.1.1.12,0.6091539859771729,-0.090,-0.090,-0.090,0.000,0.000,0.000
1640079152597136128,"2021-12-21,09:32:32",10.1.1.12,426,-0.080,-0.080,-0.080,0.000,0.000,0.000
1640079152661867008,"2021-12-21,09:32:32",10.1.1.12,0.49142909049987793,-0.080,-0.080,-0.080,0.000,0.000,0.000
1640079153038043904,"2021-12-21,09:32:33",10.1.1.12,374,-0.070,-0.070,-0.070,0.000,0.000,0.000
1640079153148760064,"2021-12-21,09:32:33",10.1.1.12,0.48537397384643555,-0.070,-0.070,-0.070,0.000,0.000,0.000
1640079153628933888,"2021-12-21,09:32:33",10.1.1.12,462,-0.060,-0.060,-0.060,0.000,0.000,0.000
1640079153678270976,"2021-12-21,09:32:33",10.1.1.12,0.5116710662841797,-0.060,-0.060,-0.060,0.000,0.000,0.000
1640079154047841024,"2021-12-21,09:32:34",10.1.1.12,365,-0.050,-0.050,-0.050,0.000,0.000,0.000
1640079154129239040,"2021-12-21,09:32:34",10.1.1.12,0.4465830326080322,-0.050,-0.050,-0.050,0.000,0.000,0.000
1640079154538136832,"2021-12-21,09:32:34",10.1.1.12,399,-0.040,-0.040,-0.040,0.000,0.000,0.000
1640079154574194944,"2021-12-21,09:32:34",10.1.1.12,0.4355480670928955,-0.040,-0.040,-0.040,0.000,0.000,0.000
1640079154939739904,"2021-12-21,09:32:34",10.1.1.12,362,-0.030,-0.030,-0.030,0.000,0.000,0.000
1640079155030020096,"2021-12-21,09:32:35",10.1.1.12,0.45206403732299805,-0.030,-0.030,-0.030,0.000,0.000,0.000
1640079155409497088,"2021-12-21,09:32:35",10.1.1.12,377,-0.020,-0.020,-0.020,0.000,0.000,0.000
1640079155478590976,"2021-12-21,09:32:35",10.1.1.12,0.4467430114746094,-0.020,-0.020,-0.020,0.000,0.000,0.000
1640079155901572864,"2021-12-21,09:32:35",10.1.1.12,421,-0.010,-0.010,-0.010,0.000,0.000,0.000
1640079155963323136,"2021-12-21,09:32:35",10.1.1.12,0.4830610752105713,-0.010,-0.010,-0.010,0.000,0.000,0.000
1640079156477437952,"2021-12-21,09:32:36",10.1.1.12,511,0.000,0.000,0.000,0.000,0.000,0.000
1640079156604238080,"2021-12-21,09:32:36",10.1.1.12,0.6380879878997803,0.000,0.000,0.000,0.000,0.000,0.000
1640079157049616128,"2021-12-21,09:32:37",10.1.1.12,443,-0.010,-0.010,-0.010,0.000,0.000,0.000
1640079157119468032,"2021-12-21,09:32:37",10.1.1.12,0.5130939483642578,-0.010,-0.010,-0.010,0.000,0.000,0.000
1640079157541232128,"2021-12-21,09:32:37",10.1.1.12,414,-0.020,-0.020,-0.020,0.000,0.000,0.000
1640079157612430080,"2021-12-21,09:32:37",10.1.1.12,0.47527194023132324,-0.020,-0.020,-0.020,0.000,0.000,0.000
1640079158179374848,"2021-12-21,09:32:38",10.1.1.12,563,-0.030,-0.030,-0.030,0.000,0.000,0.000
1640079158203206144,"2021-12-21,09:32:38",10.1.1.12,0.5875380039215088,-0.030,-0.030,-0.030,0.000,0.000,0.000
1640079158610532096,"2021-12-21,09:32:38",10.1.1.12,0.39909982681274414,-0.040,-0.040,-0.040,0.000,0.000,0.000
1640079158999488000,"2021-12-21,09:32:38",10.1.1.12,387,-0.050,-0.050,-0.050,0.000,0.000,0.000
1640079159075529216,"2021-12-21,09:32:39",10.1.1.12,0.4634518623352051,-0.050,-0.050,-0.050,0.000,0.000,0.000
1640079159522629888,"2021-12-21,09:32:39",10.1.1.12,444,-0.060,-0.060,-0.060,0.000,0.000,0.000
1640079159583854848,"2021-12-21,09:32:39",10.1.1.12,0.5055129528045654,-0.060,-0.060,-0.060,0.000,0.000,0.000
1640079159989656832,"2021-12-21,09:32:39",10.1.1.12,404,-0.070,-0.070,-0.070,0.000,0.000,0.000
1640079160087752192,"2021-12-21,09:32:40",10.1.1.12,0.5022058486938477,-0.070,-0.070,-0.070,0.000,0.000,0.000
1640079160531565056,"2021-12-21,09:32:40",10.1.1.12,441,-0.080,-0.080,-0.080,0.000,0.000,0.000
1640079160572665088,"2021-12-21,09:32:40",10.1.1.12,0.48300886154174805,-0.080,-0.080,-0.080,0.000,0.000,0.000
1640079161028647936,"2021-12-21,09:32:41",10.1.1.12,454,-0.090,-0.090,-0.090,0.000,0.000,0.000
1640079161106249984,"2021-12-21,09:32:41",10.1.1.12,0.5320401191711426,-0.090,-0.090,-0.090,0.000,0.000,0.000
1640079161128848128,"2021-12-21,09:32:41",10.1.1.12,-13,-0.100,-0.100,-0.100,0.000,0.000,0.000
1640079161558473216,"2021-12-21,09:32:41",10.1.1.12,0.4381871223449707,-0.100,-0.100,-0.100,0.000,0.000,0.000
1640079161564045056,"2021-12-21,09:32:41",10.1.1.12,-4,-0.110,-0.110,-0.110,0.000,0.000,0.000
1640079162061163776,"2021-12-21,09:32:42",10.1.1.12,0.4992690086364746,-0.110,-0.110,-0.110,0.000,0.000,0.000
1640079162561733888,"2021-12-21,09:32:42",10.1.1.12,499,-0.120,-0.120,-0.120,0.000,0.000,0.000
1640079162597477888,"2021-12-21,09:32:42",10.1.1.12,0.5298118591308594,-0.120,-0.120,-0.120,0.000,0.000,0.000
1640079163028083200,"2021-12-21,09:32:43",10.1.1.12,407,-0.130,-0.130,-0.130,0.000,0.000,0.000
1640079163085709056,"2021-12-21,09:32:43",10.1.1.12,0.4646599292755127,-0.130,-0.130,-0.130,0.000,0.000,0.000
1640079163496530176,"2021-12-21,09:32:43",10.1.1.12,409,-0.140,-0.140,-0.140,0.000,0.000,0.000
1640079163547965952,"2021-12-21,09:32:43",10.1.1.12,0.4610178470611572,-0.140,-0.140,-0.140,0.000,0.000,0.000
1640079164065859072,"2021-12-21,09:32:44",10.1.1.12,516,-0.150,-0.150,-0.150,0.000,0.000,0.000
1640079164117522944,"2021-12-21,09:32:44",10.1.1.12,0.5680160522460938,-0.150,-0.150,-0.150,0.000,0.000,0.000
1640079164480557824,"2021-12-21,09:32:44",10.1.1.12,361,-0.160,-0.160,-0.160,0.000,0.000,0.000
1640079164621218816,"2021-12-21,09:32:44",10.1.1.12,0.5021779537200928,-0.160,-0.160,-0.160,0.000,0.000,0.000
1640079164995227136,"2021-12-21,09:32:44",10.1.1.12,372,-0.170,-0.170,-0.170,0.000,0.000,0.000
1640079165071636992,"2021-12-21,09:32:45",10.1.1.12,0.4487268924713135,-0.170,-0.170,-0.170,0.000,0.000,0.000
1640079171439400960,"2021-12-21,09:32:51",10.1.1.12,6287,-0.180,-0.180,-0.180,0.000,0.000,0.000
1640079171464282112,"2021-12-21,09:32:51",10.1.1.12,6.385531187057495,-0.180,-0.180,-0.180,0.000,0.000,0.000
1640079171835764992,"2021-12-21,09:32:51",10.1.1.12,369,-0.190,-0.190,-0.190,0.000,0.000,0.000
1640079171881453056,"2021-12-21,09:32:51",10.1.1.12,0.41571617126464844,-0.190,-0.190,-0.190,0.000,0.000,0.000
1640079172315337984,"2021-12-21,09:32:52",10.1.1.12,424,-0.200,-0.200,-0.200,0.000,0.000,0.000
1640079172385382912,"2021-12-21,09:32:52",10.1.1.12,0.49404120445251465,-0.200,-0.200,-0.200,0.000,0.000,0.000
1640079172913580800,"2021-12-21,09:32:52",10.1.1.12,524,-0.210,-0.210,-0.210,0.000,0.000,0.000
1640079172936801792,"2021-12-21,09:32:52",10.1.1.12,0.5476510524749756,-0.210,-0.210,-0.210,0.000,0.000,0.000
1640079173393457920,"2021-12-21,09:32:53",10.1.1.12,452,-0.220,-0.220,-0.220,0.000,0.000,0.000
1640079173437950976,"2021-12-21,09:32:53",10.1.1.12,0.49753403663635254,-0.220,-0.220,-0.220,0.000,0.000,0.000
1640079173893297920,"2021-12-21,09:32:53",10.1.1.12,453,-0.230,-0.230,-0.230,0.000,0.000,0.000
1640079173943698944,"2021-12-21,09:32:53",10.1.1.12,0.5036640167236328,-0.230,-0.230,-0.230,0.000,0.000,0.000
1640079174471211008,"2021-12-21,09:32:54",10.1.1.12,525,-0.240,-0.240,-0.240,0.000,0.000,0.000
1640079174534981120,"2021-12-21,09:32:54",10.1.1.12,0.5894949436187744,-0.240,-0.240,-0.240,0.000,0.000,0.000
1640079175020477952,"2021-12-21,09:32:55",10.1.1.12,475,-0.250,-0.250,-0.250,0.000,0.000,0.000
1640079175121499136,"2021-12-21,09:32:55",10.1.1.12,0.5762579441070557,-0.250,-0.250,-0.250,0.000,0.000,0.000
1640079175614035968,"2021-12-21,09:32:55",10.1.1.12,491,-0.260,-0.260,-0.260,0.000,0.000,0.000
1640079175685018112,"2021-12-21,09:32:55",10.1.1.12,0.5620620250701904,-0.260,-0.260,-0.260,0.000,0.000,0.000
1640079176367223040,"2021-12-21,09:32:56",10.1.1.12,661,-0.270,-0.270,-0.270,0.000,0.000,0.000
1640079176416382976,"2021-12-21,09:32:56",10.1.1.12,0.715277910232544,-0.270,-0.270,-0.270,0.000,0.000,0.000
1640079176957481984,"2021-12-21,09:32:56",10.1.1.12,532,-0.280,-0.280,-0.280,0.000,0.000,0.000
1640079177022244864,"2021-12-21,09:32:57",10.1.1.12,0.5973160266876221,-0.280,-0.280,-0.280,0.000,0.000,0.000
1640079177399293952,"2021-12-21,09:32:57",10.1.1.12,375,-0.290,-0.290,-0.290,0.000,0.000,0.000
1640079177423342848,"2021-12-21,09:32:57",10.1.1.12,0.39972996711730957,-0.290,-0.290,-0.290,0.000,0.000,0.000
1640079177870894848,"2021-12-21,09:32:57",10.1.1.12,432,-0.300,-0.300,-0.300,0.000,0.000,0.000
1640079177898721024,"2021-12-21,09:32:57",10.1.1.12,0.4617190361022949,-0.300,-0.300,-0.300,0.000,0.000,0.000
1640079178430150144,"2021-12-21,09:32:58",10.1.1.12,509,-0.310,-0.310,-0.310,0.000,0.000,0.000
1640079178513641216,"2021-12-21,09:32:58",10.1.1.12,0.5931839942932129,-0.310,-0.310,-0.310,0.000,0.000,0.000
1640079179077347072,"2021-12-21,09:32:59",10.1.1.12,510,-0.320,-0.320,-0.320,0.000,0.000,0.000
1640079179142159104,"2021-12-21,09:32:59",10.1.1.12,0.575678825378418,-0.320,-0.320,-0.320,0.000,0.000,0.000
1640079179600953088,"2021-12-21,09:32:59",10.1.1.12,456,-0.330,-0.330,-0.330,0.000,0.000,0.000
1640079179675434240,"2021-12-21,09:32:59",10.1.1.12,0.5309739112854004,-0.330,-0.330,-0.330,0.000,0.000,0.000
1640079180225485056,"2021-12-21,09:33:00",10.1.1.12,548,-0.340,-0.340,-0.340,0.000,0.000,0.000
1640079180293016064,"2021-12-21,09:33:00",10.1.1.12,0.6157622337341309,-0.340,-0.340,-0.340,0.000,0.000,0.000
1640079180818553856,"2021-12-21,09:33:00",10.1.1.12,436,-0.350,-0.350,-0.350,0.000,0.000,0.000
1640079180890320896,"2021-12-21,09:33:00",10.1.1.12,0.5086870193481445,-0.350,-0.350,-0.350,0.000,0.000,0.000
1640079181313668096,"2021-12-21,09:33:01",10.1.1.12,420,-0.360,-0.360,-0.360,0.000,0.000,0.000
1640079181359677184,"2021-12-21,09:33:01",10.1.1.12,0.4662759304046631,-0.360,-0.360,-0.360,0.000,0.000,0.000
1640079181878617088,"2021-12-21,09:33:01",10.1.1.12,517,-0.370,-0.370,-0.370,0.000,0.000,0.000
1640079181891055104,"2021-12-21,09:33:01",10.1.1.12,0.5299258232116699,-0.370,-0.370,-0.370,0.000,0.000,0.000
1640079182457001984,"2021-12-21,09:33:02",10.1.1.12,560,-0.380,-0.380,-0.380,0.000,0.000,0.000
1640079182501326080,"2021-12-21,09:33:02",10.1.1.12,0.6050448417663574,-0.380,-0.380,-0.380,0.000,0.000,0.000
1640079183059868928,"2021-12-21,09:33:03",10.1.1.12,550,-0.390,-0.390,-0.390,0.000,0.000,0.000
1640079183115837184,"2021-12-21,09:33:03",10.1.1.12,0.6061809062957764,-0.390,-0.390,-0.390,0.000,0.000,0.000
1640079183734024960,"2021-12-21,09:33:03",10.1.1.12,615,-0.400,-0.400,-0.400,0.000,0.000,0.000
1640079183794200064,"2021-12-21,09:33:03",10.1.1.12,0.6761329174041748,-0.400,-0.400,-0.400,0.000,0.000,0.000
1640079184713583872,"2021-12-21,09:33:04",10.1.1.12,909,-0.410,-0.410,-0.410,0.000,0.000,0.000
1640079184714838016,"2021-12-21,09:33:04",10.1.1.12,0.917618989944458,-0.410,-0.410,-0.410,0.000,0.000,0.000
1640079185419671040,"2021-12-21,09:33:05",10.1.1.12,603,-0.420,-0.420,-0.420,0.000,0.000,0.000
1640079185511971072,"2021-12-21,09:33:05",10.1.1.12,0.6957578659057617,-0.420,-0.420,-0.420,0.000,0.000,0.000
1640079186281122816,"2021-12-21,09:33:06",10.1.1.12,0.762315034866333,-0.430,-0.430,-0.430,0.000,0.000,0.000
1640079187026793984,"2021-12-21,09:33:07",10.1.1.12,729,-0.440,-0.440,-0.440,0.000,0.000,0.000
1640079187034800128,"2021-12-21,09:33:07",10.1.1.12,0.7346689701080322,-0.440,-0.440,-0.440,0.000,0.000,0.000
1640079187796196096,"2021-12-21,09:33:07",10.1.1.12,0.7507359981536865,-0.450,-0.450,-0.450,0.000,0.000,0.000
1640079187808531968,"2021-12-21,09:33:07",10.1.1.12,762,-0.450,-0.450,-0.450,0.000,0.000,0.000
1640079188708535808,"2021-12-21,09:33:08",10.1.1.12,862,-0.460,-0.460,-0.460,0.000,0.000,0.000
1640079188729403136,"2021-12-21,09:33:08",10.1.1.12,0.896751880645752,-0.460,-0.460,-0.460,0.000,0.000,0.000
1640079189128908032,"2021-12-21,09:33:09",10.1.1.12,0.3956470489501953,-0.470,-0.470,-0.470,0.000,0.000,0.000
1640079189646564096,"2021-12-21,09:33:09",10.1.1.12,0.5160071849822998,-0.480,-0.480,-0.480,0.000,0.000,0.000
1640079190187484928,"2021-12-21,09:33:10",10.1.1.12,518,-0.490,-0.490,-0.490,0.000,0.000,0.000
1640079190422427904,"2021-12-21,09:33:10",10.1.1.12,0.7538290023803711,-0.490,-0.490,-0.490,0.000,0.000,0.000
1640079191130078976,"2021-12-21,09:33:11",10.1.1.12,677,-0.480,-0.480,-0.480,0.000,0.000,0.000
1640079191176568064,"2021-12-21,09:33:11",10.1.1.12,0.724463939666748,-0.480,-0.480,-0.480,0.000,0.000,0.000
1640079191775547136,"2021-12-21,09:33:11",10.1.1.12,580,-0.470,-0.470,-0.470,0.000,0.000,0.000
1640079191948195840,"2021-12-21,09:33:11",10.1.1.12,0.7430200576782227,-0.470,-0.470,-0.470,0.000,0.000,0.000
1640079192633042944,"2021-12-21,09:33:12",10.1.1.12,652,-0.460,-0.460,-0.460,0.000,0.000,0.000
1640079192691292928,"2021-12-21,09:33:12",10.1.1.12,0.7106101512908936,-0.460,-0.460,-0.460,0.000,0.000,0.000
1640079193333230848,"2021-12-21,09:33:13",10.1.1.12,636,-0.450,-0.450,-0.450,0.000,0.000,0.000
1640079193420526080,"2021-12-21,09:33:13",10.1.1.12,0.7238340377807617,-0.450,-0.450,-0.450,0.000,0.000,0.000
1640079193920455936,"2021-12-21,09:33:13",10.1.1.12,479,-0.440,-0.440,-0.440,0.000,0.000,0.000
1640079193994930944,"2021-12-21,09:33:13",10.1.1.12,0.5539858341217041,-0.440,-0.440,-0.440,0.000,0.000,0.000
1640079194504948992,"2021-12-21,09:33:14",10.1.1.12,504,-0.430,-0.430,-0.430,0.000,0.000,0.000
1640079194562113024,"2021-12-21,09:33:14",10.1.1.12,0.561737060546875,-0.430,-0.430,-0.430,0.000,0.000,0.000
1640079195086294016,"2021-12-21,09:33:15",10.1.1.12,522,-0.420,-0.420,-0.420,0.000,0.000,0.000
1640079195221062912,"2021-12-21,09:33:15",10.1.1.12,0.6575350761413574,-0.420,-0.420,-0.420,0.000,0.000,0.000
1640079195308613120,"2021-12-21,09:33:15",10.1.1.12,-8,-0.410,-0.410,-0.410,0.000,0.000,0.000
1640079195996787968,"2021-12-21,09:33:15",10.1.1.12,0.7681751251220703,-0.410,-0.410,-0.410,0.000,0.000,0.000
1640079196422990080,"2021-12-21,09:33:16",10.1.1.12,0.42479705810546875,-0.400,-0.400,-0.400,0.000,0.000,0.000
1640079196423571200,"2021-12-21,09:33:16",10.1.1.12,425,-0.400,-0.400,-0.400,0.000,0.000,0.000
1640079196931768832,"2021-12-21,09:33:16",10.1.1.12,497,-0.390,-0.390,-0.390,0.000,0.000,0.000
1640079197021707008,"2021-12-21,09:33:17",10.1.1.12,0.5860638618469238,-0.390,-0.390,-0.390,0.000,0.000,0.000
1640079197540709120,"2021-12-21,09:33:17",10.1.1.12,513,-0.380,-0.380,-0.380,0.000,0.000,0.000
1640079197610500096,"2021-12-21,09:33:17",10.1.1.12,0.5829510688781738,-0.380,-0.380,-0.380,0.000,0.000,0.000
1640079198151601152,"2021-12-21,09:33:18",10.1.1.12,532,-0.370,-0.370,-0.370,0.000,0.000,0.000
1640079198187206144,"2021-12-21,09:33:18",10.1.1.12,0.5677070617675781,-0.370,-0.370,-0.370,0.000,0.000,0.000
1640079198849299968,"2021-12-21,09:33:18",10.1.1.12,579,-0.360,-0.360,-0.360,0.000,0.000,0.000
1640079198905544960,"2021-12-21,09:33:18",10.1.1.12,0.6504809856414795,-0.360,-0.360,-0.360,0.000,0.000,0.000
1640079199419304960,"2021-12-21,09:33:19",10.1.1.12,511,-0.350,-0.350,-0.350,0.000,0.000,0.000
1640079199474093056,"2021-12-21,09:33:19",10.1.1.12,0.5656309127807617,-0.350,-0.350,-0.350,0.000,0.000,0.000
1640079200047589120,"2021-12-21,09:33:20",10.1.1.12,569,-0.340,-0.340,-0.340,0.000,0.000,0.000
1640079200129470976,"2021-12-21,09:33:20",10.1.1.12,0.6512749195098877,-0.340,-0.340,-0.340,0.000,0.000,0.000
1640079200519525888,"2021-12-21,09:33:20",10.1.1.12,387,-0.330,-0.330,-0.330,0.000,0.000,0.000
1640079200588485120,"2021-12-21,09:33:20",10.1.1.12,0.45658302307128906,-0.330,-0.330,-0.330,0.000,0.000,0.000
1640079201047126016,"2021-12-21,09:33:21",10.1.1.12,457,-0.320,-0.320,-0.320,0.000,0.000,0.000
1640079201090164992,"2021-12-21,09:33:21",10.1.1.12,0.5004258155822754,-0.320,-0.320,-0.320,0.000,0.000,0.000
1640079201508430848,"2021-12-21,09:33:21",10.1.1.12,412,-0.310,-0.310,-0.310,0.000,0.000,0.000
1640079201541039104,"2021-12-21,09:33:21",10.1.1.12,0.4454948902130127,-0.310,-0.310,-0.310,0.000,0.000,0.000
1640079202175537152,"2021-12-21,09:33:22",10.1.1.12,632,-0.300,-0.300,-0.300,0.000,0.000,0.000
1640079202246923008,"2021-12-21,09:33:22",10.1.1.12,0.7043650150299072,-0.300,-0.300,-0.300,0.000,0.000,0.000
1640079202805374976,"2021-12-21,09:33:22",10.1.1.12,550,-0.290,-0.290,-0.290,0.000,0.000,0.000
1640079202920567040,"2021-12-21,09:33:22",10.1.1.12,0.6651809215545654,-0.290,-0.290,-0.290,0.000,0.000,0.000
1640079203452954112,"2021-12-21,09:33:23",10.1.1.12,505,-0.280,-0.280,-0.280,0.000,0.000,0.000
1640079203520482048,"2021-12-21,09:33:23",10.1.1.12,0.572800874710083,-0.280,-0.280,-0.280,0.000,0.000,0.000
1640079204132646144,"2021-12-21,09:33:24",10.1.1.12,560,-0.270,-0.270,-0.270,0.000,0.000,0.000
1640079204201804032,"2021-12-21,09:33:24",10.1.1.12,0.6300079822540283,-0.270,-0.270,-0.270,0.000,0.000,0.000
1640079204791408896,"2021-12-21,09:33:24",10.1.1.12,581,-0.260,-0.260,-0.260,0.000,0.000,0.000
1640079204891400960,"2021-12-21,09:33:24",10.1.1.12,0.681771993637085,-0.260,-0.260,-0.260,0.000,0.000,0.000
1640079205317682944,"2021-12-21,09:33:25",10.1.1.12,424,-0.250,-0.250,-0.250,0.000,0.000,0.000
1640079205416153856,"2021-12-21,09:33:25",10.1.1.12,0.523169994354248,-0.250,-0.250,-0.250,0.000,0.000,0.000
1640079205950084096,"2021-12-21,09:33:25",10.1.1.12,532,-0.240,-0.240,-0.240,0.000,0.000,0.000
1640079206128880896,"2021-12-21,09:33:26",10.1.1.12,0.711043119430542,-0.240,-0.240,-0.240,0.000,0.000,0.000
1640079206569945088,"2021-12-21,09:33:26",10.1.1.12,435,-0.230,-0.230,-0.230,0.000,0.000,0.000
1640079206703283968,"2021-12-21,09:33:26",10.1.1.12,0.5689361095428467,-0.230,-0.230,-0.230,0.000,0.000,0.000
1640079207319130880,"2021-12-21,09:33:27",10.1.1.12,605,-0.220,-0.220,-0.220,0.000,0.000,0.000
1640079207377583872,"2021-12-21,09:33:27",10.1.1.12,0.6636660099029541,-0.220,-0.220,-0.220,0.000,0.000,0.000
1640079207897754880,"2021-12-21,09:33:27",10.1.1.12,516,-0.210,-0.210,-0.210,0.000,0.000,0.000
1640079207994029056,"2021-12-21,09:33:27",10.1.1.12,0.6133451461791992,-0.210,-0.210,-0.210,0.000,0.000,0.000
1640079208506470912,"2021-12-21,09:33:28",10.1.1.12,504,-0.200,-0.200,-0.200,0.000,0.000,0.000
1640079208603041792,"2021-12-21,09:33:28",10.1.1.12,0.6014411449432373,-0.200,-0.200,-0.200,0.000,0.000,0.000
1640079209015769856,"2021-12-21,09:33:29",10.1.1.12,403,-0.190,-0.190,-0.190,0.000,0.000,0.000
1640079209066797056,"2021-12-21,09:33:29",10.1.1.12,0.4520699977874756,-0.190,-0.190,-0.190,0.000,0.000,0.000
1640079209624593920,"2021-12-21,09:33:29",10.1.1.12,555,-0.180,-0.180,-0.180,0.000,0.000,0.000
1640079209801979136,"2021-12-21,09:33:29",10.1.1.12,0.7327349185943604,-0.180,-0.180,-0.180,0.000,0.000,0.000
1640079210194073088,"2021-12-21,09:33:30",10.1.1.12,386,-0.170,-0.170,-0.170,0.000,0.000,0.000
1640079210291398144,"2021-12-21,09:33:30",10.1.1.12,0.48375892639160156,-0.170,-0.170,-0.170,0.000,0.000,0.000
1640079210801378048,"2021-12-21,09:33:30",10.1.1.12,477,-0.160,-0.160,-0.160,0.000,0.000,0.000
1640079211075880960,"2021-12-21,09:33:31",10.1.1.12,0.7521071434020996,-0.160,-0.160,-0.160,0.000,0.000,0.000
1640079211581885184,"2021-12-21,09:33:31",10.1.1.12,500,-0.150,-0.150,-0.150,0.000,0.000,0.000
1640079211677293056,"2021-12-21,09:33:31",10.1.1.12,0.5961930751800537,-0.150,-0.150,-0.150,0.000,0.000,0.000
1640079212242621952,"2021-12-21,09:33:32",10.1.1.12,562,-0.140,-0.140,-0.140,0.000,0.000,0.000
1640079212517251072,"2021-12-21,09:33:32",10.1.1.12,0.8376181125640869,-0.140,-0.140,-0.140,0.000,0.000,0.000
1640079212942550784,"2021-12-21,09:33:32",10.1.1.12,407,-0.130,-0.130,-0.130,0.000,0.000,0.000
1640079213093775104,"2021-12-21,09:33:33",10.1.1.12,0.5575201511383057,-0.130,-0.130,-0.130,0.000,0.000,0.000
1640079213704230144,"2021-12-21,09:33:33",10.1.1.12,568,-0.120,-0.120,-0.120,0.000,0.000,0.000
1640079213836407808,"2021-12-21,09:33:33",10.1.1.12,0.7007060050964355,-0.120,-0.120,-0.120,0.000,0.000,0.000
1640079214333852928,"2021-12-21,09:33:34",10.1.1.12,494,-0.110,-0.110,-0.110,0.000,0.000,0.000
1640079214405648896,"2021-12-21,09:33:34",10.1.1.12,0.566115140914917,-0.110,-0.110,-0.110,0.000,0.000,0.000
1640079215019426048,"2021-12-21,09:33:35",10.1.1.12,595,-0.100,-0.100,-0.100,0.000,0.000,0.000
1640079215128125952,"2021-12-21,09:33:35",10.1.1.12,0.7051060199737549,-0.100,-0.100,-0.100,0.000,0.000,0.000
1640079215817467904,"2021-12-21,09:33:35",10.1.1.12,0.6726319789886475,-0.090,-0.090,-0.090,0.000,0.000,0.000
1640079215818331904,"2021-12-21,09:33:35",10.1.1.12,673,-0.090,-0.090,-0.090,0.000,0.000,0.000
1640079216450379008,"2021-12-21,09:33:36",10.1.1.12,621,-0.080,-0.080,-0.080,0.000,0.000,0.000
1640079216608920064,"2021-12-21,09:33:36",10.1.1.12,0.7798428535461426,-0.080,-0.080,-0.080,0.000,0.000,0.000
1640079217141794816,"2021-12-21,09:33:37",10.1.1.12,529,-0.070,-0.070,-0.070,0.000,0.000,0.000
1640079217149929984,"2021-12-21,09:33:37",10.1.1.12,0.5372960567474365,-0.070,-0.070,-0.070,0.000,0.000,0.000
1640079217819036928,"2021-12-21,09:33:37",10.1.1.12,665,-0.060,-0.060,-0.060,0.000,0.000,0.000
1640079217836771840,"2021-12-21,09:33:37",10.1.1.12,0.6683900356292725,-0.060,-0.060,-0.060,0.000,0.000,0.000
1640079218506042112,"2021-12-21,09:33:38",10.1.1.12,615,-0.050,-0.050,-0.050,0.000,0.000,0.000
1640079218551311104,"2021-12-21,09:33:38",10.1.1.12,0.6606490612030029,-0.050,-0.050,-0.050,0.000,0.000,0.000
1640079219205699072,"2021-12-21,09:33:39",10.1.1.12,648,-0.040,-0.040,-0.040,0.000,0.000,0.000
1640079219232662016,"2021-12-21,09:33:39",10.1.1.12,0.6756129264831543,-0.040,-0.040,-0.040,0.000,0.000,0.000
1640079219635220992,"2021-12-21,09:33:39",10.1.1.12,384,-0.030,-0.030,-0.030,0.000,0.000,0.000
1640079219808460032,"2021-12-21,09:33:39",10.1.1.12,0.5576419830322266,-0.030,-0.030,-0.030,0.000,0.000,0.000
1640079220387623936,"2021-12-21,09:33:40",10.1.1.12,565,-0.020,-0.020,-0.020,0.000,0.000,0.000
1640079220441353984,"2021-12-21,09:33:40",10.1.1.12,0.6193571090698242,-0.020,-0.020,-0.020,0.000,0.000,0.000
1640079221263098112,"2021-12-21,09:33:41",10.1.1.12,801,-0.010,-0.010,-0.010,0.000,0.000,0.000
1640079221263585024,"2021-12-21,09:33:41",10.1.1.12,0.8023500442504883,-0.010,-0.010,-0.010,0.000,0.000,0.000
1640079221878061056,"2021-12-21,09:33:41",10.1.1.12,611,0.000,0.000,0.000,0.000,0.000,0.000
1640079222101373952,"2021-12-21,09:33:42",10.1.1.12,0.8353140354156494,0.000,0.000,0.000,0.000,0.000,0.000
1640079222117177088,"2021-12-21,09:33:42",10.1.1.12,-15,-0.010,-0.010,-0.010,0.000,0.000,0.000
1640079222692678912,"2021-12-21,09:33:42",10.1.1.12,0.5776970386505127,-0.010,-0.010,-0.010,0.000,0.000,0.000
1640079223454334976,"2021-12-21,09:33:43",10.1.1.12,748,-0.020,-0.020,-0.020,0.000,0.000,0.000
1640079223656393984,"2021-12-21,09:33:43",10.1.1.12,0.9502780437469482,-0.020,-0.020,-0.020,0.000,0.000,0.000
1640079224289426944,"2021-12-21,09:33:44",10.1.1.12,626,-0.030,-0.030,-0.030,0.000,0.000,0.000
1640079224401818880,"2021-12-21,09:33:44",10.1.1.12,0.7394440174102783,-0.030,-0.030,-0.030,0.000,0.000,0.000
1640079225105818112,"2021-12-21,09:33:45",10.1.1.12,692,-0.040,-0.040,-0.040,0.000,0.000,0.000
1640079225335027968,"2021-12-21,09:33:45",10.1.1.12,0.9224538803100586,-0.040,-0.040,-0.040,0.000,0.000,0.000
1640079225941172992,"2021-12-21,09:33:45",10.1.1.12,546,-0.050,-0.050,-0.050,0.000,0.000,0.000
1640079226038252032,"2021-12-21,09:33:46",10.1.1.12,0.6438198089599609,-0.050,-0.050,-0.050,0.000,0.000,0.000
1640079226613957888,"2021-12-21,09:33:46",10.1.1.12,572,-0.060,-0.060,-0.060,0.000,0.000,0.000
1640079226929575936,"2021-12-21,09:33:46",10.1.1.12,0.888293981552124,-0.060,-0.060,-0.060,0.000,0.000,0.000
1640079227629915904,"2021-12-21,09:33:47",10.1.1.12,670,-0.070,-0.070,-0.070,0.000,0.000,0.000
1640079227647653120,"2021-12-21,09:33:47",10.1.1.12,0.6965301036834717,-0.070,-0.070,-0.070,0.000,0.000,0.000
1640079228372378112,"2021-12-21,09:33:48",10.1.1.12,696,-0.080,-0.080,-0.080,0.000,0.000,0.000
1640079228449743872,"2021-12-21,09:33:48",10.1.1.12,0.7738299369812012,-0.080,-0.080,-0.080,0.000,0.000,0.000
1640079229065377024,"2021-12-21,09:33:49",10.1.1.12,0.5718488693237305,-0.090,-0.090,-0.090,0.000,0.000,0.000
1640079229580665088,"2021-12-21,09:33:49",10.1.1.12,513,-0.100,-0.100,-0.100,0.000,0.000,0.000
1640079229689914880,"2021-12-21,09:33:49",10.1.1.12,0.6230320930480957,-0.100,-0.100,-0.100,0.000,0.000,0.000
1640079230269171968,"2021-12-21,09:33:50",10.1.1.12,0.5047059059143066,-0.110,-0.110,-0.110,0.000,0.000,0.000
1640079230269793024,"2021-12-21,09:33:50",10.1.1.12,505,-0.110,-0.110,-0.110,0.000,0.000,0.000
1640079230832212992,"2021-12-21,09:33:50",10.1.1.12,489,-0.120,-0.120,-0.120,0.000,0.000,0.000
1640079231027767040,"2021-12-21,09:33:51",10.1.1.12,0.6854469776153564,-0.120,-0.120,-0.120,0.000,0.000,0.000
1640079231599478016,"2021-12-21,09:33:51",10.1.1.12,539,-0.130,-0.130,-0.130,0.000,0.000,0.000
1640079231701716992,"2021-12-21,09:33:51",10.1.1.12,0.6362791061401367,-0.130,-0.130,-0.130,0.000,0.000,0.000
1640079232249412096,"2021-12-21,09:33:52",10.1.1.12,543,-0.140,-0.140,-0.140,0.000,0.000,0.000
1640079232317519872,"2021-12-21,09:33:52",10.1.1.12,0.6117269992828369,-0.140,-0.140,-0.140,0.000,0.000,0.000
1640079232825294080,"2021-12-21,09:33:52",10.1.1.12,506,-0.150,-0.150,-0.150,0.000,0.000,0.000
1640079232919357952,"2021-12-21,09:33:52",10.1.1.12,0.600517988204956,-0.150,-0.150,-0.150,0.000,0.000,0.000
1640079233587892992,"2021-12-21,09:33:53",10.1.1.12,664,-0.160,-0.160,-0.160,0.000,0.000,0.000
1640079233734343168,"2021-12-21,09:33:53",10.1.1.12,0.7975258827209473,-0.160,-0.160,-0.160,0.000,0.000,0.000
1640079234276253952,"2021-12-21,09:33:54",10.1.1.12,540,-0.170,-0.170,-0.170,0.000,0.000,0.000
1640079234384836864,"2021-12-21,09:33:54",10.1.1.12,0.6487209796905518,-0.170,-0.170,-0.170,0.000,0.000,0.000
1640079235152653056,"2021-12-21,09:33:55",10.1.1.12,744,-0.180,-0.180,-0.180,0.000,0.000,0.000
1640079235176105984,"2021-12-21,09:33:55",10.1.1.12,0.7684280872344971,-0.180,-0.180,-0.180,0.000,0.000,0.000
1640079235780323072,"2021-12-21,09:33:55",10.1.1.12,596,-0.190,-0.190,-0.190,0.000,0.000,0.000
1640079235900013824,"2021-12-21,09:33:55",10.1.1.12,0.715831995010376,-0.190,-0.190,-0.190,0.000,0.000,0.000
1640079236661419008,"2021-12-21,09:33:56",10.1.1.12,759,-0.200,-0.200,-0.200,0.000,0.000,0.000
1640079236765969152,"2021-12-21,09:33:56",10.1.1.12,0.8643829822540283,-0.200,-0.200,-0.200,0.000,0.000,0.000
1640079237314361088,"2021-12-21,09:33:57",10.1.1.12,543,-0.210,-0.210,-0.210,0.000,0.000,0.000
1640079237484428800,"2021-12-21,09:33:57",10.1.1.12,0.714015007019043,-0.210,-0.210,-0.210,0.000,0.000,0.000
1640079238057127936,"2021-12-21,09:33:58",10.1.1.12,570,-0.220,-0.220,-0.220,0.000,0.000,0.000
1640079238286035968,"2021-12-21,09:33:58",10.1.1.12,0.7978219985961914,-0.220,-0.220,-0.220,0.000,0.000,0.000
1640079238930411008,"2021-12-21,09:33:58",10.1.1.12,634,-0.230,-0.230,-0.230,0.000,0.000,0.000
1640079239007347968,"2021-12-21,09:33:59",10.1.1.12,0.711482048034668,-0.230,-0.230,-0.230,0.000,0.000,0.000
1640079239811211008,"2021-12-21,09:33:59",10.1.1.12,789,-0.240,-0.240,-0.240,0.000,0.000,0.000
1640079239866626048,"2021-12-21,09:33:59",10.1.1.12,0.8577980995178223,-0.240,-0.240,-0.240,0.000,0.000,0.000
1640079240471921920,"2021-12-21,09:34:00",10.1.1.12,589,-0.250,-0.250,-0.250,0.000,0.000,0.000
1640079240529148160,"2021-12-21,09:34:00",10.1.1.12,0.6465229988098145,-0.250,-0.250,-0.250,0.000,0.000,0.000
1640079241032044800,"2021-12-21,09:34:01",10.1.1.12,484,-0.260,-0.260,-0.260,0.000,0.000,0.000
1640079241188403968,"2021-12-21,09:34:01",10.1.1.12,0.6405401229858398,-0.260,-0.260,-0.260,0.000,0.000,0.000
1640079241751971840,"2021-12-21,09:34:01",10.1.1.12,561,-0.270,-0.270,-0.270,0.000,0.000,0.000
1640079241888498944,"2021-12-21,09:34:01",10.1.1.12,0.6980040073394775,-0.270,-0.270,-0.270,0.000,0.000,0.000
1640079242451330048,"2021-12-21,09:34:02",10.1.1.12,560,-0.280,-0.280,-0.280,0.000,0.000,0.000
1640079242527281920,"2021-12-21,09:34:02",10.1.1.12,0.6369819641113281,-0.280,-0.280,-0.280,0.000,0.000,0.000
1640079243310690048,"2021-12-21,09:34:03",10.1.1.12,781,-0.290,-0.290,-0.290,0.000,0.000,0.000
1640079243541914112,"2021-12-21,09:34:03",10.1.1.12,1.0131850242614746,-0.290,-0.290,-0.290,0.000,0.000,0.000
1640079244099001856,"2021-12-21,09:34:04",10.1.1.12,551,-0.300,-0.300,-0.300,0.000,0.000,0.000
1640079244302740992,"2021-12-21,09:34:04",10.1.1.12,0.7550461292266846,-0.300,-0.300,-0.300,0.000,0.000,0.000
1640079244892285952,"2021-12-21,09:34:04",10.1.1.12,561,-0.310,-0.310,-0.310,0.000,0.000,0.000
1640079244981735936,"2021-12-21,09:34:04",10.1.1.12,0.6685969829559326,-0.310,-0.310,-0.310,0.000,0.000,0.000
1640079245736459008,"2021-12-21,09:34:05",10.1.1.12,748,-0.320,-0.320,-0.320,0.000,0.000,0.000
1640079245756741888,"2021-12-21,09:34:05",10.1.1.12,0.7685370445251465,-0.320,-0.320,-0.320,0.000,0.000,0.000
1640079246187015936,"2021-12-21,09:34:06",10.1.1.12,418,-0.330,-0.330,-0.330,0.000,0.000,0.000
1640079246322856960,"2021-12-21,09:34:06",10.1.1.12,0.554854154586792,-0.330,-0.330,-0.330,0.000,0.000,0.000
1640079247187140096,"2021-12-21,09:34:07",10.1.1.12,828,-0.340,-0.340,-0.340,0.000,0.000,0.000
1640079247187931136,"2021-12-21,09:34:07",10.1.1.12,0.8504340648651123,-0.340,-0.340,-0.340,0.000,0.000,0.000
1640079247748845056,"2021-12-21,09:34:07",10.1.1.12,548,-0.350,-0.350,-0.350,0.000,0.000,0.000
1640079247974128896,"2021-12-21,09:34:07",10.1.1.12,0.7736179828643799,-0.350,-0.350,-0.350,0.000,0.000,0.000
1640079248536775168,"2021-12-21,09:34:08",10.1.1.12,552,-0.360,-0.360,-0.360,0.000,0.000,0.000
1640079248672879104,"2021-12-21,09:34:08",10.1.1.12,0.6887362003326416,-0.360,-0.360,-0.360,0.000,0.000,0.000
1640079249158070016,"2021-12-21,09:34:09",10.1.1.12,470,-0.370,-0.370,-0.370,0.000,0.000,0.000
1640079249333630976,"2021-12-21,09:34:09",10.1.1.12,0.6465940475463867,-0.370,-0.370,-0.370,0.000,0.000,0.000
1640079249907500032,"2021-12-21,09:34:09",10.1.1.12,548,-0.380,-0.380,-0.380,0.000,0.000,0.000
1640079249959992832,"2021-12-21,09:34:09",10.1.1.12,0.6008450984954834,-0.380,-0.380,-0.380,0.000,0.000,0.000
1640079250833116928,"2021-12-21,09:34:10",10.1.1.12,853,-0.390,-0.390,-0.390,0.000,0.000,0.000
1640079251015403008,"2021-12-21,09:34:11",10.1.1.12,1.0356130599975586,-0.390,-0.390,-0.390,0.000,0.000,0.000
1640079251668345856,"2021-12-21,09:34:11",10.1.1.12,618,-0.400,-0.400,-0.400,0.000,0.000,0.000
1640079251791544064,"2021-12-21,09:34:11",10.1.1.12,0.7422637939453125,-0.400,-0.400,-0.400,0.000,0.000,0.000
1640079252412595968,"2021-12-21,09:34:12",10.1.1.12,595,-0.410,-0.410,-0.410,0.000,0.000,0.000
1640079252522636032,"2021-12-21,09:34:12",10.1.1.12,0.7053751945495605,-0.410,-0.410,-0.410,0.000,0.000,0.000
1640079253148789760,"2021-12-21,09:34:13",10.1.1.12,0.6121208667755127,-0.420,-0.420,-0.420,0.000,0.000,0.000
1640079253717978880,"2021-12-21,09:34:13",10.1.1.12,564,-0.430,-0.430,-0.430,0.000,0.000,0.000
1640079253908719104,"2021-12-21,09:34:13",10.1.1.12,0.7556610107421875,-0.430,-0.430,-0.430,0.000,0.000,0.000
1640079254640580864,"2021-12-21,09:34:14",10.1.1.12,719,-0.440,-0.440,-0.440,0.000,0.000,0.000
1640079254851684096,"2021-12-21,09:34:14",10.1.1.12,0.9307150840759277,-0.440,-0.440,-0.440,0.000,0.000,0.000
1640079255532630016,"2021-12-21,09:34:15",10.1.1.12,657,-0.450,-0.450,-0.450,0.000,0.000,0.000
1640079255654097920,"2021-12-21,09:34:15",10.1.1.12,0.779473066329956,-0.450,-0.450,-0.450,0.000,0.000,0.000
1640079256348165120,"2021-12-21,09:34:16",10.1.1.12,683,-0.460,-0.460,-0.460,0.000,0.000,0.000
1640079256392185088,"2021-12-21,09:34:16",10.1.1.12,0.7274940013885498,-0.460,-0.460,-0.460,0.000,0.000,0.000
1640079256943557888,"2021-12-21,09:34:16",10.1.1.12,539,-0.470,-0.470,-0.470,0.000,0.000,0.000
1640079257065860864,"2021-12-21,09:34:17",10.1.1.12,0.6621758937835693,-0.470,-0.470,-0.470,0.000,0.000,0.000
1640079257805090816,"2021-12-21,09:34:17",10.1.1.12,697,-0.480,-0.480,-0.480,0.000,0.000,0.000
1640079257861278976,"2021-12-21,09:34:17",10.1.1.12,0.7652521133422852,-0.480,-0.480,-0.480,0.000,0.000,0.000
1640079258411042048,"2021-12-21,09:34:18",10.1.1.12,543,-0.490,-0.490,-0.490,0.000,0.000,0.000
1640079258512381952,"2021-12-21,09:34:18",10.1.1.12,0.6446819305419922,-0.490,-0.490,-0.490,0.000,0.000,0.000
1640079259063468032,"2021-12-21,09:34:19",10.1.1.12,549,-0.480,-0.480,-0.480,0.000,0.000,0.000
1640079259127545088,"2021-12-21,09:34:19",10.1.1.12,0.6134438514709473,-0.480,-0.480,-0.480,0.000,0.000,0.000
1640079259927088896,"2021-12-21,09:34:19",10.1.1.12,794,-0.470,-0.470,-0.470,0.000,0.000,0.000
1640079259948966144,"2021-12-21,09:34:19",10.1.1.12,0.8193709850311279,-0.470,-0.470,-0.470,0.000,0.000,0.000
1640079260486323200,"2021-12-21,09:34:20",10.1.1.12,528,-0.460,-0.460,-0.460,0.000,0.000,0.000
1640079260607522048,"2021-12-21,09:34:20",10.1.1.12,0.6500639915466309,-0.460,-0.460,-0.460,0.000,0.000,0.000
1640079261303944192,"2021-12-21,09:34:21",10.1.1.12,677,-0.450,-0.450,-0.450,0.000,0.000,0.000
1640079261455603968,"2021-12-21,09:34:21",10.1.1.12,0.8293659687042236,-0.450,-0.450,-0.450,0.000,0.000,0.000
1640079262034461952,"2021-12-21,09:34:22",10.1.1.12,556,-0.440,-0.440,-0.440,0.000,0.000,0.000
1640079262124360192,"2021-12-21,09:34:22",10.1.1.12,0.6481270790100098,-0.440,-0.440,-0.440,0.000,0.000,0.000
1640079262821528832,"2021-12-21,09:34:22",10.1.1.12,674,-0.430,-0.430,-0.430,0.000,0.000,0.000
1640079262937659904,"2021-12-21,09:34:22",10.1.1.12,0.7840409278869629,-0.430,-0.430,-0.430,0.000,0.000,0.000
1640079263815821056,"2021-12-21,09:34:23",10.1.1.12,859,-0.420,-0.420,-0.420,0.000,0.000,0.000
1640079263871625984,"2021-12-21,09:34:23",10.1.1.12,0.9148681163787842,-0.420,-0.420,-0.420,0.000,0.000,0.000
1640079264618594816,"2021-12-21,09:34:24",10.1.1.12,742,-0.410,-0.410,-0.410,0.000,0.000,0.000
1640079264763847168,"2021-12-21,09:34:24",10.1.1.12,0.8874919414520264,-0.410,-0.410,-0.410,0.000,0.000,0.000
1640079265324395776,"2021-12-21,09:34:25",10.1.1.12,558,-0.400,-0.400,-0.400,0.000,0.000,0.000
1640079265452012032,"2021-12-21,09:34:25",10.1.1.12,0.6812257766723633,-0.400,-0.400,-0.400,0.000,0.000,0.000
1640079266070702080,"2021-12-21,09:34:26",10.1.1.12,597,-0.390,-0.390,-0.390,0.000,0.000,0.000
1640079266214886912,"2021-12-21,09:34:26",10.1.1.12,0.7455670833587646,-0.390,-0.390,-0.390,0.000,0.000,0.000
1640079266833209088,"2021-12-21,09:34:26",10.1.1.12,616,-0.380,-0.380,-0.380,0.000,0.000,0.000
1640079266941410048,"2021-12-21,09:34:26",10.1.1.12,0.7247090339660645,-0.380,-0.380,-0.380,0.000,0.000,0.000
1640079267452727040,"2021-12-21,09:34:27",10.1.1.12,509,-0.370,-0.370,-0.370,0.000,0.000,0.000
1640079267654257152,"2021-12-21,09:34:27",10.1.1.12,0.7114179134368896,-0.370,-0.370,-0.370,0.000,0.000,0.000
1640079268298854144,"2021-12-21,09:34:28",10.1.1.12,633,-0.360,-0.360,-0.360,0.000,0.000,0.000
1640079268393342976,"2021-12-21,09:34:28",10.1.1.12,0.7325351238250732,-0.360,-0.360,-0.360,0.000,0.000,0.000
1640079268946351104,"2021-12-21,09:34:28",10.1.1.12,544,-0.350,-0.350,-0.350,0.000,0.000,0.000
1640079269105462016,"2021-12-21,09:34:29",10.1.1.12,0.7038600444793701,-0.350,-0.350,-0.350,0.000,0.000,0.000
1640079269566846976,"2021-12-21,09:34:29",10.1.1.12,439,-0.340,-0.340,-0.340,0.000,0.000,0.000
1640079269756474112,"2021-12-21,09:34:29",10.1.1.12,0.6294529438018799,-0.340,-0.340,-0.340,0.000,0.000,0.000
1640079270664578816,"2021-12-21,09:34:30",10.1.1.12,872,-0.330,-0.330,-0.330,0.000,0.000,0.000
1640079270781153792,"2021-12-21,09:34:30",10.1.1.12,0.9889068603515625,-0.330,-0.330,-0.330,0.000,0.000,0.000
1640079271419735040,"2021-12-21,09:34:31",10.1.1.12,615,-0.320,-0.320,-0.320,0.000,0.000,0.000
1640079271483717888,"2021-12-21,09:34:31",10.1.1.12,0.6799860000610352,-0.320,-0.320,-0.320,0.000,0.000,0.000
1640079271966750976,"2021-12-21,09:34:31",10.1.1.12,464,-0.310,-0.310,-0.310,0.000,0.000,0.000
1640079272151389952,"2021-12-21,09:34:32",10.1.1.12,0.6493468284606934,-0.310,-0.310,-0.310,0.000,0.000,0.000
1640079273205383936,"2021-12-21,09:34:33",10.1.1.12,1023,-0.300,-0.300,-0.300,0.000,0.000,0.000
1640079273326593024,"2021-12-21,09:34:33",10.1.1.12,1.1444880962371826,-0.300,-0.300,-0.300,0.000,0.000,0.000
1640079273833795072,"2021-12-21,09:34:33",10.1.1.12,499,-0.290,-0.290,-0.290,0.000,0.000,0.000
1640079273978418176,"2021-12-21,09:34:33",10.1.1.12,0.6443209648132324,-0.290,-0.290,-0.290,0.000,0.000,0.000
1640079274822403840,"2021-12-21,09:34:34",10.1.1.12,807,-0.280,-0.280,-0.280,0.000,0.000,0.000
1640079274957523968,"2021-12-21,09:34:34",10.1.1.12,0.9605040550231934,-0.280,-0.280,-0.280,0.000,0.000,0.000
1640079275614272000,"2021-12-21,09:34:35",10.1.1.12,636,-0.270,-0.270,-0.270,0.000,0.000,0.000
1640079275649560064,"2021-12-21,09:34:35",10.1.1.12,0.6723530292510986,-0.270,-0.270,-0.270,0.000,0.000,0.000
1640079276407601152,"2021-12-21,09:34:36",10.1.1.12,598,-0.260,-0.260,-0.260,0.000,0.000,0.000
1640079276488628992,"2021-12-21,09:34:36",10.1.1.12,0.7241461277008057,-0.260,-0.260,-0.260,0.000,0.000,0.000
1640079277192291072,"2021-12-21,09:34:37",10.1.1.12,699,-0.250,-0.250,-0.250,0.000,0.000,0.000
1640079277263407872,"2021-12-21,09:34:37",10.1.1.12,0.7706198692321777,-0.250,-0.250,-0.250,0.000,0.000,0.000
1640079277845433856,"2021-12-21,09:34:37",10.1.1.12,579,-0.240,-0.240,-0.240,0.000,0.000,0.000
1640079277872137984,"2021-12-21,09:34:37",10.1.1.12,0.6064691543579102,-0.240,-0.240,-0.240,0.000,0.000,0.000
1640079278645436160,"2021-12-21,09:34:38",10.1.1.12,730,-0.230,-0.230,-0.230,0.000,0.000,0.000
1640079278968642048,"2021-12-21,09:34:38",10.1.1.12,1.053389072418213,-0.230,-0.230,-0.230,0.000,0.000,0.000
1640079279031255040,"2021-12-21,09:34:39",10.1.1.12,-2,-0.220,-0.220,-0.220,0.000,0.000,0.000
1640079279757484032,"2021-12-21,09:34:39",10.1.1.12,0.7859320640563965,-0.220,-0.220,-0.220,0.000,0.000,0.000
1640079280358377984,"2021-12-21,09:34:40",10.1.1.12,575,-0.210,-0.210,-0.210,0.000,0.000,0.000
1640079280724030976,"2021-12-21,09:34:40",10.1.1.12,0.9540798664093018,-0.210,-0.210,-0.210,0.000,0.000,0.000
1640079281411427072,"2021-12-21,09:34:41",10.1.1.12,677,-0.200,-0.200,-0.200,0.000,0.000,0.000
1640079281605539072,"2021-12-21,09:34:41",10.1.1.12,0.8720598220825195,-0.200,-0.200,-0.200,0.000,0.000,0.000
1640079282355952896,"2021-12-21,09:34:42",10.1.1.12,727,-0.190,-0.190,-0.190,0.000,0.000,0.000
1640079282448862976,"2021-12-21,09:34:42",10.1.1.12,0.8206350803375244,-0.190,-0.190,-0.190,0.000,0.000,0.000
1640079283033464064,"2021-12-21,09:34:43",10.1.1.12,566,-0.180,-0.180,-0.180,0.000,0.000,0.000
1640079283117552896,"2021-12-21,09:34:43",10.1.1.12,0.6503479480743408,-0.180,-0.180,-0.180,0.000,0.000,0.000
1640079283728500992,"2021-12-21,09:34:43",10.1.1.12,579,-0.170,-0.170,-0.170,0.000,0.000,0.000
1640079283813373952,"2021-12-21,09:34:43",10.1.1.12,0.6643800735473633,-0.170,-0.170,-0.170,0.000,0.000,0.000
1640079284723836928,"2021-12-21,09:34:44",10.1.1.12,899,-0.160,-0.160,-0.160,0.000,0.000,0.000
1640079284803484928,"2021-12-21,09:34:44",10.1.1.12,0.9794580936431885,-0.160,-0.160,-0.160,0.000,0.000,0.000
1640079285385939968,"2021-12-21,09:34:45",10.1.1.12,569,-0.150,-0.150,-0.150,0.000,0.000,0.000
1640079285527014912,"2021-12-21,09:34:45",10.1.1.12,0.7109448909759521,-0.150,-0.150,-0.150,0.000,0.000,0.000
1640079286296499968,"2021-12-21,09:34:46",10.1.1.12,732,-0.140,-0.140,-0.140,0.000,0.000,0.000
1640079286349491968,"2021-12-21,09:34:46",10.1.1.12,0.8031790256500244,-0.140,-0.140,-0.140,0.000,0.000,0.000
1640079287243431936,"2021-12-21,09:34:47",10.1.1.12,622,-0.130,-0.130,-0.130,0.000,0.000,0.000
1640079287405383936,"2021-12-21,09:34:47",10.1.1.12,0.8455870151519775,-0.130,-0.130,-0.130,0.000,0.000,0.000
1640079290766141952,"2021-12-21,09:34:48",10.1.1.12,704,-0.120,-0.120,-0.120,0.000,0.000,0.000
1640079294317094144,"2021-12-21,09:34:53",10.1.1.12,6.143848896026611,-0.120,-0.120,-0.120,0.000,0.000,0.000
1640079296067828992,"2021-12-21,09:34:56",10.1.1.12,1.5332300662994385,-0.110,-0.110,-0.110,0.000,0.000,0.000
1640079296782190080,"2021-12-21,09:34:56",10.1.1.12,698,-0.100,-0.100,-0.100,0.000,0.000,0.000
1640079297118560000,"2021-12-21,09:34:57",10.1.1.12,1.0485470294952393,-0.100,-0.100,-0.100,0.000,0.000,0.000
1640079298282887936,"2021-12-21,09:34:58",10.1.1.12,1061,-0.090,-0.090,-0.090,0.000,0.000,0.000
1640079298437494016,"2021-12-21,09:34:58",10.1.1.12,1.3130810260772705,-0.090,-0.090,-0.090,0.000,0.000,0.000
1640079299033238016,"2021-12-21,09:34:59",10.1.1.12,0.5576620101928711,-0.080,-0.080,-0.080,0.000,0.000,0.000
1640079299048271872,"2021-12-21,09:34:59",10.1.1.12,572,-0.080,-0.080,-0.080,0.000,0.000,0.000
1640079299920310016,"2021-12-21,09:34:59",10.1.1.12,849,-0.070,-0.070,-0.070,0.000,0.000,0.000
1640079300170716160,"2021-12-21,09:35:00",10.1.1.12,1.049043893814087,-0.070,-0.070,-0.070,0.000,0.000,0.000
1640079301031668992,"2021-12-21,09:35:01",10.1.1.12,806,-0.060,-0.060,-0.060,0.000,0.000,0.000
1640079301207556864,"2021-12-21,09:35:01",10.1.1.12,1.013110876083374,-0.060,-0.060,-0.060,0.000,0.000,0.000
1640079302708728064,"2021-12-21,09:35:02",10.1.1.12,1159,-0.050,-0.050,-0.050,0.000,0.000,0.000
1640079303093502976,"2021-12-21,09:35:03",10.1.1.12,1.8632960319519043,-0.050,-0.050,-0.050,0.000,0.000,0.000
1640079305724579072,"2021-12-21,09:35:03",10.1.1.12,824,-0.040,-0.040,-0.040,0.000,0.000,0.000
1640079306085926144,"2021-12-21,09:35:06",10.1.1.12,2.942391872406006,-0.040,-0.040,-0.040,0.000,0.000,0.000
1640079307075938048,"2021-12-21,09:35:07",10.1.1.12,982,-0.030,-0.030,-0.030,0.000,0.000,0.000
1640079307234409984,"2021-12-21,09:35:07",10.1.1.12,1.140552043914795,-0.030,-0.030,-0.030,0.000,0.000,0.000
1640079307805017088,"2021-12-21,09:35:07",10.1.1.12,560,-0.020,-0.020,-0.020,0.000,0.000,0.000
1640079307974720000,"2021-12-21,09:35:07",10.1.1.12,0.7308330535888672,-0.020,-0.020,-0.020,0.000,0.000,0.000
1640079308063654912,"2021-12-21,09:35:08",10.1.1.12,-1,-0.010,-0.010,-0.010,0.000,0.000,0.000
1640079308934427136,"2021-12-21,09:35:08",10.1.1.12,0.8883960247039795,-0.010,-0.010,-0.010,0.000,0.000,0.000
1640079309530144000,"2021-12-21,09:35:09",10.1.1.12,590,0.000,0.000,0.000,0.000,0.000,0.000
1640079309686742016,"2021-12-21,09:35:09",10.1.1.12,0.7489781379699707,0.000,0.000,0.000,0.000,0.000,0.000
1640079310665504000,"2021-12-21,09:35:10",10.1.1.12,0.9174299240112305,-0.010,-0.010,-0.010,0.000,0.000,0.000
1640079311790811904,"2021-12-21,09:35:11",10.1.1.12,914,-0.020,-0.020,-0.020,0.000,0.000,0.000
1640079311908153088,"2021-12-21,09:35:11",10.1.1.12,1.2379770278930664,-0.020,-0.020,-0.020,0.000,0.000,0.000
1640079312751876096,"2021-12-21,09:35:12",10.1.1.12,824,-0.030,-0.030,-0.030,0.000,0.000,0.000
1640079312975917056,"2021-12-21,09:35:12",10.1.1.12,1.0482690334320068,-0.030,-0.030,-0.030,0.000,0.000,0.000
1640079313080041984,"2021-12-21,09:35:13",10.1.1.12,-92,-0.040,-0.040,-0.040,0.000,0.000,0.000
1640079314755672064,"2021-12-21,09:35:14",10.1.1.12,1.766383171081543,-0.040,-0.040,-0.040,0.000,0.000,0.000
1640079315694663168,"2021-12-21,09:35:15",10.1.1.12,916,-0.050,-0.050,-0.050,0.000,0.000,0.000
1640079315828280832,"2021-12-21,09:35:15",10.1.1.12,1.0503418445587158,-0.050,-0.050,-0.050,0.000,0.000,0.000
1640079316491694848,"2021-12-21,09:35:16",10.1.1.12,659,-0.060,-0.060,-0.060,0.000,0.000,0.000
1640079316562364160,"2021-12-21,09:35:16",10.1.1.12,0.7302730083465576,-0.060,-0.060,-0.060,0.000,0.000,0.000
1640079317106960128,"2021-12-21,09:35:17",10.1.1.12,513,-0.070,-0.070,-0.070,0.000,0.000,0.000
1640079317296264960,"2021-12-21,09:35:17",10.1.1.12,0.7025539875030518,-0.070,-0.070,-0.070,0.000,0.000,0.000
1640079318223000064,"2021-12-21,09:35:18",10.1.1.12,815,-0.080,-0.080,-0.080,0.000,0.000,0.000
1640079318400315136,"2021-12-21,09:35:18",10.1.1.12,1.0031850337982178,-0.080,-0.080,-0.080,0.000,0.000,0.000
1640079319607335936,"2021-12-21,09:35:19",10.1.1.12,1164,-0.090,-0.090,-0.090,0.000,0.000,0.000
1640079319883013120,"2021-12-21,09:35:19",10.1.1.12,1.4402270317077637,-0.090,-0.090,-0.090,0.000,0.000,0.000
1640079320961656064,"2021-12-21,09:35:20",10.1.1.12,954,-0.100,-0.100,-0.100,0.000,0.000,0.000
1640079321137547008,"2021-12-21,09:35:21",10.1.1.12,1.130133867263794,-0.100,-0.100,-0.100,0.000,0.000,0.000
1640079322315390976,"2021-12-21,09:35:21",10.1.1.12,0.7955300807952881,-0.110,-0.110,-0.110,0.000,0.000,0.000
1640079323224907008,"2021-12-21,09:35:23",10.1.1.12,0.9077050685882568,-0.120,-0.120,-0.120,0.000,0.000,0.000
1640079323225438976,"2021-12-21,09:35:23",10.1.1.12,908,-0.120,-0.120,-0.120,0.000,0.000,0.000
1640079324475625984,"2021-12-21,09:35:24",10.1.1.12,1248,-0.130,-0.130,-0.130,0.000,0.000,0.000
1640079324973217024,"2021-12-21,09:35:24",10.1.1.12,1.74676513671875,-0.130,-0.130,-0.130,0.000,0.000,0.000
1640079325984786944,"2021-12-21,09:35:25",10.1.1.12,886,-0.140,-0.140,-0.140,0.000,0.000,0.000
1640079326207865088,"2021-12-21,09:35:26",10.1.1.12,1.206355094909668,-0.140,-0.140,-0.140,0.000,0.000,0.000
1640079326809438976,"2021-12-21,09:35:26",10.1.1.12,0.5685718059539795,-0.150,-0.150,-0.150,0.000,0.000,0.000
1640079326809768960,"2021-12-21,09:35:26",10.1.1.12,568,-0.150,-0.150,-0.150,0.000,0.000,0.000
1640079327758130944,"2021-12-21,09:35:27",10.1.1.12,891,-0.160,-0.160,-0.160,0.000,0.000,0.000
1640079327797449216,"2021-12-21,09:35:27",10.1.1.12,0.9551689624786377,-0.160,-0.160,-0.160,0.000,0.000,0.000
1640079328693403904,"2021-12-21,09:35:28",10.1.1.12,0.8944799900054932,-0.170,-0.170,-0.170,0.000,0.000,0.000
1640079329208632064,"2021-12-21,09:35:29",10.1.1.12,454,-0.180,-0.180,-0.180,0.000,0.000,0.000
1640079329272110080,"2021-12-21,09:35:29",10.1.1.12,0.5134561061859131,-0.180,-0.180,-0.180,0.000,0.000,0.000
1640079329681467904,"2021-12-21,09:35:29",10.1.1.12,397,-0.190,-0.190,-0.190,0.000,0.000,0.000
1640079329781444096,"2021-12-21,09:35:29",10.1.1.12,0.4974699020385742,-0.190,-0.190,-0.190,0.000,0.000,0.000
1640079330181297152,"2021-12-21,09:35:30",10.1.1.12,398,-0.200,-0.200,-0.200,0.000,0.000,0.000
1640079330250761984,"2021-12-21,09:35:30",10.1.1.12,0.4677848815917969,-0.200,-0.200,-0.200,0.000,0.000,0.000
1640079331043840000,"2021-12-21,09:35:31",10.1.1.12,765,-0.210,-0.210,-0.210,0.000,0.000,0.000
1640079331064150016,"2021-12-21,09:35:31",10.1.1.12,0.8030171394348145,-0.210,-0.210,-0.210,0.000,0.000,0.000
1640079339797455104,"2021-12-21,09:35:39",10.1.1.12,8008,-0.220,-0.220,-0.220,0.000,0.000,0.000
1640079339898472192,"2021-12-21,09:35:39",10.1.1.12,8.802985906600952,-0.220,-0.220,-0.220,0.000,0.000,0.000
1640079340901566976,"2021-12-21,09:35:40",10.1.1.12,983,-0.230,-0.230,-0.230,0.000,0.000,0.000
1640079340949684992,"2021-12-21,09:35:40",10.1.1.12,1.0436058044433594,-0.230,-0.230,-0.230,0.000,0.000,0.000
1640079341564253184,"2021-12-21,09:35:41",10.1.1.12,608,-0.240,-0.240,-0.240,0.000,0.000,0.000
1640079342795894016,"2021-12-21,09:35:42",10.1.1.12,1.2588608264923096,-0.240,-0.240,-0.240,0.000,0.000,0.000
1640079343557315072,"2021-12-21,09:35:43",10.1.1.12,740,-0.250,-0.250,-0.250,0.000,0.000,0.000
1640079344102866944,"2021-12-21,09:35:43",10.1.1.12,0.9898500442504883,-0.250,-0.250,-0.250,0.000,0.000,0.000
1640079344984092928,"2021-12-21,09:35:44",10.1.1.12,667,-0.260,-0.260,-0.260,0.000,0.000,0.000
1640079345193873920,"2021-12-21,09:35:45",10.1.1.12,0.8775269985198975,-0.260,-0.260,-0.260,0.000,0.000,0.000
1640079346140532992,"2021-12-21,09:35:46",10.1.1.12,936,-0.270,-0.270,-0.270,0.000,0.000,0.000
1640079346320568064,"2021-12-21,09:35:46",10.1.1.12,1.1162481307983398,-0.270,-0.270,-0.270,0.000,0.000,0.000
1640079346773058816,"2021-12-21,09:35:46",10.1.1.12,450,-0.280,-0.280,-0.280,0.000,0.000,0.000
1640079346900033024,"2021-12-21,09:35:46",10.1.1.12,0.5775558948516846,-0.280,-0.280,-0.280,0.000,0.000,0.000
1640079348353894912,"2021-12-21,09:35:48",10.1.1.12,1335,-0.290,-0.290,-0.290,0.000,0.000,0.000
1640079348853209088,"2021-12-21,09:35:48",10.1.1.12,1.865401029586792,-0.290,-0.290,-0.290,0.000,0.000,0.000
1640079351286128128,"2021-12-21,09:35:51",10.1.1.12,2.368272066116333,-0.300,-0.300,-0.300,0.000,0.000,0.000
1640079351131550976,"2021-12-21,09:35:49",10.1.1.12,716,-0.300,-0.300,-0.300,0.000,0.000,0.000
1640079353174087936,"2021-12-21,09:35:53",10.1.1.12,1811,-0.310,-0.310,-0.310,0.000,0.000,0.000
1640079353229521152,"2021-12-21,09:35:53",10.1.1.12,1.9337739944458008,-0.310,-0.310,-0.310,0.000,0.000,0.000
1640079354589978880,"2021-12-21,09:35:54",10.1.1.12,984,-0.320,-0.320,-0.320,0.000,0.000,0.000
1640079354781698048,"2021-12-21,09:35:54",10.1.1.12,1.193579912185669,-0.320,-0.320,-0.320,0.000,0.000,0.000
1640079355773463040,"2021-12-21,09:35:55",10.1.1.12,949,-0.330,-0.330,-0.330,0.000,0.000,0.000
1640079356280217856,"2021-12-21,09:35:56",10.1.1.12,1.3278629779815674,-0.330,-0.330,-0.330,0.000,0.000,0.000
1640079357435662080,"2021-12-21,09:35:57",10.1.1.12,1026,-0.340,-0.340,-0.340,0.000,0.000,0.000
1640079357876591872,"2021-12-21,09:35:57",10.1.1.12,1.5363459587097168,-0.340,-0.340,-0.340,0.000,0.000,0.000
1640079359573474048,"2021-12-21,09:35:59",10.1.1.12,1.6951379776000977,-0.350,-0.350,-0.350,0.000,0.000,0.000
1640079359423216128,"2021-12-21,09:35:59",10.1.1.12,1479,-0.350,-0.350,-0.350,0.000,0.000,0.000
1640079362804457984,"2021-12-21,09:36:01",10.1.1.12,2230,-0.360,-0.360,-0.360,0.000,0.000,0.000
1640079363015330048,"2021-12-21,09:36:03",10.1.1.12,3.4154210090637207,-0.360,-0.360,-0.360,0.000,0.000,0.000
1640079441916398080,"2021-12-21,09:37:20",10.1.1.12,9.579127073287964,-0.370,-0.370,-0.370,0.000,0.000,0.000
1640079450999665920,"2021-12-21,09:37:30",10.1.1.12,8.003818035125732,-0.380,-0.380,-0.380,0.000,0.000,0.000
1640079460210556928,"2021-12-21,09:37:38",10.1.1.12,7.850492000579834,-0.390,-0.390,-0.390,0.000,0.000,0.000
1640079469785502976,"2021-12-21,09:37:47",10.1.1.12,6.459105968475342,-0.400,-0.400,-0.400,0.000,0.000,0.000
1640079485476039936,"2021-12-21,09:38:03",10.1.1.12,13.289500951766968,-0.410,-0.410,-0.410,0.000,0.000,0.000
1640079503931200000,"2021-12-21,09:38:22",10.1.1.12,15.74632215499878,-0.420,-0.420,-0.420,0.000,0.000,0.000
1640079510151140096,"2021-12-21,09:38:26",10.1.1.12,2140,-0.430,-0.430,-0.430,0.000,0.000,0.000
1640079510779982080,"2021-12-21,09:38:30",10.1.1.12,6.72300386428833,-0.430,-0.430,-0.430,0.000,0.000,0.000
1640079513662499840,"2021-12-21,09:38:33",10.1.1.12,2501,-0.440,-0.440,-0.440,0.000,0.000,0.000
1640079513694881024,"2021-12-21,09:38:33",10.1.1.12,2.888087034225464,-0.440,-0.440,-0.440,0.000,0.000,0.000
1640079514321156096,"2021-12-21,09:38:34",10.1.1.12,608,-0.450,-0.450,-0.450,0.000,0.000,0.000
1640079514534682112,"2021-12-21,09:38:34",10.1.1.12,0.8225071430206299,-0.450,-0.450,-0.450,0.000,0.000,0.000
1640079514978714880,"2021-12-21,09:38:34",10.1.1.12,435,-0.460,-0.460,-0.460,0.000,0.000,0.000
1640079515087044096,"2021-12-21,09:38:35",10.1.1.12,0.5441219806671143,-0.460,-0.460,-0.460,0.000,0.000,0.000
1640079515560764160,"2021-12-21,09:38:35",10.1.1.12,472,-0.470,-0.470,-0.470,0.000,0.000,0.000
1640079515719415808,"2021-12-21,09:38:35",10.1.1.12,0.6307210922241211,-0.470,-0.470,-0.470,0.000,0.000,0.000
1640079516295712000,"2021-12-21,09:38:36",10.1.1.12,574,-0.480,-0.480,-0.480,0.000,0.000,0.000
1640079516592773888,"2021-12-21,09:38:36",10.1.1.12,0.8715229034423828,-0.480,-0.480,-0.480,0.000,0.000,0.000
1640079517357588992,"2021-12-21,09:38:37",10.1.1.12,759,-0.490,-0.490,-0.490,0.000,0.000,0.000
1640079517457516032,"2021-12-21,09:38:37",10.1.1.12,0.859576940536499,-0.490,-0.490,-0.490,0.000,0.000,0.000
1640079518095820800,"2021-12-21,09:38:38",10.1.1.12,622,-0.480,-0.480,-0.480,0.000,0.000,0.000
1640079518288461056,"2021-12-21,09:38:38",10.1.1.12,0.8154089450836182,-0.480,-0.480,-0.480,0.000,0.000,0.000
1640079519298883840,"2021-12-21,09:38:39",10.1.1.12,790,-0.470,-0.470,-0.470,0.000,0.000,0.000
1640079519366859008,"2021-12-21,09:38:39",10.1.1.12,0.8583850860595703,-0.470,-0.470,-0.470,0.000,0.000,0.000
1640079520218493952,"2021-12-21,09:38:40",10.1.1.12,802,-0.460,-0.460,-0.460,0.000,0.000,0.000
1640079520386002944,"2021-12-21,09:38:40",10.1.1.12,0.9695320129394531,-0.460,-0.460,-0.460,0.000,0.000,0.000
1640079521169171968,"2021-12-21,09:38:41",10.1.1.12,768,-0.450,-0.450,-0.450,0.000,0.000,0.000
1640079521330398976,"2021-12-21,09:38:41",10.1.1.12,0.9298100471496582,-0.450,-0.450,-0.450,0.000,0.000,0.000
1640079521344400896,"2021-12-21,09:38:41",10.1.1.12,-125,-0.440,-0.440,-0.440,0.000,0.000,0.000
1640079522254033152,"2021-12-21,09:38:42",10.1.1.12,0.9154701232910156,-0.440,-0.440,-0.440,0.000,0.000,0.000
1640079522926830080,"2021-12-21,09:38:42",10.1.1.12,667,-0.430,-0.430,-0.430,0.000,0.000,0.000
1640079523056839936,"2021-12-21,09:38:43",10.1.1.12,0.797461986541748,-0.430,-0.430,-0.430,0.000,0.000,0.000
1640079523885005824,"2021-12-21,09:38:43",10.1.1.12,807,-0.420,-0.420,-0.420,0.000,0.000,0.000
1640079524107846144,"2021-12-21,09:38:44",10.1.1.12,1.031473159790039,-0.420,-0.420,-0.420,0.000,0.000,0.000
1640079525085928960,"2021-12-21,09:38:45",10.1.1.12,951,-0.410,-0.410,-0.410,0.000,0.000,0.000
1640079525148374016,"2021-12-21,09:38:45",10.1.1.12,1.014423131942749,-0.410,-0.410,-0.410,0.000,0.000,0.000
1640079526044161024,"2021-12-21,09:38:46",10.1.1.12,0.8944308757781982,-0.400,-0.400,-0.400,0.000,0.000,0.000
1640079526671622144,"2021-12-21,09:38:46",10.1.1.12,612,-0.390,-0.390,-0.390,0.000,0.000,0.000
1640079526995249152,"2021-12-21,09:38:46",10.1.1.12,0.9363758563995361,-0.390,-0.390,-0.390,0.000,0.000,0.000
1640079528160641024,"2021-12-21,09:38:48",10.1.1.12,1.1197261810302734,-0.380,-0.380,-0.380,0.000,0.000,0.000
1640079529569515008,"2021-12-21,09:38:49",10.1.1.12,1.3648550510406494,-0.370,-0.370,-0.370,0.000,0.000,0.000
1640079530484584960,"2021-12-21,09:38:50",10.1.1.12,0.9116899967193604,-0.360,-0.360,-0.360,0.000,0.000,0.000
1640079531128189952,"2021-12-21,09:38:51",10.1.1.12,603,-0.350,-0.350,-0.350,0.000,0.000,0.000
1640079531560375040,"2021-12-21,09:38:51",10.1.1.12,1.0575239658355713,-0.350,-0.350,-0.350,0.000,0.000,0.000
1640079532397097984,"2021-12-21,09:38:52",10.1.1.12,769,-0.340,-0.340,-0.340,0.000,0.000,0.000
1640079532432136960,"2021-12-21,09:38:52",10.1.1.12,0.8044698238372803,-0.340,-0.340,-0.340,0.000,0.000,0.000
1640079532924649984,"2021-12-21,09:38:52",10.1.1.12,491,-0.330,-0.330,-0.330,0.000,0.000,0.000
1640079533144221952,"2021-12-21,09:38:53",10.1.1.12,0.7106990814208984,-0.330,-0.330,-0.330,0.000,0.000,0.000
1640079533604876032,"2021-12-21,09:38:53",10.1.1.12,458,-0.320,-0.320,-0.320,0.000,0.000,0.000
1640079533745469184,"2021-12-21,09:38:53",10.1.1.12,0.599452018737793,-0.320,-0.320,-0.320,0.000,0.000,0.000
1640079534419180032,"2021-12-21,09:38:54",10.1.1.12,663,-0.310,-0.310,-0.310,0.000,0.000,0.000
1640079534536765952,"2021-12-21,09:38:54",10.1.1.12,0.7809920310974121,-0.310,-0.310,-0.310,0.000,0.000,0.000
1640079535801559040,"2021-12-21,09:38:55",10.1.1.12,1175,-0.300,-0.300,-0.300,0.000,0.000,0.000
1640079536076729088,"2021-12-21,09:38:56",10.1.1.12,1.4781718254089355,-0.300,-0.300,-0.300,0.000,0.000,0.000
1640079537118740992,"2021-12-21,09:38:57",10.1.1.12,1028,-0.290,-0.290,-0.290,0.000,0.000,0.000
1640079537145172224,"2021-12-21,09:38:57",10.1.1.12,1.0554840564727783,-0.290,-0.290,-0.290,0.000,0.000,0.000
1640079537896243200,"2021-12-21,09:38:57",10.1.1.12,720,-0.280,-0.280,-0.280,0.000,0.000,0.000
1640079538012546048,"2021-12-21,09:38:57",10.1.1.12,0.8229410648345947,-0.280,-0.280,-0.280,0.000,0.000,0.000
1640079538599508992,"2021-12-21,09:38:58",10.1.1.12,571,-0.270,-0.270,-0.270,0.000,0.000,0.000
1640079538751257856,"2021-12-21,09:38:58",10.1.1.12,0.7232611179351807,-0.270,-0.270,-0.270,0.000,0.000,0.000
1640079539540108032,"2021-12-21,09:38:59",10.1.1.12,751,-0.260,-0.260,-0.260,0.000,0.000,0.000
1640079539720313088,"2021-12-21,09:38:59",10.1.1.12,0.9092788696289062,-0.260,-0.260,-0.260,0.000,0.000,0.000
1640079540576816128,"2021-12-21,09:39:00",10.1.1.12,844,-0.250,-0.250,-0.250,0.000,0.000,0.000
1640079540939009792,"2021-12-21,09:39:00",10.1.1.12,1.2068159580230713,-0.250,-0.250,-0.250,0.000,0.000,0.000
1640079541607841024,"2021-12-21,09:39:01",10.1.1.12,666,-0.240,-0.240,-0.240,0.000,0.000,0.000
1640079541892297984,"2021-12-21,09:39:01",10.1.1.12,0.951362133026123,-0.240,-0.240,-0.240,0.000,0.000,0.000
1640079542893857024,"2021-12-21,09:39:02",10.1.1.12,944,-0.230,-0.230,-0.230,0.000,0.000,0.000
1640079543193779968,"2021-12-21,09:39:03",10.1.1.12,1.2442669868469238,-0.230,-0.230,-0.230,0.000,0.000,0.000
1640079543945779200,"2021-12-21,09:39:03",10.1.1.12,729,-0.220,-0.220,-0.220,0.000,0.000,0.000
1640079544221678080,"2021-12-21,09:39:04",10.1.1.12,1.0054500102996826,-0.220,-0.220,-0.220,0.000,0.000,0.000
1640079544859371008,"2021-12-21,09:39:04",10.1.1.12,600,-0.210,-0.210,-0.210,0.000,0.000,0.000
1640079544926466816,"2021-12-21,09:39:04",10.1.1.12,0.6676881313323975,-0.210,-0.210,-0.210,0.000,0.000,0.000
1640079545614237952,"2021-12-21,09:39:05",10.1.1.12,671,-0.200,-0.200,-0.200,0.000,0.000,0.000
1640079546070593024,"2021-12-21,09:39:06",10.1.1.12,1.1277999877929688,-0.200,-0.200,-0.200,0.000,0.000,0.000
1640079547352649984,"2021-12-21,09:39:07",10.1.1.12,1252,-0.190,-0.190,-0.190,0.000,0.000,0.000
1640079547663553024,"2021-12-21,09:39:07",10.1.1.12,1.5640320777893066,-0.190,-0.190,-0.190,0.000,0.000,0.000
1640079548681597952,"2021-12-21,09:39:08",10.1.1.12,879,-0.180,-0.180,-0.180,0.000,0.000,0.000
1640079548723714048,"2021-12-21,09:39:08",10.1.1.12,0.9215860366821289,-0.180,-0.180,-0.180,0.000,0.000,0.000
1640079549712356096,"2021-12-21,09:39:09",10.1.1.12,967,-0.170,-0.170,-0.170,0.000,0.000,0.000
1640079549873399040,"2021-12-21,09:39:09",10.1.1.12,1.1283860206604004,-0.170,-0.170,-0.170,0.000,0.000,0.000
1640079550690393088,"2021-12-21,09:39:10",10.1.1.12,761,-0.160,-0.160,-0.160,0.000,0.000,0.000
1640079550867905024,"2021-12-21,09:39:10",10.1.1.12,0.939039945602417,-0.160,-0.160,-0.160,0.000,0.000,0.000
1640079551605485824,"2021-12-21,09:39:11",10.1.1.12,735,-0.150,-0.150,-0.150,0.000,0.000,0.000
1640079551827655168,"2021-12-21,09:39:11",10.1.1.12,0.9580659866333008,-0.150,-0.150,-0.150,0.000,0.000,0.000
1640079552395294976,"2021-12-21,09:39:12",10.1.1.12,533,-0.140,-0.140,-0.140,0.000,0.000,0.000
1640079552531152128,"2021-12-21,09:39:12",10.1.1.12,0.6610288619995117,-0.140,-0.140,-0.140,0.000,0.000,0.000
1640079553335851008,"2021-12-21,09:39:13",10.1.1.12,797,-0.130,-0.130,-0.130,0.000,0.000,0.000
1640079553423058944,"2021-12-21,09:39:13",10.1.1.12,0.88525390625,-0.130,-0.130,-0.130,0.000,0.000,0.000
1640079553939502080,"2021-12-21,09:39:13",10.1.1.12,494,-0.120,-0.120,-0.120,0.000,0.000,0.000
1640079554155392000,"2021-12-21,09:39:14",10.1.1.12,0.7103281021118164,-0.120,-0.120,-0.120,0.000,0.000,0.000
1640079555082339072,"2021-12-21,09:39:15",10.1.1.12,925,-0.110,-0.110,-0.110,0.000,0.000,0.000
1640079555338027008,"2021-12-21,09:39:15",10.1.1.12,1.1812009811401367,-0.110,-0.110,-0.110,0.000,0.000,0.000
1640079555945683968,"2021-12-21,09:39:15",10.1.1.12,602,-0.100,-0.100,-0.100,0.000,0.000,0.000
1640079556316498944,"2021-12-21,09:39:16",10.1.1.12,0.973222017288208,-0.100,-0.100,-0.100,0.000,0.000,0.000
1640079557049433856,"2021-12-21,09:39:17",10.1.1.12,719,-0.090,-0.090,-0.090,0.000,0.000,0.000
1640079557310956032,"2021-12-21,09:39:17",10.1.1.12,0.9814739227294922,-0.090,-0.090,-0.090,0.000,0.000,0.000
1640079557994096128,"2021-12-21,09:39:17",10.1.1.12,649,-0.080,-0.080,-0.080,0.000,0.000,0.000
1640079558219908096,"2021-12-21,09:39:18",10.1.1.12,0.9065651893615723,-0.080,-0.080,-0.080,0.000,0.000,0.000
1640079559466744832,"2021-12-21,09:39:19",10.1.1.12,1224,-0.070,-0.070,-0.070,0.000,0.000,0.000
1640079559742434048,"2021-12-21,09:39:19",10.1.1.12,1.4996881484985352,-0.070,-0.070,-0.070,0.000,0.000,0.000
1640079560709103104,"2021-12-21,09:39:20",10.1.1.12,941,-0.060,-0.060,-0.060,0.000,0.000,0.000
1640079560812503040,"2021-12-21,09:39:20",10.1.1.12,1.0674309730529785,-0.060,-0.060,-0.060,0.000,0.000,0.000
1640079561653486080,"2021-12-21,09:39:21",10.1.1.12,783,-0.050,-0.050,-0.050,0.000,0.000,0.000
1640079561866801920,"2021-12-21,09:39:21",10.1.1.12,0.9972269535064697,-0.050,-0.050,-0.050,0.000,0.000,0.000
1640079562824493824,"2021-12-21,09:39:22",10.1.1.12,853,-0.040,-0.040,-0.040,0.000,0.000,0.000
1640079563233542912,"2021-12-21,09:39:23",10.1.1.12,1.2623529434204102,-0.040,-0.040,-0.040,0.000,0.000,0.000
1640079564106199040,"2021-12-21,09:39:24",10.1.1.12,835,-0.030,-0.030,-0.030,0.000,0.000,0.000
1640079564245841920,"2021-12-21,09:39:24",10.1.1.12,0.9748802185058594,-0.030,-0.030,-0.030,0.000,0.000,0.000
1640079565073838080,"2021-12-21,09:39:25",10.1.1.12,796,-0.020,-0.020,-0.020,0.000,0.000,0.000
1640079565194339072,"2021-12-21,09:39:25",10.1.1.12,0.9172120094299316,-0.020,-0.020,-0.020,0.000,0.000,0.000
1640079565941473024,"2021-12-21,09:39:25",10.1.1.12,735,-0.010,-0.010,-0.010,0.000,0.000,0.000
1640079566528288000,"2021-12-21,09:39:26",10.1.1.12,1.3222720623016357,-0.010,-0.010,-0.010,0.000,0.000,0.000
1640079567549853184,"2021-12-21,09:39:27",10.1.1.12,965,0.000,0.000,0.000,0.000,0.000,0.000
1640079567771950080,"2021-12-21,09:39:27",10.1.1.12,1.1874699592590332,0.000,0.000,0.000,0.000,0.000,0.000
1640079568407591168,"2021-12-21,09:39:28",10.1.1.12,598,-0.010,-0.010,-0.010,0.000,0.000,0.000
1640079568598022912,"2021-12-21,09:39:28",10.1.1.12,0.7892658710479736,-0.010,-0.010,-0.010,0.000,0.000,0.000
1640079569268978176,"2021-12-21,09:39:29",10.1.1.12,614,-0.020,-0.020,-0.020,0.000,0.000,0.000
1640079569570305024,"2021-12-21,09:39:29",10.1.1.12,0.9547560214996338,-0.020,-0.020,-0.020,0.000,0.000,0.000
1640079570215464192,"2021-12-21,09:39:30",10.1.1.12,639,-0.030,-0.030,-0.030,0.000,0.000,0.000
1640079570323769088,"2021-12-21,09:39:30",10.1.1.12,0.7481741905212402,-0.030,-0.030,-0.030,0.000,0.000,0.000
1640079571147694080,"2021-12-21,09:39:31",10.1.1.12,822,-0.040,-0.040,-0.040,0.000,0.000,0.000
1640079571314564864,"2021-12-21,09:39:31",10.1.1.12,0.9892401695251465,-0.040,-0.040,-0.040,0.000,0.000,0.000
1640079571913240064,"2021-12-21,09:39:31",10.1.1.12,597,-0.050,-0.050,-0.050,0.000,0.000,0.000
1640079572041788160,"2021-12-21,09:39:32",10.1.1.12,0.7223100662231445,-0.050,-0.050,-0.050,0.000,0.000,0.000
1640079572831057152,"2021-12-21,09:39:32",10.1.1.12,0.7159738540649414,-0.060,-0.060,-0.060,0.000,0.000,0.000
1640079572832551936,"2021-12-21,09:39:32",10.1.1.12,765,-0.060,-0.060,-0.060,0.000,0.000,0.000
1640079573593277952,"2021-12-21,09:39:33",10.1.1.12,701,-0.070,-0.070,-0.070,0.000,0.000,0.000
1640079573680062976,"2021-12-21,09:39:33",10.1.1.12,0.7882049083709717,-0.070,-0.070,-0.070,0.000,0.000,0.000
1640079574359924992,"2021-12-21,09:39:34",10.1.1.12,655,-0.080,-0.080,-0.080,0.000,0.000,0.000
1640079574487512064,"2021-12-21,09:39:34",10.1.1.12,0.7835469245910645,-0.080,-0.080,-0.080,0.000,0.000,0.000
1640079575331239936,"2021-12-21,09:39:35",10.1.1.12,832,-0.090,-0.090,-0.090,0.000,0.000,0.000
1640079575449344000,"2021-12-21,09:39:35",10.1.1.12,0.9602048397064209,-0.090,-0.090,-0.090,0.000,0.000,0.000
1640079576130009856,"2021-12-21,09:39:36",10.1.1.12,656,-0.100,-0.100,-0.100,0.000,0.000,0.000
1640079576366857984,"2021-12-21,09:39:36",10.1.1.12,0.8938770294189453,-0.100,-0.100,-0.100,0.000,0.000,0.000
1640079577052731904,"2021-12-21,09:39:37",10.1.1.12,678,-0.110,-0.110,-0.110,0.000,0.000,0.000
1640079577413434880,"2021-12-21,09:39:37",10.1.1.12,1.0397100448608398,-0.110,-0.110,-0.110,0.000,0.000,0.000
1640079578321014784,"2021-12-21,09:39:38",10.1.1.12,896,-0.120,-0.120,-0.120,0.000,0.000,0.000
1640079578567859968,"2021-12-21,09:39:38",10.1.1.12,1.1437101364135742,-0.120,-0.120,-0.120,0.000,0.000,0.000
1640079579192815104,"2021-12-21,09:39:39",10.1.1.12,614,-0.130,-0.130,-0.130,0.000,0.000,0.000
1640079579336478976,"2021-12-21,09:39:39",10.1.1.12,0.7579028606414795,-0.130,-0.130,-0.130,0.000,0.000,0.000
1640079579921135872,"2021-12-21,09:39:39",10.1.1.12,560,-0.140,-0.140,-0.140,0.000,0.000,0.000
1640079580231628800,"2021-12-21,09:39:40",10.1.1.12,0.8515720367431641,-0.140,-0.140,-0.140,0.000,0.000,0.000
1640079580919395840,"2021-12-21,09:39:40",10.1.1.12,684,-0.150,-0.150,-0.150,0.000,0.000,0.000
1640079581354316032,"2021-12-21,09:39:41",10.1.1.12,1.1208288669586182,-0.150,-0.150,-0.150,0.000,0.000,0.000
1640079582099726080,"2021-12-21,09:39:42",10.1.1.12,682,-0.160,-0.160,-0.160,0.000,0.000,0.000
1640079582389616896,"2021-12-21,09:39:42",10.1.1.12,0.9724929332733154,-0.160,-0.160,-0.160,0.000,0.000,0.000
1640079583102528000,"2021-12-21,09:39:43",10.1.1.12,684,-0.170,-0.170,-0.170,0.000,0.000,0.000
1640079583541776896,"2021-12-21,09:39:43",10.1.1.12,1.1252408027648926,-0.170,-0.170,-0.170,0.000,0.000,0.000
1640079584265694976,"2021-12-21,09:39:44",10.1.1.12,709,-0.180,-0.180,-0.180,0.000,0.000,0.000
1640079584638068992,"2021-12-21,09:39:44",10.1.1.12,1.0819199085235596,-0.180,-0.180,-0.180,0.000,0.000,0.000
1640079585107639040,"2021-12-21,09:39:45",10.1.1.12,464,-0.190,-0.190,-0.190,0.000,0.000,0.000
1640079585526998016,"2021-12-21,09:39:45",10.1.1.12,0.8838469982147217,-0.190,-0.190,-0.190,0.000,0.000,0.000
1640079586238075904,"2021-12-21,09:39:46",10.1.1.12,683,-0.200,-0.200,-0.200,0.000,0.000,0.000
1640079586337495040,"2021-12-21,09:39:46",10.1.1.12,0.783207893371582,-0.200,-0.200,-0.200,0.000,0.000,0.000
1640079586379781888,"2021-12-21,09:39:46",10.1.1.12,-88,-0.210,-0.210,-0.210,0.000,0.000,0.000
1640079587139041792,"2021-12-21,09:39:47",10.1.1.12,0.7874829769134521,-0.210,-0.210,-0.210,0.000,0.000,0.000
1640079587788180992,"2021-12-21,09:39:47",10.1.1.12,619,-0.220,-0.220,-0.220,0.000,0.000,0.000
1640079588078126080,"2021-12-21,09:39:48",10.1.1.12,0.9290671348571777,-0.220,-0.220,-0.220,0.000,0.000,0.000
1640079588775718912,"2021-12-21,09:39:48",10.1.1.12,690,-0.230,-0.230,-0.230,0.000,0.000,0.000
1640079588958924032,"2021-12-21,09:39:48",10.1.1.12,0.8741309642791748,-0.230,-0.230,-0.230,0.000,0.000,0.000
1640079589452791808,"2021-12-21,09:39:49",10.1.1.12,477,-0.240,-0.240,-0.240,0.000,0.000,0.000
1640079589782771968,"2021-12-21,09:39:49",10.1.1.12,0.8070240020751953,-0.240,-0.240,-0.240,0.000,0.000,0.000
1640079590261240064,"2021-12-21,09:39:50",10.1.1.12,472,-0.250,-0.250,-0.250,0.000,0.000,0.000
1640079590363971072,"2021-12-21,09:39:50",10.1.1.12,0.5749378204345703,-0.250,-0.250,-0.250,0.000,0.000,0.000
1640079591029731072,"2021-12-21,09:39:51",10.1.1.12,661,-0.260,-0.260,-0.260,0.000,0.000,0.000
1640079591201155840,"2021-12-21,09:39:51",10.1.1.12,0.8331599235534668,-0.260,-0.260,-0.260,0.000,0.000,0.000
1640079591870528000,"2021-12-21,09:39:51",10.1.1.12,633,-0.270,-0.270,-0.270,0.000,0.000,0.000
1640079592063355904,"2021-12-21,09:39:52",10.1.1.12,0.8265979290008545,-0.270,-0.270,-0.270,0.000,0.000,0.000
1640079592720790016,"2021-12-21,09:39:52",10.1.1.12,601,-0.280,-0.280,-0.280,0.000,0.000,0.000
1640079592916520192,"2021-12-21,09:39:52",10.1.1.12,0.8144240379333496,-0.280,-0.280,-0.280,0.000,0.000,0.000
1640079593598234880,"2021-12-21,09:39:53",10.1.1.12,673,-0.290,-0.290,-0.290,0.000,0.000,0.000
1640079593903212032,"2021-12-21,09:39:53",10.1.1.12,0.9788610935211182,-0.290,-0.290,-0.290,0.000,0.000,0.000
1640079594523858944,"2021-12-21,09:39:54",10.1.1.12,570,-0.300,-0.300,-0.300,0.000,0.000,0.000
1640079594817362176,"2021-12-21,09:39:54",10.1.1.12,0.8640389442443848,-0.300,-0.300,-0.300,0.000,0.000,0.000
1640079595465946880,"2021-12-21,09:39:55",10.1.1.12,635,-0.310,-0.310,-0.310,0.000,0.000,0.000
1640079595604708864,"2021-12-21,09:39:55",10.1.1.12,0.7747769355773926,-0.310,-0.310,-0.310,0.000,0.000,0.000
1640079596234508032,"2021-12-21,09:39:56",10.1.1.12,579,-0.320,-0.320,-0.320,0.000,0.000,0.000
1640079596519206144,"2021-12-21,09:39:56",10.1.1.12,0.8861451148986816,-0.320,-0.320,-0.320,0.000,0.000,0.000
1640079597296258816,"2021-12-21,09:39:57",10.1.1.12,772,-0.330,-0.330,-0.330,0.000,0.000,0.000
1640079597318348800,"2021-12-21,09:39:57",10.1.1.12,0.7946979999542236,-0.330,-0.330,-0.330,0.000,0.000,0.000
1640079598159565056,"2021-12-21,09:39:58",10.1.1.12,839,-0.340,-0.340,-0.340,0.000,0.000,0.000
1640079598531047168,"2021-12-21,09:39:58",10.1.1.12,1.2105131149291992,-0.340,-0.340,-0.340,0.000,0.000,0.000
1640079599057368064,"2021-12-21,09:39:59",10.1.1.12,514,-0.350,-0.350,-0.350,0.000,0.000,0.000
1640079599379774976,"2021-12-21,09:39:59",10.1.1.12,0.8402829170227051,-0.350,-0.350,-0.350,0.000,0.000,0.000
1640079600100910848,"2021-12-21,09:40:00",10.1.1.12,0.7197060585021973,-0.360,-0.360,-0.360,0.000,0.000,0.000
1640079600025868800,"2021-12-21,09:40:00",10.1.1.12,636,-0.360,-0.360,-0.360,0.000,0.000,0.000
1640079600746187008,"2021-12-21,09:40:00",10.1.1.12,630,-0.370,-0.370,-0.370,0.000,0.000,0.000
1640079600896698880,"2021-12-21,09:40:00",10.1.1.12,0.7814390659332275,-0.370,-0.370,-0.370,0.000,0.000,0.000
1640079601408595968,"2021-12-21,09:40:01",10.1.1.12,494,-0.380,-0.380,-0.380,0.000,0.000,0.000
1640079601780147968,"2021-12-21,09:40:01",10.1.1.12,0.8663430213928223,-0.380,-0.380,-0.380,0.000,0.000,0.000
1640079602374489088,"2021-12-21,09:40:02",10.1.1.12,580,-0.390,-0.390,-0.390,0.000,0.000,0.000
1640079602486701056,"2021-12-21,09:40:02",10.1.1.12,0.6927869319915771,-0.390,-0.390,-0.390,0.000,0.000,0.000
1640079603401060096,"2021-12-21,09:40:03",10.1.1.12,727,-0.400,-0.400,-0.400,0.000,0.000,0.000
1640079603507073024,"2021-12-21,09:40:03",10.1.1.12,1.0124239921569824,-0.400,-0.400,-0.400,0.000,0.000,0.000
1640079604265917952,"2021-12-21,09:40:04",10.1.1.12,744,-0.410,-0.410,-0.410,0.000,0.000,0.000
1640079604460498944,"2021-12-21,09:40:04",10.1.1.12,0.9391148090362549,-0.410,-0.410,-0.410,0.000,0.000,0.000
1640079605237039104,"2021-12-21,09:40:05",10.1.1.12,743,-0.420,-0.420,-0.420,0.000,0.000,0.000
1640079605394021888,"2021-12-21,09:40:05",10.1.1.12,0.9004061222076416,-0.420,-0.420,-0.420,0.000,0.000,0.000
1640079606008508928,"2021-12-21,09:40:06",10.1.1.12,604,-0.430,-0.430,-0.430,0.000,0.000,0.000
1640079606271183104,"2021-12-21,09:40:06",10.1.1.12,0.8626909255981445,-0.430,-0.430,-0.430,0.000,0.000,0.000
1640079606917460992,"2021-12-21,09:40:06",10.1.1.12,638,-0.440,-0.440,-0.440,0.000,0.000,0.000
1640079607039187968,"2021-12-21,09:40:07",10.1.1.12,0.7599828243255615,-0.440,-0.440,-0.440,0.000,0.000,0.000
1640079607545353984,"2021-12-21,09:40:07",10.1.1.12,504,-0.450,-0.450,-0.450,0.000,0.000,0.000
1640079607908229120,"2021-12-21,09:40:07",10.1.1.12,0.8677210807800293,-0.450,-0.450,-0.450,0.000,0.000,0.000
1640079608432235008,"2021-12-21,09:40:08",10.1.1.12,509,-0.460,-0.460,-0.460,0.000,0.000,0.000
1640079608956973056,"2021-12-21,09:40:08",10.1.1.12,1.0340800285339355,-0.460,-0.460,-0.460,0.000,0.000,0.000
1640079609610450944,"2021-12-21,09:40:09",10.1.1.12,614,-0.470,-0.470,-0.470,0.000,0.000,0.000
1640079609833843968,"2021-12-21,09:40:09",10.1.1.12,0.837683916091919,-0.470,-0.470,-0.470,0.000,0.000,0.000
1640079610664203008,"2021-12-21,09:40:10",10.1.1.12,801,-0.480,-0.480,-0.480,0.000,0.000,0.000
1640079610732731136,"2021-12-21,09:40:10",10.1.1.12,0.8659560680389404,-0.480,-0.480,-0.480,0.000,0.000,0.000
1640079611382072832,"2021-12-21,09:40:11",10.1.1.12,647,-0.490,-0.490,-0.490,0.000,0.000,0.000
1640079611586424064,"2021-12-21,09:40:11",10.1.1.12,0.8520100116729736,-0.490,-0.490,-0.490,0.000,0.000,0.000
1640079612265816064,"2021-12-21,09:40:12",10.1.1.12,633,-0.480,-0.480,-0.480,0.000,0.000,0.000
1640079612610589952,"2021-12-21,09:40:12",10.1.1.12,0.9779191017150879,-0.480,-0.480,-0.480,0.000,0.000,0.000
1640079613084974080,"2021-12-21,09:40:13",10.1.1.12,469,-0.470,-0.470,-0.470,0.000,0.000,0.000
1640079613395755008,"2021-12-21,09:40:13",10.1.1.12,0.7808361053466797,-0.470,-0.470,-0.470,0.000,0.000,0.000
1640079614110861056,"2021-12-21,09:40:14",10.1.1.12,707,-0.460,-0.460,-0.460,0.000,0.000,0.000
1640079614328828928,"2021-12-21,09:40:14",10.1.1.12,0.9256210327148438,-0.460,-0.460,-0.460,0.000,0.000,0.000
1640079615093125120,"2021-12-21,09:40:15",10.1.1.12,757,-0.450,-0.450,-0.450,0.000,0.000,0.000
1640079615099653888,"2021-12-21,09:40:15",10.1.1.12,0.7638602256774902,-0.450,-0.450,-0.450,0.000,0.000,0.000
1640079615669076992,"2021-12-21,09:40:15",10.1.1.12,567,-0.440,-0.440,-0.440,0.000,0.000,0.000
1640079615876324864,"2021-12-21,09:40:15",10.1.1.12,0.7745931148529053,-0.440,-0.440,-0.440,0.000,0.000,0.000
1640079616519309056,"2021-12-21,09:40:16",10.1.1.12,634,-0.430,-0.430,-0.430,0.000,0.000,0.000
1640079616567569920,"2021-12-21,09:40:16",10.1.1.12,0.6821789741516113,-0.430,-0.430,-0.430,0.000,0.000,0.000
1640079617054907136,"2021-12-21,09:40:17",10.1.1.12,485,-0.420,-0.420,-0.420,0.000,0.000,0.000
1640079617274126080,"2021-12-21,09:40:17",10.1.1.12,0.7049620151519775,-0.420,-0.420,-0.420,0.000,0.000,0.000
1640079617870349056,"2021-12-21,09:40:17",10.1.1.12,583,-0.410,-0.410,-0.410,0.000,0.000,0.000
1640079618132766976,"2021-12-21,09:40:18",10.1.1.12,0.8460888862609863,-0.410,-0.410,-0.410,0.000,0.000,0.000
1640079618789694976,"2021-12-21,09:40:18",10.1.1.12,619,-0.400,-0.400,-0.400,0.000,0.000,0.000
1640079618859281920,"2021-12-21,09:40:18",10.1.1.12,0.6895139217376709,-0.400,-0.400,-0.400,0.000,0.000,0.000
1640079619382877952,"2021-12-21,09:40:19",10.1.1.12,521,-0.390,-0.390,-0.390,0.000,0.000,0.000
1640079619696876032,"2021-12-21,09:40:19",10.1.1.12,0.8359599113464355,-0.390,-0.390,-0.390,0.000,0.000,0.000
1640079620282164224,"2021-12-21,09:40:20",10.1.1.12,540,-0.380,-0.380,-0.380,0.000,0.000,0.000
1640079620475138048,"2021-12-21,09:40:20",10.1.1.12,0.7331721782684326,-0.380,-0.380,-0.380,0.000,0.000,0.000
1640079620940994048,"2021-12-21,09:40:20",10.1.1.12,448,-0.370,-0.370,-0.370,0.000,0.000,0.000
1640079621148112128,"2021-12-21,09:40:21",10.1.1.12,0.670414924621582,-0.370,-0.370,-0.370,0.000,0.000,0.000
1640079621825937920,"2021-12-21,09:40:21",10.1.1.12,675,-0.360,-0.360,-0.360,0.000,0.000,0.000
1640079622018439936,"2021-12-21,09:40:22",10.1.1.12,0.8676960468292236,-0.360,-0.360,-0.360,0.000,0.000,0.000
1640079622611721984,"2021-12-21,09:40:22",10.1.1.12,552,-0.350,-0.350,-0.350,0.000,0.000,0.000
1640079622766281984,"2021-12-21,09:40:22",10.1.1.12,0.7205560207366943,-0.350,-0.350,-0.350,0.000,0.000,0.000
1640079623426944000,"2021-12-21,09:40:23",10.1.1.12,645,-0.340,-0.340,-0.340,0.000,0.000,0.000
1640079623559909120,"2021-12-21,09:40:23",10.1.1.12,0.7781579494476318,-0.340,-0.340,-0.340,0.000,0.000,0.000
1640079624007143936,"2021-12-21,09:40:24",10.1.1.12,443,-0.330,-0.330,-0.330,0.000,0.000,0.000
1640079624161799936,"2021-12-21,09:40:24",10.1.1.12,0.5982069969177246,-0.330,-0.330,-0.330,0.000,0.000,0.000
1640079624949805056,"2021-12-21,09:40:24",10.1.1.12,0.7555310726165771,-0.320,-0.320,-0.320,0.000,0.000,0.000
1640079625611023872,"2021-12-21,09:40:25",10.1.1.12,645,-0.310,-0.310,-0.310,0.000,0.000,0.000
1640079625953272064,"2021-12-21,09:40:25",10.1.1.12,0.997189998626709,-0.310,-0.310,-0.310,0.000,0.000,0.000
1640079626404324096,"2021-12-21,09:40:26",10.1.1.12,420,-0.300,-0.300,-0.300,0.000,0.000,0.000
1640079626591898880,"2021-12-21,09:40:26",10.1.1.12,0.6083989143371582,-0.300,-0.300,-0.300,0.000,0.000,0.000
1640079627661063936,"2021-12-21,09:40:27",10.1.1.12,1038,-0.290,-0.290,-0.290,0.000,0.000,0.000
1640079627688930048,"2021-12-21,09:40:27",10.1.1.12,1.0667598247528076,-0.290,-0.290,-0.290,0.000,0.000,0.000
1640079628399558912,"2021-12-21,09:40:28",10.1.1.12,683,-0.280,-0.280,-0.280,0.000,0.000,0.000
1640079628593718016,"2021-12-21,09:40:28",10.1.1.12,0.8870220184326172,-0.280,-0.280,-0.280,0.000,0.000,0.000
1640079629539921920,"2021-12-21,09:40:29",10.1.1.12,887,-0.270,-0.270,-0.270,0.000,0.000,0.000
1640079629663635968,"2021-12-21,09:40:29",10.1.1.12,1.050935983657837,-0.270,-0.270,-0.270,0.000,0.000,0.000
1640079630388160000,"2021-12-21,09:40:30",10.1.1.12,713,-0.260,-0.260,-0.260,0.000,0.000,0.000
1640079630566010880,"2021-12-21,09:40:30",10.1.1.12,0.8911781311035156,-0.260,-0.260,-0.260,0.000,0.000,0.000
1640079631056307968,"2021-12-21,09:40:31",10.1.1.12,482,-0.250,-0.250,-0.250,0.000,0.000,0.000
1640079631362608896,"2021-12-21,09:40:31",10.1.1.12,0.7887630462646484,-0.250,-0.250,-0.250,0.000,0.000,0.000
1640079632056435200,"2021-12-21,09:40:32",10.1.1.12,691,-0.240,-0.240,-0.240,0.000,0.000,0.000
1640079632389574144,"2021-12-21,09:40:32",10.1.1.12,1.013814926147461,-0.240,-0.240,-0.240,0.000,0.000,0.000
1640079632936860160,"2021-12-21,09:40:32",10.1.1.12,518,-0.230,-0.230,-0.230,0.000,0.000,0.000
1640079633040997888,"2021-12-21,09:40:33",10.1.1.12,0.6458868980407715,-0.230,-0.230,-0.230,0.000,0.000,0.000
1640079633651372032,"2021-12-21,09:40:33",10.1.1.12,603,-0.220,-0.220,-0.220,0.000,0.000,0.000
1640079633859524864,"2021-12-21,09:40:33",10.1.1.12,0.8118529319763184,-0.220,-0.220,-0.220,0.000,0.000,0.000
1640079634393379072,"2021-12-21,09:40:34",10.1.1.12,517,-0.210,-0.210,-0.210,0.000,0.000,0.000
1640079634492884992,"2021-12-21,09:40:34",10.1.1.12,0.6235651969909668,-0.210,-0.210,-0.210,0.000,0.000,0.000
1640079635109189120,"2021-12-21,09:40:35",10.1.1.12,605,-0.200,-0.200,-0.200,0.000,0.000,0.000
1640079635452006144,"2021-12-21,09:40:35",10.1.1.12,0.9535641670227051,-0.200,-0.200,-0.200,0.000,0.000,0.000
1640079636108787968,"2021-12-21,09:40:36",10.1.1.12,646,-0.190,-0.190,-0.190,0.000,0.000,0.000
1640079636308957184,"2021-12-21,09:40:36",10.1.1.12,0.8467540740966797,-0.190,-0.190,-0.190,0.000,0.000,0.000
1640079636843951104,"2021-12-21,09:40:36",10.1.1.12,527,-0.180,-0.180,-0.180,0.000,0.000,0.000
1640079637031954944,"2021-12-21,09:40:37",10.1.1.12,0.7161009311676025,-0.180,-0.180,-0.180,0.000,0.000,0.000
1640079637601972224,"2021-12-21,09:40:37",10.1.1.12,564,-0.170,-0.170,-0.170,0.000,0.000,0.000
1640079637770864896,"2021-12-21,09:40:37",10.1.1.12,0.7332689762115479,-0.170,-0.170,-0.170,0.000,0.000,0.000
1640079638247720960,"2021-12-21,09:40:38",10.1.1.12,455,-0.160,-0.160,-0.160,0.000,0.000,0.000
1640079638481831168,"2021-12-21,09:40:38",10.1.1.12,0.6895720958709717,-0.160,-0.160,-0.160,0.000,0.000,0.000
1640079639041115136,"2021-12-21,09:40:39",10.1.1.12,548,-0.150,-0.150,-0.150,0.000,0.000,0.000
1640079639140388096,"2021-12-21,09:40:39",10.1.1.12,0.6443309783935547,-0.150,-0.150,-0.150,0.000,0.000,0.000
1640079639657649920,"2021-12-21,09:40:39",10.1.1.12,507,-0.140,-0.140,-0.140,0.000,0.000,0.000
1640079639824454912,"2021-12-21,09:40:39",10.1.1.12,0.6738688945770264,-0.140,-0.140,-0.140,0.000,0.000,0.000
1640079640445008128,"2021-12-21,09:40:40",10.1.1.12,616,-0.130,-0.130,-0.130,0.000,0.000,0.000
1640079640722014976,"2021-12-21,09:40:40",10.1.1.12,0.8917510509490967,-0.130,-0.130,-0.130,0.000,0.000,0.000
1640079640784667904,"2021-12-21,09:40:40",10.1.1.12,-18,-0.120,-0.120,-0.120,0.000,0.000,0.000
1640079641641707776,"2021-12-21,09:40:41",10.1.1.12,0.9013020992279053,-0.120,-0.120,-0.120,0.000,0.000,0.000
1640079642419395840,"2021-12-21,09:40:42",10.1.1.12,775,-0.110,-0.110,-0.110,0.000,0.000,0.000
1640079642511121920,"2021-12-21,09:40:42",10.1.1.12,0.8676769733428955,-0.110,-0.110,-0.110,0.000,0.000,0.000
1640079642976890112,"2021-12-21,09:40:42",10.1.1.12,463,-0.100,-0.100,-0.100,0.000,0.000,0.000
1640079643053960960,"2021-12-21,09:40:43",10.1.1.12,0.5405809879302979,-0.100,-0.100,-0.100,0.000,0.000,0.000
1640079643564190976,"2021-12-21,09:40:43",10.1.1.12,502,-0.090,-0.090,-0.090,0.000,0.000,0.000
1640079643942275072,"2021-12-21,09:40:43",10.1.1.12,0.8762650489807129,-0.090,-0.090,-0.090,0.000,0.000,0.000
1640079644626396928,"2021-12-21,09:40:44",10.1.1.12,681,-0.080,-0.080,-0.080,0.000,0.000,0.000
1640079644682032128,"2021-12-21,09:40:44",10.1.1.12,0.7368741035461426,-0.080,-0.080,-0.080,0.000,0.000,0.000
1640079645340604928,"2021-12-21,09:40:45",10.1.1.12,647,-0.070,-0.070,-0.070,0.000,0.000,0.000
1640079645376764928,"2021-12-21,09:40:45",10.1.1.12,0.6925170421600342,-0.070,-0.070,-0.070,0.000,0.000,0.000
1640079645893456896,"2021-12-21,09:40:45",10.1.1.12,509,-0.060,-0.060,-0.060,0.000,0.000,0.000
1640079646121387008,"2021-12-21,09:40:46",10.1.1.12,0.7375400066375732,-0.060,-0.060,-0.060,0.000,0.000,0.000
1640079646654274048,"2021-12-21,09:40:46",10.1.1.12,529,-0.050,-0.050,-0.050,0.000,0.000,0.000
1640079646802892032,"2021-12-21,09:40:46",10.1.1.12,0.6777019500732422,-0.050,-0.050,-0.050,0.000,0.000,0.000
1640079647431569152,"2021-12-21,09:40:47",10.1.1.12,598,-0.040,-0.040,-0.040,0.000,0.000,0.000
1640079647540192000,"2021-12-21,09:40:47",10.1.1.12,0.7074379920959473,-0.040,-0.040,-0.040,0.000,0.000,0.000
1640079647983515904,"2021-12-21,09:40:47",10.1.1.12,429,-0.030,-0.030,-0.030,0.000,0.000,0.000
1640079648287204864,"2021-12-21,09:40:48",10.1.1.12,0.734705924987793,-0.030,-0.030,-0.030,0.000,0.000,0.000
1640079648875232000,"2021-12-21,09:40:48",10.1.1.12,583,-0.020,-0.020,-0.020,0.000,0.000,0.000
1640079649029903872,"2021-12-21,09:40:49",10.1.1.12,0.7384061813354492,-0.020,-0.020,-0.020,0.000,0.000,0.000
1640079649539570944,"2021-12-21,09:40:49",10.1.1.12,496,-0.010,-0.010,-0.010,0.000,0.000,0.000
1640079649739547136,"2021-12-21,09:40:49",10.1.1.12,0.69976806640625,-0.010,-0.010,-0.010,0.000,0.000,0.000
1640079650271348992,"2021-12-21,09:40:50",10.1.1.12,516,0.000,0.000,0.000,0.000,0.000,0.000
1640079650653334016,"2021-12-21,09:40:50",10.1.1.12,0.8988840579986572,0.000,0.000,0.000,0.000,0.000,0.000
1640079651225179904,"2021-12-21,09:40:51",10.1.1.12,562,-0.010,-0.010,-0.010,0.000,0.000,0.000
1640079651464093952,"2021-12-21,09:40:51",10.1.1.12,0.8012440204620361,-0.010,-0.010,-0.010,0.000,0.000,0.000
1640079652063076096,"2021-12-21,09:40:52",10.1.1.12,586,-0.020,-0.020,-0.020,0.000,0.000,0.000
1640079652142947072,"2021-12-21,09:40:52",10.1.1.12,0.6666219234466553,-0.020,-0.020,-0.020,0.000,0.000,0.000
1640079652625837056,"2021-12-21,09:40:52",10.1.1.12,442,-0.030,-0.030,-0.030,0.000,0.000,0.000
1640079652825114880,"2021-12-21,09:40:52",10.1.1.12,0.6774911880493164,-0.030,-0.030,-0.030,0.000,0.000,0.000
