FedericoMungari/DigitalTwin_service/Output/Output_script/script_ROSAPI_output_robots8_freq0_6.txt.csv
timestamp,node,latency,joint_1,joint_2,joint_3,joint_4,joint_5,joint_6
1640068690544873984,"2021-12-21,06:38:10",10.1.1.7,6090,0.000,0.000,0.000,0.000,0.000,0.000
1640068692839386112,"2021-12-21,06:38:12",10.1.1.7,304,-0.010,-0.010,-0.010,0.000,0.000,0.000
1640068692845081088,"2021-12-21,06:38:12",10.1.1.7,0.31015896797180176,-0.010,-0.010,-0.010,0.000,0.000,0.000
1640068693150572032,"2021-12-21,06:38:13",10.1.1.7,303,-0.020,-0.020,-0.020,0.000,0.000,0.000
1640068693193538816,"2021-12-21,06:38:13",10.1.1.7,0.3467128276824951,-0.020,-0.020,-0.020,0.000,0.000,0.000
1640068693500510976,"2021-12-21,06:38:13",10.1.1.7,305,-0.030,-0.030,-0.030,0.000,0.000,0.000
1640068693507153920,"2021-12-21,06:38:13",10.1.1.7,0.31215882301330566,-0.030,-0.030,-0.030,0.000,0.000,0.000
1640068693821206016,"2021-12-21,06:38:13",10.1.1.7,311,-0.040,-0.040,-0.040,0.000,0.000,0.000
1640068693833015808,"2021-12-21,06:38:13",10.1.1.7,0.32341790199279785,-0.040,-0.040,-0.040,0.000,0.000,0.000
1640068694151756032,"2021-12-21,06:38:14",10.1.1.7,317,-0.050,-0.050,-0.050,0.000,0.000,0.000
1640068694161693952,"2021-12-21,06:38:14",10.1.1.7,0.32700014114379883,-0.050,-0.050,-0.050,0.000,0.000,0.000
1640068694481441024,"2021-12-21,06:38:14",10.1.1.7,318,-0.060,-0.060,-0.060,0.000,0.000,0.000
1640068694494025984,"2021-12-21,06:38:14",10.1.1.7,0.3310370445251465,-0.060,-0.060,-0.060,0.000,0.000,0.000
1640068694791745024,"2021-12-21,06:38:14",10.1.1.7,296,-0.070,-0.070,-0.070,0.000,0.000,0.000
1640068694848620800,"2021-12-21,06:38:14",10.1.1.7,0.3533298969268799,-0.070,-0.070,-0.070,0.000,0.000,0.000
1640068695153040896,"2021-12-21,06:38:15",10.1.1.7,302,-0.080,-0.080,-0.080,0.000,0.000,0.000
1640068695184425984,"2021-12-21,06:38:15",10.1.1.7,0.33376502990722656,-0.080,-0.080,-0.080,0.000,0.000,0.000
1640068695501862144,"2021-12-21,06:38:15",10.1.1.7,315,-0.090,-0.090,-0.090,0.000,0.000,0.000
1640068695539213824,"2021-12-21,06:38:15",10.1.1.7,0.35329604148864746,-0.090,-0.090,-0.090,0.000,0.000,0.000
1640068695862390016,"2021-12-21,06:38:15",10.1.1.7,321,-0.100,-0.100,-0.100,0.000,0.000,0.000
1640068695868120832,"2021-12-21,06:38:15",10.1.1.7,0.3271360397338867,-0.100,-0.100,-0.100,0.000,0.000,0.000
1640068696162580992,"2021-12-21,06:38:16",10.1.1.7,293,-0.110,-0.110,-0.110,0.000,0.000,0.000
1640068696184526848,"2021-12-21,06:38:16",10.1.1.7,0.31505584716796875,-0.110,-0.110,-0.110,0.000,0.000,0.000
1640068696492525056,"2021-12-21,06:38:16",10.1.1.7,306,-0.120,-0.120,-0.120,0.000,0.000,0.000
1640068696573426944,"2021-12-21,06:38:16",10.1.1.7,0.38773202896118164,-0.120,-0.120,-0.120,0.000,0.000,0.000
1640068696873622016,"2021-12-21,06:38:16",10.1.1.7,298,-0.130,-0.130,-0.130,0.000,0.000,0.000
1640068696905213952,"2021-12-21,06:38:16",10.1.1.7,0.3305032253265381,-0.130,-0.130,-0.130,0.000,0.000,0.000
1640068697211960064,"2021-12-21,06:38:17",10.1.1.7,305,-0.140,-0.140,-0.140,0.000,0.000,0.000
1640068697228333824,"2021-12-21,06:38:17",10.1.1.7,0.3216369152069092,-0.140,-0.140,-0.140,0.000,0.000,0.000
1640068697542507008,"2021-12-21,06:38:17",10.1.1.7,312,-0.150,-0.150,-0.150,0.000,0.000,0.000
1640068697563958016,"2021-12-21,06:38:17",10.1.1.7,0.3342161178588867,-0.150,-0.150,-0.150,0.000,0.000,0.000
1640068697892931072,"2021-12-21,06:38:17",10.1.1.7,327,-0.160,-0.160,-0.160,0.000,0.000,0.000
1640068697984544000,"2021-12-21,06:38:17",10.1.1.7,0.4193580150604248,-0.160,-0.160,-0.160,0.000,0.000,0.000
1640068698304869888,"2021-12-21,06:38:18",10.1.1.7,317,-0.170,-0.170,-0.170,0.000,0.000,0.000
1640068698345379072,"2021-12-21,06:38:18",10.1.1.7,0.3593180179595947,-0.170,-0.170,-0.170,0.000,0.000,0.000
1640068698702500096,"2021-12-21,06:38:18",10.1.1.7,355,-0.180,-0.180,-0.180,0.000,0.000,0.000
1640068698737993984,"2021-12-21,06:38:18",10.1.1.7,0.3909449577331543,-0.180,-0.180,-0.180,0.000,0.000,0.000
1640068699075761152,"2021-12-21,06:38:19",10.1.1.7,336,-0.190,-0.190,-0.190,0.000,0.000,0.000
1640068699092984832,"2021-12-21,06:38:19",10.1.1.7,0.3537430763244629,-0.190,-0.190,-0.190,0.000,0.000,0.000
1640068699405913088,"2021-12-21,06:38:19",10.1.1.7,311,-0.200,-0.200,-0.200,0.000,0.000,0.000
1640068699483510016,"2021-12-21,06:38:19",10.1.1.7,0.3892099857330322,-0.200,-0.200,-0.200,0.000,0.000,0.000
1640068699792349952,"2021-12-21,06:38:19",10.1.1.7,307,-0.210,-0.210,-0.210,0.000,0.000,0.000
1640068699830717184,"2021-12-21,06:38:19",10.1.1.7,0.3458588123321533,-0.210,-0.210,-0.210,0.000,0.000,0.000
1640068700142497024,"2021-12-21,06:38:20",10.1.1.7,307,-0.220,-0.220,-0.220,0.000,0.000,0.000
1640068700193464064,"2021-12-21,06:38:20",10.1.1.7,0.3589210510253906,-0.220,-0.220,-0.220,0.000,0.000,0.000
1640068700492388096,"2021-12-21,06:38:20",10.1.1.7,297,-0.230,-0.230,-0.230,0.000,0.000,0.000
1640068700530934016,"2021-12-21,06:38:20",10.1.1.7,0.33597612380981445,-0.230,-0.230,-0.230,0.000,0.000,0.000
1640068700852022016,"2021-12-21,06:38:20",10.1.1.7,318,-0.240,-0.240,-0.240,0.000,0.000,0.000
1640068700862586112,"2021-12-21,06:38:20",10.1.1.7,0.32860493659973145,-0.240,-0.240,-0.240,0.000,0.000,0.000
1640068701182216960,"2021-12-21,06:38:21",10.1.1.7,318,-0.250,-0.250,-0.250,0.000,0.000,0.000
1640068701259675136,"2021-12-21,06:38:21",10.1.1.7,0.39579296112060547,-0.250,-0.250,-0.250,0.000,0.000,0.000
1640068701573204992,"2021-12-21,06:38:21",10.1.1.7,312,-0.260,-0.260,-0.260,0.000,0.000,0.000
1640068701624603904,"2021-12-21,06:38:21",10.1.1.7,0.36344194412231445,-0.260,-0.260,-0.260,0.000,0.000,0.000
1640068701951795968,"2021-12-21,06:38:21",10.1.1.7,325,-0.270,-0.270,-0.270,0.000,0.000,0.000
1640068701979676928,"2021-12-21,06:38:21",10.1.1.7,0.3538649082183838,-0.270,-0.270,-0.270,0.000,0.000,0.000
1640068702280747776,"2021-12-21,06:38:22",10.1.1.7,299,-0.280,-0.280,-0.280,0.000,0.000,0.000
1640068702314938112,"2021-12-21,06:38:22",10.1.1.7,0.3340799808502197,-0.280,-0.280,-0.280,0.000,0.000,0.000
1640068702620378880,"2021-12-21,06:38:22",10.1.1.7,303,-0.290,-0.290,-0.290,0.000,0.000,0.000
1640068702669028096,"2021-12-21,06:38:22",10.1.1.7,0.3524951934814453,-0.290,-0.290,-0.290,0.000,0.000,0.000
1640068703011554048,"2021-12-21,06:38:23",10.1.1.7,340,-0.300,-0.300,-0.300,0.000,0.000,0.000
1640068703053627136,"2021-12-21,06:38:23",10.1.1.7,0.38315606117248535,-0.300,-0.300,-0.300,0.000,0.000,0.000
1640068703350065920,"2021-12-21,06:38:23",10.1.1.7,294,-0.310,-0.310,-0.310,0.000,0.000,0.000
1640068703382433024,"2021-12-21,06:38:23",10.1.1.7,0.3271160125732422,-0.310,-0.310,-0.310,0.000,0.000,0.000
1640068703701056000,"2021-12-21,06:38:23",10.1.1.7,316,-0.320,-0.320,-0.320,0.000,0.000,0.000
1640068703784914944,"2021-12-21,06:38:23",10.1.1.7,0.4006950855255127,-0.320,-0.320,-0.320,0.000,0.000,0.000
1640068704099986944,"2021-12-21,06:38:24",10.1.1.7,313,-0.330,-0.330,-0.330,0.000,0.000,0.000
1640068704112519936,"2021-12-21,06:38:24",10.1.1.7,0.32566308975219727,-0.330,-0.330,-0.330,0.000,0.000,0.000
1640068704439574016,"2021-12-21,06:38:24",10.1.1.7,323,-0.340,-0.340,-0.340,0.000,0.000,0.000
1640068704468589056,"2021-12-21,06:38:24",10.1.1.7,0.3520948886871338,-0.340,-0.340,-0.340,0.000,0.000,0.000
1640068704799762944,"2021-12-21,06:38:24",10.1.1.7,329,-0.350,-0.350,-0.350,0.000,0.000,0.000
1640068704802958080,"2021-12-21,06:38:24",10.1.1.7,0.3331410884857178,-0.350,-0.350,-0.350,0.000,0.000,0.000
1640068705098098944,"2021-12-21,06:38:25",10.1.1.7,293,-0.360,-0.360,-0.360,0.000,0.000,0.000
1640068705132953856,"2021-12-21,06:38:25",10.1.1.7,0.3285520076751709,-0.360,-0.360,-0.360,0.000,0.000,0.000
1640068705447518976,"2021-12-21,06:38:25",10.1.1.7,312,-0.370,-0.370,-0.370,0.000,0.000,0.000
1640068705483480064,"2021-12-21,06:38:25",10.1.1.7,0.34888315200805664,-0.370,-0.370,-0.370,0.000,0.000,0.000
1640068705777512192,"2021-12-21,06:38:25",10.1.1.7,291,-0.380,-0.380,-0.380,0.000,0.000,0.000
1640068705806371840,"2021-12-21,06:38:25",10.1.1.7,0.3205699920654297,-0.380,-0.380,-0.380,0.000,0.000,0.000
1640068706107988992,"2021-12-21,06:38:26",10.1.1.7,300,-0.390,-0.390,-0.390,0.000,0.000,0.000
1640068706139177984,"2021-12-21,06:38:26",10.1.1.7,0.3313119411468506,-0.390,-0.390,-0.390,0.000,0.000,0.000
1640068706427834880,"2021-12-21,06:38:26",10.1.1.7,287,-0.400,-0.400,-0.400,0.000,0.000,0.000
1640068706467705088,"2021-12-21,06:38:26",10.1.1.7,0.32714295387268066,-0.400,-0.400,-0.400,0.000,0.000,0.000
1640068706757634048,"2021-12-21,06:38:26",10.1.1.7,287,-0.410,-0.410,-0.410,0.000,0.000,0.000
1640068706792193024,"2021-12-21,06:38:26",10.1.1.7,0.32230496406555176,-0.410,-0.410,-0.410,0.000,0.000,0.000
1640068707137829120,"2021-12-21,06:38:27",10.1.1.7,343,-0.420,-0.420,-0.420,0.000,0.000,0.000
1640068707171969024,"2021-12-21,06:38:27",10.1.1.7,0.3778960704803467,-0.420,-0.420,-0.420,0.000,0.000,0.000
1640068707485459968,"2021-12-21,06:38:27",10.1.1.7,312,-0.430,-0.430,-0.430,0.000,0.000,0.000
1640068707489527040,"2021-12-21,06:38:27",10.1.1.7,0.3158891201019287,-0.430,-0.430,-0.430,0.000,0.000,0.000
1640068707807096832,"2021-12-21,06:38:27",10.1.1.7,314,-0.440,-0.440,-0.440,0.000,0.000,0.000
1640068707807475200,"2021-12-21,06:38:27",10.1.1.7,0.31660890579223633,-0.440,-0.440,-0.440,0.000,0.000,0.000
1640068708144476928,"2021-12-21,06:38:28",10.1.1.7,335,-0.450,-0.450,-0.450,0.000,0.000,0.000
1640068708196787968,"2021-12-21,06:38:28",10.1.1.7,0.38737916946411133,-0.450,-0.450,-0.450,0.000,0.000,0.000
1640068708494195968,"2021-12-21,06:38:28",10.1.1.7,294,-0.460,-0.460,-0.460,0.000,0.000,0.000
1640068708532720128,"2021-12-21,06:38:28",10.1.1.7,0.33359503746032715,-0.460,-0.460,-0.460,0.000,0.000,0.000
1640068708844137984,"2021-12-21,06:38:28",10.1.1.7,309,-0.470,-0.470,-0.470,0.000,0.000,0.000
1640068708951493888,"2021-12-21,06:38:28",10.1.1.7,0.41711997985839844,-0.470,-0.470,-0.470,0.000,0.000,0.000
1640068709278076928,"2021-12-21,06:38:29",10.1.1.7,289,-0.480,-0.480,-0.480,0.000,0.000,0.000
1640068709284977920,"2021-12-21,06:38:29",10.1.1.7,0.3317909240722656,-0.480,-0.480,-0.480,0.000,0.000,0.000
1640068709602691840,"2021-12-21,06:38:29",10.1.1.7,316,-0.490,-0.490,-0.490,0.000,0.000,0.000
1640068709614376192,"2021-12-21,06:38:29",10.1.1.7,0.3280160427093506,-0.490,-0.490,-0.490,0.000,0.000,0.000
1640068709931948800,"2021-12-21,06:38:29",10.1.1.7,316,-0.480,-0.480,-0.480,0.000,0.000,0.000
1640068709948039936,"2021-12-21,06:38:29",10.1.1.7,0.3320128917694092,-0.480,-0.480,-0.480,0.000,0.000,0.000
1640068710264023040,"2021-12-21,06:38:30",10.1.1.7,314,-0.470,-0.470,-0.470,0.000,0.000,0.000
1640068710299592960,"2021-12-21,06:38:30",10.1.1.7,0.35033297538757324,-0.470,-0.470,-0.470,0.000,0.000,0.000
1640068710610436864,"2021-12-21,06:38:30",10.1.1.7,308,-0.460,-0.460,-0.460,0.000,0.000,0.000
1640068710613414912,"2021-12-21,06:38:30",10.1.1.7,0.311290979385376,-0.460,-0.460,-0.460,0.000,0.000,0.000
1640068710910653952,"2021-12-21,06:38:30",10.1.1.7,295,-0.450,-0.450,-0.450,0.000,0.000,0.000
1640068710949729024,"2021-12-21,06:38:30",10.1.1.7,0.3346419334411621,-0.450,-0.450,-0.450,0.000,0.000,0.000
1640068711259764992,"2021-12-21,06:38:31",10.1.1.7,308,-0.440,-0.440,-0.440,0.000,0.000,0.000
1640068711271339776,"2021-12-21,06:38:31",10.1.1.7,0.3203849792480469,-0.440,-0.440,-0.440,0.000,0.000,0.000
1640068711569811968,"2021-12-21,06:38:31",10.1.1.7,296,-0.430,-0.430,-0.430,0.000,0.000,0.000
1640068711591363840,"2021-12-21,06:38:31",10.1.1.7,0.3184239864349365,-0.430,-0.430,-0.430,0.000,0.000,0.000
1640068711890007040,"2021-12-21,06:38:31",10.1.1.7,297,-0.420,-0.420,-0.420,0.000,0.000,0.000
1640068711914604800,"2021-12-21,06:38:31",10.1.1.7,0.3218228816986084,-0.420,-0.420,-0.420,0.000,0.000,0.000
1640068712238368000,"2021-12-21,06:38:32",10.1.1.7,322,-0.410,-0.410,-0.410,0.000,0.000,0.000
1640068712300076032,"2021-12-21,06:38:32",10.1.1.7,0.384174108505249,-0.410,-0.410,-0.410,0.000,0.000,0.000
1640068712590054912,"2021-12-21,06:38:32",10.1.1.7,288,-0.400,-0.400,-0.400,0.000,0.000,0.000
1640068712621885184,"2021-12-21,06:38:32",10.1.1.7,0.32052087783813477,-0.400,-0.400,-0.400,0.000,0.000,0.000
1640068712947292160,"2021-12-21,06:38:32",10.1.1.7,323,-0.390,-0.390,-0.390,0.000,0.000,0.000
1640068712979744000,"2021-12-21,06:38:32",10.1.1.7,0.35629987716674805,-0.390,-0.390,-0.390,0.000,0.000,0.000
1640068713327992064,"2021-12-21,06:38:33",10.1.1.7,345,-0.380,-0.380,-0.380,0.000,0.000,0.000
1640068713368315904,"2021-12-21,06:38:33",10.1.1.7,0.3862190246582031,-0.380,-0.380,-0.380,0.000,0.000,0.000
1640068713687109888,"2021-12-21,06:38:33",10.1.1.7,0.3171699047088623,-0.370,-0.370,-0.370,0.000,0.000,0.000
1640068713687501056,"2021-12-21,06:38:33",10.1.1.7,317,-0.370,-0.370,-0.370,0.000,0.000,0.000
1640068714016921088,"2021-12-21,06:38:34",10.1.1.7,328,-0.360,-0.360,-0.360,0.000,0.000,0.000
1640068714041531136,"2021-12-21,06:38:34",10.1.1.7,0.3532130718231201,-0.360,-0.360,-0.360,0.000,0.000,0.000
1640068714326206976,"2021-12-21,06:38:34",10.1.1.7,282,-0.350,-0.350,-0.350,0.000,0.000,0.000
1640068714357295872,"2021-12-21,06:38:34",10.1.1.7,0.3141629695892334,-0.350,-0.350,-0.350,0.000,0.000,0.000
1640068714655524864,"2021-12-21,06:38:34",10.1.1.7,296,-0.340,-0.340,-0.340,0.000,0.000,0.000
1640068714676908032,"2021-12-21,06:38:34",10.1.1.7,0.31831979751586914,-0.340,-0.340,-0.340,0.000,0.000,0.000
1640068714954412032,"2021-12-21,06:38:34",10.1.1.7,275,-0.330,-0.330,-0.330,0.000,0.000,0.000
1640068714990472960,"2021-12-21,06:38:34",10.1.1.7,0.3118569850921631,-0.330,-0.330,-0.330,0.000,0.000,0.000
1640068715703586048,"2021-12-21,06:38:35",10.1.1.7,711,-0.320,-0.320,-0.320,0.000,0.000,0.000
1640068715737715968,"2021-12-21,06:38:35",10.1.1.7,0.745581865310669,-0.320,-0.320,-0.320,0.000,0.000,0.000
1640068716052562944,"2021-12-21,06:38:36",10.1.1.7,312,-0.310,-0.310,-0.310,0.000,0.000,0.000
1640068716073425920,"2021-12-21,06:38:36",10.1.1.7,0.3334341049194336,-0.310,-0.310,-0.310,0.000,0.000,0.000
1640068716381750016,"2021-12-21,06:38:36",10.1.1.7,306,-0.300,-0.300,-0.300,0.000,0.000,0.000
1640068716416410880,"2021-12-21,06:38:36",10.1.1.7,0.3407890796661377,-0.300,-0.300,-0.300,0.000,0.000,0.000
1640068716752520960,"2021-12-21,06:38:36",10.1.1.7,332,-0.290,-0.290,-0.290,0.000,0.000,0.000
1640068716855079936,"2021-12-21,06:38:36",10.1.1.7,0.43521595001220703,-0.290,-0.290,-0.290,0.000,0.000,0.000
1640068717150720000,"2021-12-21,06:38:37",10.1.1.7,294,-0.280,-0.280,-0.280,0.000,0.000,0.000
1640068717177412096,"2021-12-21,06:38:37",10.1.1.7,0.3210141658782959,-0.280,-0.280,-0.280,0.000,0.000,0.000
1640068717489673984,"2021-12-21,06:38:37",10.1.1.7,311,-0.270,-0.270,-0.270,0.000,0.000,0.000
1640068717504997120,"2021-12-21,06:38:37",10.1.1.7,0.32639598846435547,-0.270,-0.270,-0.270,0.000,0.000,0.000
1640068717890124032,"2021-12-21,06:38:37",10.1.1.7,0.38388800621032715,-0.260,-0.260,-0.260,0.000,0.000,0.000
1640068717895972096,"2021-12-21,06:38:37",10.1.1.7,389,-0.260,-0.260,-0.260,0.000,0.000,0.000
1640068718251650048,"2021-12-21,06:38:38",10.1.1.7,352,-0.250,-0.250,-0.250,0.000,0.000,0.000
1640068718282552832,"2021-12-21,06:38:38",10.1.1.7,0.3831188678741455,-0.250,-0.250,-0.250,0.000,0.000,0.000
1640068718612080128,"2021-12-21,06:38:38",10.1.1.7,327,-0.240,-0.240,-0.240,0.000,0.000,0.000
1640068718633681920,"2021-12-21,06:38:38",10.1.1.7,0.34958505630493164,-0.240,-0.240,-0.240,0.000,0.000,0.000
1640068718964548096,"2021-12-21,06:38:38",10.1.1.7,329,-0.230,-0.230,-0.230,0.000,0.000,0.000
1640068718981213184,"2021-12-21,06:38:38",10.1.1.7,0.34627699851989746,-0.230,-0.230,-0.230,0.000,0.000,0.000
1640068719295386112,"2021-12-21,06:38:39",10.1.1.7,312,-0.220,-0.220,-0.220,0.000,0.000,0.000
1640068719303788032,"2021-12-21,06:38:39",10.1.1.7,0.32121706008911133,-0.220,-0.220,-0.220,0.000,0.000,0.000
1640068719616689920,"2021-12-21,06:38:39",10.1.1.7,310,-0.210,-0.210,-0.210,0.000,0.000,0.000
1640068719651284992,"2021-12-21,06:38:39",10.1.1.7,0.3454010486602783,-0.210,-0.210,-0.210,0.000,0.000,0.000
1640068720000556032,"2021-12-21,06:38:40",10.1.1.7,343,-0.200,-0.200,-0.200,0.000,0.000,0.000
1640068720006018048,"2021-12-21,06:38:40",10.1.1.7,0.3495209217071533,-0.200,-0.200,-0.200,0.000,0.000,0.000
1640068720332035072,"2021-12-21,06:38:40",10.1.1.7,322,-0.190,-0.190,-0.190,0.000,0.000,0.000
1640068720357893888,"2021-12-21,06:38:40",10.1.1.7,0.34874987602233887,-0.190,-0.190,-0.190,0.000,0.000,0.000
1640068720691512064,"2021-12-21,06:38:40",10.1.1.7,331,-0.180,-0.180,-0.180,0.000,0.000,0.000
1640068720740508160,"2021-12-21,06:38:40",10.1.1.7,0.38097715377807617,-0.180,-0.180,-0.180,0.000,0.000,0.000
1640068721053469952,"2021-12-21,06:38:41",10.1.1.7,305,-0.170,-0.170,-0.170,0.000,0.000,0.000
1640068721096043008,"2021-12-21,06:38:41",10.1.1.7,0.34784889221191406,-0.170,-0.170,-0.170,0.000,0.000,0.000
1640068721402992896,"2021-12-21,06:38:41",10.1.1.7,305,-0.160,-0.160,-0.160,0.000,0.000,0.000
1640068721458492160,"2021-12-21,06:38:41",10.1.1.7,0.3606691360473633,-0.160,-0.160,-0.160,0.000,0.000,0.000
1640068721766402048,"2021-12-21,06:38:41",10.1.1.7,306,-0.150,-0.150,-0.150,0.000,0.000,0.000
1640068721794866176,"2021-12-21,06:38:41",10.1.1.7,0.33471107482910156,-0.150,-0.150,-0.150,0.000,0.000,0.000
1640068722145462016,"2021-12-21,06:38:42",10.1.1.7,349,-0.140,-0.140,-0.140,0.000,0.000,0.000
1640068722162565888,"2021-12-21,06:38:42",10.1.1.7,0.3664429187774658,-0.140,-0.140,-0.140,0.000,0.000,0.000
1640068722497757952,"2021-12-21,06:38:42",10.1.1.7,333,-0.130,-0.130,-0.130,0.000,0.000,0.000
1640068722580919040,"2021-12-21,06:38:42",10.1.1.7,0.4167919158935547,-0.130,-0.130,-0.130,0.000,0.000,0.000
1640068722896637952,"2021-12-21,06:38:42",10.1.1.7,314,-0.120,-0.120,-0.120,0.000,0.000,0.000
1640068722921185024,"2021-12-21,06:38:42",10.1.1.7,0.33901405334472656,-0.120,-0.120,-0.120,0.000,0.000,0.000
1640068723267760896,"2021-12-21,06:38:43",10.1.1.7,344,-0.110,-0.110,-0.110,0.000,0.000,0.000
1640068723302795776,"2021-12-21,06:38:43",10.1.1.7,0.37944984436035156,-0.110,-0.110,-0.110,0.000,0.000,0.000
1640068723658397952,"2021-12-21,06:38:43",10.1.1.7,348,-0.100,-0.100,-0.100,0.000,0.000,0.000
1640068723689596928,"2021-12-21,06:38:43",10.1.1.7,0.3796248435974121,-0.100,-0.100,-0.100,0.000,0.000,0.000
1640068723998816000,"2021-12-21,06:38:43",10.1.1.7,307,-0.090,-0.090,-0.090,0.000,0.000,0.000
1640068724020750080,"2021-12-21,06:38:44",10.1.1.7,0.3295779228210449,-0.090,-0.090,-0.090,0.000,0.000,0.000
1640068724329415936,"2021-12-21,06:38:44",10.1.1.7,302,-0.080,-0.080,-0.080,0.000,0.000,0.000
1640068724411374080,"2021-12-21,06:38:44",10.1.1.7,0.3842148780822754,-0.080,-0.080,-0.080,0.000,0.000,0.000
1640068724721932032,"2021-12-21,06:38:44",10.1.1.7,309,-0.070,-0.070,-0.070,0.000,0.000,0.000
1640068724745172992,"2021-12-21,06:38:44",10.1.1.7,0.3326261043548584,-0.070,-0.070,-0.070,0.000,0.000,0.000
1640068725060251904,"2021-12-21,06:38:45",10.1.1.7,313,-0.060,-0.060,-0.060,0.000,0.000,0.000
1640068725105057024,"2021-12-21,06:38:45",10.1.1.7,0.35869812965393066,-0.060,-0.060,-0.060,0.000,0.000,0.000
1640068725450664960,"2021-12-21,06:38:45",10.1.1.7,341,-0.050,-0.050,-0.050,0.000,0.000,0.000
1640068725479969024,"2021-12-21,06:38:45",10.1.1.7,0.3664240837097168,-0.050,-0.050,-0.050,0.000,0.000,0.000
1640068725831800064,"2021-12-21,06:38:45",10.1.1.7,349,-0.040,-0.040,-0.040,0.000,0.000,0.000
1640068725840169984,"2021-12-21,06:38:45",10.1.1.7,0.3581681251525879,-0.040,-0.040,-0.040,0.000,0.000,0.000
1640068726161752832,"2021-12-21,06:38:46",10.1.1.7,319,-0.030,-0.030,-0.030,0.000,0.000,0.000
1640068726188047872,"2021-12-21,06:38:46",10.1.1.7,0.3455619812011719,-0.030,-0.030,-0.030,0.000,0.000,0.000
1640068726491333120,"2021-12-21,06:38:46",10.1.1.7,301,-0.020,-0.020,-0.020,0.000,0.000,0.000
1640068726543729920,"2021-12-21,06:38:46",10.1.1.7,0.3539721965789795,-0.020,-0.020,-0.020,0.000,0.000,0.000
1640068726852099840,"2021-12-21,06:38:46",10.1.1.7,306,-0.010,-0.010,-0.010,0.000,0.000,0.000
1640068726901797888,"2021-12-21,06:38:46",10.1.1.7,0.3558809757232666,-0.010,-0.010,-0.010,0.000,0.000,0.000
1640068727252192000,"2021-12-21,06:38:47",10.1.1.7,348,0.000,0.000,0.000,0.000,0.000,0.000
1640068727267918080,"2021-12-21,06:38:47",10.1.1.7,0.36428403854370117,0.000,0.000,0.000,0.000,0.000,0.000
1640068727592473088,"2021-12-21,06:38:47",10.1.1.7,322,-0.010,-0.010,-0.010,0.000,0.000,0.000
1640068727607531008,"2021-12-21,06:38:47",10.1.1.7,0.338076114654541,-0.010,-0.010,-0.010,0.000,0.000,0.000
1640068727955331072,"2021-12-21,06:38:47",10.1.1.7,346,-0.020,-0.020,-0.020,0.000,0.000,0.000
1640068727992577024,"2021-12-21,06:38:47",10.1.1.7,0.38377881050109863,-0.020,-0.020,-0.020,0.000,0.000,0.000
1640068728332591104,"2021-12-21,06:38:48",10.1.1.7,338,-0.030,-0.030,-0.030,0.000,0.000,0.000
1640068728358690048,"2021-12-21,06:38:48",10.1.1.7,0.36495184898376465,-0.030,-0.030,-0.030,0.000,0.000,0.000
1640068728702966016,"2021-12-21,06:38:48",10.1.1.7,340,-0.040,-0.040,-0.040,0.000,0.000,0.000
1640068728738748928,"2021-12-21,06:38:48",10.1.1.7,0.3761780261993408,-0.040,-0.040,-0.040,0.000,0.000,0.000
1640068729112570880,"2021-12-21,06:38:49",10.1.1.7,372,-0.050,-0.050,-0.050,0.000,0.000,0.000
1640068729138847232,"2021-12-21,06:38:49",10.1.1.7,0.3984808921813965,-0.050,-0.050,-0.050,0.000,0.000,0.000
1640068729452587008,"2021-12-21,06:38:49",10.1.1.7,309,-0.060,-0.060,-0.060,0.000,0.000,0.000
1640068729474561024,"2021-12-21,06:38:49",10.1.1.7,0.3313260078430176,-0.060,-0.060,-0.060,0.000,0.000,0.000
1640068729791909888,"2021-12-21,06:38:49",10.1.1.7,314,-0.070,-0.070,-0.070,0.000,0.000,0.000
1640068729806544128,"2021-12-21,06:38:49",10.1.1.7,0.3297100067138672,-0.070,-0.070,-0.070,0.000,0.000,0.000
1640068730112009984,"2021-12-21,06:38:50",10.1.1.7,303,-0.080,-0.080,-0.080,0.000,0.000,0.000
1640068730148907008,"2021-12-21,06:38:50",10.1.1.7,0.3405110836029053,-0.080,-0.080,-0.080,0.000,0.000,0.000
1640068730502173952,"2021-12-21,06:38:50",10.1.1.7,333,-0.090,-0.090,-0.090,0.000,0.000,0.000
1640068730548148992,"2021-12-21,06:38:50",10.1.1.7,0.37912702560424805,-0.090,-0.090,-0.090,0.000,0.000,0.000
1640068730904052992,"2021-12-21,06:38:50",10.1.1.7,349,-0.100,-0.100,-0.100,0.000,0.000,0.000
1640068730909233920,"2021-12-21,06:38:50",10.1.1.7,0.3548460006713867,-0.100,-0.100,-0.100,0.000,0.000,0.000
1640068731294449152,"2021-12-21,06:38:51",10.1.1.7,381,-0.110,-0.110,-0.110,0.000,0.000,0.000
1640068731300030976,"2021-12-21,06:38:51",10.1.1.7,0.38813304901123047,-0.110,-0.110,-0.110,0.000,0.000,0.000
1640068731601906944,"2021-12-21,06:38:51",10.1.1.7,300,-0.120,-0.120,-0.120,0.000,0.000,0.000
1640068731621085952,"2021-12-21,06:38:51",10.1.1.7,0.319627046585083,-0.120,-0.120,-0.120,0.000,0.000,0.000
1640068731932323840,"2021-12-21,06:38:51",10.1.1.7,309,-0.130,-0.130,-0.130,0.000,0.000,0.000
1640068731948504832,"2021-12-21,06:38:51",10.1.1.7,0.3252530097961426,-0.130,-0.130,-0.130,0.000,0.000,0.000
1640068732261691136,"2021-12-21,06:38:52",10.1.1.7,308,-0.140,-0.140,-0.140,0.000,0.000,0.000
1640068732271997952,"2021-12-21,06:38:52",10.1.1.7,0.3192939758300781,-0.140,-0.140,-0.140,0.000,0.000,0.000
1640068732571648000,"2021-12-21,06:38:52",10.1.1.7,298,-0.150,-0.150,-0.150,0.000,0.000,0.000
1640068732599127040,"2021-12-21,06:38:52",10.1.1.7,0.3255350589752197,-0.150,-0.150,-0.150,0.000,0.000,0.000
1640068732963758848,"2021-12-21,06:38:52",10.1.1.7,360,-0.160,-0.160,-0.160,0.000,0.000,0.000
1640068732972526080,"2021-12-21,06:38:52",10.1.1.7,0.3696129322052002,-0.160,-0.160,-0.160,0.000,0.000,0.000
1640068733320231936,"2021-12-21,06:38:53",10.1.1.7,346,-0.170,-0.170,-0.170,0.000,0.000,0.000
1640068733338999040,"2021-12-21,06:38:53",10.1.1.7,0.36511898040771484,-0.170,-0.170,-0.170,0.000,0.000,0.000
1640068733731358976,"2021-12-21,06:38:53",10.1.1.7,376,-0.180,-0.180,-0.180,0.000,0.000,0.000
1640068733761726976,"2021-12-21,06:38:53",10.1.1.7,0.40659308433532715,-0.180,-0.180,-0.180,0.000,0.000,0.000
1640068734100545024,"2021-12-21,06:38:54",10.1.1.7,333,-0.190,-0.190,-0.190,0.000,0.000,0.000
1640068734127440896,"2021-12-21,06:38:54",10.1.1.7,0.3606579303741455,-0.190,-0.190,-0.190,0.000,0.000,0.000
1640068734461835008,"2021-12-21,06:38:54",10.1.1.7,330,-0.200,-0.200,-0.200,0.000,0.000,0.000
1640068734474998016,"2021-12-21,06:38:54",10.1.1.7,0.3438420295715332,-0.200,-0.200,-0.200,0.000,0.000,0.000
1640068734850023936,"2021-12-21,06:38:54",10.1.1.7,367,-0.210,-0.210,-0.210,0.000,0.000,0.000
1640068734893358080,"2021-12-21,06:38:54",10.1.1.7,0.410473108291626,-0.210,-0.210,-0.210,0.000,0.000,0.000
1640068735228892928,"2021-12-21,06:38:55",10.1.1.7,332,-0.220,-0.220,-0.220,0.000,0.000,0.000
1640068735273149952,"2021-12-21,06:38:55",10.1.1.7,0.37655210494995117,-0.220,-0.220,-0.220,0.000,0.000,0.000
1640068735649616128,"2021-12-21,06:38:55",10.1.1.7,374,-0.230,-0.230,-0.230,0.000,0.000,0.000
1640068735689534976,"2021-12-21,06:38:55",10.1.1.7,0.41443514823913574,-0.230,-0.230,-0.230,0.000,0.000,0.000
1640068736028491008,"2021-12-21,06:38:56",10.1.1.7,337,-0.240,-0.240,-0.240,0.000,0.000,0.000
1640068736103475968,"2021-12-21,06:38:56",10.1.1.7,0.41213488578796387,-0.240,-0.240,-0.240,0.000,0.000,0.000
1640068736428438016,"2021-12-21,06:38:56",10.1.1.7,321,-0.250,-0.250,-0.250,0.000,0.000,0.000
1640068736490513152,"2021-12-21,06:38:56",10.1.1.7,0.38388705253601074,-0.250,-0.250,-0.250,0.000,0.000,0.000
1640068736818445056,"2021-12-21,06:38:56",10.1.1.7,326,-0.260,-0.260,-0.260,0.000,0.000,0.000
1640068736881228800,"2021-12-21,06:38:56",10.1.1.7,0.3892219066619873,-0.260,-0.260,-0.260,0.000,0.000,0.000
1640068737237132032,"2021-12-21,06:38:57",10.1.1.7,346,-0.270,-0.270,-0.270,0.000,0.000,0.000
1640068737269609984,"2021-12-21,06:38:57",10.1.1.7,0.3833348751068115,-0.270,-0.270,-0.270,0.000,0.000,0.000
1640068737596480000,"2021-12-21,06:38:57",10.1.1.7,324,-0.280,-0.280,-0.280,0.000,0.000,0.000
1640068737632962816,"2021-12-21,06:38:57",10.1.1.7,0.3613569736480713,-0.280,-0.280,-0.280,0.000,0.000,0.000
1640068737937241088,"2021-12-21,06:38:57",10.1.1.7,302,-0.290,-0.290,-0.290,0.000,0.000,0.000
1640068737989408000,"2021-12-21,06:38:57",10.1.1.7,0.3550601005554199,-0.290,-0.290,-0.290,0.000,0.000,0.000
1640068738305244928,"2021-12-21,06:38:58",10.1.1.7,313,-0.300,-0.300,-0.300,0.000,0.000,0.000
1640068738349132032,"2021-12-21,06:38:58",10.1.1.7,0.35749006271362305,-0.300,-0.300,-0.300,0.000,0.000,0.000
1640068738685614080,"2021-12-21,06:38:58",10.1.1.7,335,-0.310,-0.310,-0.310,0.000,0.000,0.000
1640068738708751872,"2021-12-21,06:38:58",10.1.1.7,0.3583860397338867,-0.310,-0.310,-0.310,0.000,0.000,0.000
1640068739056147968,"2021-12-21,06:38:59",10.1.1.7,343,-0.320,-0.320,-0.320,0.000,0.000,0.000
1640068739099621120,"2021-12-21,06:38:59",10.1.1.7,0.3893430233001709,-0.320,-0.320,-0.320,0.000,0.000,0.000
1640068739424782080,"2021-12-21,06:38:59",10.1.1.7,323,-0.330,-0.330,-0.330,0.000,0.000,0.000
1640068739488368896,"2021-12-21,06:38:59",10.1.1.7,0.3853189945220947,-0.330,-0.330,-0.330,0.000,0.000,0.000
1640068739813741056,"2021-12-21,06:38:59",10.1.1.7,322,-0.340,-0.340,-0.340,0.000,0.000,0.000
1640068739856503040,"2021-12-21,06:38:59",10.1.1.7,0.365825891494751,-0.340,-0.340,-0.340,0.000,0.000,0.000
1640068740202409984,"2021-12-21,06:39:00",10.1.1.7,343,-0.350,-0.350,-0.350,0.000,0.000,0.000
1640068740239265024,"2021-12-21,06:39:00",10.1.1.7,0.3809831142425537,-0.350,-0.350,-0.350,0.000,0.000,0.000
1640068740542561024,"2021-12-21,06:39:00",10.1.1.7,301,-0.360,-0.360,-0.360,0.000,0.000,0.000
1640068740569701888,"2021-12-21,06:39:00",10.1.1.7,0.3286478519439697,-0.360,-0.360,-0.360,0.000,0.000,0.000
1640068740922868992,"2021-12-21,06:39:00",10.1.1.7,349,-0.370,-0.370,-0.370,0.000,0.000,0.000
1640068740964271104,"2021-12-21,06:39:00",10.1.1.7,0.39139604568481445,-0.370,-0.370,-0.370,0.000,0.000,0.000
1640068741311809024,"2021-12-21,06:39:01",10.1.1.7,345,-0.380,-0.380,-0.380,0.000,0.000,0.000
1640068741360174848,"2021-12-21,06:39:01",10.1.1.7,0.3936779499053955,-0.380,-0.380,-0.380,0.000,0.000,0.000
1640068741676222976,"2021-12-21,06:39:01",10.1.1.7,314,-0.390,-0.390,-0.390,0.000,0.000,0.000
1640068741708717056,"2021-12-21,06:39:01",10.1.1.7,0.34708189964294434,-0.390,-0.390,-0.390,0.000,0.000,0.000
1640068742032067072,"2021-12-21,06:39:02",10.1.1.7,321,-0.400,-0.400,-0.400,0.000,0.000,0.000
1640068742101232896,"2021-12-21,06:39:02",10.1.1.7,0.3910861015319824,-0.400,-0.400,-0.400,0.000,0.000,0.000
1640068742441318144,"2021-12-21,06:39:02",10.1.1.7,338,-0.410,-0.410,-0.410,0.000,0.000,0.000
1640068742491985152,"2021-12-21,06:39:02",10.1.1.7,0.38920092582702637,-0.410,-0.410,-0.410,0.000,0.000,0.000
1640068742829772032,"2021-12-21,06:39:02",10.1.1.7,336,-0.420,-0.420,-0.420,0.000,0.000,0.000
1640068742854265088,"2021-12-21,06:39:02",10.1.1.7,0.361037015914917,-0.420,-0.420,-0.420,0.000,0.000,0.000
1640068743189923072,"2021-12-21,06:39:03",10.1.1.7,334,-0.430,-0.430,-0.430,0.000,0.000,0.000
1640068743217523968,"2021-12-21,06:39:03",10.1.1.7,0.36176609992980957,-0.430,-0.430,-0.430,0.000,0.000,0.000
1640068743538733056,"2021-12-21,06:39:03",10.1.1.7,319,-0.440,-0.440,-0.440,0.000,0.000,0.000
1640068743579510016,"2021-12-21,06:39:03",10.1.1.7,0.3599231243133545,-0.440,-0.440,-0.440,0.000,0.000,0.000
1640068743897643008,"2021-12-21,06:39:03",10.1.1.7,316,-0.450,-0.450,-0.450,0.000,0.000,0.000
1640068743929896960,"2021-12-21,06:39:03",10.1.1.7,0.3491480350494385,-0.450,-0.450,-0.450,0.000,0.000,0.000
1640068744267284992,"2021-12-21,06:39:04",10.1.1.7,335,-0.460,-0.460,-0.460,0.000,0.000,0.000
1640068744289494016,"2021-12-21,06:39:04",10.1.1.7,0.3577139377593994,-0.460,-0.460,-0.460,0.000,0.000,0.000
1640068744617270016,"2021-12-21,06:39:04",10.1.1.7,313,-0.470,-0.470,-0.470,0.000,0.000,0.000
1640068744645591040,"2021-12-21,06:39:04",10.1.1.7,0.34177303314208984,-0.470,-0.470,-0.470,0.000,0.000,0.000
1640068744996244992,"2021-12-21,06:39:04",10.1.1.7,348,-0.480,-0.480,-0.480,0.000,0.000,0.000
1640068745082232832,"2021-12-21,06:39:05",10.1.1.7,0.4345579147338867,-0.480,-0.480,-0.480,0.000,0.000,0.000
1640068745385485824,"2021-12-21,06:39:05",10.1.1.7,301,-0.490,-0.490,-0.490,0.000,0.000,0.000
1640068745419790080,"2021-12-21,06:39:05",10.1.1.7,0.3359959125518799,-0.490,-0.490,-0.490,0.000,0.000,0.000
1640068745795684096,"2021-12-21,06:39:05",10.1.1.7,373,-0.480,-0.480,-0.480,0.000,0.000,0.000
1640068745804325120,"2021-12-21,06:39:05",10.1.1.7,0.38263392448425293,-0.480,-0.480,-0.480,0.000,0.000,0.000
1640068746133948928,"2021-12-21,06:39:06",10.1.1.7,328,-0.470,-0.470,-0.470,0.000,0.000,0.000
1640068746179613952,"2021-12-21,06:39:06",10.1.1.7,0.37365293502807617,-0.470,-0.470,-0.470,0.000,0.000,0.000
1640068746585161984,"2021-12-21,06:39:06",10.1.1.7,403,-0.460,-0.460,-0.460,0.000,0.000,0.000
1640068746623667968,"2021-12-21,06:39:06",10.1.1.7,0.44231295585632324,-0.460,-0.460,-0.460,0.000,0.000,0.000
1640068746982732032,"2021-12-21,06:39:06",10.1.1.7,357,-0.450,-0.450,-0.450,0.000,0.000,0.000
1640068747044652032,"2021-12-21,06:39:07",10.1.1.7,0.41948604583740234,-0.450,-0.450,-0.450,0.000,0.000,0.000
1640068747432331008,"2021-12-21,06:39:07",10.1.1.7,385,-0.440,-0.440,-0.440,0.000,0.000,0.000
1640068747476444928,"2021-12-21,06:39:07",10.1.1.7,0.4303288459777832,-0.440,-0.440,-0.440,0.000,0.000,0.000
1640068747834526976,"2021-12-21,06:39:07",10.1.1.7,350,-0.430,-0.430,-0.430,0.000,0.000,0.000
1640068747882829056,"2021-12-21,06:39:07",10.1.1.7,0.3985788822174072,-0.430,-0.430,-0.430,0.000,0.000,0.000
1640068748250528000,"2021-12-21,06:39:08",10.1.1.7,366,-0.420,-0.420,-0.420,0.000,0.000,0.000
1640068748303187968,"2021-12-21,06:39:08",10.1.1.7,0.4188220500946045,-0.420,-0.420,-0.420,0.000,0.000,0.000
1640068748709894912,"2021-12-21,06:39:08",10.1.1.7,400,-0.410,-0.410,-0.410,0.000,0.000,0.000
1640068748759589888,"2021-12-21,06:39:08",10.1.1.7,0.4505469799041748,-0.410,-0.410,-0.410,0.000,0.000,0.000
1640068749120011008,"2021-12-21,06:39:09",10.1.1.7,356,-0.400,-0.400,-0.400,0.000,0.000,0.000
1640068749174021120,"2021-12-21,06:39:09",10.1.1.7,0.4102058410644531,-0.400,-0.400,-0.400,0.000,0.000,0.000
1640068749538825984,"2021-12-21,06:39:09",10.1.1.7,362,-0.390,-0.390,-0.390,0.000,0.000,0.000
1640068749580705024,"2021-12-21,06:39:09",10.1.1.7,0.40483713150024414,-0.390,-0.390,-0.390,0.000,0.000,0.000
1640068749967951104,"2021-12-21,06:39:09",10.1.1.7,385,-0.380,-0.380,-0.380,0.000,0.000,0.000
1640068750049323008,"2021-12-21,06:39:10",10.1.1.7,0.4671449661254883,-0.380,-0.380,-0.380,0.000,0.000,0.000
1640068750420530176,"2021-12-21,06:39:10",10.1.1.7,364,-0.370,-0.370,-0.370,0.000,0.000,0.000
1640068750441502976,"2021-12-21,06:39:10",10.1.1.7,0.38537120819091797,-0.370,-0.370,-0.370,0.000,0.000,0.000
1640068750801274112,"2021-12-21,06:39:10",10.1.1.7,353,-0.360,-0.360,-0.360,0.000,0.000,0.000
1640068750905383936,"2021-12-21,06:39:10",10.1.1.7,0.46204113960266113,-0.360,-0.360,-0.360,0.000,0.000,0.000
1640068751234141952,"2021-12-21,06:39:11",10.1.1.7,326,-0.350,-0.350,-0.350,0.000,0.000,0.000
1640068751265952000,"2021-12-21,06:39:11",10.1.1.7,0.35843706130981445,-0.350,-0.350,-0.350,0.000,0.000,0.000
1640068751635699968,"2021-12-21,06:39:11",10.1.1.7,366,-0.340,-0.340,-0.340,0.000,0.000,0.000
1640068751686899968,"2021-12-21,06:39:11",10.1.1.7,0.4181938171386719,-0.340,-0.340,-0.340,0.000,0.000,0.000
1640068752064480000,"2021-12-21,06:39:12",10.1.1.7,371,-0.330,-0.330,-0.330,0.000,0.000,0.000
1640068752176563968,"2021-12-21,06:39:12",10.1.1.7,0.4818439483642578,-0.330,-0.330,-0.330,0.000,0.000,0.000
1640068752651209216,"2021-12-21,06:39:12",10.1.1.7,469,-0.320,-0.320,-0.320,0.000,0.000,0.000
1640068752680304128,"2021-12-21,06:39:12",10.1.1.7,0.49889516830444336,-0.320,-0.320,-0.320,0.000,0.000,0.000
1640068753033895936,"2021-12-21,06:39:13",10.1.1.7,350,-0.310,-0.310,-0.310,0.000,0.000,0.000
1640068753062840832,"2021-12-21,06:39:13",10.1.1.7,0.3797791004180908,-0.310,-0.310,-0.310,0.000,0.000,0.000
1640068753443072000,"2021-12-21,06:39:13",10.1.1.7,377,-0.300,-0.300,-0.300,0.000,0.000,0.000
1640068753473737984,"2021-12-21,06:39:13",10.1.1.7,0.408038854598999,-0.300,-0.300,-0.300,0.000,0.000,0.000
1640068753824795904,"2021-12-21,06:39:13",10.1.1.7,344,-0.290,-0.290,-0.290,0.000,0.000,0.000
1640068753899503872,"2021-12-21,06:39:13",10.1.1.7,0.4202289581298828,-0.290,-0.290,-0.290,0.000,0.000,0.000
1640068754437055232,"2021-12-21,06:39:14",10.1.1.7,535,-0.280,-0.280,-0.280,0.000,0.000,0.000
1640068754480203008,"2021-12-21,06:39:14",10.1.1.7,0.5791580677032471,-0.280,-0.280,-0.280,0.000,0.000,0.000
1640068754847954944,"2021-12-21,06:39:14",10.1.1.7,362,-0.270,-0.270,-0.270,0.000,0.000,0.000
1640068754896856064,"2021-12-21,06:39:14",10.1.1.7,0.40946197509765625,-0.270,-0.270,-0.270,0.000,0.000,0.000
1640068755237262848,"2021-12-21,06:39:15",10.1.1.7,338,-0.260,-0.260,-0.260,0.000,0.000,0.000
1640068755240973824,"2021-12-21,06:39:15",10.1.1.7,0.34212398529052734,-0.260,-0.260,-0.260,0.000,0.000,0.000
1640068755588672000,"2021-12-21,06:39:15",10.1.1.7,344,-0.250,-0.250,-0.250,0.000,0.000,0.000
1640068755604851968,"2021-12-21,06:39:15",10.1.1.7,0.3603198528289795,-0.250,-0.250,-0.250,0.000,0.000,0.000
1640068755944004096,"2021-12-21,06:39:15",10.1.1.7,336,-0.240,-0.240,-0.240,0.000,0.000,0.000
1640068755951384064,"2021-12-21,06:39:15",10.1.1.7,0.3444099426269531,-0.240,-0.240,-0.240,0.000,0.000,0.000
1640068756341159936,"2021-12-21,06:39:16",10.1.1.7,388,-0.230,-0.230,-0.230,0.000,0.000,0.000
1640068756363785984,"2021-12-21,06:39:16",10.1.1.7,0.4109179973602295,-0.230,-0.230,-0.230,0.000,0.000,0.000
1640068756760617984,"2021-12-21,06:39:16",10.1.1.7,391,-0.220,-0.220,-0.220,0.000,0.000,0.000
1640068756817869824,"2021-12-21,06:39:16",10.1.1.7,0.4491238594055176,-0.220,-0.220,-0.220,0.000,0.000,0.000
1640068757152324864,"2021-12-21,06:39:17",10.1.1.7,332,-0.210,-0.210,-0.210,0.000,0.000,0.000
1640068757198408960,"2021-12-21,06:39:17",10.1.1.7,0.3789350986480713,-0.210,-0.210,-0.210,0.000,0.000,0.000
1640068757561441024,"2021-12-21,06:39:17",10.1.1.7,360,-0.200,-0.200,-0.200,0.000,0.000,0.000
1640068757567812864,"2021-12-21,06:39:17",10.1.1.7,0.36699986457824707,-0.200,-0.200,-0.200,0.000,0.000,0.000
1640068757903934976,"2021-12-21,06:39:17",10.1.1.7,334,-0.190,-0.190,-0.190,0.000,0.000,0.000
1640068757997807872,"2021-12-21,06:39:17",10.1.1.7,0.42816805839538574,-0.190,-0.190,-0.190,0.000,0.000,0.000
1640068758362337024,"2021-12-21,06:39:18",10.1.1.7,362,-0.180,-0.180,-0.180,0.000,0.000,0.000
1640068758386187008,"2021-12-21,06:39:18",10.1.1.7,0.38674187660217285,-0.180,-0.180,-0.180,0.000,0.000,0.000
1640068758726105088,"2021-12-21,06:39:18",10.1.1.7,335,-0.170,-0.170,-0.170,0.000,0.000,0.000
1640068758774705920,"2021-12-21,06:39:18",10.1.1.7,0.38417506217956543,-0.170,-0.170,-0.170,0.000,0.000,0.000
1640068759104248064,"2021-12-21,06:39:19",10.1.1.7,327,-0.160,-0.160,-0.160,0.000,0.000,0.000
1640068759120721152,"2021-12-21,06:39:19",10.1.1.7,0.3446488380432129,-0.160,-0.160,-0.160,0.000,0.000,0.000
1640068759453114112,"2021-12-21,06:39:19",10.1.1.7,328,-0.150,-0.150,-0.150,0.000,0.000,0.000
1640068759486183936,"2021-12-21,06:39:19",10.1.1.7,0.36150097846984863,-0.150,-0.150,-0.150,0.000,0.000,0.000
1640068759792928000,"2021-12-21,06:39:19",10.1.1.7,305,-0.140,-0.140,-0.140,0.000,0.000,0.000
1640068759829506048,"2021-12-21,06:39:19",10.1.1.7,0.3417999744415283,-0.140,-0.140,-0.140,0.000,0.000,0.000
1640068760123760896,"2021-12-21,06:39:20",10.1.1.7,291,-0.130,-0.130,-0.130,0.000,0.000,0.000
1640068760176634112,"2021-12-21,06:39:20",10.1.1.7,0.34429407119750977,-0.130,-0.130,-0.130,0.000,0.000,0.000
1640068760514039040,"2021-12-21,06:39:20",10.1.1.7,335,-0.120,-0.120,-0.120,0.000,0.000,0.000
1640068760533592832,"2021-12-21,06:39:20",10.1.1.7,0.35472989082336426,-0.120,-0.120,-0.120,0.000,0.000,0.000
1640068760844453120,"2021-12-21,06:39:20",10.1.1.7,308,-0.110,-0.110,-0.110,0.000,0.000,0.000
1640068760891699200,"2021-12-21,06:39:20",10.1.1.7,0.3563089370727539,-0.110,-0.110,-0.110,0.000,0.000,0.000
1640068761222796800,"2021-12-21,06:39:21",10.1.1.7,329,-0.100,-0.100,-0.100,0.000,0.000,0.000
1640068761254889984,"2021-12-21,06:39:21",10.1.1.7,0.3613591194152832,-0.100,-0.100,-0.100,0.000,0.000,0.000
1640068761594274048,"2021-12-21,06:39:21",10.1.1.7,337,-0.090,-0.090,-0.090,0.000,0.000,0.000
1640068761652013056,"2021-12-21,06:39:21",10.1.1.7,0.39493393898010254,-0.090,-0.090,-0.090,0.000,0.000,0.000
1640068761986247168,"2021-12-21,06:39:21",10.1.1.7,332,-0.080,-0.080,-0.080,0.000,0.000,0.000
1640068762008611840,"2021-12-21,06:39:22",10.1.1.7,0.3548111915588379,-0.080,-0.080,-0.080,0.000,0.000,0.000
1640068762353511168,"2021-12-21,06:39:22",10.1.1.7,340,-0.070,-0.070,-0.070,0.000,0.000,0.000
1640068762382631168,"2021-12-21,06:39:22",10.1.1.7,0.37018299102783203,-0.070,-0.070,-0.070,0.000,0.000,0.000
1640068762762851072,"2021-12-21,06:39:22",10.1.1.7,376,-0.060,-0.060,-0.060,0.000,0.000,0.000
1640068762785617152,"2021-12-21,06:39:22",10.1.1.7,0.39896321296691895,-0.060,-0.060,-0.060,0.000,0.000,0.000
1640068763103787776,"2021-12-21,06:39:23",10.1.1.7,315,-0.050,-0.050,-0.050,0.000,0.000,0.000
1640068763147726080,"2021-12-21,06:39:23",10.1.1.7,0.3596339225769043,-0.050,-0.050,-0.050,0.000,0.000,0.000
1640068763493180160,"2021-12-21,06:39:23",10.1.1.7,341,-0.040,-0.040,-0.040,0.000,0.000,0.000
1640068763533235200,"2021-12-21,06:39:23",10.1.1.7,0.38206005096435547,-0.040,-0.040,-0.040,0.000,0.000,0.000
1640068763884516096,"2021-12-21,06:39:23",10.1.1.7,349,-0.030,-0.030,-0.030,0.000,0.000,0.000
1640068763917895936,"2021-12-21,06:39:23",10.1.1.7,0.3831760883331299,-0.030,-0.030,-0.030,0.000,0.000,0.000
1640068764232580864,"2021-12-21,06:39:24",10.1.1.7,312,-0.020,-0.020,-0.020,0.000,0.000,0.000
1640068764273899008,"2021-12-21,06:39:24",10.1.1.7,0.3536660671234131,-0.020,-0.020,-0.020,0.000,0.000,0.000
1640068764584621824,"2021-12-21,06:39:24",10.1.1.7,308,-0.010,-0.010,-0.010,0.000,0.000,0.000
1640068764618451200,"2021-12-21,06:39:24",10.1.1.7,0.34246301651000977,-0.010,-0.010,-0.010,0.000,0.000,0.000
1640068764934528000,"2021-12-21,06:39:24",10.1.1.7,314,0.000,0.000,0.000,0.000,0.000,0.000
1640068764973489152,"2021-12-21,06:39:24",10.1.1.7,0.35335803031921387,0.000,0.000,0.000,0.000,0.000,0.000
1640068765282066944,"2021-12-21,06:39:25",10.1.1.7,307,-0.010,-0.010,-0.010,0.000,0.000,0.000
1640068765314467072,"2021-12-21,06:39:25",10.1.1.7,0.33960795402526855,-0.010,-0.010,-0.010,0.000,0.000,0.000
1640068765690871040,"2021-12-21,06:39:25",10.1.1.7,356,-0.020,-0.020,-0.020,0.000,0.000,0.000
1640068765779787008,"2021-12-21,06:39:25",10.1.1.7,0.4454970359802246,-0.020,-0.020,-0.020,0.000,0.000,0.000
1640068766131546112,"2021-12-21,06:39:26",10.1.1.7,350,-0.030,-0.030,-0.030,0.000,0.000,0.000
1640068766181304064,"2021-12-21,06:39:26",10.1.1.7,0.39989590644836426,-0.030,-0.030,-0.030,0.000,0.000,0.000
1640068766560708096,"2021-12-21,06:39:26",10.1.1.7,376,-0.040,-0.040,-0.040,0.000,0.000,0.000
1640068766569314048,"2021-12-21,06:39:26",10.1.1.7,0.38521599769592285,-0.040,-0.040,-0.040,0.000,0.000,0.000
1640068766910103040,"2021-12-21,06:39:26",10.1.1.7,334,-0.050,-0.050,-0.050,0.000,0.000,0.000
1640068766968573184,"2021-12-21,06:39:26",10.1.1.7,0.39286208152770996,-0.050,-0.050,-0.050,0.000,0.000,0.000
1640068767309950976,"2021-12-21,06:39:27",10.1.1.7,339,-0.060,-0.060,-0.060,0.000,0.000,0.000
1640068767326144000,"2021-12-21,06:39:27",10.1.1.7,0.3560798168182373,-0.060,-0.060,-0.060,0.000,0.000,0.000
1640068767659270144,"2021-12-21,06:39:27",10.1.1.7,331,-0.070,-0.070,-0.070,0.000,0.000,0.000
1640068767675251968,"2021-12-21,06:39:27",10.1.1.7,0.347614049911499,-0.070,-0.070,-0.070,0.000,0.000,0.000
1640068768009200128,"2021-12-21,06:39:28",10.1.1.7,328,-0.080,-0.080,-0.080,0.000,0.000,0.000
1640068768040684032,"2021-12-21,06:39:28",10.1.1.7,0.36062097549438477,-0.080,-0.080,-0.080,0.000,0.000,0.000
1640068768358915072,"2021-12-21,06:39:28",10.1.1.7,316,-0.090,-0.090,-0.090,0.000,0.000,0.000
1640068768436717056,"2021-12-21,06:39:28",10.1.1.7,0.3947138786315918,-0.090,-0.090,-0.090,0.000,0.000,0.000
1640068768759604992,"2021-12-21,06:39:28",10.1.1.7,320,-0.100,-0.100,-0.100,0.000,0.000,0.000
1640068768804677120,"2021-12-21,06:39:28",10.1.1.7,0.3660290241241455,-0.100,-0.100,-0.100,0.000,0.000,0.000
1640068769118253056,"2021-12-21,06:39:29",10.1.1.7,312,-0.110,-0.110,-0.110,0.000,0.000,0.000
1640068769157190144,"2021-12-21,06:39:29",10.1.1.7,0.35111117362976074,-0.110,-0.110,-0.110,0.000,0.000,0.000
1640068769487436032,"2021-12-21,06:39:29",10.1.1.7,328,-0.120,-0.120,-0.120,0.000,0.000,0.000
1640068769556184064,"2021-12-21,06:39:29",10.1.1.7,0.3974039554595947,-0.120,-0.120,-0.120,0.000,0.000,0.000
1640068769917444864,"2021-12-21,06:39:29",10.1.1.7,358,-0.130,-0.130,-0.130,0.000,0.000,0.000
1640068770005413120,"2021-12-21,06:39:30",10.1.1.7,0.4466419219970703,-0.130,-0.130,-0.130,0.000,0.000,0.000
1640068770356275968,"2021-12-21,06:39:30",10.1.1.7,349,-0.140,-0.140,-0.140,0.000,0.000,0.000
1640068770390355200,"2021-12-21,06:39:30",10.1.1.7,0.3832380771636963,-0.140,-0.140,-0.140,0.000,0.000,0.000
1640068770745902080,"2021-12-21,06:39:30",10.1.1.7,354,-0.150,-0.150,-0.150,0.000,0.000,0.000
1640068770799110912,"2021-12-21,06:39:30",10.1.1.7,0.40730905532836914,-0.150,-0.150,-0.150,0.000,0.000,0.000
1640068771136987904,"2021-12-21,06:39:31",10.1.1.7,336,-0.160,-0.160,-0.160,0.000,0.000,0.000
1640068771165142016,"2021-12-21,06:39:31",10.1.1.7,0.36460208892822266,-0.160,-0.160,-0.160,0.000,0.000,0.000
1640068771528153856,"2021-12-21,06:39:31",10.1.1.7,360,-0.170,-0.170,-0.170,0.000,0.000,0.000
1640068771567291904,"2021-12-21,06:39:31",10.1.1.7,0.3995070457458496,-0.170,-0.170,-0.170,0.000,0.000,0.000
1640068771874403072,"2021-12-21,06:39:31",10.1.1.7,305,-0.180,-0.180,-0.180,0.000,0.000,0.000
1640068771916487936,"2021-12-21,06:39:31",10.1.1.7,0.34801483154296875,-0.180,-0.180,-0.180,0.000,0.000,0.000
1640068772244223232,"2021-12-21,06:39:32",10.1.1.7,325,-0.190,-0.190,-0.190,0.000,0.000,0.000
1640068772305065984,"2021-12-21,06:39:32",10.1.1.7,0.38698601722717285,-0.190,-0.190,-0.190,0.000,0.000,0.000
1640068772663894784,"2021-12-21,06:39:32",10.1.1.7,357,-0.200,-0.200,-0.200,0.000,0.000,0.000
1640068772727158016,"2021-12-21,06:39:32",10.1.1.7,0.4203910827636719,-0.200,-0.200,-0.200,0.000,0.000,0.000
1640068773065483008,"2021-12-21,06:39:33",10.1.1.7,335,-0.210,-0.210,-0.210,0.000,0.000,0.000
1640068773097282816,"2021-12-21,06:39:33",10.1.1.7,0.3670070171356201,-0.210,-0.210,-0.210,0.000,0.000,0.000
1640068773403475968,"2021-12-21,06:39:33",10.1.1.7,304,-0.220,-0.220,-0.220,0.000,0.000,0.000
1640068773462770944,"2021-12-21,06:39:33",10.1.1.7,0.364077091217041,-0.220,-0.220,-0.220,0.000,0.000,0.000
1640068773874917120,"2021-12-21,06:39:33",10.1.1.7,408,-0.230,-0.230,-0.230,0.000,0.000,0.000
1640068773917844992,"2021-12-21,06:39:33",10.1.1.7,0.45191287994384766,-0.230,-0.230,-0.230,0.000,0.000,0.000
1640068774270956032,"2021-12-21,06:39:34",10.1.1.7,348,-0.240,-0.240,-0.240,0.000,0.000,0.000
1640068774292112128,"2021-12-21,06:39:34",10.1.1.7,0.3699948787689209,-0.240,-0.240,-0.240,0.000,0.000,0.000
1640068774661822208,"2021-12-21,06:39:34",10.1.1.7,364,-0.250,-0.250,-0.250,0.000,0.000,0.000
1640068774715023872,"2021-12-21,06:39:34",10.1.1.7,0.41817617416381836,-0.250,-0.250,-0.250,0.000,0.000,0.000
1640068775071387136,"2021-12-21,06:39:35",10.1.1.7,354,-0.260,-0.260,-0.260,0.000,0.000,0.000
1640068775090231040,"2021-12-21,06:39:35",10.1.1.7,0.3738861083984375,-0.260,-0.260,-0.260,0.000,0.000,0.000
1640068775439693824,"2021-12-21,06:39:35",10.1.1.7,346,-0.270,-0.270,-0.270,0.000,0.000,0.000
1640068775499901952,"2021-12-21,06:39:35",10.1.1.7,0.4068171977996826,-0.270,-0.270,-0.270,0.000,0.000,0.000
1640068775839378176,"2021-12-21,06:39:35",10.1.1.7,337,-0.280,-0.280,-0.280,0.000,0.000,0.000
1640068775930967040,"2021-12-21,06:39:35",10.1.1.7,0.4296269416809082,-0.280,-0.280,-0.280,0.000,0.000,0.000
1640068776315331840,"2021-12-21,06:39:36",10.1.1.7,0.38036298751831055,-0.290,-0.290,-0.290,0.000,0.000,0.000
1640068776316366080,"2021-12-21,06:39:36",10.1.1.7,381,-0.290,-0.290,-0.290,0.000,0.000,0.000
1640068776757939200,"2021-12-21,06:39:36",10.1.1.7,440,-0.300,-0.300,-0.300,0.000,0.000,0.000
1640068776806118912,"2021-12-21,06:39:36",10.1.1.7,0.4891359806060791,-0.300,-0.300,-0.300,0.000,0.000,0.000
1640068777157255936,"2021-12-21,06:39:37",10.1.1.7,349,-0.310,-0.310,-0.310,0.000,0.000,0.000
1640068777187311872,"2021-12-21,06:39:37",10.1.1.7,0.3768949508666992,-0.310,-0.310,-0.310,0.000,0.000,0.000
1640068777516648960,"2021-12-21,06:39:37",10.1.1.7,327,-0.320,-0.320,-0.320,0.000,0.000,0.000
1640068777539129856,"2021-12-21,06:39:37",10.1.1.7,0.35050511360168457,-0.320,-0.320,-0.320,0.000,0.000,0.000
1640068777891547904,"2021-12-21,06:39:37",10.1.1.7,344,-0.330,-0.330,-0.330,0.000,0.000,0.000
1640068777910594048,"2021-12-21,06:39:37",10.1.1.7,0.367581844329834,-0.330,-0.330,-0.330,0.000,0.000,0.000
1640068778246406144,"2021-12-21,06:39:38",10.1.1.7,331,-0.340,-0.340,-0.340,0.000,0.000,0.000
1640068778273296128,"2021-12-21,06:39:38",10.1.1.7,0.35802507400512695,-0.340,-0.340,-0.340,0.000,0.000,0.000
1640068778604651008,"2021-12-21,06:39:38",10.1.1.7,325,-0.350,-0.350,-0.350,0.000,0.000,0.000
1640068778649862144,"2021-12-21,06:39:38",10.1.1.7,0.37038207054138184,-0.350,-0.350,-0.350,0.000,0.000,0.000
1640068779006124032,"2021-12-21,06:39:39",10.1.1.7,341,-0.360,-0.360,-0.360,0.000,0.000,0.000
1640068779035960064,"2021-12-21,06:39:39",10.1.1.7,0.3726210594177246,-0.360,-0.360,-0.360,0.000,0.000,0.000
1640068779364544000,"2021-12-21,06:39:39",10.1.1.7,326,-0.370,-0.370,-0.370,0.000,0.000,0.000
1640068779418515968,"2021-12-21,06:39:39",10.1.1.7,0.38062214851379395,-0.370,-0.370,-0.370,0.000,0.000,0.000
1640068779782813952,"2021-12-21,06:39:39",10.1.1.7,352,-0.380,-0.380,-0.380,0.000,0.000,0.000
1640068779814798080,"2021-12-21,06:39:39",10.1.1.7,0.38512206077575684,-0.380,-0.380,-0.380,0.000,0.000,0.000
1640068780143649024,"2021-12-21,06:39:40",10.1.1.7,326,-0.390,-0.390,-0.390,0.000,0.000,0.000
1640068780232908032,"2021-12-21,06:39:40",10.1.1.7,0.4155418872833252,-0.390,-0.390,-0.390,0.000,0.000,0.000
1640068780532052992,"2021-12-21,06:39:40",10.1.1.7,296,-0.400,-0.400,-0.400,0.000,0.000,0.000
1640068780560199936,"2021-12-21,06:39:40",10.1.1.7,0.32503199577331543,-0.400,-0.400,-0.400,0.000,0.000,0.000
1640068780912934144,"2021-12-21,06:39:40",10.1.1.7,346,-0.410,-0.410,-0.410,0.000,0.000,0.000
1640068780957158144,"2021-12-21,06:39:40",10.1.1.7,0.39077210426330566,-0.410,-0.410,-0.410,0.000,0.000,0.000
1640068781270575104,"2021-12-21,06:39:41",10.1.1.7,310,-0.420,-0.420,-0.420,0.000,0.000,0.000
1640068781288044032,"2021-12-21,06:39:41",10.1.1.7,0.32848405838012695,-0.420,-0.420,-0.420,0.000,0.000,0.000
1640068781619991040,"2021-12-21,06:39:41",10.1.1.7,326,-0.430,-0.430,-0.430,0.000,0.000,0.000
1640068781643721216,"2021-12-21,06:39:41",10.1.1.7,0.3501870632171631,-0.430,-0.430,-0.430,0.000,0.000,0.000
1640068782046552064,"2021-12-21,06:39:42",10.1.1.7,397,-0.440,-0.440,-0.440,0.000,0.000,0.000
1640068782071237120,"2021-12-21,06:39:42",10.1.1.7,0.42246103286743164,-0.440,-0.440,-0.440,0.000,0.000,0.000
1640068782430010112,"2021-12-21,06:39:42",10.1.1.7,356,-0.450,-0.450,-0.450,0.000,0.000,0.000
1640068782489538048,"2021-12-21,06:39:42",10.1.1.7,0.4165830612182617,-0.450,-0.450,-0.450,0.000,0.000,0.000
1640068782860342016,"2021-12-21,06:39:42",10.1.1.7,369,-0.460,-0.460,-0.460,0.000,0.000,0.000
1640068782898776064,"2021-12-21,06:39:42",10.1.1.7,0.4076039791107178,-0.460,-0.460,-0.460,0.000,0.000,0.000
1640068783271934976,"2021-12-21,06:39:43",10.1.1.7,371,-0.470,-0.470,-0.470,0.000,0.000,0.000
1640068783315480064,"2021-12-21,06:39:43",10.1.1.7,0.41506409645080566,-0.470,-0.470,-0.470,0.000,0.000,0.000
1640068783641189120,"2021-12-21,06:39:43",10.1.1.7,323,-0.480,-0.480,-0.480,0.000,0.000,0.000
1640068783677989120,"2021-12-21,06:39:43",10.1.1.7,0.3603801727294922,-0.480,-0.480,-0.480,0.000,0.000,0.000
1640068784053314816,"2021-12-21,06:39:44",10.1.1.7,364,-0.490,-0.490,-0.490,0.000,0.000,0.000
1640068784087755008,"2021-12-21,06:39:44",10.1.1.7,0.39913392066955566,-0.490,-0.490,-0.490,0.000,0.000,0.000
1640068784424756992,"2021-12-21,06:39:44",10.1.1.7,335,-0.480,-0.480,-0.480,0.000,0.000,0.000
1640068784480201984,"2021-12-21,06:39:44",10.1.1.7,0.39101600646972656,-0.480,-0.480,-0.480,0.000,0.000,0.000
1640068784836407040,"2021-12-21,06:39:44",10.1.1.7,354,-0.470,-0.470,-0.470,0.000,0.000,0.000
1640068784858540032,"2021-12-21,06:39:44",10.1.1.7,0.37651801109313965,-0.470,-0.470,-0.470,0.000,0.000,0.000
1640068785179544832,"2021-12-21,06:39:45",10.1.1.7,318,-0.460,-0.460,-0.460,0.000,0.000,0.000
1640068785222036992,"2021-12-21,06:39:45",10.1.1.7,0.3613419532775879,-0.460,-0.460,-0.460,0.000,0.000,0.000
1640068785539719936,"2021-12-21,06:39:45",10.1.1.7,316,-0.450,-0.450,-0.450,0.000,0.000,0.000
1640068785615930112,"2021-12-21,06:39:45",10.1.1.7,0.3926668167114258,-0.450,-0.450,-0.450,0.000,0.000,0.000
1640068785952753920,"2021-12-21,06:39:45",10.1.1.7,335,-0.440,-0.440,-0.440,0.000,0.000,0.000
1640068786044030976,"2021-12-21,06:39:46",10.1.1.7,0.42690205574035645,-0.440,-0.440,-0.440,0.000,0.000,0.000
1640068786372140800,"2021-12-21,06:39:46",10.1.1.7,326,-0.430,-0.430,-0.430,0.000,0.000,0.000
1640068786388664064,"2021-12-21,06:39:46",10.1.1.7,0.3432321548461914,-0.430,-0.430,-0.430,0.000,0.000,0.000
1640068786773220096,"2021-12-21,06:39:46",10.1.1.7,379,-0.420,-0.420,-0.420,0.000,0.000,0.000
1640068786803388160,"2021-12-21,06:39:46",10.1.1.7,0.409923791885376,-0.420,-0.420,-0.420,0.000,0.000,0.000
1640068787123953152,"2021-12-21,06:39:47",10.1.1.7,318,-0.410,-0.410,-0.410,0.000,0.000,0.000
1640068787188813824,"2021-12-21,06:39:47",10.1.1.7,0.3838179111480713,-0.410,-0.410,-0.410,0.000,0.000,0.000
1640068787628112128,"2021-12-21,06:39:47",10.1.1.7,411,-0.400,-0.400,-0.400,0.000,0.000,0.000
1640068787695815168,"2021-12-21,06:39:47",10.1.1.7,0.47884106636047363,-0.400,-0.400,-0.400,0.000,0.000,0.000
1640068788007456000,"2021-12-21,06:39:48",10.1.1.7,308,-0.390,-0.390,-0.390,0.000,0.000,0.000
1640068788092499968,"2021-12-21,06:39:48",10.1.1.7,0.39463186264038086,-0.390,-0.390,-0.390,0.000,0.000,0.000
1640068788420346880,"2021-12-21,06:39:48",10.1.1.7,325,-0.380,-0.380,-0.380,0.000,0.000,0.000
1640068788461280000,"2021-12-21,06:39:48",10.1.1.7,0.36748600006103516,-0.380,-0.380,-0.380,0.000,0.000,0.000
1640068788787587840,"2021-12-21,06:39:48",10.1.1.7,323,-0.370,-0.370,-0.370,0.000,0.000,0.000
1640068788835745024,"2021-12-21,06:39:48",10.1.1.7,0.37151312828063965,-0.370,-0.370,-0.370,0.000,0.000,0.000
1640068789207212800,"2021-12-21,06:39:49",10.1.1.7,368,-0.360,-0.360,-0.360,0.000,0.000,0.000
1640068789219166976,"2021-12-21,06:39:49",10.1.1.7,0.380173921585083,-0.360,-0.360,-0.360,0.000,0.000,0.000
1640068789588798976,"2021-12-21,06:39:49",10.1.1.7,363,-0.350,-0.350,-0.350,0.000,0.000,0.000
1640068789644495104,"2021-12-21,06:39:49",10.1.1.7,0.41901707649230957,-0.350,-0.350,-0.350,0.000,0.000,0.000
1640068789959887872,"2021-12-21,06:39:49",10.1.1.7,313,-0.340,-0.340,-0.340,0.000,0.000,0.000
1640068789987037952,"2021-12-21,06:39:49",10.1.1.7,0.3410351276397705,-0.340,-0.340,-0.340,0.000,0.000,0.000
1640068790329201920,"2021-12-21,06:39:50",10.1.1.7,339,-0.330,-0.330,-0.330,0.000,0.000,0.000
1640068790400999168,"2021-12-21,06:39:50",10.1.1.7,0.4111959934234619,-0.330,-0.330,-0.330,0.000,0.000,0.000
1640068790699470080,"2021-12-21,06:39:50",10.1.1.7,297,-0.320,-0.320,-0.320,0.000,0.000,0.000
1640068790786829056,"2021-12-21,06:39:50",10.1.1.7,0.38088297843933105,-0.320,-0.320,-0.320,0.000,0.000,0.000
1640068791100455936,"2021-12-21,06:39:51",10.1.1.7,311,-0.310,-0.310,-0.310,0.000,0.000,0.000
1640068791118850048,"2021-12-21,06:39:51",10.1.1.7,0.33020782470703125,-0.310,-0.310,-0.310,0.000,0.000,0.000
1640068791440717824,"2021-12-21,06:39:51",10.1.1.7,320,-0.300,-0.300,-0.300,0.000,0.000,0.000
1640068791497186048,"2021-12-21,06:39:51",10.1.1.7,0.37702202796936035,-0.300,-0.300,-0.300,0.000,0.000,0.000
1640068791822326016,"2021-12-21,06:39:51",10.1.1.7,323,-0.290,-0.290,-0.290,0.000,0.000,0.000
1640068791892108032,"2021-12-21,06:39:51",10.1.1.7,0.3937089443206787,-0.290,-0.290,-0.290,0.000,0.000,0.000
1640068792251225088,"2021-12-21,06:39:52",10.1.1.7,349,-0.280,-0.280,-0.280,0.000,0.000,0.000
1640068792266540032,"2021-12-21,06:39:52",10.1.1.7,0.36474108695983887,-0.280,-0.280,-0.280,0.000,0.000,0.000
1640068792611400960,"2021-12-21,06:39:52",10.1.1.7,332,-0.270,-0.270,-0.270,0.000,0.000,0.000
1640068792692141056,"2021-12-21,06:39:52",10.1.1.7,0.41394805908203125,-0.270,-0.270,-0.270,0.000,0.000,0.000
1640068793044684032,"2021-12-21,06:39:53",10.1.1.7,342,-0.260,-0.260,-0.260,0.000,0.000,0.000
1640068793083148032,"2021-12-21,06:39:53",10.1.1.7,0.3813920021057129,-0.260,-0.260,-0.260,0.000,0.000,0.000
1640068793401931008,"2021-12-21,06:39:53",10.1.1.7,316,-0.250,-0.250,-0.250,0.000,0.000,0.000
1640068793415841024,"2021-12-21,06:39:53",10.1.1.7,0.3305478096008301,-0.250,-0.250,-0.250,0.000,0.000,0.000
1640068793787597824,"2021-12-21,06:39:53",10.1.1.7,370,-0.240,-0.240,-0.240,0.000,0.000,0.000
1640068793803342080,"2021-12-21,06:39:53",10.1.1.7,0.3860139846801758,-0.240,-0.240,-0.240,0.000,0.000,0.000
1640068794131098112,"2021-12-21,06:39:54",10.1.1.7,319,-0.230,-0.230,-0.230,0.000,0.000,0.000
1640068794165056000,"2021-12-21,06:39:54",10.1.1.7,0.3535189628601074,-0.230,-0.230,-0.230,0.000,0.000,0.000
1640068794500709888,"2021-12-21,06:39:54",10.1.1.7,333,-0.220,-0.220,-0.220,0.000,0.000,0.000
1640068794572963840,"2021-12-21,06:39:54",10.1.1.7,0.4062221050262451,-0.220,-0.220,-0.220,0.000,0.000,0.000
1640068794901426176,"2021-12-21,06:39:54",10.1.1.7,325,-0.210,-0.210,-0.210,0.000,0.000,0.000
1640068794936003072,"2021-12-21,06:39:54",10.1.1.7,0.36006999015808105,-0.210,-0.210,-0.210,0.000,0.000,0.000
1640068795271425024,"2021-12-21,06:39:55",10.1.1.7,333,-0.200,-0.200,-0.200,0.000,0.000,0.000
1640068795355655936,"2021-12-21,06:39:55",10.1.1.7,0.41815614700317383,-0.200,-0.200,-0.200,0.000,0.000,0.000
1640068795691111936,"2021-12-21,06:39:55",10.1.1.7,327,-0.190,-0.190,-0.190,0.000,0.000,0.000
1640068795740369920,"2021-12-21,06:39:55",10.1.1.7,0.3771519660949707,-0.190,-0.190,-0.190,0.000,0.000,0.000
1640068796052036096,"2021-12-21,06:39:56",10.1.1.7,309,-0.180,-0.180,-0.180,0.000,0.000,0.000
1640068796088854016,"2021-12-21,06:39:56",10.1.1.7,0.3468201160430908,-0.180,-0.180,-0.180,0.000,0.000,0.000
1640068796433209856,"2021-12-21,06:39:56",10.1.1.7,343,-0.170,-0.170,-0.170,0.000,0.000,0.000
1640068796516321024,"2021-12-21,06:39:56",10.1.1.7,0.4261648654937744,-0.170,-0.170,-0.170,0.000,0.000,0.000
1640068796930268160,"2021-12-21,06:39:56",10.1.1.7,410,-0.160,-0.160,-0.160,0.000,0.000,0.000
1640068797003213824,"2021-12-21,06:39:57",10.1.1.7,0.48355889320373535,-0.160,-0.160,-0.160,0.000,0.000,0.000
1640068797320557056,"2021-12-21,06:39:57",10.1.1.7,315,-0.150,-0.150,-0.150,0.000,0.000,0.000
1640068797391310080,"2021-12-21,06:39:57",10.1.1.7,0.3867778778076172,-0.150,-0.150,-0.150,0.000,0.000,0.000
1640068797699351040,"2021-12-21,06:39:57",10.1.1.7,306,-0.140,-0.140,-0.140,0.000,0.000,0.000
1640068797810105088,"2021-12-21,06:39:57",10.1.1.7,0.4169600009918213,-0.140,-0.140,-0.140,0.000,0.000,0.000
1640068798120456960,"2021-12-21,06:39:58",10.1.1.7,309,-0.130,-0.130,-0.130,0.000,0.000,0.000
1640068798171099904,"2021-12-21,06:39:58",10.1.1.7,0.3597409725189209,-0.130,-0.130,-0.130,0.000,0.000,0.000
1640068798508769024,"2021-12-21,06:39:58",10.1.1.7,335,-0.120,-0.120,-0.120,0.000,0.000,0.000
1640068798553985024,"2021-12-21,06:39:58",10.1.1.7,0.38080906867980957,-0.120,-0.120,-0.120,0.000,0.000,0.000
1640068798868753920,"2021-12-21,06:39:58",10.1.1.7,306,-0.110,-0.110,-0.110,0.000,0.000,0.000
1640068798959163904,"2021-12-21,06:39:58",10.1.1.7,0.3970789909362793,-0.110,-0.110,-0.110,0.000,0.000,0.000
1640068799297918208,"2021-12-21,06:39:59",10.1.1.7,332,-0.100,-0.100,-0.100,0.000,0.000,0.000
1640068799308523008,"2021-12-21,06:39:59",10.1.1.7,0.34331703186035156,-0.100,-0.100,-0.100,0.000,0.000,0.000
1640068799667959040,"2021-12-21,06:39:59",10.1.1.7,357,-0.090,-0.090,-0.090,0.000,0.000,0.000
1640068799687758080,"2021-12-21,06:39:59",10.1.1.7,0.37732386589050293,-0.090,-0.090,-0.090,0.000,0.000,0.000
1640068800077810944,"2021-12-21,06:40:00",10.1.1.7,388,-0.080,-0.080,-0.080,0.000,0.000,0.000
1640068800114341888,"2021-12-21,06:40:00",10.1.1.7,0.4247019290924072,-0.080,-0.080,-0.080,0.000,0.000,0.000
1640068800467220992,"2021-12-21,06:40:00",10.1.1.7,350,-0.070,-0.070,-0.070,0.000,0.000,0.000
1640068800541238016,"2021-12-21,06:40:00",10.1.1.7,0.4226570129394531,-0.070,-0.070,-0.070,0.000,0.000,0.000
1640068800913037056,"2021-12-21,06:40:00",10.1.1.7,369,-0.060,-0.060,-0.060,0.000,0.000,0.000
1640068800935121920,"2021-12-21,06:40:00",10.1.1.7,0.3919529914855957,-0.060,-0.060,-0.060,0.000,0.000,0.000
1640068801266764032,"2021-12-21,06:40:01",10.1.1.7,328,-0.050,-0.050,-0.050,0.000,0.000,0.000
1640068801310929152,"2021-12-21,06:40:01",10.1.1.7,0.37278103828430176,-0.050,-0.050,-0.050,0.000,0.000,0.000
1640068801655961088,"2021-12-21,06:40:01",10.1.1.7,343,-0.040,-0.040,-0.040,0.000,0.000,0.000
1640068801700583936,"2021-12-21,06:40:01",10.1.1.7,0.3881540298461914,-0.040,-0.040,-0.040,0.000,0.000,0.000
1640068802025705984,"2021-12-21,06:40:02",10.1.1.7,323,-0.030,-0.030,-0.030,0.000,0.000,0.000
1640068802068187904,"2021-12-21,06:40:02",10.1.1.7,0.36594104766845703,-0.030,-0.030,-0.030,0.000,0.000,0.000
1640068802404727808,"2021-12-21,06:40:02",10.1.1.7,334,-0.020,-0.020,-0.020,0.000,0.000,0.000
1640068802477370112,"2021-12-21,06:40:02",10.1.1.7,0.40700387954711914,-0.020,-0.020,-0.020,0.000,0.000,0.000
1640068802765562112,"2021-12-21,06:40:02",10.1.1.7,286,-0.010,-0.010,-0.010,0.000,0.000,0.000
1640068802799439872,"2021-12-21,06:40:02",10.1.1.7,0.32044196128845215,-0.010,-0.010,-0.010,0.000,0.000,0.000
1640068803174182912,"2021-12-21,06:40:03",10.1.1.7,373,0.000,0.000,0.000,0.000,0.000,0.000
1640068803217172992,"2021-12-21,06:40:03",10.1.1.7,0.41608095169067383,0.000,0.000,0.000,0.000,0.000,0.000
1640068803563868928,"2021-12-21,06:40:03",10.1.1.7,332,-0.010,-0.010,-0.010,0.000,0.000,0.000
1640068803621773056,"2021-12-21,06:40:03",10.1.1.7,0.3910050392150879,-0.010,-0.010,-0.010,0.000,0.000,0.000
1640068804033157120,"2021-12-21,06:40:04",10.1.1.7,407,-0.020,-0.020,-0.020,0.000,0.000,0.000
1640068804081794048,"2021-12-21,06:40:04",10.1.1.7,0.4565281867980957,-0.020,-0.020,-0.020,0.000,0.000,0.000
1640068804462425856,"2021-12-21,06:40:04",10.1.1.7,378,-0.030,-0.030,-0.030,0.000,0.000,0.000
1640068804558434048,"2021-12-21,06:40:04",10.1.1.7,0.4749610424041748,-0.030,-0.030,-0.030,0.000,0.000,0.000
1640068804945266944,"2021-12-21,06:40:04",10.1.1.7,383,-0.040,-0.040,-0.040,0.000,0.000,0.000
1640068804984103936,"2021-12-21,06:40:04",10.1.1.7,0.4227621555328369,-0.040,-0.040,-0.040,0.000,0.000,0.000
1640068805381798912,"2021-12-21,06:40:05",10.1.1.7,395,-0.050,-0.050,-0.050,0.000,0.000,0.000
1640068805434092032,"2021-12-21,06:40:05",10.1.1.7,0.4477097988128662,-0.050,-0.050,-0.050,0.000,0.000,0.000
1640068805792710912,"2021-12-21,06:40:05",10.1.1.7,343,-0.060,-0.060,-0.060,0.000,0.000,0.000
1640068805863343872,"2021-12-21,06:40:05",10.1.1.7,0.41640710830688477,-0.060,-0.060,-0.060,0.000,0.000,0.000
1640068806201925888,"2021-12-21,06:40:06",10.1.1.7,337,-0.070,-0.070,-0.070,0.000,0.000,0.000
1640068806268371200,"2021-12-21,06:40:06",10.1.1.7,0.40375494956970215,-0.070,-0.070,-0.070,0.000,0.000,0.000
1640068806659593984,"2021-12-21,06:40:06",10.1.1.7,388,-0.080,-0.080,-0.080,0.000,0.000,0.000
1640068806743302144,"2021-12-21,06:40:06",10.1.1.7,0.4723091125488281,-0.080,-0.080,-0.080,0.000,0.000,0.000
1640068807068852992,"2021-12-21,06:40:07",10.1.1.7,323,-0.090,-0.090,-0.090,0.000,0.000,0.000
1640068807149266944,"2021-12-21,06:40:07",10.1.1.7,0.4036879539489746,-0.090,-0.090,-0.090,0.000,0.000,0.000
1640068807480235008,"2021-12-21,06:40:07",10.1.1.7,329,-0.100,-0.100,-0.100,0.000,0.000,0.000
1640068807576605952,"2021-12-21,06:40:07",10.1.1.7,0.42604899406433105,-0.100,-0.100,-0.100,0.000,0.000,0.000
1640068807937804032,"2021-12-21,06:40:07",10.1.1.7,358,-0.110,-0.110,-0.110,0.000,0.000,0.000
1640068807986917888,"2021-12-21,06:40:07",10.1.1.7,0.4075901508331299,-0.110,-0.110,-0.110,0.000,0.000,0.000
1640068808337080832,"2021-12-21,06:40:08",10.1.1.7,347,-0.120,-0.120,-0.120,0.000,0.000,0.000
1640068808365607936,"2021-12-21,06:40:08",10.1.1.7,0.37659215927124023,-0.120,-0.120,-0.120,0.000,0.000,0.000
1640068808698690048,"2021-12-21,06:40:08",10.1.1.7,331,-0.130,-0.130,-0.130,0.000,0.000,0.000
1640068808757494016,"2021-12-21,06:40:08",10.1.1.7,0.3903970718383789,-0.130,-0.130,-0.130,0.000,0.000,0.000
1640068809067934976,"2021-12-21,06:40:09",10.1.1.7,309,-0.140,-0.140,-0.140,0.000,0.000,0.000
1640068809141836032,"2021-12-21,06:40:09",10.1.1.7,0.383073091506958,-0.140,-0.140,-0.140,0.000,0.000,0.000
1640068809465662976,"2021-12-21,06:40:09",10.1.1.7,317,-0.150,-0.150,-0.150,0.000,0.000,0.000
1640068809513336064,"2021-12-21,06:40:09",10.1.1.7,0.36571502685546875,-0.150,-0.150,-0.150,0.000,0.000,0.000
1640068809834852096,"2021-12-21,06:40:09",10.1.1.7,319,-0.160,-0.160,-0.160,0.000,0.000,0.000
1640068809921799936,"2021-12-21,06:40:09",10.1.1.7,0.4068610668182373,-0.160,-0.160,-0.160,0.000,0.000,0.000
1640068810264476928,"2021-12-21,06:40:10",10.1.1.7,341,-0.170,-0.170,-0.170,0.000,0.000,0.000
1640068810284307968,"2021-12-21,06:40:10",10.1.1.7,0.3610219955444336,-0.170,-0.170,-0.170,0.000,0.000,0.000
1640068810643714816,"2021-12-21,06:40:10",10.1.1.7,355,-0.180,-0.180,-0.180,0.000,0.000,0.000
1640068810702306048,"2021-12-21,06:40:10",10.1.1.7,0.4143080711364746,-0.180,-0.180,-0.180,0.000,0.000,0.000
1640068811083187200,"2021-12-21,06:40:11",10.1.1.7,377,-0.190,-0.190,-0.190,0.000,0.000,0.000
1640068811116206848,"2021-12-21,06:40:11",10.1.1.7,0.41013002395629883,-0.190,-0.190,-0.190,0.000,0.000,0.000
1640068811433532928,"2021-12-21,06:40:11",10.1.1.7,315,-0.200,-0.200,-0.200,0.000,0.000,0.000
1640068811528855040,"2021-12-21,06:40:11",10.1.1.7,0.4106419086456299,-0.200,-0.200,-0.200,0.000,0.000,0.000
1640068811852008960,"2021-12-21,06:40:11",10.1.1.7,320,-0.210,-0.210,-0.210,0.000,0.000,0.000
1640068811880839936,"2021-12-21,06:40:11",10.1.1.7,0.34970903396606445,-0.210,-0.210,-0.210,0.000,0.000,0.000
1640068812192316160,"2021-12-21,06:40:12",10.1.1.7,309,-0.220,-0.220,-0.220,0.000,0.000,0.000
1640068812248902144,"2021-12-21,06:40:12",10.1.1.7,0.3666059970855713,-0.220,-0.220,-0.220,0.000,0.000,0.000
1640068812580809216,"2021-12-21,06:40:12",10.1.1.7,328,-0.230,-0.230,-0.230,0.000,0.000,0.000
1640068812611779072,"2021-12-21,06:40:12",10.1.1.7,0.3597860336303711,-0.230,-0.230,-0.230,0.000,0.000,0.000
1640068812980883968,"2021-12-21,06:40:12",10.1.1.7,367,-0.240,-0.240,-0.240,0.000,0.000,0.000
1640068813039393792,"2021-12-21,06:40:13",10.1.1.7,0.42623281478881836,-0.240,-0.240,-0.240,0.000,0.000,0.000
1640068813410681856,"2021-12-21,06:40:13",10.1.1.7,369,-0.250,-0.250,-0.250,0.000,0.000,0.000
1640068813507805952,"2021-12-21,06:40:13",10.1.1.7,0.46683597564697266,-0.250,-0.250,-0.250,0.000,0.000,0.000
1640068813829093888,"2021-12-21,06:40:13",10.1.1.7,316,-0.260,-0.260,-0.260,0.000,0.000,0.000
1640068813897308160,"2021-12-21,06:40:13",10.1.1.7,0.3850681781768799,-0.260,-0.260,-0.260,0.000,0.000,0.000
1640068814260333056,"2021-12-21,06:40:14",10.1.1.7,360,-0.270,-0.270,-0.270,0.000,0.000,0.000
1640068814304100096,"2021-12-21,06:40:14",10.1.1.7,0.4046769142150879,-0.270,-0.270,-0.270,0.000,0.000,0.000
1640068814637486080,"2021-12-21,06:40:14",10.1.1.7,328,-0.280,-0.280,-0.280,0.000,0.000,0.000
1640068814698795008,"2021-12-21,06:40:14",10.1.1.7,0.3900151252746582,-0.280,-0.280,-0.280,0.000,0.000,0.000
1640068815037793024,"2021-12-21,06:40:15",10.1.1.7,337,-0.290,-0.290,-0.290,0.000,0.000,0.000
1640068815091628032,"2021-12-21,06:40:15",10.1.1.7,0.3915078639984131,-0.290,-0.290,-0.290,0.000,0.000,0.000
1640068815400163840,"2021-12-21,06:40:15",10.1.1.7,307,-0.300,-0.300,-0.300,0.000,0.000,0.000
1640068815464148992,"2021-12-21,06:40:15",10.1.1.7,0.37125587463378906,-0.300,-0.300,-0.300,0.000,0.000,0.000
1640068815800295168,"2021-12-21,06:40:15",10.1.1.7,334,-0.310,-0.310,-0.310,0.000,0.000,0.000
1640068815858924032,"2021-12-21,06:40:15",10.1.1.7,0.39308595657348633,-0.310,-0.310,-0.310,0.000,0.000,0.000
1640068816192209920,"2021-12-21,06:40:16",10.1.1.7,332,-0.320,-0.320,-0.320,0.000,0.000,0.000
1640068816243574016,"2021-12-21,06:40:16",10.1.1.7,0.38291382789611816,-0.320,-0.320,-0.320,0.000,0.000,0.000
1640068816563222784,"2021-12-21,06:40:16",10.1.1.7,317,-0.330,-0.330,-0.330,0.000,0.000,0.000
1640068816614185984,"2021-12-21,06:40:16",10.1.1.7,0.3688688278198242,-0.330,-0.330,-0.330,0.000,0.000,0.000
1640068816979633152,"2021-12-21,06:40:16",10.1.1.7,363,-0.340,-0.340,-0.340,0.000,0.000,0.000
1640068816998387968,"2021-12-21,06:40:16",10.1.1.7,0.3824481964111328,-0.340,-0.340,-0.340,0.000,0.000,0.000
1640068817337398016,"2021-12-21,06:40:17",10.1.1.7,337,-0.350,-0.350,-0.350,0.000,0.000,0.000
1640068817367405056,"2021-12-21,06:40:17",10.1.1.7,0.3674190044403076,-0.350,-0.350,-0.350,0.000,0.000,0.000
1640068817707758848,"2021-12-21,06:40:17",10.1.1.7,338,-0.360,-0.360,-0.360,0.000,0.000,0.000
1640068817750775040,"2021-12-21,06:40:17",10.1.1.7,0.3816251754760742,-0.360,-0.360,-0.360,0.000,0.000,0.000
1640068818099883008,"2021-12-21,06:40:18",10.1.1.7,345,-0.370,-0.370,-0.370,0.000,0.000,0.000
1640068818137216000,"2021-12-21,06:40:18",10.1.1.7,0.38299989700317383,-0.370,-0.370,-0.370,0.000,0.000,0.000
1640068818480681984,"2021-12-21,06:40:18",10.1.1.7,340,-0.380,-0.380,-0.380,0.000,0.000,0.000
1640068818521365760,"2021-12-21,06:40:18",10.1.1.7,0.3807640075683594,-0.380,-0.380,-0.380,0.000,0.000,0.000
1640068818841099008,"2021-12-21,06:40:18",10.1.1.7,317,-0.390,-0.390,-0.390,0.000,0.000,0.000
1640068818918921984,"2021-12-21,06:40:18",10.1.1.7,0.39588212966918945,-0.390,-0.390,-0.390,0.000,0.000,0.000
1640068819273299968,"2021-12-21,06:40:19",10.1.1.7,350,-0.400,-0.400,-0.400,0.000,0.000,0.000
1640068819308432128,"2021-12-21,06:40:19",10.1.1.7,0.38417696952819824,-0.400,-0.400,-0.400,0.000,0.000,0.000
1640068819643876096,"2021-12-21,06:40:19",10.1.1.7,333,-0.410,-0.410,-0.410,0.000,0.000,0.000
1640068819696002048,"2021-12-21,06:40:19",10.1.1.7,0.38576292991638184,-0.410,-0.410,-0.410,0.000,0.000,0.000
1640068820065007872,"2021-12-21,06:40:20",10.1.1.7,356,-0.420,-0.420,-0.420,0.000,0.000,0.000
1640068820142571008,"2021-12-21,06:40:20",10.1.1.7,0.43464112281799316,-0.420,-0.420,-0.420,0.000,0.000,0.000
1640068820535872000,"2021-12-21,06:40:20",10.1.1.7,386,-0.430,-0.430,-0.430,0.000,0.000,0.000
1640068820581292032,"2021-12-21,06:40:20",10.1.1.7,0.43407511711120605,-0.430,-0.430,-0.430,0.000,0.000,0.000
1640068820947695104,"2021-12-21,06:40:20",10.1.1.7,364,-0.440,-0.440,-0.440,0.000,0.000,0.000
1640068820965863936,"2021-12-21,06:40:20",10.1.1.7,0.38284897804260254,-0.440,-0.440,-0.440,0.000,0.000,0.000
1640068821316133120,"2021-12-21,06:40:21",10.1.1.7,348,-0.450,-0.450,-0.450,0.000,0.000,0.000
1640068821336962048,"2021-12-21,06:40:21",10.1.1.7,0.3696439266204834,-0.450,-0.450,-0.450,0.000,0.000,0.000
1640068821656028928,"2021-12-21,06:40:21",10.1.1.7,312,-0.460,-0.460,-0.460,0.000,0.000,0.000
1640068821706105088,"2021-12-21,06:40:21",10.1.1.7,0.3619999885559082,-0.460,-0.460,-0.460,0.000,0.000,0.000
1640068822027034112,"2021-12-21,06:40:22",10.1.1.7,317,-0.470,-0.470,-0.470,0.000,0.000,0.000
1640068822113081856,"2021-12-21,06:40:22",10.1.1.7,0.4034888744354248,-0.470,-0.470,-0.470,0.000,0.000,0.000
1640068822467921920,"2021-12-21,06:40:22",10.1.1.7,353,-0.480,-0.480,-0.480,0.000,0.000,0.000
1640068822605971200,"2021-12-21,06:40:22",10.1.1.7,0.49121594429016113,-0.480,-0.480,-0.480,0.000,0.000,0.000
1640068823117829120,"2021-12-21,06:40:23",10.1.1.7,426,-0.490,-0.490,-0.490,0.000,0.000,0.000
1640068823149018880,"2021-12-21,06:40:23",10.1.1.7,0.45794105529785156,-0.490,-0.490,-0.490,0.000,0.000,0.000
1640068823537581824,"2021-12-21,06:40:23",10.1.1.7,383,-0.480,-0.480,-0.480,0.000,0.000,0.000
1640068823626192128,"2021-12-21,06:40:23",10.1.1.7,0.4720628261566162,-0.480,-0.480,-0.480,0.000,0.000,0.000
1640068824004937984,"2021-12-21,06:40:24",10.1.1.7,373,-0.470,-0.470,-0.470,0.000,0.000,0.000
1640068824067208960,"2021-12-21,06:40:24",10.1.1.7,0.436492919921875,-0.470,-0.470,-0.470,0.000,0.000,0.000
1640068824378646016,"2021-12-21,06:40:24",10.1.1.7,309,-0.460,-0.460,-0.460,0.000,0.000,0.000
1640068824410217984,"2021-12-21,06:40:24",10.1.1.7,0.34117913246154785,-0.460,-0.460,-0.460,0.000,0.000,0.000
1640068824740739072,"2021-12-21,06:40:24",10.1.1.7,329,-0.450,-0.450,-0.450,0.000,0.000,0.000
1640068824758016000,"2021-12-21,06:40:24",10.1.1.7,0.34652209281921387,-0.450,-0.450,-0.450,0.000,0.000,0.000
1640068825088530176,"2021-12-21,06:40:25",10.1.1.7,328,-0.440,-0.440,-0.440,0.000,0.000,0.000
1640068825148233984,"2021-12-21,06:40:25",10.1.1.7,0.3885481357574463,-0.440,-0.440,-0.440,0.000,0.000,0.000
1640068825479027968,"2021-12-21,06:40:25",10.1.1.7,325,-0.430,-0.430,-0.430,0.000,0.000,0.000
1640068825502352896,"2021-12-21,06:40:25",10.1.1.7,0.34927797317504883,-0.430,-0.430,-0.430,0.000,0.000,0.000
1640068825858127104,"2021-12-21,06:40:25",10.1.1.7,349,-0.420,-0.420,-0.420,0.000,0.000,0.000
1640068825885571840,"2021-12-21,06:40:25",10.1.1.7,0.3765227794647217,-0.420,-0.420,-0.420,0.000,0.000,0.000
1640068826256875008,"2021-12-21,06:40:26",10.1.1.7,0.36565709114074707,-0.410,-0.410,-0.410,0.000,0.000,0.000
1640068826257910016,"2021-12-21,06:40:26",10.1.1.7,366,-0.410,-0.410,-0.410,0.000,0.000,0.000
1640068826640048896,"2021-12-21,06:40:26",10.1.1.7,381,-0.400,-0.400,-0.400,0.000,0.000,0.000
1640068826688150784,"2021-12-21,06:40:26",10.1.1.7,0.42928099632263184,-0.400,-0.400,-0.400,0.000,0.000,0.000
1640068827028219904,"2021-12-21,06:40:27",10.1.1.7,327,-0.390,-0.390,-0.390,0.000,0.000,0.000
1640068827062333952,"2021-12-21,06:40:27",10.1.1.7,0.3615250587463379,-0.390,-0.390,-0.390,0.000,0.000,0.000
1640068827390561024,"2021-12-21,06:40:27",10.1.1.7,326,-0.380,-0.380,-0.380,0.000,0.000,0.000
1640068827438298112,"2021-12-21,06:40:27",10.1.1.7,0.374575138092041,-0.380,-0.380,-0.380,0.000,0.000,0.000
1640068827778615040,"2021-12-21,06:40:27",10.1.1.7,336,-0.370,-0.370,-0.370,0.000,0.000,0.000
1640068827833390080,"2021-12-21,06:40:27",10.1.1.7,0.3911900520324707,-0.370,-0.370,-0.370,0.000,0.000,0.000
1640068828178366976,"2021-12-21,06:40:28",10.1.1.7,336,-0.360,-0.360,-0.360,0.000,0.000,0.000
1640068828229526016,"2021-12-21,06:40:28",10.1.1.7,0.387937068939209,-0.360,-0.360,-0.360,0.000,0.000,0.000
1640068828568486912,"2021-12-21,06:40:28",10.1.1.7,337,-0.350,-0.350,-0.350,0.000,0.000,0.000
1640068828593178112,"2021-12-21,06:40:28",10.1.1.7,0.3622012138366699,-0.350,-0.350,-0.350,0.000,0.000,0.000
1640068828906532096,"2021-12-21,06:40:28",10.1.1.7,311,-0.340,-0.340,-0.340,0.000,0.000,0.000
1640068829005306112,"2021-12-21,06:40:29",10.1.1.7,0.41008687019348145,-0.340,-0.340,-0.340,0.000,0.000,0.000
1640068829357507840,"2021-12-21,06:40:29",10.1.1.7,350,-0.330,-0.330,-0.330,0.000,0.000,0.000
1640068829397800960,"2021-12-21,06:40:29",10.1.1.7,0.39090490341186523,-0.330,-0.330,-0.330,0.000,0.000,0.000
1640068829778331136,"2021-12-21,06:40:29",10.1.1.7,374,-0.320,-0.320,-0.320,0.000,0.000,0.000
1640068829839186944,"2021-12-21,06:40:29",10.1.1.7,0.4355199337005615,-0.320,-0.320,-0.320,0.000,0.000,0.000
1640068830178029056,"2021-12-21,06:40:30",10.1.1.7,333,-0.310,-0.310,-0.310,0.000,0.000,0.000
1640068830248557056,"2021-12-21,06:40:30",10.1.1.7,0.40395593643188477,-0.310,-0.310,-0.310,0.000,0.000,0.000
1640068830576003072,"2021-12-21,06:40:30",10.1.1.7,323,-0.300,-0.300,-0.300,0.000,0.000,0.000
1640068830638767872,"2021-12-21,06:40:30",10.1.1.7,0.3865699768066406,-0.300,-0.300,-0.300,0.000,0.000,0.000
1640068831027968768,"2021-12-21,06:40:31",10.1.1.7,386,-0.290,-0.290,-0.290,0.000,0.000,0.000
1640068831073867008,"2021-12-21,06:40:31",10.1.1.7,0.43221092224121094,-0.290,-0.290,-0.290,0.000,0.000,0.000
1640068831395701760,"2021-12-21,06:40:31",10.1.1.7,318,-0.280,-0.280,-0.280,0.000,0.000,0.000
1640068831468342016,"2021-12-21,06:40:31",10.1.1.7,0.3907589912414551,-0.280,-0.280,-0.280,0.000,0.000,0.000
1640068831854895104,"2021-12-21,06:40:31",10.1.1.7,368,-0.270,-0.270,-0.270,0.000,0.000,0.000
1640068831887064832,"2021-12-21,06:40:31",10.1.1.7,0.40061283111572266,-0.270,-0.270,-0.270,0.000,0.000,0.000
1640068832254843904,"2021-12-21,06:40:32",10.1.1.7,359,-0.260,-0.260,-0.260,0.000,0.000,0.000
1640068832300550912,"2021-12-21,06:40:32",10.1.1.7,0.4056861400604248,-0.260,-0.260,-0.260,0.000,0.000,0.000
1640068832614852864,"2021-12-21,06:40:32",10.1.1.7,312,-0.250,-0.250,-0.250,0.000,0.000,0.000
1640068832679749888,"2021-12-21,06:40:32",10.1.1.7,0.3776230812072754,-0.250,-0.250,-0.250,0.000,0.000,0.000
1640068832994637056,"2021-12-21,06:40:32",10.1.1.7,313,-0.240,-0.240,-0.240,0.000,0.000,0.000
1640068833070364928,"2021-12-21,06:40:33",10.1.1.7,0.38940906524658203,-0.240,-0.240,-0.240,0.000,0.000,0.000
1640068833423485952,"2021-12-21,06:40:33",10.1.1.7,350,-0.230,-0.230,-0.230,0.000,0.000,0.000
1640068833456218880,"2021-12-21,06:40:33",10.1.1.7,0.3835740089416504,-0.230,-0.230,-0.230,0.000,0.000,0.000
1640068833822062848,"2021-12-21,06:40:33",10.1.1.7,364,-0.220,-0.220,-0.220,0.000,0.000,0.000
1640068833853430016,"2021-12-21,06:40:33",10.1.1.7,0.3956260681152344,-0.220,-0.220,-0.220,0.000,0.000,0.000
1640068834218139904,"2021-12-21,06:40:34",10.1.1.7,360,-0.210,-0.210,-0.210,0.000,0.000,0.000
1640068834319841024,"2021-12-21,06:40:34",10.1.1.7,0.46179890632629395,-0.210,-0.210,-0.210,0.000,0.000,0.000
1640068834721005824,"2021-12-21,06:40:34",10.1.1.7,399,-0.200,-0.200,-0.200,0.000,0.000,0.000
1640068834786022912,"2021-12-21,06:40:34",10.1.1.7,0.4648301601409912,-0.200,-0.200,-0.200,0.000,0.000,0.000
1640068835101690112,"2021-12-21,06:40:35",10.1.1.7,314,-0.190,-0.190,-0.190,0.000,0.000,0.000
1640068835131567104,"2021-12-21,06:40:35",10.1.1.7,0.3436129093170166,-0.190,-0.190,-0.190,0.000,0.000,0.000
1640068835470086144,"2021-12-21,06:40:35",10.1.1.7,336,-0.180,-0.180,-0.180,0.000,0.000,0.000
1640068835548176896,"2021-12-21,06:40:35",10.1.1.7,0.415010929107666,-0.180,-0.180,-0.180,0.000,0.000,0.000
1640068835869812992,"2021-12-21,06:40:35",10.1.1.7,320,-0.170,-0.170,-0.170,0.000,0.000,0.000
1640068835926049024,"2021-12-21,06:40:35",10.1.1.7,0.37658095359802246,-0.170,-0.170,-0.170,0.000,0.000,0.000
1640068836269900032,"2021-12-21,06:40:36",10.1.1.7,341,-0.160,-0.160,-0.160,0.000,0.000,0.000
1640068836294231808,"2021-12-21,06:40:36",10.1.1.7,0.3658421039581299,-0.160,-0.160,-0.160,0.000,0.000,0.000
1640068836639766016,"2021-12-21,06:40:36",10.1.1.7,339,-0.150,-0.150,-0.150,0.000,0.000,0.000
1640068836720526848,"2021-12-21,06:40:36",10.1.1.7,0.4188830852508545,-0.150,-0.150,-0.150,0.000,0.000,0.000
1640068837058566144,"2021-12-21,06:40:37",10.1.1.7,327,-0.140,-0.140,-0.140,0.000,0.000,0.000
1640068837150275072,"2021-12-21,06:40:37",10.1.1.7,0.41912388801574707,-0.140,-0.140,-0.140,0.000,0.000,0.000
1640068837510984960,"2021-12-21,06:40:37",10.1.1.7,344,-0.130,-0.130,-0.130,0.000,0.000,0.000
1640068837545777152,"2021-12-21,06:40:37",10.1.1.7,0.37952399253845215,-0.130,-0.130,-0.130,0.000,0.000,0.000
1640068837927089920,"2021-12-21,06:40:37",10.1.1.7,378,-0.120,-0.120,-0.120,0.000,0.000,0.000
1640068837998304000,"2021-12-21,06:40:37",10.1.1.7,0.449923038482666,-0.120,-0.120,-0.120,0.000,0.000,0.000
1640068838309325824,"2021-12-21,06:40:38",10.1.1.7,308,-0.110,-0.110,-0.110,0.000,0.000,0.000
1640068838436623104,"2021-12-21,06:40:38",10.1.1.7,0.435992956161499,-0.110,-0.110,-0.110,0.000,0.000,0.000
1640068838834310912,"2021-12-21,06:40:38",10.1.1.7,394,-0.100,-0.100,-0.100,0.000,0.000,0.000
1640068838906142976,"2021-12-21,06:40:38",10.1.1.7,0.46653103828430176,-0.100,-0.100,-0.100,0.000,0.000,0.000
1640068839284699904,"2021-12-21,06:40:39",10.1.1.7,364,-0.090,-0.090,-0.090,0.000,0.000,0.000
1640068839372184064,"2021-12-21,06:40:39",10.1.1.7,0.4521491527557373,-0.090,-0.090,-0.090,0.000,0.000,0.000
1640068839736103168,"2021-12-21,06:40:39",10.1.1.7,362,-0.080,-0.080,-0.080,0.000,0.000,0.000
1640068839822567936,"2021-12-21,06:40:39",10.1.1.7,0.44886279106140137,-0.080,-0.080,-0.080,0.000,0.000,0.000
1640068840213512960,"2021-12-21,06:40:40",10.1.1.7,386,-0.070,-0.070,-0.070,0.000,0.000,0.000
1640068840255527936,"2021-12-21,06:40:40",10.1.1.7,0.4283180236816406,-0.070,-0.070,-0.070,0.000,0.000,0.000
1640068840623558144,"2021-12-21,06:40:40",10.1.1.7,365,-0.060,-0.060,-0.060,0.000,0.000,0.000
1640068840693548800,"2021-12-21,06:40:40",10.1.1.7,0.43538999557495117,-0.060,-0.060,-0.060,0.000,0.000,0.000
1640068841032429056,"2021-12-21,06:40:41",10.1.1.7,333,-0.050,-0.050,-0.050,0.000,0.000,0.000
1640068841103117824,"2021-12-21,06:40:41",10.1.1.7,0.40451598167419434,-0.050,-0.050,-0.050,0.000,0.000,0.000
1640068841492638208,"2021-12-21,06:40:41",10.1.1.7,385,-0.040,-0.040,-0.040,0.000,0.000,0.000
1640068841595700992,"2021-12-21,06:40:41",10.1.1.7,0.48862290382385254,-0.040,-0.040,-0.040,0.000,0.000,0.000
1640068841996252928,"2021-12-21,06:40:41",10.1.1.7,399,-0.030,-0.030,-0.030,0.000,0.000,0.000
1640068842045125120,"2021-12-21,06:40:42",10.1.1.7,0.4479990005493164,-0.030,-0.030,-0.030,0.000,0.000,0.000
1640068842397150976,"2021-12-21,06:40:42",10.1.1.7,350,-0.020,-0.020,-0.020,0.000,0.000,0.000
1640068842444680960,"2021-12-21,06:40:42",10.1.1.7,0.3980062007904053,-0.020,-0.020,-0.020,0.000,0.000,0.000
1640068842809497088,"2021-12-21,06:40:42",10.1.1.7,360,-0.010,-0.010,-0.010,0.000,0.000,0.000
1640068842894891008,"2021-12-21,06:40:42",10.1.1.7,0.44479990005493164,-0.010,-0.010,-0.010,0.000,0.000,0.000
1640068843248852992,"2021-12-21,06:40:43",10.1.1.7,352,0.000,0.000,0.000,0.000,0.000,0.000
1640068843302467072,"2021-12-21,06:40:43",10.1.1.7,0.4063131809234619,0.000,0.000,0.000,0.000,0.000,0.000
1640068843628736000,"2021-12-21,06:40:43",10.1.1.7,324,-0.010,-0.010,-0.010,0.000,0.000,0.000
1640068843666246912,"2021-12-21,06:40:43",10.1.1.7,0.36209917068481445,-0.010,-0.010,-0.010,0.000,0.000,0.000
1640068843998106880,"2021-12-21,06:40:43",10.1.1.7,327,-0.020,-0.020,-0.020,0.000,0.000,0.000
1640068844057701120,"2021-12-21,06:40:44",10.1.1.7,0.3873410224914551,-0.020,-0.020,-0.020,0.000,0.000,0.000
1640068844418077952,"2021-12-21,06:40:44",10.1.1.7,349,-0.030,-0.030,-0.030,0.000,0.000,0.000
1640068844462927104,"2021-12-21,06:40:44",10.1.1.7,0.3941349983215332,-0.030,-0.030,-0.030,0.000,0.000,0.000
1640068844821191168,"2021-12-21,06:40:44",10.1.1.7,353,-0.040,-0.040,-0.040,0.000,0.000,0.000
1640068844881850880,"2021-12-21,06:40:44",10.1.1.7,0.41422414779663086,-0.040,-0.040,-0.040,0.000,0.000,0.000
1640068845226855936,"2021-12-21,06:40:45",10.1.1.7,343,-0.050,-0.050,-0.050,0.000,0.000,0.000
1640068845277362944,"2021-12-21,06:40:45",10.1.1.7,0.39398622512817383,-0.050,-0.050,-0.050,0.000,0.000,0.000
1640068845586636032,"2021-12-21,06:40:45",10.1.1.7,307,-0.060,-0.060,-0.060,0.000,0.000,0.000
1640068845658833152,"2021-12-21,06:40:45",10.1.1.7,0.3800480365753174,-0.060,-0.060,-0.060,0.000,0.000,0.000
1640068845985389824,"2021-12-21,06:40:45",10.1.1.7,324,-0.070,-0.070,-0.070,0.000,0.000,0.000
1640068846027742976,"2021-12-21,06:40:46",10.1.1.7,0.3666229248046875,-0.070,-0.070,-0.070,0.000,0.000,0.000
1640068846414406912,"2021-12-21,06:40:46",10.1.1.7,385,-0.080,-0.080,-0.080,0.000,0.000,0.000
1640068846465456896,"2021-12-21,06:40:46",10.1.1.7,0.43633604049682617,-0.080,-0.080,-0.080,0.000,0.000,0.000
1640068846853240064,"2021-12-21,06:40:46",10.1.1.7,375,-0.090,-0.090,-0.090,0.000,0.000,0.000
1640068846937402880,"2021-12-21,06:40:46",10.1.1.7,0.4597451686859131,-0.090,-0.090,-0.090,0.000,0.000,0.000
1640068847305943040,"2021-12-21,06:40:47",10.1.1.7,357,-0.100,-0.100,-0.100,0.000,0.000,0.000
1640068847381915136,"2021-12-21,06:40:47",10.1.1.7,0.43315911293029785,-0.100,-0.100,-0.100,0.000,0.000,0.000
1640068847737955072,"2021-12-21,06:40:47",10.1.1.7,352,-0.110,-0.110,-0.110,0.000,0.000,0.000
1640068847813853952,"2021-12-21,06:40:47",10.1.1.7,0.4287269115447998,-0.110,-0.110,-0.110,0.000,0.000,0.000
1640068848199965952,"2021-12-21,06:40:48",10.1.1.7,371,-0.120,-0.120,-0.120,0.000,0.000,0.000
1640068848354226176,"2021-12-21,06:40:48",10.1.1.7,0.5258240699768066,-0.120,-0.120,-0.120,0.000,0.000,0.000
1640068848762298112,"2021-12-21,06:40:48",10.1.1.7,404,-0.130,-0.130,-0.130,0.000,0.000,0.000
1640068848852932864,"2021-12-21,06:40:48",10.1.1.7,0.49685192108154297,-0.130,-0.130,-0.130,0.000,0.000,0.000
1640068849184369920,"2021-12-21,06:40:49",10.1.1.7,329,-0.140,-0.140,-0.140,0.000,0.000,0.000
1640068849255012096,"2021-12-21,06:40:49",10.1.1.7,0.39992618560791016,-0.140,-0.140,-0.140,0.000,0.000,0.000
1640068849576164096,"2021-12-21,06:40:49",10.1.1.7,319,-0.150,-0.150,-0.150,0.000,0.000,0.000
1640068849657676032,"2021-12-21,06:40:49",10.1.1.7,0.4014558792114258,-0.150,-0.150,-0.150,0.000,0.000,0.000
1640068849997015040,"2021-12-21,06:40:49",10.1.1.7,337,-0.160,-0.160,-0.160,0.000,0.000,0.000
1640068850021464064,"2021-12-21,06:40:50",10.1.1.7,0.3620121479034424,-0.160,-0.160,-0.160,0.000,0.000,0.000
1640068850449302016,"2021-12-21,06:40:50",10.1.1.7,424,-0.170,-0.170,-0.170,0.000,0.000,0.000
1640068850484694016,"2021-12-21,06:40:50",10.1.1.7,0.4603722095489502,-0.170,-0.170,-0.170,0.000,0.000,0.000
1640068850861115904,"2021-12-21,06:40:50",10.1.1.7,374,-0.180,-0.180,-0.180,0.000,0.000,0.000
1640068850931870976,"2021-12-21,06:40:50",10.1.1.7,0.44574809074401855,-0.180,-0.180,-0.180,0.000,0.000,0.000
1640068851280114944,"2021-12-21,06:40:51",10.1.1.7,345,-0.190,-0.190,-0.190,0.000,0.000,0.000
1640068851318849024,"2021-12-21,06:40:51",10.1.1.7,0.3836829662322998,-0.190,-0.190,-0.190,0.000,0.000,0.000
1640068851660446976,"2021-12-21,06:40:51",10.1.1.7,338,-0.200,-0.200,-0.200,0.000,0.000,0.000
1640068851789263872,"2021-12-21,06:40:51",10.1.1.7,0.46764612197875977,-0.200,-0.200,-0.200,0.000,0.000,0.000
1640068852162092800,"2021-12-21,06:40:52",10.1.1.7,366,-0.210,-0.210,-0.210,0.000,0.000,0.000
1640068852220210944,"2021-12-21,06:40:52",10.1.1.7,0.42449212074279785,-0.210,-0.210,-0.210,0.000,0.000,0.000
1640068852563004928,"2021-12-21,06:40:52",10.1.1.7,339,-0.220,-0.220,-0.220,0.000,0.000,0.000
1640068852683739904,"2021-12-21,06:40:52",10.1.1.7,0.4604160785675049,-0.220,-0.220,-0.220,0.000,0.000,0.000
1640068853033297152,"2021-12-21,06:40:53",10.1.1.7,341,-0.230,-0.230,-0.230,0.000,0.000,0.000
1640068853142315008,"2021-12-21,06:40:53",10.1.1.7,0.4508681297302246,-0.230,-0.230,-0.230,0.000,0.000,0.000
1640068853483899136,"2021-12-21,06:40:53",10.1.1.7,338,-0.240,-0.240,-0.240,0.000,0.000,0.000
1640068853554562048,"2021-12-21,06:40:53",10.1.1.7,0.40942811965942383,-0.240,-0.240,-0.240,0.000,0.000,0.000
1640068853925556992,"2021-12-21,06:40:53",10.1.1.7,368,-0.250,-0.250,-0.250,0.000,0.000,0.000
1640068853996349952,"2021-12-21,06:40:53",10.1.1.7,0.4389181137084961,-0.250,-0.250,-0.250,0.000,0.000,0.000
1640068854404884224,"2021-12-21,06:40:54",10.1.1.7,407,-0.260,-0.260,-0.260,0.000,0.000,0.000
1640068854480591104,"2021-12-21,06:40:54",10.1.1.7,0.4829549789428711,-0.260,-0.260,-0.260,0.000,0.000,0.000
1640068854846818816,"2021-12-21,06:40:54",10.1.1.7,363,-0.270,-0.270,-0.270,0.000,0.000,0.000
1640068854942526976,"2021-12-21,06:40:54",10.1.1.7,0.4597299098968506,-0.270,-0.270,-0.270,0.000,0.000,0.000
1640068855357027072,"2021-12-21,06:40:55",10.1.1.7,400,-0.280,-0.280,-0.280,0.000,0.000,0.000
1640068855406281984,"2021-12-21,06:40:55",10.1.1.7,0.4496610164642334,-0.280,-0.280,-0.280,0.000,0.000,0.000
1640068855791283968,"2021-12-21,06:40:55",10.1.1.7,382,-0.290,-0.290,-0.290,0.000,0.000,0.000
1640068855845356032,"2021-12-21,06:40:55",10.1.1.7,0.4368729591369629,-0.290,-0.290,-0.290,0.000,0.000,0.000
1640068856170838016,"2021-12-21,06:40:56",10.1.1.7,322,-0.300,-0.300,-0.300,0.000,0.000,0.000
1640068856208436992,"2021-12-21,06:40:56",10.1.1.7,0.36048007011413574,-0.300,-0.300,-0.300,0.000,0.000,0.000
1640068856568211200,"2021-12-21,06:40:56",10.1.1.7,356,-0.310,-0.310,-0.310,0.000,0.000,0.000
1640068856642669056,"2021-12-21,06:40:56",10.1.1.7,0.4309499263763428,-0.310,-0.310,-0.310,0.000,0.000,0.000
1640068856951141120,"2021-12-21,06:40:56",10.1.1.7,304,-0.320,-0.320,-0.320,0.000,0.000,0.000
1640068856993676032,"2021-12-21,06:40:56",10.1.1.7,0.34946489334106445,-0.320,-0.320,-0.320,0.000,0.000,0.000
1640068857338582016,"2021-12-21,06:40:57",10.1.1.7,343,-0.330,-0.330,-0.330,0.000,0.000,0.000
1640068857399322112,"2021-12-21,06:40:57",10.1.1.7,0.4039428234100342,-0.330,-0.330,-0.330,0.000,0.000,0.000
1640068857841618944,"2021-12-21,06:40:57",10.1.1.7,440,-0.340,-0.340,-0.340,0.000,0.000,0.000
1640068857916088064,"2021-12-21,06:40:57",10.1.1.7,0.5147809982299805,-0.340,-0.340,-0.340,0.000,0.000,0.000
1640068858277128960,"2021-12-21,06:40:58",10.1.1.7,353,-0.350,-0.350,-0.350,0.000,0.000,0.000
1640068858364912896,"2021-12-21,06:40:58",10.1.1.7,0.44147682189941406,-0.350,-0.350,-0.350,0.000,0.000,0.000
1640068858697593088,"2021-12-21,06:40:58",10.1.1.7,326,-0.360,-0.360,-0.360,0.000,0.000,0.000
1640068858746615040,"2021-12-21,06:40:58",10.1.1.7,0.3759748935699463,-0.360,-0.360,-0.360,0.000,0.000,0.000
1640068859119350784,"2021-12-21,06:40:59",10.1.1.7,370,-0.370,-0.370,-0.370,0.000,0.000,0.000
1640068859189214976,"2021-12-21,06:40:59",10.1.1.7,0.4405660629272461,-0.370,-0.370,-0.370,0.000,0.000,0.000
1640068859627137024,"2021-12-21,06:40:59",10.1.1.7,396,-0.380,-0.380,-0.380,0.000,0.000,0.000
1640068859680537856,"2021-12-21,06:40:59",10.1.1.7,0.4504108428955078,-0.380,-0.380,-0.380,0.000,0.000,0.000
1640068860066906880,"2021-12-21,06:41:00",10.1.1.7,381,-0.390,-0.390,-0.390,0.000,0.000,0.000
1640068860177262080,"2021-12-21,06:41:00",10.1.1.7,0.4922611713409424,-0.390,-0.390,-0.390,0.000,0.000,0.000
1640068860506052864,"2021-12-21,06:41:00",10.1.1.7,326,-0.400,-0.400,-0.400,0.000,0.000,0.000
1640068860569734144,"2021-12-21,06:41:00",10.1.1.7,0.390308141708374,-0.400,-0.400,-0.400,0.000,0.000,0.000
1640068860947017984,"2021-12-21,06:41:00",10.1.1.7,373,-0.410,-0.410,-0.410,0.000,0.000,0.000
1640068861068534016,"2021-12-21,06:41:01",10.1.1.7,0.4951791763305664,-0.410,-0.410,-0.410,0.000,0.000,0.000
1640068861465723904,"2021-12-21,06:41:01",10.1.1.7,395,-0.420,-0.420,-0.420,0.000,0.000,0.000
1640068861516943104,"2021-12-21,06:41:01",10.1.1.7,0.44665002822875977,-0.420,-0.420,-0.420,0.000,0.000,0.000
1640068861836251904,"2021-12-21,06:41:01",10.1.1.7,315,-0.430,-0.430,-0.430,0.000,0.000,0.000
1640068861884033024,"2021-12-21,06:41:01",10.1.1.7,0.3631420135498047,-0.430,-0.430,-0.430,0.000,0.000,0.000
1640068862286915072,"2021-12-21,06:41:02",10.1.1.7,400,-0.440,-0.440,-0.440,0.000,0.000,0.000
1640068862337224960,"2021-12-21,06:41:02",10.1.1.7,0.4506039619445801,-0.440,-0.440,-0.440,0.000,0.000,0.000
1640068862718575872,"2021-12-21,06:41:02",10.1.1.7,380,-0.450,-0.450,-0.450,0.000,0.000,0.000
1640068862770916096,"2021-12-21,06:41:02",10.1.1.7,0.4324228763580322,-0.450,-0.450,-0.450,0.000,0.000,0.000
1640068863165597952,"2021-12-21,06:41:03",10.1.1.7,392,-0.460,-0.460,-0.460,0.000,0.000,0.000
1640068863229362944,"2021-12-21,06:41:03",10.1.1.7,0.4563438892364502,-0.460,-0.460,-0.460,0.000,0.000,0.000
1640068863556570880,"2021-12-21,06:41:03",10.1.1.7,322,-0.470,-0.470,-0.470,0.000,0.000,0.000
1640068863653140992,"2021-12-21,06:41:03",10.1.1.7,0.419327974319458,-0.470,-0.470,-0.470,0.000,0.000,0.000
1640068864075206144,"2021-12-21,06:41:04",10.1.1.7,412,-0.480,-0.480,-0.480,0.000,0.000,0.000
1640068864131752960,"2021-12-21,06:41:04",10.1.1.7,0.46689486503601074,-0.480,-0.480,-0.480,0.000,0.000,0.000
1640068864494523136,"2021-12-21,06:41:04",10.1.1.7,358,-0.490,-0.490,-0.490,0.000,0.000,0.000
1640068864542563840,"2021-12-21,06:41:04",10.1.1.7,0.40663599967956543,-0.490,-0.490,-0.490,0.000,0.000,0.000
1640068864893460992,"2021-12-21,06:41:04",10.1.1.7,348,-0.480,-0.480,-0.480,0.000,0.000,0.000
1640068864938981888,"2021-12-21,06:41:04",10.1.1.7,0.39427781105041504,-0.480,-0.480,-0.480,0.000,0.000,0.000
1640068865362973952,"2021-12-21,06:41:05",10.1.1.7,396,-0.470,-0.470,-0.470,0.000,0.000,0.000
1640068865455064064,"2021-12-21,06:41:05",10.1.1.7,0.48842597007751465,-0.470,-0.470,-0.470,0.000,0.000,0.000
1640068865803347200,"2021-12-21,06:41:05",10.1.1.7,346,-0.460,-0.460,-0.460,0.000,0.000,0.000
1640068865870137088,"2021-12-21,06:41:05",10.1.1.7,0.41354799270629883,-0.460,-0.460,-0.460,0.000,0.000,0.000
1640068866262880000,"2021-12-21,06:41:06",10.1.1.7,376,-0.450,-0.450,-0.450,0.000,0.000,0.000
1640068866352610048,"2021-12-21,06:41:06",10.1.1.7,0.4658961296081543,-0.450,-0.450,-0.450,0.000,0.000,0.000
1640068866742449152,"2021-12-21,06:41:06",10.1.1.7,380,-0.440,-0.440,-0.440,0.000,0.000,0.000
1640068866796935168,"2021-12-21,06:41:06",10.1.1.7,0.4353652000427246,-0.440,-0.440,-0.440,0.000,0.000,0.000
1640068867185201920,"2021-12-21,06:41:07",10.1.1.7,356,-0.430,-0.430,-0.430,0.000,0.000,0.000
1640068867228108800,"2021-12-21,06:41:07",10.1.1.7,0.3998899459838867,-0.430,-0.430,-0.430,0.000,0.000,0.000
1640068867570182144,"2021-12-21,06:41:07",10.1.1.7,337,-0.420,-0.420,-0.420,0.000,0.000,0.000
1640068867607557888,"2021-12-21,06:41:07",10.1.1.7,0.3746800422668457,-0.420,-0.420,-0.420,0.000,0.000,0.000
1640068868010144000,"2021-12-21,06:41:08",10.1.1.7,401,-0.410,-0.410,-0.410,0.000,0.000,0.000
1640068868030124032,"2021-12-21,06:41:08",10.1.1.7,0.4211390018463135,-0.410,-0.410,-0.410,0.000,0.000,0.000
1640068868379035904,"2021-12-21,06:41:08",10.1.1.7,346,-0.400,-0.400,-0.400,0.000,0.000,0.000
1640068868481832960,"2021-12-21,06:41:08",10.1.1.7,0.44908785820007324,-0.400,-0.400,-0.400,0.000,0.000,0.000
1640068868848040960,"2021-12-21,06:41:08",10.1.1.7,364,-0.390,-0.390,-0.390,0.000,0.000,0.000
1640068868901547008,"2021-12-21,06:41:08",10.1.1.7,0.41823410987854004,-0.390,-0.390,-0.390,0.000,0.000,0.000
1640068869257734912,"2021-12-21,06:41:09",10.1.1.7,354,-0.380,-0.380,-0.380,0.000,0.000,0.000
1640068869311196928,"2021-12-21,06:41:09",10.1.1.7,0.4082791805267334,-0.380,-0.380,-0.380,0.000,0.000,0.000
1640068869707160064,"2021-12-21,06:41:09",10.1.1.7,392,-0.370,-0.370,-0.370,0.000,0.000,0.000
1640068869778551040,"2021-12-21,06:41:09",10.1.1.7,0.46388697624206543,-0.370,-0.370,-0.370,0.000,0.000,0.000
1640068870157142016,"2021-12-21,06:41:10",10.1.1.7,375,-0.360,-0.360,-0.360,0.000,0.000,0.000
1640068870220701952,"2021-12-21,06:41:10",10.1.1.7,0.4390079975128174,-0.360,-0.360,-0.360,0.000,0.000,0.000
1640068870606235136,"2021-12-21,06:41:10",10.1.1.7,383,-0.350,-0.350,-0.350,0.000,0.000,0.000
1640068870668104960,"2021-12-21,06:41:10",10.1.1.7,0.44582605361938477,-0.350,-0.350,-0.350,0.000,0.000,0.000
1640068870975755008,"2021-12-21,06:41:10",10.1.1.7,301,-0.340,-0.340,-0.340,0.000,0.000,0.000
1640068871083193088,"2021-12-21,06:41:11",10.1.1.7,0.40858006477355957,-0.340,-0.340,-0.340,0.000,0.000,0.000
1640068871427503104,"2021-12-21,06:41:11",10.1.1.7,331,-0.330,-0.330,-0.330,0.000,0.000,0.000
1640068871517442048,"2021-12-21,06:41:11",10.1.1.7,0.4217967987060547,-0.330,-0.330,-0.330,0.000,0.000,0.000
1640068871956468224,"2021-12-21,06:41:11",10.1.1.7,436,-0.320,-0.320,-0.320,0.000,0.000,0.000
1640068871956888832,"2021-12-21,06:41:11",10.1.1.7,0.4366159439086914,-0.320,-0.320,-0.320,0.000,0.000,0.000
1640068872314692096,"2021-12-21,06:41:12",10.1.1.7,355,-0.310,-0.310,-0.310,0.000,0.000,0.000
1640068872431674112,"2021-12-21,06:41:12",10.1.1.7,0.47315096855163574,-0.310,-0.310,-0.310,0.000,0.000,0.000
1640068872833329920,"2021-12-21,06:41:12",10.1.1.7,397,-0.300,-0.300,-0.300,0.000,0.000,0.000
1640068872878932992,"2021-12-21,06:41:12",10.1.1.7,0.443681001663208,-0.300,-0.300,-0.300,0.000,0.000,0.000
1640068872889048064,"2021-12-21,06:41:12",10.1.1.7,-1,-0.290,-0.290,-0.290,0.000,0.000,0.000
1640068873354254848,"2021-12-21,06:41:13",10.1.1.7,0.46837401390075684,-0.290,-0.290,-0.290,0.000,0.000,0.000
1640068873711653120,"2021-12-21,06:41:13",10.1.1.7,355,-0.280,-0.280,-0.280,0.000,0.000,0.000
1640068873784456960,"2021-12-21,06:41:13",10.1.1.7,0.4285881519317627,-0.280,-0.280,-0.280,0.000,0.000,0.000
1640068874172167936,"2021-12-21,06:41:14",10.1.1.7,384,-0.270,-0.270,-0.270,0.000,0.000,0.000
1640068874258830080,"2021-12-21,06:41:14",10.1.1.7,0.47124409675598145,-0.270,-0.270,-0.270,0.000,0.000,0.000
1640068874622784000,"2021-12-21,06:41:14",10.1.1.7,358,-0.260,-0.260,-0.260,0.000,0.000,0.000
1640068874697882880,"2021-12-21,06:41:14",10.1.1.7,0.4341158866882324,-0.260,-0.260,-0.260,0.000,0.000,0.000
1640068875043668992,"2021-12-21,06:41:15",10.1.1.7,344,-0.250,-0.250,-0.250,0.000,0.000,0.000
1640068875119628032,"2021-12-21,06:41:15",10.1.1.7,0.4193379878997803,-0.250,-0.250,-0.250,0.000,0.000,0.000
1640068875512909824,"2021-12-21,06:41:15",10.1.1.7,391,-0.240,-0.240,-0.240,0.000,0.000,0.000
1640068875531013120,"2021-12-21,06:41:15",10.1.1.7,0.41010594367980957,-0.240,-0.240,-0.240,0.000,0.000,0.000
1640068875941408000,"2021-12-21,06:41:15",10.1.1.7,407,-0.230,-0.230,-0.230,0.000,0.000,0.000
1640068876011280128,"2021-12-21,06:41:16",10.1.1.7,0.4781830310821533,-0.230,-0.230,-0.230,0.000,0.000,0.000
1640068876427241984,"2021-12-21,06:41:16",10.1.1.7,413,-0.220,-0.220,-0.220,0.000,0.000,0.000
1640068876508603136,"2021-12-21,06:41:16",10.1.1.7,0.4951798915863037,-0.220,-0.220,-0.220,0.000,0.000,0.000
1640068876966479104,"2021-12-21,06:41:16",10.1.1.7,455,-0.210,-0.210,-0.210,0.000,0.000,0.000
1640068877040091136,"2021-12-21,06:41:17",10.1.1.7,0.5288870334625244,-0.210,-0.210,-0.210,0.000,0.000,0.000
1640068877439377920,"2021-12-21,06:41:17",10.1.1.7,393,-0.200,-0.200,-0.200,0.000,0.000,0.000
1640068877568584960,"2021-12-21,06:41:17",10.1.1.7,0.5232210159301758,-0.200,-0.200,-0.200,0.000,0.000,0.000
1640068878013988864,"2021-12-21,06:41:18",10.1.1.7,403,-0.190,-0.190,-0.190,0.000,0.000,0.000
1640068878077934080,"2021-12-21,06:41:18",10.1.1.7,0.467587947845459,-0.190,-0.190,-0.190,0.000,0.000,0.000
1640068878463954944,"2021-12-21,06:41:18",10.1.1.7,383,-0.180,-0.180,-0.180,0.000,0.000,0.000
1640068878514230016,"2021-12-21,06:41:18",10.1.1.7,0.43419599533081055,-0.180,-0.180,-0.180,0.000,0.000,0.000
1640068878876719872,"2021-12-21,06:41:18",10.1.1.7,356,-0.170,-0.170,-0.170,0.000,0.000,0.000
1640068878926593024,"2021-12-21,06:41:18",10.1.1.7,0.4065818786621094,-0.170,-0.170,-0.170,0.000,0.000,0.000
1640068879254668032,"2021-12-21,06:41:19",10.1.1.7,325,-0.160,-0.160,-0.160,0.000,0.000,0.000
1640068879296111104,"2021-12-21,06:41:19",10.1.1.7,0.36763906478881836,-0.160,-0.160,-0.160,0.000,0.000,0.000
1640068879648192768,"2021-12-21,06:41:19",10.1.1.7,348,-0.150,-0.150,-0.150,0.000,0.000,0.000
1640068879714499840,"2021-12-21,06:41:19",10.1.1.7,0.4145998954772949,-0.150,-0.150,-0.150,0.000,0.000,0.000
1640068880068794112,"2021-12-21,06:41:20",10.1.1.7,348,-0.140,-0.140,-0.140,0.000,0.000,0.000
1640068880141767936,"2021-12-21,06:41:20",10.1.1.7,0.4215729236602783,-0.140,-0.140,-0.140,0.000,0.000,0.000
1640068880565114880,"2021-12-21,06:41:20",10.1.1.7,414,-0.130,-0.130,-0.130,0.000,0.000,0.000
1640068880653096960,"2021-12-21,06:41:20",10.1.1.7,0.5025680065155029,-0.130,-0.130,-0.130,0.000,0.000,0.000
1640068881075186944,"2021-12-21,06:41:21",10.1.1.7,420,-0.120,-0.120,-0.120,0.000,0.000,0.000
1640068881131203840,"2021-12-21,06:41:21",10.1.1.7,0.47676706314086914,-0.120,-0.120,-0.120,0.000,0.000,0.000
1640068881506636032,"2021-12-21,06:41:21",10.1.1.7,350,-0.110,-0.110,-0.110,0.000,0.000,0.000
1640068881523294976,"2021-12-21,06:41:21",10.1.1.7,0.36774301528930664,-0.110,-0.110,-0.110,0.000,0.000,0.000
1640068881918503168,"2021-12-21,06:41:21",10.1.1.7,393,-0.100,-0.100,-0.100,0.000,0.000,0.000
1640068882001558016,"2021-12-21,06:41:22",10.1.1.7,0.4767451286315918,-0.100,-0.100,-0.100,0.000,0.000,0.000
1640068882349978880,"2021-12-21,06:41:22",10.1.1.7,336,-0.090,-0.090,-0.090,0.000,0.000,0.000
1640068882390263040,"2021-12-21,06:41:22",10.1.1.7,0.37732911109924316,-0.090,-0.090,-0.090,0.000,0.000,0.000
1640068882830703872,"2021-12-21,06:41:22",10.1.1.7,438,-0.080,-0.080,-0.080,0.000,0.000,0.000
1640068882923660032,"2021-12-21,06:41:22",10.1.1.7,0.5318148136138916,-0.080,-0.080,-0.080,0.000,0.000,0.000
1640068883334078976,"2021-12-21,06:41:23",10.1.1.7,398,-0.070,-0.070,-0.070,0.000,0.000,0.000
1640068883371092992,"2021-12-21,06:41:23",10.1.1.7,0.435046911239624,-0.070,-0.070,-0.070,0.000,0.000,0.000
1640068883773113088,"2021-12-21,06:41:23",10.1.1.7,399,-0.060,-0.060,-0.060,0.000,0.000,0.000
1640068883851883776,"2021-12-21,06:41:23",10.1.1.7,0.4787881374359131,-0.060,-0.060,-0.060,0.000,0.000,0.000
1640068884213746944,"2021-12-21,06:41:24",10.1.1.7,360,-0.050,-0.050,-0.050,0.000,0.000,0.000
1640068884275341056,"2021-12-21,06:41:24",10.1.1.7,0.4221079349517822,-0.050,-0.050,-0.050,0.000,0.000,0.000
1640068884585388032,"2021-12-21,06:41:24",10.1.1.7,308,-0.040,-0.040,-0.040,0.000,0.000,0.000
1640068884701597952,"2021-12-21,06:41:24",10.1.1.7,0.42490410804748535,-0.040,-0.040,-0.040,0.000,0.000,0.000
