FedericoMungari/DigitalTwin_service/02_LTEScenario/Output/Output_script/script_ROSAPI_output_robots8_freq0_1.txt.csv
timestamp,node,latency,joint_1,joint_2,joint_3,joint_4,joint_5,joint_6
1640068682848987136,"2021-12-21,06:38:02",10.1.1.2,5849,0.000,0.000,0.000,0.000,0.000,0.000
1640068685135442944,"2021-12-21,06:38:05",10.1.1.2,304,-0.010,-0.010,-0.010,0.000,0.000,0.000
1640068685172041984,"2021-12-21,06:38:05",10.1.1.2,0.3411111831665039,-0.010,-0.010,-0.010,0.000,0.000,0.000
1640068685464194048,"2021-12-21,06:38:05",10.1.1.2,290,-0.020,-0.020,-0.020,0.000,0.000,0.000
1640068685481467136,"2021-12-21,06:38:05",10.1.1.2,0.3082239627838135,-0.020,-0.020,-0.020,0.000,0.000,0.000
1640068685784367104,"2021-12-21,06:38:05",10.1.1.2,301,-0.030,-0.030,-0.030,0.000,0.000,0.000
1640068685793188096,"2021-12-21,06:38:05",10.1.1.2,0.31051206588745117,-0.030,-0.030,-0.030,0.000,0.000,0.000
1640068686104110080,"2021-12-21,06:38:06",10.1.1.2,308,-0.040,-0.040,-0.040,0.000,0.000,0.000
1640068686113539840,"2021-12-21,06:38:06",10.1.1.2,0.3184521198272705,-0.040,-0.040,-0.040,0.000,0.000,0.000
1640068686426408960,"2021-12-21,06:38:06",10.1.1.2,311,-0.050,-0.050,-0.050,0.000,0.000,0.000
1640068686433691904,"2021-12-21,06:38:06",10.1.1.2,0.3189370632171631,-0.050,-0.050,-0.050,0.000,0.000,0.000
1640068686749243904,"2021-12-21,06:38:06",10.1.1.2,314,-0.060,-0.060,-0.060,0.000,0.000,0.000
1640068686776425984,"2021-12-21,06:38:06",10.1.1.2,0.34142398834228516,-0.060,-0.060,-0.060,0.000,0.000,0.000
1640068687089960192,"2021-12-21,06:38:07",10.1.1.2,311,-0.070,-0.070,-0.070,0.000,0.000,0.000
1640068687095041024,"2021-12-21,06:38:07",10.1.1.2,0.3170320987701416,-0.070,-0.070,-0.070,0.000,0.000,0.000
1640068687413712896,"2021-12-21,06:38:07",10.1.1.2,0.3169379234313965,-0.080,-0.080,-0.080,0.000,0.000,0.000
1640068687413925888,"2021-12-21,06:38:07",10.1.1.2,317,-0.080,-0.080,-0.080,0.000,0.000,0.000
1640068687722810112,"2021-12-21,06:38:07",10.1.1.2,305,-0.090,-0.090,-0.090,0.000,0.000,0.000
1640068687752244992,"2021-12-21,06:38:07",10.1.1.2,0.3349928855895996,-0.090,-0.090,-0.090,0.000,0.000,0.000
1640068688044636928,"2021-12-21,06:38:08",10.1.1.2,291,-0.100,-0.100,-0.100,0.000,0.000,0.000
1640068688072065024,"2021-12-21,06:38:08",10.1.1.2,0.31839799880981445,-0.100,-0.100,-0.100,0.000,0.000,0.000
1640068688375356928,"2021-12-21,06:38:08",10.1.1.2,301,-0.110,-0.110,-0.110,0.000,0.000,0.000
1640068688393277952,"2021-12-21,06:38:08",10.1.1.2,0.3197050094604492,-0.110,-0.110,-0.110,0.000,0.000,0.000
1640068688706590976,"2021-12-21,06:38:08",10.1.1.2,312,-0.120,-0.120,-0.120,0.000,0.000,0.000
1640068688712023040,"2021-12-21,06:38:08",10.1.1.2,0.3174259662628174,-0.120,-0.120,-0.120,0.000,0.000,0.000
1640068689027930112,"2021-12-21,06:38:09",10.1.1.2,314,-0.130,-0.130,-0.130,0.000,0.000,0.000
1640068689057236992,"2021-12-21,06:38:09",10.1.1.2,0.34400486946105957,-0.130,-0.130,-0.130,0.000,0.000,0.000
1640068689348971008,"2021-12-21,06:38:09",10.1.1.2,290,-0.140,-0.140,-0.140,0.000,0.000,0.000
1640068689374199040,"2021-12-21,06:38:09",10.1.1.2,0.3156888484954834,-0.140,-0.140,-0.140,0.000,0.000,0.000
1640068689711088896,"2021-12-21,06:38:09",10.1.1.2,335,-0.150,-0.150,-0.150,0.000,0.000,0.000
1640068689755398912,"2021-12-21,06:38:09",10.1.1.2,0.3800179958343506,-0.150,-0.150,-0.150,0.000,0.000,0.000
1640068690973683968,"2021-12-21,06:38:10",10.1.1.2,1216,-0.160,-0.160,-0.160,0.000,0.000,0.000
1640068690985096960,"2021-12-21,06:38:10",10.1.1.2,1.2281880378723145,-0.160,-0.160,-0.160,0.000,0.000,0.000
1640068691274772992,"2021-12-21,06:38:11",10.1.1.2,288,-0.170,-0.170,-0.170,0.000,0.000,0.000
1640068691296534016,"2021-12-21,06:38:11",10.1.1.2,0.30980706214904785,-0.170,-0.170,-0.170,0.000,0.000,0.000
1640068691575540992,"2021-12-21,06:38:11",10.1.1.2,277,-0.180,-0.180,-0.180,0.000,0.000,0.000
1640068691606076928,"2021-12-21,06:38:11",10.1.1.2,0.3083000183105469,-0.180,-0.180,-0.180,0.000,0.000,0.000
1640068691885801984,"2021-12-21,06:38:11",10.1.1.2,278,-0.190,-0.190,-0.190,0.000,0.000,0.000
1640068691953145856,"2021-12-21,06:38:11",10.1.1.2,0.34565305709838867,-0.190,-0.190,-0.190,0.000,0.000,0.000
1640068692266156800,"2021-12-21,06:38:12",10.1.1.2,311,-0.200,-0.200,-0.200,0.000,0.000,0.000
1640068692279314944,"2021-12-21,06:38:12",10.1.1.2,0.324753999710083,-0.200,-0.200,-0.200,0.000,0.000,0.000
1640068692587414016,"2021-12-21,06:38:12",10.1.1.2,306,-0.210,-0.210,-0.210,0.000,0.000,0.000
1640068692625638912,"2021-12-21,06:38:12",10.1.1.2,0.34513092041015625,-0.210,-0.210,-0.210,0.000,0.000,0.000
1640068692957907968,"2021-12-21,06:38:12",10.1.1.2,330,-0.220,-0.220,-0.220,0.000,0.000,0.000
1640068693004817920,"2021-12-21,06:38:13",10.1.1.2,0.3774130344390869,-0.220,-0.220,-0.220,0.000,0.000,0.000
1640068693310311168,"2021-12-21,06:38:13",10.1.1.2,304,-0.230,-0.230,-0.230,0.000,0.000,0.000
1640068693348679168,"2021-12-21,06:38:13",10.1.1.2,0.34246087074279785,-0.230,-0.230,-0.230,0.000,0.000,0.000
1640068693668283904,"2021-12-21,06:38:13",10.1.1.2,318,-0.240,-0.240,-0.240,0.000,0.000,0.000
1640068693678554112,"2021-12-21,06:38:13",10.1.1.2,0.32842493057250977,-0.240,-0.240,-0.240,0.000,0.000,0.000
1640068693969361920,"2021-12-21,06:38:13",10.1.1.2,288,-0.250,-0.250,-0.250,0.000,0.000,0.000
1640068693992296960,"2021-12-21,06:38:13",10.1.1.2,0.31185078620910645,-0.250,-0.250,-0.250,0.000,0.000,0.000
1640068694289938944,"2021-12-21,06:38:14",10.1.1.2,296,-0.260,-0.260,-0.260,0.000,0.000,0.000
1640068694324101888,"2021-12-21,06:38:14",10.1.1.2,0.330517053604126,-0.260,-0.260,-0.260,0.000,0.000,0.000
1640068694619527936,"2021-12-21,06:38:14",10.1.1.2,294,-0.270,-0.270,-0.270,0.000,0.000,0.000
1640068694669403136,"2021-12-21,06:38:14",10.1.1.2,0.34412693977355957,-0.270,-0.270,-0.270,0.000,0.000,0.000
1640068694959889920,"2021-12-21,06:38:14",10.1.1.2,289,-0.280,-0.280,-0.280,0.000,0.000,0.000
1640068694983606016,"2021-12-21,06:38:14",10.1.1.2,0.3129150867462158,-0.280,-0.280,-0.280,0.000,0.000,0.000
1640068695290496000,"2021-12-21,06:38:15",10.1.1.2,305,-0.290,-0.290,-0.290,0.000,0.000,0.000
1640068695328224000,"2021-12-21,06:38:15",10.1.1.2,0.3432960510253906,-0.290,-0.290,-0.290,0.000,0.000,0.000
1640068695660464128,"2021-12-21,06:38:15",10.1.1.2,330,-0.300,-0.300,-0.300,0.000,0.000,0.000
1640068695745000960,"2021-12-21,06:38:15",10.1.1.2,0.41550397872924805,-0.300,-0.300,-0.300,0.000,0.000,0.000
1640068696040044032,"2021-12-21,06:38:16",10.1.1.2,293,-0.310,-0.310,-0.310,0.000,0.000,0.000
1640068696064250880,"2021-12-21,06:38:16",10.1.1.2,0.31752800941467285,-0.310,-0.310,-0.310,0.000,0.000,0.000
1640068696360093952,"2021-12-21,06:38:16",10.1.1.2,294,-0.320,-0.320,-0.320,0.000,0.000,0.000
1640068696409163008,"2021-12-21,06:38:16",10.1.1.2,0.3434319496154785,-0.320,-0.320,-0.320,0.000,0.000,0.000
1640068696770672128,"2021-12-21,06:38:16",10.1.1.2,360,-0.330,-0.330,-0.330,0.000,0.000,0.000
1640068696821832960,"2021-12-21,06:38:16",10.1.1.2,0.41141796112060547,-0.330,-0.330,-0.330,0.000,0.000,0.000
1640068697141108992,"2021-12-21,06:38:17",10.1.1.2,317,-0.340,-0.340,-0.340,0.000,0.000,0.000
1640068697179367936,"2021-12-21,06:38:17",10.1.1.2,0.3563058376312256,-0.340,-0.340,-0.340,0.000,0.000,0.000
1640068697480514048,"2021-12-21,06:38:17",10.1.1.2,298,-0.350,-0.350,-0.350,0.000,0.000,0.000
1640068697510482176,"2021-12-21,06:38:17",10.1.1.2,0.3292529582977295,-0.350,-0.350,-0.350,0.000,0.000,0.000
1640068697790296064,"2021-12-21,06:38:17",10.1.1.2,278,-0.360,-0.360,-0.360,0.000,0.000,0.000
1640068697826280192,"2021-12-21,06:38:17",10.1.1.2,0.31418704986572266,-0.360,-0.360,-0.360,0.000,0.000,0.000
1640068698130928128,"2021-12-21,06:38:18",10.1.1.2,302,-0.370,-0.370,-0.370,0.000,0.000,0.000
1640068698175556864,"2021-12-21,06:38:18",10.1.1.2,0.3474879264831543,-0.370,-0.370,-0.370,0.000,0.000,0.000
1640068698472165120,"2021-12-21,06:38:18",10.1.1.2,294,-0.380,-0.380,-0.380,0.000,0.000,0.000
1640068698506123008,"2021-12-21,06:38:18",10.1.1.2,0.32883501052856445,-0.380,-0.380,-0.380,0.000,0.000,0.000
1640068698821670144,"2021-12-21,06:38:18",10.1.1.2,314,-0.390,-0.390,-0.390,0.000,0.000,0.000
1640068698834193920,"2021-12-21,06:38:18",10.1.1.2,0.32677483558654785,-0.390,-0.390,-0.390,0.000,0.000,0.000
1640068699140430848,"2021-12-21,06:38:19",10.1.1.2,304,-0.400,-0.400,-0.400,0.000,0.000,0.000
1640068699157656832,"2021-12-21,06:38:19",10.1.1.2,0.3217189311981201,-0.400,-0.400,-0.400,0.000,0.000,0.000
1640068699469883904,"2021-12-21,06:38:19",10.1.1.2,307,-0.410,-0.410,-0.410,0.000,0.000,0.000
1640068699480370944,"2021-12-21,06:38:19",10.1.1.2,0.3179049491882324,-0.410,-0.410,-0.410,0.000,0.000,0.000
1640068699819937024,"2021-12-21,06:38:19",10.1.1.2,337,-0.420,-0.420,-0.420,0.000,0.000,0.000
1640068699848480000,"2021-12-21,06:38:19",10.1.1.2,0.3657829761505127,-0.420,-0.420,-0.420,0.000,0.000,0.000
1640068700150264064,"2021-12-21,06:38:20",10.1.1.2,300,-0.430,-0.430,-0.430,0.000,0.000,0.000
1640068700184716032,"2021-12-21,06:38:20",10.1.1.2,0.33498311042785645,-0.430,-0.430,-0.430,0.000,0.000,0.000
1640068700490295040,"2021-12-21,06:38:20",10.1.1.2,303,-0.440,-0.440,-0.440,0.000,0.000,0.000
1640068700509639936,"2021-12-21,06:38:20",10.1.1.2,0.3227810859680176,-0.440,-0.440,-0.440,0.000,0.000,0.000
1640068700799714048,"2021-12-21,06:38:20",10.1.1.2,288,-0.450,-0.450,-0.450,0.000,0.000,0.000
1640068700826584064,"2021-12-21,06:38:20",10.1.1.2,0.3155789375305176,-0.450,-0.450,-0.450,0.000,0.000,0.000
1640068701139714048,"2021-12-21,06:38:21",10.1.1.2,311,-0.460,-0.460,-0.460,0.000,0.000,0.000
1640068701210661888,"2021-12-21,06:38:21",10.1.1.2,0.3824961185455322,-0.460,-0.460,-0.460,0.000,0.000,0.000
1640068701542732032,"2021-12-21,06:38:21",10.1.1.2,329,-0.470,-0.470,-0.470,0.000,0.000,0.000
1640068701548201984,"2021-12-21,06:38:21",10.1.1.2,0.33513784408569336,-0.470,-0.470,-0.470,0.000,0.000,0.000
1640068701851731968,"2021-12-21,06:38:21",10.1.1.2,302,-0.480,-0.480,-0.480,0.000,0.000,0.000
1640068701873608192,"2021-12-21,06:38:21",10.1.1.2,0.3240330219268799,-0.480,-0.480,-0.480,0.000,0.000,0.000
1640068702188563968,"2021-12-21,06:38:22",10.1.1.2,313,-0.490,-0.490,-0.490,0.000,0.000,0.000
1640068702203366144,"2021-12-21,06:38:22",10.1.1.2,0.32852697372436523,-0.490,-0.490,-0.490,0.000,0.000,0.000
1640068702519182848,"2021-12-21,06:38:22",10.1.1.2,314,-0.480,-0.480,-0.480,0.000,0.000,0.000
1640068702531843840,"2021-12-21,06:38:22",10.1.1.2,0.3272590637207031,-0.480,-0.480,-0.480,0.000,0.000,0.000
1640068702839677184,"2021-12-21,06:38:22",10.1.1.2,305,-0.470,-0.470,-0.470,0.000,0.000,0.000
1640068702909457920,"2021-12-21,06:38:22",10.1.1.2,0.3754608631134033,-0.470,-0.470,-0.470,0.000,0.000,0.000
1640068703240303104,"2021-12-21,06:38:23",10.1.1.2,327,-0.460,-0.460,-0.460,0.000,0.000,0.000
1640068703259898880,"2021-12-21,06:38:23",10.1.1.2,0.3488278388977051,-0.460,-0.460,-0.460,0.000,0.000,0.000
1640068703577771776,"2021-12-21,06:38:23",10.1.1.2,316,-0.450,-0.450,-0.450,0.000,0.000,0.000
1640068703589231104,"2021-12-21,06:38:23",10.1.1.2,0.32804083824157715,-0.450,-0.450,-0.450,0.000,0.000,0.000
1640068703887600896,"2021-12-21,06:38:23",10.1.1.2,297,-0.440,-0.440,-0.440,0.000,0.000,0.000
1640068703936619008,"2021-12-21,06:38:23",10.1.1.2,0.3461949825286865,-0.440,-0.440,-0.440,0.000,0.000,0.000
1640068704247556096,"2021-12-21,06:38:24",10.1.1.2,309,-0.430,-0.430,-0.430,0.000,0.000,0.000
1640068704284050944,"2021-12-21,06:38:24",10.1.1.2,0.3462331295013428,-0.430,-0.430,-0.430,0.000,0.000,0.000
1640068704608103936,"2021-12-21,06:38:24",10.1.1.2,322,-0.420,-0.420,-0.420,0.000,0.000,0.000
1640068704610675968,"2021-12-21,06:38:24",10.1.1.2,0.32479000091552734,-0.420,-0.420,-0.420,0.000,0.000,0.000
1640068704907202048,"2021-12-21,06:38:24",10.1.1.2,294,-0.410,-0.410,-0.410,0.000,0.000,0.000
1640068704930692864,"2021-12-21,06:38:24",10.1.1.2,0.31880784034729004,-0.410,-0.410,-0.410,0.000,0.000,0.000
1640068705246330880,"2021-12-21,06:38:25",10.1.1.2,314,-0.400,-0.400,-0.400,0.000,0.000,0.000
1640068705250694912,"2021-12-21,06:38:25",10.1.1.2,0.3186171054840088,-0.400,-0.400,-0.400,0.000,0.000,0.000
1640068705545859072,"2021-12-21,06:38:25",10.1.1.2,293,-0.390,-0.390,-0.390,0.000,0.000,0.000
1640068705588649984,"2021-12-21,06:38:25",10.1.1.2,0.33635783195495605,-0.390,-0.390,-0.390,0.000,0.000,0.000
1640068705915080960,"2021-12-21,06:38:25",10.1.1.2,325,-0.380,-0.380,-0.380,0.000,0.000,0.000
1640068705943664128,"2021-12-21,06:38:25",10.1.1.2,0.3535759449005127,-0.380,-0.380,-0.380,0.000,0.000,0.000
1640068706254564096,"2021-12-21,06:38:26",10.1.1.2,305,-0.370,-0.370,-0.370,0.000,0.000,0.000
1640068706296572928,"2021-12-21,06:38:26",10.1.1.2,0.3472099304199219,-0.370,-0.370,-0.370,0.000,0.000,0.000
1640068706594322944,"2021-12-21,06:38:26",10.1.1.2,296,-0.360,-0.360,-0.360,0.000,0.000,0.000
1640068706626935040,"2021-12-21,06:38:26",10.1.1.2,0.3291189670562744,-0.360,-0.360,-0.360,0.000,0.000,0.000
1640068706967294976,"2021-12-21,06:38:26",10.1.1.2,338,-0.350,-0.350,-0.350,0.000,0.000,0.000
1640068706981064192,"2021-12-21,06:38:26",10.1.1.2,0.3527059555053711,-0.350,-0.350,-0.350,0.000,0.000,0.000
1640068707293937920,"2021-12-21,06:38:27",10.1.1.2,311,-0.340,-0.340,-0.340,0.000,0.000,0.000
1640068707313015040,"2021-12-21,06:38:27",10.1.1.2,0.33062005043029785,-0.340,-0.340,-0.340,0.000,0.000,0.000
1640068707633191936,"2021-12-21,06:38:27",10.1.1.2,318,-0.330,-0.330,-0.330,0.000,0.000,0.000
1640068707651532800,"2021-12-21,06:38:27",10.1.1.2,0.3371469974517822,-0.330,-0.330,-0.330,0.000,0.000,0.000
1640068708002387968,"2021-12-21,06:38:28",10.1.1.2,349,-0.320,-0.320,-0.320,0.000,0.000,0.000
1640068708039757056,"2021-12-21,06:38:28",10.1.1.2,0.3867630958557129,-0.320,-0.320,-0.320,0.000,0.000,0.000
1640068708361990912,"2021-12-21,06:38:28",10.1.1.2,320,-0.310,-0.310,-0.310,0.000,0.000,0.000
1640068708401027840,"2021-12-21,06:38:28",10.1.1.2,0.35989999771118164,-0.310,-0.310,-0.310,0.000,0.000,0.000
1640068708724904960,"2021-12-21,06:38:28",10.1.1.2,322,-0.300,-0.300,-0.300,0.000,0.000,0.000
1640068708747898112,"2021-12-21,06:38:28",10.1.1.2,0.34544992446899414,-0.300,-0.300,-0.300,0.000,0.000,0.000
1640068709090621952,"2021-12-21,06:38:29",10.1.1.2,341,-0.290,-0.290,-0.290,0.000,0.000,0.000
1640068709117500160,"2021-12-21,06:38:29",10.1.1.2,0.3682119846343994,-0.290,-0.290,-0.290,0.000,0.000,0.000
1640068709480218880,"2021-12-21,06:38:29",10.1.1.2,361,-0.280,-0.280,-0.280,0.000,0.000,0.000
1640068709506118144,"2021-12-21,06:38:29",10.1.1.2,0.3871331214904785,-0.280,-0.280,-0.280,0.000,0.000,0.000
1640068709809767936,"2021-12-21,06:38:29",10.1.1.2,301,-0.270,-0.270,-0.270,0.000,0.000,0.000
1640068709839108096,"2021-12-21,06:38:29",10.1.1.2,0.33124685287475586,-0.270,-0.270,-0.270,0.000,0.000,0.000
1640068710132431104,"2021-12-21,06:38:30",10.1.1.2,290,-0.260,-0.260,-0.260,0.000,0.000,0.000
1640068710154427136,"2021-12-21,06:38:30",10.1.1.2,0.31276988983154297,-0.260,-0.260,-0.260,0.000,0.000,0.000
1640068710480753920,"2021-12-21,06:38:30",10.1.1.2,325,-0.250,-0.250,-0.250,0.000,0.000,0.000
1640068710506194944,"2021-12-21,06:38:30",10.1.1.2,0.3504619598388672,-0.250,-0.250,-0.250,0.000,0.000,0.000
1640068710797952000,"2021-12-21,06:38:30",10.1.1.2,289,-0.240,-0.240,-0.240,0.000,0.000,0.000
1640068710820570880,"2021-12-21,06:38:30",10.1.1.2,0.3122899532318115,-0.240,-0.240,-0.240,0.000,0.000,0.000
1640068711141433088,"2021-12-21,06:38:31",10.1.1.2,319,-0.230,-0.230,-0.230,0.000,0.000,0.000
1640068711142448896,"2021-12-21,06:38:31",10.1.1.2,0.3201580047607422,-0.230,-0.230,-0.230,0.000,0.000,0.000
1640068711457297920,"2021-12-21,06:38:31",10.1.1.2,312,-0.220,-0.220,-0.220,0.000,0.000,0.000
1640068711467653120,"2021-12-21,06:38:31",10.1.1.2,0.32319211959838867,-0.220,-0.220,-0.220,0.000,0.000,0.000
1640068711758286080,"2021-12-21,06:38:31",10.1.1.2,289,-0.210,-0.210,-0.210,0.000,0.000,0.000
1640068711791734016,"2021-12-21,06:38:31",10.1.1.2,0.32273387908935547,-0.210,-0.210,-0.210,0.000,0.000,0.000
1640068712117521920,"2021-12-21,06:38:32",10.1.1.2,324,-0.200,-0.200,-0.200,0.000,0.000,0.000
1640068712145042944,"2021-12-21,06:38:32",10.1.1.2,0.35201120376586914,-0.200,-0.200,-0.200,0.000,0.000,0.000
1640068712455801856,"2021-12-21,06:38:32",10.1.1.2,309,-0.190,-0.190,-0.190,0.000,0.000,0.000
1640068712484108800,"2021-12-21,06:38:32",10.1.1.2,0.33758997917175293,-0.190,-0.190,-0.190,0.000,0.000,0.000
1640068712825438976,"2021-12-21,06:38:32",10.1.1.2,339,-0.180,-0.180,-0.180,0.000,0.000,0.000
1640068712846041088,"2021-12-21,06:38:32",10.1.1.2,0.36061906814575195,-0.180,-0.180,-0.180,0.000,0.000,0.000
1640068713174715904,"2021-12-21,06:38:33",10.1.1.2,325,-0.170,-0.170,-0.170,0.000,0.000,0.000
1640068713204265984,"2021-12-21,06:38:33",10.1.1.2,0.3547530174255371,-0.170,-0.170,-0.170,0.000,0.000,0.000
1640068713506455040,"2021-12-21,06:38:33",10.1.1.2,300,-0.160,-0.160,-0.160,0.000,0.000,0.000
1640068713534585088,"2021-12-21,06:38:33",10.1.1.2,0.32860302925109863,-0.160,-0.160,-0.160,0.000,0.000,0.000
1640068713834813952,"2021-12-21,06:38:33",10.1.1.2,297,-0.150,-0.150,-0.150,0.000,0.000,0.000
1640068713864072960,"2021-12-21,06:38:33",10.1.1.2,0.327301025390625,-0.150,-0.150,-0.150,0.000,0.000,0.000
1640068714177923840,"2021-12-21,06:38:34",10.1.1.2,311,-0.140,-0.140,-0.140,0.000,0.000,0.000
1640068714212162048,"2021-12-21,06:38:34",10.1.1.2,0.34653186798095703,-0.140,-0.140,-0.140,0.000,0.000,0.000
1640068714512891136,"2021-12-21,06:38:34",10.1.1.2,298,-0.130,-0.130,-0.130,0.000,0.000,0.000
1640068714533199104,"2021-12-21,06:38:34",10.1.1.2,0.31929898262023926,-0.130,-0.130,-0.130,0.000,0.000,0.000
1640068714821999104,"2021-12-21,06:38:34",10.1.1.2,284,-0.120,-0.120,-0.120,0.000,0.000,0.000
1640068714849394176,"2021-12-21,06:38:34",10.1.1.2,0.3117070198059082,-0.120,-0.120,-0.120,0.000,0.000,0.000
1640068715151947008,"2021-12-21,06:38:35",10.1.1.2,299,-0.110,-0.110,-0.110,0.000,0.000,0.000
1640068715176686080,"2021-12-21,06:38:35",10.1.1.2,0.32456398010253906,-0.110,-0.110,-0.110,0.000,0.000,0.000
1640068715491222016,"2021-12-21,06:38:35",10.1.1.2,311,-0.100,-0.100,-0.100,0.000,0.000,0.000
1640068715504312064,"2021-12-21,06:38:35",10.1.1.2,0.3251969814300537,-0.100,-0.100,-0.100,0.000,0.000,0.000
1640068715852112128,"2021-12-21,06:38:35",10.1.1.2,346,-0.090,-0.090,-0.090,0.000,0.000,0.000
1640068715856887040,"2021-12-21,06:38:35",10.1.1.2,0.35114502906799316,-0.090,-0.090,-0.090,0.000,0.000,0.000
1640068716209549056,"2021-12-21,06:38:36",10.1.1.2,0.35139894485473633,-0.080,-0.080,-0.080,0.000,0.000,0.000
1640068716214076160,"2021-12-21,06:38:36",10.1.1.2,353,-0.080,-0.080,-0.080,0.000,0.000,0.000
1640068716529860864,"2021-12-21,06:38:36",10.1.1.2,314,-0.070,-0.070,-0.070,0.000,0.000,0.000
1640068716561680128,"2021-12-21,06:38:36",10.1.1.2,0.34627199172973633,-0.070,-0.070,-0.070,0.000,0.000,0.000
1640068716900649984,"2021-12-21,06:38:36",10.1.1.2,336,-0.060,-0.060,-0.060,0.000,0.000,0.000
1640068716903235072,"2021-12-21,06:38:36",10.1.1.2,0.3403358459472656,-0.060,-0.060,-0.060,0.000,0.000,0.000
1640068717208982016,"2021-12-21,06:38:37",10.1.1.2,304,-0.050,-0.050,-0.050,0.000,0.000,0.000
1640068717262567936,"2021-12-21,06:38:37",10.1.1.2,0.3576388359069824,-0.050,-0.050,-0.050,0.000,0.000,0.000
1640068717557775872,"2021-12-21,06:38:37",10.1.1.2,293,-0.040,-0.040,-0.040,0.000,0.000,0.000
1640068717589537024,"2021-12-21,06:38:37",10.1.1.2,0.32556605339050293,-0.040,-0.040,-0.040,0.000,0.000,0.000
1640068718092284928,"2021-12-21,06:38:38",10.1.1.2,499,-0.030,-0.030,-0.030,0.000,0.000,0.000
1640068718138145024,"2021-12-21,06:38:38",10.1.1.2,0.5449790954589844,-0.030,-0.030,-0.030,0.000,0.000,0.000
1640068718449854976,"2021-12-21,06:38:38",10.1.1.2,309,-0.020,-0.020,-0.020,0.000,0.000,0.000
1640068718463227904,"2021-12-21,06:38:38",10.1.1.2,0.32265710830688477,-0.020,-0.020,-0.020,0.000,0.000,0.000
1640068718771509760,"2021-12-21,06:38:38",10.1.1.2,306,-0.010,-0.010,-0.010,0.000,0.000,0.000
1640068718811968000,"2021-12-21,06:38:38",10.1.1.2,0.34740495681762695,-0.010,-0.010,-0.010,0.000,0.000,0.000
1640068719124898816,"2021-12-21,06:38:39",10.1.1.2,310,0.000,0.000,0.000,0.000,0.000,0.000
1640068719199127040,"2021-12-21,06:38:39",10.1.1.2,0.38512706756591797,0.000,0.000,0.000,0.000,0.000,0.000
1640068719517874944,"2021-12-21,06:38:39",10.1.1.2,316,-0.010,-0.010,-0.010,0.000,0.000,0.000
1640068719521605120,"2021-12-21,06:38:39",10.1.1.2,0.3199951648712158,-0.010,-0.010,-0.010,0.000,0.000,0.000
1640068719857240832,"2021-12-21,06:38:39",10.1.1.2,331,-0.020,-0.020,-0.020,0.000,0.000,0.000
1640068719887262208,"2021-12-21,06:38:39",10.1.1.2,0.36188411712646484,-0.020,-0.020,-0.020,0.000,0.000,0.000
1640068720237616128,"2021-12-21,06:38:40",10.1.1.2,349,-0.030,-0.030,-0.030,0.000,0.000,0.000
1640068720274963968,"2021-12-21,06:38:40",10.1.1.2,0.3864438533782959,-0.030,-0.030,-0.030,0.000,0.000,0.000
1640068720619265024,"2021-12-21,06:38:40",10.1.1.2,341,-0.040,-0.040,-0.040,0.000,0.000,0.000
1640068720660999936,"2021-12-21,06:38:40",10.1.1.2,0.38393187522888184,-0.040,-0.040,-0.040,0.000,0.000,0.000
1640068720962439936,"2021-12-21,06:38:40",10.1.1.2,299,-0.050,-0.050,-0.050,0.000,0.000,0.000
1640068720996004096,"2021-12-21,06:38:40",10.1.1.2,0.3333108425140381,-0.050,-0.050,-0.050,0.000,0.000,0.000
1640068721291169024,"2021-12-21,06:38:41",10.1.1.2,293,-0.060,-0.060,-0.060,0.000,0.000,0.000
1640068721325732864,"2021-12-21,06:38:41",10.1.1.2,0.32828402519226074,-0.060,-0.060,-0.060,0.000,0.000,0.000
1640068721652858112,"2021-12-21,06:38:41",10.1.1.2,325,-0.070,-0.070,-0.070,0.000,0.000,0.000
1640068721661473024,"2021-12-21,06:38:41",10.1.1.2,0.3343188762664795,-0.070,-0.070,-0.070,0.000,0.000,0.000
1640068721963454976,"2021-12-21,06:38:41",10.1.1.2,300,-0.080,-0.080,-0.080,0.000,0.000,0.000
1640068721986296832,"2021-12-21,06:38:41",10.1.1.2,0.32352709770202637,-0.080,-0.080,-0.080,0.000,0.000,0.000
1640068722302993920,"2021-12-21,06:38:42",10.1.1.2,314,-0.090,-0.090,-0.090,0.000,0.000,0.000
1640068722309742848,"2021-12-21,06:38:42",10.1.1.2,0.32183218002319336,-0.090,-0.090,-0.090,0.000,0.000,0.000
1640068722624723968,"2021-12-21,06:38:42",10.1.1.2,312,-0.100,-0.100,-0.100,0.000,0.000,0.000
1640068722660902912,"2021-12-21,06:38:42",10.1.1.2,0.349301815032959,-0.100,-0.100,-0.100,0.000,0.000,0.000
1640068722967901952,"2021-12-21,06:38:42",10.1.1.2,305,-0.110,-0.110,-0.110,0.000,0.000,0.000
1640068722991232000,"2021-12-21,06:38:42",10.1.1.2,0.3290560245513916,-0.110,-0.110,-0.110,0.000,0.000,0.000
1640068723305959936,"2021-12-21,06:38:43",10.1.1.2,313,-0.120,-0.120,-0.120,0.000,0.000,0.000
1640068723340174080,"2021-12-21,06:38:43",10.1.1.2,0.3474299907684326,-0.120,-0.120,-0.120,0.000,0.000,0.000
1640068723706361088,"2021-12-21,06:38:43",10.1.1.2,364,-0.130,-0.130,-0.130,0.000,0.000,0.000
1640068723767735040,"2021-12-21,06:38:43",10.1.1.2,0.426131010055542,-0.130,-0.130,-0.130,0.000,0.000,0.000
1640068724088135936,"2021-12-21,06:38:44",10.1.1.2,318,-0.140,-0.140,-0.140,0.000,0.000,0.000
1640068724155771136,"2021-12-21,06:38:44",10.1.1.2,0.38652491569519043,-0.140,-0.140,-0.140,0.000,0.000,0.000
1640068724500247040,"2021-12-21,06:38:44",10.1.1.2,343,-0.150,-0.150,-0.150,0.000,0.000,0.000
1640068724515884032,"2021-12-21,06:38:44",10.1.1.2,0.3587658405303955,-0.150,-0.150,-0.150,0.000,0.000,0.000
1640068724880423168,"2021-12-21,06:38:44",10.1.1.2,356,-0.160,-0.160,-0.160,0.000,0.000,0.000
1640068724906692864,"2021-12-21,06:38:44",10.1.1.2,0.3827981948852539,-0.160,-0.160,-0.160,0.000,0.000,0.000
1640068725249105920,"2021-12-21,06:38:45",10.1.1.2,341,-0.170,-0.170,-0.170,0.000,0.000,0.000
1640068725263948032,"2021-12-21,06:38:45",10.1.1.2,0.3560659885406494,-0.170,-0.170,-0.170,0.000,0.000,0.000
1640068725595428864,"2021-12-21,06:38:45",10.1.1.2,329,-0.180,-0.180,-0.180,0.000,0.000,0.000
1640068725619911936,"2021-12-21,06:38:45",10.1.1.2,0.35443997383117676,-0.180,-0.180,-0.180,0.000,0.000,0.000
1640068725959453184,"2021-12-21,06:38:45",10.1.1.2,338,-0.190,-0.190,-0.190,0.000,0.000,0.000
1640068726005705984,"2021-12-21,06:38:46",10.1.1.2,0.38436388969421387,-0.190,-0.190,-0.190,0.000,0.000,0.000
1640068726312509184,"2021-12-21,06:38:46",10.1.1.2,304,-0.200,-0.200,-0.200,0.000,0.000,0.000
1640068726387175936,"2021-12-21,06:38:46",10.1.1.2,0.37967610359191895,-0.200,-0.200,-0.200,0.000,0.000,0.000
1640068726699794176,"2021-12-21,06:38:46",10.1.1.2,311,-0.210,-0.210,-0.210,0.000,0.000,0.000
1640068726733794048,"2021-12-21,06:38:46",10.1.1.2,0.3452589511871338,-0.210,-0.210,-0.210,0.000,0.000,0.000
1640068727049810944,"2021-12-21,06:38:47",10.1.1.2,314,-0.220,-0.220,-0.220,0.000,0.000,0.000
1640068727092946944,"2021-12-21,06:38:47",10.1.1.2,0.35786008834838867,-0.220,-0.220,-0.220,0.000,0.000,0.000
1640068727400180992,"2021-12-21,06:38:47",10.1.1.2,305,-0.230,-0.230,-0.230,0.000,0.000,0.000
1640068727443068928,"2021-12-21,06:38:47",10.1.1.2,0.34870100021362305,-0.230,-0.230,-0.230,0.000,0.000,0.000
1640068727770266112,"2021-12-21,06:38:47",10.1.1.2,322,-0.240,-0.240,-0.240,0.000,0.000,0.000
1640068727796887040,"2021-12-21,06:38:47",10.1.1.2,0.3490309715270996,-0.240,-0.240,-0.240,0.000,0.000,0.000
1640068728100146176,"2021-12-21,06:38:48",10.1.1.2,301,-0.250,-0.250,-0.250,0.000,0.000,0.000
1640068728142020096,"2021-12-21,06:38:48",10.1.1.2,0.3435990810394287,-0.250,-0.250,-0.250,0.000,0.000,0.000
1640068728452589056,"2021-12-21,06:38:48",10.1.1.2,308,-0.260,-0.260,-0.260,0.000,0.000,0.000
1640068728482248960,"2021-12-21,06:38:48",10.1.1.2,0.3380160331726074,-0.260,-0.260,-0.260,0.000,0.000,0.000
1640068728790970112,"2021-12-21,06:38:48",10.1.1.2,306,-0.270,-0.270,-0.270,0.000,0.000,0.000
1640068728813344000,"2021-12-21,06:38:48",10.1.1.2,0.3291900157928467,-0.270,-0.270,-0.270,0.000,0.000,0.000
1640068729160343808,"2021-12-21,06:38:49",10.1.1.2,345,-0.280,-0.280,-0.280,0.000,0.000,0.000
1640068729178496000,"2021-12-21,06:38:49",10.1.1.2,0.3639230728149414,-0.280,-0.280,-0.280,0.000,0.000,0.000
1640068729500505856,"2021-12-21,06:38:49",10.1.1.2,317,-0.290,-0.290,-0.290,0.000,0.000,0.000
1640068729538686976,"2021-12-21,06:38:49",10.1.1.2,0.35590600967407227,-0.290,-0.290,-0.290,0.000,0.000,0.000
1640068729860027904,"2021-12-21,06:38:49",10.1.1.2,319,-0.300,-0.300,-0.300,0.000,0.000,0.000
1640068729874708992,"2021-12-21,06:38:49",10.1.1.2,0.3343808650970459,-0.300,-0.300,-0.300,0.000,0.000,0.000
1640068730189862912,"2021-12-21,06:38:50",10.1.1.2,313,-0.310,-0.310,-0.310,0.000,0.000,0.000
1640068730198318848,"2021-12-21,06:38:50",10.1.1.2,0.3220350742340088,-0.310,-0.310,-0.310,0.000,0.000,0.000
1640068730531085056,"2021-12-21,06:38:50",10.1.1.2,331,-0.320,-0.320,-0.320,0.000,0.000,0.000
1640068730537723136,"2021-12-21,06:38:50",10.1.1.2,0.33767199516296387,-0.320,-0.320,-0.320,0.000,0.000,0.000
1640068730871200000,"2021-12-21,06:38:50",10.1.1.2,328,-0.330,-0.330,-0.330,0.000,0.000,0.000
1640068730895462912,"2021-12-21,06:38:50",10.1.1.2,0.35324811935424805,-0.330,-0.330,-0.330,0.000,0.000,0.000
1640068731199686912,"2021-12-21,06:38:51",10.1.1.2,302,-0.340,-0.340,-0.340,0.000,0.000,0.000
1640068731230860032,"2021-12-21,06:38:51",10.1.1.2,0.3338968753814697,-0.340,-0.340,-0.340,0.000,0.000,0.000
1640068731519584000,"2021-12-21,06:38:51",10.1.1.2,285,-0.350,-0.350,-0.350,0.000,0.000,0.000
1640068731584625920,"2021-12-21,06:38:51",10.1.1.2,0.350830078125,-0.350,-0.350,-0.350,0.000,0.000,0.000
1640068731869241856,"2021-12-21,06:38:51",10.1.1.2,283,-0.360,-0.360,-0.360,0.000,0.000,0.000
1640068731900207872,"2021-12-21,06:38:51",10.1.1.2,0.3141670227050781,-0.360,-0.360,-0.360,0.000,0.000,0.000
1640068732210223872,"2021-12-21,06:38:52",10.1.1.2,308,-0.370,-0.370,-0.370,0.000,0.000,0.000
1640068732231409152,"2021-12-21,06:38:52",10.1.1.2,0.32950687408447266,-0.370,-0.370,-0.370,0.000,0.000,0.000
1640068732569551104,"2021-12-21,06:38:52",10.1.1.2,336,-0.380,-0.380,-0.380,0.000,0.000,0.000
1640068732614535168,"2021-12-21,06:38:52",10.1.1.2,0.38187289237976074,-0.380,-0.380,-0.380,0.000,0.000,0.000
1640068732959130112,"2021-12-21,06:38:52",10.1.1.2,342,-0.390,-0.390,-0.390,0.000,0.000,0.000
1640068732981241856,"2021-12-21,06:38:52",10.1.1.2,0.36459803581237793,-0.390,-0.390,-0.390,0.000,0.000,0.000
1640068733318671872,"2021-12-21,06:38:53",10.1.1.2,325,-0.400,-0.400,-0.400,0.000,0.000,0.000
1640068733360819968,"2021-12-21,06:38:53",10.1.1.2,0.36768388748168945,-0.400,-0.400,-0.400,0.000,0.000,0.000
1640068733698381824,"2021-12-21,06:38:53",10.1.1.2,336,-0.410,-0.410,-0.410,0.000,0.000,0.000
1640068733755995136,"2021-12-21,06:38:53",10.1.1.2,0.39386892318725586,-0.410,-0.410,-0.410,0.000,0.000,0.000
1640068734077615104,"2021-12-21,06:38:54",10.1.1.2,318,-0.420,-0.420,-0.420,0.000,0.000,0.000
1640068734112091136,"2021-12-21,06:38:54",10.1.1.2,0.35260915756225586,-0.420,-0.420,-0.420,0.000,0.000,0.000
1640068734448443904,"2021-12-21,06:38:54",10.1.1.2,334,-0.430,-0.430,-0.430,0.000,0.000,0.000
1640068734490716928,"2021-12-21,06:38:54",10.1.1.2,0.3765909671783447,-0.430,-0.430,-0.430,0.000,0.000,0.000
1640068734806920960,"2021-12-21,06:38:54",10.1.1.2,312,-0.440,-0.440,-0.440,0.000,0.000,0.000
1640068734840129024,"2021-12-21,06:38:54",10.1.1.2,0.3463020324707031,-0.440,-0.440,-0.440,0.000,0.000,0.000
1640068735167228928,"2021-12-21,06:38:55",10.1.1.2,325,-0.450,-0.450,-0.450,0.000,0.000,0.000
1640068735197037824,"2021-12-21,06:38:55",10.1.1.2,0.35467004776000977,-0.450,-0.450,-0.450,0.000,0.000,0.000
1640068735496673024,"2021-12-21,06:38:55",10.1.1.2,297,-0.460,-0.460,-0.460,0.000,0.000,0.000
1640068735533974016,"2021-12-21,06:38:55",10.1.1.2,0.3352839946746826,-0.460,-0.460,-0.460,0.000,0.000,0.000
1640068735846120192,"2021-12-21,06:38:55",10.1.1.2,309,-0.470,-0.470,-0.470,0.000,0.000,0.000
1640068735890225920,"2021-12-21,06:38:55",10.1.1.2,0.35407018661499023,-0.470,-0.470,-0.470,0.000,0.000,0.000
1640068736216214016,"2021-12-21,06:38:56",10.1.1.2,324,-0.480,-0.480,-0.480,0.000,0.000,0.000
1640068736240410112,"2021-12-21,06:38:56",10.1.1.2,0.34888601303100586,-0.480,-0.480,-0.480,0.000,0.000,0.000
1640068736565718784,"2021-12-21,06:38:56",10.1.1.2,323,-0.490,-0.490,-0.490,0.000,0.000,0.000
1640068736625775104,"2021-12-21,06:38:56",10.1.1.2,0.3831641674041748,-0.490,-0.490,-0.490,0.000,0.000,0.000
1640068736996546048,"2021-12-21,06:38:56",10.1.1.2,367,-0.480,-0.480,-0.480,0.000,0.000,0.000
1640068737009677824,"2021-12-21,06:38:57",10.1.1.2,0.38115406036376953,-0.480,-0.480,-0.480,0.000,0.000,0.000
1640068737344770048,"2021-12-21,06:38:57",10.1.1.2,333,-0.470,-0.470,-0.470,0.000,0.000,0.000
1640068737373766912,"2021-12-21,06:38:57",10.1.1.2,0.3628671169281006,-0.470,-0.470,-0.470,0.000,0.000,0.000
1640068737705775104,"2021-12-21,06:38:57",10.1.1.2,330,-0.460,-0.460,-0.460,0.000,0.000,0.000
1640068737745884928,"2021-12-21,06:38:57",10.1.1.2,0.3697178363800049,-0.460,-0.460,-0.460,0.000,0.000,0.000
1640068738083911936,"2021-12-21,06:38:58",10.1.1.2,336,-0.450,-0.450,-0.450,0.000,0.000,0.000
1640068738158838016,"2021-12-21,06:38:58",10.1.1.2,0.4111919403076172,-0.450,-0.450,-0.450,0.000,0.000,0.000
1640068738522753024,"2021-12-21,06:38:58",10.1.1.2,362,-0.440,-0.440,-0.440,0.000,0.000,0.000
1640068738553113856,"2021-12-21,06:38:58",10.1.1.2,0.39296698570251465,-0.440,-0.440,-0.440,0.000,0.000,0.000
1640068738872569088,"2021-12-21,06:38:58",10.1.1.2,316,-0.430,-0.430,-0.430,0.000,0.000,0.000
1640068738901870080,"2021-12-21,06:38:58",10.1.1.2,0.3455212116241455,-0.430,-0.430,-0.430,0.000,0.000,0.000
1640068739231992832,"2021-12-21,06:38:59",10.1.1.2,327,-0.420,-0.420,-0.420,0.000,0.000,0.000
1640068739299376128,"2021-12-21,06:38:59",10.1.1.2,0.395064115524292,-0.420,-0.420,-0.420,0.000,0.000,0.000
1640068739621869056,"2021-12-21,06:38:59",10.1.1.2,321,-0.410,-0.410,-0.410,0.000,0.000,0.000
1640068739685310976,"2021-12-21,06:38:59",10.1.1.2,0.3846251964569092,-0.410,-0.410,-0.410,0.000,0.000,0.000
1640068739981085952,"2021-12-21,06:38:59",10.1.1.2,294,-0.400,-0.400,-0.400,0.000,0.000,0.000
1640068740007812864,"2021-12-21,06:39:00",10.1.1.2,0.3212130069732666,-0.400,-0.400,-0.400,0.000,0.000,0.000
1640068740331734016,"2021-12-21,06:39:00",10.1.1.2,322,-0.390,-0.390,-0.390,0.000,0.000,0.000
1640068740368299008,"2021-12-21,06:39:00",10.1.1.2,0.3591029644012451,-0.390,-0.390,-0.390,0.000,0.000,0.000
1640068740709511168,"2021-12-21,06:39:00",10.1.1.2,339,-0.380,-0.380,-0.380,0.000,0.000,0.000
1640068740733124864,"2021-12-21,06:39:00",10.1.1.2,0.36295509338378906,-0.380,-0.380,-0.380,0.000,0.000,0.000
1640068741065306880,"2021-12-21,06:39:01",10.1.1.2,330,-0.370,-0.370,-0.370,0.000,0.000,0.000
1640068741101886976,"2021-12-21,06:39:01",10.1.1.2,0.36715078353881836,-0.370,-0.370,-0.370,0.000,0.000,0.000
1640068741469377024,"2021-12-21,06:39:01",10.1.1.2,364,-0.360,-0.360,-0.360,0.000,0.000,0.000
1640068741504244992,"2021-12-21,06:39:01",10.1.1.2,0.3996100425720215,-0.360,-0.360,-0.360,0.000,0.000,0.000
1640068741839294976,"2021-12-21,06:39:01",10.1.1.2,333,-0.350,-0.350,-0.350,0.000,0.000,0.000
1640068741905935104,"2021-12-21,06:39:01",10.1.1.2,0.40041399002075195,-0.350,-0.350,-0.350,0.000,0.000,0.000
1640068742243470848,"2021-12-21,06:39:02",10.1.1.2,335,-0.340,-0.340,-0.340,0.000,0.000,0.000
1640068742252327936,"2021-12-21,06:39:02",10.1.1.2,0.34479594230651855,-0.340,-0.340,-0.340,0.000,0.000,0.000
1640068742557067008,"2021-12-21,06:39:02",10.1.1.2,297,-0.330,-0.330,-0.330,0.000,0.000,0.000
1640068742603748096,"2021-12-21,06:39:02",10.1.1.2,0.3442389965057373,-0.330,-0.330,-0.330,0.000,0.000,0.000
1640068742916788992,"2021-12-21,06:39:02",10.1.1.2,311,-0.320,-0.320,-0.320,0.000,0.000,0.000
1640068742989499136,"2021-12-21,06:39:02",10.1.1.2,0.38451099395751953,-0.320,-0.320,-0.320,0.000,0.000,0.000
1640068743336364032,"2021-12-21,06:39:03",10.1.1.2,344,-0.310,-0.310,-0.310,0.000,0.000,0.000
1640068743356851968,"2021-12-21,06:39:03",10.1.1.2,0.36498308181762695,-0.310,-0.310,-0.310,0.000,0.000,0.000
1640068743698717184,"2021-12-21,06:39:03",10.1.1.2,336,-0.300,-0.300,-0.300,0.000,0.000,0.000
1640068743741518848,"2021-12-21,06:39:03",10.1.1.2,0.37918806076049805,-0.300,-0.300,-0.300,0.000,0.000,0.000
1640068744064907008,"2021-12-21,06:39:04",10.1.1.2,321,-0.290,-0.290,-0.290,0.000,0.000,0.000
1640068744107405824,"2021-12-21,06:39:04",10.1.1.2,0.3636929988861084,-0.290,-0.290,-0.290,0.000,0.000,0.000
1640068744464577024,"2021-12-21,06:39:04",10.1.1.2,355,-0.280,-0.280,-0.280,0.000,0.000,0.000
1640068744474610944,"2021-12-21,06:39:04",10.1.1.2,0.3660001754760742,-0.280,-0.280,-0.280,0.000,0.000,0.000
1640068744784791040,"2021-12-21,06:39:04",10.1.1.2,306,-0.270,-0.270,-0.270,0.000,0.000,0.000
1640068744815592960,"2021-12-21,06:39:04",10.1.1.2,0.3377418518066406,-0.270,-0.270,-0.270,0.000,0.000,0.000
1640068745144254976,"2021-12-21,06:39:05",10.1.1.2,316,-0.260,-0.260,-0.260,0.000,0.000,0.000
1640068745167350016,"2021-12-21,06:39:05",10.1.1.2,0.3397350311279297,-0.260,-0.260,-0.260,0.000,0.000,0.000
1640068745492664064,"2021-12-21,06:39:05",10.1.1.2,323,-0.250,-0.250,-0.250,0.000,0.000,0.000
1640068745551092992,"2021-12-21,06:39:05",10.1.1.2,0.38153910636901855,-0.250,-0.250,-0.250,0.000,0.000,0.000
1640068745902386944,"2021-12-21,06:39:05",10.1.1.2,349,-0.240,-0.240,-0.240,0.000,0.000,0.000
1640068745978172928,"2021-12-21,06:39:05",10.1.1.2,0.42536211013793945,-0.240,-0.240,-0.240,0.000,0.000,0.000
1640068746282068992,"2021-12-21,06:39:06",10.1.1.2,302,-0.230,-0.230,-0.230,0.000,0.000,0.000
1640068746326683904,"2021-12-21,06:39:06",10.1.1.2,0.3472888469696045,-0.230,-0.230,-0.230,0.000,0.000,0.000
1640068746681752832,"2021-12-21,06:39:06",10.1.1.2,352,-0.220,-0.220,-0.220,0.000,0.000,0.000
1640068746718297856,"2021-12-21,06:39:06",10.1.1.2,0.3884921073913574,-0.220,-0.220,-0.220,0.000,0.000,0.000
1640068747074285056,"2021-12-21,06:39:07",10.1.1.2,354,-0.210,-0.210,-0.210,0.000,0.000,0.000
1640068747089412096,"2021-12-21,06:39:07",10.1.1.2,0.36981201171875,-0.210,-0.210,-0.210,0.000,0.000,0.000
1640068747440534016,"2021-12-21,06:39:07",10.1.1.2,347,-0.200,-0.200,-0.200,0.000,0.000,0.000
1640068747508526080,"2021-12-21,06:39:07",10.1.1.2,0.415679931640625,-0.200,-0.200,-0.200,0.000,0.000,0.000
1640068747859589120,"2021-12-21,06:39:07",10.1.1.2,348,-0.190,-0.190,-0.190,0.000,0.000,0.000
1640068747933142016,"2021-12-21,06:39:07",10.1.1.2,0.4221000671386719,-0.190,-0.190,-0.190,0.000,0.000,0.000
1640068748308857088,"2021-12-21,06:39:08",10.1.1.2,374,-0.180,-0.180,-0.180,0.000,0.000,0.000
1640068748327870976,"2021-12-21,06:39:08",10.1.1.2,0.3931441307067871,-0.180,-0.180,-0.180,0.000,0.000,0.000
1640068748738227968,"2021-12-21,06:39:08",10.1.1.2,408,-0.170,-0.170,-0.170,0.000,0.000,0.000
1640068748785982976,"2021-12-21,06:39:08",10.1.1.2,0.4567420482635498,-0.170,-0.170,-0.170,0.000,0.000,0.000
1640068749161420032,"2021-12-21,06:39:09",10.1.1.2,373,-0.160,-0.160,-0.160,0.000,0.000,0.000
1640068749203841024,"2021-12-21,06:39:09",10.1.1.2,0.416395902633667,-0.160,-0.160,-0.160,0.000,0.000,0.000
1640068749566541824,"2021-12-21,06:39:09",10.1.1.2,360,-0.150,-0.150,-0.150,0.000,0.000,0.000
1640068749595813120,"2021-12-21,06:39:09",10.1.1.2,0.3898000717163086,-0.150,-0.150,-0.150,0.000,0.000,0.000
1640068749926974976,"2021-12-21,06:39:09",10.1.1.2,326,-0.140,-0.140,-0.140,0.000,0.000,0.000
1640068749968398080,"2021-12-21,06:39:09",10.1.1.2,0.3684101104736328,-0.140,-0.140,-0.140,0.000,0.000,0.000
1640068750317133824,"2021-12-21,06:39:10",10.1.1.2,346,-0.130,-0.130,-0.130,0.000,0.000,0.000
1640068750363652096,"2021-12-21,06:39:10",10.1.1.2,0.3927431106567383,-0.130,-0.130,-0.130,0.000,0.000,0.000
1640068750729950976,"2021-12-21,06:39:10",10.1.1.2,364,-0.120,-0.120,-0.120,0.000,0.000,0.000
1640068750780250112,"2021-12-21,06:39:10",10.1.1.2,0.4146769046783447,-0.120,-0.120,-0.120,0.000,0.000,0.000
1640068751132036096,"2021-12-21,06:39:11",10.1.1.2,350,-0.110,-0.110,-0.110,0.000,0.000,0.000
1640068751156614144,"2021-12-21,06:39:11",10.1.1.2,0.3747539520263672,-0.110,-0.110,-0.110,0.000,0.000,0.000
1640068751553762048,"2021-12-21,06:39:11",10.1.1.2,394,-0.100,-0.100,-0.100,0.000,0.000,0.000
1640068751633256960,"2021-12-21,06:39:11",10.1.1.2,0.47405385971069336,-0.100,-0.100,-0.100,0.000,0.000,0.000
1640068752029467136,"2021-12-21,06:39:12",10.1.1.2,393,-0.090,-0.090,-0.090,0.000,0.000,0.000
1640068752055958016,"2021-12-21,06:39:12",10.1.1.2,0.4199700355529785,-0.090,-0.090,-0.090,0.000,0.000,0.000
1640068752568776960,"2021-12-21,06:39:12",10.1.1.2,493,-0.080,-0.080,-0.080,0.000,0.000,0.000
1640068752608988160,"2021-12-21,06:39:12",10.1.1.2,0.5339760780334473,-0.080,-0.080,-0.080,0.000,0.000,0.000
1640068752920228864,"2021-12-21,06:39:12",10.1.1.2,309,-0.070,-0.070,-0.070,0.000,0.000,0.000
1640068752955156992,"2021-12-21,06:39:12",10.1.1.2,0.34493207931518555,-0.070,-0.070,-0.070,0.000,0.000,0.000
1640068753290808832,"2021-12-21,06:39:13",10.1.1.2,333,-0.060,-0.060,-0.060,0.000,0.000,0.000
1640068753319271936,"2021-12-21,06:39:13",10.1.1.2,0.361889123916626,-0.060,-0.060,-0.060,0.000,0.000,0.000
1640068753671681024,"2021-12-21,06:39:13",10.1.1.2,348,-0.050,-0.050,-0.050,0.000,0.000,0.000
1640068753698018048,"2021-12-21,06:39:13",10.1.1.2,0.3744649887084961,-0.050,-0.050,-0.050,0.000,0.000,0.000
1640068754013601024,"2021-12-21,06:39:14",10.1.1.2,313,-0.040,-0.040,-0.040,0.000,0.000,0.000
1640068754082232064,"2021-12-21,06:39:14",10.1.1.2,0.3820929527282715,-0.040,-0.040,-0.040,0.000,0.000,0.000
1640068754473789952,"2021-12-21,06:39:14",10.1.1.2,377,-0.030,-0.030,-0.030,0.000,0.000,0.000
1640068754518349824,"2021-12-21,06:39:14",10.1.1.2,0.4217979907989502,-0.030,-0.030,-0.030,0.000,0.000,0.000
1640068754914444032,"2021-12-21,06:39:14",10.1.1.2,393,-0.020,-0.020,-0.020,0.000,0.000,0.000
1640068754919992064,"2021-12-21,06:39:14",10.1.1.2,0.39817309379577637,-0.020,-0.020,-0.020,0.000,0.000,0.000
1640068755256273152,"2021-12-21,06:39:15",10.1.1.2,334,-0.010,-0.010,-0.010,0.000,0.000,0.000
1640068755290648064,"2021-12-21,06:39:15",10.1.1.2,0.36923718452453613,-0.010,-0.010,-0.010,0.000,0.000,0.000
1640068755634588928,"2021-12-21,06:39:15",10.1.1.2,342,0.000,0.000,0.000,0.000,0.000,0.000
1640068755657517056,"2021-12-21,06:39:15",10.1.1.2,0.3656148910522461,0.000,0.000,0.000,0.000,0.000,0.000
1640068755957110784,"2021-12-21,06:39:15",10.1.1.2,298,-0.010,-0.010,-0.010,0.000,0.000,0.000
1640068755991678976,"2021-12-21,06:39:15",10.1.1.2,0.33293700218200684,-0.010,-0.010,-0.010,0.000,0.000,0.000
1640068756337222144,"2021-12-21,06:39:16",10.1.1.2,343,-0.020,-0.020,-0.020,0.000,0.000,0.000
1640068756395817984,"2021-12-21,06:39:16",10.1.1.2,0.4026048183441162,-0.020,-0.020,-0.020,0.000,0.000,0.000
1640068756748352000,"2021-12-21,06:39:16",10.1.1.2,351,-0.030,-0.030,-0.030,0.000,0.000,0.000
1640068756814491904,"2021-12-21,06:39:16",10.1.1.2,0.41739988327026367,-0.030,-0.030,-0.030,0.000,0.000,0.000
1640068757188560896,"2021-12-21,06:39:17",10.1.1.2,371,-0.040,-0.040,-0.040,0.000,0.000,0.000
1640068757239058944,"2021-12-21,06:39:17",10.1.1.2,0.4127330780029297,-0.040,-0.040,-0.040,0.000,0.000,0.000
1640068757589467136,"2021-12-21,06:39:17",10.1.1.2,347,-0.050,-0.050,-0.050,0.000,0.000,0.000
1640068757611197952,"2021-12-21,06:39:17",10.1.1.2,0.37009286880493164,-0.050,-0.050,-0.050,0.000,0.000,0.000
1640068757940372992,"2021-12-21,06:39:17",10.1.1.2,327,-0.060,-0.060,-0.060,0.000,0.000,0.000
1640068757993214976,"2021-12-21,06:39:17",10.1.1.2,0.38028478622436523,-0.060,-0.060,-0.060,0.000,0.000,0.000
1640068758320222976,"2021-12-21,06:39:18",10.1.1.2,325,-0.070,-0.070,-0.070,0.000,0.000,0.000
1640068758377883904,"2021-12-21,06:39:18",10.1.1.2,0.38262414932250977,-0.070,-0.070,-0.070,0.000,0.000,0.000
1640068758740828160,"2021-12-21,06:39:18",10.1.1.2,358,-0.080,-0.080,-0.080,0.000,0.000,0.000
1640068758787062784,"2021-12-21,06:39:18",10.1.1.2,0.4046940803527832,-0.080,-0.080,-0.080,0.000,0.000,0.000
1640068759110287872,"2021-12-21,06:39:19",10.1.1.2,321,-0.090,-0.090,-0.090,0.000,0.000,0.000
1640068759129142016,"2021-12-21,06:39:19",10.1.1.2,0.34010815620422363,-0.090,-0.090,-0.090,0.000,0.000,0.000
1640068759460700160,"2021-12-21,06:39:19",10.1.1.2,329,-0.100,-0.100,-0.100,0.000,0.000,0.000
1640068759496567040,"2021-12-21,06:39:19",10.1.1.2,0.36536192893981934,-0.100,-0.100,-0.100,0.000,0.000,0.000
1640068759810884096,"2021-12-21,06:39:19",10.1.1.2,312,-0.110,-0.110,-0.110,0.000,0.000,0.000
1640068759889195008,"2021-12-21,06:39:19",10.1.1.2,0.39114904403686523,-0.110,-0.110,-0.110,0.000,0.000,0.000
1640068760220668928,"2021-12-21,06:39:20",10.1.1.2,330,-0.120,-0.120,-0.120,0.000,0.000,0.000
1640068760254256896,"2021-12-21,06:39:20",10.1.1.2,0.36387014389038086,-0.120,-0.120,-0.120,0.000,0.000,0.000
1640068760572128000,"2021-12-21,06:39:20",10.1.1.2,315,-0.130,-0.130,-0.130,0.000,0.000,0.000
1640068760581888000,"2021-12-21,06:39:20",10.1.1.2,0.3256800174713135,-0.130,-0.130,-0.130,0.000,0.000,0.000
1640068760930819072,"2021-12-21,06:39:20",10.1.1.2,343,-0.140,-0.140,-0.140,0.000,0.000,0.000
1640068760989612032,"2021-12-21,06:39:20",10.1.1.2,0.40229177474975586,-0.140,-0.140,-0.140,0.000,0.000,0.000
1640068761310970112,"2021-12-21,06:39:21",10.1.1.2,319,-0.150,-0.150,-0.150,0.000,0.000,0.000
1640068761350441984,"2021-12-21,06:39:21",10.1.1.2,0.3590521812438965,-0.150,-0.150,-0.150,0.000,0.000,0.000
1640068761660706048,"2021-12-21,06:39:21",10.1.1.2,305,-0.160,-0.160,-0.160,0.000,0.000,0.000
1640068761692361984,"2021-12-21,06:39:21",10.1.1.2,0.3369920253753662,-0.160,-0.160,-0.160,0.000,0.000,0.000
1640068762035674112,"2021-12-21,06:39:22",10.1.1.2,329,-0.170,-0.170,-0.170,0.000,0.000,0.000
1640068762045074944,"2021-12-21,06:39:22",10.1.1.2,0.3393089771270752,-0.170,-0.170,-0.170,0.000,0.000,0.000
1640068762370480128,"2021-12-21,06:39:22",10.1.1.2,323,-0.180,-0.180,-0.180,0.000,0.000,0.000
1640068762399991040,"2021-12-21,06:39:22",10.1.1.2,0.3534059524536133,-0.180,-0.180,-0.180,0.000,0.000,0.000
1640068762720401920,"2021-12-21,06:39:22",10.1.1.2,318,-0.190,-0.190,-0.190,0.000,0.000,0.000
1640068762778489088,"2021-12-21,06:39:22",10.1.1.2,0.3767538070678711,-0.190,-0.190,-0.190,0.000,0.000,0.000
1640068763110883072,"2021-12-21,06:39:23",10.1.1.2,330,-0.200,-0.200,-0.200,0.000,0.000,0.000
1640068763136408064,"2021-12-21,06:39:23",10.1.1.2,0.3561270236968994,-0.200,-0.200,-0.200,0.000,0.000,0.000
1640068763470451200,"2021-12-21,06:39:23",10.1.1.2,331,-0.210,-0.210,-0.210,0.000,0.000,0.000
1640068763488176128,"2021-12-21,06:39:23",10.1.1.2,0.3497331142425537,-0.210,-0.210,-0.210,0.000,0.000,0.000
1640068763799869184,"2021-12-21,06:39:23",10.1.1.2,305,-0.220,-0.220,-0.220,0.000,0.000,0.000
1640068763853085952,"2021-12-21,06:39:23",10.1.1.2,0.3579680919647217,-0.220,-0.220,-0.220,0.000,0.000,0.000
1640068764180146944,"2021-12-21,06:39:24",10.1.1.2,325,-0.230,-0.230,-0.230,0.000,0.000,0.000
1640068764211781888,"2021-12-21,06:39:24",10.1.1.2,0.35662388801574707,-0.230,-0.230,-0.230,0.000,0.000,0.000
1640068764530215936,"2021-12-21,06:39:24",10.1.1.2,316,-0.240,-0.240,-0.240,0.000,0.000,0.000
1640068764544830976,"2021-12-21,06:39:24",10.1.1.2,0.331434965133667,-0.240,-0.240,-0.240,0.000,0.000,0.000
1640068764889838848,"2021-12-21,06:39:24",10.1.1.2,341,-0.250,-0.250,-0.250,0.000,0.000,0.000
1640068764952835072,"2021-12-21,06:39:24",10.1.1.2,0.4043309688568115,-0.250,-0.250,-0.250,0.000,0.000,0.000
1640068765289828096,"2021-12-21,06:39:25",10.1.1.2,334,-0.260,-0.260,-0.260,0.000,0.000,0.000
1640068765367374848,"2021-12-21,06:39:25",10.1.1.2,0.4120640754699707,-0.260,-0.260,-0.260,0.000,0.000,0.000
1640068765698780160,"2021-12-21,06:39:25",10.1.1.2,330,-0.270,-0.270,-0.270,0.000,0.000,0.000
1640068765734076928,"2021-12-21,06:39:25",10.1.1.2,0.36547112464904785,-0.270,-0.270,-0.270,0.000,0.000,0.000
1640068766068752896,"2021-12-21,06:39:26",10.1.1.2,331,-0.280,-0.280,-0.280,0.000,0.000,0.000
1640068766129980160,"2021-12-21,06:39:26",10.1.1.2,0.39313483238220215,-0.280,-0.280,-0.280,0.000,0.000,0.000
1640068766458238976,"2021-12-21,06:39:26",10.1.1.2,326,-0.290,-0.290,-0.290,0.000,0.000,0.000
1640068766491187968,"2021-12-21,06:39:26",10.1.1.2,0.35936403274536133,-0.290,-0.290,-0.290,0.000,0.000,0.000
1640068766809169920,"2021-12-21,06:39:26",10.1.1.2,316,-0.300,-0.300,-0.300,0.000,0.000,0.000
1640068766830885888,"2021-12-21,06:39:26",10.1.1.2,0.3380718231201172,-0.300,-0.300,-0.300,0.000,0.000,0.000
1640068767138503936,"2021-12-21,06:39:27",10.1.1.2,305,-0.310,-0.310,-0.310,0.000,0.000,0.000
1640068767175782912,"2021-12-21,06:39:27",10.1.1.2,0.34320592880249023,-0.310,-0.310,-0.310,0.000,0.000,0.000
1640068767528347136,"2021-12-21,06:39:27",10.1.1.2,350,-0.320,-0.320,-0.320,0.000,0.000,0.000
1640068767578896896,"2021-12-21,06:39:27",10.1.1.2,0.40125107765197754,-0.320,-0.320,-0.320,0.000,0.000,0.000
1640068767888251136,"2021-12-21,06:39:27",10.1.1.2,307,-0.330,-0.330,-0.330,0.000,0.000,0.000
1640068767941323008,"2021-12-21,06:39:27",10.1.1.2,0.36020398139953613,-0.330,-0.330,-0.330,0.000,0.000,0.000
1640068768257085952,"2021-12-21,06:39:28",10.1.1.2,312,-0.340,-0.340,-0.340,0.000,0.000,0.000
1640068768309865984,"2021-12-21,06:39:28",10.1.1.2,0.3654971122741699,-0.340,-0.340,-0.340,0.000,0.000,0.000
1640068768676033024,"2021-12-21,06:39:28",10.1.1.2,363,-0.350,-0.350,-0.350,0.000,0.000,0.000
1640068768685419008,"2021-12-21,06:39:28",10.1.1.2,0.37270188331604004,-0.350,-0.350,-0.350,0.000,0.000,0.000
1640068769088009216,"2021-12-21,06:39:29",10.1.1.2,393,-0.360,-0.360,-0.360,0.000,0.000,0.000
1640068769126676992,"2021-12-21,06:39:29",10.1.1.2,0.43378615379333496,-0.360,-0.360,-0.360,0.000,0.000,0.000
1640068769485341184,"2021-12-21,06:39:29",10.1.1.2,356,-0.370,-0.370,-0.370,0.000,0.000,0.000
1640068769550563072,"2021-12-21,06:39:29",10.1.1.2,0.42147302627563477,-0.370,-0.370,-0.370,0.000,0.000,0.000
1640068769864902912,"2021-12-21,06:39:29",10.1.1.2,311,-0.380,-0.380,-0.380,0.000,0.000,0.000
1640068769908802048,"2021-12-21,06:39:29",10.1.1.2,0.3551170825958252,-0.380,-0.380,-0.380,0.000,0.000,0.000
1640068770254664960,"2021-12-21,06:39:30",10.1.1.2,335,-0.390,-0.390,-0.390,0.000,0.000,0.000
1640068770296557056,"2021-12-21,06:39:30",10.1.1.2,0.37714290618896484,-0.390,-0.390,-0.390,0.000,0.000,0.000
1640068770644558080,"2021-12-21,06:39:30",10.1.1.2,344,-0.400,-0.400,-0.400,0.000,0.000,0.000
1640068770676279040,"2021-12-21,06:39:30",10.1.1.2,0.37615203857421875,-0.400,-0.400,-0.400,0.000,0.000,0.000
1640068770993339904,"2021-12-21,06:39:30",10.1.1.2,315,-0.410,-0.410,-0.410,0.000,0.000,0.000
1640068771015502080,"2021-12-21,06:39:31",10.1.1.2,0.336622953414917,-0.410,-0.410,-0.410,0.000,0.000,0.000
1640068771333328128,"2021-12-21,06:39:31",10.1.1.2,312,-0.420,-0.420,-0.420,0.000,0.000,0.000
1640068771398170112,"2021-12-21,06:39:31",10.1.1.2,0.3770139217376709,-0.420,-0.420,-0.420,0.000,0.000,0.000
1640068771704847104,"2021-12-21,06:39:31",10.1.1.2,302,-0.430,-0.430,-0.430,0.000,0.000,0.000
1640068771786428928,"2021-12-21,06:39:31",10.1.1.2,0.3846580982208252,-0.430,-0.430,-0.430,0.000,0.000,0.000
1640068772122444032,"2021-12-21,06:39:32",10.1.1.2,331,-0.440,-0.440,-0.440,0.000,0.000,0.000
1640068772188619008,"2021-12-21,06:39:32",10.1.1.2,0.3982679843902588,-0.440,-0.440,-0.440,0.000,0.000,0.000
1640068772511358976,"2021-12-21,06:39:32",10.1.1.2,320,-0.450,-0.450,-0.450,0.000,0.000,0.000
1640068772592752896,"2021-12-21,06:39:32",10.1.1.2,0.402163028717041,-0.450,-0.450,-0.450,0.000,0.000,0.000
1640068772920969984,"2021-12-21,06:39:32",10.1.1.2,326,-0.460,-0.460,-0.460,0.000,0.000,0.000
1640068772951738112,"2021-12-21,06:39:32",10.1.1.2,0.35759687423706055,-0.460,-0.460,-0.460,0.000,0.000,0.000
1640068773310810112,"2021-12-21,06:39:33",10.1.1.2,355,-0.470,-0.470,-0.470,0.000,0.000,0.000
1640068773343939072,"2021-12-21,06:39:33",10.1.1.2,0.38848185539245605,-0.470,-0.470,-0.470,0.000,0.000,0.000
1640068773730467072,"2021-12-21,06:39:33",10.1.1.2,380,-0.480,-0.480,-0.480,0.000,0.000,0.000
1640068773763237888,"2021-12-21,06:39:33",10.1.1.2,0.41295886039733887,-0.480,-0.480,-0.480,0.000,0.000,0.000
1640068774099459840,"2021-12-21,06:39:34",10.1.1.2,329,-0.490,-0.490,-0.490,0.000,0.000,0.000
1640068774146836992,"2021-12-21,06:39:34",10.1.1.2,0.37694787979125977,-0.490,-0.490,-0.490,0.000,0.000,0.000
1640068774488584960,"2021-12-21,06:39:34",10.1.1.2,335,-0.480,-0.480,-0.480,0.000,0.000,0.000
1640068774552130048,"2021-12-21,06:39:34",10.1.1.2,0.39921998977661133,-0.480,-0.480,-0.480,0.000,0.000,0.000
1640068774858524160,"2021-12-21,06:39:34",10.1.1.2,303,-0.470,-0.470,-0.470,0.000,0.000,0.000
1640068774908233984,"2021-12-21,06:39:34",10.1.1.2,0.35343098640441895,-0.470,-0.470,-0.470,0.000,0.000,0.000
1640068775246716928,"2021-12-21,06:39:35",10.1.1.2,336,-0.460,-0.460,-0.460,0.000,0.000,0.000
1640068775263101952,"2021-12-21,06:39:35",10.1.1.2,0.3530149459838867,-0.460,-0.460,-0.460,0.000,0.000,0.000
1640068775597121024,"2021-12-21,06:39:35",10.1.1.2,332,-0.450,-0.450,-0.450,0.000,0.000,0.000
1640068775630628096,"2021-12-21,06:39:35",10.1.1.2,0.3662559986114502,-0.450,-0.450,-0.450,0.000,0.000,0.000
1640068775966526976,"2021-12-21,06:39:35",10.1.1.2,334,-0.440,-0.440,-0.440,0.000,0.000,0.000
1640068775976324096,"2021-12-21,06:39:35",10.1.1.2,0.34412598609924316,-0.440,-0.440,-0.440,0.000,0.000,0.000
1640068776326784000,"2021-12-21,06:39:36",10.1.1.2,344,-0.430,-0.430,-0.430,0.000,0.000,0.000
1640068776365649920,"2021-12-21,06:39:36",10.1.1.2,0.38356804847717285,-0.430,-0.430,-0.430,0.000,0.000,0.000
1640068776762226944,"2021-12-21,06:39:36",10.1.1.2,392,-0.420,-0.420,-0.420,0.000,0.000,0.000
1640068776795890944,"2021-12-21,06:39:36",10.1.1.2,0.4262118339538574,-0.420,-0.420,-0.420,0.000,0.000,0.000
1640068777155694080,"2021-12-21,06:39:37",10.1.1.2,357,-0.410,-0.410,-0.410,0.000,0.000,0.000
1640068777209084928,"2021-12-21,06:39:37",10.1.1.2,0.41146087646484375,-0.410,-0.410,-0.410,0.000,0.000,0.000
1640068777554883072,"2021-12-21,06:39:37",10.1.1.2,343,-0.400,-0.400,-0.400,0.000,0.000,0.000
1640068777598022912,"2021-12-21,06:39:37",10.1.1.2,0.38669896125793457,-0.400,-0.400,-0.400,0.000,0.000,0.000
1640068777975023104,"2021-12-21,06:39:37",10.1.1.2,375,-0.390,-0.390,-0.390,0.000,0.000,0.000
1640068778019889152,"2021-12-21,06:39:38",10.1.1.2,0.420367956161499,-0.390,-0.390,-0.390,0.000,0.000,0.000
1640068778323510784,"2021-12-21,06:39:38",10.1.1.2,301,-0.380,-0.380,-0.380,0.000,0.000,0.000
1640068778368993024,"2021-12-21,06:39:38",10.1.1.2,0.3469688892364502,-0.380,-0.380,-0.380,0.000,0.000,0.000
1640068778703006976,"2021-12-21,06:39:38",10.1.1.2,331,-0.370,-0.370,-0.370,0.000,0.000,0.000
1640068778741489920,"2021-12-21,06:39:38",10.1.1.2,0.37036705017089844,-0.370,-0.370,-0.370,0.000,0.000,0.000
1640068779061438208,"2021-12-21,06:39:39",10.1.1.2,318,-0.360,-0.360,-0.360,0.000,0.000,0.000
1640068779077889024,"2021-12-21,06:39:39",10.1.1.2,0.3347790241241455,-0.360,-0.360,-0.360,0.000,0.000,0.000
1640068779441714176,"2021-12-21,06:39:39",10.1.1.2,359,-0.350,-0.350,-0.350,0.000,0.000,0.000
1640068779517282048,"2021-12-21,06:39:39",10.1.1.2,0.43499207496643066,-0.350,-0.350,-0.350,0.000,0.000,0.000
1640068779841079040,"2021-12-21,06:39:39",10.1.1.2,321,-0.340,-0.340,-0.340,0.000,0.000,0.000
1640068779878903040,"2021-12-21,06:39:39",10.1.1.2,0.3596358299255371,-0.340,-0.340,-0.340,0.000,0.000,0.000
1640068780240186880,"2021-12-21,06:39:40",10.1.1.2,359,-0.330,-0.330,-0.330,0.000,0.000,0.000
1640068780323489792,"2021-12-21,06:39:40",10.1.1.2,0.4427030086517334,-0.330,-0.330,-0.330,0.000,0.000,0.000
1640068780689131008,"2021-12-21,06:39:40",10.1.1.2,362,-0.320,-0.320,-0.320,0.000,0.000,0.000
1640068780727049216,"2021-12-21,06:39:40",10.1.1.2,0.4005589485168457,-0.320,-0.320,-0.320,0.000,0.000,0.000
1640068781118646016,"2021-12-21,06:39:41",10.1.1.2,358,-0.310,-0.310,-0.310,0.000,0.000,0.000
1640068781131282944,"2021-12-21,06:39:41",10.1.1.2,0.37152576446533203,-0.310,-0.310,-0.310,0.000,0.000,0.000
1640068781548563968,"2021-12-21,06:39:41",10.1.1.2,414,-0.300,-0.300,-0.300,0.000,0.000,0.000
1640068781591001088,"2021-12-21,06:39:41",10.1.1.2,0.4569380283355713,-0.300,-0.300,-0.300,0.000,0.000,0.000
1640068781917414912,"2021-12-21,06:39:41",10.1.1.2,323,-0.290,-0.290,-0.290,0.000,0.000,0.000
1640068781957032960,"2021-12-21,06:39:41",10.1.1.2,0.3636510372161865,-0.290,-0.290,-0.290,0.000,0.000,0.000
1640068782296250112,"2021-12-21,06:39:42",10.1.1.2,337,-0.280,-0.280,-0.280,0.000,0.000,0.000
1640068782351095808,"2021-12-21,06:39:42",10.1.1.2,0.3926270008087158,-0.280,-0.280,-0.280,0.000,0.000,0.000
1640068782685801984,"2021-12-21,06:39:42",10.1.1.2,326,-0.270,-0.270,-0.270,0.000,0.000,0.000
1640068782752103936,"2021-12-21,06:39:42",10.1.1.2,0.3927450180053711,-0.270,-0.270,-0.270,0.000,0.000,0.000
1640068783129612032,"2021-12-21,06:39:43",10.1.1.2,376,-0.260,-0.260,-0.260,0.000,0.000,0.000
1640068783138961920,"2021-12-21,06:39:43",10.1.1.2,0.38559603691101074,-0.260,-0.260,-0.260,0.000,0.000,0.000
1640068783467956992,"2021-12-21,06:39:43",10.1.1.2,326,-0.250,-0.250,-0.250,0.000,0.000,0.000
1640068783504920064,"2021-12-21,06:39:43",10.1.1.2,0.3637411594390869,-0.250,-0.250,-0.250,0.000,0.000,0.000
1640068783841600768,"2021-12-21,06:39:43",10.1.1.2,329,-0.240,-0.240,-0.240,0.000,0.000,0.000
1640068783886779136,"2021-12-21,06:39:43",10.1.1.2,0.37463998794555664,-0.240,-0.240,-0.240,0.000,0.000,0.000
1640068784231726848,"2021-12-21,06:39:44",10.1.1.2,343,-0.230,-0.230,-0.230,0.000,0.000,0.000
1640068784294068992,"2021-12-21,06:39:44",10.1.1.2,0.40559983253479004,-0.230,-0.230,-0.230,0.000,0.000,0.000
1640068784724178944,"2021-12-21,06:39:44",10.1.1.2,428,-0.220,-0.220,-0.220,0.000,0.000,0.000
1640068784743386880,"2021-12-21,06:39:44",10.1.1.2,0.4478340148925781,-0.220,-0.220,-0.220,0.000,0.000,0.000
1640068785095936000,"2021-12-21,06:39:45",10.1.1.2,350,-0.210,-0.210,-0.210,0.000,0.000,0.000
1640068785136784128,"2021-12-21,06:39:45",10.1.1.2,0.39174509048461914,-0.210,-0.210,-0.210,0.000,0.000,0.000
1640068785440412160,"2021-12-21,06:39:45",10.1.1.2,302,-0.200,-0.200,-0.200,0.000,0.000,0.000
1640068785472201984,"2021-12-21,06:39:45",10.1.1.2,0.33424997329711914,-0.200,-0.200,-0.200,0.000,0.000,0.000
1640068785830061056,"2021-12-21,06:39:45",10.1.1.2,350,-0.190,-0.190,-0.190,0.000,0.000,0.000
1640068785890317056,"2021-12-21,06:39:45",10.1.1.2,0.4112081527709961,-0.190,-0.190,-0.190,0.000,0.000,0.000
1640068786250536960,"2021-12-21,06:39:46",10.1.1.2,349,-0.180,-0.180,-0.180,0.000,0.000,0.000
1640068786293366016,"2021-12-21,06:39:46",10.1.1.2,0.39266014099121094,-0.180,-0.180,-0.180,0.000,0.000,0.000
1640068786653538048,"2021-12-21,06:39:46",10.1.1.2,358,-0.170,-0.170,-0.170,0.000,0.000,0.000
1640068786671727872,"2021-12-21,06:39:46",10.1.1.2,0.37685513496398926,-0.170,-0.170,-0.170,0.000,0.000,0.000
1640068787000943872,"2021-12-21,06:39:47",10.1.1.2,326,-0.160,-0.160,-0.160,0.000,0.000,0.000
1640068787036030976,"2021-12-21,06:39:47",10.1.1.2,0.3616459369659424,-0.160,-0.160,-0.160,0.000,0.000,0.000
1640068787392755968,"2021-12-21,06:39:47",10.1.1.2,354,-0.150,-0.150,-0.150,0.000,0.000,0.000
1640068787453031168,"2021-12-21,06:39:47",10.1.1.2,0.41449904441833496,-0.150,-0.150,-0.150,0.000,0.000,0.000
1640068787828692992,"2021-12-21,06:39:47",10.1.1.2,363,-0.140,-0.140,-0.140,0.000,0.000,0.000
1640068787877948160,"2021-12-21,06:39:47",10.1.1.2,0.4214439392089844,-0.140,-0.140,-0.140,0.000,0.000,0.000
1640068788204297984,"2021-12-21,06:39:48",10.1.1.2,325,-0.130,-0.130,-0.130,0.000,0.000,0.000
1640068788235867904,"2021-12-21,06:39:48",10.1.1.2,0.3566451072692871,-0.130,-0.130,-0.130,0.000,0.000,0.000
1640068788555171072,"2021-12-21,06:39:48",10.1.1.2,316,-0.120,-0.120,-0.120,0.000,0.000,0.000
1640068788603127040,"2021-12-21,06:39:48",10.1.1.2,0.36446714401245117,-0.120,-0.120,-0.120,0.000,0.000,0.000
1640068788917026048,"2021-12-21,06:39:48",10.1.1.2,312,-0.110,-0.110,-0.110,0.000,0.000,0.000
1640068788967931904,"2021-12-21,06:39:48",10.1.1.2,0.36295104026794434,-0.110,-0.110,-0.110,0.000,0.000,0.000
1640068789309745920,"2021-12-21,06:39:49",10.1.1.2,324,-0.100,-0.100,-0.100,0.000,0.000,0.000
1640068789340062976,"2021-12-21,06:39:49",10.1.1.2,0.35460495948791504,-0.100,-0.100,-0.100,0.000,0.000,0.000
1640068789687195136,"2021-12-21,06:39:49",10.1.1.2,345,-0.090,-0.090,-0.090,0.000,0.000,0.000
1640068789771808000,"2021-12-21,06:39:49",10.1.1.2,0.4302530288696289,-0.090,-0.090,-0.090,0.000,0.000,0.000
1640068790119499008,"2021-12-21,06:39:50",10.1.1.2,346,-0.080,-0.080,-0.080,0.000,0.000,0.000
1640068790147119872,"2021-12-21,06:39:50",10.1.1.2,0.3740520477294922,-0.080,-0.080,-0.080,0.000,0.000,0.000
1640068790468740864,"2021-12-21,06:39:50",10.1.1.2,318,-0.070,-0.070,-0.070,0.000,0.000,0.000
1640068790477637120,"2021-12-21,06:39:50",10.1.1.2,0.3271157741546631,-0.070,-0.070,-0.070,0.000,0.000,0.000
1640068790808454144,"2021-12-21,06:39:50",10.1.1.2,329,-0.060,-0.060,-0.060,0.000,0.000,0.000
1640068790855017984,"2021-12-21,06:39:50",10.1.1.2,0.37615108489990234,-0.060,-0.060,-0.060,0.000,0.000,0.000
1640068791237308928,"2021-12-21,06:39:51",10.1.1.2,371,-0.050,-0.050,-0.050,0.000,0.000,0.000
1640068791256587008,"2021-12-21,06:39:51",10.1.1.2,0.3913230895996094,-0.050,-0.050,-0.050,0.000,0.000,0.000
1640068791668924928,"2021-12-21,06:39:51",10.1.1.2,410,-0.040,-0.040,-0.040,0.000,0.000,0.000
1640068791712300032,"2021-12-21,06:39:51",10.1.1.2,0.45415592193603516,-0.040,-0.040,-0.040,0.000,0.000,0.000
1640068792058296832,"2021-12-21,06:39:52",10.1.1.2,344,-0.030,-0.030,-0.030,0.000,0.000,0.000
1640068792072758016,"2021-12-21,06:39:52",10.1.1.2,0.35915493965148926,-0.030,-0.030,-0.030,0.000,0.000,0.000
1640068792408610048,"2021-12-21,06:39:52",10.1.1.2,330,-0.020,-0.020,-0.020,0.000,0.000,0.000
1640068792459950080,"2021-12-21,06:39:52",10.1.1.2,0.38238000869750977,-0.020,-0.020,-0.020,0.000,0.000,0.000
1640068792779192832,"2021-12-21,06:39:52",10.1.1.2,318,-0.010,-0.010,-0.010,0.000,0.000,0.000
1640068792867641856,"2021-12-21,06:39:52",10.1.1.2,0.40647101402282715,-0.010,-0.010,-0.010,0.000,0.000,0.000
1640068793199035904,"2021-12-21,06:39:53",10.1.1.2,329,0.000,0.000,0.000,0.000,0.000,0.000
1640068793230856960,"2021-12-21,06:39:53",10.1.1.2,0.3617699146270752,0.000,0.000,0.000,0.000,0.000,0.000
1640068793592439040,"2021-12-21,06:39:53",10.1.1.2,356,-0.010,-0.010,-0.010,0.000,0.000,0.000
1640068793615398912,"2021-12-21,06:39:53",10.1.1.2,0.382033109664917,-0.010,-0.010,-0.010,0.000,0.000,0.000
1640068793939373056,"2021-12-21,06:39:53",10.1.1.2,320,-0.020,-0.020,-0.020,0.000,0.000,0.000
1640068793986679040,"2021-12-21,06:39:53",10.1.1.2,0.36759185791015625,-0.020,-0.020,-0.020,0.000,0.000,0.000
1640068794319237888,"2021-12-21,06:39:54",10.1.1.2,322,-0.030,-0.030,-0.030,0.000,0.000,0.000
1640068794348275968,"2021-12-21,06:39:54",10.1.1.2,0.35233211517333984,-0.030,-0.030,-0.030,0.000,0.000,0.000
1640068794681543168,"2021-12-21,06:39:54",10.1.1.2,327,-0.040,-0.040,-0.040,0.000,0.000,0.000
1640068794720001024,"2021-12-21,06:39:54",10.1.1.2,0.36673402786254883,-0.040,-0.040,-0.040,0.000,0.000,0.000
1640068795059521792,"2021-12-21,06:39:55",10.1.1.2,335,-0.050,-0.050,-0.050,0.000,0.000,0.000
1640068795127052032,"2021-12-21,06:39:55",10.1.1.2,0.4030458927154541,-0.050,-0.050,-0.050,0.000,0.000,0.000
1640068795458062848,"2021-12-21,06:39:55",10.1.1.2,329,-0.060,-0.060,-0.060,0.000,0.000,0.000
1640068795521108992,"2021-12-21,06:39:55",10.1.1.2,0.3921349048614502,-0.060,-0.060,-0.060,0.000,0.000,0.000
1640068795859128832,"2021-12-21,06:39:55",10.1.1.2,336,-0.070,-0.070,-0.070,0.000,0.000,0.000
1640068795915190016,"2021-12-21,06:39:55",10.1.1.2,0.39245104789733887,-0.070,-0.070,-0.070,0.000,0.000,0.000
1640068796251954176,"2021-12-21,06:39:56",10.1.1.2,335,-0.080,-0.080,-0.080,0.000,0.000,0.000
1640068796268028928,"2021-12-21,06:39:56",10.1.1.2,0.35124897956848145,-0.080,-0.080,-0.080,0.000,0.000,0.000
1640068796578315008,"2021-12-21,06:39:56",10.1.1.2,307,-0.090,-0.090,-0.090,0.000,0.000,0.000
1640068796636691968,"2021-12-21,06:39:56",10.1.1.2,0.36582303047180176,-0.090,-0.090,-0.090,0.000,0.000,0.000
1640068797009462016,"2021-12-21,06:39:57",10.1.1.2,365,-0.100,-0.100,-0.100,0.000,0.000,0.000
1640068797042654976,"2021-12-21,06:39:57",10.1.1.2,0.3986661434173584,-0.100,-0.100,-0.100,0.000,0.000,0.000
1640068797348252928,"2021-12-21,06:39:57",10.1.1.2,303,-0.110,-0.110,-0.110,0.000,0.000,0.000
1640068797371258112,"2021-12-21,06:39:57",10.1.1.2,0.3272578716278076,-0.110,-0.110,-0.110,0.000,0.000,0.000
1640068797727956992,"2021-12-21,06:39:57",10.1.1.2,354,-0.120,-0.120,-0.120,0.000,0.000,0.000
1640068797787715072,"2021-12-21,06:39:57",10.1.1.2,0.4145679473876953,-0.120,-0.120,-0.120,0.000,0.000,0.000
1640068798087187968,"2021-12-21,06:39:58",10.1.1.2,298,-0.130,-0.130,-0.130,0.000,0.000,0.000
1640068798140356096,"2021-12-21,06:39:58",10.1.1.2,0.35131287574768066,-0.130,-0.130,-0.130,0.000,0.000,0.000
1640068798486963968,"2021-12-21,06:39:58",10.1.1.2,338,-0.140,-0.140,-0.140,0.000,0.000,0.000
1640068798536339968,"2021-12-21,06:39:58",10.1.1.2,0.38801002502441406,-0.140,-0.140,-0.140,0.000,0.000,0.000
1640068798887894016,"2021-12-21,06:39:58",10.1.1.2,346,-0.150,-0.150,-0.150,0.000,0.000,0.000
1640068798913789952,"2021-12-21,06:39:58",10.1.1.2,0.37244701385498047,-0.150,-0.150,-0.150,0.000,0.000,0.000
1640068799268652800,"2021-12-21,06:39:59",10.1.1.2,350,-0.160,-0.160,-0.160,0.000,0.000,0.000
1640068799320887040,"2021-12-21,06:39:59",10.1.1.2,0.4026601314544678,-0.160,-0.160,-0.160,0.000,0.000,0.000
1640068799715377152,"2021-12-21,06:39:59",10.1.1.2,393,-0.170,-0.170,-0.170,0.000,0.000,0.000
1640068799749511936,"2021-12-21,06:39:59",10.1.1.2,0.4271819591522217,-0.170,-0.170,-0.170,0.000,0.000,0.000
1640068800125655808,"2021-12-21,06:40:00",10.1.1.2,374,-0.180,-0.180,-0.180,0.000,0.000,0.000
1640068800154802944,"2021-12-21,06:40:00",10.1.1.2,0.4038529396057129,-0.180,-0.180,-0.180,0.000,0.000,0.000
1640068800525698816,"2021-12-21,06:40:00",10.1.1.2,369,-0.190,-0.190,-0.190,0.000,0.000,0.000
1640068800576401920,"2021-12-21,06:40:00",10.1.1.2,0.4200460910797119,-0.190,-0.190,-0.190,0.000,0.000,0.000
1640068800934484992,"2021-12-21,06:40:00",10.1.1.2,356,-0.200,-0.200,-0.200,0.000,0.000,0.000
1640068801004702976,"2021-12-21,06:40:01",10.1.1.2,0.42659783363342285,-0.200,-0.200,-0.200,0.000,0.000,0.000
1640068801427607040,"2021-12-21,06:40:01",10.1.1.2,417,-0.210,-0.210,-0.210,0.000,0.000,0.000
1640068801503833088,"2021-12-21,06:40:01",10.1.1.2,0.496326208114624,-0.210,-0.210,-0.210,0.000,0.000,0.000
1640068801844152064,"2021-12-21,06:40:01",10.1.1.2,339,-0.220,-0.220,-0.220,0.000,0.000,0.000
1640068801869904128,"2021-12-21,06:40:01",10.1.1.2,0.3644580841064453,-0.220,-0.220,-0.220,0.000,0.000,0.000
1640068802244718080,"2021-12-21,06:40:02",10.1.1.2,373,-0.230,-0.230,-0.230,0.000,0.000,0.000
1640068802261389056,"2021-12-21,06:40:02",10.1.1.2,0.389254093170166,-0.230,-0.230,-0.230,0.000,0.000,0.000
1640068802636385024,"2021-12-21,06:40:02",10.1.1.2,372,-0.240,-0.240,-0.240,0.000,0.000,0.000
1640068802699918080,"2021-12-21,06:40:02",10.1.1.2,0.4357922077178955,-0.240,-0.240,-0.240,0.000,0.000,0.000
1640068803095144960,"2021-12-21,06:40:03",10.1.1.2,387,-0.250,-0.250,-0.250,0.000,0.000,0.000
1640068803159470080,"2021-12-21,06:40:03",10.1.1.2,0.4520401954650879,-0.250,-0.250,-0.250,0.000,0.000,0.000
1640068803501796096,"2021-12-21,06:40:03",10.1.1.2,340,-0.260,-0.260,-0.260,0.000,0.000,0.000
1640068803549679104,"2021-12-21,06:40:03",10.1.1.2,0.38875794410705566,-0.260,-0.260,-0.260,0.000,0.000,0.000
1640068803882404096,"2021-12-21,06:40:03",10.1.1.2,330,-0.270,-0.270,-0.270,0.000,0.000,0.000
1640068803917901056,"2021-12-21,06:40:03",10.1.1.2,0.3665320873260498,-0.270,-0.270,-0.270,0.000,0.000,0.000
1640068804256525056,"2021-12-21,06:40:04",10.1.1.2,336,-0.280,-0.280,-0.280,0.000,0.000,0.000
1640068804280335872,"2021-12-21,06:40:04",10.1.1.2,0.36064815521240234,-0.280,-0.280,-0.280,0.000,0.000,0.000
1640068804610269952,"2021-12-21,06:40:04",10.1.1.2,328,-0.290,-0.290,-0.290,0.000,0.000,0.000
1640068804636337920,"2021-12-21,06:40:04",10.1.1.2,0.3544759750366211,-0.290,-0.290,-0.290,0.000,0.000,0.000
1640068804990189056,"2021-12-21,06:40:04",10.1.1.2,348,-0.300,-0.300,-0.300,0.000,0.000,0.000
1640068805003077888,"2021-12-21,06:40:05",10.1.1.2,0.361461877822876,-0.300,-0.300,-0.300,0.000,0.000,0.000
1640068805379763968,"2021-12-21,06:40:05",10.1.1.2,374,-0.310,-0.310,-0.310,0.000,0.000,0.000
1640068805417136896,"2021-12-21,06:40:05",10.1.1.2,0.41217803955078125,-0.310,-0.310,-0.310,0.000,0.000,0.000
1640068805828172032,"2021-12-21,06:40:05",10.1.1.2,404,-0.320,-0.320,-0.320,0.000,0.000,0.000
1640068805878035968,"2021-12-21,06:40:05",10.1.1.2,0.4545400142669678,-0.320,-0.320,-0.320,0.000,0.000,0.000
1640068806260126208,"2021-12-21,06:40:06",10.1.1.2,380,-0.330,-0.330,-0.330,0.000,0.000,0.000
1640068806290520064,"2021-12-21,06:40:06",10.1.1.2,0.4110069274902344,-0.330,-0.330,-0.330,0.000,0.000,0.000
1640068806678621952,"2021-12-21,06:40:06",10.1.1.2,386,-0.340,-0.340,-0.340,0.000,0.000,0.000
1640068806688843008,"2021-12-21,06:40:06",10.1.1.2,0.3965170383453369,-0.340,-0.340,-0.340,0.000,0.000,0.000
1640068806997422080,"2021-12-21,06:40:06",10.1.1.2,305,-0.350,-0.350,-0.350,0.000,0.000,0.000
1640068807060435968,"2021-12-21,06:40:07",10.1.1.2,0.36846494674682617,-0.350,-0.350,-0.350,0.000,0.000,0.000
1640068807421068032,"2021-12-21,06:40:07",10.1.1.2,0.3587501049041748,-0.360,-0.360,-0.360,0.000,0.000,0.000
1640068807420815104,"2021-12-21,06:40:07",10.1.1.2,354,-0.360,-0.360,-0.360,0.000,0.000,0.000
1640068807776851968,"2021-12-21,06:40:07",10.1.1.2,350,-0.370,-0.370,-0.370,0.000,0.000,0.000
1640068807814188032,"2021-12-21,06:40:07",10.1.1.2,0.387937068939209,-0.370,-0.370,-0.370,0.000,0.000,0.000
1640068808165099008,"2021-12-21,06:40:08",10.1.1.2,348,-0.380,-0.380,-0.380,0.000,0.000,0.000
1640068808192950016,"2021-12-21,06:40:08",10.1.1.2,0.37666797637939453,-0.380,-0.380,-0.380,0.000,0.000,0.000
1640068808574699008,"2021-12-21,06:40:08",10.1.1.2,374,-0.390,-0.390,-0.390,0.000,0.000,0.000
1640068808621867776,"2021-12-21,06:40:08",10.1.1.2,0.42220187187194824,-0.390,-0.390,-0.390,0.000,0.000,0.000
1640068808973812992,"2021-12-21,06:40:08",10.1.1.2,350,-0.400,-0.400,-0.400,0.000,0.000,0.000
1640068808998846976,"2021-12-21,06:40:08",10.1.1.2,0.3754458427429199,-0.400,-0.400,-0.400,0.000,0.000,0.000
1640068809343956992,"2021-12-21,06:40:09",10.1.1.2,341,-0.410,-0.410,-0.410,0.000,0.000,0.000
1640068809391084032,"2021-12-21,06:40:09",10.1.1.2,0.38863205909729004,-0.410,-0.410,-0.410,0.000,0.000,0.000
1640068809764847104,"2021-12-21,06:40:09",10.1.1.2,372,-0.420,-0.420,-0.420,0.000,0.000,0.000
1640068809801076992,"2021-12-21,06:40:09",10.1.1.2,0.40865087509155273,-0.420,-0.420,-0.420,0.000,0.000,0.000
1640068810182394880,"2021-12-21,06:40:10",10.1.1.2,377,-0.430,-0.430,-0.430,0.000,0.000,0.000
1640068810198817024,"2021-12-21,06:40:10",10.1.1.2,0.39454102516174316,-0.430,-0.430,-0.430,0.000,0.000,0.000
1640068810522384896,"2021-12-21,06:40:10",10.1.1.2,320,-0.440,-0.440,-0.440,0.000,0.000,0.000
1640068810577253120,"2021-12-21,06:40:10",10.1.1.2,0.3755338191986084,-0.440,-0.440,-0.440,0.000,0.000,0.000
1640068810924521984,"2021-12-21,06:40:10",10.1.1.2,343,-0.450,-0.450,-0.450,0.000,0.000,0.000
1640068810951559168,"2021-12-21,06:40:10",10.1.1.2,0.3708319664001465,-0.450,-0.450,-0.450,0.000,0.000,0.000
1640068811340996864,"2021-12-21,06:40:11",10.1.1.2,386,-0.460,-0.460,-0.460,0.000,0.000,0.000
1640068811393344000,"2021-12-21,06:40:11",10.1.1.2,0.43935585021972656,-0.460,-0.460,-0.460,0.000,0.000,0.000
1640068811690249984,"2021-12-21,06:40:11",10.1.1.2,295,-0.470,-0.470,-0.470,0.000,0.000,0.000
1640068811724813824,"2021-12-21,06:40:11",10.1.1.2,0.3301689624786377,-0.470,-0.470,-0.470,0.000,0.000,0.000
1640068812050235136,"2021-12-21,06:40:12",10.1.1.2,323,-0.480,-0.480,-0.480,0.000,0.000,0.000
1640068812085342976,"2021-12-21,06:40:12",10.1.1.2,0.35906195640563965,-0.480,-0.480,-0.480,0.000,0.000,0.000
1640068812412060928,"2021-12-21,06:40:12",10.1.1.2,325,-0.490,-0.490,-0.490,0.000,0.000,0.000
1640068812468946944,"2021-12-21,06:40:12",10.1.1.2,0.3820669651031494,-0.490,-0.490,-0.490,0.000,0.000,0.000
1640068812818209024,"2021-12-21,06:40:12",10.1.1.2,345,-0.480,-0.480,-0.480,0.000,0.000,0.000
1640068812867373824,"2021-12-21,06:40:12",10.1.1.2,0.39439988136291504,-0.480,-0.480,-0.480,0.000,0.000,0.000
1640068813238553088,"2021-12-21,06:40:13",10.1.1.2,364,-0.470,-0.470,-0.470,0.000,0.000,0.000
1640068813305704192,"2021-12-21,06:40:13",10.1.1.2,0.4315638542175293,-0.470,-0.470,-0.470,0.000,0.000,0.000
1640068813656718080,"2021-12-21,06:40:13",10.1.1.2,341,-0.460,-0.460,-0.460,0.000,0.000,0.000
1640068813717533184,"2021-12-21,06:40:13",10.1.1.2,0.4020240306854248,-0.460,-0.460,-0.460,0.000,0.000,0.000
1640068814076210944,"2021-12-21,06:40:14",10.1.1.2,356,-0.450,-0.450,-0.450,0.000,0.000,0.000
1640068814100706048,"2021-12-21,06:40:14",10.1.1.2,0.381166934967041,-0.450,-0.450,-0.450,0.000,0.000,0.000
1640068814416472832,"2021-12-21,06:40:14",10.1.1.2,309,-0.440,-0.440,-0.440,0.000,0.000,0.000
1640068814474114048,"2021-12-21,06:40:14",10.1.1.2,0.3672151565551758,-0.440,-0.440,-0.440,0.000,0.000,0.000
1640068814815907840,"2021-12-21,06:40:14",10.1.1.2,340,-0.430,-0.430,-0.430,0.000,0.000,0.000
1640068814903990016,"2021-12-21,06:40:14",10.1.1.2,0.42835211753845215,-0.430,-0.430,-0.430,0.000,0.000,0.000
1640068815286220032,"2021-12-21,06:40:15",10.1.1.2,374,-0.420,-0.420,-0.420,0.000,0.000,0.000
1640068815336646912,"2021-12-21,06:40:15",10.1.1.2,0.4254000186920166,-0.420,-0.420,-0.420,0.000,0.000,0.000
1640068815657531904,"2021-12-21,06:40:15",10.1.1.2,315,-0.410,-0.410,-0.410,0.000,0.000,0.000
1640068815716475904,"2021-12-21,06:40:15",10.1.1.2,0.3739960193634033,-0.410,-0.410,-0.410,0.000,0.000,0.000
1640068816071981056,"2021-12-21,06:40:16",10.1.1.2,349,-0.400,-0.400,-0.400,0.000,0.000,0.000
1640068816100960000,"2021-12-21,06:40:16",10.1.1.2,0.3778259754180908,-0.400,-0.400,-0.400,0.000,0.000,0.000
1640068816465404160,"2021-12-21,06:40:16",10.1.1.2,357,-0.390,-0.390,-0.390,0.000,0.000,0.000
1640068816472628992,"2021-12-21,06:40:16",10.1.1.2,0.3669309616088867,-0.390,-0.390,-0.390,0.000,0.000,0.000
1640068816782427136,"2021-12-21,06:40:16",10.1.1.2,308,-0.380,-0.380,-0.380,0.000,0.000,0.000
1640068816836611072,"2021-12-21,06:40:16",10.1.1.2,0.3599240779876709,-0.380,-0.380,-0.380,0.000,0.000,0.000
1640068817184431104,"2021-12-21,06:40:17",10.1.1.2,345,-0.370,-0.370,-0.370,0.000,0.000,0.000
1640068817237958912,"2021-12-21,06:40:17",10.1.1.2,0.39923906326293945,-0.370,-0.370,-0.370,0.000,0.000,0.000
1640068817585211904,"2021-12-21,06:40:17",10.1.1.2,345,-0.360,-0.360,-0.360,0.000,0.000,0.000
1640068817610592000,"2021-12-21,06:40:17",10.1.1.2,0.37120914459228516,-0.360,-0.360,-0.360,0.000,0.000,0.000
1640068817966362880,"2021-12-21,06:40:17",10.1.1.2,341,-0.350,-0.350,-0.350,0.000,0.000,0.000
1640068818011561984,"2021-12-21,06:40:18",10.1.1.2,0.3868439197540283,-0.350,-0.350,-0.350,0.000,0.000,0.000
1640068818408230144,"2021-12-21,06:40:18",10.1.1.2,394,-0.340,-0.340,-0.340,0.000,0.000,0.000
1640068818468239104,"2021-12-21,06:40:18",10.1.1.2,0.45504093170166016,-0.340,-0.340,-0.340,0.000,0.000,0.000
1640068818808589824,"2021-12-21,06:40:18",10.1.1.2,322,-0.330,-0.330,-0.330,0.000,0.000,0.000
1640068818861757952,"2021-12-21,06:40:18",10.1.1.2,0.3761470317840576,-0.330,-0.330,-0.330,0.000,0.000,0.000
1640068819250722816,"2021-12-21,06:40:19",10.1.1.2,380,-0.320,-0.320,-0.320,0.000,0.000,0.000
1640068819274554112,"2021-12-21,06:40:19",10.1.1.2,0.40480589866638184,-0.320,-0.320,-0.320,0.000,0.000,0.000
1640068819632945920,"2021-12-21,06:40:19",10.1.1.2,340,-0.310,-0.310,-0.310,0.000,0.000,0.000
1640068819676753152,"2021-12-21,06:40:19",10.1.1.2,0.38683295249938965,-0.310,-0.310,-0.310,0.000,0.000,0.000
1640068820062736896,"2021-12-21,06:40:20",10.1.1.2,382,-0.300,-0.300,-0.300,0.000,0.000,0.000
1640068820136805888,"2021-12-21,06:40:20",10.1.1.2,0.45685791969299316,-0.300,-0.300,-0.300,0.000,0.000,0.000
1640068820585218816,"2021-12-21,06:40:20",10.1.1.2,435,-0.290,-0.290,-0.290,0.000,0.000,0.000
1640068820706752000,"2021-12-21,06:40:20",10.1.1.2,0.5569601058959961,-0.290,-0.290,-0.290,0.000,0.000,0.000
1640068821104270080,"2021-12-21,06:40:21",10.1.1.2,390,-0.280,-0.280,-0.280,0.000,0.000,0.000
1640068821150161152,"2021-12-21,06:40:21",10.1.1.2,0.43676090240478516,-0.280,-0.280,-0.280,0.000,0.000,0.000
1640068821544777984,"2021-12-21,06:40:21",10.1.1.2,392,-0.270,-0.270,-0.270,0.000,0.000,0.000
1640068821597459968,"2021-12-21,06:40:21",10.1.1.2,0.44443202018737793,-0.270,-0.270,-0.270,0.000,0.000,0.000
1640068821944300800,"2021-12-21,06:40:21",10.1.1.2,344,-0.260,-0.260,-0.260,0.000,0.000,0.000
1640068822029473024,"2021-12-21,06:40:22",10.1.1.2,0.42917704582214355,-0.260,-0.260,-0.260,0.000,0.000,0.000
1640068822414918912,"2021-12-21,06:40:22",10.1.1.2,370,-0.250,-0.250,-0.250,0.000,0.000,0.000
1640068822486525184,"2021-12-21,06:40:22",10.1.1.2,0.44252586364746094,-0.250,-0.250,-0.250,0.000,0.000,0.000
1640068822955650048,"2021-12-21,06:40:22",10.1.1.2,464,-0.240,-0.240,-0.240,0.000,0.000,0.000
1640068823003684096,"2021-12-21,06:40:23",10.1.1.2,0.5120680332183838,-0.240,-0.240,-0.240,0.000,0.000,0.000
1640068823366075904,"2021-12-21,06:40:23",10.1.1.2,360,-0.230,-0.230,-0.230,0.000,0.000,0.000
1640068823379319808,"2021-12-21,06:40:23",10.1.1.2,0.3693208694458008,-0.230,-0.230,-0.230,0.000,0.000,0.000
1640068823705662976,"2021-12-21,06:40:23",10.1.1.2,323,-0.220,-0.220,-0.220,0.000,0.000,0.000
1640068823791395072,"2021-12-21,06:40:23",10.1.1.2,0.40929412841796875,-0.220,-0.220,-0.220,0.000,0.000,0.000
1640068824158607104,"2021-12-21,06:40:24",10.1.1.2,363,-0.210,-0.210,-0.210,0.000,0.000,0.000
1640068824206423040,"2021-12-21,06:40:24",10.1.1.2,0.4118340015411377,-0.210,-0.210,-0.210,0.000,0.000,0.000
1640068824555984896,"2021-12-21,06:40:24",10.1.1.2,335,-0.200,-0.200,-0.200,0.000,0.000,0.000
1640068824584472064,"2021-12-21,06:40:24",10.1.1.2,0.3641021251678467,-0.200,-0.200,-0.200,0.000,0.000,0.000
1640068824906845184,"2021-12-21,06:40:24",10.1.1.2,320,-0.190,-0.190,-0.190,0.000,0.000,0.000
1640068824951104000,"2021-12-21,06:40:24",10.1.1.2,0.36456894874572754,-0.190,-0.190,-0.190,0.000,0.000,0.000
1640068825317734912,"2021-12-21,06:40:25",10.1.1.2,364,-0.180,-0.180,-0.180,0.000,0.000,0.000
1640068825399432960,"2021-12-21,06:40:25",10.1.1.2,0.4466819763183594,-0.180,-0.180,-0.180,0.000,0.000,0.000
1640068825735770880,"2021-12-21,06:40:25",10.1.1.2,335,-0.170,-0.170,-0.170,0.000,0.000,0.000
1640068825836549120,"2021-12-21,06:40:25",10.1.1.2,0.43584609031677246,-0.170,-0.170,-0.170,0.000,0.000,0.000
1640068826242463232,"2021-12-21,06:40:26",10.1.1.2,397,-0.160,-0.160,-0.160,0.000,0.000,0.000
1640068826298793984,"2021-12-21,06:40:26",10.1.1.2,0.4597749710083008,-0.160,-0.160,-0.160,0.000,0.000,0.000
1640068826625566976,"2021-12-21,06:40:26",10.1.1.2,323,-0.150,-0.150,-0.150,0.000,0.000,0.000
1640068826711805952,"2021-12-21,06:40:26",10.1.1.2,0.40946197509765625,-0.150,-0.150,-0.150,0.000,0.000,0.000
1640068827115513088,"2021-12-21,06:40:27",10.1.1.2,390,-0.140,-0.140,-0.140,0.000,0.000,0.000
1640068827161062912,"2021-12-21,06:40:27",10.1.1.2,0.4358079433441162,-0.140,-0.140,-0.140,0.000,0.000,0.000
1640068827536217856,"2021-12-21,06:40:27",10.1.1.2,373,-0.130,-0.130,-0.130,0.000,0.000,0.000
1640068827546688000,"2021-12-21,06:40:27",10.1.1.2,0.38434910774230957,-0.130,-0.130,-0.130,0.000,0.000,0.000
1640068827845031936,"2021-12-21,06:40:27",10.1.1.2,296,-0.120,-0.120,-0.120,0.000,0.000,0.000
1640068827902381824,"2021-12-21,06:40:27",10.1.1.2,0.35409998893737793,-0.120,-0.120,-0.120,0.000,0.000,0.000
1640068828275875072,"2021-12-21,06:40:28",10.1.1.2,366,-0.110,-0.110,-0.110,0.000,0.000,0.000
1640068828312160000,"2021-12-21,06:40:28",10.1.1.2,0.40349292755126953,-0.110,-0.110,-0.110,0.000,0.000,0.000
1640068828695375872,"2021-12-21,06:40:28",10.1.1.2,378,-0.100,-0.100,-0.100,0.000,0.000,0.000
1640068828749878016,"2021-12-21,06:40:28",10.1.1.2,0.43314480781555176,-0.100,-0.100,-0.100,0.000,0.000,0.000
1640068829135334912,"2021-12-21,06:40:29",10.1.1.2,374,-0.090,-0.090,-0.090,0.000,0.000,0.000
1640068829179876096,"2021-12-21,06:40:29",10.1.1.2,0.4194350242614746,-0.090,-0.090,-0.090,0.000,0.000,0.000
1640068829514466048,"2021-12-21,06:40:29",10.1.1.2,331,-0.080,-0.080,-0.080,0.000,0.000,0.000
1640068829581264128,"2021-12-21,06:40:29",10.1.1.2,0.3979909420013428,-0.080,-0.080,-0.080,0.000,0.000,0.000
1640068829894260992,"2021-12-21,06:40:29",10.1.1.2,311,-0.070,-0.070,-0.070,0.000,0.000,0.000
1640068829965362176,"2021-12-21,06:40:29",10.1.1.2,0.3823220729827881,-0.070,-0.070,-0.070,0.000,0.000,0.000
1640068830305952000,"2021-12-21,06:40:30",10.1.1.2,339,-0.060,-0.060,-0.060,0.000,0.000,0.000
1640068830328955904,"2021-12-21,06:40:30",10.1.1.2,0.3622760772705078,-0.060,-0.060,-0.060,0.000,0.000,0.000
1640068830666980096,"2021-12-21,06:40:30",10.1.1.2,335,-0.050,-0.050,-0.050,0.000,0.000,0.000
1640068830695360000,"2021-12-21,06:40:30",10.1.1.2,0.363616943359375,-0.050,-0.050,-0.050,0.000,0.000,0.000
1640068831042849024,"2021-12-21,06:40:31",10.1.1.2,345,-0.040,-0.040,-0.040,0.000,0.000,0.000
1640068831111659008,"2021-12-21,06:40:31",10.1.1.2,0.4147510528564453,-0.040,-0.040,-0.040,0.000,0.000,0.000
1640068831443072000,"2021-12-21,06:40:31",10.1.1.2,329,-0.030,-0.030,-0.030,0.000,0.000,0.000
1640068831509069056,"2021-12-21,06:40:31",10.1.1.2,0.3956940174102783,-0.030,-0.030,-0.030,0.000,0.000,0.000
1640068831844388096,"2021-12-21,06:40:31",10.1.1.2,333,-0.020,-0.020,-0.020,0.000,0.000,0.000
1640068831904301824,"2021-12-21,06:40:31",10.1.1.2,0.3925960063934326,-0.020,-0.020,-0.020,0.000,0.000,0.000
1640068832317651968,"2021-12-21,06:40:32",10.1.1.2,396,-0.010,-0.010,-0.010,0.000,0.000,0.000
1640068832384672000,"2021-12-21,06:40:32",10.1.1.2,0.4640359878540039,-0.010,-0.010,-0.010,0.000,0.000,0.000
1640068832732408064,"2021-12-21,06:40:32",10.1.1.2,345,0.000,0.000,0.000,0.000,0.000,0.000
1640068832777022976,"2021-12-21,06:40:32",10.1.1.2,0.3903510570526123,0.000,0.000,0.000,0.000,0.000,0.000
1640068833096414976,"2021-12-21,06:40:33",10.1.1.2,317,-0.010,-0.010,-0.010,0.000,0.000,0.000
1640068833160419840,"2021-12-21,06:40:33",10.1.1.2,0.3821251392364502,-0.010,-0.010,-0.010,0.000,0.000,0.000
1640068833501305088,"2021-12-21,06:40:33",10.1.1.2,338,-0.020,-0.020,-0.020,0.000,0.000,0.000
1640068833525373952,"2021-12-21,06:40:33",10.1.1.2,0.3634679317474365,-0.020,-0.020,-0.020,0.000,0.000,0.000
1640068833850155008,"2021-12-21,06:40:33",10.1.1.2,314,-0.030,-0.030,-0.030,0.000,0.000,0.000
1640068833946952960,"2021-12-21,06:40:33",10.1.1.2,0.4110078811645508,-0.030,-0.030,-0.030,0.000,0.000,0.000
1640068834299887872,"2021-12-21,06:40:34",10.1.1.2,351,-0.040,-0.040,-0.040,0.000,0.000,0.000
1640068834381378048,"2021-12-21,06:40:34",10.1.1.2,0.4326450824737549,-0.040,-0.040,-0.040,0.000,0.000,0.000
1640068834809568000,"2021-12-21,06:40:34",10.1.1.2,424,-0.050,-0.050,-0.050,0.000,0.000,0.000
1640068834906630144,"2021-12-21,06:40:34",10.1.1.2,0.5221729278564453,-0.050,-0.050,-0.050,0.000,0.000,0.000
1640068835329061120,"2021-12-21,06:40:35",10.1.1.2,415,-0.060,-0.060,-0.060,0.000,0.000,0.000
1640068835446588928,"2021-12-21,06:40:35",10.1.1.2,0.5332129001617432,-0.060,-0.060,-0.060,0.000,0.000,0.000
1640068835818797056,"2021-12-21,06:40:35",10.1.1.2,365,-0.070,-0.070,-0.070,0.000,0.000,0.000
1640068835866211840,"2021-12-21,06:40:35",10.1.1.2,0.4131460189819336,-0.070,-0.070,-0.070,0.000,0.000,0.000
1640068836217241088,"2021-12-21,06:40:36",10.1.1.2,347,-0.080,-0.080,-0.080,0.000,0.000,0.000
1640068836279437056,"2021-12-21,06:40:36",10.1.1.2,0.4091980457305908,-0.080,-0.080,-0.080,0.000,0.000,0.000
1640068836648893952,"2021-12-21,06:40:36",10.1.1.2,367,-0.090,-0.090,-0.090,0.000,0.000,0.000
1640068836730376960,"2021-12-21,06:40:36",10.1.1.2,0.4493739604949951,-0.090,-0.090,-0.090,0.000,0.000,0.000
1640068837096265984,"2021-12-21,06:40:37",10.1.1.2,363,-0.100,-0.100,-0.100,0.000,0.000,0.000
1640068837117984000,"2021-12-21,06:40:37",10.1.1.2,0.38512492179870605,-0.100,-0.100,-0.100,0.000,0.000,0.000
1640068837487664896,"2021-12-21,06:40:37",10.1.1.2,363,-0.110,-0.110,-0.110,0.000,0.000,0.000
1640068837561310976,"2021-12-21,06:40:37",10.1.1.2,0.4373760223388672,-0.110,-0.110,-0.110,0.000,0.000,0.000
1640068837914649856,"2021-12-21,06:40:37",10.1.1.2,351,-0.120,-0.120,-0.120,0.000,0.000,0.000
1640068837938010880,"2021-12-21,06:40:37",10.1.1.2,0.37477993965148926,-0.120,-0.120,-0.120,0.000,0.000,0.000
1640068838277890048,"2021-12-21,06:40:38",10.1.1.2,337,-0.130,-0.130,-0.130,0.000,0.000,0.000
1640068838315369984,"2021-12-21,06:40:38",10.1.1.2,0.37534093856811523,-0.130,-0.130,-0.130,0.000,0.000,0.000
1640068838664849920,"2021-12-21,06:40:38",10.1.1.2,347,-0.140,-0.140,-0.140,0.000,0.000,0.000
1640068838745382912,"2021-12-21,06:40:38",10.1.1.2,0.4285159111022949,-0.140,-0.140,-0.140,0.000,0.000,0.000
1640068839094060032,"2021-12-21,06:40:39",10.1.1.2,347,-0.150,-0.150,-0.150,0.000,0.000,0.000
1640068839169380864,"2021-12-21,06:40:39",10.1.1.2,0.4223978519439697,-0.150,-0.150,-0.150,0.000,0.000,0.000
1640068839533435136,"2021-12-21,06:40:39",10.1.1.2,360,-0.160,-0.160,-0.160,0.000,0.000,0.000
1640068839575984896,"2021-12-21,06:40:39",10.1.1.2,0.40375304222106934,-0.160,-0.160,-0.160,0.000,0.000,0.000
1640068839892695808,"2021-12-21,06:40:39",10.1.1.2,312,-0.170,-0.170,-0.170,0.000,0.000,0.000
1640068839987961088,"2021-12-21,06:40:39",10.1.1.2,0.40737009048461914,-0.170,-0.170,-0.170,0.000,0.000,0.000
1640068840335046912,"2021-12-21,06:40:40",10.1.1.2,345,-0.180,-0.180,-0.180,0.000,0.000,0.000
1640068840396239104,"2021-12-21,06:40:40",10.1.1.2,0.4068450927734375,-0.180,-0.180,-0.180,0.000,0.000,0.000
1640068840802423040,"2021-12-21,06:40:40",10.1.1.2,404,-0.190,-0.190,-0.190,0.000,0.000,0.000
1640068840844491008,"2021-12-21,06:40:40",10.1.1.2,0.44644808769226074,-0.190,-0.190,-0.190,0.000,0.000,0.000
1640068841212869888,"2021-12-21,06:40:41",10.1.1.2,366,-0.200,-0.200,-0.200,0.000,0.000,0.000
1640068841313008128,"2021-12-21,06:40:41",10.1.1.2,0.4614710807800293,-0.200,-0.200,-0.200,0.000,0.000,0.000
1640068841689007872,"2021-12-21,06:40:41",10.1.1.2,374,-0.210,-0.210,-0.210,0.000,0.000,0.000
1640068841722265088,"2021-12-21,06:40:41",10.1.1.2,0.40757107734680176,-0.210,-0.210,-0.210,0.000,0.000,0.000
1640068842080826112,"2021-12-21,06:40:42",10.1.1.2,351,-0.220,-0.220,-0.220,0.000,0.000,0.000
1640068842146915840,"2021-12-21,06:40:42",10.1.1.2,0.41829919815063477,-0.220,-0.220,-0.220,0.000,0.000,0.000
1640068842508685056,"2021-12-21,06:40:42",10.1.1.2,360,-0.230,-0.230,-0.230,0.000,0.000,0.000
1640068842542117120,"2021-12-21,06:40:42",10.1.1.2,0.3934938907623291,-0.230,-0.230,-0.230,0.000,0.000,0.000
1640068842877361152,"2021-12-21,06:40:42",10.1.1.2,333,-0.240,-0.240,-0.240,0.000,0.000,0.000
1640068842951689984,"2021-12-21,06:40:42",10.1.1.2,0.4083578586578369,-0.240,-0.240,-0.240,0.000,0.000,0.000
1640068843357242112,"2021-12-21,06:40:43",10.1.1.2,403,-0.250,-0.250,-0.250,0.000,0.000,0.000
1640068843422226944,"2021-12-21,06:40:43",10.1.1.2,0.46836018562316895,-0.250,-0.250,-0.250,0.000,0.000,0.000
1640068843768228096,"2021-12-21,06:40:43",10.1.1.2,343,-0.260,-0.260,-0.260,0.000,0.000,0.000
1640068843826752000,"2021-12-21,06:40:43",10.1.1.2,0.40261387825012207,-0.260,-0.260,-0.260,0.000,0.000,0.000
1640068844195708928,"2021-12-21,06:40:44",10.1.1.2,366,-0.270,-0.270,-0.270,0.000,0.000,0.000
1640068844278732032,"2021-12-21,06:40:44",10.1.1.2,0.44992613792419434,-0.270,-0.270,-0.270,0.000,0.000,0.000
1640068844615664896,"2021-12-21,06:40:44",10.1.1.2,332,-0.280,-0.280,-0.280,0.000,0.000,0.000
1640068844688695808,"2021-12-21,06:40:44",10.1.1.2,0.4033970832824707,-0.280,-0.280,-0.280,0.000,0.000,0.000
1640068845054349056,"2021-12-21,06:40:45",10.1.1.2,363,-0.290,-0.290,-0.290,0.000,0.000,0.000
1640068845120926976,"2021-12-21,06:40:45",10.1.1.2,0.43062615394592285,-0.290,-0.290,-0.290,0.000,0.000,0.000
1640068845443268096,"2021-12-21,06:40:45",10.1.1.2,319,-0.300,-0.300,-0.300,0.000,0.000,0.000
1640068845487685888,"2021-12-21,06:40:45",10.1.1.2,0.36352109909057617,-0.300,-0.300,-0.300,0.000,0.000,0.000
1640068845835975936,"2021-12-21,06:40:45",10.1.1.2,346,-0.310,-0.310,-0.310,0.000,0.000,0.000
1640068845870287872,"2021-12-21,06:40:45",10.1.1.2,0.3808760643005371,-0.310,-0.310,-0.310,0.000,0.000,0.000
1640068846282097152,"2021-12-21,06:40:46",10.1.1.2,410,-0.320,-0.320,-0.320,0.000,0.000,0.000
1640068846364381952,"2021-12-21,06:40:46",10.1.1.2,0.4925389289855957,-0.320,-0.320,-0.320,0.000,0.000,0.000
1640068846711350016,"2021-12-21,06:40:46",10.1.1.2,345,-0.330,-0.330,-0.330,0.000,0.000,0.000
1640068846787378944,"2021-12-21,06:40:46",10.1.1.2,0.4211390018463135,-0.330,-0.330,-0.330,0.000,0.000,0.000
1640068847154723840,"2021-12-21,06:40:47",10.1.1.2,359,-0.340,-0.340,-0.340,0.000,0.000,0.000
1640068847192317952,"2021-12-21,06:40:47",10.1.1.2,0.3967251777648926,-0.340,-0.340,-0.340,0.000,0.000,0.000
1640068847614221056,"2021-12-21,06:40:47",10.1.1.2,414,-0.350,-0.350,-0.350,0.000,0.000,0.000
1640068847697325056,"2021-12-21,06:40:47",10.1.1.2,0.4974651336669922,-0.350,-0.350,-0.350,0.000,0.000,0.000
1640068848107726080,"2021-12-21,06:40:48",10.1.1.2,404,-0.360,-0.360,-0.360,0.000,0.000,0.000
1640068848171257088,"2021-12-21,06:40:48",10.1.1.2,0.4685049057006836,-0.360,-0.360,-0.360,0.000,0.000,0.000
1640068848549027840,"2021-12-21,06:40:48",10.1.1.2,375,-0.370,-0.370,-0.370,0.000,0.000,0.000
1640068848584124928,"2021-12-21,06:40:48",10.1.1.2,0.4104650020599365,-0.370,-0.370,-0.370,0.000,0.000,0.000
1640068848981195008,"2021-12-21,06:40:48",10.1.1.2,393,-0.380,-0.380,-0.380,0.000,0.000,0.000
1640068848997498880,"2021-12-21,06:40:48",10.1.1.2,0.41070103645324707,-0.380,-0.380,-0.380,0.000,0.000,0.000
1640068849332134912,"2021-12-21,06:40:49",10.1.1.2,326,-0.390,-0.390,-0.390,0.000,0.000,0.000
1640068849377908992,"2021-12-21,06:40:49",10.1.1.2,0.37203001976013184,-0.390,-0.390,-0.390,0.000,0.000,0.000
1640068849773832192,"2021-12-21,06:40:49",10.1.1.2,394,-0.400,-0.400,-0.400,0.000,0.000,0.000
1640068849824704000,"2021-12-21,06:40:49",10.1.1.2,0.445559024810791,-0.400,-0.400,-0.400,0.000,0.000,0.000
1640068850185022976,"2021-12-21,06:40:50",10.1.1.2,350,-0.410,-0.410,-0.410,0.000,0.000,0.000
1640068850246176000,"2021-12-21,06:40:50",10.1.1.2,0.411823034286499,-0.410,-0.410,-0.410,0.000,0.000,0.000
1640068850766735104,"2021-12-21,06:40:50",10.1.1.2,517,-0.420,-0.420,-0.420,0.000,0.000,0.000
1640068850810690048,"2021-12-21,06:40:50",10.1.1.2,0.5618760585784912,-0.420,-0.420,-0.420,0.000,0.000,0.000
1640068851197527040,"2021-12-21,06:40:51",10.1.1.2,378,-0.430,-0.430,-0.430,0.000,0.000,0.000
1640068851255183104,"2021-12-21,06:40:51",10.1.1.2,0.43627405166625977,-0.430,-0.430,-0.430,0.000,0.000,0.000
1640068851608684032,"2021-12-21,06:40:51",10.1.1.2,349,-0.440,-0.440,-0.440,0.000,0.000,0.000
1640068851622313984,"2021-12-21,06:40:51",10.1.1.2,0.36324000358581543,-0.440,-0.440,-0.440,0.000,0.000,0.000
1640068851979766016,"2021-12-21,06:40:51",10.1.1.2,355,-0.450,-0.450,-0.450,0.000,0.000,0.000
1640068852018126848,"2021-12-21,06:40:52",10.1.1.2,0.3937370777130127,-0.450,-0.450,-0.450,0.000,0.000,0.000
1640068852399257856,"2021-12-21,06:40:52",10.1.1.2,379,-0.460,-0.460,-0.460,0.000,0.000,0.000
1640068852465085952,"2021-12-21,06:40:52",10.1.1.2,0.4454331398010254,-0.460,-0.460,-0.460,0.000,0.000,0.000
1640068852844594944,"2021-12-21,06:40:52",10.1.1.2,371,-0.470,-0.470,-0.470,0.000,0.000,0.000
1640068852919169024,"2021-12-21,06:40:52",10.1.1.2,0.44660496711730957,-0.470,-0.470,-0.470,0.000,0.000,0.000
1640068853292732928,"2021-12-21,06:40:53",10.1.1.2,355,-0.480,-0.480,-0.480,0.000,0.000,0.000
1640068853357073920,"2021-12-21,06:40:53",10.1.1.2,0.4201970100402832,-0.480,-0.480,-0.480,0.000,0.000,0.000
1640068853724659968,"2021-12-21,06:40:53",10.1.1.2,356,-0.490,-0.490,-0.490,0.000,0.000,0.000
1640068853810853888,"2021-12-21,06:40:53",10.1.1.2,0.44396090507507324,-0.490,-0.490,-0.490,0.000,0.000,0.000
1640068854144387840,"2021-12-21,06:40:54",10.1.1.2,331,-0.480,-0.480,-0.480,0.000,0.000,0.000
1640068854206084096,"2021-12-21,06:40:54",10.1.1.2,0.3933751583099365,-0.480,-0.480,-0.480,0.000,0.000,0.000
1640068854584487936,"2021-12-21,06:40:54",10.1.1.2,371,-0.470,-0.470,-0.470,0.000,0.000,0.000
1640068854657612032,"2021-12-21,06:40:54",10.1.1.2,0.44542694091796875,-0.470,-0.470,-0.470,0.000,0.000,0.000
1640068855036941056,"2021-12-21,06:40:55",10.1.1.2,377,-0.460,-0.460,-0.460,0.000,0.000,0.000
1640068855111581184,"2021-12-21,06:40:55",10.1.1.2,0.452455997467041,-0.460,-0.460,-0.460,0.000,0.000,0.000
1640068855485275904,"2021-12-21,06:40:55",10.1.1.2,372,-0.450,-0.450,-0.450,0.000,0.000,0.000
1640068855569767936,"2021-12-21,06:40:55",10.1.1.2,0.45670199394226074,-0.450,-0.450,-0.450,0.000,0.000,0.000
1640068855874959872,"2021-12-21,06:40:55",10.1.1.2,302,-0.440,-0.440,-0.440,0.000,0.000,0.000
1640068855978306048,"2021-12-21,06:40:55",10.1.1.2,0.4061899185180664,-0.440,-0.440,-0.440,0.000,0.000,0.000
1640068856305917952,"2021-12-21,06:40:56",10.1.1.2,326,-0.430,-0.430,-0.430,0.000,0.000,0.000
1640068856405615104,"2021-12-21,06:40:56",10.1.1.2,0.42613697052001953,-0.430,-0.430,-0.430,0.000,0.000,0.000
1640068856774753024,"2021-12-21,06:40:56",10.1.1.2,361,-0.420,-0.420,-0.420,0.000,0.000,0.000
1640068856809967872,"2021-12-21,06:40:56",10.1.1.2,0.3930540084838867,-0.420,-0.420,-0.420,0.000,0.000,0.000
1640068857216041984,"2021-12-21,06:40:57",10.1.1.2,401,-0.410,-0.410,-0.410,0.000,0.000,0.000
1640068857317614080,"2021-12-21,06:40:57",10.1.1.2,0.5029370784759521,-0.410,-0.410,-0.410,0.000,0.000,0.000
1640068857726073088,"2021-12-21,06:40:57",10.1.1.2,398,-0.400,-0.400,-0.400,0.000,0.000,0.000
1640068857776468992,"2021-12-21,06:40:57",10.1.1.2,0.4463510513305664,-0.400,-0.400,-0.400,0.000,0.000,0.000
1640068858115812096,"2021-12-21,06:40:58",10.1.1.2,336,-0.390,-0.390,-0.390,0.000,0.000,0.000
1640068858240349952,"2021-12-21,06:40:58",10.1.1.2,0.4612400531768799,-0.390,-0.390,-0.390,0.000,0.000,0.000
1640068858615034112,"2021-12-21,06:40:58",10.1.1.2,351,-0.380,-0.380,-0.380,0.000,0.000,0.000
1640068858679379968,"2021-12-21,06:40:58",10.1.1.2,0.41554713249206543,-0.380,-0.380,-0.380,0.000,0.000,0.000
1640068859064945920,"2021-12-21,06:40:59",10.1.1.2,379,-0.370,-0.370,-0.370,0.000,0.000,0.000
1640068859124401152,"2021-12-21,06:40:59",10.1.1.2,0.43927884101867676,-0.370,-0.370,-0.370,0.000,0.000,0.000
1640068859457752832,"2021-12-21,06:40:59",10.1.1.2,329,-0.360,-0.360,-0.360,0.000,0.000,0.000
1640068859539777024,"2021-12-21,06:40:59",10.1.1.2,0.4113290309906006,-0.360,-0.360,-0.360,0.000,0.000,0.000
1640068859914872832,"2021-12-21,06:40:59",10.1.1.2,361,-0.350,-0.350,-0.350,0.000,0.000,0.000
1640068860003784960,"2021-12-21,06:41:00",10.1.1.2,0.4500241279602051,-0.350,-0.350,-0.350,0.000,0.000,0.000
1640068860315226112,"2021-12-21,06:41:00",10.1.1.2,309,-0.340,-0.340,-0.340,0.000,0.000,0.000
1640068860357852928,"2021-12-21,06:41:00",10.1.1.2,0.3517320156097412,-0.340,-0.340,-0.340,0.000,0.000,0.000
1640068860724491008,"2021-12-21,06:41:00",10.1.1.2,353,-0.330,-0.330,-0.330,0.000,0.000,0.000
1640068860762875136,"2021-12-21,06:41:00",10.1.1.2,0.39189696311950684,-0.330,-0.330,-0.330,0.000,0.000,0.000
1640068861176000000,"2021-12-21,06:41:01",10.1.1.2,406,-0.320,-0.320,-0.320,0.000,0.000,0.000
1640068861251069952,"2021-12-21,06:41:01",10.1.1.2,0.48174190521240234,-0.320,-0.320,-0.320,0.000,0.000,0.000
1640068861556407040,"2021-12-21,06:41:01",10.1.1.2,303,-0.310,-0.310,-0.310,0.000,0.000,0.000
1640068861612105984,"2021-12-21,06:41:01",10.1.1.2,0.3597390651702881,-0.310,-0.310,-0.310,0.000,0.000,0.000
1640068861933527040,"2021-12-21,06:41:01",10.1.1.2,319,-0.300,-0.300,-0.300,0.000,0.000,0.000
1640068861976381184,"2021-12-21,06:41:01",10.1.1.2,0.36235594749450684,-0.300,-0.300,-0.300,0.000,0.000,0.000
1640068862373570816,"2021-12-21,06:41:02",10.1.1.2,390,-0.290,-0.290,-0.290,0.000,0.000,0.000
1640068862413972992,"2021-12-21,06:41:02",10.1.1.2,0.43142199516296387,-0.290,-0.290,-0.290,0.000,0.000,0.000
1640068862724358912,"2021-12-21,06:41:02",10.1.1.2,308,-0.280,-0.280,-0.280,0.000,0.000,0.000
1640068862761018880,"2021-12-21,06:41:02",10.1.1.2,0.34548401832580566,-0.280,-0.280,-0.280,0.000,0.000,0.000
1640068863162733056,"2021-12-21,06:41:03",10.1.1.2,397,-0.270,-0.270,-0.270,0.000,0.000,0.000
1640068863219537920,"2021-12-21,06:41:03",10.1.1.2,0.4543571472167969,-0.270,-0.270,-0.270,0.000,0.000,0.000
1640068863602786048,"2021-12-21,06:41:03",10.1.1.2,379,-0.260,-0.260,-0.260,0.000,0.000,0.000
1640068863666095104,"2021-12-21,06:41:03",10.1.1.2,0.44275999069213867,-0.260,-0.260,-0.260,0.000,0.000,0.000
1640068864042316800,"2021-12-21,06:41:04",10.1.1.2,374,-0.250,-0.250,-0.250,0.000,0.000,0.000
1640068864105608960,"2021-12-21,06:41:04",10.1.1.2,0.4379911422729492,-0.250,-0.250,-0.250,0.000,0.000,0.000
1640068864452666880,"2021-12-21,06:41:04",10.1.1.2,343,-0.240,-0.240,-0.240,0.000,0.000,0.000
1640068864552274944,"2021-12-21,06:41:04",10.1.1.2,0.441464900970459,-0.240,-0.240,-0.240,0.000,0.000,0.000
1640068864861548032,"2021-12-21,06:41:04",10.1.1.2,306,-0.230,-0.230,-0.230,0.000,0.000,0.000
1640068864984993024,"2021-12-21,06:41:04",10.1.1.2,0.43004298210144043,-0.230,-0.230,-0.230,0.000,0.000,0.000
1640068865370693888,"2021-12-21,06:41:05",10.1.1.2,383,-0.220,-0.220,-0.220,0.000,0.000,0.000
1640068865482827008,"2021-12-21,06:41:05",10.1.1.2,0.49567198753356934,-0.220,-0.220,-0.220,0.000,0.000,0.000
1640068865839494912,"2021-12-21,06:41:05",10.1.1.2,353,-0.210,-0.210,-0.210,0.000,0.000,0.000
1640068865932998912,"2021-12-21,06:41:05",10.1.1.2,0.44684505462646484,-0.210,-0.210,-0.210,0.000,0.000,0.000
1640068866263757056,"2021-12-21,06:41:06",10.1.1.2,329,-0.200,-0.200,-0.200,0.000,0.000,0.000
1640068866335275776,"2021-12-21,06:41:06",10.1.1.2,0.40096402168273926,-0.200,-0.200,-0.200,0.000,0.000,0.000
1640068866741629952,"2021-12-21,06:41:06",10.1.1.2,392,-0.190,-0.190,-0.190,0.000,0.000,0.000
1640068866783983104,"2021-12-21,06:41:06",10.1.1.2,0.4351470470428467,-0.190,-0.190,-0.190,0.000,0.000,0.000
1640068867178697984,"2021-12-21,06:41:07",10.1.1.2,374,-0.180,-0.180,-0.180,0.000,0.000,0.000
1640068867253767936,"2021-12-21,06:41:07",10.1.1.2,0.4497649669647217,-0.180,-0.180,-0.180,0.000,0.000,0.000
1640068867607768064,"2021-12-21,06:41:07",10.1.1.2,351,-0.170,-0.170,-0.170,0.000,0.000,0.000
1640068867684526080,"2021-12-21,06:41:07",10.1.1.2,0.41946887969970703,-0.170,-0.170,-0.170,0.000,0.000,0.000
1640068868066791168,"2021-12-21,06:41:08",10.1.1.2,376,-0.160,-0.160,-0.160,0.000,0.000,0.000
1640068868117313024,"2021-12-21,06:41:08",10.1.1.2,0.42659592628479004,-0.160,-0.160,-0.160,0.000,0.000,0.000
1640068868486352896,"2021-12-21,06:41:08",10.1.1.2,367,-0.150,-0.150,-0.150,0.000,0.000,0.000
1640068868510583040,"2021-12-21,06:41:08",10.1.1.2,0.3920400142669678,-0.150,-0.150,-0.150,0.000,0.000,0.000
1640068868866571008,"2021-12-21,06:41:08",10.1.1.2,354,-0.140,-0.140,-0.140,0.000,0.000,0.000
1640068868949552128,"2021-12-21,06:41:08",10.1.1.2,0.43738317489624023,-0.140,-0.140,-0.140,0.000,0.000,0.000
1640068869278182144,"2021-12-21,06:41:09",10.1.1.2,327,-0.130,-0.130,-0.130,0.000,0.000,0.000
1640068869329269760,"2021-12-21,06:41:09",10.1.1.2,0.37619996070861816,-0.130,-0.130,-0.130,0.000,0.000,0.000
1640068869704727808,"2021-12-21,06:41:09",10.1.1.2,373,-0.120,-0.120,-0.120,0.000,0.000,0.000
1640068869771166208,"2021-12-21,06:41:09",10.1.1.2,0.4395930767059326,-0.120,-0.120,-0.120,0.000,0.000,0.000
1640068870239232000,"2021-12-21,06:41:10",10.1.1.2,466,-0.110,-0.110,-0.110,0.000,0.000,0.000
1640068870344836096,"2021-12-21,06:41:10",10.1.1.2,0.5723059177398682,-0.110,-0.110,-0.110,0.000,0.000,0.000
1640068870787779072,"2021-12-21,06:41:10",10.1.1.2,441,-0.100,-0.100,-0.100,0.000,0.000,0.000
1640068870843303936,"2021-12-21,06:41:10",10.1.1.2,0.4966578483581543,-0.100,-0.100,-0.100,0.000,0.000,0.000
1640068871212654080,"2021-12-21,06:41:11",10.1.1.2,353,-0.090,-0.090,-0.090,0.000,0.000,0.000
1640068871268320000,"2021-12-21,06:41:11",10.1.1.2,0.4094719886779785,-0.090,-0.090,-0.090,0.000,0.000,0.000
1640068871624304896,"2021-12-21,06:41:11",10.1.1.2,354,-0.080,-0.080,-0.080,0.000,0.000,0.000
1640068871715721984,"2021-12-21,06:41:11",10.1.1.2,0.44574403762817383,-0.080,-0.080,-0.080,0.000,0.000,0.000
1640068872033307904,"2021-12-21,06:41:12",10.1.1.2,314,-0.070,-0.070,-0.070,0.000,0.000,0.000
1640068872088763904,"2021-12-21,06:41:12",10.1.1.2,0.3702819347381592,-0.070,-0.070,-0.070,0.000,0.000,0.000
1640068872401842944,"2021-12-21,06:41:12",10.1.1.2,310,-0.060,-0.060,-0.060,0.000,0.000,0.000
1640068872491940864,"2021-12-21,06:41:12",10.1.1.2,0.40101099014282227,-0.060,-0.060,-0.060,0.000,0.000,0.000
1640068872850496000,"2021-12-21,06:41:12",10.1.1.2,356,-0.050,-0.050,-0.050,0.000,0.000,0.000
1640068872917581056,"2021-12-21,06:41:12",10.1.1.2,0.42365479469299316,-0.050,-0.050,-0.050,0.000,0.000,0.000
1640068873270296064,"2021-12-21,06:41:13",10.1.1.2,349,-0.040,-0.040,-0.040,0.000,0.000,0.000
1640068873353074176,"2021-12-21,06:41:13",10.1.1.2,0.43241095542907715,-0.040,-0.040,-0.040,0.000,0.000,0.000
