FedericoMungari/DigitalTwin_service/02_LTEScenario/Output/Output_script/script_ROSAPI_output_robots2_freq0_1.txt
timestamp,date,node,latency,joint_1,joint_2,joint_3,joint_4,joint_5,joint_6
1640645341767827968,2021-12-27-22:49:01,10.1.1.2,1640645341767.146,-0.000,-0.000,0.000,-0.000,0.000,0.000
1640645345843333120,2021-12-27-22:49:05,10.1.1.2,16,-0.000,-0.000,0.000,-0.000,0.000,0.000
1640645347958672896,2021-12-27-22:49:07,10.1.1.2,11,-0.000,-0.000,0.000,-0.000,0.000,0.000
1640645350098511104,2021-12-27-22:49:10,10.1.1.2,10,-0.000,-0.000,0.000,-0.000,0.000,0.000
1640645352251720960,2021-12-27-22:49:12,10.1.1.2,12,-0.000,-0.000,0.000,-0.000,0.000,0.000
1640645354411601920,2021-12-27-22:49:14,10.1.1.2,7,-0.000,-0.000,0.000,-0.000,0.000,0.000
1640645356520844032,2021-12-27-22:49:16,10.1.1.2,11,-0.000,-0.000,0.000,-0.000,0.000,0.000
1640645358648808960,2021-12-27-22:49:18,10.1.1.2,15,-0.000,-0.000,0.000,-0.000,0.000,0.000
1640645360774893056,2021-12-27-22:49:20,10.1.1.2,7,-0.000,-0.000,0.000,-0.000,0.000,0.000
1640645362895490816,2021-12-27-22:49:22,10.1.1.2,11,-0.000,-0.000,0.000,-0.000,0.000,0.000
1640645365015068160,2021-12-27-22:49:25,10.1.1.2,4,-0.000,-0.000,0.000,-0.000,0.000,0.000
1640645367175664896,2021-12-27-22:49:27,10.1.1.2,7,-0.000,-0.000,0.000,-0.000,0.000,0.000
1640645369294701056,2021-12-27-22:49:29,10.1.1.2,17,-0.000,-0.000,0.000,-0.000,0.000,0.000
1640645371391150848,2021-12-27-22:49:31,10.1.1.2,4,-0.000,-0.000,0.000,-0.000,0.000,0.000
1640645373554044928,2021-12-27-22:49:33,10.1.1.2,9,-0.000,-0.000,0.000,-0.000,0.000,0.000
1640645375706190080,2021-12-27-22:49:35,10.1.1.2,13,-0.000,-0.000,0.000,-0.000,0.000,0.000
1640645377824590848,2021-12-27-22:49:37,10.1.1.2,14,-0.000,-0.000,0.000,-0.000,0.000,0.000
1640645379981217024,2021-12-27-22:49:39,10.1.1.2,12,-0.000,-0.000,0.000,-0.000,0.000,0.000
1640645382083300096,2021-12-27-22:49:42,10.1.1.2,12,-0.000,-0.000,0.000,-0.000,0.000,0.000
1640645384236026112,2021-12-27-22:49:44,10.1.1.2,18,-0.000,-0.000,0.000,-0.000,0.000,0.000
1640645386353606912,2021-12-27-22:49:46,10.1.1.2,18,-0.000,-0.000,0.000,-0.000,0.000,0.000
1640645388462553088,2021-12-27-22:49:48,10.1.1.2,9,-0.000,-0.000,0.000,-0.000,0.000,0.000
1640645390567816960,2021-12-27-22:49:50,10.1.1.2,12,-0.000,-0.000,0.000,-0.000,0.000,0.000
1640645392671847168,2021-12-27-22:49:52,10.1.1.2,10,-0.000,-0.000,0.000,-0.000,0.000,0.000
1640645394814424064,2021-12-27-22:49:54,10.1.1.2,16,-0.000,-0.000,0.000,-0.000,0.000,0.000
1640645396954107904,2021-12-27-22:49:56,10.1.1.2,15,-0.000,-0.000,0.000,-0.000,0.000,0.000
1640645399055193856,2021-12-27-22:49:59,10.1.1.2,8,-0.000,-0.000,0.000,-0.000,0.000,0.000
1640645401134025216,2021-12-27-22:50:01,10.1.1.2,12,-0.000,-0.000,0.000,-0.000,0.000,0.000
1640645403215367168,2021-12-27-22:50:03,10.1.1.2,1,-0.000,-0.000,0.000,-0.000,0.000,0.000
1640645405368320000,2021-12-27-22:50:05,10.1.1.2,12,-0.000,-0.000,0.000,-0.000,0.000,0.000
1640645407485630976,2021-12-27-22:50:07,10.1.1.2,10,-0.000,-0.000,0.000,-0.000,0.000,0.000
1640645409645940992,2021-12-27-22:50:09,10.1.1.2,15,-0.000,-0.000,0.000,-0.000,0.000,0.000
1640645411759470848,2021-12-27-22:50:11,10.1.1.2,17,-0.000,-0.000,0.000,-0.000,0.000,0.000
1640645413896174848,2021-12-27-22:50:13,10.1.1.2,8,-0.000,-0.000,0.000,-0.000,0.000,0.000
1640645416013647104,2021-12-27-22:50:16,10.1.1.2,16,-0.000,-0.000,0.000,-0.000,0.000,0.000
1640645418150777088,2021-12-27-22:50:18,10.1.1.2,6,-0.000,-0.000,0.000,-0.000,0.000,0.000
1640645420295005952,2021-12-27-22:50:20,10.1.1.2,18,-0.000,-0.000,0.000,-0.000,0.000,0.000
1640645422404099840,2021-12-27-22:50:22,10.1.1.2,10,-0.000,-0.000,0.000,-0.000,0.000,0.000
1640645424547950080,2021-12-27-22:50:24,10.1.1.2,11,-0.000,-0.000,0.000,-0.000,0.000,0.000
1640645426710368000,2021-12-27-22:50:26,10.1.1.2,8,-0.000,-0.000,0.000,-0.000,0.000,0.000
1640645428872945152,2021-12-27-22:50:28,10.1.1.2,15,-0.000,-0.000,0.000,-0.000,0.000,0.000
1640645430992664064,2021-12-27-22:50:30,10.1.1.2,6,-0.000,-0.000,0.000,-0.000,0.000,0.000
1640645433132534016,2021-12-27-22:50:33,10.1.1.2,9,-0.000,-0.000,0.000,-0.000,0.000,0.000
1640645435290522112,2021-12-27-22:50:35,10.1.1.2,18,-0.000,-0.000,0.000,-0.000,0.000,0.000
1640645437369364992,2021-12-27-22:50:37,10.1.1.2,7,-0.000,-0.000,0.000,-0.000,0.000,0.000
1640645439486984960,2021-12-27-22:50:39,10.1.1.2,3,-0.000,-0.000,0.000,-0.000,0.000,0.000
1640645441621516032,2021-12-27-22:50:41,10.1.1.2,15,-0.000,-0.000,0.000,-0.000,0.000,0.000
1640645443742067200,2021-12-27-22:50:43,10.1.1.2,19,-0.000,-0.000,0.000,-0.000,0.000,0.000
1640645445816140800,2021-12-27-22:50:45,10.1.1.2,1,-0.000,-0.000,0.000,-0.000,0.000,0.000
1640645447914963968,2021-12-27-22:50:47,10.1.1.2,4,-0.000,-0.000,0.000,-0.000,0.000,0.000
1640645450049988096,2021-12-27-22:50:50,10.1.1.2,3,-0.000,-0.000,0.000,-0.000,0.000,0.000
1640645452176249088,2021-12-27-22:50:52,10.1.1.2,9,-0.000,-0.000,0.000,-0.000,0.000,0.000
1640645454304083968,2021-12-27-22:50:54,10.1.1.2,10,-0.000,-0.000,0.000,-0.000,0.000,0.000
1640645456408695040,2021-12-27-22:50:56,10.1.1.2,3,-0.000,-0.000,0.000,-0.000,0.000,0.000
1640645458554124032,2021-12-27-22:50:58,10.1.1.2,3,-0.000,-0.000,0.000,-0.000,0.000,0.000
1640645460692188928,2021-12-27-22:51:00,10.1.1.2,8,-0.000,-0.000,0.000,-0.000,0.000,0.000
1640645462852907776,2021-12-27-22:51:02,10.1.1.2,15,-0.000,-0.000,0.000,-0.000,0.000,0.000
1640645464972709888,2021-12-27-22:51:04,10.1.1.2,6,-0.000,-0.000,0.000,-0.000,0.000,0.000
1640645467090380800,2021-12-27-22:51:07,10.1.1.2,9,-0.000,-0.000,0.000,-0.000,0.000,0.000
1640645469209391104,2021-12-27-22:51:09,10.1.1.2,7,-0.000,-0.000,0.000,-0.000,0.000,0.000
1640645471326065152,2021-12-27-22:51:11,10.1.1.2,6,-0.000,-0.000,0.000,-0.000,0.000,0.000
1640645473484247808,2021-12-27-22:51:13,10.1.1.2,17,-0.000,-0.000,0.000,-0.000,0.000,0.000
1640645475621187840,2021-12-27-22:51:15,10.1.1.2,4,-0.000,-0.000,0.000,-0.000,0.000,0.000
1640645477757106944,2021-12-27-22:51:17,10.1.1.2,10,-0.000,-0.000,0.000,-0.000,0.000,0.000
1640645479853351168,2021-12-27-22:51:19,10.1.1.2,1,-0.000,-0.000,0.000,-0.000,0.000,0.000
1640645482011640064,2021-12-27-22:51:22,10.1.1.2,11,-0.000,-0.000,0.000,-0.000,0.000,0.000
1640645484154648064,2021-12-27-22:51:24,10.1.1.2,16,-0.000,-0.000,0.000,-0.000,0.000,0.000
1640645486262425856,2021-12-27-22:51:26,10.1.1.2,5,-0.000,-0.000,0.000,-0.000,0.000,0.000
1640645488408262912,2021-12-27-22:51:28,10.1.1.2,3,-0.000,-0.000,0.000,-0.000,0.000,0.000
1640645490552184064,2021-12-27-22:51:30,10.1.1.2,12,-0.000,-0.000,0.000,-0.000,0.000,0.000
1640645492694761984,2021-12-27-22:51:32,10.1.1.2,7,-0.000,-0.000,0.000,-0.000,0.000,0.000
1640645494835633920,2021-12-27-22:51:34,10.1.1.2,3,-0.000,-0.000,0.000,-0.000,0.000,0.000
1640645496935936000,2021-12-27-22:51:36,10.1.1.2,3,-0.000,-0.000,0.000,-0.000,0.000,0.000
1640645499031653888,2021-12-27-22:51:39,10.1.1.2,4,-0.000,-0.000,0.000,-0.000,0.000,0.000
1640645501149988864,2021-12-27-22:51:41,10.1.1.2,8,-0.000,-0.000,0.000,-0.000,0.000,0.000
1640645503328221952,2021-12-27-22:51:43,10.1.1.2,18,-0.000,-0.000,0.000,-0.000,0.000,0.000
1640645505444768000,2021-12-27-22:51:45,10.1.1.2,14,-0.000,-0.000,0.000,-0.000,0.000,0.000
1640645507511822080,2021-12-27-22:51:47,10.1.1.2,1,-0.000,-0.000,0.000,-0.000,0.000,0.000
1640645509638112000,2021-12-27-22:51:49,10.1.1.2,3,-0.000,-0.000,0.000,-0.000,0.000,0.000
1640645511778878976,2021-12-27-22:51:51,10.1.1.2,1,-0.000,-0.000,0.000,-0.000,0.000,0.000
1640645513931972096,2021-12-27-22:51:53,10.1.1.2,11,-0.000,-0.000,0.000,-0.000,0.000,0.000
1640645516055250944,2021-12-27-22:51:56,10.1.1.2,17,-0.000,-0.000,0.000,-0.000,0.000,0.000
1640645518205771008,2021-12-27-22:51:58,10.1.1.2,18,-0.000,-0.000,0.000,-0.000,0.000,0.000
1640645520308209920,2021-12-27-22:52:00,10.1.1.2,8,-0.000,-0.000,0.000,-0.000,0.000,0.000
1640645522392692992,2021-12-27-22:52:02,10.1.1.2,8,-0.000,-0.000,0.000,-0.000,0.000,0.000
1640645524496105984,2021-12-27-22:52:04,10.1.1.2,3,-0.000,-0.000,0.000,-0.000,0.000,0.000
1640645526633847040,2021-12-27-22:52:06,10.1.1.2,15,-0.000,-0.000,0.000,-0.000,0.000,0.000
1640645528733819904,2021-12-27-22:52:08,10.1.1.2,11,-0.000,-0.000,0.000,-0.000,0.000,0.000
1640645530851085056,2021-12-27-22:52:10,10.1.1.2,9,-0.000,-0.000,0.000,-0.000,0.000,0.000
1640645532969278208,2021-12-27-22:52:12,10.1.1.2,11,-0.000,-0.000,0.000,-0.000,0.000,0.000
1640645535106781952,2021-12-27-22:52:15,10.1.1.2,13,-0.000,-0.000,0.000,-0.000,0.000,0.000
1640645537185005824,2021-12-27-22:52:17,10.1.1.2,16,-0.000,-0.000,0.000,-0.000,0.000,0.000
1640645539301772032,2021-12-27-22:52:19,10.1.1.2,7,-0.000,-0.000,0.000,-0.000,0.000,0.000
1640645541458400000,2021-12-27-22:52:21,10.1.1.2,19,-0.000,-0.000,0.000,-0.000,0.000,0.000
1640645543554668032,2021-12-27-22:52:23,10.1.1.2,13,-0.000,-0.000,0.000,-0.000,0.000,0.000
1640645545711684864,2021-12-27-22:52:25,10.1.1.2,11,-0.000,-0.000,0.000,-0.000,0.000,0.000
1640645547847628032,2021-12-27-22:52:27,10.1.1.2,13,-0.000,-0.000,0.000,-0.000,0.000,0.000
1640645549937897984,2021-12-27-22:52:29,10.1.1.2,1,-0.000,-0.000,0.000,-0.000,0.000,0.000
1640645552084877056,2021-12-27-22:52:32,10.1.1.2,12,-0.000,-0.000,0.000,-0.000,0.000,0.000
1640645554171766016,2021-12-27-22:52:34,10.1.1.2,6,-0.000,-0.000,0.000,-0.000,0.000,0.000
1640645556332206848,2021-12-27-22:52:36,10.1.1.2,12,-0.000,-0.000,0.000,-0.000,0.000,0.000
1640645558471564032,2021-12-27-22:52:38,10.1.1.2,10,-0.000,-0.000,0.000,-0.000,0.000,0.000
1640645560631318016,2021-12-27-22:52:40,10.1.1.2,2,-0.000,-0.000,0.000,-0.000,0.000,0.000
1640645562756231168,2021-12-27-22:52:42,10.1.1.2,15,-0.000,-0.000,0.000,-0.000,0.000,0.000
1640645564908418048,2021-12-27-22:52:44,10.1.1.2,18,-0.000,-0.000,0.000,-0.000,0.000,0.000
1640645567045963008,2021-12-27-22:52:47,10.1.1.2,17,-0.000,-0.000,0.000,-0.000,0.000,0.000
1640645569164158208,2021-12-27-22:52:49,10.1.1.2,14,-0.000,-0.000,0.000,-0.000,0.000,0.000
1640645571321672960,2021-12-27-22:52:51,10.1.1.2,1,-0.000,-0.000,0.000,-0.000,0.000,0.000
1640645573458408960,2021-12-27-22:52:53,10.1.1.2,8,-0.000,-0.000,0.000,-0.000,0.000,0.000
1640645575535599104,2021-12-27-22:52:55,10.1.1.2,1,-0.000,-0.000,0.000,-0.000,0.000,0.000
1640645577671868928,2021-12-27-22:52:57,10.1.1.2,12,-0.000,-0.000,0.000,-0.000,0.000,0.000
1640645579808198912,2021-12-27-22:52:59,10.1.1.2,3,-0.000,-0.000,0.000,-0.000,0.000,0.000
1640645581957254912,2021-12-27-22:53:01,10.1.1.2,17,-0.000,-0.000,0.000,-0.000,0.000,0.000
1640645584084909056,2021-12-27-22:53:04,10.1.1.2,14,-0.000,-0.000,0.000,-0.000,0.000,0.000
1640645586209156864,2021-12-27-22:53:06,10.1.1.2,2,-0.000,-0.000,0.000,-0.000,0.000,0.000
1640645588332382976,2021-12-27-22:53:08,10.1.1.2,9,-0.000,-0.000,0.000,-0.000,0.000,0.000
1640645590452316928,2021-12-27-22:53:10,10.1.1.2,15,-0.000,-0.000,0.000,-0.000,0.000,0.000
1640645592592453888,2021-12-27-22:53:12,10.1.1.2,13,-0.000,-0.000,0.000,-0.000,0.000,0.000
1640645594730596096,2021-12-27-22:53:14,10.1.1.2,13,-0.000,-0.000,0.000,-0.000,0.000,0.000
1640645596888377856,2021-12-27-22:53:16,10.1.1.2,1,-0.000,-0.000,0.000,-0.000,0.000,0.000
1640645599046539008,2021-12-27-22:53:19,10.1.1.2,8,-0.000,-0.000,0.000,-0.000,0.000,0.000
1640645601205477888,2021-12-27-22:53:21,10.1.1.2,20,-0.000,-0.000,0.000,-0.000,0.000,0.000
1640645603341082112,2021-12-27-22:53:23,10.1.1.2,16,-0.000,-0.000,0.000,-0.000,0.000,0.000
1640645605479830016,2021-12-27-22:53:25,10.1.1.2,17,-0.000,-0.000,0.000,-0.000,0.000,0.000
1640645607595640064,2021-12-27-22:53:27,10.1.1.2,13,-0.000,-0.000,0.000,-0.000,0.000,0.000
1640645609711590144,2021-12-27-22:53:29,10.1.1.2,15,-0.000,-0.000,0.000,-0.000,0.000,0.000
1640645611848692992,2021-12-27-22:53:31,10.1.1.2,18,-0.000,-0.000,0.000,-0.000,0.000,0.000
1640645613964439040,2021-12-27-22:53:33,10.1.1.2,7,-0.000,-0.000,0.000,-0.000,0.000,0.000
1640645616061943040,2021-12-27-22:53:36,10.1.1.2,4,-0.000,-0.000,0.000,-0.000,0.000,0.000
1640645618158814976,2021-12-27-22:53:38,10.1.1.2,14,-0.000,-0.000,0.000,-0.000,0.000,0.000
1640645620294665216,2021-12-27-22:53:40,10.1.1.2,14,-0.000,-0.000,0.000,-0.000,0.000,0.000
1640645622356771072,2021-12-27-22:53:42,10.1.1.2,4,-0.000,-0.000,0.000,-0.000,0.000,0.000
1640645624471236096,2021-12-27-22:53:44,10.1.1.2,19,-0.000,-0.000,0.000,-0.000,0.000,0.000
1640645626583537152,2021-12-27-22:53:46,10.1.1.2,7,-0.000,-0.000,0.000,-0.000,0.000,0.000
1640645628699953920,2021-12-27-22:53:48,10.1.1.2,9,-0.000,-0.000,0.000,-0.000,0.000,0.000
1640645630837500928,2021-12-27-22:53:50,10.1.1.2,20,-0.000,-0.000,0.000,-0.000,0.000,0.000
1640645632952584960,2021-12-27-22:53:52,10.1.1.2,12,-0.000,-0.000,0.000,-0.000,0.000,0.000
1640645635049030144,2021-12-27-22:53:55,10.1.1.2,3,-0.000,-0.000,0.000,-0.000,0.000,0.000
1640645637186095872,2021-12-27-22:53:57,10.1.1.2,9,-0.000,-0.000,0.000,-0.000,0.000,0.000
1640645639304284160,2021-12-27-22:53:59,10.1.1.2,12,-0.000,-0.000,0.000,-0.000,0.000,0.000
1640645641397640960,2021-12-27-22:54:01,10.1.1.2,9,-0.000,-0.000,0.000,-0.000,0.000,0.000
1640645643535907072,2021-12-27-22:54:03,10.1.1.2,20,-0.000,-0.000,0.000,-0.000,0.000,0.000
1640645645652292096,2021-12-27-22:54:05,10.1.1.2,7,-0.000,-0.000,0.000,-0.000,0.000,0.000
1640645647790679040,2021-12-27-22:54:07,10.1.1.2,7,-0.000,-0.000,0.000,-0.000,0.000,0.000
1640645649903842048,2021-12-27-22:54:09,10.1.1.2,4,-0.000,-0.000,0.000,-0.000,0.000,0.000
1640645652033783808,2021-12-27-22:54:12,10.1.1.2,1,-0.000,-0.000,0.000,-0.000,0.000,0.000
1640645654198964224,2021-12-27-22:54:14,10.1.1.2,11,-0.000,-0.000,0.000,-0.000,0.000,0.000
1640645656361474048,2021-12-27-22:54:16,10.1.1.2,9,-0.000,-0.000,0.000,-0.000,0.000,0.000
1640645658483348992,2021-12-27-22:54:18,10.1.1.2,4,-0.000,-0.000,0.000,-0.000,0.000,0.000
1640645660645020928,2021-12-27-22:54:20,10.1.1.2,1,-0.000,-0.000,0.000,-0.000,0.000,0.000
1640645662782804992,2021-12-27-22:54:22,10.1.1.2,19,-0.000,-0.000,0.000,-0.000,0.000,0.000
1640645664881298176,2021-12-27-22:54:24,10.1.1.2,9,-0.000,-0.000,0.000,-0.000,0.000,0.000
1640645666998831104,2021-12-27-22:54:26,10.1.1.2,13,-0.000,-0.000,0.000,-0.000,0.000,0.000
1640645669080734976,2021-12-27-22:54:29,10.1.1.2,2,-0.000,-0.000,0.000,-0.000,0.000,0.000
1640645671193681920,2021-12-27-22:54:31,10.1.1.2,14,-0.000,-0.000,0.000,-0.000,0.000,0.000
1640645673312658944,2021-12-27-22:54:33,10.1.1.2,13,-0.000,-0.000,0.000,-0.000,0.000,0.000
1640645675428041984,2021-12-27-22:54:35,10.1.1.2,19,-0.000,-0.000,0.000,-0.000,0.000,0.000
1640645677549316864,2021-12-27-22:54:37,10.1.1.2,1,-0.000,-0.000,0.000,-0.000,0.000,0.000
1640645679679544064,2021-12-27-22:54:39,10.1.1.2,13,-0.000,-0.000,0.000,-0.000,0.000,0.000
1640645681804965120,2021-12-27-22:54:41,10.1.1.2,5,-0.000,-0.000,0.000,-0.000,0.000,0.000
1640645683948623872,2021-12-27-22:54:43,10.1.1.2,16,-0.000,-0.000,0.000,-0.000,0.000,0.000
1640645686071945984,2021-12-27-22:54:46,10.1.1.2,16,-0.000,-0.000,0.000,-0.000,0.000,0.000
1640645688171838976,2021-12-27-22:54:48,10.1.1.2,3,-0.000,-0.000,0.000,-0.000,0.000,0.000
1640645690331554816,2021-12-27-22:54:50,10.1.1.2,5,-0.000,-0.000,0.000,-0.000,0.000,0.000
1640645692430211072,2021-12-27-22:54:52,10.1.1.2,12,-0.000,-0.000,0.000,-0.000,0.000,0.000
1640645694548537856,2021-12-27-22:54:54,10.1.1.2,12,-0.000,-0.000,0.000,-0.000,0.000,0.000
1640645696644866048,2021-12-27-22:54:56,10.1.1.2,1,-0.000,-0.000,0.000,-0.000,0.000,0.000
1640645698783757056,2021-12-27-22:54:58,10.1.1.2,12,-0.000,-0.000,0.000,-0.000,0.000,0.000
1640645700939712000,2021-12-27-22:55:00,10.1.1.2,17,-0.000,-0.000,0.000,-0.000,0.000,0.000
1640645703056410112,2021-12-27-22:55:03,10.1.1.2,12,-0.000,-0.000,0.000,-0.000,0.000,0.000
1640645705172375808,2021-12-27-22:55:05,10.1.1.2,14,-0.000,-0.000,0.000,-0.000,0.000,0.000
1640645707289782016,2021-12-27-22:55:07,10.1.1.2,11,-0.000,-0.000,0.000,-0.000,0.000,0.000
1640645709410870016,2021-12-27-22:55:09,10.1.1.2,17,-0.000,-0.000,0.000,-0.000,0.000,0.000
1640645711520427008,2021-12-27-22:55:11,10.1.1.2,16,-0.000,-0.000,0.000,-0.000,0.000,0.000
1640645713644967168,2021-12-27-22:55:13,10.1.1.2,4,-0.000,-0.000,0.000,-0.000,0.000,0.000
1640645715772013056,2021-12-27-22:55:15,10.1.1.2,9,-0.000,-0.000,0.000,-0.000,0.000,0.000
1640645717911185920,2021-12-27-22:55:17,10.1.1.2,14,-0.000,-0.000,0.000,-0.000,0.000,0.000
1640645719994080000,2021-12-27-22:55:19,10.1.1.2,2,-0.000,-0.000,0.000,-0.000,0.000,0.000
1640645722111809024,2021-12-27-22:55:22,10.1.1.2,16,-0.000,-0.000,0.000,-0.000,0.000,0.000
1640645724211942912,2021-12-27-22:55:24,10.1.1.2,20,-0.000,-0.000,0.000,-0.000,0.000,0.000
1640645726291122944,2021-12-27-22:55:26,10.1.1.2,2,-0.000,-0.000,0.000,-0.000,0.000,0.000
1640645728407279104,2021-12-27-22:55:28,10.1.1.2,17,-0.000,-0.000,0.000,-0.000,0.000,0.000
1640645730524399104,2021-12-27-22:55:30,10.1.1.2,16,-0.000,-0.000,0.000,-0.000,0.000,0.000
1640645732626033920,2021-12-27-22:55:32,10.1.1.2,3,-0.000,-0.000,0.000,-0.000,0.000,0.000
1640645734759038976,2021-12-27-22:55:34,10.1.1.2,16,-0.000,-0.000,0.000,-0.000,0.000,0.000
1640645736873812992,2021-12-27-22:55:36,10.1.1.2,10,-0.000,-0.000,0.000,-0.000,0.000,0.000
1640645738990392832,2021-12-27-22:55:38,10.1.1.2,4,-0.000,-0.000,0.000,-0.000,0.000,0.000
1640645741109619968,2021-12-27-22:55:41,10.1.1.2,18,-0.000,-0.000,0.000,-0.000,0.000,0.000
1640645743198915840,2021-12-27-22:55:43,10.1.1.2,4,-0.000,-0.000,0.000,-0.000,0.000,0.000
1640645745307066880,2021-12-27-22:55:45,10.1.1.2,8,-0.000,-0.000,0.000,-0.000,0.000,0.000
1640645747450340096,2021-12-27-22:55:47,10.1.1.2,13,-0.000,-0.000,0.000,-0.000,0.000,0.000
1640645749592428032,2021-12-27-22:55:49,10.1.1.2,11,-0.000,-0.000,0.000,-0.000,0.000,0.000
1640645751694467072,2021-12-27-22:55:51,10.1.1.2,11,-0.000,-0.000,0.000,-0.000,0.000,0.000
1640645753834588928,2021-12-27-22:55:53,10.1.1.2,11,-0.000,-0.000,0.000,-0.000,0.000,0.000
1640645755953236992,2021-12-27-22:55:55,10.1.1.2,9,-0.000,-0.000,0.000,-0.000,0.000,0.000
1640645758070547200,2021-12-27-22:55:58,10.1.1.2,4,-0.000,-0.000,0.000,-0.000,0.000,0.000
1640645760189815040,2021-12-27-22:56:00,10.1.1.2,2,-0.000,-0.000,0.000,-0.000,0.000,0.000
1640645762345057024,2021-12-27-22:56:02,10.1.1.2,15,-0.000,-0.000,0.000,-0.000,0.000,0.000
1640645764444480000,2021-12-27-22:56:04,10.1.1.2,9,-0.000,-0.000,0.000,-0.000,0.000,0.000
1640645766561861888,2021-12-27-22:56:06,10.1.1.2,6,-0.000,-0.000,0.000,-0.000,0.000,0.000
1640645768717148928,2021-12-27-22:56:08,10.1.1.2,4,-0.000,-0.000,0.000,-0.000,0.000,0.000
1640645770814182144,2021-12-27-22:56:10,10.1.1.2,6,-0.000,-0.000,0.000,-0.000,0.000,0.000
1640645772890056960,2021-12-27-22:56:12,10.1.1.2,13,-0.000,-0.000,0.000,-0.000,0.000,0.000
1640645775000039168,2021-12-27-22:56:14,10.1.1.2,19,-0.000,-0.000,0.000,-0.000,0.000,0.000
1640645777085032960,2021-12-27-22:56:17,10.1.1.2,15,-0.000,-0.000,0.000,-0.000,0.000,0.000
1640645779210617088,2021-12-27-22:56:19,10.1.1.2,15,-0.000,-0.000,0.000,-0.000,0.000,0.000
1640645781371646976,2021-12-27-22:56:21,10.1.1.2,11,-0.000,-0.000,0.000,-0.000,0.000,0.000
1640645783473697024,2021-12-27-22:56:23,10.1.1.2,14,-0.000,-0.000,0.000,-0.000,0.000,0.000
1640645785633090048,2021-12-27-22:56:25,10.1.1.2,10,-0.000,-0.000,0.000,-0.000,0.000,0.000
1640645787773624064,2021-12-27-22:56:27,10.1.1.2,19,-0.000,-0.000,0.000,-0.000,0.000,0.000
1640645789910608896,2021-12-27-22:56:29,10.1.1.2,10,-0.000,-0.000,0.000,-0.000,0.000,0.000
1640645792027283968,2021-12-27-22:56:32,10.1.1.2,11,-0.000,-0.000,0.000,-0.000,0.000,0.000
1640645794106301184,2021-12-27-22:56:34,10.1.1.2,14,-0.000,-0.000,0.000,-0.000,0.000,0.000
1640645796224188928,2021-12-27-22:56:36,10.1.1.2,10,-0.000,-0.000,0.000,-0.000,0.000,0.000
1640645798319777024,2021-12-27-22:56:38,10.1.1.2,11,-0.000,-0.000,0.000,-0.000,0.000,0.000
1640645800477430016,2021-12-27-22:56:40,10.1.1.2,19,-0.000,-0.000,0.000,-0.000,0.000,0.000
1640645802592952064,2021-12-27-22:56:42,10.1.1.2,18,-0.000,-0.000,0.000,-0.000,0.000,0.000
1640645804690695936,2021-12-27-22:56:44,10.1.1.2,14,-0.000,-0.000,0.000,-0.000,0.000,0.000
1640645806795095808,2021-12-27-22:56:46,10.1.1.2,3,-0.000,-0.000,0.000,-0.000,0.000,0.000
1640645808907108096,2021-12-27-22:56:48,10.1.1.2,17,-0.000,-0.000,0.000,-0.000,0.000,0.000
1640645811004664832,2021-12-27-22:56:51,10.1.1.2,8,-0.000,-0.000,0.000,-0.000,0.000,0.000
1640645813130304000,2021-12-27-22:56:53,10.1.1.2,18,-0.000,-0.000,0.000,-0.000,0.000,0.000
1640645815250423040,2021-12-27-22:56:55,10.1.1.2,10,-0.000,-0.000,0.000,-0.000,0.000,0.000
1640645817352009984,2021-12-27-22:56:57,10.1.1.2,3,-0.000,-0.000,0.000,-0.000,0.000,0.000
1640645819490743040,2021-12-27-22:56:59,10.1.1.2,4,-0.000,-0.000,0.000,-0.000,0.000,0.000
1640645821608380160,2021-12-27-22:57:01,10.1.1.2,17,-0.000,-0.000,0.000,-0.000,0.000,0.000
1640645823726315008,2021-12-27-22:57:03,10.1.1.2,4,-0.000,-0.000,0.000,-0.000,0.000,0.000
1640645825844499968,2021-12-27-22:57:05,10.1.1.2,15,-0.000,-0.000,0.000,-0.000,0.000,0.000
1640645827940833024,2021-12-27-22:57:07,10.1.1.2,5,-0.000,-0.000,0.000,-0.000,0.000,0.000
1640645830080435968,2021-12-27-22:57:10,10.1.1.2,17,-0.000,-0.000,0.000,-0.000,0.000,0.000
1640645832195024896,2021-12-27-22:57:12,10.1.1.2,9,-0.000,-0.000,0.000,-0.000,0.000,0.000
1640645834291671040,2021-12-27-22:57:14,10.1.1.2,0,-0.000,-0.000,0.000,-0.000,0.000,0.000
1640645836409188096,2021-12-27-22:57:16,10.1.1.2,9,-0.000,-0.000,0.000,-0.000,0.000,0.000
1640645838552164096,2021-12-27-22:57:18,10.1.1.2,3,-0.000,-0.000,0.000,-0.000,0.000,0.000
1640645840639097088,2021-12-27-22:57:20,10.1.1.2,8,-0.000,-0.000,0.000,-0.000,0.000,0.000
1640645842785551104,2021-12-27-22:57:22,10.1.1.2,11,-0.000,-0.000,0.000,-0.000,0.000,0.000
1640645844928271104,2021-12-27-22:57:24,10.1.1.2,14,-0.000,-0.000,0.000,-0.000,0.000,0.000
1640645847051335168,2021-12-27-22:57:27,10.1.1.2,10,-0.000,-0.000,0.000,-0.000,0.000,0.000
1640645849191827968,2021-12-27-22:57:29,10.1.1.2,16,-0.000,-0.000,0.000,-0.000,0.000,0.000
1640645851330775040,2021-12-27-22:57:31,10.1.1.2,18,-0.000,-0.000,0.000,-0.000,0.000,0.000
1640645853451944960,2021-12-27-22:57:33,10.1.1.2,6,-0.000,-0.000,0.000,-0.000,0.000,0.000
1640645855567863040,2021-12-27-22:57:35,10.1.1.2,10,-0.000,-0.000,0.000,-0.000,0.000,0.000
1640645857686039808,2021-12-27-22:57:37,10.1.1.2,5,-0.000,-0.000,0.000,-0.000,0.000,0.000
1640645859826742016,2021-12-27-22:57:39,10.1.1.2,15,-0.000,-0.000,0.000,-0.000,0.000,0.000
1640645861978993920,2021-12-27-22:57:41,10.1.1.2,18,-0.000,-0.000,0.000,-0.000,0.000,0.000
1640645864056539904,2021-12-27-22:57:44,10.1.1.2,10,-0.000,-0.000,0.000,-0.000,0.000,0.000
1640645866155639808,2021-12-27-22:57:46,10.1.1.2,6,-0.000,-0.000,0.000,-0.000,0.000,0.000
1640645868271569920,2021-12-27-22:57:48,10.1.1.2,3,-0.000,-0.000,0.000,-0.000,0.000,0.000
1640645870370904064,2021-12-27-22:57:50,10.1.1.2,6,-0.000,-0.000,0.000,-0.000,0.000,0.000
1640645872539427072,2021-12-27-22:57:52,10.1.1.2,19,-0.000,-0.000,0.000,-0.000,0.000,0.000
1640645874704816128,2021-12-27-22:57:54,10.1.1.2,13,-0.000,-0.000,0.000,-0.000,0.000,0.000
1640645876848989952,2021-12-27-22:57:56,10.1.1.2,14,-0.000,-0.000,0.000,-0.000,0.000,0.000
1640645878973090816,2021-12-27-22:57:58,10.1.1.2,13,-0.000,-0.000,0.000,-0.000,0.000,0.000
1640645881052468992,2021-12-27-22:58:01,10.1.1.2,8,-0.000,-0.000,0.000,-0.000,0.000,0.000
1640645883172113920,2021-12-27-22:58:03,10.1.1.2,20,-0.000,-0.000,0.000,-0.000,0.000,0.000
1640645885291027968,2021-12-27-22:58:05,10.1.1.2,13,-0.000,-0.000,0.000,-0.000,0.000,0.000
1640645887433445888,2021-12-27-22:58:07,10.1.1.2,3,-0.000,-0.000,0.000,-0.000,0.000,0.000
1640645889547118848,2021-12-27-22:58:09,10.1.1.2,9,-0.000,-0.000,0.000,-0.000,0.000,0.000
1640645891683439872,2021-12-27-22:58:11,10.1.1.2,7,-0.000,-0.000,0.000,-0.000,0.000,0.000
1640645893800497920,2021-12-27-22:58:13,10.1.1.2,13,-0.000,-0.000,0.000,-0.000,0.000,0.000
1640645895937947904,2021-12-27-22:58:15,10.1.1.2,11,-0.000,-0.000,0.000,-0.000,0.000,0.000
1640645898074244864,2021-12-27-22:58:18,10.1.1.2,9,-0.000,-0.000,0.000,-0.000,0.000,0.000
1640645900212876032,2021-12-27-22:58:20,10.1.1.2,-1,-0.000,-0.000,0.000,-0.000,0.000,0.000
1640645902330352896,2021-12-27-22:58:22,10.1.1.2,16,-0.000,-0.000,0.000,-0.000,0.000,0.000
1640645904439700992,2021-12-27-22:58:24,10.1.1.2,18,-0.000,-0.000,0.000,-0.000,0.000,0.000
1640645906546984960,2021-12-27-22:58:26,10.1.1.2,10,-0.000,-0.000,0.000,-0.000,0.000,0.000
1640645908652483840,2021-12-27-22:58:28,10.1.1.2,7,-0.000,-0.000,0.000,-0.000,0.000,0.000
1640645910754040832,2021-12-27-22:58:30,10.1.1.2,16,-0.000,-0.000,0.000,-0.000,0.000,0.000
1640645912855220992,2021-12-27-22:58:32,10.1.1.2,17,-0.000,-0.000,0.000,-0.000,0.000,0.000
1640645914934899968,2021-12-27-22:58:34,10.1.1.2,9,-0.000,-0.000,0.000,-0.000,0.000,0.000
1640645917072926976,2021-12-27-22:58:37,10.1.1.2,10,-0.000,-0.000,0.000,-0.000,0.000,0.000
1640645919191962880,2021-12-27-22:58:39,10.1.1.2,16,-0.000,-0.000,0.000,-0.000,0.000,0.000
1640645921329147136,2021-12-27-22:58:41,10.1.1.2,14,-0.000,-0.000,0.000,-0.000,0.000,0.000
1640645923466903808,2021-12-27-22:58:43,10.1.1.2,11,-0.000,-0.000,0.000,-0.000,0.000,0.000
1640645925604935936,2021-12-27-22:58:45,10.1.1.2,4,-0.000,-0.000,0.000,-0.000,0.000,0.000
1640645927741309952,2021-12-27-22:58:47,10.1.1.2,6,-0.000,-0.000,0.000,-0.000,0.000,0.000
1640645929877153024,2021-12-27-22:58:49,10.1.1.2,7,-0.000,-0.000,0.000,-0.000,0.000,0.000
1640645931997165056,2021-12-27-22:58:51,10.1.1.2,2,-0.000,-0.000,0.000,-0.000,0.000,0.000
1640645934131298048,2021-12-27-22:58:54,10.1.1.2,16,-0.000,-0.000,0.000,-0.000,0.000,0.000
1640645936275616000,2021-12-27-22:58:56,10.1.1.2,13,-0.000,-0.000,0.000,-0.000,0.000,0.000
1640645938424102144,2021-12-27-22:58:58,10.1.1.2,12,-0.000,-0.000,0.000,-0.000,0.000,0.000
1640645940518554880,2021-12-27-22:59:00,10.1.1.2,4,-0.000,-0.000,0.000,-0.000,0.000,0.000
1640645942672354816,2021-12-27-22:59:02,10.1.1.2,18,-0.000,-0.000,0.000,-0.000,0.000,0.000
1640645944795484160,2021-12-27-22:59:04,10.1.1.2,4,-0.000,-0.000,0.000,-0.000,0.000,0.000
1640645946974761984,2021-12-27-22:59:06,10.1.1.2,14,-0.000,-0.000,0.000,-0.000,0.000,0.000
1640645949093963008,2021-12-27-22:59:09,10.1.1.2,6,-0.000,-0.000,0.000,-0.000,0.000,0.000
1640645951212467968,2021-12-27-22:59:11,10.1.1.2,18,-0.000,-0.000,0.000,-0.000,0.000,0.000
1640645953348920064,2021-12-27-22:59:13,10.1.1.2,11,-0.000,-0.000,0.000,-0.000,0.000,0.000
1640645955486243072,2021-12-27-22:59:15,10.1.1.2,19,-0.000,-0.000,0.000,-0.000,0.000,0.000
1640645957604382976,2021-12-27-22:59:17,10.1.1.2,17,-0.000,-0.000,0.000,-0.000,0.000,0.000
1640645959721168896,2021-12-27-22:59:19,10.1.1.2,8,-0.000,-0.000,0.000,-0.000,0.000,0.000
1640645961878177792,2021-12-27-22:59:21,10.1.1.2,10,-0.000,-0.000,0.000,-0.000,0.000,0.000
1640645963974877184,2021-12-27-22:59:23,10.1.1.2,7,-0.000,-0.000,0.000,-0.000,0.000,0.000
1640645966091715072,2021-12-27-22:59:26,10.1.1.2,14,-0.000,-0.000,0.000,-0.000,0.000,0.000
1640645968196318976,2021-12-27-22:59:28,10.1.1.2,16,-0.000,-0.000,0.000,-0.000,0.000,0.000
1640645970323840000,2021-12-27-22:59:30,10.1.1.2,10,-0.000,-0.000,0.000,-0.000,0.000,0.000
1640645972449024000,2021-12-27-22:59:32,10.1.1.2,12,-0.000,-0.000,0.000,-0.000,0.000,0.000
1640645974570501120,2021-12-27-22:59:34,10.1.1.2,6,-0.000,-0.000,0.000,-0.000,0.000,0.000
1640645976692616960,2021-12-27-22:59:36,10.1.1.2,4,-0.000,-0.000,0.000,-0.000,0.000,0.000
1640645978813296128,2021-12-27-22:59:38,10.1.1.2,12,-0.000,-0.000,0.000,-0.000,0.000,0.000
1640645980932252928,2021-12-27-22:59:40,10.1.1.2,3,-0.000,-0.000,0.000,-0.000,0.000,0.000
1640645983050601984,2021-12-27-22:59:43,10.1.1.2,10,-0.000,-0.000,0.000,-0.000,0.000,0.000
1640645985168279808,2021-12-27-22:59:45,10.1.1.2,10,-0.000,-0.000,0.000,-0.000,0.000,0.000
1640645987305763072,2021-12-27-22:59:47,10.1.1.2,12,-0.000,-0.000,0.000,-0.000,0.000,0.000
1640645989422437888,2021-12-27-22:59:49,10.1.1.2,17,-0.000,-0.000,0.000,-0.000,0.000,0.000
1640645991539092992,2021-12-27-22:59:51,10.1.1.2,7,-0.000,-0.000,0.000,-0.000,0.000,0.000
1640645993637350912,2021-12-27-22:59:53,10.1.1.2,12,-0.000,-0.000,0.000,-0.000,0.000,0.000
1640645995752992000,2021-12-27-22:59:55,10.1.1.2,14,-0.000,-0.000,0.000,-0.000,0.000,0.000
1640645997849622016,2021-12-27-22:59:57,10.1.1.2,18,-0.000,-0.000,0.000,-0.000,0.000,0.000
1640645999955207168,2021-12-27-22:59:59,10.1.1.2,6,-0.000,-0.000,0.000,-0.000,0.000,0.000
1640646002103684864,2021-12-27-23:00:02,10.1.1.2,18,-0.000,-0.000,0.000,-0.000,0.000,0.000
1640646004248510976,2021-12-27-23:00:04,10.1.1.2,17,-0.000,-0.000,0.000,-0.000,0.000,0.000
1640646006374336000,2021-12-27-23:00:06,10.1.1.2,11,-0.000,-0.000,0.000,-0.000,0.000,0.000
1640646008473783040,2021-12-27-23:00:08,10.1.1.2,1,-0.000,-0.000,0.000,-0.000,0.000,0.000
1640646010636845056,2021-12-27-23:00:10,10.1.1.2,4,-0.000,-0.000,0.000,-0.000,0.000,0.000
1640646012755484160,2021-12-27-23:00:12,10.1.1.2,4,-0.000,-0.000,0.000,-0.000,0.000,0.000
1640646014852286976,2021-12-27-23:00:14,10.1.1.2,5,-0.000,-0.000,0.000,-0.000,0.000,0.000
1640646017009542912,2021-12-27-23:00:17,10.1.1.2,17,-0.000,-0.000,0.000,-0.000,0.000,0.000
1640646021265712128,2021-12-27-23:00:21,10.1.1.2,4,-0.000,-0.000,0.000,-0.000,0.000,0.000
1640646023401913856,2021-12-27-23:00:23,10.1.1.2,17,-0.000,-0.000,0.000,-0.000,0.000,0.000
1640646025498599168,2021-12-27-23:00:25,10.1.1.2,4,-0.000,-0.000,0.000,-0.000,0.000,0.000
1640646027635620096,2021-12-27-23:00:27,10.1.1.2,4,-0.000,-0.000,0.000,-0.000,0.000,0.000
1640646029771780096,2021-12-27-23:00:29,10.1.1.2,5,-0.000,-0.000,0.000,-0.000,0.000,0.000
1640646031894769920,2021-12-27-23:00:31,10.1.1.2,2,-0.000,-0.000,0.000,-0.000,0.000,0.000
1640646034042459904,2021-12-27-23:00:34,10.1.1.2,8,-0.000,-0.000,0.000,-0.000,0.000,0.000
1640646036149779200,2021-12-27-23:00:36,10.1.1.2,3,-0.000,-0.000,0.000,-0.000,0.000,0.000
1640646038292156928,2021-12-27-23:00:38,10.1.1.2,18,-0.000,-0.000,0.000,-0.000,0.000,0.000
1640646040395267840,2021-12-27-23:00:40,10.1.1.2,14,-0.000,-0.000,0.000,-0.000,0.000,0.000
1640646042533443072,2021-12-27-23:00:42,10.1.1.2,10,-0.000,-0.000,0.000,-0.000,0.000,0.000
1640646044632352000,2021-12-27-23:00:44,10.1.1.2,2,-0.000,-0.000,0.000,-0.000,0.000,0.000
1640646046731400960,2021-12-27-23:00:46,10.1.1.2,13,-0.000,-0.000,0.000,-0.000,0.000,0.000
1640646048888076032,2021-12-27-23:00:48,10.1.1.2,14,-0.000,-0.000,0.000,-0.000,0.000,0.000
1640646051026170112,2021-12-27-23:00:51,10.1.1.2,4,-0.000,-0.000,0.000,-0.000,0.000,0.000
1640646053165424128,2021-12-27-23:00:53,10.1.1.2,9,-0.000,-0.000,0.000,-0.000,0.000,0.000
1640646055261872896,2021-12-27-23:00:55,10.1.1.2,6,-0.000,-0.000,0.000,-0.000,0.000,0.000
1640646057377620992,2021-12-27-23:00:57,10.1.1.2,16,-0.000,-0.000,0.000,-0.000,0.000,0.000
1640646059474555136,2021-12-27-23:00:59,10.1.1.2,6,-0.000,-0.000,0.000,-0.000,0.000,0.000
1640646061592791040,2021-12-27-23:01:01,10.1.1.2,6,-0.000,-0.000,0.000,-0.000,0.000,0.000
1640646063707848960,2021-12-27-23:01:03,10.1.1.2,5,-0.000,-0.000,0.000,-0.000,0.000,0.000
1640646065836282880,2021-12-27-23:01:05,10.1.1.2,6,-0.000,-0.000,0.000,-0.000,0.000,0.000
1640646067983781120,2021-12-27-23:01:07,10.1.1.2,5,-0.000,-0.000,0.000,-0.000,0.000,0.000
1640646070107054080,2021-12-27-23:01:10,10.1.1.2,18,-0.000,-0.000,0.000,-0.000,0.000,0.000
1640646072250498048,2021-12-27-23:01:12,10.1.1.2,10,-0.000,-0.000,0.000,-0.000,0.000,0.000
1640646074392137984,2021-12-27-23:01:14,10.1.1.2,6,-0.000,-0.000,0.000,-0.000,0.000,0.000
1640646076510659840,2021-12-27-23:01:16,10.1.1.2,1,-0.000,-0.000,0.000,-0.000,0.000,0.000
1640646078629458944,2021-12-27-23:01:18,10.1.1.2,15,-0.000,-0.000,0.000,-0.000,0.000,0.000
1640646080712075008,2021-12-27-23:01:20,10.1.1.2,1,-0.000,-0.000,0.000,-0.000,0.000,0.000
1640646082845307136,2021-12-27-23:01:22,10.1.1.2,2,-0.000,-0.000,0.000,-0.000,0.000,0.000
1640646085003119872,2021-12-27-23:01:25,10.1.1.2,8,-0.000,-0.000,0.000,-0.000,0.000,0.000
1640646087161765120,2021-12-27-23:01:27,10.1.1.2,11,-0.000,-0.000,0.000,-0.000,0.000,0.000
1640646089319073024,2021-12-27-23:01:29,10.1.1.2,18,-0.000,-0.000,0.000,-0.000,0.000,0.000
1640646091415899136,2021-12-27-23:01:31,10.1.1.2,5,-0.000,-0.000,0.000,-0.000,0.000,0.000
1640646093549880064,2021-12-27-23:01:33,10.1.1.2,5,-0.000,-0.000,0.000,-0.000,0.000,0.000
1640646095728340992,2021-12-27-23:01:35,10.1.1.2,9,-0.000,-0.000,0.000,-0.000,0.000,0.000
1640646097854945792,2021-12-27-23:01:37,10.1.1.2,8,-0.000,-0.000,0.000,-0.000,0.000,0.000
1640646099983048960,2021-12-27-23:01:39,10.1.1.2,3,-0.000,-0.000,0.000,-0.000,0.000,0.000
1640646102129561856,2021-12-27-23:01:42,10.1.1.2,3,-0.000,-0.000,0.000,-0.000,0.000,0.000
1640646104290695936,2021-12-27-23:01:44,10.1.1.2,14,-0.000,-0.000,0.000,-0.000,0.000,0.000
1640646106391890944,2021-12-27-23:01:46,10.1.1.2,6,-0.000,-0.000,0.000,-0.000,0.000,0.000
1640646108531977984,2021-12-27-23:01:48,10.1.1.2,4,-0.000,-0.000,0.000,-0.000,0.000,0.000
1640646110614334208,2021-12-27-23:01:50,10.1.1.2,4,-0.000,-0.000,0.000,-0.000,0.000,0.000
1640646112709031168,2021-12-27-23:01:52,10.1.1.2,4,-0.000,-0.000,0.000,-0.000,0.000,0.000
1640646114786202880,2021-12-27-23:01:54,10.1.1.2,9,-0.000,-0.000,0.000,-0.000,0.000,0.000
1640646116904041984,2021-12-27-23:01:56,10.1.1.2,11,-0.000,-0.000,0.000,-0.000,0.000,0.000
1640646119041223936,2021-12-27-23:01:59,10.1.1.2,10,-0.000,-0.000,0.000,-0.000,0.000,0.000
1640646121178217984,2021-12-27-23:02:01,10.1.1.2,8,-0.000,-0.000,0.000,-0.000,0.000,0.000
1640646123295546112,2021-12-27-23:02:03,10.1.1.2,12,-0.000,-0.000,0.000,-0.000,0.000,0.000
1640646125411851008,2021-12-27-23:02:05,10.1.1.2,8,-0.000,-0.000,0.000,-0.000,0.000,0.000
1640646127527572992,2021-12-27-23:02:07,10.1.1.2,11,-0.000,-0.000,0.000,-0.000,0.000,0.000
1640646129635476224,2021-12-27-23:02:09,10.1.1.2,1,-0.000,-0.000,0.000,-0.000,0.000,0.000
1640646131743316992,2021-12-27-23:02:11,10.1.1.2,16,-0.000,-0.000,0.000,-0.000,0.000,0.000
1640646133909004032,2021-12-27-23:02:13,10.1.1.2,11,-0.000,-0.000,0.000,-0.000,0.000,0.000
1640646136013766144,2021-12-27-23:02:16,10.1.1.2,8,-0.000,-0.000,0.000,-0.000,0.000,0.000
1640646138153592064,2021-12-27-23:02:18,10.1.1.2,9,-0.000,-0.000,0.000,-0.000,0.000,0.000
1640646140293228032,2021-12-27-23:02:20,10.1.1.2,2,-0.000,-0.000,0.000,-0.000,0.000,0.000
1640646142411535872,2021-12-27-23:02:22,10.1.1.2,9,-0.000,-0.000,0.000,-0.000,0.000,0.000
1640646144549467136,2021-12-27-23:02:24,10.1.1.2,13,-0.000,-0.000,0.000,-0.000,0.000,0.000
1640646146666253056,2021-12-27-23:02:26,10.1.1.2,8,-0.000,-0.000,0.000,-0.000,0.000,0.000
1640646148766776064,2021-12-27-23:02:28,10.1.1.2,16,-0.000,-0.000,0.000,-0.000,0.000,0.000
1640646150882235904,2021-12-27-23:02:30,10.1.1.2,2,-0.000,-0.000,0.000,-0.000,0.000,0.000
1640646153018640896,2021-12-27-23:02:33,10.1.1.2,9,-0.000,-0.000,0.000,-0.000,0.000,0.000
1640646155135965184,2021-12-27-23:02:35,10.1.1.2,17,-0.000,-0.000,0.000,-0.000,0.000,0.000
1640646157253074944,2021-12-27-23:02:37,10.1.1.2,13,-0.000,-0.000,0.000,-0.000,0.000,0.000
1640646159393176064,2021-12-27-23:02:39,10.1.1.2,3,-0.000,-0.000,0.000,-0.000,0.000,0.000
1640646161499317760,2021-12-27-23:02:41,10.1.1.2,2,-0.000,-0.000,0.000,-0.000,0.000,0.000
1640646163643333888,2021-12-27-23:02:43,10.1.1.2,15,-0.000,-0.000,0.000,-0.000,0.000,0.000
1640646165730560000,2021-12-27-23:02:45,10.1.1.2,5,-0.000,-0.000,0.000,-0.000,0.000,0.000
1640646167897167872,2021-12-27-23:02:47,10.1.1.2,2,-0.000,-0.000,0.000,-0.000,0.000,0.000
1640646170033090048,2021-12-27-23:02:50,10.1.1.2,9,-0.000,-0.000,0.000,-0.000,0.000,0.000
1640646172212668928,2021-12-27-23:02:52,10.1.1.2,17,-0.000,-0.000,0.000,-0.000,0.000,0.000
1640646174332502016,2021-12-27-23:02:54,10.1.1.2,2,-0.000,-0.000,0.000,-0.000,0.000,0.000
1640646176472956928,2021-12-27-23:02:56,10.1.1.2,1,-0.000,-0.000,0.000,-0.000,0.000,0.000
1640646178629304832,2021-12-27-23:02:58,10.1.1.2,13,-0.000,-0.000,0.000,-0.000,0.000,0.000
1640646180748683008,2021-12-27-23:03:00,10.1.1.2,16,-0.000,-0.000,0.000,-0.000,0.000,0.000
1640646182852932096,2021-12-27-23:03:02,10.1.1.2,3,-0.000,-0.000,0.000,-0.000,0.000,0.000
1640646184961616128,2021-12-27-23:03:04,10.1.1.2,7,-0.000,-0.000,0.000,-0.000,0.000,0.000
1640646187099149056,2021-12-27-23:03:07,10.1.1.2,10,-0.000,-0.000,0.000,-0.000,0.000,0.000
1640646189194194944,2021-12-27-23:03:09,10.1.1.2,1,-0.000,-0.000,0.000,-0.000,0.000,0.000
1640646191331176960,2021-12-27-23:03:11,10.1.1.2,4,-0.000,-0.000,0.000,-0.000,0.000,0.000
1640646193491033088,2021-12-27-23:03:13,10.1.1.2,18,-0.000,-0.000,0.000,-0.000,0.000,0.000
1640646195619885056,2021-12-27-23:03:15,10.1.1.2,9,-0.000,-0.000,0.000,-0.000,0.000,0.000
1640646197728375808,2021-12-27-23:03:17,10.1.1.2,0,-0.000,-0.000,0.000,-0.000,0.000,0.000
1640646199871759872,2021-12-27-23:03:19,10.1.1.2,12,-0.000,-0.000,0.000,-0.000,0.000,0.000
1640646202013305856,2021-12-27-23:03:22,10.1.1.2,8,-0.000,-0.000,0.000,-0.000,0.000,0.000
1640646204155313920,2021-12-27-23:03:24,10.1.1.2,18,-0.000,-0.000,0.000,-0.000,0.000,0.000
1640646206272100864,2021-12-27-23:03:26,10.1.1.2,13,-0.000,-0.000,0.000,-0.000,0.000,0.000
1640646208391885056,2021-12-27-23:03:28,10.1.1.2,6,-0.000,-0.000,0.000,-0.000,0.000,0.000
1640646210529184000,2021-12-27-23:03:30,10.1.1.2,11,-0.000,-0.000,0.000,-0.000,0.000,0.000
1640646212626988800,2021-12-27-23:03:32,10.1.1.2,13,-0.000,-0.000,0.000,-0.000,0.000,0.000
1640646214724975104,2021-12-27-23:03:34,10.1.1.2,12,-0.000,-0.000,0.000,-0.000,0.000,0.000
1640646216883223040,2021-12-27-23:03:36,10.1.1.2,15,-0.000,-0.000,0.000,-0.000,0.000,0.000
1640646219020267008,2021-12-27-23:03:39,10.1.1.2,-1,-0.000,-0.000,0.000,-0.000,0.000,0.000
1640646221116337152,2021-12-27-23:03:41,10.1.1.2,5,-0.000,-0.000,0.000,-0.000,0.000,0.000
1640646223233384960,2021-12-27-23:03:43,10.1.1.2,11,-0.000,-0.000,0.000,-0.000,0.000,0.000
1640646225311651072,2021-12-27-23:03:45,10.1.1.2,9,-0.000,-0.000,0.000,-0.000,0.000,0.000
1640646227460717056,2021-12-27-23:03:47,10.1.1.2,10,-0.000,-0.000,0.000,-0.000,0.000,0.000
1640646229565581056,2021-12-27-23:03:49,10.1.1.2,4,-0.000,-0.000,0.000,-0.000,0.000,0.000
1640646231710094080,2021-12-27-23:03:51,10.1.1.2,15,-0.000,-0.000,0.000,-0.000,0.000,0.000
1640646233831953920,2021-12-27-23:03:53,10.1.1.2,14,-0.000,-0.000,0.000,-0.000,0.000,0.000
1640646235932681984,2021-12-27-23:03:55,10.1.1.2,20,-0.000,-0.000,0.000,-0.000,0.000,0.000
1640646238031119104,2021-12-27-23:03:58,10.1.1.2,18,-0.000,-0.000,0.000,-0.000,0.000,0.000
1640646240129795072,2021-12-27-23:04:00,10.1.1.2,17,-0.000,-0.000,0.000,-0.000,0.000,0.000
1640646242247150848,2021-12-27-23:04:02,10.1.1.2,8,-0.000,-0.000,0.000,-0.000,0.000,0.000
1640646244384946176,2021-12-27-23:04:04,10.1.1.2,17,-0.000,-0.000,0.000,-0.000,0.000,0.000
1640646246503098880,2021-12-27-23:04:06,10.1.1.2,16,-0.000,-0.000,0.000,-0.000,0.000,0.000
1640646248620738048,2021-12-27-23:04:08,10.1.1.2,6,-0.000,-0.000,0.000,-0.000,0.000,0.000
1640646250758699776,2021-12-27-23:04:10,10.1.1.2,6,-0.000,-0.000,0.000,-0.000,0.000,0.000
1640646252852704000,2021-12-27-23:04:12,10.1.1.2,16,-0.000,-0.000,0.000,-0.000,0.000,0.000
1640646255010726912,2021-12-27-23:04:15,10.1.1.2,15,-0.000,-0.000,0.000,-0.000,0.000,0.000
1640646257108297984,2021-12-27-23:04:17,10.1.1.2,1,-0.000,-0.000,0.000,-0.000,0.000,0.000
1640646259238408192,2021-12-27-23:04:19,10.1.1.2,11,-0.000,-0.000,0.000,-0.000,0.000,0.000
1640646261324755968,2021-12-27-23:04:21,10.1.1.2,7,-0.000,-0.000,0.000,-0.000,0.000,0.000
1640646263408591872,2021-12-27-23:04:23,10.1.1.2,4,-0.000,-0.000,0.000,-0.000,0.000,0.000
1640646265530705920,2021-12-27-23:04:25,10.1.1.2,16,-0.000,-0.000,0.000,-0.000,0.000,0.000
1640646267632684032,2021-12-27-23:04:27,10.1.1.2,11,-0.000,-0.000,0.000,-0.000,0.000,0.000
1640646269753794048,2021-12-27-23:04:29,10.1.1.2,8,-0.000,-0.000,0.000,-0.000,0.000,0.000
1640646271854099968,2021-12-27-23:04:31,10.1.1.2,3,-0.000,-0.000,0.000,-0.000,0.000,0.000
1640646274011367936,2021-12-27-23:04:34,10.1.1.2,17,-0.000,-0.000,0.000,-0.000,0.000,0.000
1640646276128297984,2021-12-27-23:04:36,10.1.1.2,7,-0.000,-0.000,0.000,-0.000,0.000,0.000
1640646278264691200,2021-12-27-23:04:38,10.1.1.2,7,-0.000,-0.000,0.000,-0.000,0.000,0.000
1640646280342871808,2021-12-27-23:04:40,10.1.1.2,7,-0.000,-0.000,0.000,-0.000,0.000,0.000
1640646282478349056,2021-12-27-23:04:42,10.1.1.2,10,-0.000,-0.000,0.000,-0.000,0.000,0.000
1640646284595837952,2021-12-27-23:04:44,10.1.1.2,3,-0.000,-0.000,0.000,-0.000,0.000,0.000
1640646286711896064,2021-12-27-23:04:46,10.1.1.2,15,-0.000,-0.000,0.000,-0.000,0.000,0.000
1640646288809910016,2021-12-27-23:04:48,10.1.1.2,7,-0.000,-0.000,0.000,-0.000,0.000,0.000
1640646290940079872,2021-12-27-23:04:50,10.1.1.2,1,-0.000,-0.000,0.000,-0.000,0.000,0.000
1640646293085881088,2021-12-27-23:04:53,10.1.1.2,8,-0.000,-0.000,0.000,-0.000,0.000,0.000
1640646295249691136,2021-12-27-23:04:55,10.1.1.2,18,-0.000,-0.000,0.000,-0.000,0.000,0.000
1640646297391247104,2021-12-27-23:04:57,10.1.1.2,14,-0.000,-0.000,0.000,-0.000,0.000,0.000
1640646299511593984,2021-12-27-23:04:59,10.1.1.2,15,-0.000,-0.000,0.000,-0.000,0.000,0.000
1640646301611237120,2021-12-27-23:05:01,10.1.1.2,13,-0.000,-0.000,0.000,-0.000,0.000,0.000
1640646303731187200,2021-12-27-23:05:03,10.1.1.2,0,-0.000,-0.000,0.000,-0.000,0.000,0.000
1640646305848446976,2021-12-27-23:05:05,10.1.1.2,6,-0.000,-0.000,0.000,-0.000,0.000,0.000
1640646307967223808,2021-12-27-23:05:07,10.1.1.2,1,-0.000,-0.000,0.000,-0.000,0.000,0.000
1640646310084541952,2021-12-27-23:05:10,10.1.1.2,10,-0.000,-0.000,0.000,-0.000,0.000,0.000
1640646312161623040,2021-12-27-23:05:12,10.1.1.2,11,-0.000,-0.000,0.000,-0.000,0.000,0.000
1640646314298998016,2021-12-27-23:05:14,10.1.1.2,9,-0.000,-0.000,0.000,-0.000,0.000,0.000
1640646316416805120,2021-12-27-23:05:16,10.1.1.2,12,-0.000,-0.000,0.000,-0.000,0.000,0.000
1640646318552908032,2021-12-27-23:05:18,10.1.1.2,18,-0.000,-0.000,0.000,-0.000,0.000,0.000
1640646320669537024,2021-12-27-23:05:20,10.1.1.2,8,-0.000,-0.000,0.000,-0.000,0.000,0.000
1640646322810714880,2021-12-27-23:05:22,10.1.1.2,12,-0.000,-0.000,0.000,-0.000,0.000,0.000
1640646324919827968,2021-12-27-23:05:24,10.1.1.2,13,-0.000,-0.000,0.000,-0.000,0.000,0.000
1640646327046803968,2021-12-27-23:05:27,10.1.1.2,17,-0.000,-0.000,0.000,-0.000,0.000,0.000
1640646329172747008,2021-12-27-23:05:29,10.1.1.2,12,-0.000,-0.000,0.000,-0.000,0.000,0.000
1640646331331823104,2021-12-27-23:05:31,10.1.1.2,6,-0.000,-0.000,0.000,-0.000,0.000,0.000
1640646333455746816,2021-12-27-23:05:33,10.1.1.2,2,-0.000,-0.000,0.000,-0.000,0.000,0.000
1640646335571386112,2021-12-27-23:05:35,10.1.1.2,4,-0.000,-0.000,0.000,-0.000,0.000,0.000
1640646337674232064,2021-12-27-23:05:37,10.1.1.2,11,-0.000,-0.000,0.000,-0.000,0.000,0.000
1640646339808297984,2021-12-27-23:05:39,10.1.1.2,10,-0.000,-0.000,0.000,-0.000,0.000,0.000
1640646341967094016,2021-12-27-23:05:41,10.1.1.2,8,-0.000,-0.000,0.000,-0.000,0.000,0.000
1640646344105180928,2021-12-27-23:05:44,10.1.1.2,16,-0.000,-0.000,0.000,-0.000,0.000,0.000
1640646346241352960,2021-12-27-23:05:46,10.1.1.2,17,-0.000,-0.000,0.000,-0.000,0.000,0.000
1640646348359545856,2021-12-27-23:05:48,10.1.1.2,4,-0.000,-0.000,0.000,-0.000,0.000,0.000
1640646350498998016,2021-12-27-23:05:50,10.1.1.2,18,-0.000,-0.000,0.000,-0.000,0.000,0.000
1640646352594284032,2021-12-27-23:05:52,10.1.1.2,13,-0.000,-0.000,0.000,-0.000,0.000,0.000
1640646354693916160,2021-12-27-23:05:54,10.1.1.2,3,-0.000,-0.000,0.000,-0.000,0.000,0.000
1640646356801327104,2021-12-27-23:05:56,10.1.1.2,12,-0.000,-0.000,0.000,-0.000,0.000,0.000
1640646358927099904,2021-12-27-23:05:58,10.1.1.2,8,-0.000,-0.000,0.000,-0.000,0.000,0.000
1640646361071034880,2021-12-27-23:06:01,10.1.1.2,1,-0.000,-0.000,0.000,-0.000,0.000,0.000
1640646363170792192,2021-12-27-23:06:03,10.1.1.2,10,-0.000,-0.000,0.000,-0.000,0.000,0.000
1640646365290859008,2021-12-27-23:06:05,10.1.1.2,17,-0.000,-0.000,0.000,-0.000,0.000,0.000
1640646367391843072,2021-12-27-23:06:07,10.1.1.2,6,-0.000,-0.000,0.000,-0.000,0.000,0.000
1640646369529670912,2021-12-27-23:06:09,10.1.1.2,5,-0.000,-0.000,0.000,-0.000,0.000,0.000
1640646371648318976,2021-12-27-23:06:11,10.1.1.2,12,-0.000,-0.000,0.000,-0.000,0.000,0.000
1640646373767833856,2021-12-27-23:06:13,10.1.1.2,6,-0.000,-0.000,0.000,-0.000,0.000,0.000
1640646375880987904,2021-12-27-23:06:15,10.1.1.2,15,-0.000,-0.000,0.000,-0.000,0.000,0.000
1640646378018501120,2021-12-27-23:06:18,10.1.1.2,8,-0.000,-0.000,0.000,-0.000,0.000,0.000
1640646380116718080,2021-12-27-23:06:20,10.1.1.2,18,-0.000,-0.000,0.000,-0.000,0.000,0.000
1640646382234211840,2021-12-27-23:06:22,10.1.1.2,14,-0.000,-0.000,0.000,-0.000,0.000,0.000
1640646384349835008,2021-12-27-23:06:24,10.1.1.2,3,-0.000,-0.000,0.000,-0.000,0.000,0.000
1640646386509517056,2021-12-27-23:06:26,10.1.1.2,7,-0.000,-0.000,0.000,-0.000,0.000,0.000
1640646388619113984,2021-12-27-23:06:28,10.1.1.2,15,-0.000,-0.000,0.000,-0.000,0.000,0.000
1640646390784195840,2021-12-27-23:06:30,10.1.1.2,18,-0.000,-0.000,0.000,-0.000,0.000,0.000
1640646392891098112,2021-12-27-23:06:32,10.1.1.2,4,-0.000,-0.000,0.000,-0.000,0.000,0.000
1640646395011680000,2021-12-27-23:06:35,10.1.1.2,8,-0.000,-0.000,0.000,-0.000,0.000,0.000
1640646397150935040,2021-12-27-23:06:37,10.1.1.2,15,-0.000,-0.000,0.000,-0.000,0.000,0.000
1640646399269860096,2021-12-27-23:06:39,10.1.1.2,11,-0.000,-0.000,0.000,-0.000,0.000,0.000
1640646401390265856,2021-12-27-23:06:41,10.1.1.2,8,-0.000,-0.000,0.000,-0.000,0.000,0.000
1640646403527949056,2021-12-27-23:06:43,10.1.1.2,8,-0.000,-0.000,0.000,-0.000,0.000,0.000
1640646405664753920,2021-12-27-23:06:45,10.1.1.2,14,-0.000,-0.000,0.000,-0.000,0.000,0.000
1640646407782953984,2021-12-27-23:06:47,10.1.1.2,15,-0.000,-0.000,0.000,-0.000,0.000,0.000
1640646409939912960,2021-12-27-23:06:49,10.1.1.2,13,-0.000,-0.000,0.000,-0.000,0.000,0.000
1640646412076358144,2021-12-27-23:06:52,10.1.1.2,18,-0.000,-0.000,0.000,-0.000,0.000,0.000
1640646414154772992,2021-12-27-23:06:54,10.1.1.2,5,-0.000,-0.000,0.000,-0.000,0.000,0.000
1640646416289886976,2021-12-27-23:06:56,10.1.1.2,12,-0.000,-0.000,0.000,-0.000,0.000,0.000
1640646418399493888,2021-12-27-23:06:58,10.1.1.2,3,-0.000,-0.000,0.000,-0.000,0.000,0.000
1640646420519725056,2021-12-27-23:07:00,10.1.1.2,15,-0.000,-0.000,0.000,-0.000,0.000,0.000
1640646422645238016,2021-12-27-23:07:02,10.1.1.2,15,-0.000,-0.000,0.000,-0.000,0.000,0.000
1640646424789485824,2021-12-27-23:07:04,10.1.1.2,16,-0.000,-0.000,0.000,-0.000,0.000,0.000
1640646426911962880,2021-12-27-23:07:06,10.1.1.2,8,-0.000,-0.000,0.000,-0.000,0.000,0.000
1640646429072030976,2021-12-27-23:07:09,10.1.1.2,5,-0.000,-0.000,0.000,-0.000,0.000,0.000
1640646431191688960,2021-12-27-23:07:11,10.1.1.2,15,-0.000,-0.000,0.000,-0.000,0.000,0.000
1640646433309475072,2021-12-27-23:07:13,10.1.1.2,13,-0.000,-0.000,0.000,-0.000,0.000,0.000
1640646435428807936,2021-12-27-23:07:15,10.1.1.2,2,-0.000,-0.000,0.000,-0.000,0.000,0.000
1640646437566582016,2021-12-27-23:07:17,10.1.1.2,13,-0.000,-0.000,0.000,-0.000,0.000,0.000
1640646439703428864,2021-12-27-23:07:19,10.1.1.2,10,-0.000,-0.000,0.000,-0.000,0.000,0.000
1640646441841538816,2021-12-27-23:07:21,10.1.1.2,7,-0.000,-0.000,0.000,-0.000,0.000,0.000
1640646443957878016,2021-12-27-23:07:23,10.1.1.2,17,-0.000,-0.000,0.000,-0.000,0.000,0.000
1640646446034216960,2021-12-27-23:07:26,10.1.1.2,11,-0.000,-0.000,0.000,-0.000,0.000,0.000
1640646448171913984,2021-12-27-23:07:28,10.1.1.2,11,-0.000,-0.000,0.000,-0.000,0.000,0.000
1640646450288697856,2021-12-27-23:07:30,10.1.1.2,16,-0.000,-0.000,0.000,-0.000,0.000,0.000
1640646452397663232,2021-12-27-23:07:32,10.1.1.2,3,-0.000,-0.000,0.000,-0.000,0.000,0.000
1640646454481064960,2021-12-27-23:07:34,10.1.1.2,1,-0.000,-0.000,0.000,-0.000,0.000,0.000
1640646456629281024,2021-12-27-23:07:36,10.1.1.2,17,-0.000,-0.000,0.000,-0.000,0.000,0.000
1640646458678607104,2021-12-27-23:07:38,10.1.1.2,2,-0.000,-0.000,0.000,-0.000,0.000,0.000
1640646460832855040,2021-12-27-23:07:40,10.1.1.2,4,-0.000,-0.000,0.000,-0.000,0.000,0.000
1640646462970750976,2021-12-27-23:07:42,10.1.1.2,17,-0.000,-0.000,0.000,-0.000,0.000,0.000
1640646465071358976,2021-12-27-23:07:45,10.1.1.2,5,-0.000,-0.000,0.000,-0.000,0.000,0.000
1640646467188638976,2021-12-27-23:07:47,10.1.1.2,11,-0.000,-0.000,0.000,-0.000,0.000,0.000
1640646469328164096,2021-12-27-23:07:49,10.1.1.2,20,-0.000,-0.000,0.000,-0.000,0.000,0.000
1640646471445916928,2021-12-27-23:07:51,10.1.1.2,5,-0.000,-0.000,0.000,-0.000,0.000,0.000
1640646473564237056,2021-12-27-23:07:53,10.1.1.2,3,-0.000,-0.000,0.000,-0.000,0.000,0.000
1640646475699275008,2021-12-27-23:07:55,10.1.1.2,15,-0.000,-0.000,0.000,-0.000,0.000,0.000
1640646477774535936,2021-12-27-23:07:57,10.1.1.2,2,-0.000,-0.000,0.000,-0.000,0.000,0.000
1640646479852192000,2021-12-27-23:07:59,10.1.1.2,5,-0.000,-0.000,0.000,-0.000,0.000,0.000
1640646481991481088,2021-12-27-23:08:01,10.1.1.2,17,-0.000,-0.000,0.000,-0.000,0.000,0.000
1640646484134108928,2021-12-27-23:08:04,10.1.1.2,17,-0.000,-0.000,0.000,-0.000,0.000,0.000
1640646486281764864,2021-12-27-23:08:06,10.1.1.2,16,-0.000,-0.000,0.000,-0.000,0.000,0.000
1640646488388549120,2021-12-27-23:08:08,10.1.1.2,15,-0.000,-0.000,0.000,-0.000,0.000,0.000
1640646490511513856,2021-12-27-23:08:10,10.1.1.2,2,-0.000,-0.000,0.000,-0.000,0.000,0.000
1640646492651281152,2021-12-27-23:08:12,10.1.1.2,2,-0.000,-0.000,0.000,-0.000,0.000,0.000
1640646494775177984,2021-12-27-23:08:14,10.1.1.2,23,-0.000,-0.000,0.000,-0.000,0.000,0.000
1640646496911355904,2021-12-27-23:08:16,10.1.1.2,12,-0.000,-0.000,0.000,-0.000,0.000,0.000
1640646499008908032,2021-12-27-23:08:19,10.1.1.2,7,-0.000,-0.000,0.000,-0.000,0.000,0.000
1640646501106523136,2021-12-27-23:08:21,10.1.1.2,1,-0.000,-0.000,0.000,-0.000,0.000,0.000
1640646503305140992,2021-12-27-23:08:23,10.1.1.2,20,-0.000,-0.000,0.000,-0.000,0.000,0.000
1640646505401967104,2021-12-27-23:08:25,10.1.1.2,2,-0.000,-0.000,0.000,-0.000,0.000,0.000
1640646507537938944,2021-12-27-23:08:27,10.1.1.2,4,-0.000,-0.000,0.000,-0.000,0.000,0.000
1640646509615358208,2021-12-27-23:08:29,10.1.1.2,4,-0.000,-0.000,0.000,-0.000,0.000,0.000
1640646511710319104,2021-12-27-23:08:31,10.1.1.2,4,-0.000,-0.000,0.000,-0.000,0.000,0.000
1640646513808775936,2021-12-27-23:08:33,10.1.1.2,18,-0.000,-0.000,0.000,-0.000,0.000,0.000
1640646515931513088,2021-12-27-23:08:35,10.1.1.2,16,-0.000,-0.000,0.000,-0.000,0.000,0.000
1640646518103486976,2021-12-27-23:08:38,10.1.1.2,1,-0.000,-0.000,0.000,-0.000,0.000,0.000
1640646520286646016,2021-12-27-23:08:40,10.1.1.2,11,-0.000,-0.000,0.000,-0.000,0.000,0.000
1640646522409908992,2021-12-27-23:08:42,10.1.1.2,3,-0.000,-0.000,0.000,-0.000,0.000,0.000
1640646524530298112,2021-12-27-23:08:44,10.1.1.2,12,-0.000,-0.000,0.000,-0.000,0.000,0.000
1640646526671292160,2021-12-27-23:08:46,10.1.1.2,13,-0.000,-0.000,0.000,-0.000,0.000,0.000
1640646528769232128,2021-12-27-23:08:48,10.1.1.2,13,-0.000,-0.000,0.000,-0.000,0.000,0.000
1640646530888659968,2021-12-27-23:08:50,10.1.1.2,10,-0.000,-0.000,0.000,-0.000,0.000,0.000
1640646533007653120,2021-12-27-23:08:53,10.1.1.2,5,-0.000,-0.000,0.000,-0.000,0.000,0.000
1640646535144788992,2021-12-27-23:08:55,10.1.1.2,19,-0.000,-0.000,0.000,-0.000,0.000,0.000
1640646537242499072,2021-12-27-23:08:57,10.1.1.2,5,-0.000,-0.000,0.000,-0.000,0.000,0.000
1640646539359280128,2021-12-27-23:08:59,10.1.1.2,1,-0.000,-0.000,0.000,-0.000,0.000,0.000
1640646541434667008,2021-12-27-23:09:01,10.1.1.2,7,-0.000,-0.000,0.000,-0.000,0.000,0.000
1640646543573498112,2021-12-27-23:09:03,10.1.1.2,10,-0.000,-0.000,0.000,-0.000,0.000,0.000
