FedericoMungari/DigitalTwin_service/02_LTEScenario/Output/Output_script/script_rosapi_2_output_robots4_freq0_1.txt
timestamp,date,node,latency,joint_1,joint_2,joint_3,joint_4,joint_5,joint_6
1641079829351205120,2022-01-01-23:30:29,10.1.1.2,153,-0.010,-0.010,-0.010,0.000,0.000,0.000
1641079829551078144,2022-01-01-23:30:29,10.1.1.2,154,-0.020,-0.020,-0.020,0.000,0.000,0.000
1641079829751540992,2022-01-01-23:30:29,10.1.1.2,153,-0.030,-0.030,-0.030,0.000,0.000,0.000
1641079829952725760,2022-01-01-23:30:29,10.1.1.2,153,-0.040,-0.040,-0.040,0.000,0.000,0.000
1641079830152488960,2022-01-01-23:30:30,10.1.1.2,152,-0.050,-0.050,-0.050,0.000,0.000,0.000
1641079830354976768,2022-01-01-23:30:30,10.1.1.2,154,-0.060,-0.060,-0.060,0.000,0.000,0.000
1641079830555742976,2022-01-01-23:30:30,10.1.1.2,154,-0.070,-0.070,-0.070,0.000,0.000,0.000
1641079830753676032,2022-01-01-23:30:30,10.1.1.2,150,-0.080,-0.080,-0.080,0.000,0.000,0.000
1641079830955987968,2022-01-01-23:30:30,10.1.1.2,152,-0.090,-0.090,-0.090,0.000,0.000,0.000
1641079831154525952,2022-01-01-23:30:31,10.1.1.2,149,-0.100,-0.100,-0.100,0.000,0.000,0.000
1641079831354639104,2022-01-01-23:30:31,10.1.1.2,146,-0.110,-0.110,-0.110,0.000,0.000,0.000
1641079831555054848,2022-01-01-23:30:31,10.1.1.2,141,-0.120,-0.120,-0.120,0.000,0.000,0.000
1641079831775777024,2022-01-01-23:30:31,10.1.1.2,157,-0.130,-0.130,-0.130,0.000,0.000,0.000
1641079831974329856,2022-01-01-23:30:31,10.1.1.2,154,-0.140,-0.140,-0.140,0.000,0.000,0.000
1641079832176325120,2022-01-01-23:30:32,10.1.1.2,154,-0.150,-0.150,-0.150,0.000,0.000,0.000
1641079832379375872,2022-01-01-23:30:32,10.1.1.2,156,-0.160,-0.160,-0.160,0.000,0.000,0.000
1641079832575699200,2022-01-01-23:30:32,10.1.1.2,152,-0.170,-0.170,-0.170,0.000,0.000,0.000
1641079832777241088,2022-01-01-23:30:32,10.1.1.2,152,-0.180,-0.180,-0.180,0.000,0.000,0.000
1641079832975758080,2022-01-01-23:30:32,10.1.1.2,150,-0.190,-0.190,-0.190,0.000,0.000,0.000
1641079833181682944,2022-01-01-23:30:33,10.1.1.2,154,-0.200,-0.200,-0.200,0.000,0.000,0.000
1641079833375634944,2022-01-01-23:30:33,10.1.1.2,146,-0.210,-0.210,-0.210,0.000,0.000,0.000
1641079833575540992,2022-01-01-23:30:33,10.1.1.2,145,-0.220,-0.220,-0.220,0.000,0.000,0.000
1641079833777597952,2022-01-01-23:30:33,10.1.1.2,146,-0.230,-0.230,-0.230,0.000,0.000,0.000
1641079833976219904,2022-01-01-23:30:33,10.1.1.2,144,-0.240,-0.240,-0.240,0.000,0.000,0.000
1641079834176451840,2022-01-01-23:30:34,10.1.1.2,143,-0.250,-0.250,-0.250,0.000,0.000,0.000
1641079834398215168,2022-01-01-23:30:34,10.1.1.2,164,-0.260,-0.260,-0.260,0.000,0.000,0.000
1641079834597085952,2022-01-01-23:30:34,10.1.1.2,162,-0.270,-0.270,-0.270,0.000,0.000,0.000
1641079834797779200,2022-01-01-23:30:34,10.1.1.2,162,-0.280,-0.280,-0.280,0.000,0.000,0.000
1641079834998589952,2022-01-01-23:30:34,10.1.1.2,160,-0.290,-0.290,-0.290,0.000,0.000,0.000
1641079835201462016,2022-01-01-23:30:35,10.1.1.2,161,-0.300,-0.300,-0.300,0.000,0.000,0.000
1641079835399090944,2022-01-01-23:30:35,10.1.1.2,157,-0.310,-0.310,-0.310,0.000,0.000,0.000
1641079835598798080,2022-01-01-23:30:35,10.1.1.2,156,-0.320,-0.320,-0.320,0.000,0.000,0.000
1641079835808228096,2022-01-01-23:30:35,10.1.1.2,165,-0.330,-0.330,-0.330,0.000,0.000,0.000
1641079836000921856,2022-01-01-23:30:36,10.1.1.2,155,-0.340,-0.340,-0.340,0.000,0.000,0.000
1641079836197787904,2022-01-01-23:30:36,10.1.1.2,151,-0.350,-0.350,-0.350,0.000,0.000,0.000
1641079836398322944,2022-01-01-23:30:36,10.1.1.2,151,-0.360,-0.360,-0.360,0.000,0.000,0.000
1641079836598694144,2022-01-01-23:30:36,10.1.1.2,149,-0.370,-0.370,-0.370,0.000,0.000,0.000
1641079836797723136,2022-01-01-23:30:36,10.1.1.2,147,-0.380,-0.380,-0.380,0.000,0.000,0.000
1641079836999099904,2022-01-01-23:30:36,10.1.1.2,148,-0.390,-0.390,-0.390,0.000,0.000,0.000
1641079837200032000,2022-01-01-23:30:37,10.1.1.2,147,-0.400,-0.400,-0.400,0.000,0.000,0.000
1641079837398509056,2022-01-01-23:30:37,10.1.1.2,146,-0.410,-0.410,-0.410,0.000,0.000,0.000
1641079837619403008,2022-01-01-23:30:37,10.1.1.2,165,-0.420,-0.420,-0.420,0.000,0.000,0.000
1641079837818525184,2022-01-01-23:30:37,10.1.1.2,164,-0.430,-0.430,-0.430,0.000,0.000,0.000
1641079838019954944,2022-01-01-23:30:38,10.1.1.2,163,-0.440,-0.440,-0.440,0.000,0.000,0.000
1641079838221606144,2022-01-01-23:30:38,10.1.1.2,163,-0.450,-0.450,-0.450,0.000,0.000,0.000
1641079838418232832,2022-01-01-23:30:38,10.1.1.2,159,-0.460,-0.460,-0.460,0.000,0.000,0.000
1641079838619330816,2022-01-01-23:30:38,10.1.1.2,159,-0.470,-0.470,-0.470,0.000,0.000,0.000
1641079838820282880,2022-01-01-23:30:38,10.1.1.2,158,-0.480,-0.480,-0.480,0.000,0.000,0.000
1641079839018959872,2022-01-01-23:30:39,10.1.1.2,156,-0.490,-0.490,-0.490,0.000,0.000,0.000
1641079839222174976,2022-01-01-23:30:39,10.1.1.2,155,-0.480,-0.480,-0.480,0.000,0.000,0.000
1641079839422220032,2022-01-01-23:30:39,10.1.1.2,158,-0.470,-0.470,-0.470,0.000,0.000,0.000
1641079839621159936,2022-01-01-23:30:39,10.1.1.2,156,-0.460,-0.460,-0.460,0.000,0.000,0.000
1641079839820813056,2022-01-01-23:30:39,10.1.1.2,155,-0.450,-0.450,-0.450,0.000,0.000,0.000
1641079840021612800,2022-01-01-23:30:40,10.1.1.2,155,-0.440,-0.440,-0.440,0.000,0.000,0.000
1641079840221945088,2022-01-01-23:30:40,10.1.1.2,155,-0.430,-0.430,-0.430,0.000,0.000,0.000
1641079840420162816,2022-01-01-23:30:40,10.1.1.2,152,-0.420,-0.420,-0.420,0.000,0.000,0.000
1641079840619472896,2022-01-01-23:30:40,10.1.1.2,151,-0.410,-0.410,-0.410,0.000,0.000,0.000
1641079840819746048,2022-01-01-23:30:40,10.1.1.2,150,-0.400,-0.400,-0.400,0.000,0.000,0.000
1641079841019691008,2022-01-01-23:30:41,10.1.1.2,149,-0.390,-0.390,-0.390,0.000,0.000,0.000
1641079841219213056,2022-01-01-23:30:41,10.1.1.2,146,-0.380,-0.380,-0.380,0.000,0.000,0.000
1641079841439635968,2022-01-01-23:30:41,10.1.1.2,165,-0.370,-0.370,-0.370,0.000,0.000,0.000
1641079841638883072,2022-01-01-23:30:41,10.1.1.2,164,-0.360,-0.360,-0.360,0.000,0.000,0.000
1641079841846085120,2022-01-01-23:30:41,10.1.1.2,170,-0.350,-0.350,-0.350,0.000,0.000,0.000
1641079842038904832,2022-01-01-23:30:42,10.1.1.2,162,-0.340,-0.340,-0.340,0.000,0.000,0.000
1641079842238199040,2022-01-01-23:30:42,10.1.1.2,150,-0.330,-0.330,-0.330,0.000,0.000,0.000
1641079842439102976,2022-01-01-23:30:42,10.1.1.2,150,-0.320,-0.320,-0.320,0.000,0.000,0.000
1641079842640551168,2022-01-01-23:30:42,10.1.1.2,149,-0.310,-0.310,-0.310,0.000,0.000,0.000
1641079842841701120,2022-01-01-23:30:42,10.1.1.2,149,-0.300,-0.300,-0.300,0.000,0.000,0.000
1641079843058036992,2022-01-01-23:30:43,10.1.1.2,165,-0.290,-0.290,-0.290,0.000,0.000,0.000
1641079843257569024,2022-01-01-23:30:43,10.1.1.2,163,-0.280,-0.280,-0.280,0.000,0.000,0.000
1641079843463826944,2022-01-01-23:30:43,10.1.1.2,169,-0.270,-0.270,-0.270,0.000,0.000,0.000
1641079843658985984,2022-01-01-23:30:43,10.1.1.2,163,-0.260,-0.260,-0.260,0.000,0.000,0.000
1641079843853044992,2022-01-01-23:30:43,10.1.1.2,157,-0.250,-0.250,-0.250,0.000,0.000,0.000
1641079844057801984,2022-01-01-23:30:44,10.1.1.2,160,-0.240,-0.240,-0.240,0.000,0.000,0.000
1641079844258457856,2022-01-01-23:30:44,10.1.1.2,160,-0.230,-0.230,-0.230,0.000,0.000,0.000
1641079844457370880,2022-01-01-23:30:44,10.1.1.2,159,-0.220,-0.220,-0.220,0.000,0.000,0.000
1641079844657784064,2022-01-01-23:30:44,10.1.1.2,159,-0.210,-0.210,-0.210,0.000,0.000,0.000
1641079844856820992,2022-01-01-23:30:44,10.1.1.2,157,-0.200,-0.200,-0.200,0.000,0.000,0.000
1641079845057210880,2022-01-01-23:30:45,10.1.1.2,157,-0.190,-0.190,-0.190,0.000,0.000,0.000
1641079845259921920,2022-01-01-23:30:45,10.1.1.2,159,-0.180,-0.180,-0.180,0.000,0.000,0.000
1641079845457084928,2022-01-01-23:30:45,10.1.1.2,153,-0.170,-0.170,-0.170,0.000,0.000,0.000
1641079845659889920,2022-01-01-23:30:45,10.1.1.2,155,-0.160,-0.160,-0.160,0.000,0.000,0.000
1641079845858080000,2022-01-01-23:30:45,10.1.1.2,152,-0.150,-0.150,-0.150,0.000,0.000,0.000
1641079846058051072,2022-01-01-23:30:46,10.1.1.2,152,-0.140,-0.140,-0.140,0.000,0.000,0.000
1641079846256241152,2022-01-01-23:30:46,10.1.1.2,150,-0.130,-0.130,-0.130,0.000,0.000,0.000
1641079846455748096,2022-01-01-23:30:46,10.1.1.2,149,-0.120,-0.120,-0.120,0.000,0.000,0.000
1641079846657596160,2022-01-01-23:30:46,10.1.1.2,149,-0.110,-0.110,-0.110,0.000,0.000,0.000
1641079846857091072,2022-01-01-23:30:46,10.1.1.2,148,-0.100,-0.100,-0.100,0.000,0.000,0.000
1641079847056776960,2022-01-01-23:30:47,10.1.1.2,145,-0.090,-0.090,-0.090,0.000,0.000,0.000
1641079847258466048,2022-01-01-23:30:47,10.1.1.2,147,-0.080,-0.080,-0.080,0.000,0.000,0.000
1641079847455898112,2022-01-01-23:30:47,10.1.1.2,143,-0.070,-0.070,-0.070,0.000,0.000,0.000
1641079847676888832,2022-01-01-23:30:47,10.1.1.2,162,-0.060,-0.060,-0.060,0.000,0.000,0.000
1641079847875282176,2022-01-01-23:30:47,10.1.1.2,160,-0.050,-0.050,-0.050,0.000,0.000,0.000
1641079847917138944,2022-01-01-23:30:47,10.1.1.2,-1,-0.050,-0.050,-0.050,0.000,0.000,0.000
1641079848275618048,2022-01-01-23:30:48,10.1.1.2,158,-0.030,-0.030,-0.030,0.000,0.000,0.000
1641079848477273856,2022-01-01-23:30:48,10.1.1.2,158,-0.020,-0.020,-0.020,0.000,0.000,0.000
1641079848676333056,2022-01-01-23:30:48,10.1.1.2,157,-0.010,-0.010,-0.010,0.000,0.000,0.000
1641079848877863936,2022-01-01-23:30:48,10.1.1.2,158,0.000,0.000,0.000,0.000,0.000,0.000
1641079849083517184,2022-01-01-23:30:49,10.1.1.2,162,-0.010,-0.010,-0.010,0.000,0.000,0.000
1641079849277630208,2022-01-01-23:30:49,10.1.1.2,153,-0.020,-0.020,-0.020,0.000,0.000,0.000
1641079849475235840,2022-01-01-23:30:49,10.1.1.2,152,-0.030,-0.030,-0.030,0.000,0.000,0.000
1641079849676142848,2022-01-01-23:30:49,10.1.1.2,152,-0.040,-0.040,-0.040,0.000,0.000,0.000
1641079849875471104,2022-01-01-23:30:49,10.1.1.2,149,-0.050,-0.050,-0.050,0.000,0.000,0.000
1641079850076994816,2022-01-01-23:30:50,10.1.1.2,150,-0.060,-0.060,-0.060,0.000,0.000,0.000
1641079850274051072,2022-01-01-23:30:50,10.1.1.2,145,-0.070,-0.070,-0.070,0.000,0.000,0.000
1641079850475852032,2022-01-01-23:30:50,10.1.1.2,145,-0.080,-0.080,-0.080,0.000,0.000,0.000
1641079850673826816,2022-01-01-23:30:50,10.1.1.2,143,-0.090,-0.090,-0.090,0.000,0.000,0.000
1641079850877281024,2022-01-01-23:30:50,10.1.1.2,145,-0.100,-0.100,-0.100,0.000,0.000,0.000
1641079851074332928,2022-01-01-23:30:51,10.1.1.2,141,-0.110,-0.110,-0.110,0.000,0.000,0.000
1641079851295006976,2022-01-01-23:30:51,10.1.1.2,161,-0.120,-0.120,-0.120,0.000,0.000,0.000
1641079851493076992,2022-01-01-23:30:51,10.1.1.2,157,-0.130,-0.130,-0.130,0.000,0.000,0.000
1641079851694744064,2022-01-01-23:30:51,10.1.1.2,156,-0.140,-0.140,-0.140,0.000,0.000,0.000
1641079851894504960,2022-01-01-23:30:51,10.1.1.2,157,-0.150,-0.150,-0.150,0.000,0.000,0.000
1641079852093754880,2022-01-01-23:30:52,10.1.1.2,156,-0.160,-0.160,-0.160,0.000,0.000,0.000
1641079852295450880,2022-01-01-23:30:52,10.1.1.2,157,-0.170,-0.170,-0.170,0.000,0.000,0.000
1641079852493799936,2022-01-01-23:30:52,10.1.1.2,154,-0.180,-0.180,-0.180,0.000,0.000,0.000
1641079852693908992,2022-01-01-23:30:52,10.1.1.2,152,-0.190,-0.190,-0.190,0.000,0.000,0.000
1641079852893007104,2022-01-01-23:30:52,10.1.1.2,148,-0.200,-0.200,-0.200,0.000,0.000,0.000
1641079853096218112,2022-01-01-23:30:53,10.1.1.2,149,-0.210,-0.210,-0.210,0.000,0.000,0.000
1641079853291635968,2022-01-01-23:30:53,10.1.1.2,144,-0.220,-0.220,-0.220,0.000,0.000,0.000
1641079853494891776,2022-01-01-23:30:53,10.1.1.2,146,-0.230,-0.230,-0.230,0.000,0.000,0.000
1641079853711527168,2022-01-01-23:30:53,10.1.1.2,156,-0.240,-0.240,-0.240,0.000,0.000,0.000
1641079853911108096,2022-01-01-23:30:53,10.1.1.2,155,-0.250,-0.250,-0.250,0.000,0.000,0.000
1641079854110742016,2022-01-01-23:30:54,10.1.1.2,153,-0.260,-0.260,-0.260,0.000,0.000,0.000
1641079854312220160,2022-01-01-23:30:54,10.1.1.2,153,-0.270,-0.270,-0.270,0.000,0.000,0.000
1641079854510926080,2022-01-01-23:30:54,10.1.1.2,151,-0.280,-0.280,-0.280,0.000,0.000,0.000
1641079854710619904,2022-01-01-23:30:54,10.1.1.2,149,-0.290,-0.290,-0.290,0.000,0.000,0.000
1641079854911343104,2022-01-01-23:30:54,10.1.1.2,148,-0.300,-0.300,-0.300,0.000,0.000,0.000
1641079855114044928,2022-01-01-23:30:55,10.1.1.2,150,-0.310,-0.310,-0.310,0.000,0.000,0.000
1641079855310074112,2022-01-01-23:30:55,10.1.1.2,145,-0.320,-0.320,-0.320,0.000,0.000,0.000
1641079855511894016,2022-01-01-23:30:55,10.1.1.2,143,-0.330,-0.330,-0.330,0.000,0.000,0.000
1641079855710088960,2022-01-01-23:30:55,10.1.1.2,139,-0.340,-0.340,-0.340,0.000,0.000,0.000
1641079855928697088,2022-01-01-23:30:55,10.1.1.2,153,-0.350,-0.350,-0.350,0.000,0.000,0.000
1641079856131324160,2022-01-01-23:30:56,10.1.1.2,155,-0.360,-0.360,-0.360,0.000,0.000,0.000
1641079856328172800,2022-01-01-23:30:56,10.1.1.2,150,-0.370,-0.370,-0.370,0.000,0.000,0.000
1641079856531617024,2022-01-01-23:30:56,10.1.1.2,153,-0.380,-0.380,-0.380,0.000,0.000,0.000
1641079856728233984,2022-01-01-23:30:56,10.1.1.2,146,-0.390,-0.390,-0.390,0.000,0.000,0.000
1641079856928417024,2022-01-01-23:30:56,10.1.1.2,144,-0.400,-0.400,-0.400,0.000,0.000,0.000
1641079857128340992,2022-01-01-23:30:57,10.1.1.2,144,-0.410,-0.410,-0.410,0.000,0.000,0.000
1641079857328219904,2022-01-01-23:30:57,10.1.1.2,142,-0.420,-0.420,-0.420,0.000,0.000,0.000
1641079857526993152,2022-01-01-23:30:57,10.1.1.2,140,-0.430,-0.430,-0.430,0.000,0.000,0.000
1641079857727695104,2022-01-01-23:30:57,10.1.1.2,139,-0.440,-0.440,-0.440,0.000,0.000,0.000
1641079857927301888,2022-01-01-23:30:57,10.1.1.2,137,-0.450,-0.450,-0.450,0.000,0.000,0.000
1641079858130334976,2022-01-01-23:30:58,10.1.1.2,140,-0.460,-0.460,-0.460,0.000,0.000,0.000
1641079858327027968,2022-01-01-23:30:58,10.1.1.2,136,-0.470,-0.470,-0.470,0.000,0.000,0.000
1641079858525891072,2022-01-01-23:30:58,10.1.1.2,133,-0.480,-0.480,-0.480,0.000,0.000,0.000
1641079858742439936,2022-01-01-23:30:58,10.1.1.2,146,-0.490,-0.490,-0.490,0.000,0.000,0.000
1641079858946811904,2022-01-01-23:30:58,10.1.1.2,148,-0.480,-0.480,-0.480,0.000,0.000,0.000
1641079859145672960,2022-01-01-23:30:59,10.1.1.2,145,-0.470,-0.470,-0.470,0.000,0.000,0.000
1641079859345596160,2022-01-01-23:30:59,10.1.1.2,143,-0.460,-0.460,-0.460,0.000,0.000,0.000
1641079859545500928,2022-01-01-23:30:59,10.1.1.2,141,-0.450,-0.450,-0.450,0.000,0.000,0.000
1641079859747240192,2022-01-01-23:30:59,10.1.1.2,141,-0.440,-0.440,-0.440,0.000,0.000,0.000
1641079859943777024,2022-01-01-23:30:59,10.1.1.2,135,-0.430,-0.430,-0.430,0.000,0.000,0.000
1641079860146529792,2022-01-01-23:31:00,10.1.1.2,134,-0.420,-0.420,-0.420,0.000,0.000,0.000
1641079860344455936,2022-01-01-23:31:00,10.1.1.2,131,-0.410,-0.410,-0.410,0.000,0.000,0.000
1641079860565642240,2022-01-01-23:31:00,10.1.1.2,151,-0.400,-0.400,-0.400,0.000,0.000,0.000
1641079860766835968,2022-01-01-23:31:00,10.1.1.2,152,-0.390,-0.390,-0.390,0.000,0.000,0.000
1641079860966208000,2022-01-01-23:31:00,10.1.1.2,147,-0.380,-0.380,-0.380,0.000,0.000,0.000
1641079861162686976,2022-01-01-23:31:01,10.1.1.2,142,-0.370,-0.370,-0.370,0.000,0.000,0.000
1641079861362266112,2022-01-01-23:31:01,10.1.1.2,140,-0.360,-0.360,-0.360,0.000,0.000,0.000
1641079861569200128,2022-01-01-23:31:01,10.1.1.2,146,-0.350,-0.350,-0.350,0.000,0.000,0.000
1641079861762358784,2022-01-01-23:31:01,10.1.1.2,138,-0.340,-0.340,-0.340,0.000,0.000,0.000
1641079861966386944,2022-01-01-23:31:01,10.1.1.2,139,-0.330,-0.330,-0.330,0.000,0.000,0.000
1641079862161815808,2022-01-01-23:31:02,10.1.1.2,135,-0.320,-0.320,-0.320,0.000,0.000,0.000
1641079862361388800,2022-01-01-23:31:02,10.1.1.2,133,-0.310,-0.310,-0.310,0.000,0.000,0.000
1641079862563747840,2022-01-01-23:31:02,10.1.1.2,131,-0.300,-0.300,-0.300,0.000,0.000,0.000
1641079862781587968,2022-01-01-23:31:02,10.1.1.2,146,-0.290,-0.290,-0.290,0.000,0.000,0.000
1641079862981067776,2022-01-01-23:31:02,10.1.1.2,144,-0.280,-0.280,-0.280,0.000,0.000,0.000
1641079863180588032,2022-01-01-23:31:03,10.1.1.2,142,-0.270,-0.270,-0.270,0.000,0.000,0.000
1641079863380211200,2022-01-01-23:31:03,10.1.1.2,140,-0.260,-0.260,-0.260,0.000,0.000,0.000
1641079863579997952,2022-01-01-23:31:03,10.1.1.2,136,-0.250,-0.250,-0.250,0.000,0.000,0.000
1641079863779534080,2022-01-01-23:31:03,10.1.1.2,135,-0.240,-0.240,-0.240,0.000,0.000,0.000
1641079863979494144,2022-01-01-23:31:03,10.1.1.2,134,-0.230,-0.230,-0.230,0.000,0.000,0.000
1641079864179180032,2022-01-01-23:31:04,10.1.1.2,133,-0.220,-0.220,-0.220,0.000,0.000,0.000
1641079864378675968,2022-01-01-23:31:04,10.1.1.2,131,-0.210,-0.210,-0.210,0.000,0.000,0.000
1641079864578660864,2022-01-01-23:31:04,10.1.1.2,130,-0.200,-0.200,-0.200,0.000,0.000,0.000
1641079864779414016,2022-01-01-23:31:04,10.1.1.2,130,-0.190,-0.190,-0.190,0.000,0.000,0.000
1641079864979275008,2022-01-01-23:31:04,10.1.1.2,129,-0.180,-0.180,-0.180,0.000,0.000,0.000
1641079865177508096,2022-01-01-23:31:05,10.1.1.2,126,-0.170,-0.170,-0.170,0.000,0.000,0.000
1641079865378664960,2022-01-01-23:31:05,10.1.1.2,125,-0.160,-0.160,-0.160,0.000,0.000,0.000
1641079865600126976,2022-01-01-23:31:05,10.1.1.2,146,-0.150,-0.150,-0.150,0.000,0.000,0.000
1641079865798029056,2022-01-01-23:31:05,10.1.1.2,143,-0.140,-0.140,-0.140,0.000,0.000,0.000
1641079865997277952,2022-01-01-23:31:05,10.1.1.2,141,-0.130,-0.130,-0.130,0.000,0.000,0.000
1641079866196321024,2022-01-01-23:31:06,10.1.1.2,138,-0.120,-0.120,-0.120,0.000,0.000,0.000
1641079866397563904,2022-01-01-23:31:06,10.1.1.2,134,-0.110,-0.110,-0.110,0.000,0.000,0.000
1641079866596726784,2022-01-01-23:31:06,10.1.1.2,132,-0.100,-0.100,-0.100,0.000,0.000,0.000
1641079866795776000,2022-01-01-23:31:06,10.1.1.2,130,-0.090,-0.090,-0.090,0.000,0.000,0.000
1641079866995554816,2022-01-01-23:31:06,10.1.1.2,129,-0.080,-0.080,-0.080,0.000,0.000,0.000
1641079867194663936,2022-01-01-23:31:07,10.1.1.2,127,-0.070,-0.070,-0.070,0.000,0.000,0.000
1641079867393747200,2022-01-01-23:31:07,10.1.1.2,125,-0.060,-0.060,-0.060,0.000,0.000,0.000
1641079867594956032,2022-01-01-23:31:07,10.1.1.2,125,-0.050,-0.050,-0.050,0.000,0.000,0.000
1641079867794498048,2022-01-01-23:31:07,10.1.1.2,124,-0.040,-0.040,-0.040,0.000,0.000,0.000
1641079867993733888,2022-01-01-23:31:07,10.1.1.2,122,-0.030,-0.030,-0.030,0.000,0.000,0.000
1641079868194656000,2022-01-01-23:31:08,10.1.1.2,122,-0.020,-0.020,-0.020,0.000,0.000,0.000
1641079868412628992,2022-01-01-23:31:08,10.1.1.2,139,-0.010,-0.010,-0.010,0.000,0.000,0.000
1641079868614532096,2022-01-01-23:31:08,10.1.1.2,139,0.000,0.000,0.000,0.000,0.000,0.000
1641079868814201088,2022-01-01-23:31:08,10.1.1.2,138,-0.010,-0.010,-0.010,0.000,0.000,0.000
1641079869012924928,2022-01-01-23:31:09,10.1.1.2,135,-0.020,-0.020,-0.020,0.000,0.000,0.000
1641079869214363136,2022-01-01-23:31:09,10.1.1.2,137,-0.030,-0.030,-0.030,0.000,0.000,0.000
1641079869413750016,2022-01-01-23:31:09,10.1.1.2,134,-0.040,-0.040,-0.040,0.000,0.000,0.000
1641079869614941952,2022-01-01-23:31:09,10.1.1.2,135,-0.050,-0.050,-0.050,0.000,0.000,0.000
1641079869810307072,2022-01-01-23:31:09,10.1.1.2,129,-0.060,-0.060,-0.060,0.000,0.000,0.000
1641079870014883072,2022-01-01-23:31:10,10.1.1.2,133,-0.070,-0.070,-0.070,0.000,0.000,0.000
1641079870210571008,2022-01-01-23:31:10,10.1.1.2,127,-0.080,-0.080,-0.080,0.000,0.000,0.000
1641079870410168832,2022-01-01-23:31:10,10.1.1.2,125,-0.090,-0.090,-0.090,0.000,0.000,0.000
1641079870610210048,2022-01-01-23:31:10,10.1.1.2,124,-0.100,-0.100,-0.100,0.000,0.000,0.000
1641079870809839104,2022-01-01-23:31:10,10.1.1.2,121,-0.110,-0.110,-0.110,0.000,0.000,0.000
1641079871010780160,2022-01-01-23:31:11,10.1.1.2,120,-0.120,-0.120,-0.120,0.000,0.000,0.000
1641079871208825088,2022-01-01-23:31:11,10.1.1.2,117,-0.130,-0.130,-0.130,0.000,0.000,0.000
1641079871430393088,2022-01-01-23:31:11,10.1.1.2,137,-0.140,-0.140,-0.140,0.000,0.000,0.000
1641079871631974912,2022-01-01-23:31:11,10.1.1.2,137,-0.150,-0.150,-0.150,0.000,0.000,0.000
1641079871829490944,2022-01-01-23:31:11,10.1.1.2,134,-0.160,-0.160,-0.160,0.000,0.000,0.000
1641079872027916800,2022-01-01-23:31:12,10.1.1.2,130,-0.170,-0.170,-0.170,0.000,0.000,0.000
1641079872227741952,2022-01-01-23:31:12,10.1.1.2,129,-0.180,-0.180,-0.180,0.000,0.000,0.000
1641079872427229952,2022-01-01-23:31:12,10.1.1.2,125,-0.190,-0.190,-0.190,0.000,0.000,0.000
1641079872625995008,2022-01-01-23:31:12,10.1.1.2,123,-0.200,-0.200,-0.200,0.000,0.000,0.000
1641079872825772032,2022-01-01-23:31:12,10.1.1.2,122,-0.210,-0.210,-0.210,0.000,0.000,0.000
1641079873027642880,2022-01-01-23:31:13,10.1.1.2,122,-0.220,-0.220,-0.220,0.000,0.000,0.000
1641079873232404992,2022-01-01-23:31:13,10.1.1.2,126,-0.230,-0.230,-0.230,0.000,0.000,0.000
1641079873426817792,2022-01-01-23:31:13,10.1.1.2,119,-0.240,-0.240,-0.240,0.000,0.000,0.000
1641079873625176832,2022-01-01-23:31:13,10.1.1.2,116,-0.250,-0.250,-0.250,0.000,0.000,0.000
1641079873826051840,2022-01-01-23:31:13,10.1.1.2,117,-0.260,-0.260,-0.260,0.000,0.000,0.000
1641079874027545088,2022-01-01-23:31:14,10.1.1.2,117,-0.270,-0.270,-0.270,0.000,0.000,0.000
1641079874226195200,2022-01-01-23:31:14,10.1.1.2,115,-0.280,-0.280,-0.280,0.000,0.000,0.000
1641079874424047872,2022-01-01-23:31:14,10.1.1.2,112,-0.290,-0.290,-0.290,0.000,0.000,0.000
1641079874645154048,2022-01-01-23:31:14,10.1.1.2,131,-0.300,-0.300,-0.300,0.000,0.000,0.000
1641079874845351936,2022-01-01-23:31:14,10.1.1.2,131,-0.310,-0.310,-0.310,0.000,0.000,0.000
1641079875044521216,2022-01-01-23:31:15,10.1.1.2,129,-0.320,-0.320,-0.320,0.000,0.000,0.000
1641079875244834816,2022-01-01-23:31:15,10.1.1.2,128,-0.330,-0.330,-0.330,0.000,0.000,0.000
1641079875444883200,2022-01-01-23:31:15,10.1.1.2,126,-0.340,-0.340,-0.340,0.000,0.000,0.000
1641079875642402048,2022-01-01-23:31:15,10.1.1.2,123,-0.350,-0.350,-0.350,0.000,0.000,0.000
1641079875843108864,2022-01-01-23:31:15,10.1.1.2,123,-0.360,-0.360,-0.360,0.000,0.000,0.000
1641079876043265024,2022-01-01-23:31:16,10.1.1.2,122,-0.370,-0.370,-0.370,0.000,0.000,0.000
1641079876242770944,2022-01-01-23:31:16,10.1.1.2,119,-0.380,-0.380,-0.380,0.000,0.000,0.000
1641079876442946816,2022-01-01-23:31:16,10.1.1.2,116,-0.390,-0.390,-0.390,0.000,0.000,0.000
1641079876642652160,2022-01-01-23:31:16,10.1.1.2,116,-0.400,-0.400,-0.400,0.000,0.000,0.000
1641079876840352000,2022-01-01-23:31:16,10.1.1.2,112,-0.410,-0.410,-0.410,0.000,0.000,0.000
1641079877042622976,2022-01-01-23:31:17,10.1.1.2,113,-0.420,-0.420,-0.420,0.000,0.000,0.000
1641079877243170048,2022-01-01-23:31:17,10.1.1.2,113,-0.430,-0.430,-0.430,0.000,0.000,0.000
1641079877440129024,2022-01-01-23:31:17,10.1.1.2,108,-0.440,-0.440,-0.440,0.000,0.000,0.000
1641079877659301888,2022-01-01-23:31:17,10.1.1.2,125,-0.450,-0.450,-0.450,0.000,0.000,0.000
1641079877858561024,2022-01-01-23:31:17,10.1.1.2,123,-0.460,-0.460,-0.460,0.000,0.000,0.000
1641079878058693888,2022-01-01-23:31:18,10.1.1.2,122,-0.470,-0.470,-0.470,0.000,0.000,0.000
1641079878257739008,2022-01-01-23:31:18,10.1.1.2,118,-0.480,-0.480,-0.480,0.000,0.000,0.000
1641079878458193152,2022-01-01-23:31:18,10.1.1.2,117,-0.490,-0.490,-0.490,0.000,0.000,0.000
1641079878657617152,2022-01-01-23:31:18,10.1.1.2,115,-0.480,-0.480,-0.480,0.000,0.000,0.000
1641079878858913024,2022-01-01-23:31:18,10.1.1.2,115,-0.470,-0.470,-0.470,0.000,0.000,0.000
1641079879056859136,2022-01-01-23:31:19,10.1.1.2,112,-0.460,-0.460,-0.460,0.000,0.000,0.000
1641079879259098880,2022-01-01-23:31:19,10.1.1.2,113,-0.450,-0.450,-0.450,0.000,0.000,0.000
1641079879459870208,2022-01-01-23:31:19,10.1.1.2,112,-0.440,-0.440,-0.440,0.000,0.000,0.000
1641079879655396864,2022-01-01-23:31:19,10.1.1.2,104,-0.430,-0.430,-0.430,0.000,0.000,0.000
1641079879855921920,2022-01-01-23:31:19,10.1.1.2,104,-0.420,-0.420,-0.420,0.000,0.000,0.000
1641079880078278912,2022-01-01-23:31:20,10.1.1.2,125,-0.410,-0.410,-0.410,0.000,0.000,0.000
1641079880277267968,2022-01-01-23:31:20,10.1.1.2,121,-0.400,-0.400,-0.400,0.000,0.000,0.000
1641079880474359040,2022-01-01-23:31:20,10.1.1.2,117,-0.390,-0.390,-0.390,0.000,0.000,0.000
1641079880676489984,2022-01-01-23:31:20,10.1.1.2,119,-0.380,-0.380,-0.380,0.000,0.000,0.000
1641079880876311040,2022-01-01-23:31:20,10.1.1.2,118,-0.370,-0.370,-0.370,0.000,0.000,0.000
1641079881075644928,2022-01-01-23:31:21,10.1.1.2,115,-0.360,-0.360,-0.360,0.000,0.000,0.000
1641079881273309952,2022-01-01-23:31:21,10.1.1.2,112,-0.350,-0.350,-0.350,0.000,0.000,0.000
1641079881474483968,2022-01-01-23:31:21,10.1.1.2,113,-0.340,-0.340,-0.340,0.000,0.000,0.000
1641079881673736960,2022-01-01-23:31:21,10.1.1.2,110,-0.330,-0.330,-0.330,0.000,0.000,0.000
1641079881892172032,2022-01-01-23:31:21,10.1.1.2,128,-0.320,-0.320,-0.320,0.000,0.000,0.000
1641079882072871936,2022-01-01-23:31:22,10.1.1.2,106,-0.310,-0.310,-0.310,0.000,0.000,0.000
1641079882273259008,2022-01-01-23:31:22,10.1.1.2,105,-0.300,-0.300,-0.300,0.000,0.000,0.000
1641079882475537152,2022-01-01-23:31:22,10.1.1.2,106,-0.290,-0.290,-0.290,0.000,0.000,0.000
1641079882678672128,2022-01-01-23:31:22,10.1.1.2,109,-0.280,-0.280,-0.280,0.000,0.000,0.000
1641079882878784000,2022-01-01-23:31:22,10.1.1.2,106,-0.270,-0.270,-0.270,0.000,0.000,0.000
1641079883100706048,2022-01-01-23:31:23,10.1.1.2,127,-0.260,-0.260,-0.260,0.000,0.000,0.000
1641079883300151040,2022-01-01-23:31:23,10.1.1.2,125,-0.250,-0.250,-0.250,0.000,0.000,0.000
1641079883501393152,2022-01-01-23:31:23,10.1.1.2,125,-0.240,-0.240,-0.240,0.000,0.000,0.000
1641079883701585152,2022-01-01-23:31:23,10.1.1.2,125,-0.230,-0.230,-0.230,0.000,0.000,0.000
1641079883901840896,2022-01-01-23:31:23,10.1.1.2,124,-0.220,-0.220,-0.220,0.000,0.000,0.000
1641079884104381184,2022-01-01-23:31:24,10.1.1.2,125,-0.210,-0.210,-0.210,0.000,0.000,0.000
1641079884304861952,2022-01-01-23:31:24,10.1.1.2,125,-0.200,-0.200,-0.200,0.000,0.000,0.000
1641079884506167808,2022-01-01-23:31:24,10.1.1.2,124,-0.190,-0.190,-0.190,0.000,0.000,0.000
1641079884706966016,2022-01-01-23:31:24,10.1.1.2,126,-0.180,-0.180,-0.180,0.000,0.000,0.000
1641079884910438912,2022-01-01-23:31:24,10.1.1.2,127,-0.170,-0.170,-0.170,0.000,0.000,0.000
1641079885108974848,2022-01-01-23:31:25,10.1.1.2,124,-0.160,-0.160,-0.160,0.000,0.000,0.000
1641079885311934976,2022-01-01-23:31:25,10.1.1.2,126,-0.150,-0.150,-0.150,0.000,0.000,0.000
1641079885511208960,2022-01-01-23:31:25,10.1.1.2,125,-0.140,-0.140,-0.140,0.000,0.000,0.000
1641079885714138880,2022-01-01-23:31:25,10.1.1.2,127,-0.130,-0.130,-0.130,0.000,0.000,0.000
1641079885915482880,2022-01-01-23:31:25,10.1.1.2,128,-0.120,-0.120,-0.120,0.000,0.000,0.000
1641079886114161920,2022-01-01-23:31:26,10.1.1.2,126,-0.110,-0.110,-0.110,0.000,0.000,0.000
1641079886314127872,2022-01-01-23:31:26,10.1.1.2,125,-0.100,-0.100,-0.100,0.000,0.000,0.000
1641079886516706816,2022-01-01-23:31:26,10.1.1.2,126,-0.090,-0.090,-0.090,0.000,0.000,0.000
1641079886717185024,2022-01-01-23:31:26,10.1.1.2,125,-0.080,-0.080,-0.080,0.000,0.000,0.000
1641079886916902912,2022-01-01-23:31:26,10.1.1.2,124,-0.070,-0.070,-0.070,0.000,0.000,0.000
1641079887137537024,2022-01-01-23:31:27,10.1.1.2,143,-0.060,-0.060,-0.060,0.000,0.000,0.000
1641079887337976832,2022-01-01-23:31:27,10.1.1.2,143,-0.050,-0.050,-0.050,0.000,0.000,0.000
1641079887538811904,2022-01-01-23:31:27,10.1.1.2,138,-0.040,-0.040,-0.040,0.000,0.000,0.000
1641079887739064064,2022-01-01-23:31:27,10.1.1.2,135,-0.030,-0.030,-0.030,0.000,0.000,0.000
1641079887942408192,2022-01-01-23:31:27,10.1.1.2,137,-0.020,-0.020,-0.020,0.000,0.000,0.000
1641079888140371968,2022-01-01-23:31:28,10.1.1.2,133,-0.010,-0.010,-0.010,0.000,0.000,0.000
1641079888343151104,2022-01-01-23:31:28,10.1.1.2,135,0.000,0.000,0.000,0.000,0.000,0.000
1641079888545286912,2022-01-01-23:31:28,10.1.1.2,137,-0.010,-0.010,-0.010,0.000,0.000,0.000
1641079888741741824,2022-01-01-23:31:28,10.1.1.2,132,-0.020,-0.020,-0.020,0.000,0.000,0.000
1641079888942255104,2022-01-01-23:31:28,10.1.1.2,132,-0.030,-0.030,-0.030,0.000,0.000,0.000
1641079889144155136,2022-01-01-23:31:29,10.1.1.2,133,-0.040,-0.040,-0.040,0.000,0.000,0.000
1641079889347318784,2022-01-01-23:31:29,10.1.1.2,135,-0.050,-0.050,-0.050,0.000,0.000,0.000
1641079889546177024,2022-01-01-23:31:29,10.1.1.2,134,-0.060,-0.060,-0.060,0.000,0.000,0.000
1641079889766878976,2022-01-01-23:31:29,10.1.1.2,153,-0.070,-0.070,-0.070,0.000,0.000,0.000
1641079889967425024,2022-01-01-23:31:29,10.1.1.2,151,-0.080,-0.080,-0.080,0.000,0.000,0.000
1641079890166745856,2022-01-01-23:31:30,10.1.1.2,152,-0.090,-0.090,-0.090,0.000,0.000,0.000
1641079890366614016,2022-01-01-23:31:30,10.1.1.2,151,-0.100,-0.100,-0.100,0.000,0.000,0.000
1641079890569818880,2022-01-01-23:31:30,10.1.1.2,151,-0.110,-0.110,-0.110,0.000,0.000,0.000
1641079890768733952,2022-01-01-23:31:30,10.1.1.2,151,-0.120,-0.120,-0.120,0.000,0.000,0.000
1641079890969236992,2022-01-01-23:31:30,10.1.1.2,150,-0.130,-0.130,-0.130,0.000,0.000,0.000
1641079891170280960,2022-01-01-23:31:31,10.1.1.2,148,-0.140,-0.140,-0.140,0.000,0.000,0.000
1641079891372158976,2022-01-01-23:31:31,10.1.1.2,147,-0.150,-0.150,-0.150,0.000,0.000,0.000
1641079891573030912,2022-01-01-23:31:31,10.1.1.2,147,-0.160,-0.160,-0.160,0.000,0.000,0.000
1641079891771502080,2022-01-01-23:31:31,10.1.1.2,145,-0.170,-0.170,-0.170,0.000,0.000,0.000
1641079891972100864,2022-01-01-23:31:31,10.1.1.2,144,-0.180,-0.180,-0.180,0.000,0.000,0.000
1641079892171656960,2022-01-01-23:31:32,10.1.1.2,143,-0.190,-0.190,-0.190,0.000,0.000,0.000
1641079892374419968,2022-01-01-23:31:32,10.1.1.2,143,-0.200,-0.200,-0.200,0.000,0.000,0.000
1641079892574956032,2022-01-01-23:31:32,10.1.1.2,144,-0.210,-0.210,-0.210,0.000,0.000,0.000
1641079892774255872,2022-01-01-23:31:32,10.1.1.2,141,-0.220,-0.220,-0.220,0.000,0.000,0.000
1641079892995880960,2022-01-01-23:31:32,10.1.1.2,159,-0.230,-0.230,-0.230,0.000,0.000,0.000
1641079893195687168,2022-01-01-23:31:33,10.1.1.2,155,-0.240,-0.240,-0.240,0.000,0.000,0.000
1641079893394753024,2022-01-01-23:31:33,10.1.1.2,153,-0.250,-0.250,-0.250,0.000,0.000,0.000
1641079893598155008,2022-01-01-23:31:33,10.1.1.2,155,-0.260,-0.260,-0.260,0.000,0.000,0.000
1641079893796508928,2022-01-01-23:31:33,10.1.1.2,152,-0.270,-0.270,-0.270,0.000,0.000,0.000
1641079893998379008,2022-01-01-23:31:33,10.1.1.2,151,-0.280,-0.280,-0.280,0.000,0.000,0.000
1641079894196388864,2022-01-01-23:31:34,10.1.1.2,150,-0.290,-0.290,-0.290,0.000,0.000,0.000
1641079894397398016,2022-01-01-23:31:34,10.1.1.2,148,-0.300,-0.300,-0.300,0.000,0.000,0.000
1641079894596691968,2022-01-01-23:31:34,10.1.1.2,146,-0.310,-0.310,-0.310,0.000,0.000,0.000
1641079894796647168,2022-01-01-23:31:34,10.1.1.2,144,-0.320,-0.320,-0.320,0.000,0.000,0.000
1641079895017110016,2022-01-01-23:31:35,10.1.1.2,163,-0.330,-0.330,-0.330,0.000,0.000,0.000
1641079895217349888,2022-01-01-23:31:35,10.1.1.2,162,-0.340,-0.340,-0.340,0.000,0.000,0.000
1641079895419325952,2022-01-01-23:31:35,10.1.1.2,163,-0.350,-0.350,-0.350,0.000,0.000,0.000
1641079895621051136,2022-01-01-23:31:35,10.1.1.2,160,-0.360,-0.360,-0.360,0.000,0.000,0.000
1641079895820360960,2022-01-01-23:31:35,10.1.1.2,162,-0.370,-0.370,-0.370,0.000,0.000,0.000
1641079896019060992,2022-01-01-23:31:36,10.1.1.2,157,-0.380,-0.380,-0.380,0.000,0.000,0.000
1641079896221470208,2022-01-01-23:31:36,10.1.1.2,159,-0.390,-0.390,-0.390,0.000,0.000,0.000
1641079896419704064,2022-01-01-23:31:36,10.1.1.2,157,-0.400,-0.400,-0.400,0.000,0.000,0.000
1641079896620435968,2022-01-01-23:31:36,10.1.1.2,157,-0.410,-0.410,-0.410,0.000,0.000,0.000
1641079896822377984,2022-01-01-23:31:36,10.1.1.2,158,-0.420,-0.420,-0.420,0.000,0.000,0.000
1641079897019303936,2022-01-01-23:31:37,10.1.1.2,154,-0.430,-0.430,-0.430,0.000,0.000,0.000
1641079897221658880,2022-01-01-23:31:37,10.1.1.2,155,-0.440,-0.440,-0.440,0.000,0.000,0.000
1641079897420941056,2022-01-01-23:31:37,10.1.1.2,153,-0.450,-0.450,-0.450,0.000,0.000,0.000
1641079897621826816,2022-01-01-23:31:37,10.1.1.2,153,-0.460,-0.460,-0.460,0.000,0.000,0.000
1641079897823383040,2022-01-01-23:31:37,10.1.1.2,152,-0.470,-0.470,-0.470,0.000,0.000,0.000
1641079898022094848,2022-01-01-23:31:38,10.1.1.2,150,-0.480,-0.480,-0.480,0.000,0.000,0.000
1641079898221317120,2022-01-01-23:31:38,10.1.1.2,150,-0.490,-0.490,-0.490,0.000,0.000,0.000
1641079898422374912,2022-01-01-23:31:38,10.1.1.2,148,-0.480,-0.480,-0.480,0.000,0.000,0.000
1641079898623492864,2022-01-01-23:31:38,10.1.1.2,150,-0.470,-0.470,-0.470,0.000,0.000,0.000
1641079898843358976,2022-01-01-23:31:38,10.1.1.2,168,-0.460,-0.460,-0.460,0.000,0.000,0.000
1641079899041624064,2022-01-01-23:31:39,10.1.1.2,164,-0.450,-0.450,-0.450,0.000,0.000,0.000
1641079899242703872,2022-01-01-23:31:39,10.1.1.2,163,-0.440,-0.440,-0.440,0.000,0.000,0.000
1641079899445046016,2022-01-01-23:31:39,10.1.1.2,164,-0.430,-0.430,-0.430,0.000,0.000,0.000
1641079899643652864,2022-01-01-23:31:39,10.1.1.2,161,-0.420,-0.420,-0.420,0.000,0.000,0.000
1641079899843995136,2022-01-01-23:31:39,10.1.1.2,159,-0.410,-0.410,-0.410,0.000,0.000,0.000
1641079900044312064,2022-01-01-23:31:40,10.1.1.2,159,-0.400,-0.400,-0.400,0.000,0.000,0.000
1641079900242116096,2022-01-01-23:31:40,10.1.1.2,155,-0.390,-0.390,-0.390,0.000,0.000,0.000
1641079900446563840,2022-01-01-23:31:40,10.1.1.2,158,-0.380,-0.380,-0.380,0.000,0.000,0.000
1641079900644773120,2022-01-01-23:31:40,10.1.1.2,156,-0.370,-0.370,-0.370,0.000,0.000,0.000
1641079900843738112,2022-01-01-23:31:40,10.1.1.2,153,-0.360,-0.360,-0.360,0.000,0.000,0.000
1641079901043250176,2022-01-01-23:31:41,10.1.1.2,151,-0.350,-0.350,-0.350,0.000,0.000,0.000
1641079901243129856,2022-01-01-23:31:41,10.1.1.2,150,-0.340,-0.340,-0.340,0.000,0.000,0.000
1641079901462953216,2022-01-01-23:31:41,10.1.1.2,169,-0.330,-0.330,-0.330,0.000,0.000,0.000
1641079901667675136,2022-01-01-23:31:41,10.1.1.2,173,-0.320,-0.320,-0.320,0.000,0.000,0.000
1641079901866248960,2022-01-01-23:31:41,10.1.1.2,169,-0.310,-0.310,-0.310,0.000,0.000,0.000
1641079902067721984,2022-01-01-23:31:42,10.1.1.2,169,-0.300,-0.300,-0.300,0.000,0.000,0.000
1641079902265415936,2022-01-01-23:31:42,10.1.1.2,165,-0.290,-0.290,-0.290,0.000,0.000,0.000
1641079902464515840,2022-01-01-23:31:42,10.1.1.2,162,-0.280,-0.280,-0.280,0.000,0.000,0.000
1641079902664064000,2022-01-01-23:31:42,10.1.1.2,161,-0.270,-0.270,-0.270,0.000,0.000,0.000
1641079902863964928,2022-01-01-23:31:42,10.1.1.2,157,-0.260,-0.260,-0.260,0.000,0.000,0.000
1641079903064257024,2022-01-01-23:31:43,10.1.1.2,156,-0.250,-0.250,-0.250,0.000,0.000,0.000
1641079903265295104,2022-01-01-23:31:43,10.1.1.2,155,-0.240,-0.240,-0.240,0.000,0.000,0.000
1641079903463579904,2022-01-01-23:31:43,10.1.1.2,152,-0.230,-0.230,-0.230,0.000,0.000,0.000
1641079903665393152,2022-01-01-23:31:43,10.1.1.2,153,-0.220,-0.220,-0.220,0.000,0.000,0.000
1641079903863936000,2022-01-01-23:31:43,10.1.1.2,151,-0.210,-0.210,-0.210,0.000,0.000,0.000
1641079904085331968,2022-01-01-23:31:44,10.1.1.2,170,-0.200,-0.200,-0.200,0.000,0.000,0.000
1641079904287378176,2022-01-01-23:31:44,10.1.1.2,171,-0.190,-0.190,-0.190,0.000,0.000,0.000
1641079904485101056,2022-01-01-23:31:44,10.1.1.2,165,-0.180,-0.180,-0.180,0.000,0.000,0.000
1641079904686130944,2022-01-01-23:31:44,10.1.1.2,163,-0.170,-0.170,-0.170,0.000,0.000,0.000
1641079904885453824,2022-01-01-23:31:44,10.1.1.2,161,-0.160,-0.160,-0.160,0.000,0.000,0.000
1641079905085384960,2022-01-01-23:31:45,10.1.1.2,160,-0.150,-0.150,-0.150,0.000,0.000,0.000
1641079905285882112,2022-01-01-23:31:45,10.1.1.2,159,-0.140,-0.140,-0.140,0.000,0.000,0.000
1641079905484141056,2022-01-01-23:31:45,10.1.1.2,156,-0.130,-0.130,-0.130,0.000,0.000,0.000
1641079905686924032,2022-01-01-23:31:45,10.1.1.2,158,-0.120,-0.120,-0.120,0.000,0.000,0.000
1641079905886296064,2022-01-01-23:31:45,10.1.1.2,156,-0.110,-0.110,-0.110,0.000,0.000,0.000
1641079906085103104,2022-01-01-23:31:46,10.1.1.2,154,-0.100,-0.100,-0.100,0.000,0.000,0.000
1641079906284056832,2022-01-01-23:31:46,10.1.1.2,152,-0.090,-0.090,-0.090,0.000,0.000,0.000
1641079906486108928,2022-01-01-23:31:46,10.1.1.2,153,-0.080,-0.080,-0.080,0.000,0.000,0.000
1641079906707792896,2022-01-01-23:31:46,10.1.1.2,173,-0.070,-0.070,-0.070,0.000,0.000,0.000
1641079906905652992,2022-01-01-23:31:46,10.1.1.2,170,-0.060,-0.060,-0.060,0.000,0.000,0.000
1641079907106043136,2022-01-01-23:31:47,10.1.1.2,166,-0.050,-0.050,-0.050,0.000,0.000,0.000
1641079907305017088,2022-01-01-23:31:47,10.1.1.2,166,-0.040,-0.040,-0.040,0.000,0.000,0.000
1641079907505222144,2022-01-01-23:31:47,10.1.1.2,164,-0.030,-0.030,-0.030,0.000,0.000,0.000
1641079907704809984,2022-01-01-23:31:47,10.1.1.2,163,-0.020,-0.020,-0.020,0.000,0.000,0.000
1641079907903971072,2022-01-01-23:31:47,10.1.1.2,161,-0.010,-0.010,-0.010,0.000,0.000,0.000
1641079908103331072,2022-01-01-23:31:48,10.1.1.2,156,0.000,0.000,0.000,0.000,0.000,0.000
1641079908304915968,2022-01-01-23:31:48,10.1.1.2,156,-0.010,-0.010,-0.010,0.000,0.000,0.000
1641079908505368064,2022-01-01-23:31:48,10.1.1.2,155,-0.020,-0.020,-0.020,0.000,0.000,0.000
1641079908703998208,2022-01-01-23:31:48,10.1.1.2,152,-0.030,-0.030,-0.030,0.000,0.000,0.000
1641079908925124864,2022-01-01-23:31:48,10.1.1.2,171,-0.040,-0.040,-0.040,0.000,0.000,0.000
1641079909124943872,2022-01-01-23:31:49,10.1.1.2,169,-0.050,-0.050,-0.050,0.000,0.000,0.000
1641079909326064128,2022-01-01-23:31:49,10.1.1.2,169,-0.060,-0.060,-0.060,0.000,0.000,0.000
1641079909526757888,2022-01-01-23:31:49,10.1.1.2,169,-0.070,-0.070,-0.070,0.000,0.000,0.000
1641079909723670016,2022-01-01-23:31:49,10.1.1.2,164,-0.080,-0.080,-0.080,0.000,0.000,0.000
1641079909926001152,2022-01-01-23:31:49,10.1.1.2,165,-0.090,-0.090,-0.090,0.000,0.000,0.000
1641079910126202112,2022-01-01-23:31:50,10.1.1.2,165,-0.100,-0.100,-0.100,0.000,0.000,0.000
1641079910324315136,2022-01-01-23:31:50,10.1.1.2,161,-0.110,-0.110,-0.110,0.000,0.000,0.000
1641079910526119936,2022-01-01-23:31:50,10.1.1.2,162,-0.120,-0.120,-0.120,0.000,0.000,0.000
1641079910723891968,2022-01-01-23:31:50,10.1.1.2,158,-0.130,-0.130,-0.130,0.000,0.000,0.000
1641079910921716992,2022-01-01-23:31:50,10.1.1.2,155,-0.140,-0.140,-0.140,0.000,0.000,0.000
1641079911126595072,2022-01-01-23:31:51,10.1.1.2,159,-0.150,-0.150,-0.150,0.000,0.000,0.000
1641079911324281088,2022-01-01-23:31:51,10.1.1.2,155,-0.160,-0.160,-0.160,0.000,0.000,0.000
1641079911524622080,2022-01-01-23:31:51,10.1.1.2,154,-0.170,-0.170,-0.170,0.000,0.000,0.000
1641079911722557184,2022-01-01-23:31:51,10.1.1.2,151,-0.180,-0.180,-0.180,0.000,0.000,0.000
1641079911925654016,2022-01-01-23:31:51,10.1.1.2,153,-0.190,-0.190,-0.190,0.000,0.000,0.000
1641079912122257920,2022-01-01-23:31:52,10.1.1.2,150,-0.200,-0.200,-0.200,0.000,0.000,0.000
1641079912343640064,2022-01-01-23:31:52,10.1.1.2,168,-0.210,-0.210,-0.210,0.000,0.000,0.000
1641079912543168000,2022-01-01-23:31:52,10.1.1.2,166,-0.220,-0.220,-0.220,0.000,0.000,0.000
1641079912740932096,2022-01-01-23:31:52,10.1.1.2,163,-0.230,-0.230,-0.230,0.000,0.000,0.000
1641079912943535104,2022-01-01-23:31:52,10.1.1.2,163,-0.240,-0.240,-0.240,0.000,0.000,0.000
1641079913142190848,2022-01-01-23:31:53,10.1.1.2,162,-0.250,-0.250,-0.250,0.000,0.000,0.000
1641079913343346176,2022-01-01-23:31:53,10.1.1.2,159,-0.260,-0.260,-0.260,0.000,0.000,0.000
1641079913542365184,2022-01-01-23:31:53,10.1.1.2,157,-0.270,-0.270,-0.270,0.000,0.000,0.000
1641079913744278016,2022-01-01-23:31:53,10.1.1.2,154,-0.280,-0.280,-0.280,0.000,0.000,0.000
1641079913940736000,2022-01-01-23:31:53,10.1.1.2,152,-0.290,-0.290,-0.290,0.000,0.000,0.000
1641079914142765056,2022-01-01-23:31:54,10.1.1.2,153,-0.300,-0.300,-0.300,0.000,0.000,0.000
1641079914341207040,2022-01-01-23:31:54,10.1.1.2,151,-0.310,-0.310,-0.310,0.000,0.000,0.000
1641079914540600064,2022-01-01-23:31:54,10.1.1.2,149,-0.320,-0.320,-0.320,0.000,0.000,0.000
1641079914739661056,2022-01-01-23:31:54,10.1.1.2,148,-0.330,-0.330,-0.330,0.000,0.000,0.000
1641079914959964928,2022-01-01-23:31:54,10.1.1.2,165,-0.340,-0.340,-0.340,0.000,0.000,0.000
1641079915160534016,2022-01-01-23:31:55,10.1.1.2,164,-0.350,-0.350,-0.350,0.000,0.000,0.000
1641079915361509120,2022-01-01-23:31:55,10.1.1.2,163,-0.360,-0.360,-0.360,0.000,0.000,0.000
1641079915558738944,2022-01-01-23:31:55,10.1.1.2,159,-0.370,-0.370,-0.370,0.000,0.000,0.000
1641079915759697920,2022-01-01-23:31:55,10.1.1.2,158,-0.380,-0.380,-0.380,0.000,0.000,0.000
1641079915958990080,2022-01-01-23:31:55,10.1.1.2,156,-0.390,-0.390,-0.390,0.000,0.000,0.000
1641079916158840832,2022-01-01-23:31:56,10.1.1.2,156,-0.400,-0.400,-0.400,0.000,0.000,0.000
1641079916358232064,2022-01-01-23:31:56,10.1.1.2,154,-0.410,-0.410,-0.410,0.000,0.000,0.000
1641079916558209792,2022-01-01-23:31:56,10.1.1.2,153,-0.420,-0.420,-0.420,0.000,0.000,0.000
1641079916761313024,2022-01-01-23:31:56,10.1.1.2,155,-0.430,-0.430,-0.430,0.000,0.000,0.000
1641079916958905856,2022-01-01-23:31:56,10.1.1.2,152,-0.440,-0.440,-0.440,0.000,0.000,0.000
1641079917158075136,2022-01-01-23:31:57,10.1.1.2,150,-0.450,-0.450,-0.450,0.000,0.000,0.000
1641079917361003008,2022-01-01-23:31:57,10.1.1.2,152,-0.460,-0.460,-0.460,0.000,0.000,0.000
1641079917559747072,2022-01-01-23:31:57,10.1.1.2,149,-0.470,-0.470,-0.470,0.000,0.000,0.000
1641079917756838144,2022-01-01-23:31:57,10.1.1.2,146,-0.480,-0.480,-0.480,0.000,0.000,0.000
1641079917957053952,2022-01-01-23:31:57,10.1.1.2,145,-0.490,-0.490,-0.490,0.000,0.000,0.000
1641079918158215168,2022-01-01-23:31:58,10.1.1.2,145,-0.480,-0.480,-0.480,0.000,0.000,0.000
1641079918378955008,2022-01-01-23:31:58,10.1.1.2,165,-0.470,-0.470,-0.470,0.000,0.000,0.000
1641079918578998016,2022-01-01-23:31:58,10.1.1.2,164,-0.460,-0.460,-0.460,0.000,0.000,0.000
1641079918775837952,2022-01-01-23:31:58,10.1.1.2,160,-0.450,-0.450,-0.450,0.000,0.000,0.000
1641079918975377152,2022-01-01-23:31:58,10.1.1.2,156,-0.440,-0.440,-0.440,0.000,0.000,0.000
1641079919178548992,2022-01-01-23:31:59,10.1.1.2,158,-0.430,-0.430,-0.430,0.000,0.000,0.000
1641079919378624000,2022-01-01-23:31:59,10.1.1.2,158,-0.420,-0.420,-0.420,0.000,0.000,0.000
1641079919578972928,2022-01-01-23:31:59,10.1.1.2,157,-0.410,-0.410,-0.410,0.000,0.000,0.000
1641079919774766848,2022-01-01-23:31:59,10.1.1.2,151,-0.400,-0.400,-0.400,0.000,0.000,0.000
1641079919975070976,2022-01-01-23:31:59,10.1.1.2,151,-0.390,-0.390,-0.390,0.000,0.000,0.000
1641079920174659840,2022-01-01-23:32:00,10.1.1.2,149,-0.380,-0.380,-0.380,0.000,0.000,0.000
1641079920377622016,2022-01-01-23:32:00,10.1.1.2,151,-0.370,-0.370,-0.370,0.000,0.000,0.000
1641079920574081024,2022-01-01-23:32:00,10.1.1.2,146,-0.360,-0.360,-0.360,0.000,0.000,0.000
1641079920775168000,2022-01-01-23:32:00,10.1.1.2,145,-0.350,-0.350,-0.350,0.000,0.000,0.000
1641079920974909184,2022-01-01-23:32:00,10.1.1.2,143,-0.340,-0.340,-0.340,0.000,0.000,0.000
1641079921173913088,2022-01-01-23:32:01,10.1.1.2,142,-0.330,-0.330,-0.330,0.000,0.000,0.000
1641079921373964032,2022-01-01-23:32:01,10.1.1.2,140,-0.320,-0.320,-0.320,0.000,0.000,0.000
1641079921593480960,2022-01-01-23:32:01,10.1.1.2,156,-0.310,-0.310,-0.310,0.000,0.000,0.000
1641079921794929920,2022-01-01-23:32:01,10.1.1.2,157,-0.300,-0.300,-0.300,0.000,0.000,0.000
1641079921995243008,2022-01-01-23:32:01,10.1.1.2,156,-0.290,-0.290,-0.290,0.000,0.000,0.000
1641079922195203072,2022-01-01-23:32:02,10.1.1.2,155,-0.280,-0.280,-0.280,0.000,0.000,0.000
1641079922394594048,2022-01-01-23:32:02,10.1.1.2,151,-0.270,-0.270,-0.270,0.000,0.000,0.000
1641079922595067904,2022-01-01-23:32:02,10.1.1.2,148,-0.260,-0.260,-0.260,0.000,0.000,0.000
1641079922795838976,2022-01-01-23:32:02,10.1.1.2,146,-0.250,-0.250,-0.250,0.000,0.000,0.000
1641079922995228160,2022-01-01-23:32:02,10.1.1.2,146,-0.240,-0.240,-0.240,0.000,0.000,0.000
1641079923192724992,2022-01-01-23:32:03,10.1.1.2,141,-0.230,-0.230,-0.230,0.000,0.000,0.000
1641079923413270016,2022-01-01-23:32:03,10.1.1.2,158,-0.220,-0.220,-0.220,0.000,0.000,0.000
1641079923614248960,2022-01-01-23:32:03,10.1.1.2,158,-0.210,-0.210,-0.210,0.000,0.000,0.000
1641079923812139008,2022-01-01-23:32:03,10.1.1.2,154,-0.200,-0.200,-0.200,0.000,0.000,0.000
1641079924012890112,2022-01-01-23:32:04,10.1.1.2,153,-0.190,-0.190,-0.190,0.000,0.000,0.000
1641079924211880960,2022-01-01-23:32:04,10.1.1.2,151,-0.180,-0.180,-0.180,0.000,0.000,0.000
1641079924410285056,2022-01-01-23:32:04,10.1.1.2,148,-0.170,-0.170,-0.170,0.000,0.000,0.000
1641079924611371008,2022-01-01-23:32:04,10.1.1.2,145,-0.160,-0.160,-0.160,0.000,0.000,0.000
1641079924811769856,2022-01-01-23:32:04,10.1.1.2,144,-0.150,-0.150,-0.150,0.000,0.000,0.000
1641079925010564096,2022-01-01-23:32:05,10.1.1.2,141,-0.140,-0.140,-0.140,0.000,0.000,0.000
1641079925210283008,2022-01-01-23:32:05,10.1.1.2,138,-0.130,-0.130,-0.130,0.000,0.000,0.000
1641079925411077120,2022-01-01-23:32:05,10.1.1.2,138,-0.120,-0.120,-0.120,0.000,0.000,0.000
1641079925629600000,2022-01-01-23:32:05,10.1.1.2,155,-0.110,-0.110,-0.110,0.000,0.000,0.000
1641079925828828160,2022-01-01-23:32:05,10.1.1.2,154,-0.100,-0.100,-0.100,0.000,0.000,0.000
1641079926029253888,2022-01-01-23:32:06,10.1.1.2,153,-0.090,-0.090,-0.090,0.000,0.000,0.000
1641079926230038784,2022-01-01-23:32:06,10.1.1.2,153,-0.080,-0.080,-0.080,0.000,0.000,0.000
1641079926430740992,2022-01-01-23:32:06,10.1.1.2,150,-0.070,-0.070,-0.070,0.000,0.000,0.000
1641079926628830976,2022-01-01-23:32:06,10.1.1.2,146,-0.060,-0.060,-0.060,0.000,0.000,0.000
1641079926829332992,2022-01-01-23:32:06,10.1.1.2,145,-0.050,-0.050,-0.050,0.000,0.000,0.000
1641079927027120128,2022-01-01-23:32:07,10.1.1.2,142,-0.040,-0.040,-0.040,0.000,0.000,0.000
1641079927228653824,2022-01-01-23:32:07,10.1.1.2,140,-0.030,-0.030,-0.030,0.000,0.000,0.000
1641079927426338816,2022-01-01-23:32:07,10.1.1.2,137,-0.020,-0.020,-0.020,0.000,0.000,0.000
1641079927628217088,2022-01-01-23:32:07,10.1.1.2,136,-0.010,-0.010,-0.010,0.000,0.000,0.000
1641079927829019904,2022-01-01-23:32:07,10.1.1.2,135,-0.000,-0.000,-0.000,0.000,0.000,0.000
1641079928027385856,2022-01-01-23:32:08,10.1.1.2,133,-0.010,-0.010,-0.010,0.000,0.000,0.000
1641079928247378944,2022-01-01-23:32:08,10.1.1.2,150,-0.020,-0.020,-0.020,0.000,0.000,0.000
1641079928445821952,2022-01-01-23:32:08,10.1.1.2,149,-0.030,-0.030,-0.030,0.000,0.000,0.000
1641079928645370880,2022-01-01-23:32:08,10.1.1.2,146,-0.040,-0.040,-0.040,0.000,0.000,0.000
1641079928843857920,2022-01-01-23:32:08,10.1.1.2,143,-0.050,-0.050,-0.050,0.000,0.000,0.000
1641079929047247872,2022-01-01-23:32:09,10.1.1.2,144,-0.060,-0.060,-0.060,0.000,0.000,0.000
1641079929249195008,2022-01-01-23:32:09,10.1.1.2,147,-0.070,-0.070,-0.070,0.000,0.000,0.000
1641079929444763904,2022-01-01-23:32:09,10.1.1.2,141,-0.080,-0.080,-0.080,0.000,0.000,0.000
1641079929644041984,2022-01-01-23:32:09,10.1.1.2,138,-0.090,-0.090,-0.090,0.000,0.000,0.000
1641079929846221824,2022-01-01-23:32:09,10.1.1.2,137,-0.100,-0.100,-0.100,0.000,0.000,0.000
1641079930042778112,2022-01-01-23:32:10,10.1.1.2,133,-0.110,-0.110,-0.110,0.000,0.000,0.000
1641079930243136000,2022-01-01-23:32:10,10.1.1.2,132,-0.120,-0.120,-0.120,0.000,0.000,0.000
1641079930446633984,2022-01-01-23:32:10,10.1.1.2,134,-0.130,-0.130,-0.130,0.000,0.000,0.000
1641079930663681024,2022-01-01-23:32:10,10.1.1.2,146,-0.140,-0.140,-0.140,0.000,0.000,0.000
1641079930862162944,2022-01-01-23:32:10,10.1.1.2,143,-0.150,-0.150,-0.150,0.000,0.000,0.000
1641079931061830912,2022-01-01-23:32:11,10.1.1.2,140,-0.160,-0.160,-0.160,0.000,0.000,0.000
1641079931263278848,2022-01-01-23:32:11,10.1.1.2,140,-0.170,-0.170,-0.170,0.000,0.000,0.000
1641079931461488128,2022-01-01-23:32:11,10.1.1.2,136,-0.180,-0.180,-0.180,0.000,0.000,0.000
1641079931661602048,2022-01-01-23:32:11,10.1.1.2,135,-0.190,-0.190,-0.190,0.000,0.000,0.000
1641079931860776960,2022-01-01-23:32:11,10.1.1.2,133,-0.200,-0.200,-0.200,0.000,0.000,0.000
1641079932062194176,2022-01-01-23:32:12,10.1.1.2,134,-0.210,-0.210,-0.210,0.000,0.000,0.000
1641079932261905920,2022-01-01-23:32:12,10.1.1.2,131,-0.220,-0.220,-0.220,0.000,0.000,0.000
1641079932458658048,2022-01-01-23:32:12,10.1.1.2,128,-0.230,-0.230,-0.230,0.000,0.000,0.000
1641079932659714048,2022-01-01-23:32:12,10.1.1.2,127,-0.240,-0.240,-0.240,0.000,0.000,0.000
1641079932879630080,2022-01-01-23:32:12,10.1.1.2,146,-0.250,-0.250,-0.250,0.000,0.000,0.000
1641079933078702080,2022-01-01-23:32:13,10.1.1.2,144,-0.260,-0.260,-0.260,0.000,0.000,0.000
1641079933279341056,2022-01-01-23:32:13,10.1.1.2,141,-0.270,-0.270,-0.270,0.000,0.000,0.000
1641079933477564160,2022-01-01-23:32:13,10.1.1.2,136,-0.280,-0.280,-0.280,0.000,0.000,0.000
1641079933679138816,2022-01-01-23:32:13,10.1.1.2,137,-0.290,-0.290,-0.290,0.000,0.000,0.000
1641079933878516992,2022-01-01-23:32:13,10.1.1.2,135,-0.300,-0.300,-0.300,0.000,0.000,0.000
1641079934077327104,2022-01-01-23:32:14,10.1.1.2,134,-0.310,-0.310,-0.310,0.000,0.000,0.000
1641079934282190080,2022-01-01-23:32:14,10.1.1.2,137,-0.320,-0.320,-0.320,0.000,0.000,0.000
1641079934476672768,2022-01-01-23:32:14,10.1.1.2,130,-0.330,-0.330,-0.330,0.000,0.000,0.000
1641079934678256128,2022-01-01-23:32:14,10.1.1.2,131,-0.340,-0.340,-0.340,0.000,0.000,0.000
1641079934876583168,2022-01-01-23:32:14,10.1.1.2,129,-0.350,-0.350,-0.350,0.000,0.000,0.000
1641079935078892032,2022-01-01-23:32:15,10.1.1.2,126,-0.360,-0.360,-0.360,0.000,0.000,0.000
1641079935277095936,2022-01-01-23:32:15,10.1.1.2,126,-0.370,-0.370,-0.370,0.000,0.000,0.000
1641079935475665920,2022-01-01-23:32:15,10.1.1.2,122,-0.380,-0.380,-0.380,0.000,0.000,0.000
1641079935694816000,2022-01-01-23:32:15,10.1.1.2,141,-0.390,-0.390,-0.390,0.000,0.000,0.000
1641079935894578944,2022-01-01-23:32:15,10.1.1.2,139,-0.400,-0.400,-0.400,0.000,0.000,0.000
1641079936096858112,2022-01-01-23:32:16,10.1.1.2,138,-0.410,-0.410,-0.410,0.000,0.000,0.000
1641079936296852224,2022-01-01-23:32:16,10.1.1.2,137,-0.420,-0.420,-0.420,0.000,0.000,0.000
1641079936495646976,2022-01-01-23:32:16,10.1.1.2,134,-0.430,-0.430,-0.430,0.000,0.000,0.000
1641079936694138880,2022-01-01-23:32:16,10.1.1.2,131,-0.440,-0.440,-0.440,0.000,0.000,0.000
1641079936896344832,2022-01-01-23:32:16,10.1.1.2,134,-0.450,-0.450,-0.450,0.000,0.000,0.000
1641079937093010944,2022-01-01-23:32:17,10.1.1.2,129,-0.460,-0.460,-0.460,0.000,0.000,0.000
1641079937293140992,2022-01-01-23:32:17,10.1.1.2,128,-0.470,-0.470,-0.470,0.000,0.000,0.000
1641079937491868928,2022-01-01-23:32:17,10.1.1.2,125,-0.480,-0.480,-0.480,0.000,0.000,0.000
1641079937692240896,2022-01-01-23:32:17,10.1.1.2,125,-0.490,-0.490,-0.490,0.000,0.000,0.000
1641079937892865792,2022-01-01-23:32:17,10.1.1.2,125,-0.480,-0.480,-0.480,0.000,0.000,0.000
1641079938094368000,2022-01-01-23:32:18,10.1.1.2,126,-0.470,-0.470,-0.470,0.000,0.000,0.000
1641079938292830976,2022-01-01-23:32:18,10.1.1.2,123,-0.460,-0.460,-0.460,0.000,0.000,0.000
1641079938511749888,2022-01-01-23:32:18,10.1.1.2,138,-0.450,-0.450,-0.450,0.000,0.000,0.000
1641079938709975040,2022-01-01-23:32:18,10.1.1.2,135,-0.440,-0.440,-0.440,0.000,0.000,0.000
1641079938912151040,2022-01-01-23:32:18,10.1.1.2,136,-0.430,-0.430,-0.430,0.000,0.000,0.000
1641079939111195136,2022-01-01-23:32:19,10.1.1.2,133,-0.420,-0.420,-0.420,0.000,0.000,0.000
1641079939310196992,2022-01-01-23:32:19,10.1.1.2,132,-0.410,-0.410,-0.410,0.000,0.000,0.000
1641079939508797952,2022-01-01-23:32:19,10.1.1.2,130,-0.400,-0.400,-0.400,0.000,0.000,0.000
1641079939710227968,2022-01-01-23:32:19,10.1.1.2,128,-0.390,-0.390,-0.390,0.000,0.000,0.000
1641079939910029056,2022-01-01-23:32:19,10.1.1.2,126,-0.380,-0.380,-0.380,0.000,0.000,0.000
1641079940108562944,2022-01-01-23:32:20,10.1.1.2,124,-0.370,-0.370,-0.370,0.000,0.000,0.000
1641079940308003072,2022-01-01-23:32:20,10.1.1.2,123,-0.360,-0.360,-0.360,0.000,0.000,0.000
1641079940508326912,2022-01-01-23:32:20,10.1.1.2,122,-0.350,-0.350,-0.350,0.000,0.000,0.000
1641079940708709888,2022-01-01-23:32:20,10.1.1.2,119,-0.340,-0.340,-0.340,0.000,0.000,0.000
1641079940908646144,2022-01-01-23:32:20,10.1.1.2,117,-0.330,-0.330,-0.330,0.000,0.000,0.000
1641079941107238912,2022-01-01-23:32:21,10.1.1.2,114,-0.320,-0.320,-0.320,0.000,0.000,0.000
1641079941325923072,2022-01-01-23:32:21,10.1.1.2,132,-0.310,-0.310,-0.310,0.000,0.000,0.000
1641079941527894016,2022-01-01-23:32:21,10.1.1.2,133,-0.300,-0.300,-0.300,0.000,0.000,0.000
1641079941727354880,2022-01-01-23:32:21,10.1.1.2,131,-0.290,-0.290,-0.290,0.000,0.000,0.000
1641079941927459840,2022-01-01-23:32:21,10.1.1.2,130,-0.280,-0.280,-0.280,0.000,0.000,0.000
1641079942125533184,2022-01-01-23:32:22,10.1.1.2,125,-0.270,-0.270,-0.270,0.000,0.000,0.000
1641079942326350848,2022-01-01-23:32:22,10.1.1.2,125,-0.260,-0.260,-0.260,0.000,0.000,0.000
1641079942527843072,2022-01-01-23:32:22,10.1.1.2,124,-0.250,-0.250,-0.250,0.000,0.000,0.000
1641079942744983808,2022-01-01-23:32:22,10.1.1.2,137,-0.240,-0.240,-0.240,0.000,0.000,0.000
1641079942925828096,2022-01-01-23:32:22,10.1.1.2,118,-0.230,-0.230,-0.230,0.000,0.000,0.000
1641079943126584064,2022-01-01-23:32:23,10.1.1.2,118,-0.220,-0.220,-0.220,0.000,0.000,0.000
1641079943323034112,2022-01-01-23:32:23,10.1.1.2,114,-0.210,-0.210,-0.210,0.000,0.000,0.000
1641079943521987840,2022-01-01-23:32:23,10.1.1.2,112,-0.200,-0.200,-0.200,0.000,0.000,0.000
1641079943723750144,2022-01-01-23:32:23,10.1.1.2,111,-0.190,-0.190,-0.190,0.000,0.000,0.000
1641079943940606976,2022-01-01-23:32:23,10.1.1.2,127,-0.180,-0.180,-0.180,0.000,0.000,0.000
1641079944141586176,2022-01-01-23:32:24,10.1.1.2,126,-0.170,-0.170,-0.170,0.000,0.000,0.000
1641079944341399040,2022-01-01-23:32:24,10.1.1.2,124,-0.160,-0.160,-0.160,0.000,0.000,0.000
1641079944542042112,2022-01-01-23:32:24,10.1.1.2,124,-0.150,-0.150,-0.150,0.000,0.000,0.000
1641079944740817152,2022-01-01-23:32:24,10.1.1.2,122,-0.140,-0.140,-0.140,0.000,0.000,0.000
1641079944939582208,2022-01-01-23:32:24,10.1.1.2,119,-0.130,-0.130,-0.130,0.000,0.000,0.000
1641079945145885952,2022-01-01-23:32:25,10.1.1.2,122,-0.120,-0.120,-0.120,0.000,0.000,0.000
1641079945341223936,2022-01-01-23:32:25,10.1.1.2,117,-0.110,-0.110,-0.110,0.000,0.000,0.000
1641079945542760960,2022-01-01-23:32:25,10.1.1.2,118,-0.100,-0.100,-0.100,0.000,0.000,0.000
1641079945738030080,2022-01-01-23:32:25,10.1.1.2,111,-0.090,-0.090,-0.090,0.000,0.000,0.000
1641079945938919168,2022-01-01-23:32:25,10.1.1.2,110,-0.080,-0.080,-0.080,0.000,0.000,0.000
1641079946159095040,2022-01-01-23:32:26,10.1.1.2,126,-0.070,-0.070,-0.070,0.000,0.000,0.000
1641079946362674944,2022-01-01-23:32:26,10.1.1.2,128,-0.060,-0.060,-0.060,0.000,0.000,0.000
1641079946564017152,2022-01-01-23:32:26,10.1.1.2,127,-0.050,-0.050,-0.050,0.000,0.000,0.000
1641079946762386176,2022-01-01-23:32:26,10.1.1.2,123,-0.040,-0.040,-0.040,0.000,0.000,0.000
1641079946964404224,2022-01-01-23:32:26,10.1.1.2,123,-0.030,-0.030,-0.030,0.000,0.000,0.000
1641079947165446912,2022-01-01-23:32:27,10.1.1.2,123,-0.020,-0.020,-0.020,0.000,0.000,0.000
1641079947365467904,2022-01-01-23:32:27,10.1.1.2,122,-0.010,-0.010,-0.010,0.000,0.000,0.000
1641079947568162048,2022-01-01-23:32:27,10.1.1.2,124,0.000,0.000,0.000,0.000,0.000,0.000
1641079947768201216,2022-01-01-23:32:27,10.1.1.2,123,-0.010,-0.010,-0.010,0.000,0.000,0.000
1641079947967858944,2022-01-01-23:32:27,10.1.1.2,121,-0.020,-0.020,-0.020,0.000,0.000,0.000
1641079948168602112,2022-01-01-23:32:28,10.1.1.2,121,-0.030,-0.030,-0.030,0.000,0.000,0.000
1641079948371855104,2022-01-01-23:32:28,10.1.1.2,119,-0.040,-0.040,-0.040,0.000,0.000,0.000
1641079948572278016,2022-01-01-23:32:28,10.1.1.2,118,-0.050,-0.050,-0.050,0.000,0.000,0.000
1641079948794234112,2022-01-01-23:32:28,10.1.1.2,140,-0.060,-0.060,-0.060,0.000,0.000,0.000
1641079948993545984,2022-01-01-23:32:28,10.1.1.2,138,-0.070,-0.070,-0.070,0.000,0.000,0.000
1641079949195945984,2022-01-01-23:32:29,10.1.1.2,140,-0.080,-0.080,-0.080,0.000,0.000,0.000
1641079949397831936,2022-01-01-23:32:29,10.1.1.2,141,-0.090,-0.090,-0.090,0.000,0.000,0.000
1641079949599169024,2022-01-01-23:32:29,10.1.1.2,141,-0.100,-0.100,-0.100,0.000,0.000,0.000
1641079949795234816,2022-01-01-23:32:29,10.1.1.2,137,-0.110,-0.110,-0.110,0.000,0.000,0.000
1641079949997849856,2022-01-01-23:32:29,10.1.1.2,138,-0.120,-0.120,-0.120,0.000,0.000,0.000
1641079950198763008,2022-01-01-23:32:30,10.1.1.2,138,-0.130,-0.130,-0.130,0.000,0.000,0.000
1641079950400451840,2022-01-01-23:32:30,10.1.1.2,137,-0.140,-0.140,-0.140,0.000,0.000,0.000
1641079950599805952,2022-01-01-23:32:30,10.1.1.2,136,-0.150,-0.150,-0.150,0.000,0.000,0.000
1641079950799827968,2022-01-01-23:32:30,10.1.1.2,135,-0.160,-0.160,-0.160,0.000,0.000,0.000
1641079951001281024,2022-01-01-23:32:31,10.1.1.2,135,-0.170,-0.170,-0.170,0.000,0.000,0.000
1641079951201915904,2022-01-01-23:32:31,10.1.1.2,135,-0.180,-0.180,-0.180,0.000,0.000,0.000
1641079951401600000,2022-01-01-23:32:31,10.1.1.2,133,-0.190,-0.190,-0.190,0.000,0.000,0.000
1641079951601871872,2022-01-01-23:32:31,10.1.1.2,133,-0.200,-0.200,-0.200,0.000,0.000,0.000
1641079951802618112,2022-01-01-23:32:31,10.1.1.2,133,-0.210,-0.210,-0.210,0.000,0.000,0.000
1641079952003145984,2022-01-01-23:32:32,10.1.1.2,133,-0.220,-0.220,-0.220,0.000,0.000,0.000
1641079952203692800,2022-01-01-23:32:32,10.1.1.2,133,-0.230,-0.230,-0.230,0.000,0.000,0.000
1641079952404221952,2022-01-01-23:32:32,10.1.1.2,132,-0.240,-0.240,-0.240,0.000,0.000,0.000
1641079952605369088,2022-01-01-23:32:32,10.1.1.2,133,-0.250,-0.250,-0.250,0.000,0.000,0.000
1641079952826516992,2022-01-01-23:32:32,10.1.1.2,153,-0.260,-0.260,-0.260,0.000,0.000,0.000
1641079953026274816,2022-01-01-23:32:33,10.1.1.2,152,-0.270,-0.270,-0.270,0.000,0.000,0.000
1641079953225580032,2022-01-01-23:32:33,10.1.1.2,150,-0.280,-0.280,-0.280,0.000,0.000,0.000
1641079953427467008,2022-01-01-23:32:33,10.1.1.2,151,-0.290,-0.290,-0.290,0.000,0.000,0.000
1641079953629313024,2022-01-01-23:32:33,10.1.1.2,152,-0.300,-0.300,-0.300,0.000,0.000,0.000
1641079953829561856,2022-01-01-23:32:33,10.1.1.2,149,-0.310,-0.310,-0.310,0.000,0.000,0.000
1641079954030216960,2022-01-01-23:32:34,10.1.1.2,148,-0.320,-0.320,-0.320,0.000,0.000,0.000
1641079954230241024,2022-01-01-23:32:34,10.1.1.2,149,-0.330,-0.330,-0.330,0.000,0.000,0.000
1641079954430977024,2022-01-01-23:32:34,10.1.1.2,147,-0.340,-0.340,-0.340,0.000,0.000,0.000
1641079954629687040,2022-01-01-23:32:34,10.1.1.2,145,-0.350,-0.350,-0.350,0.000,0.000,0.000
1641079954831336960,2022-01-01-23:32:34,10.1.1.2,145,-0.360,-0.360,-0.360,0.000,0.000,0.000
1641079955031635968,2022-01-01-23:32:35,10.1.1.2,145,-0.370,-0.370,-0.370,0.000,0.000,0.000
1641079955232034048,2022-01-01-23:32:35,10.1.1.2,145,-0.380,-0.380,-0.380,0.000,0.000,0.000
1641079955431794944,2022-01-01-23:32:35,10.1.1.2,141,-0.390,-0.390,-0.390,0.000,0.000,0.000
1641079955653150976,2022-01-01-23:32:35,10.1.1.2,158,-0.400,-0.400,-0.400,0.000,0.000,0.000
1641079955852133888,2022-01-01-23:32:35,10.1.1.2,158,-0.410,-0.410,-0.410,0.000,0.000,0.000
1641079956053777920,2022-01-01-23:32:36,10.1.1.2,158,-0.420,-0.420,-0.420,0.000,0.000,0.000
1641079956252827904,2022-01-01-23:32:36,10.1.1.2,156,-0.430,-0.430,-0.430,0.000,0.000,0.000
1641079956454704896,2022-01-01-23:32:36,10.1.1.2,156,-0.440,-0.440,-0.440,0.000,0.000,0.000
1641079956653649920,2022-01-01-23:32:36,10.1.1.2,154,-0.450,-0.450,-0.450,0.000,0.000,0.000
1641079956853916928,2022-01-01-23:32:36,10.1.1.2,153,-0.460,-0.460,-0.460,0.000,0.000,0.000
1641079957055479040,2022-01-01-23:32:37,10.1.1.2,153,-0.470,-0.470,-0.470,0.000,0.000,0.000
1641079957255314944,2022-01-01-23:32:37,10.1.1.2,150,-0.480,-0.480,-0.480,0.000,0.000,0.000
1641079957455173888,2022-01-01-23:32:37,10.1.1.2,149,-0.490,-0.490,-0.490,0.000,0.000,0.000
1641079957655561984,2022-01-01-23:32:37,10.1.1.2,146,-0.480,-0.480,-0.480,0.000,0.000,0.000
1641079957855004160,2022-01-01-23:32:37,10.1.1.2,145,-0.470,-0.470,-0.470,0.000,0.000,0.000
1641079958055446016,2022-01-01-23:32:38,10.1.1.2,144,-0.460,-0.460,-0.460,0.000,0.000,0.000
1641079958255538944,2022-01-01-23:32:38,10.1.1.2,143,-0.450,-0.450,-0.450,0.000,0.000,0.000
1641079958456280832,2022-01-01-23:32:38,10.1.1.2,143,-0.440,-0.440,-0.440,0.000,0.000,0.000
1641079958676312064,2022-01-01-23:32:38,10.1.1.2,162,-0.430,-0.430,-0.430,0.000,0.000,0.000
1641079958877595904,2022-01-01-23:32:38,10.1.1.2,159,-0.420,-0.420,-0.420,0.000,0.000,0.000
1641079959079372800,2022-01-01-23:32:39,10.1.1.2,160,-0.410,-0.410,-0.410,0.000,0.000,0.000
1641079959278798080,2022-01-01-23:32:39,10.1.1.2,158,-0.400,-0.400,-0.400,0.000,0.000,0.000
1641079959478835968,2022-01-01-23:32:39,10.1.1.2,156,-0.390,-0.390,-0.390,0.000,0.000,0.000
1641079959680121856,2022-01-01-23:32:39,10.1.1.2,157,-0.380,-0.380,-0.380,0.000,0.000,0.000
1641079959878625024,2022-01-01-23:32:39,10.1.1.2,154,-0.370,-0.370,-0.370,0.000,0.000,0.000
1641079960080125184,2022-01-01-23:32:40,10.1.1.2,155,-0.360,-0.360,-0.360,0.000,0.000,0.000
1641079960280704000,2022-01-01-23:32:40,10.1.1.2,155,-0.350,-0.350,-0.350,0.000,0.000,0.000
1641079960481973760,2022-01-01-23:32:40,10.1.1.2,155,-0.340,-0.340,-0.340,0.000,0.000,0.000
1641079960679540992,2022-01-01-23:32:40,10.1.1.2,152,-0.330,-0.330,-0.330,0.000,0.000,0.000
1641079960879756032,2022-01-01-23:32:40,10.1.1.2,151,-0.320,-0.320,-0.320,0.000,0.000,0.000
1641079961080208896,2022-01-01-23:32:41,10.1.1.2,150,-0.310,-0.310,-0.310,0.000,0.000,0.000
1641079961279742976,2022-01-01-23:32:41,10.1.1.2,149,-0.300,-0.300,-0.300,0.000,0.000,0.000
1641079961482542080,2022-01-01-23:32:41,10.1.1.2,150,-0.290,-0.290,-0.290,0.000,0.000,0.000
1641079961700354048,2022-01-01-23:32:41,10.1.1.2,166,-0.280,-0.280,-0.280,0.000,0.000,0.000
1641079961901299968,2022-01-01-23:32:41,10.1.1.2,158,-0.270,-0.270,-0.270,0.000,0.000,0.000
1641079962101155072,2022-01-01-23:32:42,10.1.1.2,157,-0.260,-0.260,-0.260,0.000,0.000,0.000
1641079962301878016,2022-01-01-23:32:42,10.1.1.2,156,-0.250,-0.250,-0.250,0.000,0.000,0.000
1641079962499772160,2022-01-01-23:32:42,10.1.1.2,154,-0.240,-0.240,-0.240,0.000,0.000,0.000
1641079962701936896,2022-01-01-23:32:42,10.1.1.2,155,-0.230,-0.230,-0.230,0.000,0.000,0.000
1641079962902124032,2022-01-01-23:32:42,10.1.1.2,154,-0.220,-0.220,-0.220,0.000,0.000,0.000
1641079963101000192,2022-01-01-23:32:43,10.1.1.2,152,-0.210,-0.210,-0.210,0.000,0.000,0.000
1641079963302845952,2022-01-01-23:32:43,10.1.1.2,152,-0.200,-0.200,-0.200,0.000,0.000,0.000
1641079963502023936,2022-01-01-23:32:43,10.1.1.2,148,-0.190,-0.190,-0.190,0.000,0.000,0.000
1641079963724999936,2022-01-01-23:32:43,10.1.1.2,169,-0.180,-0.180,-0.180,0.000,0.000,0.000
1641079963924474112,2022-01-01-23:32:43,10.1.1.2,168,-0.170,-0.170,-0.170,0.000,0.000,0.000
1641079964123668992,2022-01-01-23:32:44,10.1.1.2,166,-0.160,-0.160,-0.160,0.000,0.000,0.000
1641079964325156864,2022-01-01-23:32:44,10.1.1.2,164,-0.150,-0.150,-0.150,0.000,0.000,0.000
1641079964522855168,2022-01-01-23:32:44,10.1.1.2,159,-0.140,-0.140,-0.140,0.000,0.000,0.000
1641079964721990144,2022-01-01-23:32:44,10.1.1.2,157,-0.130,-0.130,-0.130,0.000,0.000,0.000
1641079964925424128,2022-01-01-23:32:44,10.1.1.2,159,-0.120,-0.120,-0.120,0.000,0.000,0.000
1641079965122159104,2022-01-01-23:32:45,10.1.1.2,154,-0.110,-0.110,-0.110,0.000,0.000,0.000
1641079965321325056,2022-01-01-23:32:45,10.1.1.2,151,-0.100,-0.100,-0.100,0.000,0.000,0.000
1641079965520909056,2022-01-01-23:32:45,10.1.1.2,150,-0.090,-0.090,-0.090,0.000,0.000,0.000
1641079965721838080,2022-01-01-23:32:45,10.1.1.2,150,-0.080,-0.080,-0.080,0.000,0.000,0.000
1641079965924905984,2022-01-01-23:32:45,10.1.1.2,152,-0.070,-0.070,-0.070,0.000,0.000,0.000
1641079966123995904,2022-01-01-23:32:46,10.1.1.2,151,-0.060,-0.060,-0.060,0.000,0.000,0.000
1641079966341478144,2022-01-01-23:32:46,10.1.1.2,167,-0.050,-0.050,-0.050,0.000,0.000,0.000
1641079966542682880,2022-01-01-23:32:46,10.1.1.2,166,-0.040,-0.040,-0.040,0.000,0.000,0.000
1641079966742636800,2022-01-01-23:32:46,10.1.1.2,165,-0.030,-0.030,-0.030,0.000,0.000,0.000
1641079966943881984,2022-01-01-23:32:46,10.1.1.2,165,-0.020,-0.020,-0.020,0.000,0.000,0.000
1641079967142377984,2022-01-01-23:32:47,10.1.1.2,164,-0.010,-0.010,-0.010,0.000,0.000,0.000
1641079967341593088,2022-01-01-23:32:47,10.1.1.2,163,0.000,0.000,0.000,0.000,0.000,0.000
1641079967546029056,2022-01-01-23:32:47,10.1.1.2,166,-0.010,-0.010,-0.010,0.000,0.000,0.000
1641079967745410048,2022-01-01-23:32:47,10.1.1.2,160,-0.020,-0.020,-0.020,0.000,0.000,0.000
1641079967941957888,2022-01-01-23:32:47,10.1.1.2,154,-0.030,-0.030,-0.030,0.000,0.000,0.000
1641079968144633088,2022-01-01-23:32:48,10.1.1.2,156,-0.040,-0.040,-0.040,0.000,0.000,0.000
1641079968343131136,2022-01-01-23:32:48,10.1.1.2,154,-0.050,-0.050,-0.050,0.000,0.000,0.000
1641079968543260928,2022-01-01-23:32:48,10.1.1.2,151,-0.060,-0.060,-0.060,0.000,0.000,0.000
1641079968742369792,2022-01-01-23:32:48,10.1.1.2,151,-0.070,-0.070,-0.070,0.000,0.000,0.000
1641079968944179968,2022-01-01-23:32:48,10.1.1.2,152,-0.080,-0.080,-0.080,0.000,0.000,0.000
1641079969141145856,2022-01-01-23:32:49,10.1.1.2,148,-0.090,-0.090,-0.090,0.000,0.000,0.000
1641079969343674880,2022-01-01-23:32:49,10.1.1.2,150,-0.100,-0.100,-0.100,0.000,0.000,0.000
1641079969562885888,2022-01-01-23:32:49,10.1.1.2,166,-0.110,-0.110,-0.110,0.000,0.000,0.000
1641079969764781824,2022-01-01-23:32:49,10.1.1.2,166,-0.120,-0.120,-0.120,0.000,0.000,0.000
1641079969966525184,2022-01-01-23:32:49,10.1.1.2,167,-0.130,-0.130,-0.130,0.000,0.000,0.000
1641079970165990144,2022-01-01-23:32:50,10.1.1.2,163,-0.140,-0.140,-0.140,0.000,0.000,0.000
1641079970361476864,2022-01-01-23:32:50,10.1.1.2,158,-0.150,-0.150,-0.150,0.000,0.000,0.000
1641079970564430848,2022-01-01-23:32:50,10.1.1.2,160,-0.160,-0.160,-0.160,0.000,0.000,0.000
1641079970762823936,2022-01-01-23:32:50,10.1.1.2,157,-0.170,-0.170,-0.170,0.000,0.000,0.000
1641079970961235968,2022-01-01-23:32:50,10.1.1.2,155,-0.180,-0.180,-0.180,0.000,0.000,0.000
1641079971163439104,2022-01-01-23:32:51,10.1.1.2,156,-0.190,-0.190,-0.190,0.000,0.000,0.000
1641079971363360000,2022-01-01-23:32:51,10.1.1.2,155,-0.200,-0.200,-0.200,0.000,0.000,0.000
1641079971562319104,2022-01-01-23:32:51,10.1.1.2,154,-0.210,-0.210,-0.210,0.000,0.000,0.000
1641079971763122944,2022-01-01-23:32:51,10.1.1.2,153,-0.220,-0.220,-0.220,0.000,0.000,0.000
1641079971960880128,2022-01-01-23:32:51,10.1.1.2,151,-0.230,-0.230,-0.230,0.000,0.000,0.000
1641079972163214080,2022-01-01-23:32:52,10.1.1.2,152,-0.240,-0.240,-0.240,0.000,0.000,0.000
1641079972361999872,2022-01-01-23:32:52,10.1.1.2,149,-0.250,-0.250,-0.250,0.000,0.000,0.000
1641079972562424064,2022-01-01-23:32:52,10.1.1.2,149,-0.260,-0.260,-0.260,0.000,0.000,0.000
1641079972787156992,2022-01-01-23:32:52,10.1.1.2,172,-0.270,-0.270,-0.270,0.000,0.000,0.000
1641079972982393856,2022-01-01-23:32:52,10.1.1.2,165,-0.280,-0.280,-0.280,0.000,0.000,0.000
1641079973183367936,2022-01-01-23:32:53,10.1.1.2,166,-0.290,-0.290,-0.290,0.000,0.000,0.000
1641079973380893952,2022-01-01-23:32:53,10.1.1.2,161,-0.300,-0.300,-0.300,0.000,0.000,0.000
1641079973581753088,2022-01-01-23:32:53,10.1.1.2,160,-0.310,-0.310,-0.310,0.000,0.000,0.000
1641079973780721920,2022-01-01-23:32:53,10.1.1.2,158,-0.320,-0.320,-0.320,0.000,0.000,0.000
1641079973980071936,2022-01-01-23:32:53,10.1.1.2,155,-0.330,-0.330,-0.330,0.000,0.000,0.000
1641079974180224000,2022-01-01-23:32:54,10.1.1.2,153,-0.340,-0.340,-0.340,0.000,0.000,0.000
1641079974380230912,2022-01-01-23:32:54,10.1.1.2,151,-0.350,-0.350,-0.350,0.000,0.000,0.000
1641079974582496000,2022-01-01-23:32:54,10.1.1.2,153,-0.360,-0.360,-0.360,0.000,0.000,0.000
1641079974781132032,2022-01-01-23:32:54,10.1.1.2,151,-0.370,-0.370,-0.370,0.000,0.000,0.000
1641079974979564032,2022-01-01-23:32:54,10.1.1.2,148,-0.380,-0.380,-0.380,0.000,0.000,0.000
1641079975180322816,2022-01-01-23:32:55,10.1.1.2,147,-0.390,-0.390,-0.390,0.000,0.000,0.000
1641079975399582976,2022-01-01-23:32:55,10.1.1.2,165,-0.400,-0.400,-0.400,0.000,0.000,0.000
1641079975600274944,2022-01-01-23:32:55,10.1.1.2,164,-0.410,-0.410,-0.410,0.000,0.000,0.000
1641079975799487232,2022-01-01-23:32:55,10.1.1.2,163,-0.420,-0.420,-0.420,0.000,0.000,0.000
1641079976000560896,2022-01-01-23:32:56,10.1.1.2,161,-0.430,-0.430,-0.430,0.000,0.000,0.000
1641079976199812864,2022-01-01-23:32:56,10.1.1.2,157,-0.440,-0.440,-0.440,0.000,0.000,0.000
1641079976398612992,2022-01-01-23:32:56,10.1.1.2,155,-0.450,-0.450,-0.450,0.000,0.000,0.000
1641079976599225088,2022-01-01-23:32:56,10.1.1.2,155,-0.460,-0.460,-0.460,0.000,0.000,0.000
1641079976797772800,2022-01-01-23:32:56,10.1.1.2,153,-0.470,-0.470,-0.470,0.000,0.000,0.000
1641079976997904128,2022-01-01-23:32:56,10.1.1.2,152,-0.480,-0.480,-0.480,0.000,0.000,0.000
1641079977198633984,2022-01-01-23:32:57,10.1.1.2,152,-0.490,-0.490,-0.490,0.000,0.000,0.000
1641079977398100992,2022-01-01-23:32:57,10.1.1.2,150,-0.480,-0.480,-0.480,0.000,0.000,0.000
1641079977598323200,2022-01-01-23:32:57,10.1.1.2,150,-0.470,-0.470,-0.470,0.000,0.000,0.000
1641079977798190080,2022-01-01-23:32:57,10.1.1.2,149,-0.460,-0.460,-0.460,0.000,0.000,0.000
1641079977998739968,2022-01-01-23:32:57,10.1.1.2,148,-0.450,-0.450,-0.450,0.000,0.000,0.000
1641079978196743936,2022-01-01-23:32:58,10.1.1.2,144,-0.440,-0.440,-0.440,0.000,0.000,0.000
1641079978397031168,2022-01-01-23:32:58,10.1.1.2,143,-0.430,-0.430,-0.430,0.000,0.000,0.000
1641079978623092992,2022-01-01-23:32:58,10.1.1.2,169,-0.420,-0.420,-0.420,0.000,0.000,0.000
1641079978816957952,2022-01-01-23:32:58,10.1.1.2,161,-0.410,-0.410,-0.410,0.000,0.000,0.000
1641079979019073024,2022-01-01-23:32:59,10.1.1.2,162,-0.400,-0.400,-0.400,0.000,0.000,0.000
1641079979216069888,2022-01-01-23:32:59,10.1.1.2,157,-0.390,-0.390,-0.390,0.000,0.000,0.000
1641079979418910976,2022-01-01-23:32:59,10.1.1.2,158,-0.380,-0.380,-0.380,0.000,0.000,0.000
1641079979617468160,2022-01-01-23:32:59,10.1.1.2,155,-0.370,-0.370,-0.370,0.000,0.000,0.000
1641079979817858816,2022-01-01-23:32:59,10.1.1.2,153,-0.360,-0.360,-0.360,0.000,0.000,0.000
1641079980015842816,2022-01-01-23:33:00,10.1.1.2,150,-0.350,-0.350,-0.350,0.000,0.000,0.000
1641079980215917056,2022-01-01-23:33:00,10.1.1.2,149,-0.340,-0.340,-0.340,0.000,0.000,0.000
1641079980415685888,2022-01-01-23:33:00,10.1.1.2,146,-0.330,-0.330,-0.330,0.000,0.000,0.000
1641079980616687104,2022-01-01-23:33:00,10.1.1.2,146,-0.320,-0.320,-0.320,0.000,0.000,0.000
1641079980815789824,2022-01-01-23:33:00,10.1.1.2,144,-0.310,-0.310,-0.310,0.000,0.000,0.000
1641079981014215936,2022-01-01-23:33:01,10.1.1.2,141,-0.300,-0.300,-0.300,0.000,0.000,0.000
1641079981237307136,2022-01-01-23:33:01,10.1.1.2,161,-0.290,-0.290,-0.290,0.000,0.000,0.000
1641079981436615936,2022-01-01-23:33:01,10.1.1.2,159,-0.280,-0.280,-0.280,0.000,0.000,0.000
1641079981634049792,2022-01-01-23:33:01,10.1.1.2,155,-0.270,-0.270,-0.270,0.000,0.000,0.000
1641079981834027008,2022-01-01-23:33:01,10.1.1.2,155,-0.260,-0.260,-0.260,0.000,0.000,0.000
1641079982033711872,2022-01-01-23:33:02,10.1.1.2,153,-0.250,-0.250,-0.250,0.000,0.000,0.000
1641079982234162944,2022-01-01-23:33:02,10.1.1.2,152,-0.240,-0.240,-0.240,0.000,0.000,0.000
1641079982436968192,2022-01-01-23:33:02,10.1.1.2,154,-0.230,-0.230,-0.230,0.000,0.000,0.000
1641079982633200896,2022-01-01-23:33:02,10.1.1.2,149,-0.220,-0.220,-0.220,0.000,0.000,0.000
1641079982834782976,2022-01-01-23:33:02,10.1.1.2,150,-0.210,-0.210,-0.210,0.000,0.000,0.000
1641079983033491968,2022-01-01-23:33:03,10.1.1.2,146,-0.200,-0.200,-0.200,0.000,0.000,0.000
1641079983232741120,2022-01-01-23:33:03,10.1.1.2,145,-0.190,-0.190,-0.190,0.000,0.000,0.000
1641079983432027136,2022-01-01-23:33:03,10.1.1.2,142,-0.180,-0.180,-0.180,0.000,0.000,0.000
1641079983632849920,2022-01-01-23:33:03,10.1.1.2,142,-0.170,-0.170,-0.170,0.000,0.000,0.000
1641079983831953152,2022-01-01-23:33:03,10.1.1.2,140,-0.160,-0.160,-0.160,0.000,0.000,0.000
1641079984053946880,2022-01-01-23:33:04,10.1.1.2,160,-0.150,-0.150,-0.150,0.000,0.000,0.000
1641079984250777088,2022-01-01-23:33:04,10.1.1.2,156,-0.140,-0.140,-0.140,0.000,0.000,0.000
1641079984451335936,2022-01-01-23:33:04,10.1.1.2,156,-0.130,-0.130,-0.130,0.000,0.000,0.000
1641079984652614144,2022-01-01-23:33:04,10.1.1.2,154,-0.120,-0.120,-0.120,0.000,0.000,0.000
1641079984851492864,2022-01-01-23:33:04,10.1.1.2,154,-0.110,-0.110,-0.110,0.000,0.000,0.000
1641079985051502080,2022-01-01-23:33:05,10.1.1.2,153,-0.100,-0.100,-0.100,0.000,0.000,0.000
1641079985251843072,2022-01-01-23:33:05,10.1.1.2,153,-0.090,-0.090,-0.090,0.000,0.000,0.000
1641079985450737920,2022-01-01-23:33:05,10.1.1.2,151,-0.080,-0.080,-0.080,0.000,0.000,0.000
1641079985651034112,2022-01-01-23:33:05,10.1.1.2,148,-0.070,-0.070,-0.070,0.000,0.000,0.000
1641079985850619904,2022-01-01-23:33:05,10.1.1.2,145,-0.060,-0.060,-0.060,0.000,0.000,0.000
1641079986049179904,2022-01-01-23:33:06,10.1.1.2,142,-0.050,-0.050,-0.050,0.000,0.000,0.000
1641079986251245056,2022-01-01-23:33:06,10.1.1.2,138,-0.040,-0.040,-0.040,0.000,0.000,0.000
1641079986469979904,2022-01-01-23:33:06,10.1.1.2,155,-0.030,-0.030,-0.030,0.000,0.000,0.000
1641079986670761216,2022-01-01-23:33:06,10.1.1.2,154,-0.020,-0.020,-0.020,0.000,0.000,0.000
1641079986870999040,2022-01-01-23:33:06,10.1.1.2,150,-0.010,-0.010,-0.010,0.000,0.000,0.000
1641079987071331072,2022-01-01-23:33:07,10.1.1.2,152,0.000,0.000,0.000,0.000,0.000,0.000
1641079987267416832,2022-01-01-23:33:07,10.1.1.2,147,-0.010,-0.010,-0.010,0.000,0.000,0.000
1641079987468184064,2022-01-01-23:33:07,10.1.1.2,147,-0.020,-0.020,-0.020,0.000,0.000,0.000
1641079987666230016,2022-01-01-23:33:07,10.1.1.2,142,-0.030,-0.030,-0.030,0.000,0.000,0.000
1641079987869540096,2022-01-01-23:33:07,10.1.1.2,144,-0.040,-0.040,-0.040,0.000,0.000,0.000
1641079988066812928,2022-01-01-23:33:08,10.1.1.2,140,-0.050,-0.050,-0.050,0.000,0.000,0.000
1641079988266444032,2022-01-01-23:33:08,10.1.1.2,138,-0.060,-0.060,-0.060,0.000,0.000,0.000
1641079988466048000,2022-01-01-23:33:08,10.1.1.2,137,-0.070,-0.070,-0.070,0.000,0.000,0.000
1641079988667234816,2022-01-01-23:33:08,10.1.1.2,137,-0.080,-0.080,-0.080,0.000,0.000,0.000
1641079988866226944,2022-01-01-23:33:08,10.1.1.2,135,-0.090,-0.090,-0.090,0.000,0.000,0.000
1641079989066577920,2022-01-01-23:33:09,10.1.1.2,134,-0.100,-0.100,-0.100,0.000,0.000,0.000
1641079989267177216,2022-01-01-23:33:09,10.1.1.2,134,-0.110,-0.110,-0.110,0.000,0.000,0.000
1641079989484761856,2022-01-01-23:33:09,10.1.1.2,149,-0.120,-0.120,-0.120,0.000,0.000,0.000
1641079989683779840,2022-01-01-23:33:09,10.1.1.2,147,-0.130,-0.130,-0.130,0.000,0.000,0.000
1641079989884079104,2022-01-01-23:33:09,10.1.1.2,147,-0.140,-0.140,-0.140,0.000,0.000,0.000
1641079990084655104,2022-01-01-23:33:10,10.1.1.2,146,-0.150,-0.150,-0.150,0.000,0.000,0.000
1641079990284517888,2022-01-01-23:33:10,10.1.1.2,145,-0.160,-0.160,-0.160,0.000,0.000,0.000
1641079990484078848,2022-01-01-23:33:10,10.1.1.2,143,-0.170,-0.170,-0.170,0.000,0.000,0.000
1641079990685334016,2022-01-01-23:33:10,10.1.1.2,143,-0.180,-0.180,-0.180,0.000,0.000,0.000
1641079990883001088,2022-01-01-23:33:10,10.1.1.2,140,-0.190,-0.190,-0.190,0.000,0.000,0.000
1641079991082288128,2022-01-01-23:33:11,10.1.1.2,138,-0.200,-0.200,-0.200,0.000,0.000,0.000
1641079991283948032,2022-01-01-23:33:11,10.1.1.2,139,-0.210,-0.210,-0.210,0.000,0.000,0.000
1641079991484258048,2022-01-01-23:33:11,10.1.1.2,138,-0.220,-0.220,-0.220,0.000,0.000,0.000
1641079991681777920,2022-01-01-23:33:11,10.1.1.2,132,-0.230,-0.230,-0.230,0.000,0.000,0.000
1641079991883420928,2022-01-01-23:33:11,10.1.1.2,131,-0.240,-0.240,-0.240,0.000,0.000,0.000
1641079992105367808,2022-01-01-23:33:12,10.1.1.2,152,-0.250,-0.250,-0.250,0.000,0.000,0.000
1641079992302921984,2022-01-01-23:33:12,10.1.1.2,146,-0.260,-0.260,-0.260,0.000,0.000,0.000
1641079992502050048,2022-01-01-23:33:12,10.1.1.2,146,-0.270,-0.270,-0.270,0.000,0.000,0.000
1641079992701762048,2022-01-01-23:33:12,10.1.1.2,145,-0.280,-0.280,-0.280,0.000,0.000,0.000
1641079992899880960,2022-01-01-23:33:12,10.1.1.2,142,-0.290,-0.290,-0.290,0.000,0.000,0.000
1641079993102801152,2022-01-01-23:33:13,10.1.1.2,144,-0.300,-0.300,-0.300,0.000,0.000,0.000
1641079993300264960,2022-01-01-23:33:13,10.1.1.2,140,-0.310,-0.310,-0.310,0.000,0.000,0.000
1641079993498193920,2022-01-01-23:33:13,10.1.1.2,136,-0.320,-0.320,-0.320,0.000,0.000,0.000
1641079993698056960,2022-01-01-23:33:13,10.1.1.2,135,-0.330,-0.330,-0.330,0.000,0.000,0.000
1641079993899687168,2022-01-01-23:33:13,10.1.1.2,135,-0.340,-0.340,-0.340,0.000,0.000,0.000
1641079994098802944,2022-01-01-23:33:14,10.1.1.2,134,-0.350,-0.350,-0.350,0.000,0.000,0.000
1641079994297859072,2022-01-01-23:33:14,10.1.1.2,132,-0.360,-0.360,-0.360,0.000,0.000,0.000
1641079994499255040,2022-01-01-23:33:14,10.1.1.2,133,-0.370,-0.370,-0.370,0.000,0.000,0.000
1641079994698615040,2022-01-01-23:33:14,10.1.1.2,131,-0.380,-0.380,-0.380,0.000,0.000,0.000
1641079994897373952,2022-01-01-23:33:14,10.1.1.2,129,-0.390,-0.390,-0.390,0.000,0.000,0.000
1641079995097049856,2022-01-01-23:33:15,10.1.1.2,127,-0.400,-0.400,-0.400,0.000,0.000,0.000
1641079995295617024,2022-01-01-23:33:15,10.1.1.2,124,-0.410,-0.410,-0.410,0.000,0.000,0.000
1641079995498172928,2022-01-01-23:33:15,10.1.1.2,124,-0.420,-0.420,-0.420,0.000,0.000,0.000
1641079995717020160,2022-01-01-23:33:15,10.1.1.2,144,-0.430,-0.430,-0.430,0.000,0.000,0.000
1641079995921715968,2022-01-01-23:33:15,10.1.1.2,147,-0.440,-0.440,-0.440,0.000,0.000,0.000
1641079996118056960,2022-01-01-23:33:16,10.1.1.2,142,-0.450,-0.450,-0.450,0.000,0.000,0.000
1641079996316557824,2022-01-01-23:33:16,10.1.1.2,140,-0.460,-0.460,-0.460,0.000,0.000,0.000
1641079996515408128,2022-01-01-23:33:16,10.1.1.2,136,-0.470,-0.470,-0.470,0.000,0.000,0.000
1641079996715329792,2022-01-01-23:33:16,10.1.1.2,134,-0.480,-0.480,-0.480,0.000,0.000,0.000
1641079996917697024,2022-01-01-23:33:16,10.1.1.2,136,-0.490,-0.490,-0.490,0.000,0.000,0.000
1641079997115545088,2022-01-01-23:33:17,10.1.1.2,133,-0.480,-0.480,-0.480,0.000,0.000,0.000
1641079997313383936,2022-01-01-23:33:17,10.1.1.2,130,-0.470,-0.470,-0.470,0.000,0.000,0.000
1641079997513449984,2022-01-01-23:33:17,10.1.1.2,129,-0.460,-0.460,-0.460,0.000,0.000,0.000
1641079997713121792,2022-01-01-23:33:17,10.1.1.2,127,-0.450,-0.450,-0.450,0.000,0.000,0.000
1641079997912715008,2022-01-01-23:33:17,10.1.1.2,126,-0.440,-0.440,-0.440,0.000,0.000,0.000
1641079998114126080,2022-01-01-23:33:18,10.1.1.2,125,-0.430,-0.430,-0.430,0.000,0.000,0.000
1641079998312772864,2022-01-01-23:33:18,10.1.1.2,122,-0.420,-0.420,-0.420,0.000,0.000,0.000
1641079998513901824,2022-01-01-23:33:18,10.1.1.2,122,-0.410,-0.410,-0.410,0.000,0.000,0.000
1641079998733860864,2022-01-01-23:33:18,10.1.1.2,137,-0.400,-0.400,-0.400,0.000,0.000,0.000
1641079998931195136,2022-01-01-23:33:18,10.1.1.2,134,-0.390,-0.390,-0.390,0.000,0.000,0.000
1641079999131409920,2022-01-01-23:33:19,10.1.1.2,134,-0.380,-0.380,-0.380,0.000,0.000,0.000
1641079999330193152,2022-01-01-23:33:19,10.1.1.2,131,-0.370,-0.370,-0.370,0.000,0.000,0.000
1641079999531770880,2022-01-01-23:33:19,10.1.1.2,132,-0.360,-0.360,-0.360,0.000,0.000,0.000
1641079999731060992,2022-01-01-23:33:19,10.1.1.2,130,-0.350,-0.350,-0.350,0.000,0.000,0.000
1641079999929975040,2022-01-01-23:33:19,10.1.1.2,127,-0.340,-0.340,-0.340,0.000,0.000,0.000
1641080000131364096,2022-01-01-23:33:20,10.1.1.2,125,-0.330,-0.330,-0.330,0.000,0.000,0.000
1641080000329082112,2022-01-01-23:33:20,10.1.1.2,124,-0.320,-0.320,-0.320,0.000,0.000,0.000
1641080000529673984,2022-01-01-23:33:20,10.1.1.2,123,-0.310,-0.310,-0.310,0.000,0.000,0.000
1641080000729890048,2022-01-01-23:33:20,10.1.1.2,123,-0.300,-0.300,-0.300,0.000,0.000,0.000
1641080000929406976,2022-01-01-23:33:20,10.1.1.2,121,-0.290,-0.290,-0.290,0.000,0.000,0.000
1641080001127974912,2022-01-01-23:33:21,10.1.1.2,118,-0.280,-0.280,-0.280,0.000,0.000,0.000
1641080001327357952,2022-01-01-23:33:21,10.1.1.2,116,-0.270,-0.270,-0.270,0.000,0.000,0.000
1641080001528834048,2022-01-01-23:33:21,10.1.1.2,116,-0.260,-0.260,-0.260,0.000,0.000,0.000
1641080001728321024,2022-01-01-23:33:21,10.1.1.2,115,-0.250,-0.250,-0.250,0.000,0.000,0.000
1641080001928733952,2022-01-01-23:33:21,10.1.1.2,115,-0.240,-0.240,-0.240,0.000,0.000,0.000
1641080002147411968,2022-01-01-23:33:22,10.1.1.2,133,-0.230,-0.230,-0.230,0.000,0.000,0.000
1641080002348928000,2022-01-01-23:33:22,10.1.1.2,133,-0.220,-0.220,-0.220,0.000,0.000,0.000
1641080002546761984,2022-01-01-23:33:22,10.1.1.2,130,-0.210,-0.210,-0.210,0.000,0.000,0.000
1641080002745538048,2022-01-01-23:33:22,10.1.1.2,126,-0.200,-0.200,-0.200,0.000,0.000,0.000
1641080002945202944,2022-01-01-23:33:22,10.1.1.2,124,-0.190,-0.190,-0.190,0.000,0.000,0.000
1641080003145746944,2022-01-01-23:33:23,10.1.1.2,123,-0.180,-0.180,-0.180,0.000,0.000,0.000
1641080003344155136,2022-01-01-23:33:23,10.1.1.2,119,-0.170,-0.170,-0.170,0.000,0.000,0.000
1641080003545826048,2022-01-01-23:33:23,10.1.1.2,119,-0.160,-0.160,-0.160,0.000,0.000,0.000
1641080003743828992,2022-01-01-23:33:23,10.1.1.2,117,-0.150,-0.150,-0.150,0.000,0.000,0.000
1641080003944122112,2022-01-01-23:33:23,10.1.1.2,115,-0.140,-0.140,-0.140,0.000,0.000,0.000
1641080004142839040,2022-01-01-23:33:24,10.1.1.2,114,-0.130,-0.130,-0.130,0.000,0.000,0.000
1641080004343310080,2022-01-01-23:33:24,10.1.1.2,113,-0.120,-0.120,-0.120,0.000,0.000,0.000
1641080004543024896,2022-01-01-23:33:24,10.1.1.2,111,-0.110,-0.110,-0.110,0.000,0.000,0.000
1641080004743364096,2022-01-01-23:33:24,10.1.1.2,111,-0.100,-0.100,-0.100,0.000,0.000,0.000
1641080004963387136,2022-01-01-23:33:24,10.1.1.2,130,-0.090,-0.090,-0.090,0.000,0.000,0.000
1641080005162610944,2022-01-01-23:33:25,10.1.1.2,128,-0.080,-0.080,-0.080,0.000,0.000,0.000
1641080005362673152,2022-01-01-23:33:25,10.1.1.2,128,-0.070,-0.070,-0.070,0.000,0.000,0.000
1641080005560468992,2022-01-01-23:33:25,10.1.1.2,124,-0.060,-0.060,-0.060,0.000,0.000,0.000
1641080005762418944,2022-01-01-23:33:25,10.1.1.2,125,-0.050,-0.050,-0.050,0.000,0.000,0.000
1641080005960156928,2022-01-01-23:33:25,10.1.1.2,122,-0.040,-0.040,-0.040,0.000,0.000,0.000
1641080006160867072,2022-01-01-23:33:26,10.1.1.2,119,-0.030,-0.030,-0.030,0.000,0.000,0.000
1641080006361052160,2022-01-01-23:33:26,10.1.1.2,118,-0.020,-0.020,-0.020,0.000,0.000,0.000
1641080006559962880,2022-01-01-23:33:26,10.1.1.2,116,-0.010,-0.010,-0.010,0.000,0.000,0.000
1641080006758440960,2022-01-01-23:33:26,10.1.1.2,114,0.000,0.000,0.000,0.000,0.000,0.000
1641080006960375040,2022-01-01-23:33:26,10.1.1.2,114,-0.010,-0.010,-0.010,0.000,0.000,0.000
1641080007160975104,2022-01-01-23:33:27,10.1.1.2,113,-0.020,-0.020,-0.020,0.000,0.000,0.000
1641080007358298112,2022-01-01-23:33:27,10.1.1.2,111,-0.030,-0.030,-0.030,0.000,0.000,0.000
1641080007557745920,2022-01-01-23:33:27,10.1.1.2,110,-0.040,-0.040,-0.040,0.000,0.000,0.000
1641080007757627136,2022-01-01-23:33:27,10.1.1.2,109,-0.050,-0.050,-0.050,0.000,0.000,0.000
1641080007957798912,2022-01-01-23:33:27,10.1.1.2,107,-0.060,-0.060,-0.060,0.000,0.000,0.000
1641080008158817024,2022-01-01-23:33:28,10.1.1.2,107,-0.070,-0.070,-0.070,0.000,0.000,0.000
1641080008377799936,2022-01-01-23:33:28,10.1.1.2,124,-0.080,-0.080,-0.080,0.000,0.000,0.000
1641080008578667008,2022-01-01-23:33:28,10.1.1.2,124,-0.090,-0.090,-0.090,0.000,0.000,0.000
1641080008775432192,2022-01-01-23:33:28,10.1.1.2,119,-0.100,-0.100,-0.100,0.000,0.000,0.000
1641080008976742144,2022-01-01-23:33:28,10.1.1.2,118,-0.110,-0.110,-0.110,0.000,0.000,0.000
1641080009174600960,2022-01-01-23:33:29,10.1.1.2,116,-0.120,-0.120,-0.120,0.000,0.000,0.000
1641080009374615808,2022-01-01-23:33:29,10.1.1.2,114,-0.130,-0.130,-0.130,0.000,0.000,0.000
1641080009575158016,2022-01-01-23:33:29,10.1.1.2,115,-0.140,-0.140,-0.140,0.000,0.000,0.000
1641080009774245120,2022-01-01-23:33:29,10.1.1.2,111,-0.150,-0.150,-0.150,0.000,0.000,0.000
1641080009974667008,2022-01-01-23:33:29,10.1.1.2,110,-0.160,-0.160,-0.160,0.000,0.000,0.000
1641080010174531840,2022-01-01-23:33:30,10.1.1.2,109,-0.170,-0.170,-0.170,0.000,0.000,0.000
1641080010377211136,2022-01-01-23:33:30,10.1.1.2,110,-0.180,-0.180,-0.180,0.000,0.000,0.000
1641080010578967040,2022-01-01-23:33:30,10.1.1.2,109,-0.190,-0.190,-0.190,0.000,0.000,0.000
1641080010779386112,2022-01-01-23:33:30,10.1.1.2,107,-0.200,-0.200,-0.200,0.000,0.000,0.000
1641080010979248128,2022-01-01-23:33:30,10.1.1.2,107,-0.210,-0.210,-0.210,0.000,0.000,0.000
1641080011202403072,2022-01-01-23:33:31,10.1.1.2,129,-0.220,-0.220,-0.220,0.000,0.000,0.000
1641080011403414016,2022-01-01-23:33:31,10.1.1.2,126,-0.230,-0.230,-0.230,0.000,0.000,0.000
1641080011603319040,2022-01-01-23:33:31,10.1.1.2,127,-0.240,-0.240,-0.240,0.000,0.000,0.000
1641080011802455808,2022-01-01-23:33:31,10.1.1.2,126,-0.250,-0.250,-0.250,0.000,0.000,0.000
1641080012010090240,2022-01-01-23:33:32,10.1.1.2,131,-0.260,-0.260,-0.260,0.000,0.000,0.000
1641080012206430976,2022-01-01-23:33:32,10.1.1.2,127,-0.270,-0.270,-0.270,0.000,0.000,0.000
1641080012406359808,2022-01-01-23:33:32,10.1.1.2,126,-0.280,-0.280,-0.280,0.000,0.000,0.000
1641080012609644032,2022-01-01-23:33:32,10.1.1.2,128,-0.290,-0.290,-0.290,0.000,0.000,0.000
1641080012809899008,2022-01-01-23:33:32,10.1.1.2,125,-0.300,-0.300,-0.300,0.000,0.000,0.000
1641080013010565888,2022-01-01-23:33:33,10.1.1.2,127,-0.310,-0.310,-0.310,0.000,0.000,0.000
1641080013211002112,2022-01-01-23:33:33,10.1.1.2,126,-0.320,-0.320,-0.320,0.000,0.000,0.000
1641080013410265856,2022-01-01-23:33:33,10.1.1.2,125,-0.330,-0.330,-0.330,0.000,0.000,0.000
1641080013611001856,2022-01-01-23:33:33,10.1.1.2,125,-0.340,-0.340,-0.340,0.000,0.000,0.000
1641080013812109056,2022-01-01-23:33:33,10.1.1.2,125,-0.350,-0.350,-0.350,0.000,0.000,0.000
1641080014015252992,2022-01-01-23:33:34,10.1.1.2,127,-0.360,-0.360,-0.360,0.000,0.000,0.000
1641080014214062080,2022-01-01-23:33:34,10.1.1.2,125,-0.370,-0.370,-0.370,0.000,0.000,0.000
1641080014414895104,2022-01-01-23:33:34,10.1.1.2,125,-0.380,-0.380,-0.380,0.000,0.000,0.000
1641080014618546944,2022-01-01-23:33:34,10.1.1.2,127,-0.390,-0.390,-0.390,0.000,0.000,0.000
1641080014816466944,2022-01-01-23:33:34,10.1.1.2,124,-0.400,-0.400,-0.400,0.000,0.000,0.000
1641080015017713152,2022-01-01-23:33:35,10.1.1.2,125,-0.410,-0.410,-0.410,0.000,0.000,0.000
1641080015238135040,2022-01-01-23:33:35,10.1.1.2,145,-0.420,-0.420,-0.420,0.000,0.000,0.000
1641080015438225920,2022-01-01-23:33:35,10.1.1.2,143,-0.430,-0.430,-0.430,0.000,0.000,0.000
1641080015639627008,2022-01-01-23:33:35,10.1.1.2,143,-0.440,-0.440,-0.440,0.000,0.000,0.000
1641080015841649152,2022-01-01-23:33:35,10.1.1.2,143,-0.450,-0.450,-0.450,0.000,0.000,0.000
1641080016040504064,2022-01-01-23:33:36,10.1.1.2,137,-0.460,-0.460,-0.460,0.000,0.000,0.000
1641080016241220096,2022-01-01-23:33:36,10.1.1.2,137,-0.470,-0.470,-0.470,0.000,0.000,0.000
1641080016442487040,2022-01-01-23:33:36,10.1.1.2,135,-0.480,-0.480,-0.480,0.000,0.000,0.000
1641080016643297792,2022-01-01-23:33:36,10.1.1.2,133,-0.490,-0.490,-0.490,0.000,0.000,0.000
1641080016845341952,2022-01-01-23:33:36,10.1.1.2,134,-0.480,-0.480,-0.480,0.000,0.000,0.000
1641080017044684032,2022-01-01-23:33:37,10.1.1.2,132,-0.470,-0.470,-0.470,0.000,0.000,0.000
1641080017244905984,2022-01-01-23:33:37,10.1.1.2,132,-0.460,-0.460,-0.460,0.000,0.000,0.000
1641080017464741888,2022-01-01-23:33:37,10.1.1.2,151,-0.450,-0.450,-0.450,0.000,0.000,0.000
1641080017665505024,2022-01-01-23:33:37,10.1.1.2,151,-0.440,-0.440,-0.440,0.000,0.000,0.000
1641080017865964032,2022-01-01-23:33:37,10.1.1.2,150,-0.430,-0.430,-0.430,0.000,0.000,0.000
1641080018067447808,2022-01-01-23:33:38,10.1.1.2,151,-0.420,-0.420,-0.420,0.000,0.000,0.000
1641080018268462848,2022-01-01-23:33:38,10.1.1.2,150,-0.410,-0.410,-0.410,0.000,0.000,0.000
1641080018467560960,2022-01-01-23:33:38,10.1.1.2,146,-0.400,-0.400,-0.400,0.000,0.000,0.000
1641080018668267008,2022-01-01-23:33:38,10.1.1.2,145,-0.390,-0.390,-0.390,0.000,0.000,0.000
1641080018869724160,2022-01-01-23:33:38,10.1.1.2,145,-0.380,-0.380,-0.380,0.000,0.000,0.000
1641080019070676992,2022-01-01-23:33:39,10.1.1.2,145,-0.370,-0.370,-0.370,0.000,0.000,0.000
1641080019272023040,2022-01-01-23:33:39,10.1.1.2,145,-0.360,-0.360,-0.360,0.000,0.000,0.000
1641080019469535232,2022-01-01-23:33:39,10.1.1.2,141,-0.350,-0.350,-0.350,0.000,0.000,0.000
1641080019672146944,2022-01-01-23:33:39,10.1.1.2,142,-0.340,-0.340,-0.340,0.000,0.000,0.000
1641080019871685888,2022-01-01-23:33:39,10.1.1.2,140,-0.330,-0.330,-0.330,0.000,0.000,0.000
1641080020071557888,2022-01-01-23:33:40,10.1.1.2,138,-0.320,-0.320,-0.320,0.000,0.000,0.000
1641080020292754944,2022-01-01-23:33:40,10.1.1.2,158,-0.310,-0.310,-0.310,0.000,0.000,0.000
1641080020492477952,2022-01-01-23:33:40,10.1.1.2,157,-0.300,-0.300,-0.300,0.000,0.000,0.000
1641080020698793984,2022-01-01-23:33:40,10.1.1.2,162,-0.290,-0.290,-0.290,0.000,0.000,0.000
1641080020895395072,2022-01-01-23:33:40,10.1.1.2,153,-0.280,-0.280,-0.280,0.000,0.000,0.000
1641080021097665024,2022-01-01-23:33:41,10.1.1.2,157,-0.270,-0.270,-0.270,0.000,0.000,0.000
1641080021294338816,2022-01-01-23:33:41,10.1.1.2,152,-0.260,-0.260,-0.260,0.000,0.000,0.000
1641080021496651008,2022-01-01-23:33:41,10.1.1.2,153,-0.250,-0.250,-0.250,0.000,0.000,0.000
1641080021695996160,2022-01-01-23:33:41,10.1.1.2,152,-0.240,-0.240,-0.240,0.000,0.000,0.000
1641080021895604992,2022-01-01-23:33:41,10.1.1.2,150,-0.230,-0.230,-0.230,0.000,0.000,0.000
1641080022095246080,2022-01-01-23:33:42,10.1.1.2,149,-0.220,-0.220,-0.220,0.000,0.000,0.000
1641080022297206016,2022-01-01-23:33:42,10.1.1.2,149,-0.210,-0.210,-0.210,0.000,0.000,0.000
1641080022496238848,2022-01-01-23:33:42,10.1.1.2,146,-0.200,-0.200,-0.200,0.000,0.000,0.000
1641080022696242944,2022-01-01-23:33:42,10.1.1.2,143,-0.190,-0.190,-0.190,0.000,0.000,0.000
1641080022918857984,2022-01-01-23:33:42,10.1.1.2,163,-0.180,-0.180,-0.180,0.000,0.000,0.000
1641080023119478016,2022-01-01-23:33:43,10.1.1.2,160,-0.170,-0.170,-0.170,0.000,0.000,0.000
1641080023317830144,2022-01-01-23:33:43,10.1.1.2,157,-0.160,-0.160,-0.160,0.000,0.000,0.000
1641080023518686976,2022-01-01-23:33:43,10.1.1.2,154,-0.150,-0.150,-0.150,0.000,0.000,0.000
1641080023718621952,2022-01-01-23:33:43,10.1.1.2,154,-0.140,-0.140,-0.140,0.000,0.000,0.000
1641080023918797056,2022-01-01-23:33:43,10.1.1.2,153,-0.130,-0.130,-0.130,0.000,0.000,0.000
1641080024119209984,2022-01-01-23:33:44,10.1.1.2,151,-0.120,-0.120,-0.120,0.000,0.000,0.000
1641080024321127936,2022-01-01-23:33:44,10.1.1.2,152,-0.110,-0.110,-0.110,0.000,0.000,0.000
1641080024520729088,2022-01-01-23:33:44,10.1.1.2,151,-0.100,-0.100,-0.100,0.000,0.000,0.000
1641080024721405952,2022-01-01-23:33:44,10.1.1.2,150,-0.090,-0.090,-0.090,0.000,0.000,0.000
1641080024924748032,2022-01-01-23:33:44,10.1.1.2,152,-0.080,-0.080,-0.080,0.000,0.000,0.000
1641080025140139008,2022-01-01-23:33:45,10.1.1.2,166,-0.070,-0.070,-0.070,0.000,0.000,0.000
1641080025342232832,2022-01-01-23:33:45,10.1.1.2,166,-0.060,-0.060,-0.060,0.000,0.000,0.000
1641080025541608192,2022-01-01-23:33:45,10.1.1.2,164,-0.050,-0.050,-0.050,0.000,0.000,0.000
1641080025742189824,2022-01-01-23:33:45,10.1.1.2,165,-0.040,-0.040,-0.040,0.000,0.000,0.000
1641080025940311808,2022-01-01-23:33:45,10.1.1.2,162,-0.030,-0.030,-0.030,0.000,0.000,0.000
1641080026143768064,2022-01-01-23:33:46,10.1.1.2,163,-0.020,-0.020,-0.020,0.000,0.000,0.000
1641080026342170880,2022-01-01-23:33:46,10.1.1.2,159,-0.010,-0.010,-0.010,0.000,0.000,0.000
1641080026543314944,2022-01-01-23:33:46,10.1.1.2,159,0.000,0.000,0.000,0.000,0.000,0.000
1641080026741449984,2022-01-01-23:33:46,10.1.1.2,155,-0.010,-0.010,-0.010,0.000,0.000,0.000
1641080026942774016,2022-01-01-23:33:46,10.1.1.2,154,-0.020,-0.020,-0.020,0.000,0.000,0.000
1641080027141888000,2022-01-01-23:33:47,10.1.1.2,154,-0.030,-0.030,-0.030,0.000,0.000,0.000
1641080027341750016,2022-01-01-23:33:47,10.1.1.2,152,-0.040,-0.040,-0.040,0.000,0.000,0.000
1641080027542349056,2022-01-01-23:33:47,10.1.1.2,152,-0.050,-0.050,-0.050,0.000,0.000,0.000
1641080027744793856,2022-01-01-23:33:47,10.1.1.2,152,-0.060,-0.060,-0.060,0.000,0.000,0.000
1641080027964831232,2022-01-01-23:33:47,10.1.1.2,168,-0.070,-0.070,-0.070,0.000,0.000,0.000
1641080028163770880,2022-01-01-23:33:48,10.1.1.2,166,-0.080,-0.080,-0.080,0.000,0.000,0.000
1641080028363296000,2022-01-01-23:33:48,10.1.1.2,164,-0.090,-0.090,-0.090,0.000,0.000,0.000
1641080028562824960,2022-01-01-23:33:48,10.1.1.2,160,-0.100,-0.100,-0.100,0.000,0.000,0.000
1641080028763195904,2022-01-01-23:33:48,10.1.1.2,158,-0.110,-0.110,-0.110,0.000,0.000,0.000
1641080028963517952,2022-01-01-23:33:48,10.1.1.2,157,-0.120,-0.120,-0.120,0.000,0.000,0.000
1641080029164253952,2022-01-01-23:33:49,10.1.1.2,156,-0.130,-0.130,-0.130,0.000,0.000,0.000
1641080029363095040,2022-01-01-23:33:49,10.1.1.2,155,-0.140,-0.140,-0.140,0.000,0.000,0.000
1641080029565434880,2022-01-01-23:33:49,10.1.1.2,156,-0.150,-0.150,-0.150,0.000,0.000,0.000
1641080029763772928,2022-01-01-23:33:49,10.1.1.2,154,-0.160,-0.160,-0.160,0.000,0.000,0.000
1641080029962991872,2022-01-01-23:33:49,10.1.1.2,151,-0.170,-0.170,-0.170,0.000,0.000,0.000
1641080030163110144,2022-01-01-23:33:50,10.1.1.2,151,-0.180,-0.180,-0.180,0.000,0.000,0.000
1641080030364728832,2022-01-01-23:33:50,10.1.1.2,151,-0.190,-0.190,-0.190,0.000,0.000,0.000
1641080030586048000,2022-01-01-23:33:50,10.1.1.2,172,-0.200,-0.200,-0.200,0.000,0.000,0.000
1641080030782993152,2022-01-01-23:33:50,10.1.1.2,168,-0.210,-0.210,-0.210,0.000,0.000,0.000
1641080030983890944,2022-01-01-23:33:50,10.1.1.2,168,-0.220,-0.220,-0.220,0.000,0.000,0.000
1641080031185508096,2022-01-01-23:33:51,10.1.1.2,168,-0.230,-0.230,-0.230,0.000,0.000,0.000
1641080031383425024,2022-01-01-23:33:51,10.1.1.2,165,-0.240,-0.240,-0.240,0.000,0.000,0.000
1641080031588227072,2022-01-01-23:33:51,10.1.1.2,169,-0.250,-0.250,-0.250,0.000,0.000,0.000
1641080031784417024,2022-01-01-23:33:51,10.1.1.2,164,-0.260,-0.260,-0.260,0.000,0.000,0.000
1641080031985253120,2022-01-01-23:33:51,10.1.1.2,164,-0.270,-0.270,-0.270,0.000,0.000,0.000
1641080032185326080,2022-01-01-23:33:52,10.1.1.2,163,-0.280,-0.280,-0.280,0.000,0.000,0.000
1641080032384573952,2022-01-01-23:33:52,10.1.1.2,159,-0.290,-0.290,-0.290,0.000,0.000,0.000
1641080032583869952,2022-01-01-23:33:52,10.1.1.2,157,-0.300,-0.300,-0.300,0.000,0.000,0.000
1641080032787293952,2022-01-01-23:33:52,10.1.1.2,159,-0.310,-0.310,-0.310,0.000,0.000,0.000
1641080032983954944,2022-01-01-23:33:52,10.1.1.2,154,-0.320,-0.320,-0.320,0.000,0.000,0.000
1641080033185271040,2022-01-01-23:33:53,10.1.1.2,154,-0.330,-0.330,-0.330,0.000,0.000,0.000
1641080033384221184,2022-01-01-23:33:53,10.1.1.2,152,-0.340,-0.340,-0.340,0.000,0.000,0.000
1641080033585374208,2022-01-01-23:33:53,10.1.1.2,152,-0.350,-0.350,-0.350,0.000,0.000,0.000
1641080033805713920,2022-01-01-23:33:53,10.1.1.2,171,-0.360,-0.360,-0.360,0.000,0.000,0.000
1641080034003773952,2022-01-01-23:33:54,10.1.1.2,167,-0.370,-0.370,-0.370,0.000,0.000,0.000
1641080034204052992,2022-01-01-23:33:54,10.1.1.2,165,-0.380,-0.380,-0.380,0.000,0.000,0.000
1641080034404915968,2022-01-01-23:33:54,10.1.1.2,165,-0.390,-0.390,-0.390,0.000,0.000,0.000
1641080034604301056,2022-01-01-23:33:54,10.1.1.2,163,-0.400,-0.400,-0.400,0.000,0.000,0.000
1641080034804977920,2022-01-01-23:33:54,10.1.1.2,160,-0.410,-0.410,-0.410,0.000,0.000,0.000
1641080035005327104,2022-01-01-23:33:55,10.1.1.2,158,-0.420,-0.420,-0.420,0.000,0.000,0.000
1641080035205539840,2022-01-01-23:33:55,10.1.1.2,157,-0.430,-0.430,-0.430,0.000,0.000,0.000
1641080035404655872,2022-01-01-23:33:55,10.1.1.2,153,-0.440,-0.440,-0.440,0.000,0.000,0.000
1641080035603985920,2022-01-01-23:33:55,10.1.1.2,152,-0.450,-0.450,-0.450,0.000,0.000,0.000
1641080035806343168,2022-01-01-23:33:55,10.1.1.2,154,-0.460,-0.460,-0.460,0.000,0.000,0.000
1641080036005910016,2022-01-01-23:33:56,10.1.1.2,152,-0.470,-0.470,-0.470,0.000,0.000,0.000
1641080036225361152,2022-01-01-23:33:56,10.1.1.2,166,-0.480,-0.480,-0.480,0.000,0.000,0.000
1641080036423008000,2022-01-01-23:33:56,10.1.1.2,162,-0.490,-0.490,-0.490,0.000,0.000,0.000
1641080036623089920,2022-01-01-23:33:56,10.1.1.2,158,-0.480,-0.480,-0.480,0.000,0.000,0.000
1641080036826030080,2022-01-01-23:33:56,10.1.1.2,158,-0.470,-0.470,-0.470,0.000,0.000,0.000
1641080037022502912,2022-01-01-23:33:57,10.1.1.2,154,-0.460,-0.460,-0.460,0.000,0.000,0.000
1641080037223213824,2022-01-01-23:33:57,10.1.1.2,154,-0.450,-0.450,-0.450,0.000,0.000,0.000
1641080037425436928,2022-01-01-23:33:57,10.1.1.2,154,-0.440,-0.440,-0.440,0.000,0.000,0.000
1641080037624079104,2022-01-01-23:33:57,10.1.1.2,151,-0.430,-0.430,-0.430,0.000,0.000,0.000
1641080037842614784,2022-01-01-23:33:57,10.1.1.2,169,-0.420,-0.420,-0.420,0.000,0.000,0.000
1641080038041701120,2022-01-01-23:33:58,10.1.1.2,166,-0.410,-0.410,-0.410,0.000,0.000,0.000
1641080038243040000,2022-01-01-23:33:58,10.1.1.2,166,-0.400,-0.400,-0.400,0.000,0.000,0.000
1641080038444247040,2022-01-01-23:33:58,10.1.1.2,163,-0.390,-0.390,-0.390,0.000,0.000,0.000
1641080038642235904,2022-01-01-23:33:58,10.1.1.2,162,-0.380,-0.380,-0.380,0.000,0.000,0.000
1641080038844474112,2022-01-01-23:33:58,10.1.1.2,162,-0.370,-0.370,-0.370,0.000,0.000,0.000
1641080039043595008,2022-01-01-23:33:59,10.1.1.2,159,-0.360,-0.360,-0.360,0.000,0.000,0.000
1641080039242532096,2022-01-01-23:33:59,10.1.1.2,157,-0.350,-0.350,-0.350,0.000,0.000,0.000
1641080039442196992,2022-01-01-23:33:59,10.1.1.2,156,-0.340,-0.340,-0.340,0.000,0.000,0.000
1641080039642151168,2022-01-01-23:33:59,10.1.1.2,155,-0.330,-0.330,-0.330,0.000,0.000,0.000
1641080039842170112,2022-01-01-23:33:59,10.1.1.2,154,-0.320,-0.320,-0.320,0.000,0.000,0.000
1641080040042877952,2022-01-01-23:34:00,10.1.1.2,152,-0.310,-0.310,-0.310,0.000,0.000,0.000
1641080040242137856,2022-01-01-23:34:00,10.1.1.2,151,-0.300,-0.300,-0.300,0.000,0.000,0.000
1641080040442341120,2022-01-01-23:34:00,10.1.1.2,149,-0.290,-0.290,-0.290,0.000,0.000,0.000
1641080040660557056,2022-01-01-23:34:00,10.1.1.2,166,-0.280,-0.280,-0.280,0.000,0.000,0.000
1641080040862896896,2022-01-01-23:34:00,10.1.1.2,166,-0.270,-0.270,-0.270,0.000,0.000,0.000
1641080041062129920,2022-01-01-23:34:01,10.1.1.2,164,-0.260,-0.260,-0.260,0.000,0.000,0.000
1641080041260924928,2022-01-01-23:34:01,10.1.1.2,162,-0.250,-0.250,-0.250,0.000,0.000,0.000
1641080041464827904,2022-01-01-23:34:01,10.1.1.2,164,-0.240,-0.240,-0.240,0.000,0.000,0.000
1641080041664761088,2022-01-01-23:34:01,10.1.1.2,160,-0.230,-0.230,-0.230,0.000,0.000,0.000
1641080041861459968,2022-01-01-23:34:01,10.1.1.2,156,-0.220,-0.220,-0.220,0.000,0.000,0.000
1641080042064079104,2022-01-01-23:34:02,10.1.1.2,159,-0.210,-0.210,-0.210,0.000,0.000,0.000
1641080042261192192,2022-01-01-23:34:02,10.1.1.2,154,-0.200,-0.200,-0.200,0.000,0.000,0.000
1641080042461394176,2022-01-01-23:34:02,10.1.1.2,154,-0.190,-0.190,-0.190,0.000,0.000,0.000
1641080042658617856,2022-01-01-23:34:02,10.1.1.2,151,-0.180,-0.180,-0.180,0.000,0.000,0.000
1641080042859941120,2022-01-01-23:34:02,10.1.1.2,151,-0.170,-0.170,-0.170,0.000,0.000,0.000
1641080043061356032,2022-01-01-23:34:03,10.1.1.2,151,-0.160,-0.160,-0.160,0.000,0.000,0.000
1641080043258326016,2022-01-01-23:34:03,10.1.1.2,148,-0.150,-0.150,-0.150,0.000,0.000,0.000
1641080043479842048,2022-01-01-23:34:03,10.1.1.2,166,-0.140,-0.140,-0.140,0.000,0.000,0.000
1641080043679577088,2022-01-01-23:34:03,10.1.1.2,165,-0.130,-0.130,-0.130,0.000,0.000,0.000
1641080043878146048,2022-01-01-23:34:03,10.1.1.2,163,-0.120,-0.120,-0.120,0.000,0.000,0.000
1641080044077979136,2022-01-01-23:34:04,10.1.1.2,162,-0.110,-0.110,-0.110,0.000,0.000,0.000
1641080044278812928,2022-01-01-23:34:04,10.1.1.2,162,-0.100,-0.100,-0.100,0.000,0.000,0.000
1641080044480068864,2022-01-01-23:34:04,10.1.1.2,161,-0.090,-0.090,-0.090,0.000,0.000,0.000
1641080044678148096,2022-01-01-23:34:04,10.1.1.2,158,-0.080,-0.080,-0.080,0.000,0.000,0.000
1641080044877361152,2022-01-01-23:34:04,10.1.1.2,156,-0.070,-0.070,-0.070,0.000,0.000,0.000
1641080045079065088,2022-01-01-23:34:05,10.1.1.2,157,-0.060,-0.060,-0.060,0.000,0.000,0.000
1641080045277175808,2022-01-01-23:34:05,10.1.1.2,154,-0.050,-0.050,-0.050,0.000,0.000,0.000
1641080045477353216,2022-01-01-23:34:05,10.1.1.2,153,-0.040,-0.040,-0.040,0.000,0.000,0.000
