FedericoMungari/DigitalTwin_service/02_LTEScenario/Output/Output_script/script_rosapi_2_output_robots6_freq0_5.txt
timestamp,date,node,latency,joint_1,joint_2,joint_3,joint_4,joint_5,joint_6
1641091003900006912,2022-01-02-02:36:43,10.1.1.6,192,-0.010,-0.010,-0.010,0.000,0.000,0.000
1641091004092329984,2022-01-02-02:36:44,10.1.1.6,182,-0.020,-0.020,-0.020,0.000,0.000,0.000
1641091004289902080,2022-01-02-02:36:44,10.1.1.6,173,-0.030,-0.030,-0.030,0.000,0.000,0.000
1641091004498471936,2022-01-02-02:36:44,10.1.1.6,178,-0.040,-0.040,-0.040,0.000,0.000,0.000
1641091004690130944,2022-01-02-02:36:44,10.1.1.6,163,-0.050,-0.050,-0.050,0.000,0.000,0.000
1641091004898808064,2022-01-02-02:36:44,10.1.1.6,165,-0.060,-0.060,-0.060,0.000,0.000,0.000
1641091005118722816,2022-01-02-02:36:45,10.1.1.6,182,-0.070,-0.070,-0.070,0.000,0.000,0.000
1641091005316901888,2022-01-02-02:36:45,10.1.1.6,178,-0.080,-0.080,-0.080,0.000,0.000,0.000
1641091005516817920,2022-01-02-02:36:45,10.1.1.6,177,-0.090,-0.090,-0.090,0.000,0.000,0.000
1641091005716679936,2022-01-02-02:36:45,10.1.1.6,176,-0.100,-0.100,-0.100,0.000,0.000,0.000
1641091005915555840,2022-01-02-02:36:45,10.1.1.6,174,-0.110,-0.110,-0.110,0.000,0.000,0.000
1641091006115641088,2022-01-02-02:36:46,10.1.1.6,173,-0.120,-0.120,-0.120,0.000,0.000,0.000
1641091006308662784,2022-01-02-02:36:46,10.1.1.6,163,-0.130,-0.130,-0.130,0.000,0.000,0.000
1641091006515297792,2022-01-02-02:36:46,10.1.1.6,172,-0.140,-0.140,-0.140,0.000,0.000,0.000
1641091006714135808,2022-01-02-02:36:46,10.1.1.6,170,-0.150,-0.150,-0.150,0.000,0.000,0.000
1641091006915014144,2022-01-02-02:36:46,10.1.1.6,170,-0.160,-0.160,-0.160,0.000,0.000,0.000
1641091007115293952,2022-01-02-02:36:47,10.1.1.6,163,-0.170,-0.170,-0.170,0.000,0.000,0.000
1641091007335493120,2022-01-02-02:36:47,10.1.1.6,182,-0.180,-0.180,-0.180,0.000,0.000,0.000
1641091007534667008,2022-01-02-02:36:47,10.1.1.6,181,-0.190,-0.190,-0.190,0.000,0.000,0.000
1641091007713888000,2022-01-02-02:36:47,10.1.1.6,159,-0.200,-0.200,-0.200,0.000,0.000,0.000
1641091007913545984,2022-01-02-02:36:47,10.1.1.6,157,-0.210,-0.210,-0.210,0.000,0.000,0.000
1641091008113826048,2022-01-02-02:36:48,10.1.1.6,156,-0.220,-0.220,-0.220,0.000,0.000,0.000
1641091008334860032,2022-01-02-02:36:48,10.1.1.6,177,-0.230,-0.230,-0.230,0.000,0.000,0.000
1641091008532499968,2022-01-02-02:36:48,10.1.1.6,173,-0.240,-0.240,-0.240,0.000,0.000,0.000
1641091008722512896,2022-01-02-02:36:48,10.1.1.6,162,-0.250,-0.250,-0.250,0.000,0.000,0.000
1641091008931366912,2022-01-02-02:36:48,10.1.1.6,171,-0.260,-0.260,-0.260,0.000,0.000,0.000
1641091009132214016,2022-01-02-02:36:49,10.1.1.6,171,-0.270,-0.270,-0.270,0.000,0.000,0.000
1641091009330626048,2022-01-02-02:36:49,10.1.1.6,168,-0.280,-0.280,-0.280,0.000,0.000,0.000
1641091009530489088,2022-01-02-02:36:49,10.1.1.6,167,-0.290,-0.290,-0.290,0.000,0.000,0.000
1641091009730423808,2022-01-02-02:36:49,10.1.1.6,166,-0.300,-0.300,-0.300,0.000,0.000,0.000
1641091009932400896,2022-01-02-02:36:49,10.1.1.6,167,-0.310,-0.310,-0.310,0.000,0.000,0.000
1641091010129615104,2022-01-02-02:36:50,10.1.1.6,163,-0.320,-0.320,-0.320,0.000,0.000,0.000
1641091010329474816,2022-01-02-02:36:50,10.1.1.6,163,-0.330,-0.330,-0.330,0.000,0.000,0.000
1641091010529117952,2022-01-02-02:36:50,10.1.1.6,162,-0.340,-0.340,-0.340,0.000,0.000,0.000
1641091010749066240,2022-01-02-02:36:50,10.1.1.6,181,-0.350,-0.350,-0.350,0.000,0.000,0.000
1641091010928508160,2022-01-02-02:36:50,10.1.1.6,160,-0.360,-0.360,-0.360,0.000,0.000,0.000
1641091011128176896,2022-01-02-02:36:51,10.1.1.6,159,-0.370,-0.370,-0.370,0.000,0.000,0.000
1641091011327817984,2022-01-02-02:36:51,10.1.1.6,158,-0.380,-0.380,-0.380,0.000,0.000,0.000
1641091011527819008,2022-01-02-02:36:51,10.1.1.6,157,-0.390,-0.390,-0.390,0.000,0.000,0.000
1641091011727590912,2022-01-02-02:36:51,10.1.1.6,156,-0.400,-0.400,-0.400,0.000,0.000,0.000
1641091011940833024,2022-01-02-02:36:51,10.1.1.6,169,-0.410,-0.410,-0.410,0.000,0.000,0.000
1641091012146328064,2022-01-02-02:36:52,10.1.1.6,174,-0.420,-0.420,-0.420,0.000,0.000,0.000
1641091012326369024,2022-01-02-02:36:52,10.1.1.6,153,-0.430,-0.430,-0.430,0.000,0.000,0.000
1641091012525553920,2022-01-02-02:36:52,10.1.1.6,151,-0.440,-0.440,-0.440,0.000,0.000,0.000
1641091012725698048,2022-01-02-02:36:52,10.1.1.6,151,-0.450,-0.450,-0.450,0.000,0.000,0.000
1641091012926163968,2022-01-02-02:36:52,10.1.1.6,150,-0.460,-0.460,-0.460,0.000,0.000,0.000
1641091013125355008,2022-01-02-02:36:53,10.1.1.6,149,-0.470,-0.470,-0.470,0.000,0.000,0.000
1641091013344378880,2022-01-02-02:36:53,10.1.1.6,166,-0.480,-0.480,-0.480,0.000,0.000,0.000
1641091013545646080,2022-01-02-02:36:53,10.1.1.6,166,-0.490,-0.490,-0.490,0.000,0.000,0.000
1641091013743886080,2022-01-02-02:36:53,10.1.1.6,165,-0.480,-0.480,-0.480,0.000,0.000,0.000
1641091013944587008,2022-01-02-02:36:53,10.1.1.6,164,-0.470,-0.470,-0.470,0.000,0.000,0.000
1641091014143894016,2022-01-02-02:36:54,10.1.1.6,163,-0.460,-0.460,-0.460,0.000,0.000,0.000
1641091014342854912,2022-01-02-02:36:54,10.1.1.6,161,-0.450,-0.450,-0.450,0.000,0.000,0.000
1641091014544122880,2022-01-02-02:36:54,10.1.1.6,161,-0.440,-0.440,-0.440,0.000,0.000,0.000
1641091014733794816,2022-01-02-02:36:54,10.1.1.6,150,-0.430,-0.430,-0.430,0.000,0.000,0.000
1641091014942766848,2022-01-02-02:36:54,10.1.1.6,158,-0.420,-0.420,-0.420,0.000,0.000,0.000
1641091015141482240,2022-01-02-02:36:55,10.1.1.6,156,-0.410,-0.410,-0.410,0.000,0.000,0.000
1641091015335827200,2022-01-02-02:36:55,10.1.1.6,146,-0.400,-0.400,-0.400,0.000,0.000,0.000
1641091015534130176,2022-01-02-02:36:55,10.1.1.6,148,-0.390,-0.390,-0.390,0.000,0.000,0.000
1641091015741545984,2022-01-02-02:36:55,10.1.1.6,154,-0.380,-0.380,-0.380,0.000,0.000,0.000
1641091015941786112,2022-01-02-02:36:55,10.1.1.6,154,-0.370,-0.370,-0.370,0.000,0.000,0.000
1641091016141135104,2022-01-02-02:36:56,10.1.1.6,153,-0.360,-0.360,-0.360,0.000,0.000,0.000
1641091016362251008,2022-01-02-02:36:56,10.1.1.6,173,-0.350,-0.350,-0.350,0.000,0.000,0.000
1641091016543225088,2022-01-02-02:36:56,10.1.1.6,154,-0.340,-0.340,-0.340,0.000,0.000,0.000
1641091016752398080,2022-01-02-02:36:56,10.1.1.6,163,-0.330,-0.330,-0.330,0.000,0.000,0.000
1641091016966758912,2022-01-02-02:36:56,10.1.1.6,176,-0.320,-0.320,-0.320,0.000,0.000,0.000
1641091017164683008,2022-01-02-02:36:57,10.1.1.6,173,-0.310,-0.310,-0.310,0.000,0.000,0.000
1641091017364012032,2022-01-02-02:36:57,10.1.1.6,172,-0.300,-0.300,-0.300,0.000,0.000,0.000
1641091017554075904,2022-01-02-02:36:57,10.1.1.6,160,-0.290,-0.290,-0.290,0.000,0.000,0.000
1641091017749128192,2022-01-02-02:36:57,10.1.1.6,153,-0.280,-0.280,-0.280,0.000,0.000,0.000
1641091017950330880,2022-01-02-02:36:57,10.1.1.6,154,-0.270,-0.270,-0.270,0.000,0.000,0.000
1641091018151293952,2022-01-02-02:36:58,10.1.1.6,154,-0.260,-0.260,-0.260,0.000,0.000,0.000
1641091018361402880,2022-01-02-02:36:58,10.1.1.6,162,-0.250,-0.250,-0.250,0.000,0.000,0.000
1641091018572790016,2022-01-02-02:36:58,10.1.1.6,171,-0.240,-0.240,-0.240,0.000,0.000,0.000
1641091018773057024,2022-01-02-02:36:58,10.1.1.6,170,-0.230,-0.230,-0.230,0.000,0.000,0.000
1641091018963726080,2022-01-02-02:36:58,10.1.1.6,156,-0.220,-0.220,-0.220,0.000,0.000,0.000
1641091019173974016,2022-01-02-02:36:59,10.1.1.6,166,-0.210,-0.210,-0.210,0.000,0.000,0.000
1641091019394953984,2022-01-02-02:36:59,10.1.1.6,185,-0.200,-0.200,-0.200,0.000,0.000,0.000
1641091019585169152,2022-01-02-02:36:59,10.1.1.6,175,-0.190,-0.190,-0.190,0.000,0.000,0.000
1641091019777946112,2022-01-02-02:36:59,10.1.1.6,167,-0.180,-0.180,-0.180,0.000,0.000,0.000
1641091019976933888,2022-01-02-02:36:59,10.1.1.6,165,-0.170,-0.170,-0.170,0.000,0.000,0.000
1641091020198255104,2022-01-02-02:37:00,10.1.1.6,186,-0.160,-0.160,-0.160,0.000,0.000,0.000
1641091020398125824,2022-01-02-02:37:00,10.1.1.6,185,-0.150,-0.150,-0.150,0.000,0.000,0.000
1641091020578505984,2022-01-02-02:37:00,10.1.1.6,165,-0.140,-0.140,-0.140,0.000,0.000,0.000
1641091020798507008,2022-01-02-02:37:00,10.1.1.6,184,-0.130,-0.130,-0.130,0.000,0.000,0.000
1641091020989934848,2022-01-02-02:37:00,10.1.1.6,174,-0.120,-0.120,-0.120,0.000,0.000,0.000
1641091021179173888,2022-01-02-02:37:01,10.1.1.6,163,-0.110,-0.110,-0.110,0.000,0.000,0.000
1641091021380978176,2022-01-02-02:37:01,10.1.1.6,164,-0.100,-0.100,-0.100,0.000,0.000,0.000
1641091021600723968,2022-01-02-02:37:01,10.1.1.6,182,-0.090,-0.090,-0.090,0.000,0.000,0.000
1641091021800199936,2022-01-02-02:37:01,10.1.1.6,180,-0.080,-0.080,-0.080,0.000,0.000,0.000
1641091022000608000,2022-01-02-02:37:02,10.1.1.6,180,-0.070,-0.070,-0.070,0.000,0.000,0.000
1641091022191247104,2022-01-02-02:37:02,10.1.1.6,170,-0.060,-0.060,-0.060,0.000,0.000,0.000
1641091022402013952,2022-01-02-02:37:02,10.1.1.6,180,-0.050,-0.050,-0.050,0.000,0.000,0.000
1641091022594153984,2022-01-02-02:37:02,10.1.1.6,171,-0.040,-0.040,-0.040,0.000,0.000,0.000
1641091022802844160,2022-01-02-02:37:02,10.1.1.6,179,-0.030,-0.030,-0.030,0.000,0.000,0.000
1641091022992324096,2022-01-02-02:37:02,10.1.1.6,168,-0.020,-0.020,-0.020,0.000,0.000,0.000
1641091023203928832,2022-01-02-02:37:03,10.1.1.6,179,-0.010,-0.010,-0.010,0.000,0.000,0.000
1641091023404269056,2022-01-02-02:37:03,10.1.1.6,177,0.000,0.000,0.000,0.000,0.000,0.000
1641091023602937856,2022-01-02-02:37:03,10.1.1.6,176,-0.010,-0.010,-0.010,0.000,0.000,0.000
1641091023816532992,2022-01-02-02:37:03,10.1.1.6,189,-0.020,-0.020,-0.020,0.000,0.000,0.000
1641091024005677056,2022-01-02-02:37:04,10.1.1.6,177,-0.030,-0.030,-0.030,0.000,0.000,0.000
1641091024203661056,2022-01-02-02:37:04,10.1.1.6,173,-0.040,-0.040,-0.040,0.000,0.000,0.000
1641091024424905984,2022-01-02-02:37:04,10.1.1.6,192,-0.050,-0.050,-0.050,0.000,0.000,0.000
1641091024603968000,2022-01-02-02:37:04,10.1.1.6,170,-0.060,-0.060,-0.060,0.000,0.000,0.000
1641091024815758080,2022-01-02-02:37:04,10.1.1.6,180,-0.070,-0.070,-0.070,0.000,0.000,0.000
1641091025024524032,2022-01-02-02:37:05,10.1.1.6,188,-0.080,-0.080,-0.080,0.000,0.000,0.000
1641091025227394048,2022-01-02-02:37:05,10.1.1.6,188,-0.090,-0.090,-0.090,0.000,0.000,0.000
1641091025416454912,2022-01-02-02:37:05,10.1.1.6,176,-0.100,-0.100,-0.100,0.000,0.000,0.000
1641091025615153152,2022-01-02-02:37:05,10.1.1.6,175,-0.110,-0.110,-0.110,0.000,0.000,0.000
1641091025824807936,2022-01-02-02:37:05,10.1.1.6,180,-0.120,-0.120,-0.120,0.000,0.000,0.000
1641091025846488064,2022-01-02-02:37:05,10.1.1.6,-2,-0.120,-0.120,-0.120,0.000,0.000,0.000
1641091026224684032,2022-01-02-02:37:06,10.1.1.6,177,-0.140,-0.140,-0.140,0.000,0.000,0.000
1641091026445633792,2022-01-02-02:37:06,10.1.1.6,198,-0.150,-0.150,-0.150,0.000,0.000,0.000
1641091026625763840,2022-01-02-02:37:06,10.1.1.6,177,-0.160,-0.160,-0.160,0.000,0.000,0.000
1641091026824416000,2022-01-02-02:37:06,10.1.1.6,176,-0.170,-0.170,-0.170,0.000,0.000,0.000
1641091027024976896,2022-01-02-02:37:07,10.1.1.6,175,-0.180,-0.180,-0.180,0.000,0.000,0.000
1641091027224731904,2022-01-02-02:37:07,10.1.1.6,175,-0.190,-0.190,-0.190,0.000,0.000,0.000
1641091027424655872,2022-01-02-02:37:07,10.1.1.6,174,-0.200,-0.200,-0.200,0.000,0.000,0.000
1641091027626539008,2022-01-02-02:37:07,10.1.1.6,175,-0.210,-0.210,-0.210,0.000,0.000,0.000
1641091027824440832,2022-01-02-02:37:07,10.1.1.6,173,-0.220,-0.220,-0.220,0.000,0.000,0.000
1641091028024668928,2022-01-02-02:37:08,10.1.1.6,172,-0.230,-0.230,-0.230,0.000,0.000,0.000
1641091028224792064,2022-01-02-02:37:08,10.1.1.6,171,-0.240,-0.240,-0.240,0.000,0.000,0.000
1641091028435072000,2022-01-02-02:37:08,10.1.1.6,181,-0.250,-0.250,-0.250,0.000,0.000,0.000
1641091028624816896,2022-01-02-02:37:08,10.1.1.6,170,-0.260,-0.260,-0.260,0.000,0.000,0.000
1641091028836448000,2022-01-02-02:37:08,10.1.1.6,181,-0.270,-0.270,-0.270,0.000,0.000,0.000
1641091029024665088,2022-01-02-02:37:09,10.1.1.6,167,-0.280,-0.280,-0.280,0.000,0.000,0.000
1641091029244224000,2022-01-02-02:37:09,10.1.1.6,186,-0.290,-0.290,-0.290,0.000,0.000,0.000
1641091029444029184,2022-01-02-02:37:09,10.1.1.6,185,-0.300,-0.300,-0.300,0.000,0.000,0.000
1641091029644526848,2022-01-02-02:37:09,10.1.1.6,185,-0.310,-0.310,-0.310,0.000,0.000,0.000
1641091029844083968,2022-01-02-02:37:09,10.1.1.6,182,-0.320,-0.320,-0.320,0.000,0.000,0.000
1641091030044060928,2022-01-02-02:37:10,10.1.1.6,181,-0.330,-0.330,-0.330,0.000,0.000,0.000
1641091030243659008,2022-01-02-02:37:10,10.1.1.6,180,-0.340,-0.340,-0.340,0.000,0.000,0.000
1641091030444015872,2022-01-02-02:37:10,10.1.1.6,179,-0.350,-0.350,-0.350,0.000,0.000,0.000
1641091030643240960,2022-01-02-02:37:10,10.1.1.6,177,-0.360,-0.360,-0.360,0.000,0.000,0.000
1641091030834446080,2022-01-02-02:37:10,10.1.1.6,167,-0.370,-0.370,-0.370,0.000,0.000,0.000
1641091031034472960,2022-01-02-02:37:11,10.1.1.6,167,-0.380,-0.380,-0.380,0.000,0.000,0.000
1641091031262590976,2022-01-02-02:37:11,10.1.1.6,194,-0.390,-0.390,-0.390,0.000,0.000,0.000
1641091031442537984,2022-01-02-02:37:11,10.1.1.6,174,-0.400,-0.400,-0.400,0.000,0.000,0.000
1641091031654009088,2022-01-02-02:37:11,10.1.1.6,184,-0.410,-0.410,-0.410,0.000,0.000,0.000
1641091031842420992,2022-01-02-02:37:11,10.1.1.6,172,-0.420,-0.420,-0.420,0.000,0.000,0.000
1641091032042497024,2022-01-02-02:37:12,10.1.1.6,172,-0.430,-0.430,-0.430,0.000,0.000,0.000
1641091032243192064,2022-01-02-02:37:12,10.1.1.6,171,-0.440,-0.440,-0.440,0.000,0.000,0.000
1641091032441838080,2022-01-02-02:37:12,10.1.1.6,170,-0.450,-0.450,-0.450,0.000,0.000,0.000
1641091032641620992,2022-01-02-02:37:12,10.1.1.6,167,-0.460,-0.460,-0.460,0.000,0.000,0.000
1641091032861740032,2022-01-02-02:37:12,10.1.1.6,186,-0.470,-0.470,-0.470,0.000,0.000,0.000
1641091033062295040,2022-01-02-02:37:13,10.1.1.6,186,-0.480,-0.480,-0.480,0.000,0.000,0.000
1641091033241716992,2022-01-02-02:37:13,10.1.1.6,165,-0.490,-0.490,-0.490,0.000,0.000,0.000
1641091033454142208,2022-01-02-02:37:13,10.1.1.6,174,-0.480,-0.480,-0.480,0.000,0.000,0.000
1641091033660384768,2022-01-02-02:37:13,10.1.1.6,182,-0.470,-0.470,-0.470,0.000,0.000,0.000
1641091033854443008,2022-01-02-02:37:13,10.1.1.6,175,-0.460,-0.460,-0.460,0.000,0.000,0.000
1641091034064282880,2022-01-02-02:37:14,10.1.1.6,184,-0.450,-0.450,-0.450,0.000,0.000,0.000
1641091034260334080,2022-01-02-02:37:14,10.1.1.6,179,-0.440,-0.440,-0.440,0.000,0.000,0.000
1641091034461337088,2022-01-02-02:37:14,10.1.1.6,179,-0.430,-0.430,-0.430,0.000,0.000,0.000
1641091034652843008,2022-01-02-02:37:14,10.1.1.6,170,-0.420,-0.420,-0.420,0.000,0.000,0.000
1641091034865697024,2022-01-02-02:37:14,10.1.1.6,182,-0.410,-0.410,-0.410,0.000,0.000,0.000
1641091035050981120,2022-01-02-02:37:15,10.1.1.6,164,-0.400,-0.400,-0.400,0.000,0.000,0.000
1641091035259220992,2022-01-02-02:37:15,10.1.1.6,171,-0.390,-0.390,-0.390,0.000,0.000,0.000
1641091035458914048,2022-01-02-02:37:15,10.1.1.6,167,-0.380,-0.380,-0.380,0.000,0.000,0.000
1641091035679137024,2022-01-02-02:37:15,10.1.1.6,183,-0.370,-0.370,-0.370,0.000,0.000,0.000
1641091035878128896,2022-01-02-02:37:15,10.1.1.6,181,-0.360,-0.360,-0.360,0.000,0.000,0.000
1641091036058264064,2022-01-02-02:37:16,10.1.1.6,161,-0.350,-0.350,-0.350,0.000,0.000,0.000
1641091036279937024,2022-01-02-02:37:16,10.1.1.6,182,-0.340,-0.340,-0.340,0.000,0.000,0.000
1641091036470778112,2022-01-02-02:37:16,10.1.1.6,171,-0.330,-0.330,-0.330,0.000,0.000,0.000
1641091036670854144,2022-01-02-02:37:16,10.1.1.6,167,-0.320,-0.320,-0.320,0.000,0.000,0.000
1641091036877357056,2022-01-02-02:37:16,10.1.1.6,172,-0.310,-0.310,-0.310,0.000,0.000,0.000
1641091037076883968,2022-01-02-02:37:17,10.1.1.6,171,-0.300,-0.300,-0.300,0.000,0.000,0.000
1641091037276873984,2022-01-02-02:37:17,10.1.1.6,170,-0.290,-0.290,-0.290,0.000,0.000,0.000
1641091037476249856,2022-01-02-02:37:17,10.1.1.6,166,-0.280,-0.280,-0.280,0.000,0.000,0.000
1641091037676521984,2022-01-02-02:37:17,10.1.1.6,165,-0.270,-0.270,-0.270,0.000,0.000,0.000
1641091037896157952,2022-01-02-02:37:17,10.1.1.6,184,-0.260,-0.260,-0.260,0.000,0.000,0.000
1641091038076360960,2022-01-02-02:37:18,10.1.1.6,163,-0.250,-0.250,-0.250,0.000,0.000,0.000
1641091038276009984,2022-01-02-02:37:18,10.1.1.6,162,-0.240,-0.240,-0.240,0.000,0.000,0.000
1641091038486401024,2022-01-02-02:37:18,10.1.1.6,170,-0.230,-0.230,-0.230,0.000,0.000,0.000
1641091038676173824,2022-01-02-02:37:18,10.1.1.6,160,-0.220,-0.220,-0.220,0.000,0.000,0.000
1641091038886878976,2022-01-02-02:37:18,10.1.1.6,168,-0.210,-0.210,-0.210,0.000,0.000,0.000
1641091039094279168,2022-01-02-02:37:19,10.1.1.6,176,-0.200,-0.200,-0.200,0.000,0.000,0.000
1641091039294552064,2022-01-02-02:37:19,10.1.1.6,175,-0.190,-0.190,-0.190,0.000,0.000,0.000
1641091039494669824,2022-01-02-02:37:19,10.1.1.6,174,-0.180,-0.180,-0.180,0.000,0.000,0.000
1641091039694331904,2022-01-02-02:37:19,10.1.1.6,173,-0.170,-0.170,-0.170,0.000,0.000,0.000
1641091039893838848,2022-01-02-02:37:19,10.1.1.6,172,-0.160,-0.160,-0.160,0.000,0.000,0.000
1641091040092881920,2022-01-02-02:37:20,10.1.1.6,170,-0.150,-0.150,-0.150,0.000,0.000,0.000
1641091040292403968,2022-01-02-02:37:20,10.1.1.6,169,-0.140,-0.140,-0.140,0.000,0.000,0.000
1641091040492985856,2022-01-02-02:37:20,10.1.1.6,168,-0.130,-0.130,-0.130,0.000,0.000,0.000
1641091040686272000,2022-01-02-02:37:20,10.1.1.6,160,-0.120,-0.120,-0.120,0.000,0.000,0.000
1641091040892179968,2022-01-02-02:37:20,10.1.1.6,164,-0.110,-0.110,-0.110,0.000,0.000,0.000
1641091041091417088,2022-01-02-02:37:21,10.1.1.6,162,-0.100,-0.100,-0.100,0.000,0.000,0.000
1641091041311328000,2022-01-02-02:37:21,10.1.1.6,181,-0.090,-0.090,-0.090,0.000,0.000,0.000
1641091041511048192,2022-01-02-02:37:21,10.1.1.6,181,-0.080,-0.080,-0.080,0.000,0.000,0.000
1641091041692281856,2022-01-02-02:37:21,10.1.1.6,161,-0.070,-0.070,-0.070,0.000,0.000,0.000
1641091041901003008,2022-01-02-02:37:21,10.1.1.6,169,-0.060,-0.060,-0.060,0.000,0.000,0.000
1641091042110286080,2022-01-02-02:37:22,10.1.1.6,178,-0.050,-0.050,-0.050,0.000,0.000,0.000
1641091042290981120,2022-01-02-02:37:22,10.1.1.6,158,-0.040,-0.040,-0.040,0.000,0.000,0.000
1641091042489902080,2022-01-02-02:37:22,10.1.1.6,156,-0.030,-0.030,-0.030,0.000,0.000,0.000
1641091042700866048,2022-01-02-02:37:22,10.1.1.6,166,-0.020,-0.020,-0.020,0.000,0.000,0.000
1641091042889550848,2022-01-02-02:37:22,10.1.1.6,153,-0.010,-0.010,-0.010,0.000,0.000,0.000
1641091043089027840,2022-01-02-02:37:23,10.1.1.6,152,-0.000,-0.000,-0.000,0.000,0.000,0.000
1641091043302797056,2022-01-02-02:37:23,10.1.1.6,165,-0.010,-0.010,-0.010,0.000,0.000,0.000
1641091043500993024,2022-01-02-02:37:23,10.1.1.6,160,-0.020,-0.020,-0.020,0.000,0.000,0.000
1641091043698340864,2022-01-02-02:37:23,10.1.1.6,154,-0.030,-0.030,-0.030,0.000,0.000,0.000
1641091043907270912,2022-01-02-02:37:23,10.1.1.6,162,-0.040,-0.040,-0.040,0.000,0.000,0.000
1641091044107188992,2022-01-02-02:37:24,10.1.1.6,160,-0.050,-0.050,-0.050,0.000,0.000,0.000
1641091044307518976,2022-01-02-02:37:24,10.1.1.6,159,-0.060,-0.060,-0.060,0.000,0.000,0.000
1641091044506418944,2022-01-02-02:37:24,10.1.1.6,157,-0.070,-0.070,-0.070,0.000,0.000,0.000
1641091044719968000,2022-01-02-02:37:24,10.1.1.6,167,-0.080,-0.080,-0.080,0.000,0.000,0.000
1641091044925942016,2022-01-02-02:37:24,10.1.1.6,173,-0.090,-0.090,-0.090,0.000,0.000,0.000
1641091045125644800,2022-01-02-02:37:25,10.1.1.6,171,-0.100,-0.100,-0.100,0.000,0.000,0.000
1641091045305705984,2022-01-02-02:37:25,10.1.1.6,151,-0.110,-0.110,-0.110,0.000,0.000,0.000
1641091045519234816,2022-01-02-02:37:25,10.1.1.6,162,-0.120,-0.120,-0.120,0.000,0.000,0.000
1641091045724129792,2022-01-02-02:37:25,10.1.1.6,165,-0.130,-0.130,-0.130,0.000,0.000,0.000
1641091045914803968,2022-01-02-02:37:25,10.1.1.6,155,-0.140,-0.140,-0.140,0.000,0.000,0.000
1641091046122183168,2022-01-02-02:37:26,10.1.1.6,162,-0.150,-0.150,-0.150,0.000,0.000,0.000
1641091046323919104,2022-01-02-02:37:26,10.1.1.6,162,-0.160,-0.160,-0.160,0.000,0.000,0.000
1641091046523174144,2022-01-02-02:37:26,10.1.1.6,161,-0.170,-0.170,-0.170,0.000,0.000,0.000
1641091046714353152,2022-01-02-02:37:26,10.1.1.6,151,-0.180,-0.180,-0.180,0.000,0.000,0.000
1641091046912791040,2022-01-02-02:37:26,10.1.1.6,149,-0.190,-0.190,-0.190,0.000,0.000,0.000
1641091047124962048,2022-01-02-02:37:27,10.1.1.6,160,-0.200,-0.200,-0.200,0.000,0.000,0.000
1641091047315853056,2022-01-02-02:37:27,10.1.1.6,151,-0.210,-0.210,-0.210,0.000,0.000,0.000
1641091047522018048,2022-01-02-02:37:27,10.1.1.6,156,-0.220,-0.220,-0.220,0.000,0.000,0.000
1641091047721748224,2022-01-02-02:37:27,10.1.1.6,155,-0.230,-0.230,-0.230,0.000,0.000,0.000
1641091047921822976,2022-01-02-02:37:27,10.1.1.6,154,-0.240,-0.240,-0.240,0.000,0.000,0.000
1641091048132567040,2022-01-02-02:37:28,10.1.1.6,164,-0.250,-0.250,-0.250,0.000,0.000,0.000
1641091048322796032,2022-01-02-02:37:28,10.1.1.6,153,-0.260,-0.260,-0.260,0.000,0.000,0.000
1641091048536454912,2022-01-02-02:37:28,10.1.1.6,165,-0.270,-0.270,-0.270,0.000,0.000,0.000
1641091048727149056,2022-01-02-02:37:28,10.1.1.6,155,-0.280,-0.280,-0.280,0.000,0.000,0.000
1641091048926439936,2022-01-02-02:37:28,10.1.1.6,154,-0.290,-0.290,-0.290,0.000,0.000,0.000
1641091049129432832,2022-01-02-02:37:29,10.1.1.6,156,-0.300,-0.300,-0.300,0.000,0.000,0.000
1641091049328388096,2022-01-02-02:37:29,10.1.1.6,155,-0.310,-0.310,-0.310,0.000,0.000,0.000
1641091049528215040,2022-01-02-02:37:29,10.1.1.6,154,-0.320,-0.320,-0.320,0.000,0.000,0.000
1641091049729724928,2022-01-02-02:37:29,10.1.1.6,153,-0.330,-0.330,-0.330,0.000,0.000,0.000
1641091049930313216,2022-01-02-02:37:29,10.1.1.6,153,-0.340,-0.340,-0.340,0.000,0.000,0.000
1641091050152195840,2022-01-02-02:37:30,10.1.1.6,174,-0.350,-0.350,-0.350,0.000,0.000,0.000
1641091050352113920,2022-01-02-02:37:30,10.1.1.6,173,-0.360,-0.360,-0.360,0.000,0.000,0.000
1641091050546333952,2022-01-02-02:37:30,10.1.1.6,165,-0.370,-0.370,-0.370,0.000,0.000,0.000
1641091050754157056,2022-01-02-02:37:30,10.1.1.6,174,-0.380,-0.380,-0.380,0.000,0.000,0.000
1641091050946242048,2022-01-02-02:37:30,10.1.1.6,165,-0.390,-0.390,-0.390,0.000,0.000,0.000
1641091051153639168,2022-01-02-02:37:31,10.1.1.6,171,-0.400,-0.400,-0.400,0.000,0.000,0.000
1641091051355866880,2022-01-02-02:37:31,10.1.1.6,173,-0.410,-0.410,-0.410,0.000,0.000,0.000
1641091051546936064,2022-01-02-02:37:31,10.1.1.6,163,-0.420,-0.420,-0.420,0.000,0.000,0.000
1641091051757870848,2022-01-02-02:37:31,10.1.1.6,172,-0.430,-0.430,-0.430,0.000,0.000,0.000
1641091051947763968,2022-01-02-02:37:31,10.1.1.6,161,-0.440,-0.440,-0.440,0.000,0.000,0.000
1641091052155549952,2022-01-02-02:37:32,10.1.1.6,169,-0.450,-0.450,-0.450,0.000,0.000,0.000
1641091052358541056,2022-01-02-02:37:32,10.1.1.6,171,-0.460,-0.460,-0.460,0.000,0.000,0.000
1641091052558379776,2022-01-02-02:37:32,10.1.1.6,171,-0.470,-0.470,-0.470,0.000,0.000,0.000
1641091052759159040,2022-01-02-02:37:32,10.1.1.6,170,-0.480,-0.480,-0.480,0.000,0.000,0.000
1641091052960679936,2022-01-02-02:37:32,10.1.1.6,171,-0.490,-0.490,-0.490,0.000,0.000,0.000
1641091053160041216,2022-01-02-02:37:33,10.1.1.6,169,-0.480,-0.480,-0.480,0.000,0.000,0.000
1641091053360510976,2022-01-02-02:37:33,10.1.1.6,169,-0.470,-0.470,-0.470,0.000,0.000,0.000
1641091053560736000,2022-01-02-02:37:33,10.1.1.6,168,-0.460,-0.460,-0.460,0.000,0.000,0.000
1641091053760708096,2022-01-02-02:37:33,10.1.1.6,166,-0.450,-0.450,-0.450,0.000,0.000,0.000
1641091053962068992,2022-01-02-02:37:33,10.1.1.6,166,-0.440,-0.440,-0.440,0.000,0.000,0.000
1641091054161769984,2022-01-02-02:37:34,10.1.1.6,165,-0.430,-0.430,-0.430,0.000,0.000,0.000
1641091054382811136,2022-01-02-02:37:34,10.1.1.6,185,-0.420,-0.420,-0.420,0.000,0.000,0.000
1641091054585033984,2022-01-02-02:37:34,10.1.1.6,187,-0.410,-0.410,-0.410,0.000,0.000,0.000
1641091054782860032,2022-01-02-02:37:34,10.1.1.6,184,-0.400,-0.400,-0.400,0.000,0.000,0.000
1641091054973982976,2022-01-02-02:37:34,10.1.1.6,174,-0.390,-0.390,-0.390,0.000,0.000,0.000
1641091055183234816,2022-01-02-02:37:35,10.1.1.6,183,-0.380,-0.380,-0.380,0.000,0.000,0.000
1641091055376254208,2022-01-02-02:37:35,10.1.1.6,175,-0.370,-0.370,-0.370,0.000,0.000,0.000
1641091055580038144,2022-01-02-02:37:35,10.1.1.6,177,-0.360,-0.360,-0.360,0.000,0.000,0.000
1641091055783746048,2022-01-02-02:37:35,10.1.1.6,180,-0.350,-0.350,-0.350,0.000,0.000,0.000
1641091055983862016,2022-01-02-02:37:35,10.1.1.6,179,-0.340,-0.340,-0.340,0.000,0.000,0.000
1641091056185142016,2022-01-02-02:37:36,10.1.1.6,180,-0.330,-0.330,-0.330,0.000,0.000,0.000
1641091056385016832,2022-01-02-02:37:36,10.1.1.6,179,-0.320,-0.320,-0.320,0.000,0.000,0.000
1641091056584517888,2022-01-02-02:37:36,10.1.1.6,178,-0.310,-0.310,-0.310,0.000,0.000,0.000
1641091056785080832,2022-01-02-02:37:36,10.1.1.6,177,-0.300,-0.300,-0.300,0.000,0.000,0.000
1641091056985740032,2022-01-02-02:37:36,10.1.1.6,176,-0.290,-0.290,-0.290,0.000,0.000,0.000
1641091057204768000,2022-01-02-02:37:37,10.1.1.6,195,-0.280,-0.280,-0.280,0.000,0.000,0.000
1641091057405401088,2022-01-02-02:37:37,10.1.1.6,195,-0.270,-0.270,-0.270,0.000,0.000,0.000
1641091057585643008,2022-01-02-02:37:37,10.1.1.6,174,-0.260,-0.260,-0.260,0.000,0.000,0.000
1641091057785425920,2022-01-02-02:37:37,10.1.1.6,173,-0.250,-0.250,-0.250,0.000,0.000,0.000
1641091058005302016,2022-01-02-02:37:38,10.1.1.6,192,-0.240,-0.240,-0.240,0.000,0.000,0.000
1641091058187118080,2022-01-02-02:37:38,10.1.1.6,174,-0.230,-0.230,-0.230,0.000,0.000,0.000
1641091058405515008,2022-01-02-02:37:38,10.1.1.6,191,-0.220,-0.220,-0.220,0.000,0.000,0.000
1641091058606087936,2022-01-02-02:37:38,10.1.1.6,191,-0.210,-0.210,-0.210,0.000,0.000,0.000
1641091058807787776,2022-01-02-02:37:38,10.1.1.6,192,-0.200,-0.200,-0.200,0.000,0.000,0.000
1641091059006344192,2022-01-02-02:37:39,10.1.1.6,190,-0.190,-0.190,-0.190,0.000,0.000,0.000
1641091059205284096,2022-01-02-02:37:39,10.1.1.6,186,-0.180,-0.180,-0.180,0.000,0.000,0.000
1641091059396145152,2022-01-02-02:37:39,10.1.1.6,175,-0.170,-0.170,-0.170,0.000,0.000,0.000
1641091059606134016,2022-01-02-02:37:39,10.1.1.6,185,-0.160,-0.160,-0.160,0.000,0.000,0.000
1641091059797977856,2022-01-02-02:37:39,10.1.1.6,175,-0.150,-0.150,-0.150,0.000,0.000,0.000
1641091060006242048,2022-01-02-02:37:40,10.1.1.6,182,-0.140,-0.140,-0.140,0.000,0.000,0.000
1641091060205938944,2022-01-02-02:37:40,10.1.1.6,178,-0.130,-0.130,-0.130,0.000,0.000,0.000
1641091060416577024,2022-01-02-02:37:40,10.1.1.6,187,-0.120,-0.120,-0.120,0.000,0.000,0.000
1641091060605956096,2022-01-02-02:37:40,10.1.1.6,176,-0.110,-0.110,-0.110,0.000,0.000,0.000
1641091060805003008,2022-01-02-02:37:40,10.1.1.6,175,-0.100,-0.100,-0.100,0.000,0.000,0.000
1641091061006823936,2022-01-02-02:37:41,10.1.1.6,174,-0.090,-0.090,-0.090,0.000,0.000,0.000
1641091061205793024,2022-01-02-02:37:41,10.1.1.6,172,-0.080,-0.080,-0.080,0.000,0.000,0.000
1641091061405692928,2022-01-02-02:37:41,10.1.1.6,171,-0.070,-0.070,-0.070,0.000,0.000,0.000
1641091061625061888,2022-01-02-02:37:41,10.1.1.6,189,-0.060,-0.060,-0.060,0.000,0.000,0.000
1641091061815084032,2022-01-02-02:37:41,10.1.1.6,174,-0.050,-0.050,-0.050,0.000,0.000,0.000
1641091062024513024,2022-01-02-02:37:42,10.1.1.6,182,-0.040,-0.040,-0.040,0.000,0.000,0.000
1641091062214785024,2022-01-02-02:37:42,10.1.1.6,171,-0.030,-0.030,-0.030,0.000,0.000,0.000
1641091062424729088,2022-01-02-02:37:42,10.1.1.6,180,-0.020,-0.020,-0.020,0.000,0.000,0.000
1641091062613956864,2022-01-02-02:37:42,10.1.1.6,169,-0.010,-0.010,-0.010,0.000,0.000,0.000
1641091062826000896,2022-01-02-02:37:42,10.1.1.6,179,0.000,0.000,0.000,0.000,0.000,0.000
1641091063024249088,2022-01-02-02:37:43,10.1.1.6,176,-0.010,-0.010,-0.010,0.000,0.000,0.000
1641091063243932928,2022-01-02-02:37:43,10.1.1.6,195,-0.020,-0.020,-0.020,0.000,0.000,0.000
1641091063444711936,2022-01-02-02:37:43,10.1.1.6,195,-0.030,-0.030,-0.030,0.000,0.000,0.000
1641091063624119040,2022-01-02-02:37:43,10.1.1.6,174,-0.040,-0.040,-0.040,0.000,0.000,0.000
1641091063833750016,2022-01-02-02:37:43,10.1.1.6,175,-0.050,-0.050,-0.050,0.000,0.000,0.000
1641091064045080064,2022-01-02-02:37:44,10.1.1.6,186,-0.060,-0.060,-0.060,0.000,0.000,0.000
1641091064243186944,2022-01-02-02:37:44,10.1.1.6,180,-0.070,-0.070,-0.070,0.000,0.000,0.000
1641091064442508032,2022-01-02-02:37:44,10.1.1.6,179,-0.080,-0.080,-0.080,0.000,0.000,0.000
1641091064642599168,2022-01-02-02:37:44,10.1.1.6,178,-0.090,-0.090,-0.090,0.000,0.000,0.000
1641091064834140928,2022-01-02-02:37:44,10.1.1.6,169,-0.100,-0.100,-0.100,0.000,0.000,0.000
1641091065042692864,2022-01-02-02:37:45,10.1.1.6,176,-0.110,-0.110,-0.110,0.000,0.000,0.000
1641091065242333952,2022-01-02-02:37:45,10.1.1.6,175,-0.120,-0.120,-0.120,0.000,0.000,0.000
1641091065462956032,2022-01-02-02:37:45,10.1.1.6,193,-0.130,-0.130,-0.130,0.000,0.000,0.000
1641091065641598976,2022-01-02-02:37:45,10.1.1.6,170,-0.140,-0.140,-0.140,0.000,0.000,0.000
1641091065842007040,2022-01-02-02:37:45,10.1.1.6,167,-0.150,-0.150,-0.150,0.000,0.000,0.000
1641091066042802176,2022-01-02-02:37:46,10.1.1.6,167,-0.160,-0.160,-0.160,0.000,0.000,0.000
1641091066261812992,2022-01-02-02:37:46,10.1.1.6,186,-0.170,-0.170,-0.170,0.000,0.000,0.000
1641091066441222912,2022-01-02-02:37:46,10.1.1.6,164,-0.180,-0.180,-0.180,0.000,0.000,0.000
1641091066661986048,2022-01-02-02:37:46,10.1.1.6,184,-0.190,-0.190,-0.190,0.000,0.000,0.000
1641091066850608128,2022-01-02-02:37:46,10.1.1.6,172,-0.200,-0.200,-0.200,0.000,0.000,0.000
1641091067060566784,2022-01-02-02:37:47,10.1.1.6,181,-0.210,-0.210,-0.210,0.000,0.000,0.000
1641091067254427904,2022-01-02-02:37:47,10.1.1.6,174,-0.220,-0.220,-0.220,0.000,0.000,0.000
1641091067461425920,2022-01-02-02:37:47,10.1.1.6,179,-0.230,-0.230,-0.230,0.000,0.000,0.000
1641091067653332992,2022-01-02-02:37:47,10.1.1.6,170,-0.240,-0.240,-0.240,0.000,0.000,0.000
1641091067860230912,2022-01-02-02:37:47,10.1.1.6,175,-0.250,-0.250,-0.250,0.000,0.000,0.000
1641091068059302144,2022-01-02-02:37:48,10.1.1.6,174,-0.260,-0.260,-0.260,0.000,0.000,0.000
1641091068258793984,2022-01-02-02:37:48,10.1.1.6,172,-0.270,-0.270,-0.270,0.000,0.000,0.000
1641091068450849024,2022-01-02-02:37:48,10.1.1.6,164,-0.280,-0.280,-0.280,0.000,0.000,0.000
1641091068659271936,2022-01-02-02:37:48,10.1.1.6,172,-0.290,-0.290,-0.290,0.000,0.000,0.000
1641091068871563008,2022-01-02-02:37:48,10.1.1.6,180,-0.300,-0.300,-0.300,0.000,0.000,0.000
1641091069058004992,2022-01-02-02:37:49,10.1.1.6,167,-0.310,-0.310,-0.310,0.000,0.000,0.000
1641091069258167040,2022-01-02-02:37:49,10.1.1.6,166,-0.320,-0.320,-0.320,0.000,0.000,0.000
1641091069459245056,2022-01-02-02:37:49,10.1.1.6,166,-0.330,-0.330,-0.330,0.000,0.000,0.000
1641091069670706944,2022-01-02-02:37:49,10.1.1.6,175,-0.340,-0.340,-0.340,0.000,0.000,0.000
1641091069876585984,2022-01-02-02:37:49,10.1.1.6,182,-0.350,-0.350,-0.350,0.000,0.000,0.000
1641091070067832832,2022-01-02-02:37:50,10.1.1.6,172,-0.360,-0.360,-0.360,0.000,0.000,0.000
1641091070275926016,2022-01-02-02:37:50,10.1.1.6,180,-0.370,-0.370,-0.370,0.000,0.000,0.000
1641091070456168960,2022-01-02-02:37:50,10.1.1.6,159,-0.380,-0.380,-0.380,0.000,0.000,0.000
1641091070675950080,2022-01-02-02:37:50,10.1.1.6,178,-0.390,-0.390,-0.390,0.000,0.000,0.000
1641091070875670016,2022-01-02-02:37:50,10.1.1.6,176,-0.400,-0.400,-0.400,0.000,0.000,0.000
1641091071066065920,2022-01-02-02:37:51,10.1.1.6,166,-0.410,-0.410,-0.410,0.000,0.000,0.000
1641091071266448896,2022-01-02-02:37:51,10.1.1.6,165,-0.420,-0.420,-0.420,0.000,0.000,0.000
1641091071475418112,2022-01-02-02:37:51,10.1.1.6,173,-0.430,-0.430,-0.430,0.000,0.000,0.000
1641091071674868224,2022-01-02-02:37:51,10.1.1.6,172,-0.440,-0.440,-0.440,0.000,0.000,0.000
1641091071874006016,2022-01-02-02:37:51,10.1.1.6,171,-0.450,-0.450,-0.450,0.000,0.000,0.000
1641091072075323136,2022-01-02-02:37:52,10.1.1.6,171,-0.460,-0.460,-0.460,0.000,0.000,0.000
1641091072273916928,2022-01-02-02:37:52,10.1.1.6,170,-0.470,-0.470,-0.470,0.000,0.000,0.000
1641091072473083904,2022-01-02-02:37:52,10.1.1.6,168,-0.480,-0.480,-0.480,0.000,0.000,0.000
1641091072673762048,2022-01-02-02:37:52,10.1.1.6,167,-0.490,-0.490,-0.490,0.000,0.000,0.000
1641091072873042944,2022-01-02-02:37:52,10.1.1.6,166,-0.480,-0.480,-0.480,0.000,0.000,0.000
1641091073082944000,2022-01-02-02:37:53,10.1.1.6,175,-0.470,-0.470,-0.470,0.000,0.000,0.000
1641091073272989952,2022-01-02-02:37:53,10.1.1.6,165,-0.460,-0.460,-0.460,0.000,0.000,0.000
1641091073492217088,2022-01-02-02:37:53,10.1.1.6,183,-0.450,-0.450,-0.450,0.000,0.000,0.000
1641091073682739968,2022-01-02-02:37:53,10.1.1.6,172,-0.440,-0.440,-0.440,0.000,0.000,0.000
1641091073872005888,2022-01-02-02:37:53,10.1.1.6,160,-0.430,-0.430,-0.430,0.000,0.000,0.000
1641091074070703104,2022-01-02-02:37:54,10.1.1.6,158,-0.420,-0.420,-0.420,0.000,0.000,0.000
1641091074280924928,2022-01-02-02:37:54,10.1.1.6,168,-0.410,-0.410,-0.410,0.000,0.000,0.000
1641091074470552832,2022-01-02-02:37:54,10.1.1.6,155,-0.400,-0.400,-0.400,0.000,0.000,0.000
1641091074680604928,2022-01-02-02:37:54,10.1.1.6,164,-0.390,-0.390,-0.390,0.000,0.000,0.000
1641091074889795072,2022-01-02-02:37:54,10.1.1.6,172,-0.380,-0.380,-0.380,0.000,0.000,0.000
1641091075089827072,2022-01-02-02:37:55,10.1.1.6,171,-0.370,-0.370,-0.370,0.000,0.000,0.000
1641091075281286912,2022-01-02-02:37:55,10.1.1.6,162,-0.360,-0.360,-0.360,0.000,0.000,0.000
1641091075480195072,2022-01-02-02:37:55,10.1.1.6,161,-0.350,-0.350,-0.350,0.000,0.000,0.000
1641091075688782848,2022-01-02-02:37:55,10.1.1.6,166,-0.340,-0.340,-0.340,0.000,0.000,0.000
1641091075878510080,2022-01-02-02:37:55,10.1.1.6,155,-0.330,-0.330,-0.330,0.000,0.000,0.000
1641091076078138112,2022-01-02-02:37:56,10.1.1.6,154,-0.320,-0.320,-0.320,0.000,0.000,0.000
1641091076288409088,2022-01-02-02:37:56,10.1.1.6,163,-0.310,-0.310,-0.310,0.000,0.000,0.000
1641091076480012032,2022-01-02-02:37:56,10.1.1.6,152,-0.300,-0.300,-0.300,0.000,0.000,0.000
1641091076681134848,2022-01-02-02:37:56,10.1.1.6,152,-0.290,-0.290,-0.290,0.000,0.000,0.000
1641091076879937792,2022-01-02-02:37:56,10.1.1.6,153,-0.280,-0.280,-0.280,0.000,0.000,0.000
1641091077087457792,2022-01-02-02:37:57,10.1.1.6,159,-0.270,-0.270,-0.270,0.000,0.000,0.000
1641091077287326976,2022-01-02-02:37:57,10.1.1.6,158,-0.260,-0.260,-0.260,0.000,0.000,0.000
1641091077485455872,2022-01-02-02:37:57,10.1.1.6,156,-0.250,-0.250,-0.250,0.000,0.000,0.000
1641091077685494784,2022-01-02-02:37:57,10.1.1.6,155,-0.240,-0.240,-0.240,0.000,0.000,0.000
1641091077898046976,2022-01-02-02:37:57,10.1.1.6,167,-0.230,-0.230,-0.230,0.000,0.000,0.000
1641091078085042944,2022-01-02-02:37:58,10.1.1.6,152,-0.220,-0.220,-0.220,0.000,0.000,0.000
1641091078284653056,2022-01-02-02:37:58,10.1.1.6,150,-0.210,-0.210,-0.210,0.000,0.000,0.000
1641091078484247040,2022-01-02-02:37:58,10.1.1.6,149,-0.200,-0.200,-0.200,0.000,0.000,0.000
1641091078684226048,2022-01-02-02:37:58,10.1.1.6,148,-0.190,-0.190,-0.190,0.000,0.000,0.000
1641091078883196160,2022-01-02-02:37:58,10.1.1.6,146,-0.180,-0.180,-0.180,0.000,0.000,0.000
1641091079105287168,2022-01-02-02:37:59,10.1.1.6,166,-0.170,-0.170,-0.170,0.000,0.000,0.000
1641091079302754048,2022-01-02-02:37:59,10.1.1.6,164,-0.160,-0.160,-0.160,0.000,0.000,0.000
1641091079494829056,2022-01-02-02:37:59,10.1.1.6,155,-0.150,-0.150,-0.150,0.000,0.000,0.000
1641091079702100992,2022-01-02-02:37:59,10.1.1.6,162,-0.140,-0.140,-0.140,0.000,0.000,0.000
1641091079902228992,2022-01-02-02:37:59,10.1.1.6,161,-0.130,-0.130,-0.130,0.000,0.000,0.000
1641091080102310912,2022-01-02-02:38:00,10.1.1.6,161,-0.120,-0.120,-0.120,0.000,0.000,0.000
1641091080294308864,2022-01-02-02:38:00,10.1.1.6,152,-0.110,-0.110,-0.110,0.000,0.000,0.000
1641091080505153024,2022-01-02-02:38:00,10.1.1.6,162,-0.100,-0.100,-0.100,0.000,0.000,0.000
1641091080705189888,2022-01-02-02:38:00,10.1.1.6,162,-0.090,-0.090,-0.090,0.000,0.000,0.000
1641091080900772096,2022-01-02-02:38:00,10.1.1.6,157,-0.080,-0.080,-0.080,0.000,0.000,0.000
1641091081108025088,2022-01-02-02:38:01,10.1.1.6,163,-0.070,-0.070,-0.070,0.000,0.000,0.000
1641091081310196992,2022-01-02-02:38:01,10.1.1.6,164,-0.060,-0.060,-0.060,0.000,0.000,0.000
1641091081509593088,2022-01-02-02:38:01,10.1.1.6,162,-0.050,-0.050,-0.050,0.000,0.000,0.000
1641091081710287104,2022-01-02-02:38:01,10.1.1.6,162,-0.040,-0.040,-0.040,0.000,0.000,0.000
1641091081911138048,2022-01-02-02:38:01,10.1.1.6,161,-0.030,-0.030,-0.030,0.000,0.000,0.000
1641091082111934976,2022-01-02-02:38:02,10.1.1.6,161,-0.020,-0.020,-0.020,0.000,0.000,0.000
1641091082332076032,2022-01-02-02:38:02,10.1.1.6,181,-0.010,-0.010,-0.010,0.000,0.000,0.000
1641091082513763840,2022-01-02-02:38:02,10.1.1.6,161,0.000,0.000,0.000,0.000,0.000,0.000
1641091082734535936,2022-01-02-02:38:02,10.1.1.6,182,-0.010,-0.010,-0.010,0.000,0.000,0.000
1641091082914791168,2022-01-02-02:38:02,10.1.1.6,161,-0.020,-0.020,-0.020,0.000,0.000,0.000
1641091083115571968,2022-01-02-02:38:03,10.1.1.6,161,-0.030,-0.030,-0.030,0.000,0.000,0.000
1641091083336990208,2022-01-02-02:38:03,10.1.1.6,182,-0.040,-0.040,-0.040,0.000,0.000,0.000
1641091083517164032,2022-01-02-02:38:03,10.1.1.6,162,-0.050,-0.050,-0.050,0.000,0.000,0.000
1641091083716870144,2022-01-02-02:38:03,10.1.1.6,160,-0.060,-0.060,-0.060,0.000,0.000,0.000
1641091083917756160,2022-01-02-02:38:03,10.1.1.6,161,-0.070,-0.070,-0.070,0.000,0.000,0.000
1641091084138444800,2022-01-02-02:38:04,10.1.1.6,180,-0.080,-0.080,-0.080,0.000,0.000,0.000
1641091084340050944,2022-01-02-02:38:04,10.1.1.6,181,-0.090,-0.090,-0.090,0.000,0.000,0.000
1641091084540550912,2022-01-02-02:38:04,10.1.1.6,181,-0.100,-0.100,-0.100,0.000,0.000,0.000
1641091084733881856,2022-01-02-02:38:04,10.1.1.6,172,-0.110,-0.110,-0.110,0.000,0.000,0.000
1641091084940180992,2022-01-02-02:38:04,10.1.1.6,177,-0.120,-0.120,-0.120,0.000,0.000,0.000
1641091085141421056,2022-01-02-02:38:05,10.1.1.6,178,-0.130,-0.130,-0.130,0.000,0.000,0.000
1641091085341639168,2022-01-02-02:38:05,10.1.1.6,177,-0.140,-0.140,-0.140,0.000,0.000,0.000
1641091085541455104,2022-01-02-02:38:05,10.1.1.6,176,-0.150,-0.150,-0.150,0.000,0.000,0.000
1641091085742294016,2022-01-02-02:38:05,10.1.1.6,175,-0.160,-0.160,-0.160,0.000,0.000,0.000
1641091085935302144,2022-01-02-02:38:05,10.1.1.6,167,-0.170,-0.170,-0.170,0.000,0.000,0.000
1641091086162380032,2022-01-02-02:38:06,10.1.1.6,193,-0.180,-0.180,-0.180,0.000,0.000,0.000
1641091086342891008,2022-01-02-02:38:06,10.1.1.6,172,-0.190,-0.190,-0.190,0.000,0.000,0.000
1641091086563358976,2022-01-02-02:38:06,10.1.1.6,192,-0.200,-0.200,-0.200,0.000,0.000,0.000
1641091086743618048,2022-01-02-02:38:06,10.1.1.6,171,-0.210,-0.210,-0.210,0.000,0.000,0.000
1641091086943612928,2022-01-02-02:38:06,10.1.1.6,167,-0.220,-0.220,-0.220,0.000,0.000,0.000
1641091087144018944,2022-01-02-02:38:07,10.1.1.6,166,-0.230,-0.230,-0.230,0.000,0.000,0.000
1641091087361033984,2022-01-02-02:38:07,10.1.1.6,180,-0.240,-0.240,-0.240,0.000,0.000,0.000
1641091087555879168,2022-01-02-02:38:07,10.1.1.6,177,-0.250,-0.250,-0.250,0.000,0.000,0.000
1641091087766169088,2022-01-02-02:38:07,10.1.1.6,186,-0.260,-0.260,-0.260,0.000,0.000,0.000
1641091087965485056,2022-01-02-02:38:07,10.1.1.6,185,-0.270,-0.270,-0.270,0.000,0.000,0.000
1641091088165453824,2022-01-02-02:38:08,10.1.1.6,184,-0.280,-0.280,-0.280,0.000,0.000,0.000
1641091088365639936,2022-01-02-02:38:08,10.1.1.6,182,-0.290,-0.290,-0.290,0.000,0.000,0.000
1641091088566437120,2022-01-02-02:38:08,10.1.1.6,183,-0.300,-0.300,-0.300,0.000,0.000,0.000
1641091088765939968,2022-01-02-02:38:08,10.1.1.6,181,-0.310,-0.310,-0.310,0.000,0.000,0.000
1641091088959168000,2022-01-02-02:38:08,10.1.1.6,174,-0.320,-0.320,-0.320,0.000,0.000,0.000
1641091089158409984,2022-01-02-02:38:09,10.1.1.6,170,-0.330,-0.330,-0.330,0.000,0.000,0.000
1641091089358851840,2022-01-02-02:38:09,10.1.1.6,172,-0.340,-0.340,-0.340,0.000,0.000,0.000
1641091089566894080,2022-01-02-02:38:09,10.1.1.6,177,-0.350,-0.350,-0.350,0.000,0.000,0.000
1641091089787554048,2022-01-02-02:38:09,10.1.1.6,197,-0.360,-0.360,-0.360,0.000,0.000,0.000
1641091089981117952,2022-01-02-02:38:09,10.1.1.6,190,-0.370,-0.370,-0.370,0.000,0.000,0.000
1641091090166641920,2022-01-02-02:38:10,10.1.1.6,175,-0.380,-0.380,-0.380,0.000,0.000,0.000
1641091090366328064,2022-01-02-02:38:10,10.1.1.6,174,-0.390,-0.390,-0.390,0.000,0.000,0.000
1641091090576029184,2022-01-02-02:38:10,10.1.1.6,182,-0.400,-0.400,-0.400,0.000,0.000,0.000
1641091090766164992,2022-01-02-02:38:10,10.1.1.6,172,-0.410,-0.410,-0.410,0.000,0.000,0.000
1641091090976352000,2022-01-02-02:38:10,10.1.1.6,181,-0.420,-0.420,-0.420,0.000,0.000,0.000
1641091091176103168,2022-01-02-02:38:11,10.1.1.6,176,-0.430,-0.430,-0.430,0.000,0.000,0.000
1641091091377746944,2022-01-02-02:38:11,10.1.1.6,176,-0.440,-0.440,-0.440,0.000,0.000,0.000
1641091091579010048,2022-01-02-02:38:11,10.1.1.6,172,-0.450,-0.450,-0.450,0.000,0.000,0.000
1641091091786513920,2022-01-02-02:38:11,10.1.1.6,177,-0.460,-0.460,-0.460,0.000,0.000,0.000
1641091091986123008,2022-01-02-02:38:11,10.1.1.6,176,-0.470,-0.470,-0.470,0.000,0.000,0.000
1641091092186100992,2022-01-02-02:38:12,10.1.1.6,175,-0.480,-0.480,-0.480,0.000,0.000,0.000
1641091092397697024,2022-01-02-02:38:12,10.1.1.6,186,-0.490,-0.490,-0.490,0.000,0.000,0.000
1641091092606060032,2022-01-02-02:38:12,10.1.1.6,194,-0.480,-0.480,-0.480,0.000,0.000,0.000
1641091092805754880,2022-01-02-02:38:12,10.1.1.6,193,-0.470,-0.470,-0.470,0.000,0.000,0.000
1641091092995652864,2022-01-02-02:38:12,10.1.1.6,182,-0.460,-0.460,-0.460,0.000,0.000,0.000
1641091093205432064,2022-01-02-02:38:13,10.1.1.6,191,-0.450,-0.450,-0.450,0.000,0.000,0.000
1641091093386092032,2022-01-02-02:38:13,10.1.1.6,171,-0.440,-0.440,-0.440,0.000,0.000,0.000
1641091093605700864,2022-01-02-02:38:13,10.1.1.6,190,-0.430,-0.430,-0.430,0.000,0.000,0.000
1641091093796123136,2022-01-02-02:38:13,10.1.1.6,178,-0.420,-0.420,-0.420,0.000,0.000,0.000
1641091094005604096,2022-01-02-02:38:14,10.1.1.6,186,-0.410,-0.410,-0.410,0.000,0.000,0.000
1641091094206268928,2022-01-02-02:38:14,10.1.1.6,185,-0.400,-0.400,-0.400,0.000,0.000,0.000
1641091094405067008,2022-01-02-02:38:14,10.1.1.6,184,-0.390,-0.390,-0.390,0.000,0.000,0.000
1641091094605359104,2022-01-02-02:38:14,10.1.1.6,183,-0.380,-0.380,-0.380,0.000,0.000,0.000
1641091094805635840,2022-01-02-02:38:14,10.1.1.6,182,-0.370,-0.370,-0.370,0.000,0.000,0.000
1641091095004378112,2022-01-02-02:38:15,10.1.1.6,180,-0.360,-0.360,-0.360,0.000,0.000,0.000
1641091095204331008,2022-01-02-02:38:15,10.1.1.6,180,-0.350,-0.350,-0.350,0.000,0.000,0.000
1641091095404748032,2022-01-02-02:38:15,10.1.1.6,179,-0.340,-0.340,-0.340,0.000,0.000,0.000
1641091095600312064,2022-01-02-02:38:15,10.1.1.6,174,-0.330,-0.330,-0.330,0.000,0.000,0.000
1641091095805198848,2022-01-02-02:38:15,10.1.1.6,178,-0.320,-0.320,-0.320,0.000,0.000,0.000
1641091096004792064,2022-01-02-02:38:16,10.1.1.6,177,-0.310,-0.310,-0.310,0.000,0.000,0.000
1641091096216562944,2022-01-02-02:38:16,10.1.1.6,188,-0.300,-0.300,-0.300,0.000,0.000,0.000
1641091096403953920,2022-01-02-02:38:16,10.1.1.6,175,-0.290,-0.290,-0.290,0.000,0.000,0.000
1641091096603323904,2022-01-02-02:38:16,10.1.1.6,173,-0.280,-0.280,-0.280,0.000,0.000,0.000
1641091096823201792,2022-01-02-02:38:16,10.1.1.6,192,-0.270,-0.270,-0.270,0.000,0.000,0.000
1641091097003555072,2022-01-02-02:38:17,10.1.1.6,171,-0.260,-0.260,-0.260,0.000,0.000,0.000
1641091097204044032,2022-01-02-02:38:17,10.1.1.6,171,-0.250,-0.250,-0.250,0.000,0.000,0.000
1641091097402652928,2022-01-02-02:38:17,10.1.1.6,166,-0.240,-0.240,-0.240,0.000,0.000,0.000
1641091097602909952,2022-01-02-02:38:17,10.1.1.6,165,-0.230,-0.230,-0.230,0.000,0.000,0.000
1641091097822487040,2022-01-02-02:38:17,10.1.1.6,183,-0.220,-0.220,-0.220,0.000,0.000,0.000
1641091098019435008,2022-01-02-02:38:18,10.1.1.6,177,-0.210,-0.210,-0.210,0.000,0.000,0.000
1641091098216315136,2022-01-02-02:38:18,10.1.1.6,175,-0.200,-0.200,-0.200,0.000,0.000,0.000
1641091098422486016,2022-01-02-02:38:18,10.1.1.6,181,-0.190,-0.190,-0.190,0.000,0.000,0.000
1641091098612101120,2022-01-02-02:38:18,10.1.1.6,169,-0.180,-0.180,-0.180,0.000,0.000,0.000
1641091098811980032,2022-01-02-02:38:18,10.1.1.6,168,-0.170,-0.170,-0.170,0.000,0.000,0.000
1641091099020652032,2022-01-02-02:38:19,10.1.1.6,177,-0.160,-0.160,-0.160,0.000,0.000,0.000
1641091099223113984,2022-01-02-02:38:19,10.1.1.6,178,-0.150,-0.150,-0.150,0.000,0.000,0.000
1641091099420762112,2022-01-02-02:38:19,10.1.1.6,175,-0.140,-0.140,-0.140,0.000,0.000,0.000
1641091099620964096,2022-01-02-02:38:19,10.1.1.6,173,-0.130,-0.130,-0.130,0.000,0.000,0.000
1641091099820718080,2022-01-02-02:38:19,10.1.1.6,173,-0.120,-0.120,-0.120,0.000,0.000,0.000
1641091100021562112,2022-01-02-02:38:20,10.1.1.6,173,-0.110,-0.110,-0.110,0.000,0.000,0.000
1641091100239373056,2022-01-02-02:38:20,10.1.1.6,188,-0.100,-0.100,-0.100,0.000,0.000,0.000
1641091100419400960,2022-01-02-02:38:20,10.1.1.6,164,-0.090,-0.090,-0.090,0.000,0.000,0.000
1641091100619537152,2022-01-02-02:38:20,10.1.1.6,163,-0.080,-0.080,-0.080,0.000,0.000,0.000
1641091100828888064,2022-01-02-02:38:20,10.1.1.6,171,-0.070,-0.070,-0.070,0.000,0.000,0.000
1641091101038604032,2022-01-02-02:38:21,10.1.1.6,180,-0.060,-0.060,-0.060,0.000,0.000,0.000
1641091101238814976,2022-01-02-02:38:21,10.1.1.6,179,-0.050,-0.050,-0.050,0.000,0.000,0.000
1641091101437895168,2022-01-02-02:38:21,10.1.1.6,177,-0.040,-0.040,-0.040,0.000,0.000,0.000
1641091101628752896,2022-01-02-02:38:21,10.1.1.6,167,-0.030,-0.030,-0.030,0.000,0.000,0.000
1641091101837726208,2022-01-02-02:38:21,10.1.1.6,175,-0.020,-0.020,-0.020,0.000,0.000,0.000
1641091102038839040,2022-01-02-02:38:22,10.1.1.6,176,-0.010,-0.010,-0.010,0.000,0.000,0.000
1641091102227296000,2022-01-02-02:38:22,10.1.1.6,163,0.000,0.000,0.000,0.000,0.000,0.000
1641091102437248000,2022-01-02-02:38:22,10.1.1.6,173,-0.010,-0.010,-0.010,0.000,0.000,0.000
1641091102630475008,2022-01-02-02:38:22,10.1.1.6,165,-0.020,-0.020,-0.020,0.000,0.000,0.000
1641091102837146112,2022-01-02-02:38:22,10.1.1.6,170,-0.030,-0.030,-0.030,0.000,0.000,0.000
1641091103036685824,2022-01-02-02:38:23,10.1.1.6,169,-0.040,-0.040,-0.040,0.000,0.000,0.000
1641091103235742976,2022-01-02-02:38:23,10.1.1.6,167,-0.050,-0.050,-0.050,0.000,0.000,0.000
1641091103436669952,2022-01-02-02:38:23,10.1.1.6,167,-0.060,-0.060,-0.060,0.000,0.000,0.000
1641091103635462912,2022-01-02-02:38:23,10.1.1.6,165,-0.070,-0.070,-0.070,0.000,0.000,0.000
1641091103855465984,2022-01-02-02:38:23,10.1.1.6,184,-0.080,-0.080,-0.080,0.000,0.000,0.000
1641091104034832896,2022-01-02-02:38:24,10.1.1.6,162,-0.090,-0.090,-0.090,0.000,0.000,0.000
1641091104234882048,2022-01-02-02:38:24,10.1.1.6,160,-0.100,-0.100,-0.100,0.000,0.000,0.000
1641091104444282112,2022-01-02-02:38:24,10.1.1.6,169,-0.110,-0.110,-0.110,0.000,0.000,0.000
1641091104646482944,2022-01-02-02:38:24,10.1.1.6,171,-0.120,-0.120,-0.120,0.000,0.000,0.000
1641091104844358912,2022-01-02-02:38:24,10.1.1.6,168,-0.130,-0.130,-0.130,0.000,0.000,0.000
1641091105033324032,2022-01-02-02:38:25,10.1.1.6,156,-0.140,-0.140,-0.140,0.000,0.000,0.000
1641091105252751104,2022-01-02-02:38:25,10.1.1.6,174,-0.150,-0.150,-0.150,0.000,0.000,0.000
1641091105452483840,2022-01-02-02:38:25,10.1.1.6,173,-0.160,-0.160,-0.160,0.000,0.000,0.000
1641091105651858176,2022-01-02-02:38:25,10.1.1.6,171,-0.170,-0.170,-0.170,0.000,0.000,0.000
1641091105852430080,2022-01-02-02:38:25,10.1.1.6,170,-0.180,-0.180,-0.180,0.000,0.000,0.000
1641091106051665920,2022-01-02-02:38:26,10.1.1.6,167,-0.190,-0.190,-0.190,0.000,0.000,0.000
1641091106251843072,2022-01-02-02:38:26,10.1.1.6,166,-0.200,-0.200,-0.200,0.000,0.000,0.000
1641091106451698176,2022-01-02-02:38:26,10.1.1.6,165,-0.210,-0.210,-0.210,0.000,0.000,0.000
1641091106646787840,2022-01-02-02:38:26,10.1.1.6,160,-0.220,-0.220,-0.220,0.000,0.000,0.000
1641091106863441920,2022-01-02-02:38:26,10.1.1.6,175,-0.230,-0.230,-0.230,0.000,0.000,0.000
1641091107050697216,2022-01-02-02:38:27,10.1.1.6,162,-0.240,-0.240,-0.240,0.000,0.000,0.000
1641091107270138880,2022-01-02-02:38:27,10.1.1.6,180,-0.250,-0.250,-0.250,0.000,0.000,0.000
1641091107469676032,2022-01-02-02:38:27,10.1.1.6,179,-0.260,-0.260,-0.260,0.000,0.000,0.000
1641091107650204928,2022-01-02-02:38:27,10.1.1.6,156,-0.270,-0.270,-0.270,0.000,0.000,0.000
1641091107869179136,2022-01-02-02:38:27,10.1.1.6,173,-0.280,-0.280,-0.280,0.000,0.000,0.000
1641091108068557056,2022-01-02-02:38:28,10.1.1.6,172,-0.290,-0.290,-0.290,0.000,0.000,0.000
1641091108270963968,2022-01-02-02:38:28,10.1.1.6,173,-0.300,-0.300,-0.300,0.000,0.000,0.000
1641091108463746048,2022-01-02-02:38:28,10.1.1.6,165,-0.310,-0.310,-0.310,0.000,0.000,0.000
1641091108667759872,2022-01-02-02:38:28,10.1.1.6,167,-0.320,-0.320,-0.320,0.000,0.000,0.000
1641091108867165184,2022-01-02-02:38:28,10.1.1.6,165,-0.330,-0.330,-0.330,0.000,0.000,0.000
1641091109058275840,2022-01-02-02:38:29,10.1.1.6,156,-0.340,-0.340,-0.340,0.000,0.000,0.000
1641091109258137088,2022-01-02-02:38:29,10.1.1.6,155,-0.350,-0.350,-0.350,0.000,0.000,0.000
1641091109457897984,2022-01-02-02:38:29,10.1.1.6,154,-0.360,-0.360,-0.360,0.000,0.000,0.000
1641091109655997952,2022-01-02-02:38:29,10.1.1.6,151,-0.370,-0.370,-0.370,0.000,0.000,0.000
1641091109866594048,2022-01-02-02:38:29,10.1.1.6,161,-0.380,-0.380,-0.380,0.000,0.000,0.000
1641091110065822976,2022-01-02-02:38:30,10.1.1.6,160,-0.390,-0.390,-0.390,0.000,0.000,0.000
1641091110265708800,2022-01-02-02:38:30,10.1.1.6,159,-0.400,-0.400,-0.400,0.000,0.000,0.000
1641091110464752896,2022-01-02-02:38:30,10.1.1.6,157,-0.410,-0.410,-0.410,0.000,0.000,0.000
1641091110684652032,2022-01-02-02:38:30,10.1.1.6,176,-0.420,-0.420,-0.420,0.000,0.000,0.000
1641091110865468928,2022-01-02-02:38:30,10.1.1.6,157,-0.430,-0.430,-0.430,0.000,0.000,0.000
1641091111063844864,2022-01-02-02:38:31,10.1.1.6,154,-0.440,-0.440,-0.440,0.000,0.000,0.000
1641091111263403008,2022-01-02-02:38:31,10.1.1.6,153,-0.450,-0.450,-0.450,0.000,0.000,0.000
1641091111462896128,2022-01-02-02:38:31,10.1.1.6,152,-0.460,-0.460,-0.460,0.000,0.000,0.000
1641091111662234112,2022-01-02-02:38:31,10.1.1.6,150,-0.470,-0.470,-0.470,0.000,0.000,0.000
1641091111862798848,2022-01-02-02:38:31,10.1.1.6,150,-0.480,-0.480,-0.480,0.000,0.000,0.000
1641091112063097856,2022-01-02-02:38:32,10.1.1.6,149,-0.490,-0.490,-0.490,0.000,0.000,0.000
1641091112264604928,2022-01-02-02:38:32,10.1.1.6,150,-0.480,-0.480,-0.480,0.000,0.000,0.000
1641091112465199104,2022-01-02-02:38:32,10.1.1.6,148,-0.470,-0.470,-0.470,0.000,0.000,0.000
1641091112686408960,2022-01-02-02:38:32,10.1.1.6,169,-0.460,-0.460,-0.460,0.000,0.000,0.000
1641091112887908096,2022-01-02-02:38:32,10.1.1.6,169,-0.450,-0.450,-0.450,0.000,0.000,0.000
1641091113078712064,2022-01-02-02:38:33,10.1.1.6,159,-0.440,-0.440,-0.440,0.000,0.000,0.000
1641091113282184960,2022-01-02-02:38:33,10.1.1.6,161,-0.430,-0.430,-0.430,0.000,0.000,0.000
1641091113482182912,2022-01-02-02:38:33,10.1.1.6,159,-0.420,-0.420,-0.420,0.000,0.000,0.000
1641091113684706816,2022-01-02-02:38:33,10.1.1.6,161,-0.410,-0.410,-0.410,0.000,0.000,0.000
1641091113892992000,2022-01-02-02:38:33,10.1.1.6,166,-0.400,-0.400,-0.400,0.000,0.000,0.000
1641091114103652096,2022-01-02-02:38:34,10.1.1.6,176,-0.390,-0.390,-0.390,0.000,0.000,0.000
1641091114293726976,2022-01-02-02:38:34,10.1.1.6,165,-0.380,-0.380,-0.380,0.000,0.000,0.000
1641091114496260864,2022-01-02-02:38:34,10.1.1.6,167,-0.370,-0.370,-0.370,0.000,0.000,0.000
1641091114695702016,2022-01-02-02:38:34,10.1.1.6,165,-0.360,-0.360,-0.360,0.000,0.000,0.000
1641091114896481024,2022-01-02-02:38:34,10.1.1.6,165,-0.350,-0.350,-0.350,0.000,0.000,0.000
1641091115097739008,2022-01-02-02:38:35,10.1.1.6,166,-0.340,-0.340,-0.340,0.000,0.000,0.000
1641091115297698048,2022-01-02-02:38:35,10.1.1.6,162,-0.330,-0.330,-0.330,0.000,0.000,0.000
1641091115519469056,2022-01-02-02:38:35,10.1.1.6,183,-0.320,-0.320,-0.320,0.000,0.000,0.000
1641091115719077120,2022-01-02-02:38:35,10.1.1.6,182,-0.310,-0.310,-0.310,0.000,0.000,0.000
1641091115919883008,2022-01-02-02:38:35,10.1.1.6,181,-0.300,-0.300,-0.300,0.000,0.000,0.000
1641091116120513792,2022-01-02-02:38:36,10.1.1.6,181,-0.290,-0.290,-0.290,0.000,0.000,0.000
1641091116312139008,2022-01-02-02:38:36,10.1.1.6,172,-0.280,-0.280,-0.280,0.000,0.000,0.000
1641091116513052928,2022-01-02-02:38:36,10.1.1.6,171,-0.270,-0.270,-0.270,0.000,0.000,0.000
1641091116722145024,2022-01-02-02:38:36,10.1.1.6,180,-0.260,-0.260,-0.260,0.000,0.000,0.000
1641091116923346944,2022-01-02-02:38:36,10.1.1.6,181,-0.250,-0.250,-0.250,0.000,0.000,0.000
1641091117113841920,2022-01-02-02:38:37,10.1.1.6,170,-0.240,-0.240,-0.240,0.000,0.000,0.000
1641091117323563008,2022-01-02-02:38:37,10.1.1.6,177,-0.230,-0.230,-0.230,0.000,0.000,0.000
1641091117544868864,2022-01-02-02:38:37,10.1.1.6,197,-0.220,-0.220,-0.220,0.000,0.000,0.000
1641091117724669952,2022-01-02-02:38:37,10.1.1.6,176,-0.210,-0.210,-0.210,0.000,0.000,0.000
1641091117924901888,2022-01-02-02:38:37,10.1.1.6,176,-0.200,-0.200,-0.200,0.000,0.000,0.000
1641091118126710784,2022-01-02-02:38:38,10.1.1.6,177,-0.190,-0.190,-0.190,0.000,0.000,0.000
1641091118326204928,2022-01-02-02:38:38,10.1.1.6,175,-0.180,-0.180,-0.180,0.000,0.000,0.000
1641091118527311104,2022-01-02-02:38:38,10.1.1.6,176,-0.170,-0.170,-0.170,0.000,0.000,0.000
1641091118729403904,2022-01-02-02:38:38,10.1.1.6,176,-0.160,-0.160,-0.160,0.000,0.000,0.000
1641091118926619136,2022-01-02-02:38:38,10.1.1.6,173,-0.150,-0.150,-0.150,0.000,0.000,0.000
1641091119126998016,2022-01-02-02:38:39,10.1.1.6,172,-0.140,-0.140,-0.140,0.000,0.000,0.000
1641091119348217088,2022-01-02-02:38:39,10.1.1.6,192,-0.130,-0.130,-0.130,0.000,0.000,0.000
1641091119527383040,2022-01-02-02:38:39,10.1.1.6,171,-0.120,-0.120,-0.120,0.000,0.000,0.000
1641091119727264000,2022-01-02-02:38:39,10.1.1.6,171,-0.110,-0.110,-0.110,0.000,0.000,0.000
1641091119932073984,2022-01-02-02:38:39,10.1.1.6,175,-0.100,-0.100,-0.100,0.000,0.000,0.000
1641091120140078080,2022-01-02-02:38:40,10.1.1.6,181,-0.090,-0.090,-0.090,0.000,0.000,0.000
1641091120348851968,2022-01-02-02:38:40,10.1.1.6,190,-0.080,-0.080,-0.080,0.000,0.000,0.000
1641091120548096000,2022-01-02-02:38:40,10.1.1.6,189,-0.070,-0.070,-0.070,0.000,0.000,0.000
1641091120748506112,2022-01-02-02:38:40,10.1.1.6,188,-0.060,-0.060,-0.060,0.000,0.000,0.000
1641091120939939072,2022-01-02-02:38:40,10.1.1.6,178,-0.050,-0.050,-0.050,0.000,0.000,0.000
1641091121149331968,2022-01-02-02:38:41,10.1.1.6,186,-0.040,-0.040,-0.040,0.000,0.000,0.000
1641091121338799104,2022-01-02-02:38:41,10.1.1.6,175,-0.030,-0.030,-0.030,0.000,0.000,0.000
1641091121548794880,2022-01-02-02:38:41,10.1.1.6,185,-0.020,-0.020,-0.020,0.000,0.000,0.000
1641091121750236160,2022-01-02-02:38:41,10.1.1.6,185,-0.010,-0.010,-0.010,0.000,0.000,0.000
1641091121941127936,2022-01-02-02:38:41,10.1.1.6,176,0.000,0.000,0.000,0.000,0.000,0.000
1641091122149430016,2022-01-02-02:38:42,10.1.1.6,183,-0.010,-0.010,-0.010,0.000,0.000,0.000
1641091122349554176,2022-01-02-02:38:42,10.1.1.6,182,-0.020,-0.020,-0.020,0.000,0.000,0.000
1641091122549777152,2022-01-02-02:38:42,10.1.1.6,181,-0.030,-0.030,-0.030,0.000,0.000,0.000
1641091122761633024,2022-01-02-02:38:42,10.1.1.6,192,-0.040,-0.040,-0.040,0.000,0.000,0.000
1641091122950555136,2022-01-02-02:38:42,10.1.1.6,181,-0.050,-0.050,-0.050,0.000,0.000,0.000
1641091123161820928,2022-01-02-02:38:43,10.1.1.6,190,-0.060,-0.060,-0.060,0.000,0.000,0.000
1641091123350076928,2022-01-02-02:38:43,10.1.1.6,179,-0.070,-0.070,-0.070,0.000,0.000,0.000
1641091123549502976,2022-01-02-02:38:43,10.1.1.6,176,-0.080,-0.080,-0.080,0.000,0.000,0.000
1641091123770337024,2022-01-02-02:38:43,10.1.1.6,197,-0.090,-0.090,-0.090,0.000,0.000,0.000
1641091123950215936,2022-01-02-02:38:43,10.1.1.6,175,-0.100,-0.100,-0.100,0.000,0.000,0.000
1641091124150052096,2022-01-02-02:38:44,10.1.1.6,172,-0.110,-0.110,-0.110,0.000,0.000,0.000
1641091124369360896,2022-01-02-02:38:44,10.1.1.6,188,-0.120,-0.120,-0.120,0.000,0.000,0.000
1641091124570742016,2022-01-02-02:38:44,10.1.1.6,190,-0.130,-0.130,-0.130,0.000,0.000,0.000
1641091124769988096,2022-01-02-02:38:44,10.1.1.6,187,-0.140,-0.140,-0.140,0.000,0.000,0.000
1641091124969746944,2022-01-02-02:38:44,10.1.1.6,186,-0.150,-0.150,-0.150,0.000,0.000,0.000
1641091125170085888,2022-01-02-02:38:45,10.1.1.6,184,-0.160,-0.160,-0.160,0.000,0.000,0.000
1641091125368755968,2022-01-02-02:38:45,10.1.1.6,184,-0.170,-0.170,-0.170,0.000,0.000,0.000
1641091125569155840,2022-01-02-02:38:45,10.1.1.6,184,-0.180,-0.180,-0.180,0.000,0.000,0.000
1641091125768614912,2022-01-02-02:38:45,10.1.1.6,182,-0.190,-0.190,-0.190,0.000,0.000,0.000
1641091125969480960,2022-01-02-02:38:45,10.1.1.6,181,-0.200,-0.200,-0.200,0.000,0.000,0.000
1641091126168768000,2022-01-02-02:38:46,10.1.1.6,181,-0.210,-0.210,-0.210,0.000,0.000,0.000
1641091126368978944,2022-01-02-02:38:46,10.1.1.6,180,-0.220,-0.220,-0.220,0.000,0.000,0.000
1641091126589371904,2022-01-02-02:38:46,10.1.1.6,199,-0.230,-0.230,-0.230,0.000,0.000,0.000
1641091126788738048,2022-01-02-02:38:46,10.1.1.6,198,-0.240,-0.240,-0.240,0.000,0.000,0.000
1641091126980446208,2022-01-02-02:38:46,10.1.1.6,189,-0.250,-0.250,-0.250,0.000,0.000,0.000
1641091127168713216,2022-01-02-02:38:47,10.1.1.6,177,-0.260,-0.260,-0.260,0.000,0.000,0.000
1641091127368793088,2022-01-02-02:38:47,10.1.1.6,177,-0.270,-0.270,-0.270,0.000,0.000,0.000
1641091127567889920,2022-01-02-02:38:47,10.1.1.6,175,-0.280,-0.280,-0.280,0.000,0.000,0.000
1641091127787489792,2022-01-02-02:38:47,10.1.1.6,194,-0.290,-0.290,-0.290,0.000,0.000,0.000
1641091127968313856,2022-01-02-02:38:47,10.1.1.6,173,-0.300,-0.300,-0.300,0.000,0.000,0.000
1641091128167331072,2022-01-02-02:38:48,10.1.1.6,172,-0.310,-0.310,-0.310,0.000,0.000,0.000
1641091128367714816,2022-01-02-02:38:48,10.1.1.6,172,-0.320,-0.320,-0.320,0.000,0.000,0.000
1641091128567419136,2022-01-02-02:38:48,10.1.1.6,171,-0.330,-0.330,-0.330,0.000,0.000,0.000
1641091128787194880,2022-01-02-02:38:48,10.1.1.6,189,-0.340,-0.340,-0.340,0.000,0.000,0.000
1641091128986654976,2022-01-02-02:38:48,10.1.1.6,186,-0.350,-0.350,-0.350,0.000,0.000,0.000
1641091129178422016,2022-01-02-02:38:49,10.1.1.6,176,-0.360,-0.360,-0.360,0.000,0.000,0.000
1641091129376722944,2022-01-02-02:38:49,10.1.1.6,172,-0.370,-0.370,-0.370,0.000,0.000,0.000
1641091129582552064,2022-01-02-02:38:49,10.1.1.6,176,-0.380,-0.380,-0.380,0.000,0.000,0.000
1641091129775846912,2022-01-02-02:38:49,10.1.1.6,169,-0.390,-0.390,-0.390,0.000,0.000,0.000
1641091130002245888,2022-01-02-02:38:50,10.1.1.6,195,-0.400,-0.400,-0.400,0.000,0.000,0.000
1641091130185784064,2022-01-02-02:38:50,10.1.1.6,178,-0.410,-0.410,-0.410,0.000,0.000,0.000
1641091130385478912,2022-01-02-02:38:50,10.1.1.6,175,-0.420,-0.420,-0.420,0.000,0.000,0.000
1641091130585124864,2022-01-02-02:38:50,10.1.1.6,174,-0.430,-0.430,-0.430,0.000,0.000,0.000
1641091130785563904,2022-01-02-02:38:50,10.1.1.6,173,-0.440,-0.440,-0.440,0.000,0.000,0.000
1641091130999404032,2022-01-02-02:38:50,10.1.1.6,183,-0.450,-0.450,-0.450,0.000,0.000,0.000
1641091131194370048,2022-01-02-02:38:51,10.1.1.6,181,-0.460,-0.460,-0.460,0.000,0.000,0.000
1641091131396205824,2022-01-02-02:38:51,10.1.1.6,183,-0.470,-0.470,-0.470,0.000,0.000,0.000
1641091131598006016,2022-01-02-02:38:51,10.1.1.6,184,-0.480,-0.480,-0.480,0.000,0.000,0.000
1641091131784873984,2022-01-02-02:38:51,10.1.1.6,168,-0.490,-0.490,-0.490,0.000,0.000,0.000
1641091132003734016,2022-01-02-02:38:52,10.1.1.6,184,-0.480,-0.480,-0.480,0.000,0.000,0.000
1641091132204317952,2022-01-02-02:38:52,10.1.1.6,182,-0.470,-0.470,-0.470,0.000,0.000,0.000
1641091132396303872,2022-01-02-02:38:52,10.1.1.6,172,-0.460,-0.460,-0.460,0.000,0.000,0.000
1641091132594414848,2022-01-02-02:38:52,10.1.1.6,171,-0.450,-0.450,-0.450,0.000,0.000,0.000
1641091132795852032,2022-01-02-02:38:52,10.1.1.6,172,-0.440,-0.440,-0.440,0.000,0.000,0.000
1641091133002404864,2022-01-02-02:38:53,10.1.1.6,178,-0.430,-0.430,-0.430,0.000,0.000,0.000
1641091133202203136,2022-01-02-02:38:53,10.1.1.6,177,-0.420,-0.420,-0.420,0.000,0.000,0.000
1641091133402470144,2022-01-02-02:38:53,10.1.1.6,177,-0.410,-0.410,-0.410,0.000,0.000,0.000
1641091133601489152,2022-01-02-02:38:53,10.1.1.6,175,-0.400,-0.400,-0.400,0.000,0.000,0.000
1641091133801771008,2022-01-02-02:38:53,10.1.1.6,175,-0.390,-0.390,-0.390,0.000,0.000,0.000
1641091134001725952,2022-01-02-02:38:54,10.1.1.6,174,-0.380,-0.380,-0.380,0.000,0.000,0.000
1641091134201039104,2022-01-02-02:38:54,10.1.1.6,173,-0.370,-0.370,-0.370,0.000,0.000,0.000
1641091134410490880,2022-01-02-02:38:54,10.1.1.6,181,-0.360,-0.360,-0.360,0.000,0.000,0.000
1641091134616535808,2022-01-02-02:38:54,10.1.1.6,187,-0.350,-0.350,-0.350,0.000,0.000,0.000
1641091134820518144,2022-01-02-02:38:54,10.1.1.6,190,-0.340,-0.340,-0.340,0.000,0.000,0.000
1641091134999459072,2022-01-02-02:38:54,10.1.1.6,169,-0.330,-0.330,-0.330,0.000,0.000,0.000
1641091135219902976,2022-01-02-02:38:55,10.1.1.6,188,-0.320,-0.320,-0.320,0.000,0.000,0.000
1641091135419245056,2022-01-02-02:38:55,10.1.1.6,187,-0.310,-0.310,-0.310,0.000,0.000,0.000
1641091135598897920,2022-01-02-02:38:55,10.1.1.6,166,-0.300,-0.300,-0.300,0.000,0.000,0.000
1641091135799024128,2022-01-02-02:38:55,10.1.1.6,165,-0.290,-0.290,-0.290,0.000,0.000,0.000
1641091135998835968,2022-01-02-02:38:55,10.1.1.6,165,-0.280,-0.280,-0.280,0.000,0.000,0.000
1641091136198771968,2022-01-02-02:38:56,10.1.1.6,164,-0.270,-0.270,-0.270,0.000,0.000,0.000
1641091136399308032,2022-01-02-02:38:56,10.1.1.6,164,-0.260,-0.260,-0.260,0.000,0.000,0.000
1641091136597785088,2022-01-02-02:38:56,10.1.1.6,161,-0.250,-0.250,-0.250,0.000,0.000,0.000
1641091136807959040,2022-01-02-02:38:56,10.1.1.6,169,-0.240,-0.240,-0.240,0.000,0.000,0.000
1641091137011406848,2022-01-02-02:38:57,10.1.1.6,172,-0.230,-0.230,-0.230,0.000,0.000,0.000
1641091137217340928,2022-01-02-02:38:57,10.1.1.6,177,-0.220,-0.220,-0.220,0.000,0.000,0.000
1641091137417990912,2022-01-02-02:38:57,10.1.1.6,176,-0.210,-0.210,-0.210,0.000,0.000,0.000
1641091137616180992,2022-01-02-02:38:57,10.1.1.6,175,-0.200,-0.200,-0.200,0.000,0.000,0.000
1641091137806454016,2022-01-02-02:38:57,10.1.1.6,164,-0.190,-0.190,-0.190,0.000,0.000,0.000
1641091138008239872,2022-01-02-02:38:58,10.1.1.6,165,-0.180,-0.180,-0.180,0.000,0.000,0.000
1641091138215308800,2022-01-02-02:38:58,10.1.1.6,172,-0.170,-0.170,-0.170,0.000,0.000,0.000
1641091138415544064,2022-01-02-02:38:58,10.1.1.6,171,-0.160,-0.160,-0.160,0.000,0.000,0.000
1641091138615181824,2022-01-02-02:38:58,10.1.1.6,170,-0.150,-0.150,-0.150,0.000,0.000,0.000
1641091138806895872,2022-01-02-02:38:58,10.1.1.6,161,-0.140,-0.140,-0.140,0.000,0.000,0.000
1641091139014238208,2022-01-02-02:38:59,10.1.1.6,168,-0.130,-0.130,-0.130,0.000,0.000,0.000
1641091139213829888,2022-01-02-02:38:59,10.1.1.6,163,-0.120,-0.120,-0.120,0.000,0.000,0.000
1641091139413853952,2022-01-02-02:38:59,10.1.1.6,162,-0.110,-0.110,-0.110,0.000,0.000,0.000
1641091139633490176,2022-01-02-02:38:59,10.1.1.6,181,-0.100,-0.100,-0.100,0.000,0.000,0.000
1641091139825182976,2022-01-02-02:38:59,10.1.1.6,172,-0.090,-0.090,-0.090,0.000,0.000,0.000
1641091140033090048,2022-01-02-02:39:00,10.1.1.6,179,-0.080,-0.080,-0.080,0.000,0.000,0.000
1641091140232444928,2022-01-02-02:39:00,10.1.1.6,178,-0.070,-0.070,-0.070,0.000,0.000,0.000
1641091140413413120,2022-01-02-02:39:00,10.1.1.6,157,-0.060,-0.060,-0.060,0.000,0.000,0.000
1641091140612183040,2022-01-02-02:39:00,10.1.1.6,156,-0.050,-0.050,-0.050,0.000,0.000,0.000
1641091140821221120,2022-01-02-02:39:00,10.1.1.6,164,-0.040,-0.040,-0.040,0.000,0.000,0.000
1641091141030707968,2022-01-02-02:39:01,10.1.1.6,173,-0.030,-0.030,-0.030,0.000,0.000,0.000
1641091141231228160,2022-01-02-02:39:01,10.1.1.6,172,-0.020,-0.020,-0.020,0.000,0.000,0.000
1641091141430396928,2022-01-02-02:39:01,10.1.1.6,171,-0.010,-0.010,-0.010,0.000,0.000,0.000
1641091141629968896,2022-01-02-02:39:01,10.1.1.6,169,0.000,0.000,0.000,0.000,0.000,0.000
1641091141829895936,2022-01-02-02:39:01,10.1.1.6,166,-0.010,-0.010,-0.010,0.000,0.000,0.000
1641091142029922048,2022-01-02-02:39:02,10.1.1.6,165,-0.020,-0.020,-0.020,0.000,0.000,0.000
1641091142229315072,2022-01-02-02:39:02,10.1.1.6,164,-0.030,-0.030,-0.030,0.000,0.000,0.000
1641091142428546048,2022-01-02-02:39:02,10.1.1.6,162,-0.040,-0.040,-0.040,0.000,0.000,0.000
1641091142619653888,2022-01-02-02:39:02,10.1.1.6,152,-0.050,-0.050,-0.050,0.000,0.000,0.000
1641091142827971072,2022-01-02-02:39:02,10.1.1.6,160,-0.060,-0.060,-0.060,0.000,0.000,0.000
1641091143048124928,2022-01-02-02:39:03,10.1.1.6,179,-0.070,-0.070,-0.070,0.000,0.000,0.000
1641091143227485952,2022-01-02-02:39:03,10.1.1.6,158,-0.080,-0.080,-0.080,0.000,0.000,0.000
1641091143436687872,2022-01-02-02:39:03,10.1.1.6,166,-0.090,-0.090,-0.090,0.000,0.000,0.000
1641091143647141888,2022-01-02-02:39:03,10.1.1.6,176,-0.100,-0.100,-0.100,0.000,0.000,0.000
1641091143827511040,2022-01-02-02:39:03,10.1.1.6,155,-0.110,-0.110,-0.110,0.000,0.000,0.000
1641091144039737088,2022-01-02-02:39:04,10.1.1.6,167,-0.120,-0.120,-0.120,0.000,0.000,0.000
1641091144239762176,2022-01-02-02:39:04,10.1.1.6,165,-0.130,-0.130,-0.130,0.000,0.000,0.000
1641091144426407168,2022-01-02-02:39:04,10.1.1.6,151,-0.140,-0.140,-0.140,0.000,0.000,0.000
1641091144645600000,2022-01-02-02:39:04,10.1.1.6,168,-0.150,-0.150,-0.150,0.000,0.000,0.000
1641091144844528896,2022-01-02-02:39:04,10.1.1.6,165,-0.160,-0.160,-0.160,0.000,0.000,0.000
1641091145044729088,2022-01-02-02:39:05,10.1.1.6,165,-0.170,-0.170,-0.170,0.000,0.000,0.000
1641091145247052800,2022-01-02-02:39:05,10.1.1.6,166,-0.180,-0.180,-0.180,0.000,0.000,0.000
1641091145447081984,2022-01-02-02:39:05,10.1.1.6,166,-0.190,-0.190,-0.190,0.000,0.000,0.000
1641091145638827008,2022-01-02-02:39:05,10.1.1.6,157,-0.200,-0.200,-0.200,0.000,0.000,0.000
1641091145848628992,2022-01-02-02:39:05,10.1.1.6,166,-0.210,-0.210,-0.210,0.000,0.000,0.000
1641091146041627904,2022-01-02-02:39:06,10.1.1.6,157,-0.220,-0.220,-0.220,0.000,0.000,0.000
1641091146243953920,2022-01-02-02:39:06,10.1.1.6,159,-0.230,-0.230,-0.230,0.000,0.000,0.000
1641091146451212032,2022-01-02-02:39:06,10.1.1.6,166,-0.240,-0.240,-0.240,0.000,0.000,0.000
1641091146652612096,2022-01-02-02:39:06,10.1.1.6,167,-0.250,-0.250,-0.250,0.000,0.000,0.000
1641091146853394944,2022-01-02-02:39:06,10.1.1.6,167,-0.260,-0.260,-0.260,0.000,0.000,0.000
1641091147054544896,2022-01-02-02:39:07,10.1.1.6,167,-0.270,-0.270,-0.270,0.000,0.000,0.000
1641091147254225920,2022-01-02-02:39:07,10.1.1.6,166,-0.280,-0.280,-0.280,0.000,0.000,0.000
1641091147455676928,2022-01-02-02:39:07,10.1.1.6,167,-0.290,-0.290,-0.290,0.000,0.000,0.000
1641091147676103168,2022-01-02-02:39:07,10.1.1.6,187,-0.300,-0.300,-0.300,0.000,0.000,0.000
1641091147876329984,2022-01-02-02:39:07,10.1.1.6,184,-0.310,-0.310,-0.310,0.000,0.000,0.000
1641091148067568896,2022-01-02-02:39:08,10.1.1.6,174,-0.320,-0.320,-0.320,0.000,0.000,0.000
1641091148258295040,2022-01-02-02:39:08,10.1.1.6,164,-0.330,-0.330,-0.330,0.000,0.000,0.000
1641091148458991104,2022-01-02-02:39:08,10.1.1.6,164,-0.340,-0.340,-0.340,0.000,0.000,0.000
1641091148661860864,2022-01-02-02:39:08,10.1.1.6,166,-0.350,-0.350,-0.350,0.000,0.000,0.000
1641091148879444992,2022-01-02-02:39:08,10.1.1.6,182,-0.360,-0.360,-0.360,0.000,0.000,0.000
1641091149079535104,2022-01-02-02:39:09,10.1.1.6,181,-0.370,-0.370,-0.370,0.000,0.000,0.000
1641091149280155904,2022-01-02-02:39:09,10.1.1.6,181,-0.380,-0.380,-0.380,0.000,0.000,0.000
1641091149480544000,2022-01-02-02:39:09,10.1.1.6,180,-0.390,-0.390,-0.390,0.000,0.000,0.000
1641091149681106944,2022-01-02-02:39:09,10.1.1.6,179,-0.400,-0.400,-0.400,0.000,0.000,0.000
1641091149881848064,2022-01-02-02:39:09,10.1.1.6,179,-0.410,-0.410,-0.410,0.000,0.000,0.000
1641091150082256128,2022-01-02-02:39:10,10.1.1.6,179,-0.420,-0.420,-0.420,0.000,0.000,0.000
1641091150276034048,2022-01-02-02:39:10,10.1.1.6,172,-0.430,-0.430,-0.430,0.000,0.000,0.000
1641091150476531968,2022-01-02-02:39:10,10.1.1.6,171,-0.440,-0.440,-0.440,0.000,0.000,0.000
1641091150675904000,2022-01-02-02:39:10,10.1.1.6,170,-0.450,-0.450,-0.450,0.000,0.000,0.000
1641091150883329024,2022-01-02-02:39:10,10.1.1.6,177,-0.460,-0.460,-0.460,0.000,0.000,0.000
1641091151083452928,2022-01-02-02:39:11,10.1.1.6,175,-0.470,-0.470,-0.470,0.000,0.000,0.000
1641091151284326144,2022-01-02-02:39:11,10.1.1.6,175,-0.480,-0.480,-0.480,0.000,0.000,0.000
1641091151484275200,2022-01-02-02:39:11,10.1.1.6,174,-0.490,-0.490,-0.490,0.000,0.000,0.000
1641091151684256000,2022-01-02-02:39:11,10.1.1.6,172,-0.480,-0.480,-0.480,0.000,0.000,0.000
1641091151884409856,2022-01-02-02:39:11,10.1.1.6,172,-0.470,-0.470,-0.470,0.000,0.000,0.000
1641091152085364992,2022-01-02-02:39:12,10.1.1.6,172,-0.460,-0.460,-0.460,0.000,0.000,0.000
1641091152284630016,2022-01-02-02:39:12,10.1.1.6,170,-0.450,-0.450,-0.450,0.000,0.000,0.000
1641091152495457024,2022-01-02-02:39:12,10.1.1.6,180,-0.440,-0.440,-0.440,0.000,0.000,0.000
1641091152705244928,2022-01-02-02:39:12,10.1.1.6,188,-0.430,-0.430,-0.430,0.000,0.000,0.000
1641091152907004160,2022-01-02-02:39:12,10.1.1.6,187,-0.420,-0.420,-0.420,0.000,0.000,0.000
1641091153106364928,2022-01-02-02:39:13,10.1.1.6,186,-0.410,-0.410,-0.410,0.000,0.000,0.000
1641091153299865088,2022-01-02-02:39:13,10.1.1.6,178,-0.400,-0.400,-0.400,0.000,0.000,0.000
1641091153506102016,2022-01-02-02:39:13,10.1.1.6,184,-0.390,-0.390,-0.390,0.000,0.000,0.000
1641091153706541056,2022-01-02-02:39:13,10.1.1.6,184,-0.380,-0.380,-0.380,0.000,0.000,0.000
1641091153907314176,2022-01-02-02:39:13,10.1.1.6,183,-0.370,-0.370,-0.370,0.000,0.000,0.000
1641091154107821056,2022-01-02-02:39:14,10.1.1.6,182,-0.360,-0.360,-0.360,0.000,0.000,0.000
1641091154306438912,2022-01-02-02:39:14,10.1.1.6,180,-0.350,-0.350,-0.350,0.000,0.000,0.000
1641091154506679040,2022-01-02-02:39:14,10.1.1.6,179,-0.340,-0.340,-0.340,0.000,0.000,0.000
1641091154721888000,2022-01-02-02:39:14,10.1.1.6,193,-0.330,-0.330,-0.330,0.000,0.000,0.000
1641091154907325952,2022-01-02-02:39:14,10.1.1.6,177,-0.320,-0.320,-0.320,0.000,0.000,0.000
1641091155106735104,2022-01-02-02:39:15,10.1.1.6,176,-0.310,-0.310,-0.310,0.000,0.000,0.000
1641091155306586112,2022-01-02-02:39:15,10.1.1.6,175,-0.300,-0.300,-0.300,0.000,0.000,0.000
1641091155517133056,2022-01-02-02:39:15,10.1.1.6,185,-0.290,-0.290,-0.290,0.000,0.000,0.000
1641091155727013120,2022-01-02-02:39:15,10.1.1.6,194,-0.280,-0.280,-0.280,0.000,0.000,0.000
1641091155907352832,2022-01-02-02:39:15,10.1.1.6,174,-0.270,-0.270,-0.270,0.000,0.000,0.000
1641091156107742976,2022-01-02-02:39:16,10.1.1.6,174,-0.260,-0.260,-0.260,0.000,0.000,0.000
1641091156327258112,2022-01-02-02:39:16,10.1.1.6,192,-0.250,-0.250,-0.250,0.000,0.000,0.000
1641091156508101888,2022-01-02-02:39:16,10.1.1.6,172,-0.240,-0.240,-0.240,0.000,0.000,0.000
1641091156707117056,2022-01-02-02:39:16,10.1.1.6,171,-0.230,-0.230,-0.230,0.000,0.000,0.000
1641091156907077120,2022-01-02-02:39:16,10.1.1.6,171,-0.220,-0.220,-0.220,0.000,0.000,0.000
1641091157118947072,2022-01-02-02:39:17,10.1.1.6,181,-0.210,-0.210,-0.210,0.000,0.000,0.000
1641091157326608896,2022-01-02-02:39:17,10.1.1.6,183,-0.200,-0.200,-0.200,0.000,0.000,0.000
1641091157526882048,2022-01-02-02:39:17,10.1.1.6,182,-0.190,-0.190,-0.190,0.000,0.000,0.000
1641091157727038976,2022-01-02-02:39:17,10.1.1.6,182,-0.180,-0.180,-0.180,0.000,0.000,0.000
1641091157927191040,2022-01-02-02:39:17,10.1.1.6,181,-0.170,-0.170,-0.170,0.000,0.000,0.000
1641091158126627840,2022-01-02-02:39:18,10.1.1.6,180,-0.160,-0.160,-0.160,0.000,0.000,0.000
1641091158325998080,2022-01-02-02:39:18,10.1.1.6,177,-0.150,-0.150,-0.150,0.000,0.000,0.000
1641091158525972992,2022-01-02-02:39:18,10.1.1.6,176,-0.140,-0.140,-0.140,0.000,0.000,0.000
1641091158745718016,2022-01-02-02:39:18,10.1.1.6,195,-0.130,-0.130,-0.130,0.000,0.000,0.000
1641091158945775104,2022-01-02-02:39:18,10.1.1.6,195,-0.120,-0.120,-0.120,0.000,0.000,0.000
1641091159135780096,2022-01-02-02:39:19,10.1.1.6,184,-0.110,-0.110,-0.110,0.000,0.000,0.000
1641091159346246912,2022-01-02-02:39:19,10.1.1.6,193,-0.100,-0.100,-0.100,0.000,0.000,0.000
1641091159526274816,2022-01-02-02:39:19,10.1.1.6,172,-0.090,-0.090,-0.090,0.000,0.000,0.000
1641091159742891008,2022-01-02-02:39:19,10.1.1.6,185,-0.080,-0.080,-0.080,0.000,0.000,0.000
1641091159925007104,2022-01-02-02:39:19,10.1.1.6,169,-0.070,-0.070,-0.070,0.000,0.000,0.000
1641091160124805888,2022-01-02-02:39:20,10.1.1.6,168,-0.060,-0.060,-0.060,0.000,0.000,0.000
1641091160335438080,2022-01-02-02:39:20,10.1.1.6,175,-0.050,-0.050,-0.050,0.000,0.000,0.000
1641091160538989056,2022-01-02-02:39:20,10.1.1.6,178,-0.040,-0.040,-0.040,0.000,0.000,0.000
1641091160744566016,2022-01-02-02:39:20,10.1.1.6,183,-0.030,-0.030,-0.030,0.000,0.000,0.000
1641091160937442048,2022-01-02-02:39:20,10.1.1.6,175,-0.020,-0.020,-0.020,0.000,0.000,0.000
1641091161136184832,2022-01-02-02:39:21,10.1.1.6,171,-0.010,-0.010,-0.010,0.000,0.000,0.000
1641091161343981056,2022-01-02-02:39:21,10.1.1.6,180,0.000,0.000,0.000,0.000,0.000,0.000
1641091161534553088,2022-01-02-02:39:21,10.1.1.6,170,-0.010,-0.010,-0.010,0.000,0.000,0.000
1641091161743781120,2022-01-02-02:39:21,10.1.1.6,176,-0.020,-0.020,-0.020,0.000,0.000,0.000
1641091161963150080,2022-01-02-02:39:21,10.1.1.6,194,-0.030,-0.030,-0.030,0.000,0.000,0.000
1641091162153881088,2022-01-02-02:39:22,10.1.1.6,184,-0.040,-0.040,-0.040,0.000,0.000,0.000
1641091162342758912,2022-01-02-02:39:22,10.1.1.6,171,-0.050,-0.050,-0.050,0.000,0.000,0.000
1641091162563261952,2022-01-02-02:39:22,10.1.1.6,187,-0.060,-0.060,-0.060,0.000,0.000,0.000
1641091162755995904,2022-01-02-02:39:22,10.1.1.6,175,-0.070,-0.070,-0.070,0.000,0.000,0.000
1641091162954951936,2022-01-02-02:39:22,10.1.1.6,177,-0.080,-0.080,-0.080,0.000,0.000,0.000
1641091163161787136,2022-01-02-02:39:23,10.1.1.6,182,-0.090,-0.090,-0.090,0.000,0.000,0.000
1641091163354821888,2022-01-02-02:39:23,10.1.1.6,174,-0.100,-0.100,-0.100,0.000,0.000,0.000
1641091163562304000,2022-01-02-02:39:23,10.1.1.6,181,-0.110,-0.110,-0.110,0.000,0.000,0.000
1641091163761879040,2022-01-02-02:39:23,10.1.1.6,178,-0.120,-0.120,-0.120,0.000,0.000,0.000
1641091163961925120,2022-01-02-02:39:23,10.1.1.6,178,-0.130,-0.130,-0.130,0.000,0.000,0.000
1641091164160856064,2022-01-02-02:39:24,10.1.1.6,176,-0.140,-0.140,-0.140,0.000,0.000,0.000
1641091164360483840,2022-01-02-02:39:24,10.1.1.6,175,-0.150,-0.150,-0.150,0.000,0.000,0.000
1641091164552092160,2022-01-02-02:39:24,10.1.1.6,166,-0.160,-0.160,-0.160,0.000,0.000,0.000
1641091164760539136,2022-01-02-02:39:24,10.1.1.6,174,-0.170,-0.170,-0.170,0.000,0.000,0.000
1641091164960338176,2022-01-02-02:39:24,10.1.1.6,173,-0.180,-0.180,-0.180,0.000,0.000,0.000
1641091165161071104,2022-01-02-02:39:25,10.1.1.6,172,-0.190,-0.190,-0.190,0.000,0.000,0.000
1641091165359235072,2022-01-02-02:39:25,10.1.1.6,171,-0.200,-0.200,-0.200,0.000,0.000,0.000
1641091165559418880,2022-01-02-02:39:25,10.1.1.6,168,-0.210,-0.210,-0.210,0.000,0.000,0.000
1641091165758737920,2022-01-02-02:39:25,10.1.1.6,166,-0.220,-0.220,-0.220,0.000,0.000,0.000
1641091165972052992,2022-01-02-02:39:25,10.1.1.6,178,-0.230,-0.230,-0.230,0.000,0.000,0.000
1641091166158194944,2022-01-02-02:39:26,10.1.1.6,163,-0.240,-0.240,-0.240,0.000,0.000,0.000
1641091166378078976,2022-01-02-02:39:26,10.1.1.6,182,-0.250,-0.250,-0.250,0.000,0.000,0.000
1641091166557966848,2022-01-02-02:39:26,10.1.1.6,161,-0.260,-0.260,-0.260,0.000,0.000,0.000
1641091166768165120,2022-01-02-02:39:26,10.1.1.6,171,-0.270,-0.270,-0.270,0.000,0.000,0.000
1641091166972135168,2022-01-02-02:39:26,10.1.1.6,174,-0.280,-0.280,-0.280,0.000,0.000,0.000
1641091167169917952,2022-01-02-02:39:27,10.1.1.6,171,-0.290,-0.290,-0.290,0.000,0.000,0.000
1641091167369071872,2022-01-02-02:39:27,10.1.1.6,169,-0.300,-0.300,-0.300,0.000,0.000,0.000
1641091167567181056,2022-01-02-02:39:27,10.1.1.6,166,-0.310,-0.310,-0.310,0.000,0.000,0.000
1641091167767280128,2022-01-02-02:39:27,10.1.1.6,166,-0.320,-0.320,-0.320,0.000,0.000,0.000
1641091167967127040,2022-01-02-02:39:27,10.1.1.6,165,-0.330,-0.330,-0.330,0.000,0.000,0.000
1641091168175525888,2022-01-02-02:39:28,10.1.1.6,172,-0.340,-0.340,-0.340,0.000,0.000,0.000
1641091168375526912,2022-01-02-02:39:28,10.1.1.6,172,-0.350,-0.350,-0.350,0.000,0.000,0.000
1641091168567369984,2022-01-02-02:39:28,10.1.1.6,162,-0.360,-0.360,-0.360,0.000,0.000,0.000
1641091168794859776,2022-01-02-02:39:28,10.1.1.6,187,-0.370,-0.370,-0.370,0.000,0.000,0.000
1641091168975055872,2022-01-02-02:39:28,10.1.1.6,167,-0.380,-0.380,-0.380,0.000,0.000,0.000
1641091169173894912,2022-01-02-02:39:29,10.1.1.6,165,-0.390,-0.390,-0.390,0.000,0.000,0.000
1641091169374638080,2022-01-02-02:39:29,10.1.1.6,166,-0.400,-0.400,-0.400,0.000,0.000,0.000
1641091169574327040,2022-01-02-02:39:29,10.1.1.6,165,-0.410,-0.410,-0.410,0.000,0.000,0.000
1641091169773294080,2022-01-02-02:39:29,10.1.1.6,163,-0.420,-0.420,-0.420,0.000,0.000,0.000
1641091169993861888,2022-01-02-02:39:29,10.1.1.6,182,-0.430,-0.430,-0.430,0.000,0.000,0.000
1641091170173212928,2022-01-02-02:39:30,10.1.1.6,161,-0.440,-0.440,-0.440,0.000,0.000,0.000
1641091170372098048,2022-01-02-02:39:30,10.1.1.6,159,-0.450,-0.450,-0.450,0.000,0.000,0.000
1641091170571854080,2022-01-02-02:39:30,10.1.1.6,159,-0.460,-0.460,-0.460,0.000,0.000,0.000
1641091170772445952,2022-01-02-02:39:30,10.1.1.6,158,-0.470,-0.470,-0.470,0.000,0.000,0.000
1641091170971961856,2022-01-02-02:39:30,10.1.1.6,156,-0.480,-0.480,-0.480,0.000,0.000,0.000
1641091171191252992,2022-01-02-02:39:31,10.1.1.6,174,-0.490,-0.490,-0.490,0.000,0.000,0.000
1641091171381455872,2022-01-02-02:39:31,10.1.1.6,164,-0.480,-0.480,-0.480,0.000,0.000,0.000
1641091171590884096,2022-01-02-02:39:31,10.1.1.6,173,-0.470,-0.470,-0.470,0.000,0.000,0.000
1641091171790419200,2022-01-02-02:39:31,10.1.1.6,171,-0.460,-0.460,-0.460,0.000,0.000,0.000
1641091171993902080,2022-01-02-02:39:31,10.1.1.6,171,-0.450,-0.450,-0.450,0.000,0.000,0.000
1641091172191399168,2022-01-02-02:39:32,10.1.1.6,171,-0.440,-0.440,-0.440,0.000,0.000,0.000
1641091172381614848,2022-01-02-02:39:32,10.1.1.6,159,-0.430,-0.430,-0.430,0.000,0.000,0.000
1641091172580348928,2022-01-02-02:39:32,10.1.1.6,156,-0.420,-0.420,-0.420,0.000,0.000,0.000
1641091172789196032,2022-01-02-02:39:32,10.1.1.6,166,-0.410,-0.410,-0.410,0.000,0.000,0.000
1641091172988653056,2022-01-02-02:39:32,10.1.1.6,164,-0.400,-0.400,-0.400,0.000,0.000,0.000
1641091173179241984,2022-01-02-02:39:33,10.1.1.6,154,-0.390,-0.390,-0.390,0.000,0.000,0.000
1641091173382545920,2022-01-02-02:39:33,10.1.1.6,157,-0.380,-0.380,-0.380,0.000,0.000,0.000
1641091173587468032,2022-01-02-02:39:33,10.1.1.6,162,-0.370,-0.370,-0.370,0.000,0.000,0.000
1641091173777939968,2022-01-02-02:39:33,10.1.1.6,151,-0.360,-0.360,-0.360,0.000,0.000,0.000
1641091173988858880,2022-01-02-02:39:33,10.1.1.6,161,-0.350,-0.350,-0.350,0.000,0.000,0.000
1641091174206674176,2022-01-02-02:39:34,10.1.1.6,178,-0.340,-0.340,-0.340,0.000,0.000,0.000
1641091174399279104,2022-01-02-02:39:34,10.1.1.6,170,-0.330,-0.330,-0.330,0.000,0.000,0.000
1641091174586030848,2022-01-02-02:39:34,10.1.1.6,156,-0.320,-0.320,-0.320,0.000,0.000,0.000
1641091174806225152,2022-01-02-02:39:34,10.1.1.6,176,-0.310,-0.310,-0.310,0.000,0.000,0.000
1641091174985498880,2022-01-02-02:39:34,10.1.1.6,154,-0.300,-0.300,-0.300,0.000,0.000,0.000
1641091175184634880,2022-01-02-02:39:35,10.1.1.6,153,-0.290,-0.290,-0.290,0.000,0.000,0.000
1641091175385977088,2022-01-02-02:39:35,10.1.1.6,154,-0.280,-0.280,-0.280,0.000,0.000,0.000
1641091175584041984,2022-01-02-02:39:35,10.1.1.6,151,-0.270,-0.270,-0.270,0.000,0.000,0.000
1641091175784087808,2022-01-02-02:39:35,10.1.1.6,150,-0.260,-0.260,-0.260,0.000,0.000,0.000
1641091175983997184,2022-01-02-02:39:35,10.1.1.6,148,-0.250,-0.250,-0.250,0.000,0.000,0.000
1641091176183662848,2022-01-02-02:39:36,10.1.1.6,146,-0.240,-0.240,-0.240,0.000,0.000,0.000
1641091176403377152,2022-01-02-02:39:36,10.1.1.6,165,-0.230,-0.230,-0.230,0.000,0.000,0.000
1641091176604593920,2022-01-02-02:39:36,10.1.1.6,165,-0.220,-0.220,-0.220,0.000,0.000,0.000
1641091176792129024,2022-01-02-02:39:36,10.1.1.6,151,-0.210,-0.210,-0.210,0.000,0.000,0.000
1641091177002064896,2022-01-02-02:39:37,10.1.1.6,159,-0.200,-0.200,-0.200,0.000,0.000,0.000
1641091177196605952,2022-01-02-02:39:37,10.1.1.6,153,-0.190,-0.190,-0.190,0.000,0.000,0.000
1641091177404604928,2022-01-02-02:39:37,10.1.1.6,161,-0.180,-0.180,-0.180,0.000,0.000,0.000
1641091177599942912,2022-01-02-02:39:37,10.1.1.6,156,-0.170,-0.170,-0.170,0.000,0.000,0.000
1641091177800777984,2022-01-02-02:39:37,10.1.1.6,156,-0.160,-0.160,-0.160,0.000,0.000,0.000
1641091178007805184,2022-01-02-02:39:38,10.1.1.6,162,-0.150,-0.150,-0.150,0.000,0.000,0.000
1641091178202896128,2022-01-02-02:39:38,10.1.1.6,152,-0.140,-0.140,-0.140,0.000,0.000,0.000
1641091178410546944,2022-01-02-02:39:38,10.1.1.6,163,-0.130,-0.130,-0.130,0.000,0.000,0.000
1641091178611342080,2022-01-02-02:39:38,10.1.1.6,164,-0.120,-0.120,-0.120,0.000,0.000,0.000
1641091178832099072,2022-01-02-02:39:38,10.1.1.6,183,-0.110,-0.110,-0.110,0.000,0.000,0.000
1641091179012690176,2022-01-02-02:39:39,10.1.1.6,163,-0.100,-0.100,-0.100,0.000,0.000,0.000
1641091179213403904,2022-01-02-02:39:39,10.1.1.6,163,-0.090,-0.090,-0.090,0.000,0.000,0.000
1641091179414043904,2022-01-02-02:39:39,10.1.1.6,163,-0.080,-0.080,-0.080,0.000,0.000,0.000
1641091179615004160,2022-01-02-02:39:39,10.1.1.6,162,-0.070,-0.070,-0.070,0.000,0.000,0.000
1641091179826631168,2022-01-02-02:39:39,10.1.1.6,173,-0.060,-0.060,-0.060,0.000,0.000,0.000
1641091180016376064,2022-01-02-02:39:40,10.1.1.6,163,-0.050,-0.050,-0.050,0.000,0.000,0.000
1641091180237804800,2022-01-02-02:39:40,10.1.1.6,183,-0.040,-0.040,-0.040,0.000,0.000,0.000
1641091180418509056,2022-01-02-02:39:40,10.1.1.6,164,-0.030,-0.030,-0.030,0.000,0.000,0.000
1641091180618231040,2022-01-02-02:39:40,10.1.1.6,163,-0.020,-0.020,-0.020,0.000,0.000,0.000
1641091180829436160,2022-01-02-02:39:40,10.1.1.6,173,-0.010,-0.010,-0.010,0.000,0.000,0.000
1641091181020414976,2022-01-02-02:39:41,10.1.1.6,164,-0.000,-0.000,-0.000,0.000,0.000,0.000
1641091181234603776,2022-01-02-02:39:41,10.1.1.6,177,-0.010,-0.010,-0.010,0.000,0.000,0.000
1641091181432548096,2022-01-02-02:39:41,10.1.1.6,174,-0.020,-0.020,-0.020,0.000,0.000,0.000
1641091181632671232,2022-01-02-02:39:41,10.1.1.6,173,-0.030,-0.030,-0.030,0.000,0.000,0.000
1641091181841860096,2022-01-02-02:39:41,10.1.1.6,182,-0.040,-0.040,-0.040,0.000,0.000,0.000
1641091182042201088,2022-01-02-02:39:42,10.1.1.6,181,-0.050,-0.050,-0.050,0.000,0.000,0.000
1641091182232635904,2022-01-02-02:39:42,10.1.1.6,170,-0.060,-0.060,-0.060,0.000,0.000,0.000
1641091182442450944,2022-01-02-02:39:42,10.1.1.6,179,-0.070,-0.070,-0.070,0.000,0.000,0.000
1641091182642894080,2022-01-02-02:39:42,10.1.1.6,179,-0.080,-0.080,-0.080,0.000,0.000,0.000
1641091182843670016,2022-01-02-02:39:42,10.1.1.6,179,-0.090,-0.090,-0.090,0.000,0.000,0.000
1641091183044208128,2022-01-02-02:39:43,10.1.1.6,179,-0.100,-0.100,-0.100,0.000,0.000,0.000
1641091183238405888,2022-01-02-02:39:43,10.1.1.6,172,-0.110,-0.110,-0.110,0.000,0.000,0.000
1641091183445282816,2022-01-02-02:39:43,10.1.1.6,178,-0.120,-0.120,-0.120,0.000,0.000,0.000
1641091183638667008,2022-01-02-02:39:43,10.1.1.6,172,-0.130,-0.130,-0.130,0.000,0.000,0.000
1641091183849860864,2022-01-02-02:39:43,10.1.1.6,181,-0.140,-0.140,-0.140,0.000,0.000,0.000
1641091184045878016,2022-01-02-02:39:44,10.1.1.6,176,-0.150,-0.150,-0.150,0.000,0.000,0.000
1641091184246115840,2022-01-02-02:39:44,10.1.1.6,175,-0.160,-0.160,-0.160,0.000,0.000,0.000
1641091184446388992,2022-01-02-02:39:44,10.1.1.6,175,-0.170,-0.170,-0.170,0.000,0.000,0.000
1641091184667081216,2022-01-02-02:39:44,10.1.1.6,194,-0.180,-0.180,-0.180,0.000,0.000,0.000
1641091184846468864,2022-01-02-02:39:44,10.1.1.6,172,-0.190,-0.190,-0.190,0.000,0.000,0.000
1641091185046545920,2022-01-02-02:39:45,10.1.1.6,172,-0.200,-0.200,-0.200,0.000,0.000,0.000
1641091185267395072,2022-01-02-02:39:45,10.1.1.6,192,-0.210,-0.210,-0.210,0.000,0.000,0.000
1641091185469827840,2022-01-02-02:39:45,10.1.1.6,193,-0.220,-0.220,-0.220,0.000,0.000,0.000
1641091185648005120,2022-01-02-02:39:45,10.1.1.6,171,-0.230,-0.230,-0.230,0.000,0.000,0.000
1641091185861861888,2022-01-02-02:39:45,10.1.1.6,182,-0.240,-0.240,-0.240,0.000,0.000,0.000
1641091186061491968,2022-01-02-02:39:46,10.1.1.6,181,-0.250,-0.250,-0.250,0.000,0.000,0.000
1641091186257967872,2022-01-02-02:39:46,10.1.1.6,176,-0.260,-0.260,-0.260,0.000,0.000,0.000
1641091186463362816,2022-01-02-02:39:46,10.1.1.6,180,-0.270,-0.270,-0.270,0.000,0.000,0.000
1641091186668185856,2022-01-02-02:39:46,10.1.1.6,183,-0.280,-0.280,-0.280,0.000,0.000,0.000
1641091186868641024,2022-01-02-02:39:46,10.1.1.6,183,-0.290,-0.290,-0.290,0.000,0.000,0.000
1641091187058795008,2022-01-02-02:39:47,10.1.1.6,172,-0.300,-0.300,-0.300,0.000,0.000,0.000
1641091187268619008,2022-01-02-02:39:47,10.1.1.6,182,-0.310,-0.310,-0.310,0.000,0.000,0.000
1641091187468653824,2022-01-02-02:39:47,10.1.1.6,181,-0.320,-0.320,-0.320,0.000,0.000,0.000
1641091187868647936,2022-01-02-02:39:47,10.1.1.6,180,-0.340,-0.340,-0.340,0.000,0.000,0.000
1641091188087987968,2022-01-02-02:39:48,10.1.1.6,198,-0.350,-0.350,-0.350,0.000,0.000,0.000
1641091188268254976,2022-01-02-02:39:48,10.1.1.6,178,-0.360,-0.360,-0.360,0.000,0.000,0.000
1641091188468552192,2022-01-02-02:39:48,10.1.1.6,178,-0.370,-0.370,-0.370,0.000,0.000,0.000
1641091188668590080,2022-01-02-02:39:48,10.1.1.6,177,-0.380,-0.380,-0.380,0.000,0.000,0.000
1641091189068978944,2022-01-02-02:39:49,10.1.1.6,174,-0.400,-0.400,-0.400,0.000,0.000,0.000
1641091189287819008,2022-01-02-02:39:49,10.1.1.6,189,-0.410,-0.410,-0.410,0.000,0.000,0.000
1641091189488825088,2022-01-02-02:39:49,10.1.1.6,188,-0.420,-0.420,-0.420,0.000,0.000,0.000
1641091189678823936,2022-01-02-02:39:49,10.1.1.6,177,-0.430,-0.430,-0.430,0.000,0.000,0.000
1641091189888588800,2022-01-02-02:39:49,10.1.1.6,186,-0.440,-0.440,-0.440,0.000,0.000,0.000
1641091190087974144,2022-01-02-02:39:50,10.1.1.6,184,-0.450,-0.450,-0.450,0.000,0.000,0.000
1641091190288098048,2022-01-02-02:39:50,10.1.1.6,184,-0.460,-0.460,-0.460,0.000,0.000,0.000
1641091190488609024,2022-01-02-02:39:50,10.1.1.6,183,-0.470,-0.470,-0.470,0.000,0.000,0.000
1641091190687392000,2022-01-02-02:39:50,10.1.1.6,182,-0.480,-0.480,-0.480,0.000,0.000,0.000
1641091190887790848,2022-01-02-02:39:50,10.1.1.6,181,-0.490,-0.490,-0.490,0.000,0.000,0.000
1641091191087665920,2022-01-02-02:39:51,10.1.1.6,181,-0.480,-0.480,-0.480,0.000,0.000,0.000
1641091191287570944,2022-01-02-02:39:51,10.1.1.6,180,-0.470,-0.470,-0.470,0.000,0.000,0.000
1641091191487051008,2022-01-02-02:39:51,10.1.1.6,178,-0.460,-0.460,-0.460,0.000,0.000,0.000
1641091191687030016,2022-01-02-02:39:51,10.1.1.6,178,-0.450,-0.450,-0.450,0.000,0.000,0.000
1641091191887159040,2022-01-02-02:39:51,10.1.1.6,177,-0.440,-0.440,-0.440,0.000,0.000,0.000
1641091192107105024,2022-01-02-02:39:52,10.1.1.6,196,-0.430,-0.430,-0.430,0.000,0.000,0.000
1641091192287759104,2022-01-02-02:39:52,10.1.1.6,176,-0.420,-0.420,-0.420,0.000,0.000,0.000
1641091192486810880,2022-01-02-02:39:52,10.1.1.6,174,-0.410,-0.410,-0.410,0.000,0.000,0.000
1641091192686459136,2022-01-02-02:39:52,10.1.1.6,172,-0.400,-0.400,-0.400,0.000,0.000,0.000
1641091192886791936,2022-01-02-02:39:52,10.1.1.6,172,-0.390,-0.390,-0.390,0.000,0.000,0.000
1641091193106676992,2022-01-02-02:39:53,10.1.1.6,191,-0.380,-0.380,-0.380,0.000,0.000,0.000
1641091193296269056,2022-01-02-02:39:53,10.1.1.6,180,-0.370,-0.370,-0.370,0.000,0.000,0.000
1641091193506313984,2022-01-02-02:39:53,10.1.1.6,189,-0.360,-0.360,-0.360,0.000,0.000,0.000
1641091193705664000,2022-01-02-02:39:53,10.1.1.6,186,-0.350,-0.350,-0.350,0.000,0.000,0.000
1641091193910029056,2022-01-02-02:39:53,10.1.1.6,190,-0.340,-0.340,-0.340,0.000,0.000,0.000
1641091194098525952,2022-01-02-02:39:54,10.1.1.6,177,-0.330,-0.330,-0.330,0.000,0.000,0.000
1641091194304652032,2022-01-02-02:39:54,10.1.1.6,183,-0.320,-0.320,-0.320,0.000,0.000,0.000
1641091194504859904,2022-01-02-02:39:54,10.1.1.6,182,-0.310,-0.310,-0.310,0.000,0.000,0.000
1641091194698924032,2022-01-02-02:39:54,10.1.1.6,174,-0.300,-0.300,-0.300,0.000,0.000,0.000
1641091194904529152,2022-01-02-02:39:54,10.1.1.6,178,-0.290,-0.290,-0.290,0.000,0.000,0.000
1641091195124433920,2022-01-02-02:39:55,10.1.1.6,197,-0.280,-0.280,-0.280,0.000,0.000,0.000
1641091195324421888,2022-01-02-02:39:55,10.1.1.6,196,-0.270,-0.270,-0.270,0.000,0.000,0.000
1641091195503613952,2022-01-02-02:39:55,10.1.1.6,174,-0.260,-0.260,-0.260,0.000,0.000,0.000
1641091195703297024,2022-01-02-02:39:55,10.1.1.6,173,-0.250,-0.250,-0.250,0.000,0.000,0.000
1641091195923458048,2022-01-02-02:39:55,10.1.1.6,192,-0.240,-0.240,-0.240,0.000,0.000,0.000
1641091196102699008,2022-01-02-02:39:56,10.1.1.6,171,-0.230,-0.230,-0.230,0.000,0.000,0.000
1641091196304619008,2022-01-02-02:39:56,10.1.1.6,172,-0.220,-0.220,-0.220,0.000,0.000,0.000
1641091196522288128,2022-01-02-02:39:56,10.1.1.6,189,-0.210,-0.210,-0.210,0.000,0.000,0.000
1641091196702486016,2022-01-02-02:39:56,10.1.1.6,168,-0.200,-0.200,-0.200,0.000,0.000,0.000
1641091196902515968,2022-01-02-02:39:56,10.1.1.6,166,-0.190,-0.190,-0.190,0.000,0.000,0.000
1641091197122492928,2022-01-02-02:39:57,10.1.1.6,185,-0.180,-0.180,-0.180,0.000,0.000,0.000
1641091197321851904,2022-01-02-02:39:57,10.1.1.6,184,-0.170,-0.170,-0.170,0.000,0.000,0.000
1641091197521817856,2022-01-02-02:39:57,10.1.1.6,184,-0.160,-0.160,-0.160,0.000,0.000,0.000
1641091197711400960,2022-01-02-02:39:57,10.1.1.6,172,-0.150,-0.150,-0.150,0.000,0.000,0.000
1641091197921523200,2022-01-02-02:39:57,10.1.1.6,182,-0.140,-0.140,-0.140,0.000,0.000,0.000
1641091198115368960,2022-01-02-02:39:58,10.1.1.6,175,-0.130,-0.130,-0.130,0.000,0.000,0.000
1641091198324805888,2022-01-02-02:39:58,10.1.1.6,184,-0.120,-0.120,-0.120,0.000,0.000,0.000
1641091198516638976,2022-01-02-02:39:58,10.1.1.6,174,-0.110,-0.110,-0.110,0.000,0.000,0.000
1641091198709522944,2022-01-02-02:39:58,10.1.1.6,166,-0.100,-0.100,-0.100,0.000,0.000,0.000
1641091198911997184,2022-01-02-02:39:58,10.1.1.6,168,-0.090,-0.090,-0.090,0.000,0.000,0.000
1641091199124092160,2022-01-02-02:39:59,10.1.1.6,179,-0.080,-0.080,-0.080,0.000,0.000,0.000
1641091199319767040,2022-01-02-02:39:59,10.1.1.6,172,-0.070,-0.070,-0.070,0.000,0.000,0.000
1641091199518652928,2022-01-02-02:39:59,10.1.1.6,170,-0.060,-0.060,-0.060,0.000,0.000,0.000
1641091199718352128,2022-01-02-02:39:59,10.1.1.6,168,-0.050,-0.050,-0.050,0.000,0.000,0.000
1641091199918685952,2022-01-02-02:39:59,10.1.1.6,168,-0.040,-0.040,-0.040,0.000,0.000,0.000
1641091200138302976,2022-01-02-02:40:00,10.1.1.6,186,-0.030,-0.030,-0.030,0.000,0.000,0.000
1641091200318023936,2022-01-02-02:40:00,10.1.1.6,166,-0.020,-0.020,-0.020,0.000,0.000,0.000
1641091200518024960,2022-01-02-02:40:00,10.1.1.6,165,-0.010,-0.010,-0.010,0.000,0.000,0.000
1641091200720696064,2022-01-02-02:40:00,10.1.1.6,167,0.000,0.000,0.000,0.000,0.000,0.000
1641091200918139904,2022-01-02-02:40:00,10.1.1.6,164,-0.010,-0.010,-0.010,0.000,0.000,0.000
1641091201117171968,2022-01-02-02:40:01,10.1.1.6,161,-0.020,-0.020,-0.020,0.000,0.000,0.000
1641091201336335872,2022-01-02-02:40:01,10.1.1.6,180,-0.030,-0.030,-0.030,0.000,0.000,0.000
1641091201536529920,2022-01-02-02:40:01,10.1.1.6,178,-0.040,-0.040,-0.040,0.000,0.000,0.000
1641091201726150144,2022-01-02-02:40:01,10.1.1.6,167,-0.050,-0.050,-0.050,0.000,0.000,0.000
1641091201935609088,2022-01-02-02:40:01,10.1.1.6,175,-0.060,-0.060,-0.060,0.000,0.000,0.000
1641091202135879936,2022-01-02-02:40:02,10.1.1.6,175,-0.070,-0.070,-0.070,0.000,0.000,0.000
1641091202335171840,2022-01-02-02:40:02,10.1.1.6,171,-0.080,-0.080,-0.080,0.000,0.000,0.000
1641091202535288064,2022-01-02-02:40:02,10.1.1.6,170,-0.090,-0.090,-0.090,0.000,0.000,0.000
1641091202726711040,2022-01-02-02:40:02,10.1.1.6,160,-0.100,-0.100,-0.100,0.000,0.000,0.000
1641091202933649920,2022-01-02-02:40:02,10.1.1.6,166,-0.110,-0.110,-0.110,0.000,0.000,0.000
1641091203134779904,2022-01-02-02:40:03,10.1.1.6,165,-0.120,-0.120,-0.120,0.000,0.000,0.000
1641091203353473024,2022-01-02-02:40:03,10.1.1.6,183,-0.130,-0.130,-0.130,0.000,0.000,0.000
1641091203533637888,2022-01-02-02:40:03,10.1.1.6,162,-0.140,-0.140,-0.140,0.000,0.000,0.000
1641091203758212096,2022-01-02-02:40:03,10.1.1.6,186,-0.150,-0.150,-0.150,0.000,0.000,0.000
1641091203933190144,2022-01-02-02:40:03,10.1.1.6,161,-0.160,-0.160,-0.160,0.000,0.000,0.000
1641091204152196864,2022-01-02-02:40:04,10.1.1.6,179,-0.170,-0.170,-0.170,0.000,0.000,0.000
1641091204332663040,2022-01-02-02:40:04,10.1.1.6,159,-0.180,-0.180,-0.180,0.000,0.000,0.000
1641091204551976960,2022-01-02-02:40:04,10.1.1.6,177,-0.190,-0.190,-0.190,0.000,0.000,0.000
1641091204731954944,2022-01-02-02:40:04,10.1.1.6,156,-0.200,-0.200,-0.200,0.000,0.000,0.000
1641091204930963968,2022-01-02-02:40:04,10.1.1.6,154,-0.210,-0.210,-0.210,0.000,0.000,0.000
1641091205148137984,2022-01-02-02:40:05,10.1.1.6,166,-0.220,-0.220,-0.220,0.000,0.000,0.000
1641091205343110144,2022-01-02-02:40:05,10.1.1.6,164,-0.230,-0.230,-0.230,0.000,0.000,0.000
1641091205549652992,2022-01-02-02:40:05,10.1.1.6,164,-0.240,-0.240,-0.240,0.000,0.000,0.000
1641091205751540992,2022-01-02-02:40:05,10.1.1.6,170,-0.250,-0.250,-0.250,0.000,0.000,0.000
1641091205950373888,2022-01-02-02:40:05,10.1.1.6,161,-0.260,-0.260,-0.260,0.000,0.000,0.000
1641091206149355008,2022-01-02-02:40:06,10.1.1.6,159,-0.270,-0.270,-0.270,0.000,0.000,0.000
1641091206369980928,2022-01-02-02:40:06,10.1.1.6,179,-0.280,-0.280,-0.280,0.000,0.000,0.000
1641091206568971008,2022-01-02-02:40:06,10.1.1.6,178,-0.290,-0.290,-0.290,0.000,0.000,0.000
1641091206748331008,2022-01-02-02:40:06,10.1.1.6,155,-0.300,-0.300,-0.300,0.000,0.000,0.000
1641091206962054912,2022-01-02-02:40:06,10.1.1.6,168,-0.310,-0.310,-0.310,0.000,0.000,0.000
1641091207148318976,2022-01-02-02:40:07,10.1.1.6,152,-0.320,-0.320,-0.320,0.000,0.000,0.000
1641091207367223040,2022-01-02-02:40:07,10.1.1.6,170,-0.330,-0.330,-0.330,0.000,0.000,0.000
1641091207566776064,2022-01-02-02:40:07,10.1.1.6,169,-0.340,-0.340,-0.340,0.000,0.000,0.000
1641091207761652992,2022-01-02-02:40:07,10.1.1.6,162,-0.350,-0.350,-0.350,0.000,0.000,0.000
1641091207966825984,2022-01-02-02:40:07,10.1.1.6,166,-0.360,-0.360,-0.360,0.000,0.000,0.000
1641091208166171136,2022-01-02-02:40:08,10.1.1.6,164,-0.370,-0.370,-0.370,0.000,0.000,0.000
1641091208365655808,2022-01-02-02:40:08,10.1.1.6,163,-0.380,-0.380,-0.380,0.000,0.000,0.000
1641091208558464000,2022-01-02-02:40:08,10.1.1.6,155,-0.390,-0.390,-0.390,0.000,0.000,0.000
1641091208766330112,2022-01-02-02:40:08,10.1.1.6,162,-0.400,-0.400,-0.400,0.000,0.000,0.000
1641091208965260032,2022-01-02-02:40:08,10.1.1.6,160,-0.410,-0.410,-0.410,0.000,0.000,0.000
1641091209159552000,2022-01-02-02:40:09,10.1.1.6,151,-0.420,-0.420,-0.420,0.000,0.000,0.000
1641091209357073152,2022-01-02-02:40:09,10.1.1.6,151,-0.430,-0.430,-0.430,0.000,0.000,0.000
1641091209559271936,2022-01-02-02:40:09,10.1.1.6,152,-0.440,-0.440,-0.440,0.000,0.000,0.000
1641091209788616960,2022-01-02-02:40:09,10.1.1.6,181,-0.450,-0.450,-0.450,0.000,0.000,0.000
1641091209983212032,2022-01-02-02:40:09,10.1.1.6,175,-0.460,-0.460,-0.460,0.000,0.000,0.000
1641091210190213888,2022-01-02-02:40:10,10.1.1.6,181,-0.470,-0.470,-0.470,0.000,0.000,0.000
1641091210392094976,2022-01-02-02:40:10,10.1.1.6,182,-0.480,-0.480,-0.480,0.000,0.000,0.000
1641091210587604992,2022-01-02-02:40:10,10.1.1.6,177,-0.490,-0.490,-0.490,0.000,0.000,0.000
1641091210775397888,2022-01-02-02:40:10,10.1.1.6,163,-0.480,-0.480,-0.480,0.000,0.000,0.000
1641091210994429184,2022-01-02-02:40:10,10.1.1.6,180,-0.470,-0.470,-0.470,0.000,0.000,0.000
1641091211179958016,2022-01-02-02:40:11,10.1.1.6,164,-0.460,-0.460,-0.460,0.000,0.000,0.000
1641091211375823872,2022-01-02-02:40:11,10.1.1.6,159,-0.450,-0.450,-0.450,0.000,0.000,0.000
1641091211597426944,2022-01-02-02:40:11,10.1.1.6,179,-0.440,-0.440,-0.440,0.000,0.000,0.000
1641091211797420032,2022-01-02-02:40:11,10.1.1.6,177,-0.430,-0.430,-0.430,0.000,0.000,0.000
1641091211991260160,2022-01-02-02:40:11,10.1.1.6,168,-0.420,-0.420,-0.420,0.000,0.000,0.000
1641091212197850880,2022-01-02-02:40:12,10.1.1.6,175,-0.410,-0.410,-0.410,0.000,0.000,0.000
1641091212399496192,2022-01-02-02:40:12,10.1.1.6,174,-0.400,-0.400,-0.400,0.000,0.000,0.000
1641091212599420928,2022-01-02-02:40:12,10.1.1.6,174,-0.390,-0.390,-0.390,0.000,0.000,0.000
1641091212800132864,2022-01-02-02:40:12,10.1.1.6,174,-0.380,-0.380,-0.380,0.000,0.000,0.000
1641091212991017216,2022-01-02-02:40:12,10.1.1.6,164,-0.370,-0.370,-0.370,0.000,0.000,0.000
1641091213221169920,2022-01-02-02:40:13,10.1.1.6,193,-0.360,-0.360,-0.360,0.000,0.000,0.000
1641091213401767936,2022-01-02-02:40:13,10.1.1.6,173,-0.350,-0.350,-0.350,0.000,0.000,0.000
1641091213601809152,2022-01-02-02:40:13,10.1.1.6,173,-0.340,-0.340,-0.340,0.000,0.000,0.000
1641091213802486784,2022-01-02-02:40:13,10.1.1.6,172,-0.330,-0.330,-0.330,0.000,0.000,0.000
1641091214015683840,2022-01-02-02:40:14,10.1.1.6,185,-0.320,-0.320,-0.320,0.000,0.000,0.000
1641091214204366080,2022-01-02-02:40:14,10.1.1.6,172,-0.310,-0.310,-0.310,0.000,0.000,0.000
1641091214424216064,2022-01-02-02:40:14,10.1.1.6,191,-0.300,-0.300,-0.300,0.000,0.000,0.000
1641091214624134144,2022-01-02-02:40:14,10.1.1.6,190,-0.290,-0.290,-0.290,0.000,0.000,0.000
1641091214824227072,2022-01-02-02:40:14,10.1.1.6,189,-0.280,-0.280,-0.280,0.000,0.000,0.000
1641091215004500992,2022-01-02-02:40:15,10.1.1.6,168,-0.270,-0.270,-0.270,0.000,0.000,0.000
1641091215217217024,2022-01-02-02:40:15,10.1.1.6,180,-0.260,-0.260,-0.260,0.000,0.000,0.000
1641091215429090048,2022-01-02-02:40:15,10.1.1.6,191,-0.250,-0.250,-0.250,0.000,0.000,0.000
1641091215625282048,2022-01-02-02:40:15,10.1.1.6,186,-0.240,-0.240,-0.240,0.000,0.000,0.000
1641091215825233920,2022-01-02-02:40:15,10.1.1.6,185,-0.230,-0.230,-0.230,0.000,0.000,0.000
1641091216026618880,2022-01-02-02:40:16,10.1.1.6,186,-0.220,-0.220,-0.220,0.000,0.000,0.000
1641091216226382080,2022-01-02-02:40:16,10.1.1.6,185,-0.210,-0.210,-0.210,0.000,0.000,0.000
1641091216428137984,2022-01-02-02:40:16,10.1.1.6,186,-0.200,-0.200,-0.200,0.000,0.000,0.000
1641091216627522048,2022-01-02-02:40:16,10.1.1.6,185,-0.190,-0.190,-0.190,0.000,0.000,0.000
1641091216826641920,2022-01-02-02:40:16,10.1.1.6,183,-0.180,-0.180,-0.180,0.000,0.000,0.000
1641091217027206912,2022-01-02-02:40:17,10.1.1.6,183,-0.170,-0.170,-0.170,0.000,0.000,0.000
1641091217217957888,2022-01-02-02:40:17,10.1.1.6,172,-0.160,-0.160,-0.160,0.000,0.000,0.000
1641091217426793216,2022-01-02-02:40:17,10.1.1.6,181,-0.150,-0.150,-0.150,0.000,0.000,0.000
1641091217627422208,2022-01-02-02:40:17,10.1.1.6,178,-0.140,-0.140,-0.140,0.000,0.000,0.000
1641091217827209984,2022-01-02-02:40:17,10.1.1.6,178,-0.130,-0.130,-0.130,0.000,0.000,0.000
1641091218038768896,2022-01-02-02:40:18,10.1.1.6,189,-0.120,-0.120,-0.120,0.000,0.000,0.000
1641091218238189056,2022-01-02-02:40:18,10.1.1.6,188,-0.110,-0.110,-0.110,0.000,0.000,0.000
1641091218427149056,2022-01-02-02:40:18,10.1.1.6,176,-0.100,-0.100,-0.100,0.000,0.000,0.000
1641091218627497984,2022-01-02-02:40:18,10.1.1.6,176,-0.090,-0.090,-0.090,0.000,0.000,0.000
1641091218827831040,2022-01-02-02:40:18,10.1.1.6,175,-0.080,-0.080,-0.080,0.000,0.000,0.000
1641091219048423936,2022-01-02-02:40:19,10.1.1.6,195,-0.070,-0.070,-0.070,0.000,0.000,0.000
1641091219228729088,2022-01-02-02:40:19,10.1.1.6,175,-0.060,-0.060,-0.060,0.000,0.000,0.000
1641091219448029952,2022-01-02-02:40:19,10.1.1.6,194,-0.050,-0.050,-0.050,0.000,0.000,0.000
1641091219627880192,2022-01-02-02:40:19,10.1.1.6,173,-0.040,-0.040,-0.040,0.000,0.000,0.000
1641091219828190208,2022-01-02-02:40:19,10.1.1.6,172,-0.030,-0.030,-0.030,0.000,0.000,0.000
1641091220028111104,2022-01-02-02:40:20,10.1.1.6,172,-0.020,-0.020,-0.020,0.000,0.000,0.000
