FedericoMungari/DigitalTwin_service/02_LTEScenario/Output/Output_script/script_ROSAPI_output_robots12_freq0_9.txt.csv
timestamp,node,latency,joint_1,joint_2,joint_3,joint_4,joint_5,joint_6
1640078741179766784,"2021-12-21,09:25:40",10.1.1.10,16436,0.000,0.000,0.000,0.000,0.000,0.000
1640078743121917952,"2021-12-21,09:25:43",10.1.1.10,306,-0.010,-0.010,-0.010,0.000,0.000,0.000
1640078743162632960,"2021-12-21,09:25:43",10.1.1.10,0.3470888137817383,-0.010,-0.010,-0.010,0.000,0.000,0.000
1640078743472408064,"2021-12-21,09:25:43",10.1.1.10,306,-0.020,-0.020,-0.020,0.000,0.000,0.000
1640078743497939968,"2021-12-21,09:25:43",10.1.1.10,0.33206701278686523,-0.020,-0.020,-0.020,0.000,0.000,0.000
1640078743801285888,"2021-12-21,09:25:43",10.1.1.10,296,-0.030,-0.030,-0.030,0.000,0.000,0.000
1640078743840483072,"2021-12-21,09:25:43",10.1.1.10,0.3355691432952881,-0.030,-0.030,-0.030,0.000,0.000,0.000
1640078744151747840,"2021-12-21,09:25:44",10.1.1.10,309,-0.040,-0.040,-0.040,0.000,0.000,0.000
1640078744188314880,"2021-12-21,09:25:44",10.1.1.10,0.34659385681152344,-0.040,-0.040,-0.040,0.000,0.000,0.000
1640078744527127040,"2021-12-21,09:25:44",10.1.1.10,0.3357219696044922,-0.050,-0.050,-0.050,0.000,0.000,0.000
1640078744527489024,"2021-12-21,09:25:44",10.1.1.10,336,-0.050,-0.050,-0.050,0.000,0.000,0.000
1640078744860027136,"2021-12-21,09:25:44",10.1.1.10,329,-0.060,-0.060,-0.060,0.000,0.000,0.000
1640078744918166016,"2021-12-21,09:25:44",10.1.1.10,0.3881831169128418,-0.060,-0.060,-0.060,0.000,0.000,0.000
1640078745609103872,"2021-12-21,09:25:45",10.1.1.10,687,-0.070,-0.070,-0.070,0.000,0.000,0.000
1640078745641665024,"2021-12-21,09:25:45",10.1.1.10,0.7209529876708984,-0.070,-0.070,-0.070,0.000,0.000,0.000
1640078745987397888,"2021-12-21,09:25:45",10.1.1.10,344,-0.080,-0.080,-0.080,0.000,0.000,0.000
1640078746044975104,"2021-12-21,09:25:46",10.1.1.10,0.4017162322998047,-0.080,-0.080,-0.080,0.000,0.000,0.000
1640078746356408064,"2021-12-21,09:25:46",10.1.1.10,310,-0.090,-0.090,-0.090,0.000,0.000,0.000
1640078746424701952,"2021-12-21,09:25:46",10.1.1.10,0.37853288650512695,-0.090,-0.090,-0.090,0.000,0.000,0.000
1640078746746624000,"2021-12-21,09:25:46",10.1.1.10,320,-0.100,-0.100,-0.100,0.000,0.000,0.000
1640078746808026112,"2021-12-21,09:25:46",10.1.1.10,0.38212084770202637,-0.100,-0.100,-0.100,0.000,0.000,0.000
1640078747107321088,"2021-12-21,09:25:47",10.1.1.10,297,-0.110,-0.110,-0.110,0.000,0.000,0.000
1640078747158576896,"2021-12-21,09:25:47",10.1.1.10,0.34697604179382324,-0.110,-0.110,-0.110,0.000,0.000,0.000
1640078747490353152,"2021-12-21,09:25:47",10.1.1.10,328,-0.120,-0.120,-0.120,0.000,0.000,0.000
1640078747497068800,"2021-12-21,09:25:47",10.1.1.10,0.3359501361846924,-0.120,-0.120,-0.120,0.000,0.000,0.000
1640078747858473984,"2021-12-21,09:25:47",10.1.1.10,349,-0.130,-0.130,-0.130,0.000,0.000,0.000
1640078747880397056,"2021-12-21,09:25:47",10.1.1.10,0.3713409900665283,-0.130,-0.130,-0.130,0.000,0.000,0.000
1640078748219968000,"2021-12-21,09:25:48",10.1.1.10,332,-0.140,-0.140,-0.140,0.000,0.000,0.000
1640078748249654016,"2021-12-21,09:25:48",10.1.1.10,0.36213088035583496,-0.140,-0.140,-0.140,0.000,0.000,0.000
1640078748602031104,"2021-12-21,09:25:48",10.1.1.10,335,-0.150,-0.150,-0.150,0.000,0.000,0.000
1640078748616094208,"2021-12-21,09:25:48",10.1.1.10,0.3491828441619873,-0.150,-0.150,-0.150,0.000,0.000,0.000
1640078775821201920,"2021-12-21,09:26:01",10.1.1.10,12896,-0.160,-0.160,-0.160,0.000,0.000,0.000
1640078782559969792,"2021-12-21,09:26:19",10.1.1.10,2797,-0.170,-0.170,-0.170,0.000,0.000,0.000
1640078793905224192,"2021-12-21,09:26:23",10.1.1.10,6.511184930801392,-0.170,-0.170,-0.170,0.000,0.000,0.000
1640078821569895936,"2021-12-21,09:26:51",10.1.1.10,16935,-0.180,-0.180,-0.180,0.000,0.000,0.000
1640078825008022016,"2021-12-21,09:27:02",10.1.1.10,27.688721895217896,-0.180,-0.180,-0.180,0.000,0.000,0.000
1640078825661734144,"2021-12-21,09:27:05",10.1.1.10,557,-0.190,-0.190,-0.190,0.000,0.000,0.000
1640078825681262080,"2021-12-21,09:27:05",10.1.1.10,0.5772380828857422,-0.190,-0.190,-0.190,0.000,0.000,0.000
1640078826055170048,"2021-12-21,09:27:06",10.1.1.10,0.37255120277404785,-0.200,-0.200,-0.200,0.000,0.000,0.000
1640078826057876224,"2021-12-21,09:27:06",10.1.1.10,375,-0.200,-0.200,-0.200,0.000,0.000,0.000
1640078826532751104,"2021-12-21,09:27:06",10.1.1.10,364,-0.210,-0.210,-0.210,0.000,0.000,0.000
1640078826596175872,"2021-12-21,09:27:06",10.1.1.10,0.42812395095825195,-0.210,-0.210,-0.210,0.000,0.000,0.000
1640078826982769920,"2021-12-21,09:27:06",10.1.1.10,385,-0.220,-0.220,-0.220,0.000,0.000,0.000
1640078827079088896,"2021-12-21,09:27:07",10.1.1.10,0.48162198066711426,-0.220,-0.220,-0.220,0.000,0.000,0.000
1640078837272454912,"2021-12-21,09:27:10",10.1.1.10,2931,-0.230,-0.230,-0.230,0.000,0.000,0.000
1640078848716919040,"2021-12-21,09:27:20",10.1.1.10,13.451066017150879,-0.230,-0.230,-0.230,0.000,0.000,0.000
1640078863527386880,"2021-12-21,09:27:39",10.1.1.10,9.819671869277954,-0.240,-0.240,-0.240,0.000,0.000,0.000
1640078909722511104,"2021-12-21,09:28:15",10.1.1.10,29662,-0.250,-0.250,-0.250,0.000,0.000,0.000
1640078909746315008,"2021-12-21,09:28:29",10.1.1.10,43.853729009628296,-0.250,-0.250,-0.250,0.000,0.000,0.000
1640078911006371072,"2021-12-21,09:28:31",10.1.1.10,1226,-0.260,-0.260,-0.260,0.000,0.000,0.000
1640078911055563008,"2021-12-21,09:28:31",10.1.1.10,1.2776188850402832,-0.260,-0.260,-0.260,0.000,0.000,0.000
1640078911435006976,"2021-12-21,09:28:31",10.1.1.10,377,-0.270,-0.270,-0.270,0.000,0.000,0.000
1640078911484619008,"2021-12-21,09:28:31",10.1.1.10,0.42717981338500977,-0.270,-0.270,-0.270,0.000,0.000,0.000
1640078912517595904,"2021-12-21,09:28:32",10.1.1.10,420,-0.280,-0.280,-0.280,0.000,0.000,0.000
1640078912588510976,"2021-12-21,09:28:32",10.1.1.10,0.49191904067993164,-0.280,-0.280,-0.280,0.000,0.000,0.000
1640078913248062976,"2021-12-21,09:28:33",10.1.1.10,655,-0.290,-0.290,-0.290,0.000,0.000,0.000
1640078913307234048,"2021-12-21,09:28:33",10.1.1.10,0.7153708934783936,-0.290,-0.290,-0.290,0.000,0.000,0.000
1640078913614082048,"2021-12-21,09:28:33",10.1.1.10,305,-0.300,-0.300,-0.300,0.000,0.000,0.000
1640078913670489088,"2021-12-21,09:28:33",10.1.1.10,0.3557088375091553,-0.300,-0.300,-0.300,0.000,0.000,0.000
1640078914007048960,"2021-12-21,09:28:34",10.1.1.10,335,-0.310,-0.310,-0.310,0.000,0.000,0.000
1640078914046742016,"2021-12-21,09:28:34",10.1.1.10,0.3747267723083496,-0.310,-0.310,-0.310,0.000,0.000,0.000
1640078914407675904,"2021-12-21,09:28:34",10.1.1.10,357,-0.320,-0.320,-0.320,0.000,0.000,0.000
1640078914435555840,"2021-12-21,09:28:34",10.1.1.10,0.3858950138092041,-0.320,-0.320,-0.320,0.000,0.000,0.000
1640078914847404032,"2021-12-21,09:28:34",10.1.1.10,407,-0.330,-0.330,-0.330,0.000,0.000,0.000
1640078914852584960,"2021-12-21,09:28:34",10.1.1.10,0.4128420352935791,-0.330,-0.330,-0.330,0.000,0.000,0.000
1640078915373487104,"2021-12-21,09:28:35",10.1.1.10,519,-0.340,-0.340,-0.340,0.000,0.000,0.000
1640078915393764864,"2021-12-21,09:28:35",10.1.1.10,0.5392961502075195,-0.340,-0.340,-0.340,0.000,0.000,0.000
1640078915784065024,"2021-12-21,09:28:35",10.1.1.10,384,-0.350,-0.350,-0.350,0.000,0.000,0.000
1640078915828158976,"2021-12-21,09:28:35",10.1.1.10,0.4298670291900635,-0.350,-0.350,-0.350,0.000,0.000,0.000
1640078916198631936,"2021-12-21,09:28:36",10.1.1.10,356,-0.360,-0.360,-0.360,0.000,0.000,0.000
1640078916218693888,"2021-12-21,09:28:36",10.1.1.10,0.3760049343109131,-0.360,-0.360,-0.360,0.000,0.000,0.000
1640078916592550912,"2021-12-21,09:28:36",10.1.1.10,367,-0.370,-0.370,-0.370,0.000,0.000,0.000
1640078916668747776,"2021-12-21,09:28:36",10.1.1.10,0.4436659812927246,-0.370,-0.370,-0.370,0.000,0.000,0.000
1640078917022413056,"2021-12-21,09:28:37",10.1.1.10,352,-0.380,-0.380,-0.380,0.000,0.000,0.000
1640078917038584064,"2021-12-21,09:28:37",10.1.1.10,0.3684110641479492,-0.380,-0.380,-0.380,0.000,0.000,0.000
1640078917383785984,"2021-12-21,09:28:37",10.1.1.10,342,-0.390,-0.390,-0.390,0.000,0.000,0.000
1640078917398021888,"2021-12-21,09:28:37",10.1.1.10,0.35716700553894043,-0.390,-0.390,-0.390,0.000,0.000,0.000
1640078917768100864,"2021-12-21,09:28:37",10.1.1.10,367,-0.400,-0.400,-0.400,0.000,0.000,0.000
1640078917813360896,"2021-12-21,09:28:37",10.1.1.10,0.41394805908203125,-0.400,-0.400,-0.400,0.000,0.000,0.000
1640078918749163008,"2021-12-21,09:28:38",10.1.1.10,329,-0.410,-0.410,-0.410,0.000,0.000,0.000
1640078918769270016,"2021-12-21,09:28:38",10.1.1.10,0.35057783126831055,-0.410,-0.410,-0.410,0.000,0.000,0.000
1640078919885408000,"2021-12-21,09:28:39",10.1.1.10,1113,-0.420,-0.420,-0.420,0.000,0.000,0.000
1640078919976766976,"2021-12-21,09:28:39",10.1.1.10,1.2048861980438232,-0.420,-0.420,-0.420,0.000,0.000,0.000
1640078920305576192,"2021-12-21,09:28:40",10.1.1.10,326,-0.430,-0.430,-0.430,0.000,0.000,0.000
1640078920316296192,"2021-12-21,09:28:40",10.1.1.10,0.3378770351409912,-0.430,-0.430,-0.430,0.000,0.000,0.000
1640078920706948096,"2021-12-21,09:28:40",10.1.1.10,386,-0.440,-0.440,-0.440,0.000,0.000,0.000
1640078920765768960,"2021-12-21,09:28:40",10.1.1.10,0.44696807861328125,-0.440,-0.440,-0.440,0.000,0.000,0.000
1640078921191590144,"2021-12-21,09:28:41",10.1.1.10,421,-0.450,-0.450,-0.450,0.000,0.000,0.000
1640078921232582144,"2021-12-21,09:28:41",10.1.1.10,0.45884203910827637,-0.450,-0.450,-0.450,0.000,0.000,0.000
1640078921590430976,"2021-12-21,09:28:41",10.1.1.10,356,-0.460,-0.460,-0.460,0.000,0.000,0.000
1640078921616646144,"2021-12-21,09:28:41",10.1.1.10,0.3822810649871826,-0.460,-0.460,-0.460,0.000,0.000,0.000
1640078921942136064,"2021-12-21,09:28:41",10.1.1.10,323,-0.470,-0.470,-0.470,0.000,0.000,0.000
1640078921951755008,"2021-12-21,09:28:41",10.1.1.10,0.33350086212158203,-0.470,-0.470,-0.470,0.000,0.000,0.000
1640078922262093056,"2021-12-21,09:28:42",10.1.1.10,309,-0.480,-0.480,-0.480,0.000,0.000,0.000
1640078922303132160,"2021-12-21,09:28:42",10.1.1.10,0.3501310348510742,-0.480,-0.480,-0.480,0.000,0.000,0.000
1640078922648685824,"2021-12-21,09:28:42",10.1.1.10,343,-0.490,-0.490,-0.490,0.000,0.000,0.000
1640078922685771008,"2021-12-21,09:28:42",10.1.1.10,0.3805079460144043,-0.490,-0.490,-0.490,0.000,0.000,0.000
1640078923091501056,"2021-12-21,09:28:43",10.1.1.10,399,-0.500,-0.500,-0.500,0.000,0.000,0.000
1640078923109683968,"2021-12-21,09:28:43",10.1.1.10,0.419219970703125,-0.500,-0.500,-0.500,0.000,0.000,0.000
1640078923459589888,"2021-12-21,09:28:43",10.1.1.10,347,-0.510,-0.510,-0.510,0.000,0.000,0.000
1640078923487740160,"2021-12-21,09:28:43",10.1.1.10,0.3761000633239746,-0.510,-0.510,-0.510,0.000,0.000,0.000
1640078923876879872,"2021-12-21,09:28:43",10.1.1.10,381,-0.520,-0.520,-0.520,0.000,0.000,0.000
1640078923884946176,"2021-12-21,09:28:43",10.1.1.10,0.3953530788421631,-0.520,-0.520,-0.520,0.000,0.000,0.000
1640078924208101120,"2021-12-21,09:28:44",10.1.1.10,321,-0.530,-0.530,-0.530,0.000,0.000,0.000
1640078924242196992,"2021-12-21,09:28:44",10.1.1.10,0.3554549217224121,-0.530,-0.530,-0.530,0.000,0.000,0.000
1640078924655949056,"2021-12-21,09:28:44",10.1.1.10,404,-0.540,-0.540,-0.540,0.000,0.000,0.000
1640078924689430016,"2021-12-21,09:28:44",10.1.1.10,0.43818187713623047,-0.540,-0.540,-0.540,0.000,0.000,0.000
1640078925060381952,"2021-12-21,09:28:45",10.1.1.10,368,-0.550,-0.550,-0.550,0.000,0.000,0.000
1640078925063297024,"2021-12-21,09:28:45",10.1.1.10,0.3709371089935303,-0.550,-0.550,-0.550,0.000,0.000,0.000
1640078925454107904,"2021-12-21,09:28:45",10.1.1.10,364,-0.560,-0.560,-0.560,0.000,0.000,0.000
1640078925512728832,"2021-12-21,09:28:45",10.1.1.10,0.4232490062713623,-0.560,-0.560,-0.560,0.000,0.000,0.000
1640078925904012800,"2021-12-21,09:28:45",10.1.1.10,388,-0.570,-0.570,-0.570,0.000,0.000,0.000
1640078925949107968,"2021-12-21,09:28:45",10.1.1.10,0.4345510005950928,-0.570,-0.570,-0.570,0.000,0.000,0.000
1640078926316779008,"2021-12-21,09:28:46",10.1.1.10,366,-0.580,-0.580,-0.580,0.000,0.000,0.000
1640078926364898816,"2021-12-21,09:28:46",10.1.1.10,0.41433191299438477,-0.580,-0.580,-0.580,0.000,0.000,0.000
1640078926741924096,"2021-12-21,09:28:46",10.1.1.10,372,-0.590,-0.590,-0.590,0.000,0.000,0.000
1640078926819693056,"2021-12-21,09:28:46",10.1.1.10,0.4507930278778076,-0.590,-0.590,-0.590,0.000,0.000,0.000
1640078927133004800,"2021-12-21,09:28:47",10.1.1.10,310,-0.600,-0.600,-0.600,0.000,0.000,0.000
1640078927163502080,"2021-12-21,09:28:47",10.1.1.10,0.3407289981842041,-0.600,-0.600,-0.600,0.000,0.000,0.000
1640078927525245952,"2021-12-21,09:28:47",10.1.1.10,359,-0.610,-0.610,-0.610,0.000,0.000,0.000
1640078927582892800,"2021-12-21,09:28:47",10.1.1.10,0.41741514205932617,-0.610,-0.610,-0.610,0.000,0.000,0.000
1640078928009211904,"2021-12-21,09:28:48",10.1.1.10,413,-0.620,-0.620,-0.620,0.000,0.000,0.000
1640078928041775104,"2021-12-21,09:28:48",10.1.1.10,0.4463660717010498,-0.620,-0.620,-0.620,0.000,0.000,0.000
1640078928450948096,"2021-12-21,09:28:48",10.1.1.10,407,-0.630,-0.630,-0.630,0.000,0.000,0.000
1640078928466384896,"2021-12-21,09:28:48",10.1.1.10,0.4231231212615967,-0.630,-0.630,-0.630,0.000,0.000,0.000
1640078928881003008,"2021-12-21,09:28:48",10.1.1.10,0.40033388137817383,-0.640,-0.640,-0.640,0.000,0.000,0.000
1640078929342502144,"2021-12-21,09:28:49",10.1.1.10,449,-0.650,-0.650,-0.650,0.000,0.000,0.000
1640078929357441024,"2021-12-21,09:28:49",10.1.1.10,0.4657628536224365,-0.650,-0.650,-0.650,0.000,0.000,0.000
1640078930249366016,"2021-12-21,09:28:50",10.1.1.10,889,-0.640,-0.640,-0.640,0.000,0.000,0.000
1640078930290315008,"2021-12-21,09:28:50",10.1.1.10,0.9303121566772461,-0.640,-0.640,-0.640,0.000,0.000,0.000
1640078930732144128,"2021-12-21,09:28:50",10.1.1.10,435,-0.630,-0.630,-0.630,0.000,0.000,0.000
1640078930757692928,"2021-12-21,09:28:50",10.1.1.10,0.46128296852111816,-0.630,-0.630,-0.630,0.000,0.000,0.000
1640078931245570048,"2021-12-21,09:28:51",10.1.1.10,483,-0.620,-0.620,-0.620,0.000,0.000,0.000
1640078931290028032,"2021-12-21,09:28:51",10.1.1.10,0.528670072555542,-0.620,-0.620,-0.620,0.000,0.000,0.000
1640078931792998144,"2021-12-21,09:28:51",10.1.1.10,501,-0.610,-0.610,-0.610,0.000,0.000,0.000
1640078931838247936,"2021-12-21,09:28:51",10.1.1.10,0.546532154083252,-0.610,-0.610,-0.610,0.000,0.000,0.000
1640078932178299904,"2021-12-21,09:28:52",10.1.1.10,338,-0.600,-0.600,-0.600,0.000,0.000,0.000
1640078932249342976,"2021-12-21,09:28:52",10.1.1.10,0.409822940826416,-0.600,-0.600,-0.600,0.000,0.000,0.000
1640078932672986880,"2021-12-21,09:28:52",10.1.1.10,419,-0.590,-0.590,-0.590,0.000,0.000,0.000
1640078932719703040,"2021-12-21,09:28:52",10.1.1.10,0.4665350914001465,-0.590,-0.590,-0.590,0.000,0.000,0.000
1640078933222445056,"2021-12-21,09:28:53",10.1.1.10,499,-0.580,-0.580,-0.580,0.000,0.000,0.000
1640078933247719936,"2021-12-21,09:28:53",10.1.1.10,0.5255849361419678,-0.580,-0.580,-0.580,0.000,0.000,0.000
1640078933608473088,"2021-12-21,09:28:53",10.1.1.10,355,-0.570,-0.570,-0.570,0.000,0.000,0.000
1640078933664372992,"2021-12-21,09:28:53",10.1.1.10,0.41120100021362305,-0.570,-0.570,-0.570,0.000,0.000,0.000
1640078934051731200,"2021-12-21,09:28:54",10.1.1.10,386,-0.560,-0.560,-0.560,0.000,0.000,0.000
1640078934090832896,"2021-12-21,09:28:54",10.1.1.10,0.4250462055206299,-0.560,-0.560,-0.560,0.000,0.000,0.000
1640078934460097024,"2021-12-21,09:28:54",10.1.1.10,366,-0.550,-0.550,-0.550,0.000,0.000,0.000
1640078934521008896,"2021-12-21,09:28:54",10.1.1.10,0.42746591567993164,-0.550,-0.550,-0.550,0.000,0.000,0.000
1640078934909730048,"2021-12-21,09:28:54",10.1.1.10,387,-0.540,-0.540,-0.540,0.000,0.000,0.000
1640078934969099008,"2021-12-21,09:28:54",10.1.1.10,0.4466209411621094,-0.540,-0.540,-0.540,0.000,0.000,0.000
1640078935307956992,"2021-12-21,09:28:55",10.1.1.10,337,-0.530,-0.530,-0.530,0.000,0.000,0.000
1640078935360136960,"2021-12-21,09:28:55",10.1.1.10,0.3893139362335205,-0.530,-0.530,-0.530,0.000,0.000,0.000
1640078935728086016,"2021-12-21,09:28:55",10.1.1.10,361,-0.520,-0.520,-0.520,0.000,0.000,0.000
1640078935784856064,"2021-12-21,09:28:55",10.1.1.10,0.4214181900024414,-0.520,-0.520,-0.520,0.000,0.000,0.000
1640078936127940864,"2021-12-21,09:28:56",10.1.1.10,339,-0.510,-0.510,-0.510,0.000,0.000,0.000
1640078936196585984,"2021-12-21,09:28:56",10.1.1.10,0.4099462032318115,-0.510,-0.510,-0.510,0.000,0.000,0.000
1640078936613129984,"2021-12-21,09:28:56",10.1.1.10,415,-0.500,-0.500,-0.500,0.000,0.000,0.000
1640078936644617984,"2021-12-21,09:28:56",10.1.1.10,0.4466230869293213,-0.500,-0.500,-0.500,0.000,0.000,0.000
1640078937236221952,"2021-12-21,09:28:57",10.1.1.10,589,-0.490,-0.490,-0.490,0.000,0.000,0.000
1640078937300044032,"2021-12-21,09:28:57",10.1.1.10,0.6529760360717773,-0.490,-0.490,-0.490,0.000,0.000,0.000
1640078937683962112,"2021-12-21,09:28:57",10.1.1.10,367,-0.480,-0.480,-0.480,0.000,0.000,0.000
1640078937743897088,"2021-12-21,09:28:57",10.1.1.10,0.4247000217437744,-0.480,-0.480,-0.480,0.000,0.000,0.000
1640078938412069120,"2021-12-21,09:28:58",10.1.1.10,666,-0.470,-0.470,-0.470,0.000,0.000,0.000
1640078938452442880,"2021-12-21,09:28:58",10.1.1.10,0.7065842151641846,-0.470,-0.470,-0.470,0.000,0.000,0.000
1640078938811213056,"2021-12-21,09:28:58",10.1.1.10,355,-0.460,-0.460,-0.460,0.000,0.000,0.000
1640078938868153088,"2021-12-21,09:28:58",10.1.1.10,0.412883996963501,-0.460,-0.460,-0.460,0.000,0.000,0.000
1640078939191785984,"2021-12-21,09:28:59",10.1.1.10,318,-0.450,-0.450,-0.450,0.000,0.000,0.000
1640078939245978112,"2021-12-21,09:28:59",10.1.1.10,0.37287306785583496,-0.450,-0.450,-0.450,0.000,0.000,0.000
1640078939609703168,"2021-12-21,09:28:59",10.1.1.10,360,-0.440,-0.440,-0.440,0.000,0.000,0.000
1640078939694510848,"2021-12-21,09:28:59",10.1.1.10,0.44583892822265625,-0.440,-0.440,-0.440,0.000,0.000,0.000
1640078940019803904,"2021-12-21,09:29:00",10.1.1.10,323,-0.430,-0.430,-0.430,0.000,0.000,0.000
1640078940124214016,"2021-12-21,09:29:00",10.1.1.10,0.42839598655700684,-0.430,-0.430,-0.430,0.000,0.000,0.000
1640078940515169024,"2021-12-21,09:29:00",10.1.1.10,389,-0.420,-0.420,-0.420,0.000,0.000,0.000
1640078940577795072,"2021-12-21,09:29:00",10.1.1.10,0.452221155166626,-0.420,-0.420,-0.420,0.000,0.000,0.000
1640078940925151232,"2021-12-21,09:29:00",10.1.1.10,344,-0.410,-0.410,-0.410,0.000,0.000,0.000
1640078940980168192,"2021-12-21,09:29:00",10.1.1.10,0.40004611015319824,-0.410,-0.410,-0.410,0.000,0.000,0.000
1640078941352835840,"2021-12-21,09:29:01",10.1.1.10,369,-0.400,-0.400,-0.400,0.000,0.000,0.000
1640078941409955072,"2021-12-21,09:29:01",10.1.1.10,0.42816591262817383,-0.400,-0.400,-0.400,0.000,0.000,0.000
1640078941767237888,"2021-12-21,09:29:01",10.1.1.10,353,-0.390,-0.390,-0.390,0.000,0.000,0.000
1640078941854361088,"2021-12-21,09:29:01",10.1.1.10,0.4393007755279541,-0.390,-0.390,-0.390,0.000,0.000,0.000
1640078942225740800,"2021-12-21,09:29:02",10.1.1.10,367,-0.380,-0.380,-0.380,0.000,0.000,0.000
1640078942302771968,"2021-12-21,09:29:02",10.1.1.10,0.4442479610443115,-0.380,-0.380,-0.380,0.000,0.000,0.000
1640078942625401088,"2021-12-21,09:29:02",10.1.1.10,320,-0.370,-0.370,-0.370,0.000,0.000,0.000
1640078942706275840,"2021-12-21,09:29:02",10.1.1.10,0.4019649028778076,-0.370,-0.370,-0.370,0.000,0.000,0.000
1640078943032596224,"2021-12-21,09:29:03",10.1.1.10,324,-0.360,-0.360,-0.360,0.000,0.000,0.000
1640078943113899008,"2021-12-21,09:29:03",10.1.1.10,0.4059028625488281,-0.360,-0.360,-0.360,0.000,0.000,0.000
1640078943504734976,"2021-12-21,09:29:03",10.1.1.10,388,-0.350,-0.350,-0.350,0.000,0.000,0.000
1640078943547377152,"2021-12-21,09:29:03",10.1.1.10,0.4313490390777588,-0.350,-0.350,-0.350,0.000,0.000,0.000
1640078944089103104,"2021-12-21,09:29:04",10.1.1.10,0.5399329662322998,-0.340,-0.340,-0.340,0.000,0.000,0.000
1640078944089672960,"2021-12-21,09:29:04",10.1.1.10,540,-0.340,-0.340,-0.340,0.000,0.000,0.000
1640078944500613888,"2021-12-21,09:29:04",10.1.1.10,340,-0.330,-0.330,-0.330,0.000,0.000,0.000
1640078944560558080,"2021-12-21,09:29:04",10.1.1.10,0.4008798599243164,-0.330,-0.330,-0.330,0.000,0.000,0.000
1640078944884743936,"2021-12-21,09:29:04",10.1.1.10,322,-0.320,-0.320,-0.320,0.000,0.000,0.000
1640078944920984064,"2021-12-21,09:29:04",10.1.1.10,0.3584780693054199,-0.320,-0.320,-0.320,0.000,0.000,0.000
1640078945260691968,"2021-12-21,09:29:05",10.1.1.10,338,-0.310,-0.310,-0.310,0.000,0.000,0.000
1640078945296242944,"2021-12-21,09:29:05",10.1.1.10,0.3737821578979492,-0.310,-0.310,-0.310,0.000,0.000,0.000
1640078945636894976,"2021-12-21,09:29:05",10.1.1.10,338,-0.300,-0.300,-0.300,0.000,0.000,0.000
1640078945694592000,"2021-12-21,09:29:05",10.1.1.10,0.3957540988922119,-0.300,-0.300,-0.300,0.000,0.000,0.000
1640078946044066048,"2021-12-21,09:29:06",10.1.1.10,345,-0.290,-0.290,-0.290,0.000,0.000,0.000
1640078946100147968,"2021-12-21,09:29:06",10.1.1.10,0.40296292304992676,-0.290,-0.290,-0.290,0.000,0.000,0.000
1640078946475732992,"2021-12-21,09:29:06",10.1.1.10,371,-0.280,-0.280,-0.280,0.000,0.000,0.000
1640078946499223040,"2021-12-21,09:29:06",10.1.1.10,0.3953399658203125,-0.280,-0.280,-0.280,0.000,0.000,0.000
1640078946830668032,"2021-12-21,09:29:06",10.1.1.10,329,-0.270,-0.270,-0.270,0.000,0.000,0.000
1640078946884733952,"2021-12-21,09:29:06",10.1.1.10,0.38315916061401367,-0.270,-0.270,-0.270,0.000,0.000,0.000
1640078947207958016,"2021-12-21,09:29:07",10.1.1.10,321,-0.260,-0.260,-0.260,0.000,0.000,0.000
1640078947247174912,"2021-12-21,09:29:07",10.1.1.10,0.36068105697631836,-0.260,-0.260,-0.260,0.000,0.000,0.000
1640078947578833152,"2021-12-21,09:29:07",10.1.1.10,329,-0.250,-0.250,-0.250,0.000,0.000,0.000
1640078947629530880,"2021-12-21,09:29:07",10.1.1.10,0.3809659481048584,-0.250,-0.250,-0.250,0.000,0.000,0.000
1640078947942511104,"2021-12-21,09:29:07",10.1.1.10,311,-0.240,-0.240,-0.240,0.000,0.000,0.000
1640078947981940992,"2021-12-21,09:29:07",10.1.1.10,0.3508479595184326,-0.240,-0.240,-0.240,0.000,0.000,0.000
1640078948326287872,"2021-12-21,09:29:08",10.1.1.10,341,-0.230,-0.230,-0.230,0.000,0.000,0.000
1640078948368947968,"2021-12-21,09:29:08",10.1.1.10,0.38439297676086426,-0.230,-0.230,-0.230,0.000,0.000,0.000
1640078948734973952,"2021-12-21,09:29:08",10.1.1.10,364,-0.220,-0.220,-0.220,0.000,0.000,0.000
1640078948753926912,"2021-12-21,09:29:08",10.1.1.10,0.3831639289855957,-0.220,-0.220,-0.220,0.000,0.000,0.000
1640078949133507840,"2021-12-21,09:29:09",10.1.1.10,371,-0.210,-0.210,-0.210,0.000,0.000,0.000
1640078949181953024,"2021-12-21,09:29:09",10.1.1.10,0.42046308517456055,-0.210,-0.210,-0.210,0.000,0.000,0.000
1640078949525604096,"2021-12-21,09:29:09",10.1.1.10,341,-0.200,-0.200,-0.200,0.000,0.000,0.000
1640078949610445056,"2021-12-21,09:29:09",10.1.1.10,0.42665886878967285,-0.200,-0.200,-0.200,0.000,0.000,0.000
1640078950020792064,"2021-12-21,09:29:10",10.1.1.10,408,-0.190,-0.190,-0.190,0.000,0.000,0.000
1640078950032613120,"2021-12-21,09:29:10",10.1.1.10,0.4205739498138428,-0.190,-0.190,-0.190,0.000,0.000,0.000
1640078950443252992,"2021-12-21,09:29:10",10.1.1.10,401,-0.180,-0.180,-0.180,0.000,0.000,0.000
1640078950519180032,"2021-12-21,09:29:10",10.1.1.10,0.4775259494781494,-0.180,-0.180,-0.180,0.000,0.000,0.000
1640078950955868928,"2021-12-21,09:29:10",10.1.1.10,434,-0.170,-0.170,-0.170,0.000,0.000,0.000
1640078951013174016,"2021-12-21,09:29:11",10.1.1.10,0.49238014221191406,-0.170,-0.170,-0.170,0.000,0.000,0.000
1640078951377199872,"2021-12-21,09:29:11",10.1.1.10,362,-0.160,-0.160,-0.160,0.000,0.000,0.000
1640078951416930816,"2021-12-21,09:29:11",10.1.1.10,0.4024200439453125,-0.160,-0.160,-0.160,0.000,0.000,0.000
1640078951780536832,"2021-12-21,09:29:11",10.1.1.10,361,-0.170,-0.170,-0.170,0.000,0.000,0.000
1640078951852871936,"2021-12-21,09:29:11",10.1.1.10,0.4341928958892822,-0.170,-0.170,-0.170,0.000,0.000,0.000
1640078952243881984,"2021-12-21,09:29:12",10.1.1.10,388,-0.180,-0.180,-0.180,0.000,0.000,0.000
1640078952252679168,"2021-12-21,09:29:12",10.1.1.10,0.3977019786834717,-0.180,-0.180,-0.180,0.000,0.000,0.000
1640078952635045888,"2021-12-21,09:29:12",10.1.1.10,375,-0.190,-0.190,-0.190,0.000,0.000,0.000
1640078952690681088,"2021-12-21,09:29:12",10.1.1.10,0.4315829277038574,-0.190,-0.190,-0.190,0.000,0.000,0.000
1640078953408443904,"2021-12-21,09:29:13",10.1.1.10,712,-0.200,-0.200,-0.200,0.000,0.000,0.000
1640078953453118208,"2021-12-21,09:29:13",10.1.1.10,0.7571310997009277,-0.200,-0.200,-0.200,0.000,0.000,0.000
1640078953890952960,"2021-12-21,09:29:13",10.1.1.10,376,-0.210,-0.210,-0.210,0.000,0.000,0.000
1640078953932569856,"2021-12-21,09:29:13",10.1.1.10,0.41864490509033203,-0.210,-0.210,-0.210,0.000,0.000,0.000
1640078954310589952,"2021-12-21,09:29:14",10.1.1.10,376,-0.220,-0.220,-0.220,0.000,0.000,0.000
1640078954323802880,"2021-12-21,09:29:14",10.1.1.10,0.38939785957336426,-0.220,-0.220,-0.220,0.000,0.000,0.000
1640078954741584128,"2021-12-21,09:29:14",10.1.1.10,414,-0.230,-0.230,-0.230,0.000,0.000,0.000
1640078954798013952,"2021-12-21,09:29:14",10.1.1.10,0.4713609218597412,-0.230,-0.230,-0.230,0.000,0.000,0.000
1640078955252294912,"2021-12-21,09:29:15",10.1.1.10,451,-0.240,-0.240,-0.240,0.000,0.000,0.000
1640078955310224896,"2021-12-21,09:29:15",10.1.1.10,0.5093989372253418,-0.240,-0.240,-0.240,0.000,0.000,0.000
1640078955775868928,"2021-12-21,09:29:15",10.1.1.10,454,-0.250,-0.250,-0.250,0.000,0.000,0.000
1640078955825537792,"2021-12-21,09:29:15",10.1.1.10,0.5048761367797852,-0.250,-0.250,-0.250,0.000,0.000,0.000
1640078956228862976,"2021-12-21,09:29:16",10.1.1.10,397,-0.260,-0.260,-0.260,0.000,0.000,0.000
1640078956321768960,"2021-12-21,09:29:16",10.1.1.10,0.49485301971435547,-0.260,-0.260,-0.260,0.000,0.000,0.000
1640078956826703104,"2021-12-21,09:29:16",10.1.1.10,502,-0.270,-0.270,-0.270,0.000,0.000,0.000
1640078956857781760,"2021-12-21,09:29:16",10.1.1.10,0.5332460403442383,-0.270,-0.270,-0.270,0.000,0.000,0.000
1640078957237960960,"2021-12-21,09:29:17",10.1.1.10,376,-0.280,-0.280,-0.280,0.000,0.000,0.000
1640078957273647104,"2021-12-21,09:29:17",10.1.1.10,0.4121840000152588,-0.280,-0.280,-0.280,0.000,0.000,0.000
1640078959609612032,"2021-12-21,09:29:19",10.1.1.10,2.331707000732422,-0.290,-0.290,-0.290,0.000,0.000,0.000
1640078959588067072,"2021-12-21,09:29:19",10.1.1.10,2011,-0.290,-0.290,-0.290,0.000,0.000,0.000
1640078959622626048,"2021-12-21,09:29:19",10.1.1.10,-1,-0.300,-0.300,-0.300,0.000,0.000,0.000
1640078960692466944,"2021-12-21,09:29:20",10.1.1.10,1.0712261199951172,-0.300,-0.300,-0.300,0.000,0.000,0.000
1640078961198915840,"2021-12-21,09:29:21",10.1.1.10,0.5024800300598145,-0.310,-0.310,-0.310,0.000,0.000,0.000
1640078962392424192,"2021-12-21,09:29:22",10.1.1.10,1186,-0.320,-0.320,-0.320,0.000,0.000,0.000
1640078962481286144,"2021-12-21,09:29:22",10.1.1.10,1.275641918182373,-0.320,-0.320,-0.320,0.000,0.000,0.000
1640078962889501184,"2021-12-21,09:29:22",10.1.1.10,406,-0.330,-0.330,-0.330,0.000,0.000,0.000
1640078962922211840,"2021-12-21,09:29:22",10.1.1.10,0.43590497970581055,-0.330,-0.330,-0.330,0.000,0.000,0.000
1640078963352564224,"2021-12-21,09:29:23",10.1.1.10,425,-0.340,-0.340,-0.340,0.000,0.000,0.000
1640078963403489024,"2021-12-21,09:29:23",10.1.1.10,0.4766058921813965,-0.340,-0.340,-0.340,0.000,0.000,0.000
1640078963989316096,"2021-12-21,09:29:23",10.1.1.10,582,-0.350,-0.350,-0.350,0.000,0.000,0.000
1640078964041376000,"2021-12-21,09:29:24",10.1.1.10,0.6345760822296143,-0.350,-0.350,-0.350,0.000,0.000,0.000
1640078964839948032,"2021-12-21,09:29:24",10.1.1.10,797,-0.360,-0.360,-0.360,0.000,0.000,0.000
1640078964895629824,"2021-12-21,09:29:24",10.1.1.10,0.8528568744659424,-0.360,-0.360,-0.360,0.000,0.000,0.000
1640078965870196224,"2021-12-21,09:29:25",10.1.1.10,972,-0.370,-0.370,-0.370,0.000,0.000,0.000
1640078965901846784,"2021-12-21,09:29:25",10.1.1.10,1.0043768882751465,-0.370,-0.370,-0.370,0.000,0.000,0.000
1640078966360121088,"2021-12-21,09:29:26",10.1.1.10,454,-0.380,-0.380,-0.380,0.000,0.000,0.000
1640078966426711040,"2021-12-21,09:29:26",10.1.1.10,0.5233159065246582,-0.380,-0.380,-0.380,0.000,0.000,0.000
1640078966877036032,"2021-12-21,09:29:26",10.1.1.10,448,-0.390,-0.390,-0.390,0.000,0.000,0.000
1640078966892740096,"2021-12-21,09:29:26",10.1.1.10,0.4643058776855469,-0.390,-0.390,-0.390,0.000,0.000,0.000
1640078967237972992,"2021-12-21,09:29:27",10.1.1.10,342,-0.400,-0.400,-0.400,0.000,0.000,0.000
1640078967305509120,"2021-12-21,09:29:27",10.1.1.10,0.41119980812072754,-0.400,-0.400,-0.400,0.000,0.000,0.000
1640078967669507072,"2021-12-21,09:29:27",10.1.1.10,362,-0.410,-0.410,-0.410,0.000,0.000,0.000
1640078967687222016,"2021-12-21,09:29:27",10.1.1.10,0.3799571990966797,-0.410,-0.410,-0.410,0.000,0.000,0.000
1640078968016804864,"2021-12-21,09:29:28",10.1.1.10,328,-0.420,-0.420,-0.420,0.000,0.000,0.000
1640078968060497152,"2021-12-21,09:29:28",10.1.1.10,0.3718900680541992,-0.420,-0.420,-0.420,0.000,0.000,0.000
1640078968417021952,"2021-12-21,09:29:28",10.1.1.10,355,-0.430,-0.430,-0.430,0.000,0.000,0.000
1640078968475620864,"2021-12-21,09:29:28",10.1.1.10,0.4138069152832031,-0.430,-0.430,-0.430,0.000,0.000,0.000
1640078968837668864,"2021-12-21,09:29:28",10.1.1.10,360,-0.440,-0.440,-0.440,0.000,0.000,0.000
1640078968866870016,"2021-12-21,09:29:28",10.1.1.10,0.3897280693054199,-0.440,-0.440,-0.440,0.000,0.000,0.000
1640078969225424128,"2021-12-21,09:29:29",10.1.1.10,355,-0.450,-0.450,-0.450,0.000,0.000,0.000
1640078969270518016,"2021-12-21,09:29:29",10.1.1.10,0.40051794052124023,-0.450,-0.450,-0.450,0.000,0.000,0.000
1640078969624422912,"2021-12-21,09:29:29",10.1.1.10,352,-0.460,-0.460,-0.460,0.000,0.000,0.000
1640078969672465152,"2021-12-21,09:29:29",10.1.1.10,0.40064215660095215,-0.460,-0.460,-0.460,0.000,0.000,0.000
1640078970028784128,"2021-12-21,09:29:30",10.1.1.10,354,-0.470,-0.470,-0.470,0.000,0.000,0.000
1640078970089945088,"2021-12-21,09:29:30",10.1.1.10,0.41577720642089844,-0.470,-0.470,-0.470,0.000,0.000,0.000
1640078970453732096,"2021-12-21,09:29:30",10.1.1.10,362,-0.480,-0.480,-0.480,0.000,0.000,0.000
1640078970515140096,"2021-12-21,09:29:30",10.1.1.10,0.42376089096069336,-0.480,-0.480,-0.480,0.000,0.000,0.000
1640078970863689984,"2021-12-21,09:29:30",10.1.1.10,346,-0.490,-0.490,-0.490,0.000,0.000,0.000
1640078970901405184,"2021-12-21,09:29:30",10.1.1.10,0.3844890594482422,-0.490,-0.490,-0.490,0.000,0.000,0.000
1640078971284701952,"2021-12-21,09:29:31",10.1.1.10,381,-0.500,-0.500,-0.500,0.000,0.000,0.000
1640078971331766016,"2021-12-21,09:29:31",10.1.1.10,0.4287750720977783,-0.500,-0.500,-0.500,0.000,0.000,0.000
1640078971861964032,"2021-12-21,09:29:31",10.1.1.10,528,-0.510,-0.510,-0.510,0.000,0.000,0.000
1640078971934038016,"2021-12-21,09:29:31",10.1.1.10,0.600283145904541,-0.510,-0.510,-0.510,0.000,0.000,0.000
1640078972263026944,"2021-12-21,09:29:32",10.1.1.10,327,-0.520,-0.520,-0.520,0.000,0.000,0.000
1640078972305219840,"2021-12-21,09:29:32",10.1.1.10,0.3694651126861572,-0.520,-0.520,-0.520,0.000,0.000,0.000
1640078972652889856,"2021-12-21,09:29:32",10.1.1.10,345,-0.530,-0.530,-0.530,0.000,0.000,0.000
1640078972670185984,"2021-12-21,09:29:32",10.1.1.10,0.3636910915374756,-0.530,-0.530,-0.530,0.000,0.000,0.000
1640078973032040192,"2021-12-21,09:29:33",10.1.1.10,357,-0.540,-0.540,-0.540,0.000,0.000,0.000
1640078973073208064,"2021-12-21,09:29:33",10.1.1.10,0.3994288444519043,-0.540,-0.540,-0.540,0.000,0.000,0.000
1640078973453246976,"2021-12-21,09:29:33",10.1.1.10,376,-0.550,-0.550,-0.550,0.000,0.000,0.000
1640078973472845056,"2021-12-21,09:29:33",10.1.1.10,0.39612483978271484,-0.550,-0.550,-0.550,0.000,0.000,0.000
1640078973853841152,"2021-12-21,09:29:33",10.1.1.10,378,-0.560,-0.560,-0.560,0.000,0.000,0.000
1640078973890840064,"2021-12-21,09:29:33",10.1.1.10,0.4157850742340088,-0.560,-0.560,-0.560,0.000,0.000,0.000
1640078974365835008,"2021-12-21,09:29:34",10.1.1.10,468,-0.570,-0.570,-0.570,0.000,0.000,0.000
1640078974421062912,"2021-12-21,09:29:34",10.1.1.10,0.5231070518493652,-0.570,-0.570,-0.570,0.000,0.000,0.000
1640078974838670848,"2021-12-21,09:29:34",10.1.1.10,408,-0.580,-0.580,-0.580,0.000,0.000,0.000
1640078974891602944,"2021-12-21,09:29:34",10.1.1.10,0.4615359306335449,-0.580,-0.580,-0.580,0.000,0.000,0.000
1640078975249660928,"2021-12-21,09:29:35",10.1.1.10,356,-0.590,-0.590,-0.590,0.000,0.000,0.000
1640078975323895808,"2021-12-21,09:29:35",10.1.1.10,0.4303908348083496,-0.590,-0.590,-0.590,0.000,0.000,0.000
1640078975684654848,"2021-12-21,09:29:35",10.1.1.10,357,-0.600,-0.600,-0.600,0.000,0.000,0.000
1640078975710053888,"2021-12-21,09:29:35",10.1.1.10,0.3829479217529297,-0.600,-0.600,-0.600,0.000,0.000,0.000
1640078976114861056,"2021-12-21,09:29:36",10.1.1.10,402,-0.610,-0.610,-0.610,0.000,0.000,0.000
1640078976148412928,"2021-12-21,09:29:36",10.1.1.10,0.43587303161621094,-0.610,-0.610,-0.610,0.000,0.000,0.000
1640078976498918912,"2021-12-21,09:29:36",10.1.1.10,347,-0.620,-0.620,-0.620,0.000,0.000,0.000
1640078976511461888,"2021-12-21,09:29:36",10.1.1.10,0.3601999282836914,-0.620,-0.620,-0.620,0.000,0.000,0.000
1640078976911570944,"2021-12-21,09:29:36",10.1.1.10,396,-0.630,-0.630,-0.630,0.000,0.000,0.000
1640078977006767872,"2021-12-21,09:29:37",10.1.1.10,0.49198484420776367,-0.630,-0.630,-0.630,0.000,0.000,0.000
1640078977354466816,"2021-12-21,09:29:37",10.1.1.10,345,-0.640,-0.640,-0.640,0.000,0.000,0.000
1640078977415243008,"2021-12-21,09:29:37",10.1.1.10,0.4069690704345703,-0.640,-0.640,-0.640,0.000,0.000,0.000
1640078977773772032,"2021-12-21,09:29:37",10.1.1.10,356,-0.650,-0.650,-0.650,0.000,0.000,0.000
1640078977828183808,"2021-12-21,09:29:37",10.1.1.10,0.4110100269317627,-0.650,-0.650,-0.650,0.000,0.000,0.000
1640078978208744960,"2021-12-21,09:29:38",10.1.1.10,378,-0.640,-0.640,-0.640,0.000,0.000,0.000
1640078978258274048,"2021-12-21,09:29:38",10.1.1.10,0.42844200134277344,-0.640,-0.640,-0.640,0.000,0.000,0.000
1640078978619309824,"2021-12-21,09:29:38",10.1.1.10,359,-0.630,-0.630,-0.630,0.000,0.000,0.000
1640078978642436096,"2021-12-21,09:29:38",10.1.1.10,0.3825950622558594,-0.630,-0.630,-0.630,0.000,0.000,0.000
1640078978980385024,"2021-12-21,09:29:38",10.1.1.10,335,-0.620,-0.620,-0.620,0.000,0.000,0.000
1640078979052879104,"2021-12-21,09:29:39",10.1.1.10,0.4075508117675781,-0.620,-0.620,-0.620,0.000,0.000,0.000
1640078979431261184,"2021-12-21,09:29:39",10.1.1.10,374,-0.610,-0.610,-0.610,0.000,0.000,0.000
1640078979468363008,"2021-12-21,09:29:39",10.1.1.10,0.4117708206176758,-0.610,-0.610,-0.610,0.000,0.000,0.000
1640078979833123072,"2021-12-21,09:29:39",10.1.1.10,359,-0.600,-0.600,-0.600,0.000,0.000,0.000
1640078979890033920,"2021-12-21,09:29:39",10.1.1.10,0.4159839153289795,-0.600,-0.600,-0.600,0.000,0.000,0.000
1640078980327943168,"2021-12-21,09:29:40",10.1.1.10,0.4285109043121338,-0.590,-0.590,-0.590,0.000,0.000,0.000
1640078980330113024,"2021-12-21,09:29:40",10.1.1.10,429,-0.590,-0.590,-0.590,0.000,0.000,0.000
1640078980744986112,"2021-12-21,09:29:40",10.1.1.10,414,-0.580,-0.580,-0.580,0.000,0.000,0.000
1640078980811744000,"2021-12-21,09:29:40",10.1.1.10,0.4814789295196533,-0.580,-0.580,-0.580,0.000,0.000,0.000
1640078981146107904,"2021-12-21,09:29:41",10.1.1.10,332,-0.570,-0.570,-0.570,0.000,0.000,0.000
1640078981212881152,"2021-12-21,09:29:41",10.1.1.10,0.3985719680786133,-0.570,-0.570,-0.570,0.000,0.000,0.000
1640078981600781824,"2021-12-21,09:29:41",10.1.1.10,385,-0.560,-0.560,-0.560,0.000,0.000,0.000
1640078981621387008,"2021-12-21,09:29:41",10.1.1.10,0.4066300392150879,-0.560,-0.560,-0.560,0.000,0.000,0.000
1640078982067773952,"2021-12-21,09:29:42",10.1.1.10,444,-0.550,-0.550,-0.550,0.000,0.000,0.000
1640078982112126208,"2021-12-21,09:29:42",10.1.1.10,0.4894280433654785,-0.550,-0.550,-0.550,0.000,0.000,0.000
1640078982459901952,"2021-12-21,09:29:42",10.1.1.10,346,-0.540,-0.540,-0.540,0.000,0.000,0.000
1640078982512217088,"2021-12-21,09:29:42",10.1.1.10,0.3986539840698242,-0.540,-0.540,-0.540,0.000,0.000,0.000
1640078983000439040,"2021-12-21,09:29:43",10.1.1.10,467,-0.530,-0.530,-0.530,0.000,0.000,0.000
1640078983033009152,"2021-12-21,09:29:43",10.1.1.10,0.500201940536499,-0.530,-0.530,-0.530,0.000,0.000,0.000
1640078983420499968,"2021-12-21,09:29:43",10.1.1.10,380,-0.520,-0.520,-0.520,0.000,0.000,0.000
1640078983488370944,"2021-12-21,09:29:43",10.1.1.10,0.4491438865661621,-0.520,-0.520,-0.520,0.000,0.000,0.000
1640078983899331072,"2021-12-21,09:29:43",10.1.1.10,409,-0.510,-0.510,-0.510,0.000,0.000,0.000
1640078983958315008,"2021-12-21,09:29:43",10.1.1.10,0.46805596351623535,-0.510,-0.510,-0.510,0.000,0.000,0.000
1640078984382131968,"2021-12-21,09:29:44",10.1.1.10,420,-0.500,-0.500,-0.500,0.000,0.000,0.000
1640078984439038976,"2021-12-21,09:29:44",10.1.1.10,0.47826409339904785,-0.500,-0.500,-0.500,0.000,0.000,0.000
1640078984829222912,"2021-12-21,09:29:44",10.1.1.10,388,-0.490,-0.490,-0.490,0.000,0.000,0.000
1640078984912580864,"2021-12-21,09:29:44",10.1.1.10,0.4719431400299072,-0.490,-0.490,-0.490,0.000,0.000,0.000
1640078985342562048,"2021-12-21,09:29:45",10.1.1.10,427,-0.480,-0.480,-0.480,0.000,0.000,0.000
1640078985413552896,"2021-12-21,09:29:45",10.1.1.10,0.4987828731536865,-0.480,-0.480,-0.480,0.000,0.000,0.000
1640078985826992128,"2021-12-21,09:29:45",10.1.1.10,412,-0.470,-0.470,-0.470,0.000,0.000,0.000
1640078985931516928,"2021-12-21,09:29:45",10.1.1.10,0.5165121555328369,-0.470,-0.470,-0.470,0.000,0.000,0.000
1640078986322843136,"2021-12-21,09:29:46",10.1.1.10,384,-0.460,-0.460,-0.460,0.000,0.000,0.000
1640078986383928064,"2021-12-21,09:29:46",10.1.1.10,0.4470670223236084,-0.460,-0.460,-0.460,0.000,0.000,0.000
1640078986735241984,"2021-12-21,09:29:46",10.1.1.10,349,-0.450,-0.450,-0.450,0.000,0.000,0.000
1640078986779963904,"2021-12-21,09:29:46",10.1.1.10,0.3942379951477051,-0.450,-0.450,-0.450,0.000,0.000,0.000
1640078987300242944,"2021-12-21,09:29:47",10.1.1.10,516,-0.440,-0.440,-0.440,0.000,0.000,0.000
1640078987316896000,"2021-12-21,09:29:47",10.1.1.10,0.5329849720001221,-0.440,-0.440,-0.440,0.000,0.000,0.000
1640078987680346880,"2021-12-21,09:29:47",10.1.1.10,352,-0.430,-0.430,-0.430,0.000,0.000,0.000
1640078987712993024,"2021-12-21,09:29:47",10.1.1.10,0.38500285148620605,-0.430,-0.430,-0.430,0.000,0.000,0.000
1640078988212997888,"2021-12-21,09:29:48",10.1.1.10,498,-0.420,-0.420,-0.420,0.000,0.000,0.000
1640078988234060032,"2021-12-21,09:29:48",10.1.1.10,0.5192210674285889,-0.420,-0.420,-0.420,0.000,0.000,0.000
1640078988581176064,"2021-12-21,09:29:48",10.1.1.10,345,-0.410,-0.410,-0.410,0.000,0.000,0.000
1640078988652262912,"2021-12-21,09:29:48",10.1.1.10,0.41625499725341797,-0.410,-0.410,-0.410,0.000,0.000,0.000
1640078988991758080,"2021-12-21,09:29:48",10.1.1.10,337,-0.400,-0.400,-0.400,0.000,0.000,0.000
1640078989017241088,"2021-12-21,09:29:49",10.1.1.10,0.3622169494628906,-0.400,-0.400,-0.400,0.000,0.000,0.000
1640078989458179840,"2021-12-21,09:29:49",10.1.1.10,435,-0.390,-0.390,-0.390,0.000,0.000,0.000
1640078989501033984,"2021-12-21,09:29:49",10.1.1.10,0.47843098640441895,-0.390,-0.390,-0.390,0.000,0.000,0.000
1640078989960061952,"2021-12-21,09:29:49",10.1.1.10,456,-0.380,-0.380,-0.380,0.000,0.000,0.000
1640078989996460800,"2021-12-21,09:29:49",10.1.1.10,0.494096040725708,-0.380,-0.380,-0.380,0.000,0.000,0.000
1640078990391876096,"2021-12-21,09:29:50",10.1.1.10,391,-0.370,-0.370,-0.370,0.000,0.000,0.000
1640078990481949184,"2021-12-21,09:29:50",10.1.1.10,0.48312997817993164,-0.370,-0.370,-0.370,0.000,0.000,0.000
1640078990892033024,"2021-12-21,09:29:50",10.1.1.10,408,-0.360,-0.360,-0.360,0.000,0.000,0.000
1640078990912616960,"2021-12-21,09:29:50",10.1.1.10,0.4291040897369385,-0.360,-0.360,-0.360,0.000,0.000,0.000
1640078991351782912,"2021-12-21,09:29:51",10.1.1.10,436,-0.350,-0.350,-0.350,0.000,0.000,0.000
1640078991372619008,"2021-12-21,09:29:51",10.1.1.10,0.45720505714416504,-0.350,-0.350,-0.350,0.000,0.000,0.000
1640078991722882048,"2021-12-21,09:29:51",10.1.1.10,348,-0.340,-0.340,-0.340,0.000,0.000,0.000
1640078991801143040,"2021-12-21,09:29:51",10.1.1.10,0.4270350933074951,-0.340,-0.340,-0.340,0.000,0.000,0.000
1640078992179655168,"2021-12-21,09:29:52",10.1.1.10,377,-0.330,-0.330,-0.330,0.000,0.000,0.000
1640078992252212992,"2021-12-21,09:29:52",10.1.1.10,0.44970107078552246,-0.330,-0.330,-0.330,0.000,0.000,0.000
1640078992628837120,"2021-12-21,09:29:52",10.1.1.10,374,-0.320,-0.320,-0.320,0.000,0.000,0.000
1640078992692382208,"2021-12-21,09:29:52",10.1.1.10,0.4383668899536133,-0.320,-0.320,-0.320,0.000,0.000,0.000
1640078993107567104,"2021-12-21,09:29:53",10.1.1.10,413,-0.310,-0.310,-0.310,0.000,0.000,0.000
1640078993133178880,"2021-12-21,09:29:53",10.1.1.10,0.43920111656188965,-0.310,-0.310,-0.310,0.000,0.000,0.000
1640078993560614144,"2021-12-21,09:29:53",10.1.1.10,415,-0.300,-0.300,-0.300,0.000,0.000,0.000
1640078993589901824,"2021-12-21,09:29:53",10.1.1.10,0.45536017417907715,-0.300,-0.300,-0.300,0.000,0.000,0.000
1640078993957175040,"2021-12-21,09:29:53",10.1.1.10,365,-0.290,-0.290,-0.290,0.000,0.000,0.000
1640078994001009920,"2021-12-21,09:29:54",10.1.1.10,0.4093198776245117,-0.290,-0.290,-0.290,0.000,0.000,0.000
1640078994355802112,"2021-12-21,09:29:54",10.1.1.10,353,-0.280,-0.280,-0.280,0.000,0.000,0.000
1640078994425542144,"2021-12-21,09:29:54",10.1.1.10,0.4227631092071533,-0.280,-0.280,-0.280,0.000,0.000,0.000
1640078994806999040,"2021-12-21,09:29:54",10.1.1.10,376,-0.270,-0.270,-0.270,0.000,0.000,0.000
1640078994842558976,"2021-12-21,09:29:54",10.1.1.10,0.4118030071258545,-0.270,-0.270,-0.270,0.000,0.000,0.000
1640078995238714880,"2021-12-21,09:29:55",10.1.1.10,391,-0.260,-0.260,-0.260,0.000,0.000,0.000
1640078995272017920,"2021-12-21,09:29:55",10.1.1.10,0.42438793182373047,-0.260,-0.260,-0.260,0.000,0.000,0.000
1640078995625447936,"2021-12-21,09:29:55",10.1.1.10,351,-0.250,-0.250,-0.250,0.000,0.000,0.000
1640078995682235904,"2021-12-21,09:29:55",10.1.1.10,0.4087088108062744,-0.250,-0.250,-0.250,0.000,0.000,0.000
1640078996024879872,"2021-12-21,09:29:56",10.1.1.10,330,-0.240,-0.240,-0.240,0.000,0.000,0.000
1640078996081476096,"2021-12-21,09:29:56",10.1.1.10,0.3874509334564209,-0.240,-0.240,-0.240,0.000,0.000,0.000
1640078996425595904,"2021-12-21,09:29:56",10.1.1.10,342,-0.230,-0.230,-0.230,0.000,0.000,0.000
1640078996464018176,"2021-12-21,09:29:56",10.1.1.10,0.3811769485473633,-0.230,-0.230,-0.230,0.000,0.000,0.000
1640078996872851968,"2021-12-21,09:29:56",10.1.1.10,400,-0.220,-0.220,-0.220,0.000,0.000,0.000
1640078996888133888,"2021-12-21,09:29:56",10.1.1.10,0.41614699363708496,-0.220,-0.220,-0.220,0.000,0.000,0.000
1640078997264619008,"2021-12-21,09:29:57",10.1.1.10,374,-0.210,-0.210,-0.210,0.000,0.000,0.000
1640078997335047936,"2021-12-21,09:29:57",10.1.1.10,0.4451301097869873,-0.210,-0.210,-0.210,0.000,0.000,0.000
1640078997682936064,"2021-12-21,09:29:57",10.1.1.10,340,-0.200,-0.200,-0.200,0.000,0.000,0.000
1640078997759516928,"2021-12-21,09:29:57",10.1.1.10,0.4170839786529541,-0.200,-0.200,-0.200,0.000,0.000,0.000
1640078998102013952,"2021-12-21,09:29:58",10.1.1.10,339,-0.190,-0.190,-0.190,0.000,0.000,0.000
1640078998150629888,"2021-12-21,09:29:58",10.1.1.10,0.38725900650024414,-0.190,-0.190,-0.190,0.000,0.000,0.000
1640078998561338880,"2021-12-21,09:29:58",10.1.1.10,403,-0.180,-0.180,-0.180,0.000,0.000,0.000
1640078998655917056,"2021-12-21,09:29:58",10.1.1.10,0.49774599075317383,-0.180,-0.180,-0.180,0.000,0.000,0.000
1640079137080935936,"2021-12-21,09:32:16",10.1.1.10,138.27955222129822,-0.170,-0.170,-0.170,0.000,0.000,0.000
1640079137749736192,"2021-12-21,09:32:17",10.1.1.10,0.6656641960144043,-0.160,-0.160,-0.160,0.000,0.000,0.000
1640079138336425984,"2021-12-21,09:32:18",10.1.1.10,0.5691330432891846,-0.170,-0.170,-0.170,0.000,0.000,0.000
1640079138510813952,"2021-12-21,09:32:18",10.1.1.10,162,-0.180,-0.180,-0.180,0.000,0.000,0.000
1640079138840236800,"2021-12-21,09:32:18",10.1.1.10,0.4939539432525635,-0.180,-0.180,-0.180,0.000,0.000,0.000
1640079139526347008,"2021-12-21,09:32:19",10.1.1.10,0.6836168766021729,-0.190,-0.190,-0.190,0.000,0.000,0.000
1640079140916441856,"2021-12-21,09:32:20",10.1.1.10,1.3884501457214355,-0.200,-0.200,-0.200,0.000,0.000,0.000
1640079141376657920,"2021-12-21,09:32:21",10.1.1.10,0.4566779136657715,-0.210,-0.210,-0.210,0.000,0.000,0.000
1640079141823842048,"2021-12-21,09:32:21",10.1.1.10,0.4396090507507324,-0.220,-0.220,-0.220,0.000,0.000,0.000
1640079142485122048,"2021-12-21,09:32:22",10.1.1.10,0.659588098526001,-0.230,-0.230,-0.230,0.000,0.000,0.000
1640079143126703872,"2021-12-21,09:32:23",10.1.1.10,0.6290268898010254,-0.240,-0.240,-0.240,0.000,0.000,0.000
1640079143738394880,"2021-12-21,09:32:23",10.1.1.10,0.56227707862854,-0.250,-0.250,-0.250,0.000,0.000,0.000
1640079144338448896,"2021-12-21,09:32:24",10.1.1.10,0.5829970836639404,-0.260,-0.260,-0.260,0.000,0.000,0.000
1640079145059945984,"2021-12-21,09:32:25",10.1.1.10,0.7196018695831299,-0.270,-0.270,-0.270,0.000,0.000,0.000
1640079145577935104,"2021-12-21,09:32:25",10.1.1.10,0.5157849788665771,-0.280,-0.280,-0.280,0.000,0.000,0.000
1640079146359793920,"2021-12-21,09:32:26",10.1.1.10,0.7662880420684814,-0.290,-0.290,-0.290,0.000,0.000,0.000
1640079147142365952,"2021-12-21,09:32:27",10.1.1.10,0.7796990871429443,-0.300,-0.300,-0.300,0.000,0.000,0.000
1640079147671245056,"2021-12-21,09:32:27",10.1.1.10,0.4953458309173584,-0.310,-0.310,-0.310,0.000,0.000,0.000
1640079148583729152,"2021-12-21,09:32:28",10.1.1.10,0.9099030494689941,-0.320,-0.320,-0.320,0.000,0.000,0.000
1640079149040568064,"2021-12-21,09:32:29",10.1.1.10,448,-0.330,-0.330,-0.330,0.000,0.000,0.000
1640079149285319936,"2021-12-21,09:32:29",10.1.1.10,0.6928400993347168,-0.330,-0.330,-0.330,0.000,0.000,0.000
1640079149933906176,"2021-12-21,09:32:29",10.1.1.10,634,-0.340,-0.340,-0.340,0.000,0.000,0.000
1640079150065088000,"2021-12-21,09:32:30",10.1.1.10,0.7659890651702881,-0.340,-0.340,-0.340,0.000,0.000,0.000
1640079150617809152,"2021-12-21,09:32:30",10.1.1.10,491,-0.350,-0.350,-0.350,0.000,0.000,0.000
1640079150721666048,"2021-12-21,09:32:30",10.1.1.10,0.5951981544494629,-0.350,-0.350,-0.350,0.000,0.000,0.000
1640079151199453952,"2021-12-21,09:32:31",10.1.1.10,445,-0.360,-0.360,-0.360,0.000,0.000,0.000
1640079151338620928,"2021-12-21,09:32:31",10.1.1.10,0.5845510959625244,-0.360,-0.360,-0.360,0.000,0.000,0.000
1640079152080198144,"2021-12-21,09:32:32",10.1.1.10,738,-0.370,-0.370,-0.370,0.000,0.000,0.000
1640079152179516928,"2021-12-21,09:32:32",10.1.1.10,0.8374040126800537,-0.370,-0.370,-0.370,0.000,0.000,0.000
1640079152651692032,"2021-12-21,09:32:32",10.1.1.10,465,-0.380,-0.380,-0.380,0.000,0.000,0.000
1640079152832825856,"2021-12-21,09:32:32",10.1.1.10,0.647050142288208,-0.380,-0.380,-0.380,0.000,0.000,0.000
1640079153506299904,"2021-12-21,09:32:33",10.1.1.10,670,-0.390,-0.390,-0.390,0.000,0.000,0.000
1640079153616785152,"2021-12-21,09:32:33",10.1.1.10,0.7813320159912109,-0.390,-0.390,-0.390,0.000,0.000,0.000
1640079154213591040,"2021-12-21,09:32:34",10.1.1.10,595,-0.400,-0.400,-0.400,0.000,0.000,0.000
1640079154316673024,"2021-12-21,09:32:34",10.1.1.10,0.6981658935546875,-0.400,-0.400,-0.400,0.000,0.000,0.000
1640079154693953024,"2021-12-21,09:32:34",10.1.1.10,374,-0.410,-0.410,-0.410,0.000,0.000,0.000
1640079154805801984,"2021-12-21,09:32:34",10.1.1.10,0.4864161014556885,-0.410,-0.410,-0.410,0.000,0.000,0.000
1640079155280903936,"2021-12-21,09:32:35",10.1.1.10,465,-0.420,-0.420,-0.420,0.000,0.000,0.000
1640079155359996160,"2021-12-21,09:32:35",10.1.1.10,0.5442090034484863,-0.420,-0.420,-0.420,0.000,0.000,0.000
1640079155900336128,"2021-12-21,09:32:35",10.1.1.10,525,-0.430,-0.430,-0.430,0.000,0.000,0.000
1640079156138050048,"2021-12-21,09:32:36",10.1.1.10,0.7638239860534668,-0.430,-0.430,-0.430,0.000,0.000,0.000
1640079156671355136,"2021-12-21,09:32:36",10.1.1.10,500,-0.440,-0.440,-0.440,0.000,0.000,0.000
1640079156726814976,"2021-12-21,09:32:36",10.1.1.10,0.5564088821411133,-0.440,-0.440,-0.440,0.000,0.000,0.000
1640079157259800064,"2021-12-21,09:32:37",10.1.1.10,503,-0.450,-0.450,-0.450,0.000,0.000,0.000
1640079157435342080,"2021-12-21,09:32:37",10.1.1.10,0.6787359714508057,-0.450,-0.450,-0.450,0.000,0.000,0.000
1640079157918590976,"2021-12-21,09:32:37",10.1.1.10,476,-0.460,-0.460,-0.460,0.000,0.000,0.000
1640079157952513024,"2021-12-21,09:32:37",10.1.1.10,0.5148541927337646,-0.460,-0.460,-0.460,0.000,0.000,0.000
1640079158313737984,"2021-12-21,09:32:38",10.1.1.10,358,-0.470,-0.470,-0.470,0.000,0.000,0.000
1640079158344158976,"2021-12-21,09:32:38",10.1.1.10,0.3886117935180664,-0.470,-0.470,-0.470,0.000,0.000,0.000
1640079158796627968,"2021-12-21,09:32:38",10.1.1.10,451,-0.480,-0.480,-0.480,0.000,0.000,0.000
1640079158889314048,"2021-12-21,09:32:38",10.1.1.10,0.5437660217285156,-0.480,-0.480,-0.480,0.000,0.000,0.000
1640079159397233920,"2021-12-21,09:32:39",10.1.1.10,498,-0.490,-0.490,-0.490,0.000,0.000,0.000
1640079159543715072,"2021-12-21,09:32:39",10.1.1.10,0.6448390483856201,-0.490,-0.490,-0.490,0.000,0.000,0.000
1640079160025661952,"2021-12-21,09:32:40",10.1.1.10,469,-0.500,-0.500,-0.500,0.000,0.000,0.000
1640079160178368000,"2021-12-21,09:32:40",10.1.1.10,0.6219000816345215,-0.500,-0.500,-0.500,0.000,0.000,0.000
1640079160635433984,"2021-12-21,09:32:40",10.1.1.10,442,-0.510,-0.510,-0.510,0.000,0.000,0.000
1640079160808887040,"2021-12-21,09:32:40",10.1.1.10,0.6161289215087891,-0.510,-0.510,-0.510,0.000,0.000,0.000
1640079161368494080,"2021-12-21,09:32:41",10.1.1.10,552,-0.520,-0.520,-0.520,0.000,0.000,0.000
1640079161375703040,"2021-12-21,09:32:41",10.1.1.10,0.5642690658569336,-0.520,-0.520,-0.520,0.000,0.000,0.000
1640079161795532032,"2021-12-21,09:32:41",10.1.1.10,403,-0.530,-0.530,-0.530,0.000,0.000,0.000
1640079161909280000,"2021-12-21,09:32:41",10.1.1.10,0.5209131240844727,-0.530,-0.530,-0.530,0.000,0.000,0.000
1640079162386540032,"2021-12-21,09:32:42",10.1.1.10,448,-0.540,-0.540,-0.540,0.000,0.000,0.000
1640079162480678144,"2021-12-21,09:32:42",10.1.1.10,0.5414588451385498,-0.540,-0.540,-0.540,0.000,0.000,0.000
1640079162960852992,"2021-12-21,09:32:42",10.1.1.10,478,-0.550,-0.550,-0.550,0.000,0.000,0.000
1640079163048930816,"2021-12-21,09:32:43",10.1.1.10,0.5661451816558838,-0.550,-0.550,-0.550,0.000,0.000,0.000
1640079163679529984,"2021-12-21,09:32:43",10.1.1.10,614,-0.560,-0.560,-0.560,0.000,0.000,0.000
1640079163801539072,"2021-12-21,09:32:43",10.1.1.10,0.7348780632019043,-0.560,-0.560,-0.560,0.000,0.000,0.000
1640079164276227840,"2021-12-21,09:32:44",10.1.1.10,471,-0.570,-0.570,-0.570,0.000,0.000,0.000
1640079164342420992,"2021-12-21,09:32:44",10.1.1.10,0.5372118949890137,-0.570,-0.570,-0.570,0.000,0.000,0.000
1640079164965473024,"2021-12-21,09:32:44",10.1.1.10,601,-0.580,-0.580,-0.580,0.000,0.000,0.000
1640079165018074112,"2021-12-21,09:32:45",10.1.1.10,0.6523549556732178,-0.580,-0.580,-0.580,0.000,0.000,0.000
1640079165522836992,"2021-12-21,09:32:45",10.1.1.10,487,-0.590,-0.590,-0.590,0.000,0.000,0.000
1640079165595983104,"2021-12-21,09:32:45",10.1.1.10,0.5602450370788574,-0.590,-0.590,-0.590,0.000,0.000,0.000
1640079165956705024,"2021-12-21,09:32:45",10.1.1.10,358,-0.600,-0.600,-0.600,0.000,0.000,0.000
1640079166023143936,"2021-12-21,09:32:46",10.1.1.10,0.4254889488220215,-0.600,-0.600,-0.600,0.000,0.000,0.000
1640079166548006912,"2021-12-21,09:32:46",10.1.1.10,523,-0.610,-0.610,-0.610,0.000,0.000,0.000
1640079166730501888,"2021-12-21,09:32:46",10.1.1.10,0.7054550647735596,-0.610,-0.610,-0.610,0.000,0.000,0.000
1640079167081569792,"2021-12-21,09:32:47",10.1.1.10,336,-0.620,-0.620,-0.620,0.000,0.000,0.000
1640079167156058112,"2021-12-21,09:32:47",10.1.1.10,0.4113919734954834,-0.620,-0.620,-0.620,0.000,0.000,0.000
1640079167635034112,"2021-12-21,09:32:47",10.1.1.10,472,-0.630,-0.630,-0.630,0.000,0.000,0.000
1640079167660164096,"2021-12-21,09:32:47",10.1.1.10,0.5018010139465332,-0.630,-0.630,-0.630,0.000,0.000,0.000
1640079168052777984,"2021-12-21,09:32:48",10.1.1.10,390,-0.640,-0.640,-0.640,0.000,0.000,0.000
1640079168118693120,"2021-12-21,09:32:48",10.1.1.10,0.456265926361084,-0.640,-0.640,-0.640,0.000,0.000,0.000
1640079168523228928,"2021-12-21,09:32:48",10.1.1.10,402,-0.650,-0.650,-0.650,0.000,0.000,0.000
1640079168529545984,"2021-12-21,09:32:48",10.1.1.10,0.4088599681854248,-0.650,-0.650,-0.650,0.000,0.000,0.000
1640079168946885120,"2021-12-21,09:32:48",10.1.1.10,399,-0.640,-0.640,-0.640,0.000,0.000,0.000
1640079169016078848,"2021-12-21,09:32:49",10.1.1.10,0.4754600524902344,-0.640,-0.640,-0.640,0.000,0.000,0.000
1640079169512357120,"2021-12-21,09:32:49",10.1.1.10,494,-0.630,-0.630,-0.630,0.000,0.000,0.000
1640079169548461824,"2021-12-21,09:32:49",10.1.1.10,0.5292129516601562,-0.630,-0.630,-0.630,0.000,0.000,0.000
1640079169986148096,"2021-12-21,09:32:49",10.1.1.10,435,-0.620,-0.620,-0.620,0.000,0.000,0.000
1640079170053627904,"2021-12-21,09:32:50",10.1.1.10,0.5033628940582275,-0.620,-0.620,-0.620,0.000,0.000,0.000
1640079170450222080,"2021-12-21,09:32:50",10.1.1.10,395,-0.610,-0.610,-0.610,0.000,0.000,0.000
1640079170533191936,"2021-12-21,09:32:50",10.1.1.10,0.4781951904296875,-0.610,-0.610,-0.610,0.000,0.000,0.000
1640079171430470912,"2021-12-21,09:32:51",10.1.1.10,892,-0.600,-0.600,-0.600,0.000,0.000,0.000
1640079171489118976,"2021-12-21,09:32:51",10.1.1.10,0.9516961574554443,-0.600,-0.600,-0.600,0.000,0.000,0.000
1640079171881234944,"2021-12-21,09:32:51",10.1.1.10,384,-0.590,-0.590,-0.590,0.000,0.000,0.000
1640079171966541056,"2021-12-21,09:32:51",10.1.1.10,0.469724178314209,-0.590,-0.590,-0.590,0.000,0.000,0.000
1640079172569725952,"2021-12-21,09:32:52",10.1.1.10,601,-0.580,-0.580,-0.580,0.000,0.000,0.000
1640079172595469056,"2021-12-21,09:32:52",10.1.1.10,0.6273400783538818,-0.580,-0.580,-0.580,0.000,0.000,0.000
1640079173071970048,"2021-12-21,09:32:53",10.1.1.10,474,-0.570,-0.570,-0.570,0.000,0.000,0.000
1640079173229240064,"2021-12-21,09:32:53",10.1.1.10,0.6318302154541016,-0.570,-0.570,-0.570,0.000,0.000,0.000
1640079173789791232,"2021-12-21,09:32:53",10.1.1.10,0.545753002166748,-0.560,-0.560,-0.560,0.000,0.000,0.000
1640079173790051840,"2021-12-21,09:32:53",10.1.1.10,546,-0.560,-0.560,-0.560,0.000,0.000,0.000
1640079174264806144,"2021-12-21,09:32:54",10.1.1.10,454,-0.550,-0.550,-0.550,0.000,0.000,0.000
1640079174561306112,"2021-12-21,09:32:54",10.1.1.10,0.7516078948974609,-0.550,-0.550,-0.550,0.000,0.000,0.000
1640079175118542080,"2021-12-21,09:32:55",10.1.1.10,541,-0.540,-0.540,-0.540,0.000,0.000,0.000
1640079175247411968,"2021-12-21,09:32:55",10.1.1.10,0.6701138019561768,-0.540,-0.540,-0.540,0.000,0.000,0.000
1640079175789767936,"2021-12-21,09:32:55",10.1.1.10,539,-0.530,-0.530,-0.530,0.000,0.000,0.000
1640079175867460096,"2021-12-21,09:32:55",10.1.1.10,0.6177501678466797,-0.530,-0.530,-0.530,0.000,0.000,0.000
1640079176456961024,"2021-12-21,09:32:56",10.1.1.10,587,-0.520,-0.520,-0.520,0.000,0.000,0.000
1640079176535703040,"2021-12-21,09:32:56",10.1.1.10,0.6668171882629395,-0.520,-0.520,-0.520,0.000,0.000,0.000
1640079177366054912,"2021-12-21,09:32:57",10.1.1.10,463,-0.510,-0.510,-0.510,0.000,0.000,0.000
1640079177454582016,"2021-12-21,09:32:57",10.1.1.10,0.9060320854187012,-0.510,-0.510,-0.510,0.000,0.000,0.000
1640079177576203008,"2021-12-21,09:32:57",10.1.1.10,-46,-0.500,-0.500,-0.500,0.000,0.000,0.000
1640079178185874944,"2021-12-21,09:32:58",10.1.1.10,0.6757910251617432,-0.500,-0.500,-0.500,0.000,0.000,0.000
1640079178703963136,"2021-12-21,09:32:58",10.1.1.10,502,-0.490,-0.490,-0.490,0.000,0.000,0.000
1640079178773842176,"2021-12-21,09:32:58",10.1.1.10,0.5721390247344971,-0.490,-0.490,-0.490,0.000,0.000,0.000
1640079179401641984,"2021-12-21,09:32:59",10.1.1.10,593,-0.480,-0.480,-0.480,0.000,0.000,0.000
1640079179458087936,"2021-12-21,09:32:59",10.1.1.10,0.6496500968933105,-0.480,-0.480,-0.480,0.000,0.000,0.000
1640079180046048000,"2021-12-21,09:33:00",10.1.1.10,586,-0.470,-0.470,-0.470,0.000,0.000,0.000
1640079180059254784,"2021-12-21,09:33:00",10.1.1.10,0.599498987197876,-0.470,-0.470,-0.470,0.000,0.000,0.000
1640079180538945024,"2021-12-21,09:33:00",10.1.1.10,465,-0.460,-0.460,-0.460,0.000,0.000,0.000
1640079180595841792,"2021-12-21,09:33:00",10.1.1.10,0.5225660800933838,-0.460,-0.460,-0.460,0.000,0.000,0.000
1640079181068742912,"2021-12-21,09:33:01",10.1.1.10,458,-0.450,-0.450,-0.450,0.000,0.000,0.000
1640079181150693888,"2021-12-21,09:33:01",10.1.1.10,0.5410029888153076,-0.450,-0.450,-0.450,0.000,0.000,0.000
1640079181732734976,"2021-12-21,09:33:01",10.1.1.10,578,-0.440,-0.440,-0.440,0.000,0.000,0.000
1640079181847020032,"2021-12-21,09:33:01",10.1.1.10,0.6925129890441895,-0.440,-0.440,-0.440,0.000,0.000,0.000
1640079182309143040,"2021-12-21,09:33:02",10.1.1.10,445,-0.430,-0.430,-0.430,0.000,0.000,0.000
1640079182418248960,"2021-12-21,09:33:02",10.1.1.10,0.5512728691101074,-0.430,-0.430,-0.430,0.000,0.000,0.000
1640079183056830976,"2021-12-21,09:33:03",10.1.1.10,605,-0.420,-0.420,-0.420,0.000,0.000,0.000
1640079183178971904,"2021-12-21,09:33:03",10.1.1.10,0.7288320064544678,-0.420,-0.420,-0.420,0.000,0.000,0.000
1640079183769228032,"2021-12-21,09:33:03",10.1.1.10,588,-0.410,-0.410,-0.410,0.000,0.000,0.000
1640079184040103936,"2021-12-21,09:33:04",10.1.1.10,0.8595850467681885,-0.410,-0.410,-0.410,0.000,0.000,0.000
1640079184475894016,"2021-12-21,09:33:04",10.1.1.10,412,-0.400,-0.400,-0.400,0.000,0.000,0.000
1640079184627790080,"2021-12-21,09:33:04",10.1.1.10,0.5652070045471191,-0.400,-0.400,-0.400,0.000,0.000,0.000
1640079184686439936,"2021-12-21,09:33:04",10.1.1.10,-1,-0.390,-0.390,-0.390,0.000,0.000,0.000
1640079185348349184,"2021-12-21,09:33:05",10.1.1.10,0.7059690952301025,-0.390,-0.390,-0.390,0.000,0.000,0.000
1640079185857436928,"2021-12-21,09:33:05",10.1.1.10,492,-0.380,-0.380,-0.380,0.000,0.000,0.000
1640079186057899008,"2021-12-21,09:33:06",10.1.1.10,0.7066829204559326,-0.380,-0.380,-0.380,0.000,0.000,0.000
1640079186687624960,"2021-12-21,09:33:06",10.1.1.10,596,-0.370,-0.370,-0.370,0.000,0.000,0.000
1640079186881515008,"2021-12-21,09:33:06",10.1.1.10,0.8156459331512451,-0.370,-0.370,-0.370,0.000,0.000,0.000
1640079187571278080,"2021-12-21,09:33:07",10.1.1.10,688,-0.360,-0.360,-0.360,0.000,0.000,0.000
1640079187608994048,"2021-12-21,09:33:07",10.1.1.10,0.7204031944274902,-0.360,-0.360,-0.360,0.000,0.000,0.000
1640079188151025920,"2021-12-21,09:33:08",10.1.1.10,530,-0.350,-0.350,-0.350,0.000,0.000,0.000
1640079188361126912,"2021-12-21,09:33:08",10.1.1.10,0.7410099506378174,-0.350,-0.350,-0.350,0.000,0.000,0.000
1640079188980837120,"2021-12-21,09:33:08",10.1.1.10,593,-0.340,-0.340,-0.340,0.000,0.000,0.000
1640079189049329152,"2021-12-21,09:33:09",10.1.1.10,0.6660611629486084,-0.340,-0.340,-0.340,0.000,0.000,0.000
1640079189562370048,"2021-12-21,09:33:09",10.1.1.10,498,-0.330,-0.330,-0.330,0.000,0.000,0.000
1640079189669324032,"2021-12-21,09:33:09",10.1.1.10,0.6053810119628906,-0.330,-0.330,-0.330,0.000,0.000,0.000
1640079190135469824,"2021-12-21,09:33:10",10.1.1.10,455,-0.320,-0.320,-0.320,0.000,0.000,0.000
1640079190273627136,"2021-12-21,09:33:10",10.1.1.10,0.5940561294555664,-0.320,-0.320,-0.320,0.000,0.000,0.000
1640079191098535936,"2021-12-21,09:33:11",10.1.1.10,808,-0.310,-0.310,-0.310,0.000,0.000,0.000
1640079191366617088,"2021-12-21,09:33:11",10.1.1.10,1.0782110691070557,-0.310,-0.310,-0.310,0.000,0.000,0.000
1640079191929387008,"2021-12-21,09:33:11",10.1.1.10,547,-0.300,-0.300,-0.300,0.000,0.000,0.000
1640079192135795968,"2021-12-21,09:33:12",10.1.1.10,0.7483642101287842,-0.300,-0.300,-0.300,0.000,0.000,0.000
1640079192935517952,"2021-12-21,09:33:12",10.1.1.10,0.7139859199523926,-0.290,-0.290,-0.290,0.000,0.000,0.000
1640079192936134144,"2021-12-21,09:33:12",10.1.1.10,747,-0.290,-0.290,-0.290,0.000,0.000,0.000
1640079193688237056,"2021-12-21,09:33:13",10.1.1.10,735,-0.280,-0.280,-0.280,0.000,0.000,0.000
1640079193853806848,"2021-12-21,09:33:13",10.1.1.10,0.9008188247680664,-0.280,-0.280,-0.280,0.000,0.000,0.000
1640079194376670976,"2021-12-21,09:33:14",10.1.1.10,517,-0.270,-0.270,-0.270,0.000,0.000,0.000
1640079194704070144,"2021-12-21,09:33:14",10.1.1.10,0.8448960781097412,-0.270,-0.270,-0.270,0.000,0.000,0.000
1640079195421117184,"2021-12-21,09:33:15",10.1.1.10,688,-0.260,-0.260,-0.260,0.000,0.000,0.000
1640079195443591168,"2021-12-21,09:33:15",10.1.1.10,0.7107670307159424,-0.260,-0.260,-0.260,0.000,0.000,0.000
1640079196214216960,"2021-12-21,09:33:16",10.1.1.10,763,-0.250,-0.250,-0.250,0.000,0.000,0.000
1640079196243099904,"2021-12-21,09:33:16",10.1.1.10,0.7956640720367432,-0.250,-0.250,-0.250,0.000,0.000,0.000
1640079196798991872,"2021-12-21,09:33:16",10.1.1.10,553,-0.240,-0.240,-0.240,0.000,0.000,0.000
1640079196892139008,"2021-12-21,09:33:16",10.1.1.10,0.646920919418335,-0.240,-0.240,-0.240,0.000,0.000,0.000
1640079197586065152,"2021-12-21,09:33:17",10.1.1.10,681,-0.230,-0.230,-0.230,0.000,0.000,0.000
1640079197718790912,"2021-12-21,09:33:17",10.1.1.10,0.8140501976013184,-0.230,-0.230,-0.230,0.000,0.000,0.000
1640079198376573952,"2021-12-21,09:33:18",10.1.1.10,0.6564598083496094,-0.220,-0.220,-0.220,0.000,0.000,0.000
1640079198377000192,"2021-12-21,09:33:18",10.1.1.10,656,-0.220,-0.220,-0.220,0.000,0.000,0.000
1640079198974309888,"2021-12-21,09:33:18",10.1.1.10,566,-0.210,-0.210,-0.210,0.000,0.000,0.000
1640079199096187136,"2021-12-21,09:33:19",10.1.1.10,0.6880369186401367,-0.210,-0.210,-0.210,0.000,0.000,0.000
1640079199872292096,"2021-12-21,09:33:19",10.1.1.10,0.7558159828186035,-0.200,-0.200,-0.200,0.000,0.000,0.000
1640079199875524096,"2021-12-21,09:33:19",10.1.1.10,759,-0.200,-0.200,-0.200,0.000,0.000,0.000
1640079200395759104,"2021-12-21,09:33:20",10.1.1.10,470,-0.190,-0.190,-0.190,0.000,0.000,0.000
1640079200523601152,"2021-12-21,09:33:20",10.1.1.10,0.5986311435699463,-0.190,-0.190,-0.190,0.000,0.000,0.000
1640079201307416064,"2021-12-21,09:33:21",10.1.1.10,780,-0.180,-0.180,-0.180,0.000,0.000,0.000
1640079201380417024,"2021-12-21,09:33:21",10.1.1.10,0.8539328575134277,-0.180,-0.180,-0.180,0.000,0.000,0.000
1640079202014373120,"2021-12-21,09:33:22",10.1.1.10,598,-0.170,-0.170,-0.170,0.000,0.000,0.000
1640079202262187008,"2021-12-21,09:33:22",10.1.1.10,0.8519039154052734,-0.170,-0.170,-0.170,0.000,0.000,0.000
1640079202819848960,"2021-12-21,09:33:22",10.1.1.10,542,-0.160,-0.160,-0.160,0.000,0.000,0.000
1640079203006989056,"2021-12-21,09:33:23",10.1.1.10,0.7292609214782715,-0.160,-0.160,-0.160,0.000,0.000,0.000
1640079203713051136,"2021-12-21,09:33:23",10.1.1.10,697,-0.170,-0.170,-0.170,0.000,0.000,0.000
1640079203754710016,"2021-12-21,09:33:23",10.1.1.10,0.7396011352539062,-0.170,-0.170,-0.170,0.000,0.000,0.000
1640079204256644096,"2021-12-21,09:33:24",10.1.1.10,474,-0.180,-0.180,-0.180,0.000,0.000,0.000
1640079204424985856,"2021-12-21,09:33:24",10.1.1.10,0.6531171798706055,-0.180,-0.180,-0.180,0.000,0.000,0.000
1640079205196278016,"2021-12-21,09:33:25",10.1.1.10,728,-0.190,-0.190,-0.190,0.000,0.000,0.000
1640079205355885056,"2021-12-21,09:33:25",10.1.1.10,0.8921830654144287,-0.190,-0.190,-0.190,0.000,0.000,0.000
1640079206114837760,"2021-12-21,09:33:26",10.1.1.10,752,-0.200,-0.200,-0.200,0.000,0.000,0.000
1640079206296016896,"2021-12-21,09:33:26",10.1.1.10,0.9383590221405029,-0.200,-0.200,-0.200,0.000,0.000,0.000
1640079207028647936,"2021-12-21,09:33:27",10.1.1.10,730,-0.210,-0.210,-0.210,0.000,0.000,0.000
1640079207084908032,"2021-12-21,09:33:27",10.1.1.10,0.7871100902557373,-0.210,-0.210,-0.210,0.000,0.000,0.000
1640079208202755072,"2021-12-21,09:33:28",10.1.1.10,1103,-0.220,-0.220,-0.220,0.000,0.000,0.000
1640079208331033856,"2021-12-21,09:33:28",10.1.1.10,1.2324199676513672,-0.220,-0.220,-0.220,0.000,0.000,0.000
1640079209164849152,"2021-12-21,09:33:29",10.1.1.10,799,-0.230,-0.230,-0.230,0.000,0.000,0.000
1640079209434205952,"2021-12-21,09:33:29",10.1.1.10,1.0755589008331299,-0.230,-0.230,-0.230,0.000,0.000,0.000
1640079209896816896,"2021-12-21,09:33:29",10.1.1.10,451,-0.240,-0.240,-0.240,0.000,0.000,0.000
1640079210014964992,"2021-12-21,09:33:30",10.1.1.10,0.5701339244842529,-0.240,-0.240,-0.240,0.000,0.000,0.000
1640079210728466944,"2021-12-21,09:33:30",10.1.1.10,700,-0.250,-0.250,-0.250,0.000,0.000,0.000
1640079210873910016,"2021-12-21,09:33:30",10.1.1.10,0.8463549613952637,-0.250,-0.250,-0.250,0.000,0.000,0.000
1640079211483136000,"2021-12-21,09:33:31",10.1.1.10,588,-0.260,-0.260,-0.260,0.000,0.000,0.000
1640079211591810048,"2021-12-21,09:33:31",10.1.1.10,0.6969478130340576,-0.260,-0.260,-0.260,0.000,0.000,0.000
1640079212149543936,"2021-12-21,09:33:32",10.1.1.10,555,-0.270,-0.270,-0.270,0.000,0.000,0.000
1640079212216494080,"2021-12-21,09:33:32",10.1.1.10,0.6224288940429688,-0.270,-0.270,-0.270,0.000,0.000,0.000
1640079212777262848,"2021-12-21,09:33:32",10.1.1.10,555,-0.280,-0.280,-0.280,0.000,0.000,0.000
1640079212793785088,"2021-12-21,09:33:32",10.1.1.10,0.5723578929901123,-0.280,-0.280,-0.280,0.000,0.000,0.000
1640079213304856064,"2021-12-21,09:33:33",10.1.1.10,509,-0.290,-0.290,-0.290,0.000,0.000,0.000
1640079213599821056,"2021-12-21,09:33:33",10.1.1.10,0.8042821884155273,-0.290,-0.290,-0.290,0.000,0.000,0.000
1640079214180612096,"2021-12-21,09:33:34",10.1.1.10,562,-0.300,-0.300,-0.300,0.000,0.000,0.000
1640079214288857088,"2021-12-21,09:33:34",10.1.1.10,0.6698629856109619,-0.300,-0.300,-0.300,0.000,0.000,0.000
1640079214932035840,"2021-12-21,09:33:34",10.1.1.10,578,-0.310,-0.310,-0.310,0.000,0.000,0.000
1640079215128086016,"2021-12-21,09:33:35",10.1.1.10,0.7971649169921875,-0.310,-0.310,-0.310,0.000,0.000,0.000
1640079215665404928,"2021-12-21,09:33:35",10.1.1.10,519,-0.320,-0.320,-0.320,0.000,0.000,0.000
1640079215759994112,"2021-12-21,09:33:35",10.1.1.10,0.6138319969177246,-0.320,-0.320,-0.320,0.000,0.000,0.000
1640079216565332992,"2021-12-21,09:33:36",10.1.1.10,796,-0.330,-0.330,-0.330,0.000,0.000,0.000
1640079216655045120,"2021-12-21,09:33:36",10.1.1.10,0.8865089416503906,-0.330,-0.330,-0.330,0.000,0.000,0.000
1640079217250235136,"2021-12-21,09:33:37",10.1.1.10,516,-0.340,-0.340,-0.340,0.000,0.000,0.000
1640079217309272064,"2021-12-21,09:33:37",10.1.1.10,0.5832309722900391,-0.340,-0.340,-0.340,0.000,0.000,0.000
1640079217986014976,"2021-12-21,09:33:37",10.1.1.10,652,-0.350,-0.350,-0.350,0.000,0.000,0.000
1640079218048399872,"2021-12-21,09:33:38",10.1.1.10,0.7149341106414795,-0.350,-0.350,-0.350,0.000,0.000,0.000
1640079218927409920,"2021-12-21,09:33:38",10.1.1.10,853,-0.360,-0.360,-0.360,0.000,0.000,0.000
1640079219011864064,"2021-12-21,09:33:39",10.1.1.10,0.9426181316375732,-0.360,-0.360,-0.360,0.000,0.000,0.000
1640079219544080128,"2021-12-21,09:33:39",10.1.1.10,524,-0.370,-0.370,-0.370,0.000,0.000,0.000
1640079219694020864,"2021-12-21,09:33:39",10.1.1.10,0.6741011142730713,-0.370,-0.370,-0.370,0.000,0.000,0.000
1640079219781358848,"2021-12-21,09:33:39",10.1.1.10,-10,-0.380,-0.380,-0.380,0.000,0.000,0.000
1640079220410368000,"2021-12-21,09:33:40",10.1.1.10,0.7046108245849609,-0.380,-0.380,-0.380,0.000,0.000,0.000
1640079220991287040,"2021-12-21,09:33:40",10.1.1.10,579,-0.390,-0.390,-0.390,0.000,0.000,0.000
1640079221253030912,"2021-12-21,09:33:41",10.1.1.10,0.8412430286407471,-0.390,-0.390,-0.390,0.000,0.000,0.000
1640079221835015168,"2021-12-21,09:33:41",10.1.1.10,577,-0.400,-0.400,-0.400,0.000,0.000,0.000
1640079221922505984,"2021-12-21,09:33:41",10.1.1.10,0.6648268699645996,-0.400,-0.400,-0.400,0.000,0.000,0.000
1640079222533723136,"2021-12-21,09:33:42",10.1.1.10,609,-0.410,-0.410,-0.410,0.000,0.000,0.000
1640079222690030080,"2021-12-21,09:33:42",10.1.1.10,0.7654321193695068,-0.410,-0.410,-0.410,0.000,0.000,0.000
1640079223298227968,"2021-12-21,09:33:43",10.1.1.10,606,-0.420,-0.420,-0.420,0.000,0.000,0.000
1640079223405105152,"2021-12-21,09:33:43",10.1.1.10,0.7130279541015625,-0.420,-0.420,-0.420,0.000,0.000,0.000
1640079224055320064,"2021-12-21,09:33:44",10.1.1.10,644,-0.430,-0.430,-0.430,0.000,0.000,0.000
1640079224177850880,"2021-12-21,09:33:44",10.1.1.10,0.7670519351959229,-0.430,-0.430,-0.430,0.000,0.000,0.000
1640079224763356928,"2021-12-21,09:33:44",10.1.1.10,537,-0.440,-0.440,-0.440,0.000,0.000,0.000
1640079224935776000,"2021-12-21,09:33:44",10.1.1.10,0.7098701000213623,-0.440,-0.440,-0.440,0.000,0.000,0.000
1640079225553096960,"2021-12-21,09:33:45",10.1.1.10,592,-0.450,-0.450,-0.450,0.000,0.000,0.000
1640079225648408064,"2021-12-21,09:33:45",10.1.1.10,0.6879820823669434,-0.450,-0.450,-0.450,0.000,0.000,0.000
1640079226228050944,"2021-12-21,09:33:46",10.1.1.10,562,-0.460,-0.460,-0.460,0.000,0.000,0.000
1640079226351676928,"2021-12-21,09:33:46",10.1.1.10,0.6861698627471924,-0.460,-0.460,-0.460,0.000,0.000,0.000
1640079226980686848,"2021-12-21,09:33:46",10.1.1.10,560,-0.470,-0.470,-0.470,0.000,0.000,0.000
1640079227215572224,"2021-12-21,09:33:47",10.1.1.10,0.7958190441131592,-0.470,-0.470,-0.470,0.000,0.000,0.000
1640079227745722112,"2021-12-21,09:33:47",10.1.1.10,480,-0.480,-0.480,-0.480,0.000,0.000,0.000
1640079227862696960,"2021-12-21,09:33:47",10.1.1.10,0.597527027130127,-0.480,-0.480,-0.480,0.000,0.000,0.000
1640079228550291968,"2021-12-21,09:33:48",10.1.1.10,679,-0.490,-0.490,-0.490,0.000,0.000,0.000
1640079228735268096,"2021-12-21,09:33:48",10.1.1.10,0.8643689155578613,-0.490,-0.490,-0.490,0.000,0.000,0.000
1640079229241974016,"2021-12-21,09:33:49",10.1.1.10,489,-0.500,-0.500,-0.500,0.000,0.000,0.000
1640079229356889088,"2021-12-21,09:33:49",10.1.1.10,0.6049270629882812,-0.500,-0.500,-0.500,0.000,0.000,0.000
1640079229967901952,"2021-12-21,09:33:49",10.1.1.10,609,-0.510,-0.510,-0.510,0.000,0.000,0.000
1640079230059094016,"2021-12-21,09:33:50",10.1.1.10,0.7008559703826904,-0.510,-0.510,-0.510,0.000,0.000,0.000
1640079230593950976,"2021-12-21,09:33:50",10.1.1.10,527,-0.520,-0.520,-0.520,0.000,0.000,0.000
1640079230829142016,"2021-12-21,09:33:50",10.1.1.10,0.7627170085906982,-0.520,-0.520,-0.520,0.000,0.000,0.000
1640079231359097088,"2021-12-21,09:33:51",10.1.1.10,524,-0.530,-0.530,-0.530,0.000,0.000,0.000
1640079231566989824,"2021-12-21,09:33:51",10.1.1.10,0.7325611114501953,-0.530,-0.530,-0.530,0.000,0.000,0.000
1640079232098393856,"2021-12-21,09:33:52",10.1.1.10,526,-0.540,-0.540,-0.540,0.000,0.000,0.000
1640079232227597824,"2021-12-21,09:33:52",10.1.1.10,0.6558680534362793,-0.540,-0.540,-0.540,0.000,0.000,0.000
1640079232887803904,"2021-12-21,09:33:52",10.1.1.10,657,-0.550,-0.550,-0.550,0.000,0.000,0.000
1640079233174531840,"2021-12-21,09:33:53",10.1.1.10,0.9447939395904541,-0.550,-0.550,-0.550,0.000,0.000,0.000
1640079233784419072,"2021-12-21,09:33:53",10.1.1.10,607,-0.560,-0.560,-0.560,0.000,0.000,0.000
1640079233997709056,"2021-12-21,09:33:53",10.1.1.10,0.8207418918609619,-0.560,-0.560,-0.560,0.000,0.000,0.000
1640079234762422016,"2021-12-21,09:33:54",10.1.1.10,755,-0.570,-0.570,-0.570,0.000,0.000,0.000
1640079234826110976,"2021-12-21,09:33:54",10.1.1.10,0.8189578056335449,-0.570,-0.570,-0.570,0.000,0.000,0.000
1640079235498383872,"2021-12-21,09:33:55",10.1.1.10,669,-0.580,-0.580,-0.580,0.000,0.000,0.000
1640079235754398976,"2021-12-21,09:33:55",10.1.1.10,0.9254369735717773,-0.580,-0.580,-0.580,0.000,0.000,0.000
1640079236191811072,"2021-12-21,09:33:56",10.1.1.10,434,-0.590,-0.590,-0.590,0.000,0.000,0.000
1640079236313353984,"2021-12-21,09:33:56",10.1.1.10,0.5463330745697021,-0.590,-0.590,-0.590,0.000,0.000,0.000
1640079236927325952,"2021-12-21,09:33:56",10.1.1.10,573,-0.600,-0.600,-0.600,0.000,0.000,0.000
1640079237085338112,"2021-12-21,09:33:57",10.1.1.10,0.7317709922790527,-0.600,-0.600,-0.600,0.000,0.000,0.000
1640079237671699968,"2021-12-21,09:33:57",10.1.1.10,560,-0.610,-0.610,-0.610,0.000,0.000,0.000
1640079237773552896,"2021-12-21,09:33:57",10.1.1.10,0.662269115447998,-0.610,-0.610,-0.610,0.000,0.000,0.000
1640079238506479872,"2021-12-21,09:33:58",10.1.1.10,541,-0.620,-0.620,-0.620,0.000,0.000,0.000
1640079238519857920,"2021-12-21,09:33:58",10.1.1.10,0.7248551845550537,-0.620,-0.620,-0.620,0.000,0.000,0.000
1640079238989453056,"2021-12-21,09:33:58",10.1.1.10,463,-0.630,-0.630,-0.630,0.000,0.000,0.000
1640079239071367936,"2021-12-21,09:33:59",10.1.1.10,0.5455930233001709,-0.630,-0.630,-0.630,0.000,0.000,0.000
1640079239651331072,"2021-12-21,09:33:59",10.1.1.10,568,-0.640,-0.640,-0.640,0.000,0.000,0.000
1640079239742290944,"2021-12-21,09:33:59",10.1.1.10,0.6596770286560059,-0.640,-0.640,-0.640,0.000,0.000,0.000
1640079240385221120,"2021-12-21,09:34:00",10.1.1.10,632,-0.650,-0.650,-0.650,0.000,0.000,0.000
1640079240540168960,"2021-12-21,09:34:00",10.1.1.10,0.788707971572876,-0.650,-0.650,-0.650,0.000,0.000,0.000
1640079241336697088,"2021-12-21,09:34:01",10.1.1.10,758,-0.640,-0.640,-0.640,0.000,0.000,0.000
1640079241568139008,"2021-12-21,09:34:01",10.1.1.10,0.990358829498291,-0.640,-0.640,-0.640,0.000,0.000,0.000
1640079242399907072,"2021-12-21,09:34:02",10.1.1.10,0.7383439540863037,-0.630,-0.630,-0.630,0.000,0.000,0.000
1640079242856313856,"2021-12-21,09:34:02",10.1.1.10,450,-0.620,-0.620,-0.620,0.000,0.000,0.000
1640079243096532992,"2021-12-21,09:34:03",10.1.1.10,0.6910438537597656,-0.620,-0.620,-0.620,0.000,0.000,0.000
1640079243605714944,"2021-12-21,09:34:03",10.1.1.10,507,-0.610,-0.610,-0.610,0.000,0.000,0.000
1640079243717488896,"2021-12-21,09:34:03",10.1.1.10,0.6190240383148193,-0.610,-0.610,-0.610,0.000,0.000,0.000
1640079244329912064,"2021-12-21,09:34:04",10.1.1.10,597,-0.600,-0.600,-0.600,0.000,0.000,0.000
1640079244445830144,"2021-12-21,09:34:04",10.1.1.10,0.7137041091918945,-0.600,-0.600,-0.600,0.000,0.000,0.000
1640079245127865088,"2021-12-21,09:34:05",10.1.1.10,628,-0.590,-0.590,-0.590,0.000,0.000,0.000
1640079245316466176,"2021-12-21,09:34:05",10.1.1.10,0.8166439533233643,-0.590,-0.590,-0.590,0.000,0.000,0.000
1640079246107943936,"2021-12-21,09:34:06",10.1.1.10,714,-0.580,-0.580,-0.580,0.000,0.000,0.000
1640079246210944000,"2021-12-21,09:34:06",10.1.1.10,0.8178210258483887,-0.580,-0.580,-0.580,0.000,0.000,0.000
1640079246982336000,"2021-12-21,09:34:06",10.1.1.10,688,-0.570,-0.570,-0.570,0.000,0.000,0.000
1640079247191948032,"2021-12-21,09:34:07",10.1.1.10,0.8985660076141357,-0.570,-0.570,-0.570,0.000,0.000,0.000
1640079247779601152,"2021-12-21,09:34:07",10.1.1.10,586,-0.560,-0.560,-0.560,0.000,0.000,0.000
1640079247884395008,"2021-12-21,09:34:07",10.1.1.10,0.6911170482635498,-0.560,-0.560,-0.560,0.000,0.000,0.000
1640079248489984000,"2021-12-21,09:34:08",10.1.1.10,602,-0.550,-0.550,-0.550,0.000,0.000,0.000
1640079248778220800,"2021-12-21,09:34:08",10.1.1.10,0.8909080028533936,-0.550,-0.550,-0.550,0.000,0.000,0.000
1640079249344013824,"2021-12-21,09:34:09",10.1.1.10,560,-0.540,-0.540,-0.540,0.000,0.000,0.000
1640079249546750976,"2021-12-21,09:34:09",10.1.1.10,0.7587339878082275,-0.540,-0.540,-0.540,0.000,0.000,0.000
1640079250018490112,"2021-12-21,09:34:10",10.1.1.10,468,-0.530,-0.530,-0.530,0.000,0.000,0.000
1640079250173352960,"2021-12-21,09:34:10",10.1.1.10,0.6231448650360107,-0.530,-0.530,-0.530,0.000,0.000,0.000
1640079250751970048,"2021-12-21,09:34:10",10.1.1.10,554,-0.520,-0.520,-0.520,0.000,0.000,0.000
1640079251016325120,"2021-12-21,09:34:11",10.1.1.10,0.8193578720092773,-0.520,-0.520,-0.520,0.000,0.000,0.000
1640079251539297024,"2021-12-21,09:34:11",10.1.1.10,483,-0.510,-0.510,-0.510,0.000,0.000,0.000
1640079251767693056,"2021-12-21,09:34:11",10.1.1.10,0.7124249935150146,-0.510,-0.510,-0.510,0.000,0.000,0.000
1640079252324314112,"2021-12-21,09:34:12",10.1.1.10,525,-0.500,-0.500,-0.500,0.000,0.000,0.000
1640079252563350016,"2021-12-21,09:34:12",10.1.1.10,0.7643289566040039,-0.500,-0.500,-0.500,0.000,0.000,0.000
1640079253234024960,"2021-12-21,09:34:13",10.1.1.10,626,-0.490,-0.490,-0.490,0.000,0.000,0.000
1640079253435246848,"2021-12-21,09:34:13",10.1.1.10,0.8703508377075195,-0.490,-0.490,-0.490,0.000,0.000,0.000
1640079254134635008,"2021-12-21,09:34:14",10.1.1.10,695,-0.480,-0.480,-0.480,0.000,0.000,0.000
1640079254226584064,"2021-12-21,09:34:14",10.1.1.10,0.7871229648590088,-0.480,-0.480,-0.480,0.000,0.000,0.000
1640079254734492928,"2021-12-21,09:34:14",10.1.1.10,496,-0.470,-0.470,-0.470,0.000,0.000,0.000
1640079254832474112,"2021-12-21,09:34:14",10.1.1.10,0.5953309535980225,-0.470,-0.470,-0.470,0.000,0.000,0.000
1640079255407432192,"2021-12-21,09:34:15",10.1.1.10,572,-0.460,-0.460,-0.460,0.000,0.000,0.000
1640079255529534976,"2021-12-21,09:34:15",10.1.1.10,0.6953001022338867,-0.460,-0.460,-0.460,0.000,0.000,0.000
1640079256348287232,"2021-12-21,09:34:16",10.1.1.10,793,-0.450,-0.450,-0.450,0.000,0.000,0.000
1640079256563465984,"2021-12-21,09:34:16",10.1.1.10,1.0088989734649658,-0.450,-0.450,-0.450,0.000,0.000,0.000
1640079257232466944,"2021-12-21,09:34:17",10.1.1.10,667,-0.440,-0.440,-0.440,0.000,0.000,0.000
1640079257490829056,"2021-12-21,09:34:17",10.1.1.10,0.9254100322723389,-0.440,-0.440,-0.440,0.000,0.000,0.000
1640079258094894848,"2021-12-21,09:34:18",10.1.1.10,586,-0.430,-0.430,-0.430,0.000,0.000,0.000
1640079258393177088,"2021-12-21,09:34:18",10.1.1.10,0.8843090534210205,-0.430,-0.430,-0.430,0.000,0.000,0.000
1640079259097830912,"2021-12-21,09:34:19",10.1.1.10,701,-0.420,-0.420,-0.420,0.000,0.000,0.000
1640079259290763008,"2021-12-21,09:34:19",10.1.1.10,0.8949470520019531,-0.420,-0.420,-0.420,0.000,0.000,0.000
1640079259990575104,"2021-12-21,09:34:19",10.1.1.10,684,-0.410,-0.410,-0.410,0.000,0.000,0.000
1640079260189547008,"2021-12-21,09:34:20",10.1.1.10,0.8839190006256104,-0.410,-0.410,-0.410,0.000,0.000,0.000
1640079261005134080,"2021-12-21,09:34:21",10.1.1.10,798,-0.400,-0.400,-0.400,0.000,0.000,0.000
1640079261025236992,"2021-12-21,09:34:21",10.1.1.10,0.8186590671539307,-0.400,-0.400,-0.400,0.000,0.000,0.000
1640079261631143168,"2021-12-21,09:34:21",10.1.1.10,596,-0.390,-0.390,-0.390,0.000,0.000,0.000
1640079261781980928,"2021-12-21,09:34:21",10.1.1.10,0.7478461265563965,-0.390,-0.390,-0.390,0.000,0.000,0.000
1640079262611470848,"2021-12-21,09:34:22",10.1.1.10,807,-0.380,-0.380,-0.380,0.000,0.000,0.000
1640079262798199808,"2021-12-21,09:34:22",10.1.1.10,0.9943768978118896,-0.380,-0.380,-0.380,0.000,0.000,0.000
1640079263360548864,"2021-12-21,09:34:23",10.1.1.10,543,-0.370,-0.370,-0.370,0.000,0.000,0.000
1640079263499606016,"2021-12-21,09:34:23",10.1.1.10,0.6827418804168701,-0.370,-0.370,-0.370,0.000,0.000,0.000
1640079264416413952,"2021-12-21,09:34:24",10.1.1.10,0.8457441329956055,-0.360,-0.360,-0.360,0.000,0.000,0.000
1640079264447549952,"2021-12-21,09:34:24",10.1.1.10,846,-0.360,-0.360,-0.360,0.000,0.000,0.000
1640079265025844992,"2021-12-21,09:34:25",10.1.1.10,577,-0.350,-0.350,-0.350,0.000,0.000,0.000
1640079265302592000,"2021-12-21,09:34:25",10.1.1.10,0.8547358512878418,-0.350,-0.350,-0.350,0.000,0.000,0.000
1640079265841357056,"2021-12-21,09:34:25",10.1.1.10,529,-0.340,-0.340,-0.340,0.000,0.000,0.000
1640079266476436992,"2021-12-21,09:34:26",10.1.1.10,1.1579740047454834,-0.340,-0.340,-0.340,0.000,0.000,0.000
1640079267117582080,"2021-12-21,09:34:27",10.1.1.10,629,-0.330,-0.330,-0.330,0.000,0.000,0.000
1640079267336342016,"2021-12-21,09:34:27",10.1.1.10,0.8479149341583252,-0.330,-0.330,-0.330,0.000,0.000,0.000
1640079268007746048,"2021-12-21,09:34:28",10.1.1.10,660,-0.320,-0.320,-0.320,0.000,0.000,0.000
1640079268310013952,"2021-12-21,09:34:28",10.1.1.10,0.9624888896942139,-0.320,-0.320,-0.320,0.000,0.000,0.000
1640079269055926016,"2021-12-21,09:34:29",10.1.1.10,693,-0.310,-0.310,-0.310,0.000,0.000,0.000
1640079269135368192,"2021-12-21,09:34:29",10.1.1.10,0.7730929851531982,-0.310,-0.310,-0.310,0.000,0.000,0.000
1640079269728677888,"2021-12-21,09:34:29",10.1.1.10,591,-0.300,-0.300,-0.300,0.000,0.000,0.000
1640079269904581120,"2021-12-21,09:34:29",10.1.1.10,0.767894983291626,-0.300,-0.300,-0.300,0.000,0.000,0.000
1640079270424232960,"2021-12-21,09:34:30",10.1.1.10,506,-0.290,-0.290,-0.290,0.000,0.000,0.000
1640079270532233984,"2021-12-21,09:34:30",10.1.1.10,0.6147329807281494,-0.290,-0.290,-0.290,0.000,0.000,0.000
1640079271123728896,"2021-12-21,09:34:31",10.1.1.10,587,-0.280,-0.280,-0.280,0.000,0.000,0.000
1640079271388838912,"2021-12-21,09:34:31",10.1.1.10,0.8523151874542236,-0.280,-0.280,-0.280,0.000,0.000,0.000
1640079271938266880,"2021-12-21,09:34:31",10.1.1.10,538,-0.270,-0.270,-0.270,0.000,0.000,0.000
1640079272068322048,"2021-12-21,09:34:32",10.1.1.10,0.669205904006958,-0.270,-0.270,-0.270,0.000,0.000,0.000
1640079272700196864,"2021-12-21,09:34:32",10.1.1.10,594,-0.260,-0.260,-0.260,0.000,0.000,0.000
1640079272850125056,"2021-12-21,09:34:32",10.1.1.10,0.7448768615722656,-0.260,-0.260,-0.260,0.000,0.000,0.000
1640079273572000000,"2021-12-21,09:34:33",10.1.1.10,679,-0.250,-0.250,-0.250,0.000,0.000,0.000
1640079273612679936,"2021-12-21,09:34:33",10.1.1.10,0.7208800315856934,-0.250,-0.250,-0.250,0.000,0.000,0.000
1640079274428570880,"2021-12-21,09:34:34",10.1.1.10,805,-0.240,-0.240,-0.240,0.000,0.000,0.000
1640079274589189888,"2021-12-21,09:34:34",10.1.1.10,0.9661648273468018,-0.240,-0.240,-0.240,0.000,0.000,0.000
1640079275440408064,"2021-12-21,09:34:35",10.1.1.10,843,-0.230,-0.230,-0.230,0.000,0.000,0.000
1640079276004368896,"2021-12-21,09:34:35",10.1.1.10,1.2217741012573242,-0.230,-0.230,-0.230,0.000,0.000,0.000
1640079276604327936,"2021-12-21,09:34:36",10.1.1.10,598,-0.220,-0.220,-0.220,0.000,0.000,0.000
1640079276757455104,"2021-12-21,09:34:36",10.1.1.10,0.7516040802001953,-0.220,-0.220,-0.220,0.000,0.000,0.000
1640079277375108096,"2021-12-21,09:34:37",10.1.1.10,614,-0.210,-0.210,-0.210,0.000,0.000,0.000
1640079277599652096,"2021-12-21,09:34:37",10.1.1.10,0.8393070697784424,-0.210,-0.210,-0.210,0.000,0.000,0.000
1640079278235172864,"2021-12-21,09:34:38",10.1.1.10,622,-0.200,-0.200,-0.200,0.000,0.000,0.000
1640079278586944000,"2021-12-21,09:34:38",10.1.1.10,0.9779069423675537,-0.200,-0.200,-0.200,0.000,0.000,0.000
1640079279170039040,"2021-12-21,09:34:39",10.1.1.10,579,-0.190,-0.190,-0.190,0.000,0.000,0.000
1640079279372978944,"2021-12-21,09:34:39",10.1.1.10,0.7829458713531494,-0.190,-0.190,-0.190,0.000,0.000,0.000
1640079280039865856,"2021-12-21,09:34:40",10.1.1.10,665,-0.180,-0.180,-0.180,0.000,0.000,0.000
1640079280255606016,"2021-12-21,09:34:40",10.1.1.10,0.881248950958252,-0.180,-0.180,-0.180,0.000,0.000,0.000
1640079280807384064,"2021-12-21,09:34:40",10.1.1.10,539,-0.170,-0.170,-0.170,0.000,0.000,0.000
1640079281187187968,"2021-12-21,09:34:41",10.1.1.10,0.9252629280090332,-0.170,-0.170,-0.170,0.000,0.000,0.000
1640079281878576896,"2021-12-21,09:34:41",10.1.1.10,677,-0.160,-0.160,-0.160,0.000,0.000,0.000
1640079282074754048,"2021-12-21,09:34:42",10.1.1.10,0.8742139339447021,-0.160,-0.160,-0.160,0.000,0.000,0.000
1640079283024494848,"2021-12-21,09:34:43",10.1.1.10,834,-0.170,-0.170,-0.170,0.000,0.000,0.000
1640079283061059840,"2021-12-21,09:34:43",10.1.1.10,0.893470048904419,-0.170,-0.170,-0.170,0.000,0.000,0.000
1640079283669691136,"2021-12-21,09:34:43",10.1.1.10,596,-0.180,-0.180,-0.180,0.000,0.000,0.000
1640079283799598848,"2021-12-21,09:34:43",10.1.1.10,0.7263309955596924,-0.180,-0.180,-0.180,0.000,0.000,0.000
1640079284576808960,"2021-12-21,09:34:44",10.1.1.10,744,-0.190,-0.190,-0.190,0.000,0.000,0.000
1640079284688375040,"2021-12-21,09:34:44",10.1.1.10,0.8563230037689209,-0.190,-0.190,-0.190,0.000,0.000,0.000
1640079285208337920,"2021-12-21,09:34:45",10.1.1.10,518,-0.200,-0.200,-0.200,0.000,0.000,0.000
1640079285346450944,"2021-12-21,09:34:45",10.1.1.10,0.6565399169921875,-0.200,-0.200,-0.200,0.000,0.000,0.000
1640079286204413952,"2021-12-21,09:34:46",10.1.1.10,771,-0.210,-0.210,-0.210,0.000,0.000,0.000
1640079286444258816,"2021-12-21,09:34:46",10.1.1.10,1.0118489265441895,-0.210,-0.210,-0.210,0.000,0.000,0.000
1640079287135227904,"2021-12-21,09:34:47",10.1.1.10,625,-0.220,-0.220,-0.220,0.000,0.000,0.000
1640079287175944192,"2021-12-21,09:34:47",10.1.1.10,0.6943409442901611,-0.220,-0.220,-0.220,0.000,0.000,0.000
1640079287880291840,"2021-12-21,09:34:47",10.1.1.10,654,-0.230,-0.230,-0.230,0.000,0.000,0.000
1640079290779830016,"2021-12-21,09:34:48",10.1.1.10,0.9218771457672119,-0.230,-0.230,-0.230,0.000,0.000,0.000
1640079297655824896,"2021-12-21,09:34:57",10.1.1.10,6012,-0.240,-0.240,-0.240,0.000,0.000,0.000
1640079297885380096,"2021-12-21,09:34:57",10.1.1.10,6.263200998306274,-0.240,-0.240,-0.240,0.000,0.000,0.000
1640079299054765056,"2021-12-21,09:34:59",10.1.1.10,993,-0.250,-0.250,-0.250,0.000,0.000,0.000
1640079299268506880,"2021-12-21,09:34:59",10.1.1.10,1.2069878578186035,-0.250,-0.250,-0.250,0.000,0.000,0.000
1640079299938353920,"2021-12-21,09:34:59",10.1.1.10,667,-0.260,-0.260,-0.260,0.000,0.000,0.000
1640079300361648128,"2021-12-21,09:35:00",10.1.1.10,1.0560259819030762,-0.260,-0.260,-0.260,0.000,0.000,0.000
1640079300890532096,"2021-12-21,09:35:00",10.1.1.10,527,-0.270,-0.270,-0.270,0.000,0.000,0.000
1640079300955565056,"2021-12-21,09:35:00",10.1.1.10,0.5921950340270996,-0.270,-0.270,-0.270,0.000,0.000,0.000
1640079302058492928,"2021-12-21,09:35:01",10.1.1.10,889,-0.280,-0.280,-0.280,0.000,0.000,0.000
1640079302298553856,"2021-12-21,09:35:02",10.1.1.10,1.236138105392456,-0.280,-0.280,-0.280,0.000,0.000,0.000
1640079305724318976,"2021-12-21,09:35:03",10.1.1.10,1307,-0.290,-0.290,-0.290,0.000,0.000,0.000
1640079305936611840,"2021-12-21,09:35:05",10.1.1.10,3.246903896331787,-0.290,-0.290,-0.290,0.000,0.000,0.000
1640079307057223168,"2021-12-21,09:35:07",10.1.1.10,1111,-0.300,-0.300,-0.300,0.000,0.000,0.000
1640079307216190208,"2021-12-21,09:35:07",10.1.1.10,1.27097487449646,-0.300,-0.300,-0.300,0.000,0.000,0.000
1640079307952785920,"2021-12-21,09:35:07",10.1.1.10,725,-0.310,-0.310,-0.310,0.000,0.000,0.000
1640079308032834048,"2021-12-21,09:35:08",10.1.1.10,0.804955005645752,-0.310,-0.310,-0.310,0.000,0.000,0.000
1640079308640738048,"2021-12-21,09:35:08",10.1.1.10,603,-0.320,-0.320,-0.320,0.000,0.000,0.000
1640079308799011840,"2021-12-21,09:35:08",10.1.1.10,0.7619431018829346,-0.320,-0.320,-0.320,0.000,0.000,0.000
1640079309541182976,"2021-12-21,09:35:09",10.1.1.10,737,-0.330,-0.330,-0.330,0.000,0.000,0.000
1640079309689373952,"2021-12-21,09:35:09",10.1.1.10,0.8853049278259277,-0.330,-0.330,-0.330,0.000,0.000,0.000
1640079311013073920,"2021-12-21,09:35:11",10.1.1.10,897,-0.340,-0.340,-0.340,0.000,0.000,0.000
1640079311139383040,"2021-12-21,09:35:11",10.1.1.10,1.0216269493103027,-0.340,-0.340,-0.340,0.000,0.000,0.000
1640079312188724992,"2021-12-21,09:35:12",10.1.1.10,964,-0.350,-0.350,-0.350,0.000,0.000,0.000
1640079312335659008,"2021-12-21,09:35:12",10.1.1.10,1.1763460636138916,-0.350,-0.350,-0.350,0.000,0.000,0.000
1640079312873586944,"2021-12-21,09:35:12",10.1.1.10,522,-0.360,-0.360,-0.360,0.000,0.000,0.000
1640079314033169152,"2021-12-21,09:35:14",10.1.1.10,1.680860996246338,-0.360,-0.360,-0.360,0.000,0.000,0.000
1640079315180366080,"2021-12-21,09:35:15",10.1.1.10,1113,-0.370,-0.370,-0.370,0.000,0.000,0.000
1640079315539258112,"2021-12-21,09:35:15",10.1.1.10,1.4726791381835938,-0.370,-0.370,-0.370,0.000,0.000,0.000
1640079316020112128,"2021-12-21,09:35:16",10.1.1.10,443,-0.380,-0.380,-0.380,0.000,0.000,0.000
1640079316366867968,"2021-12-21,09:35:16",10.1.1.10,0.7903480529785156,-0.380,-0.380,-0.380,0.000,0.000,0.000
1640079317157965056,"2021-12-21,09:35:17",10.1.1.10,781,-0.390,-0.390,-0.390,0.000,0.000,0.000
1640079317399815168,"2021-12-21,09:35:17",10.1.1.10,1.0199389457702637,-0.390,-0.390,-0.390,0.000,0.000,0.000
1640079318113444096,"2021-12-21,09:35:18",10.1.1.10,682,-0.400,-0.400,-0.400,0.000,0.000,0.000
1640079318345321984,"2021-12-21,09:35:18",10.1.1.10,0.9136250019073486,-0.400,-0.400,-0.400,0.000,0.000,0.000
1640079319247195904,"2021-12-21,09:35:19",10.1.1.10,881,-0.410,-0.410,-0.410,0.000,0.000,0.000
1640079319540893184,"2021-12-21,09:35:19",10.1.1.10,1.168783187866211,-0.410,-0.410,-0.410,0.000,0.000,0.000
1640079320389230848,"2021-12-21,09:35:20",10.1.1.10,838,-0.420,-0.420,-0.420,0.000,0.000,0.000
1640079320573574144,"2021-12-21,09:35:20",10.1.1.10,1.0226759910583496,-0.420,-0.420,-0.420,0.000,0.000,0.000
1640079321491524864,"2021-12-21,09:35:21",10.1.1.10,898,-0.430,-0.430,-0.430,0.000,0.000,0.000
1640079322316879104,"2021-12-21,09:35:21",10.1.1.10,1.3542211055755615,-0.430,-0.430,-0.430,0.000,0.000,0.000
1640079323032828928,"2021-12-21,09:35:23",10.1.1.10,686,-0.440,-0.440,-0.440,0.000,0.000,0.000
1640079323351692032,"2021-12-21,09:35:23",10.1.1.10,1.005537986755371,-0.440,-0.440,-0.440,0.000,0.000,0.000
1640079323621522944,"2021-12-21,09:35:23",10.1.1.10,-42,-0.450,-0.450,-0.450,0.000,0.000,0.000
1640079324734788864,"2021-12-21,09:35:24",10.1.1.10,1.2246639728546143,-0.450,-0.450,-0.450,0.000,0.000,0.000
1640079325982956032,"2021-12-21,09:35:25",10.1.1.10,1059,-0.460,-0.460,-0.460,0.000,0.000,0.000
1640079326262315008,"2021-12-21,09:35:26",10.1.1.10,1.4165911674499512,-0.460,-0.460,-0.460,0.000,0.000,0.000
1640079327329443072,"2021-12-21,09:35:27",10.1.1.10,927,-0.470,-0.470,-0.470,0.000,0.000,0.000
1640079327390856960,"2021-12-21,09:35:27",10.1.1.10,1.014193058013916,-0.470,-0.470,-0.470,0.000,0.000,0.000
1640079328134813184,"2021-12-21,09:35:28",10.1.1.10,718,-0.480,-0.480,-0.480,0.000,0.000,0.000
1640079328260123136,"2021-12-21,09:35:28",10.1.1.10,0.8435940742492676,-0.480,-0.480,-0.480,0.000,0.000,0.000
1640079328768343040,"2021-12-21,09:35:28",10.1.1.10,494,-0.490,-0.490,-0.490,0.000,0.000,0.000
1640079329398972160,"2021-12-21,09:35:29",10.1.1.10,1.014253854751587,-0.490,-0.490,-0.490,0.000,0.000,0.000
1640079330622092032,"2021-12-21,09:35:30",10.1.1.10,1189,-0.500,-0.500,-0.500,0.000,0.000,0.000
1640079330981368064,"2021-12-21,09:35:30",10.1.1.10,1.5485360622406006,-0.500,-0.500,-0.500,0.000,0.000,0.000
1640079331660881920,"2021-12-21,09:35:31",10.1.1.10,672,-0.510,-0.510,-0.510,0.000,0.000,0.000
1640079332307585024,"2021-12-21,09:35:32",10.1.1.10,1.3190650939941406,-0.510,-0.510,-0.510,0.000,0.000,0.000
1640079334013894144,"2021-12-21,09:35:33",10.1.1.10,1527,-0.520,-0.520,-0.520,0.000,0.000,0.000
1640079334129537024,"2021-12-21,09:35:34",10.1.1.10,1.820526123046875,-0.520,-0.520,-0.520,0.000,0.000,0.000
1640079336204118016,"2021-12-21,09:35:36",10.1.1.10,1980,-0.530,-0.530,-0.530,0.000,0.000,0.000
1640079336381094912,"2021-12-21,09:35:36",10.1.1.10,2.1580638885498047,-0.530,-0.530,-0.530,0.000,0.000,0.000
1640079337171524096,"2021-12-21,09:35:37",10.1.1.10,781,-0.540,-0.540,-0.540,0.000,0.000,0.000
1640079337416820992,"2021-12-21,09:35:37",10.1.1.10,1.026298999786377,-0.540,-0.540,-0.540,0.000,0.000,0.000
1640079338025142016,"2021-12-21,09:35:38",10.1.1.10,580,-0.550,-0.550,-0.550,0.000,0.000,0.000
1640079338281721088,"2021-12-21,09:35:38",10.1.1.10,0.8369250297546387,-0.550,-0.550,-0.550,0.000,0.000,0.000
1640079339050928128,"2021-12-21,09:35:38",10.1.1.10,615,-0.560,-0.560,-0.560,0.000,0.000,0.000
1640079339124464896,"2021-12-21,09:35:39",10.1.1.10,0.8101999759674072,-0.560,-0.560,-0.560,0.000,0.000,0.000
1640079339655251968,"2021-12-21,09:35:39",10.1.1.10,515,-0.570,-0.570,-0.570,0.000,0.000,0.000
1640079340020424960,"2021-12-21,09:35:40",10.1.1.10,0.8812332153320312,-0.570,-0.570,-0.570,0.000,0.000,0.000
1640079341078021120,"2021-12-21,09:35:41",10.1.1.10,1049,-0.580,-0.580,-0.580,0.000,0.000,0.000
1640079341344674048,"2021-12-21,09:35:41",10.1.1.10,1.3166539669036865,-0.580,-0.580,-0.580,0.000,0.000,0.000
1640079341365123072,"2021-12-21,09:35:41",10.1.1.10,-4,-0.590,-0.590,-0.590,0.000,0.000,0.000
1640079342794440960,"2021-12-21,09:35:42",10.1.1.10,1.2908051013946533,-0.590,-0.590,-0.590,0.000,0.000,0.000
1640079343662386944,"2021-12-21,09:35:43",10.1.1.10,836,-0.600,-0.600,-0.600,0.000,0.000,0.000
1640079344103790080,"2021-12-21,09:35:43",10.1.1.10,0.9910688400268555,-0.600,-0.600,-0.600,0.000,0.000,0.000
1640079344377673984,"2021-12-21,09:35:44",10.1.1.10,-59,-0.610,-0.610,-0.610,0.000,0.000,0.000
1640079345040541952,"2021-12-21,09:35:45",10.1.1.10,0.7470529079437256,-0.610,-0.610,-0.610,0.000,0.000,0.000
1640079345696017152,"2021-12-21,09:35:45",10.1.1.10,616,-0.620,-0.620,-0.620,0.000,0.000,0.000
1640079346146324992,"2021-12-21,09:35:46",10.1.1.10,1.0876832008361816,-0.620,-0.620,-0.620,0.000,0.000,0.000
1640079346928301056,"2021-12-21,09:35:46",10.1.1.10,776,-0.630,-0.630,-0.630,0.000,0.000,0.000
1640079347329581056,"2021-12-21,09:35:47",10.1.1.10,1.1774718761444092,-0.630,-0.630,-0.630,0.000,0.000,0.000
1640079348306940160,"2021-12-21,09:35:48",10.1.1.10,905,-0.640,-0.640,-0.640,0.000,0.000,0.000
1640079351132596992,"2021-12-21,09:35:48",10.1.1.10,1.616865873336792,-0.640,-0.640,-0.640,0.000,0.000,0.000
1640079353164475904,"2021-12-21,09:35:53",10.1.1.10,1712,-0.650,-0.650,-0.650,0.000,0.000,0.000
1640079354161591040,"2021-12-21,09:35:53",10.1.1.10,2.2167720794677734,-0.650,-0.650,-0.650,0.000,0.000,0.000
1640079355185765120,"2021-12-21,09:35:55",10.1.1.10,860,-0.640,-0.640,-0.640,0.000,0.000,0.000
1640079355511687936,"2021-12-21,09:35:55",10.1.1.10,1.1982779502868652,-0.640,-0.640,-0.640,0.000,0.000,0.000
1640079356543986944,"2021-12-21,09:35:56",10.1.1.10,952,-0.630,-0.630,-0.630,0.000,0.000,0.000
1640079357400846080,"2021-12-21,09:35:57",10.1.1.10,1.795064926147461,-0.630,-0.630,-0.630,0.000,0.000,0.000
1640079359477821184,"2021-12-21,09:35:59",10.1.1.10,1919,-0.620,-0.620,-0.620,0.000,0.000,0.000
1640079359860133888,"2021-12-21,09:35:59",10.1.1.10,2.357854127883911,-0.620,-0.620,-0.620,0.000,0.000,0.000
1640079362805694208,"2021-12-21,09:36:01",10.1.1.10,1984,-0.610,-0.610,-0.610,0.000,0.000,0.000
1640079363113925888,"2021-12-21,09:36:03",10.1.1.10,3.251544952392578,-0.610,-0.610,-0.610,0.000,0.000,0.000
1640079367137558016,"2021-12-21,09:36:04",10.1.1.10,1264,-0.600,-0.600,-0.600,0.000,0.000,0.000
1640079370880017152,"2021-12-21,09:36:07",10.1.1.10,4.713971138000488,-0.600,-0.600,-0.600,0.000,0.000,0.000
1640079372606013952,"2021-12-21,09:36:12",10.1.1.10,1533,-0.590,-0.590,-0.590,0.000,0.000,0.000
1640079373009694976,"2021-12-21,09:36:13",10.1.1.10,1.9373798370361328,-0.590,-0.590,-0.590,0.000,0.000,0.000
1640079373500105984,"2021-12-21,09:36:13",10.1.1.10,478,-0.580,-0.580,-0.580,0.000,0.000,0.000
1640079373830002944,"2021-12-21,09:36:13",10.1.1.10,0.8088018894195557,-0.580,-0.580,-0.580,0.000,0.000,0.000
1640079374351181056,"2021-12-21,09:36:14",10.1.1.10,506,-0.570,-0.570,-0.570,0.000,0.000,0.000
1640079374515574016,"2021-12-21,09:36:14",10.1.1.10,0.6705911159515381,-0.570,-0.570,-0.570,0.000,0.000,0.000
1640079383154512896,"2021-12-21,09:36:21",10.1.1.10,6403,-0.560,-0.560,-0.560,0.000,0.000,0.000
1640079385722420992,"2021-12-21,09:36:23",10.1.1.10,9.010802030563354,-0.560,-0.560,-0.560,0.000,0.000,0.000
1640079395131102976,"2021-12-21,09:36:34",10.1.1.10,8652,-0.550,-0.550,-0.550,0.000,0.000,0.000
1640079395220506880,"2021-12-21,09:36:35",10.1.1.10,9.117552042007446,-0.550,-0.550,-0.550,0.000,0.000,0.000
1640079396089052928,"2021-12-21,09:36:36",10.1.1.10,863,-0.540,-0.540,-0.540,0.000,0.000,0.000
1640079396416439040,"2021-12-21,09:36:36",10.1.1.10,1.161571979522705,-0.540,-0.540,-0.540,0.000,0.000,0.000
1640079399829370880,"2021-12-21,09:36:39",10.1.1.10,3358,-0.530,-0.530,-0.530,0.000,0.000,0.000
1640079400232192000,"2021-12-21,09:36:40",10.1.1.10,3.7953920364379883,-0.530,-0.530,-0.530,0.000,0.000,0.000
1640079400236712960,"2021-12-21,09:36:40",10.1.1.10,-1,-0.520,-0.520,-0.520,0.000,0.000,0.000
1640079403456674048,"2021-12-21,09:36:42",10.1.1.10,2.4772040843963623,-0.520,-0.520,-0.520,0.000,0.000,0.000
1640079413499855872,"2021-12-21,09:36:52",10.1.1.10,8146,-0.510,-0.510,-0.510,0.000,0.000,0.000
1640079416041805056,"2021-12-21,09:36:53",10.1.1.10,9.973373889923096,-0.510,-0.510,-0.510,0.000,0.000,0.000
1640079418861036032,"2021-12-21,09:36:56",10.1.1.10,-62,-0.500,-0.500,-0.500,0.000,0.000,0.000
1640079424041775872,"2021-12-21,09:37:02",10.1.1.10,6.320119142532349,-0.500,-0.500,-0.500,0.000,0.000,0.000
1640079438932496128,"2021-12-21,09:37:17",10.1.1.10,13.612144947052002,-0.490,-0.490,-0.490,0.000,0.000,0.000
1640079440422173952,"2021-12-21,09:37:18",10.1.1.10,14745,-0.490,-0.490,-0.490,0.000,0.000,0.000
1640079450942107904,"2021-12-21,09:37:29",10.1.1.10,9.016807079315186,-0.480,-0.480,-0.480,0.000,0.000,0.000
1640079460223813120,"2021-12-21,09:37:39",10.1.1.10,7.900467872619629,-0.470,-0.470,-0.470,0.000,0.000,0.000
1640079473276473088,"2021-12-21,09:37:51",10.1.1.10,9.504425048828125,-0.460,-0.460,-0.460,0.000,0.000,0.000
1640079492494632960,"2021-12-21,09:38:09",10.1.1.10,15.837610960006714,-0.450,-0.450,-0.450,0.000,0.000,0.000
1640079510498518016,"2021-12-21,09:38:28",10.1.1.10,15314,-0.440,-0.440,-0.440,0.000,0.000,0.000
1640079510743902976,"2021-12-21,09:38:30",10.1.1.10,17.202616930007935,-0.440,-0.440,-0.440,0.000,0.000,0.000
1640079510810157056,"2021-12-21,09:38:30",10.1.1.10,-16,-0.430,-0.430,-0.430,0.000,0.000,0.000
1640079514126135040,"2021-12-21,09:38:33",10.1.1.10,2.7280211448669434,-0.430,-0.430,-0.430,0.000,0.000,0.000
1640079514728726016,"2021-12-21,09:38:34",10.1.1.10,580,-0.420,-0.420,-0.420,0.000,0.000,0.000
1640079514930891008,"2021-12-21,09:38:34",10.1.1.10,0.8025000095367432,-0.420,-0.420,-0.420,0.000,0.000,0.000
1640079515427995904,"2021-12-21,09:38:35",10.1.1.10,489,-0.410,-0.410,-0.410,0.000,0.000,0.000
1640079515543847168,"2021-12-21,09:38:35",10.1.1.10,0.6113009452819824,-0.410,-0.410,-0.410,0.000,0.000,0.000
1640079516012934912,"2021-12-21,09:38:36",10.1.1.10,439,-0.400,-0.400,-0.400,0.000,0.000,0.000
1640079516560530944,"2021-12-21,09:38:36",10.1.1.10,0.9872848987579346,-0.400,-0.400,-0.400,0.000,0.000,0.000
1640079517347785984,"2021-12-21,09:38:37",10.1.1.10,0.7657580375671387,-0.390,-0.390,-0.390,0.000,0.000,0.000
1640079518068374016,"2021-12-21,09:38:38",10.1.1.10,711,-0.380,-0.380,-0.380,0.000,0.000,0.000
1640079518281510144,"2021-12-21,09:38:38",10.1.1.10,0.9246411323547363,-0.380,-0.380,-0.380,0.000,0.000,0.000
1640079518903727104,"2021-12-21,09:38:38",10.1.1.10,616,-0.370,-0.370,-0.370,0.000,0.000,0.000
1640079519139883008,"2021-12-21,09:38:39",10.1.1.10,0.8523149490356445,-0.370,-0.370,-0.370,0.000,0.000,0.000
1640079519760801024,"2021-12-21,09:38:39",10.1.1.10,587,-0.360,-0.360,-0.360,0.000,0.000,0.000
1640079519910834176,"2021-12-21,09:38:39",10.1.1.10,0.7372448444366455,-0.360,-0.360,-0.360,0.000,0.000,0.000
1640079520521157120,"2021-12-21,09:38:40",10.1.1.10,568,-0.350,-0.350,-0.350,0.000,0.000,0.000
1640079520628595968,"2021-12-21,09:38:40",10.1.1.10,0.6736559867858887,-0.350,-0.350,-0.350,0.000,0.000,0.000
1640079521403239936,"2021-12-21,09:38:41",10.1.1.10,485,-0.340,-0.340,-0.340,0.000,0.000,0.000
1640079521684590080,"2021-12-21,09:38:41",10.1.1.10,0.7667131423950195,-0.340,-0.340,-0.340,0.000,0.000,0.000
1640079522162208000,"2021-12-21,09:38:42",10.1.1.10,475,-0.330,-0.330,-0.330,0.000,0.000,0.000
1640079522367641088,"2021-12-21,09:38:42",10.1.1.10,0.6806888580322266,-0.330,-0.330,-0.330,0.000,0.000,0.000
1640079522921044224,"2021-12-21,09:38:42",10.1.1.10,547,-0.320,-0.320,-0.320,0.000,0.000,0.000
1640079523090434048,"2021-12-21,09:38:43",10.1.1.10,0.7049119472503662,-0.320,-0.320,-0.320,0.000,0.000,0.000
1640079523747922944,"2021-12-21,09:38:43",10.1.1.10,654,-0.310,-0.310,-0.310,0.000,0.000,0.000
1640079524015708928,"2021-12-21,09:38:44",10.1.1.10,0.9222910404205322,-0.310,-0.310,-0.310,0.000,0.000,0.000
1640079524826452992,"2021-12-21,09:38:44",10.1.1.10,787,-0.300,-0.300,-0.300,0.000,0.000,0.000
1640079524941073920,"2021-12-21,09:38:44",10.1.1.10,0.9018650054931641,-0.300,-0.300,-0.300,0.000,0.000,0.000
1640079525905831936,"2021-12-21,09:38:45",10.1.1.10,923,-0.290,-0.290,-0.290,0.000,0.000,0.000
1640079526025044992,"2021-12-21,09:38:46",10.1.1.10,1.0427658557891846,-0.290,-0.290,-0.290,0.000,0.000,0.000
1640079526892401920,"2021-12-21,09:38:46",10.1.1.10,740,-0.280,-0.280,-0.280,0.000,0.000,0.000
1640079527553448960,"2021-12-21,09:38:47",10.1.1.10,1.401822805404663,-0.280,-0.280,-0.280,0.000,0.000,0.000
1640079528220165120,"2021-12-21,09:38:48",10.1.1.10,638,-0.270,-0.270,-0.270,0.000,0.000,0.000
