FedericoMungari/DigitalTwin_service/02_LTEScenario/Output/Output_script/script_rosapi_2_output_robots8_freq0_7.txt
timestamp,date,node,latency,joint_1,joint_2,joint_3,joint_4,joint_5,joint_6
1641102613025056000,2022-01-02-05:50:13,10.1.1.8,170,-0.010,-0.010,-0.010,0.000,0.000,0.000
1641102613233722880,2022-01-02-05:50:13,10.1.1.8,178,-0.020,-0.020,-0.020,0.000,0.000,0.000
1641102613424326912,2022-01-02-05:50:13,10.1.1.8,168,-0.030,-0.030,-0.030,0.000,0.000,0.000
1641102613625523968,2022-01-02-05:50:13,10.1.1.8,168,-0.040,-0.040,-0.040,0.000,0.000,0.000
1641102613822953984,2022-01-02-05:50:13,10.1.1.8,165,-0.050,-0.050,-0.050,0.000,0.000,0.000
1641102614024944128,2022-01-02-05:50:14,10.1.1.8,167,-0.060,-0.060,-0.060,0.000,0.000,0.000
1641102614232861952,2022-01-02-05:50:14,10.1.1.8,174,-0.070,-0.070,-0.070,0.000,0.000,0.000
1641102614431811072,2022-01-02-05:50:14,10.1.1.8,172,-0.080,-0.080,-0.080,0.000,0.000,0.000
1641102614631952128,2022-01-02-05:50:14,10.1.1.8,171,-0.090,-0.090,-0.090,0.000,0.000,0.000
1641102614830995968,2022-01-02-05:50:14,10.1.1.8,166,-0.100,-0.100,-0.100,0.000,0.000,0.000
1641102615042226176,2022-01-02-05:50:15,10.1.1.8,174,-0.110,-0.110,-0.110,0.000,0.000,0.000
1641102615250663168,2022-01-02-05:50:15,10.1.1.8,184,-0.120,-0.120,-0.120,0.000,0.000,0.000
1641102615430743808,2022-01-02-05:50:15,10.1.1.8,164,-0.130,-0.130,-0.130,0.000,0.000,0.000
1641102615629713920,2022-01-02-05:50:15,10.1.1.8,161,-0.140,-0.140,-0.140,0.000,0.000,0.000
1641102615839993088,2022-01-02-05:50:15,10.1.1.8,171,-0.150,-0.150,-0.150,0.000,0.000,0.000
1641102616039629056,2022-01-02-05:50:16,10.1.1.8,170,-0.160,-0.160,-0.160,0.000,0.000,0.000
1641102616240058880,2022-01-02-05:50:16,10.1.1.8,169,-0.170,-0.170,-0.170,0.000,0.000,0.000
1641102616448969984,2022-01-02-05:50:16,10.1.1.8,177,-0.180,-0.180,-0.180,0.000,0.000,0.000
1641102616639371008,2022-01-02-05:50:16,10.1.1.8,166,-0.190,-0.190,-0.190,0.000,0.000,0.000
1641102616838373888,2022-01-02-05:50:16,10.1.1.8,164,-0.200,-0.200,-0.200,0.000,0.000,0.000
1641102617038791936,2022-01-02-05:50:17,10.1.1.8,164,-0.210,-0.210,-0.210,0.000,0.000,0.000
1641102617247636992,2022-01-02-05:50:17,10.1.1.8,172,-0.220,-0.220,-0.220,0.000,0.000,0.000
1641102617447442176,2022-01-02-05:50:17,10.1.1.8,172,-0.230,-0.230,-0.230,0.000,0.000,0.000
1641102617638093824,2022-01-02-05:50:17,10.1.1.8,161,-0.240,-0.240,-0.240,0.000,0.000,0.000
1641102617836893952,2022-01-02-05:50:17,10.1.1.8,159,-0.250,-0.250,-0.250,0.000,0.000,0.000
1641102618045958144,2022-01-02-05:50:18,10.1.1.8,166,-0.260,-0.260,-0.260,0.000,0.000,0.000
1641102618245615872,2022-01-02-05:50:18,10.1.1.8,165,-0.270,-0.270,-0.270,0.000,0.000,0.000
1641102618445223936,2022-01-02-05:50:18,10.1.1.8,164,-0.280,-0.280,-0.280,0.000,0.000,0.000
1641102618656218880,2022-01-02-05:50:18,10.1.1.8,174,-0.290,-0.290,-0.290,0.000,0.000,0.000
1641102618856052992,2022-01-02-05:50:18,10.1.1.8,173,-0.300,-0.300,-0.300,0.000,0.000,0.000
1641102619064781056,2022-01-02-05:50:19,10.1.1.8,181,-0.310,-0.310,-0.310,0.000,0.000,0.000
1641102619266135808,2022-01-02-05:50:19,10.1.1.8,181,-0.320,-0.320,-0.320,0.000,0.000,0.000
1641102619468851968,2022-01-02-05:50:19,10.1.1.8,183,-0.330,-0.330,-0.330,0.000,0.000,0.000
1641102619659426048,2022-01-02-05:50:19,10.1.1.8,173,-0.340,-0.340,-0.340,0.000,0.000,0.000
1641102619869501952,2022-01-02-05:50:19,10.1.1.8,182,-0.350,-0.350,-0.350,0.000,0.000,0.000
1641102620050472960,2022-01-02-05:50:20,10.1.1.8,162,-0.360,-0.360,-0.360,0.000,0.000,0.000
1641102620271148032,2022-01-02-05:50:20,10.1.1.8,182,-0.370,-0.370,-0.370,0.000,0.000,0.000
1641102620472317952,2022-01-02-05:50:20,10.1.1.8,183,-0.380,-0.380,-0.380,0.000,0.000,0.000
1641102620672403200,2022-01-02-05:50:20,10.1.1.8,182,-0.390,-0.390,-0.390,0.000,0.000,0.000
1641102620873923072,2022-01-02-05:50:20,10.1.1.8,182,-0.400,-0.400,-0.400,0.000,0.000,0.000
1641102621064495104,2022-01-02-05:50:21,10.1.1.8,172,-0.410,-0.410,-0.410,0.000,0.000,0.000
1641102621275357952,2022-01-02-05:50:21,10.1.1.8,182,-0.420,-0.420,-0.420,0.000,0.000,0.000
1641102621476408064,2022-01-02-05:50:21,10.1.1.8,182,-0.430,-0.430,-0.430,0.000,0.000,0.000
1641102621677204992,2022-01-02-05:50:21,10.1.1.8,182,-0.440,-0.440,-0.440,0.000,0.000,0.000
1641102621878060032,2022-01-02-05:50:21,10.1.1.8,183,-0.450,-0.450,-0.450,0.000,0.000,0.000
1641102622072155904,2022-01-02-05:50:22,10.1.1.8,176,-0.460,-0.460,-0.460,0.000,0.000,0.000
1641102622271985920,2022-01-02-05:50:22,10.1.1.8,175,-0.470,-0.470,-0.470,0.000,0.000,0.000
1641102622479696896,2022-01-02-05:50:22,10.1.1.8,182,-0.480,-0.480,-0.480,0.000,0.000,0.000
1641102622672427776,2022-01-02-05:50:22,10.1.1.8,172,-0.490,-0.490,-0.490,0.000,0.000,0.000
1641102622870611968,2022-01-02-05:50:22,10.1.1.8,172,-0.480,-0.480,-0.480,0.000,0.000,0.000
1641102623073953024,2022-01-02-05:50:23,10.1.1.8,175,-0.470,-0.470,-0.470,0.000,0.000,0.000
1641102623292248064,2022-01-02-05:50:23,10.1.1.8,192,-0.460,-0.460,-0.460,0.000,0.000,0.000
1641102623499911936,2022-01-02-05:50:23,10.1.1.8,199,-0.450,-0.450,-0.450,0.000,0.000,0.000
1641102623903191040,2022-01-02-05:50:23,10.1.1.8,201,-0.430,-0.430,-0.430,0.000,0.000,0.000
1641102624094126080,2022-01-02-05:50:24,10.1.1.8,190,-0.420,-0.420,-0.420,0.000,0.000,0.000
1641102624294941952,2022-01-02-05:50:24,10.1.1.8,190,-0.410,-0.410,-0.410,0.000,0.000,0.000
1641102624497733120,2022-01-02-05:50:24,10.1.1.8,192,-0.400,-0.400,-0.400,0.000,0.000,0.000
1641102624695732992,2022-01-02-05:50:24,10.1.1.8,189,-0.390,-0.390,-0.390,0.000,0.000,0.000
1641102624896934912,2022-01-02-05:50:24,10.1.1.8,190,-0.380,-0.380,-0.380,0.000,0.000,0.000
1641102625096692992,2022-01-02-05:50:25,10.1.1.8,189,-0.370,-0.370,-0.370,0.000,0.000,0.000
1641102625286250240,2022-01-02-05:50:25,10.1.1.8,178,-0.360,-0.360,-0.360,0.000,0.000,0.000
1641102625499254016,2022-01-02-05:50:25,10.1.1.8,191,-0.350,-0.350,-0.350,0.000,0.000,0.000
1641102625700262144,2022-01-02-05:50:25,10.1.1.8,189,-0.340,-0.340,-0.340,0.000,0.000,0.000
1641102625898021888,2022-01-02-05:50:25,10.1.1.8,187,-0.330,-0.330,-0.330,0.000,0.000,0.000
1641102626323066880,2022-01-02-05:50:26,10.1.1.8,186,-0.310,-0.310,-0.310,0.000,0.000,0.000
1641102626521625088,2022-01-02-05:50:26,10.1.1.8,183,-0.300,-0.300,-0.300,0.000,0.000,0.000
1641102626746903808,2022-01-02-05:50:26,10.1.1.8,197,-0.290,-0.290,-0.290,0.000,0.000,0.000
1641102626940161024,2022-01-02-05:50:26,10.1.1.8,189,-0.280,-0.280,-0.280,0.000,0.000,0.000
1641102627139055872,2022-01-02-05:50:27,10.1.1.8,187,-0.270,-0.270,-0.270,0.000,0.000,0.000
1641102627348912128,2022-01-02-05:50:27,10.1.1.8,196,-0.260,-0.260,-0.260,0.000,0.000,0.000
1641102627541178880,2022-01-02-05:50:27,10.1.1.8,187,-0.250,-0.250,-0.250,0.000,0.000,0.000
1641102627748045824,2022-01-02-05:50:27,10.1.1.8,194,-0.240,-0.240,-0.240,0.000,0.000,0.000
1641102627950254848,2022-01-02-05:50:27,10.1.1.8,195,-0.230,-0.230,-0.230,0.000,0.000,0.000
1641102628140155136,2022-01-02-05:50:28,10.1.1.8,185,-0.220,-0.220,-0.220,0.000,0.000,0.000
1641102628348190976,2022-01-02-05:50:28,10.1.1.8,192,-0.210,-0.210,-0.210,0.000,0.000,0.000
1641102628538265088,2022-01-02-05:50:28,10.1.1.8,182,-0.200,-0.200,-0.200,0.000,0.000,0.000
1641102628738248960,2022-01-02-05:50:28,10.1.1.8,181,-0.190,-0.190,-0.190,0.000,0.000,0.000
1641102628938615040,2022-01-02-05:50:28,10.1.1.8,181,-0.180,-0.180,-0.180,0.000,0.000,0.000
1641102629138885120,2022-01-02-05:50:29,10.1.1.8,181,-0.170,-0.170,-0.170,0.000,0.000,0.000
1641102629348611072,2022-01-02-05:50:29,10.1.1.8,190,-0.160,-0.160,-0.160,0.000,0.000,0.000
1641102629558435840,2022-01-02-05:50:29,10.1.1.8,198,-0.150,-0.150,-0.150,0.000,0.000,0.000
1641102629760001024,2022-01-02-05:50:29,10.1.1.8,198,-0.140,-0.140,-0.140,0.000,0.000,0.000
1641102629958939136,2022-01-02-05:50:29,10.1.1.8,197,-0.130,-0.130,-0.130,0.000,0.000,0.000
1641102630159897088,2022-01-02-05:50:30,10.1.1.8,197,-0.120,-0.120,-0.120,0.000,0.000,0.000
1641102630361152000,2022-01-02-05:50:30,10.1.1.8,198,-0.110,-0.110,-0.110,0.000,0.000,0.000
1641102630560259072,2022-01-02-05:50:30,10.1.1.8,197,-0.100,-0.100,-0.100,0.000,0.000,0.000
1641102630760582912,2022-01-02-05:50:30,10.1.1.8,197,-0.090,-0.090,-0.090,0.000,0.000,0.000
1641102631158722048,2022-01-02-05:50:31,10.1.1.8,194,-0.070,-0.070,-0.070,0.000,0.000,0.000
1641102631360758016,2022-01-02-05:50:31,10.1.1.8,195,-0.060,-0.060,-0.060,0.000,0.000,0.000
1641102631548881920,2022-01-02-05:50:31,10.1.1.8,183,-0.050,-0.050,-0.050,0.000,0.000,0.000
1641102631760695808,2022-01-02-05:50:31,10.1.1.8,194,-0.040,-0.040,-0.040,0.000,0.000,0.000
1641102631950264064,2022-01-02-05:50:31,10.1.1.8,182,-0.030,-0.030,-0.030,0.000,0.000,0.000
1641102632148647936,2022-01-02-05:50:32,10.1.1.8,180,-0.020,-0.020,-0.020,0.000,0.000,0.000
1641102632348012800,2022-01-02-05:50:32,10.1.1.8,179,-0.010,-0.010,-0.010,0.000,0.000,0.000
1641102632564598016,2022-01-02-05:50:32,10.1.1.8,195,0.000,0.000,0.000,0.000,0.000,0.000
1641102632761743104,2022-01-02-05:50:32,10.1.1.8,191,-0.010,-0.010,-0.010,0.000,0.000,0.000
1641102632963555072,2022-01-02-05:50:32,10.1.1.8,192,-0.020,-0.020,-0.020,0.000,0.000,0.000
1641102633163502080,2022-01-02-05:50:33,10.1.1.8,189,-0.030,-0.030,-0.030,0.000,0.000,0.000
1641102633359113984,2022-01-02-05:50:33,10.1.1.8,183,-0.040,-0.040,-0.040,0.000,0.000,0.000
1641102633559535104,2022-01-02-05:50:33,10.1.1.8,182,-0.050,-0.050,-0.050,0.000,0.000,0.000
1641102633758601984,2022-01-02-05:50:33,10.1.1.8,179,-0.060,-0.060,-0.060,0.000,0.000,0.000
1641102633979587072,2022-01-02-05:50:33,10.1.1.8,198,-0.070,-0.070,-0.070,0.000,0.000,0.000
1641102634180516096,2022-01-02-05:50:34,10.1.1.8,198,-0.080,-0.080,-0.080,0.000,0.000,0.000
1641102634367563008,2022-01-02-05:50:34,10.1.1.8,185,-0.090,-0.090,-0.090,0.000,0.000,0.000
1641102634579976960,2022-01-02-05:50:34,10.1.1.8,197,-0.100,-0.100,-0.100,0.000,0.000,0.000
1641102634779886080,2022-01-02-05:50:34,10.1.1.8,196,-0.110,-0.110,-0.110,0.000,0.000,0.000
1641102634977955072,2022-01-02-05:50:34,10.1.1.8,193,-0.120,-0.120,-0.120,0.000,0.000,0.000
1641102635166626816,2022-01-02-05:50:35,10.1.1.8,180,-0.130,-0.130,-0.130,0.000,0.000,0.000
1641102635366686208,2022-01-02-05:50:35,10.1.1.8,180,-0.140,-0.140,-0.140,0.000,0.000,0.000
1641102635576317184,2022-01-02-05:50:35,10.1.1.8,188,-0.150,-0.150,-0.150,0.000,0.000,0.000
1641102635765795840,2022-01-02-05:50:35,10.1.1.8,177,-0.160,-0.160,-0.160,0.000,0.000,0.000
1641102635976614912,2022-01-02-05:50:35,10.1.1.8,188,-0.170,-0.170,-0.170,0.000,0.000,0.000
1641102636176194816,2022-01-02-05:50:36,10.1.1.8,187,-0.180,-0.180,-0.180,0.000,0.000,0.000
1641102636386646016,2022-01-02-05:50:36,10.1.1.8,196,-0.190,-0.190,-0.190,0.000,0.000,0.000
1641102636575112192,2022-01-02-05:50:36,10.1.1.8,183,-0.200,-0.200,-0.200,0.000,0.000,0.000
1641102636778994176,2022-01-02-05:50:36,10.1.1.8,185,-0.210,-0.210,-0.210,0.000,0.000,0.000
1641102636984754944,2022-01-02-05:50:36,10.1.1.8,189,-0.220,-0.220,-0.220,0.000,0.000,0.000
1641102637175826944,2022-01-02-05:50:37,10.1.1.8,179,-0.230,-0.230,-0.230,0.000,0.000,0.000
1641102637375858944,2022-01-02-05:50:37,10.1.1.8,178,-0.240,-0.240,-0.240,0.000,0.000,0.000
1641102637575117056,2022-01-02-05:50:37,10.1.1.8,177,-0.250,-0.250,-0.250,0.000,0.000,0.000
1641102637776424960,2022-01-02-05:50:37,10.1.1.8,178,-0.260,-0.260,-0.260,0.000,0.000,0.000
1641102637978766848,2022-01-02-05:50:37,10.1.1.8,180,-0.270,-0.270,-0.270,0.000,0.000,0.000
1641102638173367040,2022-01-02-05:50:38,10.1.1.8,173,-0.280,-0.280,-0.280,0.000,0.000,0.000
1641102638592726016,2022-01-02-05:50:38,10.1.1.8,191,-0.300,-0.300,-0.300,0.000,0.000,0.000
1641102638792540928,2022-01-02-05:50:38,10.1.1.8,191,-0.310,-0.310,-0.310,0.000,0.000,0.000
1641102638992660992,2022-01-02-05:50:38,10.1.1.8,190,-0.320,-0.320,-0.320,0.000,0.000,0.000
1641102639181997056,2022-01-02-05:50:39,10.1.1.8,178,-0.330,-0.330,-0.330,0.000,0.000,0.000
1641102639392834048,2022-01-02-05:50:39,10.1.1.8,189,-0.340,-0.340,-0.340,0.000,0.000,0.000
1641102639581489152,2022-01-02-05:50:39,10.1.1.8,177,-0.350,-0.350,-0.350,0.000,0.000,0.000
1641102639800878080,2022-01-02-05:50:39,10.1.1.8,196,-0.360,-0.360,-0.360,0.000,0.000,0.000
1641102640000664832,2022-01-02-05:50:40,10.1.1.8,195,-0.370,-0.370,-0.370,0.000,0.000,0.000
1641102640192087040,2022-01-02-05:50:40,10.1.1.8,186,-0.380,-0.380,-0.380,0.000,0.000,0.000
1641102640392102912,2022-01-02-05:50:40,10.1.1.8,186,-0.390,-0.390,-0.390,0.000,0.000,0.000
1641102640592308992,2022-01-02-05:50:40,10.1.1.8,186,-0.400,-0.400,-0.400,0.000,0.000,0.000
1641102640780188160,2022-01-02-05:50:40,10.1.1.8,173,-0.410,-0.410,-0.410,0.000,0.000,0.000
1641102640993395968,2022-01-02-05:50:40,10.1.1.8,185,-0.420,-0.420,-0.420,0.000,0.000,0.000
1641102641179495168,2022-01-02-05:50:41,10.1.1.8,170,-0.430,-0.430,-0.430,0.000,0.000,0.000
1641102641391261184,2022-01-02-05:50:41,10.1.1.8,181,-0.440,-0.440,-0.440,0.000,0.000,0.000
1641102641589095168,2022-01-02-05:50:41,10.1.1.8,178,-0.450,-0.450,-0.450,0.000,0.000,0.000
1641102641789978112,2022-01-02-05:50:41,10.1.1.8,178,-0.460,-0.460,-0.460,0.000,0.000,0.000
1641102641998835968,2022-01-02-05:50:41,10.1.1.8,186,-0.470,-0.470,-0.470,0.000,0.000,0.000
1641102642190191104,2022-01-02-05:50:42,10.1.1.8,175,-0.480,-0.480,-0.480,0.000,0.000,0.000
1641102642390667008,2022-01-02-05:50:42,10.1.1.8,175,-0.490,-0.490,-0.490,0.000,0.000,0.000
1641102642589474048,2022-01-02-05:50:42,10.1.1.8,174,-0.480,-0.480,-0.480,0.000,0.000,0.000
1641102642796890112,2022-01-02-05:50:42,10.1.1.8,181,-0.470,-0.470,-0.470,0.000,0.000,0.000
1641102642996306944,2022-01-02-05:50:42,10.1.1.8,179,-0.460,-0.460,-0.460,0.000,0.000,0.000
1641102643201881856,2022-01-02-05:50:43,10.1.1.8,184,-0.450,-0.450,-0.450,0.000,0.000,0.000
1641102643389154048,2022-01-02-05:50:43,10.1.1.8,171,-0.440,-0.440,-0.440,0.000,0.000,0.000
1641102643586757888,2022-01-02-05:50:43,10.1.1.8,168,-0.430,-0.430,-0.430,0.000,0.000,0.000
1641102643796685824,2022-01-02-05:50:43,10.1.1.8,177,-0.420,-0.420,-0.420,0.000,0.000,0.000
1641102643995513088,2022-01-02-05:50:43,10.1.1.8,175,-0.410,-0.410,-0.410,0.000,0.000,0.000
1641102644214850048,2022-01-02-05:50:44,10.1.1.8,194,-0.400,-0.400,-0.400,0.000,0.000,0.000
1641102644395416064,2022-01-02-05:50:44,10.1.1.8,174,-0.390,-0.390,-0.390,0.000,0.000,0.000
1641102644594068992,2022-01-02-05:50:44,10.1.1.8,172,-0.380,-0.380,-0.380,0.000,0.000,0.000
1641102644794140160,2022-01-02-05:50:44,10.1.1.8,172,-0.370,-0.370,-0.370,0.000,0.000,0.000
1641102645015086848,2022-01-02-05:50:45,10.1.1.8,192,-0.360,-0.360,-0.360,0.000,0.000,0.000
1641102645193523968,2022-01-02-05:50:45,10.1.1.8,170,-0.350,-0.350,-0.350,0.000,0.000,0.000
1641102645392775936,2022-01-02-05:50:45,10.1.1.8,169,-0.340,-0.340,-0.340,0.000,0.000,0.000
1641102645613127936,2022-01-02-05:50:45,10.1.1.8,188,-0.330,-0.330,-0.330,0.000,0.000,0.000
1641102645793739008,2022-01-02-05:50:45,10.1.1.8,168,-0.320,-0.320,-0.320,0.000,0.000,0.000
1641102646006089984,2022-01-02-05:50:46,10.1.1.8,179,-0.310,-0.310,-0.310,0.000,0.000,0.000
1641102646211860992,2022-01-02-05:50:46,10.1.1.8,183,-0.300,-0.300,-0.300,0.000,0.000,0.000
1641102646396148992,2022-01-02-05:50:46,10.1.1.8,167,-0.290,-0.290,-0.290,0.000,0.000,0.000
1641102646602842112,2022-01-02-05:50:46,10.1.1.8,173,-0.280,-0.280,-0.280,0.000,0.000,0.000
1641102646813153024,2022-01-02-05:50:46,10.1.1.8,183,-0.270,-0.270,-0.270,0.000,0.000,0.000
1641102647004558080,2022-01-02-05:50:47,10.1.1.8,174,-0.260,-0.260,-0.260,0.000,0.000,0.000
1641102647203088896,2022-01-02-05:50:47,10.1.1.8,172,-0.250,-0.250,-0.250,0.000,0.000,0.000
1641102647613504000,2022-01-02-05:50:47,10.1.1.8,182,-0.230,-0.230,-0.230,0.000,0.000,0.000
1641102647801225984,2022-01-02-05:50:47,10.1.1.8,169,-0.220,-0.220,-0.220,0.000,0.000,0.000
1641102648003959040,2022-01-02-05:50:48,10.1.1.8,171,-0.210,-0.210,-0.210,0.000,0.000,0.000
1641102648203881984,2022-01-02-05:50:48,10.1.1.8,167,-0.200,-0.200,-0.200,0.000,0.000,0.000
1641102648401638144,2022-01-02-05:50:48,10.1.1.8,168,-0.190,-0.190,-0.190,0.000,0.000,0.000
1641102648608143104,2022-01-02-05:50:48,10.1.1.8,174,-0.180,-0.180,-0.180,0.000,0.000,0.000
1641102648798312960,2022-01-02-05:50:48,10.1.1.8,163,-0.170,-0.170,-0.170,0.000,0.000,0.000
1641102649000467968,2022-01-02-05:50:48,10.1.1.8,163,-0.160,-0.160,-0.160,0.000,0.000,0.000
1641102649199433984,2022-01-02-05:50:49,10.1.1.8,164,-0.150,-0.150,-0.150,0.000,0.000,0.000
1641102649406856960,2022-01-02-05:50:49,10.1.1.8,170,-0.140,-0.140,-0.140,0.000,0.000,0.000
1641102649599651072,2022-01-02-05:50:49,10.1.1.8,163,-0.130,-0.130,-0.130,0.000,0.000,0.000
1641102649880425984,2022-01-02-05:50:49,10.1.1.8,173,-0.120,-0.120,-0.120,0.000,0.000,0.000
1641102650046662144,2022-01-02-05:50:50,10.1.1.8,165,-0.110,-0.110,-0.110,0.000,0.000,0.000
1641102650247059200,2022-01-02-05:50:50,10.1.1.8,164,-0.100,-0.100,-0.100,0.000,0.000,0.000
1641102650465708032,2022-01-02-05:50:50,10.1.1.8,184,-0.090,-0.090,-0.090,0.000,0.000,0.000
1641102650657227008,2022-01-02-05:50:50,10.1.1.8,175,-0.080,-0.080,-0.080,0.000,0.000,0.000
1641102650844897024,2022-01-02-05:50:50,10.1.1.8,162,-0.070,-0.070,-0.070,0.000,0.000,0.000
1641102651057203968,2022-01-02-05:50:51,10.1.1.8,173,-0.060,-0.060,-0.060,0.000,0.000,0.000
1641102651266565120,2022-01-02-05:50:51,10.1.1.8,181,-0.050,-0.050,-0.050,0.000,0.000,0.000
1641102651468270080,2022-01-02-05:50:51,10.1.1.8,182,-0.040,-0.040,-0.040,0.000,0.000,0.000
1641102651658819840,2022-01-02-05:50:51,10.1.1.8,172,-0.030,-0.030,-0.030,0.000,0.000,0.000
1641102651865622016,2022-01-02-05:50:51,10.1.1.8,178,-0.020,-0.020,-0.020,0.000,0.000,0.000
1641102652050468864,2022-01-02-05:50:52,10.1.1.8,162,-0.010,-0.010,-0.010,0.000,0.000,0.000
1641102652264608000,2022-01-02-05:50:52,10.1.1.8,174,0.000,0.000,0.000,0.000,0.000,0.000
1641102652462720000,2022-01-02-05:50:52,10.1.1.8,171,-0.010,-0.010,-0.010,0.000,0.000,0.000
1641102652665558016,2022-01-02-05:50:52,10.1.1.8,173,-0.020,-0.020,-0.020,0.000,0.000,0.000
1641102652865447168,2022-01-02-05:50:52,10.1.1.8,172,-0.030,-0.030,-0.030,0.000,0.000,0.000
1641102653066206976,2022-01-02-05:50:53,10.1.1.8,172,-0.040,-0.040,-0.040,0.000,0.000,0.000
1641102653266429952,2022-01-02-05:50:53,10.1.1.8,172,-0.050,-0.050,-0.050,0.000,0.000,0.000
1641102653467323904,2022-01-02-05:50:53,10.1.1.8,172,-0.060,-0.060,-0.060,0.000,0.000,0.000
1641102653668086016,2022-01-02-05:50:53,10.1.1.8,172,-0.070,-0.070,-0.070,0.000,0.000,0.000
1641102653869366784,2022-01-02-05:50:53,10.1.1.8,173,-0.080,-0.080,-0.080,0.000,0.000,0.000
1641102654069101056,2022-01-02-05:50:54,10.1.1.8,172,-0.090,-0.090,-0.090,0.000,0.000,0.000
1641102654270409216,2022-01-02-05:50:54,10.1.1.8,173,-0.100,-0.100,-0.100,0.000,0.000,0.000
1641102654471452928,2022-01-02-05:50:54,10.1.1.8,173,-0.110,-0.110,-0.110,0.000,0.000,0.000
1641102654672260096,2022-01-02-05:50:54,10.1.1.8,173,-0.120,-0.120,-0.120,0.000,0.000,0.000
1641102655283938048,2022-01-02-05:50:55,10.1.1.8,182,-0.150,-0.150,-0.150,0.000,0.000,0.000
1641102655482949888,2022-01-02-05:50:55,10.1.1.8,180,-0.160,-0.160,-0.160,0.000,0.000,0.000
1641102655684367872,2022-01-02-05:50:55,10.1.1.8,181,-0.170,-0.170,-0.170,0.000,0.000,0.000
1641102655884744960,2022-01-02-05:50:55,10.1.1.8,181,-0.180,-0.180,-0.180,0.000,0.000,0.000
1641102656085027072,2022-01-02-05:50:56,10.1.1.8,180,-0.190,-0.190,-0.190,0.000,0.000,0.000
1641102656304968960,2022-01-02-05:50:56,10.1.1.8,200,-0.200,-0.200,-0.200,0.000,0.000,0.000
1641102656496776960,2022-01-02-05:50:56,10.1.1.8,191,-0.210,-0.210,-0.210,0.000,0.000,0.000
1641102656697191936,2022-01-02-05:50:56,10.1.1.8,190,-0.220,-0.220,-0.220,0.000,0.000,0.000
1641102656886496000,2022-01-02-05:50:56,10.1.1.8,179,-0.230,-0.230,-0.230,0.000,0.000,0.000
1641102657099073792,2022-01-02-05:50:57,10.1.1.8,190,-0.240,-0.240,-0.240,0.000,0.000,0.000
1641102657299499008,2022-01-02-05:50:57,10.1.1.8,190,-0.250,-0.250,-0.250,0.000,0.000,0.000
1641102657501755904,2022-01-02-05:50:57,10.1.1.8,188,-0.260,-0.260,-0.260,0.000,0.000,0.000
1641102657710217984,2022-01-02-05:50:57,10.1.1.8,197,-0.270,-0.270,-0.270,0.000,0.000,0.000
1641102657898427904,2022-01-02-05:50:57,10.1.1.8,185,-0.280,-0.280,-0.280,0.000,0.000,0.000
1641102658108220160,2022-01-02-05:50:58,10.1.1.8,194,-0.290,-0.290,-0.290,0.000,0.000,0.000
1641102658303841024,2022-01-02-05:50:58,10.1.1.8,187,-0.300,-0.300,-0.300,0.000,0.000,0.000
1641102658509126912,2022-01-02-05:50:58,10.1.1.8,192,-0.310,-0.310,-0.310,0.000,0.000,0.000
1641102658698995968,2022-01-02-05:50:58,10.1.1.8,181,-0.320,-0.320,-0.320,0.000,0.000,0.000
1641102658922151936,2022-01-02-05:50:58,10.1.1.8,197,-0.330,-0.330,-0.330,0.000,0.000,0.000
1641102659109463808,2022-01-02-05:50:59,10.1.1.8,183,-0.340,-0.340,-0.340,0.000,0.000,0.000
1641102659320079104,2022-01-02-05:50:59,10.1.1.8,193,-0.350,-0.350,-0.350,0.000,0.000,0.000
1641102659521528832,2022-01-02-05:50:59,10.1.1.8,193,-0.360,-0.360,-0.360,0.000,0.000,0.000
1641102659709979136,2022-01-02-05:50:59,10.1.1.8,180,-0.370,-0.370,-0.370,0.000,0.000,0.000
1641102659926486016,2022-01-02-05:50:59,10.1.1.8,196,-0.380,-0.380,-0.380,0.000,0.000,0.000
1641102660120645120,2022-01-02-05:51:00,10.1.1.8,188,-0.390,-0.390,-0.390,0.000,0.000,0.000
1641102660330355968,2022-01-02-05:51:00,10.1.1.8,197,-0.400,-0.400,-0.400,0.000,0.000,0.000
1641102660522594048,2022-01-02-05:51:00,10.1.1.8,187,-0.410,-0.410,-0.410,0.000,0.000,0.000
1641102660722745856,2022-01-02-05:51:00,10.1.1.8,187,-0.420,-0.420,-0.420,0.000,0.000,0.000
1641102660920628992,2022-01-02-05:51:00,10.1.1.8,183,-0.430,-0.430,-0.430,0.000,0.000,0.000
1641102661129883136,2022-01-02-05:51:01,10.1.1.8,186,-0.440,-0.440,-0.440,0.000,0.000,0.000
1641102661341033984,2022-01-02-05:51:01,10.1.1.8,197,-0.450,-0.450,-0.450,0.000,0.000,0.000
1641102661529915136,2022-01-02-05:51:01,10.1.1.8,185,-0.460,-0.460,-0.460,0.000,0.000,0.000
1641102661730251008,2022-01-02-05:51:01,10.1.1.8,185,-0.470,-0.470,-0.470,0.000,0.000,0.000
1641102662143845120,2022-01-02-05:51:02,10.1.1.8,197,-0.490,-0.490,-0.490,0.000,0.000,0.000
1641102662340264192,2022-01-02-05:51:02,10.1.1.8,191,-0.480,-0.480,-0.480,0.000,0.000,0.000
1641102662541184000,2022-01-02-05:51:02,10.1.1.8,190,-0.470,-0.470,-0.470,0.000,0.000,0.000
1641102662740451072,2022-01-02-05:51:02,10.1.1.8,188,-0.460,-0.460,-0.460,0.000,0.000,0.000
1641102662940337920,2022-01-02-05:51:02,10.1.1.8,187,-0.450,-0.450,-0.450,0.000,0.000,0.000
1641102663140496128,2022-01-02-05:51:03,10.1.1.8,186,-0.440,-0.440,-0.440,0.000,0.000,0.000
1641102663344553984,2022-01-02-05:51:03,10.1.1.8,190,-0.430,-0.430,-0.430,0.000,0.000,0.000
1641102663549921024,2022-01-02-05:51:03,10.1.1.8,195,-0.420,-0.420,-0.420,0.000,0.000,0.000
1641102663747013120,2022-01-02-05:51:03,10.1.1.8,191,-0.410,-0.410,-0.410,0.000,0.000,0.000
1641102663950176000,2022-01-02-05:51:03,10.1.1.8,192,-0.400,-0.400,-0.400,0.000,0.000,0.000
1641102664139954176,2022-01-02-05:51:04,10.1.1.8,181,-0.390,-0.390,-0.390,0.000,0.000,0.000
1641102664349284864,2022-01-02-05:51:04,10.1.1.8,187,-0.380,-0.380,-0.380,0.000,0.000,0.000
1641102664759944960,2022-01-02-05:51:04,10.1.1.8,195,-0.360,-0.360,-0.360,0.000,0.000,0.000
1641102664949157120,2022-01-02-05:51:04,10.1.1.8,183,-0.350,-0.350,-0.350,0.000,0.000,0.000
1641102665160867840,2022-01-02-05:51:05,10.1.1.8,194,-0.340,-0.340,-0.340,0.000,0.000,0.000
1641102665349478912,2022-01-02-05:51:05,10.1.1.8,181,-0.330,-0.330,-0.330,0.000,0.000,0.000
1641102665561381120,2022-01-02-05:51:05,10.1.1.8,193,-0.320,-0.320,-0.320,0.000,0.000,0.000
1641102665749129984,2022-01-02-05:51:05,10.1.1.8,180,-0.310,-0.310,-0.310,0.000,0.000,0.000
1641102665968815104,2022-01-02-05:51:05,10.1.1.8,199,-0.300,-0.300,-0.300,0.000,0.000,0.000
1641102666160702976,2022-01-02-05:51:06,10.1.1.8,190,-0.290,-0.290,-0.290,0.000,0.000,0.000
1641102666362089984,2022-01-02-05:51:06,10.1.1.8,191,-0.280,-0.280,-0.280,0.000,0.000,0.000
1641102666558710016,2022-01-02-05:51:06,10.1.1.8,187,-0.270,-0.270,-0.270,0.000,0.000,0.000
1641102666762007040,2022-01-02-05:51:06,10.1.1.8,189,-0.260,-0.260,-0.260,0.000,0.000,0.000
1641102666964715008,2022-01-02-05:51:06,10.1.1.8,190,-0.250,-0.250,-0.250,0.000,0.000,0.000
1641102667169050880,2022-01-02-05:51:07,10.1.1.8,193,-0.240,-0.240,-0.240,0.000,0.000,0.000
1641102667378781184,2022-01-02-05:51:07,10.1.1.8,192,-0.230,-0.230,-0.230,0.000,0.000,0.000
1641102667578840064,2022-01-02-05:51:07,10.1.1.8,191,-0.220,-0.220,-0.220,0.000,0.000,0.000
1641102667768205824,2022-01-02-05:51:07,10.1.1.8,180,-0.210,-0.210,-0.210,0.000,0.000,0.000
1641102667967158016,2022-01-02-05:51:07,10.1.1.8,178,-0.200,-0.200,-0.200,0.000,0.000,0.000
1641102668187124992,2022-01-02-05:51:08,10.1.1.8,197,-0.190,-0.190,-0.190,0.000,0.000,0.000
1641102668378573824,2022-01-02-05:51:08,10.1.1.8,188,-0.180,-0.180,-0.180,0.000,0.000,0.000
1641102668587433216,2022-01-02-05:51:08,10.1.1.8,197,-0.170,-0.170,-0.170,0.000,0.000,0.000
1641102668785938944,2022-01-02-05:51:08,10.1.1.8,195,-0.160,-0.160,-0.160,0.000,0.000,0.000
1641102668976155904,2022-01-02-05:51:08,10.1.1.8,184,-0.150,-0.150,-0.150,0.000,0.000,0.000
1641102669187407104,2022-01-02-05:51:09,10.1.1.8,195,-0.140,-0.140,-0.140,0.000,0.000,0.000
1641102669376971008,2022-01-02-05:51:09,10.1.1.8,178,-0.130,-0.130,-0.130,0.000,0.000,0.000
1641102669578274048,2022-01-02-05:51:09,10.1.1.8,178,-0.120,-0.120,-0.120,0.000,0.000,0.000
1641102669796685824,2022-01-02-05:51:09,10.1.1.8,188,-0.110,-0.110,-0.110,0.000,0.000,0.000
1641102669993908992,2022-01-02-05:51:09,10.1.1.8,184,-0.100,-0.100,-0.100,0.000,0.000,0.000
1641102670196200960,2022-01-02-05:51:10,10.1.1.8,187,-0.090,-0.090,-0.090,0.000,0.000,0.000
1641102670405124864,2022-01-02-05:51:10,10.1.1.8,194,-0.080,-0.080,-0.080,0.000,0.000,0.000
1641102670604308992,2022-01-02-05:51:10,10.1.1.8,191,-0.070,-0.070,-0.070,0.000,0.000,0.000
1641102670796939008,2022-01-02-05:51:10,10.1.1.8,182,-0.060,-0.060,-0.060,0.000,0.000,0.000
1641102671003859968,2022-01-02-05:51:11,10.1.1.8,189,-0.050,-0.050,-0.050,0.000,0.000,0.000
1641102671193558016,2022-01-02-05:51:11,10.1.1.8,176,-0.040,-0.040,-0.040,0.000,0.000,0.000
1641102671394598912,2022-01-02-05:51:11,10.1.1.8,177,-0.030,-0.030,-0.030,0.000,0.000,0.000
1641102671603208960,2022-01-02-05:51:11,10.1.1.8,185,-0.020,-0.020,-0.020,0.000,0.000,0.000
1641102671793193984,2022-01-02-05:51:11,10.1.1.8,174,-0.010,-0.010,-0.010,0.000,0.000,0.000
1641102672013988096,2022-01-02-05:51:12,10.1.1.8,194,0.000,0.000,0.000,0.000,0.000,0.000
1641102672213076224,2022-01-02-05:51:12,10.1.1.8,192,-0.010,-0.010,-0.010,0.000,0.000,0.000
1641102672412005888,2022-01-02-05:51:12,10.1.1.8,190,-0.020,-0.020,-0.020,0.000,0.000,0.000
1641102672621613056,2022-01-02-05:51:12,10.1.1.8,199,-0.030,-0.030,-0.030,0.000,0.000,0.000
1641102672821520128,2022-01-02-05:51:12,10.1.1.8,198,-0.040,-0.040,-0.040,0.000,0.000,0.000
1641102673014138880,2022-01-02-05:51:13,10.1.1.8,190,-0.050,-0.050,-0.050,0.000,0.000,0.000
1641102673212667904,2022-01-02-05:51:13,10.1.1.8,188,-0.060,-0.060,-0.060,0.000,0.000,0.000
1641102673421035008,2022-01-02-05:51:13,10.1.1.8,196,-0.070,-0.070,-0.070,0.000,0.000,0.000
1641102673601157888,2022-01-02-05:51:13,10.1.1.8,176,-0.080,-0.080,-0.080,0.000,0.000,0.000
1641102673800836096,2022-01-02-05:51:13,10.1.1.8,174,-0.090,-0.090,-0.090,0.000,0.000,0.000
1641102674012718080,2022-01-02-05:51:14,10.1.1.8,186,-0.100,-0.100,-0.100,0.000,0.000,0.000
1641102674212194048,2022-01-02-05:51:14,10.1.1.8,183,-0.110,-0.110,-0.110,0.000,0.000,0.000
1641102674410147072,2022-01-02-05:51:14,10.1.1.8,178,-0.120,-0.120,-0.120,0.000,0.000,0.000
1641102674612206848,2022-01-02-05:51:14,10.1.1.8,179,-0.130,-0.130,-0.130,0.000,0.000,0.000
1641102674809240064,2022-01-02-05:51:14,10.1.1.8,176,-0.140,-0.140,-0.140,0.000,0.000,0.000
1641102675008941824,2022-01-02-05:51:15,10.1.1.8,175,-0.150,-0.150,-0.150,0.000,0.000,0.000
1641102675208779008,2022-01-02-05:51:15,10.1.1.8,174,-0.160,-0.160,-0.160,0.000,0.000,0.000
1641102675408783872,2022-01-02-05:51:15,10.1.1.8,174,-0.170,-0.170,-0.170,0.000,0.000,0.000
1641102675608995072,2022-01-02-05:51:15,10.1.1.8,173,-0.180,-0.180,-0.180,0.000,0.000,0.000
1641102675808237056,2022-01-02-05:51:15,10.1.1.8,171,-0.190,-0.190,-0.190,0.000,0.000,0.000
1641102676017720064,2022-01-02-05:51:16,10.1.1.8,181,-0.200,-0.200,-0.200,0.000,0.000,0.000
1641102676208632832,2022-01-02-05:51:16,10.1.1.8,171,-0.210,-0.210,-0.210,0.000,0.000,0.000
1641102676408421888,2022-01-02-05:51:16,10.1.1.8,168,-0.220,-0.220,-0.220,0.000,0.000,0.000
1641102676627038976,2022-01-02-05:51:16,10.1.1.8,187,-0.230,-0.230,-0.230,0.000,0.000,0.000
1641102676831707904,2022-01-02-05:51:16,10.1.1.8,191,-0.240,-0.240,-0.240,0.000,0.000,0.000
1641102677026341888,2022-01-02-05:51:17,10.1.1.8,185,-0.250,-0.250,-0.250,0.000,0.000,0.000
1641102677228967936,2022-01-02-05:51:17,10.1.1.8,185,-0.260,-0.260,-0.260,0.000,0.000,0.000
1641102677427542016,2022-01-02-05:51:17,10.1.1.8,185,-0.270,-0.270,-0.270,0.000,0.000,0.000
1641102677624667904,2022-01-02-05:51:17,10.1.1.8,181,-0.280,-0.280,-0.280,0.000,0.000,0.000
1641102677835254016,2022-01-02-05:51:17,10.1.1.8,191,-0.290,-0.290,-0.290,0.000,0.000,0.000
1641102678024647936,2022-01-02-05:51:18,10.1.1.8,179,-0.300,-0.300,-0.300,0.000,0.000,0.000
1641102678235791872,2022-01-02-05:51:18,10.1.1.8,188,-0.310,-0.310,-0.310,0.000,0.000,0.000
1641102678425147136,2022-01-02-05:51:18,10.1.1.8,175,-0.320,-0.320,-0.320,0.000,0.000,0.000
1641102678631843072,2022-01-02-05:51:18,10.1.1.8,180,-0.330,-0.330,-0.330,0.000,0.000,0.000
1641102678832766976,2022-01-02-05:51:18,10.1.1.8,178,-0.340,-0.340,-0.340,0.000,0.000,0.000
1641102679022932992,2022-01-02-05:51:19,10.1.1.8,167,-0.350,-0.350,-0.350,0.000,0.000,0.000
1641102679222256896,2022-01-02-05:51:19,10.1.1.8,166,-0.360,-0.360,-0.360,0.000,0.000,0.000
1641102679422426880,2022-01-02-05:51:19,10.1.1.8,166,-0.370,-0.370,-0.370,0.000,0.000,0.000
1641102679622801920,2022-01-02-05:51:19,10.1.1.8,166,-0.380,-0.380,-0.380,0.000,0.000,0.000
1641102679825356032,2022-01-02-05:51:19,10.1.1.8,168,-0.390,-0.390,-0.390,0.000,0.000,0.000
1641102680020965120,2022-01-02-05:51:20,10.1.1.8,162,-0.400,-0.400,-0.400,0.000,0.000,0.000
1641102680221988864,2022-01-02-05:51:20,10.1.1.8,162,-0.410,-0.410,-0.410,0.000,0.000,0.000
1641102680422082048,2022-01-02-05:51:20,10.1.1.8,162,-0.420,-0.420,-0.420,0.000,0.000,0.000
1641102680629980928,2022-01-02-05:51:20,10.1.1.8,169,-0.430,-0.430,-0.430,0.000,0.000,0.000
1641102680829412096,2022-01-02-05:51:20,10.1.1.8,167,-0.440,-0.440,-0.440,0.000,0.000,0.000
1641102681039416064,2022-01-02-05:51:21,10.1.1.8,176,-0.450,-0.450,-0.450,0.000,0.000,0.000
1641102681248869888,2022-01-02-05:51:21,10.1.1.8,184,-0.460,-0.460,-0.460,0.000,0.000,0.000
1641102681441068800,2022-01-02-05:51:21,10.1.1.8,176,-0.470,-0.470,-0.470,0.000,0.000,0.000
1641102681648034048,2022-01-02-05:51:21,10.1.1.8,183,-0.480,-0.480,-0.480,0.000,0.000,0.000
1641102681847670016,2022-01-02-05:51:21,10.1.1.8,181,-0.490,-0.490,-0.490,0.000,0.000,0.000
1641102682046984960,2022-01-02-05:51:22,10.1.1.8,179,-0.480,-0.480,-0.480,0.000,0.000,0.000
1641102682237984768,2022-01-02-05:51:22,10.1.1.8,169,-0.470,-0.470,-0.470,0.000,0.000,0.000
1641102682438405888,2022-01-02-05:51:22,10.1.1.8,169,-0.460,-0.460,-0.460,0.000,0.000,0.000
1641102682638742016,2022-01-02-05:51:22,10.1.1.8,168,-0.450,-0.450,-0.450,0.000,0.000,0.000
1641102682846688000,2022-01-02-05:51:22,10.1.1.8,175,-0.440,-0.440,-0.440,0.000,0.000,0.000
1641102683037118976,2022-01-02-05:51:23,10.1.1.8,165,-0.430,-0.430,-0.430,0.000,0.000,0.000
1641102683238769152,2022-01-02-05:51:23,10.1.1.8,166,-0.420,-0.420,-0.420,0.000,0.000,0.000
1641102683448809984,2022-01-02-05:51:23,10.1.1.8,176,-0.410,-0.410,-0.410,0.000,0.000,0.000
1641102683636049152,2022-01-02-05:51:23,10.1.1.8,162,-0.400,-0.400,-0.400,0.000,0.000,0.000
1641102683841180928,2022-01-02-05:51:23,10.1.1.8,166,-0.390,-0.390,-0.390,0.000,0.000,0.000
1641102684037314048,2022-01-02-05:51:24,10.1.1.8,161,-0.380,-0.380,-0.380,0.000,0.000,0.000
1641102684237831168,2022-01-02-05:51:24,10.1.1.8,161,-0.370,-0.370,-0.370,0.000,0.000,0.000
1641102684438608896,2022-01-02-05:51:24,10.1.1.8,161,-0.360,-0.360,-0.360,0.000,0.000,0.000
1641102684638808064,2022-01-02-05:51:24,10.1.1.8,160,-0.350,-0.350,-0.350,0.000,0.000,0.000
1641102684861947904,2022-01-02-05:51:24,10.1.1.8,181,-0.340,-0.340,-0.340,0.000,0.000,0.000
1641102685050182144,2022-01-02-05:51:25,10.1.1.8,168,-0.330,-0.330,-0.330,0.000,0.000,0.000
1641102685250859008,2022-01-02-05:51:25,10.1.1.8,169,-0.320,-0.320,-0.320,0.000,0.000,0.000
1641102685464555008,2022-01-02-05:51:25,10.1.1.8,182,-0.310,-0.310,-0.310,0.000,0.000,0.000
1641102685666116864,2022-01-02-05:51:25,10.1.1.8,182,-0.300,-0.300,-0.300,0.000,0.000,0.000
1641102685873614080,2022-01-02-05:51:25,10.1.1.8,179,-0.290,-0.290,-0.290,0.000,0.000,0.000
1641102686074567168,2022-01-02-05:51:26,10.1.1.8,179,-0.280,-0.280,-0.280,0.000,0.000,0.000
1641102686266115072,2022-01-02-05:51:26,10.1.1.8,170,-0.270,-0.270,-0.270,0.000,0.000,0.000
1641102686468420864,2022-01-02-05:51:26,10.1.1.8,171,-0.260,-0.260,-0.260,0.000,0.000,0.000
1641102686667308032,2022-01-02-05:51:26,10.1.1.8,169,-0.250,-0.250,-0.250,0.000,0.000,0.000
1641102686869373952,2022-01-02-05:51:26,10.1.1.8,171,-0.240,-0.240,-0.240,0.000,0.000,0.000
1641102687071075840,2022-01-02-05:51:27,10.1.1.8,172,-0.230,-0.230,-0.230,0.000,0.000,0.000
1641102687286132224,2022-01-02-05:51:27,10.1.1.8,182,-0.220,-0.220,-0.220,0.000,0.000,0.000
1641102687479304960,2022-01-02-05:51:27,10.1.1.8,174,-0.210,-0.210,-0.210,0.000,0.000,0.000
1641102687701050880,2022-01-02-05:51:27,10.1.1.8,194,-0.200,-0.200,-0.200,0.000,0.000,0.000
1641102687900909824,2022-01-02-05:51:27,10.1.1.8,194,-0.190,-0.190,-0.190,0.000,0.000,0.000
1641102688080848896,2022-01-02-05:51:28,10.1.1.8,173,-0.180,-0.180,-0.180,0.000,0.000,0.000
1641102688292829952,2022-01-02-05:51:28,10.1.1.8,183,-0.170,-0.170,-0.170,0.000,0.000,0.000
1641102688492201216,2022-01-02-05:51:28,10.1.1.8,181,-0.160,-0.160,-0.160,0.000,0.000,0.000
1641102688702555904,2022-01-02-05:51:28,10.1.1.8,191,-0.150,-0.150,-0.150,0.000,0.000,0.000
1641102688893457920,2022-01-02-05:51:28,10.1.1.8,181,-0.140,-0.140,-0.140,0.000,0.000,0.000
1641102689094181120,2022-01-02-05:51:29,10.1.1.8,179,-0.130,-0.130,-0.130,0.000,0.000,0.000
1641102689294511104,2022-01-02-05:51:29,10.1.1.8,178,-0.120,-0.120,-0.120,0.000,0.000,0.000
1641102689495961856,2022-01-02-05:51:29,10.1.1.8,178,-0.110,-0.110,-0.110,0.000,0.000,0.000
1641102689694637056,2022-01-02-05:51:29,10.1.1.8,177,-0.100,-0.100,-0.100,0.000,0.000,0.000
1641102689904375040,2022-01-02-05:51:29,10.1.1.8,186,-0.090,-0.090,-0.090,0.000,0.000,0.000
1641102690106765056,2022-01-02-05:51:30,10.1.1.8,187,-0.080,-0.080,-0.080,0.000,0.000,0.000
1641102690305275904,2022-01-02-05:51:30,10.1.1.8,185,-0.070,-0.070,-0.070,0.000,0.000,0.000
1641102690515650048,2022-01-02-05:51:30,10.1.1.8,195,-0.060,-0.060,-0.060,0.000,0.000,0.000
1641102690705614080,2022-01-02-05:51:30,10.1.1.8,184,-0.050,-0.050,-0.050,0.000,0.000,0.000
1641102690905347072,2022-01-02-05:51:30,10.1.1.8,183,-0.040,-0.040,-0.040,0.000,0.000,0.000
1641102691119497984,2022-01-02-05:51:31,10.1.1.8,196,-0.030,-0.030,-0.030,0.000,0.000,0.000
1641102691506232064,2022-01-02-05:51:31,10.1.1.8,181,-0.010,-0.010,-0.010,0.000,0.000,0.000
1641102691709594880,2022-01-02-05:51:31,10.1.1.8,183,0.000,0.000,0.000,0.000,0.000,0.000
1641102691907588096,2022-01-02-05:51:31,10.1.1.8,181,-0.010,-0.010,-0.010,0.000,0.000,0.000
1641102692118473984,2022-01-02-05:51:32,10.1.1.8,191,-0.020,-0.020,-0.020,0.000,0.000,0.000
1641102692321083136,2022-01-02-05:51:32,10.1.1.8,193,-0.030,-0.030,-0.030,0.000,0.000,0.000
1641102692520809984,2022-01-02-05:51:32,10.1.1.8,192,-0.040,-0.040,-0.040,0.000,0.000,0.000
1641102692727886080,2022-01-02-05:51:32,10.1.1.8,198,-0.050,-0.050,-0.050,0.000,0.000,0.000
1641102692929466880,2022-01-02-05:51:32,10.1.1.8,199,-0.060,-0.060,-0.060,0.000,0.000,0.000
1641102693120321024,2022-01-02-05:51:33,10.1.1.8,189,-0.070,-0.070,-0.070,0.000,0.000,0.000
1641102693327640064,2022-01-02-05:51:33,10.1.1.8,196,-0.080,-0.080,-0.080,0.000,0.000,0.000
1641102693518192128,2022-01-02-05:51:33,10.1.1.8,186,-0.090,-0.090,-0.090,0.000,0.000,0.000
1641102693718672128,2022-01-02-05:51:33,10.1.1.8,186,-0.100,-0.100,-0.100,0.000,0.000,0.000
1641102693921266176,2022-01-02-05:51:33,10.1.1.8,188,-0.110,-0.110,-0.110,0.000,0.000,0.000
1641102694120257024,2022-01-02-05:51:34,10.1.1.8,186,-0.120,-0.120,-0.120,0.000,0.000,0.000
1641102694318718976,2022-01-02-05:51:34,10.1.1.8,183,-0.130,-0.130,-0.130,0.000,0.000,0.000
1641102694523441152,2022-01-02-05:51:34,10.1.1.8,188,-0.140,-0.140,-0.140,0.000,0.000,0.000
1641102694739320064,2022-01-02-05:51:34,10.1.1.8,185,-0.150,-0.150,-0.150,0.000,0.000,0.000
1641102694938648832,2022-01-02-05:51:34,10.1.1.8,185,-0.160,-0.160,-0.160,0.000,0.000,0.000
1641102695138475008,2022-01-02-05:51:35,10.1.1.8,184,-0.170,-0.170,-0.170,0.000,0.000,0.000
1641102695348092160,2022-01-02-05:51:35,10.1.1.8,193,-0.180,-0.180,-0.180,0.000,0.000,0.000
1641102695539609856,2022-01-02-05:51:35,10.1.1.8,184,-0.190,-0.190,-0.190,0.000,0.000,0.000
1641102695738870016,2022-01-02-05:51:35,10.1.1.8,182,-0.200,-0.200,-0.200,0.000,0.000,0.000
1641102695948411904,2022-01-02-05:51:35,10.1.1.8,190,-0.210,-0.210,-0.210,0.000,0.000,0.000
1641102696142520832,2022-01-02-05:51:36,10.1.1.8,183,-0.220,-0.220,-0.220,0.000,0.000,0.000
1641102696364058112,2022-01-02-05:51:36,10.1.1.8,204,-0.230,-0.230,-0.230,0.000,0.000,0.000
1641102696563770112,2022-01-02-05:51:36,10.1.1.8,196,-0.240,-0.240,-0.240,0.000,0.000,0.000
1641102696961175040,2022-01-02-05:51:36,10.1.1.8,195,-0.260,-0.260,-0.260,0.000,0.000,0.000
1641102697160471040,2022-01-02-05:51:37,10.1.1.8,193,-0.270,-0.270,-0.270,0.000,0.000,0.000
1641102697348102144,2022-01-02-05:51:37,10.1.1.8,180,-0.280,-0.280,-0.280,0.000,0.000,0.000
1641102697558810112,2022-01-02-05:51:37,10.1.1.8,190,-0.290,-0.290,-0.290,0.000,0.000,0.000
1641102697767604224,2022-01-02-05:51:37,10.1.1.8,198,-0.300,-0.300,-0.300,0.000,0.000,0.000
1641102697968188928,2022-01-02-05:51:37,10.1.1.8,198,-0.310,-0.310,-0.310,0.000,0.000,0.000
1641102698161281024,2022-01-02-05:51:38,10.1.1.8,189,-0.320,-0.320,-0.320,0.000,0.000,0.000
1641102698361903872,2022-01-02-05:51:38,10.1.1.8,188,-0.330,-0.330,-0.330,0.000,0.000,0.000
1641102698561014016,2022-01-02-05:51:38,10.1.1.8,184,-0.340,-0.340,-0.340,0.000,0.000,0.000
1641102698760484864,2022-01-02-05:51:38,10.1.1.8,181,-0.350,-0.350,-0.350,0.000,0.000,0.000
1641102698977125888,2022-01-02-05:51:38,10.1.1.8,196,-0.360,-0.360,-0.360,0.000,0.000,0.000
1641102699378097920,2022-01-02-05:51:39,10.1.1.8,195,-0.380,-0.380,-0.380,0.000,0.000,0.000
1641102699566253056,2022-01-02-05:51:39,10.1.1.8,182,-0.390,-0.390,-0.390,0.000,0.000,0.000
1641102699776355072,2022-01-02-05:51:39,10.1.1.8,191,-0.400,-0.400,-0.400,0.000,0.000,0.000
1641102699977981184,2022-01-02-05:51:39,10.1.1.8,192,-0.410,-0.410,-0.410,0.000,0.000,0.000
1641102700185498112,2022-01-02-05:51:40,10.1.1.8,199,-0.420,-0.420,-0.420,0.000,0.000,0.000
1641102700375931904,2022-01-02-05:51:40,10.1.1.8,189,-0.430,-0.430,-0.430,0.000,0.000,0.000
1641102700575947008,2022-01-02-05:51:40,10.1.1.8,188,-0.440,-0.440,-0.440,0.000,0.000,0.000
1641102700775132928,2022-01-02-05:51:40,10.1.1.8,186,-0.450,-0.450,-0.450,0.000,0.000,0.000
1641102700974957824,2022-01-02-05:51:40,10.1.1.8,185,-0.460,-0.460,-0.460,0.000,0.000,0.000
1641102701178656000,2022-01-02-05:51:41,10.1.1.8,188,-0.470,-0.470,-0.470,0.000,0.000,0.000
1641102701374758912,2022-01-02-05:51:41,10.1.1.8,183,-0.480,-0.480,-0.480,0.000,0.000,0.000
1641102701574394112,2022-01-02-05:51:41,10.1.1.8,181,-0.490,-0.490,-0.490,0.000,0.000,0.000
1641102701777388032,2022-01-02-05:51:41,10.1.1.8,183,-0.480,-0.480,-0.480,0.000,0.000,0.000
1641102701974516992,2022-01-02-05:51:41,10.1.1.8,178,-0.470,-0.470,-0.470,0.000,0.000,0.000
1641102702174233856,2022-01-02-05:51:42,10.1.1.8,177,-0.460,-0.460,-0.460,0.000,0.000,0.000
1641102702375542016,2022-01-02-05:51:42,10.1.1.8,177,-0.450,-0.450,-0.450,0.000,0.000,0.000
1641102702574541056,2022-01-02-05:51:42,10.1.1.8,176,-0.440,-0.440,-0.440,0.000,0.000,0.000
1641102702773467136,2022-01-02-05:51:42,10.1.1.8,175,-0.430,-0.430,-0.430,0.000,0.000,0.000
1641102702985256960,2022-01-02-05:51:42,10.1.1.8,186,-0.420,-0.420,-0.420,0.000,0.000,0.000
1641102703173507072,2022-01-02-05:51:43,10.1.1.8,173,-0.410,-0.410,-0.410,0.000,0.000,0.000
1641102703393117952,2022-01-02-05:51:43,10.1.1.8,192,-0.400,-0.400,-0.400,0.000,0.000,0.000
1641102703597695232,2022-01-02-05:51:43,10.1.1.8,192,-0.390,-0.390,-0.390,0.000,0.000,0.000
1641102703792244992,2022-01-02-05:51:43,10.1.1.8,187,-0.380,-0.380,-0.380,0.000,0.000,0.000
1641102703992454144,2022-01-02-05:51:43,10.1.1.8,186,-0.370,-0.370,-0.370,0.000,0.000,0.000
1641102704193944832,2022-01-02-05:51:44,10.1.1.8,187,-0.360,-0.360,-0.360,0.000,0.000,0.000
1641102704393081856,2022-01-02-05:51:44,10.1.1.8,186,-0.350,-0.350,-0.350,0.000,0.000,0.000
1641102704592076032,2022-01-02-05:51:44,10.1.1.8,184,-0.340,-0.340,-0.340,0.000,0.000,0.000
1641102704791062016,2022-01-02-05:51:44,10.1.1.8,181,-0.330,-0.330,-0.330,0.000,0.000,0.000
1641102704990400000,2022-01-02-05:51:44,10.1.1.8,179,-0.320,-0.320,-0.320,0.000,0.000,0.000
1641102705191052800,2022-01-02-05:51:45,10.1.1.8,177,-0.310,-0.310,-0.310,0.000,0.000,0.000
1641102705390723840,2022-01-02-05:51:45,10.1.1.8,176,-0.300,-0.300,-0.300,0.000,0.000,0.000
1641102705589580032,2022-01-02-05:51:45,10.1.1.8,174,-0.290,-0.290,-0.290,0.000,0.000,0.000
1641102705790301952,2022-01-02-05:51:45,10.1.1.8,174,-0.280,-0.280,-0.280,0.000,0.000,0.000
1641102705989495040,2022-01-02-05:51:45,10.1.1.8,173,-0.270,-0.270,-0.270,0.000,0.000,0.000
1641102706190488064,2022-01-02-05:51:46,10.1.1.8,172,-0.260,-0.260,-0.260,0.000,0.000,0.000
1641102706389750016,2022-01-02-05:51:46,10.1.1.8,170,-0.250,-0.250,-0.250,0.000,0.000,0.000
1641102706588120064,2022-01-02-05:51:46,10.1.1.8,167,-0.240,-0.240,-0.240,0.000,0.000,0.000
1641102706809385984,2022-01-02-05:51:46,10.1.1.8,188,-0.230,-0.230,-0.230,0.000,0.000,0.000
1641102707008658944,2022-01-02-05:51:47,10.1.1.8,186,-0.220,-0.220,-0.220,0.000,0.000,0.000
1641102707208080896,2022-01-02-05:51:47,10.1.1.8,185,-0.210,-0.210,-0.210,0.000,0.000,0.000
1641102707396994048,2022-01-02-05:51:47,10.1.1.8,173,-0.200,-0.200,-0.200,0.000,0.000,0.000
1641102707606695936,2022-01-02-05:51:47,10.1.1.8,182,-0.190,-0.190,-0.190,0.000,0.000,0.000
1641102707806883072,2022-01-02-05:51:47,10.1.1.8,181,-0.180,-0.180,-0.180,0.000,0.000,0.000
1641102708006663936,2022-01-02-05:51:48,10.1.1.8,180,-0.170,-0.170,-0.170,0.000,0.000,0.000
1641102708215868928,2022-01-02-05:51:48,10.1.1.8,186,-0.160,-0.160,-0.160,0.000,0.000,0.000
1641102708406370048,2022-01-02-05:51:48,10.1.1.8,176,-0.150,-0.150,-0.150,0.000,0.000,0.000
1641102708605565952,2022-01-02-05:51:48,10.1.1.8,175,-0.140,-0.140,-0.140,0.000,0.000,0.000
1641102708805531136,2022-01-02-05:51:48,10.1.1.8,173,-0.130,-0.130,-0.130,0.000,0.000,0.000
1641102709005250048,2022-01-02-05:51:49,10.1.1.8,172,-0.120,-0.120,-0.120,0.000,0.000,0.000
1641102709206428928,2022-01-02-05:51:49,10.1.1.8,173,-0.110,-0.110,-0.110,0.000,0.000,0.000
1641102709404647168,2022-01-02-05:51:49,10.1.1.8,169,-0.100,-0.100,-0.100,0.000,0.000,0.000
1641102709604366080,2022-01-02-05:51:49,10.1.1.8,169,-0.090,-0.090,-0.090,0.000,0.000,0.000
1641102709803649792,2022-01-02-05:51:49,10.1.1.8,167,-0.080,-0.080,-0.080,0.000,0.000,0.000
1641102710003740928,2022-01-02-05:51:50,10.1.1.8,167,-0.070,-0.070,-0.070,0.000,0.000,0.000
1641102710203843072,2022-01-02-05:51:50,10.1.1.8,166,-0.060,-0.060,-0.060,0.000,0.000,0.000
1641102710405133056,2022-01-02-05:51:50,10.1.1.8,166,-0.050,-0.050,-0.050,0.000,0.000,0.000
1641102710604824064,2022-01-02-05:51:50,10.1.1.8,165,-0.040,-0.040,-0.040,0.000,0.000,0.000
1641102710832526080,2022-01-02-05:51:50,10.1.1.8,192,-0.030,-0.030,-0.030,0.000,0.000,0.000
1641102711021485056,2022-01-02-05:51:51,10.1.1.8,180,-0.020,-0.020,-0.020,0.000,0.000,0.000
1641102711231774208,2022-01-02-05:51:51,10.1.1.8,188,-0.010,-0.010,-0.010,0.000,0.000,0.000
1641102711431132928,2022-01-02-05:51:51,10.1.1.8,187,0.000,0.000,0.000,0.000,0.000,0.000
1641102711630860032,2022-01-02-05:51:51,10.1.1.8,186,-0.010,-0.010,-0.010,0.000,0.000,0.000
1641102711829926912,2022-01-02-05:51:51,10.1.1.8,184,-0.020,-0.020,-0.020,0.000,0.000,0.000
1641102712029714944,2022-01-02-05:51:52,10.1.1.8,183,-0.030,-0.030,-0.030,0.000,0.000,0.000
1641102712229809152,2022-01-02-05:51:52,10.1.1.8,183,-0.040,-0.040,-0.040,0.000,0.000,0.000
1641102712421524992,2022-01-02-05:51:52,10.1.1.8,173,-0.050,-0.050,-0.050,0.000,0.000,0.000
1641102712630046976,2022-01-02-05:51:52,10.1.1.8,181,-0.060,-0.060,-0.060,0.000,0.000,0.000
1641102712829174016,2022-01-02-05:51:52,10.1.1.8,180,-0.070,-0.070,-0.070,0.000,0.000,0.000
1641102713020220160,2022-01-02-05:51:53,10.1.1.8,170,-0.080,-0.080,-0.080,0.000,0.000,0.000
1641102713219371008,2022-01-02-05:51:53,10.1.1.8,169,-0.090,-0.090,-0.090,0.000,0.000,0.000
1641102713427619840,2022-01-02-05:51:53,10.1.1.8,176,-0.100,-0.100,-0.100,0.000,0.000,0.000
1641102713627276800,2022-01-02-05:51:53,10.1.1.8,175,-0.110,-0.110,-0.110,0.000,0.000,0.000
1641102713820064000,2022-01-02-05:51:53,10.1.1.8,166,-0.120,-0.120,-0.120,0.000,0.000,0.000
1641102714026791936,2022-01-02-05:51:54,10.1.1.8,173,-0.130,-0.130,-0.130,0.000,0.000,0.000
1641102714218043136,2022-01-02-05:51:54,10.1.1.8,164,-0.140,-0.140,-0.140,0.000,0.000,0.000
1641102714418291200,2022-01-02-05:51:54,10.1.1.8,161,-0.150,-0.150,-0.150,0.000,0.000,0.000
1641102714627068160,2022-01-02-05:51:54,10.1.1.8,171,-0.160,-0.160,-0.160,0.000,0.000,0.000
1641102714816492032,2022-01-02-05:51:54,10.1.1.8,159,-0.170,-0.170,-0.170,0.000,0.000,0.000
1641102715015499008,2022-01-02-05:51:55,10.1.1.8,158,-0.180,-0.180,-0.180,0.000,0.000,0.000
1641102715215019008,2022-01-02-05:51:55,10.1.1.8,156,-0.190,-0.190,-0.190,0.000,0.000,0.000
1641102715414410240,2022-01-02-05:51:55,10.1.1.8,155,-0.200,-0.200,-0.200,0.000,0.000,0.000
1641102715644589824,2022-01-02-05:51:55,10.1.1.8,185,-0.210,-0.210,-0.210,0.000,0.000,0.000
1641102715834053888,2022-01-02-05:51:55,10.1.1.8,174,-0.220,-0.220,-0.220,0.000,0.000,0.000
1641102716036838912,2022-01-02-05:51:56,10.1.1.8,176,-0.230,-0.230,-0.230,0.000,0.000,0.000
1641102716235076864,2022-01-02-05:51:56,10.1.1.8,174,-0.240,-0.240,-0.240,0.000,0.000,0.000
1641102716445774080,2022-01-02-05:51:56,10.1.1.8,184,-0.250,-0.250,-0.250,0.000,0.000,0.000
1641102716637146880,2022-01-02-05:51:56,10.1.1.8,175,-0.260,-0.260,-0.260,0.000,0.000,0.000
1641102716838032896,2022-01-02-05:51:56,10.1.1.8,175,-0.270,-0.270,-0.270,0.000,0.000,0.000
1641102717029256192,2022-01-02-05:51:57,10.1.1.8,166,-0.280,-0.280,-0.280,0.000,0.000,0.000
1641102717241657088,2022-01-02-05:51:57,10.1.1.8,178,-0.290,-0.290,-0.290,0.000,0.000,0.000
1641102717440998912,2022-01-02-05:51:57,10.1.1.8,176,-0.300,-0.300,-0.300,0.000,0.000,0.000
1641102717642301952,2022-01-02-05:51:57,10.1.1.8,177,-0.310,-0.310,-0.310,0.000,0.000,0.000
1641102717844450048,2022-01-02-05:51:57,10.1.1.8,179,-0.320,-0.320,-0.320,0.000,0.000,0.000
1641102718043947008,2022-01-02-05:51:58,10.1.1.8,178,-0.330,-0.330,-0.330,0.000,0.000,0.000
1641102718245260032,2022-01-02-05:51:58,10.1.1.8,179,-0.340,-0.340,-0.340,0.000,0.000,0.000
1641102718446585856,2022-01-02-05:51:58,10.1.1.8,179,-0.350,-0.350,-0.350,0.000,0.000,0.000
1641102718648046080,2022-01-02-05:51:58,10.1.1.8,180,-0.360,-0.360,-0.360,0.000,0.000,0.000
1641102718848429056,2022-01-02-05:51:58,10.1.1.8,180,-0.370,-0.370,-0.370,0.000,0.000,0.000
1641102719048694016,2022-01-02-05:51:59,10.1.1.8,179,-0.380,-0.380,-0.380,0.000,0.000,0.000
1641102719248425984,2022-01-02-05:51:59,10.1.1.8,176,-0.390,-0.390,-0.390,0.000,0.000,0.000
1641102719448556800,2022-01-02-05:51:59,10.1.1.8,176,-0.400,-0.400,-0.400,0.000,0.000,0.000
1641102719650629888,2022-01-02-05:51:59,10.1.1.8,177,-0.410,-0.410,-0.410,0.000,0.000,0.000
1641102719851520000,2022-01-02-05:51:59,10.1.1.8,178,-0.420,-0.420,-0.420,0.000,0.000,0.000
1641102720052851968,2022-01-02-05:52:00,10.1.1.8,178,-0.430,-0.430,-0.430,0.000,0.000,0.000
1641102720252805888,2022-01-02-05:52:00,10.1.1.8,177,-0.440,-0.440,-0.440,0.000,0.000,0.000
1641102720460589056,2022-01-02-05:52:00,10.1.1.8,185,-0.450,-0.450,-0.450,0.000,0.000,0.000
1641102720661500928,2022-01-02-05:52:00,10.1.1.8,185,-0.460,-0.460,-0.460,0.000,0.000,0.000
1641102720852431104,2022-01-02-05:52:00,10.1.1.8,175,-0.470,-0.470,-0.470,0.000,0.000,0.000
1641102721053037824,2022-01-02-05:52:01,10.1.1.8,174,-0.480,-0.480,-0.480,0.000,0.000,0.000
1641102721272721920,2022-01-02-05:52:01,10.1.1.8,193,-0.490,-0.490,-0.490,0.000,0.000,0.000
1641102721673140992,2022-01-02-05:52:01,10.1.1.8,191,-0.470,-0.470,-0.470,0.000,0.000,0.000
1641102721868763904,2022-01-02-05:52:01,10.1.1.8,184,-0.460,-0.460,-0.460,0.000,0.000,0.000
1641102722075648000,2022-01-02-05:52:02,10.1.1.8,191,-0.450,-0.450,-0.450,0.000,0.000,0.000
1641102722276274944,2022-01-02-05:52:02,10.1.1.8,189,-0.440,-0.440,-0.440,0.000,0.000,0.000
1641102722475360000,2022-01-02-05:52:02,10.1.1.8,187,-0.430,-0.430,-0.430,0.000,0.000,0.000
1641102722676476928,2022-01-02-05:52:02,10.1.1.8,188,-0.420,-0.420,-0.420,0.000,0.000,0.000
1641102722880041984,2022-01-02-05:52:02,10.1.1.8,190,-0.410,-0.410,-0.410,0.000,0.000,0.000
1641102723085763840,2022-01-02-05:52:03,10.1.1.8,195,-0.400,-0.400,-0.400,0.000,0.000,0.000
1641102723285783040,2022-01-02-05:52:03,10.1.1.8,195,-0.390,-0.390,-0.390,0.000,0.000,0.000
1641102723476478976,2022-01-02-05:52:03,10.1.1.8,185,-0.380,-0.380,-0.380,0.000,0.000,0.000
1641102723676881152,2022-01-02-05:52:03,10.1.1.8,183,-0.370,-0.370,-0.370,0.000,0.000,0.000
1641102723878361088,2022-01-02-05:52:03,10.1.1.8,184,-0.360,-0.360,-0.360,0.000,0.000,0.000
1641102724079739136,2022-01-02-05:52:04,10.1.1.8,185,-0.350,-0.350,-0.350,0.000,0.000,0.000
1641102724277157120,2022-01-02-05:52:04,10.1.1.8,181,-0.340,-0.340,-0.340,0.000,0.000,0.000
1641102724478741760,2022-01-02-05:52:04,10.1.1.8,179,-0.330,-0.330,-0.330,0.000,0.000,0.000
1641102724677152000,2022-01-02-05:52:04,10.1.1.8,178,-0.320,-0.320,-0.320,0.000,0.000,0.000
1641102724888015104,2022-01-02-05:52:04,10.1.1.8,188,-0.310,-0.310,-0.310,0.000,0.000,0.000
1641102725298448128,2022-01-02-05:52:05,10.1.1.8,197,-0.290,-0.290,-0.290,0.000,0.000,0.000
1641102725499533824,2022-01-02-05:52:05,10.1.1.8,197,-0.280,-0.280,-0.280,0.000,0.000,0.000
1641102725699244032,2022-01-02-05:52:05,10.1.1.8,197,-0.270,-0.270,-0.270,0.000,0.000,0.000
1641102725900518912,2022-01-02-05:52:05,10.1.1.8,197,-0.260,-0.260,-0.260,0.000,0.000,0.000
1641102726099128064,2022-01-02-05:52:06,10.1.1.8,194,-0.250,-0.250,-0.250,0.000,0.000,0.000
1641102726300700928,2022-01-02-05:52:06,10.1.1.8,195,-0.240,-0.240,-0.240,0.000,0.000,0.000
1641102726499624960,2022-01-02-05:52:06,10.1.1.8,193,-0.230,-0.230,-0.230,0.000,0.000,0.000
1641102726701229056,2022-01-02-05:52:06,10.1.1.8,194,-0.220,-0.220,-0.220,0.000,0.000,0.000
1641102727087683840,2022-01-02-05:52:07,10.1.1.8,179,-0.200,-0.200,-0.200,0.000,0.000,0.000
1641102727299376128,2022-01-02-05:52:07,10.1.1.8,190,-0.190,-0.190,-0.190,0.000,0.000,0.000
1641102727497865984,2022-01-02-05:52:07,10.1.1.8,188,-0.180,-0.180,-0.180,0.000,0.000,0.000
1641102727699759872,2022-01-02-05:52:07,10.1.1.8,188,-0.170,-0.170,-0.170,0.000,0.000,0.000
1641102727907706880,2022-01-02-05:52:07,10.1.1.8,196,-0.160,-0.160,-0.160,0.000,0.000,0.000
1641102728097886208,2022-01-02-05:52:08,10.1.1.8,185,-0.150,-0.150,-0.150,0.000,0.000,0.000
1641102728299525888,2022-01-02-05:52:08,10.1.1.8,187,-0.140,-0.140,-0.140,0.000,0.000,0.000
1641102728497352960,2022-01-02-05:52:08,10.1.1.8,184,-0.130,-0.130,-0.130,0.000,0.000,0.000
1641102728698873088,2022-01-02-05:52:08,10.1.1.8,185,-0.120,-0.120,-0.120,0.000,0.000,0.000
1641102728907515136,2022-01-02-05:52:08,10.1.1.8,194,-0.110,-0.110,-0.110,0.000,0.000,0.000
1641102729107700224,2022-01-02-05:52:09,10.1.1.8,193,-0.100,-0.100,-0.100,0.000,0.000,0.000
1641102729299508992,2022-01-02-05:52:09,10.1.1.8,183,-0.090,-0.090,-0.090,0.000,0.000,0.000
1641102729497369088,2022-01-02-05:52:09,10.1.1.8,182,-0.080,-0.080,-0.080,0.000,0.000,0.000
1641102729698454016,2022-01-02-05:52:09,10.1.1.8,182,-0.070,-0.070,-0.070,0.000,0.000,0.000
1641102729898696960,2022-01-02-05:52:09,10.1.1.8,181,-0.060,-0.060,-0.060,0.000,0.000,0.000
1641102730098038016,2022-01-02-05:52:10,10.1.1.8,179,-0.050,-0.050,-0.050,0.000,0.000,0.000
1641102730320219904,2022-01-02-05:52:10,10.1.1.8,199,-0.040,-0.040,-0.040,0.000,0.000,0.000
1641102730506750976,2022-01-02-05:52:10,10.1.1.8,185,-0.030,-0.030,-0.030,0.000,0.000,0.000
1641102730718264064,2022-01-02-05:52:10,10.1.1.8,196,-0.020,-0.020,-0.020,0.000,0.000,0.000
1641102730908148992,2022-01-02-05:52:10,10.1.1.8,186,-0.010,-0.010,-0.010,0.000,0.000,0.000
1641102731106350848,2022-01-02-05:52:11,10.1.1.8,183,0.000,0.000,0.000,0.000,0.000,0.000
1641102731306437888,2022-01-02-05:52:11,10.1.1.8,182,-0.010,-0.010,-0.010,0.000,0.000,0.000
1641102731516638976,2022-01-02-05:52:11,10.1.1.8,191,-0.020,-0.020,-0.020,0.000,0.000,0.000
1641102731725661952,2022-01-02-05:52:11,10.1.1.8,200,-0.030,-0.030,-0.030,0.000,0.000,0.000
1641102731906382080,2022-01-02-05:52:11,10.1.1.8,180,-0.040,-0.040,-0.040,0.000,0.000,0.000
1641102732117163008,2022-01-02-05:52:12,10.1.1.8,190,-0.050,-0.050,-0.050,0.000,0.000,0.000
1641102732328299008,2022-01-02-05:52:12,10.1.1.8,199,-0.060,-0.060,-0.060,0.000,0.000,0.000
1641102732521616896,2022-01-02-05:52:12,10.1.1.8,190,-0.070,-0.070,-0.070,0.000,0.000,0.000
1641102732756454912,2022-01-02-05:52:12,10.1.1.8,193,-0.080,-0.080,-0.080,0.000,0.000,0.000
1641102732964855808,2022-01-02-05:52:12,10.1.1.8,201,-0.090,-0.090,-0.090,0.000,0.000,0.000
1641102733156452864,2022-01-02-05:52:13,10.1.1.8,189,-0.100,-0.100,-0.100,0.000,0.000,0.000
1641102733355942912,2022-01-02-05:52:13,10.1.1.8,188,-0.110,-0.110,-0.110,0.000,0.000,0.000
1641102733546014976,2022-01-02-05:52:13,10.1.1.8,178,-0.120,-0.120,-0.120,0.000,0.000,0.000
1641102733743953920,2022-01-02-05:52:13,10.1.1.8,175,-0.130,-0.130,-0.130,0.000,0.000,0.000
1641102733943684096,2022-01-02-05:52:13,10.1.1.8,174,-0.140,-0.140,-0.140,0.000,0.000,0.000
1641102734156340992,2022-01-02-05:52:14,10.1.1.8,185,-0.150,-0.150,-0.150,0.000,0.000,0.000
1641102734356112128,2022-01-02-05:52:14,10.1.1.8,186,-0.160,-0.160,-0.160,0.000,0.000,0.000
1641102734557595136,2022-01-02-05:52:14,10.1.1.8,185,-0.170,-0.170,-0.170,0.000,0.000,0.000
1641102734753645824,2022-01-02-05:52:14,10.1.1.8,180,-0.180,-0.180,-0.180,0.000,0.000,0.000
1641102734953326848,2022-01-02-05:52:14,10.1.1.8,179,-0.190,-0.190,-0.190,0.000,0.000,0.000
1641102735162522112,2022-01-02-05:52:15,10.1.1.8,187,-0.200,-0.200,-0.200,0.000,0.000,0.000
1641102735353560832,2022-01-02-05:52:15,10.1.1.8,176,-0.210,-0.210,-0.210,0.000,0.000,0.000
1641102735552011008,2022-01-02-05:52:15,10.1.1.8,176,-0.220,-0.220,-0.220,0.000,0.000,0.000
1641102735761961984,2022-01-02-05:52:15,10.1.1.8,184,-0.230,-0.230,-0.230,0.000,0.000,0.000
1641102735961853952,2022-01-02-05:52:15,10.1.1.8,183,-0.240,-0.240,-0.240,0.000,0.000,0.000
1641102736181004032,2022-01-02-05:52:16,10.1.1.8,201,-0.250,-0.250,-0.250,0.000,0.000,0.000
1641102736352998912,2022-01-02-05:52:16,10.1.1.8,171,-0.260,-0.260,-0.260,0.000,0.000,0.000
1641102736571620864,2022-01-02-05:52:16,10.1.1.8,189,-0.270,-0.270,-0.270,0.000,0.000,0.000
1641102736781457920,2022-01-02-05:52:16,10.1.1.8,198,-0.280,-0.280,-0.280,0.000,0.000,0.000
1641102736983004160,2022-01-02-05:52:16,10.1.1.8,199,-0.290,-0.290,-0.290,0.000,0.000,0.000
1641102737170195200,2022-01-02-05:52:17,10.1.1.8,185,-0.300,-0.300,-0.300,0.000,0.000,0.000
1641102737379805184,2022-01-02-05:52:17,10.1.1.8,194,-0.310,-0.310,-0.310,0.000,0.000,0.000
1641102737559964928,2022-01-02-05:52:17,10.1.1.8,173,-0.320,-0.320,-0.320,0.000,0.000,0.000
1641102737759425024,2022-01-02-05:52:17,10.1.1.8,172,-0.330,-0.330,-0.330,0.000,0.000,0.000
1641102737973583104,2022-01-02-05:52:17,10.1.1.8,185,-0.340,-0.340,-0.340,0.000,0.000,0.000
1641102738181402880,2022-01-02-05:52:18,10.1.1.8,192,-0.350,-0.350,-0.350,0.000,0.000,0.000
1641102738369748224,2022-01-02-05:52:18,10.1.1.8,179,-0.360,-0.360,-0.360,0.000,0.000,0.000
1641102738581438976,2022-01-02-05:52:18,10.1.1.8,187,-0.370,-0.370,-0.370,0.000,0.000,0.000
1641102738769793024,2022-01-02-05:52:18,10.1.1.8,176,-0.380,-0.380,-0.380,0.000,0.000,0.000
1641102738969788928,2022-01-02-05:52:18,10.1.1.8,177,-0.390,-0.390,-0.390,0.000,0.000,0.000
1641102739169797888,2022-01-02-05:52:19,10.1.1.8,176,-0.400,-0.400,-0.400,0.000,0.000,0.000
1641102739368732928,2022-01-02-05:52:19,10.1.1.8,174,-0.410,-0.410,-0.410,0.000,0.000,0.000
1641102739570672128,2022-01-02-05:52:19,10.1.1.8,175,-0.420,-0.420,-0.420,0.000,0.000,0.000
1641102739769850112,2022-01-02-05:52:19,10.1.1.8,171,-0.430,-0.430,-0.430,0.000,0.000,0.000
1641102739966720000,2022-01-02-05:52:19,10.1.1.8,170,-0.440,-0.440,-0.440,0.000,0.000,0.000
1641102740172920832,2022-01-02-05:52:20,10.1.1.8,176,-0.450,-0.450,-0.450,0.000,0.000,0.000
1641102740369573120,2022-01-02-05:52:20,10.1.1.8,172,-0.460,-0.460,-0.460,0.000,0.000,0.000
1641102740565606144,2022-01-02-05:52:20,10.1.1.8,168,-0.470,-0.470,-0.470,0.000,0.000,0.000
1641102740770149888,2022-01-02-05:52:20,10.1.1.8,171,-0.480,-0.480,-0.480,0.000,0.000,0.000
1641102740967375104,2022-01-02-05:52:20,10.1.1.8,168,-0.490,-0.490,-0.490,0.000,0.000,0.000
1641102741188561920,2022-01-02-05:52:21,10.1.1.8,188,-0.480,-0.480,-0.480,0.000,0.000,0.000
1641102741385731072,2022-01-02-05:52:21,10.1.1.8,184,-0.470,-0.470,-0.470,0.000,0.000,0.000
1641102741584428032,2022-01-02-05:52:21,10.1.1.8,183,-0.460,-0.460,-0.460,0.000,0.000,0.000
1641102741783691008,2022-01-02-05:52:21,10.1.1.8,182,-0.450,-0.450,-0.450,0.000,0.000,0.000
1641102741973294080,2022-01-02-05:52:21,10.1.1.8,170,-0.440,-0.440,-0.440,0.000,0.000,0.000
1641102742173128960,2022-01-02-05:52:22,10.1.1.8,170,-0.430,-0.430,-0.430,0.000,0.000,0.000
1641102742373174016,2022-01-02-05:52:22,10.1.1.8,169,-0.420,-0.420,-0.420,0.000,0.000,0.000
1641102742584686080,2022-01-02-05:52:22,10.1.1.8,180,-0.410,-0.410,-0.410,0.000,0.000,0.000
1641102742784303872,2022-01-02-05:52:22,10.1.1.8,179,-0.400,-0.400,-0.400,0.000,0.000,0.000
1641102742984513024,2022-01-02-05:52:22,10.1.1.8,178,-0.390,-0.390,-0.390,0.000,0.000,0.000
1641102743182012928,2022-01-02-05:52:23,10.1.1.8,175,-0.380,-0.380,-0.380,0.000,0.000,0.000
1641102743371608064,2022-01-02-05:52:23,10.1.1.8,163,-0.370,-0.370,-0.370,0.000,0.000,0.000
1641102743582673152,2022-01-02-05:52:23,10.1.1.8,173,-0.360,-0.360,-0.360,0.000,0.000,0.000
1641102743781112832,2022-01-02-05:52:23,10.1.1.8,171,-0.350,-0.350,-0.350,0.000,0.000,0.000
1641102743981616128,2022-01-02-05:52:23,10.1.1.8,168,-0.340,-0.340,-0.340,0.000,0.000,0.000
1641102744181504000,2022-01-02-05:52:24,10.1.1.8,166,-0.330,-0.330,-0.330,0.000,0.000,0.000
1641102744381412864,2022-01-02-05:52:24,10.1.1.8,166,-0.320,-0.320,-0.320,0.000,0.000,0.000
1641102744582086912,2022-01-02-05:52:24,10.1.1.8,166,-0.310,-0.310,-0.310,0.000,0.000,0.000
1641102744780992000,2022-01-02-05:52:24,10.1.1.8,165,-0.300,-0.300,-0.300,0.000,0.000,0.000
1641102744980727040,2022-01-02-05:52:24,10.1.1.8,164,-0.290,-0.290,-0.290,0.000,0.000,0.000
1641102745179645184,2022-01-02-05:52:25,10.1.1.8,161,-0.280,-0.280,-0.280,0.000,0.000,0.000
1641102745388379136,2022-01-02-05:52:25,10.1.1.8,168,-0.270,-0.270,-0.270,0.000,0.000,0.000
1641102745598177792,2022-01-02-05:52:25,10.1.1.8,172,-0.260,-0.260,-0.260,0.000,0.000,0.000
1641102745798252032,2022-01-02-05:52:25,10.1.1.8,171,-0.250,-0.250,-0.250,0.000,0.000,0.000
1641102745987313152,2022-01-02-05:52:25,10.1.1.8,159,-0.240,-0.240,-0.240,0.000,0.000,0.000
1641102746197081088,2022-01-02-05:52:26,10.1.1.8,168,-0.230,-0.230,-0.230,0.000,0.000,0.000
1641102746406505984,2022-01-02-05:52:26,10.1.1.8,177,-0.220,-0.220,-0.220,0.000,0.000,0.000
1641102746598907904,2022-01-02-05:52:26,10.1.1.8,168,-0.210,-0.210,-0.210,0.000,0.000,0.000
1641102746797465088,2022-01-02-05:52:26,10.1.1.8,167,-0.200,-0.200,-0.200,0.000,0.000,0.000
1641102746996187904,2022-01-02-05:52:26,10.1.1.8,165,-0.190,-0.190,-0.190,0.000,0.000,0.000
1641102747196010240,2022-01-02-05:52:27,10.1.1.8,165,-0.180,-0.180,-0.180,0.000,0.000,0.000
1641102747395040000,2022-01-02-05:52:27,10.1.1.8,163,-0.170,-0.170,-0.170,0.000,0.000,0.000
1641102747594566144,2022-01-02-05:52:27,10.1.1.8,162,-0.160,-0.160,-0.160,0.000,0.000,0.000
1641102747794976000,2022-01-02-05:52:27,10.1.1.8,161,-0.150,-0.150,-0.150,0.000,0.000,0.000
1641102747996293120,2022-01-02-05:52:27,10.1.1.8,161,-0.140,-0.140,-0.140,0.000,0.000,0.000
1641102748197225216,2022-01-02-05:52:28,10.1.1.8,159,-0.130,-0.130,-0.130,0.000,0.000,0.000
1641102748409696000,2022-01-02-05:52:28,10.1.1.8,171,-0.120,-0.120,-0.120,0.000,0.000,0.000
1641102748608443136,2022-01-02-05:52:28,10.1.1.8,168,-0.110,-0.110,-0.110,0.000,0.000,0.000
1641102748808221184,2022-01-02-05:52:28,10.1.1.8,160,-0.100,-0.100,-0.100,0.000,0.000,0.000
1641102749020221952,2022-01-02-05:52:29,10.1.1.8,171,-0.090,-0.090,-0.090,0.000,0.000,0.000
1641102749222243072,2022-01-02-05:52:29,10.1.1.8,172,-0.080,-0.080,-0.080,0.000,0.000,0.000
1641102749431417856,2022-01-02-05:52:29,10.1.1.8,181,-0.070,-0.070,-0.070,0.000,0.000,0.000
1641102749631813888,2022-01-02-05:52:29,10.1.1.8,180,-0.060,-0.060,-0.060,0.000,0.000,0.000
1641102749827235072,2022-01-02-05:52:29,10.1.1.8,174,-0.050,-0.050,-0.050,0.000,0.000,0.000
1641102750033943808,2022-01-02-05:52:30,10.1.1.8,181,-0.040,-0.040,-0.040,0.000,0.000,0.000
1641102750233990912,2022-01-02-05:52:30,10.1.1.8,180,-0.030,-0.030,-0.030,0.000,0.000,0.000
1641102750425859840,2022-01-02-05:52:30,10.1.1.8,171,-0.020,-0.020,-0.020,0.000,0.000,0.000
1641102750635905024,2022-01-02-05:52:30,10.1.1.8,181,-0.010,-0.010,-0.010,0.000,0.000,0.000
1641102750828464128,2022-01-02-05:52:30,10.1.1.8,173,0.000,0.000,0.000,0.000,0.000,0.000
1641102751027659776,2022-01-02-05:52:31,10.1.1.8,171,-0.010,-0.010,-0.010,0.000,0.000,0.000
1641102751231483904,2022-01-02-05:52:31,10.1.1.8,174,-0.020,-0.020,-0.020,0.000,0.000,0.000
1641102751441499904,2022-01-02-05:52:31,10.1.1.8,184,-0.030,-0.030,-0.030,0.000,0.000,0.000
1641102751629779968,2022-01-02-05:52:31,10.1.1.8,171,-0.040,-0.040,-0.040,0.000,0.000,0.000
1641102751840420864,2022-01-02-05:52:31,10.1.1.8,181,-0.050,-0.050,-0.050,0.000,0.000,0.000
1641102752031930880,2022-01-02-05:52:32,10.1.1.8,172,-0.060,-0.060,-0.060,0.000,0.000,0.000
1641102752252078080,2022-01-02-05:52:32,10.1.1.8,191,-0.070,-0.070,-0.070,0.000,0.000,0.000
1641102752456480000,2022-01-02-05:52:32,10.1.1.8,195,-0.080,-0.080,-0.080,0.000,0.000,0.000
1641102752842977024,2022-01-02-05:52:32,10.1.1.8,180,-0.100,-0.100,-0.100,0.000,0.000,0.000
1641102753055919872,2022-01-02-05:52:33,10.1.1.8,193,-0.110,-0.110,-0.110,0.000,0.000,0.000
1641102753253155840,2022-01-02-05:52:33,10.1.1.8,189,-0.120,-0.120,-0.120,0.000,0.000,0.000
1641102753454384128,2022-01-02-05:52:33,10.1.1.8,189,-0.130,-0.130,-0.130,0.000,0.000,0.000
1641102753654233088,2022-01-02-05:52:33,10.1.1.8,188,-0.140,-0.140,-0.140,0.000,0.000,0.000
1641102753856378112,2022-01-02-05:52:33,10.1.1.8,189,-0.150,-0.150,-0.150,0.000,0.000,0.000
1641102754064770816,2022-01-02-05:52:34,10.1.1.8,198,-0.160,-0.160,-0.160,0.000,0.000,0.000
1641102754255873024,2022-01-02-05:52:34,10.1.1.8,188,-0.170,-0.170,-0.170,0.000,0.000,0.000
1641102754455892992,2022-01-02-05:52:34,10.1.1.8,187,-0.180,-0.180,-0.180,0.000,0.000,0.000
1641102754658098944,2022-01-02-05:52:34,10.1.1.8,189,-0.190,-0.190,-0.190,0.000,0.000,0.000
1641102754865921024,2022-01-02-05:52:34,10.1.1.8,196,-0.200,-0.200,-0.200,0.000,0.000,0.000
1641102755066338048,2022-01-02-05:52:35,10.1.1.8,196,-0.210,-0.210,-0.210,0.000,0.000,0.000
1641102755266436096,2022-01-02-05:52:35,10.1.1.8,195,-0.220,-0.220,-0.220,0.000,0.000,0.000
1641102755458906880,2022-01-02-05:52:35,10.1.1.8,187,-0.230,-0.230,-0.230,0.000,0.000,0.000
1641102755657664000,2022-01-02-05:52:35,10.1.1.8,185,-0.240,-0.240,-0.240,0.000,0.000,0.000
1641102755859867136,2022-01-02-05:52:35,10.1.1.8,186,-0.250,-0.250,-0.250,0.000,0.000,0.000
1641102756059109888,2022-01-02-05:52:36,10.1.1.8,185,-0.260,-0.260,-0.260,0.000,0.000,0.000
1641102756258546944,2022-01-02-05:52:36,10.1.1.8,184,-0.270,-0.270,-0.270,0.000,0.000,0.000
1641102756467439872,2022-01-02-05:52:36,10.1.1.8,192,-0.280,-0.280,-0.280,0.000,0.000,0.000
1641102756663000064,2022-01-02-05:52:36,10.1.1.8,185,-0.290,-0.290,-0.290,0.000,0.000,0.000
1641102757080243200,2022-01-02-05:52:37,10.1.1.8,198,-0.310,-0.310,-0.310,0.000,0.000,0.000
1641102757281708032,2022-01-02-05:52:37,10.1.1.8,198,-0.320,-0.320,-0.320,0.000,0.000,0.000
1641102757669587968,2022-01-02-05:52:37,10.1.1.8,184,-0.340,-0.340,-0.340,0.000,0.000,0.000
1641102757881592064,2022-01-02-05:52:37,10.1.1.8,194,-0.350,-0.350,-0.350,0.000,0.000,0.000
1641102758069264896,2022-01-02-05:52:38,10.1.1.8,181,-0.360,-0.360,-0.360,0.000,0.000,0.000
1641102758280685056,2022-01-02-05:52:38,10.1.1.8,192,-0.370,-0.370,-0.370,0.000,0.000,0.000
1641102758478627840,2022-01-02-05:52:38,10.1.1.8,188,-0.380,-0.380,-0.380,0.000,0.000,0.000
1641102758683932928,2022-01-02-05:52:38,10.1.1.8,193,-0.390,-0.390,-0.390,0.000,0.000,0.000
1641102758879976960,2022-01-02-05:52:38,10.1.1.8,188,-0.400,-0.400,-0.400,0.000,0.000,0.000
1641102759079715840,2022-01-02-05:52:39,10.1.1.8,187,-0.410,-0.410,-0.410,0.000,0.000,0.000
1641102759279846912,2022-01-02-05:52:39,10.1.1.8,185,-0.420,-0.420,-0.420,0.000,0.000,0.000
1641102759480540160,2022-01-02-05:52:39,10.1.1.8,185,-0.430,-0.430,-0.430,0.000,0.000,0.000
1641102759681512960,2022-01-02-05:52:39,10.1.1.8,185,-0.440,-0.440,-0.440,0.000,0.000,0.000
1641102759889640960,2022-01-02-05:52:39,10.1.1.8,191,-0.450,-0.450,-0.450,0.000,0.000,0.000
1641102760100489984,2022-01-02-05:52:40,10.1.1.8,200,-0.460,-0.460,-0.460,0.000,0.000,0.000
1641102760504203008,2022-01-02-05:52:40,10.1.1.8,200,-0.480,-0.480,-0.480,0.000,0.000,0.000
1641102760702342912,2022-01-02-05:52:40,10.1.1.8,197,-0.490,-0.490,-0.490,0.000,0.000,0.000
1641102760903158016,2022-01-02-05:52:40,10.1.1.8,197,-0.480,-0.480,-0.480,0.000,0.000,0.000
1641102761288783104,2022-01-02-05:52:41,10.1.1.8,182,-0.460,-0.460,-0.460,0.000,0.000,0.000
1641102761488267008,2022-01-02-05:52:41,10.1.1.8,181,-0.450,-0.450,-0.450,0.000,0.000,0.000
1641102761688004096,2022-01-02-05:52:41,10.1.1.8,180,-0.440,-0.440,-0.440,0.000,0.000,0.000
1641102761907613952,2022-01-02-05:52:41,10.1.1.8,199,-0.430,-0.430,-0.430,0.000,0.000,0.000
1641102762088037120,2022-01-02-05:52:42,10.1.1.8,179,-0.420,-0.420,-0.420,0.000,0.000,0.000
1641102762308032000,2022-01-02-05:52:42,10.1.1.8,198,-0.410,-0.410,-0.410,0.000,0.000,0.000
1641102762498193152,2022-01-02-05:52:42,10.1.1.8,188,-0.400,-0.400,-0.400,0.000,0.000,0.000
1641102762707665920,2022-01-02-05:52:42,10.1.1.8,196,-0.390,-0.390,-0.390,0.000,0.000,0.000
1641102762907772928,2022-01-02-05:52:42,10.1.1.8,196,-0.380,-0.380,-0.380,0.000,0.000,0.000
1641102763099906816,2022-01-02-05:52:43,10.1.1.8,187,-0.370,-0.370,-0.370,0.000,0.000,0.000
1641102763298583040,2022-01-02-05:52:43,10.1.1.8,185,-0.360,-0.360,-0.360,0.000,0.000,0.000
1641102763507304960,2022-01-02-05:52:43,10.1.1.8,193,-0.350,-0.350,-0.350,0.000,0.000,0.000
1641102763706973952,2022-01-02-05:52:43,10.1.1.8,192,-0.340,-0.340,-0.340,0.000,0.000,0.000
1641102763897619968,2022-01-02-05:52:43,10.1.1.8,181,-0.330,-0.330,-0.330,0.000,0.000,0.000
1641102764306729984,2022-01-02-05:52:44,10.1.1.8,185,-0.310,-0.310,-0.310,0.000,0.000,0.000
1641102764517290240,2022-01-02-05:52:44,10.1.1.8,194,-0.300,-0.300,-0.300,0.000,0.000,0.000
1641102764918839040,2022-01-02-05:52:44,10.1.1.8,193,-0.280,-0.280,-0.280,0.000,0.000,0.000
1641102765119313920,2022-01-02-05:52:45,10.1.1.8,191,-0.270,-0.270,-0.270,0.000,0.000,0.000
1641102765319323136,2022-01-02-05:52:45,10.1.1.8,191,-0.260,-0.260,-0.260,0.000,0.000,0.000
1641102765520041984,2022-01-02-05:52:45,10.1.1.8,191,-0.250,-0.250,-0.250,0.000,0.000,0.000
1641102765720200960,2022-01-02-05:52:45,10.1.1.8,190,-0.240,-0.240,-0.240,0.000,0.000,0.000
1641102765918135808,2022-01-02-05:52:45,10.1.1.8,187,-0.230,-0.230,-0.230,0.000,0.000,0.000
1641102766117836032,2022-01-02-05:52:46,10.1.1.8,185,-0.220,-0.220,-0.220,0.000,0.000,0.000
1641102766317306112,2022-01-02-05:52:46,10.1.1.8,181,-0.210,-0.210,-0.210,0.000,0.000,0.000
1641102766520556032,2022-01-02-05:52:46,10.1.1.8,181,-0.200,-0.200,-0.200,0.000,0.000,0.000
1641102766736336896,2022-01-02-05:52:46,10.1.1.8,194,-0.190,-0.190,-0.190,0.000,0.000,0.000
1641102766937594880,2022-01-02-05:52:46,10.1.1.8,196,-0.180,-0.180,-0.180,0.000,0.000,0.000
1641102767137501952,2022-01-02-05:52:47,10.1.1.8,195,-0.170,-0.170,-0.170,0.000,0.000,0.000
1641102767322923008,2022-01-02-05:52:47,10.1.1.8,180,-0.160,-0.160,-0.160,0.000,0.000,0.000
1641102767533245184,2022-01-02-05:52:47,10.1.1.8,189,-0.150,-0.150,-0.150,0.000,0.000,0.000
1641102767722672896,2022-01-02-05:52:47,10.1.1.8,177,-0.140,-0.140,-0.140,0.000,0.000,0.000
1641102767922244096,2022-01-02-05:52:47,10.1.1.8,176,-0.130,-0.130,-0.130,0.000,0.000,0.000
1641102768136683008,2022-01-02-05:52:48,10.1.1.8,190,-0.120,-0.120,-0.120,0.000,0.000,0.000
1641102768336570112,2022-01-02-05:52:48,10.1.1.8,189,-0.110,-0.110,-0.110,0.000,0.000,0.000
1641102768521980928,2022-01-02-05:52:48,10.1.1.8,172,-0.100,-0.100,-0.100,0.000,0.000,0.000
1641102768733683200,2022-01-02-05:52:48,10.1.1.8,183,-0.090,-0.090,-0.090,0.000,0.000,0.000
1641102768931232000,2022-01-02-05:52:48,10.1.1.8,174,-0.080,-0.080,-0.080,0.000,0.000,0.000
1641102769141836032,2022-01-02-05:52:49,10.1.1.8,180,-0.070,-0.070,-0.070,0.000,0.000,0.000
1641102769356576000,2022-01-02-05:52:49,10.1.1.8,194,-0.060,-0.060,-0.060,0.000,0.000,0.000
1641102769552214016,2022-01-02-05:52:49,10.1.1.8,188,-0.050,-0.050,-0.050,0.000,0.000,0.000
1641102769752412160,2022-01-02-05:52:49,10.1.1.8,188,-0.040,-0.040,-0.040,0.000,0.000,0.000
1641102769960840960,2022-01-02-05:52:49,10.1.1.8,194,-0.030,-0.030,-0.030,0.000,0.000,0.000
1641102770160738048,2022-01-02-05:52:50,10.1.1.8,193,-0.020,-0.020,-0.020,0.000,0.000,0.000
1641102770353050112,2022-01-02-05:52:50,10.1.1.8,181,-0.010,-0.010,-0.010,0.000,0.000,0.000
1641102770553620992,2022-01-02-05:52:50,10.1.1.8,181,0.000,0.000,0.000,0.000,0.000,0.000
1641102770748941824,2022-01-02-05:52:50,10.1.1.8,174,-0.010,-0.010,-0.010,0.000,0.000,0.000
1641102770951927040,2022-01-02-05:52:50,10.1.1.8,176,-0.020,-0.020,-0.020,0.000,0.000,0.000
1641102771157833216,2022-01-02-05:52:51,10.1.1.8,181,-0.030,-0.030,-0.030,0.000,0.000,0.000
1641102771351675136,2022-01-02-05:52:51,10.1.1.8,174,-0.040,-0.040,-0.040,0.000,0.000,0.000
1641102771548404992,2022-01-02-05:52:51,10.1.1.8,169,-0.050,-0.050,-0.050,0.000,0.000,0.000
1641102771757673984,2022-01-02-05:52:51,10.1.1.8,178,-0.060,-0.060,-0.060,0.000,0.000,0.000
1641102771972645888,2022-01-02-05:52:51,10.1.1.8,193,-0.070,-0.070,-0.070,0.000,0.000,0.000
1641102772169353984,2022-01-02-05:52:52,10.1.1.8,189,-0.080,-0.080,-0.080,0.000,0.000,0.000
1641102772368231168,2022-01-02-05:52:52,10.1.1.8,187,-0.090,-0.090,-0.090,0.000,0.000,0.000
1641102772566225152,2022-01-02-05:52:52,10.1.1.8,184,-0.100,-0.100,-0.100,0.000,0.000,0.000
1641102772765830144,2022-01-02-05:52:52,10.1.1.8,183,-0.110,-0.110,-0.110,0.000,0.000,0.000
1641102772968142080,2022-01-02-05:52:52,10.1.1.8,184,-0.120,-0.120,-0.120,0.000,0.000,0.000
1641102773167504128,2022-01-02-05:52:53,10.1.1.8,182,-0.130,-0.130,-0.130,0.000,0.000,0.000
1641102773355137024,2022-01-02-05:52:53,10.1.1.8,169,-0.140,-0.140,-0.140,0.000,0.000,0.000
1641102773554543872,2022-01-02-05:52:53,10.1.1.8,167,-0.150,-0.150,-0.150,0.000,0.000,0.000
1641102773767212032,2022-01-02-05:52:53,10.1.1.8,179,-0.160,-0.160,-0.160,0.000,0.000,0.000
1641102773954618880,2022-01-02-05:52:53,10.1.1.8,166,-0.170,-0.170,-0.170,0.000,0.000,0.000
1641102774165580032,2022-01-02-05:52:54,10.1.1.8,176,-0.180,-0.180,-0.180,0.000,0.000,0.000
1641102774365693952,2022-01-02-05:52:54,10.1.1.8,175,-0.190,-0.190,-0.190,0.000,0.000,0.000
1641102774565970944,2022-01-02-05:52:54,10.1.1.8,175,-0.200,-0.200,-0.200,0.000,0.000,0.000
1641102774764740096,2022-01-02-05:52:54,10.1.1.8,173,-0.210,-0.210,-0.210,0.000,0.000,0.000
1641102774973289984,2022-01-02-05:52:54,10.1.1.8,181,-0.220,-0.220,-0.220,0.000,0.000,0.000
1641102775172017152,2022-01-02-05:52:55,10.1.1.8,179,-0.230,-0.230,-0.230,0.000,0.000,0.000
1641102775371866880,2022-01-02-05:52:55,10.1.1.8,177,-0.240,-0.240,-0.240,0.000,0.000,0.000
1641102775562604800,2022-01-02-05:52:55,10.1.1.8,167,-0.250,-0.250,-0.250,0.000,0.000,0.000
1641102775763652096,2022-01-02-05:52:55,10.1.1.8,167,-0.260,-0.260,-0.260,0.000,0.000,0.000
1641102775965565952,2022-01-02-05:52:55,10.1.1.8,165,-0.270,-0.270,-0.270,0.000,0.000,0.000
1641102776190732032,2022-01-02-05:52:56,10.1.1.8,191,-0.280,-0.280,-0.280,0.000,0.000,0.000
1641102776370438144,2022-01-02-05:52:56,10.1.1.8,168,-0.290,-0.290,-0.290,0.000,0.000,0.000
1641102776570462976,2022-01-02-05:52:56,10.1.1.8,167,-0.300,-0.300,-0.300,0.000,0.000,0.000
1641102776769800960,2022-01-02-05:52:56,10.1.1.8,166,-0.310,-0.310,-0.310,0.000,0.000,0.000
1641102776990323968,2022-01-02-05:52:56,10.1.1.8,186,-0.320,-0.320,-0.320,0.000,0.000,0.000
1641102777179889920,2022-01-02-05:52:57,10.1.1.8,174,-0.330,-0.330,-0.330,0.000,0.000,0.000
1641102777379311104,2022-01-02-05:52:57,10.1.1.8,173,-0.340,-0.340,-0.340,0.000,0.000,0.000
1641102777579933952,2022-01-02-05:52:57,10.1.1.8,173,-0.350,-0.350,-0.350,0.000,0.000,0.000
1641102777778577920,2022-01-02-05:52:57,10.1.1.8,171,-0.360,-0.360,-0.360,0.000,0.000,0.000
1641102777981096960,2022-01-02-05:52:57,10.1.1.8,172,-0.370,-0.370,-0.370,0.000,0.000,0.000
1641102778182045952,2022-01-02-05:52:58,10.1.1.8,173,-0.380,-0.380,-0.380,0.000,0.000,0.000
1641102778387641856,2022-01-02-05:52:58,10.1.1.8,178,-0.390,-0.390,-0.390,0.000,0.000,0.000
1641102778580340992,2022-01-02-05:52:58,10.1.1.8,167,-0.400,-0.400,-0.400,0.000,0.000,0.000
1641102778780796160,2022-01-02-05:52:58,10.1.1.8,170,-0.410,-0.410,-0.410,0.000,0.000,0.000
1641102778981704960,2022-01-02-05:52:58,10.1.1.8,169,-0.420,-0.420,-0.420,0.000,0.000,0.000
1641102779178539008,2022-01-02-05:52:59,10.1.1.8,164,-0.430,-0.430,-0.430,0.000,0.000,0.000
1641102779386850048,2022-01-02-05:52:59,10.1.1.8,171,-0.440,-0.440,-0.440,0.000,0.000,0.000
1641102779576466176,2022-01-02-05:52:59,10.1.1.8,159,-0.450,-0.450,-0.450,0.000,0.000,0.000
1641102779780689920,2022-01-02-05:52:59,10.1.1.8,158,-0.460,-0.460,-0.460,0.000,0.000,0.000
1641102779997524992,2022-01-02-05:52:59,10.1.1.8,177,-0.470,-0.470,-0.470,0.000,0.000,0.000
1641102780201626112,2022-01-02-05:53:00,10.1.1.8,175,-0.480,-0.480,-0.480,0.000,0.000,0.000
1641102780400281856,2022-01-02-05:53:00,10.1.1.8,172,-0.490,-0.490,-0.490,0.000,0.000,0.000
1641102780600219136,2022-01-02-05:53:00,10.1.1.8,172,-0.480,-0.480,-0.480,0.000,0.000,0.000
1641102780809388032,2022-01-02-05:53:00,10.1.1.8,180,-0.470,-0.470,-0.470,0.000,0.000,0.000
1641102781002952192,2022-01-02-05:53:01,10.1.1.8,173,-0.460,-0.460,-0.460,0.000,0.000,0.000
1641102781200948992,2022-01-02-05:53:01,10.1.1.8,170,-0.450,-0.450,-0.450,0.000,0.000,0.000
1641102781405177088,2022-01-02-05:53:01,10.1.1.8,171,-0.440,-0.440,-0.440,0.000,0.000,0.000
1641102781604686080,2022-01-02-05:53:01,10.1.1.8,173,-0.430,-0.430,-0.430,0.000,0.000,0.000
1641102781806857984,2022-01-02-05:53:01,10.1.1.8,175,-0.420,-0.420,-0.420,0.000,0.000,0.000
1641102782006030080,2022-01-02-05:53:02,10.1.1.8,172,-0.410,-0.410,-0.410,0.000,0.000,0.000
1641102782207568896,2022-01-02-05:53:02,10.1.1.8,173,-0.400,-0.400,-0.400,0.000,0.000,0.000
1641102782416145152,2022-01-02-05:53:02,10.1.1.8,181,-0.390,-0.390,-0.390,0.000,0.000,0.000
1641102782608144896,2022-01-02-05:53:02,10.1.1.8,173,-0.380,-0.380,-0.380,0.000,0.000,0.000
1641102782807845120,2022-01-02-05:53:02,10.1.1.8,172,-0.370,-0.370,-0.370,0.000,0.000,0.000
1641102783009093888,2022-01-02-05:53:03,10.1.1.8,172,-0.360,-0.360,-0.360,0.000,0.000,0.000
1641102783211591936,2022-01-02-05:53:03,10.1.1.8,173,-0.350,-0.350,-0.350,0.000,0.000,0.000
1641102783412333056,2022-01-02-05:53:03,10.1.1.8,173,-0.340,-0.340,-0.340,0.000,0.000,0.000
1641102783633647872,2022-01-02-05:53:03,10.1.1.8,192,-0.330,-0.330,-0.330,0.000,0.000,0.000
1641102783834564864,2022-01-02-05:53:03,10.1.1.8,194,-0.320,-0.320,-0.320,0.000,0.000,0.000
1641102784033731840,2022-01-02-05:53:04,10.1.1.8,192,-0.310,-0.310,-0.310,0.000,0.000,0.000
1641102784233459968,2022-01-02-05:53:04,10.1.1.8,190,-0.300,-0.300,-0.300,0.000,0.000,0.000
1641102784422398208,2022-01-02-05:53:04,10.1.1.8,178,-0.290,-0.290,-0.290,0.000,0.000,0.000
1641102784634309120,2022-01-02-05:53:04,10.1.1.8,189,-0.280,-0.280,-0.280,0.000,0.000,0.000
1641102784834515968,2022-01-02-05:53:04,10.1.1.8,188,-0.270,-0.270,-0.270,0.000,0.000,0.000
1641102785036556032,2022-01-02-05:53:05,10.1.1.8,189,-0.260,-0.260,-0.260,0.000,0.000,0.000
1641102785236248064,2022-01-02-05:53:05,10.1.1.8,187,-0.250,-0.250,-0.250,0.000,0.000,0.000
1641102785425383168,2022-01-02-05:53:05,10.1.1.8,176,-0.240,-0.240,-0.240,0.000,0.000,0.000
1641102785645320960,2022-01-02-05:53:05,10.1.1.8,195,-0.230,-0.230,-0.230,0.000,0.000,0.000
1641102785837709824,2022-01-02-05:53:05,10.1.1.8,187,-0.220,-0.220,-0.220,0.000,0.000,0.000
1641102786036546048,2022-01-02-05:53:06,10.1.1.8,185,-0.210,-0.210,-0.210,0.000,0.000,0.000
1641102786237352960,2022-01-02-05:53:06,10.1.1.8,185,-0.200,-0.200,-0.200,0.000,0.000,0.000
1641102786436301056,2022-01-02-05:53:06,10.1.1.8,183,-0.190,-0.190,-0.190,0.000,0.000,0.000
1641102786636555008,2022-01-02-05:53:06,10.1.1.8,182,-0.180,-0.180,-0.180,0.000,0.000,0.000
1641102786837879040,2022-01-02-05:53:06,10.1.1.8,183,-0.170,-0.170,-0.170,0.000,0.000,0.000
1641102787041038080,2022-01-02-05:53:07,10.1.1.8,185,-0.160,-0.160,-0.160,0.000,0.000,0.000
1641102787241498112,2022-01-02-05:53:07,10.1.1.8,183,-0.150,-0.150,-0.150,0.000,0.000,0.000
1641102787447736064,2022-01-02-05:53:07,10.1.1.8,186,-0.140,-0.140,-0.140,0.000,0.000,0.000
1641102787658308096,2022-01-02-05:53:07,10.1.1.8,195,-0.130,-0.130,-0.130,0.000,0.000,0.000
1641102787848231168,2022-01-02-05:53:07,10.1.1.8,184,-0.120,-0.120,-0.120,0.000,0.000,0.000
1641102788248541184,2022-01-02-05:53:08,10.1.1.8,183,-0.100,-0.100,-0.100,0.000,0.000,0.000
1641102788461829888,2022-01-02-05:53:08,10.1.1.8,195,-0.090,-0.090,-0.090,0.000,0.000,0.000
1641102788661360896,2022-01-02-05:53:08,10.1.1.8,194,-0.080,-0.080,-0.080,0.000,0.000,0.000
1641102788858951936,2022-01-02-05:53:08,10.1.1.8,190,-0.070,-0.070,-0.070,0.000,0.000,0.000
1641102789069222912,2022-01-02-05:53:09,10.1.1.8,200,-0.060,-0.060,-0.060,0.000,0.000,0.000
1641102789263354112,2022-01-02-05:53:09,10.1.1.8,193,-0.050,-0.050,-0.050,0.000,0.000,0.000
1641102789460454912,2022-01-02-05:53:09,10.1.1.8,188,-0.040,-0.040,-0.040,0.000,0.000,0.000
1641102789661704960,2022-01-02-05:53:09,10.1.1.8,188,-0.030,-0.030,-0.030,0.000,0.000,0.000
1641102789863083008,2022-01-02-05:53:09,10.1.1.8,189,-0.020,-0.020,-0.020,0.000,0.000,0.000
1641102790062247936,2022-01-02-05:53:10,10.1.1.8,187,-0.010,-0.010,-0.010,0.000,0.000,0.000
1641102790264372992,2022-01-02-05:53:10,10.1.1.8,189,0.000,0.000,0.000,0.000,0.000,0.000
1641102790461692928,2022-01-02-05:53:10,10.1.1.8,186,-0.010,-0.010,-0.010,0.000,0.000,0.000
1641102790678392832,2022-01-02-05:53:10,10.1.1.8,202,-0.020,-0.020,-0.020,0.000,0.000,0.000
1641102790869527040,2022-01-02-05:53:10,10.1.1.8,184,-0.030,-0.030,-0.030,0.000,0.000,0.000
1641102791480716032,2022-01-02-05:53:11,10.1.1.8,191,-0.060,-0.060,-0.060,0.000,0.000,0.000
1641102791680232960,2022-01-02-05:53:11,10.1.1.8,189,-0.070,-0.070,-0.070,0.000,0.000,0.000
1641102791889336064,2022-01-02-05:53:11,10.1.1.8,198,-0.080,-0.080,-0.080,0.000,0.000,0.000
1641102792080218112,2022-01-02-05:53:12,10.1.1.8,188,-0.090,-0.090,-0.090,0.000,0.000,0.000
1641102792289540096,2022-01-02-05:53:12,10.1.1.8,197,-0.100,-0.100,-0.100,0.000,0.000,0.000
1641102792480221952,2022-01-02-05:53:12,10.1.1.8,188,-0.110,-0.110,-0.110,0.000,0.000,0.000
1641102792680985856,2022-01-02-05:53:12,10.1.1.8,188,-0.120,-0.120,-0.120,0.000,0.000,0.000
1641102792879005952,2022-01-02-05:53:12,10.1.1.8,185,-0.130,-0.130,-0.130,0.000,0.000,0.000
1641102793081833984,2022-01-02-05:53:13,10.1.1.8,188,-0.140,-0.140,-0.140,0.000,0.000,0.000
1641102793283719168,2022-01-02-05:53:13,10.1.1.8,189,-0.150,-0.150,-0.150,0.000,0.000,0.000
1641102793480244992,2022-01-02-05:53:13,10.1.1.8,185,-0.160,-0.160,-0.160,0.000,0.000,0.000
1641102793688436992,2022-01-02-05:53:13,10.1.1.8,192,-0.170,-0.170,-0.170,0.000,0.000,0.000
1641102793882842112,2022-01-02-05:53:13,10.1.1.8,184,-0.180,-0.180,-0.180,0.000,0.000,0.000
1641102794081379840,2022-01-02-05:53:14,10.1.1.8,182,-0.190,-0.190,-0.190,0.000,0.000,0.000
1641102794298820864,2022-01-02-05:53:14,10.1.1.8,198,-0.200,-0.200,-0.200,0.000,0.000,0.000
1641102794488737024,2022-01-02-05:53:14,10.1.1.8,188,-0.210,-0.210,-0.210,0.000,0.000,0.000
1641102794700276992,2022-01-02-05:53:14,10.1.1.8,199,-0.220,-0.220,-0.220,0.000,0.000,0.000
1641102795098862848,2022-01-02-05:53:15,10.1.1.8,196,-0.240,-0.240,-0.240,0.000,0.000,0.000
1641102795298928128,2022-01-02-05:53:15,10.1.1.8,196,-0.250,-0.250,-0.250,0.000,0.000,0.000
1641102795500421120,2022-01-02-05:53:15,10.1.1.8,197,-0.260,-0.260,-0.260,0.000,0.000,0.000
1641102796100573184,2022-01-02-05:53:16,10.1.1.8,195,-0.290,-0.290,-0.290,0.000,0.000,0.000
1641102796298155008,2022-01-02-05:53:16,10.1.1.8,192,-0.300,-0.300,-0.300,0.000,0.000,0.000
1641102796487009024,2022-01-02-05:53:16,10.1.1.8,180,-0.310,-0.310,-0.310,0.000,0.000,0.000
1641102796686675968,2022-01-02-05:53:16,10.1.1.8,179,-0.320,-0.320,-0.320,0.000,0.000,0.000
1641102796907543040,2022-01-02-05:53:16,10.1.1.8,200,-0.330,-0.330,-0.330,0.000,0.000,0.000
1641102797106985216,2022-01-02-05:53:17,10.1.1.8,199,-0.340,-0.340,-0.340,0.000,0.000,0.000
1641102797308967168,2022-01-02-05:53:17,10.1.1.8,200,-0.350,-0.350,-0.350,0.000,0.000,0.000
1641102797496893952,2022-01-02-05:53:17,10.1.1.8,187,-0.360,-0.360,-0.360,0.000,0.000,0.000
1641102797698721792,2022-01-02-05:53:17,10.1.1.8,188,-0.370,-0.370,-0.370,0.000,0.000,0.000
1641102797906085120,2022-01-02-05:53:17,10.1.1.8,195,-0.380,-0.380,-0.380,0.000,0.000,0.000
1641102798105572096,2022-01-02-05:53:18,10.1.1.8,194,-0.390,-0.390,-0.390,0.000,0.000,0.000
1641102798295922944,2022-01-02-05:53:18,10.1.1.8,184,-0.400,-0.400,-0.400,0.000,0.000,0.000
1641102798504656128,2022-01-02-05:53:18,10.1.1.8,192,-0.410,-0.410,-0.410,0.000,0.000,0.000
1641102798704883968,2022-01-02-05:53:18,10.1.1.8,192,-0.420,-0.420,-0.420,0.000,0.000,0.000
1641102798904016896,2022-01-02-05:53:18,10.1.1.8,190,-0.430,-0.430,-0.430,0.000,0.000,0.000
1641102799096468992,2022-01-02-05:53:19,10.1.1.8,181,-0.440,-0.440,-0.440,0.000,0.000,0.000
1641102799304830976,2022-01-02-05:53:19,10.1.1.8,186,-0.450,-0.450,-0.450,0.000,0.000,0.000
1641102799504500992,2022-01-02-05:53:19,10.1.1.8,179,-0.460,-0.460,-0.460,0.000,0.000,0.000
1641102799724279040,2022-01-02-05:53:19,10.1.1.8,198,-0.470,-0.470,-0.470,0.000,0.000,0.000
1641102799903475968,2022-01-02-05:53:19,10.1.1.8,177,-0.480,-0.480,-0.480,0.000,0.000,0.000
1641102800123166208,2022-01-02-05:53:20,10.1.1.8,196,-0.490,-0.490,-0.490,0.000,0.000,0.000
1641102800313880832,2022-01-02-05:53:20,10.1.1.8,186,-0.480,-0.480,-0.480,0.000,0.000,0.000
1641102800520659968,2022-01-02-05:53:20,10.1.1.8,186,-0.470,-0.470,-0.470,0.000,0.000,0.000
1641102800722560000,2022-01-02-05:53:20,10.1.1.8,193,-0.460,-0.460,-0.460,0.000,0.000,0.000
1641102800913761024,2022-01-02-05:53:20,10.1.1.8,183,-0.450,-0.450,-0.450,0.000,0.000,0.000
1641102801111834880,2022-01-02-05:53:21,10.1.1.8,180,-0.440,-0.440,-0.440,0.000,0.000,0.000
1641102801312460800,2022-01-02-05:53:21,10.1.1.8,179,-0.430,-0.430,-0.430,0.000,0.000,0.000
1641102801512193792,2022-01-02-05:53:21,10.1.1.8,178,-0.420,-0.420,-0.420,0.000,0.000,0.000
1641102801712555776,2022-01-02-05:53:21,10.1.1.8,178,-0.410,-0.410,-0.410,0.000,0.000,0.000
1641102801920231936,2022-01-02-05:53:21,10.1.1.8,185,-0.400,-0.400,-0.400,0.000,0.000,0.000
1641102802111841792,2022-01-02-05:53:22,10.1.1.8,176,-0.390,-0.390,-0.390,0.000,0.000,0.000
1641102802311627008,2022-01-02-05:53:22,10.1.1.8,175,-0.380,-0.380,-0.380,0.000,0.000,0.000
1641102802512990976,2022-01-02-05:53:22,10.1.1.8,176,-0.370,-0.370,-0.370,0.000,0.000,0.000
1641102802712019968,2022-01-02-05:53:22,10.1.1.8,175,-0.360,-0.360,-0.360,0.000,0.000,0.000
1641102802909907968,2022-01-02-05:53:22,10.1.1.8,171,-0.350,-0.350,-0.350,0.000,0.000,0.000
1641102803110609920,2022-01-02-05:53:23,10.1.1.8,171,-0.340,-0.340,-0.340,0.000,0.000,0.000
1641102803310301952,2022-01-02-05:53:23,10.1.1.8,171,-0.330,-0.330,-0.330,0.000,0.000,0.000
1641102803530551040,2022-01-02-05:53:23,10.1.1.8,189,-0.320,-0.320,-0.320,0.000,0.000,0.000
1641102803738810112,2022-01-02-05:53:23,10.1.1.8,196,-0.310,-0.310,-0.310,0.000,0.000,0.000
1641102803930625024,2022-01-02-05:53:23,10.1.1.8,188,-0.300,-0.300,-0.300,0.000,0.000,0.000
1641102804128755200,2022-01-02-05:53:24,10.1.1.8,185,-0.290,-0.290,-0.290,0.000,0.000,0.000
1641102804330025984,2022-01-02-05:53:24,10.1.1.8,186,-0.280,-0.280,-0.280,0.000,0.000,0.000
1641102804517923072,2022-01-02-05:53:24,10.1.1.8,173,-0.270,-0.270,-0.270,0.000,0.000,0.000
1641102804728101120,2022-01-02-05:53:24,10.1.1.8,182,-0.260,-0.260,-0.260,0.000,0.000,0.000
1641102804929181952,2022-01-02-05:53:24,10.1.1.8,183,-0.250,-0.250,-0.250,0.000,0.000,0.000
1641102805136899840,2022-01-02-05:53:25,10.1.1.8,190,-0.240,-0.240,-0.240,0.000,0.000,0.000
1641102805330061056,2022-01-02-05:53:25,10.1.1.8,182,-0.230,-0.230,-0.230,0.000,0.000,0.000
1641102805528465152,2022-01-02-05:53:25,10.1.1.8,180,-0.220,-0.220,-0.220,0.000,0.000,0.000
1641102805735857920,2022-01-02-05:53:25,10.1.1.8,186,-0.210,-0.210,-0.210,0.000,0.000,0.000
1641102805929613056,2022-01-02-05:53:25,10.1.1.8,180,-0.200,-0.200,-0.200,0.000,0.000,0.000
1641102806126096128,2022-01-02-05:53:26,10.1.1.8,176,-0.190,-0.190,-0.190,0.000,0.000,0.000
1641102806334685952,2022-01-02-05:53:26,10.1.1.8,183,-0.180,-0.180,-0.180,0.000,0.000,0.000
1641102806524966912,2022-01-02-05:53:26,10.1.1.8,172,-0.170,-0.170,-0.170,0.000,0.000,0.000
1641102806724570880,2022-01-02-05:53:26,10.1.1.8,171,-0.160,-0.160,-0.160,0.000,0.000,0.000
1641102806924644864,2022-01-02-05:53:26,10.1.1.8,171,-0.150,-0.150,-0.150,0.000,0.000,0.000
1641102807125703168,2022-01-02-05:53:27,10.1.1.8,171,-0.140,-0.140,-0.140,0.000,0.000,0.000
1641102807326027008,2022-01-02-05:53:27,10.1.1.8,171,-0.130,-0.130,-0.130,0.000,0.000,0.000
1641102807540360960,2022-01-02-05:53:27,10.1.1.8,183,-0.120,-0.120,-0.120,0.000,0.000,0.000
1641102807724019968,2022-01-02-05:53:27,10.1.1.8,167,-0.110,-0.110,-0.110,0.000,0.000,0.000
1641102807924995072,2022-01-02-05:53:27,10.1.1.8,167,-0.100,-0.100,-0.100,0.000,0.000,0.000
1641102808124872960,2022-01-02-05:53:28,10.1.1.8,166,-0.090,-0.090,-0.090,0.000,0.000,0.000
1641102808342174976,2022-01-02-05:53:28,10.1.1.8,183,-0.080,-0.080,-0.080,0.000,0.000,0.000
1641102808541201152,2022-01-02-05:53:28,10.1.1.8,181,-0.070,-0.070,-0.070,0.000,0.000,0.000
1641102808743296000,2022-01-02-05:53:28,10.1.1.8,182,-0.060,-0.060,-0.060,0.000,0.000,0.000
1641102808943224832,2022-01-02-05:53:28,10.1.1.8,181,-0.050,-0.050,-0.050,0.000,0.000,0.000
1641102809130595072,2022-01-02-05:53:29,10.1.1.8,167,-0.040,-0.040,-0.040,0.000,0.000,0.000
1641102809342084864,2022-01-02-05:53:29,10.1.1.8,178,-0.030,-0.030,-0.030,0.000,0.000,0.000
1641102809540907008,2022-01-02-05:53:29,10.1.1.8,176,-0.020,-0.020,-0.020,0.000,0.000,0.000
1641102809741836032,2022-01-02-05:53:29,10.1.1.8,177,-0.010,-0.010,-0.010,0.000,0.000,0.000
1641102809941368064,2022-01-02-05:53:29,10.1.1.8,175,0.000,0.000,0.000,0.000,0.000,0.000
1641102810128901888,2022-01-02-05:53:30,10.1.1.8,162,-0.010,-0.010,-0.010,0.000,0.000,0.000
1641102810331051008,2022-01-02-05:53:30,10.1.1.8,163,-0.020,-0.020,-0.020,0.000,0.000,0.000
1641102810538552064,2022-01-02-05:53:30,10.1.1.8,170,-0.030,-0.030,-0.030,0.000,0.000,0.000
1641102810747559168,2022-01-02-05:53:30,10.1.1.8,178,-0.040,-0.040,-0.040,0.000,0.000,0.000
1641102810937828096,2022-01-02-05:53:30,10.1.1.8,168,-0.050,-0.050,-0.050,0.000,0.000,0.000
1641102811140232192,2022-01-02-05:53:31,10.1.1.8,170,-0.060,-0.060,-0.060,0.000,0.000,0.000
1641102811337873920,2022-01-02-05:53:31,10.1.1.8,167,-0.070,-0.070,-0.070,0.000,0.000,0.000
1641102811537552128,2022-01-02-05:53:31,10.1.1.8,163,-0.080,-0.080,-0.080,0.000,0.000,0.000
1641102811742772992,2022-01-02-05:53:31,10.1.1.8,166,-0.090,-0.090,-0.090,0.000,0.000,0.000
1641102811965543936,2022-01-02-05:53:31,10.1.1.8,183,-0.100,-0.100,-0.100,0.000,0.000,0.000
1641102812145361920,2022-01-02-05:53:32,10.1.1.8,161,-0.110,-0.110,-0.110,0.000,0.000,0.000
1641102812368480000,2022-01-02-05:53:32,10.1.1.8,183,-0.120,-0.120,-0.120,0.000,0.000,0.000
1641102812555716096,2022-01-02-05:53:32,10.1.1.8,170,-0.130,-0.130,-0.130,0.000,0.000,0.000
1641102812755036160,2022-01-02-05:53:32,10.1.1.8,168,-0.140,-0.140,-0.140,0.000,0.000,0.000
1641102812954467072,2022-01-02-05:53:32,10.1.1.8,166,-0.150,-0.150,-0.150,0.000,0.000,0.000
1641102813160635904,2022-01-02-05:53:33,10.1.1.8,172,-0.160,-0.160,-0.160,0.000,0.000,0.000
1641102813357438208,2022-01-02-05:53:33,10.1.1.8,168,-0.170,-0.170,-0.170,0.000,0.000,0.000
1641102813560434176,2022-01-02-05:53:33,10.1.1.8,170,-0.180,-0.180,-0.180,0.000,0.000,0.000
1641102813758424064,2022-01-02-05:53:33,10.1.1.8,166,-0.190,-0.190,-0.190,0.000,0.000,0.000
1641102813968978944,2022-01-02-05:53:33,10.1.1.8,176,-0.200,-0.200,-0.200,0.000,0.000,0.000
1641102814161797120,2022-01-02-05:53:34,10.1.1.8,168,-0.210,-0.210,-0.210,0.000,0.000,0.000
1641102814360450048,2022-01-02-05:53:34,10.1.1.8,166,-0.220,-0.220,-0.220,0.000,0.000,0.000
1641102814562103040,2022-01-02-05:53:34,10.1.1.8,166,-0.230,-0.230,-0.230,0.000,0.000,0.000
1641102814772492032,2022-01-02-05:53:34,10.1.1.8,176,-0.240,-0.240,-0.240,0.000,0.000,0.000
1641102814964590080,2022-01-02-05:53:34,10.1.1.8,167,-0.250,-0.250,-0.250,0.000,0.000,0.000
1641102815174192896,2022-01-02-05:53:35,10.1.1.8,175,-0.260,-0.260,-0.260,0.000,0.000,0.000
1641102815375155968,2022-01-02-05:53:35,10.1.1.8,176,-0.270,-0.270,-0.270,0.000,0.000,0.000
1641102815576045056,2022-01-02-05:53:35,10.1.1.8,176,-0.280,-0.280,-0.280,0.000,0.000,0.000
1641102815788494080,2022-01-02-05:53:35,10.1.1.8,188,-0.290,-0.290,-0.290,0.000,0.000,0.000
1641102815987715072,2022-01-02-05:53:35,10.1.1.8,187,-0.300,-0.300,-0.300,0.000,0.000,0.000
1641102816197611008,2022-01-02-05:53:36,10.1.1.8,196,-0.310,-0.310,-0.310,0.000,0.000,0.000
1641102816389199872,2022-01-02-05:53:36,10.1.1.8,187,-0.320,-0.320,-0.320,0.000,0.000,0.000
1641102816579150848,2022-01-02-05:53:36,10.1.1.8,176,-0.330,-0.330,-0.330,0.000,0.000,0.000
1641102816780504064,2022-01-02-05:53:36,10.1.1.8,176,-0.340,-0.340,-0.340,0.000,0.000,0.000
1641102816979742976,2022-01-02-05:53:36,10.1.1.8,175,-0.350,-0.350,-0.350,0.000,0.000,0.000
1641102817180197120,2022-01-02-05:53:37,10.1.1.8,175,-0.360,-0.360,-0.360,0.000,0.000,0.000
1641102817400623104,2022-01-02-05:53:37,10.1.1.8,195,-0.370,-0.370,-0.370,0.000,0.000,0.000
1641102817601840896,2022-01-02-05:53:37,10.1.1.8,195,-0.380,-0.380,-0.380,0.000,0.000,0.000
1641102817802105856,2022-01-02-05:53:37,10.1.1.8,195,-0.390,-0.390,-0.390,0.000,0.000,0.000
1641102817992016128,2022-01-02-05:53:37,10.1.1.8,185,-0.400,-0.400,-0.400,0.000,0.000,0.000
1641102818182552064,2022-01-02-05:53:38,10.1.1.8,173,-0.410,-0.410,-0.410,0.000,0.000,0.000
1641102818402728192,2022-01-02-05:53:38,10.1.1.8,193,-0.420,-0.420,-0.420,0.000,0.000,0.000
1641102818604116992,2022-01-02-05:53:38,10.1.1.8,194,-0.430,-0.430,-0.430,0.000,0.000,0.000
1641102818794456064,2022-01-02-05:53:38,10.1.1.8,183,-0.440,-0.440,-0.440,0.000,0.000,0.000
1641102819004121088,2022-01-02-05:53:39,10.1.1.8,192,-0.450,-0.450,-0.450,0.000,0.000,0.000
1641102819204532992,2022-01-02-05:53:39,10.1.1.8,191,-0.460,-0.460,-0.460,0.000,0.000,0.000
1641102819396580864,2022-01-02-05:53:39,10.1.1.8,183,-0.470,-0.470,-0.470,0.000,0.000,0.000
1641102819605005056,2022-01-02-05:53:39,10.1.1.8,190,-0.480,-0.480,-0.480,0.000,0.000,0.000
1641102819805097216,2022-01-02-05:53:39,10.1.1.8,190,-0.490,-0.490,-0.490,0.000,0.000,0.000
1641102820005801984,2022-01-02-05:53:40,10.1.1.8,184,-0.480,-0.480,-0.480,0.000,0.000,0.000
1641102820217541888,2022-01-02-05:53:40,10.1.1.8,195,-0.470,-0.470,-0.470,0.000,0.000,0.000
1641102820406138880,2022-01-02-05:53:40,10.1.1.8,183,-0.460,-0.460,-0.460,0.000,0.000,0.000
1641102820616512000,2022-01-02-05:53:40,10.1.1.8,192,-0.450,-0.450,-0.450,0.000,0.000,0.000
1641102820806802944,2022-01-02-05:53:40,10.1.1.8,182,-0.440,-0.440,-0.440,0.000,0.000,0.000
1641102821006823936,2022-01-02-05:53:41,10.1.1.8,181,-0.430,-0.430,-0.430,0.000,0.000,0.000
1641102821217422848,2022-01-02-05:53:41,10.1.1.8,191,-0.420,-0.420,-0.420,0.000,0.000,0.000
1641102821418510080,2022-01-02-05:53:41,10.1.1.8,192,-0.410,-0.410,-0.410,0.000,0.000,0.000
1641102821618305024,2022-01-02-05:53:41,10.1.1.8,191,-0.400,-0.400,-0.400,0.000,0.000,0.000
1641102821826992128,2022-01-02-05:53:41,10.1.1.8,199,-0.390,-0.390,-0.390,0.000,0.000,0.000
1641102822020973056,2022-01-02-05:53:42,10.1.1.8,192,-0.380,-0.380,-0.380,0.000,0.000,0.000
1641102822220877056,2022-01-02-05:53:42,10.1.1.8,191,-0.370,-0.370,-0.370,0.000,0.000,0.000
1641102822418632960,2022-01-02-05:53:42,10.1.1.8,187,-0.360,-0.360,-0.360,0.000,0.000,0.000
1641102822627689984,2022-01-02-05:53:42,10.1.1.8,196,-0.350,-0.350,-0.350,0.000,0.000,0.000
1641102822819374080,2022-01-02-05:53:42,10.1.1.8,187,-0.340,-0.340,-0.340,0.000,0.000,0.000
1641102823027315968,2022-01-02-05:53:43,10.1.1.8,194,-0.330,-0.330,-0.330,0.000,0.000,0.000
1641102823229798912,2022-01-02-05:53:43,10.1.1.8,196,-0.320,-0.320,-0.320,0.000,0.000,0.000
1641102823420020224,2022-01-02-05:53:43,10.1.1.8,186,-0.310,-0.310,-0.310,0.000,0.000,0.000
1641102823618091008,2022-01-02-05:53:43,10.1.1.8,183,-0.300,-0.300,-0.300,0.000,0.000,0.000
1641102823827676928,2022-01-02-05:53:43,10.1.1.8,192,-0.290,-0.290,-0.290,0.000,0.000,0.000
1641102824030206976,2022-01-02-05:53:44,10.1.1.8,194,-0.280,-0.280,-0.280,0.000,0.000,0.000
1641102824228146176,2022-01-02-05:53:44,10.1.1.8,192,-0.270,-0.270,-0.270,0.000,0.000,0.000
1641102824419220992,2022-01-02-05:53:44,10.1.1.8,182,-0.260,-0.260,-0.260,0.000,0.000,0.000
1641102824619226880,2022-01-02-05:53:44,10.1.1.8,182,-0.250,-0.250,-0.250,0.000,0.000,0.000
1641102824819046144,2022-01-02-05:53:44,10.1.1.8,181,-0.240,-0.240,-0.240,0.000,0.000,0.000
1641102825018414080,2022-01-02-05:53:45,10.1.1.8,180,-0.230,-0.230,-0.230,0.000,0.000,0.000
1641102825218661120,2022-01-02-05:53:45,10.1.1.8,179,-0.220,-0.220,-0.220,0.000,0.000,0.000
1641102825438234112,2022-01-02-05:53:45,10.1.1.8,197,-0.210,-0.210,-0.210,0.000,0.000,0.000
1641102825627578112,2022-01-02-05:53:45,10.1.1.8,186,-0.200,-0.200,-0.200,0.000,0.000,0.000
1641102825827492096,2022-01-02-05:53:45,10.1.1.8,185,-0.190,-0.190,-0.190,0.000,0.000,0.000
1641102826027350784,2022-01-02-05:53:46,10.1.1.8,184,-0.180,-0.180,-0.180,0.000,0.000,0.000
1641102826237207040,2022-01-02-05:53:46,10.1.1.8,193,-0.170,-0.170,-0.170,0.000,0.000,0.000
1641102826837889024,2022-01-02-05:53:46,10.1.1.8,191,-0.140,-0.140,-0.140,0.000,0.000,0.000
1641102827026819840,2022-01-02-05:53:47,10.1.1.8,179,-0.130,-0.130,-0.130,0.000,0.000,0.000
1641102827226972160,2022-01-02-05:53:47,10.1.1.8,178,-0.120,-0.120,-0.120,0.000,0.000,0.000
1641102827446291968,2022-01-02-05:53:47,10.1.1.8,197,-0.110,-0.110,-0.110,0.000,0.000,0.000
1641102827647130112,2022-01-02-05:53:47,10.1.1.8,198,-0.100,-0.100,-0.100,0.000,0.000,0.000
1641102827847008000,2022-01-02-05:53:47,10.1.1.8,197,-0.090,-0.090,-0.090,0.000,0.000,0.000
1641102828045861120,2022-01-02-05:53:48,10.1.1.8,195,-0.080,-0.080,-0.080,0.000,0.000,0.000
1641102828237643008,2022-01-02-05:53:48,10.1.1.8,186,-0.070,-0.070,-0.070,0.000,0.000,0.000
1641102828441179136,2022-01-02-05:53:48,10.1.1.8,189,-0.060,-0.060,-0.060,0.000,0.000,0.000
1641102828637154048,2022-01-02-05:53:48,10.1.1.8,183,-0.050,-0.050,-0.050,0.000,0.000,0.000
1641102828845864960,2022-01-02-05:53:48,10.1.1.8,191,-0.040,-0.040,-0.040,0.000,0.000,0.000
1641102829035900160,2022-01-02-05:53:49,10.1.1.8,180,-0.030,-0.030,-0.030,0.000,0.000,0.000
1641102829244573184,2022-01-02-05:53:49,10.1.1.8,187,-0.020,-0.020,-0.020,0.000,0.000,0.000
1641102829445331200,2022-01-02-05:53:49,10.1.1.8,187,-0.010,-0.010,-0.010,0.000,0.000,0.000
1641102829645165824,2022-01-02-05:53:49,10.1.1.8,186,0.000,0.000,0.000,0.000,0.000,0.000
1641102829835747072,2022-01-02-05:53:49,10.1.1.8,176,-0.010,-0.010,-0.010,0.000,0.000,0.000
1641102830257161984,2022-01-02-05:53:50,10.1.1.8,197,-0.030,-0.030,-0.030,0.000,0.000,0.000
1641102830457166848,2022-01-02-05:53:50,10.1.1.8,196,-0.040,-0.040,-0.040,0.000,0.000,0.000
1641102830657798144,2022-01-02-05:53:50,10.1.1.8,196,-0.050,-0.050,-0.050,0.000,0.000,0.000
1641102831054297856,2022-01-02-05:53:51,10.1.1.8,191,-0.070,-0.070,-0.070,0.000,0.000,0.000
1641102831253732864,2022-01-02-05:53:51,10.1.1.8,190,-0.080,-0.080,-0.080,0.000,0.000,0.000
1641102831463879936,2022-01-02-05:53:51,10.1.1.8,200,-0.090,-0.090,-0.090,0.000,0.000,0.000
1641102831663570944,2022-01-02-05:53:51,10.1.1.8,199,-0.100,-0.100,-0.100,0.000,0.000,0.000
1641102831853158912,2022-01-02-05:53:51,10.1.1.8,188,-0.110,-0.110,-0.110,0.000,0.000,0.000
1641102832055789056,2022-01-02-05:53:52,10.1.1.8,190,-0.120,-0.120,-0.120,0.000,0.000,0.000
1641102832258258176,2022-01-02-05:53:52,10.1.1.8,192,-0.130,-0.130,-0.130,0.000,0.000,0.000
1641102832442550016,2022-01-02-05:53:52,10.1.1.8,175,-0.140,-0.140,-0.140,0.000,0.000,0.000
1641102832653894912,2022-01-02-05:53:52,10.1.1.8,185,-0.150,-0.150,-0.150,0.000,0.000,0.000
1641102832841696000,2022-01-02-05:53:52,10.1.1.8,172,-0.160,-0.160,-0.160,0.000,0.000,0.000
1641102833052823040,2022-01-02-05:53:53,10.1.1.8,183,-0.170,-0.170,-0.170,0.000,0.000,0.000
1641102833251548160,2022-01-02-05:53:53,10.1.1.8,180,-0.180,-0.180,-0.180,0.000,0.000,0.000
1641102833460731904,2022-01-02-05:53:53,10.1.1.8,188,-0.190,-0.190,-0.190,0.000,0.000,0.000
1641102833660090880,2022-01-02-05:53:53,10.1.1.8,187,-0.200,-0.200,-0.200,0.000,0.000,0.000
1641102833852491008,2022-01-02-05:53:53,10.1.1.8,177,-0.210,-0.210,-0.210,0.000,0.000,0.000
1641102834059973888,2022-01-02-05:53:54,10.1.1.8,185,-0.220,-0.220,-0.220,0.000,0.000,0.000
1641102834262340096,2022-01-02-05:53:54,10.1.1.8,187,-0.230,-0.230,-0.230,0.000,0.000,0.000
1641102834460141056,2022-01-02-05:53:54,10.1.1.8,184,-0.240,-0.240,-0.240,0.000,0.000,0.000
1641102834652625152,2022-01-02-05:53:54,10.1.1.8,176,-0.250,-0.250,-0.250,0.000,0.000,0.000
1641102834852848128,2022-01-02-05:53:54,10.1.1.8,175,-0.260,-0.260,-0.260,0.000,0.000,0.000
1641102835058851072,2022-01-02-05:53:55,10.1.1.8,181,-0.270,-0.270,-0.270,0.000,0.000,0.000
1641102835258300160,2022-01-02-05:53:55,10.1.1.8,180,-0.280,-0.280,-0.280,0.000,0.000,0.000
