FedericoMungari/DigitalTwin_service/02_LTEScenario/Output/Output_script/script_ROSAPI_output_robots8_freq0_3.txt.csv
timestamp,node,latency,joint_1,joint_2,joint_3,joint_4,joint_5,joint_6
1640068680673619968,"2021-12-21,06:38:00",10.1.1.4,5897,0.000,0.000,0.000,0.000,0.000,0.000
1640068682953968896,"2021-12-21,06:38:02",10.1.1.4,286,-0.010,-0.010,-0.010,0.000,0.000,0.000
1640068682986539008,"2021-12-21,06:38:02",10.1.1.4,0.32033395767211914,-0.010,-0.010,-0.010,0.000,0.000,0.000
1640068683279665920,"2021-12-21,06:38:03",10.1.1.4,291,-0.020,-0.020,-0.020,0.000,0.000,0.000
1640068683309124096,"2021-12-21,06:38:03",10.1.1.4,0.3211500644683838,-0.020,-0.020,-0.020,0.000,0.000,0.000
1640068683612136960,"2021-12-21,06:38:03",10.1.1.4,301,-0.030,-0.030,-0.030,0.000,0.000,0.000
1640068683634284032,"2021-12-21,06:38:03",10.1.1.4,0.3238711357116699,-0.030,-0.030,-0.030,0.000,0.000,0.000
1640068683937573888,"2021-12-21,06:38:03",10.1.1.4,301,-0.040,-0.040,-0.040,0.000,0.000,0.000
1640068683944446976,"2021-12-21,06:38:03",10.1.1.4,0.3087019920349121,-0.040,-0.040,-0.040,0.000,0.000,0.000
1640068684269152000,"2021-12-21,06:38:04",10.1.1.4,321,-0.050,-0.050,-0.050,0.000,0.000,0.000
1640068684272126976,"2021-12-21,06:38:04",10.1.1.4,0.3264751434326172,-0.050,-0.050,-0.050,0.000,0.000,0.000
1640068684567681024,"2021-12-21,06:38:04",10.1.1.4,293,-0.060,-0.060,-0.060,0.000,0.000,0.000
1640068684600336128,"2021-12-21,06:38:04",10.1.1.4,0.32695984840393066,-0.060,-0.060,-0.060,0.000,0.000,0.000
1640068684906341120,"2021-12-21,06:38:04",10.1.1.4,304,-0.070,-0.070,-0.070,0.000,0.000,0.000
1640068684924444928,"2021-12-21,06:38:04",10.1.1.4,0.32286810874938965,-0.070,-0.070,-0.070,0.000,0.000,0.000
1640068685235651072,"2021-12-21,06:38:05",10.1.1.4,309,-0.080,-0.080,-0.080,0.000,0.000,0.000
1640068685238155008,"2021-12-21,06:38:05",10.1.1.4,0.31253504753112793,-0.080,-0.080,-0.080,0.000,0.000,0.000
1640068685525561088,"2021-12-21,06:38:05",10.1.1.4,286,-0.090,-0.090,-0.090,0.000,0.000,0.000
1640068685563384064,"2021-12-21,06:38:05",10.1.1.4,0.3239290714263916,-0.090,-0.090,-0.090,0.000,0.000,0.000
1640068685855088896,"2021-12-21,06:38:05",10.1.1.4,288,-0.100,-0.100,-0.100,0.000,0.000,0.000
1640068685881239040,"2021-12-21,06:38:05",10.1.1.4,0.3146181106567383,-0.100,-0.100,-0.100,0.000,0.000,0.000
1640068686185473024,"2021-12-21,06:38:06",10.1.1.4,302,-0.110,-0.110,-0.110,0.000,0.000,0.000
1640068686194065152,"2021-12-21,06:38:06",10.1.1.4,0.3115568161010742,-0.110,-0.110,-0.110,0.000,0.000,0.000
1640068686518383104,"2021-12-21,06:38:06",10.1.1.4,322,-0.120,-0.120,-0.120,0.000,0.000,0.000
1640068686519623168,"2021-12-21,06:38:06",10.1.1.4,0.3242020606994629,-0.120,-0.120,-0.120,0.000,0.000,0.000
1640068686839653888,"2021-12-21,06:38:06",10.1.1.4,318,-0.130,-0.130,-0.130,0.000,0.000,0.000
1640068686852657152,"2021-12-21,06:38:06",10.1.1.4,0.3318650722503662,-0.130,-0.130,-0.130,0.000,0.000,0.000
1640068687140308992,"2021-12-21,06:38:07",10.1.1.4,286,-0.140,-0.140,-0.140,0.000,0.000,0.000
1640068687169204992,"2021-12-21,06:38:07",10.1.1.4,0.3152749538421631,-0.140,-0.140,-0.140,0.000,0.000,0.000
1640068687452423168,"2021-12-21,06:38:07",10.1.1.4,281,-0.150,-0.150,-0.150,0.000,0.000,0.000
1640068687481659904,"2021-12-21,06:38:07",10.1.1.4,0.31064605712890625,-0.150,-0.150,-0.150,0.000,0.000,0.000
1640068689279591168,"2021-12-21,06:38:09",10.1.1.4,1795,-0.160,-0.160,-0.160,0.000,0.000,0.000
1640068689313751040,"2021-12-21,06:38:09",10.1.1.4,1.8299751281738281,-0.160,-0.160,-0.160,0.000,0.000,0.000
1640068689660904960,"2021-12-21,06:38:09",10.1.1.4,345,-0.170,-0.170,-0.170,0.000,0.000,0.000
1640068689711921920,"2021-12-21,06:38:09",10.1.1.4,0.39695310592651367,-0.170,-0.170,-0.170,0.000,0.000,0.000
1640068690052144128,"2021-12-21,06:38:10",10.1.1.4,338,-0.180,-0.180,-0.180,0.000,0.000,0.000
1640068690069447168,"2021-12-21,06:38:10",10.1.1.4,0.3562321662902832,-0.180,-0.180,-0.180,0.000,0.000,0.000
1640068690383731968,"2021-12-21,06:38:10",10.1.1.4,312,-0.190,-0.190,-0.190,0.000,0.000,0.000
1640068690393315072,"2021-12-21,06:38:10",10.1.1.4,0.32228708267211914,-0.190,-0.190,-0.190,0.000,0.000,0.000
1640068690694100992,"2021-12-21,06:38:10",10.1.1.4,298,-0.200,-0.200,-0.200,0.000,0.000,0.000
1640068690719392000,"2021-12-21,06:38:10",10.1.1.4,0.3236260414123535,-0.200,-0.200,-0.200,0.000,0.000,0.000
1640068691025844224,"2021-12-21,06:38:11",10.1.1.4,304,-0.210,-0.210,-0.210,0.000,0.000,0.000
1640068691051069952,"2021-12-21,06:38:11",10.1.1.4,0.3304588794708252,-0.210,-0.210,-0.210,0.000,0.000,0.000
1640068691365645056,"2021-12-21,06:38:11",10.1.1.4,312,-0.220,-0.220,-0.220,0.000,0.000,0.000
1640068691369138944,"2021-12-21,06:38:11",10.1.1.4,0.31651806831359863,-0.220,-0.220,-0.220,0.000,0.000,0.000
1640068691677347072,"2021-12-21,06:38:11",10.1.1.4,306,-0.230,-0.230,-0.230,0.000,0.000,0.000
1640068691685184000,"2021-12-21,06:38:11",10.1.1.4,0.31462597846984863,-0.230,-0.230,-0.230,0.000,0.000,0.000
1640068691987360000,"2021-12-21,06:38:11",10.1.1.4,300,-0.240,-0.240,-0.240,0.000,0.000,0.000
1640068691995311104,"2021-12-21,06:38:11",10.1.1.4,0.3088669776916504,-0.240,-0.240,-0.240,0.000,0.000,0.000
1640068692298112000,"2021-12-21,06:38:12",10.1.1.4,301,-0.250,-0.250,-0.250,0.000,0.000,0.000
1640068692310356992,"2021-12-21,06:38:12",10.1.1.4,0.3136019706726074,-0.250,-0.250,-0.250,0.000,0.000,0.000
1640068692598024960,"2021-12-21,06:38:12",10.1.1.4,286,-0.260,-0.260,-0.260,0.000,0.000,0.000
1640068692621853184,"2021-12-21,06:38:12",10.1.1.4,0.3102149963378906,-0.260,-0.260,-0.260,0.000,0.000,0.000
1640068692958252032,"2021-12-21,06:38:12",10.1.1.4,335,-0.270,-0.270,-0.270,0.000,0.000,0.000
1640068692972536064,"2021-12-21,06:38:12",10.1.1.4,0.3493831157684326,-0.270,-0.270,-0.270,0.000,0.000,0.000
1640068693279580160,"2021-12-21,06:38:13",10.1.1.4,305,-0.280,-0.280,-0.280,0.000,0.000,0.000
1640068693308103936,"2021-12-21,06:38:13",10.1.1.4,0.3341951370239258,-0.280,-0.280,-0.280,0.000,0.000,0.000
1640068693630215936,"2021-12-21,06:38:13",10.1.1.4,320,-0.290,-0.290,-0.290,0.000,0.000,0.000
1640068693630745856,"2021-12-21,06:38:13",10.1.1.4,0.32088613510131836,-0.290,-0.290,-0.290,0.000,0.000,0.000
1640068693921686784,"2021-12-21,06:38:13",10.1.1.4,289,-0.300,-0.300,-0.300,0.000,0.000,0.000
1640068693956779008,"2021-12-21,06:38:13",10.1.1.4,0.3244619369506836,-0.300,-0.300,-0.300,0.000,0.000,0.000
1640068694259767040,"2021-12-21,06:38:14",10.1.1.4,297,-0.310,-0.310,-0.310,0.000,0.000,0.000
1640068694304781824,"2021-12-21,06:38:14",10.1.1.4,0.3424339294433594,-0.310,-0.310,-0.310,0.000,0.000,0.000
1640068694601200128,"2021-12-21,06:38:14",10.1.1.4,294,-0.320,-0.320,-0.320,0.000,0.000,0.000
1640068694633523968,"2021-12-21,06:38:14",10.1.1.4,0.3268580436706543,-0.320,-0.320,-0.320,0.000,0.000,0.000
1640068694965296896,"2021-12-21,06:38:14",10.1.1.4,0.33054494857788086,-0.330,-0.330,-0.330,0.000,0.000,0.000
1640068695281074944,"2021-12-21,06:38:15",10.1.1.4,314,-0.340,-0.340,-0.340,0.000,0.000,0.000
1640068695316368128,"2021-12-21,06:38:15",10.1.1.4,0.34981799125671387,-0.340,-0.340,-0.340,0.000,0.000,0.000
1640068695641115904,"2021-12-21,06:38:15",10.1.1.4,323,-0.350,-0.350,-0.350,0.000,0.000,0.000
1640068695661241088,"2021-12-21,06:38:15",10.1.1.4,0.3431859016418457,-0.350,-0.350,-0.350,0.000,0.000,0.000
1640068695952139008,"2021-12-21,06:38:15",10.1.1.4,289,-0.360,-0.360,-0.360,0.000,0.000,0.000
1640068695974206976,"2021-12-21,06:38:15",10.1.1.4,0.3117389678955078,-0.360,-0.360,-0.360,0.000,0.000,0.000
1640068696271303936,"2021-12-21,06:38:16",10.1.1.4,295,-0.370,-0.370,-0.370,0.000,0.000,0.000
1640068696288758016,"2021-12-21,06:38:16",10.1.1.4,0.31327199935913086,-0.370,-0.370,-0.370,0.000,0.000,0.000
1640068696581073920,"2021-12-21,06:38:16",10.1.1.4,290,-0.380,-0.380,-0.380,0.000,0.000,0.000
1640068696618149120,"2021-12-21,06:38:16",10.1.1.4,0.3276379108428955,-0.380,-0.380,-0.380,0.000,0.000,0.000
1640068696931368192,"2021-12-21,06:38:16",10.1.1.4,0.3120229244232178,-0.390,-0.390,-0.390,0.000,0.000,0.000
1640068697261291008,"2021-12-21,06:38:17",10.1.1.4,328,-0.400,-0.400,-0.400,0.000,0.000,0.000
1640068697287736832,"2021-12-21,06:38:17",10.1.1.4,0.3548729419708252,-0.400,-0.400,-0.400,0.000,0.000,0.000
1640068697584342016,"2021-12-21,06:38:17",10.1.1.4,293,-0.410,-0.410,-0.410,0.000,0.000,0.000
1640068697607738112,"2021-12-21,06:38:17",10.1.1.4,0.3173809051513672,-0.410,-0.410,-0.410,0.000,0.000,0.000
1640068697944164096,"2021-12-21,06:38:17",10.1.1.4,334,-0.420,-0.420,-0.420,0.000,0.000,0.000
1640068697947127040,"2021-12-21,06:38:17",10.1.1.4,0.3372929096221924,-0.420,-0.420,-0.420,0.000,0.000,0.000
1640068698290991104,"2021-12-21,06:38:18",10.1.1.4,342,-0.430,-0.430,-0.430,0.000,0.000,0.000
1640068698335716864,"2021-12-21,06:38:18",10.1.1.4,0.3867619037628174,-0.430,-0.430,-0.430,0.000,0.000,0.000
1640068698642530816,"2021-12-21,06:38:18",10.1.1.4,305,-0.440,-0.440,-0.440,0.000,0.000,0.000
1640068698683293184,"2021-12-21,06:38:18",10.1.1.4,0.34629392623901367,-0.440,-0.440,-0.440,0.000,0.000,0.000
1640068699001427968,"2021-12-21,06:38:19",10.1.1.4,316,-0.450,-0.450,-0.450,0.000,0.000,0.000
1640068699011507968,"2021-12-21,06:38:19",10.1.1.4,0.3270421028137207,-0.450,-0.450,-0.450,0.000,0.000,0.000
1640068699341105920,"2021-12-21,06:38:19",10.1.1.4,328,-0.460,-0.460,-0.460,0.000,0.000,0.000
1640068699363322880,"2021-12-21,06:38:19",10.1.1.4,0.3505229949951172,-0.460,-0.460,-0.460,0.000,0.000,0.000
1640068699742153984,"2021-12-21,06:38:19",10.1.1.4,376,-0.470,-0.470,-0.470,0.000,0.000,0.000
1640068699744271872,"2021-12-21,06:38:19",10.1.1.4,0.3791229724884033,-0.470,-0.470,-0.470,0.000,0.000,0.000
1640068700051405824,"2021-12-21,06:38:20",10.1.1.4,305,-0.480,-0.480,-0.480,0.000,0.000,0.000
1640068700061952000,"2021-12-21,06:38:20",10.1.1.4,0.3157968521118164,-0.480,-0.480,-0.480,0.000,0.000,0.000
1640068700380784128,"2021-12-21,06:38:20",10.1.1.4,317,-0.490,-0.490,-0.490,0.000,0.000,0.000
1640068700440969984,"2021-12-21,06:38:20",10.1.1.4,0.3777899742126465,-0.490,-0.490,-0.490,0.000,0.000,0.000
1640068700740165120,"2021-12-21,06:38:20",10.1.1.4,297,-0.480,-0.480,-0.480,0.000,0.000,0.000
1640068700788531968,"2021-12-21,06:38:20",10.1.1.4,0.34622716903686523,-0.480,-0.480,-0.480,0.000,0.000,0.000
1640068701079944960,"2021-12-21,06:38:21",10.1.1.4,289,-0.470,-0.470,-0.470,0.000,0.000,0.000
1640068701105709056,"2021-12-21,06:38:21",10.1.1.4,0.31554698944091797,-0.470,-0.470,-0.470,0.000,0.000,0.000
1640068701420332032,"2021-12-21,06:38:21",10.1.1.4,313,-0.460,-0.460,-0.460,0.000,0.000,0.000
1640068701515198976,"2021-12-21,06:38:21",10.1.1.4,0.40828490257263184,-0.460,-0.460,-0.460,0.000,0.000,0.000
1640068701839899136,"2021-12-21,06:38:21",10.1.1.4,322,-0.450,-0.450,-0.450,0.000,0.000,0.000
1640068701890605824,"2021-12-21,06:38:21",10.1.1.4,0.37366700172424316,-0.450,-0.450,-0.450,0.000,0.000,0.000
1640068702181277952,"2021-12-21,06:38:22",10.1.1.4,289,-0.440,-0.440,-0.440,0.000,0.000,0.000
1640068702224195072,"2021-12-21,06:38:22",10.1.1.4,0.33240699768066406,-0.440,-0.440,-0.440,0.000,0.000,0.000
1640068702549349120,"2021-12-21,06:38:22",10.1.1.4,322,-0.430,-0.430,-0.430,0.000,0.000,0.000
1640068702640075008,"2021-12-21,06:38:22",10.1.1.4,0.4138309955596924,-0.430,-0.430,-0.430,0.000,0.000,0.000
1640068702978809088,"2021-12-21,06:38:22",10.1.1.4,337,-0.420,-0.420,-0.420,0.000,0.000,0.000
1640068703023705856,"2021-12-21,06:38:23",10.1.1.4,0.38222694396972656,-0.420,-0.420,-0.420,0.000,0.000,0.000
1640068703378595072,"2021-12-21,06:38:23",10.1.1.4,352,-0.410,-0.410,-0.410,0.000,0.000,0.000
1640068703390424064,"2021-12-21,06:38:23",10.1.1.4,0.36115312576293945,-0.410,-0.410,-0.410,0.000,0.000,0.000
1640068703716932096,"2021-12-21,06:38:23",10.1.1.4,313,-0.400,-0.400,-0.400,0.000,0.000,0.000
1640068703777103872,"2021-12-21,06:38:23",10.1.1.4,0.37508201599121094,-0.400,-0.400,-0.400,0.000,0.000,0.000
1640068704077782016,"2021-12-21,06:38:24",10.1.1.4,298,-0.390,-0.390,-0.390,0.000,0.000,0.000
1640068704156246016,"2021-12-21,06:38:24",10.1.1.4,0.377331018447876,-0.390,-0.390,-0.390,0.000,0.000,0.000
1640068704487889152,"2021-12-21,06:38:24",10.1.1.4,328,-0.380,-0.380,-0.380,0.000,0.000,0.000
1640068704495691008,"2021-12-21,06:38:24",10.1.1.4,0.3366849422454834,-0.380,-0.380,-0.380,0.000,0.000,0.000
1640068704807346176,"2021-12-21,06:38:24",10.1.1.4,310,-0.370,-0.370,-0.370,0.000,0.000,0.000
1640068704843422976,"2021-12-21,06:38:24",10.1.1.4,0.3463749885559082,-0.370,-0.370,-0.370,0.000,0.000,0.000
1640068705157273088,"2021-12-21,06:38:25",10.1.1.4,312,-0.360,-0.360,-0.360,0.000,0.000,0.000
1640068705183015168,"2021-12-21,06:38:25",10.1.1.4,0.3378918170928955,-0.360,-0.360,-0.360,0.000,0.000,0.000
1640068705476054784,"2021-12-21,06:38:25",10.1.1.4,286,-0.350,-0.350,-0.350,0.000,0.000,0.000
1640068705568797184,"2021-12-21,06:38:25",10.1.1.4,0.3793928623199463,-0.350,-0.350,-0.350,0.000,0.000,0.000
1640068705898032896,"2021-12-21,06:38:25",10.1.1.4,327,-0.340,-0.340,-0.340,0.000,0.000,0.000
1640068705903666944,"2021-12-21,06:38:25",10.1.1.4,0.33344197273254395,-0.340,-0.340,-0.340,0.000,0.000,0.000
1640068706255130880,"2021-12-21,06:38:26",10.1.1.4,0.34978699684143066,-0.330,-0.330,-0.330,0.000,0.000,0.000
1640068706255492096,"2021-12-21,06:38:26",10.1.1.4,350,-0.330,-0.330,-0.330,0.000,0.000,0.000
1640068706565882880,"2021-12-21,06:38:26",10.1.1.4,307,-0.320,-0.320,-0.320,0.000,0.000,0.000
1640068706613490176,"2021-12-21,06:38:26",10.1.1.4,0.3559279441833496,-0.320,-0.320,-0.320,0.000,0.000,0.000
1640068706928531968,"2021-12-21,06:38:26",10.1.1.4,313,-0.310,-0.310,-0.310,0.000,0.000,0.000
1640068706946407168,"2021-12-21,06:38:26",10.1.1.4,0.3314659595489502,-0.310,-0.310,-0.310,0.000,0.000,0.000
1640068707264291072,"2021-12-21,06:38:27",10.1.1.4,316,-0.300,-0.300,-0.300,0.000,0.000,0.000
1640068707276217856,"2021-12-21,06:38:27",10.1.1.4,0.328106164932251,-0.300,-0.300,-0.300,0.000,0.000,0.000
1640068707585061120,"2021-12-21,06:38:27",10.1.1.4,307,-0.290,-0.290,-0.290,0.000,0.000,0.000
1640068707611949824,"2021-12-21,06:38:27",10.1.1.4,0.3343679904937744,-0.290,-0.290,-0.290,0.000,0.000,0.000
1640068707973472000,"2021-12-21,06:38:27",10.1.1.4,359,-0.280,-0.280,-0.280,0.000,0.000,0.000
1640068708023065088,"2021-12-21,06:38:28",10.1.1.4,0.4095890522003174,-0.280,-0.280,-0.280,0.000,0.000,0.000
1640068708363877120,"2021-12-21,06:38:28",10.1.1.4,339,-0.270,-0.270,-0.270,0.000,0.000,0.000
1640068708399646976,"2021-12-21,06:38:28",10.1.1.4,0.3749070167541504,-0.270,-0.270,-0.270,0.000,0.000,0.000
1640068708722057216,"2021-12-21,06:38:28",10.1.1.4,320,-0.260,-0.260,-0.260,0.000,0.000,0.000
1640068708763192064,"2021-12-21,06:38:28",10.1.1.4,0.3612041473388672,-0.260,-0.260,-0.260,0.000,0.000,0.000
1640068709071502848,"2021-12-21,06:38:29",10.1.1.4,306,-0.250,-0.250,-0.250,0.000,0.000,0.000
1640068709100423936,"2021-12-21,06:38:29",10.1.1.4,0.3354380130767822,-0.250,-0.250,-0.250,0.000,0.000,0.000
1640068709491504896,"2021-12-21,06:38:29",10.1.1.4,386,-0.240,-0.240,-0.240,0.000,0.000,0.000
1640068709501633792,"2021-12-21,06:38:29",10.1.1.4,0.39705896377563477,-0.240,-0.240,-0.240,0.000,0.000,0.000
1640068709840363008,"2021-12-21,06:38:29",10.1.1.4,335,-0.230,-0.230,-0.230,0.000,0.000,0.000
1640068709900780800,"2021-12-21,06:38:29",10.1.1.4,0.3961150646209717,-0.230,-0.230,-0.230,0.000,0.000,0.000
1640068710210406144,"2021-12-21,06:38:30",10.1.1.4,308,-0.220,-0.220,-0.220,0.000,0.000,0.000
1640068710247372032,"2021-12-21,06:38:30",10.1.1.4,0.3454010486602783,-0.220,-0.220,-0.220,0.000,0.000,0.000
1640068710549298944,"2021-12-21,06:38:30",10.1.1.4,300,-0.210,-0.210,-0.210,0.000,0.000,0.000
1640068710577677056,"2021-12-21,06:38:30",10.1.1.4,0.3289930820465088,-0.210,-0.210,-0.210,0.000,0.000,0.000
1640068710889646080,"2021-12-21,06:38:30",10.1.1.4,310,-0.200,-0.200,-0.200,0.000,0.000,0.000
1640068710898266112,"2021-12-21,06:38:30",10.1.1.4,0.31925392150878906,-0.200,-0.200,-0.200,0.000,0.000,0.000
1640068711219085056,"2021-12-21,06:38:31",10.1.1.4,319,-0.190,-0.190,-0.190,0.000,0.000,0.000
1640068711243107072,"2021-12-21,06:38:31",10.1.1.4,0.3433990478515625,-0.190,-0.190,-0.190,0.000,0.000,0.000
1640068711537966080,"2021-12-21,06:38:31",10.1.1.4,291,-0.180,-0.180,-0.180,0.000,0.000,0.000
1640068711576196864,"2021-12-21,06:38:31",10.1.1.4,0.33009910583496094,-0.180,-0.180,-0.180,0.000,0.000,0.000
1640068711907746048,"2021-12-21,06:38:31",10.1.1.4,329,-0.170,-0.170,-0.170,0.000,0.000,0.000
1640068711941051904,"2021-12-21,06:38:31",10.1.1.4,0.36316490173339844,-0.170,-0.170,-0.170,0.000,0.000,0.000
1640068712257242880,"2021-12-21,06:38:32",10.1.1.4,314,-0.160,-0.160,-0.160,0.000,0.000,0.000
1640068712288379904,"2021-12-21,06:38:32",10.1.1.4,0.34609103202819824,-0.160,-0.160,-0.160,0.000,0.000,0.000
1640068712616861184,"2021-12-21,06:38:32",10.1.1.4,324,-0.150,-0.150,-0.150,0.000,0.000,0.000
1640068712646040064,"2021-12-21,06:38:32",10.1.1.4,0.353985071182251,-0.150,-0.150,-0.150,0.000,0.000,0.000
1640068712968321024,"2021-12-21,06:38:32",10.1.1.4,319,-0.140,-0.140,-0.140,0.000,0.000,0.000
1640068712978028032,"2021-12-21,06:38:32",10.1.1.4,0.3307821750640869,-0.140,-0.140,-0.140,0.000,0.000,0.000
1640068713308955904,"2021-12-21,06:38:33",10.1.1.4,328,-0.130,-0.130,-0.130,0.000,0.000,0.000
1640068713325867776,"2021-12-21,06:38:33",10.1.1.4,0.3457059860229492,-0.130,-0.130,-0.130,0.000,0.000,0.000
1640068713644769024,"2021-12-21,06:38:33",10.1.1.4,315,-0.120,-0.120,-0.120,0.000,0.000,0.000
1640068713657943040,"2021-12-21,06:38:33",10.1.1.4,0.3285088539123535,-0.120,-0.120,-0.120,0.000,0.000,0.000
1640068713976058880,"2021-12-21,06:38:33",10.1.1.4,313,-0.110,-0.110,-0.110,0.000,0.000,0.000
1640068713987876864,"2021-12-21,06:38:33",10.1.1.4,0.3265049457550049,-0.110,-0.110,-0.110,0.000,0.000,0.000
1640068714294281984,"2021-12-21,06:38:34",10.1.1.4,304,-0.100,-0.100,-0.100,0.000,0.000,0.000
1640068714328592896,"2021-12-21,06:38:34",10.1.1.4,0.3385441303253174,-0.100,-0.100,-0.100,0.000,0.000,0.000
1640068714634011136,"2021-12-21,06:38:34",10.1.1.4,303,-0.090,-0.090,-0.090,0.000,0.000,0.000
1640068714671729920,"2021-12-21,06:38:34",10.1.1.4,0.3418290615081787,-0.090,-0.090,-0.090,0.000,0.000,0.000
1640068715003567104,"2021-12-21,06:38:35",10.1.1.4,329,-0.080,-0.080,-0.080,0.000,0.000,0.000
1640068715030744064,"2021-12-21,06:38:35",10.1.1.4,0.3569338321685791,-0.080,-0.080,-0.080,0.000,0.000,0.000
1640068715326447104,"2021-12-21,06:38:35",10.1.1.4,293,-0.070,-0.070,-0.070,0.000,0.000,0.000
1640068715346835968,"2021-12-21,06:38:35",10.1.1.4,0.3137218952178955,-0.070,-0.070,-0.070,0.000,0.000,0.000
1640068715651685120,"2021-12-21,06:38:35",10.1.1.4,299,-0.060,-0.060,-0.060,0.000,0.000,0.000
1640068715670064896,"2021-12-21,06:38:35",10.1.1.4,0.3183770179748535,-0.060,-0.060,-0.060,0.000,0.000,0.000
1640068716010964992,"2021-12-21,06:38:36",10.1.1.4,338,-0.050,-0.050,-0.050,0.000,0.000,0.000
1640068716020450048,"2021-12-21,06:38:36",10.1.1.4,0.3475618362426758,-0.050,-0.050,-0.050,0.000,0.000,0.000
1640068716352713216,"2021-12-21,06:38:36",10.1.1.4,328,-0.040,-0.040,-0.040,0.000,0.000,0.000
1640068716390646016,"2021-12-21,06:38:36",10.1.1.4,0.36664485931396484,-0.040,-0.040,-0.040,0.000,0.000,0.000
1640068716690195968,"2021-12-21,06:38:36",10.1.1.4,297,-0.030,-0.030,-0.030,0.000,0.000,0.000
1640068716727077120,"2021-12-21,06:38:36",10.1.1.4,0.3339200019836426,-0.030,-0.030,-0.030,0.000,0.000,0.000
1640068717050556928,"2021-12-21,06:38:37",10.1.1.4,321,-0.020,-0.020,-0.020,0.000,0.000,0.000
1640068717091120128,"2021-12-21,06:38:37",10.1.1.4,0.3622019290924072,-0.020,-0.020,-0.020,0.000,0.000,0.000
1640068717421709056,"2021-12-21,06:38:37",10.1.1.4,329,-0.010,-0.010,-0.010,0.000,0.000,0.000
1640068717457793024,"2021-12-21,06:38:37",10.1.1.4,0.36533617973327637,-0.010,-0.010,-0.010,0.000,0.000,0.000
1640068717911233792,"2021-12-21,06:38:37",10.1.1.4,0.45009779930114746,0.000,0.000,0.000,0.000,0.000,0.000
1640068718219438080,"2021-12-21,06:38:38",10.1.1.4,305,-0.010,-0.010,-0.010,0.000,0.000,0.000
1640068718254120960,"2021-12-21,06:38:38",10.1.1.4,0.34073901176452637,-0.010,-0.010,-0.010,0.000,0.000,0.000
1640068718581572096,"2021-12-21,06:38:38",10.1.1.4,326,-0.020,-0.020,-0.020,0.000,0.000,0.000
1640068718591284992,"2021-12-21,06:38:38",10.1.1.4,0.3358588218688965,-0.020,-0.020,-0.020,0.000,0.000,0.000
1640068718883142912,"2021-12-21,06:38:38",10.1.1.4,289,-0.030,-0.030,-0.030,0.000,0.000,0.000
1640068718924658176,"2021-12-21,06:38:38",10.1.1.4,0.3314940929412842,-0.030,-0.030,-0.030,0.000,0.000,0.000
1640068719224788992,"2021-12-21,06:38:39",10.1.1.4,294,-0.040,-0.040,-0.040,0.000,0.000,0.000
1640068719258164992,"2021-12-21,06:38:39",10.1.1.4,0.3279099464416504,-0.040,-0.040,-0.040,0.000,0.000,0.000
1640068719575880960,"2021-12-21,06:38:39",10.1.1.4,316,-0.050,-0.050,-0.050,0.000,0.000,0.000
1640068719598247936,"2021-12-21,06:38:39",10.1.1.4,0.3388559818267822,-0.050,-0.050,-0.050,0.000,0.000,0.000
1640068719896960000,"2021-12-21,06:38:39",10.1.1.4,297,-0.060,-0.060,-0.060,0.000,0.000,0.000
1640068719928410880,"2021-12-21,06:38:39",10.1.1.4,0.3287389278411865,-0.060,-0.060,-0.060,0.000,0.000,0.000
1640068720238811136,"2021-12-21,06:38:40",10.1.1.4,306,-0.070,-0.070,-0.070,0.000,0.000,0.000
1640068720260356864,"2021-12-21,06:38:40",10.1.1.4,0.32796597480773926,-0.070,-0.070,-0.070,0.000,0.000,0.000
1640068720600462080,"2021-12-21,06:38:40",10.1.1.4,338,-0.080,-0.080,-0.080,0.000,0.000,0.000
1640068720635726080,"2021-12-21,06:38:40",10.1.1.4,0.3738441467285156,-0.080,-0.080,-0.080,0.000,0.000,0.000
1640068720951919104,"2021-12-21,06:38:40",10.1.1.4,314,-0.090,-0.090,-0.090,0.000,0.000,0.000
1640068720970130944,"2021-12-21,06:38:40",10.1.1.4,0.33290696144104004,-0.090,-0.090,-0.090,0.000,0.000,0.000
1640068721272325120,"2021-12-21,06:38:41",10.1.1.4,299,-0.100,-0.100,-0.100,0.000,0.000,0.000
1640068721332375040,"2021-12-21,06:38:41",10.1.1.4,0.359846830368042,-0.100,-0.100,-0.100,0.000,0.000,0.000
1640068721653591040,"2021-12-21,06:38:41",10.1.1.4,319,-0.110,-0.110,-0.110,0.000,0.000,0.000
1640068721676084992,"2021-12-21,06:38:41",10.1.1.4,0.3423449993133545,-0.110,-0.110,-0.110,0.000,0.000,0.000
1640068721983587072,"2021-12-21,06:38:41",10.1.1.4,305,-0.120,-0.120,-0.120,0.000,0.000,0.000
1640068722001142016,"2021-12-21,06:38:42",10.1.1.4,0.32308411598205566,-0.120,-0.120,-0.120,0.000,0.000,0.000
1640068722301623040,"2021-12-21,06:38:42",10.1.1.4,298,-0.130,-0.130,-0.130,0.000,0.000,0.000
1640068722349303040,"2021-12-21,06:38:42",10.1.1.4,0.34650182723999023,-0.130,-0.130,-0.130,0.000,0.000,0.000
1640068722664836864,"2021-12-21,06:38:42",10.1.1.4,314,-0.140,-0.140,-0.140,0.000,0.000,0.000
1640068722675074048,"2021-12-21,06:38:42",10.1.1.4,0.3240818977355957,-0.140,-0.140,-0.140,0.000,0.000,0.000
1640068722985858048,"2021-12-21,06:38:42",10.1.1.4,307,-0.150,-0.150,-0.150,0.000,0.000,0.000
1640068723010782976,"2021-12-21,06:38:43",10.1.1.4,0.3322789669036865,-0.150,-0.150,-0.150,0.000,0.000,0.000
1640068723337135104,"2021-12-21,06:38:43",10.1.1.4,323,-0.160,-0.160,-0.160,0.000,0.000,0.000
1640068723370763008,"2021-12-21,06:38:43",10.1.1.4,0.3578300476074219,-0.160,-0.160,-0.160,0.000,0.000,0.000
1640068723717097984,"2021-12-21,06:38:43",10.1.1.4,344,-0.170,-0.170,-0.170,0.000,0.000,0.000
1640068723739290112,"2021-12-21,06:38:43",10.1.1.4,0.366455078125,-0.170,-0.170,-0.170,0.000,0.000,0.000
1640068724089607936,"2021-12-21,06:38:44",10.1.1.4,348,-0.180,-0.180,-0.180,0.000,0.000,0.000
1640068724127538944,"2021-12-21,06:38:44",10.1.1.4,0.3864560127258301,-0.180,-0.180,-0.180,0.000,0.000,0.000
1640068724462326016,"2021-12-21,06:38:44",10.1.1.4,333,-0.190,-0.190,-0.190,0.000,0.000,0.000
1640068724483542016,"2021-12-21,06:38:44",10.1.1.4,0.35460686683654785,-0.190,-0.190,-0.190,0.000,0.000,0.000
1640068724798387968,"2021-12-21,06:38:44",10.1.1.4,313,-0.200,-0.200,-0.200,0.000,0.000,0.000
1640068724806404096,"2021-12-21,06:38:44",10.1.1.4,0.3211641311645508,-0.200,-0.200,-0.200,0.000,0.000,0.000
1640068725119981056,"2021-12-21,06:38:45",10.1.1.4,312,-0.210,-0.210,-0.210,0.000,0.000,0.000
1640068725133987072,"2021-12-21,06:38:45",10.1.1.4,0.32616686820983887,-0.210,-0.210,-0.210,0.000,0.000,0.000
1640068725459549952,"2021-12-21,06:38:45",10.1.1.4,324,-0.220,-0.220,-0.220,0.000,0.000,0.000
1640068725490835968,"2021-12-21,06:38:45",10.1.1.4,0.3555750846862793,-0.220,-0.220,-0.220,0.000,0.000,0.000
1640068725820256000,"2021-12-21,06:38:45",10.1.1.4,327,-0.230,-0.230,-0.230,0.000,0.000,0.000
1640068725840176128,"2021-12-21,06:38:45",10.1.1.4,0.3473050594329834,-0.230,-0.230,-0.230,0.000,0.000,0.000
1640068726150777088,"2021-12-21,06:38:46",10.1.1.4,308,-0.240,-0.240,-0.240,0.000,0.000,0.000
1640068726169285888,"2021-12-21,06:38:46",10.1.1.4,0.32753801345825195,-0.240,-0.240,-0.240,0.000,0.000,0.000
1640068726490649856,"2021-12-21,06:38:46",10.1.1.4,319,-0.250,-0.250,-0.250,0.000,0.000,0.000
1640068726557900032,"2021-12-21,06:38:46",10.1.1.4,0.38703489303588867,-0.250,-0.250,-0.250,0.000,0.000,0.000
1640068726860630016,"2021-12-21,06:38:46",10.1.1.4,300,-0.260,-0.260,-0.260,0.000,0.000,0.000
1640068726869186048,"2021-12-21,06:38:46",10.1.1.4,0.30929088592529297,-0.260,-0.260,-0.260,0.000,0.000,0.000
1640068727170511872,"2021-12-21,06:38:47",10.1.1.4,299,-0.270,-0.270,-0.270,0.000,0.000,0.000
1640068727202967808,"2021-12-21,06:38:47",10.1.1.4,0.3320038318634033,-0.270,-0.270,-0.270,0.000,0.000,0.000
1640068727521843968,"2021-12-21,06:38:47",10.1.1.4,317,-0.280,-0.280,-0.280,0.000,0.000,0.000
1640068727558216192,"2021-12-21,06:38:47",10.1.1.4,0.353985071182251,-0.280,-0.280,-0.280,0.000,0.000,0.000
1640068727881281024,"2021-12-21,06:38:47",10.1.1.4,321,-0.290,-0.290,-0.290,0.000,0.000,0.000
1640068727890311936,"2021-12-21,06:38:47",10.1.1.4,0.3305659294128418,-0.290,-0.290,-0.290,0.000,0.000,0.000
1640068728201592832,"2021-12-21,06:38:48",10.1.1.4,309,-0.300,-0.300,-0.300,0.000,0.000,0.000
1640068728237867008,"2021-12-21,06:38:48",10.1.1.4,0.3459169864654541,-0.300,-0.300,-0.300,0.000,0.000,0.000
1640068728552254976,"2021-12-21,06:38:48",10.1.1.4,312,-0.310,-0.310,-0.310,0.000,0.000,0.000
1640068728558672896,"2021-12-21,06:38:48",10.1.1.4,0.319551944732666,-0.310,-0.310,-0.310,0.000,0.000,0.000
1640068728861027072,"2021-12-21,06:38:48",10.1.1.4,300,-0.320,-0.320,-0.320,0.000,0.000,0.000
1640068728905686016,"2021-12-21,06:38:48",10.1.1.4,0.34505796432495117,-0.320,-0.320,-0.320,0.000,0.000,0.000
1640068729201693952,"2021-12-21,06:38:49",10.1.1.4,292,-0.330,-0.330,-0.330,0.000,0.000,0.000
1640068729253021952,"2021-12-21,06:38:49",10.1.1.4,0.3440580368041992,-0.330,-0.330,-0.330,0.000,0.000,0.000
1640068729571033856,"2021-12-21,06:38:49",10.1.1.4,316,-0.340,-0.340,-0.340,0.000,0.000,0.000
1640068729584124928,"2021-12-21,06:38:49",10.1.1.4,0.3298490047454834,-0.340,-0.340,-0.340,0.000,0.000,0.000
1640068729871123968,"2021-12-21,06:38:49",10.1.1.4,285,-0.350,-0.350,-0.350,0.000,0.000,0.000
1640068729916958208,"2021-12-21,06:38:49",10.1.1.4,0.3315451145172119,-0.350,-0.350,-0.350,0.000,0.000,0.000
1640068730265726976,"2021-12-21,06:38:50",10.1.1.4,0.3471088409423828,-0.360,-0.360,-0.360,0.000,0.000,0.000
1640068730602391040,"2021-12-21,06:38:50",10.1.1.4,335,-0.370,-0.370,-0.370,0.000,0.000,0.000
1640068730626945024,"2021-12-21,06:38:50",10.1.1.4,0.3597719669342041,-0.370,-0.370,-0.370,0.000,0.000,0.000
1640068730931195136,"2021-12-21,06:38:50",10.1.1.4,302,-0.380,-0.380,-0.380,0.000,0.000,0.000
1640068730962385920,"2021-12-21,06:38:50",10.1.1.4,0.3341951370239258,-0.380,-0.380,-0.380,0.000,0.000,0.000
1640068731311415808,"2021-12-21,06:38:51",10.1.1.4,346,-0.390,-0.390,-0.390,0.000,0.000,0.000
1640068731353470976,"2021-12-21,06:38:51",10.1.1.4,0.38851213455200195,-0.390,-0.390,-0.390,0.000,0.000,0.000
1640068731680207104,"2021-12-21,06:38:51",10.1.1.4,324,-0.400,-0.400,-0.400,0.000,0.000,0.000
1640068731742914816,"2021-12-21,06:38:51",10.1.1.4,0.3874080181121826,-0.400,-0.400,-0.400,0.000,0.000,0.000
1640068732129539072,"2021-12-21,06:38:52",10.1.1.4,384,-0.410,-0.410,-0.410,0.000,0.000,0.000
1640068732187585024,"2021-12-21,06:38:52",10.1.1.4,0.44252610206604004,-0.410,-0.410,-0.410,0.000,0.000,0.000
1640068732509798144,"2021-12-21,06:38:52",10.1.1.4,320,-0.420,-0.420,-0.420,0.000,0.000,0.000
1640068732540140032,"2021-12-21,06:38:52",10.1.1.4,0.3504638671875,-0.420,-0.420,-0.420,0.000,0.000,0.000
1640068732882371072,"2021-12-21,06:38:52",10.1.1.4,340,-0.430,-0.430,-0.430,0.000,0.000,0.000
1640068732912472064,"2021-12-21,06:38:52",10.1.1.4,0.3707430362701416,-0.430,-0.430,-0.430,0.000,0.000,0.000
1640068733269632000,"2021-12-21,06:38:53",10.1.1.4,355,-0.440,-0.440,-0.440,0.000,0.000,0.000
1640068733322038016,"2021-12-21,06:38:53",10.1.1.4,0.40807604789733887,-0.440,-0.440,-0.440,0.000,0.000,0.000
1640068733699851008,"2021-12-21,06:38:53",10.1.1.4,375,-0.450,-0.450,-0.450,0.000,0.000,0.000
1640068733749771008,"2021-12-21,06:38:53",10.1.1.4,0.42354702949523926,-0.450,-0.450,-0.450,0.000,0.000,0.000
1640068734128768000,"2021-12-21,06:38:54",10.1.1.4,375,-0.460,-0.460,-0.460,0.000,0.000,0.000
1640068734148477952,"2021-12-21,06:38:54",10.1.1.4,0.3949859142303467,-0.460,-0.460,-0.460,0.000,0.000,0.000
1640068734498107904,"2021-12-21,06:38:54",10.1.1.4,347,-0.470,-0.470,-0.470,0.000,0.000,0.000
1640068734540352000,"2021-12-21,06:38:54",10.1.1.4,0.39000511169433594,-0.470,-0.470,-0.470,0.000,0.000,0.000
1640068734868215040,"2021-12-21,06:38:54",10.1.1.4,325,-0.480,-0.480,-0.480,0.000,0.000,0.000
1640068734880875008,"2021-12-21,06:38:54",10.1.1.4,0.3383140563964844,-0.480,-0.480,-0.480,0.000,0.000,0.000
1640068735260556032,"2021-12-21,06:38:55",10.1.1.4,376,-0.490,-0.490,-0.490,0.000,0.000,0.000
1640068735296189184,"2021-12-21,06:38:55",10.1.1.4,0.41232800483703613,-0.490,-0.490,-0.490,0.000,0.000,0.000
1640068735628097024,"2021-12-21,06:38:55",10.1.1.4,330,-0.480,-0.480,-0.480,0.000,0.000,0.000
1640068735674694144,"2021-12-21,06:38:55",10.1.1.4,0.3771059513092041,-0.480,-0.480,-0.480,0.000,0.000,0.000
1640068735986663936,"2021-12-21,06:38:55",10.1.1.4,309,-0.470,-0.470,-0.470,0.000,0.000,0.000
1640068736020124928,"2021-12-21,06:38:56",10.1.1.4,0.3431050777435303,-0.470,-0.470,-0.470,0.000,0.000,0.000
1640068736346478080,"2021-12-21,06:38:56",10.1.1.4,324,-0.460,-0.460,-0.460,0.000,0.000,0.000
1640068736375543040,"2021-12-21,06:38:56",10.1.1.4,0.35382699966430664,-0.460,-0.460,-0.460,0.000,0.000,0.000
1640068736717526016,"2021-12-21,06:38:56",10.1.1.4,336,-0.450,-0.450,-0.450,0.000,0.000,0.000
1640068736740310784,"2021-12-21,06:38:56",10.1.1.4,0.3590230941772461,-0.450,-0.450,-0.450,0.000,0.000,0.000
1640068737076407040,"2021-12-21,06:38:57",10.1.1.4,332,-0.440,-0.440,-0.440,0.000,0.000,0.000
1640068737135749120,"2021-12-21,06:38:57",10.1.1.4,0.391650915145874,-0.440,-0.440,-0.440,0.000,0.000,0.000
1640068737466300928,"2021-12-21,06:38:57",10.1.1.4,328,-0.430,-0.430,-0.430,0.000,0.000,0.000
1640068737480587008,"2021-12-21,06:38:57",10.1.1.4,0.3432919979095459,-0.430,-0.430,-0.430,0.000,0.000,0.000
1640068737797741056,"2021-12-21,06:38:57",10.1.1.4,308,-0.420,-0.420,-0.420,0.000,0.000,0.000
1640068737840285184,"2021-12-21,06:38:57",10.1.1.4,0.35104799270629883,-0.420,-0.420,-0.420,0.000,0.000,0.000
1640068738194194176,"2021-12-21,06:38:58",10.1.1.4,350,-0.410,-0.410,-0.410,0.000,0.000,0.000
1640068738246301952,"2021-12-21,06:38:58",10.1.1.4,0.4023759365081787,-0.410,-0.410,-0.410,0.000,0.000,0.000
1640068738623287808,"2021-12-21,06:38:58",10.1.1.4,375,-0.400,-0.400,-0.400,0.000,0.000,0.000
1640068738680361984,"2021-12-21,06:38:58",10.1.1.4,0.4325709342956543,-0.400,-0.400,-0.400,0.000,0.000,0.000
1640068739044265984,"2021-12-21,06:38:59",10.1.1.4,362,-0.390,-0.390,-0.390,0.000,0.000,0.000
1640068739065484032,"2021-12-21,06:38:59",10.1.1.4,0.3835868835449219,-0.390,-0.390,-0.390,0.000,0.000,0.000
1640068739458080000,"2021-12-21,06:38:59",10.1.1.4,388,-0.380,-0.380,-0.380,0.000,0.000,0.000
1640068739495256064,"2021-12-21,06:38:59",10.1.1.4,0.4251530170440674,-0.380,-0.380,-0.380,0.000,0.000,0.000
1640068739843475968,"2021-12-21,06:38:59",10.1.1.4,328,-0.370,-0.370,-0.370,0.000,0.000,0.000
1640068739887736064,"2021-12-21,06:38:59",10.1.1.4,0.3723118305206299,-0.370,-0.370,-0.370,0.000,0.000,0.000
1640068740241724928,"2021-12-21,06:39:00",10.1.1.4,351,-0.360,-0.360,-0.360,0.000,0.000,0.000
1640068740256640000,"2021-12-21,06:39:00",10.1.1.4,0.36681699752807617,-0.360,-0.360,-0.360,0.000,0.000,0.000
1640068740642002176,"2021-12-21,06:39:00",10.1.1.4,382,-0.350,-0.350,-0.350,0.000,0.000,0.000
1640068740686876928,"2021-12-21,06:39:00",10.1.1.4,0.4277629852294922,-0.350,-0.350,-0.350,0.000,0.000,0.000
1640068741021310976,"2021-12-21,06:39:01",10.1.1.4,332,-0.340,-0.340,-0.340,0.000,0.000,0.000
1640068741076386048,"2021-12-21,06:39:01",10.1.1.4,0.3872048854827881,-0.340,-0.340,-0.340,0.000,0.000,0.000
1640068741450520064,"2021-12-21,06:39:01",10.1.1.4,372,-0.330,-0.330,-0.330,0.000,0.000,0.000
1640068741488485120,"2021-12-21,06:39:01",10.1.1.4,0.41024112701416016,-0.330,-0.330,-0.330,0.000,0.000,0.000
1640068741841587968,"2021-12-21,06:39:01",10.1.1.4,350,-0.320,-0.320,-0.320,0.000,0.000,0.000
1640068741865608960,"2021-12-21,06:39:01",10.1.1.4,0.36626410484313965,-0.320,-0.320,-0.320,0.000,0.000,0.000
1640068742219593984,"2021-12-21,06:39:02",10.1.1.4,347,-0.310,-0.310,-0.310,0.000,0.000,0.000
1640068742310565120,"2021-12-21,06:39:02",10.1.1.4,0.43813610076904297,-0.310,-0.310,-0.310,0.000,0.000,0.000
1640068742611508992,"2021-12-21,06:39:02",10.1.1.4,299,-0.300,-0.300,-0.300,0.000,0.000,0.000
1640068742651422976,"2021-12-21,06:39:02",10.1.1.4,0.3392798900604248,-0.300,-0.300,-0.300,0.000,0.000,0.000
1640068743007620096,"2021-12-21,06:39:03",10.1.1.4,353,-0.290,-0.290,-0.290,0.000,0.000,0.000
1640068743025820928,"2021-12-21,06:39:03",10.1.1.4,0.3720088005065918,-0.290,-0.290,-0.290,0.000,0.000,0.000
1640068743379427072,"2021-12-21,06:39:03",10.1.1.4,328,-0.280,-0.280,-0.280,0.000,0.000,0.000
1640068743454755072,"2021-12-21,06:39:03",10.1.1.4,0.40386509895324707,-0.280,-0.280,-0.280,0.000,0.000,0.000
1640068743777910016,"2021-12-21,06:39:03",10.1.1.4,320,-0.270,-0.270,-0.270,0.000,0.000,0.000
1640068743805064960,"2021-12-21,06:39:03",10.1.1.4,0.34822797775268555,-0.270,-0.270,-0.270,0.000,0.000,0.000
1640068744135816192,"2021-12-21,06:39:04",10.1.1.4,329,-0.260,-0.260,-0.260,0.000,0.000,0.000
1640068744194458112,"2021-12-21,06:39:04",10.1.1.4,0.3877592086791992,-0.260,-0.260,-0.260,0.000,0.000,0.000
1640068744555130880,"2021-12-21,06:39:04",10.1.1.4,354,-0.250,-0.250,-0.250,0.000,0.000,0.000
1640068744611270912,"2021-12-21,06:39:04",10.1.1.4,0.4111969470977783,-0.250,-0.250,-0.250,0.000,0.000,0.000
1640068745000574976,"2021-12-21,06:39:05",10.1.1.4,385,-0.240,-0.240,-0.240,0.000,0.000,0.000
1640068745038297856,"2021-12-21,06:39:05",10.1.1.4,0.4235560894012451,-0.240,-0.240,-0.240,0.000,0.000,0.000
1640068745414694144,"2021-12-21,06:39:05",10.1.1.4,374,-0.230,-0.230,-0.230,0.000,0.000,0.000
1640068745436054016,"2021-12-21,06:39:05",10.1.1.4,0.3965120315551758,-0.230,-0.230,-0.230,0.000,0.000,0.000
1640068745773137152,"2021-12-21,06:39:05",10.1.1.4,331,-0.220,-0.220,-0.220,0.000,0.000,0.000
1640068745815865088,"2021-12-21,06:39:05",10.1.1.4,0.37425684928894043,-0.220,-0.220,-0.220,0.000,0.000,0.000
1640068746153074944,"2021-12-21,06:39:06",10.1.1.4,335,-0.210,-0.210,-0.210,0.000,0.000,0.000
1640068746215097856,"2021-12-21,06:39:06",10.1.1.4,0.3973209857940674,-0.210,-0.210,-0.210,0.000,0.000,0.000
1640068746572128000,"2021-12-21,06:39:06",10.1.1.4,353,-0.200,-0.200,-0.200,0.000,0.000,0.000
1640068746640964096,"2021-12-21,06:39:06",10.1.1.4,0.4221930503845215,-0.200,-0.200,-0.200,0.000,0.000,0.000
1640068746992219904,"2021-12-21,06:39:06",10.1.1.4,349,-0.190,-0.190,-0.190,0.000,0.000,0.000
1640068747055136000,"2021-12-21,06:39:07",10.1.1.4,0.41247105598449707,-0.190,-0.190,-0.190,0.000,0.000,0.000
1640068747450719232,"2021-12-21,06:39:07",10.1.1.4,392,-0.180,-0.180,-0.180,0.000,0.000,0.000
1640068747501852160,"2021-12-21,06:39:07",10.1.1.4,0.4440751075744629,-0.180,-0.180,-0.180,0.000,0.000,0.000
1640068747860416000,"2021-12-21,06:39:07",10.1.1.4,356,-0.170,-0.170,-0.170,0.000,0.000,0.000
1640068747865809920,"2021-12-21,06:39:07",10.1.1.4,0.36232805252075195,-0.170,-0.170,-0.170,0.000,0.000,0.000
1640068748179821056,"2021-12-21,06:39:08",10.1.1.4,311,-0.160,-0.160,-0.160,0.000,0.000,0.000
1640068748233395200,"2021-12-21,06:39:08",10.1.1.4,0.36534714698791504,-0.160,-0.160,-0.160,0.000,0.000,0.000
1640068748539483904,"2021-12-21,06:39:08",10.1.1.4,304,-0.150,-0.150,-0.150,0.000,0.000,0.000
1640068748584216064,"2021-12-21,06:39:08",10.1.1.4,0.34928417205810547,-0.150,-0.150,-0.150,0.000,0.000,0.000
1640068748888665088,"2021-12-21,06:39:08",10.1.1.4,302,-0.140,-0.140,-0.140,0.000,0.000,0.000
1640068748933522944,"2021-12-21,06:39:08",10.1.1.4,0.3468360900878906,-0.140,-0.140,-0.140,0.000,0.000,0.000
1640068749258085888,"2021-12-21,06:39:09",10.1.1.4,322,-0.130,-0.130,-0.130,0.000,0.000,0.000
1640068749286086144,"2021-12-21,06:39:09",10.1.1.4,0.3504140377044678,-0.130,-0.130,-0.130,0.000,0.000,0.000
1640068749581412096,"2021-12-21,06:39:09",10.1.1.4,293,-0.120,-0.120,-0.120,0.000,0.000,0.000
1640068749612091136,"2021-12-21,06:39:09",10.1.1.4,0.3240029811859131,-0.120,-0.120,-0.120,0.000,0.000,0.000
1640068749976790016,"2021-12-21,06:39:09",10.1.1.4,363,-0.110,-0.110,-0.110,0.000,0.000,0.000
1640068750020621056,"2021-12-21,06:39:10",10.1.1.4,0.40706586837768555,-0.110,-0.110,-0.110,0.000,0.000,0.000
1640068750388304896,"2021-12-21,06:39:10",10.1.1.4,366,-0.100,-0.100,-0.100,0.000,0.000,0.000
1640068750435376896,"2021-12-21,06:39:10",10.1.1.4,0.4135138988494873,-0.100,-0.100,-0.100,0.000,0.000,0.000
1640068750792520960,"2021-12-21,06:39:10",10.1.1.4,355,-0.090,-0.090,-0.090,0.000,0.000,0.000
1640068750801358848,"2021-12-21,06:39:10",10.1.1.4,0.3646371364593506,-0.090,-0.090,-0.090,0.000,0.000,0.000
1640068751152486912,"2021-12-21,06:39:11",10.1.1.4,349,-0.080,-0.080,-0.080,0.000,0.000,0.000
1640068751210010112,"2021-12-21,06:39:11",10.1.1.4,0.40732383728027344,-0.080,-0.080,-0.080,0.000,0.000,0.000
1640068751624509184,"2021-12-21,06:39:11",10.1.1.4,407,-0.070,-0.070,-0.070,0.000,0.000,0.000
1640068751653285888,"2021-12-21,06:39:11",10.1.1.4,0.43648791313171387,-0.070,-0.070,-0.070,0.000,0.000,0.000
1640068752021327104,"2021-12-21,06:39:12",10.1.1.4,366,-0.060,-0.060,-0.060,0.000,0.000,0.000
1640068752034183936,"2021-12-21,06:39:12",10.1.1.4,0.3791079521179199,-0.060,-0.060,-0.060,0.000,0.000,0.000
1640068752510004992,"2021-12-21,06:39:12",10.1.1.4,473,-0.050,-0.050,-0.050,0.000,0.000,0.000
1640068752537733120,"2021-12-21,06:39:12",10.1.1.4,0.5012631416320801,-0.050,-0.050,-0.050,0.000,0.000,0.000
1640068752850653952,"2021-12-21,06:39:12",10.1.1.4,307,-0.040,-0.040,-0.040,0.000,0.000,0.000
1640068752898078976,"2021-12-21,06:39:12",10.1.1.4,0.3547999858856201,-0.040,-0.040,-0.040,0.000,0.000,0.000
1640068753237191936,"2021-12-21,06:39:13",10.1.1.4,337,-0.030,-0.030,-0.030,0.000,0.000,0.000
1640068753257178112,"2021-12-21,06:39:13",10.1.1.4,0.3574349880218506,-0.030,-0.030,-0.030,0.000,0.000,0.000
1640068753635788032,"2021-12-21,06:39:13",10.1.1.4,376,-0.020,-0.020,-0.020,0.000,0.000,0.000
1640068753670532096,"2021-12-21,06:39:13",10.1.1.4,0.4115159511566162,-0.020,-0.020,-0.020,0.000,0.000,0.000
1640068754045942016,"2021-12-21,06:39:14",10.1.1.4,373,-0.010,-0.010,-0.010,0.000,0.000,0.000
1640068754114508032,"2021-12-21,06:39:14",10.1.1.4,0.44256591796875,-0.010,-0.010,-0.010,0.000,0.000,0.000
1640068754517425152,"2021-12-21,06:39:14",10.1.1.4,397,0.000,0.000,0.000,0.000,0.000,0.000
1640068754549209088,"2021-12-21,06:39:14",10.1.1.4,0.429703950881958,0.000,0.000,0.000,0.000,0.000,0.000
1640068754876156928,"2021-12-21,06:39:14",10.1.1.4,319,-0.010,-0.010,-0.010,0.000,0.000,0.000
1640068754900228096,"2021-12-21,06:39:14",10.1.1.4,0.34317708015441895,-0.010,-0.010,-0.010,0.000,0.000,0.000
1640068755266192896,"2021-12-21,06:39:15",10.1.1.4,364,-0.020,-0.020,-0.020,0.000,0.000,0.000
1640068755305224960,"2021-12-21,06:39:15",10.1.1.4,0.4032621383666992,-0.020,-0.020,-0.020,0.000,0.000,0.000
1640068755667668992,"2021-12-21,06:39:15",10.1.1.4,360,-0.030,-0.030,-0.030,0.000,0.000,0.000
1640068755685074176,"2021-12-21,06:39:15",10.1.1.4,0.3768320083618164,-0.030,-0.030,-0.030,0.000,0.000,0.000
1640068756008836864,"2021-12-21,06:39:16",10.1.1.4,321,-0.040,-0.040,-0.040,0.000,0.000,0.000
1640068756060129024,"2021-12-21,06:39:16",10.1.1.4,0.3736259937286377,-0.040,-0.040,-0.040,0.000,0.000,0.000
1640068756360493824,"2021-12-21,06:39:16",10.1.1.4,297,-0.050,-0.050,-0.050,0.000,0.000,0.000
1640068756385287936,"2021-12-21,06:39:16",10.1.1.4,0.3224341869354248,-0.050,-0.050,-0.050,0.000,0.000,0.000
1640068756748886016,"2021-12-21,06:39:16",10.1.1.4,361,-0.060,-0.060,-0.060,0.000,0.000,0.000
1640068756815392000,"2021-12-21,06:39:16",10.1.1.4,0.42772793769836426,-0.060,-0.060,-0.060,0.000,0.000,0.000
1640068757162457856,"2021-12-21,06:39:17",10.1.1.4,345,-0.070,-0.070,-0.070,0.000,0.000,0.000
1640068757217144064,"2021-12-21,06:39:17",10.1.1.4,0.400266170501709,-0.070,-0.070,-0.070,0.000,0.000,0.000
1640068757590465024,"2021-12-21,06:39:17",10.1.1.4,372,-0.080,-0.080,-0.080,0.000,0.000,0.000
1640068757640845056,"2021-12-21,06:39:17",10.1.1.4,0.4224269390106201,-0.080,-0.080,-0.080,0.000,0.000,0.000
1640068757955877120,"2021-12-21,06:39:17",10.1.1.4,313,-0.090,-0.090,-0.090,0.000,0.000,0.000
1640068758012347904,"2021-12-21,06:39:18",10.1.1.4,0.37024712562561035,-0.090,-0.090,-0.090,0.000,0.000,0.000
1640068758352206848,"2021-12-21,06:39:18",10.1.1.4,338,-0.100,-0.100,-0.100,0.000,0.000,0.000
1640068758368868096,"2021-12-21,06:39:18",10.1.1.4,0.35486698150634766,-0.100,-0.100,-0.100,0.000,0.000,0.000
1640068758710608128,"2021-12-21,06:39:18",10.1.1.4,340,-0.110,-0.110,-0.110,0.000,0.000,0.000
1640068758743457024,"2021-12-21,06:39:18",10.1.1.4,0.37325406074523926,-0.110,-0.110,-0.110,0.000,0.000,0.000
1640068759060921856,"2021-12-21,06:39:19",10.1.1.4,313,-0.120,-0.120,-0.120,0.000,0.000,0.000
1640068759085143040,"2021-12-21,06:39:19",10.1.1.4,0.3375530242919922,-0.120,-0.120,-0.120,0.000,0.000,0.000
1640068759413240064,"2021-12-21,06:39:19",10.1.1.4,326,-0.130,-0.130,-0.130,0.000,0.000,0.000
1640068759425105152,"2021-12-21,06:39:19",10.1.1.4,0.338655948638916,-0.130,-0.130,-0.130,0.000,0.000,0.000
1640068759751916800,"2021-12-21,06:39:19",10.1.1.4,325,-0.140,-0.140,-0.140,0.000,0.000,0.000
1640068759766978048,"2021-12-21,06:39:19",10.1.1.4,0.3405301570892334,-0.140,-0.140,-0.140,0.000,0.000,0.000
1640068760104427008,"2021-12-21,06:39:20",10.1.1.4,334,-0.150,-0.150,-0.150,0.000,0.000,0.000
1640068760126231808,"2021-12-21,06:39:20",10.1.1.4,0.356978178024292,-0.150,-0.150,-0.150,0.000,0.000,0.000
1640068760442948096,"2021-12-21,06:39:20",10.1.1.4,313,-0.160,-0.160,-0.160,0.000,0.000,0.000
1640068760481489920,"2021-12-21,06:39:20",10.1.1.4,0.3526029586791992,-0.160,-0.160,-0.160,0.000,0.000,0.000
1640068760846034944,"2021-12-21,06:39:20",10.1.1.4,358,-0.170,-0.170,-0.170,0.000,0.000,0.000
1640068760866245120,"2021-12-21,06:39:20",10.1.1.4,0.37906908988952637,-0.170,-0.170,-0.170,0.000,0.000,0.000
1640068761202138880,"2021-12-21,06:39:21",10.1.1.4,334,-0.180,-0.180,-0.180,0.000,0.000,0.000
1640068761285243904,"2021-12-21,06:39:21",10.1.1.4,0.41718196868896484,-0.180,-0.180,-0.180,0.000,0.000,0.000
1640068761601533952,"2021-12-21,06:39:21",10.1.1.4,314,-0.190,-0.190,-0.190,0.000,0.000,0.000
1640068761641483008,"2021-12-21,06:39:21",10.1.1.4,0.35432982444763184,-0.190,-0.190,-0.190,0.000,0.000,0.000
1640068761971895808,"2021-12-21,06:39:21",10.1.1.4,328,-0.200,-0.200,-0.200,0.000,0.000,0.000
1640068762029787904,"2021-12-21,06:39:22",10.1.1.4,0.3865640163421631,-0.200,-0.200,-0.200,0.000,0.000,0.000
1640068762381761024,"2021-12-21,06:39:22",10.1.1.4,350,-0.210,-0.210,-0.210,0.000,0.000,0.000
1640068762425441024,"2021-12-21,06:39:22",10.1.1.4,0.3941318988800049,-0.210,-0.210,-0.210,0.000,0.000,0.000
1640068762754334976,"2021-12-21,06:39:22",10.1.1.4,327,-0.220,-0.220,-0.220,0.000,0.000,0.000
1640068762816820992,"2021-12-21,06:39:22",10.1.1.4,0.3901331424713135,-0.220,-0.220,-0.220,0.000,0.000,0.000
1640068763185203968,"2021-12-21,06:39:23",10.1.1.4,366,-0.230,-0.230,-0.230,0.000,0.000,0.000
1640068763241105920,"2021-12-21,06:39:23",10.1.1.4,0.4229421615600586,-0.230,-0.230,-0.230,0.000,0.000,0.000
1640068763552911104,"2021-12-21,06:39:23",10.1.1.4,310,-0.240,-0.240,-0.240,0.000,0.000,0.000
1640068763565104128,"2021-12-21,06:39:23",10.1.1.4,0.32274603843688965,-0.240,-0.240,-0.240,0.000,0.000,0.000
1640068763892643072,"2021-12-21,06:39:23",10.1.1.4,326,-0.250,-0.250,-0.250,0.000,0.000,0.000
1640068763960227072,"2021-12-21,06:39:23",10.1.1.4,0.3933429718017578,-0.250,-0.250,-0.250,0.000,0.000,0.000
1640068764311919872,"2021-12-21,06:39:24",10.1.1.4,339,-0.260,-0.260,-0.260,0.000,0.000,0.000
1640068764372931840,"2021-12-21,06:39:24",10.1.1.4,0.3998739719390869,-0.260,-0.260,-0.260,0.000,0.000,0.000
1640068764730948864,"2021-12-21,06:39:24",10.1.1.4,356,-0.270,-0.270,-0.270,0.000,0.000,0.000
1640068764743652096,"2021-12-21,06:39:24",10.1.1.4,0.36929893493652344,-0.270,-0.270,-0.270,0.000,0.000,0.000
1640068765100303872,"2021-12-21,06:39:25",10.1.1.4,354,-0.280,-0.280,-0.280,0.000,0.000,0.000
1640068765135056896,"2021-12-21,06:39:25",10.1.1.4,0.38973116874694824,-0.280,-0.280,-0.280,0.000,0.000,0.000
1640068765441415168,"2021-12-21,06:39:25",10.1.1.4,304,-0.290,-0.290,-0.290,0.000,0.000,0.000
1640068765471622912,"2021-12-21,06:39:25",10.1.1.4,0.33487892150878906,-0.290,-0.290,-0.290,0.000,0.000,0.000
1640068765800494080,"2021-12-21,06:39:25",10.1.1.4,327,-0.300,-0.300,-0.300,0.000,0.000,0.000
1640068765816090112,"2021-12-21,06:39:25",10.1.1.4,0.3428349494934082,-0.300,-0.300,-0.300,0.000,0.000,0.000
1640068766140378112,"2021-12-21,06:39:26",10.1.1.4,322,-0.310,-0.310,-0.310,0.000,0.000,0.000
1640068766183916032,"2021-12-21,06:39:26",10.1.1.4,0.36634016036987305,-0.310,-0.310,-0.310,0.000,0.000,0.000
1640068766544537088,"2021-12-21,06:39:26",10.1.1.4,358,-0.320,-0.320,-0.320,0.000,0.000,0.000
1640068766576299008,"2021-12-21,06:39:26",10.1.1.4,0.39052891731262207,-0.320,-0.320,-0.320,0.000,0.000,0.000
1640068766898916096,"2021-12-21,06:39:26",10.1.1.4,320,-0.330,-0.330,-0.330,0.000,0.000,0.000
1640068766959408128,"2021-12-21,06:39:26",10.1.1.4,0.38105297088623047,-0.330,-0.330,-0.330,0.000,0.000,0.000
1640068767398059008,"2021-12-21,06:39:27",10.1.1.4,435,-0.340,-0.340,-0.340,0.000,0.000,0.000
1640068767455746816,"2021-12-21,06:39:27",10.1.1.4,0.490231990814209,-0.340,-0.340,-0.340,0.000,0.000,0.000
1640068767828833024,"2021-12-21,06:39:27",10.1.1.4,361,-0.350,-0.350,-0.350,0.000,0.000,0.000
1640068767871961088,"2021-12-21,06:39:27",10.1.1.4,0.4055671691894531,-0.350,-0.350,-0.350,0.000,0.000,0.000
1640068768218017024,"2021-12-21,06:39:28",10.1.1.4,344,-0.360,-0.360,-0.360,0.000,0.000,0.000
1640068768271497984,"2021-12-21,06:39:28",10.1.1.4,0.39815592765808105,-0.360,-0.360,-0.360,0.000,0.000,0.000
1640068768704071936,"2021-12-21,06:39:28",10.1.1.4,431,-0.370,-0.370,-0.370,0.000,0.000,0.000
1640068768736660992,"2021-12-21,06:39:28",10.1.1.4,0.4639861583709717,-0.370,-0.370,-0.370,0.000,0.000,0.000
1640068769069811968,"2021-12-21,06:39:29",10.1.1.4,331,-0.380,-0.380,-0.380,0.000,0.000,0.000
1640068769097789952,"2021-12-21,06:39:29",10.1.1.4,0.35985708236694336,-0.380,-0.380,-0.380,0.000,0.000,0.000
1640068769516316928,"2021-12-21,06:39:29",10.1.1.4,416,-0.390,-0.390,-0.390,0.000,0.000,0.000
1640068769569080064,"2021-12-21,06:39:29",10.1.1.4,0.46927690505981445,-0.390,-0.390,-0.390,0.000,0.000,0.000
1640068769965773056,"2021-12-21,06:39:29",10.1.1.4,393,-0.400,-0.400,-0.400,0.000,0.000,0.000
1640068770003073024,"2021-12-21,06:39:30",10.1.1.4,0.4308159351348877,-0.400,-0.400,-0.400,0.000,0.000,0.000
1640068770325692928,"2021-12-21,06:39:30",10.1.1.4,320,-0.410,-0.410,-0.410,0.000,0.000,0.000
1640068770339469056,"2021-12-21,06:39:30",10.1.1.4,0.33423399925231934,-0.410,-0.410,-0.410,0.000,0.000,0.000
1640068770666297856,"2021-12-21,06:39:30",10.1.1.4,322,-0.420,-0.420,-0.420,0.000,0.000,0.000
1640068770727076096,"2021-12-21,06:39:30",10.1.1.4,0.3831470012664795,-0.420,-0.420,-0.420,0.000,0.000,0.000
1640068771024019968,"2021-12-21,06:39:31",10.1.1.4,295,-0.430,-0.430,-0.430,0.000,0.000,0.000
1640068771060525056,"2021-12-21,06:39:31",10.1.1.4,0.3320958614349365,-0.430,-0.430,-0.430,0.000,0.000,0.000
1640068771364130048,"2021-12-21,06:39:31",10.1.1.4,302,-0.440,-0.440,-0.440,0.000,0.000,0.000
1640068771400284160,"2021-12-21,06:39:31",10.1.1.4,0.3382411003112793,-0.440,-0.440,-0.440,0.000,0.000,0.000
1640068771706574848,"2021-12-21,06:39:31",10.1.1.4,304,-0.450,-0.450,-0.450,0.000,0.000,0.000
1640068771764118784,"2021-12-21,06:39:31",10.1.1.4,0.3620638847351074,-0.450,-0.450,-0.450,0.000,0.000,0.000
1640068772156656896,"2021-12-21,06:39:32",10.1.1.4,390,-0.460,-0.460,-0.460,0.000,0.000,0.000
1640068772179707904,"2021-12-21,06:39:32",10.1.1.4,0.41362905502319336,-0.460,-0.460,-0.460,0.000,0.000,0.000
1640068772532585984,"2021-12-21,06:39:32",10.1.1.4,351,-0.470,-0.470,-0.470,0.000,0.000,0.000
1640068772569888000,"2021-12-21,06:39:32",10.1.1.4,0.38865113258361816,-0.470,-0.470,-0.470,0.000,0.000,0.000
1640068772911549184,"2021-12-21,06:39:32",10.1.1.4,338,-0.480,-0.480,-0.480,0.000,0.000,0.000
1640068772955990016,"2021-12-21,06:39:32",10.1.1.4,0.3830080032348633,-0.480,-0.480,-0.480,0.000,0.000,0.000
1640068773358045184,"2021-12-21,06:39:33",10.1.1.4,383,-0.490,-0.490,-0.490,0.000,0.000,0.000
1640068773379337984,"2021-12-21,06:39:33",10.1.1.4,0.4053528308868408,-0.490,-0.490,-0.490,0.000,0.000,0.000
1640068773780615168,"2021-12-21,06:39:33",10.1.1.4,398,-0.480,-0.480,-0.480,0.000,0.000,0.000
1640068773819680000,"2021-12-21,06:39:33",10.1.1.4,0.4376640319824219,-0.480,-0.480,-0.480,0.000,0.000,0.000
1640068774140124160,"2021-12-21,06:39:34",10.1.1.4,317,-0.470,-0.470,-0.470,0.000,0.000,0.000
1640068774183200000,"2021-12-21,06:39:34",10.1.1.4,0.3609340190887451,-0.470,-0.470,-0.470,0.000,0.000,0.000
1640068774539642112,"2021-12-21,06:39:34",10.1.1.4,354,-0.460,-0.460,-0.460,0.000,0.000,0.000
1640068774576617984,"2021-12-21,06:39:34",10.1.1.4,0.3899528980255127,-0.460,-0.460,-0.460,0.000,0.000,0.000
1640068774888856832,"2021-12-21,06:39:34",10.1.1.4,310,-0.450,-0.450,-0.450,0.000,0.000,0.000
1640068774919266816,"2021-12-21,06:39:34",10.1.1.4,0.34084510803222656,-0.450,-0.450,-0.450,0.000,0.000,0.000
1640068775243831040,"2021-12-21,06:39:35",10.1.1.4,322,-0.440,-0.440,-0.440,0.000,0.000,0.000
1640068775298930944,"2021-12-21,06:39:35",10.1.1.4,0.37705111503601074,-0.440,-0.440,-0.440,0.000,0.000,0.000
1640068775636013056,"2021-12-21,06:39:35",10.1.1.4,335,-0.430,-0.430,-0.430,0.000,0.000,0.000
1640068775661881856,"2021-12-21,06:39:35",10.1.1.4,0.3614540100097656,-0.430,-0.430,-0.430,0.000,0.000,0.000
1640068775968535040,"2021-12-21,06:39:35",10.1.1.4,305,-0.420,-0.420,-0.420,0.000,0.000,0.000
1640068776006369024,"2021-12-21,06:39:36",10.1.1.4,0.3430190086364746,-0.420,-0.420,-0.420,0.000,0.000,0.000
1640068776329131008,"2021-12-21,06:39:36",10.1.1.4,316,-0.410,-0.410,-0.410,0.000,0.000,0.000
1640068776368994048,"2021-12-21,06:39:36",10.1.1.4,0.35761404037475586,-0.410,-0.410,-0.410,0.000,0.000,0.000
1640068776768041984,"2021-12-21,06:39:36",10.1.1.4,393,-0.400,-0.400,-0.400,0.000,0.000,0.000
1640068776804164864,"2021-12-21,06:39:36",10.1.1.4,0.42975306510925293,-0.400,-0.400,-0.400,0.000,0.000,0.000
1640068777156186112,"2021-12-21,06:39:37",10.1.1.4,350,-0.390,-0.390,-0.390,0.000,0.000,0.000
1640068777186126080,"2021-12-21,06:39:37",10.1.1.4,0.38016295433044434,-0.390,-0.390,-0.390,0.000,0.000,0.000
1640068777535763968,"2021-12-21,06:39:37",10.1.1.4,340,-0.380,-0.380,-0.380,0.000,0.000,0.000
1640068777544296960,"2021-12-21,06:39:37",10.1.1.4,0.3490259647369385,-0.380,-0.380,-0.380,0.000,0.000,0.000
1640068777855136000,"2021-12-21,06:39:37",10.1.1.4,307,-0.370,-0.370,-0.370,0.000,0.000,0.000
1640068777886085120,"2021-12-21,06:39:37",10.1.1.4,0.3383607864379883,-0.370,-0.370,-0.370,0.000,0.000,0.000
1640068778267910912,"2021-12-21,06:39:38",10.1.1.4,372,-0.360,-0.360,-0.360,0.000,0.000,0.000
1640068778295403008,"2021-12-21,06:39:38",10.1.1.4,0.40022897720336914,-0.360,-0.360,-0.360,0.000,0.000,0.000
1640068778623863040,"2021-12-21,06:39:38",10.1.1.4,327,-0.350,-0.350,-0.350,0.000,0.000,0.000
1640068778668610048,"2021-12-21,06:39:38",10.1.1.4,0.3717169761657715,-0.350,-0.350,-0.350,0.000,0.000,0.000
1640068779015069952,"2021-12-21,06:39:39",10.1.1.4,341,-0.340,-0.340,-0.340,0.000,0.000,0.000
1640068779035028992,"2021-12-21,06:39:39",10.1.1.4,0.3632540702819824,-0.340,-0.340,-0.340,0.000,0.000,0.000
1640068779342326016,"2021-12-21,06:39:39",10.1.1.4,306,-0.330,-0.330,-0.330,0.000,0.000,0.000
1640068779470031104,"2021-12-21,06:39:39",10.1.1.4,0.4337489604949951,-0.330,-0.330,-0.330,0.000,0.000,0.000
1640068779832314880,"2021-12-21,06:39:39",10.1.1.4,359,-0.320,-0.320,-0.320,0.000,0.000,0.000
1640068779935516160,"2021-12-21,06:39:39",10.1.1.4,0.46277308464050293,-0.320,-0.320,-0.320,0.000,0.000,0.000
1640068780301752064,"2021-12-21,06:39:40",10.1.1.4,364,-0.310,-0.310,-0.310,0.000,0.000,0.000
1640068780369251840,"2021-12-21,06:39:40",10.1.1.4,0.4325242042541504,-0.310,-0.310,-0.310,0.000,0.000,0.000
1640068780689981952,"2021-12-21,06:39:40",10.1.1.4,319,-0.300,-0.300,-0.300,0.000,0.000,0.000
1640068780765552896,"2021-12-21,06:39:40",10.1.1.4,0.3948390483856201,-0.300,-0.300,-0.300,0.000,0.000,0.000
1640068781129445120,"2021-12-21,06:39:41",10.1.1.4,360,-0.290,-0.290,-0.290,0.000,0.000,0.000
1640068781151396096,"2021-12-21,06:39:41",10.1.1.4,0.38260388374328613,-0.290,-0.290,-0.290,0.000,0.000,0.000
1640068781531275008,"2021-12-21,06:39:41",10.1.1.4,378,-0.280,-0.280,-0.280,0.000,0.000,0.000
1640068781614304000,"2021-12-21,06:39:41",10.1.1.4,0.46167707443237305,-0.280,-0.280,-0.280,0.000,0.000,0.000
1640068781969719040,"2021-12-21,06:39:41",10.1.1.4,352,-0.270,-0.270,-0.270,0.000,0.000,0.000
1640068782012999936,"2021-12-21,06:39:42",10.1.1.4,0.39595818519592285,-0.270,-0.270,-0.270,0.000,0.000,0.000
1640068782378348032,"2021-12-21,06:39:42",10.1.1.4,363,-0.260,-0.260,-0.260,0.000,0.000,0.000
1640068782406738944,"2021-12-21,06:39:42",10.1.1.4,0.39188313484191895,-0.260,-0.260,-0.260,0.000,0.000,0.000
1640068782778392064,"2021-12-21,06:39:42",10.1.1.4,364,-0.250,-0.250,-0.250,0.000,0.000,0.000
1640068782798010112,"2021-12-21,06:39:42",10.1.1.4,0.38376283645629883,-0.250,-0.250,-0.250,0.000,0.000,0.000
1640068783137094144,"2021-12-21,06:39:43",10.1.1.4,336,-0.240,-0.240,-0.240,0.000,0.000,0.000
1640068783190316032,"2021-12-21,06:39:43",10.1.1.4,0.3817160129547119,-0.240,-0.240,-0.240,0.000,0.000,0.000
1640068783551723008,"2021-12-21,06:39:43",10.1.1.4,359,-0.230,-0.230,-0.230,0.000,0.000,0.000
1640068783584563968,"2021-12-21,06:39:43",10.1.1.4,0.392362117767334,-0.230,-0.230,-0.230,0.000,0.000,0.000
1640068783901658112,"2021-12-21,06:39:43",10.1.1.4,312,-0.220,-0.220,-0.220,0.000,0.000,0.000
1640068783980187904,"2021-12-21,06:39:43",10.1.1.4,0.39084291458129883,-0.220,-0.220,-0.220,0.000,0.000,0.000
1640068784313530880,"2021-12-21,06:39:44",10.1.1.4,331,-0.210,-0.210,-0.210,0.000,0.000,0.000
1640068784402363136,"2021-12-21,06:39:44",10.1.1.4,0.4207930564880371,-0.210,-0.210,-0.210,0.000,0.000,0.000
1640068784776726016,"2021-12-21,06:39:44",10.1.1.4,370,-0.200,-0.200,-0.200,0.000,0.000,0.000
1640068784847152896,"2021-12-21,06:39:44",10.1.1.4,0.4409520626068115,-0.200,-0.200,-0.200,0.000,0.000,0.000
1640068785206644992,"2021-12-21,06:39:45",10.1.1.4,356,-0.190,-0.190,-0.190,0.000,0.000,0.000
1640068785258779136,"2021-12-21,06:39:45",10.1.1.4,0.4090759754180908,-0.190,-0.190,-0.190,0.000,0.000,0.000
1640068785609249024,"2021-12-21,06:39:45",10.1.1.4,347,-0.180,-0.180,-0.180,0.000,0.000,0.000
1640068785648619776,"2021-12-21,06:39:45",10.1.1.4,0.38682103157043457,-0.180,-0.180,-0.180,0.000,0.000,0.000
1640068785968817920,"2021-12-21,06:39:45",10.1.1.4,318,-0.170,-0.170,-0.170,0.000,0.000,0.000
1640068786011877120,"2021-12-21,06:39:46",10.1.1.4,0.36154794692993164,-0.170,-0.170,-0.170,0.000,0.000,0.000
1640068786340918016,"2021-12-21,06:39:46",10.1.1.4,326,-0.160,-0.160,-0.160,0.000,0.000,0.000
1640068786369074176,"2021-12-21,06:39:46",10.1.1.4,0.3551061153411865,-0.160,-0.160,-0.160,0.000,0.000,0.000
1640068786733624064,"2021-12-21,06:39:46",10.1.1.4,361,-0.150,-0.150,-0.150,0.000,0.000,0.000
1640068786761451008,"2021-12-21,06:39:46",10.1.1.4,0.3890821933746338,-0.150,-0.150,-0.150,0.000,0.000,0.000
1640068787082340096,"2021-12-21,06:39:47",10.1.1.4,317,-0.140,-0.140,-0.140,0.000,0.000,0.000
1640068787133234944,"2021-12-21,06:39:47",10.1.1.4,0.36866116523742676,-0.140,-0.140,-0.140,0.000,0.000,0.000
1640068787523362048,"2021-12-21,06:39:47",10.1.1.4,387,-0.130,-0.130,-0.130,0.000,0.000,0.000
1640068787577435904,"2021-12-21,06:39:47",10.1.1.4,0.44118785858154297,-0.130,-0.130,-0.130,0.000,0.000,0.000
1640068787916150016,"2021-12-21,06:39:47",10.1.1.4,336,-0.120,-0.120,-0.120,0.000,0.000,0.000
1640068787943432960,"2021-12-21,06:39:47",10.1.1.4,0.36479687690734863,-0.120,-0.120,-0.120,0.000,0.000,0.000
1640068788276342016,"2021-12-21,06:39:48",10.1.1.4,331,-0.110,-0.110,-0.110,0.000,0.000,0.000
1640068788309274880,"2021-12-21,06:39:48",10.1.1.4,0.3645930290222168,-0.110,-0.110,-0.110,0.000,0.000,0.000
1640068788665787904,"2021-12-21,06:39:48",10.1.1.4,355,-0.100,-0.100,-0.100,0.000,0.000,0.000
1640068788689611008,"2021-12-21,06:39:48",10.1.1.4,0.37862491607666016,-0.100,-0.100,-0.100,0.000,0.000,0.000
1640068788996092160,"2021-12-21,06:39:48",10.1.1.4,304,-0.090,-0.090,-0.090,0.000,0.000,0.000
1640068789049030144,"2021-12-21,06:39:49",10.1.1.4,0.3574080467224121,-0.090,-0.090,-0.090,0.000,0.000,0.000
1640068789388033024,"2021-12-21,06:39:49",10.1.1.4,337,-0.080,-0.080,-0.080,0.000,0.000,0.000
1640068789424701952,"2021-12-21,06:39:49",10.1.1.4,0.3738679885864258,-0.080,-0.080,-0.080,0.000,0.000,0.000
1640068789757875968,"2021-12-21,06:39:49",10.1.1.4,331,-0.070,-0.070,-0.070,0.000,0.000,0.000
1640068789776259072,"2021-12-21,06:39:49",10.1.1.4,0.350322961807251,-0.070,-0.070,-0.070,0.000,0.000,0.000
1640068790118267904,"2021-12-21,06:39:50",10.1.1.4,339,-0.060,-0.060,-0.060,0.000,0.000,0.000
1640068790160312832,"2021-12-21,06:39:50",10.1.1.4,0.3819580078125,-0.060,-0.060,-0.060,0.000,0.000,0.000
1640068790488282880,"2021-12-21,06:39:50",10.1.1.4,325,-0.050,-0.050,-0.050,0.000,0.000,0.000
1640068790501980928,"2021-12-21,06:39:50",10.1.1.4,0.33916282653808594,-0.050,-0.050,-0.050,0.000,0.000,0.000
1640068790848998144,"2021-12-21,06:39:50",10.1.1.4,345,-0.040,-0.040,-0.040,0.000,0.000,0.000
1640068790888663040,"2021-12-21,06:39:50",10.1.1.4,0.38530397415161133,-0.040,-0.040,-0.040,0.000,0.000,0.000
1640068791249896960,"2021-12-21,06:39:51",10.1.1.4,348,-0.030,-0.030,-0.030,0.000,0.000,0.000
1640068791282198784,"2021-12-21,06:39:51",10.1.1.4,0.38170695304870605,-0.030,-0.030,-0.030,0.000,0.000,0.000
1640068791683089920,"2021-12-21,06:39:51",10.1.1.4,395,-0.020,-0.020,-0.020,0.000,0.000,0.000
1640068791723449856,"2021-12-21,06:39:51",10.1.1.4,0.4311678409576416,-0.020,-0.020,-0.020,0.000,0.000,0.000
1640068792099611904,"2021-12-21,06:39:52",10.1.1.4,372,-0.010,-0.010,-0.010,0.000,0.000,0.000
1640068792174809856,"2021-12-21,06:39:52",10.1.1.4,0.4480009078979492,-0.010,-0.010,-0.010,0.000,0.000,0.000
1640068792489345024,"2021-12-21,06:39:52",10.1.1.4,312,0.000,0.000,0.000,0.000,0.000,0.000
1640068792543990016,"2021-12-21,06:39:52",10.1.1.4,0.3601491451263428,0.000,0.000,0.000,0.000,0.000,0.000
1640068792869534976,"2021-12-21,06:39:52",10.1.1.4,322,-0.010,-0.010,-0.010,0.000,0.000,0.000
1640068792901624832,"2021-12-21,06:39:52",10.1.1.4,0.3529679775238037,-0.010,-0.010,-0.010,0.000,0.000,0.000
1640068793263407104,"2021-12-21,06:39:53",10.1.1.4,354,-0.020,-0.020,-0.020,0.000,0.000,0.000
1640068793334448128,"2021-12-21,06:39:53",10.1.1.4,0.4260118007659912,-0.020,-0.020,-0.020,0.000,0.000,0.000
1640068793649355776,"2021-12-21,06:39:53",10.1.1.4,309,-0.030,-0.030,-0.030,0.000,0.000,0.000
1640068793681211904,"2021-12-21,06:39:53",10.1.1.4,0.3418290615081787,-0.030,-0.030,-0.030,0.000,0.000,0.000
1640068794034115072,"2021-12-21,06:39:54",10.1.1.4,351,-0.040,-0.040,-0.040,0.000,0.000,0.000
1640068794074132992,"2021-12-21,06:39:54",10.1.1.4,0.39091992378234863,-0.040,-0.040,-0.040,0.000,0.000,0.000
1640068794409383936,"2021-12-21,06:39:54",10.1.1.4,332,-0.050,-0.050,-0.050,0.000,0.000,0.000
1640068794462182912,"2021-12-21,06:39:54",10.1.1.4,0.3850898742675781,-0.050,-0.050,-0.050,0.000,0.000,0.000
1640068794790970112,"2021-12-21,06:39:54",10.1.1.4,326,-0.060,-0.060,-0.060,0.000,0.000,0.000
1640068794824110080,"2021-12-21,06:39:54",10.1.1.4,0.36060190200805664,-0.060,-0.060,-0.060,0.000,0.000,0.000
1640068795160083968,"2021-12-21,06:39:55",10.1.1.4,334,-0.070,-0.070,-0.070,0.000,0.000,0.000
1640068795227308032,"2021-12-21,06:39:55",10.1.1.4,0.40195298194885254,-0.070,-0.070,-0.070,0.000,0.000,0.000
1640068795519442944,"2021-12-21,06:39:55",10.1.1.4,289,-0.080,-0.080,-0.080,0.000,0.000,0.000
1640068795546680832,"2021-12-21,06:39:55",10.1.1.4,0.3172190189361572,-0.080,-0.080,-0.080,0.000,0.000,0.000
1640068795893171968,"2021-12-21,06:39:55",10.1.1.4,341,-0.090,-0.090,-0.090,0.000,0.000,0.000
1640068795960598016,"2021-12-21,06:39:55",10.1.1.4,0.41199684143066406,-0.090,-0.090,-0.090,0.000,0.000,0.000
1640068796310394112,"2021-12-21,06:39:56",10.1.1.4,343,-0.100,-0.100,-0.100,0.000,0.000,0.000
1640068796338802944,"2021-12-21,06:39:56",10.1.1.4,0.37163686752319336,-0.100,-0.100,-0.100,0.000,0.000,0.000
1640068796684041984,"2021-12-21,06:39:56",10.1.1.4,343,-0.110,-0.110,-0.110,0.000,0.000,0.000
1640068796755507968,"2021-12-21,06:39:56",10.1.1.4,0.41503477096557617,-0.110,-0.110,-0.110,0.000,0.000,0.000
1640068797101742080,"2021-12-21,06:39:57",10.1.1.4,342,-0.120,-0.120,-0.120,0.000,0.000,0.000
1640068797149389056,"2021-12-21,06:39:57",10.1.1.4,0.39228200912475586,-0.120,-0.120,-0.120,0.000,0.000,0.000
1640068797468969216,"2021-12-21,06:39:57",10.1.1.4,317,-0.130,-0.130,-0.130,0.000,0.000,0.000
1640068797508158976,"2021-12-21,06:39:57",10.1.1.4,0.3573269844055176,-0.130,-0.130,-0.130,0.000,0.000,0.000
1640068797857984000,"2021-12-21,06:39:57",10.1.1.4,348,-0.140,-0.140,-0.140,0.000,0.000,0.000
1640068797872498944,"2021-12-21,06:39:57",10.1.1.4,0.36273980140686035,-0.140,-0.140,-0.140,0.000,0.000,0.000
1640068798197841920,"2021-12-21,06:39:58",10.1.1.4,323,-0.150,-0.150,-0.150,0.000,0.000,0.000
1640068798266531840,"2021-12-21,06:39:58",10.1.1.4,0.3924520015716553,-0.150,-0.150,-0.150,0.000,0.000,0.000
1640068798608922112,"2021-12-21,06:39:58",10.1.1.4,337,-0.160,-0.160,-0.160,0.000,0.000,0.000
1640068798654979072,"2021-12-21,06:39:58",10.1.1.4,0.38356494903564453,-0.160,-0.160,-0.160,0.000,0.000,0.000
1640068798976944896,"2021-12-21,06:39:58",10.1.1.4,320,-0.170,-0.170,-0.170,0.000,0.000,0.000
1640068799067650048,"2021-12-21,06:39:59",10.1.1.4,0.4113578796386719,-0.170,-0.170,-0.170,0.000,0.000,0.000
1640068799377370112,"2021-12-21,06:39:59",10.1.1.4,308,-0.180,-0.180,-0.180,0.000,0.000,0.000
1640068799424644864,"2021-12-21,06:39:59",10.1.1.4,0.3553428649902344,-0.180,-0.180,-0.180,0.000,0.000,0.000
1640068799747915008,"2021-12-21,06:39:59",10.1.1.4,317,-0.190,-0.190,-0.190,0.000,0.000,0.000
1640068799808291072,"2021-12-21,06:39:59",10.1.1.4,0.37836599349975586,-0.190,-0.190,-0.190,0.000,0.000,0.000
1640068800186106880,"2021-12-21,06:40:00",10.1.1.4,374,-0.200,-0.200,-0.200,0.000,0.000,0.000
1640068800203734016,"2021-12-21,06:40:00",10.1.1.4,0.3921167850494385,-0.200,-0.200,-0.200,0.000,0.000,0.000
1640068800595796992,"2021-12-21,06:40:00",10.1.1.4,390,-0.210,-0.210,-0.210,0.000,0.000,0.000
1640068800642391040,"2021-12-21,06:40:00",10.1.1.4,0.43715906143188477,-0.210,-0.210,-0.210,0.000,0.000,0.000
1640068800985875968,"2021-12-21,06:40:00",10.1.1.4,341,-0.220,-0.220,-0.220,0.000,0.000,0.000
1640068801051228160,"2021-12-21,06:40:01",10.1.1.4,0.406566858291626,-0.220,-0.220,-0.220,0.000,0.000,0.000
1640068801415564032,"2021-12-21,06:40:01",10.1.1.4,357,-0.230,-0.230,-0.230,0.000,0.000,0.000
1640068801507741952,"2021-12-21,06:40:01",10.1.1.4,0.44979000091552734,-0.230,-0.230,-0.230,0.000,0.000,0.000
1640068801897937920,"2021-12-21,06:40:01",10.1.1.4,387,-0.240,-0.240,-0.240,0.000,0.000,0.000
1640068801939101952,"2021-12-21,06:40:01",10.1.1.4,0.4288170337677002,-0.240,-0.240,-0.240,0.000,0.000,0.000
1640068802293766912,"2021-12-21,06:40:02",10.1.1.4,352,-0.250,-0.250,-0.250,0.000,0.000,0.000
1640068802323817984,"2021-12-21,06:40:02",10.1.1.4,0.3822140693664551,-0.250,-0.250,-0.250,0.000,0.000,0.000
1640068802744410880,"2021-12-21,06:40:02",10.1.1.4,404,-0.260,-0.260,-0.260,0.000,0.000,0.000
1640068802805777920,"2021-12-21,06:40:02",10.1.1.4,0.46607112884521484,-0.260,-0.260,-0.260,0.000,0.000,0.000
1640068803153209856,"2021-12-21,06:40:03",10.1.1.4,335,-0.270,-0.270,-0.270,0.000,0.000,0.000
1640068803204765952,"2021-12-21,06:40:03",10.1.1.4,0.386915922164917,-0.270,-0.270,-0.270,0.000,0.000,0.000
1640068803576601856,"2021-12-21,06:40:03",10.1.1.4,363,-0.280,-0.280,-0.280,0.000,0.000,0.000
1640068803644013824,"2021-12-21,06:40:03",10.1.1.4,0.4313390254974365,-0.280,-0.280,-0.280,0.000,0.000,0.000
1640068804041889024,"2021-12-21,06:40:04",10.1.1.4,396,-0.290,-0.290,-0.290,0.000,0.000,0.000
1640068804131840000,"2021-12-21,06:40:04",10.1.1.4,0.48610401153564453,-0.290,-0.290,-0.290,0.000,0.000,0.000
1640068804501590016,"2021-12-21,06:40:04",10.1.1.4,367,-0.300,-0.300,-0.300,0.000,0.000,0.000
1640068804581228032,"2021-12-21,06:40:04",10.1.1.4,0.44763803482055664,-0.300,-0.300,-0.300,0.000,0.000,0.000
1640068804930945024,"2021-12-21,06:40:04",10.1.1.4,348,-0.310,-0.310,-0.310,0.000,0.000,0.000
1640068804964150784,"2021-12-21,06:40:04",10.1.1.4,0.3815789222717285,-0.310,-0.310,-0.310,0.000,0.000,0.000
1640068805370129152,"2021-12-21,06:40:05",10.1.1.4,404,-0.320,-0.320,-0.320,0.000,0.000,0.000
1640068805458142976,"2021-12-21,06:40:05",10.1.1.4,0.49242711067199707,-0.320,-0.320,-0.320,0.000,0.000,0.000
1640068805819940096,"2021-12-21,06:40:05",10.1.1.4,360,-0.330,-0.330,-0.330,0.000,0.000,0.000
1640068805864166144,"2021-12-21,06:40:05",10.1.1.4,0.4043710231781006,-0.330,-0.330,-0.330,0.000,0.000,0.000
1640068806242817024,"2021-12-21,06:40:06",10.1.1.4,368,-0.340,-0.340,-0.340,0.000,0.000,0.000
1640068806314488832,"2021-12-21,06:40:06",10.1.1.4,0.44005393981933594,-0.340,-0.340,-0.340,0.000,0.000,0.000
1640068806768696064,"2021-12-21,06:40:06",10.1.1.4,438,-0.350,-0.350,-0.350,0.000,0.000,0.000
1640068806859851008,"2021-12-21,06:40:06",10.1.1.4,0.529818058013916,-0.350,-0.350,-0.350,0.000,0.000,0.000
1640068807187464960,"2021-12-21,06:40:07",10.1.1.4,326,-0.360,-0.360,-0.360,0.000,0.000,0.000
1640068807222449152,"2021-12-21,06:40:07",10.1.1.4,0.36142706871032715,-0.360,-0.360,-0.360,0.000,0.000,0.000
1640068807557907200,"2021-12-21,06:40:07",10.1.1.4,333,-0.370,-0.370,-0.370,0.000,0.000,0.000
1640068807571953152,"2021-12-21,06:40:07",10.1.1.4,0.34755706787109375,-0.370,-0.370,-0.370,0.000,0.000,0.000
1640068807876722944,"2021-12-21,06:40:07",10.1.1.4,303,-0.380,-0.380,-0.380,0.000,0.000,0.000
1640068807921623040,"2021-12-21,06:40:07",10.1.1.4,0.3481462001800537,-0.380,-0.380,-0.380,0.000,0.000,0.000
1640068808240491008,"2021-12-21,06:40:08",10.1.1.4,317,-0.390,-0.390,-0.390,0.000,0.000,0.000
1640068808285257216,"2021-12-21,06:40:08",10.1.1.4,0.3623318672180176,-0.390,-0.390,-0.390,0.000,0.000,0.000
1640068808604979968,"2021-12-21,06:40:08",10.1.1.4,317,-0.400,-0.400,-0.400,0.000,0.000,0.000
1640068808700002048,"2021-12-21,06:40:08",10.1.1.4,0.41242313385009766,-0.400,-0.400,-0.400,0.000,0.000,0.000
1640068809014771968,"2021-12-21,06:40:09",10.1.1.4,313,-0.410,-0.410,-0.410,0.000,0.000,0.000
1640068809063600128,"2021-12-21,06:40:09",10.1.1.4,0.3620882034301758,-0.410,-0.410,-0.410,0.000,0.000,0.000
1640068809384588032,"2021-12-21,06:40:09",10.1.1.4,319,-0.420,-0.420,-0.420,0.000,0.000,0.000
1640068809436250880,"2021-12-21,06:40:09",10.1.1.4,0.3714427947998047,-0.420,-0.420,-0.420,0.000,0.000,0.000
1640068809807826944,"2021-12-21,06:40:09",10.1.1.4,367,-0.430,-0.430,-0.430,0.000,0.000,0.000
1640068809827907072,"2021-12-21,06:40:09",10.1.1.4,0.3877229690551758,-0.430,-0.430,-0.430,0.000,0.000,0.000
1640068810209080064,"2021-12-21,06:40:10",10.1.1.4,375,-0.440,-0.440,-0.440,0.000,0.000,0.000
1640068810277547008,"2021-12-21,06:40:10",10.1.1.4,0.44427990913391113,-0.440,-0.440,-0.440,0.000,0.000,0.000
1640068810632740096,"2021-12-21,06:40:10",10.1.1.4,352,-0.450,-0.450,-0.450,0.000,0.000,0.000
1640068810697235968,"2021-12-21,06:40:10",10.1.1.4,0.41551995277404785,-0.450,-0.450,-0.450,0.000,0.000,0.000
1640068811084188928,"2021-12-21,06:40:11",10.1.1.4,382,-0.460,-0.460,-0.460,0.000,0.000,0.000
1640068811108418816,"2021-12-21,06:40:11",10.1.1.4,0.4074740409851074,-0.460,-0.460,-0.460,0.000,0.000,0.000
1640068811461707008,"2021-12-21,06:40:11",10.1.1.4,350,-0.470,-0.470,-0.470,0.000,0.000,0.000
1640068811515809024,"2021-12-21,06:40:11",10.1.1.4,0.40418410301208496,-0.470,-0.470,-0.470,0.000,0.000,0.000
1640068811851932160,"2021-12-21,06:40:11",10.1.1.4,334,-0.480,-0.480,-0.480,0.000,0.000,0.000
1640068811894444032,"2021-12-21,06:40:11",10.1.1.4,0.37728214263916016,-0.480,-0.480,-0.480,0.000,0.000,0.000
1640068812229778944,"2021-12-21,06:40:12",10.1.1.4,333,-0.490,-0.490,-0.490,0.000,0.000,0.000
1640068812267802880,"2021-12-21,06:40:12",10.1.1.4,0.37203192710876465,-0.490,-0.490,-0.490,0.000,0.000,0.000
1640068812589335808,"2021-12-21,06:40:12",10.1.1.4,318,-0.480,-0.480,-0.480,0.000,0.000,0.000
1640068812629300992,"2021-12-21,06:40:12",10.1.1.4,0.35857582092285156,-0.480,-0.480,-0.480,0.000,0.000,0.000
1640068812988920832,"2021-12-21,06:40:12",10.1.1.4,357,-0.470,-0.470,-0.470,0.000,0.000,0.000
1640068813033164032,"2021-12-21,06:40:13",10.1.1.4,0.4021158218383789,-0.470,-0.470,-0.470,0.000,0.000,0.000
1640068813388413952,"2021-12-21,06:40:13",10.1.1.4,353,-0.460,-0.460,-0.460,0.000,0.000,0.000
1640068813447091200,"2021-12-21,06:40:13",10.1.1.4,0.4119739532470703,-0.460,-0.460,-0.460,0.000,0.000,0.000
1640068813848850944,"2021-12-21,06:40:13",10.1.1.4,377,-0.450,-0.450,-0.450,0.000,0.000,0.000
1640068813916503040,"2021-12-21,06:40:13",10.1.1.4,0.4454030990600586,-0.450,-0.450,-0.450,0.000,0.000,0.000
1640068814250546944,"2021-12-21,06:40:14",10.1.1.4,332,-0.440,-0.440,-0.440,0.000,0.000,0.000
1640068814321126912,"2021-12-21,06:40:14",10.1.1.4,0.4032628536224365,-0.440,-0.440,-0.440,0.000,0.000,0.000
1640068814646222080,"2021-12-21,06:40:14",10.1.1.4,319,-0.430,-0.430,-0.430,0.000,0.000,0.000
1640068814729329152,"2021-12-21,06:40:14",10.1.1.4,0.40294599533081055,-0.430,-0.430,-0.430,0.000,0.000,0.000
1640068815108115968,"2021-12-21,06:40:15",10.1.1.4,373,-0.420,-0.420,-0.420,0.000,0.000,0.000
1640068815200066048,"2021-12-21,06:40:15",10.1.1.4,0.46511292457580566,-0.420,-0.420,-0.420,0.000,0.000,0.000
1640068815529444096,"2021-12-21,06:40:15",10.1.1.4,327,-0.410,-0.410,-0.410,0.000,0.000,0.000
1640068815561692928,"2021-12-21,06:40:15",10.1.1.4,0.3603649139404297,-0.410,-0.410,-0.410,0.000,0.000,0.000
1640068815909907968,"2021-12-21,06:40:15",10.1.1.4,342,-0.400,-0.400,-0.400,0.000,0.000,0.000
1640068815974006784,"2021-12-21,06:40:15",10.1.1.4,0.4069960117340088,-0.400,-0.400,-0.400,0.000,0.000,0.000
1640068816342071040,"2021-12-21,06:40:16",10.1.1.4,365,-0.390,-0.390,-0.390,0.000,0.000,0.000
1640068816408852224,"2021-12-21,06:40:16",10.1.1.4,0.432589054107666,-0.390,-0.390,-0.390,0.000,0.000,0.000
1640068816722692864,"2021-12-21,06:40:16",10.1.1.4,312,-0.380,-0.380,-0.380,0.000,0.000,0.000
1640068816784646912,"2021-12-21,06:40:16",10.1.1.4,0.37439489364624023,-0.380,-0.380,-0.380,0.000,0.000,0.000
1640068817186140928,"2021-12-21,06:40:17",10.1.1.4,388,-0.370,-0.370,-0.370,0.000,0.000,0.000
1640068817220436992,"2021-12-21,06:40:17",10.1.1.4,0.4227910041809082,-0.370,-0.370,-0.370,0.000,0.000,0.000
1640068817556835840,"2021-12-21,06:40:17",10.1.1.4,334,-0.360,-0.360,-0.360,0.000,0.000,0.000
1640068817655395072,"2021-12-21,06:40:17",10.1.1.4,0.43280911445617676,-0.360,-0.360,-0.360,0.000,0.000,0.000
1640068818007584000,"2021-12-21,06:40:18",10.1.1.4,350,-0.350,-0.350,-0.350,0.000,0.000,0.000
1640068818074585088,"2021-12-21,06:40:18",10.1.1.4,0.41772007942199707,-0.350,-0.350,-0.350,0.000,0.000,0.000
1640068818378904064,"2021-12-21,06:40:18",10.1.1.4,303,-0.340,-0.340,-0.340,0.000,0.000,0.000
1640068818455430144,"2021-12-21,06:40:18",10.1.1.4,0.37965989112854004,-0.340,-0.340,-0.340,0.000,0.000,0.000
1640068818841528832,"2021-12-21,06:40:18",10.1.1.4,384,-0.330,-0.330,-0.330,0.000,0.000,0.000
1640068818912911872,"2021-12-21,06:40:18",10.1.1.4,0.45569705963134766,-0.330,-0.330,-0.330,0.000,0.000,0.000
1640068819239964928,"2021-12-21,06:40:19",10.1.1.4,321,-0.320,-0.320,-0.320,0.000,0.000,0.000
1640068819325594880,"2021-12-21,06:40:19",10.1.1.4,0.40738391876220703,-0.320,-0.320,-0.320,0.000,0.000,0.000
1640068819700594944,"2021-12-21,06:40:19",10.1.1.4,373,-0.310,-0.310,-0.310,0.000,0.000,0.000
1640068819734071040,"2021-12-21,06:40:19",10.1.1.4,0.406696081161499,-0.310,-0.310,-0.310,0.000,0.000,0.000
1640068820093735936,"2021-12-21,06:40:20",10.1.1.4,357,-0.300,-0.300,-0.300,0.000,0.000,0.000
1640068820117417984,"2021-12-21,06:40:20",10.1.1.4,0.3815610408782959,-0.300,-0.300,-0.300,0.000,0.000,0.000
1640068820503870976,"2021-12-21,06:40:20",10.1.1.4,384,-0.290,-0.290,-0.290,0.000,0.000,0.000
1640068820571695104,"2021-12-21,06:40:20",10.1.1.4,0.45276904106140137,-0.290,-0.290,-0.290,0.000,0.000,0.000
1640068820953641984,"2021-12-21,06:40:20",10.1.1.4,380,-0.280,-0.280,-0.280,0.000,0.000,0.000
1640068821017581824,"2021-12-21,06:40:21",10.1.1.4,0.44436216354370117,-0.280,-0.280,-0.280,0.000,0.000,0.000
1640068821404577024,"2021-12-21,06:40:21",10.1.1.4,374,-0.270,-0.270,-0.270,0.000,0.000,0.000
1640068821494061056,"2021-12-21,06:40:21",10.1.1.4,0.4639890193939209,-0.270,-0.270,-0.270,0.000,0.000,0.000
1640068821849643008,"2021-12-21,06:40:21",10.1.1.4,352,-0.260,-0.260,-0.260,0.000,0.000,0.000
1640068821921294080,"2021-12-21,06:40:21",10.1.1.4,0.42405200004577637,-0.260,-0.260,-0.260,0.000,0.000,0.000
1640068822278175232,"2021-12-21,06:40:22",10.1.1.4,344,-0.250,-0.250,-0.250,0.000,0.000,0.000
1640068822339312128,"2021-12-21,06:40:22",10.1.1.4,0.40599489212036133,-0.250,-0.250,-0.250,0.000,0.000,0.000
1640068822668376832,"2021-12-21,06:40:22",10.1.1.4,323,-0.240,-0.240,-0.240,0.000,0.000,0.000
1640068822710967040,"2021-12-21,06:40:22",10.1.1.4,0.3658180236816406,-0.240,-0.240,-0.240,0.000,0.000,0.000
1640068823106895872,"2021-12-21,06:40:23",10.1.1.4,392,-0.230,-0.230,-0.230,0.000,0.000,0.000
1640068823138149120,"2021-12-21,06:40:23",10.1.1.4,0.42061901092529297,-0.230,-0.230,-0.230,0.000,0.000,0.000
1640068823586280192,"2021-12-21,06:40:23",10.1.1.4,444,-0.220,-0.220,-0.220,0.000,0.000,0.000
1640068823632194048,"2021-12-21,06:40:23",10.1.1.4,0.4905660152435303,-0.220,-0.220,-0.220,0.000,0.000,0.000
1640068824007747840,"2021-12-21,06:40:24",10.1.1.4,369,-0.210,-0.210,-0.210,0.000,0.000,0.000
1640068824082028032,"2021-12-21,06:40:24",10.1.1.4,0.44364500045776367,-0.210,-0.210,-0.210,0.000,0.000,0.000
1640068824436450048,"2021-12-21,06:40:24",10.1.1.4,352,-0.200,-0.200,-0.200,0.000,0.000,0.000
1640068824476634880,"2021-12-21,06:40:24",10.1.1.4,0.3919107913970947,-0.200,-0.200,-0.200,0.000,0.000,0.000
1640068824807665152,"2021-12-21,06:40:24",10.1.1.4,329,-0.190,-0.190,-0.190,0.000,0.000,0.000
1640068824885498112,"2021-12-21,06:40:24",10.1.1.4,0.40712404251098633,-0.190,-0.190,-0.190,0.000,0.000,0.000
1640068825247229952,"2021-12-21,06:40:25",10.1.1.4,359,-0.180,-0.180,-0.180,0.000,0.000,0.000
1640068825296129024,"2021-12-21,06:40:25",10.1.1.4,0.408735990524292,-0.180,-0.180,-0.180,0.000,0.000,0.000
1640068825667249920,"2021-12-21,06:40:25",10.1.1.4,359,-0.170,-0.170,-0.170,0.000,0.000,0.000
1640068825709282048,"2021-12-21,06:40:25",10.1.1.4,0.39951205253601074,-0.170,-0.170,-0.170,0.000,0.000,0.000
1640068826037071872,"2021-12-21,06:40:26",10.1.1.4,325,-0.160,-0.160,-0.160,0.000,0.000,0.000
1640068826080423168,"2021-12-21,06:40:26",10.1.1.4,0.3693258762359619,-0.160,-0.160,-0.160,0.000,0.000,0.000
1640068826408183040,"2021-12-21,06:40:26",10.1.1.4,321,-0.150,-0.150,-0.150,0.000,0.000,0.000
1640068826485441024,"2021-12-21,06:40:26",10.1.1.4,0.39835500717163086,-0.150,-0.150,-0.150,0.000,0.000,0.000
1640068826787611904,"2021-12-21,06:40:26",10.1.1.4,300,-0.140,-0.140,-0.140,0.000,0.000,0.000
1640068826836472064,"2021-12-21,06:40:26",10.1.1.4,0.34929513931274414,-0.140,-0.140,-0.140,0.000,0.000,0.000
1640068827196131840,"2021-12-21,06:40:27",10.1.1.4,351,-0.130,-0.130,-0.130,0.000,0.000,0.000
1640068827237360128,"2021-12-21,06:40:27",10.1.1.4,0.39269399642944336,-0.130,-0.130,-0.130,0.000,0.000,0.000
1640068827596040960,"2021-12-21,06:40:27",10.1.1.4,357,-0.120,-0.120,-0.120,0.000,0.000,0.000
1640068827657843200,"2021-12-21,06:40:27",10.1.1.4,0.4191100597381592,-0.120,-0.120,-0.120,0.000,0.000,0.000
1640068828026393856,"2021-12-21,06:40:28",10.1.1.4,360,-0.110,-0.110,-0.110,0.000,0.000,0.000
1640068828119589120,"2021-12-21,06:40:28",10.1.1.4,0.45360803604125977,-0.110,-0.110,-0.110,0.000,0.000,0.000
1640068828436569856,"2021-12-21,06:40:28",10.1.1.4,314,-0.100,-0.100,-0.100,0.000,0.000,0.000
1640068828465658880,"2021-12-21,06:40:28",10.1.1.4,0.3440439701080322,-0.100,-0.100,-0.100,0.000,0.000,0.000
1640068828816504832,"2021-12-21,06:40:28",10.1.1.4,344,-0.090,-0.090,-0.090,0.000,0.000,0.000
1640068828941935104,"2021-12-21,06:40:28",10.1.1.4,0.4699070453643799,-0.090,-0.090,-0.090,0.000,0.000,0.000
1640068829316366080,"2021-12-21,06:40:29",10.1.1.4,373,-0.080,-0.080,-0.080,0.000,0.000,0.000
1640068829352105984,"2021-12-21,06:40:29",10.1.1.4,0.4088859558105469,-0.080,-0.080,-0.080,0.000,0.000,0.000
1640068829725601024,"2021-12-21,06:40:29",10.1.1.4,366,-0.070,-0.070,-0.070,0.000,0.000,0.000
1640068829752947200,"2021-12-21,06:40:29",10.1.1.4,0.3939189910888672,-0.070,-0.070,-0.070,0.000,0.000,0.000
1640068830114938880,"2021-12-21,06:40:30",10.1.1.4,358,-0.060,-0.060,-0.060,0.000,0.000,0.000
1640068830182147072,"2021-12-21,06:40:30",10.1.1.4,0.4261789321899414,-0.060,-0.060,-0.060,0.000,0.000,0.000
1640068830567213056,"2021-12-21,06:40:30",10.1.1.4,383,-0.050,-0.050,-0.050,0.000,0.000,0.000
1640068830568496896,"2021-12-21,06:40:30",10.1.1.4,0.3850419521331787,-0.050,-0.050,-0.050,0.000,0.000,0.000
1640068830885266176,"2021-12-21,06:40:30",10.1.1.4,314,-0.040,-0.040,-0.040,0.000,0.000,0.000
1640068830924688128,"2021-12-21,06:40:30",10.1.1.4,0.35372209548950195,-0.040,-0.040,-0.040,0.000,0.000,0.000
1640068831248027136,"2021-12-21,06:40:31",10.1.1.4,321,-0.030,-0.030,-0.030,0.000,0.000,0.000
1640068831316875008,"2021-12-21,06:40:31",10.1.1.4,0.3902931213378906,-0.030,-0.030,-0.030,0.000,0.000,0.000
1640068831635747072,"2021-12-21,06:40:31",10.1.1.4,317,-0.020,-0.020,-0.020,0.000,0.000,0.000
1640068831666136064,"2021-12-21,06:40:31",10.1.1.4,0.3477048873901367,-0.020,-0.020,-0.020,0.000,0.000,0.000
1640068832042977024,"2021-12-21,06:40:32",10.1.1.4,375,-0.010,-0.010,-0.010,0.000,0.000,0.000
1640068832070755840,"2021-12-21,06:40:32",10.1.1.4,0.403062105178833,-0.010,-0.010,-0.010,0.000,0.000,0.000
1640068832466469120,"2021-12-21,06:40:32",10.1.1.4,392,0.000,0.000,0.000,0.000,0.000,0.000
1640068832502365184,"2021-12-21,06:40:32",10.1.1.4,0.4281778335571289,0.000,0.000,0.000,0.000,0.000,0.000
1640068832872162048,"2021-12-21,06:40:32",10.1.1.4,366,-0.010,-0.010,-0.010,0.000,0.000,0.000
1640068832922168064,"2021-12-21,06:40:32",10.1.1.4,0.4165511131286621,-0.010,-0.010,-0.010,0.000,0.000,0.000
1640068833311599872,"2021-12-21,06:40:33",10.1.1.4,386,-0.020,-0.020,-0.020,0.000,0.000,0.000
1640068833371501056,"2021-12-21,06:40:33",10.1.1.4,0.44684886932373047,-0.020,-0.020,-0.020,0.000,0.000,0.000
1640068833751507968,"2021-12-21,06:40:33",10.1.1.4,377,-0.030,-0.030,-0.030,0.000,0.000,0.000
1640068833809150976,"2021-12-21,06:40:33",10.1.1.4,0.4355020523071289,-0.030,-0.030,-0.030,0.000,0.000,0.000
1640068834220985856,"2021-12-21,06:40:34",10.1.1.4,407,-0.040,-0.040,-0.040,0.000,0.000,0.000
1640068834259785984,"2021-12-21,06:40:34",10.1.1.4,0.44671201705932617,-0.040,-0.040,-0.040,0.000,0.000,0.000
1640068834670878976,"2021-12-21,06:40:34",10.1.1.4,409,-0.050,-0.050,-0.050,0.000,0.000,0.000
1640068834733195008,"2021-12-21,06:40:34",10.1.1.4,0.4719979763031006,-0.050,-0.050,-0.050,0.000,0.000,0.000
1640068835080110080,"2021-12-21,06:40:35",10.1.1.4,345,-0.060,-0.060,-0.060,0.000,0.000,0.000
1640068835103708928,"2021-12-21,06:40:35",10.1.1.4,0.3691990375518799,-0.060,-0.060,-0.060,0.000,0.000,0.000
1640068835460439808,"2021-12-21,06:40:35",10.1.1.4,354,-0.070,-0.070,-0.070,0.000,0.000,0.000
1640068835517405952,"2021-12-21,06:40:35",10.1.1.4,0.41179990768432617,-0.070,-0.070,-0.070,0.000,0.000,0.000
1640068835869107968,"2021-12-21,06:40:35",10.1.1.4,349,-0.080,-0.080,-0.080,0.000,0.000,0.000
1640068835887852032,"2021-12-21,06:40:35",10.1.1.4,0.36849308013916016,-0.080,-0.080,-0.080,0.000,0.000,0.000
1640068836240932864,"2021-12-21,06:40:36",10.1.1.4,350,-0.090,-0.090,-0.090,0.000,0.000,0.000
1640068836296772096,"2021-12-21,06:40:36",10.1.1.4,0.4067401885986328,-0.090,-0.090,-0.090,0.000,0.000,0.000
1640068836640192000,"2021-12-21,06:40:36",10.1.1.4,337,-0.100,-0.100,-0.100,0.000,0.000,0.000
1640068836721453824,"2021-12-21,06:40:36",10.1.1.4,0.41847801208496094,-0.100,-0.100,-0.100,0.000,0.000,0.000
1640068837067365888,"2021-12-21,06:40:37",10.1.1.4,340,-0.110,-0.110,-0.110,0.000,0.000,0.000
1640068837157980928,"2021-12-21,06:40:37",10.1.1.4,0.4314730167388916,-0.110,-0.110,-0.110,0.000,0.000,0.000
1640068837465842944,"2021-12-21,06:40:37",10.1.1.4,306,-0.120,-0.120,-0.120,0.000,0.000,0.000
1640068837577997824,"2021-12-21,06:40:37",10.1.1.4,0.41857194900512695,-0.120,-0.120,-0.120,0.000,0.000,0.000
1640068837925398016,"2021-12-21,06:40:37",10.1.1.4,345,-0.130,-0.130,-0.130,0.000,0.000,0.000
1640068838005635072,"2021-12-21,06:40:38",10.1.1.4,0.42615389823913574,-0.130,-0.130,-0.130,0.000,0.000,0.000
1640068838325880064,"2021-12-21,06:40:38",10.1.1.4,317,-0.140,-0.140,-0.140,0.000,0.000,0.000
1640068838415704064,"2021-12-21,06:40:38",10.1.1.4,0.40787315368652344,-0.140,-0.140,-0.140,0.000,0.000,0.000
1640068838756669952,"2021-12-21,06:40:38",10.1.1.4,326,-0.150,-0.150,-0.150,0.000,0.000,0.000
1640068838863034112,"2021-12-21,06:40:38",10.1.1.4,0.43256592750549316,-0.150,-0.150,-0.150,0.000,0.000,0.000
1640068838872841984,"2021-12-21,06:40:38",10.1.1.4,-2,-0.160,-0.160,-0.160,0.000,0.000,0.000
1640068839282324992,"2021-12-21,06:40:39",10.1.1.4,0.4178450107574463,-0.160,-0.160,-0.160,0.000,0.000,0.000
1640068839673437184,"2021-12-21,06:40:39",10.1.1.4,386,-0.170,-0.170,-0.170,0.000,0.000,0.000
1640068839714459904,"2021-12-21,06:40:39",10.1.1.4,0.4272899627685547,-0.170,-0.170,-0.170,0.000,0.000,0.000
1640068840022387968,"2021-12-21,06:40:40",10.1.1.4,306,-0.180,-0.180,-0.180,0.000,0.000,0.000
1640068840068403968,"2021-12-21,06:40:40",10.1.1.4,0.35212206840515137,-0.180,-0.180,-0.180,0.000,0.000,0.000
1640068840392788992,"2021-12-21,06:40:40",10.1.1.4,322,-0.190,-0.190,-0.190,0.000,0.000,0.000
1640068840460195072,"2021-12-21,06:40:40",10.1.1.4,0.38965797424316406,-0.190,-0.190,-0.190,0.000,0.000,0.000
1640068840801707008,"2021-12-21,06:40:40",10.1.1.4,338,-0.200,-0.200,-0.200,0.000,0.000,0.000
1640068840841816064,"2021-12-21,06:40:40",10.1.1.4,0.3755369186401367,-0.200,-0.200,-0.200,0.000,0.000,0.000
1640068841252784896,"2021-12-21,06:40:41",10.1.1.4,408,-0.210,-0.210,-0.210,0.000,0.000,0.000
1640068841264337920,"2021-12-21,06:40:41",10.1.1.4,0.4202399253845215,-0.210,-0.210,-0.210,0.000,0.000,0.000
1640068841620583168,"2021-12-21,06:40:41",10.1.1.4,354,-0.220,-0.220,-0.220,0.000,0.000,0.000
1640068841667774976,"2021-12-21,06:40:41",10.1.1.4,0.40209388732910156,-0.220,-0.220,-0.220,0.000,0.000,0.000
1640068842061739008,"2021-12-21,06:40:42",10.1.1.4,385,-0.230,-0.230,-0.230,0.000,0.000,0.000
1640068842092931072,"2021-12-21,06:40:42",10.1.1.4,0.4179980754852295,-0.230,-0.230,-0.230,0.000,0.000,0.000
1640068842480060160,"2021-12-21,06:40:42",10.1.1.4,384,-0.240,-0.240,-0.240,0.000,0.000,0.000
1640068842556425216,"2021-12-21,06:40:42",10.1.1.4,0.46131396293640137,-0.240,-0.240,-0.240,0.000,0.000,0.000
1640068842909853952,"2021-12-21,06:40:42",10.1.1.4,352,-0.250,-0.250,-0.250,0.000,0.000,0.000
1640068842937033984,"2021-12-21,06:40:42",10.1.1.4,0.37931180000305176,-0.250,-0.250,-0.250,0.000,0.000,0.000
1640068843321202944,"2021-12-21,06:40:43",10.1.1.4,375,-0.260,-0.260,-0.260,0.000,0.000,0.000
1640068843386360832,"2021-12-21,06:40:43",10.1.1.4,0.44025588035583496,-0.260,-0.260,-0.260,0.000,0.000,0.000
1640068843737037824,"2021-12-21,06:40:43",10.1.1.4,347,-0.270,-0.270,-0.270,0.000,0.000,0.000
1640068843826628096,"2021-12-21,06:40:43",10.1.1.4,0.4373009204864502,-0.270,-0.270,-0.270,0.000,0.000,0.000
1640068844226542848,"2021-12-21,06:40:44",10.1.1.4,391,-0.280,-0.280,-0.280,0.000,0.000,0.000
1640068844264331008,"2021-12-21,06:40:44",10.1.1.4,0.42964601516723633,-0.280,-0.280,-0.280,0.000,0.000,0.000
1640068844656158976,"2021-12-21,06:40:44",10.1.1.4,383,-0.290,-0.290,-0.290,0.000,0.000,0.000
1640068844730953984,"2021-12-21,06:40:44",10.1.1.4,0.45874810218811035,-0.290,-0.290,-0.290,0.000,0.000,0.000
1640068845177175040,"2021-12-21,06:40:45",10.1.1.4,434,-0.300,-0.300,-0.300,0.000,0.000,0.000
1640068845232377088,"2021-12-21,06:40:45",10.1.1.4,0.49016404151916504,-0.300,-0.300,-0.300,0.000,0.000,0.000
1640068845553683968,"2021-12-21,06:40:45",10.1.1.4,318,-0.310,-0.310,-0.310,0.000,0.000,0.000
1640068845568131072,"2021-12-21,06:40:45",10.1.1.4,0.3332388401031494,-0.310,-0.310,-0.310,0.000,0.000,0.000
1640068845913697024,"2021-12-21,06:40:45",10.1.1.4,333,-0.320,-0.320,-0.320,0.000,0.000,0.000
1640068845985719808,"2021-12-21,06:40:45",10.1.1.4,0.4057579040527344,-0.320,-0.320,-0.320,0.000,0.000,0.000
1640068846364065792,"2021-12-21,06:40:46",10.1.1.4,376,-0.330,-0.330,-0.330,0.000,0.000,0.000
1640068846457479936,"2021-12-21,06:40:46",10.1.1.4,0.4700961112976074,-0.330,-0.330,-0.330,0.000,0.000,0.000
1640068846872930048,"2021-12-21,06:40:46",10.1.1.4,413,-0.340,-0.340,-0.340,0.000,0.000,0.000
1640068846936551168,"2021-12-21,06:40:46",10.1.1.4,0.47765398025512695,-0.340,-0.340,-0.340,0.000,0.000,0.000
1640068847273659904,"2021-12-21,06:40:47",10.1.1.4,334,-0.350,-0.350,-0.350,0.000,0.000,0.000
1640068847349172224,"2021-12-21,06:40:47",10.1.1.4,0.410236120223999,-0.350,-0.350,-0.350,0.000,0.000,0.000
1640068847695311104,"2021-12-21,06:40:47",10.1.1.4,341,-0.360,-0.360,-0.360,0.000,0.000,0.000
1640068847780910080,"2021-12-21,06:40:47",10.1.1.4,0.4267129898071289,-0.360,-0.360,-0.360,0.000,0.000,0.000
1640068848188868096,"2021-12-21,06:40:48",10.1.1.4,403,-0.370,-0.370,-0.370,0.000,0.000,0.000
1640068848220990976,"2021-12-21,06:40:48",10.1.1.4,0.4361238479614258,-0.370,-0.370,-0.370,0.000,0.000,0.000
1640068848593763072,"2021-12-21,06:40:48",10.1.1.4,370,-0.380,-0.380,-0.380,0.000,0.000,0.000
1640068848630359808,"2021-12-21,06:40:48",10.1.1.4,0.4066429138183594,-0.380,-0.380,-0.380,0.000,0.000,0.000
1640068848983750144,"2021-12-21,06:40:48",10.1.1.4,338,-0.390,-0.390,-0.390,0.000,0.000,0.000
1640068849083090176,"2021-12-21,06:40:49",10.1.1.4,0.43845701217651367,-0.390,-0.390,-0.390,0.000,0.000,0.000
1640068849393830144,"2021-12-21,06:40:49",10.1.1.4,308,-0.400,-0.400,-0.400,0.000,0.000,0.000
1640068849435478016,"2021-12-21,06:40:49",10.1.1.4,0.3501570224761963,-0.400,-0.400,-0.400,0.000,0.000,0.000
1640068849853074944,"2021-12-21,06:40:49",10.1.1.4,376,-0.410,-0.410,-0.410,0.000,0.000,0.000
1640068849938322944,"2021-12-21,06:40:49",10.1.1.4,0.4780268669128418,-0.410,-0.410,-0.410,0.000,0.000,0.000
1640068850277245952,"2021-12-21,06:40:50",10.1.1.4,336,-0.420,-0.420,-0.420,0.000,0.000,0.000
1640068850328964864,"2021-12-21,06:40:50",10.1.1.4,0.3882319927215576,-0.420,-0.420,-0.420,0.000,0.000,0.000
1640068850709118976,"2021-12-21,06:40:50",10.1.1.4,377,-0.430,-0.430,-0.430,0.000,0.000,0.000
1640068850730865920,"2021-12-21,06:40:50",10.1.1.4,0.39971303939819336,-0.430,-0.430,-0.430,0.000,0.000,0.000
1640068851119666176,"2021-12-21,06:40:51",10.1.1.4,386,-0.440,-0.440,-0.440,0.000,0.000,0.000
1640068851147456000,"2021-12-21,06:40:51",10.1.1.4,0.414827823638916,-0.440,-0.440,-0.440,0.000,0.000,0.000
1640068851151642112,"2021-12-21,06:40:51",10.1.1.4,-9,-0.450,-0.450,-0.450,0.000,0.000,0.000
1640068851580045824,"2021-12-21,06:40:51",10.1.1.4,0.4292628765106201,-0.450,-0.450,-0.450,0.000,0.000,0.000
1640068851976030976,"2021-12-21,06:40:51",10.1.1.4,393,-0.460,-0.460,-0.460,0.000,0.000,0.000
1640068852030893056,"2021-12-21,06:40:52",10.1.1.4,0.4481809139251709,-0.460,-0.460,-0.460,0.000,0.000,0.000
1640068852381996032,"2021-12-21,06:40:52",10.1.1.4,337,-0.470,-0.470,-0.470,0.000,0.000,0.000
1640068852446551040,"2021-12-21,06:40:52",10.1.1.4,0.4033370018005371,-0.470,-0.470,-0.470,0.000,0.000,0.000
1640068852821744896,"2021-12-21,06:40:52",10.1.1.4,367,-0.480,-0.480,-0.480,0.000,0.000,0.000
1640068852931261952,"2021-12-21,06:40:52",10.1.1.4,0.47668004035949707,-0.480,-0.480,-0.480,0.000,0.000,0.000
1640068853293409024,"2021-12-21,06:40:53",10.1.1.4,351,-0.490,-0.490,-0.490,0.000,0.000,0.000
1640068853377364992,"2021-12-21,06:40:53",10.1.1.4,0.43514013290405273,-0.490,-0.490,-0.490,0.000,0.000,0.000
1640068853707664896,"2021-12-21,06:40:53",10.1.1.4,328,-0.480,-0.480,-0.480,0.000,0.000,0.000
1640068853760633856,"2021-12-21,06:40:53",10.1.1.4,0.38171982765197754,-0.480,-0.480,-0.480,0.000,0.000,0.000
1640068854123929088,"2021-12-21,06:40:54",10.1.1.4,358,-0.470,-0.470,-0.470,0.000,0.000,0.000
1640068854209708032,"2021-12-21,06:40:54",10.1.1.4,0.4446878433227539,-0.470,-0.470,-0.470,0.000,0.000,0.000
1640068854535255040,"2021-12-21,06:40:54",10.1.1.4,316,-0.460,-0.460,-0.460,0.000,0.000,0.000
1640068854594615040,"2021-12-21,06:40:54",10.1.1.4,0.37633609771728516,-0.460,-0.460,-0.460,0.000,0.000,0.000
1640068854985467904,"2021-12-21,06:40:54",10.1.1.4,375,-0.450,-0.450,-0.450,0.000,0.000,0.000
1640068855080496128,"2021-12-21,06:40:55",10.1.1.4,0.477675199508667,-0.450,-0.450,-0.450,0.000,0.000,0.000
1640068855483022848,"2021-12-21,06:40:55",10.1.1.4,393,-0.440,-0.440,-0.440,0.000,0.000,0.000
1640068855577384960,"2021-12-21,06:40:55",10.1.1.4,0.488008975982666,-0.440,-0.440,-0.440,0.000,0.000,0.000
1640068855924913920,"2021-12-21,06:40:55",10.1.1.4,341,-0.430,-0.430,-0.430,0.000,0.000,0.000
1640068855979266816,"2021-12-21,06:40:55",10.1.1.4,0.39639902114868164,-0.430,-0.430,-0.430,0.000,0.000,0.000
1640068856295699968,"2021-12-21,06:40:56",10.1.1.4,315,-0.420,-0.420,-0.420,0.000,0.000,0.000
1640068856408986112,"2021-12-21,06:40:56",10.1.1.4,0.4284670352935791,-0.420,-0.420,-0.420,0.000,0.000,0.000
1640068856816393984,"2021-12-21,06:40:56",10.1.1.4,406,-0.410,-0.410,-0.410,0.000,0.000,0.000
1640068856844887040,"2021-12-21,06:40:56",10.1.1.4,0.43462395668029785,-0.410,-0.410,-0.410,0.000,0.000,0.000
1640068857206718976,"2021-12-21,06:40:57",10.1.1.4,359,-0.400,-0.400,-0.400,0.000,0.000,0.000
1640068857294398976,"2021-12-21,06:40:57",10.1.1.4,0.44654297828674316,-0.400,-0.400,-0.400,0.000,0.000,0.000
1640068857665988096,"2021-12-21,06:40:57",10.1.1.4,366,-0.390,-0.390,-0.390,0.000,0.000,0.000
1640068857699553024,"2021-12-21,06:40:57",10.1.1.4,0.3995997905731201,-0.390,-0.390,-0.390,0.000,0.000,0.000
1640068858037933056,"2021-12-21,06:40:58",10.1.1.4,336,-0.380,-0.380,-0.380,0.000,0.000,0.000
1640068858194487040,"2021-12-21,06:40:58",10.1.1.4,0.49324798583984375,-0.380,-0.380,-0.380,0.000,0.000,0.000
1640068858541353984,"2021-12-21,06:40:58",10.1.1.4,341,-0.370,-0.370,-0.370,0.000,0.000,0.000
1640068858605803008,"2021-12-21,06:40:58",10.1.1.4,0.40639400482177734,-0.370,-0.370,-0.370,0.000,0.000,0.000
1640068858946510080,"2021-12-21,06:40:58",10.1.1.4,338,-0.360,-0.360,-0.360,0.000,0.000,0.000
1640068859021436928,"2021-12-21,06:40:59",10.1.1.4,0.4134800434112549,-0.360,-0.360,-0.360,0.000,0.000,0.000
1640068859356195072,"2021-12-21,06:40:59",10.1.1.4,332,-0.350,-0.350,-0.350,0.000,0.000,0.000
1640068859379736064,"2021-12-21,06:40:59",10.1.1.4,0.3565378189086914,-0.350,-0.350,-0.350,0.000,0.000,0.000
1640068859756384000,"2021-12-21,06:40:59",10.1.1.4,373,-0.340,-0.340,-0.340,0.000,0.000,0.000
1640068859788982016,"2021-12-21,06:40:59",10.1.1.4,0.40576887130737305,-0.340,-0.340,-0.340,0.000,0.000,0.000
1640068860165273856,"2021-12-21,06:41:00",10.1.1.4,374,-0.330,-0.330,-0.330,0.000,0.000,0.000
1640068860209171968,"2021-12-21,06:41:00",10.1.1.4,0.41870880126953125,-0.330,-0.330,-0.330,0.000,0.000,0.000
1640068860574952960,"2021-12-21,06:41:00",10.1.1.4,363,-0.320,-0.320,-0.320,0.000,0.000,0.000
1640068860597819136,"2021-12-21,06:41:00",10.1.1.4,0.38633298873901367,-0.320,-0.320,-0.320,0.000,0.000,0.000
1640068860945332992,"2021-12-21,06:41:00",10.1.1.4,346,-0.310,-0.310,-0.310,0.000,0.000,0.000
1640068860997323008,"2021-12-21,06:41:00",10.1.1.4,0.39803314208984375,-0.310,-0.310,-0.310,0.000,0.000,0.000
1640068861344878848,"2021-12-21,06:41:01",10.1.1.4,345,-0.300,-0.300,-0.300,0.000,0.000,0.000
1640068861408058880,"2021-12-21,06:41:01",10.1.1.4,0.4090390205383301,-0.300,-0.300,-0.300,0.000,0.000,0.000
1640068861754537984,"2021-12-21,06:41:01",10.1.1.4,342,-0.290,-0.290,-0.290,0.000,0.000,0.000
1640068861828644864,"2021-12-21,06:41:01",10.1.1.4,0.4169149398803711,-0.290,-0.290,-0.290,0.000,0.000,0.000
1640068862164130816,"2021-12-21,06:41:02",10.1.1.4,333,-0.280,-0.280,-0.280,0.000,0.000,0.000
1640068862212173824,"2021-12-21,06:41:02",10.1.1.4,0.38140010833740234,-0.280,-0.280,-0.280,0.000,0.000,0.000
1640068862565871104,"2021-12-21,06:41:02",10.1.1.4,349,-0.270,-0.270,-0.270,0.000,0.000,0.000
1640068862666799104,"2021-12-21,06:41:02",10.1.1.4,0.4499959945678711,-0.270,-0.270,-0.270,0.000,0.000,0.000
1640068863003816960,"2021-12-21,06:41:03",10.1.1.4,335,-0.260,-0.260,-0.260,0.000,0.000,0.000
1640068863035621888,"2021-12-21,06:41:03",10.1.1.4,0.36717700958251953,-0.260,-0.260,-0.260,0.000,0.000,0.000
1640068863404269824,"2021-12-21,06:41:03",10.1.1.4,366,-0.250,-0.250,-0.250,0.000,0.000,0.000
1640068863452272896,"2021-12-21,06:41:03",10.1.1.4,0.41440510749816895,-0.250,-0.250,-0.250,0.000,0.000,0.000
1640068863804297984,"2021-12-21,06:41:03",10.1.1.4,347,-0.240,-0.240,-0.240,0.000,0.000,0.000
1640068863892589056,"2021-12-21,06:41:03",10.1.1.4,0.43620920181274414,-0.240,-0.240,-0.240,0.000,0.000,0.000
1640068864258315008,"2021-12-21,06:41:04",10.1.1.4,363,-0.230,-0.230,-0.230,0.000,0.000,0.000
1640068864311724800,"2021-12-21,06:41:04",10.1.1.4,0.4161500930786133,-0.230,-0.230,-0.230,0.000,0.000,0.000
1640068864673198080,"2021-12-21,06:41:04",10.1.1.4,358,-0.220,-0.220,-0.220,0.000,0.000,0.000
1640068864716086016,"2021-12-21,06:41:04",10.1.1.4,0.40157103538513184,-0.220,-0.220,-0.220,0.000,0.000,0.000
1640068865163108096,"2021-12-21,06:41:05",10.1.1.4,434,-0.210,-0.210,-0.210,0.000,0.000,0.000
1640068865219880960,"2021-12-21,06:41:05",10.1.1.4,0.492480993270874,-0.210,-0.210,-0.210,0.000,0.000,0.000
1640068865600637952,"2021-12-21,06:41:05",10.1.1.4,379,-0.200,-0.200,-0.200,0.000,0.000,0.000
1640068865665262848,"2021-12-21,06:41:05",10.1.1.4,0.4441380500793457,-0.200,-0.200,-0.200,0.000,0.000,0.000
1640068866010600192,"2021-12-21,06:41:06",10.1.1.4,336,-0.190,-0.190,-0.190,0.000,0.000,0.000
1640068866094374912,"2021-12-21,06:41:06",10.1.1.4,0.42067599296569824,-0.190,-0.190,-0.190,0.000,0.000,0.000
1640068866471613952,"2021-12-21,06:41:06",10.1.1.4,371,-0.180,-0.180,-0.180,0.000,0.000,0.000
1640068866520081920,"2021-12-21,06:41:06",10.1.1.4,0.420119047164917,-0.180,-0.180,-0.180,0.000,0.000,0.000
1640068866879463936,"2021-12-21,06:41:06",10.1.1.4,357,-0.170,-0.170,-0.170,0.000,0.000,0.000
1640068866924233984,"2021-12-21,06:41:06",10.1.1.4,0.4027211666107178,-0.170,-0.170,-0.170,0.000,0.000,0.000
1640068867309712896,"2021-12-21,06:41:07",10.1.1.4,381,-0.160,-0.160,-0.160,0.000,0.000,0.000
1640068867420100864,"2021-12-21,06:41:07",10.1.1.4,0.49202799797058105,-0.160,-0.160,-0.160,0.000,0.000,0.000
1640068867851814912,"2021-12-21,06:41:07",10.1.1.4,0.419144868850708,-0.150,-0.150,-0.150,0.000,0.000,0.000
1640068867852050944,"2021-12-21,06:41:07",10.1.1.4,419,-0.150,-0.150,-0.150,0.000,0.000,0.000
1640068868188820992,"2021-12-21,06:41:08",10.1.1.4,324,-0.140,-0.140,-0.140,0.000,0.000,0.000
1640068868268461824,"2021-12-21,06:41:08",10.1.1.4,0.4044971466064453,-0.140,-0.140,-0.140,0.000,0.000,0.000
1640068868598219008,"2021-12-21,06:41:08",10.1.1.4,328,-0.130,-0.130,-0.130,0.000,0.000,0.000
1640068868681725952,"2021-12-21,06:41:08",10.1.1.4,0.4116060733795166,-0.130,-0.130,-0.130,0.000,0.000,0.000
1640068869054470912,"2021-12-21,06:41:09",10.1.1.4,365,-0.120,-0.120,-0.120,0.000,0.000,0.000
1640068869150120960,"2021-12-21,06:41:09",10.1.1.4,0.4608628749847412,-0.120,-0.120,-0.120,0.000,0.000,0.000
1640068869506409984,"2021-12-21,06:41:09",10.1.1.4,352,-0.110,-0.110,-0.110,0.000,0.000,0.000
1640068869574227968,"2021-12-21,06:41:09",10.1.1.4,0.4203300476074219,-0.110,-0.110,-0.110,0.000,0.000,0.000
1640068869917788928,"2021-12-21,06:41:09",10.1.1.4,341,-0.100,-0.100,-0.100,0.000,0.000,0.000
1640068869968421888,"2021-12-21,06:41:09",10.1.1.4,0.3924689292907715,-0.100,-0.100,-0.100,0.000,0.000,0.000
1640068870414853120,"2021-12-21,06:41:10",10.1.1.4,444,-0.090,-0.090,-0.090,0.000,0.000,0.000
1640068870537313024,"2021-12-21,06:41:10",10.1.1.4,0.5674781799316406,-0.090,-0.090,-0.090,0.000,0.000,0.000
1640068870884738048,"2021-12-21,06:41:10",10.1.1.4,345,-0.080,-0.080,-0.080,0.000,0.000,0.000
1640068870939187968,"2021-12-21,06:41:10",10.1.1.4,0.4000530242919922,-0.080,-0.080,-0.080,0.000,0.000,0.000
1640068871293773824,"2021-12-21,06:41:11",10.1.1.4,343,-0.070,-0.070,-0.070,0.000,0.000,0.000
1640068871359031808,"2021-12-21,06:41:11",10.1.1.4,0.4088108539581299,-0.070,-0.070,-0.070,0.000,0.000,0.000
1640068871684130048,"2021-12-21,06:41:11",10.1.1.4,320,-0.060,-0.060,-0.060,0.000,0.000,0.000
1640068871731153920,"2021-12-21,06:41:11",10.1.1.4,0.3641951084136963,-0.060,-0.060,-0.060,0.000,0.000,0.000
1640068872122773760,"2021-12-21,06:41:12",10.1.1.4,379,-0.050,-0.050,-0.050,0.000,0.000,0.000
1640068872205241856,"2021-12-21,06:41:12",10.1.1.4,0.4622538089752197,-0.050,-0.050,-0.050,0.000,0.000,0.000
1640068872541848832,"2021-12-21,06:41:12",10.1.1.4,335,-0.040,-0.040,-0.040,0.000,0.000,0.000
1640068872604677888,"2021-12-21,06:41:12",10.1.1.4,0.39809703826904297,-0.040,-0.040,-0.040,0.000,0.000,0.000
1640068872911159040,"2021-12-21,06:41:12",10.1.1.4,305,-0.030,-0.030,-0.030,0.000,0.000,0.000
1640068872965946880,"2021-12-21,06:41:12",10.1.1.4,0.3598451614379883,-0.030,-0.030,-0.030,0.000,0.000,0.000
1640068873332442880,"2021-12-21,06:41:13",10.1.1.4,362,-0.020,-0.020,-0.020,0.000,0.000,0.000
1640068873404783872,"2021-12-21,06:41:13",10.1.1.4,0.42585301399230957,-0.020,-0.020,-0.020,0.000,0.000,0.000
