FedericoMungari/DigitalTwin_service/02_LTEScenario/Output/Output_script/script_ROSAPI_output_robots8_freq0_4.txt.csv
timestamp,node,latency,joint_1,joint_2,joint_3,joint_4,joint_5,joint_6
1640068667445899008,"2021-12-21,06:37:47",10.1.1.5,6723,0.000,0.000,0.000,0.000,0.000,0.000
1640068669764442880,"2021-12-21,06:37:49",10.1.1.5,318,-0.010,-0.010,-0.010,0.000,0.000,0.000
1640068669836857088,"2021-12-21,06:37:49",10.1.1.5,0.39118099212646484,-0.010,-0.010,-0.010,0.000,0.000,0.000
1640068670144115968,"2021-12-21,06:37:50",10.1.1.5,305,-0.020,-0.020,-0.020,0.000,0.000,0.000
1640068670153379072,"2021-12-21,06:37:50",10.1.1.5,0.3148789405822754,-0.020,-0.020,-0.020,0.000,0.000,0.000
1640068670444978944,"2021-12-21,06:37:50",10.1.1.5,290,-0.030,-0.030,-0.030,0.000,0.000,0.000
1640068670485726976,"2021-12-21,06:37:50",10.1.1.5,0.33100390434265137,-0.030,-0.030,-0.030,0.000,0.000,0.000
1640068670803826176,"2021-12-21,06:37:50",10.1.1.5,316,-0.040,-0.040,-0.040,0.000,0.000,0.000
1640068670819659008,"2021-12-21,06:37:50",10.1.1.5,0.3320169448852539,-0.040,-0.040,-0.040,0.000,0.000,0.000
1640068671143043072,"2021-12-21,06:37:51",10.1.1.5,321,-0.050,-0.050,-0.050,0.000,0.000,0.000
1640068671233534976,"2021-12-21,06:37:51",10.1.1.5,0.4125239849090576,-0.050,-0.050,-0.050,0.000,0.000,0.000
1640068671542665984,"2021-12-21,06:37:51",10.1.1.5,307,-0.060,-0.060,-0.060,0.000,0.000,0.000
1640068671547763968,"2021-12-21,06:37:51",10.1.1.5,0.31302905082702637,-0.060,-0.060,-0.060,0.000,0.000,0.000
1640068671832683008,"2021-12-21,06:37:51",10.1.1.5,283,-0.070,-0.070,-0.070,0.000,0.000,0.000
1640068671860197120,"2021-12-21,06:37:51",10.1.1.5,0.31091785430908203,-0.070,-0.070,-0.070,0.000,0.000,0.000
1640068672164995840,"2021-12-21,06:37:52",10.1.1.5,303,-0.080,-0.080,-0.080,0.000,0.000,0.000
1640068672185895936,"2021-12-21,06:37:52",10.1.1.5,0.3243591785430908,-0.080,-0.080,-0.080,0.000,0.000,0.000
1640068672501576960,"2021-12-21,06:37:52",10.1.1.5,313,-0.090,-0.090,-0.090,0.000,0.000,0.000
1640068672519968000,"2021-12-21,06:37:52",10.1.1.5,0.33238816261291504,-0.090,-0.090,-0.090,0.000,0.000,0.000
1640068672821754880,"2021-12-21,06:37:52",10.1.1.5,299,-0.100,-0.100,-0.100,0.000,0.000,0.000
1640068672842173952,"2021-12-21,06:37:52",10.1.1.5,0.32056498527526855,-0.100,-0.100,-0.100,0.000,0.000,0.000
1640068673141321984,"2021-12-21,06:37:53",10.1.1.5,296,-0.110,-0.110,-0.110,0.000,0.000,0.000
1640068673182224128,"2021-12-21,06:37:53",10.1.1.5,0.33798909187316895,-0.110,-0.110,-0.110,0.000,0.000,0.000
1640068673501672960,"2021-12-21,06:37:53",10.1.1.5,314,-0.120,-0.120,-0.120,0.000,0.000,0.000
1640068673502711040,"2021-12-21,06:37:53",10.1.1.5,0.31581902503967285,-0.120,-0.120,-0.120,0.000,0.000,0.000
1640068673799499008,"2021-12-21,06:37:53",10.1.1.5,295,-0.130,-0.130,-0.130,0.000,0.000,0.000
1640068673920675072,"2021-12-21,06:37:53",10.1.1.5,0.41677212715148926,-0.130,-0.130,-0.130,0.000,0.000,0.000
1640068674229607168,"2021-12-21,06:37:54",10.1.1.5,307,-0.140,-0.140,-0.140,0.000,0.000,0.000
1640068674240251904,"2021-12-21,06:37:54",10.1.1.5,0.3183581829071045,-0.140,-0.140,-0.140,0.000,0.000,0.000
1640068674529301760,"2021-12-21,06:37:54",10.1.1.5,287,-0.150,-0.150,-0.150,0.000,0.000,0.000
1640068674555577088,"2021-12-21,06:37:54",10.1.1.5,0.3138089179992676,-0.150,-0.150,-0.150,0.000,0.000,0.000
1640068675448035840,"2021-12-21,06:37:55",10.1.1.5,890,-0.160,-0.160,-0.160,0.000,0.000,0.000
1640068675495384832,"2021-12-21,06:37:55",10.1.1.5,0.9383070468902588,-0.160,-0.160,-0.160,0.000,0.000,0.000
1640068675808120064,"2021-12-21,06:37:55",10.1.1.5,311,-0.170,-0.170,-0.170,0.000,0.000,0.000
1640068675810481920,"2021-12-21,06:37:55",10.1.1.5,0.31390881538391113,-0.170,-0.170,-0.170,0.000,0.000,0.000
1640068676117458176,"2021-12-21,06:37:56",10.1.1.5,304,-0.180,-0.180,-0.180,0.000,0.000,0.000
1640068676141936896,"2021-12-21,06:37:56",10.1.1.5,0.32890892028808594,-0.180,-0.180,-0.180,0.000,0.000,0.000
1640068676446672896,"2021-12-21,06:37:56",10.1.1.5,303,-0.190,-0.190,-0.190,0.000,0.000,0.000
1640068676455748096,"2021-12-21,06:37:56",10.1.1.5,0.3120560646057129,-0.190,-0.190,-0.190,0.000,0.000,0.000
1640068676745959168,"2021-12-21,06:37:56",10.1.1.5,288,-0.200,-0.200,-0.200,0.000,0.000,0.000
1640068676780452096,"2021-12-21,06:37:56",10.1.1.5,0.32343101501464844,-0.200,-0.200,-0.200,0.000,0.000,0.000
1640068677088694016,"2021-12-21,06:37:57",10.1.1.5,306,-0.210,-0.210,-0.210,0.000,0.000,0.000
1640068677163073024,"2021-12-21,06:37:57",10.1.1.5,0.3805661201477051,-0.210,-0.210,-0.210,0.000,0.000,0.000
1640068677475228160,"2021-12-21,06:37:57",10.1.1.5,310,-0.220,-0.220,-0.220,0.000,0.000,0.000
1640068677543355904,"2021-12-21,06:37:57",10.1.1.5,0.3788590431213379,-0.220,-0.220,-0.220,0.000,0.000,0.000
1640068677833440000,"2021-12-21,06:37:57",10.1.1.5,288,-0.230,-0.230,-0.230,0.000,0.000,0.000
1640068677854404096,"2021-12-21,06:37:57",10.1.1.5,0.3094959259033203,-0.230,-0.230,-0.230,0.000,0.000,0.000
1640068678134769920,"2021-12-21,06:37:58",10.1.1.5,278,-0.240,-0.240,-0.240,0.000,0.000,0.000
1640068678169229056,"2021-12-21,06:37:58",10.1.1.5,0.3134448528289795,-0.240,-0.240,-0.240,0.000,0.000,0.000
1640068678453668096,"2021-12-21,06:37:58",10.1.1.5,283,-0.250,-0.250,-0.250,0.000,0.000,0.000
1640068678482522112,"2021-12-21,06:37:58",10.1.1.5,0.31210899353027344,-0.250,-0.250,-0.250,0.000,0.000,0.000
1640068678793261056,"2021-12-21,06:37:58",10.1.1.5,308,-0.260,-0.260,-0.260,0.000,0.000,0.000
1640068678826489856,"2021-12-21,06:37:58",10.1.1.5,0.34213900566101074,-0.260,-0.260,-0.260,0.000,0.000,0.000
1640068679112971008,"2021-12-21,06:37:59",10.1.1.5,285,-0.270,-0.270,-0.270,0.000,0.000,0.000
1640068679137801984,"2021-12-21,06:37:59",10.1.1.5,0.3100709915161133,-0.270,-0.270,-0.270,0.000,0.000,0.000
1640068679422059008,"2021-12-21,06:37:59",10.1.1.5,282,-0.280,-0.280,-0.280,0.000,0.000,0.000
1640068679448492032,"2021-12-21,06:37:59",10.1.1.5,0.30931806564331055,-0.280,-0.280,-0.280,0.000,0.000,0.000
1640068679780903168,"2021-12-21,06:37:59",10.1.1.5,324,-0.290,-0.290,-0.290,0.000,0.000,0.000
1640068679865000960,"2021-12-21,06:37:59",10.1.1.5,0.4152109622955322,-0.290,-0.290,-0.290,0.000,0.000,0.000
1640068680162631936,"2021-12-21,06:38:00",10.1.1.5,295,-0.300,-0.300,-0.300,0.000,0.000,0.000
1640068680195867904,"2021-12-21,06:38:00",10.1.1.5,0.32709789276123047,-0.300,-0.300,-0.300,0.000,0.000,0.000
1640068680511228160,"2021-12-21,06:38:00",10.1.1.5,313,-0.310,-0.310,-0.310,0.000,0.000,0.000
1640068680526012928,"2021-12-21,06:38:00",10.1.1.5,0.3281991481781006,-0.310,-0.310,-0.310,0.000,0.000,0.000
1640068680860429056,"2021-12-21,06:38:00",10.1.1.5,332,-0.320,-0.320,-0.320,0.000,0.000,0.000
1640068680886042112,"2021-12-21,06:38:00",10.1.1.5,0.3585209846496582,-0.320,-0.320,-0.320,0.000,0.000,0.000
1640068681199845120,"2021-12-21,06:38:01",10.1.1.5,311,-0.330,-0.330,-0.330,0.000,0.000,0.000
1640068681220274944,"2021-12-21,06:38:01",10.1.1.5,0.33211398124694824,-0.330,-0.330,-0.330,0.000,0.000,0.000
1640068681539339008,"2021-12-21,06:38:01",10.1.1.5,316,-0.340,-0.340,-0.340,0.000,0.000,0.000
1640068681559468032,"2021-12-21,06:38:01",10.1.1.5,0.3370809555053711,-0.340,-0.340,-0.340,0.000,0.000,0.000
1640068681898786048,"2021-12-21,06:38:01",10.1.1.5,337,-0.350,-0.350,-0.350,0.000,0.000,0.000
1640068681953021952,"2021-12-21,06:38:01",10.1.1.5,0.39170002937316895,-0.350,-0.350,-0.350,0.000,0.000,0.000
1640068682248545792,"2021-12-21,06:38:02",10.1.1.5,293,-0.360,-0.360,-0.360,0.000,0.000,0.000
1640068682274002944,"2021-12-21,06:38:02",10.1.1.5,0.3192870616912842,-0.360,-0.360,-0.360,0.000,0.000,0.000
1640068682570535936,"2021-12-21,06:38:02",10.1.1.5,293,-0.370,-0.370,-0.370,0.000,0.000,0.000
1640068682604285952,"2021-12-21,06:38:02",10.1.1.5,0.32883691787719727,-0.370,-0.370,-0.370,0.000,0.000,0.000
1640068682897291776,"2021-12-21,06:38:02",10.1.1.5,291,-0.380,-0.380,-0.380,0.000,0.000,0.000
1640068682984983040,"2021-12-21,06:38:02",10.1.1.5,0.379288911819458,-0.380,-0.380,-0.380,0.000,0.000,0.000
1640068683306083072,"2021-12-21,06:38:03",10.1.1.5,318,-0.390,-0.390,-0.390,0.000,0.000,0.000
1640068683318291968,"2021-12-21,06:38:03",10.1.1.5,0.3309168815612793,-0.390,-0.390,-0.390,0.000,0.000,0.000
1640068683636302848,"2021-12-21,06:38:03",10.1.1.5,316,-0.400,-0.400,-0.400,0.000,0.000,0.000
1640068683647623936,"2021-12-21,06:38:03",10.1.1.5,0.3279151916503906,-0.400,-0.400,-0.400,0.000,0.000,0.000
1640068683935358976,"2021-12-21,06:38:03",10.1.1.5,285,-0.410,-0.410,-0.410,0.000,0.000,0.000
1640068683959467008,"2021-12-21,06:38:03",10.1.1.5,0.30962204933166504,-0.410,-0.410,-0.410,0.000,0.000,0.000
1640068684296291072,"2021-12-21,06:38:04",10.1.1.5,334,-0.420,-0.420,-0.420,0.000,0.000,0.000
1640068684303168000,"2021-12-21,06:38:04",10.1.1.5,0.34250903129577637,-0.420,-0.420,-0.420,0.000,0.000,0.000
1640068684604878848,"2021-12-21,06:38:04",10.1.1.5,300,-0.430,-0.430,-0.430,0.000,0.000,0.000
1640068684649394944,"2021-12-21,06:38:04",10.1.1.5,0.3448948860168457,-0.430,-0.430,-0.430,0.000,0.000,0.000
1640068684933979136,"2021-12-21,06:38:04",10.1.1.5,283,-0.440,-0.440,-0.440,0.000,0.000,0.000
1640068684959016960,"2021-12-21,06:38:04",10.1.1.5,0.30835509300231934,-0.440,-0.440,-0.440,0.000,0.000,0.000
1640068685252513792,"2021-12-21,06:38:05",10.1.1.5,292,-0.450,-0.450,-0.450,0.000,0.000,0.000
1640068685299900928,"2021-12-21,06:38:05",10.1.1.5,0.3396000862121582,-0.450,-0.450,-0.450,0.000,0.000,0.000
1640068685602509056,"2021-12-21,06:38:05",10.1.1.5,301,-0.460,-0.460,-0.460,0.000,0.000,0.000
1640068685625624832,"2021-12-21,06:38:05",10.1.1.5,0.32450413703918457,-0.460,-0.460,-0.460,0.000,0.000,0.000
1640068685923566080,"2021-12-21,06:38:05",10.1.1.5,296,-0.470,-0.470,-0.470,0.000,0.000,0.000
1640068685940835840,"2021-12-21,06:38:05",10.1.1.5,0.313856840133667,-0.470,-0.470,-0.470,0.000,0.000,0.000
1640068686263196928,"2021-12-21,06:38:06",10.1.1.5,320,-0.480,-0.480,-0.480,0.000,0.000,0.000
1640068686355354112,"2021-12-21,06:38:06",10.1.1.5,0.4126300811767578,-0.480,-0.480,-0.480,0.000,0.000,0.000
1640068686655862016,"2021-12-21,06:38:06",10.1.1.5,298,-0.490,-0.490,-0.490,0.000,0.000,0.000
1640068686687976960,"2021-12-21,06:38:06",10.1.1.5,0.33059191703796387,-0.490,-0.490,-0.490,0.000,0.000,0.000
1640068687007440128,"2021-12-21,06:38:07",10.1.1.5,312,-0.480,-0.480,-0.480,0.000,0.000,0.000
1640068687037470208,"2021-12-21,06:38:07",10.1.1.5,0.34270811080932617,-0.480,-0.480,-0.480,0.000,0.000,0.000
1640068687386558976,"2021-12-21,06:38:07",10.1.1.5,347,-0.470,-0.470,-0.470,0.000,0.000,0.000
1640068687447092992,"2021-12-21,06:38:07",10.1.1.5,0.40831995010375977,-0.470,-0.470,-0.470,0.000,0.000,0.000
1640068687731132928,"2021-12-21,06:38:07",10.1.1.5,282,-0.460,-0.460,-0.460,0.000,0.000,0.000
1640068687767291136,"2021-12-21,06:38:07",10.1.1.5,0.3189060688018799,-0.460,-0.460,-0.460,0.000,0.000,0.000
1640068688083023104,"2021-12-21,06:38:08",10.1.1.5,313,-0.450,-0.450,-0.450,0.000,0.000,0.000
1640068688121294080,"2021-12-21,06:38:08",10.1.1.5,0.3518869876861572,-0.450,-0.450,-0.450,0.000,0.000,0.000
1640068688445384960,"2021-12-21,06:38:08",10.1.1.5,322,-0.440,-0.440,-0.440,0.000,0.000,0.000
1640068688453927936,"2021-12-21,06:38:08",10.1.1.5,0.3312869071960449,-0.440,-0.440,-0.440,0.000,0.000,0.000
1640068688755729920,"2021-12-21,06:38:08",10.1.1.5,300,-0.430,-0.430,-0.430,0.000,0.000,0.000
1640068688775110912,"2021-12-21,06:38:08",10.1.1.5,0.3200039863586426,-0.430,-0.430,-0.430,0.000,0.000,0.000
1640068689067213056,"2021-12-21,06:38:09",10.1.1.5,290,-0.420,-0.420,-0.420,0.000,0.000,0.000
1640068689092672000,"2021-12-21,06:38:09",10.1.1.5,0.31594395637512207,-0.420,-0.420,-0.420,0.000,0.000,0.000
1640068689378288896,"2021-12-21,06:38:09",10.1.1.5,284,-0.410,-0.410,-0.410,0.000,0.000,0.000
1640068689415043072,"2021-12-21,06:38:09",10.1.1.5,0.32048988342285156,-0.410,-0.410,-0.410,0.000,0.000,0.000
1640068689709837056,"2021-12-21,06:38:09",10.1.1.5,292,-0.400,-0.400,-0.400,0.000,0.000,0.000
1640068689764231936,"2021-12-21,06:38:09",10.1.1.5,0.34731602668762207,-0.400,-0.400,-0.400,0.000,0.000,0.000
1640068690079545088,"2021-12-21,06:38:10",10.1.1.5,313,-0.390,-0.390,-0.390,0.000,0.000,0.000
1640068690145886976,"2021-12-21,06:38:10",10.1.1.5,0.3795180320739746,-0.390,-0.390,-0.390,0.000,0.000,0.000
1640068690476058880,"2021-12-21,06:38:10",10.1.1.5,0.3286428451538086,-0.380,-0.380,-0.380,0.000,0.000,0.000
1640068690477040128,"2021-12-21,06:38:10",10.1.1.5,328,-0.380,-0.380,-0.380,0.000,0.000,0.000
1640068690781425920,"2021-12-21,06:38:10",10.1.1.5,302,-0.370,-0.370,-0.370,0.000,0.000,0.000
1640068690812998144,"2021-12-21,06:38:10",10.1.1.5,0.33422207832336426,-0.370,-0.370,-0.370,0.000,0.000,0.000
1640068691132875008,"2021-12-21,06:38:11",10.1.1.5,318,-0.360,-0.360,-0.360,0.000,0.000,0.000
1640068691147012864,"2021-12-21,06:38:11",10.1.1.5,0.3326408863067627,-0.360,-0.360,-0.360,0.000,0.000,0.000
1640068691473326080,"2021-12-21,06:38:11",10.1.1.5,323,-0.350,-0.350,-0.350,0.000,0.000,0.000
1640068691483643136,"2021-12-21,06:38:11",10.1.1.5,0.33144092559814453,-0.350,-0.350,-0.350,0.000,0.000,0.000
1640068691794115072,"2021-12-21,06:38:11",10.1.1.5,307,-0.340,-0.340,-0.340,0.000,0.000,0.000
1640068691819327232,"2021-12-21,06:38:11",10.1.1.5,0.33343005180358887,-0.340,-0.340,-0.340,0.000,0.000,0.000
1640068692134665984,"2021-12-21,06:38:12",10.1.1.5,313,-0.330,-0.330,-0.330,0.000,0.000,0.000
1640068692141409024,"2021-12-21,06:38:12",10.1.1.5,0.3199949264526367,-0.330,-0.330,-0.330,0.000,0.000,0.000
1640068692444911104,"2021-12-21,06:38:12",10.1.1.5,302,-0.320,-0.320,-0.320,0.000,0.000,0.000
1640068692469288960,"2021-12-21,06:38:12",10.1.1.5,0.3267049789428711,-0.320,-0.320,-0.320,0.000,0.000,0.000
1640068692786100992,"2021-12-21,06:38:12",10.1.1.5,315,-0.310,-0.310,-0.310,0.000,0.000,0.000
1640068692796407040,"2021-12-21,06:38:12",10.1.1.5,0.3258678913116455,-0.310,-0.310,-0.310,0.000,0.000,0.000
1640068693106513920,"2021-12-21,06:38:13",10.1.1.5,308,-0.300,-0.300,-0.300,0.000,0.000,0.000
1640068693145541888,"2021-12-21,06:38:13",10.1.1.5,0.3474857807159424,-0.300,-0.300,-0.300,0.000,0.000,0.000
1640068693459101952,"2021-12-21,06:38:13",10.1.1.5,311,-0.290,-0.290,-0.290,0.000,0.000,0.000
1640068693481666048,"2021-12-21,06:38:13",10.1.1.5,0.33486509323120117,-0.290,-0.290,-0.290,0.000,0.000,0.000
1640068693807476992,"2021-12-21,06:38:13",10.1.1.5,323,-0.280,-0.280,-0.280,0.000,0.000,0.000
1640068693821507840,"2021-12-21,06:38:13",10.1.1.5,0.33800506591796875,-0.280,-0.280,-0.280,0.000,0.000,0.000
1640068694139209984,"2021-12-21,06:38:14",10.1.1.5,316,-0.270,-0.270,-0.270,0.000,0.000,0.000
1640068694169620992,"2021-12-21,06:38:14",10.1.1.5,0.3468019962310791,-0.270,-0.270,-0.270,0.000,0.000,0.000
1640068694500572928,"2021-12-21,06:38:14",10.1.1.5,325,-0.260,-0.260,-0.260,0.000,0.000,0.000
1640068694505224960,"2021-12-21,06:38:14",10.1.1.5,0.330380916595459,-0.260,-0.260,-0.260,0.000,0.000,0.000
1640068694828633088,"2021-12-21,06:38:14",10.1.1.5,322,-0.250,-0.250,-0.250,0.000,0.000,0.000
1640068694867002880,"2021-12-21,06:38:14",10.1.1.5,0.36048197746276855,-0.250,-0.250,-0.250,0.000,0.000,0.000
1640068695157777152,"2021-12-21,06:38:15",10.1.1.5,289,-0.240,-0.240,-0.240,0.000,0.000,0.000
1640068695185776896,"2021-12-21,06:38:15",10.1.1.5,0.31717705726623535,-0.240,-0.240,-0.240,0.000,0.000,0.000
1640068695528478976,"2021-12-21,06:38:15",10.1.1.5,340,-0.230,-0.230,-0.230,0.000,0.000,0.000
1640068695543333888,"2021-12-21,06:38:15",10.1.1.5,0.35547590255737305,-0.230,-0.230,-0.230,0.000,0.000,0.000
1640068695878191872,"2021-12-21,06:38:15",10.1.1.5,331,-0.220,-0.220,-0.220,0.000,0.000,0.000
1640068695896930048,"2021-12-21,06:38:15",10.1.1.5,0.35076904296875,-0.220,-0.220,-0.220,0.000,0.000,0.000
1640068696218439936,"2021-12-21,06:38:16",10.1.1.5,319,-0.210,-0.210,-0.210,0.000,0.000,0.000
1640068696282999040,"2021-12-21,06:38:16",10.1.1.5,0.38450098037719727,-0.210,-0.210,-0.210,0.000,0.000,0.000
1640068696610569984,"2021-12-21,06:38:16",10.1.1.5,325,-0.200,-0.200,-0.200,0.000,0.000,0.000
1640068696710563072,"2021-12-21,06:38:16",10.1.1.5,0.4260091781616211,-0.200,-0.200,-0.200,0.000,0.000,0.000
1640068697010149120,"2021-12-21,06:38:17",10.1.1.5,297,-0.190,-0.190,-0.190,0.000,0.000,0.000
1640068697057327872,"2021-12-21,06:38:17",10.1.1.5,0.34489989280700684,-0.190,-0.190,-0.190,0.000,0.000,0.000
1640068697349297920,"2021-12-21,06:38:17",10.1.1.5,290,-0.180,-0.180,-0.180,0.000,0.000,0.000
1640068697378701056,"2021-12-21,06:38:17",10.1.1.5,0.3196561336517334,-0.180,-0.180,-0.180,0.000,0.000,0.000
1640068697678757888,"2021-12-21,06:38:17",10.1.1.5,297,-0.170,-0.170,-0.170,0.000,0.000,0.000
1640068697705705984,"2021-12-21,06:38:17",10.1.1.5,0.3246920108795166,-0.170,-0.170,-0.170,0.000,0.000,0.000
1640068698019195136,"2021-12-21,06:38:18",10.1.1.5,311,-0.160,-0.160,-0.160,0.000,0.000,0.000
1640068698034977024,"2021-12-21,06:38:18",10.1.1.5,0.3276669979095459,-0.160,-0.160,-0.160,0.000,0.000,0.000
1640068698329382912,"2021-12-21,06:38:18",10.1.1.5,292,-0.150,-0.150,-0.150,0.000,0.000,0.000
1640068698354127872,"2021-12-21,06:38:18",10.1.1.5,0.317493200302124,-0.150,-0.150,-0.150,0.000,0.000,0.000
1640068698708171008,"2021-12-21,06:38:18",10.1.1.5,352,-0.140,-0.140,-0.140,0.000,0.000,0.000
1640068698742264064,"2021-12-21,06:38:18",10.1.1.5,0.3866391181945801,-0.140,-0.140,-0.140,0.000,0.000,0.000
1640068699088660992,"2021-12-21,06:38:19",10.1.1.5,344,-0.130,-0.130,-0.130,0.000,0.000,0.000
1640068699125824000,"2021-12-21,06:38:19",10.1.1.5,0.38117098808288574,-0.130,-0.130,-0.130,0.000,0.000,0.000
1640068699479881984,"2021-12-21,06:38:19",10.1.1.5,352,-0.120,-0.120,-0.120,0.000,0.000,0.000
1640068699494535936,"2021-12-21,06:38:19",10.1.1.5,0.3669869899749756,-0.120,-0.120,-0.120,0.000,0.000,0.000
1640068699808495104,"2021-12-21,06:38:19",10.1.1.5,312,-0.110,-0.110,-0.110,0.000,0.000,0.000
1640068699850425856,"2021-12-21,06:38:19",10.1.1.5,0.3542139530181885,-0.110,-0.110,-0.110,0.000,0.000,0.000
1640068700178809856,"2021-12-21,06:38:20",10.1.1.5,325,-0.100,-0.100,-0.100,0.000,0.000,0.000
1640068700193771008,"2021-12-21,06:38:20",10.1.1.5,0.34071898460388184,-0.100,-0.100,-0.100,0.000,0.000,0.000
1640068700527542016,"2021-12-21,06:38:20",10.1.1.5,329,-0.090,-0.090,-0.090,0.000,0.000,0.000
1640068700547950080,"2021-12-21,06:38:20",10.1.1.5,0.35004281997680664,-0.090,-0.090,-0.090,0.000,0.000,0.000
1640068700848162816,"2021-12-21,06:38:20",10.1.1.5,298,-0.080,-0.080,-0.080,0.000,0.000,0.000
1640068700879123968,"2021-12-21,06:38:20",10.1.1.5,0.32976603507995605,-0.080,-0.080,-0.080,0.000,0.000,0.000
1640068701197544960,"2021-12-21,06:38:21",10.1.1.5,315,-0.070,-0.070,-0.070,0.000,0.000,0.000
1640068701240026880,"2021-12-21,06:38:21",10.1.1.5,0.3583810329437256,-0.070,-0.070,-0.070,0.000,0.000,0.000
1640068701567383040,"2021-12-21,06:38:21",10.1.1.5,325,-0.060,-0.060,-0.060,0.000,0.000,0.000
1640068701572047104,"2021-12-21,06:38:21",10.1.1.5,0.32996201515197754,-0.060,-0.060,-0.060,0.000,0.000,0.000
1640068701909570816,"2021-12-21,06:38:21",10.1.1.5,332,-0.050,-0.050,-0.050,0.000,0.000,0.000
1640068701911052032,"2021-12-21,06:38:21",10.1.1.5,0.337169885635376,-0.050,-0.050,-0.050,0.000,0.000,0.000
1640068702236635904,"2021-12-21,06:38:22",10.1.1.5,323,-0.040,-0.040,-0.040,0.000,0.000,0.000
1640068702273746944,"2021-12-21,06:38:22",10.1.1.5,0.36059093475341797,-0.040,-0.040,-0.040,0.000,0.000,0.000
1640068702602797056,"2021-12-21,06:38:22",10.1.1.5,324,-0.030,-0.030,-0.030,0.000,0.000,0.000
1640068702613778176,"2021-12-21,06:38:22",10.1.1.5,0.33852100372314453,-0.030,-0.030,-0.030,0.000,0.000,0.000
1640068702917210112,"2021-12-21,06:38:22",10.1.1.5,301,-0.020,-0.020,-0.020,0.000,0.000,0.000
1640068702946074112,"2021-12-21,06:38:22",10.1.1.5,0.3308830261230469,-0.020,-0.020,-0.020,0.000,0.000,0.000
1640068703246601216,"2021-12-21,06:38:23",10.1.1.5,293,-0.010,-0.010,-0.010,0.000,0.000,0.000
1640068703303033088,"2021-12-21,06:38:23",10.1.1.5,0.35021018981933594,-0.010,-0.010,-0.010,0.000,0.000,0.000
1640068703616188160,"2021-12-21,06:38:23",10.1.1.5,311,0.000,0.000,0.000,0.000,0.000,0.000
1640068703622343936,"2021-12-21,06:38:23",10.1.1.5,0.3172159194946289,0.000,0.000,0.000,0.000,0.000,0.000
1640068703976105984,"2021-12-21,06:38:23",10.1.1.5,350,-0.010,-0.010,-0.010,0.000,0.000,0.000
1640068704012544000,"2021-12-21,06:38:24",10.1.1.5,0.3867669105529785,-0.010,-0.010,-0.010,0.000,0.000,0.000
1640068704364967168,"2021-12-21,06:38:24",10.1.1.5,350,-0.020,-0.020,-0.020,0.000,0.000,0.000
1640068704369512192,"2021-12-21,06:38:24",10.1.1.5,0.35496091842651367,-0.020,-0.020,-0.020,0.000,0.000,0.000
1640068704694396928,"2021-12-21,06:38:24",10.1.1.5,323,-0.030,-0.030,-0.030,0.000,0.000,0.000
1640068704721021952,"2021-12-21,06:38:24",10.1.1.5,0.34986400604248047,-0.030,-0.030,-0.030,0.000,0.000,0.000
1640068705035444992,"2021-12-21,06:38:25",10.1.1.5,313,-0.040,-0.040,-0.040,0.000,0.000,0.000
1640068705041734912,"2021-12-21,06:38:25",10.1.1.5,0.31942319869995117,-0.040,-0.040,-0.040,0.000,0.000,0.000
1640068705333837056,"2021-12-21,06:38:25",10.1.1.5,290,-0.050,-0.050,-0.050,0.000,0.000,0.000
1640068705372435200,"2021-12-21,06:38:25",10.1.1.5,0.32914090156555176,-0.050,-0.050,-0.050,0.000,0.000,0.000
1640068705663885056,"2021-12-21,06:38:25",10.1.1.5,289,-0.060,-0.060,-0.060,0.000,0.000,0.000
1640068705688508928,"2021-12-21,06:38:25",10.1.1.5,0.31400203704833984,-0.060,-0.060,-0.060,0.000,0.000,0.000
1640068706002801920,"2021-12-21,06:38:26",10.1.1.5,312,-0.070,-0.070,-0.070,0.000,0.000,0.000
1640068706008666112,"2021-12-21,06:38:26",10.1.1.5,0.31851696968078613,-0.070,-0.070,-0.070,0.000,0.000,0.000
1640068706303122944,"2021-12-21,06:38:26",10.1.1.5,291,-0.080,-0.080,-0.080,0.000,0.000,0.000
1640068706334791936,"2021-12-21,06:38:26",10.1.1.5,0.3234989643096924,-0.080,-0.080,-0.080,0.000,0.000,0.000
1640068706631820800,"2021-12-21,06:38:26",10.1.1.5,294,-0.090,-0.090,-0.090,0.000,0.000,0.000
1640068706659636992,"2021-12-21,06:38:26",10.1.1.5,0.3223090171813965,-0.090,-0.090,-0.090,0.000,0.000,0.000
1640068706971870976,"2021-12-21,06:38:26",10.1.1.5,309,-0.100,-0.100,-0.100,0.000,0.000,0.000
1640068707047777792,"2021-12-21,06:38:27",10.1.1.5,0.3856830596923828,-0.100,-0.100,-0.100,0.000,0.000,0.000
1640068707351234048,"2021-12-21,06:38:27",10.1.1.5,300,-0.110,-0.110,-0.110,0.000,0.000,0.000
1640068707382437888,"2021-12-21,06:38:27",10.1.1.5,0.33188700675964355,-0.110,-0.110,-0.110,0.000,0.000,0.000
1640068707681159936,"2021-12-21,06:38:27",10.1.1.5,293,-0.120,-0.120,-0.120,0.000,0.000,0.000
1640068707710171904,"2021-12-21,06:38:27",10.1.1.5,0.3229560852050781,-0.120,-0.120,-0.120,0.000,0.000,0.000
1640068708030437120,"2021-12-21,06:38:28",10.1.1.5,316,-0.130,-0.130,-0.130,0.000,0.000,0.000
1640068708041271808,"2021-12-21,06:38:28",10.1.1.5,0.3274250030517578,-0.130,-0.130,-0.130,0.000,0.000,0.000
1640068708359859968,"2021-12-21,06:38:28",10.1.1.5,316,-0.140,-0.140,-0.140,0.000,0.000,0.000
1640068708387217152,"2021-12-21,06:38:28",10.1.1.5,0.3441429138183594,-0.140,-0.140,-0.140,0.000,0.000,0.000
1640068708740529152,"2021-12-21,06:38:28",10.1.1.5,351,-0.150,-0.150,-0.150,0.000,0.000,0.000
1640068708760742912,"2021-12-21,06:38:28",10.1.1.5,0.3715498447418213,-0.150,-0.150,-0.150,0.000,0.000,0.000
1640068709079549184,"2021-12-21,06:38:29",10.1.1.5,310,-0.160,-0.160,-0.160,0.000,0.000,0.000
1640068709138057984,"2021-12-21,06:38:29",10.1.1.5,0.35988688468933105,-0.160,-0.160,-0.160,0.000,0.000,0.000
1640068709488032000,"2021-12-21,06:38:29",10.1.1.5,346,-0.170,-0.170,-0.170,0.000,0.000,0.000
1640068709520335872,"2021-12-21,06:38:29",10.1.1.5,0.3785700798034668,-0.170,-0.170,-0.170,0.000,0.000,0.000
1640068709848148224,"2021-12-21,06:38:29",10.1.1.5,325,-0.180,-0.180,-0.180,0.000,0.000,0.000
1640068709857737984,"2021-12-21,06:38:29",10.1.1.5,0.33548688888549805,-0.180,-0.180,-0.180,0.000,0.000,0.000
1640068710157469952,"2021-12-21,06:38:30",10.1.1.5,298,-0.190,-0.190,-0.190,0.000,0.000,0.000
1640068710230720000,"2021-12-21,06:38:30",10.1.1.5,0.37164998054504395,-0.190,-0.190,-0.190,0.000,0.000,0.000
1640068710538194944,"2021-12-21,06:38:30",10.1.1.5,305,-0.200,-0.200,-0.200,0.000,0.000,0.000
1640068710549496832,"2021-12-21,06:38:30",10.1.1.5,0.317533016204834,-0.200,-0.200,-0.200,0.000,0.000,0.000
1640068710846238976,"2021-12-21,06:38:30",10.1.1.5,295,-0.210,-0.210,-0.210,0.000,0.000,0.000
1640068710883826944,"2021-12-21,06:38:30",10.1.1.5,0.33295297622680664,-0.210,-0.210,-0.210,0.000,0.000,0.000
1640068711216207104,"2021-12-21,06:38:31",10.1.1.5,331,-0.220,-0.220,-0.220,0.000,0.000,0.000
1640068711241234176,"2021-12-21,06:38:31",10.1.1.5,0.35615110397338867,-0.220,-0.220,-0.220,0.000,0.000,0.000
1640068711545366016,"2021-12-21,06:38:31",10.1.1.5,302,-0.230,-0.230,-0.230,0.000,0.000,0.000
1640068711566982912,"2021-12-21,06:38:31",10.1.1.5,0.3244209289550781,-0.230,-0.230,-0.230,0.000,0.000,0.000
1640068711895139840,"2021-12-21,06:38:31",10.1.1.5,326,-0.240,-0.240,-0.240,0.000,0.000,0.000
1640068711901009920,"2021-12-21,06:38:31",10.1.1.5,0.3325200080871582,-0.240,-0.240,-0.240,0.000,0.000,0.000
1640068712225716992,"2021-12-21,06:38:32",10.1.1.5,321,-0.250,-0.250,-0.250,0.000,0.000,0.000
1640068712264888064,"2021-12-21,06:38:32",10.1.1.5,0.3612370491027832,-0.250,-0.250,-0.250,0.000,0.000,0.000
1640068712546438912,"2021-12-21,06:38:32",10.1.1.5,280,-0.260,-0.260,-0.260,0.000,0.000,0.000
1640068712581211136,"2021-12-21,06:38:32",10.1.1.5,0.31505799293518066,-0.260,-0.260,-0.260,0.000,0.000,0.000
1640068712893972992,"2021-12-21,06:38:32",10.1.1.5,311,-0.270,-0.270,-0.270,0.000,0.000,0.000
1640068712913665024,"2021-12-21,06:38:32",10.1.1.5,0.331071138381958,-0.270,-0.270,-0.270,0.000,0.000,0.000
1640068713223268864,"2021-12-21,06:38:33",10.1.1.5,304,-0.280,-0.280,-0.280,0.000,0.000,0.000
1640068713248275968,"2021-12-21,06:38:33",10.1.1.5,0.3299398422241211,-0.280,-0.280,-0.280,0.000,0.000,0.000
1640068713553380864,"2021-12-21,06:38:33",10.1.1.5,303,-0.290,-0.290,-0.290,0.000,0.000,0.000
1640068713579294976,"2021-12-21,06:38:33",10.1.1.5,0.3294370174407959,-0.290,-0.290,-0.290,0.000,0.000,0.000
1640068713902648832,"2021-12-21,06:38:33",10.1.1.5,321,-0.300,-0.300,-0.300,0.000,0.000,0.000
1640068713919055872,"2021-12-21,06:38:33",10.1.1.5,0.3381638526916504,-0.300,-0.300,-0.300,0.000,0.000,0.000
1640068714221519872,"2021-12-21,06:38:34",10.1.1.5,300,-0.310,-0.310,-0.310,0.000,0.000,0.000
1640068714247623936,"2021-12-21,06:38:34",10.1.1.5,0.32691502571105957,-0.310,-0.310,-0.310,0.000,0.000,0.000
1640068714551085056,"2021-12-21,06:38:34",10.1.1.5,301,-0.320,-0.320,-0.320,0.000,0.000,0.000
1640068714596389120,"2021-12-21,06:38:34",10.1.1.5,0.34641289710998535,-0.320,-0.320,-0.320,0.000,0.000,0.000
1640068714900239872,"2021-12-21,06:38:34",10.1.1.5,302,-0.330,-0.330,-0.330,0.000,0.000,0.000
1640068714936150016,"2021-12-21,06:38:34",10.1.1.5,0.33844780921936035,-0.330,-0.330,-0.330,0.000,0.000,0.000
1640068715239675904,"2021-12-21,06:38:35",10.1.1.5,301,-0.340,-0.340,-0.340,0.000,0.000,0.000
1640068715274044160,"2021-12-21,06:38:35",10.1.1.5,0.3348729610443115,-0.340,-0.340,-0.340,0.000,0.000,0.000
1640068715589064960,"2021-12-21,06:38:35",10.1.1.5,310,-0.350,-0.350,-0.350,0.000,0.000,0.000
1640068715657510144,"2021-12-21,06:38:35",10.1.1.5,0.37897801399230957,-0.350,-0.350,-0.350,0.000,0.000,0.000
1640068715997248000,"2021-12-21,06:38:35",10.1.1.5,338,-0.360,-0.360,-0.360,0.000,0.000,0.000
1640068716015870976,"2021-12-21,06:38:36",10.1.1.5,0.35677099227905273,-0.360,-0.360,-0.360,0.000,0.000,0.000
1640068716356275200,"2021-12-21,06:38:36",10.1.1.5,0.3387877941131592,-0.370,-0.370,-0.370,0.000,0.000,0.000
1640068716687465984,"2021-12-21,06:38:36",10.1.1.5,328,-0.380,-0.380,-0.380,0.000,0.000,0.000
1640068716716226048,"2021-12-21,06:38:36",10.1.1.5,0.3576500415802002,-0.380,-0.380,-0.380,0.000,0.000,0.000
1640068717018204928,"2021-12-21,06:38:37",10.1.1.5,299,-0.390,-0.390,-0.390,0.000,0.000,0.000
1640068717106275072,"2021-12-21,06:38:37",10.1.1.5,0.3881089687347412,-0.390,-0.390,-0.390,0.000,0.000,0.000
1640068717419644160,"2021-12-21,06:38:37",10.1.1.5,310,-0.400,-0.400,-0.400,0.000,0.000,0.000
1640068717460521984,"2021-12-21,06:38:37",10.1.1.5,0.35170698165893555,-0.400,-0.400,-0.400,0.000,0.000,0.000
1640068717775934976,"2021-12-21,06:38:37",10.1.1.5,313,-0.410,-0.410,-0.410,0.000,0.000,0.000
1640068717909980928,"2021-12-21,06:38:37",10.1.1.5,0.4481770992279053,-0.410,-0.410,-0.410,0.000,0.000,0.000
1640068718257484032,"2021-12-21,06:38:38",10.1.1.5,345,-0.420,-0.420,-0.420,0.000,0.000,0.000
1640068718268729088,"2021-12-21,06:38:38",10.1.1.5,0.3570899963378906,-0.420,-0.420,-0.420,0.000,0.000,0.000
1640068718628886016,"2021-12-21,06:38:38",10.1.1.5,353,-0.430,-0.430,-0.430,0.000,0.000,0.000
1640068718663386112,"2021-12-21,06:38:38",10.1.1.5,0.3878660202026367,-0.430,-0.430,-0.430,0.000,0.000,0.000
1640068718990888960,"2021-12-21,06:38:38",10.1.1.5,326,-0.440,-0.440,-0.440,0.000,0.000,0.000
1640068719050321152,"2021-12-21,06:38:39",10.1.1.5,0.38567185401916504,-0.440,-0.440,-0.440,0.000,0.000,0.000
1640068719341945856,"2021-12-21,06:38:39",10.1.1.5,289,-0.450,-0.450,-0.450,0.000,0.000,0.000
1640068719368944896,"2021-12-21,06:38:39",10.1.1.5,0.31687402725219727,-0.450,-0.450,-0.450,0.000,0.000,0.000
1640068719693099008,"2021-12-21,06:38:39",10.1.1.5,321,-0.460,-0.460,-0.460,0.000,0.000,0.000
1640068719724440064,"2021-12-21,06:38:39",10.1.1.5,0.3518669605255127,-0.460,-0.460,-0.460,0.000,0.000,0.000
1640068720024637952,"2021-12-21,06:38:40",10.1.1.5,298,-0.470,-0.470,-0.470,0.000,0.000,0.000
1640068720066353152,"2021-12-21,06:38:40",10.1.1.5,0.34069085121154785,-0.470,-0.470,-0.470,0.000,0.000,0.000
1640068720376431872,"2021-12-21,06:38:40",10.1.1.5,306,-0.480,-0.480,-0.480,0.000,0.000,0.000
1640068720386234880,"2021-12-21,06:38:40",10.1.1.5,0.31617188453674316,-0.480,-0.480,-0.480,0.000,0.000,0.000
1640068720717434880,"2021-12-21,06:38:40",10.1.1.5,329,-0.490,-0.490,-0.490,0.000,0.000,0.000
1640068720796307968,"2021-12-21,06:38:40",10.1.1.5,0.4084281921386719,-0.490,-0.490,-0.490,0.000,0.000,0.000
1640068721129179904,"2021-12-21,06:38:41",10.1.1.5,331,-0.480,-0.480,-0.480,0.000,0.000,0.000
1640068721154131968,"2021-12-21,06:38:41",10.1.1.5,0.3561530113220215,-0.480,-0.480,-0.480,0.000,0.000,0.000
1640068721469799936,"2021-12-21,06:38:41",10.1.1.5,313,-0.470,-0.470,-0.470,0.000,0.000,0.000
1640068721500968960,"2021-12-21,06:38:41",10.1.1.5,0.34496498107910156,-0.470,-0.470,-0.470,0.000,0.000,0.000
1640068721811111936,"2021-12-21,06:38:41",10.1.1.5,307,-0.460,-0.460,-0.460,0.000,0.000,0.000
1640068721843241984,"2021-12-21,06:38:41",10.1.1.5,0.33979105949401855,-0.460,-0.460,-0.460,0.000,0.000,0.000
1640068722142033152,"2021-12-21,06:38:42",10.1.1.5,297,-0.450,-0.450,-0.450,0.000,0.000,0.000
1640068722182140160,"2021-12-21,06:38:42",10.1.1.5,0.3373408317565918,-0.450,-0.450,-0.450,0.000,0.000,0.000
1640068722491924992,"2021-12-21,06:38:42",10.1.1.5,308,-0.440,-0.440,-0.440,0.000,0.000,0.000
1640068722534934016,"2021-12-21,06:38:42",10.1.1.5,0.3511068820953369,-0.440,-0.440,-0.440,0.000,0.000,0.000
1640068722883205888,"2021-12-21,06:38:42",10.1.1.5,346,-0.430,-0.430,-0.430,0.000,0.000,0.000
1640068722938966016,"2021-12-21,06:38:42",10.1.1.5,0.4017500877380371,-0.430,-0.430,-0.430,0.000,0.000,0.000
1640068723277857024,"2021-12-21,06:38:43",10.1.1.5,336,-0.420,-0.420,-0.420,0.000,0.000,0.000
1640068723311163904,"2021-12-21,06:38:43",10.1.1.5,0.3700449466705322,-0.420,-0.420,-0.420,0.000,0.000,0.000
1640068723664508160,"2021-12-21,06:38:43",10.1.1.5,351,-0.410,-0.410,-0.410,0.000,0.000,0.000
1640068723672395008,"2021-12-21,06:38:43",10.1.1.5,0.3600478172302246,-0.410,-0.410,-0.410,0.000,0.000,0.000
1640068723995433984,"2021-12-21,06:38:43",10.1.1.5,321,-0.400,-0.400,-0.400,0.000,0.000,0.000
1640068724037581056,"2021-12-21,06:38:44",10.1.1.5,0.3638877868652344,-0.400,-0.400,-0.400,0.000,0.000,0.000
1640068724356521984,"2021-12-21,06:38:44",10.1.1.5,317,-0.390,-0.390,-0.390,0.000,0.000,0.000
1640068724395947008,"2021-12-21,06:38:44",10.1.1.5,0.35708093643188477,-0.390,-0.390,-0.390,0.000,0.000,0.000
1640068724720783104,"2021-12-21,06:38:44",10.1.1.5,323,-0.380,-0.380,-0.380,0.000,0.000,0.000
1640068724776752896,"2021-12-21,06:38:44",10.1.1.5,0.37946105003356934,-0.380,-0.380,-0.380,0.000,0.000,0.000
1640068725088807936,"2021-12-21,06:38:45",10.1.1.5,308,-0.370,-0.370,-0.370,0.000,0.000,0.000
1640068725106690048,"2021-12-21,06:38:45",10.1.1.5,0.3261861801147461,-0.370,-0.370,-0.370,0.000,0.000,0.000
1640068725437152000,"2021-12-21,06:38:45",10.1.1.5,328,-0.360,-0.360,-0.360,0.000,0.000,0.000
1640068725540164096,"2021-12-21,06:38:45",10.1.1.5,0.43171095848083496,-0.360,-0.360,-0.360,0.000,0.000,0.000
1640068725837452800,"2021-12-21,06:38:45",10.1.1.5,295,-0.350,-0.350,-0.350,0.000,0.000,0.000
1640068725866514944,"2021-12-21,06:38:45",10.1.1.5,0.3248929977416992,-0.350,-0.350,-0.350,0.000,0.000,0.000
1640068726168320000,"2021-12-21,06:38:46",10.1.1.5,300,-0.340,-0.340,-0.340,0.000,0.000,0.000
1640068726214179072,"2021-12-21,06:38:46",10.1.1.5,0.346376895904541,-0.340,-0.340,-0.340,0.000,0.000,0.000
1640068726527697920,"2021-12-21,06:38:46",10.1.1.5,311,-0.330,-0.330,-0.330,0.000,0.000,0.000
1640068726557069056,"2021-12-21,06:38:46",10.1.1.5,0.34090280532836914,-0.330,-0.330,-0.330,0.000,0.000,0.000
1640068726887841024,"2021-12-21,06:38:46",10.1.1.5,329,-0.320,-0.320,-0.320,0.000,0.000,0.000
1640068726901236992,"2021-12-21,06:38:46",10.1.1.5,0.34282612800598145,-0.320,-0.320,-0.320,0.000,0.000,0.000
1640068727238156032,"2021-12-21,06:38:47",10.1.1.5,335,-0.310,-0.310,-0.310,0.000,0.000,0.000
1640068727252877056,"2021-12-21,06:38:47",10.1.1.5,0.35022497177124023,-0.310,-0.310,-0.310,0.000,0.000,0.000
1640068727569417984,"2021-12-21,06:38:47",10.1.1.5,314,-0.300,-0.300,-0.300,0.000,0.000,0.000
1640068727606283008,"2021-12-21,06:38:47",10.1.1.5,0.3512709140777588,-0.300,-0.300,-0.300,0.000,0.000,0.000
1640068727927895040,"2021-12-21,06:38:47",10.1.1.5,320,-0.290,-0.290,-0.290,0.000,0.000,0.000
1640068727998084096,"2021-12-21,06:38:47",10.1.1.5,0.39024901390075684,-0.290,-0.290,-0.290,0.000,0.000,0.000
1640068728349472000,"2021-12-21,06:38:48",10.1.1.5,350,-0.280,-0.280,-0.280,0.000,0.000,0.000
1640068728392741888,"2021-12-21,06:38:48",10.1.1.5,0.39345407485961914,-0.280,-0.280,-0.280,0.000,0.000,0.000
1640068728718040832,"2021-12-21,06:38:48",10.1.1.5,322,-0.270,-0.270,-0.270,0.000,0.000,0.000
1640068728752700928,"2021-12-21,06:38:48",10.1.1.5,0.35747790336608887,-0.270,-0.270,-0.270,0.000,0.000,0.000
1640068729068754944,"2021-12-21,06:38:49",10.1.1.5,313,-0.260,-0.260,-0.260,0.000,0.000,0.000
1640068729096204032,"2021-12-21,06:38:49",10.1.1.5,0.34119105339050293,-0.260,-0.260,-0.260,0.000,0.000,0.000
1640068729455430144,"2021-12-21,06:38:49",10.1.1.5,0.35773706436157227,-0.250,-0.250,-0.250,0.000,0.000,0.000
1640068729769128960,"2021-12-21,06:38:49",10.1.1.5,312,-0.240,-0.240,-0.240,0.000,0.000,0.000
1640068729810283008,"2021-12-21,06:38:49",10.1.1.5,0.35364198684692383,-0.240,-0.240,-0.240,0.000,0.000,0.000
1640068730145044992,"2021-12-21,06:38:50",10.1.1.5,332,-0.230,-0.230,-0.230,0.000,0.000,0.000
1640068730159580928,"2021-12-21,06:38:50",10.1.1.5,0.3472862243652344,-0.230,-0.230,-0.230,0.000,0.000,0.000
1640068730507852032,"2021-12-21,06:38:50",10.1.1.5,346,-0.220,-0.220,-0.220,0.000,0.000,0.000
1640068730556283904,"2021-12-21,06:38:50",10.1.1.5,0.3950049877166748,-0.220,-0.220,-0.220,0.000,0.000,0.000
1640068730889609216,"2021-12-21,06:38:50",10.1.1.5,325,-0.210,-0.210,-0.210,0.000,0.000,0.000
1640068730896596992,"2021-12-21,06:38:50",10.1.1.5,0.33239293098449707,-0.210,-0.210,-0.210,0.000,0.000,0.000
1640068731280690944,"2021-12-21,06:38:51",10.1.1.5,374,-0.200,-0.200,-0.200,0.000,0.000,0.000
1640068731316407808,"2021-12-21,06:38:51",10.1.1.5,0.41057300567626953,-0.200,-0.200,-0.200,0.000,0.000,0.000
1640068731697702912,"2021-12-21,06:38:51",10.1.1.5,375,-0.190,-0.190,-0.190,0.000,0.000,0.000
1640068731771287040,"2021-12-21,06:38:51",10.1.1.5,0.44892001152038574,-0.190,-0.190,-0.190,0.000,0.000,0.000
1640068732137415936,"2021-12-21,06:38:52",10.1.1.5,363,-0.180,-0.180,-0.180,0.000,0.000,0.000
1640068732183660032,"2021-12-21,06:38:52",10.1.1.5,0.40982985496520996,-0.180,-0.180,-0.180,0.000,0.000,0.000
1640068732516824064,"2021-12-21,06:38:52",10.1.1.5,330,-0.170,-0.170,-0.170,0.000,0.000,0.000
1640068732540344832,"2021-12-21,06:38:52",10.1.1.5,0.35439395904541016,-0.170,-0.170,-0.170,0.000,0.000,0.000
1640068732907147776,"2021-12-21,06:38:52",10.1.1.5,363,-0.160,-0.160,-0.160,0.000,0.000,0.000
1640068732931817984,"2021-12-21,06:38:52",10.1.1.5,0.3883628845214844,-0.160,-0.160,-0.160,0.000,0.000,0.000
1640068733236596224,"2021-12-21,06:38:53",10.1.1.5,303,-0.150,-0.150,-0.150,0.000,0.000,0.000
1640068733276502016,"2021-12-21,06:38:53",10.1.1.5,0.3369121551513672,-0.150,-0.150,-0.150,0.000,0.000,0.000
1640068733616238080,"2021-12-21,06:38:53",10.1.1.5,337,-0.140,-0.140,-0.140,0.000,0.000,0.000
1640068733632588032,"2021-12-21,06:38:53",10.1.1.5,0.35376405715942383,-0.140,-0.140,-0.140,0.000,0.000,0.000
1640068733974199040,"2021-12-21,06:38:53",10.1.1.5,0.33995914459228516,-0.130,-0.130,-0.130,0.000,0.000,0.000
1640068734295536128,"2021-12-21,06:38:54",10.1.1.5,320,-0.120,-0.120,-0.120,0.000,0.000,0.000
1640068734355534080,"2021-12-21,06:38:54",10.1.1.5,0.38007688522338867,-0.120,-0.120,-0.120,0.000,0.000,0.000
1640068734675419136,"2021-12-21,06:38:54",10.1.1.5,318,-0.110,-0.110,-0.110,0.000,0.000,0.000
1640068734714505984,"2021-12-21,06:38:54",10.1.1.5,0.3574061393737793,-0.110,-0.110,-0.110,0.000,0.000,0.000
1640068735035873792,"2021-12-21,06:38:55",10.1.1.5,319,-0.100,-0.100,-0.100,0.000,0.000,0.000
1640068735052221952,"2021-12-21,06:38:55",10.1.1.5,0.336014986038208,-0.100,-0.100,-0.100,0.000,0.000,0.000
1640068735375421952,"2021-12-21,06:38:55",10.1.1.5,318,-0.090,-0.090,-0.090,0.000,0.000,0.000
1640068735380052992,"2021-12-21,06:38:55",10.1.1.5,0.32352113723754883,-0.090,-0.090,-0.090,0.000,0.000,0.000
1640068735731934976,"2021-12-21,06:38:55",10.1.1.5,350,-0.080,-0.080,-0.080,0.000,0.000,0.000
1640068735741520896,"2021-12-21,06:38:55",10.1.1.5,0.3600168228149414,-0.080,-0.080,-0.080,0.000,0.000,0.000
1640068736125606144,"2021-12-21,06:38:56",10.1.1.5,382,-0.070,-0.070,-0.070,0.000,0.000,0.000
1640068736149945088,"2021-12-21,06:38:56",10.1.1.5,0.4068119525909424,-0.070,-0.070,-0.070,0.000,0.000,0.000
1640068736524493824,"2021-12-21,06:38:56",10.1.1.5,373,-0.060,-0.060,-0.060,0.000,0.000,0.000
1640068736546158080,"2021-12-21,06:38:56",10.1.1.5,0.3948979377746582,-0.060,-0.060,-0.060,0.000,0.000,0.000
1640068736934118912,"2021-12-21,06:38:56",10.1.1.5,384,-0.050,-0.050,-0.050,0.000,0.000,0.000
1640068736967930112,"2021-12-21,06:38:56",10.1.1.5,0.41852593421936035,-0.050,-0.050,-0.050,0.000,0.000,0.000
1640068737322184960,"2021-12-21,06:38:57",10.1.1.5,351,-0.040,-0.040,-0.040,0.000,0.000,0.000
1640068737351162880,"2021-12-21,06:38:57",10.1.1.5,0.3802521228790283,-0.040,-0.040,-0.040,0.000,0.000,0.000
1640068737701796096,"2021-12-21,06:38:57",10.1.1.5,346,-0.030,-0.030,-0.030,0.000,0.000,0.000
1640068737804240896,"2021-12-21,06:38:57",10.1.1.5,0.44939589500427246,-0.030,-0.030,-0.030,0.000,0.000,0.000
1640068738172542976,"2021-12-21,06:38:58",10.1.1.5,365,-0.020,-0.020,-0.020,0.000,0.000,0.000
1640068738210177024,"2021-12-21,06:38:58",10.1.1.5,0.40279603004455566,-0.020,-0.020,-0.020,0.000,0.000,0.000
1640068738552752896,"2021-12-21,06:38:58",10.1.1.5,340,-0.010,-0.010,-0.010,0.000,0.000,0.000
1640068738626054912,"2021-12-21,06:38:58",10.1.1.5,0.41438913345336914,-0.010,-0.010,-0.010,0.000,0.000,0.000
1640068738981203968,"2021-12-21,06:38:58",10.1.1.5,352,0.000,0.000,0.000,0.000,0.000,0.000
1640068739023803904,"2021-12-21,06:38:59",10.1.1.5,0.39637017250061035,0.000,0.000,0.000,0.000,0.000,0.000
1640068739352839936,"2021-12-21,06:38:59",10.1.1.5,326,-0.010,-0.010,-0.010,0.000,0.000,0.000
1640068739417571072,"2021-12-21,06:38:59",10.1.1.5,0.3913290500640869,-0.010,-0.010,-0.010,0.000,0.000,0.000
1640068739780072960,"2021-12-21,06:38:59",10.1.1.5,357,-0.020,-0.020,-0.020,0.000,0.000,0.000
1640068739804274944,"2021-12-21,06:38:59",10.1.1.5,0.38222718238830566,-0.020,-0.020,-0.020,0.000,0.000,0.000
1640068740209079040,"2021-12-21,06:39:00",10.1.1.5,402,-0.030,-0.030,-0.030,0.000,0.000,0.000
1640068740293481216,"2021-12-21,06:39:00",10.1.1.5,0.48685598373413086,-0.030,-0.030,-0.030,0.000,0.000,0.000
1640068740630012928,"2021-12-21,06:39:00",10.1.1.5,335,-0.040,-0.040,-0.040,0.000,0.000,0.000
1640068740687798016,"2021-12-21,06:39:00",10.1.1.5,0.3930509090423584,-0.040,-0.040,-0.040,0.000,0.000,0.000
1640068741065694208,"2021-12-21,06:39:01",10.1.1.5,0.37586307525634766,-0.050,-0.050,-0.050,0.000,0.000,0.000
1640068741065956096,"2021-12-21,06:39:01",10.1.1.5,376,-0.050,-0.050,-0.050,0.000,0.000,0.000
1640068741438632960,"2021-12-21,06:39:01",10.1.1.5,369,-0.060,-0.060,-0.060,0.000,0.000,0.000
1640068741501178112,"2021-12-21,06:39:01",10.1.1.5,0.4321250915527344,-0.060,-0.060,-0.060,0.000,0.000,0.000
1640068741838684160,"2021-12-21,06:39:01",10.1.1.5,330,-0.070,-0.070,-0.070,0.000,0.000,0.000
1640068741861387008,"2021-12-21,06:39:01",10.1.1.5,0.35338592529296875,-0.070,-0.070,-0.070,0.000,0.000,0.000
1640068742176131840,"2021-12-21,06:39:02",10.1.1.5,312,-0.080,-0.080,-0.080,0.000,0.000,0.000
1640068742207631104,"2021-12-21,06:39:02",10.1.1.5,0.3437960147857666,-0.080,-0.080,-0.080,0.000,0.000,0.000
1640068742564914944,"2021-12-21,06:39:02",10.1.1.5,355,-0.090,-0.090,-0.090,0.000,0.000,0.000
1640068742572417024,"2021-12-21,06:39:02",10.1.1.5,0.3632030487060547,-0.090,-0.090,-0.090,0.000,0.000,0.000
1640068742919424000,"2021-12-21,06:39:02",10.1.1.5,344,-0.100,-0.100,-0.100,0.000,0.000,0.000
1640068742936677888,"2021-12-21,06:39:02",10.1.1.5,0.36296892166137695,-0.100,-0.100,-0.100,0.000,0.000,0.000
1640068743306471168,"2021-12-21,06:39:03",10.1.1.5,368,-0.110,-0.110,-0.110,0.000,0.000,0.000
1640068743323865856,"2021-12-21,06:39:03",10.1.1.5,0.3859829902648926,-0.110,-0.110,-0.110,0.000,0.000,0.000
1640068743704627968,"2021-12-21,06:39:03",10.1.1.5,377,-0.120,-0.120,-0.120,0.000,0.000,0.000
1640068743743014144,"2021-12-21,06:39:03",10.1.1.5,0.4166269302368164,-0.120,-0.120,-0.120,0.000,0.000,0.000
1640068744103819008,"2021-12-21,06:39:04",10.1.1.5,357,-0.130,-0.130,-0.130,0.000,0.000,0.000
1640068744124262144,"2021-12-21,06:39:04",10.1.1.5,0.3778269290924072,-0.130,-0.130,-0.130,0.000,0.000,0.000
1640068744452954112,"2021-12-21,06:39:04",10.1.1.5,322,-0.140,-0.140,-0.140,0.000,0.000,0.000
1640068744507936000,"2021-12-21,06:39:04",10.1.1.5,0.3779110908508301,-0.140,-0.140,-0.140,0.000,0.000,0.000
1640068744841743872,"2021-12-21,06:39:04",10.1.1.5,332,-0.150,-0.150,-0.150,0.000,0.000,0.000
1640068744872386816,"2021-12-21,06:39:04",10.1.1.5,0.3631260395050049,-0.150,-0.150,-0.150,0.000,0.000,0.000
1640068745181684992,"2021-12-21,06:39:05",10.1.1.5,307,-0.160,-0.160,-0.160,0.000,0.000,0.000
1640068745230468864,"2021-12-21,06:39:05",10.1.1.5,0.3561899662017822,-0.160,-0.160,-0.160,0.000,0.000,0.000
1640068745551372032,"2021-12-21,06:39:05",10.1.1.5,319,-0.170,-0.170,-0.170,0.000,0.000,0.000
1640068745578808064,"2021-12-21,06:39:05",10.1.1.5,0.34690403938293457,-0.170,-0.170,-0.170,0.000,0.000,0.000
1640068745900114944,"2021-12-21,06:39:05",10.1.1.5,319,-0.180,-0.180,-0.180,0.000,0.000,0.000
1640068745929604096,"2021-12-21,06:39:05",10.1.1.5,0.3495368957519531,-0.180,-0.180,-0.180,0.000,0.000,0.000
1640068746252182016,"2021-12-21,06:39:06",10.1.1.5,321,-0.190,-0.190,-0.190,0.000,0.000,0.000
1640068746277864960,"2021-12-21,06:39:06",10.1.1.5,0.34683895111083984,-0.190,-0.190,-0.190,0.000,0.000,0.000
1640068746599791104,"2021-12-21,06:39:06",10.1.1.5,317,-0.200,-0.200,-0.200,0.000,0.000,0.000
1640068746642237952,"2021-12-21,06:39:06",10.1.1.5,0.35947394371032715,-0.200,-0.200,-0.200,0.000,0.000,0.000
1640068746988470016,"2021-12-21,06:39:06",10.1.1.5,343,-0.210,-0.210,-0.210,0.000,0.000,0.000
1640068747049804032,"2021-12-21,06:39:07",10.1.1.5,0.4053051471710205,-0.210,-0.210,-0.210,0.000,0.000,0.000
1640068747429313792,"2021-12-21,06:39:07",10.1.1.5,377,-0.220,-0.220,-0.220,0.000,0.000,0.000
1640068747496674048,"2021-12-21,06:39:07",10.1.1.5,0.44515180587768555,-0.220,-0.220,-0.220,0.000,0.000,0.000
1640068747848033024,"2021-12-21,06:39:07",10.1.1.5,349,-0.230,-0.230,-0.230,0.000,0.000,0.000
1640068747908413952,"2021-12-21,06:39:07",10.1.1.5,0.4094560146331787,-0.230,-0.230,-0.230,0.000,0.000,0.000
1640068748267446016,"2021-12-21,06:39:08",10.1.1.5,355,-0.240,-0.240,-0.240,0.000,0.000,0.000
1640068748297831936,"2021-12-21,06:39:08",10.1.1.5,0.3859260082244873,-0.240,-0.240,-0.240,0.000,0.000,0.000
1640068748697356032,"2021-12-21,06:39:08",10.1.1.5,397,-0.250,-0.250,-0.250,0.000,0.000,0.000
1640068748763497984,"2021-12-21,06:39:08",10.1.1.5,0.4633660316467285,-0.250,-0.250,-0.250,0.000,0.000,0.000
1640068749125348096,"2021-12-21,06:39:09",10.1.1.5,360,-0.260,-0.260,-0.260,0.000,0.000,0.000
1640068749201550080,"2021-12-21,06:39:09",10.1.1.5,0.436535120010376,-0.260,-0.260,-0.260,0.000,0.000,0.000
1640068749567260928,"2021-12-21,06:39:09",10.1.1.5,361,-0.270,-0.270,-0.270,0.000,0.000,0.000
1640068749610851072,"2021-12-21,06:39:09",10.1.1.5,0.4055159091949463,-0.270,-0.270,-0.270,0.000,0.000,0.000
1640068749964919040,"2021-12-21,06:39:09",10.1.1.5,350,-0.280,-0.280,-0.280,0.000,0.000,0.000
1640068750021225984,"2021-12-21,06:39:10",10.1.1.5,0.4065690040588379,-0.280,-0.280,-0.280,0.000,0.000,0.000
1640068750371907840,"2021-12-21,06:39:10",10.1.1.5,348,-0.290,-0.290,-0.290,0.000,0.000,0.000
1640068750384058880,"2021-12-21,06:39:10",10.1.1.5,0.3611171245574951,-0.290,-0.290,-0.290,0.000,0.000,0.000
1640068750784432896,"2021-12-21,06:39:10",10.1.1.5,0.39868998527526855,-0.300,-0.300,-0.300,0.000,0.000,0.000
1640068750784730880,"2021-12-21,06:39:10",10.1.1.5,398,-0.300,-0.300,-0.300,0.000,0.000,0.000
1640068751160006912,"2021-12-21,06:39:11",10.1.1.5,373,-0.310,-0.310,-0.310,0.000,0.000,0.000
1640068751169121024,"2021-12-21,06:39:11",10.1.1.5,0.38249707221984863,-0.310,-0.310,-0.310,0.000,0.000,0.000
1640068751551863040,"2021-12-21,06:39:11",10.1.1.5,378,-0.320,-0.320,-0.320,0.000,0.000,0.000
1640068751583290112,"2021-12-21,06:39:11",10.1.1.5,0.4097261428833008,-0.320,-0.320,-0.320,0.000,0.000,0.000
1640068751933687808,"2021-12-21,06:39:11",10.1.1.5,347,-0.330,-0.330,-0.330,0.000,0.000,0.000
1640068751971015936,"2021-12-21,06:39:11",10.1.1.5,0.38462185859680176,-0.330,-0.330,-0.330,0.000,0.000,0.000
1640068752370824192,"2021-12-21,06:39:12",10.1.1.5,394,-0.340,-0.340,-0.340,0.000,0.000,0.000
1640068752459489024,"2021-12-21,06:39:12",10.1.1.5,0.48346900939941406,-0.340,-0.340,-0.340,0.000,0.000,0.000
1640068752816838912,"2021-12-21,06:39:12",10.1.1.5,340,-0.350,-0.350,-0.350,0.000,0.000,0.000
1640068752853193984,"2021-12-21,06:39:12",10.1.1.5,0.37645792961120605,-0.350,-0.350,-0.350,0.000,0.000,0.000
1640068753205942016,"2021-12-21,06:39:13",10.1.1.5,350,-0.360,-0.360,-0.360,0.000,0.000,0.000
1640068753275599104,"2021-12-21,06:39:13",10.1.1.5,0.4203929901123047,-0.360,-0.360,-0.360,0.000,0.000,0.000
1640068753699767040,"2021-12-21,06:39:13",10.1.1.5,422,-0.370,-0.370,-0.370,0.000,0.000,0.000
1640068753733871104,"2021-12-21,06:39:13",10.1.1.5,0.45661211013793945,-0.370,-0.370,-0.370,0.000,0.000,0.000
1640068754091363840,"2021-12-21,06:39:14",10.1.1.5,352,-0.380,-0.380,-0.380,0.000,0.000,0.000
1640068754170190080,"2021-12-21,06:39:14",10.1.1.5,0.43160295486450195,-0.380,-0.380,-0.380,0.000,0.000,0.000
1640068754511881216,"2021-12-21,06:39:14",10.1.1.5,340,-0.390,-0.390,-0.390,0.000,0.000,0.000
1640068754580239104,"2021-12-21,06:39:14",10.1.1.5,0.4086318016052246,-0.390,-0.390,-0.390,0.000,0.000,0.000
1640068754912590080,"2021-12-21,06:39:14",10.1.1.5,329,-0.400,-0.400,-0.400,0.000,0.000,0.000
1640068754956943104,"2021-12-21,06:39:14",10.1.1.5,0.37346601486206055,-0.400,-0.400,-0.400,0.000,0.000,0.000
1640068755329351936,"2021-12-21,06:39:15",10.1.1.5,362,-0.410,-0.410,-0.410,0.000,0.000,0.000
1640068755345571072,"2021-12-21,06:39:15",10.1.1.5,0.38591885566711426,-0.410,-0.410,-0.410,0.000,0.000,0.000
1640068755724931072,"2021-12-21,06:39:15",10.1.1.5,373,-0.420,-0.420,-0.420,0.000,0.000,0.000
1640068755837775104,"2021-12-21,06:39:15",10.1.1.5,0.48629212379455566,-0.420,-0.420,-0.420,0.000,0.000,0.000
1640068756216691968,"2021-12-21,06:39:16",10.1.1.5,361,-0.430,-0.430,-0.430,0.000,0.000,0.000
1640068756247410176,"2021-12-21,06:39:16",10.1.1.5,0.3929729461669922,-0.430,-0.430,-0.430,0.000,0.000,0.000
1640068756576436992,"2021-12-21,06:39:16",10.1.1.5,326,-0.440,-0.440,-0.440,0.000,0.000,0.000
1640068756638565120,"2021-12-21,06:39:16",10.1.1.5,0.3897287845611572,-0.440,-0.440,-0.440,0.000,0.000,0.000
1640068756956890112,"2021-12-21,06:39:16",10.1.1.5,315,-0.450,-0.450,-0.450,0.000,0.000,0.000
1640068756989423104,"2021-12-21,06:39:16",10.1.1.5,0.3468821048736572,-0.450,-0.450,-0.450,0.000,0.000,0.000
1640068757297161984,"2021-12-21,06:39:17",10.1.1.5,305,-0.460,-0.460,-0.460,0.000,0.000,0.000
1640068757336081152,"2021-12-21,06:39:17",10.1.1.5,0.34420299530029297,-0.460,-0.460,-0.460,0.000,0.000,0.000
1640068757657204992,"2021-12-21,06:39:17",10.1.1.5,318,-0.470,-0.470,-0.470,0.000,0.000,0.000
1640068757699297792,"2021-12-21,06:39:17",10.1.1.5,0.3603529930114746,-0.470,-0.470,-0.470,0.000,0.000,0.000
1640068758048461824,"2021-12-21,06:39:18",10.1.1.5,345,-0.480,-0.480,-0.480,0.000,0.000,0.000
1640068758078828032,"2021-12-21,06:39:18",10.1.1.5,0.3759958744049072,-0.480,-0.480,-0.480,0.000,0.000,0.000
1640068758447909120,"2021-12-21,06:39:18",10.1.1.5,367,-0.490,-0.490,-0.490,0.000,0.000,0.000
1640068758486023936,"2021-12-21,06:39:18",10.1.1.5,0.4056131839752197,-0.490,-0.490,-0.490,0.000,0.000,0.000
1640068758798962176,"2021-12-21,06:39:18",10.1.1.5,311,-0.480,-0.480,-0.480,0.000,0.000,0.000
1640068758833740032,"2021-12-21,06:39:18",10.1.1.5,0.3464701175689697,-0.480,-0.480,-0.480,0.000,0.000,0.000
1640068759168925952,"2021-12-21,06:39:19",10.1.1.5,332,-0.470,-0.470,-0.470,0.000,0.000,0.000
1640068759214711808,"2021-12-21,06:39:19",10.1.1.5,0.37818098068237305,-0.470,-0.470,-0.470,0.000,0.000,0.000
1640068759538801920,"2021-12-21,06:39:19",10.1.1.5,322,-0.460,-0.460,-0.460,0.000,0.000,0.000
1640068759546767872,"2021-12-21,06:39:19",10.1.1.5,0.3305230140686035,-0.460,-0.460,-0.460,0.000,0.000,0.000
1640068759879111936,"2021-12-21,06:39:19",10.1.1.5,328,-0.450,-0.450,-0.450,0.000,0.000,0.000
1640068759913718016,"2021-12-21,06:39:19",10.1.1.5,0.3630681037902832,-0.450,-0.450,-0.450,0.000,0.000,0.000
1640068760250348032,"2021-12-21,06:39:20",10.1.1.5,335,-0.440,-0.440,-0.440,0.000,0.000,0.000
1640068760323895040,"2021-12-21,06:39:20",10.1.1.5,0.4085819721221924,-0.440,-0.440,-0.440,0.000,0.000,0.000
1640068760638638080,"2021-12-21,06:39:20",10.1.1.5,313,-0.430,-0.430,-0.430,0.000,0.000,0.000
1640068760662235136,"2021-12-21,06:39:20",10.1.1.5,0.3367960453033447,-0.430,-0.430,-0.430,0.000,0.000,0.000
1640068761029196032,"2021-12-21,06:39:21",10.1.1.5,365,-0.420,-0.420,-0.420,0.000,0.000,0.000
1640068761068515072,"2021-12-21,06:39:21",10.1.1.5,0.4044342041015625,-0.420,-0.420,-0.420,0.000,0.000,0.000
1640068761429110016,"2021-12-21,06:39:21",10.1.1.5,348,-0.410,-0.410,-0.410,0.000,0.000,0.000
1640068761492516096,"2021-12-21,06:39:21",10.1.1.5,0.41173696517944336,-0.410,-0.410,-0.410,0.000,0.000,0.000
1640068761852569088,"2021-12-21,06:39:21",10.1.1.5,358,-0.400,-0.400,-0.400,0.000,0.000,0.000
1640068761909671936,"2021-12-21,06:39:21",10.1.1.5,0.4159660339355469,-0.400,-0.400,-0.400,0.000,0.000,0.000
1640068762219460864,"2021-12-21,06:39:22",10.1.1.5,308,-0.390,-0.390,-0.390,0.000,0.000,0.000
1640068762251300096,"2021-12-21,06:39:22",10.1.1.5,0.3400440216064453,-0.390,-0.390,-0.390,0.000,0.000,0.000
1640068762570251008,"2021-12-21,06:39:22",10.1.1.5,316,-0.380,-0.380,-0.380,0.000,0.000,0.000
1640068762611841024,"2021-12-21,06:39:22",10.1.1.5,0.3579249382019043,-0.380,-0.380,-0.380,0.000,0.000,0.000
1640068762929073152,"2021-12-21,06:39:22",10.1.1.5,315,-0.370,-0.370,-0.370,0.000,0.000,0.000
1640068762963675904,"2021-12-21,06:39:22",10.1.1.5,0.35059285163879395,-0.370,-0.370,-0.370,0.000,0.000,0.000
1640068763280769024,"2021-12-21,06:39:23",10.1.1.5,315,-0.360,-0.360,-0.360,0.000,0.000,0.000
1640068763333913088,"2021-12-21,06:39:23",10.1.1.5,0.36884403228759766,-0.360,-0.360,-0.360,0.000,0.000,0.000
1640068763685200896,"2021-12-21,06:39:23",10.1.1.5,349,-0.350,-0.350,-0.350,0.000,0.000,0.000
1640068763738502912,"2021-12-21,06:39:23",10.1.1.5,0.40320396423339844,-0.350,-0.350,-0.350,0.000,0.000,0.000
1640068764058244864,"2021-12-21,06:39:24",10.1.1.5,314,-0.340,-0.340,-0.340,0.000,0.000,0.000
1640068764112602112,"2021-12-21,06:39:24",10.1.1.5,0.36916303634643555,-0.340,-0.340,-0.340,0.000,0.000,0.000
1640068764448317952,"2021-12-21,06:39:24",10.1.1.5,330,-0.330,-0.330,-0.330,0.000,0.000,0.000
1640068764484830976,"2021-12-21,06:39:24",10.1.1.5,0.36745595932006836,-0.330,-0.330,-0.330,0.000,0.000,0.000
1640068764858023936,"2021-12-21,06:39:24",10.1.1.5,371,-0.320,-0.320,-0.320,0.000,0.000,0.000
1640068764911406080,"2021-12-21,06:39:24",10.1.1.5,0.4251232147216797,-0.320,-0.320,-0.320,0.000,0.000,0.000
1640068765278855936,"2021-12-21,06:39:25",10.1.1.5,365,-0.310,-0.310,-0.310,0.000,0.000,0.000
1640068765324536064,"2021-12-21,06:39:25",10.1.1.5,0.41149210929870605,-0.310,-0.310,-0.310,0.000,0.000,0.000
1640068765647952128,"2021-12-21,06:39:25",10.1.1.5,321,-0.300,-0.300,-0.300,0.000,0.000,0.000
1640068765659717120,"2021-12-21,06:39:25",10.1.1.5,0.33321094512939453,-0.300,-0.300,-0.300,0.000,0.000,0.000
1640068766037555968,"2021-12-21,06:39:26",10.1.1.5,376,-0.290,-0.290,-0.290,0.000,0.000,0.000
1640068766081366016,"2021-12-21,06:39:26",10.1.1.5,0.4201231002807617,-0.290,-0.290,-0.290,0.000,0.000,0.000
1640068766520212992,"2021-12-21,06:39:26",10.1.1.5,437,-0.280,-0.280,-0.280,0.000,0.000,0.000
1640068766615076096,"2021-12-21,06:39:26",10.1.1.5,0.5319399833679199,-0.280,-0.280,-0.280,0.000,0.000,0.000
1640068766967494912,"2021-12-21,06:39:26",10.1.1.5,348,-0.270,-0.270,-0.270,0.000,0.000,0.000
1640068767025432064,"2021-12-21,06:39:27",10.1.1.5,0.4063599109649658,-0.270,-0.270,-0.270,0.000,0.000,0.000
1640068767388154112,"2021-12-21,06:39:27",10.1.1.5,361,-0.260,-0.260,-0.260,0.000,0.000,0.000
1640068767440509952,"2021-12-21,06:39:27",10.1.1.5,0.4138519763946533,-0.260,-0.260,-0.260,0.000,0.000,0.000
1640068767797323008,"2021-12-21,06:39:27",10.1.1.5,354,-0.250,-0.250,-0.250,0.000,0.000,0.000
1640068767821306880,"2021-12-21,06:39:27",10.1.1.5,0.37816691398620605,-0.250,-0.250,-0.250,0.000,0.000,0.000
1640068768225069056,"2021-12-21,06:39:28",10.1.1.5,402,-0.240,-0.240,-0.240,0.000,0.000,0.000
1640068768301884928,"2021-12-21,06:39:28",10.1.1.5,0.47928905487060547,-0.240,-0.240,-0.240,0.000,0.000,0.000
1640068768674249984,"2021-12-21,06:39:28",10.1.1.5,360,-0.230,-0.230,-0.230,0.000,0.000,0.000
1640068768720567040,"2021-12-21,06:39:28",10.1.1.5,0.40707898139953613,-0.230,-0.230,-0.230,0.000,0.000,0.000
1640068769075873024,"2021-12-21,06:39:29",10.1.1.5,353,-0.220,-0.220,-0.220,0.000,0.000,0.000
1640068769118635776,"2021-12-21,06:39:29",10.1.1.5,0.3963310718536377,-0.220,-0.220,-0.220,0.000,0.000,0.000
1640068769514480128,"2021-12-21,06:39:29",10.1.1.5,388,-0.210,-0.210,-0.210,0.000,0.000,0.000
1640068769576244224,"2021-12-21,06:39:29",10.1.1.5,0.4507768154144287,-0.210,-0.210,-0.210,0.000,0.000,0.000
1640068769953645824,"2021-12-21,06:39:29",10.1.1.5,373,-0.200,-0.200,-0.200,0.000,0.000,0.000
1640068770048072960,"2021-12-21,06:39:30",10.1.1.5,0.4687480926513672,-0.200,-0.200,-0.200,0.000,0.000,0.000
1640068770383101952,"2021-12-21,06:39:30",10.1.1.5,330,-0.190,-0.190,-0.190,0.000,0.000,0.000
1640068770452722944,"2021-12-21,06:39:30",10.1.1.5,0.39975500106811523,-0.190,-0.190,-0.190,0.000,0.000,0.000
1640068770791922944,"2021-12-21,06:39:30",10.1.1.5,333,-0.180,-0.180,-0.180,0.000,0.000,0.000
1640068770861430784,"2021-12-21,06:39:30",10.1.1.5,0.4032130241394043,-0.180,-0.180,-0.180,0.000,0.000,0.000
1640068771182331136,"2021-12-21,06:39:31",10.1.1.5,319,-0.170,-0.170,-0.170,0.000,0.000,0.000
1640068771248356096,"2021-12-21,06:39:31",10.1.1.5,0.38555097579956055,-0.170,-0.170,-0.170,0.000,0.000,0.000
1640068771571994112,"2021-12-21,06:39:31",10.1.1.5,318,-0.160,-0.160,-0.160,0.000,0.000,0.000
1640068771615112960,"2021-12-21,06:39:31",10.1.1.5,0.3612060546875,-0.160,-0.160,-0.160,0.000,0.000,0.000
1640068771940374016,"2021-12-21,06:39:31",10.1.1.5,323,-0.150,-0.150,-0.150,0.000,0.000,0.000
1640068771988404992,"2021-12-21,06:39:31",10.1.1.5,0.37204790115356445,-0.150,-0.150,-0.150,0.000,0.000,0.000
1640068772309993984,"2021-12-21,06:39:32",10.1.1.5,319,-0.140,-0.140,-0.140,0.000,0.000,0.000
1640068772367526144,"2021-12-21,06:39:32",10.1.1.5,0.3769230842590332,-0.140,-0.140,-0.140,0.000,0.000,0.000
1640068772728883968,"2021-12-21,06:39:32",10.1.1.5,358,-0.130,-0.130,-0.130,0.000,0.000,0.000
1640068772761917184,"2021-12-21,06:39:32",10.1.1.5,0.3919060230255127,-0.130,-0.130,-0.130,0.000,0.000,0.000
1640068773089339904,"2021-12-21,06:39:33",10.1.1.5,325,-0.120,-0.120,-0.120,0.000,0.000,0.000
1640068773178978816,"2021-12-21,06:39:33",10.1.1.5,0.41501688957214355,-0.120,-0.120,-0.120,0.000,0.000,0.000
1640068773488518912,"2021-12-21,06:39:33",10.1.1.5,307,-0.110,-0.110,-0.110,0.000,0.000,0.000
1640068773522748928,"2021-12-21,06:39:33",10.1.1.5,0.34228992462158203,-0.110,-0.110,-0.110,0.000,0.000,0.000
1640068773868678144,"2021-12-21,06:39:33",10.1.1.5,342,-0.100,-0.100,-0.100,0.000,0.000,0.000
1640068773930968064,"2021-12-21,06:39:33",10.1.1.5,0.4045698642730713,-0.100,-0.100,-0.100,0.000,0.000,0.000
1640068774237270016,"2021-12-21,06:39:34",10.1.1.5,304,-0.090,-0.090,-0.090,0.000,0.000,0.000
1640068774273842944,"2021-12-21,06:39:34",10.1.1.5,0.3412308692932129,-0.090,-0.090,-0.090,0.000,0.000,0.000
1640068774587800064,"2021-12-21,06:39:34",10.1.1.5,312,-0.080,-0.080,-0.080,0.000,0.000,0.000
1640068774666682112,"2021-12-21,06:39:34",10.1.1.5,0.39139890670776367,-0.080,-0.080,-0.080,0.000,0.000,0.000
1640068775026144000,"2021-12-21,06:39:35",10.1.1.5,356,-0.070,-0.070,-0.070,0.000,0.000,0.000
1640068775073319936,"2021-12-21,06:39:35",10.1.1.5,0.40364694595336914,-0.070,-0.070,-0.070,0.000,0.000,0.000
1640068775416367104,"2021-12-21,06:39:35",10.1.1.5,336,-0.060,-0.060,-0.060,0.000,0.000,0.000
1640068775451736832,"2021-12-21,06:39:35",10.1.1.5,0.37171387672424316,-0.060,-0.060,-0.060,0.000,0.000,0.000
1640068775806664960,"2021-12-21,06:39:35",10.1.1.5,350,-0.050,-0.050,-0.050,0.000,0.000,0.000
1640068775821549824,"2021-12-21,06:39:35",10.1.1.5,0.3659031391143799,-0.050,-0.050,-0.050,0.000,0.000,0.000
1640068776165099008,"2021-12-21,06:39:36",10.1.1.5,341,-0.040,-0.040,-0.040,0.000,0.000,0.000
1640068776184516864,"2021-12-21,06:39:36",10.1.1.5,0.3611941337585449,-0.040,-0.040,-0.040,0.000,0.000,0.000
1640068776564659968,"2021-12-21,06:39:36",10.1.1.5,378,-0.030,-0.030,-0.030,0.000,0.000,0.000
1640068776596615936,"2021-12-21,06:39:36",10.1.1.5,0.4102809429168701,-0.030,-0.030,-0.030,0.000,0.000,0.000
1640068776913348864,"2021-12-21,06:39:36",10.1.1.5,314,-0.020,-0.020,-0.020,0.000,0.000,0.000
1640068776949089024,"2021-12-21,06:39:36",10.1.1.5,0.3501458168029785,-0.020,-0.020,-0.020,0.000,0.000,0.000
1640068777282628096,"2021-12-21,06:39:37",10.1.1.5,321,-0.010,-0.010,-0.010,0.000,0.000,0.000
1640068777344422144,"2021-12-21,06:39:37",10.1.1.5,0.3829190731048584,-0.010,-0.010,-0.010,0.000,0.000,0.000
1640068777698484992,"2021-12-21,06:39:37",10.1.1.5,350,0.000,0.000,0.000,0.000,0.000,0.000
1640068777756488192,"2021-12-21,06:39:37",10.1.1.5,0.40970396995544434,0.000,0.000,0.000,0.000,0.000,0.000
1640068778101661952,"2021-12-21,06:39:38",10.1.1.5,342,-0.010,-0.010,-0.010,0.000,0.000,0.000
1640068778156619008,"2021-12-21,06:39:38",10.1.1.5,0.39770984649658203,-0.010,-0.010,-0.010,0.000,0.000,0.000
1640068778484141056,"2021-12-21,06:39:38",10.1.1.5,322,-0.020,-0.020,-0.020,0.000,0.000,0.000
1640068778501502976,"2021-12-21,06:39:38",10.1.1.5,0.34219908714294434,-0.020,-0.020,-0.020,0.000,0.000,0.000
1640068778841003776,"2021-12-21,06:39:38",10.1.1.5,337,-0.030,-0.030,-0.030,0.000,0.000,0.000
1640068778901231104,"2021-12-21,06:39:38",10.1.1.5,0.39829206466674805,-0.030,-0.030,-0.030,0.000,0.000,0.000
1640068779280250112,"2021-12-21,06:39:39",10.1.1.5,377,-0.040,-0.040,-0.040,0.000,0.000,0.000
1640068779366439168,"2021-12-21,06:39:39",10.1.1.5,0.4633488655090332,-0.040,-0.040,-0.040,0.000,0.000,0.000
1640068779760358144,"2021-12-21,06:39:39",10.1.1.5,388,-0.050,-0.050,-0.050,0.000,0.000,0.000
1640068779795820032,"2021-12-21,06:39:39",10.1.1.5,0.4257340431213379,-0.050,-0.050,-0.050,0.000,0.000,0.000
1640068780148082944,"2021-12-21,06:39:40",10.1.1.5,350,-0.060,-0.060,-0.060,0.000,0.000,0.000
1640068780178940160,"2021-12-21,06:39:40",10.1.1.5,0.3817012310028076,-0.060,-0.060,-0.060,0.000,0.000,0.000
1640068780509174016,"2021-12-21,06:39:40",10.1.1.5,328,-0.070,-0.070,-0.070,0.000,0.000,0.000
1640068780533961984,"2021-12-21,06:39:40",10.1.1.5,0.3535339832305908,-0.070,-0.070,-0.070,0.000,0.000,0.000
1640068780866832896,"2021-12-21,06:39:40",10.1.1.5,331,-0.080,-0.080,-0.080,0.000,0.000,0.000
1640068780902631936,"2021-12-21,06:39:40",10.1.1.5,0.3670639991760254,-0.080,-0.080,-0.080,0.000,0.000,0.000
1640068781277582848,"2021-12-21,06:39:41",10.1.1.5,368,-0.090,-0.090,-0.090,0.000,0.000,0.000
1640068781304158976,"2021-12-21,06:39:41",10.1.1.5,0.39503002166748047,-0.090,-0.090,-0.090,0.000,0.000,0.000
1640068781629239040,"2021-12-21,06:39:41",10.1.1.5,315,-0.100,-0.100,-0.100,0.000,0.000,0.000
1640068781684303872,"2021-12-21,06:39:41",10.1.1.5,0.3707871437072754,-0.100,-0.100,-0.100,0.000,0.000,0.000
1640068782045451008,"2021-12-21,06:39:42",10.1.1.5,358,-0.110,-0.110,-0.110,0.000,0.000,0.000
1640068782091376128,"2021-12-21,06:39:42",10.1.1.5,0.404695987701416,-0.110,-0.110,-0.110,0.000,0.000,0.000
1640068782395347200,"2021-12-21,06:39:42",10.1.1.5,302,-0.120,-0.120,-0.120,0.000,0.000,0.000
1640068782463386112,"2021-12-21,06:39:42",10.1.1.5,0.3666250705718994,-0.120,-0.120,-0.120,0.000,0.000,0.000
1640068782865752832,"2021-12-21,06:39:42",10.1.1.5,400,-0.130,-0.130,-0.130,0.000,0.000,0.000
1640068782951901952,"2021-12-21,06:39:42",10.1.1.5,0.48698997497558594,-0.130,-0.130,-0.130,0.000,0.000,0.000
1640068783275241984,"2021-12-21,06:39:43",10.1.1.5,321,-0.140,-0.140,-0.140,0.000,0.000,0.000
1640068783321455104,"2021-12-21,06:39:43",10.1.1.5,0.3680119514465332,-0.140,-0.140,-0.140,0.000,0.000,0.000
1640068783717729024,"2021-12-21,06:39:43",10.1.1.5,394,-0.150,-0.150,-0.150,0.000,0.000,0.000
1640068783800829952,"2021-12-21,06:39:43",10.1.1.5,0.47725701332092285,-0.150,-0.150,-0.150,0.000,0.000,0.000
1640068784149543936,"2021-12-21,06:39:44",10.1.1.5,342,-0.160,-0.160,-0.160,0.000,0.000,0.000
1640068784267576064,"2021-12-21,06:39:44",10.1.1.5,0.4604511260986328,-0.160,-0.160,-0.160,0.000,0.000,0.000
1640068784682478848,"2021-12-21,06:39:44",10.1.1.5,410,-0.170,-0.170,-0.170,0.000,0.000,0.000
1640068784726465024,"2021-12-21,06:39:44",10.1.1.5,0.45551204681396484,-0.170,-0.170,-0.170,0.000,0.000,0.000
1640068785075879936,"2021-12-21,06:39:45",10.1.1.5,344,-0.180,-0.180,-0.180,0.000,0.000,0.000
1640068785089605120,"2021-12-21,06:39:45",10.1.1.5,0.3578319549560547,-0.180,-0.180,-0.180,0.000,0.000,0.000
1640068785434793984,"2021-12-21,06:39:45",10.1.1.5,343,-0.190,-0.190,-0.190,0.000,0.000,0.000
1640068785458012160,"2021-12-21,06:39:45",10.1.1.5,0.3666210174560547,-0.190,-0.190,-0.190,0.000,0.000,0.000
1640068785806027776,"2021-12-21,06:39:45",10.1.1.5,335,-0.200,-0.200,-0.200,0.000,0.000,0.000
1640068785875366912,"2021-12-21,06:39:45",10.1.1.5,0.40318799018859863,-0.200,-0.200,-0.200,0.000,0.000,0.000
1640068786227884032,"2021-12-21,06:39:46",10.1.1.5,348,-0.210,-0.210,-0.210,0.000,0.000,0.000
1640068786262617088,"2021-12-21,06:39:46",10.1.1.5,0.38332080841064453,-0.210,-0.210,-0.210,0.000,0.000,0.000
1640068786598999040,"2021-12-21,06:39:46",10.1.1.5,333,-0.220,-0.220,-0.220,0.000,0.000,0.000
1640068786659728896,"2021-12-21,06:39:46",10.1.1.5,0.39408206939697266,-0.220,-0.220,-0.220,0.000,0.000,0.000
1640068787009213952,"2021-12-21,06:39:47",10.1.1.5,346,-0.230,-0.230,-0.230,0.000,0.000,0.000
1640068787086608896,"2021-12-21,06:39:47",10.1.1.5,0.42438197135925293,-0.230,-0.230,-0.230,0.000,0.000,0.000
1640068787461268992,"2021-12-21,06:39:47",10.1.1.5,360,-0.240,-0.240,-0.240,0.000,0.000,0.000
1640068787519450880,"2021-12-21,06:39:47",10.1.1.5,0.41884899139404297,-0.240,-0.240,-0.240,0.000,0.000,0.000
1640068787871268864,"2021-12-21,06:39:47",10.1.1.5,349,-0.250,-0.250,-0.250,0.000,0.000,0.000
1640068787910756096,"2021-12-21,06:39:47",10.1.1.5,0.3893289566040039,-0.250,-0.250,-0.250,0.000,0.000,0.000
1640068788317509888,"2021-12-21,06:39:48",10.1.1.5,401,-0.260,-0.260,-0.260,0.000,0.000,0.000
1640068788362989056,"2021-12-21,06:39:48",10.1.1.5,0.4496588706970215,-0.260,-0.260,-0.260,0.000,0.000,0.000
1640068788738960896,"2021-12-21,06:39:48",10.1.1.5,370,-0.270,-0.270,-0.270,0.000,0.000,0.000
1640068788805839104,"2021-12-21,06:39:48",10.1.1.5,0.437298059463501,-0.270,-0.270,-0.270,0.000,0.000,0.000
1640068789174392064,"2021-12-21,06:39:49",10.1.1.5,365,-0.280,-0.280,-0.280,0.000,0.000,0.000
1640068789259856896,"2021-12-21,06:39:49",10.1.1.5,0.4512491226196289,-0.280,-0.280,-0.280,0.000,0.000,0.000
1640068789584786944,"2021-12-21,06:39:49",10.1.1.5,323,-0.290,-0.290,-0.290,0.000,0.000,0.000
1640068789660772096,"2021-12-21,06:39:49",10.1.1.5,0.39968085289001465,-0.290,-0.290,-0.290,0.000,0.000,0.000
1640068790014789120,"2021-12-21,06:39:50",10.1.1.5,352,-0.300,-0.300,-0.300,0.000,0.000,0.000
1640068790092201984,"2021-12-21,06:39:50",10.1.1.5,0.4295821189880371,-0.300,-0.300,-0.300,0.000,0.000,0.000
1640068790445602816,"2021-12-21,06:39:50",10.1.1.5,351,-0.310,-0.310,-0.310,0.000,0.000,0.000
1640068790493496832,"2021-12-21,06:39:50",10.1.1.5,0.3995330333709717,-0.310,-0.310,-0.310,0.000,0.000,0.000
1640068790839581952,"2021-12-21,06:39:50",10.1.1.5,343,-0.320,-0.320,-0.320,0.000,0.000,0.000
1640068790901012992,"2021-12-21,06:39:50",10.1.1.5,0.4053378105163574,-0.320,-0.320,-0.320,0.000,0.000,0.000
1640068791248611840,"2021-12-21,06:39:51",10.1.1.5,345,-0.330,-0.330,-0.330,0.000,0.000,0.000
1640068791281334016,"2021-12-21,06:39:51",10.1.1.5,0.37830114364624023,-0.330,-0.330,-0.330,0.000,0.000,0.000
1640068791656239104,"2021-12-21,06:39:51",10.1.1.5,373,-0.340,-0.340,-0.340,0.000,0.000,0.000
1640068791712260864,"2021-12-21,06:39:51",10.1.1.5,0.42961788177490234,-0.340,-0.340,-0.340,0.000,0.000,0.000
1640068792067323904,"2021-12-21,06:39:52",10.1.1.5,353,-0.350,-0.350,-0.350,0.000,0.000,0.000
1640068792081275904,"2021-12-21,06:39:52",10.1.1.5,0.3673741817474365,-0.350,-0.350,-0.350,0.000,0.000,0.000
1640068792438167040,"2021-12-21,06:39:52",10.1.1.5,349,-0.360,-0.360,-0.360,0.000,0.000,0.000
1640068792475620096,"2021-12-21,06:39:52",10.1.1.5,0.3872349262237549,-0.360,-0.360,-0.360,0.000,0.000,0.000
1640068792797069056,"2021-12-21,06:39:52",10.1.1.5,318,-0.370,-0.370,-0.370,0.000,0.000,0.000
1640068792808082944,"2021-12-21,06:39:52",10.1.1.5,0.3300008773803711,-0.370,-0.370,-0.370,0.000,0.000,0.000
1640068793127490048,"2021-12-21,06:39:53",10.1.1.5,317,-0.380,-0.380,-0.380,0.000,0.000,0.000
1640068793168634880,"2021-12-21,06:39:53",10.1.1.5,0.3587667942047119,-0.380,-0.380,-0.380,0.000,0.000,0.000
1640068793496787968,"2021-12-21,06:39:53",10.1.1.5,326,-0.390,-0.390,-0.390,0.000,0.000,0.000
1640068793547091968,"2021-12-21,06:39:53",10.1.1.5,0.3767530918121338,-0.390,-0.390,-0.390,0.000,0.000,0.000
1640068793887883008,"2021-12-21,06:39:53",10.1.1.5,339,-0.400,-0.400,-0.400,0.000,0.000,0.000
1640068793905139968,"2021-12-21,06:39:53",10.1.1.5,0.3567938804626465,-0.400,-0.400,-0.400,0.000,0.000,0.000
1640068794249784832,"2021-12-21,06:39:54",10.1.1.5,337,-0.410,-0.410,-0.410,0.000,0.000,0.000
1640068794300108800,"2021-12-21,06:39:54",10.1.1.5,0.3870718479156494,-0.410,-0.410,-0.410,0.000,0.000,0.000
1640068794637126912,"2021-12-21,06:39:54",10.1.1.5,335,-0.420,-0.420,-0.420,0.000,0.000,0.000
1640068794684344064,"2021-12-21,06:39:54",10.1.1.5,0.38275909423828125,-0.420,-0.420,-0.420,0.000,0.000,0.000
1640068795027932928,"2021-12-21,06:39:55",10.1.1.5,339,-0.430,-0.430,-0.430,0.000,0.000,0.000
1640068795108745216,"2021-12-21,06:39:55",10.1.1.5,0.42049694061279297,-0.430,-0.430,-0.430,0.000,0.000,0.000
1640068795466798080,"2021-12-21,06:39:55",10.1.1.5,346,-0.440,-0.440,-0.440,0.000,0.000,0.000
1640068795522171136,"2021-12-21,06:39:55",10.1.1.5,0.40166497230529785,-0.440,-0.440,-0.440,0.000,0.000,0.000
1640068795856830976,"2021-12-21,06:39:55",10.1.1.5,331,-0.450,-0.450,-0.450,0.000,0.000,0.000
1640068795916238080,"2021-12-21,06:39:55",10.1.1.5,0.39057111740112305,-0.450,-0.450,-0.450,0.000,0.000,0.000
1640068796307045888,"2021-12-21,06:39:56",10.1.1.5,377,-0.460,-0.460,-0.460,0.000,0.000,0.000
1640068796329894144,"2021-12-21,06:39:56",10.1.1.5,0.4009389877319336,-0.460,-0.460,-0.460,0.000,0.000,0.000
1640068796646866176,"2021-12-21,06:39:56",10.1.1.5,314,-0.470,-0.470,-0.470,0.000,0.000,0.000
1640068796702004992,"2021-12-21,06:39:56",10.1.1.5,0.36974310874938965,-0.470,-0.470,-0.470,0.000,0.000,0.000
1640068797057007104,"2021-12-21,06:39:57",10.1.1.5,352,-0.480,-0.480,-0.480,0.000,0.000,0.000
1640068797086648064,"2021-12-21,06:39:57",10.1.1.5,0.38193202018737793,-0.480,-0.480,-0.480,0.000,0.000,0.000
1640068797446075904,"2021-12-21,06:39:57",10.1.1.5,357,-0.490,-0.490,-0.490,0.000,0.000,0.000
1640068797534142976,"2021-12-21,06:39:57",10.1.1.5,0.4451630115509033,-0.490,-0.490,-0.490,0.000,0.000,0.000
1640068797885052928,"2021-12-21,06:39:57",10.1.1.5,348,-0.480,-0.480,-0.480,0.000,0.000,0.000
1640068797982546176,"2021-12-21,06:39:57",10.1.1.5,0.4462101459503174,-0.480,-0.480,-0.480,0.000,0.000,0.000
1640068798315463168,"2021-12-21,06:39:58",10.1.1.5,331,-0.470,-0.470,-0.470,0.000,0.000,0.000
1640068798396305920,"2021-12-21,06:39:58",10.1.1.5,0.4123959541320801,-0.470,-0.470,-0.470,0.000,0.000,0.000
1640068798745927168,"2021-12-21,06:39:58",10.1.1.5,346,-0.460,-0.460,-0.460,0.000,0.000,0.000
1640068798825440000,"2021-12-21,06:39:58",10.1.1.5,0.4265310764312744,-0.460,-0.460,-0.460,0.000,0.000,0.000
1640068799194667008,"2021-12-21,06:39:59",10.1.1.5,359,-0.450,-0.450,-0.450,0.000,0.000,0.000
1640068799222618112,"2021-12-21,06:39:59",10.1.1.5,0.38799500465393066,-0.450,-0.450,-0.450,0.000,0.000,0.000
1640068799634309120,"2021-12-21,06:39:59",10.1.1.5,408,-0.440,-0.440,-0.440,0.000,0.000,0.000
1640068799680706048,"2021-12-21,06:39:59",10.1.1.5,0.45459508895874023,-0.440,-0.440,-0.440,0.000,0.000,0.000
1640068800043548160,"2021-12-21,06:40:00",10.1.1.5,360,-0.430,-0.430,-0.430,0.000,0.000,0.000
1640068800090870016,"2021-12-21,06:40:00",10.1.1.5,0.4079010486602783,-0.430,-0.430,-0.430,0.000,0.000,0.000
1640068800473287936,"2021-12-21,06:40:00",10.1.1.5,379,-0.420,-0.420,-0.420,0.000,0.000,0.000
1640068800567114240,"2021-12-21,06:40:00",10.1.1.5,0.4731869697570801,-0.420,-0.420,-0.420,0.000,0.000,0.000
1640068801002778112,"2021-12-21,06:40:01",10.1.1.5,432,-0.410,-0.410,-0.410,0.000,0.000,0.000
1640068801077146880,"2021-12-21,06:40:01",10.1.1.5,0.5069169998168945,-0.410,-0.410,-0.410,0.000,0.000,0.000
1640068801433916160,"2021-12-21,06:40:01",10.1.1.5,354,-0.400,-0.400,-0.400,0.000,0.000,0.000
1640068801515418880,"2021-12-21,06:40:01",10.1.1.5,0.4361259937286377,-0.400,-0.400,-0.400,0.000,0.000,0.000
1640068801891442944,"2021-12-21,06:40:01",10.1.1.5,371,-0.390,-0.390,-0.390,0.000,0.000,0.000
1640068801943383040,"2021-12-21,06:40:01",10.1.1.5,0.4233059883117676,-0.390,-0.390,-0.390,0.000,0.000,0.000
1640068802301466880,"2021-12-21,06:40:02",10.1.1.5,356,-0.380,-0.380,-0.380,0.000,0.000,0.000
1640068802317536000,"2021-12-21,06:40:02",10.1.1.5,0.3727741241455078,-0.380,-0.380,-0.380,0.000,0.000,0.000
1640068802650507008,"2021-12-21,06:40:02",10.1.1.5,322,-0.370,-0.370,-0.370,0.000,0.000,0.000
1640068802703881984,"2021-12-21,06:40:02",10.1.1.5,0.37578797340393066,-0.370,-0.370,-0.370,0.000,0.000,0.000
1640068803091331840,"2021-12-21,06:40:03",10.1.1.5,372,-0.360,-0.360,-0.360,0.000,0.000,0.000
1640068803194489088,"2021-12-21,06:40:03",10.1.1.5,0.4759969711303711,-0.360,-0.360,-0.360,0.000,0.000,0.000
1640068803599892992,"2021-12-21,06:40:03",10.1.1.5,399,-0.350,-0.350,-0.350,0.000,0.000,0.000
1640068803671365120,"2021-12-21,06:40:03",10.1.1.5,0.4707021713256836,-0.350,-0.350,-0.350,0.000,0.000,0.000
1640068804031877120,"2021-12-21,06:40:04",10.1.1.5,356,-0.340,-0.340,-0.340,0.000,0.000,0.000
1640068804043432960,"2021-12-21,06:40:04",10.1.1.5,0.3685121536254883,-0.340,-0.340,-0.340,0.000,0.000,0.000
1640068804434194944,"2021-12-21,06:40:04",10.1.1.5,384,-0.330,-0.330,-0.330,0.000,0.000,0.000
1640068804460647168,"2021-12-21,06:40:04",10.1.1.5,0.4157531261444092,-0.330,-0.330,-0.330,0.000,0.000,0.000
1640068804798427136,"2021-12-21,06:40:04",10.1.1.5,335,-0.320,-0.320,-0.320,0.000,0.000,0.000
1640068804868303104,"2021-12-21,06:40:04",10.1.1.5,0.40532422065734863,-0.320,-0.320,-0.320,0.000,0.000,0.000
1640068805197929984,"2021-12-21,06:40:05",10.1.1.5,328,-0.310,-0.310,-0.310,0.000,0.000,0.000
1640068805273943808,"2021-12-21,06:40:05",10.1.1.5,0.4042360782623291,-0.310,-0.310,-0.310,0.000,0.000,0.000
1640068805597006080,"2021-12-21,06:40:05",10.1.1.5,320,-0.300,-0.300,-0.300,0.000,0.000,0.000
1640068805655337984,"2021-12-21,06:40:05",10.1.1.5,0.3785572052001953,-0.300,-0.300,-0.300,0.000,0.000,0.000
1640068805996417024,"2021-12-21,06:40:05",10.1.1.5,338,-0.290,-0.290,-0.290,0.000,0.000,0.000
1640068806048943104,"2021-12-21,06:40:06",10.1.1.5,0.3913140296936035,-0.290,-0.290,-0.290,0.000,0.000,0.000
1640068806376036864,"2021-12-21,06:40:06",10.1.1.5,324,-0.280,-0.280,-0.280,0.000,0.000,0.000
1640068806411609856,"2021-12-21,06:40:06",10.1.1.5,0.36033082008361816,-0.280,-0.280,-0.280,0.000,0.000,0.000
1640068806776193024,"2021-12-21,06:40:06",10.1.1.5,353,-0.270,-0.270,-0.270,0.000,0.000,0.000
1640068806833554944,"2021-12-21,06:40:06",10.1.1.5,0.4111311435699463,-0.270,-0.270,-0.270,0.000,0.000,0.000
1640068807164894976,"2021-12-21,06:40:07",10.1.1.5,320,-0.260,-0.260,-0.260,0.000,0.000,0.000
1640068807243004928,"2021-12-21,06:40:07",10.1.1.5,0.39827895164489746,-0.260,-0.260,-0.260,0.000,0.000,0.000
1640068807575532032,"2021-12-21,06:40:07",10.1.1.5,330,-0.250,-0.250,-0.250,0.000,0.000,0.000
1640068807658384128,"2021-12-21,06:40:07",10.1.1.5,0.4099090099334717,-0.250,-0.250,-0.250,0.000,0.000,0.000
1640068807986089984,"2021-12-21,06:40:07",10.1.1.5,325,-0.240,-0.240,-0.240,0.000,0.000,0.000
1640068808103805952,"2021-12-21,06:40:08",10.1.1.5,0.44323110580444336,-0.240,-0.240,-0.240,0.000,0.000,0.000
1640068808414779904,"2021-12-21,06:40:08",10.1.1.5,308,-0.230,-0.230,-0.230,0.000,0.000,0.000
1640068808474975232,"2021-12-21,06:40:08",10.1.1.5,0.36888813972473145,-0.230,-0.230,-0.230,0.000,0.000,0.000
1640068808822223872,"2021-12-21,06:40:08",10.1.1.5,341,-0.220,-0.220,-0.220,0.000,0.000,0.000
1640068808896608000,"2021-12-21,06:40:08",10.1.1.5,0.4156458377838135,-0.220,-0.220,-0.220,0.000,0.000,0.000
1640068809241267968,"2021-12-21,06:40:09",10.1.1.5,342,-0.210,-0.210,-0.210,0.000,0.000,0.000
1640068809333477888,"2021-12-21,06:40:09",10.1.1.5,0.4350888729095459,-0.210,-0.210,-0.210,0.000,0.000,0.000
1640068809671761152,"2021-12-21,06:40:09",10.1.1.5,335,-0.200,-0.200,-0.200,0.000,0.000,0.000
1640068809744484864,"2021-12-21,06:40:09",10.1.1.5,0.40834808349609375,-0.200,-0.200,-0.200,0.000,0.000,0.000
1640068810111880192,"2021-12-21,06:40:10",10.1.1.5,365,-0.190,-0.190,-0.190,0.000,0.000,0.000
1640068810178530048,"2021-12-21,06:40:10",10.1.1.5,0.4326319694519043,-0.190,-0.190,-0.190,0.000,0.000,0.000
1640068810529808896,"2021-12-21,06:40:10",10.1.1.5,349,-0.180,-0.180,-0.180,0.000,0.000,0.000
1640068810575604992,"2021-12-21,06:40:10",10.1.1.5,0.39458513259887695,-0.180,-0.180,-0.180,0.000,0.000,0.000
1640068810930091008,"2021-12-21,06:40:10",10.1.1.5,353,-0.170,-0.170,-0.170,0.000,0.000,0.000
1640068810960467968,"2021-12-21,06:40:10",10.1.1.5,0.3835880756378174,-0.170,-0.170,-0.170,0.000,0.000,0.000
1640068811338690048,"2021-12-21,06:40:11",10.1.1.5,374,-0.160,-0.160,-0.160,0.000,0.000,0.000
1640068811400091904,"2021-12-21,06:40:11",10.1.1.5,0.4361531734466553,-0.160,-0.160,-0.160,0.000,0.000,0.000
1640068811719959040,"2021-12-21,06:40:11",10.1.1.5,317,-0.150,-0.150,-0.150,0.000,0.000,0.000
1640068811793960192,"2021-12-21,06:40:11",10.1.1.5,0.39194607734680176,-0.150,-0.150,-0.150,0.000,0.000,0.000
1640068812097358080,"2021-12-21,06:40:12",10.1.1.5,302,-0.140,-0.140,-0.140,0.000,0.000,0.000
1640068812137639168,"2021-12-21,06:40:12",10.1.1.5,0.34025096893310547,-0.140,-0.140,-0.140,0.000,0.000,0.000
1640068812477304064,"2021-12-21,06:40:12",10.1.1.5,331,-0.130,-0.130,-0.130,0.000,0.000,0.000
1640068812512535040,"2021-12-21,06:40:12",10.1.1.5,0.3668971061706543,-0.130,-0.130,-0.130,0.000,0.000,0.000
1640068812876104960,"2021-12-21,06:40:12",10.1.1.5,360,-0.120,-0.120,-0.120,0.000,0.000,0.000
1640068812938398976,"2021-12-21,06:40:12",10.1.1.5,0.4228940010070801,-0.120,-0.120,-0.120,0.000,0.000,0.000
1640068813265193984,"2021-12-21,06:40:13",10.1.1.5,323,-0.110,-0.110,-0.110,0.000,0.000,0.000
1640068813343462912,"2021-12-21,06:40:13",10.1.1.5,0.4015991687774658,-0.110,-0.110,-0.110,0.000,0.000,0.000
1640068813765295104,"2021-12-21,06:40:13",10.1.1.5,406,-0.100,-0.100,-0.100,0.000,0.000,0.000
1640068813804065024,"2021-12-21,06:40:13",10.1.1.5,0.4449470043182373,-0.100,-0.100,-0.100,0.000,0.000,0.000
1640068814147789056,"2021-12-21,06:40:14",10.1.1.5,342,-0.090,-0.090,-0.090,0.000,0.000,0.000
1640068814192425984,"2021-12-21,06:40:14",10.1.1.5,0.3866391181945801,-0.090,-0.090,-0.090,0.000,0.000,0.000
1640068814503737088,"2021-12-21,06:40:14",10.1.1.5,309,-0.080,-0.080,-0.080,0.000,0.000,0.000
1640068814556495872,"2021-12-21,06:40:14",10.1.1.5,0.36182594299316406,-0.080,-0.080,-0.080,0.000,0.000,0.000
1640068814892905984,"2021-12-21,06:40:14",10.1.1.5,333,-0.070,-0.070,-0.070,0.000,0.000,0.000
1640068814924078080,"2021-12-21,06:40:14",10.1.1.5,0.36454200744628906,-0.070,-0.070,-0.070,0.000,0.000,0.000
1640068815285257216,"2021-12-21,06:40:15",10.1.1.5,359,-0.060,-0.060,-0.060,0.000,0.000,0.000
1640068815332148992,"2021-12-21,06:40:15",10.1.1.5,0.4066629409790039,-0.060,-0.060,-0.060,0.000,0.000,0.000
1640068815686822912,"2021-12-21,06:40:15",10.1.1.5,353,-0.050,-0.050,-0.050,0.000,0.000,0.000
1640068815764527104,"2021-12-21,06:40:15",10.1.1.5,0.43094801902770996,-0.050,-0.050,-0.050,0.000,0.000,0.000
1640068816108457984,"2021-12-21,06:40:16",10.1.1.5,342,-0.040,-0.040,-0.040,0.000,0.000,0.000
1640068816165483008,"2021-12-21,06:40:16",10.1.1.5,0.3992910385131836,-0.040,-0.040,-0.040,0.000,0.000,0.000
1640068816541870080,"2021-12-21,06:40:16",10.1.1.5,374,-0.030,-0.030,-0.030,0.000,0.000,0.000
1640068816617572096,"2021-12-21,06:40:16",10.1.1.5,0.4502081871032715,-0.030,-0.030,-0.030,0.000,0.000,0.000
1640068817011863040,"2021-12-21,06:40:17",10.1.1.5,392,-0.020,-0.020,-0.020,0.000,0.000,0.000
1640068817115812096,"2021-12-21,06:40:17",10.1.1.5,0.49674177169799805,-0.020,-0.020,-0.020,0.000,0.000,0.000
1640068817483834112,"2021-12-21,06:40:17",10.1.1.5,366,-0.010,-0.010,-0.010,0.000,0.000,0.000
1640068817559735040,"2021-12-21,06:40:17",10.1.1.5,0.4425990581512451,-0.010,-0.010,-0.010,0.000,0.000,0.000
1640068817954586880,"2021-12-21,06:40:17",10.1.1.5,393,0.000,0.000,0.000,0.000,0.000,0.000
1640068817981487872,"2021-12-21,06:40:17",10.1.1.5,0.4200761318206787,0.000,0.000,0.000,0.000,0.000,0.000
1640068818315799040,"2021-12-21,06:40:18",10.1.1.5,331,-0.010,-0.010,-0.010,0.000,0.000,0.000
1640068818352179968,"2021-12-21,06:40:18",10.1.1.5,0.3684349060058594,-0.010,-0.010,-0.010,0.000,0.000,0.000
1640068818724190976,"2021-12-21,06:40:18",10.1.1.5,370,-0.020,-0.020,-0.020,0.000,0.000,0.000
1640068818783670784,"2021-12-21,06:40:18",10.1.1.5,0.43020200729370117,-0.020,-0.020,-0.020,0.000,0.000,0.000
1640068819137819136,"2021-12-21,06:40:19",10.1.1.5,350,-0.030,-0.030,-0.030,0.000,0.000,0.000
1640068819186701056,"2021-12-21,06:40:19",10.1.1.5,0.3997631072998047,-0.030,-0.030,-0.030,0.000,0.000,0.000
1640068819529204992,"2021-12-21,06:40:19",10.1.1.5,340,-0.040,-0.040,-0.040,0.000,0.000,0.000
1640068819587801088,"2021-12-21,06:40:19",10.1.1.5,0.3991861343383789,-0.040,-0.040,-0.040,0.000,0.000,0.000
1640068819901230080,"2021-12-21,06:40:19",10.1.1.5,311,-0.050,-0.050,-0.050,0.000,0.000,0.000
1640068819963962112,"2021-12-21,06:40:19",10.1.1.5,0.374722957611084,-0.050,-0.050,-0.050,0.000,0.000,0.000
1640068820320960000,"2021-12-21,06:40:20",10.1.1.5,353,-0.060,-0.060,-0.060,0.000,0.000,0.000
1640068820343163904,"2021-12-21,06:40:20",10.1.1.5,0.37625694274902344,-0.060,-0.060,-0.060,0.000,0.000,0.000
1640068820732306944,"2021-12-21,06:40:20",10.1.1.5,387,-0.070,-0.070,-0.070,0.000,0.000,0.000
1640068820758836992,"2021-12-21,06:40:20",10.1.1.5,0.41431093215942383,-0.070,-0.070,-0.070,0.000,0.000,0.000
1640068821114455040,"2021-12-21,06:40:21",10.1.1.5,353,-0.080,-0.080,-0.080,0.000,0.000,0.000
1640068821170452224,"2021-12-21,06:40:21",10.1.1.5,0.40990686416625977,-0.080,-0.080,-0.080,0.000,0.000,0.000
1640068821582674944,"2021-12-21,06:40:21",10.1.1.5,408,-0.090,-0.090,-0.090,0.000,0.000,0.000
1640068821633223936,"2021-12-21,06:40:21",10.1.1.5,0.45873212814331055,-0.090,-0.090,-0.090,0.000,0.000,0.000
1640068821951792128,"2021-12-21,06:40:21",10.1.1.5,316,-0.100,-0.100,-0.100,0.000,0.000,0.000
1640068822004019968,"2021-12-21,06:40:22",10.1.1.5,0.36907315254211426,-0.100,-0.100,-0.100,0.000,0.000,0.000
1640068822393693952,"2021-12-21,06:40:22",10.1.1.5,380,-0.110,-0.110,-0.110,0.000,0.000,0.000
1640068822435663872,"2021-12-21,06:40:22",10.1.1.5,0.4230358600616455,-0.110,-0.110,-0.110,0.000,0.000,0.000
1640068822838510080,"2021-12-21,06:40:22",10.1.1.5,401,-0.120,-0.120,-0.120,0.000,0.000,0.000
1640068822867630080,"2021-12-21,06:40:22",10.1.1.5,0.43036389350891113,-0.120,-0.120,-0.120,0.000,0.000,0.000
1640068823163488000,"2021-12-21,06:40:23",10.1.1.5,294,-0.130,-0.130,-0.130,0.000,0.000,0.000
1640068823231662080,"2021-12-21,06:40:23",10.1.1.5,0.36276793479919434,-0.130,-0.130,-0.130,0.000,0.000,0.000
1640068823583406080,"2021-12-21,06:40:23",10.1.1.5,349,-0.140,-0.140,-0.140,0.000,0.000,0.000
1640068823629970944,"2021-12-21,06:40:23",10.1.1.5,0.3961641788482666,-0.140,-0.140,-0.140,0.000,0.000,0.000
1640068824029865984,"2021-12-21,06:40:24",10.1.1.5,391,-0.150,-0.150,-0.150,0.000,0.000,0.000
1640068824094365952,"2021-12-21,06:40:24",10.1.1.5,0.4538998603820801,-0.150,-0.150,-0.150,0.000,0.000,0.000
1640068824513657088,"2021-12-21,06:40:24",10.1.1.5,407,-0.160,-0.160,-0.160,0.000,0.000,0.000
1640068824539314944,"2021-12-21,06:40:24",10.1.1.5,0.43329501152038574,-0.160,-0.160,-0.160,0.000,0.000,0.000
1640068824910067200,"2021-12-21,06:40:24",10.1.1.5,369,-0.170,-0.170,-0.170,0.000,0.000,0.000
1640068824944217856,"2021-12-21,06:40:24",10.1.1.5,0.4034850597381592,-0.170,-0.170,-0.170,0.000,0.000,0.000
1640068825354583040,"2021-12-21,06:40:25",10.1.1.5,389,-0.180,-0.180,-0.180,0.000,0.000,0.000
1640068825423649024,"2021-12-21,06:40:25",10.1.1.5,0.45868802070617676,-0.180,-0.180,-0.180,0.000,0.000,0.000
1640068825789551872,"2021-12-21,06:40:25",10.1.1.5,364,-0.190,-0.190,-0.190,0.000,0.000,0.000
1640068825830960896,"2021-12-21,06:40:25",10.1.1.5,0.40576791763305664,-0.190,-0.190,-0.190,0.000,0.000,0.000
1640068826174196992,"2021-12-21,06:40:26",10.1.1.5,333,-0.200,-0.200,-0.200,0.000,0.000,0.000
1640068826217035008,"2021-12-21,06:40:26",10.1.1.5,0.37668800354003906,-0.200,-0.200,-0.200,0.000,0.000,0.000
1640068826534516992,"2021-12-21,06:40:26",10.1.1.5,314,-0.210,-0.210,-0.210,0.000,0.000,0.000
1640068826571862016,"2021-12-21,06:40:26",10.1.1.5,0.35189008712768555,-0.210,-0.210,-0.210,0.000,0.000,0.000
1640068826903981824,"2021-12-21,06:40:26",10.1.1.5,330,-0.220,-0.220,-0.220,0.000,0.000,0.000
1640068826938590976,"2021-12-21,06:40:26",10.1.1.5,0.3655259609222412,-0.220,-0.220,-0.220,0.000,0.000,0.000
1640068827274304000,"2021-12-21,06:40:27",10.1.1.5,334,-0.230,-0.230,-0.230,0.000,0.000,0.000
1640068827339158016,"2021-12-21,06:40:27",10.1.1.5,0.3993079662322998,-0.230,-0.230,-0.230,0.000,0.000,0.000
1640068827644139008,"2021-12-21,06:40:27",10.1.1.5,303,-0.240,-0.240,-0.240,0.000,0.000,0.000
1640068827674515968,"2021-12-21,06:40:27",10.1.1.5,0.3336601257324219,-0.240,-0.240,-0.240,0.000,0.000,0.000
1640068828033843968,"2021-12-21,06:40:28",10.1.1.5,358,-0.250,-0.250,-0.250,0.000,0.000,0.000
1640068828054372096,"2021-12-21,06:40:28",10.1.1.5,0.37865710258483887,-0.250,-0.250,-0.250,0.000,0.000,0.000
1640068828423842048,"2021-12-21,06:40:28",10.1.1.5,367,-0.260,-0.260,-0.260,0.000,0.000,0.000
1640068828466886912,"2021-12-21,06:40:28",10.1.1.5,0.41085195541381836,-0.260,-0.260,-0.260,0.000,0.000,0.000
1640068828823472896,"2021-12-21,06:40:28",10.1.1.5,354,-0.270,-0.270,-0.270,0.000,0.000,0.000
1640068828888453120,"2021-12-21,06:40:28",10.1.1.5,0.4197068214416504,-0.270,-0.270,-0.270,0.000,0.000,0.000
1640068829292542976,"2021-12-21,06:40:29",10.1.1.5,401,-0.280,-0.280,-0.280,0.000,0.000,0.000
1640068829324002048,"2021-12-21,06:40:29",10.1.1.5,0.43317699432373047,-0.280,-0.280,-0.280,0.000,0.000,0.000
1640068829752602112,"2021-12-21,06:40:29",10.1.1.5,422,-0.290,-0.290,-0.290,0.000,0.000,0.000
1640068829801815040,"2021-12-21,06:40:29",10.1.1.5,0.4717130661010742,-0.290,-0.290,-0.290,0.000,0.000,0.000
1640068830163096832,"2021-12-21,06:40:30",10.1.1.5,354,-0.300,-0.300,-0.300,0.000,0.000,0.000
1640068830213510144,"2021-12-21,06:40:30",10.1.1.5,0.40480804443359375,-0.300,-0.300,-0.300,0.000,0.000,0.000
1640068830592710144,"2021-12-21,06:40:30",10.1.1.5,376,-0.310,-0.310,-0.310,0.000,0.000,0.000
1640068830660763136,"2021-12-21,06:40:30",10.1.1.5,0.4441230297088623,-0.310,-0.310,-0.310,0.000,0.000,0.000
1640068831001640960,"2021-12-21,06:40:31",10.1.1.5,336,-0.320,-0.320,-0.320,0.000,0.000,0.000
1640068831126172928,"2021-12-21,06:40:31",10.1.1.5,0.4613959789276123,-0.320,-0.320,-0.320,0.000,0.000,0.000
1640068831494577920,"2021-12-21,06:40:31",10.1.1.5,366,-0.330,-0.330,-0.330,0.000,0.000,0.000
1640068831527776000,"2021-12-21,06:40:31",10.1.1.5,0.40000391006469727,-0.330,-0.330,-0.330,0.000,0.000,0.000
1640068831870352896,"2021-12-21,06:40:31",10.1.1.5,338,-0.340,-0.340,-0.340,0.000,0.000,0.000
1640068831973865984,"2021-12-21,06:40:31",10.1.1.5,0.4424469470977783,-0.340,-0.340,-0.340,0.000,0.000,0.000
1640068832355205120,"2021-12-21,06:40:32",10.1.1.5,371,-0.350,-0.350,-0.350,0.000,0.000,0.000
1640068832407465984,"2021-12-21,06:40:32",10.1.1.5,0.4234590530395508,-0.350,-0.350,-0.350,0.000,0.000,0.000
1640068832759577088,"2021-12-21,06:40:32",10.1.1.5,342,-0.360,-0.360,-0.360,0.000,0.000,0.000
1640068832839678976,"2021-12-21,06:40:32",10.1.1.5,0.4222261905670166,-0.360,-0.360,-0.360,0.000,0.000,0.000
1640068833159774976,"2021-12-21,06:40:33",10.1.1.5,318,-0.370,-0.370,-0.370,0.000,0.000,0.000
1640068833269284864,"2021-12-21,06:40:33",10.1.1.5,0.427933931350708,-0.370,-0.370,-0.370,0.000,0.000,0.000
1640068833618576896,"2021-12-21,06:40:33",10.1.1.5,347,-0.380,-0.380,-0.380,0.000,0.000,0.000
1640068833685265152,"2021-12-21,06:40:33",10.1.1.5,0.4143640995025635,-0.380,-0.380,-0.380,0.000,0.000,0.000
1640068834050007040,"2021-12-21,06:40:34",10.1.1.5,363,-0.390,-0.390,-0.390,0.000,0.000,0.000
1640068834105048832,"2021-12-21,06:40:34",10.1.1.5,0.41850709915161133,-0.390,-0.390,-0.390,0.000,0.000,0.000
1640068834431293952,"2021-12-21,06:40:34",10.1.1.5,322,-0.400,-0.400,-0.400,0.000,0.000,0.000
1640068834536192768,"2021-12-21,06:40:34",10.1.1.5,0.42979884147644043,-0.400,-0.400,-0.400,0.000,0.000,0.000
1640068834857212160,"2021-12-21,06:40:34",10.1.1.5,319,-0.410,-0.410,-0.410,0.000,0.000,0.000
1640068834890944000,"2021-12-21,06:40:34",10.1.1.5,0.3533010482788086,-0.410,-0.410,-0.410,0.000,0.000,0.000
1640068835218365952,"2021-12-21,06:40:35",10.1.1.5,325,-0.420,-0.420,-0.420,0.000,0.000,0.000
1640068835254081024,"2021-12-21,06:40:35",10.1.1.5,0.36089491844177246,-0.420,-0.420,-0.420,0.000,0.000,0.000
1640068835656413952,"2021-12-21,06:40:35",10.1.1.5,397,-0.430,-0.430,-0.430,0.000,0.000,0.000
1640068835721497088,"2021-12-21,06:40:35",10.1.1.5,0.46285295486450195,-0.430,-0.430,-0.430,0.000,0.000,0.000
1640068836065484032,"2021-12-21,06:40:36",10.1.1.5,342,-0.440,-0.440,-0.440,0.000,0.000,0.000
1640068836091092224,"2021-12-21,06:40:36",10.1.1.5,0.3682398796081543,-0.440,-0.440,-0.440,0.000,0.000,0.000
1640068836435385856,"2021-12-21,06:40:36",10.1.1.5,340,-0.450,-0.450,-0.450,0.000,0.000,0.000
1640068836521892096,"2021-12-21,06:40:36",10.1.1.5,0.42758703231811523,-0.450,-0.450,-0.450,0.000,0.000,0.000
1640068836875916032,"2021-12-21,06:40:36",10.1.1.5,352,-0.460,-0.460,-0.460,0.000,0.000,0.000
1640068836952097024,"2021-12-21,06:40:36",10.1.1.5,0.4285299777984619,-0.460,-0.460,-0.460,0.000,0.000,0.000
1640068837366039040,"2021-12-21,06:40:37",10.1.1.5,400,-0.470,-0.470,-0.470,0.000,0.000,0.000
1640068837422247936,"2021-12-21,06:40:37",10.1.1.5,0.46532106399536133,-0.470,-0.470,-0.470,0.000,0.000,0.000
1640068837793421056,"2021-12-21,06:40:37",10.1.1.5,369,-0.480,-0.480,-0.480,0.000,0.000,0.000
1640068837858822144,"2021-12-21,06:40:37",10.1.1.5,0.43491411209106445,-0.480,-0.480,-0.480,0.000,0.000,0.000
1640068838194416896,"2021-12-21,06:40:38",10.1.1.5,333,-0.490,-0.490,-0.490,0.000,0.000,0.000
1640068838247773952,"2021-12-21,06:40:38",10.1.1.5,0.38310813903808594,-0.490,-0.490,-0.490,0.000,0.000,0.000
1640068838552736000,"2021-12-21,06:40:38",10.1.1.5,303,-0.480,-0.480,-0.480,0.000,0.000,0.000
1640068838591625984,"2021-12-21,06:40:38",10.1.1.5,0.34235501289367676,-0.480,-0.480,-0.480,0.000,0.000,0.000
1640068838974621952,"2021-12-21,06:40:38",10.1.1.5,376,-0.470,-0.470,-0.470,0.000,0.000,0.000
1640068839018757120,"2021-12-21,06:40:39",10.1.1.5,0.4207150936126709,-0.470,-0.470,-0.470,0.000,0.000,0.000
1640068839391122176,"2021-12-21,06:40:39",10.1.1.5,370,-0.460,-0.460,-0.460,0.000,0.000,0.000
1640068839414455808,"2021-12-21,06:40:39",10.1.1.5,0.3943338394165039,-0.460,-0.460,-0.460,0.000,0.000,0.000
1640068839764409088,"2021-12-21,06:40:39",10.1.1.5,348,-0.450,-0.450,-0.450,0.000,0.000,0.000
1640068839797164032,"2021-12-21,06:40:39",10.1.1.5,0.38111090660095215,-0.450,-0.450,-0.450,0.000,0.000,0.000
1640068840210410240,"2021-12-21,06:40:40",10.1.1.5,408,-0.440,-0.440,-0.440,0.000,0.000,0.000
1640068840265602048,"2021-12-21,06:40:40",10.1.1.5,0.46335911750793457,-0.440,-0.440,-0.440,0.000,0.000,0.000
1640068840639200000,"2021-12-21,06:40:40",10.1.1.5,370,-0.430,-0.430,-0.430,0.000,0.000,0.000
1640068840657590016,"2021-12-21,06:40:40",10.1.1.5,0.38939404487609863,-0.430,-0.430,-0.430,0.000,0.000,0.000
1640068840999217152,"2021-12-21,06:40:40",10.1.1.5,336,-0.420,-0.420,-0.420,0.000,0.000,0.000
1640068841099809024,"2021-12-21,06:40:41",10.1.1.5,0.43689918518066406,-0.420,-0.420,-0.420,0.000,0.000,0.000
1640068841562375936,"2021-12-21,06:40:41",10.1.1.5,460,-0.410,-0.410,-0.410,0.000,0.000,0.000
1640068841614973952,"2021-12-21,06:40:41",10.1.1.5,0.513232946395874,-0.410,-0.410,-0.410,0.000,0.000,0.000
1640068841964323072,"2021-12-21,06:40:41",10.1.1.5,346,-0.400,-0.400,-0.400,0.000,0.000,0.000
1640068842023204096,"2021-12-21,06:40:42",10.1.1.5,0.40543699264526367,-0.400,-0.400,-0.400,0.000,0.000,0.000
1640068842367446784,"2021-12-21,06:40:42",10.1.1.5,341,-0.390,-0.390,-0.390,0.000,0.000,0.000
1640068842396593920,"2021-12-21,06:40:42",10.1.1.5,0.37076306343078613,-0.390,-0.390,-0.390,0.000,0.000,0.000
1640068842736587008,"2021-12-21,06:40:42",10.1.1.5,337,-0.380,-0.380,-0.380,0.000,0.000,0.000
1640068842767941888,"2021-12-21,06:40:42",10.1.1.5,0.36953186988830566,-0.380,-0.380,-0.380,0.000,0.000,0.000
1640068843105210112,"2021-12-21,06:40:43",10.1.1.5,332,-0.370,-0.370,-0.370,0.000,0.000,0.000
1640068843201576960,"2021-12-21,06:40:43",10.1.1.5,0.42874598503112793,-0.370,-0.370,-0.370,0.000,0.000,0.000
1640068843567301120,"2021-12-21,06:40:43",10.1.1.5,364,-0.360,-0.360,-0.360,0.000,0.000,0.000
1640068843631653120,"2021-12-21,06:40:43",10.1.1.5,0.4270060062408447,-0.360,-0.360,-0.360,0.000,0.000,0.000
1640068843984910848,"2021-12-21,06:40:43",10.1.1.5,350,-0.350,-0.350,-0.350,0.000,0.000,0.000
1640068844025246976,"2021-12-21,06:40:44",10.1.1.5,0.3906099796295166,-0.350,-0.350,-0.350,0.000,0.000,0.000
1640068844384971008,"2021-12-21,06:40:44",10.1.1.5,358,-0.340,-0.340,-0.340,0.000,0.000,0.000
1640068844419006976,"2021-12-21,06:40:44",10.1.1.5,0.3924710750579834,-0.340,-0.340,-0.340,0.000,0.000,0.000
1640068844783233024,"2021-12-21,06:40:44",10.1.1.5,361,-0.330,-0.330,-0.330,0.000,0.000,0.000
1640068844838164992,"2021-12-21,06:40:44",10.1.1.5,0.4169290065765381,-0.330,-0.330,-0.330,0.000,0.000,0.000
1640068845293296128,"2021-12-21,06:40:45",10.1.1.5,440,-0.320,-0.320,-0.320,0.000,0.000,0.000
1640068845408273920,"2021-12-21,06:40:45",10.1.1.5,0.5558960437774658,-0.320,-0.320,-0.320,0.000,0.000,0.000
1640068845831981056,"2021-12-21,06:40:45",10.1.1.5,422,-0.310,-0.310,-0.310,0.000,0.000,0.000
1640068845877358080,"2021-12-21,06:40:45",10.1.1.5,0.4678161144256592,-0.310,-0.310,-0.310,0.000,0.000,0.000
1640068846250662144,"2021-12-21,06:40:46",10.1.1.5,370,-0.300,-0.300,-0.300,0.000,0.000,0.000
1640068846316775936,"2021-12-21,06:40:46",10.1.1.5,0.43685102462768555,-0.300,-0.300,-0.300,0.000,0.000,0.000
1640068846692340992,"2021-12-21,06:40:46",10.1.1.5,373,-0.290,-0.290,-0.290,0.000,0.000,0.000
1640068846757116160,"2021-12-21,06:40:46",10.1.1.5,0.4387202262878418,-0.290,-0.290,-0.290,0.000,0.000,0.000
1640068847130075904,"2021-12-21,06:40:47",10.1.1.5,371,-0.280,-0.280,-0.280,0.000,0.000,0.000
1640068847191771136,"2021-12-21,06:40:47",10.1.1.5,0.41729187965393066,-0.280,-0.280,-0.280,0.000,0.000,0.000
1640068847612841984,"2021-12-21,06:40:47",10.1.1.5,418,-0.270,-0.270,-0.270,0.000,0.000,0.000
1640068847699547136,"2021-12-21,06:40:47",10.1.1.5,0.5054130554199219,-0.270,-0.270,-0.270,0.000,0.000,0.000
1640068848095108864,"2021-12-21,06:40:48",10.1.1.5,393,-0.260,-0.260,-0.260,0.000,0.000,0.000
1640068848178489856,"2021-12-21,06:40:48",10.1.1.5,0.47748303413391113,-0.260,-0.260,-0.260,0.000,0.000,0.000
1640068848536710144,"2021-12-21,06:40:48",10.1.1.5,354,-0.250,-0.250,-0.250,0.000,0.000,0.000
1640068848585256192,"2021-12-21,06:40:48",10.1.1.5,0.4035160541534424,-0.250,-0.250,-0.250,0.000,0.000,0.000
1640068848939053056,"2021-12-21,06:40:48",10.1.1.5,351,-0.240,-0.240,-0.240,0.000,0.000,0.000
1640068849029050112,"2021-12-21,06:40:49",10.1.1.5,0.4413621425628662,-0.240,-0.240,-0.240,0.000,0.000,0.000
1640068849380760064,"2021-12-21,06:40:49",10.1.1.5,346,-0.230,-0.230,-0.230,0.000,0.000,0.000
1640068849429582080,"2021-12-21,06:40:49",10.1.1.5,0.39537787437438965,-0.230,-0.230,-0.230,0.000,0.000,0.000
1640068849831971840,"2021-12-21,06:40:49",10.1.1.5,396,-0.220,-0.220,-0.220,0.000,0.000,0.000
1640068849866496000,"2021-12-21,06:40:49",10.1.1.5,0.431027889251709,-0.220,-0.220,-0.220,0.000,0.000,0.000
1640068850243202048,"2021-12-21,06:40:50",10.1.1.5,373,-0.210,-0.210,-0.210,0.000,0.000,0.000
1640068850270522112,"2021-12-21,06:40:50",10.1.1.5,0.4009988307952881,-0.210,-0.210,-0.210,0.000,0.000,0.000
1640068850674592000,"2021-12-21,06:40:50",10.1.1.5,402,-0.200,-0.200,-0.200,0.000,0.000,0.000
1640068850694524928,"2021-12-21,06:40:50",10.1.1.5,0.4221820831298828,-0.200,-0.200,-0.200,0.000,0.000,0.000
1640068851056539904,"2021-12-21,06:40:51",10.1.1.5,360,-0.190,-0.190,-0.190,0.000,0.000,0.000
1640068851108354048,"2021-12-21,06:40:51",10.1.1.5,0.41205501556396484,-0.190,-0.190,-0.190,0.000,0.000,0.000
1640068851426435072,"2021-12-21,06:40:51",10.1.1.5,314,-0.180,-0.180,-0.180,0.000,0.000,0.000
1640068851477121024,"2021-12-21,06:40:51",10.1.1.5,0.3622629642486572,-0.180,-0.180,-0.180,0.000,0.000,0.000
1640068851831437056,"2021-12-21,06:40:51",10.1.1.5,351,-0.170,-0.170,-0.170,0.000,0.000,0.000
1640068851884898816,"2021-12-21,06:40:51",10.1.1.5,0.4060969352722168,-0.170,-0.170,-0.170,0.000,0.000,0.000
1640068852218648064,"2021-12-21,06:40:52",10.1.1.5,332,-0.160,-0.160,-0.160,0.000,0.000,0.000
1640068852292992000,"2021-12-21,06:40:52",10.1.1.5,0.40685081481933594,-0.160,-0.160,-0.160,0.000,0.000,0.000
1640068852599248896,"2021-12-21,06:40:52",10.1.1.5,303,-0.150,-0.150,-0.150,0.000,0.000,0.000
1640068852681693184,"2021-12-21,06:40:52",10.1.1.5,0.3864448070526123,-0.150,-0.150,-0.150,0.000,0.000,0.000
1640068853060059904,"2021-12-21,06:40:53",10.1.1.5,359,-0.140,-0.140,-0.140,0.000,0.000,0.000
1640068853145795072,"2021-12-21,06:40:53",10.1.1.5,0.4455749988555908,-0.140,-0.140,-0.140,0.000,0.000,0.000
1640068853490452992,"2021-12-21,06:40:53",10.1.1.5,342,-0.130,-0.130,-0.130,0.000,0.000,0.000
1640068853547643904,"2021-12-21,06:40:53",10.1.1.5,0.4001338481903076,-0.130,-0.130,-0.130,0.000,0.000,0.000
1640068853936060928,"2021-12-21,06:40:53",10.1.1.5,386,-0.120,-0.120,-0.120,0.000,0.000,0.000
1640068854013065984,"2021-12-21,06:40:54",10.1.1.5,0.46373701095581055,-0.120,-0.120,-0.120,0.000,0.000,0.000
1640068854432019968,"2021-12-21,06:40:54",10.1.1.5,416,-0.110,-0.110,-0.110,0.000,0.000,0.000
1640068854445445120,"2021-12-21,06:40:54",10.1.1.5,0.42982006072998047,-0.110,-0.110,-0.110,0.000,0.000,0.000
1640068854822638080,"2021-12-21,06:40:54",10.1.1.5,375,-0.100,-0.100,-0.100,0.000,0.000,0.000
1640068854929001216,"2021-12-21,06:40:54",10.1.1.5,0.4822969436645508,-0.100,-0.100,-0.100,0.000,0.000,0.000
1640068855333036032,"2021-12-21,06:40:55",10.1.1.5,400,-0.090,-0.090,-0.090,0.000,0.000,0.000
1640068855409980160,"2021-12-21,06:40:55",10.1.1.5,0.47786593437194824,-0.090,-0.090,-0.090,0.000,0.000,0.000
1640068855772152832,"2021-12-21,06:40:55",10.1.1.5,344,-0.080,-0.080,-0.080,0.000,0.000,0.000
1640068855813779968,"2021-12-21,06:40:55",10.1.1.5,0.38570499420166016,-0.080,-0.080,-0.080,0.000,0.000,0.000
1640068856204762880,"2021-12-21,06:40:56",10.1.1.5,387,-0.070,-0.070,-0.070,0.000,0.000,0.000
1640068856280018176,"2021-12-21,06:40:56",10.1.1.5,0.4628870487213135,-0.070,-0.070,-0.070,0.000,0.000,0.000
1640068856663379968,"2021-12-21,06:40:56",10.1.1.5,372,-0.060,-0.060,-0.060,0.000,0.000,0.000
1640068856719549952,"2021-12-21,06:40:56",10.1.1.5,0.42922401428222656,-0.060,-0.060,-0.060,0.000,0.000,0.000
1640068857073095168,"2021-12-21,06:40:57",10.1.1.5,352,-0.050,-0.050,-0.050,0.000,0.000,0.000
1640068857109099008,"2021-12-21,06:40:57",10.1.1.5,0.388200044631958,-0.050,-0.050,-0.050,0.000,0.000,0.000
1640068857453723904,"2021-12-21,06:40:57",10.1.1.5,337,-0.040,-0.040,-0.040,0.000,0.000,0.000
1640068857517532160,"2021-12-21,06:40:57",10.1.1.5,0.40101003646850586,-0.040,-0.040,-0.040,0.000,0.000,0.000
1640068857913259008,"2021-12-21,06:40:57",10.1.1.5,390,-0.030,-0.030,-0.030,0.000,0.000,0.000
1640068857928070144,"2021-12-21,06:40:57",10.1.1.5,0.40497303009033203,-0.030,-0.030,-0.030,0.000,0.000,0.000
1640068858318129152,"2021-12-21,06:40:58",10.1.1.5,368,-0.020,-0.020,-0.020,0.000,0.000,0.000
