FedericoMungari/DigitalTwin_service/02_LTEScenario/Output/Output_script/script_ROSAPI_output_robots8_freq0_2.txt
timestamp,date,node,latency,joint_1,joint_2,joint_3,joint_4,joint_5,joint_6
1640670569472069120,2021-12-28-05:49:29,10.1.1.3,1640670569471.906,-0.000,0.000,0.000,-0.000,-0.000,0.000
1640670573530414080,2021-12-28-05:49:33,10.1.1.3,19,-0.000,0.000,0.000,-0.000,-0.000,0.000
1640670575587958016,2021-12-28-05:49:35,10.1.1.3,10,-0.000,0.000,0.000,-0.000,-0.000,0.000
1640670577667012096,2021-12-28-05:49:37,10.1.1.3,9,-0.000,0.000,0.000,-0.000,-0.000,0.000
1640670579725850112,2021-12-28-05:49:39,10.1.1.3,18,-0.000,0.000,0.000,-0.000,-0.000,0.000
1640670581760737792,2021-12-28-05:49:41,10.1.1.3,6,-0.000,0.000,0.000,-0.000,-0.000,0.000
1640670583837240832,2021-12-28-05:49:43,10.1.1.3,10,-0.000,0.000,0.000,-0.000,-0.000,0.000
1640670586157916160,2021-12-28-05:49:46,10.1.1.3,20,-0.000,0.000,0.000,-0.000,-0.000,0.000
1640670588190639872,2021-12-28-05:49:48,10.1.1.3,17,-0.000,0.000,0.000,-0.000,-0.000,0.000
1640670590227360000,2021-12-28-05:49:50,10.1.1.3,9,-0.000,0.000,0.000,-0.000,-0.000,0.000
1640670592307681024,2021-12-28-05:49:52,10.1.1.3,17,-0.000,0.000,0.000,-0.000,-0.000,0.000
1640670594341556992,2021-12-28-05:49:54,10.1.1.3,12,-0.000,0.000,0.000,-0.000,-0.000,0.000
1640670596477448960,2021-12-28-05:49:56,10.1.1.3,12,-0.000,0.000,0.000,-0.000,-0.000,0.000
1640670598553398016,2021-12-28-05:49:58,10.1.1.3,15,-0.000,0.000,0.000,-0.000,-0.000,0.000
1640670600590675968,2021-12-28-05:50:00,10.1.1.3,2,-0.000,0.000,0.000,-0.000,-0.000,0.000
1640670602708051968,2021-12-28-05:50:02,10.1.1.3,18,-0.000,0.000,0.000,-0.000,-0.000,0.000
1640670604742616064,2021-12-28-05:50:04,10.1.1.3,19,-0.000,0.000,0.000,-0.000,-0.000,0.000
1640670606959600896,2021-12-28-05:50:06,10.1.1.3,5,-0.000,0.000,0.000,-0.000,-0.000,0.000
1640670608995819008,2021-12-28-05:50:08,10.1.1.3,8,-0.000,0.000,0.000,-0.000,-0.000,0.000
1640670611073122048,2021-12-28-05:50:11,10.1.1.3,20,-0.000,0.000,0.000,-0.000,-0.000,0.000
1640670613110372096,2021-12-28-05:50:13,10.1.1.3,4,-0.000,0.000,0.000,-0.000,-0.000,0.000
1640670615245081856,2021-12-28-05:50:15,10.1.1.3,12,-0.000,0.000,0.000,-0.000,-0.000,0.000
1640670617262505984,2021-12-28-05:50:17,10.1.1.3,6,-0.000,0.000,0.000,-0.000,-0.000,0.000
1640670619338413056,2021-12-28-05:50:19,10.1.1.3,16,-0.000,0.000,0.000,-0.000,-0.000,0.000
1640670621377360128,2021-12-28-05:50:21,10.1.1.3,16,-0.000,0.000,0.000,-0.000,-0.000,0.000
1640670625468080128,2021-12-28-05:50:25,10.1.1.3,13,-0.000,0.000,0.000,-0.000,-0.000,0.000
1640670627500716032,2021-12-28-05:50:27,10.1.1.3,7,-0.000,0.000,0.000,-0.000,-0.000,0.000
1640670629590076928,2021-12-28-05:50:29,10.1.1.3,14,-0.000,0.000,0.000,-0.000,-0.000,0.000
1640670631656642816,2021-12-28-05:50:31,10.1.1.3,15,-0.000,0.000,0.000,-0.000,-0.000,0.000
1640670633680086016,2021-12-28-05:50:33,10.1.1.3,17,-0.000,0.000,0.000,-0.000,-0.000,0.000
1640670635722185984,2021-12-28-05:50:35,10.1.1.3,2,-0.000,0.000,0.000,-0.000,-0.000,0.000
1640670637841970944,2021-12-28-05:50:37,10.1.1.3,4,-0.000,0.000,0.000,-0.000,-0.000,0.000
1640670639943929856,2021-12-28-05:50:39,10.1.1.3,13,-0.000,0.000,0.000,-0.000,-0.000,0.000
1640670642084538880,2021-12-28-05:50:42,10.1.1.3,19,-0.000,0.000,0.000,-0.000,-0.000,0.000
1640670644120340992,2021-12-28-05:50:44,10.1.1.3,18,-0.000,0.000,0.000,-0.000,-0.000,0.000
1640670646157617920,2021-12-28-05:50:46,10.1.1.3,16,-0.000,0.000,0.000,-0.000,-0.000,0.000
1640670648194329088,2021-12-28-05:50:48,10.1.1.3,1,-0.000,0.000,0.000,-0.000,-0.000,0.000
1640670650312519936,2021-12-28-05:50:50,10.1.1.3,13,-0.000,0.000,0.000,-0.000,-0.000,0.000
1640670652468625152,2021-12-28-05:50:52,10.1.1.3,10,-0.000,0.000,0.000,-0.000,-0.000,0.000
1640670654529330944,2021-12-28-05:50:54,10.1.1.3,5,-0.000,0.000,0.000,-0.000,-0.000,0.000
1640670656578947072,2021-12-28-05:50:56,10.1.1.3,8,-0.000,0.000,0.000,-0.000,-0.000,0.000
1640670658605851904,2021-12-28-05:50:58,10.1.1.3,2,-0.000,0.000,0.000,-0.000,-0.000,0.000
1640670660669940992,2021-12-28-05:51:00,10.1.1.3,7,-0.000,0.000,0.000,-0.000,-0.000,0.000
1640670662751878144,2021-12-28-05:51:02,10.1.1.3,18,-0.000,0.000,0.000,-0.000,-0.000,0.000
1640670664833072896,2021-12-28-05:51:04,10.1.1.3,5,-0.000,0.000,0.000,-0.000,-0.000,0.000
1640670666934654976,2021-12-28-05:51:06,10.1.1.3,12,-0.000,0.000,0.000,-0.000,-0.000,0.000
1640670668991065088,2021-12-28-05:51:08,10.1.1.3,16,-0.000,0.000,0.000,-0.000,-0.000,0.000
1640670671109564160,2021-12-28-05:51:11,10.1.1.3,14,-0.000,0.000,0.000,-0.000,-0.000,0.000
1640670673148052992,2021-12-28-05:51:13,10.1.1.3,8,-0.000,0.000,0.000,-0.000,-0.000,0.000
1640670675265035008,2021-12-28-05:51:15,10.1.1.3,16,-0.000,0.000,0.000,-0.000,-0.000,0.000
1640670677283111936,2021-12-28-05:51:17,10.1.1.3,6,-0.000,0.000,0.000,-0.000,-0.000,0.000
1640670679320861184,2021-12-28-05:51:19,10.1.1.3,8,-0.000,0.000,0.000,-0.000,-0.000,0.000
1640670681437138944,2021-12-28-05:51:21,10.1.1.3,3,-0.000,0.000,0.000,-0.000,-0.000,0.000
1640670683493334016,2021-12-28-05:51:23,10.1.1.3,13,-0.000,0.000,0.000,-0.000,-0.000,0.000
1640670685574501120,2021-12-28-05:51:25,10.1.1.3,18,-0.000,0.000,0.000,-0.000,-0.000,0.000
1640670687610690048,2021-12-28-05:51:27,10.1.1.3,7,-0.000,0.000,0.000,-0.000,-0.000,0.000
1640670689719994112,2021-12-28-05:51:29,10.1.1.3,2,-0.000,0.000,0.000,-0.000,-0.000,0.000
1640670691865756160,2021-12-28-05:51:31,10.1.1.3,9,-0.000,0.000,0.000,-0.000,-0.000,0.000
1640670693933524992,2021-12-28-05:51:33,10.1.1.3,2,-0.000,0.000,0.000,-0.000,-0.000,0.000
1640670696012006912,2021-12-28-05:51:36,10.1.1.3,4,-0.000,0.000,0.000,-0.000,-0.000,0.000
1640670698052614912,2021-12-28-05:51:38,10.1.1.3,10,-0.000,0.000,0.000,-0.000,-0.000,0.000
1640670700091630080,2021-12-28-05:51:40,10.1.1.3,11,-0.000,0.000,0.000,-0.000,-0.000,0.000
1640670702130212096,2021-12-28-05:51:42,10.1.1.3,4,-0.000,0.000,0.000,-0.000,-0.000,0.000
1640670704209490176,2021-12-28-05:51:44,10.1.1.3,8,-0.000,0.000,0.000,-0.000,-0.000,0.000
1640670706266344960,2021-12-28-05:51:46,10.1.1.3,4,-0.000,0.000,0.000,-0.000,-0.000,0.000
1640670708344312064,2021-12-28-05:51:48,10.1.1.3,12,-0.000,0.000,0.000,-0.000,-0.000,0.000
1640670710441979904,2021-12-28-05:51:50,10.1.1.3,9,-0.000,0.000,0.000,-0.000,-0.000,0.000
1640670712498387968,2021-12-28-05:51:52,10.1.1.3,3,-0.000,0.000,0.000,-0.000,-0.000,0.000
1640670714554738944,2021-12-28-05:51:54,10.1.1.3,13,-0.000,0.000,0.000,-0.000,-0.000,0.000
1640670716591449088,2021-12-28-05:51:56,10.1.1.3,9,-0.000,0.000,0.000,-0.000,-0.000,0.000
1640670718628130816,2021-12-28-05:51:58,10.1.1.3,8,-0.000,0.000,0.000,-0.000,-0.000,0.000
1640670720657583872,2021-12-28-05:52:00,10.1.1.3,0,-0.000,0.000,0.000,-0.000,-0.000,0.000
1640670722763368960,2021-12-28-05:52:02,10.1.1.3,5,-0.000,0.000,0.000,-0.000,-0.000,0.000
1640670724788489216,2021-12-28-05:52:04,10.1.1.3,9,-0.000,0.000,0.000,-0.000,-0.000,0.000
1640670726831633152,2021-12-28-05:52:06,10.1.1.3,4,-0.000,0.000,0.000,-0.000,-0.000,0.000
1640670730931803904,2021-12-28-05:52:10,10.1.1.3,5,-0.000,0.000,0.000,-0.000,-0.000,0.000
1640670733091747072,2021-12-28-05:52:13,10.1.1.3,14,-0.000,0.000,0.000,-0.000,-0.000,0.000
1640670735171047936,2021-12-28-05:52:15,10.1.1.3,17,-0.000,0.000,0.000,-0.000,-0.000,0.000
1640670737207593984,2021-12-28-05:52:17,10.1.1.3,3,-0.000,0.000,0.000,-0.000,-0.000,0.000
1640670739285927936,2021-12-28-05:52:19,10.1.1.3,10,-0.000,0.000,0.000,-0.000,-0.000,0.000
1640670741383851008,2021-12-28-05:52:21,10.1.1.3,7,-0.000,0.000,0.000,-0.000,-0.000,0.000
1640670743440850944,2021-12-28-05:52:23,10.1.1.3,18,-0.000,0.000,0.000,-0.000,-0.000,0.000
1640670745636646144,2021-12-28-05:52:25,10.1.1.3,3,-0.000,0.000,0.000,-0.000,-0.000,0.000
1640670747673535232,2021-12-28-05:52:27,10.1.1.3,16,-0.000,0.000,0.000,-0.000,-0.000,0.000
1640670749690354944,2021-12-28-05:52:29,10.1.1.3,11,-0.000,0.000,0.000,-0.000,-0.000,0.000
1640670751732332032,2021-12-28-05:52:31,10.1.1.3,13,-0.000,0.000,0.000,-0.000,-0.000,0.000
1640670753781264128,2021-12-28-05:52:33,10.1.1.3,12,-0.000,0.000,0.000,-0.000,-0.000,0.000
1640670755827162880,2021-12-28-05:52:35,10.1.1.3,8,-0.000,0.000,0.000,-0.000,-0.000,0.000
1640670757970652160,2021-12-28-05:52:37,10.1.1.3,20,-0.000,0.000,0.000,-0.000,-0.000,0.000
1640670759992867840,2021-12-28-05:52:39,10.1.1.3,8,-0.000,0.000,0.000,-0.000,-0.000,0.000
1640670762072403968,2021-12-28-05:52:42,10.1.1.3,18,-0.000,0.000,0.000,-0.000,-0.000,0.000
1640670764113136128,2021-12-28-05:52:44,10.1.1.3,9,-0.000,0.000,0.000,-0.000,-0.000,0.000
1640670766231437056,2021-12-28-05:52:46,10.1.1.3,16,-0.000,0.000,0.000,-0.000,-0.000,0.000
1640670768309396992,2021-12-28-05:52:48,10.1.1.3,12,-0.000,0.000,0.000,-0.000,-0.000,0.000
1640670770367708928,2021-12-28-05:52:50,10.1.1.3,6,-0.000,0.000,0.000,-0.000,-0.000,0.000
1640670772465213184,2021-12-28-05:52:52,10.1.1.3,12,-0.000,0.000,0.000,-0.000,-0.000,0.000
1640670774502001920,2021-12-28-05:52:54,10.1.1.3,2,-0.000,0.000,0.000,-0.000,-0.000,0.000
1640670776538723072,2021-12-28-05:52:56,10.1.1.3,6,-0.000,0.000,0.000,-0.000,-0.000,0.000
1640670778577070080,2021-12-28-05:52:58,10.1.1.3,18,-0.000,0.000,0.000,-0.000,-0.000,0.000
1640670780593182208,2021-12-28-05:53:00,10.1.1.3,10,-0.000,0.000,0.000,-0.000,-0.000,0.000
1640670782669604096,2021-12-28-05:53:02,10.1.1.3,7,-0.000,0.000,0.000,-0.000,-0.000,0.000
1640670784798568960,2021-12-28-05:53:04,10.1.1.3,15,-0.000,0.000,0.000,-0.000,-0.000,0.000
1640670786826857984,2021-12-28-05:53:06,10.1.1.3,9,-0.000,0.000,0.000,-0.000,-0.000,0.000
1640670788930852864,2021-12-28-05:53:08,10.1.1.3,13,-0.000,0.000,0.000,-0.000,-0.000,0.000
1640670790954374912,2021-12-28-05:53:10,10.1.1.3,8,-0.000,0.000,0.000,-0.000,-0.000,0.000
1640670793015710976,2021-12-28-05:53:13,10.1.1.3,13,-0.000,0.000,0.000,-0.000,-0.000,0.000
1640670795036443904,2021-12-28-05:53:15,10.1.1.3,5,-0.000,0.000,0.000,-0.000,-0.000,0.000
1640670797076091904,2021-12-28-05:53:17,10.1.1.3,20,-0.000,0.000,0.000,-0.000,-0.000,0.000
1640670799134670848,2021-12-28-05:53:19,10.1.1.3,0,-0.000,0.000,0.000,-0.000,-0.000,0.000
1640670801192167168,2021-12-28-05:53:21,10.1.1.3,15,-0.000,0.000,0.000,-0.000,-0.000,0.000
1640670803349929216,2021-12-28-05:53:23,10.1.1.3,17,-0.000,0.000,0.000,-0.000,-0.000,0.000
1640670805406790912,2021-12-28-05:53:25,10.1.1.3,10,-0.000,0.000,0.000,-0.000,-0.000,0.000
1640670807443960064,2021-12-28-05:53:27,10.1.1.3,14,-0.000,0.000,0.000,-0.000,-0.000,0.000
1640670809502317824,2021-12-28-05:53:29,10.1.1.3,2,-0.000,0.000,0.000,-0.000,-0.000,0.000
1640670811578632192,2021-12-28-05:53:31,10.1.1.3,7,-0.000,0.000,0.000,-0.000,-0.000,0.000
1640670813655128832,2021-12-28-05:53:33,10.1.1.3,8,-0.000,0.000,0.000,-0.000,-0.000,0.000
1640670815731607040,2021-12-28-05:53:35,10.1.1.3,6,-0.000,0.000,0.000,-0.000,-0.000,0.000
1640670817879687168,2021-12-28-05:53:37,10.1.1.3,2,-0.000,0.000,0.000,-0.000,-0.000,0.000
1640670819925921024,2021-12-28-05:53:39,10.1.1.3,3,-0.000,0.000,0.000,-0.000,-0.000,0.000
1640670821989819136,2021-12-28-05:53:41,10.1.1.3,16,-0.000,0.000,0.000,-0.000,-0.000,0.000
1640670824133143040,2021-12-28-05:53:44,10.1.1.3,1,-0.000,0.000,0.000,-0.000,-0.000,0.000
1640670826194020864,2021-12-28-05:53:46,10.1.1.3,13,-0.000,0.000,0.000,-0.000,-0.000,0.000
1640670828212614912,2021-12-28-05:53:48,10.1.1.3,6,-0.000,0.000,0.000,-0.000,-0.000,0.000
1640670830353192192,2021-12-28-05:53:50,10.1.1.3,11,-0.000,0.000,0.000,-0.000,-0.000,0.000
1640670832390321920,2021-12-28-05:53:52,10.1.1.3,14,-0.000,0.000,0.000,-0.000,-0.000,0.000
1640670834427745024,2021-12-28-05:53:54,10.1.1.3,13,-0.000,0.000,0.000,-0.000,-0.000,0.000
1640670836505057024,2021-12-28-05:53:56,10.1.1.3,19,-0.000,0.000,0.000,-0.000,-0.000,0.000
1640670838583769088,2021-12-28-05:53:58,10.1.1.3,3,-0.000,0.000,0.000,-0.000,-0.000,0.000
1640670840640422144,2021-12-28-05:54:00,10.1.1.3,11,-0.000,0.000,0.000,-0.000,-0.000,0.000
1640670842676887040,2021-12-28-05:54:02,10.1.1.3,14,-0.000,0.000,0.000,-0.000,-0.000,0.000
1640670844754259200,2021-12-28-05:54:04,10.1.1.3,3,-0.000,0.000,0.000,-0.000,-0.000,0.000
1640670846810409984,2021-12-28-05:54:06,10.1.1.3,10,-0.000,0.000,0.000,-0.000,-0.000,0.000
1640670848873847040,2021-12-28-05:54:08,10.1.1.3,11,-0.000,0.000,0.000,-0.000,-0.000,0.000
1640670851002216192,2021-12-28-05:54:11,10.1.1.3,12,-0.000,0.000,0.000,-0.000,-0.000,0.000
1640670853171803904,2021-12-28-05:54:13,10.1.1.3,19,-0.000,0.000,0.000,-0.000,-0.000,0.000
1640670855212573952,2021-12-28-05:54:15,10.1.1.3,17,-0.000,0.000,0.000,-0.000,-0.000,0.000
1640670857334237952,2021-12-28-05:54:17,10.1.1.3,8,-0.000,0.000,0.000,-0.000,-0.000,0.000
1640670859434640896,2021-12-28-05:54:19,10.1.1.3,14,-0.000,0.000,0.000,-0.000,-0.000,0.000
1640670861593321984,2021-12-28-05:54:21,10.1.1.3,16,-0.000,0.000,0.000,-0.000,-0.000,0.000
1640670863652473856,2021-12-28-05:54:23,10.1.1.3,17,-0.000,0.000,0.000,-0.000,-0.000,0.000
1640670865790475008,2021-12-28-05:54:25,10.1.1.3,16,-0.000,0.000,0.000,-0.000,-0.000,0.000
1640670867868339968,2021-12-28-05:54:27,10.1.1.3,12,-0.000,0.000,0.000,-0.000,-0.000,0.000
1640670869945725952,2021-12-28-05:54:29,10.1.1.3,14,-0.000,0.000,0.000,-0.000,-0.000,0.000
1640670872002724864,2021-12-28-05:54:32,10.1.1.3,2,-0.000,0.000,0.000,-0.000,-0.000,0.000
1640670874120022016,2021-12-28-05:54:34,10.1.1.3,18,-0.000,0.000,0.000,-0.000,-0.000,0.000
1640670876236150016,2021-12-28-05:54:36,10.1.1.3,5,-0.000,0.000,0.000,-0.000,-0.000,0.000
1640670878352896000,2021-12-28-05:54:38,10.1.1.3,4,-0.000,0.000,0.000,-0.000,-0.000,0.000
1640670880413137920,2021-12-28-05:54:40,10.1.1.3,11,-0.000,0.000,0.000,-0.000,-0.000,0.000
1640670882461478912,2021-12-28-05:54:42,10.1.1.3,1,-0.000,0.000,0.000,-0.000,-0.000,0.000
1640670884527846144,2021-12-28-05:54:44,10.1.1.3,8,-0.000,0.000,0.000,-0.000,-0.000,0.000
1640670886571468032,2021-12-28-05:54:46,10.1.1.3,2,-0.000,0.000,0.000,-0.000,-0.000,0.000
1640670888674066944,2021-12-28-05:54:48,10.1.1.3,10,-0.000,0.000,0.000,-0.000,-0.000,0.000
1640670890714462976,2021-12-28-05:54:50,10.1.1.3,6,-0.000,0.000,0.000,-0.000,-0.000,0.000
1640670892813522176,2021-12-28-05:54:52,10.1.1.3,4,-0.000,0.000,0.000,-0.000,-0.000,0.000
1640670894932573184,2021-12-28-05:54:54,10.1.1.3,10,-0.000,0.000,0.000,-0.000,-0.000,0.000
1640670897091695104,2021-12-28-05:54:57,10.1.1.3,13,-0.000,0.000,0.000,-0.000,-0.000,0.000
1640670899148833024,2021-12-28-05:54:59,10.1.1.3,5,-0.000,0.000,0.000,-0.000,-0.000,0.000
1640670901245970944,2021-12-28-05:55:01,10.1.1.3,20,-0.000,0.000,0.000,-0.000,-0.000,0.000
1640670903263299840,2021-12-28-05:55:03,10.1.1.3,2,-0.000,0.000,0.000,-0.000,-0.000,0.000
1640670905339696896,2021-12-28-05:55:05,10.1.1.3,15,-0.000,0.000,0.000,-0.000,-0.000,0.000
1640670907417534208,2021-12-28-05:55:07,10.1.1.3,15,-0.000,0.000,0.000,-0.000,-0.000,0.000
1640670909494065920,2021-12-28-05:55:09,10.1.1.3,4,-0.000,0.000,0.000,-0.000,-0.000,0.000
1640670911630450944,2021-12-28-05:55:11,10.1.1.3,15,-0.000,0.000,0.000,-0.000,-0.000,0.000
1640670913779321856,2021-12-28-05:55:13,10.1.1.3,16,-0.000,0.000,0.000,-0.000,-0.000,0.000
1640670915827465984,2021-12-28-05:55:15,10.1.1.3,10,-0.000,0.000,0.000,-0.000,-0.000,0.000
1640670917892096000,2021-12-28-05:55:17,10.1.1.3,3,-0.000,0.000,0.000,-0.000,-0.000,0.000
1640670919935755008,2021-12-28-05:55:19,10.1.1.3,10,-0.000,0.000,0.000,-0.000,-0.000,0.000
1640670922136775936,2021-12-28-05:55:22,10.1.1.3,19,-0.000,0.000,0.000,-0.000,-0.000,0.000
1640670924156677120,2021-12-28-05:55:24,10.1.1.3,13,-0.000,0.000,0.000,-0.000,-0.000,0.000
1640670926195890944,2021-12-28-05:55:26,10.1.1.3,3,-0.000,0.000,0.000,-0.000,-0.000,0.000
1640670928315022080,2021-12-28-05:55:28,10.1.1.3,6,-0.000,0.000,0.000,-0.000,-0.000,0.000
1640670930473541888,2021-12-28-05:55:30,10.1.1.3,19,-0.000,0.000,0.000,-0.000,-0.000,0.000
1640670932531027968,2021-12-28-05:55:32,10.1.1.3,19,-0.000,0.000,0.000,-0.000,-0.000,0.000
1640670934548582912,2021-12-28-05:55:34,10.1.1.3,5,-0.000,0.000,0.000,-0.000,-0.000,0.000
1640670936605086976,2021-12-28-05:55:36,10.1.1.3,5,-0.000,0.000,0.000,-0.000,-0.000,0.000
1640670938682113792,2021-12-28-05:55:38,10.1.1.3,19,-0.000,0.000,0.000,-0.000,-0.000,0.000
1640670940778588928,2021-12-28-05:55:40,10.1.1.3,0,-0.000,0.000,0.000,-0.000,-0.000,0.000
1640670942815282944,2021-12-28-05:55:42,10.1.1.3,11,-0.000,0.000,0.000,-0.000,-0.000,0.000
1640670944913758976,2021-12-28-05:55:44,10.1.1.3,9,-0.000,0.000,0.000,-0.000,-0.000,0.000
1640670946981347072,2021-12-28-05:55:46,10.1.1.3,16,-0.000,0.000,0.000,-0.000,-0.000,0.000
1640670949007790080,2021-12-28-05:55:49,10.1.1.3,1,-0.000,0.000,0.000,-0.000,-0.000,0.000
1640670951093584896,2021-12-28-05:55:51,10.1.1.3,15,-0.000,0.000,0.000,-0.000,-0.000,0.000
1640670953154140928,2021-12-28-05:55:53,10.1.1.3,17,-0.000,0.000,0.000,-0.000,-0.000,0.000
1640670955194526976,2021-12-28-05:55:55,10.1.1.3,13,-0.000,0.000,0.000,-0.000,-0.000,0.000
1640670957234142976,2021-12-28-05:55:57,10.1.1.3,11,-0.000,0.000,0.000,-0.000,-0.000,0.000
1640670959313047040,2021-12-28-05:55:59,10.1.1.3,17,-0.000,0.000,0.000,-0.000,-0.000,0.000
1640670961351358976,2021-12-28-05:56:01,10.1.1.3,10,-0.000,0.000,0.000,-0.000,-0.000,0.000
1640670963413260032,2021-12-28-05:56:03,10.1.1.3,12,-0.000,0.000,0.000,-0.000,-0.000,0.000
1640670965487476992,2021-12-28-05:56:05,10.1.1.3,11,-0.000,0.000,0.000,-0.000,-0.000,0.000
1640670967524637952,2021-12-28-05:56:07,10.1.1.3,10,-0.000,0.000,0.000,-0.000,-0.000,0.000
1640670969562510848,2021-12-28-05:56:09,10.1.1.3,2,-0.000,0.000,0.000,-0.000,-0.000,0.000
1640670971657953024,2021-12-28-05:56:11,10.1.1.3,11,-0.000,0.000,0.000,-0.000,-0.000,0.000
1640670973715601920,2021-12-28-05:56:13,10.1.1.3,12,-0.000,0.000,0.000,-0.000,-0.000,0.000
1640670975772209920,2021-12-28-05:56:15,10.1.1.3,7,-0.000,0.000,0.000,-0.000,-0.000,0.000
1640670977793925888,2021-12-28-05:56:17,10.1.1.3,6,-0.000,0.000,0.000,-0.000,-0.000,0.000
1640670979844299008,2021-12-28-05:56:19,10.1.1.3,6,-0.000,0.000,0.000,-0.000,-0.000,0.000
1640670981988372992,2021-12-28-05:56:21,10.1.1.3,14,-0.000,0.000,0.000,-0.000,-0.000,0.000
1640670984052120064,2021-12-28-05:56:24,10.1.1.3,8,-0.000,0.000,0.000,-0.000,-0.000,0.000
1640670986074052096,2021-12-28-05:56:26,10.1.1.3,3,-0.000,0.000,0.000,-0.000,-0.000,0.000
1640670988133800960,2021-12-28-05:56:28,10.1.1.3,11,-0.000,0.000,0.000,-0.000,-0.000,0.000
1640670990173752064,2021-12-28-05:56:30,10.1.1.3,6,-0.000,0.000,0.000,-0.000,-0.000,0.000
1640670992213502976,2021-12-28-05:56:32,10.1.1.3,13,-0.000,0.000,0.000,-0.000,-0.000,0.000
1640670994271325184,2021-12-28-05:56:34,10.1.1.3,12,-0.000,0.000,0.000,-0.000,-0.000,0.000
1640670996310832896,2021-12-28-05:56:36,10.1.1.3,4,-0.000,0.000,0.000,-0.000,-0.000,0.000
1640670998366419200,2021-12-28-05:56:38,10.1.1.3,16,-0.000,0.000,0.000,-0.000,-0.000,0.000
1640671000384120064,2021-12-28-05:56:40,10.1.1.3,5,-0.000,0.000,0.000,-0.000,-0.000,0.000
1640671002420649984,2021-12-28-05:56:42,10.1.1.3,8,-0.000,0.000,0.000,-0.000,-0.000,0.000
1640671004477408768,2021-12-28-05:56:44,10.1.1.3,18,-0.000,0.000,0.000,-0.000,-0.000,0.000
1640671006494317056,2021-12-28-05:56:46,10.1.1.3,6,-0.000,0.000,0.000,-0.000,-0.000,0.000
1640671008551645952,2021-12-28-05:56:48,10.1.1.3,14,-0.000,0.000,0.000,-0.000,-0.000,0.000
1640671010700311040,2021-12-28-05:56:50,10.1.1.3,8,-0.000,0.000,0.000,-0.000,-0.000,0.000
1640671012767023104,2021-12-28-05:56:52,10.1.1.3,4,-0.000,0.000,0.000,-0.000,-0.000,0.000
1640671014813131008,2021-12-28-05:56:54,10.1.1.3,5,-0.000,0.000,0.000,-0.000,-0.000,0.000
1640671016894562048,2021-12-28-05:56:56,10.1.1.3,4,-0.000,0.000,0.000,-0.000,-0.000,0.000
1640671018994905856,2021-12-28-05:56:58,10.1.1.3,4,-0.000,0.000,0.000,-0.000,-0.000,0.000
1640671021054658816,2021-12-28-05:57:01,10.1.1.3,10,-0.000,0.000,0.000,-0.000,-0.000,0.000
1640671023154400000,2021-12-28-05:57:03,10.1.1.3,16,-0.000,0.000,0.000,-0.000,-0.000,0.000
1640671025192982016,2021-12-28-05:57:05,10.1.1.3,15,-0.000,0.000,0.000,-0.000,-0.000,0.000
1640671027250659072,2021-12-28-05:57:07,10.1.1.3,12,-0.000,0.000,0.000,-0.000,-0.000,0.000
1640671029288713984,2021-12-28-05:57:09,10.1.1.3,7,-0.000,0.000,0.000,-0.000,-0.000,0.000
1640671031346544128,2021-12-28-05:57:11,10.1.1.3,15,-0.000,0.000,0.000,-0.000,-0.000,0.000
1640671033442430976,2021-12-28-05:57:13,10.1.1.3,6,-0.000,0.000,0.000,-0.000,-0.000,0.000
1640671035499220992,2021-12-28-05:57:15,10.1.1.3,2,-0.000,0.000,0.000,-0.000,-0.000,0.000
1640671037616098048,2021-12-28-05:57:17,10.1.1.3,6,-0.000,0.000,0.000,-0.000,-0.000,0.000
1640671039653529856,2021-12-28-05:57:19,10.1.1.3,11,-0.000,0.000,0.000,-0.000,-0.000,0.000
1640671041835854080,2021-12-28-05:57:21,10.1.1.3,18,-0.000,0.000,0.000,-0.000,-0.000,0.000
1640671043884897024,2021-12-28-05:57:23,10.1.1.3,13,-0.000,0.000,0.000,-0.000,-0.000,0.000
1640671045970747904,2021-12-28-05:57:25,10.1.1.3,1,-0.000,0.000,0.000,-0.000,-0.000,0.000
1640671048013741056,2021-12-28-05:57:28,10.1.1.3,11,-0.000,0.000,0.000,-0.000,-0.000,0.000
1640671050114895104,2021-12-28-05:57:30,10.1.1.3,8,-0.000,0.000,0.000,-0.000,-0.000,0.000
1640671052195749120,2021-12-28-05:57:32,10.1.1.3,13,-0.000,0.000,0.000,-0.000,-0.000,0.000
1640671054255301120,2021-12-28-05:57:34,10.1.1.3,17,-0.000,0.000,0.000,-0.000,-0.000,0.000
1640671056294300928,2021-12-28-05:57:36,10.1.1.3,16,-0.000,0.000,0.000,-0.000,-0.000,0.000
1640671058332935936,2021-12-28-05:57:38,10.1.1.3,19,-0.000,0.000,0.000,-0.000,-0.000,0.000
1640671060350567936,2021-12-28-05:57:40,10.1.1.3,5,-0.000,0.000,0.000,-0.000,-0.000,0.000
1640671062408341760,2021-12-28-05:57:42,10.1.1.3,19,-0.000,0.000,0.000,-0.000,-0.000,0.000
1640671064485316864,2021-12-28-05:57:44,10.1.1.3,6,-0.000,0.000,0.000,-0.000,-0.000,0.000
1640671066544545792,2021-12-28-05:57:46,10.1.1.3,12,-0.000,0.000,0.000,-0.000,-0.000,0.000
1640671068660964864,2021-12-28-05:57:48,10.1.1.3,3,-0.000,0.000,0.000,-0.000,-0.000,0.000
1640671070715289088,2021-12-28-05:57:50,10.1.1.3,15,-0.000,0.000,0.000,-0.000,-0.000,0.000
1640671072772907008,2021-12-28-05:57:52,10.1.1.3,3,-0.000,0.000,0.000,-0.000,-0.000,0.000
1640671074895766016,2021-12-28-05:57:54,10.1.1.3,17,-0.000,0.000,0.000,-0.000,-0.000,0.000
1640671076943840000,2021-12-28-05:57:56,10.1.1.3,7,-0.000,0.000,0.000,-0.000,-0.000,0.000
1640671079009948928,2021-12-28-05:57:59,10.1.1.3,9,-0.000,0.000,0.000,-0.000,-0.000,0.000
1640671081073374976,2021-12-28-05:58:01,10.1.1.3,3,-0.000,0.000,0.000,-0.000,-0.000,0.000
1640671083254426880,2021-12-28-05:58:03,10.1.1.3,10,-0.000,0.000,0.000,-0.000,-0.000,0.000
1640671085294790912,2021-12-28-05:58:05,10.1.1.3,10,-0.000,0.000,0.000,-0.000,-0.000,0.000
1640671087354502912,2021-12-28-05:58:07,10.1.1.3,16,-0.000,0.000,0.000,-0.000,-0.000,0.000
1640671089413480960,2021-12-28-05:58:09,10.1.1.3,10,-0.000,0.000,0.000,-0.000,-0.000,0.000
1640671091511346944,2021-12-28-05:58:11,10.1.1.3,7,-0.000,0.000,0.000,-0.000,-0.000,0.000
1640671093569469952,2021-12-28-05:58:13,10.1.1.3,19,-0.000,0.000,0.000,-0.000,-0.000,0.000
1640671095586899968,2021-12-28-05:58:15,10.1.1.3,1,-0.000,0.000,0.000,-0.000,-0.000,0.000
1640671097624346112,2021-12-28-05:58:17,10.1.1.3,12,-0.000,0.000,0.000,-0.000,-0.000,0.000
1640671099641868032,2021-12-28-05:58:19,10.1.1.3,1,-0.000,0.000,0.000,-0.000,-0.000,0.000
1640671101737339136,2021-12-28-05:58:21,10.1.1.3,3,-0.000,0.000,0.000,-0.000,-0.000,0.000
1640671103814838784,2021-12-28-05:58:23,10.1.1.3,18,-0.000,0.000,0.000,-0.000,-0.000,0.000
1640671105850992896,2021-12-28-05:58:25,10.1.1.3,8,-0.000,0.000,0.000,-0.000,-0.000,0.000
1640671107900101888,2021-12-28-05:58:27,10.1.1.3,8,-0.000,0.000,0.000,-0.000,-0.000,0.000
1640671109948215040,2021-12-28-05:58:29,10.1.1.3,9,-0.000,0.000,0.000,-0.000,-0.000,0.000
1640671112112067840,2021-12-28-05:58:32,10.1.1.3,16,-0.000,0.000,0.000,-0.000,-0.000,0.000
1640671114154560000,2021-12-28-05:58:34,10.1.1.3,8,-0.000,0.000,0.000,-0.000,-0.000,0.000
1640671116337443072,2021-12-28-05:58:36,10.1.1.3,0,-0.000,0.000,0.000,-0.000,-0.000,0.000
1640671118435062784,2021-12-28-05:58:38,10.1.1.3,6,-0.000,0.000,0.000,-0.000,-0.000,0.000
1640671120457164032,2021-12-28-05:58:40,10.1.1.3,2,-0.000,0.000,0.000,-0.000,-0.000,0.000
1640671122526702848,2021-12-28-05:58:42,10.1.1.3,1,-0.000,0.000,0.000,-0.000,-0.000,0.000
1640671124570866944,2021-12-28-05:58:44,10.1.1.3,7,-0.000,0.000,0.000,-0.000,-0.000,0.000
1640671126608108032,2021-12-28-05:58:46,10.1.1.3,4,-0.000,0.000,0.000,-0.000,-0.000,0.000
1640671128686137856,2021-12-28-05:58:48,10.1.1.3,1,-0.000,0.000,0.000,-0.000,-0.000,0.000
1640671130805357056,2021-12-28-05:58:50,10.1.1.3,3,-0.000,0.000,0.000,-0.000,-0.000,0.000
1640671132900079872,2021-12-28-05:58:52,10.1.1.3,11,-0.000,0.000,0.000,-0.000,-0.000,0.000
1640671134956985856,2021-12-28-05:58:54,10.1.1.3,14,-0.000,0.000,0.000,-0.000,-0.000,0.000
1640671137012573952,2021-12-28-05:58:57,10.1.1.3,13,-0.000,0.000,0.000,-0.000,-0.000,0.000
1640671139058109952,2021-12-28-05:58:59,10.1.1.3,5,-0.000,0.000,0.000,-0.000,-0.000,0.000
1640671141146172928,2021-12-28-05:59:01,10.1.1.3,12,-0.000,0.000,0.000,-0.000,-0.000,0.000
1640671143191452928,2021-12-28-05:59:03,10.1.1.3,17,-0.000,0.000,0.000,-0.000,-0.000,0.000
1640671145194895104,2021-12-28-05:59:05,10.1.1.3,3,-0.000,0.000,0.000,-0.000,-0.000,0.000
1640671147276438016,2021-12-28-05:59:07,10.1.1.3,9,-0.000,0.000,0.000,-0.000,-0.000,0.000
1640671149357916160,2021-12-28-05:59:09,10.1.1.3,17,-0.000,0.000,0.000,-0.000,-0.000,0.000
1640671151455565056,2021-12-28-05:59:11,10.1.1.3,14,-0.000,0.000,0.000,-0.000,-0.000,0.000
1640671153514195968,2021-12-28-05:59:13,10.1.1.3,8,-0.000,0.000,0.000,-0.000,-0.000,0.000
1640671155552169984,2021-12-28-05:59:15,10.1.1.3,10,-0.000,0.000,0.000,-0.000,-0.000,0.000
1640671157610256896,2021-12-28-05:59:17,10.1.1.3,9,-0.000,0.000,0.000,-0.000,-0.000,0.000
1640671159668288000,2021-12-28-05:59:19,10.1.1.3,13,-0.000,0.000,0.000,-0.000,-0.000,0.000
1640671161704509952,2021-12-28-05:59:21,10.1.1.3,6,-0.000,0.000,0.000,-0.000,-0.000,0.000
1640671163763628032,2021-12-28-05:59:23,10.1.1.3,4,-0.000,0.000,0.000,-0.000,-0.000,0.000
1640671165841257216,2021-12-28-05:59:25,10.1.1.3,3,-0.000,0.000,0.000,-0.000,-0.000,0.000
1640671167915215872,2021-12-28-05:59:27,10.1.1.3,15,-0.000,0.000,0.000,-0.000,-0.000,0.000
1640671170011717120,2021-12-28-05:59:30,10.1.1.3,10,-0.000,0.000,0.000,-0.000,-0.000,0.000
1640671172083677952,2021-12-28-05:59:32,10.1.1.3,7,-0.000,0.000,0.000,-0.000,-0.000,0.000
1640671174150578944,2021-12-28-05:59:34,10.1.1.3,19,-0.000,0.000,0.000,-0.000,-0.000,0.000
1640671176195312896,2021-12-28-05:59:36,10.1.1.3,17,-0.000,0.000,0.000,-0.000,-0.000,0.000
1640671178219960832,2021-12-28-05:59:38,10.1.1.3,13,-0.000,0.000,0.000,-0.000,-0.000,0.000
1640671180279484928,2021-12-28-05:59:40,10.1.1.3,8,-0.000,0.000,0.000,-0.000,-0.000,0.000
1640671182319534080,2021-12-28-05:59:42,10.1.1.3,6,-0.000,0.000,0.000,-0.000,-0.000,0.000
1640671184457637120,2021-12-28-05:59:44,10.1.1.3,12,-0.000,0.000,0.000,-0.000,-0.000,0.000
1640671186496387072,2021-12-28-05:59:46,10.1.1.3,19,-0.000,0.000,0.000,-0.000,-0.000,0.000
1640671188515675904,2021-12-28-05:59:48,10.1.1.3,0,-0.000,0.000,0.000,-0.000,-0.000,0.000
1640671190572830976,2021-12-28-05:59:50,10.1.1.3,4,-0.000,0.000,0.000,-0.000,-0.000,0.000
1640671192630023936,2021-12-28-05:59:52,10.1.1.3,18,-0.000,0.000,0.000,-0.000,-0.000,0.000
1640671194840556032,2021-12-28-05:59:54,10.1.1.3,17,-0.000,0.000,0.000,-0.000,-0.000,0.000
1640671196863672064,2021-12-28-05:59:56,10.1.1.3,6,-0.000,0.000,0.000,-0.000,-0.000,0.000
1640671198921320960,2021-12-28-05:59:58,10.1.1.3,14,-0.000,0.000,0.000,-0.000,-0.000,0.000
1640671200997089024,2021-12-28-06:00:00,10.1.1.3,10,-0.000,0.000,0.000,-0.000,-0.000,0.000
1640671203054727168,2021-12-28-06:00:03,10.1.1.3,4,-0.000,0.000,0.000,-0.000,-0.000,0.000
1640671205124090880,2021-12-28-06:00:05,10.1.1.3,14,-0.000,0.000,0.000,-0.000,-0.000,0.000
1640671207170222080,2021-12-28-06:00:07,10.1.1.3,15,-0.000,0.000,0.000,-0.000,-0.000,0.000
1640671209293957120,2021-12-28-06:00:09,10.1.1.3,6,-0.000,0.000,0.000,-0.000,-0.000,0.000
1640671211316029952,2021-12-28-06:00:11,10.1.1.3,1,-0.000,0.000,0.000,-0.000,-0.000,0.000
1640671213376645120,2021-12-28-06:00:13,10.1.1.3,19,-0.000,0.000,0.000,-0.000,-0.000,0.000
1640671215515687936,2021-12-28-06:00:15,10.1.1.3,15,-0.000,0.000,0.000,-0.000,-0.000,0.000
1640671217634982144,2021-12-28-06:00:17,10.1.1.3,5,-0.000,0.000,0.000,-0.000,-0.000,0.000
1640671219694680832,2021-12-28-06:00:19,10.1.1.3,3,-0.000,0.000,0.000,-0.000,-0.000,0.000
1640671221751641088,2021-12-28-06:00:21,10.1.1.3,13,-0.000,0.000,0.000,-0.000,-0.000,0.000
1640671223789817088,2021-12-28-06:00:23,10.1.1.3,15,-0.000,0.000,0.000,-0.000,-0.000,0.000
1640671225826600960,2021-12-28-06:00:25,10.1.1.3,16,-0.000,0.000,0.000,-0.000,-0.000,0.000
1640671227864429056,2021-12-28-06:00:27,10.1.1.3,14,-0.000,0.000,0.000,-0.000,-0.000,0.000
1640671229899970048,2021-12-28-06:00:29,10.1.1.3,17,-0.000,0.000,0.000,-0.000,-0.000,0.000
1640671231956877824,2021-12-28-06:00:31,10.1.1.3,0,-0.000,0.000,0.000,-0.000,-0.000,0.000
1640671234013595136,2021-12-28-06:00:34,10.1.1.3,2,-0.000,0.000,0.000,-0.000,-0.000,0.000
1640671236077593088,2021-12-28-06:00:36,10.1.1.3,16,-0.000,0.000,0.000,-0.000,-0.000,0.000
1640671238226578944,2021-12-28-06:00:38,10.1.1.3,11,-0.000,0.000,0.000,-0.000,-0.000,0.000
1640671240372098816,2021-12-28-06:00:40,10.1.1.3,16,-0.000,0.000,0.000,-0.000,-0.000,0.000
1640671242435611136,2021-12-28-06:00:42,10.1.1.3,10,-0.000,0.000,0.000,-0.000,-0.000,0.000
1640671244496813056,2021-12-28-06:00:44,10.1.1.3,11,-0.000,0.000,0.000,-0.000,-0.000,0.000
1640671246616913152,2021-12-28-06:00:46,10.1.1.3,14,-0.000,0.000,0.000,-0.000,-0.000,0.000
1640671248695694848,2021-12-28-06:00:48,10.1.1.3,17,-0.000,0.000,0.000,-0.000,-0.000,0.000
1640671250755660032,2021-12-28-06:00:50,10.1.1.3,4,-0.000,0.000,0.000,-0.000,-0.000,0.000
1640671252814164992,2021-12-28-06:00:52,10.1.1.3,3,-0.000,0.000,0.000,-0.000,-0.000,0.000
1640671254850529792,2021-12-28-06:00:54,10.1.1.3,17,-0.000,0.000,0.000,-0.000,-0.000,0.000
1640671258925769216,2021-12-28-06:00:58,10.1.1.3,14,-0.000,0.000,0.000,-0.000,-0.000,0.000
1640671261002512896,2021-12-28-06:01:01,10.1.1.3,7,-0.000,0.000,0.000,-0.000,-0.000,0.000
1640671263099080960,2021-12-28-06:01:03,10.1.1.3,6,-0.000,0.000,0.000,-0.000,-0.000,0.000
1640671265237220096,2021-12-28-06:01:05,10.1.1.3,14,-0.000,0.000,0.000,-0.000,-0.000,0.000
1640671267435724032,2021-12-28-06:01:07,10.1.1.3,17,-0.000,0.000,0.000,-0.000,-0.000,0.000
1640671269505179904,2021-12-28-06:01:09,10.1.1.3,19,-0.000,0.000,0.000,-0.000,-0.000,0.000
1640671271512536064,2021-12-28-06:01:11,10.1.1.3,0,-0.000,0.000,0.000,-0.000,-0.000,0.000
1640671273575546880,2021-12-28-06:01:13,10.1.1.3,7,-0.000,0.000,0.000,-0.000,-0.000,0.000
1640671275597351168,2021-12-28-06:01:15,10.1.1.3,1,-0.000,0.000,0.000,-0.000,-0.000,0.000
1640671277638371840,2021-12-28-06:01:17,10.1.1.3,13,-0.000,0.000,0.000,-0.000,-0.000,0.000
1640671279698231808,2021-12-28-06:01:19,10.1.1.3,15,-0.000,0.000,0.000,-0.000,-0.000,0.000
1640671281738213888,2021-12-28-06:01:21,10.1.1.3,7,-0.000,0.000,0.000,-0.000,-0.000,0.000
1640671283875714048,2021-12-28-06:01:23,10.1.1.3,16,-0.000,0.000,0.000,-0.000,-0.000,0.000
1640671285913633024,2021-12-28-06:01:25,10.1.1.3,13,-0.000,0.000,0.000,-0.000,-0.000,0.000
1640671287991182080,2021-12-28-06:01:27,10.1.1.3,9,-0.000,0.000,0.000,-0.000,-0.000,0.000
1640671290068779008,2021-12-28-06:01:30,10.1.1.3,19,-0.000,0.000,0.000,-0.000,-0.000,0.000
1640671292144738048,2021-12-28-06:01:32,10.1.1.3,7,-0.000,0.000,0.000,-0.000,-0.000,0.000
1640671294222295040,2021-12-28-06:01:34,10.1.1.3,16,-0.000,0.000,0.000,-0.000,-0.000,0.000
1640671296239954944,2021-12-28-06:01:36,10.1.1.3,2,-0.000,0.000,0.000,-0.000,-0.000,0.000
1640671298256797184,2021-12-28-06:01:38,10.1.1.3,11,-0.000,0.000,0.000,-0.000,-0.000,0.000
1640671300261835008,2021-12-28-06:01:40,10.1.1.3,5,-0.000,0.000,0.000,-0.000,-0.000,0.000
1640671302270193152,2021-12-28-06:01:42,10.1.1.3,6,-0.000,0.000,0.000,-0.000,-0.000,0.000
1640671304294945024,2021-12-28-06:01:44,10.1.1.3,19,-0.000,0.000,0.000,-0.000,-0.000,0.000
1640671306298556928,2021-12-28-06:01:46,10.1.1.3,11,-0.000,0.000,0.000,-0.000,-0.000,0.000
1640671308319966976,2021-12-28-06:01:48,10.1.1.3,13,-0.000,0.000,0.000,-0.000,-0.000,0.000
1640671310521074944,2021-12-28-06:01:50,10.1.1.3,4,-0.090,-0.090,-0.090,0.000,0.000,0.000
1640671311660173824,2021-12-28-06:01:51,10.1.1.3,18,-0.340,-0.340,-0.340,0.000,0.000,0.000
1640671311939610880,2021-12-28-06:01:51,10.1.1.3,12,-0.200,-0.200,-0.200,0.000,0.000,0.000
1640671312759975936,2021-12-28-06:01:52,10.1.1.3,12,-0.200,-0.200,-0.200,0.000,0.000,0.000
1640671313958947840,2021-12-28-06:01:53,10.1.1.3,18,-0.200,-0.200,-0.200,0.000,0.000,0.000
1640671314778449152,2021-12-28-06:01:54,10.1.1.3,17,-0.200,-0.200,-0.200,0.000,0.000,0.000
1640671315957714944,2021-12-28-06:01:55,10.1.1.3,9,-0.200,-0.200,-0.200,0.000,0.000,0.000
1640671316776815872,2021-12-28-06:01:56,10.1.1.3,11,-0.200,-0.200,-0.200,0.000,0.000,0.000
1640671317955478016,2021-12-28-06:01:57,10.1.1.3,2,-0.200,-0.200,-0.200,0.000,0.000,0.000
1640671318814526208,2021-12-28-06:01:58,10.1.1.3,14,-0.200,-0.200,-0.200,0.000,0.000,0.000
1640671320033062912,2021-12-28-06:02:00,10.1.1.3,19,-0.200,-0.200,-0.200,0.000,0.000,0.000
1640671320851887872,2021-12-28-06:02:00,10.1.1.3,14,-0.200,-0.200,-0.200,0.000,0.000,0.000
1640671322030392832,2021-12-28-06:02:02,10.1.1.3,6,-0.200,-0.200,-0.200,0.000,0.000,0.000
1640671322851574016,2021-12-28-06:02:02,10.1.1.3,5,-0.200,-0.200,-0.200,0.000,0.000,0.000
1640671324048285952,2021-12-28-06:02:04,10.1.1.3,12,-0.200,-0.200,-0.200,0.000,0.000,0.000
1640671324866774016,2021-12-28-06:02:04,10.1.1.3,12,-0.200,-0.200,-0.200,0.000,0.000,0.000
1640671326044790016,2021-12-28-06:02:06,10.1.1.3,0,-0.200,-0.200,-0.200,0.000,0.000,0.000
1640671326863260928,2021-12-28-06:02:06,10.1.1.3,0,-0.200,-0.200,-0.200,0.000,0.000,0.000
1640671328060900864,2021-12-28-06:02:08,10.1.1.3,10,-0.200,-0.200,-0.200,0.000,0.000,0.000
1640671328879682048,2021-12-28-06:02:08,10.1.1.3,8,-0.200,-0.200,-0.200,0.000,0.000,0.000
1640671330138537984,2021-12-28-06:02:10,10.1.1.3,13,-0.200,-0.200,-0.200,0.000,0.000,0.000
1640671330977628928,2021-12-28-06:02:10,10.1.1.3,16,-0.200,-0.200,-0.200,0.000,0.000,0.000
1640671332156132096,2021-12-28-06:02:12,10.1.1.3,3,-0.200,-0.200,-0.200,0.000,0.000,0.000
1640671332979943936,2021-12-28-06:02:12,10.1.1.3,6,-0.200,-0.200,-0.200,0.000,0.000,0.000
1640671334184776960,2021-12-28-06:02:14,10.1.1.3,11,-0.200,-0.200,-0.200,0.000,0.000,0.000
1640671335048093184,2021-12-28-06:02:15,10.1.1.3,12,-0.200,-0.200,-0.200,0.000,0.000,0.000
1640671336230802944,2021-12-28-06:02:16,10.1.1.3,8,-0.200,-0.200,-0.200,0.000,0.000,0.000
1640671337092839936,2021-12-28-06:02:17,10.1.1.3,17,-0.200,-0.200,-0.200,0.000,0.000,0.000
1640671338295411968,2021-12-28-06:02:18,10.1.1.3,11,-0.200,-0.200,-0.200,0.000,0.000,0.000
1640671339115081984,2021-12-28-06:02:19,10.1.1.3,8,-0.200,-0.200,-0.200,0.000,0.000,0.000
1640671340316432896,2021-12-28-06:02:20,10.1.1.3,19,-0.200,-0.200,-0.200,0.000,0.000,0.000
1640671341156239872,2021-12-28-06:02:21,10.1.1.3,3,-0.200,-0.200,-0.200,0.000,0.000,0.000
1640671342357094144,2021-12-28-06:02:22,10.1.1.3,14,-0.200,-0.200,-0.200,0.000,0.000,0.000
1640671343176662016,2021-12-28-06:02:23,10.1.1.3,13,-0.200,-0.200,-0.200,0.000,0.000,0.000
1640671344356216832,2021-12-28-06:02:24,10.1.1.3,5,-0.200,-0.200,-0.200,0.000,0.000,0.000
1640671345196412928,2021-12-28-06:02:25,10.1.1.3,17,-0.200,-0.200,-0.200,0.000,0.000,0.000
1640671346376431104,2021-12-28-06:02:26,10.1.1.3,4,-0.200,-0.200,-0.200,0.000,0.000,0.000
1640671347215596032,2021-12-28-06:02:27,10.1.1.3,14,-0.200,-0.200,-0.200,0.000,0.000,0.000
1640671348475909888,2021-12-28-06:02:28,10.1.1.3,18,-0.200,-0.200,-0.200,0.000,0.000,0.000
1640671349333746944,2021-12-28-06:02:29,10.1.1.3,1,-0.200,-0.200,-0.200,0.000,0.000,0.000
1640671350552272128,2021-12-28-06:02:30,10.1.1.3,13,-0.200,-0.200,-0.200,0.000,0.000,0.000
1640671351371094016,2021-12-28-06:02:31,10.1.1.3,3,-0.200,-0.200,-0.200,0.000,0.000,0.000
1640671352650560000,2021-12-28-06:02:32,10.1.1.3,0,-0.200,-0.200,-0.200,0.000,0.000,0.000
1640671353529719040,2021-12-28-06:02:33,10.1.1.3,14,-0.200,-0.200,-0.200,0.000,0.000,0.000
1640671354727010048,2021-12-28-06:02:34,10.1.1.3,13,-0.200,-0.200,-0.200,0.000,0.000,0.000
1640671355545517056,2021-12-28-06:02:35,10.1.1.3,7,-0.200,-0.200,-0.200,0.000,0.000,0.000
1640671356744227840,2021-12-28-06:02:36,10.1.1.3,1,-0.200,-0.200,-0.200,0.000,0.000,0.000
1640671357662537984,2021-12-28-06:02:37,10.1.1.3,4,-0.200,-0.200,-0.200,0.000,0.000,0.000
1640671358860855040,2021-12-28-06:02:38,10.1.1.3,15,-0.200,-0.200,-0.200,0.000,0.000,0.000
1640671359678891008,2021-12-28-06:02:39,10.1.1.3,6,-0.200,-0.200,-0.200,0.000,0.000,0.000
1640671360957721856,2021-12-28-06:02:40,10.1.1.3,6,-0.200,-0.200,-0.200,0.000,0.000,0.000
1640671361816525056,2021-12-28-06:02:41,10.1.1.3,7,-0.200,-0.200,-0.200,0.000,0.000,0.000
1640671363055006976,2021-12-28-06:02:43,10.1.1.3,6,-0.200,-0.200,-0.200,0.000,0.000,0.000
1640671363894212864,2021-12-28-06:02:43,10.1.1.3,16,-0.200,-0.200,-0.200,0.000,0.000,0.000
1640671365098691072,2021-12-28-06:02:45,10.1.1.3,15,-0.200,-0.200,-0.200,0.000,0.000,0.000
1640671365963875072,2021-12-28-06:02:45,10.1.1.3,4,-0.200,-0.200,-0.200,0.000,0.000,0.000
1640671367188036864,2021-12-28-06:02:47,10.1.1.3,1,-0.200,-0.200,-0.200,0.000,0.000,0.000
1640671368029336832,2021-12-28-06:02:48,10.1.1.3,17,-0.200,-0.200,-0.200,0.000,0.000,0.000
1640671369212625920,2021-12-28-06:02:49,10.1.1.3,10,-0.200,-0.200,-0.200,0.000,0.000,0.000
1640671370034884096,2021-12-28-06:02:50,10.1.1.3,3,-0.200,-0.200,-0.200,0.000,0.000,0.000
1640671371256561920,2021-12-28-06:02:51,10.1.1.3,3,-0.200,-0.200,-0.200,0.000,0.000,0.000
1640671372096317952,2021-12-28-06:02:52,10.1.1.3,7,-0.200,-0.200,-0.200,0.000,0.000,0.000
1640671373356587008,2021-12-28-06:02:53,10.1.1.3,12,-0.200,-0.200,-0.200,0.000,0.000,0.000
1640671374217526016,2021-12-28-06:02:54,10.1.1.3,6,-0.200,-0.200,-0.200,0.000,0.000,0.000
1640671375418114048,2021-12-28-06:02:55,10.1.1.3,3,-0.200,-0.200,-0.200,0.000,0.000,0.000
1640671376258181120,2021-12-28-06:02:56,10.1.1.3,15,-0.200,-0.200,-0.200,0.000,0.000,0.000
1640671377457537792,2021-12-28-06:02:57,10.1.1.3,8,-0.200,-0.200,-0.200,0.000,0.000,0.000
1640671378337198848,2021-12-28-06:02:58,10.1.1.3,6,-0.200,-0.200,-0.200,0.000,0.000,0.000
1640671379556043008,2021-12-28-06:02:59,10.1.1.3,15,-0.200,-0.200,-0.200,0.000,0.000,0.000
1640671381594258944,2021-12-28-06:03:01,10.1.1.3,16,-0.200,-0.200,-0.200,0.000,0.000,0.000
1640671382433733888,2021-12-28-06:03:02,10.1.1.3,19,-0.200,-0.200,-0.200,0.000,0.000,0.000
1640671383674176000,2021-12-28-06:03:03,10.1.1.3,15,-0.200,-0.200,-0.200,0.000,0.000,0.000
1640671384510699008,2021-12-28-06:03:04,10.1.1.3,4,-0.200,-0.200,-0.200,0.000,0.000,0.000
1640671385789058816,2021-12-28-06:03:05,10.1.1.3,7,-0.200,-0.200,-0.200,0.000,0.000,0.000
1640671386628442880,2021-12-28-06:03:06,10.1.1.3,13,-0.200,-0.200,-0.200,0.000,0.000,0.000
1640671387826662144,2021-12-28-06:03:07,10.1.1.3,7,-0.200,-0.200,-0.200,0.000,0.000,0.000
1640671388665203200,2021-12-28-06:03:08,10.1.1.3,16,-0.200,-0.200,-0.200,0.000,0.000,0.000
1640671389884644096,2021-12-28-06:03:09,10.1.1.3,16,-0.200,-0.200,-0.200,0.000,0.000,0.000
1640671390722664192,2021-12-28-06:03:10,10.1.1.3,16,-0.200,-0.200,-0.200,0.000,0.000,0.000
1640671391960367872,2021-12-28-06:03:11,10.1.1.3,7,-0.200,-0.200,-0.200,0.000,0.000,0.000
1640671392798291968,2021-12-28-06:03:12,10.1.1.3,9,-0.200,-0.200,-0.200,0.000,0.000,0.000
1640671394037996032,2021-12-28-06:03:14,10.1.1.3,2,-0.200,-0.200,-0.200,0.000,0.000,0.000
1640671394876288000,2021-12-28-06:03:14,10.1.1.3,3,-0.200,-0.200,-0.200,0.000,0.000,0.000
1640671396094629888,2021-12-28-06:03:16,10.1.1.3,11,-0.200,-0.200,-0.200,0.000,0.000,0.000
1640671396958889984,2021-12-28-06:03:16,10.1.1.3,13,-0.200,-0.200,-0.200,0.000,0.000,0.000
1640671398164887808,2021-12-28-06:03:18,10.1.1.3,5,-0.200,-0.200,-0.200,0.000,0.000,0.000
1640671398986952960,2021-12-28-06:03:18,10.1.1.3,3,-0.200,-0.200,-0.200,0.000,0.000,0.000
1640671400212270080,2021-12-28-06:03:20,10.1.1.3,12,-0.200,-0.200,-0.200,0.000,0.000,0.000
1640671401053019136,2021-12-28-06:03:21,10.1.1.3,17,-0.200,-0.200,-0.200,0.000,0.000,0.000
1640671402274672896,2021-12-28-06:03:22,10.1.1.3,7,-0.200,-0.200,-0.200,0.000,0.000,0.000
1640671403096720896,2021-12-28-06:03:23,10.1.1.3,1,-0.200,-0.200,-0.200,0.000,0.000,0.000
1640671404297072896,2021-12-28-06:03:24,10.1.1.3,4,-0.200,-0.200,-0.200,0.000,0.000,0.000
1640671405137783040,2021-12-28-06:03:25,10.1.1.3,10,-0.200,-0.200,-0.200,0.000,0.000,0.000
1640671406338619904,2021-12-28-06:03:26,10.1.1.3,9,-0.200,-0.200,-0.200,0.000,0.000,0.000
1640671407198746880,2021-12-28-06:03:27,10.1.1.3,5,-0.200,-0.200,-0.200,0.000,0.000,0.000
1640671408458693120,2021-12-28-06:03:28,10.1.1.3,15,-0.200,-0.200,-0.200,0.000,0.000,0.000
1640671409317961984,2021-12-28-06:03:29,10.1.1.3,15,-0.200,-0.200,-0.200,0.000,0.000,0.000
1640671410537379072,2021-12-28-06:03:30,10.1.1.3,15,-0.200,-0.200,-0.200,0.000,0.000,0.000
1640671411357091840,2021-12-28-06:03:31,10.1.1.3,7,-0.200,-0.200,-0.200,0.000,0.000,0.000
1640671412635384064,2021-12-28-06:03:32,10.1.1.3,12,-0.200,-0.200,-0.200,0.000,0.000,0.000
1640671413455666944,2021-12-28-06:03:33,10.1.1.3,10,-0.200,-0.200,-0.200,0.000,0.000,0.000
1640671414673635840,2021-12-28-06:03:34,10.1.1.3,3,-0.200,-0.200,-0.200,0.000,0.000,0.000
1640671415512423936,2021-12-28-06:03:35,10.1.1.3,10,-0.200,-0.200,-0.200,0.000,0.000,0.000
1640671416767333120,2021-12-28-06:03:36,10.1.1.3,0,-0.200,-0.200,-0.200,0.000,0.000,0.000
1640671417629266944,2021-12-28-06:03:37,10.1.1.3,4,-0.200,-0.200,-0.200,0.000,0.000,0.000
1640671419768054016,2021-12-28-06:03:39,10.1.1.3,4,-0.200,-0.200,-0.200,0.000,0.000,0.000
1640671421005597952,2021-12-28-06:03:41,10.1.1.3,3,-0.200,-0.200,-0.200,0.000,0.000,0.000
1640671421863889920,2021-12-28-06:03:41,10.1.1.3,14,-0.200,-0.200,-0.200,0.000,0.000,0.000
1640671423122703104,2021-12-28-06:03:43,10.1.1.3,6,-0.200,-0.200,-0.200,0.000,0.000,0.000
1640671423960859136,2021-12-28-06:03:43,10.1.1.3,13,-0.200,-0.200,-0.200,0.000,0.000,0.000
1640671426057235968,2021-12-28-06:03:46,10.1.1.3,14,-0.200,-0.200,-0.200,0.000,0.000,0.000
1640671427276243968,2021-12-28-06:03:47,10.1.1.3,4,-0.200,-0.200,-0.200,0.000,0.000,0.000
1640671428135180032,2021-12-28-06:03:48,10.1.1.3,10,-0.200,-0.200,-0.200,0.000,0.000,0.000
1640671429361975808,2021-12-28-06:03:49,10.1.1.3,3,-0.200,-0.200,-0.200,0.000,0.000,0.000
1640671430204516864,2021-12-28-06:03:50,10.1.1.3,4,-0.200,-0.200,-0.200,0.000,0.000,0.000
1640671431408616960,2021-12-28-06:03:51,10.1.1.3,9,-0.200,-0.200,-0.200,0.000,0.000,0.000
1640671432232256000,2021-12-28-06:03:52,10.1.1.3,5,-0.200,-0.200,-0.200,0.000,0.000,0.000
1640671433473530112,2021-12-28-06:03:53,10.1.1.3,14,-0.200,-0.200,-0.200,0.000,0.000,0.000
1640671434314394112,2021-12-28-06:03:54,10.1.1.3,18,-0.200,-0.200,-0.200,0.000,0.000,0.000
1640671435556250112,2021-12-28-06:03:55,10.1.1.3,15,-0.200,-0.200,-0.200,0.000,0.000,0.000
1640671436377733888,2021-12-28-06:03:56,10.1.1.3,0,-0.200,-0.200,-0.200,0.000,0.000,0.000
1640671437598681856,2021-12-28-06:03:57,10.1.1.3,14,-0.200,-0.200,-0.200,0.000,0.000,0.000
1640671438417968896,2021-12-28-06:03:58,10.1.1.3,6,-0.200,-0.200,-0.200,0.000,0.000,0.000
1640671439638284032,2021-12-28-06:03:59,10.1.1.3,16,-0.200,-0.200,-0.200,0.000,0.000,0.000
1640671440458912000,2021-12-28-06:04:00,10.1.1.3,18,-0.200,-0.200,-0.200,0.000,0.000,0.000
1640671441777321216,2021-12-28-06:04:01,10.1.1.3,7,-0.200,-0.200,-0.200,0.000,0.000,0.000
1640671442618285824,2021-12-28-06:04:02,10.1.1.3,6,-0.200,-0.200,-0.200,0.000,0.000,0.000
1640671443835753984,2021-12-28-06:04:03,10.1.1.3,11,-0.200,-0.200,-0.200,0.000,0.000,0.000
1640671444674967040,2021-12-28-06:04:04,10.1.1.3,16,-0.200,-0.200,-0.200,0.000,0.000,0.000
1640671445953502976,2021-12-28-06:04:05,10.1.1.3,19,-0.200,-0.200,-0.200,0.000,0.000,0.000
1640671446792464896,2021-12-28-06:04:06,10.1.1.3,10,-0.200,-0.200,-0.200,0.000,0.000,0.000
1640671447991921920,2021-12-28-06:04:07,10.1.1.3,4,-0.200,-0.200,-0.200,0.000,0.000,0.000
1640671448830475008,2021-12-28-06:04:08,10.1.1.3,16,-0.200,-0.200,-0.200,0.000,0.000,0.000
1640671450029031936,2021-12-28-06:04:10,10.1.1.3,5,-0.200,-0.200,-0.200,0.000,0.000,0.000
1640671450867808000,2021-12-28-06:04:10,10.1.1.3,9,-0.200,-0.200,-0.200,0.000,0.000,0.000
1640671452085453056,2021-12-28-06:04:12,10.1.1.3,16,-0.200,-0.200,-0.200,0.000,0.000,0.000
1640671452924915968,2021-12-28-06:04:12,10.1.1.3,15,-0.200,-0.200,-0.200,0.000,0.000,0.000
1640671454122409984,2021-12-28-06:04:14,10.1.1.3,11,-0.200,-0.200,-0.200,0.000,0.000,0.000
1640671454961370112,2021-12-28-06:04:14,10.1.1.3,18,-0.200,-0.200,-0.200,0.000,0.000,0.000
1640671456160414976,2021-12-28-06:04:16,10.1.1.3,5,-0.200,-0.200,-0.200,0.000,0.000,0.000
1640671457045100800,2021-12-28-06:04:17,10.1.1.3,17,-0.200,-0.200,-0.200,0.000,0.000,0.000
1640671458277416960,2021-12-28-06:04:18,10.1.1.3,12,-0.200,-0.200,-0.200,0.000,0.000,0.000
1640671459135329024,2021-12-28-06:04:19,10.1.1.3,8,-0.200,-0.200,-0.200,0.000,0.000,0.000
1640671460353095168,2021-12-28-06:04:20,10.1.1.3,11,-0.200,-0.200,-0.200,0.000,0.000,0.000
1640671461172535808,2021-12-28-06:04:21,10.1.1.3,5,-0.200,-0.200,-0.200,0.000,0.000,0.000
1640671462379491072,2021-12-28-06:04:22,10.1.1.3,5,-0.200,-0.200,-0.200,0.000,0.000,0.000
1640671463223241984,2021-12-28-06:04:23,10.1.1.3,11,-0.200,-0.200,-0.200,0.000,0.000,0.000
1640671464568157952,2021-12-28-06:04:24,10.1.1.3,6,-0.200,-0.200,-0.200,0.000,0.000,0.000
1640671465409573120,2021-12-28-06:04:25,10.1.1.3,3,-0.200,-0.200,-0.200,0.000,0.000,0.000
1640671466651707904,2021-12-28-06:04:26,10.1.1.3,16,-0.200,-0.200,-0.200,0.000,0.000,0.000
1640671467472960000,2021-12-28-06:04:27,10.1.1.3,3,-0.200,-0.200,-0.200,0.000,0.000,0.000
1640671468674870016,2021-12-28-06:04:28,10.1.1.3,7,-0.200,-0.200,-0.200,0.000,0.000,0.000
1640671469515800832,2021-12-28-06:04:29,10.1.1.3,14,-0.200,-0.200,-0.200,0.000,0.000,0.000
1640671470715430912,2021-12-28-06:04:30,10.1.1.3,14,-0.200,-0.200,-0.200,0.000,0.000,0.000
1640671471536678912,2021-12-28-06:04:31,10.1.1.3,4,-0.200,-0.200,-0.200,0.000,0.000,0.000
1640671472736948992,2021-12-28-06:04:32,10.1.1.3,7,-0.200,-0.200,-0.200,0.000,0.000,0.000
1640671473576893952,2021-12-28-06:04:33,10.1.1.3,17,-0.200,-0.200,-0.200,0.000,0.000,0.000
1640671474836349952,2021-12-28-06:04:34,10.1.1.3,17,-0.200,-0.200,-0.200,0.000,0.000,0.000
1640671475695596032,2021-12-28-06:04:35,10.1.1.3,14,-0.200,-0.200,-0.200,0.000,0.000,0.000
1640671476894326016,2021-12-28-06:04:36,10.1.1.3,4,-0.200,-0.200,-0.200,0.000,0.000,0.000
1640671477754332928,2021-12-28-06:04:37,10.1.1.3,5,-0.200,-0.200,-0.200,0.000,0.000,0.000
1640671478973330944,2021-12-28-06:04:38,10.1.1.3,5,-0.200,-0.200,-0.200,0.000,0.000,0.000
1640671479813136128,2021-12-28-06:04:39,10.1.1.3,19,-0.200,-0.200,-0.200,0.000,0.000,0.000
1640671481049573888,2021-12-28-06:04:41,10.1.1.3,3,-0.200,-0.200,-0.200,0.000,0.000,0.000
1640671481968694016,2021-12-28-06:04:41,10.1.1.3,11,-0.200,-0.200,-0.200,0.000,0.000,0.000
1640671483187622912,2021-12-28-06:04:43,10.1.1.3,2,-0.200,-0.200,-0.200,0.000,0.000,0.000
1640671484045275904,2021-12-28-06:04:44,10.1.1.3,11,-0.200,-0.200,-0.200,0.000,0.000,0.000
1640671485263806208,2021-12-28-06:04:45,10.1.1.3,15,-0.200,-0.200,-0.200,0.000,0.000,0.000
1640671486082902016,2021-12-28-06:04:46,10.1.1.3,4,-0.200,-0.200,-0.200,0.000,0.000,0.000
1640671487321405952,2021-12-28-06:04:47,10.1.1.3,4,-0.200,-0.200,-0.200,0.000,0.000,0.000
1640671488160307968,2021-12-28-06:04:48,10.1.1.3,10,-0.200,-0.200,-0.200,0.000,0.000,0.000
1640671489377603072,2021-12-28-06:04:49,10.1.1.3,12,-0.200,-0.200,-0.200,0.000,0.000,0.000
1640671490216659968,2021-12-28-06:04:50,10.1.1.3,16,-0.200,-0.200,-0.200,0.000,0.000,0.000
1640671491455149824,2021-12-28-06:04:51,10.1.1.3,18,-0.200,-0.200,-0.200,0.000,0.000,0.000
1640671492333101056,2021-12-28-06:04:52,10.1.1.3,2,-0.200,-0.200,-0.200,0.000,0.000,0.000
1640671493555645952,2021-12-28-06:04:53,10.1.1.3,13,-0.200,-0.200,-0.200,0.000,0.000,0.000
1640671494378824960,2021-12-28-06:04:54,10.1.1.3,7,-0.200,-0.200,-0.200,0.000,0.000,0.000
1640671495584476928,2021-12-28-06:04:55,10.1.1.3,18,-0.200,-0.200,-0.200,0.000,0.000,0.000
1640671496426877952,2021-12-28-06:04:56,10.1.1.3,7,-0.200,-0.200,-0.200,0.000,0.000,0.000
1640671497670264064,2021-12-28-06:04:57,10.1.1.3,18,-0.200,-0.200,-0.200,0.000,0.000,0.000
1640671498492047104,2021-12-28-06:04:58,10.1.1.3,5,-0.200,-0.200,-0.200,0.000,0.000,0.000
1640671499714864128,2021-12-28-06:04:59,10.1.1.3,4,-0.200,-0.200,-0.200,0.000,0.000,0.000
1640671500554863104,2021-12-28-06:05:00,10.1.1.3,19,-0.200,-0.200,-0.200,0.000,0.000,0.000
1640671501736666880,2021-12-28-06:05:01,10.1.1.3,1,-0.200,-0.200,-0.200,0.000,0.000,0.000
1640671502595916032,2021-12-28-06:05:02,10.1.1.3,10,-0.200,-0.200,-0.200,0.000,0.000,0.000
1640671503815514112,2021-12-28-06:05:03,10.1.1.3,8,-0.200,-0.200,-0.200,0.000,0.000,0.000
1640671504655517952,2021-12-28-06:05:04,10.1.1.3,18,-0.200,-0.200,-0.200,0.000,0.000,0.000
1640671505856452096,2021-12-28-06:05:05,10.1.1.3,19,-0.200,-0.200,-0.200,0.000,0.000,0.000
1640671506775571968,2021-12-28-06:05:06,10.1.1.3,6,-0.200,-0.200,-0.200,0.000,0.000,0.000
1640671508035057152,2021-12-28-06:05:08,10.1.1.3,15,-0.200,-0.200,-0.200,0.000,0.000,0.000
1640671508894318080,2021-12-28-06:05:08,10.1.1.3,11,-0.200,-0.200,-0.200,0.000,0.000,0.000
1640671510112724992,2021-12-28-06:05:10,10.1.1.3,12,-0.200,-0.200,-0.200,0.000,0.000,0.000
1640671510951945984,2021-12-28-06:05:10,10.1.1.3,17,-0.200,-0.200,-0.200,0.000,0.000,0.000
1640671512192723968,2021-12-28-06:05:12,10.1.1.3,5,-0.200,-0.200,-0.200,0.000,0.000,0.000
1640671513030265088,2021-12-28-06:05:13,10.1.1.3,8,-0.200,-0.200,-0.200,0.000,0.000,0.000
1640671514268737024,2021-12-28-06:05:14,10.1.1.3,2,-0.200,-0.200,-0.200,0.000,0.000,0.000
1640671515106915840,2021-12-28-06:05:15,10.1.1.3,2,-0.200,-0.200,-0.200,0.000,0.000,0.000
1640671516304826880,2021-12-28-06:05:16,10.1.1.3,3,-0.200,-0.200,-0.200,0.000,0.000,0.000
1640671517143856896,2021-12-28-06:05:17,10.1.1.3,19,-0.200,-0.200,-0.200,0.000,0.000,0.000
1640671518381735168,2021-12-28-06:05:18,10.1.1.3,12,-0.200,-0.200,-0.200,0.000,0.000,0.000
1640671519202279168,2021-12-28-06:05:19,10.1.1.3,2,-0.200,-0.200,-0.200,0.000,0.000,0.000
1640671520400366080,2021-12-28-06:05:20,10.1.1.3,0,-0.200,-0.200,-0.200,0.000,0.000,0.000
1640671521238177024,2021-12-28-06:05:21,10.1.1.3,9,-0.200,-0.200,-0.200,0.000,0.000,0.000
1640671522456060928,2021-12-28-06:05:22,10.1.1.3,3,-0.200,-0.200,-0.200,0.000,0.000,0.000
1640671523296376832,2021-12-28-06:05:23,10.1.1.3,11,-0.200,-0.200,-0.200,0.000,0.000,0.000
1640671524492676096,2021-12-28-06:05:24,10.1.1.3,9,-0.200,-0.200,-0.200,0.000,0.000,0.000
1640671525354412032,2021-12-28-06:05:25,10.1.1.3,18,-0.200,-0.200,-0.200,0.000,0.000,0.000
1640671526560683008,2021-12-28-06:05:26,10.1.1.3,11,-0.200,-0.200,-0.200,0.000,0.000,0.000
1640671527385137152,2021-12-28-06:05:27,10.1.1.3,1,-0.200,-0.200,-0.200,0.000,0.000,0.000
1640671528609504000,2021-12-28-06:05:28,10.1.1.3,5,-0.200,-0.200,-0.200,0.000,0.000,0.000
1640671529463429888,2021-12-28-06:05:29,10.1.1.3,13,-0.200,-0.200,-0.200,0.000,0.000,0.000
1640671530755341056,2021-12-28-06:05:30,10.1.1.3,16,-0.200,-0.200,-0.200,0.000,0.000,0.000
1640671531595529984,2021-12-28-06:05:31,10.1.1.3,16,-0.200,-0.200,-0.200,0.000,0.000,0.000
1640671532796637952,2021-12-28-06:05:32,10.1.1.3,6,-0.200,-0.200,-0.200,0.000,0.000,0.000
1640671533637219840,2021-12-28-06:05:33,10.1.1.3,3,-0.200,-0.200,-0.200,0.000,0.000,0.000
1640671534979387904,2021-12-28-06:05:34,10.1.1.3,18,-0.200,-0.200,-0.200,0.000,0.000,0.000
1640671535798723840,2021-12-28-06:05:35,10.1.1.3,4,-0.200,-0.200,-0.200,0.000,0.000,0.000
1640671537060585984,2021-12-28-06:05:37,10.1.1.3,11,-0.200,-0.200,-0.200,0.000,0.000,0.000
1640671537958535936,2021-12-28-06:05:37,10.1.1.3,9,-0.200,-0.200,-0.200,0.000,0.000,0.000
1640671539178082048,2021-12-28-06:05:39,10.1.1.3,16,-0.200,-0.200,-0.200,0.000,0.000,0.000
1640671539999577088,2021-12-28-06:05:39,10.1.1.3,0,-0.200,-0.200,-0.200,0.000,0.000,0.000
1640671541276819968,2021-12-28-06:05:41,10.1.1.3,14,-0.200,-0.200,-0.200,0.000,0.000,0.000
1640671542097150976,2021-12-28-06:05:42,10.1.1.3,9,-0.200,-0.200,-0.200,0.000,0.000,0.000
1640671543314528000,2021-12-28-06:05:43,10.1.1.3,17,-0.200,-0.200,-0.200,0.000,0.000,0.000
1640671544133410816,2021-12-28-06:05:44,10.1.1.3,8,-0.200,-0.200,-0.200,0.000,0.000,0.000
1640671545391835904,2021-12-28-06:05:45,10.1.1.3,2,-0.200,-0.200,-0.200,0.000,0.000,0.000
1640671546271509760,2021-12-28-06:05:46,10.1.1.3,16,-0.200,-0.200,-0.200,0.000,0.000,0.000
1640671547469340928,2021-12-28-06:05:47,10.1.1.3,5,-0.200,-0.200,-0.200,0.000,0.000,0.000
1640671548308722944,2021-12-28-06:05:48,10.1.1.3,16,-0.200,-0.200,-0.200,0.000,0.000,0.000
1640671549506891008,2021-12-28-06:05:49,10.1.1.3,19,-0.200,-0.200,-0.200,0.000,0.000,0.000
1640671550325464064,2021-12-28-06:05:50,10.1.1.3,5,-0.200,-0.200,-0.200,0.000,0.000,0.000
1640671551584294144,2021-12-28-06:05:51,10.1.1.3,1,-0.200,-0.200,-0.200,0.000,0.000,0.000
1640671552422168064,2021-12-28-06:05:52,10.1.1.3,3,-0.200,-0.200,-0.200,0.000,0.000,0.000
1640671553640898048,2021-12-28-06:05:53,10.1.1.3,17,-0.200,-0.200,-0.200,0.000,0.000,0.000
1640671554560908032,2021-12-28-06:05:54,10.1.1.3,4,-0.200,-0.200,-0.200,0.000,0.000,0.000
1640671555817966848,2021-12-28-06:05:55,10.1.1.3,7,-0.200,-0.200,-0.200,0.000,0.000,0.000
1640671556655976960,2021-12-28-06:05:56,10.1.1.3,4,-0.200,-0.200,-0.200,0.000,0.000,0.000
1640671557959203072,2021-12-28-06:05:57,10.1.1.3,12,-0.200,-0.200,-0.200,0.000,0.000,0.000
1640671558803805952,2021-12-28-06:05:58,10.1.1.3,18,-0.200,-0.200,-0.200,0.000,0.000,0.000
1640671560007160064,2021-12-28-06:06:00,10.1.1.3,9,-0.200,-0.200,-0.200,0.000,0.000,0.000
1640671560829690880,2021-12-28-06:06:00,10.1.1.3,12,-0.200,-0.200,-0.200,0.000,0.000,0.000
1640671562093112064,2021-12-28-06:06:02,10.1.1.3,9,-0.200,-0.200,-0.200,0.000,0.000,0.000
1640671562913662976,2021-12-28-06:06:02,10.1.1.3,6,-0.200,-0.200,-0.200,0.000,0.000,0.000
1640671564115734016,2021-12-28-06:06:04,10.1.1.3,15,-0.200,-0.200,-0.200,0.000,0.000,0.000
1640671564956274944,2021-12-28-06:06:04,10.1.1.3,18,-0.200,-0.200,-0.200,0.000,0.000,0.000
1640671566157733888,2021-12-28-06:06:06,10.1.1.3,17,-0.200,-0.200,-0.200,0.000,0.000,0.000
1640671566976776960,2021-12-28-06:06:06,10.1.1.3,11,-0.200,-0.200,-0.200,0.000,0.000,0.000
1640671568218339072,2021-12-28-06:06:08,10.1.1.3,1,-0.200,-0.200,-0.200,0.000,0.000,0.000
1640671569097138944,2021-12-28-06:06:09,10.1.1.3,17,-0.200,-0.200,-0.200,0.000,0.000,0.000
1640671570416680192,2021-12-28-06:06:10,10.1.1.3,16,-0.200,-0.200,-0.200,0.000,0.000,0.000
1640671571275488000,2021-12-28-06:06:11,10.1.1.3,14,-0.200,-0.200,-0.200,0.000,0.000,0.000
1640671572474590976,2021-12-28-06:06:12,10.1.1.3,12,-0.200,-0.200,-0.200,0.000,0.000,0.000
1640671574532822016,2021-12-28-06:06:14,10.1.1.3,7,-0.200,-0.200,-0.200,0.000,0.000,0.000
1640671575413605888,2021-12-28-06:06:15,10.1.1.3,4,-0.200,-0.200,-0.200,0.000,0.000,0.000
1640671576690576128,2021-12-28-06:06:16,10.1.1.3,13,-0.200,-0.200,-0.200,0.000,0.000,0.000
1640671577529521920,2021-12-28-06:06:17,10.1.1.3,13,-0.200,-0.200,-0.200,0.000,0.000,0.000
1640671578748395008,2021-12-28-06:06:18,10.1.1.3,16,-0.200,-0.200,-0.200,0.000,0.000,0.000
1640671579567439104,2021-12-28-06:06:19,10.1.1.3,3,-0.200,-0.200,-0.200,0.000,0.000,0.000
1640671580785581056,2021-12-28-06:06:20,10.1.1.3,7,-0.200,-0.200,-0.200,0.000,0.000,0.000
1640671581623724032,2021-12-28-06:06:21,10.1.1.3,0,-0.200,-0.200,-0.200,0.000,0.000,0.000
1640671582884963072,2021-12-28-06:06:22,10.1.1.3,0,-0.200,-0.200,-0.200,0.000,0.000,0.000
1640671583720699904,2021-12-28-06:06:23,10.1.1.3,7,-0.200,-0.200,-0.200,0.000,0.000,0.000
1640671584939497984,2021-12-28-06:06:24,10.1.1.3,10,-0.200,-0.200,-0.200,0.000,0.000,0.000
1640671585777972992,2021-12-28-06:06:25,10.1.1.3,16,-0.200,-0.200,-0.200,0.000,0.000,0.000
1640671586995971840,2021-12-28-06:06:26,10.1.1.3,11,-0.200,-0.200,-0.200,0.000,0.000,0.000
1640671587834522880,2021-12-28-06:06:27,10.1.1.3,17,-0.200,-0.200,-0.200,0.000,0.000,0.000
1640671589032040960,2021-12-28-06:06:29,10.1.1.3,11,-0.200,-0.200,-0.200,0.000,0.000,0.000
1640671589851481088,2021-12-28-06:06:29,10.1.1.3,6,-0.200,-0.200,-0.200,0.000,0.000,0.000
1640671591136302080,2021-12-28-06:06:31,10.1.1.3,13,-0.200,-0.200,-0.200,0.000,0.000,0.000
1640671591979998208,2021-12-28-06:06:31,10.1.1.3,19,-0.200,-0.200,-0.200,0.000,0.000,0.000
1640671593224302080,2021-12-28-06:06:33,10.1.1.3,13,-0.200,-0.200,-0.200,0.000,0.000,0.000
1640671594067398912,2021-12-28-06:06:34,10.1.1.3,4,-0.200,-0.200,-0.200,0.000,0.000,0.000
1640671595270148096,2021-12-28-06:06:35,10.1.1.3,2,-0.200,-0.200,-0.200,0.000,0.000,0.000
1640671596112590080,2021-12-28-06:06:36,10.1.1.3,13,-0.200,-0.200,-0.200,0.000,0.000,0.000
1640671597315995904,2021-12-28-06:06:37,10.1.1.3,5,-0.200,-0.200,-0.200,0.000,0.000,0.000
1640671598213844992,2021-12-28-06:06:38,10.1.1.3,16,-0.200,-0.200,-0.200,0.000,0.000,0.000
1640671599414358016,2021-12-28-06:06:39,10.1.1.3,14,-0.200,-0.200,-0.200,0.000,0.000,0.000
1640671600234627072,2021-12-28-06:06:40,10.1.1.3,13,-0.200,-0.200,-0.200,0.000,0.000,0.000
1640671601416163072,2021-12-28-06:06:41,10.1.1.3,7,-0.200,-0.200,-0.200,0.000,0.000,0.000
1640671602255166976,2021-12-28-06:06:42,10.1.1.3,15,-0.200,-0.200,-0.200,0.000,0.000,0.000
1640671603475313920,2021-12-28-06:06:43,10.1.1.3,17,-0.200,-0.200,-0.200,0.000,0.000,0.000
1640671604313536000,2021-12-28-06:06:44,10.1.1.3,17,-0.200,-0.200,-0.200,0.000,0.000,0.000
1640671605573160960,2021-12-28-06:06:45,10.1.1.3,16,-0.200,-0.200,-0.200,0.000,0.000,0.000
1640671606391733760,2021-12-28-06:06:46,10.1.1.3,8,-0.200,-0.200,-0.200,0.000,0.000,0.000
1640671607610654976,2021-12-28-06:06:47,10.1.1.3,15,-0.200,-0.200,-0.200,0.000,0.000,0.000
1640671608450584832,2021-12-28-06:06:48,10.1.1.3,17,-0.200,-0.200,-0.200,0.000,0.000,0.000
1640671609668715008,2021-12-28-06:06:49,10.1.1.3,19,-0.200,-0.200,-0.200,0.000,0.000,0.000
1640671610488039936,2021-12-28-06:06:50,10.1.1.3,5,-0.200,-0.200,-0.200,0.000,0.000,0.000
1640671611726247168,2021-12-28-06:06:51,10.1.1.3,12,-0.200,-0.200,-0.200,0.000,0.000,0.000
1640671612568676096,2021-12-28-06:06:52,10.1.1.3,11,-0.200,-0.200,-0.200,0.000,0.000,0.000
1640671613764608000,2021-12-28-06:06:53,10.1.1.3,12,-0.200,-0.200,-0.200,0.000,0.000,0.000
1640671614582952960,2021-12-28-06:06:54,10.1.1.3,4,-0.200,-0.200,-0.200,0.000,0.000,0.000
1640671615782362880,2021-12-28-06:06:55,10.1.1.3,3,-0.200,-0.200,-0.200,0.000,0.000,0.000
1640671616619904000,2021-12-28-06:06:56,10.1.1.3,13,-0.200,-0.200,-0.200,0.000,0.000,0.000
1640671617817820160,2021-12-28-06:06:57,10.1.1.3,9,-0.200,-0.200,-0.200,0.000,0.000,0.000
1640671618676897024,2021-12-28-06:06:58,10.1.1.3,17,-0.200,-0.200,-0.200,0.000,0.000,0.000
1640671619913997824,2021-12-28-06:06:59,10.1.1.3,18,-0.200,-0.200,-0.200,0.000,0.000,0.000
1640671620772877056,2021-12-28-06:07:00,10.1.1.3,14,-0.200,-0.200,-0.200,0.000,0.000,0.000
1640671622010216960,2021-12-28-06:07:02,10.1.1.3,18,-0.200,-0.200,-0.200,0.000,0.000,0.000
1640671622835456000,2021-12-28-06:07:02,10.1.1.3,12,-0.200,-0.200,-0.200,0.000,0.000,0.000
1640671624040216832,2021-12-28-06:07:04,10.1.1.3,15,-0.200,-0.200,-0.200,0.000,0.000,0.000
1640671624884372992,2021-12-28-06:07:04,10.1.1.3,19,-0.200,-0.200,-0.200,0.000,0.000,0.000
1640671626108275968,2021-12-28-06:07:06,10.1.1.3,14,-0.200,-0.200,-0.200,0.000,0.000,0.000
1640671626929558016,2021-12-28-06:07:06,10.1.1.3,3,-0.200,-0.200,-0.200,0.000,0.000,0.000
1640671628132317952,2021-12-28-06:07:08,10.1.1.3,13,-0.200,-0.200,-0.200,0.000,0.000,0.000
1640671628953059840,2021-12-28-06:07:08,10.1.1.3,16,-0.200,-0.200,-0.200,0.000,0.000,0.000
1640671630134737920,2021-12-28-06:07:10,10.1.1.3,4,-0.200,-0.200,-0.200,0.000,0.000,0.000
1640671630975131136,2021-12-28-06:07:10,10.1.1.3,9,-0.200,-0.200,-0.200,0.000,0.000,0.000
1640671632198136064,2021-12-28-06:07:12,10.1.1.3,5,-0.200,-0.200,-0.200,0.000,0.000,0.000
1640671633055207936,2021-12-28-06:07:13,10.1.1.3,12,-0.200,-0.200,-0.200,0.000,0.000,0.000
1640671634297044992,2021-12-28-06:07:14,10.1.1.3,14,-0.200,-0.200,-0.200,0.000,0.000,0.000
1640671635135045120,2021-12-28-06:07:15,10.1.1.3,14,-0.200,-0.200,-0.200,0.000,0.000,0.000
1640671636354432000,2021-12-28-06:07:16,10.1.1.3,14,-0.200,-0.200,-0.200,0.000,0.000,0.000
1640671637194233856,2021-12-28-06:07:17,10.1.1.3,14,-0.200,-0.200,-0.200,0.000,0.000,0.000
1640671638412844800,2021-12-28-06:07:18,10.1.1.3,17,-0.200,-0.200,-0.200,0.000,0.000,0.000
1640671639232322048,2021-12-28-06:07:19,10.1.1.3,3,-0.200,-0.200,-0.200,0.000,0.000,0.000
1640671640451908096,2021-12-28-06:07:20,10.1.1.3,18,-0.200,-0.200,-0.200,0.000,0.000,0.000
1640671641290106112,2021-12-28-06:07:21,10.1.1.3,14,-0.200,-0.200,-0.200,0.000,0.000,0.000
1640671642568832000,2021-12-28-06:07:22,10.1.1.3,16,-0.200,-0.200,-0.200,0.000,0.000,0.000
1640671643387876096,2021-12-28-06:07:23,10.1.1.3,6,-0.200,-0.200,-0.200,0.000,0.000,0.000
1640671644586827008,2021-12-28-06:07:24,10.1.1.3,5,-0.200,-0.200,-0.200,0.000,0.000,0.000
1640671645424140032,2021-12-28-06:07:25,10.1.1.3,14,-0.200,-0.200,-0.200,0.000,0.000,0.000
1640671646643991040,2021-12-28-06:07:26,10.1.1.3,2,-0.200,-0.200,-0.200,0.000,0.000,0.000
1640671647501534976,2021-12-28-06:07:27,10.1.1.3,7,-0.200,-0.200,-0.200,0.000,0.000,0.000
1640671648803500800,2021-12-28-06:07:28,10.1.1.3,4,-0.200,-0.200,-0.200,0.000,0.000,0.000
1640671649658256896,2021-12-28-06:07:29,10.1.1.3,10,-0.200,-0.200,-0.200,0.000,0.000,0.000
1640671650877056000,2021-12-28-06:07:30,10.1.1.3,20,-0.200,-0.200,-0.200,0.000,0.000,0.000
1640671651755426816,2021-12-28-06:07:31,10.1.1.3,8,-0.200,-0.200,-0.200,0.000,0.000,0.000
1640671653012598016,2021-12-28-06:07:33,10.1.1.3,11,-0.200,-0.200,-0.200,0.000,0.000,0.000
1640671653831145984,2021-12-28-06:07:33,10.1.1.3,3,-0.200,-0.200,-0.200,0.000,0.000,0.000
1640671655057200896,2021-12-28-06:07:35,10.1.1.3,18,-0.200,-0.200,-0.200,0.000,0.000,0.000
1640671655862051072,2021-12-28-06:07:35,10.1.1.3,3,-0.200,-0.200,-0.200,0.000,0.000,0.000
1640671657165504000,2021-12-28-06:07:37,10.1.1.3,9,-0.200,-0.200,-0.200,0.000,0.000,0.000
1640671658007602944,2021-12-28-06:07:38,10.1.1.3,16,-0.200,-0.200,-0.200,0.000,0.000,0.000
1640671659230189056,2021-12-28-06:07:39,10.1.1.3,14,-0.200,-0.200,-0.200,0.000,0.000,0.000
1640671660052137984,2021-12-28-06:07:40,10.1.1.3,7,-0.200,-0.200,-0.200,0.000,0.000,0.000
1640671661376205056,2021-12-28-06:07:41,10.1.1.3,8,-0.200,-0.200,-0.200,0.000,0.000,0.000
1640671662196379904,2021-12-28-06:07:42,10.1.1.3,1,-0.200,-0.200,-0.200,0.000,0.000,0.000
1640671663456312832,2021-12-28-06:07:43,10.1.1.3,17,-0.200,-0.200,-0.200,0.000,0.000,0.000
1640671664356916992,2021-12-28-06:07:44,10.1.1.3,11,-0.200,-0.200,-0.200,0.000,0.000,0.000
1640671665556180992,2021-12-28-06:07:45,10.1.1.3,5,-0.200,-0.200,-0.200,0.000,0.000,0.000
1640671666415927040,2021-12-28-06:07:46,10.1.1.3,2,-0.200,-0.200,-0.200,0.000,0.000,0.000
1640671667634562048,2021-12-28-06:07:47,10.1.1.3,8,-0.200,-0.200,-0.200,0.000,0.000,0.000
1640671668494663936,2021-12-28-06:07:48,10.1.1.3,5,-0.200,-0.200,-0.200,0.000,0.000,0.000
1640671669734107904,2021-12-28-06:07:49,10.1.1.3,3,-0.200,-0.200,-0.200,0.000,0.000,0.000
1640671670572154112,2021-12-28-06:07:50,10.1.1.3,4,-0.200,-0.200,-0.200,0.000,0.000,0.000
1640671671792134912,2021-12-28-06:07:51,10.1.1.3,10,-0.200,-0.200,-0.200,0.000,0.000,0.000
1640671672630619136,2021-12-28-06:07:52,10.1.1.3,6,-0.200,-0.200,-0.200,0.000,0.000,0.000
1640671673849127168,2021-12-28-06:07:53,10.1.1.3,8,-0.200,-0.200,-0.200,0.000,0.000,0.000
1640671674689541120,2021-12-28-06:07:54,10.1.1.3,11,-0.200,-0.200,-0.200,0.000,0.000,0.000
1640671675887361024,2021-12-28-06:07:55,10.1.1.3,7,-0.200,-0.200,-0.200,0.000,0.000,0.000
1640671676726332928,2021-12-28-06:07:56,10.1.1.3,17,-0.200,-0.200,-0.200,0.000,0.000,0.000
1640671677943772160,2021-12-28-06:07:57,10.1.1.3,4,-0.200,-0.200,-0.200,0.000,0.000,0.000
1640671678804881152,2021-12-28-06:07:58,10.1.1.3,7,-0.200,-0.200,-0.200,0.000,0.000,0.000
1640671680040681984,2021-12-28-06:08:00,10.1.1.3,5,-0.200,-0.200,-0.200,0.000,0.000,0.000
1640671680879627008,2021-12-28-06:08:00,10.1.1.3,4,-0.200,-0.200,-0.200,0.000,0.000,0.000
1640671682097453056,2021-12-28-06:08:02,10.1.1.3,4,-0.200,-0.200,-0.200,0.000,0.000,0.000
1640671682976072192,2021-12-28-06:08:02,10.1.1.3,7,-0.200,-0.200,-0.200,0.000,0.000,0.000
1640671684214276096,2021-12-28-06:08:04,10.1.1.3,12,-0.200,-0.200,-0.200,0.000,0.000,0.000
1640671685052336896,2021-12-28-06:08:05,10.1.1.3,19,-0.200,-0.200,-0.200,0.000,0.000,0.000
1640671686234024960,2021-12-28-06:08:06,10.1.1.3,2,-0.200,-0.200,-0.200,0.000,0.000,0.000
1640671687077801984,2021-12-28-06:08:07,10.1.1.3,19,-0.200,-0.200,-0.200,0.000,0.000,0.000
1640671688323143936,2021-12-28-06:08:08,10.1.1.3,7,-0.200,-0.200,-0.200,0.000,0.000,0.000
1640671689185668096,2021-12-28-06:08:09,10.1.1.3,8,-0.200,-0.200,-0.200,0.000,0.000,0.000
1640671690449352960,2021-12-28-06:08:10,10.1.1.3,15,-0.200,-0.200,-0.200,0.000,0.000,0.000
1640671691311224832,2021-12-28-06:08:11,10.1.1.3,9,-0.200,-0.200,-0.200,0.000,0.000,0.000
1640671692514036992,2021-12-28-06:08:12,10.1.1.3,3,-0.200,-0.200,-0.200,0.000,0.000,0.000
1640671693355079936,2021-12-28-06:08:13,10.1.1.3,19,-0.200,-0.200,-0.200,0.000,0.000,0.000
1640671694535953152,2021-12-28-06:08:14,10.1.1.3,7,-0.200,-0.200,-0.200,0.000,0.000,0.000
1640671695375896832,2021-12-28-06:08:15,10.1.1.3,12,-0.200,-0.200,-0.200,0.000,0.000,0.000
1640671696656089088,2021-12-28-06:08:16,10.1.1.3,18,-0.200,-0.200,-0.200,0.000,0.000,0.000
1640671697476205056,2021-12-28-06:08:17,10.1.1.3,12,-0.200,-0.200,-0.200,0.000,0.000,0.000
1640671698675643904,2021-12-28-06:08:18,10.1.1.3,14,-0.200,-0.200,-0.200,0.000,0.000,0.000
1640671699494522112,2021-12-28-06:08:19,10.1.1.3,3,-0.200,-0.200,-0.200,0.000,0.000,0.000
1640671700713848064,2021-12-28-06:08:20,10.1.1.3,1,-0.200,-0.200,-0.200,0.000,0.000,0.000
1640671701613463040,2021-12-28-06:08:21,10.1.1.3,4,-0.200,-0.200,-0.200,0.000,0.000,0.000
1640671702832882944,2021-12-28-06:08:22,10.1.1.3,14,-0.200,-0.200,-0.200,0.000,0.000,0.000
1640671703672028160,2021-12-28-06:08:23,10.1.1.3,5,-0.200,-0.200,-0.200,0.000,0.000,0.000
1640671704892529920,2021-12-28-06:08:24,10.1.1.3,4,-0.200,-0.200,-0.200,0.000,0.000,0.000
1640671705771148032,2021-12-28-06:08:25,10.1.1.3,3,-0.200,-0.200,-0.200,0.000,0.000,0.000
1640671706971003904,2021-12-28-06:08:26,10.1.1.3,0,-0.200,-0.200,-0.200,0.000,0.000,0.000
1640671707807225088,2021-12-28-06:08:27,10.1.1.3,2,-0.200,-0.200,-0.200,0.000,0.000,0.000
1640671709185835008,2021-12-28-06:08:29,10.1.1.3,5,-0.200,-0.200,-0.200,0.000,0.000,0.000
1640671710024788992,2021-12-28-06:08:30,10.1.1.3,19,-0.200,-0.200,-0.200,0.000,0.000,0.000
1640671711224046848,2021-12-28-06:08:31,10.1.1.3,16,-0.200,-0.200,-0.200,0.000,0.000,0.000
1640671712082256128,2021-12-28-06:08:32,10.1.1.3,14,-0.200,-0.200,-0.200,0.000,0.000,0.000
1640671713302018048,2021-12-28-06:08:33,10.1.1.3,20,-0.200,-0.200,-0.200,0.000,0.000,0.000
1640671714119527936,2021-12-28-06:08:34,10.1.1.3,8,-0.200,-0.200,-0.200,0.000,0.000,0.000
1640671715316570112,2021-12-28-06:08:35,10.1.1.3,6,-0.200,-0.200,-0.200,0.000,0.000,0.000
1640671716156876032,2021-12-28-06:08:36,10.1.1.3,17,-0.200,-0.200,-0.200,0.000,0.000,0.000
1640671717372631040,2021-12-28-06:08:37,10.1.1.3,13,-0.200,-0.200,-0.200,0.000,0.000,0.000
1640671718191482112,2021-12-28-06:08:38,10.1.1.3,6,-0.200,-0.200,-0.200,0.000,0.000,0.000
1640671719515256832,2021-12-28-06:08:39,10.1.1.3,14,-0.200,-0.200,-0.200,0.000,0.000,0.000
1640671720337000960,2021-12-28-06:08:40,10.1.1.3,7,-0.200,-0.200,-0.200,0.000,0.000,0.000
1640671721562150912,2021-12-28-06:08:41,10.1.1.3,18,-0.200,-0.200,-0.200,0.000,0.000,0.000
1640671722405996032,2021-12-28-06:08:42,10.1.1.3,10,-0.200,-0.200,-0.200,0.000,0.000,0.000
1640671723689882880,2021-12-28-06:08:43,10.1.1.3,1,-0.200,-0.200,-0.200,0.000,0.000,0.000
1640671724591522048,2021-12-28-06:08:44,10.1.1.3,13,-0.200,-0.200,-0.200,0.000,0.000,0.000
1640671725832338944,2021-12-28-06:08:45,10.1.1.3,3,-0.200,-0.200,-0.200,0.000,0.000,0.000
1640671726673960960,2021-12-28-06:08:46,10.1.1.3,16,-0.200,-0.200,-0.200,0.000,0.000,0.000
1640671727917239808,2021-12-28-06:08:47,10.1.1.3,7,-0.200,-0.200,-0.200,0.000,0.000,0.000
1640671728755872000,2021-12-28-06:08:48,10.1.1.3,15,-0.200,-0.200,-0.200,0.000,0.000,0.000
1640671729976993024,2021-12-28-06:08:49,10.1.1.3,12,-0.200,-0.200,-0.200,0.000,0.000,0.000
1640671730795908864,2021-12-28-06:08:50,10.1.1.3,1,-0.200,-0.200,-0.200,0.000,0.000,0.000
1640671732015757056,2021-12-28-06:08:52,10.1.1.3,9,-0.200,-0.200,-0.200,0.000,0.000,0.000
1640671732855828992,2021-12-28-06:08:52,10.1.1.3,18,-0.200,-0.200,-0.200,0.000,0.000,0.000
1640671734053865984,2021-12-28-06:08:54,10.1.1.3,4,-0.200,-0.200,-0.200,0.000,0.000,0.000
1640671734936097024,2021-12-28-06:08:54,10.1.1.3,4,-0.200,-0.200,-0.200,0.000,0.000,0.000
1640671736171976192,2021-12-28-06:08:56,10.1.1.3,19,-0.200,-0.200,-0.200,0.000,0.000,0.000
1640671737011346176,2021-12-28-06:08:57,10.1.1.3,17,-0.200,-0.200,-0.200,0.000,0.000,0.000
1640671738230344960,2021-12-28-06:08:58,10.1.1.3,18,-0.200,-0.200,-0.200,0.000,0.000,0.000
1640671739049885952,2021-12-28-06:08:59,10.1.1.3,10,-0.200,-0.200,-0.200,0.000,0.000,0.000
1640671740248850944,2021-12-28-06:09:00,10.1.1.3,10,-0.200,-0.200,-0.200,0.000,0.000,0.000
1640671741088368896,2021-12-28-06:09:01,10.1.1.3,11,-0.200,-0.200,-0.200,0.000,0.000,0.000
1640671742305042944,2021-12-28-06:09:02,10.1.1.3,13,-0.200,-0.200,-0.200,0.000,0.000,0.000
1640671743124488960,2021-12-28-06:09:03,10.1.1.3,2,-0.200,-0.200,-0.200,0.000,0.000,0.000
1640671744362365952,2021-12-28-06:09:04,10.1.1.3,13,-0.200,-0.200,-0.200,0.000,0.000,0.000
1640671745221099008,2021-12-28-06:09:05,10.1.1.3,18,-0.200,-0.200,-0.200,0.000,0.000,0.000
1640671746479106048,2021-12-28-06:09:06,10.1.1.3,17,-0.200,-0.200,-0.200,0.000,0.000,0.000
1640671747298021120,2021-12-28-06:09:07,10.1.1.3,3,-0.200,-0.200,-0.200,0.000,0.000,0.000
1640671748516241152,2021-12-28-06:09:08,10.1.1.3,15,-0.200,-0.200,-0.200,0.000,0.000,0.000
1640671749381760000,2021-12-28-06:09:09,10.1.1.3,13,-0.200,-0.200,-0.200,0.000,0.000,0.000
1640671750631820800,2021-12-28-06:09:10,10.1.1.3,16,-0.200,-0.200,-0.200,0.000,0.000,0.000
1640671751453763840,2021-12-28-06:09:11,10.1.1.3,8,-0.200,-0.200,-0.200,0.000,0.000,0.000
1640671752659796992,2021-12-28-06:09:12,10.1.1.3,16,-0.200,-0.200,-0.200,0.000,0.000,0.000
1640671753522584064,2021-12-28-06:09:13,10.1.1.3,17,-0.200,-0.200,-0.200,0.000,0.000,0.000
1640671754807591936,2021-12-28-06:09:14,10.1.1.3,11,-0.200,-0.200,-0.200,0.000,0.000,0.000
1640671755649230080,2021-12-28-06:09:15,10.1.1.3,17,-0.200,-0.200,-0.200,0.000,0.000,0.000
1640671756850740992,2021-12-28-06:09:16,10.1.1.3,16,-0.200,-0.200,-0.200,0.000,0.000,0.000
1640671757673039872,2021-12-28-06:09:17,10.1.1.3,16,-0.200,-0.200,-0.200,0.000,0.000,0.000
1640671758873294080,2021-12-28-06:09:18,10.1.1.3,16,-0.200,-0.200,-0.200,0.000,0.000,0.000
1640671759717773056,2021-12-28-06:09:19,10.1.1.3,16,-0.200,-0.200,-0.200,0.000,0.000,0.000
1640671760934198016,2021-12-28-06:09:20,10.1.1.3,4,-0.200,-0.200,-0.200,0.000,0.000,0.000
1640671761755287040,2021-12-28-06:09:21,10.1.1.3,3,-0.200,-0.200,-0.200,0.000,0.000,0.000
1640671762998660096,2021-12-28-06:09:22,10.1.1.3,4,-0.200,-0.200,-0.200,0.000,0.000,0.000
1640671763834112000,2021-12-28-06:09:23,10.1.1.3,19,-0.200,-0.200,-0.200,0.000,0.000,0.000
1640671765013945088,2021-12-28-06:09:25,10.1.1.3,6,-0.200,-0.200,-0.200,0.000,0.000,0.000
1640671765853765888,2021-12-28-06:09:25,10.1.1.3,18,-0.200,-0.200,-0.200,0.000,0.000,0.000
1640671767052795904,2021-12-28-06:09:27,10.1.1.3,3,-0.200,-0.200,-0.200,0.000,0.000,0.000
1640671767892328960,2021-12-28-06:09:27,10.1.1.3,12,-0.200,-0.200,-0.200,0.000,0.000,0.000
1640671769110193920,2021-12-28-06:09:29,10.1.1.3,16,-0.200,-0.200,-0.200,0.000,0.000,0.000
1640671769929426944,2021-12-28-06:09:29,10.1.1.3,3,-0.200,-0.200,-0.200,0.000,0.000,0.000
1640671771167459840,2021-12-28-06:09:31,10.1.1.3,9,-0.200,-0.200,-0.200,0.000,0.000,0.000
