FedericoMungari/DigitalTwin_service/02_LTEScenario/Output/Output_script/script_ROSAPI_output_robots4_freq0_4.txt
timestamp,date,node,latency,joint_1,joint_2,joint_3,joint_4,joint_5,joint_6
1640658880317369088,2021-12-28-02:34:40,10.1.1.5,1640658880317.058,0.000,0.000,0.000,-0.000,0.000,0.000
1640658884351799040,2021-12-28-02:34:44,10.1.1.5,1,0.000,0.000,0.000,-0.000,0.000,0.000
1640658886468150016,2021-12-28-02:34:46,10.1.1.5,3,0.000,0.000,0.000,-0.000,0.000,0.000
1640658888548171008,2021-12-28-02:34:48,10.1.1.5,2,0.000,0.000,0.000,-0.000,0.000,0.000
1640658890636937984,2021-12-28-02:34:50,10.1.1.5,6,0.000,0.000,0.000,-0.000,0.000,0.000
1640658892719629056,2021-12-28-02:34:52,10.1.1.5,20,0.000,0.000,0.000,-0.000,0.000,0.000
1640658894848745216,2021-12-28-02:34:54,10.1.1.5,20,0.000,0.000,0.000,-0.000,0.000,0.000
1640658896909357056,2021-12-28-02:34:56,10.1.1.5,11,0.000,0.000,0.000,-0.000,0.000,0.000
1640658898990003968,2021-12-28-02:34:58,10.1.1.5,5,0.000,0.000,0.000,-0.000,0.000,0.000
1640658901089063936,2021-12-28-02:35:01,10.1.1.5,15,0.000,0.000,0.000,-0.000,0.000,0.000
1640658903147842048,2021-12-28-02:35:03,10.1.1.5,17,0.000,0.000,0.000,-0.000,0.000,0.000
1640658905206035968,2021-12-28-02:35:05,10.1.1.5,10,0.000,0.000,0.000,-0.000,0.000,0.000
1640658907303702016,2021-12-28-02:35:07,10.1.1.5,10,0.000,0.000,0.000,-0.000,0.000,0.000
1640658909400950784,2021-12-28-02:35:09,10.1.1.5,5,0.000,0.000,0.000,-0.000,0.000,0.000
1640658911478594048,2021-12-28-02:35:11,10.1.1.5,16,0.000,0.000,0.000,-0.000,0.000,0.000
1640658913537012224,2021-12-28-02:35:13,10.1.1.5,8,0.000,0.000,0.000,-0.000,0.000,0.000
1640658915654012928,2021-12-28-02:35:15,10.1.1.5,12,0.000,0.000,0.000,-0.000,0.000,0.000
1640658917749275904,2021-12-28-02:35:17,10.1.1.5,8,0.000,0.000,0.000,-0.000,0.000,0.000
1640658919805697792,2021-12-28-02:35:19,10.1.1.5,15,0.000,0.000,0.000,-0.000,0.000,0.000
1640658921914743040,2021-12-28-02:35:21,10.1.1.5,8,0.000,0.000,0.000,-0.000,0.000,0.000
1640658924002569984,2021-12-28-02:35:24,10.1.1.5,10,0.000,0.000,0.000,-0.000,0.000,0.000
1640658926107922944,2021-12-28-02:35:26,10.1.1.5,7,0.000,0.000,0.000,-0.000,0.000,0.000
1640658928191063040,2021-12-28-02:35:28,10.1.1.5,2,0.000,0.000,0.000,-0.000,0.000,0.000
1640658930311201024,2021-12-28-02:35:30,10.1.1.5,11,0.000,0.000,0.000,-0.000,0.000,0.000
1640658932409946880,2021-12-28-02:35:32,10.1.1.5,11,0.000,0.000,0.000,-0.000,0.000,0.000
1640658934469868800,2021-12-28-02:35:34,10.1.1.5,5,0.000,0.000,0.000,-0.000,0.000,0.000
1640658936547225088,2021-12-28-02:35:36,10.1.1.5,4,0.000,0.000,0.000,-0.000,0.000,0.000
1640658938665313024,2021-12-28-02:35:38,10.1.1.5,11,0.000,0.000,0.000,-0.000,0.000,0.000
1640658940804093952,2021-12-28-02:35:40,10.1.1.5,19,0.000,0.000,0.000,-0.000,0.000,0.000
1640658942921366016,2021-12-28-02:35:42,10.1.1.5,6,0.000,0.000,0.000,-0.000,0.000,0.000
1640658945017869824,2021-12-28-02:35:45,10.1.1.5,2,0.000,0.000,0.000,-0.000,0.000,0.000
1640658947154491904,2021-12-28-02:35:47,10.1.1.5,7,0.000,0.000,0.000,-0.000,0.000,0.000
1640658949250782976,2021-12-28-02:35:49,10.1.1.5,16,0.000,0.000,0.000,-0.000,0.000,0.000
1640658951367367936,2021-12-28-02:35:51,10.1.1.5,5,0.000,0.000,0.000,-0.000,0.000,0.000
1640658953487272960,2021-12-28-02:35:53,10.1.1.5,6,0.000,0.000,0.000,-0.000,0.000,0.000
1640658955618267904,2021-12-28-02:35:55,10.1.1.5,18,0.000,0.000,0.000,-0.000,0.000,0.000
1640658957703515136,2021-12-28-02:35:57,10.1.1.5,3,0.000,0.000,0.000,-0.000,0.000,0.000
1640658959806246144,2021-12-28-02:35:59,10.1.1.5,9,0.000,0.000,0.000,-0.000,0.000,0.000
1640658961888636160,2021-12-28-02:36:01,10.1.1.5,15,0.000,0.000,0.000,-0.000,0.000,0.000
1640658963988956928,2021-12-28-02:36:03,10.1.1.5,6,0.000,0.000,0.000,-0.000,0.000,0.000
1640658966088747008,2021-12-28-02:36:06,10.1.1.5,5,0.000,0.000,0.000,-0.000,0.000,0.000
1640658968210750208,2021-12-28-02:36:08,10.1.1.5,14,0.000,0.000,0.000,-0.000,0.000,0.000
1640658970326555904,2021-12-28-02:36:10,10.1.1.5,1,0.000,0.000,0.000,-0.000,0.000,0.000
1640658972443490048,2021-12-28-02:36:12,10.1.1.5,16,0.000,0.000,0.000,-0.000,0.000,0.000
1640658974521265152,2021-12-28-02:36:14,10.1.1.5,19,0.000,0.000,0.000,-0.000,0.000,0.000
1640658976617667840,2021-12-28-02:36:16,10.1.1.5,18,0.000,0.000,0.000,-0.000,0.000,0.000
1640658978677231104,2021-12-28-02:36:18,10.1.1.5,1,0.000,0.000,0.000,-0.000,0.000,0.000
1640658980751450112,2021-12-28-02:36:20,10.1.1.5,1,0.000,0.000,0.000,-0.000,0.000,0.000
1640658982808633088,2021-12-28-02:36:22,10.1.1.5,5,0.000,0.000,0.000,-0.000,0.000,0.000
1640658984885032960,2021-12-28-02:36:24,10.1.1.5,12,0.000,0.000,0.000,-0.000,0.000,0.000
1640658986936294144,2021-12-28-02:36:26,10.1.1.5,5,0.000,0.000,0.000,-0.000,0.000,0.000
1640658989043278848,2021-12-28-02:36:29,10.1.1.5,17,0.000,0.000,0.000,-0.000,0.000,0.000
1640658991106358016,2021-12-28-02:36:31,10.1.1.5,11,0.000,0.000,0.000,-0.000,0.000,0.000
1640658993149084928,2021-12-28-02:36:33,10.1.1.5,3,0.000,0.000,0.000,-0.000,0.000,0.000
1640658995271548928,2021-12-28-02:36:35,10.1.1.5,19,0.000,0.000,0.000,-0.000,0.000,0.000
1640658997350503936,2021-12-28-02:36:37,10.1.1.5,17,0.000,0.000,0.000,-0.000,0.000,0.000
1640658999410650880,2021-12-28-02:36:39,10.1.1.5,7,0.000,0.000,0.000,-0.000,0.000,0.000
1640659001509225984,2021-12-28-02:36:41,10.1.1.5,19,0.000,0.000,0.000,-0.000,0.000,0.000
1640659003565833216,2021-12-28-02:36:43,10.1.1.5,6,0.000,0.000,0.000,-0.000,0.000,0.000
1640659005606157056,2021-12-28-02:36:45,10.1.1.5,6,0.000,0.000,0.000,-0.000,0.000,0.000
1640659007721189120,2021-12-28-02:36:47,10.1.1.5,10,0.000,0.000,0.000,-0.000,0.000,0.000
1640659009778772224,2021-12-28-02:36:49,10.1.1.5,15,0.000,0.000,0.000,-0.000,0.000,0.000
1640659011875920896,2021-12-28-02:36:51,10.1.1.5,15,0.000,0.000,0.000,-0.000,0.000,0.000
1640659013973217024,2021-12-28-02:36:53,10.1.1.5,18,0.000,0.000,0.000,-0.000,0.000,0.000
1640659016048992000,2021-12-28-02:36:56,10.1.1.5,19,0.000,0.000,0.000,-0.000,0.000,0.000
1640659018133868032,2021-12-28-02:36:58,10.1.1.5,14,0.000,0.000,0.000,-0.000,0.000,0.000
1640659020261204992,2021-12-28-02:37:00,10.1.1.5,17,0.000,0.000,0.000,-0.000,0.000,0.000
1640659022346402048,2021-12-28-02:37:02,10.1.1.5,10,0.000,0.000,0.000,-0.000,0.000,0.000
1640659024448353024,2021-12-28-02:37:04,10.1.1.5,7,0.000,0.000,0.000,-0.000,0.000,0.000
1640659026530793984,2021-12-28-02:37:06,10.1.1.5,1,0.000,0.000,0.000,-0.000,0.000,0.000
1640659028630208000,2021-12-28-02:37:08,10.1.1.5,11,0.000,0.000,0.000,-0.000,0.000,0.000
1640659030711503872,2021-12-28-02:37:10,10.1.1.5,3,0.000,0.000,0.000,-0.000,0.000,0.000
1640659032788526080,2021-12-28-02:37:12,10.1.1.5,4,0.000,0.000,0.000,-0.000,0.000,0.000
1640659034965768960,2021-12-28-02:37:14,10.1.1.5,11,0.000,0.000,0.000,-0.000,0.000,0.000
1640659037043468032,2021-12-28-02:37:17,10.1.1.5,4,0.000,0.000,0.000,-0.000,0.000,0.000
1640659039161636096,2021-12-28-02:37:19,10.1.1.5,17,0.000,0.000,0.000,-0.000,0.000,0.000
1640659041238244096,2021-12-28-02:37:21,10.1.1.5,2,0.000,0.000,0.000,-0.000,0.000,0.000
1640659043334480896,2021-12-28-02:37:23,10.1.1.5,9,0.000,0.000,0.000,-0.000,0.000,0.000
1640659045451705088,2021-12-28-02:37:25,10.1.1.5,18,0.000,0.000,0.000,-0.000,0.000,0.000
1640659047529035008,2021-12-28-02:37:27,10.1.1.5,5,0.000,0.000,0.000,-0.000,0.000,0.000
1640659049609883904,2021-12-28-02:37:29,10.1.1.5,10,0.000,0.000,0.000,-0.000,0.000,0.000
1640659051719001088,2021-12-28-02:37:31,10.1.1.5,2,0.000,0.000,0.000,-0.000,0.000,0.000
1640659053803403008,2021-12-28-02:37:33,10.1.1.5,4,0.000,0.000,0.000,-0.000,0.000,0.000
1640659055908549120,2021-12-28-02:37:35,10.1.1.5,20,0.000,0.000,0.000,-0.000,0.000,0.000
1640659057989020160,2021-12-28-02:37:37,10.1.1.5,15,0.000,0.000,0.000,-0.000,0.000,0.000
1640659060109921024,2021-12-28-02:37:40,10.1.1.5,7,0.000,0.000,0.000,-0.000,0.000,0.000
1640659062229378816,2021-12-28-02:37:42,10.1.1.5,18,0.000,0.000,0.000,-0.000,0.000,0.000
1640659064328646912,2021-12-28-02:37:44,10.1.1.5,17,0.000,0.000,0.000,-0.000,0.000,0.000
1640659066445683968,2021-12-28-02:37:46,10.1.1.5,19,0.000,0.000,0.000,-0.000,0.000,0.000
1640659068523899136,2021-12-28-02:37:48,10.1.1.5,19,0.000,0.000,0.000,-0.000,0.000,0.000
1640659070581176064,2021-12-28-02:37:50,10.1.1.5,3,0.000,0.000,0.000,-0.000,0.000,0.000
1640659072678244096,2021-12-28-02:37:52,10.1.1.5,10,0.000,0.000,0.000,-0.000,0.000,0.000
1640659074754921984,2021-12-28-02:37:54,10.1.1.5,17,0.000,0.000,0.000,-0.000,0.000,0.000
1640659076852304896,2021-12-28-02:37:56,10.1.1.5,17,0.000,0.000,0.000,-0.000,0.000,0.000
1640659078909216000,2021-12-28-02:37:58,10.1.1.5,15,0.000,0.000,0.000,-0.000,0.000,0.000
1640659080985090048,2021-12-28-02:38:00,10.1.1.5,4,0.000,0.000,0.000,-0.000,0.000,0.000
1640659083069806080,2021-12-28-02:38:03,10.1.1.5,13,0.000,0.000,0.000,-0.000,0.000,0.000
1640659085157335040,2021-12-28-02:38:05,10.1.1.5,3,0.000,0.000,0.000,-0.000,0.000,0.000
1640659087263670016,2021-12-28-02:38:07,10.1.1.5,4,0.000,0.000,0.000,-0.000,0.000,0.000
1640659089367250944,2021-12-28-02:38:09,10.1.1.5,3,0.000,0.000,0.000,-0.000,0.000,0.000
1640659091488193024,2021-12-28-02:38:11,10.1.1.5,20,0.000,0.000,0.000,-0.000,0.000,0.000
1640659093587969024,2021-12-28-02:38:13,10.1.1.5,18,0.000,0.000,0.000,-0.000,0.000,0.000
1640659095707051008,2021-12-28-02:38:15,10.1.1.5,6,0.000,0.000,0.000,-0.000,0.000,0.000
1640659097805762048,2021-12-28-02:38:17,10.1.1.5,0,0.000,0.000,0.000,-0.000,0.000,0.000
1640659099925618944,2021-12-28-02:38:19,10.1.1.5,16,0.000,0.000,0.000,-0.000,0.000,0.000
1640659102023601920,2021-12-28-02:38:22,10.1.1.5,12,0.000,0.000,0.000,-0.000,0.000,0.000
1640659104119441152,2021-12-28-02:38:24,10.1.1.5,14,0.000,0.000,0.000,-0.000,0.000,0.000
1640659106215956992,2021-12-28-02:38:26,10.1.1.5,4,0.000,0.000,0.000,-0.000,0.000,0.000
1640659108334388992,2021-12-28-02:38:28,10.1.1.5,1,0.000,0.000,0.000,-0.000,0.000,0.000
1640659110429693952,2021-12-28-02:38:30,10.1.1.5,4,0.000,0.000,0.000,-0.000,0.000,0.000
1640659112508656896,2021-12-28-02:38:32,10.1.1.5,15,0.000,0.000,0.000,-0.000,0.000,0.000
1640659114607772160,2021-12-28-02:38:34,10.1.1.5,15,0.000,0.000,0.000,-0.000,0.000,0.000
1640659116718054912,2021-12-28-02:38:36,10.1.1.5,6,0.000,0.000,0.000,-0.000,0.000,0.000
1640659118863287808,2021-12-28-02:38:38,10.1.1.5,8,0.000,0.000,0.000,-0.000,0.000,0.000
1640659120986753024,2021-12-28-02:38:40,10.1.1.5,16,0.000,0.000,0.000,-0.000,0.000,0.000
1640659123067673088,2021-12-28-02:38:43,10.1.1.5,12,0.000,0.000,0.000,-0.000,0.000,0.000
1640659125130137856,2021-12-28-02:38:45,10.1.1.5,1,0.000,0.000,0.000,-0.000,0.000,0.000
1640659127268199936,2021-12-28-02:38:47,10.1.1.5,3,0.000,0.000,0.000,-0.000,0.000,0.000
1640659129406915840,2021-12-28-02:38:49,10.1.1.5,19,0.000,0.000,0.000,-0.000,0.000,0.000
1640659131505330176,2021-12-28-02:38:51,10.1.1.5,11,0.000,0.000,0.000,-0.000,0.000,0.000
1640659133602292992,2021-12-28-02:38:53,10.1.1.5,19,0.000,0.000,0.000,-0.000,0.000,0.000
1640659135681027840,2021-12-28-02:38:55,10.1.1.5,3,0.000,0.000,0.000,-0.000,0.000,0.000
1640659137796814080,2021-12-28-02:38:57,10.1.1.5,2,0.000,0.000,0.000,-0.000,0.000,0.000
1640659139914323200,2021-12-28-02:38:59,10.1.1.5,6,0.000,0.000,0.000,-0.000,0.000,0.000
1640659142010966016,2021-12-28-02:39:02,10.1.1.5,5,0.000,0.000,0.000,-0.000,0.000,0.000
1640659144108148224,2021-12-28-02:39:04,10.1.1.5,17,0.000,0.000,0.000,-0.000,0.000,0.000
1640659146185723136,2021-12-28-02:39:06,10.1.1.5,2,0.000,0.000,0.000,-0.000,0.000,0.000
1640659148275988224,2021-12-28-02:39:08,10.1.1.5,15,0.000,0.000,0.000,-0.000,0.000,0.000
1640659150342204928,2021-12-28-02:39:10,10.1.1.5,9,0.000,0.000,0.000,-0.000,0.000,0.000
1640659152447143936,2021-12-28-02:39:12,10.1.1.5,7,0.000,0.000,0.000,-0.000,0.000,0.000
1640659154549356032,2021-12-28-02:39:14,10.1.1.5,11,0.000,0.000,0.000,-0.000,0.000,0.000
1640659156610497024,2021-12-28-02:39:16,10.1.1.5,16,0.000,0.000,0.000,-0.000,0.000,0.000
1640659158710049024,2021-12-28-02:39:18,10.1.1.5,8,0.000,0.000,0.000,-0.000,0.000,0.000
1640659160829101056,2021-12-28-02:39:20,10.1.1.5,14,0.000,0.000,0.000,-0.000,0.000,0.000
1640659162926294016,2021-12-28-02:39:22,10.1.1.5,15,0.000,0.000,0.000,-0.000,0.000,0.000
1640659165005809152,2021-12-28-02:39:25,10.1.1.5,2,0.000,0.000,0.000,-0.000,0.000,0.000
1640659167102402816,2021-12-28-02:39:27,10.1.1.5,13,0.000,0.000,0.000,-0.000,0.000,0.000
1640659169239595008,2021-12-28-02:39:29,10.1.1.5,18,0.000,0.000,0.000,-0.000,0.000,0.000
1640659171336484864,2021-12-28-02:39:31,10.1.1.5,17,0.000,0.000,0.000,-0.000,0.000,0.000
1640659173393841920,2021-12-28-02:39:33,10.1.1.5,5,0.000,0.000,0.000,-0.000,0.000,0.000
1640659175489799936,2021-12-28-02:39:35,10.1.1.5,2,0.000,0.000,0.000,-0.000,0.000,0.000
1640659177546718976,2021-12-28-02:39:37,10.1.1.5,3,0.000,0.000,0.000,-0.000,0.000,0.000
1640659179673851904,2021-12-28-02:39:39,10.1.1.5,7,0.000,0.000,0.000,-0.000,0.000,0.000
1640659183825782016,2021-12-28-02:39:43,10.1.1.5,7,0.000,0.000,0.000,-0.000,0.000,0.000
1640659185949202944,2021-12-28-02:39:45,10.1.1.5,9,0.000,0.000,0.000,-0.000,0.000,0.000
1640659188070256896,2021-12-28-02:39:48,10.1.1.5,17,0.000,0.000,0.000,-0.000,0.000,0.000
1640659190170330880,2021-12-28-02:39:50,10.1.1.5,14,0.000,0.000,0.000,-0.000,0.000,0.000
1640659192269690112,2021-12-28-02:39:52,10.1.1.5,4,0.000,0.000,0.000,-0.000,0.000,0.000
1640659194406891008,2021-12-28-02:39:54,10.1.1.5,4,0.000,0.000,0.000,-0.000,0.000,0.000
1640659196505556992,2021-12-28-02:39:56,10.1.1.5,3,0.000,0.000,0.000,-0.000,0.000,0.000
1640659198622226944,2021-12-28-02:39:58,10.1.1.5,10,0.000,0.000,0.000,-0.000,0.000,0.000
1640659200701495808,2021-12-28-02:40:00,10.1.1.5,15,0.000,0.000,0.000,-0.000,0.000,0.000
1640659202817872128,2021-12-28-02:40:02,10.1.1.5,7,0.000,0.000,0.000,-0.000,0.000,0.000
1640659204953959936,2021-12-28-02:40:04,10.1.1.5,4,0.000,0.000,0.000,-0.000,0.000,0.000
1640659207071432960,2021-12-28-02:40:07,10.1.1.5,3,0.000,0.000,0.000,-0.000,0.000,0.000
1640659209167175936,2021-12-28-02:40:09,10.1.1.5,10,0.000,0.000,0.000,-0.000,0.000,0.000
1640659211265469952,2021-12-28-02:40:11,10.1.1.5,4,0.000,0.000,0.000,-0.000,0.000,0.000
1640659213355843072,2021-12-28-02:40:13,10.1.1.5,2,0.000,0.000,0.000,-0.000,0.000,0.000
1640659215482295040,2021-12-28-02:40:15,10.1.1.5,14,0.000,0.000,0.000,-0.000,0.000,0.000
1640659217586839040,2021-12-28-02:40:17,10.1.1.5,4,0.000,0.000,0.000,-0.000,0.000,0.000
1640659219691461120,2021-12-28-02:40:19,10.1.1.5,19,0.000,0.000,0.000,-0.000,0.000,0.000
1640659221810332160,2021-12-28-02:40:21,10.1.1.5,20,0.000,0.000,0.000,-0.000,0.000,0.000
1640659223890134016,2021-12-28-02:40:23,10.1.1.5,9,0.000,0.000,0.000,-0.000,0.000,0.000
1640659225989021184,2021-12-28-02:40:25,10.1.1.5,21,0.000,0.000,0.000,-0.000,0.000,0.000
1640659228086087936,2021-12-28-02:40:28,10.1.1.5,7,0.000,0.000,0.000,-0.000,0.000,0.000
1640659230205734912,2021-12-28-02:40:30,10.1.1.5,14,0.000,0.000,0.000,-0.000,0.000,0.000
1640659232281963008,2021-12-28-02:40:32,10.1.1.5,7,0.000,0.000,0.000,-0.000,0.000,0.000
1640659234419421952,2021-12-28-02:40:34,10.1.1.5,16,0.000,0.000,0.000,-0.000,0.000,0.000
1640659236497030912,2021-12-28-02:40:36,10.1.1.5,17,0.000,0.000,0.000,-0.000,0.000,0.000
1640659238573712128,2021-12-28-02:40:38,10.1.1.5,1,0.000,0.000,0.000,-0.000,0.000,0.000
1640659240649629184,2021-12-28-02:40:40,10.1.1.5,5,0.000,0.000,0.000,-0.000,0.000,0.000
1640659242765382144,2021-12-28-02:40:42,10.1.1.5,10,0.000,0.000,0.000,-0.000,0.000,0.000
1640659244834567168,2021-12-28-02:40:44,10.1.1.5,2,0.000,0.000,0.000,-0.000,0.000,0.000
1640659246920708864,2021-12-28-02:40:46,10.1.1.5,6,0.000,0.000,0.000,-0.000,0.000,0.000
1640659249025463040,2021-12-28-02:40:49,10.1.1.5,3,0.000,0.000,0.000,-0.000,0.000,0.000
1640659251147691008,2021-12-28-02:40:51,10.1.1.5,20,0.000,0.000,0.000,-0.000,0.000,0.000
1640659253209188096,2021-12-28-02:40:53,10.1.1.5,11,0.000,0.000,0.000,-0.000,0.000,0.000
1640659255288933888,2021-12-28-02:40:55,10.1.1.5,6,0.000,0.000,0.000,-0.000,0.000,0.000
1640659257447369216,2021-12-28-02:40:57,10.1.1.5,19,0.000,0.000,0.000,-0.000,0.000,0.000
1640659259527580928,2021-12-28-02:40:59,10.1.1.5,3,0.000,0.000,0.000,-0.000,0.000,0.000
1640659261623488000,2021-12-28-02:41:01,10.1.1.5,11,0.000,0.000,0.000,-0.000,0.000,0.000
1640659263740914176,2021-12-28-02:41:03,10.1.1.5,1,0.000,0.000,0.000,-0.000,0.000,0.000
1640659265878963968,2021-12-28-02:41:05,10.1.1.5,0,0.000,0.000,0.000,-0.000,0.000,0.000
1640659268015316992,2021-12-28-02:41:08,10.1.1.5,7,0.000,0.000,0.000,-0.000,0.000,0.000
1640659270152115200,2021-12-28-02:41:10,10.1.1.5,17,0.000,0.000,0.000,-0.000,0.000,0.000
1640659272228656896,2021-12-28-02:41:12,10.1.1.5,15,0.000,0.000,0.000,-0.000,0.000,0.000
1640659274326492928,2021-12-28-02:41:14,10.1.1.5,3,0.000,0.000,0.000,-0.000,0.000,0.000
1640659276451528960,2021-12-28-02:41:16,10.1.1.5,14,0.000,0.000,0.000,-0.000,0.000,0.000
1640659278560856064,2021-12-28-02:41:18,10.1.1.5,12,0.000,0.000,0.000,-0.000,0.000,0.000
1640659280664894976,2021-12-28-02:41:20,10.1.1.5,5,0.000,0.000,0.000,-0.000,0.000,0.000
1640659282767364096,2021-12-28-02:41:22,10.1.1.5,4,0.000,0.000,0.000,-0.000,0.000,0.000
1640659284869071872,2021-12-28-02:41:24,10.1.1.5,13,0.000,0.000,0.000,-0.000,0.000,0.000
1640659287009374976,2021-12-28-02:41:27,10.1.1.5,17,0.000,0.000,0.000,-0.000,0.000,0.000
1640659289089910016,2021-12-28-02:41:29,10.1.1.5,3,0.000,0.000,0.000,-0.000,0.000,0.000
1640659291166814208,2021-12-28-02:41:31,10.1.1.5,7,0.000,0.000,0.000,-0.000,0.000,0.000
1640659293264345856,2021-12-28-02:41:33,10.1.1.5,6,0.000,0.000,0.000,-0.000,0.000,0.000
1640659295362951168,2021-12-28-02:41:35,10.1.1.5,15,0.000,0.000,0.000,-0.000,0.000,0.000
1640659297441862144,2021-12-28-02:41:37,10.1.1.5,17,0.000,0.000,0.000,-0.000,0.000,0.000
1640659299517297152,2021-12-28-02:41:39,10.1.1.5,18,0.000,0.000,0.000,-0.000,0.000,0.000
1640659301572880128,2021-12-28-02:41:41,10.1.1.5,4,0.000,0.000,0.000,-0.000,0.000,0.000
1640659303649970944,2021-12-28-02:41:43,10.1.1.5,17,0.000,0.000,0.000,-0.000,0.000,0.000
1640659305690023936,2021-12-28-02:41:45,10.1.1.5,2,0.000,0.000,0.000,-0.000,0.000,0.000
1640659307748353024,2021-12-28-02:41:47,10.1.1.5,13,0.000,0.000,0.000,-0.000,0.000,0.000
1640659309797565952,2021-12-28-02:41:49,10.1.1.5,10,0.000,0.000,0.000,-0.000,0.000,0.000
1640659311884416000,2021-12-28-02:41:51,10.1.1.5,12,0.000,0.000,0.000,-0.000,0.000,0.000
1640659313948851200,2021-12-28-02:41:53,10.1.1.5,4,0.000,0.000,0.000,-0.000,0.000,0.000
1640659316008600064,2021-12-28-02:41:56,10.1.1.5,18,0.000,0.000,0.000,-0.000,0.000,0.000
1640659318090722048,2021-12-28-02:41:58,10.1.1.5,12,0.000,0.000,0.000,-0.000,0.000,0.000
1640659320188525056,2021-12-28-02:42:00,10.1.1.5,9,0.000,0.000,0.000,-0.000,0.000,0.000
1640659322248646144,2021-12-28-02:42:02,10.1.1.5,10,0.000,0.000,0.000,-0.000,0.000,0.000
1640659324306353152,2021-12-28-02:42:04,10.1.1.5,6,0.000,0.000,0.000,-0.000,0.000,0.000
1640659326362746880,2021-12-28-02:42:06,10.1.1.5,15,0.000,0.000,0.000,-0.000,0.000,0.000
1640659328380926976,2021-12-28-02:42:08,10.1.1.5,1,0.000,0.000,0.000,-0.000,0.000,0.000
1640659330421138176,2021-12-28-02:42:10,10.1.1.5,17,0.000,0.000,0.000,-0.000,0.000,0.000
1640659332455161088,2021-12-28-02:42:12,10.1.1.5,18,0.000,0.000,0.000,-0.000,0.000,0.000
1640659334472989952,2021-12-28-02:42:14,10.1.1.5,11,0.000,0.000,0.000,-0.000,0.000,0.000
1640659336509443072,2021-12-28-02:42:16,10.1.1.5,19,0.000,0.000,0.000,-0.000,0.000,0.000
1640659338565785856,2021-12-28-02:42:18,10.1.1.5,11,0.000,0.000,0.000,-0.000,0.000,0.000
1640659340687777024,2021-12-28-02:42:20,10.1.1.5,4,0.000,0.000,0.000,-0.000,0.000,0.000
1640659342835525120,2021-12-28-02:42:22,10.1.1.5,12,0.000,0.000,0.000,-0.000,0.000,0.000
1640659344942085120,2021-12-28-02:42:24,10.1.1.5,17,0.000,0.000,0.000,-0.000,0.000,0.000
1640659347045862912,2021-12-28-02:42:27,10.1.1.5,12,0.000,0.000,0.000,-0.000,0.000,0.000
1640659349088488960,2021-12-28-02:42:29,10.1.1.5,1,0.000,0.000,0.000,-0.000,0.000,0.000
1640659351210280960,2021-12-28-02:42:31,10.1.1.5,12,0.000,0.000,0.000,-0.000,0.000,0.000
1640659353307924992,2021-12-28-02:42:33,10.1.1.5,11,0.000,0.000,0.000,-0.000,0.000,0.000
1640659355405800960,2021-12-28-02:42:35,10.1.1.5,16,0.000,0.000,0.000,-0.000,0.000,0.000
1640659357484257024,2021-12-28-02:42:37,10.1.1.5,17,0.000,0.000,0.000,-0.000,0.000,0.000
1640659359582663936,2021-12-28-02:42:39,10.1.1.5,7,0.000,0.000,0.000,-0.000,0.000,0.000
1640659361718932992,2021-12-28-02:42:41,10.1.1.5,6,0.000,0.000,0.000,-0.000,0.000,0.000
1640659363796544000,2021-12-28-02:42:43,10.1.1.5,9,0.000,0.000,0.000,-0.000,0.000,0.000
1640659365934680064,2021-12-28-02:42:45,10.1.1.5,19,0.000,0.000,0.000,-0.000,0.000,0.000
1640659367969765888,2021-12-28-02:42:47,10.1.1.5,5,0.000,0.000,0.000,-0.000,0.000,0.000
1640659370066237952,2021-12-28-02:42:50,10.1.1.5,19,0.000,0.000,0.000,-0.000,0.000,0.000
1640659372144915968,2021-12-28-02:42:52,10.1.1.5,2,0.000,0.000,0.000,-0.000,0.000,0.000
1640659374234433024,2021-12-28-02:42:54,10.1.1.5,7,0.000,0.000,0.000,-0.000,0.000,0.000
1640659376361756928,2021-12-28-02:42:56,10.1.1.5,17,0.000,0.000,0.000,-0.000,0.000,0.000
1640659378406758144,2021-12-28-02:42:58,10.1.1.5,20,0.000,0.000,0.000,-0.000,0.000,0.000
1640659380489511936,2021-12-28-02:43:00,10.1.1.5,14,0.000,0.000,0.000,-0.000,0.000,0.000
1640659382591173888,2021-12-28-02:43:02,10.1.1.5,8,0.000,0.000,0.000,-0.000,0.000,0.000
1640659384648300800,2021-12-28-02:43:04,10.1.1.5,12,0.000,0.000,0.000,-0.000,0.000,0.000
1640659386728732160,2021-12-28-02:43:06,10.1.1.5,13,0.000,0.000,0.000,-0.000,0.000,0.000
1640659388827131136,2021-12-28-02:43:08,10.1.1.5,5,0.000,0.000,0.000,-0.000,0.000,0.000
1640659390927069952,2021-12-28-02:43:10,10.1.1.5,14,0.000,0.000,0.000,-0.000,0.000,0.000
1640659393002810112,2021-12-28-02:43:13,10.1.1.5,4,0.000,0.000,0.000,-0.000,0.000,0.000
1640659395098926080,2021-12-28-02:43:15,10.1.1.5,10,0.000,0.000,0.000,-0.000,0.000,0.000
1640659397176986880,2021-12-28-02:43:17,10.1.1.5,11,0.000,0.000,0.000,-0.000,0.000,0.000
1640659399272898048,2021-12-28-02:43:19,10.1.1.5,1,0.000,0.000,0.000,-0.000,0.000,0.000
1640659401370424064,2021-12-28-02:43:21,10.1.1.5,11,0.000,0.000,0.000,-0.000,0.000,0.000
1640659403446787072,2021-12-28-02:43:23,10.1.1.5,10,0.000,0.000,0.000,-0.000,0.000,0.000
1640659405513961984,2021-12-28-02:43:25,10.1.1.5,5,0.000,0.000,0.000,-0.000,0.000,0.000
1640659407600472064,2021-12-28-02:43:27,10.1.1.5,13,0.000,0.000,0.000,-0.000,0.000,0.000
1640659409705504768,2021-12-28-02:43:29,10.1.1.5,10,0.000,0.000,0.000,-0.000,0.000,0.000
1640659411787500032,2021-12-28-02:43:31,10.1.1.5,1,0.000,0.000,0.000,-0.000,0.000,0.000
1640659413868925952,2021-12-28-02:43:33,10.1.1.5,12,0.000,0.000,0.000,-0.000,0.000,0.000
1640659415948570112,2021-12-28-02:43:35,10.1.1.5,5,0.000,0.000,0.000,-0.000,0.000,0.000
1640659418068231936,2021-12-28-02:43:38,10.1.1.5,1,0.000,0.000,0.000,-0.000,0.000,0.000
1640659420227008000,2021-12-28-02:43:40,10.1.1.5,19,0.000,0.000,0.000,-0.000,0.000,0.000
1640659422324883968,2021-12-28-02:43:42,10.1.1.5,15,0.000,0.000,0.000,-0.000,0.000,0.000
1640659424422112000,2021-12-28-02:43:44,10.1.1.5,14,0.000,0.000,0.000,-0.000,0.000,0.000
1640659426539980032,2021-12-28-02:43:46,10.1.1.5,10,0.000,0.000,0.000,-0.000,0.000,0.000
1640659430732348928,2021-12-28-02:43:50,10.1.1.5,6,0.000,0.000,0.000,-0.000,0.000,0.000
1640659432849825024,2021-12-28-02:43:52,10.1.1.5,16,0.000,0.000,0.000,-0.000,0.000,0.000
1640659434947053824,2021-12-28-02:43:54,10.1.1.5,2,0.000,0.000,0.000,-0.000,0.000,0.000
1640659437070981888,2021-12-28-02:43:57,10.1.1.5,10,0.000,0.000,0.000,-0.000,0.000,0.000
1640659439199440896,2021-12-28-02:43:59,10.1.1.5,13,0.000,0.000,0.000,-0.000,0.000,0.000
1640659441304482048,2021-12-28-02:44:01,10.1.1.5,13,0.000,0.000,0.000,-0.000,0.000,0.000
1640659443407279872,2021-12-28-02:44:03,10.1.1.5,2,0.000,0.000,0.000,-0.000,0.000,0.000
1640659445548681984,2021-12-28-02:44:05,10.1.1.5,16,0.000,0.000,0.000,-0.000,0.000,0.000
1640659447648622080,2021-12-28-02:44:07,10.1.1.5,5,0.000,0.000,0.000,-0.000,0.000,0.000
1640659449729026048,2021-12-28-02:44:09,10.1.1.5,4,0.000,0.000,0.000,-0.000,0.000,0.000
1640659451767128064,2021-12-28-02:44:11,10.1.1.5,5,0.000,0.000,0.000,-0.000,0.000,0.000
1640659453864589056,2021-12-28-02:44:13,10.1.1.5,10,0.000,0.000,0.000,-0.000,0.000,0.000
1640659455922663936,2021-12-28-02:44:15,10.1.1.5,7,0.000,0.000,0.000,-0.000,0.000,0.000
1640659457980842240,2021-12-28-02:44:17,10.1.1.5,2,0.000,0.000,0.000,-0.000,0.000,0.000
1640659460096798976,2021-12-28-02:44:20,10.1.1.5,10,0.000,0.000,0.000,-0.000,0.000,0.000
1640659462215419904,2021-12-28-02:44:22,10.1.1.5,11,0.000,0.000,0.000,-0.000,0.000,0.000
1640659464330593024,2021-12-28-02:44:24,10.1.1.5,12,0.000,0.000,0.000,-0.000,0.000,0.000
1640659466387835904,2021-12-28-02:44:26,10.1.1.5,5,0.000,0.000,0.000,-0.000,0.000,0.000
1640659468485337088,2021-12-28-02:44:28,10.1.1.5,3,0.000,0.000,0.000,-0.000,0.000,0.000
1640659470593251072,2021-12-28-02:44:30,10.1.1.5,4,0.000,0.000,0.000,-0.000,0.000,0.000
1640659472699395840,2021-12-28-02:44:32,10.1.1.5,8,0.000,0.000,0.000,-0.000,0.000,0.000
1640659474765187072,2021-12-28-02:44:34,10.1.1.5,2,0.000,0.000,0.000,-0.000,0.000,0.000
1640659476926255104,2021-12-28-02:44:36,10.1.1.5,15,0.000,0.000,0.000,-0.000,0.000,0.000
1640659479071049984,2021-12-28-02:44:39,10.1.1.5,5,0.000,0.000,0.000,-0.000,0.000,0.000
1640659481167993088,2021-12-28-02:44:41,10.1.1.5,17,0.000,0.000,0.000,-0.000,0.000,0.000
1640659483227787008,2021-12-28-02:44:43,10.1.1.5,2,0.000,0.000,0.000,-0.000,0.000,0.000
1640659485345612032,2021-12-28-02:44:45,10.1.1.5,17,0.000,0.000,0.000,-0.000,0.000,0.000
1640659487446935040,2021-12-28-02:44:47,10.1.1.5,5,0.000,0.000,0.000,-0.000,0.000,0.000
1640659489560936960,2021-12-28-02:44:49,10.1.1.5,7,0.000,0.000,0.000,-0.000,0.000,0.000
1640659491698180864,2021-12-28-02:44:51,10.1.1.5,16,0.000,0.000,0.000,-0.000,0.000,0.000
1640659493796499968,2021-12-28-02:44:53,10.1.1.5,17,0.000,0.000,0.000,-0.000,0.000,0.000
1640659495912587776,2021-12-28-02:44:55,10.1.1.5,11,0.000,0.000,0.000,-0.000,0.000,0.000
1640659498010433792,2021-12-28-02:44:58,10.1.1.5,7,0.000,0.000,0.000,-0.000,0.000,0.000
1640659500125686784,2021-12-28-02:45:00,10.1.1.5,10,0.000,0.000,0.000,-0.000,0.000,0.000
1640659502190431232,2021-12-28-02:45:02,10.1.1.5,5,0.000,0.000,0.000,-0.000,0.000,0.000
1640659504303677952,2021-12-28-02:45:04,10.1.1.5,2,0.000,0.000,0.000,-0.000,0.000,0.000
1640659506445605120,2021-12-28-02:45:06,10.1.1.5,3,0.000,0.000,0.000,-0.000,0.000,0.000
1640659508546789888,2021-12-28-02:45:08,10.1.1.5,16,0.000,0.000,0.000,-0.000,0.000,0.000
1640659510648574208,2021-12-28-02:45:10,10.1.1.5,10,0.000,0.000,0.000,-0.000,0.000,0.000
1640659512748663808,2021-12-28-02:45:12,10.1.1.5,12,0.000,0.000,0.000,-0.000,0.000,0.000
1640659514808188928,2021-12-28-02:45:14,10.1.1.5,12,0.000,0.000,0.000,-0.000,0.000,0.000
1640659516906667008,2021-12-28-02:45:16,10.1.1.5,14,0.000,0.000,0.000,-0.000,0.000,0.000
1640659519024509952,2021-12-28-02:45:19,10.1.1.5,10,0.000,0.000,0.000,-0.000,0.000,0.000
1640659521087313920,2021-12-28-02:45:21,10.1.1.5,2,0.000,0.000,0.000,-0.000,0.000,0.000
1640659523261766912,2021-12-28-02:45:23,10.1.1.5,1,0.000,0.000,0.000,-0.000,0.000,0.000
1640659525417003008,2021-12-28-02:45:25,10.1.1.5,17,0.000,0.000,0.000,-0.000,0.000,0.000
1640659527493766912,2021-12-28-02:45:27,10.1.1.5,7,0.000,0.000,0.000,-0.000,0.000,0.000
1640659529591883008,2021-12-28-02:45:29,10.1.1.5,13,0.000,0.000,0.000,-0.000,0.000,0.000
1640659531667895040,2021-12-28-02:45:31,10.1.1.5,1,0.000,0.000,0.000,-0.000,0.000,0.000
1640659533831288064,2021-12-28-02:45:33,10.1.1.5,8,0.000,0.000,0.000,-0.000,0.000,0.000
1640659535958157056,2021-12-28-02:45:35,10.1.1.5,6,0.000,0.000,0.000,-0.000,0.000,0.000
1640659538083965952,2021-12-28-02:45:38,10.1.1.5,15,0.000,0.000,0.000,-0.000,0.000,0.000
1640659540227468032,2021-12-28-02:45:40,10.1.1.5,18,0.000,0.000,0.000,-0.000,0.000,0.000
1640659542369227776,2021-12-28-02:45:42,10.1.1.5,10,0.000,0.000,0.000,-0.000,0.000,0.000
1640659544470996992,2021-12-28-02:45:44,10.1.1.5,4,0.000,0.000,0.000,-0.000,0.000,0.000
1640659546611912960,2021-12-28-02:45:46,10.1.1.5,1,0.000,0.000,0.000,-0.000,0.000,0.000
1640659548728296960,2021-12-28-02:45:48,10.1.1.5,19,0.000,0.000,0.000,-0.000,0.000,0.000
1640659550848683008,2021-12-28-02:45:50,10.1.1.5,5,0.000,0.000,0.000,-0.000,0.000,0.000
1640659552983501056,2021-12-28-02:45:52,10.1.1.5,4,0.000,0.000,0.000,-0.000,0.000,0.000
1640659555101000960,2021-12-28-02:45:55,10.1.1.5,10,0.000,0.000,0.000,-0.000,0.000,0.000
1640659557177988096,2021-12-28-02:45:57,10.1.1.5,2,0.000,0.000,0.000,-0.000,0.000,0.000
1640659559295716096,2021-12-28-02:45:59,10.1.1.5,15,0.000,0.000,0.000,-0.000,0.000,0.000
1640659561411858176,2021-12-28-02:46:01,10.1.1.5,10,0.000,0.000,0.000,-0.000,0.000,0.000
1640659563510327040,2021-12-28-02:46:03,10.1.1.5,13,0.000,0.000,0.000,-0.000,0.000,0.000
1640659565609172224,2021-12-28-02:46:05,10.1.1.5,6,0.000,0.000,0.000,-0.000,0.000,0.000
1640659567718722048,2021-12-28-02:46:07,10.1.1.5,8,0.000,0.000,0.000,-0.000,0.000,0.000
1640659569844207104,2021-12-28-02:46:09,10.1.1.5,9,0.000,0.000,0.000,-0.000,0.000,0.000
1640659571949021952,2021-12-28-02:46:11,10.1.1.5,2,0.000,0.000,0.000,-0.000,0.000,0.000
1640659574050012160,2021-12-28-02:46:14,10.1.1.5,5,0.000,0.000,0.000,-0.000,0.000,0.000
1640659576189784064,2021-12-28-02:46:16,10.1.1.5,6,0.000,0.000,0.000,-0.000,0.000,0.000
1640659578270194944,2021-12-28-02:46:18,10.1.1.5,3,0.000,0.000,0.000,-0.000,0.000,0.000
1640659580327291136,2021-12-28-02:46:20,10.1.1.5,4,0.000,0.000,0.000,-0.000,0.000,0.000
1640659582406554880,2021-12-28-02:46:22,10.1.1.5,7,0.000,0.000,0.000,-0.000,0.000,0.000
1640659584484059136,2021-12-28-02:46:24,10.1.1.5,2,0.000,0.000,0.000,-0.000,0.000,0.000
1640659586581309952,2021-12-28-02:46:26,10.1.1.5,7,0.000,0.000,0.000,-0.000,0.000,0.000
1640659588618351872,2021-12-28-02:46:28,10.1.1.5,5,0.000,0.000,0.000,-0.000,0.000,0.000
1640659590716087040,2021-12-28-02:46:30,10.1.1.5,1,0.000,0.000,0.000,-0.000,0.000,0.000
1640659592812321024,2021-12-28-02:46:32,10.1.1.5,8,0.000,0.000,0.000,-0.000,0.000,0.000
1640659594869129984,2021-12-28-02:46:34,10.1.1.5,3,0.000,0.000,0.000,-0.000,0.000,0.000
1640659596965820160,2021-12-28-02:46:36,10.1.1.5,8,0.000,0.000,0.000,-0.000,0.000,0.000
1640659599052508160,2021-12-28-02:46:39,10.1.1.5,8,0.000,0.000,0.000,-0.000,0.000,0.000
1640659601118691840,2021-12-28-02:46:41,10.1.1.5,1,0.000,0.000,0.000,-0.000,0.000,0.000
1640659603223421952,2021-12-28-02:46:43,10.1.1.5,13,0.000,0.000,0.000,-0.000,0.000,0.000
1640659605326884864,2021-12-28-02:46:45,10.1.1.5,5,0.000,0.000,0.000,-0.000,0.000,0.000
1640659607428246016,2021-12-28-02:46:47,10.1.1.5,14,0.000,0.000,0.000,-0.000,0.000,0.000
1640659609508257024,2021-12-28-02:46:49,10.1.1.5,2,0.000,0.000,0.000,-0.000,0.000,0.000
1640659611587668992,2021-12-28-02:46:51,10.1.1.5,6,0.000,0.000,0.000,-0.000,0.000,0.000
1640659613686292992,2021-12-28-02:46:53,10.1.1.5,5,0.000,0.000,0.000,-0.000,0.000,0.000
1640659615806256896,2021-12-28-02:46:55,10.1.1.5,18,0.000,0.000,0.000,-0.000,0.000,0.000
1640659617882756864,2021-12-28-02:46:57,10.1.1.5,3,0.000,0.000,0.000,-0.000,0.000,0.000
1640659620000461056,2021-12-28-02:47:00,10.1.1.5,10,0.000,0.000,0.000,-0.000,0.000,0.000
1640659622117804032,2021-12-28-02:47:02,10.1.1.5,2,0.000,0.000,0.000,-0.000,0.000,0.000
1640659624254402048,2021-12-28-02:47:04,10.1.1.5,4,0.000,0.000,0.000,-0.000,0.000,0.000
1640659626351365120,2021-12-28-02:47:06,10.1.1.5,1,0.000,0.000,0.000,-0.000,0.000,0.000
1640659628467091968,2021-12-28-02:47:08,10.1.1.5,9,0.000,0.000,0.000,-0.000,0.000,0.000
1640659630568957952,2021-12-28-02:47:10,10.1.1.5,12,0.000,0.000,0.000,-0.000,0.000,0.000
1640659632657190912,2021-12-28-02:47:12,10.1.1.5,13,0.000,0.000,0.000,-0.000,0.000,0.000
1640659634743333120,2021-12-28-02:47:14,10.1.1.5,6,0.000,0.000,0.000,-0.000,0.000,0.000
1640659636825216000,2021-12-28-02:47:16,10.1.1.5,2,0.000,0.000,0.000,-0.000,0.000,0.000
1640659638968206848,2021-12-28-02:47:18,10.1.1.5,15,0.000,0.000,0.000,-0.000,0.000,0.000
1640659641048461056,2021-12-28-02:47:21,10.1.1.5,9,0.000,0.000,0.000,-0.000,0.000,0.000
1640659643148215040,2021-12-28-02:47:23,10.1.1.5,5,0.000,0.000,0.000,-0.000,0.000,0.000
1640659645227682048,2021-12-28-02:47:25,10.1.1.5,13,0.000,0.000,0.000,-0.000,0.000,0.000
1640659647324795904,2021-12-28-02:47:27,10.1.1.5,18,0.000,0.000,0.000,-0.000,0.000,0.000
1640659649423912960,2021-12-28-02:47:29,10.1.1.5,20,0.000,0.000,0.000,-0.000,0.000,0.000
1640659651540107008,2021-12-28-02:47:31,10.1.1.5,15,0.000,0.000,0.000,-0.000,0.000,0.000
1640659653638809856,2021-12-28-02:47:33,10.1.1.5,1,0.000,0.000,0.000,-0.000,0.000,0.000
1640659655734085120,2021-12-28-02:47:35,10.1.1.5,3,0.000,0.000,0.000,-0.000,0.000,0.000
1640659657811335168,2021-12-28-02:47:37,10.1.1.5,3,0.000,0.000,0.000,-0.000,0.000,0.000
1640659659927623936,2021-12-28-02:47:39,10.1.1.5,18,0.000,0.000,0.000,-0.000,0.000,0.000
1640659662026177024,2021-12-28-02:47:42,10.1.1.5,18,0.000,0.000,0.000,-0.000,0.000,0.000
1640659664116256000,2021-12-28-02:47:44,10.1.1.5,2,0.000,0.000,0.000,-0.000,0.000,0.000
1640659666221786880,2021-12-28-02:47:46,10.1.1.5,5,0.000,0.000,0.000,-0.000,0.000,0.000
1640659668348206080,2021-12-28-02:47:48,10.1.1.5,4,0.000,0.000,0.000,-0.000,0.000,0.000
1640659670488043008,2021-12-28-02:47:50,10.1.1.5,11,0.000,0.000,0.000,-0.000,0.000,0.000
1640659672568558848,2021-12-28-02:47:52,10.1.1.5,17,0.000,0.000,0.000,-0.000,0.000,0.000
1640659674696211968,2021-12-28-02:47:54,10.1.1.5,6,0.000,0.000,0.000,-0.000,0.000,0.000
1640659676787718144,2021-12-28-02:47:56,10.1.1.5,8,0.000,0.000,0.000,-0.000,0.000,0.000
1640659678826106112,2021-12-28-02:47:58,10.1.1.5,3,0.000,0.000,0.000,-0.000,0.000,0.000
1640659680945380096,2021-12-28-02:48:00,10.1.1.5,9,0.000,0.000,0.000,-0.000,0.000,0.000
1640659683060830976,2021-12-28-02:48:03,10.1.1.5,10,0.000,0.000,0.000,-0.000,0.000,0.000
1640659685158232064,2021-12-28-02:48:05,10.1.1.5,4,0.000,0.000,0.000,-0.000,0.000,0.000
1640659687236553984,2021-12-28-02:48:07,10.1.1.5,5,0.000,0.000,0.000,-0.000,0.000,0.000
1640659689332573952,2021-12-28-02:48:09,10.1.1.5,13,0.000,0.000,0.000,-0.000,0.000,0.000
1640659691430244096,2021-12-28-02:48:11,10.1.1.5,16,0.000,0.000,0.000,-0.000,0.000,0.000
1640659693506340096,2021-12-28-02:48:13,10.1.1.5,14,0.000,0.000,0.000,-0.000,0.000,0.000
1640659695593153024,2021-12-28-02:48:15,10.1.1.5,4,0.000,0.000,0.000,-0.000,0.000,0.000
1640659697702074880,2021-12-28-02:48:17,10.1.1.5,3,0.000,0.000,0.000,-0.000,0.000,0.000
1640659699826736896,2021-12-28-02:48:19,10.1.1.5,13,0.000,0.000,0.000,-0.000,0.000,0.000
1640659701889512960,2021-12-28-02:48:21,10.1.1.5,5,0.000,0.000,0.000,-0.000,0.000,0.000
1640659703971436032,2021-12-28-02:48:23,10.1.1.5,12,0.000,0.000,0.000,-0.000,0.000,0.000
1640659706092126976,2021-12-28-02:48:26,10.1.1.5,18,0.000,0.000,0.000,-0.000,0.000,0.000
1640659708189899008,2021-12-28-02:48:28,10.1.1.5,6,0.000,0.000,0.000,-0.000,0.000,0.000
1640659710269115904,2021-12-28-02:48:30,10.1.1.5,2,0.000,0.000,0.000,-0.000,0.000,0.000
1640659712346252800,2021-12-28-02:48:32,10.1.1.5,10,0.000,0.000,0.000,-0.000,0.000,0.000
1640659714404709120,2021-12-28-02:48:34,10.1.1.5,4,0.000,0.000,0.000,-0.000,0.000,0.000
1640659716522718976,2021-12-28-02:48:36,10.1.1.5,13,0.000,0.000,0.000,-0.000,0.000,0.000
1640659718558813184,2021-12-28-02:48:38,10.1.1.5,1,0.000,0.000,0.000,-0.000,0.000,0.000
1640659720675847936,2021-12-28-02:48:40,10.1.1.5,14,0.000,0.000,0.000,-0.000,0.000,0.000
1640659722712551168,2021-12-28-02:48:42,10.1.1.5,6,0.000,0.000,0.000,-0.000,0.000,0.000
1640659724788719872,2021-12-28-02:48:44,10.1.1.5,2,0.000,0.000,0.000,-0.000,0.000,0.000
1640659726885526016,2021-12-28-02:48:46,10.1.1.5,7,0.000,0.000,0.000,-0.000,0.000,0.000
1640659728975193856,2021-12-28-02:48:48,10.1.1.5,16,0.000,0.000,0.000,-0.000,0.000,0.000
1640659731002444032,2021-12-28-02:48:51,10.1.1.5,1,0.000,0.000,0.000,-0.000,0.000,0.000
1640659733107321088,2021-12-28-02:48:53,10.1.1.5,10,0.000,0.000,0.000,-0.000,0.000,0.000
1640659735188836096,2021-12-28-02:48:55,10.1.1.5,19,0.000,0.000,0.000,-0.000,0.000,0.000
1640659737271523840,2021-12-28-02:48:57,10.1.1.5,7,0.000,0.000,0.000,-0.000,0.000,0.000
1640659739391309056,2021-12-28-02:48:59,10.1.1.5,1,0.000,0.000,0.000,-0.000,0.000,0.000
1640659741489870080,2021-12-28-02:49:01,10.1.1.5,1,0.000,0.000,0.000,-0.000,0.000,0.000
1640659743568002816,2021-12-28-02:49:03,10.1.1.5,4,0.000,0.000,0.000,-0.000,0.000,0.000
1640659745706723840,2021-12-28-02:49:05,10.1.1.5,19,0.000,0.000,0.000,-0.000,0.000,0.000
1640659747762716928,2021-12-28-02:49:07,10.1.1.5,19,0.000,0.000,0.000,-0.000,0.000,0.000
1640659749841038848,2021-12-28-02:49:09,10.1.1.5,20,0.000,0.000,0.000,-0.000,0.000,0.000
1640659751936738048,2021-12-28-02:49:11,10.1.1.5,17,0.000,0.000,0.000,-0.000,0.000,0.000
1640659754034145024,2021-12-28-02:49:14,10.1.1.5,6,0.000,0.000,0.000,-0.000,0.000,0.000
1640659756091815936,2021-12-28-02:49:16,10.1.1.5,4,0.000,0.000,0.000,-0.000,0.000,0.000
1640659758208628992,2021-12-28-02:49:18,10.1.1.5,9,0.000,0.000,0.000,-0.000,0.000,0.000
1640659760313571072,2021-12-28-02:49:20,10.1.1.5,1,0.000,0.000,0.000,-0.000,0.000,0.000
1640659764566051072,2021-12-28-02:49:24,10.1.1.5,4,0.000,0.000,0.000,-0.000,0.000,0.000
1640659766688263936,2021-12-28-02:49:26,10.1.1.5,17,0.000,0.000,0.000,-0.000,0.000,0.000
1640659768789457152,2021-12-28-02:49:28,10.1.1.5,3,0.000,0.000,0.000,-0.000,0.000,0.000
1640659770889702912,2021-12-28-02:49:30,10.1.1.5,10,0.000,0.000,0.000,-0.000,0.000,0.000
1640659773009792000,2021-12-28-02:49:33,10.1.1.5,14,0.000,0.000,0.000,-0.000,0.000,0.000
1640659775087762176,2021-12-28-02:49:35,10.1.1.5,9,0.000,0.000,0.000,-0.000,0.000,0.000
1640659777185050112,2021-12-28-02:49:37,10.1.1.5,5,0.000,0.000,0.000,-0.000,0.000,0.000
1640659779306768896,2021-12-28-02:49:39,10.1.1.5,12,0.000,0.000,0.000,-0.000,0.000,0.000
1640659781401339904,2021-12-28-02:49:41,10.1.1.5,5,0.000,0.000,0.000,-0.000,0.000,0.000
1640659783497010944,2021-12-28-02:49:43,10.1.1.5,2,0.000,0.000,0.000,-0.000,0.000,0.000
1640659785635341824,2021-12-28-02:49:45,10.1.1.5,18,0.000,0.000,0.000,-0.000,0.000,0.000
1640659787730938880,2021-12-28-02:49:47,10.1.1.5,3,0.000,0.000,0.000,-0.000,0.000,0.000
1640659789826895104,2021-12-28-02:49:49,10.1.1.5,16,0.000,0.000,0.000,-0.000,0.000,0.000
1640659791910074112,2021-12-28-02:49:51,10.1.1.5,19,0.000,0.000,0.000,-0.000,0.000,0.000
1640659793998138880,2021-12-28-02:49:53,10.1.1.5,12,0.000,0.000,0.000,-0.000,0.000,0.000
1640659796103426816,2021-12-28-02:49:56,10.1.1.5,11,0.000,0.000,0.000,-0.000,0.000,0.000
1640659798207079936,2021-12-28-02:49:58,10.1.1.5,6,0.000,0.000,0.000,-0.000,0.000,0.000
1640659800288662784,2021-12-28-02:50:00,10.1.1.5,5,0.000,0.000,0.000,-0.000,0.000,0.000
1640659802389694976,2021-12-28-02:50:02,10.1.1.5,7,0.000,0.000,0.000,-0.000,0.000,0.000
1640659804469531136,2021-12-28-02:50:04,10.1.1.5,0,0.000,0.000,0.000,-0.000,0.000,0.000
1640659806588289024,2021-12-28-02:50:06,10.1.1.5,3,0.000,0.000,0.000,-0.000,0.000,0.000
1640659808706878976,2021-12-28-02:50:08,10.1.1.5,5,0.000,0.000,0.000,-0.000,0.000,0.000
1640659810825229824,2021-12-28-02:50:10,10.1.1.5,10,0.000,0.000,0.000,-0.000,0.000,0.000
1640659812921303040,2021-12-28-02:50:12,10.1.1.5,6,0.000,0.000,0.000,-0.000,0.000,0.000
1640659815018178816,2021-12-28-02:50:15,10.1.1.5,1,0.000,0.000,0.000,-0.000,0.000,0.000
1640659817140594944,2021-12-28-02:50:17,10.1.1.5,5,0.000,0.000,0.000,-0.000,0.000,0.000
1640659819252155136,2021-12-28-02:50:19,10.1.1.5,2,0.000,0.000,0.000,-0.000,0.000,0.000
1640659821349011968,2021-12-28-02:50:21,10.1.1.5,5,0.000,0.000,0.000,-0.000,0.000,0.000
1640659823489211136,2021-12-28-02:50:23,10.1.1.5,18,0.000,0.000,0.000,-0.000,0.000,0.000
1640659825597950976,2021-12-28-02:50:25,10.1.1.5,15,0.000,0.000,0.000,-0.000,0.000,0.000
1640659827704015872,2021-12-28-02:50:27,10.1.1.5,17,0.000,0.000,0.000,-0.000,0.000,0.000
1640659829789558016,2021-12-28-02:50:29,10.1.1.5,2,0.000,0.000,0.000,-0.000,0.000,0.000
1640659831909765120,2021-12-28-02:50:31,10.1.1.5,9,0.000,0.000,0.000,-0.000,0.000,0.000
1640659834031008000,2021-12-28-02:50:34,10.1.1.5,5,0.000,0.000,0.000,-0.000,0.000,0.000
1640659836111154176,2021-12-28-02:50:36,10.1.1.5,11,0.000,0.000,0.000,-0.000,0.000,0.000
1640659838230993152,2021-12-28-02:50:38,10.1.1.5,2,0.000,0.000,0.000,-0.000,0.000,0.000
1640659840327985152,2021-12-28-02:50:40,10.1.1.5,15,0.000,0.000,0.000,-0.000,0.000,0.000
1640659842425620992,2021-12-28-02:50:42,10.1.1.5,11,0.000,0.000,0.000,-0.000,0.000,0.000
1640659844505182976,2021-12-28-02:50:44,10.1.1.5,12,0.000,0.000,0.000,-0.000,0.000,0.000
1640659846601227008,2021-12-28-02:50:46,10.1.1.5,4,0.000,0.000,0.000,-0.000,0.000,0.000
1640659848757071872,2021-12-28-02:50:48,10.1.1.5,16,0.000,0.000,0.000,-0.000,0.000,0.000
1640659850873974016,2021-12-28-02:50:50,10.1.1.5,3,0.000,0.000,0.000,-0.000,0.000,0.000
1640659852993117952,2021-12-28-02:50:52,10.1.1.5,1,0.000,0.000,0.000,-0.000,0.000,0.000
1640659855088012032,2021-12-28-02:50:55,10.1.1.5,3,0.000,0.000,0.000,-0.000,0.000,0.000
1640659857212743168,2021-12-28-02:50:57,10.1.1.5,9,0.000,0.000,0.000,-0.000,0.000,0.000
1640659859280051968,2021-12-28-02:50:59,10.1.1.5,1,0.000,0.000,0.000,-0.000,0.000,0.000
1640659861384388096,2021-12-28-02:51:01,10.1.1.5,16,0.000,0.000,0.000,-0.000,0.000,0.000
1640659863488521984,2021-12-28-02:51:03,10.1.1.5,4,0.000,0.000,0.000,-0.000,0.000,0.000
1640659865589425920,2021-12-28-02:51:05,10.1.1.5,5,0.000,0.000,0.000,-0.000,0.000,0.000
1640659867728892160,2021-12-28-02:51:07,10.1.1.5,14,0.000,0.000,0.000,-0.000,0.000,0.000
1640659869849576960,2021-12-28-02:51:09,10.1.1.5,17,0.000,0.000,0.000,-0.000,0.000,0.000
1640659871946685952,2021-12-28-02:51:11,10.1.1.5,4,0.000,0.000,0.000,-0.000,0.000,0.000
1640659874044846080,2021-12-28-02:51:14,10.1.1.5,3,0.000,0.000,0.000,-0.000,0.000,0.000
1640659876142644992,2021-12-28-02:51:16,10.1.1.5,13,0.000,0.000,0.000,-0.000,0.000,0.000
1640659878201564160,2021-12-28-02:51:18,10.1.1.5,2,0.000,0.000,0.000,-0.000,0.000,0.000
1640659880297219072,2021-12-28-02:51:20,10.1.1.5,19,0.000,0.000,0.000,-0.000,0.000,0.000
1640659882353719040,2021-12-28-02:51:22,10.1.1.5,7,0.000,0.000,0.000,-0.000,0.000,0.000
1640659884410608128,2021-12-28-02:51:24,10.1.1.5,1,0.000,0.000,0.000,-0.000,0.000,0.000
1640659886506569984,2021-12-28-02:51:26,10.1.1.5,11,0.000,0.000,0.000,-0.000,0.000,0.000
1640659888590276864,2021-12-28-02:51:28,10.1.1.5,3,0.000,0.000,0.000,-0.000,0.000,0.000
1640659890697422080,2021-12-28-02:51:30,10.1.1.5,14,0.000,0.000,0.000,-0.000,0.000,0.000
1640659892803185920,2021-12-28-02:51:32,10.1.1.5,11,0.000,0.000,0.000,-0.000,0.000,0.000
1640659894887600896,2021-12-28-02:51:34,10.1.1.5,0,0.000,0.000,0.000,-0.000,0.000,0.000
1640659897009044992,2021-12-28-02:51:37,10.1.1.5,9,0.000,0.000,0.000,-0.000,0.000,0.000
1640659899109232896,2021-12-28-02:51:39,10.1.1.5,11,0.000,0.000,0.000,-0.000,0.000,0.000
1640659901208589056,2021-12-28-02:51:41,10.1.1.5,18,0.000,0.000,0.000,-0.000,0.000,0.000
1640659903267482880,2021-12-28-02:51:43,10.1.1.5,4,0.000,0.000,0.000,-0.000,0.000,0.000
1640659905405980160,2021-12-28-02:51:45,10.1.1.5,9,0.000,0.000,0.000,-0.000,0.000,0.000
1640659907503411968,2021-12-28-02:51:47,10.1.1.5,10,0.000,0.000,0.000,-0.000,0.000,0.000
1640659909581744896,2021-12-28-02:51:49,10.1.1.5,11,0.000,0.000,0.000,-0.000,0.000,0.000
1640659911657680128,2021-12-28-02:51:51,10.1.1.5,14,0.000,0.000,0.000,-0.000,0.000,0.000
1640659913754918144,2021-12-28-02:51:53,10.1.1.5,6,0.000,0.000,0.000,-0.000,0.000,0.000
1640659915891831040,2021-12-28-02:51:55,10.1.1.5,18,0.000,0.000,0.000,-0.000,0.000,0.000
1640659917969688064,2021-12-28-02:51:57,10.1.1.5,7,0.000,0.000,0.000,-0.000,0.000,0.000
1640659920048525056,2021-12-28-02:52:00,10.1.1.5,4,0.000,0.000,0.000,-0.000,0.000,0.000
1640659922136487936,2021-12-28-02:52:02,10.1.1.5,1,0.000,0.000,0.000,-0.000,0.000,0.000
1640659924242258176,2021-12-28-02:52:04,10.1.1.5,8,0.000,0.000,0.000,-0.000,0.000,0.000
1640659926346408960,2021-12-28-02:52:06,10.1.1.5,18,0.000,0.000,0.000,-0.000,0.000,0.000
1640659928448952832,2021-12-28-02:52:08,10.1.1.5,15,0.000,0.000,0.000,-0.000,0.000,0.000
1640659930509774080,2021-12-28-02:52:10,10.1.1.5,1,0.000,0.000,0.000,-0.000,0.000,0.000
1640659932611203840,2021-12-28-02:52:12,10.1.1.5,17,0.000,0.000,0.000,-0.000,0.000,0.000
1640659934709381120,2021-12-28-02:52:14,10.1.1.5,3,0.000,0.000,0.000,-0.000,0.000,0.000
1640659936825810944,2021-12-28-02:52:16,10.1.1.5,19,0.000,0.000,0.000,-0.000,0.000,0.000
1640659938905002240,2021-12-28-02:52:18,10.1.1.5,8,0.000,0.000,0.000,-0.000,0.000,0.000
1640659941024175872,2021-12-28-02:52:21,10.1.1.5,11,0.000,0.000,0.000,-0.000,0.000,0.000
1640659943159676928,2021-12-28-02:52:23,10.1.1.5,14,0.000,0.000,0.000,-0.000,0.000,0.000
1640659945256936192,2021-12-28-02:52:25,10.1.1.5,5,0.000,0.000,0.000,-0.000,0.000,0.000
1640659947372723200,2021-12-28-02:52:27,10.1.1.5,9,0.000,0.000,0.000,-0.000,0.000,0.000
1640659949473704960,2021-12-28-02:52:29,10.1.1.5,3,0.000,0.000,0.000,-0.000,0.000,0.000
1640659951547133952,2021-12-28-02:52:31,10.1.1.5,17,0.000,0.000,0.000,-0.000,0.000,0.000
1640659953634531072,2021-12-28-02:52:33,10.1.1.5,4,0.000,0.000,0.000,-0.000,0.000,0.000
1640659955766721024,2021-12-28-02:52:35,10.1.1.5,4,0.000,0.000,0.000,-0.000,0.000,0.000
1640659957887186176,2021-12-28-02:52:37,10.1.1.5,9,0.000,0.000,0.000,-0.000,0.000,0.000
1640659959970572032,2021-12-28-02:52:39,10.1.1.5,1,0.000,0.000,0.000,-0.000,0.000,0.000
1640659962070964224,2021-12-28-02:52:42,10.1.1.5,14,0.000,0.000,0.000,-0.000,0.000,0.000
1640659964172169984,2021-12-28-02:52:44,10.1.1.5,17,0.000,0.000,0.000,-0.000,0.000,0.000
1640659966230691072,2021-12-28-02:52:46,10.1.1.5,11,0.000,0.000,0.000,-0.000,0.000,0.000
1640659968329488896,2021-12-28-02:52:48,10.1.1.5,18,0.000,0.000,0.000,-0.000,0.000,0.000
1640659970427737856,2021-12-28-02:52:50,10.1.1.5,2,0.000,0.000,0.000,-0.000,0.000,0.000
1640659974661585920,2021-12-28-02:52:54,10.1.1.5,18,0.000,0.000,0.000,-0.000,0.000,0.000
1640659976719276032,2021-12-28-02:52:56,10.1.1.5,3,0.000,0.000,0.000,-0.000,0.000,0.000
1640659978797955072,2021-12-28-02:52:58,10.1.1.5,7,0.000,0.000,0.000,-0.000,0.000,0.000
1640659980892806144,2021-12-28-02:53:00,10.1.1.5,9,0.000,0.000,0.000,-0.000,0.000,0.000
1640659982949292032,2021-12-28-02:53:02,10.1.1.5,14,0.000,0.000,0.000,-0.000,0.000,0.000
1640659985005961984,2021-12-28-02:53:05,10.1.1.5,14,0.000,0.000,0.000,-0.000,0.000,0.000
1640659987075077120,2021-12-28-02:53:07,10.1.1.5,11,0.000,0.000,0.000,-0.000,0.000,0.000
1640659989163585792,2021-12-28-02:53:09,10.1.1.5,2,0.000,0.000,0.000,-0.000,0.000,0.000
1640659991286348032,2021-12-28-02:53:11,10.1.1.5,16,0.000,0.000,0.000,-0.000,0.000,0.000
1640659993368963840,2021-12-28-02:53:13,10.1.1.5,8,0.000,0.000,0.000,-0.000,0.000,0.000
1640659995489344000,2021-12-28-02:53:15,10.1.1.5,7,0.000,0.000,0.000,-0.000,0.000,0.000
1640659997569190144,2021-12-28-02:53:17,10.1.1.5,20,0.000,0.000,0.000,-0.000,0.000,0.000
1640659999629048064,2021-12-28-02:53:19,10.1.1.5,18,0.000,0.000,0.000,-0.000,0.000,0.000
1640660001706888960,2021-12-28-02:53:21,10.1.1.5,3,0.000,0.000,0.000,-0.000,0.000,0.000
1640660003824590080,2021-12-28-02:53:23,10.1.1.5,13,0.000,0.000,0.000,-0.000,0.000,0.000
1640660005941875968,2021-12-28-02:53:25,10.1.1.5,11,0.000,0.000,0.000,-0.000,0.000,0.000
1640660008039354112,2021-12-28-02:53:28,10.1.1.5,16,0.000,0.000,0.000,-0.000,0.000,0.000
1640660010097165056,2021-12-28-02:53:30,10.1.1.5,1,0.000,0.000,0.000,-0.000,0.000,0.000
1640660012173337088,2021-12-28-02:53:32,10.1.1.5,11,0.000,0.000,0.000,-0.000,0.000,0.000
1640660014269591040,2021-12-28-02:53:34,10.1.1.5,17,0.000,0.000,0.000,-0.000,0.000,0.000
1640660016385818112,2021-12-28-02:53:36,10.1.1.5,10,0.000,0.000,0.000,-0.000,0.000,0.000
1640660018493483008,2021-12-28-02:53:38,10.1.1.5,5,0.000,0.000,0.000,-0.000,0.000,0.000
1640660020580562176,2021-12-28-02:53:40,10.1.1.5,4,0.000,0.000,0.000,-0.000,0.000,0.000
1640660022725096960,2021-12-28-02:53:42,10.1.1.5,17,0.000,0.000,0.000,-0.000,0.000,0.000
1640660024808379904,2021-12-28-02:53:44,10.1.1.5,5,0.000,0.000,0.000,-0.000,0.000,0.000
1640660026889395968,2021-12-28-02:53:46,10.1.1.5,7,0.000,0.000,0.000,-0.000,0.000,0.000
1640660028969472768,2021-12-28-02:53:48,10.1.1.5,16,0.000,0.000,0.000,-0.000,0.000,0.000
1640660031069334016,2021-12-28-02:53:51,10.1.1.5,10,0.000,0.000,0.000,-0.000,0.000,0.000
1640660033187529984,2021-12-28-02:53:53,10.1.1.5,11,0.000,0.000,0.000,-0.000,0.000,0.000
1640660035306226944,2021-12-28-02:53:55,10.1.1.5,4,0.000,0.000,0.000,-0.000,0.000,0.000
1640660037382695936,2021-12-28-02:53:57,10.1.1.5,4,0.000,0.000,0.000,-0.000,0.000,0.000
1640660039481700864,2021-12-28-02:53:59,10.1.1.5,1,0.000,0.000,0.000,-0.000,0.000,0.000
1640660041577302016,2021-12-28-02:54:01,10.1.1.5,3,0.000,0.000,0.000,-0.000,0.000,0.000
1640660043634772992,2021-12-28-02:54:03,10.1.1.5,6,0.000,0.000,0.000,-0.000,0.000,0.000
1640660045712270080,2021-12-28-02:54:05,10.1.1.5,12,0.000,0.000,0.000,-0.000,0.000,0.000
1640660047786847232,2021-12-28-02:54:07,10.1.1.5,8,0.000,0.000,0.000,-0.000,0.000,0.000
1640660049850797824,2021-12-28-02:54:09,10.1.1.5,3,0.000,0.000,0.000,-0.000,0.000,0.000
1640660051960088064,2021-12-28-02:54:11,10.1.1.5,17,0.000,0.000,0.000,-0.000,0.000,0.000
1640660054067307008,2021-12-28-02:54:14,10.1.1.5,17,0.000,0.000,0.000,-0.000,0.000,0.000
1640660056150635008,2021-12-28-02:54:16,10.1.1.5,5,0.000,0.000,0.000,-0.000,0.000,0.000
1640660058229639936,2021-12-28-02:54:18,10.1.1.5,2,0.000,0.000,0.000,-0.000,0.000,0.000
1640660060349805056,2021-12-28-02:54:20,10.1.1.5,16,0.000,0.000,0.000,-0.000,0.000,0.000
1640660062449399040,2021-12-28-02:54:22,10.1.1.5,18,0.000,0.000,0.000,-0.000,0.000,0.000
1640660064509481984,2021-12-28-02:54:24,10.1.1.5,1,0.000,0.000,0.000,-0.000,0.000,0.000
1640660066627311872,2021-12-28-02:54:26,10.1.1.5,17,0.000,0.000,0.000,-0.000,0.000,0.000
1640660068744105216,2021-12-28-02:54:28,10.1.1.5,16,0.000,0.000,0.000,-0.000,0.000,0.000
1640660070841511936,2021-12-28-02:54:30,10.1.1.5,12,0.000,0.000,0.000,-0.000,0.000,0.000
1640660072978888960,2021-12-28-02:54:32,10.1.1.5,8,0.000,0.000,0.000,-0.000,0.000,0.000
1640660075057095936,2021-12-28-02:54:35,10.1.1.5,3,0.000,0.000,0.000,-0.000,0.000,0.000
1640660077172136192,2021-12-28-02:54:37,10.1.1.5,4,0.000,0.000,0.000,-0.000,0.000,0.000
1640660079308546048,2021-12-28-02:54:39,10.1.1.5,14,0.000,0.000,0.000,-0.000,0.000,0.000
1640660081429657088,2021-12-28-02:54:41,10.1.1.5,16,0.000,0.000,0.000,-0.000,0.000,0.000
