FedericoMungari/DigitalTwin_service/02_LTEScenario/Output/Output_script/script_ROSAPI_output_robots8_freq0_2.txt.csv
timestamp,node,latency,joint_1,joint_2,joint_3,joint_4,joint_5,joint_6
1640068681344100096,"2021-12-21,06:38:01",10.1.1.3,5114,0.000,0.000,0.000,0.000,0.000,0.000
1640068683630807040,"2021-12-21,06:38:03",10.1.1.3,287,-0.010,-0.010,-0.010,0.000,0.000,0.000
1640068683662074112,"2021-12-21,06:38:03",10.1.1.3,0.31881284713745117,-0.010,-0.010,-0.010,0.000,0.000,0.000
1640068683962227200,"2021-12-21,06:38:03",10.1.1.3,298,-0.020,-0.020,-0.020,0.000,0.000,0.000
1640068683978375936,"2021-12-21,06:38:03",10.1.1.3,0.3151261806488037,-0.020,-0.020,-0.020,0.000,0.000,0.000
1640068684289459968,"2021-12-21,06:38:04",10.1.1.3,309,-0.030,-0.030,-0.030,0.000,0.000,0.000
1640068684355017984,"2021-12-21,06:38:04",10.1.1.3,0.3753378391265869,-0.030,-0.030,-0.030,0.000,0.000,0.000
1640068684658864128,"2021-12-21,06:38:04",10.1.1.3,302,-0.040,-0.040,-0.040,0.000,0.000,0.000
1640068684682873088,"2021-12-21,06:38:04",10.1.1.3,0.32652783393859863,-0.040,-0.040,-0.040,0.000,0.000,0.000
1640068684978471936,"2021-12-21,06:38:04",10.1.1.3,294,-0.050,-0.050,-0.050,0.000,0.000,0.000
1640068685003752960,"2021-12-21,06:38:05",10.1.1.3,0.3195068836212158,-0.050,-0.050,-0.050,0.000,0.000,0.000
1640068685307135232,"2021-12-21,06:38:05",10.1.1.3,301,-0.060,-0.060,-0.060,0.000,0.000,0.000
1640068685317020928,"2021-12-21,06:38:05",10.1.1.3,0.31178903579711914,-0.060,-0.060,-0.060,0.000,0.000,0.000
1640068685626672896,"2021-12-21,06:38:05",10.1.1.3,308,-0.070,-0.070,-0.070,0.000,0.000,0.000
1640068685641388032,"2021-12-21,06:38:05",10.1.1.3,0.3227579593658447,-0.070,-0.070,-0.070,0.000,0.000,0.000
1640068685946877952,"2021-12-21,06:38:05",10.1.1.3,304,-0.080,-0.080,-0.080,0.000,0.000,0.000
1640068685958235136,"2021-12-21,06:38:05",10.1.1.3,0.31537413597106934,-0.080,-0.080,-0.080,0.000,0.000,0.000
1640068686277971968,"2021-12-21,06:38:06",10.1.1.3,318,-0.090,-0.090,-0.090,0.000,0.000,0.000
1640068686282241024,"2021-12-21,06:38:06",10.1.1.3,0.32268214225769043,-0.090,-0.090,-0.090,0.000,0.000,0.000
1640068686579708160,"2021-12-21,06:38:06",10.1.1.3,296,-0.100,-0.100,-0.100,0.000,0.000,0.000
1640068686625019136,"2021-12-21,06:38:06",10.1.1.3,0.34136199951171875,-0.100,-0.100,-0.100,0.000,0.000,0.000
1640068686941764096,"2021-12-21,06:38:06",10.1.1.3,315,-0.110,-0.110,-0.110,0.000,0.000,0.000
1640068686943012864,"2021-12-21,06:38:06",10.1.1.3,0.3168010711669922,-0.110,-0.110,-0.110,0.000,0.000,0.000
1640068687232968192,"2021-12-21,06:38:07",10.1.1.3,288,-0.120,-0.120,-0.120,0.000,0.000,0.000
1640068687254422784,"2021-12-21,06:38:07",10.1.1.3,0.3101649284362793,-0.120,-0.120,-0.120,0.000,0.000,0.000
1640068687575130112,"2021-12-21,06:38:07",10.1.1.3,319,-0.130,-0.130,-0.130,0.000,0.000,0.000
1640068687590981888,"2021-12-21,06:38:07",10.1.1.3,0.33489108085632324,-0.130,-0.130,-0.130,0.000,0.000,0.000
1640068687936688896,"2021-12-21,06:38:07",10.1.1.3,343,-0.140,-0.140,-0.140,0.000,0.000,0.000
1640068687978797056,"2021-12-21,06:38:07",10.1.1.3,0.3857300281524658,-0.140,-0.140,-0.140,0.000,0.000,0.000
1640068688298590976,"2021-12-21,06:38:08",10.1.1.3,318,-0.150,-0.150,-0.150,0.000,0.000,0.000
1640068688319179008,"2021-12-21,06:38:08",10.1.1.3,0.3387479782104492,-0.150,-0.150,-0.150,0.000,0.000,0.000
1640068689302006016,"2021-12-21,06:38:09",10.1.1.3,981,-0.160,-0.160,-0.160,0.000,0.000,0.000
1640068689319830016,"2021-12-21,06:38:09",10.1.1.3,0.9993340969085693,-0.160,-0.160,-0.160,0.000,0.000,0.000
1640068689683069952,"2021-12-21,06:38:09",10.1.1.3,361,-0.170,-0.170,-0.170,0.000,0.000,0.000
1640068689754669056,"2021-12-21,06:38:09",10.1.1.3,0.43351292610168457,-0.170,-0.170,-0.170,0.000,0.000,0.000
1640068690063909888,"2021-12-21,06:38:10",10.1.1.3,307,-0.180,-0.180,-0.180,0.000,0.000,0.000
1640068690094894848,"2021-12-21,06:38:10",10.1.1.3,0.33892393112182617,-0.180,-0.180,-0.180,0.000,0.000,0.000
1640068690434716928,"2021-12-21,06:38:10",10.1.1.3,338,-0.190,-0.190,-0.190,0.000,0.000,0.000
1640068690508666112,"2021-12-21,06:38:10",10.1.1.3,0.41254615783691406,-0.190,-0.190,-0.190,0.000,0.000,0.000
1640068690806076928,"2021-12-21,06:38:10",10.1.1.3,295,-0.200,-0.200,-0.200,0.000,0.000,0.000
1640068690837573888,"2021-12-21,06:38:10",10.1.1.3,0.32718396186828613,-0.200,-0.200,-0.200,0.000,0.000,0.000
1640068691127081984,"2021-12-21,06:38:11",10.1.1.3,288,-0.210,-0.210,-0.210,0.000,0.000,0.000
1640068691150635008,"2021-12-21,06:38:11",10.1.1.3,0.31162190437316895,-0.210,-0.210,-0.210,0.000,0.000,0.000
1640068691467573760,"2021-12-21,06:38:11",10.1.1.3,315,-0.220,-0.220,-0.220,0.000,0.000,0.000
1640068691497862144,"2021-12-21,06:38:11",10.1.1.3,0.34586620330810547,-0.220,-0.220,-0.220,0.000,0.000,0.000
1640068691819098112,"2021-12-21,06:38:11",10.1.1.3,315,-0.230,-0.230,-0.230,0.000,0.000,0.000
1640068691840410880,"2021-12-21,06:38:11",10.1.1.3,0.33679986000061035,-0.230,-0.230,-0.230,0.000,0.000,0.000
1640068692139522048,"2021-12-21,06:38:12",10.1.1.3,297,-0.240,-0.240,-0.240,0.000,0.000,0.000
1640068692164001024,"2021-12-21,06:38:12",10.1.1.3,0.32232117652893066,-0.240,-0.240,-0.240,0.000,0.000,0.000
1640068692459664128,"2021-12-21,06:38:12",10.1.1.3,294,-0.250,-0.250,-0.250,0.000,0.000,0.000
1640068692481360896,"2021-12-21,06:38:12",10.1.1.3,0.3161449432373047,-0.250,-0.250,-0.250,0.000,0.000,0.000
1640068692790004992,"2021-12-21,06:38:12",10.1.1.3,307,-0.260,-0.260,-0.260,0.000,0.000,0.000
1640068692796989952,"2021-12-21,06:38:12",10.1.1.3,0.31423211097717285,-0.260,-0.260,-0.260,0.000,0.000,0.000
1640068693113306112,"2021-12-21,06:38:13",10.1.1.3,314,-0.270,-0.270,-0.270,0.000,0.000,0.000
1640068693146675200,"2021-12-21,06:38:13",10.1.1.3,0.347869873046875,-0.270,-0.270,-0.270,0.000,0.000,0.000
1640068693452333824,"2021-12-21,06:38:13",10.1.1.3,303,-0.280,-0.280,-0.280,0.000,0.000,0.000
1640068693473344000,"2021-12-21,06:38:13",10.1.1.3,0.32465696334838867,-0.280,-0.280,-0.280,0.000,0.000,0.000
1640068693791091968,"2021-12-21,06:38:13",10.1.1.3,316,-0.290,-0.290,-0.290,0.000,0.000,0.000
1640068693823390976,"2021-12-21,06:38:13",10.1.1.3,0.34865403175354004,-0.290,-0.290,-0.290,0.000,0.000,0.000
1640068694160759040,"2021-12-21,06:38:14",10.1.1.3,336,-0.300,-0.300,-0.300,0.000,0.000,0.000
1640068694169326080,"2021-12-21,06:38:14",10.1.1.3,0.34467101097106934,-0.300,-0.300,-0.300,0.000,0.000,0.000
1640068694492190976,"2021-12-21,06:38:14",10.1.1.3,321,-0.310,-0.310,-0.310,0.000,0.000,0.000
1640068694515821824,"2021-12-21,06:38:14",10.1.1.3,0.34505486488342285,-0.310,-0.310,-0.310,0.000,0.000,0.000
1640068694833646080,"2021-12-21,06:38:14",10.1.1.3,316,-0.320,-0.320,-0.320,0.000,0.000,0.000
1640068694869182208,"2021-12-21,06:38:14",10.1.1.3,0.35176682472229004,-0.320,-0.320,-0.320,0.000,0.000,0.000
1640068695192236800,"2021-12-21,06:38:15",10.1.1.3,321,-0.330,-0.330,-0.330,0.000,0.000,0.000
1640068695205015040,"2021-12-21,06:38:15",10.1.1.3,0.3346569538116455,-0.330,-0.330,-0.330,0.000,0.000,0.000
1640068695539654912,"2021-12-21,06:38:15",10.1.1.3,333,-0.340,-0.340,-0.340,0.000,0.000,0.000
1640068695543009024,"2021-12-21,06:38:15",10.1.1.3,0.3367040157318115,-0.340,-0.340,-0.340,0.000,0.000,0.000
1640068695854078976,"2021-12-21,06:38:15",10.1.1.3,309,-0.350,-0.350,-0.350,0.000,0.000,0.000
1640068695899537920,"2021-12-21,06:38:15",10.1.1.3,0.3547060489654541,-0.350,-0.350,-0.350,0.000,0.000,0.000
1640068696222883840,"2021-12-21,06:38:16",10.1.1.3,321,-0.360,-0.360,-0.360,0.000,0.000,0.000
1640068696248402176,"2021-12-21,06:38:16",10.1.1.3,0.3472788333892822,-0.360,-0.360,-0.360,0.000,0.000,0.000
1640068696563393024,"2021-12-21,06:38:16",10.1.1.3,313,-0.370,-0.370,-0.370,0.000,0.000,0.000
1640068696577785088,"2021-12-21,06:38:16",10.1.1.3,0.3280148506164551,-0.370,-0.370,-0.370,0.000,0.000,0.000
1640068696874345984,"2021-12-21,06:38:16",10.1.1.3,295,-0.380,-0.380,-0.380,0.000,0.000,0.000
1640068696902775040,"2021-12-21,06:38:16",10.1.1.3,0.3237309455871582,-0.380,-0.380,-0.380,0.000,0.000,0.000
1640068697204068864,"2021-12-21,06:38:17",10.1.1.3,300,-0.390,-0.390,-0.390,0.000,0.000,0.000
1640068697229888000,"2021-12-21,06:38:17",10.1.1.3,0.32593297958374023,-0.390,-0.390,-0.390,0.000,0.000,0.000
1640068697564114176,"2021-12-21,06:38:17",10.1.1.3,332,-0.400,-0.400,-0.400,0.000,0.000,0.000
1640068697588538880,"2021-12-21,06:38:17",10.1.1.3,0.35712409019470215,-0.400,-0.400,-0.400,0.000,0.000,0.000
1640068697903741952,"2021-12-21,06:38:17",10.1.1.3,313,-0.410,-0.410,-0.410,0.000,0.000,0.000
1640068697931377920,"2021-12-21,06:38:17",10.1.1.3,0.34101009368896484,-0.410,-0.410,-0.410,0.000,0.000,0.000
1640068698256571904,"2021-12-21,06:38:18",10.1.1.3,322,-0.420,-0.420,-0.420,0.000,0.000,0.000
1640068698305531136,"2021-12-21,06:38:18",10.1.1.3,0.3717951774597168,-0.420,-0.420,-0.420,0.000,0.000,0.000
1640068698603250944,"2021-12-21,06:38:18",10.1.1.3,296,-0.430,-0.430,-0.430,0.000,0.000,0.000
1640068698638789888,"2021-12-21,06:38:18",10.1.1.3,0.3317999839782715,-0.430,-0.430,-0.430,0.000,0.000,0.000
1640068698922723072,"2021-12-21,06:38:18",10.1.1.3,282,-0.440,-0.440,-0.440,0.000,0.000,0.000
1640068698959887872,"2021-12-21,06:38:18",10.1.1.3,0.3195641040802002,-0.440,-0.440,-0.440,0.000,0.000,0.000
1640068699254995968,"2021-12-21,06:38:19",10.1.1.3,291,-0.450,-0.450,-0.450,0.000,0.000,0.000
1640068699273521920,"2021-12-21,06:38:19",10.1.1.3,0.31067800521850586,-0.450,-0.450,-0.450,0.000,0.000,0.000
1640068699563753984,"2021-12-21,06:38:19",10.1.1.3,288,-0.460,-0.460,-0.460,0.000,0.000,0.000
1640068699597764096,"2021-12-21,06:38:19",10.1.1.3,0.322598934173584,-0.460,-0.460,-0.460,0.000,0.000,0.000
1640068699893938176,"2021-12-21,06:38:19",10.1.1.3,293,-0.470,-0.470,-0.470,0.000,0.000,0.000
1640068699935688960,"2021-12-21,06:38:19",10.1.1.3,0.3350811004638672,-0.470,-0.470,-0.470,0.000,0.000,0.000
1640068700242592000,"2021-12-21,06:38:20",10.1.1.3,305,-0.480,-0.480,-0.480,0.000,0.000,0.000
1640068700257328128,"2021-12-21,06:38:20",10.1.1.3,0.32008790969848633,-0.480,-0.480,-0.480,0.000,0.000,0.000
1640068700553623808,"2021-12-21,06:38:20",10.1.1.3,294,-0.490,-0.490,-0.490,0.000,0.000,0.000
1640068700586532096,"2021-12-21,06:38:20",10.1.1.3,0.3278341293334961,-0.490,-0.490,-0.490,0.000,0.000,0.000
1640068700902318848,"2021-12-21,06:38:20",10.1.1.3,313,-0.480,-0.480,-0.480,0.000,0.000,0.000
1640068700921933824,"2021-12-21,06:38:20",10.1.1.3,0.33329200744628906,-0.480,-0.480,-0.480,0.000,0.000,0.000
1640068701252664064,"2021-12-21,06:38:21",10.1.1.3,328,-0.470,-0.470,-0.470,0.000,0.000,0.000
1640068701311443968,"2021-12-21,06:38:21",10.1.1.3,0.38712120056152344,-0.470,-0.470,-0.470,0.000,0.000,0.000
1640068701611734016,"2021-12-21,06:38:21",10.1.1.3,298,-0.460,-0.460,-0.460,0.000,0.000,0.000
1640068701644978944,"2021-12-21,06:38:21",10.1.1.3,0.33222508430480957,-0.460,-0.460,-0.460,0.000,0.000,0.000
1640068701941248768,"2021-12-21,06:38:21",10.1.1.3,294,-0.450,-0.450,-0.450,0.000,0.000,0.000
1640068701967636992,"2021-12-21,06:38:21",10.1.1.3,0.32120203971862793,-0.450,-0.450,-0.450,0.000,0.000,0.000
1640068702290417920,"2021-12-21,06:38:22",10.1.1.3,318,-0.440,-0.440,-0.440,0.000,0.000,0.000
1640068702306024192,"2021-12-21,06:38:22",10.1.1.3,0.3332350254058838,-0.440,-0.440,-0.440,0.000,0.000,0.000
1640068702621460992,"2021-12-21,06:38:22",10.1.1.3,310,-0.430,-0.430,-0.430,0.000,0.000,0.000
1640068702650942208,"2021-12-21,06:38:22",10.1.1.3,0.3403639793395996,-0.430,-0.430,-0.430,0.000,0.000,0.000
1640068702992224000,"2021-12-21,06:38:22",10.1.1.3,339,-0.420,-0.420,-0.420,0.000,0.000,0.000
1640068703030131200,"2021-12-21,06:38:23",10.1.1.3,0.37716197967529297,-0.420,-0.420,-0.420,0.000,0.000,0.000
1640068703351345920,"2021-12-21,06:38:23",10.1.1.3,319,-0.410,-0.410,-0.410,0.000,0.000,0.000
1640068703391607040,"2021-12-21,06:38:23",10.1.1.3,0.35959696769714355,-0.410,-0.410,-0.410,0.000,0.000,0.000
1640068703763086080,"2021-12-21,06:38:23",10.1.1.3,369,-0.400,-0.400,-0.400,0.000,0.000,0.000
1640068703830948096,"2021-12-21,06:38:23",10.1.1.3,0.43777894973754883,-0.400,-0.400,-0.400,0.000,0.000,0.000
1640068704129324800,"2021-12-21,06:38:24",10.1.1.3,296,-0.390,-0.390,-0.390,0.000,0.000,0.000
1640068704153163008,"2021-12-21,06:38:24",10.1.1.3,0.320814847946167,-0.390,-0.390,-0.390,0.000,0.000,0.000
1640068704458662912,"2021-12-21,06:38:24",10.1.1.3,302,-0.380,-0.380,-0.380,0.000,0.000,0.000
1640068704512541952,"2021-12-21,06:38:24",10.1.1.3,0.3564729690551758,-0.380,-0.380,-0.380,0.000,0.000,0.000
1640068704819526912,"2021-12-21,06:38:24",10.1.1.3,305,-0.370,-0.370,-0.370,0.000,0.000,0.000
1640068704842354944,"2021-12-21,06:38:24",10.1.1.3,0.3284881114959717,-0.370,-0.370,-0.370,0.000,0.000,0.000
1640068705181219072,"2021-12-21,06:38:25",10.1.1.3,337,-0.360,-0.360,-0.360,0.000,0.000,0.000
1640068705202406912,"2021-12-21,06:38:25",10.1.1.3,0.35829997062683105,-0.360,-0.360,-0.360,0.000,0.000,0.000
1640068705520163072,"2021-12-21,06:38:25",10.1.1.3,316,-0.350,-0.350,-0.350,0.000,0.000,0.000
1640068705523399168,"2021-12-21,06:38:25",10.1.1.3,0.3197901248931885,-0.350,-0.350,-0.350,0.000,0.000,0.000
1640068705827826944,"2021-12-21,06:38:25",10.1.1.3,303,-0.340,-0.340,-0.340,0.000,0.000,0.000
1640068705855746048,"2021-12-21,06:38:25",10.1.1.3,0.33092689514160156,-0.340,-0.340,-0.340,0.000,0.000,0.000
1640068706167236096,"2021-12-21,06:38:26",10.1.1.3,309,-0.330,-0.330,-0.330,0.000,0.000,0.000
1640068706176232960,"2021-12-21,06:38:26",10.1.1.3,0.31859707832336426,-0.330,-0.330,-0.330,0.000,0.000,0.000
1640068706476783872,"2021-12-21,06:38:26",10.1.1.3,298,-0.320,-0.320,-0.320,0.000,0.000,0.000
1640068706507657984,"2021-12-21,06:38:26",10.1.1.3,0.32976579666137695,-0.320,-0.320,-0.320,0.000,0.000,0.000
1640068706826617856,"2021-12-21,06:38:26",10.1.1.3,317,-0.310,-0.310,-0.310,0.000,0.000,0.000
1640068706887904768,"2021-12-21,06:38:26",10.1.1.3,0.378187894821167,-0.310,-0.310,-0.310,0.000,0.000,0.000
1640068707215908096,"2021-12-21,06:38:27",10.1.1.3,326,-0.300,-0.300,-0.300,0.000,0.000,0.000
1640068707223369984,"2021-12-21,06:38:27",10.1.1.3,0.33379411697387695,-0.300,-0.300,-0.300,0.000,0.000,0.000
1640068707546447872,"2021-12-21,06:38:27",10.1.1.3,321,-0.290,-0.290,-0.290,0.000,0.000,0.000
1640068707604367104,"2021-12-21,06:38:27",10.1.1.3,0.37967991828918457,-0.290,-0.290,-0.290,0.000,0.000,0.000
1640068707965293056,"2021-12-21,06:38:27",10.1.1.3,359,-0.280,-0.280,-0.280,0.000,0.000,0.000
1640068707975963136,"2021-12-21,06:38:27",10.1.1.3,0.3701448440551758,-0.280,-0.280,-0.280,0.000,0.000,0.000
1640068708314280960,"2021-12-21,06:38:28",10.1.1.3,336,-0.270,-0.270,-0.270,0.000,0.000,0.000
1640068708331571968,"2021-12-21,06:38:28",10.1.1.3,0.3535640239715576,-0.270,-0.270,-0.270,0.000,0.000,0.000
1640068708630008832,"2021-12-21,06:38:28",10.1.1.3,297,-0.260,-0.260,-0.260,0.000,0.000,0.000
1640068708652242944,"2021-12-21,06:38:28",10.1.1.3,0.31939005851745605,-0.260,-0.260,-0.260,0.000,0.000,0.000
1640068708963691008,"2021-12-21,06:38:28",10.1.1.3,310,-0.250,-0.250,-0.250,0.000,0.000,0.000
1640068709007628800,"2021-12-21,06:38:29",10.1.1.3,0.3542048931121826,-0.250,-0.250,-0.250,0.000,0.000,0.000
1640068709333585920,"2021-12-21,06:38:29",10.1.1.3,323,-0.240,-0.240,-0.240,0.000,0.000,0.000
1640068709362437888,"2021-12-21,06:38:29",10.1.1.3,0.3529698848724365,-0.240,-0.240,-0.240,0.000,0.000,0.000
1640068709652678912,"2021-12-21,06:38:29",10.1.1.3,288,-0.230,-0.230,-0.230,0.000,0.000,0.000
1640068709677911040,"2021-12-21,06:38:29",10.1.1.3,0.3134911060333252,-0.230,-0.230,-0.230,0.000,0.000,0.000
1640068709992541184,"2021-12-21,06:38:29",10.1.1.3,313,-0.220,-0.220,-0.220,0.000,0.000,0.000
1640068710003528960,"2021-12-21,06:38:30",10.1.1.3,0.32433509826660156,-0.220,-0.220,-0.220,0.000,0.000,0.000
1640068710332704000,"2021-12-21,06:38:30",10.1.1.3,327,-0.210,-0.210,-0.210,0.000,0.000,0.000
1640068710384617984,"2021-12-21,06:38:30",10.1.1.3,0.37960290908813477,-0.210,-0.210,-0.210,0.000,0.000,0.000
1640068710711746816,"2021-12-21,06:38:30",10.1.1.3,325,-0.200,-0.200,-0.200,0.000,0.000,0.000
1640068710720396032,"2021-12-21,06:38:30",10.1.1.3,0.3338429927825928,-0.200,-0.200,-0.200,0.000,0.000,0.000
1640068711021352960,"2021-12-21,06:38:31",10.1.1.3,299,-0.190,-0.190,-0.190,0.000,0.000,0.000
1640068711056368128,"2021-12-21,06:38:31",10.1.1.3,0.334730863571167,-0.190,-0.190,-0.190,0.000,0.000,0.000
1640068711360346112,"2021-12-21,06:38:31",10.1.1.3,302,-0.180,-0.180,-0.180,0.000,0.000,0.000
1640068711405522176,"2021-12-21,06:38:31",10.1.1.3,0.34758806228637695,-0.180,-0.180,-0.180,0.000,0.000,0.000
1640068711700148224,"2021-12-21,06:38:31",10.1.1.3,292,-0.170,-0.170,-0.170,0.000,0.000,0.000
1640068711725400064,"2021-12-21,06:38:31",10.1.1.3,0.31811094284057617,-0.170,-0.170,-0.170,0.000,0.000,0.000
1640068712020119808,"2021-12-21,06:38:32",10.1.1.3,292,-0.160,-0.160,-0.160,0.000,0.000,0.000
1640068712068609024,"2021-12-21,06:38:32",10.1.1.3,0.34128308296203613,-0.160,-0.160,-0.160,0.000,0.000,0.000
1640068712399180800,"2021-12-21,06:38:32",10.1.1.3,329,-0.150,-0.150,-0.150,0.000,0.000,0.000
1640068712417521920,"2021-12-21,06:38:32",10.1.1.3,0.34770703315734863,-0.150,-0.150,-0.150,0.000,0.000,0.000
1640068712707834880,"2021-12-21,06:38:32",10.1.1.3,289,-0.140,-0.140,-0.140,0.000,0.000,0.000
1640068712746743040,"2021-12-21,06:38:32",10.1.1.3,0.32804393768310547,-0.140,-0.140,-0.140,0.000,0.000,0.000
1640068713057678080,"2021-12-21,06:38:33",10.1.1.3,309,-0.130,-0.130,-0.130,0.000,0.000,0.000
1640068713129105920,"2021-12-21,06:38:33",10.1.1.3,0.38118696212768555,-0.130,-0.130,-0.130,0.000,0.000,0.000
1640068713417382912,"2021-12-21,06:38:33",10.1.1.3,286,-0.120,-0.120,-0.120,0.000,0.000,0.000
1640068713475756800,"2021-12-21,06:38:33",10.1.1.3,0.3454458713531494,-0.120,-0.120,-0.120,0.000,0.000,0.000
1640068713818120960,"2021-12-21,06:38:33",10.1.1.3,340,-0.110,-0.110,-0.110,0.000,0.000,0.000
1640068713833146112,"2021-12-21,06:38:33",10.1.1.3,0.3558039665222168,-0.110,-0.110,-0.110,0.000,0.000,0.000
1640068714155847936,"2021-12-21,06:38:34",10.1.1.3,313,-0.100,-0.100,-0.100,0.000,0.000,0.000
1640068714169528064,"2021-12-21,06:38:34",10.1.1.3,0.3273789882659912,-0.100,-0.100,-0.100,0.000,0.000,0.000
1640068714465358848,"2021-12-21,06:38:34",10.1.1.3,294,-0.090,-0.090,-0.090,0.000,0.000,0.000
1640068714497436928,"2021-12-21,06:38:34",10.1.1.3,0.32665514945983887,-0.090,-0.090,-0.090,0.000,0.000,0.000
1640068714825551104,"2021-12-21,06:38:34",10.1.1.3,326,-0.080,-0.080,-0.080,0.000,0.000,0.000
1640068714842046976,"2021-12-21,06:38:34",10.1.1.3,0.3433198928833008,-0.080,-0.080,-0.080,0.000,0.000,0.000
1640068715134994944,"2021-12-21,06:38:35",10.1.1.3,291,-0.070,-0.070,-0.070,0.000,0.000,0.000
1640068715165148928,"2021-12-21,06:38:35",10.1.1.3,0.3218550682067871,-0.070,-0.070,-0.070,0.000,0.000,0.000
1640068715515620864,"2021-12-21,06:38:35",10.1.1.3,348,-0.060,-0.060,-0.060,0.000,0.000,0.000
1640068715516984064,"2021-12-21,06:38:35",10.1.1.3,0.35006284713745117,-0.060,-0.060,-0.060,0.000,0.000,0.000
1640068715824170240,"2021-12-21,06:38:35",10.1.1.3,304,-0.050,-0.050,-0.050,0.000,0.000,0.000
1640068715857177088,"2021-12-21,06:38:35",10.1.1.3,0.33808302879333496,-0.050,-0.050,-0.050,0.000,0.000,0.000
1640068716182455040,"2021-12-21,06:38:36",10.1.1.3,321,-0.040,-0.040,-0.040,0.000,0.000,0.000
1640068716216222976,"2021-12-21,06:38:36",10.1.1.3,0.3556230068206787,-0.040,-0.040,-0.040,0.000,0.000,0.000
1640068716513124864,"2021-12-21,06:38:36",10.1.1.3,294,-0.030,-0.030,-0.030,0.000,0.000,0.000
1640068716535693824,"2021-12-21,06:38:36",10.1.1.3,0.31732606887817383,-0.030,-0.030,-0.030,0.000,0.000,0.000
1640068716872631040,"2021-12-21,06:38:36",10.1.1.3,334,-0.020,-0.020,-0.020,0.000,0.000,0.000
1640068716913403136,"2021-12-21,06:38:36",10.1.1.3,0.3754231929779053,-0.020,-0.020,-0.020,0.000,0.000,0.000
1640068717241088000,"2021-12-21,06:38:37",10.1.1.3,326,-0.010,-0.010,-0.010,0.000,0.000,0.000
1640068717246716928,"2021-12-21,06:38:37",10.1.1.3,0.33187103271484375,-0.010,-0.010,-0.010,0.000,0.000,0.000
1640068717562242048,"2021-12-21,06:38:37",10.1.1.3,313,0.000,0.000,0.000,0.000,0.000,0.000
1640068717601799936,"2021-12-21,06:38:37",10.1.1.3,0.3527510166168213,0.000,0.000,0.000,0.000,0.000,0.000
1640068718081576960,"2021-12-21,06:38:38",10.1.1.3,477,-0.010,-0.010,-0.010,0.000,0.000,0.000
1640068718120225024,"2021-12-21,06:38:38",10.1.1.3,0.5160610675811768,-0.010,-0.010,-0.010,0.000,0.000,0.000
1640068718431816192,"2021-12-21,06:38:38",10.1.1.3,310,-0.020,-0.020,-0.020,0.000,0.000,0.000
1640068718499481856,"2021-12-21,06:38:38",10.1.1.3,0.37795400619506836,-0.020,-0.020,-0.020,0.000,0.000,0.000
1640068718825121024,"2021-12-21,06:38:38",10.1.1.3,323,-0.030,-0.030,-0.030,0.000,0.000,0.000
1640068718854619136,"2021-12-21,06:38:38",10.1.1.3,0.3531460762023926,-0.030,-0.030,-0.030,0.000,0.000,0.000
1640068719145849088,"2021-12-21,06:38:39",10.1.1.3,289,-0.040,-0.040,-0.040,0.000,0.000,0.000
1640068719181438976,"2021-12-21,06:38:39",10.1.1.3,0.3254990577697754,-0.040,-0.040,-0.040,0.000,0.000,0.000
1640068719486681856,"2021-12-21,06:38:39",10.1.1.3,303,-0.050,-0.050,-0.050,0.000,0.000,0.000
1640068719518863872,"2021-12-21,06:38:39",10.1.1.3,0.33610105514526367,-0.050,-0.050,-0.050,0.000,0.000,0.000
1640068719859011840,"2021-12-21,06:38:39",10.1.1.3,338,-0.060,-0.060,-0.060,0.000,0.000,0.000
1640068719910289152,"2021-12-21,06:38:39",10.1.1.3,0.3898890018463135,-0.060,-0.060,-0.060,0.000,0.000,0.000
1640068720209899776,"2021-12-21,06:38:40",10.1.1.3,297,-0.070,-0.070,-0.070,0.000,0.000,0.000
1640068720264027136,"2021-12-21,06:38:40",10.1.1.3,0.35218095779418945,-0.070,-0.070,-0.070,0.000,0.000,0.000
1640068720562117120,"2021-12-21,06:38:40",10.1.1.3,296,-0.080,-0.080,-0.080,0.000,0.000,0.000
1640068720589520896,"2021-12-21,06:38:40",10.1.1.3,0.32366490364074707,-0.080,-0.080,-0.080,0.000,0.000,0.000
1640068720882354944,"2021-12-21,06:38:40",10.1.1.3,289,-0.090,-0.090,-0.090,0.000,0.000,0.000
1640068720915674880,"2021-12-21,06:38:40",10.1.1.3,0.32290005683898926,-0.090,-0.090,-0.090,0.000,0.000,0.000
1640068721243546112,"2021-12-21,06:38:41",10.1.1.3,326,-0.100,-0.100,-0.100,0.000,0.000,0.000
1640068721253027072,"2021-12-21,06:38:41",10.1.1.3,0.33576393127441406,-0.100,-0.100,-0.100,0.000,0.000,0.000
1640068721574402048,"2021-12-21,06:38:41",10.1.1.3,319,-0.110,-0.110,-0.110,0.000,0.000,0.000
1640068721584441856,"2021-12-21,06:38:41",10.1.1.3,0.3302309513092041,-0.110,-0.110,-0.110,0.000,0.000,0.000
1640068721905107968,"2021-12-21,06:38:41",10.1.1.3,319,-0.120,-0.120,-0.120,0.000,0.000,0.000
1640068721934337024,"2021-12-21,06:38:41",10.1.1.3,0.34868288040161133,-0.120,-0.120,-0.120,0.000,0.000,0.000
1640068722245952000,"2021-12-21,06:38:42",10.1.1.3,310,-0.130,-0.130,-0.130,0.000,0.000,0.000
1640068722287324928,"2021-12-21,06:38:42",10.1.1.3,0.3518030643463135,-0.130,-0.130,-0.130,0.000,0.000,0.000
1640068722616749056,"2021-12-21,06:38:42",10.1.1.3,0.3269999027252197,-0.140,-0.140,-0.140,0.000,0.000,0.000
1640068722618587904,"2021-12-21,06:38:42",10.1.1.3,328,-0.140,-0.140,-0.140,0.000,0.000,0.000
1640068722918006016,"2021-12-21,06:38:42",10.1.1.3,298,-0.150,-0.150,-0.150,0.000,0.000,0.000
1640068722951180032,"2021-12-21,06:38:42",10.1.1.3,0.33214497566223145,-0.150,-0.150,-0.150,0.000,0.000,0.000
1640068723278412032,"2021-12-21,06:38:43",10.1.1.3,324,-0.160,-0.160,-0.160,0.000,0.000,0.000
1640068723319441152,"2021-12-21,06:38:43",10.1.1.3,0.36536502838134766,-0.160,-0.160,-0.160,0.000,0.000,0.000
1640068723658991104,"2021-12-21,06:38:43",10.1.1.3,337,-0.170,-0.170,-0.170,0.000,0.000,0.000
1640068723683849216,"2021-12-21,06:38:43",10.1.1.3,0.36251187324523926,-0.170,-0.170,-0.170,0.000,0.000,0.000
1640068724030109952,"2021-12-21,06:38:44",10.1.1.3,344,-0.180,-0.180,-0.180,0.000,0.000,0.000
1640068724045239040,"2021-12-21,06:38:44",10.1.1.3,0.36010313034057617,-0.180,-0.180,-0.180,0.000,0.000,0.000
1640068724370565888,"2021-12-21,06:38:44",10.1.1.3,323,-0.190,-0.190,-0.190,0.000,0.000,0.000
1640068724381020928,"2021-12-21,06:38:44",10.1.1.3,0.3343470096588135,-0.190,-0.190,-0.190,0.000,0.000,0.000
1640068724723952896,"2021-12-21,06:38:44",10.1.1.3,339,-0.200,-0.200,-0.200,0.000,0.000,0.000
1640068724745730048,"2021-12-21,06:38:44",10.1.1.3,0.36159396171569824,-0.200,-0.200,-0.200,0.000,0.000,0.000
1640068725040890880,"2021-12-21,06:38:45",10.1.1.3,293,-0.210,-0.210,-0.210,0.000,0.000,0.000
1640068725067377152,"2021-12-21,06:38:45",10.1.1.3,0.3198099136352539,-0.210,-0.210,-0.210,0.000,0.000,0.000
1640068725391824896,"2021-12-21,06:38:45",10.1.1.3,322,-0.220,-0.220,-0.220,0.000,0.000,0.000
1640068725420456960,"2021-12-21,06:38:45",10.1.1.3,0.3515620231628418,-0.220,-0.220,-0.220,0.000,0.000,0.000
1640068725733530880,"2021-12-21,06:38:45",10.1.1.3,311,-0.230,-0.230,-0.230,0.000,0.000,0.000
1640068725755954944,"2021-12-21,06:38:45",10.1.1.3,0.33434009552001953,-0.230,-0.230,-0.230,0.000,0.000,0.000
1640068726071639040,"2021-12-21,06:38:46",10.1.1.3,313,-0.240,-0.240,-0.240,0.000,0.000,0.000
1640068726168813824,"2021-12-21,06:38:46",10.1.1.3,0.4112281799316406,-0.240,-0.240,-0.240,0.000,0.000,0.000
1640068726493175040,"2021-12-21,06:38:46",10.1.1.3,323,-0.250,-0.250,-0.250,0.000,0.000,0.000
1640068726533252096,"2021-12-21,06:38:46",10.1.1.3,0.363131046295166,-0.250,-0.250,-0.250,0.000,0.000,0.000
1640068726852883968,"2021-12-21,06:38:46",10.1.1.3,318,-0.260,-0.260,-0.260,0.000,0.000,0.000
1640068726912178944,"2021-12-21,06:38:46",10.1.1.3,0.3775761127471924,-0.260,-0.260,-0.260,0.000,0.000,0.000
1640068727232892928,"2021-12-21,06:38:47",10.1.1.3,319,-0.270,-0.270,-0.270,0.000,0.000,0.000
1640068727258295040,"2021-12-21,06:38:47",10.1.1.3,0.3448200225830078,-0.270,-0.270,-0.270,0.000,0.000,0.000
1640068727573411840,"2021-12-21,06:38:47",10.1.1.3,307,-0.280,-0.280,-0.280,0.000,0.000,0.000
1640068727603562240,"2021-12-21,06:38:47",10.1.1.3,0.337554931640625,-0.280,-0.280,-0.280,0.000,0.000,0.000
1640068727965425920,"2021-12-21,06:38:47",10.1.1.3,0.3605818748474121,-0.290,-0.290,-0.290,0.000,0.000,0.000
1640068727966209792,"2021-12-21,06:38:47",10.1.1.3,361,-0.290,-0.290,-0.290,0.000,0.000,0.000
1640068728283060992,"2021-12-21,06:38:48",10.1.1.3,311,-0.300,-0.300,-0.300,0.000,0.000,0.000
1640068728327186944,"2021-12-21,06:38:48",10.1.1.3,0.35596203804016113,-0.300,-0.300,-0.300,0.000,0.000,0.000
1640068728662802944,"2021-12-21,06:38:48",10.1.1.3,334,-0.310,-0.310,-0.310,0.000,0.000,0.000
1640068728684453888,"2021-12-21,06:38:48",10.1.1.3,0.35605692863464355,-0.310,-0.310,-0.310,0.000,0.000,0.000
1640068729002949120,"2021-12-21,06:38:49",10.1.1.3,317,-0.320,-0.320,-0.320,0.000,0.000,0.000
1640068729031838976,"2021-12-21,06:38:49",10.1.1.3,0.3460960388183594,-0.320,-0.320,-0.320,0.000,0.000,0.000
1640068729303800064,"2021-12-21,06:38:49",10.1.1.3,270,-0.330,-0.330,-0.330,0.000,0.000,0.000
1640068729345370880,"2021-12-21,06:38:49",10.1.1.3,0.3117561340332031,-0.330,-0.330,-0.330,0.000,0.000,0.000
1640068729653538048,"2021-12-21,06:38:49",10.1.1.3,306,-0.340,-0.340,-0.340,0.000,0.000,0.000
1640068729695136000,"2021-12-21,06:38:49",10.1.1.3,0.3481769561767578,-0.340,-0.340,-0.340,0.000,0.000,0.000
1640068729993093120,"2021-12-21,06:38:49",10.1.1.3,296,-0.350,-0.350,-0.350,0.000,0.000,0.000
1640068730017563136,"2021-12-21,06:38:50",10.1.1.3,0.32096099853515625,-0.350,-0.350,-0.350,0.000,0.000,0.000
1640068730352904960,"2021-12-21,06:38:50",10.1.1.3,329,-0.360,-0.360,-0.360,0.000,0.000,0.000
1640068730374435840,"2021-12-21,06:38:50",10.1.1.3,0.35157299041748047,-0.360,-0.360,-0.360,0.000,0.000,0.000
1640068730711934976,"2021-12-21,06:38:50",10.1.1.3,335,-0.370,-0.370,-0.370,0.000,0.000,0.000
1640068730720786944,"2021-12-21,06:38:50",10.1.1.3,0.3444027900695801,-0.370,-0.370,-0.370,0.000,0.000,0.000
1640068731032646912,"2021-12-21,06:38:51",10.1.1.3,308,-0.380,-0.380,-0.380,0.000,0.000,0.000
1640068731057116928,"2021-12-21,06:38:51",10.1.1.3,0.33259105682373047,-0.380,-0.380,-0.380,0.000,0.000,0.000
1640068731376365056,"2021-12-21,06:38:51",10.1.1.3,317,-0.390,-0.390,-0.390,0.000,0.000,0.000
1640068731408765184,"2021-12-21,06:38:51",10.1.1.3,0.3502788543701172,-0.390,-0.390,-0.390,0.000,0.000,0.000
1640068731742734080,"2021-12-21,06:38:51",10.1.1.3,332,-0.400,-0.400,-0.400,0.000,0.000,0.000
1640068731748271872,"2021-12-21,06:38:51",10.1.1.3,0.33820104598999023,-0.400,-0.400,-0.400,0.000,0.000,0.000
1640068732144131072,"2021-12-21,06:38:52",10.1.1.3,390,-0.410,-0.410,-0.410,0.000,0.000,0.000
1640068732157203968,"2021-12-21,06:38:52",10.1.1.3,0.4039912223815918,-0.410,-0.410,-0.410,0.000,0.000,0.000
1640068732491420928,"2021-12-21,06:38:52",10.1.1.3,318,-0.420,-0.420,-0.420,0.000,0.000,0.000
1640068732531574016,"2021-12-21,06:38:52",10.1.1.3,0.35894107818603516,-0.420,-0.420,-0.420,0.000,0.000,0.000
1640068732882724096,"2021-12-21,06:38:52",10.1.1.3,342,-0.430,-0.430,-0.430,0.000,0.000,0.000
1640068732932856064,"2021-12-21,06:38:52",10.1.1.3,0.39206600189208984,-0.430,-0.430,-0.430,0.000,0.000,0.000
1640068733294505984,"2021-12-21,06:38:53",10.1.1.3,360,-0.440,-0.440,-0.440,0.000,0.000,0.000
1640068733317344000,"2021-12-21,06:38:53",10.1.1.3,0.379457950592041,-0.440,-0.440,-0.440,0.000,0.000,0.000
1640068733722497024,"2021-12-21,06:38:53",10.1.1.3,391,-0.450,-0.450,-0.450,0.000,0.000,0.000
1640068733748441856,"2021-12-21,06:38:53",10.1.1.3,0.41698694229125977,-0.450,-0.450,-0.450,0.000,0.000,0.000
1640068734120644096,"2021-12-21,06:38:54",10.1.1.3,368,-0.460,-0.460,-0.460,0.000,0.000,0.000
1640068734158862080,"2021-12-21,06:38:54",10.1.1.3,0.40674304962158203,-0.460,-0.460,-0.460,0.000,0.000,0.000
1640068734500082944,"2021-12-21,06:38:54",10.1.1.3,338,-0.470,-0.470,-0.470,0.000,0.000,0.000
1640068734514767872,"2021-12-21,06:38:54",10.1.1.3,0.3536689281463623,-0.470,-0.470,-0.470,0.000,0.000,0.000
1640068734839622144,"2021-12-21,06:38:54",10.1.1.3,322,-0.480,-0.480,-0.480,0.000,0.000,0.000
1640068734873532160,"2021-12-21,06:38:54",10.1.1.3,0.35665011405944824,-0.480,-0.480,-0.480,0.000,0.000,0.000
1640068735300566016,"2021-12-21,06:38:55",10.1.1.3,419,-0.490,-0.490,-0.490,0.000,0.000,0.000
1640068735335438080,"2021-12-21,06:38:55",10.1.1.3,0.4558568000793457,-0.490,-0.490,-0.490,0.000,0.000,0.000
1640068735708996096,"2021-12-21,06:38:55",10.1.1.3,363,-0.480,-0.480,-0.480,0.000,0.000,0.000
1640068735790427904,"2021-12-21,06:38:55",10.1.1.3,0.44472503662109375,-0.480,-0.480,-0.480,0.000,0.000,0.000
1640068736128258048,"2021-12-21,06:38:56",10.1.1.3,335,-0.470,-0.470,-0.470,0.000,0.000,0.000
1640068736159238144,"2021-12-21,06:38:56",10.1.1.3,0.36690807342529297,-0.470,-0.470,-0.470,0.000,0.000,0.000
1640068736557992960,"2021-12-21,06:38:56",10.1.1.3,396,-0.460,-0.460,-0.460,0.000,0.000,0.000
1640068736589299968,"2021-12-21,06:38:56",10.1.1.3,0.42825913429260254,-0.460,-0.460,-0.460,0.000,0.000,0.000
1640068736948321024,"2021-12-21,06:38:56",10.1.1.3,357,-0.450,-0.450,-0.450,0.000,0.000,0.000
1640068736980274944,"2021-12-21,06:38:56",10.1.1.3,0.38860607147216797,-0.450,-0.450,-0.450,0.000,0.000,0.000
1640068737342114048,"2021-12-21,06:38:57",10.1.1.3,360,-0.440,-0.440,-0.440,0.000,0.000,0.000
1640068737437697024,"2021-12-21,06:38:57",10.1.1.3,0.4558370113372803,-0.440,-0.440,-0.440,0.000,0.000,0.000
1640068737775937024,"2021-12-21,06:38:57",10.1.1.3,330,-0.430,-0.430,-0.430,0.000,0.000,0.000
1640068737791734016,"2021-12-21,06:38:57",10.1.1.3,0.3394138813018799,-0.430,-0.430,-0.430,0.000,0.000,0.000
1640068738171376896,"2021-12-21,06:38:58",10.1.1.3,377,-0.420,-0.420,-0.420,0.000,0.000,0.000
1640068738229520128,"2021-12-21,06:38:58",10.1.1.3,0.4357478618621826,-0.420,-0.420,-0.420,0.000,0.000,0.000
1640068738575927040,"2021-12-21,06:38:58",10.1.1.3,339,-0.410,-0.410,-0.410,0.000,0.000,0.000
1640068738612286976,"2021-12-21,06:38:58",10.1.1.3,0.3760709762573242,-0.410,-0.410,-0.410,0.000,0.000,0.000
1640068738968851968,"2021-12-21,06:38:58",10.1.1.3,352,-0.400,-0.400,-0.400,0.000,0.000,0.000
1640068739018311936,"2021-12-21,06:38:59",10.1.1.3,0.4016270637512207,-0.400,-0.400,-0.400,0.000,0.000,0.000
1640068739374991872,"2021-12-21,06:38:59",10.1.1.3,354,-0.390,-0.390,-0.390,0.000,0.000,0.000
1640068739431497216,"2021-12-21,06:38:59",10.1.1.3,0.4108090400695801,-0.390,-0.390,-0.390,0.000,0.000,0.000
1640068739753609984,"2021-12-21,06:38:59",10.1.1.3,319,-0.380,-0.380,-0.380,0.000,0.000,0.000
1640068739805725184,"2021-12-21,06:38:59",10.1.1.3,0.3712198734283447,-0.380,-0.380,-0.380,0.000,0.000,0.000
1640068740153949952,"2021-12-21,06:39:00",10.1.1.3,346,-0.370,-0.370,-0.370,0.000,0.000,0.000
1640068740188770048,"2021-12-21,06:39:00",10.1.1.3,0.3817100524902344,-0.370,-0.370,-0.370,0.000,0.000,0.000
1640068740548350976,"2021-12-21,06:39:00",10.1.1.3,352,-0.360,-0.360,-0.360,0.000,0.000,0.000
1640068740552768000,"2021-12-21,06:39:00",10.1.1.3,0.3627159595489502,-0.360,-0.360,-0.360,0.000,0.000,0.000
1640068740884784896,"2021-12-21,06:39:00",10.1.1.3,330,-0.350,-0.350,-0.350,0.000,0.000,0.000
1640068740948121088,"2021-12-21,06:39:00",10.1.1.3,0.39385390281677246,-0.350,-0.350,-0.350,0.000,0.000,0.000
1640068741281671168,"2021-12-21,06:39:01",10.1.1.3,332,-0.340,-0.340,-0.340,0.000,0.000,0.000
1640068741294065920,"2021-12-21,06:39:01",10.1.1.3,0.344573974609375,-0.340,-0.340,-0.340,0.000,0.000,0.000
1640068741601691904,"2021-12-21,06:39:01",10.1.1.3,306,-0.330,-0.330,-0.330,0.000,0.000,0.000
1640068741632931072,"2021-12-21,06:39:01",10.1.1.3,0.3373141288757324,-0.330,-0.330,-0.330,0.000,0.000,0.000
1640068741951694848,"2021-12-21,06:39:01",10.1.1.3,315,-0.320,-0.320,-0.320,0.000,0.000,0.000
1640068742002338816,"2021-12-21,06:39:02",10.1.1.3,0.3666858673095703,-0.320,-0.320,-0.320,0.000,0.000,0.000
1640068742342818048,"2021-12-21,06:39:02",10.1.1.3,338,-0.310,-0.310,-0.310,0.000,0.000,0.000
1640068742395858944,"2021-12-21,06:39:02",10.1.1.3,0.3911151885986328,-0.310,-0.310,-0.310,0.000,0.000,0.000
1640068742699908096,"2021-12-21,06:39:02",10.1.1.3,301,-0.300,-0.300,-0.300,0.000,0.000,0.000
1640068742757607936,"2021-12-21,06:39:02",10.1.1.3,0.3596949577331543,-0.300,-0.300,-0.300,0.000,0.000,0.000
1640068743100192000,"2021-12-21,06:39:03",10.1.1.3,340,-0.290,-0.290,-0.290,0.000,0.000,0.000
1640068743151079936,"2021-12-21,06:39:03",10.1.1.3,0.391265869140625,-0.290,-0.290,-0.290,0.000,0.000,0.000
1640068743469562112,"2021-12-21,06:39:03",10.1.1.3,317,-0.280,-0.280,-0.280,0.000,0.000,0.000
1640068743496361984,"2021-12-21,06:39:03",10.1.1.3,0.3439788818359375,-0.280,-0.280,-0.280,0.000,0.000,0.000
1640068743819026944,"2021-12-21,06:39:03",10.1.1.3,319,-0.270,-0.270,-0.270,0.000,0.000,0.000
1640068743855584000,"2021-12-21,06:39:03",10.1.1.3,0.3566250801086426,-0.270,-0.270,-0.270,0.000,0.000,0.000
1640068744157880064,"2021-12-21,06:39:04",10.1.1.3,298,-0.260,-0.260,-0.260,0.000,0.000,0.000
1640068744243597056,"2021-12-21,06:39:04",10.1.1.3,0.3841071128845215,-0.260,-0.260,-0.260,0.000,0.000,0.000
1640068744547638784,"2021-12-21,06:39:04",10.1.1.3,302,-0.250,-0.250,-0.250,0.000,0.000,0.000
1640068744616726016,"2021-12-21,06:39:04",10.1.1.3,0.37056493759155273,-0.250,-0.250,-0.250,0.000,0.000,0.000
1640068744976427008,"2021-12-21,06:39:04",10.1.1.3,358,-0.240,-0.240,-0.240,0.000,0.000,0.000
1640068745040365824,"2021-12-21,06:39:05",10.1.1.3,0.4220240116119385,-0.240,-0.240,-0.240,0.000,0.000,0.000
1640068745359513088,"2021-12-21,06:39:05",10.1.1.3,317,-0.230,-0.230,-0.230,0.000,0.000,0.000
1640068745388120832,"2021-12-21,06:39:05",10.1.1.3,0.34349703788757324,-0.230,-0.230,-0.230,0.000,0.000,0.000
1640068745715579904,"2021-12-21,06:39:05",10.1.1.3,323,-0.220,-0.220,-0.220,0.000,0.000,0.000
1640068745769767168,"2021-12-21,06:39:05",10.1.1.3,0.37798500061035156,-0.220,-0.220,-0.220,0.000,0.000,0.000
1640068746164261120,"2021-12-21,06:39:06",10.1.1.3,393,-0.210,-0.210,-0.210,0.000,0.000,0.000
1640068746204958976,"2021-12-21,06:39:06",10.1.1.3,0.43386220932006836,-0.210,-0.210,-0.210,0.000,0.000,0.000
1640068746575366912,"2021-12-21,06:39:06",10.1.1.3,363,-0.200,-0.200,-0.200,0.000,0.000,0.000
1640068746630515968,"2021-12-21,06:39:06",10.1.1.3,0.41901493072509766,-0.200,-0.200,-0.200,0.000,0.000,0.000
1640068747014273024,"2021-12-21,06:39:07",10.1.1.3,382,-0.190,-0.190,-0.190,0.000,0.000,0.000
1640068747066843136,"2021-12-21,06:39:07",10.1.1.3,0.4350461959838867,-0.190,-0.190,-0.190,0.000,0.000,0.000
1640068747422743040,"2021-12-21,06:39:07",10.1.1.3,353,-0.180,-0.180,-0.180,0.000,0.000,0.000
1640068747456841984,"2021-12-21,06:39:07",10.1.1.3,0.3874070644378662,-0.180,-0.180,-0.180,0.000,0.000,0.000
1640068747811706112,"2021-12-21,06:39:07",10.1.1.3,346,-0.170,-0.170,-0.170,0.000,0.000,0.000
1640068747843496192,"2021-12-21,06:39:07",10.1.1.3,0.37796497344970703,-0.170,-0.170,-0.170,0.000,0.000,0.000
1640068748220755200,"2021-12-21,06:39:08",10.1.1.3,375,-0.160,-0.160,-0.160,0.000,0.000,0.000
1640068748276514048,"2021-12-21,06:39:08",10.1.1.3,0.4315910339355469,-0.160,-0.160,-0.160,0.000,0.000,0.000
1640068748670337024,"2021-12-21,06:39:08",10.1.1.3,391,-0.150,-0.150,-0.150,0.000,0.000,0.000
1640068748718381056,"2021-12-21,06:39:08",10.1.1.3,0.43624401092529297,-0.150,-0.150,-0.150,0.000,0.000,0.000
1640068749050131200,"2021-12-21,06:39:09",10.1.1.3,330,-0.140,-0.140,-0.140,0.000,0.000,0.000
1640068749121262080,"2021-12-21,06:39:09",10.1.1.3,0.40154480934143066,-0.140,-0.140,-0.140,0.000,0.000,0.000
1640068749439316992,"2021-12-21,06:39:09",10.1.1.3,316,-0.130,-0.130,-0.130,0.000,0.000,0.000
1640068749474515968,"2021-12-21,06:39:09",10.1.1.3,0.3517649173736572,-0.130,-0.130,-0.130,0.000,0.000,0.000
1640068749779126016,"2021-12-21,06:39:09",10.1.1.3,303,-0.120,-0.120,-0.120,0.000,0.000,0.000
1640068749827984128,"2021-12-21,06:39:09",10.1.1.3,0.3520967960357666,-0.120,-0.120,-0.120,0.000,0.000,0.000
1640068750159890944,"2021-12-21,06:39:10",10.1.1.3,329,-0.110,-0.110,-0.110,0.000,0.000,0.000
1640068750172910848,"2021-12-21,06:39:10",10.1.1.3,0.34297704696655273,-0.110,-0.110,-0.110,0.000,0.000,0.000
1640068750470753024,"2021-12-21,06:39:10",10.1.1.3,295,-0.100,-0.100,-0.100,0.000,0.000,0.000
1640068750506660096,"2021-12-21,06:39:10",10.1.1.3,0.3314640522003174,-0.100,-0.100,-0.100,0.000,0.000,0.000
1640068750823652864,"2021-12-21,06:39:10",10.1.1.3,315,-0.090,-0.090,-0.090,0.000,0.000,0.000
1640068750842214144,"2021-12-21,06:39:10",10.1.1.3,0.33429598808288574,-0.090,-0.090,-0.090,0.000,0.000,0.000
1640068751165915904,"2021-12-21,06:39:11",10.1.1.3,318,-0.080,-0.080,-0.080,0.000,0.000,0.000
1640068751217561856,"2021-12-21,06:39:11",10.1.1.3,0.3701159954071045,-0.080,-0.080,-0.080,0.000,0.000,0.000
1640068751646569984,"2021-12-21,06:39:11",10.1.1.3,426,-0.070,-0.070,-0.070,0.000,0.000,0.000
1640068751689014784,"2021-12-21,06:39:11",10.1.1.3,0.46870994567871094,-0.070,-0.070,-0.070,0.000,0.000,0.000
1640068752071933952,"2021-12-21,06:39:12",10.1.1.3,381,-0.060,-0.060,-0.060,0.000,0.000,0.000
1640068752150619904,"2021-12-21,06:39:12",10.1.1.3,0.4602088928222656,-0.060,-0.060,-0.060,0.000,0.000,0.000
1640068752621484032,"2021-12-21,06:39:12",10.1.1.3,469,-0.050,-0.050,-0.050,0.000,0.000,0.000
1640068752657000192,"2021-12-21,06:39:12",10.1.1.3,0.5046629905700684,-0.050,-0.050,-0.050,0.000,0.000,0.000
1640068752993773056,"2021-12-21,06:39:12",10.1.1.3,335,-0.040,-0.040,-0.040,0.000,0.000,0.000
1640068753024286976,"2021-12-21,06:39:13",10.1.1.3,0.3659970760345459,-0.040,-0.040,-0.040,0.000,0.000,0.000
1640068753424848128,"2021-12-21,06:39:13",10.1.1.3,398,-0.030,-0.030,-0.030,0.000,0.000,0.000
1640068753477700096,"2021-12-21,06:39:13",10.1.1.3,0.45168018341064453,-0.030,-0.030,-0.030,0.000,0.000,0.000
1640068753842499072,"2021-12-21,06:39:13",10.1.1.3,362,-0.020,-0.020,-0.020,0.000,0.000,0.000
1640068753864896000,"2021-12-21,06:39:13",10.1.1.3,0.38507509231567383,-0.020,-0.020,-0.020,0.000,0.000,0.000
1640068754386979072,"2021-12-21,06:39:14",10.1.1.3,519,-0.010,-0.010,-0.010,0.000,0.000,0.000
1640068754462460928,"2021-12-21,06:39:14",10.1.1.3,0.5956830978393555,-0.010,-0.010,-0.010,0.000,0.000,0.000
1640068754787954176,"2021-12-21,06:39:14",10.1.1.3,322,0.000,0.000,0.000,0.000,0.000,0.000
1640068754847326976,"2021-12-21,06:39:14",10.1.1.3,0.3816349506378174,0.000,0.000,0.000,0.000,0.000,0.000
1640068755148278016,"2021-12-21,06:39:15",10.1.1.3,299,-0.010,-0.010,-0.010,0.000,0.000,0.000
1640068755188676096,"2021-12-21,06:39:15",10.1.1.3,0.34001803398132324,-0.010,-0.010,-0.010,0.000,0.000,0.000
1640068755509038848,"2021-12-21,06:39:15",10.1.1.3,317,-0.020,-0.020,-0.020,0.000,0.000,0.000
1640068755558217984,"2021-12-21,06:39:15",10.1.1.3,0.36710190773010254,-0.020,-0.020,-0.020,0.000,0.000,0.000
1640068755870809088,"2021-12-21,06:39:15",10.1.1.3,311,-0.030,-0.030,-0.030,0.000,0.000,0.000
1640068755937558016,"2021-12-21,06:39:15",10.1.1.3,0.37587594985961914,-0.030,-0.030,-0.030,0.000,0.000,0.000
1640068755957313024,"2021-12-21,06:39:15",10.1.1.3,-1,-0.040,-0.040,-0.040,0.000,0.000,0.000
1640068756360402176,"2021-12-21,06:39:16",10.1.1.3,0.40869998931884766,-0.040,-0.040,-0.040,0.000,0.000,0.000
1640068756740217856,"2021-12-21,06:39:16",10.1.1.3,378,-0.050,-0.050,-0.050,0.000,0.000,0.000
1640068756804649216,"2021-12-21,06:39:16",10.1.1.3,0.44287991523742676,-0.050,-0.050,-0.050,0.000,0.000,0.000
1640068757151249920,"2021-12-21,06:39:17",10.1.1.3,342,-0.060,-0.060,-0.060,0.000,0.000,0.000
1640068757170348800,"2021-12-21,06:39:17",10.1.1.3,0.36123108863830566,-0.060,-0.060,-0.060,0.000,0.000,0.000
1640068757492378112,"2021-12-21,06:39:17",10.1.1.3,320,-0.070,-0.070,-0.070,0.000,0.000,0.000
1640068757511836928,"2021-12-21,06:39:17",10.1.1.3,0.3397390842437744,-0.070,-0.070,-0.070,0.000,0.000,0.000
1640068757812850944,"2021-12-21,06:39:17",10.1.1.3,299,-0.080,-0.080,-0.080,0.000,0.000,0.000
1640068757863621120,"2021-12-21,06:39:17",10.1.1.3,0.3505289554595947,-0.080,-0.080,-0.080,0.000,0.000,0.000
1640068758162381056,"2021-12-21,06:39:18",10.1.1.3,297,-0.090,-0.090,-0.090,0.000,0.000,0.000
1640068758217828096,"2021-12-21,06:39:18",10.1.1.3,0.35250401496887207,-0.090,-0.090,-0.090,0.000,0.000,0.000
1640068758532928000,"2021-12-21,06:39:18",10.1.1.3,313,-0.100,-0.100,-0.100,0.000,0.000,0.000
1640068758576958976,"2021-12-21,06:39:18",10.1.1.3,0.35793399810791016,-0.100,-0.100,-0.100,0.000,0.000,0.000
1640068758904236032,"2021-12-21,06:39:18",10.1.1.3,324,-0.110,-0.110,-0.110,0.000,0.000,0.000
1640068758945275136,"2021-12-21,06:39:18",10.1.1.3,0.3662259578704834,-0.110,-0.110,-0.110,0.000,0.000,0.000
1640068759274193920,"2021-12-21,06:39:19",10.1.1.3,324,-0.120,-0.120,-0.120,0.000,0.000,0.000
1640068759301673984,"2021-12-21,06:39:19",10.1.1.3,0.35229992866516113,-0.120,-0.120,-0.120,0.000,0.000,0.000
1640068759618156800,"2021-12-21,06:39:19",10.1.1.3,314,-0.130,-0.130,-0.130,0.000,0.000,0.000
1640068759635884032,"2021-12-21,06:39:19",10.1.1.3,0.3321571350097656,-0.130,-0.130,-0.130,0.000,0.000,0.000
1640068759964271104,"2021-12-21,06:39:19",10.1.1.3,326,-0.140,-0.140,-0.140,0.000,0.000,0.000
1640068759994433024,"2021-12-21,06:39:19",10.1.1.3,0.35645604133605957,-0.140,-0.140,-0.140,0.000,0.000,0.000
1640068760323395840,"2021-12-21,06:39:20",10.1.1.3,326,-0.150,-0.150,-0.150,0.000,0.000,0.000
1640068760384408064,"2021-12-21,06:39:20",10.1.1.3,0.3870849609375,-0.150,-0.150,-0.150,0.000,0.000,0.000
1640068760704980992,"2021-12-21,06:39:20",10.1.1.3,319,-0.160,-0.160,-0.160,0.000,0.000,0.000
1640068760719397120,"2021-12-21,06:39:20",10.1.1.3,0.33379697799682617,-0.160,-0.160,-0.160,0.000,0.000,0.000
1640068761055521024,"2021-12-21,06:39:21",10.1.1.3,334,-0.170,-0.170,-0.170,0.000,0.000,0.000
1640068761076525056,"2021-12-21,06:39:21",10.1.1.3,0.3556249141693115,-0.170,-0.170,-0.170,0.000,0.000,0.000
1640068761458056960,"2021-12-21,06:39:21",10.1.1.3,379,-0.180,-0.180,-0.180,0.000,0.000,0.000
1640068761483994880,"2021-12-21,06:39:21",10.1.1.3,0.40564393997192383,-0.180,-0.180,-0.180,0.000,0.000,0.000
1640068761824152832,"2021-12-21,06:39:21",10.1.1.3,338,-0.190,-0.190,-0.190,0.000,0.000,0.000
1640068761840169984,"2021-12-21,06:39:21",10.1.1.3,0.3549690246582031,-0.190,-0.190,-0.190,0.000,0.000,0.000
1640068762174012928,"2021-12-21,06:39:22",10.1.1.3,331,-0.200,-0.200,-0.200,0.000,0.000,0.000
1640068762192478976,"2021-12-21,06:39:22",10.1.1.3,0.350308895111084,-0.200,-0.200,-0.200,0.000,0.000,0.000
1640068762524264960,"2021-12-21,06:39:22",10.1.1.3,329,-0.210,-0.210,-0.210,0.000,0.000,0.000
1640068762528752128,"2021-12-21,06:39:22",10.1.1.3,0.3337228298187256,-0.210,-0.210,-0.210,0.000,0.000,0.000
1640068762872934144,"2021-12-21,06:39:22",10.1.1.3,342,-0.220,-0.220,-0.220,0.000,0.000,0.000
1640068762913011968,"2021-12-21,06:39:22",10.1.1.3,0.3829190731048584,-0.220,-0.220,-0.220,0.000,0.000,0.000
1640068763253180928,"2021-12-21,06:39:23",10.1.1.3,336,-0.230,-0.230,-0.230,0.000,0.000,0.000
1640068763304893952,"2021-12-21,06:39:23",10.1.1.3,0.388638973236084,-0.230,-0.230,-0.230,0.000,0.000,0.000
1640068763623383040,"2021-12-21,06:39:23",10.1.1.3,315,-0.240,-0.240,-0.240,0.000,0.000,0.000
1640068763653948928,"2021-12-21,06:39:23",10.1.1.3,0.3456859588623047,-0.240,-0.240,-0.240,0.000,0.000,0.000
1640068764003244032,"2021-12-21,06:39:24",10.1.1.3,347,-0.250,-0.250,-0.250,0.000,0.000,0.000
1640068764046295808,"2021-12-21,06:39:24",10.1.1.3,0.3909480571746826,-0.250,-0.250,-0.250,0.000,0.000,0.000
1640068764372572928,"2021-12-21,06:39:24",10.1.1.3,324,-0.260,-0.260,-0.260,0.000,0.000,0.000
1640068764410684160,"2021-12-21,06:39:24",10.1.1.3,0.36272501945495605,-0.260,-0.260,-0.260,0.000,0.000,0.000
1640068764762126080,"2021-12-21,06:39:24",10.1.1.3,349,-0.270,-0.270,-0.270,0.000,0.000,0.000
1640068764855426048,"2021-12-21,06:39:24",10.1.1.3,0.4420599937438965,-0.270,-0.270,-0.270,0.000,0.000,0.000
1640068765192516096,"2021-12-21,06:39:25",10.1.1.3,335,-0.280,-0.280,-0.280,0.000,0.000,0.000
1640068765204696064,"2021-12-21,06:39:25",10.1.1.3,0.3477358818054199,-0.280,-0.280,-0.280,0.000,0.000,0.000
1640068765522424064,"2021-12-21,06:39:25",10.1.1.3,316,-0.290,-0.290,-0.290,0.000,0.000,0.000
1640068765563396864,"2021-12-21,06:39:25",10.1.1.3,0.35702013969421387,-0.290,-0.290,-0.290,0.000,0.000,0.000
1640068765883094016,"2021-12-21,06:39:25",10.1.1.3,318,-0.300,-0.300,-0.300,0.000,0.000,0.000
1640068765911792896,"2021-12-21,06:39:25",10.1.1.3,0.3471810817718506,-0.300,-0.300,-0.300,0.000,0.000,0.000
1640068766212760832,"2021-12-21,06:39:26",10.1.1.3,299,-0.310,-0.310,-0.310,0.000,0.000,0.000
1640068766263844864,"2021-12-21,06:39:26",10.1.1.3,0.35071706771850586,-0.310,-0.310,-0.310,0.000,0.000,0.000
1640068766610673920,"2021-12-21,06:39:26",10.1.1.3,345,-0.320,-0.320,-0.320,0.000,0.000,0.000
1640068766643151104,"2021-12-21,06:39:26",10.1.1.3,0.37783217430114746,-0.320,-0.320,-0.320,0.000,0.000,0.000
1640068767000410112,"2021-12-21,06:39:27",10.1.1.3,354,-0.330,-0.330,-0.330,0.000,0.000,0.000
1640068767016150016,"2021-12-21,06:39:27",10.1.1.3,0.3698558807373047,-0.330,-0.330,-0.330,0.000,0.000,0.000
1640068767390348032,"2021-12-21,06:39:27",10.1.1.3,370,-0.340,-0.340,-0.340,0.000,0.000,0.000
1640068767425730048,"2021-12-21,06:39:27",10.1.1.3,0.40646910667419434,-0.340,-0.340,-0.340,0.000,0.000,0.000
1640068767780497920,"2021-12-21,06:39:27",10.1.1.3,352,-0.350,-0.350,-0.350,0.000,0.000,0.000
1640068767832231936,"2021-12-21,06:39:27",10.1.1.3,0.40404200553894043,-0.350,-0.350,-0.350,0.000,0.000,0.000
1640068768222016000,"2021-12-21,06:39:28",10.1.1.3,386,-0.360,-0.360,-0.360,0.000,0.000,0.000
1640068768259838976,"2021-12-21,06:39:28",10.1.1.3,0.4243648052215576,-0.360,-0.360,-0.360,0.000,0.000,0.000
1640068768608755200,"2021-12-21,06:39:28",10.1.1.3,347,-0.370,-0.370,-0.370,0.000,0.000,0.000
1640068768644807168,"2021-12-21,06:39:28",10.1.1.3,0.3833439350128174,-0.370,-0.370,-0.370,0.000,0.000,0.000
1640068768978970112,"2021-12-21,06:39:28",10.1.1.3,332,-0.380,-0.380,-0.380,0.000,0.000,0.000
1640068769038840064,"2021-12-21,06:39:29",10.1.1.3,0.3925459384918213,-0.380,-0.380,-0.380,0.000,0.000,0.000
1640068769358484992,"2021-12-21,06:39:29",10.1.1.3,317,-0.390,-0.390,-0.390,0.000,0.000,0.000
1640068769425710080,"2021-12-21,06:39:29",10.1.1.3,0.3847999572753906,-0.390,-0.390,-0.390,0.000,0.000,0.000
1640068769727969024,"2021-12-21,06:39:29",10.1.1.3,300,-0.400,-0.400,-0.400,0.000,0.000,0.000
1640068769766040064,"2021-12-21,06:39:29",10.1.1.3,0.33856201171875,-0.400,-0.400,-0.400,0.000,0.000,0.000
1640068770076884992,"2021-12-21,06:39:30",10.1.1.3,309,-0.410,-0.410,-0.410,0.000,0.000,0.000
1640068770100436992,"2021-12-21,06:39:30",10.1.1.3,0.3330881595611572,-0.410,-0.410,-0.410,0.000,0.000,0.000
1640068770411868160,"2021-12-21,06:39:30",10.1.1.3,309,-0.420,-0.420,-0.420,0.000,0.000,0.000
1640068770468911872,"2021-12-21,06:39:30",10.1.1.3,0.3669319152832031,-0.420,-0.420,-0.420,0.000,0.000,0.000
1640068770796541952,"2021-12-21,06:39:30",10.1.1.3,325,-0.430,-0.430,-0.430,0.000,0.000,0.000
1640068770871674112,"2021-12-21,06:39:30",10.1.1.3,0.40090489387512207,-0.430,-0.430,-0.430,0.000,0.000,0.000
1640068771195812864,"2021-12-21,06:39:31",10.1.1.3,322,-0.440,-0.440,-0.440,0.000,0.000,0.000
1640068771263659008,"2021-12-21,06:39:31",10.1.1.3,0.39042210578918457,-0.440,-0.440,-0.440,0.000,0.000,0.000
1640068771575885056,"2021-12-21,06:39:31",10.1.1.3,310,-0.450,-0.450,-0.450,0.000,0.000,0.000
1640068771609541888,"2021-12-21,06:39:31",10.1.1.3,0.344635009765625,-0.450,-0.450,-0.450,0.000,0.000,0.000
1640068771946074880,"2021-12-21,06:39:31",10.1.1.3,334,-0.460,-0.460,-0.460,0.000,0.000,0.000
1640068771970017024,"2021-12-21,06:39:31",10.1.1.3,0.3590211868286133,-0.460,-0.460,-0.460,0.000,0.000,0.000
1640068772316689920,"2021-12-21,06:39:32",10.1.1.3,344,-0.470,-0.470,-0.470,0.000,0.000,0.000
1640068772349368064,"2021-12-21,06:39:32",10.1.1.3,0.37717294692993164,-0.470,-0.470,-0.470,0.000,0.000,0.000
1640068772695192064,"2021-12-21,06:39:32",10.1.1.3,337,-0.480,-0.480,-0.480,0.000,0.000,0.000
1640068772721918208,"2021-12-21,06:39:32",10.1.1.3,0.36462903022766113,-0.480,-0.480,-0.480,0.000,0.000,0.000
1640068773053755904,"2021-12-21,06:39:33",10.1.1.3,329,-0.490,-0.490,-0.490,0.000,0.000,0.000
1640068773089287168,"2021-12-21,06:39:33",10.1.1.3,0.36516809463500977,-0.490,-0.490,-0.490,0.000,0.000,0.000
1640068773413950976,"2021-12-21,06:39:33",10.1.1.3,322,-0.480,-0.480,-0.480,0.000,0.000,0.000
1640068773483918848,"2021-12-21,06:39:33",10.1.1.3,0.3932950496673584,-0.480,-0.480,-0.480,0.000,0.000,0.000
1640068773862355968,"2021-12-21,06:39:33",10.1.1.3,376,-0.470,-0.470,-0.470,0.000,0.000,0.000
1640068773903162112,"2021-12-21,06:39:33",10.1.1.3,0.41762399673461914,-0.470,-0.470,-0.470,0.000,0.000,0.000
1640068774263724032,"2021-12-21,06:39:34",10.1.1.3,357,-0.460,-0.460,-0.460,0.000,0.000,0.000
1640068774310278912,"2021-12-21,06:39:34",10.1.1.3,0.4043149948120117,-0.460,-0.460,-0.460,0.000,0.000,0.000
1640068774641443072,"2021-12-21,06:39:34",10.1.1.3,329,-0.450,-0.450,-0.450,0.000,0.000,0.000
1640068774684622080,"2021-12-21,06:39:34",10.1.1.3,0.3727140426635742,-0.450,-0.450,-0.450,0.000,0.000,0.000
1640068775040466176,"2021-12-21,06:39:35",10.1.1.3,354,-0.440,-0.440,-0.440,0.000,0.000,0.000
1640068775079976960,"2021-12-21,06:39:35",10.1.1.3,0.39417409896850586,-0.440,-0.440,-0.440,0.000,0.000,0.000
1640068775420876032,"2021-12-21,06:39:35",10.1.1.3,339,-0.430,-0.430,-0.430,0.000,0.000,0.000
1640068775443528960,"2021-12-21,06:39:35",10.1.1.3,0.362332820892334,-0.430,-0.430,-0.430,0.000,0.000,0.000
1640068775801195008,"2021-12-21,06:39:35",10.1.1.3,356,-0.420,-0.420,-0.420,0.000,0.000,0.000
1640068775822843136,"2021-12-21,06:39:35",10.1.1.3,0.3781430721282959,-0.420,-0.420,-0.420,0.000,0.000,0.000
1640068776159347968,"2021-12-21,06:39:36",10.1.1.3,329,-0.410,-0.410,-0.410,0.000,0.000,0.000
1640068776208262912,"2021-12-21,06:39:36",10.1.1.3,0.37828707695007324,-0.410,-0.410,-0.410,0.000,0.000,0.000
1640068776559028992,"2021-12-21,06:39:36",10.1.1.3,348,-0.400,-0.400,-0.400,0.000,0.000,0.000
1640068776603301120,"2021-12-21,06:39:36",10.1.1.3,0.3922700881958008,-0.400,-0.400,-0.400,0.000,0.000,0.000
1640068776927849984,"2021-12-21,06:39:36",10.1.1.3,322,-0.390,-0.390,-0.390,0.000,0.000,0.000
1640068776949814016,"2021-12-21,06:39:36",10.1.1.3,0.34444212913513184,-0.390,-0.390,-0.390,0.000,0.000,0.000
1640068777266910976,"2021-12-21,06:39:37",10.1.1.3,313,-0.380,-0.380,-0.380,0.000,0.000,0.000
1640068777317889024,"2021-12-21,06:39:37",10.1.1.3,0.3646280765533447,-0.380,-0.380,-0.380,0.000,0.000,0.000
1640068777667725056,"2021-12-21,06:39:37",10.1.1.3,347,-0.370,-0.370,-0.370,0.000,0.000,0.000
1640068777732258048,"2021-12-21,06:39:37",10.1.1.3,0.4125380516052246,-0.370,-0.370,-0.370,0.000,0.000,0.000
1640068778096916992,"2021-12-21,06:39:38",10.1.1.3,361,-0.360,-0.360,-0.360,0.000,0.000,0.000
1640068778112495872,"2021-12-21,06:39:38",10.1.1.3,0.3775179386138916,-0.360,-0.360,-0.360,0.000,0.000,0.000
1640068778449698048,"2021-12-21,06:39:38",10.1.1.3,335,-0.350,-0.350,-0.350,0.000,0.000,0.000
1640068778473104896,"2021-12-21,06:39:38",10.1.1.3,0.35923004150390625,-0.350,-0.350,-0.350,0.000,0.000,0.000
1640068778844673024,"2021-12-21,06:39:38",10.1.1.3,302,-0.340,-0.340,-0.340,0.000,0.000,0.000
1640068778896632064,"2021-12-21,06:39:38",10.1.1.3,0.35398316383361816,-0.340,-0.340,-0.340,0.000,0.000,0.000
1640068779225199104,"2021-12-21,06:39:39",10.1.1.3,326,-0.330,-0.330,-0.330,0.000,0.000,0.000
1640068779257100032,"2021-12-21,06:39:39",10.1.1.3,0.35807108879089355,-0.330,-0.330,-0.330,0.000,0.000,0.000
1640068779564470016,"2021-12-21,06:39:39",10.1.1.3,305,-0.320,-0.320,-0.320,0.000,0.000,0.000
1640068779601320960,"2021-12-21,06:39:39",10.1.1.3,0.342893123626709,-0.320,-0.320,-0.320,0.000,0.000,0.000
1640068779964328960,"2021-12-21,06:39:39",10.1.1.3,360,-0.310,-0.310,-0.310,0.000,0.000,0.000
1640068779991385856,"2021-12-21,06:39:39",10.1.1.3,0.38711094856262207,-0.310,-0.310,-0.310,0.000,0.000,0.000
1640068780313588992,"2021-12-21,06:39:40",10.1.1.3,319,-0.300,-0.300,-0.300,0.000,0.000,0.000
1640068780376386048,"2021-12-21,06:39:40",10.1.1.3,0.382343053817749,-0.300,-0.300,-0.300,0.000,0.000,0.000
1640068780722135040,"2021-12-21,06:39:40",10.1.1.3,344,-0.290,-0.290,-0.290,0.000,0.000,0.000
1640068780733792000,"2021-12-21,06:39:40",10.1.1.3,0.35605406761169434,-0.290,-0.290,-0.290,0.000,0.000,0.000
1640068781141319936,"2021-12-21,06:39:41",10.1.1.3,405,-0.280,-0.280,-0.280,0.000,0.000,0.000
1640068781213607936,"2021-12-21,06:39:41",10.1.1.3,0.4780900478363037,-0.280,-0.280,-0.280,0.000,0.000,0.000
1640068781551656960,"2021-12-21,06:39:41",10.1.1.3,334,-0.270,-0.270,-0.270,0.000,0.000,0.000
1640068781618789888,"2021-12-21,06:39:41",10.1.1.3,0.40280795097351074,-0.270,-0.270,-0.270,0.000,0.000,0.000
1640068781961147136,"2021-12-21,06:39:41",10.1.1.3,340,-0.260,-0.260,-0.260,0.000,0.000,0.000
1640068781966407936,"2021-12-21,06:39:41",10.1.1.3,0.3459908962249756,-0.260,-0.260,-0.260,0.000,0.000,0.000
1640068782310040832,"2021-12-21,06:39:42",10.1.1.3,323,-0.250,-0.250,-0.250,0.000,0.000,0.000
1640068782363628032,"2021-12-21,06:39:42",10.1.1.3,0.3766911029815674,-0.250,-0.250,-0.250,0.000,0.000,0.000
1640068782723982080,"2021-12-21,06:39:42",10.1.1.3,357,-0.240,-0.240,-0.240,0.000,0.000,0.000
1640068782773801216,"2021-12-21,06:39:42",10.1.1.3,0.4075031280517578,-0.240,-0.240,-0.240,0.000,0.000,0.000
1640068783089997056,"2021-12-21,06:39:43",10.1.1.3,314,-0.230,-0.230,-0.230,0.000,0.000,0.000
1640068783140680192,"2021-12-21,06:39:43",10.1.1.3,0.3655219078063965,-0.230,-0.230,-0.230,0.000,0.000,0.000
1640068783481317888,"2021-12-21,06:39:43",10.1.1.3,337,-0.220,-0.220,-0.220,0.000,0.000,0.000
1640068783511539968,"2021-12-21,06:39:43",10.1.1.3,0.3681621551513672,-0.220,-0.220,-0.220,0.000,0.000,0.000
1640068783822223872,"2021-12-21,06:39:43",10.1.1.3,307,-0.210,-0.210,-0.210,0.000,0.000,0.000
1640068783851757056,"2021-12-21,06:39:43",10.1.1.3,0.3369278907775879,-0.210,-0.210,-0.210,0.000,0.000,0.000
1640068784225225984,"2021-12-21,06:39:44",10.1.1.3,368,-0.200,-0.200,-0.200,0.000,0.000,0.000
1640068784262081024,"2021-12-21,06:39:44",10.1.1.3,0.405073881149292,-0.200,-0.200,-0.200,0.000,0.000,0.000
1640068784625634048,"2021-12-21,06:39:44",10.1.1.3,349,-0.190,-0.190,-0.190,0.000,0.000,0.000
1640068784667329024,"2021-12-21,06:39:44",10.1.1.3,0.3914189338684082,-0.190,-0.190,-0.190,0.000,0.000,0.000
1640068784997460992,"2021-12-21,06:39:44",10.1.1.3,328,-0.180,-0.180,-0.180,0.000,0.000,0.000
1640068785044549888,"2021-12-21,06:39:45",10.1.1.3,0.37574195861816406,-0.180,-0.180,-0.180,0.000,0.000,0.000
1640068785368765184,"2021-12-21,06:39:45",10.1.1.3,322,-0.170,-0.170,-0.170,0.000,0.000,0.000
1640068785401360896,"2021-12-21,06:39:45",10.1.1.3,0.35550713539123535,-0.170,-0.170,-0.170,0.000,0.000,0.000
1640068785750035968,"2021-12-21,06:39:45",10.1.1.3,346,-0.160,-0.160,-0.160,0.000,0.000,0.000
1640068785800420096,"2021-12-21,06:39:45",10.1.1.3,0.3966410160064697,-0.160,-0.160,-0.160,0.000,0.000,0.000
1640068786151657984,"2021-12-21,06:39:46",10.1.1.3,349,-0.150,-0.150,-0.150,0.000,0.000,0.000
1640068786190448128,"2021-12-21,06:39:46",10.1.1.3,0.3886899948120117,-0.150,-0.150,-0.150,0.000,0.000,0.000
1640068786493618944,"2021-12-21,06:39:46",10.1.1.3,301,-0.140,-0.140,-0.140,0.000,0.000,0.000
1640068786544076800,"2021-12-21,06:39:46",10.1.1.3,0.3518259525299072,-0.140,-0.140,-0.140,0.000,0.000,0.000
1640068786893467904,"2021-12-21,06:39:46",10.1.1.3,348,-0.130,-0.130,-0.130,0.000,0.000,0.000
1640068786944144128,"2021-12-21,06:39:46",10.1.1.3,0.3987460136413574,-0.130,-0.130,-0.130,0.000,0.000,0.000
1640068787254051072,"2021-12-21,06:39:47",10.1.1.3,308,-0.120,-0.120,-0.120,0.000,0.000,0.000
1640068787295252992,"2021-12-21,06:39:47",10.1.1.3,0.3498530387878418,-0.120,-0.120,-0.120,0.000,0.000,0.000
1640068787646703104,"2021-12-21,06:39:47",10.1.1.3,348,-0.110,-0.110,-0.110,0.000,0.000,0.000
1640068787676312064,"2021-12-21,06:39:47",10.1.1.3,0.3783278465270996,-0.110,-0.110,-0.110,0.000,0.000,0.000
1640068788037539840,"2021-12-21,06:39:48",10.1.1.3,359,-0.100,-0.100,-0.100,0.000,0.000,0.000
1640068788056791040,"2021-12-21,06:39:48",10.1.1.3,0.3789348602294922,-0.100,-0.100,-0.100,0.000,0.000,0.000
1640068788367600896,"2021-12-21,06:39:48",10.1.1.3,308,-0.090,-0.090,-0.090,0.000,0.000,0.000
1640068788389178112,"2021-12-21,06:39:48",10.1.1.3,0.3303840160369873,-0.090,-0.090,-0.090,0.000,0.000,0.000
1640068788722585088,"2021-12-21,06:39:48",10.1.1.3,324,-0.080,-0.080,-0.080,0.000,0.000,0.000
1640068788768547072,"2021-12-21,06:39:48",10.1.1.3,0.3717799186706543,-0.080,-0.080,-0.080,0.000,0.000,0.000
1640068789118640896,"2021-12-21,06:39:49",10.1.1.3,342,-0.070,-0.070,-0.070,0.000,0.000,0.000
1640068789175461120,"2021-12-21,06:39:49",10.1.1.3,0.3993208408355713,-0.070,-0.070,-0.070,0.000,0.000,0.000
1640068789498333952,"2021-12-21,06:39:49",10.1.1.3,318,-0.060,-0.060,-0.060,0.000,0.000,0.000
1640068789587982848,"2021-12-21,06:39:49",10.1.1.3,0.40770888328552246,-0.060,-0.060,-0.060,0.000,0.000,0.000
1640068789909490176,"2021-12-21,06:39:49",10.1.1.3,319,-0.050,-0.050,-0.050,0.000,0.000,0.000
1640068789947493120,"2021-12-21,06:39:49",10.1.1.3,0.3577730655670166,-0.050,-0.050,-0.050,0.000,0.000,0.000
1640068790295598080,"2021-12-21,06:39:50",10.1.1.3,344,-0.040,-0.040,-0.040,0.000,0.000,0.000
1640068790343017216,"2021-12-21,06:39:50",10.1.1.3,0.3920121192932129,-0.040,-0.040,-0.040,0.000,0.000,0.000
1640068790682249984,"2021-12-21,06:39:50",10.1.1.3,337,-0.030,-0.030,-0.030,0.000,0.000,0.000
1640068790694524160,"2021-12-21,06:39:50",10.1.1.3,0.3500640392303467,-0.030,-0.030,-0.030,0.000,0.000,0.000
1640068791030728192,"2021-12-21,06:39:51",10.1.1.3,334,-0.020,-0.020,-0.020,0.000,0.000,0.000
1640068791100986112,"2021-12-21,06:39:51",10.1.1.3,0.4050588607788086,-0.020,-0.020,-0.020,0.000,0.000,0.000
1640068791430895104,"2021-12-21,06:39:51",10.1.1.3,328,-0.010,-0.010,-0.010,0.000,0.000,0.000
1640068791464950016,"2021-12-21,06:39:51",10.1.1.3,0.36205601692199707,-0.010,-0.010,-0.010,0.000,0.000,0.000
1640068791841803008,"2021-12-21,06:39:51",10.1.1.3,359,0.000,0.000,0.000,0.000,0.000,0.000
1640068791885484032,"2021-12-21,06:39:51",10.1.1.3,0.4033520221710205,0.000,0.000,0.000,0.000,0.000,0.000
1640068792261182976,"2021-12-21,06:39:52",10.1.1.3,356,-0.010,-0.010,-0.010,0.000,0.000,0.000
1640068792318824960,"2021-12-21,06:39:52",10.1.1.3,0.4144608974456787,-0.010,-0.010,-0.010,0.000,0.000,0.000
1640068792642081024,"2021-12-21,06:39:52",10.1.1.3,320,-0.020,-0.020,-0.020,0.000,0.000,0.000
1640068792684498944,"2021-12-21,06:39:52",10.1.1.3,0.36066293716430664,-0.020,-0.020,-0.020,0.000,0.000,0.000
1640068793011300096,"2021-12-21,06:39:53",10.1.1.3,325,-0.030,-0.030,-0.030,0.000,0.000,0.000
1640068793081767168,"2021-12-21,06:39:53",10.1.1.3,0.39554715156555176,-0.030,-0.030,-0.030,0.000,0.000,0.000
1640068793421771008,"2021-12-21,06:39:53",10.1.1.3,325,-0.040,-0.040,-0.040,0.000,0.000,0.000
1640068793484484864,"2021-12-21,06:39:53",10.1.1.3,0.38828301429748535,-0.040,-0.040,-0.040,0.000,0.000,0.000
1640068793842710016,"2021-12-21,06:39:53",10.1.1.3,356,-0.050,-0.050,-0.050,0.000,0.000,0.000
1640068793931972864,"2021-12-21,06:39:53",10.1.1.3,0.44623303413391113,-0.050,-0.050,-0.050,0.000,0.000,0.000
1640068794251651072,"2021-12-21,06:39:54",10.1.1.3,317,-0.060,-0.060,-0.060,0.000,0.000,0.000
1640068794284993792,"2021-12-21,06:39:54",10.1.1.3,0.35174989700317383,-0.060,-0.060,-0.060,0.000,0.000,0.000
1640068794611411968,"2021-12-21,06:39:54",10.1.1.3,325,-0.070,-0.070,-0.070,0.000,0.000,0.000
1640068794657739008,"2021-12-21,06:39:54",10.1.1.3,0.37149500846862793,-0.070,-0.070,-0.070,0.000,0.000,0.000
1640068795053062912,"2021-12-21,06:39:55",10.1.1.3,384,-0.080,-0.080,-0.080,0.000,0.000,0.000
1640068795137113088,"2021-12-21,06:39:55",10.1.1.3,0.4688720703125,-0.080,-0.080,-0.080,0.000,0.000,0.000
1640068795495126016,"2021-12-21,06:39:55",10.1.1.3,352,-0.090,-0.090,-0.090,0.000,0.000,0.000
1640068795536421120,"2021-12-21,06:39:55",10.1.1.3,0.3938791751861572,-0.090,-0.090,-0.090,0.000,0.000,0.000
1640068795903104000,"2021-12-21,06:39:55",10.1.1.3,365,-0.100,-0.100,-0.100,0.000,0.000,0.000
1640068795995339008,"2021-12-21,06:39:55",10.1.1.3,0.4576292037963867,-0.100,-0.100,-0.100,0.000,0.000,0.000
1640068796330931968,"2021-12-21,06:39:56",10.1.1.3,334,-0.110,-0.110,-0.110,0.000,0.000,0.000
1640068796433963008,"2021-12-21,06:39:56",10.1.1.3,0.43735504150390625,-0.110,-0.110,-0.110,0.000,0.000,0.000
1640068796761519872,"2021-12-21,06:39:56",10.1.1.3,325,-0.120,-0.120,-0.120,0.000,0.000,0.000
1640068796844175104,"2021-12-21,06:39:56",10.1.1.3,0.40823793411254883,-0.120,-0.120,-0.120,0.000,0.000,0.000
1640068797184699904,"2021-12-21,06:39:57",10.1.1.3,338,-0.130,-0.130,-0.130,0.000,0.000,0.000
1640068797220413952,"2021-12-21,06:39:57",10.1.1.3,0.3742349147796631,-0.130,-0.130,-0.130,0.000,0.000,0.000
1640068797520334848,"2021-12-21,06:39:57",10.1.1.3,297,-0.140,-0.140,-0.140,0.000,0.000,0.000
1640068797615561984,"2021-12-21,06:39:57",10.1.1.3,0.39319610595703125,-0.140,-0.140,-0.140,0.000,0.000,0.000
1640068797949742080,"2021-12-21,06:39:57",10.1.1.3,331,-0.150,-0.150,-0.150,0.000,0.000,0.000
1640068797988532992,"2021-12-21,06:39:57",10.1.1.3,0.3700699806213379,-0.150,-0.150,-0.150,0.000,0.000,0.000
1640068798308999936,"2021-12-21,06:39:58",10.1.1.3,318,-0.160,-0.160,-0.160,0.000,0.000,0.000
1640068798388217856,"2021-12-21,06:39:58",10.1.1.3,0.3980109691619873,-0.160,-0.160,-0.160,0.000,0.000,0.000
1640068798740255232,"2021-12-21,06:39:58",10.1.1.3,348,-0.170,-0.170,-0.170,0.000,0.000,0.000
1640068798803347968,"2021-12-21,06:39:58",10.1.1.3,0.41141414642333984,-0.170,-0.170,-0.170,0.000,0.000,0.000
1640068799149203968,"2021-12-21,06:39:59",10.1.1.3,339,-0.180,-0.180,-0.180,0.000,0.000,0.000
1640068799243277056,"2021-12-21,06:39:59",10.1.1.3,0.4333360195159912,-0.180,-0.180,-0.180,0.000,0.000,0.000
1640068799638158080,"2021-12-21,06:39:59",10.1.1.3,391,-0.190,-0.190,-0.190,0.000,0.000,0.000
1640068799669392128,"2021-12-21,06:39:59",10.1.1.3,0.42308688163757324,-0.190,-0.190,-0.190,0.000,0.000,0.000
1640068800059001088,"2021-12-21,06:40:00",10.1.1.3,387,-0.200,-0.200,-0.200,0.000,0.000,0.000
1640068800149620992,"2021-12-21,06:40:00",10.1.1.3,0.47842884063720703,-0.200,-0.200,-0.200,0.000,0.000,0.000
1640068800548144128,"2021-12-21,06:40:00",10.1.1.3,396,-0.210,-0.210,-0.210,0.000,0.000,0.000
1640068800612765952,"2021-12-21,06:40:00",10.1.1.3,0.461108922958374,-0.210,-0.210,-0.210,0.000,0.000,0.000
1640068800961007104,"2021-12-21,06:40:00",10.1.1.3,346,-0.220,-0.220,-0.220,0.000,0.000,0.000
1640068800991821056,"2021-12-21,06:40:00",10.1.1.3,0.377514123916626,-0.220,-0.220,-0.220,0.000,0.000,0.000
1640068801427506944,"2021-12-21,06:40:01",10.1.1.3,423,-0.230,-0.230,-0.230,0.000,0.000,0.000
1640068801470350080,"2021-12-21,06:40:01",10.1.1.3,0.4668099880218506,-0.230,-0.230,-0.230,0.000,0.000,0.000
1640068801806950144,"2021-12-21,06:40:01",10.1.1.3,332,-0.240,-0.240,-0.240,0.000,0.000,0.000
1640068801893702144,"2021-12-21,06:40:01",10.1.1.3,0.4188210964202881,-0.240,-0.240,-0.240,0.000,0.000,0.000
1640068802236043008,"2021-12-21,06:40:02",10.1.1.3,335,-0.250,-0.250,-0.250,0.000,0.000,0.000
1640068802277851136,"2021-12-21,06:40:02",10.1.1.3,0.3770010471343994,-0.250,-0.250,-0.250,0.000,0.000,0.000
1640068802665671936,"2021-12-21,06:40:02",10.1.1.3,380,-0.260,-0.260,-0.260,0.000,0.000,0.000
1640068802730429952,"2021-12-21,06:40:02",10.1.1.3,0.44566893577575684,-0.260,-0.260,-0.260,0.000,0.000,0.000
1640068803085298944,"2021-12-21,06:40:03",10.1.1.3,353,-0.270,-0.270,-0.270,0.000,0.000,0.000
1640068803160516096,"2021-12-21,06:40:03",10.1.1.3,0.42850184440612793,-0.270,-0.270,-0.270,0.000,0.000,0.000
1640068803528359936,"2021-12-21,06:40:03",10.1.1.3,365,-0.280,-0.280,-0.280,0.000,0.000,0.000
1640068803583812096,"2021-12-21,06:40:03",10.1.1.3,0.4201629161834717,-0.280,-0.280,-0.280,0.000,0.000,0.000
1640068803945266944,"2021-12-21,06:40:03",10.1.1.3,359,-0.290,-0.290,-0.290,0.000,0.000,0.000
1640068804027307008,"2021-12-21,06:40:04",10.1.1.3,0.4417099952697754,-0.290,-0.290,-0.290,0.000,0.000,0.000
1640068804462873856,"2021-12-21,06:40:04",10.1.1.3,426,-0.300,-0.300,-0.300,0.000,0.000,0.000
1640068804511408128,"2021-12-21,06:40:04",10.1.1.3,0.4753601551055908,-0.300,-0.300,-0.300,0.000,0.000,0.000
1640068804902405888,"2021-12-21,06:40:04",10.1.1.3,389,-0.310,-0.310,-0.310,0.000,0.000,0.000
1640068805013915904,"2021-12-21,06:40:05",10.1.1.3,0.5007519721984863,-0.310,-0.310,-0.310,0.000,0.000,0.000
1640068805364872960,"2021-12-21,06:40:05",10.1.1.3,349,-0.320,-0.320,-0.320,0.000,0.000,0.000
1640068805453979904,"2021-12-21,06:40:05",10.1.1.3,0.43881893157958984,-0.320,-0.320,-0.320,0.000,0.000,0.000
1640068805792207104,"2021-12-21,06:40:05",10.1.1.3,332,-0.330,-0.330,-0.330,0.000,0.000,0.000
1640068805813922816,"2021-12-21,06:40:05",10.1.1.3,0.353928804397583,-0.330,-0.330,-0.330,0.000,0.000,0.000
1640068806151553024,"2021-12-21,06:40:06",10.1.1.3,335,-0.340,-0.340,-0.340,0.000,0.000,0.000
1640068806208282880,"2021-12-21,06:40:06",10.1.1.3,0.39255499839782715,-0.340,-0.340,-0.340,0.000,0.000,0.000
1640068806580369920,"2021-12-21,06:40:06",10.1.1.3,369,-0.350,-0.350,-0.350,0.000,0.000,0.000
1640068806640080896,"2021-12-21,06:40:06",10.1.1.3,0.42983388900756836,-0.350,-0.350,-0.350,0.000,0.000,0.000
1640068806929562112,"2021-12-21,06:40:06",10.1.1.3,287,-0.360,-0.360,-0.360,0.000,0.000,0.000
1640068806982074112,"2021-12-21,06:40:06",10.1.1.3,0.3399500846862793,-0.360,-0.360,-0.360,0.000,0.000,0.000
1640068807299858176,"2021-12-21,06:40:07",10.1.1.3,310,-0.370,-0.370,-0.370,0.000,0.000,0.000
1640068807333553920,"2021-12-21,06:40:07",10.1.1.3,0.34394383430480957,-0.370,-0.370,-0.370,0.000,0.000,0.000
1640068807678312960,"2021-12-21,06:40:07",10.1.1.3,342,-0.380,-0.380,-0.380,0.000,0.000,0.000
1640068807758626048,"2021-12-21,06:40:07",10.1.1.3,0.4231739044189453,-0.380,-0.380,-0.380,0.000,0.000,0.000
1640068808078531072,"2021-12-21,06:40:08",10.1.1.3,318,-0.390,-0.390,-0.390,0.000,0.000,0.000
1640068808126650112,"2021-12-21,06:40:08",10.1.1.3,0.36659908294677734,-0.390,-0.390,-0.390,0.000,0.000,0.000
1640068808489379840,"2021-12-21,06:40:08",10.1.1.3,356,-0.400,-0.400,-0.400,0.000,0.000,0.000
1640068808508642048,"2021-12-21,06:40:08",10.1.1.3,0.3755309581756592,-0.400,-0.400,-0.400,0.000,0.000,0.000
1640068808849684992,"2021-12-21,06:40:08",10.1.1.3,336,-0.410,-0.410,-0.410,0.000,0.000,0.000
1640068808879322880,"2021-12-21,06:40:08",10.1.1.3,0.3664669990539551,-0.410,-0.410,-0.410,0.000,0.000,0.000
1640068809216780800,"2021-12-21,06:40:09",10.1.1.3,335,-0.420,-0.420,-0.420,0.000,0.000,0.000
1640068809275988992,"2021-12-21,06:40:09",10.1.1.3,0.39516401290893555,-0.420,-0.420,-0.420,0.000,0.000,0.000
1640068809637114880,"2021-12-21,06:40:09",10.1.1.3,358,-0.430,-0.430,-0.430,0.000,0.000,0.000
1640068809686362880,"2021-12-21,06:40:09",10.1.1.3,0.4073450565338135,-0.430,-0.430,-0.430,0.000,0.000,0.000
1640068810045222144,"2021-12-21,06:40:10",10.1.1.3,355,-0.440,-0.440,-0.440,0.000,0.000,0.000
1640068810075866880,"2021-12-21,06:40:10",10.1.1.3,0.38658905029296875,-0.440,-0.440,-0.440,0.000,0.000,0.000
1640068810398392832,"2021-12-21,06:40:10",10.1.1.3,317,-0.450,-0.450,-0.450,0.000,0.000,0.000
1640068810451652096,"2021-12-21,06:40:10",10.1.1.3,0.37085914611816406,-0.450,-0.450,-0.450,0.000,0.000,0.000
1640068810774835968,"2021-12-21,06:40:10",10.1.1.3,321,-0.460,-0.460,-0.460,0.000,0.000,0.000
1640068810800226048,"2021-12-21,06:40:10",10.1.1.3,0.34709692001342773,-0.460,-0.460,-0.460,0.000,0.000,0.000
1640068811133584128,"2021-12-21,06:40:11",10.1.1.3,328,-0.470,-0.470,-0.470,0.000,0.000,0.000
1640068811209294080,"2021-12-21,06:40:11",10.1.1.3,0.4043400287628174,-0.470,-0.470,-0.470,0.000,0.000,0.000
1640068811572890880,"2021-12-21,06:40:11",10.1.1.3,361,-0.480,-0.480,-0.480,0.000,0.000,0.000
1640068811601799936,"2021-12-21,06:40:11",10.1.1.3,0.39005517959594727,-0.480,-0.480,-0.480,0.000,0.000,0.000
1640068811942176000,"2021-12-21,06:40:11",10.1.1.3,338,-0.490,-0.490,-0.490,0.000,0.000,0.000
1640068811975568128,"2021-12-21,06:40:11",10.1.1.3,0.37198686599731445,-0.490,-0.490,-0.490,0.000,0.000,0.000
1640068812302541056,"2021-12-21,06:40:12",10.1.1.3,324,-0.480,-0.480,-0.480,0.000,0.000,0.000
1640068812343806976,"2021-12-21,06:40:12",10.1.1.3,0.36577486991882324,-0.480,-0.480,-0.480,0.000,0.000,0.000
1640068812682717952,"2021-12-21,06:40:12",10.1.1.3,336,-0.470,-0.470,-0.470,0.000,0.000,0.000
1640068812739667968,"2021-12-21,06:40:12",10.1.1.3,0.3936641216278076,-0.470,-0.470,-0.470,0.000,0.000,0.000
1640068813071609856,"2021-12-21,06:40:13",10.1.1.3,329,-0.460,-0.460,-0.460,0.000,0.000,0.000
1640068813090186240,"2021-12-21,06:40:13",10.1.1.3,0.34855008125305176,-0.460,-0.460,-0.460,0.000,0.000,0.000
1640068813440347904,"2021-12-21,06:40:13",10.1.1.3,342,-0.450,-0.450,-0.450,0.000,0.000,0.000
1640068813486859008,"2021-12-21,06:40:13",10.1.1.3,0.3893249034881592,-0.450,-0.450,-0.450,0.000,0.000,0.000
1640068813869692160,"2021-12-21,06:40:13",10.1.1.3,380,-0.440,-0.440,-0.440,0.000,0.000,0.000
1640068813910177024,"2021-12-21,06:40:13",10.1.1.3,0.4211390018463135,-0.440,-0.440,-0.440,0.000,0.000,0.000
1640068814239625984,"2021-12-21,06:40:14",10.1.1.3,327,-0.430,-0.430,-0.430,0.000,0.000,0.000
1640068814270849024,"2021-12-21,06:40:14",10.1.1.3,0.3593010902404785,-0.430,-0.430,-0.430,0.000,0.000,0.000
1640068814618609920,"2021-12-21,06:40:14",10.1.1.3,346,-0.420,-0.420,-0.420,0.000,0.000,0.000
1640068814703322880,"2021-12-21,06:40:14",10.1.1.3,0.43118810653686523,-0.420,-0.420,-0.420,0.000,0.000,0.000
1640068815088172800,"2021-12-21,06:40:15",10.1.1.3,378,-0.410,-0.410,-0.410,0.000,0.000,0.000
1640068815113729024,"2021-12-21,06:40:15",10.1.1.3,0.4042940139770508,-0.410,-0.410,-0.410,0.000,0.000,0.000
1640068815509378048,"2021-12-21,06:40:15",10.1.1.3,393,-0.400,-0.400,-0.400,0.000,0.000,0.000
1640068815525147904,"2021-12-21,06:40:15",10.1.1.3,0.40970396995544434,-0.400,-0.400,-0.400,0.000,0.000,0.000
1640068815873613056,"2021-12-21,06:40:15",10.1.1.3,346,-0.390,-0.390,-0.390,0.000,0.000,0.000
1640068815907994112,"2021-12-21,06:40:15",10.1.1.3,0.3812830448150635,-0.390,-0.390,-0.390,0.000,0.000,0.000
1640068816295421952,"2021-12-21,06:40:16",10.1.1.3,382,-0.380,-0.380,-0.380,0.000,0.000,0.000
1640068816301881088,"2021-12-21,06:40:16",10.1.1.3,0.3890039920806885,-0.380,-0.380,-0.380,0.000,0.000,0.000
1640068816645101056,"2021-12-21,06:40:16",10.1.1.3,338,-0.370,-0.370,-0.370,0.000,0.000,0.000
1640068816680572928,"2021-12-21,06:40:16",10.1.1.3,0.3737759590148926,-0.370,-0.370,-0.370,0.000,0.000,0.000
1640068817065921024,"2021-12-21,06:40:17",10.1.1.3,382,-0.360,-0.360,-0.360,0.000,0.000,0.000
1640068817119038976,"2021-12-21,06:40:17",10.1.1.3,0.43596482276916504,-0.360,-0.360,-0.360,0.000,0.000,0.000
1640068817437638912,"2021-12-21,06:40:17",10.1.1.3,316,-0.350,-0.350,-0.350,0.000,0.000,0.000
1640068817455492864,"2021-12-21,06:40:17",10.1.1.3,0.33472204208374023,-0.350,-0.350,-0.350,0.000,0.000,0.000
1640068817798322944,"2021-12-21,06:40:17",10.1.1.3,338,-0.340,-0.340,-0.340,0.000,0.000,0.000
1640068817844934912,"2021-12-21,06:40:17",10.1.1.3,0.38529300689697266,-0.340,-0.340,-0.340,0.000,0.000,0.000
1640068818190368000,"2021-12-21,06:40:18",10.1.1.3,343,-0.330,-0.330,-0.330,0.000,0.000,0.000
1640068818242151936,"2021-12-21,06:40:18",10.1.1.3,0.39539313316345215,-0.330,-0.330,-0.330,0.000,0.000,0.000
1640068818582222848,"2021-12-21,06:40:18",10.1.1.3,338,-0.320,-0.320,-0.320,0.000,0.000,0.000
1640068818667560960,"2021-12-21,06:40:18",10.1.1.3,0.4240601062774658,-0.320,-0.320,-0.320,0.000,0.000,0.000
1640068818991968000,"2021-12-21,06:40:18",10.1.1.3,322,-0.310,-0.310,-0.310,0.000,0.000,0.000
1640068819064379904,"2021-12-21,06:40:19",10.1.1.3,0.3947410583496094,-0.310,-0.310,-0.310,0.000,0.000,0.000
1640068819392625152,"2021-12-21,06:40:19",10.1.1.3,326,-0.300,-0.300,-0.300,0.000,0.000,0.000
1640068819432678912,"2021-12-21,06:40:19",10.1.1.3,0.3664848804473877,-0.300,-0.300,-0.300,0.000,0.000,0.000
1640068819754611968,"2021-12-21,06:40:19",10.1.1.3,314,-0.290,-0.290,-0.290,0.000,0.000,0.000
1640068819785906176,"2021-12-21,06:40:19",10.1.1.3,0.34630799293518066,-0.290,-0.290,-0.290,0.000,0.000,0.000
1640068820115021824,"2021-12-21,06:40:20",10.1.1.3,325,-0.280,-0.280,-0.280,0.000,0.000,0.000
1640068820155538176,"2021-12-21,06:40:20",10.1.1.3,0.36641883850097656,-0.280,-0.280,-0.280,0.000,0.000,0.000
1640068820475656960,"2021-12-21,06:40:20",10.1.1.3,318,-0.270,-0.270,-0.270,0.000,0.000,0.000
1640068820517641984,"2021-12-21,06:40:20",10.1.1.3,0.3598301410675049,-0.270,-0.270,-0.270,0.000,0.000,0.000
1640068820910001152,"2021-12-21,06:40:20",10.1.1.3,389,-0.260,-0.260,-0.260,0.000,0.000,0.000
1640068820933042944,"2021-12-21,06:40:20",10.1.1.3,0.41320109367370605,-0.260,-0.260,-0.260,0.000,0.000,0.000
1640068821266061056,"2021-12-21,06:40:21",10.1.1.3,331,-0.250,-0.250,-0.250,0.000,0.000,0.000
1640068821308429056,"2021-12-21,06:40:21",10.1.1.3,0.3736379146575928,-0.250,-0.250,-0.250,0.000,0.000,0.000
1640068821706983936,"2021-12-21,06:40:21",10.1.1.3,397,-0.240,-0.240,-0.240,0.000,0.000,0.000
1640068821787291136,"2021-12-21,06:40:21",10.1.1.3,0.47736191749572754,-0.240,-0.240,-0.240,0.000,0.000,0.000
1640068822147813120,"2021-12-21,06:40:22",10.1.1.3,358,-0.230,-0.230,-0.230,0.000,0.000,0.000
1640068822165373184,"2021-12-21,06:40:22",10.1.1.3,0.3764381408691406,-0.230,-0.230,-0.230,0.000,0.000,0.000
1640068822487705088,"2021-12-21,06:40:22",10.1.1.3,317,-0.220,-0.220,-0.220,0.000,0.000,0.000
1640068822661419008,"2021-12-21,06:40:22",10.1.1.3,0.4915149211883545,-0.220,-0.220,-0.220,0.000,0.000,0.000
1640068823058876928,"2021-12-21,06:40:23",10.1.1.3,377,-0.210,-0.210,-0.210,0.000,0.000,0.000
1640068823092828160,"2021-12-21,06:40:23",10.1.1.3,0.41139912605285645,-0.210,-0.210,-0.210,0.000,0.000,0.000
1640068823467696896,"2021-12-21,06:40:23",10.1.1.3,373,-0.200,-0.200,-0.200,0.000,0.000,0.000
1640068823565683968,"2021-12-21,06:40:23",10.1.1.3,0.47167181968688965,-0.200,-0.200,-0.200,0.000,0.000,0.000
1640068823928619008,"2021-12-21,06:40:23",10.1.1.3,361,-0.190,-0.190,-0.190,0.000,0.000,0.000
1640068823966080000,"2021-12-21,06:40:23",10.1.1.3,0.3986670970916748,-0.190,-0.190,-0.190,0.000,0.000,0.000
1640068824308391936,"2021-12-21,06:40:24",10.1.1.3,340,-0.180,-0.180,-0.180,0.000,0.000,0.000
1640068824362050048,"2021-12-21,06:40:24",10.1.1.3,0.3941679000854492,-0.180,-0.180,-0.180,0.000,0.000,0.000
1640068824679790848,"2021-12-21,06:40:24",10.1.1.3,313,-0.170,-0.170,-0.170,0.000,0.000,0.000
1640068824761615104,"2021-12-21,06:40:24",10.1.1.3,0.3957529067993164,-0.170,-0.170,-0.170,0.000,0.000,0.000
1640068825103270912,"2021-12-21,06:40:25",10.1.1.3,338,-0.160,-0.160,-0.160,0.000,0.000,0.000
1640068825174418944,"2021-12-21,06:40:25",10.1.1.3,0.41149401664733887,-0.160,-0.160,-0.160,0.000,0.000,0.000
1640068825519375104,"2021-12-21,06:40:25",10.1.1.3,343,-0.150,-0.150,-0.150,0.000,0.000,0.000
1640068825571597056,"2021-12-21,06:40:25",10.1.1.3,0.3957819938659668,-0.150,-0.150,-0.150,0.000,0.000,0.000
1640068825898329088,"2021-12-21,06:40:25",10.1.1.3,325,-0.140,-0.140,-0.140,0.000,0.000,0.000
1640068825983725056,"2021-12-21,06:40:25",10.1.1.3,0.4107789993286133,-0.140,-0.140,-0.140,0.000,0.000,0.000
1640068826301559040,"2021-12-21,06:40:26",10.1.1.3,316,-0.130,-0.130,-0.130,0.000,0.000,0.000
1640068826382638080,"2021-12-21,06:40:26",10.1.1.3,0.3973240852355957,-0.130,-0.130,-0.130,0.000,0.000,0.000
1640068826718548992,"2021-12-21,06:40:26",10.1.1.3,321,-0.120,-0.120,-0.120,0.000,0.000,0.000
1640068826743716096,"2021-12-21,06:40:26",10.1.1.3,0.3471488952636719,-0.120,-0.120,-0.120,0.000,0.000,0.000
1640068827107991040,"2021-12-21,06:40:27",10.1.1.3,362,-0.110,-0.110,-0.110,0.000,0.000,0.000
1640068827164107008,"2021-12-21,06:40:27",10.1.1.3,0.418720006942749,-0.110,-0.110,-0.110,0.000,0.000,0.000
1640068827537862912,"2021-12-21,06:40:27",10.1.1.3,370,-0.100,-0.100,-0.100,0.000,0.000,0.000
1640068827573107968,"2021-12-21,06:40:27",10.1.1.3,0.4060220718383789,-0.100,-0.100,-0.100,0.000,0.000,0.000
1640068827891915008,"2021-12-21,06:40:27",10.1.1.3,313,-0.090,-0.090,-0.090,0.000,0.000,0.000
1640068827943789056,"2021-12-21,06:40:27",10.1.1.3,0.36570310592651367,-0.090,-0.090,-0.090,0.000,0.000,0.000
1640068828298234880,"2021-12-21,06:40:28",10.1.1.3,353,-0.080,-0.080,-0.080,0.000,0.000,0.000
1640068828340809984,"2021-12-21,06:40:28",10.1.1.3,0.3957068920135498,-0.080,-0.080,-0.080,0.000,0.000,0.000
1640068828744474880,"2021-12-21,06:40:28",10.1.1.3,401,-0.070,-0.070,-0.070,0.000,0.000,0.000
1640068828750289920,"2021-12-21,06:40:28",10.1.1.3,0.40778493881225586,-0.070,-0.070,-0.070,0.000,0.000,0.000
1640068829127023872,"2021-12-21,06:40:29",10.1.1.3,375,-0.060,-0.060,-0.060,0.000,0.000,0.000
1640068829150212096,"2021-12-21,06:40:29",10.1.1.3,0.39868903160095215,-0.060,-0.060,-0.060,0.000,0.000,0.000
1640068829495579904,"2021-12-21,06:40:29",10.1.1.3,336,-0.050,-0.050,-0.050,0.000,0.000,0.000
1640068829556539904,"2021-12-21,06:40:29",10.1.1.3,0.3970298767089844,-0.050,-0.050,-0.050,0.000,0.000,0.000
1640068829956762112,"2021-12-21,06:40:29",10.1.1.3,398,-0.040,-0.040,-0.040,0.000,0.000,0.000
1640068830034673920,"2021-12-21,06:40:30",10.1.1.3,0.47674012184143066,-0.040,-0.040,-0.040,0.000,0.000,0.000
1640068830386137088,"2021-12-21,06:40:30",10.1.1.3,349,-0.030,-0.030,-0.030,0.000,0.000,0.000
1640068830465477888,"2021-12-21,06:40:30",10.1.1.3,0.4291808605194092,-0.030,-0.030,-0.030,0.000,0.000,0.000
1640068830775821824,"2021-12-21,06:40:30",10.1.1.3,309,-0.020,-0.020,-0.020,0.000,0.000,0.000
1640068830808339200,"2021-12-21,06:40:30",10.1.1.3,0.341372013092041,-0.020,-0.020,-0.020,0.000,0.000,0.000
1640068831185492992,"2021-12-21,06:40:31",10.1.1.3,373,-0.010,-0.010,-0.010,0.000,0.000,0.000
1640068831264174080,"2021-12-21,06:40:31",10.1.1.3,0.4519820213317871,-0.010,-0.010,-0.010,0.000,0.000,0.000
1640068831595886848,"2021-12-21,06:40:31",10.1.1.3,329,0.000,0.000,0.000,0.000,0.000,0.000
1640068831645062912,"2021-12-21,06:40:31",10.1.1.3,0.37880492210388184,0.000,0.000,0.000,0.000,0.000,0.000
1640068831984572928,"2021-12-21,06:40:31",10.1.1.3,332,-0.010,-0.010,-0.010,0.000,0.000,0.000
1640068832015181056,"2021-12-21,06:40:32",10.1.1.3,0.3631300926208496,-0.010,-0.010,-0.010,0.000,0.000,0.000
1640068832394480896,"2021-12-21,06:40:32",10.1.1.3,377,-0.020,-0.020,-0.020,0.000,0.000,0.000
1640068832451278080,"2021-12-21,06:40:32",10.1.1.3,0.43462610244750977,-0.020,-0.020,-0.020,0.000,0.000,0.000
1640068832854265856,"2021-12-21,06:40:32",10.1.1.3,394,-0.030,-0.030,-0.030,0.000,0.000,0.000
1640068832893573888,"2021-12-21,06:40:32",10.1.1.3,0.4338860511779785,-0.030,-0.030,-0.030,0.000,0.000,0.000
1640068833273967872,"2021-12-21,06:40:33",10.1.1.3,378,-0.040,-0.040,-0.040,0.000,0.000,0.000
1640068833328715008,"2021-12-21,06:40:33",10.1.1.3,0.4329490661621094,-0.040,-0.040,-0.040,0.000,0.000,0.000
1640068833694013952,"2021-12-21,06:40:33",10.1.1.3,363,-0.050,-0.050,-0.050,0.000,0.000,0.000
1640068833799681024,"2021-12-21,06:40:33",10.1.1.3,0.46896791458129883,-0.050,-0.050,-0.050,0.000,0.000,0.000
1640068834163289088,"2021-12-21,06:40:34",10.1.1.3,360,-0.060,-0.060,-0.060,0.000,0.000,0.000
1640068834189971968,"2021-12-21,06:40:34",10.1.1.3,0.38736701011657715,-0.060,-0.060,-0.060,0.000,0.000,0.000
1640068834552156928,"2021-12-21,06:40:34",10.1.1.3,359,-0.070,-0.070,-0.070,0.000,0.000,0.000
1640068834576536832,"2021-12-21,06:40:34",10.1.1.3,0.38343381881713867,-0.070,-0.070,-0.070,0.000,0.000,0.000
1640068834921915904,"2021-12-21,06:40:34",10.1.1.3,339,-0.080,-0.080,-0.080,0.000,0.000,0.000
1640068834954776064,"2021-12-21,06:40:34",10.1.1.3,0.3722341060638428,-0.080,-0.080,-0.080,0.000,0.000,0.000
1640068835313643008,"2021-12-21,06:40:35",10.1.1.3,350,-0.090,-0.090,-0.090,0.000,0.000,0.000
1640068835392303872,"2021-12-21,06:40:35",10.1.1.3,0.4296379089355469,-0.090,-0.090,-0.090,0.000,0.000,0.000
1640068835750799872,"2021-12-21,06:40:35",10.1.1.3,355,-0.100,-0.100,-0.100,0.000,0.000,0.000
1640068835802082048,"2021-12-21,06:40:35",10.1.1.3,0.4072840213775635,-0.100,-0.100,-0.100,0.000,0.000,0.000
1640068836130276864,"2021-12-21,06:40:36",10.1.1.3,326,-0.110,-0.110,-0.110,0.000,0.000,0.000
1640068836154820864,"2021-12-21,06:40:36",10.1.1.3,0.3509371280670166,-0.110,-0.110,-0.110,0.000,0.000,0.000
1640068836500318976,"2021-12-21,06:40:36",10.1.1.3,343,-0.120,-0.120,-0.120,0.000,0.000,0.000
1640068836571602176,"2021-12-21,06:40:36",10.1.1.3,0.4148538112640381,-0.120,-0.120,-0.120,0.000,0.000,0.000
1640068836920505088,"2021-12-21,06:40:36",10.1.1.3,347,-0.130,-0.130,-0.130,0.000,0.000,0.000
1640068836987574016,"2021-12-21,06:40:36",10.1.1.3,0.4147200584411621,-0.130,-0.130,-0.130,0.000,0.000,0.000
1640068837348225024,"2021-12-21,06:40:37",10.1.1.3,355,-0.140,-0.140,-0.140,0.000,0.000,0.000
1640068837375614976,"2021-12-21,06:40:37",10.1.1.3,0.38263511657714844,-0.140,-0.140,-0.140,0.000,0.000,0.000
1640068837728611072,"2021-12-21,06:40:37",10.1.1.3,348,-0.150,-0.150,-0.150,0.000,0.000,0.000
1640068837781355008,"2021-12-21,06:40:37",10.1.1.3,0.4012489318847656,-0.150,-0.150,-0.150,0.000,0.000,0.000
1640068838097212928,"2021-12-21,06:40:38",10.1.1.3,307,-0.160,-0.160,-0.160,0.000,0.000,0.000
1640068838146668800,"2021-12-21,06:40:38",10.1.1.3,0.35674095153808594,-0.160,-0.160,-0.160,0.000,0.000,0.000
1640068838446668032,"2021-12-21,06:40:38",10.1.1.3,296,-0.170,-0.170,-0.170,0.000,0.000,0.000
1640068838508313856,"2021-12-21,06:40:38",10.1.1.3,0.3582470417022705,-0.170,-0.170,-0.170,0.000,0.000,0.000
1640068838866520832,"2021-12-21,06:40:38",10.1.1.3,356,-0.180,-0.180,-0.180,0.000,0.000,0.000
1640068838948582912,"2021-12-21,06:40:38",10.1.1.3,0.4370310306549072,-0.180,-0.180,-0.180,0.000,0.000,0.000
1640068839316449024,"2021-12-21,06:40:39",10.1.1.3,354,-0.190,-0.190,-0.190,0.000,0.000,0.000
1640068839386718976,"2021-12-21,06:40:39",10.1.1.3,0.4244499206542969,-0.190,-0.190,-0.190,0.000,0.000,0.000
1640068839737925888,"2021-12-21,06:40:39",10.1.1.3,349,-0.200,-0.200,-0.200,0.000,0.000,0.000
1640068839789026048,"2021-12-21,06:40:39",10.1.1.3,0.4004521369934082,-0.200,-0.200,-0.200,0.000,0.000,0.000
1640068840144695040,"2021-12-21,06:40:40",10.1.1.3,349,-0.210,-0.210,-0.210,0.000,0.000,0.000
1640068840165213952,"2021-12-21,06:40:40",10.1.1.3,0.3702991008758545,-0.210,-0.210,-0.210,0.000,0.000,0.000
1640068840494509824,"2021-12-21,06:40:40",10.1.1.3,327,-0.220,-0.220,-0.220,0.000,0.000,0.000
1640068840558098944,"2021-12-21,06:40:40",10.1.1.3,0.3914458751678467,-0.220,-0.220,-0.220,0.000,0.000,0.000
1640068840898518016,"2021-12-21,06:40:40",10.1.1.3,337,-0.230,-0.230,-0.230,0.000,0.000,0.000
1640068840952802816,"2021-12-21,06:40:40",10.1.1.3,0.3922290802001953,-0.230,-0.230,-0.230,0.000,0.000,0.000
1640068841294807808,"2021-12-21,06:40:41",10.1.1.3,340,-0.240,-0.240,-0.240,0.000,0.000,0.000
1640068841345586176,"2021-12-21,06:40:41",10.1.1.3,0.39137887954711914,-0.240,-0.240,-0.240,0.000,0.000,0.000
1640068841721529856,"2021-12-21,06:40:41",10.1.1.3,374,-0.250,-0.250,-0.250,0.000,0.000,0.000
1640068841764499968,"2021-12-21,06:40:41",10.1.1.3,0.41306495666503906,-0.250,-0.250,-0.250,0.000,0.000,0.000
1640068842103512064,"2021-12-21,06:40:42",10.1.1.3,334,-0.260,-0.260,-0.260,0.000,0.000,0.000
1640068842153620992,"2021-12-21,06:40:42",10.1.1.3,0.38459300994873047,-0.260,-0.260,-0.260,0.000,0.000,0.000
1640068842541139968,"2021-12-21,06:40:42",10.1.1.3,386,-0.270,-0.270,-0.270,0.000,0.000,0.000
1640068842556051968,"2021-12-21,06:40:42",10.1.1.3,0.4010050296783447,-0.270,-0.270,-0.270,0.000,0.000,0.000
1640068842922585856,"2021-12-21,06:40:42",10.1.1.3,362,-0.280,-0.280,-0.280,0.000,0.000,0.000
1640068842960963840,"2021-12-21,06:40:42",10.1.1.3,0.40053510665893555,-0.280,-0.280,-0.280,0.000,0.000,0.000
1640068843353157120,"2021-12-21,06:40:43",10.1.1.3,389,-0.290,-0.290,-0.290,0.000,0.000,0.000
1640068843401277952,"2021-12-21,06:40:43",10.1.1.3,0.43818187713623047,-0.290,-0.290,-0.290,0.000,0.000,0.000
1640068843758593024,"2021-12-21,06:40:43",10.1.1.3,352,-0.300,-0.300,-0.300,0.000,0.000,0.000
1640068843803642112,"2021-12-21,06:40:43",10.1.1.3,0.39716100692749023,-0.300,-0.300,-0.300,0.000,0.000,0.000
1640068844128331776,"2021-12-21,06:40:44",10.1.1.3,322,-0.310,-0.310,-0.310,0.000,0.000,0.000
1640068844138254848,"2021-12-21,06:40:44",10.1.1.3,0.33265113830566406,-0.310,-0.310,-0.310,0.000,0.000,0.000
1640068844527406848,"2021-12-21,06:40:44",10.1.1.3,379,-0.320,-0.320,-0.320,0.000,0.000,0.000
1640068844613091840,"2021-12-21,06:40:44",10.1.1.3,0.4652748107910156,-0.320,-0.320,-0.320,0.000,0.000,0.000
1640068844947042816,"2021-12-21,06:40:44",10.1.1.3,330,-0.330,-0.330,-0.330,0.000,0.000,0.000
1640068845008007168,"2021-12-21,06:40:45",10.1.1.3,0.3915290832519531,-0.330,-0.330,-0.330,0.000,0.000,0.000
1640068845386096896,"2021-12-21,06:40:45",10.1.1.3,371,-0.340,-0.340,-0.340,0.000,0.000,0.000
1640068845474780928,"2021-12-21,06:40:45",10.1.1.3,0.4606900215148926,-0.340,-0.340,-0.340,0.000,0.000,0.000
1640068845836101120,"2021-12-21,06:40:45",10.1.1.3,359,-0.350,-0.350,-0.350,0.000,0.000,0.000
1640068845882482176,"2021-12-21,06:40:45",10.1.1.3,0.4057011604309082,-0.350,-0.350,-0.350,0.000,0.000,0.000
1640068846294617856,"2021-12-21,06:40:46",10.1.1.3,410,-0.360,-0.360,-0.360,0.000,0.000,0.000
1640068846357636864,"2021-12-21,06:40:46",10.1.1.3,0.47345495223999023,-0.360,-0.360,-0.360,0.000,0.000,0.000
1640068846754839040,"2021-12-21,06:40:46",10.1.1.3,395,-0.370,-0.370,-0.370,0.000,0.000,0.000
1640068846790412032,"2021-12-21,06:40:46",10.1.1.3,0.4310629367828369,-0.370,-0.370,-0.370,0.000,0.000,0.000
1640068847134743040,"2021-12-21,06:40:47",10.1.1.3,338,-0.380,-0.380,-0.380,0.000,0.000,0.000
1640068847211297024,"2021-12-21,06:40:47",10.1.1.3,0.41655707359313965,-0.380,-0.380,-0.380,0.000,0.000,0.000
1640068847587544832,"2021-12-21,06:40:47",10.1.1.3,367,-0.390,-0.390,-0.390,0.000,0.000,0.000
1640068847650319104,"2021-12-21,06:40:47",10.1.1.3,0.42719197273254395,-0.390,-0.390,-0.390,0.000,0.000,0.000
1640068848019367936,"2021-12-21,06:40:48",10.1.1.3,363,-0.400,-0.400,-0.400,0.000,0.000,0.000
1640068848040358144,"2021-12-21,06:40:48",10.1.1.3,0.38462305068969727,-0.400,-0.400,-0.400,0.000,0.000,0.000
1640068848341422080,"2021-12-21,06:40:48",10.1.1.3,299,-0.410,-0.410,-0.410,0.000,0.000,0.000
1640068848380944896,"2021-12-21,06:40:48",10.1.1.3,0.3392949104309082,-0.410,-0.410,-0.410,0.000,0.000,0.000
1640068848832930048,"2021-12-21,06:40:48",10.1.1.3,450,-0.420,-0.420,-0.420,0.000,0.000,0.000
1640068848898216960,"2021-12-21,06:40:48",10.1.1.3,0.5153820514678955,-0.420,-0.420,-0.420,0.000,0.000,0.000
1640068849254078976,"2021-12-21,06:40:49",10.1.1.3,354,-0.430,-0.430,-0.430,0.000,0.000,0.000
1640068849294382080,"2021-12-21,06:40:49",10.1.1.3,0.3926839828491211,-0.430,-0.430,-0.430,0.000,0.000,0.000
1640068849666163968,"2021-12-21,06:40:49",10.1.1.3,369,-0.440,-0.440,-0.440,0.000,0.000,0.000
1640068849741967872,"2021-12-21,06:40:49",10.1.1.3,0.44538187980651855,-0.440,-0.440,-0.440,0.000,0.000,0.000
1640068850088155904,"2021-12-21,06:40:50",10.1.1.3,344,-0.450,-0.450,-0.450,0.000,0.000,0.000
1640068850148562944,"2021-12-21,06:40:50",10.1.1.3,0.3985471725463867,-0.450,-0.450,-0.450,0.000,0.000,0.000
1640068850519289856,"2021-12-21,06:40:50",10.1.1.3,368,-0.460,-0.460,-0.460,0.000,0.000,0.000
1640068850614865152,"2021-12-21,06:40:50",10.1.1.3,0.46442580223083496,-0.460,-0.460,-0.460,0.000,0.000,0.000
1640068850980016896,"2021-12-21,06:40:50",10.1.1.3,355,-0.470,-0.470,-0.470,0.000,0.000,0.000
1640068851037561856,"2021-12-21,06:40:51",10.1.1.3,0.4127821922302246,-0.470,-0.470,-0.470,0.000,0.000,0.000
1640068851370907904,"2021-12-21,06:40:51",10.1.1.3,330,-0.480,-0.480,-0.480,0.000,0.000,0.000
1640068851385787136,"2021-12-21,06:40:51",10.1.1.3,0.34560394287109375,-0.480,-0.480,-0.480,0.000,0.000,0.000
1640068851753761024,"2021-12-21,06:40:51",10.1.1.3,362,-0.490,-0.490,-0.490,0.000,0.000,0.000
1640068851795984896,"2021-12-21,06:40:51",10.1.1.3,0.4052309989929199,-0.490,-0.490,-0.490,0.000,0.000,0.000
1640068852183762944,"2021-12-21,06:40:52",10.1.1.3,384,-0.480,-0.480,-0.480,0.000,0.000,0.000
1640068852265334016,"2021-12-21,06:40:52",10.1.1.3,0.46597886085510254,-0.480,-0.480,-0.480,0.000,0.000,0.000
1640068852643467008,"2021-12-21,06:40:52",10.1.1.3,369,-0.470,-0.470,-0.470,0.000,0.000,0.000
1640068852693399040,"2021-12-21,06:40:52",10.1.1.3,0.41785216331481934,-0.470,-0.470,-0.470,0.000,0.000,0.000
1640068853053900032,"2021-12-21,06:40:53",10.1.1.3,359,-0.460,-0.460,-0.460,0.000,0.000,0.000
1640068853132030976,"2021-12-21,06:40:53",10.1.1.3,0.437255859375,-0.460,-0.460,-0.460,0.000,0.000,0.000
1640068853454521856,"2021-12-21,06:40:53",10.1.1.3,319,-0.450,-0.450,-0.450,0.000,0.000,0.000
1640068853537266944,"2021-12-21,06:40:53",10.1.1.3,0.40202784538269043,-0.450,-0.450,-0.450,0.000,0.000,0.000
1640068853905679872,"2021-12-21,06:40:53",10.1.1.3,366,-0.440,-0.440,-0.440,0.000,0.000,0.000
1640068853992489216,"2021-12-21,06:40:53",10.1.1.3,0.4534189701080322,-0.440,-0.440,-0.440,0.000,0.000,0.000
1640068854367150080,"2021-12-21,06:40:54",10.1.1.3,372,-0.430,-0.430,-0.430,0.000,0.000,0.000
1640068854381451008,"2021-12-21,06:40:54",10.1.1.3,0.3872799873352051,-0.430,-0.430,-0.430,0.000,0.000,0.000
1640068854756956160,"2021-12-21,06:40:54",10.1.1.3,373,-0.420,-0.420,-0.420,0.000,0.000,0.000
1640068854904228096,"2021-12-21,06:40:54",10.1.1.3,0.520179033279419,-0.420,-0.420,-0.420,0.000,0.000,0.000
1640068855316574208,"2021-12-21,06:40:55",10.1.1.3,407,-0.410,-0.410,-0.410,0.000,0.000,0.000
1640068855401381888,"2021-12-21,06:40:55",10.1.1.3,0.4927980899810791,-0.410,-0.410,-0.410,0.000,0.000,0.000
1640068855767883008,"2021-12-21,06:40:55",10.1.1.3,363,-0.400,-0.400,-0.400,0.000,0.000,0.000
1640068855836828928,"2021-12-21,06:40:55",10.1.1.3,0.4327700138092041,-0.400,-0.400,-0.400,0.000,0.000,0.000
1640068856187570176,"2021-12-21,06:40:56",10.1.1.3,348,-0.390,-0.390,-0.390,0.000,0.000,0.000
1640068856261096960,"2021-12-21,06:40:56",10.1.1.3,0.42179107666015625,-0.390,-0.390,-0.390,0.000,0.000,0.000
1640068856708365056,"2021-12-21,06:40:56",10.1.1.3,445,-0.380,-0.380,-0.380,0.000,0.000,0.000
1640068856745223168,"2021-12-21,06:40:56",10.1.1.3,0.48248887062072754,-0.380,-0.380,-0.380,0.000,0.000,0.000
1640068857099680000,"2021-12-21,06:40:57",10.1.1.3,348,-0.370,-0.370,-0.370,0.000,0.000,0.000
1640068857174309120,"2021-12-21,06:40:57",10.1.1.3,0.4234449863433838,-0.370,-0.370,-0.370,0.000,0.000,0.000
1640068857507239168,"2021-12-21,06:40:57",10.1.1.3,329,-0.360,-0.360,-0.360,0.000,0.000,0.000
1640068857580566784,"2021-12-21,06:40:57",10.1.1.3,0.402846097946167,-0.360,-0.360,-0.360,0.000,0.000,0.000
1640068857910466816,"2021-12-21,06:40:57",10.1.1.3,327,-0.350,-0.350,-0.350,0.000,0.000,0.000
1640068857946170112,"2021-12-21,06:40:57",10.1.1.3,0.3633549213409424,-0.350,-0.350,-0.350,0.000,0.000,0.000
1640068858295478016,"2021-12-21,06:40:58",10.1.1.3,346,-0.340,-0.340,-0.340,0.000,0.000,0.000
1640068858341826048,"2021-12-21,06:40:58",10.1.1.3,0.3932020664215088,-0.340,-0.340,-0.340,0.000,0.000,0.000
1640068858737394176,"2021-12-21,06:40:58",10.1.1.3,393,-0.330,-0.330,-0.330,0.000,0.000,0.000
1640068858784399104,"2021-12-21,06:40:58",10.1.1.3,0.44063305854797363,-0.330,-0.330,-0.330,0.000,0.000,0.000
1640068859158509056,"2021-12-21,06:40:59",10.1.1.3,372,-0.320,-0.320,-0.320,0.000,0.000,0.000
1640068859203069952,"2021-12-21,06:40:59",10.1.1.3,0.41708898544311523,-0.320,-0.320,-0.320,0.000,0.000,0.000
1640068859547746816,"2021-12-21,06:40:59",10.1.1.3,339,-0.310,-0.310,-0.310,0.000,0.000,0.000
1640068859657864960,"2021-12-21,06:40:59",10.1.1.3,0.4492471218109131,-0.310,-0.310,-0.310,0.000,0.000,0.000
1640068860008781824,"2021-12-21,06:41:00",10.1.1.3,349,-0.300,-0.300,-0.300,0.000,0.000,0.000
1640068860065502976,"2021-12-21,06:41:00",10.1.1.3,0.4060020446777344,-0.300,-0.300,-0.300,0.000,0.000,0.000
1640068860378396160,"2021-12-21,06:41:00",10.1.1.3,307,-0.290,-0.290,-0.290,0.000,0.000,0.000
1640068860446834944,"2021-12-21,06:41:00",10.1.1.3,0.37627696990966797,-0.290,-0.290,-0.290,0.000,0.000,0.000
1640068860807342080,"2021-12-21,06:41:00",10.1.1.3,358,-0.280,-0.280,-0.280,0.000,0.000,0.000
1640068860874573824,"2021-12-21,06:41:00",10.1.1.3,0.42624378204345703,-0.280,-0.280,-0.280,0.000,0.000,0.000
1640068861297796096,"2021-12-21,06:41:01",10.1.1.3,421,-0.270,-0.270,-0.270,0.000,0.000,0.000
1640068861370192896,"2021-12-21,06:41:01",10.1.1.3,0.49396395683288574,-0.270,-0.270,-0.270,0.000,0.000,0.000
1640068861688103936,"2021-12-21,06:41:01",10.1.1.3,296,-0.260,-0.260,-0.260,0.000,0.000,0.000
1640068861727561984,"2021-12-21,06:41:01",10.1.1.3,0.33614087104797363,-0.260,-0.260,-0.260,0.000,0.000,0.000
1640068862076779008,"2021-12-21,06:41:02",10.1.1.3,346,-0.250,-0.250,-0.250,0.000,0.000,0.000
1640068862146988032,"2021-12-21,06:41:02",10.1.1.3,0.4168238639831543,-0.250,-0.250,-0.250,0.000,0.000,0.000
1640068862545979904,"2021-12-21,06:41:02",10.1.1.3,388,-0.240,-0.240,-0.240,0.000,0.000,0.000
1640068862593815040,"2021-12-21,06:41:02",10.1.1.3,0.4367859363555908,-0.240,-0.240,-0.240,0.000,0.000,0.000
1640068862925390848,"2021-12-21,06:41:02",10.1.1.3,329,-0.230,-0.230,-0.230,0.000,0.000,0.000
1640068862967226880,"2021-12-21,06:41:02",10.1.1.3,0.37128376960754395,-0.230,-0.230,-0.230,0.000,0.000,0.000
1640068863325289984,"2021-12-21,06:41:03",10.1.1.3,356,-0.220,-0.220,-0.220,0.000,0.000,0.000
1640068863361143040,"2021-12-21,06:41:03",10.1.1.3,0.39252495765686035,-0.220,-0.220,-0.220,0.000,0.000,0.000
1640068863755625984,"2021-12-21,06:41:03",10.1.1.3,388,-0.210,-0.210,-0.210,0.000,0.000,0.000
1640068863790967040,"2021-12-21,06:41:03",10.1.1.3,0.4241480827331543,-0.210,-0.210,-0.210,0.000,0.000,0.000
1640068864194331904,"2021-12-21,06:41:04",10.1.1.3,401,-0.200,-0.200,-0.200,0.000,0.000,0.000
1640068864234955008,"2021-12-21,06:41:04",10.1.1.3,0.44234609603881836,-0.200,-0.200,-0.200,0.000,0.000,0.000
1640068864595101184,"2021-12-21,06:41:04",10.1.1.3,358,-0.190,-0.190,-0.190,0.000,0.000,0.000
1640068864653317888,"2021-12-21,06:41:04",10.1.1.3,0.41652679443359375,-0.190,-0.190,-0.190,0.000,0.000,0.000
1640068864994089984,"2021-12-21,06:41:04",10.1.1.3,337,-0.180,-0.180,-0.180,0.000,0.000,0.000
1640068865050735104,"2021-12-21,06:41:05",10.1.1.3,0.39462900161743164,-0.180,-0.180,-0.180,0.000,0.000,0.000
1640068865403013888,"2021-12-21,06:41:05",10.1.1.3,341,-0.170,-0.170,-0.170,0.000,0.000,0.000
1640068865439002880,"2021-12-21,06:41:05",10.1.1.3,0.3779139518737793,-0.170,-0.170,-0.170,0.000,0.000,0.000
1640068865843187968,"2021-12-21,06:41:05",10.1.1.3,393,-0.160,-0.160,-0.160,0.000,0.000,0.000
1640068865908196096,"2021-12-21,06:41:05",10.1.1.3,0.4581880569458008,-0.160,-0.160,-0.160,0.000,0.000,0.000
1640068866332626944,"2021-12-21,06:41:06",10.1.1.3,422,-0.150,-0.150,-0.150,0.000,0.000,0.000
1640068866419634944,"2021-12-21,06:41:06",10.1.1.3,0.509253978729248,-0.150,-0.150,-0.150,0.000,0.000,0.000
1640068866771945984,"2021-12-21,06:41:06",10.1.1.3,338,-0.140,-0.140,-0.140,0.000,0.000,0.000
1640068866849592064,"2021-12-21,06:41:06",10.1.1.3,0.4165010452270508,-0.140,-0.140,-0.140,0.000,0.000,0.000
1640068867230848000,"2021-12-21,06:41:07",10.1.1.3,367,-0.130,-0.130,-0.130,0.000,0.000,0.000
1640068867249911040,"2021-12-21,06:41:07",10.1.1.3,0.38652896881103516,-0.130,-0.130,-0.130,0.000,0.000,0.000
1640068867672071936,"2021-12-21,06:41:07",10.1.1.3,419,-0.120,-0.120,-0.120,0.000,0.000,0.000
1640068867694482944,"2021-12-21,06:41:07",10.1.1.3,0.4420480728149414,-0.120,-0.120,-0.120,0.000,0.000,0.000
1640068868095947008,"2021-12-21,06:41:08",10.1.1.3,369,-0.110,-0.110,-0.110,0.000,0.000,0.000
1640068868126671104,"2021-12-21,06:41:08",10.1.1.3,0.40004491806030273,-0.110,-0.110,-0.110,0.000,0.000,0.000
1640068868490269952,"2021-12-21,06:41:08",10.1.1.3,362,-0.100,-0.100,-0.100,0.000,0.000,0.000
1640068868567802880,"2021-12-21,06:41:08",10.1.1.3,0.43973398208618164,-0.100,-0.100,-0.100,0.000,0.000,0.000
1640068868919431936,"2021-12-21,06:41:08",10.1.1.3,350,-0.090,-0.090,-0.090,0.000,0.000,0.000
1640068868969300992,"2021-12-21,06:41:08",10.1.1.3,0.4000248908996582,-0.090,-0.090,-0.090,0.000,0.000,0.000
1640068869298558976,"2021-12-21,06:41:09",10.1.1.3,320,-0.080,-0.080,-0.080,0.000,0.000,0.000
1640068869347877888,"2021-12-21,06:41:09",10.1.1.3,0.3700380325317383,-0.080,-0.080,-0.080,0.000,0.000,0.000
1640068869717327104,"2021-12-21,06:41:09",10.1.1.3,368,-0.070,-0.070,-0.070,0.000,0.000,0.000
1640068869822892032,"2021-12-21,06:41:09",10.1.1.3,0.4736950397491455,-0.070,-0.070,-0.070,0.000,0.000,0.000
1640068870227483904,"2021-12-21,06:41:10",10.1.1.3,396,-0.060,-0.060,-0.060,0.000,0.000,0.000
1640068870313014016,"2021-12-21,06:41:10",10.1.1.3,0.4821920394897461,-0.060,-0.060,-0.060,0.000,0.000,0.000
1640068870726543872,"2021-12-21,06:41:10",10.1.1.3,411,-0.050,-0.050,-0.050,0.000,0.000,0.000
1640068870807586048,"2021-12-21,06:41:10",10.1.1.3,0.4930720329284668,-0.050,-0.050,-0.050,0.000,0.000,0.000
1640068871105992960,"2021-12-21,06:41:11",10.1.1.3,297,-0.040,-0.040,-0.040,0.000,0.000,0.000
1640068871193883904,"2021-12-21,06:41:11",10.1.1.3,0.38503503799438477,-0.040,-0.040,-0.040,0.000,0.000,0.000
