FedericoMungari/DigitalTwin_service/02_LTEScenario/Output/Output_script/script_ROSAPI_output_robots4_freq0_3.txt
timestamp,date,node,latency,joint_1,joint_2,joint_3,joint_4,joint_5,joint_6
1640658880025793024,2021-12-28-02:34:40,10.1.1.4,1640658880025.5051,-0.000,-0.000,0.000,0.000,0.000,-0.000
1640658884098135040,2021-12-28-02:34:44,10.1.1.4,5,-0.000,-0.000,0.000,0.000,0.000,-0.000
1640658886214471168,2021-12-28-02:34:46,10.1.1.4,2,-0.000,-0.000,0.000,0.000,0.000,-0.000
1640658888333086976,2021-12-28-02:34:48,10.1.1.4,8,-0.000,-0.000,0.000,0.000,0.000,-0.000
1640658890424029952,2021-12-28-02:34:50,10.1.1.4,12,-0.000,-0.000,0.000,0.000,0.000,-0.000
1640658892490552832,2021-12-28-02:34:52,10.1.1.4,2,-0.000,-0.000,0.000,0.000,0.000,-0.000
1640658894613080064,2021-12-28-02:34:54,10.1.1.4,8,-0.000,-0.000,0.000,0.000,0.000,-0.000
1640658896695559936,2021-12-28-02:34:56,10.1.1.4,14,-0.000,-0.000,0.000,0.000,0.000,-0.000
1640658898775832064,2021-12-28-02:34:58,10.1.1.4,18,-0.000,-0.000,0.000,0.000,0.000,-0.000
1640658900855678976,2021-12-28-02:35:00,10.1.1.4,19,-0.000,-0.000,0.000,0.000,0.000,-0.000
1640658902913558016,2021-12-28-02:35:02,10.1.1.4,17,-0.000,-0.000,0.000,0.000,0.000,-0.000
1640658904993490944,2021-12-28-02:35:04,10.1.1.4,12,-0.000,-0.000,0.000,0.000,0.000,-0.000
1640658907090060032,2021-12-28-02:35:07,10.1.1.4,19,-0.000,-0.000,0.000,0.000,0.000,-0.000
1640658909168302080,2021-12-28-02:35:09,10.1.1.4,6,-0.000,-0.000,0.000,0.000,0.000,-0.000
1640658911244869888,2021-12-28-02:35:11,10.1.1.4,2,-0.000,-0.000,0.000,0.000,0.000,-0.000
1640658913342850048,2021-12-28-02:35:13,10.1.1.4,18,-0.000,-0.000,0.000,0.000,0.000,-0.000
1640658915459148800,2021-12-28-02:35:15,10.1.1.4,17,-0.000,-0.000,0.000,0.000,0.000,-0.000
1640658917595448064,2021-12-28-02:35:17,10.1.1.4,17,-0.000,-0.000,0.000,0.000,0.000,-0.000
1640658919654108928,2021-12-28-02:35:19,10.1.1.4,7,-0.000,-0.000,0.000,0.000,0.000,-0.000
1640658921762316032,2021-12-28-02:35:21,10.1.1.4,0,-0.000,-0.000,0.000,0.000,0.000,-0.000
1640658923929127936,2021-12-28-02:35:23,10.1.1.4,16,-0.000,-0.000,0.000,0.000,0.000,-0.000
1640658926013179904,2021-12-28-02:35:26,10.1.1.4,3,-0.000,-0.000,0.000,0.000,0.000,-0.000
1640658928095063040,2021-12-28-02:35:28,10.1.1.4,4,-0.000,-0.000,0.000,0.000,0.000,-0.000
1640658930217384192,2021-12-28-02:35:30,10.1.1.4,6,-0.000,-0.000,0.000,0.000,0.000,-0.000
1640658932316411904,2021-12-28-02:35:32,10.1.1.4,13,-0.000,-0.000,0.000,0.000,0.000,-0.000
1640658934419737088,2021-12-28-02:35:34,10.1.1.4,14,-0.000,-0.000,0.000,0.000,0.000,-0.000
1640658936493721856,2021-12-28-02:35:36,10.1.1.4,0,-0.000,-0.000,0.000,0.000,0.000,-0.000
1640658938613099008,2021-12-28-02:35:38,10.1.1.4,17,-0.000,-0.000,0.000,0.000,0.000,-0.000
1640658940728896000,2021-12-28-02:35:40,10.1.1.4,12,-0.000,-0.000,0.000,0.000,0.000,-0.000
1640658942847668992,2021-12-28-02:35:42,10.1.1.4,4,-0.000,-0.000,0.000,0.000,0.000,-0.000
1640658944943026944,2021-12-28-02:35:44,10.1.1.4,4,-0.000,-0.000,0.000,0.000,0.000,-0.000
1640658947040177152,2021-12-28-02:35:47,10.1.1.4,19,-0.000,-0.000,0.000,0.000,0.000,-0.000
1640658949136933120,2021-12-28-02:35:49,10.1.1.4,16,-0.000,-0.000,0.000,0.000,0.000,-0.000
1640658951235579136,2021-12-28-02:35:51,10.1.1.4,17,-0.000,-0.000,0.000,0.000,0.000,-0.000
1640658953332796160,2021-12-28-02:35:53,10.1.1.4,7,-0.000,-0.000,0.000,0.000,0.000,-0.000
1640658955403116032,2021-12-28-02:35:55,10.1.1.4,12,-0.000,-0.000,0.000,0.000,0.000,-0.000
1640658957489723904,2021-12-28-02:35:57,10.1.1.4,9,-0.000,-0.000,0.000,0.000,0.000,-0.000
1640658959572679168,2021-12-28-02:35:59,10.1.1.4,10,-0.000,-0.000,0.000,0.000,0.000,-0.000
1640658961654272000,2021-12-28-02:36:01,10.1.1.4,2,-0.000,-0.000,0.000,0.000,0.000,-0.000
1640658963775119104,2021-12-28-02:36:03,10.1.1.4,13,-0.000,-0.000,0.000,0.000,0.000,-0.000
1640658965875966976,2021-12-28-02:36:05,10.1.1.4,0,-0.000,-0.000,0.000,0.000,0.000,-0.000
1640658967994093824,2021-12-28-02:36:07,10.1.1.4,1,-0.000,-0.000,0.000,0.000,0.000,-0.000
1640658970092210944,2021-12-28-02:36:10,10.1.1.4,9,-0.000,-0.000,0.000,0.000,0.000,-0.000
1640658972211265024,2021-12-28-02:36:12,10.1.1.4,6,-0.000,-0.000,0.000,0.000,0.000,-0.000
1640658974306632960,2021-12-28-02:36:14,10.1.1.4,12,-0.000,-0.000,0.000,0.000,0.000,-0.000
1640658976364856832,2021-12-28-02:36:16,10.1.1.4,6,-0.000,-0.000,0.000,0.000,0.000,-0.000
1640658978441118976,2021-12-28-02:36:18,10.1.1.4,19,-0.000,-0.000,0.000,0.000,0.000,-0.000
1640658980477991168,2021-12-28-02:36:20,10.1.1.4,16,-0.000,-0.000,0.000,0.000,0.000,-0.000
1640658982514904064,2021-12-28-02:36:22,10.1.1.4,10,-0.000,-0.000,0.000,0.000,0.000,-0.000
1640658984572752896,2021-12-28-02:36:24,10.1.1.4,2,-0.000,-0.000,0.000,0.000,0.000,-0.000
1640658986659870976,2021-12-28-02:36:26,10.1.1.4,16,-0.000,-0.000,0.000,0.000,0.000,-0.000
1640658988748079104,2021-12-28-02:36:28,10.1.1.4,12,-0.000,-0.000,0.000,0.000,0.000,-0.000
1640658990832279040,2021-12-28-02:36:30,10.1.1.4,5,-0.000,-0.000,0.000,0.000,0.000,-0.000
1640658992915406848,2021-12-28-02:36:32,10.1.1.4,3,-0.000,-0.000,0.000,0.000,0.000,-0.000
1640658995016398848,2021-12-28-02:36:35,10.1.1.4,13,-0.000,-0.000,0.000,0.000,0.000,-0.000
1640658997097227008,2021-12-28-02:36:37,10.1.1.4,19,-0.000,-0.000,0.000,0.000,0.000,-0.000
1640658999175817984,2021-12-28-02:36:39,10.1.1.4,17,-0.000,-0.000,0.000,0.000,0.000,-0.000
1640659001215398144,2021-12-28-02:36:41,10.1.1.4,2,-0.000,-0.000,0.000,0.000,0.000,-0.000
1640659003333168896,2021-12-28-02:36:43,10.1.1.4,10,-0.000,-0.000,0.000,0.000,0.000,-0.000
1640659005391258880,2021-12-28-02:36:45,10.1.1.4,2,-0.000,-0.000,0.000,0.000,0.000,-0.000
1640659007507250944,2021-12-28-02:36:47,10.1.1.4,3,-0.000,-0.000,0.000,0.000,0.000,-0.000
1640659009605273856,2021-12-28-02:36:49,10.1.1.4,12,-0.000,-0.000,0.000,0.000,0.000,-0.000
1640659011704032000,2021-12-28-02:36:51,10.1.1.4,1,-0.000,-0.000,0.000,0.000,0.000,-0.000
1640659013819565056,2021-12-28-02:36:53,10.1.1.4,2,-0.000,-0.000,0.000,0.000,0.000,-0.000
1640659015915312128,2021-12-28-02:36:55,10.1.1.4,0,-0.000,-0.000,0.000,0.000,0.000,-0.000
1640659018039947008,2021-12-28-02:36:58,10.1.1.4,20,-0.000,-0.000,0.000,0.000,0.000,-0.000
1640659020128581120,2021-12-28-02:37:00,10.1.1.4,19,-0.000,-0.000,0.000,0.000,0.000,-0.000
1640659022211448832,2021-12-28-02:37:02,10.1.1.4,2,-0.000,-0.000,0.000,0.000,0.000,-0.000
1640659024314395904,2021-12-28-02:37:04,10.1.1.4,5,-0.000,-0.000,0.000,0.000,0.000,-0.000
1640659026396967936,2021-12-28-02:37:06,10.1.1.4,11,-0.000,-0.000,0.000,0.000,0.000,-0.000
1640659028477081088,2021-12-28-02:37:08,10.1.1.4,11,-0.000,-0.000,0.000,0.000,0.000,-0.000
1640659030615474944,2021-12-28-02:37:10,10.1.1.4,18,-0.000,-0.000,0.000,0.000,0.000,-0.000
1640659032674472960,2021-12-28-02:37:12,10.1.1.4,7,-0.000,-0.000,0.000,0.000,0.000,-0.000
1640659034775089152,2021-12-28-02:37:14,10.1.1.4,15,-0.000,-0.000,0.000,0.000,0.000,-0.000
1640659036869658112,2021-12-28-02:37:16,10.1.1.4,2,-0.000,-0.000,0.000,0.000,0.000,-0.000
1640659039008753152,2021-12-28-02:37:19,10.1.1.4,12,-0.000,-0.000,0.000,0.000,0.000,-0.000
1640659041124710144,2021-12-28-02:37:21,10.1.1.4,3,-0.000,-0.000,0.000,0.000,0.000,-0.000
1640659043242296832,2021-12-28-02:37:23,10.1.1.4,17,-0.000,-0.000,0.000,0.000,0.000,-0.000
1640659045317619968,2021-12-28-02:37:25,10.1.1.4,8,-0.000,-0.000,0.000,0.000,0.000,-0.000
1640659047414173952,2021-12-28-02:37:27,10.1.1.4,9,-0.000,-0.000,0.000,0.000,0.000,-0.000
1640659049534768128,2021-12-28-02:37:29,10.1.1.4,13,-0.000,-0.000,0.000,0.000,0.000,-0.000
1640659051604398080,2021-12-28-02:37:31,10.1.1.4,18,-0.000,-0.000,0.000,0.000,0.000,-0.000
1640659053669491968,2021-12-28-02:37:33,10.1.1.4,17,-0.000,-0.000,0.000,0.000,0.000,-0.000
1640659055793450240,2021-12-28-02:37:35,10.1.1.4,12,-0.000,-0.000,0.000,0.000,0.000,-0.000
1640659057897465088,2021-12-28-02:37:37,10.1.1.4,4,-0.000,-0.000,0.000,0.000,0.000,-0.000
1640659060016674048,2021-12-28-02:37:40,10.1.1.4,17,-0.000,-0.000,0.000,0.000,0.000,-0.000
1640659062116203008,2021-12-28-02:37:42,10.1.1.4,5,-0.000,-0.000,0.000,0.000,0.000,-0.000
1640659064194075136,2021-12-28-02:37:44,10.1.1.4,9,-0.000,-0.000,0.000,0.000,0.000,-0.000
1640659066293699072,2021-12-28-02:37:46,10.1.1.4,19,-0.000,-0.000,0.000,0.000,0.000,-0.000
1640659068409980928,2021-12-28-02:37:48,10.1.1.4,5,-0.000,-0.000,0.000,0.000,0.000,-0.000
1640659070487865088,2021-12-28-02:37:50,10.1.1.4,1,-0.000,-0.000,0.000,0.000,0.000,-0.000
1640659072544385024,2021-12-28-02:37:52,10.1.1.4,3,-0.000,-0.000,0.000,0.000,0.000,-0.000
1640659074622102016,2021-12-28-02:37:54,10.1.1.4,12,-0.000,-0.000,0.000,0.000,0.000,-0.000
1640659076718579968,2021-12-28-02:37:56,10.1.1.4,9,-0.000,-0.000,0.000,0.000,0.000,-0.000
1640659078814863872,2021-12-28-02:37:58,10.1.1.4,19,-0.000,-0.000,0.000,0.000,0.000,-0.000
1640659080891442176,2021-12-28-02:38:00,10.1.1.4,12,-0.000,-0.000,0.000,0.000,0.000,-0.000
1640659082955024128,2021-12-28-02:38:02,10.1.1.4,8,-0.000,-0.000,0.000,0.000,0.000,-0.000
1640659085063105024,2021-12-28-02:38:05,10.1.1.4,4,-0.000,-0.000,0.000,0.000,0.000,-0.000
1640659087169914880,2021-12-28-02:38:07,10.1.1.4,12,-0.000,-0.000,0.000,0.000,0.000,-0.000
1640659089253622016,2021-12-28-02:38:09,10.1.1.4,18,-0.000,-0.000,0.000,0.000,0.000,-0.000
1640659091335069952,2021-12-28-02:38:11,10.1.1.4,12,-0.000,-0.000,0.000,0.000,0.000,-0.000
1640659093434232832,2021-12-28-02:38:13,10.1.1.4,5,-0.000,-0.000,0.000,0.000,0.000,-0.000
1640659095553800960,2021-12-28-02:38:15,10.1.1.4,3,-0.000,-0.000,0.000,0.000,0.000,-0.000
1640659097672128000,2021-12-28-02:38:17,10.1.1.4,10,-0.000,-0.000,0.000,0.000,0.000,-0.000
1640659099790499840,2021-12-28-02:38:19,10.1.1.4,18,-0.000,-0.000,0.000,0.000,0.000,-0.000
1640659101868463104,2021-12-28-02:38:21,10.1.1.4,11,-0.000,-0.000,0.000,0.000,0.000,-0.000
1640659103947171072,2021-12-28-02:38:23,10.1.1.4,2,-0.000,-0.000,0.000,0.000,0.000,-0.000
1640659106083197952,2021-12-28-02:38:26,10.1.1.4,3,-0.000,-0.000,0.000,0.000,0.000,-0.000
1640659108199428096,2021-12-28-02:38:28,10.1.1.4,12,-0.000,-0.000,0.000,0.000,0.000,-0.000
1640659110296937984,2021-12-28-02:38:30,10.1.1.4,5,-0.000,-0.000,0.000,0.000,0.000,-0.000
1640659112412976896,2021-12-28-02:38:32,10.1.1.4,9,-0.000,-0.000,0.000,0.000,0.000,-0.000
1640659114513145856,2021-12-28-02:38:34,10.1.1.4,10,-0.000,-0.000,0.000,0.000,0.000,-0.000
1640659116642448896,2021-12-28-02:38:36,10.1.1.4,4,-0.000,-0.000,0.000,0.000,0.000,-0.000
1640659118789212928,2021-12-28-02:38:38,10.1.1.4,10,-0.000,-0.000,0.000,0.000,0.000,-0.000
1640659120912719872,2021-12-28-02:38:40,10.1.1.4,11,-0.000,-0.000,0.000,0.000,0.000,-0.000
1640659123015028992,2021-12-28-02:38:43,10.1.1.4,8,-0.000,-0.000,0.000,0.000,0.000,-0.000
1640659125114993152,2021-12-28-02:38:45,10.1.1.4,1,-0.000,-0.000,0.000,0.000,0.000,-0.000
1640659127253787136,2021-12-28-02:38:47,10.1.1.4,4,-0.000,-0.000,0.000,0.000,0.000,-0.000
1640659129353192192,2021-12-28-02:38:49,10.1.1.4,3,-0.000,-0.000,0.000,0.000,0.000,-0.000
1640659131471316992,2021-12-28-02:38:51,10.1.1.4,18,-0.000,-0.000,0.000,0.000,0.000,-0.000
1640659133569169920,2021-12-28-02:38:53,10.1.1.4,13,-0.000,-0.000,0.000,0.000,0.000,-0.000
1640659135686181120,2021-12-28-02:38:55,10.1.1.4,10,-0.000,-0.000,0.000,0.000,0.000,-0.000
1640659137743227904,2021-12-28-02:38:57,10.1.1.4,1,-0.000,-0.000,0.000,0.000,0.000,-0.000
1640659139840238080,2021-12-28-02:38:59,10.1.1.4,13,-0.000,-0.000,0.000,0.000,0.000,-0.000
1640659141937169920,2021-12-28-02:39:01,10.1.1.4,9,-0.000,-0.000,0.000,0.000,0.000,-0.000
1640659144033965056,2021-12-28-02:39:04,10.1.1.4,19,-0.000,-0.000,0.000,0.000,0.000,-0.000
1640659146071273216,2021-12-28-02:39:06,10.1.1.4,4,-0.000,-0.000,0.000,0.000,0.000,-0.000
1640659148161745152,2021-12-28-02:39:08,10.1.1.4,11,-0.000,-0.000,0.000,0.000,0.000,-0.000
1640659150248738048,2021-12-28-02:39:10,10.1.1.4,3,-0.000,-0.000,0.000,0.000,0.000,-0.000
1640659152351643136,2021-12-28-02:39:12,10.1.1.4,10,-0.000,-0.000,0.000,0.000,0.000,-0.000
1640659154434083840,2021-12-28-02:39:14,10.1.1.4,12,-0.000,-0.000,0.000,0.000,0.000,-0.000
1640659156536505088,2021-12-28-02:39:16,10.1.1.4,19,-0.000,-0.000,0.000,0.000,0.000,-0.000
1640659158656946944,2021-12-28-02:39:18,10.1.1.4,2,-0.000,-0.000,0.000,0.000,0.000,-0.000
1640659160775193088,2021-12-28-02:39:20,10.1.1.4,14,-0.000,-0.000,0.000,0.000,0.000,-0.000
1640659162872518144,2021-12-28-02:39:22,10.1.1.4,13,-0.000,-0.000,0.000,0.000,0.000,-0.000
1640659164952182016,2021-12-28-02:39:24,10.1.1.4,1,-0.000,-0.000,0.000,0.000,0.000,-0.000
1640659167048537088,2021-12-28-02:39:27,10.1.1.4,11,-0.000,-0.000,0.000,0.000,0.000,-0.000
1640659169167462144,2021-12-28-02:39:29,10.1.1.4,12,-0.000,-0.000,0.000,0.000,0.000,-0.000
1640659171302100992,2021-12-28-02:39:31,10.1.1.4,15,-0.000,-0.000,0.000,0.000,0.000,-0.000
1640659173398873088,2021-12-28-02:39:33,10.1.1.4,4,-0.000,-0.000,0.000,0.000,0.000,-0.000
1640659175515664128,2021-12-28-02:39:35,10.1.1.4,15,-0.000,-0.000,0.000,0.000,0.000,-0.000
1640659177634959872,2021-12-28-02:39:37,10.1.1.4,17,-0.000,-0.000,0.000,0.000,0.000,-0.000
1640659179740412928,2021-12-28-02:39:39,10.1.1.4,5,-0.000,-0.000,0.000,0.000,0.000,-0.000
1640659181847214080,2021-12-28-02:39:41,10.1.1.4,15,-0.000,-0.000,0.000,0.000,0.000,-0.000
1640659183931977984,2021-12-28-02:39:43,10.1.1.4,12,-0.000,-0.000,0.000,0.000,0.000,-0.000
1640659186015163904,2021-12-28-02:39:46,10.1.1.4,17,-0.000,-0.000,0.000,0.000,0.000,-0.000
1640659188117274112,2021-12-28-02:39:48,10.1.1.4,2,-0.000,-0.000,0.000,0.000,0.000,-0.000
1640659190236308224,2021-12-28-02:39:50,10.1.1.4,6,-0.000,-0.000,0.000,0.000,0.000,-0.000
1640659192355727872,2021-12-28-02:39:52,10.1.1.4,14,-0.000,-0.000,0.000,0.000,0.000,-0.000
1640659194454096128,2021-12-28-02:39:54,10.1.1.4,2,-0.000,-0.000,0.000,0.000,0.000,-0.000
1640659196571760896,2021-12-28-02:39:56,10.1.1.4,13,-0.000,-0.000,0.000,0.000,0.000,-0.000
1640659198668606976,2021-12-28-02:39:58,10.1.1.4,5,-0.000,-0.000,0.000,0.000,0.000,-0.000
1640659200745990144,2021-12-28-02:40:00,10.1.1.4,5,-0.000,-0.000,0.000,0.000,0.000,-0.000
1640659202823596032,2021-12-28-02:40:02,10.1.1.4,3,-0.000,-0.000,0.000,0.000,0.000,-0.000
1640659204940616960,2021-12-28-02:40:04,10.1.1.4,13,-0.000,-0.000,0.000,0.000,0.000,-0.000
1640659207037341184,2021-12-28-02:40:07,10.1.1.4,5,-0.000,-0.000,0.000,0.000,0.000,-0.000
1640659209133683968,2021-12-28-02:40:09,10.1.1.4,5,-0.000,-0.000,0.000,0.000,0.000,-0.000
1640659211231337984,2021-12-28-02:40:11,10.1.1.4,10,-0.000,-0.000,0.000,0.000,0.000,-0.000
1640659213362348032,2021-12-28-02:40:13,10.1.1.4,19,-0.000,-0.000,0.000,0.000,0.000,-0.000
1640659215470347008,2021-12-28-02:40:15,10.1.1.4,14,-0.000,-0.000,0.000,0.000,0.000,-0.000
1640659217592956928,2021-12-28-02:40:17,10.1.1.4,11,-0.000,-0.000,0.000,0.000,0.000,-0.000
1640659219694406912,2021-12-28-02:40:19,10.1.1.4,10,-0.000,-0.000,0.000,0.000,0.000,-0.000
1640659221815681024,2021-12-28-02:40:21,10.1.1.4,17,-0.000,-0.000,0.000,0.000,0.000,-0.000
1640659223874936064,2021-12-28-02:40:23,10.1.1.4,19,-0.000,-0.000,0.000,0.000,0.000,-0.000
1640659225974045952,2021-12-28-02:40:25,10.1.1.4,9,-0.000,-0.000,0.000,0.000,0.000,-0.000
1640659228113694976,2021-12-28-02:40:28,10.1.1.4,18,-0.000,-0.000,0.000,0.000,0.000,-0.000
1640659230250076160,2021-12-28-02:40:30,10.1.1.4,18,-0.000,-0.000,0.000,0.000,0.000,-0.000
1640659232349030912,2021-12-28-02:40:32,10.1.1.4,4,-0.000,-0.000,0.000,0.000,0.000,-0.000
1640659234444655872,2021-12-28-02:40:34,10.1.1.4,12,-0.000,-0.000,0.000,0.000,0.000,-0.000
1640659236522486016,2021-12-28-02:40:36,10.1.1.4,9,-0.000,-0.000,0.000,0.000,0.000,-0.000
1640659238598387968,2021-12-28-02:40:38,10.1.1.4,5,-0.000,-0.000,0.000,0.000,0.000,-0.000
1640659240714577920,2021-12-28-02:40:40,10.1.1.4,15,-0.000,-0.000,0.000,0.000,0.000,-0.000
1640659242831147008,2021-12-28-02:40:42,10.1.1.4,18,-0.000,-0.000,0.000,0.000,0.000,-0.000
1640659244902712064,2021-12-28-02:40:44,10.1.1.4,15,-0.000,-0.000,0.000,0.000,0.000,-0.000
1640659246988169984,2021-12-28-02:40:46,10.1.1.4,2,-0.000,-0.000,0.000,0.000,0.000,-0.000
1640659249112399104,2021-12-28-02:40:49,10.1.1.4,8,-0.000,-0.000,0.000,0.000,0.000,-0.000
1640659251234592000,2021-12-28-02:40:51,10.1.1.4,11,-0.000,-0.000,0.000,0.000,0.000,-0.000
1640659253334814976,2021-12-28-02:40:53,10.1.1.4,14,-0.000,-0.000,0.000,0.000,0.000,-0.000
1640659255415080192,2021-12-28-02:40:55,10.1.1.4,17,-0.000,-0.000,0.000,0.000,0.000,-0.000
1640659257534106880,2021-12-28-02:40:57,10.1.1.4,11,-0.000,-0.000,0.000,0.000,0.000,-0.000
1640659259632491008,2021-12-28-02:40:59,10.1.1.4,4,-0.000,-0.000,0.000,0.000,0.000,-0.000
1640659261729486080,2021-12-28-02:41:01,10.1.1.4,18,-0.000,-0.000,0.000,0.000,0.000,-0.000
1640659263848751104,2021-12-28-02:41:03,10.1.1.4,6,-0.000,-0.000,0.000,0.000,0.000,-0.000
1640659265985598208,2021-12-28-02:41:05,10.1.1.4,16,-0.000,-0.000,0.000,0.000,0.000,-0.000
1640659268081267968,2021-12-28-02:41:08,10.1.1.4,13,-0.000,-0.000,0.000,0.000,0.000,-0.000
1640659270217552896,2021-12-28-02:41:10,10.1.1.4,12,-0.000,-0.000,0.000,0.000,0.000,-0.000
1640659272334976000,2021-12-28-02:41:12,10.1.1.4,7,-0.000,-0.000,0.000,0.000,0.000,-0.000
1640659274412695808,2021-12-28-02:41:14,10.1.1.4,9,-0.000,-0.000,0.000,0.000,0.000,-0.000
1640659276517648896,2021-12-28-02:41:16,10.1.1.4,8,-0.000,-0.000,0.000,0.000,0.000,-0.000
1640659278645885952,2021-12-28-02:41:18,10.1.1.4,9,-0.000,-0.000,0.000,0.000,0.000,-0.000
1640659280750846976,2021-12-28-02:41:20,10.1.1.4,7,-0.000,-0.000,0.000,0.000,0.000,-0.000
1640659282853440000,2021-12-28-02:41:22,10.1.1.4,13,-0.000,-0.000,0.000,0.000,0.000,-0.000
1640659284994191872,2021-12-28-02:41:24,10.1.1.4,8,-0.000,-0.000,0.000,0.000,0.000,-0.000
1640659287114914048,2021-12-28-02:41:27,10.1.1.4,5,-0.000,-0.000,0.000,0.000,0.000,-0.000
1640659289235186176,2021-12-28-02:41:29,10.1.1.4,9,-0.000,-0.000,0.000,0.000,0.000,-0.000
1640659291352220160,2021-12-28-02:41:31,10.1.1.4,4,-0.000,-0.000,0.000,0.000,0.000,-0.000
1640659293490011904,2021-12-28-02:41:33,10.1.1.4,18,-0.000,-0.000,0.000,0.000,0.000,-0.000
1640659295529570048,2021-12-28-02:41:35,10.1.1.4,2,-0.000,-0.000,0.000,0.000,0.000,-0.000
1640659297625488896,2021-12-28-02:41:37,10.1.1.4,13,-0.000,-0.000,0.000,0.000,0.000,-0.000
1640659299742857984,2021-12-28-02:41:39,10.1.1.4,12,-0.000,-0.000,0.000,0.000,0.000,-0.000
1640659301858448128,2021-12-28-02:41:41,10.1.1.4,10,-0.000,-0.000,0.000,0.000,0.000,-0.000
1640659303996615936,2021-12-28-02:41:43,10.1.1.4,13,-0.000,-0.000,0.000,0.000,0.000,-0.000
1640659306072830976,2021-12-28-02:41:46,10.1.1.4,18,-0.000,-0.000,0.000,0.000,0.000,-0.000
1640659308136604160,2021-12-28-02:41:48,10.1.1.4,12,-0.000,-0.000,0.000,0.000,0.000,-0.000
1640659310184745984,2021-12-28-02:41:50,10.1.1.4,8,-0.000,-0.000,0.000,0.000,0.000,-0.000
1640659312290103040,2021-12-28-02:41:52,10.1.1.4,11,-0.000,-0.000,0.000,0.000,0.000,-0.000
1640659314393063168,2021-12-28-02:41:54,10.1.1.4,16,-0.000,-0.000,0.000,0.000,0.000,-0.000
1640659316474926080,2021-12-28-02:41:56,10.1.1.4,11,-0.000,-0.000,0.000,0.000,0.000,-0.000
1640659318574918144,2021-12-28-02:41:58,10.1.1.4,16,-0.000,-0.000,0.000,0.000,0.000,-0.000
1640659320634987008,2021-12-28-02:42:00,10.1.1.4,10,-0.000,-0.000,0.000,0.000,0.000,-0.000
1640659322713543936,2021-12-28-02:42:02,10.1.1.4,4,-0.000,-0.000,0.000,0.000,0.000,-0.000
1640659324772388096,2021-12-28-02:42:04,10.1.1.4,3,-0.000,-0.000,0.000,0.000,0.000,-0.000
1640659326829893120,2021-12-28-02:42:06,10.1.1.4,1,-0.000,-0.000,0.000,0.000,0.000,-0.000
1640659326849894912,2021-12-28-02:42:06,10.1.1.4,-1,-0.000,-0.000,0.000,0.000,0.000,-0.000
1640659328926266880,2021-12-28-02:42:08,10.1.1.4,17,-0.000,-0.000,0.000,0.000,0.000,-0.000
1640659330944371968,2021-12-28-02:42:10,10.1.1.4,2,-0.000,-0.000,0.000,0.000,0.000,-0.000
1640659332982162944,2021-12-28-02:42:12,10.1.1.4,10,-0.000,-0.000,0.000,0.000,0.000,-0.000
1640659335057360896,2021-12-28-02:42:15,10.1.1.4,11,-0.000,-0.000,0.000,0.000,0.000,-0.000
1640659337114001152,2021-12-28-02:42:17,10.1.1.4,11,-0.000,-0.000,0.000,0.000,0.000,-0.000
1640659339171793920,2021-12-28-02:42:19,10.1.1.4,14,-0.000,-0.000,0.000,0.000,0.000,-0.000
1640659341316229120,2021-12-28-02:42:21,10.1.1.4,11,-0.000,-0.000,0.000,0.000,0.000,-0.000
1640659343383662080,2021-12-28-02:42:23,10.1.1.4,7,-0.000,-0.000,0.000,0.000,0.000,-0.000
1640659345470889216,2021-12-28-02:42:25,10.1.1.4,5,-0.000,-0.000,0.000,0.000,0.000,-0.000
1640659347553121024,2021-12-28-02:42:27,10.1.1.4,17,-0.000,-0.000,0.000,0.000,0.000,-0.000
1640659349633688064,2021-12-28-02:42:29,10.1.1.4,11,-0.000,-0.000,0.000,0.000,0.000,-0.000
1640659351734600192,2021-12-28-02:42:31,10.1.1.4,15,-0.000,-0.000,0.000,0.000,0.000,-0.000
1640659353793806080,2021-12-28-02:42:33,10.1.1.4,8,-0.000,-0.000,0.000,0.000,0.000,-0.000
1640659355911329024,2021-12-28-02:42:35,10.1.1.4,15,-0.000,-0.000,0.000,0.000,0.000,-0.000
1640659358049870080,2021-12-28-02:42:38,10.1.1.4,11,-0.000,-0.000,0.000,0.000,0.000,-0.000
1640659360169396992,2021-12-28-02:42:40,10.1.1.4,10,-0.000,-0.000,0.000,0.000,0.000,-0.000
1640659362285479936,2021-12-28-02:42:42,10.1.1.4,17,-0.000,-0.000,0.000,0.000,0.000,-0.000
1640659364361607168,2021-12-28-02:42:44,10.1.1.4,8,-0.000,-0.000,0.000,0.000,0.000,-0.000
1640659366418104832,2021-12-28-02:42:46,10.1.1.4,1,-0.000,-0.000,0.000,0.000,0.000,-0.000
1640659368535876096,2021-12-28-02:42:48,10.1.1.4,12,-0.000,-0.000,0.000,0.000,0.000,-0.000
1640659370632742912,2021-12-28-02:42:50,10.1.1.4,2,-0.000,-0.000,0.000,0.000,0.000,-0.000
1640659372734028032,2021-12-28-02:42:52,10.1.1.4,10,-0.000,-0.000,0.000,0.000,0.000,-0.000
1640659374823432960,2021-12-28-02:42:54,10.1.1.4,10,-0.000,-0.000,0.000,0.000,0.000,-0.000
1640659376908936960,2021-12-28-02:42:56,10.1.1.4,11,-0.000,-0.000,0.000,0.000,0.000,-0.000
1640659378992782080,2021-12-28-02:42:58,10.1.1.4,17,-0.000,-0.000,0.000,0.000,0.000,-0.000
1640659381095063808,2021-12-28-02:43:01,10.1.1.4,13,-0.000,-0.000,0.000,0.000,0.000,-0.000
1640659383175919104,2021-12-28-02:43:03,10.1.1.4,11,-0.000,-0.000,0.000,0.000,0.000,-0.000
1640659385235395072,2021-12-28-02:43:05,10.1.1.4,2,-0.000,-0.000,0.000,0.000,0.000,-0.000
1640659387333824000,2021-12-28-02:43:07,10.1.1.4,16,-0.000,-0.000,0.000,0.000,0.000,-0.000
1640659389392178944,2021-12-28-02:43:09,10.1.1.4,17,-0.000,-0.000,0.000,0.000,0.000,-0.000
1640659391490931968,2021-12-28-02:43:11,10.1.1.4,19,-0.000,-0.000,0.000,0.000,0.000,-0.000
1640659393587673856,2021-12-28-02:43:13,10.1.1.4,10,-0.000,-0.000,0.000,0.000,0.000,-0.000
1640659395704845824,2021-12-28-02:43:15,10.1.1.4,1,-0.000,-0.000,0.000,0.000,0.000,-0.000
1640659397821937920,2021-12-28-02:43:17,10.1.1.4,16,-0.000,-0.000,0.000,0.000,0.000,-0.000
1640659399918432000,2021-12-28-02:43:19,10.1.1.4,10,-0.000,-0.000,0.000,0.000,0.000,-0.000
1640659402035069952,2021-12-28-02:43:22,10.1.1.4,19,-0.000,-0.000,0.000,0.000,0.000,-0.000
1640659404093873920,2021-12-28-02:43:24,10.1.1.4,0,-0.000,-0.000,0.000,0.000,0.000,-0.000
1640659406222971904,2021-12-28-02:43:26,10.1.1.4,10,-0.000,-0.000,0.000,0.000,0.000,-0.000
1640659408308167936,2021-12-28-02:43:28,10.1.1.4,8,-0.000,-0.000,0.000,0.000,0.000,-0.000
1640659410412339968,2021-12-28-02:43:30,10.1.1.4,8,-0.000,-0.000,0.000,0.000,0.000,-0.000
1640659412494411008,2021-12-28-02:43:32,10.1.1.4,14,-0.000,-0.000,0.000,0.000,0.000,-0.000
1640659414574980096,2021-12-28-02:43:34,10.1.1.4,2,-0.000,-0.000,0.000,0.000,0.000,-0.000
1640659416694240000,2021-12-28-02:43:36,10.1.1.4,17,-0.000,-0.000,0.000,0.000,0.000,-0.000
1640659418794075136,2021-12-28-02:43:38,10.1.1.4,15,-0.000,-0.000,0.000,0.000,0.000,-0.000
1640659420891827200,2021-12-28-02:43:40,10.1.1.4,11,-0.000,-0.000,0.000,0.000,0.000,-0.000
1640659423010478848,2021-12-28-02:43:43,10.1.1.4,8,-0.000,-0.000,0.000,0.000,0.000,-0.000
1640659425107387904,2021-12-28-02:43:45,10.1.1.4,0,-0.000,-0.000,0.000,0.000,0.000,-0.000
1640659427204512000,2021-12-28-02:43:47,10.1.1.4,10,-0.000,-0.000,0.000,0.000,0.000,-0.000
1640659429300864000,2021-12-28-02:43:49,10.1.1.4,6,-0.000,-0.000,0.000,0.000,0.000,-0.000
1640659431418091008,2021-12-28-02:43:51,10.1.1.4,10,-0.000,-0.000,0.000,0.000,0.000,-0.000
1640659433537376000,2021-12-28-02:43:53,10.1.1.4,2,-0.000,-0.000,0.000,0.000,0.000,-0.000
1640659435651612160,2021-12-28-02:43:55,10.1.1.4,7,-0.000,-0.000,0.000,0.000,0.000,-0.000
1640659437741265152,2021-12-28-02:43:57,10.1.1.4,4,-0.000,-0.000,0.000,0.000,0.000,-0.000
1640659439846971136,2021-12-28-02:43:59,10.1.1.4,16,-0.000,-0.000,0.000,0.000,0.000,-0.000
1640659441931371008,2021-12-28-02:44:01,10.1.1.4,1,-0.000,-0.000,0.000,0.000,0.000,-0.000
1640659444073856000,2021-12-28-02:44:04,10.1.1.4,19,-0.000,-0.000,0.000,0.000,0.000,-0.000
1640659446194635008,2021-12-28-02:44:06,10.1.1.4,11,-0.000,-0.000,0.000,0.000,0.000,-0.000
1640659448314371072,2021-12-28-02:44:08,10.1.1.4,3,-0.000,-0.000,0.000,0.000,0.000,-0.000
1640659450414028800,2021-12-28-02:44:10,10.1.1.4,18,-0.000,-0.000,0.000,0.000,0.000,-0.000
1640659452495181056,2021-12-28-02:44:12,10.1.1.4,-1,-0.000,-0.000,0.000,0.000,0.000,-0.000
1640659454590256896,2021-12-28-02:44:14,10.1.1.4,18,-0.000,-0.000,0.000,0.000,0.000,-0.000
1640659456627780864,2021-12-28-02:44:16,10.1.1.4,10,-0.000,-0.000,0.000,0.000,0.000,-0.000
1640659458745096960,2021-12-28-02:44:18,10.1.1.4,6,-0.000,-0.000,0.000,0.000,0.000,-0.000
1640659460842564096,2021-12-28-02:44:20,10.1.1.4,8,-0.000,-0.000,0.000,0.000,0.000,-0.000
1640659462958955008,2021-12-28-02:44:22,10.1.1.4,13,-0.000,-0.000,0.000,0.000,0.000,-0.000
1640659465035877888,2021-12-28-02:44:25,10.1.1.4,12,-0.000,-0.000,0.000,0.000,0.000,-0.000
1640659467154283008,2021-12-28-02:44:27,10.1.1.4,16,-0.000,-0.000,0.000,0.000,0.000,-0.000
1640659469211890944,2021-12-28-02:44:29,10.1.1.4,12,-0.000,-0.000,0.000,0.000,0.000,-0.000
1640659471301074944,2021-12-28-02:44:31,10.1.1.4,19,-0.000,-0.000,0.000,0.000,0.000,-0.000
1640659473446897920,2021-12-28-02:44:33,10.1.1.4,16,-0.000,-0.000,0.000,0.000,0.000,-0.000
1640659475550900992,2021-12-28-02:44:35,10.1.1.4,4,-0.000,-0.000,0.000,0.000,0.000,-0.000
1640659477653476864,2021-12-28-02:44:37,10.1.1.4,2,-0.000,-0.000,0.000,0.000,0.000,-0.000
1640659479774162944,2021-12-28-02:44:39,10.1.1.4,6,-0.000,-0.000,0.000,0.000,0.000,-0.000
1640659481873910784,2021-12-28-02:44:41,10.1.1.4,17,-0.000,-0.000,0.000,0.000,0.000,-0.000
1640659483954639872,2021-12-28-02:44:43,10.1.1.4,2,-0.000,-0.000,0.000,0.000,0.000,-0.000
1640659486031582208,2021-12-28-02:44:46,10.1.1.4,8,-0.000,-0.000,0.000,0.000,0.000,-0.000
1640659488248982784,2021-12-28-02:44:48,10.1.1.4,11,-0.000,-0.000,0.000,0.000,0.000,-0.000
1640659490346497024,2021-12-28-02:44:50,10.1.1.4,2,-0.000,-0.000,0.000,0.000,0.000,-0.000
1640659492464480000,2021-12-28-02:44:52,10.1.1.4,11,-0.000,-0.000,0.000,0.000,0.000,-0.000
1640659494540061952,2021-12-28-02:44:54,10.1.1.4,17,-0.000,-0.000,0.000,0.000,0.000,-0.000
1640659496618380032,2021-12-28-02:44:56,10.1.1.4,12,-0.000,-0.000,0.000,0.000,0.000,-0.000
1640659498694006016,2021-12-28-02:44:58,10.1.1.4,4,-0.000,-0.000,0.000,0.000,0.000,-0.000
1640659500811116032,2021-12-28-02:45:00,10.1.1.4,10,-0.000,-0.000,0.000,0.000,0.000,-0.000
1640659502920032000,2021-12-28-02:45:02,10.1.1.4,18,-0.000,-0.000,0.000,0.000,0.000,-0.000
1640659505007913984,2021-12-28-02:45:05,10.1.1.4,2,-0.000,-0.000,0.000,0.000,0.000,-0.000
1640659507091041024,2021-12-28-02:45:07,10.1.1.4,18,-0.000,-0.000,0.000,0.000,0.000,-0.000
1640659509133105920,2021-12-28-02:45:09,10.1.1.4,1,-0.000,-0.000,0.000,0.000,0.000,-0.000
1640659511194825984,2021-12-28-02:45:11,10.1.1.4,6,-0.000,-0.000,0.000,0.000,0.000,-0.000
1640659513294493952,2021-12-28-02:45:13,10.1.1.4,4,-0.000,-0.000,0.000,0.000,0.000,-0.000
1640659515394524160,2021-12-28-02:45:15,10.1.1.4,9,-0.000,-0.000,0.000,0.000,0.000,-0.000
1640659517491784960,2021-12-28-02:45:17,10.1.1.4,4,-0.000,-0.000,0.000,0.000,0.000,-0.000
1640659519569849856,2021-12-28-02:45:19,10.1.1.4,13,-0.000,-0.000,0.000,0.000,0.000,-0.000
1640659521708509952,2021-12-28-02:45:21,10.1.1.4,8,-0.000,-0.000,0.000,0.000,0.000,-0.000
1640659523826857984,2021-12-28-02:45:23,10.1.1.4,14,-0.000,-0.000,0.000,0.000,0.000,-0.000
1640659525942366976,2021-12-28-02:45:25,10.1.1.4,11,-0.000,-0.000,0.000,0.000,0.000,-0.000
1640659528060579072,2021-12-28-02:45:28,10.1.1.4,6,-0.000,-0.000,0.000,0.000,0.000,-0.000
1640659530225046016,2021-12-28-02:45:30,10.1.1.4,9,-0.000,-0.000,0.000,0.000,0.000,-0.000
1640659532313974016,2021-12-28-02:45:32,10.1.1.4,9,-0.000,-0.000,0.000,0.000,0.000,-0.000
1640659534438977024,2021-12-28-02:45:34,10.1.1.4,2,-0.000,-0.000,0.000,0.000,0.000,-0.000
1640659536526444800,2021-12-28-02:45:36,10.1.1.4,1,-0.000,-0.000,0.000,0.000,0.000,-0.000
1640659538672278784,2021-12-28-02:45:38,10.1.1.4,12,-0.000,-0.000,0.000,0.000,0.000,-0.000
1640659540754693888,2021-12-28-02:45:40,10.1.1.4,3,-0.000,-0.000,0.000,0.000,0.000,-0.000
1640659542855931904,2021-12-28-02:45:42,10.1.1.4,4,-0.000,-0.000,0.000,0.000,0.000,-0.000
1640659544956211968,2021-12-28-02:45:44,10.1.1.4,11,-0.000,-0.000,0.000,0.000,0.000,-0.000
1640659547076776960,2021-12-28-02:45:47,10.1.1.4,12,-0.000,-0.000,0.000,0.000,0.000,-0.000
1640659549154438912,2021-12-28-02:45:49,10.1.1.4,8,-0.000,-0.000,0.000,0.000,0.000,-0.000
1640659551272718848,2021-12-28-02:45:51,10.1.1.4,18,-0.000,-0.000,0.000,0.000,0.000,-0.000
1640659553372463872,2021-12-28-02:45:53,10.1.1.4,1,-0.000,-0.000,0.000,0.000,0.000,-0.000
1640659555487291136,2021-12-28-02:45:55,10.1.1.4,3,-0.000,-0.000,0.000,0.000,0.000,-0.000
1640659557605187840,2021-12-28-02:45:57,10.1.1.4,17,-0.000,-0.000,0.000,0.000,0.000,-0.000
1640659559700162816,2021-12-28-02:45:59,10.1.1.4,5,-0.000,-0.000,0.000,0.000,0.000,-0.000
1640659561797787904,2021-12-28-02:46:01,10.1.1.4,17,-0.000,-0.000,0.000,0.000,0.000,-0.000
1640659563895187968,2021-12-28-02:46:03,10.1.1.4,15,-0.000,-0.000,0.000,0.000,0.000,-0.000
1640659565997656064,2021-12-28-02:46:05,10.1.1.4,17,-0.000,-0.000,0.000,0.000,0.000,-0.000
1640659568105549056,2021-12-28-02:46:08,10.1.1.4,10,-0.000,-0.000,0.000,0.000,0.000,-0.000
1640659570211471104,2021-12-28-02:46:10,10.1.1.4,1,-0.000,-0.000,0.000,0.000,0.000,-0.000
1640659572314168064,2021-12-28-02:46:12,10.1.1.4,10,-0.000,-0.000,0.000,0.000,0.000,-0.000
1640659574415998976,2021-12-28-02:46:14,10.1.1.4,16,-0.000,-0.000,0.000,0.000,0.000,-0.000
1640659576537484032,2021-12-28-02:46:16,10.1.1.4,6,-0.000,-0.000,0.000,0.000,0.000,-0.000
1640659578635401984,2021-12-28-02:46:18,10.1.1.4,16,-0.000,-0.000,0.000,0.000,0.000,-0.000
1640659580693955840,2021-12-28-02:46:20,10.1.1.4,4,-0.000,-0.000,0.000,0.000,0.000,-0.000
1640659582792144896,2021-12-28-02:46:22,10.1.1.4,4,-0.000,-0.000,0.000,0.000,0.000,-0.000
1640659584909869824,2021-12-28-02:46:24,10.1.1.4,12,-0.000,-0.000,0.000,0.000,0.000,-0.000
1640659587008517120,2021-12-28-02:46:27,10.1.1.4,3,-0.000,-0.000,0.000,0.000,0.000,-0.000
1640659589065038080,2021-12-28-02:46:29,10.1.1.4,10,-0.000,-0.000,0.000,0.000,0.000,-0.000
1640659591163495936,2021-12-28-02:46:31,10.1.1.4,3,-0.000,-0.000,0.000,0.000,0.000,-0.000
1640659593258446080,2021-12-28-02:46:33,10.1.1.4,12,-0.000,-0.000,0.000,0.000,0.000,-0.000
1640659595354674176,2021-12-28-02:46:35,10.1.1.4,7,-0.000,-0.000,0.000,0.000,0.000,-0.000
1640659597471066880,2021-12-28-02:46:37,10.1.1.4,3,-0.000,-0.000,0.000,0.000,0.000,-0.000
1640659599598829056,2021-12-28-02:46:39,10.1.1.4,12,-0.000,-0.000,0.000,0.000,0.000,-0.000
1640659601706829056,2021-12-28-02:46:41,10.1.1.4,8,-0.000,-0.000,0.000,0.000,0.000,-0.000
1640659603871416064,2021-12-28-02:46:43,10.1.1.4,18,-0.000,-0.000,0.000,0.000,0.000,-0.000
1640659605954086912,2021-12-28-02:46:45,10.1.1.4,5,-0.000,-0.000,0.000,0.000,0.000,-0.000
1640659608036467200,2021-12-28-02:46:48,10.1.1.4,7,-0.000,-0.000,0.000,0.000,0.000,-0.000
1640659610114249984,2021-12-28-02:46:50,10.1.1.4,0,-0.000,-0.000,0.000,0.000,0.000,-0.000
1640659612174596096,2021-12-28-02:46:52,10.1.1.4,1,-0.000,-0.000,0.000,0.000,0.000,-0.000
1640659614272870144,2021-12-28-02:46:54,10.1.1.4,20,-0.000,-0.000,0.000,0.000,0.000,-0.000
1640659616370658048,2021-12-28-02:46:56,10.1.1.4,12,-0.000,-0.000,0.000,0.000,0.000,-0.000
1640659618468819968,2021-12-28-02:46:58,10.1.1.4,12,-0.000,-0.000,0.000,0.000,0.000,-0.000
1640659620585906944,2021-12-28-02:47:00,10.1.1.4,3,-0.000,-0.000,0.000,0.000,0.000,-0.000
1640659622702820096,2021-12-28-02:47:02,10.1.1.4,7,-0.000,-0.000,0.000,0.000,0.000,-0.000
1640659624819516928,2021-12-28-02:47:04,10.1.1.4,3,-0.000,-0.000,0.000,0.000,0.000,-0.000
1640659626936236032,2021-12-28-02:47:06,10.1.1.4,18,-0.000,-0.000,0.000,0.000,0.000,-0.000
1640659629054279168,2021-12-28-02:47:09,10.1.1.4,4,-0.000,-0.000,0.000,0.000,0.000,-0.000
1640659631157649152,2021-12-28-02:47:11,10.1.1.4,2,-0.000,-0.000,0.000,0.000,0.000,-0.000
1640659633266915072,2021-12-28-02:47:13,10.1.1.4,0,-0.000,-0.000,0.000,0.000,0.000,-0.000
1640659635390219008,2021-12-28-02:47:15,10.1.1.4,10,-0.000,-0.000,0.000,0.000,0.000,-0.000
1640659637513724928,2021-12-28-02:47:17,10.1.1.4,14,-0.000,-0.000,0.000,0.000,0.000,-0.000
1640659639615261184,2021-12-28-02:47:19,10.1.1.4,1,-0.000,-0.000,0.000,0.000,0.000,-0.000
1640659641714763008,2021-12-28-02:47:21,10.1.1.4,19,-0.000,-0.000,0.000,0.000,0.000,-0.000
1640659643813751040,2021-12-28-02:47:23,10.1.1.4,13,-0.000,-0.000,0.000,0.000,0.000,-0.000
1640659645933041152,2021-12-28-02:47:25,10.1.1.4,13,-0.000,-0.000,0.000,0.000,0.000,-0.000
1640659648010994944,2021-12-28-02:47:28,10.1.1.4,12,-0.000,-0.000,0.000,0.000,0.000,-0.000
1640659650108623104,2021-12-28-02:47:30,10.1.1.4,19,-0.000,-0.000,0.000,0.000,0.000,-0.000
1640659652185230848,2021-12-28-02:47:32,10.1.1.4,3,-0.000,-0.000,0.000,0.000,0.000,-0.000
1640659654302242048,2021-12-28-02:47:34,10.1.1.4,19,-0.000,-0.000,0.000,0.000,0.000,-0.000
1640659656399228928,2021-12-28-02:47:36,10.1.1.4,5,-0.000,-0.000,0.000,0.000,0.000,-0.000
1640659658517050880,2021-12-28-02:47:38,10.1.1.4,14,-0.000,-0.000,0.000,0.000,0.000,-0.000
1640659660613018880,2021-12-28-02:47:40,10.1.1.4,9,-0.000,-0.000,0.000,0.000,0.000,-0.000
1640659662674504960,2021-12-28-02:47:42,10.1.1.4,1,-0.000,-0.000,0.000,0.000,0.000,-0.000
1640659664823278848,2021-12-28-02:47:44,10.1.1.4,13,-0.000,-0.000,0.000,0.000,0.000,-0.000
1640659666930924032,2021-12-28-02:47:46,10.1.1.4,14,-0.000,-0.000,0.000,0.000,0.000,-0.000
1640659669033544960,2021-12-28-02:47:49,10.1.1.4,19,-0.000,-0.000,0.000,0.000,0.000,-0.000
1640659671094867968,2021-12-28-02:47:51,10.1.1.4,2,-0.000,-0.000,0.000,0.000,0.000,-0.000
1640659673174897920,2021-12-28-02:47:53,10.1.1.4,7,-0.000,-0.000,0.000,0.000,0.000,-0.000
1640659675294747136,2021-12-28-02:47:55,10.1.1.4,11,-0.000,-0.000,0.000,0.000,0.000,-0.000
1640659677353475072,2021-12-28-02:47:57,10.1.1.4,3,-0.000,-0.000,0.000,0.000,0.000,-0.000
1640659679451762944,2021-12-28-02:47:59,10.1.1.4,9,-0.000,-0.000,0.000,0.000,0.000,-0.000
1640659681570988800,2021-12-28-02:48:01,10.1.1.4,17,-0.000,-0.000,0.000,0.000,0.000,-0.000
1640659683689600000,2021-12-28-02:48:03,10.1.1.4,18,-0.000,-0.000,0.000,0.000,0.000,-0.000
1640659685804780032,2021-12-28-02:48:05,10.1.1.4,7,-0.000,-0.000,0.000,0.000,0.000,-0.000
1640659687921412864,2021-12-28-02:48:07,10.1.1.4,15,-0.000,-0.000,0.000,0.000,0.000,-0.000
1640659690023683072,2021-12-28-02:48:10,10.1.1.4,13,-0.000,-0.000,0.000,0.000,0.000,-0.000
1640659692114799872,2021-12-28-02:48:12,10.1.1.4,12,-0.000,-0.000,0.000,0.000,0.000,-0.000
1640659694212503808,2021-12-28-02:48:14,10.1.1.4,6,-0.000,-0.000,0.000,0.000,0.000,-0.000
1640659696322319872,2021-12-28-02:48:16,10.1.1.4,2,-0.000,-0.000,0.000,0.000,0.000,-0.000
1640659698449804032,2021-12-28-02:48:18,10.1.1.4,8,-0.000,-0.000,0.000,0.000,0.000,-0.000
1640659700553433856,2021-12-28-02:48:20,10.1.1.4,8,-0.000,-0.000,0.000,0.000,0.000,-0.000
1640659702616252928,2021-12-28-02:48:22,10.1.1.4,3,-0.000,-0.000,0.000,0.000,0.000,-0.000
1640659704737221120,2021-12-28-02:48:24,10.1.1.4,18,-0.000,-0.000,0.000,0.000,0.000,-0.000
1640659706798393856,2021-12-28-02:48:26,10.1.1.4,4,-0.000,-0.000,0.000,0.000,0.000,-0.000
1640659708916104960,2021-12-28-02:48:28,10.1.1.4,17,-0.000,-0.000,0.000,0.000,0.000,-0.000
1640659710994532096,2021-12-28-02:48:30,10.1.1.4,12,-0.000,-0.000,0.000,0.000,0.000,-0.000
1640659713052571136,2021-12-28-02:48:33,10.1.1.4,6,-0.000,-0.000,0.000,0.000,0.000,-0.000
1640659715129848832,2021-12-28-02:48:35,10.1.1.4,13,-0.000,-0.000,0.000,0.000,0.000,-0.000
1640659717207267072,2021-12-28-02:48:37,10.1.1.4,19,-0.000,-0.000,0.000,0.000,0.000,-0.000
1640659719284163840,2021-12-28-02:48:39,10.1.1.4,8,-0.000,-0.000,0.000,0.000,0.000,-0.000
1640659721361157888,2021-12-28-02:48:41,10.1.1.4,18,-0.000,-0.000,0.000,0.000,0.000,-0.000
1640659723437722880,2021-12-28-02:48:43,10.1.1.4,18,-0.000,-0.000,0.000,0.000,0.000,-0.000
1640659725534200832,2021-12-28-02:48:45,10.1.1.4,16,-0.000,-0.000,0.000,0.000,0.000,-0.000
1640659727635613952,2021-12-28-02:48:47,10.1.1.4,5,-0.000,-0.000,0.000,0.000,0.000,-0.000
1640659729683748864,2021-12-28-02:48:49,10.1.1.4,4,-0.000,-0.000,0.000,0.000,0.000,-0.000
1640659731749993984,2021-12-28-02:48:51,10.1.1.4,7,-0.000,-0.000,0.000,0.000,0.000,-0.000
1640659733834809088,2021-12-28-02:48:53,10.1.1.4,1,-0.000,-0.000,0.000,0.000,0.000,-0.000
1640659735936513024,2021-12-28-02:48:55,10.1.1.4,6,-0.000,-0.000,0.000,0.000,0.000,-0.000
1640659738096410112,2021-12-28-02:48:58,10.1.1.4,18,-0.000,-0.000,0.000,0.000,0.000,-0.000
1640659740255974144,2021-12-28-02:49:00,10.1.1.4,19,-0.000,-0.000,0.000,0.000,0.000,-0.000
1640659742334611968,2021-12-28-02:49:02,10.1.1.4,5,-0.000,-0.000,0.000,0.000,0.000,-0.000
1640659744453201920,2021-12-28-02:49:04,10.1.1.4,11,-0.000,-0.000,0.000,0.000,0.000,-0.000
1640659746550012160,2021-12-28-02:49:06,10.1.1.4,4,-0.000,-0.000,0.000,0.000,0.000,-0.000
1640659748667581952,2021-12-28-02:49:08,10.1.1.4,19,-0.000,-0.000,0.000,0.000,0.000,-0.000
1640659750805105920,2021-12-28-02:49:10,10.1.1.4,16,-0.000,-0.000,0.000,0.000,0.000,-0.000
1640659752901989888,2021-12-28-02:49:12,10.1.1.4,18,-0.000,-0.000,0.000,0.000,0.000,-0.000
1640659754938633984,2021-12-28-02:49:14,10.1.1.4,2,-0.000,-0.000,0.000,0.000,0.000,-0.000
1640659757074693888,2021-12-28-02:49:17,10.1.1.4,15,-0.000,-0.000,0.000,0.000,0.000,-0.000
1640659759173680896,2021-12-28-02:49:19,10.1.1.4,20,-0.000,-0.000,0.000,0.000,0.000,-0.000
1640659761262459904,2021-12-28-02:49:21,10.1.1.4,11,-0.000,-0.000,0.000,0.000,0.000,-0.000
1640659763348873984,2021-12-28-02:49:23,10.1.1.4,14,-0.000,-0.000,0.000,0.000,0.000,-0.000
1640659765453163008,2021-12-28-02:49:25,10.1.1.4,19,-0.000,-0.000,0.000,0.000,0.000,-0.000
1640659767556381952,2021-12-28-02:49:27,10.1.1.4,16,-0.000,-0.000,0.000,0.000,0.000,-0.000
1640659769656578048,2021-12-28-02:49:29,10.1.1.4,10,-0.000,-0.000,0.000,0.000,0.000,-0.000
1640659771775598080,2021-12-28-02:49:31,10.1.1.4,11,-0.000,-0.000,0.000,0.000,0.000,-0.000
1640659773873807872,2021-12-28-02:49:33,10.1.1.4,6,-0.000,-0.000,0.000,0.000,0.000,-0.000
1640659775992733952,2021-12-28-02:49:35,10.1.1.4,13,-0.000,-0.000,0.000,0.000,0.000,-0.000
1640659778093010944,2021-12-28-02:49:38,10.1.1.4,2,-0.000,-0.000,0.000,0.000,0.000,-0.000
1640659780189800960,2021-12-28-02:49:40,10.1.1.4,2,-0.000,-0.000,0.000,0.000,0.000,-0.000
1640659782304562176,2021-12-28-02:49:42,10.1.1.4,12,-0.000,-0.000,0.000,0.000,0.000,-0.000
1640659784381722880,2021-12-28-02:49:44,10.1.1.4,8,-0.000,-0.000,0.000,0.000,0.000,-0.000
1640659786477832192,2021-12-28-02:49:46,10.1.1.4,7,-0.000,-0.000,0.000,0.000,0.000,-0.000
1640659788594626816,2021-12-28-02:49:48,10.1.1.4,16,-0.000,-0.000,0.000,0.000,0.000,-0.000
1640659790650914816,2021-12-28-02:49:50,10.1.1.4,7,-0.000,-0.000,0.000,0.000,0.000,-0.000
1640659792740478976,2021-12-28-02:49:52,10.1.1.4,12,-0.000,-0.000,0.000,0.000,0.000,-0.000
1640659794847578880,2021-12-28-02:49:54,10.1.1.4,17,-0.000,-0.000,0.000,0.000,0.000,-0.000
1640659796952174848,2021-12-28-02:49:56,10.1.1.4,12,-0.000,-0.000,0.000,0.000,0.000,-0.000
1640659799077230848,2021-12-28-02:49:59,10.1.1.4,5,-0.000,-0.000,0.000,0.000,0.000,-0.000
1640659801195215104,2021-12-28-02:50:01,10.1.1.4,12,-0.000,-0.000,0.000,0.000,0.000,-0.000
1640659803294703872,2021-12-28-02:50:03,10.1.1.4,5,-0.000,-0.000,0.000,0.000,0.000,-0.000
1640659805394793984,2021-12-28-02:50:05,10.1.1.4,12,-0.000,-0.000,0.000,0.000,0.000,-0.000
1640659807492737024,2021-12-28-02:50:07,10.1.1.4,13,-0.000,-0.000,0.000,0.000,0.000,-0.000
1640659809610651904,2021-12-28-02:50:09,10.1.1.4,13,-0.000,-0.000,0.000,0.000,0.000,-0.000
1640659811708827136,2021-12-28-02:50:11,10.1.1.4,8,-0.000,-0.000,0.000,0.000,0.000,-0.000
1640659813825015040,2021-12-28-02:50:13,10.1.1.4,11,-0.000,-0.000,0.000,0.000,0.000,-0.000
1640659815941819904,2021-12-28-02:50:15,10.1.1.4,12,-0.000,-0.000,0.000,0.000,0.000,-0.000
1640659818039760128,2021-12-28-02:50:18,10.1.1.4,5,-0.000,-0.000,0.000,0.000,0.000,-0.000
1640659820157385984,2021-12-28-02:50:20,10.1.1.4,6,-0.000,-0.000,0.000,0.000,0.000,-0.000
1640659822272638976,2021-12-28-02:50:22,10.1.1.4,7,-0.000,-0.000,0.000,0.000,0.000,-0.000
1640659824378573824,2021-12-28-02:50:24,10.1.1.4,6,-0.000,-0.000,0.000,0.000,0.000,-0.000
1640659826488545792,2021-12-28-02:50:26,10.1.1.4,11,-0.000,-0.000,0.000,0.000,0.000,-0.000
1640659828592557056,2021-12-28-02:50:28,10.1.1.4,6,-0.000,-0.000,0.000,0.000,0.000,-0.000
1640659830695305984,2021-12-28-02:50:30,10.1.1.4,2,-0.000,-0.000,0.000,0.000,0.000,-0.000
1640659832816355072,2021-12-28-02:50:32,10.1.1.4,17,-0.000,-0.000,0.000,0.000,0.000,-0.000
1640659834937225984,2021-12-28-02:50:34,10.1.1.4,12,-0.000,-0.000,0.000,0.000,0.000,-0.000
1640659837037724928,2021-12-28-02:50:37,10.1.1.4,17,-0.000,-0.000,0.000,0.000,0.000,-0.000
1640659839095275008,2021-12-28-02:50:39,10.1.1.4,16,-0.000,-0.000,0.000,0.000,0.000,-0.000
1640659841153430016,2021-12-28-02:50:41,10.1.1.4,21,-0.000,-0.000,0.000,0.000,0.000,-0.000
1640659841173614080,2021-12-28-02:50:41,10.1.1.4,20,-0.000,-0.000,0.000,0.000,0.000,-0.000
1640659843250509056,2021-12-28-02:50:43,10.1.1.4,8,-0.000,-0.000,0.000,0.000,0.000,-0.000
1640659845388045056,2021-12-28-02:50:45,10.1.1.4,16,-0.000,-0.000,0.000,0.000,0.000,-0.000
1640659847452653824,2021-12-28-02:50:47,10.1.1.4,1,-0.000,-0.000,0.000,0.000,0.000,-0.000
1640659849522373888,2021-12-28-02:50:49,10.1.1.4,7,-0.000,-0.000,0.000,0.000,0.000,-0.000
1640659851638892032,2021-12-28-02:50:51,10.1.1.4,13,-0.000,-0.000,0.000,0.000,0.000,-0.000
1640659853757570048,2021-12-28-02:50:53,10.1.1.4,11,-0.000,-0.000,0.000,0.000,0.000,-0.000
1640659855852308992,2021-12-28-02:50:55,10.1.1.4,11,-0.000,-0.000,0.000,0.000,0.000,-0.000
1640659857961622016,2021-12-28-02:50:57,10.1.1.4,2,-0.000,-0.000,0.000,0.000,0.000,-0.000
1640659860067246080,2021-12-28-02:51:00,10.1.1.4,6,-0.000,-0.000,0.000,0.000,0.000,-0.000
1640659862152451072,2021-12-28-02:51:02,10.1.1.4,1,-0.000,-0.000,0.000,0.000,0.000,-0.000
1640659864254912000,2021-12-28-02:51:04,10.1.1.4,17,-0.000,-0.000,0.000,0.000,0.000,-0.000
1640659866354827008,2021-12-28-02:51:06,10.1.1.4,3,-0.000,-0.000,0.000,0.000,0.000,-0.000
1640659868454724096,2021-12-28-02:51:08,10.1.1.4,10,-0.000,-0.000,0.000,0.000,0.000,-0.000
1640659870534328064,2021-12-28-02:51:10,10.1.1.4,23,-0.000,-0.000,0.000,0.000,0.000,-0.000
1640659870553976064,2021-12-28-02:51:10,10.1.1.4,20,-0.000,-0.000,0.000,0.000,0.000,-0.000
1640659872654427136,2021-12-28-02:51:12,10.1.1.4,21,-0.000,-0.000,0.000,0.000,0.000,-0.000
1640659874750341888,2021-12-28-02:51:14,10.1.1.4,18,-0.000,-0.000,0.000,0.000,0.000,-0.000
1640659876826417920,2021-12-28-02:51:16,10.1.1.4,13,-0.000,-0.000,0.000,0.000,0.000,-0.000
1640659878926671872,2021-12-28-02:51:18,10.1.1.4,12,-0.000,-0.000,0.000,0.000,0.000,-0.000
1640659881041496064,2021-12-28-02:51:21,10.1.1.4,10,-0.000,-0.000,0.000,0.000,0.000,-0.000
1640659883139401984,2021-12-28-02:51:23,10.1.1.4,1,-0.000,-0.000,0.000,0.000,0.000,-0.000
1640659885215506176,2021-12-28-02:51:25,10.1.1.4,5,-0.000,-0.000,0.000,0.000,0.000,-0.000
1640659887311985920,2021-12-28-02:51:27,10.1.1.4,13,-0.000,-0.000,0.000,0.000,0.000,-0.000
1640659889397451008,2021-12-28-02:51:29,10.1.1.4,10,-0.000,-0.000,0.000,0.000,0.000,-0.000
1640659891485614080,2021-12-28-02:51:31,10.1.1.4,21,-0.000,-0.000,0.000,0.000,0.000,-0.000
1640659891506030080,2021-12-28-02:51:31,10.1.1.4,20,-0.000,-0.000,0.000,0.000,0.000,-0.000
1640659893591994112,2021-12-28-02:51:33,10.1.1.4,-1,-0.000,-0.000,0.000,0.000,0.000,-0.000
1640659895714337024,2021-12-28-02:51:35,10.1.1.4,2,-0.000,-0.000,0.000,0.000,0.000,-0.000
1640659897814956800,2021-12-28-02:51:37,10.1.1.4,17,-0.000,-0.000,0.000,0.000,0.000,-0.000
1640659899895799040,2021-12-28-02:51:39,10.1.1.4,1,-0.000,-0.000,0.000,0.000,0.000,-0.000
1640659902014200064,2021-12-28-02:51:42,10.1.1.4,7,-0.000,-0.000,0.000,0.000,0.000,-0.000
1640659904134080000,2021-12-28-02:51:44,10.1.1.4,18,-0.000,-0.000,0.000,0.000,0.000,-0.000
1640659906190768896,2021-12-28-02:51:46,10.1.1.4,10,-0.000,-0.000,0.000,0.000,0.000,-0.000
1640659908269772032,2021-12-28-02:51:48,10.1.1.4,6,-0.000,-0.000,0.000,0.000,0.000,-0.000
1640659910365901056,2021-12-28-02:51:50,10.1.1.4,17,-0.000,-0.000,0.000,0.000,0.000,-0.000
1640659912404651008,2021-12-28-02:51:52,10.1.1.4,3,-0.000,-0.000,0.000,0.000,0.000,-0.000
1640659914500945152,2021-12-28-02:51:54,10.1.1.4,19,-0.000,-0.000,0.000,0.000,0.000,-0.000
1640659916577629952,2021-12-28-02:51:56,10.1.1.4,20,-0.000,-0.000,0.000,0.000,0.000,-0.000
1640659918633541120,2021-12-28-02:51:58,10.1.1.4,15,-0.000,-0.000,0.000,0.000,0.000,-0.000
1640659920715105024,2021-12-28-02:52:00,10.1.1.4,18,-0.000,-0.000,0.000,0.000,0.000,-0.000
1640659922784351232,2021-12-28-02:52:02,10.1.1.4,17,-0.000,-0.000,0.000,0.000,0.000,-0.000
1640659924829734144,2021-12-28-02:52:04,10.1.1.4,2,-0.000,-0.000,0.000,0.000,0.000,-0.000
1640659926913719040,2021-12-28-02:52:06,10.1.1.4,3,-0.000,-0.000,0.000,0.000,0.000,-0.000
1640659929016146944,2021-12-28-02:52:09,10.1.1.4,1,-0.000,-0.000,0.000,0.000,0.000,-0.000
1640659931116491008,2021-12-28-02:52:11,10.1.1.4,15,-0.000,-0.000,0.000,0.000,0.000,-0.000
1640659933175108864,2021-12-28-02:52:13,10.1.1.4,9,-0.000,-0.000,0.000,0.000,0.000,-0.000
1640659935275646976,2021-12-28-02:52:15,10.1.1.4,19,-0.000,-0.000,0.000,0.000,0.000,-0.000
1640659937372370944,2021-12-28-02:52:17,10.1.1.4,5,-0.000,-0.000,0.000,0.000,0.000,-0.000
1640659939490614784,2021-12-28-02:52:19,10.1.1.4,12,-0.000,-0.000,0.000,0.000,0.000,-0.000
1640659941587570944,2021-12-28-02:52:21,10.1.1.4,18,-0.000,-0.000,0.000,0.000,0.000,-0.000
1640659943684256000,2021-12-28-02:52:23,10.1.1.4,9,-0.000,-0.000,0.000,0.000,0.000,-0.000
1640659945821691136,2021-12-28-02:52:25,10.1.1.4,10,-0.000,-0.000,0.000,0.000,0.000,-0.000
1640659947960002816,2021-12-28-02:52:27,10.1.1.4,20,-0.000,-0.000,0.000,0.000,0.000,-0.000
1640659950035218944,2021-12-28-02:52:30,10.1.1.4,4,-0.000,-0.000,0.000,0.000,0.000,-0.000
1640659952153424128,2021-12-28-02:52:32,10.1.1.4,6,-0.000,-0.000,0.000,0.000,0.000,-0.000
1640659954263483904,2021-12-28-02:52:34,10.1.1.4,8,-0.000,-0.000,0.000,0.000,0.000,-0.000
1640659956390568960,2021-12-28-02:52:36,10.1.1.4,15,-0.000,-0.000,0.000,0.000,0.000,-0.000
1640659958493990912,2021-12-28-02:52:38,10.1.1.4,4,-0.000,-0.000,0.000,0.000,0.000,-0.000
1640659960597107968,2021-12-28-02:52:40,10.1.1.4,9,-0.000,-0.000,0.000,0.000,0.000,-0.000
1640659962718018048,2021-12-28-02:52:42,10.1.1.4,10,-0.000,-0.000,0.000,0.000,0.000,-0.000
1640659964818401024,2021-12-28-02:52:44,10.1.1.4,9,-0.000,-0.000,0.000,0.000,0.000,-0.000
1640659966916922112,2021-12-28-02:52:46,10.1.1.4,12,-0.000,-0.000,0.000,0.000,0.000,-0.000
1640659969036456960,2021-12-28-02:52:49,10.1.1.4,12,-0.000,-0.000,0.000,0.000,0.000,-0.000
1640659971211659008,2021-12-28-02:52:51,10.1.1.4,16,-0.000,-0.000,0.000,0.000,0.000,-0.000
1640659973289436928,2021-12-28-02:52:53,10.1.1.4,9,-0.000,-0.000,0.000,0.000,0.000,-0.000
1640659975367120128,2021-12-28-02:52:55,10.1.1.4,9,-0.000,-0.000,0.000,0.000,0.000,-0.000
1640659977484392960,2021-12-28-02:52:57,10.1.1.4,7,-0.000,-0.000,0.000,0.000,0.000,-0.000
1640659979602312192,2021-12-28-02:52:59,10.1.1.4,7,-0.000,-0.000,0.000,0.000,0.000,-0.000
1640659981698627072,2021-12-28-02:53:01,10.1.1.4,17,-0.000,-0.000,0.000,0.000,0.000,-0.000
1640659983757071104,2021-12-28-02:53:03,10.1.1.4,2,-0.000,-0.000,0.000,0.000,0.000,-0.000
1640659985837191168,2021-12-28-02:53:05,10.1.1.4,7,-0.000,-0.000,0.000,0.000,0.000,-0.000
1640659987925017088,2021-12-28-02:53:07,10.1.1.4,14,-0.000,-0.000,0.000,0.000,0.000,-0.000
1640659989992268032,2021-12-28-02:53:09,10.1.1.4,2,-0.000,-0.000,0.000,0.000,0.000,-0.000
1640659992155256064,2021-12-28-02:53:12,10.1.1.4,5,-0.000,-0.000,0.000,0.000,0.000,-0.000
1640659994255217152,2021-12-28-02:53:14,10.1.1.4,4,-0.000,-0.000,0.000,0.000,0.000,-0.000
1640659996395865856,2021-12-28-02:53:16,10.1.1.4,5,-0.000,-0.000,0.000,0.000,0.000,-0.000
1640659998474909952,2021-12-28-02:53:18,10.1.1.4,19,-0.000,-0.000,0.000,0.000,0.000,-0.000
1640660000553492992,2021-12-28-02:53:20,10.1.1.4,12,-0.000,-0.000,0.000,0.000,0.000,-0.000
1640660002671183104,2021-12-28-02:53:22,10.1.1.4,11,-0.000,-0.000,0.000,0.000,0.000,-0.000
1640660004770631936,2021-12-28-02:53:24,10.1.1.4,11,-0.000,-0.000,0.000,0.000,0.000,-0.000
1640660006887120128,2021-12-28-02:53:26,10.1.1.4,1,-0.000,-0.000,0.000,0.000,0.000,-0.000
1640660009004195072,2021-12-28-02:53:29,10.1.1.4,10,-0.000,-0.000,0.000,0.000,0.000,-0.000
1640660011122166016,2021-12-28-02:53:31,10.1.1.4,9,-0.000,-0.000,0.000,0.000,0.000,-0.000
1640660013197276160,2021-12-28-02:53:33,10.1.1.4,6,-0.000,-0.000,0.000,0.000,0.000,-0.000
1640660015293924096,2021-12-28-02:53:35,10.1.1.4,19,-0.000,-0.000,0.000,0.000,0.000,-0.000
1640660017375190016,2021-12-28-02:53:37,10.1.1.4,1,-0.000,-0.000,0.000,0.000,0.000,-0.000
1640660019482588928,2021-12-28-02:53:39,10.1.1.4,7,-0.000,-0.000,0.000,0.000,0.000,-0.000
1640660021590161152,2021-12-28-02:53:41,10.1.1.4,3,-0.000,-0.000,0.000,0.000,0.000,-0.000
1640660023733434880,2021-12-28-02:53:43,10.1.1.4,10,-0.000,-0.000,0.000,0.000,0.000,-0.000
1640660025858062080,2021-12-28-02:53:45,10.1.1.4,20,-0.000,-0.000,0.000,0.000,0.000,-0.000
1640660027955823872,2021-12-28-02:53:47,10.1.1.4,4,-0.000,-0.000,0.000,0.000,0.000,-0.000
1640660030059484928,2021-12-28-02:53:50,10.1.1.4,9,-0.000,-0.000,0.000,0.000,0.000,-0.000
1640660032154051072,2021-12-28-02:53:52,10.1.1.4,5,-0.000,-0.000,0.000,0.000,0.000,-0.000
1640660034254170880,2021-12-28-02:53:54,10.1.1.4,17,-0.000,-0.000,0.000,0.000,0.000,-0.000
1640660036349918976,2021-12-28-02:53:56,10.1.1.4,15,-0.000,-0.000,0.000,0.000,0.000,-0.000
1640660038446976000,2021-12-28-02:53:58,10.1.1.4,15,-0.000,-0.000,0.000,0.000,0.000,-0.000
1640660040545027072,2021-12-28-02:54:00,10.1.1.4,3,-0.000,-0.000,0.000,0.000,0.000,-0.000
1640660042642193920,2021-12-28-02:54:02,10.1.1.4,17,-0.000,-0.000,0.000,0.000,0.000,-0.000
1640660044698412800,2021-12-28-02:54:04,10.1.1.4,1,-0.000,-0.000,0.000,0.000,0.000,-0.000
1640660046814786816,2021-12-28-02:54:06,10.1.1.4,2,-0.000,-0.000,0.000,0.000,0.000,-0.000
1640660048893554944,2021-12-28-02:54:08,10.1.1.4,17,-0.000,-0.000,0.000,0.000,0.000,-0.000
1640660050982294016,2021-12-28-02:54:10,10.1.1.4,3,-0.000,-0.000,0.000,0.000,0.000,-0.000
1640660053109210112,2021-12-28-02:54:13,10.1.1.4,1,-0.000,-0.000,0.000,0.000,0.000,-0.000
1640660055233184000,2021-12-28-02:54:15,10.1.1.4,10,-0.000,-0.000,0.000,0.000,0.000,-0.000
1640660057334747904,2021-12-28-02:54:17,10.1.1.4,9,-0.000,-0.000,0.000,0.000,0.000,-0.000
1640660059416559104,2021-12-28-02:54:19,10.1.1.4,11,-0.000,-0.000,0.000,0.000,0.000,-0.000
1640660061535687936,2021-12-28-02:54:21,10.1.1.4,9,-0.000,-0.000,0.000,0.000,0.000,-0.000
1640660063674632960,2021-12-28-02:54:23,10.1.1.4,10,-0.000,-0.000,0.000,0.000,0.000,-0.000
1640660065793394944,2021-12-28-02:54:25,10.1.1.4,12,-0.000,-0.000,0.000,0.000,0.000,-0.000
1640660067890428160,2021-12-28-02:54:27,10.1.1.4,7,-0.000,-0.000,0.000,0.000,0.000,-0.000
1640660069988807936,2021-12-28-02:54:29,10.1.1.4,7,-0.000,-0.000,0.000,0.000,0.000,-0.000
1640660072106364928,2021-12-28-02:54:32,10.1.1.4,1,-0.000,-0.000,0.000,0.000,0.000,-0.000
1640660074202972928,2021-12-28-02:54:34,10.1.1.4,2,-0.000,-0.000,0.000,0.000,0.000,-0.000
1640660076300695040,2021-12-28-02:54:36,10.1.1.4,0,-0.000,-0.000,0.000,0.000,0.000,-0.000
1640660078416513024,2021-12-28-02:54:38,10.1.1.4,14,-0.000,-0.000,0.000,0.000,0.000,-0.000
1640660080512726016,2021-12-28-02:54:40,10.1.1.4,17,-0.000,-0.000,0.000,0.000,0.000,-0.000
