FedericoMungari/DigitalTwin_service/02_LTEScenario/Output/Output_script/script_rosapi_2_output_robots8_freq0_8.txt
timestamp,date,node,latency,joint_1,joint_2,joint_3,joint_4,joint_5,joint_6
1641102613325283072,2022-01-02-05:50:13,10.1.1.9,169,-0.010,-0.010,-0.010,0.000,0.000,0.000
1641102613524755968,2022-01-02-05:50:13,10.1.1.9,168,-0.020,-0.020,-0.020,0.000,0.000,0.000
1641102613725181184,2022-01-02-05:50:13,10.1.1.9,168,-0.030,-0.030,-0.030,0.000,0.000,0.000
1641102613924097024,2022-01-02-05:50:13,10.1.1.9,166,-0.040,-0.040,-0.040,0.000,0.000,0.000
1641102614126509056,2022-01-02-05:50:14,10.1.1.9,168,-0.050,-0.050,-0.050,0.000,0.000,0.000
1641102614323961856,2022-01-02-05:50:14,10.1.1.9,164,-0.060,-0.060,-0.060,0.000,0.000,0.000
1641102614534060032,2022-01-02-05:50:14,10.1.1.9,174,-0.070,-0.070,-0.070,0.000,0.000,0.000
1641102614752785920,2022-01-02-05:50:14,10.1.1.9,191,-0.080,-0.080,-0.080,0.000,0.000,0.000
1641102614942832896,2022-01-02-05:50:14,10.1.1.9,179,-0.090,-0.090,-0.090,0.000,0.000,0.000
1641102615132286976,2022-01-02-05:50:15,10.1.1.9,167,-0.100,-0.100,-0.100,0.000,0.000,0.000
1641102615352471040,2022-01-02-05:50:15,10.1.1.9,187,-0.110,-0.110,-0.110,0.000,0.000,0.000
1641102615552592896,2022-01-02-05:50:15,10.1.1.9,186,-0.120,-0.120,-0.120,0.000,0.000,0.000
1641102615741966848,2022-01-02-05:50:15,10.1.1.9,174,-0.130,-0.130,-0.130,0.000,0.000,0.000
1641102615943128064,2022-01-02-05:50:15,10.1.1.9,174,-0.140,-0.140,-0.140,0.000,0.000,0.000
1641102616131202816,2022-01-02-05:50:16,10.1.1.9,161,-0.150,-0.150,-0.150,0.000,0.000,0.000
1641102616340337152,2022-01-02-05:50:16,10.1.1.9,170,-0.160,-0.160,-0.160,0.000,0.000,0.000
1641102616550571008,2022-01-02-05:50:16,10.1.1.9,179,-0.170,-0.170,-0.170,0.000,0.000,0.000
1641102616740850944,2022-01-02-05:50:16,10.1.1.9,169,-0.180,-0.180,-0.180,0.000,0.000,0.000
1641102616949342976,2022-01-02-05:50:16,10.1.1.9,177,-0.190,-0.190,-0.190,0.000,0.000,0.000
1641102617142641920,2022-01-02-05:50:17,10.1.1.9,170,-0.200,-0.200,-0.200,0.000,0.000,0.000
1641102617340018944,2022-01-02-05:50:17,10.1.1.9,167,-0.210,-0.210,-0.210,0.000,0.000,0.000
1641102617539386880,2022-01-02-05:50:17,10.1.1.9,166,-0.220,-0.220,-0.220,0.000,0.000,0.000
1641102617738743040,2022-01-02-05:50:17,10.1.1.9,164,-0.230,-0.230,-0.230,0.000,0.000,0.000
1641102617938415104,2022-01-02-05:50:17,10.1.1.9,162,-0.240,-0.240,-0.240,0.000,0.000,0.000
1641102618137901056,2022-01-02-05:50:18,10.1.1.9,160,-0.250,-0.250,-0.250,0.000,0.000,0.000
1641102618337698048,2022-01-02-05:50:18,10.1.1.9,159,-0.260,-0.260,-0.260,0.000,0.000,0.000
1641102618537223168,2022-01-02-05:50:18,10.1.1.9,158,-0.270,-0.270,-0.270,0.000,0.000,0.000
1641102618737488896,2022-01-02-05:50:18,10.1.1.9,157,-0.280,-0.280,-0.280,0.000,0.000,0.000
1641102618958342912,2022-01-02-05:50:18,10.1.1.9,177,-0.290,-0.290,-0.290,0.000,0.000,0.000
1641102619157816832,2022-01-02-05:50:19,10.1.1.9,174,-0.300,-0.300,-0.300,0.000,0.000,0.000
1641102619357656064,2022-01-02-05:50:19,10.1.1.9,172,-0.310,-0.310,-0.310,0.000,0.000,0.000
1641102619559695104,2022-01-02-05:50:19,10.1.1.9,173,-0.320,-0.320,-0.320,0.000,0.000,0.000
1641102619760472064,2022-01-02-05:50:19,10.1.1.9,173,-0.330,-0.330,-0.330,0.000,0.000,0.000
1641102619972752128,2022-01-02-05:50:19,10.1.1.9,184,-0.340,-0.340,-0.340,0.000,0.000,0.000
1641102620163265024,2022-01-02-05:50:20,10.1.1.9,174,-0.350,-0.350,-0.350,0.000,0.000,0.000
1641102620364770048,2022-01-02-05:50:20,10.1.1.9,175,-0.360,-0.360,-0.360,0.000,0.000,0.000
1641102620564718080,2022-01-02-05:50:20,10.1.1.9,174,-0.370,-0.370,-0.370,0.000,0.000,0.000
1641102620765899776,2022-01-02-05:50:20,10.1.1.9,175,-0.380,-0.380,-0.380,0.000,0.000,0.000
1641102620966245888,2022-01-02-05:50:20,10.1.1.9,175,-0.390,-0.390,-0.390,0.000,0.000,0.000
1641102621166328832,2022-01-02-05:50:21,10.1.1.9,174,-0.400,-0.400,-0.400,0.000,0.000,0.000
1641102621367180032,2022-01-02-05:50:21,10.1.1.9,174,-0.410,-0.410,-0.410,0.000,0.000,0.000
1641102621577789184,2022-01-02-05:50:21,10.1.1.9,184,-0.420,-0.420,-0.420,0.000,0.000,0.000
1641102621769364224,2022-01-02-05:50:21,10.1.1.9,175,-0.430,-0.430,-0.430,0.000,0.000,0.000
1641102621969076992,2022-01-02-05:50:21,10.1.1.9,173,-0.440,-0.440,-0.440,0.000,0.000,0.000
1641102622169667072,2022-01-02-05:50:22,10.1.1.9,173,-0.450,-0.450,-0.450,0.000,0.000,0.000
1641102622370405888,2022-01-02-05:50:22,10.1.1.9,173,-0.460,-0.460,-0.460,0.000,0.000,0.000
1641102622571441920,2022-01-02-05:50:22,10.1.1.9,173,-0.470,-0.470,-0.470,0.000,0.000,0.000
1641102622781774080,2022-01-02-05:50:22,10.1.1.9,183,-0.480,-0.480,-0.480,0.000,0.000,0.000
1641102622972312064,2022-01-02-05:50:22,10.1.1.9,173,-0.490,-0.490,-0.490,0.000,0.000,0.000
1641102623172545024,2022-01-02-05:50:23,10.1.1.9,172,-0.480,-0.480,-0.480,0.000,0.000,0.000
1641102623373313792,2022-01-02-05:50:23,10.1.1.9,172,-0.470,-0.470,-0.470,0.000,0.000,0.000
1641102623804264960,2022-01-02-05:50:23,10.1.1.9,201,-0.450,-0.450,-0.450,0.000,0.000,0.000
1641102623998120960,2022-01-02-05:50:23,10.1.1.9,179,-0.440,-0.440,-0.440,0.000,0.000,0.000
1641102624205455104,2022-01-02-05:50:24,10.1.1.9,186,-0.430,-0.430,-0.430,0.000,0.000,0.000
1641102624395831040,2022-01-02-05:50:24,10.1.1.9,176,-0.420,-0.420,-0.420,0.000,0.000,0.000
1641102624596004864,2022-01-02-05:50:24,10.1.1.9,176,-0.410,-0.410,-0.410,0.000,0.000,0.000
1641102624796592896,2022-01-02-05:50:24,10.1.1.9,176,-0.400,-0.400,-0.400,0.000,0.000,0.000
1641102625016442112,2022-01-02-05:50:25,10.1.1.9,195,-0.390,-0.390,-0.390,0.000,0.000,0.000
1641102625206886144,2022-01-02-05:50:25,10.1.1.9,185,-0.380,-0.380,-0.380,0.000,0.000,0.000
1641102625417041152,2022-01-02-05:50:25,10.1.1.9,195,-0.370,-0.370,-0.370,0.000,0.000,0.000
1641102625818407936,2022-01-02-05:50:25,10.1.1.9,195,-0.350,-0.350,-0.350,0.000,0.000,0.000
1641102626282952192,2022-01-02-05:50:26,10.1.1.9,194,-0.330,-0.330,-0.330,0.000,0.000,0.000
1641102626485943040,2022-01-02-05:50:26,10.1.1.9,190,-0.320,-0.320,-0.320,0.000,0.000,0.000
1641102626678829824,2022-01-02-05:50:26,10.1.1.9,186,-0.310,-0.310,-0.310,0.000,0.000,0.000
1641102626885047808,2022-01-02-05:50:26,10.1.1.9,186,-0.300,-0.300,-0.300,0.000,0.000,0.000
1641102627084216064,2022-01-02-05:50:27,10.1.1.9,190,-0.290,-0.290,-0.290,0.000,0.000,0.000
1641102627280246016,2022-01-02-05:50:27,10.1.1.9,182,-0.280,-0.280,-0.280,0.000,0.000,0.000
1641102627489572096,2022-01-02-05:50:27,10.1.1.9,182,-0.270,-0.270,-0.270,0.000,0.000,0.000
1641102627720002048,2022-01-02-05:50:27,10.1.1.9,198,-0.260,-0.260,-0.260,0.000,0.000,0.000
1641102627922411008,2022-01-02-05:50:27,10.1.1.9,197,-0.250,-0.250,-0.250,0.000,0.000,0.000
1641102628120902912,2022-01-02-05:50:28,10.1.1.9,196,-0.240,-0.240,-0.240,0.000,0.000,0.000
1641102628309822976,2022-01-02-05:50:28,10.1.1.9,183,-0.230,-0.230,-0.230,0.000,0.000,0.000
1641102628509732096,2022-01-02-05:50:28,10.1.1.9,182,-0.220,-0.220,-0.220,0.000,0.000,0.000
1641102628920971008,2022-01-02-05:50:28,10.1.1.9,192,-0.200,-0.200,-0.200,0.000,0.000,0.000
1641102629121617920,2022-01-02-05:50:29,10.1.1.9,192,-0.190,-0.190,-0.190,0.000,0.000,0.000
1641102629321167872,2022-01-02-05:50:29,10.1.1.9,191,-0.180,-0.180,-0.180,0.000,0.000,0.000
1641102629511262976,2022-01-02-05:50:29,10.1.1.9,180,-0.170,-0.170,-0.170,0.000,0.000,0.000
1641102629730195968,2022-01-02-05:50:29,10.1.1.9,198,-0.160,-0.160,-0.160,0.000,0.000,0.000
1641102629922132992,2022-01-02-05:50:29,10.1.1.9,189,-0.150,-0.150,-0.150,0.000,0.000,0.000
1641102630121371904,2022-01-02-05:50:30,10.1.1.9,188,-0.140,-0.140,-0.140,0.000,0.000,0.000
1641102630320655104,2022-01-02-05:50:30,10.1.1.9,186,-0.130,-0.130,-0.130,0.000,0.000,0.000
1641102630520973056,2022-01-02-05:50:30,10.1.1.9,186,-0.120,-0.120,-0.120,0.000,0.000,0.000
1641102630720744960,2022-01-02-05:50:30,10.1.1.9,185,-0.110,-0.110,-0.110,0.000,0.000,0.000
1641102630920531968,2022-01-02-05:50:30,10.1.1.9,183,-0.100,-0.100,-0.100,0.000,0.000,0.000
1641102631120604160,2022-01-02-05:50:31,10.1.1.9,183,-0.090,-0.090,-0.090,0.000,0.000,0.000
1641102631322906880,2022-01-02-05:50:31,10.1.1.9,185,-0.080,-0.080,-0.080,0.000,0.000,0.000
1641102631531480064,2022-01-02-05:50:31,10.1.1.9,186,-0.070,-0.070,-0.070,0.000,0.000,0.000
1641102631942257920,2022-01-02-05:50:31,10.1.1.9,197,-0.050,-0.050,-0.050,0.000,0.000,0.000
1641102632340868864,2022-01-02-05:50:32,10.1.1.9,194,-0.030,-0.030,-0.030,0.000,0.000,0.000
1641102632542962944,2022-01-02-05:50:32,10.1.1.9,194,-0.020,-0.020,-0.020,0.000,0.000,0.000
1641102632741049088,2022-01-02-05:50:32,10.1.1.9,191,-0.010,-0.010,-0.010,0.000,0.000,0.000
1641102632940551936,2022-01-02-05:50:32,10.1.1.9,189,0.000,0.000,0.000,0.000,0.000,0.000
1641102633142222848,2022-01-02-05:50:33,10.1.1.9,191,-0.010,-0.010,-0.010,0.000,0.000,0.000
1641102633349932800,2022-01-02-05:50:33,10.1.1.9,197,-0.020,-0.020,-0.020,0.000,0.000,0.000
1641102633539272192,2022-01-02-05:50:33,10.1.1.9,186,-0.030,-0.030,-0.030,0.000,0.000,0.000
1641102633748868096,2022-01-02-05:50:33,10.1.1.9,195,-0.040,-0.040,-0.040,0.000,0.000,0.000
1641102633949498880,2022-01-02-05:50:33,10.1.1.9,195,-0.050,-0.050,-0.050,0.000,0.000,0.000
1641102634139350016,2022-01-02-05:50:34,10.1.1.9,184,-0.060,-0.060,-0.060,0.000,0.000,0.000
1641102634340167936,2022-01-02-05:50:34,10.1.1.9,184,-0.070,-0.070,-0.070,0.000,0.000,0.000
1641102634548470016,2022-01-02-05:50:34,10.1.1.9,191,-0.080,-0.080,-0.080,0.000,0.000,0.000
1641102634738609920,2022-01-02-05:50:34,10.1.1.9,180,-0.090,-0.090,-0.090,0.000,0.000,0.000
1641102634940884992,2022-01-02-05:50:34,10.1.1.9,180,-0.100,-0.100,-0.100,0.000,0.000,0.000
1641102635148891904,2022-01-02-05:50:35,10.1.1.9,187,-0.110,-0.110,-0.110,0.000,0.000,0.000
1641102635347828992,2022-01-02-05:50:35,10.1.1.9,185,-0.120,-0.120,-0.120,0.000,0.000,0.000
1641102635549197056,2022-01-02-05:50:35,10.1.1.9,186,-0.130,-0.130,-0.130,0.000,0.000,0.000
1641102635757293824,2022-01-02-05:50:35,10.1.1.9,192,-0.140,-0.140,-0.140,0.000,0.000,0.000
1641102635959693056,2022-01-02-05:50:35,10.1.1.9,194,-0.150,-0.150,-0.150,0.000,0.000,0.000
1641102636147362048,2022-01-02-05:50:36,10.1.1.9,181,-0.160,-0.160,-0.160,0.000,0.000,0.000
1641102636358213888,2022-01-02-05:50:36,10.1.1.9,191,-0.170,-0.170,-0.170,0.000,0.000,0.000
1641102636567443968,2022-01-02-05:50:36,10.1.1.9,198,-0.180,-0.180,-0.180,0.000,0.000,0.000
1641102636756388864,2022-01-02-05:50:36,10.1.1.9,186,-0.190,-0.190,-0.190,0.000,0.000,0.000
1641102636965774080,2022-01-02-05:50:36,10.1.1.9,195,-0.200,-0.200,-0.200,0.000,0.000,0.000
1641102637145859072,2022-01-02-05:50:37,10.1.1.9,175,-0.210,-0.210,-0.210,0.000,0.000,0.000
1641102637357409024,2022-01-02-05:50:37,10.1.1.9,186,-0.220,-0.220,-0.220,0.000,0.000,0.000
1641102637556058880,2022-01-02-05:50:37,10.1.1.9,183,-0.230,-0.230,-0.230,0.000,0.000,0.000
1641102637755362048,2022-01-02-05:50:37,10.1.1.9,181,-0.240,-0.240,-0.240,0.000,0.000,0.000
1641102637955013888,2022-01-02-05:50:37,10.1.1.9,179,-0.250,-0.250,-0.250,0.000,0.000,0.000
1641102638154622976,2022-01-02-05:50:38,10.1.1.9,178,-0.260,-0.260,-0.260,0.000,0.000,0.000
1641102638364263936,2022-01-02-05:50:38,10.1.1.9,187,-0.270,-0.270,-0.270,0.000,0.000,0.000
1641102638554299136,2022-01-02-05:50:38,10.1.1.9,176,-0.280,-0.280,-0.280,0.000,0.000,0.000
1641102638754093824,2022-01-02-05:50:38,10.1.1.9,175,-0.290,-0.290,-0.290,0.000,0.000,0.000
1641102638953874176,2022-01-02-05:50:38,10.1.1.9,174,-0.300,-0.300,-0.300,0.000,0.000,0.000
1641102639153923072,2022-01-02-05:50:39,10.1.1.9,174,-0.310,-0.310,-0.310,0.000,0.000,0.000
1641102639353049088,2022-01-02-05:50:39,10.1.1.9,172,-0.320,-0.320,-0.320,0.000,0.000,0.000
1641102639576091904,2022-01-02-05:50:39,10.1.1.9,194,-0.330,-0.330,-0.330,0.000,0.000,0.000
1641102639782452224,2022-01-02-05:50:39,10.1.1.9,200,-0.340,-0.340,-0.340,0.000,0.000,0.000
1641102639982147072,2022-01-02-05:50:39,10.1.1.9,199,-0.350,-0.350,-0.350,0.000,0.000,0.000
1641102640172380928,2022-01-02-05:50:40,10.1.1.9,188,-0.360,-0.360,-0.360,0.000,0.000,0.000
1641102640372317952,2022-01-02-05:50:40,10.1.1.9,187,-0.370,-0.370,-0.370,0.000,0.000,0.000
1641102640571536128,2022-01-02-05:50:40,10.1.1.9,186,-0.380,-0.380,-0.380,0.000,0.000,0.000
1641102640771296000,2022-01-02-05:50:40,10.1.1.9,184,-0.390,-0.390,-0.390,0.000,0.000,0.000
1641102640961426944,2022-01-02-05:50:40,10.1.1.9,174,-0.400,-0.400,-0.400,0.000,0.000,0.000
1641102641161210112,2022-01-02-05:50:41,10.1.1.9,172,-0.410,-0.410,-0.410,0.000,0.000,0.000
1641102641371134976,2022-01-02-05:50:41,10.1.1.9,180,-0.420,-0.420,-0.420,0.000,0.000,0.000
1641102641572310016,2022-01-02-05:50:41,10.1.1.9,180,-0.430,-0.430,-0.430,0.000,0.000,0.000
1641102641771884032,2022-01-02-05:50:41,10.1.1.9,179,-0.440,-0.440,-0.440,0.000,0.000,0.000
1641102641972497920,2022-01-02-05:50:41,10.1.1.9,179,-0.450,-0.450,-0.450,0.000,0.000,0.000
1641102642169766912,2022-01-02-05:50:42,10.1.1.9,175,-0.460,-0.460,-0.460,0.000,0.000,0.000
1641102642371095808,2022-01-02-05:50:42,10.1.1.9,172,-0.470,-0.470,-0.470,0.000,0.000,0.000
1641102642568605952,2022-01-02-05:50:42,10.1.1.9,168,-0.480,-0.480,-0.480,0.000,0.000,0.000
1641102642768908032,2022-01-02-05:50:42,10.1.1.9,168,-0.490,-0.490,-0.490,0.000,0.000,0.000
1641102642988271872,2022-01-02-05:50:42,10.1.1.9,186,-0.480,-0.480,-0.480,0.000,0.000,0.000
1641102643201724928,2022-01-02-05:50:43,10.1.1.9,199,-0.470,-0.470,-0.470,0.000,0.000,0.000
1641102643388531968,2022-01-02-05:50:43,10.1.1.9,184,-0.460,-0.460,-0.460,0.000,0.000,0.000
1641102643587699968,2022-01-02-05:50:43,10.1.1.9,183,-0.450,-0.450,-0.450,0.000,0.000,0.000
1641102643787215872,2022-01-02-05:50:43,10.1.1.9,181,-0.440,-0.440,-0.440,0.000,0.000,0.000
1641102643986879232,2022-01-02-05:50:43,10.1.1.9,177,-0.430,-0.430,-0.430,0.000,0.000,0.000
1641102644196675072,2022-01-02-05:50:44,10.1.1.9,186,-0.420,-0.420,-0.420,0.000,0.000,0.000
1641102644396603136,2022-01-02-05:50:44,10.1.1.9,186,-0.410,-0.410,-0.410,0.000,0.000,0.000
1641102644586354944,2022-01-02-05:50:44,10.1.1.9,175,-0.400,-0.400,-0.400,0.000,0.000,0.000
1641102644795813120,2022-01-02-05:50:44,10.1.1.9,183,-0.390,-0.390,-0.390,0.000,0.000,0.000
1641102644985574912,2022-01-02-05:50:44,10.1.1.9,173,-0.380,-0.380,-0.380,0.000,0.000,0.000
1641102645184984832,2022-01-02-05:50:45,10.1.1.9,171,-0.370,-0.370,-0.370,0.000,0.000,0.000
1641102645395365888,2022-01-02-05:50:45,10.1.1.9,181,-0.360,-0.360,-0.360,0.000,0.000,0.000
1641102645594923008,2022-01-02-05:50:45,10.1.1.9,180,-0.350,-0.350,-0.350,0.000,0.000,0.000
1641102645784425984,2022-01-02-05:50:45,10.1.1.9,169,-0.340,-0.340,-0.340,0.000,0.000,0.000
1641102645984005888,2022-01-02-05:50:45,10.1.1.9,168,-0.330,-0.330,-0.330,0.000,0.000,0.000
1641102646184861952,2022-01-02-05:50:46,10.1.1.9,168,-0.320,-0.320,-0.320,0.000,0.000,0.000
1641102646385827072,2022-01-02-05:50:46,10.1.1.9,168,-0.310,-0.310,-0.310,0.000,0.000,0.000
1641102646593058048,2022-01-02-05:50:46,10.1.1.9,175,-0.300,-0.300,-0.300,0.000,0.000,0.000
1641102646783247872,2022-01-02-05:50:46,10.1.1.9,165,-0.290,-0.290,-0.290,0.000,0.000,0.000
1641102646982470144,2022-01-02-05:50:46,10.1.1.9,163,-0.280,-0.280,-0.280,0.000,0.000,0.000
1641102647181852160,2022-01-02-05:50:47,10.1.1.9,162,-0.270,-0.270,-0.270,0.000,0.000,0.000
1641102647383100160,2022-01-02-05:50:47,10.1.1.9,162,-0.260,-0.260,-0.260,0.000,0.000,0.000
1641102647612443904,2022-01-02-05:50:47,10.1.1.9,186,-0.250,-0.250,-0.250,0.000,0.000,0.000
1641102647811016192,2022-01-02-05:50:47,10.1.1.9,183,-0.240,-0.240,-0.240,0.000,0.000,0.000
1641102648001529856,2022-01-02-05:50:48,10.1.1.9,173,-0.230,-0.230,-0.230,0.000,0.000,0.000
1641102648201571072,2022-01-02-05:50:48,10.1.1.9,172,-0.220,-0.220,-0.220,0.000,0.000,0.000
1641102648409935104,2022-01-02-05:50:48,10.1.1.9,179,-0.210,-0.210,-0.210,0.000,0.000,0.000
1641102648599697152,2022-01-02-05:50:48,10.1.1.9,167,-0.200,-0.200,-0.200,0.000,0.000,0.000
1641102648799969024,2022-01-02-05:50:48,10.1.1.9,167,-0.190,-0.190,-0.190,0.000,0.000,0.000
1641102648999037952,2022-01-02-05:50:48,10.1.1.9,165,-0.180,-0.180,-0.180,0.000,0.000,0.000
1641102649209143040,2022-01-02-05:50:49,10.1.1.9,175,-0.170,-0.170,-0.170,0.000,0.000,0.000
1641102649398718208,2022-01-02-05:50:49,10.1.1.9,164,-0.160,-0.160,-0.160,0.000,0.000,0.000
1641102649601447936,2022-01-02-05:50:49,10.1.1.9,166,-0.150,-0.150,-0.150,0.000,0.000,0.000
1641102649808067072,2022-01-02-05:50:49,10.1.1.9,172,-0.140,-0.140,-0.140,0.000,0.000,0.000
1641102650018040064,2022-01-02-05:50:50,10.1.1.9,175,-0.130,-0.130,-0.130,0.000,0.000,0.000
1641102650219104000,2022-01-02-05:50:50,10.1.1.9,173,-0.120,-0.120,-0.120,0.000,0.000,0.000
1641102650427841792,2022-01-02-05:50:50,10.1.1.9,181,-0.110,-0.110,-0.110,0.000,0.000,0.000
1641102650617593088,2022-01-02-05:50:50,10.1.1.9,170,-0.100,-0.100,-0.100,0.000,0.000,0.000
1641102650807346176,2022-01-02-05:50:50,10.1.1.9,159,-0.090,-0.090,-0.090,0.000,0.000,0.000
1641102651017442048,2022-01-02-05:50:51,10.1.1.9,168,-0.080,-0.080,-0.080,0.000,0.000,0.000
1641102651208473856,2022-01-02-05:50:51,10.1.1.9,158,-0.070,-0.070,-0.070,0.000,0.000,0.000
1641102651420468992,2022-01-02-05:50:51,10.1.1.9,169,-0.060,-0.060,-0.060,0.000,0.000,0.000
1641102651620893952,2022-01-02-05:50:51,10.1.1.9,168,-0.050,-0.050,-0.050,0.000,0.000,0.000
1641102651824508928,2022-01-02-05:50:51,10.1.1.9,169,-0.040,-0.040,-0.040,0.000,0.000,0.000
1641102652022895104,2022-01-02-05:50:52,10.1.1.9,167,-0.030,-0.030,-0.030,0.000,0.000,0.000
1641102652224185088,2022-01-02-05:50:52,10.1.1.9,167,-0.020,-0.020,-0.020,0.000,0.000,0.000
1641102652435398144,2022-01-02-05:50:52,10.1.1.9,178,-0.010,-0.010,-0.010,0.000,0.000,0.000
1641102652626936832,2022-01-02-05:50:52,10.1.1.9,169,0.000,0.000,0.000,0.000,0.000,0.000
1641102652856153088,2022-01-02-05:50:52,10.1.1.9,193,-0.010,-0.010,-0.010,0.000,0.000,0.000
1641102653049006848,2022-01-02-05:50:53,10.1.1.9,181,-0.020,-0.020,-0.020,0.000,0.000,0.000
1641102653250468096,2022-01-02-05:50:53,10.1.1.9,179,-0.030,-0.030,-0.030,0.000,0.000,0.000
1641102653458395904,2022-01-02-05:50:53,10.1.1.9,184,-0.040,-0.040,-0.040,0.000,0.000,0.000
1641102653649931008,2022-01-02-05:50:53,10.1.1.9,175,-0.050,-0.050,-0.050,0.000,0.000,0.000
1641102653849775104,2022-01-02-05:50:53,10.1.1.9,173,-0.060,-0.060,-0.060,0.000,0.000,0.000
1641102654061038848,2022-01-02-05:50:54,10.1.1.9,184,-0.070,-0.070,-0.070,0.000,0.000,0.000
1641102654252003072,2022-01-02-05:50:54,10.1.1.9,173,-0.080,-0.080,-0.080,0.000,0.000,0.000
1641102654453552128,2022-01-02-05:50:54,10.1.1.9,174,-0.090,-0.090,-0.090,0.000,0.000,0.000
1641102654662589184,2022-01-02-05:50:54,10.1.1.9,183,-0.100,-0.100,-0.100,0.000,0.000,0.000
1641102654855639040,2022-01-02-05:50:54,10.1.1.9,175,-0.110,-0.110,-0.110,0.000,0.000,0.000
1641102655074031104,2022-01-02-05:50:55,10.1.1.9,193,-0.120,-0.120,-0.120,0.000,0.000,0.000
1641102655474917888,2022-01-02-05:50:55,10.1.1.9,192,-0.140,-0.140,-0.140,0.000,0.000,0.000
1641102655675719936,2022-01-02-05:50:55,10.1.1.9,192,-0.150,-0.150,-0.150,0.000,0.000,0.000
1641102655865355008,2022-01-02-05:50:55,10.1.1.9,180,-0.160,-0.160,-0.160,0.000,0.000,0.000
1641102656076477952,2022-01-02-05:50:56,10.1.1.9,191,-0.170,-0.170,-0.170,0.000,0.000,0.000
1641102656279490048,2022-01-02-05:50:56,10.1.1.9,193,-0.180,-0.180,-0.180,0.000,0.000,0.000
1641102656477773056,2022-01-02-05:50:56,10.1.1.9,190,-0.190,-0.190,-0.190,0.000,0.000,0.000
1641102656677287168,2022-01-02-05:50:56,10.1.1.9,189,-0.200,-0.200,-0.200,0.000,0.000,0.000
1641102656869692928,2022-01-02-05:50:56,10.1.1.9,181,-0.210,-0.210,-0.210,0.000,0.000,0.000
1641102657087986944,2022-01-02-05:50:57,10.1.1.9,198,-0.220,-0.220,-0.220,0.000,0.000,0.000
1641102657281857024,2022-01-02-05:50:57,10.1.1.9,191,-0.230,-0.230,-0.230,0.000,0.000,0.000
1641102657479960832,2022-01-02-05:50:57,10.1.1.9,189,-0.240,-0.240,-0.240,0.000,0.000,0.000
1641102657679163904,2022-01-02-05:50:57,10.1.1.9,186,-0.250,-0.250,-0.250,0.000,0.000,0.000
1641102657881848064,2022-01-02-05:50:57,10.1.1.9,189,-0.260,-0.260,-0.260,0.000,0.000,0.000
1641102658079948800,2022-01-02-05:50:58,10.1.1.9,186,-0.270,-0.270,-0.270,0.000,0.000,0.000
1641102658280477952,2022-01-02-05:50:58,10.1.1.9,186,-0.280,-0.280,-0.280,0.000,0.000,0.000
1641102659091780864,2022-01-02-05:50:59,10.1.1.9,185,-0.320,-0.320,-0.320,0.000,0.000,0.000
1641102659290977024,2022-01-02-05:50:59,10.1.1.9,182,-0.330,-0.330,-0.330,0.000,0.000,0.000
1641102659490988032,2022-01-02-05:50:59,10.1.1.9,181,-0.340,-0.340,-0.340,0.000,0.000,0.000
1641102659701821952,2022-01-02-05:50:59,10.1.1.9,190,-0.350,-0.350,-0.350,0.000,0.000,0.000
1641102659911387904,2022-01-02-05:50:59,10.1.1.9,199,-0.360,-0.360,-0.360,0.000,0.000,0.000
1641102660100824064,2022-01-02-05:51:00,10.1.1.9,188,-0.370,-0.370,-0.370,0.000,0.000,0.000
1641102660311682816,2022-01-02-05:51:00,10.1.1.9,198,-0.380,-0.380,-0.380,0.000,0.000,0.000
1641102660501542144,2022-01-02-05:51:00,10.1.1.9,187,-0.390,-0.390,-0.390,0.000,0.000,0.000
1641102660701181952,2022-01-02-05:51:00,10.1.1.9,186,-0.400,-0.400,-0.400,0.000,0.000,0.000
1641102660911727872,2022-01-02-05:51:00,10.1.1.9,196,-0.410,-0.410,-0.410,0.000,0.000,0.000
1641102661101847808,2022-01-02-05:51:01,10.1.1.9,184,-0.420,-0.420,-0.420,0.000,0.000,0.000
1641102661302488064,2022-01-02-05:51:01,10.1.1.9,183,-0.430,-0.430,-0.430,0.000,0.000,0.000
1641102661502048000,2022-01-02-05:51:01,10.1.1.9,182,-0.440,-0.440,-0.440,0.000,0.000,0.000
1641102661922036992,2022-01-02-05:51:01,10.1.1.9,199,-0.460,-0.460,-0.460,0.000,0.000,0.000
1641102662122775040,2022-01-02-05:51:02,10.1.1.9,199,-0.470,-0.470,-0.470,0.000,0.000,0.000
1641102662321911040,2022-01-02-05:51:02,10.1.1.9,197,-0.480,-0.480,-0.480,0.000,0.000,0.000
1641102662512450816,2022-01-02-05:51:02,10.1.1.9,187,-0.490,-0.490,-0.490,0.000,0.000,0.000
1641102662722598912,2022-01-02-05:51:02,10.1.1.9,197,-0.480,-0.480,-0.480,0.000,0.000,0.000
1641102662914259968,2022-01-02-05:51:02,10.1.1.9,188,-0.470,-0.470,-0.470,0.000,0.000,0.000
1641102663121517824,2022-01-02-05:51:03,10.1.1.9,194,-0.460,-0.460,-0.460,0.000,0.000,0.000
1641102663322354944,2022-01-02-05:51:03,10.1.1.9,193,-0.450,-0.450,-0.450,0.000,0.000,0.000
1641102663521127936,2022-01-02-05:51:03,10.1.1.9,191,-0.440,-0.440,-0.440,0.000,0.000,0.000
1641102663921721088,2022-01-02-05:51:03,10.1.1.9,190,-0.420,-0.420,-0.420,0.000,0.000,0.000
1641102664121328128,2022-01-02-05:51:04,10.1.1.9,188,-0.410,-0.410,-0.410,0.000,0.000,0.000
1641102664330990080,2022-01-02-05:51:04,10.1.1.9,198,-0.400,-0.400,-0.400,0.000,0.000,0.000
1641102664531548928,2022-01-02-05:51:04,10.1.1.9,197,-0.390,-0.390,-0.390,0.000,0.000,0.000
1641102664721414144,2022-01-02-05:51:04,10.1.1.9,187,-0.380,-0.380,-0.380,0.000,0.000,0.000
1641102664920932096,2022-01-02-05:51:04,10.1.1.9,186,-0.370,-0.370,-0.370,0.000,0.000,0.000
1641102665121478912,2022-01-02-05:51:05,10.1.1.9,185,-0.360,-0.360,-0.360,0.000,0.000,0.000
1641102665321342976,2022-01-02-05:51:05,10.1.1.9,185,-0.350,-0.350,-0.350,0.000,0.000,0.000
1641102665532026112,2022-01-02-05:51:05,10.1.1.9,195,-0.340,-0.340,-0.340,0.000,0.000,0.000
1641102665741480192,2022-01-02-05:51:05,10.1.1.9,199,-0.330,-0.330,-0.330,0.000,0.000,0.000
1641102666141416192,2022-01-02-05:51:06,10.1.1.9,198,-0.310,-0.310,-0.310,0.000,0.000,0.000
1641102666340812032,2022-01-02-05:51:06,10.1.1.9,196,-0.300,-0.300,-0.300,0.000,0.000,0.000
1641102666540797952,2022-01-02-05:51:06,10.1.1.9,196,-0.290,-0.290,-0.290,0.000,0.000,0.000
1641102666740856832,2022-01-02-05:51:06,10.1.1.9,194,-0.280,-0.280,-0.280,0.000,0.000,0.000
1641102667140166144,2022-01-02-05:51:07,10.1.1.9,189,-0.260,-0.260,-0.260,0.000,0.000,0.000
1641102667340483840,2022-01-02-05:51:07,10.1.1.9,185,-0.250,-0.250,-0.250,0.000,0.000,0.000
1641102667540690944,2022-01-02-05:51:07,10.1.1.9,185,-0.240,-0.240,-0.240,0.000,0.000,0.000
1641102667740139008,2022-01-02-05:51:07,10.1.1.9,183,-0.230,-0.230,-0.230,0.000,0.000,0.000
1641102667939698944,2022-01-02-05:51:07,10.1.1.9,181,-0.220,-0.220,-0.220,0.000,0.000,0.000
1641102668141332992,2022-01-02-05:51:08,10.1.1.9,182,-0.210,-0.210,-0.210,0.000,0.000,0.000
1641102668340677888,2022-01-02-05:51:08,10.1.1.9,180,-0.200,-0.200,-0.200,0.000,0.000,0.000
1641102668538747136,2022-01-02-05:51:08,10.1.1.9,178,-0.190,-0.190,-0.190,0.000,0.000,0.000
1641102668758784000,2022-01-02-05:51:08,10.1.1.9,197,-0.180,-0.180,-0.180,0.000,0.000,0.000
1641102668947699968,2022-01-02-05:51:08,10.1.1.9,186,-0.170,-0.170,-0.170,0.000,0.000,0.000
1641102669149518080,2022-01-02-05:51:09,10.1.1.9,187,-0.160,-0.160,-0.160,0.000,0.000,0.000
1641102669368192000,2022-01-02-05:51:09,10.1.1.9,196,-0.150,-0.150,-0.150,0.000,0.000,0.000
1641102669786673152,2022-01-02-05:51:09,10.1.1.9,176,-0.130,-0.130,-0.130,0.000,0.000,0.000
1641102670028055040,2022-01-02-05:51:10,10.1.1.9,214,-0.120,-0.120,-0.120,0.000,0.000,0.000
1641102670217012992,2022-01-02-05:51:10,10.1.1.9,188,-0.110,-0.110,-0.110,0.000,0.000,0.000
1641102670416173056,2022-01-02-05:51:10,10.1.1.9,185,-0.100,-0.100,-0.100,0.000,0.000,0.000
1641102670626057984,2022-01-02-05:51:10,10.1.1.9,194,-0.090,-0.090,-0.090,0.000,0.000,0.000
1641102670815828992,2022-01-02-05:51:10,10.1.1.9,183,-0.080,-0.080,-0.080,0.000,0.000,0.000
1641102671016022016,2022-01-02-05:51:11,10.1.1.9,183,-0.070,-0.070,-0.070,0.000,0.000,0.000
1641102671215190784,2022-01-02-05:51:11,10.1.1.9,182,-0.060,-0.060,-0.060,0.000,0.000,0.000
1641102671424901120,2022-01-02-05:51:11,10.1.1.9,190,-0.050,-0.050,-0.050,0.000,0.000,0.000
1641102671616012032,2022-01-02-05:51:11,10.1.1.9,181,-0.040,-0.040,-0.040,0.000,0.000,0.000
1641102671815457024,2022-01-02-05:51:11,10.1.1.9,179,-0.030,-0.030,-0.030,0.000,0.000,0.000
1641102672014596096,2022-01-02-05:51:12,10.1.1.9,178,-0.020,-0.020,-0.020,0.000,0.000,0.000
1641102672224335872,2022-01-02-05:51:12,10.1.1.9,187,-0.010,-0.010,-0.010,0.000,0.000,0.000
1641102672423665152,2022-01-02-05:51:12,10.1.1.9,186,0.000,0.000,0.000,0.000,0.000,0.000
1641102672614182912,2022-01-02-05:51:12,10.1.1.9,175,-0.010,-0.010,-0.010,0.000,0.000,0.000
1641102672816613888,2022-01-02-05:51:12,10.1.1.9,175,-0.020,-0.020,-0.020,0.000,0.000,0.000
1641102673235236864,2022-01-02-05:51:13,10.1.1.9,193,-0.040,-0.040,-0.040,0.000,0.000,0.000
1641102673434788864,2022-01-02-05:51:13,10.1.1.9,192,-0.050,-0.050,-0.050,0.000,0.000,0.000
1641102673642770176,2022-01-02-05:51:13,10.1.1.9,198,-0.060,-0.060,-0.060,0.000,0.000,0.000
1641102674033526784,2022-01-02-05:51:14,10.1.1.9,177,-0.080,-0.080,-0.080,0.000,0.000,0.000
1641102674252233984,2022-01-02-05:51:14,10.1.1.9,183,-0.090,-0.090,-0.090,0.000,0.000,0.000
1641102674450946048,2022-01-02-05:51:14,10.1.1.9,178,-0.100,-0.100,-0.100,0.000,0.000,0.000
1641102674650654976,2022-01-02-05:51:14,10.1.1.9,176,-0.110,-0.110,-0.110,0.000,0.000,0.000
1641102674850790912,2022-01-02-05:51:14,10.1.1.9,176,-0.120,-0.120,-0.120,0.000,0.000,0.000
1641102675054117888,2022-01-02-05:51:15,10.1.1.9,179,-0.130,-0.130,-0.130,0.000,0.000,0.000
1641102675251171072,2022-01-02-05:51:15,10.1.1.9,175,-0.140,-0.140,-0.140,0.000,0.000,0.000
1641102675450520064,2022-01-02-05:51:15,10.1.1.9,174,-0.150,-0.150,-0.150,0.000,0.000,0.000
1641102675652878080,2022-01-02-05:51:15,10.1.1.9,176,-0.160,-0.160,-0.160,0.000,0.000,0.000
1641102675850713856,2022-01-02-05:51:15,10.1.1.9,173,-0.170,-0.170,-0.170,0.000,0.000,0.000
1641102676049297152,2022-01-02-05:51:16,10.1.1.9,170,-0.180,-0.180,-0.180,0.000,0.000,0.000
1641102676248830208,2022-01-02-05:51:16,10.1.1.9,169,-0.190,-0.190,-0.190,0.000,0.000,0.000
1641102676448632064,2022-01-02-05:51:16,10.1.1.9,168,-0.200,-0.200,-0.200,0.000,0.000,0.000
1641102676648275968,2022-01-02-05:51:16,10.1.1.9,167,-0.210,-0.210,-0.210,0.000,0.000,0.000
1641102676877032960,2022-01-02-05:51:16,10.1.1.9,196,-0.220,-0.220,-0.220,0.000,0.000,0.000
1641102677067419136,2022-01-02-05:51:17,10.1.1.9,185,-0.230,-0.230,-0.230,0.000,0.000,0.000
1641102677269238016,2022-01-02-05:51:17,10.1.1.9,187,-0.240,-0.240,-0.240,0.000,0.000,0.000
1641102677467580160,2022-01-02-05:51:17,10.1.1.9,180,-0.250,-0.250,-0.250,0.000,0.000,0.000
1641102677666786048,2022-01-02-05:51:17,10.1.1.9,177,-0.260,-0.260,-0.260,0.000,0.000,0.000
1641102677865957888,2022-01-02-05:51:17,10.1.1.9,176,-0.270,-0.270,-0.270,0.000,0.000,0.000
1641102678076008192,2022-01-02-05:51:18,10.1.1.9,185,-0.280,-0.280,-0.280,0.000,0.000,0.000
1641102678266805760,2022-01-02-05:51:18,10.1.1.9,173,-0.290,-0.290,-0.290,0.000,0.000,0.000
1641102678465185024,2022-01-02-05:51:18,10.1.1.9,172,-0.300,-0.300,-0.300,0.000,0.000,0.000
1641102678674923776,2022-01-02-05:51:18,10.1.1.9,181,-0.310,-0.310,-0.310,0.000,0.000,0.000
1641102678865052928,2022-01-02-05:51:18,10.1.1.9,171,-0.320,-0.320,-0.320,0.000,0.000,0.000
1641102679064239872,2022-01-02-05:51:19,10.1.1.9,169,-0.330,-0.330,-0.330,0.000,0.000,0.000
1641102679264722176,2022-01-02-05:51:19,10.1.1.9,169,-0.340,-0.340,-0.340,0.000,0.000,0.000
1641102679464348160,2022-01-02-05:51:19,10.1.1.9,169,-0.350,-0.350,-0.350,0.000,0.000,0.000
1641102679677580032,2022-01-02-05:51:19,10.1.1.9,181,-0.360,-0.360,-0.360,0.000,0.000,0.000
1641102679864161024,2022-01-02-05:51:19,10.1.1.9,167,-0.370,-0.370,-0.370,0.000,0.000,0.000
1641102680065735168,2022-01-02-05:51:20,10.1.1.9,168,-0.380,-0.380,-0.380,0.000,0.000,0.000
1641102680263536896,2022-01-02-05:51:20,10.1.1.9,165,-0.390,-0.390,-0.390,0.000,0.000,0.000
1641102680463692800,2022-01-02-05:51:20,10.1.1.9,164,-0.400,-0.400,-0.400,0.000,0.000,0.000
1641102680662130176,2022-01-02-05:51:20,10.1.1.9,162,-0.410,-0.410,-0.410,0.000,0.000,0.000
1641102680872009984,2022-01-02-05:51:20,10.1.1.9,170,-0.420,-0.420,-0.420,0.000,0.000,0.000
1641102681092060928,2022-01-02-05:51:21,10.1.1.9,189,-0.430,-0.430,-0.430,0.000,0.000,0.000
1641102681280822016,2022-01-02-05:51:21,10.1.1.9,177,-0.440,-0.440,-0.440,0.000,0.000,0.000
1641102681490118912,2022-01-02-05:51:21,10.1.1.9,186,-0.450,-0.450,-0.450,0.000,0.000,0.000
1641102681690872064,2022-01-02-05:51:21,10.1.1.9,186,-0.460,-0.460,-0.460,0.000,0.000,0.000
1641102681880308992,2022-01-02-05:51:21,10.1.1.9,175,-0.470,-0.470,-0.470,0.000,0.000,0.000
1641102682079667968,2022-01-02-05:51:22,10.1.1.9,174,-0.480,-0.480,-0.480,0.000,0.000,0.000
1641102682268904960,2022-01-02-05:51:22,10.1.1.9,162,-0.490,-0.490,-0.490,0.000,0.000,0.000
1641102682468770048,2022-01-02-05:51:22,10.1.1.9,162,-0.480,-0.480,-0.480,0.000,0.000,0.000
1641102682678222848,2022-01-02-05:51:22,10.1.1.9,171,-0.470,-0.470,-0.470,0.000,0.000,0.000
1641102682878603008,2022-01-02-05:51:22,10.1.1.9,171,-0.460,-0.460,-0.460,0.000,0.000,0.000
1641102683077605120,2022-01-02-05:51:23,10.1.1.9,169,-0.450,-0.450,-0.450,0.000,0.000,0.000
1641102683277565952,2022-01-02-05:51:23,10.1.1.9,168,-0.440,-0.440,-0.440,0.000,0.000,0.000
1641102683481161984,2022-01-02-05:51:23,10.1.1.9,171,-0.430,-0.430,-0.430,0.000,0.000,0.000
1641102683685637888,2022-01-02-05:51:23,10.1.1.9,174,-0.420,-0.420,-0.420,0.000,0.000,0.000
1641102683876559104,2022-01-02-05:51:23,10.1.1.9,165,-0.410,-0.410,-0.410,0.000,0.000,0.000
1641102684076813824,2022-01-02-05:51:24,10.1.1.9,165,-0.400,-0.400,-0.400,0.000,0.000,0.000
1641102684278098176,2022-01-02-05:51:24,10.1.1.9,164,-0.390,-0.390,-0.390,0.000,0.000,0.000
1641102684483879936,2022-01-02-05:51:24,10.1.1.9,169,-0.380,-0.380,-0.380,0.000,0.000,0.000
1641102684680089856,2022-01-02-05:51:24,10.1.1.9,164,-0.370,-0.370,-0.370,0.000,0.000,0.000
1641102684890775808,2022-01-02-05:51:24,10.1.1.9,174,-0.360,-0.360,-0.360,0.000,0.000,0.000
1641102685081590784,2022-01-02-05:51:25,10.1.1.9,165,-0.350,-0.350,-0.350,0.000,0.000,0.000
1641102685283265024,2022-01-02-05:51:25,10.1.1.9,166,-0.340,-0.340,-0.340,0.000,0.000,0.000
1641102685486584064,2022-01-02-05:51:25,10.1.1.9,169,-0.330,-0.330,-0.330,0.000,0.000,0.000
1641102685693825024,2022-01-02-05:51:25,10.1.1.9,175,-0.320,-0.320,-0.320,0.000,0.000,0.000
1641102685884947968,2022-01-02-05:51:25,10.1.1.9,165,-0.310,-0.310,-0.310,0.000,0.000,0.000
1641102686086152192,2022-01-02-05:51:26,10.1.1.9,166,-0.300,-0.300,-0.300,0.000,0.000,0.000
1641102686287257856,2022-01-02-05:51:26,10.1.1.9,166,-0.290,-0.290,-0.290,0.000,0.000,0.000
1641102686507806976,2022-01-02-05:51:26,10.1.1.9,186,-0.280,-0.280,-0.280,0.000,0.000,0.000
1641102686708893952,2022-01-02-05:51:26,10.1.1.9,187,-0.270,-0.270,-0.270,0.000,0.000,0.000
1641102686908982016,2022-01-02-05:51:26,10.1.1.9,185,-0.260,-0.260,-0.260,0.000,0.000,0.000
1641102687109771008,2022-01-02-05:51:27,10.1.1.9,184,-0.250,-0.250,-0.250,0.000,0.000,0.000
1641102687322670848,2022-01-02-05:51:27,10.1.1.9,197,-0.240,-0.240,-0.240,0.000,0.000,0.000
1641102687511860992,2022-01-02-05:51:27,10.1.1.9,183,-0.230,-0.230,-0.230,0.000,0.000,0.000
1641102687731392000,2022-01-02-05:51:27,10.1.1.9,171,-0.220,-0.220,-0.220,0.000,0.000,0.000
1641102687932056064,2022-01-02-05:51:27,10.1.1.9,171,-0.210,-0.210,-0.210,0.000,0.000,0.000
1641102688153327872,2022-01-02-05:51:28,10.1.1.9,191,-0.200,-0.200,-0.200,0.000,0.000,0.000
1641102688353568000,2022-01-02-05:51:28,10.1.1.9,192,-0.190,-0.190,-0.190,0.000,0.000,0.000
1641102688555973888,2022-01-02-05:51:28,10.1.1.9,193,-0.180,-0.180,-0.180,0.000,0.000,0.000
1641102688744001024,2022-01-02-05:51:28,10.1.1.9,181,-0.170,-0.170,-0.170,0.000,0.000,0.000
1641102688955065856,2022-01-02-05:51:28,10.1.1.9,191,-0.160,-0.160,-0.160,0.000,0.000,0.000
1641102689154611968,2022-01-02-05:51:29,10.1.1.9,190,-0.150,-0.150,-0.150,0.000,0.000,0.000
1641102689357426944,2022-01-02-05:51:29,10.1.1.9,192,-0.140,-0.140,-0.140,0.000,0.000,0.000
1641102689555890944,2022-01-02-05:51:29,10.1.1.9,190,-0.130,-0.130,-0.130,0.000,0.000,0.000
1641102689755866112,2022-01-02-05:51:29,10.1.1.9,189,-0.120,-0.120,-0.120,0.000,0.000,0.000
1641102689966301952,2022-01-02-05:51:29,10.1.1.9,199,-0.110,-0.110,-0.110,0.000,0.000,0.000
1641102690166394112,2022-01-02-05:51:30,10.1.1.9,199,-0.100,-0.100,-0.100,0.000,0.000,0.000
1641102690346841088,2022-01-02-05:51:30,10.1.1.9,179,-0.090,-0.090,-0.090,0.000,0.000,0.000
1641102690557251072,2022-01-02-05:51:30,10.1.1.9,189,-0.080,-0.080,-0.080,0.000,0.000,0.000
1641102690747360000,2022-01-02-05:51:30,10.1.1.9,178,-0.070,-0.070,-0.070,0.000,0.000,0.000
1641102690957042944,2022-01-02-05:51:30,10.1.1.9,188,-0.060,-0.060,-0.060,0.000,0.000,0.000
1641102691148263936,2022-01-02-05:51:31,10.1.1.9,178,-0.050,-0.050,-0.050,0.000,0.000,0.000
1641102691362465024,2022-01-02-05:51:31,10.1.1.9,192,-0.040,-0.040,-0.040,0.000,0.000,0.000
1641102691568078080,2022-01-02-05:51:31,10.1.1.9,197,-0.030,-0.030,-0.030,0.000,0.000,0.000
1641102691759058944,2022-01-02-05:51:31,10.1.1.9,187,-0.020,-0.020,-0.020,0.000,0.000,0.000
1641102691958884864,2022-01-02-05:51:31,10.1.1.9,187,-0.010,-0.010,-0.010,0.000,0.000,0.000
1641102692160784128,2022-01-02-05:51:32,10.1.1.9,188,0.000,0.000,0.000,0.000,0.000,0.000
1641102692369425920,2022-01-02-05:51:32,10.1.1.9,196,-0.010,-0.010,-0.010,0.000,0.000,0.000
1641102692568841984,2022-01-02-05:51:32,10.1.1.9,193,-0.020,-0.020,-0.020,0.000,0.000,0.000
1641102692768860160,2022-01-02-05:51:32,10.1.1.9,193,-0.030,-0.030,-0.030,0.000,0.000,0.000
1641102692969726976,2022-01-02-05:51:32,10.1.1.9,193,-0.040,-0.040,-0.040,0.000,0.000,0.000
1641102693170270976,2022-01-02-05:51:33,10.1.1.9,193,-0.050,-0.050,-0.050,0.000,0.000,0.000
1641102693360454144,2022-01-02-05:51:33,10.1.1.9,182,-0.060,-0.060,-0.060,0.000,0.000,0.000
1641102693558980864,2022-01-02-05:51:33,10.1.1.9,180,-0.070,-0.070,-0.070,0.000,0.000,0.000
1641102693759898880,2022-01-02-05:51:33,10.1.1.9,180,-0.080,-0.080,-0.080,0.000,0.000,0.000
1641102693959840000,2022-01-02-05:51:33,10.1.1.9,180,-0.090,-0.090,-0.090,0.000,0.000,0.000
1641102694169581056,2022-01-02-05:51:34,10.1.1.9,189,-0.100,-0.100,-0.100,0.000,0.000,0.000
1641102694360052224,2022-01-02-05:51:34,10.1.1.9,179,-0.110,-0.110,-0.110,0.000,0.000,0.000
1641102694569936128,2022-01-02-05:51:34,10.1.1.9,188,-0.120,-0.120,-0.120,0.000,0.000,0.000
1641102694769293056,2022-01-02-05:51:34,10.1.1.9,187,-0.130,-0.130,-0.130,0.000,0.000,0.000
1641102694979706112,2022-01-02-05:51:34,10.1.1.9,196,-0.140,-0.140,-0.140,0.000,0.000,0.000
1641102695369366784,2022-01-02-05:51:35,10.1.1.9,183,-0.160,-0.160,-0.160,0.000,0.000,0.000
1641102695569603072,2022-01-02-05:51:35,10.1.1.9,183,-0.170,-0.170,-0.170,0.000,0.000,0.000
1641102695970307072,2022-01-02-05:51:35,10.1.1.9,182,-0.190,-0.190,-0.190,0.000,0.000,0.000
1641102696180018944,2022-01-02-05:51:36,10.1.1.9,190,-0.200,-0.200,-0.200,0.000,0.000,0.000
1641102696387529984,2022-01-02-05:51:36,10.1.1.9,194,-0.210,-0.210,-0.210,0.000,0.000,0.000
1641102696569529088,2022-01-02-05:51:36,10.1.1.9,179,-0.220,-0.220,-0.220,0.000,0.000,0.000
1641102696769524992,2022-01-02-05:51:36,10.1.1.9,178,-0.230,-0.230,-0.230,0.000,0.000,0.000
1641102696980681984,2022-01-02-05:51:36,10.1.1.9,189,-0.240,-0.240,-0.240,0.000,0.000,0.000
1641102697179848960,2022-01-02-05:51:37,10.1.1.9,187,-0.250,-0.250,-0.250,0.000,0.000,0.000
1641102697379496960,2022-01-02-05:51:37,10.1.1.9,186,-0.260,-0.260,-0.260,0.000,0.000,0.000
1641102697582031104,2022-01-02-05:51:37,10.1.1.9,188,-0.270,-0.270,-0.270,0.000,0.000,0.000
1641102697779926016,2022-01-02-05:51:37,10.1.1.9,185,-0.280,-0.280,-0.280,0.000,0.000,0.000
1641102697998840064,2022-01-02-05:51:37,10.1.1.9,196,-0.290,-0.290,-0.290,0.000,0.000,0.000
1641102698188762880,2022-01-02-05:51:38,10.1.1.9,185,-0.300,-0.300,-0.300,0.000,0.000,0.000
1641102698400854016,2022-01-02-05:51:38,10.1.1.9,195,-0.310,-0.310,-0.310,0.000,0.000,0.000
1641102698599416064,2022-01-02-05:51:38,10.1.1.9,192,-0.320,-0.320,-0.320,0.000,0.000,0.000
1641102698800020992,2022-01-02-05:51:38,10.1.1.9,191,-0.330,-0.330,-0.330,0.000,0.000,0.000
1641102698988736000,2022-01-02-05:51:38,10.1.1.9,180,-0.340,-0.340,-0.340,0.000,0.000,0.000
1641102699199377920,2022-01-02-05:51:39,10.1.1.9,190,-0.350,-0.350,-0.350,0.000,0.000,0.000
1641102699388631040,2022-01-02-05:51:39,10.1.1.9,178,-0.360,-0.360,-0.360,0.000,0.000,0.000
1641102699608032000,2022-01-02-05:51:39,10.1.1.9,196,-0.370,-0.370,-0.370,0.000,0.000,0.000
1641102699797932032,2022-01-02-05:51:39,10.1.1.9,185,-0.380,-0.380,-0.380,0.000,0.000,0.000
1641102699999307008,2022-01-02-05:51:39,10.1.1.9,186,-0.390,-0.390,-0.390,0.000,0.000,0.000
1641102700207182848,2022-01-02-05:51:40,10.1.1.9,192,-0.400,-0.400,-0.400,0.000,0.000,0.000
1641102700396878848,2022-01-02-05:51:40,10.1.1.9,177,-0.410,-0.410,-0.410,0.000,0.000,0.000
1641102700820736768,2022-01-02-05:51:40,10.1.1.9,198,-0.430,-0.430,-0.430,0.000,0.000,0.000
1641102701006177792,2022-01-02-05:51:41,10.1.1.9,182,-0.440,-0.440,-0.440,0.000,0.000,0.000
1641102701205874944,2022-01-02-05:51:41,10.1.1.9,181,-0.450,-0.450,-0.450,0.000,0.000,0.000
1641102701616130048,2022-01-02-05:51:41,10.1.1.9,190,-0.470,-0.470,-0.470,0.000,0.000,0.000
1641102701805760000,2022-01-02-05:51:41,10.1.1.9,178,-0.480,-0.480,-0.480,0.000,0.000,0.000
1641102702005830912,2022-01-02-05:51:42,10.1.1.9,178,-0.490,-0.490,-0.490,0.000,0.000,0.000
1641102702225159936,2022-01-02-05:51:42,10.1.1.9,197,-0.480,-0.480,-0.480,0.000,0.000,0.000
1641102702404690944,2022-01-02-05:51:42,10.1.1.9,176,-0.470,-0.470,-0.470,0.000,0.000,0.000
1641102702615624960,2022-01-02-05:51:42,10.1.1.9,186,-0.460,-0.460,-0.460,0.000,0.000,0.000
1641102702814131968,2022-01-02-05:51:42,10.1.1.9,184,-0.450,-0.450,-0.450,0.000,0.000,0.000
1641102703017970944,2022-01-02-05:51:43,10.1.1.9,187,-0.440,-0.440,-0.440,0.000,0.000,0.000
1641102703213847040,2022-01-02-05:51:43,10.1.1.9,183,-0.430,-0.430,-0.430,0.000,0.000,0.000
1641102703413504000,2022-01-02-05:51:43,10.1.1.9,182,-0.420,-0.420,-0.420,0.000,0.000,0.000
1641102703623783168,2022-01-02-05:51:43,10.1.1.9,192,-0.410,-0.410,-0.410,0.000,0.000,0.000
1641102703814054912,2022-01-02-05:51:43,10.1.1.9,180,-0.400,-0.400,-0.400,0.000,0.000,0.000
1641102704013910016,2022-01-02-05:51:44,10.1.1.9,178,-0.390,-0.390,-0.390,0.000,0.000,0.000
1641102704212519936,2022-01-02-05:51:44,10.1.1.9,176,-0.380,-0.380,-0.380,0.000,0.000,0.000
1641102704413490176,2022-01-02-05:51:44,10.1.1.9,175,-0.370,-0.370,-0.370,0.000,0.000,0.000
1641102704612164864,2022-01-02-05:51:44,10.1.1.9,173,-0.360,-0.360,-0.360,0.000,0.000,0.000
1641102704821836032,2022-01-02-05:51:44,10.1.1.9,183,-0.350,-0.350,-0.350,0.000,0.000,0.000
1641102705012596992,2022-01-02-05:51:45,10.1.1.9,173,-0.340,-0.340,-0.340,0.000,0.000,0.000
1641102705211718912,2022-01-02-05:51:45,10.1.1.9,172,-0.330,-0.330,-0.330,0.000,0.000,0.000
1641102705414952960,2022-01-02-05:51:45,10.1.1.9,174,-0.320,-0.320,-0.320,0.000,0.000,0.000
1641102705612185856,2022-01-02-05:51:45,10.1.1.9,171,-0.310,-0.310,-0.310,0.000,0.000,0.000
1641102705820632832,2022-01-02-05:51:45,10.1.1.9,179,-0.300,-0.300,-0.300,0.000,0.000,0.000
1641102706040205056,2022-01-02-05:51:46,10.1.1.9,198,-0.290,-0.290,-0.290,0.000,0.000,0.000
1641102706220772864,2022-01-02-05:51:46,10.1.1.9,177,-0.280,-0.280,-0.280,0.000,0.000,0.000
1641102706430267136,2022-01-02-05:51:46,10.1.1.9,187,-0.270,-0.270,-0.270,0.000,0.000,0.000
1641102706629512192,2022-01-02-05:51:46,10.1.1.9,186,-0.260,-0.260,-0.260,0.000,0.000,0.000
1641102706829367040,2022-01-02-05:51:46,10.1.1.9,185,-0.250,-0.250,-0.250,0.000,0.000,0.000
1641102707019130880,2022-01-02-05:51:47,10.1.1.9,174,-0.240,-0.240,-0.240,0.000,0.000,0.000
1641102707228390912,2022-01-02-05:51:47,10.1.1.9,183,-0.230,-0.230,-0.230,0.000,0.000,0.000
1641102707419055872,2022-01-02-05:51:47,10.1.1.9,173,-0.220,-0.220,-0.220,0.000,0.000,0.000
1641102707629121024,2022-01-02-05:51:47,10.1.1.9,182,-0.210,-0.210,-0.210,0.000,0.000,0.000
1641102707827756800,2022-01-02-05:51:47,10.1.1.9,180,-0.200,-0.200,-0.200,0.000,0.000,0.000
1641102708017497088,2022-01-02-05:51:48,10.1.1.9,169,-0.190,-0.190,-0.190,0.000,0.000,0.000
1641102708227688960,2022-01-02-05:51:48,10.1.1.9,179,-0.180,-0.180,-0.180,0.000,0.000,0.000
1641102708416899072,2022-01-02-05:51:48,10.1.1.9,168,-0.170,-0.170,-0.170,0.000,0.000,0.000
1641102708636295168,2022-01-02-05:51:48,10.1.1.9,186,-0.160,-0.160,-0.160,0.000,0.000,0.000
1641102708816334848,2022-01-02-05:51:48,10.1.1.9,165,-0.150,-0.150,-0.150,0.000,0.000,0.000
1641102709025677056,2022-01-02-05:51:49,10.1.1.9,174,-0.140,-0.140,-0.140,0.000,0.000,0.000
1641102709235852032,2022-01-02-05:51:49,10.1.1.9,184,-0.130,-0.130,-0.130,0.000,0.000,0.000
1641102709426491136,2022-01-02-05:51:49,10.1.1.9,173,-0.120,-0.120,-0.120,0.000,0.000,0.000
1641102709634884096,2022-01-02-05:51:49,10.1.1.9,182,-0.110,-0.110,-0.110,0.000,0.000,0.000
1641102709835860992,2022-01-02-05:51:49,10.1.1.9,182,-0.100,-0.100,-0.100,0.000,0.000,0.000
1641102710025007872,2022-01-02-05:51:50,10.1.1.9,170,-0.090,-0.090,-0.090,0.000,0.000,0.000
1641102710224256000,2022-01-02-05:51:50,10.1.1.9,169,-0.080,-0.080,-0.080,0.000,0.000,0.000
1641102710424555008,2022-01-02-05:51:50,10.1.1.9,169,-0.070,-0.070,-0.070,0.000,0.000,0.000
1641102710624711936,2022-01-02-05:51:50,10.1.1.9,168,-0.060,-0.060,-0.060,0.000,0.000,0.000
1641102710824389888,2022-01-02-05:51:50,10.1.1.9,167,-0.050,-0.050,-0.050,0.000,0.000,0.000
1641102711023716864,2022-01-02-05:51:51,10.1.1.9,166,-0.040,-0.040,-0.040,0.000,0.000,0.000
1641102711223238912,2022-01-02-05:51:51,10.1.1.9,166,-0.030,-0.030,-0.030,0.000,0.000,0.000
1641102711432156928,2022-01-02-05:51:51,10.1.1.9,174,-0.020,-0.020,-0.020,0.000,0.000,0.000
1641102711622749952,2022-01-02-05:51:51,10.1.1.9,164,-0.010,-0.010,-0.010,0.000,0.000,0.000
1641102711832217088,2022-01-02-05:51:51,10.1.1.9,172,0.000,0.000,0.000,0.000,0.000,0.000
1641102712021233152,2022-01-02-05:51:52,10.1.1.9,161,-0.010,-0.010,-0.010,0.000,0.000,0.000
1641102712222379008,2022-01-02-05:51:52,10.1.1.9,161,-0.020,-0.020,-0.020,0.000,0.000,0.000
1641102712441555968,2022-01-02-05:51:52,10.1.1.9,180,-0.030,-0.030,-0.030,0.000,0.000,0.000
1641102712640476928,2022-01-02-05:51:52,10.1.1.9,178,-0.040,-0.040,-0.040,0.000,0.000,0.000
1641102712851970816,2022-01-02-05:51:52,10.1.1.9,189,-0.050,-0.050,-0.050,0.000,0.000,0.000
1641102713029827072,2022-01-02-05:51:53,10.1.1.9,166,-0.060,-0.060,-0.060,0.000,0.000,0.000
1641102713240623104,2022-01-02-05:51:53,10.1.1.9,176,-0.070,-0.070,-0.070,0.000,0.000,0.000
1641102713439131904,2022-01-02-05:51:53,10.1.1.9,174,-0.080,-0.080,-0.080,0.000,0.000,0.000
1641102713629085184,2022-01-02-05:51:53,10.1.1.9,163,-0.090,-0.090,-0.090,0.000,0.000,0.000
1641102713828430848,2022-01-02-05:51:53,10.1.1.9,162,-0.100,-0.100,-0.100,0.000,0.000,0.000
1641102714038398976,2022-01-02-05:51:54,10.1.1.9,171,-0.110,-0.110,-0.110,0.000,0.000,0.000
1641102714228143872,2022-01-02-05:51:54,10.1.1.9,160,-0.120,-0.120,-0.120,0.000,0.000,0.000
1641102714427869184,2022-01-02-05:51:54,10.1.1.9,160,-0.130,-0.130,-0.130,0.000,0.000,0.000
1641102714637566208,2022-01-02-05:51:54,10.1.1.9,169,-0.140,-0.140,-0.140,0.000,0.000,0.000
1641102714838354176,2022-01-02-05:51:54,10.1.1.9,169,-0.150,-0.150,-0.150,0.000,0.000,0.000
1641102715036647936,2022-01-02-05:51:55,10.1.1.9,167,-0.160,-0.160,-0.160,0.000,0.000,0.000
1641102715236818944,2022-01-02-05:51:55,10.1.1.9,166,-0.170,-0.170,-0.170,0.000,0.000,0.000
1641102715437266944,2022-01-02-05:51:55,10.1.1.9,166,-0.180,-0.180,-0.180,0.000,0.000,0.000
1641102715635814912,2022-01-02-05:51:55,10.1.1.9,164,-0.190,-0.190,-0.190,0.000,0.000,0.000
1641102715835418112,2022-01-02-05:51:55,10.1.1.9,163,-0.200,-0.200,-0.200,0.000,0.000,0.000
1641102716036109056,2022-01-02-05:51:56,10.1.1.9,163,-0.210,-0.210,-0.210,0.000,0.000,0.000
1641102716246809088,2022-01-02-05:51:56,10.1.1.9,173,-0.220,-0.220,-0.220,0.000,0.000,0.000
1641102716437537024,2022-01-02-05:51:56,10.1.1.9,163,-0.230,-0.230,-0.230,0.000,0.000,0.000
1641102716648303872,2022-01-02-05:51:56,10.1.1.9,173,-0.240,-0.240,-0.240,0.000,0.000,0.000
1641102716839138048,2022-01-02-05:51:56,10.1.1.9,164,-0.250,-0.250,-0.250,0.000,0.000,0.000
1641102717040486144,2022-01-02-05:51:57,10.1.1.9,164,-0.260,-0.260,-0.260,0.000,0.000,0.000
1641102717241667072,2022-01-02-05:51:57,10.1.1.9,165,-0.270,-0.270,-0.270,0.000,0.000,0.000
1641102717442411008,2022-01-02-05:51:57,10.1.1.9,165,-0.280,-0.280,-0.280,0.000,0.000,0.000
1641102717653753088,2022-01-02-05:51:57,10.1.1.9,176,-0.290,-0.290,-0.290,0.000,0.000,0.000
1641102717844829952,2022-01-02-05:51:57,10.1.1.9,165,-0.300,-0.300,-0.300,0.000,0.000,0.000
1641102718045435904,2022-01-02-05:51:58,10.1.1.9,165,-0.310,-0.310,-0.310,0.000,0.000,0.000
1641102718275835136,2022-01-02-05:51:58,10.1.1.9,194,-0.320,-0.320,-0.320,0.000,0.000,0.000
1641102718466588928,2022-01-02-05:51:58,10.1.1.9,183,-0.330,-0.330,-0.330,0.000,0.000,0.000
1641102718667772160,2022-01-02-05:51:58,10.1.1.9,183,-0.340,-0.340,-0.340,0.000,0.000,0.000
1641102718868549120,2022-01-02-05:51:58,10.1.1.9,183,-0.350,-0.350,-0.350,0.000,0.000,0.000
1641102719068697856,2022-01-02-05:51:59,10.1.1.9,183,-0.360,-0.360,-0.360,0.000,0.000,0.000
1641102719259378944,2022-01-02-05:51:59,10.1.1.9,173,-0.370,-0.370,-0.370,0.000,0.000,0.000
1641102719459670016,2022-01-02-05:51:59,10.1.1.9,172,-0.380,-0.380,-0.380,0.000,0.000,0.000
1641102719671300864,2022-01-02-05:51:59,10.1.1.9,183,-0.390,-0.390,-0.390,0.000,0.000,0.000
1641102719881625856,2022-01-02-05:51:59,10.1.1.9,193,-0.400,-0.400,-0.400,0.000,0.000,0.000
1641102720071707904,2022-01-02-05:52:00,10.1.1.9,182,-0.410,-0.410,-0.410,0.000,0.000,0.000
1641102720272377088,2022-01-02-05:52:00,10.1.1.9,182,-0.420,-0.420,-0.420,0.000,0.000,0.000
1641102720472700160,2022-01-02-05:52:00,10.1.1.9,181,-0.430,-0.430,-0.430,0.000,0.000,0.000
1641102720672944896,2022-01-02-05:52:00,10.1.1.9,181,-0.440,-0.440,-0.440,0.000,0.000,0.000
1641102720883491072,2022-01-02-05:52:00,10.1.1.9,190,-0.450,-0.450,-0.450,0.000,0.000,0.000
1641102721074029824,2022-01-02-05:52:01,10.1.1.9,180,-0.460,-0.460,-0.460,0.000,0.000,0.000
1641102721274651904,2022-01-02-05:52:01,10.1.1.9,180,-0.470,-0.470,-0.470,0.000,0.000,0.000
1641102721484688896,2022-01-02-05:52:01,10.1.1.9,189,-0.480,-0.480,-0.480,0.000,0.000,0.000
1641102721674989056,2022-01-02-05:52:01,10.1.1.9,179,-0.490,-0.490,-0.490,0.000,0.000,0.000
1641102721875892992,2022-01-02-05:52:01,10.1.1.9,179,-0.480,-0.480,-0.480,0.000,0.000,0.000
1641102722076143104,2022-01-02-05:52:02,10.1.1.9,179,-0.470,-0.470,-0.470,0.000,0.000,0.000
1641102722276711936,2022-01-02-05:52:02,10.1.1.9,179,-0.460,-0.460,-0.460,0.000,0.000,0.000
1641102722476877056,2022-01-02-05:52:02,10.1.1.9,179,-0.450,-0.450,-0.450,0.000,0.000,0.000
1641102722686834944,2022-01-02-05:52:02,10.1.1.9,188,-0.440,-0.440,-0.440,0.000,0.000,0.000
1641102722879686144,2022-01-02-05:52:02,10.1.1.9,179,-0.430,-0.430,-0.430,0.000,0.000,0.000
1641102723077836032,2022-01-02-05:52:03,10.1.1.9,178,-0.420,-0.420,-0.420,0.000,0.000,0.000
1641102723277449984,2022-01-02-05:52:03,10.1.1.9,177,-0.410,-0.410,-0.410,0.000,0.000,0.000
1641102723497828096,2022-01-02-05:52:03,10.1.1.9,196,-0.400,-0.400,-0.400,0.000,0.000,0.000
1641102723698566912,2022-01-02-05:52:03,10.1.1.9,196,-0.390,-0.390,-0.390,0.000,0.000,0.000
1641102723898487040,2022-01-02-05:52:03,10.1.1.9,196,-0.380,-0.380,-0.380,0.000,0.000,0.000
1641102724088582144,2022-01-02-05:52:04,10.1.1.9,185,-0.370,-0.370,-0.370,0.000,0.000,0.000
1641102724298425856,2022-01-02-05:52:04,10.1.1.9,194,-0.360,-0.360,-0.360,0.000,0.000,0.000
1641102724498292992,2022-01-02-05:52:04,10.1.1.9,194,-0.350,-0.350,-0.350,0.000,0.000,0.000
1641102724698624000,2022-01-02-05:52:04,10.1.1.9,194,-0.340,-0.340,-0.340,0.000,0.000,0.000
1641102724899947776,2022-01-02-05:52:04,10.1.1.9,194,-0.330,-0.330,-0.330,0.000,0.000,0.000
1641102725299247872,2022-01-02-05:52:05,10.1.1.9,192,-0.310,-0.310,-0.310,0.000,0.000,0.000
1641102725499880192,2022-01-02-05:52:05,10.1.1.9,191,-0.300,-0.300,-0.300,0.000,0.000,0.000
1641102725698888960,2022-01-02-05:52:05,10.1.1.9,190,-0.290,-0.290,-0.290,0.000,0.000,0.000
1641102725899403008,2022-01-02-05:52:05,10.1.1.9,190,-0.280,-0.280,-0.280,0.000,0.000,0.000
1641102726109619968,2022-01-02-05:52:06,10.1.1.9,198,-0.270,-0.270,-0.270,0.000,0.000,0.000
1641102726299815936,2022-01-02-05:52:06,10.1.1.9,188,-0.260,-0.260,-0.260,0.000,0.000,0.000
1641102726509212928,2022-01-02-05:52:06,10.1.1.9,196,-0.250,-0.250,-0.250,0.000,0.000,0.000
1641102726699950848,2022-01-02-05:52:06,10.1.1.9,187,-0.240,-0.240,-0.240,0.000,0.000,0.000
1641102726909614080,2022-01-02-05:52:06,10.1.1.9,195,-0.230,-0.230,-0.230,0.000,0.000,0.000
1641102727100363008,2022-01-02-05:52:07,10.1.1.9,185,-0.220,-0.220,-0.220,0.000,0.000,0.000
1641102727299768064,2022-01-02-05:52:07,10.1.1.9,184,-0.210,-0.210,-0.210,0.000,0.000,0.000
1641102727510129920,2022-01-02-05:52:07,10.1.1.9,193,-0.200,-0.200,-0.200,0.000,0.000,0.000
1641102727699433216,2022-01-02-05:52:07,10.1.1.9,182,-0.190,-0.190,-0.190,0.000,0.000,0.000
1641102727909404160,2022-01-02-05:52:07,10.1.1.9,191,-0.180,-0.180,-0.180,0.000,0.000,0.000
1641102728099271936,2022-01-02-05:52:08,10.1.1.9,179,-0.170,-0.170,-0.170,0.000,0.000,0.000
1641102728309197056,2022-01-02-05:52:08,10.1.1.9,189,-0.160,-0.160,-0.160,0.000,0.000,0.000
1641102728509406208,2022-01-02-05:52:08,10.1.1.9,188,-0.150,-0.150,-0.150,0.000,0.000,0.000
1641102728709336064,2022-01-02-05:52:08,10.1.1.9,188,-0.140,-0.140,-0.140,0.000,0.000,0.000
1641102728909022208,2022-01-02-05:52:08,10.1.1.9,187,-0.130,-0.130,-0.130,0.000,0.000,0.000
1641102729119257856,2022-01-02-05:52:09,10.1.1.9,197,-0.120,-0.120,-0.120,0.000,0.000,0.000
1641102729519047936,2022-01-02-05:52:09,10.1.1.9,195,-0.100,-0.100,-0.100,0.000,0.000,0.000
1641102729708908032,2022-01-02-05:52:09,10.1.1.9,184,-0.090,-0.090,-0.090,0.000,0.000,0.000
1641102729924190976,2022-01-02-05:52:09,10.1.1.9,199,-0.080,-0.080,-0.080,0.000,0.000,0.000
1641102730109185024,2022-01-02-05:52:10,10.1.1.9,183,-0.070,-0.070,-0.070,0.000,0.000,0.000
1641102730318870016,2022-01-02-05:52:10,10.1.1.9,192,-0.060,-0.060,-0.060,0.000,0.000,0.000
1641102730918767872,2022-01-02-05:52:10,10.1.1.9,190,-0.030,-0.030,-0.030,0.000,0.000,0.000
1641102731128050944,2022-01-02-05:52:11,10.1.1.9,199,-0.020,-0.020,-0.020,0.000,0.000,0.000
1641102731317948160,2022-01-02-05:52:11,10.1.1.9,189,-0.010,-0.010,-0.010,0.000,0.000,0.000
1641102731527756032,2022-01-02-05:52:11,10.1.1.9,198,0.000,0.000,0.000,0.000,0.000,0.000
1641102731727516928,2022-01-02-05:52:11,10.1.1.9,197,-0.010,-0.010,-0.010,0.000,0.000,0.000
1641102731918194944,2022-01-02-05:52:11,10.1.1.9,188,-0.020,-0.020,-0.020,0.000,0.000,0.000
1641102732117701120,2022-01-02-05:52:12,10.1.1.9,187,-0.030,-0.030,-0.030,0.000,0.000,0.000
1641102732318830848,2022-01-02-05:52:12,10.1.1.9,187,-0.040,-0.040,-0.040,0.000,0.000,0.000
1641102732517901824,2022-01-02-05:52:12,10.1.1.9,185,-0.050,-0.050,-0.050,0.000,0.000,0.000
1641102732716572928,2022-01-02-05:52:12,10.1.1.9,183,-0.060,-0.060,-0.060,0.000,0.000,0.000
1641102732916616960,2022-01-02-05:52:12,10.1.1.9,182,-0.070,-0.070,-0.070,0.000,0.000,0.000
1641102733116219136,2022-01-02-05:52:13,10.1.1.9,181,-0.080,-0.080,-0.080,0.000,0.000,0.000
1641102733317118976,2022-01-02-05:52:13,10.1.1.9,181,-0.090,-0.090,-0.090,0.000,0.000,0.000
1641102733515993088,2022-01-02-05:52:13,10.1.1.9,179,-0.100,-0.100,-0.100,0.000,0.000,0.000
1641102733715881216,2022-01-02-05:52:13,10.1.1.9,179,-0.110,-0.110,-0.110,0.000,0.000,0.000
1641102733915568128,2022-01-02-05:52:13,10.1.1.9,177,-0.120,-0.120,-0.120,0.000,0.000,0.000
1641102734115746048,2022-01-02-05:52:14,10.1.1.9,177,-0.130,-0.130,-0.130,0.000,0.000,0.000
1641102734314904832,2022-01-02-05:52:14,10.1.1.9,176,-0.140,-0.140,-0.140,0.000,0.000,0.000
1641102734514872064,2022-01-02-05:52:14,10.1.1.9,175,-0.150,-0.150,-0.150,0.000,0.000,0.000
1641102734714471936,2022-01-02-05:52:14,10.1.1.9,174,-0.160,-0.160,-0.160,0.000,0.000,0.000
1641102734913899008,2022-01-02-05:52:14,10.1.1.9,173,-0.170,-0.170,-0.170,0.000,0.000,0.000
1641102735133922048,2022-01-02-05:52:15,10.1.1.9,192,-0.180,-0.180,-0.180,0.000,0.000,0.000
1641102735324031232,2022-01-02-05:52:15,10.1.1.9,182,-0.190,-0.190,-0.190,0.000,0.000,0.000
1641102735534320128,2022-01-02-05:52:15,10.1.1.9,192,-0.200,-0.200,-0.200,0.000,0.000,0.000
1641102735733534976,2022-01-02-05:52:15,10.1.1.9,190,-0.210,-0.210,-0.210,0.000,0.000,0.000
1641102735932838912,2022-01-02-05:52:15,10.1.1.9,189,-0.220,-0.220,-0.220,0.000,0.000,0.000
1641102736134107136,2022-01-02-05:52:16,10.1.1.9,190,-0.230,-0.230,-0.230,0.000,0.000,0.000
1641102736343938048,2022-01-02-05:52:16,10.1.1.9,199,-0.240,-0.240,-0.240,0.000,0.000,0.000
1641102736522803968,2022-01-02-05:52:16,10.1.1.9,177,-0.250,-0.250,-0.250,0.000,0.000,0.000
1641102736733346048,2022-01-02-05:52:16,10.1.1.9,186,-0.260,-0.260,-0.260,0.000,0.000,0.000
1641102736932278016,2022-01-02-05:52:16,10.1.1.9,184,-0.270,-0.270,-0.270,0.000,0.000,0.000
1641102737132546048,2022-01-02-05:52:17,10.1.1.9,184,-0.280,-0.280,-0.280,0.000,0.000,0.000
1641102737331907072,2022-01-02-05:52:17,10.1.1.9,182,-0.290,-0.290,-0.290,0.000,0.000,0.000
1641102737532596992,2022-01-02-05:52:17,10.1.1.9,180,-0.300,-0.300,-0.300,0.000,0.000,0.000
1641102737733475072,2022-01-02-05:52:17,10.1.1.9,180,-0.310,-0.310,-0.310,0.000,0.000,0.000
1641102737932313856,2022-01-02-05:52:17,10.1.1.9,178,-0.320,-0.320,-0.320,0.000,0.000,0.000
1641102738131108096,2022-01-02-05:52:18,10.1.1.9,176,-0.330,-0.330,-0.330,0.000,0.000,0.000
1641102738330306048,2022-01-02-05:52:18,10.1.1.9,174,-0.340,-0.340,-0.340,0.000,0.000,0.000
1641102738532226048,2022-01-02-05:52:18,10.1.1.9,174,-0.350,-0.350,-0.350,0.000,0.000,0.000
1641102738730135808,2022-01-02-05:52:18,10.1.1.9,173,-0.360,-0.360,-0.360,0.000,0.000,0.000
1641102738929821952,2022-01-02-05:52:18,10.1.1.9,172,-0.370,-0.370,-0.370,0.000,0.000,0.000
1641102739129880064,2022-01-02-05:52:19,10.1.1.9,171,-0.380,-0.380,-0.380,0.000,0.000,0.000
1641102739332976128,2022-01-02-05:52:19,10.1.1.9,174,-0.390,-0.390,-0.390,0.000,0.000,0.000
1641102739548696064,2022-01-02-05:52:19,10.1.1.9,187,-0.400,-0.400,-0.400,0.000,0.000,0.000
1641102739738179840,2022-01-02-05:52:19,10.1.1.9,176,-0.410,-0.410,-0.410,0.000,0.000,0.000
1641102739937865984,2022-01-02-05:52:19,10.1.1.9,175,-0.420,-0.420,-0.420,0.000,0.000,0.000
1641102740148871936,2022-01-02-05:52:20,10.1.1.9,185,-0.430,-0.430,-0.430,0.000,0.000,0.000
1641102740348025088,2022-01-02-05:52:20,10.1.1.9,184,-0.440,-0.440,-0.440,0.000,0.000,0.000
1641102740547115008,2022-01-02-05:52:20,10.1.1.9,182,-0.450,-0.450,-0.450,0.000,0.000,0.000
1641102740748454144,2022-01-02-05:52:20,10.1.1.9,182,-0.460,-0.460,-0.460,0.000,0.000,0.000
1641102740956883968,2022-01-02-05:52:20,10.1.1.9,190,-0.470,-0.470,-0.470,0.000,0.000,0.000
1641102741146532096,2022-01-02-05:52:21,10.1.1.9,179,-0.480,-0.480,-0.480,0.000,0.000,0.000
1641102741356699904,2022-01-02-05:52:21,10.1.1.9,188,-0.490,-0.490,-0.490,0.000,0.000,0.000
1641102741545145088,2022-01-02-05:52:21,10.1.1.9,176,-0.480,-0.480,-0.480,0.000,0.000,0.000
1641102741749542912,2022-01-02-05:52:21,10.1.1.9,180,-0.470,-0.470,-0.470,0.000,0.000,0.000
1641102741944845824,2022-01-02-05:52:21,10.1.1.9,175,-0.460,-0.460,-0.460,0.000,0.000,0.000
1641102742144766976,2022-01-02-05:52:22,10.1.1.9,175,-0.450,-0.450,-0.450,0.000,0.000,0.000
1641102742344412928,2022-01-02-05:52:22,10.1.1.9,173,-0.440,-0.440,-0.440,0.000,0.000,0.000
1641102742546361088,2022-01-02-05:52:22,10.1.1.9,175,-0.430,-0.430,-0.430,0.000,0.000,0.000
1641102742743592960,2022-01-02-05:52:22,10.1.1.9,171,-0.420,-0.420,-0.420,0.000,0.000,0.000
1641102742944125952,2022-01-02-05:52:22,10.1.1.9,170,-0.410,-0.410,-0.410,0.000,0.000,0.000
1641102743143627008,2022-01-02-05:52:23,10.1.1.9,168,-0.400,-0.400,-0.400,0.000,0.000,0.000
1641102743354486016,2022-01-02-05:52:23,10.1.1.9,178,-0.390,-0.390,-0.390,0.000,0.000,0.000
1641102743544794112,2022-01-02-05:52:23,10.1.1.9,168,-0.380,-0.380,-0.380,0.000,0.000,0.000
1641102743743133184,2022-01-02-05:52:23,10.1.1.9,166,-0.370,-0.370,-0.370,0.000,0.000,0.000
1641102743942697984,2022-01-02-05:52:23,10.1.1.9,164,-0.360,-0.360,-0.360,0.000,0.000,0.000
1641102744152188160,2022-01-02-05:52:24,10.1.1.9,172,-0.350,-0.350,-0.350,0.000,0.000,0.000
1641102744371319040,2022-01-02-05:52:24,10.1.1.9,187,-0.340,-0.340,-0.340,0.000,0.000,0.000
1641102744562077952,2022-01-02-05:52:24,10.1.1.9,177,-0.330,-0.330,-0.330,0.000,0.000,0.000
1641102744761657856,2022-01-02-05:52:24,10.1.1.9,176,-0.320,-0.320,-0.320,0.000,0.000,0.000
1641102744960841984,2022-01-02-05:52:24,10.1.1.9,174,-0.310,-0.310,-0.310,0.000,0.000,0.000
1641102745162798848,2022-01-02-05:52:25,10.1.1.9,174,-0.300,-0.300,-0.300,0.000,0.000,0.000
1641102745369889024,2022-01-02-05:52:25,10.1.1.9,181,-0.290,-0.290,-0.290,0.000,0.000,0.000
1641102745560105984,2022-01-02-05:52:25,10.1.1.9,170,-0.280,-0.280,-0.280,0.000,0.000,0.000
1641102745749630976,2022-01-02-05:52:25,10.1.1.9,159,-0.270,-0.270,-0.270,0.000,0.000,0.000
1641102745961495040,2022-01-02-05:52:25,10.1.1.9,170,-0.260,-0.260,-0.260,0.000,0.000,0.000
1641102746158305792,2022-01-02-05:52:26,10.1.1.9,166,-0.250,-0.250,-0.250,0.000,0.000,0.000
1641102746358181888,2022-01-02-05:52:26,10.1.1.9,165,-0.240,-0.240,-0.240,0.000,0.000,0.000
1641102746557758976,2022-01-02-05:52:26,10.1.1.9,163,-0.230,-0.230,-0.230,0.000,0.000,0.000
1641102746757646080,2022-01-02-05:52:26,10.1.1.9,162,-0.220,-0.220,-0.220,0.000,0.000,0.000
1641102746957662976,2022-01-02-05:52:26,10.1.1.9,161,-0.210,-0.210,-0.210,0.000,0.000,0.000
1641102747156678912,2022-01-02-05:52:27,10.1.1.9,159,-0.200,-0.200,-0.200,0.000,0.000,0.000
1641102747356617984,2022-01-02-05:52:27,10.1.1.9,158,-0.190,-0.190,-0.190,0.000,0.000,0.000
1641102747556592896,2022-01-02-05:52:27,10.1.1.9,157,-0.180,-0.180,-0.180,0.000,0.000,0.000
1641102747765763072,2022-01-02-05:52:27,10.1.1.9,166,-0.170,-0.170,-0.170,0.000,0.000,0.000
1641102747955815936,2022-01-02-05:52:27,10.1.1.9,155,-0.160,-0.160,-0.160,0.000,0.000,0.000
1641102748177198848,2022-01-02-05:52:28,10.1.1.9,176,-0.150,-0.150,-0.150,0.000,0.000,0.000
1641102748378712064,2022-01-02-05:52:28,10.1.1.9,175,-0.140,-0.140,-0.140,0.000,0.000,0.000
1641102748579638016,2022-01-02-05:52:28,10.1.1.9,174,-0.130,-0.130,-0.130,0.000,0.000,0.000
1641102748779624960,2022-01-02-05:52:28,10.1.1.9,170,-0.120,-0.120,-0.120,0.000,0.000,0.000
1641102748980817152,2022-01-02-05:52:28,10.1.1.9,171,-0.110,-0.110,-0.110,0.000,0.000,0.000
1641102749191698944,2022-01-02-05:52:29,10.1.1.9,180,-0.100,-0.100,-0.100,0.000,0.000,0.000
1641102749212534784,2022-01-02-05:52:29,10.1.1.9,-1,-0.100,-0.100,-0.100,0.000,0.000,0.000
1641102749584872960,2022-01-02-05:52:29,10.1.1.9,171,-0.080,-0.080,-0.080,0.000,0.000,0.000
1641102749784343040,2022-01-02-05:52:29,10.1.1.9,171,-0.070,-0.070,-0.070,0.000,0.000,0.000
1641102749986076160,2022-01-02-05:52:29,10.1.1.9,172,-0.060,-0.060,-0.060,0.000,0.000,0.000
1641102750186307840,2022-01-02-05:52:30,10.1.1.9,170,-0.050,-0.050,-0.050,0.000,0.000,0.000
1641102750386533120,2022-01-02-05:52:30,10.1.1.9,169,-0.040,-0.040,-0.040,0.000,0.000,0.000
1641102750587534848,2022-01-02-05:52:30,10.1.1.9,169,-0.030,-0.030,-0.030,0.000,0.000,0.000
1641102750788600064,2022-01-02-05:52:30,10.1.1.9,170,-0.020,-0.020,-0.020,0.000,0.000,0.000
1641102750998827008,2022-01-02-05:52:30,10.1.1.9,179,-0.010,-0.010,-0.010,0.000,0.000,0.000
1641102751189452800,2022-01-02-05:52:31,10.1.1.9,169,-0.000,-0.000,-0.000,0.000,0.000,0.000
1641102751391132160,2022-01-02-05:52:31,10.1.1.9,170,-0.010,-0.010,-0.010,0.000,0.000,0.000
1641102751611249920,2022-01-02-05:52:31,10.1.1.9,189,-0.020,-0.020,-0.020,0.000,0.000,0.000
1641102751801444096,2022-01-02-05:52:31,10.1.1.9,179,-0.030,-0.030,-0.030,0.000,0.000,0.000
1641102752215706112,2022-01-02-05:52:32,10.1.1.9,192,-0.050,-0.050,-0.050,0.000,0.000,0.000
1641102752413254912,2022-01-02-05:52:32,10.1.1.9,188,-0.060,-0.060,-0.060,0.000,0.000,0.000
1641102752613997824,2022-01-02-05:52:32,10.1.1.9,188,-0.070,-0.070,-0.070,0.000,0.000,0.000
1641102752814905856,2022-01-02-05:52:32,10.1.1.9,189,-0.080,-0.080,-0.080,0.000,0.000,0.000
1641102753014491136,2022-01-02-05:52:33,10.1.1.9,188,-0.090,-0.090,-0.090,0.000,0.000,0.000
1641102753225377024,2022-01-02-05:52:33,10.1.1.9,198,-0.100,-0.100,-0.100,0.000,0.000,0.000
1641102753405014016,2022-01-02-05:52:33,10.1.1.9,177,-0.110,-0.110,-0.110,0.000,0.000,0.000
1641102753625420032,2022-01-02-05:52:33,10.1.1.9,197,-0.120,-0.120,-0.120,0.000,0.000,0.000
1641102753805999872,2022-01-02-05:52:33,10.1.1.9,175,-0.130,-0.130,-0.130,0.000,0.000,0.000
1641102754017350912,2022-01-02-05:52:34,10.1.1.9,186,-0.140,-0.140,-0.140,0.000,0.000,0.000
1641102754216873984,2022-01-02-05:52:34,10.1.1.9,185,-0.150,-0.150,-0.150,0.000,0.000,0.000
1641102754417059840,2022-01-02-05:52:34,10.1.1.9,184,-0.160,-0.160,-0.160,0.000,0.000,0.000
1641102754617414912,2022-01-02-05:52:34,10.1.1.9,184,-0.170,-0.170,-0.170,0.000,0.000,0.000
1641102754818046208,2022-01-02-05:52:34,10.1.1.9,183,-0.180,-0.180,-0.180,0.000,0.000,0.000
1641102755018577152,2022-01-02-05:52:35,10.1.1.9,183,-0.190,-0.190,-0.190,0.000,0.000,0.000
1641102755218363904,2022-01-02-05:52:35,10.1.1.9,180,-0.200,-0.200,-0.200,0.000,0.000,0.000
1641102755422910976,2022-01-02-05:52:35,10.1.1.9,183,-0.210,-0.210,-0.210,0.000,0.000,0.000
1641102755618809856,2022-01-02-05:52:35,10.1.1.9,178,-0.220,-0.220,-0.220,0.000,0.000,0.000
1641102755838404864,2022-01-02-05:52:35,10.1.1.9,197,-0.230,-0.230,-0.230,0.000,0.000,0.000
1641102756029140992,2022-01-02-05:52:36,10.1.1.9,187,-0.240,-0.240,-0.240,0.000,0.000,0.000
1641102756238804992,2022-01-02-05:52:36,10.1.1.9,196,-0.250,-0.250,-0.250,0.000,0.000,0.000
1641102756439596032,2022-01-02-05:52:36,10.1.1.9,196,-0.260,-0.260,-0.260,0.000,0.000,0.000
1641102756830054912,2022-01-02-05:52:36,10.1.1.9,182,-0.280,-0.280,-0.280,0.000,0.000,0.000
1641102757230473984,2022-01-02-05:52:37,10.1.1.9,180,-0.300,-0.300,-0.300,0.000,0.000,0.000
1641102757441672192,2022-01-02-05:52:37,10.1.1.9,190,-0.310,-0.310,-0.310,0.000,0.000,0.000
1641102757640424960,2022-01-02-05:52:37,10.1.1.9,188,-0.320,-0.320,-0.320,0.000,0.000,0.000
1641102757841370112,2022-01-02-05:52:37,10.1.1.9,188,-0.330,-0.330,-0.330,0.000,0.000,0.000
1641102758042131968,2022-01-02-05:52:38,10.1.1.9,188,-0.340,-0.340,-0.340,0.000,0.000,0.000
1641102758240377856,2022-01-02-05:52:38,10.1.1.9,185,-0.350,-0.350,-0.350,0.000,0.000,0.000
1641102758441592064,2022-01-02-05:52:38,10.1.1.9,184,-0.360,-0.360,-0.360,0.000,0.000,0.000
1641102758650458112,2022-01-02-05:52:38,10.1.1.9,190,-0.370,-0.370,-0.370,0.000,0.000,0.000
1641102759061096960,2022-01-02-05:52:39,10.1.1.9,199,-0.390,-0.390,-0.390,0.000,0.000,0.000
1641102759261411072,2022-01-02-05:52:39,10.1.1.9,197,-0.400,-0.400,-0.400,0.000,0.000,0.000
1641102759661145856,2022-01-02-05:52:39,10.1.1.9,192,-0.420,-0.420,-0.420,0.000,0.000,0.000
1641102759860945920,2022-01-02-05:52:39,10.1.1.9,191,-0.430,-0.430,-0.430,0.000,0.000,0.000
1641102760050317056,2022-01-02-05:52:40,10.1.1.9,179,-0.440,-0.440,-0.440,0.000,0.000,0.000
1641102760272204032,2022-01-02-05:52:40,10.1.1.9,200,-0.450,-0.450,-0.450,0.000,0.000,0.000
1641102760460450048,2022-01-02-05:52:40,10.1.1.9,187,-0.460,-0.460,-0.460,0.000,0.000,0.000
1641102760660551168,2022-01-02-05:52:40,10.1.1.9,187,-0.470,-0.470,-0.470,0.000,0.000,0.000
1641102760859989760,2022-01-02-05:52:40,10.1.1.9,185,-0.480,-0.480,-0.480,0.000,0.000,0.000
1641102761060606976,2022-01-02-05:52:41,10.1.1.9,185,-0.490,-0.490,-0.490,0.000,0.000,0.000
1641102761260262912,2022-01-02-05:52:41,10.1.1.9,183,-0.480,-0.480,-0.480,0.000,0.000,0.000
1641102761480506880,2022-01-02-05:52:41,10.1.1.9,198,-0.470,-0.470,-0.470,0.000,0.000,0.000
1641102761681225984,2022-01-02-05:52:41,10.1.1.9,198,-0.460,-0.460,-0.460,0.000,0.000,0.000
1641102761879810048,2022-01-02-05:52:41,10.1.1.9,194,-0.450,-0.450,-0.450,0.000,0.000,0.000
1641102762079715072,2022-01-02-05:52:42,10.1.1.9,193,-0.440,-0.440,-0.440,0.000,0.000,0.000
1641102762279928064,2022-01-02-05:52:42,10.1.1.9,193,-0.430,-0.430,-0.430,0.000,0.000,0.000
1641102762479227904,2022-01-02-05:52:42,10.1.1.9,192,-0.420,-0.420,-0.420,0.000,0.000,0.000
1641102762679011072,2022-01-02-05:52:42,10.1.1.9,191,-0.410,-0.410,-0.410,0.000,0.000,0.000
1641102762879237888,2022-01-02-05:52:42,10.1.1.9,190,-0.400,-0.400,-0.400,0.000,0.000,0.000
1641102763090904832,2022-01-02-05:52:43,10.1.1.9,200,-0.390,-0.390,-0.390,0.000,0.000,0.000
1641102763286503168,2022-01-02-05:52:43,10.1.1.9,194,-0.380,-0.380,-0.380,0.000,0.000,0.000
1641102763499687936,2022-01-02-05:52:43,10.1.1.9,190,-0.370,-0.370,-0.370,0.000,0.000,0.000
1641102763700352000,2022-01-02-05:52:43,10.1.1.9,190,-0.360,-0.360,-0.360,0.000,0.000,0.000
1641102763888199168,2022-01-02-05:52:43,10.1.1.9,177,-0.350,-0.350,-0.350,0.000,0.000,0.000
1641102764098092032,2022-01-02-05:52:44,10.1.1.9,186,-0.340,-0.340,-0.340,0.000,0.000,0.000
1641102764298126848,2022-01-02-05:52:44,10.1.1.9,184,-0.330,-0.330,-0.330,0.000,0.000,0.000
1641102764500668160,2022-01-02-05:52:44,10.1.1.9,182,-0.320,-0.320,-0.320,0.000,0.000,0.000
1641102764698391808,2022-01-02-05:52:44,10.1.1.9,177,-0.310,-0.310,-0.310,0.000,0.000,0.000
1641102765119500032,2022-01-02-05:52:45,10.1.1.9,193,-0.290,-0.290,-0.290,0.000,0.000,0.000
1641102765506968064,2022-01-02-05:52:45,10.1.1.9,180,-0.270,-0.270,-0.270,0.000,0.000,0.000
1641102765727305984,2022-01-02-05:52:45,10.1.1.9,199,-0.260,-0.260,-0.260,0.000,0.000,0.000
1641102765918942976,2022-01-02-05:52:45,10.1.1.9,190,-0.250,-0.250,-0.250,0.000,0.000,0.000
1641102766117129984,2022-01-02-05:52:46,10.1.1.9,187,-0.240,-0.240,-0.240,0.000,0.000,0.000
1641102766317126912,2022-01-02-05:52:46,10.1.1.9,186,-0.230,-0.230,-0.230,0.000,0.000,0.000
1641102766518138880,2022-01-02-05:52:46,10.1.1.9,186,-0.220,-0.220,-0.220,0.000,0.000,0.000
1641102766716424960,2022-01-02-05:52:46,10.1.1.9,183,-0.210,-0.210,-0.210,0.000,0.000,0.000
1641102766916512000,2022-01-02-05:52:46,10.1.1.9,182,-0.200,-0.200,-0.200,0.000,0.000,0.000
1641102767125345024,2022-01-02-05:52:47,10.1.1.9,190,-0.190,-0.190,-0.190,0.000,0.000,0.000
1641102767315579904,2022-01-02-05:52:47,10.1.1.9,179,-0.180,-0.180,-0.180,0.000,0.000,0.000
1641102767517537024,2022-01-02-05:52:47,10.1.1.9,180,-0.170,-0.170,-0.170,0.000,0.000,0.000
1641102767724216064,2022-01-02-05:52:47,10.1.1.9,187,-0.160,-0.160,-0.160,0.000,0.000,0.000
1641102767914292224,2022-01-02-05:52:47,10.1.1.9,176,-0.150,-0.150,-0.150,0.000,0.000,0.000
1641102768116105984,2022-01-02-05:52:48,10.1.1.9,177,-0.140,-0.140,-0.140,0.000,0.000,0.000
1641102768316504832,2022-01-02-05:52:48,10.1.1.9,177,-0.130,-0.130,-0.130,0.000,0.000,0.000
1641102768513367040,2022-01-02-05:52:48,10.1.1.9,172,-0.120,-0.120,-0.120,0.000,0.000,0.000
1641102768715367936,2022-01-02-05:52:48,10.1.1.9,173,-0.110,-0.110,-0.110,0.000,0.000,0.000
1641102768932624128,2022-01-02-05:52:48,10.1.1.9,190,-0.100,-0.100,-0.100,0.000,0.000,0.000
1641102769133723904,2022-01-02-05:52:49,10.1.1.9,190,-0.090,-0.090,-0.090,0.000,0.000,0.000
1641102769335045120,2022-01-02-05:52:49,10.1.1.9,191,-0.080,-0.080,-0.080,0.000,0.000,0.000
1641102769532969984,2022-01-02-05:52:49,10.1.1.9,188,-0.070,-0.070,-0.070,0.000,0.000,0.000
1641102769733211904,2022-01-02-05:52:49,10.1.1.9,188,-0.060,-0.060,-0.060,0.000,0.000,0.000
1641102769941440000,2022-01-02-05:52:49,10.1.1.9,195,-0.050,-0.050,-0.050,0.000,0.000,0.000
1641102770141498112,2022-01-02-05:52:50,10.1.1.9,195,-0.040,-0.040,-0.040,0.000,0.000,0.000
1641102770341170944,2022-01-02-05:52:50,10.1.1.9,193,-0.030,-0.030,-0.030,0.000,0.000,0.000
1641102770530981120,2022-01-02-05:52:50,10.1.1.9,182,-0.020,-0.020,-0.020,0.000,0.000,0.000
1641102770730861824,2022-01-02-05:52:50,10.1.1.9,180,-0.010,-0.010,-0.010,0.000,0.000,0.000
1641102770932012032,2022-01-02-05:52:50,10.1.1.9,181,0.000,0.000,0.000,0.000,0.000,0.000
1641102771130140160,2022-01-02-05:52:51,10.1.1.9,178,-0.010,-0.010,-0.010,0.000,0.000,0.000
1641102771330804992,2022-01-02-05:52:51,10.1.1.9,178,-0.020,-0.020,-0.020,0.000,0.000,0.000
1641102771539597056,2022-01-02-05:52:51,10.1.1.9,187,-0.030,-0.030,-0.030,0.000,0.000,0.000
1641102771729832960,2022-01-02-05:52:51,10.1.1.9,176,-0.040,-0.040,-0.040,0.000,0.000,0.000
1641102771928807936,2022-01-02-05:52:51,10.1.1.9,174,-0.050,-0.050,-0.050,0.000,0.000,0.000
1641102772130248960,2022-01-02-05:52:52,10.1.1.9,174,-0.060,-0.060,-0.060,0.000,0.000,0.000
1641102772328231168,2022-01-02-05:52:52,10.1.1.9,172,-0.070,-0.070,-0.070,0.000,0.000,0.000
1641102772528402176,2022-01-02-05:52:52,10.1.1.9,171,-0.080,-0.080,-0.080,0.000,0.000,0.000
1641102772728751872,2022-01-02-05:52:52,10.1.1.9,170,-0.090,-0.090,-0.090,0.000,0.000,0.000
1641102772927052032,2022-01-02-05:52:52,10.1.1.9,167,-0.100,-0.100,-0.100,0.000,0.000,0.000
1641102773131366912,2022-01-02-05:52:53,10.1.1.9,171,-0.110,-0.110,-0.110,0.000,0.000,0.000
1641102773330576896,2022-01-02-05:52:53,10.1.1.9,170,-0.120,-0.120,-0.120,0.000,0.000,0.000
1641102773528739072,2022-01-02-05:52:53,10.1.1.9,167,-0.130,-0.130,-0.130,0.000,0.000,0.000
1641102773752468992,2022-01-02-05:52:53,10.1.1.9,190,-0.140,-0.140,-0.140,0.000,0.000,0.000
1641102773946257152,2022-01-02-05:52:53,10.1.1.9,182,-0.150,-0.150,-0.150,0.000,0.000,0.000
1641102774148435200,2022-01-02-05:52:54,10.1.1.9,182,-0.160,-0.160,-0.160,0.000,0.000,0.000
1641102774335315968,2022-01-02-05:52:54,10.1.1.9,168,-0.170,-0.170,-0.170,0.000,0.000,0.000
1641102774536363008,2022-01-02-05:52:54,10.1.1.9,168,-0.180,-0.180,-0.180,0.000,0.000,0.000
1641102774734877184,2022-01-02-05:52:54,10.1.1.9,165,-0.190,-0.190,-0.190,0.000,0.000,0.000
1641102774954629888,2022-01-02-05:52:54,10.1.1.9,184,-0.200,-0.200,-0.200,0.000,0.000,0.000
1641102775143660032,2022-01-02-05:52:55,10.1.1.9,171,-0.210,-0.210,-0.210,0.000,0.000,0.000
1641102775353625088,2022-01-02-05:52:55,10.1.1.9,180,-0.220,-0.220,-0.220,0.000,0.000,0.000
1641102775544007168,2022-01-02-05:52:55,10.1.1.9,170,-0.230,-0.230,-0.230,0.000,0.000,0.000
1641102775743809024,2022-01-02-05:52:55,10.1.1.9,169,-0.240,-0.240,-0.240,0.000,0.000,0.000
1641102775942953984,2022-01-02-05:52:55,10.1.1.9,168,-0.250,-0.250,-0.250,0.000,0.000,0.000
1641102776142784000,2022-01-02-05:52:56,10.1.1.9,167,-0.260,-0.260,-0.260,0.000,0.000,0.000
1641102776342437120,2022-01-02-05:52:56,10.1.1.9,166,-0.270,-0.270,-0.270,0.000,0.000,0.000
1641102776542294016,2022-01-02-05:52:56,10.1.1.9,165,-0.280,-0.280,-0.280,0.000,0.000,0.000
1641102776744024064,2022-01-02-05:52:56,10.1.1.9,166,-0.290,-0.290,-0.290,0.000,0.000,0.000
1641102776942244096,2022-01-02-05:52:56,10.1.1.9,164,-0.300,-0.300,-0.300,0.000,0.000,0.000
1641102777141139968,2022-01-02-05:52:57,10.1.1.9,162,-0.310,-0.310,-0.310,0.000,0.000,0.000
1641102777341011968,2022-01-02-05:52:57,10.1.1.9,160,-0.320,-0.320,-0.320,0.000,0.000,0.000
1641102777561060864,2022-01-02-05:52:57,10.1.1.9,180,-0.330,-0.330,-0.330,0.000,0.000,0.000
1641102777761004800,2022-01-02-05:52:57,10.1.1.9,179,-0.340,-0.340,-0.340,0.000,0.000,0.000
1641102777949788928,2022-01-02-05:52:57,10.1.1.9,167,-0.350,-0.350,-0.350,0.000,0.000,0.000
1641102778160669184,2022-01-02-05:52:58,10.1.1.9,177,-0.360,-0.360,-0.360,0.000,0.000,0.000
1641102778349056000,2022-01-02-05:52:58,10.1.1.9,165,-0.370,-0.370,-0.370,0.000,0.000,0.000
1641102778559650816,2022-01-02-05:52:58,10.1.1.9,174,-0.380,-0.380,-0.380,0.000,0.000,0.000
1641102778748423168,2022-01-02-05:52:58,10.1.1.9,162,-0.390,-0.390,-0.390,0.000,0.000,0.000
1641102778948738048,2022-01-02-05:52:58,10.1.1.9,162,-0.400,-0.400,-0.400,0.000,0.000,0.000
1641102779148216064,2022-01-02-05:52:59,10.1.1.9,161,-0.410,-0.410,-0.410,0.000,0.000,0.000
1641102779359119872,2022-01-02-05:52:59,10.1.1.9,171,-0.420,-0.420,-0.420,0.000,0.000,0.000
1641102779557809152,2022-01-02-05:52:59,10.1.1.9,169,-0.430,-0.430,-0.430,0.000,0.000,0.000
1641102779766486784,2022-01-02-05:52:59,10.1.1.9,177,-0.440,-0.440,-0.440,0.000,0.000,0.000
1641102779947593984,2022-01-02-05:52:59,10.1.1.9,157,-0.450,-0.450,-0.450,0.000,0.000,0.000
1641102780167457024,2022-01-02-05:53:00,10.1.1.9,176,-0.460,-0.460,-0.460,0.000,0.000,0.000
1641102780358525952,2022-01-02-05:53:00,10.1.1.9,167,-0.470,-0.470,-0.470,0.000,0.000,0.000
1641102780560960000,2022-01-02-05:53:00,10.1.1.9,169,-0.480,-0.480,-0.480,0.000,0.000,0.000
1641102780762141952,2022-01-02-05:53:00,10.1.1.9,169,-0.490,-0.490,-0.490,0.000,0.000,0.000
1641102780971878144,2022-01-02-05:53:00,10.1.1.9,178,-0.480,-0.480,-0.480,0.000,0.000,0.000
1641102781173053952,2022-01-02-05:53:01,10.1.1.9,179,-0.470,-0.470,-0.470,0.000,0.000,0.000
1641102781363907072,2022-01-02-05:53:01,10.1.1.9,169,-0.460,-0.460,-0.460,0.000,0.000,0.000
1641102781566494976,2022-01-02-05:53:01,10.1.1.9,171,-0.450,-0.450,-0.450,0.000,0.000,0.000
1641102781766427136,2022-01-02-05:53:01,10.1.1.9,170,-0.440,-0.440,-0.440,0.000,0.000,0.000
1641102781965874944,2022-01-02-05:53:01,10.1.1.9,169,-0.430,-0.430,-0.430,0.000,0.000,0.000
1641102782180301056,2022-01-02-05:53:02,10.1.1.9,182,-0.420,-0.420,-0.420,0.000,0.000,0.000
1641102782368465920,2022-01-02-05:53:02,10.1.1.9,170,-0.410,-0.410,-0.410,0.000,0.000,0.000
1641102782569850880,2022-01-02-05:53:02,10.1.1.9,171,-0.400,-0.400,-0.400,0.000,0.000,0.000
1641102782770060032,2022-01-02-05:53:02,10.1.1.9,170,-0.390,-0.390,-0.390,0.000,0.000,0.000
1641102782991113984,2022-01-02-05:53:02,10.1.1.9,186,-0.380,-0.380,-0.380,0.000,0.000,0.000
1641102783191852032,2022-01-02-05:53:03,10.1.1.9,186,-0.370,-0.370,-0.370,0.000,0.000,0.000
1641102783392406016,2022-01-02-05:53:03,10.1.1.9,185,-0.360,-0.360,-0.360,0.000,0.000,0.000
1641102783594782976,2022-01-02-05:53:03,10.1.1.9,187,-0.350,-0.350,-0.350,0.000,0.000,0.000
1641102783796752896,2022-01-02-05:53:03,10.1.1.9,188,-0.340,-0.340,-0.340,0.000,0.000,0.000
1641102783995330048,2022-01-02-05:53:03,10.1.1.9,186,-0.330,-0.330,-0.330,0.000,0.000,0.000
1641102784204459008,2022-01-02-05:53:04,10.1.1.9,194,-0.320,-0.320,-0.320,0.000,0.000,0.000
1641102784394290944,2022-01-02-05:53:04,10.1.1.9,178,-0.310,-0.310,-0.310,0.000,0.000,0.000
1641102784596720896,2022-01-02-05:53:04,10.1.1.9,178,-0.300,-0.300,-0.300,0.000,0.000,0.000
1641102784805100800,2022-01-02-05:53:04,10.1.1.9,187,-0.290,-0.290,-0.290,0.000,0.000,0.000
1641102784996786176,2022-01-02-05:53:04,10.1.1.9,178,-0.280,-0.280,-0.280,0.000,0.000,0.000
1641102785196395008,2022-01-02-05:53:05,10.1.1.9,177,-0.270,-0.270,-0.270,0.000,0.000,0.000
1641102785408013056,2022-01-02-05:53:05,10.1.1.9,188,-0.260,-0.260,-0.260,0.000,0.000,0.000
1641102785597629952,2022-01-02-05:53:05,10.1.1.9,176,-0.250,-0.250,-0.250,0.000,0.000,0.000
1641102785807740928,2022-01-02-05:53:05,10.1.1.9,186,-0.240,-0.240,-0.240,0.000,0.000,0.000
1641102786020569088,2022-01-02-05:53:06,10.1.1.9,199,-0.230,-0.230,-0.230,0.000,0.000,0.000
1641102786208310016,2022-01-02-05:53:06,10.1.1.9,186,-0.220,-0.220,-0.220,0.000,0.000,0.000
1641102786408276992,2022-01-02-05:53:06,10.1.1.9,184,-0.210,-0.210,-0.210,0.000,0.000,0.000
1641102786619550976,2022-01-02-05:53:06,10.1.1.9,194,-0.200,-0.200,-0.200,0.000,0.000,0.000
1641102786809641984,2022-01-02-05:53:06,10.1.1.9,184,-0.190,-0.190,-0.190,0.000,0.000,0.000
1641102787020248832,2022-01-02-05:53:07,10.1.1.9,194,-0.180,-0.180,-0.180,0.000,0.000,0.000
1641102787419773952,2022-01-02-05:53:07,10.1.1.9,192,-0.160,-0.160,-0.160,0.000,0.000,0.000
1641102787620667904,2022-01-02-05:53:07,10.1.1.9,192,-0.150,-0.150,-0.150,0.000,0.000,0.000
1641102787822868224,2022-01-02-05:53:07,10.1.1.9,194,-0.140,-0.140,-0.140,0.000,0.000,0.000
1641102788021480192,2022-01-02-05:53:08,10.1.1.9,192,-0.130,-0.130,-0.130,0.000,0.000,0.000
1641102788221008896,2022-01-02-05:53:08,10.1.1.9,190,-0.120,-0.120,-0.120,0.000,0.000,0.000
1641102788420422912,2022-01-02-05:53:08,10.1.1.9,189,-0.110,-0.110,-0.110,0.000,0.000,0.000
1641102788621526016,2022-01-02-05:53:08,10.1.1.9,189,-0.100,-0.100,-0.100,0.000,0.000,0.000
1641102788821520128,2022-01-02-05:53:08,10.1.1.9,188,-0.090,-0.090,-0.090,0.000,0.000,0.000
1641102789021030912,2022-01-02-05:53:09,10.1.1.9,188,-0.080,-0.080,-0.080,0.000,0.000,0.000
1641102789231197952,2022-01-02-05:53:09,10.1.1.9,197,-0.070,-0.070,-0.070,0.000,0.000,0.000
1641102789421864960,2022-01-02-05:53:09,10.1.1.9,187,-0.060,-0.060,-0.060,0.000,0.000,0.000
1641102789622109952,2022-01-02-05:53:09,10.1.1.9,187,-0.050,-0.050,-0.050,0.000,0.000,0.000
1641102789823121152,2022-01-02-05:53:09,10.1.1.9,187,-0.040,-0.040,-0.040,0.000,0.000,0.000
1641102790022198016,2022-01-02-05:53:10,10.1.1.9,185,-0.030,-0.030,-0.030,0.000,0.000,0.000
1641102790221551872,2022-01-02-05:53:10,10.1.1.9,184,-0.020,-0.020,-0.020,0.000,0.000,0.000
1641102790423474944,2022-01-02-05:53:10,10.1.1.9,185,-0.010,-0.010,-0.010,0.000,0.000,0.000
1641102790624217088,2022-01-02-05:53:10,10.1.1.9,184,0.000,0.000,0.000,0.000,0.000,0.000
1641102790831774976,2022-01-02-05:53:10,10.1.1.9,189,-0.010,-0.010,-0.010,0.000,0.000,0.000
1641102791041667072,2022-01-02-05:53:11,10.1.1.9,197,-0.020,-0.020,-0.020,0.000,0.000,0.000
1641102791232016128,2022-01-02-05:53:11,10.1.1.9,187,-0.030,-0.030,-0.030,0.000,0.000,0.000
1641102791440910080,2022-01-02-05:53:11,10.1.1.9,195,-0.040,-0.040,-0.040,0.000,0.000,0.000
1641102791842071040,2022-01-02-05:53:11,10.1.1.9,195,-0.060,-0.060,-0.060,0.000,0.000,0.000
1641102792041698048,2022-01-02-05:53:12,10.1.1.9,192,-0.070,-0.070,-0.070,0.000,0.000,0.000
1641102792241144064,2022-01-02-05:53:12,10.1.1.9,192,-0.080,-0.080,-0.080,0.000,0.000,0.000
1641102792440894976,2022-01-02-05:53:12,10.1.1.9,190,-0.090,-0.090,-0.090,0.000,0.000,0.000
1641102792640976896,2022-01-02-05:53:12,10.1.1.9,188,-0.100,-0.100,-0.100,0.000,0.000,0.000
1641102792841212928,2022-01-02-05:53:12,10.1.1.9,188,-0.110,-0.110,-0.110,0.000,0.000,0.000
1641102793046478080,2022-01-02-05:53:13,10.1.1.9,192,-0.120,-0.120,-0.120,0.000,0.000,0.000
1641102793240751872,2022-01-02-05:53:13,10.1.1.9,186,-0.130,-0.130,-0.130,0.000,0.000,0.000
1641102793441369088,2022-01-02-05:53:13,10.1.1.9,185,-0.140,-0.140,-0.140,0.000,0.000,0.000
1641102793641266944,2022-01-02-05:53:13,10.1.1.9,185,-0.150,-0.150,-0.150,0.000,0.000,0.000
1641102793841250816,2022-01-02-05:53:13,10.1.1.9,184,-0.160,-0.160,-0.160,0.000,0.000,0.000
1641102794040612864,2022-01-02-05:53:14,10.1.1.9,183,-0.170,-0.170,-0.170,0.000,0.000,0.000
1641102794240178176,2022-01-02-05:53:14,10.1.1.9,181,-0.180,-0.180,-0.180,0.000,0.000,0.000
1641102794450014976,2022-01-02-05:53:14,10.1.1.9,191,-0.190,-0.190,-0.190,0.000,0.000,0.000
1641102794640259072,2022-01-02-05:53:14,10.1.1.9,179,-0.200,-0.200,-0.200,0.000,0.000,0.000
1641102794850253056,2022-01-02-05:53:14,10.1.1.9,189,-0.210,-0.210,-0.210,0.000,0.000,0.000
1641102795059884032,2022-01-02-05:53:15,10.1.1.9,198,-0.220,-0.220,-0.220,0.000,0.000,0.000
1641102795459790080,2022-01-02-05:53:15,10.1.1.9,197,-0.240,-0.240,-0.240,0.000,0.000,0.000
1641102795659107840,2022-01-02-05:53:15,10.1.1.9,196,-0.250,-0.250,-0.250,0.000,0.000,0.000
1641102795849248000,2022-01-02-05:53:15,10.1.1.9,186,-0.260,-0.260,-0.260,0.000,0.000,0.000
1641102796059028992,2022-01-02-05:53:16,10.1.1.9,195,-0.270,-0.270,-0.270,0.000,0.000,0.000
1641102796258824960,2022-01-02-05:53:16,10.1.1.9,194,-0.280,-0.280,-0.280,0.000,0.000,0.000
1641102796458564096,2022-01-02-05:53:16,10.1.1.9,192,-0.290,-0.290,-0.290,0.000,0.000,0.000
1641102796648273920,2022-01-02-05:53:16,10.1.1.9,182,-0.300,-0.300,-0.300,0.000,0.000,0.000
1641102796858358016,2022-01-02-05:53:16,10.1.1.9,191,-0.310,-0.310,-0.310,0.000,0.000,0.000
1641102797258624000,2022-01-02-05:53:17,10.1.1.9,190,-0.330,-0.330,-0.330,0.000,0.000,0.000
1641102797457882880,2022-01-02-05:53:17,10.1.1.9,189,-0.340,-0.340,-0.340,0.000,0.000,0.000
1641102797660348928,2022-01-02-05:53:17,10.1.1.9,191,-0.350,-0.350,-0.350,0.000,0.000,0.000
1641102797858089984,2022-01-02-05:53:17,10.1.1.9,188,-0.360,-0.360,-0.360,0.000,0.000,0.000
1641102798057718016,2022-01-02-05:53:18,10.1.1.9,187,-0.370,-0.370,-0.370,0.000,0.000,0.000
1641102798256992000,2022-01-02-05:53:18,10.1.1.9,186,-0.380,-0.380,-0.380,0.000,0.000,0.000
1641102798466505984,2022-01-02-05:53:18,10.1.1.9,195,-0.390,-0.390,-0.390,0.000,0.000,0.000
1641102798656083200,2022-01-02-05:53:18,10.1.1.9,184,-0.400,-0.400,-0.400,0.000,0.000,0.000
1641102798856421888,2022-01-02-05:53:18,10.1.1.9,182,-0.410,-0.410,-0.410,0.000,0.000,0.000
1641102799056329984,2022-01-02-05:53:19,10.1.1.9,181,-0.420,-0.420,-0.420,0.000,0.000,0.000
1641102799266526976,2022-01-02-05:53:19,10.1.1.9,190,-0.430,-0.430,-0.430,0.000,0.000,0.000
1641102799456087040,2022-01-02-05:53:19,10.1.1.9,179,-0.440,-0.440,-0.440,0.000,0.000,0.000
1641102799657891072,2022-01-02-05:53:19,10.1.1.9,180,-0.450,-0.450,-0.450,0.000,0.000,0.000
1641102799855463936,2022-01-02-05:53:19,10.1.1.9,177,-0.460,-0.460,-0.460,0.000,0.000,0.000
1641102800064716032,2022-01-02-05:53:20,10.1.1.9,185,-0.470,-0.470,-0.470,0.000,0.000,0.000
1641102800264724992,2022-01-02-05:53:20,10.1.1.9,184,-0.480,-0.480,-0.480,0.000,0.000,0.000
1641102800464751104,2022-01-02-05:53:20,10.1.1.9,182,-0.490,-0.490,-0.490,0.000,0.000,0.000
1641102800664203008,2022-01-02-05:53:20,10.1.1.9,178,-0.480,-0.480,-0.480,0.000,0.000,0.000
1641102800874052096,2022-01-02-05:53:20,10.1.1.9,187,-0.470,-0.470,-0.470,0.000,0.000,0.000
1641102801073417984,2022-01-02-05:53:21,10.1.1.9,186,-0.460,-0.460,-0.460,0.000,0.000,0.000
1641102801273405952,2022-01-02-05:53:21,10.1.1.9,185,-0.450,-0.450,-0.450,0.000,0.000,0.000
1641102801473428992,2022-01-02-05:53:21,10.1.1.9,184,-0.440,-0.440,-0.440,0.000,0.000,0.000
1641102801673635072,2022-01-02-05:53:21,10.1.1.9,184,-0.430,-0.430,-0.430,0.000,0.000,0.000
1641102801862864128,2022-01-02-05:53:21,10.1.1.9,173,-0.420,-0.420,-0.420,0.000,0.000,0.000
1641102802062525952,2022-01-02-05:53:22,10.1.1.9,172,-0.410,-0.410,-0.410,0.000,0.000,0.000
1641102802272823040,2022-01-02-05:53:22,10.1.1.9,181,-0.400,-0.400,-0.400,0.000,0.000,0.000
1641102802482039808,2022-01-02-05:53:22,10.1.1.9,189,-0.390,-0.390,-0.390,0.000,0.000,0.000
1641102802681778944,2022-01-02-05:53:22,10.1.1.9,188,-0.380,-0.380,-0.380,0.000,0.000,0.000
1641102802881062144,2022-01-02-05:53:22,10.1.1.9,187,-0.370,-0.370,-0.370,0.000,0.000,0.000
1641102803074589952,2022-01-02-05:53:23,10.1.1.9,180,-0.360,-0.360,-0.360,0.000,0.000,0.000
1641102803280820992,2022-01-02-05:53:23,10.1.1.9,185,-0.350,-0.350,-0.350,0.000,0.000,0.000
1641102803471593984,2022-01-02-05:53:23,10.1.1.9,175,-0.340,-0.340,-0.340,0.000,0.000,0.000
1641102803671154944,2022-01-02-05:53:23,10.1.1.9,174,-0.330,-0.330,-0.330,0.000,0.000,0.000
1641102803870822912,2022-01-02-05:53:23,10.1.1.9,173,-0.320,-0.320,-0.320,0.000,0.000,0.000
1641102804071207936,2022-01-02-05:53:24,10.1.1.9,173,-0.310,-0.310,-0.310,0.000,0.000,0.000
1641102804269625856,2022-01-02-05:53:24,10.1.1.9,171,-0.300,-0.300,-0.300,0.000,0.000,0.000
1641102804469214976,2022-01-02-05:53:24,10.1.1.9,170,-0.290,-0.290,-0.290,0.000,0.000,0.000
1641102804669128960,2022-01-02-05:53:24,10.1.1.9,169,-0.280,-0.280,-0.280,0.000,0.000,0.000
1641102804868902912,2022-01-02-05:53:24,10.1.1.9,169,-0.270,-0.270,-0.270,0.000,0.000,0.000
1641102805069394176,2022-01-02-05:53:25,10.1.1.9,169,-0.260,-0.260,-0.260,0.000,0.000,0.000
1641102805270140928,2022-01-02-05:53:25,10.1.1.9,169,-0.250,-0.250,-0.250,0.000,0.000,0.000
1641102805488194048,2022-01-02-05:53:25,10.1.1.9,186,-0.240,-0.240,-0.240,0.000,0.000,0.000
1641102805688093952,2022-01-02-05:53:25,10.1.1.9,186,-0.230,-0.230,-0.230,0.000,0.000,0.000
1641102805896655104,2022-01-02-05:53:25,10.1.1.9,194,-0.220,-0.220,-0.220,0.000,0.000,0.000
1641102806087058176,2022-01-02-05:53:26,10.1.1.9,183,-0.210,-0.210,-0.210,0.000,0.000,0.000
1641102806276706048,2022-01-02-05:53:26,10.1.1.9,167,-0.200,-0.200,-0.200,0.000,0.000,0.000
1641102806487523072,2022-01-02-05:53:26,10.1.1.9,177,-0.190,-0.190,-0.190,0.000,0.000,0.000
1641102806686459904,2022-01-02-05:53:26,10.1.1.9,176,-0.180,-0.180,-0.180,0.000,0.000,0.000
1641102806885987072,2022-01-02-05:53:26,10.1.1.9,175,-0.170,-0.170,-0.170,0.000,0.000,0.000
1641102807085306880,2022-01-02-05:53:27,10.1.1.9,174,-0.160,-0.160,-0.160,0.000,0.000,0.000
1641102807285531904,2022-01-02-05:53:27,10.1.1.9,174,-0.150,-0.150,-0.150,0.000,0.000,0.000
1641102807485569024,2022-01-02-05:53:27,10.1.1.9,173,-0.140,-0.140,-0.140,0.000,0.000,0.000
1641102807685112832,2022-01-02-05:53:27,10.1.1.9,171,-0.130,-0.130,-0.130,0.000,0.000,0.000
1641102807884133120,2022-01-02-05:53:27,10.1.1.9,169,-0.120,-0.120,-0.120,0.000,0.000,0.000
1641102808093812992,2022-01-02-05:53:28,10.1.1.9,178,-0.110,-0.110,-0.110,0.000,0.000,0.000
1641102808293291008,2022-01-02-05:53:28,10.1.1.9,177,-0.100,-0.100,-0.100,0.000,0.000,0.000
1641102808492676096,2022-01-02-05:53:28,10.1.1.9,175,-0.090,-0.090,-0.090,0.000,0.000,0.000
1641102808684847104,2022-01-02-05:53:28,10.1.1.9,167,-0.080,-0.080,-0.080,0.000,0.000,0.000
1641102808892308992,2022-01-02-05:53:28,10.1.1.9,173,-0.070,-0.070,-0.070,0.000,0.000,0.000
1641102809082385152,2022-01-02-05:53:29,10.1.1.9,163,-0.060,-0.060,-0.060,0.000,0.000,0.000
1641102809303281920,2022-01-02-05:53:29,10.1.1.9,182,-0.050,-0.050,-0.050,0.000,0.000,0.000
1641102809492059904,2022-01-02-05:53:29,10.1.1.9,170,-0.040,-0.040,-0.040,0.000,0.000,0.000
1641102809701374976,2022-01-02-05:53:29,10.1.1.9,178,-0.030,-0.030,-0.030,0.000,0.000,0.000
1641102809901888000,2022-01-02-05:53:29,10.1.1.9,178,-0.020,-0.020,-0.020,0.000,0.000,0.000
1641102810110672896,2022-01-02-05:53:30,10.1.1.9,186,-0.010,-0.010,-0.010,0.000,0.000,0.000
1641102810301316096,2022-01-02-05:53:30,10.1.1.9,176,0.000,0.000,0.000,0.000,0.000,0.000
1641102810500147200,2022-01-02-05:53:30,10.1.1.9,174,-0.010,-0.010,-0.010,0.000,0.000,0.000
1641102810699943936,2022-01-02-05:53:30,10.1.1.9,173,-0.020,-0.020,-0.020,0.000,0.000,0.000
1641102810899156992,2022-01-02-05:53:30,10.1.1.9,172,-0.030,-0.030,-0.030,0.000,0.000,0.000
1641102811088443136,2022-01-02-05:53:31,10.1.1.9,160,-0.040,-0.040,-0.040,0.000,0.000,0.000
1641102811288624896,2022-01-02-05:53:31,10.1.1.9,160,-0.050,-0.050,-0.050,0.000,0.000,0.000
1641102811508847104,2022-01-02-05:53:31,10.1.1.9,178,-0.060,-0.060,-0.060,0.000,0.000,0.000
1641102811707706880,2022-01-02-05:53:31,10.1.1.9,178,-0.070,-0.070,-0.070,0.000,0.000,0.000
1641102811734913024,2022-01-02-05:53:31,10.1.1.9,-4,-0.070,-0.070,-0.070,0.000,0.000,0.000
1641102812097883904,2022-01-02-05:53:32,10.1.1.9,162,-0.090,-0.090,-0.090,0.000,0.000,0.000
1641102812306916096,2022-01-02-05:53:32,10.1.1.9,170,-0.100,-0.100,-0.100,0.000,0.000,0.000
1641102812496393984,2022-01-02-05:53:32,10.1.1.9,158,-0.110,-0.110,-0.110,0.000,0.000,0.000
1641102812706327040,2022-01-02-05:53:32,10.1.1.9,166,-0.120,-0.120,-0.120,0.000,0.000,0.000
1641102812906050816,2022-01-02-05:53:32,10.1.1.9,165,-0.130,-0.130,-0.130,0.000,0.000,0.000
1641102813110470144,2022-01-02-05:53:33,10.1.1.9,168,-0.140,-0.140,-0.140,0.000,0.000,0.000
1641102813320440064,2022-01-02-05:53:33,10.1.1.9,177,-0.150,-0.150,-0.150,0.000,0.000,0.000
1641102813508396032,2022-01-02-05:53:33,10.1.1.9,165,-0.160,-0.160,-0.160,0.000,0.000,0.000
1641102813720269824,2022-01-02-05:53:33,10.1.1.9,175,-0.170,-0.170,-0.170,0.000,0.000,0.000
1641102813910660864,2022-01-02-05:53:33,10.1.1.9,165,-0.180,-0.180,-0.180,0.000,0.000,0.000
1641102814125298944,2022-01-02-05:53:34,10.1.1.9,178,-0.190,-0.190,-0.190,0.000,0.000,0.000
1641102814312520960,2022-01-02-05:53:34,10.1.1.9,164,-0.200,-0.200,-0.200,0.000,0.000,0.000
1641102814533412096,2022-01-02-05:53:34,10.1.1.9,184,-0.210,-0.210,-0.210,0.000,0.000,0.000
1641102814723892992,2022-01-02-05:53:34,10.1.1.9,175,-0.220,-0.220,-0.220,0.000,0.000,0.000
1641102814926856960,2022-01-02-05:53:34,10.1.1.9,177,-0.230,-0.230,-0.230,0.000,0.000,0.000
1641102815128606976,2022-01-02-05:53:35,10.1.1.9,177,-0.240,-0.240,-0.240,0.000,0.000,0.000
1641102815329570048,2022-01-02-05:53:35,10.1.1.9,178,-0.250,-0.250,-0.250,0.000,0.000,0.000
1641102815528274944,2022-01-02-05:53:35,10.1.1.9,176,-0.260,-0.260,-0.260,0.000,0.000,0.000
1641102815728011008,2022-01-02-05:53:35,10.1.1.9,175,-0.270,-0.270,-0.270,0.000,0.000,0.000
1641102815929167872,2022-01-02-05:53:35,10.1.1.9,176,-0.280,-0.280,-0.280,0.000,0.000,0.000
1641102816129060096,2022-01-02-05:53:36,10.1.1.9,174,-0.290,-0.290,-0.290,0.000,0.000,0.000
1641102816330245120,2022-01-02-05:53:36,10.1.1.9,174,-0.300,-0.300,-0.300,0.000,0.000,0.000
1641102816531856128,2022-01-02-05:53:36,10.1.1.9,175,-0.310,-0.310,-0.310,0.000,0.000,0.000
1641102816732083968,2022-01-02-05:53:36,10.1.1.9,174,-0.320,-0.320,-0.320,0.000,0.000,0.000
1641102816931096064,2022-01-02-05:53:36,10.1.1.9,173,-0.330,-0.330,-0.330,0.000,0.000,0.000
1641102817143265024,2022-01-02-05:53:37,10.1.1.9,184,-0.340,-0.340,-0.340,0.000,0.000,0.000
1641102817332701952,2022-01-02-05:53:37,10.1.1.9,173,-0.350,-0.350,-0.350,0.000,0.000,0.000
1641102817533273856,2022-01-02-05:53:37,10.1.1.9,172,-0.360,-0.360,-0.360,0.000,0.000,0.000
1641102817743772928,2022-01-02-05:53:37,10.1.1.9,183,-0.370,-0.370,-0.370,0.000,0.000,0.000
1641102818155318016,2022-01-02-05:53:38,10.1.1.9,191,-0.390,-0.390,-0.390,0.000,0.000,0.000
1641102818354396160,2022-01-02-05:53:38,10.1.1.9,190,-0.400,-0.400,-0.400,0.000,0.000,0.000
1641102818545260800,2022-01-02-05:53:38,10.1.1.9,181,-0.410,-0.410,-0.410,0.000,0.000,0.000
1641102818755852032,2022-01-02-05:53:38,10.1.1.9,191,-0.420,-0.420,-0.420,0.000,0.000,0.000
1641102819156433152,2022-01-02-05:53:39,10.1.1.9,190,-0.440,-0.440,-0.440,0.000,0.000,0.000
1641102819356576000,2022-01-02-05:53:39,10.1.1.9,189,-0.450,-0.450,-0.450,0.000,0.000,0.000
1641102819557677056,2022-01-02-05:53:39,10.1.1.9,190,-0.460,-0.460,-0.460,0.000,0.000,0.000
1641102819747264000,2022-01-02-05:53:39,10.1.1.9,178,-0.470,-0.470,-0.470,0.000,0.000,0.000
1641102819958422784,2022-01-02-05:53:39,10.1.1.9,188,-0.480,-0.480,-0.480,0.000,0.000,0.000
1641102820160698880,2022-01-02-05:53:40,10.1.1.9,189,-0.490,-0.490,-0.490,0.000,0.000,0.000
1641102820357996032,2022-01-02-05:53:40,10.1.1.9,186,-0.480,-0.480,-0.480,0.000,0.000,0.000
1641102820557858816,2022-01-02-05:53:40,10.1.1.9,184,-0.470,-0.470,-0.470,0.000,0.000,0.000
1641102820758439936,2022-01-02-05:53:40,10.1.1.9,184,-0.460,-0.460,-0.460,0.000,0.000,0.000
1641102820959249920,2022-01-02-05:53:40,10.1.1.9,184,-0.450,-0.450,-0.450,0.000,0.000,0.000
1641102821158817024,2022-01-02-05:53:41,10.1.1.9,183,-0.440,-0.440,-0.440,0.000,0.000,0.000
1641102821358833920,2022-01-02-05:53:41,10.1.1.9,181,-0.430,-0.430,-0.430,0.000,0.000,0.000
1641102821559053056,2022-01-02-05:53:41,10.1.1.9,180,-0.420,-0.420,-0.420,0.000,0.000,0.000
1641102821760855808,2022-01-02-05:53:41,10.1.1.9,181,-0.410,-0.410,-0.410,0.000,0.000,0.000
1641102821959301120,2022-01-02-05:53:41,10.1.1.9,178,-0.400,-0.400,-0.400,0.000,0.000,0.000
1641102822179331072,2022-01-02-05:53:42,10.1.1.9,191,-0.390,-0.390,-0.390,0.000,0.000,0.000
1641102822389246976,2022-01-02-05:53:42,10.1.1.9,199,-0.380,-0.380,-0.380,0.000,0.000,0.000
1641102822579226880,2022-01-02-05:53:42,10.1.1.9,188,-0.370,-0.370,-0.370,0.000,0.000,0.000
1641102822778959872,2022-01-02-05:53:42,10.1.1.9,188,-0.360,-0.360,-0.360,0.000,0.000,0.000
1641102822978990080,2022-01-02-05:53:42,10.1.1.9,186,-0.350,-0.350,-0.350,0.000,0.000,0.000
1641102823179527168,2022-01-02-05:53:43,10.1.1.9,186,-0.340,-0.340,-0.340,0.000,0.000,0.000
1641102823378968832,2022-01-02-05:53:43,10.1.1.9,185,-0.330,-0.330,-0.330,0.000,0.000,0.000
1641102823579252992,2022-01-02-05:53:43,10.1.1.9,185,-0.320,-0.320,-0.320,0.000,0.000,0.000
1641102823779588864,2022-01-02-05:53:43,10.1.1.9,184,-0.310,-0.310,-0.310,0.000,0.000,0.000
1641102823980678144,2022-01-02-05:53:43,10.1.1.9,184,-0.300,-0.300,-0.300,0.000,0.000,0.000
1641102824186110976,2022-01-02-05:53:44,10.1.1.9,189,-0.290,-0.290,-0.290,0.000,0.000,0.000
1641102824379961088,2022-01-02-05:53:44,10.1.1.9,179,-0.280,-0.280,-0.280,0.000,0.000,0.000
1641102824600613120,2022-01-02-05:53:44,10.1.1.9,199,-0.270,-0.270,-0.270,0.000,0.000,0.000
1641102824789520128,2022-01-02-05:53:44,10.1.1.9,187,-0.260,-0.260,-0.260,0.000,0.000,0.000
1641102824998918144,2022-01-02-05:53:44,10.1.1.9,196,-0.250,-0.250,-0.250,0.000,0.000,0.000
1641102825189268224,2022-01-02-05:53:45,10.1.1.9,186,-0.240,-0.240,-0.240,0.000,0.000,0.000
1641102825399436032,2022-01-02-05:53:45,10.1.1.9,196,-0.230,-0.230,-0.230,0.000,0.000,0.000
1641102825599966976,2022-01-02-05:53:45,10.1.1.9,195,-0.220,-0.220,-0.220,0.000,0.000,0.000
1641102825799324160,2022-01-02-05:53:45,10.1.1.9,193,-0.210,-0.210,-0.210,0.000,0.000,0.000
1641102825999880192,2022-01-02-05:53:45,10.1.1.9,193,-0.200,-0.200,-0.200,0.000,0.000,0.000
1641102826200654080,2022-01-02-05:53:46,10.1.1.9,193,-0.190,-0.190,-0.190,0.000,0.000,0.000
1641102826389473024,2022-01-02-05:53:46,10.1.1.9,181,-0.180,-0.180,-0.180,0.000,0.000,0.000
1641102826601172992,2022-01-02-05:53:46,10.1.1.9,191,-0.170,-0.170,-0.170,0.000,0.000,0.000
1641102826798789120,2022-01-02-05:53:46,10.1.1.9,187,-0.160,-0.160,-0.160,0.000,0.000,0.000
1641102827008313856,2022-01-02-05:53:47,10.1.1.9,193,-0.150,-0.150,-0.150,0.000,0.000,0.000
1641102827199068928,2022-01-02-05:53:47,10.1.1.9,181,-0.140,-0.140,-0.140,0.000,0.000,0.000
1641102827397774080,2022-01-02-05:53:47,10.1.1.9,179,-0.130,-0.130,-0.130,0.000,0.000,0.000
1641102827597829120,2022-01-02-05:53:47,10.1.1.9,178,-0.120,-0.120,-0.120,0.000,0.000,0.000
1641102827801657088,2022-01-02-05:53:47,10.1.1.9,181,-0.110,-0.110,-0.110,0.000,0.000,0.000
1641102828008156160,2022-01-02-05:53:48,10.1.1.9,187,-0.100,-0.100,-0.100,0.000,0.000,0.000
1641102828217937920,2022-01-02-05:53:48,10.1.1.9,196,-0.090,-0.090,-0.090,0.000,0.000,0.000
1641102828418497024,2022-01-02-05:53:48,10.1.1.9,196,-0.080,-0.080,-0.080,0.000,0.000,0.000
1641102828817483008,2022-01-02-05:53:48,10.1.1.9,191,-0.060,-0.060,-0.060,0.000,0.000,0.000
1641102829017038080,2022-01-02-05:53:49,10.1.1.9,190,-0.050,-0.050,-0.050,0.000,0.000,0.000
1641102829226457088,2022-01-02-05:53:49,10.1.1.9,198,-0.040,-0.040,-0.040,0.000,0.000,0.000
1641102829416836864,2022-01-02-05:53:49,10.1.1.9,187,-0.030,-0.030,-0.030,0.000,0.000,0.000
1641102829616747008,2022-01-02-05:53:49,10.1.1.9,187,-0.020,-0.020,-0.020,0.000,0.000,0.000
1641102829816428800,2022-01-02-05:53:49,10.1.1.9,186,-0.010,-0.010,-0.010,0.000,0.000,0.000
1641102830015966976,2022-01-02-05:53:50,10.1.1.9,185,0.000,0.000,0.000,0.000,0.000,0.000
1641102830218811136,2022-01-02-05:53:50,10.1.1.9,187,-0.010,-0.010,-0.010,0.000,0.000,0.000
1641102830415671040,2022-01-02-05:53:50,10.1.1.9,182,-0.020,-0.020,-0.020,0.000,0.000,0.000
1641102830615132928,2022-01-02-05:53:50,10.1.1.9,181,-0.030,-0.030,-0.030,0.000,0.000,0.000
1641102830815092992,2022-01-02-05:53:50,10.1.1.9,180,-0.040,-0.040,-0.040,0.000,0.000,0.000
1641102831015818240,2022-01-02-05:53:51,10.1.1.9,180,-0.050,-0.050,-0.050,0.000,0.000,0.000
1641102831214886912,2022-01-02-05:53:51,10.1.1.9,178,-0.060,-0.060,-0.060,0.000,0.000,0.000
1641102831414618112,2022-01-02-05:53:51,10.1.1.9,177,-0.070,-0.070,-0.070,0.000,0.000,0.000
1641102831614382080,2022-01-02-05:53:51,10.1.1.9,176,-0.080,-0.080,-0.080,0.000,0.000,0.000
1641102831814342144,2022-01-02-05:53:51,10.1.1.9,175,-0.090,-0.090,-0.090,0.000,0.000,0.000
1641102832013712896,2022-01-02-05:53:52,10.1.1.9,174,-0.100,-0.100,-0.100,0.000,0.000,0.000
1641102832224723200,2022-01-02-05:53:52,10.1.1.9,184,-0.110,-0.110,-0.110,0.000,0.000,0.000
1641102832423252224,2022-01-02-05:53:52,10.1.1.9,180,-0.120,-0.120,-0.120,0.000,0.000,0.000
1641102832623205888,2022-01-02-05:53:52,10.1.1.9,179,-0.130,-0.130,-0.130,0.000,0.000,0.000
1641102832833723904,2022-01-02-05:53:52,10.1.1.9,189,-0.140,-0.140,-0.140,0.000,0.000,0.000
1641102833023674880,2022-01-02-05:53:53,10.1.1.9,177,-0.150,-0.150,-0.150,0.000,0.000,0.000
1641102833232891136,2022-01-02-05:53:53,10.1.1.9,185,-0.160,-0.160,-0.160,0.000,0.000,0.000
1641102833422211840,2022-01-02-05:53:53,10.1.1.9,174,-0.170,-0.170,-0.170,0.000,0.000,0.000
1641102833622298112,2022-01-02-05:53:53,10.1.1.9,172,-0.180,-0.180,-0.180,0.000,0.000,0.000
1641102833832411904,2022-01-02-05:53:53,10.1.1.9,181,-0.190,-0.190,-0.190,0.000,0.000,0.000
1641102834033665024,2022-01-02-05:53:54,10.1.1.9,179,-0.200,-0.200,-0.200,0.000,0.000,0.000
1641102834232726016,2022-01-02-05:53:54,10.1.1.9,178,-0.210,-0.210,-0.210,0.000,0.000,0.000
1641102834431898112,2022-01-02-05:53:54,10.1.1.9,177,-0.220,-0.220,-0.220,0.000,0.000,0.000
1641102834636532992,2022-01-02-05:53:54,10.1.1.9,181,-0.230,-0.230,-0.230,0.000,0.000,0.000
1641102834831655936,2022-01-02-05:53:54,10.1.1.9,174,-0.240,-0.240,-0.240,0.000,0.000,0.000
1641102835040345856,2022-01-02-05:53:55,10.1.1.9,181,-0.250,-0.250,-0.250,0.000,0.000,0.000
1641102835241328896,2022-01-02-05:53:55,10.1.1.9,181,-0.260,-0.260,-0.260,0.000,0.000,0.000
1641102835431969024,2022-01-02-05:53:55,10.1.1.9,169,-0.270,-0.270,-0.270,0.000,0.000,0.000
1641102835629587968,2022-01-02-05:53:55,10.1.1.9,168,-0.280,-0.280,-0.280,0.000,0.000,0.000
1641102835840827904,2022-01-02-05:53:55,10.1.1.9,179,-0.290,-0.290,-0.290,0.000,0.000,0.000
1641102836039348992,2022-01-02-05:53:56,10.1.1.9,176,-0.300,-0.300,-0.300,0.000,0.000,0.000
1641102836248754944,2022-01-02-05:53:56,10.1.1.9,185,-0.310,-0.310,-0.310,0.000,0.000,0.000
1641102836438852096,2022-01-02-05:53:56,10.1.1.9,174,-0.320,-0.320,-0.320,0.000,0.000,0.000
1641102836650307840,2022-01-02-05:53:56,10.1.1.9,185,-0.330,-0.330,-0.330,0.000,0.000,0.000
1641102836850771968,2022-01-02-05:53:56,10.1.1.9,180,-0.340,-0.340,-0.340,0.000,0.000,0.000
1641102837047760128,2022-01-02-05:53:57,10.1.1.9,173,-0.350,-0.350,-0.350,0.000,0.000,0.000
