FedericoMungari/DigitalTwin_service/02_LTEScenario/Output/Output_script/script_ROSAPI_output_robots12_freq0_5.txt.csv
timestamp,node,latency,joint_1,joint_2,joint_3,joint_4,joint_5,joint_6
1640078316953902848,"2021-12-21,09:18:35",10.1.1.6,25844,0.000,0.000,0.000,0.000,0.000,0.000
1640078318333760000,"2021-12-21,09:18:38",10.1.1.6,1.0156891345977783,-0.010,-0.010,-0.010,0.000,0.000,0.000
1640078318971697152,"2021-12-21,09:18:38",10.1.1.6,634,-0.020,-0.020,-0.020,0.000,0.000,0.000
1640078318978051840,"2021-12-21,09:18:38",10.1.1.6,0.6408190727233887,-0.020,-0.020,-0.020,0.000,0.000,0.000
1640078319282030080,"2021-12-21,09:18:39",10.1.1.6,302,-0.030,-0.030,-0.030,0.000,0.000,0.000
1640078319310234112,"2021-12-21,09:18:39",10.1.1.6,0.3303840160369873,-0.030,-0.030,-0.030,0.000,0.000,0.000
1640078319632478976,"2021-12-21,09:18:39",10.1.1.6,320,-0.040,-0.040,-0.040,0.000,0.000,0.000
1640078328031164928,"2021-12-21,09:18:39",10.1.1.6,0.44726991653442383,-0.040,-0.040,-0.040,0.000,0.000,0.000
1640078339416182016,"2021-12-21,09:18:55",10.1.1.6,7043,-0.050,-0.050,-0.050,0.000,0.000,0.000
1640078344680425984,"2021-12-21,09:19:01",10.1.1.6,12.383073091506958,-0.050,-0.050,-0.050,0.000,0.000,0.000
1640078348607245056,"2021-12-21,09:19:06",10.1.1.6,1827,-0.060,-0.060,-0.060,0.000,0.000,0.000
1640078355685655040,"2021-12-21,09:19:08",10.1.1.6,3.8875839710235596,-0.060,-0.060,-0.060,0.000,0.000,0.000
1640078360518939904,"2021-12-21,09:19:16",10.1.1.6,398,-0.070,-0.070,-0.070,0.000,0.000,0.000
1640078360605912832,"2021-12-21,09:19:20",10.1.1.6,4.675459146499634,-0.070,-0.070,-0.070,0.000,0.000,0.000
1640078360970323968,"2021-12-21,09:19:20",10.1.1.6,361,-0.080,-0.080,-0.080,0.000,0.000,0.000
1640078360998467072,"2021-12-21,09:19:20",10.1.1.6,0.39003682136535645,-0.080,-0.080,-0.080,0.000,0.000,0.000
1640078361289900032,"2021-12-21,09:19:21",10.1.1.6,289,-0.090,-0.090,-0.090,0.000,0.000,0.000
1640078361325053952,"2021-12-21,09:19:21",10.1.1.6,0.3251149654388428,-0.090,-0.090,-0.090,0.000,0.000,0.000
1640078361648859904,"2021-12-21,09:19:21",10.1.1.6,321,-0.100,-0.100,-0.100,0.000,0.000,0.000
1640078361670844928,"2021-12-21,09:19:21",10.1.1.6,0.3436579704284668,-0.100,-0.100,-0.100,0.000,0.000,0.000
1640078361968403968,"2021-12-21,09:19:21",10.1.1.6,296,-0.110,-0.110,-0.110,0.000,0.000,0.000
1640078361989907968,"2021-12-21,09:19:21",10.1.1.6,0.31754493713378906,-0.110,-0.110,-0.110,0.000,0.000,0.000
1640078362289617920,"2021-12-21,09:19:22",10.1.1.6,298,-0.120,-0.120,-0.120,0.000,0.000,0.000
1640078362314735872,"2021-12-21,09:19:22",10.1.1.6,0.32347702980041504,-0.120,-0.120,-0.120,0.000,0.000,0.000
1640078362628346880,"2021-12-21,09:19:22",10.1.1.6,312,-0.130,-0.130,-0.130,0.000,0.000,0.000
1640078362658985984,"2021-12-21,09:19:22",10.1.1.6,0.3430628776550293,-0.130,-0.130,-0.130,0.000,0.000,0.000
1640078365606585856,"2021-12-21,09:19:23",10.1.1.6,725,-0.140,-0.140,-0.140,0.000,0.000,0.000
1640078365609867008,"2021-12-21,09:19:25",10.1.1.6,2.9496240615844727,-0.140,-0.140,-0.140,0.000,0.000,0.000
1640078365964980992,"2021-12-21,09:19:25",10.1.1.6,342,-0.150,-0.150,-0.150,0.000,0.000,0.000
1640078365985778944,"2021-12-21,09:19:25",10.1.1.6,0.36385416984558105,-0.150,-0.150,-0.150,0.000,0.000,0.000
1640078366518743040,"2021-12-21,09:19:26",10.1.1.6,530,-0.160,-0.160,-0.160,0.000,0.000,0.000
1640078366551630080,"2021-12-21,09:19:26",10.1.1.6,0.5639150142669678,-0.160,-0.160,-0.160,0.000,0.000,0.000
1640078366855197952,"2021-12-21,09:19:26",10.1.1.6,300,-0.170,-0.170,-0.170,0.000,0.000,0.000
1640078366892333056,"2021-12-21,09:19:26",10.1.1.6,0.3388490676879883,-0.170,-0.170,-0.170,0.000,0.000,0.000
1640078367219665152,"2021-12-21,09:19:27",10.1.1.6,325,-0.180,-0.180,-0.180,0.000,0.000,0.000
1640078367246403840,"2021-12-21,09:19:27",10.1.1.6,0.3527350425720215,-0.180,-0.180,-0.180,0.000,0.000,0.000
1640078367643867904,"2021-12-21,09:19:27",10.1.1.6,390,-0.190,-0.190,-0.190,0.000,0.000,0.000
1640078367662636032,"2021-12-21,09:19:27",10.1.1.6,0.4096951484680176,-0.190,-0.190,-0.190,0.000,0.000,0.000
1640078368060602880,"2021-12-21,09:19:28",10.1.1.6,388,-0.200,-0.200,-0.200,0.000,0.000,0.000
1640078368092189952,"2021-12-21,09:19:28",10.1.1.6,0.42022013664245605,-0.200,-0.200,-0.200,0.000,0.000,0.000
1640078369305846016,"2021-12-21,09:19:29",10.1.1.6,356,-0.210,-0.210,-0.210,0.000,0.000,0.000
1640078369428749056,"2021-12-21,09:19:29",10.1.1.6,0.4823031425476074,-0.210,-0.210,-0.210,0.000,0.000,0.000
1640078370235171072,"2021-12-21,09:19:30",10.1.1.6,0.8030729293823242,-0.220,-0.220,-0.220,0.000,0.000,0.000
1640078371429306112,"2021-12-21,09:19:31",10.1.1.6,1182,-0.230,-0.230,-0.230,0.000,0.000,0.000
1640078371490508032,"2021-12-21,09:19:31",10.1.1.6,1.2396719455718994,-0.230,-0.230,-0.230,0.000,0.000,0.000
1640078371951347968,"2021-12-21,09:19:31",10.1.1.6,455,-0.240,-0.240,-0.240,0.000,0.000,0.000
1640078371981956096,"2021-12-21,09:19:31",10.1.1.6,0.48581886291503906,-0.240,-0.240,-0.240,0.000,0.000,0.000
1640078372355973888,"2021-12-21,09:19:32",10.1.1.6,371,-0.250,-0.250,-0.250,0.000,0.000,0.000
1640078372418142208,"2021-12-21,09:19:32",10.1.1.6,0.4341721534729004,-0.250,-0.250,-0.250,0.000,0.000,0.000
1640078374243443968,"2021-12-21,09:19:33",10.1.1.6,0.7114360332489014,-0.260,-0.260,-0.260,0.000,0.000,0.000
1640078377874483968,"2021-12-21,09:19:36",10.1.1.6,1.6586699485778809,-0.270,-0.270,-0.270,0.000,0.000,0.000
1640078379659851008,"2021-12-21,09:19:39",10.1.1.6,1782,-0.280,-0.280,-0.280,0.000,0.000,0.000
1640078379700606976,"2021-12-21,09:19:39",10.1.1.6,1.823380947113037,-0.280,-0.280,-0.280,0.000,0.000,0.000
1640078380325010176,"2021-12-21,09:19:40",10.1.1.6,0.621859073638916,-0.290,-0.290,-0.290,0.000,0.000,0.000
1640078380350670080,"2021-12-21,09:19:40",10.1.1.6,641,-0.290,-0.290,-0.290,0.000,0.000,0.000
1640078380870418176,"2021-12-21,09:19:40",10.1.1.6,518,-0.300,-0.300,-0.300,0.000,0.000,0.000
1640078380901193984,"2021-12-21,09:19:40",10.1.1.6,0.5390210151672363,-0.300,-0.300,-0.300,0.000,0.000,0.000
1640078381964396032,"2021-12-21,09:19:41",10.1.1.6,1.0342731475830078,-0.310,-0.310,-0.310,0.000,0.000,0.000
1640078382052311808,"2021-12-21,09:19:42",10.1.1.6,1145,-0.310,-0.310,-0.310,0.000,0.000,0.000
1640078383110217216,"2021-12-21,09:19:43",10.1.1.6,1056,-0.320,-0.320,-0.320,0.000,0.000,0.000
1640078383128869888,"2021-12-21,09:19:43",10.1.1.6,1.075247049331665,-0.320,-0.320,-0.320,0.000,0.000,0.000
1640078383688806144,"2021-12-21,09:19:43",10.1.1.6,555,-0.330,-0.330,-0.330,0.000,0.000,0.000
1640078383728265984,"2021-12-21,09:19:43",10.1.1.6,0.5951459407806396,-0.330,-0.330,-0.330,0.000,0.000,0.000
1640078384108416000,"2021-12-21,09:19:44",10.1.1.6,377,-0.340,-0.340,-0.340,0.000,0.000,0.000
1640078384123131136,"2021-12-21,09:19:44",10.1.1.6,0.39269518852233887,-0.340,-0.340,-0.340,0.000,0.000,0.000
1640078384570605056,"2021-12-21,09:19:44",10.1.1.6,445,-0.350,-0.350,-0.350,0.000,0.000,0.000
1640078384602844928,"2021-12-21,09:19:44",10.1.1.6,0.47785282135009766,-0.350,-0.350,-0.350,0.000,0.000,0.000
1640078385004105216,"2021-12-21,09:19:45",10.1.1.6,394,-0.360,-0.360,-0.360,0.000,0.000,0.000
1640078385058403072,"2021-12-21,09:19:45",10.1.1.6,0.45392680168151855,-0.360,-0.360,-0.360,0.000,0.000,0.000
1640078385487232000,"2021-12-21,09:19:45",10.1.1.6,0.42597293853759766,-0.370,-0.370,-0.370,0.000,0.000,0.000
1640078386133511168,"2021-12-21,09:19:46",10.1.1.6,637,-0.380,-0.380,-0.380,0.000,0.000,0.000
1640078386178548992,"2021-12-21,09:19:46",10.1.1.6,0.6795570850372314,-0.380,-0.380,-0.380,0.000,0.000,0.000
1640078386707613952,"2021-12-21,09:19:46",10.1.1.6,505,-0.390,-0.390,-0.390,0.000,0.000,0.000
1640078386727990016,"2021-12-21,09:19:46",10.1.1.6,0.5260801315307617,-0.390,-0.390,-0.390,0.000,0.000,0.000
1640078387240067840,"2021-12-21,09:19:47",10.1.1.6,510,-0.400,-0.400,-0.400,0.000,0.000,0.000
1640078387260022016,"2021-12-21,09:19:47",10.1.1.6,0.5303628444671631,-0.400,-0.400,-0.400,0.000,0.000,0.000
1640078387786503168,"2021-12-21,09:19:47",10.1.1.6,0.5247478485107422,-0.410,-0.410,-0.410,0.000,0.000,0.000
1640078387786672128,"2021-12-21,09:19:47",10.1.1.6,502,-0.410,-0.410,-0.410,0.000,0.000,0.000
1640078388245390848,"2021-12-21,09:19:48",10.1.1.6,455,-0.420,-0.420,-0.420,0.000,0.000,0.000
1640078388297501952,"2021-12-21,09:19:48",10.1.1.6,0.5074231624603271,-0.420,-0.420,-0.420,0.000,0.000,0.000
1640078389083798016,"2021-12-21,09:19:49",10.1.1.6,0.7736868858337402,-0.430,-0.430,-0.430,0.000,0.000,0.000
1640078389084340992,"2021-12-21,09:19:49",10.1.1.6,774,-0.430,-0.430,-0.430,0.000,0.000,0.000
1640078389435311104,"2021-12-21,09:19:49",10.1.1.6,347,-0.440,-0.440,-0.440,0.000,0.000,0.000
1640078389487315968,"2021-12-21,09:19:49",10.1.1.6,0.39978694915771484,-0.440,-0.440,-0.440,0.000,0.000,0.000
1640078389875098112,"2021-12-21,09:19:49",10.1.1.6,385,-0.450,-0.450,-0.450,0.000,0.000,0.000
1640078389910393856,"2021-12-21,09:19:49",10.1.1.6,0.4205451011657715,-0.450,-0.450,-0.450,0.000,0.000,0.000
1640078390417613056,"2021-12-21,09:19:50",10.1.1.6,0.5038599967956543,-0.460,-0.460,-0.460,0.000,0.000,0.000
1640078391091784960,"2021-12-21,09:19:51",10.1.1.6,662,-0.470,-0.470,-0.470,0.000,0.000,0.000
1640078391134568960,"2021-12-21,09:19:51",10.1.1.6,0.7052431106567383,-0.470,-0.470,-0.470,0.000,0.000,0.000
1640078391484523008,"2021-12-21,09:19:51",10.1.1.6,348,-0.480,-0.480,-0.480,0.000,0.000,0.000
1640078391513283840,"2021-12-21,09:19:51",10.1.1.6,0.3769071102142334,-0.480,-0.480,-0.480,0.000,0.000,0.000
1640078391840289024,"2021-12-21,09:19:51",10.1.1.6,325,-0.490,-0.490,-0.490,0.000,0.000,0.000
1640078391875144960,"2021-12-21,09:19:51",10.1.1.6,0.3598508834838867,-0.490,-0.490,-0.490,0.000,0.000,0.000
1640078392212946944,"2021-12-21,09:19:52",10.1.1.6,335,-0.480,-0.480,-0.480,0.000,0.000,0.000
1640078392256133120,"2021-12-21,09:19:52",10.1.1.6,0.3792688846588135,-0.480,-0.480,-0.480,0.000,0.000,0.000
1640078392732027136,"2021-12-21,09:19:52",10.1.1.6,472,-0.470,-0.470,-0.470,0.000,0.000,0.000
1640078392764806912,"2021-12-21,09:19:52",10.1.1.6,0.5052039623260498,-0.470,-0.470,-0.470,0.000,0.000,0.000
1640078393144896000,"2021-12-21,09:19:53",10.1.1.6,378,-0.460,-0.460,-0.460,0.000,0.000,0.000
1640078393181460992,"2021-12-21,09:19:53",10.1.1.6,0.41540098190307617,-0.460,-0.460,-0.460,0.000,0.000,0.000
1640078393509308160,"2021-12-21,09:19:53",10.1.1.6,320,-0.450,-0.450,-0.450,0.000,0.000,0.000
1640078393545792000,"2021-12-21,09:19:53",10.1.1.6,0.3577768802642822,-0.450,-0.450,-0.450,0.000,0.000,0.000
1640078393888577024,"2021-12-21,09:19:53",10.1.1.6,335,-0.440,-0.440,-0.440,0.000,0.000,0.000
1640078393988076800,"2021-12-21,09:19:53",10.1.1.6,0.43497204780578613,-0.440,-0.440,-0.440,0.000,0.000,0.000
1640078394357220864,"2021-12-21,09:19:54",10.1.1.6,366,-0.430,-0.430,-0.430,0.000,0.000,0.000
1640078394401588992,"2021-12-21,09:19:54",10.1.1.6,0.4114241600036621,-0.430,-0.430,-0.430,0.000,0.000,0.000
1640078394767854080,"2021-12-21,09:19:54",10.1.1.6,365,-0.420,-0.420,-0.420,0.000,0.000,0.000
1640078394824508928,"2021-12-21,09:19:54",10.1.1.6,0.4217522144317627,-0.420,-0.420,-0.420,0.000,0.000,0.000
1640078395233485824,"2021-12-21,09:19:55",10.1.1.6,405,-0.410,-0.410,-0.410,0.000,0.000,0.000
1640078395262243072,"2021-12-21,09:19:55",10.1.1.6,0.43468594551086426,-0.410,-0.410,-0.410,0.000,0.000,0.000
1640078395687945984,"2021-12-21,09:19:55",10.1.1.6,420,-0.400,-0.400,-0.400,0.000,0.000,0.000
1640078395720295936,"2021-12-21,09:19:55",10.1.1.6,0.4533360004425049,-0.400,-0.400,-0.400,0.000,0.000,0.000
1640078396216236032,"2021-12-21,09:19:56",10.1.1.6,491,-0.390,-0.390,-0.390,0.000,0.000,0.000
1640078396256474880,"2021-12-21,09:19:56",10.1.1.6,0.5314598083496094,-0.390,-0.390,-0.390,0.000,0.000,0.000
1640078396612939008,"2021-12-21,09:19:56",10.1.1.6,354,-0.380,-0.380,-0.380,0.000,0.000,0.000
1640078396651712768,"2021-12-21,09:19:56",10.1.1.6,0.3924849033355713,-0.380,-0.380,-0.380,0.000,0.000,0.000
1640078397097570048,"2021-12-21,09:19:57",10.1.1.6,442,-0.370,-0.370,-0.370,0.000,0.000,0.000
1640078397144134144,"2021-12-21,09:19:57",10.1.1.6,0.4890270233154297,-0.370,-0.370,-0.370,0.000,0.000,0.000
1640078397555205120,"2021-12-21,09:19:57",10.1.1.6,409,-0.360,-0.360,-0.360,0.000,0.000,0.000
1640078397594479104,"2021-12-21,09:19:57",10.1.1.6,0.44884800910949707,-0.360,-0.360,-0.360,0.000,0.000,0.000
1640078398063684096,"2021-12-21,09:19:58",10.1.1.6,467,-0.350,-0.350,-0.350,0.000,0.000,0.000
1640078398084019968,"2021-12-21,09:19:58",10.1.1.6,0.4876439571380615,-0.350,-0.350,-0.350,0.000,0.000,0.000
1640078398442372096,"2021-12-21,09:19:58",10.1.1.6,356,-0.340,-0.340,-0.340,0.000,0.000,0.000
1640078398496012800,"2021-12-21,09:19:58",10.1.1.6,0.41039419174194336,-0.340,-0.340,-0.340,0.000,0.000,0.000
1640078398833096960,"2021-12-21,09:19:58",10.1.1.6,334,-0.330,-0.330,-0.330,0.000,0.000,0.000
1640078398863659008,"2021-12-21,09:19:58",10.1.1.6,0.3652169704437256,-0.330,-0.330,-0.330,0.000,0.000,0.000
1640078399763273984,"2021-12-21,09:19:59",10.1.1.6,897,-0.320,-0.320,-0.320,0.000,0.000,0.000
1640078399796770048,"2021-12-21,09:19:59",10.1.1.6,0.9313499927520752,-0.320,-0.320,-0.320,0.000,0.000,0.000
1640078401235690240,"2021-12-21,09:20:00",10.1.1.6,945,-0.310,-0.310,-0.310,0.000,0.000,0.000
1640078401294940928,"2021-12-21,09:20:01",10.1.1.6,1.4963769912719727,-0.310,-0.310,-0.310,0.000,0.000,0.000
1640078401789948928,"2021-12-21,09:20:01",10.1.1.6,490,-0.300,-0.300,-0.300,0.000,0.000,0.000
1640078401823784960,"2021-12-21,09:20:01",10.1.1.6,0.5245580673217773,-0.300,-0.300,-0.300,0.000,0.000,0.000
1640078402136454144,"2021-12-21,09:20:02",10.1.1.6,310,-0.290,-0.290,-0.290,0.000,0.000,0.000
1640078402166043904,"2021-12-21,09:20:02",10.1.1.6,0.3407111167907715,-0.290,-0.290,-0.290,0.000,0.000,0.000
1640078402496237056,"2021-12-21,09:20:02",10.1.1.6,328,-0.280,-0.280,-0.280,0.000,0.000,0.000
1640078402526457088,"2021-12-21,09:20:02",10.1.1.6,0.35904884338378906,-0.280,-0.280,-0.280,0.000,0.000,0.000
1640078402863184896,"2021-12-21,09:20:02",10.1.1.6,335,-0.270,-0.270,-0.270,0.000,0.000,0.000
1640078402896670976,"2021-12-21,09:20:02",10.1.1.6,0.36244821548461914,-0.270,-0.270,-0.270,0.000,0.000,0.000
1640078403247267840,"2021-12-21,09:20:03",10.1.1.6,348,-0.260,-0.260,-0.260,0.000,0.000,0.000
1640078403281042944,"2021-12-21,09:20:03",10.1.1.6,0.3824028968811035,-0.260,-0.260,-0.260,0.000,0.000,0.000
1640078403742870016,"2021-12-21,09:20:03",10.1.1.6,447,-0.250,-0.250,-0.250,0.000,0.000,0.000
1640078403770270208,"2021-12-21,09:20:03",10.1.1.6,0.486799955368042,-0.250,-0.250,-0.250,0.000,0.000,0.000
1640078404318582016,"2021-12-21,09:20:04",10.1.1.6,546,-0.240,-0.240,-0.240,0.000,0.000,0.000
1640078404359795200,"2021-12-21,09:20:04",10.1.1.6,0.5881049633026123,-0.240,-0.240,-0.240,0.000,0.000,0.000
1640078404810615040,"2021-12-21,09:20:04",10.1.1.6,447,-0.230,-0.230,-0.230,0.000,0.000,0.000
1640078404847266048,"2021-12-21,09:20:04",10.1.1.6,0.4839458465576172,-0.230,-0.230,-0.230,0.000,0.000,0.000
1640078405190280960,"2021-12-21,09:20:05",10.1.1.6,341,-0.220,-0.220,-0.220,0.000,0.000,0.000
1640078405247749120,"2021-12-21,09:20:05",10.1.1.6,0.39885807037353516,-0.220,-0.220,-0.220,0.000,0.000,0.000
1640078405586270208,"2021-12-21,09:20:05",10.1.1.6,336,-0.210,-0.210,-0.210,0.000,0.000,0.000
1640078405631609088,"2021-12-21,09:20:05",10.1.1.6,0.381152868270874,-0.210,-0.210,-0.210,0.000,0.000,0.000
1640078405985539840,"2021-12-21,09:20:05",10.1.1.6,0.35253095626831055,-0.200,-0.200,-0.200,0.000,0.000,0.000
1640078406348161024,"2021-12-21,09:20:06",10.1.1.6,355,-0.190,-0.190,-0.190,0.000,0.000,0.000
1640078406367337984,"2021-12-21,09:20:06",10.1.1.6,0.3746650218963623,-0.190,-0.190,-0.190,0.000,0.000,0.000
1640078406697815040,"2021-12-21,09:20:06",10.1.1.6,328,-0.180,-0.180,-0.180,0.000,0.000,0.000
1640078406739880960,"2021-12-21,09:20:06",10.1.1.6,0.37088608741760254,-0.180,-0.180,-0.180,0.000,0.000,0.000
1640078407112870912,"2021-12-21,09:20:07",10.1.1.6,369,-0.170,-0.170,-0.170,0.000,0.000,0.000
1640078407150889984,"2021-12-21,09:20:07",10.1.1.6,0.4088869094848633,-0.170,-0.170,-0.170,0.000,0.000,0.000
1640078407510333184,"2021-12-21,09:20:07",10.1.1.6,352,-0.160,-0.160,-0.160,0.000,0.000,0.000
1640078407558505984,"2021-12-21,09:20:07",10.1.1.6,0.4017481803894043,-0.160,-0.160,-0.160,0.000,0.000,0.000
1640078407910068992,"2021-12-21,09:20:07",10.1.1.6,350,-0.150,-0.150,-0.150,0.000,0.000,0.000
1640078407959294208,"2021-12-21,09:20:07",10.1.1.6,0.39656901359558105,-0.150,-0.150,-0.150,0.000,0.000,0.000
1640078408379527168,"2021-12-21,09:20:08",10.1.1.6,407,-0.140,-0.140,-0.140,0.000,0.000,0.000
1640078408472356096,"2021-12-21,09:20:08",10.1.1.6,0.5050568580627441,-0.140,-0.140,-0.140,0.000,0.000,0.000
1640078408948731904,"2021-12-21,09:20:08",10.1.1.6,471,-0.130,-0.130,-0.130,0.000,0.000,0.000
1640078409024392960,"2021-12-21,09:20:09",10.1.1.6,0.5476760864257812,-0.130,-0.130,-0.130,0.000,0.000,0.000
1640078409416729856,"2021-12-21,09:20:09",10.1.1.6,386,-0.120,-0.120,-0.120,0.000,0.000,0.000
1640078409480890880,"2021-12-21,09:20:09",10.1.1.6,0.4487118721008301,-0.120,-0.120,-0.120,0.000,0.000,0.000
1640078409857938176,"2021-12-21,09:20:09",10.1.1.6,373,-0.110,-0.110,-0.110,0.000,0.000,0.000
1640078409900783104,"2021-12-21,09:20:09",10.1.1.6,0.41646313667297363,-0.110,-0.110,-0.110,0.000,0.000,0.000
1640078410429195776,"2021-12-21,09:20:10",10.1.1.6,524,-0.100,-0.100,-0.100,0.000,0.000,0.000
1640078410446188032,"2021-12-21,09:20:10",10.1.1.6,0.5411269664764404,-0.100,-0.100,-0.100,0.000,0.000,0.000
1640078410846749184,"2021-12-21,09:20:10",10.1.1.6,398,-0.090,-0.090,-0.090,0.000,0.000,0.000
1640078410888922880,"2021-12-21,09:20:10",10.1.1.6,0.44075489044189453,-0.090,-0.090,-0.090,0.000,0.000,0.000
1640078411319643136,"2021-12-21,09:20:11",10.1.1.6,425,-0.080,-0.080,-0.080,0.000,0.000,0.000
1640078411388887040,"2021-12-21,09:20:11",10.1.1.6,0.4947178363800049,-0.080,-0.080,-0.080,0.000,0.000,0.000
1640078411766600960,"2021-12-21,09:20:11",10.1.1.6,375,-0.070,-0.070,-0.070,0.000,0.000,0.000
1640078411831825920,"2021-12-21,09:20:11",10.1.1.6,0.44094395637512207,-0.070,-0.070,-0.070,0.000,0.000,0.000
1640078412378776064,"2021-12-21,09:20:12",10.1.1.6,491,-0.060,-0.060,-0.060,0.000,0.000,0.000
1640078412383717120,"2021-12-21,09:20:12",10.1.1.6,0.5291821956634521,-0.060,-0.060,-0.060,0.000,0.000,0.000
1640078412787303936,"2021-12-21,09:20:12",10.1.1.6,394,-0.050,-0.050,-0.050,0.000,0.000,0.000
1640078412830689792,"2021-12-21,09:20:12",10.1.1.6,0.4368560314178467,-0.050,-0.050,-0.050,0.000,0.000,0.000
1640078413176829952,"2021-12-21,09:20:13",10.1.1.6,342,-0.040,-0.040,-0.040,0.000,0.000,0.000
1640078413231909888,"2021-12-21,09:20:13",10.1.1.6,0.3979499340057373,-0.040,-0.040,-0.040,0.000,0.000,0.000
1640078413583075072,"2021-12-21,09:20:13",10.1.1.6,349,-0.030,-0.030,-0.030,0.000,0.000,0.000
1640078413649096960,"2021-12-21,09:20:13",10.1.1.6,0.41589999198913574,-0.030,-0.030,-0.030,0.000,0.000,0.000
1640078413998706176,"2021-12-21,09:20:13",10.1.1.6,346,-0.020,-0.020,-0.020,0.000,0.000,0.000
1640078414048006912,"2021-12-21,09:20:14",10.1.1.6,0.3956270217895508,-0.020,-0.020,-0.020,0.000,0.000,0.000
1640078414409077760,"2021-12-21,09:20:14",10.1.1.6,359,-0.010,-0.010,-0.010,0.000,0.000,0.000
1640078414456037120,"2021-12-21,09:20:14",10.1.1.6,0.4065978527069092,-0.010,-0.010,-0.010,0.000,0.000,0.000
1640078414945745920,"2021-12-21,09:20:14",10.1.1.6,486,0.000,0.000,0.000,0.000,0.000,0.000
1640078414987664896,"2021-12-21,09:20:14",10.1.1.6,0.5287749767303467,0.000,0.000,0.000,0.000,0.000,0.000
1640078415339867136,"2021-12-21,09:20:15",10.1.1.6,350,-0.010,-0.010,-0.010,0.000,0.000,0.000
1640078415393296128,"2021-12-21,09:20:15",10.1.1.6,0.404080867767334,-0.010,-0.010,-0.010,0.000,0.000,0.000
1640078415728920064,"2021-12-21,09:20:15",10.1.1.6,333,-0.020,-0.020,-0.020,0.000,0.000,0.000
1640078415780548096,"2021-12-21,09:20:15",10.1.1.6,0.3851318359375,-0.020,-0.020,-0.020,0.000,0.000,0.000
1640078416177096960,"2021-12-21,09:20:16",10.1.1.6,394,-0.030,-0.030,-0.030,0.000,0.000,0.000
1640078416241252864,"2021-12-21,09:20:16",10.1.1.6,0.45908021926879883,-0.030,-0.030,-0.030,0.000,0.000,0.000
1640078416636930048,"2021-12-21,09:20:16",10.1.1.6,393,-0.040,-0.040,-0.040,0.000,0.000,0.000
1640078416698126080,"2021-12-21,09:20:16",10.1.1.6,0.45530104637145996,-0.040,-0.040,-0.040,0.000,0.000,0.000
1640078417144186880,"2021-12-21,09:20:17",10.1.1.6,432,-0.050,-0.050,-0.050,0.000,0.000,0.000
1640078417187560192,"2021-12-21,09:20:17",10.1.1.6,0.47661399841308594,-0.050,-0.050,-0.050,0.000,0.000,0.000
1640078417573863936,"2021-12-21,09:20:17",10.1.1.6,384,-0.060,-0.060,-0.060,0.000,0.000,0.000
1640078417634680064,"2021-12-21,09:20:17",10.1.1.6,0.44430088996887207,-0.060,-0.060,-0.060,0.000,0.000,0.000
1640078417983539200,"2021-12-21,09:20:17",10.1.1.6,347,-0.070,-0.070,-0.070,0.000,0.000,0.000
1640078418015073024,"2021-12-21,09:20:18",10.1.1.6,0.3787689208984375,-0.070,-0.070,-0.070,0.000,0.000,0.000
1640078418427609088,"2021-12-21,09:20:18",10.1.1.6,409,-0.080,-0.080,-0.080,0.000,0.000,0.000
1640078418529310976,"2021-12-21,09:20:18",10.1.1.6,0.5111138820648193,-0.080,-0.080,-0.080,0.000,0.000,0.000
1640078418998505984,"2021-12-21,09:20:18",10.1.1.6,445,-0.090,-0.090,-0.090,0.000,0.000,0.000
1640078419036603904,"2021-12-21,09:20:19",10.1.1.6,0.48387598991394043,-0.090,-0.090,-0.090,0.000,0.000,0.000
1640078419467500032,"2021-12-21,09:20:19",10.1.1.6,428,-0.100,-0.100,-0.100,0.000,0.000,0.000
1640078419480495104,"2021-12-21,09:20:19",10.1.1.6,0.4416370391845703,-0.100,-0.100,-0.100,0.000,0.000,0.000
1640078420010899968,"2021-12-21,09:20:20",10.1.1.6,519,-0.110,-0.110,-0.110,0.000,0.000,0.000
1640078420055851008,"2021-12-21,09:20:20",10.1.1.6,0.5725061893463135,-0.110,-0.110,-0.110,0.000,0.000,0.000
1640078420683693824,"2021-12-21,09:20:20",10.1.1.6,613,-0.120,-0.120,-0.120,0.000,0.000,0.000
1640078420748716032,"2021-12-21,09:20:20",10.1.1.6,0.6797239780426025,-0.120,-0.120,-0.120,0.000,0.000,0.000
1640078426647481856,"2021-12-21,09:20:21",10.1.1.6,0.7742481231689453,-0.130,-0.130,-0.130,0.000,0.000,0.000
1640078433001280000,"2021-12-21,09:20:26",10.1.1.6,6145,-0.130,-0.130,-0.130,0.000,0.000,0.000
1640078434195361024,"2021-12-21,09:20:34",10.1.1.6,1079,-0.140,-0.140,-0.140,0.000,0.000,0.000
1640078434220696832,"2021-12-21,09:20:34",10.1.1.6,1.1051099300384521,-0.140,-0.140,-0.140,0.000,0.000,0.000
1640078434537414144,"2021-12-21,09:20:34",10.1.1.6,0.31551599502563477,-0.150,-0.150,-0.150,0.000,0.000,0.000
1640078434902949120,"2021-12-21,09:20:34",10.1.1.6,363,-0.160,-0.160,-0.160,0.000,0.000,0.000
1640078434966011904,"2021-12-21,09:20:34",10.1.1.6,0.4266080856323242,-0.160,-0.160,-0.160,0.000,0.000,0.000
1640078435262514944,"2021-12-21,09:20:35",10.1.1.6,295,-0.170,-0.170,-0.170,0.000,0.000,0.000
1640078435300029952,"2021-12-21,09:20:35",10.1.1.6,0.33284902572631836,-0.170,-0.170,-0.170,0.000,0.000,0.000
1640078442991795968,"2021-12-21,09:20:42",10.1.1.6,7690,-0.180,-0.180,-0.180,0.000,0.000,0.000
1640078443042209024,"2021-12-21,09:20:43",10.1.1.6,7.740875959396362,-0.180,-0.180,-0.180,0.000,0.000,0.000
1640078443421135872,"2021-12-21,09:20:43",10.1.1.6,377,-0.190,-0.190,-0.190,0.000,0.000,0.000
1640078443463897856,"2021-12-21,09:20:43",10.1.1.6,0.42031002044677734,-0.190,-0.190,-0.190,0.000,0.000,0.000
1640078443804582144,"2021-12-21,09:20:43",10.1.1.6,339,-0.200,-0.200,-0.200,0.000,0.000,0.000
1640078443873060096,"2021-12-21,09:20:43",10.1.1.6,0.4076578617095947,-0.200,-0.200,-0.200,0.000,0.000,0.000
1640078444819053824,"2021-12-21,09:20:44",10.1.1.6,507,-0.210,-0.210,-0.210,0.000,0.000,0.000
1640078444824857088,"2021-12-21,09:20:44",10.1.1.6,0.9503180980682373,-0.210,-0.210,-0.210,0.000,0.000,0.000
1640078445247910912,"2021-12-21,09:20:45",10.1.1.6,413,-0.220,-0.220,-0.220,0.000,0.000,0.000
1640078445294606080,"2021-12-21,09:20:45",10.1.1.6,0.46083807945251465,-0.220,-0.220,-0.220,0.000,0.000,0.000
1640078445618302976,"2021-12-21,09:20:45",10.1.1.6,322,-0.230,-0.230,-0.230,0.000,0.000,0.000
1640078445684595968,"2021-12-21,09:20:45",10.1.1.6,0.3885650634765625,-0.230,-0.230,-0.230,0.000,0.000,0.000
1640078446027736064,"2021-12-21,09:20:46",10.1.1.6,340,-0.240,-0.240,-0.240,0.000,0.000,0.000
1640078446060410112,"2021-12-21,09:20:46",10.1.1.6,0.3737490177154541,-0.240,-0.240,-0.240,0.000,0.000,0.000
1640078446406176000,"2021-12-21,09:20:46",10.1.1.6,344,-0.250,-0.250,-0.250,0.000,0.000,0.000
1640078446428716800,"2021-12-21,09:20:46",10.1.1.6,0.3666708469390869,-0.250,-0.250,-0.250,0.000,0.000,0.000
1640078446785212928,"2021-12-21,09:20:46",10.1.1.6,350,-0.260,-0.260,-0.260,0.000,0.000,0.000
1640078446806368000,"2021-12-21,09:20:46",10.1.1.6,0.3715939521789551,-0.260,-0.260,-0.260,0.000,0.000,0.000
1640078447137073920,"2021-12-21,09:20:47",10.1.1.6,326,-0.270,-0.270,-0.270,0.000,0.000,0.000
1640078447201957888,"2021-12-21,09:20:47",10.1.1.6,0.39142894744873047,-0.270,-0.270,-0.270,0.000,0.000,0.000
1640078447664702976,"2021-12-21,09:20:47",10.1.1.6,453,-0.280,-0.280,-0.280,0.000,0.000,0.000
1640078447741502976,"2021-12-21,09:20:47",10.1.1.6,0.5308160781860352,-0.280,-0.280,-0.280,0.000,0.000,0.000
1640078448144932096,"2021-12-21,09:20:48",10.1.1.6,391,-0.290,-0.290,-0.290,0.000,0.000,0.000
1640078448188532224,"2021-12-21,09:20:48",10.1.1.6,0.43482089042663574,-0.290,-0.290,-0.290,0.000,0.000,0.000
1640078448632237824,"2021-12-21,09:20:48",10.1.1.6,437,-0.300,-0.300,-0.300,0.000,0.000,0.000
1640078448777746944,"2021-12-21,09:20:48",10.1.1.6,0.5831019878387451,-0.300,-0.300,-0.300,0.000,0.000,0.000
1640078449197643008,"2021-12-21,09:20:49",10.1.1.6,413,-0.310,-0.310,-0.310,0.000,0.000,0.000
1640078449240710144,"2021-12-21,09:20:49",10.1.1.6,0.4550349712371826,-0.310,-0.310,-0.310,0.000,0.000,0.000
1640078449722580992,"2021-12-21,09:20:49",10.1.1.6,0.4774971008300781,-0.320,-0.320,-0.320,0.000,0.000,0.000
1640078450191620096,"2021-12-21,09:20:50",10.1.1.6,460,-0.330,-0.330,-0.330,0.000,0.000,0.000
1640078450262289920,"2021-12-21,09:20:50",10.1.1.6,0.5313491821289062,-0.330,-0.330,-0.330,0.000,0.000,0.000
1640078450622221824,"2021-12-21,09:20:50",10.1.1.6,357,-0.340,-0.340,-0.340,0.000,0.000,0.000
1640078450682811904,"2021-12-21,09:20:50",10.1.1.6,0.417827844619751,-0.340,-0.340,-0.340,0.000,0.000,0.000
1640078451129079040,"2021-12-21,09:20:51",10.1.1.6,441,-0.350,-0.350,-0.350,0.000,0.000,0.000
1640078451241411072,"2021-12-21,09:20:51",10.1.1.6,0.5536048412322998,-0.350,-0.350,-0.350,0.000,0.000,0.000
1640078451687700992,"2021-12-21,09:20:51",10.1.1.6,442,-0.360,-0.360,-0.360,0.000,0.000,0.000
1640078451764024064,"2021-12-21,09:20:51",10.1.1.6,0.5191960334777832,-0.360,-0.360,-0.360,0.000,0.000,0.000
1640078452116419072,"2021-12-21,09:20:52",10.1.1.6,350,-0.370,-0.370,-0.370,0.000,0.000,0.000
1640078452166894848,"2021-12-21,09:20:52",10.1.1.6,0.4011361598968506,-0.370,-0.370,-0.370,0.000,0.000,0.000
1640078452516724992,"2021-12-21,09:20:52",10.1.1.6,347,-0.380,-0.380,-0.380,0.000,0.000,0.000
1640078452558605056,"2021-12-21,09:20:52",10.1.1.6,0.3899209499359131,-0.380,-0.380,-0.380,0.000,0.000,0.000
1640078452973275904,"2021-12-21,09:20:52",10.1.1.6,410,-0.390,-0.390,-0.390,0.000,0.000,0.000
1640078453005659136,"2021-12-21,09:20:53",10.1.1.6,0.4425351619720459,-0.390,-0.390,-0.390,0.000,0.000,0.000
1640078453348134144,"2021-12-21,09:20:53",10.1.1.6,339,-0.400,-0.400,-0.400,0.000,0.000,0.000
1640078453388734976,"2021-12-21,09:20:53",10.1.1.6,0.3801720142364502,-0.400,-0.400,-0.400,0.000,0.000,0.000
1640078453766025984,"2021-12-21,09:20:53",10.1.1.6,371,-0.410,-0.410,-0.410,0.000,0.000,0.000
1640078453825586176,"2021-12-21,09:20:53",10.1.1.6,0.43067193031311035,-0.410,-0.410,-0.410,0.000,0.000,0.000
1640078454281251072,"2021-12-21,09:20:54",10.1.1.6,0.4531371593475342,-0.420,-0.420,-0.420,0.000,0.000,0.000
1640078454281959936,"2021-12-21,09:20:54",10.1.1.6,454,-0.420,-0.420,-0.420,0.000,0.000,0.000
1640078454792662016,"2021-12-21,09:20:54",10.1.1.6,477,-0.430,-0.430,-0.430,0.000,0.000,0.000
1640078454860460032,"2021-12-21,09:20:54",10.1.1.6,0.544734001159668,-0.430,-0.430,-0.430,0.000,0.000,0.000
1640078454866020864,"2021-12-21,09:20:54",10.1.1.6,-3,-0.440,-0.440,-0.440,0.000,0.000,0.000
1640078455348769024,"2021-12-21,09:20:55",10.1.1.6,0.4854001998901367,-0.440,-0.440,-0.440,0.000,0.000,0.000
1640078455782025216,"2021-12-21,09:20:55",10.1.1.6,424,-0.450,-0.450,-0.450,0.000,0.000,0.000
1640078455828310016,"2021-12-21,09:20:55",10.1.1.6,0.4708521366119385,-0.450,-0.450,-0.450,0.000,0.000,0.000
1640078456421969920,"2021-12-21,09:20:56",10.1.1.6,589,-0.460,-0.460,-0.460,0.000,0.000,0.000
1640078456457648896,"2021-12-21,09:20:56",10.1.1.6,0.6255831718444824,-0.460,-0.460,-0.460,0.000,0.000,0.000
1640078456871810816,"2021-12-21,09:20:56",10.1.1.6,395,-0.470,-0.470,-0.470,0.000,0.000,0.000
1640078456930653952,"2021-12-21,09:20:56",10.1.1.6,0.464385986328125,-0.470,-0.470,-0.470,0.000,0.000,0.000
1640078457362204928,"2021-12-21,09:20:57",10.1.1.6,425,-0.480,-0.480,-0.480,0.000,0.000,0.000
1640078457405489920,"2021-12-21,09:20:57",10.1.1.6,0.46866607666015625,-0.480,-0.480,-0.480,0.000,0.000,0.000
1640078457789048064,"2021-12-21,09:20:57",10.1.1.6,381,-0.490,-0.490,-0.490,0.000,0.000,0.000
1640078457830804224,"2021-12-21,09:20:57",10.1.1.6,0.4229390621185303,-0.490,-0.490,-0.490,0.000,0.000,0.000
1640078458178315008,"2021-12-21,09:20:58",10.1.1.6,345,-0.480,-0.480,-0.480,0.000,0.000,0.000
1640078458229788160,"2021-12-21,09:20:58",10.1.1.6,0.3970670700073242,-0.480,-0.480,-0.480,0.000,0.000,0.000
1640078458679785984,"2021-12-21,09:20:58",10.1.1.6,436,-0.470,-0.470,-0.470,0.000,0.000,0.000
1640078458768516096,"2021-12-21,09:20:58",10.1.1.6,0.5094728469848633,-0.470,-0.470,-0.470,0.000,0.000,0.000
1640078459245614080,"2021-12-21,09:20:59",10.1.1.6,474,-0.460,-0.460,-0.460,0.000,0.000,0.000
1640078459296688128,"2021-12-21,09:20:59",10.1.1.6,0.5262479782104492,-0.460,-0.460,-0.460,0.000,0.000,0.000
1640078459795514112,"2021-12-21,09:20:59",10.1.1.6,496,-0.450,-0.450,-0.450,0.000,0.000,0.000
1640078459832258816,"2021-12-21,09:20:59",10.1.1.6,0.5332229137420654,-0.450,-0.450,-0.450,0.000,0.000,0.000
1640078460225048064,"2021-12-21,09:21:00",10.1.1.6,383,-0.440,-0.440,-0.440,0.000,0.000,0.000
1640078460268374016,"2021-12-21,09:21:00",10.1.1.6,0.42699503898620605,-0.440,-0.440,-0.440,0.000,0.000,0.000
1640078460637489920,"2021-12-21,09:21:00",10.1.1.6,362,-0.430,-0.430,-0.430,0.000,0.000,0.000
1640078460713662976,"2021-12-21,09:21:00",10.1.1.6,0.4390568733215332,-0.430,-0.430,-0.430,0.000,0.000,0.000
1640078461071983104,"2021-12-21,09:21:01",10.1.1.6,344,-0.420,-0.420,-0.420,0.000,0.000,0.000
1640078461117982976,"2021-12-21,09:21:01",10.1.1.6,0.39087986946105957,-0.420,-0.420,-0.420,0.000,0.000,0.000
1640078461473485056,"2021-12-21,09:21:01",10.1.1.6,343,-0.410,-0.410,-0.410,0.000,0.000,0.000
1640078461554060032,"2021-12-21,09:21:01",10.1.1.6,0.422482967376709,-0.410,-0.410,-0.410,0.000,0.000,0.000
1640078461943526912,"2021-12-21,09:21:01",10.1.1.6,384,-0.400,-0.400,-0.400,0.000,0.000,0.000
1640078461972731136,"2021-12-21,09:21:01",10.1.1.6,0.41417789459228516,-0.400,-0.400,-0.400,0.000,0.000,0.000
1640078462367614976,"2021-12-21,09:21:02",10.1.1.6,390,-0.390,-0.390,-0.390,0.000,0.000,0.000
1640078462399707136,"2021-12-21,09:21:02",10.1.1.6,0.4059879779815674,-0.390,-0.390,-0.390,0.000,0.000,0.000
1640078462779331072,"2021-12-21,09:21:02",10.1.1.6,371,-0.380,-0.380,-0.380,0.000,0.000,0.000
1640078462915580160,"2021-12-21,09:21:02",10.1.1.6,0.5078599452972412,-0.380,-0.380,-0.380,0.000,0.000,0.000
1640078463303419136,"2021-12-21,09:21:03",10.1.1.6,376,-0.370,-0.370,-0.370,0.000,0.000,0.000
1640078463324968960,"2021-12-21,09:21:03",10.1.1.6,0.3976578712463379,-0.370,-0.370,-0.370,0.000,0.000,0.000
1640078463719309056,"2021-12-21,09:21:03",10.1.1.6,366,-0.360,-0.360,-0.360,0.000,0.000,0.000
1640078463772017920,"2021-12-21,09:21:03",10.1.1.6,0.41607093811035156,-0.360,-0.360,-0.360,0.000,0.000,0.000
1640078464345361920,"2021-12-21,09:21:04",10.1.1.6,538,-0.350,-0.350,-0.350,0.000,0.000,0.000
1640078464376989952,"2021-12-21,09:21:04",10.1.1.6,0.570716142654419,-0.350,-0.350,-0.350,0.000,0.000,0.000
1640078464856468992,"2021-12-21,09:21:04",10.1.1.6,455,-0.340,-0.340,-0.340,0.000,0.000,0.000
1640078464938023168,"2021-12-21,09:21:04",10.1.1.6,0.5368318557739258,-0.340,-0.340,-0.340,0.000,0.000,0.000
1640078465296747008,"2021-12-21,09:21:05",10.1.1.6,347,-0.330,-0.330,-0.330,0.000,0.000,0.000
1640078465350027008,"2021-12-21,09:21:05",10.1.1.6,0.4007740020751953,-0.330,-0.330,-0.330,0.000,0.000,0.000
1640078465758528000,"2021-12-21,09:21:05",10.1.1.6,405,-0.320,-0.320,-0.320,0.000,0.000,0.000
1640078465792527872,"2021-12-21,09:21:05",10.1.1.6,0.4392108917236328,-0.320,-0.320,-0.320,0.000,0.000,0.000
1640078466180707072,"2021-12-21,09:21:06",10.1.1.6,386,-0.310,-0.310,-0.310,0.000,0.000,0.000
1640078466194691840,"2021-12-21,09:21:06",10.1.1.6,0.4004240036010742,-0.310,-0.310,-0.310,0.000,0.000,0.000
1640078467605381120,"2021-12-21,09:21:07",10.1.1.6,1404,-0.300,-0.300,-0.300,0.000,0.000,0.000
1640078467660020224,"2021-12-21,09:21:07",10.1.1.6,1.4588310718536377,-0.300,-0.300,-0.300,0.000,0.000,0.000
1640078468148515072,"2021-12-21,09:21:08",10.1.1.6,487,-0.290,-0.290,-0.290,0.000,0.000,0.000
1640078468198323968,"2021-12-21,09:21:08",10.1.1.6,0.5370059013366699,-0.290,-0.290,-0.290,0.000,0.000,0.000
1640078468610896128,"2021-12-21,09:21:08",10.1.1.6,408,-0.280,-0.280,-0.280,0.000,0.000,0.000
1640078468637423104,"2021-12-21,09:21:08",10.1.1.6,0.43488287925720215,-0.280,-0.280,-0.280,0.000,0.000,0.000
1640078469061202944,"2021-12-21,09:21:09",10.1.1.6,420,-0.270,-0.270,-0.270,0.000,0.000,0.000
1640078469209687040,"2021-12-21,09:21:09",10.1.1.6,0.5692591667175293,-0.270,-0.270,-0.270,0.000,0.000,0.000
1640078469831276032,"2021-12-21,09:21:09",10.1.1.6,0.6007530689239502,-0.260,-0.260,-0.260,0.000,0.000,0.000
1640078470235375872,"2021-12-21,09:21:10",10.1.1.6,401,-0.250,-0.250,-0.250,0.000,0.000,0.000
1640078470336889856,"2021-12-21,09:21:10",10.1.1.6,0.5032508373260498,-0.250,-0.250,-0.250,0.000,0.000,0.000
1640078470776207872,"2021-12-21,09:21:10",10.1.1.6,434,-0.240,-0.240,-0.240,0.000,0.000,0.000
1640078470844396032,"2021-12-21,09:21:10",10.1.1.6,0.5036649703979492,-0.240,-0.240,-0.240,0.000,0.000,0.000
1640078471283232000,"2021-12-21,09:21:11",10.1.1.6,434,-0.230,-0.230,-0.230,0.000,0.000,0.000
1640078471294658048,"2021-12-21,09:21:11",10.1.1.6,0.44478297233581543,-0.230,-0.230,-0.230,0.000,0.000,0.000
1640078471659697152,"2021-12-21,09:21:11",10.1.1.6,363,-0.220,-0.220,-0.220,0.000,0.000,0.000
1640078471775719936,"2021-12-21,09:21:11",10.1.1.6,0.4792618751525879,-0.220,-0.220,-0.220,0.000,0.000,0.000
1640078472181592064,"2021-12-21,09:21:12",10.1.1.6,404,-0.210,-0.210,-0.210,0.000,0.000,0.000
1640078472223465984,"2021-12-21,09:21:12",10.1.1.6,0.4461240768432617,-0.210,-0.210,-0.210,0.000,0.000,0.000
1640078472611480832,"2021-12-21,09:21:12",10.1.1.6,386,-0.200,-0.200,-0.200,0.000,0.000,0.000
1640078472645605120,"2021-12-21,09:21:12",10.1.1.6,0.4202840328216553,-0.200,-0.200,-0.200,0.000,0.000,0.000
1640078473213617920,"2021-12-21,09:21:13",10.1.1.6,565,-0.190,-0.190,-0.190,0.000,0.000,0.000
1640078473304125952,"2021-12-21,09:21:13",10.1.1.6,0.6558248996734619,-0.190,-0.190,-0.190,0.000,0.000,0.000
1640078473779017984,"2021-12-21,09:21:13",10.1.1.6,0.4724249839782715,-0.180,-0.180,-0.180,0.000,0.000,0.000
1640078473791565056,"2021-12-21,09:21:13",10.1.1.6,-55,-0.170,-0.170,-0.170,0.000,0.000,0.000
1640078474283153920,"2021-12-21,09:21:14",10.1.1.6,0.498013973236084,-0.170,-0.170,-0.170,0.000,0.000,0.000
1640078474326019072,"2021-12-21,09:21:14",10.1.1.6,-25,-0.160,-0.160,-0.160,0.000,0.000,0.000
1640078474983542016,"2021-12-21,09:21:14",10.1.1.6,0.6244862079620361,-0.160,-0.160,-0.160,0.000,0.000,0.000
1640078475564158976,"2021-12-21,09:21:15",10.1.1.6,572,-0.150,-0.150,-0.150,0.000,0.000,0.000
1640078475594445056,"2021-12-21,09:21:15",10.1.1.6,0.602834939956665,-0.150,-0.150,-0.150,0.000,0.000,0.000
1640078475989563904,"2021-12-21,09:21:15",10.1.1.6,391,-0.140,-0.140,-0.140,0.000,0.000,0.000
1640078476042089984,"2021-12-21,09:21:16",10.1.1.6,0.4443049430847168,-0.140,-0.140,-0.140,0.000,0.000,0.000
1640078476400402176,"2021-12-21,09:21:16",10.1.1.6,356,-0.130,-0.130,-0.130,0.000,0.000,0.000
1640078476515623168,"2021-12-21,09:21:16",10.1.1.6,0.47197818756103516,-0.130,-0.130,-0.130,0.000,0.000,0.000
1640078476959523072,"2021-12-21,09:21:16",10.1.1.6,435,-0.120,-0.120,-0.120,0.000,0.000,0.000
1640078477029927936,"2021-12-21,09:21:17",10.1.1.6,0.5059809684753418,-0.120,-0.120,-0.120,0.000,0.000,0.000
1640078477551401984,"2021-12-21,09:21:17",10.1.1.6,513,-0.110,-0.110,-0.110,0.000,0.000,0.000
1640078477617854976,"2021-12-21,09:21:17",10.1.1.6,0.5797460079193115,-0.110,-0.110,-0.110,0.000,0.000,0.000
1640078477992528896,"2021-12-21,09:21:17",10.1.1.6,371,-0.100,-0.100,-0.100,0.000,0.000,0.000
1640078478062535936,"2021-12-21,09:21:18",10.1.1.6,0.44170594215393066,-0.100,-0.100,-0.100,0.000,0.000,0.000
1640078478433625856,"2021-12-21,09:21:18",10.1.1.6,369,-0.090,-0.090,-0.090,0.000,0.000,0.000
1640078478447963904,"2021-12-21,09:21:18",10.1.1.6,0.38372302055358887,-0.090,-0.090,-0.090,0.000,0.000,0.000
1640078478917882880,"2021-12-21,09:21:18",10.1.1.6,460,-0.080,-0.080,-0.080,0.000,0.000,0.000
1640078478966955008,"2021-12-21,09:21:18",10.1.1.6,0.5092930793762207,-0.080,-0.080,-0.080,0.000,0.000,0.000
1640078479736222976,"2021-12-21,09:21:19",10.1.1.6,714,-0.070,-0.070,-0.070,0.000,0.000,0.000
1640078479753931008,"2021-12-21,09:21:19",10.1.1.6,0.7324800491333008,-0.070,-0.070,-0.070,0.000,0.000,0.000
1640078480173582080,"2021-12-21,09:21:20",10.1.1.6,416,-0.060,-0.060,-0.060,0.000,0.000,0.000
1640078480226033920,"2021-12-21,09:21:20",10.1.1.6,0.469149112701416,-0.060,-0.060,-0.060,0.000,0.000,0.000
1640078480596271104,"2021-12-21,09:21:20",10.1.1.6,368,-0.050,-0.050,-0.050,0.000,0.000,0.000
1640078480667963904,"2021-12-21,09:21:20",10.1.1.6,0.4405629634857178,-0.050,-0.050,-0.050,0.000,0.000,0.000
1640078481089574144,"2021-12-21,09:21:21",10.1.1.6,416,-0.040,-0.040,-0.040,0.000,0.000,0.000
1640078481127238912,"2021-12-21,09:21:21",10.1.1.6,0.4572148323059082,-0.040,-0.040,-0.040,0.000,0.000,0.000
1640078481568027136,"2021-12-21,09:21:21",10.1.1.6,438,-0.030,-0.030,-0.030,0.000,0.000,0.000
1640078481665206016,"2021-12-21,09:21:21",10.1.1.6,0.5348968505859375,-0.030,-0.030,-0.030,0.000,0.000,0.000
1640078482081559808,"2021-12-21,09:21:22",10.1.1.6,414,-0.020,-0.020,-0.020,0.000,0.000,0.000
1640078482204057856,"2021-12-21,09:21:22",10.1.1.6,0.5367779731750488,-0.020,-0.020,-0.020,0.000,0.000,0.000
1640078482555429888,"2021-12-21,09:21:22",10.1.1.6,349,-0.010,-0.010,-0.010,0.000,0.000,0.000
1640078482570328832,"2021-12-21,09:21:22",10.1.1.6,0.3639950752258301,-0.010,-0.010,-0.010,0.000,0.000,0.000
1640078483005925888,"2021-12-21,09:21:23",10.1.1.6,407,0.000,0.000,0.000,0.000,0.000,0.000
1640078483116589056,"2021-12-21,09:21:23",10.1.1.6,0.5179150104522705,0.000,0.000,0.000,0.000,0.000,0.000
1640078483817518848,"2021-12-21,09:21:23",10.1.1.6,639,-0.010,-0.010,-0.010,0.000,0.000,0.000
1640078483943425792,"2021-12-21,09:21:23",10.1.1.6,0.7651779651641846,-0.010,-0.010,-0.010,0.000,0.000,0.000
1640078484325532928,"2021-12-21,09:21:24",10.1.1.6,380,-0.020,-0.020,-0.020,0.000,0.000,0.000
1640078484369263872,"2021-12-21,09:21:24",10.1.1.6,0.4242219924926758,-0.020,-0.020,-0.020,0.000,0.000,0.000
1640078484897607936,"2021-12-21,09:21:24",10.1.1.6,526,-0.030,-0.030,-0.030,0.000,0.000,0.000
1640078484964364032,"2021-12-21,09:21:24",10.1.1.6,0.593364953994751,-0.030,-0.030,-0.030,0.000,0.000,0.000
1640078485375356928,"2021-12-21,09:21:25",10.1.1.6,393,-0.040,-0.040,-0.040,0.000,0.000,0.000
1640078485422245888,"2021-12-21,09:21:25",10.1.1.6,0.4405980110168457,-0.040,-0.040,-0.040,0.000,0.000,0.000
1640078485917933056,"2021-12-21,09:21:25",10.1.1.6,493,-0.050,-0.050,-0.050,0.000,0.000,0.000
1640078485992261888,"2021-12-21,09:21:25",10.1.1.6,0.568396806716919,-0.050,-0.050,-0.050,0.000,0.000,0.000
1640078486392564992,"2021-12-21,09:21:26",10.1.1.6,397,-0.060,-0.060,-0.060,0.000,0.000,0.000
1640078486443049984,"2021-12-21,09:21:26",10.1.1.6,0.4481940269470215,-0.060,-0.060,-0.060,0.000,0.000,0.000
1640078486839972096,"2021-12-21,09:21:26",10.1.1.6,381,-0.070,-0.070,-0.070,0.000,0.000,0.000
1640078486879720960,"2021-12-21,09:21:26",10.1.1.6,0.421126127243042,-0.070,-0.070,-0.070,0.000,0.000,0.000
1640078487496707072,"2021-12-21,09:21:27",10.1.1.6,603,-0.080,-0.080,-0.080,0.000,0.000,0.000
1640078487528467968,"2021-12-21,09:21:27",10.1.1.6,0.6357579231262207,-0.080,-0.080,-0.080,0.000,0.000,0.000
1640078488087971840,"2021-12-21,09:21:28",10.1.1.6,337,-0.090,-0.090,-0.090,0.000,0.000,0.000
1640078488177597952,"2021-12-21,09:21:28",10.1.1.6,0.42754101753234863,-0.090,-0.090,-0.090,0.000,0.000,0.000
1640078488548934912,"2021-12-21,09:21:28",10.1.1.6,369,-0.100,-0.100,-0.100,0.000,0.000,0.000
1640078488612584960,"2021-12-21,09:21:28",10.1.1.6,0.43317294120788574,-0.100,-0.100,-0.100,0.000,0.000,0.000
1640078489037309952,"2021-12-21,09:21:29",10.1.1.6,420,-0.110,-0.110,-0.110,0.000,0.000,0.000
1640078489103259136,"2021-12-21,09:21:29",10.1.1.6,0.48616886138916016,-0.110,-0.110,-0.110,0.000,0.000,0.000
1640078489559560960,"2021-12-21,09:21:29",10.1.1.6,452,-0.120,-0.120,-0.120,0.000,0.000,0.000
1640078489690475008,"2021-12-21,09:21:29",10.1.1.6,0.5807881355285645,-0.120,-0.120,-0.120,0.000,0.000,0.000
1640078490125438976,"2021-12-21,09:21:30",10.1.1.6,432,-0.130,-0.130,-0.130,0.000,0.000,0.000
1640078490258675200,"2021-12-21,09:21:30",10.1.1.6,0.5660698413848877,-0.130,-0.130,-0.130,0.000,0.000,0.000
1640078500824798976,"2021-12-21,09:21:31",10.1.1.6,754,-0.140,-0.140,-0.140,0.000,0.000,0.000
1640078502588371968,"2021-12-21,09:21:41",10.1.1.6,11.002552032470703,-0.140,-0.140,-0.140,0.000,0.000,0.000
1640078502605559040,"2021-12-21,09:21:42",10.1.1.6,-4,-0.150,-0.150,-0.150,0.000,0.000,0.000
1640078505400489984,"2021-12-21,09:21:45",10.1.1.6,2.8021509647369385,-0.150,-0.150,-0.150,0.000,0.000,0.000
1640078505772020224,"2021-12-21,09:21:45",10.1.1.6,369,-0.160,-0.160,-0.160,0.000,0.000,0.000
1640078505787795968,"2021-12-21,09:21:45",10.1.1.6,0.38555192947387695,-0.160,-0.160,-0.160,0.000,0.000,0.000
1640078506101320960,"2021-12-21,09:21:46",10.1.1.6,311,-0.170,-0.170,-0.170,0.000,0.000,0.000
1640078506145824000,"2021-12-21,09:21:46",10.1.1.6,0.35616588592529297,-0.170,-0.170,-0.170,0.000,0.000,0.000
1640078506452760832,"2021-12-21,09:21:46",10.1.1.6,305,-0.180,-0.180,-0.180,0.000,0.000,0.000
1640078506498706176,"2021-12-21,09:21:46",10.1.1.6,0.35151100158691406,-0.180,-0.180,-0.180,0.000,0.000,0.000
1640078506814022912,"2021-12-21,09:21:46",10.1.1.6,312,-0.190,-0.190,-0.190,0.000,0.000,0.000
1640078506875936000,"2021-12-21,09:21:46",10.1.1.6,0.37412595748901367,-0.190,-0.190,-0.190,0.000,0.000,0.000
1640078526624100864,"2021-12-21,09:22:06",10.1.1.6,19654,-0.200,-0.200,-0.200,0.000,0.000,0.000
1640078526633562112,"2021-12-21,09:22:06",10.1.1.6,19.756359100341797,-0.200,-0.200,-0.200,0.000,0.000,0.000
1640078527005795072,"2021-12-21,09:22:07",10.1.1.6,370,-0.210,-0.210,-0.210,0.000,0.000,0.000
1640078527038944000,"2021-12-21,09:22:07",10.1.1.6,0.40392398834228516,-0.210,-0.210,-0.210,0.000,0.000,0.000
1640078527041938176,"2021-12-21,09:22:07",10.1.1.6,-1,-0.220,-0.220,-0.220,0.000,0.000,0.000
1640078527418210048,"2021-12-21,09:22:07",10.1.1.6,0.37655091285705566,-0.220,-0.220,-0.220,0.000,0.000,0.000
1640078527782049792,"2021-12-21,09:22:07",10.1.1.6,361,-0.230,-0.230,-0.230,0.000,0.000,0.000
1640078527915261952,"2021-12-21,09:22:07",10.1.1.6,0.4948091506958008,-0.230,-0.230,-0.230,0.000,0.000,0.000
1640078538065068032,"2021-12-21,09:22:08",10.1.1.6,435,-0.240,-0.240,-0.240,0.000,0.000,0.000
1640078542839564032,"2021-12-21,09:22:18",10.1.1.6,10.323765993118286,-0.240,-0.240,-0.240,0.000,0.000,0.000
1640078551412125184,"2021-12-21,09:22:25",10.1.1.6,1255,-0.250,-0.250,-0.250,0.000,0.000,0.000
1640078551857953024,"2021-12-21,09:22:31",10.1.1.6,7.443176984786987,-0.250,-0.250,-0.250,0.000,0.000,0.000
1640078554418368000,"2021-12-21,09:22:34",10.1.1.6,2553,-0.260,-0.260,-0.260,0.000,0.000,0.000
1640078554527624960,"2021-12-21,09:22:34",10.1.1.6,2.6630771160125732,-0.260,-0.260,-0.260,0.000,0.000,0.000
1640078554914311936,"2021-12-21,09:22:34",10.1.1.6,384,-0.270,-0.270,-0.270,0.000,0.000,0.000
1640078554989553920,"2021-12-21,09:22:34",10.1.1.6,0.460280179977417,-0.270,-0.270,-0.270,0.000,0.000,0.000
1640078555325430016,"2021-12-21,09:22:35",10.1.1.6,332,-0.280,-0.280,-0.280,0.000,0.000,0.000
1640078555390403072,"2021-12-21,09:22:35",10.1.1.6,0.3971428871154785,-0.280,-0.280,-0.280,0.000,0.000,0.000
1640078556073227776,"2021-12-21,09:22:36",10.1.1.6,347,-0.290,-0.290,-0.290,0.000,0.000,0.000
1640078556152157184,"2021-12-21,09:22:36",10.1.1.6,0.4267430305480957,-0.290,-0.290,-0.290,0.000,0.000,0.000
1640078556553476096,"2021-12-21,09:22:36",10.1.1.6,398,-0.300,-0.300,-0.300,0.000,0.000,0.000
1640078556607475968,"2021-12-21,09:22:36",10.1.1.6,0.4535379409790039,-0.300,-0.300,-0.300,0.000,0.000,0.000
1640078556968993792,"2021-12-21,09:22:36",10.1.1.6,356,-0.310,-0.310,-0.310,0.000,0.000,0.000
1640078557008057088,"2021-12-21,09:22:37",10.1.1.6,0.3957359790802002,-0.310,-0.310,-0.310,0.000,0.000,0.000
1640078557461512192,"2021-12-21,09:22:37",10.1.1.6,438,-0.320,-0.320,-0.320,0.000,0.000,0.000
1640078557520638976,"2021-12-21,09:22:37",10.1.1.6,0.497316837310791,-0.320,-0.320,-0.320,0.000,0.000,0.000
1640078557961519104,"2021-12-21,09:22:37",10.1.1.6,438,-0.330,-0.330,-0.330,0.000,0.000,0.000
1640078558033613056,"2021-12-21,09:22:38",10.1.1.6,0.511120080947876,-0.330,-0.330,-0.330,0.000,0.000,0.000
1640078558468472832,"2021-12-21,09:22:38",10.1.1.6,433,-0.340,-0.340,-0.340,0.000,0.000,0.000
1640078558545403904,"2021-12-21,09:22:38",10.1.1.6,0.510451078414917,-0.340,-0.340,-0.340,0.000,0.000,0.000
1640078558929129984,"2021-12-21,09:22:38",10.1.1.6,381,-0.350,-0.350,-0.350,0.000,0.000,0.000
1640078558964500992,"2021-12-21,09:22:38",10.1.1.6,0.4165341854095459,-0.350,-0.350,-0.350,0.000,0.000,0.000
1640078559413084928,"2021-12-21,09:22:39",10.1.1.6,441,-0.360,-0.360,-0.360,0.000,0.000,0.000
1640078559451674880,"2021-12-21,09:22:39",10.1.1.6,0.4807009696960449,-0.360,-0.360,-0.360,0.000,0.000,0.000
1640078559876969216,"2021-12-21,09:22:39",10.1.1.6,422,-0.370,-0.370,-0.370,0.000,0.000,0.000
1640078559922460160,"2021-12-21,09:22:39",10.1.1.6,0.46837496757507324,-0.370,-0.370,-0.370,0.000,0.000,0.000
1640078560254354944,"2021-12-21,09:22:40",10.1.1.6,329,-0.380,-0.380,-0.380,0.000,0.000,0.000
1640078560299783936,"2021-12-21,09:22:40",10.1.1.6,0.375216007232666,-0.380,-0.380,-0.380,0.000,0.000,0.000
1640078560656627968,"2021-12-21,09:22:40",10.1.1.6,355,-0.390,-0.390,-0.390,0.000,0.000,0.000
1640078560713128192,"2021-12-21,09:22:40",10.1.1.6,0.41192197799682617,-0.390,-0.390,-0.390,0.000,0.000,0.000
1640078561187022080,"2021-12-21,09:22:41",10.1.1.6,472,-0.400,-0.400,-0.400,0.000,0.000,0.000
1640078561250417920,"2021-12-21,09:22:41",10.1.1.6,0.5357139110565186,-0.400,-0.400,-0.400,0.000,0.000,0.000
1640078561603938048,"2021-12-21,09:22:41",10.1.1.6,350,-0.410,-0.410,-0.410,0.000,0.000,0.000
1640078561684897024,"2021-12-21,09:22:41",10.1.1.6,0.43174219131469727,-0.410,-0.410,-0.410,0.000,0.000,0.000
1640078562028492032,"2021-12-21,09:22:42",10.1.1.6,339,-0.420,-0.420,-0.420,0.000,0.000,0.000
1640078562063683072,"2021-12-21,09:22:42",10.1.1.6,0.37737393379211426,-0.420,-0.420,-0.420,0.000,0.000,0.000
1640078562065524224,"2021-12-21,09:22:42",10.1.1.6,-2,-0.430,-0.430,-0.430,0.000,0.000,0.000
1640078562461159936,"2021-12-21,09:22:42",10.1.1.6,0.3958120346069336,-0.430,-0.430,-0.430,0.000,0.000,0.000
1640078562805381120,"2021-12-21,09:22:42",10.1.1.6,340,-0.440,-0.440,-0.440,0.000,0.000,0.000
1640078562896434176,"2021-12-21,09:22:42",10.1.1.6,0.43140196800231934,-0.440,-0.440,-0.440,0.000,0.000,0.000
1640078563266488064,"2021-12-21,09:22:43",10.1.1.6,368,-0.450,-0.450,-0.450,0.000,0.000,0.000
1640078563424092160,"2021-12-21,09:22:43",10.1.1.6,0.5258970260620117,-0.450,-0.450,-0.450,0.000,0.000,0.000
1640078563856289024,"2021-12-21,09:22:43",10.1.1.6,413,-0.460,-0.460,-0.460,0.000,0.000,0.000
1640078563945292032,"2021-12-21,09:22:43",10.1.1.6,0.5165591239929199,-0.460,-0.460,-0.460,0.000,0.000,0.000
1640078564511291136,"2021-12-21,09:22:44",10.1.1.6,0.5611908435821533,-0.470,-0.470,-0.470,0.000,0.000,0.000
1640078564505022976,"2021-12-21,09:22:44",10.1.1.6,443,-0.470,-0.470,-0.470,0.000,0.000,0.000
1640078564991836160,"2021-12-21,09:22:44",10.1.1.6,476,-0.480,-0.480,-0.480,0.000,0.000,0.000
1640078565038352896,"2021-12-21,09:22:45",10.1.1.6,0.5234019756317139,-0.480,-0.480,-0.480,0.000,0.000,0.000
1640078565399033088,"2021-12-21,09:22:45",10.1.1.6,359,-0.490,-0.490,-0.490,0.000,0.000,0.000
1640078565418103040,"2021-12-21,09:22:45",10.1.1.6,0.378450870513916,-0.490,-0.490,-0.490,0.000,0.000,0.000
1640078565755716096,"2021-12-21,09:22:45",10.1.1.6,334,-0.480,-0.480,-0.480,0.000,0.000,0.000
1640078565797007104,"2021-12-21,09:22:45",10.1.1.6,0.3759629726409912,-0.480,-0.480,-0.480,0.000,0.000,0.000
1640078566176295168,"2021-12-21,09:22:46",10.1.1.6,377,-0.470,-0.470,-0.470,0.000,0.000,0.000
1640078566311106048,"2021-12-21,09:22:46",10.1.1.6,0.5121378898620605,-0.470,-0.470,-0.470,0.000,0.000,0.000
1640078566763683072,"2021-12-21,09:22:46",10.1.1.6,450,-0.460,-0.460,-0.460,0.000,0.000,0.000
1640078566791138816,"2021-12-21,09:22:46",10.1.1.6,0.4784388542175293,-0.460,-0.460,-0.460,0.000,0.000,0.000
1640078567135140864,"2021-12-21,09:22:47",10.1.1.6,341,-0.450,-0.450,-0.450,0.000,0.000,0.000
1640078567212468992,"2021-12-21,09:22:47",10.1.1.6,0.4180779457092285,-0.450,-0.450,-0.450,0.000,0.000,0.000
1640078567644326912,"2021-12-21,09:22:47",10.1.1.6,422,-0.440,-0.440,-0.440,0.000,0.000,0.000
1640078567659107840,"2021-12-21,09:22:47",10.1.1.6,0.4372529983520508,-0.440,-0.440,-0.440,0.000,0.000,0.000
1640078568111834880,"2021-12-21,09:22:48",10.1.1.6,431,-0.430,-0.430,-0.430,0.000,0.000,0.000
1640078568173156096,"2021-12-21,09:22:48",10.1.1.6,0.49251699447631836,-0.430,-0.430,-0.430,0.000,0.000,0.000
1640078568641093120,"2021-12-21,09:22:48",10.1.1.6,464,-0.420,-0.420,-0.420,0.000,0.000,0.000
1640078568715117056,"2021-12-21,09:22:48",10.1.1.6,0.5388069152832031,-0.420,-0.420,-0.420,0.000,0.000,0.000
1640078569149317888,"2021-12-21,09:22:49",10.1.1.6,432,-0.410,-0.410,-0.410,0.000,0.000,0.000
1640078569173672960,"2021-12-21,09:22:49",10.1.1.6,0.4568448066711426,-0.410,-0.410,-0.410,0.000,0.000,0.000
1640078569819827968,"2021-12-21,09:22:49",10.1.1.6,434,-0.400,-0.400,-0.400,0.000,0.000,0.000
1640078569886586880,"2021-12-21,09:22:49",10.1.1.6,0.710874080657959,-0.400,-0.400,-0.400,0.000,0.000,0.000
1640078570292235008,"2021-12-21,09:22:50",10.1.1.6,395,-0.390,-0.390,-0.390,0.000,0.000,0.000
1640078570349757952,"2021-12-21,09:22:50",10.1.1.6,0.4528849124908447,-0.390,-0.390,-0.390,0.000,0.000,0.000
1640078570697370112,"2021-12-21,09:22:50",10.1.1.6,345,-0.380,-0.380,-0.380,0.000,0.000,0.000
1640078570790286080,"2021-12-21,09:22:50",10.1.1.6,0.4389369487762451,-0.380,-0.380,-0.380,0.000,0.000,0.000
1640078571196048128,"2021-12-21,09:22:51",10.1.1.6,404,-0.370,-0.370,-0.370,0.000,0.000,0.000
1640078571246285056,"2021-12-21,09:22:51",10.1.1.6,0.45455408096313477,-0.370,-0.370,-0.370,0.000,0.000,0.000
1640078571626542080,"2021-12-21,09:22:51",10.1.1.6,378,-0.360,-0.360,-0.360,0.000,0.000,0.000
1640078571675878144,"2021-12-21,09:22:51",10.1.1.6,0.4281430244445801,-0.360,-0.360,-0.360,0.000,0.000,0.000
1640078572016141056,"2021-12-21,09:22:52",10.1.1.6,338,-0.350,-0.350,-0.350,0.000,0.000,0.000
1640078572080113920,"2021-12-21,09:22:52",10.1.1.6,0.402177095413208,-0.350,-0.350,-0.350,0.000,0.000,0.000
1640078572434267904,"2021-12-21,09:22:52",10.1.1.6,351,-0.340,-0.340,-0.340,0.000,0.000,0.000
1640078572488129024,"2021-12-21,09:22:52",10.1.1.6,0.40510988235473633,-0.340,-0.340,-0.340,0.000,0.000,0.000
1640078572835083008,"2021-12-21,09:22:52",10.1.1.6,345,-0.330,-0.330,-0.330,0.000,0.000,0.000
1640078572876326912,"2021-12-21,09:22:52",10.1.1.6,0.3869020938873291,-0.330,-0.330,-0.330,0.000,0.000,0.000
1640078573245003008,"2021-12-21,09:22:53",10.1.1.6,365,-0.320,-0.320,-0.320,0.000,0.000,0.000
1640078573280299776,"2021-12-21,09:22:53",10.1.1.6,0.4022839069366455,-0.320,-0.320,-0.320,0.000,0.000,0.000
1640078573735604992,"2021-12-21,09:22:53",10.1.1.6,447,-0.310,-0.310,-0.310,0.000,0.000,0.000
1640078573765118976,"2021-12-21,09:22:53",10.1.1.6,0.47829389572143555,-0.310,-0.310,-0.310,0.000,0.000,0.000
1640078574133379072,"2021-12-21,09:22:54",10.1.1.6,363,-0.300,-0.300,-0.300,0.000,0.000,0.000
1640078574154426112,"2021-12-21,09:22:54",10.1.1.6,0.3849921226501465,-0.300,-0.300,-0.300,0.000,0.000,0.000
1640078574532681984,"2021-12-21,09:22:54",10.1.1.6,374,-0.290,-0.290,-0.290,0.000,0.000,0.000
1640078574571010048,"2021-12-21,09:22:54",10.1.1.6,0.41296815872192383,-0.290,-0.290,-0.290,0.000,0.000,0.000
1640078578294526208,"2021-12-21,09:22:58",10.1.1.6,3721,-0.280,-0.280,-0.280,0.000,0.000,0.000
1640078578362749952,"2021-12-21,09:22:58",10.1.1.6,3.7901430130004883,-0.280,-0.280,-0.280,0.000,0.000,0.000
1640078578819483136,"2021-12-21,09:22:58",10.1.1.6,454,-0.270,-0.270,-0.270,0.000,0.000,0.000
1640078578857338880,"2021-12-21,09:22:58",10.1.1.6,0.4931070804595947,-0.270,-0.270,-0.270,0.000,0.000,0.000
1640078579291277824,"2021-12-21,09:22:59",10.1.1.6,423,-0.260,-0.260,-0.260,0.000,0.000,0.000
1640078579338851072,"2021-12-21,09:22:59",10.1.1.6,0.4712657928466797,-0.260,-0.260,-0.260,0.000,0.000,0.000
1640078579801593088,"2021-12-21,09:22:59",10.1.1.6,457,-0.250,-0.250,-0.250,0.000,0.000,0.000
1640078579822215936,"2021-12-21,09:22:59",10.1.1.6,0.47884702682495117,-0.250,-0.250,-0.250,0.000,0.000,0.000
1640078881066904064,"2021-12-21,09:27:53",10.1.1.6,56,-0.250,-0.250,-0.250,0.000,0.000,0.000
1640078909726902016,"2021-12-21,09:28:17",10.1.1.6,24.009116172790527,-0.250,-0.250,-0.250,0.000,0.000,0.000
1640078912907529216,"2021-12-21,09:28:32",10.1.1.6,3152,-0.260,-0.260,-0.260,0.000,0.000,0.000
1640078913017865984,"2021-12-21,09:28:33",10.1.1.6,3.264302968978882,-0.260,-0.260,-0.260,0.000,0.000,0.000
1640078913927499008,"2021-12-21,09:28:33",10.1.1.6,899,-0.270,-0.270,-0.270,0.000,0.000,0.000
1640078913970639872,"2021-12-21,09:28:33",10.1.1.6,0.948322057723999,-0.270,-0.270,-0.270,0.000,0.000,0.000
1640078914418981120,"2021-12-21,09:28:34",10.1.1.6,446,-0.280,-0.280,-0.280,0.000,0.000,0.000
1640078914484680960,"2021-12-21,09:28:34",10.1.1.6,0.5123879909515381,-0.280,-0.280,-0.280,0.000,0.000,0.000
1640078915306472960,"2021-12-21,09:28:35",10.1.1.6,820,-0.290,-0.290,-0.290,0.000,0.000,0.000
1640078915353383936,"2021-12-21,09:28:35",10.1.1.6,0.867034912109375,-0.290,-0.290,-0.290,0.000,0.000,0.000
1640078915855389952,"2021-12-21,09:28:35",10.1.1.6,497,-0.300,-0.300,-0.300,0.000,0.000,0.000
1640078915891751936,"2021-12-21,09:28:35",10.1.1.6,0.5343978404998779,-0.300,-0.300,-0.300,0.000,0.000,0.000
1640078917117916160,"2021-12-21,09:28:37",10.1.1.6,1224,-0.310,-0.310,-0.310,0.000,0.000,0.000
1640078917158355968,"2021-12-21,09:28:37",10.1.1.6,1.2646141052246094,-0.310,-0.310,-0.310,0.000,0.000,0.000
1640078918361435904,"2021-12-21,09:28:38",10.1.1.6,1200,-0.320,-0.320,-0.320,0.000,0.000,0.000
1640078918410173952,"2021-12-21,09:28:38",10.1.1.6,1.2489490509033203,-0.320,-0.320,-0.320,0.000,0.000,0.000
1640078919091734016,"2021-12-21,09:28:39",10.1.1.6,679,-0.330,-0.330,-0.330,0.000,0.000,0.000
1640078919127756032,"2021-12-21,09:28:39",10.1.1.6,0.7153949737548828,-0.330,-0.330,-0.330,0.000,0.000,0.000
1640078919483849984,"2021-12-21,09:28:39",10.1.1.6,349,-0.340,-0.340,-0.340,0.000,0.000,0.000
1640078919523437056,"2021-12-21,09:28:39",10.1.1.6,0.39095091819763184,-0.340,-0.340,-0.340,0.000,0.000,0.000
1640078919900192000,"2021-12-21,09:28:39",10.1.1.6,371,-0.350,-0.350,-0.350,0.000,0.000,0.000
1640078919997387776,"2021-12-21,09:28:39",10.1.1.6,0.4691331386566162,-0.350,-0.350,-0.350,0.000,0.000,0.000
1640078920430403072,"2021-12-21,09:28:40",10.1.1.6,422,-0.360,-0.360,-0.360,0.000,0.000,0.000
1640078920518420992,"2021-12-21,09:28:40",10.1.1.6,0.5106611251831055,-0.360,-0.360,-0.360,0.000,0.000,0.000
1640078920913675008,"2021-12-21,09:28:40",10.1.1.6,392,-0.370,-0.370,-0.370,0.000,0.000,0.000
1640078920988118016,"2021-12-21,09:28:40",10.1.1.6,0.46774888038635254,-0.370,-0.370,-0.370,0.000,0.000,0.000
1640078921457361920,"2021-12-21,09:28:41",10.1.1.6,459,-0.380,-0.380,-0.380,0.000,0.000,0.000
1640078921476411136,"2021-12-21,09:28:41",10.1.1.6,0.4780619144439697,-0.380,-0.380,-0.380,0.000,0.000,0.000
1640078923034688000,"2021-12-21,09:28:43",10.1.1.6,1556,-0.390,-0.390,-0.390,0.000,0.000,0.000
1640078923052136960,"2021-12-21,09:28:43",10.1.1.6,1.5740180015563965,-0.390,-0.390,-0.390,0.000,0.000,0.000
1640078923631779072,"2021-12-21,09:28:43",10.1.1.6,318,-0.400,-0.400,-0.400,0.000,0.000,0.000
1640078923711791872,"2021-12-21,09:28:43",10.1.1.6,0.39788293838500977,-0.400,-0.400,-0.400,0.000,0.000,0.000
1640078924097681920,"2021-12-21,09:28:44",10.1.1.6,378,-0.410,-0.410,-0.410,0.000,0.000,0.000
1640078924132726016,"2021-12-21,09:28:44",10.1.1.6,0.41831398010253906,-0.410,-0.410,-0.410,0.000,0.000,0.000
1640078924460679936,"2021-12-21,09:28:44",10.1.1.6,317,-0.420,-0.420,-0.420,0.000,0.000,0.000
1640078924557980928,"2021-12-21,09:28:44",10.1.1.6,0.4145219326019287,-0.420,-0.420,-0.420,0.000,0.000,0.000
1640078924940577024,"2021-12-21,09:28:44",10.1.1.6,379,-0.430,-0.430,-0.430,0.000,0.000,0.000
1640078925016180992,"2021-12-21,09:28:45",10.1.1.6,0.455751895904541,-0.430,-0.430,-0.430,0.000,0.000,0.000
1640078925428893952,"2021-12-21,09:28:45",10.1.1.6,409,-0.440,-0.440,-0.440,0.000,0.000,0.000
1640078925510422016,"2021-12-21,09:28:45",10.1.1.6,0.49170494079589844,-0.440,-0.440,-0.440,0.000,0.000,0.000
1640078925886131968,"2021-12-21,09:28:45",10.1.1.6,374,-0.450,-0.450,-0.450,0.000,0.000,0.000
1640078925948712192,"2021-12-21,09:28:45",10.1.1.6,0.43679308891296387,-0.450,-0.450,-0.450,0.000,0.000,0.000
1640078926339303936,"2021-12-21,09:28:46",10.1.1.6,387,-0.460,-0.460,-0.460,0.000,0.000,0.000
1640078926379067904,"2021-12-21,09:28:46",10.1.1.6,0.4277768135070801,-0.460,-0.460,-0.460,0.000,0.000,0.000
1640078926792527872,"2021-12-21,09:28:46",10.1.1.6,411,-0.470,-0.470,-0.470,0.000,0.000,0.000
1640078926824943104,"2021-12-21,09:28:46",10.1.1.6,0.44438791275024414,-0.470,-0.470,-0.470,0.000,0.000,0.000
1640078927597554944,"2021-12-21,09:28:47",10.1.1.6,770,-0.480,-0.480,-0.480,0.000,0.000,0.000
1640078927713361920,"2021-12-21,09:28:47",10.1.1.6,0.8859570026397705,-0.480,-0.480,-0.480,0.000,0.000,0.000
1640078928211920128,"2021-12-21,09:28:48",10.1.1.6,487,-0.490,-0.490,-0.490,0.000,0.000,0.000
1640078928276356864,"2021-12-21,09:28:48",10.1.1.6,0.5517749786376953,-0.490,-0.490,-0.490,0.000,0.000,0.000
1640078928654061056,"2021-12-21,09:28:48",10.1.1.6,373,-0.500,-0.500,-0.500,0.000,0.000,0.000
1640078929854095872,"2021-12-21,09:28:48",10.1.1.6,0.6639819145202637,-0.500,-0.500,-0.500,0.000,0.000,0.000
1640078930380116992,"2021-12-21,09:28:50",10.1.1.6,498,-0.510,-0.510,-0.510,0.000,0.000,0.000
1640078930401395968,"2021-12-21,09:28:50",10.1.1.6,0.5203440189361572,-0.510,-0.510,-0.510,0.000,0.000,0.000
1640078930905304832,"2021-12-21,09:28:50",10.1.1.6,493,-0.520,-0.520,-0.520,0.000,0.000,0.000
1640078930982129152,"2021-12-21,09:28:50",10.1.1.6,0.5698580741882324,-0.520,-0.520,-0.520,0.000,0.000,0.000
1640078931446407168,"2021-12-21,09:28:51",10.1.1.6,459,-0.530,-0.530,-0.530,0.000,0.000,0.000
1640078931584425984,"2021-12-21,09:28:51",10.1.1.6,0.5972449779510498,-0.530,-0.530,-0.530,0.000,0.000,0.000
1640078931955579136,"2021-12-21,09:28:51",10.1.1.6,369,-0.540,-0.540,-0.540,0.000,0.000,0.000
1640078932024527104,"2021-12-21,09:28:52",10.1.1.6,0.4381718635559082,-0.540,-0.540,-0.540,0.000,0.000,0.000
1640078932410523904,"2021-12-21,09:28:52",10.1.1.6,380,-0.550,-0.550,-0.550,0.000,0.000,0.000
1640078932464237056,"2021-12-21,09:28:52",10.1.1.6,0.43489694595336914,-0.550,-0.550,-0.550,0.000,0.000,0.000
1640078932942014976,"2021-12-21,09:28:52",10.1.1.6,468,-0.560,-0.560,-0.560,0.000,0.000,0.000
1640078932983553792,"2021-12-21,09:28:52",10.1.1.6,0.5099179744720459,-0.560,-0.560,-0.560,0.000,0.000,0.000
1640078933514949120,"2021-12-21,09:28:53",10.1.1.6,526,-0.570,-0.570,-0.570,0.000,0.000,0.000
1640078933610536960,"2021-12-21,09:28:53",10.1.1.6,0.622467041015625,-0.570,-0.570,-0.570,0.000,0.000,0.000
1640078933975716096,"2021-12-21,09:28:53",10.1.1.6,362,-0.580,-0.580,-0.580,0.000,0.000,0.000
1640078934002136064,"2021-12-21,09:28:54",10.1.1.6,0.39021801948547363,-0.580,-0.580,-0.580,0.000,0.000,0.000
1640078934413804032,"2021-12-21,09:28:54",10.1.1.6,409,-0.590,-0.590,-0.590,0.000,0.000,0.000
1640078934500081920,"2021-12-21,09:28:54",10.1.1.6,0.4960041046142578,-0.590,-0.590,-0.590,0.000,0.000,0.000
1640078934885203968,"2021-12-21,09:28:54",10.1.1.6,383,-0.600,-0.600,-0.600,0.000,0.000,0.000
1640078934955090944,"2021-12-21,09:28:54",10.1.1.6,0.4531259536743164,-0.600,-0.600,-0.600,0.000,0.000,0.000
1640078935332124928,"2021-12-21,09:28:55",10.1.1.6,374,-0.610,-0.610,-0.610,0.000,0.000,0.000
1640078935369286912,"2021-12-21,09:28:55",10.1.1.6,0.4119579792022705,-0.610,-0.610,-0.610,0.000,0.000,0.000
1640078935757558016,"2021-12-21,09:28:55",10.1.1.6,370,-0.620,-0.620,-0.620,0.000,0.000,0.000
1640078935808561920,"2021-12-21,09:28:55",10.1.1.6,0.4374508857727051,-0.620,-0.620,-0.620,0.000,0.000,0.000
1640078936204168960,"2021-12-21,09:28:56",10.1.1.6,393,-0.630,-0.630,-0.630,0.000,0.000,0.000
1640078936240624896,"2021-12-21,09:28:56",10.1.1.6,0.43056797981262207,-0.630,-0.630,-0.630,0.000,0.000,0.000
1640078936930118144,"2021-12-21,09:28:56",10.1.1.6,0.6782100200653076,-0.640,-0.640,-0.640,0.000,0.000,0.000
1640078937516877824,"2021-12-21,09:28:57",10.1.1.6,578,-0.650,-0.650,-0.650,0.000,0.000,0.000
1640078937554323968,"2021-12-21,09:28:57",10.1.1.6,0.616084098815918,-0.650,-0.650,-0.650,0.000,0.000,0.000
1640078937896642816,"2021-12-21,09:28:57",10.1.1.6,340,-0.660,-0.660,-0.660,0.000,0.000,0.000
1640078937994131968,"2021-12-21,09:28:57",10.1.1.6,0.4382939338684082,-0.660,-0.660,-0.660,0.000,0.000,0.000
1640078938408528128,"2021-12-21,09:28:58",10.1.1.6,412,-0.670,-0.670,-0.670,0.000,0.000,0.000
1640078938480224000,"2021-12-21,09:28:58",10.1.1.6,0.4844701290130615,-0.670,-0.670,-0.670,0.000,0.000,0.000
1640078938846068992,"2021-12-21,09:28:58",10.1.1.6,363,-0.680,-0.680,-0.680,0.000,0.000,0.000
1640078938925154816,"2021-12-21,09:28:58",10.1.1.6,0.44202399253845215,-0.680,-0.680,-0.680,0.000,0.000,0.000
1640078939286014976,"2021-12-21,09:28:59",10.1.1.6,343,-0.690,-0.690,-0.690,0.000,0.000,0.000
1640078939437880064,"2021-12-21,09:28:59",10.1.1.6,0.49597716331481934,-0.690,-0.690,-0.690,0.000,0.000,0.000
1640078942139676160,"2021-12-21,09:29:02",10.1.1.6,2694,-0.700,-0.700,-0.700,0.000,0.000,0.000
1640078942180231168,"2021-12-21,09:29:02",10.1.1.6,2.733764171600342,-0.700,-0.700,-0.700,0.000,0.000,0.000
1640078942560568064,"2021-12-21,09:29:02",10.1.1.6,372,-0.710,-0.710,-0.710,0.000,0.000,0.000
1640078942622828032,"2021-12-21,09:29:02",10.1.1.6,0.435344934463501,-0.710,-0.710,-0.710,0.000,0.000,0.000
1640078943181606912,"2021-12-21,09:29:03",10.1.1.6,552,-0.720,-0.720,-0.720,0.000,0.000,0.000
1640078943233021952,"2021-12-21,09:29:03",10.1.1.6,0.6041669845581055,-0.720,-0.720,-0.720,0.000,0.000,0.000
1640078943614991872,"2021-12-21,09:29:03",10.1.1.6,370,-0.730,-0.730,-0.730,0.000,0.000,0.000
1640078943739203072,"2021-12-21,09:29:03",10.1.1.6,0.4949979782104492,-0.730,-0.730,-0.730,0.000,0.000,0.000
1640078947747520000,"2021-12-21,09:29:04",10.1.1.6,412,-0.720,-0.720,-0.720,0.000,0.000,0.000
1640078947789687040,"2021-12-21,09:29:07",10.1.1.6,4.047992944717407,-0.720,-0.720,-0.720,0.000,0.000,0.000
1640078947796626176,"2021-12-21,09:29:07",10.1.1.6,-3,-0.710,-0.710,-0.710,0.000,0.000,0.000
1640078948170746112,"2021-12-21,09:29:08",10.1.1.6,0.3782310485839844,-0.710,-0.710,-0.710,0.000,0.000,0.000
1640078948553363968,"2021-12-21,09:29:08",10.1.1.6,380,-0.700,-0.700,-0.700,0.000,0.000,0.000
1640078948643960064,"2021-12-21,09:29:08",10.1.1.6,0.47068095207214355,-0.700,-0.700,-0.700,0.000,0.000,0.000
1640078949055227136,"2021-12-21,09:29:09",10.1.1.6,399,-0.690,-0.690,-0.690,0.000,0.000,0.000
1640078949103766016,"2021-12-21,09:29:09",10.1.1.6,0.4548020362854004,-0.690,-0.690,-0.690,0.000,0.000,0.000
1640078949551623168,"2021-12-21,09:29:09",10.1.1.6,446,-0.680,-0.680,-0.680,0.000,0.000,0.000
1640078949568510976,"2021-12-21,09:29:09",10.1.1.6,0.4632260799407959,-0.680,-0.680,-0.680,0.000,0.000,0.000
1640078949990121984,"2021-12-21,09:29:09",10.1.1.6,419,-0.670,-0.670,-0.670,0.000,0.000,0.000
1640078950025774080,"2021-12-21,09:29:10",10.1.1.6,0.45551395416259766,-0.670,-0.670,-0.670,0.000,0.000,0.000
1640078950487031040,"2021-12-21,09:29:10",10.1.1.6,459,-0.660,-0.660,-0.660,0.000,0.000,0.000
1640078950537039872,"2021-12-21,09:29:10",10.1.1.6,0.5096461772918701,-0.660,-0.660,-0.660,0.000,0.000,0.000
1640078951100377088,"2021-12-21,09:29:11",10.1.1.6,476,-0.650,-0.650,-0.650,0.000,0.000,0.000
1640078951208313856,"2021-12-21,09:29:11",10.1.1.6,0.5806519985198975,-0.650,-0.650,-0.650,0.000,0.000,0.000
1640078951214281984,"2021-12-21,09:29:11",10.1.1.6,-4,-0.640,-0.640,-0.640,0.000,0.000,0.000
1640078951717829888,"2021-12-21,09:29:11",10.1.1.6,0.5059027671813965,-0.640,-0.640,-0.640,0.000,0.000,0.000
1640078952165061888,"2021-12-21,09:29:12",10.1.1.6,441,-0.630,-0.630,-0.630,0.000,0.000,0.000
1640078952178818048,"2021-12-21,09:29:12",10.1.1.6,0.4554259777069092,-0.630,-0.630,-0.630,0.000,0.000,0.000
1640078952640374016,"2021-12-21,09:29:12",10.1.1.6,459,-0.620,-0.620,-0.620,0.000,0.000,0.000
1640078952729585920,"2021-12-21,09:29:12",10.1.1.6,0.5489099025726318,-0.620,-0.620,-0.620,0.000,0.000,0.000
1640078953080446976,"2021-12-21,09:29:13",10.1.1.6,348,-0.610,-0.610,-0.610,0.000,0.000,0.000
1640078953116761088,"2021-12-21,09:29:13",10.1.1.6,0.3847789764404297,-0.610,-0.610,-0.610,0.000,0.000,0.000
1640078953550334976,"2021-12-21,09:29:13",10.1.1.6,431,-0.600,-0.600,-0.600,0.000,0.000,0.000
1640078953588978176,"2021-12-21,09:29:13",10.1.1.6,0.4702720642089844,-0.600,-0.600,-0.600,0.000,0.000,0.000
1640078953964154112,"2021-12-21,09:29:13",10.1.1.6,369,-0.590,-0.590,-0.590,0.000,0.000,0.000
1640078954052130048,"2021-12-21,09:29:14",10.1.1.6,0.4578061103820801,-0.590,-0.590,-0.590,0.000,0.000,0.000
1640078954459373056,"2021-12-21,09:29:14",10.1.1.6,405,-0.580,-0.580,-0.580,0.000,0.000,0.000
1640078954534988032,"2021-12-21,09:29:14",10.1.1.6,0.4804840087890625,-0.580,-0.580,-0.580,0.000,0.000,0.000
1640078955010103040,"2021-12-21,09:29:15",10.1.1.6,473,-0.570,-0.570,-0.570,0.000,0.000,0.000
1640078955098851840,"2021-12-21,09:29:15",10.1.1.6,0.5624990463256836,-0.570,-0.570,-0.570,0.000,0.000,0.000
1640078955479745024,"2021-12-21,09:29:15",10.1.1.6,378,-0.560,-0.560,-0.560,0.000,0.000,0.000
1640078955599396096,"2021-12-21,09:29:15",10.1.1.6,0.49857187271118164,-0.560,-0.560,-0.560,0.000,0.000,0.000
1640078955972464128,"2021-12-21,09:29:15",10.1.1.6,366,-0.550,-0.550,-0.550,0.000,0.000,0.000
1640078956061969152,"2021-12-21,09:29:16",10.1.1.6,0.456043004989624,-0.550,-0.550,-0.550,0.000,0.000,0.000
1640078956433022976,"2021-12-21,09:29:16",10.1.1.6,360,-0.540,-0.540,-0.540,0.000,0.000,0.000
1640078956559622144,"2021-12-21,09:29:16",10.1.1.6,0.48749589920043945,-0.540,-0.540,-0.540,0.000,0.000,0.000
1640078956960765952,"2021-12-21,09:29:16",10.1.1.6,399,-0.530,-0.530,-0.530,0.000,0.000,0.000
1640078957020634880,"2021-12-21,09:29:17",10.1.1.6,0.4595479965209961,-0.530,-0.530,-0.530,0.000,0.000,0.000
1640078957357652992,"2021-12-21,09:29:17",10.1.1.6,335,-0.520,-0.520,-0.520,0.000,0.000,0.000
1640078957420528896,"2021-12-21,09:29:17",10.1.1.6,0.3981449604034424,-0.520,-0.520,-0.520,0.000,0.000,0.000
1640078957799947008,"2021-12-21,09:29:17",10.1.1.6,368,-0.510,-0.510,-0.510,0.000,0.000,0.000
1640078957855803904,"2021-12-21,09:29:17",10.1.1.6,0.42304182052612305,-0.510,-0.510,-0.510,0.000,0.000,0.000
1640078958228591872,"2021-12-21,09:29:18",10.1.1.6,367,-0.500,-0.500,-0.500,0.000,0.000,0.000
1640078958446515200,"2021-12-21,09:29:18",10.1.1.6,0.5851399898529053,-0.500,-0.500,-0.500,0.000,0.000,0.000
1640078958822716928,"2021-12-21,09:29:18",10.1.1.6,374,-0.490,-0.490,-0.490,0.000,0.000,0.000
1640078958904794880,"2021-12-21,09:29:18",10.1.1.6,0.4561939239501953,-0.490,-0.490,-0.490,0.000,0.000,0.000
1640078959446809088,"2021-12-21,09:29:19",10.1.1.6,537,-0.480,-0.480,-0.480,0.000,0.000,0.000
1640078959507905024,"2021-12-21,09:29:19",10.1.1.6,0.5990540981292725,-0.480,-0.480,-0.480,0.000,0.000,0.000
1640078959853929984,"2021-12-21,09:29:19",10.1.1.6,337,-0.470,-0.470,-0.470,0.000,0.000,0.000
1640078959969254912,"2021-12-21,09:29:19",10.1.1.6,0.4527711868286133,-0.470,-0.470,-0.470,0.000,0.000,0.000
1640078960356466176,"2021-12-21,09:29:20",10.1.1.6,381,-0.460,-0.460,-0.460,0.000,0.000,0.000
1640078960500258816,"2021-12-21,09:29:20",10.1.1.6,0.5268259048461914,-0.460,-0.460,-0.460,0.000,0.000,0.000
1640078960855165952,"2021-12-21,09:29:20",10.1.1.6,348,-0.450,-0.450,-0.450,0.000,0.000,0.000
1640078960955998976,"2021-12-21,09:29:20",10.1.1.6,0.45005202293395996,-0.450,-0.450,-0.450,0.000,0.000,0.000
1640078961424828928,"2021-12-21,09:29:21",10.1.1.6,438,-0.440,-0.440,-0.440,0.000,0.000,0.000
1640078961534905856,"2021-12-21,09:29:21",10.1.1.6,0.5491201877593994,-0.440,-0.440,-0.440,0.000,0.000,0.000
1640078961914586112,"2021-12-21,09:29:21",10.1.1.6,362,-0.430,-0.430,-0.430,0.000,0.000,0.000
1640078962196640000,"2021-12-21,09:29:22",10.1.1.6,0.6449921131134033,-0.430,-0.430,-0.430,0.000,0.000,0.000
1640078962555799040,"2021-12-21,09:29:22",10.1.1.6,353,-0.420,-0.420,-0.420,0.000,0.000,0.000
1640078962611657984,"2021-12-21,09:29:22",10.1.1.6,0.40590405464172363,-0.420,-0.420,-0.420,0.000,0.000,0.000
1640078963025856000,"2021-12-21,09:29:23",10.1.1.6,409,-0.410,-0.410,-0.410,0.000,0.000,0.000
1640078963086141952,"2021-12-21,09:29:23",10.1.1.6,0.4703681468963623,-0.410,-0.410,-0.410,0.000,0.000,0.000
1640078963404279040,"2021-12-21,09:29:23",10.1.1.6,316,-0.400,-0.400,-0.400,0.000,0.000,0.000
1640078963481542144,"2021-12-21,09:29:23",10.1.1.6,0.39371609687805176,-0.400,-0.400,-0.400,0.000,0.000,0.000
1640078963497818880,"2021-12-21,09:29:23",10.1.1.6,-1,-0.390,-0.390,-0.390,0.000,0.000,0.000
1640078963918148096,"2021-12-21,09:29:23",10.1.1.6,0.42141199111938477,-0.390,-0.390,-0.390,0.000,0.000,0.000
1640078964414206976,"2021-12-21,09:29:24",10.1.1.6,432,-0.380,-0.380,-0.380,0.000,0.000,0.000
1640078964476000000,"2021-12-21,09:29:24",10.1.1.6,0.4947068691253662,-0.380,-0.380,-0.380,0.000,0.000,0.000
1640078964834469120,"2021-12-21,09:29:24",10.1.1.6,354,-0.370,-0.370,-0.370,0.000,0.000,0.000
1640078964894153984,"2021-12-21,09:29:24",10.1.1.6,0.41393399238586426,-0.370,-0.370,-0.370,0.000,0.000,0.000
1640078965264003072,"2021-12-21,09:29:25",10.1.1.6,364,-0.360,-0.360,-0.360,0.000,0.000,0.000
1640078965330235904,"2021-12-21,09:29:25",10.1.1.6,0.430844783782959,-0.360,-0.360,-0.360,0.000,0.000,0.000
1640078965733997056,"2021-12-21,09:29:25",10.1.1.6,402,-0.350,-0.350,-0.350,0.000,0.000,0.000
1640078965782341888,"2021-12-21,09:29:25",10.1.1.6,0.45076489448547363,-0.350,-0.350,-0.350,0.000,0.000,0.000
1640078966102380032,"2021-12-21,09:29:26",10.1.1.6,318,-0.340,-0.340,-0.340,0.000,0.000,0.000
1640078966198390016,"2021-12-21,09:29:26",10.1.1.6,0.41458821296691895,-0.340,-0.340,-0.340,0.000,0.000,0.000
1640078966543750912,"2021-12-21,09:29:26",10.1.1.6,338,-0.330,-0.330,-0.330,0.000,0.000,0.000
1640078966628547840,"2021-12-21,09:29:26",10.1.1.6,0.42353010177612305,-0.330,-0.330,-0.330,0.000,0.000,0.000
1640078966973103104,"2021-12-21,09:29:26",10.1.1.6,342,-0.320,-0.320,-0.320,0.000,0.000,0.000
1640078967039181824,"2021-12-21,09:29:27",10.1.1.6,0.4092559814453125,-0.320,-0.320,-0.320,0.000,0.000,0.000
1640078967391694080,"2021-12-21,09:29:27",10.1.1.6,350,-0.310,-0.310,-0.310,0.000,0.000,0.000
1640078967428395008,"2021-12-21,09:29:27",10.1.1.6,0.3869760036468506,-0.310,-0.310,-0.310,0.000,0.000,0.000
1640078967781613056,"2021-12-21,09:29:27",10.1.1.6,350,-0.300,-0.300,-0.300,0.000,0.000,0.000
1640078967842680832,"2021-12-21,09:29:27",10.1.1.6,0.41108107566833496,-0.300,-0.300,-0.300,0.000,0.000,0.000
1640078968190966016,"2021-12-21,09:29:28",10.1.1.6,345,-0.290,-0.290,-0.290,0.000,0.000,0.000
1640078968228295936,"2021-12-21,09:29:28",10.1.1.6,0.38246893882751465,-0.290,-0.290,-0.290,0.000,0.000,0.000
1640078968580220928,"2021-12-21,09:29:28",10.1.1.6,350,-0.280,-0.280,-0.280,0.000,0.000,0.000
1640078968646532096,"2021-12-21,09:29:28",10.1.1.6,0.4164741039276123,-0.280,-0.280,-0.280,0.000,0.000,0.000
1640078968972146944,"2021-12-21,09:29:28",10.1.1.6,323,-0.270,-0.270,-0.270,0.000,0.000,0.000
1640078969048301824,"2021-12-21,09:29:29",10.1.1.6,0.40011000633239746,-0.270,-0.270,-0.270,0.000,0.000,0.000
1640078969389600000,"2021-12-21,09:29:29",10.1.1.6,339,-0.260,-0.260,-0.260,0.000,0.000,0.000
1640078969429686016,"2021-12-21,09:29:29",10.1.1.6,0.3796579837799072,-0.260,-0.260,-0.260,0.000,0.000,0.000
1640078969792217088,"2021-12-21,09:29:29",10.1.1.6,359,-0.250,-0.250,-0.250,0.000,0.000,0.000
1640078969878365952,"2021-12-21,09:29:29",10.1.1.6,0.44597482681274414,-0.250,-0.250,-0.250,0.000,0.000,0.000
1640078970278785024,"2021-12-21,09:29:30",10.1.1.6,398,-0.240,-0.240,-0.240,0.000,0.000,0.000
1640078970323188992,"2021-12-21,09:29:30",10.1.1.6,0.44297289848327637,-0.240,-0.240,-0.240,0.000,0.000,0.000
1640078970698174976,"2021-12-21,09:29:30",10.1.1.6,373,-0.250,-0.250,-0.250,0.000,0.000,0.000
1640078970750627072,"2021-12-21,09:29:30",10.1.1.6,0.42569899559020996,-0.250,-0.250,-0.250,0.000,0.000,0.000
1640078971130480128,"2021-12-21,09:29:31",10.1.1.6,377,-0.260,-0.260,-0.260,0.000,0.000,0.000
1640078971173656064,"2021-12-21,09:29:31",10.1.1.6,0.4207479953765869,-0.260,-0.260,-0.260,0.000,0.000,0.000
1640078971496794112,"2021-12-21,09:29:31",10.1.1.6,321,-0.270,-0.270,-0.270,0.000,0.000,0.000
1640078971584500992,"2021-12-21,09:29:31",10.1.1.6,0.40953683853149414,-0.270,-0.270,-0.270,0.000,0.000,0.000
1640078971986062080,"2021-12-21,09:29:31",10.1.1.6,391,-0.280,-0.280,-0.280,0.000,0.000,0.000
1640078972054729984,"2021-12-21,09:29:32",10.1.1.6,0.4602999687194824,-0.280,-0.280,-0.280,0.000,0.000,0.000
1640078972458688000,"2021-12-21,09:29:32",10.1.1.6,402,-0.290,-0.290,-0.290,0.000,0.000,0.000
1640078972536175872,"2021-12-21,09:29:32",10.1.1.6,0.478956937789917,-0.290,-0.290,-0.290,0.000,0.000,0.000
1640078972905870848,"2021-12-21,09:29:32",10.1.1.6,366,-0.300,-0.300,-0.300,0.000,0.000,0.000
1640078972999524096,"2021-12-21,09:29:32",10.1.1.6,0.45040106773376465,-0.300,-0.300,-0.300,0.000,0.000,0.000
1640078973358830080,"2021-12-21,09:29:33",10.1.1.6,357,-0.310,-0.310,-0.310,0.000,0.000,0.000
1640078973430131968,"2021-12-21,09:29:33",10.1.1.6,0.42916297912597656,-0.310,-0.310,-0.310,0.000,0.000,0.000
1640078973775193856,"2021-12-21,09:29:33",10.1.1.6,343,-0.320,-0.320,-0.320,0.000,0.000,0.000
1640078973842100992,"2021-12-21,09:29:33",10.1.1.6,0.41013503074645996,-0.320,-0.320,-0.320,0.000,0.000,0.000
1640078974183878912,"2021-12-21,09:29:34",10.1.1.6,339,-0.330,-0.330,-0.330,0.000,0.000,0.000
1640078974243392000,"2021-12-21,09:29:34",10.1.1.6,0.3995070457458496,-0.330,-0.330,-0.330,0.000,0.000,0.000
1640078974563316224,"2021-12-21,09:29:34",10.1.1.6,317,-0.340,-0.340,-0.340,0.000,0.000,0.000
1640078974660086016,"2021-12-21,09:29:34",10.1.1.6,0.41222214698791504,-0.340,-0.340,-0.340,0.000,0.000,0.000
1640078974994286080,"2021-12-21,09:29:34",10.1.1.6,332,-0.350,-0.350,-0.350,0.000,0.000,0.000
1640078975064776960,"2021-12-21,09:29:35",10.1.1.6,0.40282416343688965,-0.350,-0.350,-0.350,0.000,0.000,0.000
1640078975446436864,"2021-12-21,09:29:35",10.1.1.6,365,-0.360,-0.360,-0.360,0.000,0.000,0.000
1640078975493662208,"2021-12-21,09:29:35",10.1.1.6,0.4130399227142334,-0.360,-0.360,-0.360,0.000,0.000,0.000
1640078975878078976,"2021-12-21,09:29:35",10.1.1.6,373,-0.370,-0.370,-0.370,0.000,0.000,0.000
1640078975921447936,"2021-12-21,09:29:35",10.1.1.6,0.41727590560913086,-0.370,-0.370,-0.370,0.000,0.000,0.000
1640078976343475968,"2021-12-21,09:29:36",10.1.1.6,418,-0.380,-0.380,-0.380,0.000,0.000,0.000
1640078976366362112,"2021-12-21,09:29:36",10.1.1.6,0.44106197357177734,-0.380,-0.380,-0.380,0.000,0.000,0.000
1640078976745816832,"2021-12-21,09:29:36",10.1.1.6,377,-0.390,-0.390,-0.390,0.000,0.000,0.000
1640078976816119808,"2021-12-21,09:29:36",10.1.1.6,0.44641685485839844,-0.390,-0.390,-0.390,0.000,0.000,0.000
1640078977234190848,"2021-12-21,09:29:37",10.1.1.6,405,-0.400,-0.400,-0.400,0.000,0.000,0.000
1640078977304496128,"2021-12-21,09:29:37",10.1.1.6,0.48659396171569824,-0.400,-0.400,-0.400,0.000,0.000,0.000
1640078977680978944,"2021-12-21,09:29:37",10.1.1.6,372,-0.410,-0.410,-0.410,0.000,0.000,0.000
1640078977768538880,"2021-12-21,09:29:37",10.1.1.6,0.4604189395904541,-0.410,-0.410,-0.410,0.000,0.000,0.000
1640078978160161024,"2021-12-21,09:29:38",10.1.1.6,389,-0.420,-0.420,-0.420,0.000,0.000,0.000
1640078978250521856,"2021-12-21,09:29:38",10.1.1.6,0.48061203956604004,-0.420,-0.420,-0.420,0.000,0.000,0.000
1640078978624009984,"2021-12-21,09:29:38",10.1.1.6,371,-0.430,-0.430,-0.430,0.000,0.000,0.000
1640078978718318848,"2021-12-21,09:29:38",10.1.1.6,0.46558499336242676,-0.430,-0.430,-0.430,0.000,0.000,0.000
1640078979144030208,"2021-12-21,09:29:39",10.1.1.6,417,-0.440,-0.440,-0.440,0.000,0.000,0.000
1640078979184792064,"2021-12-21,09:29:39",10.1.1.6,0.4651968479156494,-0.440,-0.440,-0.440,0.000,0.000,0.000
1640078979606651904,"2021-12-21,09:29:39",10.1.1.6,419,-0.450,-0.450,-0.450,0.000,0.000,0.000
1640078979701323008,"2021-12-21,09:29:39",10.1.1.6,0.514441967010498,-0.450,-0.450,-0.450,0.000,0.000,0.000
1640078980078118912,"2021-12-21,09:29:40",10.1.1.6,369,-0.460,-0.460,-0.460,0.000,0.000,0.000
1640078980163981056,"2021-12-21,09:29:40",10.1.1.6,0.455233097076416,-0.460,-0.460,-0.460,0.000,0.000,0.000
1640078980498068992,"2021-12-21,09:29:40",10.1.1.6,332,-0.470,-0.470,-0.470,0.000,0.000,0.000
1640078980563990016,"2021-12-21,09:29:40",10.1.1.6,0.398453950881958,-0.470,-0.470,-0.470,0.000,0.000,0.000
1640078981036411904,"2021-12-21,09:29:41",10.1.1.6,467,-0.480,-0.480,-0.480,0.000,0.000,0.000
1640078981075886080,"2021-12-21,09:29:41",10.1.1.6,0.5056800842285156,-0.480,-0.480,-0.480,0.000,0.000,0.000
1640078981499208960,"2021-12-21,09:29:41",10.1.1.6,416,-0.490,-0.490,-0.490,0.000,0.000,0.000
1640078981622283008,"2021-12-21,09:29:41",10.1.1.6,0.5396461486816406,-0.490,-0.490,-0.490,0.000,0.000,0.000
1640078982020942080,"2021-12-21,09:29:42",10.1.1.6,370,-0.500,-0.500,-0.500,0.000,0.000,0.000
1640078982093414144,"2021-12-21,09:29:42",10.1.1.6,0.4428880214691162,-0.500,-0.500,-0.500,0.000,0.000,0.000
1640078982525878016,"2021-12-21,09:29:42",10.1.1.6,425,-0.510,-0.510,-0.510,0.000,0.000,0.000
1640078982571248896,"2021-12-21,09:29:42",10.1.1.6,0.4749879837036133,-0.510,-0.510,-0.510,0.000,0.000,0.000
1640078982965207040,"2021-12-21,09:29:42",10.1.1.6,392,-0.520,-0.520,-0.520,0.000,0.000,0.000
1640078983038913024,"2021-12-21,09:29:43",10.1.1.6,0.46630191802978516,-0.520,-0.520,-0.520,0.000,0.000,0.000
1640078983433193984,"2021-12-21,09:29:43",10.1.1.6,390,-0.530,-0.530,-0.530,0.000,0.000,0.000
1640078983523628032,"2021-12-21,09:29:43",10.1.1.6,0.48133206367492676,-0.530,-0.530,-0.530,0.000,0.000,0.000
1640078983954788096,"2021-12-21,09:29:43",10.1.1.6,427,-0.540,-0.540,-0.540,0.000,0.000,0.000
1640078984035272960,"2021-12-21,09:29:44",10.1.1.6,0.5080001354217529,-0.540,-0.540,-0.540,0.000,0.000,0.000
1640078984433181952,"2021-12-21,09:29:44",10.1.1.6,389,-0.550,-0.550,-0.550,0.000,0.000,0.000
1640078984499388928,"2021-12-21,09:29:44",10.1.1.6,0.45600199699401855,-0.550,-0.550,-0.550,0.000,0.000,0.000
1640078984914213888,"2021-12-21,09:29:44",10.1.1.6,412,-0.560,-0.560,-0.560,0.000,0.000,0.000
1640078984958481152,"2021-12-21,09:29:44",10.1.1.6,0.456928014755249,-0.560,-0.560,-0.560,0.000,0.000,0.000
1640078985394067968,"2021-12-21,09:29:45",10.1.1.6,428,-0.570,-0.570,-0.570,0.000,0.000,0.000
1640078985433705984,"2021-12-21,09:29:45",10.1.1.6,0.46825718879699707,-0.570,-0.570,-0.570,0.000,0.000,0.000
1640078985774298880,"2021-12-21,09:29:45",10.1.1.6,337,-0.580,-0.580,-0.580,0.000,0.000,0.000
1640078985836381952,"2021-12-21,09:29:45",10.1.1.6,0.4001491069793701,-0.580,-0.580,-0.580,0.000,0.000,0.000
1640078986185439232,"2021-12-21,09:29:46",10.1.1.6,343,-0.590,-0.590,-0.590,0.000,0.000,0.000
1640078986244388096,"2021-12-21,09:29:46",10.1.1.6,0.40236616134643555,-0.590,-0.590,-0.590,0.000,0.000,0.000
1640078986595827200,"2021-12-21,09:29:46",10.1.1.6,348,-0.600,-0.600,-0.600,0.000,0.000,0.000
1640078986673094144,"2021-12-21,09:29:46",10.1.1.6,0.4222571849822998,-0.600,-0.600,-0.600,0.000,0.000,0.000
1640078987017385984,"2021-12-21,09:29:47",10.1.1.6,341,-0.610,-0.610,-0.610,0.000,0.000,0.000
1640078987072794880,"2021-12-21,09:29:47",10.1.1.6,0.39742612838745117,-0.610,-0.610,-0.610,0.000,0.000,0.000
1640078987455456000,"2021-12-21,09:29:47",10.1.1.6,380,-0.620,-0.620,-0.620,0.000,0.000,0.000
1640078987513472000,"2021-12-21,09:29:47",10.1.1.6,0.4382917881011963,-0.620,-0.620,-0.620,0.000,0.000,0.000
1640078987935266048,"2021-12-21,09:29:47",10.1.1.6,418,-0.630,-0.630,-0.630,0.000,0.000,0.000
1640078988063993088,"2021-12-21,09:29:48",10.1.1.6,0.5471980571746826,-0.630,-0.630,-0.630,0.000,0.000,0.000
1640078988465368064,"2021-12-21,09:29:48",10.1.1.6,389,-0.640,-0.640,-0.640,0.000,0.000,0.000
1640078988536156928,"2021-12-21,09:29:48",10.1.1.6,0.45883703231811523,-0.640,-0.640,-0.640,0.000,0.000,0.000
1640078988946955008,"2021-12-21,09:29:48",10.1.1.6,403,-0.650,-0.650,-0.650,0.000,0.000,0.000
1640078989047494912,"2021-12-21,09:29:49",10.1.1.6,0.5055010318756104,-0.650,-0.650,-0.650,0.000,0.000,0.000
1640078989456301056,"2021-12-21,09:29:49",10.1.1.6,406,-0.660,-0.660,-0.660,0.000,0.000,0.000
1640078989493012992,"2021-12-21,09:29:49",10.1.1.6,0.4431769847869873,-0.660,-0.660,-0.660,0.000,0.000,0.000
1640078989874181888,"2021-12-21,09:29:49",10.1.1.6,379,-0.670,-0.670,-0.670,0.000,0.000,0.000
1640078989931847936,"2021-12-21,09:29:49",10.1.1.6,0.43757009506225586,-0.670,-0.670,-0.670,0.000,0.000,0.000
1640078990356646912,"2021-12-21,09:29:50",10.1.1.6,423,-0.680,-0.680,-0.680,0.000,0.000,0.000
1640078990406064128,"2021-12-21,09:29:50",10.1.1.6,0.47251391410827637,-0.680,-0.680,-0.680,0.000,0.000,0.000
1640078990828533760,"2021-12-21,09:29:50",10.1.1.6,414,-0.690,-0.690,-0.690,0.000,0.000,0.000
1640078990876933120,"2021-12-21,09:29:50",10.1.1.6,0.46260905265808105,-0.690,-0.690,-0.690,0.000,0.000,0.000
1640078991297374976,"2021-12-21,09:29:51",10.1.1.6,418,-0.700,-0.700,-0.700,0.000,0.000,0.000
1640078991321420800,"2021-12-21,09:29:51",10.1.1.6,0.4422459602355957,-0.700,-0.700,-0.700,0.000,0.000,0.000
1640078991743170048,"2021-12-21,09:29:51",10.1.1.6,419,-0.710,-0.710,-0.710,0.000,0.000,0.000
1640078991835273984,"2021-12-21,09:29:51",10.1.1.6,0.5122380256652832,-0.710,-0.710,-0.710,0.000,0.000,0.000
1640078992213327872,"2021-12-21,09:29:52",10.1.1.6,375,-0.720,-0.720,-0.720,0.000,0.000,0.000
1640078992308980992,"2021-12-21,09:29:52",10.1.1.6,0.46753597259521484,-0.720,-0.720,-0.720,0.000,0.000,0.000
1640078992682897920,"2021-12-21,09:29:52",10.1.1.6,371,-0.730,-0.730,-0.730,0.000,0.000,0.000
1640078992779259904,"2021-12-21,09:29:52",10.1.1.6,0.4678308963775635,-0.730,-0.730,-0.730,0.000,0.000,0.000
1640078993124546048,"2021-12-21,09:29:53",10.1.1.6,343,-0.720,-0.720,-0.720,0.000,0.000,0.000
1640078993210177792,"2021-12-21,09:29:53",10.1.1.6,0.42908716201782227,-0.720,-0.720,-0.720,0.000,0.000,0.000
1640078993631612928,"2021-12-21,09:29:53",10.1.1.6,408,-0.710,-0.710,-0.710,0.000,0.000,0.000
1640078993669827840,"2021-12-21,09:29:53",10.1.1.6,0.4469161033630371,-0.710,-0.710,-0.710,0.000,0.000,0.000
1640078993981835008,"2021-12-21,09:29:53",10.1.1.6,308,-0.700,-0.700,-0.700,0.000,0.000,0.000
1640078994021704960,"2021-12-21,09:29:54",10.1.1.6,0.3478889465332031,-0.700,-0.700,-0.700,0.000,0.000,0.000
1640078994412382976,"2021-12-21,09:29:54",10.1.1.6,385,-0.690,-0.690,-0.690,0.000,0.000,0.000
1640078994473121792,"2021-12-21,09:29:54",10.1.1.6,0.44632387161254883,-0.690,-0.690,-0.690,0.000,0.000,0.000
1640078994880485888,"2021-12-21,09:29:54",10.1.1.6,402,-0.680,-0.680,-0.680,0.000,0.000,0.000
1640078994957432064,"2021-12-21,09:29:54",10.1.1.6,0.47806596755981445,-0.680,-0.680,-0.680,0.000,0.000,0.000
1640078995363265024,"2021-12-21,09:29:55",10.1.1.6,404,-0.670,-0.670,-0.670,0.000,0.000,0.000
1640078995380947968,"2021-12-21,09:29:55",10.1.1.6,0.42206311225891113,-0.670,-0.670,-0.670,0.000,0.000,0.000
1640078995735315200,"2021-12-21,09:29:55",10.1.1.6,351,-0.660,-0.660,-0.660,0.000,0.000,0.000
1640078995791686144,"2021-12-21,09:29:55",10.1.1.6,0.40923285484313965,-0.660,-0.660,-0.660,0.000,0.000,0.000
1640078996140969984,"2021-12-21,09:29:56",10.1.1.6,347,-0.650,-0.650,-0.650,0.000,0.000,0.000
1640078996209433088,"2021-12-21,09:29:56",10.1.1.6,0.415740966796875,-0.650,-0.650,-0.650,0.000,0.000,0.000
1640078996567572224,"2021-12-21,09:29:56",10.1.1.6,356,-0.640,-0.640,-0.640,0.000,0.000,0.000
1640078996628503040,"2021-12-21,09:29:56",10.1.1.6,0.41746091842651367,-0.640,-0.640,-0.640,0.000,0.000,0.000
1640078996969104128,"2021-12-21,09:29:56",10.1.1.6,338,-0.630,-0.630,-0.630,0.000,0.000,0.000
1640078997017677056,"2021-12-21,09:29:57",10.1.1.6,0.386106014251709,-0.630,-0.630,-0.630,0.000,0.000,0.000
1640078997396649984,"2021-12-21,09:29:57",10.1.1.6,376,-0.620,-0.620,-0.620,0.000,0.000,0.000
1640078997490519040,"2021-12-21,09:29:57",10.1.1.6,0.4699699878692627,-0.620,-0.620,-0.620,0.000,0.000,0.000
1640078997887019008,"2021-12-21,09:29:57",10.1.1.6,394,-0.610,-0.610,-0.610,0.000,0.000,0.000
1640078997984178176,"2021-12-21,09:29:57",10.1.1.6,0.49222803115844727,-0.610,-0.610,-0.610,0.000,0.000,0.000
1640078998387705088,"2021-12-21,09:29:58",10.1.1.6,398,-0.600,-0.600,-0.600,0.000,0.000,0.000
1640078998468540928,"2021-12-21,09:29:58",10.1.1.6,0.4817471504211426,-0.600,-0.600,-0.600,0.000,0.000,0.000
1640078998905821952,"2021-12-21,09:29:58",10.1.1.6,434,-0.590,-0.590,-0.590,0.000,0.000,0.000
1640078998957808128,"2021-12-21,09:29:58",10.1.1.6,0.484633207321167,-0.590,-0.590,-0.590,0.000,0.000,0.000
1640078999376377088,"2021-12-21,09:29:59",10.1.1.6,416,-0.580,-0.580,-0.580,0.000,0.000,0.000
1640078999443894016,"2021-12-21,09:29:59",10.1.1.6,0.48430609703063965,-0.580,-0.580,-0.580,0.000,0.000,0.000
1640078999783670016,"2021-12-21,09:29:59",10.1.1.6,337,-0.570,-0.570,-0.570,0.000,0.000,0.000
1640078999852165888,"2021-12-21,09:29:59",10.1.1.6,0.40561413764953613,-0.570,-0.570,-0.570,0.000,0.000,0.000
1640079000223084032,"2021-12-21,09:30:00",10.1.1.6,363,-0.560,-0.560,-0.560,0.000,0.000,0.000
1640079000282150912,"2021-12-21,09:30:00",10.1.1.6,0.4224529266357422,-0.560,-0.560,-0.560,0.000,0.000,0.000
1640079000665620992,"2021-12-21,09:30:00",10.1.1.6,379,-0.550,-0.550,-0.550,0.000,0.000,0.000
1640079000791908864,"2021-12-21,09:30:00",10.1.1.6,0.5059881210327148,-0.550,-0.550,-0.550,0.000,0.000,0.000
1640079001212625152,"2021-12-21,09:30:01",10.1.1.6,402,-0.540,-0.540,-0.540,0.000,0.000,0.000
1640079001250208000,"2021-12-21,09:30:01",10.1.1.6,0.43987607955932617,-0.540,-0.540,-0.540,0.000,0.000,0.000
1640079001631310848,"2021-12-21,09:30:01",10.1.1.6,379,-0.530,-0.530,-0.530,0.000,0.000,0.000
1640079001718041856,"2021-12-21,09:30:01",10.1.1.6,0.46610212326049805,-0.530,-0.530,-0.530,0.000,0.000,0.000
1640079002077858048,"2021-12-21,09:30:02",10.1.1.6,354,-0.520,-0.520,-0.520,0.000,0.000,0.000
1640079002088218880,"2021-12-21,09:30:02",10.1.1.6,0.36485791206359863,-0.520,-0.520,-0.520,0.000,0.000,0.000
1640079002451309056,"2021-12-21,09:30:02",10.1.1.6,357,-0.510,-0.510,-0.510,0.000,0.000,0.000
1640079002535613184,"2021-12-21,09:30:02",10.1.1.6,0.44121599197387695,-0.510,-0.510,-0.510,0.000,0.000,0.000
1640079002954814976,"2021-12-21,09:30:02",10.1.1.6,415,-0.500,-0.500,-0.500,0.000,0.000,0.000
1640079003085643008,"2021-12-21,09:30:03",10.1.1.6,0.546504020690918,-0.500,-0.500,-0.500,0.000,0.000,0.000
1640079003758481920,"2021-12-21,09:30:03",10.1.1.6,666,-0.490,-0.490,-0.490,0.000,0.000,0.000
1640079003779674880,"2021-12-21,09:30:03",10.1.1.6,0.6881670951843262,-0.490,-0.490,-0.490,0.000,0.000,0.000
1640079004158090240,"2021-12-21,09:30:04",10.1.1.6,368,-0.480,-0.480,-0.480,0.000,0.000,0.000
1640079004192751872,"2021-12-21,09:30:04",10.1.1.6,0.4113950729370117,-0.480,-0.480,-0.480,0.000,0.000,0.000
1640079004548065792,"2021-12-21,09:30:04",10.1.1.6,353,-0.470,-0.470,-0.470,0.000,0.000,0.000
1640079004615789824,"2021-12-21,09:30:04",10.1.1.6,0.4210188388824463,-0.470,-0.470,-0.470,0.000,0.000,0.000
1640079004961207040,"2021-12-21,09:30:04",10.1.1.6,342,-0.460,-0.460,-0.460,0.000,0.000,0.000
1640079004983809024,"2021-12-21,09:30:04",10.1.1.6,0.36673712730407715,-0.460,-0.460,-0.460,0.000,0.000,0.000
1640079005306615040,"2021-12-21,09:30:05",10.1.1.6,319,-0.450,-0.450,-0.450,0.000,0.000,0.000
1640079005383783936,"2021-12-21,09:30:05",10.1.1.6,0.39597105979919434,-0.450,-0.450,-0.450,0.000,0.000,0.000
1640079005735122944,"2021-12-21,09:30:05",10.1.1.6,349,-0.440,-0.440,-0.440,0.000,0.000,0.000
1640079005795310848,"2021-12-21,09:30:05",10.1.1.6,0.40946006774902344,-0.440,-0.440,-0.440,0.000,0.000,0.000
1640079006154288896,"2021-12-21,09:30:06",10.1.1.6,356,-0.430,-0.430,-0.430,0.000,0.000,0.000
1640079006254900992,"2021-12-21,09:30:06",10.1.1.6,0.45748305320739746,-0.430,-0.430,-0.430,0.000,0.000,0.000
1640079006613281024,"2021-12-21,09:30:06",10.1.1.6,356,-0.420,-0.420,-0.420,0.000,0.000,0.000
1640079006685043968,"2021-12-21,09:30:06",10.1.1.6,0.4284977912902832,-0.420,-0.420,-0.420,0.000,0.000,0.000
1640079007003329024,"2021-12-21,09:30:07",10.1.1.6,316,-0.410,-0.410,-0.410,0.000,0.000,0.000
1640079007073585152,"2021-12-21,09:30:07",10.1.1.6,0.38700389862060547,-0.410,-0.410,-0.410,0.000,0.000,0.000
1640079007432581888,"2021-12-21,09:30:07",10.1.1.6,357,-0.400,-0.400,-0.400,0.000,0.000,0.000
1640079007461922816,"2021-12-21,09:30:07",10.1.1.6,0.38715291023254395,-0.400,-0.400,-0.400,0.000,0.000,0.000
1640079007829950208,"2021-12-21,09:30:07",10.1.1.6,358,-0.390,-0.390,-0.390,0.000,0.000,0.000
1640079007890297856,"2021-12-21,09:30:07",10.1.1.6,0.425886869430542,-0.390,-0.390,-0.390,0.000,0.000,0.000
1640079008252808960,"2021-12-21,09:30:08",10.1.1.6,361,-0.380,-0.380,-0.380,0.000,0.000,0.000
1640079008270465024,"2021-12-21,09:30:08",10.1.1.6,0.3786940574645996,-0.380,-0.380,-0.380,0.000,0.000,0.000
1640079008604948992,"2021-12-21,09:30:08",10.1.1.6,332,-0.370,-0.370,-0.370,0.000,0.000,0.000
1640079008667633152,"2021-12-21,09:30:08",10.1.1.6,0.39467597007751465,-0.370,-0.370,-0.370,0.000,0.000,0.000
1640079009021436928,"2021-12-21,09:30:09",10.1.1.6,348,-0.360,-0.360,-0.360,0.000,0.000,0.000
1640079009073293056,"2021-12-21,09:30:09",10.1.1.6,0.3998908996582031,-0.360,-0.360,-0.360,0.000,0.000,0.000
1640079009400185088,"2021-12-21,09:30:09",10.1.1.6,325,-0.350,-0.350,-0.350,0.000,0.000,0.000
1640079009509959936,"2021-12-21,09:30:09",10.1.1.6,0.43497204780578613,-0.350,-0.350,-0.350,0.000,0.000,0.000
1640079009910371072,"2021-12-21,09:30:09",10.1.1.6,398,-0.340,-0.340,-0.340,0.000,0.000,0.000
1640079009979439872,"2021-12-21,09:30:09",10.1.1.6,0.4622080326080322,-0.340,-0.340,-0.340,0.000,0.000,0.000
1640079010376566016,"2021-12-21,09:30:10",10.1.1.6,393,-0.330,-0.330,-0.330,0.000,0.000,0.000
1640079010427484928,"2021-12-21,09:30:10",10.1.1.6,0.4440021514892578,-0.330,-0.330,-0.330,0.000,0.000,0.000
1640079010900992000,"2021-12-21,09:30:10",10.1.1.6,462,-0.320,-0.320,-0.320,0.000,0.000,0.000
1640079010921475840,"2021-12-21,09:30:10",10.1.1.6,0.4832580089569092,-0.320,-0.320,-0.320,0.000,0.000,0.000
1640079011257252096,"2021-12-21,09:30:11",10.1.1.6,334,-0.310,-0.310,-0.310,0.000,0.000,0.000
1640079011368387072,"2021-12-21,09:30:11",10.1.1.6,0.44558095932006836,-0.310,-0.310,-0.310,0.000,0.000,0.000
1640079011767147008,"2021-12-21,09:30:11",10.1.1.6,393,-0.300,-0.300,-0.300,0.000,0.000,0.000
1640079011807696128,"2021-12-21,09:30:11",10.1.1.6,0.43437886238098145,-0.300,-0.300,-0.300,0.000,0.000,0.000
1640079012128801024,"2021-12-21,09:30:12",10.1.1.6,319,-0.290,-0.290,-0.290,0.000,0.000,0.000
1640079012189114112,"2021-12-21,09:30:12",10.1.1.6,0.3799259662628174,-0.290,-0.290,-0.290,0.000,0.000,0.000
1640079012518536192,"2021-12-21,09:30:12",10.1.1.6,325,-0.280,-0.280,-0.280,0.000,0.000,0.000
1640079012596613888,"2021-12-21,09:30:12",10.1.1.6,0.40396904945373535,-0.280,-0.280,-0.280,0.000,0.000,0.000
1640079012953550080,"2021-12-21,09:30:12",10.1.1.6,352,-0.270,-0.270,-0.270,0.000,0.000,0.000
1640079013041480960,"2021-12-21,09:30:13",10.1.1.6,0.44071507453918457,-0.270,-0.270,-0.270,0.000,0.000,0.000
1640079013671225088,"2021-12-21,09:30:13",10.1.1.6,627,-0.260,-0.260,-0.260,0.000,0.000,0.000
1640079013736704000,"2021-12-21,09:30:13",10.1.1.6,0.693540096282959,-0.260,-0.260,-0.260,0.000,0.000,0.000
1640079014132755968,"2021-12-21,09:30:14",10.1.1.6,393,-0.250,-0.250,-0.250,0.000,0.000,0.000
1640079014150188032,"2021-12-21,09:30:14",10.1.1.6,0.4114232063293457,-0.250,-0.250,-0.250,0.000,0.000,0.000
1640079014502034944,"2021-12-21,09:30:14",10.1.1.6,350,-0.240,-0.240,-0.240,0.000,0.000,0.000
1640079014540656128,"2021-12-21,09:30:14",10.1.1.6,0.38881802558898926,-0.240,-0.240,-0.240,0.000,0.000,0.000
1640079015001195008,"2021-12-21,09:30:15",10.1.1.6,459,-0.250,-0.250,-0.250,0.000,0.000,0.000
1640079015068006912,"2021-12-21,09:30:15",10.1.1.6,0.52606201171875,-0.250,-0.250,-0.250,0.000,0.000,0.000
1640079015412420096,"2021-12-21,09:30:15",10.1.1.6,342,-0.260,-0.260,-0.260,0.000,0.000,0.000
1640079015555136000,"2021-12-21,09:30:15",10.1.1.6,0.48499488830566406,-0.260,-0.260,-0.260,0.000,0.000,0.000
1640079015894944000,"2021-12-21,09:30:15",10.1.1.6,337,-0.270,-0.270,-0.270,0.000,0.000,0.000
1640079016032256000,"2021-12-21,09:30:16",10.1.1.6,0.47492003440856934,-0.270,-0.270,-0.270,0.000,0.000,0.000
1640079016423928064,"2021-12-21,09:30:16",10.1.1.6,390,-0.280,-0.280,-0.280,0.000,0.000,0.000
1640079016492358912,"2021-12-21,09:30:16",10.1.1.6,0.4586150646209717,-0.280,-0.280,-0.280,0.000,0.000,0.000
1640079016973315072,"2021-12-21,09:30:16",10.1.1.6,478,-0.290,-0.290,-0.290,0.000,0.000,0.000
1640079017032066048,"2021-12-21,09:30:17",10.1.1.6,0.5376999378204346,-0.290,-0.290,-0.290,0.000,0.000,0.000
1640079017576883968,"2021-12-21,09:30:17",10.1.1.6,534,-0.300,-0.300,-0.300,0.000,0.000,0.000
1640079017598288128,"2021-12-21,09:30:17",10.1.1.6,0.5555830001831055,-0.300,-0.300,-0.300,0.000,0.000,0.000
1640079018005605888,"2021-12-21,09:30:18",10.1.1.6,401,-0.310,-0.310,-0.310,0.000,0.000,0.000
1640079018062553856,"2021-12-21,09:30:18",10.1.1.6,0.45848703384399414,-0.310,-0.310,-0.310,0.000,0.000,0.000
1640079018466006016,"2021-12-21,09:30:18",10.1.1.6,401,-0.320,-0.320,-0.320,0.000,0.000,0.000
1640079018552273152,"2021-12-21,09:30:18",10.1.1.6,0.4881157875061035,-0.320,-0.320,-0.320,0.000,0.000,0.000
1640079018968420864,"2021-12-21,09:30:18",10.1.1.6,409,-0.330,-0.330,-0.330,0.000,0.000,0.000
1640079019065617920,"2021-12-21,09:30:19",10.1.1.6,0.5090489387512207,-0.330,-0.330,-0.330,0.000,0.000,0.000
1640079019505196032,"2021-12-21,09:30:19",10.1.1.6,437,-0.340,-0.340,-0.340,0.000,0.000,0.000
1640079019577646848,"2021-12-21,09:30:19",10.1.1.6,0.5102720260620117,-0.340,-0.340,-0.340,0.000,0.000,0.000
1640079019936566016,"2021-12-21,09:30:19",10.1.1.6,356,-0.350,-0.350,-0.350,0.000,0.000,0.000
1640079019986247936,"2021-12-21,09:30:19",10.1.1.6,0.40677404403686523,-0.350,-0.350,-0.350,0.000,0.000,0.000
1640079020339744000,"2021-12-21,09:30:20",10.1.1.6,351,-0.360,-0.360,-0.360,0.000,0.000,0.000
1640079020416555008,"2021-12-21,09:30:20",10.1.1.6,0.42864513397216797,-0.360,-0.360,-0.360,0.000,0.000,0.000
1640079020794277888,"2021-12-21,09:30:20",10.1.1.6,373,-0.370,-0.370,-0.370,0.000,0.000,0.000
1640079020858354176,"2021-12-21,09:30:20",10.1.1.6,0.43850207328796387,-0.370,-0.370,-0.370,0.000,0.000,0.000
1640079021215868928,"2021-12-21,09:30:21",10.1.1.6,354,-0.380,-0.380,-0.380,0.000,0.000,0.000
1640079021260912896,"2021-12-21,09:30:21",10.1.1.6,0.3998749256134033,-0.380,-0.380,-0.380,0.000,0.000,0.000
1640079021642862080,"2021-12-21,09:30:21",10.1.1.6,380,-0.390,-0.390,-0.390,0.000,0.000,0.000
1640079021714174976,"2021-12-21,09:30:21",10.1.1.6,0.4513411521911621,-0.390,-0.390,-0.390,0.000,0.000,0.000
1640079022163552000,"2021-12-21,09:30:22",10.1.1.6,447,-0.400,-0.400,-0.400,0.000,0.000,0.000
1640079022236096000,"2021-12-21,09:30:22",10.1.1.6,0.5204520225524902,-0.400,-0.400,-0.400,0.000,0.000,0.000
1640079022573188096,"2021-12-21,09:30:22",10.1.1.6,331,-0.410,-0.410,-0.410,0.000,0.000,0.000
1640079022650948096,"2021-12-21,09:30:22",10.1.1.6,0.4048178195953369,-0.410,-0.410,-0.410,0.000,0.000,0.000
1640079023002700032,"2021-12-21,09:30:23",10.1.1.6,349,-0.420,-0.420,-0.420,0.000,0.000,0.000
1640079023026928896,"2021-12-21,09:30:23",10.1.1.6,0.37365102767944336,-0.420,-0.420,-0.420,0.000,0.000,0.000
1640079023432094976,"2021-12-21,09:30:23",10.1.1.6,403,-0.430,-0.430,-0.430,0.000,0.000,0.000
1640079023501251840,"2021-12-21,09:30:23",10.1.1.6,0.4730808734893799,-0.430,-0.430,-0.430,0.000,0.000,0.000
1640079023852018944,"2021-12-21,09:30:23",10.1.1.6,348,-0.440,-0.440,-0.440,0.000,0.000,0.000
1640079024034498048,"2021-12-21,09:30:24",10.1.1.6,0.5309641361236572,-0.440,-0.440,-0.440,0.000,0.000,0.000
1640079024451766016,"2021-12-21,09:30:24",10.1.1.6,398,-0.450,-0.450,-0.450,0.000,0.000,0.000
1640079024527177984,"2021-12-21,09:30:24",10.1.1.6,0.4746110439300537,-0.450,-0.450,-0.450,0.000,0.000,0.000
1640079024912056064,"2021-12-21,09:30:24",10.1.1.6,376,-0.460,-0.460,-0.460,0.000,0.000,0.000
1640079025037921024,"2021-12-21,09:30:25",10.1.1.6,0.5029029846191406,-0.460,-0.460,-0.460,0.000,0.000,0.000
1640079025440269824,"2021-12-21,09:30:25",10.1.1.6,400,-0.470,-0.470,-0.470,0.000,0.000,0.000
1640079025517065984,"2021-12-21,09:30:25",10.1.1.6,0.4768640995025635,-0.470,-0.470,-0.470,0.000,0.000,0.000
1640079026040455936,"2021-12-21,09:30:26",10.1.1.6,519,-0.480,-0.480,-0.480,0.000,0.000,0.000
1640079026194555904,"2021-12-21,09:30:26",10.1.1.6,0.6734380722045898,-0.480,-0.480,-0.480,0.000,0.000,0.000
1640079026569577984,"2021-12-21,09:30:26",10.1.1.6,373,-0.490,-0.490,-0.490,0.000,0.000,0.000
1640079026664120064,"2021-12-21,09:30:26",10.1.1.6,0.46811819076538086,-0.490,-0.490,-0.490,0.000,0.000,0.000
1640079027079577856,"2021-12-21,09:30:27",10.1.1.6,413,-0.500,-0.500,-0.500,0.000,0.000,0.000
1640079027191659008,"2021-12-21,09:30:27",10.1.1.6,0.5251390933990479,-0.500,-0.500,-0.500,0.000,0.000,0.000
1640079027581583104,"2021-12-21,09:30:27",10.1.1.6,369,-0.510,-0.510,-0.510,0.000,0.000,0.000
1640079027663809024,"2021-12-21,09:30:27",10.1.1.6,0.4499380588531494,-0.510,-0.510,-0.510,0.000,0.000,0.000
