FedericoMungari/DigitalTwin_service/02_LTEScenario/Output/Output_script/script_rosapi_2_output_robots1_freq0_1.txt
timestamp,date,node,latency,joint_1,joint_2,joint_3,joint_4,joint_5,joint_6
1641058644042516992,2022-01-01-17:37:24,10.1.1.2,195,-0.010,-0.010,-0.010,0.000,0.000,0.000
1641058644217835776,2022-01-01-17:37:24,10.1.1.2,170,-0.020,-0.020,-0.020,0.000,0.000,0.000
1641058644419022080,2022-01-01-17:37:24,10.1.1.2,170,-0.030,-0.030,-0.030,0.000,0.000,0.000
1641058644630008832,2022-01-01-17:37:24,10.1.1.2,180,-0.040,-0.040,-0.040,0.000,0.000,0.000
1641058644829880064,2022-01-01-17:37:24,10.1.1.2,179,-0.050,-0.050,-0.050,0.000,0.000,0.000
1641058645031361024,2022-01-01-17:37:25,10.1.1.2,180,-0.060,-0.060,-0.060,0.000,0.000,0.000
1641058645226646784,2022-01-01-17:37:25,10.1.1.2,173,-0.070,-0.070,-0.070,0.000,0.000,0.000
1641058645618828032,2022-01-01-17:37:25,10.1.1.2,162,-0.090,-0.090,-0.090,0.000,0.000,0.000
1641058645830470912,2022-01-01-17:37:25,10.1.1.2,172,-0.100,-0.100,-0.100,0.000,0.000,0.000
1641058646031143936,2022-01-01-17:37:26,10.1.1.2,172,-0.110,-0.110,-0.110,0.000,0.000,0.000
1641058646232332032,2022-01-01-17:37:26,10.1.1.2,173,-0.120,-0.120,-0.120,0.000,0.000,0.000
1641058646452732928,2022-01-01-17:37:26,10.1.1.2,192,-0.130,-0.130,-0.130,0.000,0.000,0.000
1641058646651285760,2022-01-01-17:37:26,10.1.1.2,189,-0.140,-0.140,-0.140,0.000,0.000,0.000
1641058646847499008,2022-01-01-17:37:26,10.1.1.2,185,-0.150,-0.150,-0.150,0.000,0.000,0.000
1641058647048672000,2022-01-01-17:37:27,10.1.1.2,185,-0.160,-0.160,-0.160,0.000,0.000,0.000
1641058647241256960,2022-01-01-17:37:27,10.1.1.2,177,-0.170,-0.170,-0.170,0.000,0.000,0.000
1641058647451635968,2022-01-01-17:37:27,10.1.1.2,185,-0.180,-0.180,-0.180,0.000,0.000,0.000
1641058647652301056,2022-01-01-17:37:27,10.1.1.2,185,-0.190,-0.190,-0.190,0.000,0.000,0.000
1641058647853262848,2022-01-01-17:37:27,10.1.1.2,182,-0.200,-0.200,-0.200,0.000,0.000,0.000
1641058648054811904,2022-01-01-17:37:28,10.1.1.2,180,-0.210,-0.210,-0.210,0.000,0.000,0.000
1641058648255540992,2022-01-01-17:37:28,10.1.1.2,179,-0.220,-0.220,-0.220,0.000,0.000,0.000
1641058648454075136,2022-01-01-17:37:28,10.1.1.2,178,-0.230,-0.230,-0.230,0.000,0.000,0.000
1641058648854432000,2022-01-01-17:37:28,10.1.1.2,176,-0.250,-0.250,-0.250,0.000,0.000,0.000
1641058649055453184,2022-01-01-17:37:29,10.1.1.2,176,-0.260,-0.260,-0.260,0.000,0.000,0.000
1641058649268215040,2022-01-01-17:37:29,10.1.1.2,187,-0.270,-0.270,-0.270,0.000,0.000,0.000
1641058649477839872,2022-01-01-17:37:29,10.1.1.2,196,-0.280,-0.280,-0.280,0.000,0.000,0.000
1641058649669753088,2022-01-01-17:37:29,10.1.1.2,187,-0.290,-0.290,-0.290,0.000,0.000,0.000
1641058649860777984,2022-01-01-17:37:29,10.1.1.2,177,-0.300,-0.300,-0.300,0.000,0.000,0.000
1641058650061294080,2022-01-01-17:37:30,10.1.1.2,177,-0.310,-0.310,-0.310,0.000,0.000,0.000
1641058650277344000,2022-01-01-17:37:30,10.1.1.2,188,-0.320,-0.320,-0.320,0.000,0.000,0.000
1641058650491187200,2022-01-01-17:37:30,10.1.1.2,198,-0.330,-0.330,-0.330,0.000,0.000,0.000
1641058650678985984,2022-01-01-17:37:30,10.1.1.2,184,-0.340,-0.340,-0.340,0.000,0.000,0.000
1641058651285028864,2022-01-01-17:37:31,10.1.1.2,186,-0.370,-0.370,-0.370,0.000,0.000,0.000
1641058651484476928,2022-01-01-17:37:31,10.1.1.2,183,-0.380,-0.380,-0.380,0.000,0.000,0.000
1641058651891577856,2022-01-01-17:37:31,10.1.1.2,190,-0.400,-0.400,-0.400,0.000,0.000,0.000
1641058652508246784,2022-01-01-17:37:32,10.1.1.2,192,-0.430,-0.430,-0.430,0.000,0.000,0.000
1641058652697464832,2022-01-01-17:37:32,10.1.1.2,180,-0.440,-0.440,-0.440,0.000,0.000,0.000
1641058652903122944,2022-01-01-17:37:32,10.1.1.2,185,-0.450,-0.450,-0.450,0.000,0.000,0.000
1641058653101916928,2022-01-01-17:37:33,10.1.1.2,183,-0.460,-0.460,-0.460,0.000,0.000,0.000
1641058653305270016,2022-01-01-17:37:33,10.1.1.2,184,-0.470,-0.470,-0.470,0.000,0.000,0.000
1641058653501110016,2022-01-01-17:37:33,10.1.1.2,179,-0.480,-0.480,-0.480,0.000,0.000,0.000
1641058653702233088,2022-01-01-17:37:33,10.1.1.2,179,-0.490,-0.490,-0.490,0.000,0.000,0.000
1641058653904347904,2022-01-01-17:37:33,10.1.1.2,179,-0.480,-0.480,-0.480,0.000,0.000,0.000
1641058654326065152,2022-01-01-17:37:34,10.1.1.2,199,-0.460,-0.460,-0.460,0.000,0.000,0.000
1641058654520283904,2022-01-01-17:37:34,10.1.1.2,192,-0.450,-0.450,-0.450,0.000,0.000,0.000
1641058654725587968,2022-01-01-17:37:34,10.1.1.2,197,-0.440,-0.440,-0.440,0.000,0.000,0.000
1641058654926807040,2022-01-01-17:37:34,10.1.1.2,196,-0.430,-0.430,-0.430,0.000,0.000,0.000
1641058655125504000,2022-01-01-17:37:35,10.1.1.2,195,-0.420,-0.420,-0.420,0.000,0.000,0.000
1641058655326108928,2022-01-01-17:37:35,10.1.1.2,194,-0.410,-0.410,-0.410,0.000,0.000,0.000
1641058655525844992,2022-01-01-17:37:35,10.1.1.2,192,-0.400,-0.400,-0.400,0.000,0.000,0.000
1641058655727278848,2022-01-01-17:37:35,10.1.1.2,193,-0.390,-0.390,-0.390,0.000,0.000,0.000
1641058655925981952,2022-01-01-17:37:35,10.1.1.2,191,-0.380,-0.380,-0.380,0.000,0.000,0.000
1641058656126124032,2022-01-01-17:37:36,10.1.1.2,190,-0.370,-0.370,-0.370,0.000,0.000,0.000
1641058656326953984,2022-01-01-17:37:36,10.1.1.2,190,-0.360,-0.360,-0.360,0.000,0.000,0.000
1641058656525569792,2022-01-01-17:37:36,10.1.1.2,188,-0.350,-0.350,-0.350,0.000,0.000,0.000
1641058656725300992,2022-01-01-17:37:36,10.1.1.2,186,-0.340,-0.340,-0.340,0.000,0.000,0.000
1641058656925484032,2022-01-01-17:37:36,10.1.1.2,186,-0.330,-0.330,-0.330,0.000,0.000,0.000
1641058657125281024,2022-01-01-17:37:37,10.1.1.2,181,-0.320,-0.320,-0.320,0.000,0.000,0.000
1641058657323864064,2022-01-01-17:37:37,10.1.1.2,178,-0.310,-0.310,-0.310,0.000,0.000,0.000
1641058657532429824,2022-01-01-17:37:37,10.1.1.2,186,-0.300,-0.300,-0.300,0.000,0.000,0.000
1641058657724873984,2022-01-01-17:37:37,10.1.1.2,177,-0.290,-0.290,-0.290,0.000,0.000,0.000
1641058657943845120,2022-01-01-17:37:37,10.1.1.2,193,-0.280,-0.280,-0.280,0.000,0.000,0.000
1641058658146599936,2022-01-01-17:37:38,10.1.1.2,195,-0.270,-0.270,-0.270,0.000,0.000,0.000
1641058658346232064,2022-01-01-17:37:38,10.1.1.2,192,-0.260,-0.260,-0.260,0.000,0.000,0.000
1641058658546072832,2022-01-01-17:37:38,10.1.1.2,191,-0.250,-0.250,-0.250,0.000,0.000,0.000
1641058658745915904,2022-01-01-17:37:38,10.1.1.2,190,-0.240,-0.240,-0.240,0.000,0.000,0.000
1641058658951267072,2022-01-01-17:37:38,10.1.1.2,195,-0.230,-0.230,-0.230,0.000,0.000,0.000
1641058659555447040,2022-01-01-17:37:39,10.1.1.2,197,-0.200,-0.200,-0.200,0.000,0.000,0.000
1641058660357840896,2022-01-01-17:37:40,10.1.1.2,194,-0.160,-0.160,-0.160,0.000,0.000,0.000
1641058660964681984,2022-01-01-17:37:40,10.1.1.2,197,-0.130,-0.130,-0.130,0.000,0.000,0.000
1641058661144443904,2022-01-01-17:37:41,10.1.1.2,175,-0.120,-0.120,-0.120,0.000,0.000,0.000
1641058661363545856,2022-01-01-17:37:41,10.1.1.2,193,-0.110,-0.110,-0.110,0.000,0.000,0.000
1641058661547516160,2022-01-01-17:37:41,10.1.1.2,176,-0.100,-0.100,-0.100,0.000,0.000,0.000
1641058661961957888,2022-01-01-17:37:41,10.1.1.2,184,-0.080,-0.080,-0.080,0.000,0.000,0.000
1641058662161870848,2022-01-01-17:37:42,10.1.1.2,183,-0.070,-0.070,-0.070,0.000,0.000,0.000
1641058662361093120,2022-01-01-17:37:42,10.1.1.2,181,-0.060,-0.060,-0.060,0.000,0.000,0.000
1641058662561454080,2022-01-01-17:37:42,10.1.1.2,181,-0.050,-0.050,-0.050,0.000,0.000,0.000
1641058662781671168,2022-01-01-17:37:42,10.1.1.2,199,-0.040,-0.040,-0.040,0.000,0.000,0.000
1641058662960830976,2022-01-01-17:37:42,10.1.1.2,177,-0.030,-0.030,-0.030,0.000,0.000,0.000
1641058663160868864,2022-01-01-17:37:43,10.1.1.2,175,-0.020,-0.020,-0.020,0.000,0.000,0.000
1641058663360184832,2022-01-01-17:37:43,10.1.1.2,174,-0.010,-0.010,-0.010,0.000,0.000,0.000
1641058663560077824,2022-01-01-17:37:43,10.1.1.2,173,-0.000,-0.000,-0.000,0.000,0.000,0.000
1641058663779371008,2022-01-01-17:37:43,10.1.1.2,191,-0.010,-0.010,-0.010,0.000,0.000,0.000
1641058663979459072,2022-01-01-17:37:43,10.1.1.2,190,-0.020,-0.020,-0.020,0.000,0.000,0.000
1641058664171190016,2022-01-01-17:37:44,10.1.1.2,181,-0.030,-0.030,-0.030,0.000,0.000,0.000
1641058664372340992,2022-01-01-17:37:44,10.1.1.2,181,-0.040,-0.040,-0.040,0.000,0.000,0.000
1641058664571415040,2022-01-01-17:37:44,10.1.1.2,174,-0.050,-0.050,-0.050,0.000,0.000,0.000
1641058664770877952,2022-01-01-17:37:44,10.1.1.2,173,-0.060,-0.060,-0.060,0.000,0.000,0.000
1641058664980658944,2022-01-01-17:37:44,10.1.1.2,176,-0.070,-0.070,-0.070,0.000,0.000,0.000
1641058665179215872,2022-01-01-17:37:45,10.1.1.2,172,-0.080,-0.080,-0.080,0.000,0.000,0.000
1641058665398822912,2022-01-01-17:37:45,10.1.1.2,187,-0.090,-0.090,-0.090,0.000,0.000,0.000
1641058665598347776,2022-01-01-17:37:45,10.1.1.2,185,-0.100,-0.100,-0.100,0.000,0.000,0.000
1641058665798800896,2022-01-01-17:37:45,10.1.1.2,184,-0.110,-0.110,-0.110,0.000,0.000,0.000
1641058665998563072,2022-01-01-17:37:45,10.1.1.2,179,-0.120,-0.120,-0.120,0.000,0.000,0.000
1641058666193718016,2022-01-01-17:37:46,10.1.1.2,173,-0.130,-0.130,-0.130,0.000,0.000,0.000
1641058666409529856,2022-01-01-17:37:46,10.1.1.2,188,-0.140,-0.140,-0.140,0.000,0.000,0.000
1641058666624044800,2022-01-01-17:37:46,10.1.1.2,201,-0.150,-0.150,-0.150,0.000,0.000,0.000
1641058666812179968,2022-01-01-17:37:46,10.1.1.2,187,-0.160,-0.160,-0.160,0.000,0.000,0.000
1641058667008449024,2022-01-01-17:37:47,10.1.1.2,182,-0.170,-0.170,-0.170,0.000,0.000,0.000
1641058667208683008,2022-01-01-17:37:47,10.1.1.2,181,-0.180,-0.180,-0.180,0.000,0.000,0.000
1641058667421047808,2022-01-01-17:37:47,10.1.1.2,193,-0.190,-0.190,-0.190,0.000,0.000,0.000
1641058667619514880,2022-01-01-17:37:47,10.1.1.2,190,-0.200,-0.200,-0.200,0.000,0.000,0.000
1641058667810481920,2022-01-01-17:37:47,10.1.1.2,180,-0.210,-0.210,-0.210,0.000,0.000,0.000
1641058668026117120,2022-01-01-17:37:48,10.1.1.2,194,-0.220,-0.220,-0.220,0.000,0.000,0.000
1641058668211771904,2022-01-01-17:37:48,10.1.1.2,180,-0.230,-0.230,-0.230,0.000,0.000,0.000
1641058668411436032,2022-01-01-17:37:48,10.1.1.2,178,-0.240,-0.240,-0.240,0.000,0.000,0.000
1641058668608613120,2022-01-01-17:37:48,10.1.1.2,175,-0.250,-0.250,-0.250,0.000,0.000,0.000
1641058669004218112,2022-01-01-17:37:49,10.1.1.2,168,-0.270,-0.270,-0.270,0.000,0.000,0.000
1641058669232472832,2022-01-01-17:37:49,10.1.1.2,196,-0.280,-0.280,-0.280,0.000,0.000,0.000
1641058669413011968,2022-01-01-17:37:49,10.1.1.2,174,-0.290,-0.290,-0.290,0.000,0.000,0.000
1641058669612006912,2022-01-01-17:37:49,10.1.1.2,173,-0.300,-0.300,-0.300,0.000,0.000,0.000
1641058669812058880,2022-01-01-17:37:49,10.1.1.2,172,-0.310,-0.310,-0.310,0.000,0.000,0.000
1641058670014799104,2022-01-01-17:37:50,10.1.1.2,174,-0.320,-0.320,-0.320,0.000,0.000,0.000
1641058670210793984,2022-01-01-17:37:50,10.1.1.2,169,-0.330,-0.330,-0.330,0.000,0.000,0.000
1641058670414011904,2022-01-01-17:37:50,10.1.1.2,171,-0.340,-0.340,-0.340,0.000,0.000,0.000
1641058670628264960,2022-01-01-17:37:50,10.1.1.2,185,-0.350,-0.350,-0.350,0.000,0.000,0.000
1641058671438455040,2022-01-01-17:37:51,10.1.1.2,188,-0.390,-0.390,-0.390,0.000,0.000,0.000
1641058671620569088,2022-01-01-17:37:51,10.1.1.2,169,-0.400,-0.400,-0.400,0.000,0.000,0.000
1641058672014159872,2022-01-01-17:37:52,10.1.1.2,161,-0.420,-0.420,-0.420,0.000,0.000,0.000
1641058672436865024,2022-01-01-17:37:52,10.1.1.2,182,-0.440,-0.440,-0.440,0.000,0.000,0.000
1641058672622180864,2022-01-01-17:37:52,10.1.1.2,167,-0.450,-0.450,-0.450,0.000,0.000,0.000
1641058672854018816,2022-01-01-17:37:52,10.1.1.2,196,-0.460,-0.460,-0.460,0.000,0.000,0.000
1641058673051181056,2022-01-01-17:37:53,10.1.1.2,193,-0.470,-0.470,-0.470,0.000,0.000,0.000
1641058673256570112,2022-01-01-17:37:53,10.1.1.2,197,-0.480,-0.480,-0.480,0.000,0.000,0.000
1641058673432997888,2022-01-01-17:37:53,10.1.1.2,173,-0.490,-0.490,-0.490,0.000,0.000,0.000
1641058673621687808,2022-01-01-17:37:53,10.1.1.2,161,-0.480,-0.480,-0.480,0.000,0.000,0.000
1641058673840151040,2022-01-01-17:37:53,10.1.1.2,179,-0.470,-0.470,-0.470,0.000,0.000,0.000
1641058674058998016,2022-01-01-17:37:54,10.1.1.2,196,-0.460,-0.460,-0.460,0.000,0.000,0.000
1641058674264098048,2022-01-01-17:37:54,10.1.1.2,201,-0.450,-0.450,-0.450,0.000,0.000,0.000
1641058674425841152,2022-01-01-17:37:54,10.1.1.2,160,-0.440,-0.440,-0.440,0.000,0.000,0.000
1641058674625475840,2022-01-01-17:37:54,10.1.1.2,158,-0.430,-0.430,-0.430,0.000,0.000,0.000
1641058674827435008,2022-01-01-17:37:54,10.1.1.2,159,-0.420,-0.420,-0.420,0.000,0.000,0.000
1641058675051672832,2022-01-01-17:37:55,10.1.1.2,183,-0.410,-0.410,-0.410,0.000,0.000,0.000
1641058675234563072,2022-01-01-17:37:55,10.1.1.2,165,-0.400,-0.400,-0.400,0.000,0.000,0.000
1641058675430941184,2022-01-01-17:37:55,10.1.1.2,160,-0.390,-0.390,-0.390,0.000,0.000,0.000
1641058675638663936,2022-01-01-17:37:55,10.1.1.2,167,-0.380,-0.380,-0.380,0.000,0.000,0.000
1641058675842227968,2022-01-01-17:37:55,10.1.1.2,170,-0.370,-0.370,-0.370,0.000,0.000,0.000
1641058676038327040,2022-01-01-17:37:56,10.1.1.2,163,-0.360,-0.360,-0.360,0.000,0.000,0.000
1641058676241282816,2022-01-01-17:37:56,10.1.1.2,165,-0.350,-0.350,-0.350,0.000,0.000,0.000
1641058676456340992,2022-01-01-17:37:56,10.1.1.2,180,-0.340,-0.340,-0.340,0.000,0.000,0.000
1641058676638870016,2022-01-01-17:37:56,10.1.1.2,162,-0.330,-0.330,-0.330,0.000,0.000,0.000
1641058676854900992,2022-01-01-17:37:56,10.1.1.2,177,-0.320,-0.320,-0.320,0.000,0.000,0.000
1641058677049562880,2022-01-01-17:37:57,10.1.1.2,170,-0.310,-0.310,-0.310,0.000,0.000,0.000
1641058677255460864,2022-01-01-17:37:57,10.1.1.2,176,-0.300,-0.300,-0.300,0.000,0.000,0.000
1641058677460582144,2022-01-01-17:37:57,10.1.1.2,180,-0.290,-0.290,-0.290,0.000,0.000,0.000
1641058677647496960,2022-01-01-17:37:57,10.1.1.2,166,-0.280,-0.280,-0.280,0.000,0.000,0.000
1641058677858604800,2022-01-01-17:37:57,10.1.1.2,176,-0.270,-0.270,-0.270,0.000,0.000,0.000
1641058678051351040,2022-01-01-17:37:58,10.1.1.2,168,-0.260,-0.260,-0.260,0.000,0.000,0.000
1641058678257916928,2022-01-01-17:37:58,10.1.1.2,174,-0.250,-0.250,-0.250,0.000,0.000,0.000
1641058678463671040,2022-01-01-17:37:58,10.1.1.2,178,-0.240,-0.240,-0.240,0.000,0.000,0.000
1641058678659682048,2022-01-01-17:37:58,10.1.1.2,173,-0.230,-0.230,-0.230,0.000,0.000,0.000
1641058679255335936,2022-01-01-17:37:59,10.1.1.2,164,-0.200,-0.200,-0.200,0.000,0.000,0.000
1641058679460563968,2022-01-01-17:37:59,10.1.1.2,168,-0.190,-0.190,-0.190,0.000,0.000,0.000
1641058679667499008,2022-01-01-17:37:59,10.1.1.2,174,-0.180,-0.180,-0.180,0.000,0.000,0.000
1641058679873847040,2022-01-01-17:37:59,10.1.1.2,179,-0.170,-0.170,-0.170,0.000,0.000,0.000
1641058680069377024,2022-01-01-17:38:00,10.1.1.2,174,-0.160,-0.160,-0.160,0.000,0.000,0.000
1641058680280363008,2022-01-01-17:38:00,10.1.1.2,184,-0.150,-0.150,-0.150,0.000,0.000,0.000
1641058680487934976,2022-01-01-17:38:00,10.1.1.2,190,-0.140,-0.140,-0.140,0.000,0.000,0.000
1641058680878791936,2022-01-01-17:38:00,10.1.1.2,179,-0.120,-0.120,-0.120,0.000,0.000,0.000
1641058681085010176,2022-01-01-17:38:01,10.1.1.2,184,-0.110,-0.110,-0.110,0.000,0.000,0.000
1641058681273690880,2022-01-01-17:38:01,10.1.1.2,172,-0.100,-0.100,-0.100,0.000,0.000,0.000
1641058681474832128,2022-01-01-17:38:01,10.1.1.2,172,-0.090,-0.090,-0.090,0.000,0.000,0.000
1641058681690934784,2022-01-01-17:38:01,10.1.1.2,186,-0.080,-0.080,-0.080,0.000,0.000,0.000
1641058682308673024,2022-01-01-17:38:02,10.1.1.2,198,-0.050,-0.050,-0.050,0.000,0.000,0.000
1641058682508745984,2022-01-01-17:38:02,10.1.1.2,197,-0.040,-0.040,-0.040,0.000,0.000,0.000
1641058682680624896,2022-01-01-17:38:02,10.1.1.2,167,-0.030,-0.030,-0.030,0.000,0.000,0.000
1641058682894861824,2022-01-01-17:38:02,10.1.1.2,180,-0.020,-0.020,-0.020,0.000,0.000,0.000
1641058683500773888,2022-01-01-17:38:03,10.1.1.2,181,-0.010,-0.010,-0.010,0.000,0.000,0.000
1641058683901385984,2022-01-01-17:38:03,10.1.1.2,177,-0.030,-0.030,-0.030,0.000,0.000,0.000
1641058684104631808,2022-01-01-17:38:04,10.1.1.2,176,-0.040,-0.040,-0.040,0.000,0.000,0.000
1641058684323367168,2022-01-01-17:38:04,10.1.1.2,192,-0.050,-0.050,-0.050,0.000,0.000,0.000
1641058685137914880,2022-01-01-17:38:05,10.1.1.2,187,-0.090,-0.090,-0.090,0.000,0.000,0.000
1641058685338562048,2022-01-01-17:38:05,10.1.1.2,185,-0.100,-0.100,-0.100,0.000,0.000,0.000
1641058685537496064,2022-01-01-17:38:05,10.1.1.2,183,-0.110,-0.110,-0.110,0.000,0.000,0.000
1641058686148838912,2022-01-01-17:38:06,10.1.1.2,188,-0.140,-0.140,-0.140,0.000,0.000,0.000
1641058686946598144,2022-01-01-17:38:06,10.1.1.2,181,-0.180,-0.180,-0.180,0.000,0.000,0.000
1641058687146913024,2022-01-01-17:38:07,10.1.1.2,181,-0.190,-0.190,-0.190,0.000,0.000,0.000
1641058687958040064,2022-01-01-17:38:07,10.1.1.2,187,-0.230,-0.230,-0.230,0.000,0.000,0.000
1641058688959318016,2022-01-01-17:38:08,10.1.1.2,181,-0.280,-0.280,-0.280,0.000,0.000,0.000
1641058689158846976,2022-01-01-17:38:09,10.1.1.2,178,-0.290,-0.290,-0.290,0.000,0.000,0.000
1641058689368331008,2022-01-01-17:38:09,10.1.1.2,187,-0.300,-0.300,-0.300,0.000,0.000,0.000
1641058689779445760,2022-01-01-17:38:09,10.1.1.2,196,-0.320,-0.320,-0.320,0.000,0.000,0.000
1641058690786009088,2022-01-01-17:38:10,10.1.1.2,198,-0.370,-0.370,-0.370,0.000,0.000,0.000
1641058691387912960,2022-01-01-17:38:11,10.1.1.2,196,-0.400,-0.400,-0.400,0.000,0.000,0.000
1641058691575828992,2022-01-01-17:38:11,10.1.1.2,181,-0.410,-0.410,-0.410,0.000,0.000,0.000
1641058691784285184,2022-01-01-17:38:11,10.1.1.2,188,-0.420,-0.420,-0.420,0.000,0.000,0.000
1641058691978935040,2022-01-01-17:38:11,10.1.1.2,182,-0.430,-0.430,-0.430,0.000,0.000,0.000
1641058692182200064,2022-01-01-17:38:12,10.1.1.2,184,-0.440,-0.440,-0.440,0.000,0.000,0.000
1641058692382818816,2022-01-01-17:38:12,10.1.1.2,183,-0.450,-0.450,-0.450,0.000,0.000,0.000
1641058692583493888,2022-01-01-17:38:12,10.1.1.2,183,-0.460,-0.460,-0.460,0.000,0.000,0.000
1641058692783529984,2022-01-01-17:38:12,10.1.1.2,182,-0.470,-0.470,-0.470,0.000,0.000,0.000
1641058693000543232,2022-01-01-17:38:13,10.1.1.2,198,-0.480,-0.480,-0.480,0.000,0.000,0.000
1641058693202127104,2022-01-01-17:38:13,10.1.1.2,198,-0.490,-0.490,-0.490,0.000,0.000,0.000
1641058693397488128,2022-01-01-17:38:13,10.1.1.2,192,-0.480,-0.480,-0.480,0.000,0.000,0.000
1641058693596997120,2022-01-01-17:38:13,10.1.1.2,190,-0.470,-0.470,-0.470,0.000,0.000,0.000
1641058693786576896,2022-01-01-17:38:13,10.1.1.2,178,-0.460,-0.460,-0.460,0.000,0.000,0.000
1641058693996406016,2022-01-01-17:38:13,10.1.1.2,187,-0.450,-0.450,-0.450,0.000,0.000,0.000
1641058694190639872,2022-01-01-17:38:14,10.1.1.2,181,-0.440,-0.440,-0.440,0.000,0.000,0.000
1641058694598740224,2022-01-01-17:38:14,10.1.1.2,181,-0.420,-0.420,-0.420,0.000,0.000,0.000
1641058694798585856,2022-01-01-17:38:14,10.1.1.2,178,-0.410,-0.410,-0.410,0.000,0.000,0.000
1641058694997287936,2022-01-01-17:38:14,10.1.1.2,174,-0.400,-0.400,-0.400,0.000,0.000,0.000
1641058695220109824,2022-01-01-17:38:15,10.1.1.2,191,-0.390,-0.390,-0.390,0.000,0.000,0.000
1641058695419938048,2022-01-01-17:38:15,10.1.1.2,190,-0.380,-0.380,-0.380,0.000,0.000,0.000
1641058695818886144,2022-01-01-17:38:15,10.1.1.2,183,-0.360,-0.360,-0.360,0.000,0.000,0.000
1641058696018520064,2022-01-01-17:38:16,10.1.1.2,181,-0.350,-0.350,-0.350,0.000,0.000,0.000
1641058696221932032,2022-01-01-17:38:16,10.1.1.2,183,-0.340,-0.340,-0.340,0.000,0.000,0.000
1641058696412977920,2022-01-01-17:38:16,10.1.1.2,172,-0.330,-0.330,-0.330,0.000,0.000,0.000
1641058696631824896,2022-01-01-17:38:16,10.1.1.2,190,-0.320,-0.320,-0.320,0.000,0.000,0.000
1641058696831974912,2022-01-01-17:38:16,10.1.1.2,186,-0.310,-0.310,-0.310,0.000,0.000,0.000
1641058697041176064,2022-01-01-17:38:17,10.1.1.2,192,-0.300,-0.300,-0.300,0.000,0.000,0.000
1641058697232697088,2022-01-01-17:38:17,10.1.1.2,182,-0.290,-0.290,-0.290,0.000,0.000,0.000
1641058697432208128,2022-01-01-17:38:17,10.1.1.2,181,-0.280,-0.280,-0.280,0.000,0.000,0.000
1641058697632756992,2022-01-01-17:38:17,10.1.1.2,181,-0.270,-0.270,-0.270,0.000,0.000,0.000
1641058697831470080,2022-01-01-17:38:17,10.1.1.2,178,-0.260,-0.260,-0.260,0.000,0.000,0.000
1641058698031302912,2022-01-01-17:38:18,10.1.1.2,177,-0.250,-0.250,-0.250,0.000,0.000,0.000
1641058698236082176,2022-01-01-17:38:18,10.1.1.2,180,-0.240,-0.240,-0.240,0.000,0.000,0.000
1641058698456244992,2022-01-01-17:38:18,10.1.1.2,198,-0.230,-0.230,-0.230,0.000,0.000,0.000
1641058699241643008,2022-01-01-17:38:19,10.1.1.2,178,-0.190,-0.190,-0.190,0.000,0.000,0.000
1641058699446576128,2022-01-01-17:38:19,10.1.1.2,181,-0.180,-0.180,-0.180,0.000,0.000,0.000
1641058699854604032,2022-01-01-17:38:19,10.1.1.2,184,-0.160,-0.160,-0.160,0.000,0.000,0.000
1641058700053819904,2022-01-01-17:38:20,10.1.1.2,181,-0.150,-0.150,-0.150,0.000,0.000,0.000
1641058700254663936,2022-01-01-17:38:20,10.1.1.2,180,-0.140,-0.140,-0.140,0.000,0.000,0.000
1641058700453391104,2022-01-01-17:38:20,10.1.1.2,176,-0.130,-0.130,-0.130,0.000,0.000,0.000
1641058700653263104,2022-01-01-17:38:20,10.1.1.2,175,-0.120,-0.120,-0.120,0.000,0.000,0.000
1641058700853283840,2022-01-01-17:38:20,10.1.1.2,174,-0.110,-0.110,-0.110,0.000,0.000,0.000
1641058701054441984,2022-01-01-17:38:21,10.1.1.2,173,-0.100,-0.100,-0.100,0.000,0.000,0.000
1641058701252969984,2022-01-01-17:38:21,10.1.1.2,172,-0.090,-0.090,-0.090,0.000,0.000,0.000
1641058701452583936,2022-01-01-17:38:21,10.1.1.2,167,-0.080,-0.080,-0.080,0.000,0.000,0.000
1641058701652932864,2022-01-01-17:38:21,10.1.1.2,167,-0.070,-0.070,-0.070,0.000,0.000,0.000
1641058701852461056,2022-01-01-17:38:21,10.1.1.2,166,-0.060,-0.060,-0.060,0.000,0.000,0.000
1641058702056690944,2022-01-01-17:38:22,10.1.1.2,169,-0.050,-0.050,-0.050,0.000,0.000,0.000
1641058702266980864,2022-01-01-17:38:22,10.1.1.2,178,-0.040,-0.040,-0.040,0.000,0.000,0.000
1641058702467247872,2022-01-01-17:38:22,10.1.1.2,177,-0.030,-0.030,-0.030,0.000,0.000,0.000
1641058702666861056,2022-01-01-17:38:22,10.1.1.2,176,-0.020,-0.020,-0.020,0.000,0.000,0.000
1641058702866290176,2022-01-01-17:38:22,10.1.1.2,175,-0.010,-0.010,-0.010,0.000,0.000,0.000
1641058703075149056,2022-01-01-17:38:23,10.1.1.2,182,0.000,0.000,0.000,0.000,0.000,0.000
1641058703252087040,2022-01-01-17:38:23,10.1.1.2,158,-0.010,-0.010,-0.010,0.000,0.000,0.000
1641058703465508864,2022-01-01-17:38:23,10.1.1.2,165,-0.020,-0.020,-0.020,0.000,0.000,0.000
1641058703695763968,2022-01-01-17:38:23,10.1.1.2,195,-0.030,-0.030,-0.030,0.000,0.000,0.000
1641058703887689984,2022-01-01-17:38:23,10.1.1.2,183,-0.040,-0.040,-0.040,0.000,0.000,0.000
1641058704289598976,2022-01-01-17:38:24,10.1.1.2,173,-0.060,-0.060,-0.060,0.000,0.000,0.000
1641058704485931008,2022-01-01-17:38:24,10.1.1.2,164,-0.070,-0.070,-0.070,0.000,0.000,0.000
1641058704700176896,2022-01-01-17:38:24,10.1.1.2,174,-0.080,-0.080,-0.080,0.000,0.000,0.000
1641058704886797056,2022-01-01-17:38:24,10.1.1.2,159,-0.090,-0.090,-0.090,0.000,0.000,0.000
1641058705106934016,2022-01-01-17:38:25,10.1.1.2,177,-0.100,-0.100,-0.100,0.000,0.000,0.000
1641058705307226880,2022-01-01-17:38:25,10.1.1.2,176,-0.110,-0.110,-0.110,0.000,0.000,0.000
1641058705506292224,2022-01-01-17:38:25,10.1.1.2,174,-0.120,-0.120,-0.120,0.000,0.000,0.000
1641058705706767104,2022-01-01-17:38:25,10.1.1.2,172,-0.130,-0.130,-0.130,0.000,0.000,0.000
1641058705905390080,2022-01-01-17:38:25,10.1.1.2,166,-0.140,-0.140,-0.140,0.000,0.000,0.000
1641058706104558080,2022-01-01-17:38:26,10.1.1.2,163,-0.150,-0.150,-0.150,0.000,0.000,0.000
1641058706304583936,2022-01-01-17:38:26,10.1.1.2,160,-0.160,-0.160,-0.160,0.000,0.000,0.000
1641058706713408000,2022-01-01-17:38:26,10.1.1.2,167,-0.180,-0.180,-0.180,0.000,0.000,0.000
1641058706916590848,2022-01-01-17:38:26,10.1.1.2,169,-0.190,-0.190,-0.190,0.000,0.000,0.000
1641058707117266944,2022-01-01-17:38:27,10.1.1.2,164,-0.200,-0.200,-0.200,0.000,0.000,0.000
1641058707319318016,2022-01-01-17:38:27,10.1.1.2,162,-0.210,-0.210,-0.210,0.000,0.000,0.000
1641058707520162048,2022-01-01-17:38:27,10.1.1.2,161,-0.220,-0.220,-0.220,0.000,0.000,0.000
1641058707725380864,2022-01-01-17:38:27,10.1.1.2,165,-0.230,-0.230,-0.230,0.000,0.000,0.000
1641058707958868992,2022-01-01-17:38:27,10.1.1.2,198,-0.240,-0.240,-0.240,0.000,0.000,0.000
1641058708141275904,2022-01-01-17:38:28,10.1.1.2,174,-0.250,-0.250,-0.250,0.000,0.000,0.000
1641058708341059072,2022-01-01-17:38:28,10.1.1.2,172,-0.260,-0.260,-0.260,0.000,0.000,0.000
1641058708540540928,2022-01-01-17:38:28,10.1.1.2,171,-0.270,-0.270,-0.270,0.000,0.000,0.000
1641058708740706048,2022-01-01-17:38:28,10.1.1.2,170,-0.280,-0.280,-0.280,0.000,0.000,0.000
1641058708940422912,2022-01-01-17:38:28,10.1.1.2,169,-0.290,-0.290,-0.290,0.000,0.000,0.000
1641058709140372992,2022-01-01-17:38:29,10.1.1.2,167,-0.300,-0.300,-0.300,0.000,0.000,0.000
1641058709341458944,2022-01-01-17:38:29,10.1.1.2,167,-0.310,-0.310,-0.310,0.000,0.000,0.000
1641058709543552000,2022-01-01-17:38:29,10.1.1.2,168,-0.320,-0.320,-0.320,0.000,0.000,0.000
1641058709743998976,2022-01-01-17:38:29,10.1.1.2,165,-0.330,-0.330,-0.330,0.000,0.000,0.000
1641058709942871040,2022-01-01-17:38:29,10.1.1.2,163,-0.340,-0.340,-0.340,0.000,0.000,0.000
1641058710149276928,2022-01-01-17:38:30,10.1.1.2,168,-0.350,-0.350,-0.350,0.000,0.000,0.000
1641058710350630144,2022-01-01-17:38:30,10.1.1.2,165,-0.360,-0.360,-0.360,0.000,0.000,0.000
1641058710551923968,2022-01-01-17:38:30,10.1.1.2,163,-0.370,-0.370,-0.370,0.000,0.000,0.000
1641058710764306176,2022-01-01-17:38:30,10.1.1.2,172,-0.380,-0.380,-0.380,0.000,0.000,0.000
1641058710964866048,2022-01-01-17:38:30,10.1.1.2,171,-0.390,-0.390,-0.390,0.000,0.000,0.000
1641058711175718144,2022-01-01-17:38:31,10.1.1.2,180,-0.400,-0.400,-0.400,0.000,0.000,0.000
1641058711366710784,2022-01-01-17:38:31,10.1.1.2,170,-0.410,-0.410,-0.410,0.000,0.000,0.000
1641058711567648000,2022-01-01-17:38:31,10.1.1.2,169,-0.420,-0.420,-0.420,0.000,0.000,0.000
1641058711768006144,2022-01-01-17:38:31,10.1.1.2,168,-0.430,-0.430,-0.430,0.000,0.000,0.000
1641058711974082048,2022-01-01-17:38:31,10.1.1.2,172,-0.440,-0.440,-0.440,0.000,0.000,0.000
1641058712180221952,2022-01-01-17:38:32,10.1.1.2,178,-0.450,-0.450,-0.450,0.000,0.000,0.000
1641058712783243008,2022-01-01-17:38:32,10.1.1.2,175,-0.480,-0.480,-0.480,0.000,0.000,0.000
1641058712984369920,2022-01-01-17:38:32,10.1.1.2,174,-0.490,-0.490,-0.490,0.000,0.000,0.000
1641058713185518080,2022-01-01-17:38:33,10.1.1.2,174,-0.480,-0.480,-0.480,0.000,0.000,0.000
1641058713402136064,2022-01-01-17:38:33,10.1.1.2,189,-0.470,-0.470,-0.470,0.000,0.000,0.000
1641058713592960000,2022-01-01-17:38:33,10.1.1.2,179,-0.460,-0.460,-0.460,0.000,0.000,0.000
1641058713796475904,2022-01-01-17:38:33,10.1.1.2,182,-0.450,-0.450,-0.450,0.000,0.000,0.000
1641058714001355008,2022-01-01-17:38:34,10.1.1.2,186,-0.440,-0.440,-0.440,0.000,0.000,0.000
1641058714212811008,2022-01-01-17:38:34,10.1.1.2,191,-0.430,-0.430,-0.430,0.000,0.000,0.000
1641058714610738944,2022-01-01-17:38:34,10.1.1.2,188,-0.410,-0.410,-0.410,0.000,0.000,0.000
1641058715018675200,2022-01-01-17:38:35,10.1.1.2,193,-0.390,-0.390,-0.390,0.000,0.000,0.000
1641058715204391936,2022-01-01-17:38:35,10.1.1.2,179,-0.380,-0.380,-0.380,0.000,0.000,0.000
1641058715403801088,2022-01-01-17:38:35,10.1.1.2,177,-0.370,-0.370,-0.370,0.000,0.000,0.000
1641058715602819072,2022-01-01-17:38:35,10.1.1.2,175,-0.360,-0.360,-0.360,0.000,0.000,0.000
1641058715822387968,2022-01-01-17:38:35,10.1.1.2,194,-0.350,-0.350,-0.350,0.000,0.000,0.000
1641058716635240960,2022-01-01-17:38:36,10.1.1.2,199,-0.310,-0.310,-0.310,0.000,0.000,0.000
1641058716828654080,2022-01-01-17:38:36,10.1.1.2,191,-0.300,-0.300,-0.300,0.000,0.000,0.000
1641058717020195072,2022-01-01-17:38:37,10.1.1.2,181,-0.290,-0.290,-0.290,0.000,0.000,0.000
1641058717220403968,2022-01-01-17:38:37,10.1.1.2,179,-0.280,-0.280,-0.280,0.000,0.000,0.000
1641058717419975168,2022-01-01-17:38:37,10.1.1.2,177,-0.270,-0.270,-0.270,0.000,0.000,0.000
1641058717619645952,2022-01-01-17:38:37,10.1.1.2,176,-0.260,-0.260,-0.260,0.000,0.000,0.000
1641058717840776960,2022-01-01-17:38:37,10.1.1.2,196,-0.250,-0.250,-0.250,0.000,0.000,0.000
1641058718020502016,2022-01-01-17:38:38,10.1.1.2,175,-0.240,-0.240,-0.240,0.000,0.000,0.000
1641058718239180032,2022-01-01-17:38:38,10.1.1.2,190,-0.230,-0.230,-0.230,0.000,0.000,0.000
1641058718631355904,2022-01-01-17:38:38,10.1.1.2,181,-0.210,-0.210,-0.210,0.000,0.000,0.000
1641058719045679104,2022-01-01-17:38:39,10.1.1.2,186,-0.190,-0.190,-0.190,0.000,0.000,0.000
1641058719241796864,2022-01-01-17:38:39,10.1.1.2,183,-0.180,-0.180,-0.180,0.000,0.000,0.000
1641058719453353984,2022-01-01-17:38:39,10.1.1.2,191,-0.170,-0.170,-0.170,0.000,0.000,0.000
1641058719641150976,2022-01-01-17:38:39,10.1.1.2,179,-0.160,-0.160,-0.160,0.000,0.000,0.000
1641058719862326016,2022-01-01-17:38:39,10.1.1.2,197,-0.150,-0.150,-0.150,0.000,0.000,0.000
1641058720258002944,2022-01-01-17:38:40,10.1.1.2,190,-0.130,-0.130,-0.130,0.000,0.000,0.000
1641058720465006080,2022-01-01-17:38:40,10.1.1.2,196,-0.120,-0.120,-0.120,0.000,0.000,0.000
1641058720658381056,2022-01-01-17:38:40,10.1.1.2,186,-0.110,-0.110,-0.110,0.000,0.000,0.000
1641058720874171136,2022-01-01-17:38:40,10.1.1.2,195,-0.100,-0.100,-0.100,0.000,0.000,0.000
1641058721058263040,2022-01-01-17:38:41,10.1.1.2,178,-0.090,-0.090,-0.090,0.000,0.000,0.000
1641058721267131136,2022-01-01-17:38:41,10.1.1.2,186,-0.080,-0.080,-0.080,0.000,0.000,0.000
1641058721666479104,2022-01-01-17:38:41,10.1.1.2,183,-0.060,-0.060,-0.060,0.000,0.000,0.000
1641058722284137984,2022-01-01-17:38:42,10.1.1.2,198,-0.030,-0.030,-0.030,0.000,0.000,0.000
1641058722463833088,2022-01-01-17:38:42,10.1.1.2,176,-0.020,-0.020,-0.020,0.000,0.000,0.000
1641058722665630976,2022-01-01-17:38:42,10.1.1.2,178,-0.010,-0.010,-0.010,0.000,0.000,0.000
1641058722885369088,2022-01-01-17:38:42,10.1.1.2,197,0.000,0.000,0.000,0.000,0.000,0.000
1641058723084307968,2022-01-01-17:38:43,10.1.1.2,195,-0.010,-0.010,-0.010,0.000,0.000,0.000
1641058723287998976,2022-01-01-17:38:43,10.1.1.2,197,-0.020,-0.020,-0.020,0.000,0.000,0.000
1641058723484231936,2022-01-01-17:38:43,10.1.1.2,193,-0.030,-0.030,-0.030,0.000,0.000,0.000
1641058723681953024,2022-01-01-17:38:43,10.1.1.2,189,-0.040,-0.040,-0.040,0.000,0.000,0.000
1641058723881586176,2022-01-01-17:38:43,10.1.1.2,188,-0.050,-0.050,-0.050,0.000,0.000,0.000
1641058724088846080,2022-01-01-17:38:44,10.1.1.2,195,-0.060,-0.060,-0.060,0.000,0.000,0.000
1641058724281721088,2022-01-01-17:38:44,10.1.1.2,186,-0.070,-0.070,-0.070,0.000,0.000,0.000
1641058724481519104,2022-01-01-17:38:44,10.1.1.2,185,-0.080,-0.080,-0.080,0.000,0.000,0.000
1641058724881697792,2022-01-01-17:38:44,10.1.1.2,183,-0.100,-0.100,-0.100,0.000,0.000,0.000
1641058725082102016,2022-01-01-17:38:45,10.1.1.2,182,-0.110,-0.110,-0.110,0.000,0.000,0.000
1641058725282102016,2022-01-01-17:38:45,10.1.1.2,182,-0.120,-0.120,-0.120,0.000,0.000,0.000
1641058725487011072,2022-01-01-17:38:45,10.1.1.2,185,-0.130,-0.130,-0.130,0.000,0.000,0.000
1641058725686131968,2022-01-01-17:38:45,10.1.1.2,183,-0.140,-0.140,-0.140,0.000,0.000,0.000
1641058725881556992,2022-01-01-17:38:45,10.1.1.2,177,-0.150,-0.150,-0.150,0.000,0.000,0.000
1641058726102347008,2022-01-01-17:38:46,10.1.1.2,197,-0.160,-0.160,-0.160,0.000,0.000,0.000
1641058726283768832,2022-01-01-17:38:46,10.1.1.2,178,-0.170,-0.170,-0.170,0.000,0.000,0.000
1641058726702883072,2022-01-01-17:38:46,10.1.1.2,195,-0.190,-0.190,-0.190,0.000,0.000,0.000
1641058726883858944,2022-01-01-17:38:46,10.1.1.2,175,-0.200,-0.200,-0.200,0.000,0.000,0.000
1641058727097039872,2022-01-01-17:38:47,10.1.1.2,180,-0.210,-0.210,-0.210,0.000,0.000,0.000
1641058727285548032,2022-01-01-17:38:47,10.1.1.2,168,-0.220,-0.220,-0.220,0.000,0.000,0.000
1641058727495898112,2022-01-01-17:38:47,10.1.1.2,177,-0.230,-0.230,-0.230,0.000,0.000,0.000
1641058727715821056,2022-01-01-17:38:47,10.1.1.2,192,-0.240,-0.240,-0.240,0.000,0.000,0.000
1641058727915927808,2022-01-01-17:38:47,10.1.1.2,191,-0.250,-0.250,-0.250,0.000,0.000,0.000
1641058728117076992,2022-01-01-17:38:48,10.1.1.2,191,-0.260,-0.260,-0.260,0.000,0.000,0.000
1641058728295751936,2022-01-01-17:38:48,10.1.1.2,169,-0.270,-0.270,-0.270,0.000,0.000,0.000
1641058728518894080,2022-01-01-17:38:48,10.1.1.2,191,-0.280,-0.280,-0.280,0.000,0.000,0.000
1641058728699770880,2022-01-01-17:38:48,10.1.1.2,171,-0.290,-0.290,-0.290,0.000,0.000,0.000
1641058728920001024,2022-01-01-17:38:48,10.1.1.2,190,-0.300,-0.300,-0.300,0.000,0.000,0.000
1641058729119659008,2022-01-01-17:38:49,10.1.1.2,185,-0.310,-0.310,-0.310,0.000,0.000,0.000
1641058729320835072,2022-01-01-17:38:49,10.1.1.2,185,-0.320,-0.320,-0.320,0.000,0.000,0.000
1641058729519107072,2022-01-01-17:38:49,10.1.1.2,179,-0.330,-0.330,-0.330,0.000,0.000,0.000
1641058729718588160,2022-01-01-17:38:49,10.1.1.2,177,-0.340,-0.340,-0.340,0.000,0.000,0.000
1641058729921613056,2022-01-01-17:38:49,10.1.1.2,180,-0.350,-0.350,-0.350,0.000,0.000,0.000
1641058730117682944,2022-01-01-17:38:50,10.1.1.2,175,-0.360,-0.360,-0.360,0.000,0.000,0.000
1641058730313244160,2022-01-01-17:38:50,10.1.1.2,169,-0.370,-0.370,-0.370,0.000,0.000,0.000
1641058730532969984,2022-01-01-17:38:50,10.1.1.2,188,-0.380,-0.380,-0.380,0.000,0.000,0.000
1641058730712420864,2022-01-01-17:38:50,10.1.1.2,167,-0.390,-0.390,-0.390,0.000,0.000,0.000
1641058731322356992,2022-01-01-17:38:51,10.1.1.2,172,-0.420,-0.420,-0.420,0.000,0.000,0.000
1641058731532148992,2022-01-01-17:38:51,10.1.1.2,180,-0.430,-0.430,-0.430,0.000,0.000,0.000
1641058731741473792,2022-01-01-17:38:51,10.1.1.2,188,-0.440,-0.440,-0.440,0.000,0.000,0.000
1641058731934513152,2022-01-01-17:38:51,10.1.1.2,180,-0.450,-0.450,-0.450,0.000,0.000,0.000
1641058732131476992,2022-01-01-17:38:52,10.1.1.2,176,-0.460,-0.460,-0.460,0.000,0.000,0.000
1641058732331430912,2022-01-01-17:38:52,10.1.1.2,174,-0.470,-0.470,-0.470,0.000,0.000,0.000
1641058732535450880,2022-01-01-17:38:52,10.1.1.2,177,-0.480,-0.480,-0.480,0.000,0.000,0.000
1641058732734888960,2022-01-01-17:38:52,10.1.1.2,175,-0.490,-0.490,-0.490,0.000,0.000,0.000
1641058732952892928,2022-01-01-17:38:52,10.1.1.2,192,-0.480,-0.480,-0.480,0.000,0.000,0.000
1641058733330276096,2022-01-01-17:38:53,10.1.1.2,168,-0.460,-0.460,-0.460,0.000,0.000,0.000
1641058733532681984,2022-01-01-17:38:53,10.1.1.2,169,-0.450,-0.450,-0.450,0.000,0.000,0.000
1641058733731656960,2022-01-01-17:38:53,10.1.1.2,168,-0.440,-0.440,-0.440,0.000,0.000,0.000
1641058733952259072,2022-01-01-17:38:53,10.1.1.2,187,-0.430,-0.430,-0.430,0.000,0.000,0.000
1641058734133093120,2022-01-01-17:38:54,10.1.1.2,166,-0.420,-0.420,-0.420,0.000,0.000,0.000
1641058734351696896,2022-01-01-17:38:54,10.1.1.2,184,-0.410,-0.410,-0.410,0.000,0.000,0.000
1641058734543514880,2022-01-01-17:38:54,10.1.1.2,172,-0.400,-0.400,-0.400,0.000,0.000,0.000
1641058734743026944,2022-01-01-17:38:54,10.1.1.2,171,-0.390,-0.390,-0.390,0.000,0.000,0.000
1641058734956289024,2022-01-01-17:38:54,10.1.1.2,182,-0.380,-0.380,-0.380,0.000,0.000,0.000
1641058735138205952,2022-01-01-17:38:55,10.1.1.2,163,-0.370,-0.370,-0.370,0.000,0.000,0.000
1641058735344822784,2022-01-01-17:38:55,10.1.1.2,168,-0.360,-0.360,-0.360,0.000,0.000,0.000
1641058735548064000,2022-01-01-17:38:55,10.1.1.2,169,-0.350,-0.350,-0.350,0.000,0.000,0.000
1641058735746925056,2022-01-01-17:38:55,10.1.1.2,167,-0.340,-0.340,-0.340,0.000,0.000,0.000
1641058735944699136,2022-01-01-17:38:55,10.1.1.2,165,-0.330,-0.330,-0.330,0.000,0.000,0.000
1641058736148621056,2022-01-01-17:38:56,10.1.1.2,168,-0.320,-0.320,-0.320,0.000,0.000,0.000
1641058736344402176,2022-01-01-17:38:56,10.1.1.2,163,-0.310,-0.310,-0.310,0.000,0.000,0.000
1641058736551347968,2022-01-01-17:38:56,10.1.1.2,168,-0.300,-0.300,-0.300,0.000,0.000,0.000
1641058736743716864,2022-01-01-17:38:56,10.1.1.2,160,-0.290,-0.290,-0.290,0.000,0.000,0.000
1641058736964248832,2022-01-01-17:38:56,10.1.1.2,180,-0.280,-0.280,-0.280,0.000,0.000,0.000
1641058737163265024,2022-01-01-17:38:57,10.1.1.2,178,-0.270,-0.270,-0.270,0.000,0.000,0.000
1641058737364417024,2022-01-01-17:38:57,10.1.1.2,178,-0.260,-0.260,-0.260,0.000,0.000,0.000
1641058737558526976,2022-01-01-17:38:57,10.1.1.2,172,-0.250,-0.250,-0.250,0.000,0.000,0.000
1641058737767047936,2022-01-01-17:38:57,10.1.1.2,179,-0.240,-0.240,-0.240,0.000,0.000,0.000
1641058737948077056,2022-01-01-17:38:57,10.1.1.2,159,-0.230,-0.230,-0.230,0.000,0.000,0.000
1641058738158233856,2022-01-01-17:38:58,10.1.1.2,168,-0.220,-0.220,-0.220,0.000,0.000,0.000
1641058738366275072,2022-01-01-17:38:58,10.1.1.2,175,-0.210,-0.210,-0.210,0.000,0.000,0.000
1641058738790308864,2022-01-01-17:38:58,10.1.1.2,195,-0.190,-0.190,-0.190,0.000,0.000,0.000
1641058738993239040,2022-01-01-17:38:58,10.1.1.2,198,-0.180,-0.180,-0.180,0.000,0.000,0.000
1641058739181335040,2022-01-01-17:38:59,10.1.1.2,185,-0.170,-0.170,-0.170,0.000,0.000,0.000
1641058739356361984,2022-01-01-17:38:59,10.1.1.2,159,-0.160,-0.160,-0.160,0.000,0.000,0.000
1641058739554893056,2022-01-01-17:38:59,10.1.1.2,156,-0.150,-0.150,-0.150,0.000,0.000,0.000
1641058739756231168,2022-01-01-17:38:59,10.1.1.2,157,-0.140,-0.140,-0.140,0.000,0.000,0.000
1641058739977037824,2022-01-01-17:38:59,10.1.1.2,177,-0.130,-0.130,-0.130,0.000,0.000,0.000
1641058740156954880,2022-01-01-17:39:00,10.1.1.2,156,-0.120,-0.120,-0.120,0.000,0.000,0.000
1641058740376354816,2022-01-01-17:39:00,10.1.1.2,174,-0.110,-0.110,-0.110,0.000,0.000,0.000
1641058740571511040,2022-01-01-17:39:00,10.1.1.2,168,-0.100,-0.100,-0.100,0.000,0.000,0.000
1641058740768444160,2022-01-01-17:39:00,10.1.1.2,164,-0.090,-0.090,-0.090,0.000,0.000,0.000
1641058740973833984,2022-01-01-17:39:00,10.1.1.2,169,-0.080,-0.080,-0.080,0.000,0.000,0.000
1641058741175569920,2022-01-01-17:39:01,10.1.1.2,169,-0.070,-0.070,-0.070,0.000,0.000,0.000
1641058741370579968,2022-01-01-17:39:01,10.1.1.2,163,-0.060,-0.060,-0.060,0.000,0.000,0.000
1641058741581816832,2022-01-01-17:39:01,10.1.1.2,174,-0.050,-0.050,-0.050,0.000,0.000,0.000
1641058741784955904,2022-01-01-17:39:01,10.1.1.2,174,-0.040,-0.040,-0.040,0.000,0.000,0.000
1641058741988656896,2022-01-01-17:39:01,10.1.1.2,177,-0.030,-0.030,-0.030,0.000,0.000,0.000
1641058742189683968,2022-01-01-17:39:02,10.1.1.2,176,-0.020,-0.020,-0.020,0.000,0.000,0.000
1641058742392268800,2022-01-01-17:39:02,10.1.1.2,173,-0.010,-0.010,-0.010,0.000,0.000,0.000
1641058742610507008,2022-01-01-17:39:02,10.1.1.2,190,0.000,0.000,0.000,0.000,0.000,0.000
1641058742991442944,2022-01-01-17:39:02,10.1.1.2,169,-0.020,-0.020,-0.020,0.000,0.000,0.000
1641058743201019136,2022-01-01-17:39:03,10.1.1.2,177,-0.030,-0.030,-0.030,0.000,0.000,0.000
1641058743398525952,2022-01-01-17:39:03,10.1.1.2,174,-0.040,-0.040,-0.040,0.000,0.000,0.000
1641058743594721024,2022-01-01-17:39:03,10.1.1.2,169,-0.050,-0.050,-0.050,0.000,0.000,0.000
1641058743813756928,2022-01-01-17:39:03,10.1.1.2,187,-0.060,-0.060,-0.060,0.000,0.000,0.000
1641058744008317952,2022-01-01-17:39:04,10.1.1.2,181,-0.070,-0.070,-0.070,0.000,0.000,0.000
1641058744199825152,2022-01-01-17:39:04,10.1.1.2,172,-0.080,-0.080,-0.080,0.000,0.000,0.000
1641058744415347968,2022-01-01-17:39:04,10.1.1.2,186,-0.090,-0.090,-0.090,0.000,0.000,0.000
1641058744625186816,2022-01-01-17:39:04,10.1.1.2,194,-0.100,-0.100,-0.100,0.000,0.000,0.000
1641058744816364032,2022-01-01-17:39:04,10.1.1.2,184,-0.110,-0.110,-0.110,0.000,0.000,0.000
1641058745016513024,2022-01-01-17:39:05,10.1.1.2,183,-0.120,-0.120,-0.120,0.000,0.000,0.000
1641058745411055104,2022-01-01-17:39:05,10.1.1.2,172,-0.140,-0.140,-0.140,0.000,0.000,0.000
1641058745817969152,2022-01-01-17:39:05,10.1.1.2,177,-0.160,-0.160,-0.160,0.000,0.000,0.000
1641058746621413120,2022-01-01-17:39:06,10.1.1.2,177,-0.200,-0.200,-0.200,0.000,0.000,0.000
1641058746840102912,2022-01-01-17:39:06,10.1.1.2,194,-0.210,-0.210,-0.210,0.000,0.000,0.000
1641058747247176960,2022-01-01-17:39:07,10.1.1.2,196,-0.230,-0.230,-0.230,0.000,0.000,0.000
1641058747450861824,2022-01-01-17:39:07,10.1.1.2,199,-0.240,-0.240,-0.240,0.000,0.000,0.000
1641058748042078976,2022-01-01-17:39:08,10.1.1.2,185,-0.270,-0.270,-0.270,0.000,0.000,0.000
1641058748443516928,2022-01-01-17:39:08,10.1.1.2,184,-0.290,-0.290,-0.290,0.000,0.000,0.000
1641058748844718848,2022-01-01-17:39:08,10.1.1.2,183,-0.310,-0.310,-0.310,0.000,0.000,0.000
1641058749044691968,2022-01-01-17:39:09,10.1.1.2,183,-0.320,-0.320,-0.320,0.000,0.000,0.000
1641058749245282048,2022-01-01-17:39:09,10.1.1.2,182,-0.330,-0.330,-0.330,0.000,0.000,0.000
1641058749444873216,2022-01-01-17:39:09,10.1.1.2,181,-0.340,-0.340,-0.340,0.000,0.000,0.000
1641058749644610048,2022-01-01-17:39:09,10.1.1.2,180,-0.350,-0.350,-0.350,0.000,0.000,0.000
1641058749853044992,2022-01-01-17:39:09,10.1.1.2,187,-0.360,-0.360,-0.360,0.000,0.000,0.000
1641058750064951808,2022-01-01-17:39:10,10.1.1.2,197,-0.370,-0.370,-0.370,0.000,0.000,0.000
1641058750265211136,2022-01-01-17:39:10,10.1.1.2,197,-0.380,-0.380,-0.380,0.000,0.000,0.000
1641058750466031104,2022-01-01-17:39:10,10.1.1.2,197,-0.390,-0.390,-0.390,0.000,0.000,0.000
1641058750665154816,2022-01-01-17:39:10,10.1.1.2,191,-0.400,-0.400,-0.400,0.000,0.000,0.000
1641058750865705984,2022-01-01-17:39:10,10.1.1.2,191,-0.410,-0.410,-0.410,0.000,0.000,0.000
1641058751062007040,2022-01-01-17:39:11,10.1.1.2,186,-0.420,-0.420,-0.420,0.000,0.000,0.000
1641058751259902976,2022-01-01-17:39:11,10.1.1.2,183,-0.430,-0.430,-0.430,0.000,0.000,0.000
1641058751461540096,2022-01-01-17:39:11,10.1.1.2,184,-0.440,-0.440,-0.440,0.000,0.000,0.000
1641058751660537856,2022-01-01-17:39:11,10.1.1.2,182,-0.450,-0.450,-0.450,0.000,0.000,0.000
1641058752483109120,2022-01-01-17:39:12,10.1.1.2,196,-0.490,-0.490,-0.490,0.000,0.000,0.000
1641058752682511104,2022-01-01-17:39:12,10.1.1.2,194,-0.480,-0.480,-0.480,0.000,0.000,0.000
1641058752882949120,2022-01-01-17:39:12,10.1.1.2,194,-0.470,-0.470,-0.470,0.000,0.000,0.000
1641058753082561024,2022-01-01-17:39:13,10.1.1.2,192,-0.460,-0.460,-0.460,0.000,0.000,0.000
1641058753282660096,2022-01-01-17:39:13,10.1.1.2,191,-0.450,-0.450,-0.450,0.000,0.000,0.000
1641058753490525952,2022-01-01-17:39:13,10.1.1.2,198,-0.440,-0.440,-0.440,0.000,0.000,0.000
1641058753682881024,2022-01-01-17:39:13,10.1.1.2,189,-0.430,-0.430,-0.430,0.000,0.000,0.000
1641058753886084096,2022-01-01-17:39:13,10.1.1.2,191,-0.420,-0.420,-0.420,0.000,0.000,0.000
1641058754091311104,2022-01-01-17:39:14,10.1.1.2,196,-0.410,-0.410,-0.410,0.000,0.000,0.000
1641058754282630912,2022-01-01-17:39:14,10.1.1.2,186,-0.400,-0.400,-0.400,0.000,0.000,0.000
1641058754481161216,2022-01-01-17:39:14,10.1.1.2,181,-0.390,-0.390,-0.390,0.000,0.000,0.000
1641058754901016832,2022-01-01-17:39:14,10.1.1.2,198,-0.370,-0.370,-0.370,0.000,0.000,0.000
1641058755301798144,2022-01-01-17:39:15,10.1.1.2,196,-0.350,-0.350,-0.350,0.000,0.000,0.000
1641058755500518912,2022-01-01-17:39:15,10.1.1.2,191,-0.340,-0.340,-0.340,0.000,0.000,0.000
1641058755700086016,2022-01-01-17:39:15,10.1.1.2,190,-0.330,-0.330,-0.330,0.000,0.000,0.000
1641058755899521024,2022-01-01-17:39:15,10.1.1.2,188,-0.320,-0.320,-0.320,0.000,0.000,0.000
1641058756105391104,2022-01-01-17:39:16,10.1.1.2,193,-0.310,-0.310,-0.310,0.000,0.000,0.000
1641058756304739072,2022-01-01-17:39:16,10.1.1.2,192,-0.300,-0.300,-0.300,0.000,0.000,0.000
1641058756703471872,2022-01-01-17:39:16,10.1.1.2,188,-0.280,-0.280,-0.280,0.000,0.000,0.000
1641058756905102080,2022-01-01-17:39:16,10.1.1.2,189,-0.270,-0.270,-0.270,0.000,0.000,0.000
1641058757108293888,2022-01-01-17:39:17,10.1.1.2,191,-0.260,-0.260,-0.260,0.000,0.000,0.000
1641058757302082048,2022-01-01-17:39:17,10.1.1.2,182,-0.250,-0.250,-0.250,0.000,0.000,0.000
1641058757502542848,2022-01-01-17:39:17,10.1.1.2,181,-0.240,-0.240,-0.240,0.000,0.000,0.000
1641058757701411840,2022-01-01-17:39:17,10.1.1.2,179,-0.230,-0.230,-0.230,0.000,0.000,0.000
1641058758319243008,2022-01-01-17:39:18,10.1.1.2,194,-0.200,-0.200,-0.200,0.000,0.000,0.000
1641058758520629760,2022-01-01-17:39:18,10.1.1.2,194,-0.190,-0.190,-0.190,0.000,0.000,0.000
1641058759122742784,2022-01-01-17:39:19,10.1.1.2,194,-0.160,-0.160,-0.160,0.000,0.000,0.000
1641058759317308928,2022-01-01-17:39:19,10.1.1.2,187,-0.150,-0.150,-0.150,0.000,0.000,0.000
1641058759517340928,2022-01-01-17:39:19,10.1.1.2,187,-0.140,-0.140,-0.140,0.000,0.000,0.000
1641058759716707072,2022-01-01-17:39:19,10.1.1.2,184,-0.130,-0.130,-0.130,0.000,0.000,0.000
1641058760330126080,2022-01-01-17:39:20,10.1.1.2,194,-0.100,-0.100,-0.100,0.000,0.000,0.000
1641058760520695808,2022-01-01-17:39:20,10.1.1.2,183,-0.090,-0.090,-0.090,0.000,0.000,0.000
1641058760720776192,2022-01-01-17:39:20,10.1.1.2,182,-0.080,-0.080,-0.080,0.000,0.000,0.000
1641058761124219904,2022-01-01-17:39:21,10.1.1.2,180,-0.060,-0.060,-0.060,0.000,0.000,0.000
1641058761319063808,2022-01-01-17:39:21,10.1.1.2,174,-0.050,-0.050,-0.050,0.000,0.000,0.000
1641058761737092096,2022-01-01-17:39:21,10.1.1.2,190,-0.030,-0.030,-0.030,0.000,0.000,0.000
1641058761937665024,2022-01-01-17:39:21,10.1.1.2,190,-0.020,-0.020,-0.020,0.000,0.000,0.000
1641058762137814016,2022-01-01-17:39:22,10.1.1.2,188,-0.010,-0.010,-0.010,0.000,0.000,0.000
1641058762336900096,2022-01-01-17:39:22,10.1.1.2,182,0.000,0.000,0.000,0.000,0.000,0.000
1641058762539372032,2022-01-01-17:39:22,10.1.1.2,183,-0.010,-0.010,-0.010,0.000,0.000,0.000
1641058762736690944,2022-01-01-17:39:22,10.1.1.2,179,-0.020,-0.020,-0.020,0.000,0.000,0.000
1641058762935930880,2022-01-01-17:39:22,10.1.1.2,177,-0.030,-0.030,-0.030,0.000,0.000,0.000
1641058763153937152,2022-01-01-17:39:23,10.1.1.2,195,-0.040,-0.040,-0.040,0.000,0.000,0.000
1641058763329974784,2022-01-01-17:39:23,10.1.1.2,170,-0.050,-0.050,-0.050,0.000,0.000,0.000
1641058763532839168,2022-01-01-17:39:23,10.1.1.2,172,-0.060,-0.060,-0.060,0.000,0.000,0.000
1641058763762067968,2022-01-01-17:39:23,10.1.1.2,197,-0.070,-0.070,-0.070,0.000,0.000,0.000
1641058763944812032,2022-01-01-17:39:23,10.1.1.2,180,-0.080,-0.080,-0.080,0.000,0.000,0.000
1641058764152086016,2022-01-01-17:39:24,10.1.1.2,185,-0.090,-0.090,-0.090,0.000,0.000,0.000
1641058764354813952,2022-01-01-17:39:24,10.1.1.2,183,-0.100,-0.100,-0.100,0.000,0.000,0.000
1641058764568818176,2022-01-01-17:39:24,10.1.1.2,195,-0.110,-0.110,-0.110,0.000,0.000,0.000
1641058764755953152,2022-01-01-17:39:24,10.1.1.2,182,-0.120,-0.120,-0.120,0.000,0.000,0.000
1641058764956974080,2022-01-01-17:39:24,10.1.1.2,181,-0.130,-0.130,-0.130,0.000,0.000,0.000
1641058765158813952,2022-01-01-17:39:25,10.1.1.2,182,-0.140,-0.140,-0.140,0.000,0.000,0.000
1641058765362878208,2022-01-01-17:39:25,10.1.1.2,181,-0.150,-0.150,-0.150,0.000,0.000,0.000
1641058765554292992,2022-01-01-17:39:25,10.1.1.2,169,-0.160,-0.160,-0.160,0.000,0.000,0.000
1641058765763628032,2022-01-01-17:39:25,10.1.1.2,177,-0.170,-0.170,-0.170,0.000,0.000,0.000
1641058765984370944,2022-01-01-17:39:25,10.1.1.2,196,-0.180,-0.180,-0.180,0.000,0.000,0.000
1641058766168945920,2022-01-01-17:39:26,10.1.1.2,180,-0.190,-0.190,-0.190,0.000,0.000,0.000
1641058766367248128,2022-01-01-17:39:26,10.1.1.2,178,-0.200,-0.200,-0.200,0.000,0.000,0.000
1641058766567702016,2022-01-01-17:39:26,10.1.1.2,175,-0.210,-0.210,-0.210,0.000,0.000,0.000
1641058766766381056,2022-01-01-17:39:26,10.1.1.2,171,-0.220,-0.220,-0.220,0.000,0.000,0.000
1641058766965705984,2022-01-01-17:39:26,10.1.1.2,169,-0.230,-0.230,-0.230,0.000,0.000,0.000
1641058767168150016,2022-01-01-17:39:27,10.1.1.2,168,-0.240,-0.240,-0.240,0.000,0.000,0.000
1641058767385609984,2022-01-01-17:39:27,10.1.1.2,184,-0.250,-0.250,-0.250,0.000,0.000,0.000
1641058767594379008,2022-01-01-17:39:27,10.1.1.2,192,-0.260,-0.260,-0.260,0.000,0.000,0.000
1641058767788507904,2022-01-01-17:39:27,10.1.1.2,185,-0.270,-0.270,-0.270,0.000,0.000,0.000
1641058767985122048,2022-01-01-17:39:27,10.1.1.2,180,-0.280,-0.280,-0.280,0.000,0.000,0.000
1641058768205705984,2022-01-01-17:39:28,10.1.1.2,199,-0.290,-0.290,-0.290,0.000,0.000,0.000
1641058768371109120,2022-01-01-17:39:28,10.1.1.2,164,-0.300,-0.300,-0.300,0.000,0.000,0.000
1641058768588419840,2022-01-01-17:39:28,10.1.1.2,180,-0.310,-0.310,-0.310,0.000,0.000,0.000
1641058768777777920,2022-01-01-17:39:28,10.1.1.2,168,-0.320,-0.320,-0.320,0.000,0.000,0.000
1641058768987834880,2022-01-01-17:39:28,10.1.1.2,175,-0.330,-0.330,-0.330,0.000,0.000,0.000
1641058769187235072,2022-01-01-17:39:29,10.1.1.2,174,-0.340,-0.340,-0.340,0.000,0.000,0.000
1641058769413724928,2022-01-01-17:39:29,10.1.1.2,199,-0.350,-0.350,-0.350,0.000,0.000,0.000
1641058769585691904,2022-01-01-17:39:29,10.1.1.2,171,-0.360,-0.360,-0.360,0.000,0.000,0.000
1641058769786606080,2022-01-01-17:39:29,10.1.1.2,170,-0.370,-0.370,-0.370,0.000,0.000,0.000
1641058769981559040,2022-01-01-17:39:29,10.1.1.2,164,-0.380,-0.380,-0.380,0.000,0.000,0.000
1641058770195417856,2022-01-01-17:39:30,10.1.1.2,177,-0.390,-0.390,-0.390,0.000,0.000,0.000
1641058770407769088,2022-01-01-17:39:30,10.1.1.2,189,-0.400,-0.400,-0.400,0.000,0.000,0.000
1641058770600802048,2022-01-01-17:39:30,10.1.1.2,181,-0.410,-0.410,-0.410,0.000,0.000,0.000
1641058770785720064,2022-01-01-17:39:30,10.1.1.2,164,-0.420,-0.420,-0.420,0.000,0.000,0.000
1641058770984864000,2022-01-01-17:39:30,10.1.1.2,163,-0.430,-0.430,-0.430,0.000,0.000,0.000
1641058771184753920,2022-01-01-17:39:31,10.1.1.2,161,-0.440,-0.440,-0.440,0.000,0.000,0.000
1641058771384297984,2022-01-01-17:39:31,10.1.1.2,159,-0.450,-0.450,-0.450,0.000,0.000,0.000
1641058771605382912,2022-01-01-17:39:31,10.1.1.2,176,-0.460,-0.460,-0.460,0.000,0.000,0.000
1641058771810939904,2022-01-01-17:39:31,10.1.1.2,179,-0.470,-0.470,-0.470,0.000,0.000,0.000
1641058772000397824,2022-01-01-17:39:32,10.1.1.2,167,-0.480,-0.480,-0.480,0.000,0.000,0.000
1641058772198554880,2022-01-01-17:39:32,10.1.1.2,164,-0.490,-0.490,-0.490,0.000,0.000,0.000
1641058772404427008,2022-01-01-17:39:32,10.1.1.2,167,-0.480,-0.480,-0.480,0.000,0.000,0.000
1641058772598691072,2022-01-01-17:39:32,10.1.1.2,161,-0.470,-0.470,-0.470,0.000,0.000,0.000
1641058772799213056,2022-01-01-17:39:32,10.1.1.2,160,-0.460,-0.460,-0.460,0.000,0.000,0.000
1641058773003546112,2022-01-01-17:39:33,10.1.1.2,163,-0.450,-0.450,-0.450,0.000,0.000,0.000
1641058773215822848,2022-01-01-17:39:33,10.1.1.2,175,-0.440,-0.440,-0.440,0.000,0.000,0.000
1641058773407279872,2022-01-01-17:39:33,10.1.1.2,166,-0.430,-0.430,-0.430,0.000,0.000,0.000
1641058773644498944,2022-01-01-17:39:33,10.1.1.2,200,-0.420,-0.420,-0.420,0.000,0.000,0.000
1641058774022672896,2022-01-01-17:39:34,10.1.1.2,175,-0.400,-0.400,-0.400,0.000,0.000,0.000
1641058774226672896,2022-01-01-17:39:34,10.1.1.2,175,-0.390,-0.390,-0.390,0.000,0.000,0.000
1641058774426608128,2022-01-01-17:39:34,10.1.1.2,174,-0.380,-0.380,-0.380,0.000,0.000,0.000
1641058774628952064,2022-01-01-17:39:34,10.1.1.2,176,-0.370,-0.370,-0.370,0.000,0.000,0.000
1641058774828013056,2022-01-01-17:39:34,10.1.1.2,173,-0.360,-0.360,-0.360,0.000,0.000,0.000
1641058775030435072,2022-01-01-17:39:35,10.1.1.2,174,-0.350,-0.350,-0.350,0.000,0.000,0.000
1641058775229367040,2022-01-01-17:39:35,10.1.1.2,171,-0.340,-0.340,-0.340,0.000,0.000,0.000
1641058775434989824,2022-01-01-17:39:35,10.1.1.2,176,-0.330,-0.330,-0.330,0.000,0.000,0.000
1641058775638654976,2022-01-01-17:39:35,10.1.1.2,179,-0.320,-0.320,-0.320,0.000,0.000,0.000
1641058775832596992,2022-01-01-17:39:35,10.1.1.2,172,-0.310,-0.310,-0.310,0.000,0.000,0.000
1641058776038552064,2022-01-01-17:39:36,10.1.1.2,177,-0.300,-0.300,-0.300,0.000,0.000,0.000
1641058776233303040,2022-01-01-17:39:36,10.1.1.2,170,-0.290,-0.290,-0.290,0.000,0.000,0.000
1641058776433394944,2022-01-01-17:39:36,10.1.1.2,169,-0.280,-0.280,-0.280,0.000,0.000,0.000
1641058776634174208,2022-01-01-17:39:36,10.1.1.2,169,-0.270,-0.270,-0.270,0.000,0.000,0.000
1641058776836733184,2022-01-01-17:39:36,10.1.1.2,169,-0.260,-0.260,-0.260,0.000,0.000,0.000
1641058777451684864,2022-01-01-17:39:37,10.1.1.2,176,-0.230,-0.230,-0.230,0.000,0.000,0.000
1641058777672930048,2022-01-01-17:39:37,10.1.1.2,188,-0.220,-0.220,-0.220,0.000,0.000,0.000
1641058777873752064,2022-01-01-17:39:37,10.1.1.2,188,-0.210,-0.210,-0.210,0.000,0.000,0.000
1641058778064734976,2022-01-01-17:39:38,10.1.1.2,177,-0.200,-0.200,-0.200,0.000,0.000,0.000
1641058778274419968,2022-01-01-17:39:38,10.1.1.2,186,-0.190,-0.190,-0.190,0.000,0.000,0.000
1641058778488389888,2022-01-01-17:39:38,10.1.1.2,198,-0.180,-0.180,-0.180,0.000,0.000,0.000
1641058778675503872,2022-01-01-17:39:38,10.1.1.2,184,-0.170,-0.170,-0.170,0.000,0.000,0.000
1641058778891032832,2022-01-01-17:39:38,10.1.1.2,199,-0.160,-0.160,-0.160,0.000,0.000,0.000
1641058779278806016,2022-01-01-17:39:39,10.1.1.2,184,-0.140,-0.140,-0.140,0.000,0.000,0.000
1641058779488909056,2022-01-01-17:39:39,10.1.1.2,192,-0.130,-0.130,-0.130,0.000,0.000,0.000
1641058779692590080,2022-01-01-17:39:39,10.1.1.2,196,-0.120,-0.120,-0.120,0.000,0.000,0.000
1641058780096455168,2022-01-01-17:39:40,10.1.1.2,196,-0.100,-0.100,-0.100,0.000,0.000,0.000
1641058780277662976,2022-01-01-17:39:40,10.1.1.2,175,-0.090,-0.090,-0.090,0.000,0.000,0.000
1641058780477943808,2022-01-01-17:39:40,10.1.1.2,174,-0.080,-0.080,-0.080,0.000,0.000,0.000
1641058780697598976,2022-01-01-17:39:40,10.1.1.2,193,-0.070,-0.070,-0.070,0.000,0.000,0.000
1641058781293068032,2022-01-01-17:39:41,10.1.1.2,186,-0.040,-0.040,-0.040,0.000,0.000,0.000
1641058781501902080,2022-01-01-17:39:41,10.1.1.2,194,-0.030,-0.030,-0.030,0.000,0.000,0.000
1641058781685568000,2022-01-01-17:39:41,10.1.1.2,177,-0.020,-0.020,-0.020,0.000,0.000,0.000
1641058781896086016,2022-01-01-17:39:41,10.1.1.2,186,-0.010,-0.010,-0.010,0.000,0.000,0.000
1641058782105938944,2022-01-01-17:39:42,10.1.1.2,195,0.000,0.000,0.000,0.000,0.000,0.000
1641058782311412992,2022-01-01-17:39:42,10.1.1.2,199,-0.010,-0.010,-0.010,0.000,0.000,0.000
1641058782899912192,2022-01-01-17:39:42,10.1.1.2,185,-0.040,-0.040,-0.040,0.000,0.000,0.000
1641058783103979008,2022-01-01-17:39:43,10.1.1.2,188,-0.050,-0.050,-0.050,0.000,0.000,0.000
1641058783295995904,2022-01-01-17:39:43,10.1.1.2,179,-0.060,-0.060,-0.060,0.000,0.000,0.000
1641058783504476928,2022-01-01-17:39:43,10.1.1.2,180,-0.070,-0.070,-0.070,0.000,0.000,0.000
1641058784524094208,2022-01-01-17:39:44,10.1.1.2,186,-0.120,-0.120,-0.120,0.000,0.000,0.000
1641058785121774080,2022-01-01-17:39:45,10.1.1.2,181,-0.150,-0.150,-0.150,0.000,0.000,0.000
1641058785522289152,2022-01-01-17:39:45,10.1.1.2,180,-0.170,-0.170,-0.170,0.000,0.000,0.000
1641058786338731008,2022-01-01-17:39:46,10.1.1.2,192,-0.210,-0.210,-0.210,0.000,0.000,0.000
1641058787336606976,2022-01-01-17:39:47,10.1.1.2,185,-0.260,-0.260,-0.260,0.000,0.000,0.000
1641058787537600000,2022-01-01-17:39:47,10.1.1.2,185,-0.270,-0.270,-0.270,0.000,0.000,0.000
1641058787746850048,2022-01-01-17:39:47,10.1.1.2,194,-0.280,-0.280,-0.280,0.000,0.000,0.000
1641058788132478976,2022-01-01-17:39:48,10.1.1.2,177,-0.300,-0.300,-0.300,0.000,0.000,0.000
1641058788339909120,2022-01-01-17:39:48,10.1.1.2,184,-0.310,-0.310,-0.310,0.000,0.000,0.000
1641058788540267008,2022-01-01-17:39:48,10.1.1.2,184,-0.320,-0.320,-0.320,0.000,0.000,0.000
1641058788741980160,2022-01-01-17:39:48,10.1.1.2,184,-0.330,-0.330,-0.330,0.000,0.000,0.000
1641058788940207872,2022-01-01-17:39:48,10.1.1.2,182,-0.340,-0.340,-0.340,0.000,0.000,0.000
1641058789339764992,2022-01-01-17:39:49,10.1.1.2,179,-0.360,-0.360,-0.360,0.000,0.000,0.000
1641058789543553024,2022-01-01-17:39:49,10.1.1.2,181,-0.370,-0.370,-0.370,0.000,0.000,0.000
1641058789739672832,2022-01-01-17:39:49,10.1.1.2,176,-0.380,-0.380,-0.380,0.000,0.000,0.000
1641058789947652096,2022-01-01-17:39:49,10.1.1.2,182,-0.390,-0.390,-0.390,0.000,0.000,0.000
1641058790156924928,2022-01-01-17:39:50,10.1.1.2,191,-0.400,-0.400,-0.400,0.000,0.000,0.000
1641058790356476160,2022-01-01-17:39:50,10.1.1.2,190,-0.410,-0.410,-0.410,0.000,0.000,0.000
1641058790556694016,2022-01-01-17:39:50,10.1.1.2,189,-0.420,-0.420,-0.420,0.000,0.000,0.000
1641058790755429120,2022-01-01-17:39:50,10.1.1.2,187,-0.430,-0.430,-0.430,0.000,0.000,0.000
1641058790963748096,2022-01-01-17:39:50,10.1.1.2,195,-0.440,-0.440,-0.440,0.000,0.000,0.000
1641058791155144960,2022-01-01-17:39:51,10.1.1.2,185,-0.450,-0.450,-0.450,0.000,0.000,0.000
1641058791355823104,2022-01-01-17:39:51,10.1.1.2,182,-0.460,-0.460,-0.460,0.000,0.000,0.000
1641058791555213056,2022-01-01-17:39:51,10.1.1.2,179,-0.470,-0.470,-0.470,0.000,0.000,0.000
1641058791755294976,2022-01-01-17:39:51,10.1.1.2,178,-0.480,-0.480,-0.480,0.000,0.000,0.000
1641058791954528000,2022-01-01-17:39:51,10.1.1.2,176,-0.490,-0.490,-0.490,0.000,0.000,0.000
1641058792156630016,2022-01-01-17:39:52,10.1.1.2,178,-0.480,-0.480,-0.480,0.000,0.000,0.000
1641058792355702016,2022-01-01-17:39:52,10.1.1.2,176,-0.470,-0.470,-0.470,0.000,0.000,0.000
1641058792553835008,2022-01-01-17:39:52,10.1.1.2,173,-0.460,-0.460,-0.460,0.000,0.000,0.000
1641058792761306880,2022-01-01-17:39:52,10.1.1.2,180,-0.450,-0.450,-0.450,0.000,0.000,0.000
1641058793160480000,2022-01-01-17:39:53,10.1.1.2,176,-0.430,-0.430,-0.430,0.000,0.000,0.000
1641058793375108864,2022-01-01-17:39:53,10.1.1.2,190,-0.420,-0.420,-0.420,0.000,0.000,0.000
1641058793559885056,2022-01-01-17:39:53,10.1.1.2,174,-0.410,-0.410,-0.410,0.000,0.000,0.000
1641058793760268032,2022-01-01-17:39:53,10.1.1.2,174,-0.400,-0.400,-0.400,0.000,0.000,0.000
1641058793976376064,2022-01-01-17:39:53,10.1.1.2,189,-0.390,-0.390,-0.390,0.000,0.000,0.000
1641058794188582912,2022-01-01-17:39:54,10.1.1.2,199,-0.380,-0.380,-0.380,0.000,0.000,0.000
1641058794381576960,2022-01-01-17:39:54,10.1.1.2,191,-0.370,-0.370,-0.370,0.000,0.000,0.000
1641058794570988800,2022-01-01-17:39:54,10.1.1.2,180,-0.360,-0.360,-0.360,0.000,0.000,0.000
1641058794770234112,2022-01-01-17:39:54,10.1.1.2,178,-0.350,-0.350,-0.350,0.000,0.000,0.000
1641058794979427072,2022-01-01-17:39:54,10.1.1.2,186,-0.340,-0.340,-0.340,0.000,0.000,0.000
1641058795173620992,2022-01-01-17:39:55,10.1.1.2,179,-0.330,-0.330,-0.330,0.000,0.000,0.000
1641058795368855040,2022-01-01-17:39:55,10.1.1.2,174,-0.320,-0.320,-0.320,0.000,0.000,0.000
1641058795569832960,2022-01-01-17:39:55,10.1.1.2,174,-0.310,-0.310,-0.310,0.000,0.000,0.000
1641058795776300032,2022-01-01-17:39:55,10.1.1.2,179,-0.300,-0.300,-0.300,0.000,0.000,0.000
1641058795978020864,2022-01-01-17:39:55,10.1.1.2,180,-0.290,-0.290,-0.290,0.000,0.000,0.000
1641058796188903168,2022-01-01-17:39:56,10.1.1.2,189,-0.280,-0.280,-0.280,0.000,0.000,0.000
1641058796591429120,2022-01-01-17:39:56,10.1.1.2,191,-0.260,-0.260,-0.260,0.000,0.000,0.000
1641058796776436992,2022-01-01-17:39:56,10.1.1.2,175,-0.250,-0.250,-0.250,0.000,0.000,0.000
1641058796982119168,2022-01-01-17:39:56,10.1.1.2,169,-0.240,-0.240,-0.240,0.000,0.000,0.000
1641058797202889984,2022-01-01-17:39:57,10.1.1.2,188,-0.230,-0.230,-0.230,0.000,0.000,0.000
1641058797589245184,2022-01-01-17:39:57,10.1.1.2,169,-0.210,-0.210,-0.210,0.000,0.000,0.000
1641058797790160896,2022-01-01-17:39:57,10.1.1.2,168,-0.200,-0.200,-0.200,0.000,0.000,0.000
1641058797998989056,2022-01-01-17:39:57,10.1.1.2,177,-0.190,-0.190,-0.190,0.000,0.000,0.000
1641058798188905984,2022-01-01-17:39:58,10.1.1.2,165,-0.180,-0.180,-0.180,0.000,0.000,0.000
1641058798388217088,2022-01-01-17:39:58,10.1.1.2,165,-0.170,-0.170,-0.170,0.000,0.000,0.000
1641058798614183936,2022-01-01-17:39:58,10.1.1.2,190,-0.160,-0.160,-0.160,0.000,0.000,0.000
1641058798789254912,2022-01-01-17:39:58,10.1.1.2,164,-0.150,-0.150,-0.150,0.000,0.000,0.000
1641058799009358848,2022-01-01-17:39:59,10.1.1.2,183,-0.140,-0.140,-0.140,0.000,0.000,0.000
1641058799192307968,2022-01-01-17:39:59,10.1.1.2,165,-0.130,-0.130,-0.130,0.000,0.000,0.000
1641058799393392128,2022-01-01-17:39:59,10.1.1.2,164,-0.120,-0.120,-0.120,0.000,0.000,0.000
1641058799592432128,2022-01-01-17:39:59,10.1.1.2,163,-0.110,-0.110,-0.110,0.000,0.000,0.000
1641058799812145920,2022-01-01-17:39:59,10.1.1.2,179,-0.100,-0.100,-0.100,0.000,0.000,0.000
1641058800025022976,2022-01-01-17:40:00,10.1.1.2,188,-0.090,-0.090,-0.090,0.000,0.000,0.000
1641058800208712192,2022-01-01-17:40:00,10.1.1.2,168,-0.080,-0.080,-0.080,0.000,0.000,0.000
1641058800410481920,2022-01-01-17:40:00,10.1.1.2,169,-0.070,-0.070,-0.070,0.000,0.000,0.000
1641058800816121088,2022-01-01-17:40:00,10.1.1.2,173,-0.050,-0.050,-0.050,0.000,0.000,0.000
1641058801026254848,2022-01-01-17:40:01,10.1.1.2,182,-0.040,-0.040,-0.040,0.000,0.000,0.000
1641058801225989120,2022-01-01-17:40:01,10.1.1.2,180,-0.030,-0.030,-0.030,0.000,0.000,0.000
1641058801425657088,2022-01-01-17:40:01,10.1.1.2,179,-0.020,-0.020,-0.020,0.000,0.000,0.000
1641058801625648896,2022-01-01-17:40:01,10.1.1.2,175,-0.010,-0.010,-0.010,0.000,0.000,0.000
1641058801826534912,2022-01-01-17:40:01,10.1.1.2,174,0.000,0.000,0.000,0.000,0.000,0.000
1641058802024029952,2022-01-01-17:40:02,10.1.1.2,169,-0.010,-0.010,-0.010,0.000,0.000,0.000
1641058802225728000,2022-01-01-17:40:02,10.1.1.2,170,-0.020,-0.020,-0.020,0.000,0.000,0.000
1641058802427238912,2022-01-01-17:40:02,10.1.1.2,171,-0.030,-0.030,-0.030,0.000,0.000,0.000
1641058802620174848,2022-01-01-17:40:02,10.1.1.2,163,-0.040,-0.040,-0.040,0.000,0.000,0.000
1641058802855703040,2022-01-01-17:40:02,10.1.1.2,194,-0.050,-0.050,-0.050,0.000,0.000,0.000
1641058803031769088,2022-01-01-17:40:03,10.1.1.2,169,-0.060,-0.060,-0.060,0.000,0.000,0.000
1641058803233946112,2022-01-01-17:40:03,10.1.1.2,170,-0.070,-0.070,-0.070,0.000,0.000,0.000
1641058803435648000,2022-01-01-17:40:03,10.1.1.2,171,-0.080,-0.080,-0.080,0.000,0.000,0.000
1641058803642860032,2022-01-01-17:40:03,10.1.1.2,176,-0.090,-0.090,-0.090,0.000,0.000,0.000
1641058803844763904,2022-01-01-17:40:03,10.1.1.2,174,-0.100,-0.100,-0.100,0.000,0.000,0.000
1641058804069997056,2022-01-01-17:40:04,10.1.1.2,198,-0.110,-0.110,-0.110,0.000,0.000,0.000
1641058804238686208,2022-01-01-17:40:04,10.1.1.2,166,-0.120,-0.120,-0.120,0.000,0.000,0.000
1641058804439886080,2022-01-01-17:40:04,10.1.1.2,166,-0.130,-0.130,-0.130,0.000,0.000,0.000
1641058804672854784,2022-01-01-17:40:04,10.1.1.2,199,-0.140,-0.140,-0.140,0.000,0.000,0.000
1641058804841337088,2022-01-01-17:40:04,10.1.1.2,166,-0.150,-0.150,-0.150,0.000,0.000,0.000
1641058805064393984,2022-01-01-17:40:05,10.1.1.2,188,-0.160,-0.160,-0.160,0.000,0.000,0.000
1641058805433131008,2022-01-01-17:40:05,10.1.1.2,155,-0.180,-0.180,-0.180,0.000,0.000,0.000
1641058805638963968,2022-01-01-17:40:05,10.1.1.2,160,-0.190,-0.190,-0.190,0.000,0.000,0.000
1641058805846087936,2022-01-01-17:40:05,10.1.1.2,165,-0.200,-0.200,-0.200,0.000,0.000,0.000
1641058806047579136,2022-01-01-17:40:06,10.1.1.2,166,-0.210,-0.210,-0.210,0.000,0.000,0.000
1641058806242306048,2022-01-01-17:40:06,10.1.1.2,160,-0.220,-0.220,-0.220,0.000,0.000,0.000
1641058806465174016,2022-01-01-17:40:06,10.1.1.2,181,-0.230,-0.230,-0.230,0.000,0.000,0.000
1641058806675208192,2022-01-01-17:40:06,10.1.1.2,190,-0.240,-0.240,-0.240,0.000,0.000,0.000
1641058807070842112,2022-01-01-17:40:07,10.1.1.2,184,-0.260,-0.260,-0.260,0.000,0.000,0.000
1641058807272954112,2022-01-01-17:40:07,10.1.1.2,185,-0.270,-0.270,-0.270,0.000,0.000,0.000
1641058807455902976,2022-01-01-17:40:07,10.1.1.2,166,-0.280,-0.280,-0.280,0.000,0.000,0.000
1641058807663309056,2022-01-01-17:40:07,10.1.1.2,173,-0.290,-0.290,-0.290,0.000,0.000,0.000
1641058807865489920,2022-01-01-17:40:07,10.1.1.2,174,-0.300,-0.300,-0.300,0.000,0.000,0.000
1641058808071736064,2022-01-01-17:40:08,10.1.1.2,180,-0.310,-0.310,-0.310,0.000,0.000,0.000
1641058808279022080,2022-01-01-17:40:08,10.1.1.2,183,-0.320,-0.320,-0.320,0.000,0.000,0.000
1641058808489948928,2022-01-01-17:40:08,10.1.1.2,192,-0.330,-0.330,-0.330,0.000,0.000,0.000
1641058808695079936,2022-01-01-17:40:08,10.1.1.2,197,-0.340,-0.340,-0.340,0.000,0.000,0.000
1641058808865731840,2022-01-01-17:40:08,10.1.1.2,166,-0.350,-0.350,-0.350,0.000,0.000,0.000
1641058809066214912,2022-01-01-17:40:09,10.1.1.2,166,-0.360,-0.360,-0.360,0.000,0.000,0.000
1641058809275170048,2022-01-01-17:40:09,10.1.1.2,174,-0.370,-0.370,-0.370,0.000,0.000,0.000
1641058809487983872,2022-01-01-17:40:09,10.1.1.2,185,-0.380,-0.380,-0.380,0.000,0.000,0.000
1641058809688216064,2022-01-01-17:40:09,10.1.1.2,185,-0.390,-0.390,-0.390,0.000,0.000,0.000
1641058809875128064,2022-01-01-17:40:09,10.1.1.2,171,-0.400,-0.400,-0.400,0.000,0.000,0.000
1641058810074882048,2022-01-01-17:40:10,10.1.1.2,169,-0.410,-0.410,-0.410,0.000,0.000,0.000
1641058810484687104,2022-01-01-17:40:10,10.1.1.2,176,-0.430,-0.430,-0.430,0.000,0.000,0.000
1641058810888040960,2022-01-01-17:40:10,10.1.1.2,177,-0.450,-0.450,-0.450,0.000,0.000,0.000
1641058811094926080,2022-01-01-17:40:11,10.1.1.2,184,-0.460,-0.460,-0.460,0.000,0.000,0.000
1641058811306490880,2022-01-01-17:40:11,10.1.1.2,194,-0.470,-0.470,-0.470,0.000,0.000,0.000
1641058811497520896,2022-01-01-17:40:11,10.1.1.2,184,-0.480,-0.480,-0.480,0.000,0.000,0.000
1641058811696482816,2022-01-01-17:40:11,10.1.1.2,182,-0.490,-0.490,-0.490,0.000,0.000,0.000
1641058811897114112,2022-01-01-17:40:11,10.1.1.2,181,-0.480,-0.480,-0.480,0.000,0.000,0.000
1641058812105700864,2022-01-01-17:40:12,10.1.1.2,186,-0.470,-0.470,-0.470,0.000,0.000,0.000
1641058812296471040,2022-01-01-17:40:12,10.1.1.2,176,-0.460,-0.460,-0.460,0.000,0.000,0.000
1641058812496140032,2022-01-01-17:40:12,10.1.1.2,175,-0.450,-0.450,-0.450,0.000,0.000,0.000
1641058812700262912,2022-01-01-17:40:12,10.1.1.2,178,-0.440,-0.440,-0.440,0.000,0.000,0.000
1641058812917848064,2022-01-01-17:40:12,10.1.1.2,195,-0.430,-0.430,-0.430,0.000,0.000,0.000
1641058813908626944,2022-01-01-17:40:13,10.1.1.2,181,-0.380,-0.380,-0.380,0.000,0.000,0.000
1641058814119565056,2022-01-01-17:40:14,10.1.1.2,191,-0.370,-0.370,-0.370,0.000,0.000,0.000
1641058814316162048,2022-01-01-17:40:14,10.1.1.2,187,-0.360,-0.360,-0.360,0.000,0.000,0.000
1641058814917324032,2022-01-01-17:40:14,10.1.1.2,184,-0.330,-0.330,-0.330,0.000,0.000,0.000
1641058815121253888,2022-01-01-17:40:15,10.1.1.2,187,-0.320,-0.320,-0.320,0.000,0.000,0.000
1641058815327217152,2022-01-01-17:40:15,10.1.1.2,192,-0.310,-0.310,-0.310,0.000,0.000,0.000
1641058815730356992,2022-01-01-17:40:15,10.1.1.2,194,-0.290,-0.290,-0.290,0.000,0.000,0.000
1641058815922349824,2022-01-01-17:40:15,10.1.1.2,178,-0.280,-0.280,-0.280,0.000,0.000,0.000
1641058816142446080,2022-01-01-17:40:16,10.1.1.2,196,-0.270,-0.270,-0.270,0.000,0.000,0.000
1641058816738116864,2022-01-01-17:40:16,10.1.1.2,184,-0.240,-0.240,-0.240,0.000,0.000,0.000
1641058818160857088,2022-01-01-17:40:18,10.1.1.2,188,-0.170,-0.170,-0.170,0.000,0.000,0.000
1641058818565210112,2022-01-01-17:40:18,10.1.1.2,189,-0.150,-0.150,-0.150,0.000,0.000,0.000
1641058819362627072,2022-01-01-17:40:19,10.1.1.2,176,-0.110,-0.110,-0.110,0.000,0.000,0.000
1641058819577014016,2022-01-01-17:40:19,10.1.1.2,189,-0.100,-0.100,-0.100,0.000,0.000,0.000
1641058819766088960,2022-01-01-17:40:19,10.1.1.2,177,-0.090,-0.090,-0.090,0.000,0.000,0.000
1641058819970434048,2022-01-01-17:40:19,10.1.1.2,180,-0.080,-0.080,-0.080,0.000,0.000,0.000
1641058820378888960,2022-01-01-17:40:20,10.1.1.2,184,-0.060,-0.060,-0.060,0.000,0.000,0.000
1641058820579184896,2022-01-01-17:40:20,10.1.1.2,183,-0.050,-0.050,-0.050,0.000,0.000,0.000
1641058820780018176,2022-01-01-17:40:20,10.1.1.2,183,-0.040,-0.040,-0.040,0.000,0.000,0.000
1641058820986761984,2022-01-01-17:40:20,10.1.1.2,189,-0.030,-0.030,-0.030,0.000,0.000,0.000
1641058821181655808,2022-01-01-17:40:21,10.1.1.2,183,-0.020,-0.020,-0.020,0.000,0.000,0.000
1641058821381958912,2022-01-01-17:40:21,10.1.1.2,182,-0.010,-0.010,-0.010,0.000,0.000,0.000
1641058821581122048,2022-01-01-17:40:21,10.1.1.2,179,0.000,0.000,0.000,0.000,0.000,0.000
1641058821782788096,2022-01-01-17:40:21,10.1.1.2,179,-0.010,-0.010,-0.010,0.000,0.000,0.000
1641058821980781056,2022-01-01-17:40:21,10.1.1.2,176,-0.020,-0.020,-0.020,0.000,0.000,0.000
1641058822200728832,2022-01-01-17:40:22,10.1.1.2,194,-0.030,-0.030,-0.030,0.000,0.000,0.000
1641058822601576192,2022-01-01-17:40:22,10.1.1.2,192,-0.050,-0.050,-0.050,0.000,0.000,0.000
1641058822809686016,2022-01-01-17:40:22,10.1.1.2,196,-0.060,-0.060,-0.060,0.000,0.000,0.000
1641058822999998976,2022-01-01-17:40:22,10.1.1.2,182,-0.070,-0.070,-0.070,0.000,0.000,0.000
1641058823199505920,2022-01-01-17:40:23,10.1.1.2,181,-0.080,-0.080,-0.080,0.000,0.000,0.000
1641058823389383168,2022-01-01-17:40:23,10.1.1.2,169,-0.090,-0.090,-0.090,0.000,0.000,0.000
1641058824210155008,2022-01-01-17:40:24,10.1.1.2,183,-0.130,-0.130,-0.130,0.000,0.000,0.000
1641058824608550144,2022-01-01-17:40:24,10.1.1.2,175,-0.150,-0.150,-0.150,0.000,0.000,0.000
1641058824810226944,2022-01-01-17:40:24,10.1.1.2,176,-0.160,-0.160,-0.160,0.000,0.000,0.000
1641058825019592960,2022-01-01-17:40:25,10.1.1.2,185,-0.170,-0.170,-0.170,0.000,0.000,0.000
1641058825221025024,2022-01-01-17:40:25,10.1.1.2,185,-0.180,-0.180,-0.180,0.000,0.000,0.000
1641058825436808960,2022-01-01-17:40:25,10.1.1.2,200,-0.190,-0.190,-0.190,0.000,0.000,0.000
1641058825821708032,2022-01-01-17:40:25,10.1.1.2,182,-0.210,-0.210,-0.210,0.000,0.000,0.000
1641058826022737152,2022-01-01-17:40:26,10.1.1.2,182,-0.220,-0.220,-0.220,0.000,0.000,0.000
1641058826216487936,2022-01-01-17:40:26,10.1.1.2,173,-0.230,-0.230,-0.230,0.000,0.000,0.000
1641058826436530176,2022-01-01-17:40:26,10.1.1.2,189,-0.240,-0.240,-0.240,0.000,0.000,0.000
1641058826635449856,2022-01-01-17:40:26,10.1.1.2,187,-0.250,-0.250,-0.250,0.000,0.000,0.000
1641058826834515200,2022-01-01-17:40:26,10.1.1.2,183,-0.260,-0.260,-0.260,0.000,0.000,0.000
1641058827034598144,2022-01-01-17:40:27,10.1.1.2,182,-0.270,-0.270,-0.270,0.000,0.000,0.000
1641058827835809024,2022-01-01-17:40:27,10.1.1.2,178,-0.310,-0.310,-0.310,0.000,0.000,0.000
1641058828033182976,2022-01-01-17:40:28,10.1.1.2,176,-0.320,-0.320,-0.320,0.000,0.000,0.000
1641058828235030784,2022-01-01-17:40:28,10.1.1.2,177,-0.330,-0.330,-0.330,0.000,0.000,0.000
1641058828433988096,2022-01-01-17:40:28,10.1.1.2,174,-0.340,-0.340,-0.340,0.000,0.000,0.000
1641058828632699136,2022-01-01-17:40:28,10.1.1.2,173,-0.350,-0.350,-0.350,0.000,0.000,0.000
1641058828832217088,2022-01-01-17:40:28,10.1.1.2,170,-0.360,-0.360,-0.360,0.000,0.000,0.000
1641058829251895808,2022-01-01-17:40:29,10.1.1.2,185,-0.380,-0.380,-0.380,0.000,0.000,0.000
1641058829451142144,2022-01-01-17:40:29,10.1.1.2,179,-0.390,-0.390,-0.390,0.000,0.000,0.000
1641058829650199808,2022-01-01-17:40:29,10.1.1.2,176,-0.400,-0.400,-0.400,0.000,0.000,0.000
1641058829849270016,2022-01-01-17:40:29,10.1.1.2,176,-0.410,-0.410,-0.410,0.000,0.000,0.000
1641058830273026048,2022-01-01-17:40:30,10.1.1.2,198,-0.430,-0.430,-0.430,0.000,0.000,0.000
1641058830676400896,2022-01-01-17:40:30,10.1.1.2,198,-0.450,-0.450,-0.450,0.000,0.000,0.000
1641058831253150976,2022-01-01-17:40:31,10.1.1.2,172,-0.480,-0.480,-0.480,0.000,0.000,0.000
1641058831444356864,2022-01-01-17:40:31,10.1.1.2,163,-0.490,-0.490,-0.490,0.000,0.000,0.000
1641058831654403840,2022-01-01-17:40:31,10.1.1.2,172,-0.480,-0.480,-0.480,0.000,0.000,0.000
1641058831865440000,2022-01-01-17:40:31,10.1.1.2,180,-0.470,-0.470,-0.470,0.000,0.000,0.000
1641058832064440064,2022-01-01-17:40:32,10.1.1.2,175,-0.460,-0.460,-0.460,0.000,0.000,0.000
1641058832264101888,2022-01-01-17:40:32,10.1.1.2,173,-0.450,-0.450,-0.450,0.000,0.000,0.000
1641058832464043008,2022-01-01-17:40:32,10.1.1.2,173,-0.440,-0.440,-0.440,0.000,0.000,0.000
1641058832664023040,2022-01-01-17:40:32,10.1.1.2,171,-0.430,-0.430,-0.430,0.000,0.000,0.000
1641058832862670848,2022-01-01-17:40:32,10.1.1.2,169,-0.420,-0.420,-0.420,0.000,0.000,0.000
1641058833063666176,2022-01-01-17:40:33,10.1.1.2,169,-0.410,-0.410,-0.410,0.000,0.000,0.000
1641058833261920000,2022-01-01-17:40:33,10.1.1.2,167,-0.400,-0.400,-0.400,0.000,0.000,0.000
1641058833467153152,2022-01-01-17:40:33,10.1.1.2,172,-0.390,-0.390,-0.390,0.000,0.000,0.000
1641058833682889984,2022-01-01-17:40:33,10.1.1.2,186,-0.380,-0.380,-0.380,0.000,0.000,0.000
1641058833865870848,2022-01-01-17:40:33,10.1.1.2,168,-0.370,-0.370,-0.370,0.000,0.000,0.000
1641058834060882944,2022-01-01-17:40:34,10.1.1.2,163,-0.360,-0.360,-0.360,0.000,0.000,0.000
1641058834266990848,2022-01-01-17:40:34,10.1.1.2,168,-0.350,-0.350,-0.350,0.000,0.000,0.000
1641058834469245952,2022-01-01-17:40:34,10.1.1.2,169,-0.340,-0.340,-0.340,0.000,0.000,0.000
1641058834691011072,2022-01-01-17:40:34,10.1.1.2,190,-0.330,-0.330,-0.330,0.000,0.000,0.000
1641058835085107968,2022-01-01-17:40:35,10.1.1.2,181,-0.310,-0.310,-0.310,0.000,0.000,0.000
1641058835267774976,2022-01-01-17:40:35,10.1.1.2,159,-0.300,-0.300,-0.300,0.000,0.000,0.000
1641058835466713856,2022-01-01-17:40:35,10.1.1.2,157,-0.290,-0.290,-0.290,0.000,0.000,0.000
1641058835686510080,2022-01-01-17:40:35,10.1.1.2,175,-0.280,-0.280,-0.280,0.000,0.000,0.000
1641058835887817984,2022-01-01-17:40:35,10.1.1.2,172,-0.270,-0.270,-0.270,0.000,0.000,0.000
1641058836075720192,2022-01-01-17:40:36,10.1.1.2,157,-0.260,-0.260,-0.260,0.000,0.000,0.000
1641058836285216000,2022-01-01-17:40:36,10.1.1.2,166,-0.250,-0.250,-0.250,0.000,0.000,0.000
1641058836477530112,2022-01-01-17:40:36,10.1.1.2,156,-0.240,-0.240,-0.240,0.000,0.000,0.000
1641058836697496832,2022-01-01-17:40:36,10.1.1.2,172,-0.230,-0.230,-0.230,0.000,0.000,0.000
1641058836897255936,2022-01-01-17:40:36,10.1.1.2,168,-0.220,-0.220,-0.220,0.000,0.000,0.000
1641058837097771008,2022-01-01-17:40:37,10.1.1.2,165,-0.210,-0.210,-0.210,0.000,0.000,0.000
1641058837298897152,2022-01-01-17:40:37,10.1.1.2,162,-0.200,-0.200,-0.200,0.000,0.000,0.000
1641058837500914176,2022-01-01-17:40:37,10.1.1.2,164,-0.190,-0.190,-0.190,0.000,0.000,0.000
1641058837701332992,2022-01-01-17:40:37,10.1.1.2,163,-0.180,-0.180,-0.180,0.000,0.000,0.000
1641058837920104960,2022-01-01-17:40:37,10.1.1.2,181,-0.170,-0.170,-0.170,0.000,0.000,0.000
1641058838100750848,2022-01-01-17:40:38,10.1.1.2,160,-0.160,-0.160,-0.160,0.000,0.000,0.000
1641058838346808832,2022-01-01-17:40:38,10.1.1.2,-1,-0.150,-0.150,-0.150,0.000,0.000,0.000
1641058838932007168,2022-01-01-17:40:38,10.1.1.2,184,-0.120,-0.120,-0.120,0.000,0.000,0.000
1641058839132513024,2022-01-01-17:40:39,10.1.1.2,182,-0.110,-0.110,-0.110,0.000,0.000,0.000
1641058839324134144,2022-01-01-17:40:39,10.1.1.2,173,-0.100,-0.100,-0.100,0.000,0.000,0.000
1641058839525170176,2022-01-01-17:40:39,10.1.1.2,173,-0.090,-0.090,-0.090,0.000,0.000,0.000
1641058839725275904,2022-01-01-17:40:39,10.1.1.2,173,-0.080,-0.080,-0.080,0.000,0.000,0.000
1641058839926003968,2022-01-01-17:40:39,10.1.1.2,173,-0.070,-0.070,-0.070,0.000,0.000,0.000
1641058840126866176,2022-01-01-17:40:40,10.1.1.2,172,-0.060,-0.060,-0.060,0.000,0.000,0.000
1641058840346461952,2022-01-01-17:40:40,10.1.1.2,189,-0.050,-0.050,-0.050,0.000,0.000,0.000
1641058840728837888,2022-01-01-17:40:40,10.1.1.2,168,-0.030,-0.030,-0.030,0.000,0.000,0.000
1641058840933701888,2022-01-01-17:40:40,10.1.1.2,172,-0.020,-0.020,-0.020,0.000,0.000,0.000
1641058841131098880,2022-01-01-17:40:41,10.1.1.2,168,-0.010,-0.010,-0.010,0.000,0.000,0.000
1641058841351485952,2022-01-01-17:40:41,10.1.1.2,183,0.000,0.000,0.000,0.000,0.000,0.000
1641058841552126976,2022-01-01-17:40:41,10.1.1.2,183,-0.010,-0.010,-0.010,0.000,0.000,0.000
1641058841741347072,2022-01-01-17:40:41,10.1.1.2,171,-0.020,-0.020,-0.020,0.000,0.000,0.000
1641058842165684992,2022-01-01-17:40:42,10.1.1.2,189,-0.040,-0.040,-0.040,0.000,0.000,0.000
1641058842355726848,2022-01-01-17:40:42,10.1.1.2,175,-0.050,-0.050,-0.050,0.000,0.000,0.000
1641058842786405120,2022-01-01-17:40:42,10.1.1.2,200,-0.070,-0.070,-0.070,0.000,0.000,0.000
1641058843381274880,2022-01-01-17:40:43,10.1.1.2,192,-0.100,-0.100,-0.100,0.000,0.000,0.000
1641058843580553984,2022-01-01-17:40:43,10.1.1.2,191,-0.110,-0.110,-0.110,0.000,0.000,0.000
1641058843784226816,2022-01-01-17:40:43,10.1.1.2,193,-0.120,-0.120,-0.120,0.000,0.000,0.000
1641058843981435904,2022-01-01-17:40:43,10.1.1.2,190,-0.130,-0.130,-0.130,0.000,0.000,0.000
1641058844181432064,2022-01-01-17:40:44,10.1.1.2,189,-0.140,-0.140,-0.140,0.000,0.000,0.000
1641058844389189888,2022-01-01-17:40:44,10.1.1.2,196,-0.150,-0.150,-0.150,0.000,0.000,0.000
1641058844583276032,2022-01-01-17:40:44,10.1.1.2,189,-0.160,-0.160,-0.160,0.000,0.000,0.000
1641058844782723840,2022-01-01-17:40:44,10.1.1.2,187,-0.170,-0.170,-0.170,0.000,0.000,0.000
1641058844982729984,2022-01-01-17:40:44,10.1.1.2,187,-0.180,-0.180,-0.180,0.000,0.000,0.000
1641058845185444096,2022-01-01-17:40:45,10.1.1.2,188,-0.190,-0.190,-0.190,0.000,0.000,0.000
1641058845398138112,2022-01-01-17:40:45,10.1.1.2,200,-0.200,-0.200,-0.200,0.000,0.000,0.000
1641058845580431872,2022-01-01-17:40:45,10.1.1.2,181,-0.210,-0.210,-0.210,0.000,0.000,0.000
1641058845783233792,2022-01-01-17:40:45,10.1.1.2,183,-0.220,-0.220,-0.220,0.000,0.000,0.000
1641058845981889024,2022-01-01-17:40:45,10.1.1.2,181,-0.230,-0.230,-0.230,0.000,0.000,0.000
1641058846181485824,2022-01-01-17:40:46,10.1.1.2,179,-0.240,-0.240,-0.240,0.000,0.000,0.000
1641058846392044032,2022-01-01-17:40:46,10.1.1.2,188,-0.250,-0.250,-0.250,0.000,0.000,0.000
1641058846790825984,2022-01-01-17:40:46,10.1.1.2,185,-0.270,-0.270,-0.270,0.000,0.000,0.000
1641058846997736960,2022-01-01-17:40:46,10.1.1.2,188,-0.280,-0.280,-0.280,0.000,0.000,0.000
1641058847206098176,2022-01-01-17:40:47,10.1.1.2,195,-0.290,-0.290,-0.290,0.000,0.000,0.000
1641058847803293952,2022-01-01-17:40:47,10.1.1.2,185,-0.320,-0.320,-0.320,0.000,0.000,0.000
1641058848002170112,2022-01-01-17:40:48,10.1.1.2,180,-0.330,-0.330,-0.330,0.000,0.000,0.000
1641058848222444032,2022-01-01-17:40:48,10.1.1.2,197,-0.340,-0.340,-0.340,0.000,0.000,0.000
1641058849420723968,2022-01-01-17:40:49,10.1.1.2,186,-0.400,-0.400,-0.400,0.000,0.000,0.000
1641058849617440000,2022-01-01-17:40:49,10.1.1.2,181,-0.410,-0.410,-0.410,0.000,0.000,0.000
1641058849817784064,2022-01-01-17:40:49,10.1.1.2,178,-0.420,-0.420,-0.420,0.000,0.000,0.000
1641058850039316992,2022-01-01-17:40:50,10.1.1.2,198,-0.430,-0.430,-0.430,0.000,0.000,0.000
1641058850237806080,2022-01-01-17:40:50,10.1.1.2,195,-0.440,-0.440,-0.440,0.000,0.000,0.000
1641058850437402880,2022-01-01-17:40:50,10.1.1.2,194,-0.450,-0.450,-0.450,0.000,0.000,0.000
1641058850637767936,2022-01-01-17:40:50,10.1.1.2,193,-0.460,-0.460,-0.460,0.000,0.000,0.000
1641058851037107968,2022-01-01-17:40:51,10.1.1.2,190,-0.480,-0.480,-0.480,0.000,0.000,0.000
1641058851237099008,2022-01-01-17:40:51,10.1.1.2,184,-0.490,-0.490,-0.490,0.000,0.000,0.000
1641058851443033856,2022-01-01-17:40:51,10.1.1.2,189,-0.480,-0.480,-0.480,0.000,0.000,0.000
1641058851654105856,2022-01-01-17:40:51,10.1.1.2,198,-0.470,-0.470,-0.470,0.000,0.000,0.000
1641058851843646976,2022-01-01-17:40:51,10.1.1.2,187,-0.460,-0.460,-0.460,0.000,0.000,0.000
1641058852241920000,2022-01-01-17:40:52,10.1.1.2,179,-0.440,-0.440,-0.440,0.000,0.000,0.000
1641058852461452032,2022-01-01-17:40:52,10.1.1.2,188,-0.430,-0.430,-0.430,0.000,0.000,0.000
1641058852668111104,2022-01-01-17:40:52,10.1.1.2,194,-0.420,-0.420,-0.420,0.000,0.000,0.000
1641058852865193984,2022-01-01-17:40:52,10.1.1.2,190,-0.410,-0.410,-0.410,0.000,0.000,0.000
1641058853056258048,2022-01-01-17:40:53,10.1.1.2,180,-0.400,-0.400,-0.400,0.000,0.000,0.000
1641058853257797120,2022-01-01-17:40:53,10.1.1.2,180,-0.390,-0.390,-0.390,0.000,0.000,0.000
1641058853661698048,2022-01-01-17:40:53,10.1.1.2,180,-0.370,-0.370,-0.370,0.000,0.000,0.000
1641058853874268928,2022-01-01-17:40:53,10.1.1.2,192,-0.360,-0.360,-0.360,0.000,0.000,0.000
1641058854065027840,2022-01-01-17:40:54,10.1.1.2,181,-0.350,-0.350,-0.350,0.000,0.000,0.000
1641058854469812992,2022-01-01-17:40:54,10.1.1.2,183,-0.330,-0.330,-0.330,0.000,0.000,0.000
1641058854682609152,2022-01-01-17:40:54,10.1.1.2,192,-0.320,-0.320,-0.320,0.000,0.000,0.000
1641058854882571008,2022-01-01-17:40:54,10.1.1.2,191,-0.310,-0.310,-0.310,0.000,0.000,0.000
1641058855087774976,2022-01-01-17:40:55,10.1.1.2,196,-0.300,-0.300,-0.300,0.000,0.000,0.000
1641058855288124928,2022-01-01-17:40:55,10.1.1.2,195,-0.290,-0.290,-0.290,0.000,0.000,0.000
1641058855488528896,2022-01-01-17:40:55,10.1.1.2,194,-0.280,-0.280,-0.280,0.000,0.000,0.000
1641058855683186176,2022-01-01-17:40:55,10.1.1.2,188,-0.270,-0.270,-0.270,0.000,0.000,0.000
1641058855894740992,2022-01-01-17:40:55,10.1.1.2,198,-0.260,-0.260,-0.260,0.000,0.000,0.000
1641058856071356160,2022-01-01-17:40:56,10.1.1.2,174,-0.250,-0.250,-0.250,0.000,0.000,0.000
1641058856281007104,2022-01-01-17:40:56,10.1.1.2,182,-0.240,-0.240,-0.240,0.000,0.000,0.000
1641058856481081088,2022-01-01-17:40:56,10.1.1.2,179,-0.230,-0.230,-0.230,0.000,0.000,0.000
1641058856681349888,2022-01-01-17:40:56,10.1.1.2,174,-0.220,-0.220,-0.220,0.000,0.000,0.000
1641058856900562944,2022-01-01-17:40:56,10.1.1.2,192,-0.210,-0.210,-0.210,0.000,0.000,0.000
1641058857293200128,2022-01-01-17:40:57,10.1.1.2,182,-0.190,-0.190,-0.190,0.000,0.000,0.000
1641058857494589184,2022-01-01-17:40:57,10.1.1.2,183,-0.180,-0.180,-0.180,0.000,0.000,0.000
1641058857700884992,2022-01-01-17:40:57,10.1.1.2,187,-0.170,-0.170,-0.170,0.000,0.000,0.000
1641058857893718016,2022-01-01-17:40:57,10.1.1.2,179,-0.160,-0.160,-0.160,0.000,0.000,0.000
1641058858094110976,2022-01-01-17:40:58,10.1.1.2,177,-0.150,-0.150,-0.150,0.000,0.000,0.000
1641058858294008064,2022-01-01-17:40:58,10.1.1.2,176,-0.140,-0.140,-0.140,0.000,0.000,0.000
1641058858513715968,2022-01-01-17:40:58,10.1.1.2,189,-0.130,-0.130,-0.130,0.000,0.000,0.000
1641058858722208000,2022-01-01-17:40:58,10.1.1.2,196,-0.120,-0.120,-0.120,0.000,0.000,0.000
1641058859092633088,2022-01-01-17:40:59,10.1.1.2,164,-0.100,-0.100,-0.100,0.000,0.000,0.000
1641058859310007040,2022-01-01-17:40:59,10.1.1.2,180,-0.090,-0.090,-0.090,0.000,0.000,0.000
1641058859521935872,2022-01-01-17:40:59,10.1.1.2,191,-0.080,-0.080,-0.080,0.000,0.000,0.000
1641058859924091136,2022-01-01-17:40:59,10.1.1.2,190,-0.060,-0.060,-0.060,0.000,0.000,0.000
1641058860305341952,2022-01-01-17:41:00,10.1.1.2,168,-0.040,-0.040,-0.040,0.000,0.000,0.000
1641058860516439040,2022-01-01-17:41:00,10.1.1.2,177,-0.030,-0.030,-0.030,0.000,0.000,0.000
1641058860714694912,2022-01-01-17:41:00,10.1.1.2,176,-0.020,-0.020,-0.020,0.000,0.000,0.000
1641058860914524928,2022-01-01-17:41:00,10.1.1.2,175,-0.010,-0.010,-0.010,0.000,0.000,0.000
1641058861114153984,2022-01-01-17:41:01,10.1.1.2,173,0.000,0.000,0.000,0.000,0.000,0.000
1641058861314027008,2022-01-01-17:41:01,10.1.1.2,172,-0.010,-0.010,-0.010,0.000,0.000,0.000
1641058861513325056,2022-01-01-17:41:01,10.1.1.2,170,-0.020,-0.020,-0.020,0.000,0.000,0.000
1641058861713310976,2022-01-01-17:41:01,10.1.1.2,169,-0.030,-0.030,-0.030,0.000,0.000,0.000
1641058861912570112,2022-01-01-17:41:01,10.1.1.2,167,-0.040,-0.040,-0.040,0.000,0.000,0.000
1641058862121696000,2022-01-01-17:41:02,10.1.1.2,176,-0.050,-0.050,-0.050,0.000,0.000,0.000
1641058862332210176,2022-01-01-17:41:02,10.1.1.2,184,-0.060,-0.060,-0.060,0.000,0.000,0.000
1641058862532180992,2022-01-01-17:41:02,10.1.1.2,181,-0.070,-0.070,-0.070,0.000,0.000,0.000
1641058862922875904,2022-01-01-17:41:02,10.1.1.2,166,-0.090,-0.090,-0.090,0.000,0.000,0.000
1641058863135921920,2022-01-01-17:41:03,10.1.1.2,178,-0.100,-0.100,-0.100,0.000,0.000,0.000
1641058863331798016,2022-01-01-17:41:03,10.1.1.2,171,-0.110,-0.110,-0.110,0.000,0.000,0.000
1641058863532075776,2022-01-01-17:41:03,10.1.1.2,170,-0.120,-0.120,-0.120,0.000,0.000,0.000
1641058863733073920,2022-01-01-17:41:03,10.1.1.2,170,-0.130,-0.130,-0.130,0.000,0.000,0.000
1641058863935527168,2022-01-01-17:41:03,10.1.1.2,171,-0.140,-0.140,-0.140,0.000,0.000,0.000
1641058864131136768,2022-01-01-17:41:04,10.1.1.2,164,-0.150,-0.150,-0.150,0.000,0.000,0.000
1641058864350889984,2022-01-01-17:41:04,10.1.1.2,182,-0.160,-0.160,-0.160,0.000,0.000,0.000
1641058864550200064,2022-01-01-17:41:04,10.1.1.2,180,-0.170,-0.170,-0.170,0.000,0.000,0.000
1641058864750946048,2022-01-01-17:41:04,10.1.1.2,179,-0.180,-0.180,-0.180,0.000,0.000,0.000
1641058864950073856,2022-01-01-17:41:04,10.1.1.2,177,-0.190,-0.190,-0.190,0.000,0.000,0.000
1641058865149385984,2022-01-01-17:41:05,10.1.1.2,174,-0.200,-0.200,-0.200,0.000,0.000,0.000
1641058865349586944,2022-01-01-17:41:05,10.1.1.2,173,-0.210,-0.210,-0.210,0.000,0.000,0.000
1641058865548791040,2022-01-01-17:41:05,10.1.1.2,172,-0.220,-0.220,-0.220,0.000,0.000,0.000
1641058865747301120,2022-01-01-17:41:05,10.1.1.2,169,-0.230,-0.230,-0.230,0.000,0.000,0.000
1641058865968625152,2022-01-01-17:41:05,10.1.1.2,189,-0.240,-0.240,-0.240,0.000,0.000,0.000
1641058866175173120,2022-01-01-17:41:06,10.1.1.2,195,-0.250,-0.250,-0.250,0.000,0.000,0.000
1641058866557692160,2022-01-01-17:41:06,10.1.1.2,175,-0.270,-0.270,-0.270,0.000,0.000,0.000
1641058866949374976,2022-01-01-17:41:06,10.1.1.2,165,-0.290,-0.290,-0.290,0.000,0.000,0.000
1641058867166169856,2022-01-01-17:41:07,10.1.1.2,181,-0.300,-0.300,-0.300,0.000,0.000,0.000
1641058867346286080,2022-01-01-17:41:07,10.1.1.2,160,-0.310,-0.310,-0.310,0.000,0.000,0.000
1641058867387436032,2022-01-01-17:41:07,10.1.1.2,-1,-0.310,-0.310,-0.310,0.000,0.000,0.000
1641058867756743936,2022-01-01-17:41:07,10.1.1.2,169,-0.330,-0.330,-0.330,0.000,0.000,0.000
1641058867946052096,2022-01-01-17:41:07,10.1.1.2,158,-0.340,-0.340,-0.340,0.000,0.000,0.000
1641058868168442112,2022-01-01-17:41:08,10.1.1.2,176,-0.350,-0.350,-0.350,0.000,0.000,0.000
1641058868545568000,2022-01-01-17:41:08,10.1.1.2,147,-0.370,-0.370,-0.370,0.000,0.000,0.000
1641058868763844096,2022-01-01-17:41:08,10.1.1.2,164,-0.380,-0.380,-0.380,0.000,0.000,0.000
1641058869166033152,2022-01-01-17:41:09,10.1.1.2,164,-0.400,-0.400,-0.400,0.000,0.000,0.000
1641058869377053952,2022-01-01-17:41:09,10.1.1.2,173,-0.410,-0.410,-0.410,0.000,0.000,0.000
1641058869578510080,2022-01-01-17:41:09,10.1.1.2,174,-0.420,-0.420,-0.420,0.000,0.000,0.000
1641058869778844160,2022-01-01-17:41:09,10.1.1.2,170,-0.430,-0.430,-0.430,0.000,0.000,0.000
1641058870203224832,2022-01-01-17:41:10,10.1.1.2,193,-0.450,-0.450,-0.450,0.000,0.000,0.000
1641058870387164160,2022-01-01-17:41:10,10.1.1.2,175,-0.460,-0.460,-0.460,0.000,0.000,0.000
1641058870578202880,2022-01-01-17:41:10,10.1.1.2,166,-0.470,-0.470,-0.470,0.000,0.000,0.000
1641058870779973888,2022-01-01-17:41:10,10.1.1.2,166,-0.480,-0.480,-0.480,0.000,0.000,0.000
1641058870981568000,2022-01-01-17:41:10,10.1.1.2,167,-0.490,-0.490,-0.490,0.000,0.000,0.000
1641058871180779008,2022-01-01-17:41:11,10.1.1.2,165,-0.480,-0.480,-0.480,0.000,0.000,0.000
1641058871383730944,2022-01-01-17:41:11,10.1.1.2,167,-0.470,-0.470,-0.470,0.000,0.000,0.000
1641058871583239936,2022-01-01-17:41:11,10.1.1.2,166,-0.460,-0.460,-0.460,0.000,0.000,0.000
1641058871784254976,2022-01-01-17:41:11,10.1.1.2,164,-0.450,-0.450,-0.450,0.000,0.000,0.000
1641058872013655808,2022-01-01-17:41:12,10.1.1.2,188,-0.440,-0.440,-0.440,0.000,0.000,0.000
1641058872596615168,2022-01-01-17:41:12,10.1.1.2,166,-0.410,-0.410,-0.410,0.000,0.000,0.000
1641058872808648960,2022-01-01-17:41:12,10.1.1.2,177,-0.400,-0.400,-0.400,0.000,0.000,0.000
1641058873011488000,2022-01-01-17:41:13,10.1.1.2,179,-0.390,-0.390,-0.390,0.000,0.000,0.000
1641058873211335936,2022-01-01-17:41:13,10.1.1.2,177,-0.380,-0.380,-0.380,0.000,0.000,0.000
1641058873431632128,2022-01-01-17:41:13,10.1.1.2,195,-0.370,-0.370,-0.370,0.000,0.000,0.000
1641058873818274048,2022-01-01-17:41:13,10.1.1.2,178,-0.350,-0.350,-0.350,0.000,0.000,0.000
1641058874220900096,2022-01-01-17:41:14,10.1.1.2,175,-0.330,-0.330,-0.330,0.000,0.000,0.000
1641058874421936128,2022-01-01-17:41:14,10.1.1.2,176,-0.320,-0.320,-0.320,0.000,0.000,0.000
1641058874652178176,2022-01-01-17:41:14,10.1.1.2,200,-0.310,-0.310,-0.310,0.000,0.000,0.000
1641058875238406912,2022-01-01-17:41:15,10.1.1.2,175,-0.280,-0.280,-0.280,0.000,0.000,0.000
1641058875454117120,2022-01-01-17:41:15,10.1.1.2,191,-0.270,-0.270,-0.270,0.000,0.000,0.000
1641058875641065984,2022-01-01-17:41:15,10.1.1.2,177,-0.260,-0.260,-0.260,0.000,0.000,0.000
1641058875841275904,2022-01-01-17:41:15,10.1.1.2,177,-0.250,-0.250,-0.250,0.000,0.000,0.000
1641058876041382912,2022-01-01-17:41:16,10.1.1.2,176,-0.240,-0.240,-0.240,0.000,0.000,0.000
1641058876257280000,2022-01-01-17:41:16,10.1.1.2,191,-0.230,-0.230,-0.230,0.000,0.000,0.000
1641058876458317056,2022-01-01-17:41:16,10.1.1.2,191,-0.220,-0.220,-0.220,0.000,0.000,0.000
1641058876662786048,2022-01-01-17:41:16,10.1.1.2,194,-0.210,-0.210,-0.210,0.000,0.000,0.000
1641058877058993152,2022-01-01-17:41:17,10.1.1.2,188,-0.190,-0.190,-0.190,0.000,0.000,0.000
1641058877257838848,2022-01-01-17:41:17,10.1.1.2,185,-0.180,-0.180,-0.180,0.000,0.000,0.000
1641058877458443008,2022-01-01-17:41:17,10.1.1.2,184,-0.170,-0.170,-0.170,0.000,0.000,0.000
1641058878270525952,2022-01-01-17:41:18,10.1.1.2,182,-0.130,-0.130,-0.130,0.000,0.000,0.000
1641058878486674944,2022-01-01-17:41:18,10.1.1.2,196,-0.120,-0.120,-0.120,0.000,0.000,0.000
1641058878687895040,2022-01-01-17:41:18,10.1.1.2,196,-0.110,-0.110,-0.110,0.000,0.000,0.000
1641058879282938112,2022-01-01-17:41:19,10.1.1.2,184,-0.080,-0.080,-0.080,0.000,0.000,0.000
1641058879485774080,2022-01-01-17:41:19,10.1.1.2,186,-0.070,-0.070,-0.070,0.000,0.000,0.000
1641058879697897984,2022-01-01-17:41:19,10.1.1.2,197,-0.060,-0.060,-0.060,0.000,0.000,0.000
1641058879902033920,2022-01-01-17:41:19,10.1.1.2,200,-0.050,-0.050,-0.050,0.000,0.000,0.000
1641058880290204928,2022-01-01-17:41:20,10.1.1.2,186,-0.030,-0.030,-0.030,0.000,0.000,0.000
1641058880501812992,2022-01-01-17:41:20,10.1.1.2,197,-0.020,-0.020,-0.020,0.000,0.000,0.000
1641058881099226112,2022-01-01-17:41:21,10.1.1.2,186,-0.010,-0.010,-0.010,0.000,0.000,0.000
1641058881292674048,2022-01-01-17:41:21,10.1.1.2,179,-0.020,-0.020,-0.020,0.000,0.000,0.000
1641058881499062016,2022-01-01-17:41:21,10.1.1.2,184,-0.030,-0.030,-0.030,0.000,0.000,0.000
1641058881698363136,2022-01-01-17:41:21,10.1.1.2,183,-0.040,-0.040,-0.040,0.000,0.000,0.000
1641058881899120128,2022-01-01-17:41:21,10.1.1.2,182,-0.050,-0.050,-0.050,0.000,0.000,0.000
1641058882099087872,2022-01-01-17:41:22,10.1.1.2,180,-0.060,-0.060,-0.060,0.000,0.000,0.000
1641058882304569088,2022-01-01-17:41:22,10.1.1.2,184,-0.070,-0.070,-0.070,0.000,0.000,0.000
1641058882518084096,2022-01-01-17:41:22,10.1.1.2,196,-0.080,-0.080,-0.080,0.000,0.000,0.000
1641058882718231808,2022-01-01-17:41:22,10.1.1.2,195,-0.090,-0.090,-0.090,0.000,0.000,0.000
1641058882909827840,2022-01-01-17:41:22,10.1.1.2,186,-0.100,-0.100,-0.100,0.000,0.000,0.000
1641058883108523008,2022-01-01-17:41:23,10.1.1.2,184,-0.110,-0.110,-0.110,0.000,0.000,0.000
1641058883523168000,2022-01-01-17:41:23,10.1.1.2,193,-0.130,-0.130,-0.130,0.000,0.000,0.000
1641058883721785088,2022-01-01-17:41:23,10.1.1.2,191,-0.140,-0.140,-0.140,0.000,0.000,0.000
1641058883922016000,2022-01-01-17:41:23,10.1.1.2,190,-0.150,-0.150,-0.150,0.000,0.000,0.000
1641058884122140928,2022-01-01-17:41:24,10.1.1.2,189,-0.160,-0.160,-0.160,0.000,0.000,0.000
1641058884322069760,2022-01-01-17:41:24,10.1.1.2,187,-0.170,-0.170,-0.170,0.000,0.000,0.000
1641058884528753920,2022-01-01-17:41:24,10.1.1.2,193,-0.180,-0.180,-0.180,0.000,0.000,0.000
1641058884730528000,2022-01-01-17:41:24,10.1.1.2,190,-0.190,-0.190,-0.190,0.000,0.000,0.000
1641058884930031104,2022-01-01-17:41:24,10.1.1.2,187,-0.200,-0.200,-0.200,0.000,0.000,0.000
1641058885122312960,2022-01-01-17:41:25,10.1.1.2,178,-0.210,-0.210,-0.210,0.000,0.000,0.000
1641058885321871104,2022-01-01-17:41:25,10.1.1.2,176,-0.220,-0.220,-0.220,0.000,0.000,0.000
1641058885541552128,2022-01-01-17:41:25,10.1.1.2,195,-0.230,-0.230,-0.230,0.000,0.000,0.000
1641058885738689792,2022-01-01-17:41:25,10.1.1.2,192,-0.240,-0.240,-0.240,0.000,0.000,0.000
1641058885938373120,2022-01-01-17:41:25,10.1.1.2,191,-0.250,-0.250,-0.250,0.000,0.000,0.000
1641058886137844992,2022-01-01-17:41:26,10.1.1.2,188,-0.260,-0.260,-0.260,0.000,0.000,0.000
1641058886338458112,2022-01-01-17:41:26,10.1.1.2,187,-0.270,-0.270,-0.270,0.000,0.000,0.000
1641058886538158848,2022-01-01-17:41:26,10.1.1.2,185,-0.280,-0.280,-0.280,0.000,0.000,0.000
1641058886737225984,2022-01-01-17:41:26,10.1.1.2,180,-0.290,-0.290,-0.290,0.000,0.000,0.000
1641058886946767104,2022-01-01-17:41:26,10.1.1.2,187,-0.300,-0.300,-0.300,0.000,0.000,0.000
1641058887137495040,2022-01-01-17:41:27,10.1.1.2,177,-0.310,-0.310,-0.310,0.000,0.000,0.000
1641058887337054976,2022-01-01-17:41:27,10.1.1.2,175,-0.320,-0.320,-0.320,0.000,0.000,0.000
1641058887554057984,2022-01-01-17:41:27,10.1.1.2,191,-0.330,-0.330,-0.330,0.000,0.000,0.000
1641058887959053056,2022-01-01-17:41:27,10.1.1.2,193,-0.350,-0.350,-0.350,0.000,0.000,0.000
1641058888153229056,2022-01-01-17:41:28,10.1.1.2,185,-0.360,-0.360,-0.360,0.000,0.000,0.000
1641058888358620928,2022-01-01-17:41:28,10.1.1.2,189,-0.370,-0.370,-0.370,0.000,0.000,0.000
1641058888558906112,2022-01-01-17:41:28,10.1.1.2,183,-0.380,-0.380,-0.380,0.000,0.000,0.000
1641058888759116032,2022-01-01-17:41:28,10.1.1.2,182,-0.390,-0.390,-0.390,0.000,0.000,0.000
1641058888959196928,2022-01-01-17:41:28,10.1.1.2,181,-0.400,-0.400,-0.400,0.000,0.000,0.000
1641058889158662912,2022-01-01-17:41:29,10.1.1.2,177,-0.410,-0.410,-0.410,0.000,0.000,0.000
1641058889359920128,2022-01-01-17:41:29,10.1.1.2,175,-0.420,-0.420,-0.420,0.000,0.000,0.000
1641058889558820096,2022-01-01-17:41:29,10.1.1.2,175,-0.430,-0.430,-0.430,0.000,0.000,0.000
1641058889774379008,2022-01-01-17:41:29,10.1.1.2,189,-0.440,-0.440,-0.440,0.000,0.000,0.000
1641058889979977984,2022-01-01-17:41:29,10.1.1.2,194,-0.450,-0.450,-0.450,0.000,0.000,0.000
1641058890162082816,2022-01-01-17:41:30,10.1.1.2,175,-0.460,-0.460,-0.460,0.000,0.000,0.000
1641058890787195904,2022-01-01-17:41:30,10.1.1.2,187,-0.490,-0.490,-0.490,0.000,0.000,0.000
1641058891183002880,2022-01-01-17:41:31,10.1.1.2,174,-0.470,-0.470,-0.470,0.000,0.000,0.000
1641058891392697088,2022-01-01-17:41:31,10.1.1.2,182,-0.460,-0.460,-0.460,0.000,0.000,0.000
1641058891580243968,2022-01-01-17:41:31,10.1.1.2,169,-0.450,-0.450,-0.450,0.000,0.000,0.000
1641058891991468032,2022-01-01-17:41:31,10.1.1.2,177,-0.430,-0.430,-0.430,0.000,0.000,0.000
1641058892191474944,2022-01-01-17:41:32,10.1.1.2,175,-0.420,-0.420,-0.420,0.000,0.000,0.000
1641058892390206208,2022-01-01-17:41:32,10.1.1.2,173,-0.410,-0.410,-0.410,0.000,0.000,0.000
1641058892590445056,2022-01-01-17:41:32,10.1.1.2,171,-0.400,-0.400,-0.400,0.000,0.000,0.000
1641058892789942016,2022-01-01-17:41:32,10.1.1.2,170,-0.390,-0.390,-0.390,0.000,0.000,0.000
1641058892990892800,2022-01-01-17:41:32,10.1.1.2,170,-0.380,-0.380,-0.380,0.000,0.000,0.000
1641058893219793920,2022-01-01-17:41:33,10.1.1.2,197,-0.370,-0.370,-0.370,0.000,0.000,0.000
1641058893409549824,2022-01-01-17:41:33,10.1.1.2,183,-0.360,-0.360,-0.360,0.000,0.000,0.000
1641058893614571008,2022-01-01-17:41:33,10.1.1.2,187,-0.350,-0.350,-0.350,0.000,0.000,0.000
1641058894004770048,2022-01-01-17:41:34,10.1.1.2,176,-0.330,-0.330,-0.330,0.000,0.000,0.000
1641058894213680896,2022-01-01-17:41:34,10.1.1.2,184,-0.320,-0.320,-0.320,0.000,0.000,0.000
1641058894423144192,2022-01-01-17:41:34,10.1.1.2,191,-0.310,-0.310,-0.310,0.000,0.000,0.000
1641058894612685824,2022-01-01-17:41:34,10.1.1.2,179,-0.300,-0.300,-0.300,0.000,0.000,0.000
1641058894813378048,2022-01-01-17:41:34,10.1.1.2,179,-0.290,-0.290,-0.290,0.000,0.000,0.000
1641058895012828160,2022-01-01-17:41:35,10.1.1.2,178,-0.280,-0.280,-0.280,0.000,0.000,0.000
1641058895220014080,2022-01-01-17:41:35,10.1.1.2,184,-0.270,-0.270,-0.270,0.000,0.000,0.000
1641058895797244160,2022-01-01-17:41:35,10.1.1.2,158,-0.240,-0.240,-0.240,0.000,0.000,0.000
1641058896412328960,2022-01-01-17:41:36,10.1.1.2,169,-0.210,-0.210,-0.210,0.000,0.000,0.000
1641058897026167040,2022-01-01-17:41:37,10.1.1.2,179,-0.180,-0.180,-0.180,0.000,0.000,0.000
1641058897234227968,2022-01-01-17:41:37,10.1.1.2,186,-0.170,-0.170,-0.170,0.000,0.000,0.000
1641058897443363072,2022-01-01-17:41:37,10.1.1.2,194,-0.160,-0.160,-0.160,0.000,0.000,0.000
1641058897625050112,2022-01-01-17:41:37,10.1.1.2,174,-0.150,-0.150,-0.150,0.000,0.000,0.000
1641058897824538112,2022-01-01-17:41:37,10.1.1.2,172,-0.140,-0.140,-0.140,0.000,0.000,0.000
1641058898028574976,2022-01-01-17:41:38,10.1.1.2,176,-0.130,-0.130,-0.130,0.000,0.000,0.000
1641058898228313856,2022-01-01-17:41:38,10.1.1.2,171,-0.120,-0.120,-0.120,0.000,0.000,0.000
1641058898432193024,2022-01-01-17:41:38,10.1.1.2,169,-0.110,-0.110,-0.110,0.000,0.000,0.000
1641058898642530816,2022-01-01-17:41:38,10.1.1.2,177,-0.100,-0.100,-0.100,0.000,0.000,0.000
1641058898846198016,2022-01-01-17:41:38,10.1.1.2,175,-0.090,-0.090,-0.090,0.000,0.000,0.000
1641058899043271936,2022-01-01-17:41:39,10.1.1.2,171,-0.080,-0.080,-0.080,0.000,0.000,0.000
1641058899251100160,2022-01-01-17:41:39,10.1.1.2,176,-0.070,-0.070,-0.070,0.000,0.000,0.000
1641058899440968960,2022-01-01-17:41:39,10.1.1.2,165,-0.060,-0.060,-0.060,0.000,0.000,0.000
1641058899654153984,2022-01-01-17:41:39,10.1.1.2,177,-0.050,-0.050,-0.050,0.000,0.000,0.000
1641058899843204096,2022-01-01-17:41:39,10.1.1.2,164,-0.040,-0.040,-0.040,0.000,0.000,0.000
1641058900072963072,2022-01-01-17:41:40,10.1.1.2,194,-0.030,-0.030,-0.030,0.000,0.000,0.000
1641058900261105920,2022-01-01-17:41:40,10.1.1.2,182,-0.020,-0.020,-0.020,0.000,0.000,0.000
1641058900440040960,2022-01-01-17:41:40,10.1.1.2,160,-0.010,-0.010,-0.010,0.000,0.000,0.000
1641058900639784960,2022-01-01-17:41:40,10.1.1.2,158,0.000,0.000,0.000,0.000,0.000,0.000
1641058900848788992,2022-01-01-17:41:40,10.1.1.2,165,-0.010,-0.010,-0.010,0.000,0.000,0.000
1641058901058772992,2022-01-01-17:41:41,10.1.1.2,174,-0.020,-0.020,-0.020,0.000,0.000,0.000
1641058901258950912,2022-01-01-17:41:41,10.1.1.2,173,-0.030,-0.030,-0.030,0.000,0.000,0.000
1641058901464262912,2022-01-01-17:41:41,10.1.1.2,177,-0.040,-0.040,-0.040,0.000,0.000,0.000
1641058901664880896,2022-01-01-17:41:41,10.1.1.2,176,-0.050,-0.050,-0.050,0.000,0.000,0.000
1641058901857659136,2022-01-01-17:41:41,10.1.1.2,169,-0.060,-0.060,-0.060,0.000,0.000,0.000
1641058902058804992,2022-01-01-17:41:42,10.1.1.2,170,-0.070,-0.070,-0.070,0.000,0.000,0.000
1641058902259602944,2022-01-01-17:41:42,10.1.1.2,169,-0.080,-0.080,-0.080,0.000,0.000,0.000
1641058902460346880,2022-01-01-17:41:42,10.1.1.2,169,-0.090,-0.090,-0.090,0.000,0.000,0.000
1641058902669338112,2022-01-01-17:41:42,10.1.1.2,177,-0.100,-0.100,-0.100,0.000,0.000,0.000
1641058903067652096,2022-01-01-17:41:43,10.1.1.2,172,-0.120,-0.120,-0.120,0.000,0.000,0.000
1641058903272207104,2022-01-01-17:41:43,10.1.1.2,176,-0.130,-0.130,-0.130,0.000,0.000,0.000
1641058903489000192,2022-01-01-17:41:43,10.1.1.2,191,-0.140,-0.140,-0.140,0.000,0.000,0.000
1641058903684700928,2022-01-01-17:41:43,10.1.1.2,184,-0.150,-0.150,-0.150,0.000,0.000,0.000
1641058903888279040,2022-01-01-17:41:43,10.1.1.2,185,-0.160,-0.160,-0.160,0.000,0.000,0.000
1641058904071547136,2022-01-01-17:41:44,10.1.1.2,166,-0.170,-0.170,-0.170,0.000,0.000,0.000
1641058904280931072,2022-01-01-17:41:44,10.1.1.2,174,-0.180,-0.180,-0.180,0.000,0.000,0.000
1641058905720782080,2022-01-01-17:41:45,10.1.1.2,196,-0.250,-0.250,-0.250,0.000,0.000,0.000
1641058906512780032,2022-01-01-17:41:46,10.1.1.2,179,-0.290,-0.290,-0.290,0.000,0.000,0.000
1641058906720208896,2022-01-01-17:41:46,10.1.1.2,182,-0.300,-0.300,-0.300,0.000,0.000,0.000
1641058906920504064,2022-01-01-17:41:46,10.1.1.2,181,-0.310,-0.310,-0.310,0.000,0.000,0.000
1641058907529094912,2022-01-01-17:41:47,10.1.1.2,183,-0.340,-0.340,-0.340,0.000,0.000,0.000
1641058907740364032,2022-01-01-17:41:47,10.1.1.2,192,-0.350,-0.350,-0.350,0.000,0.000,0.000
1641058907939339008,2022-01-01-17:41:47,10.1.1.2,189,-0.360,-0.360,-0.360,0.000,0.000,0.000
1641058908140392192,2022-01-01-17:41:48,10.1.1.2,189,-0.370,-0.370,-0.370,0.000,0.000,0.000
1641058908340670208,2022-01-01-17:41:48,10.1.1.2,189,-0.380,-0.380,-0.380,0.000,0.000,0.000
1641058908541042176,2022-01-01-17:41:48,10.1.1.2,186,-0.390,-0.390,-0.390,0.000,0.000,0.000
1641058908740699904,2022-01-01-17:41:48,10.1.1.2,182,-0.400,-0.400,-0.400,0.000,0.000,0.000
1641058908950313216,2022-01-01-17:41:48,10.1.1.2,189,-0.410,-0.410,-0.410,0.000,0.000,0.000
