FedericoMungari/DigitalTwin_service/02_LTEScenario/Output/Output_script/script_ROSAPI_output_robots12_freq0_10.txt.csv
timestamp,node,latency,joint_1,joint_2,joint_3,joint_4,joint_5,joint_6
1640079154555869184,"2021-12-21,09:32:34",10.1.1.11,15644,0.000,0.000,0.000,0.000,0.000,0.000
1640079156021125120,"2021-12-21,09:32:36",10.1.1.11,404,-0.010,-0.010,-0.010,0.000,0.000,0.000
1640079156034366976,"2021-12-21,09:32:36",10.1.1.11,0.417402982711792,-0.010,-0.010,-0.010,0.000,0.000,0.000
1640079156431304960,"2021-12-21,09:32:36",10.1.1.11,393,-0.020,-0.020,-0.020,0.000,0.000,0.000
1640079156730216960,"2021-12-21,09:32:36",10.1.1.11,0.5180628299713135,-0.020,-0.020,-0.020,0.000,0.000,0.000
1640079157119680000,"2021-12-21,09:32:37",10.1.1.11,377,-0.030,-0.030,-0.030,0.000,0.000,0.000
1640079157136683008,"2021-12-21,09:32:37",10.1.1.11,0.40428805351257324,-0.030,-0.030,-0.030,0.000,0.000,0.000
1640079157572147968,"2021-12-21,09:32:37",10.1.1.11,433,-0.040,-0.040,-0.040,0.000,0.000,0.000
1640079157600289024,"2021-12-21,09:32:37",10.1.1.11,0.4619479179382324,-0.040,-0.040,-0.040,0.000,0.000,0.000
1640079157991580928,"2021-12-21,09:32:37",10.1.1.11,388,-0.050,-0.050,-0.050,0.000,0.000,0.000
1640079158015904000,"2021-12-21,09:32:38",10.1.1.11,0.41313886642456055,-0.050,-0.050,-0.050,0.000,0.000,0.000
1640079158441543168,"2021-12-21,09:32:38",10.1.1.11,421,-0.060,-0.060,-0.060,0.000,0.000,0.000
1640079158479772160,"2021-12-21,09:32:38",10.1.1.11,0.46003007888793945,-0.060,-0.060,-0.060,0.000,0.000,0.000
1640079158873708032,"2021-12-21,09:32:38",10.1.1.11,391,-0.070,-0.070,-0.070,0.000,0.000,0.000
1640079158945838848,"2021-12-21,09:32:38",10.1.1.11,0.4633791446685791,-0.070,-0.070,-0.070,0.000,0.000,0.000
1640079159351855104,"2021-12-21,09:32:39",10.1.1.11,403,-0.080,-0.080,-0.080,0.000,0.000,0.000
1640079159398867968,"2021-12-21,09:32:39",10.1.1.11,0.44928789138793945,-0.080,-0.080,-0.080,0.000,0.000,0.000
1640079159781584896,"2021-12-21,09:32:39",10.1.1.11,380,-0.090,-0.090,-0.090,0.000,0.000,0.000
1640079159817176064,"2021-12-21,09:32:39",10.1.1.11,0.4162569046020508,-0.090,-0.090,-0.090,0.000,0.000,0.000
1640079160160228096,"2021-12-21,09:32:40",10.1.1.11,340,-0.100,-0.100,-0.100,0.000,0.000,0.000
1640079160195708160,"2021-12-21,09:32:40",10.1.1.11,0.37621402740478516,-0.100,-0.100,-0.100,0.000,0.000,0.000
1640079160590578176,"2021-12-21,09:32:40",10.1.1.11,393,-0.110,-0.110,-0.110,0.000,0.000,0.000
1640079160652282112,"2021-12-21,09:32:40",10.1.1.11,0.4552459716796875,-0.110,-0.110,-0.110,0.000,0.000,0.000
1640079161050512128,"2021-12-21,09:32:41",10.1.1.11,396,-0.120,-0.120,-0.120,0.000,0.000,0.000
1640079161083267072,"2021-12-21,09:32:41",10.1.1.11,0.4288921356201172,-0.120,-0.120,-0.120,0.000,0.000,0.000
1640079161539956992,"2021-12-21,09:32:41",10.1.1.11,447,-0.130,-0.130,-0.130,0.000,0.000,0.000
1640079161642846976,"2021-12-21,09:32:41",10.1.1.11,0.5503261089324951,-0.130,-0.130,-0.130,0.000,0.000,0.000
1640079162069602048,"2021-12-21,09:32:42",10.1.1.11,424,-0.140,-0.140,-0.140,0.000,0.000,0.000
1640079162108705024,"2021-12-21,09:32:42",10.1.1.11,0.46390295028686523,-0.140,-0.140,-0.140,0.000,0.000,0.000
1640079162509694208,"2021-12-21,09:32:42",10.1.1.11,398,-0.150,-0.150,-0.150,0.000,0.000,0.000
1640079162552968960,"2021-12-21,09:32:42",10.1.1.11,0.441723108291626,-0.150,-0.150,-0.150,0.000,0.000,0.000
1640079171671823104,"2021-12-21,09:32:51",10.1.1.11,8996,-0.160,-0.160,-0.160,0.000,0.000,0.000
1640079171680083968,"2021-12-21,09:32:51",10.1.1.11,9.125848054885864,-0.160,-0.160,-0.160,0.000,0.000,0.000
1640079172097276928,"2021-12-21,09:32:52",10.1.1.11,411,-0.170,-0.170,-0.170,0.000,0.000,0.000
1640079172157881856,"2021-12-21,09:32:52",10.1.1.11,0.47249484062194824,-0.170,-0.170,-0.170,0.000,0.000,0.000
1640079172596702976,"2021-12-21,09:32:52",10.1.1.11,436,-0.180,-0.180,-0.180,0.000,0.000,0.000
1640079172618063872,"2021-12-21,09:32:52",10.1.1.11,0.45769786834716797,-0.180,-0.180,-0.180,0.000,0.000,0.000
1640079172977139968,"2021-12-21,09:32:52",10.1.1.11,357,-0.190,-0.190,-0.190,0.000,0.000,0.000
1640079172978292992,"2021-12-21,09:32:52",10.1.1.11,0.35825514793395996,-0.190,-0.190,-0.190,0.000,0.000,0.000
1640079173396051968,"2021-12-21,09:32:53",10.1.1.11,416,-0.200,-0.200,-0.200,0.000,0.000,0.000
1640079173459376128,"2021-12-21,09:32:53",10.1.1.11,0.47948312759399414,-0.200,-0.200,-0.200,0.000,0.000,0.000
1640079173944811008,"2021-12-21,09:32:53",10.1.1.11,482,-0.210,-0.210,-0.210,0.000,0.000,0.000
1640079173952122880,"2021-12-21,09:32:53",10.1.1.11,0.4901847839355469,-0.210,-0.210,-0.210,0.000,0.000,0.000
1640079174354469888,"2021-12-21,09:32:54",10.1.1.11,398,-0.220,-0.220,-0.220,0.000,0.000,0.000
1640079174392816896,"2021-12-21,09:32:54",10.1.1.11,0.4370899200439453,-0.220,-0.220,-0.220,0.000,0.000,0.000
1640079174756262912,"2021-12-21,09:32:54",10.1.1.11,361,-0.230,-0.230,-0.230,0.000,0.000,0.000
1640079174797859840,"2021-12-21,09:32:54",10.1.1.11,0.40327000617980957,-0.230,-0.230,-0.230,0.000,0.000,0.000
1640079175313550080,"2021-12-21,09:32:55",10.1.1.11,503,-0.240,-0.240,-0.240,0.000,0.000,0.000
1640079175377433088,"2021-12-21,09:32:55",10.1.1.11,0.5676438808441162,-0.240,-0.240,-0.240,0.000,0.000,0.000
1640079175384197888,"2021-12-21,09:32:55",10.1.1.11,-7,-0.250,-0.250,-0.250,0.000,0.000,0.000
1640079175737943040,"2021-12-21,09:32:55",10.1.1.11,0.35750603675842285,-0.250,-0.250,-0.250,0.000,0.000,0.000
1640079176131066112,"2021-12-21,09:32:56",10.1.1.11,391,-0.260,-0.260,-0.260,0.000,0.000,0.000
1640079176138817024,"2021-12-21,09:32:56",10.1.1.11,0.39920902252197266,-0.260,-0.260,-0.260,0.000,0.000,0.000
1640079176591759872,"2021-12-21,09:32:56",10.1.1.11,451,-0.270,-0.270,-0.270,0.000,0.000,0.000
1640079177359635968,"2021-12-21,09:32:56",10.1.1.11,0.5274908542633057,-0.270,-0.270,-0.270,0.000,0.000,0.000
1640079177989216000,"2021-12-21,09:32:57",10.1.1.11,605,-0.280,-0.280,-0.280,0.000,0.000,0.000
1640079178044754944,"2021-12-21,09:32:58",10.1.1.11,0.660912036895752,-0.280,-0.280,-0.280,0.000,0.000,0.000
1640079178459228928,"2021-12-21,09:32:58",10.1.1.11,412,-0.290,-0.290,-0.290,0.000,0.000,0.000
1640079178505611776,"2021-12-21,09:32:58",10.1.1.11,0.45928192138671875,-0.290,-0.290,-0.290,0.000,0.000,0.000
1640079179027878144,"2021-12-21,09:32:59",10.1.1.11,0.5203940868377686,-0.300,-0.300,-0.300,0.000,0.000,0.000
1640079179059463936,"2021-12-21,09:32:59",10.1.1.11,551,-0.300,-0.300,-0.300,0.000,0.000,0.000
1640079179481646080,"2021-12-21,09:32:59",10.1.1.11,413,-0.310,-0.310,-0.310,0.000,0.000,0.000
1640079179545312000,"2021-12-21,09:32:59",10.1.1.11,0.4711439609527588,-0.310,-0.310,-0.310,0.000,0.000,0.000
1640079180215696128,"2021-12-21,09:33:00",10.1.1.11,665,-0.320,-0.320,-0.320,0.000,0.000,0.000
1640079180263461120,"2021-12-21,09:33:00",10.1.1.11,0.7131638526916504,-0.320,-0.320,-0.320,0.000,0.000,0.000
1640079181448307968,"2021-12-21,09:33:00",10.1.1.11,0.513556957244873,-0.330,-0.330,-0.330,0.000,0.000,0.000
1640079181532421120,"2021-12-21,09:33:01",10.1.1.11,1184,-0.330,-0.330,-0.330,0.000,0.000,0.000
1640079182005049088,"2021-12-21,09:33:02",10.1.1.11,467,-0.340,-0.340,-0.340,0.000,0.000,0.000
1640079182023422976,"2021-12-21,09:33:02",10.1.1.11,0.4861490726470947,-0.340,-0.340,-0.340,0.000,0.000,0.000
1640079182486240000,"2021-12-21,09:33:02",10.1.1.11,451,-0.350,-0.350,-0.350,0.000,0.000,0.000
1640079182533597952,"2021-12-21,09:33:02",10.1.1.11,0.4993100166320801,-0.350,-0.350,-0.350,0.000,0.000,0.000
1640079182979190016,"2021-12-21,09:33:02",10.1.1.11,442,-0.360,-0.360,-0.360,0.000,0.000,0.000
1640079183034891008,"2021-12-21,09:33:03",10.1.1.11,0.49826502799987793,-0.360,-0.360,-0.360,0.000,0.000,0.000
1640079183491514880,"2021-12-21,09:33:03",10.1.1.11,454,-0.370,-0.370,-0.370,0.000,0.000,0.000
1640079183528237056,"2021-12-21,09:33:03",10.1.1.11,0.4919559955596924,-0.370,-0.370,-0.370,0.000,0.000,0.000
1640079183915826176,"2021-12-21,09:33:03",10.1.1.11,385,-0.380,-0.380,-0.380,0.000,0.000,0.000
1640079183961911040,"2021-12-21,09:33:03",10.1.1.11,0.42939209938049316,-0.380,-0.380,-0.380,0.000,0.000,0.000
1640079184594919936,"2021-12-21,09:33:04",10.1.1.11,600,-0.390,-0.390,-0.390,0.000,0.000,0.000
1640079184627838976,"2021-12-21,09:33:04",10.1.1.11,0.63395094871521,-0.390,-0.390,-0.390,0.000,0.000,0.000
1640079185106302976,"2021-12-21,09:33:05",10.1.1.11,476,-0.400,-0.400,-0.400,0.000,0.000,0.000
1640079185165460224,"2021-12-21,09:33:05",10.1.1.11,0.5358438491821289,-0.400,-0.400,-0.400,0.000,0.000,0.000
1640079185566894080,"2021-12-21,09:33:05",10.1.1.11,399,-0.410,-0.410,-0.410,0.000,0.000,0.000
1640079185614679040,"2021-12-21,09:33:05",10.1.1.11,0.44779491424560547,-0.410,-0.410,-0.410,0.000,0.000,0.000
1640079186037828096,"2021-12-21,09:33:06",10.1.1.11,419,-0.420,-0.420,-0.420,0.000,0.000,0.000
1640079186083367168,"2021-12-21,09:33:06",10.1.1.11,0.4651660919189453,-0.420,-0.420,-0.420,0.000,0.000,0.000
1640079186558532096,"2021-12-21,09:33:06",10.1.1.11,473,-0.430,-0.430,-0.430,0.000,0.000,0.000
1640079186628271104,"2021-12-21,09:33:06",10.1.1.11,0.543536901473999,-0.430,-0.430,-0.430,0.000,0.000,0.000
1640079187102236160,"2021-12-21,09:33:07",10.1.1.11,472,-0.440,-0.440,-0.440,0.000,0.000,0.000
1640079187155691008,"2021-12-21,09:33:07",10.1.1.11,0.5259079933166504,-0.440,-0.440,-0.440,0.000,0.000,0.000
1640079187710509056,"2021-12-21,09:33:07",10.1.1.11,547,-0.450,-0.450,-0.450,0.000,0.000,0.000
1640079187748625152,"2021-12-21,09:33:07",10.1.1.11,0.5862069129943848,-0.450,-0.450,-0.450,0.000,0.000,0.000
1640079188256622080,"2021-12-21,09:33:08",10.1.1.11,506,-0.460,-0.460,-0.460,0.000,0.000,0.000
1640079188263896064,"2021-12-21,09:33:08",10.1.1.11,0.5135810375213623,-0.460,-0.460,-0.460,0.000,0.000,0.000
1640079188792368896,"2021-12-21,09:33:08",10.1.1.11,526,-0.470,-0.470,-0.470,0.000,0.000,0.000
1640079188875124992,"2021-12-21,09:33:08",10.1.1.11,0.6094121932983398,-0.470,-0.470,-0.470,0.000,0.000,0.000
1640079189616833024,"2021-12-21,09:33:09",10.1.1.11,735,-0.480,-0.480,-0.480,0.000,0.000,0.000
1640079189656306944,"2021-12-21,09:33:09",10.1.1.11,0.7792210578918457,-0.480,-0.480,-0.480,0.000,0.000,0.000
1640079189993196032,"2021-12-21,09:33:09",10.1.1.11,335,-0.490,-0.490,-0.490,0.000,0.000,0.000
1640079190075064832,"2021-12-21,09:33:10",10.1.1.11,0.41727113723754883,-0.490,-0.490,-0.490,0.000,0.000,0.000
1640079190521563136,"2021-12-21,09:33:10",10.1.1.11,442,-0.480,-0.480,-0.480,0.000,0.000,0.000
1640079190574998016,"2021-12-21,09:33:10",10.1.1.11,0.4962019920349121,-0.480,-0.480,-0.480,0.000,0.000,0.000
1640079190969928960,"2021-12-21,09:33:10",10.1.1.11,393,-0.470,-0.470,-0.470,0.000,0.000,0.000
1640079191052700160,"2021-12-21,09:33:11",10.1.1.11,0.47632479667663574,-0.470,-0.470,-0.470,0.000,0.000,0.000
1640079191473620992,"2021-12-21,09:33:11",10.1.1.11,416,-0.460,-0.460,-0.460,0.000,0.000,0.000
1640079191503451136,"2021-12-21,09:33:11",10.1.1.11,0.4467451572418213,-0.460,-0.460,-0.460,0.000,0.000,0.000
1640079191933320960,"2021-12-21,09:33:11",10.1.1.11,426,-0.450,-0.450,-0.450,0.000,0.000,0.000
1640079192032983040,"2021-12-21,09:33:12",10.1.1.11,0.5263669490814209,-0.450,-0.450,-0.450,0.000,0.000,0.000
1640079192474155008,"2021-12-21,09:33:12",10.1.1.11,438,-0.440,-0.440,-0.440,0.000,0.000,0.000
1640079192566834944,"2021-12-21,09:33:12",10.1.1.11,0.5308620929718018,-0.440,-0.440,-0.440,0.000,0.000,0.000
1640079192963272960,"2021-12-21,09:33:12",10.1.1.11,394,-0.430,-0.430,-0.430,0.000,0.000,0.000
1640079193047416064,"2021-12-21,09:33:13",10.1.1.11,0.47882604598999023,-0.430,-0.430,-0.430,0.000,0.000,0.000
1640079193502672896,"2021-12-21,09:33:13",10.1.1.11,453,-0.420,-0.420,-0.420,0.000,0.000,0.000
1640079193558798080,"2021-12-21,09:33:13",10.1.1.11,0.5099709033966064,-0.420,-0.420,-0.420,0.000,0.000,0.000
1640079194073658880,"2021-12-21,09:33:14",10.1.1.11,0.5116970539093018,-0.410,-0.410,-0.410,0.000,0.000,0.000
1640079194074273024,"2021-12-21,09:33:14",10.1.1.11,512,-0.410,-0.410,-0.410,0.000,0.000,0.000
1640079194539347968,"2021-12-21,09:33:14",10.1.1.11,452,-0.400,-0.400,-0.400,0.000,0.000,0.000
1640079194599726080,"2021-12-21,09:33:14",10.1.1.11,0.5154550075531006,-0.400,-0.400,-0.400,0.000,0.000,0.000
1640079194976690176,"2021-12-21,09:33:14",10.1.1.11,375,-0.390,-0.390,-0.390,0.000,0.000,0.000
1640079195006470912,"2021-12-21,09:33:15",10.1.1.11,0.40508008003234863,-0.390,-0.390,-0.390,0.000,0.000,0.000
1640079195355449088,"2021-12-21,09:33:15",10.1.1.11,346,-0.380,-0.380,-0.380,0.000,0.000,0.000
1640079195377823232,"2021-12-21,09:33:15",10.1.1.11,0.3689610958099365,-0.380,-0.380,-0.380,0.000,0.000,0.000
1640079195785982976,"2021-12-21,09:33:15",10.1.1.11,406,-0.370,-0.370,-0.370,0.000,0.000,0.000
1640079195821579008,"2021-12-21,09:33:15",10.1.1.11,0.44223904609680176,-0.370,-0.370,-0.370,0.000,0.000,0.000
1640079196204538112,"2021-12-21,09:33:16",10.1.1.11,381,-0.360,-0.360,-0.360,0.000,0.000,0.000
1640079196265212928,"2021-12-21,09:33:16",10.1.1.11,0.442126989364624,-0.360,-0.360,-0.360,0.000,0.000,0.000
1640079196624926976,"2021-12-21,09:33:16",10.1.1.11,357,-0.350,-0.350,-0.350,0.000,0.000,0.000
1640079196670310144,"2021-12-21,09:33:16",10.1.1.11,0.40332794189453125,-0.350,-0.350,-0.350,0.000,0.000,0.000
1640079197055108096,"2021-12-21,09:33:17",10.1.1.11,381,-0.340,-0.340,-0.340,0.000,0.000,0.000
1640079197076899072,"2021-12-21,09:33:17",10.1.1.11,0.40337395668029785,-0.340,-0.340,-0.340,0.000,0.000,0.000
1640079197483383040,"2021-12-21,09:33:17",10.1.1.11,404,-0.330,-0.330,-0.330,0.000,0.000,0.000
1640079197517873920,"2021-12-21,09:33:17",10.1.1.11,0.43939805030822754,-0.330,-0.330,-0.330,0.000,0.000,0.000
1640079200660656896,"2021-12-21,09:33:20",10.1.1.11,3141,-0.320,-0.320,-0.320,0.000,0.000,0.000
1640079200686675968,"2021-12-21,09:33:20",10.1.1.11,3.167140007019043,-0.320,-0.320,-0.320,0.000,0.000,0.000
1640079201130496000,"2021-12-21,09:33:21",10.1.1.11,435,-0.310,-0.310,-0.310,0.000,0.000,0.000
1640079201177063936,"2021-12-21,09:33:21",10.1.1.11,0.4821789264678955,-0.310,-0.310,-0.310,0.000,0.000,0.000
1640079201529395968,"2021-12-21,09:33:21",10.1.1.11,350,-0.300,-0.300,-0.300,0.000,0.000,0.000
1640079201607086848,"2021-12-21,09:33:21",10.1.1.11,0.42872095108032227,-0.300,-0.300,-0.300,0.000,0.000,0.000
1640079202058566144,"2021-12-21,09:33:22",10.1.1.11,449,-0.290,-0.290,-0.290,0.000,0.000,0.000
1640079202126908928,"2021-12-21,09:33:22",10.1.1.11,0.5183122158050537,-0.290,-0.290,-0.290,0.000,0.000,0.000
1640079202658466048,"2021-12-21,09:33:22",10.1.1.11,529,-0.280,-0.280,-0.280,0.000,0.000,0.000
1640079202687578880,"2021-12-21,09:33:22",10.1.1.11,0.5591578483581543,-0.280,-0.280,-0.280,0.000,0.000,0.000
1640079203038052096,"2021-12-21,09:33:23",10.1.1.11,348,-0.270,-0.270,-0.270,0.000,0.000,0.000
1640079203090379008,"2021-12-21,09:33:23",10.1.1.11,0.40128421783447266,-0.270,-0.270,-0.270,0.000,0.000,0.000
1640079203437612032,"2021-12-21,09:33:23",10.1.1.11,345,-0.260,-0.260,-0.260,0.000,0.000,0.000
1640079203522685952,"2021-12-21,09:33:23",10.1.1.11,0.4307990074157715,-0.260,-0.260,-0.260,0.000,0.000,0.000
1640079204046859008,"2021-12-21,09:33:24",10.1.1.11,522,-0.250,-0.250,-0.250,0.000,0.000,0.000
1640079204129318912,"2021-12-21,09:33:24",10.1.1.11,0.605302095413208,-0.250,-0.250,-0.250,0.000,0.000,0.000
1640079204655416064,"2021-12-21,09:33:24",10.1.1.11,524,-0.240,-0.240,-0.240,0.000,0.000,0.000
1640079204686023936,"2021-12-21,09:33:24",10.1.1.11,0.555023193359375,-0.240,-0.240,-0.240,0.000,0.000,0.000
1640079205086718976,"2021-12-21,09:33:25",10.1.1.11,398,-0.230,-0.230,-0.230,0.000,0.000,0.000
1640079205144794112,"2021-12-21,09:33:25",10.1.1.11,0.4572288990020752,-0.230,-0.230,-0.230,0.000,0.000,0.000
1640079205609263872,"2021-12-21,09:33:25",10.1.1.11,462,-0.220,-0.220,-0.220,0.000,0.000,0.000
1640079205690327040,"2021-12-21,09:33:25",10.1.1.11,0.5432949066162109,-0.220,-0.220,-0.220,0.000,0.000,0.000
1640079206103638016,"2021-12-21,09:33:26",10.1.1.11,408,-0.210,-0.210,-0.210,0.000,0.000,0.000
1640079206144104960,"2021-12-21,09:33:26",10.1.1.11,0.44777512550354004,-0.210,-0.210,-0.210,0.000,0.000,0.000
1640079206651730944,"2021-12-21,09:33:26",10.1.1.11,503,-0.200,-0.200,-0.200,0.000,0.000,0.000
1640079206709896192,"2021-12-21,09:33:26",10.1.1.11,0.5619721412658691,-0.200,-0.200,-0.200,0.000,0.000,0.000
1640079207182899968,"2021-12-21,09:33:27",10.1.1.11,471,-0.190,-0.190,-0.190,0.000,0.000,0.000
1640079207215058176,"2021-12-21,09:33:27",10.1.1.11,0.5031661987304688,-0.190,-0.190,-0.190,0.000,0.000,0.000
1640079207640805888,"2021-12-21,09:33:27",10.1.1.11,415,-0.180,-0.180,-0.180,0.000,0.000,0.000
1640079207695848960,"2021-12-21,09:33:27",10.1.1.11,0.4707820415496826,-0.180,-0.180,-0.180,0.000,0.000,0.000
1640079208130647808,"2021-12-21,09:33:28",10.1.1.11,425,-0.170,-0.170,-0.170,0.000,0.000,0.000
1640079208198860032,"2021-12-21,09:33:28",10.1.1.11,0.49339818954467773,-0.170,-0.170,-0.170,0.000,0.000,0.000
1640079208889810176,"2021-12-21,09:33:28",10.1.1.11,643,-0.160,-0.160,-0.160,0.000,0.000,0.000
1640079208968740864,"2021-12-21,09:33:28",10.1.1.11,0.7228410243988037,-0.160,-0.160,-0.160,0.000,0.000,0.000
1640079209518337024,"2021-12-21,09:33:29",10.1.1.11,538,-0.150,-0.150,-0.150,0.000,0.000,0.000
1640079209553095168,"2021-12-21,09:33:29",10.1.1.11,0.5733621120452881,-0.150,-0.150,-0.150,0.000,0.000,0.000
1640079210046909952,"2021-12-21,09:33:30",10.1.1.11,491,-0.140,-0.140,-0.140,0.000,0.000,0.000
1640079210077848832,"2021-12-21,09:33:30",10.1.1.11,0.5225830078125,-0.140,-0.140,-0.140,0.000,0.000,0.000
1640079210469274880,"2021-12-21,09:33:30",10.1.1.11,389,-0.130,-0.130,-0.130,0.000,0.000,0.000
1640079210528886016,"2021-12-21,09:33:30",10.1.1.11,0.44870615005493164,-0.130,-0.130,-0.130,0.000,0.000,0.000
1640079211173012992,"2021-12-21,09:33:31",10.1.1.11,0.6414608955383301,-0.120,-0.120,-0.120,0.000,0.000,0.000
1640079211173357056,"2021-12-21,09:33:31",10.1.1.11,641,-0.120,-0.120,-0.120,0.000,0.000,0.000
1640079211704793856,"2021-12-21,09:33:31",10.1.1.11,521,-0.110,-0.110,-0.110,0.000,0.000,0.000
1640079211759556096,"2021-12-21,09:33:31",10.1.1.11,0.5768749713897705,-0.110,-0.110,-0.110,0.000,0.000,0.000
1640079212274821120,"2021-12-21,09:33:32",10.1.1.11,509,-0.100,-0.100,-0.100,0.000,0.000,0.000
1640079212323326976,"2021-12-21,09:33:32",10.1.1.11,0.5581588745117188,-0.100,-0.100,-0.100,0.000,0.000,0.000
1640079212845412864,"2021-12-21,09:33:32",10.1.1.11,519,-0.090,-0.090,-0.090,0.000,0.000,0.000
1640079212979436032,"2021-12-21,09:33:32",10.1.1.11,0.6533060073852539,-0.090,-0.090,-0.090,0.000,0.000,0.000
1640079213448121088,"2021-12-21,09:33:33",10.1.1.11,451,-0.080,-0.080,-0.080,0.000,0.000,0.000
1640079213636358144,"2021-12-21,09:33:33",10.1.1.11,0.6179609298706055,-0.080,-0.080,-0.080,0.000,0.000,0.000
1640079214436587008,"2021-12-21,09:33:34",10.1.1.11,782,-0.070,-0.070,-0.070,0.000,0.000,0.000
1640079214567343872,"2021-12-21,09:33:34",10.1.1.11,0.9135160446166992,-0.070,-0.070,-0.070,0.000,0.000,0.000
1640079215196644096,"2021-12-21,09:33:35",10.1.1.11,585,-0.060,-0.060,-0.060,0.000,0.000,0.000
1640079215252865024,"2021-12-21,09:33:35",10.1.1.11,0.6420199871063232,-0.060,-0.060,-0.060,0.000,0.000,0.000
1640079215667688960,"2021-12-21,09:33:35",10.1.1.11,413,-0.050,-0.050,-0.050,0.000,0.000,0.000
1640079215711766016,"2021-12-21,09:33:35",10.1.1.11,0.4574439525604248,-0.050,-0.050,-0.050,0.000,0.000,0.000
1640079216127401216,"2021-12-21,09:33:36",10.1.1.11,413,-0.040,-0.040,-0.040,0.000,0.000,0.000
1640079216198342912,"2021-12-21,09:33:36",10.1.1.11,0.48490309715270996,-0.040,-0.040,-0.040,0.000,0.000,0.000
1640079216668579072,"2021-12-21,09:33:36",10.1.1.11,468,-0.030,-0.030,-0.030,0.000,0.000,0.000
1640079216713912064,"2021-12-21,09:33:36",10.1.1.11,0.5136938095092773,-0.030,-0.030,-0.030,0.000,0.000,0.000
1640079217250420992,"2021-12-21,09:33:37",10.1.1.11,534,-0.020,-0.020,-0.020,0.000,0.000,0.000
1640079217265662976,"2021-12-21,09:33:37",10.1.1.11,0.5465099811553955,-0.020,-0.020,-0.020,0.000,0.000,0.000
1640079217908530944,"2021-12-21,09:33:37",10.1.1.11,625,-0.010,-0.010,-0.010,0.000,0.000,0.000
1640079218012527104,"2021-12-21,09:33:38",10.1.1.11,0.7296290397644043,-0.010,-0.010,-0.010,0.000,0.000,0.000
1640079218489101824,"2021-12-21,09:33:38",10.1.1.11,473,0.000,0.000,0.000,0.000,0.000,0.000
1640079218513276160,"2021-12-21,09:33:38",10.1.1.11,0.49852800369262695,0.000,0.000,0.000,0.000,0.000,0.000
1640079219079268864,"2021-12-21,09:33:39",10.1.1.11,562,-0.010,-0.010,-0.010,0.000,0.000,0.000
1640079219133249024,"2021-12-21,09:33:39",10.1.1.11,0.616459846496582,-0.010,-0.010,-0.010,0.000,0.000,0.000
1640079219668044032,"2021-12-21,09:33:39",10.1.1.11,533,-0.020,-0.020,-0.020,0.000,0.000,0.000
1640079219728868864,"2021-12-21,09:33:39",10.1.1.11,0.5941071510314941,-0.020,-0.020,-0.020,0.000,0.000,0.000
1640079220138163968,"2021-12-21,09:33:40",10.1.1.11,406,-0.030,-0.030,-0.030,0.000,0.000,0.000
1640079220209646080,"2021-12-21,09:33:40",10.1.1.11,0.4777231216430664,-0.030,-0.030,-0.030,0.000,0.000,0.000
1640079220648390912,"2021-12-21,09:33:40",10.1.1.11,434,-0.040,-0.040,-0.040,0.000,0.000,0.000
1640079220693737984,"2021-12-21,09:33:40",10.1.1.11,0.47960901260375977,-0.040,-0.040,-0.040,0.000,0.000,0.000
1640079221188417792,"2021-12-21,09:33:41",10.1.1.11,489,-0.050,-0.050,-0.050,0.000,0.000,0.000
1640079221229122048,"2021-12-21,09:33:41",10.1.1.11,0.52211594581604,-0.050,-0.050,-0.050,0.000,0.000,0.000
1640079221658462976,"2021-12-21,09:33:41",10.1.1.11,424,-0.060,-0.060,-0.060,0.000,0.000,0.000
1640079221737665024,"2021-12-21,09:33:41",10.1.1.11,0.5035459995269775,-0.060,-0.060,-0.060,0.000,0.000,0.000
1640079222348784896,"2021-12-21,09:33:42",10.1.1.11,607,-0.070,-0.070,-0.070,0.000,0.000,0.000
1640079222451590912,"2021-12-21,09:33:42",10.1.1.11,0.7104861736297607,-0.070,-0.070,-0.070,0.000,0.000,0.000
1640079223137777920,"2021-12-21,09:33:43",10.1.1.11,656,-0.080,-0.080,-0.080,0.000,0.000,0.000
1640079223213725184,"2021-12-21,09:33:43",10.1.1.11,0.7322468757629395,-0.080,-0.080,-0.080,0.000,0.000,0.000
1640079223668294912,"2021-12-21,09:33:43",10.1.1.11,443,-0.090,-0.090,-0.090,0.000,0.000,0.000
1640079223730577920,"2021-12-21,09:33:43",10.1.1.11,0.5058150291442871,-0.090,-0.090,-0.090,0.000,0.000,0.000
1640079224177462016,"2021-12-21,09:33:44",10.1.1.11,445,-0.100,-0.100,-0.100,0.000,0.000,0.000
1640079224331710976,"2021-12-21,09:33:44",10.1.1.11,0.5990869998931885,-0.100,-0.100,-0.100,0.000,0.000,0.000
1640079224957372928,"2021-12-21,09:33:44",10.1.1.11,623,-0.110,-0.110,-0.110,0.000,0.000,0.000
1640079225072022016,"2021-12-21,09:33:45",10.1.1.11,0.7377331256866455,-0.110,-0.110,-0.110,0.000,0.000,0.000
1640079225598236160,"2021-12-21,09:33:45",10.1.1.11,523,-0.120,-0.120,-0.120,0.000,0.000,0.000
1640079225713390080,"2021-12-21,09:33:45",10.1.1.11,0.6391241550445557,-0.120,-0.120,-0.120,0.000,0.000,0.000
1640079226146200832,"2021-12-21,09:33:46",10.1.1.11,429,-0.130,-0.130,-0.130,0.000,0.000,0.000
1640079226223835904,"2021-12-21,09:33:46",10.1.1.11,0.4910268783569336,-0.130,-0.130,-0.130,0.000,0.000,0.000
1640079226860002048,"2021-12-21,09:33:46",10.1.1.11,623,-0.140,-0.140,-0.140,0.000,0.000,0.000
1640079226933347840,"2021-12-21,09:33:46",10.1.1.11,0.6967298984527588,-0.140,-0.140,-0.140,0.000,0.000,0.000
1640079227473720064,"2021-12-21,09:33:47",10.1.1.11,501,-0.150,-0.150,-0.150,0.000,0.000,0.000
1640079227533664000,"2021-12-21,09:33:47",10.1.1.11,0.5614750385284424,-0.150,-0.150,-0.150,0.000,0.000,0.000
1640079228015631872,"2021-12-21,09:33:48",10.1.1.11,471,-0.160,-0.160,-0.160,0.000,0.000,0.000
1640079228133896960,"2021-12-21,09:33:48",10.1.1.11,0.5903730392456055,-0.160,-0.160,-0.160,0.000,0.000,0.000
1640079228605923840,"2021-12-21,09:33:48",10.1.1.11,466,-0.170,-0.170,-0.170,0.000,0.000,0.000
1640079228650546176,"2021-12-21,09:33:48",10.1.1.11,0.5111351013183594,-0.170,-0.170,-0.170,0.000,0.000,0.000
1640079229074131968,"2021-12-21,09:33:49",10.1.1.11,420,-0.180,-0.180,-0.180,0.000,0.000,0.000
1640079229107614976,"2021-12-21,09:33:49",10.1.1.11,0.454387903213501,-0.180,-0.180,-0.180,0.000,0.000,0.000
1640079229584443136,"2021-12-21,09:33:49",10.1.1.11,475,-0.190,-0.190,-0.190,0.000,0.000,0.000
1640079229655035904,"2021-12-21,09:33:49",10.1.1.11,0.5457668304443359,-0.190,-0.190,-0.190,0.000,0.000,0.000
1640079230094774016,"2021-12-21,09:33:50",10.1.1.11,437,-0.200,-0.200,-0.200,0.000,0.000,0.000
1640079230139718144,"2021-12-21,09:33:50",10.1.1.11,0.4829881191253662,-0.200,-0.200,-0.200,0.000,0.000,0.000
1640079230513462016,"2021-12-21,09:33:50",10.1.1.11,372,-0.210,-0.210,-0.210,0.000,0.000,0.000
1640079230557840128,"2021-12-21,09:33:50",10.1.1.11,0.41649293899536133,-0.210,-0.210,-0.210,0.000,0.000,0.000
1640079231032668160,"2021-12-21,09:33:51",10.1.1.11,473,-0.220,-0.220,-0.220,0.000,0.000,0.000
1640079231107446784,"2021-12-21,09:33:51",10.1.1.11,0.5481030941009521,-0.220,-0.220,-0.220,0.000,0.000,0.000
1640079231523976192,"2021-12-21,09:33:51",10.1.1.11,414,-0.230,-0.230,-0.230,0.000,0.000,0.000
1640079231595063040,"2021-12-21,09:33:51",10.1.1.11,0.48581790924072266,-0.230,-0.230,-0.230,0.000,0.000,0.000
1640079231995481856,"2021-12-21,09:33:51",10.1.1.11,398,-0.240,-0.240,-0.240,0.000,0.000,0.000
1640079232088438016,"2021-12-21,09:33:52",10.1.1.11,0.49144697189331055,-0.240,-0.240,-0.240,0.000,0.000,0.000
1640079232622572800,"2021-12-21,09:33:52",10.1.1.11,0.5322949886322021,-0.250,-0.250,-0.250,0.000,0.000,0.000
1640079233292648960,"2021-12-21,09:33:53",10.1.1.11,652,-0.260,-0.260,-0.260,0.000,0.000,0.000
1640079233306947072,"2021-12-21,09:33:53",10.1.1.11,0.6673970222473145,-0.260,-0.260,-0.260,0.000,0.000,0.000
1640079233930294016,"2021-12-21,09:33:53",10.1.1.11,578,-0.270,-0.270,-0.270,0.000,0.000,0.000
1640079233959828992,"2021-12-21,09:33:53",10.1.1.11,0.60772705078125,-0.270,-0.270,-0.270,0.000,0.000,0.000
1640079234453253888,"2021-12-21,09:33:54",10.1.1.11,488,-0.280,-0.280,-0.280,0.000,0.000,0.000
1640079234494349056,"2021-12-21,09:33:54",10.1.1.11,0.5296761989593506,-0.280,-0.280,-0.280,0.000,0.000,0.000
1640079235119025920,"2021-12-21,09:33:55",10.1.1.11,622,-0.290,-0.290,-0.290,0.000,0.000,0.000
1640079235151806976,"2021-12-21,09:33:55",10.1.1.11,0.6558589935302734,-0.290,-0.290,-0.290,0.000,0.000,0.000
1640079235579186944,"2021-12-21,09:33:55",10.1.1.11,425,-0.300,-0.300,-0.300,0.000,0.000,0.000
1640079235605577984,"2021-12-21,09:33:55",10.1.1.11,0.4519679546356201,-0.300,-0.300,-0.300,0.000,0.000,0.000
1640079235987781888,"2021-12-21,09:33:55",10.1.1.11,380,-0.310,-0.310,-0.310,0.000,0.000,0.000
1640079236055375104,"2021-12-21,09:33:56",10.1.1.11,0.4482100009918213,-0.310,-0.310,-0.310,0.000,0.000,0.000
1640079236547310080,"2021-12-21,09:33:56",10.1.1.11,487,-0.320,-0.320,-0.320,0.000,0.000,0.000
1640079236576709888,"2021-12-21,09:33:56",10.1.1.11,0.5173089504241943,-0.320,-0.320,-0.320,0.000,0.000,0.000
1640079237026778880,"2021-12-21,09:33:57",10.1.1.11,447,-0.330,-0.330,-0.330,0.000,0.000,0.000
1640079237092088064,"2021-12-21,09:33:57",10.1.1.11,0.5127310752868652,-0.330,-0.330,-0.330,0.000,0.000,0.000
1640079237506494976,"2021-12-21,09:33:57",10.1.1.11,412,-0.340,-0.340,-0.340,0.000,0.000,0.000
1640079237563911936,"2021-12-21,09:33:57",10.1.1.11,0.4704000949859619,-0.340,-0.340,-0.340,0.000,0.000,0.000
1640079238098952960,"2021-12-21,09:33:58",10.1.1.11,528,-0.350,-0.350,-0.350,0.000,0.000,0.000
1640079238247457024,"2021-12-21,09:33:58",10.1.1.11,0.6815078258514404,-0.350,-0.350,-0.350,0.000,0.000,0.000
1640079238809572864,"2021-12-21,09:33:58",10.1.1.11,524,-0.360,-0.360,-0.360,0.000,0.000,0.000
1640079238900019968,"2021-12-21,09:33:58",10.1.1.11,0.614750862121582,-0.360,-0.360,-0.360,0.000,0.000,0.000
1640079239573478912,"2021-12-21,09:33:59",10.1.1.11,671,-0.370,-0.370,-0.370,0.000,0.000,0.000
1640079239592494080,"2021-12-21,09:33:59",10.1.1.11,0.6905488967895508,-0.370,-0.370,-0.370,0.000,0.000,0.000
1640079240023755008,"2021-12-21,09:34:00",10.1.1.11,429,-0.380,-0.380,-0.380,0.000,0.000,0.000
1640079240059557888,"2021-12-21,09:34:00",10.1.1.11,0.46555209159851074,-0.380,-0.380,-0.380,0.000,0.000,0.000
1640079240702324992,"2021-12-21,09:34:00",10.1.1.11,629,-0.390,-0.390,-0.390,0.000,0.000,0.000
1640079240761640960,"2021-12-21,09:34:00",10.1.1.11,0.6891589164733887,-0.390,-0.390,-0.390,0.000,0.000,0.000
1640079241178871040,"2021-12-21,09:34:01",10.1.1.11,409,-0.400,-0.400,-0.400,0.000,0.000,0.000
1640079241286611200,"2021-12-21,09:34:01",10.1.1.11,0.5172851085662842,-0.400,-0.400,-0.400,0.000,0.000,0.000
1640079241930430976,"2021-12-21,09:34:01",10.1.1.11,641,-0.410,-0.410,-0.410,0.000,0.000,0.000
1640079242011663872,"2021-12-21,09:34:02",10.1.1.11,0.7197508811950684,-0.410,-0.410,-0.410,0.000,0.000,0.000
1640079242540381952,"2021-12-21,09:34:02",10.1.1.11,522,-0.420,-0.420,-0.420,0.000,0.000,0.000
1640079242581073920,"2021-12-21,09:34:02",10.1.1.11,0.5628318786621094,-0.420,-0.420,-0.420,0.000,0.000,0.000
1640079243177153024,"2021-12-21,09:34:03",10.1.1.11,591,-0.430,-0.430,-0.430,0.000,0.000,0.000
1640079243257163008,"2021-12-21,09:34:03",10.1.1.11,0.670950174331665,-0.430,-0.430,-0.430,0.000,0.000,0.000
1640079243923383040,"2021-12-21,09:34:03",10.1.1.11,656,-0.440,-0.440,-0.440,0.000,0.000,0.000
1640079243995021056,"2021-12-21,09:34:03",10.1.1.11,0.727898120880127,-0.440,-0.440,-0.440,0.000,0.000,0.000
1640079244570491136,"2021-12-21,09:34:04",10.1.1.11,561,-0.450,-0.450,-0.450,0.000,0.000,0.000
1640079244609321984,"2021-12-21,09:34:04",10.1.1.11,0.6002669334411621,-0.450,-0.450,-0.450,0.000,0.000,0.000
1640079245473223936,"2021-12-21,09:34:05",10.1.1.11,816,-0.460,-0.460,-0.460,0.000,0.000,0.000
1640079245499697920,"2021-12-21,09:34:05",10.1.1.11,0.8436288833618164,-0.460,-0.460,-0.460,0.000,0.000,0.000
1640079246015691008,"2021-12-21,09:34:06",10.1.1.11,514,-0.470,-0.470,-0.470,0.000,0.000,0.000
1640079246063173888,"2021-12-21,09:34:06",10.1.1.11,0.5618720054626465,-0.470,-0.470,-0.470,0.000,0.000,0.000
1640079246543601152,"2021-12-21,09:34:06",10.1.1.11,475,-0.480,-0.480,-0.480,0.000,0.000,0.000
1640079246577956864,"2021-12-21,09:34:06",10.1.1.11,0.5103869438171387,-0.480,-0.480,-0.480,0.000,0.000,0.000
1640079247242510080,"2021-12-21,09:34:07",10.1.1.11,652,-0.490,-0.490,-0.490,0.000,0.000,0.000
1640079247257368064,"2021-12-21,09:34:07",10.1.1.11,0.6681668758392334,-0.490,-0.490,-0.490,0.000,0.000,0.000
1640079248059220992,"2021-12-21,09:34:08",10.1.1.11,0.788222074508667,-0.480,-0.480,-0.480,0.000,0.000,0.000
1640079248059966976,"2021-12-21,09:34:08",10.1.1.11,770,-0.480,-0.480,-0.480,0.000,0.000,0.000
1640079248681078784,"2021-12-21,09:34:08",10.1.1.11,603,-0.470,-0.470,-0.470,0.000,0.000,0.000
1640079248739952128,"2021-12-21,09:34:08",10.1.1.11,0.6734340190887451,-0.470,-0.470,-0.470,0.000,0.000,0.000
1640079249290846208,"2021-12-21,09:34:09",10.1.1.11,549,-0.460,-0.460,-0.460,0.000,0.000,0.000
1640079249380419072,"2021-12-21,09:34:09",10.1.1.11,0.6387529373168945,-0.460,-0.460,-0.460,0.000,0.000,0.000
1640079249929757952,"2021-12-21,09:34:09",10.1.1.11,547,-0.450,-0.450,-0.450,0.000,0.000,0.000
1640079249949502976,"2021-12-21,09:34:09",10.1.1.11,0.5674700736999512,-0.450,-0.450,-0.450,0.000,0.000,0.000
1640079250419200000,"2021-12-21,09:34:10",10.1.1.11,467,-0.440,-0.440,-0.440,0.000,0.000,0.000
1640079250457591040,"2021-12-21,09:34:10",10.1.1.11,0.5061769485473633,-0.440,-0.440,-0.440,0.000,0.000,0.000
1640079251018605824,"2021-12-21,09:34:11",10.1.1.11,559,-0.430,-0.430,-0.430,0.000,0.000,0.000
1640079251105972992,"2021-12-21,09:34:11",10.1.1.11,0.6467721462249756,-0.430,-0.430,-0.430,0.000,0.000,0.000
1640079251924175872,"2021-12-21,09:34:11",10.1.1.11,786,-0.420,-0.420,-0.420,0.000,0.000,0.000
1640079251925074944,"2021-12-21,09:34:11",10.1.1.11,0.8125059604644775,-0.420,-0.420,-0.420,0.000,0.000,0.000
1640079252427575040,"2021-12-21,09:34:12",10.1.1.11,500,-0.410,-0.410,-0.410,0.000,0.000,0.000
1640079252495260928,"2021-12-21,09:34:12",10.1.1.11,0.5688540935516357,-0.410,-0.410,-0.410,0.000,0.000,0.000
1640079253146953216,"2021-12-21,09:34:13",10.1.1.11,627,-0.400,-0.400,-0.400,0.000,0.000,0.000
1640079253212259072,"2021-12-21,09:34:13",10.1.1.11,0.6920771598815918,-0.400,-0.400,-0.400,0.000,0.000,0.000
1640079253624504064,"2021-12-21,09:34:13",10.1.1.11,409,-0.390,-0.390,-0.390,0.000,0.000,0.000
1640079253687855872,"2021-12-21,09:34:13",10.1.1.11,0.4727928638458252,-0.390,-0.390,-0.390,0.000,0.000,0.000
1640079254195761920,"2021-12-21,09:34:14",10.1.1.11,503,-0.380,-0.380,-0.380,0.000,0.000,0.000
1640079254233542912,"2021-12-21,09:34:14",10.1.1.11,0.5427019596099854,-0.380,-0.380,-0.380,0.000,0.000,0.000
1640079254835377920,"2021-12-21,09:34:14",10.1.1.11,590,-0.370,-0.370,-0.370,0.000,0.000,0.000
1640079254980334080,"2021-12-21,09:34:14",10.1.1.11,0.7402439117431641,-0.370,-0.370,-0.370,0.000,0.000,0.000
1640079255641608960,"2021-12-21,09:34:15",10.1.1.11,657,-0.360,-0.360,-0.360,0.000,0.000,0.000
1640079255722755072,"2021-12-21,09:34:15",10.1.1.11,0.7392568588256836,-0.360,-0.360,-0.360,0.000,0.000,0.000
1640079256140186112,"2021-12-21,09:34:16",10.1.1.11,409,-0.350,-0.350,-0.350,0.000,0.000,0.000
1640079256190511872,"2021-12-21,09:34:16",10.1.1.11,0.46030497550964355,-0.350,-0.350,-0.350,0.000,0.000,0.000
1640079256650185216,"2021-12-21,09:34:16",10.1.1.11,455,-0.340,-0.340,-0.340,0.000,0.000,0.000
1640079256767618816,"2021-12-21,09:34:16",10.1.1.11,0.5718059539794922,-0.340,-0.340,-0.340,0.000,0.000,0.000
1640079257632553216,"2021-12-21,09:34:17",10.1.1.11,0.8535220623016357,-0.330,-0.330,-0.330,0.000,0.000,0.000
1640079257577405952,"2021-12-21,09:34:17",10.1.1.11,780,-0.330,-0.330,-0.330,0.000,0.000,0.000
1640079257658793984,"2021-12-21,09:34:17",10.1.1.11,-1,-0.320,-0.320,-0.320,0.000,0.000,0.000
1640079258242820096,"2021-12-21,09:34:18",10.1.1.11,0.6082699298858643,-0.320,-0.320,-0.320,0.000,0.000,0.000
1640079258961920000,"2021-12-21,09:34:18",10.1.1.11,630,-0.310,-0.310,-0.310,0.000,0.000,0.000
1640079259054637056,"2021-12-21,09:34:19",10.1.1.11,0.7230749130249023,-0.310,-0.310,-0.310,0.000,0.000,0.000
1640079259108238848,"2021-12-21,09:34:19",10.1.1.11,-12,-0.300,-0.300,-0.300,0.000,0.000,0.000
1640079260352114944,"2021-12-21,09:34:20",10.1.1.11,1.2672679424285889,-0.300,-0.300,-0.300,0.000,0.000,0.000
1640079260912878080,"2021-12-21,09:34:20",10.1.1.11,549,-0.290,-0.290,-0.290,0.000,0.000,0.000
1640079260985775104,"2021-12-21,09:34:20",10.1.1.11,0.6224179267883301,-0.290,-0.290,-0.290,0.000,0.000,0.000
1640079261509965824,"2021-12-21,09:34:21",10.1.1.11,520,-0.280,-0.280,-0.280,0.000,0.000,0.000
1640079261797250048,"2021-12-21,09:34:21",10.1.1.11,0.8074898719787598,-0.280,-0.280,-0.280,0.000,0.000,0.000
1640079262370140928,"2021-12-21,09:34:22",10.1.1.11,546,-0.270,-0.270,-0.270,0.000,0.000,0.000
1640079262417964032,"2021-12-21,09:34:22",10.1.1.11,0.5939199924468994,-0.270,-0.270,-0.270,0.000,0.000,0.000
1640079263022056960,"2021-12-21,09:34:23",10.1.1.11,598,-0.260,-0.260,-0.260,0.000,0.000,0.000
1640079263092185856,"2021-12-21,09:34:23",10.1.1.11,0.6690359115600586,-0.260,-0.260,-0.260,0.000,0.000,0.000
1640079263673103104,"2021-12-21,09:34:23",10.1.1.11,0.5788319110870361,-0.250,-0.250,-0.250,0.000,0.000,0.000
1640079263673364992,"2021-12-21,09:34:23",10.1.1.11,579,-0.250,-0.250,-0.250,0.000,0.000,0.000
1640079264372129024,"2021-12-21,09:34:24",10.1.1.11,640,-0.240,-0.240,-0.240,0.000,0.000,0.000
1640079264397025024,"2021-12-21,09:34:24",10.1.1.11,0.7086050510406494,-0.240,-0.240,-0.240,0.000,0.000,0.000
1640079264907692032,"2021-12-21,09:34:24",10.1.1.11,493,-0.230,-0.230,-0.230,0.000,0.000,0.000
1640079264972451072,"2021-12-21,09:34:24",10.1.1.11,0.5587708950042725,-0.230,-0.230,-0.230,0.000,0.000,0.000
1640079265681669120,"2021-12-21,09:34:25",10.1.1.11,663,-0.220,-0.220,-0.220,0.000,0.000,0.000
1640079265762370048,"2021-12-21,09:34:25",10.1.1.11,0.7445480823516846,-0.220,-0.220,-0.220,0.000,0.000,0.000
1640079266400921088,"2021-12-21,09:34:26",10.1.1.11,630,-0.210,-0.210,-0.210,0.000,0.000,0.000
1640079266699526144,"2021-12-21,09:34:26",10.1.1.11,0.9291579723358154,-0.210,-0.210,-0.210,0.000,0.000,0.000
1640079267434782976,"2021-12-21,09:34:27",10.1.1.11,702,-0.200,-0.200,-0.200,0.000,0.000,0.000
1640079267514444032,"2021-12-21,09:34:27",10.1.1.11,0.8074331283569336,-0.200,-0.200,-0.200,0.000,0.000,0.000
1640079268064812032,"2021-12-21,09:34:28",10.1.1.11,532,-0.190,-0.190,-0.190,0.000,0.000,0.000
1640079268243674880,"2021-12-21,09:34:28",10.1.1.11,0.7132658958435059,-0.190,-0.190,-0.190,0.000,0.000,0.000
1640079269035542016,"2021-12-21,09:34:29",10.1.1.11,779,-0.180,-0.180,-0.180,0.000,0.000,0.000
1640079269187773952,"2021-12-21,09:34:29",10.1.1.11,0.9315800666809082,-0.180,-0.180,-0.180,0.000,0.000,0.000
1640079269817174784,"2021-12-21,09:34:29",10.1.1.11,623,-0.170,-0.170,-0.170,0.000,0.000,0.000
1640079269964850944,"2021-12-21,09:34:29",10.1.1.11,0.7708768844604492,-0.170,-0.170,-0.170,0.000,0.000,0.000
1640079270636247040,"2021-12-21,09:34:30",10.1.1.11,644,-0.160,-0.160,-0.160,0.000,0.000,0.000
1640079270775744000,"2021-12-21,09:34:30",10.1.1.11,0.7837810516357422,-0.160,-0.160,-0.160,0.000,0.000,0.000
1640079271970219008,"2021-12-21,09:34:31",10.1.1.11,761,-0.150,-0.150,-0.150,0.000,0.000,0.000
1640079271979339008,"2021-12-21,09:34:31",10.1.1.11,1.2018229961395264,-0.150,-0.150,-0.150,0.000,0.000,0.000
1640079272644852992,"2021-12-21,09:34:32",10.1.1.11,662,-0.140,-0.140,-0.140,0.000,0.000,0.000
1640079272802241024,"2021-12-21,09:34:32",10.1.1.11,0.8204951286315918,-0.140,-0.140,-0.140,0.000,0.000,0.000
1640079273490364160,"2021-12-21,09:34:33",10.1.1.11,519,-0.130,-0.130,-0.130,0.000,0.000,0.000
1640079273577255936,"2021-12-21,09:34:33",10.1.1.11,0.6061420440673828,-0.130,-0.130,-0.130,0.000,0.000,0.000
1640079274255126016,"2021-12-21,09:34:34",10.1.1.11,665,-0.120,-0.120,-0.120,0.000,0.000,0.000
1640079274431587840,"2021-12-21,09:34:34",10.1.1.11,0.8366031646728516,-0.120,-0.120,-0.120,0.000,0.000,0.000
1640079274971194880,"2021-12-21,09:34:34",10.1.1.11,505,-0.110,-0.110,-0.110,0.000,0.000,0.000
1640079275049859072,"2021-12-21,09:34:35",10.1.1.11,0.5520908832550049,-0.110,-0.110,-0.110,0.000,0.000,0.000
1640079275665238016,"2021-12-21,09:34:35",10.1.1.11,592,-0.100,-0.100,-0.100,0.000,0.000,0.000
1640079275828768000,"2021-12-21,09:34:35",10.1.1.11,0.7670960426330566,-0.100,-0.100,-0.100,0.000,0.000,0.000
1640079276423667968,"2021-12-21,09:34:36",10.1.1.11,591,-0.090,-0.090,-0.090,0.000,0.000,0.000
1640079276601364992,"2021-12-21,09:34:36",10.1.1.11,0.769676923751831,-0.090,-0.090,-0.090,0.000,0.000,0.000
1640079277284698880,"2021-12-21,09:34:37",10.1.1.11,670,-0.080,-0.080,-0.080,0.000,0.000,0.000
1640079277418273024,"2021-12-21,09:34:37",10.1.1.11,0.8042888641357422,-0.080,-0.080,-0.080,0.000,0.000,0.000
1640079278117132800,"2021-12-21,09:34:38",10.1.1.11,687,-0.070,-0.070,-0.070,0.000,0.000,0.000
1640079278221783040,"2021-12-21,09:34:38",10.1.1.11,0.7924070358276367,-0.070,-0.070,-0.070,0.000,0.000,0.000
1640079278765721088,"2021-12-21,09:34:38",10.1.1.11,535,-0.060,-0.060,-0.060,0.000,0.000,0.000
1640079278911122176,"2021-12-21,09:34:38",10.1.1.11,0.6804409027099609,-0.060,-0.060,-0.060,0.000,0.000,0.000
1640079279605778944,"2021-12-21,09:34:39",10.1.1.11,692,-0.050,-0.050,-0.050,0.000,0.000,0.000
1640079279761428992,"2021-12-21,09:34:39",10.1.1.11,0.8484499454498291,-0.050,-0.050,-0.050,0.000,0.000,0.000
1640079280397175040,"2021-12-21,09:34:40",10.1.1.11,622,-0.040,-0.040,-0.040,0.000,0.000,0.000
1640079280430098176,"2021-12-21,09:34:40",10.1.1.11,0.6480278968811035,-0.040,-0.040,-0.040,0.000,0.000,0.000
1640079280949573888,"2021-12-21,09:34:40",10.1.1.11,456,-0.030,-0.030,-0.030,0.000,0.000,0.000
1640079281075364096,"2021-12-21,09:34:41",10.1.1.11,0.6358528137207031,-0.030,-0.030,-0.030,0.000,0.000,0.000
1640079281853948160,"2021-12-21,09:34:41",10.1.1.11,0.7286851406097412,-0.020,-0.020,-0.020,0.000,0.000,0.000
1640079282724556032,"2021-12-21,09:34:42",10.1.1.11,840,-0.010,-0.010,-0.010,0.000,0.000,0.000
1640079282909987072,"2021-12-21,09:34:42",10.1.1.11,1.026082992553711,-0.010,-0.010,-0.010,0.000,0.000,0.000
1640079283734159872,"2021-12-21,09:34:43",10.1.1.11,754,0.000,0.000,0.000,0.000,0.000,0.000
1640079283953422080,"2021-12-21,09:34:43",10.1.1.11,0.9737470149993896,0.000,0.000,0.000,0.000,0.000,0.000
1640079284681544960,"2021-12-21,09:34:44",10.1.1.11,705,-0.010,-0.010,-0.010,0.000,0.000,0.000
1640079284732098048,"2021-12-21,09:34:44",10.1.1.11,0.75577712059021,-0.010,-0.010,-0.010,0.000,0.000,0.000
1640079285349031936,"2021-12-21,09:34:45",10.1.1.11,589,-0.020,-0.020,-0.020,0.000,0.000,0.000
1640079285428392960,"2021-12-21,09:34:45",10.1.1.11,0.6691958904266357,-0.020,-0.020,-0.020,0.000,0.000,0.000
1640079286224136192,"2021-12-21,09:34:46",10.1.1.11,791,-0.030,-0.030,-0.030,0.000,0.000,0.000
1640079286349764096,"2021-12-21,09:34:46",10.1.1.11,0.9171879291534424,-0.030,-0.030,-0.030,0.000,0.000,0.000
1640079287289647104,"2021-12-21,09:34:47",10.1.1.11,708,-0.040,-0.040,-0.040,0.000,0.000,0.000
1640079287306166016,"2021-12-21,09:34:47",10.1.1.11,0.8779079914093018,-0.040,-0.040,-0.040,0.000,0.000,0.000
1640079290794769920,"2021-12-21,09:34:48",10.1.1.11,809,-0.050,-0.050,-0.050,0.000,0.000,0.000
1640079294310214144,"2021-12-21,09:34:52",10.1.1.11,5.4328999519348145,-0.050,-0.050,-0.050,0.000,0.000,0.000
1640079295773689088,"2021-12-21,09:34:55",10.1.1.11,1271,-0.060,-0.060,-0.060,0.000,0.000,0.000
1640079296064452864,"2021-12-21,09:34:55",10.1.1.11,1.4852900505065918,-0.060,-0.060,-0.060,0.000,0.000,0.000
1640079296693305856,"2021-12-21,09:34:56",10.1.1.11,626,-0.070,-0.070,-0.070,0.000,0.000,0.000
1640079296932084992,"2021-12-21,09:34:56",10.1.1.11,0.8651518821716309,-0.070,-0.070,-0.070,0.000,0.000,0.000
1640079298131920128,"2021-12-21,09:34:58",10.1.1.11,1094,-0.080,-0.080,-0.080,0.000,0.000,0.000
1640079298204967936,"2021-12-21,09:34:58",10.1.1.11,1.2407841682434082,-0.080,-0.080,-0.080,0.000,0.000,0.000
1640079299012608000,"2021-12-21,09:34:59",10.1.1.11,0.7543609142303467,-0.090,-0.090,-0.090,0.000,0.000,0.000
1640079299666295040,"2021-12-21,09:34:59",10.1.1.11,614,-0.100,-0.100,-0.100,0.000,0.000,0.000
1640079299892630016,"2021-12-21,09:34:59",10.1.1.11,0.8406920433044434,-0.100,-0.100,-0.100,0.000,0.000,0.000
1640079300659432960,"2021-12-21,09:35:00",10.1.1.11,727,-0.110,-0.110,-0.110,0.000,0.000,0.000
1640079300887300096,"2021-12-21,09:35:00",10.1.1.11,0.9552628993988037,-0.110,-0.110,-0.110,0.000,0.000,0.000
1640079302044509952,"2021-12-21,09:35:01",10.1.1.11,841,-0.120,-0.120,-0.120,0.000,0.000,0.000
1640079302304062976,"2021-12-21,09:35:02",10.1.1.11,1.398087978363037,-0.120,-0.120,-0.120,0.000,0.000,0.000
1640079305724706048,"2021-12-21,09:35:03",10.1.1.11,1017,-0.130,-0.130,-0.130,0.000,0.000,0.000
1640079305978643968,"2021-12-21,09:35:05",10.1.1.11,3.2709550857543945,-0.130,-0.130,-0.130,0.000,0.000,0.000
1640079307446029824,"2021-12-21,09:35:07",10.1.1.11,1464,-0.140,-0.140,-0.140,0.000,0.000,0.000
1640079307573487104,"2021-12-21,09:35:07",10.1.1.11,1.5918760299682617,-0.140,-0.140,-0.140,0.000,0.000,0.000
1640079308103344896,"2021-12-21,09:35:08",10.1.1.11,515,-0.150,-0.150,-0.150,0.000,0.000,0.000
1640079308274146048,"2021-12-21,09:35:08",10.1.1.11,0.6865789890289307,-0.150,-0.150,-0.150,0.000,0.000,0.000
1640079309056341760,"2021-12-21,09:35:09",10.1.1.11,761,-0.160,-0.160,-0.160,0.000,0.000,0.000
1640079309170789888,"2021-12-21,09:35:09",10.1.1.11,0.8760359287261963,-0.160,-0.160,-0.160,0.000,0.000,0.000
1640079310159235072,"2021-12-21,09:35:10",10.1.1.11,872,-0.170,-0.170,-0.170,0.000,0.000,0.000
1640079310218106880,"2021-12-21,09:35:10",10.1.1.11,1.041646957397461,-0.170,-0.170,-0.170,0.000,0.000,0.000
1640079311300903936,"2021-12-21,09:35:11",10.1.1.11,1032,-0.180,-0.180,-0.180,0.000,0.000,0.000
1640079311960598016,"2021-12-21,09:35:11",10.1.1.11,1.309114933013916,-0.180,-0.180,-0.180,0.000,0.000,0.000
1640079312980670976,"2021-12-21,09:35:12",10.1.1.11,915,-0.190,-0.190,-0.190,0.000,0.000,0.000
1640079313232120064,"2021-12-21,09:35:13",10.1.1.11,1.1671030521392822,-0.190,-0.190,-0.190,0.000,0.000,0.000
1640079318561276928,"2021-12-21,09:35:18",10.1.1.11,5029,-0.200,-0.200,-0.200,0.000,0.000,0.000
1640079318864872960,"2021-12-21,09:35:18",10.1.1.11,5.597002029418945,-0.200,-0.200,-0.200,0.000,0.000,0.000
1640079319801863936,"2021-12-21,09:35:19",10.1.1.11,694,-0.210,-0.210,-0.210,0.000,0.000,0.000
1640079319939474944,"2021-12-21,09:35:19",10.1.1.11,0.832036018371582,-0.210,-0.210,-0.210,0.000,0.000,0.000
1640079320679577088,"2021-12-21,09:35:20",10.1.1.11,729,-0.220,-0.220,-0.220,0.000,0.000,0.000
1640079320867652864,"2021-12-21,09:35:20",10.1.1.11,0.9180059432983398,-0.220,-0.220,-0.220,0.000,0.000,0.000
1640079321525502976,"2021-12-21,09:35:21",10.1.1.11,644,-0.230,-0.230,-0.230,0.000,0.000,0.000
1640079321671710976,"2021-12-21,09:35:21",10.1.1.11,0.7911989688873291,-0.230,-0.230,-0.230,0.000,0.000,0.000
1640079322618022912,"2021-12-21,09:35:22",10.1.1.11,874,-0.240,-0.240,-0.240,0.000,0.000,0.000
1640079322849136128,"2021-12-21,09:35:22",10.1.1.11,1.1279709339141846,-0.240,-0.240,-0.240,0.000,0.000,0.000
1640079323556608000,"2021-12-21,09:35:23",10.1.1.11,0.6905999183654785,-0.250,-0.250,-0.250,0.000,0.000,0.000
1640079324608951040,"2021-12-21,09:35:24",10.1.1.11,1.0329790115356445,-0.260,-0.260,-0.260,0.000,0.000,0.000
1640079324609684992,"2021-12-21,09:35:24",10.1.1.11,1033,-0.260,-0.260,-0.260,0.000,0.000,0.000
1640079325971930112,"2021-12-21,09:35:25",10.1.1.11,888,-0.270,-0.270,-0.270,0.000,0.000,0.000
1640079326166349056,"2021-12-21,09:35:26",10.1.1.11,1.5561439990997314,-0.270,-0.270,-0.270,0.000,0.000,0.000
1640079327335205120,"2021-12-21,09:35:27",10.1.1.11,1.1096949577331543,-0.280,-0.280,-0.280,0.000,0.000,0.000
1640079327443662848,"2021-12-21,09:35:26",10.1.1.11,812,-0.290,-0.290,-0.290,0.000,0.000,0.000
1640079328210670848,"2021-12-21,09:35:28",10.1.1.11,789,-0.290,-0.290,-0.290,0.000,0.000,0.000
1640079328449479168,"2021-12-21,09:35:28",10.1.1.11,1.0289089679718018,-0.290,-0.290,-0.290,0.000,0.000,0.000
1640079329536536064,"2021-12-21,09:35:29",10.1.1.11,0.6452620029449463,-0.300,-0.300,-0.300,0.000,0.000,0.000
1640079329581021952,"2021-12-21,09:35:29",10.1.1.11,1124,-0.300,-0.300,-0.300,0.000,0.000,0.000
1640079330054212096,"2021-12-21,09:35:30",10.1.1.11,451,-0.310,-0.310,-0.310,0.000,0.000,0.000
1640079330169356032,"2021-12-21,09:35:30",10.1.1.11,0.5745501518249512,-0.310,-0.310,-0.310,0.000,0.000,0.000
1640079331232610048,"2021-12-21,09:35:31",10.1.1.11,1015,-0.320,-0.320,-0.320,0.000,0.000,0.000
1640079331336486144,"2021-12-21,09:35:31",10.1.1.11,1.1093978881835938,-0.320,-0.320,-0.320,0.000,0.000,0.000
1640079332598078976,"2021-12-21,09:35:32",10.1.1.11,1.2567470073699951,-0.330,-0.330,-0.330,0.000,0.000,0.000
1640079334028408064,"2021-12-21,09:35:33",10.1.1.11,1.1595439910888672,-0.340,-0.340,-0.340,0.000,0.000,0.000
1640079336296020992,"2021-12-21,09:35:36",10.1.1.11,2207,-0.350,-0.350,-0.350,0.000,0.000,0.000
1640079336464560896,"2021-12-21,09:35:36",10.1.1.11,2.3761298656463623,-0.350,-0.350,-0.350,0.000,0.000,0.000
1640079337093626112,"2021-12-21,09:35:37",10.1.1.11,601,-0.360,-0.360,-0.360,0.000,0.000,0.000
1640079337240425984,"2021-12-21,09:35:37",10.1.1.11,0.7486019134521484,-0.360,-0.360,-0.360,0.000,0.000,0.000
1640079338102510848,"2021-12-21,09:35:38",10.1.1.11,802,-0.370,-0.370,-0.370,0.000,0.000,0.000
1640079338135375104,"2021-12-21,09:35:38",10.1.1.11,0.8350229263305664,-0.370,-0.370,-0.370,0.000,0.000,0.000
1640079339793572864,"2021-12-21,09:35:38",10.1.1.11,752,-0.380,-0.380,-0.380,0.000,0.000,0.000
1640079339911859968,"2021-12-21,09:35:39",10.1.1.11,1.7748639583587646,-0.380,-0.380,-0.380,0.000,0.000,0.000
1640079340672604928,"2021-12-21,09:35:40",10.1.1.11,737,-0.390,-0.390,-0.390,0.000,0.000,0.000
1640079340685616896,"2021-12-21,09:35:40",10.1.1.11,0.750471830368042,-0.390,-0.390,-0.390,0.000,0.000,0.000
1640079340713437184,"2021-12-21,09:35:40",10.1.1.11,-17,-0.400,-0.400,-0.400,0.000,0.000,0.000
1640079341319011840,"2021-12-21,09:35:41",10.1.1.11,0.6163167953491211,-0.400,-0.400,-0.400,0.000,0.000,0.000
1640079342802748928,"2021-12-21,09:35:42",10.1.1.11,865,-0.410,-0.410,-0.410,0.000,0.000,0.000
1640079343030141184,"2021-12-21,09:35:43",10.1.1.11,1.692613124847412,-0.410,-0.410,-0.410,0.000,0.000,0.000
1640079344226327040,"2021-12-21,09:35:43",10.1.1.11,899,-0.420,-0.420,-0.420,0.000,0.000,0.000
1640079344465334784,"2021-12-21,09:35:44",10.1.1.11,1.3993258476257324,-0.420,-0.420,-0.420,0.000,0.000,0.000
1640079345200623872,"2021-12-21,09:35:45",10.1.1.11,712,-0.430,-0.430,-0.430,0.000,0.000,0.000
1640079345233391104,"2021-12-21,09:35:45",10.1.1.11,0.7454450130462646,-0.430,-0.430,-0.430,0.000,0.000,0.000
1640079346619884032,"2021-12-21,09:35:46",10.1.1.11,989,-0.440,-0.440,-0.440,0.000,0.000,0.000
1640079346855864064,"2021-12-21,09:35:46",10.1.1.11,1.6167829036712646,-0.440,-0.440,-0.440,0.000,0.000,0.000
1640079348101007104,"2021-12-21,09:35:47",10.1.1.11,982,-0.450,-0.450,-0.450,0.000,0.000,0.000
1640079348176352000,"2021-12-21,09:35:48",10.1.1.11,1.305009126663208,-0.450,-0.450,-0.450,0.000,0.000,0.000
1640079351132754176,"2021-12-21,09:35:49",10.1.1.11,1675,-0.460,-0.460,-0.460,0.000,0.000,0.000
1640079351904161024,"2021-12-21,09:35:51",10.1.1.11,3.144045829772949,-0.460,-0.460,-0.460,0.000,0.000,0.000
1640079353075174144,"2021-12-21,09:35:52",10.1.1.11,829,-0.470,-0.470,-0.470,0.000,0.000,0.000
1640079353202076928,"2021-12-21,09:35:53",10.1.1.11,1.0987699031829834,-0.470,-0.470,-0.470,0.000,0.000,0.000
1640079354500530944,"2021-12-21,09:35:54",10.1.1.11,1201,-0.480,-0.480,-0.480,0.000,0.000,0.000
1640079354620677120,"2021-12-21,09:35:54",10.1.1.11,1.4091980457305908,-0.480,-0.480,-0.480,0.000,0.000,0.000
1640079355632293888,"2021-12-21,09:35:55",10.1.1.11,979,-0.490,-0.490,-0.490,0.000,0.000,0.000
1640079356268886016,"2021-12-21,09:35:56",10.1.1.11,1.4553790092468262,-0.490,-0.490,-0.490,0.000,0.000,0.000
1640079357555854080,"2021-12-21,09:35:57",10.1.1.11,1221,-0.480,-0.480,-0.480,0.000,0.000,0.000
1640079358268964096,"2021-12-21,09:35:58",10.1.1.11,1.8011908531188965,-0.480,-0.480,-0.480,0.000,0.000,0.000
1640079359708134912,"2021-12-21,09:35:59",10.1.1.11,1236,-0.470,-0.470,-0.470,0.000,0.000,0.000
1640079359835862016,"2021-12-21,09:35:59",10.1.1.11,1.4419660568237305,-0.470,-0.470,-0.470,0.000,0.000,0.000
1640079362803719168,"2021-12-21,09:36:01",10.1.1.11,1880,-0.460,-0.460,-0.460,0.000,0.000,0.000
1640079363095362816,"2021-12-21,09:36:03",10.1.1.11,3.2419679164886475,-0.460,-0.460,-0.460,0.000,0.000,0.000
1640079367136524032,"2021-12-21,09:36:04",10.1.1.11,969,-0.450,-0.450,-0.450,0.000,0.000,0.000
1640079370877906176,"2021-12-21,09:36:08",10.1.1.11,4.877015829086304,-0.450,-0.450,-0.450,0.000,0.000,0.000
1640079372915515904,"2021-12-21,09:36:12",10.1.1.11,1856,-0.440,-0.440,-0.440,0.000,0.000,0.000
1640079373228018944,"2021-12-21,09:36:13",10.1.1.11,2.1729419231414795,-0.440,-0.440,-0.440,0.000,0.000,0.000
1640079373860505088,"2021-12-21,09:36:13",10.1.1.11,579,-0.430,-0.430,-0.430,0.000,0.000,0.000
1640079374315269120,"2021-12-21,09:36:14",10.1.1.11,1.0339488983154297,-0.430,-0.430,-0.430,0.000,0.000,0.000
1640079377344355072,"2021-12-21,09:36:15",10.1.1.11,926,-0.420,-0.420,-0.420,0.000,0.000,0.000
1640079380197712896,"2021-12-21,09:36:17",10.1.1.11,3.3678641319274902,-0.420,-0.420,-0.420,0.000,0.000,0.000
1640079383130031104,"2021-12-21,09:36:20",10.1.1.11,-2929,-0.410,-0.410,-0.410,0.000,0.000,0.000
1640079394332817152,"2021-12-21,09:36:31",10.1.1.11,11.048506021499634,-0.410,-0.410,-0.410,0.000,0.000,0.000
1640079395465903872,"2021-12-21,09:36:35",10.1.1.11,727,-0.400,-0.400,-0.400,0.000,0.000,0.000
1640079395518675968,"2021-12-21,09:36:35",10.1.1.11,0.7798230648040771,-0.400,-0.400,-0.400,0.000,0.000,0.000
1640079396489509120,"2021-12-21,09:36:36",10.1.1.11,0.9679200649261475,-0.390,-0.390,-0.390,0.000,0.000,0.000
1640079396557074176,"2021-12-21,09:36:36",10.1.1.11,819,-0.390,-0.390,-0.390,0.000,0.000,0.000
1640079399875138048,"2021-12-21,09:36:39",10.1.1.11,3.317004919052124,-0.380,-0.380,-0.380,0.000,0.000,0.000
1640079399829483008,"2021-12-21,09:36:39",10.1.1.11,2624,-0.380,-0.380,-0.380,0.000,0.000,0.000
1640079400481969152,"2021-12-21,09:36:40",10.1.1.11,562,-0.370,-0.370,-0.370,0.000,0.000,0.000
1640079400517005824,"2021-12-21,09:36:40",10.1.1.11,0.5954020023345947,-0.370,-0.370,-0.370,0.000,0.000,0.000
1640079401070827008,"2021-12-21,09:36:41",10.1.1.11,519,-0.360,-0.360,-0.360,0.000,0.000,0.000
1640079403419796992,"2021-12-21,09:36:41",10.1.1.11,0.9651689529418945,-0.360,-0.360,-0.360,0.000,0.000,0.000
1640079407067186176,"2021-12-21,09:36:45",10.1.1.11,-39,-0.350,-0.350,-0.350,0.000,0.000,0.000
1640079416056029952,"2021-12-21,09:36:55",10.1.1.11,10.643790006637573,-0.350,-0.350,-0.350,0.000,0.000,0.000
1640079424140989184,"2021-12-21,09:37:02",10.1.1.11,6119,-0.340,-0.340,-0.340,0.000,0.000,0.000
1640079427015696128,"2021-12-21,09:37:06",10.1.1.11,10.013550996780396,-0.340,-0.340,-0.340,0.000,0.000,0.000
1640079430785085952,"2021-12-21,09:37:08",10.1.1.11,-284,-0.330,-0.330,-0.330,0.000,0.000,0.000
1640079438908161024,"2021-12-21,09:37:18",10.1.1.11,10.448817014694214,-0.330,-0.330,-0.330,0.000,0.000,0.000
1640079450914711040,"2021-12-21,09:37:29",10.1.1.11,10.864649057388306,-0.320,-0.320,-0.320,0.000,0.000,0.000
1640079463906807808,"2021-12-21,09:37:41",10.1.1.11,10.59989881515503,-0.310,-0.310,-0.310,0.000,0.000,0.000
1640079469786029056,"2021-12-21,09:37:47",10.1.1.11,2.809191942214966,-0.300,-0.300,-0.300,0.000,0.000,0.000
1640079580146085888,"2021-12-21,09:39:40",10.1.1.11,109.87883687019348,-0.290,-0.290,-0.290,0.000,0.000,0.000
1640079581330627072,"2021-12-21,09:39:41",10.1.1.11,1.12882399559021,-0.280,-0.280,-0.280,0.000,0.000,0.000
1640079582198561024,"2021-12-21,09:39:42",10.1.1.11,0.8602120876312256,-0.270,-0.270,-0.270,0.000,0.000,0.000
1640079583512360192,"2021-12-21,09:39:43",10.1.1.11,1.3075652122497559,-0.260,-0.260,-0.260,0.000,0.000,0.000
1640079584508566016,"2021-12-21,09:39:44",10.1.1.11,0.9586999416351318,-0.250,-0.250,-0.250,0.000,0.000,0.000
1640079585246469888,"2021-12-21,09:39:45",10.1.1.11,0.7263832092285156,-0.240,-0.240,-0.240,0.000,0.000,0.000
1640079585962596864,"2021-12-21,09:39:45",10.1.1.11,0.7009580135345459,-0.230,-0.230,-0.230,0.000,0.000,0.000
1640079586665527040,"2021-12-21,09:39:46",10.1.1.11,0.7014000415802002,-0.220,-0.220,-0.220,0.000,0.000,0.000
1640079587617506048,"2021-12-21,09:39:47",10.1.1.11,0.9415891170501709,-0.210,-0.210,-0.210,0.000,0.000,0.000
1640079588630227200,"2021-12-21,09:39:48",10.1.1.11,1.0056779384613037,-0.200,-0.200,-0.200,0.000,0.000,0.000
1640079589287870976,"2021-12-21,09:39:49",10.1.1.11,0.6461489200592041,-0.190,-0.190,-0.190,0.000,0.000,0.000
1640079590141181952,"2021-12-21,09:39:50",10.1.1.11,0.8511669635772705,-0.180,-0.180,-0.180,0.000,0.000,0.000
1640079590965879040,"2021-12-21,09:39:50",10.1.1.11,0.799069881439209,-0.170,-0.170,-0.170,0.000,0.000,0.000
1640079591672354816,"2021-12-21,09:39:51",10.1.1.11,0.6894290447235107,-0.160,-0.160,-0.160,0.000,0.000,0.000
1640079592552370944,"2021-12-21,09:39:52",10.1.1.11,0.8651320934295654,-0.150,-0.150,-0.150,0.000,0.000,0.000
1640079593537107968,"2021-12-21,09:39:53",10.1.1.11,0.9833710193634033,-0.140,-0.140,-0.140,0.000,0.000,0.000
1640079594372689920,"2021-12-21,09:39:54",10.1.1.11,0.8189730644226074,-0.130,-0.130,-0.130,0.000,0.000,0.000
1640079595201242880,"2021-12-21,09:39:55",10.1.1.11,0.824908971786499,-0.120,-0.120,-0.120,0.000,0.000,0.000
1640079596118841856,"2021-12-21,09:39:56",10.1.1.11,0.8975799083709717,-0.110,-0.110,-0.110,0.000,0.000,0.000
1640079596791915776,"2021-12-21,09:39:56",10.1.1.11,0.6715331077575684,-0.100,-0.100,-0.100,0.000,0.000,0.000
1640079597531002112,"2021-12-21,09:39:57",10.1.1.11,0.7342522144317627,-0.090,-0.090,-0.090,0.000,0.000,0.000
1640079598236125952,"2021-12-21,09:39:58",10.1.1.11,0.6987900733947754,-0.080,-0.080,-0.080,0.000,0.000,0.000
1640079599054081024,"2021-12-21,09:39:59",10.1.1.11,0.8150529861450195,-0.070,-0.070,-0.070,0.000,0.000,0.000
1640079599725108992,"2021-12-21,09:39:59",10.1.1.11,0.6643660068511963,-0.060,-0.060,-0.060,0.000,0.000,0.000
1640079600393083136,"2021-12-21,09:40:00",10.1.1.11,0.6657090187072754,-0.050,-0.050,-0.050,0.000,0.000,0.000
1640079601042820096,"2021-12-21,09:40:01",10.1.1.11,0.6483688354492188,-0.040,-0.040,-0.040,0.000,0.000,0.000
1640079601644145920,"2021-12-21,09:40:01",10.1.1.11,0.5994429588317871,-0.030,-0.030,-0.030,0.000,0.000,0.000
1640079602342305792,"2021-12-21,09:40:02",10.1.1.11,0.695591926574707,-0.020,-0.020,-0.020,0.000,0.000,0.000
1640079603241127936,"2021-12-21,09:40:03",10.1.1.11,0.8783221244812012,-0.010,-0.010,-0.010,0.000,0.000,0.000
1640079604206660864,"2021-12-21,09:40:04",10.1.1.11,0.9298949241638184,0.000,0.000,0.000,0.000,0.000,0.000
1640079604920932096,"2021-12-21,09:40:04",10.1.1.11,666,-0.010,-0.010,-0.010,0.000,0.000,0.000
1640079605359716864,"2021-12-21,09:40:05",10.1.1.11,1.1049590110778809,-0.010,-0.010,-0.010,0.000,0.000,0.000
1640079605983881984,"2021-12-21,09:40:05",10.1.1.11,594,-0.020,-0.020,-0.020,0.000,0.000,0.000
1640079606093255936,"2021-12-21,09:40:06",10.1.1.11,0.704401969909668,-0.020,-0.020,-0.020,0.000,0.000,0.000
1640079606770740992,"2021-12-21,09:40:06",10.1.1.11,657,-0.030,-0.030,-0.030,0.000,0.000,0.000
1640079606812728832,"2021-12-21,09:40:06",10.1.1.11,0.6993310451507568,-0.030,-0.030,-0.030,0.000,0.000,0.000
1640079608118573056,"2021-12-21,09:40:08",10.1.1.11,1226,-0.040,-0.040,-0.040,0.000,0.000,0.000
1640079608170070016,"2021-12-21,09:40:08",10.1.1.11,1.2810461521148682,-0.040,-0.040,-0.040,0.000,0.000,0.000
1640079608744119808,"2021-12-21,09:40:08",10.1.1.11,572,-0.050,-0.050,-0.050,0.000,0.000,0.000
1640079608934326016,"2021-12-21,09:40:08",10.1.1.11,0.762732982635498,-0.050,-0.050,-0.050,0.000,0.000,0.000
1640079609616000000,"2021-12-21,09:40:09",10.1.1.11,662,-0.060,-0.060,-0.060,0.000,0.000,0.000
1640079609709195008,"2021-12-21,09:40:09",10.1.1.11,0.7699110507965088,-0.060,-0.060,-0.060,0.000,0.000,0.000
1640079610421163008,"2021-12-21,09:40:10",10.1.1.11,690,-0.070,-0.070,-0.070,0.000,0.000,0.000
1640079610599781120,"2021-12-21,09:40:10",10.1.1.11,0.869704008102417,-0.070,-0.070,-0.070,0.000,0.000,0.000
1640079611433569792,"2021-12-21,09:40:11",10.1.1.11,830,-0.080,-0.080,-0.080,0.000,0.000,0.000
1640079611572324096,"2021-12-21,09:40:11",10.1.1.11,0.9698789119720459,-0.080,-0.080,-0.080,0.000,0.000,0.000
1640079612377059072,"2021-12-21,09:40:12",10.1.1.11,785,-0.090,-0.090,-0.090,0.000,0.000,0.000
1640079612509932032,"2021-12-21,09:40:12",10.1.1.11,0.9247422218322754,-0.090,-0.090,-0.090,0.000,0.000,0.000
1640079612640857856,"2021-12-21,09:40:12",10.1.1.11,-44,-0.100,-0.100,-0.100,0.000,0.000,0.000
1640079613216061952,"2021-12-21,09:40:13",10.1.1.11,0.689734935760498,-0.100,-0.100,-0.100,0.000,0.000,0.000
1640079613804745984,"2021-12-21,09:40:13",10.1.1.11,572,-0.110,-0.110,-0.110,0.000,0.000,0.000
1640079613898070016,"2021-12-21,09:40:13",10.1.1.11,0.6523029804229736,-0.110,-0.110,-0.110,0.000,0.000,0.000
1640079614526556928,"2021-12-21,09:40:14",10.1.1.11,626,-0.120,-0.120,-0.120,0.000,0.000,0.000
1640079614648104960,"2021-12-21,09:40:14",10.1.1.11,0.7482390403747559,-0.120,-0.120,-0.120,0.000,0.000,0.000
1640079615288912128,"2021-12-21,09:40:15",10.1.1.11,613,-0.130,-0.130,-0.130,0.000,0.000,0.000
1640079615357660160,"2021-12-21,09:40:15",10.1.1.11,0.6828160285949707,-0.130,-0.130,-0.130,0.000,0.000,0.000
1640079615839611904,"2021-12-21,09:40:15",10.1.1.11,480,-0.140,-0.140,-0.140,0.000,0.000,0.000
1640079615977373952,"2021-12-21,09:40:15",10.1.1.11,0.6178121566772461,-0.140,-0.140,-0.140,0.000,0.000,0.000
1640079616476849152,"2021-12-21,09:40:16",10.1.1.11,471,-0.150,-0.150,-0.150,0.000,0.000,0.000
1640079616728785920,"2021-12-21,09:40:16",10.1.1.11,0.7049119472503662,-0.150,-0.150,-0.150,0.000,0.000,0.000
1640079617252353024,"2021-12-21,09:40:17",10.1.1.11,515,-0.160,-0.160,-0.160,0.000,0.000,0.000
1640079617407767040,"2021-12-21,09:40:17",10.1.1.11,0.6707150936126709,-0.160,-0.160,-0.160,0.000,0.000,0.000
1640079618116589056,"2021-12-21,09:40:18",10.1.1.11,684,-0.170,-0.170,-0.170,0.000,0.000,0.000
1640079618228741888,"2021-12-21,09:40:18",10.1.1.11,0.8064060211181641,-0.170,-0.170,-0.170,0.000,0.000,0.000
1640079618808495104,"2021-12-21,09:40:18",10.1.1.11,569,-0.180,-0.180,-0.180,0.000,0.000,0.000
1640079618954394112,"2021-12-21,09:40:18",10.1.1.11,0.7152860164642334,-0.180,-0.180,-0.180,0.000,0.000,0.000
1640079619740664832,"2021-12-21,09:40:19",10.1.1.11,766,-0.190,-0.190,-0.190,0.000,0.000,0.000
1640079619764216832,"2021-12-21,09:40:19",10.1.1.11,0.7964868545532227,-0.190,-0.190,-0.190,0.000,0.000,0.000
1640079620454658048,"2021-12-21,09:40:20",10.1.1.11,0.6831278800964355,-0.200,-0.200,-0.200,0.000,0.000,0.000
1640079620454871040,"2021-12-21,09:40:20",10.1.1.11,633,-0.200,-0.200,-0.200,0.000,0.000,0.000
1640079621210236928,"2021-12-21,09:40:21",10.1.1.11,752,-0.210,-0.210,-0.210,0.000,0.000,0.000
1640079621410990848,"2021-12-21,09:40:21",10.1.1.11,0.9531021118164062,-0.210,-0.210,-0.210,0.000,0.000,0.000
1640079622036619776,"2021-12-21,09:40:22",10.1.1.11,621,-0.220,-0.220,-0.220,0.000,0.000,0.000
1640079622369625088,"2021-12-21,09:40:22",10.1.1.11,0.9560158252716064,-0.220,-0.220,-0.220,0.000,0.000,0.000
1640079623059827968,"2021-12-21,09:40:23",10.1.1.11,682,-0.230,-0.230,-0.230,0.000,0.000,0.000
1640079623148621056,"2021-12-21,09:40:23",10.1.1.11,0.7767829895019531,-0.230,-0.230,-0.230,0.000,0.000,0.000
1640079624047494912,"2021-12-21,09:40:24",10.1.1.11,786,-0.240,-0.240,-0.240,0.000,0.000,0.000
1640079624196883968,"2021-12-21,09:40:24",10.1.1.11,0.9420030117034912,-0.240,-0.240,-0.240,0.000,0.000,0.000
1640079624681803008,"2021-12-21,09:40:24",10.1.1.11,481,-0.250,-0.250,-0.250,0.000,0.000,0.000
1640079624760716032,"2021-12-21,09:40:24",10.1.1.11,0.5605862140655518,-0.250,-0.250,-0.250,0.000,0.000,0.000
1640079625272226048,"2021-12-21,09:40:25",10.1.1.11,507,-0.260,-0.260,-0.260,0.000,0.000,0.000
1640079625484369152,"2021-12-21,09:40:25",10.1.1.11,0.719851016998291,-0.260,-0.260,-0.260,0.000,0.000,0.000
1640079626104993024,"2021-12-21,09:40:26",10.1.1.11,598,-0.270,-0.270,-0.270,0.000,0.000,0.000
1640079626154243840,"2021-12-21,09:40:26",10.1.1.11,0.6453349590301514,-0.270,-0.270,-0.270,0.000,0.000,0.000
1640079626727931904,"2021-12-21,09:40:26",10.1.1.11,566,-0.280,-0.280,-0.280,0.000,0.000,0.000
1640079626825340928,"2021-12-21,09:40:26",10.1.1.11,0.6610739231109619,-0.280,-0.280,-0.280,0.000,0.000,0.000
1640079627412577024,"2021-12-21,09:40:27",10.1.1.11,559,-0.290,-0.290,-0.290,0.000,0.000,0.000
1640079627563191808,"2021-12-21,09:40:27",10.1.1.11,0.727869987487793,-0.290,-0.290,-0.290,0.000,0.000,0.000
1640079627569328896,"2021-12-21,09:40:27",10.1.1.11,-25,-0.300,-0.300,-0.300,0.000,0.000,0.000
1640079628227111936,"2021-12-21,09:40:28",10.1.1.11,0.661884069442749,-0.300,-0.300,-0.300,0.000,0.000,0.000
1640079628728990976,"2021-12-21,09:40:28",10.1.1.11,489,-0.310,-0.310,-0.310,0.000,0.000,0.000
1640079628817931776,"2021-12-21,09:40:28",10.1.1.11,0.589094877243042,-0.310,-0.310,-0.310,0.000,0.000,0.000
1640079629545246976,"2021-12-21,09:40:29",10.1.1.11,707,-0.320,-0.320,-0.320,0.000,0.000,0.000
1640079629565082112,"2021-12-21,09:40:29",10.1.1.11,0.7442409992218018,-0.320,-0.320,-0.320,0.000,0.000,0.000
1640079629609992960,"2021-12-21,09:40:29",10.1.1.11,-21,-0.330,-0.330,-0.330,0.000,0.000,0.000
1640079630408102144,"2021-12-21,09:40:30",10.1.1.11,0.8213479518890381,-0.330,-0.330,-0.330,0.000,0.000,0.000
1640079630961100032,"2021-12-21,09:40:30",10.1.1.11,550,-0.340,-0.340,-0.340,0.000,0.000,0.000
1640079630992992000,"2021-12-21,09:40:30",10.1.1.11,0.5827219486236572,-0.340,-0.340,-0.340,0.000,0.000,0.000
1640079631607577088,"2021-12-21,09:40:31",10.1.1.11,610,-0.350,-0.350,-0.350,0.000,0.000,0.000
1640079631740353024,"2021-12-21,09:40:31",10.1.1.11,0.7455341815948486,-0.350,-0.350,-0.350,0.000,0.000,0.000
1640079632294863872,"2021-12-21,09:40:32",10.1.1.11,544,-0.360,-0.360,-0.360,0.000,0.000,0.000
1640079632513193984,"2021-12-21,09:40:32",10.1.1.11,0.7706520557403564,-0.360,-0.360,-0.360,0.000,0.000,0.000
1640079633177189120,"2021-12-21,09:40:33",10.1.1.11,560,-0.370,-0.370,-0.370,0.000,0.000,0.000
1640079633387213824,"2021-12-21,09:40:33",10.1.1.11,0.8210339546203613,-0.370,-0.370,-0.370,0.000,0.000,0.000
1640079634109052928,"2021-12-21,09:40:34",10.1.1.11,705,-0.380,-0.380,-0.380,0.000,0.000,0.000
1640079634266676992,"2021-12-21,09:40:34",10.1.1.11,0.8634679317474365,-0.380,-0.380,-0.380,0.000,0.000,0.000
1640079634808237056,"2021-12-21,09:40:34",10.1.1.11,515,-0.390,-0.390,-0.390,0.000,0.000,0.000
1640079634999726080,"2021-12-21,09:40:34",10.1.1.11,0.7071471214294434,-0.390,-0.390,-0.390,0.000,0.000,0.000
1640079635643942144,"2021-12-21,09:40:35",10.1.1.11,641,-0.400,-0.400,-0.400,0.000,0.000,0.000
1640079635821917952,"2021-12-21,09:40:35",10.1.1.11,0.8197989463806152,-0.400,-0.400,-0.400,0.000,0.000,0.000
1640079636570358016,"2021-12-21,09:40:36",10.1.1.11,734,-0.410,-0.410,-0.410,0.000,0.000,0.000
1640079636731802880,"2021-12-21,09:40:36",10.1.1.11,0.8964219093322754,-0.410,-0.410,-0.410,0.000,0.000,0.000
1640079637191287040,"2021-12-21,09:40:37",10.1.1.11,454,-0.420,-0.420,-0.420,0.000,0.000,0.000
1640079637271887104,"2021-12-21,09:40:37",10.1.1.11,0.5351319313049316,-0.420,-0.420,-0.420,0.000,0.000,0.000
1640079637755475968,"2021-12-21,09:40:37",10.1.1.11,469,-0.430,-0.430,-0.430,0.000,0.000,0.000
1640079637962085120,"2021-12-21,09:40:37",10.1.1.11,0.6762709617614746,-0.430,-0.430,-0.430,0.000,0.000,0.000
1640079638509236992,"2021-12-21,09:40:38",10.1.1.11,501,-0.440,-0.440,-0.440,0.000,0.000,0.000
1640079638608943104,"2021-12-21,09:40:38",10.1.1.11,0.6012969017028809,-0.440,-0.440,-0.440,0.000,0.000,0.000
1640079639289540096,"2021-12-21,09:40:39",10.1.1.11,646,-0.450,-0.450,-0.450,0.000,0.000,0.000
1640079639367959040,"2021-12-21,09:40:39",10.1.1.11,0.725024938583374,-0.450,-0.450,-0.450,0.000,0.000,0.000
1640079639906459136,"2021-12-21,09:40:39",10.1.1.11,537,-0.460,-0.460,-0.460,0.000,0.000,0.000
1640079640263362816,"2021-12-21,09:40:40",10.1.1.11,0.8939418792724609,-0.460,-0.460,-0.460,0.000,0.000,0.000
1640079640797239040,"2021-12-21,09:40:40",10.1.1.11,512,-0.470,-0.470,-0.470,0.000,0.000,0.000
1640079641086375936,"2021-12-21,09:40:41",10.1.1.11,0.80171799659729,-0.470,-0.470,-0.470,0.000,0.000,0.000
1640079641668283904,"2021-12-21,09:40:41",10.1.1.11,579,-0.480,-0.480,-0.480,0.000,0.000,0.000
1640079641774051840,"2021-12-21,09:40:41",10.1.1.11,0.6851489543914795,-0.480,-0.480,-0.480,0.000,0.000,0.000
1640079642464133120,"2021-12-21,09:40:42",10.1.1.11,655,-0.490,-0.490,-0.490,0.000,0.000,0.000
1640079642533452032,"2021-12-21,09:40:42",10.1.1.11,0.7314620018005371,-0.490,-0.490,-0.490,0.000,0.000,0.000
1640079643064819968,"2021-12-21,09:40:43",10.1.1.11,506,-0.480,-0.480,-0.480,0.000,0.000,0.000
1640079643142679040,"2021-12-21,09:40:43",10.1.1.11,0.5842130184173584,-0.480,-0.480,-0.480,0.000,0.000,0.000
1640079643592526848,"2021-12-21,09:40:43",10.1.1.11,443,-0.470,-0.470,-0.470,0.000,0.000,0.000
1640079643672150016,"2021-12-21,09:40:43",10.1.1.11,0.5213069915771484,-0.470,-0.470,-0.470,0.000,0.000,0.000
1640079644314382080,"2021-12-21,09:40:44",10.1.1.11,639,-0.460,-0.460,-0.460,0.000,0.000,0.000
1640079644400729856,"2021-12-21,09:40:44",10.1.1.11,0.7263760566711426,-0.460,-0.460,-0.460,0.000,0.000,0.000
1640079645047642112,"2021-12-21,09:40:45",10.1.1.11,619,-0.450,-0.450,-0.450,0.000,0.000,0.000
1640079645161945088,"2021-12-21,09:40:45",10.1.1.11,0.7335519790649414,-0.450,-0.450,-0.450,0.000,0.000,0.000
1640079645713180928,"2021-12-21,09:40:45",10.1.1.11,534,-0.440,-0.440,-0.440,0.000,0.000,0.000
1640079646011128064,"2021-12-21,09:40:46",10.1.1.11,0.8326249122619629,-0.440,-0.440,-0.440,0.000,0.000,0.000
1640079646503856896,"2021-12-21,09:40:46",10.1.1.11,480,-0.430,-0.430,-0.430,0.000,0.000,0.000
1640079646651392000,"2021-12-21,09:40:46",10.1.1.11,0.6387948989868164,-0.430,-0.430,-0.430,0.000,0.000,0.000
1640079647113758976,"2021-12-21,09:40:47",10.1.1.11,442,-0.420,-0.420,-0.420,0.000,0.000,0.000
1640079647326353152,"2021-12-21,09:40:47",10.1.1.11,0.6551940441131592,-0.420,-0.420,-0.420,0.000,0.000,0.000
1640079647789035008,"2021-12-21,09:40:47",10.1.1.11,452,-0.410,-0.410,-0.410,0.000,0.000,0.000
1640079647920700928,"2021-12-21,09:40:47",10.1.1.11,0.584212064743042,-0.410,-0.410,-0.410,0.000,0.000,0.000
1640079648501980928,"2021-12-21,09:40:48",10.1.1.11,538,-0.400,-0.400,-0.400,0.000,0.000,0.000
1640079648643551232,"2021-12-21,09:40:48",10.1.1.11,0.6796810626983643,-0.400,-0.400,-0.400,0.000,0.000,0.000
1640079649106659840,"2021-12-21,09:40:49",10.1.1.11,458,-0.390,-0.390,-0.390,0.000,0.000,0.000
1640079649241369088,"2021-12-21,09:40:49",10.1.1.11,0.5932149887084961,-0.390,-0.390,-0.390,0.000,0.000,0.000
1640079649973315072,"2021-12-21,09:40:49",10.1.1.11,686,-0.380,-0.380,-0.380,0.000,0.000,0.000
1640079650024175872,"2021-12-21,09:40:50",10.1.1.11,0.7376720905303955,-0.380,-0.380,-0.380,0.000,0.000,0.000
1640079650602950144,"2021-12-21,09:40:50",10.1.1.11,575,-0.370,-0.370,-0.370,0.000,0.000,0.000
1640079650682430976,"2021-12-21,09:40:50",10.1.1.11,0.654839038848877,-0.370,-0.370,-0.370,0.000,0.000,0.000
1640079651280664832,"2021-12-21,09:40:51",10.1.1.11,587,-0.360,-0.360,-0.360,0.000,0.000,0.000
1640079651424400128,"2021-12-21,09:40:51",10.1.1.11,0.7302191257476807,-0.360,-0.360,-0.360,0.000,0.000,0.000
1640079651966348032,"2021-12-21,09:40:51",10.1.1.11,540,-0.350,-0.350,-0.350,0.000,0.000,0.000
1640079652127293952,"2021-12-21,09:40:52",10.1.1.11,0.7010669708251953,-0.350,-0.350,-0.350,0.000,0.000,0.000
1640079652655385088,"2021-12-21,09:40:52",10.1.1.11,512,-0.340,-0.340,-0.340,0.000,0.000,0.000
1640079652872355840,"2021-12-21,09:40:52",10.1.1.11,0.7296810150146484,-0.340,-0.340,-0.340,0.000,0.000,0.000
1640079653450395136,"2021-12-21,09:40:53",10.1.1.11,561,-0.330,-0.330,-0.330,0.000,0.000,0.000
1640079653588401920,"2021-12-21,09:40:53",10.1.1.11,0.6999080181121826,-0.330,-0.330,-0.330,0.000,0.000,0.000
1640079654053863168,"2021-12-21,09:40:54",10.1.1.11,463,-0.320,-0.320,-0.320,0.000,0.000,0.000
1640079654133705984,"2021-12-21,09:40:54",10.1.1.11,0.5436708927154541,-0.320,-0.320,-0.320,0.000,0.000,0.000
1640079654887798016,"2021-12-21,09:40:54",10.1.1.11,730,-0.310,-0.310,-0.310,0.000,0.000,0.000
1640079655009335040,"2021-12-21,09:40:55",10.1.1.11,0.8606770038604736,-0.310,-0.310,-0.310,0.000,0.000,0.000
1640079655612532992,"2021-12-21,09:40:55",10.1.1.11,559,-0.300,-0.300,-0.300,0.000,0.000,0.000
1640079655765667072,"2021-12-21,09:40:55",10.1.1.11,0.7124741077423096,-0.300,-0.300,-0.300,0.000,0.000,0.000
1640079656343389952,"2021-12-21,09:40:56",10.1.1.11,572,-0.290,-0.290,-0.290,0.000,0.000,0.000
1640079656494276096,"2021-12-21,09:40:56",10.1.1.11,0.7229568958282471,-0.290,-0.290,-0.290,0.000,0.000,0.000
1640079657264580864,"2021-12-21,09:40:57",10.1.1.11,741,-0.280,-0.280,-0.280,0.000,0.000,0.000
1640079657292075008,"2021-12-21,09:40:57",10.1.1.11,0.7692608833312988,-0.280,-0.280,-0.280,0.000,0.000,0.000
1640079658057384960,"2021-12-21,09:40:58",10.1.1.11,751,-0.270,-0.270,-0.270,0.000,0.000,0.000
1640079658239208960,"2021-12-21,09:40:58",10.1.1.11,0.933819055557251,-0.270,-0.270,-0.270,0.000,0.000,0.000
1640079658819744000,"2021-12-21,09:40:58",10.1.1.11,573,-0.260,-0.260,-0.260,0.000,0.000,0.000
1640079658935281152,"2021-12-21,09:40:58",10.1.1.11,0.6789259910583496,-0.260,-0.260,-0.260,0.000,0.000,0.000
1640079659431382016,"2021-12-21,09:40:59",10.1.1.11,494,-0.250,-0.250,-0.250,0.000,0.000,0.000
1640079659755613184,"2021-12-21,09:40:59",10.1.1.11,0.8101210594177246,-0.250,-0.250,-0.250,0.000,0.000,0.000
1640079660536382976,"2021-12-21,09:41:00",10.1.1.11,765,-0.240,-0.240,-0.240,0.000,0.000,0.000
1640079660605725952,"2021-12-21,09:41:00",10.1.1.11,0.8350520133972168,-0.240,-0.240,-0.240,0.000,0.000,0.000
1640079661324894976,"2021-12-21,09:41:01",10.1.1.11,716,-0.230,-0.230,-0.230,0.000,0.000,0.000
1640079661450462208,"2021-12-21,09:41:01",10.1.1.11,0.8422749042510986,-0.230,-0.230,-0.230,0.000,0.000,0.000
1640079662022520064,"2021-12-21,09:41:02",10.1.1.11,570,-0.220,-0.220,-0.220,0.000,0.000,0.000
1640079662119160064,"2021-12-21,09:41:02",10.1.1.11,0.6668012142181396,-0.220,-0.220,-0.220,0.000,0.000,0.000
1640079662735283968,"2021-12-21,09:41:02",10.1.1.11,606,-0.210,-0.210,-0.210,0.000,0.000,0.000
1640079662996462080,"2021-12-21,09:41:02",10.1.1.11,0.8678159713745117,-0.210,-0.210,-0.210,0.000,0.000,0.000
1640079663484371968,"2021-12-21,09:41:03",10.1.1.11,476,-0.200,-0.200,-0.200,0.000,0.000,0.000
1640079663619309056,"2021-12-21,09:41:03",10.1.1.11,0.6123969554901123,-0.200,-0.200,-0.200,0.000,0.000,0.000
1640079664548332032,"2021-12-21,09:41:04",10.1.1.11,876,-0.190,-0.190,-0.190,0.000,0.000,0.000
1640079664671371008,"2021-12-21,09:41:04",10.1.1.11,1.0131680965423584,-0.190,-0.190,-0.190,0.000,0.000,0.000
1640079665570929920,"2021-12-21,09:41:05",10.1.1.11,896,-0.180,-0.180,-0.180,0.000,0.000,0.000
1640079665957891840,"2021-12-21,09:41:05",10.1.1.11,1.2834718227386475,-0.180,-0.180,-0.180,0.000,0.000,0.000
1640079666348290816,"2021-12-21,09:41:06",10.1.1.11,372,-0.170,-0.170,-0.170,0.000,0.000,0.000
1640079666403301888,"2021-12-21,09:41:06",10.1.1.11,0.4277338981628418,-0.170,-0.170,-0.170,0.000,0.000,0.000
1640079666911801088,"2021-12-21,09:41:06",10.1.1.11,498,-0.160,-0.160,-0.160,0.000,0.000,0.000
1640079667052884224,"2021-12-21,09:41:07",10.1.1.11,0.639991044998169,-0.160,-0.160,-0.160,0.000,0.000,0.000
1640079667534543104,"2021-12-21,09:41:07",10.1.1.11,465,-0.150,-0.150,-0.150,0.000,0.000,0.000
1640079667617729024,"2021-12-21,09:41:07",10.1.1.11,0.5630149841308594,-0.150,-0.150,-0.150,0.000,0.000,0.000
1640079668427005952,"2021-12-21,09:41:08",10.1.1.11,736,-0.140,-0.140,-0.140,0.000,0.000,0.000
1640079668592411136,"2021-12-21,09:41:08",10.1.1.11,0.9018080234527588,-0.140,-0.140,-0.140,0.000,0.000,0.000
1640079669207005952,"2021-12-21,09:41:09",10.1.1.11,572,-0.130,-0.130,-0.130,0.000,0.000,0.000
1640079669275835904,"2021-12-21,09:41:09",10.1.1.11,0.6413640975952148,-0.130,-0.130,-0.130,0.000,0.000,0.000
1640079669778168832,"2021-12-21,09:41:09",10.1.1.11,493,-0.120,-0.120,-0.120,0.000,0.000,0.000
1640079669983758080,"2021-12-21,09:41:09",10.1.1.11,0.7044730186462402,-0.120,-0.120,-0.120,0.000,0.000,0.000
1640079670605890048,"2021-12-21,09:41:10",10.1.1.11,610,-0.110,-0.110,-0.110,0.000,0.000,0.000
1640079670802867968,"2021-12-21,09:41:10",10.1.1.11,0.8088729381561279,-0.110,-0.110,-0.110,0.000,0.000,0.000
1640079671474272000,"2021-12-21,09:41:11",10.1.1.11,669,-0.100,-0.100,-0.100,0.000,0.000,0.000
1640079671693366016,"2021-12-21,09:41:11",10.1.1.11,0.8883049488067627,-0.100,-0.100,-0.100,0.000,0.000,0.000
1640079672352004096,"2021-12-21,09:41:12",10.1.1.11,644,-0.090,-0.090,-0.090,0.000,0.000,0.000
1640079672683974144,"2021-12-21,09:41:12",10.1.1.11,0.9767599105834961,-0.090,-0.090,-0.090,0.000,0.000,0.000
1640079673324307968,"2021-12-21,09:41:13",10.1.1.11,567,-0.080,-0.080,-0.080,0.000,0.000,0.000
1640079673384206080,"2021-12-21,09:41:13",10.1.1.11,0.6275830268859863,-0.080,-0.080,-0.080,0.000,0.000,0.000
1640079674002063872,"2021-12-21,09:41:14",10.1.1.11,595,-0.070,-0.070,-0.070,0.000,0.000,0.000
1640079674119286016,"2021-12-21,09:41:14",10.1.1.11,0.713353157043457,-0.070,-0.070,-0.070,0.000,0.000,0.000
1640079674558582016,"2021-12-21,09:41:14",10.1.1.11,437,-0.060,-0.060,-0.060,0.000,0.000,0.000
1640079674720566016,"2021-12-21,09:41:14",10.1.1.11,0.5996870994567871,-0.060,-0.060,-0.060,0.000,0.000,0.000
1640079675270894080,"2021-12-21,09:41:15",10.1.1.11,529,-0.050,-0.050,-0.050,0.000,0.000,0.000
1640079675318460928,"2021-12-21,09:41:15",10.1.1.11,0.5766658782958984,-0.050,-0.050,-0.050,0.000,0.000,0.000
1640079675805892864,"2021-12-21,09:41:15",10.1.1.11,482,-0.040,-0.040,-0.040,0.000,0.000,0.000
1640079675911164160,"2021-12-21,09:41:15",10.1.1.11,0.5880911350250244,-0.040,-0.040,-0.040,0.000,0.000,0.000
1640079676383642880,"2021-12-21,09:41:16",10.1.1.11,470,-0.030,-0.030,-0.030,0.000,0.000,0.000
1640079676503834880,"2021-12-21,09:41:16",10.1.1.11,0.5905170440673828,-0.030,-0.030,-0.030,0.000,0.000,0.000
1640079677027688960,"2021-12-21,09:41:17",10.1.1.11,521,-0.020,-0.020,-0.020,0.000,0.000,0.000
1640079677203563008,"2021-12-21,09:41:17",10.1.1.11,0.6974570751190186,-0.020,-0.020,-0.020,0.000,0.000,0.000
1640079677720537856,"2021-12-21,09:41:17",10.1.1.11,501,-0.010,-0.010,-0.010,0.000,0.000,0.000
1640079678024254208,"2021-12-21,09:41:18",10.1.1.11,0.8186919689178467,-0.010,-0.010,-0.010,0.000,0.000,0.000
1640079678087773952,"2021-12-21,09:41:18",10.1.1.11,-1,0.000,0.000,0.000,0.000,0.000,0.000
1640079678803932928,"2021-12-21,09:41:18",10.1.1.11,0.7364201545715332,0.000,0.000,0.000,0.000,0.000,0.000
1640079679515971072,"2021-12-21,09:41:19",10.1.1.11,678,-0.010,-0.010,-0.010,0.000,0.000,0.000
1640079679624087040,"2021-12-21,09:41:19",10.1.1.11,0.7870421409606934,-0.010,-0.010,-0.010,0.000,0.000,0.000
1640079680200416000,"2021-12-21,09:41:20",10.1.1.11,543,-0.020,-0.020,-0.020,0.000,0.000,0.000
1640079680305490944,"2021-12-21,09:41:20",10.1.1.11,0.6486070156097412,-0.020,-0.020,-0.020,0.000,0.000,0.000
1640079680661981952,"2021-12-21,09:41:20",10.1.1.11,350,-0.030,-0.030,-0.030,0.000,0.000,0.000
1640079680755860992,"2021-12-21,09:41:20",10.1.1.11,0.44420409202575684,-0.030,-0.030,-0.030,0.000,0.000,0.000
1640079681220065024,"2021-12-21,09:41:21",10.1.1.11,459,-0.040,-0.040,-0.040,0.000,0.000,0.000
1640079681262392064,"2021-12-21,09:41:21",10.1.1.11,0.5015819072723389,-0.040,-0.040,-0.040,0.000,0.000,0.000
1640079681654380032,"2021-12-21,09:41:21",10.1.1.11,387,-0.050,-0.050,-0.050,0.000,0.000,0.000
1640079681760718080,"2021-12-21,09:41:21",10.1.1.11,0.4961361885070801,-0.050,-0.050,-0.050,0.000,0.000,0.000
1640079682165149952,"2021-12-21,09:41:22",10.1.1.11,402,-0.060,-0.060,-0.060,0.000,0.000,0.000
1640079682271627008,"2021-12-21,09:41:22",10.1.1.11,0.5089261531829834,-0.060,-0.060,-0.060,0.000,0.000,0.000
1640079682785698048,"2021-12-21,09:41:22",10.1.1.11,505,-0.070,-0.070,-0.070,0.000,0.000,0.000
1640079682987330816,"2021-12-21,09:41:22",10.1.1.11,0.7044482231140137,-0.070,-0.070,-0.070,0.000,0.000,0.000
1640079683571801856,"2021-12-21,09:41:23",10.1.1.11,578,-0.080,-0.080,-0.080,0.000,0.000,0.000
1640079683621160960,"2021-12-21,09:41:23",10.1.1.11,0.6309409141540527,-0.080,-0.080,-0.080,0.000,0.000,0.000
1640079684104681984,"2021-12-21,09:41:24",10.1.1.11,467,-0.090,-0.090,-0.090,0.000,0.000,0.000
1640079684199184896,"2021-12-21,09:41:24",10.1.1.11,0.5615870952606201,-0.090,-0.090,-0.090,0.000,0.000,0.000
1640079684743456000,"2021-12-21,09:41:24",10.1.1.11,540,-0.100,-0.100,-0.100,0.000,0.000,0.000
1640079684798438144,"2021-12-21,09:41:24",10.1.1.11,0.5974490642547607,-0.100,-0.100,-0.100,0.000,0.000,0.000
1640079685222825984,"2021-12-21,09:41:25",10.1.1.11,416,-0.110,-0.110,-0.110,0.000,0.000,0.000
1640079685304686080,"2021-12-21,09:41:25",10.1.1.11,0.4958508014678955,-0.110,-0.110,-0.110,0.000,0.000,0.000
1640079685799206144,"2021-12-21,09:41:25",10.1.1.11,482,-0.120,-0.120,-0.120,0.000,0.000,0.000
1640079685868275968,"2021-12-21,09:41:25",10.1.1.11,0.5514011383056641,-0.120,-0.120,-0.120,0.000,0.000,0.000
1640079686389085952,"2021-12-21,09:41:26",10.1.1.11,519,-0.130,-0.130,-0.130,0.000,0.000,0.000
1640079686466129152,"2021-12-21,09:41:26",10.1.1.11,0.5962178707122803,-0.130,-0.130,-0.130,0.000,0.000,0.000
1640079686857885952,"2021-12-21,09:41:26",10.1.1.11,389,-0.140,-0.140,-0.140,0.000,0.000,0.000
1640079686953406976,"2021-12-21,09:41:26",10.1.1.11,0.48505282402038574,-0.140,-0.140,-0.140,0.000,0.000,0.000
1640079687286242048,"2021-12-21,09:41:27",10.1.1.11,322,-0.150,-0.150,-0.150,0.000,0.000,0.000
1640079687443219968,"2021-12-21,09:41:27",10.1.1.11,0.4790520668029785,-0.150,-0.150,-0.150,0.000,0.000,0.000
1640079687816797952,"2021-12-21,09:41:27",10.1.1.11,370,-0.160,-0.160,-0.160,0.000,0.000,0.000
1640079687930152960,"2021-12-21,09:41:27",10.1.1.11,0.48403406143188477,-0.160,-0.160,-0.160,0.000,0.000,0.000
1640079688356455936,"2021-12-21,09:41:28",10.1.1.11,423,-0.170,-0.170,-0.170,0.000,0.000,0.000
1640079688493128960,"2021-12-21,09:41:28",10.1.1.11,0.5602021217346191,-0.170,-0.170,-0.170,0.000,0.000,0.000
1640079688857101824,"2021-12-21,09:41:28",10.1.1.11,356,-0.180,-0.180,-0.180,0.000,0.000,0.000
1640079688912131072,"2021-12-21,09:41:28",10.1.1.11,0.4118921756744385,-0.180,-0.180,-0.180,0.000,0.000,0.000
1640079689286150912,"2021-12-21,09:41:29",10.1.1.11,366,-0.190,-0.190,-0.190,0.000,0.000,0.000
1640079689344641024,"2021-12-21,09:41:29",10.1.1.11,0.42513012886047363,-0.190,-0.190,-0.190,0.000,0.000,0.000
1640079689358127104,"2021-12-21,09:41:29",10.1.1.11,-25,-0.200,-0.200,-0.200,0.000,0.000,0.000
1640079689819063808,"2021-12-21,09:41:29",10.1.1.11,0.466015100479126,-0.200,-0.200,-0.200,0.000,0.000,0.000
1640079690320677888,"2021-12-21,09:41:30",10.1.1.11,499,-0.210,-0.210,-0.210,0.000,0.000,0.000
1640079690373851904,"2021-12-21,09:41:30",10.1.1.11,0.5529160499572754,-0.210,-0.210,-0.210,0.000,0.000,0.000
1640079690826181888,"2021-12-21,09:41:30",10.1.1.11,446,-0.220,-0.220,-0.220,0.000,0.000,0.000
1640079690869001984,"2021-12-21,09:41:30",10.1.1.11,0.4895009994506836,-0.220,-0.220,-0.220,0.000,0.000,0.000
1640079691284195072,"2021-12-21,09:41:31",10.1.1.11,399,-0.230,-0.230,-0.230,0.000,0.000,0.000
1640079691334675968,"2021-12-21,09:41:31",10.1.1.11,0.45046091079711914,-0.230,-0.230,-0.230,0.000,0.000,0.000
1640079691767891968,"2021-12-21,09:41:31",10.1.1.11,422,-0.240,-0.240,-0.240,0.000,0.000,0.000
1640079691831948032,"2021-12-21,09:41:31",10.1.1.11,0.48697495460510254,-0.240,-0.240,-0.240,0.000,0.000,0.000
1640079692199774976,"2021-12-21,09:41:32",10.1.1.11,353,-0.250,-0.250,-0.250,0.000,0.000,0.000
1640079692317008128,"2021-12-21,09:41:32",10.1.1.11,0.4707179069519043,-0.250,-0.250,-0.250,0.000,0.000,0.000
1640079692784239104,"2021-12-21,09:41:32",10.1.1.11,462,-0.260,-0.260,-0.260,0.000,0.000,0.000
1640079692837353984,"2021-12-21,09:41:32",10.1.1.11,0.5157690048217773,-0.260,-0.260,-0.260,0.000,0.000,0.000
1640079693241767936,"2021-12-21,09:41:33",10.1.1.11,398,-0.270,-0.270,-0.270,0.000,0.000,0.000
1640079693292570112,"2021-12-21,09:41:33",10.1.1.11,0.4489130973815918,-0.270,-0.270,-0.270,0.000,0.000,0.000
1640079693666119936,"2021-12-21,09:41:33",10.1.1.11,368,-0.280,-0.280,-0.280,0.000,0.000,0.000
1640079693773673984,"2021-12-21,09:41:33",10.1.1.11,0.47591495513916016,-0.280,-0.280,-0.280,0.000,0.000,0.000
1640079694125688064,"2021-12-21,09:41:34",10.1.1.11,345,-0.290,-0.290,-0.290,0.000,0.000,0.000
1640079694194873088,"2021-12-21,09:41:34",10.1.1.11,0.41519594192504883,-0.290,-0.290,-0.290,0.000,0.000,0.000
1640079694578886144,"2021-12-21,09:41:34",10.1.1.11,375,-0.300,-0.300,-0.300,0.000,0.000,0.000
1640079694629974016,"2021-12-21,09:41:34",10.1.1.11,0.42690491676330566,-0.300,-0.300,-0.300,0.000,0.000,0.000
1640079695026855936,"2021-12-21,09:41:35",10.1.1.11,387,-0.310,-0.310,-0.310,0.000,0.000,0.000
1640079695076020992,"2021-12-21,09:41:35",10.1.1.11,0.43662595748901367,-0.310,-0.310,-0.310,0.000,0.000,0.000
1640079695435270912,"2021-12-21,09:41:35",10.1.1.11,357,-0.320,-0.320,-0.320,0.000,0.000,0.000
1640079695464678912,"2021-12-21,09:41:35",10.1.1.11,0.38665199279785156,-0.320,-0.320,-0.320,0.000,0.000,0.000
1640079695824291840,"2021-12-21,09:41:35",10.1.1.11,357,-0.330,-0.330,-0.330,0.000,0.000,0.000
1640079695948101888,"2021-12-21,09:41:35",10.1.1.11,0.4783511161804199,-0.330,-0.330,-0.330,0.000,0.000,0.000
1640079696364032000,"2021-12-21,09:41:36",10.1.1.11,399,-0.340,-0.340,-0.340,0.000,0.000,0.000
1640079696570127104,"2021-12-21,09:41:36",10.1.1.11,0.6066489219665527,-0.340,-0.340,-0.340,0.000,0.000,0.000
1640079696972201984,"2021-12-21,09:41:36",10.1.1.11,396,-0.350,-0.350,-0.350,0.000,0.000,0.000
1640079697045583872,"2021-12-21,09:41:37",10.1.1.11,0.4692511558532715,-0.350,-0.350,-0.350,0.000,0.000,0.000
1640079697458860032,"2021-12-21,09:41:37",10.1.1.11,410,-0.360,-0.360,-0.360,0.000,0.000,0.000
1640079697535161088,"2021-12-21,09:41:37",10.1.1.11,0.48680591583251953,-0.360,-0.360,-0.360,0.000,0.000,0.000
1640079697893989120,"2021-12-21,09:41:37",10.1.1.11,352,-0.370,-0.370,-0.370,0.000,0.000,0.000
1640079698015127808,"2021-12-21,09:41:38",10.1.1.11,0.473970890045166,-0.370,-0.370,-0.370,0.000,0.000,0.000
1640079698455106048,"2021-12-21,09:41:38",10.1.1.11,381,-0.380,-0.380,-0.380,0.000,0.000,0.000
1640079698460051968,"2021-12-21,09:41:38",10.1.1.11,0.4372580051422119,-0.380,-0.380,-0.380,0.000,0.000,0.000
1640079698884007936,"2021-12-21,09:41:38",10.1.1.11,419,-0.390,-0.390,-0.390,0.000,0.000,0.000
1640079698906704896,"2021-12-21,09:41:38",10.1.1.11,0.4422111511230469,-0.390,-0.390,-0.390,0.000,0.000,0.000
1640079699297240064,"2021-12-21,09:41:39",10.1.1.11,383,-0.400,-0.400,-0.400,0.000,0.000,0.000
1640079699379993856,"2021-12-21,09:41:39",10.1.1.11,0.46639180183410645,-0.400,-0.400,-0.400,0.000,0.000,0.000
1640079699831759872,"2021-12-21,09:41:39",10.1.1.11,442,-0.410,-0.410,-0.410,0.000,0.000,0.000
1640079699928627968,"2021-12-21,09:41:39",10.1.1.11,0.5394439697265625,-0.410,-0.410,-0.410,0.000,0.000,0.000
1640079700301479936,"2021-12-21,09:41:40",10.1.1.11,371,-0.420,-0.420,-0.420,0.000,0.000,0.000
1640079700397540096,"2021-12-21,09:41:40",10.1.1.11,0.46736693382263184,-0.420,-0.420,-0.420,0.000,0.000,0.000
1640079700784110080,"2021-12-21,09:41:40",10.1.1.11,367,-0.430,-0.430,-0.430,0.000,0.000,0.000
1640079700831988224,"2021-12-21,09:41:40",10.1.1.11,0.41562604904174805,-0.430,-0.430,-0.430,0.000,0.000,0.000
1640079701212605952,"2021-12-21,09:41:41",10.1.1.11,364,-0.440,-0.440,-0.440,0.000,0.000,0.000
1640079701311533056,"2021-12-21,09:41:41",10.1.1.11,0.4641568660736084,-0.440,-0.440,-0.440,0.000,0.000,0.000
1640079701669176064,"2021-12-21,09:41:41",10.1.1.11,355,-0.450,-0.450,-0.450,0.000,0.000,0.000
1640079701738176000,"2021-12-21,09:41:41",10.1.1.11,0.4248840808868408,-0.450,-0.450,-0.450,0.000,0.000,0.000
1640079702109112064,"2021-12-21,09:41:42",10.1.1.11,369,-0.460,-0.460,-0.460,0.000,0.000,0.000
1640079702186316032,"2021-12-21,09:41:42",10.1.1.11,0.44623517990112305,-0.460,-0.460,-0.460,0.000,0.000,0.000
1640079702548712960,"2021-12-21,09:41:42",10.1.1.11,346,-0.470,-0.470,-0.470,0.000,0.000,0.000
1640079702692205824,"2021-12-21,09:41:42",10.1.1.11,0.48983001708984375,-0.470,-0.470,-0.470,0.000,0.000,0.000
1640079703070355968,"2021-12-21,09:41:43",10.1.1.11,376,-0.480,-0.480,-0.480,0.000,0.000,0.000
1640079703156208128,"2021-12-21,09:41:43",10.1.1.11,0.46239495277404785,-0.480,-0.480,-0.480,0.000,0.000,0.000
1640079703539582976,"2021-12-21,09:41:43",10.1.1.11,380,-0.490,-0.490,-0.490,0.000,0.000,0.000
1640079703650789120,"2021-12-21,09:41:43",10.1.1.11,0.4918839931488037,-0.490,-0.490,-0.490,0.000,0.000,0.000
1640079704059703040,"2021-12-21,09:41:44",10.1.1.11,381,-0.480,-0.480,-0.480,0.000,0.000,0.000
1640079704136850176,"2021-12-21,09:41:44",10.1.1.11,0.4583258628845215,-0.480,-0.480,-0.480,0.000,0.000,0.000
1640079704583288064,"2021-12-21,09:41:44",10.1.1.11,441,-0.470,-0.470,-0.470,0.000,0.000,0.000
1640079704608828160,"2021-12-21,09:41:44",10.1.1.11,0.4674551486968994,-0.470,-0.470,-0.470,0.000,0.000,0.000
1640079705032596224,"2021-12-21,09:41:45",10.1.1.11,420,-0.460,-0.460,-0.460,0.000,0.000,0.000
1640079705152391936,"2021-12-21,09:41:45",10.1.1.11,0.5405991077423096,-0.460,-0.460,-0.460,0.000,0.000,0.000
1640079705534877952,"2021-12-21,09:41:45",10.1.1.11,380,-0.450,-0.450,-0.450,0.000,0.000,0.000
1640079705571603968,"2021-12-21,09:41:45",10.1.1.11,0.41733503341674805,-0.450,-0.450,-0.450,0.000,0.000,0.000
1640079705927067136,"2021-12-21,09:41:45",10.1.1.11,353,-0.440,-0.440,-0.440,0.000,0.000,0.000
1640079705992456960,"2021-12-21,09:41:45",10.1.1.11,0.4188849925994873,-0.440,-0.440,-0.440,0.000,0.000,0.000
1640079706336884992,"2021-12-21,09:41:46",10.1.1.11,339,-0.430,-0.430,-0.430,0.000,0.000,0.000
1640079706384649984,"2021-12-21,09:41:46",10.1.1.11,0.3888669013977051,-0.430,-0.430,-0.430,0.000,0.000,0.000
1640079706734657024,"2021-12-21,09:41:46",10.1.1.11,337,-0.420,-0.420,-0.420,0.000,0.000,0.000
1640079706855845888,"2021-12-21,09:41:46",10.1.1.11,0.46799492835998535,-0.420,-0.420,-0.420,0.000,0.000,0.000
1640079707249454080,"2021-12-21,09:41:47",10.1.1.11,379,-0.410,-0.410,-0.410,0.000,0.000,0.000
1640079707394104064,"2021-12-21,09:41:47",10.1.1.11,0.5244438648223877,-0.410,-0.410,-0.410,0.000,0.000,0.000
1640079707800993792,"2021-12-21,09:41:47",10.1.1.11,404,-0.400,-0.400,-0.400,0.000,0.000,0.000
1640079707842469888,"2021-12-21,09:41:47",10.1.1.11,0.44643402099609375,-0.400,-0.400,-0.400,0.000,0.000,0.000
1640079708245577984,"2021-12-21,09:41:48",10.1.1.11,387,-0.390,-0.390,-0.390,0.000,0.000,0.000
1640079708347104000,"2021-12-21,09:41:48",10.1.1.11,0.48891711235046387,-0.390,-0.390,-0.390,0.000,0.000,0.000
1640079708742119168,"2021-12-21,09:41:48",10.1.1.11,392,-0.380,-0.380,-0.380,0.000,0.000,0.000
1640079708801455872,"2021-12-21,09:41:48",10.1.1.11,0.4501981735229492,-0.380,-0.380,-0.380,0.000,0.000,0.000
1640079709153188864,"2021-12-21,09:41:49",10.1.1.11,333,-0.370,-0.370,-0.370,0.000,0.000,0.000
1640079709263312128,"2021-12-21,09:41:49",10.1.1.11,0.4434211254119873,-0.370,-0.370,-0.370,0.000,0.000,0.000
1640079709621229824,"2021-12-21,09:41:49",10.1.1.11,356,-0.360,-0.360,-0.360,0.000,0.000,0.000
1640079709730836992,"2021-12-21,09:41:49",10.1.1.11,0.4657020568847656,-0.360,-0.360,-0.360,0.000,0.000,0.000
1640079710135984896,"2021-12-21,09:41:50",10.1.1.11,384,-0.350,-0.350,-0.350,0.000,0.000,0.000
1640079710258009856,"2021-12-21,09:41:50",10.1.1.11,0.5067009925842285,-0.350,-0.350,-0.350,0.000,0.000,0.000
1640079710679286016,"2021-12-21,09:41:50",10.1.1.11,417,-0.340,-0.340,-0.340,0.000,0.000,0.000
1640079710724820992,"2021-12-21,09:41:50",10.1.1.11,0.46282505989074707,-0.340,-0.340,-0.340,0.000,0.000,0.000
1640079711140333056,"2021-12-21,09:41:51",10.1.1.11,410,-0.330,-0.330,-0.330,0.000,0.000,0.000
1640079711209697024,"2021-12-21,09:41:51",10.1.1.11,0.48021793365478516,-0.330,-0.330,-0.330,0.000,0.000,0.000
1640079711579240960,"2021-12-21,09:41:51",10.1.1.11,366,-0.320,-0.320,-0.320,0.000,0.000,0.000
1640079711619198208,"2021-12-21,09:41:51",10.1.1.11,0.4064209461212158,-0.320,-0.320,-0.320,0.000,0.000,0.000
1640079711991895040,"2021-12-21,09:41:51",10.1.1.11,369,-0.310,-0.310,-0.310,0.000,0.000,0.000
1640079712046736896,"2021-12-21,09:41:52",10.1.1.11,0.42431211471557617,-0.310,-0.310,-0.310,0.000,0.000,0.000
1640079712410296064,"2021-12-21,09:41:52",10.1.1.11,360,-0.300,-0.300,-0.300,0.000,0.000,0.000
1640079712512016128,"2021-12-21,09:41:52",10.1.1.11,0.46245503425598145,-0.300,-0.300,-0.300,0.000,0.000,0.000
1640079712875938048,"2021-12-21,09:41:52",10.1.1.11,359,-0.290,-0.290,-0.290,0.000,0.000,0.000
1640079712940803072,"2021-12-21,09:41:52",10.1.1.11,0.4248769283294678,-0.290,-0.290,-0.290,0.000,0.000,0.000
1640079713342507008,"2021-12-21,09:41:53",10.1.1.11,399,-0.280,-0.280,-0.280,0.000,0.000,0.000
1640079713538232064,"2021-12-21,09:41:53",10.1.1.11,0.5947918891906738,-0.280,-0.280,-0.280,0.000,0.000,0.000
1640079713911837952,"2021-12-21,09:41:53",10.1.1.11,365,-0.270,-0.270,-0.270,0.000,0.000,0.000
1640079713960713984,"2021-12-21,09:41:53",10.1.1.11,0.41432809829711914,-0.270,-0.270,-0.270,0.000,0.000,0.000
1640079714373440000,"2021-12-21,09:41:54",10.1.1.11,411,-0.260,-0.260,-0.260,0.000,0.000,0.000
1640079714442748928,"2021-12-21,09:41:54",10.1.1.11,0.48072099685668945,-0.260,-0.260,-0.260,0.000,0.000,0.000
1640079714858191104,"2021-12-21,09:41:54",10.1.1.11,413,-0.250,-0.250,-0.250,0.000,0.000,0.000
1640079714921303040,"2021-12-21,09:41:54",10.1.1.11,0.4758880138397217,-0.250,-0.250,-0.250,0.000,0.000,0.000
1640079715306657024,"2021-12-21,09:41:55",10.1.1.11,382,-0.240,-0.240,-0.240,0.000,0.000,0.000
1640079715347523072,"2021-12-21,09:41:55",10.1.1.11,0.4234788417816162,-0.240,-0.240,-0.240,0.000,0.000,0.000
1640079715734051072,"2021-12-21,09:41:55",10.1.1.11,381,-0.230,-0.230,-0.230,0.000,0.000,0.000
1640079715776163072,"2021-12-21,09:41:55",10.1.1.11,0.4231679439544678,-0.230,-0.230,-0.230,0.000,0.000,0.000
1640079716162437888,"2021-12-21,09:41:56",10.1.1.11,384,-0.220,-0.220,-0.220,0.000,0.000,0.000
1640079716212402944,"2021-12-21,09:41:56",10.1.1.11,0.43447208404541016,-0.220,-0.220,-0.220,0.000,0.000,0.000
1640079716582356992,"2021-12-21,09:41:56",10.1.1.11,367,-0.210,-0.210,-0.210,0.000,0.000,0.000
1640079716617224960,"2021-12-21,09:41:56",10.1.1.11,0.4028759002685547,-0.210,-0.210,-0.210,0.000,0.000,0.000
1640079717027160832,"2021-12-21,09:41:57",10.1.1.11,404,-0.200,-0.200,-0.200,0.000,0.000,0.000
1640079717108665856,"2021-12-21,09:41:57",10.1.1.11,0.48648881912231445,-0.200,-0.200,-0.200,0.000,0.000,0.000
1640079717503182848,"2021-12-21,09:41:57",10.1.1.11,386,-0.190,-0.190,-0.190,0.000,0.000,0.000
1640079717583008000,"2021-12-21,09:41:57",10.1.1.11,0.4660789966583252,-0.190,-0.190,-0.190,0.000,0.000,0.000
1640079717983462144,"2021-12-21,09:41:57",10.1.1.11,388,-0.180,-0.180,-0.180,0.000,0.000,0.000
1640079718019898880,"2021-12-21,09:41:58",10.1.1.11,0.4254019260406494,-0.180,-0.180,-0.180,0.000,0.000,0.000
1640079718455250944,"2021-12-21,09:41:58",10.1.1.11,421,-0.170,-0.170,-0.170,0.000,0.000,0.000
1640079718531725056,"2021-12-21,09:41:58",10.1.1.11,0.4985041618347168,-0.170,-0.170,-0.170,0.000,0.000,0.000
1640079718891361024,"2021-12-21,09:41:58",10.1.1.11,356,-0.160,-0.160,-0.160,0.000,0.000,0.000
1640079718998348032,"2021-12-21,09:41:58",10.1.1.11,0.46399807929992676,-0.160,-0.160,-0.160,0.000,0.000,0.000
1640079719401041920,"2021-12-21,09:41:59",10.1.1.11,379,-0.150,-0.150,-0.150,0.000,0.000,0.000
1640079719511200000,"2021-12-21,09:41:59",10.1.1.11,0.4894990921020508,-0.150,-0.150,-0.150,0.000,0.000,0.000
1640079719880186112,"2021-12-21,09:41:59",10.1.1.11,365,-0.140,-0.140,-0.140,0.000,0.000,0.000
1640079719926036992,"2021-12-21,09:41:59",10.1.1.11,0.4114518165588379,-0.140,-0.140,-0.140,0.000,0.000,0.000
1640079720246531840,"2021-12-21,09:42:00",10.1.1.11,317,-0.130,-0.130,-0.130,0.000,0.000,0.000
1640079720367596032,"2021-12-21,09:42:00",10.1.1.11,0.43802881240844727,-0.130,-0.130,-0.130,0.000,0.000,0.000
1640079720808100096,"2021-12-21,09:42:00",10.1.1.11,423,-0.120,-0.120,-0.120,0.000,0.000,0.000
1640079720911700992,"2021-12-21,09:42:00",10.1.1.11,0.5295438766479492,-0.120,-0.120,-0.120,0.000,0.000,0.000
1640079721304871936,"2021-12-21,09:42:01",10.1.1.11,371,-0.110,-0.110,-0.110,0.000,0.000,0.000
1640079721372363008,"2021-12-21,09:42:01",10.1.1.11,0.43939995765686035,-0.110,-0.110,-0.110,0.000,0.000,0.000
1640079721741807872,"2021-12-21,09:42:01",10.1.1.11,367,-0.100,-0.100,-0.100,0.000,0.000,0.000
1640079721820889856,"2021-12-21,09:42:01",10.1.1.11,0.44708991050720215,-0.100,-0.100,-0.100,0.000,0.000,0.000
1640079722153456896,"2021-12-21,09:42:02",10.1.1.11,330,-0.090,-0.090,-0.090,0.000,0.000,0.000
1640079722203983104,"2021-12-21,09:42:02",10.1.1.11,0.38069796562194824,-0.090,-0.090,-0.090,0.000,0.000,0.000
1640079722554889984,"2021-12-21,09:42:02",10.1.1.11,349,-0.080,-0.080,-0.080,0.000,0.000,0.000
1640079722599713024,"2021-12-21,09:42:02",10.1.1.11,0.39424896240234375,-0.080,-0.080,-0.080,0.000,0.000,0.000
1640079723028839168,"2021-12-21,09:42:03",10.1.1.11,402,-0.070,-0.070,-0.070,0.000,0.000,0.000
1640079723094630912,"2021-12-21,09:42:03",10.1.1.11,0.4689350128173828,-0.070,-0.070,-0.070,0.000,0.000,0.000
1640079723502827008,"2021-12-21,09:42:03",10.1.1.11,396,-0.060,-0.060,-0.060,0.000,0.000,0.000
1640079723597516032,"2021-12-21,09:42:03",10.1.1.11,0.491375207901001,-0.060,-0.060,-0.060,0.000,0.000,0.000
1640079723960180992,"2021-12-21,09:42:03",10.1.1.11,358,-0.050,-0.050,-0.050,0.000,0.000,0.000
1640079724043910912,"2021-12-21,09:42:04",10.1.1.11,0.4426450729370117,-0.050,-0.050,-0.050,0.000,0.000,0.000
1640079724484494080,"2021-12-21,09:42:04",10.1.1.11,438,-0.040,-0.040,-0.040,0.000,0.000,0.000
1640079724572666880,"2021-12-21,09:42:04",10.1.1.11,0.5271561145782471,-0.040,-0.040,-0.040,0.000,0.000,0.000
1640079724953700096,"2021-12-21,09:42:04",10.1.1.11,378,-0.030,-0.030,-0.030,0.000,0.000,0.000
1640079725049891840,"2021-12-21,09:42:05",10.1.1.11,0.46706199645996094,-0.030,-0.030,-0.030,0.000,0.000,0.000
1640079725419653888,"2021-12-21,09:42:05",10.1.1.11,367,-0.020,-0.020,-0.020,0.000,0.000,0.000
1640079725486339072,"2021-12-21,09:42:05",10.1.1.11,0.434345006942749,-0.020,-0.020,-0.020,0.000,0.000,0.000
1640079725821646080,"2021-12-21,09:42:05",10.1.1.11,331,-0.010,-0.010,-0.010,0.000,0.000,0.000
1640079725985806848,"2021-12-21,09:42:05",10.1.1.11,0.4957571029663086,-0.010,-0.010,-0.010,0.000,0.000,0.000
1640079726356775936,"2021-12-21,09:42:06",10.1.1.11,369,0.000,0.000,0.000,0.000,0.000,0.000
1640079726435229184,"2021-12-21,09:42:06",10.1.1.11,0.4478108882904053,0.000,0.000,0.000,0.000,0.000,0.000
1640079726837614080,"2021-12-21,09:42:06",10.1.1.11,396,-0.010,-0.010,-0.010,0.000,0.000,0.000
1640079726926078208,"2021-12-21,09:42:06",10.1.1.11,0.4854319095611572,-0.010,-0.010,-0.010,0.000,0.000,0.000
1640079727295375104,"2021-12-21,09:42:07",10.1.1.11,352,-0.020,-0.020,-0.020,0.000,0.000,0.000
1640079727375028992,"2021-12-21,09:42:07",10.1.1.11,0.4318969249725342,-0.020,-0.020,-0.020,0.000,0.000,0.000
1640079727782116864,"2021-12-21,09:42:07",10.1.1.11,402,-0.030,-0.030,-0.030,0.000,0.000,0.000
1640079727867925760,"2021-12-21,09:42:07",10.1.1.11,0.48812198638916016,-0.030,-0.030,-0.030,0.000,0.000,0.000
1640079728248812032,"2021-12-21,09:42:08",10.1.1.11,377,-0.040,-0.040,-0.040,0.000,0.000,0.000
1640079728311100928,"2021-12-21,09:42:08",10.1.1.11,0.4397139549255371,-0.040,-0.040,-0.040,0.000,0.000,0.000
1640079728716537088,"2021-12-21,09:42:08",10.1.1.11,396,-0.050,-0.050,-0.050,0.000,0.000,0.000
1640079728838062080,"2021-12-21,09:42:08",10.1.1.11,0.5182690620422363,-0.050,-0.050,-0.050,0.000,0.000,0.000
1640079729219078912,"2021-12-21,09:42:09",10.1.1.11,373,-0.060,-0.060,-0.060,0.000,0.000,0.000
1640079729315659008,"2021-12-21,09:42:09",10.1.1.11,0.4704141616821289,-0.060,-0.060,-0.060,0.000,0.000,0.000
1640079729727969024,"2021-12-21,09:42:09",10.1.1.11,401,-0.070,-0.070,-0.070,0.000,0.000,0.000
1640079729765902080,"2021-12-21,09:42:09",10.1.1.11,0.4398689270019531,-0.070,-0.070,-0.070,0.000,0.000,0.000
1640079730225185024,"2021-12-21,09:42:10",10.1.1.11,457,-0.080,-0.080,-0.080,0.000,0.000,0.000
1640079730269876992,"2021-12-21,09:42:10",10.1.1.11,0.5024940967559814,-0.080,-0.080,-0.080,0.000,0.000,0.000
1640079730671070976,"2021-12-21,09:42:10",10.1.1.11,386,-0.090,-0.090,-0.090,0.000,0.000,0.000
1640079730750857984,"2021-12-21,09:42:10",10.1.1.11,0.46910905838012695,-0.090,-0.090,-0.090,0.000,0.000,0.000
1640079731219880960,"2021-12-21,09:42:11",10.1.1.11,467,-0.100,-0.100,-0.100,0.000,0.000,0.000
1640079731256197888,"2021-12-21,09:42:11",10.1.1.11,0.5036351680755615,-0.100,-0.100,-0.100,0.000,0.000,0.000
