FedericoMungari/DigitalTwin_service/01_WiredScenario/Output/Output_script/script_rosapi_2_output_robots12_freq0_5.txt
timestamp,date,node,latency,joint_1,joint_2,joint_3,joint_4,joint_5,joint_6
1641234780889174016,2022-01-03-18:33:00,10.1.1.6,177,-0.010,-0.010,-0.010,0.000,0.000,0.000
1641234781078234880,2022-01-03-18:33:01,10.1.1.6,166,-0.020,-0.020,-0.020,0.000,0.000,0.000
1641234781288521984,2022-01-03-18:33:01,10.1.1.6,175,-0.030,-0.030,-0.030,0.000,0.000,0.000
1641234781479418880,2022-01-03-18:33:01,10.1.1.6,165,-0.040,-0.040,-0.040,0.000,0.000,0.000
1641234781686819072,2022-01-03-18:33:01,10.1.1.6,171,-0.050,-0.050,-0.050,0.000,0.000,0.000
1641234781886672896,2022-01-03-18:33:01,10.1.1.6,171,-0.060,-0.060,-0.060,0.000,0.000,0.000
1641234782096353024,2022-01-03-18:33:02,10.1.1.6,179,-0.070,-0.070,-0.070,0.000,0.000,0.000
1641234782285953024,2022-01-03-18:33:02,10.1.1.6,168,-0.080,-0.080,-0.080,0.000,0.000,0.000
1641234782505786880,2022-01-03-18:33:02,10.1.1.6,186,-0.090,-0.090,-0.090,0.000,0.000,0.000
1641234782696024832,2022-01-03-18:33:02,10.1.1.6,176,-0.100,-0.100,-0.100,0.000,0.000,0.000
1641234782895539968,2022-01-03-18:33:02,10.1.1.6,175,-0.110,-0.110,-0.110,0.000,0.000,0.000
1641234783095129088,2022-01-03-18:33:03,10.1.1.6,174,-0.120,-0.120,-0.120,0.000,0.000,0.000
1641234783288381952,2022-01-03-18:33:03,10.1.1.6,167,-0.130,-0.130,-0.130,0.000,0.000,0.000
1641234783485239040,2022-01-03-18:33:03,10.1.1.6,163,-0.140,-0.140,-0.140,0.000,0.000,0.000
1641234783684418048,2022-01-03-18:33:03,10.1.1.6,162,-0.150,-0.150,-0.150,0.000,0.000,0.000
1641234783893771776,2022-01-03-18:33:03,10.1.1.6,170,-0.160,-0.160,-0.160,0.000,0.000,0.000
1641234784094894848,2022-01-03-18:33:04,10.1.1.6,171,-0.170,-0.170,-0.170,0.000,0.000,0.000
1641234784292826880,2022-01-03-18:33:04,10.1.1.6,165,-0.180,-0.180,-0.180,0.000,0.000,0.000
1641234784505816064,2022-01-03-18:33:04,10.1.1.6,175,-0.190,-0.190,-0.190,0.000,0.000,0.000
1641234784692864768,2022-01-03-18:33:04,10.1.1.6,161,-0.200,-0.200,-0.200,0.000,0.000,0.000
1641234784892909056,2022-01-03-18:33:04,10.1.1.6,161,-0.210,-0.210,-0.210,0.000,0.000,0.000
1641234785092731904,2022-01-03-18:33:05,10.1.1.6,160,-0.220,-0.220,-0.220,0.000,0.000,0.000
1641234785292066048,2022-01-03-18:33:05,10.1.1.6,158,-0.230,-0.230,-0.230,0.000,0.000,0.000
1641234785491681024,2022-01-03-18:33:05,10.1.1.6,157,-0.240,-0.240,-0.240,0.000,0.000,0.000
1641234785700972032,2022-01-03-18:33:05,10.1.1.6,163,-0.250,-0.250,-0.250,0.000,0.000,0.000
1641234785920413952,2022-01-03-18:33:05,10.1.1.6,182,-0.260,-0.260,-0.260,0.000,0.000,0.000
1641234786110797824,2022-01-03-18:33:06,10.1.1.6,171,-0.270,-0.270,-0.270,0.000,0.000,0.000
1641234786311156992,2022-01-03-18:33:06,10.1.1.6,171,-0.280,-0.280,-0.280,0.000,0.000,0.000
1641234786520060928,2022-01-03-18:33:06,10.1.1.6,179,-0.290,-0.290,-0.290,0.000,0.000,0.000
1641234786699495168,2022-01-03-18:33:06,10.1.1.6,158,-0.300,-0.300,-0.300,0.000,0.000,0.000
1641234786922789120,2022-01-03-18:33:06,10.1.1.6,180,-0.310,-0.310,-0.310,0.000,0.000,0.000
1641234787109916928,2022-01-03-18:33:07,10.1.1.6,167,-0.320,-0.320,-0.320,0.000,0.000,0.000
1641234787308520960,2022-01-03-18:33:07,10.1.1.6,164,-0.330,-0.330,-0.330,0.000,0.000,0.000
1641234787511378944,2022-01-03-18:33:07,10.1.1.6,166,-0.340,-0.340,-0.340,0.000,0.000,0.000
1641234787708173056,2022-01-03-18:33:07,10.1.1.6,161,-0.350,-0.350,-0.350,0.000,0.000,0.000
1641234787907612160,2022-01-03-18:33:07,10.1.1.6,160,-0.360,-0.360,-0.360,0.000,0.000,0.000
1641234788109380864,2022-01-03-18:33:08,10.1.1.6,161,-0.370,-0.370,-0.370,0.000,0.000,0.000
1641234788309364992,2022-01-03-18:33:08,10.1.1.6,160,-0.380,-0.380,-0.380,0.000,0.000,0.000
1641234788510703104,2022-01-03-18:33:08,10.1.1.6,161,-0.390,-0.390,-0.390,0.000,0.000,0.000
1641234788712218880,2022-01-03-18:33:08,10.1.1.6,162,-0.400,-0.400,-0.400,0.000,0.000,0.000
1641234788914231040,2022-01-03-18:33:08,10.1.1.6,164,-0.410,-0.410,-0.410,0.000,0.000,0.000
1641234789115411968,2022-01-03-18:33:09,10.1.1.6,163,-0.420,-0.420,-0.420,0.000,0.000,0.000
1641234789318487040,2022-01-03-18:33:09,10.1.1.6,165,-0.430,-0.430,-0.430,0.000,0.000,0.000
1641234789518123008,2022-01-03-18:33:09,10.1.1.6,164,-0.440,-0.440,-0.440,0.000,0.000,0.000
1641234789718934016,2022-01-03-18:33:09,10.1.1.6,164,-0.450,-0.450,-0.450,0.000,0.000,0.000
1641234789941157120,2022-01-03-18:33:09,10.1.1.6,185,-0.460,-0.460,-0.460,0.000,0.000,0.000
1641234790131952896,2022-01-03-18:33:10,10.1.1.6,172,-0.470,-0.470,-0.470,0.000,0.000,0.000
1641234790333057024,2022-01-03-18:33:10,10.1.1.6,173,-0.480,-0.480,-0.480,0.000,0.000,0.000
1641234790533474816,2022-01-03-18:33:10,10.1.1.6,172,-0.490,-0.490,-0.490,0.000,0.000,0.000
1641234790734563072,2022-01-03-18:33:10,10.1.1.6,172,-0.480,-0.480,-0.480,0.000,0.000,0.000
1641234790935867904,2022-01-03-18:33:10,10.1.1.6,172,-0.470,-0.470,-0.470,0.000,0.000,0.000
1641234791148463104,2022-01-03-18:33:11,10.1.1.6,184,-0.460,-0.460,-0.460,0.000,0.000,0.000
1641234791348773120,2022-01-03-18:33:11,10.1.1.6,184,-0.450,-0.450,-0.450,0.000,0.000,0.000
1641234791554505216,2022-01-03-18:33:11,10.1.1.6,189,-0.440,-0.440,-0.440,0.000,0.000,0.000
1641234791749260032,2022-01-03-18:33:11,10.1.1.6,183,-0.430,-0.430,-0.430,0.000,0.000,0.000
1641234791950984960,2022-01-03-18:33:11,10.1.1.6,184,-0.420,-0.420,-0.420,0.000,0.000,0.000
1641234792151067136,2022-01-03-18:33:12,10.1.1.6,184,-0.410,-0.410,-0.410,0.000,0.000,0.000
1641234792352210944,2022-01-03-18:33:12,10.1.1.6,184,-0.400,-0.400,-0.400,0.000,0.000,0.000
1641234792553029120,2022-01-03-18:33:12,10.1.1.6,184,-0.390,-0.390,-0.390,0.000,0.000,0.000
1641234792764857088,2022-01-03-18:33:12,10.1.1.6,195,-0.380,-0.380,-0.380,0.000,0.000,0.000
1641234792964346880,2022-01-03-18:33:12,10.1.1.6,193,-0.370,-0.370,-0.370,0.000,0.000,0.000
1641234793165508096,2022-01-03-18:33:13,10.1.1.6,194,-0.360,-0.360,-0.360,0.000,0.000,0.000
1641234793365582080,2022-01-03-18:33:13,10.1.1.6,193,-0.350,-0.350,-0.350,0.000,0.000,0.000
1641234793556313088,2022-01-03-18:33:13,10.1.1.6,183,-0.340,-0.340,-0.340,0.000,0.000,0.000
1641234793761701120,2022-01-03-18:33:13,10.1.1.6,187,-0.330,-0.330,-0.330,0.000,0.000,0.000
1641234794979699968,2022-01-03-18:33:14,10.1.1.6,200,-0.270,-0.270,-0.270,0.000,0.000,0.000
1641234795580204032,2022-01-03-18:33:15,10.1.1.6,198,-0.240,-0.240,-0.240,0.000,0.000,0.000
1641234795981321984,2022-01-03-18:33:15,10.1.1.6,197,-0.220,-0.220,-0.220,0.000,0.000,0.000
1641234796171183104,2022-01-03-18:33:16,10.1.1.6,186,-0.210,-0.210,-0.210,0.000,0.000,0.000
1641234796601995008,2022-01-03-18:33:16,10.1.1.6,196,-0.190,-0.190,-0.190,0.000,0.000,0.000
1641234797006995968,2022-01-03-18:33:17,10.1.1.6,200,-0.170,-0.170,-0.170,0.000,0.000,0.000
1641234797404179968,2022-01-03-18:33:17,10.1.1.6,194,-0.150,-0.150,-0.150,0.000,0.000,0.000
1641234797604360192,2022-01-03-18:33:17,10.1.1.6,193,-0.140,-0.140,-0.140,0.000,0.000,0.000
1641234798003907840,2022-01-03-18:33:18,10.1.1.6,190,-0.120,-0.120,-0.120,0.000,0.000,0.000
1641234798214416896,2022-01-03-18:33:18,10.1.1.6,200,-0.110,-0.110,-0.110,0.000,0.000,0.000
1641234798414064896,2022-01-03-18:33:18,10.1.1.6,198,-0.100,-0.100,-0.100,0.000,0.000,0.000
1641234798815072000,2022-01-03-18:33:18,10.1.1.6,198,-0.080,-0.080,-0.080,0.000,0.000,0.000
1641234799420948992,2022-01-03-18:33:19,10.1.1.6,196,-0.050,-0.050,-0.050,0.000,0.000,0.000
1641234799820815104,2022-01-03-18:33:19,10.1.1.6,198,-0.030,-0.030,-0.030,0.000,0.000,0.000
1641234800023032832,2022-01-03-18:33:20,10.1.1.6,199,-0.020,-0.020,-0.020,0.000,0.000,0.000
1641234800219207168,2022-01-03-18:33:20,10.1.1.6,194,-0.010,-0.010,-0.010,0.000,0.000,0.000
1641234800625153024,2022-01-03-18:33:20,10.1.1.6,198,-0.010,-0.010,-0.010,0.000,0.000,0.000
1641234801424987904,2022-01-03-18:33:21,10.1.1.6,194,-0.050,-0.050,-0.050,0.000,0.000,0.000
1641234802037682944,2022-01-03-18:33:22,10.1.1.6,195,-0.080,-0.080,-0.080,0.000,0.000,0.000
1641234802234685952,2022-01-03-18:33:22,10.1.1.6,191,-0.090,-0.090,-0.090,0.000,0.000,0.000
1641234802645057792,2022-01-03-18:33:22,10.1.1.6,199,-0.110,-0.110,-0.110,0.000,0.000,0.000
1641234803045080064,2022-01-03-18:33:23,10.1.1.6,197,-0.130,-0.130,-0.130,0.000,0.000,0.000
1641234803454821120,2022-01-03-18:33:23,10.1.1.6,200,-0.150,-0.150,-0.150,0.000,0.000,0.000
1641234803684045056,2022-01-03-18:33:23,10.1.1.6,199,-0.160,-0.160,-0.160,0.000,0.000,0.000
1641234803884355072,2022-01-03-18:33:23,10.1.1.6,198,-0.170,-0.170,-0.170,0.000,0.000,0.000
1641234804083333120,2022-01-03-18:33:24,10.1.1.6,196,-0.180,-0.180,-0.180,0.000,0.000,0.000
1641234804283579136,2022-01-03-18:33:24,10.1.1.6,195,-0.190,-0.190,-0.190,0.000,0.000,0.000
1641234804483296000,2022-01-03-18:33:24,10.1.1.6,194,-0.200,-0.200,-0.200,0.000,0.000,0.000
1641234804889538048,2022-01-03-18:33:24,10.1.1.6,198,-0.220,-0.220,-0.220,0.000,0.000,0.000
1641234805083888896,2022-01-03-18:33:25,10.1.1.6,191,-0.230,-0.230,-0.230,0.000,0.000,0.000
1641234805292696064,2022-01-03-18:33:25,10.1.1.6,199,-0.240,-0.240,-0.240,0.000,0.000,0.000
1641234805493581056,2022-01-03-18:33:25,10.1.1.6,199,-0.250,-0.250,-0.250,0.000,0.000,0.000
1641234805892484864,2022-01-03-18:33:25,10.1.1.6,188,-0.270,-0.270,-0.270,0.000,0.000,0.000
1641234806298470144,2022-01-03-18:33:26,10.1.1.6,193,-0.290,-0.290,-0.290,0.000,0.000,0.000
1641234806933958144,2022-01-03-18:33:26,10.1.1.6,193,-0.320,-0.320,-0.320,0.000,0.000,0.000
1641234807961540096,2022-01-03-18:33:27,10.1.1.6,200,-0.370,-0.370,-0.370,0.000,0.000,0.000
1641234808599684096,2022-01-03-18:33:28,10.1.1.6,192,-0.400,-0.400,-0.400,0.000,0.000,0.000
1641234808999578880,2022-01-03-18:33:28,10.1.1.6,190,-0.420,-0.420,-0.420,0.000,0.000,0.000
1641234809209382912,2022-01-03-18:33:29,10.1.1.6,198,-0.430,-0.430,-0.430,0.000,0.000,0.000
1641234809400289024,2022-01-03-18:33:29,10.1.1.6,188,-0.440,-0.440,-0.440,0.000,0.000,0.000
1641234809600145152,2022-01-03-18:33:29,10.1.1.6,187,-0.450,-0.450,-0.450,0.000,0.000,0.000
1641234809808296960,2022-01-03-18:33:29,10.1.1.6,194,-0.460,-0.460,-0.460,0.000,0.000,0.000
1641234810826689024,2022-01-03-18:33:30,10.1.1.6,207,-0.470,-0.470,-0.470,0.000,0.000,0.000
1641234811017071104,2022-01-03-18:33:31,10.1.1.6,184,-0.460,-0.460,-0.460,0.000,0.000,0.000
1641234811436180224,2022-01-03-18:33:31,10.1.1.6,200,-0.440,-0.440,-0.440,0.000,0.000,0.000
1641234811835694080,2022-01-03-18:33:31,10.1.1.6,197,-0.420,-0.420,-0.420,0.000,0.000,0.000
1641234812035844096,2022-01-03-18:33:32,10.1.1.6,196,-0.410,-0.410,-0.410,0.000,0.000,0.000
1641234812225570816,2022-01-03-18:33:32,10.1.1.6,185,-0.400,-0.400,-0.400,0.000,0.000,0.000
1641234812435379968,2022-01-03-18:33:32,10.1.1.6,193,-0.390,-0.390,-0.390,0.000,0.000,0.000
1641234812639204096,2022-01-03-18:33:32,10.1.1.6,196,-0.380,-0.380,-0.380,0.000,0.000,0.000
1641234812835681024,2022-01-03-18:33:32,10.1.1.6,183,-0.370,-0.370,-0.370,0.000,0.000,0.000
1641234813041251072,2022-01-03-18:33:33,10.1.1.6,188,-0.360,-0.360,-0.360,0.000,0.000,0.000
1641234813235044096,2022-01-03-18:33:33,10.1.1.6,181,-0.350,-0.350,-0.350,0.000,0.000,0.000
1641234813445220096,2022-01-03-18:33:33,10.1.1.6,190,-0.340,-0.340,-0.340,0.000,0.000,0.000
1641234813633251840,2022-01-03-18:33:33,10.1.1.6,178,-0.330,-0.330,-0.330,0.000,0.000,0.000
1641234813853513984,2022-01-03-18:33:33,10.1.1.6,197,-0.320,-0.320,-0.320,0.000,0.000,0.000
1641234814052864000,2022-01-03-18:33:34,10.1.1.6,196,-0.310,-0.310,-0.310,0.000,0.000,0.000
1641234814254020864,2022-01-03-18:33:34,10.1.1.6,196,-0.300,-0.300,-0.300,0.000,0.000,0.000
1641234814459233024,2022-01-03-18:33:34,10.1.1.6,190,-0.290,-0.290,-0.290,0.000,0.000,0.000
1641234814651782144,2022-01-03-18:33:34,10.1.1.6,180,-0.280,-0.280,-0.280,0.000,0.000,0.000
1641234814886339840,2022-01-03-18:33:34,10.1.1.6,203,-0.270,-0.270,-0.270,0.000,0.000,0.000
1641234815072109824,2022-01-03-18:33:35,10.1.1.6,182,-0.260,-0.260,-0.260,0.000,0.000,0.000
1641234815282440960,2022-01-03-18:33:35,10.1.1.6,192,-0.250,-0.250,-0.250,0.000,0.000,0.000
1641234815480987136,2022-01-03-18:33:35,10.1.1.6,190,-0.240,-0.240,-0.240,0.000,0.000,0.000
1641234815670548992,2022-01-03-18:33:35,10.1.1.6,178,-0.230,-0.230,-0.230,0.000,0.000,0.000
1641234815880430080,2022-01-03-18:33:35,10.1.1.6,187,-0.220,-0.220,-0.220,0.000,0.000,0.000
1641234816069816064,2022-01-03-18:33:36,10.1.1.6,176,-0.210,-0.210,-0.210,0.000,0.000,0.000
1641234816269223936,2022-01-03-18:33:36,10.1.1.6,174,-0.200,-0.200,-0.200,0.000,0.000,0.000
1641234816488753920,2022-01-03-18:33:36,10.1.1.6,193,-0.190,-0.190,-0.190,0.000,0.000,0.000
1641234816878765056,2022-01-03-18:33:36,10.1.1.6,182,-0.170,-0.170,-0.170,0.000,0.000,0.000
1641234817088561920,2022-01-03-18:33:37,10.1.1.6,191,-0.160,-0.160,-0.160,0.000,0.000,0.000
1641234817288727040,2022-01-03-18:33:37,10.1.1.6,189,-0.150,-0.150,-0.150,0.000,0.000,0.000
1641234817480647168,2022-01-03-18:33:37,10.1.1.6,179,-0.140,-0.140,-0.140,0.000,0.000,0.000
1641234817698396928,2022-01-03-18:33:37,10.1.1.6,194,-0.130,-0.130,-0.130,0.000,0.000,0.000
1641234818091312896,2022-01-03-18:33:38,10.1.1.6,179,-0.110,-0.110,-0.110,0.000,0.000,0.000
1641234818313384960,2022-01-03-18:33:38,10.1.1.6,196,-0.100,-0.100,-0.100,0.000,0.000,0.000
1641234818489821952,2022-01-03-18:33:38,10.1.1.6,176,-0.090,-0.090,-0.090,0.000,0.000,0.000
1641234818705316096,2022-01-03-18:33:38,10.1.1.6,190,-0.080,-0.080,-0.080,0.000,0.000,0.000
1641234818906729984,2022-01-03-18:33:38,10.1.1.6,182,-0.070,-0.070,-0.070,0.000,0.000,0.000
1641234819105701888,2022-01-03-18:33:39,10.1.1.6,180,-0.060,-0.060,-0.060,0.000,0.000,0.000
1641234819304203008,2022-01-03-18:33:39,10.1.1.6,178,-0.050,-0.050,-0.050,0.000,0.000,0.000
1641234819505997056,2022-01-03-18:33:39,10.1.1.6,177,-0.040,-0.040,-0.040,0.000,0.000,0.000
1641234819704655872,2022-01-03-18:33:39,10.1.1.6,175,-0.030,-0.030,-0.030,0.000,0.000,0.000
1641234819915590912,2022-01-03-18:33:39,10.1.1.6,185,-0.020,-0.020,-0.020,0.000,0.000,0.000
1641234820103457024,2022-01-03-18:33:40,10.1.1.6,172,-0.010,-0.010,-0.010,0.000,0.000,0.000
1641234820305005056,2022-01-03-18:33:40,10.1.1.6,173,0.000,0.000,0.000,0.000,0.000,0.000
1641234820514471168,2022-01-03-18:33:40,10.1.1.6,181,-0.010,-0.010,-0.010,0.000,0.000,0.000
1641234820735506176,2022-01-03-18:33:40,10.1.1.6,192,-0.020,-0.020,-0.020,0.000,0.000,0.000
1641234820928246016,2022-01-03-18:33:40,10.1.1.6,187,-0.030,-0.030,-0.030,0.000,0.000,0.000
1641234821134625792,2022-01-03-18:33:41,10.1.1.6,190,-0.040,-0.040,-0.040,0.000,0.000,0.000
1641234821325989888,2022-01-03-18:33:41,10.1.1.6,175,-0.050,-0.050,-0.050,0.000,0.000,0.000
1641234821525302016,2022-01-03-18:33:41,10.1.1.6,172,-0.060,-0.060,-0.060,0.000,0.000,0.000
1641234821725325056,2022-01-03-18:33:41,10.1.1.6,171,-0.070,-0.070,-0.070,0.000,0.000,0.000
1641234821947330048,2022-01-03-18:33:41,10.1.1.6,191,-0.080,-0.080,-0.080,0.000,0.000,0.000
1641234822135787008,2022-01-03-18:33:42,10.1.1.6,179,-0.090,-0.090,-0.090,0.000,0.000,0.000
1641234822356396032,2022-01-03-18:33:42,10.1.1.6,198,-0.100,-0.100,-0.100,0.000,0.000,0.000
1641234822539297024,2022-01-03-18:33:42,10.1.1.6,179,-0.110,-0.110,-0.110,0.000,0.000,0.000
1641234822736957184,2022-01-03-18:33:42,10.1.1.6,176,-0.120,-0.120,-0.120,0.000,0.000,0.000
1641234822945584128,2022-01-03-18:33:42,10.1.1.6,184,-0.130,-0.130,-0.130,0.000,0.000,0.000
1641234823150994944,2022-01-03-18:33:43,10.1.1.6,184,-0.140,-0.140,-0.140,0.000,0.000,0.000
1641234823362936064,2022-01-03-18:33:43,10.1.1.6,196,-0.150,-0.150,-0.150,0.000,0.000,0.000
1641234823553031936,2022-01-03-18:33:43,10.1.1.6,188,-0.160,-0.160,-0.160,0.000,0.000,0.000
1641234823746787072,2022-01-03-18:33:43,10.1.1.6,179,-0.170,-0.170,-0.170,0.000,0.000,0.000
1641234824166394112,2022-01-03-18:33:44,10.1.1.6,186,-0.190,-0.190,-0.190,0.000,0.000,0.000
1641234824376395008,2022-01-03-18:33:44,10.1.1.6,193,-0.200,-0.200,-0.200,0.000,0.000,0.000
1641234824576430080,2022-01-03-18:33:44,10.1.1.6,192,-0.210,-0.210,-0.210,0.000,0.000,0.000
1641234824766653184,2022-01-03-18:33:44,10.1.1.6,181,-0.220,-0.220,-0.220,0.000,0.000,0.000
1641234824966492928,2022-01-03-18:33:44,10.1.1.6,180,-0.230,-0.230,-0.230,0.000,0.000,0.000
1641234825166145024,2022-01-03-18:33:45,10.1.1.6,179,-0.240,-0.240,-0.240,0.000,0.000,0.000
1641234825377463040,2022-01-03-18:33:45,10.1.1.6,188,-0.250,-0.250,-0.250,0.000,0.000,0.000
1641234825566688000,2022-01-03-18:33:45,10.1.1.6,176,-0.260,-0.260,-0.260,0.000,0.000,0.000
1641234825776916992,2022-01-03-18:33:45,10.1.1.6,185,-0.270,-0.270,-0.270,0.000,0.000,0.000
1641234825969861888,2022-01-03-18:33:45,10.1.1.6,174,-0.280,-0.280,-0.280,0.000,0.000,0.000
1641234826176649216,2022-01-03-18:33:46,10.1.1.6,182,-0.290,-0.290,-0.290,0.000,0.000,0.000
1641234826397273088,2022-01-03-18:33:46,10.1.1.6,202,-0.300,-0.300,-0.300,0.000,0.000,0.000
1641234826597923072,2022-01-03-18:33:46,10.1.1.6,198,-0.310,-0.310,-0.310,0.000,0.000,0.000
1641234826776568832,2022-01-03-18:33:46,10.1.1.6,175,-0.320,-0.320,-0.320,0.000,0.000,0.000
1641234826987580160,2022-01-03-18:33:46,10.1.1.6,173,-0.330,-0.330,-0.330,0.000,0.000,0.000
1641234827196798208,2022-01-03-18:33:47,10.1.1.6,181,-0.340,-0.340,-0.340,0.000,0.000,0.000
1641234827407879168,2022-01-03-18:33:47,10.1.1.6,192,-0.350,-0.350,-0.350,0.000,0.000,0.000
1641234827655158016,2022-01-03-18:33:47,10.1.1.6,191,-0.360,-0.360,-0.360,0.000,0.000,0.000
1641234827836934144,2022-01-03-18:33:47,10.1.1.6,177,-0.370,-0.370,-0.370,0.000,0.000,0.000
1641234828087132928,2022-01-03-18:33:48,10.1.1.6,186,-0.380,-0.380,-0.380,0.000,0.000,0.000
1641234828276259840,2022-01-03-18:33:48,10.1.1.6,174,-0.390,-0.390,-0.390,0.000,0.000,0.000
1641234828496325120,2022-01-03-18:33:48,10.1.1.6,193,-0.400,-0.400,-0.400,0.000,0.000,0.000
1641234828696801792,2022-01-03-18:33:48,10.1.1.6,191,-0.410,-0.410,-0.410,0.000,0.000,0.000
1641234828886043136,2022-01-03-18:33:48,10.1.1.6,179,-0.420,-0.420,-0.420,0.000,0.000,0.000
1641234829096183040,2022-01-03-18:33:49,10.1.1.6,188,-0.430,-0.430,-0.430,0.000,0.000,0.000
1641234829286601984,2022-01-03-18:33:49,10.1.1.6,177,-0.440,-0.440,-0.440,0.000,0.000,0.000
1641234829486337024,2022-01-03-18:33:49,10.1.1.6,176,-0.450,-0.450,-0.450,0.000,0.000,0.000
1641234829700641024,2022-01-03-18:33:49,10.1.1.6,190,-0.460,-0.460,-0.460,0.000,0.000,0.000
1641234829896292096,2022-01-03-18:33:49,10.1.1.6,185,-0.470,-0.470,-0.470,0.000,0.000,0.000
1641234830085907968,2022-01-03-18:33:50,10.1.1.6,174,-0.480,-0.480,-0.480,0.000,0.000,0.000
1641234830306811136,2022-01-03-18:33:50,10.1.1.6,189,-0.490,-0.490,-0.490,0.000,0.000,0.000
1641234830505931008,2022-01-03-18:33:50,10.1.1.6,188,-0.480,-0.480,-0.480,0.000,0.000,0.000
1641234830716460032,2022-01-03-18:33:50,10.1.1.6,197,-0.470,-0.470,-0.470,0.000,0.000,0.000
1641234830907458048,2022-01-03-18:33:50,10.1.1.6,188,-0.460,-0.460,-0.460,0.000,0.000,0.000
1641234831117181952,2022-01-03-18:33:51,10.1.1.6,195,-0.450,-0.450,-0.450,0.000,0.000,0.000
1641234831315426048,2022-01-03-18:33:51,10.1.1.6,192,-0.440,-0.440,-0.440,0.000,0.000,0.000
1641234831496062976,2022-01-03-18:33:51,10.1.1.6,172,-0.430,-0.430,-0.430,0.000,0.000,0.000
1641234831701353984,2022-01-03-18:33:51,10.1.1.6,177,-0.420,-0.420,-0.420,0.000,0.000,0.000
1641234831912381952,2022-01-03-18:33:51,10.1.1.6,187,-0.410,-0.410,-0.410,0.000,0.000,0.000
1641234832125435136,2022-01-03-18:33:52,10.1.1.6,180,-0.400,-0.400,-0.400,0.000,0.000,0.000
1641234832356254208,2022-01-03-18:33:52,10.1.1.6,185,-0.390,-0.390,-0.390,0.000,0.000,0.000
1641234832562213888,2022-01-03-18:33:52,10.1.1.6,191,-0.380,-0.380,-0.380,0.000,0.000,0.000
1641234832765570048,2022-01-03-18:33:52,10.1.1.6,189,-0.370,-0.370,-0.370,0.000,0.000,0.000
1641234832978061056,2022-01-03-18:33:52,10.1.1.6,195,-0.360,-0.360,-0.360,0.000,0.000,0.000
1641234833164971008,2022-01-03-18:33:53,10.1.1.6,180,-0.350,-0.350,-0.350,0.000,0.000,0.000
1641234833414167040,2022-01-03-18:33:53,10.1.1.6,178,-0.340,-0.340,-0.340,0.000,0.000,0.000
1641234833623862016,2022-01-03-18:33:53,10.1.1.6,185,-0.330,-0.330,-0.330,0.000,0.000,0.000
1641234833823385088,2022-01-03-18:33:53,10.1.1.6,184,-0.320,-0.320,-0.320,0.000,0.000,0.000
1641234834013817088,2022-01-03-18:33:54,10.1.1.6,173,-0.310,-0.310,-0.310,0.000,0.000,0.000
1641234834233628928,2022-01-03-18:33:54,10.1.1.6,193,-0.300,-0.300,-0.300,0.000,0.000,0.000
1641234834414886912,2022-01-03-18:33:54,10.1.1.6,173,-0.290,-0.290,-0.290,0.000,0.000,0.000
1641234834622946048,2022-01-03-18:33:54,10.1.1.6,181,-0.280,-0.280,-0.280,0.000,0.000,0.000
1641234834833496064,2022-01-03-18:33:54,10.1.1.6,190,-0.270,-0.270,-0.270,0.000,0.000,0.000
1641234835030155776,2022-01-03-18:33:55,10.1.1.6,186,-0.260,-0.260,-0.260,0.000,0.000,0.000
1641234835224546048,2022-01-03-18:33:55,10.1.1.6,176,-0.250,-0.250,-0.250,0.000,0.000,0.000
1641234835426043136,2022-01-03-18:33:55,10.1.1.6,176,-0.240,-0.240,-0.240,0.000,0.000,0.000
1641234835635351040,2022-01-03-18:33:55,10.1.1.6,185,-0.230,-0.230,-0.230,0.000,0.000,0.000
1641234835830885888,2022-01-03-18:33:55,10.1.1.6,178,-0.220,-0.220,-0.220,0.000,0.000,0.000
1641234836023216128,2022-01-03-18:33:56,10.1.1.6,170,-0.210,-0.210,-0.210,0.000,0.000,0.000
1641234836222949120,2022-01-03-18:33:56,10.1.1.6,168,-0.200,-0.200,-0.200,0.000,0.000,0.000
1641234836437720064,2022-01-03-18:33:56,10.1.1.6,176,-0.190,-0.190,-0.190,0.000,0.000,0.000
1641234836833404928,2022-01-03-18:33:56,10.1.1.6,172,-0.170,-0.170,-0.170,0.000,0.000,0.000
1641234837034480128,2022-01-03-18:33:57,10.1.1.6,173,-0.160,-0.160,-0.160,0.000,0.000,0.000
1641234837251524096,2022-01-03-18:33:57,10.1.1.6,189,-0.150,-0.150,-0.150,0.000,0.000,0.000
1641234837452302848,2022-01-03-18:33:57,10.1.1.6,189,-0.140,-0.140,-0.140,0.000,0.000,0.000
1641234837658385920,2022-01-03-18:33:57,10.1.1.6,192,-0.130,-0.130,-0.130,0.000,0.000,0.000
1641234837844506112,2022-01-03-18:33:57,10.1.1.6,177,-0.120,-0.120,-0.120,0.000,0.000,0.000
1641234838056838144,2022-01-03-18:33:58,10.1.1.6,190,-0.110,-0.110,-0.110,0.000,0.000,0.000
1641234838252064000,2022-01-03-18:33:58,10.1.1.6,184,-0.100,-0.100,-0.100,0.000,0.000,0.000
1641234838440366080,2022-01-03-18:33:58,10.1.1.6,171,-0.090,-0.090,-0.090,0.000,0.000,0.000
1641234838641262080,2022-01-03-18:33:58,10.1.1.6,171,-0.080,-0.080,-0.080,0.000,0.000,0.000
1641234839070877184,2022-01-03-18:33:59,10.1.1.6,191,-0.060,-0.060,-0.060,0.000,0.000,0.000
1641234839259973120,2022-01-03-18:33:59,10.1.1.6,175,-0.050,-0.050,-0.050,0.000,0.000,0.000
1641234839469528064,2022-01-03-18:33:59,10.1.1.6,184,-0.040,-0.040,-0.040,0.000,0.000,0.000
1641234839670191104,2022-01-03-18:33:59,10.1.1.6,183,-0.030,-0.030,-0.030,0.000,0.000,0.000
1641234839858792192,2022-01-03-18:33:59,10.1.1.6,170,-0.020,-0.020,-0.020,0.000,0.000,0.000
1641234840066242048,2022-01-03-18:34:00,10.1.1.6,177,-0.010,-0.010,-0.010,0.000,0.000,0.000
1641234840278795008,2022-01-03-18:34:00,10.1.1.6,184,0.000,0.000,0.000,0.000,0.000,0.000
1641234840518511104,2022-01-03-18:34:00,10.1.1.6,172,-0.010,-0.010,-0.010,0.000,0.000,0.000
1641234840728781056,2022-01-03-18:34:00,10.1.1.6,181,-0.020,-0.020,-0.020,0.000,0.000,0.000
1641234840918057984,2022-01-03-18:34:00,10.1.1.6,170,-0.030,-0.030,-0.030,0.000,0.000,0.000
1641234841117782016,2022-01-03-18:34:01,10.1.1.6,169,-0.040,-0.040,-0.040,0.000,0.000,0.000
1641234841518263040,2022-01-03-18:34:01,10.1.1.6,168,-0.060,-0.060,-0.060,0.000,0.000,0.000
1641234841727992064,2022-01-03-18:34:01,10.1.1.6,177,-0.070,-0.070,-0.070,0.000,0.000,0.000
1641234841917228032,2022-01-03-18:34:01,10.1.1.6,166,-0.080,-0.080,-0.080,0.000,0.000,0.000
1641234842117197056,2022-01-03-18:34:02,10.1.1.6,166,-0.090,-0.090,-0.090,0.000,0.000,0.000
1641234842328075776,2022-01-03-18:34:02,10.1.1.6,176,-0.100,-0.100,-0.100,0.000,0.000,0.000
1641234842797789184,2022-01-03-18:34:02,10.1.1.6,182,-0.120,-0.120,-0.120,0.000,0.000,0.000
1641234843006823168,2022-01-03-18:34:03,10.1.1.6,190,-0.130,-0.130,-0.130,0.000,0.000,0.000
1641234843182971904,2022-01-03-18:34:03,10.1.1.6,163,-0.140,-0.140,-0.140,0.000,0.000,0.000
1641234843407401984,2022-01-03-18:34:03,10.1.1.6,188,-0.150,-0.150,-0.150,0.000,0.000,0.000
1641234843595740928,2022-01-03-18:34:03,10.1.1.6,175,-0.160,-0.160,-0.160,0.000,0.000,0.000
1641234843810304000,2022-01-03-18:34:03,10.1.1.6,187,-0.170,-0.170,-0.170,0.000,0.000,0.000
1641234844009696000,2022-01-03-18:34:04,10.1.1.6,184,-0.180,-0.180,-0.180,0.000,0.000,0.000
1641234844205879040,2022-01-03-18:34:04,10.1.1.6,180,-0.190,-0.190,-0.190,0.000,0.000,0.000
1641234844394821888,2022-01-03-18:34:04,10.1.1.6,168,-0.200,-0.200,-0.200,0.000,0.000,0.000
1641234844599757824,2022-01-03-18:34:04,10.1.1.6,172,-0.210,-0.210,-0.210,0.000,0.000,0.000
1641234844831008000,2022-01-03-18:34:04,10.1.1.6,202,-0.220,-0.220,-0.220,0.000,0.000,0.000
1641234845004194048,2022-01-03-18:34:05,10.1.1.6,167,-0.230,-0.230,-0.230,0.000,0.000,0.000
1641234845206765056,2022-01-03-18:34:05,10.1.1.6,169,-0.240,-0.240,-0.240,0.000,0.000,0.000
1641234845404442112,2022-01-03-18:34:05,10.1.1.6,166,-0.250,-0.250,-0.250,0.000,0.000,0.000
1641234845616774144,2022-01-03-18:34:05,10.1.1.6,178,-0.260,-0.260,-0.260,0.000,0.000,0.000
1641234845805306880,2022-01-03-18:34:05,10.1.1.6,166,-0.270,-0.270,-0.270,0.000,0.000,0.000
1641234846017618944,2022-01-03-18:34:06,10.1.1.6,177,-0.280,-0.280,-0.280,0.000,0.000,0.000
1641234846202307072,2022-01-03-18:34:06,10.1.1.6,160,-0.290,-0.290,-0.290,0.000,0.000,0.000
1641234846411709952,2022-01-03-18:34:06,10.1.1.6,169,-0.300,-0.300,-0.300,0.000,0.000,0.000
1641234846622276096,2022-01-03-18:34:06,10.1.1.6,179,-0.310,-0.310,-0.310,0.000,0.000,0.000
1641234846804215040,2022-01-03-18:34:06,10.1.1.6,159,-0.320,-0.320,-0.320,0.000,0.000,0.000
1641234847058010112,2022-01-03-18:34:07,10.1.1.6,197,-0.330,-0.330,-0.330,0.000,0.000,0.000
1641234847241447936,2022-01-03-18:34:07,10.1.1.6,183,-0.340,-0.340,-0.340,0.000,0.000,0.000
1641234847421595136,2022-01-03-18:34:07,10.1.1.6,161,-0.350,-0.350,-0.350,0.000,0.000,0.000
1641234847632997888,2022-01-03-18:34:07,10.1.1.6,172,-0.360,-0.360,-0.360,0.000,0.000,0.000
1641234847831312896,2022-01-03-18:34:07,10.1.1.6,169,-0.370,-0.370,-0.370,0.000,0.000,0.000
1641234848030080000,2022-01-03-18:34:08,10.1.1.6,167,-0.380,-0.380,-0.380,0.000,0.000,0.000
1641234848236982016,2022-01-03-18:34:08,10.1.1.6,172,-0.390,-0.390,-0.390,0.000,0.000,0.000
1641234848440346880,2022-01-03-18:34:08,10.1.1.6,162,-0.400,-0.400,-0.400,0.000,0.000,0.000
1641234848641555968,2022-01-03-18:34:08,10.1.1.6,163,-0.410,-0.410,-0.410,0.000,0.000,0.000
1641234848854908928,2022-01-03-18:34:08,10.1.1.6,176,-0.420,-0.420,-0.420,0.000,0.000,0.000
1641234849061526016,2022-01-03-18:34:09,10.1.1.6,180,-0.430,-0.430,-0.430,0.000,0.000,0.000
1641234849258276096,2022-01-03-18:34:09,10.1.1.6,176,-0.440,-0.440,-0.440,0.000,0.000,0.000
1641234849460942080,2022-01-03-18:34:09,10.1.1.6,178,-0.450,-0.450,-0.450,0.000,0.000,0.000
1641234849649123072,2022-01-03-18:34:09,10.1.1.6,162,-0.460,-0.460,-0.460,0.000,0.000,0.000
1641234849857495040,2022-01-03-18:34:09,10.1.1.6,169,-0.470,-0.470,-0.470,0.000,0.000,0.000
1641234850058262016,2022-01-03-18:34:10,10.1.1.6,169,-0.480,-0.480,-0.480,0.000,0.000,0.000
1641234850260152064,2022-01-03-18:34:10,10.1.1.6,168,-0.490,-0.490,-0.490,0.000,0.000,0.000
1641234850687205120,2022-01-03-18:34:10,10.1.1.6,159,-0.470,-0.470,-0.470,0.000,0.000,0.000
1641234850885678080,2022-01-03-18:34:10,10.1.1.6,151,-0.460,-0.460,-0.460,0.000,0.000,0.000
1641234851113833984,2022-01-03-18:34:11,10.1.1.6,178,-0.450,-0.450,-0.450,0.000,0.000,0.000
1641234851296025088,2022-01-03-18:34:11,10.1.1.6,159,-0.440,-0.440,-0.440,0.000,0.000,0.000
1641234851495264000,2022-01-03-18:34:11,10.1.1.6,154,-0.430,-0.430,-0.430,0.000,0.000,0.000
1641234851698895104,2022-01-03-18:34:11,10.1.1.6,156,-0.420,-0.420,-0.420,0.000,0.000,0.000
1641234851895538944,2022-01-03-18:34:11,10.1.1.6,152,-0.410,-0.410,-0.410,0.000,0.000,0.000
1641234852114113024,2022-01-03-18:34:12,10.1.1.6,168,-0.400,-0.400,-0.400,0.000,0.000,0.000
1641234852305105920,2022-01-03-18:34:12,10.1.1.6,155,-0.390,-0.390,-0.390,0.000,0.000,0.000
1641234852513174016,2022-01-03-18:34:12,10.1.1.6,162,-0.380,-0.380,-0.380,0.000,0.000,0.000
1641234852706695936,2022-01-03-18:34:12,10.1.1.6,153,-0.370,-0.370,-0.370,0.000,0.000,0.000
1641234852928453888,2022-01-03-18:34:12,10.1.1.6,157,-0.360,-0.360,-0.360,0.000,0.000,0.000
1641234853127630080,2022-01-03-18:34:13,10.1.1.6,155,-0.350,-0.350,-0.350,0.000,0.000,0.000
1641234853333515008,2022-01-03-18:34:13,10.1.1.6,160,-0.340,-0.340,-0.340,0.000,0.000,0.000
1641234853531506944,2022-01-03-18:34:13,10.1.1.6,158,-0.330,-0.330,-0.330,0.000,0.000,0.000
1641234853731851008,2022-01-03-18:34:13,10.1.1.6,155,-0.320,-0.320,-0.320,0.000,0.000,0.000
1641234853941842176,2022-01-03-18:34:13,10.1.1.6,164,-0.310,-0.310,-0.310,0.000,0.000,0.000
1641234854131008000,2022-01-03-18:34:14,10.1.1.6,153,-0.300,-0.300,-0.300,0.000,0.000,0.000
1641234854330512896,2022-01-03-18:34:14,10.1.1.6,151,-0.290,-0.290,-0.290,0.000,0.000,0.000
1641234854530871040,2022-01-03-18:34:14,10.1.1.6,149,-0.280,-0.280,-0.280,0.000,0.000,0.000
1641234854750001920,2022-01-03-18:34:14,10.1.1.6,168,-0.270,-0.270,-0.270,0.000,0.000,0.000
1641234854940221184,2022-01-03-18:34:14,10.1.1.6,157,-0.260,-0.260,-0.260,0.000,0.000,0.000
1641234855160360960,2022-01-03-18:34:15,10.1.1.6,176,-0.250,-0.250,-0.250,0.000,0.000,0.000
1641234855339904000,2022-01-03-18:34:15,10.1.1.6,154,-0.240,-0.240,-0.240,0.000,0.000,0.000
1641234855539863040,2022-01-03-18:34:15,10.1.1.6,151,-0.230,-0.230,-0.230,0.000,0.000,0.000
1641234855748965120,2022-01-03-18:34:15,10.1.1.6,159,-0.220,-0.220,-0.220,0.000,0.000,0.000
1641234855945410048,2022-01-03-18:34:15,10.1.1.6,152,-0.210,-0.210,-0.210,0.000,0.000,0.000
1641234856151006976,2022-01-03-18:34:16,10.1.1.6,152,-0.200,-0.200,-0.200,0.000,0.000,0.000
1641234856358649856,2022-01-03-18:34:16,10.1.1.6,159,-0.190,-0.190,-0.190,0.000,0.000,0.000
1641234856568592128,2022-01-03-18:34:16,10.1.1.6,168,-0.180,-0.180,-0.180,0.000,0.000,0.000
1641234856757906944,2022-01-03-18:34:16,10.1.1.6,154,-0.170,-0.170,-0.170,0.000,0.000,0.000
1641234856947578880,2022-01-03-18:34:16,10.1.1.6,143,-0.160,-0.160,-0.160,0.000,0.000,0.000
1641234857157350144,2022-01-03-18:34:17,10.1.1.6,152,-0.150,-0.150,-0.150,0.000,0.000,0.000
1641234857401818880,2022-01-03-18:34:17,10.1.1.6,194,-0.140,-0.140,-0.140,0.000,0.000,0.000
1641234857556365056,2022-01-03-18:34:17,10.1.1.6,146,-0.130,-0.130,-0.130,0.000,0.000,0.000
1641234857756560128,2022-01-03-18:34:17,10.1.1.6,145,-0.120,-0.120,-0.120,0.000,0.000,0.000
1641234857955117824,2022-01-03-18:34:17,10.1.1.6,143,-0.110,-0.110,-0.110,0.000,0.000,0.000
1641234858158315776,2022-01-03-18:34:18,10.1.1.6,144,-0.100,-0.100,-0.100,0.000,0.000,0.000
1641234858375618816,2022-01-03-18:34:18,10.1.1.6,160,-0.090,-0.090,-0.090,0.000,0.000,0.000
1641234858586131968,2022-01-03-18:34:18,10.1.1.6,169,-0.080,-0.080,-0.080,0.000,0.000,0.000
1641234858765156096,2022-01-03-18:34:18,10.1.1.6,146,-0.070,-0.070,-0.070,0.000,0.000,0.000
1641234858973905152,2022-01-03-18:34:18,10.1.1.6,154,-0.060,-0.060,-0.060,0.000,0.000,0.000
1641234859164443136,2022-01-03-18:34:19,10.1.1.6,143,-0.050,-0.050,-0.050,0.000,0.000,0.000
1641234859363867904,2022-01-03-18:34:19,10.1.1.6,141,-0.040,-0.040,-0.040,0.000,0.000,0.000
1641234859573436928,2022-01-03-18:34:19,10.1.1.6,148,-0.030,-0.030,-0.030,0.000,0.000,0.000
1641234859772978176,2022-01-03-18:34:19,10.1.1.6,141,-0.020,-0.020,-0.020,0.000,0.000,0.000
1641234859972529920,2022-01-03-18:34:19,10.1.1.6,140,-0.010,-0.010,-0.010,0.000,0.000,0.000
1641234860182760960,2022-01-03-18:34:20,10.1.1.6,149,0.000,0.000,0.000,0.000,0.000,0.000
1641234860382067968,2022-01-03-18:34:20,10.1.1.6,145,-0.010,-0.010,-0.010,0.000,0.000,0.000
1641234860593346048,2022-01-03-18:34:20,10.1.1.6,155,-0.020,-0.020,-0.020,0.000,0.000,0.000
1641234860786109952,2022-01-03-18:34:20,10.1.1.6,146,-0.030,-0.030,-0.030,0.000,0.000,0.000
1641234861001604096,2022-01-03-18:34:21,10.1.1.6,161,-0.040,-0.040,-0.040,0.000,0.000,0.000
1641234861198231808,2022-01-03-18:34:21,10.1.1.6,156,-0.050,-0.050,-0.050,0.000,0.000,0.000
1641234861391150080,2022-01-03-18:34:21,10.1.1.6,149,-0.060,-0.060,-0.060,0.000,0.000,0.000
1641234861602329856,2022-01-03-18:34:21,10.1.1.6,159,-0.070,-0.070,-0.070,0.000,0.000,0.000
1641234861780813056,2022-01-03-18:34:21,10.1.1.6,137,-0.080,-0.080,-0.080,0.000,0.000,0.000
1641234862009934848,2022-01-03-18:34:22,10.1.1.6,152,-0.090,-0.090,-0.090,0.000,0.000,0.000
1641234862202859008,2022-01-03-18:34:22,10.1.1.6,144,-0.100,-0.100,-0.100,0.000,0.000,0.000
1641234862409084160,2022-01-03-18:34:22,10.1.1.6,150,-0.110,-0.110,-0.110,0.000,0.000,0.000
1641234862599361024,2022-01-03-18:34:22,10.1.1.6,139,-0.120,-0.120,-0.120,0.000,0.000,0.000
1641234862820621056,2022-01-03-18:34:22,10.1.1.6,147,-0.130,-0.130,-0.130,0.000,0.000,0.000
1641234863022413056,2022-01-03-18:34:23,10.1.1.6,147,-0.140,-0.140,-0.140,0.000,0.000,0.000
1641234863238518016,2022-01-03-18:34:23,10.1.1.6,162,-0.150,-0.150,-0.150,0.000,0.000,0.000
1641234863427796992,2022-01-03-18:34:23,10.1.1.6,150,-0.160,-0.160,-0.160,0.000,0.000,0.000
1641234863616589056,2022-01-03-18:34:23,10.1.1.6,137,-0.170,-0.170,-0.170,0.000,0.000,0.000
1641234863827100160,2022-01-03-18:34:23,10.1.1.6,146,-0.180,-0.180,-0.180,0.000,0.000,0.000
1641234864030334976,2022-01-03-18:34:24,10.1.1.6,148,-0.190,-0.190,-0.190,0.000,0.000,0.000
1641234864226313216,2022-01-03-18:34:24,10.1.1.6,139,-0.200,-0.200,-0.200,0.000,0.000,0.000
1641234864447251200,2022-01-03-18:34:24,10.1.1.6,141,-0.210,-0.210,-0.210,0.000,0.000,0.000
1641234864507666944,2022-01-03-18:34:24,10.1.1.6,-2,-0.210,-0.210,-0.210,0.000,0.000,0.000
1641234864845560064,2022-01-03-18:34:24,10.1.1.6,136,-0.230,-0.230,-0.230,0.000,0.000,0.000
1641234865052253952,2022-01-03-18:34:25,10.1.1.6,142,-0.240,-0.240,-0.240,0.000,0.000,0.000
1641234865274957056,2022-01-03-18:34:25,10.1.1.6,152,-0.250,-0.250,-0.250,0.000,0.000,0.000
1641234865465089024,2022-01-03-18:34:25,10.1.1.6,143,-0.260,-0.260,-0.260,0.000,0.000,0.000
1641234865654233088,2022-01-03-18:34:25,10.1.1.6,131,-0.270,-0.270,-0.270,0.000,0.000,0.000
1641234865852720896,2022-01-03-18:34:25,10.1.1.6,129,-0.280,-0.280,-0.280,0.000,0.000,0.000
1641234866066010112,2022-01-03-18:34:26,10.1.1.6,141,-0.290,-0.290,-0.290,0.000,0.000,0.000
1641234866273415936,2022-01-03-18:34:26,10.1.1.6,148,-0.300,-0.300,-0.300,0.000,0.000,0.000
1641234866475055872,2022-01-03-18:34:26,10.1.1.6,149,-0.310,-0.310,-0.310,0.000,0.000,0.000
1641234866671879936,2022-01-03-18:34:26,10.1.1.6,141,-0.320,-0.320,-0.320,0.000,0.000,0.000
1641234866861952000,2022-01-03-18:34:26,10.1.1.6,131,-0.330,-0.330,-0.330,0.000,0.000,0.000
1641234867076622080,2022-01-03-18:34:27,10.1.1.6,145,-0.340,-0.340,-0.340,0.000,0.000,0.000
1641234867293498112,2022-01-03-18:34:27,10.1.1.6,161,-0.350,-0.350,-0.350,0.000,0.000,0.000
1641234867460499968,2022-01-03-18:34:27,10.1.1.6,128,-0.360,-0.360,-0.360,0.000,0.000,0.000
1641234867740657920,2022-01-03-18:34:27,10.1.1.6,139,-0.370,-0.370,-0.370,0.000,0.000,0.000
1641234867930887936,2022-01-03-18:34:27,10.1.1.6,129,-0.380,-0.380,-0.380,0.000,0.000,0.000
1641234868140423936,2022-01-03-18:34:28,10.1.1.6,137,-0.390,-0.390,-0.390,0.000,0.000,0.000
1641234868339944960,2022-01-03-18:34:28,10.1.1.6,135,-0.400,-0.400,-0.400,0.000,0.000,0.000
1641234868539928064,2022-01-03-18:34:28,10.1.1.6,134,-0.410,-0.410,-0.410,0.000,0.000,0.000
1641234868762912000,2022-01-03-18:34:28,10.1.1.6,157,-0.420,-0.420,-0.420,0.000,0.000,0.000
1641234868943239936,2022-01-03-18:34:28,10.1.1.6,136,-0.430,-0.430,-0.430,0.000,0.000,0.000
1641234869138824960,2022-01-03-18:34:29,10.1.1.6,131,-0.440,-0.440,-0.440,0.000,0.000,0.000
1641234869337444096,2022-01-03-18:34:29,10.1.1.6,123,-0.450,-0.450,-0.450,0.000,0.000,0.000
1641234869557897216,2022-01-03-18:34:29,10.1.1.6,141,-0.460,-0.460,-0.460,0.000,0.000,0.000
1641234869769196032,2022-01-03-18:34:29,10.1.1.6,152,-0.470,-0.470,-0.470,0.000,0.000,0.000
1641234869966660864,2022-01-03-18:34:29,10.1.1.6,149,-0.480,-0.480,-0.480,0.000,0.000,0.000
1641234870166100992,2022-01-03-18:34:30,10.1.1.6,147,-0.490,-0.490,-0.490,0.000,0.000,0.000
1641234870356292864,2022-01-03-18:34:30,10.1.1.6,137,-0.480,-0.480,-0.480,0.000,0.000,0.000
1641234870555589888,2022-01-03-18:34:30,10.1.1.6,135,-0.470,-0.470,-0.470,0.000,0.000,0.000
1641234870756012032,2022-01-03-18:34:30,10.1.1.6,135,-0.460,-0.460,-0.460,0.000,0.000,0.000
1641234870965338880,2022-01-03-18:34:30,10.1.1.6,144,-0.450,-0.450,-0.450,0.000,0.000,0.000
1641234871144476928,2022-01-03-18:34:31,10.1.1.6,122,-0.440,-0.440,-0.440,0.000,0.000,0.000
1641234871356161024,2022-01-03-18:34:31,10.1.1.6,133,-0.430,-0.430,-0.430,0.000,0.000,0.000
1641234871557071872,2022-01-03-18:34:31,10.1.1.6,133,-0.420,-0.420,-0.420,0.000,0.000,0.000
1641234871764790016,2022-01-03-18:34:31,10.1.1.6,138,-0.410,-0.410,-0.410,0.000,0.000,0.000
1641234871984494080,2022-01-03-18:34:31,10.1.1.6,122,-0.400,-0.400,-0.400,0.000,0.000,0.000
1641234872205524992,2022-01-03-18:34:32,10.1.1.6,137,-0.390,-0.390,-0.390,0.000,0.000,0.000
1641234872393438976,2022-01-03-18:34:32,10.1.1.6,124,-0.380,-0.380,-0.380,0.000,0.000,0.000
1641234872602566912,2022-01-03-18:34:32,10.1.1.6,130,-0.370,-0.370,-0.370,0.000,0.000,0.000
1641234872802088960,2022-01-03-18:34:32,10.1.1.6,128,-0.360,-0.360,-0.360,0.000,0.000,0.000
1641234873023011840,2022-01-03-18:34:33,10.1.1.6,147,-0.350,-0.350,-0.350,0.000,0.000,0.000
1641234873214565120,2022-01-03-18:34:33,10.1.1.6,138,-0.340,-0.340,-0.340,0.000,0.000,0.000
1641234873402853888,2022-01-03-18:34:33,10.1.1.6,126,-0.330,-0.330,-0.330,0.000,0.000,0.000
1641234873611741184,2022-01-03-18:34:33,10.1.1.6,133,-0.320,-0.320,-0.320,0.000,0.000,0.000
1641234873801122816,2022-01-03-18:34:33,10.1.1.6,122,-0.310,-0.310,-0.310,0.000,0.000,0.000
1641234874000696064,2022-01-03-18:34:34,10.1.1.6,120,-0.300,-0.300,-0.300,0.000,0.000,0.000
1641234874202297088,2022-01-03-18:34:34,10.1.1.6,120,-0.290,-0.290,-0.290,0.000,0.000,0.000
1641234874413997824,2022-01-03-18:34:34,10.1.1.6,132,-0.280,-0.280,-0.280,0.000,0.000,0.000
1641234874630452992,2022-01-03-18:34:34,10.1.1.6,126,-0.270,-0.270,-0.270,0.000,0.000,0.000
1641234874829466112,2022-01-03-18:34:34,10.1.1.6,117,-0.260,-0.260,-0.260,0.000,0.000,0.000
1641234875039937024,2022-01-03-18:34:35,10.1.1.6,127,-0.250,-0.250,-0.250,0.000,0.000,0.000
1641234875239075840,2022-01-03-18:34:35,10.1.1.6,125,-0.240,-0.240,-0.240,0.000,0.000,0.000
1641234875507719936,2022-01-03-18:34:35,10.1.1.6,184,-0.230,-0.230,-0.230,0.000,0.000,0.000
1641234875648053760,2022-01-03-18:34:35,10.1.1.6,129,-0.220,-0.220,-0.220,0.000,0.000,0.000
1641234875837563904,2022-01-03-18:34:35,10.1.1.6,118,-0.210,-0.210,-0.210,0.000,0.000,0.000
1641234876056929024,2022-01-03-18:34:36,10.1.1.6,137,-0.200,-0.200,-0.200,0.000,0.000,0.000
1641234876258208000,2022-01-03-18:34:36,10.1.1.6,136,-0.190,-0.190,-0.190,0.000,0.000,0.000
1641234876446387968,2022-01-03-18:34:36,10.1.1.6,119,-0.180,-0.180,-0.180,0.000,0.000,0.000
1641234876689353984,2022-01-03-18:34:36,10.1.1.6,161,-0.170,-0.170,-0.170,0.000,0.000,0.000
1641234876877986816,2022-01-03-18:34:36,10.1.1.6,127,-0.160,-0.160,-0.160,0.000,0.000,0.000
1641234877096674816,2022-01-03-18:34:37,10.1.1.6,142,-0.150,-0.150,-0.150,0.000,0.000,0.000
1641234877275612160,2022-01-03-18:34:37,10.1.1.6,117,-0.140,-0.140,-0.140,0.000,0.000,0.000
1641234877475184896,2022-01-03-18:34:37,10.1.1.6,115,-0.130,-0.130,-0.130,0.000,0.000,0.000
1641234877675478016,2022-01-03-18:34:37,10.1.1.6,113,-0.120,-0.120,-0.120,0.000,0.000,0.000
1641234877980504064,2022-01-03-18:34:37,10.1.1.6,130,-0.110,-0.110,-0.110,0.000,0.000,0.000
1641234878205614080,2022-01-03-18:34:38,10.1.1.6,114,-0.100,-0.100,-0.100,0.000,0.000,0.000
1641234878423325952,2022-01-03-18:34:38,10.1.1.6,130,-0.090,-0.090,-0.090,0.000,0.000,0.000
1641234878656881920,2022-01-03-18:34:38,10.1.1.6,162,-0.080,-0.080,-0.080,0.000,0.000,0.000
1641234878803257856,2022-01-03-18:34:38,10.1.1.6,109,-0.070,-0.070,-0.070,0.000,0.000,0.000
1641234879210897920,2022-01-03-18:34:39,10.1.1.6,115,-0.050,-0.050,-0.050,0.000,0.000,0.000
1641234879410887936,2022-01-03-18:34:39,10.1.1.6,112,-0.040,-0.040,-0.040,0.000,0.000,0.000
1641234879620805888,2022-01-03-18:34:39,10.1.1.6,120,-0.030,-0.030,-0.030,0.000,0.000,0.000
1641234879810054144,2022-01-03-18:34:39,10.1.1.6,109,-0.020,-0.020,-0.020,0.000,0.000,0.000
1641234880019992064,2022-01-03-18:34:40,10.1.1.6,118,-0.010,-0.010,-0.010,0.000,0.000,0.000
1641234880229217024,2022-01-03-18:34:40,10.1.1.6,126,0.000,0.000,0.000,0.000,0.000,0.000
1641234880429284096,2022-01-03-18:34:40,10.1.1.6,126,-0.010,-0.010,-0.010,0.000,0.000,0.000
1641234880620257024,2022-01-03-18:34:40,10.1.1.6,116,-0.020,-0.020,-0.020,0.000,0.000,0.000
1641234880846643968,2022-01-03-18:34:40,10.1.1.6,142,-0.030,-0.030,-0.030,0.000,0.000,0.000
1641234881021929984,2022-01-03-18:34:41,10.1.1.6,114,-0.040,-0.040,-0.040,0.000,0.000,0.000
1641234881238522112,2022-01-03-18:34:41,10.1.1.6,130,-0.050,-0.050,-0.050,0.000,0.000,0.000
1641234881429223168,2022-01-03-18:34:41,10.1.1.6,119,-0.060,-0.060,-0.060,0.000,0.000,0.000
1641234881627554816,2022-01-03-18:34:41,10.1.1.6,117,-0.070,-0.070,-0.070,0.000,0.000,0.000
1641234881827745792,2022-01-03-18:34:41,10.1.1.6,116,-0.080,-0.080,-0.080,0.000,0.000,0.000
1641234882027503104,2022-01-03-18:34:42,10.1.1.6,116,-0.090,-0.090,-0.090,0.000,0.000,0.000
1641234882216357888,2022-01-03-18:34:42,10.1.1.6,104,-0.100,-0.100,-0.100,0.000,0.000,0.000
1641234882446669056,2022-01-03-18:34:42,10.1.1.6,132,-0.110,-0.110,-0.110,0.000,0.000,0.000
1641234882636656896,2022-01-03-18:34:42,10.1.1.6,121,-0.120,-0.120,-0.120,0.000,0.000,0.000
1641234882836718080,2022-01-03-18:34:42,10.1.1.6,121,-0.130,-0.130,-0.130,0.000,0.000,0.000
1641234883055015168,2022-01-03-18:34:43,10.1.1.6,128,-0.140,-0.140,-0.140,0.000,0.000,0.000
1641234883607599872,2022-01-03-18:34:43,10.1.1.6,129,-0.160,-0.160,-0.160,0.000,0.000,0.000
1641234883798748928,2022-01-03-18:34:43,10.1.1.6,108,-0.170,-0.170,-0.170,0.000,0.000,0.000
1641234884014452992,2022-01-03-18:34:44,10.1.1.6,118,-0.180,-0.180,-0.180,0.000,0.000,0.000
1641234884205337088,2022-01-03-18:34:44,10.1.1.6,108,-0.190,-0.190,-0.190,0.000,0.000,0.000
1641234884405786880,2022-01-03-18:34:44,10.1.1.6,108,-0.200,-0.200,-0.200,0.000,0.000,0.000
1641234884807804160,2022-01-03-18:34:44,10.1.1.6,108,-0.220,-0.220,-0.220,0.000,0.000,0.000
1641234885028809984,2022-01-03-18:34:45,10.1.1.6,126,-0.230,-0.230,-0.230,0.000,0.000,0.000
1641234885214512128,2022-01-03-18:34:45,10.1.1.6,111,-0.240,-0.240,-0.240,0.000,0.000,0.000
1641234885431385088,2022-01-03-18:34:45,10.1.1.6,127,-0.250,-0.250,-0.250,0.000,0.000,0.000
1641234885622782976,2022-01-03-18:34:45,10.1.1.6,118,-0.260,-0.260,-0.260,0.000,0.000,0.000
1641234885833064960,2022-01-03-18:34:45,10.1.1.6,127,-0.270,-0.270,-0.270,0.000,0.000,0.000
1641234886026541056,2022-01-03-18:34:46,10.1.1.6,120,-0.280,-0.280,-0.280,0.000,0.000,0.000
1641234886226860032,2022-01-03-18:34:46,10.1.1.6,118,-0.290,-0.290,-0.290,0.000,0.000,0.000
1641234886436342016,2022-01-03-18:34:46,10.1.1.6,127,-0.300,-0.300,-0.300,0.000,0.000,0.000
1641234886627109888,2022-01-03-18:34:46,10.1.1.6,117,-0.310,-0.310,-0.310,0.000,0.000,0.000
1641234886840302080,2022-01-03-18:34:46,10.1.1.6,130,-0.320,-0.320,-0.320,0.000,0.000,0.000
1641234887038161152,2022-01-03-18:34:47,10.1.1.6,125,-0.330,-0.330,-0.330,0.000,0.000,0.000
1641234887239859200,2022-01-03-18:34:47,10.1.1.6,123,-0.340,-0.340,-0.340,0.000,0.000,0.000
1641234887448539904,2022-01-03-18:34:47,10.1.1.6,132,-0.350,-0.350,-0.350,0.000,0.000,0.000
1641234887657336832,2022-01-03-18:34:47,10.1.1.6,140,-0.360,-0.360,-0.360,0.000,0.000,0.000
1641234887862341888,2022-01-03-18:34:47,10.1.1.6,135,-0.370,-0.370,-0.370,0.000,0.000,0.000
1641234888064055040,2022-01-03-18:34:48,10.1.1.6,133,-0.380,-0.380,-0.380,0.000,0.000,0.000
1641234888252854016,2022-01-03-18:34:48,10.1.1.6,122,-0.390,-0.390,-0.390,0.000,0.000,0.000
1641234888463892992,2022-01-03-18:34:48,10.1.1.6,132,-0.400,-0.400,-0.400,0.000,0.000,0.000
1641234888664641024,2022-01-03-18:34:48,10.1.1.6,132,-0.410,-0.410,-0.410,0.000,0.000,0.000
1641234888864506112,2022-01-03-18:34:48,10.1.1.6,131,-0.420,-0.420,-0.420,0.000,0.000,0.000
1641234889071086848,2022-01-03-18:34:49,10.1.1.6,137,-0.430,-0.430,-0.430,0.000,0.000,0.000
1641234889276487168,2022-01-03-18:34:49,10.1.1.6,135,-0.440,-0.440,-0.440,0.000,0.000,0.000
1641234889477627904,2022-01-03-18:34:49,10.1.1.6,136,-0.450,-0.450,-0.450,0.000,0.000,0.000
1641234889696121856,2022-01-03-18:34:49,10.1.1.6,153,-0.460,-0.460,-0.460,0.000,0.000,0.000
1641234889888726016,2022-01-03-18:34:49,10.1.1.6,145,-0.470,-0.470,-0.470,0.000,0.000,0.000
1641234890079052032,2022-01-03-18:34:50,10.1.1.6,133,-0.480,-0.480,-0.480,0.000,0.000,0.000
1641234890290416128,2022-01-03-18:34:50,10.1.1.6,144,-0.490,-0.490,-0.490,0.000,0.000,0.000
1641234890480238080,2022-01-03-18:34:50,10.1.1.6,133,-0.480,-0.480,-0.480,0.000,0.000,0.000
1641234890681327104,2022-01-03-18:34:50,10.1.1.6,133,-0.470,-0.470,-0.470,0.000,0.000,0.000
1641234890881357056,2022-01-03-18:34:50,10.1.1.6,132,-0.460,-0.460,-0.460,0.000,0.000,0.000
1641234891081843968,2022-01-03-18:34:51,10.1.1.6,132,-0.450,-0.450,-0.450,0.000,0.000,0.000
1641234891300770048,2022-01-03-18:34:51,10.1.1.6,150,-0.440,-0.440,-0.440,0.000,0.000,0.000
1641234891493007872,2022-01-03-18:34:51,10.1.1.6,137,-0.430,-0.430,-0.430,0.000,0.000,0.000
1641234891694413056,2022-01-03-18:34:51,10.1.1.6,137,-0.420,-0.420,-0.420,0.000,0.000,0.000
1641234891895340032,2022-01-03-18:34:51,10.1.1.6,137,-0.410,-0.410,-0.410,0.000,0.000,0.000
1641234892098849024,2022-01-03-18:34:52,10.1.1.6,139,-0.400,-0.400,-0.400,0.000,0.000,0.000
1641234892335483904,2022-01-03-18:34:52,10.1.1.6,135,-0.390,-0.390,-0.390,0.000,0.000,0.000
1641234892539174912,2022-01-03-18:34:52,10.1.1.6,138,-0.380,-0.380,-0.380,0.000,0.000,0.000
1641234892736380928,2022-01-03-18:34:52,10.1.1.6,132,-0.370,-0.370,-0.370,0.000,0.000,0.000
1641234892957325824,2022-01-03-18:34:52,10.1.1.6,152,-0.360,-0.360,-0.360,0.000,0.000,0.000
1641234893157733888,2022-01-03-18:34:53,10.1.1.6,152,-0.350,-0.350,-0.350,0.000,0.000,0.000
1641234893358191872,2022-01-03-18:34:53,10.1.1.6,151,-0.340,-0.340,-0.340,0.000,0.000,0.000
1641234893548694016,2022-01-03-18:34:53,10.1.1.6,141,-0.330,-0.330,-0.330,0.000,0.000,0.000
1641234893759095040,2022-01-03-18:34:53,10.1.1.6,151,-0.320,-0.320,-0.320,0.000,0.000,0.000
1641234893959053056,2022-01-03-18:34:53,10.1.1.6,150,-0.310,-0.310,-0.310,0.000,0.000,0.000
1641234894151154944,2022-01-03-18:34:54,10.1.1.6,141,-0.300,-0.300,-0.300,0.000,0.000,0.000
1641234894349466112,2022-01-03-18:34:54,10.1.1.6,138,-0.290,-0.290,-0.290,0.000,0.000,0.000
1641234894561507840,2022-01-03-18:34:54,10.1.1.6,150,-0.280,-0.280,-0.280,0.000,0.000,0.000
1641234894751702016,2022-01-03-18:34:54,10.1.1.6,140,-0.270,-0.270,-0.270,0.000,0.000,0.000
1641234894952573952,2022-01-03-18:34:54,10.1.1.6,138,-0.260,-0.260,-0.260,0.000,0.000,0.000
1641234895172142080,2022-01-03-18:34:55,10.1.1.6,157,-0.250,-0.250,-0.250,0.000,0.000,0.000
1641234895372078848,2022-01-03-18:34:55,10.1.1.6,156,-0.240,-0.240,-0.240,0.000,0.000,0.000
1641234895574055936,2022-01-03-18:34:55,10.1.1.6,157,-0.230,-0.230,-0.230,0.000,0.000,0.000
1641234895763529984,2022-01-03-18:34:55,10.1.1.6,146,-0.220,-0.220,-0.220,0.000,0.000,0.000
1641234896164865024,2022-01-03-18:34:56,10.1.1.6,146,-0.200,-0.200,-0.200,0.000,0.000,0.000
1641234896365915136,2022-01-03-18:34:56,10.1.1.6,145,-0.190,-0.190,-0.190,0.000,0.000,0.000
1641234896577985024,2022-01-03-18:34:56,10.1.1.6,158,-0.180,-0.180,-0.180,0.000,0.000,0.000
1641234896764076032,2022-01-03-18:34:56,10.1.1.6,141,-0.170,-0.170,-0.170,0.000,0.000,0.000
1641234896964207872,2022-01-03-18:34:56,10.1.1.6,140,-0.160,-0.160,-0.160,0.000,0.000,0.000
1641234897184559104,2022-01-03-18:34:57,10.1.1.6,160,-0.150,-0.150,-0.150,0.000,0.000,0.000
1641234897384551936,2022-01-03-18:34:57,10.1.1.6,159,-0.140,-0.140,-0.140,0.000,0.000,0.000
1641234897584883968,2022-01-03-18:34:57,10.1.1.6,159,-0.130,-0.130,-0.130,0.000,0.000,0.000
1641234897775561984,2022-01-03-18:34:57,10.1.1.6,149,-0.120,-0.120,-0.120,0.000,0.000,0.000
1641234897975889920,2022-01-03-18:34:57,10.1.1.6,148,-0.110,-0.110,-0.110,0.000,0.000,0.000
1641234898175382016,2022-01-03-18:34:58,10.1.1.6,147,-0.100,-0.100,-0.100,0.000,0.000,0.000
1641234898376299008,2022-01-03-18:34:58,10.1.1.6,147,-0.090,-0.090,-0.090,0.000,0.000,0.000
1641234898576282112,2022-01-03-18:34:58,10.1.1.6,146,-0.080,-0.080,-0.080,0.000,0.000,0.000
1641234898776498944,2022-01-03-18:34:58,10.1.1.6,146,-0.070,-0.070,-0.070,0.000,0.000,0.000
1641234898990396928,2022-01-03-18:34:58,10.1.1.6,158,-0.060,-0.060,-0.060,0.000,0.000,0.000
1641234899181925120,2022-01-03-18:34:59,10.1.1.6,149,-0.050,-0.050,-0.050,0.000,0.000,0.000
1641234899396097024,2022-01-03-18:34:59,10.1.1.6,162,-0.040,-0.040,-0.040,0.000,0.000,0.000
1641234899598118144,2022-01-03-18:34:59,10.1.1.6,154,-0.030,-0.030,-0.030,0.000,0.000,0.000
1641234899797404928,2022-01-03-18:34:59,10.1.1.6,147,-0.020,-0.020,-0.020,0.000,0.000,0.000
1641234900004975104,2022-01-03-18:35:00,10.1.1.6,154,-0.010,-0.010,-0.010,0.000,0.000,0.000
1641234900209074944,2022-01-03-18:35:00,10.1.1.6,157,0.000,0.000,0.000,0.000,0.000,0.000
1641234900398075136,2022-01-03-18:35:00,10.1.1.6,145,-0.010,-0.010,-0.010,0.000,0.000,0.000
1641234900682279936,2022-01-03-18:35:00,10.1.1.6,191,-0.020,-0.020,-0.020,0.000,0.000,0.000
1641234900849943040,2022-01-03-18:35:00,10.1.1.6,152,-0.030,-0.030,-0.030,0.000,0.000,0.000
1641234901064368128,2022-01-03-18:35:01,10.1.1.6,165,-0.040,-0.040,-0.040,0.000,0.000,0.000
1641234901252052992,2022-01-03-18:35:01,10.1.1.6,153,-0.050,-0.050,-0.050,0.000,0.000,0.000
1641234901469364992,2022-01-03-18:35:01,10.1.1.6,166,-0.060,-0.060,-0.060,0.000,0.000,0.000
1641234901680310016,2022-01-03-18:35:01,10.1.1.6,176,-0.070,-0.070,-0.070,0.000,0.000,0.000
1641234901849122048,2022-01-03-18:35:01,10.1.1.6,144,-0.080,-0.080,-0.080,0.000,0.000,0.000
1641234902069334016,2022-01-03-18:35:02,10.1.1.6,164,-0.090,-0.090,-0.090,0.000,0.000,0.000
1641234902269659136,2022-01-03-18:35:02,10.1.1.6,163,-0.100,-0.100,-0.100,0.000,0.000,0.000
1641234902468590848,2022-01-03-18:35:02,10.1.1.6,162,-0.110,-0.110,-0.110,0.000,0.000,0.000
1641234902659205888,2022-01-03-18:35:02,10.1.1.6,152,-0.120,-0.120,-0.120,0.000,0.000,0.000
1641234902899353856,2022-01-03-18:35:02,10.1.1.6,191,-0.130,-0.130,-0.130,0.000,0.000,0.000
1641234903072796160,2022-01-03-18:35:03,10.1.1.6,162,-0.140,-0.140,-0.140,0.000,0.000,0.000
1641234903281904896,2022-01-03-18:35:03,10.1.1.6,165,-0.150,-0.150,-0.150,0.000,0.000,0.000
1641234903479216128,2022-01-03-18:35:03,10.1.1.6,161,-0.160,-0.160,-0.160,0.000,0.000,0.000
1641234903722434048,2022-01-03-18:35:03,10.1.1.6,154,-0.170,-0.170,-0.170,0.000,0.000,0.000
1641234903920345088,2022-01-03-18:35:03,10.1.1.6,149,-0.180,-0.180,-0.180,0.000,0.000,0.000
1641234904149837056,2022-01-03-18:35:04,10.1.1.6,165,-0.190,-0.190,-0.190,0.000,0.000,0.000
1641234904340912128,2022-01-03-18:35:04,10.1.1.6,155,-0.200,-0.200,-0.200,0.000,0.000,0.000
1641234904549943808,2022-01-03-18:35:04,10.1.1.6,163,-0.210,-0.210,-0.210,0.000,0.000,0.000
1641234904740474112,2022-01-03-18:35:04,10.1.1.6,152,-0.220,-0.220,-0.220,0.000,0.000,0.000
1641234904949893888,2022-01-03-18:35:04,10.1.1.6,160,-0.230,-0.230,-0.230,0.000,0.000,0.000
1641234905183368960,2022-01-03-18:35:05,10.1.1.6,192,-0.240,-0.240,-0.240,0.000,0.000,0.000
1641234905212732160,2022-01-03-18:35:05,10.1.1.6,-29,-0.240,-0.240,-0.240,0.000,0.000,0.000
1641234905560337920,2022-01-03-18:35:05,10.1.1.6,147,-0.260,-0.260,-0.260,0.000,0.000,0.000
1641234905768444160,2022-01-03-18:35:05,10.1.1.6,154,-0.270,-0.270,-0.270,0.000,0.000,0.000
1641234905980169984,2022-01-03-18:35:05,10.1.1.6,165,-0.280,-0.280,-0.280,0.000,0.000,0.000
1641234906191481088,2022-01-03-18:35:06,10.1.1.6,163,-0.290,-0.290,-0.290,0.000,0.000,0.000
1641234906400214784,2022-01-03-18:35:06,10.1.1.6,160,-0.300,-0.300,-0.300,0.000,0.000,0.000
1641234906590828032,2022-01-03-18:35:06,10.1.1.6,150,-0.310,-0.310,-0.310,0.000,0.000,0.000
1641234906811380992,2022-01-03-18:35:06,10.1.1.6,169,-0.320,-0.320,-0.320,0.000,0.000,0.000
1641234907012819968,2022-01-03-18:35:07,10.1.1.6,170,-0.330,-0.330,-0.330,0.000,0.000,0.000
1641234907212163840,2022-01-03-18:35:07,10.1.1.6,163,-0.340,-0.340,-0.340,0.000,0.000,0.000
1641234907630322944,2022-01-03-18:35:07,10.1.1.6,157,-0.360,-0.360,-0.360,0.000,0.000,0.000
1641234907820696064,2022-01-03-18:35:07,10.1.1.6,147,-0.370,-0.370,-0.370,0.000,0.000,0.000
1641234908050575872,2022-01-03-18:35:08,10.1.1.6,175,-0.380,-0.380,-0.380,0.000,0.000,0.000
1641234908251414016,2022-01-03-18:35:08,10.1.1.6,171,-0.390,-0.390,-0.390,0.000,0.000,0.000
1641234908439671040,2022-01-03-18:35:08,10.1.1.6,155,-0.400,-0.400,-0.400,0.000,0.000,0.000
1641234908666688000,2022-01-03-18:35:08,10.1.1.6,181,-0.410,-0.410,-0.410,0.000,0.000,0.000
1641234908840472064,2022-01-03-18:35:08,10.1.1.6,154,-0.420,-0.420,-0.420,0.000,0.000,0.000
1641234909040445952,2022-01-03-18:35:09,10.1.1.6,153,-0.430,-0.430,-0.430,0.000,0.000,0.000
1641234909253199104,2022-01-03-18:35:09,10.1.1.6,165,-0.440,-0.440,-0.440,0.000,0.000,0.000
1641234909451998976,2022-01-03-18:35:09,10.1.1.6,161,-0.450,-0.450,-0.450,0.000,0.000,0.000
1641234909639812864,2022-01-03-18:35:09,10.1.1.6,146,-0.460,-0.460,-0.460,0.000,0.000,0.000
1641234909859208192,2022-01-03-18:35:09,10.1.1.6,147,-0.470,-0.470,-0.470,0.000,0.000,0.000
1641234910059233792,2022-01-03-18:35:10,10.1.1.6,146,-0.480,-0.480,-0.480,0.000,0.000,0.000
1641234910260289024,2022-01-03-18:35:10,10.1.1.6,146,-0.490,-0.490,-0.490,0.000,0.000,0.000
1641234910481146112,2022-01-03-18:35:10,10.1.1.6,164,-0.480,-0.480,-0.480,0.000,0.000,0.000
1641234910679080960,2022-01-03-18:35:10,10.1.1.6,153,-0.470,-0.470,-0.470,0.000,0.000,0.000
1641234910922700800,2022-01-03-18:35:10,10.1.1.6,181,-0.460,-0.460,-0.460,0.000,0.000,0.000
1641234911090406912,2022-01-03-18:35:11,10.1.1.6,162,-0.450,-0.450,-0.450,0.000,0.000,0.000
1641234911283262976,2022-01-03-18:35:11,10.1.1.6,151,-0.440,-0.440,-0.440,0.000,0.000,0.000
1641234911478967808,2022-01-03-18:35:11,10.1.1.6,148,-0.430,-0.430,-0.430,0.000,0.000,0.000
1641234911679693056,2022-01-03-18:35:11,10.1.1.6,149,-0.420,-0.420,-0.420,0.000,0.000,0.000
1641234911890953984,2022-01-03-18:35:11,10.1.1.6,159,-0.410,-0.410,-0.410,0.000,0.000,0.000
1641234912129751040,2022-01-03-18:35:12,10.1.1.6,197,-0.400,-0.400,-0.400,0.000,0.000,0.000
1641234912298237184,2022-01-03-18:35:12,10.1.1.6,163,-0.390,-0.390,-0.390,0.000,0.000,0.000
1641234912509295872,2022-01-03-18:35:12,10.1.1.6,172,-0.380,-0.380,-0.380,0.000,0.000,0.000
1641234912692396032,2022-01-03-18:35:12,10.1.1.6,154,-0.370,-0.370,-0.370,0.000,0.000,0.000
1641234912891650048,2022-01-03-18:35:12,10.1.1.6,153,-0.360,-0.360,-0.360,0.000,0.000,0.000
1641234913116050944,2022-01-03-18:35:13,10.1.1.6,171,-0.350,-0.350,-0.350,0.000,0.000,0.000
1641234913297979136,2022-01-03-18:35:13,10.1.1.6,150,-0.340,-0.340,-0.340,0.000,0.000,0.000
1641234913508862976,2022-01-03-18:35:13,10.1.1.6,155,-0.330,-0.330,-0.330,0.000,0.000,0.000
1641234913727616000,2022-01-03-18:35:13,10.1.1.6,173,-0.320,-0.320,-0.320,0.000,0.000,0.000
1641234913908416000,2022-01-03-18:35:13,10.1.1.6,151,-0.310,-0.310,-0.310,0.000,0.000,0.000
1641234914115489024,2022-01-03-18:35:14,10.1.1.6,157,-0.300,-0.300,-0.300,0.000,0.000,0.000
1641234914326574080,2022-01-03-18:35:14,10.1.1.6,152,-0.290,-0.290,-0.290,0.000,0.000,0.000
1641234914539581952,2022-01-03-18:35:14,10.1.1.6,163,-0.280,-0.280,-0.280,0.000,0.000,0.000
1641234914726931968,2022-01-03-18:35:14,10.1.1.6,149,-0.270,-0.270,-0.270,0.000,0.000,0.000
1641234914927300096,2022-01-03-18:35:14,10.1.1.6,148,-0.260,-0.260,-0.260,0.000,0.000,0.000
1641234915191204096,2022-01-03-18:35:15,10.1.1.6,191,-0.250,-0.250,-0.250,0.000,0.000,0.000
1641234915354801920,2022-01-03-18:35:15,10.1.1.6,163,-0.240,-0.240,-0.240,0.000,0.000,0.000
1641234915546072064,2022-01-03-18:35:15,10.1.1.6,151,-0.230,-0.230,-0.230,0.000,0.000,0.000
1641234915746136832,2022-01-03-18:35:15,10.1.1.6,150,-0.220,-0.220,-0.220,0.000,0.000,0.000
1641234915945945088,2022-01-03-18:35:15,10.1.1.6,149,-0.210,-0.210,-0.210,0.000,0.000,0.000
1641234916165394944,2022-01-03-18:35:16,10.1.1.6,156,-0.200,-0.200,-0.200,0.000,0.000,0.000
1641234916365398016,2022-01-03-18:35:16,10.1.1.6,153,-0.190,-0.190,-0.190,0.000,0.000,0.000
1641234916565157888,2022-01-03-18:35:16,10.1.1.6,152,-0.180,-0.180,-0.180,0.000,0.000,0.000
1641234916765886976,2022-01-03-18:35:16,10.1.1.6,152,-0.170,-0.170,-0.170,0.000,0.000,0.000
1641234916965138944,2022-01-03-18:35:16,10.1.1.6,150,-0.160,-0.160,-0.160,0.000,0.000,0.000
1641234917165696000,2022-01-03-18:35:17,10.1.1.6,149,-0.150,-0.150,-0.150,0.000,0.000,0.000
1641234917365681920,2022-01-03-18:35:17,10.1.1.6,147,-0.140,-0.140,-0.140,0.000,0.000,0.000
1641234917566181888,2022-01-03-18:35:17,10.1.1.6,145,-0.130,-0.130,-0.130,0.000,0.000,0.000
1641234917785976832,2022-01-03-18:35:17,10.1.1.6,161,-0.120,-0.120,-0.120,0.000,0.000,0.000
1641234917991816960,2022-01-03-18:35:17,10.1.1.6,146,-0.110,-0.110,-0.110,0.000,0.000,0.000
1641234918198512128,2022-01-03-18:35:18,10.1.1.6,157,-0.100,-0.100,-0.100,0.000,0.000,0.000
1641234918387060992,2022-01-03-18:35:18,10.1.1.6,145,-0.090,-0.090,-0.090,0.000,0.000,0.000
1641234918583836928,2022-01-03-18:35:18,10.1.1.6,141,-0.080,-0.080,-0.080,0.000,0.000,0.000
1641234918837527040,2022-01-03-18:35:18,10.1.1.6,195,-0.070,-0.070,-0.070,0.000,0.000,0.000
1641234919006368000,2022-01-03-18:35:19,10.1.1.6,162,-0.060,-0.060,-0.060,0.000,0.000,0.000
1641234919193348864,2022-01-03-18:35:19,10.1.1.6,147,-0.050,-0.050,-0.050,0.000,0.000,0.000
1641234919402793984,2022-01-03-18:35:19,10.1.1.6,154,-0.040,-0.040,-0.040,0.000,0.000,0.000
1641234919610620928,2022-01-03-18:35:19,10.1.1.6,162,-0.030,-0.030,-0.030,0.000,0.000,0.000
1641234919676148992,2022-01-03-18:35:19,10.1.1.6,-31,-0.030,-0.030,-0.030,0.000,0.000,0.000
1641234920014121984,2022-01-03-18:35:20,10.1.1.6,148,-0.010,-0.010,-0.010,0.000,0.000,0.000
1641234920285489152,2022-01-03-18:35:20,10.1.1.6,5,-0.010,-0.010,-0.010,0.000,0.000,0.000
1641234920622328064,2022-01-03-18:35:20,10.1.1.6,140,-0.020,-0.020,-0.020,0.000,0.000,0.000
1641234920841538816,2022-01-03-18:35:20,10.1.1.6,159,-0.030,-0.030,-0.030,0.000,0.000,0.000
1641234921022202880,2022-01-03-18:35:21,10.1.1.6,138,-0.040,-0.040,-0.040,0.000,0.000,0.000
1641234921470828032,2022-01-03-18:35:21,10.1.1.6,138,-0.060,-0.060,-0.060,0.000,0.000,0.000
1641234921674479104,2022-01-03-18:35:21,10.1.1.6,140,-0.070,-0.070,-0.070,0.000,0.000,0.000
1641234921902658816,2022-01-03-18:35:21,10.1.1.6,168,-0.080,-0.080,-0.080,0.000,0.000,0.000
1641234922092564224,2022-01-03-18:35:22,10.1.1.6,147,-0.090,-0.090,-0.090,0.000,0.000,0.000
1641234922289644032,2022-01-03-18:35:22,10.1.1.6,141,-0.100,-0.100,-0.100,0.000,0.000,0.000
1641234922502567168,2022-01-03-18:35:22,10.1.1.6,148,-0.110,-0.110,-0.110,0.000,0.000,0.000
1641234922689736960,2022-01-03-18:35:22,10.1.1.6,135,-0.120,-0.120,-0.120,0.000,0.000,0.000
1641234922909634048,2022-01-03-18:35:22,10.1.1.6,154,-0.130,-0.130,-0.130,0.000,0.000,0.000
1641234923101792000,2022-01-03-18:35:23,10.1.1.6,145,-0.140,-0.140,-0.140,0.000,0.000,0.000
1641234923301263104,2022-01-03-18:35:23,10.1.1.6,144,-0.150,-0.150,-0.150,0.000,0.000,0.000
1641234923505860096,2022-01-03-18:35:23,10.1.1.6,147,-0.160,-0.160,-0.160,0.000,0.000,0.000
1641234923699218944,2022-01-03-18:35:23,10.1.1.6,140,-0.170,-0.170,-0.170,0.000,0.000,0.000
1641234923931888128,2022-01-03-18:35:23,10.1.1.6,172,-0.180,-0.180,-0.180,0.000,0.000,0.000
1641234924099087872,2022-01-03-18:35:24,10.1.1.6,137,-0.190,-0.190,-0.190,0.000,0.000,0.000
1641234924315310080,2022-01-03-18:35:24,10.1.1.6,145,-0.200,-0.200,-0.200,0.000,0.000,0.000
1641234924507892992,2022-01-03-18:35:24,10.1.1.6,135,-0.210,-0.210,-0.210,0.000,0.000,0.000
1641234924764635136,2022-01-03-18:35:24,10.1.1.6,185,-0.220,-0.220,-0.220,0.000,0.000,0.000
1641234924926841088,2022-01-03-18:35:24,10.1.1.6,141,-0.230,-0.230,-0.230,0.000,0.000,0.000
1641234925136168960,2022-01-03-18:35:25,10.1.1.6,149,-0.240,-0.240,-0.240,0.000,0.000,0.000
1641234925336999936,2022-01-03-18:35:25,10.1.1.6,149,-0.250,-0.250,-0.250,0.000,0.000,0.000
1641234925535590912,2022-01-03-18:35:25,10.1.1.6,146,-0.260,-0.260,-0.260,0.000,0.000,0.000
1641234925725549824,2022-01-03-18:35:25,10.1.1.6,135,-0.270,-0.270,-0.270,0.000,0.000,0.000
1641234925926938112,2022-01-03-18:35:25,10.1.1.6,135,-0.280,-0.280,-0.280,0.000,0.000,0.000
1641234926135245056,2022-01-03-18:35:26,10.1.1.6,138,-0.290,-0.290,-0.290,0.000,0.000,0.000
1641234926344676864,2022-01-03-18:35:26,10.1.1.6,146,-0.300,-0.300,-0.300,0.000,0.000,0.000
1641234926546286080,2022-01-03-18:35:26,10.1.1.6,147,-0.310,-0.310,-0.310,0.000,0.000,0.000
1641234926744841216,2022-01-03-18:35:26,10.1.1.6,145,-0.320,-0.320,-0.320,0.000,0.000,0.000
1641234927034703104,2022-01-03-18:35:27,10.1.1.6,208,-0.330,-0.330,-0.330,0.000,0.000,0.000
1641234927184678144,2022-01-03-18:35:27,10.1.1.6,149,-0.340,-0.340,-0.340,0.000,0.000,0.000
1641234927382981120,2022-01-03-18:35:27,10.1.1.6,129,-0.350,-0.350,-0.350,0.000,0.000,0.000
1641234927594584832,2022-01-03-18:35:27,10.1.1.6,139,-0.360,-0.360,-0.360,0.000,0.000,0.000
1641234927794521088,2022-01-03-18:35:27,10.1.1.6,139,-0.370,-0.370,-0.370,0.000,0.000,0.000
1641234928013665024,2022-01-03-18:35:28,10.1.1.6,157,-0.380,-0.380,-0.380,0.000,0.000,0.000
1641234928211334912,2022-01-03-18:35:28,10.1.1.6,155,-0.390,-0.390,-0.390,0.000,0.000,0.000
1641234928392704000,2022-01-03-18:35:28,10.1.1.6,135,-0.400,-0.400,-0.400,0.000,0.000,0.000
1641234928591922944,2022-01-03-18:35:28,10.1.1.6,132,-0.410,-0.410,-0.410,0.000,0.000,0.000
1641234928802520064,2022-01-03-18:35:28,10.1.1.6,141,-0.420,-0.420,-0.420,0.000,0.000,0.000
1641234928997582848,2022-01-03-18:35:28,10.1.1.6,135,-0.430,-0.430,-0.430,0.000,0.000,0.000
1641234929201041920,2022-01-03-18:35:29,10.1.1.6,138,-0.440,-0.440,-0.440,0.000,0.000,0.000
1641234929401346816,2022-01-03-18:35:29,10.1.1.6,138,-0.450,-0.450,-0.450,0.000,0.000,0.000
1641234929601136896,2022-01-03-18:35:29,10.1.1.6,137,-0.460,-0.460,-0.460,0.000,0.000,0.000
1641234929800896768,2022-01-03-18:35:29,10.1.1.6,136,-0.470,-0.470,-0.470,0.000,0.000,0.000
1641234930000566016,2022-01-03-18:35:30,10.1.1.6,135,-0.480,-0.480,-0.480,0.000,0.000,0.000
1641234930199393024,2022-01-03-18:35:30,10.1.1.6,133,-0.490,-0.490,-0.490,0.000,0.000,0.000
1641234930446553856,2022-01-03-18:35:30,10.1.1.6,179,-0.480,-0.480,-0.480,0.000,0.000,0.000
1641234930618979840,2022-01-03-18:35:30,10.1.1.6,126,-0.470,-0.470,-0.470,0.000,0.000,0.000
1641234930829381888,2022-01-03-18:35:30,10.1.1.6,135,-0.460,-0.460,-0.460,0.000,0.000,0.000
1641234931073021952,2022-01-03-18:35:31,10.1.1.6,166,-0.450,-0.450,-0.450,0.000,0.000,0.000
1641234931228523008,2022-01-03-18:35:31,10.1.1.6,129,-0.440,-0.440,-0.440,0.000,0.000,0.000
1641234931428043008,2022-01-03-18:35:31,10.1.1.6,124,-0.430,-0.430,-0.430,0.000,0.000,0.000
1641234931648004096,2022-01-03-18:35:31,10.1.1.6,142,-0.420,-0.420,-0.420,0.000,0.000,0.000
1641234931848058112,2022-01-03-18:35:31,10.1.1.6,140,-0.410,-0.410,-0.410,0.000,0.000,0.000
1641234932047121152,2022-01-03-18:35:32,10.1.1.6,138,-0.400,-0.400,-0.400,0.000,0.000,0.000
1641234932247517952,2022-01-03-18:35:32,10.1.1.6,137,-0.390,-0.390,-0.390,0.000,0.000,0.000
1641234932436794112,2022-01-03-18:35:32,10.1.1.6,126,-0.380,-0.380,-0.380,0.000,0.000,0.000
1641234932651098112,2022-01-03-18:35:32,10.1.1.6,140,-0.370,-0.370,-0.370,0.000,0.000,0.000
1641234932836101888,2022-01-03-18:35:32,10.1.1.6,123,-0.360,-0.360,-0.360,0.000,0.000,0.000
1641234933045711104,2022-01-03-18:35:33,10.1.1.6,131,-0.350,-0.350,-0.350,0.000,0.000,0.000
1641234933245961984,2022-01-03-18:35:33,10.1.1.6,130,-0.340,-0.340,-0.340,0.000,0.000,0.000
1641234933468368128,2022-01-03-18:35:33,10.1.1.6,151,-0.330,-0.330,-0.330,0.000,0.000,0.000
1641234933655333888,2022-01-03-18:35:33,10.1.1.6,136,-0.320,-0.320,-0.320,0.000,0.000,0.000
1641234933856157184,2022-01-03-18:35:33,10.1.1.6,136,-0.310,-0.310,-0.310,0.000,0.000,0.000
1641234934124695040,2022-01-03-18:35:34,10.1.1.6,126,-0.300,-0.300,-0.300,0.000,0.000,0.000
1641234934334494208,2022-01-03-18:35:34,10.1.1.6,134,-0.290,-0.290,-0.290,0.000,0.000,0.000
1641234934533857024,2022-01-03-18:35:34,10.1.1.6,132,-0.280,-0.280,-0.280,0.000,0.000,0.000
1641234934724086016,2022-01-03-18:35:34,10.1.1.6,122,-0.270,-0.270,-0.270,0.000,0.000,0.000
1641234935008904960,2022-01-03-18:35:34,10.1.1.6,178,-0.260,-0.260,-0.260,0.000,0.000,0.000
1641234935133148928,2022-01-03-18:35:35,10.1.1.6,122,-0.250,-0.250,-0.250,0.000,0.000,0.000
1641234935332395008,2022-01-03-18:35:35,10.1.1.6,121,-0.240,-0.240,-0.240,0.000,0.000,0.000
1641234935532573952,2022-01-03-18:35:35,10.1.1.6,120,-0.230,-0.230,-0.230,0.000,0.000,0.000
1641234935741814016,2022-01-03-18:35:35,10.1.1.6,124,-0.220,-0.220,-0.220,0.000,0.000,0.000
1641234935964831232,2022-01-03-18:35:35,10.1.1.6,147,-0.210,-0.210,-0.210,0.000,0.000,0.000
1641234936162761984,2022-01-03-18:35:36,10.1.1.6,144,-0.200,-0.200,-0.200,0.000,0.000,0.000
1641234936342281216,2022-01-03-18:35:36,10.1.1.6,123,-0.190,-0.190,-0.190,0.000,0.000,0.000
1641234936541626880,2022-01-03-18:35:36,10.1.1.6,121,-0.180,-0.180,-0.180,0.000,0.000,0.000
1641234936761529088,2022-01-03-18:35:36,10.1.1.6,141,-0.170,-0.170,-0.170,0.000,0.000,0.000
1641234936940116992,2022-01-03-18:35:36,10.1.1.6,119,-0.160,-0.160,-0.160,0.000,0.000,0.000
1641234937414230016,2022-01-03-18:35:37,10.1.1.6,136,-0.140,-0.140,-0.140,0.000,0.000,0.000
1641234937620392960,2022-01-03-18:35:37,10.1.1.6,142,-0.130,-0.130,-0.130,0.000,0.000,0.000
1641234937846785024,2022-01-03-18:35:37,10.1.1.6,152,-0.120,-0.120,-0.120,0.000,0.000,0.000
1641234937998248192,2022-01-03-18:35:37,10.1.1.6,118,-0.110,-0.110,-0.110,0.000,0.000,0.000
1641234938208519936,2022-01-03-18:35:38,10.1.1.6,122,-0.100,-0.100,-0.100,0.000,0.000,0.000
1641234938417687808,2022-01-03-18:35:38,10.1.1.6,131,-0.090,-0.090,-0.090,0.000,0.000,0.000
1641234938608755968,2022-01-03-18:35:38,10.1.1.6,120,-0.080,-0.080,-0.080,0.000,0.000,0.000
1641234938807725824,2022-01-03-18:35:38,10.1.1.6,117,-0.070,-0.070,-0.070,0.000,0.000,0.000
1641234939007186944,2022-01-03-18:35:39,10.1.1.6,115,-0.060,-0.060,-0.060,0.000,0.000,0.000
1641234939217299968,2022-01-03-18:35:39,10.1.1.6,124,-0.050,-0.050,-0.050,0.000,0.000,0.000
1641234939405751040,2022-01-03-18:35:39,10.1.1.6,112,-0.040,-0.040,-0.040,0.000,0.000,0.000
1641234939616688896,2022-01-03-18:35:39,10.1.1.6,115,-0.030,-0.030,-0.030,0.000,0.000,0.000
1641234939825721088,2022-01-03-18:35:39,10.1.1.6,122,-0.020,-0.020,-0.020,0.000,0.000,0.000
1641234940025505024,2022-01-03-18:35:40,10.1.1.6,120,-0.010,-0.010,-0.010,0.000,0.000,0.000
1641234940244393216,2022-01-03-18:35:40,10.1.1.6,138,0.000,0.000,0.000,0.000,0.000,0.000
1641234940425544960,2022-01-03-18:35:40,10.1.1.6,118,-0.010,-0.010,-0.010,0.000,0.000,0.000
1641234940641520896,2022-01-03-18:35:40,10.1.1.6,131,-0.020,-0.020,-0.020,0.000,0.000,0.000
1641234940824640000,2022-01-03-18:35:40,10.1.1.6,113,-0.030,-0.030,-0.030,0.000,0.000,0.000
1641234941036787968,2022-01-03-18:35:41,10.1.1.6,124,-0.040,-0.040,-0.040,0.000,0.000,0.000
1641234941223543040,2022-01-03-18:35:41,10.1.1.6,110,-0.050,-0.050,-0.050,0.000,0.000,0.000
1641234941424161792,2022-01-03-18:35:41,10.1.1.6,110,-0.060,-0.060,-0.060,0.000,0.000,0.000
1641234941633459968,2022-01-03-18:35:41,10.1.1.6,119,-0.070,-0.070,-0.070,0.000,0.000,0.000
1641234941855592960,2022-01-03-18:35:41,10.1.1.6,130,-0.080,-0.080,-0.080,0.000,0.000,0.000
1641234942042277120,2022-01-03-18:35:42,10.1.1.6,116,-0.090,-0.090,-0.090,0.000,0.000,0.000
1641234942242407168,2022-01-03-18:35:42,10.1.1.6,115,-0.100,-0.100,-0.100,0.000,0.000,0.000
1641234942444432896,2022-01-03-18:35:42,10.1.1.6,116,-0.110,-0.110,-0.110,0.000,0.000,0.000
1641234942671554048,2022-01-03-18:35:42,10.1.1.6,137,-0.120,-0.120,-0.120,0.000,0.000,0.000
1641234942900672000,2022-01-03-18:35:42,10.1.1.6,136,-0.130,-0.130,-0.130,0.000,0.000,0.000
1641234943052411136,2022-01-03-18:35:43,10.1.1.6,116,-0.140,-0.140,-0.140,0.000,0.000,0.000
1641234943273991936,2022-01-03-18:35:43,10.1.1.6,136,-0.150,-0.150,-0.150,0.000,0.000,0.000
1641234943460026112,2022-01-03-18:35:43,10.1.1.6,122,-0.160,-0.160,-0.160,0.000,0.000,0.000
1641234943659595008,2022-01-03-18:35:43,10.1.1.6,121,-0.170,-0.170,-0.170,0.000,0.000,0.000
1641234943850244096,2022-01-03-18:35:43,10.1.1.6,110,-0.180,-0.180,-0.180,0.000,0.000,0.000
1641234944102854912,2022-01-03-18:35:44,10.1.1.6,154,-0.190,-0.190,-0.190,0.000,0.000,0.000
1641234944258848000,2022-01-03-18:35:44,10.1.1.6,110,-0.200,-0.200,-0.200,0.000,0.000,0.000
1641234944458273792,2022-01-03-18:35:44,10.1.1.6,109,-0.210,-0.210,-0.210,0.000,0.000,0.000
1641234944669240832,2022-01-03-18:35:44,10.1.1.6,119,-0.220,-0.220,-0.220,0.000,0.000,0.000
1641234944858625024,2022-01-03-18:35:44,10.1.1.6,108,-0.230,-0.230,-0.230,0.000,0.000,0.000
1641234945058234880,2022-01-03-18:35:45,10.1.1.6,106,-0.240,-0.240,-0.240,0.000,0.000,0.000
1641234945257308928,2022-01-03-18:35:45,10.1.1.6,103,-0.250,-0.250,-0.250,0.000,0.000,0.000
1641234945480692992,2022-01-03-18:35:45,10.1.1.6,108,-0.260,-0.260,-0.260,0.000,0.000,0.000
1641234945687456000,2022-01-03-18:35:45,10.1.1.6,107,-0.270,-0.270,-0.270,0.000,0.000,0.000
1641234945896918016,2022-01-03-18:35:45,10.1.1.6,115,-0.280,-0.280,-0.280,0.000,0.000,0.000
1641234946105995776,2022-01-03-18:35:46,10.1.1.6,124,-0.290,-0.290,-0.290,0.000,0.000,0.000
1641234946305944064,2022-01-03-18:35:46,10.1.1.6,122,-0.300,-0.300,-0.300,0.000,0.000,0.000
1641234946515233024,2022-01-03-18:35:46,10.1.1.6,126,-0.310,-0.310,-0.310,0.000,0.000,0.000
1641234946714816000,2022-01-03-18:35:46,10.1.1.6,123,-0.320,-0.320,-0.320,0.000,0.000,0.000
1641234946924443904,2022-01-03-18:35:46,10.1.1.6,111,-0.330,-0.330,-0.330,0.000,0.000,0.000
1641234947125641984,2022-01-03-18:35:47,10.1.1.6,111,-0.340,-0.340,-0.340,0.000,0.000,0.000
1641234947351635968,2022-01-03-18:35:47,10.1.1.6,123,-0.350,-0.350,-0.350,0.000,0.000,0.000
1641234947534116864,2022-01-03-18:35:47,10.1.1.6,105,-0.360,-0.360,-0.360,0.000,0.000,0.000
1641234947767222016,2022-01-03-18:35:47,10.1.1.6,132,-0.370,-0.370,-0.370,0.000,0.000,0.000
1641234947933172992,2022-01-03-18:35:47,10.1.1.6,101,-0.380,-0.380,-0.380,0.000,0.000,0.000
1641234948144634880,2022-01-03-18:35:48,10.1.1.6,111,-0.390,-0.390,-0.390,0.000,0.000,0.000
1641234948365281024,2022-01-03-18:35:48,10.1.1.6,131,-0.400,-0.400,-0.400,0.000,0.000,0.000
1641234948566045952,2022-01-03-18:35:48,10.1.1.6,131,-0.410,-0.410,-0.410,0.000,0.000,0.000
1641234948748764160,2022-01-03-18:35:48,10.1.1.6,112,-0.420,-0.420,-0.420,0.000,0.000,0.000
1641234948952869888,2022-01-03-18:35:48,10.1.1.6,116,-0.430,-0.430,-0.430,0.000,0.000,0.000
1641234949149011968,2022-01-03-18:35:49,10.1.1.6,111,-0.440,-0.440,-0.440,0.000,0.000,0.000
1641234949370711040,2022-01-03-18:35:49,10.1.1.6,130,-0.450,-0.450,-0.450,0.000,0.000,0.000
1641234949574352896,2022-01-03-18:35:49,10.1.1.6,133,-0.460,-0.460,-0.460,0.000,0.000,0.000
1641234949752114176,2022-01-03-18:35:49,10.1.1.6,110,-0.470,-0.470,-0.470,0.000,0.000,0.000
1641234949971074048,2022-01-03-18:35:49,10.1.1.6,129,-0.480,-0.480,-0.480,0.000,0.000,0.000
1641234950153435904,2022-01-03-18:35:50,10.1.1.6,110,-0.490,-0.490,-0.490,0.000,0.000,0.000
1641234950365217024,2022-01-03-18:35:50,10.1.1.6,120,-0.480,-0.480,-0.480,0.000,0.000,0.000
1641234950565910016,2022-01-03-18:35:50,10.1.1.6,120,-0.470,-0.470,-0.470,0.000,0.000,0.000
1641234950777442048,2022-01-03-18:35:50,10.1.1.6,129,-0.460,-0.460,-0.460,0.000,0.000,0.000
1641234950978121984,2022-01-03-18:35:50,10.1.1.6,129,-0.450,-0.450,-0.450,0.000,0.000,0.000
1641234951187161088,2022-01-03-18:35:51,10.1.1.6,137,-0.440,-0.440,-0.440,0.000,0.000,0.000
1641234951368798976,2022-01-03-18:35:51,10.1.1.6,119,-0.430,-0.430,-0.430,0.000,0.000,0.000
1641234951580460032,2022-01-03-18:35:51,10.1.1.6,130,-0.420,-0.420,-0.420,0.000,0.000,0.000
1641234951781289984,2022-01-03-18:35:51,10.1.1.6,127,-0.410,-0.410,-0.410,0.000,0.000,0.000
1641234951981748224,2022-01-03-18:35:51,10.1.1.6,127,-0.400,-0.400,-0.400,0.000,0.000,0.000
1641234952183010048,2022-01-03-18:35:52,10.1.1.6,127,-0.390,-0.390,-0.390,0.000,0.000,0.000
1641234952393501952,2022-01-03-18:35:52,10.1.1.6,133,-0.380,-0.380,-0.380,0.000,0.000,0.000
1641234952584726016,2022-01-03-18:35:52,10.1.1.6,123,-0.370,-0.370,-0.370,0.000,0.000,0.000
1641234952804871168,2022-01-03-18:35:52,10.1.1.6,141,-0.360,-0.360,-0.360,0.000,0.000,0.000
1641234953006493952,2022-01-03-18:35:53,10.1.1.6,142,-0.350,-0.350,-0.350,0.000,0.000,0.000
1641234953197346816,2022-01-03-18:35:53,10.1.1.6,132,-0.340,-0.340,-0.340,0.000,0.000,0.000
1641234953408814848,2022-01-03-18:35:53,10.1.1.6,143,-0.330,-0.330,-0.330,0.000,0.000,0.000
1641234953608160000,2022-01-03-18:35:53,10.1.1.6,138,-0.320,-0.320,-0.320,0.000,0.000,0.000
1641234953808427008,2022-01-03-18:35:53,10.1.1.6,137,-0.310,-0.310,-0.310,0.000,0.000,0.000
1641234954009099008,2022-01-03-18:35:54,10.1.1.6,137,-0.300,-0.300,-0.300,0.000,0.000,0.000
1641234954215059968,2022-01-03-18:35:54,10.1.1.6,137,-0.290,-0.290,-0.290,0.000,0.000,0.000
1641234954430522880,2022-01-03-18:35:54,10.1.1.6,151,-0.280,-0.280,-0.280,0.000,0.000,0.000
1641234954617775872,2022-01-03-18:35:54,10.1.1.6,138,-0.270,-0.270,-0.270,0.000,0.000,0.000
1641234954831316992,2022-01-03-18:35:54,10.1.1.6,150,-0.260,-0.260,-0.260,0.000,0.000,0.000
1641234955011735808,2022-01-03-18:35:55,10.1.1.6,130,-0.250,-0.250,-0.250,0.000,0.000,0.000
1641234955222264064,2022-01-03-18:35:55,10.1.1.6,140,-0.240,-0.240,-0.240,0.000,0.000,0.000
1641234955426362880,2022-01-03-18:35:55,10.1.1.6,144,-0.230,-0.230,-0.230,0.000,0.000,0.000
1641234955624265984,2022-01-03-18:35:55,10.1.1.6,141,-0.220,-0.220,-0.220,0.000,0.000,0.000
1641234955821070080,2022-01-03-18:35:55,10.1.1.6,137,-0.210,-0.210,-0.210,0.000,0.000,0.000
1641234956034963968,2022-01-03-18:35:56,10.1.1.6,150,-0.200,-0.200,-0.200,0.000,0.000,0.000
1641234956225266944,2022-01-03-18:35:56,10.1.1.6,139,-0.190,-0.190,-0.190,0.000,0.000,0.000
1641234956436656896,2022-01-03-18:35:56,10.1.1.6,150,-0.180,-0.180,-0.180,0.000,0.000,0.000
1641234956502636800,2022-01-03-18:35:56,10.1.1.6,-6,-0.180,-0.180,-0.180,0.000,0.000,0.000
1641234956899051008,2022-01-03-18:35:56,10.1.1.6,194,-0.160,-0.160,-0.160,0.000,0.000,0.000
1641234957077281024,2022-01-03-18:35:57,10.1.1.6,160,-0.150,-0.150,-0.150,0.000,0.000,0.000
1641234957277792000,2022-01-03-18:35:57,10.1.1.6,160,-0.140,-0.140,-0.140,0.000,0.000,0.000
1641234957459813120,2022-01-03-18:35:57,10.1.1.6,141,-0.130,-0.130,-0.130,0.000,0.000,0.000
1641234957658849024,2022-01-03-18:35:57,10.1.1.6,139,-0.120,-0.120,-0.120,0.000,0.000,0.000
1641234957869451008,2022-01-03-18:35:57,10.1.1.6,149,-0.110,-0.110,-0.110,0.000,0.000,0.000
1641234958075411968,2022-01-03-18:35:58,10.1.1.6,154,-0.100,-0.100,-0.100,0.000,0.000,0.000
1641234958340162048,2022-01-03-18:35:58,10.1.1.6,156,-0.090,-0.090,-0.090,0.000,0.000,0.000
1641234958530676992,2022-01-03-18:35:58,10.1.1.6,146,-0.080,-0.080,-0.080,0.000,0.000,0.000
1641234958742038016,2022-01-03-18:35:58,10.1.1.6,157,-0.070,-0.070,-0.070,0.000,0.000,0.000
1641234958931691008,2022-01-03-18:35:58,10.1.1.6,145,-0.060,-0.060,-0.060,0.000,0.000,0.000
1641234959144996864,2022-01-03-18:35:59,10.1.1.6,157,-0.050,-0.050,-0.050,0.000,0.000,0.000
1641234959341991936,2022-01-03-18:35:59,10.1.1.6,154,-0.040,-0.040,-0.040,0.000,0.000,0.000
1641234959542568960,2022-01-03-18:35:59,10.1.1.6,154,-0.030,-0.030,-0.030,0.000,0.000,0.000
1641234959743726848,2022-01-03-18:35:59,10.1.1.6,154,-0.020,-0.020,-0.020,0.000,0.000,0.000
1641234959964093952,2022-01-03-18:35:59,10.1.1.6,168,-0.010,-0.010,-0.010,0.000,0.000,0.000
1641234960164722944,2022-01-03-18:36:00,10.1.1.6,167,0.000,0.000,0.000,0.000,0.000,0.000
1641234960372530944,2022-01-03-18:36:00,10.1.1.6,173,-0.010,-0.010,-0.010,0.000,0.000,0.000
1641234960564377088,2022-01-03-18:36:00,10.1.1.6,157,-0.020,-0.020,-0.020,0.000,0.000,0.000
1641234960754187008,2022-01-03-18:36:00,10.1.1.6,145,-0.030,-0.030,-0.030,0.000,0.000,0.000
1641234960955316992,2022-01-03-18:36:00,10.1.1.6,146,-0.040,-0.040,-0.040,0.000,0.000,0.000
1641234961174942976,2022-01-03-18:36:01,10.1.1.6,159,-0.050,-0.050,-0.050,0.000,0.000,0.000
1641234961566328064,2022-01-03-18:36:01,10.1.1.6,149,-0.070,-0.070,-0.070,0.000,0.000,0.000
1641234961769156096,2022-01-03-18:36:01,10.1.1.6,149,-0.080,-0.080,-0.080,0.000,0.000,0.000
1641234961977370112,2022-01-03-18:36:01,10.1.1.6,148,-0.090,-0.090,-0.090,0.000,0.000,0.000
1641234962197345024,2022-01-03-18:36:02,10.1.1.6,168,-0.100,-0.100,-0.100,0.000,0.000,0.000
1641234962388567808,2022-01-03-18:36:02,10.1.1.6,158,-0.110,-0.110,-0.110,0.000,0.000,0.000
1641234962787267072,2022-01-03-18:36:02,10.1.1.6,145,-0.130,-0.130,-0.130,0.000,0.000,0.000
1641234962991202048,2022-01-03-18:36:02,10.1.1.6,149,-0.140,-0.140,-0.140,0.000,0.000,0.000
1641234963219307008,2022-01-03-18:36:03,10.1.1.6,176,-0.150,-0.150,-0.150,0.000,0.000,0.000
1641234963401725952,2022-01-03-18:36:03,10.1.1.6,155,-0.160,-0.160,-0.160,0.000,0.000,0.000
1641234963607331072,2022-01-03-18:36:03,10.1.1.6,159,-0.170,-0.170,-0.170,0.000,0.000,0.000
1641234963819177984,2022-01-03-18:36:03,10.1.1.6,156,-0.180,-0.180,-0.180,0.000,0.000,0.000
1641234964018182912,2022-01-03-18:36:04,10.1.1.6,147,-0.190,-0.190,-0.190,0.000,0.000,0.000
1641234964229068032,2022-01-03-18:36:04,10.1.1.6,157,-0.200,-0.200,-0.200,0.000,0.000,0.000
1641234964428690944,2022-01-03-18:36:04,10.1.1.6,156,-0.210,-0.210,-0.210,0.000,0.000,0.000
1641234964618896128,2022-01-03-18:36:04,10.1.1.6,146,-0.220,-0.220,-0.220,0.000,0.000,0.000
1641234964852699136,2022-01-03-18:36:04,10.1.1.6,178,-0.230,-0.230,-0.230,0.000,0.000,0.000
1641234965048721152,2022-01-03-18:36:05,10.1.1.6,149,-0.240,-0.240,-0.240,0.000,0.000,0.000
1641234965248996864,2022-01-03-18:36:05,10.1.1.6,149,-0.250,-0.250,-0.250,0.000,0.000,0.000
1641234965469883904,2022-01-03-18:36:05,10.1.1.6,169,-0.260,-0.260,-0.260,0.000,0.000,0.000
1641234965665374976,2022-01-03-18:36:05,10.1.1.6,162,-0.270,-0.270,-0.270,0.000,0.000,0.000
1641234965860267008,2022-01-03-18:36:05,10.1.1.6,153,-0.280,-0.280,-0.280,0.000,0.000,0.000
1641234966069801216,2022-01-03-18:36:06,10.1.1.6,161,-0.290,-0.290,-0.290,0.000,0.000,0.000
1641234966259814144,2022-01-03-18:36:06,10.1.1.6,150,-0.300,-0.300,-0.300,0.000,0.000,0.000
1641234966460355072,2022-01-03-18:36:06,10.1.1.6,150,-0.310,-0.310,-0.310,0.000,0.000,0.000
1641234966669617920,2022-01-03-18:36:06,10.1.1.6,158,-0.320,-0.320,-0.320,0.000,0.000,0.000
1641234966869942016,2022-01-03-18:36:06,10.1.1.6,158,-0.330,-0.330,-0.330,0.000,0.000,0.000
1641234967069819904,2022-01-03-18:36:07,10.1.1.6,157,-0.340,-0.340,-0.340,0.000,0.000,0.000
1641234967301497088,2022-01-03-18:36:07,10.1.1.6,151,-0.350,-0.350,-0.350,0.000,0.000,0.000
1641234967511075072,2022-01-03-18:36:07,10.1.1.6,160,-0.360,-0.360,-0.360,0.000,0.000,0.000
1641234967700158976,2022-01-03-18:36:07,10.1.1.6,149,-0.370,-0.370,-0.370,0.000,0.000,0.000
1641234967932538880,2022-01-03-18:36:07,10.1.1.6,154,-0.380,-0.380,-0.380,0.000,0.000,0.000
1641234968140733952,2022-01-03-18:36:08,10.1.1.6,153,-0.390,-0.390,-0.390,0.000,0.000,0.000
1641234968356066816,2022-01-03-18:36:08,10.1.1.6,153,-0.400,-0.400,-0.400,0.000,0.000,0.000
1641234968574680064,2022-01-03-18:36:08,10.1.1.6,172,-0.410,-0.410,-0.410,0.000,0.000,0.000
1641234968752523776,2022-01-03-18:36:08,10.1.1.6,149,-0.420,-0.420,-0.420,0.000,0.000,0.000
1641234968950886912,2022-01-03-18:36:08,10.1.1.6,146,-0.430,-0.430,-0.430,0.000,0.000,0.000
1641234969162766080,2022-01-03-18:36:09,10.1.1.6,157,-0.440,-0.440,-0.440,0.000,0.000,0.000
1641234969411454976,2022-01-03-18:36:09,10.1.1.6,193,-0.450,-0.450,-0.450,0.000,0.000,0.000
1641234969582144000,2022-01-03-18:36:09,10.1.1.6,160,-0.460,-0.460,-0.460,0.000,0.000,0.000
1641234969780919040,2022-01-03-18:36:09,10.1.1.6,159,-0.470,-0.470,-0.470,0.000,0.000,0.000
1641234970017956096,2022-01-03-18:36:10,10.1.1.6,193,-0.480,-0.480,-0.480,0.000,0.000,0.000
1641234970392091136,2022-01-03-18:36:10,10.1.1.6,149,-0.480,-0.480,-0.480,0.000,0.000,0.000
1641234970610982912,2022-01-03-18:36:10,10.1.1.6,149,-0.470,-0.470,-0.470,0.000,0.000,0.000
1641234970822038784,2022-01-03-18:36:10,10.1.1.6,159,-0.460,-0.460,-0.460,0.000,0.000,0.000
1641234971032663040,2022-01-03-18:36:11,10.1.1.6,168,-0.450,-0.450,-0.450,0.000,0.000,0.000
1641234971221043968,2022-01-03-18:36:11,10.1.1.6,155,-0.440,-0.440,-0.440,0.000,0.000,0.000
1641234971421022976,2022-01-03-18:36:11,10.1.1.6,154,-0.430,-0.430,-0.430,0.000,0.000,0.000
1641234971675076096,2022-01-03-18:36:11,10.1.1.6,205,-0.420,-0.420,-0.420,0.000,0.000,0.000
1641234971871032064,2022-01-03-18:36:11,10.1.1.6,173,-0.410,-0.410,-0.410,0.000,0.000,0.000
1641234972072225024,2022-01-03-18:36:12,10.1.1.6,173,-0.400,-0.400,-0.400,0.000,0.000,0.000
1641234972250701824,2022-01-03-18:36:12,10.1.1.6,151,-0.390,-0.390,-0.390,0.000,0.000,0.000
1641234972465362944,2022-01-03-18:36:12,10.1.1.6,164,-0.380,-0.380,-0.380,0.000,0.000,0.000
1641234972660572160,2022-01-03-18:36:12,10.1.1.6,159,-0.370,-0.370,-0.370,0.000,0.000,0.000
1641234972890262016,2022-01-03-18:36:12,10.1.1.6,162,-0.360,-0.360,-0.360,0.000,0.000,0.000
1641234973091649024,2022-01-03-18:36:13,10.1.1.6,162,-0.350,-0.350,-0.350,0.000,0.000,0.000
1641234973280749056,2022-01-03-18:36:13,10.1.1.6,150,-0.340,-0.340,-0.340,0.000,0.000,0.000
1641234973493393920,2022-01-03-18:36:13,10.1.1.6,162,-0.330,-0.330,-0.330,0.000,0.000,0.000
1641234973682109952,2022-01-03-18:36:13,10.1.1.6,150,-0.320,-0.320,-0.320,0.000,0.000,0.000
1641234973879833088,2022-01-03-18:36:13,10.1.1.6,147,-0.310,-0.310,-0.310,0.000,0.000,0.000
1641234974115553024,2022-01-03-18:36:14,10.1.1.6,152,-0.300,-0.300,-0.300,0.000,0.000,0.000
1641234974350977024,2022-01-03-18:36:14,10.1.1.6,173,-0.290,-0.290,-0.290,0.000,0.000,0.000
1641234974529854976,2022-01-03-18:36:14,10.1.1.6,151,-0.280,-0.280,-0.280,0.000,0.000,0.000
1641234974759202048,2022-01-03-18:36:14,10.1.1.6,180,-0.270,-0.270,-0.270,0.000,0.000,0.000
1641234974931148032,2022-01-03-18:36:14,10.1.1.6,151,-0.260,-0.260,-0.260,0.000,0.000,0.000
1641234975139347200,2022-01-03-18:36:15,10.1.1.6,159,-0.250,-0.250,-0.250,0.000,0.000,0.000
1641234975339118848,2022-01-03-18:36:15,10.1.1.6,157,-0.240,-0.240,-0.240,0.000,0.000,0.000
1641234975549515008,2022-01-03-18:36:15,10.1.1.6,161,-0.230,-0.230,-0.230,0.000,0.000,0.000
1641234975739170048,2022-01-03-18:36:15,10.1.1.6,149,-0.220,-0.220,-0.220,0.000,0.000,0.000
1641234975949029888,2022-01-03-18:36:15,10.1.1.6,159,-0.210,-0.210,-0.210,0.000,0.000,0.000
1641234976147499008,2022-01-03-18:36:16,10.1.1.6,156,-0.200,-0.200,-0.200,0.000,0.000,0.000
1641234976358761984,2022-01-03-18:36:16,10.1.1.6,149,-0.190,-0.190,-0.190,0.000,0.000,0.000
1641234976568406016,2022-01-03-18:36:16,10.1.1.6,157,-0.180,-0.180,-0.180,0.000,0.000,0.000
1641234976770764032,2022-01-03-18:36:16,10.1.1.6,158,-0.170,-0.170,-0.170,0.000,0.000,0.000
1641234976977978880,2022-01-03-18:36:16,10.1.1.6,162,-0.160,-0.160,-0.160,0.000,0.000,0.000
1641234977178956032,2022-01-03-18:36:17,10.1.1.6,161,-0.150,-0.150,-0.150,0.000,0.000,0.000
1641234977378621952,2022-01-03-18:36:17,10.1.1.6,160,-0.140,-0.140,-0.140,0.000,0.000,0.000
1641234977579041024,2022-01-03-18:36:17,10.1.1.6,160,-0.130,-0.130,-0.130,0.000,0.000,0.000
1641234977770086144,2022-01-03-18:36:17,10.1.1.6,151,-0.120,-0.120,-0.120,0.000,0.000,0.000
1641234977988289024,2022-01-03-18:36:17,10.1.1.6,168,-0.110,-0.110,-0.110,0.000,0.000,0.000
1641234978170180096,2022-01-03-18:36:18,10.1.1.6,149,-0.100,-0.100,-0.100,0.000,0.000,0.000
1641234978417242880,2022-01-03-18:36:18,10.1.1.6,196,-0.090,-0.090,-0.090,0.000,0.000,0.000
1641234978590667008,2022-01-03-18:36:18,10.1.1.6,154,-0.080,-0.080,-0.080,0.000,0.000,0.000
1641234978798601984,2022-01-03-18:36:18,10.1.1.6,160,-0.070,-0.070,-0.070,0.000,0.000,0.000
1641234978993510912,2022-01-03-18:36:18,10.1.1.6,155,-0.060,-0.060,-0.060,0.000,0.000,0.000
1641234979210267904,2022-01-03-18:36:19,10.1.1.6,167,-0.050,-0.050,-0.050,0.000,0.000,0.000
1641234979406206976,2022-01-03-18:36:19,10.1.1.6,160,-0.040,-0.040,-0.040,0.000,0.000,0.000
1641234979609083904,2022-01-03-18:36:19,10.1.1.6,163,-0.030,-0.030,-0.030,0.000,0.000,0.000
1641234979806590208,2022-01-03-18:36:19,10.1.1.6,158,-0.020,-0.020,-0.020,0.000,0.000,0.000
1641234979996558848,2022-01-03-18:36:19,10.1.1.6,147,-0.010,-0.010,-0.010,0.000,0.000,0.000
1641234980206206976,2022-01-03-18:36:20,10.1.1.6,156,0.000,0.000,0.000,0.000,0.000,0.000
1641234980396758016,2022-01-03-18:36:20,10.1.1.6,145,-0.010,-0.010,-0.010,0.000,0.000,0.000
1641234980595963904,2022-01-03-18:36:20,10.1.1.6,142,-0.020,-0.020,-0.020,0.000,0.000,0.000
1641234980806468096,2022-01-03-18:36:20,10.1.1.6,150,-0.030,-0.030,-0.030,0.000,0.000,0.000
1641234981005840896,2022-01-03-18:36:21,10.1.1.6,147,-0.040,-0.040,-0.040,0.000,0.000,0.000
1641234981205323008,2022-01-03-18:36:21,10.1.1.6,146,-0.050,-0.050,-0.050,0.000,0.000,0.000
1641234981463062016,2022-01-03-18:36:21,10.1.1.6,196,-0.060,-0.060,-0.060,0.000,0.000,0.000
1641234981604971008,2022-01-03-18:36:21,10.1.1.6,141,-0.070,-0.070,-0.070,0.000,0.000,0.000
1641234981834654208,2022-01-03-18:36:21,10.1.1.6,170,-0.080,-0.080,-0.080,0.000,0.000,0.000
1641234982014924032,2022-01-03-18:36:22,10.1.1.6,149,-0.090,-0.090,-0.090,0.000,0.000,0.000
1641234982234868992,2022-01-03-18:36:22,10.1.1.6,148,-0.100,-0.100,-0.100,0.000,0.000,0.000
1641234982434925056,2022-01-03-18:36:22,10.1.1.6,147,-0.110,-0.110,-0.110,0.000,0.000,0.000
1641234982646652928,2022-01-03-18:36:22,10.1.1.6,156,-0.120,-0.120,-0.120,0.000,0.000,0.000
1641234982835452928,2022-01-03-18:36:22,10.1.1.6,142,-0.130,-0.130,-0.130,0.000,0.000,0.000
1641234983073880064,2022-01-03-18:36:23,10.1.1.6,160,-0.140,-0.140,-0.140,0.000,0.000,0.000
1641234983263712000,2022-01-03-18:36:23,10.1.1.6,149,-0.150,-0.150,-0.150,0.000,0.000,0.000
1641234983463518976,2022-01-03-18:36:23,10.1.1.6,148,-0.160,-0.160,-0.160,0.000,0.000,0.000
1641234983686466816,2022-01-03-18:36:23,10.1.1.6,169,-0.170,-0.170,-0.170,0.000,0.000,0.000
1641234983896311040,2022-01-03-18:36:23,10.1.1.6,150,-0.180,-0.180,-0.180,0.000,0.000,0.000
1641234984103784960,2022-01-03-18:36:24,10.1.1.6,156,-0.190,-0.190,-0.190,0.000,0.000,0.000
1641234984292320000,2022-01-03-18:36:24,10.1.1.6,142,-0.200,-0.200,-0.200,0.000,0.000,0.000
1641234984506092032,2022-01-03-18:36:24,10.1.1.6,155,-0.210,-0.210,-0.210,0.000,0.000,0.000
1641234984702996992,2022-01-03-18:36:24,10.1.1.6,150,-0.220,-0.220,-0.220,0.000,0.000,0.000
1641234984894040064,2022-01-03-18:36:24,10.1.1.6,139,-0.230,-0.230,-0.230,0.000,0.000,0.000
1641234985104396032,2022-01-03-18:36:25,10.1.1.6,151,-0.240,-0.240,-0.240,0.000,0.000,0.000
1641234985371032064,2022-01-03-18:36:25,10.1.1.6,138,-0.250,-0.250,-0.250,0.000,0.000,0.000
1641234985572359936,2022-01-03-18:36:25,10.1.1.6,139,-0.260,-0.260,-0.260,0.000,0.000,0.000
1641234985781958144,2022-01-03-18:36:25,10.1.1.6,146,-0.270,-0.270,-0.270,0.000,0.000,0.000
1641234985994671104,2022-01-03-18:36:25,10.1.1.6,155,-0.280,-0.280,-0.280,0.000,0.000,0.000
1641234986180569856,2022-01-03-18:36:26,10.1.1.6,140,-0.290,-0.290,-0.290,0.000,0.000,0.000
1641234986391890944,2022-01-03-18:36:26,10.1.1.6,150,-0.300,-0.300,-0.300,0.000,0.000,0.000
1641234986590257920,2022-01-03-18:36:26,10.1.1.6,147,-0.310,-0.310,-0.310,0.000,0.000,0.000
1641234986789926912,2022-01-03-18:36:26,10.1.1.6,146,-0.320,-0.320,-0.320,0.000,0.000,0.000
1641234986999904000,2022-01-03-18:36:26,10.1.1.6,155,-0.330,-0.330,-0.330,0.000,0.000,0.000
1641234987189501952,2022-01-03-18:36:27,10.1.1.6,143,-0.340,-0.340,-0.340,0.000,0.000,0.000
1641234987388723968,2022-01-03-18:36:27,10.1.1.6,142,-0.350,-0.350,-0.350,0.000,0.000,0.000
1641234987598982144,2022-01-03-18:36:27,10.1.1.6,148,-0.360,-0.360,-0.360,0.000,0.000,0.000
1641234987790046976,2022-01-03-18:36:27,10.1.1.6,138,-0.370,-0.370,-0.370,0.000,0.000,0.000
1641234987998227968,2022-01-03-18:36:27,10.1.1.6,145,-0.380,-0.380,-0.380,0.000,0.000,0.000
1641234988188064000,2022-01-03-18:36:28,10.1.1.6,134,-0.390,-0.390,-0.390,0.000,0.000,0.000
1641234988398663168,2022-01-03-18:36:28,10.1.1.6,136,-0.400,-0.400,-0.400,0.000,0.000,0.000
1641234988598412032,2022-01-03-18:36:28,10.1.1.6,136,-0.410,-0.410,-0.410,0.000,0.000,0.000
1641234988800816128,2022-01-03-18:36:28,10.1.1.6,137,-0.420,-0.420,-0.420,0.000,0.000,0.000
1641234989006830848,2022-01-03-18:36:29,10.1.1.6,142,-0.430,-0.430,-0.430,0.000,0.000,0.000
1641234989206739968,2022-01-03-18:36:29,10.1.1.6,141,-0.440,-0.440,-0.440,0.000,0.000,0.000
1641234989406925824,2022-01-03-18:36:29,10.1.1.6,141,-0.450,-0.450,-0.450,0.000,0.000,0.000
1641234989607414016,2022-01-03-18:36:29,10.1.1.6,140,-0.460,-0.460,-0.460,0.000,0.000,0.000
1641234989814147072,2022-01-03-18:36:29,10.1.1.6,147,-0.470,-0.470,-0.470,0.000,0.000,0.000
1641234990007288832,2022-01-03-18:36:30,10.1.1.6,136,-0.480,-0.480,-0.480,0.000,0.000,0.000
1641234990215755008,2022-01-03-18:36:30,10.1.1.6,143,-0.490,-0.490,-0.490,0.000,0.000,0.000
1641234990416364032,2022-01-03-18:36:30,10.1.1.6,143,-0.480,-0.480,-0.480,0.000,0.000,0.000
1641234990606457088,2022-01-03-18:36:30,10.1.1.6,132,-0.470,-0.470,-0.470,0.000,0.000,0.000
1641234990824704000,2022-01-03-18:36:30,10.1.1.6,148,-0.460,-0.460,-0.460,0.000,0.000,0.000
1641234991019095808,2022-01-03-18:36:31,10.1.1.6,142,-0.450,-0.450,-0.450,0.000,0.000,0.000
1641234991225204992,2022-01-03-18:36:31,10.1.1.6,147,-0.440,-0.440,-0.440,0.000,0.000,0.000
1641234991414927104,2022-01-03-18:36:31,10.1.1.6,136,-0.430,-0.430,-0.430,0.000,0.000,0.000
1641234991613873920,2022-01-03-18:36:31,10.1.1.6,134,-0.420,-0.420,-0.420,0.000,0.000,0.000
1641234991825592064,2022-01-03-18:36:31,10.1.1.6,146,-0.410,-0.410,-0.410,0.000,0.000,0.000
1641234992076562944,2022-01-03-18:36:32,10.1.1.6,183,-0.400,-0.400,-0.400,0.000,0.000,0.000
1641234992213498112,2022-01-03-18:36:32,10.1.1.6,131,-0.390,-0.390,-0.390,0.000,0.000,0.000
1641234992413176064,2022-01-03-18:36:32,10.1.1.6,130,-0.380,-0.380,-0.380,0.000,0.000,0.000
1641234992613768192,2022-01-03-18:36:32,10.1.1.6,130,-0.370,-0.370,-0.370,0.000,0.000,0.000
1641234992813803008,2022-01-03-18:36:32,10.1.1.6,129,-0.360,-0.360,-0.360,0.000,0.000,0.000
1641234993021705984,2022-01-03-18:36:33,10.1.1.6,136,-0.350,-0.350,-0.350,0.000,0.000,0.000
1641234993231578112,2022-01-03-18:36:33,10.1.1.6,142,-0.340,-0.340,-0.340,0.000,0.000,0.000
1641234993432049152,2022-01-03-18:36:33,10.1.1.6,135,-0.330,-0.330,-0.330,0.000,0.000,0.000
1641234993651462912,2022-01-03-18:36:33,10.1.1.6,154,-0.320,-0.320,-0.320,0.000,0.000,0.000
1641234993830593024,2022-01-03-18:36:33,10.1.1.6,132,-0.310,-0.310,-0.310,0.000,0.000,0.000
1641234994031055872,2022-01-03-18:36:34,10.1.1.6,132,-0.300,-0.300,-0.300,0.000,0.000,0.000
1641234994447911936,2022-01-03-18:36:34,10.1.1.6,146,-0.280,-0.280,-0.280,0.000,0.000,0.000
1641234994660408064,2022-01-03-18:36:34,10.1.1.6,139,-0.270,-0.270,-0.270,0.000,0.000,0.000
1641234994870925056,2022-01-03-18:36:34,10.1.1.6,149,-0.260,-0.260,-0.260,0.000,0.000,0.000
1641234995087831040,2022-01-03-18:36:35,10.1.1.6,164,-0.250,-0.250,-0.250,0.000,0.000,0.000
1641234995270571008,2022-01-03-18:36:35,10.1.1.6,142,-0.240,-0.240,-0.240,0.000,0.000,0.000
1641234995668404992,2022-01-03-18:36:35,10.1.1.6,136,-0.220,-0.220,-0.220,0.000,0.000,0.000
1641234995868720896,2022-01-03-18:36:35,10.1.1.6,136,-0.210,-0.210,-0.210,0.000,0.000,0.000
1641234996069617920,2022-01-03-18:36:36,10.1.1.6,136,-0.200,-0.200,-0.200,0.000,0.000,0.000
1641234996259705088,2022-01-03-18:36:36,10.1.1.6,125,-0.190,-0.190,-0.190,0.000,0.000,0.000
1641234996490185984,2022-01-03-18:36:36,10.1.1.6,154,-0.180,-0.180,-0.180,0.000,0.000,0.000
1641234996678523904,2022-01-03-18:36:36,10.1.1.6,142,-0.170,-0.170,-0.170,0.000,0.000,0.000
1641234996887123968,2022-01-03-18:36:36,10.1.1.6,146,-0.160,-0.160,-0.160,0.000,0.000,0.000
1641234997089481984,2022-01-03-18:36:37,10.1.1.6,146,-0.150,-0.150,-0.150,0.000,0.000,0.000
1641234997324628992,2022-01-03-18:36:37,10.1.1.6,156,-0.140,-0.140,-0.140,0.000,0.000,0.000
1641234997506306816,2022-01-03-18:36:37,10.1.1.6,136,-0.130,-0.130,-0.130,0.000,0.000,0.000
1641234997721476096,2022-01-03-18:36:37,10.1.1.6,150,-0.120,-0.120,-0.120,0.000,0.000,0.000
1641234997906903040,2022-01-03-18:36:37,10.1.1.6,135,-0.110,-0.110,-0.110,0.000,0.000,0.000
1641234998097645056,2022-01-03-18:36:38,10.1.1.6,125,-0.100,-0.100,-0.100,0.000,0.000,0.000
1641234998305533952,2022-01-03-18:36:38,10.1.1.6,132,-0.090,-0.090,-0.090,0.000,0.000,0.000
1641234998511080960,2022-01-03-18:36:38,10.1.1.6,137,-0.080,-0.080,-0.080,0.000,0.000,0.000
1641234998737510912,2022-01-03-18:36:38,10.1.1.6,162,-0.070,-0.070,-0.070,0.000,0.000,0.000
1641234998929508096,2022-01-03-18:36:38,10.1.1.6,140,-0.060,-0.060,-0.060,0.000,0.000,0.000
1641234999117741056,2022-01-03-18:36:39,10.1.1.6,126,-0.050,-0.050,-0.050,0.000,0.000,0.000
1641234999314133760,2022-01-03-18:36:39,10.1.1.6,122,-0.040,-0.040,-0.040,0.000,0.000,0.000
1641234999522228992,2022-01-03-18:36:39,10.1.1.6,130,-0.030,-0.030,-0.030,0.000,0.000,0.000
1641234999742452992,2022-01-03-18:36:39,10.1.1.6,145,-0.020,-0.020,-0.020,0.000,0.000,0.000
1641234999944969984,2022-01-03-18:36:39,10.1.1.6,146,-0.010,-0.010,-0.010,0.000,0.000,0.000
1641235000123024896,2022-01-03-18:36:40,10.1.1.6,123,0.000,0.000,0.000,0.000,0.000,0.000
1641235000323257856,2022-01-03-18:36:40,10.1.1.6,123,-0.010,-0.010,-0.010,0.000,0.000,0.000
1641235000522084864,2022-01-03-18:36:40,10.1.1.6,121,-0.020,-0.020,-0.020,0.000,0.000,0.000
1641235000722276096,2022-01-03-18:36:40,10.1.1.6,120,-0.030,-0.030,-0.030,0.000,0.000,0.000
1641235000938934016,2022-01-03-18:36:40,10.1.1.6,134,-0.040,-0.040,-0.040,0.000,0.000,0.000
1641235001154665984,2022-01-03-18:36:41,10.1.1.6,123,-0.050,-0.050,-0.050,0.000,0.000,0.000
1641235001359920896,2022-01-03-18:36:41,10.1.1.6,129,-0.060,-0.060,-0.060,0.000,0.000,0.000
1641235001560889088,2022-01-03-18:36:41,10.1.1.6,129,-0.070,-0.070,-0.070,0.000,0.000,0.000
1641235001780649984,2022-01-03-18:36:41,10.1.1.6,146,-0.080,-0.080,-0.080,0.000,0.000,0.000
1641235001969958144,2022-01-03-18:36:41,10.1.1.6,133,-0.090,-0.090,-0.090,0.000,0.000,0.000
1641235002192823040,2022-01-03-18:36:42,10.1.1.6,155,-0.100,-0.100,-0.100,0.000,0.000,0.000
1641235002372968960,2022-01-03-18:36:42,10.1.1.6,132,-0.110,-0.110,-0.110,0.000,0.000,0.000
1641235002569440000,2022-01-03-18:36:42,10.1.1.6,130,-0.120,-0.120,-0.120,0.000,0.000,0.000
1641235002778551040,2022-01-03-18:36:42,10.1.1.6,139,-0.130,-0.130,-0.130,0.000,0.000,0.000
1641235002978843904,2022-01-03-18:36:42,10.1.1.6,138,-0.140,-0.140,-0.140,0.000,0.000,0.000
1641235003158690816,2022-01-03-18:36:43,10.1.1.6,117,-0.150,-0.150,-0.150,0.000,0.000,0.000
1641235003374778112,2022-01-03-18:36:43,10.1.1.6,131,-0.160,-0.160,-0.160,0.000,0.000,0.000
1641235003570513920,2022-01-03-18:36:43,10.1.1.6,121,-0.170,-0.170,-0.170,0.000,0.000,0.000
1641235003767774976,2022-01-03-18:36:43,10.1.1.6,117,-0.180,-0.180,-0.180,0.000,0.000,0.000
1641235003980865024,2022-01-03-18:36:43,10.1.1.6,127,-0.190,-0.190,-0.190,0.000,0.000,0.000
1641235004166203904,2022-01-03-18:36:44,10.1.1.6,111,-0.200,-0.200,-0.200,0.000,0.000,0.000
1641235004438376960,2022-01-03-18:36:44,10.1.1.6,162,-0.210,-0.210,-0.210,0.000,0.000,0.000
1641235004577008896,2022-01-03-18:36:44,10.1.1.6,117,-0.220,-0.220,-0.220,0.000,0.000,0.000
1641235004785494016,2022-01-03-18:36:44,10.1.1.6,126,-0.230,-0.230,-0.230,0.000,0.000,0.000
1641235004984886784,2022-01-03-18:36:44,10.1.1.6,122,-0.240,-0.240,-0.240,0.000,0.000,0.000
1641235005194200064,2022-01-03-18:36:45,10.1.1.6,131,-0.250,-0.250,-0.250,0.000,0.000,0.000
1641235005374341120,2022-01-03-18:36:45,10.1.1.6,110,-0.260,-0.260,-0.260,0.000,0.000,0.000
1641235005632654848,2022-01-03-18:36:45,10.1.1.6,168,-0.270,-0.270,-0.270,0.000,0.000,0.000
1641235005813651968,2022-01-03-18:36:45,10.1.1.6,139,-0.280,-0.280,-0.280,0.000,0.000,0.000
1641235006013519104,2022-01-03-18:36:46,10.1.1.6,138,-0.290,-0.290,-0.290,0.000,0.000,0.000
1641235006202781952,2022-01-03-18:36:46,10.1.1.6,126,-0.300,-0.300,-0.300,0.000,0.000,0.000
1641235006402612992,2022-01-03-18:36:46,10.1.1.6,126,-0.310,-0.310,-0.310,0.000,0.000,0.000
1641235006592182016,2022-01-03-18:36:46,10.1.1.6,115,-0.320,-0.320,-0.320,0.000,0.000,0.000
1641235006792210944,2022-01-03-18:36:46,10.1.1.6,114,-0.330,-0.330,-0.330,0.000,0.000,0.000
1641235007001925888,2022-01-03-18:36:47,10.1.1.6,122,-0.340,-0.340,-0.340,0.000,0.000,0.000
1641235007211920896,2022-01-03-18:36:47,10.1.1.6,131,-0.350,-0.350,-0.350,0.000,0.000,0.000
1641235007403201024,2022-01-03-18:36:47,10.1.1.6,121,-0.360,-0.360,-0.360,0.000,0.000,0.000
1641235007590653952,2022-01-03-18:36:47,10.1.1.6,108,-0.370,-0.370,-0.370,0.000,0.000,0.000
1641235007817480192,2022-01-03-18:36:47,10.1.1.6,134,-0.380,-0.380,-0.380,0.000,0.000,0.000
1641235008010636032,2022-01-03-18:36:48,10.1.1.6,117,-0.390,-0.390,-0.390,0.000,0.000,0.000
1641235008203955968,2022-01-03-18:36:48,10.1.1.6,110,-0.400,-0.400,-0.400,0.000,0.000,0.000
1641235008412552192,2022-01-03-18:36:48,10.1.1.6,118,-0.410,-0.410,-0.410,0.000,0.000,0.000
1641235008646985984,2022-01-03-18:36:48,10.1.1.6,152,-0.420,-0.420,-0.420,0.000,0.000,0.000
1641235008809742080,2022-01-03-18:36:48,10.1.1.6,114,-0.430,-0.430,-0.430,0.000,0.000,0.000
1641235009059643136,2022-01-03-18:36:49,10.1.1.6,124,-0.440,-0.440,-0.440,0.000,0.000,0.000
1641235009250201856,2022-01-03-18:36:49,10.1.1.6,114,-0.450,-0.450,-0.450,0.000,0.000,0.000
1641235009449314048,2022-01-03-18:36:49,10.1.1.6,111,-0.460,-0.460,-0.460,0.000,0.000,0.000
1641235009657923840,2022-01-03-18:36:49,10.1.1.6,119,-0.470,-0.470,-0.470,0.000,0.000,0.000
1641235009848251136,2022-01-03-18:36:49,10.1.1.6,108,-0.480,-0.480,-0.480,0.000,0.000,0.000
1641235010047065856,2022-01-03-18:36:50,10.1.1.6,105,-0.490,-0.490,-0.490,0.000,0.000,0.000
1641235010269395968,2022-01-03-18:36:50,10.1.1.6,121,-0.480,-0.480,-0.480,0.000,0.000,0.000
1641235010476291840,2022-01-03-18:36:50,10.1.1.6,109,-0.470,-0.470,-0.470,0.000,0.000,0.000
1641235010675887104,2022-01-03-18:36:50,10.1.1.6,107,-0.460,-0.460,-0.460,0.000,0.000,0.000
1641235010885651968,2022-01-03-18:36:50,10.1.1.6,116,-0.450,-0.450,-0.450,0.000,0.000,0.000
1641235011075547904,2022-01-03-18:36:51,10.1.1.6,106,-0.440,-0.440,-0.440,0.000,0.000,0.000
1641235011276238080,2022-01-03-18:36:51,10.1.1.6,106,-0.430,-0.430,-0.430,0.000,0.000,0.000
1641235011484939008,2022-01-03-18:36:51,10.1.1.6,113,-0.420,-0.420,-0.420,0.000,0.000,0.000
1641235011693507072,2022-01-03-18:36:51,10.1.1.6,120,-0.410,-0.410,-0.410,0.000,0.000,0.000
1641235011884360960,2022-01-03-18:36:51,10.1.1.6,110,-0.400,-0.400,-0.400,0.000,0.000,0.000
1641235012098864128,2022-01-03-18:36:52,10.1.1.6,122,-0.390,-0.390,-0.390,0.000,0.000,0.000
1641235012303813888,2022-01-03-18:36:52,10.1.1.6,126,-0.380,-0.380,-0.380,0.000,0.000,0.000
