FedericoMungari/DigitalTwin_service/01_WiredScenario/Output/Output_script/script_ROSAPI_output_robots8_freq0_1.txt
timestamp,date,node,latency,joint_1,joint_2,joint_3,joint_4,joint_5,joint_6
1640670568992343808,2021-12-28-05:49:28,10.1.1.2,1640670568992.207,0.000,0.000,0.000,-0.000,-0.000,0.000
1640670573048839936,2021-12-28-05:49:33,10.1.1.2,4,0.000,0.000,0.000,-0.000,-0.000,0.000
1640670575127873792,2021-12-28-05:49:35,10.1.1.2,3,0.000,0.000,0.000,-0.000,-0.000,0.000
1640670577225213952,2021-12-28-05:49:37,10.1.1.2,18,0.000,0.000,0.000,-0.000,-0.000,0.000
1640670579283430144,2021-12-28-05:49:39,10.1.1.2,5,0.000,0.000,0.000,-0.000,-0.000,0.000
1640670581423478016,2021-12-28-05:49:41,10.1.1.2,10,0.000,0.000,0.000,-0.000,-0.000,0.000
1640670583478810112,2021-12-28-05:49:43,10.1.1.2,7,0.000,0.000,0.000,-0.000,-0.000,0.000
1640670585892962048,2021-12-28-05:49:45,10.1.1.2,18,0.000,0.000,0.000,-0.000,-0.000,0.000
1640670587971559936,2021-12-28-05:49:47,10.1.1.2,10,0.000,0.000,0.000,-0.000,-0.000,0.000
1640670590026148096,2021-12-28-05:49:50,10.1.1.2,10,0.000,0.000,0.000,-0.000,-0.000,0.000
1640670592145303040,2021-12-28-05:49:52,10.1.1.2,12,0.000,0.000,0.000,-0.000,-0.000,0.000
1640670594240385024,2021-12-28-05:49:54,10.1.1.2,3,0.000,0.000,0.000,-0.000,-0.000,0.000
1640670596316300032,2021-12-28-05:49:56,10.1.1.2,15,0.000,0.000,0.000,-0.000,-0.000,0.000
1640670598352633856,2021-12-28-05:49:58,10.1.1.2,0,0.000,0.000,0.000,-0.000,-0.000,0.000
1640670600489496832,2021-12-28-05:50:00,10.1.1.2,5,0.000,0.000,0.000,-0.000,-0.000,0.000
1640670602605259776,2021-12-28-05:50:02,10.1.1.2,1,0.000,0.000,0.000,-0.000,-0.000,0.000
1640670604703307008,2021-12-28-05:50:04,10.1.1.2,12,0.000,0.000,0.000,-0.000,-0.000,0.000
1640670606920110080,2021-12-28-05:50:06,10.1.1.2,16,0.000,0.000,0.000,-0.000,-0.000,0.000
1640670608954242048,2021-12-28-05:50:08,10.1.1.2,5,0.000,0.000,0.000,-0.000,-0.000,0.000
1640670611071467008,2021-12-28-05:50:11,10.1.1.2,3,0.000,0.000,0.000,-0.000,-0.000,0.000
1640670613168024064,2021-12-28-05:50:13,10.1.1.2,1,0.000,0.000,0.000,-0.000,-0.000,0.000
1640670615365022976,2021-12-28-05:50:15,10.1.1.2,11,0.000,0.000,0.000,-0.000,-0.000,0.000
1640670617400784896,2021-12-28-05:50:17,10.1.1.2,9,0.000,0.000,0.000,-0.000,-0.000,0.000
1640670619537028096,2021-12-28-05:50:19,10.1.1.2,2,0.000,0.000,0.000,-0.000,-0.000,0.000
1640670621616358144,2021-12-28-05:50:21,10.1.1.2,13,0.000,0.000,0.000,-0.000,-0.000,0.000
1640670623712583168,2021-12-28-05:50:23,10.1.1.2,11,0.000,0.000,0.000,-0.000,-0.000,0.000
1640670625750513920,2021-12-28-05:50:25,10.1.1.2,20,0.000,0.000,0.000,-0.000,-0.000,0.000
1640670627821562112,2021-12-28-05:50:27,10.1.1.2,5,0.000,0.000,0.000,-0.000,-0.000,0.000
1640670629911708160,2021-12-28-05:50:29,10.1.1.2,17,0.000,0.000,0.000,-0.000,-0.000,0.000
1640670631955923200,2021-12-28-05:50:31,10.1.1.2,9,0.000,0.000,0.000,-0.000,-0.000,0.000
1640670634000699136,2021-12-28-05:50:34,10.1.1.2,12,0.000,0.000,0.000,-0.000,-0.000,0.000
1640670636163507968,2021-12-28-05:50:36,10.1.1.2,14,0.000,0.000,0.000,-0.000,-0.000,0.000
1640670638221986048,2021-12-28-05:50:38,10.1.1.2,17,0.000,0.000,0.000,-0.000,-0.000,0.000
1640670640300681216,2021-12-28-05:50:40,10.1.1.2,5,0.000,0.000,0.000,-0.000,-0.000,0.000
1640670642381473024,2021-12-28-05:50:42,10.1.1.2,17,0.000,0.000,0.000,-0.000,-0.000,0.000
1640670644459395840,2021-12-28-05:50:44,10.1.1.2,13,0.000,0.000,0.000,-0.000,-0.000,0.000
1640670646496287232,2021-12-28-05:50:46,10.1.1.2,3,0.000,0.000,0.000,-0.000,-0.000,0.000
1640670648654528000,2021-12-28-05:50:48,10.1.1.2,17,0.000,0.000,0.000,-0.000,-0.000,0.000
1640670650769885952,2021-12-28-05:50:50,10.1.1.2,5,0.000,0.000,0.000,-0.000,-0.000,0.000
1640670652906696960,2021-12-28-05:50:52,10.1.1.2,18,0.000,0.000,0.000,-0.000,-0.000,0.000
1640670654971993856,2021-12-28-05:50:54,10.1.1.2,13,0.000,0.000,0.000,-0.000,-0.000,0.000
1640670657059880960,2021-12-28-05:50:57,10.1.1.2,16,0.000,0.000,0.000,-0.000,-0.000,0.000
1640670659165467136,2021-12-28-05:50:59,10.1.1.2,14,0.000,0.000,0.000,-0.000,-0.000,0.000
1640670661269679104,2021-12-28-05:51:01,10.1.1.2,17,0.000,0.000,0.000,-0.000,-0.000,0.000
1640670663430603008,2021-12-28-05:51:03,10.1.1.2,2,0.000,0.000,0.000,-0.000,-0.000,0.000
1640670665556119808,2021-12-28-05:51:05,10.1.1.2,7,0.000,0.000,0.000,-0.000,-0.000,0.000
1640670667632733184,2021-12-28-05:51:07,10.1.1.2,12,0.000,0.000,0.000,-0.000,-0.000,0.000
1640670669770940160,2021-12-28-05:51:09,10.1.1.2,13,0.000,0.000,0.000,-0.000,-0.000,0.000
1640670671828523008,2021-12-28-05:51:11,10.1.1.2,3,0.000,0.000,0.000,-0.000,-0.000,0.000
1640670673965143808,2021-12-28-05:51:13,10.1.1.2,0,0.000,0.000,0.000,-0.000,-0.000,0.000
1640670676102545920,2021-12-28-05:51:16,10.1.1.2,12,0.000,0.000,0.000,-0.000,-0.000,0.000
1640670678179825920,2021-12-28-05:51:18,10.1.1.2,18,0.000,0.000,0.000,-0.000,-0.000,0.000
1640670680198272000,2021-12-28-05:51:20,10.1.1.2,3,0.000,0.000,0.000,-0.000,-0.000,0.000
1640670682274238976,2021-12-28-05:51:22,10.1.1.2,13,0.000,0.000,0.000,-0.000,-0.000,0.000
1640670684310916864,2021-12-28-05:51:24,10.1.1.2,0,0.000,0.000,0.000,-0.000,-0.000,0.000
1640670686386720768,2021-12-28-05:51:26,10.1.1.2,15,0.000,0.000,0.000,-0.000,-0.000,0.000
1640670688453826048,2021-12-28-05:51:28,10.1.1.2,16,0.000,0.000,0.000,-0.000,-0.000,0.000
1640670690563493120,2021-12-28-05:51:30,10.1.1.2,2,0.000,0.000,0.000,-0.000,-0.000,0.000
1640670692606849792,2021-12-28-05:51:32,10.1.1.2,5,0.000,0.000,0.000,-0.000,-0.000,0.000
1640670694690200064,2021-12-28-05:51:34,10.1.1.2,4,0.000,0.000,0.000,-0.000,-0.000,0.000
1640670696730521088,2021-12-28-05:51:36,10.1.1.2,2,0.000,0.000,0.000,-0.000,-0.000,0.000
1640670698772339968,2021-12-28-05:51:38,10.1.1.2,15,0.000,0.000,0.000,-0.000,-0.000,0.000
1640670700809564160,2021-12-28-05:51:40,10.1.1.2,2,0.000,0.000,0.000,-0.000,-0.000,0.000
1640670702872424960,2021-12-28-05:51:42,10.1.1.2,1,0.000,0.000,0.000,-0.000,-0.000,0.000
1640670704986216960,2021-12-28-05:51:44,10.1.1.2,11,0.000,0.000,0.000,-0.000,-0.000,0.000
1640670707043673088,2021-12-28-05:51:47,10.1.1.2,14,0.000,0.000,0.000,-0.000,-0.000,0.000
1640670709181530112,2021-12-28-05:51:49,10.1.1.2,17,0.000,0.000,0.000,-0.000,-0.000,0.000
1640670711258172160,2021-12-28-05:51:51,10.1.1.2,7,0.000,0.000,0.000,-0.000,-0.000,0.000
1640670713355696896,2021-12-28-05:51:53,10.1.1.2,13,0.000,0.000,0.000,-0.000,-0.000,0.000
1640670715412212992,2021-12-28-05:51:55,10.1.1.2,8,0.000,0.000,0.000,-0.000,-0.000,0.000
1640670717468530944,2021-12-28-05:51:57,10.1.1.2,1,0.000,0.000,0.000,-0.000,-0.000,0.000
1640670719549424896,2021-12-28-05:51:59,10.1.1.2,10,0.000,0.000,0.000,-0.000,-0.000,0.000
1640670721661434880,2021-12-28-05:52:01,10.1.1.2,10,0.000,0.000,0.000,-0.000,-0.000,0.000
1640670723709956864,2021-12-28-05:52:03,10.1.1.2,0,0.000,0.000,0.000,-0.000,-0.000,0.000
1640670725828814080,2021-12-28-05:52:05,10.1.1.2,3,0.000,0.000,0.000,-0.000,-0.000,0.000
1640670727892539904,2021-12-28-05:52:07,10.1.1.2,14,0.000,0.000,0.000,-0.000,-0.000,0.000
1640670730030568960,2021-12-28-05:52:10,10.1.1.2,10,0.000,0.000,0.000,-0.000,-0.000,0.000
1640670732110706176,2021-12-28-05:52:12,10.1.1.2,5,0.000,0.000,0.000,-0.000,-0.000,0.000
1640670734230792960,2021-12-28-05:52:14,10.1.1.2,11,0.000,0.000,0.000,-0.000,-0.000,0.000
1640670736288360192,2021-12-28-05:52:16,10.1.1.2,18,0.000,0.000,0.000,-0.000,-0.000,0.000
1640670738393428992,2021-12-28-05:52:18,10.1.1.2,1,0.000,0.000,0.000,-0.000,-0.000,0.000
1640670740443151872,2021-12-28-05:52:20,10.1.1.2,11,0.000,0.000,0.000,-0.000,-0.000,0.000
1640670742519758080,2021-12-28-05:52:22,10.1.1.2,14,0.000,0.000,0.000,-0.000,-0.000,0.000
1640670744656761856,2021-12-28-05:52:24,10.1.1.2,11,0.000,0.000,0.000,-0.000,-0.000,0.000
1640670746793613824,2021-12-28-05:52:26,10.1.1.2,17,0.000,0.000,0.000,-0.000,-0.000,0.000
1640670748852442112,2021-12-28-05:52:28,10.1.1.2,12,0.000,0.000,0.000,-0.000,-0.000,0.000
1640670750907749888,2021-12-28-05:52:30,10.1.1.2,10,0.000,0.000,0.000,-0.000,-0.000,0.000
1640670752956121856,2021-12-28-05:52:32,10.1.1.2,5,0.000,0.000,0.000,-0.000,-0.000,0.000
1640670755023299840,2021-12-28-05:52:35,10.1.1.2,6,0.000,0.000,0.000,-0.000,-0.000,0.000
1640670757168389120,2021-12-28-05:52:37,10.1.1.2,13,0.000,0.000,0.000,-0.000,-0.000,0.000
1640670759251998976,2021-12-28-05:52:39,10.1.1.2,9,0.000,0.000,0.000,-0.000,-0.000,0.000
1640670761292089856,2021-12-28-05:52:41,10.1.1.2,13,0.000,0.000,0.000,-0.000,-0.000,0.000
1640670763433208832,2021-12-28-05:52:43,10.1.1.2,13,0.000,0.000,0.000,-0.000,-0.000,0.000
1640670765550707968,2021-12-28-05:52:45,10.1.1.2,10,0.000,0.000,0.000,-0.000,-0.000,0.000
1640670767590220032,2021-12-28-05:52:47,10.1.1.2,17,0.000,0.000,0.000,-0.000,-0.000,0.000
1640670769687977984,2021-12-28-05:52:49,10.1.1.2,5,0.000,0.000,0.000,-0.000,-0.000,0.000
1640670771773225984,2021-12-28-05:52:51,10.1.1.2,47,0.000,0.000,0.000,-0.000,-0.000,0.000
1640670773821774848,2021-12-28-05:52:53,10.1.1.2,9,0.000,0.000,0.000,-0.000,-0.000,0.000
1640670775878899968,2021-12-28-05:52:55,10.1.1.2,11,0.000,0.000,0.000,-0.000,-0.000,0.000
1640670777926213120,2021-12-28-05:52:57,10.1.1.2,19,0.000,0.000,0.000,-0.000,-0.000,0.000
1640670779972506880,2021-12-28-05:52:59,10.1.1.2,11,0.000,0.000,0.000,-0.000,-0.000,0.000
1640670782088659968,2021-12-28-05:53:02,10.1.1.2,16,0.000,0.000,0.000,-0.000,-0.000,0.000
1640670784214006784,2021-12-28-05:53:04,10.1.1.2,12,0.000,0.000,0.000,-0.000,-0.000,0.000
1640670786265084928,2021-12-28-05:53:06,10.1.1.2,18,0.000,0.000,0.000,-0.000,-0.000,0.000
1640670788374129920,2021-12-28-05:53:08,10.1.1.2,1,0.000,0.000,0.000,-0.000,-0.000,0.000
1640670790492408064,2021-12-28-05:53:10,10.1.1.2,8,0.000,0.000,0.000,-0.000,-0.000,0.000
1640670792553627136,2021-12-28-05:53:12,10.1.1.2,18,0.000,0.000,0.000,-0.000,-0.000,0.000
1640670794596199936,2021-12-28-05:53:14,10.1.1.2,16,0.000,0.000,0.000,-0.000,-0.000,0.000
1640670796654742016,2021-12-28-05:53:16,10.1.1.2,17,0.000,0.000,0.000,-0.000,-0.000,0.000
1640670798815947008,2021-12-28-05:53:18,10.1.1.2,15,0.000,0.000,0.000,-0.000,-0.000,0.000
1640670800893312000,2021-12-28-05:53:20,10.1.1.2,19,0.000,0.000,0.000,-0.000,-0.000,0.000
1640670803069014016,2021-12-28-05:53:23,10.1.1.2,5,0.000,0.000,0.000,-0.000,-0.000,0.000
1640670805205516032,2021-12-28-05:53:25,10.1.1.2,13,0.000,0.000,0.000,-0.000,-0.000,0.000
1640670807263655936,2021-12-28-05:53:27,10.1.1.2,18,0.000,0.000,0.000,-0.000,-0.000,0.000
1640670809321965056,2021-12-28-05:53:29,10.1.1.2,19,0.000,0.000,0.000,-0.000,-0.000,0.000
1640670811436712960,2021-12-28-05:53:31,10.1.1.2,10,0.000,0.000,0.000,-0.000,-0.000,0.000
1640670813473352960,2021-12-28-05:53:33,10.1.1.2,7,0.000,0.000,0.000,-0.000,-0.000,0.000
1640670815550204928,2021-12-28-05:53:35,10.1.1.2,8,0.000,0.000,0.000,-0.000,-0.000,0.000
1640670819805547008,2021-12-28-05:53:39,10.1.1.2,13,0.000,0.000,0.000,-0.000,-0.000,0.000
1640670821848408832,2021-12-28-05:53:41,10.1.1.2,6,0.000,0.000,0.000,-0.000,-0.000,0.000
1640670823990510848,2021-12-28-05:53:43,10.1.1.2,14,0.000,0.000,0.000,-0.000,-0.000,0.000
1640670826111421184,2021-12-28-05:53:46,10.1.1.2,16,0.000,0.000,0.000,-0.000,-0.000,0.000
1640670828171890944,2021-12-28-05:53:48,10.1.1.2,15,0.000,0.000,0.000,-0.000,-0.000,0.000
1640670830252144128,2021-12-28-05:53:50,10.1.1.2,11,0.000,0.000,0.000,-0.000,-0.000,0.000
1640670832291475968,2021-12-28-05:53:52,10.1.1.2,14,0.000,0.000,0.000,-0.000,-0.000,0.000
1640670834332091136,2021-12-28-05:53:54,10.1.1.2,2,0.000,0.000,0.000,-0.000,-0.000,0.000
1640670836484022016,2021-12-28-05:53:56,10.1.1.2,1,0.000,0.000,0.000,-0.000,-0.000,0.000
1640670838541966848,2021-12-28-05:53:58,10.1.1.2,5,0.000,0.000,0.000,-0.000,-0.000,0.000
1640670840560642048,2021-12-28-05:54:00,10.1.1.2,7,0.000,0.000,0.000,-0.000,-0.000,0.000
1640670842596281088,2021-12-28-05:54:02,10.1.1.2,8,0.000,0.000,0.000,-0.000,-0.000,0.000
1640670844692819968,2021-12-28-05:54:04,10.1.1.2,14,0.000,0.000,0.000,-0.000,-0.000,0.000
1640670846749032960,2021-12-28-05:54:06,10.1.1.2,7,0.000,0.000,0.000,-0.000,-0.000,0.000
1640670848892188160,2021-12-28-05:54:08,10.1.1.2,18,0.000,0.000,0.000,-0.000,-0.000,0.000
1640670851001190912,2021-12-28-05:54:11,10.1.1.2,5,0.000,0.000,0.000,-0.000,-0.000,0.000
1640670853106875904,2021-12-28-05:54:13,10.1.1.2,16,0.000,0.000,0.000,-0.000,-0.000,0.000
1640670855193527040,2021-12-28-05:54:15,10.1.1.2,4,0.000,0.000,0.000,-0.000,-0.000,0.000
1640670857352321024,2021-12-28-05:54:17,10.1.1.2,17,0.000,0.000,0.000,-0.000,-0.000,0.000
1640670859414897920,2021-12-28-05:54:19,10.1.1.2,10,0.000,0.000,0.000,-0.000,-0.000,0.000
1640670861509001984,2021-12-28-05:54:21,10.1.1.2,18,0.000,0.000,0.000,-0.000,-0.000,0.000
1640670863610473984,2021-12-28-05:54:23,10.1.1.2,7,0.000,0.000,0.000,-0.000,-0.000,0.000
1640670865749295872,2021-12-28-05:54:25,10.1.1.2,10,0.000,0.000,0.000,-0.000,-0.000,0.000
1640670867850338816,2021-12-28-05:54:27,10.1.1.2,8,0.000,0.000,0.000,-0.000,-0.000,0.000
1640670870004278784,2021-12-28-05:54:30,10.1.1.2,8,0.000,0.000,0.000,-0.000,-0.000,0.000
1640670872164269824,2021-12-28-05:54:32,10.1.1.2,14,0.000,0.000,0.000,-0.000,-0.000,0.000
1640670874238811136,2021-12-28-05:54:34,10.1.1.2,19,0.000,0.000,0.000,-0.000,-0.000,0.000
1640670876415432960,2021-12-28-05:54:36,10.1.1.2,10,0.000,0.000,0.000,-0.000,-0.000,0.000
1640670878571953152,2021-12-28-05:54:38,10.1.1.2,11,0.000,0.000,0.000,-0.000,-0.000,0.000
1640670880673376000,2021-12-28-05:54:40,10.1.1.2,11,0.000,0.000,0.000,-0.000,-0.000,0.000
1640670882782049792,2021-12-28-05:54:42,10.1.1.2,8,0.000,0.000,0.000,-0.000,-0.000,0.000
1640670884827069952,2021-12-28-05:54:44,10.1.1.2,3,0.000,0.000,0.000,-0.000,-0.000,0.000
1640670886910428928,2021-12-28-05:54:46,10.1.1.2,2,0.000,0.000,0.000,-0.000,-0.000,0.000
1640670889072410112,2021-12-28-05:54:49,10.1.1.2,7,0.000,0.000,0.000,-0.000,-0.000,0.000
1640670891172916992,2021-12-28-05:54:51,10.1.1.2,16,0.000,0.000,0.000,-0.000,-0.000,0.000
1640670893293991168,2021-12-28-05:54:53,10.1.1.2,18,0.000,0.000,0.000,-0.000,-0.000,0.000
1640670895410203904,2021-12-28-05:54:55,10.1.1.2,18,0.000,0.000,0.000,-0.000,-0.000,0.000
1640670897589995008,2021-12-28-05:54:57,10.1.1.2,3,0.000,0.000,0.000,-0.000,-0.000,0.000
1640670899646626048,2021-12-28-05:54:59,10.1.1.2,16,0.000,0.000,0.000,-0.000,-0.000,0.000
1640670901728545792,2021-12-28-05:55:01,10.1.1.2,5,0.000,0.000,0.000,-0.000,-0.000,0.000
1640670905859882240,2021-12-28-05:55:05,10.1.1.2,19,0.000,0.000,0.000,-0.000,-0.000,0.000
1640670908014838016,2021-12-28-05:55:08,10.1.1.2,2,0.000,0.000,0.000,-0.000,-0.000,0.000
1640670910131454976,2021-12-28-05:55:10,10.1.1.2,4,0.000,0.000,0.000,-0.000,-0.000,0.000
1640670912309889024,2021-12-28-05:55:12,10.1.1.2,5,0.000,0.000,0.000,-0.000,-0.000,0.000
1640670914421565952,2021-12-28-05:55:14,10.1.1.2,1,0.000,0.000,0.000,-0.000,-0.000,0.000
1640670916490834944,2021-12-28-05:55:16,10.1.1.2,12,0.000,0.000,0.000,-0.000,-0.000,0.000
1640670918534321920,2021-12-28-05:55:18,10.1.1.2,3,0.000,0.000,0.000,-0.000,-0.000,0.000
1640670920595736064,2021-12-28-05:55:20,10.1.1.2,12,0.000,0.000,0.000,-0.000,-0.000,0.000
1640670922715454208,2021-12-28-05:55:22,10.1.1.2,2,0.000,0.000,0.000,-0.000,-0.000,0.000
1640670924796852224,2021-12-28-05:55:24,10.1.1.2,10,0.000,0.000,0.000,-0.000,-0.000,0.000
1640670926954281984,2021-12-28-05:55:26,10.1.1.2,9,0.000,0.000,0.000,-0.000,-0.000,0.000
1640670929094359040,2021-12-28-05:55:29,10.1.1.2,6,0.000,0.000,0.000,-0.000,-0.000,0.000
1640670931234898176,2021-12-28-05:55:31,10.1.1.2,23,0.000,0.000,0.000,-0.000,-0.000,0.000
1640670933290445056,2021-12-28-05:55:33,10.1.1.2,12,0.000,0.000,0.000,-0.000,-0.000,0.000
1640670935326667008,2021-12-28-05:55:35,10.1.1.2,2,0.000,0.000,0.000,-0.000,-0.000,0.000
1640670937426032896,2021-12-28-05:55:37,10.1.1.2,12,0.000,0.000,0.000,-0.000,-0.000,0.000
1640670939501238016,2021-12-28-05:55:39,10.1.1.2,18,0.000,0.000,0.000,-0.000,-0.000,0.000
1640670941576640000,2021-12-28-05:55:41,10.1.1.2,9,0.000,0.000,0.000,-0.000,-0.000,0.000
1640670943653084160,2021-12-28-05:55:43,10.1.1.2,18,0.000,0.000,0.000,-0.000,-0.000,0.000
1640670945737000960,2021-12-28-05:55:45,10.1.1.2,4,0.000,0.000,0.000,-0.000,-0.000,0.000
1640670947802685952,2021-12-28-05:55:47,10.1.1.2,16,0.000,0.000,0.000,-0.000,-0.000,0.000
1640670949867908096,2021-12-28-05:55:49,10.1.1.2,5,0.000,0.000,0.000,-0.000,-0.000,0.000
1640670951950961152,2021-12-28-05:55:51,10.1.1.2,19,0.000,0.000,0.000,-0.000,-0.000,0.000
1640670954016172800,2021-12-28-05:55:54,10.1.1.2,3,0.000,0.000,0.000,-0.000,-0.000,0.000
1640670956076132096,2021-12-28-05:55:56,10.1.1.2,17,0.000,0.000,0.000,-0.000,-0.000,0.000
1640670958156760064,2021-12-28-05:55:58,10.1.1.2,9,0.000,0.000,0.000,-0.000,-0.000,0.000
1640670960234168064,2021-12-28-05:56:00,10.1.1.2,9,0.000,0.000,0.000,-0.000,-0.000,0.000
1640670962289537792,2021-12-28-05:56:02,10.1.1.2,19,0.000,0.000,0.000,-0.000,-0.000,0.000
1640670964388145920,2021-12-28-05:56:04,10.1.1.2,17,0.000,0.000,0.000,-0.000,-0.000,0.000
1640670966504598016,2021-12-28-05:56:06,10.1.1.2,3,0.000,0.000,0.000,-0.000,-0.000,0.000
1640670968563796992,2021-12-28-05:56:08,10.1.1.2,18,0.000,0.000,0.000,-0.000,-0.000,0.000
1640670970658521856,2021-12-28-05:56:10,10.1.1.2,15,0.000,0.000,0.000,-0.000,-0.000,0.000
1640670972717158912,2021-12-28-05:56:12,10.1.1.2,12,0.000,0.000,0.000,-0.000,-0.000,0.000
1640670974796420096,2021-12-28-05:56:14,10.1.1.2,8,0.000,0.000,0.000,-0.000,-0.000,0.000
1640670976868526848,2021-12-28-05:56:16,10.1.1.2,3,0.000,0.000,0.000,-0.000,-0.000,0.000
1640670978937654016,2021-12-28-05:56:18,10.1.1.2,15,0.000,0.000,0.000,-0.000,-0.000,0.000
1640670981065776128,2021-12-28-05:56:21,10.1.1.2,19,0.000,0.000,0.000,-0.000,-0.000,0.000
1640670983129883904,2021-12-28-05:56:23,10.1.1.2,16,0.000,0.000,0.000,-0.000,-0.000,0.000
1640670985174295040,2021-12-28-05:56:25,10.1.1.2,4,0.000,0.000,0.000,-0.000,-0.000,0.000
1640670987212609024,2021-12-28-05:56:27,10.1.1.2,8,0.000,0.000,0.000,-0.000,-0.000,0.000
1640670989252835072,2021-12-28-05:56:29,10.1.1.2,1,0.000,0.000,0.000,-0.000,-0.000,0.000
1640670991312175872,2021-12-28-05:56:31,10.1.1.2,14,0.000,0.000,0.000,-0.000,-0.000,0.000
1640670993352073984,2021-12-28-05:56:33,10.1.1.2,18,0.000,0.000,0.000,-0.000,-0.000,0.000
1640670995434256128,2021-12-28-05:56:35,10.1.1.2,8,0.000,0.000,0.000,-0.000,-0.000,0.000
1640670997567732992,2021-12-28-05:56:37,10.1.1.2,8,0.000,0.000,0.000,-0.000,-0.000,0.000
1640670999666757120,2021-12-28-05:56:39,10.1.1.2,11,0.000,0.000,0.000,-0.000,-0.000,0.000
1640671001701602048,2021-12-28-05:56:41,10.1.1.2,2,0.000,0.000,0.000,-0.000,-0.000,0.000
1640671003736818176,2021-12-28-05:56:43,10.1.1.2,3,0.000,0.000,0.000,-0.000,-0.000,0.000
1640671005774594048,2021-12-28-05:56:45,10.1.1.2,16,0.000,0.000,0.000,-0.000,-0.000,0.000
1640671007852617984,2021-12-28-05:56:47,10.1.1.2,2,0.000,0.000,0.000,-0.000,-0.000,0.000
1640671010056803072,2021-12-28-05:56:50,10.1.1.2,15,0.000,0.000,0.000,-0.000,-0.000,0.000
1640671012203520000,2021-12-28-05:56:52,10.1.1.2,5,0.000,0.000,0.000,-0.000,-0.000,0.000
1640671014228598016,2021-12-28-05:56:54,10.1.1.2,2,0.000,0.000,0.000,-0.000,-0.000,0.000
1640671016312506880,2021-12-28-05:56:56,10.1.1.2,12,0.000,0.000,0.000,-0.000,-0.000,0.000
1640671018436041984,2021-12-28-05:56:58,10.1.1.2,14,0.000,0.000,0.000,-0.000,-0.000,0.000
1640671020552934912,2021-12-28-05:57:00,10.1.1.2,2,0.000,0.000,0.000,-0.000,-0.000,0.000
1640671022675756032,2021-12-28-05:57:02,10.1.1.2,4,0.000,0.000,0.000,-0.000,-0.000,0.000
1640671024771678976,2021-12-28-05:57:04,10.1.1.2,2,0.000,0.000,0.000,-0.000,-0.000,0.000
1640671026869775104,2021-12-28-05:57:06,10.1.1.2,16,0.000,0.000,0.000,-0.000,-0.000,0.000
1640671028930308096,2021-12-28-05:57:08,10.1.1.2,2,0.000,0.000,0.000,-0.000,-0.000,0.000
1640671031127460864,2021-12-28-05:57:11,10.1.1.2,12,0.000,0.000,0.000,-0.000,-0.000,0.000
1640671033201534976,2021-12-28-05:57:13,10.1.1.2,5,0.000,0.000,0.000,-0.000,-0.000,0.000
1640671035258501888,2021-12-28-05:57:15,10.1.1.2,16,0.000,0.000,0.000,-0.000,-0.000,0.000
1640671037415947008,2021-12-28-05:57:17,10.1.1.2,3,0.000,0.000,0.000,-0.000,-0.000,0.000
1640671039492676096,2021-12-28-05:57:19,10.1.1.2,2,0.000,0.000,0.000,-0.000,-0.000,0.000
1640671041674439936,2021-12-28-05:57:21,10.1.1.2,7,0.000,0.000,0.000,-0.000,-0.000,0.000
1640671043744466176,2021-12-28-05:57:23,10.1.1.2,2,0.000,0.000,0.000,-0.000,-0.000,0.000
1640671045870116096,2021-12-28-05:57:25,10.1.1.2,0,0.000,0.000,0.000,-0.000,-0.000,0.000
1640671047932228096,2021-12-28-05:57:27,10.1.1.2,2,0.000,0.000,0.000,-0.000,-0.000,0.000
1640671050093300224,2021-12-28-05:57:30,10.1.1.2,9,0.000,0.000,0.000,-0.000,-0.000,0.000
1640671052133837824,2021-12-28-05:57:32,10.1.1.2,10,0.000,0.000,0.000,-0.000,-0.000,0.000
1640671054181385984,2021-12-28-05:57:34,10.1.1.2,19,0.000,0.000,0.000,-0.000,-0.000,0.000
1640671056213072896,2021-12-28-05:57:36,10.1.1.2,2,0.000,0.000,0.000,-0.000,-0.000,0.000
1640671058313137920,2021-12-28-05:57:38,10.1.1.2,15,0.000,0.000,0.000,-0.000,-0.000,0.000
1640671060349293824,2021-12-28-05:57:40,10.1.1.2,7,0.000,0.000,0.000,-0.000,-0.000,0.000
1640671062466053120,2021-12-28-05:57:42,10.1.1.2,15,0.000,0.000,0.000,-0.000,-0.000,0.000
1640671064543518976,2021-12-28-05:57:44,10.1.1.2,8,0.000,0.000,0.000,-0.000,-0.000,0.000
1640671066620274176,2021-12-28-05:57:46,10.1.1.2,17,0.000,0.000,0.000,-0.000,-0.000,0.000
1640671068737003008,2021-12-28-05:57:48,10.1.1.2,7,0.000,0.000,0.000,-0.000,-0.000,0.000
1640671070815260928,2021-12-28-05:57:50,10.1.1.2,5,0.000,0.000,0.000,-0.000,-0.000,0.000
1640671072851512064,2021-12-28-05:57:52,10.1.1.2,10,0.000,0.000,0.000,-0.000,-0.000,0.000
1640671075075505920,2021-12-28-05:57:55,10.1.1.2,1,0.000,0.000,0.000,-0.000,-0.000,0.000
1640671077142764032,2021-12-28-05:57:57,10.1.1.2,2,0.000,0.000,0.000,-0.000,-0.000,0.000
1640671079250066944,2021-12-28-05:57:59,10.1.1.2,2,0.000,0.000,0.000,-0.000,-0.000,0.000
1640671081332293120,2021-12-28-05:58:01,10.1.1.2,15,0.000,0.000,0.000,-0.000,-0.000,0.000
1640671083453268992,2021-12-28-05:58:03,10.1.1.2,7,0.000,0.000,0.000,-0.000,-0.000,0.000
1640671085493026048,2021-12-28-05:58:05,10.1.1.2,4,0.000,0.000,0.000,-0.000,-0.000,0.000
1640671087596445184,2021-12-28-05:58:07,10.1.1.2,18,0.000,0.000,0.000,-0.000,-0.000,0.000
1640671089654194176,2021-12-28-05:58:09,10.1.1.2,8,0.000,0.000,0.000,-0.000,-0.000,0.000
1640671091771277824,2021-12-28-05:58:11,10.1.1.2,3,0.000,0.000,0.000,-0.000,-0.000,0.000
1640671093887329024,2021-12-28-05:58:13,10.1.1.2,18,0.000,0.000,0.000,-0.000,-0.000,0.000
1640671095924825856,2021-12-28-05:58:15,10.1.1.2,12,0.000,0.000,0.000,-0.000,-0.000,0.000
1640671097981810176,2021-12-28-05:58:17,10.1.1.2,4,0.000,0.000,0.000,-0.000,-0.000,0.000
1640671100119159040,2021-12-28-05:58:20,10.1.1.2,1,0.000,0.000,0.000,-0.000,-0.000,0.000
1640671102255995904,2021-12-28-05:58:22,10.1.1.2,2,0.000,0.000,0.000,-0.000,-0.000,0.000
1640671104316512000,2021-12-28-05:58:24,10.1.1.2,2,0.000,0.000,0.000,-0.000,-0.000,0.000
1640671106396180992,2021-12-28-05:58:26,10.1.1.2,13,0.000,0.000,0.000,-0.000,-0.000,0.000
1640671108561924864,2021-12-28-05:58:28,10.1.1.2,8,0.000,0.000,0.000,-0.000,-0.000,0.000
1640671110608112128,2021-12-28-05:58:30,10.1.1.2,11,0.000,0.000,0.000,-0.000,-0.000,0.000
1640671112731854080,2021-12-28-05:58:32,10.1.1.2,6,0.000,0.000,0.000,-0.000,-0.000,0.000
1640671114793456128,2021-12-28-05:58:34,10.1.1.2,5,0.000,0.000,0.000,-0.000,-0.000,0.000
1640671116833734912,2021-12-28-05:58:36,10.1.1.2,5,0.000,0.000,0.000,-0.000,-0.000,0.000
1640671118935524864,2021-12-28-05:58:38,10.1.1.2,10,0.000,0.000,0.000,-0.000,-0.000,0.000
1640671121012881152,2021-12-28-05:58:41,10.1.1.2,19,0.000,0.000,0.000,-0.000,-0.000,0.000
1640671123110966016,2021-12-28-05:58:43,10.1.1.2,4,0.000,0.000,0.000,-0.000,-0.000,0.000
1640671125229880064,2021-12-28-05:58:45,10.1.1.2,8,0.000,0.000,0.000,-0.000,-0.000,0.000
1640671127286622976,2021-12-28-05:58:47,10.1.1.2,16,0.000,0.000,0.000,-0.000,-0.000,0.000
1640671129323187200,2021-12-28-05:58:49,10.1.1.2,3,0.000,0.000,0.000,-0.000,-0.000,0.000
1640671131420967936,2021-12-28-05:58:51,10.1.1.2,8,0.000,0.000,0.000,-0.000,-0.000,0.000
1640671133516864000,2021-12-28-05:58:53,10.1.1.2,8,0.000,0.000,0.000,-0.000,-0.000,0.000
1640671135556552960,2021-12-28-05:58:55,10.1.1.2,1,0.000,0.000,0.000,-0.000,-0.000,0.000
1640671137734082816,2021-12-28-05:58:57,10.1.1.2,8,0.000,0.000,0.000,-0.000,-0.000,0.000
1640671139779144960,2021-12-28-05:58:59,10.1.1.2,6,0.000,0.000,0.000,-0.000,-0.000,0.000
1640671141868979968,2021-12-28-05:59:01,10.1.1.2,11,0.000,0.000,0.000,-0.000,-0.000,0.000
1640671143930672896,2021-12-28-05:59:03,10.1.1.2,13,0.000,0.000,0.000,-0.000,-0.000,0.000
1640671145956204800,2021-12-28-05:59:05,10.1.1.2,3,0.000,0.000,0.000,-0.000,-0.000,0.000
1640671148096389120,2021-12-28-05:59:08,10.1.1.2,15,0.000,0.000,0.000,-0.000,-0.000,0.000
1640671150336932864,2021-12-28-05:59:10,10.1.1.2,6,0.000,0.000,0.000,-0.000,-0.000,0.000
1640671152414219008,2021-12-28-05:59:12,10.1.1.2,3,0.000,0.000,0.000,-0.000,-0.000,0.000
1640671154552133120,2021-12-28-05:59:14,10.1.1.2,15,0.000,0.000,0.000,-0.000,-0.000,0.000
1640671156670358016,2021-12-28-05:59:16,10.1.1.2,6,0.000,0.000,0.000,-0.000,-0.000,0.000
1640671158749767936,2021-12-28-05:59:18,10.1.1.2,5,0.000,0.000,0.000,-0.000,-0.000,0.000
1640671160825925120,2021-12-28-05:59:20,10.1.1.2,16,0.000,0.000,0.000,-0.000,-0.000,0.000
1640671162884023040,2021-12-28-05:59:22,10.1.1.2,7,0.000,0.000,0.000,-0.000,-0.000,0.000
1640671164938850048,2021-12-28-05:59:24,10.1.1.2,17,0.000,0.000,0.000,-0.000,-0.000,0.000
1640671166996326912,2021-12-28-05:59:26,10.1.1.2,14,0.000,0.000,0.000,-0.000,-0.000,0.000
1640671169072547840,2021-12-28-05:59:29,10.1.1.2,17,0.000,0.000,0.000,-0.000,-0.000,0.000
1640671171200604928,2021-12-28-05:59:31,10.1.1.2,19,0.000,0.000,0.000,-0.000,-0.000,0.000
1640671173267437824,2021-12-28-05:59:33,10.1.1.2,16,0.000,0.000,0.000,-0.000,-0.000,0.000
1640671175354820096,2021-12-28-05:59:35,10.1.1.2,12,0.000,0.000,0.000,-0.000,-0.000,0.000
1640671177374934016,2021-12-28-05:59:37,10.1.1.2,14,0.000,0.000,0.000,-0.000,-0.000,0.000
1640671179477413888,2021-12-28-05:59:39,10.1.1.2,16,0.000,0.000,0.000,-0.000,-0.000,0.000
1640671181519251968,2021-12-28-05:59:41,10.1.1.2,10,0.000,0.000,0.000,-0.000,-0.000,0.000
1640671183619607040,2021-12-28-05:59:43,10.1.1.2,9,0.000,0.000,0.000,-0.000,-0.000,0.000
1640671185697992192,2021-12-28-05:59:45,10.1.1.2,12,0.000,0.000,0.000,-0.000,-0.000,0.000
1640671187776406016,2021-12-28-05:59:47,10.1.1.2,0,0.000,0.000,0.000,-0.000,-0.000,0.000
1640671189832406016,2021-12-28-05:59:49,10.1.1.2,3,0.000,0.000,0.000,-0.000,-0.000,0.000
1640671191891767040,2021-12-28-05:59:51,10.1.1.2,2,0.000,0.000,0.000,-0.000,-0.000,0.000
1640671194129838080,2021-12-28-05:59:54,10.1.1.2,8,0.000,0.000,0.000,-0.000,-0.000,0.000
1640671196224961024,2021-12-28-05:59:56,10.1.1.2,3,0.000,0.000,0.000,-0.000,-0.000,0.000
1640671198280803840,2021-12-28-05:59:58,10.1.1.2,12,0.000,0.000,0.000,-0.000,-0.000,0.000
1640671200376915968,2021-12-28-06:00:00,10.1.1.2,3,0.000,0.000,0.000,-0.000,-0.000,0.000
1640671202455982848,2021-12-28-06:00:02,10.1.1.2,3,0.000,0.000,0.000,-0.000,-0.000,0.000
1640671204500360960,2021-12-28-06:00:04,10.1.1.2,9,0.000,0.000,0.000,-0.000,-0.000,0.000
1640671206567356160,2021-12-28-06:00:06,10.1.1.2,14,0.000,0.000,0.000,-0.000,-0.000,0.000
1640671208734404096,2021-12-28-06:00:08,10.1.1.2,2,0.000,0.000,0.000,-0.000,-0.000,0.000
1640671210814283008,2021-12-28-06:00:10,10.1.1.2,4,0.000,0.000,0.000,-0.000,-0.000,0.000
1640671212896687872,2021-12-28-06:00:12,10.1.1.2,9,0.000,0.000,0.000,-0.000,-0.000,0.000
1640671215075099904,2021-12-28-06:00:15,10.1.1.2,16,0.000,0.000,0.000,-0.000,-0.000,0.000
1640671217246636032,2021-12-28-06:00:17,10.1.1.2,28,0.000,0.000,0.000,-0.000,-0.000,0.000
1640671219353635072,2021-12-28-06:00:19,10.1.1.2,18,0.000,0.000,0.000,-0.000,-0.000,0.000
1640671221410576128,2021-12-28-06:00:21,10.1.1.2,19,0.000,0.000,0.000,-0.000,-0.000,0.000
1640671223452323072,2021-12-28-06:00:23,10.1.1.2,17,0.000,0.000,0.000,-0.000,-0.000,0.000
1640671225505559040,2021-12-28-06:00:25,10.1.1.2,11,0.000,0.000,0.000,-0.000,-0.000,0.000
1640671227542547968,2021-12-28-06:00:27,10.1.1.2,10,0.000,0.000,0.000,-0.000,-0.000,0.000
1640671229601111040,2021-12-28-06:00:29,10.1.1.2,10,0.000,0.000,0.000,-0.000,-0.000,0.000
1640671231698568960,2021-12-28-06:00:31,10.1.1.2,15,0.000,0.000,0.000,-0.000,-0.000,0.000
1640671233834189824,2021-12-28-06:00:33,10.1.1.2,8,0.000,0.000,0.000,-0.000,-0.000,0.000
1640671235935908096,2021-12-28-06:00:35,10.1.1.2,6,0.000,0.000,0.000,-0.000,-0.000,0.000
1640671238004398080,2021-12-28-06:00:38,10.1.1.2,4,0.000,0.000,0.000,-0.000,-0.000,0.000
1640671240029915136,2021-12-28-06:00:40,10.1.1.2,9,0.000,0.000,0.000,-0.000,-0.000,0.000
1640671242053436928,2021-12-28-06:00:42,10.1.1.2,6,0.000,0.000,0.000,-0.000,-0.000,0.000
1640671244055262976,2021-12-28-06:00:44,10.1.1.2,0,0.000,0.000,0.000,-0.000,-0.000,0.000
1640671246077626112,2021-12-28-06:00:46,10.1.1.2,12,0.000,0.000,0.000,-0.000,-0.000,0.000
1640671248174526976,2021-12-28-06:00:48,10.1.1.2,5,0.000,0.000,0.000,-0.000,-0.000,0.000
1640671250295622144,2021-12-28-06:00:50,10.1.1.2,8,0.000,0.000,0.000,-0.000,-0.000,0.000
1640671252312468992,2021-12-28-06:00:52,10.1.1.2,3,0.000,0.000,0.000,-0.000,-0.000,0.000
1640671254350252032,2021-12-28-06:00:54,10.1.1.2,14,0.000,0.000,0.000,-0.000,-0.000,0.000
1640671256367679232,2021-12-28-06:00:56,10.1.1.2,13,0.000,0.000,0.000,-0.000,-0.000,0.000
1640671258425425152,2021-12-28-06:00:58,10.1.1.2,19,0.000,0.000,0.000,-0.000,-0.000,0.000
1640671260421431040,2021-12-28-06:01:00,10.1.1.2,2,0.000,0.000,0.000,-0.000,-0.000,0.000
1640671262581273088,2021-12-28-06:01:02,10.1.1.2,3,0.000,0.000,0.000,-0.000,-0.000,0.000
1640671264714624000,2021-12-28-06:01:04,10.1.1.2,15,0.000,0.000,0.000,-0.000,-0.000,0.000
1640671266852529920,2021-12-28-06:01:06,10.1.1.2,13,0.000,0.000,0.000,-0.000,-0.000,0.000
1640671268921538048,2021-12-28-06:01:08,10.1.1.2,2,0.000,0.000,0.000,-0.000,-0.000,0.000
1640671270949091072,2021-12-28-06:01:10,10.1.1.2,17,0.000,0.000,0.000,-0.000,-0.000,0.000
1640671272952609024,2021-12-28-06:01:12,10.1.1.2,10,0.000,0.000,0.000,-0.000,-0.000,0.000
1640671274976819968,2021-12-28-06:01:14,10.1.1.2,17,0.000,0.000,0.000,-0.000,-0.000,0.000
1640671276997246976,2021-12-28-06:01:16,10.1.1.2,7,0.000,0.000,0.000,-0.000,-0.000,0.000
1640671279038364928,2021-12-28-06:01:19,10.1.1.2,3,0.000,0.000,0.000,-0.000,-0.000,0.000
1640671281098252032,2021-12-28-06:01:21,10.1.1.2,7,0.000,0.000,0.000,-0.000,-0.000,0.000
1640671283196090880,2021-12-28-06:01:23,10.1.1.2,1,0.000,0.000,0.000,-0.000,-0.000,0.000
1640671285253228800,2021-12-28-06:01:25,10.1.1.2,4,0.000,0.000,0.000,-0.000,-0.000,0.000
1640671287313924096,2021-12-28-06:01:27,10.1.1.2,15,0.000,0.000,0.000,-0.000,-0.000,0.000
1640671289430998016,2021-12-28-06:01:29,10.1.1.2,3,0.000,0.000,0.000,-0.000,-0.000,0.000
1640671291586610944,2021-12-28-06:01:31,10.1.1.2,12,0.000,0.000,0.000,-0.000,-0.000,0.000
1640671293704413952,2021-12-28-06:01:33,10.1.1.2,17,0.000,0.000,0.000,-0.000,-0.000,0.000
1640671295780737024,2021-12-28-06:01:35,10.1.1.2,12,0.000,0.000,0.000,-0.000,-0.000,0.000
1640671297795589888,2021-12-28-06:01:37,10.1.1.2,3,0.000,0.000,0.000,-0.000,-0.000,0.000
1640671299798437120,2021-12-28-06:01:39,10.1.1.2,1,0.000,0.000,0.000,-0.000,-0.000,0.000
1640671301806689024,2021-12-28-06:01:41,10.1.1.2,3,0.000,0.000,0.000,-0.000,-0.000,0.000
1640671303812510976,2021-12-28-06:01:43,10.1.1.2,3,0.000,0.000,0.000,-0.000,-0.000,0.000
1640671305836397056,2021-12-28-06:01:45,10.1.1.2,19,0.000,0.000,0.000,-0.000,-0.000,0.000
1640671308538414848,2021-12-28-06:01:48,10.1.1.2,13,-0.310,-0.310,-0.310,0.000,0.000,0.000
1640671309278852096,2021-12-28-06:01:49,10.1.1.2,15,-0.310,-0.310,-0.310,0.000,0.000,0.000
1640671310558425856,2021-12-28-06:01:50,10.1.1.2,17,-0.310,-0.310,-0.310,0.000,0.000,0.000
1640671311938013184,2021-12-28-06:01:51,10.1.1.2,0,-0.010,-0.010,-0.010,0.000,0.000,0.000
1640671313918379008,2021-12-28-06:01:53,10.1.1.2,8,-0.010,-0.010,-0.010,0.000,0.000,0.000
1640671313959191040,2021-12-28-06:01:53,10.1.1.2,8,-0.010,-0.010,-0.010,0.000,0.000,0.000
1640671315958846208,2021-12-28-06:01:55,10.1.1.2,17,-0.010,-0.010,-0.010,0.000,0.000,0.000
1640671315998230016,2021-12-28-06:01:55,10.1.1.2,13,-0.010,-0.010,-0.010,0.000,0.000,0.000
1640671318036105984,2021-12-28-06:01:58,10.1.1.2,14,-0.010,-0.010,-0.010,0.000,0.000,0.000
1640671320153516032,2021-12-28-06:02:00,10.1.1.2,15,-0.010,-0.010,-0.010,0.000,0.000,0.000
1640671320192656128,2021-12-28-06:02:00,10.1.1.2,13,-0.010,-0.010,-0.010,0.000,0.000,0.000
1640671322168935936,2021-12-28-06:02:02,10.1.1.2,7,-0.010,-0.010,-0.010,0.000,0.000,0.000
1640671322210424064,2021-12-28-06:02:02,10.1.1.2,7,-0.010,-0.010,-0.010,0.000,0.000,0.000
1640671324206835968,2021-12-28-06:02:04,10.1.1.2,11,-0.010,-0.010,-0.010,0.000,0.000,0.000
1640671324246108928,2021-12-28-06:02:04,10.1.1.2,9,-0.010,-0.010,-0.010,0.000,0.000,0.000
1640671326223143168,2021-12-28-06:02:06,10.1.1.2,2,-0.010,-0.010,-0.010,0.000,0.000,0.000
1640671326262833152,2021-12-28-06:02:06,10.1.1.2,1,-0.010,-0.010,-0.010,0.000,0.000,0.000
1640671328259394048,2021-12-28-06:02:08,10.1.1.2,8,-0.010,-0.010,-0.010,0.000,0.000,0.000
1640671328299442176,2021-12-28-06:02:08,10.1.1.2,7,-0.010,-0.010,-0.010,0.000,0.000,0.000
1640671330416130048,2021-12-28-06:02:10,10.1.1.2,1,-0.010,-0.010,-0.010,0.000,0.000,0.000
1640671330457643008,2021-12-28-06:02:10,10.1.1.2,1,-0.010,-0.010,-0.010,0.000,0.000,0.000
1640671332476393984,2021-12-28-06:02:12,10.1.1.2,9,-0.010,-0.010,-0.010,0.000,0.000,0.000
1640671332518524928,2021-12-28-06:02:12,10.1.1.2,10,-0.010,-0.010,-0.010,0.000,0.000,0.000
1640671334504230144,2021-12-28-06:02:14,10.1.1.2,6,-0.010,-0.010,-0.010,0.000,0.000,0.000
1640671334545462016,2021-12-28-06:02:14,10.1.1.2,4,-0.010,-0.010,-0.010,0.000,0.000,0.000
1640671336573518080,2021-12-28-06:02:16,10.1.1.2,5,-0.010,-0.010,-0.010,0.000,0.000,0.000
1640671336612375040,2021-12-28-06:02:16,10.1.1.2,4,-0.010,-0.010,-0.010,0.000,0.000,0.000
1640671338653824000,2021-12-28-06:02:18,10.1.1.2,8,-0.010,-0.010,-0.010,0.000,0.000,0.000
1640671338693425920,2021-12-28-06:02:18,10.1.1.2,4,-0.010,-0.010,-0.010,0.000,0.000,0.000
1640671340718568192,2021-12-28-06:02:20,10.1.1.2,4,-0.010,-0.010,-0.010,0.000,0.000,0.000
1640671340775343872,2021-12-28-06:02:20,10.1.1.2,16,-0.010,-0.010,-0.010,0.000,0.000,0.000
1640671342755716096,2021-12-28-06:02:22,10.1.1.2,8,-0.010,-0.010,-0.010,0.000,0.000,0.000
1640671342797236992,2021-12-28-06:02:22,10.1.1.2,9,-0.010,-0.010,-0.010,0.000,0.000,0.000
1640671344775533056,2021-12-28-06:02:24,10.1.1.2,1,-0.010,-0.010,-0.010,0.000,0.000,0.000
1640671344817449216,2021-12-28-06:02:24,10.1.1.2,2,-0.010,-0.010,-0.010,0.000,0.000,0.000
1640671346833883136,2021-12-28-06:02:26,10.1.1.2,16,-0.010,-0.010,-0.010,0.000,0.000,0.000
1640671346874221056,2021-12-28-06:02:26,10.1.1.2,13,-0.010,-0.010,-0.010,0.000,0.000,0.000
1640671348933923840,2021-12-28-06:02:28,10.1.1.2,18,-0.010,-0.010,-0.010,0.000,0.000,0.000
1640671348973489920,2021-12-28-06:02:28,10.1.1.2,16,-0.010,-0.010,-0.010,0.000,0.000,0.000
1640671350991360000,2021-12-28-06:02:30,10.1.1.2,7,-0.010,-0.010,-0.010,0.000,0.000,0.000
1640671351032443904,2021-12-28-06:02:31,10.1.1.2,7,-0.010,-0.010,-0.010,0.000,0.000,0.000
1640671353129227008,2021-12-28-06:02:33,10.1.1.2,9,-0.010,-0.010,-0.010,0.000,0.000,0.000
1640671353170280960,2021-12-28-06:02:33,10.1.1.2,10,-0.010,-0.010,-0.010,0.000,0.000,0.000
1640671355185754112,2021-12-28-06:02:35,10.1.1.2,11,-0.010,-0.010,-0.010,0.000,0.000,0.000
1640671355225146112,2021-12-28-06:02:35,10.1.1.2,10,-0.010,-0.010,-0.010,0.000,0.000,0.000
1640671357301757184,2021-12-28-06:02:37,10.1.1.2,17,-0.010,-0.010,-0.010,0.000,0.000,0.000
1640671357341344000,2021-12-28-06:02:37,10.1.1.2,15,-0.010,-0.010,-0.010,0.000,0.000,0.000
1640671359361275904,2021-12-28-06:02:39,10.1.1.2,4,-0.010,-0.010,-0.010,0.000,0.000,0.000
1640671359401096960,2021-12-28-06:02:39,10.1.1.2,3,-0.010,-0.010,-0.010,0.000,0.000,0.000
1640671361515917056,2021-12-28-06:02:41,10.1.1.2,10,-0.010,-0.010,-0.010,0.000,0.000,0.000
1640671361557038080,2021-12-28-06:02:41,10.1.1.2,10,-0.010,-0.010,-0.010,0.000,0.000,0.000
1640671363611931136,2021-12-28-06:02:43,10.1.1.2,17,-0.010,-0.010,-0.010,0.000,0.000,0.000
1640671363651622144,2021-12-28-06:02:43,10.1.1.2,16,-0.010,-0.010,-0.010,0.000,0.000,0.000
1640671365660877824,2021-12-28-06:02:45,10.1.1.2,1,-0.010,-0.010,-0.010,0.000,0.000,0.000
1640671365703866112,2021-12-28-06:02:45,10.1.1.2,0,-0.010,-0.010,-0.010,0.000,0.000,0.000
1640671367829180928,2021-12-28-06:02:47,10.1.1.2,13,-0.010,-0.010,-0.010,0.000,0.000,0.000
1640671367867623936,2021-12-28-06:02:47,10.1.1.2,10,-0.010,-0.010,-0.010,0.000,0.000,0.000
1640671369853126144,2021-12-28-06:02:49,10.1.1.2,2,-0.010,-0.010,-0.010,0.000,0.000,0.000
1640671369893313792,2021-12-28-06:02:49,10.1.1.2,1,-0.010,-0.010,-0.010,0.000,0.000,0.000
1640671372015490048,2021-12-28-06:02:52,10.1.1.2,9,-0.010,-0.010,-0.010,0.000,0.000,0.000
1640671372054994944,2021-12-28-06:02:52,10.1.1.2,5,-0.010,-0.010,-0.010,0.000,0.000,0.000
1640671374258224128,2021-12-28-06:02:54,10.1.1.2,16,-0.010,-0.010,-0.010,0.000,0.000,0.000
1640671374297722112,2021-12-28-06:02:54,10.1.1.2,16,-0.010,-0.010,-0.010,0.000,0.000,0.000
1640671376296467968,2021-12-28-06:02:56,10.1.1.2,14,-0.010,-0.010,-0.010,0.000,0.000,0.000
1640671376336327936,2021-12-28-06:02:56,10.1.1.2,13,-0.010,-0.010,-0.010,0.000,0.000,0.000
1640671378375788032,2021-12-28-06:02:58,10.1.1.2,7,-0.010,-0.010,-0.010,0.000,0.000,0.000
1640671378415718912,2021-12-28-06:02:58,10.1.1.2,5,-0.010,-0.010,-0.010,0.000,0.000,0.000
1640671380536967936,2021-12-28-06:03:00,10.1.1.2,8,-0.010,-0.010,-0.010,0.000,0.000,0.000
1640671380574171904,2021-12-28-06:03:00,10.1.1.2,3,-0.010,-0.010,-0.010,0.000,0.000,0.000
1640671382571768064,2021-12-28-06:03:02,10.1.1.2,4,-0.010,-0.010,-0.010,0.000,0.000,0.000
1640671382611827968,2021-12-28-06:03:02,10.1.1.2,0,-0.010,-0.010,-0.010,0.000,0.000,0.000
1640671384649828864,2021-12-28-06:03:04,10.1.1.2,9,-0.010,-0.010,-0.010,0.000,0.000,0.000
1640671384689875968,2021-12-28-06:03:04,10.1.1.2,5,-0.010,-0.010,-0.010,0.000,0.000,0.000
1640671386828059904,2021-12-28-06:03:06,10.1.1.2,1,-0.010,-0.010,-0.010,0.000,0.000,0.000
1640671386889134848,2021-12-28-06:03:06,10.1.1.2,19,-0.010,-0.010,-0.010,0.000,0.000,0.000
1640671388904568832,2021-12-28-06:03:08,10.1.1.2,9,-0.010,-0.010,-0.010,0.000,0.000,0.000
1640671388943279872,2021-12-28-06:03:08,10.1.1.2,7,-0.010,-0.010,-0.010,0.000,0.000,0.000
1640671390981131008,2021-12-28-06:03:10,10.1.1.2,17,-0.010,-0.010,-0.010,0.000,0.000,0.000
1640671391020105984,2021-12-28-06:03:11,10.1.1.2,15,-0.010,-0.010,-0.010,0.000,0.000,0.000
1640671393129443840,2021-12-28-06:03:13,10.1.1.2,-1,-0.010,-0.010,-0.010,0.000,0.000,0.000
1640671393178255104,2021-12-28-06:03:13,10.1.1.2,6,-0.010,-0.010,-0.010,0.000,0.000,0.000
1640671395255141888,2021-12-28-06:03:15,10.1.1.2,8,-0.010,-0.010,-0.010,0.000,0.000,0.000
1640671395294164992,2021-12-28-06:03:15,10.1.1.2,6,-0.010,-0.010,-0.010,0.000,0.000,0.000
1640671397319139840,2021-12-28-06:03:17,10.1.1.2,11,-0.010,-0.010,-0.010,0.000,0.000,0.000
1640671397359697152,2021-12-28-06:03:17,10.1.1.2,11,-0.010,-0.010,-0.010,0.000,0.000,0.000
1640671399406703872,2021-12-28-06:03:19,10.1.1.2,11,-0.010,-0.010,-0.010,0.000,0.000,0.000
1640671399449025024,2021-12-28-06:03:19,10.1.1.2,11,-0.010,-0.010,-0.010,0.000,0.000,0.000
1640671401492140032,2021-12-28-06:03:21,10.1.1.2,13,-0.010,-0.010,-0.010,0.000,0.000,0.000
1640671401533858048,2021-12-28-06:03:21,10.1.1.2,13,-0.010,-0.010,-0.010,0.000,0.000,0.000
1640671403574925824,2021-12-28-06:03:23,10.1.1.2,16,-0.010,-0.010,-0.010,0.000,0.000,0.000
1640671403615365120,2021-12-28-06:03:23,10.1.1.2,16,-0.010,-0.010,-0.010,0.000,0.000,0.000
1640671405617974016,2021-12-28-06:03:25,10.1.1.2,1,-0.010,-0.010,-0.010,0.000,0.000,0.000
1640671405677651968,2021-12-28-06:03:25,10.1.1.2,18,-0.010,-0.010,-0.010,0.000,0.000,0.000
1640671407757071104,2021-12-28-06:03:27,10.1.1.2,19,-0.010,-0.010,-0.010,0.000,0.000,0.000
1640671407797374976,2021-12-28-06:03:27,10.1.1.2,18,-0.010,-0.010,-0.010,0.000,0.000,0.000
1640671409796539904,2021-12-28-06:03:29,10.1.1.2,8,-0.010,-0.010,-0.010,0.000,0.000,0.000
1640671409837466880,2021-12-28-06:03:29,10.1.1.2,8,-0.010,-0.010,-0.010,0.000,0.000,0.000
1640671411957940992,2021-12-28-06:03:31,10.1.1.2,10,-0.010,-0.010,-0.010,0.000,0.000,0.000
1640671411996826880,2021-12-28-06:03:31,10.1.1.2,6,-0.010,-0.010,-0.010,0.000,0.000,0.000
1640671414092983040,2021-12-28-06:03:34,10.1.1.2,17,-0.010,-0.010,-0.010,0.000,0.000,0.000
1640671414132936960,2021-12-28-06:03:34,10.1.1.2,16,-0.010,-0.010,-0.010,0.000,0.000,0.000
1640671416192400896,2021-12-28-06:03:36,10.1.1.2,5,-0.010,-0.010,-0.010,0.000,0.000,0.000
1640671416230628096,2021-12-28-06:03:36,10.1.1.2,4,-0.010,-0.010,-0.010,0.000,0.000,0.000
1640671418307003904,2021-12-28-06:03:38,10.1.1.2,5,-0.010,-0.010,-0.010,0.000,0.000,0.000
1640671418347113984,2021-12-28-06:03:38,10.1.1.2,1,-0.010,-0.010,-0.010,0.000,0.000,0.000
1640671420465617920,2021-12-28-06:03:40,10.1.1.2,15,-0.010,-0.010,-0.010,0.000,0.000,0.000
1640671420504167936,2021-12-28-06:03:40,10.1.1.2,8,-0.010,-0.010,-0.010,0.000,0.000,0.000
1640671422502459904,2021-12-28-06:03:42,10.1.1.2,7,-0.010,-0.010,-0.010,0.000,0.000,0.000
1640671422544169984,2021-12-28-06:03:42,10.1.1.2,6,-0.010,-0.010,-0.010,0.000,0.000,0.000
1640671424638468864,2021-12-28-06:03:44,10.1.1.2,7,-0.010,-0.010,-0.010,0.000,0.000,0.000
1640671424680567040,2021-12-28-06:03:44,10.1.1.2,7,-0.010,-0.010,-0.010,0.000,0.000,0.000
1640671426716579840,2021-12-28-06:03:46,10.1.1.2,16,-0.010,-0.010,-0.010,0.000,0.000,0.000
1640671426756450816,2021-12-28-06:03:46,10.1.1.2,11,-0.010,-0.010,-0.010,0.000,0.000,0.000
1640671428857155072,2021-12-28-06:03:48,10.1.1.2,0,-0.010,-0.010,-0.010,0.000,0.000,0.000
1640671428962067968,2021-12-28-06:03:48,10.1.1.2,9,-0.010,-0.010,-0.010,0.000,0.000,0.000
1640671430945796864,2021-12-28-06:03:50,10.1.1.2,7,-0.010,-0.010,-0.010,0.000,0.000,0.000
1640671430986222080,2021-12-28-06:03:50,10.1.1.2,6,-0.010,-0.010,-0.010,0.000,0.000,0.000
1640671433011507968,2021-12-28-06:03:53,10.1.1.2,15,-0.010,-0.010,-0.010,0.000,0.000,0.000
1640671433051740928,2021-12-28-06:03:53,10.1.1.2,12,-0.010,-0.010,-0.010,0.000,0.000,0.000
1640671435176099072,2021-12-28-06:03:55,10.1.1.2,8,-0.010,-0.010,-0.010,0.000,0.000,0.000
1640671435217297920,2021-12-28-06:03:55,10.1.1.2,8,-0.010,-0.010,-0.010,0.000,0.000,0.000
1640671437216197120,2021-12-28-06:03:57,10.1.1.2,13,-0.010,-0.010,-0.010,0.000,0.000,0.000
1640671437256834048,2021-12-28-06:03:57,10.1.1.2,12,-0.010,-0.010,-0.010,0.000,0.000,0.000
1640671439276602880,2021-12-28-06:03:59,10.1.1.2,6,-0.010,-0.010,-0.010,0.000,0.000,0.000
1640671439319634944,2021-12-28-06:03:59,10.1.1.2,8,-0.010,-0.010,-0.010,0.000,0.000,0.000
1640671441447431168,2021-12-28-06:04:01,10.1.1.2,-33,-0.010,-0.010,-0.010,0.000,0.000,0.000
1640671441460752128,2021-12-28-06:04:01,10.1.1.2,1,-0.010,-0.010,-0.010,0.000,0.000,0.000
1640671443458008064,2021-12-28-06:04:03,10.1.1.2,5,-0.010,-0.010,-0.010,0.000,0.000,0.000
1640671443515404032,2021-12-28-06:04:03,10.1.1.2,20,-0.010,-0.010,-0.010,0.000,0.000,0.000
1640671445554001152,2021-12-28-06:04:05,10.1.1.2,17,-0.010,-0.010,-0.010,0.000,0.000,0.000
1640671445602652928,2021-12-28-06:04:05,10.1.1.2,19,-0.010,-0.010,-0.010,0.000,0.000,0.000
1640671447631685888,2021-12-28-06:04:07,10.1.1.2,9,-0.010,-0.010,-0.010,0.000,0.000,0.000
1640671447672188928,2021-12-28-06:04:07,10.1.1.2,8,-0.010,-0.010,-0.010,0.000,0.000,0.000
1640671449748111104,2021-12-28-06:04:09,10.1.1.2,15,-0.010,-0.010,-0.010,0.000,0.000,0.000
1640671449788402944,2021-12-28-06:04:09,10.1.1.2,10,-0.010,-0.010,-0.010,0.000,0.000,0.000
1640671451847457024,2021-12-28-06:04:11,10.1.1.2,5,-0.010,-0.010,-0.010,0.000,0.000,0.000
1640671451888773888,2021-12-28-06:04:11,10.1.1.2,4,-0.010,-0.010,-0.010,0.000,0.000,0.000
1640671453983165952,2021-12-28-06:04:13,10.1.1.2,7,-0.010,-0.010,-0.010,0.000,0.000,0.000
1640671454022589952,2021-12-28-06:04:14,10.1.1.2,6,-0.010,-0.010,-0.010,0.000,0.000,0.000
1640671456099542016,2021-12-28-06:04:16,10.1.1.2,6,-0.010,-0.010,-0.010,0.000,0.000,0.000
1640671456139478016,2021-12-28-06:04:16,10.1.1.2,5,-0.010,-0.010,-0.010,0.000,0.000,0.000
1640671458196072192,2021-12-28-06:04:18,10.1.1.2,18,-0.010,-0.010,-0.010,0.000,0.000,0.000
1640671458235272960,2021-12-28-06:04:18,10.1.1.2,15,-0.010,-0.010,-0.010,0.000,0.000,0.000
1640671460333581824,2021-12-28-06:04:20,10.1.1.2,7,-0.010,-0.010,-0.010,0.000,0.000,0.000
1640671460374313984,2021-12-28-06:04:20,10.1.1.2,4,-0.010,-0.010,-0.010,0.000,0.000,0.000
1640671462377819136,2021-12-28-06:04:22,10.1.1.2,18,-0.010,-0.010,-0.010,0.000,0.000,0.000
1640671462419107840,2021-12-28-06:04:22,10.1.1.2,18,-0.010,-0.010,-0.010,0.000,0.000,0.000
1640671464466105856,2021-12-28-06:04:24,10.1.1.2,7,-0.010,-0.010,-0.010,0.000,0.000,0.000
1640671464505548032,2021-12-28-06:04:24,10.1.1.2,5,-0.010,-0.010,-0.010,0.000,0.000,0.000
1640671466552578048,2021-12-28-06:04:26,10.1.1.2,6,-0.010,-0.010,-0.010,0.000,0.000,0.000
1640671466592564992,2021-12-28-06:04:26,10.1.1.2,6,-0.010,-0.010,-0.010,0.000,0.000,0.000
1640671468614032896,2021-12-28-06:04:28,10.1.1.2,9,-0.010,-0.010,-0.010,0.000,0.000,0.000
1640671468656311040,2021-12-28-06:04:28,10.1.1.2,8,-0.010,-0.010,-0.010,0.000,0.000,0.000
1640671470716124928,2021-12-28-06:04:30,10.1.1.2,19,-0.010,-0.010,-0.010,0.000,0.000,0.000
1640671470755546112,2021-12-28-06:04:30,10.1.1.2,16,-0.010,-0.010,-0.010,0.000,0.000,0.000
1640671472775717120,2021-12-28-06:04:32,10.1.1.2,8,-0.010,-0.010,-0.010,0.000,0.000,0.000
1640671472814887936,2021-12-28-06:04:32,10.1.1.2,6,-0.010,-0.010,-0.010,0.000,0.000,0.000
1640671474936663040,2021-12-28-06:04:34,10.1.1.2,9,-0.010,-0.010,-0.010,0.000,0.000,0.000
1640671474974773760,2021-12-28-06:04:34,10.1.1.2,3,-0.010,-0.010,-0.010,0.000,0.000,0.000
1640671476995665920,2021-12-28-06:04:36,10.1.1.2,15,-0.010,-0.010,-0.010,0.000,0.000,0.000
1640671477033019904,2021-12-28-06:04:37,10.1.1.2,11,-0.010,-0.010,-0.010,0.000,0.000,0.000
1640671479050721024,2021-12-28-06:04:39,10.1.1.2,19,-0.010,-0.010,-0.010,0.000,0.000,0.000
1640671479092237056,2021-12-28-06:04:39,10.1.1.2,20,-0.010,-0.010,-0.010,0.000,0.000,0.000
1640671481130017024,2021-12-28-06:04:41,10.1.1.2,12,-0.010,-0.010,-0.010,0.000,0.000,0.000
1640671481169730816,2021-12-28-06:04:41,10.1.1.2,6,-0.010,-0.010,-0.010,0.000,0.000,0.000
1640671483266076928,2021-12-28-06:04:43,10.1.1.2,11,-0.010,-0.010,-0.010,0.000,0.000,0.000
1640671483305260032,2021-12-28-06:04:43,10.1.1.2,10,-0.010,-0.010,-0.010,0.000,0.000,0.000
1640671485303941120,2021-12-28-06:04:45,10.1.1.2,5,-0.010,-0.010,-0.010,0.000,0.000,0.000
1640671485342127104,2021-12-28-06:04:45,10.1.1.2,4,-0.010,-0.010,-0.010,0.000,0.000,0.000
1640671487399087872,2021-12-28-06:04:47,10.1.1.2,13,-0.010,-0.010,-0.010,0.000,0.000,0.000
1640671487439113984,2021-12-28-06:04:47,10.1.1.2,11,-0.010,-0.010,-0.010,0.000,0.000,0.000
1640671489416431872,2021-12-28-06:04:49,10.1.1.2,0,-0.010,-0.010,-0.010,0.000,0.000,0.000
1640671489476238848,2021-12-28-06:04:49,10.1.1.2,18,-0.010,-0.010,-0.010,0.000,0.000,0.000
1640671491473371904,2021-12-28-06:04:51,10.1.1.2,6,-0.010,-0.010,-0.010,0.000,0.000,0.000
1640671493573672960,2021-12-28-06:04:53,10.1.1.2,4,-0.010,-0.010,-0.010,0.000,0.000,0.000
1640671493614649088,2021-12-28-06:04:53,10.1.1.2,2,-0.010,-0.010,-0.010,0.000,0.000,0.000
1640671495642885888,2021-12-28-06:04:55,10.1.1.2,14,-0.010,-0.010,-0.010,0.000,0.000,0.000
1640671495683180032,2021-12-28-06:04:55,10.1.1.2,12,-0.010,-0.010,-0.010,0.000,0.000,0.000
1640671497748822016,2021-12-28-06:04:57,10.1.1.2,15,-0.010,-0.010,-0.010,0.000,0.000,0.000
1640671497788919040,2021-12-28-06:04:57,10.1.1.2,11,-0.010,-0.010,-0.010,0.000,0.000,0.000
1640671499853192960,2021-12-28-06:04:59,10.1.1.2,7,-0.010,-0.010,-0.010,0.000,0.000,0.000
1640671499893147904,2021-12-28-06:04:59,10.1.1.2,5,-0.010,-0.010,-0.010,0.000,0.000,0.000
1640671501913916160,2021-12-28-06:05:01,10.1.1.2,10,-0.010,-0.010,-0.010,0.000,0.000,0.000
1640671501955444224,2021-12-28-06:05:01,10.1.1.2,6,-0.010,-0.010,-0.010,0.000,0.000,0.000
1640671503977359104,2021-12-28-06:05:03,10.1.1.2,7,-0.010,-0.010,-0.010,0.000,0.000,0.000
1640671504016787968,2021-12-28-06:05:04,10.1.1.2,5,-0.010,-0.010,-0.010,0.000,0.000,0.000
1640671506114487040,2021-12-28-06:05:06,10.1.1.2,16,-0.010,-0.010,-0.010,0.000,0.000,0.000
1640671506154510080,2021-12-28-06:05:06,10.1.1.2,15,-0.010,-0.010,-0.010,0.000,0.000,0.000
1640671508213259008,2021-12-28-06:05:08,10.1.1.2,10,-0.010,-0.010,-0.010,0.000,0.000,0.000
1640671508253655040,2021-12-28-06:05:08,10.1.1.2,8,-0.010,-0.010,-0.010,0.000,0.000,0.000
1640671510252064000,2021-12-28-06:05:10,10.1.1.2,0,-0.010,-0.010,-0.010,0.000,0.000,0.000
1640671510311645952,2021-12-28-06:05:10,10.1.1.2,18,-0.010,-0.010,-0.010,0.000,0.000,0.000
1640671512348835840,2021-12-28-06:05:12,10.1.1.2,13,-0.010,-0.010,-0.010,0.000,0.000,0.000
1640671512388647936,2021-12-28-06:05:12,10.1.1.2,11,-0.010,-0.010,-0.010,0.000,0.000,0.000
1640671514407664128,2021-12-28-06:05:14,10.1.1.2,17,-0.010,-0.010,-0.010,0.000,0.000,0.000
1640671514446490880,2021-12-28-06:05:14,10.1.1.2,15,-0.010,-0.010,-0.010,0.000,0.000,0.000
1640671516463609856,2021-12-28-06:05:16,10.1.1.2,8,-0.010,-0.010,-0.010,0.000,0.000,0.000
1640671516503714048,2021-12-28-06:05:16,10.1.1.2,7,-0.010,-0.010,-0.010,0.000,0.000,0.000
1640671518520619008,2021-12-28-06:05:18,10.1.1.2,0,-0.010,-0.010,-0.010,0.000,0.000,0.000
1640671518580146176,2021-12-28-06:05:18,10.1.1.2,17,-0.010,-0.010,-0.010,0.000,0.000,0.000
1640671520577768192,2021-12-28-06:05:20,10.1.1.2,8,-0.010,-0.010,-0.010,0.000,0.000,0.000
1640671520617384960,2021-12-28-06:05:20,10.1.1.2,7,-0.010,-0.010,-0.010,0.000,0.000,0.000
1640671522613996032,2021-12-28-06:05:22,10.1.1.2,6,-0.010,-0.010,-0.010,0.000,0.000,0.000
1640671522655017984,2021-12-28-06:05:22,10.1.1.2,6,-0.010,-0.010,-0.010,0.000,0.000,0.000
1640671524631388928,2021-12-28-06:05:24,10.1.1.2,1,-0.010,-0.010,-0.010,0.000,0.000,0.000
1640671526720514048,2021-12-28-06:05:26,10.1.1.2,17,-0.010,-0.010,-0.010,0.000,0.000,0.000
1640671526762804992,2021-12-28-06:05:26,10.1.1.2,16,-0.010,-0.010,-0.010,0.000,0.000,0.000
1640671528788860160,2021-12-28-06:05:28,10.1.1.2,8,-0.010,-0.010,-0.010,0.000,0.000,0.000
1640671528828401920,2021-12-28-06:05:28,10.1.1.2,5,-0.010,-0.010,-0.010,0.000,0.000,0.000
1640671530933340928,2021-12-28-06:05:30,10.1.1.2,18,-0.010,-0.010,-0.010,0.000,0.000,0.000
1640671530972641024,2021-12-28-06:05:30,10.1.1.2,16,-0.010,-0.010,-0.010,0.000,0.000,0.000
1640671532996712960,2021-12-28-06:05:32,10.1.1.2,18,-0.010,-0.010,-0.010,0.000,0.000,0.000
1640671533037276928,2021-12-28-06:05:33,10.1.1.2,18,-0.010,-0.010,-0.010,0.000,0.000,0.000
1640671535136760064,2021-12-28-06:05:35,10.1.1.2,13,-0.010,-0.010,-0.010,0.000,0.000,0.000
1640671535180513024,2021-12-28-06:05:35,10.1.1.2,14,-0.010,-0.010,-0.010,0.000,0.000,0.000
1640671537337681920,2021-12-28-06:05:37,10.1.1.2,10,-0.010,-0.010,-0.010,0.000,0.000,0.000
1640671537377996032,2021-12-28-06:05:37,10.1.1.2,6,-0.010,-0.010,-0.010,0.000,0.000,0.000
1640671539468011008,2021-12-28-06:05:39,10.1.1.2,5,-0.010,-0.010,-0.010,0.000,0.000,0.000
1640671539516953856,2021-12-28-06:05:39,10.1.1.2,11,-0.010,-0.010,-0.010,0.000,0.000,0.000
1640671541576019968,2021-12-28-06:05:41,10.1.1.2,5,-0.010,-0.010,-0.010,0.000,0.000,0.000
1640671541616712192,2021-12-28-06:05:41,10.1.1.2,5,-0.010,-0.010,-0.010,0.000,0.000,0.000
1640671543673278976,2021-12-28-06:05:43,10.1.1.2,15,-0.010,-0.010,-0.010,0.000,0.000,0.000
1640671543705202944,2021-12-28-06:05:43,10.1.1.2,5,-0.010,-0.010,-0.010,0.000,0.000,0.000
1640671545790429184,2021-12-28-06:05:45,10.1.1.2,11,-0.010,-0.010,-0.010,0.000,0.000,0.000
1640671545832224000,2021-12-28-06:05:45,10.1.1.2,10,-0.010,-0.010,-0.010,0.000,0.000,0.000
1640671547828264960,2021-12-28-06:05:47,10.1.1.2,1,-0.010,-0.010,-0.010,0.000,0.000,0.000
1640671547887613184,2021-12-28-06:05:47,10.1.1.2,17,-0.010,-0.010,-0.010,0.000,0.000,0.000
1640671549985268224,2021-12-28-06:05:49,10.1.1.2,14,-0.010,-0.010,-0.010,0.000,0.000,0.000
1640671550028284160,2021-12-28-06:05:50,10.1.1.2,16,-0.010,-0.010,-0.010,0.000,0.000,0.000
1640671552081835008,2021-12-28-06:05:52,10.1.1.2,11,-0.010,-0.010,-0.010,0.000,0.000,0.000
1640671552122142976,2021-12-28-06:05:52,10.1.1.2,10,-0.010,-0.010,-0.010,0.000,0.000,0.000
1640671554119718144,2021-12-28-06:05:54,10.1.1.2,3,-0.010,-0.010,-0.010,0.000,0.000,0.000
1640671554179725056,2021-12-28-06:05:54,10.1.1.2,18,-0.010,-0.010,-0.010,0.000,0.000,0.000
1640671556236287232,2021-12-28-06:05:56,10.1.1.2,16,-0.010,-0.010,-0.010,0.000,0.000,0.000
1640671556274768128,2021-12-28-06:05:56,10.1.1.2,10,-0.010,-0.010,-0.010,0.000,0.000,0.000
1640671558420030976,2021-12-28-06:05:58,10.1.1.2,15,-0.010,-0.010,-0.010,0.000,0.000,0.000
1640671558460707072,2021-12-28-06:05:58,10.1.1.2,15,-0.010,-0.010,-0.010,0.000,0.000,0.000
1640671560509265920,2021-12-28-06:06:00,10.1.1.2,9,-0.010,-0.010,-0.010,0.000,0.000,0.000
1640671560547447808,2021-12-28-06:06:00,10.1.1.2,5,-0.010,-0.010,-0.010,0.000,0.000,0.000
1640671562632323072,2021-12-28-06:06:02,10.1.1.2,10,-0.010,-0.010,-0.010,0.000,0.000,0.000
1640671562672271872,2021-12-28-06:06:02,10.1.1.2,6,-0.010,-0.010,-0.010,0.000,0.000,0.000
1640671564777008128,2021-12-28-06:06:04,10.1.1.2,9,-0.010,-0.010,-0.010,0.000,0.000,0.000
1640671564814444032,2021-12-28-06:06:04,10.1.1.2,0,-0.010,-0.010,-0.010,0.000,0.000,0.000
1640671566819745024,2021-12-28-06:06:06,10.1.1.2,1,-0.010,-0.010,-0.010,0.000,0.000,0.000
1640671566875644928,2021-12-28-06:06:06,10.1.1.2,16,-0.010,-0.010,-0.010,0.000,0.000,0.000
1640671568895593984,2021-12-28-06:06:08,10.1.1.2,9,-0.010,-0.010,-0.010,0.000,0.000,0.000
1640671568936966912,2021-12-28-06:06:08,10.1.1.2,9,-0.010,-0.010,-0.010,0.000,0.000,0.000
1640671571036173056,2021-12-28-06:06:11,10.1.1.2,6,-0.010,-0.010,-0.010,0.000,0.000,0.000
1640671571074788096,2021-12-28-06:06:11,10.1.1.2,3,-0.010,-0.010,-0.010,0.000,0.000,0.000
1640671573133255936,2021-12-28-06:06:13,10.1.1.2,12,-0.010,-0.010,-0.010,0.000,0.000,0.000
1640671573173618944,2021-12-28-06:06:13,10.1.1.2,11,-0.010,-0.010,-0.010,0.000,0.000,0.000
1640671575310497024,2021-12-28-06:06:15,10.1.1.2,16,-0.010,-0.010,-0.010,0.000,0.000,0.000
1640671575350471936,2021-12-28-06:06:15,10.1.1.2,15,-0.010,-0.010,-0.010,0.000,0.000,0.000
1640671577349272064,2021-12-28-06:06:17,10.1.1.2,8,-0.010,-0.010,-0.010,0.000,0.000,0.000
1640671577387785984,2021-12-28-06:06:17,10.1.1.2,5,-0.010,-0.010,-0.010,0.000,0.000,0.000
1640671579425708032,2021-12-28-06:06:19,10.1.1.2,12,-0.010,-0.010,-0.010,0.000,0.000,0.000
1640671579466768128,2021-12-28-06:06:19,10.1.1.2,12,-0.010,-0.010,-0.010,0.000,0.000,0.000
1640671581485207040,2021-12-28-06:06:21,10.1.1.2,17,-0.010,-0.010,-0.010,0.000,0.000,0.000
1640671581526206976,2021-12-28-06:06:21,10.1.1.2,16,-0.010,-0.010,-0.010,0.000,0.000,0.000
1640671583541574912,2021-12-28-06:06:23,10.1.1.2,19,-0.010,-0.010,-0.010,0.000,0.000,0.000
1640671583581428992,2021-12-28-06:06:23,10.1.1.2,18,-0.010,-0.010,-0.010,0.000,0.000,0.000
1640671585636632832,2021-12-28-06:06:25,10.1.1.2,15,-0.010,-0.010,-0.010,0.000,0.000,0.000
1640671585677324032,2021-12-28-06:06:25,10.1.1.2,12,-0.010,-0.010,-0.010,0.000,0.000,0.000
1640671587692820992,2021-12-28-06:06:27,10.1.1.2,11,-0.010,-0.010,-0.010,0.000,0.000,0.000
1640671587733241088,2021-12-28-06:06:27,10.1.1.2,8,-0.010,-0.010,-0.010,0.000,0.000,0.000
1640671589773204992,2021-12-28-06:06:29,10.1.1.2,21,-0.010,-0.010,-0.010,0.000,0.000,0.000
1640671589811243008,2021-12-28-06:06:29,10.1.1.2,17,-0.010,-0.010,-0.010,0.000,0.000,0.000
1640671591879761920,2021-12-28-06:06:31,10.1.1.2,12,-0.010,-0.010,-0.010,0.000,0.000,0.000
1640671591918790144,2021-12-28-06:06:31,10.1.1.2,9,-0.010,-0.010,-0.010,0.000,0.000,0.000
1640671594006711040,2021-12-28-06:06:34,10.1.1.2,8,-0.010,-0.010,-0.010,0.000,0.000,0.000
1640671594048211968,2021-12-28-06:06:34,10.1.1.2,6,-0.010,-0.010,-0.010,0.000,0.000,0.000
1640671596029714176,2021-12-28-06:06:36,10.1.1.2,6,-0.010,-0.010,-0.010,0.000,0.000,0.000
1640671596069436928,2021-12-28-06:06:36,10.1.1.2,3,-0.010,-0.010,-0.010,0.000,0.000,0.000
1640671598072620032,2021-12-28-06:06:38,10.1.1.2,18,-0.010,-0.010,-0.010,0.000,0.000,0.000
1640671598112894976,2021-12-28-06:06:38,10.1.1.2,17,-0.010,-0.010,-0.010,0.000,0.000,0.000
1640671600133807872,2021-12-28-06:06:40,10.1.1.2,3,-0.010,-0.010,-0.010,0.000,0.000,0.000
1640671600175268864,2021-12-28-06:06:40,10.1.1.2,0,-0.010,-0.010,-0.010,0.000,0.000,0.000
1640671602194008064,2021-12-28-06:06:42,10.1.1.2,17,-0.010,-0.010,-0.010,0.000,0.000,0.000
1640671602233907968,2021-12-28-06:06:42,10.1.1.2,16,-0.010,-0.010,-0.010,0.000,0.000,0.000
1640671604214790144,2021-12-28-06:06:44,10.1.1.2,2,-0.010,-0.010,-0.010,0.000,0.000,0.000
1640671604272310016,2021-12-28-06:06:44,10.1.1.2,18,-0.010,-0.010,-0.010,0.000,0.000,0.000
1640671606270732032,2021-12-28-06:06:46,10.1.1.2,6,-0.010,-0.010,-0.010,0.000,0.000,0.000
1640671606310796032,2021-12-28-06:06:46,10.1.1.2,4,-0.010,-0.010,-0.010,0.000,0.000,0.000
1640671608331297024,2021-12-28-06:06:48,10.1.1.2,5,-0.010,-0.010,-0.010,0.000,0.000,0.000
1640671608370985984,2021-12-28-06:06:48,10.1.1.2,2,-0.010,-0.010,-0.010,0.000,0.000,0.000
1640671610367042048,2021-12-28-06:06:50,10.1.1.2,12,-0.010,-0.010,-0.010,0.000,0.000,0.000
1640671610406915840,2021-12-28-06:06:50,10.1.1.2,11,-0.010,-0.010,-0.010,0.000,0.000,0.000
1640671612464457984,2021-12-28-06:06:52,10.1.1.2,9,-0.010,-0.010,-0.010,0.000,0.000,0.000
1640671612503984896,2021-12-28-06:06:52,10.1.1.2,8,-0.010,-0.010,-0.010,0.000,0.000,0.000
1640671614503537920,2021-12-28-06:06:54,10.1.1.2,6,-0.010,-0.010,-0.010,0.000,0.000,0.000
1640671614540882176,2021-12-28-06:06:54,10.1.1.2,0,-0.010,-0.010,-0.010,0.000,0.000,0.000
1640671616560358912,2021-12-28-06:06:56,10.1.1.2,4,-0.010,-0.010,-0.010,0.000,0.000,0.000
1640671616601809152,2021-12-28-06:06:56,10.1.1.2,3,-0.010,-0.010,-0.010,0.000,0.000,0.000
1640671618615418880,2021-12-28-06:06:58,10.1.1.2,9,-0.010,-0.010,-0.010,0.000,0.000,0.000
1640671618656781056,2021-12-28-06:06:58,10.1.1.2,9,-0.010,-0.010,-0.010,0.000,0.000,0.000
1640671620772775936,2021-12-28-06:07:00,10.1.1.2,18,-0.010,-0.010,-0.010,0.000,0.000,0.000
1640671620795591168,2021-12-28-06:07:00,10.1.1.2,-1,-0.010,-0.010,-0.010,0.000,0.000,0.000
1640671622873959168,2021-12-28-06:07:02,10.1.1.2,10,-0.010,-0.010,-0.010,0.000,0.000,0.000
1640671622915592960,2021-12-28-06:07:02,10.1.1.2,9,-0.010,-0.010,-0.010,0.000,0.000,0.000
1640671624945681152,2021-12-28-06:07:04,10.1.1.2,4,-0.010,-0.010,-0.010,0.000,0.000,0.000
1640671624983239936,2021-12-28-06:07:04,10.1.1.2,1,-0.010,-0.010,-0.010,0.000,0.000,0.000
1640671627029458944,2021-12-28-06:07:07,10.1.1.2,3,-0.010,-0.010,-0.010,0.000,0.000,0.000
1640671627069728000,2021-12-28-06:07:07,10.1.1.2,1,-0.010,-0.010,-0.010,0.000,0.000,0.000
1640671629092515840,2021-12-28-06:07:09,10.1.1.2,8,-0.010,-0.010,-0.010,0.000,0.000,0.000
1640671629133541120,2021-12-28-06:07:09,10.1.1.2,8,-0.010,-0.010,-0.010,0.000,0.000,0.000
1640671631174074880,2021-12-28-06:07:11,10.1.1.2,10,-0.010,-0.010,-0.010,0.000,0.000,0.000
1640671631252975104,2021-12-28-06:07:11,10.1.1.2,1,-0.010,-0.010,-0.010,0.000,0.000,0.000
1640671633294930944,2021-12-28-06:07:13,10.1.1.2,0,-0.010,-0.010,-0.010,0.000,0.000,0.000
1640671633354607104,2021-12-28-06:07:13,10.1.1.2,18,-0.010,-0.010,-0.010,0.000,0.000,0.000
1640671635334999040,2021-12-28-06:07:15,10.1.1.2,12,-0.010,-0.010,-0.010,0.000,0.000,0.000
1640671635375952128,2021-12-28-06:07:15,10.1.1.2,12,-0.010,-0.010,-0.010,0.000,0.000,0.000
1640671637414375168,2021-12-28-06:07:17,10.1.1.2,19,-0.010,-0.010,-0.010,0.000,0.000,0.000
1640671637453671936,2021-12-28-06:07:17,10.1.1.2,15,-0.010,-0.010,-0.010,0.000,0.000,0.000
1640671639513472000,2021-12-28-06:07:19,10.1.1.2,11,-0.010,-0.010,-0.010,0.000,0.000,0.000
1640671639553005056,2021-12-28-06:07:19,10.1.1.2,9,-0.010,-0.010,-0.010,0.000,0.000,0.000
1640671641588583936,2021-12-28-06:07:21,10.1.1.2,12,-0.010,-0.010,-0.010,0.000,0.000,0.000
1640671641630217984,2021-12-28-06:07:21,10.1.1.2,12,-0.010,-0.010,-0.010,0.000,0.000,0.000
1640671643725575936,2021-12-28-06:07:23,10.1.1.2,6,-0.010,-0.010,-0.010,0.000,0.000,0.000
1640671643765592064,2021-12-28-06:07:23,10.1.1.2,4,-0.010,-0.010,-0.010,0.000,0.000,0.000
1640671645802417152,2021-12-28-06:07:25,10.1.1.2,1,-0.010,-0.010,-0.010,0.000,0.000,0.000
1640671645842999040,2021-12-28-06:07:25,10.1.1.2,1,-0.010,-0.010,-0.010,0.000,0.000,0.000
1640671647879489024,2021-12-28-06:07:27,10.1.1.2,17,-0.010,-0.010,-0.010,0.000,0.000,0.000
1640671647920033024,2021-12-28-06:07:27,10.1.1.2,16,-0.010,-0.010,-0.010,0.000,0.000,0.000
1640671649978464000,2021-12-28-06:07:29,10.1.1.2,8,-0.010,-0.010,-0.010,0.000,0.000,0.000
1640671650016536064,2021-12-28-06:07:30,10.1.1.2,4,-0.010,-0.010,-0.010,0.000,0.000,0.000
1640671652115209216,2021-12-28-06:07:32,10.1.1.2,1,-0.010,-0.010,-0.010,0.000,0.000,0.000
1640671652172699904,2021-12-28-06:07:32,10.1.1.2,16,-0.010,-0.010,-0.010,0.000,0.000,0.000
1640671654272336896,2021-12-28-06:07:34,10.1.1.2,15,-0.010,-0.010,-0.010,0.000,0.000,0.000
1640671654313863936,2021-12-28-06:07:34,10.1.1.2,15,-0.010,-0.010,-0.010,0.000,0.000,0.000
1640671656421277952,2021-12-28-06:07:36,10.1.1.2,18,-0.010,-0.010,-0.010,0.000,0.000,0.000
1640671656461293824,2021-12-28-06:07:36,10.1.1.2,16,-0.010,-0.010,-0.010,0.000,0.000,0.000
1640671658487123968,2021-12-28-06:07:38,10.1.1.2,8,-0.010,-0.010,-0.010,0.000,0.000,0.000
1640671658528217088,2021-12-28-06:07:38,10.1.1.2,7,-0.010,-0.010,-0.010,0.000,0.000,0.000
1640671660672081920,2021-12-28-06:07:40,10.1.1.2,11,-0.010,-0.010,-0.010,0.000,0.000,0.000
1640671660711833088,2021-12-28-06:07:40,10.1.1.2,10,-0.010,-0.010,-0.010,0.000,0.000,0.000
1640671662734052864,2021-12-28-06:07:42,10.1.1.2,9,-0.010,-0.010,-0.010,0.000,0.000,0.000
1640671662773958912,2021-12-28-06:07:42,10.1.1.2,9,-0.010,-0.010,-0.010,0.000,0.000,0.000
1640671664854305024,2021-12-28-06:07:44,10.1.1.2,0,-0.010,-0.010,-0.010,0.000,0.000,0.000
1640671664916035840,2021-12-28-06:07:44,10.1.1.2,20,-0.010,-0.010,-0.010,0.000,0.000,0.000
1640671666974227968,2021-12-28-06:07:46,10.1.1.2,10,-0.010,-0.010,-0.010,0.000,0.000,0.000
1640671667014689024,2021-12-28-06:07:47,10.1.1.2,8,-0.010,-0.010,-0.010,0.000,0.000,0.000
1640671669052020992,2021-12-28-06:07:49,10.1.1.2,1,-0.010,-0.010,-0.010,0.000,0.000,0.000
1640671669094172928,2021-12-28-06:07:49,10.1.1.2,1,-0.010,-0.010,-0.010,0.000,0.000,0.000
1640671671110778112,2021-12-28-06:07:51,10.1.1.2,9,-0.010,-0.010,-0.010,0.000,0.000,0.000
1640671671152967936,2021-12-28-06:07:51,10.1.1.2,7,-0.010,-0.010,-0.010,0.000,0.000,0.000
1640671673133207040,2021-12-28-06:07:53,10.1.1.2,3,-0.010,-0.010,-0.010,0.000,0.000,0.000
1640671673172619008,2021-12-28-06:07:53,10.1.1.2,1,-0.010,-0.010,-0.010,0.000,0.000,0.000
1640671675209317888,2021-12-28-06:07:55,10.1.1.2,5,-0.010,-0.010,-0.010,0.000,0.000,0.000
1640671675249553920,2021-12-28-06:07:55,10.1.1.2,1,-0.010,-0.010,-0.010,0.000,0.000,0.000
1640671677405478912,2021-12-28-06:07:57,10.1.1.2,13,-0.010,-0.010,-0.010,0.000,0.000,0.000
1640671677443977216,2021-12-28-06:07:57,10.1.1.2,10,-0.010,-0.010,-0.010,0.000,0.000,0.000
1640671679500147200,2021-12-28-06:07:59,10.1.1.2,14,-0.010,-0.010,-0.010,0.000,0.000,0.000
1640671679540469760,2021-12-28-06:07:59,10.1.1.2,12,-0.010,-0.010,-0.010,0.000,0.000,0.000
1640671681537476096,2021-12-28-06:08:01,10.1.1.2,15,-0.010,-0.010,-0.010,0.000,0.000,0.000
1640671681579776000,2021-12-28-06:08:01,10.1.1.2,15,-0.010,-0.010,-0.010,0.000,0.000,0.000
1640671683653062144,2021-12-28-06:08:03,10.1.1.2,19,-0.010,-0.010,-0.010,0.000,0.000,0.000
1640671683693968896,2021-12-28-06:08:03,10.1.1.2,18,-0.010,-0.010,-0.010,0.000,0.000,0.000
1640671685750737920,2021-12-28-06:08:05,10.1.1.2,9,-0.010,-0.010,-0.010,0.000,0.000,0.000
1640671685792467200,2021-12-28-06:08:05,10.1.1.2,8,-0.010,-0.010,-0.010,0.000,0.000,0.000
1640671687839876864,2021-12-28-06:08:07,10.1.1.2,14,-0.010,-0.010,-0.010,0.000,0.000,0.000
1640671687879822848,2021-12-28-06:08:07,10.1.1.2,12,-0.010,-0.010,-0.010,0.000,0.000,0.000
1640671690067631104,2021-12-28-06:08:10,10.1.1.2,18,-0.010,-0.010,-0.010,0.000,0.000,0.000
1640671690106947072,2021-12-28-06:08:10,10.1.1.2,15,-0.010,-0.010,-0.010,0.000,0.000,0.000
1640671692131717888,2021-12-28-06:08:12,10.1.1.2,14,-0.010,-0.010,-0.010,0.000,0.000,0.000
1640671692173340160,2021-12-28-06:08:12,10.1.1.2,12,-0.010,-0.010,-0.010,0.000,0.000,0.000
1640671694193840128,2021-12-28-06:08:14,10.1.1.2,19,-0.010,-0.010,-0.010,0.000,0.000,0.000
1640671694233741056,2021-12-28-06:08:14,10.1.1.2,16,-0.010,-0.010,-0.010,0.000,0.000,0.000
1640671696315705088,2021-12-28-06:08:16,10.1.1.2,19,-0.010,-0.010,-0.010,0.000,0.000,0.000
1640671696355523072,2021-12-28-06:08:16,10.1.1.2,17,-0.010,-0.010,-0.010,0.000,0.000,0.000
1640671698356657920,2021-12-28-06:08:18,10.1.1.2,5,-0.010,-0.010,-0.010,0.000,0.000,0.000
1640671698396413952,2021-12-28-06:08:18,10.1.1.2,4,-0.010,-0.010,-0.010,0.000,0.000,0.000
1640671700455624960,2021-12-28-06:08:20,10.1.1.2,13,-0.010,-0.010,-0.010,0.000,0.000,0.000
1640671700492976896,2021-12-28-06:08:20,10.1.1.2,8,-0.010,-0.010,-0.010,0.000,0.000,0.000
1640671702533748992,2021-12-28-06:08:22,10.1.1.2,6,-0.010,-0.010,-0.010,0.000,0.000,0.000
1640671702573092096,2021-12-28-06:08:22,10.1.1.2,5,-0.010,-0.010,-0.010,0.000,0.000,0.000
1640671704671021824,2021-12-28-06:08:24,10.1.1.2,15,-0.010,-0.010,-0.010,0.000,0.000,0.000
1640671704712756992,2021-12-28-06:08:24,10.1.1.2,14,-0.010,-0.010,-0.010,0.000,0.000,0.000
1640671706809811968,2021-12-28-06:08:26,10.1.1.2,8,-0.010,-0.010,-0.010,0.000,0.000,0.000
1640671706847544064,2021-12-28-06:08:26,10.1.1.2,1,-0.010,-0.010,-0.010,0.000,0.000,0.000
1640671708964945152,2021-12-28-06:08:28,10.1.1.2,3,-0.010,-0.010,-0.010,0.000,0.000,0.000
1640671709005875200,2021-12-28-06:08:29,10.1.1.2,3,-0.010,-0.010,-0.010,0.000,0.000,0.000
1640671711041409024,2021-12-28-06:08:31,10.1.1.2,15,-0.010,-0.010,-0.010,0.000,0.000,0.000
1640671711082283008,2021-12-28-06:08:31,10.1.1.2,14,-0.010,-0.010,-0.010,0.000,0.000,0.000
1640671713160068864,2021-12-28-06:08:33,10.1.1.2,19,-0.010,-0.010,-0.010,0.000,0.000,0.000
1640671713200123904,2021-12-28-06:08:33,10.1.1.2,18,-0.010,-0.010,-0.010,0.000,0.000,0.000
1640671715239058944,2021-12-28-06:08:35,10.1.1.2,5,-0.010,-0.010,-0.010,0.000,0.000,0.000
1640671715296310784,2021-12-28-06:08:35,10.1.1.2,18,-0.010,-0.010,-0.010,0.000,0.000,0.000
1640671717370987776,2021-12-28-06:08:37,10.1.1.2,5,-0.010,-0.010,-0.010,0.000,0.000,0.000
1640671717411178240,2021-12-28-06:08:37,10.1.1.2,4,-0.010,-0.010,-0.010,0.000,0.000,0.000
1640671719552896000,2021-12-28-06:08:39,10.1.1.2,18,-0.010,-0.010,-0.010,0.000,0.000,0.000
1640671719592495872,2021-12-28-06:08:39,10.1.1.2,16,-0.010,-0.010,-0.010,0.000,0.000,0.000
1640671721640877056,2021-12-28-06:08:41,10.1.1.2,14,-0.010,-0.010,-0.010,0.000,0.000,0.000
1640671721681363200,2021-12-28-06:08:41,10.1.1.2,7,-0.010,-0.010,-0.010,0.000,0.000,0.000
1640671723872061952,2021-12-28-06:08:43,10.1.1.2,23,-0.010,-0.010,-0.010,0.000,0.000,0.000
1640671723909658880,2021-12-28-06:08:43,10.1.1.2,16,-0.010,-0.010,-0.010,0.000,0.000,0.000
1640671725951771136,2021-12-28-06:08:45,10.1.1.2,5,-0.010,-0.010,-0.010,0.000,0.000,0.000
1640671725993142016,2021-12-28-06:08:45,10.1.1.2,3,-0.010,-0.010,-0.010,0.000,0.000,0.000
1640671728094223104,2021-12-28-06:08:48,10.1.1.2,18,-0.010,-0.010,-0.010,0.000,0.000,0.000
1640671728134743040,2021-12-28-06:08:48,10.1.1.2,17,-0.010,-0.010,-0.010,0.000,0.000,0.000
1640671730175024128,2021-12-28-06:08:50,10.1.1.2,14,-0.010,-0.010,-0.010,0.000,0.000,0.000
1640671730213958144,2021-12-28-06:08:50,10.1.1.2,11,-0.010,-0.010,-0.010,0.000,0.000,0.000
1640671732216387072,2021-12-28-06:08:52,10.1.1.2,1,-0.010,-0.010,-0.010,0.000,0.000,0.000
1640671732276796160,2021-12-28-06:08:52,10.1.1.2,18,-0.010,-0.010,-0.010,0.000,0.000,0.000
1640671734292259072,2021-12-28-06:08:54,10.1.1.2,3,-0.010,-0.010,-0.010,0.000,0.000,0.000
1640671734334127872,2021-12-28-06:08:54,10.1.1.2,4,-0.010,-0.010,-0.010,0.000,0.000,0.000
1640671736490339072,2021-12-28-06:08:56,10.1.1.2,1,-0.010,-0.010,-0.010,0.000,0.000,0.000
1640671736530332928,2021-12-28-06:08:56,10.1.1.2,0,-0.010,-0.010,-0.010,0.000,0.000,0.000
1640671738528833024,2021-12-28-06:08:58,10.1.1.2,1,-0.010,-0.010,-0.010,0.000,0.000,0.000
1640671738572297216,2021-12-28-06:08:58,10.1.1.2,0,-0.010,-0.010,-0.010,0.000,0.000,0.000
1640671740594247168,2021-12-28-06:09:00,10.1.1.2,9,-0.010,-0.010,-0.010,0.000,0.000,0.000
1640671740626213120,2021-12-28-06:09:00,10.1.1.2,2,-0.010,-0.010,-0.010,0.000,0.000,0.000
1640671742683623168,2021-12-28-06:09:02,10.1.1.2,11,-0.010,-0.010,-0.010,0.000,0.000,0.000
1640671742723005952,2021-12-28-06:09:02,10.1.1.2,7,-0.010,-0.010,-0.010,0.000,0.000,0.000
1640671744723495936,2021-12-28-06:09:04,10.1.1.2,2,-0.010,-0.010,-0.010,0.000,0.000,0.000
1640671744781219840,2021-12-28-06:09:04,10.1.1.2,19,-0.010,-0.010,-0.010,0.000,0.000,0.000
1640671746840907008,2021-12-28-06:09:06,10.1.1.2,14,-0.010,-0.010,-0.010,0.000,0.000,0.000
1640671746878711040,2021-12-28-06:09:06,10.1.1.2,8,-0.010,-0.010,-0.010,0.000,0.000,0.000
1640671749075172864,2021-12-28-06:09:09,10.1.1.2,8,-0.010,-0.010,-0.010,0.000,0.000,0.000
1640671749115087872,2021-12-28-06:09:09,10.1.1.2,3,-0.010,-0.010,-0.010,0.000,0.000,0.000
1640671751211283968,2021-12-28-06:09:11,10.1.1.2,6,-0.010,-0.010,-0.010,0.000,0.000,0.000
1640671751251239936,2021-12-28-06:09:11,10.1.1.2,4,-0.010,-0.010,-0.010,0.000,0.000,0.000
1640671753320343040,2021-12-28-06:09:13,10.1.1.2,1,-0.010,-0.010,-0.010,0.000,0.000,0.000
1640671753364460032,2021-12-28-06:09:13,10.1.1.2,0,-0.010,-0.010,-0.010,0.000,0.000,0.000
1640671755428793856,2021-12-28-06:09:15,10.1.1.2,7,-0.010,-0.010,-0.010,0.000,0.000,0.000
1640671755467310848,2021-12-28-06:09:15,10.1.1.2,4,-0.010,-0.010,-0.010,0.000,0.000,0.000
1640671757493767936,2021-12-28-06:09:17,10.1.1.2,20,-0.010,-0.010,-0.010,0.000,0.000,0.000
1640671757532129024,2021-12-28-06:09:17,10.1.1.2,15,-0.010,-0.010,-0.010,0.000,0.000,0.000
1640671759513015040,2021-12-28-06:09:19,10.1.1.2,5,-0.010,-0.010,-0.010,0.000,0.000,0.000
1640671759555474944,2021-12-28-06:09:19,10.1.1.2,5,-0.010,-0.010,-0.010,0.000,0.000,0.000
1640671761613063936,2021-12-28-06:09:21,10.1.1.2,16,-0.010,-0.010,-0.010,0.000,0.000,0.000
1640671761653789952,2021-12-28-06:09:21,10.1.1.2,16,-0.010,-0.010,-0.010,0.000,0.000,0.000
1640671763653254144,2021-12-28-06:09:23,10.1.1.2,12,-0.010,-0.010,-0.010,0.000,0.000,0.000
1640671763693118976,2021-12-28-06:09:23,10.1.1.2,7,-0.010,-0.010,-0.010,0.000,0.000,0.000
1640671765712354816,2021-12-28-06:09:25,10.1.1.2,10,-0.010,-0.010,-0.010,0.000,0.000,0.000
1640671765751770112,2021-12-28-06:09:25,10.1.1.2,6,-0.010,-0.010,-0.010,0.000,0.000,0.000
1640671767831032064,2021-12-28-06:09:27,10.1.1.2,14,-0.010,-0.010,-0.010,0.000,0.000,0.000
1640671767871761152,2021-12-28-06:09:27,10.1.1.2,12,-0.010,-0.010,-0.010,0.000,0.000,0.000
1640671769927632128,2021-12-28-06:09:29,10.1.1.2,4,-0.010,-0.010,-0.010,0.000,0.000,0.000
1640671769967334144,2021-12-28-06:09:29,10.1.1.2,2,-0.010,-0.010,-0.010,0.000,0.000,0.000
