FedericoMungari/DigitalTwin_service/01_WiredScenario/Output/Output_script/script_ROSAPI_output_robots2_freq0_1.txt.csv
timestamp,node,latency,joint_1,joint_2,joint_3,joint_4,joint_5,joint_6
1640053513968115200,"2021-12-21,02:25:13",10.1.1.2,4463,0.000,0.000,0.000,0.000,0.000,0.000
1640053516294702080,"2021-12-21,02:25:16",10.1.1.2,326,-0.010,-0.010,-0.010,0.000,0.000,0.000
1640053516331717888,"2021-12-21,02:25:16",10.1.1.2,0.363936185836792,-0.010,-0.010,-0.010,0.000,0.000,0.000
1640053516663497984,"2021-12-21,02:25:16",10.1.1.2,329,-0.020,-0.020,-0.020,0.000,0.000,0.000
1640053516703730944,"2021-12-21,02:25:16",10.1.1.2,0.3700878620147705,-0.020,-0.020,-0.020,0.000,0.000,0.000
1640053517052900096,"2021-12-21,02:25:17",10.1.1.2,346,-0.030,-0.030,-0.030,0.000,0.000,0.000
1640053517133084160,"2021-12-21,02:25:17",10.1.1.2,0.42696285247802734,-0.030,-0.030,-0.030,0.000,0.000,0.000
1640053517473270016,"2021-12-21,02:25:17",10.1.1.2,329,-0.040,-0.040,-0.040,0.000,0.000,0.000
1640053517496141056,"2021-12-21,02:25:17",10.1.1.2,0.3550729751586914,-0.040,-0.040,-0.040,0.000,0.000,0.000
1640053517840323840,"2021-12-21,02:25:17",10.1.1.2,342,-0.050,-0.050,-0.050,0.000,0.000,0.000
1640053517869256960,"2021-12-21,02:25:17",10.1.1.2,0.37140989303588867,-0.050,-0.050,-0.050,0.000,0.000,0.000
1640053518222573056,"2021-12-21,02:25:18",10.1.1.2,351,-0.060,-0.060,-0.060,0.000,0.000,0.000
1640053518259624960,"2021-12-21,02:25:18",10.1.1.2,0.3887920379638672,-0.060,-0.060,-0.060,0.000,0.000,0.000
1640053518599906816,"2021-12-21,02:25:18",10.1.1.2,337,-0.070,-0.070,-0.070,0.000,0.000,0.000
1640053518616240128,"2021-12-21,02:25:18",10.1.1.2,0.35410094261169434,-0.070,-0.070,-0.070,0.000,0.000,0.000
1640053518961756928,"2021-12-21,02:25:18",10.1.1.2,344,-0.080,-0.080,-0.080,0.000,0.000,0.000
1640053518981550080,"2021-12-21,02:25:18",10.1.1.2,0.3639039993286133,-0.080,-0.080,-0.080,0.000,0.000,0.000
1640053519331396096,"2021-12-21,02:25:19",10.1.1.2,347,-0.090,-0.090,-0.090,0.000,0.000,0.000
1640053519410159104,"2021-12-21,02:25:19",10.1.1.2,0.42706298828125,-0.090,-0.090,-0.090,0.000,0.000,0.000
1640053519759432960,"2021-12-21,02:25:19",10.1.1.2,347,-0.100,-0.100,-0.100,0.000,0.000,0.000
1640053519798094080,"2021-12-21,02:25:19",10.1.1.2,0.38644886016845703,-0.100,-0.100,-0.100,0.000,0.000,0.000
1640053520137979136,"2021-12-21,02:25:20",10.1.1.2,338,-0.110,-0.110,-0.110,0.000,0.000,0.000
1640053520155877120,"2021-12-21,02:25:20",10.1.1.2,0.356097936630249,-0.110,-0.110,-0.110,0.000,0.000,0.000
1640053520489906944,"2021-12-21,02:25:20",10.1.1.2,331,-0.120,-0.120,-0.120,0.000,0.000,0.000
1640053520544444160,"2021-12-21,02:25:20",10.1.1.2,0.38683199882507324,-0.120,-0.120,-0.120,0.000,0.000,0.000
1640053520886838016,"2021-12-21,02:25:20",10.1.1.2,339,-0.130,-0.130,-0.130,0.000,0.000,0.000
1640053520902532096,"2021-12-21,02:25:20",10.1.1.2,0.3556220531463623,-0.130,-0.130,-0.130,0.000,0.000,0.000
1640053521266257920,"2021-12-21,02:25:21",10.1.1.2,361,-0.140,-0.140,-0.140,0.000,0.000,0.000
1640053521304017920,"2021-12-21,02:25:21",10.1.1.2,0.3991401195526123,-0.140,-0.140,-0.140,0.000,0.000,0.000
1640053521644912128,"2021-12-21,02:25:21",10.1.1.2,338,-0.150,-0.150,-0.150,0.000,0.000,0.000
1640053521726927872,"2021-12-21,02:25:21",10.1.1.2,0.4208829402923584,-0.150,-0.150,-0.150,0.000,0.000,0.000
1640053522075603968,"2021-12-21,02:25:22",10.1.1.2,345,-0.160,-0.160,-0.160,0.000,0.000,0.000
1640053522080221952,"2021-12-21,02:25:22",10.1.1.2,0.3507211208343506,-0.160,-0.160,-0.160,0.000,0.000,0.000
1640053522425477120,"2021-12-21,02:25:22",10.1.1.2,343,-0.170,-0.170,-0.170,0.000,0.000,0.000
1640053522465534976,"2021-12-21,02:25:22",10.1.1.2,0.38376808166503906,-0.170,-0.170,-0.170,0.000,0.000,0.000
1640053522805465088,"2021-12-21,02:25:22",10.1.1.2,338,-0.180,-0.180,-0.180,0.000,0.000,0.000
1640053522854105856,"2021-12-21,02:25:22",10.1.1.2,0.38697218894958496,-0.180,-0.180,-0.180,0.000,0.000,0.000
1640053523192388096,"2021-12-21,02:25:23",10.1.1.2,336,-0.190,-0.190,-0.190,0.000,0.000,0.000
1640053523208368896,"2021-12-21,02:25:23",10.1.1.2,0.3526911735534668,-0.190,-0.190,-0.190,0.000,0.000,0.000
1640053523524185856,"2021-12-21,02:25:23",10.1.1.2,314,-0.200,-0.200,-0.200,0.000,0.000,0.000
1640053523601145088,"2021-12-21,02:25:23",10.1.1.2,0.3911550045013428,-0.200,-0.200,-0.200,0.000,0.000,0.000
1640053523930674176,"2021-12-21,02:25:23",10.1.1.2,327,-0.210,-0.210,-0.210,0.000,0.000,0.000
1640053523989340928,"2021-12-21,02:25:23",10.1.1.2,0.3866720199584961,-0.210,-0.210,-0.210,0.000,0.000,0.000
1640053524310153984,"2021-12-21,02:25:24",10.1.1.2,318,-0.220,-0.220,-0.220,0.000,0.000,0.000
1640053524326329088,"2021-12-21,02:25:24",10.1.1.2,0.33493900299072266,-0.220,-0.220,-0.220,0.000,0.000,0.000
1640053524659412992,"2021-12-21,02:25:24",10.1.1.2,331,-0.230,-0.230,-0.230,0.000,0.000,0.000
1640053524681946880,"2021-12-21,02:25:24",10.1.1.2,0.3542001247406006,-0.230,-0.230,-0.230,0.000,0.000,0.000
1640053525009460992,"2021-12-21,02:25:25",10.1.1.2,325,-0.240,-0.240,-0.240,0.000,0.000,0.000
1640053525071945984,"2021-12-21,02:25:25",10.1.1.2,0.3883371353149414,-0.240,-0.240,-0.240,0.000,0.000,0.000
1640053525403258112,"2021-12-21,02:25:25",10.1.1.2,328,-0.250,-0.250,-0.250,0.000,0.000,0.000
1640053525457267968,"2021-12-21,02:25:25",10.1.1.2,0.38390493392944336,-0.250,-0.250,-0.250,0.000,0.000,0.000
1640053525782982144,"2021-12-21,02:25:25",10.1.1.2,324,-0.260,-0.260,-0.260,0.000,0.000,0.000
1640053525813498880,"2021-12-21,02:25:25",10.1.1.2,0.3546559810638428,-0.260,-0.260,-0.260,0.000,0.000,0.000
1640053526157010944,"2021-12-21,02:25:26",10.1.1.2,341,-0.270,-0.270,-0.270,0.000,0.000,0.000
1640053526206701056,"2021-12-21,02:25:26",10.1.1.2,0.3915438652038574,-0.270,-0.270,-0.270,0.000,0.000,0.000
1640053526526743040,"2021-12-21,02:25:26",10.1.1.2,318,-0.280,-0.280,-0.280,0.000,0.000,0.000
1640053526566183936,"2021-12-21,02:25:26",10.1.1.2,0.3580131530761719,-0.280,-0.280,-0.280,0.000,0.000,0.000
1640053526919482112,"2021-12-21,02:25:26",10.1.1.2,351,-0.290,-0.290,-0.290,0.000,0.000,0.000
1640053526952291072,"2021-12-21,02:25:26",10.1.1.2,0.38450002670288086,-0.290,-0.290,-0.290,0.000,0.000,0.000
1640053527290056960,"2021-12-21,02:25:27",10.1.1.2,336,-0.300,-0.300,-0.300,0.000,0.000,0.000
1640053527347706112,"2021-12-21,02:25:27",10.1.1.2,0.393845796585083,-0.300,-0.300,-0.300,0.000,0.000,0.000
1640053527671375104,"2021-12-21,02:25:27",10.1.1.2,322,-0.310,-0.310,-0.310,0.000,0.000,0.000
1640053527704321024,"2021-12-21,02:25:27",10.1.1.2,0.3544139862060547,-0.310,-0.310,-0.310,0.000,0.000,0.000
1640053528043337216,"2021-12-21,02:25:28",10.1.1.2,337,-0.320,-0.320,-0.320,0.000,0.000,0.000
1640053528094245888,"2021-12-21,02:25:28",10.1.1.2,0.38810110092163086,-0.320,-0.320,-0.320,0.000,0.000,0.000
1640053528433604864,"2021-12-21,02:25:28",10.1.1.2,337,-0.330,-0.330,-0.330,0.000,0.000,0.000
1640053528453339136,"2021-12-21,02:25:28",10.1.1.2,0.35729193687438965,-0.330,-0.330,-0.330,0.000,0.000,0.000
1640053528795101952,"2021-12-21,02:25:28",10.1.1.2,340,-0.340,-0.340,-0.340,0.000,0.000,0.000
1640053528855011072,"2021-12-21,02:25:28",10.1.1.2,0.4001469612121582,-0.340,-0.340,-0.340,0.000,0.000,0.000
1640053529186014976,"2021-12-21,02:25:29",10.1.1.2,328,-0.350,-0.350,-0.350,0.000,0.000,0.000
1640053529241166080,"2021-12-21,02:25:29",10.1.1.2,0.3846280574798584,-0.350,-0.350,-0.350,0.000,0.000,0.000
1640053529578074880,"2021-12-21,02:25:29",10.1.1.2,335,-0.360,-0.360,-0.360,0.000,0.000,0.000
1640053529596359936,"2021-12-21,02:25:29",10.1.1.2,0.3537938594818115,-0.360,-0.360,-0.360,0.000,0.000,0.000
1640053529928749056,"2021-12-21,02:25:29",10.1.1.2,330,-0.370,-0.370,-0.370,0.000,0.000,0.000
1640053529952619008,"2021-12-21,02:25:29",10.1.1.2,0.35442399978637695,-0.370,-0.370,-0.370,0.000,0.000,0.000
1640053530301996032,"2021-12-21,02:25:30",10.1.1.2,345,-0.380,-0.380,-0.380,0.000,0.000,0.000
1640053530325174016,"2021-12-21,02:25:30",10.1.1.2,0.36910200119018555,-0.380,-0.380,-0.380,0.000,0.000,0.000
1640053530650605824,"2021-12-21,02:25:30",10.1.1.2,323,-0.390,-0.390,-0.390,0.000,0.000,0.000
1640053530683057920,"2021-12-21,02:25:30",10.1.1.2,0.35622501373291016,-0.390,-0.390,-0.390,0.000,0.000,0.000
1640053531010137088,"2021-12-21,02:25:31",10.1.1.2,325,-0.400,-0.400,-0.400,0.000,0.000,0.000
1640053531075334144,"2021-12-21,02:25:31",10.1.1.2,0.3907651901245117,-0.400,-0.400,-0.400,0.000,0.000,0.000
1640053531412729856,"2021-12-21,02:25:31",10.1.1.2,335,-0.410,-0.410,-0.410,0.000,0.000,0.000
1640053531428344064,"2021-12-21,02:25:31",10.1.1.2,0.35155296325683594,-0.410,-0.410,-0.410,0.000,0.000,0.000
1640053531781094144,"2021-12-21,02:25:31",10.1.1.2,350,-0.420,-0.420,-0.420,0.000,0.000,0.000
1640053531818308096,"2021-12-21,02:25:31",10.1.1.2,0.38747096061706543,-0.420,-0.420,-0.420,0.000,0.000,0.000
1640053532143426816,"2021-12-21,02:25:32",10.1.1.2,322,-0.430,-0.430,-0.430,0.000,0.000,0.000
1640053532174484992,"2021-12-21,02:25:32",10.1.1.2,0.35471081733703613,-0.430,-0.430,-0.430,0.000,0.000,0.000
1640053532504632064,"2021-12-21,02:25:32",10.1.1.2,328,-0.440,-0.440,-0.440,0.000,0.000,0.000
1640053532570156032,"2021-12-21,02:25:32",10.1.1.2,0.3941330909729004,-0.440,-0.440,-0.440,0.000,0.000,0.000
1640053532911657216,"2021-12-21,02:25:32",10.1.1.2,339,-0.450,-0.450,-0.450,0.000,0.000,0.000
1640053532956322048,"2021-12-21,02:25:32",10.1.1.2,0.3843410015106201,-0.450,-0.450,-0.450,0.000,0.000,0.000
1640053533305438976,"2021-12-21,02:25:33",10.1.1.2,346,-0.460,-0.460,-0.460,0.000,0.000,0.000
1640053533344624896,"2021-12-21,02:25:33",10.1.1.2,0.38686299324035645,-0.460,-0.460,-0.460,0.000,0.000,0.000
1640053533682464000,"2021-12-21,02:25:33",10.1.1.2,336,-0.470,-0.470,-0.470,0.000,0.000,0.000
1640053533702512896,"2021-12-21,02:25:33",10.1.1.2,0.3564741611480713,-0.470,-0.470,-0.470,0.000,0.000,0.000
1640053534054918912,"2021-12-21,02:25:34",10.1.1.2,350,-0.480,-0.480,-0.480,0.000,0.000,0.000
1640053534089977088,"2021-12-21,02:25:34",10.1.1.2,0.3853600025177002,-0.480,-0.480,-0.480,0.000,0.000,0.000
1640053534444536832,"2021-12-21,02:25:34",10.1.1.2,352,-0.490,-0.490,-0.490,0.000,0.000,0.000
1640053534472484096,"2021-12-21,02:25:34",10.1.1.2,0.3809630870819092,-0.490,-0.490,-0.490,0.000,0.000,0.000
1640053534803698176,"2021-12-21,02:25:34",10.1.1.2,329,-0.480,-0.480,-0.480,0.000,0.000,0.000
1640053534864104960,"2021-12-21,02:25:34",10.1.1.2,0.3895690441131592,-0.480,-0.480,-0.480,0.000,0.000,0.000
1640053535223936000,"2021-12-21,02:25:35",10.1.1.2,358,-0.470,-0.470,-0.470,0.000,0.000,0.000
1640053535252250880,"2021-12-21,02:25:35",10.1.1.2,0.3864729404449463,-0.470,-0.470,-0.470,0.000,0.000,0.000
1640053535583762944,"2021-12-21,02:25:35",10.1.1.2,329,-0.460,-0.460,-0.460,0.000,0.000,0.000
1640053535636055040,"2021-12-21,02:25:35",10.1.1.2,0.3822488784790039,-0.460,-0.460,-0.460,0.000,0.000,0.000
1640053535954458880,"2021-12-21,02:25:35",10.1.1.2,315,-0.450,-0.450,-0.450,0.000,0.000,0.000
1640053535991447040,"2021-12-21,02:25:35",10.1.1.2,0.35275912284851074,-0.450,-0.450,-0.450,0.000,0.000,0.000
1640053536315355136,"2021-12-21,02:25:36",10.1.1.2,320,-0.440,-0.440,-0.440,0.000,0.000,0.000
1640053536358350080,"2021-12-21,02:25:36",10.1.1.2,0.3637371063232422,-0.440,-0.440,-0.440,0.000,0.000,0.000
1640053536703762176,"2021-12-21,02:25:36",10.1.1.2,342,-0.430,-0.430,-0.430,0.000,0.000,0.000
1640053536718127104,"2021-12-21,02:25:36",10.1.1.2,0.35755491256713867,-0.430,-0.430,-0.430,0.000,0.000,0.000
1640053537054147072,"2021-12-21,02:25:37",10.1.1.2,333,-0.420,-0.420,-0.420,0.000,0.000,0.000
1640053537073285120,"2021-12-21,02:25:37",10.1.1.2,0.35293102264404297,-0.420,-0.420,-0.420,0.000,0.000,0.000
1640053537414132992,"2021-12-21,02:25:37",10.1.1.2,339,-0.410,-0.410,-0.410,0.000,0.000,0.000
1640053537458499840,"2021-12-21,02:25:37",10.1.1.2,0.38387393951416016,-0.410,-0.410,-0.410,0.000,0.000,0.000
1640053537807676160,"2021-12-21,02:25:37",10.1.1.2,347,-0.400,-0.400,-0.400,0.000,0.000,0.000
1640053537850408960,"2021-12-21,02:25:37",10.1.1.2,0.389995813369751,-0.400,-0.400,-0.400,0.000,0.000,0.000
1640053538193268992,"2021-12-21,02:25:38",10.1.1.2,341,-0.390,-0.390,-0.390,0.000,0.000,0.000
1640053538205293824,"2021-12-21,02:25:38",10.1.1.2,0.3532378673553467,-0.390,-0.390,-0.390,0.000,0.000,0.000
1640053538533981952,"2021-12-21,02:25:38",10.1.1.2,327,-0.380,-0.380,-0.380,0.000,0.000,0.000
1640053538598254080,"2021-12-21,02:25:38",10.1.1.2,0.3915700912475586,-0.380,-0.380,-0.380,0.000,0.000,0.000
1640053538933693952,"2021-12-21,02:25:38",10.1.1.2,333,-0.370,-0.370,-0.370,0.000,0.000,0.000
1640053538959079936,"2021-12-21,02:25:38",10.1.1.2,0.3587920665740967,-0.370,-0.370,-0.370,0.000,0.000,0.000
1640053539293266176,"2021-12-21,02:25:39",10.1.1.2,332,-0.360,-0.360,-0.360,0.000,0.000,0.000
1640053539348922112,"2021-12-21,02:25:39",10.1.1.2,0.387692928314209,-0.360,-0.360,-0.360,0.000,0.000,0.000
1640053539694042880,"2021-12-21,02:25:39",10.1.1.2,342,-0.350,-0.350,-0.350,0.000,0.000,0.000
1640053539737427968,"2021-12-21,02:25:39",10.1.1.2,0.3858058452606201,-0.350,-0.350,-0.350,0.000,0.000,0.000
1640053540062803968,"2021-12-21,02:25:40",10.1.1.2,321,-0.340,-0.340,-0.340,0.000,0.000,0.000
1640053540094048000,"2021-12-21,02:25:40",10.1.1.2,0.3531970977783203,-0.340,-0.340,-0.340,0.000,0.000,0.000
1640053540424453120,"2021-12-21,02:25:40",10.1.1.2,328,-0.330,-0.330,-0.330,0.000,0.000,0.000
1640053540449266944,"2021-12-21,02:25:40",10.1.1.2,0.35350894927978516,-0.330,-0.330,-0.330,0.000,0.000,0.000
1640053540784414976,"2021-12-21,02:25:40",10.1.1.2,333,-0.320,-0.320,-0.320,0.000,0.000,0.000
1640053540791190016,"2021-12-21,02:25:40",10.1.1.2,0.3403189182281494,-0.320,-0.320,-0.320,0.000,0.000,0.000
1640053541111616000,"2021-12-21,02:25:41",10.1.1.2,318,-0.310,-0.310,-0.310,0.000,0.000,0.000
1640053541146646016,"2021-12-21,02:25:41",10.1.1.2,0.35391688346862793,-0.310,-0.310,-0.310,0.000,0.000,0.000
1640053541492805120,"2021-12-21,02:25:41",10.1.1.2,343,-0.300,-0.300,-0.300,0.000,0.000,0.000
1640053541579109888,"2021-12-21,02:25:41",10.1.1.2,0.43076109886169434,-0.300,-0.300,-0.300,0.000,0.000,0.000
1640053541902514944,"2021-12-21,02:25:41",10.1.1.2,321,-0.290,-0.290,-0.290,0.000,0.000,0.000
1640053541973592064,"2021-12-21,02:25:41",10.1.1.2,0.39241790771484375,-0.290,-0.290,-0.290,0.000,0.000,0.000
1640053542320614144,"2021-12-21,02:25:42",10.1.1.2,344,-0.280,-0.280,-0.280,0.000,0.000,0.000
1640053542412073984,"2021-12-21,02:25:42",10.1.1.2,0.4369199275970459,-0.280,-0.280,-0.280,0.000,0.000,0.000
1640053542730318080,"2021-12-21,02:25:42",10.1.1.2,315,-0.270,-0.270,-0.270,0.000,0.000,0.000
1640053542770558208,"2021-12-21,02:25:42",10.1.1.2,0.3569788932800293,-0.270,-0.270,-0.270,0.000,0.000,0.000
1640053543090652928,"2021-12-21,02:25:43",10.1.1.2,318,-0.260,-0.260,-0.260,0.000,0.000,0.000
1640053543161259008,"2021-12-21,02:25:43",10.1.1.2,0.3892490863800049,-0.260,-0.260,-0.260,0.000,0.000,0.000
1640053543530343936,"2021-12-21,02:25:43",10.1.1.2,361,-0.250,-0.250,-0.250,0.000,0.000,0.000
1640053543555474944,"2021-12-21,02:25:43",10.1.1.2,0.38695502281188965,-0.250,-0.250,-0.250,0.000,0.000,0.000
1640053543900079104,"2021-12-21,02:25:43",10.1.1.2,343,-0.240,-0.240,-0.240,0.000,0.000,0.000
1640053543945060096,"2021-12-21,02:25:43",10.1.1.2,0.3880901336669922,-0.240,-0.240,-0.240,0.000,0.000,0.000
1640053544269597952,"2021-12-21,02:25:44",10.1.1.2,323,-0.230,-0.230,-0.230,0.000,0.000,0.000
1640053544300890880,"2021-12-21,02:25:44",10.1.1.2,0.35434412956237793,-0.230,-0.230,-0.230,0.000,0.000,0.000
1640053544637177088,"2021-12-21,02:25:44",10.1.1.2,332,-0.220,-0.220,-0.220,0.000,0.000,0.000
1640053544695764992,"2021-12-21,02:25:44",10.1.1.2,0.39113593101501465,-0.220,-0.220,-0.220,0.000,0.000,0.000
1640053544698944000,"2021-12-21,02:25:44",10.1.1.2,-1,-0.210,-0.210,-0.210,0.000,0.000,0.000
1640053545081368064,"2021-12-21,02:25:45",10.1.1.2,0.38371992111206055,-0.210,-0.210,-0.210,0.000,0.000,0.000
1640053545427052032,"2021-12-21,02:25:45",10.1.1.2,343,-0.200,-0.200,-0.200,0.000,0.000,0.000
1640053545440293120,"2021-12-21,02:25:45",10.1.1.2,0.3573918342590332,-0.200,-0.200,-0.200,0.000,0.000,0.000
1640053545807881216,"2021-12-21,02:25:45",10.1.1.2,364,-0.190,-0.190,-0.190,0.000,0.000,0.000
1640053545847419904,"2021-12-21,02:25:45",10.1.1.2,0.40511107444763184,-0.190,-0.190,-0.190,0.000,0.000,0.000
1640053546166768128,"2021-12-21,02:25:46",10.1.1.2,317,-0.180,-0.180,-0.180,0.000,0.000,0.000
1640053546211354112,"2021-12-21,02:25:46",10.1.1.2,0.3624429702758789,-0.180,-0.180,-0.180,0.000,0.000,0.000
1640053546555970816,"2021-12-21,02:25:46",10.1.1.2,342,-0.170,-0.170,-0.170,0.000,0.000,0.000
1640053546607321088,"2021-12-21,02:25:46",10.1.1.2,0.39403700828552246,-0.170,-0.170,-0.170,0.000,0.000,0.000
1640053546938177024,"2021-12-21,02:25:46",10.1.1.2,329,-0.160,-0.160,-0.160,0.000,0.000,0.000
1640053546957881088,"2021-12-21,02:25:46",10.1.1.2,0.3490438461303711,-0.160,-0.160,-0.160,0.000,0.000,0.000
1640053547304380928,"2021-12-21,02:25:47",10.1.1.2,344,-0.150,-0.150,-0.150,0.000,0.000,0.000
1640053547355706880,"2021-12-21,02:25:47",10.1.1.2,0.3956890106201172,-0.150,-0.150,-0.150,0.000,0.000,0.000
1640053547694740992,"2021-12-21,02:25:47",10.1.1.2,337,-0.140,-0.140,-0.140,0.000,0.000,0.000
1640053547740175872,"2021-12-21,02:25:47",10.1.1.2,0.38309717178344727,-0.140,-0.140,-0.140,0.000,0.000,0.000
1640053548073668864,"2021-12-21,02:25:48",10.1.1.2,331,-0.130,-0.130,-0.130,0.000,0.000,0.000
1640053548102164992,"2021-12-21,02:25:48",10.1.1.2,0.3605461120605469,-0.130,-0.130,-0.130,0.000,0.000,0.000
1640053548444261120,"2021-12-21,02:25:48",10.1.1.2,340,-0.120,-0.120,-0.120,0.000,0.000,0.000
1640053548488974080,"2021-12-21,02:25:48",10.1.1.2,0.3851950168609619,-0.120,-0.120,-0.120,0.000,0.000,0.000
1640053548811739904,"2021-12-21,02:25:48",10.1.1.2,321,-0.110,-0.110,-0.110,0.000,0.000,0.000
1640053548877777152,"2021-12-21,02:25:48",10.1.1.2,0.38743090629577637,-0.110,-0.110,-0.110,0.000,0.000,0.000
1640053549201798912,"2021-12-21,02:25:49",10.1.1.2,322,-0.100,-0.100,-0.100,0.000,0.000,0.000
1640053549235186176,"2021-12-21,02:25:49",10.1.1.2,0.35539793968200684,-0.100,-0.100,-0.100,0.000,0.000,0.000
1640053549561853952,"2021-12-21,02:25:49",10.1.1.2,324,-0.090,-0.090,-0.090,0.000,0.000,0.000
1640053549595646976,"2021-12-21,02:25:49",10.1.1.2,0.35885095596313477,-0.090,-0.090,-0.090,0.000,0.000,0.000
1640053549939773952,"2021-12-21,02:25:49",10.1.1.2,342,-0.080,-0.080,-0.080,0.000,0.000,0.000
1640053549958630912,"2021-12-21,02:25:49",10.1.1.2,0.3611760139465332,-0.080,-0.080,-0.080,0.000,0.000,0.000
1640053550280852992,"2021-12-21,02:25:50",10.1.1.2,318,-0.070,-0.070,-0.070,0.000,0.000,0.000
1640053550320427008,"2021-12-21,02:25:50",10.1.1.2,0.35824108123779297,-0.070,-0.070,-0.070,0.000,0.000,0.000
1640053550640428032,"2021-12-21,02:25:50",10.1.1.2,318,-0.060,-0.060,-0.060,0.000,0.000,0.000
1640053550681868032,"2021-12-21,02:25:50",10.1.1.2,0.3598499298095703,-0.060,-0.060,-0.060,0.000,0.000,0.000
1640053551019589888,"2021-12-21,02:25:51",10.1.1.2,336,-0.050,-0.050,-0.050,0.000,0.000,0.000
1640053551041618176,"2021-12-21,02:25:51",10.1.1.2,0.3581428527832031,-0.050,-0.050,-0.050,0.000,0.000,0.000
1640053551399687936,"2021-12-21,02:25:51",10.1.1.2,353,-0.040,-0.040,-0.040,0.000,0.000,0.000
1640053551439601920,"2021-12-21,02:25:51",10.1.1.2,0.3945469856262207,-0.040,-0.040,-0.040,0.000,0.000,0.000
1640053551809168128,"2021-12-21,02:25:51",10.1.1.2,367,-0.030,-0.030,-0.030,0.000,0.000,0.000
1640053551848964096,"2021-12-21,02:25:51",10.1.1.2,0.40737295150756836,-0.030,-0.030,-0.030,0.000,0.000,0.000
1640053552192222208,"2021-12-21,02:25:52",10.1.1.2,341,-0.020,-0.020,-0.020,0.000,0.000,0.000
1640053552207119872,"2021-12-21,02:25:52",10.1.1.2,0.35676097869873047,-0.020,-0.020,-0.020,0.000,0.000,0.000
1640053552557147136,"2021-12-21,02:25:52",10.1.1.2,347,-0.010,-0.010,-0.010,0.000,0.000,0.000
1640053552580708864,"2021-12-21,02:25:52",10.1.1.2,0.37159299850463867,-0.010,-0.010,-0.010,0.000,0.000,0.000
1640053552939001088,"2021-12-21,02:25:52",10.1.1.2,356,0.000,0.000,0.000,0.000,0.000,0.000
1640053552996007936,"2021-12-21,02:25:52",10.1.1.2,0.41355013847351074,0.000,0.000,0.000,0.000,0.000,0.000
1640053553357829120,"2021-12-21,02:25:53",10.1.1.2,359,-0.010,-0.010,-0.010,0.000,0.000,0.000
1640053553364837888,"2021-12-21,02:25:53",10.1.1.2,0.36658191680908203,-0.010,-0.010,-0.010,0.000,0.000,0.000
1640053553675527168,"2021-12-21,02:25:53",10.1.1.2,306,-0.020,-0.020,-0.020,0.000,0.000,0.000
1640053553731899136,"2021-12-21,02:25:53",10.1.1.2,0.36302995681762695,-0.020,-0.020,-0.020,0.000,0.000,0.000
1640053554096246016,"2021-12-21,02:25:54",10.1.1.2,361,-0.030,-0.030,-0.030,0.000,0.000,0.000
1640053554128281088,"2021-12-21,02:25:54",10.1.1.2,0.39393091201782227,-0.030,-0.030,-0.030,0.000,0.000,0.000
1640053554455590912,"2021-12-21,02:25:54",10.1.1.2,325,-0.040,-0.040,-0.040,0.000,0.000,0.000
1640053554484796160,"2021-12-21,02:25:54",10.1.1.2,0.35473108291625977,-0.040,-0.040,-0.040,0.000,0.000,0.000
1640053554826616064,"2021-12-21,02:25:54",10.1.1.2,340,-0.050,-0.050,-0.050,0.000,0.000,0.000
1640053554838038016,"2021-12-21,02:25:54",10.1.1.2,0.35171985626220703,-0.050,-0.050,-0.050,0.000,0.000,0.000
1640053555153091840,"2021-12-21,02:25:55",10.1.1.2,313,-0.060,-0.060,-0.060,0.000,0.000,0.000
1640053555194245120,"2021-12-21,02:25:55",10.1.1.2,0.35354089736938477,-0.060,-0.060,-0.060,0.000,0.000,0.000
1640053555542562048,"2021-12-21,02:25:55",10.1.1.2,346,-0.070,-0.070,-0.070,0.000,0.000,0.000
1640053555582732032,"2021-12-21,02:25:55",10.1.1.2,0.3863029479980469,-0.070,-0.070,-0.070,0.000,0.000,0.000
1640053555922105088,"2021-12-21,02:25:55",10.1.1.2,337,-0.080,-0.080,-0.080,0.000,0.000,0.000
1640053555939032064,"2021-12-21,02:25:55",10.1.1.2,0.3549771308898926,-0.080,-0.080,-0.080,0.000,0.000,0.000
1640053556276007936,"2021-12-21,02:25:56",10.1.1.2,334,-0.090,-0.090,-0.090,0.000,0.000,0.000
1640053556301719040,"2021-12-21,02:25:56",10.1.1.2,0.36010098457336426,-0.090,-0.090,-0.090,0.000,0.000,0.000
1640053556641371136,"2021-12-21,02:25:56",10.1.1.2,336,-0.100,-0.100,-0.100,0.000,0.000,0.000
1640053556661614848,"2021-12-21,02:25:56",10.1.1.2,0.3564159870147705,-0.100,-0.100,-0.100,0.000,0.000,0.000
1640053557014905856,"2021-12-21,02:25:57",10.1.1.2,351,-0.110,-0.110,-0.110,0.000,0.000,0.000
1640053557052915968,"2021-12-21,02:25:57",10.1.1.2,0.38973498344421387,-0.110,-0.110,-0.110,0.000,0.000,0.000
1640053557374514176,"2021-12-21,02:25:57",10.1.1.2,319,-0.120,-0.120,-0.120,0.000,0.000,0.000
1640053557416628992,"2021-12-21,02:25:57",10.1.1.2,0.3620431423187256,-0.120,-0.120,-0.120,0.000,0.000,0.000
1640053557764375040,"2021-12-21,02:25:57",10.1.1.2,343,-0.130,-0.130,-0.130,0.000,0.000,0.000
1640053557810163968,"2021-12-21,02:25:57",10.1.1.2,0.3894538879394531,-0.130,-0.130,-0.130,0.000,0.000,0.000
1640053558137541888,"2021-12-21,02:25:58",10.1.1.2,325,-0.140,-0.140,-0.140,0.000,0.000,0.000
1640053558201960192,"2021-12-21,02:25:58",10.1.1.2,0.38990092277526855,-0.140,-0.140,-0.140,0.000,0.000,0.000
1640053558559542784,"2021-12-21,02:25:58",10.1.1.2,355,-0.150,-0.150,-0.150,0.000,0.000,0.000
1640053558600315136,"2021-12-21,02:25:58",10.1.1.2,0.39638400077819824,-0.150,-0.150,-0.150,0.000,0.000,0.000
1640053558920751104,"2021-12-21,02:25:58",10.1.1.2,316,-0.160,-0.160,-0.160,0.000,0.000,0.000
1640053558963407872,"2021-12-21,02:25:58",10.1.1.2,0.35916805267333984,-0.160,-0.160,-0.160,0.000,0.000,0.000
1640053559302936064,"2021-12-21,02:25:59",10.1.1.2,338,-0.170,-0.170,-0.170,0.000,0.000,0.000
1640053559354772992,"2021-12-21,02:25:59",10.1.1.2,0.3899998664855957,-0.170,-0.170,-0.170,0.000,0.000,0.000
1640053559704914944,"2021-12-21,02:25:59",10.1.1.2,346,-0.180,-0.180,-0.180,0.000,0.000,0.000
1640053559746548992,"2021-12-21,02:25:59",10.1.1.2,0.39037394523620605,-0.180,-0.180,-0.180,0.000,0.000,0.000
1640053560085916928,"2021-12-21,02:26:00",10.1.1.2,337,-0.190,-0.190,-0.190,0.000,0.000,0.000
1640053560137890048,"2021-12-21,02:26:00",10.1.1.2,0.389772891998291,-0.190,-0.190,-0.190,0.000,0.000,0.000
1640053560486630912,"2021-12-21,02:26:00",10.1.1.2,346,-0.200,-0.200,-0.200,0.000,0.000,0.000
1640053560533630976,"2021-12-21,02:26:00",10.1.1.2,0.3942079544067383,-0.200,-0.200,-0.200,0.000,0.000,0.000
1640053560889051904,"2021-12-21,02:26:00",10.1.1.2,353,-0.210,-0.210,-0.210,0.000,0.000,0.000
1640053560921742848,"2021-12-21,02:26:00",10.1.1.2,0.38662099838256836,-0.210,-0.210,-0.210,0.000,0.000,0.000
1640053561278317824,"2021-12-21,02:26:01",10.1.1.2,354,-0.220,-0.220,-0.220,0.000,0.000,0.000
1640053561308182016,"2021-12-21,02:26:01",10.1.1.2,0.384519100189209,-0.220,-0.220,-0.220,0.000,0.000,0.000
1640053561640327936,"2021-12-21,02:26:01",10.1.1.2,330,-0.230,-0.230,-0.230,0.000,0.000,0.000
1640053561690251008,"2021-12-21,02:26:01",10.1.1.2,0.3805088996887207,-0.230,-0.230,-0.230,0.000,0.000,0.000
1640053562030617856,"2021-12-21,02:26:02",10.1.1.2,338,-0.240,-0.240,-0.240,0.000,0.000,0.000
1640053562111262208,"2021-12-21,02:26:02",10.1.1.2,0.4195241928100586,-0.240,-0.240,-0.240,0.000,0.000,0.000
1640053562461996032,"2021-12-21,02:26:02",10.1.1.2,349,-0.250,-0.250,-0.250,0.000,0.000,0.000
1640053562500380928,"2021-12-21,02:26:02",10.1.1.2,0.3875410556793213,-0.250,-0.250,-0.250,0.000,0.000,0.000
1640053562842722048,"2021-12-21,02:26:02",10.1.1.2,340,-0.260,-0.260,-0.260,0.000,0.000,0.000
1640053562856462080,"2021-12-21,02:26:02",10.1.1.2,0.3538639545440674,-0.260,-0.260,-0.260,0.000,0.000,0.000
1640053563207130880,"2021-12-21,02:26:03",10.1.1.2,349,-0.270,-0.270,-0.270,0.000,0.000,0.000
1640053563223385088,"2021-12-21,02:26:03",10.1.1.2,0.3652310371398926,-0.270,-0.270,-0.270,0.000,0.000,0.000
1640053563533369088,"2021-12-21,02:26:03",10.1.1.2,308,-0.280,-0.280,-0.280,0.000,0.000,0.000
1640053563582292992,"2021-12-21,02:26:03",10.1.1.2,0.3572709560394287,-0.280,-0.280,-0.280,0.000,0.000,0.000
1640053563903259904,"2021-12-21,02:26:03",10.1.1.2,319,-0.290,-0.290,-0.290,0.000,0.000,0.000
1640053563937824000,"2021-12-21,02:26:03",10.1.1.2,0.35407209396362305,-0.290,-0.290,-0.290,0.000,0.000,0.000
1640053564287244032,"2021-12-21,02:26:04",10.1.1.2,346,-0.300,-0.300,-0.300,0.000,0.000,0.000
1640053564295230976,"2021-12-21,02:26:04",10.1.1.2,0.35463595390319824,-0.300,-0.300,-0.300,0.000,0.000,0.000
1640053564628892928,"2021-12-21,02:26:04",10.1.1.2,331,-0.310,-0.310,-0.310,0.000,0.000,0.000
1640053564661900032,"2021-12-21,02:26:04",10.1.1.2,0.3650479316711426,-0.310,-0.310,-0.310,0.000,0.000,0.000
1640053565005403904,"2021-12-21,02:26:05",10.1.1.2,339,-0.320,-0.320,-0.320,0.000,0.000,0.000
1640053565086478080,"2021-12-21,02:26:05",10.1.1.2,0.4211299419403076,-0.320,-0.320,-0.320,0.000,0.000,0.000
1640053565435657984,"2021-12-21,02:26:05",10.1.1.2,347,-0.330,-0.330,-0.330,0.000,0.000,0.000
1640053565479343872,"2021-12-21,02:26:05",10.1.1.2,0.390887975692749,-0.330,-0.330,-0.330,0.000,0.000,0.000
1640053565835352064,"2021-12-21,02:26:05",10.1.1.2,353,-0.340,-0.340,-0.340,0.000,0.000,0.000
1640053565867693056,"2021-12-21,02:26:05",10.1.1.2,0.386491060256958,-0.340,-0.340,-0.340,0.000,0.000,0.000
1640053566185623808,"2021-12-21,02:26:06",10.1.1.2,316,-0.350,-0.350,-0.350,0.000,0.000,0.000
1640053566225807872,"2021-12-21,02:26:06",10.1.1.2,0.3567538261413574,-0.350,-0.350,-0.350,0.000,0.000,0.000
1640053566554548992,"2021-12-21,02:26:06",10.1.1.2,327,-0.360,-0.360,-0.360,0.000,0.000,0.000
1640053566626457088,"2021-12-21,02:26:06",10.1.1.2,0.39910197257995605,-0.360,-0.360,-0.360,0.000,0.000,0.000
1640053566979043840,"2021-12-21,02:26:06",10.1.1.2,349,-0.370,-0.370,-0.370,0.000,0.000,0.000
1640053567023125760,"2021-12-21,02:26:07",10.1.1.2,0.39491701126098633,-0.370,-0.370,-0.370,0.000,0.000,0.000
1640053567377221120,"2021-12-21,02:26:07",10.1.1.2,352,-0.380,-0.380,-0.380,0.000,0.000,0.000
1640053567423140096,"2021-12-21,02:26:07",10.1.1.2,0.3981490135192871,-0.380,-0.380,-0.380,0.000,0.000,0.000
1640053567775595776,"2021-12-21,02:26:07",10.1.1.2,351,-0.390,-0.390,-0.390,0.000,0.000,0.000
1640053567810200064,"2021-12-21,02:26:07",10.1.1.2,0.3856489658355713,-0.390,-0.390,-0.390,0.000,0.000,0.000
1640053568136904960,"2021-12-21,02:26:08",10.1.1.2,325,-0.400,-0.400,-0.400,0.000,0.000,0.000
1640053568196103936,"2021-12-21,02:26:08",10.1.1.2,0.3844480514526367,-0.400,-0.400,-0.400,0.000,0.000,0.000
1640053568530113024,"2021-12-21,02:26:08",10.1.1.2,330,-0.410,-0.410,-0.410,0.000,0.000,0.000
1640053568585248000,"2021-12-21,02:26:08",10.1.1.2,0.38717079162597656,-0.410,-0.410,-0.410,0.000,0.000,0.000
1640053568928081920,"2021-12-21,02:26:08",10.1.1.2,340,-0.420,-0.420,-0.420,0.000,0.000,0.000
1640053568944953088,"2021-12-21,02:26:08",10.1.1.2,0.35744309425354004,-0.420,-0.420,-0.420,0.000,0.000,0.000
1640053569266791936,"2021-12-21,02:26:09",10.1.1.2,319,-0.430,-0.430,-0.430,0.000,0.000,0.000
1640053569330790912,"2021-12-21,02:26:09",10.1.1.2,0.38434791564941406,-0.430,-0.430,-0.430,0.000,0.000,0.000
1640053569655414016,"2021-12-21,02:26:09",10.1.1.2,323,-0.440,-0.440,-0.440,0.000,0.000,0.000
1640053569719484160,"2021-12-21,02:26:09",10.1.1.2,0.387160062789917,-0.440,-0.440,-0.440,0.000,0.000,0.000
1640053570056976128,"2021-12-21,02:26:10",10.1.1.2,335,-0.450,-0.450,-0.450,0.000,0.000,0.000
1640053570115475968,"2021-12-21,02:26:10",10.1.1.2,0.3944098949432373,-0.450,-0.450,-0.450,0.000,0.000,0.000
1640053570467480832,"2021-12-21,02:26:10",10.1.1.2,349,-0.460,-0.460,-0.460,0.000,0.000,0.000
1640053570542536960,"2021-12-21,02:26:10",10.1.1.2,0.4252638816833496,-0.460,-0.460,-0.460,0.000,0.000,0.000
1640053570875660032,"2021-12-21,02:26:10",10.1.1.2,330,-0.470,-0.470,-0.470,0.000,0.000,0.000
1640053570933903872,"2021-12-21,02:26:10",10.1.1.2,0.3899040222167969,-0.470,-0.470,-0.470,0.000,0.000,0.000
1640053571296545024,"2021-12-21,02:26:11",10.1.1.2,360,-0.480,-0.480,-0.480,0.000,0.000,0.000
1640053571324722176,"2021-12-21,02:26:11",10.1.1.2,0.3872718811035156,-0.480,-0.480,-0.480,0.000,0.000,0.000
1640053571695405056,"2021-12-21,02:26:11",10.1.1.2,367,-0.490,-0.490,-0.490,0.000,0.000,0.000
1640053571749710080,"2021-12-21,02:26:11",10.1.1.2,0.4216651916503906,-0.490,-0.490,-0.490,0.000,0.000,0.000
1640053572084270080,"2021-12-21,02:26:12",10.1.1.2,332,-0.480,-0.480,-0.480,0.000,0.000,0.000
1640053572110420992,"2021-12-21,02:26:12",10.1.1.2,0.35891199111938477,-0.480,-0.480,-0.480,0.000,0.000,0.000
1640053572456573952,"2021-12-21,02:26:12",10.1.1.2,343,-0.470,-0.470,-0.470,0.000,0.000,0.000
1640053572497052928,"2021-12-21,02:26:12",10.1.1.2,0.38385486602783203,-0.470,-0.470,-0.470,0.000,0.000,0.000
1640053572833808896,"2021-12-21,02:26:12",10.1.1.2,334,-0.460,-0.460,-0.460,0.000,0.000,0.000
1640053572884969984,"2021-12-21,02:26:12",10.1.1.2,0.38633108139038086,-0.460,-0.460,-0.460,0.000,0.000,0.000
1640053573244359936,"2021-12-21,02:26:13",10.1.1.2,356,-0.450,-0.450,-0.450,0.000,0.000,0.000
1640053573273174016,"2021-12-21,02:26:13",10.1.1.2,0.385174036026001,-0.450,-0.450,-0.450,0.000,0.000,0.000
1640053573613240064,"2021-12-21,02:26:13",10.1.1.2,338,-0.440,-0.440,-0.440,0.000,0.000,0.000
1640053573664436224,"2021-12-21,02:26:13",10.1.1.2,0.3897120952606201,-0.440,-0.440,-0.440,0.000,0.000,0.000
1640053574022888960,"2021-12-21,02:26:14",10.1.1.2,356,-0.430,-0.430,-0.430,0.000,0.000,0.000
1640053574052634112,"2021-12-21,02:26:14",10.1.1.2,0.3868401050567627,-0.430,-0.430,-0.430,0.000,0.000,0.000
1640053574402609152,"2021-12-21,02:26:14",10.1.1.2,348,-0.420,-0.420,-0.420,0.000,0.000,0.000
1640053574444592896,"2021-12-21,02:26:14",10.1.1.2,0.39037394523620605,-0.420,-0.420,-0.420,0.000,0.000,0.000
1640053574783025152,"2021-12-21,02:26:14",10.1.1.2,336,-0.410,-0.410,-0.410,0.000,0.000,0.000
1640053574842111232,"2021-12-21,02:26:14",10.1.1.2,0.395582914352417,-0.410,-0.410,-0.410,0.000,0.000,0.000
1640053575182297856,"2021-12-21,02:26:15",10.1.1.2,335,-0.400,-0.400,-0.400,0.000,0.000,0.000
1640053575208564992,"2021-12-21,02:26:15",10.1.1.2,0.3618941307067871,-0.400,-0.400,-0.400,0.000,0.000,0.000
1640053575520931072,"2021-12-21,02:26:15",10.1.1.2,310,-0.390,-0.390,-0.390,0.000,0.000,0.000
1640053575569224192,"2021-12-21,02:26:15",10.1.1.2,0.358536958694458,-0.390,-0.390,-0.390,0.000,0.000,0.000
1640053575901155840,"2021-12-21,02:26:15",10.1.1.2,324,-0.380,-0.380,-0.380,0.000,0.000,0.000
1640053575962070016,"2021-12-21,02:26:15",10.1.1.2,0.38561105728149414,-0.380,-0.380,-0.380,0.000,0.000,0.000
1640053576280935936,"2021-12-21,02:26:16",10.1.1.2,317,-0.370,-0.370,-0.370,0.000,0.000,0.000
1640053576354124032,"2021-12-21,02:26:16",10.1.1.2,0.39049410820007324,-0.370,-0.370,-0.370,0.000,0.000,0.000
1640053576681369088,"2021-12-21,02:26:16",10.1.1.2,324,-0.360,-0.360,-0.360,0.000,0.000,0.000
1640053576751806976,"2021-12-21,02:26:16",10.1.1.2,0.3952360153198242,-0.360,-0.360,-0.360,0.000,0.000,0.000
1640053577109052928,"2021-12-21,02:26:17",10.1.1.2,355,-0.350,-0.350,-0.350,0.000,0.000,0.000
1640053577133193984,"2021-12-21,02:26:17",10.1.1.2,0.3800210952758789,-0.350,-0.350,-0.350,0.000,0.000,0.000
1640053577464199168,"2021-12-21,02:26:17",10.1.1.2,328,-0.340,-0.340,-0.340,0.000,0.000,0.000
1640053577524849920,"2021-12-21,02:26:17",10.1.1.2,0.3902599811553955,-0.340,-0.340,-0.340,0.000,0.000,0.000
1640053577877839104,"2021-12-21,02:26:17",10.1.1.2,351,-0.330,-0.330,-0.330,0.000,0.000,0.000
1640053577913028096,"2021-12-21,02:26:17",10.1.1.2,0.3864297866821289,-0.330,-0.330,-0.330,0.000,0.000,0.000
1640053578237199104,"2021-12-21,02:26:18",10.1.1.2,322,-0.320,-0.320,-0.320,0.000,0.000,0.000
1640053578301911040,"2021-12-21,02:26:18",10.1.1.2,0.3872499465942383,-0.320,-0.320,-0.320,0.000,0.000,0.000
1640053578646866944,"2021-12-21,02:26:18",10.1.1.2,343,-0.310,-0.310,-0.310,0.000,0.000,0.000
1640053578689920000,"2021-12-21,02:26:18",10.1.1.2,0.3863980770111084,-0.310,-0.310,-0.310,0.000,0.000,0.000
1640053579027868928,"2021-12-21,02:26:19",10.1.1.2,335,-0.300,-0.300,-0.300,0.000,0.000,0.000
1640053579075289088,"2021-12-21,02:26:19",10.1.1.2,0.3833131790161133,-0.300,-0.300,-0.300,0.000,0.000,0.000
1640053579406774016,"2021-12-21,02:26:19",10.1.1.2,329,-0.290,-0.290,-0.290,0.000,0.000,0.000
1640053579461601024,"2021-12-21,02:26:19",10.1.1.2,0.38478803634643555,-0.290,-0.290,-0.290,0.000,0.000,0.000
1640053579793366016,"2021-12-21,02:26:19",10.1.1.2,329,-0.280,-0.280,-0.280,0.000,0.000,0.000
1640053579824604160,"2021-12-21,02:26:19",10.1.1.2,0.36022520065307617,-0.280,-0.280,-0.280,0.000,0.000,0.000
1640053580156284160,"2021-12-21,02:26:20",10.1.1.2,328,-0.270,-0.270,-0.270,0.000,0.000,0.000
1640053580185998080,"2021-12-21,02:26:20",10.1.1.2,0.3584740161895752,-0.270,-0.270,-0.270,0.000,0.000,0.000
1640053580527237888,"2021-12-21,02:26:20",10.1.1.2,339,-0.260,-0.260,-0.260,0.000,0.000,0.000
1640053580572509952,"2021-12-21,02:26:20",10.1.1.2,0.3848748207092285,-0.260,-0.260,-0.260,0.000,0.000,0.000
1640053580924742912,"2021-12-21,02:26:20",10.1.1.2,350,-0.250,-0.250,-0.250,0.000,0.000,0.000
1640053580964624896,"2021-12-21,02:26:20",10.1.1.2,0.3904259204864502,-0.250,-0.250,-0.250,0.000,0.000,0.000
1640053581314780928,"2021-12-21,02:26:21",10.1.1.2,348,-0.240,-0.240,-0.240,0.000,0.000,0.000
1640053581331139072,"2021-12-21,02:26:21",10.1.1.2,0.3649320602416992,-0.240,-0.240,-0.240,0.000,0.000,0.000
1640053581669213184,"2021-12-21,02:26:21",10.1.1.2,335,-0.230,-0.230,-0.230,0.000,0.000,0.000
1640053581724175872,"2021-12-21,02:26:21",10.1.1.2,0.3901479244232178,-0.230,-0.230,-0.230,0.000,0.000,0.000
1640053582066739200,"2021-12-21,02:26:22",10.1.1.2,339,-0.220,-0.220,-0.220,0.000,0.000,0.000
1640053582112485888,"2021-12-21,02:26:22",10.1.1.2,0.38623595237731934,-0.220,-0.220,-0.220,0.000,0.000,0.000
1640053582453736960,"2021-12-21,02:26:22",10.1.1.2,339,-0.210,-0.210,-0.210,0.000,0.000,0.000
1640053582499585024,"2021-12-21,02:26:22",10.1.1.2,0.38515686988830566,-0.210,-0.210,-0.210,0.000,0.000,0.000
1640053582821726208,"2021-12-21,02:26:22",10.1.1.2,320,-0.200,-0.200,-0.200,0.000,0.000,0.000
1640053582858607104,"2021-12-21,02:26:22",10.1.1.2,0.3576080799102783,-0.200,-0.200,-0.200,0.000,0.000,0.000
1640053583194907904,"2021-12-21,02:26:23",10.1.1.2,334,-0.190,-0.190,-0.190,0.000,0.000,0.000
1640053583214349056,"2021-12-21,02:26:23",10.1.1.2,0.3542940616607666,-0.190,-0.190,-0.190,0.000,0.000,0.000
1640053583541656064,"2021-12-21,02:26:23",10.1.1.2,324,-0.180,-0.180,-0.180,0.000,0.000,0.000
1640053583603694080,"2021-12-21,02:26:23",10.1.1.2,0.38753318786621094,-0.180,-0.180,-0.180,0.000,0.000,0.000
1640053583932549120,"2021-12-21,02:26:23",10.1.1.2,327,-0.170,-0.170,-0.170,0.000,0.000,0.000
1640053584023663104,"2021-12-21,02:26:24",10.1.1.2,0.4186289310455322,-0.170,-0.170,-0.170,0.000,0.000,0.000
1640053584358797056,"2021-12-21,02:26:24",10.1.1.2,333,-0.160,-0.160,-0.160,0.000,0.000,0.000
1640053584415436032,"2021-12-21,02:26:24",10.1.1.2,0.39017391204833984,-0.160,-0.160,-0.160,0.000,0.000,0.000
1640053584759480832,"2021-12-21,02:26:24",10.1.1.2,341,-0.150,-0.150,-0.150,0.000,0.000,0.000
1640053584813728000,"2021-12-21,02:26:24",10.1.1.2,0.3968780040740967,-0.150,-0.150,-0.150,0.000,0.000,0.000
1640053585148560896,"2021-12-21,02:26:25",10.1.1.2,332,-0.140,-0.140,-0.140,0.000,0.000,0.000
1640053585207847168,"2021-12-21,02:26:25",10.1.1.2,0.3926718235015869,-0.140,-0.140,-0.140,0.000,0.000,0.000
1640053585214287872,"2021-12-21,02:26:25",10.1.1.2,-1,-0.130,-0.130,-0.130,0.000,0.000,0.000
1640053585571089152,"2021-12-21,02:26:25",10.1.1.2,0.3615298271179199,-0.130,-0.130,-0.130,0.000,0.000,0.000
1640053585900280832,"2021-12-21,02:26:25",10.1.1.2,326,-0.120,-0.120,-0.120,0.000,0.000,0.000
1640053585970659072,"2021-12-21,02:26:25",10.1.1.2,0.397320032119751,-0.120,-0.120,-0.120,0.000,0.000,0.000
1640053586329412864,"2021-12-21,02:26:26",10.1.1.2,355,-0.110,-0.110,-0.110,0.000,0.000,0.000
1640053586373676032,"2021-12-21,02:26:26",10.1.1.2,0.40093111991882324,-0.110,-0.110,-0.110,0.000,0.000,0.000
1640053586748464128,"2021-12-21,02:26:26",10.1.1.2,369,-0.100,-0.100,-0.100,0.000,0.000,0.000
1640053586780435200,"2021-12-21,02:26:26",10.1.1.2,0.40212082862854004,-0.100,-0.100,-0.100,0.000,0.000,0.000
1640053587137172992,"2021-12-21,02:26:27",10.1.1.2,355,-0.090,-0.090,-0.090,0.000,0.000,0.000
1640053587217051904,"2021-12-21,02:26:27",10.1.1.2,0.4338870048522949,-0.090,-0.090,-0.090,0.000,0.000,0.000
1640053587547542016,"2021-12-21,02:26:27",10.1.1.2,326,-0.080,-0.080,-0.080,0.000,0.000,0.000
1640053587613944064,"2021-12-21,02:26:27",10.1.1.2,0.3933868408203125,-0.080,-0.080,-0.080,0.000,0.000,0.000
1640053587956646912,"2021-12-21,02:26:27",10.1.1.2,341,-0.070,-0.070,-0.070,0.000,0.000,0.000
1640053588003983872,"2021-12-21,02:26:28",10.1.1.2,0.38846683502197266,-0.070,-0.070,-0.070,0.000,0.000,0.000
1640053588335202048,"2021-12-21,02:26:28",10.1.1.2,329,-0.060,-0.060,-0.060,0.000,0.000,0.000
1640053588359368192,"2021-12-21,02:26:28",10.1.1.2,0.35315394401550293,-0.060,-0.060,-0.060,0.000,0.000,0.000
1640053588694725120,"2021-12-21,02:26:28",10.1.1.2,332,-0.050,-0.050,-0.050,0.000,0.000,0.000
1640053588770612992,"2021-12-21,02:26:28",10.1.1.2,0.4077780246734619,-0.050,-0.050,-0.050,0.000,0.000,0.000
1640053589128887040,"2021-12-21,02:26:29",10.1.1.2,356,-0.040,-0.040,-0.040,0.000,0.000,0.000
1640053589171709184,"2021-12-21,02:26:29",10.1.1.2,0.3995699882507324,-0.040,-0.040,-0.040,0.000,0.000,0.000
1640053589517494016,"2021-12-21,02:26:29",10.1.1.2,341,-0.030,-0.030,-0.030,0.000,0.000,0.000
1640053589572484096,"2021-12-21,02:26:29",10.1.1.2,0.3969419002532959,-0.030,-0.030,-0.030,0.000,0.000,0.000
1640053589898547968,"2021-12-21,02:26:29",10.1.1.2,324,-0.020,-0.020,-0.020,0.000,0.000,0.000
1640053589961904896,"2021-12-21,02:26:29",10.1.1.2,0.3879711627960205,-0.020,-0.020,-0.020,0.000,0.000,0.000
1640053590300730880,"2021-12-21,02:26:30",10.1.1.2,336,-0.010,-0.010,-0.010,0.000,0.000,0.000
1640053590313501952,"2021-12-21,02:26:30",10.1.1.2,0.3498108386993408,-0.010,-0.010,-0.010,0.000,0.000,0.000
1640053590673521152,"2021-12-21,02:26:30",10.1.1.2,357,0.000,0.000,0.000,0.000,0.000,0.000
1640053590718772992,"2021-12-21,02:26:30",10.1.1.2,0.40216684341430664,0.000,0.000,0.000,0.000,0.000,0.000
1640053591075579904,"2021-12-21,02:26:31",10.1.1.2,355,-0.010,-0.010,-0.010,0.000,0.000,0.000
1640053591108481024,"2021-12-21,02:26:31",10.1.1.2,0.38808202743530273,-0.010,-0.010,-0.010,0.000,0.000,0.000
1640053591469125888,"2021-12-21,02:26:31",10.1.1.2,359,-0.020,-0.020,-0.020,0.000,0.000,0.000
1640053591501099008,"2021-12-21,02:26:31",10.1.1.2,0.3912370204925537,-0.020,-0.020,-0.020,0.000,0.000,0.000
1640053591807966976,"2021-12-21,02:26:31",10.1.1.2,304,-0.030,-0.030,-0.030,0.000,0.000,0.000
1640053591865735168,"2021-12-21,02:26:31",10.1.1.2,0.3628220558166504,-0.030,-0.030,-0.030,0.000,0.000,0.000
1640053592249524224,"2021-12-21,02:26:32",10.1.1.2,380,-0.040,-0.040,-0.040,0.000,0.000,0.000
1640053592260107008,"2021-12-21,02:26:32",10.1.1.2,0.3913700580596924,-0.040,-0.040,-0.040,0.000,0.000,0.000
1640053592609303040,"2021-12-21,02:26:32",10.1.1.2,347,-0.050,-0.050,-0.050,0.000,0.000,0.000
1640053592652316928,"2021-12-21,02:26:32",10.1.1.2,0.3906230926513672,-0.050,-0.050,-0.050,0.000,0.000,0.000
1640053592972626944,"2021-12-21,02:26:32",10.1.1.2,317,-0.060,-0.060,-0.060,0.000,0.000,0.000
1640053592998681088,"2021-12-21,02:26:32",10.1.1.2,0.3442800045013428,-0.060,-0.060,-0.060,0.000,0.000,0.000
1640053593343472128,"2021-12-21,02:26:33",10.1.1.2,342,-0.070,-0.070,-0.070,0.000,0.000,0.000
1640053593405502976,"2021-12-21,02:26:33",10.1.1.2,0.4046199321746826,-0.070,-0.070,-0.070,0.000,0.000,0.000
1640053593723617024,"2021-12-21,02:26:33",10.1.1.2,315,-0.080,-0.080,-0.080,0.000,0.000,0.000
1640053593761442048,"2021-12-21,02:26:33",10.1.1.2,0.3531839847564697,-0.080,-0.080,-0.080,0.000,0.000,0.000
1640053594104979968,"2021-12-21,02:26:34",10.1.1.2,341,-0.090,-0.090,-0.090,0.000,0.000,0.000
1640053594172486144,"2021-12-21,02:26:34",10.1.1.2,0.40953612327575684,-0.090,-0.090,-0.090,0.000,0.000,0.000
1640053594524430080,"2021-12-21,02:26:34",10.1.1.2,350,-0.100,-0.100,-0.100,0.000,0.000,0.000
1640053594581986816,"2021-12-21,02:26:34",10.1.1.2,0.4077630043029785,-0.100,-0.100,-0.100,0.000,0.000,0.000
1640053594941696000,"2021-12-21,02:26:34",10.1.1.2,357,-0.110,-0.110,-0.110,0.000,0.000,0.000
1640053594953649152,"2021-12-21,02:26:34",10.1.1.2,0.36947202682495117,-0.110,-0.110,-0.110,0.000,0.000,0.000
1640053595286147072,"2021-12-21,02:26:35",10.1.1.2,329,-0.120,-0.120,-0.120,0.000,0.000,0.000
1640053595318504960,"2021-12-21,02:26:35",10.1.1.2,0.3621659278869629,-0.120,-0.120,-0.120,0.000,0.000,0.000
1640053595687395072,"2021-12-21,02:26:35",10.1.1.2,364,-0.130,-0.130,-0.130,0.000,0.000,0.000
1640053595736371968,"2021-12-21,02:26:35",10.1.1.2,0.4157388210296631,-0.130,-0.130,-0.130,0.000,0.000,0.000
1640053596087739904,"2021-12-21,02:26:36",10.1.1.2,349,-0.140,-0.140,-0.140,0.000,0.000,0.000
1640053596133330944,"2021-12-21,02:26:36",10.1.1.2,0.3953969478607178,-0.140,-0.140,-0.140,0.000,0.000,0.000
1640053596496307968,"2021-12-21,02:26:36",10.1.1.2,361,-0.150,-0.150,-0.150,0.000,0.000,0.000
1640053596574435072,"2021-12-21,02:26:36",10.1.1.2,0.4394659996032715,-0.150,-0.150,-0.150,0.000,0.000,0.000
1640053596897663232,"2021-12-21,02:26:36",10.1.1.2,321,-0.160,-0.160,-0.160,0.000,0.000,0.000
1640053596930021120,"2021-12-21,02:26:36",10.1.1.2,0.3538999557495117,-0.160,-0.160,-0.160,0.000,0.000,0.000
1640053597287547136,"2021-12-21,02:26:37",10.1.1.2,355,-0.170,-0.170,-0.170,0.000,0.000,0.000
1640053597319723008,"2021-12-21,02:26:37",10.1.1.2,0.3876152038574219,-0.170,-0.170,-0.170,0.000,0.000,0.000
1640053597658399232,"2021-12-21,02:26:37",10.1.1.2,337,-0.180,-0.180,-0.180,0.000,0.000,0.000
1640053597684681984,"2021-12-21,02:26:37",10.1.1.2,0.36357998847961426,-0.180,-0.180,-0.180,0.000,0.000,0.000
1640053598029846784,"2021-12-21,02:26:38",10.1.1.2,343,-0.190,-0.190,-0.190,0.000,0.000,0.000
1640053598081934080,"2021-12-21,02:26:38",10.1.1.2,0.3958089351654053,-0.190,-0.190,-0.190,0.000,0.000,0.000
1640053598399603968,"2021-12-21,02:26:38",10.1.1.2,315,-0.200,-0.200,-0.200,0.000,0.000,0.000
1640053598438844928,"2021-12-21,02:26:38",10.1.1.2,0.3553800582885742,-0.200,-0.200,-0.200,0.000,0.000,0.000
1640053598779407872,"2021-12-21,02:26:38",10.1.1.2,334,-0.210,-0.210,-0.210,0.000,0.000,0.000
1640053598871622912,"2021-12-21,02:26:38",10.1.1.2,0.42739415168762207,-0.210,-0.210,-0.210,0.000,0.000,0.000
1640053599189110016,"2021-12-21,02:26:39",10.1.1.2,315,-0.220,-0.220,-0.220,0.000,0.000,0.000
1640053599252950016,"2021-12-21,02:26:39",10.1.1.2,0.38001203536987305,-0.220,-0.220,-0.220,0.000,0.000,0.000
1640053599578505984,"2021-12-21,02:26:39",10.1.1.2,323,-0.230,-0.230,-0.230,0.000,0.000,0.000
1640053599595184128,"2021-12-21,02:26:39",10.1.1.2,0.34067392349243164,-0.230,-0.230,-0.230,0.000,0.000,0.000
1640053599919482112,"2021-12-21,02:26:39",10.1.1.2,322,-0.240,-0.240,-0.240,0.000,0.000,0.000
1640053599983532032,"2021-12-21,02:26:39",10.1.1.2,0.3868100643157959,-0.240,-0.240,-0.240,0.000,0.000,0.000
1640053600298942208,"2021-12-21,02:26:40",10.1.1.2,313,-0.250,-0.250,-0.250,0.000,0.000,0.000
1640053600331459072,"2021-12-21,02:26:40",10.1.1.2,0.34641289710998535,-0.250,-0.250,-0.250,0.000,0.000,0.000
1640053600678763008,"2021-12-21,02:26:40",10.1.1.2,344,-0.260,-0.260,-0.260,0.000,0.000,0.000
1640053600735165184,"2021-12-21,02:26:40",10.1.1.2,0.4010751247406006,-0.260,-0.260,-0.260,0.000,0.000,0.000
1640053601109641984,"2021-12-21,02:26:41",10.1.1.2,368,-0.270,-0.270,-0.270,0.000,0.000,0.000
1640053601168237056,"2021-12-21,02:26:41",10.1.1.2,0.42671918869018555,-0.270,-0.270,-0.270,0.000,0.000,0.000
1640053601490153984,"2021-12-21,02:26:41",10.1.1.2,319,-0.280,-0.280,-0.280,0.000,0.000,0.000
1640053601541446912,"2021-12-21,02:26:41",10.1.1.2,0.37134599685668945,-0.280,-0.280,-0.280,0.000,0.000,0.000
1640053601867973120,"2021-12-21,02:26:41",10.1.1.2,325,-0.290,-0.290,-0.290,0.000,0.000,0.000
1640053601942344960,"2021-12-21,02:26:41",10.1.1.2,0.3994288444519043,-0.290,-0.290,-0.290,0.000,0.000,0.000
1640053602279165952,"2021-12-21,02:26:42",10.1.1.2,335,-0.300,-0.300,-0.300,0.000,0.000,0.000
1640053602338438144,"2021-12-21,02:26:42",10.1.1.2,0.3947010040283203,-0.300,-0.300,-0.300,0.000,0.000,0.000
1640053602681957888,"2021-12-21,02:26:42",10.1.1.2,340,-0.310,-0.310,-0.310,0.000,0.000,0.000
1640053602733037824,"2021-12-21,02:26:42",10.1.1.2,0.3925590515136719,-0.310,-0.310,-0.310,0.000,0.000,0.000
1640053603067533056,"2021-12-21,02:26:43",10.1.1.2,332,-0.320,-0.320,-0.320,0.000,0.000,0.000
1640053603121957120,"2021-12-21,02:26:43",10.1.1.2,0.3870818614959717,-0.320,-0.320,-0.320,0.000,0.000,0.000
1640053603448056832,"2021-12-21,02:26:43",10.1.1.2,324,-0.330,-0.330,-0.330,0.000,0.000,0.000
1640053603481175040,"2021-12-21,02:26:43",10.1.1.2,0.3578050136566162,-0.330,-0.330,-0.330,0.000,0.000,0.000
1640053603838006016,"2021-12-21,02:26:43",10.1.1.2,354,-0.340,-0.340,-0.340,0.000,0.000,0.000
1640053603862252032,"2021-12-21,02:26:43",10.1.1.2,0.3786509037017822,-0.340,-0.340,-0.340,0.000,0.000,0.000
1640053604190433024,"2021-12-21,02:26:44",10.1.1.2,326,-0.350,-0.350,-0.350,0.000,0.000,0.000
1640053604227368960,"2021-12-21,02:26:44",10.1.1.2,0.3635249137878418,-0.350,-0.350,-0.350,0.000,0.000,0.000
1640053604566693120,"2021-12-21,02:26:44",10.1.1.2,337,-0.360,-0.360,-0.360,0.000,0.000,0.000
1640053604617319936,"2021-12-21,02:26:44",10.1.1.2,0.3886129856109619,-0.360,-0.360,-0.360,0.000,0.000,0.000
1640053604947998976,"2021-12-21,02:26:44",10.1.1.2,329,-0.370,-0.370,-0.370,0.000,0.000,0.000
1640053605009881856,"2021-12-21,02:26:45",10.1.1.2,0.39104700088500977,-0.370,-0.370,-0.370,0.000,0.000,0.000
1640053605326201088,"2021-12-21,02:26:45",10.1.1.2,313,-0.380,-0.380,-0.380,0.000,0.000,0.000
1640053605378711040,"2021-12-21,02:26:45",10.1.1.2,0.36642003059387207,-0.380,-0.380,-0.380,0.000,0.000,0.000
1640053605706848000,"2021-12-21,02:26:45",10.1.1.2,325,-0.390,-0.390,-0.390,0.000,0.000,0.000
1640053605744453888,"2021-12-21,02:26:45",10.1.1.2,0.3631629943847656,-0.390,-0.390,-0.390,0.000,0.000,0.000
1640053606145245184,"2021-12-21,02:26:46",10.1.1.2,398,-0.400,-0.400,-0.400,0.000,0.000,0.000
1640053606194585088,"2021-12-21,02:26:46",10.1.1.2,0.4471900463104248,-0.400,-0.400,-0.400,0.000,0.000,0.000
1640053606536172032,"2021-12-21,02:26:46",10.1.1.2,338,-0.410,-0.410,-0.410,0.000,0.000,0.000
1640053606583560960,"2021-12-21,02:26:46",10.1.1.2,0.3863210678100586,-0.410,-0.410,-0.410,0.000,0.000,0.000
1640053606915378944,"2021-12-21,02:26:46",10.1.1.2,329,-0.420,-0.420,-0.420,0.000,0.000,0.000
1640053606988495104,"2021-12-21,02:26:46",10.1.1.2,0.40274882316589355,-0.420,-0.420,-0.420,0.000,0.000,0.000
1640053607315025920,"2021-12-21,02:26:47",10.1.1.2,323,-0.430,-0.430,-0.430,0.000,0.000,0.000
1640053607350452992,"2021-12-21,02:26:47",10.1.1.2,0.3597838878631592,-0.430,-0.430,-0.430,0.000,0.000,0.000
1640053607684796928,"2021-12-21,02:26:47",10.1.1.2,332,-0.440,-0.440,-0.440,0.000,0.000,0.000
1640053607711738112,"2021-12-21,02:26:47",10.1.1.2,0.3597378730773926,-0.440,-0.440,-0.440,0.000,0.000,0.000
1640053608042733056,"2021-12-21,02:26:48",10.1.1.2,329,-0.450,-0.450,-0.450,0.000,0.000,0.000
1640053608101948928,"2021-12-21,02:26:48",10.1.1.2,0.38840198516845703,-0.450,-0.450,-0.450,0.000,0.000,0.000
1640053608433012992,"2021-12-21,02:26:48",10.1.1.2,327,-0.460,-0.460,-0.460,0.000,0.000,0.000
1640053608462539008,"2021-12-21,02:26:48",10.1.1.2,0.3567819595336914,-0.460,-0.460,-0.460,0.000,0.000,0.000
1640053608805167872,"2021-12-21,02:26:48",10.1.1.2,341,-0.470,-0.470,-0.470,0.000,0.000,0.000
1640053608856517120,"2021-12-21,02:26:48",10.1.1.2,0.39258694648742676,-0.470,-0.470,-0.470,0.000,0.000,0.000
1640053609192903936,"2021-12-21,02:26:49",10.1.1.2,334,-0.480,-0.480,-0.480,0.000,0.000,0.000
1640053609240015104,"2021-12-21,02:26:49",10.1.1.2,0.38194799423217773,-0.480,-0.480,-0.480,0.000,0.000,0.000
1640053609571340032,"2021-12-21,02:26:49",10.1.1.2,329,-0.490,-0.490,-0.490,0.000,0.000,0.000
1640053609636367104,"2021-12-21,02:26:49",10.1.1.2,0.39499402046203613,-0.490,-0.490,-0.490,0.000,0.000,0.000
1640053609961880064,"2021-12-21,02:26:49",10.1.1.2,323,-0.480,-0.480,-0.480,0.000,0.000,0.000
1640053609989063936,"2021-12-21,02:26:49",10.1.1.2,0.35125112533569336,-0.480,-0.480,-0.480,0.000,0.000,0.000
1640053610300183040,"2021-12-21,02:26:50",10.1.1.2,309,-0.470,-0.470,-0.470,0.000,0.000,0.000
1640053610380492032,"2021-12-21,02:26:50",10.1.1.2,0.3898789882659912,-0.470,-0.470,-0.470,0.000,0.000,0.000
1640053610690124032,"2021-12-21,02:26:50",10.1.1.2,308,-0.460,-0.460,-0.460,0.000,0.000,0.000
1640053610767736832,"2021-12-21,02:26:50",10.1.1.2,0.38602209091186523,-0.460,-0.460,-0.460,0.000,0.000,0.000
1640053611049325056,"2021-12-21,02:26:51",10.1.1.2,280,-0.450,-0.450,-0.450,0.000,0.000,0.000
1640053611081253120,"2021-12-21,02:26:51",10.1.1.2,0.3123021125793457,-0.450,-0.450,-0.450,0.000,0.000,0.000
1640053611435585024,"2021-12-21,02:26:51",10.1.1.2,352,-0.440,-0.440,-0.440,0.000,0.000,0.000
1640053611437351936,"2021-12-21,02:26:51",10.1.1.2,0.3547639846801758,-0.440,-0.440,-0.440,0.000,0.000,0.000
1640053611778770944,"2021-12-21,02:26:51",10.1.1.2,338,-0.430,-0.430,-0.430,0.000,0.000,0.000
1640053611802743040,"2021-12-21,02:26:51",10.1.1.2,0.36257410049438477,-0.430,-0.430,-0.430,0.000,0.000,0.000
1640053612127936000,"2021-12-21,02:26:52",10.1.1.2,322,-0.420,-0.420,-0.420,0.000,0.000,0.000
1640053612159590912,"2021-12-21,02:26:52",10.1.1.2,0.35470008850097656,-0.420,-0.420,-0.420,0.000,0.000,0.000
1640053612496932864,"2021-12-21,02:26:52",10.1.1.2,335,-0.410,-0.410,-0.410,0.000,0.000,0.000
1640053612516592896,"2021-12-21,02:26:52",10.1.1.2,0.3548729419708252,-0.410,-0.410,-0.410,0.000,0.000,0.000
1640053612848894976,"2021-12-21,02:26:52",10.1.1.2,330,-0.400,-0.400,-0.400,0.000,0.000,0.000
1640053612872144896,"2021-12-21,02:26:52",10.1.1.2,0.3535280227661133,-0.400,-0.400,-0.400,0.000,0.000,0.000
1640053613238023168,"2021-12-21,02:26:53",10.1.1.2,356,-0.390,-0.390,-0.390,0.000,0.000,0.000
1640053613271443968,"2021-12-21,02:26:53",10.1.1.2,0.39076781272888184,-0.390,-0.390,-0.390,0.000,0.000,0.000
1640053613625894144,"2021-12-21,02:26:53",10.1.1.2,352,-0.380,-0.380,-0.380,0.000,0.000,0.000
1640053613676713984,"2021-12-21,02:26:53",10.1.1.2,0.40370917320251465,-0.380,-0.380,-0.380,0.000,0.000,0.000
1640053614015963904,"2021-12-21,02:26:54",10.1.1.2,337,-0.370,-0.370,-0.370,0.000,0.000,0.000
1640053614106868992,"2021-12-21,02:26:54",10.1.1.2,0.42813992500305176,-0.370,-0.370,-0.370,0.000,0.000,0.000
1640053614455996160,"2021-12-21,02:26:54",10.1.1.2,346,-0.360,-0.360,-0.360,0.000,0.000,0.000
1640053614502804992,"2021-12-21,02:26:54",10.1.1.2,0.3937859535217285,-0.360,-0.360,-0.360,0.000,0.000,0.000
1640053614814237184,"2021-12-21,02:26:54",10.1.1.2,309,-0.350,-0.350,-0.350,0.000,0.000,0.000
1640053614838283008,"2021-12-21,02:26:54",10.1.1.2,0.33394384384155273,-0.350,-0.350,-0.350,0.000,0.000,0.000
1640053614847803136,"2021-12-21,02:26:54",10.1.1.2,-1,-0.340,-0.340,-0.340,0.000,0.000,0.000
1640053615237723136,"2021-12-21,02:26:55",10.1.1.2,0.3927311897277832,-0.340,-0.340,-0.340,0.000,0.000,0.000
1640053615563281152,"2021-12-21,02:26:55",10.1.1.2,324,-0.330,-0.330,-0.330,0.000,0.000,0.000
1640053615599892992,"2021-12-21,02:26:55",10.1.1.2,0.36072492599487305,-0.330,-0.330,-0.330,0.000,0.000,0.000
1640053615923988992,"2021-12-21,02:26:55",10.1.1.2,322,-0.320,-0.320,-0.320,0.000,0.000,0.000
1640053616010200064,"2021-12-21,02:26:56",10.1.1.2,0.4087841510772705,-0.320,-0.320,-0.320,0.000,0.000,0.000
1640053616302061056,"2021-12-21,02:26:56",10.1.1.2,288,-0.310,-0.310,-0.310,0.000,0.000,0.000
1640053616334616832,"2021-12-21,02:26:56",10.1.1.2,0.3216099739074707,-0.310,-0.310,-0.310,0.000,0.000,0.000
1640053616704081920,"2021-12-21,02:26:56",10.1.1.2,366,-0.300,-0.300,-0.300,0.000,0.000,0.000
1640053616759421184,"2021-12-21,02:26:56",10.1.1.2,0.4233071804046631,-0.300,-0.300,-0.300,0.000,0.000,0.000
1640053617090609920,"2021-12-21,02:26:57",10.1.1.2,329,-0.290,-0.290,-0.290,0.000,0.000,0.000
1640053617136858880,"2021-12-21,02:26:57",10.1.1.2,0.37542200088500977,-0.290,-0.290,-0.290,0.000,0.000,0.000
1640053617479546112,"2021-12-21,02:26:57",10.1.1.2,340,-0.280,-0.280,-0.280,0.000,0.000,0.000
1640053617541946880,"2021-12-21,02:26:57",10.1.1.2,0.402738094329834,-0.280,-0.280,-0.280,0.000,0.000,0.000
1640053617879392000,"2021-12-21,02:26:57",10.1.1.2,335,-0.270,-0.270,-0.270,0.000,0.000,0.000
1640053617893601024,"2021-12-21,02:26:57",10.1.1.2,0.34963107109069824,-0.270,-0.270,-0.270,0.000,0.000,0.000
1640053618262706944,"2021-12-21,02:26:58",10.1.1.2,367,-0.260,-0.260,-0.260,0.000,0.000,0.000
1640053618296358144,"2021-12-21,02:26:58",10.1.1.2,0.40092897415161133,-0.260,-0.260,-0.260,0.000,0.000,0.000
1640053618641196032,"2021-12-21,02:26:58",10.1.1.2,343,-0.250,-0.250,-0.250,0.000,0.000,0.000
1640053618679933184,"2021-12-21,02:26:58",10.1.1.2,0.3821871280670166,-0.250,-0.250,-0.250,0.000,0.000,0.000
1640053618998179840,"2021-12-21,02:26:58",10.1.1.2,316,-0.240,-0.240,-0.240,0.000,0.000,0.000
1640053619037761024,"2021-12-21,02:26:59",10.1.1.2,0.35614705085754395,-0.240,-0.240,-0.240,0.000,0.000,0.000
1640053619378866944,"2021-12-21,02:26:59",10.1.1.2,339,-0.230,-0.230,-0.230,0.000,0.000,0.000
1640053619400121856,"2021-12-21,02:26:59",10.1.1.2,0.36022114753723145,-0.230,-0.230,-0.230,0.000,0.000,0.000
1640053619748601856,"2021-12-21,02:26:59",10.1.1.2,346,-0.220,-0.220,-0.220,0.000,0.000,0.000
1640053619799845888,"2021-12-21,02:26:59",10.1.1.2,0.39803385734558105,-0.220,-0.220,-0.220,0.000,0.000,0.000
1640053620157967104,"2021-12-21,02:27:00",10.1.1.2,356,-0.210,-0.210,-0.210,0.000,0.000,0.000
1640053620208177920,"2021-12-21,02:27:00",10.1.1.2,0.40694284439086914,-0.210,-0.210,-0.210,0.000,0.000,0.000
1640053620556078848,"2021-12-21,02:27:00",10.1.1.2,345,-0.200,-0.200,-0.200,0.000,0.000,0.000
1640053620602544896,"2021-12-21,02:27:00",10.1.1.2,0.3926219940185547,-0.200,-0.200,-0.200,0.000,0.000,0.000
1640053620955920896,"2021-12-21,02:27:00",10.1.1.2,351,-0.190,-0.190,-0.190,0.000,0.000,0.000
1640053620990305024,"2021-12-21,02:27:00",10.1.1.2,0.38599395751953125,-0.190,-0.190,-0.190,0.000,0.000,0.000
1640053621337575936,"2021-12-21,02:27:01",10.1.1.2,345,-0.180,-0.180,-0.180,0.000,0.000,0.000
1640053621379201024,"2021-12-21,02:27:01",10.1.1.2,0.38724207878112793,-0.180,-0.180,-0.180,0.000,0.000,0.000
1640053621718774016,"2021-12-21,02:27:01",10.1.1.2,336,-0.170,-0.170,-0.170,0.000,0.000,0.000
1640053621743066112,"2021-12-21,02:27:01",10.1.1.2,0.3610868453979492,-0.170,-0.170,-0.170,0.000,0.000,0.000
1640053622060744960,"2021-12-21,02:27:02",10.1.1.2,316,-0.160,-0.160,-0.160,0.000,0.000,0.000
1640053622132591104,"2021-12-21,02:27:02",10.1.1.2,0.38814496994018555,-0.160,-0.160,-0.160,0.000,0.000,0.000
1640053622451584000,"2021-12-21,02:27:02",10.1.1.2,317,-0.150,-0.150,-0.150,0.000,0.000,0.000
1640053622493502976,"2021-12-21,02:27:02",10.1.1.2,0.35950803756713867,-0.150,-0.150,-0.150,0.000,0.000,0.000
1640053622833907968,"2021-12-21,02:27:02",10.1.1.2,338,-0.140,-0.140,-0.140,0.000,0.000,0.000
1640053622850251008,"2021-12-21,02:27:02",10.1.1.2,0.35515403747558594,-0.140,-0.140,-0.140,0.000,0.000,0.000
1640053623220387840,"2021-12-21,02:27:03",10.1.1.2,366,-0.130,-0.130,-0.130,0.000,0.000,0.000
1640053623313408000,"2021-12-21,02:27:03",10.1.1.2,0.45948314666748047,-0.130,-0.130,-0.130,0.000,0.000,0.000
1640053623658072832,"2021-12-21,02:27:03",10.1.1.2,342,-0.120,-0.120,-0.120,0.000,0.000,0.000
1640053623711294976,"2021-12-21,02:27:03",10.1.1.2,0.3955531120300293,-0.120,-0.120,-0.120,0.000,0.000,0.000
1640053624038459136,"2021-12-21,02:27:04",10.1.1.2,325,-0.110,-0.110,-0.110,0.000,0.000,0.000
1640053624105755136,"2021-12-21,02:27:04",10.1.1.2,0.39254188537597656,-0.110,-0.110,-0.110,0.000,0.000,0.000
1640053624442110976,"2021-12-21,02:27:04",10.1.1.2,334,-0.100,-0.100,-0.100,0.000,0.000,0.000
1640053624501262848,"2021-12-21,02:27:04",10.1.1.2,0.39400410652160645,-0.100,-0.100,-0.100,0.000,0.000,0.000
1640053624842106112,"2021-12-21,02:27:04",10.1.1.2,339,-0.090,-0.090,-0.090,0.000,0.000,0.000
1640053624890904832,"2021-12-21,02:27:04",10.1.1.2,0.3883030414581299,-0.090,-0.090,-0.090,0.000,0.000,0.000
1640053625221852928,"2021-12-21,02:27:05",10.1.1.2,326,-0.080,-0.080,-0.080,0.000,0.000,0.000
1640053625283653120,"2021-12-21,02:27:05",10.1.1.2,0.3885800838470459,-0.080,-0.080,-0.080,0.000,0.000,0.000
1640053625603454208,"2021-12-21,02:27:05",10.1.1.2,316,-0.070,-0.070,-0.070,0.000,0.000,0.000
1640053625678865920,"2021-12-21,02:27:05",10.1.1.2,0.3925209045410156,-0.070,-0.070,-0.070,0.000,0.000,0.000
1640053626014091008,"2021-12-21,02:27:06",10.1.1.2,333,-0.060,-0.060,-0.060,0.000,0.000,0.000
1640053626067864064,"2021-12-21,02:27:06",10.1.1.2,0.38753294944763184,-0.060,-0.060,-0.060,0.000,0.000,0.000
1640053626438653952,"2021-12-21,02:27:06",10.1.1.2,368,-0.050,-0.050,-0.050,0.000,0.000,0.000
1640053626466041088,"2021-12-21,02:27:06",10.1.1.2,0.39678287506103516,-0.050,-0.050,-0.050,0.000,0.000,0.000
1640053626806077952,"2021-12-21,02:27:06",10.1.1.2,338,-0.040,-0.040,-0.040,0.000,0.000,0.000
1640053626828232960,"2021-12-21,02:27:06",10.1.1.2,0.3605191707611084,-0.040,-0.040,-0.040,0.000,0.000,0.000
1640053627136305152,"2021-12-21,02:27:07",10.1.1.2,304,-0.030,-0.030,-0.030,0.000,0.000,0.000
1640053627164081152,"2021-12-21,02:27:07",10.1.1.2,0.3326761722564697,-0.030,-0.030,-0.030,0.000,0.000,0.000
1640053627480567040,"2021-12-21,02:27:07",10.1.1.2,314,-0.020,-0.020,-0.020,0.000,0.000,0.000
1640053627504604928,"2021-12-21,02:27:07",10.1.1.2,0.33815503120422363,-0.020,-0.020,-0.020,0.000,0.000,0.000
1640053627817441024,"2021-12-21,02:27:07",10.1.1.2,310,-0.010,-0.010,-0.010,0.000,0.000,0.000
1640053627857629952,"2021-12-21,02:27:07",10.1.1.2,0.3505840301513672,-0.010,-0.010,-0.010,0.000,0.000,0.000
1640053628217169152,"2021-12-21,02:27:08",10.1.1.2,357,0.000,0.000,0.000,0.000,0.000,0.000
1640053628250664960,"2021-12-21,02:27:08",10.1.1.2,0.3911929130554199,0.000,0.000,0.000,0.000,0.000,0.000
1640053628588856832,"2021-12-21,02:27:08",10.1.1.2,336,-0.010,-0.010,-0.010,0.000,0.000,0.000
1640053628615782912,"2021-12-21,02:27:08",10.1.1.2,0.36353111267089844,-0.010,-0.010,-0.010,0.000,0.000,0.000
1640053628981560832,"2021-12-21,02:27:08",10.1.1.2,360,-0.020,-0.020,-0.020,0.000,0.000,0.000
1640053629060583168,"2021-12-21,02:27:09",10.1.1.2,0.43986010551452637,-0.020,-0.020,-0.020,0.000,0.000,0.000
1640053629368691968,"2021-12-21,02:27:09",10.1.1.2,304,-0.030,-0.030,-0.030,0.000,0.000,0.000
1640053629463855104,"2021-12-21,02:27:09",10.1.1.2,0.3997671604156494,-0.030,-0.030,-0.030,0.000,0.000,0.000
1640053629769701120,"2021-12-21,02:27:09",10.1.1.2,304,-0.040,-0.040,-0.040,0.000,0.000,0.000
1640053629819966976,"2021-12-21,02:27:09",10.1.1.2,0.3547348976135254,-0.040,-0.040,-0.040,0.000,0.000,0.000
1640053630129595136,"2021-12-21,02:27:10",10.1.1.2,308,-0.050,-0.050,-0.050,0.000,0.000,0.000
1640053630215661056,"2021-12-21,02:27:10",10.1.1.2,0.3943290710449219,-0.050,-0.050,-0.050,0.000,0.000,0.000
1640053630550487040,"2021-12-21,02:27:10",10.1.1.2,333,-0.060,-0.060,-0.060,0.000,0.000,0.000
1640053630606599168,"2021-12-21,02:27:10",10.1.1.2,0.38939905166625977,-0.060,-0.060,-0.060,0.000,0.000,0.000
1640053630928941056,"2021-12-21,02:27:10",10.1.1.2,320,-0.070,-0.070,-0.070,0.000,0.000,0.000
1640053630941476096,"2021-12-21,02:27:10",10.1.1.2,0.33354783058166504,-0.070,-0.070,-0.070,0.000,0.000,0.000
1640053631228683008,"2021-12-21,02:27:11",10.1.1.2,285,-0.080,-0.080,-0.080,0.000,0.000,0.000
1640053631252526080,"2021-12-21,02:27:11",10.1.1.2,0.309603214263916,-0.080,-0.080,-0.080,0.000,0.000,0.000
1640053631529468928,"2021-12-21,02:27:11",10.1.1.2,275,-0.090,-0.090,-0.090,0.000,0.000,0.000
1640053631569065984,"2021-12-21,02:27:11",10.1.1.2,0.3153350353240967,-0.090,-0.090,-0.090,0.000,0.000,0.000
1640053631871019008,"2021-12-21,02:27:11",10.1.1.2,299,-0.100,-0.100,-0.100,0.000,0.000,0.000
1640053631899002112,"2021-12-21,02:27:11",10.1.1.2,0.32781219482421875,-0.100,-0.100,-0.100,0.000,0.000,0.000
1640053632208937984,"2021-12-21,02:27:12",10.1.1.2,308,-0.110,-0.110,-0.110,0.000,0.000,0.000
1640053632245732096,"2021-12-21,02:27:12",10.1.1.2,0.34544897079467773,-0.110,-0.110,-0.110,0.000,0.000,0.000
1640053632531034880,"2021-12-21,02:27:12",10.1.1.2,283,-0.120,-0.120,-0.120,0.000,0.000,0.000
1640053632589274880,"2021-12-21,02:27:12",10.1.1.2,0.3422219753265381,-0.120,-0.120,-0.120,0.000,0.000,0.000
1640053632889652992,"2021-12-21,02:27:12",10.1.1.2,298,-0.130,-0.130,-0.130,0.000,0.000,0.000
1640053632916220928,"2021-12-21,02:27:12",10.1.1.2,0.32550597190856934,-0.130,-0.130,-0.130,0.000,0.000,0.000
1640053633210077952,"2021-12-21,02:27:13",10.1.1.2,292,-0.140,-0.140,-0.140,0.000,0.000,0.000
1640053633228092928,"2021-12-21,02:27:13",10.1.1.2,0.3106658458709717,-0.140,-0.140,-0.140,0.000,0.000,0.000
1640053633530528000,"2021-12-21,02:27:13",10.1.1.2,300,-0.150,-0.150,-0.150,0.000,0.000,0.000
1640053633545842944,"2021-12-21,02:27:13",10.1.1.2,0.3161740303039551,-0.150,-0.150,-0.150,0.000,0.000,0.000
1640053633829993984,"2021-12-21,02:27:13",10.1.1.2,282,-0.160,-0.160,-0.160,0.000,0.000,0.000
1640053633862267136,"2021-12-21,02:27:13",10.1.1.2,0.31516098976135254,-0.160,-0.160,-0.160,0.000,0.000,0.000
1640053634148431104,"2021-12-21,02:27:14",10.1.1.2,284,-0.170,-0.170,-0.170,0.000,0.000,0.000
1640053634181382912,"2021-12-21,02:27:14",10.1.1.2,0.3173551559448242,-0.170,-0.170,-0.170,0.000,0.000,0.000
1640053634459202048,"2021-12-21,02:27:14",10.1.1.2,276,-0.180,-0.180,-0.180,0.000,0.000,0.000
1640053634491538944,"2021-12-21,02:27:14",10.1.1.2,0.3089151382446289,-0.180,-0.180,-0.180,0.000,0.000,0.000
1640053634804193024,"2021-12-21,02:27:14",10.1.1.2,0.31139683723449707,-0.190,-0.190,-0.190,0.000,0.000,0.000
1640053635090477824,"2021-12-21,02:27:15",10.1.1.2,283,-0.200,-0.200,-0.200,0.000,0.000,0.000
1640053635128160000,"2021-12-21,02:27:15",10.1.1.2,0.32207202911376953,-0.200,-0.200,-0.200,0.000,0.000,0.000
1640053635429487872,"2021-12-21,02:27:15",10.1.1.2,299,-0.210,-0.210,-0.210,0.000,0.000,0.000
1640053635438945024,"2021-12-21,02:27:15",10.1.1.2,0.3093421459197998,-0.210,-0.210,-0.210,0.000,0.000,0.000
1640053635728089088,"2021-12-21,02:27:15",10.1.1.2,286,-0.220,-0.220,-0.220,0.000,0.000,0.000
1640053635763016960,"2021-12-21,02:27:15",10.1.1.2,0.32206201553344727,-0.220,-0.220,-0.220,0.000,0.000,0.000
1640053636049408000,"2021-12-21,02:27:16",10.1.1.2,284,-0.230,-0.230,-0.230,0.000,0.000,0.000
1640053636109283840,"2021-12-21,02:27:16",10.1.1.2,0.3447721004486084,-0.230,-0.230,-0.230,0.000,0.000,0.000
1640053636428406016,"2021-12-21,02:27:16",10.1.1.2,317,-0.240,-0.240,-0.240,0.000,0.000,0.000
1640053636495207168,"2021-12-21,02:27:16",10.1.1.2,0.38460302352905273,-0.240,-0.240,-0.240,0.000,0.000,0.000
1640053636838814976,"2021-12-21,02:27:16",10.1.1.2,341,-0.250,-0.250,-0.250,0.000,0.000,0.000
1640053636883985152,"2021-12-21,02:27:16",10.1.1.2,0.38681888580322266,-0.250,-0.250,-0.250,0.000,0.000,0.000
1640053637218209024,"2021-12-21,02:27:17",10.1.1.2,332,-0.260,-0.260,-0.260,0.000,0.000,0.000
1640053637276519168,"2021-12-21,02:27:17",10.1.1.2,0.39101600646972656,-0.260,-0.260,-0.260,0.000,0.000,0.000
1640053637637136896,"2021-12-21,02:27:17",10.1.1.2,358,-0.270,-0.270,-0.270,0.000,0.000,0.000
1640053637670221056,"2021-12-21,02:27:17",10.1.1.2,0.3916301727294922,-0.270,-0.270,-0.270,0.000,0.000,0.000
1640053638028253952,"2021-12-21,02:27:18",10.1.1.2,356,-0.280,-0.280,-0.280,0.000,0.000,0.000
1640053638060318976,"2021-12-21,02:27:18",10.1.1.2,0.3886420726776123,-0.280,-0.280,-0.280,0.000,0.000,0.000
1640053638366636032,"2021-12-21,02:27:18",10.1.1.2,304,-0.290,-0.290,-0.290,0.000,0.000,0.000
1640053638453897984,"2021-12-21,02:27:18",10.1.1.2,0.3921961784362793,-0.290,-0.290,-0.290,0.000,0.000,0.000
1640053638808392960,"2021-12-21,02:27:18",10.1.1.2,352,-0.300,-0.300,-0.300,0.000,0.000,0.000
1640053638856790016,"2021-12-21,02:27:18",10.1.1.2,0.4007580280303955,-0.300,-0.300,-0.300,0.000,0.000,0.000
1640053639197093120,"2021-12-21,02:27:19",10.1.1.2,338,-0.310,-0.310,-0.310,0.000,0.000,0.000
1640053639276741120,"2021-12-21,02:27:19",10.1.1.2,0.4180130958557129,-0.310,-0.310,-0.310,0.000,0.000,0.000
1640053639626002944,"2021-12-21,02:27:19",10.1.1.2,347,-0.320,-0.320,-0.320,0.000,0.000,0.000
1640053639660716032,"2021-12-21,02:27:19",10.1.1.2,0.38242316246032715,-0.320,-0.320,-0.320,0.000,0.000,0.000
1640053640010287104,"2021-12-21,02:27:20",10.1.1.2,347,-0.330,-0.330,-0.330,0.000,0.000,0.000
1640053640082379008,"2021-12-21,02:27:20",10.1.1.2,0.4201991558074951,-0.330,-0.330,-0.330,0.000,0.000,0.000
1640053640364090880,"2021-12-21,02:27:20",10.1.1.2,280,-0.340,-0.340,-0.340,0.000,0.000,0.000
1640053640426659072,"2021-12-21,02:27:20",10.1.1.2,0.3428950309753418,-0.340,-0.340,-0.340,0.000,0.000,0.000
1640053640765280000,"2021-12-21,02:27:20",10.1.1.2,334,-0.350,-0.350,-0.350,0.000,0.000,0.000
1640053640814519040,"2021-12-21,02:27:20",10.1.1.2,0.3839590549468994,-0.350,-0.350,-0.350,0.000,0.000,0.000
1640053641174546944,"2021-12-21,02:27:21",10.1.1.2,357,-0.360,-0.360,-0.360,0.000,0.000,0.000
1640053641227879936,"2021-12-21,02:27:21",10.1.1.2,0.4113759994506836,-0.360,-0.360,-0.360,0.000,0.000,0.000
1640053641554279168,"2021-12-21,02:27:21",10.1.1.2,313,-0.370,-0.370,-0.370,0.000,0.000,0.000
1640053641625925120,"2021-12-21,02:27:21",10.1.1.2,0.38597989082336426,-0.370,-0.370,-0.370,0.000,0.000,0.000
1640053641953540096,"2021-12-21,02:27:21",10.1.1.2,325,-0.380,-0.380,-0.380,0.000,0.000,0.000
1640053641980736000,"2021-12-21,02:27:21",10.1.1.2,0.35303282737731934,-0.380,-0.380,-0.380,0.000,0.000,0.000
1640053642321842944,"2021-12-21,02:27:22",10.1.1.2,339,-0.390,-0.390,-0.390,0.000,0.000,0.000
1640053642390230784,"2021-12-21,02:27:22",10.1.1.2,0.4077451229095459,-0.390,-0.390,-0.390,0.000,0.000,0.000
1640053642704518144,"2021-12-21,02:27:22",10.1.1.2,312,-0.400,-0.400,-0.400,0.000,0.000,0.000
1640053642733340928,"2021-12-21,02:27:22",10.1.1.2,0.3412959575653076,-0.400,-0.400,-0.400,0.000,0.000,0.000
1640053643031896064,"2021-12-21,02:27:23",10.1.1.2,297,-0.410,-0.410,-0.410,0.000,0.000,0.000
1640053643067291136,"2021-12-21,02:27:23",10.1.1.2,0.3326079845428467,-0.410,-0.410,-0.410,0.000,0.000,0.000
1640053643400932096,"2021-12-21,02:27:23",10.1.1.2,332,-0.420,-0.420,-0.420,0.000,0.000,0.000
1640053643417622016,"2021-12-21,02:27:23",10.1.1.2,0.34906601905822754,-0.420,-0.420,-0.420,0.000,0.000,0.000
1640053643699546112,"2021-12-21,02:27:23",10.1.1.2,280,-0.430,-0.430,-0.430,0.000,0.000,0.000
1640053643731222016,"2021-12-21,02:27:23",10.1.1.2,0.3122589588165283,-0.430,-0.430,-0.430,0.000,0.000,0.000
1640053644010659072,"2021-12-21,02:27:24",10.1.1.2,275,-0.440,-0.440,-0.440,0.000,0.000,0.000
1640053644064660992,"2021-12-21,02:27:24",10.1.1.2,0.32939696311950684,-0.440,-0.440,-0.440,0.000,0.000,0.000
1640053644418600960,"2021-12-21,02:27:24",10.1.1.2,352,-0.450,-0.450,-0.450,0.000,0.000,0.000
1640053644486171904,"2021-12-21,02:27:24",10.1.1.2,0.4201540946960449,-0.450,-0.450,-0.450,0.000,0.000,0.000
1640053644829160960,"2021-12-21,02:27:24",10.1.1.2,340,-0.460,-0.460,-0.460,0.000,0.000,0.000
1640053644878338048,"2021-12-21,02:27:24",10.1.1.2,0.3903930187225342,-0.460,-0.460,-0.460,0.000,0.000,0.000
1640053645218195968,"2021-12-21,02:27:25",10.1.1.2,338,-0.470,-0.470,-0.470,0.000,0.000,0.000
1640053645299310848,"2021-12-21,02:27:25",10.1.1.2,0.4192941188812256,-0.470,-0.470,-0.470,0.000,0.000,0.000
1640053645613053184,"2021-12-21,02:27:25",10.1.1.2,312,-0.480,-0.480,-0.480,0.000,0.000,0.000
1640053645686630912,"2021-12-21,02:27:25",10.1.1.2,0.3854959011077881,-0.480,-0.480,-0.480,0.000,0.000,0.000
1640053645997477120,"2021-12-21,02:27:25",10.1.1.2,308,-0.490,-0.490,-0.490,0.000,0.000,0.000
1640053646038872064,"2021-12-21,02:27:26",10.1.1.2,0.34987306594848633,-0.490,-0.490,-0.490,0.000,0.000,0.000
1640053646398217984,"2021-12-21,02:27:26",10.1.1.2,357,-0.480,-0.480,-0.480,0.000,0.000,0.000
1640053646441600000,"2021-12-21,02:27:26",10.1.1.2,0.40128397941589355,-0.480,-0.480,-0.480,0.000,0.000,0.000
1640053646797921024,"2021-12-21,02:27:26",10.1.1.2,354,-0.470,-0.470,-0.470,0.000,0.000,0.000
1640053646843944960,"2021-12-21,02:27:26",10.1.1.2,0.40091514587402344,-0.470,-0.470,-0.470,0.000,0.000,0.000
1640053647176920064,"2021-12-21,02:27:27",10.1.1.2,331,-0.460,-0.460,-0.460,0.000,0.000,0.000
1640053647256109056,"2021-12-21,02:27:27",10.1.1.2,0.41071605682373047,-0.460,-0.460,-0.460,0.000,0.000,0.000
1640053647594461952,"2021-12-21,02:27:27",10.1.1.2,336,-0.450,-0.450,-0.450,0.000,0.000,0.000
1640053647676450048,"2021-12-21,02:27:27",10.1.1.2,0.41843199729919434,-0.450,-0.450,-0.450,0.000,0.000,0.000
1640053648035145984,"2021-12-21,02:27:28",10.1.1.2,356,-0.440,-0.440,-0.440,0.000,0.000,0.000
1640053648064888832,"2021-12-21,02:27:28",10.1.1.2,0.38691091537475586,-0.440,-0.440,-0.440,0.000,0.000,0.000
1640053648384372992,"2021-12-21,02:27:28",10.1.1.2,317,-0.430,-0.430,-0.430,0.000,0.000,0.000
1640053648433542912,"2021-12-21,02:27:28",10.1.1.2,0.3671689033508301,-0.430,-0.430,-0.430,0.000,0.000,0.000
1640053648800685056,"2021-12-21,02:27:28",10.1.1.2,365,-0.420,-0.420,-0.420,0.000,0.000,0.000
1640053648845952000,"2021-12-21,02:27:28",10.1.1.2,0.41088294982910156,-0.420,-0.420,-0.420,0.000,0.000,0.000
1640053649162433024,"2021-12-21,02:27:29",10.1.1.2,315,-0.410,-0.410,-0.410,0.000,0.000,0.000
1640053649239599872,"2021-12-21,02:27:29",10.1.1.2,0.39206385612487793,-0.410,-0.410,-0.410,0.000,0.000,0.000
1640053649574612992,"2021-12-21,02:27:29",10.1.1.2,332,-0.400,-0.400,-0.400,0.000,0.000,0.000
1640053649629612800,"2021-12-21,02:27:29",10.1.1.2,0.3876049518585205,-0.400,-0.400,-0.400,0.000,0.000,0.000
1640053649972203008,"2021-12-21,02:27:29",10.1.1.2,339,-0.390,-0.390,-0.390,0.000,0.000,0.000
1640053650021837824,"2021-12-21,02:27:30",10.1.1.2,0.3906829357147217,-0.390,-0.390,-0.390,0.000,0.000,0.000
1640053650360832000,"2021-12-21,02:27:30",10.1.1.2,336,-0.380,-0.380,-0.380,0.000,0.000,0.000
1640053650477256960,"2021-12-21,02:27:30",10.1.1.2,0.45282506942749023,-0.380,-0.380,-0.380,0.000,0.000,0.000
1640053650811047936,"2021-12-21,02:27:30",10.1.1.2,331,-0.370,-0.370,-0.370,0.000,0.000,0.000
1640053650865881088,"2021-12-21,02:27:30",10.1.1.2,0.3865799903869629,-0.370,-0.370,-0.370,0.000,0.000,0.000
1640053651201758976,"2021-12-21,02:27:31",10.1.1.2,330,-0.360,-0.360,-0.360,0.000,0.000,0.000
1640053651252813056,"2021-12-21,02:27:31",10.1.1.2,0.3833599090576172,-0.360,-0.360,-0.360,0.000,0.000,0.000
1640053651609188096,"2021-12-21,02:27:31",10.1.1.2,353,-0.350,-0.350,-0.350,0.000,0.000,0.000
1640053651647169024,"2021-12-21,02:27:31",10.1.1.2,0.3918449878692627,-0.350,-0.350,-0.350,0.000,0.000,0.000
1640053651988723968,"2021-12-21,02:27:31",10.1.1.2,339,-0.340,-0.340,-0.340,0.000,0.000,0.000
1640053652039011840,"2021-12-21,02:27:32",10.1.1.2,0.3903779983520508,-0.340,-0.340,-0.340,0.000,0.000,0.000
1640053652357050880,"2021-12-21,02:27:32",10.1.1.2,316,-0.330,-0.330,-0.330,0.000,0.000,0.000
1640053652438072064,"2021-12-21,02:27:32",10.1.1.2,0.39731597900390625,-0.330,-0.330,-0.330,0.000,0.000,0.000
1640053652801426944,"2021-12-21,02:27:32",10.1.1.2,361,-0.320,-0.320,-0.320,0.000,0.000,0.000
1640053652831662848,"2021-12-21,02:27:32",10.1.1.2,0.39205408096313477,-0.320,-0.320,-0.320,0.000,0.000,0.000
1640053653167289856,"2021-12-21,02:27:33",10.1.1.2,333,-0.310,-0.310,-0.310,0.000,0.000,0.000
1640053653257165056,"2021-12-21,02:27:33",10.1.1.2,0.42342495918273926,-0.310,-0.310,-0.310,0.000,0.000,0.000
1640053653594780928,"2021-12-21,02:27:33",10.1.1.2,335,-0.300,-0.300,-0.300,0.000,0.000,0.000
1640053653618731008,"2021-12-21,02:27:33",10.1.1.2,0.3600289821624756,-0.300,-0.300,-0.300,0.000,0.000,0.000
1640053653924904960,"2021-12-21,02:27:33",10.1.1.2,303,-0.290,-0.290,-0.290,0.000,0.000,0.000
1640053654028937216,"2021-12-21,02:27:34",10.1.1.2,0.4081900119781494,-0.290,-0.290,-0.290,0.000,0.000,0.000
1640053654316282112,"2021-12-21,02:27:34",10.1.1.2,285,-0.280,-0.280,-0.280,0.000,0.000,0.000
1640053654375159040,"2021-12-21,02:27:34",10.1.1.2,0.34417009353637695,-0.280,-0.280,-0.280,0.000,0.000,0.000
1640053654679074048,"2021-12-21,02:27:34",10.1.1.2,300,-0.270,-0.270,-0.270,0.000,0.000,0.000
1640053654752336128,"2021-12-21,02:27:34",10.1.1.2,0.3739018440246582,-0.270,-0.270,-0.270,0.000,0.000,0.000
1640053655079806208,"2021-12-21,02:27:35",10.1.1.2,325,-0.260,-0.260,-0.260,0.000,0.000,0.000
1640053655134327040,"2021-12-21,02:27:35",10.1.1.2,0.37983012199401855,-0.260,-0.260,-0.260,0.000,0.000,0.000
1640053655441870080,"2021-12-21,02:27:35",10.1.1.2,306,-0.250,-0.250,-0.250,0.000,0.000,0.000
1640053655483835904,"2021-12-21,02:27:35",10.1.1.2,0.348160982131958,-0.250,-0.250,-0.250,0.000,0.000,0.000
1640053655813078016,"2021-12-21,02:27:35",10.1.1.2,327,-0.240,-0.240,-0.240,0.000,0.000,0.000
1640053655899715072,"2021-12-21,02:27:35",10.1.1.2,0.41447901725769043,-0.240,-0.240,-0.240,0.000,0.000,0.000
1640053656255686912,"2021-12-21,02:27:36",10.1.1.2,354,-0.230,-0.230,-0.230,0.000,0.000,0.000
1640053656292382976,"2021-12-21,02:27:36",10.1.1.2,0.3894979953765869,-0.230,-0.230,-0.230,0.000,0.000,0.000
1640053656616065024,"2021-12-21,02:27:36",10.1.1.2,322,-0.220,-0.220,-0.220,0.000,0.000,0.000
1640053656649907968,"2021-12-21,02:27:36",10.1.1.2,0.3560960292816162,-0.220,-0.220,-0.220,0.000,0.000,0.000
1640053657009315072,"2021-12-21,02:27:37",10.1.1.2,357,-0.210,-0.210,-0.210,0.000,0.000,0.000
1640053657119059200,"2021-12-21,02:27:37",10.1.1.2,0.46761202812194824,-0.210,-0.210,-0.210,0.000,0.000,0.000
1640053657438978048,"2021-12-21,02:27:37",10.1.1.2,318,-0.200,-0.200,-0.200,0.000,0.000,0.000
1640053657507021824,"2021-12-21,02:27:37",10.1.1.2,0.38648200035095215,-0.200,-0.200,-0.200,0.000,0.000,0.000
1640053657810129920,"2021-12-21,02:27:37",10.1.1.2,301,-0.190,-0.190,-0.190,0.000,0.000,0.000
1640053657857701120,"2021-12-21,02:27:37",10.1.1.2,0.3490409851074219,-0.190,-0.190,-0.190,0.000,0.000,0.000
1640053658181682176,"2021-12-21,02:27:38",10.1.1.2,321,-0.180,-0.180,-0.180,0.000,0.000,0.000
1640053658251741952,"2021-12-21,02:27:38",10.1.1.2,0.3922550678253174,-0.180,-0.180,-0.180,0.000,0.000,0.000
1640053658564804096,"2021-12-21,02:27:38",10.1.1.2,311,-0.170,-0.170,-0.170,0.000,0.000,0.000
1640053658640187904,"2021-12-21,02:27:38",10.1.1.2,0.3869960308074951,-0.170,-0.170,-0.170,0.000,0.000,0.000
1640053658973489920,"2021-12-21,02:27:38",10.1.1.2,325,-0.160,-0.160,-0.160,0.000,0.000,0.000
1640053659048294144,"2021-12-21,02:27:39",10.1.1.2,0.4064970016479492,-0.160,-0.160,-0.160,0.000,0.000,0.000
1640053659334163968,"2021-12-21,02:27:39",10.1.1.2,283,-0.150,-0.150,-0.150,0.000,0.000,0.000
1640053659403592192,"2021-12-21,02:27:39",10.1.1.2,0.353240966796875,-0.150,-0.150,-0.150,0.000,0.000,0.000
1640053659706490112,"2021-12-21,02:27:39",10.1.1.2,300,-0.140,-0.140,-0.140,0.000,0.000,0.000
1640053659756318976,"2021-12-21,02:27:39",10.1.1.2,0.35091614723205566,-0.140,-0.140,-0.140,0.000,0.000,0.000
1640053660087276032,"2021-12-21,02:27:40",10.1.1.2,329,-0.130,-0.130,-0.130,0.000,0.000,0.000
1640053660109533952,"2021-12-21,02:27:40",10.1.1.2,0.35155200958251953,-0.130,-0.130,-0.130,0.000,0.000,0.000
1640053660415503872,"2021-12-21,02:27:40",10.1.1.2,303,-0.120,-0.120,-0.120,0.000,0.000,0.000
1640053660492253952,"2021-12-21,02:27:40",10.1.1.2,0.38085222244262695,-0.120,-0.120,-0.120,0.000,0.000,0.000
1640053660827449088,"2021-12-21,02:27:40",10.1.1.2,333,-0.110,-0.110,-0.110,0.000,0.000,0.000
1640053660879315968,"2021-12-21,02:27:40",10.1.1.2,0.3857541084289551,-0.110,-0.110,-0.110,0.000,0.000,0.000
1640053661176357888,"2021-12-21,02:27:41",10.1.1.2,295,-0.100,-0.100,-0.100,0.000,0.000,0.000
1640053661202769920,"2021-12-21,02:27:41",10.1.1.2,0.3221092224121094,-0.100,-0.100,-0.100,0.000,0.000,0.000
1640053661506668032,"2021-12-21,02:27:41",10.1.1.2,302,-0.090,-0.090,-0.090,0.000,0.000,0.000
1640053661533835776,"2021-12-21,02:27:41",10.1.1.2,0.32961606979370117,-0.090,-0.090,-0.090,0.000,0.000,0.000
1640053661818032896,"2021-12-21,02:27:41",10.1.1.2,282,-0.080,-0.080,-0.080,0.000,0.000,0.000
1640053661857483008,"2021-12-21,02:27:41",10.1.1.2,0.3223090171813965,-0.080,-0.080,-0.080,0.000,0.000,0.000
1640053662137384960,"2021-12-21,02:27:42",10.1.1.2,277,-0.070,-0.070,-0.070,0.000,0.000,0.000
1640053662171735040,"2021-12-21,02:27:42",10.1.1.2,0.31192493438720703,-0.070,-0.070,-0.070,0.000,0.000,0.000
1640053662492072192,"2021-12-21,02:27:42",10.1.1.2,316,-0.060,-0.060,-0.060,0.000,0.000,0.000
1640053662524656128,"2021-12-21,02:27:42",10.1.1.2,0.349027156829834,-0.060,-0.060,-0.060,0.000,0.000,0.000
1640053662878654976,"2021-12-21,02:27:42",10.1.1.2,349,-0.050,-0.050,-0.050,0.000,0.000,0.000
1640053662956924928,"2021-12-21,02:27:42",10.1.1.2,0.4275078773498535,-0.050,-0.050,-0.050,0.000,0.000,0.000
1640053663308378880,"2021-12-21,02:27:43",10.1.1.2,348,-0.040,-0.040,-0.040,0.000,0.000,0.000
1640053663353188096,"2021-12-21,02:27:43",10.1.1.2,0.39388203620910645,-0.040,-0.040,-0.040,0.000,0.000,0.000
1640053663689122816,"2021-12-21,02:27:43",10.1.1.2,333,-0.030,-0.030,-0.030,0.000,0.000,0.000
1640053663749880064,"2021-12-21,02:27:43",10.1.1.2,0.39469003677368164,-0.030,-0.030,-0.030,0.000,0.000,0.000
1640053664053073920,"2021-12-21,02:27:44",10.1.1.2,300,-0.020,-0.020,-0.020,0.000,0.000,0.000
1640053664115362816,"2021-12-21,02:27:44",10.1.1.2,0.3633270263671875,-0.020,-0.020,-0.020,0.000,0.000,0.000
1640053664429383936,"2021-12-21,02:27:44",10.1.1.2,312,-0.010,-0.010,-0.010,0.000,0.000,0.000
1640053664506448128,"2021-12-21,02:27:44",10.1.1.2,0.389477014541626,-0.010,-0.010,-0.010,0.000,0.000,0.000
1640053664818614016,"2021-12-21,02:27:44",10.1.1.2,309,0.000,0.000,0.000,0.000,0.000,0.000
1640053664870217984,"2021-12-21,02:27:44",10.1.1.2,0.36142706871032715,0.000,0.000,0.000,0.000,0.000,0.000
1640053665189080832,"2021-12-21,02:27:45",10.1.1.2,315,-0.010,-0.010,-0.010,0.000,0.000,0.000
1640053665216815104,"2021-12-21,02:27:45",10.1.1.2,0.34328699111938477,-0.010,-0.010,-0.010,0.000,0.000,0.000
1640053665530010880,"2021-12-21,02:27:45",10.1.1.2,311,-0.020,-0.020,-0.020,0.000,0.000,0.000
1640053665609064192,"2021-12-21,02:27:45",10.1.1.2,0.39082908630371094,-0.020,-0.020,-0.020,0.000,0.000,0.000
1640053665940165120,"2021-12-21,02:27:45",10.1.1.2,326,-0.030,-0.030,-0.030,0.000,0.000,0.000
1640053666008773120,"2021-12-21,02:27:46",10.1.1.2,0.3965640068054199,-0.030,-0.030,-0.030,0.000,0.000,0.000
1640053666368855040,"2021-12-21,02:27:46",10.1.1.2,357,-0.040,-0.040,-0.040,0.000,0.000,0.000
1640053666414344960,"2021-12-21,02:27:46",10.1.1.2,0.4032430648803711,-0.040,-0.040,-0.040,0.000,0.000,0.000
1640053666739149056,"2021-12-21,02:27:46",10.1.1.2,321,-0.050,-0.050,-0.050,0.000,0.000,0.000
1640053666805509120,"2021-12-21,02:27:46",10.1.1.2,0.3882009983062744,-0.050,-0.050,-0.050,0.000,0.000,0.000
1640053667139156992,"2021-12-21,02:27:47",10.1.1.2,331,-0.060,-0.060,-0.060,0.000,0.000,0.000
1640053667188232960,"2021-12-21,02:27:47",10.1.1.2,0.380997896194458,-0.060,-0.060,-0.060,0.000,0.000,0.000
1640053667510849024,"2021-12-21,02:27:47",10.1.1.2,318,-0.070,-0.070,-0.070,0.000,0.000,0.000
1640053667560264960,"2021-12-21,02:27:47",10.1.1.2,0.36995601654052734,-0.070,-0.070,-0.070,0.000,0.000,0.000
1640053667921446144,"2021-12-21,02:27:47",10.1.1.2,359,-0.080,-0.080,-0.080,0.000,0.000,0.000
1640053667982150912,"2021-12-21,02:27:47",10.1.1.2,0.4204139709472656,-0.080,-0.080,-0.080,0.000,0.000,0.000
1640053668309262080,"2021-12-21,02:27:48",10.1.1.2,323,-0.090,-0.090,-0.090,0.000,0.000,0.000
1640053668357157888,"2021-12-21,02:27:48",10.1.1.2,0.3727879524230957,-0.090,-0.090,-0.090,0.000,0.000,0.000
1640053668715536128,"2021-12-21,02:27:48",10.1.1.2,349,-0.100,-0.100,-0.100,0.000,0.000,0.000
1640053668726084864,"2021-12-21,02:27:48",10.1.1.2,0.36747193336486816,-0.100,-0.100,-0.100,0.000,0.000,0.000
1640053669057352960,"2021-12-21,02:27:49",10.1.1.2,329,-0.110,-0.110,-0.110,0.000,0.000,0.000
1640053669119004928,"2021-12-21,02:27:49",10.1.1.2,0.390822172164917,-0.110,-0.110,-0.110,0.000,0.000,0.000
1640053669447613952,"2021-12-21,02:27:49",10.1.1.2,327,-0.120,-0.120,-0.120,0.000,0.000,0.000
1640053669523618048,"2021-12-21,02:27:49",10.1.1.2,0.40317487716674805,-0.120,-0.120,-0.120,0.000,0.000,0.000
1640053669858788864,"2021-12-21,02:27:49",10.1.1.2,333,-0.130,-0.130,-0.130,0.000,0.000,0.000
1640053669919485952,"2021-12-21,02:27:49",10.1.1.2,0.394334077835083,-0.130,-0.130,-0.130,0.000,0.000,0.000
1640053670237769984,"2021-12-21,02:27:50",10.1.1.2,316,-0.140,-0.140,-0.140,0.000,0.000,0.000
1640053670276503040,"2021-12-21,02:27:50",10.1.1.2,0.3556020259857178,-0.140,-0.140,-0.140,0.000,0.000,0.000
1640053670577846016,"2021-12-21,02:27:50",10.1.1.2,299,-0.150,-0.150,-0.150,0.000,0.000,0.000
1640053670617053952,"2021-12-21,02:27:50",10.1.1.2,0.3383309841156006,-0.150,-0.150,-0.150,0.000,0.000,0.000
1640053670916289024,"2021-12-21,02:27:50",10.1.1.2,297,-0.160,-0.160,-0.160,0.000,0.000,0.000
1640053670974184960,"2021-12-21,02:27:50",10.1.1.2,0.3551008701324463,-0.160,-0.160,-0.160,0.000,0.000,0.000
1640053671324662016,"2021-12-21,02:27:51",10.1.1.2,347,-0.170,-0.170,-0.170,0.000,0.000,0.000
1640053671378180096,"2021-12-21,02:27:51",10.1.1.2,0.4014279842376709,-0.170,-0.170,-0.170,0.000,0.000,0.000
1640053671706873856,"2021-12-21,02:27:51",10.1.1.2,325,-0.180,-0.180,-0.180,0.000,0.000,0.000
1640053671783042816,"2021-12-21,02:27:51",10.1.1.2,0.4022519588470459,-0.180,-0.180,-0.180,0.000,0.000,0.000
1640053672098710016,"2021-12-21,02:27:52",10.1.1.2,313,-0.190,-0.190,-0.190,0.000,0.000,0.000
1640053672153059840,"2021-12-21,02:27:52",10.1.1.2,0.3682229518890381,-0.190,-0.190,-0.190,0.000,0.000,0.000
1640053672496047104,"2021-12-21,02:27:52",10.1.1.2,341,-0.200,-0.200,-0.200,0.000,0.000,0.000
1640053672553932800,"2021-12-21,02:27:52",10.1.1.2,0.39929699897766113,-0.200,-0.200,-0.200,0.000,0.000,0.000
1640053672865057024,"2021-12-21,02:27:52",10.1.1.2,309,-0.210,-0.210,-0.210,0.000,0.000,0.000
1640053672901062912,"2021-12-21,02:27:52",10.1.1.2,0.3456399440765381,-0.210,-0.210,-0.210,0.000,0.000,0.000
1640053673236083968,"2021-12-21,02:27:53",10.1.1.2,331,-0.220,-0.220,-0.220,0.000,0.000,0.000
1640053673308763136,"2021-12-21,02:27:53",10.1.1.2,0.40401291847229004,-0.220,-0.220,-0.220,0.000,0.000,0.000
1640053673615745024,"2021-12-21,02:27:53",10.1.1.2,304,-0.230,-0.230,-0.230,0.000,0.000,0.000
1640053673667988992,"2021-12-21,02:27:53",10.1.1.2,0.35652780532836914,-0.230,-0.230,-0.230,0.000,0.000,0.000
1640053673987443968,"2021-12-21,02:27:53",10.1.1.2,316,-0.240,-0.240,-0.240,0.000,0.000,0.000
1640053674031387136,"2021-12-21,02:27:54",10.1.1.2,0.36176109313964844,-0.240,-0.240,-0.240,0.000,0.000,0.000
1640053674353329920,"2021-12-21,02:27:54",10.1.1.2,319,-0.250,-0.250,-0.250,0.000,0.000,0.000
1640053674438030080,"2021-12-21,02:27:54",10.1.1.2,0.4045121669769287,-0.250,-0.250,-0.250,0.000,0.000,0.000
1640053674743452928,"2021-12-21,02:27:54",10.1.1.2,302,-0.260,-0.260,-0.260,0.000,0.000,0.000
1640053674761792000,"2021-12-21,02:27:54",10.1.1.2,0.32149696350097656,-0.260,-0.260,-0.260,0.000,0.000,0.000
1640053675082080000,"2021-12-21,02:27:55",10.1.1.2,312,-0.270,-0.270,-0.270,0.000,0.000,0.000
1640053675096115968,"2021-12-21,02:27:55",10.1.1.2,0.3264310359954834,-0.270,-0.270,-0.270,0.000,0.000,0.000
1640053675371889152,"2021-12-21,02:27:55",10.1.1.2,272,-0.280,-0.280,-0.280,0.000,0.000,0.000
1640053675409584128,"2021-12-21,02:27:55",10.1.1.2,0.31000185012817383,-0.280,-0.280,-0.280,0.000,0.000,0.000
1640053675712080896,"2021-12-21,02:27:55",10.1.1.2,300,-0.290,-0.290,-0.290,0.000,0.000,0.000
1640053675737547008,"2021-12-21,02:27:55",10.1.1.2,0.32604408264160156,-0.290,-0.290,-0.290,0.000,0.000,0.000
1640053676033142016,"2021-12-21,02:27:56",10.1.1.2,288,-0.300,-0.300,-0.300,0.000,0.000,0.000
1640053676084156160,"2021-12-21,02:27:56",10.1.1.2,0.3395390510559082,-0.300,-0.300,-0.300,0.000,0.000,0.000
1640053676401297920,"2021-12-21,02:27:56",10.1.1.2,313,-0.310,-0.310,-0.310,0.000,0.000,0.000
1640053676475100928,"2021-12-21,02:27:56",10.1.1.2,0.3878328800201416,-0.310,-0.310,-0.310,0.000,0.000,0.000
1640053676791681024,"2021-12-21,02:27:56",10.1.1.2,313,-0.320,-0.320,-0.320,0.000,0.000,0.000
1640053676810620928,"2021-12-21,02:27:56",10.1.1.2,0.33406877517700195,-0.320,-0.320,-0.320,0.000,0.000,0.000
1640053677130852096,"2021-12-21,02:27:57",10.1.1.2,318,-0.330,-0.330,-0.330,0.000,0.000,0.000
1640053677169572096,"2021-12-21,02:27:57",10.1.1.2,0.357464075088501,-0.330,-0.330,-0.330,0.000,0.000,0.000
1640053677471275008,"2021-12-21,02:27:57",10.1.1.2,295,-0.340,-0.340,-0.340,0.000,0.000,0.000
1640053677530575872,"2021-12-21,02:27:57",10.1.1.2,0.35566186904907227,-0.340,-0.340,-0.340,0.000,0.000,0.000
1640053677879832064,"2021-12-21,02:27:57",10.1.1.2,347,-0.350,-0.350,-0.350,0.000,0.000,0.000
1640053677932975104,"2021-12-21,02:27:57",10.1.1.2,0.400968074798584,-0.350,-0.350,-0.350,0.000,0.000,0.000
1640053678279505920,"2021-12-21,02:27:58",10.1.1.2,344,-0.360,-0.360,-0.360,0.000,0.000,0.000
1640053678328612096,"2021-12-21,02:27:58",10.1.1.2,0.3937969207763672,-0.360,-0.360,-0.360,0.000,0.000,0.000
1640053678660612096,"2021-12-21,02:27:58",10.1.1.2,330,-0.370,-0.370,-0.370,0.000,0.000,0.000
1640053678738141184,"2021-12-21,02:27:58",10.1.1.2,0.40790891647338867,-0.370,-0.370,-0.370,0.000,0.000,0.000
1640053679049112064,"2021-12-21,02:27:59",10.1.1.2,305,-0.380,-0.380,-0.380,0.000,0.000,0.000
1640053679131889152,"2021-12-21,02:27:59",10.1.1.2,0.3905141353607178,-0.380,-0.380,-0.380,0.000,0.000,0.000
1640053679458669056,"2021-12-21,02:27:59",10.1.1.2,324,-0.390,-0.390,-0.390,0.000,0.000,0.000
1640053679525682944,"2021-12-21,02:27:59",10.1.1.2,0.39224886894226074,-0.390,-0.390,-0.390,0.000,0.000,0.000
1640053679848366080,"2021-12-21,02:27:59",10.1.1.2,320,-0.400,-0.400,-0.400,0.000,0.000,0.000
1640053679919072000,"2021-12-21,02:27:59",10.1.1.2,0.3915750980377197,-0.400,-0.400,-0.400,0.000,0.000,0.000
1640053680269864192,"2021-12-21,02:28:00",10.1.1.2,348,-0.410,-0.410,-0.410,0.000,0.000,0.000
1640053680311640064,"2021-12-21,02:28:00",10.1.1.2,0.39070892333984375,-0.410,-0.410,-0.410,0.000,0.000,0.000
1640053680665967104,"2021-12-21,02:28:00",10.1.1.2,351,-0.420,-0.420,-0.420,0.000,0.000,0.000
1640053680710205952,"2021-12-21,02:28:00",10.1.1.2,0.39632296562194824,-0.420,-0.420,-0.420,0.000,0.000,0.000
1640053681014221824,"2021-12-21,02:28:01",10.1.1.2,302,-0.430,-0.430,-0.430,0.000,0.000,0.000
1640053681056690944,"2021-12-21,02:28:01",10.1.1.2,0.3447129726409912,-0.430,-0.430,-0.430,0.000,0.000,0.000
1640053681405120000,"2021-12-21,02:28:01",10.1.1.2,346,-0.440,-0.440,-0.440,0.000,0.000,0.000
1640053681457658880,"2021-12-21,02:28:01",10.1.1.2,0.39920711517333984,-0.440,-0.440,-0.440,0.000,0.000,0.000
1640053681775245056,"2021-12-21,02:28:01",10.1.1.2,315,-0.450,-0.450,-0.450,0.000,0.000,0.000
1640053681807358976,"2021-12-21,02:28:01",10.1.1.2,0.34792017936706543,-0.450,-0.450,-0.450,0.000,0.000,0.000
1640053682112372992,"2021-12-21,02:28:02",10.1.1.2,301,-0.460,-0.460,-0.460,0.000,0.000,0.000
1640053682168186880,"2021-12-21,02:28:02",10.1.1.2,0.3573038578033447,-0.460,-0.460,-0.460,0.000,0.000,0.000
1640053682493853184,"2021-12-21,02:28:02",10.1.1.2,323,-0.470,-0.470,-0.470,0.000,0.000,0.000
1640053682537699840,"2021-12-21,02:28:02",10.1.1.2,0.3680300712585449,-0.470,-0.470,-0.470,0.000,0.000,0.000
1640053682871843072,"2021-12-21,02:28:02",10.1.1.2,332,-0.480,-0.480,-0.480,0.000,0.000,0.000
1640053682929321984,"2021-12-21,02:28:02",10.1.1.2,0.3902740478515625,-0.480,-0.480,-0.480,0.000,0.000,0.000
1640053683264631040,"2021-12-21,02:28:03",10.1.1.2,333,-0.490,-0.490,-0.490,0.000,0.000,0.000
1640053683344371200,"2021-12-21,02:28:03",10.1.1.2,0.41301393508911133,-0.490,-0.490,-0.490,0.000,0.000,0.000
1640053683649456128,"2021-12-21,02:28:03",10.1.1.2,303,-0.480,-0.480,-0.480,0.000,0.000,0.000
1640053683678021888,"2021-12-21,02:28:03",10.1.1.2,0.33228397369384766,-0.480,-0.480,-0.480,0.000,0.000,0.000
1640053683942818048,"2021-12-21,02:28:03",10.1.1.2,263,-0.470,-0.470,-0.470,0.000,0.000,0.000
1640053683987651072,"2021-12-21,02:28:03",10.1.1.2,0.308089017868042,-0.470,-0.470,-0.470,0.000,0.000,0.000
1640053684319025152,"2021-12-21,02:28:04",10.1.1.2,329,-0.460,-0.460,-0.460,0.000,0.000,0.000
1640053684349918976,"2021-12-21,02:28:04",10.1.1.2,0.3600640296936035,-0.460,-0.460,-0.460,0.000,0.000,0.000
1640053684681875968,"2021-12-21,02:28:04",10.1.1.2,330,-0.450,-0.450,-0.450,0.000,0.000,0.000
1640053684774291968,"2021-12-21,02:28:04",10.1.1.2,0.422853946685791,-0.450,-0.450,-0.450,0.000,0.000,0.000
1640053685100814080,"2021-12-21,02:28:05",10.1.1.2,324,-0.440,-0.440,-0.440,0.000,0.000,0.000
1640053685194013952,"2021-12-21,02:28:05",10.1.1.2,0.41815996170043945,-0.440,-0.440,-0.440,0.000,0.000,0.000
1640053685489409024,"2021-12-21,02:28:05",10.1.1.2,293,-0.430,-0.430,-0.430,0.000,0.000,0.000
1640053685531662848,"2021-12-21,02:28:05",10.1.1.2,0.3359799385070801,-0.430,-0.430,-0.430,0.000,0.000,0.000
1640053685886607872,"2021-12-21,02:28:05",10.1.1.2,346,-0.420,-0.420,-0.420,0.000,0.000,0.000
1640053685941157120,"2021-12-21,02:28:05",10.1.1.2,0.4009568691253662,-0.420,-0.420,-0.420,0.000,0.000,0.000
1640053686238095872,"2021-12-21,02:28:06",10.1.1.2,294,-0.410,-0.410,-0.410,0.000,0.000,0.000
1640053686299496960,"2021-12-21,02:28:06",10.1.1.2,0.3555629253387451,-0.410,-0.410,-0.410,0.000,0.000,0.000
1640053686663127808,"2021-12-21,02:28:06",10.1.1.2,362,-0.400,-0.400,-0.400,0.000,0.000,0.000
1640053686689219072,"2021-12-21,02:28:06",10.1.1.2,0.38824987411499023,-0.400,-0.400,-0.400,0.000,0.000,0.000
1640053687032608000,"2021-12-21,02:28:07",10.1.1.2,341,-0.390,-0.390,-0.390,0.000,0.000,0.000
1640053687079901952,"2021-12-21,02:28:07",10.1.1.2,0.3893890380859375,-0.390,-0.390,-0.390,0.000,0.000,0.000
1640053687403281920,"2021-12-21,02:28:07",10.1.1.2,321,-0.380,-0.380,-0.380,0.000,0.000,0.000
1640053687467899136,"2021-12-21,02:28:07",10.1.1.2,0.38648414611816406,-0.380,-0.380,-0.380,0.000,0.000,0.000
1640053687805190144,"2021-12-21,02:28:07",10.1.1.2,335,-0.370,-0.370,-0.370,0.000,0.000,0.000
1640053687852963072,"2021-12-21,02:28:07",10.1.1.2,0.3833310604095459,-0.370,-0.370,-0.370,0.000,0.000,0.000
1640053688167027968,"2021-12-21,02:28:08",10.1.1.2,311,-0.360,-0.360,-0.360,0.000,0.000,0.000
1640053688244385024,"2021-12-21,02:28:08",10.1.1.2,0.38933491706848145,-0.360,-0.360,-0.360,0.000,0.000,0.000
1640053688580526080,"2021-12-21,02:28:08",10.1.1.2,334,-0.350,-0.350,-0.350,0.000,0.000,0.000
1640053688635368192,"2021-12-21,02:28:08",10.1.1.2,0.3896210193634033,-0.350,-0.350,-0.350,0.000,0.000,0.000
1640053688950083072,"2021-12-21,02:28:08",10.1.1.2,312,-0.340,-0.340,-0.340,0.000,0.000,0.000
1640053689022919936,"2021-12-21,02:28:09",10.1.1.2,0.385814905166626,-0.340,-0.340,-0.340,0.000,0.000,0.000
1640053689350675968,"2021-12-21,02:28:09",10.1.1.2,325,-0.330,-0.330,-0.330,0.000,0.000,0.000
1640053689429469952,"2021-12-21,02:28:09",10.1.1.2,0.40393710136413574,-0.330,-0.330,-0.330,0.000,0.000,0.000
1640053689793410048,"2021-12-21,02:28:09",10.1.1.2,349,-0.320,-0.320,-0.320,0.000,0.000,0.000
1640053689857391104,"2021-12-21,02:28:09",10.1.1.2,0.4132530689239502,-0.320,-0.320,-0.320,0.000,0.000,0.000
1640053690173206016,"2021-12-21,02:28:10",10.1.1.2,312,-0.310,-0.310,-0.310,0.000,0.000,0.000
1640053690260261120,"2021-12-21,02:28:10",10.1.1.2,0.40000391006469727,-0.310,-0.310,-0.310,0.000,0.000,0.000
1640053690573595904,"2021-12-21,02:28:10",10.1.1.2,309,-0.300,-0.300,-0.300,0.000,0.000,0.000
1640053690652971008,"2021-12-21,02:28:10",10.1.1.2,0.38904905319213867,-0.300,-0.300,-0.300,0.000,0.000,0.000
1640053690956388864,"2021-12-21,02:28:10",10.1.1.2,300,-0.290,-0.290,-0.290,0.000,0.000,0.000
1640053691048433152,"2021-12-21,02:28:11",10.1.1.2,0.3936469554901123,-0.290,-0.290,-0.290,0.000,0.000,0.000
1640053691355484928,"2021-12-21,02:28:11",10.1.1.2,305,-0.280,-0.280,-0.280,0.000,0.000,0.000
1640053691404791040,"2021-12-21,02:28:11",10.1.1.2,0.35506105422973633,-0.280,-0.280,-0.280,0.000,0.000,0.000
1640053691706953984,"2021-12-21,02:28:11",10.1.1.2,296,-0.270,-0.270,-0.270,0.000,0.000,0.000
1640053691756378880,"2021-12-21,02:28:11",10.1.1.2,0.34528493881225586,-0.270,-0.270,-0.270,0.000,0.000,0.000
1640053692116951040,"2021-12-21,02:28:12",10.1.1.2,358,-0.260,-0.260,-0.260,0.000,0.000,0.000
1640053692180919808,"2021-12-21,02:28:12",10.1.1.2,0.42303895950317383,-0.260,-0.260,-0.260,0.000,0.000,0.000
1640053692507891968,"2021-12-21,02:28:12",10.1.1.2,325,-0.250,-0.250,-0.250,0.000,0.000,0.000
1640053692558448128,"2021-12-21,02:28:12",10.1.1.2,0.3759629726409912,-0.250,-0.250,-0.250,0.000,0.000,0.000
1640053692899687936,"2021-12-21,02:28:12",10.1.1.2,339,-0.240,-0.240,-0.240,0.000,0.000,0.000
1640053692950365952,"2021-12-21,02:28:12",10.1.1.2,0.39029812812805176,-0.240,-0.240,-0.240,0.000,0.000,0.000
1640053693323739904,"2021-12-21,02:28:13",10.1.1.2,371,-0.230,-0.230,-0.230,0.000,0.000,0.000
1640053693354685952,"2021-12-21,02:28:13",10.1.1.2,0.4028799533843994,-0.230,-0.230,-0.230,0.000,0.000,0.000
1640053693710071040,"2021-12-21,02:28:13",10.1.1.2,352,-0.220,-0.220,-0.220,0.000,0.000,0.000
1640053693766376960,"2021-12-21,02:28:13",10.1.1.2,0.410114049911499,-0.220,-0.220,-0.220,0.000,0.000,0.000
1640053694078877952,"2021-12-21,02:28:14",10.1.1.2,310,-0.210,-0.210,-0.210,0.000,0.000,0.000
1640053694137280000,"2021-12-21,02:28:14",10.1.1.2,0.36911606788635254,-0.210,-0.210,-0.210,0.000,0.000,0.000
1640053694480342016,"2021-12-21,02:28:14",10.1.1.2,340,-0.200,-0.200,-0.200,0.000,0.000,0.000
1640053694514220032,"2021-12-21,02:28:14",10.1.1.2,0.375277042388916,-0.200,-0.200,-0.200,0.000,0.000,0.000
1640053694860943104,"2021-12-21,02:28:14",10.1.1.2,345,-0.190,-0.190,-0.190,0.000,0.000,0.000
1640053694921356800,"2021-12-21,02:28:14",10.1.1.2,0.4056248664855957,-0.190,-0.190,-0.190,0.000,0.000,0.000
1640053695260029952,"2021-12-21,02:28:15",10.1.1.2,336,-0.180,-0.180,-0.180,0.000,0.000,0.000
1640053695313615104,"2021-12-21,02:28:15",10.1.1.2,0.39049196243286133,-0.180,-0.180,-0.180,0.000,0.000,0.000
1640053695651403776,"2021-12-21,02:28:15",10.1.1.2,335,-0.170,-0.170,-0.170,0.000,0.000,0.000
1640053695711921920,"2021-12-21,02:28:15",10.1.1.2,0.3967311382293701,-0.170,-0.170,-0.170,0.000,0.000,0.000
1640053696070334976,"2021-12-21,02:28:16",10.1.1.2,356,-0.160,-0.160,-0.160,0.000,0.000,0.000
1640053696114676992,"2021-12-21,02:28:16",10.1.1.2,0.40125393867492676,-0.160,-0.160,-0.160,0.000,0.000,0.000
1640053696460488192,"2021-12-21,02:28:16",10.1.1.2,343,-0.150,-0.150,-0.150,0.000,0.000,0.000
1640053696547418112,"2021-12-21,02:28:16",10.1.1.2,0.43040990829467773,-0.150,-0.150,-0.150,0.000,0.000,0.000
1640053696909751808,"2021-12-21,02:28:16",10.1.1.2,360,-0.140,-0.140,-0.140,0.000,0.000,0.000
1640053696977274880,"2021-12-21,02:28:16",10.1.1.2,0.4281301498413086,-0.140,-0.140,-0.140,0.000,0.000,0.000
1640053697301575936,"2021-12-21,02:28:17",10.1.1.2,321,-0.130,-0.130,-0.130,0.000,0.000,0.000
1640053697379664896,"2021-12-21,02:28:17",10.1.1.2,0.3997349739074707,-0.130,-0.130,-0.130,0.000,0.000,0.000
1640053697689292800,"2021-12-21,02:28:17",10.1.1.2,307,-0.120,-0.120,-0.120,0.000,0.000,0.000
1640053697737099776,"2021-12-21,02:28:17",10.1.1.2,0.3556640148162842,-0.120,-0.120,-0.120,0.000,0.000,0.000
1640053698084060928,"2021-12-21,02:28:18",10.1.1.2,345,-0.110,-0.110,-0.110,0.000,0.000,0.000
1640053698123853056,"2021-12-21,02:28:18",10.1.1.2,0.38519787788391113,-0.110,-0.110,-0.110,0.000,0.000,0.000
1640053698429773056,"2021-12-21,02:28:18",10.1.1.2,301,-0.100,-0.100,-0.100,0.000,0.000,0.000
1640053698499809024,"2021-12-21,02:28:18",10.1.1.2,0.3719918727874756,-0.100,-0.100,-0.100,0.000,0.000,0.000
1640053698810377984,"2021-12-21,02:28:18",10.1.1.2,307,-0.090,-0.090,-0.090,0.000,0.000,0.000
1640053698893815040,"2021-12-21,02:28:18",10.1.1.2,0.39109206199645996,-0.090,-0.090,-0.090,0.000,0.000,0.000
1640053699199377152,"2021-12-21,02:28:19",10.1.1.2,304,-0.080,-0.080,-0.080,0.000,0.000,0.000
1640053699239495936,"2021-12-21,02:28:19",10.1.1.2,0.34435200691223145,-0.080,-0.080,-0.080,0.000,0.000,0.000
1640053699568507904,"2021-12-21,02:28:19",10.1.1.2,327,-0.070,-0.070,-0.070,0.000,0.000,0.000
1640053699594038016,"2021-12-21,02:28:19",10.1.1.2,0.35322999954223633,-0.070,-0.070,-0.070,0.000,0.000,0.000
1640053699900867072,"2021-12-21,02:28:19",10.1.1.2,304,-0.060,-0.060,-0.060,0.000,0.000,0.000
1640053699942158848,"2021-12-21,02:28:19",10.1.1.2,0.3464062213897705,-0.060,-0.060,-0.060,0.000,0.000,0.000
1640053700268969984,"2021-12-21,02:28:20",10.1.1.2,324,-0.050,-0.050,-0.050,0.000,0.000,0.000
1640053700281112064,"2021-12-21,02:28:20",10.1.1.2,0.33686089515686035,-0.050,-0.050,-0.050,0.000,0.000,0.000
1640053700578394880,"2021-12-21,02:28:20",10.1.1.2,295,-0.040,-0.040,-0.040,0.000,0.000,0.000
1640053700613847040,"2021-12-21,02:28:20",10.1.1.2,0.33090901374816895,-0.040,-0.040,-0.040,0.000,0.000,0.000
1640053700920164096,"2021-12-21,02:28:20",10.1.1.2,304,-0.030,-0.030,-0.030,0.000,0.000,0.000
