FedericoMungari/DigitalTwin_service/01_WiredScenario/Output/Output_script/script_rosapi_2_output_robots14_freq0_11.txt
timestamp,date,node,latency,joint_1,joint_2,joint_3,joint_4,joint_5,joint_6
1643146534410425856,2022-01-25-21:35:34,10.1.1.12,28,-0.010,-0.010,-0.010,0.000,0.000,0.000
1643146534610768128,2022-01-25-21:35:34,10.1.1.12,26,-0.020,-0.020,-0.020,0.000,0.000,0.000
1643146534810543104,2022-01-25-21:35:34,10.1.1.12,25,-0.030,-0.030,-0.030,0.000,0.000,0.000
1643146535039602944,2022-01-25-21:35:35,10.1.1.12,52,-0.041,-0.041,-0.041,0.000,0.000,0.000
1643146535234814976,2022-01-25-21:35:35,10.1.1.12,47,-0.051,-0.051,-0.051,0.000,0.000,0.000
1643146535430558976,2022-01-25-21:35:35,10.1.1.12,40,-0.061,-0.061,-0.061,0.000,0.000,0.000
1643146535630995968,2022-01-25-21:35:35,10.1.1.12,38,-0.071,-0.071,-0.071,0.000,0.000,0.000
1643146535830269952,2022-01-25-21:35:35,10.1.1.12,36,-0.081,-0.081,-0.081,0.000,0.000,0.000
1643146536032259072,2022-01-25-21:35:36,10.1.1.12,37,-0.091,-0.091,-0.091,0.000,0.000,0.000
1643146536231055104,2022-01-25-21:35:36,10.1.1.12,35,-0.101,-0.101,-0.101,0.000,0.000,0.000
1643146536436896000,2022-01-25-21:35:36,10.1.1.12,40,-0.110,-0.110,-0.110,0.000,0.000,0.000
1643146536630134016,2022-01-25-21:35:36,10.1.1.12,32,-0.120,-0.120,-0.120,0.000,0.000,0.000
1643146536830701056,2022-01-25-21:35:36,10.1.1.12,32,-0.130,-0.130,-0.130,0.000,0.000,0.000
1643146537032157952,2022-01-25-21:35:37,10.1.1.12,32,-0.140,-0.140,-0.140,0.000,0.000,0.000
1643146537252371968,2022-01-25-21:35:37,10.1.1.12,42,-0.151,-0.151,-0.151,0.000,0.000,0.000
1643146537452593920,2022-01-25-21:35:37,10.1.1.12,38,-0.161,-0.161,-0.161,0.000,0.000,0.000
1643146537651237120,2022-01-25-21:35:37,10.1.1.12,35,-0.171,-0.171,-0.171,0.000,0.000,0.000
1643146537859067904,2022-01-25-21:35:37,10.1.1.12,42,-0.180,-0.180,-0.180,0.000,0.000,0.000
1643146538051438080,2022-01-25-21:35:38,10.1.1.12,33,-0.190,-0.190,-0.190,0.000,0.000,0.000
1643146538252125952,2022-01-25-21:35:38,10.1.1.12,32,-0.200,-0.200,-0.200,0.000,0.000,0.000
1643146538450580992,2022-01-25-21:35:38,10.1.1.12,30,-0.210,-0.210,-0.210,0.000,0.000,0.000
1643146538650196992,2022-01-25-21:35:38,10.1.1.12,29,-0.220,-0.220,-0.220,0.000,0.000,0.000
1643146538850780928,2022-01-25-21:35:38,10.1.1.12,29,-0.230,-0.230,-0.230,0.000,0.000,0.000
1643146539050458880,2022-01-25-21:35:39,10.1.1.12,26,-0.240,-0.240,-0.240,0.000,0.000,0.000
1643146539250219008,2022-01-25-21:35:39,10.1.1.12,25,-0.250,-0.250,-0.250,0.000,0.000,0.000
1643146539450340864,2022-01-25-21:35:39,10.1.1.12,24,-0.260,-0.260,-0.260,0.000,0.000,0.000
1643146539670785024,2022-01-25-21:35:39,10.1.1.12,43,-0.271,-0.271,-0.271,0.000,0.000,0.000
1643146539870712064,2022-01-25-21:35:39,10.1.1.12,42,-0.281,-0.281,-0.281,0.000,0.000,0.000
1643146540071599872,2022-01-25-21:35:40,10.1.1.12,42,-0.291,-0.291,-0.291,0.000,0.000,0.000
1643146540272221952,2022-01-25-21:35:40,10.1.1.12,41,-0.301,-0.301,-0.301,0.000,0.000,0.000
1643146540471631104,2022-01-25-21:35:40,10.1.1.12,40,-0.311,-0.311,-0.311,0.000,0.000,0.000
1643146540670994944,2022-01-25-21:35:40,10.1.1.12,39,-0.321,-0.321,-0.321,0.000,0.000,0.000
1643146540871300096,2022-01-25-21:35:40,10.1.1.12,38,-0.331,-0.331,-0.331,0.000,0.000,0.000
1643146541071399936,2022-01-25-21:35:41,10.1.1.12,37,-0.341,-0.341,-0.341,0.000,0.000,0.000
1643146541273037056,2022-01-25-21:35:41,10.1.1.12,37,-0.351,-0.351,-0.351,0.000,0.000,0.000
1643146541473243904,2022-01-25-21:35:41,10.1.1.12,38,-0.361,-0.361,-0.361,0.000,0.000,0.000
1643146541670948096,2022-01-25-21:35:41,10.1.1.12,34,-0.370,-0.370,-0.370,0.000,0.000,0.000
1643146541870727936,2022-01-25-21:35:41,10.1.1.12,33,-0.380,-0.380,-0.380,0.000,0.000,0.000
1643146542071239936,2022-01-25-21:35:42,10.1.1.12,32,-0.390,-0.390,-0.390,0.000,0.000,0.000
1643146542271142912,2022-01-25-21:35:42,10.1.1.12,31,-0.400,-0.400,-0.400,0.000,0.000,0.000
1643146542471601920,2022-01-25-21:35:42,10.1.1.12,31,-0.410,-0.410,-0.410,0.000,0.000,0.000
1643146542671282176,2022-01-25-21:35:42,10.1.1.12,29,-0.420,-0.420,-0.420,0.000,0.000,0.000
1643146542871228928,2022-01-25-21:35:42,10.1.1.12,26,-0.430,-0.430,-0.430,0.000,0.000,0.000
1643146543070864896,2022-01-25-21:35:43,10.1.1.12,25,-0.440,-0.440,-0.440,0.000,0.000,0.000
1643146543271888128,2022-01-25-21:35:43,10.1.1.12,26,-0.450,-0.450,-0.450,0.000,0.000,0.000
1643146543491566848,2022-01-25-21:35:43,10.1.1.12,45,-0.461,-0.461,-0.461,0.000,0.000,0.000
1643146543691313920,2022-01-25-21:35:43,10.1.1.12,44,-0.471,-0.471,-0.471,0.000,0.000,0.000
1643146543910440960,2022-01-25-21:35:43,10.1.1.12,43,-0.481,-0.481,-0.481,0.000,0.000,0.000
1643146544178663936,2022-01-25-21:35:44,10.1.1.12,53,-0.490,-0.490,-0.490,0.000,0.000,0.000
1643146544399411968,2022-01-25-21:35:44,10.1.1.12,34,-0.480,-0.480,-0.480,0.000,0.000,0.000
1643146544663494144,2022-01-25-21:35:44,10.1.1.12,110,-0.470,-0.470,-0.470,0.000,0.000,0.000
1643146544831060992,2022-01-25-21:35:44,10.1.1.12,30,-0.460,-0.460,-0.460,0.000,0.000,0.000
1643146545056824832,2022-01-25-21:35:45,10.1.1.12,47,-0.449,-0.449,-0.449,0.000,0.000,0.000
1643146545251075072,2022-01-25-21:35:45,10.1.1.12,41,-0.439,-0.439,-0.439,0.000,0.000,0.000
1643146545451749120,2022-01-25-21:35:45,10.1.1.12,40,-0.429,-0.429,-0.429,0.000,0.000,0.000
1643146545650952192,2022-01-25-21:35:45,10.1.1.12,37,-0.419,-0.419,-0.419,0.000,0.000,0.000
1643146545850960128,2022-01-25-21:35:45,10.1.1.12,36,-0.409,-0.409,-0.409,0.000,0.000,0.000
1643146546051169024,2022-01-25-21:35:46,10.1.1.12,35,-0.399,-0.399,-0.399,0.000,0.000,0.000
1643146546252307968,2022-01-25-21:35:46,10.1.1.12,35,-0.390,-0.390,-0.390,0.000,0.000,0.000
1643146546451462144,2022-01-25-21:35:46,10.1.1.12,30,-0.380,-0.380,-0.380,0.000,0.000,0.000
1643146546709059072,2022-01-25-21:35:46,10.1.1.12,63,-0.369,-0.369,-0.369,0.000,0.000,0.000
1643146546880279040,2022-01-25-21:35:46,10.1.1.12,33,-0.360,-0.360,-0.360,0.000,0.000,0.000
1643146547091901952,2022-01-25-21:35:47,10.1.1.12,37,-0.349,-0.349,-0.349,0.000,0.000,0.000
1643146547295739904,2022-01-25-21:35:47,10.1.1.12,39,-0.339,-0.339,-0.339,0.000,0.000,0.000
1643146547495655936,2022-01-25-21:35:47,10.1.1.12,38,-0.329,-0.329,-0.329,0.000,0.000,0.000
1643146547698041856,2022-01-25-21:35:47,10.1.1.12,40,-0.320,-0.320,-0.320,0.000,0.000,0.000
1643146547890779904,2022-01-25-21:35:47,10.1.1.12,32,-0.310,-0.310,-0.310,0.000,0.000,0.000
1643146548092609792,2022-01-25-21:35:48,10.1.1.12,32,-0.300,-0.300,-0.300,0.000,0.000,0.000
1643146548331640064,2022-01-25-21:35:48,10.1.1.12,28,-0.290,-0.290,-0.290,0.000,0.000,0.000
1643146548530770176,2022-01-25-21:35:48,10.1.1.12,25,-0.280,-0.280,-0.280,0.000,0.000,0.000
1643146548751624192,2022-01-25-21:35:48,10.1.1.12,36,-0.269,-0.269,-0.269,0.000,0.000,0.000
1643146549053806080,2022-01-25-21:35:49,10.1.1.12,129,-0.259,-0.259,-0.259,0.000,0.000,0.000
1643146549176744960,2022-01-25-21:35:49,10.1.1.12,30,-0.250,-0.250,-0.250,0.000,0.000,0.000
1643146549394310912,2022-01-25-21:35:49,10.1.1.12,43,-0.239,-0.239,-0.239,0.000,0.000,0.000
1643146549591397888,2022-01-25-21:35:49,10.1.1.12,40,-0.229,-0.229,-0.229,0.000,0.000,0.000
1643146549791468032,2022-01-25-21:35:49,10.1.1.12,38,-0.219,-0.219,-0.219,0.000,0.000,0.000
1643146549991742976,2022-01-25-21:35:49,10.1.1.12,37,-0.209,-0.209,-0.209,0.000,0.000,0.000
1643146550190757888,2022-01-25-21:35:50,10.1.1.12,34,-0.199,-0.199,-0.199,0.000,0.000,0.000
1643146550394970880,2022-01-25-21:35:50,10.1.1.12,31,-0.190,-0.190,-0.190,0.000,0.000,0.000
1643146550591108096,2022-01-25-21:35:50,10.1.1.12,25,-0.180,-0.180,-0.180,0.000,0.000,0.000
1643146550790183936,2022-01-25-21:35:50,10.1.1.12,24,-0.170,-0.170,-0.170,0.000,0.000,0.000
1643146551010564096,2022-01-25-21:35:51,10.1.1.12,42,-0.159,-0.159,-0.159,0.000,0.000,0.000
1643146551212614912,2022-01-25-21:35:51,10.1.1.12,43,-0.149,-0.149,-0.149,0.000,0.000,0.000
1643146551410587136,2022-01-25-21:35:51,10.1.1.12,40,-0.139,-0.139,-0.139,0.000,0.000,0.000
1643146551610301952,2022-01-25-21:35:51,10.1.1.12,39,-0.129,-0.129,-0.129,0.000,0.000,0.000
1643146551810226944,2022-01-25-21:35:51,10.1.1.12,38,-0.119,-0.119,-0.119,0.000,0.000,0.000
1643146552009947904,2022-01-25-21:35:52,10.1.1.12,37,-0.109,-0.109,-0.109,0.000,0.000,0.000
1643146552216475136,2022-01-25-21:35:52,10.1.1.12,37,-0.100,-0.100,-0.100,0.000,0.000,0.000
1643146552414921984,2022-01-25-21:35:52,10.1.1.12,34,-0.090,-0.090,-0.090,0.000,0.000,0.000
1643146552655567872,2022-01-25-21:35:52,10.1.1.12,66,-0.080,-0.080,-0.080,0.000,0.000,0.000
1643146552851512832,2022-01-25-21:35:52,10.1.1.12,55,-0.069,-0.069,-0.069,0.000,0.000,0.000
1643146553030220032,2022-01-25-21:35:53,10.1.1.12,33,-0.060,-0.060,-0.060,0.000,0.000,0.000
1643146553231513856,2022-01-25-21:35:53,10.1.1.12,30,-0.050,-0.050,-0.050,0.000,0.000,0.000
1643146553430203904,2022-01-25-21:35:53,10.1.1.12,29,-0.040,-0.040,-0.040,0.000,0.000,0.000
1643146553630609920,2022-01-25-21:35:53,10.1.1.12,28,-0.030,-0.030,-0.030,0.000,0.000,0.000
1643146553830483968,2022-01-25-21:35:53,10.1.1.12,27,-0.020,-0.020,-0.020,0.000,0.000,0.000
1643146554030711040,2022-01-25-21:35:54,10.1.1.12,26,-0.010,-0.010,-0.010,0.000,0.000,0.000
1643146554216314112,2022-01-25-21:35:54,10.1.1.12,10,-0.001,-0.001,-0.001,0.000,0.000,0.000
1643146554451055104,2022-01-25-21:35:54,10.1.1.12,42,-0.011,-0.011,-0.011,0.000,0.000,0.000
1643146554656811008,2022-01-25-21:35:54,10.1.1.12,44,-0.021,-0.021,-0.021,0.000,0.000,0.000
1643146554851789824,2022-01-25-21:35:54,10.1.1.12,37,-0.031,-0.031,-0.031,0.000,0.000,0.000
1643146555051209984,2022-01-25-21:35:55,10.1.1.12,35,-0.041,-0.041,-0.041,0.000,0.000,0.000
1643146555250976000,2022-01-25-21:35:55,10.1.1.12,34,-0.050,-0.050,-0.050,0.000,0.000,0.000
1643146555450078976,2022-01-25-21:35:55,10.1.1.12,26,-0.060,-0.060,-0.060,0.000,0.000,0.000
1643146555655448064,2022-01-25-21:35:55,10.1.1.12,31,-0.070,-0.070,-0.070,0.000,0.000,0.000
1643146555851869952,2022-01-25-21:35:55,10.1.1.12,25,-0.080,-0.080,-0.080,0.000,0.000,0.000
1643146556051214848,2022-01-25-21:35:56,10.1.1.12,24,-0.090,-0.090,-0.090,0.000,0.000,0.000
1643146556280584192,2022-01-25-21:35:56,10.1.1.12,51,-0.101,-0.101,-0.101,0.000,0.000,0.000
1643146556474190080,2022-01-25-21:35:56,10.1.1.12,43,-0.111,-0.111,-0.111,0.000,0.000,0.000
1643146556687148032,2022-01-25-21:35:56,10.1.1.12,40,-0.120,-0.120,-0.120,0.000,0.000,0.000
1643146556930699008,2022-01-25-21:35:56,10.1.1.12,91,-0.130,-0.130,-0.130,0.000,0.000,0.000
1643146557071404032,2022-01-25-21:35:57,10.1.1.12,32,-0.140,-0.140,-0.140,0.000,0.000,0.000
1643146557272624128,2022-01-25-21:35:57,10.1.1.12,30,-0.150,-0.150,-0.150,0.000,0.000,0.000
1643146557492568064,2022-01-25-21:35:57,10.1.1.12,45,-0.161,-0.161,-0.161,0.000,0.000,0.000
1643146557732274944,2022-01-25-21:35:57,10.1.1.12,84,-0.171,-0.171,-0.171,0.000,0.000,0.000
1643146557982166016,2022-01-25-21:35:57,10.1.1.12,88,-0.181,-0.181,-0.181,0.000,0.000,0.000
1643146558172177920,2022-01-25-21:35:58,10.1.1.12,60,-0.191,-0.191,-0.191,0.000,0.000,0.000
1643146558357868800,2022-01-25-21:35:58,10.1.1.12,41,-0.200,-0.200,-0.200,0.000,0.000,0.000
1643146558571927040,2022-01-25-21:35:58,10.1.1.12,35,-0.211,-0.211,-0.211,0.000,0.000,0.000
1643146558790020864,2022-01-25-21:35:58,10.1.1.12,45,-0.221,-0.221,-0.221,0.000,0.000,0.000
1643146558990170880,2022-01-25-21:35:58,10.1.1.12,37,-0.231,-0.231,-0.231,0.000,0.000,0.000
1643146559191281152,2022-01-25-21:35:59,10.1.1.12,37,-0.241,-0.241,-0.241,0.000,0.000,0.000
1643146559391025152,2022-01-25-21:35:59,10.1.1.12,35,-0.251,-0.251,-0.251,0.000,0.000,0.000
1643146559594508800,2022-01-25-21:35:59,10.1.1.12,37,-0.260,-0.260,-0.260,0.000,0.000,0.000
1643146559791326976,2022-01-25-21:35:59,10.1.1.12,29,-0.270,-0.270,-0.270,0.000,0.000,0.000
1643146559991003904,2022-01-25-21:35:59,10.1.1.12,28,-0.280,-0.280,-0.280,0.000,0.000,0.000
1643146560212136960,2022-01-25-21:36:00,10.1.1.12,45,-0.291,-0.291,-0.291,0.000,0.000,0.000
1643146560411058944,2022-01-25-21:36:00,10.1.1.12,40,-0.301,-0.301,-0.301,0.000,0.000,0.000
1643146560610008064,2022-01-25-21:36:00,10.1.1.12,38,-0.311,-0.311,-0.311,0.000,0.000,0.000
1643146560810728960,2022-01-25-21:36:00,10.1.1.12,37,-0.321,-0.321,-0.321,0.000,0.000,0.000
1643146561010860800,2022-01-25-21:36:01,10.1.1.12,36,-0.331,-0.331,-0.331,0.000,0.000,0.000
1643146561211400960,2022-01-25-21:36:01,10.1.1.12,35,-0.340,-0.340,-0.340,0.000,0.000,0.000
1643146561430594048,2022-01-25-21:36:01,10.1.1.12,44,-0.351,-0.351,-0.351,0.000,0.000,0.000
1643146561630812928,2022-01-25-21:36:01,10.1.1.12,43,-0.361,-0.361,-0.361,0.000,0.000,0.000
1643146561831165184,2022-01-25-21:36:01,10.1.1.12,42,-0.371,-0.371,-0.371,0.000,0.000,0.000
1643146562044871936,2022-01-25-21:36:02,10.1.1.12,54,-0.381,-0.381,-0.381,0.000,0.000,0.000
1643146562231451136,2022-01-25-21:36:02,10.1.1.12,38,-0.391,-0.391,-0.391,0.000,0.000,0.000
1643146562431108096,2022-01-25-21:36:02,10.1.1.12,37,-0.401,-0.401,-0.401,0.000,0.000,0.000
1643146562631053824,2022-01-25-21:36:02,10.1.1.12,36,-0.411,-0.411,-0.411,0.000,0.000,0.000
1643146562830714112,2022-01-25-21:36:02,10.1.1.12,34,-0.420,-0.420,-0.420,0.000,0.000,0.000
1643146563031773184,2022-01-25-21:36:03,10.1.1.12,33,-0.430,-0.430,-0.430,0.000,0.000,0.000
1643146563230891008,2022-01-25-21:36:03,10.1.1.12,28,-0.440,-0.440,-0.440,0.000,0.000,0.000
1643146563431118848,2022-01-25-21:36:03,10.1.1.12,26,-0.450,-0.450,-0.450,0.000,0.000,0.000
1643146563652830976,2022-01-25-21:36:03,10.1.1.12,45,-0.461,-0.461,-0.461,0.000,0.000,0.000
1643146563851588864,2022-01-25-21:36:03,10.1.1.12,39,-0.471,-0.471,-0.471,0.000,0.000,0.000
1643146564071038976,2022-01-25-21:36:04,10.1.1.12,42,-0.481,-0.481,-0.481,0.000,0.000,0.000
1643146564330884096,2022-01-25-21:36:04,10.1.1.12,74,-0.489,-0.489,-0.489,0.000,0.000,0.000
1643146564512747008,2022-01-25-21:36:04,10.1.1.12,41,-0.479,-0.479,-0.479,0.000,0.000,0.000
1643146564711191040,2022-01-25-21:36:04,10.1.1.12,38,-0.469,-0.469,-0.469,0.000,0.000,0.000
1643146564910025984,2022-01-25-21:36:04,10.1.1.12,37,-0.459,-0.459,-0.459,0.000,0.000,0.000
1643146565111216896,2022-01-25-21:36:05,10.1.1.12,37,-0.449,-0.449,-0.449,0.000,0.000,0.000
1643146565311299072,2022-01-25-21:36:05,10.1.1.12,36,-0.439,-0.439,-0.439,0.000,0.000,0.000
1643146565531760896,2022-01-25-21:36:05,10.1.1.12,50,-0.429,-0.429,-0.429,0.000,0.000,0.000
1643146565732111104,2022-01-25-21:36:05,10.1.1.12,29,-0.420,-0.420,-0.420,0.000,0.000,0.000
1643146565930796032,2022-01-25-21:36:05,10.1.1.12,26,-0.410,-0.410,-0.410,0.000,0.000,0.000
1643146566151974912,2022-01-25-21:36:06,10.1.1.12,41,-0.399,-0.399,-0.399,0.000,0.000,0.000
1643146566351238912,2022-01-25-21:36:06,10.1.1.12,39,-0.389,-0.389,-0.389,0.000,0.000,0.000
1643146566551318784,2022-01-25-21:36:06,10.1.1.12,35,-0.379,-0.379,-0.379,0.000,0.000,0.000
1643146566752660992,2022-01-25-21:36:06,10.1.1.12,34,-0.370,-0.370,-0.370,0.000,0.000,0.000
1643146566951277056,2022-01-25-21:36:06,10.1.1.12,30,-0.360,-0.360,-0.360,0.000,0.000,0.000
1643146567151303936,2022-01-25-21:36:07,10.1.1.12,28,-0.350,-0.350,-0.350,0.000,0.000,0.000
1643146567351297024,2022-01-25-21:36:07,10.1.1.12,27,-0.340,-0.340,-0.340,0.000,0.000,0.000
1643146567572717824,2022-01-25-21:36:07,10.1.1.12,38,-0.329,-0.329,-0.329,0.000,0.000,0.000
1643146567771878912,2022-01-25-21:36:07,10.1.1.12,35,-0.319,-0.319,-0.319,0.000,0.000,0.000
1643146567995542016,2022-01-25-21:36:07,10.1.1.12,49,-0.309,-0.309,-0.309,0.000,0.000,0.000
1643146568192007168,2022-01-25-21:36:08,10.1.1.12,43,-0.299,-0.299,-0.299,0.000,0.000,0.000
1643146568393115904,2022-01-25-21:36:08,10.1.1.12,42,-0.289,-0.289,-0.289,0.000,0.000,0.000
1643146568591504128,2022-01-25-21:36:08,10.1.1.12,38,-0.279,-0.279,-0.279,0.000,0.000,0.000
1643146568791325184,2022-01-25-21:36:08,10.1.1.12,37,-0.269,-0.269,-0.269,0.000,0.000,0.000
1643146568990691840,2022-01-25-21:36:08,10.1.1.12,35,-0.259,-0.259,-0.259,0.000,0.000,0.000
1643146569190372096,2022-01-25-21:36:09,10.1.1.12,34,-0.249,-0.249,-0.249,0.000,0.000,0.000
1643146569392632064,2022-01-25-21:36:09,10.1.1.12,33,-0.240,-0.240,-0.240,0.000,0.000,0.000
1643146569591492864,2022-01-25-21:36:09,10.1.1.12,31,-0.230,-0.230,-0.230,0.000,0.000,0.000
1643146569792096000,2022-01-25-21:36:09,10.1.1.12,31,-0.220,-0.220,-0.220,0.000,0.000,0.000
1643146569991033088,2022-01-25-21:36:09,10.1.1.12,26,-0.210,-0.210,-0.210,0.000,0.000,0.000
1643146570194511872,2022-01-25-21:36:10,10.1.1.12,28,-0.200,-0.200,-0.200,0.000,0.000,0.000
1643146570411056128,2022-01-25-21:36:10,10.1.1.12,43,-0.189,-0.189,-0.189,0.000,0.000,0.000
1643146570611008768,2022-01-25-21:36:10,10.1.1.12,39,-0.179,-0.179,-0.179,0.000,0.000,0.000
1643146570811700992,2022-01-25-21:36:10,10.1.1.12,38,-0.169,-0.169,-0.169,0.000,0.000,0.000
1643146571010541824,2022-01-25-21:36:11,10.1.1.12,36,-0.159,-0.159,-0.159,0.000,0.000,0.000
1643146571210935040,2022-01-25-21:36:11,10.1.1.12,35,-0.149,-0.149,-0.149,0.000,0.000,0.000
1643146571411041024,2022-01-25-21:36:11,10.1.1.12,34,-0.140,-0.140,-0.140,0.000,0.000,0.000
1643146571611064832,2022-01-25-21:36:11,10.1.1.12,33,-0.130,-0.130,-0.130,0.000,0.000,0.000
1643146571811057152,2022-01-25-21:36:11,10.1.1.12,27,-0.120,-0.120,-0.120,0.000,0.000,0.000
1643146572010663936,2022-01-25-21:36:12,10.1.1.12,26,-0.110,-0.110,-0.110,0.000,0.000,0.000
1643146572210920192,2022-01-25-21:36:12,10.1.1.12,25,-0.100,-0.100,-0.100,0.000,0.000,0.000
1643146572410995968,2022-01-25-21:36:12,10.1.1.12,24,-0.090,-0.090,-0.090,0.000,0.000,0.000
1643146572630621952,2022-01-25-21:36:12,10.1.1.12,41,-0.079,-0.079,-0.079,0.000,0.000,0.000
1643146572830629120,2022-01-25-21:36:12,10.1.1.12,39,-0.069,-0.069,-0.069,0.000,0.000,0.000
1643146573030791168,2022-01-25-21:36:13,10.1.1.12,38,-0.059,-0.059,-0.059,0.000,0.000,0.000
1643146573231079168,2022-01-25-21:36:13,10.1.1.12,37,-0.049,-0.049,-0.049,0.000,0.000,0.000
1643146573432468992,2022-01-25-21:36:13,10.1.1.12,36,-0.039,-0.039,-0.039,0.000,0.000,0.000
1643146573633070848,2022-01-25-21:36:13,10.1.1.12,36,-0.030,-0.030,-0.030,0.000,0.000,0.000
1643146573830707968,2022-01-25-21:36:13,10.1.1.12,32,-0.020,-0.020,-0.020,0.000,0.000,0.000
1643146574050230016,2022-01-25-21:36:14,10.1.1.12,34,-0.010,-0.010,-0.010,0.000,0.000,0.000
1643146574212784128,2022-01-25-21:36:14,10.1.1.12,7,-0.001,-0.001,-0.001,0.000,0.000,0.000
1643146574466434048,2022-01-25-21:36:14,10.1.1.12,60,-0.011,-0.011,-0.011,0.000,0.000,0.000
1643146574651159040,2022-01-25-21:36:14,10.1.1.12,43,-0.021,-0.021,-0.021,0.000,0.000,0.000
1643146574855025920,2022-01-25-21:36:14,10.1.1.12,44,-0.031,-0.031,-0.031,0.000,0.000,0.000
1643146575111099904,2022-01-25-21:36:15,10.1.1.12,88,-0.041,-0.041,-0.041,0.000,0.000,0.000
1643146575285558016,2022-01-25-21:36:15,10.1.1.12,57,-0.051,-0.051,-0.051,0.000,0.000,0.000
1643146575487073024,2022-01-25-21:36:15,10.1.1.12,55,-0.061,-0.061,-0.061,0.000,0.000,0.000
1643146575675815936,2022-01-25-21:36:15,10.1.1.12,43,-0.071,-0.071,-0.071,0.000,0.000,0.000
1643146575886476032,2022-01-25-21:36:15,10.1.1.12,49,-0.080,-0.080,-0.080,0.000,0.000,0.000
1643146576073518080,2022-01-25-21:36:16,10.1.1.12,18,-0.090,-0.090,-0.090,0.000,0.000,0.000
1643146576298465024,2022-01-25-21:36:16,10.1.1.12,39,-0.100,-0.100,-0.100,0.000,0.000,0.000
1643146576493985024,2022-01-25-21:36:16,10.1.1.12,34,-0.110,-0.110,-0.110,0.000,0.000,0.000
1643146576690974976,2022-01-25-21:36:16,10.1.1.12,30,-0.120,-0.120,-0.120,0.000,0.000,0.000
1643146576891249920,2022-01-25-21:36:16,10.1.1.12,28,-0.130,-0.130,-0.130,0.000,0.000,0.000
1643146577091325952,2022-01-25-21:36:17,10.1.1.12,25,-0.140,-0.140,-0.140,0.000,0.000,0.000
1643146577310748928,2022-01-25-21:36:17,10.1.1.12,43,-0.151,-0.151,-0.151,0.000,0.000,0.000
1643146577510662912,2022-01-25-21:36:17,10.1.1.12,42,-0.161,-0.161,-0.161,0.000,0.000,0.000
1643146577711851008,2022-01-25-21:36:17,10.1.1.12,42,-0.171,-0.171,-0.171,0.000,0.000,0.000
1643146577910515968,2022-01-25-21:36:17,10.1.1.12,39,-0.181,-0.181,-0.181,0.000,0.000,0.000
1643146578112257024,2022-01-25-21:36:18,10.1.1.12,39,-0.191,-0.191,-0.191,0.000,0.000,0.000
1643146578311148032,2022-01-25-21:36:18,10.1.1.12,38,-0.201,-0.201,-0.201,0.000,0.000,0.000
1643146578510278912,2022-01-25-21:36:18,10.1.1.12,34,-0.211,-0.211,-0.211,0.000,0.000,0.000
1643146578731343104,2022-01-25-21:36:18,10.1.1.12,54,-0.221,-0.221,-0.221,0.000,0.000,0.000
1643146578910898944,2022-01-25-21:36:18,10.1.1.12,34,-0.230,-0.230,-0.230,0.000,0.000,0.000
1643146579111028992,2022-01-25-21:36:19,10.1.1.12,33,-0.240,-0.240,-0.240,0.000,0.000,0.000
1643146579312710912,2022-01-25-21:36:19,10.1.1.12,34,-0.250,-0.250,-0.250,0.000,0.000,0.000
1643146579513248000,2022-01-25-21:36:19,10.1.1.12,33,-0.260,-0.260,-0.260,0.000,0.000,0.000
1643146579711355904,2022-01-25-21:36:19,10.1.1.12,29,-0.270,-0.270,-0.270,0.000,0.000,0.000
1643146579910331904,2022-01-25-21:36:19,10.1.1.12,26,-0.280,-0.280,-0.280,0.000,0.000,0.000
1643146580195049984,2022-01-25-21:36:20,10.1.1.12,110,-0.291,-0.291,-0.291,0.000,0.000,0.000
1643146580392322048,2022-01-25-21:36:20,10.1.1.12,56,-0.301,-0.301,-0.301,0.000,0.000,0.000
1643146580634278144,2022-01-25-21:36:20,10.1.1.12,96,-0.311,-0.311,-0.311,0.000,0.000,0.000
1643146580812797952,2022-01-25-21:36:20,10.1.1.12,41,-0.321,-0.321,-0.321,0.000,0.000,0.000
1643146581036020992,2022-01-25-21:36:21,10.1.1.12,63,-0.331,-0.331,-0.331,0.000,0.000,0.000
1643146581210119936,2022-01-25-21:36:21,10.1.1.12,36,-0.341,-0.341,-0.341,0.000,0.000,0.000
1643146581410744832,2022-01-25-21:36:21,10.1.1.12,34,-0.350,-0.350,-0.350,0.000,0.000,0.000
1643146581612946944,2022-01-25-21:36:21,10.1.1.12,35,-0.360,-0.360,-0.360,0.000,0.000,0.000
1643146581810667008,2022-01-25-21:36:21,10.1.1.12,31,-0.370,-0.370,-0.370,0.000,0.000,0.000
1643146582020467968,2022-01-25-21:36:22,10.1.1.12,34,-0.380,-0.380,-0.380,0.000,0.000,0.000
1643146582210793984,2022-01-25-21:36:22,10.1.1.12,29,-0.390,-0.390,-0.390,0.000,0.000,0.000
1643146582417870080,2022-01-25-21:36:22,10.1.1.12,35,-0.400,-0.400,-0.400,0.000,0.000,0.000
1643146582612087040,2022-01-25-21:36:22,10.1.1.12,28,-0.410,-0.410,-0.410,0.000,0.000,0.000
1643146582810302976,2022-01-25-21:36:22,10.1.1.12,24,-0.420,-0.420,-0.420,0.000,0.000,0.000
1643146583030607872,2022-01-25-21:36:23,10.1.1.12,43,-0.431,-0.431,-0.431,0.000,0.000,0.000
1643146583230632960,2022-01-25-21:36:23,10.1.1.12,42,-0.441,-0.441,-0.441,0.000,0.000,0.000
1643146583431024128,2022-01-25-21:36:23,10.1.1.12,41,-0.451,-0.451,-0.451,0.000,0.000,0.000
1643146583630665984,2022-01-25-21:36:23,10.1.1.12,40,-0.461,-0.461,-0.461,0.000,0.000,0.000
1643146583833579008,2022-01-25-21:36:23,10.1.1.12,35,-0.470,-0.470,-0.470,0.000,0.000,0.000
1643146584030556928,2022-01-25-21:36:24,10.1.1.12,31,-0.480,-0.480,-0.480,0.000,0.000,0.000
1643146584210736128,2022-01-25-21:36:24,10.1.1.12,10,-0.489,-0.489,-0.489,0.000,0.000,0.000
1643146584430976000,2022-01-25-21:36:24,10.1.1.12,27,-0.480,-0.480,-0.480,0.000,0.000,0.000
1643146584631841792,2022-01-25-21:36:24,10.1.1.12,26,-0.470,-0.470,-0.470,0.000,0.000,0.000
1643146584831885056,2022-01-25-21:36:24,10.1.1.12,25,-0.460,-0.460,-0.460,0.000,0.000,0.000
1643146585050405120,2022-01-25-21:36:25,10.1.1.12,43,-0.449,-0.449,-0.449,0.000,0.000,0.000
1643146585250952960,2022-01-25-21:36:25,10.1.1.12,43,-0.439,-0.439,-0.439,0.000,0.000,0.000
1643146585451486976,2022-01-25-21:36:25,10.1.1.12,42,-0.429,-0.429,-0.429,0.000,0.000,0.000
1643146585650744064,2022-01-25-21:36:25,10.1.1.12,41,-0.419,-0.419,-0.419,0.000,0.000,0.000
1643146585851800064,2022-01-25-21:36:25,10.1.1.12,41,-0.409,-0.409,-0.409,0.000,0.000,0.000
1643146586050769920,2022-01-25-21:36:26,10.1.1.12,39,-0.399,-0.399,-0.399,0.000,0.000,0.000
1643146586252450816,2022-01-25-21:36:26,10.1.1.12,40,-0.389,-0.389,-0.389,0.000,0.000,0.000
1643146586451826944,2022-01-25-21:36:26,10.1.1.12,38,-0.379,-0.379,-0.379,0.000,0.000,0.000
1643146586652646144,2022-01-25-21:36:26,10.1.1.12,38,-0.369,-0.369,-0.369,0.000,0.000,0.000
1643146586851094016,2022-01-25-21:36:26,10.1.1.12,35,-0.359,-0.359,-0.359,0.000,0.000,0.000
1643146587050811136,2022-01-25-21:36:27,10.1.1.12,34,-0.350,-0.350,-0.350,0.000,0.000,0.000
1643146587250774016,2022-01-25-21:36:27,10.1.1.12,31,-0.340,-0.340,-0.340,0.000,0.000,0.000
1643146587453241088,2022-01-25-21:36:27,10.1.1.12,33,-0.330,-0.330,-0.330,0.000,0.000,0.000
1643146587651094016,2022-01-25-21:36:27,10.1.1.12,30,-0.320,-0.320,-0.320,0.000,0.000,0.000
1643146587852324096,2022-01-25-21:36:27,10.1.1.12,31,-0.310,-0.310,-0.310,0.000,0.000,0.000
1643146588051289088,2022-01-25-21:36:28,10.1.1.12,27,-0.300,-0.300,-0.300,0.000,0.000,0.000
1643146588250614784,2022-01-25-21:36:28,10.1.1.12,26,-0.290,-0.290,-0.290,0.000,0.000,0.000
1643146588450802176,2022-01-25-21:36:28,10.1.1.12,25,-0.280,-0.280,-0.280,0.000,0.000,0.000
1643146588671390976,2022-01-25-21:36:28,10.1.1.12,44,-0.269,-0.269,-0.269,0.000,0.000,0.000
1643146588872921088,2022-01-25-21:36:28,10.1.1.12,44,-0.259,-0.259,-0.259,0.000,0.000,0.000
1643146589070064128,2022-01-25-21:36:29,10.1.1.12,40,-0.249,-0.249,-0.249,0.000,0.000,0.000
1643146589270585088,2022-01-25-21:36:29,10.1.1.12,39,-0.239,-0.239,-0.239,0.000,0.000,0.000
1643146589491803904,2022-01-25-21:36:29,10.1.1.12,37,-0.230,-0.230,-0.230,0.000,0.000,0.000
1643146589670996992,2022-01-25-21:36:29,10.1.1.12,34,-0.220,-0.220,-0.220,0.000,0.000,0.000
1643146589870497024,2022-01-25-21:36:29,10.1.1.12,32,-0.210,-0.210,-0.210,0.000,0.000,0.000
1643146590071179008,2022-01-25-21:36:30,10.1.1.12,31,-0.200,-0.200,-0.200,0.000,0.000,0.000
1643146590270927872,2022-01-25-21:36:30,10.1.1.12,29,-0.190,-0.190,-0.190,0.000,0.000,0.000
1643146590470796032,2022-01-25-21:36:30,10.1.1.12,26,-0.180,-0.180,-0.180,0.000,0.000,0.000
1643146590672008960,2022-01-25-21:36:30,10.1.1.12,26,-0.170,-0.170,-0.170,0.000,0.000,0.000
1643146590890925056,2022-01-25-21:36:30,10.1.1.12,43,-0.159,-0.159,-0.159,0.000,0.000,0.000
1643146591118743808,2022-01-25-21:36:31,10.1.1.12,69,-0.149,-0.149,-0.149,0.000,0.000,0.000
1643146591293613824,2022-01-25-21:36:31,10.1.1.12,39,-0.139,-0.139,-0.139,0.000,0.000,0.000
1643146591515668992,2022-01-25-21:36:31,10.1.1.12,61,-0.129,-0.129,-0.129,0.000,0.000,0.000
1643146591693985024,2022-01-25-21:36:31,10.1.1.12,36,-0.120,-0.120,-0.120,0.000,0.000,0.000
1643146591892635136,2022-01-25-21:36:31,10.1.1.12,19,-0.110,-0.110,-0.110,0.000,0.000,0.000
1643146592112706048,2022-01-25-21:36:32,10.1.1.12,38,-0.099,-0.099,-0.099,0.000,0.000,0.000
1643146592311386112,2022-01-25-21:36:32,10.1.1.12,36,-0.089,-0.089,-0.089,0.000,0.000,0.000
1643146592541245952,2022-01-25-21:36:32,10.1.1.12,61,-0.080,-0.080,-0.080,0.000,0.000,0.000
1643146592746964992,2022-01-25-21:36:32,10.1.1.12,50,-0.070,-0.070,-0.070,0.000,0.000,0.000
1643146593008404992,2022-01-25-21:36:33,10.1.1.12,88,-0.060,-0.060,-0.060,0.000,0.000,0.000
1643146593152756992,2022-01-25-21:36:33,10.1.1.12,31,-0.050,-0.050,-0.050,0.000,0.000,0.000
1643146593371145984,2022-01-25-21:36:33,10.1.1.12,44,-0.039,-0.039,-0.039,0.000,0.000,0.000
1643146593572030976,2022-01-25-21:36:33,10.1.1.12,41,-0.029,-0.029,-0.029,0.000,0.000,0.000
1643146593771635968,2022-01-25-21:36:33,10.1.1.12,39,-0.019,-0.019,-0.019,0.000,0.000,0.000
1643146593971014144,2022-01-25-21:36:33,10.1.1.12,37,-0.009,-0.009,-0.009,0.000,0.000,0.000
1643146594152112128,2022-01-25-21:36:34,10.1.1.12,16,-0.000,-0.000,-0.000,0.000,0.000,0.000
1643146594370536960,2022-01-25-21:36:34,10.1.1.12,34,-0.010,-0.010,-0.010,0.000,0.000,0.000
1643146594571078144,2022-01-25-21:36:34,10.1.1.12,33,-0.020,-0.020,-0.020,0.000,0.000,0.000
1643146594770366976,2022-01-25-21:36:34,10.1.1.12,30,-0.030,-0.030,-0.030,0.000,0.000,0.000
1643146594973212928,2022-01-25-21:36:34,10.1.1.12,31,-0.040,-0.040,-0.040,0.000,0.000,0.000
1643146595170727936,2022-01-25-21:36:35,10.1.1.12,26,-0.050,-0.050,-0.050,0.000,0.000,0.000
1643146595391422976,2022-01-25-21:36:35,10.1.1.12,46,-0.061,-0.061,-0.061,0.000,0.000,0.000
1643146595572510976,2022-01-25-21:36:35,10.1.1.12,20,-0.070,-0.070,-0.070,0.000,0.000,0.000
1643146595791808000,2022-01-25-21:36:35,10.1.1.12,37,-0.081,-0.081,-0.081,0.000,0.000,0.000
1643146596005708032,2022-01-25-21:36:36,10.1.1.12,48,-0.090,-0.090,-0.090,0.000,0.000,0.000
1643146596215344896,2022-01-25-21:36:36,10.1.1.12,13,-0.100,-0.100,-0.100,0.000,0.000,0.000
1643146596431207936,2022-01-25-21:36:36,10.1.1.12,26,-0.110,-0.110,-0.110,0.000,0.000,0.000
1643146596631182080,2022-01-25-21:36:36,10.1.1.12,22,-0.120,-0.120,-0.120,0.000,0.000,0.000
1643146596851942144,2022-01-25-21:36:36,10.1.1.12,41,-0.131,-0.131,-0.131,0.000,0.000,0.000
1643146597051499008,2022-01-25-21:36:37,10.1.1.12,40,-0.141,-0.141,-0.141,0.000,0.000,0.000
1643146597250979840,2022-01-25-21:36:37,10.1.1.12,38,-0.151,-0.151,-0.151,0.000,0.000,0.000
1643146597450377984,2022-01-25-21:36:37,10.1.1.12,37,-0.161,-0.161,-0.161,0.000,0.000,0.000
1643146597650600960,2022-01-25-21:36:37,10.1.1.12,37,-0.171,-0.171,-0.171,0.000,0.000,0.000
1643146597851908096,2022-01-25-21:36:37,10.1.1.12,36,-0.181,-0.181,-0.181,0.000,0.000,0.000
1643146598105904128,2022-01-25-21:36:38,10.1.1.12,76,-0.190,-0.190,-0.190,0.000,0.000,0.000
1643146598286567936,2022-01-25-21:36:38,10.1.1.12,66,-0.201,-0.201,-0.201,0.000,0.000,0.000
1643146598487639040,2022-01-25-21:36:38,10.1.1.12,65,-0.211,-0.211,-0.211,0.000,0.000,0.000
1643146599030395904,2022-01-25-21:36:39,10.1.1.12,125,-0.221,-0.221,-0.221,0.000,0.000,0.000
1643146599241936896,2022-01-25-21:36:39,10.1.1.12,58,-0.231,-0.231,-0.231,0.000,0.000,0.000
1643146599916100096,2022-01-25-21:36:39,10.1.1.12,102,-0.251,-0.251,-0.251,0.000,0.000,0.000
1643146600498799104,2022-01-25-21:36:40,10.1.1.12,235,-0.260,-0.260,-0.260,0.000,0.000,0.000
1643146600707230976,2022-01-25-21:36:40,10.1.1.12,108,-0.271,-0.271,-0.271,0.000,0.000,0.000
1643146600904519936,2022-01-25-21:36:40,10.1.1.12,77,-0.281,-0.281,-0.281,0.000,0.000,0.000
1643146601166284032,2022-01-25-21:36:41,10.1.1.12,-61,-0.286,-0.286,-0.286,0.000,0.000,0.000
1643146601801094144,2022-01-25-21:36:41,10.1.1.12,162,-0.311,-0.311,-0.311,0.000,0.000,0.000
1643146601964843008,2022-01-25-21:36:41,10.1.1.12,109,-0.321,-0.321,-0.321,0.000,0.000,0.000
1643146602207278848,2022-01-25-21:36:42,10.1.1.12,129,-0.330,-0.330,-0.330,0.000,0.000,0.000
1643146602608861952,2022-01-25-21:36:42,10.1.1.12,62,-0.341,-0.341,-0.341,0.000,0.000,0.000
1643146602862967040,2022-01-25-21:36:42,10.1.1.12,253,-0.351,-0.351,-0.351,0.000,0.000,0.000
1643146603020081152,2022-01-25-21:36:43,10.1.1.12,93,-0.361,-0.361,-0.361,0.000,0.000,0.000
1643146603344073984,2022-01-25-21:36:43,10.1.1.12,146,-0.371,-0.371,-0.371,0.000,0.000,0.000
1643146603584985088,2022-01-25-21:36:43,10.1.1.12,70,-0.381,-0.381,-0.381,0.000,0.000,0.000
1643146603830668032,2022-01-25-21:36:43,10.1.1.12,46,-0.390,-0.390,-0.390,0.000,0.000,0.000
1643146604040796928,2022-01-25-21:36:44,10.1.1.12,52,-0.400,-0.400,-0.400,0.000,0.000,0.000
1643146604244605952,2022-01-25-21:36:44,10.1.1.12,53,-0.411,-0.411,-0.411,0.000,0.000,0.000
1643146604418398976,2022-01-25-21:36:44,10.1.1.12,31,-0.420,-0.420,-0.420,0.000,0.000,0.000
1643146604617825024,2022-01-25-21:36:44,10.1.1.12,29,-0.430,-0.430,-0.430,0.000,0.000,0.000
1643146604816704000,2022-01-25-21:36:44,10.1.1.12,27,-0.440,-0.440,-0.440,0.000,0.000,0.000
1643146605110732032,2022-01-25-21:36:45,10.1.1.12,80,-0.450,-0.450,-0.450,0.000,0.000,0.000
1643146605376720896,2022-01-25-21:36:45,10.1.1.12,88,-0.461,-0.461,-0.461,0.000,0.000,0.000
1643146605635570944,2022-01-25-21:36:45,10.1.1.12,116,-0.470,-0.470,-0.470,0.000,0.000,0.000
1643146605801801984,2022-01-25-21:36:45,10.1.1.12,49,-0.481,-0.481,-0.481,0.000,0.000,0.000
1643146605968610048,2022-01-25-21:36:45,10.1.1.12,14,-0.489,-0.489,-0.489,0.000,0.000,0.000
1643146606197838080,2022-01-25-21:36:46,10.1.1.12,42,-0.479,-0.479,-0.479,0.000,0.000,0.000
1643146606397771008,2022-01-25-21:36:46,10.1.1.12,40,-0.469,-0.469,-0.469,0.000,0.000,0.000
1643146606604907008,2022-01-25-21:36:46,10.1.1.12,46,-0.459,-0.459,-0.459,0.000,0.000,0.000
1643146606862797056,2022-01-25-21:36:46,10.1.1.12,66,-0.450,-0.450,-0.450,0.000,0.000,0.000
1643146607076015872,2022-01-25-21:36:47,10.1.1.12,52,-0.440,-0.440,-0.440,0.000,0.000,0.000
1643146607288547072,2022-01-25-21:36:47,10.1.1.12,48,-0.429,-0.429,-0.429,0.000,0.000,0.000
1643146607605751040,2022-01-25-21:36:47,10.1.1.12,127,-0.419,-0.419,-0.419,0.000,0.000,0.000
1643146607679256064,2022-01-25-21:36:47,10.1.1.12,37,-0.410,-0.410,-0.410,0.000,0.000,0.000
1643146607987188224,2022-01-25-21:36:47,10.1.1.12,88,-0.400,-0.400,-0.400,0.000,0.000,0.000
1643146608374416128,2022-01-25-21:36:48,10.1.1.12,146,-0.390,-0.390,-0.390,0.000,0.000,0.000
1643146608426461952,2022-01-25-21:36:48,10.1.1.12,50,-0.380,-0.380,-0.380,0.000,0.000,0.000
1643146608620284160,2022-01-25-21:36:48,10.1.1.12,42,-0.369,-0.369,-0.369,0.000,0.000,0.000
1643146608862337024,2022-01-25-21:36:48,10.1.1.12,42,-0.359,-0.359,-0.359,0.000,0.000,0.000
1643146609058306816,2022-01-25-21:36:49,10.1.1.12,37,-0.349,-0.349,-0.349,0.000,0.000,0.000
1643146609310317056,2022-01-25-21:36:49,10.1.1.12,54,-0.339,-0.339,-0.339,0.000,0.000,0.000
1643146609535880960,2022-01-25-21:36:49,10.1.1.12,97,-0.329,-0.329,-0.329,0.000,0.000,0.000
1643146609705281024,2022-01-25-21:36:49,10.1.1.12,64,-0.319,-0.319,-0.319,0.000,0.000,0.000
1643146609887293952,2022-01-25-21:36:49,10.1.1.12,43,-0.310,-0.310,-0.310,0.000,0.000,0.000
1643146610235870976,2022-01-25-21:36:50,10.1.1.12,144,-0.300,-0.300,-0.300,0.000,0.000,0.000
1643146610353053952,2022-01-25-21:36:50,10.1.1.12,81,-0.289,-0.289,-0.289,0.000,0.000,0.000
1643146610588478976,2022-01-25-21:36:50,10.1.1.12,115,-0.279,-0.279,-0.279,0.000,0.000,0.000
1643146610924334080,2022-01-25-21:36:50,10.1.1.12,129,-0.269,-0.269,-0.269,0.000,0.000,0.000
1643146611003254784,2022-01-25-21:36:51,10.1.1.12,59,-0.260,-0.260,-0.260,0.000,0.000,0.000
1643146611262458112,2022-01-25-21:36:51,10.1.1.12,115,-0.249,-0.249,-0.249,0.000,0.000,0.000
1643146611422106112,2022-01-25-21:36:51,10.1.1.12,45,-0.239,-0.239,-0.239,0.000,0.000,0.000
1643146611616888064,2022-01-25-21:36:51,10.1.1.12,56,-0.229,-0.229,-0.229,0.000,0.000,0.000
1643146611819138048,2022-01-25-21:36:51,10.1.1.12,34,-0.220,-0.220,-0.220,0.000,0.000,0.000
1643146612061989120,2022-01-25-21:36:52,10.1.1.12,71,-0.209,-0.209,-0.209,0.000,0.000,0.000
1643146612252955904,2022-01-25-21:36:52,10.1.1.12,58,-0.199,-0.199,-0.199,0.000,0.000,0.000
1643146612624710912,2022-01-25-21:36:52,10.1.1.12,189,-0.189,-0.189,-0.189,0.000,0.000,0.000
1643146612915347968,2022-01-25-21:36:52,10.1.1.12,62,-0.179,-0.179,-0.179,0.000,0.000,0.000
1643146613068909824,2022-01-25-21:36:53,10.1.1.12,109,-0.169,-0.169,-0.169,0.000,0.000,0.000
1643146613242502912,2022-01-25-21:36:53,10.1.1.12,68,-0.159,-0.159,-0.159,0.000,0.000,0.000
1643146613636251904,2022-01-25-21:36:53,10.1.1.12,209,-0.149,-0.149,-0.149,0.000,0.000,0.000
1643146613732614144,2022-01-25-21:36:53,10.1.1.12,71,-0.139,-0.139,-0.139,0.000,0.000,0.000
1643146613912349952,2022-01-25-21:36:53,10.1.1.12,17,-0.130,-0.130,-0.130,0.000,0.000,0.000
1643146614188544000,2022-01-25-21:36:54,10.1.1.12,38,-0.120,-0.120,-0.120,0.000,0.000,0.000
1643146614399729920,2022-01-25-21:36:54,10.1.1.12,8,-0.110,-0.110,-0.110,0.000,0.000,0.000
1643146614648907008,2022-01-25-21:36:54,10.1.1.12,41,-0.100,-0.100,-0.100,0.000,0.000,0.000
1643146614867222016,2022-01-25-21:36:54,10.1.1.12,59,-0.089,-0.089,-0.089,0.000,0.000,0.000
1643146615139048192,2022-01-25-21:36:55,10.1.1.12,66,-0.080,-0.080,-0.080,0.000,0.000,0.000
1643146615297815040,2022-01-25-21:36:55,10.1.1.12,-1,-0.077,-0.077,-0.077,0.000,0.000,0.000
1643146615535567104,2022-01-25-21:36:55,10.1.1.12,-22,-0.063,-0.063,-0.063,0.000,0.000,0.000
1643146615888636160,2022-01-25-21:36:55,10.1.1.12,67,-0.049,-0.049,-0.049,0.000,0.000,0.000
1643146616099867136,2022-01-25-21:36:56,10.1.1.12,73,-0.040,-0.040,-0.040,0.000,0.000,0.000
1643146616311363840,2022-01-25-21:36:56,10.1.1.12,45,-0.030,-0.030,-0.030,0.000,0.000,0.000
1643146616551130112,2022-01-25-21:36:56,10.1.1.12,40,-0.020,-0.020,-0.020,0.000,0.000,0.000
1643146616780669952,2022-01-25-21:36:56,10.1.1.12,57,-0.010,-0.010,-0.010,0.000,0.000,0.000
1643146616955322112,2022-01-25-21:36:56,10.1.1.12,-1,-0.009,-0.009,-0.009,0.000,0.000,0.000
1643146617195929088,2022-01-25-21:36:57,10.1.1.12,53,-0.011,-0.011,-0.011,0.000,0.000,0.000
1643146617379739904,2022-01-25-21:36:57,10.1.1.12,36,-0.020,-0.020,-0.020,0.000,0.000,0.000
1643146617599833856,2022-01-25-21:36:57,10.1.1.12,36,-0.030,-0.030,-0.030,0.000,0.000,0.000
1643146617823180032,2022-01-25-21:36:57,10.1.1.12,46,-0.041,-0.041,-0.041,0.000,0.000,0.000
1643146618416649984,2022-01-25-21:36:58,10.1.1.12,107,-0.061,-0.061,-0.061,0.000,0.000,0.000
1643146618558738944,2022-01-25-21:36:58,10.1.1.12,27,-0.070,-0.070,-0.070,0.000,0.000,0.000
1643146618756758016,2022-01-25-21:36:58,10.1.1.12,41,-0.081,-0.081,-0.081,0.000,0.000,0.000
1643146618956258048,2022-01-25-21:36:58,10.1.1.12,35,-0.090,-0.090,-0.090,0.000,0.000,0.000
1643146619157043968,2022-01-25-21:36:59,10.1.1.12,35,-0.101,-0.101,-0.101,0.000,0.000,0.000
1643146619375322112,2022-01-25-21:36:59,10.1.1.12,46,-0.110,-0.110,-0.110,0.000,0.000,0.000
1643146619594616064,2022-01-25-21:36:59,10.1.1.12,62,-0.120,-0.120,-0.120,0.000,0.000,0.000
1643146619848498176,2022-01-25-21:36:59,10.1.1.12,115,-0.131,-0.131,-0.131,0.000,0.000,0.000
1643146619988616960,2022-01-25-21:36:59,10.1.1.12,50,-0.141,-0.141,-0.141,0.000,0.000,0.000
1643146620279570176,2022-01-25-21:37:00,10.1.1.12,91,-0.151,-0.151,-0.151,0.000,0.000,0.000
1643146620543091968,2022-01-25-21:37:00,10.1.1.12,121,-0.161,-0.161,-0.161,0.000,0.000,0.000
1643146620735292928,2022-01-25-21:37:00,10.1.1.12,102,-0.171,-0.171,-0.171,0.000,0.000,0.000
1643146620912316928,2022-01-25-21:37:00,10.1.1.12,78,-0.181,-0.181,-0.181,0.000,0.000,0.000
1643146621144766976,2022-01-25-21:37:01,10.1.1.12,84,-0.191,-0.191,-0.191,0.000,0.000,0.000
1643146621370897152,2022-01-25-21:37:01,10.1.1.12,88,-0.201,-0.201,-0.201,0.000,0.000,0.000
1643146621574695936,2022-01-25-21:37:01,10.1.1.12,98,-0.211,-0.211,-0.211,0.000,0.000,0.000
1643146621730089984,2022-01-25-21:37:01,10.1.1.12,48,-0.221,-0.221,-0.221,0.000,0.000,0.000
1643146621934770176,2022-01-25-21:37:01,10.1.1.12,48,-0.230,-0.230,-0.230,0.000,0.000,0.000
1643146622155554048,2022-01-25-21:37:02,10.1.1.12,50,-0.241,-0.241,-0.241,0.000,0.000,0.000
1643146622356125184,2022-01-25-21:37:02,10.1.1.12,56,-0.251,-0.251,-0.251,0.000,0.000,0.000
1643146622643380992,2022-01-25-21:37:02,10.1.1.12,100,-0.260,-0.260,-0.260,0.000,0.000,0.000
1643146622794206976,2022-01-25-21:37:02,10.1.1.12,77,-0.271,-0.271,-0.271,0.000,0.000,0.000
1643146622956973056,2022-01-25-21:37:02,10.1.1.12,39,-0.281,-0.281,-0.281,0.000,0.000,0.000
1643146623163655936,2022-01-25-21:37:03,10.1.1.12,33,-0.290,-0.290,-0.290,0.000,0.000,0.000
1643146623466480896,2022-01-25-21:37:03,10.1.1.12,114,-0.300,-0.300,-0.300,0.000,0.000,0.000
1643146623695497984,2022-01-25-21:37:03,10.1.1.12,109,-0.310,-0.310,-0.310,0.000,0.000,0.000
1643146623935641088,2022-01-25-21:37:03,10.1.1.12,96,-0.320,-0.320,-0.320,0.000,0.000,0.000
1643146624115111168,2022-01-25-21:37:04,10.1.1.12,62,-0.330,-0.330,-0.330,0.000,0.000,0.000
1643146624279148032,2022-01-25-21:37:04,10.1.1.12,30,-0.340,-0.340,-0.340,0.000,0.000,0.000
1643146624499036928,2022-01-25-21:37:04,10.1.1.12,48,-0.351,-0.351,-0.351,0.000,0.000,0.000
1643146624698390016,2022-01-25-21:37:04,10.1.1.12,44,-0.361,-0.361,-0.361,0.000,0.000,0.000
1643146624903749888,2022-01-25-21:37:04,10.1.1.12,48,-0.371,-0.371,-0.371,0.000,0.000,0.000
1643146625097613056,2022-01-25-21:37:05,10.1.1.12,42,-0.381,-0.381,-0.381,0.000,0.000,0.000
1643146625310633984,2022-01-25-21:37:05,10.1.1.12,47,-0.391,-0.391,-0.391,0.000,0.000,0.000
1643146625498019072,2022-01-25-21:37:05,10.1.1.12,41,-0.401,-0.401,-0.401,0.000,0.000,0.000
1643146625698636032,2022-01-25-21:37:05,10.1.1.12,40,-0.411,-0.411,-0.411,0.000,0.000,0.000
1643146625923747072,2022-01-25-21:37:05,10.1.1.12,62,-0.421,-0.421,-0.421,0.000,0.000,0.000
1643146626119784960,2022-01-25-21:37:06,10.1.1.12,44,-0.431,-0.431,-0.431,0.000,0.000,0.000
1643146626338242048,2022-01-25-21:37:06,10.1.1.12,48,-0.441,-0.441,-0.441,0.000,0.000,0.000
1643146626596893184,2022-01-25-21:37:06,10.1.1.12,73,-0.451,-0.451,-0.451,0.000,0.000,0.000
1643146626741940992,2022-01-25-21:37:06,10.1.1.12,46,-0.461,-0.461,-0.461,0.000,0.000,0.000
1643146626980585216,2022-01-25-21:37:06,10.1.1.12,40,-0.470,-0.470,-0.470,0.000,0.000,0.000
1643146627162172928,2022-01-25-21:37:07,10.1.1.12,-20,-0.477,-0.477,-0.477,0.000,0.000,0.000
1643146627366466048,2022-01-25-21:37:07,10.1.1.12,14,-0.490,-0.490,-0.490,0.000,0.000,0.000
1643146627578661888,2022-01-25-21:37:07,10.1.1.12,31,-0.480,-0.480,-0.480,0.000,0.000,0.000
1643146627778326016,2022-01-25-21:37:07,10.1.1.12,29,-0.470,-0.470,-0.470,0.000,0.000,0.000
1643146627983869952,2022-01-25-21:37:07,10.1.1.12,33,-0.460,-0.460,-0.460,0.000,0.000,0.000
1643146628195430144,2022-01-25-21:37:08,10.1.1.12,43,-0.450,-0.450,-0.450,0.000,0.000,0.000
1643146628428606976,2022-01-25-21:37:08,10.1.1.12,69,-0.439,-0.439,-0.439,0.000,0.000,0.000
1643146628611697920,2022-01-25-21:37:08,10.1.1.12,40,-0.430,-0.430,-0.430,0.000,0.000,0.000
1643146628822948096,2022-01-25-21:37:08,10.1.1.12,44,-0.419,-0.419,-0.419,0.000,0.000,0.000
1643146629020423936,2022-01-25-21:37:09,10.1.1.12,42,-0.409,-0.409,-0.409,0.000,0.000,0.000
1643146629218610944,2022-01-25-21:37:09,10.1.1.12,39,-0.399,-0.399,-0.399,0.000,0.000,0.000
1643146629418746112,2022-01-25-21:37:09,10.1.1.12,38,-0.389,-0.389,-0.389,0.000,0.000,0.000
1643146629704956160,2022-01-25-21:37:09,10.1.1.12,111,-0.380,-0.380,-0.380,0.000,0.000,0.000
1643146629895241984,2022-01-25-21:37:09,10.1.1.12,51,-0.370,-0.370,-0.370,0.000,0.000,0.000
1643146630148376064,2022-01-25-21:37:10,10.1.1.12,63,-0.359,-0.359,-0.359,0.000,0.000,0.000
1643146630357268992,2022-01-25-21:37:10,10.1.1.12,56,-0.349,-0.349,-0.349,0.000,0.000,0.000
1643146630624078080,2022-01-25-21:37:10,10.1.1.12,86,-0.339,-0.339,-0.339,0.000,0.000,0.000
1643146630778163968,2022-01-25-21:37:10,10.1.1.12,56,-0.329,-0.329,-0.329,0.000,0.000,0.000
1643146630974642944,2022-01-25-21:37:10,10.1.1.12,36,-0.320,-0.320,-0.320,0.000,0.000,0.000
1643146631167314176,2022-01-25-21:37:11,10.1.1.12,36,-0.310,-0.310,-0.310,0.000,0.000,0.000
1643146631373271040,2022-01-25-21:37:11,10.1.1.12,32,-0.300,-0.300,-0.300,0.000,0.000,0.000
1643146631561338880,2022-01-25-21:37:11,10.1.1.12,30,-0.290,-0.290,-0.290,0.000,0.000,0.000
1643146631794567168,2022-01-25-21:37:11,10.1.1.12,52,-0.279,-0.279,-0.279,0.000,0.000,0.000
1643146631979963136,2022-01-25-21:37:11,10.1.1.12,45,-0.269,-0.269,-0.269,0.000,0.000,0.000
1643146632179208960,2022-01-25-21:37:12,10.1.1.12,43,-0.259,-0.259,-0.259,0.000,0.000,0.000
1643146632377085952,2022-01-25-21:37:12,10.1.1.12,41,-0.249,-0.249,-0.249,0.000,0.000,0.000
1643146632597799936,2022-01-25-21:37:12,10.1.1.12,61,-0.239,-0.239,-0.239,0.000,0.000,0.000
1643146632778073088,2022-01-25-21:37:12,10.1.1.12,39,-0.230,-0.230,-0.230,0.000,0.000,0.000
1643146632995047936,2022-01-25-21:37:12,10.1.1.12,56,-0.219,-0.219,-0.219,0.000,0.000,0.000
1643146633182343936,2022-01-25-21:37:13,10.1.1.12,42,-0.209,-0.209,-0.209,0.000,0.000,0.000
1643146633407334144,2022-01-25-21:37:13,10.1.1.12,66,-0.199,-0.199,-0.199,0.000,0.000,0.000
1643146633616125952,2022-01-25-21:37:13,10.1.1.12,68,-0.190,-0.190,-0.190,0.000,0.000,0.000
1643146633777852928,2022-01-25-21:37:13,10.1.1.12,28,-0.180,-0.180,-0.180,0.000,0.000,0.000
1643146634025750016,2022-01-25-21:37:14,10.1.1.12,57,-0.170,-0.170,-0.170,0.000,0.000,0.000
1643146634198128896,2022-01-25-21:37:14,10.1.1.12,44,-0.159,-0.159,-0.159,0.000,0.000,0.000
1643146634408175104,2022-01-25-21:37:14,10.1.1.12,53,-0.149,-0.149,-0.149,0.000,0.000,0.000
1643146634597799936,2022-01-25-21:37:14,10.1.1.12,41,-0.139,-0.139,-0.139,0.000,0.000,0.000
1643146634797815040,2022-01-25-21:37:14,10.1.1.12,41,-0.129,-0.129,-0.129,0.000,0.000,0.000
1643146635019886080,2022-01-25-21:37:15,10.1.1.12,61,-0.120,-0.120,-0.120,0.000,0.000,0.000
1643146635237679872,2022-01-25-21:37:15,10.1.1.12,55,-0.110,-0.110,-0.110,0.000,0.000,0.000
1643146635407936000,2022-01-25-21:37:15,10.1.1.12,5,-0.100,-0.100,-0.100,0.000,0.000,0.000
1643146635654932992,2022-01-25-21:37:15,10.1.1.12,28,-0.090,-0.090,-0.090,0.000,0.000,0.000
1643146635895313152,2022-01-25-21:37:15,10.1.1.12,55,-0.080,-0.080,-0.080,0.000,0.000,0.000
1643146636212322048,2022-01-25-21:37:16,10.1.1.12,100,-0.069,-0.069,-0.069,0.000,0.000,0.000
1643146636362569984,2022-01-25-21:37:16,10.1.1.12,41,-0.060,-0.060,-0.060,0.000,0.000,0.000
1643146636568061952,2022-01-25-21:37:16,10.1.1.12,53,-0.049,-0.049,-0.049,0.000,0.000,0.000
1643146636790769152,2022-01-25-21:37:16,10.1.1.12,58,-0.039,-0.039,-0.039,0.000,0.000,0.000
1643146636988739840,2022-01-25-21:37:16,10.1.1.12,40,-0.030,-0.030,-0.030,0.000,0.000,0.000
1643146637174484992,2022-01-25-21:37:17,10.1.1.12,45,-0.020,-0.020,-0.020,0.000,0.000,0.000
1643146637409085952,2022-01-25-21:37:17,10.1.1.12,59,-0.010,-0.010,-0.010,0.000,0.000,0.000
1643146637607873792,2022-01-25-21:37:17,10.1.1.12,42,-0.001,-0.001,-0.001,0.000,0.000,0.000
1643146637866967808,2022-01-25-21:37:17,10.1.1.12,62,-0.010,-0.010,-0.010,0.000,0.000,0.000
1643146638059535104,2022-01-25-21:37:18,10.1.1.12,45,-0.021,-0.021,-0.021,0.000,0.000,0.000
1643146638319611136,2022-01-25-21:37:18,10.1.1.12,69,-0.031,-0.031,-0.031,0.000,0.000,0.000
1643146638596320000,2022-01-25-21:37:18,10.1.1.12,113,-0.040,-0.040,-0.040,0.000,0.000,0.000
1643146638728975104,2022-01-25-21:37:18,10.1.1.12,80,-0.051,-0.051,-0.051,0.000,0.000,0.000
1643146638915298816,2022-01-25-21:37:18,10.1.1.12,30,-0.060,-0.060,-0.060,0.000,0.000,0.000
1643146639143847936,2022-01-25-21:37:19,10.1.1.12,68,-0.070,-0.070,-0.070,0.000,0.000,0.000
1643146639320480000,2022-01-25-21:37:19,10.1.1.12,42,-0.081,-0.081,-0.081,0.000,0.000,0.000
1643146639526285824,2022-01-25-21:37:19,10.1.1.12,40,-0.090,-0.090,-0.090,0.000,0.000,0.000
1643146639718068992,2022-01-25-21:37:19,10.1.1.12,30,-0.100,-0.100,-0.100,0.000,0.000,0.000
1643146639918016000,2022-01-25-21:37:19,10.1.1.12,29,-0.110,-0.110,-0.110,0.000,0.000,0.000
1643146640119919104,2022-01-25-21:37:20,10.1.1.12,29,-0.120,-0.120,-0.120,0.000,0.000,0.000
1643146640338560000,2022-01-25-21:37:20,10.1.1.12,45,-0.131,-0.131,-0.131,0.000,0.000,0.000
1643146640538747904,2022-01-25-21:37:20,10.1.1.12,44,-0.141,-0.141,-0.141,0.000,0.000,0.000
1643146640745976064,2022-01-25-21:37:20,10.1.1.12,50,-0.151,-0.151,-0.151,0.000,0.000,0.000
1643146640948219136,2022-01-25-21:37:20,10.1.1.12,51,-0.161,-0.161,-0.161,0.000,0.000,0.000
1643146641202240000,2022-01-25-21:37:21,10.1.1.12,69,-0.171,-0.171,-0.171,0.000,0.000,0.000
1643146641399266048,2022-01-25-21:37:21,10.1.1.12,57,-0.181,-0.181,-0.181,0.000,0.000,0.000
1643146641609588992,2022-01-25-21:37:21,10.1.1.12,37,-0.190,-0.190,-0.190,0.000,0.000,0.000
1643146641853472000,2022-01-25-21:37:21,10.1.1.12,68,-0.200,-0.200,-0.200,0.000,0.000,0.000
1643146642047017984,2022-01-25-21:37:22,10.1.1.12,61,-0.210,-0.210,-0.210,0.000,0.000,0.000
1643146642247101952,2022-01-25-21:37:22,10.1.1.12,59,-0.220,-0.220,-0.220,0.000,0.000,0.000
1643146642448535040,2022-01-25-21:37:22,10.1.1.12,39,-0.231,-0.231,-0.231,0.000,0.000,0.000
1643146642696419840,2022-01-25-21:37:22,10.1.1.12,78,-0.241,-0.241,-0.241,0.000,0.000,0.000
1643146642904544000,2022-01-25-21:37:22,10.1.1.12,68,-0.251,-0.251,-0.251,0.000,0.000,0.000
1643146643122363136,2022-01-25-21:37:23,10.1.1.12,78,-0.261,-0.261,-0.261,0.000,0.000,0.000
1643146643287439104,2022-01-25-21:37:23,10.1.1.12,50,-0.271,-0.271,-0.271,0.000,0.000,0.000
1643146643515681024,2022-01-25-21:37:23,10.1.1.12,75,-0.280,-0.280,-0.280,0.000,0.000,0.000
1643146643707778816,2022-01-25-21:37:23,10.1.1.12,62,-0.290,-0.290,-0.290,0.000,0.000,0.000
1643146643942552064,2022-01-25-21:37:23,10.1.1.12,95,-0.301,-0.301,-0.301,0.000,0.000,0.000
1643146644138885888,2022-01-25-21:37:24,10.1.1.12,66,-0.310,-0.310,-0.310,0.000,0.000,0.000
1643146644322505984,2022-01-25-21:37:24,10.1.1.12,61,-0.321,-0.321,-0.321,0.000,0.000,0.000
1643146644516951040,2022-01-25-21:37:24,10.1.1.12,52,-0.330,-0.330,-0.330,0.000,0.000,0.000
1643146644725336064,2022-01-25-21:37:24,10.1.1.12,52,-0.341,-0.341,-0.341,0.000,0.000,0.000
1643146644941745920,2022-01-25-21:37:24,10.1.1.12,67,-0.351,-0.351,-0.351,0.000,0.000,0.000
1643146645208491008,2022-01-25-21:37:25,10.1.1.12,88,-0.361,-0.361,-0.361,0.000,0.000,0.000
1643146645395843072,2022-01-25-21:37:25,10.1.1.12,70,-0.371,-0.371,-0.371,0.000,0.000,0.000
1643146645754219008,2022-01-25-21:37:25,10.1.1.12,179,-0.380,-0.380,-0.380,0.000,0.000,0.000
1643146645828152832,2022-01-25-21:37:25,10.1.1.12,45,-0.390,-0.390,-0.390,0.000,0.000,0.000
1643146646101018880,2022-01-25-21:37:26,10.1.1.12,104,-0.401,-0.401,-0.401,0.000,0.000,0.000
1643146646294344960,2022-01-25-21:37:26,10.1.1.12,70,-0.410,-0.410,-0.410,0.000,0.000,0.000
1643146646465347072,2022-01-25-21:37:26,10.1.1.12,30,-0.420,-0.420,-0.420,0.000,0.000,0.000
1643146646710882816,2022-01-25-21:37:26,10.1.1.12,76,-0.430,-0.430,-0.430,0.000,0.000,0.000
1643146646918315008,2022-01-25-21:37:26,10.1.1.12,54,-0.440,-0.440,-0.440,0.000,0.000,0.000
1643146647187202048,2022-01-25-21:37:27,10.1.1.12,71,-0.451,-0.451,-0.451,0.000,0.000,0.000
1643146647377062912,2022-01-25-21:37:27,10.1.1.12,58,-0.461,-0.461,-0.461,0.000,0.000,0.000
1643146647623424000,2022-01-25-21:37:27,10.1.1.12,77,-0.470,-0.470,-0.470,0.000,0.000,0.000
1643146647827977984,2022-01-25-21:37:27,10.1.1.12,41,-0.481,-0.481,-0.481,0.000,0.000,0.000
1643146648096230912,2022-01-25-21:37:28,10.1.1.12,111,-0.489,-0.489,-0.489,0.000,0.000,0.000
1643146648349307904,2022-01-25-21:37:28,10.1.1.12,86,-0.479,-0.479,-0.479,0.000,0.000,0.000
1643146648523056896,2022-01-25-21:37:28,10.1.1.12,26,-0.470,-0.470,-0.470,0.000,0.000,0.000
1643146648767015936,2022-01-25-21:37:28,10.1.1.12,74,-0.459,-0.459,-0.459,0.000,0.000,0.000
1643146648957000960,2022-01-25-21:37:28,10.1.1.12,62,-0.449,-0.449,-0.449,0.000,0.000,0.000
1643146649216110080,2022-01-25-21:37:29,10.1.1.12,119,-0.439,-0.439,-0.439,0.000,0.000,0.000
1643146649367361024,2022-01-25-21:37:29,10.1.1.12,65,-0.429,-0.429,-0.429,0.000,0.000,0.000
1643146649595546880,2022-01-25-21:37:29,10.1.1.12,92,-0.419,-0.419,-0.419,0.000,0.000,0.000
1643146649754781952,2022-01-25-21:37:29,10.1.1.12,47,-0.410,-0.410,-0.410,0.000,0.000,0.000
1643146649969005056,2022-01-25-21:37:29,10.1.1.12,52,-0.399,-0.399,-0.399,0.000,0.000,0.000
1643146650157295872,2022-01-25-21:37:30,10.1.1.12,36,-0.389,-0.389,-0.389,0.000,0.000,0.000
1643146650360809984,2022-01-25-21:37:30,10.1.1.12,26,-0.380,-0.380,-0.380,0.000,0.000,0.000
1643146650600827904,2022-01-25-21:37:30,10.1.1.12,59,-0.369,-0.369,-0.369,0.000,0.000,0.000
1643146650776866048,2022-01-25-21:37:30,10.1.1.12,29,-0.360,-0.360,-0.360,0.000,0.000,0.000
1643146651007154944,2022-01-25-21:37:31,10.1.1.12,50,-0.349,-0.349,-0.349,0.000,0.000,0.000
1643146651202764032,2022-01-25-21:37:31,10.1.1.12,45,-0.339,-0.339,-0.339,0.000,0.000,0.000
1643146651438360832,2022-01-25-21:37:31,10.1.1.12,61,-0.329,-0.329,-0.329,0.000,0.000,0.000
1643146651610196224,2022-01-25-21:37:31,10.1.1.12,-1,-0.320,-0.320,-0.320,0.000,0.000,0.000
1643146651837205760,2022-01-25-21:37:31,10.1.1.12,27,-0.310,-0.310,-0.310,0.000,0.000,0.000
1643146652038278144,2022-01-25-21:37:32,10.1.1.12,26,-0.300,-0.300,-0.300,0.000,0.000,0.000
1643146652261532160,2022-01-25-21:37:32,10.1.1.12,47,-0.289,-0.289,-0.289,0.000,0.000,0.000
1643146652464612096,2022-01-25-21:37:32,10.1.1.12,44,-0.279,-0.279,-0.279,0.000,0.000,0.000
1643146652718787840,2022-01-25-21:37:32,10.1.1.12,101,-0.269,-0.269,-0.269,0.000,0.000,0.000
1643146652889218048,2022-01-25-21:37:32,10.1.1.12,47,-0.259,-0.259,-0.259,0.000,0.000,0.000
1643146653078157056,2022-01-25-21:37:33,10.1.1.12,34,-0.250,-0.250,-0.250,0.000,0.000,0.000
1643146653296719104,2022-01-25-21:37:33,10.1.1.12,49,-0.240,-0.240,-0.240,0.000,0.000,0.000
1643146653591286016,2022-01-25-21:37:33,10.1.1.12,122,-0.230,-0.230,-0.230,0.000,0.000,0.000
1643146653701684992,2022-01-25-21:37:33,10.1.1.12,48,-0.219,-0.219,-0.219,0.000,0.000,0.000
1643146653912813824,2022-01-25-21:37:33,10.1.1.12,58,-0.209,-0.209,-0.209,0.000,0.000,0.000
1643146654190556160,2022-01-25-21:37:34,10.1.1.12,102,-0.199,-0.199,-0.199,0.000,0.000,0.000
1643146654352551936,2022-01-25-21:37:34,10.1.1.12,45,-0.190,-0.190,-0.190,0.000,0.000,0.000
1643146654655855872,2022-01-25-21:37:34,10.1.1.12,77,-0.179,-0.179,-0.179,0.000,0.000,0.000
1643146654820115200,2022-01-25-21:37:34,10.1.1.12,75,-0.170,-0.170,-0.170,0.000,0.000,0.000
1643146654993081088,2022-01-25-21:37:34,10.1.1.12,47,-0.160,-0.160,-0.160,0.000,0.000,0.000
1643146655198797056,2022-01-25-21:37:35,10.1.1.12,45,-0.149,-0.149,-0.149,0.000,0.000,0.000
1643146655397649920,2022-01-25-21:37:35,10.1.1.12,32,-0.140,-0.140,-0.140,0.000,0.000,0.000
1643146655651408896,2022-01-25-21:37:35,10.1.1.12,73,-0.130,-0.130,-0.130,0.000,0.000,0.000
1643146655804136960,2022-01-25-21:37:35,10.1.1.12,6,-0.120,-0.120,-0.120,0.000,0.000,0.000
1643146656037467904,2022-01-25-21:37:36,10.1.1.12,29,-0.110,-0.110,-0.110,0.000,0.000,0.000
1643146656237369088,2022-01-25-21:37:36,10.1.1.12,28,-0.100,-0.100,-0.100,0.000,0.000,0.000
1643146656464261888,2022-01-25-21:37:36,10.1.1.12,44,-0.090,-0.090,-0.090,0.000,0.000,0.000
1643146656671812096,2022-01-25-21:37:36,10.1.1.12,55,-0.079,-0.079,-0.079,0.000,0.000,0.000
1643146656901426944,2022-01-25-21:37:36,10.1.1.12,83,-0.069,-0.069,-0.069,0.000,0.000,0.000
1643146657094893056,2022-01-25-21:37:37,10.1.1.12,55,-0.059,-0.059,-0.059,0.000,0.000,0.000
1643146657278361088,2022-01-25-21:37:37,10.1.1.12,37,-0.049,-0.049,-0.049,0.000,0.000,0.000
1643146657491878144,2022-01-25-21:37:37,10.1.1.12,48,-0.040,-0.040,-0.040,0.000,0.000,0.000
1643146657722057984,2022-01-25-21:37:37,10.1.1.12,64,-0.029,-0.029,-0.029,0.000,0.000,0.000
1643146657918138880,2022-01-25-21:37:37,10.1.1.12,31,-0.020,-0.020,-0.020,0.000,0.000,0.000
1643146658117831936,2022-01-25-21:37:38,10.1.1.12,28,-0.010,-0.010,-0.010,0.000,0.000,0.000
1643146658298187008,2022-01-25-21:37:38,10.1.1.12,3,-0.001,-0.001,-0.001,0.000,0.000,0.000
1643146658538952960,2022-01-25-21:37:38,10.1.1.12,43,-0.011,-0.011,-0.011,0.000,0.000,0.000
1643146658737644800,2022-01-25-21:37:38,10.1.1.12,41,-0.021,-0.021,-0.021,0.000,0.000,0.000
1643146658937164032,2022-01-25-21:37:38,10.1.1.12,39,-0.031,-0.031,-0.031,0.000,0.000,0.000
1643146659139833088,2022-01-25-21:37:39,10.1.1.12,41,-0.041,-0.041,-0.041,0.000,0.000,0.000
1643146659340929024,2022-01-25-21:37:39,10.1.1.12,40,-0.051,-0.051,-0.051,0.000,0.000,0.000
1643146659540256000,2022-01-25-21:37:39,10.1.1.12,34,-0.060,-0.060,-0.060,0.000,0.000,0.000
1643146659738097920,2022-01-25-21:37:39,10.1.1.12,29,-0.070,-0.070,-0.070,0.000,0.000,0.000
1643146659938659840,2022-01-25-21:37:39,10.1.1.12,28,-0.080,-0.080,-0.080,0.000,0.000,0.000
1643146660138350080,2022-01-25-21:37:40,10.1.1.12,25,-0.090,-0.090,-0.090,0.000,0.000,0.000
1643146660358530048,2022-01-25-21:37:40,10.1.1.12,44,-0.101,-0.101,-0.101,0.000,0.000,0.000
1643146660557963008,2022-01-25-21:37:40,10.1.1.12,42,-0.111,-0.111,-0.111,0.000,0.000,0.000
1643146660757936128,2022-01-25-21:37:40,10.1.1.12,41,-0.121,-0.121,-0.121,0.000,0.000,0.000
1643146660968246016,2022-01-25-21:37:40,10.1.1.12,40,-0.130,-0.130,-0.130,0.000,0.000,0.000
1643146661158894080,2022-01-25-21:37:41,10.1.1.12,30,-0.140,-0.140,-0.140,0.000,0.000,0.000
1643146661380492032,2022-01-25-21:37:41,10.1.1.12,44,-0.151,-0.151,-0.151,0.000,0.000,0.000
1643146661643152896,2022-01-25-21:37:41,10.1.1.12,91,-0.160,-0.160,-0.160,0.000,0.000,0.000
1643146661878413824,2022-01-25-21:37:41,10.1.1.12,33,-0.170,-0.170,-0.170,0.000,0.000,0.000
1643146662083350784,2022-01-25-21:37:42,10.1.1.12,32,-0.180,-0.180,-0.180,0.000,0.000,0.000
1643146662329359104,2022-01-25-21:37:42,10.1.1.12,60,-0.191,-0.191,-0.191,0.000,0.000,0.000
1643146662519884032,2022-01-25-21:37:42,10.1.1.12,44,-0.201,-0.201,-0.201,0.000,0.000,0.000
1643146662723991040,2022-01-25-21:37:42,10.1.1.12,46,-0.211,-0.211,-0.211,0.000,0.000,0.000
1643146662921423872,2022-01-25-21:37:42,10.1.1.12,33,-0.220,-0.220,-0.220,0.000,0.000,0.000
1643146663256792064,2022-01-25-21:37:43,10.1.1.12,150,-0.231,-0.231,-0.231,0.000,0.000,0.000
1643146663407200000,2022-01-25-21:37:43,10.1.1.12,42,-0.240,-0.240,-0.240,0.000,0.000,0.000
1643146663613313024,2022-01-25-21:37:43,10.1.1.12,-64,-0.245,-0.245,-0.245,0.000,0.000,0.000
1643146663865108992,2022-01-25-21:37:43,10.1.1.12,51,-0.261,-0.261,-0.261,0.000,0.000,0.000
1643146664094036224,2022-01-25-21:37:44,10.1.1.12,54,-0.271,-0.271,-0.271,0.000,0.000,0.000
1643146664317408000,2022-01-25-21:37:44,10.1.1.12,44,-0.280,-0.280,-0.280,0.000,0.000,0.000
1643146664490006016,2022-01-25-21:37:44,10.1.1.12,38,-0.290,-0.290,-0.290,0.000,0.000,0.000
1643146664710699008,2022-01-25-21:37:44,10.1.1.12,45,-0.301,-0.301,-0.301,0.000,0.000,0.000
1643146664899479040,2022-01-25-21:37:44,10.1.1.12,42,-0.311,-0.311,-0.311,0.000,0.000,0.000
1643146665117800960,2022-01-25-21:37:45,10.1.1.12,42,-0.321,-0.321,-0.321,0.000,0.000,0.000
1643146665344896000,2022-01-25-21:37:45,10.1.1.12,52,-0.331,-0.331,-0.331,0.000,0.000,0.000
1643146665615360000,2022-01-25-21:37:45,10.1.1.12,120,-0.341,-0.341,-0.341,0.000,0.000,0.000
1643146665753549056,2022-01-25-21:37:45,10.1.1.12,55,-0.351,-0.351,-0.351,0.000,0.000,0.000
1643146665975874048,2022-01-25-21:37:45,10.1.1.12,53,-0.361,-0.361,-0.361,0.000,0.000,0.000
1643146666187441152,2022-01-25-21:37:46,10.1.1.12,71,-0.370,-0.370,-0.370,0.000,0.000,0.000
1643146666333901056,2022-01-25-21:37:46,10.1.1.12,-1,-0.377,-0.377,-0.377,0.000,0.000,0.000
1643146666632154112,2022-01-25-21:37:46,10.1.1.12,80,-0.391,-0.391,-0.391,0.000,0.000,0.000
1643146666784446976,2022-01-25-21:37:46,10.1.1.12,44,-0.401,-0.401,-0.401,0.000,0.000,0.000
1643146667074923008,2022-01-25-21:37:47,10.1.1.12,125,-0.411,-0.411,-0.411,0.000,0.000,0.000
1643146667240669952,2022-01-25-21:37:47,10.1.1.12,29,-0.420,-0.420,-0.420,0.000,0.000,0.000
1643146667503726848,2022-01-25-21:37:47,10.1.1.12,79,-0.431,-0.431,-0.431,0.000,0.000,0.000
1643146667693351936,2022-01-25-21:37:47,10.1.1.12,75,-0.441,-0.441,-0.441,0.000,0.000,0.000
1643146667879123968,2022-01-25-21:37:47,10.1.1.12,43,-0.451,-0.451,-0.451,0.000,0.000,0.000
1643146668080151040,2022-01-25-21:37:48,10.1.1.12,36,-0.461,-0.461,-0.461,0.000,0.000,0.000
1643146668342016000,2022-01-25-21:37:48,10.1.1.12,97,-0.470,-0.470,-0.470,0.000,0.000,0.000
1643146668716954880,2022-01-25-21:37:48,10.1.1.12,198,-0.481,-0.481,-0.481,0.000,0.000,0.000
1643146668822896128,2022-01-25-21:37:48,10.1.1.12,84,-0.489,-0.489,-0.489,0.000,0.000,0.000
1643146669000724992,2022-01-25-21:37:49,10.1.1.12,61,-0.479,-0.479,-0.479,0.000,0.000,0.000
1643146669178534144,2022-01-25-21:37:49,10.1.1.12,36,-0.469,-0.469,-0.469,0.000,0.000,0.000
1643146669399928064,2022-01-25-21:37:49,10.1.1.12,56,-0.459,-0.459,-0.459,0.000,0.000,0.000
1643146669815021056,2022-01-25-21:37:49,10.1.1.12,190,-0.449,-0.449,-0.449,0.000,0.000,0.000
1643146669908622080,2022-01-25-21:37:49,10.1.1.12,90,-0.439,-0.439,-0.439,0.000,0.000,0.000
1643146670303330816,2022-01-25-21:37:50,10.1.1.12,61,-0.419,-0.419,-0.419,0.000,0.000,0.000
1643146670491645184,2022-01-25-21:37:50,10.1.1.12,53,-0.409,-0.409,-0.409,0.000,0.000,0.000
1643146670755001088,2022-01-25-21:37:50,10.1.1.12,116,-0.399,-0.399,-0.399,0.000,0.000,0.000
1643146670978298880,2022-01-25-21:37:50,10.1.1.12,110,-0.390,-0.390,-0.390,0.000,0.000,0.000
1643146671151931904,2022-01-25-21:37:51,10.1.1.12,105,-0.379,-0.379,-0.379,0.000,0.000,0.000
1643146671281131008,2022-01-25-21:37:51,10.1.1.12,33,-0.370,-0.370,-0.370,0.000,0.000,0.000
1643146671484660992,2022-01-25-21:37:51,10.1.1.12,34,-0.360,-0.360,-0.360,0.000,0.000,0.000
1643146671726386944,2022-01-25-21:37:51,10.1.1.12,69,-0.349,-0.349,-0.349,0.000,0.000,0.000
1643146671918098944,2022-01-25-21:37:51,10.1.1.12,58,-0.339,-0.339,-0.339,0.000,0.000,0.000
1643146672149239040,2022-01-25-21:37:52,10.1.1.12,72,-0.329,-0.329,-0.329,0.000,0.000,0.000
1643146672365556992,2022-01-25-21:37:52,10.1.1.12,58,-0.320,-0.320,-0.320,0.000,0.000,0.000
1643146672570060032,2022-01-25-21:37:52,10.1.1.12,59,-0.310,-0.310,-0.310,0.000,0.000,0.000
1643146672774935040,2022-01-25-21:37:52,10.1.1.12,62,-0.300,-0.300,-0.300,0.000,0.000,0.000
1643146672987965184,2022-01-25-21:37:52,10.1.1.12,71,-0.289,-0.289,-0.289,0.000,0.000,0.000
1643146673190725120,2022-01-25-21:37:53,10.1.1.12,71,-0.279,-0.279,-0.279,0.000,0.000,0.000
1643146673384568064,2022-01-25-21:37:53,10.1.1.12,63,-0.269,-0.269,-0.269,0.000,0.000,0.000
1643146673624409856,2022-01-25-21:37:53,10.1.1.12,89,-0.259,-0.259,-0.259,0.000,0.000,0.000
1643146673775975936,2022-01-25-21:37:53,10.1.1.12,-30,-0.252,-0.252,-0.252,0.000,0.000,0.000
1643146674019284992,2022-01-25-21:37:54,10.1.1.12,32,-0.240,-0.240,-0.240,0.000,0.000,0.000
1643146674222949888,2022-01-25-21:37:54,10.1.1.12,33,-0.230,-0.230,-0.230,0.000,0.000,0.000
1643146674443260928,2022-01-25-21:37:54,10.1.1.12,37,-0.220,-0.220,-0.220,0.000,0.000,0.000
1643146674644929024,2022-01-25-21:37:54,10.1.1.12,36,-0.210,-0.210,-0.210,0.000,0.000,0.000
1643146674840006144,2022-01-25-21:37:54,10.1.1.12,30,-0.200,-0.200,-0.200,0.000,0.000,0.000
1643146675075280896,2022-01-25-21:37:55,10.1.1.12,64,-0.190,-0.190,-0.190,0.000,0.000,0.000
1643146675275623936,2022-01-25-21:37:55,10.1.1.12,47,-0.179,-0.179,-0.179,0.000,0.000,0.000
1643146675458699008,2022-01-25-21:37:55,10.1.1.12,43,-0.169,-0.169,-0.169,0.000,0.000,0.000
1643146675658412032,2022-01-25-21:37:55,10.1.1.12,41,-0.159,-0.159,-0.159,0.000,0.000,0.000
1643146675866915072,2022-01-25-21:37:55,10.1.1.12,45,-0.149,-0.149,-0.149,0.000,0.000,0.000
1643146676060316160,2022-01-25-21:37:56,10.1.1.12,34,-0.140,-0.140,-0.140,0.000,0.000,0.000
1643146676258637056,2022-01-25-21:37:56,10.1.1.12,33,-0.130,-0.130,-0.130,0.000,0.000,0.000
1643146676465346048,2022-01-25-21:37:56,10.1.1.12,37,-0.120,-0.120,-0.120,0.000,0.000,0.000
1643146676659579136,2022-01-25-21:37:56,10.1.1.12,31,-0.110,-0.110,-0.110,0.000,0.000,0.000
1643146676873775104,2022-01-25-21:37:56,10.1.1.12,25,-0.100,-0.100,-0.100,0.000,0.000,0.000
1643146677136251904,2022-01-25-21:37:57,10.1.1.12,40,-0.090,-0.090,-0.090,0.000,0.000,0.000
1643146677407702016,2022-01-25-21:37:57,10.1.1.12,94,-0.080,-0.080,-0.080,0.000,0.000,0.000
1643146677578263040,2022-01-25-21:37:57,10.1.1.12,37,-0.070,-0.070,-0.070,0.000,0.000,0.000
1643146677799892992,2022-01-25-21:37:57,10.1.1.12,41,-0.059,-0.059,-0.059,0.000,0.000,0.000
1643146678019098880,2022-01-25-21:37:58,10.1.1.12,56,-0.049,-0.049,-0.049,0.000,0.000,0.000
1643146678199183104,2022-01-25-21:37:58,10.1.1.12,35,-0.040,-0.040,-0.040,0.000,0.000,0.000
1643146678398381824,2022-01-25-21:37:58,10.1.1.12,33,-0.030,-0.030,-0.030,0.000,0.000,0.000
1643146678618292992,2022-01-25-21:37:58,10.1.1.12,46,-0.019,-0.019,-0.019,0.000,0.000,0.000
1643146678818511104,2022-01-25-21:37:58,10.1.1.12,33,-0.010,-0.010,-0.010,0.000,0.000,0.000
1643146679023211008,2022-01-25-21:37:59,10.1.1.12,17,-0.001,-0.001,-0.001,0.000,0.000,0.000
1643146679258614016,2022-01-25-21:37:59,10.1.1.12,42,-0.011,-0.011,-0.011,0.000,0.000,0.000
1643146679522802176,2022-01-25-21:37:59,10.1.1.12,99,-0.021,-0.021,-0.021,0.000,0.000,0.000
1643146679675497984,2022-01-25-21:37:59,10.1.1.12,43,-0.031,-0.031,-0.031,0.000,0.000,0.000
1643146679895997952,2022-01-25-21:37:59,10.1.1.12,55,-0.041,-0.041,-0.041,0.000,0.000,0.000
1643146680153844992,2022-01-25-21:38:00,10.1.1.12,75,-0.050,-0.050,-0.050,0.000,0.000,0.000
1643146680367415808,2022-01-25-21:38:00,10.1.1.12,52,-0.060,-0.060,-0.060,0.000,0.000,0.000
1643146680581255936,2022-01-25-21:38:00,10.1.1.12,88,-0.070,-0.070,-0.070,0.000,0.000,0.000
1643146680747353088,2022-01-25-21:38:00,10.1.1.12,50,-0.081,-0.081,-0.081,0.000,0.000,0.000
1643146680940670976,2022-01-25-21:38:00,10.1.1.12,43,-0.091,-0.091,-0.091,0.000,0.000,0.000
1643146681147865088,2022-01-25-21:38:01,10.1.1.12,49,-0.100,-0.100,-0.100,0.000,0.000,0.000
1643146681414796032,2022-01-25-21:38:01,10.1.1.12,115,-0.111,-0.111,-0.111,0.000,0.000,0.000
1643146681550185984,2022-01-25-21:38:01,10.1.1.12,42,-0.120,-0.120,-0.120,0.000,0.000,0.000
1643146681829278976,2022-01-25-21:38:01,10.1.1.12,119,-0.131,-0.131,-0.131,0.000,0.000,0.000
1643146682035410944,2022-01-25-21:38:02,10.1.1.12,103,-0.140,-0.140,-0.140,0.000,0.000,0.000
1643146682258622976,2022-01-25-21:38:02,10.1.1.12,48,-0.150,-0.150,-0.150,0.000,0.000,0.000
1643146682454322176,2022-01-25-21:38:02,10.1.1.12,42,-0.160,-0.160,-0.160,0.000,0.000,0.000
1643146682690455040,2022-01-25-21:38:02,10.1.1.12,42,-0.171,-0.171,-0.171,0.000,0.000,0.000
1643146682889316096,2022-01-25-21:38:02,10.1.1.12,52,-0.181,-0.181,-0.181,0.000,0.000,0.000
1643146683079225088,2022-01-25-21:38:03,10.1.1.12,41,-0.190,-0.190,-0.190,0.000,0.000,0.000
1643146683356736000,2022-01-25-21:38:03,10.1.1.12,81,-0.201,-0.201,-0.201,0.000,0.000,0.000
1643146683523639040,2022-01-25-21:38:03,10.1.1.12,31,-0.210,-0.210,-0.210,0.000,0.000,0.000
1643146683744097024,2022-01-25-21:38:03,10.1.1.12,47,-0.221,-0.221,-0.221,0.000,0.000,0.000
1643146683958077952,2022-01-25-21:38:03,10.1.1.12,55,-0.231,-0.231,-0.231,0.000,0.000,0.000
1643146684144448000,2022-01-25-21:38:04,10.1.1.12,43,-0.240,-0.240,-0.240,0.000,0.000,0.000
1643146684374187008,2022-01-25-21:38:04,10.1.1.12,67,-0.250,-0.250,-0.250,0.000,0.000,0.000
1643146684618084864,2022-01-25-21:38:04,10.1.1.12,100,-0.260,-0.260,-0.260,0.000,0.000,0.000
1643146684778270976,2022-01-25-21:38:04,10.1.1.12,29,-0.270,-0.270,-0.270,0.000,0.000,0.000
1643146685177742080,2022-01-25-21:38:05,10.1.1.12,226,-0.281,-0.281,-0.281,0.000,0.000,0.000
1643146685291193088,2022-01-25-21:38:05,10.1.1.12,70,-0.290,-0.290,-0.290,0.000,0.000,0.000
1643146685496301824,2022-01-25-21:38:05,10.1.1.12,87,-0.300,-0.300,-0.300,0.000,0.000,0.000
1643146685666432000,2022-01-25-21:38:05,10.1.1.12,39,-0.310,-0.310,-0.310,0.000,0.000,0.000
1643146685874151936,2022-01-25-21:38:05,10.1.1.12,44,-0.320,-0.320,-0.320,0.000,0.000,0.000
1643146686203986944,2022-01-25-21:38:06,10.1.1.12,128,-0.330,-0.330,-0.330,0.000,0.000,0.000
1643146686319368960,2022-01-25-21:38:06,10.1.1.12,42,-0.341,-0.341,-0.341,0.000,0.000,0.000
1643146686534118912,2022-01-25-21:38:06,10.1.1.12,42,-0.350,-0.350,-0.350,0.000,0.000,0.000
1643146686723076096,2022-01-25-21:38:06,10.1.1.12,37,-0.360,-0.360,-0.360,0.000,0.000,0.000
1643146686927438080,2022-01-25-21:38:06,10.1.1.12,39,-0.370,-0.370,-0.370,0.000,0.000,0.000
1643146687130928128,2022-01-25-21:38:07,10.1.1.12,41,-0.381,-0.381,-0.381,0.000,0.000,0.000
1643146687356396032,2022-01-25-21:38:07,10.1.1.12,60,-0.391,-0.391,-0.391,0.000,0.000,0.000
1643146687710056192,2022-01-25-21:38:07,10.1.1.12,204,-0.401,-0.401,-0.401,0.000,0.000,0.000
1643146687806013184,2022-01-25-21:38:07,10.1.1.12,78,-0.410,-0.410,-0.410,0.000,0.000,0.000
1643146687979927040,2022-01-25-21:38:07,10.1.1.12,50,-0.420,-0.420,-0.420,0.000,0.000,0.000
1643146688222859008,2022-01-25-21:38:08,10.1.1.12,90,-0.431,-0.431,-0.431,0.000,0.000,0.000
1643146688429063936,2022-01-25-21:38:08,10.1.1.12,83,-0.440,-0.440,-0.440,0.000,0.000,0.000
1643146688635456000,2022-01-25-21:38:08,10.1.1.12,86,-0.450,-0.450,-0.450,0.000,0.000,0.000
1643146688803036928,2022-01-25-21:38:08,10.1.1.12,42,-0.460,-0.460,-0.460,0.000,0.000,0.000
1643146689024070912,2022-01-25-21:38:09,10.1.1.12,38,-0.470,-0.470,-0.470,0.000,0.000,0.000
1643146689293325056,2022-01-25-21:38:09,10.1.1.12,92,-0.480,-0.480,-0.480,0.000,0.000,0.000
1643146689439632896,2022-01-25-21:38:09,10.1.1.12,45,-0.488,-0.488,-0.488,0.000,0.000,0.000
1643146689656416768,2022-01-25-21:38:09,10.1.1.12,58,-0.479,-0.479,-0.479,0.000,0.000,0.000
1643146689837615104,2022-01-25-21:38:09,10.1.1.12,29,-0.470,-0.470,-0.470,0.000,0.000,0.000
1643146690100768000,2022-01-25-21:38:10,10.1.1.12,80,-0.459,-0.459,-0.459,0.000,0.000,0.000
1643146690279246080,2022-01-25-21:38:10,10.1.1.12,32,-0.450,-0.450,-0.450,0.000,0.000,0.000
1643146690512687872,2022-01-25-21:38:10,10.1.1.12,57,-0.439,-0.439,-0.439,0.000,0.000,0.000
1643146690752057088,2022-01-25-21:38:10,10.1.1.12,94,-0.429,-0.429,-0.429,0.000,0.000,0.000
1643146690903981056,2022-01-25-21:38:10,10.1.1.12,39,-0.420,-0.420,-0.420,0.000,0.000,0.000
1643146691114921984,2022-01-25-21:38:11,10.1.1.12,44,-0.410,-0.410,-0.410,0.000,0.000,0.000
1643146691320333056,2022-01-25-21:38:11,10.1.1.12,45,-0.399,-0.399,-0.399,0.000,0.000,0.000
1643146691610049024,2022-01-25-21:38:11,10.1.1.12,101,-0.390,-0.390,-0.390,0.000,0.000,0.000
1643146691747800064,2022-01-25-21:38:11,10.1.1.12,35,-0.380,-0.380,-0.380,0.000,0.000,0.000
1643146691957966080,2022-01-25-21:38:11,10.1.1.12,42,-0.369,-0.369,-0.369,0.000,0.000,0.000
1643146692158585088,2022-01-25-21:38:12,10.1.1.12,41,-0.359,-0.359,-0.359,0.000,0.000,0.000
1643146692360886016,2022-01-25-21:38:12,10.1.1.12,41,-0.349,-0.349,-0.349,0.000,0.000,0.000
1643146692570931968,2022-01-25-21:38:12,10.1.1.12,49,-0.339,-0.339,-0.339,0.000,0.000,0.000
1643146692773070080,2022-01-25-21:38:12,10.1.1.12,44,-0.330,-0.330,-0.330,0.000,0.000,0.000
1643146693004233984,2022-01-25-21:38:12,10.1.1.12,62,-0.319,-0.319,-0.319,0.000,0.000,0.000
1643146693182439936,2022-01-25-21:38:13,10.1.1.12,43,-0.309,-0.309,-0.309,0.000,0.000,0.000
1643146693393246976,2022-01-25-21:38:13,10.1.1.12,44,-0.300,-0.300,-0.300,0.000,0.000,0.000
1643146693659717120,2022-01-25-21:38:13,10.1.1.12,85,-0.289,-0.289,-0.289,0.000,0.000,0.000
1643146693824472064,2022-01-25-21:38:13,10.1.1.12,31,-0.280,-0.280,-0.280,0.000,0.000,0.000
1643146694040983808,2022-01-25-21:38:14,10.1.1.12,44,-0.269,-0.269,-0.269,0.000,0.000,0.000
1643146694248336128,2022-01-25-21:38:14,10.1.1.12,51,-0.259,-0.259,-0.259,0.000,0.000,0.000
1643146694441020928,2022-01-25-21:38:14,10.1.1.12,43,-0.249,-0.249,-0.249,0.000,0.000,0.000
1643146694648384000,2022-01-25-21:38:14,10.1.1.12,47,-0.240,-0.240,-0.240,0.000,0.000,0.000
1643146694847471104,2022-01-25-21:38:14,10.1.1.12,42,-0.230,-0.230,-0.230,0.000,0.000,0.000
1643146695075588096,2022-01-25-21:38:15,10.1.1.12,53,-0.219,-0.219,-0.219,0.000,0.000,0.000
1643146695261359104,2022-01-25-21:38:15,10.1.1.12,41,-0.209,-0.209,-0.209,0.000,0.000,0.000
1643146695457790976,2022-01-25-21:38:15,10.1.1.12,36,-0.200,-0.200,-0.200,0.000,0.000,0.000
1643146695658569984,2022-01-25-21:38:15,10.1.1.12,36,-0.189,-0.189,-0.189,0.000,0.000,0.000
1643146695858400000,2022-01-25-21:38:15,10.1.1.12,33,-0.180,-0.180,-0.180,0.000,0.000,0.000
1643146696058292992,2022-01-25-21:38:16,10.1.1.12,32,-0.170,-0.170,-0.170,0.000,0.000,0.000
1643146696260699136,2022-01-25-21:38:16,10.1.1.12,34,-0.160,-0.160,-0.160,0.000,0.000,0.000
1643146696458203904,2022-01-25-21:38:16,10.1.1.12,30,-0.150,-0.150,-0.150,0.000,0.000,0.000
1643146696727309056,2022-01-25-21:38:16,10.1.1.12,39,-0.140,-0.140,-0.140,0.000,0.000,0.000
1643146696883949056,2022-01-25-21:38:16,10.1.1.12,34,-0.130,-0.130,-0.130,0.000,0.000,0.000
1643146697108145920,2022-01-25-21:38:17,10.1.1.12,72,-0.120,-0.120,-0.120,0.000,0.000,0.000
1643146697315310080,2022-01-25-21:38:17,10.1.1.12,44,-0.110,-0.110,-0.110,0.000,0.000,0.000
1643146697483462144,2022-01-25-21:38:17,10.1.1.12,34,-0.100,-0.100,-0.100,0.000,0.000,0.000
1643146697680569856,2022-01-25-21:38:17,10.1.1.12,33,-0.090,-0.090,-0.090,0.000,0.000,0.000
1643146697885080064,2022-01-25-21:38:17,10.1.1.12,33,-0.080,-0.080,-0.080,0.000,0.000,0.000
1643146698079236096,2022-01-25-21:38:18,10.1.1.12,29,-0.070,-0.070,-0.070,0.000,0.000,0.000
1643146698308094976,2022-01-25-21:38:18,10.1.1.12,46,-0.060,-0.060,-0.060,0.000,0.000,0.000
1643146698554883840,2022-01-25-21:38:18,10.1.1.12,97,-0.049,-0.049,-0.049,0.000,0.000,0.000
1643146698700455936,2022-01-25-21:38:18,10.1.1.12,42,-0.040,-0.040,-0.040,0.000,0.000,0.000
1643146698913914880,2022-01-25-21:38:18,10.1.1.12,46,-0.030,-0.030,-0.030,0.000,0.000,0.000
1643146699117337856,2022-01-25-21:38:19,10.1.1.12,48,-0.020,-0.020,-0.020,0.000,0.000,0.000
1643146699375480064,2022-01-25-21:38:19,10.1.1.12,104,-0.010,-0.010,-0.010,0.000,0.000,0.000
1643146699576677120,2022-01-25-21:38:19,10.1.1.12,86,-0.001,-0.001,-0.001,0.000,0.000,0.000
1643146699742188032,2022-01-25-21:38:19,10.1.1.12,43,-0.011,-0.011,-0.011,0.000,0.000,0.000
1643146699978611968,2022-01-25-21:38:19,10.1.1.12,50,-0.021,-0.021,-0.021,0.000,0.000,0.000
1643146700229854208,2022-01-25-21:38:20,10.1.1.12,75,-0.031,-0.031,-0.031,0.000,0.000,0.000
1643146700444833024,2022-01-25-21:38:20,10.1.1.12,73,-0.040,-0.040,-0.040,0.000,0.000,0.000
1643146700629526016,2022-01-25-21:38:20,10.1.1.12,46,-0.050,-0.050,-0.050,0.000,0.000,0.000
1643146700911079936,2022-01-25-21:38:20,10.1.1.12,116,-0.061,-0.061,-0.061,0.000,0.000,0.000
1643146701115278848,2022-01-25-21:38:21,10.1.1.12,120,-0.071,-0.071,-0.071,0.000,0.000,0.000
1643146701258887936,2022-01-25-21:38:21,10.1.1.12,43,-0.080,-0.080,-0.080,0.000,0.000,0.000
1643146701477172992,2022-01-25-21:38:21,10.1.1.12,48,-0.090,-0.090,-0.090,0.000,0.000,0.000
1643146701664172800,2022-01-25-21:38:21,10.1.1.12,30,-0.100,-0.100,-0.100,0.000,0.000,0.000
1643146701878903040,2022-01-25-21:38:21,10.1.1.12,44,-0.111,-0.111,-0.111,0.000,0.000,0.000
1643146702081091840,2022-01-25-21:38:22,10.1.1.12,45,-0.121,-0.121,-0.121,0.000,0.000,0.000
1643146702292434944,2022-01-25-21:38:22,10.1.1.12,55,-0.131,-0.131,-0.131,0.000,0.000,0.000
1643146702496037888,2022-01-25-21:38:22,10.1.1.12,58,-0.141,-0.141,-0.141,0.000,0.000,0.000
1643146702679874048,2022-01-25-21:38:22,10.1.1.12,32,-0.150,-0.150,-0.150,0.000,0.000,0.000
1643146702884872960,2022-01-25-21:38:22,10.1.1.12,36,-0.160,-0.160,-0.160,0.000,0.000,0.000
1643146703084057088,2022-01-25-21:38:23,10.1.1.12,31,-0.170,-0.170,-0.170,0.000,0.000,0.000
1643146703319356928,2022-01-25-21:38:23,10.1.1.12,41,-0.180,-0.180,-0.180,0.000,0.000,0.000
1643146703596615936,2022-01-25-21:38:23,10.1.1.12,93,-0.191,-0.191,-0.191,0.000,0.000,0.000
1643146703849607936,2022-01-25-21:38:23,10.1.1.12,123,-0.201,-0.201,-0.201,0.000,0.000,0.000
1643146703958003968,2022-01-25-21:38:23,10.1.1.12,29,-0.210,-0.210,-0.210,0.000,0.000,0.000
1643146704224216064,2022-01-25-21:38:24,10.1.1.12,76,-0.220,-0.220,-0.220,0.000,0.000,0.000
1643146704440551936,2022-01-25-21:38:24,10.1.1.12,65,-0.230,-0.230,-0.230,0.000,0.000,0.000
1643146704652733184,2022-01-25-21:38:24,10.1.1.12,74,-0.241,-0.241,-0.241,0.000,0.000,0.000
1643146704883799040,2022-01-25-21:38:24,10.1.1.12,59,-0.251,-0.251,-0.251,0.000,0.000,0.000
1643146705090274048,2022-01-25-21:38:25,10.1.1.12,62,-0.261,-0.261,-0.261,0.000,0.000,0.000
1643146705282404864,2022-01-25-21:38:25,10.1.1.12,30,-0.270,-0.270,-0.270,0.000,0.000,0.000
1643146705488674048,2022-01-25-21:38:25,10.1.1.12,48,-0.281,-0.281,-0.281,0.000,0.000,0.000
1643146705712487936,2022-01-25-21:38:25,10.1.1.12,57,-0.291,-0.291,-0.291,0.000,0.000,0.000
1643146705926464000,2022-01-25-21:38:25,10.1.1.12,69,-0.300,-0.300,-0.300,0.000,0.000,0.000
1643146706167578880,2022-01-25-21:38:26,10.1.1.12,92,-0.311,-0.311,-0.311,0.000,0.000,0.000
1643146706320568064,2022-01-25-21:38:26,10.1.1.12,43,-0.320,-0.320,-0.320,0.000,0.000,0.000
1643146706603451904,2022-01-25-21:38:26,10.1.1.12,83,-0.331,-0.331,-0.331,0.000,0.000,0.000
1643146706809245952,2022-01-25-21:38:26,10.1.1.12,86,-0.341,-0.341,-0.341,0.000,0.000,0.000
1643146707043663104,2022-01-25-21:38:27,10.1.1.12,104,-0.351,-0.351,-0.351,0.000,0.000,0.000
1643146707235995136,2022-01-25-21:38:27,10.1.1.12,72,-0.360,-0.360,-0.360,0.000,0.000,0.000
1643146707405137152,2022-01-25-21:38:27,10.1.1.12,38,-0.370,-0.370,-0.370,0.000,0.000,0.000
1643146707627019776,2022-01-25-21:38:27,10.1.1.12,54,-0.381,-0.381,-0.381,0.000,0.000,0.000
1643146707820878080,2022-01-25-21:38:27,10.1.1.12,40,-0.391,-0.391,-0.391,0.000,0.000,0.000
1643146708125971200,2022-01-25-21:38:28,10.1.1.12,49,-0.401,-0.401,-0.401,0.000,0.000,0.000
1643146708262686976,2022-01-25-21:38:28,10.1.1.12,64,-0.411,-0.411,-0.411,0.000,0.000,0.000
1643146708470683136,2022-01-25-21:38:28,10.1.1.12,47,-0.420,-0.420,-0.420,0.000,0.000,0.000
1643146708857737984,2022-01-25-21:38:28,10.1.1.12,108,-0.430,-0.430,-0.430,0.000,0.000,0.000
1643146709183666944,2022-01-25-21:38:29,10.1.1.12,165,-0.441,-0.441,-0.441,0.000,0.000,0.000
1643146709303613952,2022-01-25-21:38:29,10.1.1.12,79,-0.451,-0.451,-0.451,0.000,0.000,0.000
1643146709498130176,2022-01-25-21:38:29,10.1.1.12,60,-0.461,-0.461,-0.461,0.000,0.000,0.000
1643146709678603776,2022-01-25-21:38:29,10.1.1.12,40,-0.471,-0.471,-0.471,0.000,0.000,0.000
1643146709878662144,2022-01-25-21:38:29,10.1.1.12,37,-0.481,-0.481,-0.481,0.000,0.000,0.000
1643146710046703104,2022-01-25-21:38:30,10.1.1.12,2,-0.489,-0.489,-0.489,0.000,0.000,0.000
1643146710309251072,2022-01-25-21:38:30,10.1.1.12,34,-0.480,-0.480,-0.480,0.000,0.000,0.000
1643146710513783040,2022-01-25-21:38:30,10.1.1.12,43,-0.470,-0.470,-0.470,0.000,0.000,0.000
1643146710703950848,2022-01-25-21:38:30,10.1.1.12,55,-0.460,-0.460,-0.460,0.000,0.000,0.000
1643146710966612992,2022-01-25-21:38:30,10.1.1.12,112,-0.449,-0.449,-0.449,0.000,0.000,0.000
1643146711156434944,2022-01-25-21:38:31,10.1.1.12,89,-0.440,-0.440,-0.440,0.000,0.000,0.000
1643146711321587200,2022-01-25-21:38:31,10.1.1.12,38,-0.430,-0.430,-0.430,0.000,0.000,0.000
1643146711556055040,2022-01-25-21:38:31,10.1.1.12,60,-0.419,-0.419,-0.419,0.000,0.000,0.000
1643146711763858944,2022-01-25-21:38:31,10.1.1.12,43,-0.409,-0.409,-0.409,0.000,0.000,0.000
1643146711957804032,2022-01-25-21:38:31,10.1.1.12,36,-0.399,-0.399,-0.399,0.000,0.000,0.000
1643146712163311872,2022-01-25-21:38:32,10.1.1.12,38,-0.390,-0.390,-0.390,0.000,0.000,0.000
1643146712365971968,2022-01-25-21:38:32,10.1.1.12,40,-0.380,-0.380,-0.380,0.000,0.000,0.000
1643146712567380992,2022-01-25-21:38:32,10.1.1.12,31,-0.370,-0.370,-0.370,0.000,0.000,0.000
1643146712792340992,2022-01-25-21:38:32,10.1.1.12,49,-0.360,-0.360,-0.360,0.000,0.000,0.000
1643146712986045952,2022-01-25-21:38:32,10.1.1.12,37,-0.350,-0.350,-0.350,0.000,0.000,0.000
1643146713203640064,2022-01-25-21:38:33,10.1.1.12,47,-0.339,-0.339,-0.339,0.000,0.000,0.000
1643146713511622912,2022-01-25-21:38:33,10.1.1.12,134,-0.329,-0.329,-0.329,0.000,0.000,0.000
1643146713658238976,2022-01-25-21:38:33,10.1.1.12,52,-0.319,-0.319,-0.319,0.000,0.000,0.000
1643146713871234816,2022-01-25-21:38:33,10.1.1.12,61,-0.310,-0.310,-0.310,0.000,0.000,0.000
1643146714106482944,2022-01-25-21:38:34,10.1.1.12,70,-0.300,-0.300,-0.300,0.000,0.000,0.000
1643146714329894912,2022-01-25-21:38:34,10.1.1.12,44,-0.289,-0.289,-0.289,0.000,0.000,0.000
1643146714639113984,2022-01-25-21:38:34,10.1.1.12,52,-0.280,-0.280,-0.280,0.000,0.000,0.000
1643146714810240000,2022-01-25-21:38:34,10.1.1.12,46,-0.270,-0.270,-0.270,0.000,0.000,0.000
1643146715022691072,2022-01-25-21:38:35,10.1.1.12,51,-0.260,-0.260,-0.260,0.000,0.000,0.000
1643146715205647104,2022-01-25-21:38:35,10.1.1.12,28,-0.250,-0.250,-0.250,0.000,0.000,0.000
1643146715418600960,2022-01-25-21:38:35,10.1.1.12,42,-0.239,-0.239,-0.239,0.000,0.000,0.000
1643146715687598080,2022-01-25-21:38:35,10.1.1.12,109,-0.229,-0.229,-0.229,0.000,0.000,0.000
1643146715887939072,2022-01-25-21:38:35,10.1.1.12,58,-0.219,-0.219,-0.219,0.000,0.000,0.000
1643146716079750912,2022-01-25-21:38:36,10.1.1.12,50,-0.209,-0.209,-0.209,0.000,0.000,0.000
1643146716298855168,2022-01-25-21:38:36,10.1.1.12,57,-0.200,-0.200,-0.200,0.000,0.000,0.000
1643146716535161088,2022-01-25-21:38:36,10.1.1.12,-1,-0.190,-0.190,-0.190,0.000,0.000,0.000
1643146716884336896,2022-01-25-21:38:36,10.1.1.12,69,-0.179,-0.179,-0.179,0.000,0.000,0.000
1643146717073225984,2022-01-25-21:38:37,10.1.1.12,56,-0.169,-0.169,-0.169,0.000,0.000,0.000
1643146717269058816,2022-01-25-21:38:37,10.1.1.12,51,-0.159,-0.159,-0.159,0.000,0.000,0.000
1643146717468733184,2022-01-25-21:38:37,10.1.1.12,45,-0.149,-0.149,-0.149,0.000,0.000,0.000
1643146717658008064,2022-01-25-21:38:37,10.1.1.12,36,-0.139,-0.139,-0.139,0.000,0.000,0.000
1643146717862714112,2022-01-25-21:38:37,10.1.1.12,35,-0.130,-0.130,-0.130,0.000,0.000,0.000
1643146718107141888,2022-01-25-21:38:38,10.1.1.12,78,-0.120,-0.120,-0.120,0.000,0.000,0.000
1643146718337879808,2022-01-25-21:38:38,10.1.1.12,97,-0.110,-0.110,-0.110,0.000,0.000,0.000
1643146718516598016,2022-01-25-21:38:38,10.1.1.12,69,-0.100,-0.100,-0.100,0.000,0.000,0.000
1643146718742551040,2022-01-25-21:38:38,10.1.1.12,69,-0.090,-0.090,-0.090,0.000,0.000,0.000
1643146718960563968,2022-01-25-21:38:38,10.1.1.12,86,-0.080,-0.080,-0.080,0.000,0.000,0.000
1643146719163552000,2022-01-25-21:38:39,10.1.1.12,41,-0.070,-0.070,-0.070,0.000,0.000,0.000
1643146719343111936,2022-01-25-21:38:39,10.1.1.12,34,-0.060,-0.060,-0.060,0.000,0.000,0.000
1643146719562274816,2022-01-25-21:38:39,10.1.1.12,45,-0.050,-0.050,-0.050,0.000,0.000,0.000
1643146719778589952,2022-01-25-21:38:39,10.1.1.12,41,-0.040,-0.040,-0.040,0.000,0.000,0.000
1643146719998482944,2022-01-25-21:38:39,10.1.1.12,54,-0.030,-0.030,-0.030,0.000,0.000,0.000
1643146720179589120,2022-01-25-21:38:40,10.1.1.12,28,-0.020,-0.020,-0.020,0.000,0.000,0.000
1643146720415416832,2022-01-25-21:38:40,10.1.1.12,60,-0.009,-0.009,-0.009,0.000,0.000,0.000
1643146720617723904,2022-01-25-21:38:40,10.1.1.12,23,-0.002,-0.002,-0.002,0.000,0.000,0.000
1643146720821059072,2022-01-25-21:38:40,10.1.1.12,46,-0.011,-0.011,-0.011,0.000,0.000,0.000
1643146721024169984,2022-01-25-21:38:41,10.1.1.12,47,-0.021,-0.021,-0.021,0.000,0.000,0.000
1643146721256651008,2022-01-25-21:38:41,10.1.1.12,71,-0.031,-0.031,-0.031,0.000,0.000,0.000
1643146721461946112,2022-01-25-21:38:41,10.1.1.12,65,-0.041,-0.041,-0.041,0.000,0.000,0.000
1643146721648157952,2022-01-25-21:38:41,10.1.1.12,48,-0.051,-0.051,-0.051,0.000,0.000,0.000
1643146721841384960,2022-01-25-21:38:41,10.1.1.12,31,-0.060,-0.060,-0.060,0.000,0.000,0.000
1643146722071885056,2022-01-25-21:38:42,10.1.1.12,58,-0.070,-0.070,-0.070,0.000,0.000,0.000
1643146722247421952,2022-01-25-21:38:42,10.1.1.12,-2,-0.078,-0.078,-0.078,0.000,0.000,0.000
1643146722499100928,2022-01-25-21:38:42,10.1.1.12,62,-0.090,-0.090,-0.090,0.000,0.000,0.000
1643146722709723904,2022-01-25-21:38:42,10.1.1.12,68,-0.101,-0.101,-0.101,0.000,0.000,0.000
1643146722916614144,2022-01-25-21:38:42,10.1.1.12,73,-0.110,-0.110,-0.110,0.000,0.000,0.000
1643146723113995008,2022-01-25-21:38:43,10.1.1.12,52,-0.120,-0.120,-0.120,0.000,0.000,0.000
1643146723345246976,2022-01-25-21:38:43,10.1.1.12,45,-0.131,-0.131,-0.131,0.000,0.000,0.000
1643146723552721920,2022-01-25-21:38:43,10.1.1.12,44,-0.140,-0.140,-0.140,0.000,0.000,0.000
1643146723794337024,2022-01-25-21:38:43,10.1.1.12,66,-0.150,-0.150,-0.150,0.000,0.000,0.000
1643146724010097152,2022-01-25-21:38:44,10.1.1.12,32,-0.160,-0.160,-0.160,0.000,0.000,0.000
1643146724276008960,2022-01-25-21:38:44,10.1.1.12,103,-0.171,-0.171,-0.171,0.000,0.000,0.000
1643146724423623168,2022-01-25-21:38:44,10.1.1.12,48,-0.181,-0.181,-0.181,0.000,0.000,0.000
1643146724660968960,2022-01-25-21:38:44,10.1.1.12,73,-0.191,-0.191,-0.191,0.000,0.000,0.000
1643146724818983936,2022-01-25-21:38:44,10.1.1.12,39,-0.201,-0.201,-0.201,0.000,0.000,0.000
1643146725020406016,2022-01-25-21:38:45,10.1.1.12,37,-0.210,-0.210,-0.210,0.000,0.000,0.000
1643146725221015808,2022-01-25-21:38:45,10.1.1.12,33,-0.220,-0.220,-0.220,0.000,0.000,0.000
1643146725424158208,2022-01-25-21:38:45,10.1.1.12,35,-0.230,-0.230,-0.230,0.000,0.000,0.000
1643146725619425024,2022-01-25-21:38:45,10.1.1.12,28,-0.240,-0.240,-0.240,0.000,0.000,0.000
1643146725818886144,2022-01-25-21:38:45,10.1.1.12,26,-0.250,-0.250,-0.250,0.000,0.000,0.000
1643146726048866048,2022-01-25-21:38:46,10.1.1.12,55,-0.261,-0.261,-0.261,0.000,0.000,0.000
1643146726239449088,2022-01-25-21:38:46,10.1.1.12,44,-0.271,-0.271,-0.271,0.000,0.000,0.000
1643146726438908160,2022-01-25-21:38:46,10.1.1.12,43,-0.281,-0.281,-0.281,0.000,0.000,0.000
1643146726778584832,2022-01-25-21:38:46,10.1.1.12,180,-0.291,-0.291,-0.291,0.000,0.000,0.000
1643146726996235008,2022-01-25-21:38:46,10.1.1.12,56,-0.300,-0.300,-0.300,0.000,0.000,0.000
1643146727198551808,2022-01-25-21:38:47,10.1.1.12,77,-0.311,-0.311,-0.311,0.000,0.000,0.000
1643146727430080768,2022-01-25-21:38:47,10.1.1.12,81,-0.320,-0.320,-0.320,0.000,0.000,0.000
1643146727667015936,2022-01-25-21:38:47,10.1.1.12,108,-0.332,-0.332,-0.332,0.000,0.000,0.000
1643146727809210112,2022-01-25-21:38:47,10.1.1.12,41,-0.340,-0.340,-0.340,0.000,0.000,0.000
1643146728048321024,2022-01-25-21:38:48,10.1.1.12,76,-0.351,-0.351,-0.351,0.000,0.000,0.000
1643146728227795968,2022-01-25-21:38:48,10.1.1.12,47,-0.361,-0.361,-0.361,0.000,0.000,0.000
1643146728422414080,2022-01-25-21:38:48,10.1.1.12,44,-0.371,-0.371,-0.371,0.000,0.000,0.000
1643146728617714944,2022-01-25-21:38:48,10.1.1.12,38,-0.381,-0.381,-0.381,0.000,0.000,0.000
1643146728834904832,2022-01-25-21:38:48,10.1.1.12,49,-0.390,-0.390,-0.390,0.000,0.000,0.000
1643146729023211008,2022-01-25-21:38:49,10.1.1.12,34,-0.400,-0.400,-0.400,0.000,0.000,0.000
1643146729314479104,2022-01-25-21:38:49,10.1.1.12,121,-0.411,-0.411,-0.411,0.000,0.000,0.000
1643146729465553152,2022-01-25-21:38:49,10.1.1.12,42,-0.420,-0.420,-0.420,0.000,0.000,0.000
1643146729657801984,2022-01-25-21:38:49,10.1.1.12,26,-0.430,-0.430,-0.430,0.000,0.000,0.000
1643146729893949952,2022-01-25-21:38:49,10.1.1.12,59,-0.441,-0.441,-0.441,0.000,0.000,0.000
1643146730113723136,2022-01-25-21:38:50,10.1.1.12,73,-0.451,-0.451,-0.451,0.000,0.000,0.000
1643146730305085952,2022-01-25-21:38:50,10.1.1.12,51,-0.461,-0.461,-0.461,0.000,0.000,0.000
1643146730520190976,2022-01-25-21:38:50,10.1.1.12,61,-0.471,-0.471,-0.471,0.000,0.000,0.000
1643146730728473856,2022-01-25-21:38:50,10.1.1.12,55,-0.481,-0.481,-0.481,0.000,0.000,0.000
1643146730891241984,2022-01-25-21:38:50,10.1.1.12,14,-0.487,-0.487,-0.487,0.000,0.000,0.000
1643146731164877056,2022-01-25-21:38:51,10.1.1.12,49,-0.479,-0.479,-0.479,0.000,0.000,0.000
1643146731394802944,2022-01-25-21:38:51,10.1.1.12,69,-0.470,-0.470,-0.470,0.000,0.000,0.000
1643146731607988224,2022-01-25-21:38:51,10.1.1.12,78,-0.459,-0.459,-0.459,0.000,0.000,0.000
1643146731778814976,2022-01-25-21:38:51,10.1.1.12,31,-0.450,-0.450,-0.450,0.000,0.000,0.000
1643146732008950016,2022-01-25-21:38:51,10.1.1.12,42,-0.439,-0.439,-0.439,0.000,0.000,0.000
1643146732227668992,2022-01-25-21:38:52,10.1.1.12,57,-0.429,-0.429,-0.429,0.000,0.000,0.000
1643146732452966912,2022-01-25-21:38:52,10.1.1.12,63,-0.419,-0.419,-0.419,0.000,0.000,0.000
1643146732675392000,2022-01-25-21:38:52,10.1.1.12,75,-0.409,-0.409,-0.409,0.000,0.000,0.000
1643146732917839104,2022-01-25-21:38:52,10.1.1.12,107,-0.399,-0.399,-0.399,0.000,0.000,0.000
1643146733083034112,2022-01-25-21:38:53,10.1.1.12,36,-0.390,-0.390,-0.390,0.000,0.000,0.000
1643146733260567808,2022-01-25-21:38:53,10.1.1.12,35,-0.380,-0.380,-0.380,0.000,0.000,0.000
1643146733502479104,2022-01-25-21:38:53,10.1.1.12,40,-0.370,-0.370,-0.370,0.000,0.000,0.000
1643146733708834048,2022-01-25-21:38:53,10.1.1.12,67,-0.360,-0.360,-0.360,0.000,0.000,0.000
1643146733908139008,2022-01-25-21:38:53,10.1.1.12,64,-0.350,-0.350,-0.350,0.000,0.000,0.000
1643146734097177088,2022-01-25-21:38:54,10.1.1.12,48,-0.340,-0.340,-0.340,0.000,0.000,0.000
1643146734315992064,2022-01-25-21:38:54,10.1.1.12,51,-0.330,-0.330,-0.330,0.000,0.000,0.000
1643146734528006144,2022-01-25-21:38:54,10.1.1.12,46,-0.319,-0.319,-0.319,0.000,0.000,0.000
1643146734756315904,2022-01-25-21:38:54,10.1.1.12,55,-0.309,-0.309,-0.309,0.000,0.000,0.000
1643146734944623872,2022-01-25-21:38:54,10.1.1.12,42,-0.299,-0.299,-0.299,0.000,0.000,0.000
1643146735142478080,2022-01-25-21:38:55,10.1.1.12,32,-0.290,-0.290,-0.290,0.000,0.000,0.000
1643146735402905088,2022-01-25-21:38:55,10.1.1.12,63,-0.279,-0.279,-0.279,0.000,0.000,0.000
1643146735615181056,2022-01-25-21:38:55,10.1.1.12,79,-0.269,-0.269,-0.269,0.000,0.000,0.000
1643146735775378944,2022-01-25-21:38:55,10.1.1.12,56,-0.260,-0.260,-0.260,0.000,0.000,0.000
1643146735968243968,2022-01-25-21:38:55,10.1.1.12,44,-0.250,-0.250,-0.250,0.000,0.000,0.000
1643146736161398784,2022-01-25-21:38:56,10.1.1.12,28,-0.240,-0.240,-0.240,0.000,0.000,0.000
1643146736379458816,2022-01-25-21:38:56,10.1.1.12,44,-0.229,-0.229,-0.229,0.000,0.000,0.000
1643146736582801152,2022-01-25-21:38:56,10.1.1.12,47,-0.219,-0.219,-0.219,0.000,0.000,0.000
1643146736778726144,2022-01-25-21:38:56,10.1.1.12,41,-0.209,-0.209,-0.209,0.000,0.000,0.000
1643146736980467968,2022-01-25-21:38:56,10.1.1.12,42,-0.199,-0.199,-0.199,0.000,0.000,0.000
1643146737180036096,2022-01-25-21:38:57,10.1.1.12,39,-0.189,-0.189,-0.189,0.000,0.000,0.000
1643146737382694912,2022-01-25-21:38:57,10.1.1.12,39,-0.179,-0.179,-0.179,0.000,0.000,0.000
1643146737578618880,2022-01-25-21:38:57,10.1.1.12,35,-0.170,-0.170,-0.170,0.000,0.000,0.000
1643146737778758144,2022-01-25-21:38:57,10.1.1.12,34,-0.160,-0.160,-0.160,0.000,0.000,0.000
1643146737986242048,2022-01-25-21:38:57,10.1.1.12,37,-0.150,-0.150,-0.150,0.000,0.000,0.000
1643146738178160896,2022-01-25-21:38:58,10.1.1.12,30,-0.140,-0.140,-0.140,0.000,0.000,0.000
1643146738379296000,2022-01-25-21:38:58,10.1.1.12,29,-0.130,-0.130,-0.130,0.000,0.000,0.000
1643146738579363072,2022-01-25-21:38:58,10.1.1.12,28,-0.120,-0.120,-0.120,0.000,0.000,0.000
1643146738779063040,2022-01-25-21:38:58,10.1.1.12,27,-0.110,-0.110,-0.110,0.000,0.000,0.000
1643146738979415040,2022-01-25-21:38:58,10.1.1.12,27,-0.100,-0.100,-0.100,0.000,0.000,0.000
1643146739178720000,2022-01-25-21:38:59,10.1.1.12,25,-0.090,-0.090,-0.090,0.000,0.000,0.000
1643146739411308032,2022-01-25-21:38:59,10.1.1.12,34,-0.080,-0.080,-0.080,0.000,0.000,0.000
1643146739701392896,2022-01-25-21:38:59,10.1.1.12,41,-0.069,-0.069,-0.069,0.000,0.000,0.000
1643146739901869056,2022-01-25-21:38:59,10.1.1.12,40,-0.059,-0.059,-0.059,0.000,0.000,0.000
1643146740118476032,2022-01-25-21:39:00,10.1.1.12,56,-0.049,-0.049,-0.049,0.000,0.000,0.000
1643146740328659968,2022-01-25-21:39:00,10.1.1.12,35,-0.040,-0.040,-0.040,0.000,0.000,0.000
1643146740547388928,2022-01-25-21:39:00,10.1.1.12,76,-0.030,-0.030,-0.030,0.000,0.000,0.000
1643146740757262080,2022-01-25-21:39:00,10.1.1.12,78,-0.019,-0.019,-0.019,0.000,0.000,0.000
1643146740996587008,2022-01-25-21:39:00,10.1.1.12,82,-0.010,-0.010,-0.010,0.000,0.000,0.000
1643146741147444992,2022-01-25-21:39:01,10.1.1.12,8,-0.001,-0.001,-0.001,0.000,0.000,0.000
1643146741387271936,2022-01-25-21:39:01,10.1.1.12,55,-0.010,-0.010,-0.010,0.000,0.000,0.000
1643146741578457088,2022-01-25-21:39:01,10.1.1.12,39,-0.021,-0.021,-0.021,0.000,0.000,0.000
1643146741799290880,2022-01-25-21:39:01,10.1.1.12,41,-0.031,-0.031,-0.031,0.000,0.000,0.000
1643146742055237888,2022-01-25-21:39:02,10.1.1.12,78,-0.041,-0.041,-0.041,0.000,0.000,0.000
1643146742244539136,2022-01-25-21:39:02,10.1.1.12,48,-0.051,-0.051,-0.051,0.000,0.000,0.000
1643146742442231808,2022-01-25-21:39:02,10.1.1.12,45,-0.061,-0.061,-0.061,0.000,0.000,0.000
1643146742639761920,2022-01-25-21:39:02,10.1.1.12,35,-0.070,-0.070,-0.070,0.000,0.000,0.000
1643146742858685952,2022-01-25-21:39:02,10.1.1.12,53,-0.080,-0.080,-0.080,0.000,0.000,0.000
1643146743126498816,2022-01-25-21:39:03,10.1.1.12,31,-0.090,-0.090,-0.090,0.000,0.000,0.000
1643146743260302080,2022-01-25-21:39:03,10.1.1.12,34,-0.100,-0.100,-0.100,0.000,0.000,0.000
1643146743510534912,2022-01-25-21:39:03,10.1.1.12,62,-0.110,-0.110,-0.110,0.000,0.000,0.000
1643146743708143104,2022-01-25-21:39:03,10.1.1.12,58,-0.120,-0.120,-0.120,0.000,0.000,0.000
1643146744021605888,2022-01-25-21:39:03,10.1.1.12,101,-0.130,-0.130,-0.130,0.000,0.000,0.000
1643146744136312064,2022-01-25-21:39:04,10.1.1.12,59,-0.141,-0.141,-0.141,0.000,0.000,0.000
1643146744307908096,2022-01-25-21:39:04,10.1.1.12,-1,-0.149,-0.149,-0.149,0.000,0.000,0.000
1643146744565006848,2022-01-25-21:39:04,10.1.1.12,46,-0.161,-0.161,-0.161,0.000,0.000,0.000
1643146744761117952,2022-01-25-21:39:04,10.1.1.12,41,-0.171,-0.171,-0.171,0.000,0.000,0.000
1643146744999208960,2022-01-25-21:39:04,10.1.1.12,75,-0.181,-0.181,-0.181,0.000,0.000,0.000
1643146745215842048,2022-01-25-21:39:05,10.1.1.12,86,-0.190,-0.190,-0.190,0.000,0.000,0.000
1643146745409707008,2022-01-25-21:39:05,10.1.1.12,60,-0.201,-0.201,-0.201,0.000,0.000,0.000
1643146745639777792,2022-01-25-21:39:05,10.1.1.12,103,-0.211,-0.211,-0.211,0.000,0.000,0.000
1643146745777997056,2022-01-25-21:39:05,10.1.1.12,40,-0.221,-0.221,-0.221,0.000,0.000,0.000
1643146745978630912,2022-01-25-21:39:05,10.1.1.12,39,-0.231,-0.231,-0.231,0.000,0.000,0.000
1643146746178347008,2022-01-25-21:39:06,10.1.1.12,39,-0.241,-0.241,-0.241,0.000,0.000,0.000
1643146746378572032,2022-01-25-21:39:06,10.1.1.12,33,-0.250,-0.250,-0.250,0.000,0.000,0.000
1643146746617944064,2022-01-25-21:39:06,10.1.1.12,56,-0.260,-0.260,-0.260,0.000,0.000,0.000
1643146746899311104,2022-01-25-21:39:06,10.1.1.12,143,-0.271,-0.271,-0.271,0.000,0.000,0.000
1643146747043629824,2022-01-25-21:39:07,10.1.1.12,69,-0.281,-0.281,-0.281,0.000,0.000,0.000
1643146747213689088,2022-01-25-21:39:07,10.1.1.12,44,-0.290,-0.290,-0.290,0.000,0.000,0.000
1643146747436088064,2022-01-25-21:39:07,10.1.1.12,31,-0.300,-0.300,-0.300,0.000,0.000,0.000
1643146747628129024,2022-01-25-21:39:07,10.1.1.12,55,-0.310,-0.310,-0.310,0.000,0.000,0.000
1643146747873136896,2022-01-25-21:39:07,10.1.1.12,58,-0.321,-0.321,-0.321,0.000,0.000,0.000
1643146748019371008,2022-01-25-21:39:08,10.1.1.12,41,-0.331,-0.331,-0.331,0.000,0.000,0.000
1643146748218568192,2022-01-25-21:39:08,10.1.1.12,37,-0.340,-0.340,-0.340,0.000,0.000,0.000
1643146748458464000,2022-01-25-21:39:08,10.1.1.12,53,-0.351,-0.351,-0.351,0.000,0.000,0.000
1643146748784791040,2022-01-25-21:39:08,10.1.1.12,132,-0.361,-0.361,-0.361,0.000,0.000,0.000
1643146748876002048,2022-01-25-21:39:08,10.1.1.12,67,-0.370,-0.370,-0.370,0.000,0.000,0.000
1643146749058548992,2022-01-25-21:39:09,10.1.1.12,43,-0.381,-0.381,-0.381,0.000,0.000,0.000
1643146749258770944,2022-01-25-21:39:09,10.1.1.12,38,-0.390,-0.390,-0.390,0.000,0.000,0.000
1643146749487169024,2022-01-25-21:39:09,10.1.1.12,54,-0.401,-0.401,-0.401,0.000,0.000,0.000
1643146749684386048,2022-01-25-21:39:09,10.1.1.12,50,-0.411,-0.411,-0.411,0.000,0.000,0.000
1643146749855907840,2022-01-25-21:39:09,10.1.1.12,-39,-0.416,-0.416,-0.416,0.000,0.000,0.000
1643146750149563136,2022-01-25-21:39:10,10.1.1.12,93,-0.430,-0.430,-0.430,0.000,0.000,0.000
1643146750314306048,2022-01-25-21:39:10,10.1.1.12,48,-0.441,-0.441,-0.441,0.000,0.000,0.000
1643146750500862976,2022-01-25-21:39:10,10.1.1.12,33,-0.450,-0.450,-0.450,0.000,0.000,0.000
1643146750718667008,2022-01-25-21:39:10,10.1.1.12,49,-0.460,-0.460,-0.460,0.000,0.000,0.000
1643146750903172864,2022-01-25-21:39:10,10.1.1.12,33,-0.470,-0.470,-0.470,0.000,0.000,0.000
1643146751106790912,2022-01-25-21:39:11,10.1.1.12,35,-0.480,-0.480,-0.480,0.000,0.000,0.000
1643146751290672128,2022-01-25-21:39:11,10.1.1.12,13,-0.489,-0.489,-0.489,0.000,0.000,0.000
1643146751528634112,2022-01-25-21:39:11,10.1.1.12,40,-0.480,-0.480,-0.480,0.000,0.000,0.000
1643146751753766912,2022-01-25-21:39:11,10.1.1.12,63,-0.469,-0.469,-0.469,0.000,0.000,0.000
1643146751981039104,2022-01-25-21:39:11,10.1.1.12,48,-0.459,-0.459,-0.459,0.000,0.000,0.000
1643146752184796928,2022-01-25-21:39:12,10.1.1.12,50,-0.449,-0.449,-0.449,0.000,0.000,0.000
1643146752400974080,2022-01-25-21:39:12,10.1.1.12,55,-0.440,-0.440,-0.440,0.000,0.000,0.000
1643146752604366080,2022-01-25-21:39:12,10.1.1.12,34,-0.430,-0.430,-0.430,0.000,0.000,0.000
1643146752800640000,2022-01-25-21:39:12,10.1.1.12,28,-0.420,-0.420,-0.420,0.000,0.000,0.000
1643146753023881984,2022-01-25-21:39:13,10.1.1.12,46,-0.409,-0.409,-0.409,0.000,0.000,0.000
1643146753239394816,2022-01-25-21:39:13,10.1.1.12,64,-0.399,-0.399,-0.399,0.000,0.000,0.000
1643146753455589888,2022-01-25-21:39:13,10.1.1.12,78,-0.389,-0.389,-0.389,0.000,0.000,0.000
1643146753660166912,2022-01-25-21:39:13,10.1.1.12,34,-0.380,-0.380,-0.380,0.000,0.000,0.000
1643146753925741824,2022-01-25-21:39:13,10.1.1.12,-8,-0.373,-0.373,-0.373,0.000,0.000,0.000
1643146754242392064,2022-01-25-21:39:14,10.1.1.12,176,-0.359,-0.359,-0.359,0.000,0.000,0.000
1643146754401056000,2022-01-25-21:39:14,10.1.1.12,105,-0.349,-0.349,-0.349,0.000,0.000,0.000
1643146754641204992,2022-01-25-21:39:14,10.1.1.12,112,-0.339,-0.339,-0.339,0.000,0.000,0.000
1643146754795279872,2022-01-25-21:39:14,10.1.1.12,58,-0.330,-0.330,-0.330,0.000,0.000,0.000
1643146754996026112,2022-01-25-21:39:14,10.1.1.12,51,-0.320,-0.320,-0.320,0.000,0.000,0.000
1643146755196290048,2022-01-25-21:39:15,10.1.1.12,29,-0.310,-0.310,-0.310,0.000,0.000,0.000
1643146755398823936,2022-01-25-21:39:15,10.1.1.12,41,-0.299,-0.299,-0.299,0.000,0.000,0.000
1643146755604547072,2022-01-25-21:39:15,10.1.1.12,39,-0.290,-0.290,-0.290,0.000,0.000,0.000
1643146755820781824,2022-01-25-21:39:15,10.1.1.12,47,-0.279,-0.279,-0.279,0.000,0.000,0.000
1643146756019547904,2022-01-25-21:39:16,10.1.1.12,45,-0.269,-0.269,-0.269,0.000,0.000,0.000
1643146756218341120,2022-01-25-21:39:16,10.1.1.12,44,-0.259,-0.259,-0.259,0.000,0.000,0.000
1643146756420294144,2022-01-25-21:39:16,10.1.1.12,45,-0.249,-0.249,-0.249,0.000,0.000,0.000
1643146756618263040,2022-01-25-21:39:16,10.1.1.12,40,-0.239,-0.239,-0.239,0.000,0.000,0.000
1643146756818514176,2022-01-25-21:39:16,10.1.1.12,39,-0.229,-0.229,-0.229,0.000,0.000,0.000
1643146757018767104,2022-01-25-21:39:17,10.1.1.12,38,-0.219,-0.219,-0.219,0.000,0.000,0.000
1643146757218116096,2022-01-25-21:39:17,10.1.1.12,36,-0.209,-0.209,-0.209,0.000,0.000,0.000
1643146757418857984,2022-01-25-21:39:17,10.1.1.12,36,-0.199,-0.199,-0.199,0.000,0.000,0.000
1643146757619035904,2022-01-25-21:39:17,10.1.1.12,34,-0.190,-0.190,-0.190,0.000,0.000,0.000
1643146757819130880,2022-01-25-21:39:17,10.1.1.12,33,-0.180,-0.180,-0.180,0.000,0.000,0.000
1643146758018414848,2022-01-25-21:39:18,10.1.1.12,32,-0.170,-0.170,-0.170,0.000,0.000,0.000
1643146758218650112,2022-01-25-21:39:18,10.1.1.12,31,-0.160,-0.160,-0.160,0.000,0.000,0.000
1643146758418926080,2022-01-25-21:39:18,10.1.1.12,30,-0.150,-0.150,-0.150,0.000,0.000,0.000
1643146758648087040,2022-01-25-21:39:18,10.1.1.12,50,-0.139,-0.139,-0.139,0.000,0.000,0.000
1643146758839895040,2022-01-25-21:39:18,10.1.1.12,32,-0.130,-0.130,-0.130,0.000,0.000,0.000
1643146759044797952,2022-01-25-21:39:19,10.1.1.12,33,-0.120,-0.120,-0.120,0.000,0.000,0.000
1643146759239684096,2022-01-25-21:39:19,10.1.1.12,29,-0.110,-0.110,-0.110,0.000,0.000,0.000
1643146759442964992,2022-01-25-21:39:19,10.1.1.12,19,-0.100,-0.100,-0.100,0.000,0.000,0.000
1643146759668909056,2022-01-25-21:39:19,10.1.1.12,39,-0.090,-0.090,-0.090,0.000,0.000,0.000
1643146759874744064,2022-01-25-21:39:19,10.1.1.12,25,-0.080,-0.080,-0.080,0.000,0.000,0.000
1643146760142561792,2022-01-25-21:39:20,10.1.1.12,37,-0.070,-0.070,-0.070,0.000,0.000,0.000
1643146760348900096,2022-01-25-21:39:20,10.1.1.12,43,-0.060,-0.060,-0.060,0.000,0.000,0.000
1643146760544198144,2022-01-25-21:39:20,10.1.1.12,33,-0.050,-0.050,-0.050,0.000,0.000,0.000
1643146760742388992,2022-01-25-21:39:20,10.1.1.12,31,-0.040,-0.040,-0.040,0.000,0.000,0.000
1643146760950697984,2022-01-25-21:39:20,10.1.1.12,38,-0.030,-0.030,-0.030,0.000,0.000,0.000
1643146761158183168,2022-01-25-21:39:21,10.1.1.12,43,-0.019,-0.019,-0.019,0.000,0.000,0.000
1643146761422297856,2022-01-25-21:39:21,10.1.1.12,106,-0.009,-0.009,-0.009,0.000,0.000,0.000
