FedericoMungari/DigitalTwin_service/01_WiredScenario/Output/Output_script/script_rosapi_2_output_robots8_freq0_7.txt
timestamp,date,node,latency,joint_1,joint_2,joint_3,joint_4,joint_5,joint_6
1644350902283920128,2022-02-08-20:08:22,10.1.1.8,-5,-0.100,-0.100,-0.100,-0.000,0.000,0.000
1644350902414052864,2022-02-08-20:08:22,10.1.1.8,31,-0.090,-0.090,-0.090,0.000,0.000,0.000
1644350902514673920,2022-02-08-20:08:22,10.1.1.8,30,-0.080,-0.080,-0.080,0.000,0.000,0.000
1644350902614087936,2022-02-08-20:08:22,10.1.1.8,29,-0.070,-0.070,-0.070,0.000,0.000,0.000
1644350902713372928,2022-02-08-20:08:22,10.1.1.8,29,-0.060,-0.060,-0.060,0.000,0.000,0.000
1644350902813528064,2022-02-08-20:08:22,10.1.1.8,28,-0.050,-0.050,-0.050,0.000,0.000,0.000
1644350902913767168,2022-02-08-20:08:22,10.1.1.8,28,-0.040,-0.040,-0.040,0.000,0.000,0.000
1644350903014689024,2022-02-08-20:08:23,10.1.1.8,28,-0.030,-0.030,-0.030,0.000,0.000,0.000
1644350903114105856,2022-02-08-20:08:23,10.1.1.8,27,-0.020,-0.020,-0.020,0.000,0.000,0.000
1644350903214601984,2022-02-08-20:08:23,10.1.1.8,26,-0.010,-0.010,-0.010,0.000,0.000,0.000
1644350903313651200,2022-02-08-20:08:23,10.1.1.8,26,0.000,0.000,0.000,0.000,0.000,0.000
1644350903413630976,2022-02-08-20:08:23,10.1.1.8,25,0.010,0.010,0.010,0.000,0.000,0.000
1644350903513741056,2022-02-08-20:08:23,10.1.1.8,25,0.020,0.020,0.020,0.000,0.000,0.000
1644350903614042112,2022-02-08-20:08:23,10.1.1.8,24,0.030,0.030,0.030,0.000,0.000,0.000
1644350903714088960,2022-02-08-20:08:23,10.1.1.8,24,0.040,0.040,0.040,0.000,0.000,0.000
1644350903814133760,2022-02-08-20:08:23,10.1.1.8,23,0.050,0.050,0.050,0.000,0.000,0.000
1644350903913958144,2022-02-08-20:08:23,10.1.1.8,23,0.060,0.060,0.060,0.000,0.000,0.000
1644350904013554176,2022-02-08-20:08:24,10.1.1.8,22,0.070,0.070,0.070,0.000,0.000,0.000
1644350904113872896,2022-02-08-20:08:24,10.1.1.8,22,0.080,0.080,0.080,0.000,0.000,0.000
1644350904213924864,2022-02-08-20:08:24,10.1.1.8,22,0.090,0.090,0.090,0.000,0.000,0.000
1644350904313821952,2022-02-08-20:08:24,10.1.1.8,21,0.100,0.100,0.100,0.000,0.000,0.000
1644350904413917952,2022-02-08-20:08:24,10.1.1.8,21,0.090,0.090,0.090,0.000,0.000,0.000
1644350904514408960,2022-02-08-20:08:24,10.1.1.8,20,0.080,0.080,0.080,0.000,0.000,0.000
1644350904614049792,2022-02-08-20:08:24,10.1.1.8,20,0.070,0.070,0.070,0.000,0.000,0.000
1644350904713465088,2022-02-08-20:08:24,10.1.1.8,19,0.060,0.060,0.060,0.000,0.000,0.000
1644350904813756928,2022-02-08-20:08:24,10.1.1.8,19,0.051,0.051,0.051,0.000,0.000,0.000
1644350904934411008,2022-02-08-20:08:24,10.1.1.8,38,0.040,0.040,0.040,0.000,0.000,0.000
1644350905033440000,2022-02-08-20:08:25,10.1.1.8,38,0.030,0.030,0.030,0.000,0.000,0.000
1644350905134305024,2022-02-08-20:08:25,10.1.1.8,34,0.020,0.020,0.020,0.000,0.000,0.000
1644350905234318080,2022-02-08-20:08:25,10.1.1.8,29,0.010,0.010,0.010,0.000,0.000,0.000
1644350905333872128,2022-02-08-20:08:25,10.1.1.8,29,0.000,0.000,0.000,0.000,0.000,0.000
1644350905439433216,2022-02-08-20:08:25,10.1.1.8,25,-0.010,-0.010,-0.010,0.000,0.000,0.000
1644350905534241792,2022-02-08-20:08:25,10.1.1.8,23,-0.020,-0.020,-0.020,0.000,0.000,0.000
1644350905633784064,2022-02-08-20:08:25,10.1.1.8,22,-0.030,-0.030,-0.030,0.000,0.000,0.000
1644350905735148032,2022-02-08-20:08:25,10.1.1.8,20,-0.040,-0.040,-0.040,0.000,0.000,0.000
1644350905833704960,2022-02-08-20:08:25,10.1.1.8,19,-0.049,-0.049,-0.049,0.000,0.000,0.000
1644350905953725952,2022-02-08-20:08:25,10.1.1.8,38,-0.060,-0.060,-0.060,0.000,0.000,0.000
1644350906053561088,2022-02-08-20:08:26,10.1.1.8,37,-0.070,-0.070,-0.070,0.000,0.000,0.000
1644350906154052864,2022-02-08-20:08:26,10.1.1.8,36,-0.080,-0.080,-0.080,0.000,0.000,0.000
1644350906253635840,2022-02-08-20:08:26,10.1.1.8,35,-0.090,-0.090,-0.090,0.000,0.000,0.000
1644350906353476096,2022-02-08-20:08:26,10.1.1.8,34,-0.100,-0.100,-0.100,0.000,0.000,0.000
1644350906453316096,2022-02-08-20:08:26,10.1.1.8,33,-0.090,-0.090,-0.090,0.000,0.000,0.000
1644350906553790976,2022-02-08-20:08:26,10.1.1.8,33,-0.080,-0.080,-0.080,0.000,0.000,0.000
1644350906654648064,2022-02-08-20:08:26,10.1.1.8,32,-0.070,-0.070,-0.070,0.000,0.000,0.000
1644350906754475008,2022-02-08-20:08:26,10.1.1.8,32,-0.060,-0.060,-0.060,0.000,0.000,0.000
1644350906854259968,2022-02-08-20:08:26,10.1.1.8,31,-0.050,-0.050,-0.050,0.000,0.000,0.000
1644350906961123840,2022-02-08-20:08:26,10.1.1.8,30,-0.040,-0.040,-0.040,0.000,0.000,0.000
1644350907053986048,2022-02-08-20:08:27,10.1.1.8,29,-0.030,-0.030,-0.030,0.000,0.000,0.000
1644350907153577984,2022-02-08-20:08:27,10.1.1.8,29,-0.020,-0.020,-0.020,0.000,0.000,0.000
1644350907253840896,2022-02-08-20:08:27,10.1.1.8,28,-0.010,-0.010,-0.010,0.000,0.000,0.000
1644350907354212096,2022-02-08-20:08:27,10.1.1.8,27,0.000,0.000,0.000,0.000,0.000,0.000
1644350907454407936,2022-02-08-20:08:27,10.1.1.8,26,0.010,0.010,0.010,0.000,0.000,0.000
1644350907554050048,2022-02-08-20:08:27,10.1.1.8,26,0.020,0.020,0.020,0.000,0.000,0.000
1644350907654547968,2022-02-08-20:08:27,10.1.1.8,25,0.030,0.030,0.030,0.000,0.000,0.000
1644350907754363904,2022-02-08-20:08:27,10.1.1.8,25,0.040,0.040,0.040,0.000,0.000,0.000
1644350907854114048,2022-02-08-20:08:27,10.1.1.8,24,0.050,0.050,0.050,0.000,0.000,0.000
1644350907953783040,2022-02-08-20:08:27,10.1.1.8,23,0.060,0.060,0.060,0.000,0.000,0.000
1644350908054230016,2022-02-08-20:08:28,10.1.1.8,23,0.070,0.070,0.070,0.000,0.000,0.000
1644350908154097920,2022-02-08-20:08:28,10.1.1.8,22,0.080,0.080,0.080,0.000,0.000,0.000
1644350908254576896,2022-02-08-20:08:28,10.1.1.8,21,0.090,0.090,0.090,0.000,0.000,0.000
1644350908355699968,2022-02-08-20:08:28,10.1.1.8,21,0.100,0.100,0.100,0.000,0.000,0.000
1644350908454787072,2022-02-08-20:08:28,10.1.1.8,20,0.090,0.090,0.090,0.000,0.000,0.000
1644350908554573056,2022-02-08-20:08:28,10.1.1.8,20,0.080,0.080,0.080,0.000,0.000,0.000
1644350908654023936,2022-02-08-20:08:28,10.1.1.8,19,0.070,0.070,0.070,0.000,0.000,0.000
1644350908774068224,2022-02-08-20:08:28,10.1.1.8,38,0.060,0.060,0.060,0.000,0.000,0.000
1644350908874160896,2022-02-08-20:08:28,10.1.1.8,37,0.050,0.050,0.050,0.000,0.000,0.000
1644350908973947904,2022-02-08-20:08:28,10.1.1.8,36,0.040,0.040,0.040,0.000,0.000,0.000
1644350909074213888,2022-02-08-20:08:29,10.1.1.8,36,0.030,0.030,0.030,0.000,0.000,0.000
1644350909174520064,2022-02-08-20:08:29,10.1.1.8,35,0.020,0.020,0.020,0.000,0.000,0.000
1644350909274478848,2022-02-08-20:08:29,10.1.1.8,35,0.010,0.010,0.010,0.000,0.000,0.000
1644350909374025984,2022-02-08-20:08:29,10.1.1.8,34,0.000,0.000,0.000,0.000,0.000,0.000
1644350909473772032,2022-02-08-20:08:29,10.1.1.8,33,-0.010,-0.010,-0.010,0.000,0.000,0.000
1644350909574094080,2022-02-08-20:08:29,10.1.1.8,33,-0.020,-0.020,-0.020,0.000,0.000,0.000
1644350909674174976,2022-02-08-20:08:29,10.1.1.8,32,-0.030,-0.030,-0.030,0.000,0.000,0.000
1644350909774667008,2022-02-08-20:08:29,10.1.1.8,32,-0.040,-0.040,-0.040,0.000,0.000,0.000
1644350909874264832,2022-02-08-20:08:29,10.1.1.8,31,-0.050,-0.050,-0.050,0.000,0.000,0.000
1644350909974530816,2022-02-08-20:08:29,10.1.1.8,30,-0.060,-0.060,-0.060,0.000,0.000,0.000
1644350910073376768,2022-02-08-20:08:30,10.1.1.8,29,-0.070,-0.070,-0.070,0.000,0.000,0.000
1644350910173965824,2022-02-08-20:08:30,10.1.1.8,29,-0.080,-0.080,-0.080,0.000,0.000,0.000
1644350910274297088,2022-02-08-20:08:30,10.1.1.8,28,-0.090,-0.090,-0.090,0.000,0.000,0.000
1644350910374151936,2022-02-08-20:08:30,10.1.1.8,28,-0.100,-0.100,-0.100,0.000,0.000,0.000
1644350910474003968,2022-02-08-20:08:30,10.1.1.8,27,-0.090,-0.090,-0.090,0.000,0.000,0.000
1644350910574446080,2022-02-08-20:08:30,10.1.1.8,26,-0.080,-0.080,-0.080,0.000,0.000,0.000
1644350910673966848,2022-02-08-20:08:30,10.1.1.8,26,-0.070,-0.070,-0.070,0.000,0.000,0.000
1644350910775336960,2022-02-08-20:08:30,10.1.1.8,25,-0.060,-0.060,-0.060,0.000,0.000,0.000
1644350910873752064,2022-02-08-20:08:30,10.1.1.8,25,-0.050,-0.050,-0.050,0.000,0.000,0.000
1644350910974194944,2022-02-08-20:08:30,10.1.1.8,24,-0.040,-0.040,-0.040,0.000,0.000,0.000
1644350911074031104,2022-02-08-20:08:31,10.1.1.8,24,-0.030,-0.030,-0.030,0.000,0.000,0.000
1644350911174031104,2022-02-08-20:08:31,10.1.1.8,22,-0.020,-0.020,-0.020,0.000,0.000,0.000
1644350911273750016,2022-02-08-20:08:31,10.1.1.8,21,-0.010,-0.010,-0.010,0.000,0.000,0.000
1644350911374012928,2022-02-08-20:08:31,10.1.1.8,21,0.000,0.000,0.000,0.000,0.000,0.000
1644350911474076160,2022-02-08-20:08:31,10.1.1.8,20,0.010,0.010,0.010,0.000,0.000,0.000
1644350911574310912,2022-02-08-20:08:31,10.1.1.8,20,0.020,0.020,0.020,0.000,0.000,0.000
1644350911674132224,2022-02-08-20:08:31,10.1.1.8,19,0.029,0.029,0.029,0.000,0.000,0.000
1644350911794290176,2022-02-08-20:08:31,10.1.1.8,38,0.040,0.040,0.040,0.000,0.000,0.000
1644350911894372096,2022-02-08-20:08:31,10.1.1.8,38,0.050,0.050,0.050,0.000,0.000,0.000
1644350911994072064,2022-02-08-20:08:31,10.1.1.8,37,0.060,0.060,0.060,0.000,0.000,0.000
1644350912094355200,2022-02-08-20:08:32,10.1.1.8,36,0.070,0.070,0.070,0.000,0.000,0.000
1644350912193750016,2022-02-08-20:08:32,10.1.1.8,36,0.080,0.080,0.080,0.000,0.000,0.000
1644350912293915136,2022-02-08-20:08:32,10.1.1.8,36,0.090,0.090,0.090,0.000,0.000,0.000
1644350912394431232,2022-02-08-20:08:32,10.1.1.8,35,0.100,0.100,0.100,0.000,0.000,0.000
1644350912494385920,2022-02-08-20:08:32,10.1.1.8,35,0.090,0.090,0.090,0.000,0.000,0.000
1644350912594452992,2022-02-08-20:08:32,10.1.1.8,34,0.080,0.080,0.080,0.000,0.000,0.000
1644350912694161920,2022-02-08-20:08:32,10.1.1.8,34,0.070,0.070,0.070,0.000,0.000,0.000
1644350912794900992,2022-02-08-20:08:32,10.1.1.8,33,0.060,0.060,0.060,0.000,0.000,0.000
1644350912894161920,2022-02-08-20:08:32,10.1.1.8,31,0.050,0.050,0.050,0.000,0.000,0.000
1644350912994188032,2022-02-08-20:08:32,10.1.1.8,31,0.040,0.040,0.040,0.000,0.000,0.000
1644350913094607104,2022-02-08-20:08:33,10.1.1.8,31,0.030,0.030,0.030,0.000,0.000,0.000
1644350913334359808,2022-02-08-20:08:33,10.1.1.8,38,0.010,0.010,0.010,0.000,0.000,0.000
1644350913434648064,2022-02-08-20:08:33,10.1.1.8,36,0.000,0.000,0.000,0.000,0.000,0.000
1644350913534162944,2022-02-08-20:08:33,10.1.1.8,35,-0.010,-0.010,-0.010,0.000,0.000,0.000
1644350913634085888,2022-02-08-20:08:33,10.1.1.8,34,-0.020,-0.020,-0.020,0.000,0.000,0.000
1644350913733888000,2022-02-08-20:08:33,10.1.1.8,34,-0.030,-0.030,-0.030,0.000,0.000,0.000
1644350913836113920,2022-02-08-20:08:33,10.1.1.8,33,-0.040,-0.040,-0.040,0.000,0.000,0.000
1644350913933686016,2022-02-08-20:08:33,10.1.1.8,32,-0.050,-0.050,-0.050,0.000,0.000,0.000
1644350914098464000,2022-02-08-20:08:34,10.1.1.8,32,-0.060,-0.060,-0.060,0.000,0.000,0.000
1644350914134264832,2022-02-08-20:08:34,10.1.1.8,24,-0.070,-0.070,-0.070,0.000,0.000,0.000
1644350914234068992,2022-02-08-20:08:34,10.1.1.8,23,-0.080,-0.080,-0.080,0.000,0.000,0.000
1644350914333530880,2022-02-08-20:08:34,10.1.1.8,23,-0.090,-0.090,-0.090,0.000,0.000,0.000
1644350914452340992,2022-02-08-20:08:34,10.1.1.8,20,-0.100,-0.100,-0.100,0.000,0.000,0.000
1644350914534519040,2022-02-08-20:08:34,10.1.1.8,19,-0.090,-0.090,-0.090,0.000,0.000,0.000
1644350914634032896,2022-02-08-20:08:34,10.1.1.8,19,-0.081,-0.081,-0.081,0.000,0.000,0.000
1644350914753745920,2022-02-08-20:08:34,10.1.1.8,37,-0.070,-0.070,-0.070,0.000,0.000,0.000
1644350914854600960,2022-02-08-20:08:34,10.1.1.8,36,-0.060,-0.060,-0.060,0.000,0.000,0.000
1644350914954287104,2022-02-08-20:08:34,10.1.1.8,35,-0.050,-0.050,-0.050,0.000,0.000,0.000
1644350915054016000,2022-02-08-20:08:35,10.1.1.8,34,-0.040,-0.040,-0.040,0.000,0.000,0.000
1644350915154151936,2022-02-08-20:08:35,10.1.1.8,34,-0.030,-0.030,-0.030,0.000,0.000,0.000
1644350915254673920,2022-02-08-20:08:35,10.1.1.8,31,-0.020,-0.020,-0.020,0.000,0.000,0.000
1644350915354274048,2022-02-08-20:08:35,10.1.1.8,30,-0.010,-0.010,-0.010,0.000,0.000,0.000
1644350915454350848,2022-02-08-20:08:35,10.1.1.8,29,0.000,0.000,0.000,0.000,0.000,0.000
1644350915554192128,2022-02-08-20:08:35,10.1.1.8,29,0.010,0.010,0.010,0.000,0.000,0.000
1644350915653776896,2022-02-08-20:08:35,10.1.1.8,28,0.020,0.020,0.020,0.000,0.000,0.000
1644350915754322944,2022-02-08-20:08:35,10.1.1.8,28,0.030,0.030,0.030,0.000,0.000,0.000
1644350915873654016,2022-02-08-20:08:35,10.1.1.8,38,0.040,0.040,0.040,0.000,0.000,0.000
1644350915988496128,2022-02-08-20:08:35,10.1.1.8,24,0.050,0.050,0.050,0.000,0.000,0.000
1644350916073581824,2022-02-08-20:08:36,10.1.1.8,21,0.060,0.060,0.060,0.000,0.000,0.000
1644350916174851840,2022-02-08-20:08:36,10.1.1.8,21,0.070,0.070,0.070,0.000,0.000,0.000
1644350916274418944,2022-02-08-20:08:36,10.1.1.8,20,0.080,0.080,0.080,0.000,0.000,0.000
1644350916374665984,2022-02-08-20:08:36,10.1.1.8,20,0.090,0.090,0.090,0.000,0.000,0.000
1644350916474550016,2022-02-08-20:08:36,10.1.1.8,18,0.099,0.099,0.099,0.000,0.000,0.000
1644350916599735040,2022-02-08-20:08:36,10.1.1.8,37,0.090,0.090,0.090,0.000,0.000,0.000
1644350916694177024,2022-02-08-20:08:36,10.1.1.8,36,0.080,0.080,0.080,0.000,0.000,0.000
1644350916794189056,2022-02-08-20:08:36,10.1.1.8,36,0.070,0.070,0.070,0.000,0.000,0.000
1644350916893822976,2022-02-08-20:08:36,10.1.1.8,35,0.060,0.060,0.060,0.000,0.000,0.000
1644350916994020096,2022-02-08-20:08:36,10.1.1.8,34,0.050,0.050,0.050,0.000,0.000,0.000
1644350917093673984,2022-02-08-20:08:37,10.1.1.8,33,0.040,0.040,0.040,0.000,0.000,0.000
1644350917194137088,2022-02-08-20:08:37,10.1.1.8,33,0.030,0.030,0.030,0.000,0.000,0.000
1644350917294091008,2022-02-08-20:08:37,10.1.1.8,33,0.020,0.020,0.020,0.000,0.000,0.000
1644350917394292992,2022-02-08-20:08:37,10.1.1.8,32,0.010,0.010,0.010,0.000,0.000,0.000
1644350917494829056,2022-02-08-20:08:37,10.1.1.8,31,0.000,0.000,0.000,0.000,0.000,0.000
1644350917594422016,2022-02-08-20:08:37,10.1.1.8,31,-0.010,-0.010,-0.010,0.000,0.000,0.000
1644350917693868032,2022-02-08-20:08:37,10.1.1.8,30,-0.020,-0.020,-0.020,0.000,0.000,0.000
1644350917794258176,2022-02-08-20:08:37,10.1.1.8,30,-0.030,-0.030,-0.030,0.000,0.000,0.000
1644350917894306048,2022-02-08-20:08:37,10.1.1.8,30,-0.040,-0.040,-0.040,0.000,0.000,0.000
1644350917994671104,2022-02-08-20:08:37,10.1.1.8,29,-0.050,-0.050,-0.050,0.000,0.000,0.000
1644350918094171904,2022-02-08-20:08:38,10.1.1.8,28,-0.060,-0.060,-0.060,0.000,0.000,0.000
1644350918194056960,2022-02-08-20:08:38,10.1.1.8,28,-0.070,-0.070,-0.070,0.000,0.000,0.000
1644350918294130176,2022-02-08-20:08:38,10.1.1.8,27,-0.080,-0.080,-0.080,0.000,0.000,0.000
1644350918394264832,2022-02-08-20:08:38,10.1.1.8,26,-0.090,-0.090,-0.090,0.000,0.000,0.000
1644350918494407936,2022-02-08-20:08:38,10.1.1.8,25,-0.100,-0.100,-0.100,0.000,0.000,0.000
1644350918596198912,2022-02-08-20:08:38,10.1.1.8,24,-0.090,-0.090,-0.090,0.000,0.000,0.000
1644350918694243072,2022-02-08-20:08:38,10.1.1.8,23,-0.080,-0.080,-0.080,0.000,0.000,0.000
1644350918794418944,2022-02-08-20:08:38,10.1.1.8,23,-0.070,-0.070,-0.070,0.000,0.000,0.000
1644350918894349056,2022-02-08-20:08:38,10.1.1.8,22,-0.060,-0.060,-0.060,0.000,0.000,0.000
1644350918993797120,2022-02-08-20:08:38,10.1.1.8,21,-0.050,-0.050,-0.050,0.000,0.000,0.000
1644350919093780992,2022-02-08-20:08:39,10.1.1.8,20,-0.040,-0.040,-0.040,0.000,0.000,0.000
1644350919194255104,2022-02-08-20:08:39,10.1.1.8,20,-0.030,-0.030,-0.030,0.000,0.000,0.000
1644350919294061056,2022-02-08-20:08:39,10.1.1.8,19,-0.020,-0.020,-0.020,0.000,0.000,0.000
1644350919394146816,2022-02-08-20:08:39,10.1.1.8,19,-0.011,-0.011,-0.011,0.000,0.000,0.000
1644350919514157056,2022-02-08-20:08:39,10.1.1.8,39,0.000,0.000,0.000,0.000,0.000,0.000
1644350919615048960,2022-02-08-20:08:39,10.1.1.8,38,0.010,0.010,0.010,0.000,0.000,0.000
1644350919715131904,2022-02-08-20:08:39,10.1.1.8,37,0.020,0.020,0.020,0.000,0.000,0.000
1644350919814542080,2022-02-08-20:08:39,10.1.1.8,37,0.030,0.030,0.030,0.000,0.000,0.000
1644350919914212096,2022-02-08-20:08:39,10.1.1.8,36,0.040,0.040,0.040,0.000,0.000,0.000
1644350920013967872,2022-02-08-20:08:40,10.1.1.8,36,0.050,0.050,0.050,0.000,0.000,0.000
1644350920114000128,2022-02-08-20:08:40,10.1.1.8,36,0.060,0.060,0.060,0.000,0.000,0.000
1644350920213752064,2022-02-08-20:08:40,10.1.1.8,35,0.070,0.070,0.070,0.000,0.000,0.000
1644350920314070016,2022-02-08-20:08:40,10.1.1.8,35,0.080,0.080,0.080,0.000,0.000,0.000
1644350920414011904,2022-02-08-20:08:40,10.1.1.8,34,0.090,0.090,0.090,0.000,0.000,0.000
1644350920513922816,2022-02-08-20:08:40,10.1.1.8,34,0.100,0.100,0.100,0.000,0.000,0.000
1644350920613915904,2022-02-08-20:08:40,10.1.1.8,33,0.090,0.090,0.090,0.000,0.000,0.000
1644350920713448960,2022-02-08-20:08:40,10.1.1.8,33,0.080,0.080,0.080,0.000,0.000,0.000
1644350920814373120,2022-02-08-20:08:40,10.1.1.8,32,0.070,0.070,0.070,0.000,0.000,0.000
1644350920914402048,2022-02-08-20:08:40,10.1.1.8,32,0.060,0.060,0.060,0.000,0.000,0.000
1644350921014499840,2022-02-08-20:08:41,10.1.1.8,32,0.050,0.050,0.050,0.000,0.000,0.000
1644350921113957888,2022-02-08-20:08:41,10.1.1.8,31,0.040,0.040,0.040,0.000,0.000,0.000
1644350921214324992,2022-02-08-20:08:41,10.1.1.8,30,0.030,0.030,0.030,0.000,0.000,0.000
1644350921314758144,2022-02-08-20:08:41,10.1.1.8,30,0.020,0.020,0.020,0.000,0.000,0.000
1644350921414119936,2022-02-08-20:08:41,10.1.1.8,29,0.010,0.010,0.010,0.000,0.000,0.000
1644350921514866944,2022-02-08-20:08:41,10.1.1.8,28,0.000,0.000,0.000,0.000,0.000,0.000
1644350921613737216,2022-02-08-20:08:41,10.1.1.8,28,-0.010,-0.010,-0.010,0.000,0.000,0.000
1644350921714149120,2022-02-08-20:08:41,10.1.1.8,27,-0.020,-0.020,-0.020,0.000,0.000,0.000
1644350921814372096,2022-02-08-20:08:41,10.1.1.8,27,-0.030,-0.030,-0.030,0.000,0.000,0.000
1644350921913784064,2022-02-08-20:08:41,10.1.1.8,26,-0.040,-0.040,-0.040,0.000,0.000,0.000
1644350922014085888,2022-02-08-20:08:42,10.1.1.8,26,-0.050,-0.050,-0.050,0.000,0.000,0.000
1644350922113390080,2022-02-08-20:08:42,10.1.1.8,25,-0.060,-0.060,-0.060,0.000,0.000,0.000
1644350922213623040,2022-02-08-20:08:42,10.1.1.8,24,-0.070,-0.070,-0.070,0.000,0.000,0.000
1644350922314448128,2022-02-08-20:08:42,10.1.1.8,24,-0.080,-0.080,-0.080,0.000,0.000,0.000
1644350922413794048,2022-02-08-20:08:42,10.1.1.8,24,-0.090,-0.090,-0.090,0.000,0.000,0.000
1644350922513485056,2022-02-08-20:08:42,10.1.1.8,23,-0.100,-0.100,-0.100,0.000,0.000,0.000
1644350922613359872,2022-02-08-20:08:42,10.1.1.8,22,-0.090,-0.090,-0.090,0.000,0.000,0.000
1644350922714700032,2022-02-08-20:08:42,10.1.1.8,22,-0.080,-0.080,-0.080,0.000,0.000,0.000
1644350922861648128,2022-02-08-20:08:42,10.1.1.8,19,-0.071,-0.071,-0.071,0.000,0.000,0.000
1644350922934295808,2022-02-08-20:08:42,10.1.1.8,38,-0.060,-0.060,-0.060,0.000,0.000,0.000
1644350923035085824,2022-02-08-20:08:43,10.1.1.8,37,-0.050,-0.050,-0.050,0.000,0.000,0.000
1644350923134385152,2022-02-08-20:08:43,10.1.1.8,36,-0.040,-0.040,-0.040,0.000,0.000,0.000
1644350923234978048,2022-02-08-20:08:43,10.1.1.8,36,-0.030,-0.030,-0.030,0.000,0.000,0.000
1644350923334892032,2022-02-08-20:08:43,10.1.1.8,35,-0.020,-0.020,-0.020,0.000,0.000,0.000
1644350923434310912,2022-02-08-20:08:43,10.1.1.8,32,-0.010,-0.010,-0.010,0.000,0.000,0.000
1644350923534601984,2022-02-08-20:08:43,10.1.1.8,31,0.000,0.000,0.000,0.000,0.000,0.000
1644350923633899008,2022-02-08-20:08:43,10.1.1.8,31,0.010,0.010,0.010,0.000,0.000,0.000
1644350923734127104,2022-02-08-20:08:43,10.1.1.8,29,0.020,0.020,0.020,0.000,0.000,0.000
1644350923834347008,2022-02-08-20:08:43,10.1.1.8,29,0.030,0.030,0.030,0.000,0.000,0.000
1644350923934111232,2022-02-08-20:08:43,10.1.1.8,28,0.040,0.040,0.040,0.000,0.000,0.000
1644350924034071040,2022-02-08-20:08:44,10.1.1.8,28,0.050,0.050,0.050,0.000,0.000,0.000
1644350924134857984,2022-02-08-20:08:44,10.1.1.8,27,0.060,0.060,0.060,0.000,0.000,0.000
1644350924233718016,2022-02-08-20:08:44,10.1.1.8,26,0.070,0.070,0.070,0.000,0.000,0.000
1644350924333446912,2022-02-08-20:08:44,10.1.1.8,26,0.080,0.080,0.080,0.000,0.000,0.000
1644350924433936128,2022-02-08-20:08:44,10.1.1.8,25,0.090,0.090,0.090,0.000,0.000,0.000
1644350924533543936,2022-02-08-20:08:44,10.1.1.8,25,0.100,0.100,0.100,0.000,0.000,0.000
1644350924634542080,2022-02-08-20:08:44,10.1.1.8,25,0.090,0.090,0.090,0.000,0.000,0.000
1644350924733807104,2022-02-08-20:08:44,10.1.1.8,24,0.080,0.080,0.080,0.000,0.000,0.000
1644350924835526912,2022-02-08-20:08:44,10.1.1.8,21,0.070,0.070,0.070,0.000,0.000,0.000
1644350924933985024,2022-02-08-20:08:44,10.1.1.8,21,0.060,0.060,0.060,0.000,0.000,0.000
1644350925034333952,2022-02-08-20:08:45,10.1.1.8,20,0.050,0.050,0.050,0.000,0.000,0.000
1644350925134929920,2022-02-08-20:08:45,10.1.1.8,20,0.040,0.040,0.040,0.000,0.000,0.000
1644350925254676224,2022-02-08-20:08:45,10.1.1.8,38,0.030,0.030,0.030,0.000,0.000,0.000
1644350925354966016,2022-02-08-20:08:45,10.1.1.8,37,0.020,0.020,0.020,0.000,0.000,0.000
1644350925455024128,2022-02-08-20:08:45,10.1.1.8,36,0.010,0.010,0.010,0.000,0.000,0.000
1644350925555108096,2022-02-08-20:08:45,10.1.1.8,35,0.000,0.000,0.000,0.000,0.000,0.000
1644350925654074880,2022-02-08-20:08:45,10.1.1.8,35,-0.010,-0.010,-0.010,0.000,0.000,0.000
1644350925754547968,2022-02-08-20:08:45,10.1.1.8,34,-0.020,-0.020,-0.020,0.000,0.000,0.000
1644350925860642816,2022-02-08-20:08:45,10.1.1.8,34,-0.030,-0.030,-0.030,0.000,0.000,0.000
1644350925954050048,2022-02-08-20:08:45,10.1.1.8,32,-0.040,-0.040,-0.040,0.000,0.000,0.000
1644350926054477056,2022-02-08-20:08:46,10.1.1.8,32,-0.050,-0.050,-0.050,0.000,0.000,0.000
1644350926154414848,2022-02-08-20:08:46,10.1.1.8,31,-0.060,-0.060,-0.060,0.000,0.000,0.000
1644350926253765120,2022-02-08-20:08:46,10.1.1.8,31,-0.070,-0.070,-0.070,0.000,0.000,0.000
1644350926354099968,2022-02-08-20:08:46,10.1.1.8,30,-0.080,-0.080,-0.080,0.000,0.000,0.000
1644350926454009088,2022-02-08-20:08:46,10.1.1.8,30,-0.090,-0.090,-0.090,0.000,0.000,0.000
1644350926554234880,2022-02-08-20:08:46,10.1.1.8,29,-0.100,-0.100,-0.100,0.000,0.000,0.000
1644350926653600000,2022-02-08-20:08:46,10.1.1.8,29,-0.090,-0.090,-0.090,0.000,0.000,0.000
1644350926754606080,2022-02-08-20:08:46,10.1.1.8,28,-0.080,-0.080,-0.080,0.000,0.000,0.000
1644350926854286848,2022-02-08-20:08:46,10.1.1.8,28,-0.070,-0.070,-0.070,0.000,0.000,0.000
1644350926954336768,2022-02-08-20:08:46,10.1.1.8,28,-0.060,-0.060,-0.060,0.000,0.000,0.000
1644350927054073088,2022-02-08-20:08:47,10.1.1.8,27,-0.050,-0.050,-0.050,0.000,0.000,0.000
1644350927154057984,2022-02-08-20:08:47,10.1.1.8,27,-0.040,-0.040,-0.040,0.000,0.000,0.000
1644350927253670912,2022-02-08-20:08:47,10.1.1.8,26,-0.030,-0.030,-0.030,0.000,0.000,0.000
1644350927354002944,2022-02-08-20:08:47,10.1.1.8,26,-0.020,-0.020,-0.020,0.000,0.000,0.000
1644350927454329088,2022-02-08-20:08:47,10.1.1.8,26,-0.010,-0.010,-0.010,0.000,0.000,0.000
1644350927554043904,2022-02-08-20:08:47,10.1.1.8,25,0.000,0.000,0.000,0.000,0.000,0.000
1644350927653947136,2022-02-08-20:08:47,10.1.1.8,25,0.010,0.010,0.010,0.000,0.000,0.000
1644350927754009088,2022-02-08-20:08:47,10.1.1.8,24,0.020,0.020,0.020,0.000,0.000,0.000
1644350927854343936,2022-02-08-20:08:47,10.1.1.8,24,0.030,0.030,0.030,0.000,0.000,0.000
1644350927954123008,2022-02-08-20:08:47,10.1.1.8,22,0.040,0.040,0.040,0.000,0.000,0.000
1644350928055602176,2022-02-08-20:08:48,10.1.1.8,21,0.050,0.050,0.050,0.000,0.000,0.000
1644350928154411008,2022-02-08-20:08:48,10.1.1.8,21,0.060,0.060,0.060,0.000,0.000,0.000
1644350928253963008,2022-02-08-20:08:48,10.1.1.8,20,0.070,0.070,0.070,0.000,0.000,0.000
1644350928474162944,2022-02-08-20:08:48,10.1.1.8,34,0.090,0.090,0.090,0.000,0.000,0.000
1644350928574369792,2022-02-08-20:08:48,10.1.1.8,33,0.100,0.100,0.100,0.000,0.000,0.000
1644350928674161920,2022-02-08-20:08:48,10.1.1.8,32,0.090,0.090,0.090,0.000,0.000,0.000
1644350928774592000,2022-02-08-20:08:48,10.1.1.8,32,0.080,0.080,0.080,0.000,0.000,0.000
1644350928874313216,2022-02-08-20:08:48,10.1.1.8,31,0.070,0.070,0.070,0.000,0.000,0.000
1644350928974400000,2022-02-08-20:08:48,10.1.1.8,31,0.060,0.060,0.060,0.000,0.000,0.000
1644350929073899008,2022-02-08-20:08:49,10.1.1.8,30,0.050,0.050,0.050,0.000,0.000,0.000
1644350929174427904,2022-02-08-20:08:49,10.1.1.8,29,0.040,0.040,0.040,0.000,0.000,0.000
1644350929274342144,2022-02-08-20:08:49,10.1.1.8,29,0.030,0.030,0.030,0.000,0.000,0.000
1644350929374452992,2022-02-08-20:08:49,10.1.1.8,28,0.020,0.020,0.020,0.000,0.000,0.000
1644350929473794048,2022-02-08-20:08:49,10.1.1.8,27,0.010,0.010,0.010,0.000,0.000,0.000
1644350929574119168,2022-02-08-20:08:49,10.1.1.8,26,0.000,0.000,0.000,0.000,0.000,0.000
1644350929674629888,2022-02-08-20:08:49,10.1.1.8,26,-0.010,-0.010,-0.010,0.000,0.000,0.000
1644350929773534976,2022-02-08-20:08:49,10.1.1.8,25,-0.020,-0.020,-0.020,0.000,0.000,0.000
1644350929873921024,2022-02-08-20:08:49,10.1.1.8,24,-0.030,-0.030,-0.030,0.000,0.000,0.000
1644350929974075136,2022-02-08-20:08:49,10.1.1.8,24,-0.040,-0.040,-0.040,0.000,0.000,0.000
1644350930074225920,2022-02-08-20:08:50,10.1.1.8,24,-0.050,-0.050,-0.050,0.000,0.000,0.000
1644350930174411008,2022-02-08-20:08:50,10.1.1.8,23,-0.060,-0.060,-0.060,0.000,0.000,0.000
1644350930273953024,2022-02-08-20:08:50,10.1.1.8,22,-0.070,-0.070,-0.070,0.000,0.000,0.000
1644350930374128128,2022-02-08-20:08:50,10.1.1.8,21,-0.080,-0.080,-0.080,0.000,0.000,0.000
1644350930473989120,2022-02-08-20:08:50,10.1.1.8,21,-0.090,-0.090,-0.090,0.000,0.000,0.000
1644350930574640896,2022-02-08-20:08:50,10.1.1.8,19,-0.099,-0.099,-0.099,0.000,0.000,0.000
1644350930693649920,2022-02-08-20:08:50,10.1.1.8,38,-0.090,-0.090,-0.090,0.000,0.000,0.000
1644350930794220800,2022-02-08-20:08:50,10.1.1.8,38,-0.080,-0.080,-0.080,0.000,0.000,0.000
1644350930894449920,2022-02-08-20:08:50,10.1.1.8,36,-0.070,-0.070,-0.070,0.000,0.000,0.000
1644350930994697216,2022-02-08-20:08:50,10.1.1.8,35,-0.060,-0.060,-0.060,0.000,0.000,0.000
1644350931094446848,2022-02-08-20:08:51,10.1.1.8,34,-0.050,-0.050,-0.050,0.000,0.000,0.000
1644350931295612928,2022-02-08-20:08:51,10.1.1.8,25,-0.030,-0.030,-0.030,0.000,0.000,0.000
1644350931396576768,2022-02-08-20:08:51,10.1.1.8,25,-0.020,-0.020,-0.020,0.000,0.000,0.000
1644350931495377920,2022-02-08-20:08:51,10.1.1.8,22,-0.010,-0.010,-0.010,0.000,0.000,0.000
1644350931594516992,2022-02-08-20:08:51,10.1.1.8,20,0.000,0.000,0.000,0.000,0.000,0.000
1644350931694597888,2022-02-08-20:08:51,10.1.1.8,19,0.009,0.009,0.009,0.000,0.000,0.000
1644350931796237056,2022-02-08-20:08:51,10.1.1.8,19,0.020,0.020,0.020,0.000,0.000,0.000
1644350931914694144,2022-02-08-20:08:51,10.1.1.8,38,0.030,0.030,0.030,0.000,0.000,0.000
1644350932014092800,2022-02-08-20:08:52,10.1.1.8,37,0.040,0.040,0.040,0.000,0.000,0.000
1644350932120670208,2022-02-08-20:08:52,10.1.1.8,42,0.050,0.050,0.050,0.000,0.000,0.000
1644350932214194944,2022-02-08-20:08:52,10.1.1.8,35,0.060,0.060,0.060,0.000,0.000,0.000
1644350932315006976,2022-02-08-20:08:52,10.1.1.8,35,0.070,0.070,0.070,0.000,0.000,0.000
1644350932416104192,2022-02-08-20:08:52,10.1.1.8,31,0.080,0.080,0.080,0.000,0.000,0.000
1644350932514277888,2022-02-08-20:08:52,10.1.1.8,30,0.090,0.090,0.090,0.000,0.000,0.000
1644350932614223872,2022-02-08-20:08:52,10.1.1.8,30,0.100,0.100,0.100,0.000,0.000,0.000
1644350932723241984,2022-02-08-20:08:52,10.1.1.8,29,0.090,0.090,0.090,0.000,0.000,0.000
1644350932814171904,2022-02-08-20:08:52,10.1.1.8,28,0.080,0.080,0.080,0.000,0.000,0.000
1644350932915826176,2022-02-08-20:08:52,10.1.1.8,28,0.070,0.070,0.070,0.000,0.000,0.000
1644350933014404096,2022-02-08-20:08:53,10.1.1.8,28,0.060,0.060,0.060,0.000,0.000,0.000
1644350933117721088,2022-02-08-20:08:53,10.1.1.8,30,0.050,0.050,0.050,0.000,0.000,0.000
1644350933214317056,2022-02-08-20:08:53,10.1.1.8,26,0.040,0.040,0.040,0.000,0.000,0.000
1644350933314092032,2022-02-08-20:08:53,10.1.1.8,24,0.030,0.030,0.030,0.000,0.000,0.000
1644350933414304000,2022-02-08-20:08:53,10.1.1.8,24,0.020,0.020,0.020,0.000,0.000,0.000
1644350933514422016,2022-02-08-20:08:53,10.1.1.8,23,0.010,0.010,0.010,0.000,0.000,0.000
1644350933615973120,2022-02-08-20:08:53,10.1.1.8,22,0.000,0.000,0.000,0.000,0.000,0.000
1644350933719497984,2022-02-08-20:08:53,10.1.1.8,21,-0.010,-0.010,-0.010,0.000,0.000,0.000
1644350933814739968,2022-02-08-20:08:53,10.1.1.8,21,-0.020,-0.020,-0.020,0.000,0.000,0.000
1644350933914264832,2022-02-08-20:08:53,10.1.1.8,20,-0.030,-0.030,-0.030,0.000,0.000,0.000
1644350934014210048,2022-02-08-20:08:54,10.1.1.8,19,-0.040,-0.040,-0.040,0.000,0.000,0.000
1644350934114121984,2022-02-08-20:08:54,10.1.1.8,19,-0.049,-0.049,-0.049,0.000,0.000,0.000
1644350934234690816,2022-02-08-20:08:54,10.1.1.8,38,-0.060,-0.060,-0.060,0.000,0.000,0.000
1644350934334750976,2022-02-08-20:08:54,10.1.1.8,38,-0.070,-0.070,-0.070,0.000,0.000,0.000
1644350934433732096,2022-02-08-20:08:54,10.1.1.8,37,-0.080,-0.080,-0.080,0.000,0.000,0.000
1644350934534146048,2022-02-08-20:08:54,10.1.1.8,37,-0.090,-0.090,-0.090,0.000,0.000,0.000
1644350934634146048,2022-02-08-20:08:54,10.1.1.8,37,-0.100,-0.100,-0.100,0.000,0.000,0.000
1644350934734087936,2022-02-08-20:08:54,10.1.1.8,36,-0.090,-0.090,-0.090,0.000,0.000,0.000
1644350934835076096,2022-02-08-20:08:54,10.1.1.8,31,-0.080,-0.080,-0.080,0.000,0.000,0.000
1644350934934514944,2022-02-08-20:08:54,10.1.1.8,31,-0.070,-0.070,-0.070,0.000,0.000,0.000
1644350935034429184,2022-02-08-20:08:55,10.1.1.8,30,-0.060,-0.060,-0.060,0.000,0.000,0.000
1644350935134278144,2022-02-08-20:08:55,10.1.1.8,29,-0.050,-0.050,-0.050,0.000,0.000,0.000
1644350935234409216,2022-02-08-20:08:55,10.1.1.8,29,-0.040,-0.040,-0.040,0.000,0.000,0.000
1644350935336571904,2022-02-08-20:08:55,10.1.1.8,28,-0.030,-0.030,-0.030,0.000,0.000,0.000
1644350935434382848,2022-02-08-20:08:55,10.1.1.8,28,-0.020,-0.020,-0.020,0.000,0.000,0.000
1644350935534482944,2022-02-08-20:08:55,10.1.1.8,28,-0.010,-0.010,-0.010,0.000,0.000,0.000
1644350935634123008,2022-02-08-20:08:55,10.1.1.8,27,0.000,0.000,0.000,0.000,0.000,0.000
1644350935734183936,2022-02-08-20:08:55,10.1.1.8,27,0.010,0.010,0.010,0.000,0.000,0.000
1644350935834878976,2022-02-08-20:08:55,10.1.1.8,27,0.020,0.020,0.020,0.000,0.000,0.000
1644350935934459904,2022-02-08-20:08:55,10.1.1.8,26,0.030,0.030,0.030,0.000,0.000,0.000
1644350936034509824,2022-02-08-20:08:56,10.1.1.8,26,0.040,0.040,0.040,0.000,0.000,0.000
1644350936135121152,2022-02-08-20:08:56,10.1.1.8,25,0.050,0.050,0.050,0.000,0.000,0.000
1644350936233905920,2022-02-08-20:08:56,10.1.1.8,25,0.060,0.060,0.060,0.000,0.000,0.000
1644350936334619904,2022-02-08-20:08:56,10.1.1.8,25,0.070,0.070,0.070,0.000,0.000,0.000
1644350936434048768,2022-02-08-20:08:56,10.1.1.8,24,0.080,0.080,0.080,0.000,0.000,0.000
1644350936534102016,2022-02-08-20:08:56,10.1.1.8,24,0.090,0.090,0.090,0.000,0.000,0.000
1644350936634576128,2022-02-08-20:08:56,10.1.1.8,23,0.100,0.100,0.100,0.000,0.000,0.000
1644350936734284032,2022-02-08-20:08:56,10.1.1.8,23,0.090,0.090,0.090,0.000,0.000,0.000
1644350936834212096,2022-02-08-20:08:56,10.1.1.8,22,0.080,0.080,0.080,0.000,0.000,0.000
1644350936934524928,2022-02-08-20:08:56,10.1.1.8,20,0.070,0.070,0.070,0.000,0.000,0.000
1644350937034467840,2022-02-08-20:08:57,10.1.1.8,19,0.061,0.061,0.061,0.000,0.000,0.000
1644350937154515968,2022-02-08-20:08:57,10.1.1.8,38,0.050,0.050,0.050,0.000,0.000,0.000
1644350937254051840,2022-02-08-20:08:57,10.1.1.8,38,0.040,0.040,0.040,0.000,0.000,0.000
1644350937365307136,2022-02-08-20:08:57,10.1.1.8,35,0.030,0.030,0.030,0.000,0.000,0.000
1644350937454814976,2022-02-08-20:08:57,10.1.1.8,23,0.020,0.020,0.020,0.000,0.000,0.000
1644350937553580032,2022-02-08-20:08:57,10.1.1.8,22,0.010,0.010,0.010,0.000,0.000,0.000
1644350937654393856,2022-02-08-20:08:57,10.1.1.8,22,0.000,0.000,0.000,0.000,0.000,0.000
1644350937754099968,2022-02-08-20:08:57,10.1.1.8,21,-0.010,-0.010,-0.010,0.000,0.000,0.000
1644350937854867968,2022-02-08-20:08:57,10.1.1.8,20,-0.020,-0.020,-0.020,0.000,0.000,0.000
1644350937954230016,2022-02-08-20:08:57,10.1.1.8,20,-0.030,-0.030,-0.030,0.000,0.000,0.000
1644350938054512896,2022-02-08-20:08:58,10.1.1.8,19,-0.040,-0.040,-0.040,0.000,0.000,0.000
1644350938153997056,2022-02-08-20:08:58,10.1.1.8,19,-0.049,-0.049,-0.049,0.000,0.000,0.000
1644350938274287104,2022-02-08-20:08:58,10.1.1.8,38,-0.060,-0.060,-0.060,0.000,0.000,0.000
1644350938374532864,2022-02-08-20:08:58,10.1.1.8,38,-0.070,-0.070,-0.070,0.000,0.000,0.000
1644350938474098944,2022-02-08-20:08:58,10.1.1.8,37,-0.080,-0.080,-0.080,0.000,0.000,0.000
1644350938574098176,2022-02-08-20:08:58,10.1.1.8,36,-0.090,-0.090,-0.090,0.000,0.000,0.000
1644350938674190080,2022-02-08-20:08:58,10.1.1.8,36,-0.100,-0.100,-0.100,0.000,0.000,0.000
1644350938779920128,2022-02-08-20:08:58,10.1.1.8,35,-0.090,-0.090,-0.090,0.000,0.000,0.000
1644350938874351104,2022-02-08-20:08:58,10.1.1.8,35,-0.080,-0.080,-0.080,0.000,0.000,0.000
1644350938975696128,2022-02-08-20:08:58,10.1.1.8,34,-0.070,-0.070,-0.070,0.000,0.000,0.000
1644350939074112768,2022-02-08-20:08:59,10.1.1.8,34,-0.060,-0.060,-0.060,0.000,0.000,0.000
1644350939178194944,2022-02-08-20:08:59,10.1.1.8,31,-0.050,-0.050,-0.050,0.000,0.000,0.000
1644350939274081024,2022-02-08-20:08:59,10.1.1.8,30,-0.040,-0.040,-0.040,0.000,0.000,0.000
1644350939379795968,2022-02-08-20:08:59,10.1.1.8,20,-0.030,-0.030,-0.030,0.000,0.000,0.000
1644350939474644992,2022-02-08-20:08:59,10.1.1.8,19,-0.020,-0.020,-0.020,0.000,0.000,0.000
1644350939574621952,2022-02-08-20:08:59,10.1.1.8,19,-0.011,-0.011,-0.011,0.000,0.000,0.000
1644350939694420992,2022-02-08-20:08:59,10.1.1.8,39,0.000,0.000,0.000,0.000,0.000,0.000
1644350939794786048,2022-02-08-20:08:59,10.1.1.8,29,0.010,0.010,0.010,0.000,0.000,0.000
1644350939894635008,2022-02-08-20:08:59,10.1.1.8,28,0.020,0.020,0.020,0.000,0.000,0.000
1644350940134025216,2022-02-08-20:09:00,10.1.1.8,35,0.040,0.040,0.040,0.000,0.000,0.000
1644350940233989120,2022-02-08-20:09:00,10.1.1.8,35,0.050,0.050,0.050,0.000,0.000,0.000
1644350940374267136,2022-02-08-20:09:00,10.1.1.8,35,0.060,0.060,0.060,0.000,0.000,0.000
1644350940474605056,2022-02-08-20:09:00,10.1.1.8,32,0.070,0.070,0.070,0.000,0.000,0.000
1644350940574320128,2022-02-08-20:09:00,10.1.1.8,32,0.080,0.080,0.080,0.000,0.000,0.000
1644350940674182912,2022-02-08-20:09:00,10.1.1.8,31,0.090,0.090,0.090,0.000,0.000,0.000
1644350940774117888,2022-02-08-20:09:00,10.1.1.8,30,0.100,0.100,0.100,0.000,0.000,0.000
1644350940874445824,2022-02-08-20:09:00,10.1.1.8,28,0.090,0.090,0.090,0.000,0.000,0.000
1644350940973892864,2022-02-08-20:09:00,10.1.1.8,27,0.080,0.080,0.080,0.000,0.000,0.000
1644350941074295040,2022-02-08-20:09:01,10.1.1.8,26,0.070,0.070,0.070,0.000,0.000,0.000
1644350941174278144,2022-02-08-20:09:01,10.1.1.8,25,0.060,0.060,0.060,0.000,0.000,0.000
1644350941273838080,2022-02-08-20:09:01,10.1.1.8,24,0.050,0.050,0.050,0.000,0.000,0.000
1644350941376286976,2022-02-08-20:09:01,10.1.1.8,24,0.040,0.040,0.040,0.000,0.000,0.000
1644350941474575872,2022-02-08-20:09:01,10.1.1.8,20,0.030,0.030,0.030,0.000,0.000,0.000
1644350941574550016,2022-02-08-20:09:01,10.1.1.8,19,0.020,0.020,0.020,0.000,0.000,0.000
1644350941674309120,2022-02-08-20:09:01,10.1.1.8,19,0.011,0.011,0.011,0.000,0.000,0.000
1644350941794283008,2022-02-08-20:09:01,10.1.1.8,37,0.000,0.000,0.000,0.000,0.000,0.000
1644350941894365952,2022-02-08-20:09:01,10.1.1.8,32,-0.010,-0.010,-0.010,0.000,0.000,0.000
1644350941994259968,2022-02-08-20:09:01,10.1.1.8,32,-0.020,-0.020,-0.020,0.000,0.000,0.000
1644350942094671104,2022-02-08-20:09:02,10.1.1.8,31,-0.030,-0.030,-0.030,0.000,0.000,0.000
1644350942194477056,2022-02-08-20:09:02,10.1.1.8,30,-0.040,-0.040,-0.040,0.000,0.000,0.000
1644350942294274048,2022-02-08-20:09:02,10.1.1.8,29,-0.050,-0.050,-0.050,0.000,0.000,0.000
1644350942394163968,2022-02-08-20:09:02,10.1.1.8,28,-0.060,-0.060,-0.060,0.000,0.000,0.000
1644350942495620864,2022-02-08-20:09:02,10.1.1.8,27,-0.070,-0.070,-0.070,0.000,0.000,0.000
1644350942593763072,2022-02-08-20:09:02,10.1.1.8,25,-0.080,-0.080,-0.080,0.000,0.000,0.000
1644350942694426112,2022-02-08-20:09:02,10.1.1.8,25,-0.090,-0.090,-0.090,0.000,0.000,0.000
1644350943706700032,2022-02-08-20:09:02,10.1.1.8,24,-0.100,-0.100,-0.100,0.000,0.000,0.000
1644350943754554112,2022-02-08-20:09:03,10.1.1.8,31,-0.090,-0.090,-0.090,0.000,0.000,0.000
1644350943855392000,2022-02-08-20:09:03,10.1.1.8,31,-0.080,-0.080,-0.080,0.000,0.000,0.000
1644350943954482176,2022-02-08-20:09:03,10.1.1.8,29,-0.070,-0.070,-0.070,0.000,0.000,0.000
1644350944054138880,2022-02-08-20:09:04,10.1.1.8,28,-0.060,-0.060,-0.060,0.000,0.000,0.000
1644350944153871104,2022-02-08-20:09:04,10.1.1.8,28,-0.050,-0.050,-0.050,0.000,0.000,0.000
1644350944255429888,2022-02-08-20:09:04,10.1.1.8,27,-0.040,-0.040,-0.040,0.000,0.000,0.000
1644350944355262976,2022-02-08-20:09:04,10.1.1.8,26,-0.030,-0.030,-0.030,0.000,0.000,0.000
1644350944454428928,2022-02-08-20:09:04,10.1.1.8,25,-0.020,-0.020,-0.020,0.000,0.000,0.000
1644350944554492928,2022-02-08-20:09:04,10.1.1.8,24,-0.010,-0.010,-0.010,0.000,0.000,0.000
1644350944656126976,2022-02-08-20:09:04,10.1.1.8,24,0.000,0.000,0.000,0.000,0.000,0.000
1644350944754267904,2022-02-08-20:09:04,10.1.1.8,23,0.010,0.010,0.010,0.000,0.000,0.000
1644350944854990848,2022-02-08-20:09:04,10.1.1.8,22,0.020,0.020,0.020,0.000,0.000,0.000
1644350944953999872,2022-02-08-20:09:04,10.1.1.8,21,0.030,0.030,0.030,0.000,0.000,0.000
1644350945054164992,2022-02-08-20:09:05,10.1.1.8,20,0.040,0.040,0.040,0.000,0.000,0.000
1644350945174409984,2022-02-08-20:09:05,10.1.1.8,38,0.050,0.050,0.050,0.000,0.000,0.000
1644350945274457088,2022-02-08-20:09:05,10.1.1.8,36,0.060,0.060,0.060,0.000,0.000,0.000
1644350945375156992,2022-02-08-20:09:05,10.1.1.8,34,0.070,0.070,0.070,0.000,0.000,0.000
1644350945476092928,2022-02-08-20:09:05,10.1.1.8,33,0.080,0.080,0.080,0.000,0.000,0.000
1644350945581479168,2022-02-08-20:09:05,10.1.1.8,30,0.090,0.090,0.090,0.000,0.000,0.000
1644350945674899968,2022-02-08-20:09:05,10.1.1.8,29,0.100,0.100,0.100,0.000,0.000,0.000
1644350945774547200,2022-02-08-20:09:05,10.1.1.8,27,0.090,0.090,0.090,0.000,0.000,0.000
1644350945874576128,2022-02-08-20:09:05,10.1.1.8,23,0.080,0.080,0.080,0.000,0.000,0.000
1644350945974829056,2022-02-08-20:09:05,10.1.1.8,23,0.070,0.070,0.070,0.000,0.000,0.000
1644350946074574848,2022-02-08-20:09:06,10.1.1.8,22,0.060,0.060,0.060,0.000,0.000,0.000
1644350946174441216,2022-02-08-20:09:06,10.1.1.8,21,0.050,0.050,0.050,0.000,0.000,0.000
1644350946274139904,2022-02-08-20:09:06,10.1.1.8,20,0.040,0.040,0.040,0.000,0.000,0.000
1644350946373967872,2022-02-08-20:09:06,10.1.1.8,20,0.030,0.030,0.030,0.000,0.000,0.000
1644350946473999872,2022-02-08-20:09:06,10.1.1.8,19,0.020,0.020,0.020,0.000,0.000,0.000
1644350946574266880,2022-02-08-20:09:06,10.1.1.8,19,0.011,0.011,0.011,0.000,0.000,0.000
1644350946694048000,2022-02-08-20:09:06,10.1.1.8,38,0.000,0.000,0.000,0.000,0.000,0.000
1644350946794023936,2022-02-08-20:09:06,10.1.1.8,38,-0.010,-0.010,-0.010,0.000,0.000,0.000
1644350946893584128,2022-02-08-20:09:06,10.1.1.8,36,-0.020,-0.020,-0.020,0.000,0.000,0.000
1644350946994711040,2022-02-08-20:09:06,10.1.1.8,35,-0.030,-0.030,-0.030,0.000,0.000,0.000
1644350947093650176,2022-02-08-20:09:07,10.1.1.8,34,-0.040,-0.040,-0.040,0.000,0.000,0.000
1644350947193862912,2022-02-08-20:09:07,10.1.1.8,33,-0.050,-0.050,-0.050,0.000,0.000,0.000
1644350947293925120,2022-02-08-20:09:07,10.1.1.8,32,-0.060,-0.060,-0.060,0.000,0.000,0.000
1644350947394577152,2022-02-08-20:09:07,10.1.1.8,31,-0.070,-0.070,-0.070,0.000,0.000,0.000
1644350947494417920,2022-02-08-20:09:07,10.1.1.8,31,-0.080,-0.080,-0.080,0.000,0.000,0.000
1644350947593612032,2022-02-08-20:09:07,10.1.1.8,29,-0.090,-0.090,-0.090,0.000,0.000,0.000
1644350947693986816,2022-02-08-20:09:07,10.1.1.8,28,-0.100,-0.100,-0.100,0.000,0.000,0.000
1644350947794759936,2022-02-08-20:09:07,10.1.1.8,27,-0.090,-0.090,-0.090,0.000,0.000,0.000
1644350947893612032,2022-02-08-20:09:07,10.1.1.8,26,-0.080,-0.080,-0.080,0.000,0.000,0.000
1644350947994415104,2022-02-08-20:09:07,10.1.1.8,25,-0.070,-0.070,-0.070,0.000,0.000,0.000
1644350948094050816,2022-02-08-20:09:08,10.1.1.8,25,-0.060,-0.060,-0.060,0.000,0.000,0.000
1644350948194486016,2022-02-08-20:09:08,10.1.1.8,24,-0.050,-0.050,-0.050,0.000,0.000,0.000
1644350948294620160,2022-02-08-20:09:08,10.1.1.8,24,-0.040,-0.040,-0.040,0.000,0.000,0.000
1644350948394032128,2022-02-08-20:09:08,10.1.1.8,23,-0.030,-0.030,-0.030,0.000,0.000,0.000
1644350948493977088,2022-02-08-20:09:08,10.1.1.8,22,-0.020,-0.020,-0.020,0.000,0.000,0.000
1644350948600229888,2022-02-08-20:09:08,10.1.1.8,20,-0.010,-0.010,-0.010,0.000,0.000,0.000
1644350948804312832,2022-02-08-20:09:08,10.1.1.8,38,0.000,0.000,0.000,0.000,0.000,0.000
1644350948854219008,2022-02-08-20:09:08,10.1.1.8,38,0.010,0.010,0.010,0.000,0.000,0.000
1644350948953729024,2022-02-08-20:09:08,10.1.1.8,35,0.020,0.020,0.020,0.000,0.000,0.000
1644350949054158848,2022-02-08-20:09:09,10.1.1.8,35,0.030,0.030,0.030,0.000,0.000,0.000
1644350949154382080,2022-02-08-20:09:09,10.1.1.8,34,0.040,0.040,0.040,0.000,0.000,0.000
1644350949253742848,2022-02-08-20:09:09,10.1.1.8,33,0.050,0.050,0.050,0.000,0.000,0.000
1644350949354177024,2022-02-08-20:09:09,10.1.1.8,32,0.060,0.060,0.060,0.000,0.000,0.000
1644350949454196992,2022-02-08-20:09:09,10.1.1.8,32,0.070,0.070,0.070,0.000,0.000,0.000
1644350949554465024,2022-02-08-20:09:09,10.1.1.8,31,0.080,0.080,0.080,0.000,0.000,0.000
1644350949654263040,2022-02-08-20:09:09,10.1.1.8,31,0.090,0.090,0.090,0.000,0.000,0.000
1644350949774450944,2022-02-08-20:09:09,10.1.1.8,29,0.100,0.100,0.100,0.000,0.000,0.000
1644350949853902080,2022-02-08-20:09:09,10.1.1.8,28,0.090,0.090,0.090,0.000,0.000,0.000
1644350949954158080,2022-02-08-20:09:09,10.1.1.8,26,0.080,0.080,0.080,0.000,0.000,0.000
1644350950054630144,2022-02-08-20:09:10,10.1.1.8,25,0.070,0.070,0.070,0.000,0.000,0.000
1644350950153986816,2022-02-08-20:09:10,10.1.1.8,24,0.060,0.060,0.060,0.000,0.000,0.000
1644350950254450944,2022-02-08-20:09:10,10.1.1.8,24,0.050,0.050,0.050,0.000,0.000,0.000
1644350950354643968,2022-02-08-20:09:10,10.1.1.8,24,0.040,0.040,0.040,0.000,0.000,0.000
1644350950453814016,2022-02-08-20:09:10,10.1.1.8,23,0.030,0.030,0.030,0.000,0.000,0.000
1644350950553556992,2022-02-08-20:09:10,10.1.1.8,23,0.020,0.020,0.020,0.000,0.000,0.000
1644350950654376960,2022-02-08-20:09:10,10.1.1.8,22,0.010,0.010,0.010,0.000,0.000,0.000
1644350950753509888,2022-02-08-20:09:10,10.1.1.8,20,0.000,0.000,0.000,0.000,0.000,0.000
1644350950854508032,2022-02-08-20:09:10,10.1.1.8,19,-0.010,-0.010,-0.010,0.000,0.000,0.000
1644350950957513984,2022-02-08-20:09:10,10.1.1.8,19,-0.020,-0.020,-0.020,0.000,0.000,0.000
1644350951053839872,2022-02-08-20:09:11,10.1.1.8,19,-0.029,-0.029,-0.029,0.000,0.000,0.000
1644350951174155008,2022-02-08-20:09:11,10.1.1.8,38,-0.040,-0.040,-0.040,0.000,0.000,0.000
1644350951281643008,2022-02-08-20:09:11,10.1.1.8,38,-0.050,-0.050,-0.050,0.000,0.000,0.000
1644350951374289920,2022-02-08-20:09:11,10.1.1.8,36,-0.060,-0.060,-0.060,0.000,0.000,0.000
1644350951474390016,2022-02-08-20:09:11,10.1.1.8,36,-0.070,-0.070,-0.070,0.000,0.000,0.000
1644350951574383104,2022-02-08-20:09:11,10.1.1.8,35,-0.080,-0.080,-0.080,0.000,0.000,0.000
1644350951674132992,2022-02-08-20:09:11,10.1.1.8,35,-0.090,-0.090,-0.090,0.000,0.000,0.000
1644350951774255104,2022-02-08-20:09:11,10.1.1.8,34,-0.100,-0.100,-0.100,0.000,0.000,0.000
1644350951874059008,2022-02-08-20:09:11,10.1.1.8,34,-0.090,-0.090,-0.090,0.000,0.000,0.000
1644350951973735936,2022-02-08-20:09:11,10.1.1.8,33,-0.080,-0.080,-0.080,0.000,0.000,0.000
1644350952074362112,2022-02-08-20:09:12,10.1.1.8,32,-0.070,-0.070,-0.070,0.000,0.000,0.000
1644350952174241024,2022-02-08-20:09:12,10.1.1.8,32,-0.060,-0.060,-0.060,0.000,0.000,0.000
1644350952274030848,2022-02-08-20:09:12,10.1.1.8,31,-0.050,-0.050,-0.050,0.000,0.000,0.000
1644350952374089984,2022-02-08-20:09:12,10.1.1.8,31,-0.040,-0.040,-0.040,0.000,0.000,0.000
1644350952474242048,2022-02-08-20:09:12,10.1.1.8,30,-0.030,-0.030,-0.030,0.000,0.000,0.000
1644350952574173952,2022-02-08-20:09:12,10.1.1.8,29,-0.020,-0.020,-0.020,0.000,0.000,0.000
1644350952680412160,2022-02-08-20:09:12,10.1.1.8,28,-0.010,-0.010,-0.010,0.000,0.000,0.000
1644350952774872064,2022-02-08-20:09:12,10.1.1.8,26,0.000,0.000,0.000,0.000,0.000,0.000
1644350952874420992,2022-02-08-20:09:12,10.1.1.8,25,0.010,0.010,0.010,0.000,0.000,0.000
1644350952974010880,2022-02-08-20:09:12,10.1.1.8,24,0.020,0.020,0.020,0.000,0.000,0.000
1644350953074359808,2022-02-08-20:09:13,10.1.1.8,24,0.030,0.030,0.030,0.000,0.000,0.000
1644350953173837824,2022-02-08-20:09:13,10.1.1.8,23,0.040,0.040,0.040,0.000,0.000,0.000
1644350953274182144,2022-02-08-20:09:13,10.1.1.8,24,0.050,0.050,0.050,0.000,0.000,0.000
1644350953374237184,2022-02-08-20:09:13,10.1.1.8,23,0.060,0.060,0.060,0.000,0.000,0.000
1644350953474280960,2022-02-08-20:09:13,10.1.1.8,22,0.070,0.070,0.070,0.000,0.000,0.000
1644350953574188032,2022-02-08-20:09:13,10.1.1.8,22,0.080,0.080,0.080,0.000,0.000,0.000
1644350953674195968,2022-02-08-20:09:13,10.1.1.8,21,0.090,0.090,0.090,0.000,0.000,0.000
1644350953774993920,2022-02-08-20:09:13,10.1.1.8,20,0.100,0.100,0.100,0.000,0.000,0.000
1644350953874551040,2022-02-08-20:09:13,10.1.1.8,19,0.090,0.090,0.090,0.000,0.000,0.000
1644350953974336000,2022-02-08-20:09:13,10.1.1.8,19,0.081,0.081,0.081,0.000,0.000,0.000
1644350954094188032,2022-02-08-20:09:14,10.1.1.8,38,0.070,0.070,0.070,0.000,0.000,0.000
1644350954194354176,2022-02-08-20:09:14,10.1.1.8,37,0.060,0.060,0.060,0.000,0.000,0.000
1644350954294401792,2022-02-08-20:09:14,10.1.1.8,36,0.050,0.050,0.050,0.000,0.000,0.000
1644350954394397952,2022-02-08-20:09:14,10.1.1.8,35,0.040,0.040,0.040,0.000,0.000,0.000
1644350954494277888,2022-02-08-20:09:14,10.1.1.8,34,0.030,0.030,0.030,0.000,0.000,0.000
1644350954594233088,2022-02-08-20:09:14,10.1.1.8,34,0.020,0.020,0.020,0.000,0.000,0.000
1644350954694246912,2022-02-08-20:09:14,10.1.1.8,32,0.010,0.010,0.010,0.000,0.000,0.000
1644350954794295040,2022-02-08-20:09:14,10.1.1.8,31,0.000,0.000,0.000,0.000,0.000,0.000
1644350954894494976,2022-02-08-20:09:14,10.1.1.8,30,-0.010,-0.010,-0.010,0.000,0.000,0.000
1644350954994219008,2022-02-08-20:09:14,10.1.1.8,29,-0.020,-0.020,-0.020,0.000,0.000,0.000
1644350955094272000,2022-02-08-20:09:15,10.1.1.8,29,-0.030,-0.030,-0.030,0.000,0.000,0.000
1644350955194294016,2022-02-08-20:09:15,10.1.1.8,28,-0.040,-0.040,-0.040,0.000,0.000,0.000
1644350955294241024,2022-02-08-20:09:15,10.1.1.8,28,-0.050,-0.050,-0.050,0.000,0.000,0.000
1644350955393594112,2022-02-08-20:09:15,10.1.1.8,28,-0.060,-0.060,-0.060,0.000,0.000,0.000
1644350955494373120,2022-02-08-20:09:15,10.1.1.8,27,-0.070,-0.070,-0.070,0.000,0.000,0.000
1644350955596256000,2022-02-08-20:09:15,10.1.1.8,26,-0.080,-0.080,-0.080,0.000,0.000,0.000
1644350955694475776,2022-02-08-20:09:15,10.1.1.8,25,-0.090,-0.090,-0.090,0.000,0.000,0.000
1644350955794791936,2022-02-08-20:09:15,10.1.1.8,24,-0.100,-0.100,-0.100,0.000,0.000,0.000
1644350955895533056,2022-02-08-20:09:15,10.1.1.8,23,-0.090,-0.090,-0.090,0.000,0.000,0.000
1644350955994596096,2022-02-08-20:09:15,10.1.1.8,22,-0.080,-0.080,-0.080,0.000,0.000,0.000
1644350956094280960,2022-02-08-20:09:16,10.1.1.8,21,-0.070,-0.070,-0.070,0.000,0.000,0.000
1644350956194587904,2022-02-08-20:09:16,10.1.1.8,20,-0.060,-0.060,-0.060,0.000,0.000,0.000
1644350956294504960,2022-02-08-20:09:16,10.1.1.8,19,-0.050,-0.050,-0.050,0.000,0.000,0.000
1644350956393709824,2022-02-08-20:09:16,10.1.1.8,19,-0.041,-0.041,-0.041,0.000,0.000,0.000
1644350956514409984,2022-02-08-20:09:16,10.1.1.8,38,-0.030,-0.030,-0.030,0.000,0.000,0.000
1644350956614226176,2022-02-08-20:09:16,10.1.1.8,38,-0.020,-0.020,-0.020,0.000,0.000,0.000
1644350956714194944,2022-02-08-20:09:16,10.1.1.8,37,-0.010,-0.010,-0.010,0.000,0.000,0.000
1644350956814275072,2022-02-08-20:09:16,10.1.1.8,36,0.000,0.000,0.000,0.000,0.000,0.000
1644350956914778112,2022-02-08-20:09:16,10.1.1.8,35,0.010,0.010,0.010,0.000,0.000,0.000
1644350957021234944,2022-02-08-20:09:17,10.1.1.8,35,0.020,0.020,0.020,0.000,0.000,0.000
1644350957114310912,2022-02-08-20:09:17,10.1.1.8,35,0.030,0.030,0.030,0.000,0.000,0.000
1644350957255270912,2022-02-08-20:09:17,10.1.1.8,34,0.040,0.040,0.040,0.000,0.000,0.000
1644350957440440064,2022-02-08-20:09:17,10.1.1.8,37,0.060,0.060,0.060,0.000,0.000,0.000
1644350957534082048,2022-02-08-20:09:17,10.1.1.8,35,0.070,0.070,0.070,0.000,0.000,0.000
1644350957636421888,2022-02-08-20:09:17,10.1.1.8,32,0.080,0.080,0.080,0.000,0.000,0.000
1644350957734499840,2022-02-08-20:09:17,10.1.1.8,31,0.090,0.090,0.090,0.000,0.000,0.000
1644350957833944064,2022-02-08-20:09:17,10.1.1.8,31,0.100,0.100,0.100,0.000,0.000,0.000
1644350957934354176,2022-02-08-20:09:17,10.1.1.8,30,0.090,0.090,0.090,0.000,0.000,0.000
1644350958034697984,2022-02-08-20:09:18,10.1.1.8,29,0.080,0.080,0.080,0.000,0.000,0.000
1644350958133956864,2022-02-08-20:09:18,10.1.1.8,28,0.070,0.070,0.070,0.000,0.000,0.000
1644350958235282944,2022-02-08-20:09:18,10.1.1.8,28,0.060,0.060,0.060,0.000,0.000,0.000
1644350958333895936,2022-02-08-20:09:18,10.1.1.8,27,0.050,0.050,0.050,0.000,0.000,0.000
1644350958434652160,2022-02-08-20:09:18,10.1.1.8,26,0.040,0.040,0.040,0.000,0.000,0.000
1644350958535021056,2022-02-08-20:09:18,10.1.1.8,25,0.030,0.030,0.030,0.000,0.000,0.000
1644350958635085056,2022-02-08-20:09:18,10.1.1.8,24,0.020,0.020,0.020,0.000,0.000,0.000
1644350958734534912,2022-02-08-20:09:18,10.1.1.8,24,0.010,0.010,0.010,0.000,0.000,0.000
1644350958834769920,2022-02-08-20:09:18,10.1.1.8,23,0.000,0.000,0.000,0.000,0.000,0.000
1644350958934791168,2022-02-08-20:09:18,10.1.1.8,22,-0.010,-0.010,-0.010,0.000,0.000,0.000
1644350959034866944,2022-02-08-20:09:19,10.1.1.8,21,-0.020,-0.020,-0.020,0.000,0.000,0.000
1644350959134892032,2022-02-08-20:09:19,10.1.1.8,20,-0.030,-0.030,-0.030,0.000,0.000,0.000
1644350959235203072,2022-02-08-20:09:19,10.1.1.8,19,-0.040,-0.040,-0.040,0.000,0.000,0.000
1644350959334793984,2022-02-08-20:09:19,10.1.1.8,19,-0.049,-0.049,-0.049,0.000,0.000,0.000
1644350959453984000,2022-02-08-20:09:19,10.1.1.8,38,-0.060,-0.060,-0.060,0.000,0.000,0.000
1644350959554956032,2022-02-08-20:09:19,10.1.1.8,37,-0.070,-0.070,-0.070,0.000,0.000,0.000
1644350959655169024,2022-02-08-20:09:19,10.1.1.8,37,-0.080,-0.080,-0.080,0.000,0.000,0.000
1644350959754597888,2022-02-08-20:09:19,10.1.1.8,36,-0.090,-0.090,-0.090,0.000,0.000,0.000
1644350959854729984,2022-02-08-20:09:19,10.1.1.8,36,-0.100,-0.100,-0.100,0.000,0.000,0.000
1644350959954531840,2022-02-08-20:09:19,10.1.1.8,35,-0.090,-0.090,-0.090,0.000,0.000,0.000
1644350960055255040,2022-02-08-20:09:20,10.1.1.8,34,-0.080,-0.080,-0.080,0.000,0.000,0.000
1644350960154493184,2022-02-08-20:09:20,10.1.1.8,33,-0.070,-0.070,-0.070,0.000,0.000,0.000
1644350960255319040,2022-02-08-20:09:20,10.1.1.8,33,-0.060,-0.060,-0.060,0.000,0.000,0.000
1644350960355251200,2022-02-08-20:09:20,10.1.1.8,32,-0.050,-0.050,-0.050,0.000,0.000,0.000
1644350960454544896,2022-02-08-20:09:20,10.1.1.8,31,-0.040,-0.040,-0.040,0.000,0.000,0.000
1644350960554198016,2022-02-08-20:09:20,10.1.1.8,31,-0.030,-0.030,-0.030,0.000,0.000,0.000
1644350960654361088,2022-02-08-20:09:20,10.1.1.8,30,-0.020,-0.020,-0.020,0.000,0.000,0.000
1644350960754077952,2022-02-08-20:09:20,10.1.1.8,29,-0.010,-0.010,-0.010,0.000,0.000,0.000
1644350960854551040,2022-02-08-20:09:20,10.1.1.8,29,0.000,0.000,0.000,0.000,0.000,0.000
1644350960954511872,2022-02-08-20:09:20,10.1.1.8,28,0.010,0.010,0.010,0.000,0.000,0.000
1644350961054397952,2022-02-08-20:09:21,10.1.1.8,28,0.020,0.020,0.020,0.000,0.000,0.000
1644350961154387968,2022-02-08-20:09:21,10.1.1.8,27,0.030,0.030,0.030,0.000,0.000,0.000
1644350961254255104,2022-02-08-20:09:21,10.1.1.8,27,0.040,0.040,0.040,0.000,0.000,0.000
1644350961354680064,2022-02-08-20:09:21,10.1.1.8,26,0.050,0.050,0.050,0.000,0.000,0.000
1644350961454094848,2022-02-08-20:09:21,10.1.1.8,26,0.060,0.060,0.060,0.000,0.000,0.000
1644350961554172928,2022-02-08-20:09:21,10.1.1.8,25,0.070,0.070,0.070,0.000,0.000,0.000
1644350961654139136,2022-02-08-20:09:21,10.1.1.8,25,0.080,0.080,0.080,0.000,0.000,0.000
1644350961753972992,2022-02-08-20:09:21,10.1.1.8,24,0.090,0.090,0.090,0.000,0.000,0.000
1644350961854684160,2022-02-08-20:09:21,10.1.1.8,24,0.100,0.100,0.100,0.000,0.000,0.000
1644350961954215936,2022-02-08-20:09:21,10.1.1.8,24,0.090,0.090,0.090,0.000,0.000,0.000
1644350962054543872,2022-02-08-20:09:22,10.1.1.8,23,0.080,0.080,0.080,0.000,0.000,0.000
1644350962154589952,2022-02-08-20:09:22,10.1.1.8,22,0.070,0.070,0.070,0.000,0.000,0.000
1644350962254331136,2022-02-08-20:09:22,10.1.1.8,22,0.060,0.060,0.060,0.000,0.000,0.000
1644350962354084864,2022-02-08-20:09:22,10.1.1.8,21,0.050,0.050,0.050,0.000,0.000,0.000
1644350962454390016,2022-02-08-20:09:22,10.1.1.8,20,0.040,0.040,0.040,0.000,0.000,0.000
1644350962553762048,2022-02-08-20:09:22,10.1.1.8,20,0.030,0.030,0.030,0.000,0.000,0.000
1644350962654739968,2022-02-08-20:09:22,10.1.1.8,19,0.020,0.020,0.020,0.000,0.000,0.000
1644350962753981184,2022-02-08-20:09:22,10.1.1.8,19,0.011,0.011,0.011,0.000,0.000,0.000
1644350962874813184,2022-02-08-20:09:22,10.1.1.8,39,0.000,0.000,0.000,0.000,0.000,0.000
1644350962974343936,2022-02-08-20:09:22,10.1.1.8,38,-0.010,-0.010,-0.010,0.000,0.000,0.000
1644350963074307840,2022-02-08-20:09:23,10.1.1.8,37,-0.020,-0.020,-0.020,0.000,0.000,0.000
1644350963175247872,2022-02-08-20:09:23,10.1.1.8,37,-0.030,-0.030,-0.030,0.000,0.000,0.000
1644350963274147072,2022-02-08-20:09:23,10.1.1.8,36,-0.040,-0.040,-0.040,0.000,0.000,0.000
1644350963374138112,2022-02-08-20:09:23,10.1.1.8,36,-0.050,-0.050,-0.050,0.000,0.000,0.000
1644350963473987072,2022-02-08-20:09:23,10.1.1.8,35,-0.060,-0.060,-0.060,0.000,0.000,0.000
1644350963574713856,2022-02-08-20:09:23,10.1.1.8,35,-0.070,-0.070,-0.070,0.000,0.000,0.000
1644350963674434048,2022-02-08-20:09:23,10.1.1.8,34,-0.080,-0.080,-0.080,0.000,0.000,0.000
1644350963774497024,2022-02-08-20:09:23,10.1.1.8,33,-0.090,-0.090,-0.090,0.000,0.000,0.000
1644350963873820928,2022-02-08-20:09:23,10.1.1.8,32,-0.100,-0.100,-0.100,0.000,0.000,0.000
1644350963974097920,2022-02-08-20:09:23,10.1.1.8,31,-0.090,-0.090,-0.090,0.000,0.000,0.000
1644350964074280960,2022-02-08-20:09:24,10.1.1.8,31,-0.080,-0.080,-0.080,0.000,0.000,0.000
1644350964174257152,2022-02-08-20:09:24,10.1.1.8,30,-0.070,-0.070,-0.070,0.000,0.000,0.000
1644350964274280960,2022-02-08-20:09:24,10.1.1.8,30,-0.060,-0.060,-0.060,0.000,0.000,0.000
1644350964374387968,2022-02-08-20:09:24,10.1.1.8,29,-0.050,-0.050,-0.050,0.000,0.000,0.000
1644350964474593024,2022-02-08-20:09:24,10.1.1.8,28,-0.040,-0.040,-0.040,0.000,0.000,0.000
1644350964574635008,2022-02-08-20:09:24,10.1.1.8,28,-0.030,-0.030,-0.030,0.000,0.000,0.000
1644350964674716928,2022-02-08-20:09:24,10.1.1.8,26,-0.020,-0.020,-0.020,0.000,0.000,0.000
1644350964774637056,2022-02-08-20:09:24,10.1.1.8,25,-0.010,-0.010,-0.010,0.000,0.000,0.000
1644350964874479104,2022-02-08-20:09:24,10.1.1.8,25,0.000,0.000,0.000,0.000,0.000,0.000
1644350964974694912,2022-02-08-20:09:24,10.1.1.8,24,0.010,0.010,0.010,0.000,0.000,0.000
1644350965074341888,2022-02-08-20:09:25,10.1.1.8,24,0.020,0.020,0.020,0.000,0.000,0.000
1644350965174464000,2022-02-08-20:09:25,10.1.1.8,23,0.030,0.030,0.030,0.000,0.000,0.000
1644350965274179840,2022-02-08-20:09:25,10.1.1.8,22,0.040,0.040,0.040,0.000,0.000,0.000
1644350965374598912,2022-02-08-20:09:25,10.1.1.8,21,0.050,0.050,0.050,0.000,0.000,0.000
1644350965474942976,2022-02-08-20:09:25,10.1.1.8,20,0.060,0.060,0.060,0.000,0.000,0.000
1644350965575062016,2022-02-08-20:09:25,10.1.1.8,19,0.070,0.070,0.070,0.000,0.000,0.000
1644350965674462208,2022-02-08-20:09:25,10.1.1.8,19,0.079,0.079,0.079,0.000,0.000,0.000
1644350965775038976,2022-02-08-20:09:25,10.1.1.8,19,0.089,0.089,0.089,0.000,0.000,0.000
1644350965895417856,2022-02-08-20:09:25,10.1.1.8,38,0.100,0.100,0.100,0.000,0.000,0.000
1644350965994604032,2022-02-08-20:09:25,10.1.1.8,38,0.090,0.090,0.090,0.000,0.000,0.000
1644350966094619904,2022-02-08-20:09:26,10.1.1.8,37,0.080,0.080,0.080,0.000,0.000,0.000
1644350966195116032,2022-02-08-20:09:26,10.1.1.8,37,0.070,0.070,0.070,0.000,0.000,0.000
1644350966294668800,2022-02-08-20:09:26,10.1.1.8,35,0.060,0.060,0.060,0.000,0.000,0.000
1644350966395536896,2022-02-08-20:09:26,10.1.1.8,34,0.050,0.050,0.050,0.000,0.000,0.000
1644350966495003904,2022-02-08-20:09:26,10.1.1.8,34,0.040,0.040,0.040,0.000,0.000,0.000
1644350966594615040,2022-02-08-20:09:26,10.1.1.8,33,0.030,0.030,0.030,0.000,0.000,0.000
1644350966695019008,2022-02-08-20:09:26,10.1.1.8,33,0.020,0.020,0.020,0.000,0.000,0.000
1644350966795460864,2022-02-08-20:09:26,10.1.1.8,32,0.010,0.010,0.010,0.000,0.000,0.000
1644350966895823104,2022-02-08-20:09:26,10.1.1.8,30,0.000,0.000,0.000,0.000,0.000,0.000
1644350966994456064,2022-02-08-20:09:26,10.1.1.8,30,-0.010,-0.010,-0.010,0.000,0.000,0.000
1644350967094554880,2022-02-08-20:09:27,10.1.1.8,29,-0.020,-0.020,-0.020,0.000,0.000,0.000
1644350967194538240,2022-02-08-20:09:27,10.1.1.8,28,-0.030,-0.030,-0.030,0.000,0.000,0.000
1644350967294622976,2022-02-08-20:09:27,10.1.1.8,28,-0.040,-0.040,-0.040,0.000,0.000,0.000
1644350967395276032,2022-02-08-20:09:27,10.1.1.8,28,-0.050,-0.050,-0.050,0.000,0.000,0.000
1644350967494820096,2022-02-08-20:09:27,10.1.1.8,27,-0.060,-0.060,-0.060,0.000,0.000,0.000
1644350967595387904,2022-02-08-20:09:27,10.1.1.8,25,-0.070,-0.070,-0.070,0.000,0.000,0.000
1644350967694316032,2022-02-08-20:09:27,10.1.1.8,24,-0.080,-0.080,-0.080,0.000,0.000,0.000
1644350967795331840,2022-02-08-20:09:27,10.1.1.8,24,-0.090,-0.090,-0.090,0.000,0.000,0.000
1644350967893825024,2022-02-08-20:09:27,10.1.1.8,24,-0.100,-0.100,-0.100,0.000,0.000,0.000
1644350967994667008,2022-02-08-20:09:27,10.1.1.8,23,-0.090,-0.090,-0.090,0.000,0.000,0.000
1644350968094443008,2022-02-08-20:09:28,10.1.1.8,22,-0.080,-0.080,-0.080,0.000,0.000,0.000
1644350968194801920,2022-02-08-20:09:28,10.1.1.8,22,-0.070,-0.070,-0.070,0.000,0.000,0.000
1644350968294255104,2022-02-08-20:09:28,10.1.1.8,21,-0.060,-0.060,-0.060,0.000,0.000,0.000
1644350968395032832,2022-02-08-20:09:28,10.1.1.8,20,-0.050,-0.050,-0.050,0.000,0.000,0.000
1644350968494867200,2022-02-08-20:09:28,10.1.1.8,19,-0.040,-0.040,-0.040,0.000,0.000,0.000
1644350968594608896,2022-02-08-20:09:28,10.1.1.8,19,-0.031,-0.031,-0.031,0.000,0.000,0.000
1644350968694652160,2022-02-08-20:09:28,10.1.1.8,18,-0.021,-0.021,-0.021,0.000,0.000,0.000
1644350968814665984,2022-02-08-20:09:28,10.1.1.8,38,-0.010,-0.010,-0.010,0.000,0.000,0.000
1644350968914403840,2022-02-08-20:09:28,10.1.1.8,38,0.000,0.000,0.000,0.000,0.000,0.000
1644350969014684928,2022-02-08-20:09:29,10.1.1.8,37,0.010,0.010,0.010,0.000,0.000,0.000
1644350969114491904,2022-02-08-20:09:29,10.1.1.8,36,0.020,0.020,0.020,0.000,0.000,0.000
1644350969215456000,2022-02-08-20:09:29,10.1.1.8,36,0.030,0.030,0.030,0.000,0.000,0.000
1644350969314540032,2022-02-08-20:09:29,10.1.1.8,35,0.040,0.040,0.040,0.000,0.000,0.000
1644350969415040000,2022-02-08-20:09:29,10.1.1.8,35,0.050,0.050,0.050,0.000,0.000,0.000
1644350969514690048,2022-02-08-20:09:29,10.1.1.8,34,0.060,0.060,0.060,0.000,0.000,0.000
1644350969614574848,2022-02-08-20:09:29,10.1.1.8,33,0.070,0.070,0.070,0.000,0.000,0.000
1644350969715020032,2022-02-08-20:09:29,10.1.1.8,32,0.080,0.080,0.080,0.000,0.000,0.000
1644350969814326016,2022-02-08-20:09:29,10.1.1.8,31,0.090,0.090,0.090,0.000,0.000,0.000
1644350969914316032,2022-02-08-20:09:29,10.1.1.8,31,0.100,0.100,0.100,0.000,0.000,0.000
1644350970014621952,2022-02-08-20:09:30,10.1.1.8,30,0.090,0.090,0.090,0.000,0.000,0.000
1644350970114497024,2022-02-08-20:09:30,10.1.1.8,29,0.080,0.080,0.080,0.000,0.000,0.000
1644350970215203072,2022-02-08-20:09:30,10.1.1.8,28,0.070,0.070,0.070,0.000,0.000,0.000
1644350970314518016,2022-02-08-20:09:30,10.1.1.8,28,0.060,0.060,0.060,0.000,0.000,0.000
1644350970414188032,2022-02-08-20:09:30,10.1.1.8,27,0.050,0.050,0.050,0.000,0.000,0.000
1644350970515078912,2022-02-08-20:09:30,10.1.1.8,27,0.040,0.040,0.040,0.000,0.000,0.000
1644350970614706944,2022-02-08-20:09:30,10.1.1.8,27,0.030,0.030,0.030,0.000,0.000,0.000
1644350970714728192,2022-02-08-20:09:30,10.1.1.8,26,0.020,0.020,0.020,0.000,0.000,0.000
1644350970814435072,2022-02-08-20:09:30,10.1.1.8,25,0.010,0.010,0.010,0.000,0.000,0.000
1644350970914455808,2022-02-08-20:09:30,10.1.1.8,25,0.000,0.000,0.000,0.000,0.000,0.000
1644350971014158080,2022-02-08-20:09:31,10.1.1.8,25,-0.010,-0.010,-0.010,0.000,0.000,0.000
1644350971114860032,2022-02-08-20:09:31,10.1.1.8,24,-0.020,-0.020,-0.020,0.000,0.000,0.000
1644350971214489088,2022-02-08-20:09:31,10.1.1.8,24,-0.030,-0.030,-0.030,0.000,0.000,0.000
1644350971314424064,2022-02-08-20:09:31,10.1.1.8,23,-0.040,-0.040,-0.040,0.000,0.000,0.000
1644350971414515968,2022-02-08-20:09:31,10.1.1.8,23,-0.050,-0.050,-0.050,0.000,0.000,0.000
1644350971514493952,2022-02-08-20:09:31,10.1.1.8,22,-0.060,-0.060,-0.060,0.000,0.000,0.000
1644350971614907904,2022-02-08-20:09:31,10.1.1.8,22,-0.070,-0.070,-0.070,0.000,0.000,0.000
1644350971714509056,2022-02-08-20:09:31,10.1.1.8,21,-0.080,-0.080,-0.080,0.000,0.000,0.000
1644350971815119872,2022-02-08-20:09:31,10.1.1.8,20,-0.090,-0.090,-0.090,0.000,0.000,0.000
1644350971915621888,2022-02-08-20:09:31,10.1.1.8,20,-0.100,-0.100,-0.100,0.000,0.000,0.000
1644350972014899968,2022-02-08-20:09:32,10.1.1.8,20,-0.090,-0.090,-0.090,0.000,0.000,0.000
1644350972114865920,2022-02-08-20:09:32,10.1.1.8,19,-0.081,-0.081,-0.081,0.000,0.000,0.000
1644350972235258112,2022-02-08-20:09:32,10.1.1.8,38,-0.070,-0.070,-0.070,0.000,0.000,0.000
1644350972334914048,2022-02-08-20:09:32,10.1.1.8,38,-0.060,-0.060,-0.060,0.000,0.000,0.000
1644350972435653888,2022-02-08-20:09:32,10.1.1.8,38,-0.050,-0.050,-0.050,0.000,0.000,0.000
1644350972534509824,2022-02-08-20:09:32,10.1.1.8,37,-0.040,-0.040,-0.040,0.000,0.000,0.000
1644350972635892992,2022-02-08-20:09:32,10.1.1.8,36,-0.030,-0.030,-0.030,0.000,0.000,0.000
1644350972734918144,2022-02-08-20:09:32,10.1.1.8,34,-0.020,-0.020,-0.020,0.000,0.000,0.000
1644350972836660992,2022-02-08-20:09:32,10.1.1.8,33,-0.010,-0.010,-0.010,0.000,0.000,0.000
1644350972935175936,2022-02-08-20:09:32,10.1.1.8,32,0.000,0.000,0.000,0.000,0.000,0.000
1644350973038327808,2022-02-08-20:09:33,10.1.1.8,31,0.010,0.010,0.010,0.000,0.000,0.000
1644350973135140864,2022-02-08-20:09:33,10.1.1.8,30,0.020,0.020,0.020,0.000,0.000,0.000
1644350973238712064,2022-02-08-20:09:33,10.1.1.8,29,0.030,0.030,0.030,0.000,0.000,0.000
1644350973339087104,2022-02-08-20:09:33,10.1.1.8,29,0.040,0.040,0.040,0.000,0.000,0.000
1644350973435468032,2022-02-08-20:09:33,10.1.1.8,28,0.050,0.050,0.050,0.000,0.000,0.000
1644350973534992896,2022-02-08-20:09:33,10.1.1.8,28,0.060,0.060,0.060,0.000,0.000,0.000
1644350973634305024,2022-02-08-20:09:33,10.1.1.8,28,0.070,0.070,0.070,0.000,0.000,0.000
1644350973735151104,2022-02-08-20:09:33,10.1.1.8,27,0.080,0.080,0.080,0.000,0.000,0.000
1644350973836635136,2022-02-08-20:09:33,10.1.1.8,26,0.090,0.090,0.090,0.000,0.000,0.000
1644350973956026112,2022-02-08-20:09:33,10.1.1.8,36,0.100,0.100,0.100,0.000,0.000,0.000
1644350974054353920,2022-02-08-20:09:34,10.1.1.8,35,0.090,0.090,0.090,0.000,0.000,0.000
1644350974154078976,2022-02-08-20:09:34,10.1.1.8,34,0.080,0.080,0.080,0.000,0.000,0.000
1644350974254638848,2022-02-08-20:09:34,10.1.1.8,34,0.070,0.070,0.070,0.000,0.000,0.000
1644350974355200000,2022-02-08-20:09:34,10.1.1.8,32,0.060,0.060,0.060,0.000,0.000,0.000
1644350974454483968,2022-02-08-20:09:34,10.1.1.8,32,0.050,0.050,0.050,0.000,0.000,0.000
1644350974544785920,2022-02-08-20:09:34,10.1.1.8,21,0.040,0.040,0.040,0.000,0.000,0.000
1644350974654182912,2022-02-08-20:09:34,10.1.1.8,31,0.030,0.030,0.030,0.000,0.000,0.000
1644350974755055872,2022-02-08-20:09:34,10.1.1.8,30,0.020,0.020,0.020,0.000,0.000,0.000
1644350974854422016,2022-02-08-20:09:34,10.1.1.8,29,0.010,0.010,0.010,0.000,0.000,0.000
1644350974954555136,2022-02-08-20:09:34,10.1.1.8,29,0.000,0.000,0.000,0.000,0.000,0.000
1644350975054109952,2022-02-08-20:09:35,10.1.1.8,28,-0.010,-0.010,-0.010,0.000,0.000,0.000
1644350975154684928,2022-02-08-20:09:35,10.1.1.8,28,-0.020,-0.020,-0.020,0.000,0.000,0.000
1644350975254534912,2022-02-08-20:09:35,10.1.1.8,27,-0.030,-0.030,-0.030,0.000,0.000,0.000
1644350975356169984,2022-02-08-20:09:35,10.1.1.8,27,-0.040,-0.040,-0.040,0.000,0.000,0.000
1644350975425383168,2022-02-08-20:09:35,10.1.1.8,-17,-0.040,-0.040,-0.040,0.000,0.000,0.000
1644350975554543104,2022-02-08-20:09:35,10.1.1.8,22,-0.060,-0.060,-0.060,0.000,0.000,0.000
1644350975654115072,2022-02-08-20:09:35,10.1.1.8,21,-0.070,-0.070,-0.070,0.000,0.000,0.000
1644350975754283008,2022-02-08-20:09:35,10.1.1.8,20,-0.080,-0.080,-0.080,0.000,0.000,0.000
1644350975854886912,2022-02-08-20:09:35,10.1.1.8,20,-0.090,-0.090,-0.090,0.000,0.000,0.000
1644350975956486912,2022-02-08-20:09:35,10.1.1.8,19,-0.099,-0.099,-0.099,0.000,0.000,0.000
1644350976075190016,2022-02-08-20:09:36,10.1.1.8,38,-0.090,-0.090,-0.090,0.000,0.000,0.000
1644350976176704768,2022-02-08-20:09:36,10.1.1.8,37,-0.080,-0.080,-0.080,0.000,0.000,0.000
1644350976274712064,2022-02-08-20:09:36,10.1.1.8,35,-0.070,-0.070,-0.070,0.000,0.000,0.000
1644350976375191040,2022-02-08-20:09:36,10.1.1.8,34,-0.060,-0.060,-0.060,0.000,0.000,0.000
1644350976475130112,2022-02-08-20:09:36,10.1.1.8,33,-0.050,-0.050,-0.050,0.000,0.000,0.000
1644350976574234112,2022-02-08-20:09:36,10.1.1.8,33,-0.040,-0.040,-0.040,0.000,0.000,0.000
1644350976674628096,2022-02-08-20:09:36,10.1.1.8,32,-0.030,-0.030,-0.030,0.000,0.000,0.000
1644350976774269952,2022-02-08-20:09:36,10.1.1.8,31,-0.020,-0.020,-0.020,0.000,0.000,0.000
1644350976874278912,2022-02-08-20:09:36,10.1.1.8,31,-0.010,-0.010,-0.010,0.000,0.000,0.000
1644350976974685952,2022-02-08-20:09:36,10.1.1.8,30,0.000,0.000,0.000,0.000,0.000,0.000
1644350977074174976,2022-02-08-20:09:37,10.1.1.8,29,0.010,0.010,0.010,0.000,0.000,0.000
1644350977178661120,2022-02-08-20:09:37,10.1.1.8,25,0.020,0.020,0.020,0.000,0.000,0.000
1644350977274772992,2022-02-08-20:09:37,10.1.1.8,24,0.030,0.030,0.030,0.000,0.000,0.000
1644350977374180096,2022-02-08-20:09:37,10.1.1.8,23,0.040,0.040,0.040,0.000,0.000,0.000
1644350977478214144,2022-02-08-20:09:37,10.1.1.8,25,0.050,0.050,0.050,0.000,0.000,0.000
1644350977574286848,2022-02-08-20:09:37,10.1.1.8,21,0.060,0.060,0.060,0.000,0.000,0.000
1644350977674156800,2022-02-08-20:09:37,10.1.1.8,20,0.070,0.070,0.070,0.000,0.000,0.000
1644350977774342912,2022-02-08-20:09:37,10.1.1.8,20,0.080,0.080,0.080,0.000,0.000,0.000
1644350977885026048,2022-02-08-20:09:37,10.1.1.8,19,0.090,0.090,0.090,0.000,0.000,0.000
1644350977995170048,2022-02-08-20:09:37,10.1.1.8,38,0.100,0.100,0.100,0.000,0.000,0.000
1644350978094160128,2022-02-08-20:09:38,10.1.1.8,38,0.090,0.090,0.090,0.000,0.000,0.000
1644350978194349056,2022-02-08-20:09:38,10.1.1.8,37,0.080,0.080,0.080,0.000,0.000,0.000
1644350978294878976,2022-02-08-20:09:38,10.1.1.8,36,0.070,0.070,0.070,0.000,0.000,0.000
1644350978394673152,2022-02-08-20:09:38,10.1.1.8,35,0.060,0.060,0.060,0.000,0.000,0.000
1644350978494872064,2022-02-08-20:09:38,10.1.1.8,34,0.050,0.050,0.050,0.000,0.000,0.000
1644350978594626816,2022-02-08-20:09:38,10.1.1.8,33,0.040,0.040,0.040,0.000,0.000,0.000
1644350978694583040,2022-02-08-20:09:38,10.1.1.8,31,0.030,0.030,0.030,0.000,0.000,0.000
1644350978794887168,2022-02-08-20:09:38,10.1.1.8,31,0.020,0.020,0.020,0.000,0.000,0.000
1644350978894844928,2022-02-08-20:09:38,10.1.1.8,30,0.010,0.010,0.010,0.000,0.000,0.000
1644350978994359040,2022-02-08-20:09:38,10.1.1.8,29,0.000,0.000,0.000,0.000,0.000,0.000
1644350979094716928,2022-02-08-20:09:39,10.1.1.8,28,-0.010,-0.010,-0.010,0.000,0.000,0.000
1644350979194263808,2022-02-08-20:09:39,10.1.1.8,28,-0.020,-0.020,-0.020,0.000,0.000,0.000
1644350979294998016,2022-02-08-20:09:39,10.1.1.8,27,-0.030,-0.030,-0.030,0.000,0.000,0.000
1644350979394800896,2022-02-08-20:09:39,10.1.1.8,27,-0.040,-0.040,-0.040,0.000,0.000,0.000
1644350979494652160,2022-02-08-20:09:39,10.1.1.8,26,-0.050,-0.050,-0.050,0.000,0.000,0.000
1644350979595155968,2022-02-08-20:09:39,10.1.1.8,25,-0.060,-0.060,-0.060,0.000,0.000,0.000
1644350979697822976,2022-02-08-20:09:39,10.1.1.8,25,-0.070,-0.070,-0.070,0.000,0.000,0.000
1644350979795512832,2022-02-08-20:09:39,10.1.1.8,23,-0.080,-0.080,-0.080,0.000,0.000,0.000
1644350979896689920,2022-02-08-20:09:39,10.1.1.8,23,-0.090,-0.090,-0.090,0.000,0.000,0.000
1644350979994746880,2022-02-08-20:09:39,10.1.1.8,21,-0.100,-0.100,-0.100,0.000,0.000,0.000
1644350980094567168,2022-02-08-20:09:40,10.1.1.8,20,-0.090,-0.090,-0.090,0.000,0.000,0.000
1644350980197350144,2022-02-08-20:09:40,10.1.1.8,19,-0.080,-0.080,-0.080,0.000,0.000,0.000
1644350980314452992,2022-02-08-20:09:40,10.1.1.8,38,-0.070,-0.070,-0.070,0.000,0.000,0.000
1644350980414969856,2022-02-08-20:09:40,10.1.1.8,36,-0.060,-0.060,-0.060,0.000,0.000,0.000
1644350980515249920,2022-02-08-20:09:40,10.1.1.8,35,-0.050,-0.050,-0.050,0.000,0.000,0.000
1644350980614497792,2022-02-08-20:09:40,10.1.1.8,33,-0.040,-0.040,-0.040,0.000,0.000,0.000
1644350980714112000,2022-02-08-20:09:40,10.1.1.8,32,-0.030,-0.030,-0.030,0.000,0.000,0.000
1644350980814776064,2022-02-08-20:09:40,10.1.1.8,31,-0.020,-0.020,-0.020,0.000,0.000,0.000
1644350980914012928,2022-02-08-20:09:40,10.1.1.8,30,-0.010,-0.010,-0.010,0.000,0.000,0.000
1644350981014575104,2022-02-08-20:09:41,10.1.1.8,29,0.000,0.000,0.000,0.000,0.000,0.000
1644350981114353920,2022-02-08-20:09:41,10.1.1.8,29,0.010,0.010,0.010,0.000,0.000,0.000
1644350981214728960,2022-02-08-20:09:41,10.1.1.8,27,0.020,0.020,0.020,0.000,0.000,0.000
1644350981314701056,2022-02-08-20:09:41,10.1.1.8,26,0.030,0.030,0.030,0.000,0.000,0.000
1644350981414864896,2022-02-08-20:09:41,10.1.1.8,25,0.040,0.040,0.040,0.000,0.000,0.000
1644350981514635008,2022-02-08-20:09:41,10.1.1.8,25,0.050,0.050,0.050,0.000,0.000,0.000
1644350981614643968,2022-02-08-20:09:41,10.1.1.8,24,0.060,0.060,0.060,0.000,0.000,0.000
1644350981715857920,2022-02-08-20:09:41,10.1.1.8,20,0.070,0.070,0.070,0.000,0.000,0.000
1644350981815265792,2022-02-08-20:09:41,10.1.1.8,19,0.080,0.080,0.080,0.000,0.000,0.000
1644350981935282944,2022-02-08-20:09:41,10.1.1.8,39,0.090,0.090,0.090,0.000,0.000,0.000
1644350982035049984,2022-02-08-20:09:42,10.1.1.8,38,0.100,0.100,0.100,0.000,0.000,0.000
1644350982134828032,2022-02-08-20:09:42,10.1.1.8,37,0.090,0.090,0.090,0.000,0.000,0.000
1644350982234777088,2022-02-08-20:09:42,10.1.1.8,36,0.080,0.080,0.080,0.000,0.000,0.000
1644350982334532096,2022-02-08-20:09:42,10.1.1.8,35,0.070,0.070,0.070,0.000,0.000,0.000
1644350982434770176,2022-02-08-20:09:42,10.1.1.8,35,0.060,0.060,0.060,0.000,0.000,0.000
1644350982534588160,2022-02-08-20:09:42,10.1.1.8,34,0.050,0.050,0.050,0.000,0.000,0.000
1644350982634735104,2022-02-08-20:09:42,10.1.1.8,34,0.040,0.040,0.040,0.000,0.000,0.000
1644350982734452992,2022-02-08-20:09:42,10.1.1.8,33,0.030,0.030,0.030,0.000,0.000,0.000
1644350982834629120,2022-02-08-20:09:42,10.1.1.8,32,0.020,0.020,0.020,0.000,0.000,0.000
1644350982934648064,2022-02-08-20:09:42,10.1.1.8,32,0.010,0.010,0.010,0.000,0.000,0.000
1644350983034507008,2022-02-08-20:09:43,10.1.1.8,32,0.000,0.000,0.000,0.000,0.000,0.000
1644350983134896896,2022-02-08-20:09:43,10.1.1.8,30,-0.010,-0.010,-0.010,0.000,0.000,0.000
1644350983234498048,2022-02-08-20:09:43,10.1.1.8,29,-0.020,-0.020,-0.020,0.000,0.000,0.000
1644350983335913984,2022-02-08-20:09:43,10.1.1.8,28,-0.030,-0.030,-0.030,0.000,0.000,0.000
1644350983434833920,2022-02-08-20:09:43,10.1.1.8,28,-0.040,-0.040,-0.040,0.000,0.000,0.000
1644350983534915840,2022-02-08-20:09:43,10.1.1.8,27,-0.050,-0.050,-0.050,0.000,0.000,0.000
1644350983635162112,2022-02-08-20:09:43,10.1.1.8,26,-0.060,-0.060,-0.060,0.000,0.000,0.000
1644350983734208000,2022-02-08-20:09:43,10.1.1.8,25,-0.070,-0.070,-0.070,0.000,0.000,0.000
1644350983834199808,2022-02-08-20:09:43,10.1.1.8,25,-0.080,-0.080,-0.080,0.000,0.000,0.000
1644350983934768896,2022-02-08-20:09:43,10.1.1.8,24,-0.090,-0.090,-0.090,0.000,0.000,0.000
1644350984034491904,2022-02-08-20:09:44,10.1.1.8,24,-0.100,-0.100,-0.100,0.000,0.000,0.000
1644350984134919936,2022-02-08-20:09:44,10.1.1.8,23,-0.090,-0.090,-0.090,0.000,0.000,0.000
1644350984234679040,2022-02-08-20:09:44,10.1.1.8,23,-0.080,-0.080,-0.080,0.000,0.000,0.000
1644350984334526976,2022-02-08-20:09:44,10.1.1.8,22,-0.070,-0.070,-0.070,0.000,0.000,0.000
1644350984435070976,2022-02-08-20:09:44,10.1.1.8,21,-0.060,-0.060,-0.060,0.000,0.000,0.000
1644350984534616064,2022-02-08-20:09:44,10.1.1.8,20,-0.050,-0.050,-0.050,0.000,0.000,0.000
1644350984634504192,2022-02-08-20:09:44,10.1.1.8,20,-0.040,-0.040,-0.040,0.000,0.000,0.000
1644350984735197184,2022-02-08-20:09:44,10.1.1.8,19,-0.030,-0.030,-0.030,0.000,0.000,0.000
1644350984854545152,2022-02-08-20:09:44,10.1.1.8,39,-0.020,-0.020,-0.020,0.000,0.000,0.000
1644350984954906112,2022-02-08-20:09:44,10.1.1.8,38,-0.010,-0.010,-0.010,0.000,0.000,0.000
1644350985055094016,2022-02-08-20:09:45,10.1.1.8,36,0.000,0.000,0.000,0.000,0.000,0.000
1644350985154417920,2022-02-08-20:09:45,10.1.1.8,35,0.010,0.010,0.010,0.000,0.000,0.000
1644350985254929152,2022-02-08-20:09:45,10.1.1.8,34,0.020,0.020,0.020,0.000,0.000,0.000
1644350985354959872,2022-02-08-20:09:45,10.1.1.8,34,0.030,0.030,0.030,0.000,0.000,0.000
1644350985454601984,2022-02-08-20:09:45,10.1.1.8,33,0.040,0.040,0.040,0.000,0.000,0.000
1644350985555043072,2022-02-08-20:09:45,10.1.1.8,32,0.050,0.050,0.050,0.000,0.000,0.000
1644350985654406144,2022-02-08-20:09:45,10.1.1.8,31,0.060,0.060,0.060,0.000,0.000,0.000
1644350985754648832,2022-02-08-20:09:45,10.1.1.8,31,0.070,0.070,0.070,0.000,0.000,0.000
1644350985854505984,2022-02-08-20:09:45,10.1.1.8,31,0.080,0.080,0.080,0.000,0.000,0.000
1644350985954718208,2022-02-08-20:09:45,10.1.1.8,29,0.090,0.090,0.090,0.000,0.000,0.000
1644350986054658048,2022-02-08-20:09:46,10.1.1.8,29,0.100,0.100,0.100,0.000,0.000,0.000
1644350986154763008,2022-02-08-20:09:46,10.1.1.8,28,0.090,0.090,0.090,0.000,0.000,0.000
1644350986254398976,2022-02-08-20:09:46,10.1.1.8,28,0.080,0.080,0.080,0.000,0.000,0.000
1644350986360219904,2022-02-08-20:09:46,10.1.1.8,25,0.070,0.070,0.070,0.000,0.000,0.000
1644350986454684928,2022-02-08-20:09:46,10.1.1.8,23,0.060,0.060,0.060,0.000,0.000,0.000
1644350986555064064,2022-02-08-20:09:46,10.1.1.8,22,0.050,0.050,0.050,0.000,0.000,0.000
1644350986654661888,2022-02-08-20:09:46,10.1.1.8,21,0.040,0.040,0.040,0.000,0.000,0.000
1644350986754452992,2022-02-08-20:09:46,10.1.1.8,20,0.030,0.030,0.030,0.000,0.000,0.000
1644350986855084032,2022-02-08-20:09:46,10.1.1.8,20,0.020,0.020,0.020,0.000,0.000,0.000
1644350986954267904,2022-02-08-20:09:46,10.1.1.8,19,0.011,0.011,0.011,0.000,0.000,0.000
1644350987074834944,2022-02-08-20:09:47,10.1.1.8,39,0.000,0.000,0.000,0.000,0.000,0.000
1644350987174557952,2022-02-08-20:09:47,10.1.1.8,38,-0.010,-0.010,-0.010,0.000,0.000,0.000
1644350987274930944,2022-02-08-20:09:47,10.1.1.8,37,-0.020,-0.020,-0.020,0.000,0.000,0.000
1644350987374802176,2022-02-08-20:09:47,10.1.1.8,36,-0.030,-0.030,-0.030,0.000,0.000,0.000
1644350987474663936,2022-02-08-20:09:47,10.1.1.8,35,-0.040,-0.040,-0.040,0.000,0.000,0.000
1644350987574525952,2022-02-08-20:09:47,10.1.1.8,34,-0.050,-0.050,-0.050,0.000,0.000,0.000
1644350987676069120,2022-02-08-20:09:47,10.1.1.8,33,-0.060,-0.060,-0.060,0.000,0.000,0.000
1644350987774571776,2022-02-08-20:09:47,10.1.1.8,32,-0.070,-0.070,-0.070,0.000,0.000,0.000
1644350987874429952,2022-02-08-20:09:47,10.1.1.8,31,-0.080,-0.080,-0.080,0.000,0.000,0.000
1644350987974332928,2022-02-08-20:09:47,10.1.1.8,31,-0.090,-0.090,-0.090,0.000,0.000,0.000
1644350988074471936,2022-02-08-20:09:48,10.1.1.8,30,-0.100,-0.100,-0.100,0.000,0.000,0.000
1644350988174231040,2022-02-08-20:09:48,10.1.1.8,30,-0.090,-0.090,-0.090,0.000,0.000,0.000
1644350988274534912,2022-02-08-20:09:48,10.1.1.8,29,-0.080,-0.080,-0.080,0.000,0.000,0.000
1644350988335310080,2022-02-08-20:09:48,10.1.1.8,-12,-0.080,-0.080,-0.080,0.000,0.000,0.000
1644350988474621952,2022-02-08-20:09:48,10.1.1.8,28,-0.060,-0.060,-0.060,0.000,0.000,0.000
1644350988574011136,2022-02-08-20:09:48,10.1.1.8,28,-0.050,-0.050,-0.050,0.000,0.000,0.000
1644350988674834944,2022-02-08-20:09:48,10.1.1.8,27,-0.040,-0.040,-0.040,0.000,0.000,0.000
1644350988774648064,2022-02-08-20:09:48,10.1.1.8,26,-0.030,-0.030,-0.030,0.000,0.000,0.000
1644350988874114048,2022-02-08-20:09:48,10.1.1.8,25,-0.020,-0.020,-0.020,0.000,0.000,0.000
1644350988974574080,2022-02-08-20:09:48,10.1.1.8,24,-0.010,-0.010,-0.010,0.000,0.000,0.000
1644350989074385920,2022-02-08-20:09:49,10.1.1.8,24,0.000,0.000,0.000,0.000,0.000,0.000
1644350989174658048,2022-02-08-20:09:49,10.1.1.8,24,0.010,0.010,0.010,0.000,0.000,0.000
1644350989274797824,2022-02-08-20:09:49,10.1.1.8,23,0.020,0.020,0.020,0.000,0.000,0.000
1644350989374535168,2022-02-08-20:09:49,10.1.1.8,22,0.030,0.030,0.030,0.000,0.000,0.000
1644350989474324992,2022-02-08-20:09:49,10.1.1.8,22,0.040,0.040,0.040,0.000,0.000,0.000
1644350989574512896,2022-02-08-20:09:49,10.1.1.8,21,0.050,0.050,0.050,0.000,0.000,0.000
1644350989674849024,2022-02-08-20:09:49,10.1.1.8,21,0.060,0.060,0.060,0.000,0.000,0.000
1644350989774547200,2022-02-08-20:09:49,10.1.1.8,20,0.070,0.070,0.070,0.000,0.000,0.000
1644350989894823936,2022-02-08-20:09:49,10.1.1.8,39,0.080,0.080,0.080,0.000,0.000,0.000
1644350989994734080,2022-02-08-20:09:49,10.1.1.8,38,0.090,0.090,0.090,0.000,0.000,0.000
1644350990094604032,2022-02-08-20:09:50,10.1.1.8,37,0.100,0.100,0.100,0.000,0.000,0.000
1644350990194808064,2022-02-08-20:09:50,10.1.1.8,37,0.090,0.090,0.090,0.000,0.000,0.000
1644350990294671104,2022-02-08-20:09:50,10.1.1.8,36,0.080,0.080,0.080,0.000,0.000,0.000
1644350990394247936,2022-02-08-20:09:50,10.1.1.8,35,0.070,0.070,0.070,0.000,0.000,0.000
1644350990495026176,2022-02-08-20:09:50,10.1.1.8,34,0.060,0.060,0.060,0.000,0.000,0.000
1644350990594739968,2022-02-08-20:09:50,10.1.1.8,34,0.050,0.050,0.050,0.000,0.000,0.000
1644350990694807040,2022-02-08-20:09:50,10.1.1.8,33,0.040,0.040,0.040,0.000,0.000,0.000
1644350990794793984,2022-02-08-20:09:50,10.1.1.8,32,0.030,0.030,0.030,0.000,0.000,0.000
1644350990894447104,2022-02-08-20:09:50,10.1.1.8,32,0.020,0.020,0.020,0.000,0.000,0.000
1644350990994785024,2022-02-08-20:09:50,10.1.1.8,31,0.010,0.010,0.010,0.000,0.000,0.000
1644350991094705152,2022-02-08-20:09:51,10.1.1.8,30,0.000,0.000,0.000,0.000,0.000,0.000
1644350991194432000,2022-02-08-20:09:51,10.1.1.8,30,-0.010,-0.010,-0.010,0.000,0.000,0.000
1644350991294870016,2022-02-08-20:09:51,10.1.1.8,29,-0.020,-0.020,-0.020,0.000,0.000,0.000
1644350991395042816,2022-02-08-20:09:51,10.1.1.8,28,-0.030,-0.030,-0.030,0.000,0.000,0.000
1644350991495371008,2022-02-08-20:09:51,10.1.1.8,27,-0.040,-0.040,-0.040,0.000,0.000,0.000
1644350991595321856,2022-02-08-20:09:51,10.1.1.8,24,-0.050,-0.050,-0.050,0.000,0.000,0.000
1644350991700822016,2022-02-08-20:09:51,10.1.1.8,24,-0.060,-0.060,-0.060,0.000,0.000,0.000
1644350991795106816,2022-02-08-20:09:51,10.1.1.8,23,-0.070,-0.070,-0.070,0.000,0.000,0.000
1644350991894789888,2022-02-08-20:09:51,10.1.1.8,23,-0.080,-0.080,-0.080,0.000,0.000,0.000
1644350991995083008,2022-02-08-20:09:51,10.1.1.8,22,-0.090,-0.090,-0.090,0.000,0.000,0.000
1644350992094407168,2022-02-08-20:09:52,10.1.1.8,21,-0.100,-0.100,-0.100,0.000,0.000,0.000
1644350992195090944,2022-02-08-20:09:52,10.1.1.8,21,-0.090,-0.090,-0.090,0.000,0.000,0.000
1644350992316317184,2022-02-08-20:09:52,10.1.1.8,37,-0.080,-0.080,-0.080,0.000,0.000,0.000
1644350992414795008,2022-02-08-20:09:52,10.1.1.8,35,-0.070,-0.070,-0.070,0.000,0.000,0.000
1644350992514823936,2022-02-08-20:09:52,10.1.1.8,35,-0.060,-0.060,-0.060,0.000,0.000,0.000
1644350992614742016,2022-02-08-20:09:52,10.1.1.8,34,-0.050,-0.050,-0.050,0.000,0.000,0.000
1644350992714582016,2022-02-08-20:09:52,10.1.1.8,33,-0.040,-0.040,-0.040,0.000,0.000,0.000
1644350992814830080,2022-02-08-20:09:52,10.1.1.8,32,-0.030,-0.030,-0.030,0.000,0.000,0.000
1644350992924763904,2022-02-08-20:09:52,10.1.1.8,32,-0.020,-0.020,-0.020,0.000,0.000,0.000
1644350993034682880,2022-02-08-20:09:53,10.1.1.8,38,-0.010,-0.010,-0.010,0.000,0.000,0.000
1644350993134845952,2022-02-08-20:09:53,10.1.1.8,38,0.000,0.000,0.000,0.000,0.000,0.000
1644350993235687936,2022-02-08-20:09:53,10.1.1.8,37,0.010,0.010,0.010,0.000,0.000,0.000
1644350993340736000,2022-02-08-20:09:53,10.1.1.8,37,0.020,0.020,0.020,0.000,0.000,0.000
1644350993435420928,2022-02-08-20:09:53,10.1.1.8,35,0.030,0.030,0.030,0.000,0.000,0.000
1644350993535464960,2022-02-08-20:09:53,10.1.1.8,35,0.040,0.040,0.040,0.000,0.000,0.000
1644350993635448832,2022-02-08-20:09:53,10.1.1.8,34,0.050,0.050,0.050,0.000,0.000,0.000
1644350993734905856,2022-02-08-20:09:53,10.1.1.8,34,0.060,0.060,0.060,0.000,0.000,0.000
1644350993835553024,2022-02-08-20:09:53,10.1.1.8,33,0.070,0.070,0.070,0.000,0.000,0.000
1644350993934894080,2022-02-08-20:09:53,10.1.1.8,32,0.080,0.080,0.080,0.000,0.000,0.000
1644350994035944960,2022-02-08-20:09:54,10.1.1.8,32,0.090,0.090,0.090,0.000,0.000,0.000
1644350994134226176,2022-02-08-20:09:54,10.1.1.8,31,0.100,0.100,0.100,0.000,0.000,0.000
1644350994236217088,2022-02-08-20:09:54,10.1.1.8,31,0.090,0.090,0.090,0.000,0.000,0.000
1644350994334800896,2022-02-08-20:09:54,10.1.1.8,30,0.080,0.080,0.080,0.000,0.000,0.000
1644350994438888192,2022-02-08-20:09:54,10.1.1.8,31,0.070,0.070,0.070,0.000,0.000,0.000
1644350994534984960,2022-02-08-20:09:54,10.1.1.8,28,0.060,0.060,0.060,0.000,0.000,0.000
1644350994636033024,2022-02-08-20:09:54,10.1.1.8,28,0.050,0.050,0.050,0.000,0.000,0.000
1644350994734860032,2022-02-08-20:09:54,10.1.1.8,27,0.040,0.040,0.040,0.000,0.000,0.000
1644350994836261888,2022-02-08-20:09:54,10.1.1.8,27,0.030,0.030,0.030,0.000,0.000,0.000
1644350994934320896,2022-02-08-20:09:54,10.1.1.8,26,0.020,0.020,0.020,0.000,0.000,0.000
1644350995035257088,2022-02-08-20:09:55,10.1.1.8,25,0.010,0.010,0.010,0.000,0.000,0.000
1644350995134454016,2022-02-08-20:09:55,10.1.1.8,24,0.000,0.000,0.000,0.000,0.000,0.000
1644350995235801088,2022-02-08-20:09:55,10.1.1.8,23,-0.010,-0.010,-0.010,0.000,0.000,0.000
1644350995335369216,2022-02-08-20:09:55,10.1.1.8,23,-0.020,-0.020,-0.020,0.000,0.000,0.000
1644350995435659008,2022-02-08-20:09:55,10.1.1.8,21,-0.030,-0.030,-0.030,0.000,0.000,0.000
1644350995535528960,2022-02-08-20:09:55,10.1.1.8,20,-0.040,-0.040,-0.040,0.000,0.000,0.000
1644350995635602944,2022-02-08-20:09:55,10.1.1.8,19,-0.050,-0.050,-0.050,0.000,0.000,0.000
1644350995755117056,2022-02-08-20:09:55,10.1.1.8,38,-0.060,-0.060,-0.060,0.000,0.000,0.000
1644350995855501824,2022-02-08-20:09:55,10.1.1.8,37,-0.070,-0.070,-0.070,0.000,0.000,0.000
1644350995954785024,2022-02-08-20:09:55,10.1.1.8,36,-0.080,-0.080,-0.080,0.000,0.000,0.000
1644350996054654976,2022-02-08-20:09:56,10.1.1.8,34,-0.090,-0.090,-0.090,0.000,0.000,0.000
1644350996155080960,2022-02-08-20:09:56,10.1.1.8,34,-0.100,-0.100,-0.100,0.000,0.000,0.000
1644350996254828032,2022-02-08-20:09:56,10.1.1.8,33,-0.090,-0.090,-0.090,0.000,0.000,0.000
1644350996355211008,2022-02-08-20:09:56,10.1.1.8,33,-0.080,-0.080,-0.080,0.000,0.000,0.000
1644350996454898176,2022-02-08-20:09:56,10.1.1.8,31,-0.070,-0.070,-0.070,0.000,0.000,0.000
1644350996554553088,2022-02-08-20:09:56,10.1.1.8,30,-0.060,-0.060,-0.060,0.000,0.000,0.000
1644350996655549952,2022-02-08-20:09:56,10.1.1.8,29,-0.050,-0.050,-0.050,0.000,0.000,0.000
1644350996756463104,2022-02-08-20:09:56,10.1.1.8,28,-0.040,-0.040,-0.040,0.000,0.000,0.000
1644350996854554880,2022-02-08-20:09:56,10.1.1.8,28,-0.030,-0.030,-0.030,0.000,0.000,0.000
1644350996954960128,2022-02-08-20:09:56,10.1.1.8,27,-0.020,-0.020,-0.020,0.000,0.000,0.000
1644350997054919936,2022-02-08-20:09:57,10.1.1.8,27,-0.010,-0.010,-0.010,0.000,0.000,0.000
1644350997154737920,2022-02-08-20:09:57,10.1.1.8,26,0.000,0.000,0.000,0.000,0.000,0.000
1644350997257123072,2022-02-08-20:09:57,10.1.1.8,22,0.010,0.010,0.010,0.000,0.000,0.000
1644350997381015040,2022-02-08-20:09:57,10.1.1.8,36,0.020,0.020,0.020,0.000,0.000,0.000
1644350997475684864,2022-02-08-20:09:57,10.1.1.8,34,0.030,0.030,0.030,0.000,0.000,0.000
1644350997579773952,2022-02-08-20:09:57,10.1.1.8,33,0.040,0.040,0.040,0.000,0.000,0.000
1644350997676244992,2022-02-08-20:09:57,10.1.1.8,33,0.050,0.050,0.050,0.000,0.000,0.000
1644350997779716864,2022-02-08-20:09:57,10.1.1.8,31,0.060,0.060,0.060,0.000,0.000,0.000
1644350997879853056,2022-02-08-20:09:57,10.1.1.8,30,0.070,0.070,0.070,0.000,0.000,0.000
1644350997983661056,2022-02-08-20:09:57,10.1.1.8,29,0.080,0.080,0.080,0.000,0.000,0.000
1644350998077286912,2022-02-08-20:09:58,10.1.1.8,28,0.090,0.090,0.090,0.000,0.000,0.000
1644350998175746048,2022-02-08-20:09:58,10.1.1.8,28,0.100,0.100,0.100,0.000,0.000,0.000
1644350998274876160,2022-02-08-20:09:58,10.1.1.8,26,0.090,0.090,0.090,0.000,0.000,0.000
1644350998374800896,2022-02-08-20:09:58,10.1.1.8,26,0.080,0.080,0.080,0.000,0.000,0.000
1644350998475680000,2022-02-08-20:09:58,10.1.1.8,25,0.070,0.070,0.070,0.000,0.000,0.000
1644350998574801920,2022-02-08-20:09:58,10.1.1.8,24,0.060,0.060,0.060,0.000,0.000,0.000
1644350998676289024,2022-02-08-20:09:58,10.1.1.8,24,0.050,0.050,0.050,0.000,0.000,0.000
1644350998775129088,2022-02-08-20:09:58,10.1.1.8,23,0.040,0.040,0.040,0.000,0.000,0.000
1644350998994983936,2022-02-08-20:09:58,10.1.1.8,21,0.020,0.020,0.020,0.000,0.000,0.000
1644350999096461056,2022-02-08-20:09:59,10.1.1.8,21,0.010,0.010,0.010,0.000,0.000,0.000
1644350999195840000,2022-02-08-20:09:59,10.1.1.8,20,0.000,0.000,0.000,0.000,0.000,0.000
1644350999295026176,2022-02-08-20:09:59,10.1.1.8,20,-0.010,-0.010,-0.010,0.000,0.000,0.000
1644350999395085056,2022-02-08-20:09:59,10.1.1.8,19,-0.020,-0.020,-0.020,0.000,0.000,0.000
1644350999494308864,2022-02-08-20:09:59,10.1.1.8,18,-0.029,-0.029,-0.029,0.000,0.000,0.000
1644350999614226944,2022-02-08-20:09:59,10.1.1.8,38,-0.040,-0.040,-0.040,0.000,0.000,0.000
1644350999714708992,2022-02-08-20:09:59,10.1.1.8,37,-0.050,-0.050,-0.050,0.000,0.000,0.000
1644350999815169024,2022-02-08-20:09:59,10.1.1.8,37,-0.060,-0.060,-0.060,0.000,0.000,0.000
1644350999915107840,2022-02-08-20:09:59,10.1.1.8,36,-0.070,-0.070,-0.070,0.000,0.000,0.000
1644351000014610944,2022-02-08-20:10:00,10.1.1.8,35,-0.080,-0.080,-0.080,0.000,0.000,0.000
1644351000114206976,2022-02-08-20:10:00,10.1.1.8,35,-0.090,-0.090,-0.090,0.000,0.000,0.000
1644351000214621184,2022-02-08-20:10:00,10.1.1.8,34,-0.100,-0.100,-0.100,0.000,0.000,0.000
1644351000314672896,2022-02-08-20:10:00,10.1.1.8,34,-0.090,-0.090,-0.090,0.000,0.000,0.000
1644351000414482176,2022-02-08-20:10:00,10.1.1.8,33,-0.080,-0.080,-0.080,0.000,0.000,0.000
1644351000514615040,2022-02-08-20:10:00,10.1.1.8,33,-0.070,-0.070,-0.070,0.000,0.000,0.000
1644351000614695936,2022-02-08-20:10:00,10.1.1.8,32,-0.060,-0.060,-0.060,0.000,0.000,0.000
1644351000714497024,2022-02-08-20:10:00,10.1.1.8,30,-0.050,-0.050,-0.050,0.000,0.000,0.000
1644351000814179840,2022-02-08-20:10:00,10.1.1.8,22,-0.040,-0.040,-0.040,0.000,0.000,0.000
1644351000914696960,2022-02-08-20:10:00,10.1.1.8,19,-0.030,-0.030,-0.030,0.000,0.000,0.000
1644351001014707968,2022-02-08-20:10:01,10.1.1.8,19,-0.021,-0.021,-0.021,0.000,0.000,0.000
1644351001134552832,2022-02-08-20:10:01,10.1.1.8,38,-0.010,-0.010,-0.010,0.000,0.000,0.000
1644351001235153920,2022-02-08-20:10:01,10.1.1.8,38,0.000,0.000,0.000,0.000,0.000,0.000
1644351001335211008,2022-02-08-20:10:01,10.1.1.8,37,0.010,0.010,0.010,0.000,0.000,0.000
1644351001434205952,2022-02-08-20:10:01,10.1.1.8,37,0.020,0.020,0.020,0.000,0.000,0.000
1644351001534682880,2022-02-08-20:10:01,10.1.1.8,36,0.030,0.030,0.030,0.000,0.000,0.000
1644351001634649088,2022-02-08-20:10:01,10.1.1.8,35,0.040,0.040,0.040,0.000,0.000,0.000
1644351001734283008,2022-02-08-20:10:01,10.1.1.8,35,0.050,0.050,0.050,0.000,0.000,0.000
1644351001835723008,2022-02-08-20:10:01,10.1.1.8,35,0.060,0.060,0.060,0.000,0.000,0.000
1644351001934694912,2022-02-08-20:10:01,10.1.1.8,34,0.070,0.070,0.070,0.000,0.000,0.000
1644351002034518016,2022-02-08-20:10:02,10.1.1.8,34,0.080,0.080,0.080,0.000,0.000,0.000
1644351002134804992,2022-02-08-20:10:02,10.1.1.8,33,0.090,0.090,0.090,0.000,0.000,0.000
1644351002234339840,2022-02-08-20:10:02,10.1.1.8,32,0.100,0.100,0.100,0.000,0.000,0.000
1644351002334952192,2022-02-08-20:10:02,10.1.1.8,32,0.090,0.090,0.090,0.000,0.000,0.000
1644351002439057152,2022-02-08-20:10:02,10.1.1.8,31,0.080,0.080,0.080,0.000,0.000,0.000
1644351002554650112,2022-02-08-20:10:02,10.1.1.8,31,0.070,0.070,0.070,0.000,0.000,0.000
1644351002654874112,2022-02-08-20:10:02,10.1.1.8,30,0.060,0.060,0.060,0.000,0.000,0.000
1644351002755033088,2022-02-08-20:10:02,10.1.1.8,30,0.050,0.050,0.050,0.000,0.000,0.000
1644351002854840064,2022-02-08-20:10:02,10.1.1.8,29,0.040,0.040,0.040,0.000,0.000,0.000
1644351002954459904,2022-02-08-20:10:02,10.1.1.8,28,0.030,0.030,0.030,0.000,0.000,0.000
1644351003054398976,2022-02-08-20:10:03,10.1.1.8,28,0.020,0.020,0.020,0.000,0.000,0.000
1644351003154696960,2022-02-08-20:10:03,10.1.1.8,28,0.010,0.010,0.010,0.000,0.000,0.000
1644351003254836992,2022-02-08-20:10:03,10.1.1.8,27,0.000,0.000,0.000,0.000,0.000,0.000
1644351003355300864,2022-02-08-20:10:03,10.1.1.8,27,-0.010,-0.010,-0.010,0.000,0.000,0.000
1644351003454916096,2022-02-08-20:10:03,10.1.1.8,26,-0.020,-0.020,-0.020,0.000,0.000,0.000
1644351003556668928,2022-02-08-20:10:03,10.1.1.8,24,-0.030,-0.030,-0.030,0.000,0.000,0.000
1644351003654678016,2022-02-08-20:10:03,10.1.1.8,23,-0.040,-0.040,-0.040,0.000,0.000,0.000
1644351003754903040,2022-02-08-20:10:03,10.1.1.8,23,-0.050,-0.050,-0.050,0.000,0.000,0.000
1644351003854935808,2022-02-08-20:10:03,10.1.1.8,22,-0.060,-0.060,-0.060,0.000,0.000,0.000
1644351003954583040,2022-02-08-20:10:03,10.1.1.8,22,-0.070,-0.070,-0.070,0.000,0.000,0.000
1644351004055005184,2022-02-08-20:10:04,10.1.1.8,21,-0.080,-0.080,-0.080,0.000,0.000,0.000
1644351004154664960,2022-02-08-20:10:04,10.1.1.8,20,-0.090,-0.090,-0.090,0.000,0.000,0.000
1644351004254290944,2022-02-08-20:10:04,10.1.1.8,20,-0.100,-0.100,-0.100,0.000,0.000,0.000
1644351004354441984,2022-02-08-20:10:04,10.1.1.8,20,-0.090,-0.090,-0.090,0.000,0.000,0.000
1644351004454462976,2022-02-08-20:10:04,10.1.1.8,19,-0.081,-0.081,-0.081,0.000,0.000,0.000
1644351004574373888,2022-02-08-20:10:04,10.1.1.8,38,-0.070,-0.070,-0.070,0.000,0.000,0.000
1644351004674482176,2022-02-08-20:10:04,10.1.1.8,38,-0.060,-0.060,-0.060,0.000,0.000,0.000
1644351004774276864,2022-02-08-20:10:04,10.1.1.8,37,-0.050,-0.050,-0.050,0.000,0.000,0.000
1644351004874897920,2022-02-08-20:10:04,10.1.1.8,37,-0.040,-0.040,-0.040,0.000,0.000,0.000
1644351004974221056,2022-02-08-20:10:04,10.1.1.8,36,-0.030,-0.030,-0.030,0.000,0.000,0.000
1644351005074539008,2022-02-08-20:10:05,10.1.1.8,36,-0.020,-0.020,-0.020,0.000,0.000,0.000
1644351005179302912,2022-02-08-20:10:05,10.1.1.8,35,-0.010,-0.010,-0.010,0.000,0.000,0.000
1644351005275197952,2022-02-08-20:10:05,10.1.1.8,30,0.000,0.000,0.000,0.000,0.000,0.000
1644351005375358208,2022-02-08-20:10:05,10.1.1.8,29,0.010,0.010,0.010,0.000,0.000,0.000
1644351005475563008,2022-02-08-20:10:05,10.1.1.8,28,0.020,0.020,0.020,0.000,0.000,0.000
1644351005576248832,2022-02-08-20:10:05,10.1.1.8,28,0.030,0.030,0.030,0.000,0.000,0.000
1644351005674675968,2022-02-08-20:10:05,10.1.1.8,27,0.040,0.040,0.040,0.000,0.000,0.000
1644351005774889984,2022-02-08-20:10:05,10.1.1.8,27,0.050,0.050,0.050,0.000,0.000,0.000
1644351005874526976,2022-02-08-20:10:05,10.1.1.8,26,0.060,0.060,0.060,0.000,0.000,0.000
1644351005974503168,2022-02-08-20:10:05,10.1.1.8,26,0.070,0.070,0.070,0.000,0.000,0.000
1644351006074834176,2022-02-08-20:10:06,10.1.1.8,25,0.080,0.080,0.080,0.000,0.000,0.000
1644351006174871808,2022-02-08-20:10:06,10.1.1.8,25,0.090,0.090,0.090,0.000,0.000,0.000
1644351006274959104,2022-02-08-20:10:06,10.1.1.8,24,0.100,0.100,0.100,0.000,0.000,0.000
1644351006375022848,2022-02-08-20:10:06,10.1.1.8,24,0.090,0.090,0.090,0.000,0.000,0.000
1644351006474871040,2022-02-08-20:10:06,10.1.1.8,23,0.080,0.080,0.080,0.000,0.000,0.000
1644351006574807808,2022-02-08-20:10:06,10.1.1.8,23,0.070,0.070,0.070,0.000,0.000,0.000
1644351006675187968,2022-02-08-20:10:06,10.1.1.8,22,0.060,0.060,0.060,0.000,0.000,0.000
1644351006774903040,2022-02-08-20:10:06,10.1.1.8,22,0.050,0.050,0.050,0.000,0.000,0.000
1644351006875081984,2022-02-08-20:10:06,10.1.1.8,22,0.040,0.040,0.040,0.000,0.000,0.000
1644351006974925056,2022-02-08-20:10:06,10.1.1.8,20,0.030,0.030,0.030,0.000,0.000,0.000
1644351007094650880,2022-02-08-20:10:07,10.1.1.8,37,0.020,0.020,0.020,0.000,0.000,0.000
1644351007195286016,2022-02-08-20:10:07,10.1.1.8,36,0.010,0.010,0.010,0.000,0.000,0.000
1644351007294832896,2022-02-08-20:10:07,10.1.1.8,36,0.000,0.000,0.000,0.000,0.000,0.000
1644351007394823936,2022-02-08-20:10:07,10.1.1.8,35,-0.010,-0.010,-0.010,0.000,0.000,0.000
1644351007494795008,2022-02-08-20:10:07,10.1.1.8,35,-0.020,-0.020,-0.020,0.000,0.000,0.000
1644351007594661120,2022-02-08-20:10:07,10.1.1.8,34,-0.030,-0.030,-0.030,0.000,0.000,0.000
1644351007694520064,2022-02-08-20:10:07,10.1.1.8,33,-0.040,-0.040,-0.040,0.000,0.000,0.000
1644351007795984128,2022-02-08-20:10:07,10.1.1.8,33,-0.050,-0.050,-0.050,0.000,0.000,0.000
1644351007894257152,2022-02-08-20:10:07,10.1.1.8,32,-0.060,-0.060,-0.060,0.000,0.000,0.000
1644351007994749184,2022-02-08-20:10:07,10.1.1.8,31,-0.070,-0.070,-0.070,0.000,0.000,0.000
1644351008095464960,2022-02-08-20:10:08,10.1.1.8,30,-0.080,-0.080,-0.080,0.000,0.000,0.000
1644351008194971136,2022-02-08-20:10:08,10.1.1.8,29,-0.090,-0.090,-0.090,0.000,0.000,0.000
1644351008294870016,2022-02-08-20:10:08,10.1.1.8,29,-0.100,-0.100,-0.100,0.000,0.000,0.000
1644351008394774016,2022-02-08-20:10:08,10.1.1.8,29,-0.090,-0.090,-0.090,0.000,0.000,0.000
1644351008495059968,2022-02-08-20:10:08,10.1.1.8,28,-0.080,-0.080,-0.080,0.000,0.000,0.000
1644351008595212032,2022-02-08-20:10:08,10.1.1.8,27,-0.070,-0.070,-0.070,0.000,0.000,0.000
1644351008702596864,2022-02-08-20:10:08,10.1.1.8,27,-0.060,-0.060,-0.060,0.000,0.000,0.000
1644351008795377920,2022-02-08-20:10:08,10.1.1.8,26,-0.050,-0.050,-0.050,0.000,0.000,0.000
1644351008895548160,2022-02-08-20:10:08,10.1.1.8,26,-0.040,-0.040,-0.040,0.000,0.000,0.000
1644351008996242944,2022-02-08-20:10:08,10.1.1.8,25,-0.030,-0.030,-0.030,0.000,0.000,0.000
1644351009114640896,2022-02-08-20:10:09,10.1.1.8,23,-0.020,-0.020,-0.020,0.000,0.000,0.000
1644351009194515968,2022-02-08-20:10:09,10.1.1.8,19,-0.011,-0.011,-0.011,0.000,0.000,0.000
1644351009314343936,2022-02-08-20:10:09,10.1.1.8,38,0.000,0.000,0.000,0.000,0.000,0.000
1644351009414192896,2022-02-08-20:10:09,10.1.1.8,38,0.010,0.010,0.010,0.000,0.000,0.000
1644351009515625984,2022-02-08-20:10:09,10.1.1.8,37,0.020,0.020,0.020,0.000,0.000,0.000
1644351009614178816,2022-02-08-20:10:09,10.1.1.8,36,0.030,0.030,0.030,0.000,0.000,0.000
1644351009714910976,2022-02-08-20:10:09,10.1.1.8,36,0.040,0.040,0.040,0.000,0.000,0.000
1644351009815643904,2022-02-08-20:10:09,10.1.1.8,33,0.050,0.050,0.050,0.000,0.000,0.000
1644351009914408960,2022-02-08-20:10:09,10.1.1.8,32,0.060,0.060,0.060,0.000,0.000,0.000
1644351010014501120,2022-02-08-20:10:10,10.1.1.8,32,0.070,0.070,0.070,0.000,0.000,0.000
1644351010114520064,2022-02-08-20:10:10,10.1.1.8,31,0.080,0.080,0.080,0.000,0.000,0.000
1644351010215169792,2022-02-08-20:10:10,10.1.1.8,31,0.090,0.090,0.090,0.000,0.000,0.000
1644351010314340096,2022-02-08-20:10:10,10.1.1.8,30,0.100,0.100,0.100,0.000,0.000,0.000
1644351010414621184,2022-02-08-20:10:10,10.1.1.8,30,0.090,0.090,0.090,0.000,0.000,0.000
1644351010514691072,2022-02-08-20:10:10,10.1.1.8,29,0.080,0.080,0.080,0.000,0.000,0.000
1644351010614740992,2022-02-08-20:10:10,10.1.1.8,28,0.070,0.070,0.070,0.000,0.000,0.000
1644351010714784000,2022-02-08-20:10:10,10.1.1.8,27,0.060,0.060,0.060,0.000,0.000,0.000
1644351010814857984,2022-02-08-20:10:10,10.1.1.8,25,0.050,0.050,0.050,0.000,0.000,0.000
1644351010915371008,2022-02-08-20:10:10,10.1.1.8,25,0.040,0.040,0.040,0.000,0.000,0.000
1644351011019175936,2022-02-08-20:10:11,10.1.1.8,25,0.030,0.030,0.030,0.000,0.000,0.000
1644351011114710016,2022-02-08-20:10:11,10.1.1.8,23,0.020,0.020,0.020,0.000,0.000,0.000
1644351011215194880,2022-02-08-20:10:11,10.1.1.8,23,0.010,0.010,0.010,0.000,0.000,0.000
1644351011315654912,2022-02-08-20:10:11,10.1.1.8,22,0.000,0.000,0.000,0.000,0.000,0.000
1644351011415266048,2022-02-08-20:10:11,10.1.1.8,22,-0.010,-0.010,-0.010,0.000,0.000,0.000
1644351011514851072,2022-02-08-20:10:11,10.1.1.8,20,-0.020,-0.020,-0.020,0.000,0.000,0.000
1644351011614950912,2022-02-08-20:10:11,10.1.1.8,19,-0.030,-0.030,-0.030,0.000,0.000,0.000
1644351011715353088,2022-02-08-20:10:11,10.1.1.8,19,-0.039,-0.039,-0.039,0.000,0.000,0.000
1644351011815341056,2022-02-08-20:10:11,10.1.1.8,19,-0.049,-0.049,-0.049,0.000,0.000,0.000
1644351011935408128,2022-02-08-20:10:11,10.1.1.8,38,-0.060,-0.060,-0.060,0.000,0.000,0.000
1644351012035118080,2022-02-08-20:10:12,10.1.1.8,37,-0.070,-0.070,-0.070,0.000,0.000,0.000
1644351012135611136,2022-02-08-20:10:12,10.1.1.8,37,-0.080,-0.080,-0.080,0.000,0.000,0.000
1644351012234566912,2022-02-08-20:10:12,10.1.1.8,35,-0.090,-0.090,-0.090,0.000,0.000,0.000
1644351012334799104,2022-02-08-20:10:12,10.1.1.8,35,-0.100,-0.100,-0.100,0.000,0.000,0.000
1644351012435040000,2022-02-08-20:10:12,10.1.1.8,34,-0.090,-0.090,-0.090,0.000,0.000,0.000
1644351012535070976,2022-02-08-20:10:12,10.1.1.8,33,-0.080,-0.080,-0.080,0.000,0.000,0.000
1644351012635111936,2022-02-08-20:10:12,10.1.1.8,33,-0.070,-0.070,-0.070,0.000,0.000,0.000
1644351012735212032,2022-02-08-20:10:12,10.1.1.8,32,-0.060,-0.060,-0.060,0.000,0.000,0.000
1644351012834240000,2022-02-08-20:10:12,10.1.1.8,32,-0.050,-0.050,-0.050,0.000,0.000,0.000
1644351012934676992,2022-02-08-20:10:12,10.1.1.8,32,-0.040,-0.040,-0.040,0.000,0.000,0.000
1644351013035521024,2022-02-08-20:10:13,10.1.1.8,31,-0.030,-0.030,-0.030,0.000,0.000,0.000
1644351013135435008,2022-02-08-20:10:13,10.1.1.8,31,-0.020,-0.020,-0.020,0.000,0.000,0.000
1644351013235883008,2022-02-08-20:10:13,10.1.1.8,29,-0.010,-0.010,-0.010,0.000,0.000,0.000
1644351013336185088,2022-02-08-20:10:13,10.1.1.8,28,0.000,0.000,0.000,0.000,0.000,0.000
1644351013435823872,2022-02-08-20:10:13,10.1.1.8,27,0.010,0.010,0.010,0.000,0.000,0.000
1644351013535571200,2022-02-08-20:10:13,10.1.1.8,27,0.020,0.020,0.020,0.000,0.000,0.000
1644351013636370944,2022-02-08-20:10:13,10.1.1.8,27,0.030,0.030,0.030,0.000,0.000,0.000
1644351013735420928,2022-02-08-20:10:13,10.1.1.8,27,0.040,0.040,0.040,0.000,0.000,0.000
1644351013835900928,2022-02-08-20:10:13,10.1.1.8,25,0.050,0.050,0.050,0.000,0.000,0.000
1644351013936527872,2022-02-08-20:10:13,10.1.1.8,25,0.060,0.060,0.060,0.000,0.000,0.000
1644351014035835136,2022-02-08-20:10:14,10.1.1.8,24,0.070,0.070,0.070,0.000,0.000,0.000
1644351014135084032,2022-02-08-20:10:14,10.1.1.8,24,0.080,0.080,0.080,0.000,0.000,0.000
1644351014235784960,2022-02-08-20:10:14,10.1.1.8,23,0.090,0.090,0.090,0.000,0.000,0.000
1644351014335616000,2022-02-08-20:10:14,10.1.1.8,23,0.100,0.100,0.100,0.000,0.000,0.000
1644351014436011008,2022-02-08-20:10:14,10.1.1.8,22,0.090,0.090,0.090,0.000,0.000,0.000
1644351014535319040,2022-02-08-20:10:14,10.1.1.8,22,0.080,0.080,0.080,0.000,0.000,0.000
1644351014636212224,2022-02-08-20:10:14,10.1.1.8,21,0.070,0.070,0.070,0.000,0.000,0.000
1644351014735235072,2022-02-08-20:10:14,10.1.1.8,20,0.060,0.060,0.060,0.000,0.000,0.000
1644351014835074816,2022-02-08-20:10:14,10.1.1.8,20,0.050,0.050,0.050,0.000,0.000,0.000
1644351014935067904,2022-02-08-20:10:14,10.1.1.8,19,0.040,0.040,0.040,0.000,0.000,0.000
1644351015055000064,2022-02-08-20:10:15,10.1.1.8,38,0.030,0.030,0.030,0.000,0.000,0.000
1644351015155698176,2022-02-08-20:10:15,10.1.1.8,37,0.020,0.020,0.020,0.000,0.000,0.000
1644351015255808000,2022-02-08-20:10:15,10.1.1.8,37,0.010,0.010,0.010,0.000,0.000,0.000
1644351015355844864,2022-02-08-20:10:15,10.1.1.8,36,0.000,0.000,0.000,0.000,0.000,0.000
