FedericoMungari/DigitalTwin_service/01_WiredScenario/Output/Output_script/script_rosapi_2_output_robots8_freq0_1.txt
timestamp,date,node,latency,joint_1,joint_2,joint_3,joint_4,joint_5,joint_6
1644350895057179904,2022-02-08-20:08:15,10.1.1.2,-5,-0.100,-0.100,-0.100,-0.000,0.000,0.000
1644350895197190912,2022-02-08-20:08:15,10.1.1.2,34,-0.090,-0.090,-0.090,0.000,0.000,0.000
1644350895297583104,2022-02-08-20:08:15,10.1.1.2,34,-0.080,-0.080,-0.080,0.000,0.000,0.000
1644350895396339968,2022-02-08-20:08:15,10.1.1.2,32,-0.070,-0.070,-0.070,0.000,0.000,0.000
1644350895496875008,2022-02-08-20:08:15,10.1.1.2,31,-0.060,-0.060,-0.060,0.000,0.000,0.000
1644350895596672000,2022-02-08-20:08:15,10.1.1.2,31,-0.050,-0.050,-0.050,0.000,0.000,0.000
1644350895696973056,2022-02-08-20:08:15,10.1.1.2,30,-0.040,-0.040,-0.040,0.000,0.000,0.000
1644350895797555968,2022-02-08-20:08:15,10.1.1.2,29,-0.030,-0.030,-0.030,0.000,0.000,0.000
1644350895898277120,2022-02-08-20:08:15,10.1.1.2,27,-0.020,-0.020,-0.020,0.000,0.000,0.000
1644350895996259072,2022-02-08-20:08:15,10.1.1.2,27,-0.010,-0.010,-0.010,0.000,0.000,0.000
1644350896096916992,2022-02-08-20:08:16,10.1.1.2,26,0.000,0.000,0.000,0.000,0.000,0.000
1644350896196708864,2022-02-08-20:08:16,10.1.1.2,24,0.010,0.010,0.010,0.000,0.000,0.000
1644350896296569088,2022-02-08-20:08:16,10.1.1.2,23,0.020,0.020,0.020,0.000,0.000,0.000
1644350896399891968,2022-02-08-20:08:16,10.1.1.2,21,0.030,0.030,0.030,0.000,0.000,0.000
1644350896497396992,2022-02-08-20:08:16,10.1.1.2,20,0.040,0.040,0.040,0.000,0.000,0.000
1644350896598587136,2022-02-08-20:08:16,10.1.1.2,19,0.050,0.050,0.050,0.000,0.000,0.000
1644350896717276160,2022-02-08-20:08:16,10.1.1.2,38,0.060,0.060,0.060,0.000,0.000,0.000
1644350896816940032,2022-02-08-20:08:16,10.1.1.2,38,0.070,0.070,0.070,0.000,0.000,0.000
1644350896917731072,2022-02-08-20:08:16,10.1.1.2,37,0.080,0.080,0.080,0.000,0.000,0.000
1644350897006758912,2022-02-08-20:08:17,10.1.1.2,26,0.090,0.090,0.090,0.000,0.000,0.000
1644350897128633088,2022-02-08-20:08:17,10.1.1.2,45,0.100,0.100,0.100,0.000,0.000,0.000
1644350897217139968,2022-02-08-20:08:17,10.1.1.2,34,0.090,0.090,0.090,0.000,0.000,0.000
1644350897320645120,2022-02-08-20:08:17,10.1.1.2,33,0.080,0.080,0.080,0.000,0.000,0.000
1644350897416621824,2022-02-08-20:08:17,10.1.1.2,32,0.070,0.070,0.070,0.000,0.000,0.000
1644350897517091072,2022-02-08-20:08:17,10.1.1.2,31,0.060,0.060,0.060,0.000,0.000,0.000
1644350897626722048,2022-02-08-20:08:17,10.1.1.2,40,0.050,0.050,0.050,0.000,0.000,0.000
1644350897717309952,2022-02-08-20:08:17,10.1.1.2,30,0.040,0.040,0.040,0.000,0.000,0.000
1644350897818298112,2022-02-08-20:08:17,10.1.1.2,29,0.030,0.030,0.030,0.000,0.000,0.000
1644350897919514880,2022-02-08-20:08:17,10.1.1.2,20,0.020,0.020,0.020,0.000,0.000,0.000
1644350898017363968,2022-02-08-20:08:18,10.1.1.2,20,0.010,0.010,0.010,0.000,0.000,0.000
1644350898119770880,2022-02-08-20:08:18,10.1.1.2,19,0.000,0.000,0.000,0.000,0.000,0.000
1644350898236903936,2022-02-08-20:08:18,10.1.1.2,37,-0.010,-0.010,-0.010,0.000,0.000,0.000
1644350898337467904,2022-02-08-20:08:18,10.1.1.2,36,-0.020,-0.020,-0.020,0.000,0.000,0.000
1644350898437957888,2022-02-08-20:08:18,10.1.1.2,35,-0.030,-0.030,-0.030,0.000,0.000,0.000
1644350898538934016,2022-02-08-20:08:18,10.1.1.2,34,-0.040,-0.040,-0.040,0.000,0.000,0.000
1644350898628926976,2022-02-08-20:08:18,10.1.1.2,23,-0.050,-0.050,-0.050,0.000,0.000,0.000
1644350898747469056,2022-02-08-20:08:18,10.1.1.2,43,-0.060,-0.060,-0.060,0.000,0.000,0.000
1644350898847696128,2022-02-08-20:08:18,10.1.1.2,42,-0.070,-0.070,-0.070,0.000,0.000,0.000
1644350898927651840,2022-02-08-20:08:18,10.1.1.2,20,-0.080,-0.080,-0.080,0.000,0.000,0.000
1644350899037161216,2022-02-08-20:08:19,10.1.1.2,30,-0.090,-0.090,-0.090,0.000,0.000,0.000
1644350899137372928,2022-02-08-20:08:19,10.1.1.2,29,-0.100,-0.100,-0.100,0.000,0.000,0.000
1644350899236235008,2022-02-08-20:08:19,10.1.1.2,28,-0.090,-0.090,-0.090,0.000,0.000,0.000
1644350899337534976,2022-02-08-20:08:19,10.1.1.2,27,-0.080,-0.080,-0.080,0.000,0.000,0.000
1644350899437323008,2022-02-08-20:08:19,10.1.1.2,27,-0.070,-0.070,-0.070,0.000,0.000,0.000
1644350899537505024,2022-02-08-20:08:19,10.1.1.2,26,-0.060,-0.060,-0.060,0.000,0.000,0.000
1644350899639512064,2022-02-08-20:08:19,10.1.1.2,26,-0.050,-0.050,-0.050,0.000,0.000,0.000
1644350899738120960,2022-02-08-20:08:19,10.1.1.2,25,-0.040,-0.040,-0.040,0.000,0.000,0.000
1644350899843284992,2022-02-08-20:08:19,10.1.1.2,23,-0.030,-0.030,-0.030,0.000,0.000,0.000
1644350899948719104,2022-02-08-20:08:19,10.1.1.2,33,-0.020,-0.020,-0.020,0.000,0.000,0.000
1644350900047867904,2022-02-08-20:08:20,10.1.1.2,32,-0.010,-0.010,-0.010,0.000,0.000,0.000
1644350900139354880,2022-02-08-20:08:20,10.1.1.2,22,0.000,0.000,0.000,0.000,0.000,0.000
1644350900237870848,2022-02-08-20:08:20,10.1.1.2,21,0.010,0.010,0.010,0.000,0.000,0.000
1644350900336996096,2022-02-08-20:08:20,10.1.1.2,21,0.020,0.020,0.020,0.000,0.000,0.000
1644350900436451072,2022-02-08-20:08:20,10.1.1.2,20,0.030,0.030,0.030,0.000,0.000,0.000
1644350900536873216,2022-02-08-20:08:20,10.1.1.2,19,0.040,0.040,0.040,0.000,0.000,0.000
1644350900636267008,2022-02-08-20:08:20,10.1.1.2,19,0.049,0.049,0.049,0.000,0.000,0.000
1644350900756272128,2022-02-08-20:08:20,10.1.1.2,38,0.060,0.060,0.060,0.000,0.000,0.000
1644350900848190976,2022-02-08-20:08:20,10.1.1.2,28,0.070,0.070,0.070,0.000,0.000,0.000
1644350900956585984,2022-02-08-20:08:20,10.1.1.2,37,0.080,0.080,0.080,0.000,0.000,0.000
1644350901067433216,2022-02-08-20:08:21,10.1.1.2,47,0.090,0.090,0.090,0.000,0.000,0.000
1644350901157639936,2022-02-08-20:08:21,10.1.1.2,34,0.100,0.100,0.100,0.000,0.000,0.000
1644350901257012992,2022-02-08-20:08:21,10.1.1.2,33,0.090,0.090,0.090,0.000,0.000,0.000
1644350901357309952,2022-02-08-20:08:21,10.1.1.2,31,0.080,0.080,0.080,0.000,0.000,0.000
1644350901456891904,2022-02-08-20:08:21,10.1.1.2,31,0.070,0.070,0.070,0.000,0.000,0.000
1644350901557302016,2022-02-08-20:08:21,10.1.1.2,24,0.060,0.060,0.060,0.000,0.000,0.000
1644350901657680896,2022-02-08-20:08:21,10.1.1.2,23,0.050,0.050,0.050,0.000,0.000,0.000
1644350901780777984,2022-02-08-20:08:21,10.1.1.2,22,0.040,0.040,0.040,0.000,0.000,0.000
1644350901871726080,2022-02-08-20:08:21,10.1.1.2,31,0.030,0.030,0.030,0.000,0.000,0.000
1644350902078691840,2022-02-08-20:08:22,10.1.1.2,21,0.010,0.010,0.010,0.000,0.000,0.000
1644350902191348992,2022-02-08-20:08:22,10.1.1.2,30,-0.000,-0.000,-0.000,0.000,0.000,0.000
1644350902284356096,2022-02-08-20:08:22,10.1.1.2,29,-0.010,-0.010,-0.010,0.000,0.000,0.000
1644350902388225024,2022-02-08-20:08:22,10.1.1.2,31,-0.020,-0.020,-0.020,0.000,0.000,0.000
1644350902476818944,2022-02-08-20:08:22,10.1.1.2,20,-0.030,-0.030,-0.030,0.000,0.000,0.000
1644350902576978944,2022-02-08-20:08:22,10.1.1.2,20,-0.040,-0.040,-0.040,0.000,0.000,0.000
1644350902677566976,2022-02-08-20:08:22,10.1.1.2,19,-0.049,-0.049,-0.049,0.000,0.000,0.000
1644350902796505088,2022-02-08-20:08:22,10.1.1.2,38,-0.060,-0.060,-0.060,0.000,0.000,0.000
1644350902896270080,2022-02-08-20:08:22,10.1.1.2,38,-0.070,-0.070,-0.070,0.000,0.000,0.000
1644350903006486016,2022-02-08-20:08:23,10.1.1.2,47,-0.080,-0.080,-0.080,0.000,0.000,0.000
1644350903086332928,2022-02-08-20:08:23,10.1.1.2,26,-0.090,-0.090,-0.090,0.000,0.000,0.000
1644350903197010944,2022-02-08-20:08:23,10.1.1.2,35,-0.100,-0.100,-0.100,0.000,0.000,0.000
1644350903296564224,2022-02-08-20:08:23,10.1.1.2,35,-0.090,-0.090,-0.090,0.000,0.000,0.000
1644350903387005184,2022-02-08-20:08:23,10.1.1.2,25,-0.080,-0.080,-0.080,0.000,0.000,0.000
1644350903496627968,2022-02-08-20:08:23,10.1.1.2,34,-0.070,-0.070,-0.070,0.000,0.000,0.000
1644350903597448192,2022-02-08-20:08:23,10.1.1.2,33,-0.060,-0.060,-0.060,0.000,0.000,0.000
1644350903696046080,2022-02-08-20:08:23,10.1.1.2,32,-0.050,-0.050,-0.050,0.000,0.000,0.000
1644350903786984960,2022-02-08-20:08:23,10.1.1.2,21,-0.040,-0.040,-0.040,0.000,0.000,0.000
1644350903887278080,2022-02-08-20:08:23,10.1.1.2,21,-0.030,-0.030,-0.030,0.000,0.000,0.000
1644350904006648064,2022-02-08-20:08:24,10.1.1.2,40,-0.020,-0.020,-0.020,0.000,0.000,0.000
1644350904087019008,2022-02-08-20:08:24,10.1.1.2,20,-0.010,-0.010,-0.010,0.000,0.000,0.000
1644350904196381952,2022-02-08-20:08:24,10.1.1.2,29,0.000,0.000,0.000,0.000,0.000,0.000
1644350904296004096,2022-02-08-20:08:24,10.1.1.2,28,0.010,0.010,0.010,0.000,0.000,0.000
1644350904396267776,2022-02-08-20:08:24,10.1.1.2,28,0.020,0.020,0.020,0.000,0.000,0.000
1644350904496393984,2022-02-08-20:08:24,10.1.1.2,27,0.030,0.030,0.030,0.000,0.000,0.000
1644350904596539136,2022-02-08-20:08:24,10.1.1.2,27,0.040,0.040,0.040,0.000,0.000,0.000
1644350904696182016,2022-02-08-20:08:24,10.1.1.2,27,0.050,0.050,0.050,0.000,0.000,0.000
1644350904796417024,2022-02-08-20:08:24,10.1.1.2,25,0.060,0.060,0.060,0.000,0.000,0.000
1644350904896310016,2022-02-08-20:08:24,10.1.1.2,24,0.070,0.070,0.070,0.000,0.000,0.000
1644350905007191808,2022-02-08-20:08:25,10.1.1.2,34,0.080,0.080,0.080,0.000,0.000,0.000
1644350905138948864,2022-02-08-20:08:25,10.1.1.2,27,0.090,0.090,0.090,0.000,0.000,0.000
1644350905215995136,2022-02-08-20:08:25,10.1.1.2,27,0.100,0.100,0.100,0.000,0.000,0.000
1644350905317332992,2022-02-08-20:08:25,10.1.1.2,26,0.090,0.090,0.090,0.000,0.000,0.000
1644350905433268992,2022-02-08-20:08:25,10.1.1.2,34,0.080,0.080,0.080,0.000,0.000,0.000
1644350905517252096,2022-02-08-20:08:25,10.1.1.2,23,0.070,0.070,0.070,0.000,0.000,0.000
1644350905627392000,2022-02-08-20:08:25,10.1.1.2,33,0.060,0.060,0.060,0.000,0.000,0.000
1644350905732530944,2022-02-08-20:08:25,10.1.1.2,22,0.050,0.050,0.050,0.000,0.000,0.000
1644350905817317120,2022-02-08-20:08:25,10.1.1.2,21,0.040,0.040,0.040,0.000,0.000,0.000
1644350905916632832,2022-02-08-20:08:25,10.1.1.2,20,0.030,0.030,0.030,0.000,0.000,0.000
1644350906016200960,2022-02-08-20:08:26,10.1.1.2,19,0.021,0.021,0.021,0.000,0.000,0.000
1644350906127535104,2022-02-08-20:08:26,10.1.1.2,28,0.010,0.010,0.010,0.000,0.000,0.000
1644350906236887808,2022-02-08-20:08:26,10.1.1.2,38,0.000,0.000,0.000,0.000,0.000,0.000
1644350906337281024,2022-02-08-20:08:26,10.1.1.2,37,-0.010,-0.010,-0.010,0.000,0.000,0.000
1644350906437329152,2022-02-08-20:08:26,10.1.1.2,37,-0.020,-0.020,-0.020,0.000,0.000,0.000
1644350906536550912,2022-02-08-20:08:26,10.1.1.2,36,-0.030,-0.030,-0.030,0.000,0.000,0.000
1644350906646276096,2022-02-08-20:08:26,10.1.1.2,45,-0.040,-0.040,-0.040,0.000,0.000,0.000
1644350906726408960,2022-02-08-20:08:26,10.1.1.2,25,-0.050,-0.050,-0.050,0.000,0.000,0.000
1644350906828568064,2022-02-08-20:08:26,10.1.1.2,24,-0.060,-0.060,-0.060,0.000,0.000,0.000
1644350906926460928,2022-02-08-20:08:26,10.1.1.2,24,-0.070,-0.070,-0.070,0.000,0.000,0.000
1644350907037076992,2022-02-08-20:08:27,10.1.1.2,26,-0.080,-0.080,-0.080,0.000,0.000,0.000
1644350907139875840,2022-02-08-20:08:27,10.1.1.2,24,-0.090,-0.090,-0.090,0.000,0.000,0.000
1644350907238059008,2022-02-08-20:08:27,10.1.1.2,23,-0.100,-0.100,-0.100,0.000,0.000,0.000
1644350907347058176,2022-02-08-20:08:27,10.1.1.2,32,-0.090,-0.090,-0.090,0.000,0.000,0.000
1644350907437309952,2022-02-08-20:08:27,10.1.1.2,22,-0.080,-0.080,-0.080,0.000,0.000,0.000
1644350907536727040,2022-02-08-20:08:27,10.1.1.2,22,-0.070,-0.070,-0.070,0.000,0.000,0.000
1644350907637190144,2022-02-08-20:08:27,10.1.1.2,19,-0.060,-0.060,-0.060,0.000,0.000,0.000
1644350907767246080,2022-02-08-20:08:27,10.1.1.2,48,-0.050,-0.050,-0.050,0.000,0.000,0.000
1644350907847657984,2022-02-08-20:08:27,10.1.1.2,27,-0.040,-0.040,-0.040,0.000,0.000,0.000
1644350907956676864,2022-02-08-20:08:27,10.1.1.2,37,-0.030,-0.030,-0.030,0.000,0.000,0.000
1644350908066230016,2022-02-08-20:08:28,10.1.1.2,46,-0.020,-0.020,-0.020,0.000,0.000,0.000
1644350908167320064,2022-02-08-20:08:28,10.1.1.2,45,-0.010,-0.010,-0.010,0.000,0.000,0.000
1644350908248045056,2022-02-08-20:08:28,10.1.1.2,25,0.000,0.000,0.000,0.000,0.000,0.000
1644350908357201152,2022-02-08-20:08:28,10.1.1.2,34,0.010,0.010,0.010,0.000,0.000,0.000
1644350908455961856,2022-02-08-20:08:28,10.1.1.2,33,0.020,0.020,0.020,0.000,0.000,0.000
1644350908546510080,2022-02-08-20:08:28,10.1.1.2,21,0.030,0.030,0.030,0.000,0.000,0.000
1644350908647404032,2022-02-08-20:08:28,10.1.1.2,21,0.040,0.040,0.040,0.000,0.000,0.000
1644350908766819072,2022-02-08-20:08:28,10.1.1.2,39,0.050,0.050,0.050,0.000,0.000,0.000
1644350908856836096,2022-02-08-20:08:28,10.1.1.2,28,0.060,0.060,0.060,0.000,0.000,0.000
1644350908957590016,2022-02-08-20:08:28,10.1.1.2,28,0.070,0.070,0.070,0.000,0.000,0.000
1644350909067393024,2022-02-08-20:08:29,10.1.1.2,35,0.080,0.080,0.080,0.000,0.000,0.000
1644350909166395904,2022-02-08-20:08:29,10.1.1.2,33,0.090,0.090,0.090,0.000,0.000,0.000
1644350909267064064,2022-02-08-20:08:29,10.1.1.2,33,0.100,0.100,0.100,0.000,0.000,0.000
1644350909356313856,2022-02-08-20:08:29,10.1.1.2,22,0.090,0.090,0.090,0.000,0.000,0.000
1644350909457277952,2022-02-08-20:08:29,10.1.1.2,21,0.080,0.080,0.080,0.000,0.000,0.000
1644350909567746048,2022-02-08-20:08:29,10.1.1.2,30,0.070,0.070,0.070,0.000,0.000,0.000
1644350909657138944,2022-02-08-20:08:29,10.1.1.2,20,0.060,0.060,0.060,0.000,0.000,0.000
1644350909757391872,2022-02-08-20:08:29,10.1.1.2,20,0.050,0.050,0.050,0.000,0.000,0.000
1644350909866880000,2022-02-08-20:08:29,10.1.1.2,29,0.040,0.040,0.040,0.000,0.000,0.000
1644350909987379200,2022-02-08-20:08:29,10.1.1.2,48,0.030,0.030,0.030,0.000,0.000,0.000
1644350910077192192,2022-02-08-20:08:30,10.1.1.2,38,0.020,0.020,0.020,0.000,0.000,0.000
1644350910187046144,2022-02-08-20:08:30,10.1.1.2,47,0.010,0.010,0.010,0.000,0.000,0.000
1644350910287425024,2022-02-08-20:08:30,10.1.1.2,47,0.000,0.000,0.000,0.000,0.000,0.000
1644350910377006080,2022-02-08-20:08:30,10.1.1.2,36,-0.010,-0.010,-0.010,0.000,0.000,0.000
1644350910467927808,2022-02-08-20:08:30,10.1.1.2,23,-0.020,-0.020,-0.020,0.000,0.000,0.000
1644350910576632064,2022-02-08-20:08:30,10.1.1.2,32,-0.030,-0.030,-0.030,0.000,0.000,0.000
1644350910677572096,2022-02-08-20:08:30,10.1.1.2,32,-0.040,-0.040,-0.040,0.000,0.000,0.000
1644350910766930176,2022-02-08-20:08:30,10.1.1.2,21,-0.050,-0.050,-0.050,0.000,0.000,0.000
1644350910876375040,2022-02-08-20:08:30,10.1.1.2,31,-0.060,-0.060,-0.060,0.000,0.000,0.000
1644350910976659968,2022-02-08-20:08:30,10.1.1.2,30,-0.070,-0.070,-0.070,0.000,0.000,0.000
1644350911076302080,2022-02-08-20:08:31,10.1.1.2,29,-0.080,-0.080,-0.080,0.000,0.000,0.000
1644350911176680960,2022-02-08-20:08:31,10.1.1.2,28,-0.090,-0.090,-0.090,0.000,0.000,0.000
1644350911277626880,2022-02-08-20:08:31,10.1.1.2,28,-0.100,-0.100,-0.100,0.000,0.000,0.000
1644350911386817024,2022-02-08-20:08:31,10.1.1.2,37,-0.090,-0.090,-0.090,0.000,0.000,0.000
1644350911477443840,2022-02-08-20:08:31,10.1.1.2,26,-0.080,-0.080,-0.080,0.000,0.000,0.000
1644350911577348096,2022-02-08-20:08:31,10.1.1.2,26,-0.070,-0.070,-0.070,0.000,0.000,0.000
1644350911703237120,2022-02-08-20:08:31,10.1.1.2,35,-0.060,-0.060,-0.060,0.000,0.000,0.000
1644350911787045120,2022-02-08-20:08:31,10.1.1.2,35,-0.050,-0.050,-0.050,0.000,0.000,0.000
1644350911887491072,2022-02-08-20:08:31,10.1.1.2,34,-0.040,-0.040,-0.040,0.000,0.000,0.000
1644350911976484096,2022-02-08-20:08:31,10.1.1.2,23,-0.030,-0.030,-0.030,0.000,0.000,0.000
1644350912077251840,2022-02-08-20:08:32,10.1.1.2,23,-0.020,-0.020,-0.020,0.000,0.000,0.000
1644350912176190976,2022-02-08-20:08:32,10.1.1.2,22,-0.010,-0.010,-0.010,0.000,0.000,0.000
1644350912276220160,2022-02-08-20:08:32,10.1.1.2,22,0.000,0.000,0.000,0.000,0.000,0.000
1644350912387240960,2022-02-08-20:08:32,10.1.1.2,32,0.010,0.010,0.010,0.000,0.000,0.000
1644350912486494976,2022-02-08-20:08:32,10.1.1.2,31,0.020,0.020,0.020,0.000,0.000,0.000
1644350912576376832,2022-02-08-20:08:32,10.1.1.2,20,0.030,0.030,0.030,0.000,0.000,0.000
1644350912686788096,2022-02-08-20:08:32,10.1.1.2,29,0.040,0.040,0.040,0.000,0.000,0.000
1644350912796991232,2022-02-08-20:08:32,10.1.1.2,38,0.050,0.050,0.050,0.000,0.000,0.000
1644350912886641920,2022-02-08-20:08:32,10.1.1.2,26,0.060,0.060,0.060,0.000,0.000,0.000
1644350913007105024,2022-02-08-20:08:33,10.1.1.2,36,0.070,0.070,0.070,0.000,0.000,0.000
1644350913107727104,2022-02-08-20:08:33,10.1.1.2,35,0.080,0.080,0.080,0.000,0.000,0.000
1644350913206484992,2022-02-08-20:08:33,10.1.1.2,25,0.090,0.090,0.090,0.000,0.000,0.000
1644350913307312896,2022-02-08-20:08:33,10.1.1.2,32,0.100,0.100,0.100,0.000,0.000,0.000
1644350913397409792,2022-02-08-20:08:33,10.1.1.2,21,0.090,0.090,0.090,0.000,0.000,0.000
1644350913507111936,2022-02-08-20:08:33,10.1.1.2,31,0.080,0.080,0.080,0.000,0.000,0.000
1644350913608773888,2022-02-08-20:08:33,10.1.1.2,28,0.070,0.070,0.070,0.000,0.000,0.000
1644350913708482048,2022-02-08-20:08:33,10.1.1.2,27,0.060,0.060,0.060,0.000,0.000,0.000
1644350913808037120,2022-02-08-20:08:33,10.1.1.2,27,0.050,0.050,0.050,0.000,0.000,0.000
1644350913916487936,2022-02-08-20:08:33,10.1.1.2,35,0.040,0.040,0.040,0.000,0.000,0.000
1644350914020556800,2022-02-08-20:08:34,10.1.1.2,35,0.030,0.030,0.030,0.000,0.000,0.000
1644350914128717824,2022-02-08-20:08:34,10.1.1.2,32,0.020,0.020,0.020,0.000,0.000,0.000
1644350914218182144,2022-02-08-20:08:34,10.1.1.2,21,0.010,0.010,0.010,0.000,0.000,0.000
1644350914316793856,2022-02-08-20:08:34,10.1.1.2,20,-0.000,-0.000,-0.000,0.000,0.000,0.000
1644350914417756928,2022-02-08-20:08:34,10.1.1.2,19,-0.009,-0.009,-0.009,0.000,0.000,0.000
1644350914527117056,2022-02-08-20:08:34,10.1.1.2,28,-0.020,-0.020,-0.020,0.000,0.000,0.000
1644350914627264000,2022-02-08-20:08:34,10.1.1.2,27,-0.030,-0.030,-0.030,0.000,0.000,0.000
1644350914747635968,2022-02-08-20:08:34,10.1.1.2,47,-0.040,-0.040,-0.040,0.000,0.000,0.000
1644350914837761024,2022-02-08-20:08:34,10.1.1.2,34,-0.050,-0.050,-0.050,0.000,0.000,0.000
1644350914927661056,2022-02-08-20:08:34,10.1.1.2,23,-0.060,-0.060,-0.060,0.000,0.000,0.000
1644350915036887808,2022-02-08-20:08:35,10.1.1.2,31,-0.070,-0.070,-0.070,0.000,0.000,0.000
1644350915126454016,2022-02-08-20:08:35,10.1.1.2,20,-0.080,-0.080,-0.080,0.000,0.000,0.000
1644350915236435968,2022-02-08-20:08:35,10.1.1.2,28,-0.090,-0.090,-0.090,0.000,0.000,0.000
1644350915346739968,2022-02-08-20:08:35,10.1.1.2,37,-0.100,-0.100,-0.100,0.000,0.000,0.000
1644350915436748032,2022-02-08-20:08:35,10.1.1.2,26,-0.090,-0.090,-0.090,0.000,0.000,0.000
1644350915536869888,2022-02-08-20:08:35,10.1.1.2,25,-0.080,-0.080,-0.080,0.000,0.000,0.000
1644350915637531136,2022-02-08-20:08:35,10.1.1.2,23,-0.070,-0.070,-0.070,0.000,0.000,0.000
1644350915738397952,2022-02-08-20:08:35,10.1.1.2,23,-0.060,-0.060,-0.060,0.000,0.000,0.000
1644350915857073152,2022-02-08-20:08:35,10.1.1.2,34,-0.050,-0.050,-0.050,0.000,0.000,0.000
1644350915959244032,2022-02-08-20:08:35,10.1.1.2,33,-0.040,-0.040,-0.040,0.000,0.000,0.000
1644350916067734016,2022-02-08-20:08:36,10.1.1.2,43,-0.030,-0.030,-0.030,0.000,0.000,0.000
1644350916146864896,2022-02-08-20:08:36,10.1.1.2,22,-0.020,-0.020,-0.020,0.000,0.000,0.000
1644350916256241152,2022-02-08-20:08:36,10.1.1.2,30,-0.010,-0.010,-0.010,0.000,0.000,0.000
1644350916357332992,2022-02-08-20:08:36,10.1.1.2,29,0.000,0.000,0.000,0.000,0.000,0.000
1644350916466309120,2022-02-08-20:08:36,10.1.1.2,39,0.010,0.010,0.010,0.000,0.000,0.000
1644350916557650176,2022-02-08-20:08:36,10.1.1.2,28,0.020,0.020,0.020,0.000,0.000,0.000
1644350916656940032,2022-02-08-20:08:36,10.1.1.2,27,0.030,0.030,0.030,0.000,0.000,0.000
1644350916766931968,2022-02-08-20:08:36,10.1.1.2,37,0.040,0.040,0.040,0.000,0.000,0.000
1644350916856528896,2022-02-08-20:08:36,10.1.1.2,27,0.050,0.050,0.050,0.000,0.000,0.000
1644350916957890048,2022-02-08-20:08:36,10.1.1.2,26,0.060,0.060,0.060,0.000,0.000,0.000
1644350917056369152,2022-02-08-20:08:37,10.1.1.2,25,0.070,0.070,0.070,0.000,0.000,0.000
1644350917167129088,2022-02-08-20:08:37,10.1.1.2,33,0.080,0.080,0.080,0.000,0.000,0.000
1644350917258065920,2022-02-08-20:08:37,10.1.1.2,23,0.090,0.090,0.090,0.000,0.000,0.000
1644350917357422080,2022-02-08-20:08:37,10.1.1.2,22,0.100,0.100,0.100,0.000,0.000,0.000
1644350917456302848,2022-02-08-20:08:37,10.1.1.2,22,0.090,0.090,0.090,0.000,0.000,0.000
1644350917566930176,2022-02-08-20:08:37,10.1.1.2,31,0.080,0.080,0.080,0.000,0.000,0.000
1644350917657793024,2022-02-08-20:08:37,10.1.1.2,20,0.070,0.070,0.070,0.000,0.000,0.000
1644350917767942912,2022-02-08-20:08:37,10.1.1.2,29,0.060,0.060,0.060,0.000,0.000,0.000
1644350917879354112,2022-02-08-20:08:37,10.1.1.2,38,0.050,0.050,0.050,0.000,0.000,0.000
1644350917967653120,2022-02-08-20:08:37,10.1.1.2,25,0.040,0.040,0.040,0.000,0.000,0.000
1644350918066356992,2022-02-08-20:08:38,10.1.1.2,24,0.030,0.030,0.030,0.000,0.000,0.000
1644350918177788928,2022-02-08-20:08:38,10.1.1.2,32,0.020,0.020,0.020,0.000,0.000,0.000
1644350918277010944,2022-02-08-20:08:38,10.1.1.2,32,0.010,0.010,0.010,0.000,0.000,0.000
1644350918377070848,2022-02-08-20:08:38,10.1.1.2,31,0.000,0.000,0.000,0.000,0.000,0.000
1644350918467668992,2022-02-08-20:08:38,10.1.1.2,20,-0.010,-0.010,-0.010,0.000,0.000,0.000
1644350918595267072,2022-02-08-20:08:38,10.1.1.2,40,-0.020,-0.020,-0.020,0.000,0.000,0.000
1644350918676211968,2022-02-08-20:08:38,10.1.1.2,27,-0.030,-0.030,-0.030,0.000,0.000,0.000
1644350918777451008,2022-02-08-20:08:38,10.1.1.2,25,-0.040,-0.040,-0.040,0.000,0.000,0.000
1644350918877121024,2022-02-08-20:08:38,10.1.1.2,25,-0.050,-0.050,-0.050,0.000,0.000,0.000
1644350918976315904,2022-02-08-20:08:38,10.1.1.2,23,-0.060,-0.060,-0.060,0.000,0.000,0.000
1644350919077146112,2022-02-08-20:08:39,10.1.1.2,22,-0.070,-0.070,-0.070,0.000,0.000,0.000
1644350919186590976,2022-02-08-20:08:39,10.1.1.2,32,-0.080,-0.080,-0.080,0.000,0.000,0.000
1644350919276269056,2022-02-08-20:08:39,10.1.1.2,21,-0.090,-0.090,-0.090,0.000,0.000,0.000
1644350919388286208,2022-02-08-20:08:39,10.1.1.2,31,-0.100,-0.100,-0.100,0.000,0.000,0.000
1644350919486512896,2022-02-08-20:08:39,10.1.1.2,30,-0.090,-0.090,-0.090,0.000,0.000,0.000
1644350919576205056,2022-02-08-20:08:39,10.1.1.2,19,-0.080,-0.080,-0.080,0.000,0.000,0.000
1644350919696957184,2022-02-08-20:08:39,10.1.1.2,38,-0.070,-0.070,-0.070,0.000,0.000,0.000
1644350919787259136,2022-02-08-20:08:39,10.1.1.2,27,-0.060,-0.060,-0.060,0.000,0.000,0.000
1644350919887368960,2022-02-08-20:08:39,10.1.1.2,26,-0.050,-0.050,-0.050,0.000,0.000,0.000
1644350919986535936,2022-02-08-20:08:39,10.1.1.2,26,-0.040,-0.040,-0.040,0.000,0.000,0.000
1644350920087330048,2022-02-08-20:08:40,10.1.1.2,25,-0.030,-0.030,-0.030,0.000,0.000,0.000
1644350920187081984,2022-02-08-20:08:40,10.1.1.2,24,-0.020,-0.020,-0.020,0.000,0.000,0.000
1644350920297039872,2022-02-08-20:08:40,10.1.1.2,33,-0.010,-0.010,-0.010,0.000,0.000,0.000
1644350920406862080,2022-02-08-20:08:40,10.1.1.2,42,0.000,0.000,0.000,0.000,0.000,0.000
1644350920496774912,2022-02-08-20:08:40,10.1.1.2,31,0.010,0.010,0.010,0.000,0.000,0.000
1644350920597652992,2022-02-08-20:08:40,10.1.1.2,31,0.020,0.020,0.020,0.000,0.000,0.000
1644350920707763968,2022-02-08-20:08:40,10.1.1.2,40,0.030,0.030,0.030,0.000,0.000,0.000
1644350920797300992,2022-02-08-20:08:40,10.1.1.2,30,0.040,0.040,0.040,0.000,0.000,0.000
1644350920896483840,2022-02-08-20:08:40,10.1.1.2,29,0.050,0.050,0.050,0.000,0.000,0.000
1644350920997843968,2022-02-08-20:08:40,10.1.1.2,28,0.060,0.060,0.060,0.000,0.000,0.000
1644350921108061184,2022-02-08-20:08:41,10.1.1.2,37,0.070,0.070,0.070,0.000,0.000,0.000
1644350921197120000,2022-02-08-20:08:41,10.1.1.2,26,0.080,0.080,0.080,0.000,0.000,0.000
1644350921296937984,2022-02-08-20:08:41,10.1.1.2,26,0.090,0.090,0.090,0.000,0.000,0.000
1644350921398114048,2022-02-08-20:08:41,10.1.1.2,25,0.100,0.100,0.100,0.000,0.000,0.000
1644350921496434944,2022-02-08-20:08:41,10.1.1.2,25,0.090,0.090,0.090,0.000,0.000,0.000
1644350921596205056,2022-02-08-20:08:41,10.1.1.2,24,0.080,0.080,0.080,0.000,0.000,0.000
1644350921697291008,2022-02-08-20:08:41,10.1.1.2,23,0.070,0.070,0.070,0.000,0.000,0.000
1644350921797092864,2022-02-08-20:08:41,10.1.1.2,22,0.060,0.060,0.060,0.000,0.000,0.000
1644350921906647040,2022-02-08-20:08:41,10.1.1.2,32,0.050,0.050,0.050,0.000,0.000,0.000
1644350922006599936,2022-02-08-20:08:42,10.1.1.2,32,0.040,0.040,0.040,0.000,0.000,0.000
1644350922107458048,2022-02-08-20:08:42,10.1.1.2,31,0.030,0.030,0.030,0.000,0.000,0.000
1644350922207030016,2022-02-08-20:08:42,10.1.1.2,29,0.020,0.020,0.020,0.000,0.000,0.000
1644350922296916992,2022-02-08-20:08:42,10.1.1.2,19,0.011,0.011,0.011,0.000,0.000,0.000
1644350922407074816,2022-02-08-20:08:42,10.1.1.2,28,0.000,0.000,0.000,0.000,0.000,0.000
1644350922516369152,2022-02-08-20:08:42,10.1.1.2,38,-0.010,-0.010,-0.010,0.000,0.000,0.000
1644350922626979072,2022-02-08-20:08:42,10.1.1.2,48,-0.020,-0.020,-0.020,0.000,0.000,0.000
1644350922716489984,2022-02-08-20:08:42,10.1.1.2,36,-0.030,-0.030,-0.030,0.000,0.000,0.000
1644350922936418048,2022-02-08-20:08:42,10.1.1.2,21,-0.050,-0.050,-0.050,0.000,0.000,0.000
1644350923040146176,2022-02-08-20:08:43,10.1.1.2,20,-0.060,-0.060,-0.060,0.000,0.000,0.000
1644350923146321920,2022-02-08-20:08:43,10.1.1.2,29,-0.070,-0.070,-0.070,0.000,0.000,0.000
1644350923256592128,2022-02-08-20:08:43,10.1.1.2,38,-0.080,-0.080,-0.080,0.000,0.000,0.000
1644350923346585088,2022-02-08-20:08:43,10.1.1.2,27,-0.090,-0.090,-0.090,0.000,0.000,0.000
1644350923447101184,2022-02-08-20:08:43,10.1.1.2,27,-0.100,-0.100,-0.100,0.000,0.000,0.000
1644350923567073024,2022-02-08-20:08:43,10.1.1.2,47,-0.090,-0.090,-0.090,0.000,0.000,0.000
1644350923657500928,2022-02-08-20:08:43,10.1.1.2,36,-0.080,-0.080,-0.080,0.000,0.000,0.000
1644350923750861824,2022-02-08-20:08:43,10.1.1.2,27,-0.070,-0.070,-0.070,0.000,0.000,0.000
1644350923860174848,2022-02-08-20:08:43,10.1.1.2,38,-0.060,-0.060,-0.060,0.000,0.000,0.000
1644350923946952192,2022-02-08-20:08:43,10.1.1.2,24,-0.050,-0.050,-0.050,0.000,0.000,0.000
1644350924047013888,2022-02-08-20:08:44,10.1.1.2,23,-0.040,-0.040,-0.040,0.000,0.000,0.000
1644350924157548032,2022-02-08-20:08:44,10.1.1.2,32,-0.030,-0.030,-0.030,0.000,0.000,0.000
1644350924257411840,2022-02-08-20:08:44,10.1.1.2,32,-0.020,-0.020,-0.020,0.000,0.000,0.000
1644350924349672192,2022-02-08-20:08:44,10.1.1.2,21,-0.010,-0.010,-0.010,0.000,0.000,0.000
1644350924456804096,2022-02-08-20:08:44,10.1.1.2,31,0.000,0.000,0.000,0.000,0.000,0.000
1644350924556636928,2022-02-08-20:08:44,10.1.1.2,31,0.010,0.010,0.010,0.000,0.000,0.000
1644350924647542016,2022-02-08-20:08:44,10.1.1.2,20,0.020,0.020,0.020,0.000,0.000,0.000
1644350924747706880,2022-02-08-20:08:44,10.1.1.2,19,0.030,0.030,0.030,0.000,0.000,0.000
1644350924849647104,2022-02-08-20:08:44,10.1.1.2,19,0.039,0.039,0.039,0.000,0.000,0.000
1644350924956921088,2022-02-08-20:08:44,10.1.1.2,28,0.050,0.050,0.050,0.000,0.000,0.000
1644350925057723136,2022-02-08-20:08:45,10.1.1.2,27,0.060,0.060,0.060,0.000,0.000,0.000
1644350925157308928,2022-02-08-20:08:45,10.1.1.2,26,0.070,0.070,0.070,0.000,0.000,0.000
1644350925257647104,2022-02-08-20:08:45,10.1.1.2,25,0.080,0.080,0.080,0.000,0.000,0.000
1644350925366848000,2022-02-08-20:08:45,10.1.1.2,34,0.090,0.090,0.090,0.000,0.000,0.000
1644350925467299840,2022-02-08-20:08:45,10.1.1.2,34,0.100,0.100,0.100,0.000,0.000,0.000
1644350925557291008,2022-02-08-20:08:45,10.1.1.2,23,0.090,0.090,0.090,0.000,0.000,0.000
1644350925656723968,2022-02-08-20:08:45,10.1.1.2,23,0.080,0.080,0.080,0.000,0.000,0.000
1644350925757330944,2022-02-08-20:08:45,10.1.1.2,22,0.070,0.070,0.070,0.000,0.000,0.000
1644350925864336896,2022-02-08-20:08:45,10.1.1.2,22,0.060,0.060,0.060,0.000,0.000,0.000
1644350925957135872,2022-02-08-20:08:45,10.1.1.2,21,0.050,0.050,0.050,0.000,0.000,0.000
1644350926057818880,2022-02-08-20:08:46,10.1.1.2,20,0.040,0.040,0.040,0.000,0.000,0.000
1644350926157294080,2022-02-08-20:08:46,10.1.1.2,20,0.030,0.030,0.030,0.000,0.000,0.000
1644350926277524992,2022-02-08-20:08:46,10.1.1.2,38,0.020,0.020,0.020,0.000,0.000,0.000
1644350926376887040,2022-02-08-20:08:46,10.1.1.2,38,0.010,0.010,0.010,0.000,0.000,0.000
1644350926477547008,2022-02-08-20:08:46,10.1.1.2,37,0.000,0.000,0.000,0.000,0.000,0.000
1644350926576705024,2022-02-08-20:08:46,10.1.1.2,37,-0.010,-0.010,-0.010,0.000,0.000,0.000
1644350926667394048,2022-02-08-20:08:46,10.1.1.2,27,-0.020,-0.020,-0.020,0.000,0.000,0.000
1644350926776638976,2022-02-08-20:08:46,10.1.1.2,36,-0.030,-0.030,-0.030,0.000,0.000,0.000
1644350926887806976,2022-02-08-20:08:46,10.1.1.2,45,-0.040,-0.040,-0.040,0.000,0.000,0.000
1644350926987544064,2022-02-08-20:08:46,10.1.1.2,45,-0.050,-0.050,-0.050,0.000,0.000,0.000
1644350927066940160,2022-02-08-20:08:47,10.1.1.2,24,-0.060,-0.060,-0.060,0.000,0.000,0.000
1644350927188032000,2022-02-08-20:08:47,10.1.1.2,44,-0.070,-0.070,-0.070,0.000,0.000,0.000
1644350927266712064,2022-02-08-20:08:47,10.1.1.2,23,-0.080,-0.080,-0.080,0.000,0.000,0.000
1644350927367522048,2022-02-08-20:08:47,10.1.1.2,23,-0.090,-0.090,-0.090,0.000,0.000,0.000
1644350927467421952,2022-02-08-20:08:47,10.1.1.2,22,-0.100,-0.100,-0.100,0.000,0.000,0.000
1644350927577830912,2022-02-08-20:08:47,10.1.1.2,32,-0.090,-0.090,-0.090,0.000,0.000,0.000
1644350927686755840,2022-02-08-20:08:47,10.1.1.2,41,-0.080,-0.080,-0.080,0.000,0.000,0.000
1644350927777144064,2022-02-08-20:08:47,10.1.1.2,31,-0.070,-0.070,-0.070,0.000,0.000,0.000
1644350927877384960,2022-02-08-20:08:47,10.1.1.2,30,-0.060,-0.060,-0.060,0.000,0.000,0.000
1644350927976995072,2022-02-08-20:08:47,10.1.1.2,30,-0.050,-0.050,-0.050,0.000,0.000,0.000
1644350928066373120,2022-02-08-20:08:48,10.1.1.2,19,-0.040,-0.040,-0.040,0.000,0.000,0.000
1644350928176830976,2022-02-08-20:08:48,10.1.1.2,28,-0.030,-0.030,-0.030,0.000,0.000,0.000
1644350928287663104,2022-02-08-20:08:48,10.1.1.2,38,-0.020,-0.020,-0.020,0.000,0.000,0.000
1644350928394536960,2022-02-08-20:08:48,10.1.1.2,27,-0.010,-0.010,-0.010,0.000,0.000,0.000
1644350928476990976,2022-02-08-20:08:48,10.1.1.2,26,0.000,0.000,0.000,0.000,0.000,0.000
1644350928586579200,2022-02-08-20:08:48,10.1.1.2,36,0.010,0.010,0.010,0.000,0.000,0.000
1644350928677096960,2022-02-08-20:08:48,10.1.1.2,25,0.020,0.020,0.020,0.000,0.000,0.000
1644350928786725120,2022-02-08-20:08:48,10.1.1.2,34,0.030,0.030,0.030,0.000,0.000,0.000
1644350928876792832,2022-02-08-20:08:48,10.1.1.2,23,0.040,0.040,0.040,0.000,0.000,0.000
1644350928987674112,2022-02-08-20:08:48,10.1.1.2,33,0.050,0.050,0.050,0.000,0.000,0.000
1644350929078161920,2022-02-08-20:08:49,10.1.1.2,22,0.060,0.060,0.060,0.000,0.000,0.000
1644350929177153024,2022-02-08-20:08:49,10.1.1.2,20,0.070,0.070,0.070,0.000,0.000,0.000
1644350929277096960,2022-02-08-20:08:49,10.1.1.2,19,0.080,0.080,0.080,0.000,0.000,0.000
1644350929377382144,2022-02-08-20:08:49,10.1.1.2,19,0.089,0.089,0.089,0.000,0.000,0.000
1644350929487569152,2022-02-08-20:08:49,10.1.1.2,28,0.100,0.100,0.100,0.000,0.000,0.000
1644350929596817920,2022-02-08-20:08:49,10.1.1.2,37,0.090,0.090,0.090,0.000,0.000,0.000
1644350929706214912,2022-02-08-20:08:49,10.1.1.2,46,0.080,0.080,0.080,0.000,0.000,0.000
1644350929796412928,2022-02-08-20:08:49,10.1.1.2,36,0.070,0.070,0.070,0.000,0.000,0.000
1644350929887155968,2022-02-08-20:08:49,10.1.1.2,25,0.060,0.060,0.060,0.000,0.000,0.000
1644350929996648192,2022-02-08-20:08:49,10.1.1.2,34,0.050,0.050,0.050,0.000,0.000,0.000
1644350930096568064,2022-02-08-20:08:50,10.1.1.2,34,0.040,0.040,0.040,0.000,0.000,0.000
1644350930197427968,2022-02-08-20:08:50,10.1.1.2,34,0.030,0.030,0.030,0.000,0.000,0.000
1644350930297172992,2022-02-08-20:08:50,10.1.1.2,33,0.020,0.020,0.020,0.000,0.000,0.000
1644350930406130176,2022-02-08-20:08:50,10.1.1.2,42,0.010,0.010,0.010,0.000,0.000,0.000
1644350930509378816,2022-02-08-20:08:50,10.1.1.2,41,0.000,0.000,0.000,0.000,0.000,0.000
1644350930597031168,2022-02-08-20:08:50,10.1.1.2,31,-0.010,-0.010,-0.010,0.000,0.000,0.000
1644350930686865152,2022-02-08-20:08:50,10.1.1.2,20,-0.020,-0.020,-0.020,0.000,0.000,0.000
1644350930786876928,2022-02-08-20:08:50,10.1.1.2,19,-0.029,-0.029,-0.029,0.000,0.000,0.000
1644350930907373824,2022-02-08-20:08:50,10.1.1.2,38,-0.040,-0.040,-0.040,0.000,0.000,0.000
1644350930996814080,2022-02-08-20:08:50,10.1.1.2,28,-0.050,-0.050,-0.050,0.000,0.000,0.000
1644350931107098112,2022-02-08-20:08:51,10.1.1.2,37,-0.060,-0.060,-0.060,0.000,0.000,0.000
1644350931199377920,2022-02-08-20:08:51,10.1.1.2,27,-0.070,-0.070,-0.070,0.000,0.000,0.000
1644350931297931008,2022-02-08-20:08:51,10.1.1.2,24,-0.080,-0.080,-0.080,0.000,0.000,0.000
1644350931398461184,2022-02-08-20:08:51,10.1.1.2,24,-0.090,-0.090,-0.090,0.000,0.000,0.000
1644350931497659904,2022-02-08-20:08:51,10.1.1.2,22,-0.100,-0.100,-0.100,0.000,0.000,0.000
1644350931602765056,2022-02-08-20:08:51,10.1.1.2,21,-0.090,-0.090,-0.090,0.000,0.000,0.000
1644350931698569984,2022-02-08-20:08:51,10.1.1.2,21,-0.080,-0.080,-0.080,0.000,0.000,0.000
1644350931799112192,2022-02-08-20:08:51,10.1.1.2,20,-0.070,-0.070,-0.070,0.000,0.000,0.000
1644350931908407040,2022-02-08-20:08:51,10.1.1.2,20,-0.060,-0.060,-0.060,0.000,0.000,0.000
1644350931998621952,2022-02-08-20:08:51,10.1.1.2,18,-0.050,-0.050,-0.050,0.000,0.000,0.000
1644350932121635840,2022-02-08-20:08:52,10.1.1.2,37,-0.040,-0.040,-0.040,0.000,0.000,0.000
1644350932218146048,2022-02-08-20:08:52,10.1.1.2,35,-0.030,-0.030,-0.030,0.000,0.000,0.000
1644350932317216000,2022-02-08-20:08:52,10.1.1.2,34,-0.020,-0.020,-0.020,0.000,0.000,0.000
1644350932417520128,2022-02-08-20:08:52,10.1.1.2,32,-0.010,-0.010,-0.010,0.000,0.000,0.000
1644350932517378048,2022-02-08-20:08:52,10.1.1.2,31,0.000,0.000,0.000,0.000,0.000,0.000
1644350932617273088,2022-02-08-20:08:52,10.1.1.2,30,0.010,0.010,0.010,0.000,0.000,0.000
1644350932721720832,2022-02-08-20:08:52,10.1.1.2,28,0.020,0.020,0.020,0.000,0.000,0.000
1644350932816577792,2022-02-08-20:08:52,10.1.1.2,25,0.030,0.030,0.030,0.000,0.000,0.000
1644350932918232832,2022-02-08-20:08:52,10.1.1.2,25,0.040,0.040,0.040,0.000,0.000,0.000
1644350933019166976,2022-02-08-20:08:53,10.1.1.2,25,0.050,0.050,0.050,0.000,0.000,0.000
1644350933119020032,2022-02-08-20:08:53,10.1.1.2,24,0.060,0.060,0.060,0.000,0.000,0.000
1644350933218988800,2022-02-08-20:08:53,10.1.1.2,23,0.070,0.070,0.070,0.000,0.000,0.000
1644350933317908992,2022-02-08-20:08:53,10.1.1.2,22,0.080,0.080,0.080,0.000,0.000,0.000
1644350933427272192,2022-02-08-20:08:53,10.1.1.2,32,0.090,0.090,0.090,0.000,0.000,0.000
1644350933516685056,2022-02-08-20:08:53,10.1.1.2,21,0.100,0.100,0.100,0.000,0.000,0.000
1644350933621684992,2022-02-08-20:08:53,10.1.1.2,21,0.090,0.090,0.090,0.000,0.000,0.000
1644350933728568064,2022-02-08-20:08:53,10.1.1.2,31,0.080,0.080,0.080,0.000,0.000,0.000
1644350933818466816,2022-02-08-20:08:53,10.1.1.2,20,0.070,0.070,0.070,0.000,0.000,0.000
1644350933916932096,2022-02-08-20:08:53,10.1.1.2,19,0.060,0.060,0.060,0.000,0.000,0.000
1644350934017080064,2022-02-08-20:08:54,10.1.1.2,19,0.051,0.051,0.051,0.000,0.000,0.000
1644350934128258816,2022-02-08-20:08:54,10.1.1.2,29,0.040,0.040,0.040,0.000,0.000,0.000
1644350934226836992,2022-02-08-20:08:54,10.1.1.2,28,0.030,0.030,0.030,0.000,0.000,0.000
1644350934344898048,2022-02-08-20:08:54,10.1.1.2,37,0.020,0.020,0.020,0.000,0.000,0.000
1644350934427258880,2022-02-08-20:08:54,10.1.1.2,27,0.010,0.010,0.010,0.000,0.000,0.000
1644350934537581056,2022-02-08-20:08:54,10.1.1.2,31,0.000,0.000,0.000,0.000,0.000,0.000
1644350934627595008,2022-02-08-20:08:54,10.1.1.2,20,-0.010,-0.010,-0.010,0.000,0.000,0.000
1644350934737474048,2022-02-08-20:08:54,10.1.1.2,29,-0.020,-0.020,-0.020,0.000,0.000,0.000
1644350934837100032,2022-02-08-20:08:54,10.1.1.2,28,-0.030,-0.030,-0.030,0.000,0.000,0.000
1644350934937274880,2022-02-08-20:08:54,10.1.1.2,28,-0.040,-0.040,-0.040,0.000,0.000,0.000
1644350935038168064,2022-02-08-20:08:55,10.1.1.2,28,-0.050,-0.050,-0.050,0.000,0.000,0.000
1644350935147794944,2022-02-08-20:08:55,10.1.1.2,37,-0.060,-0.060,-0.060,0.000,0.000,0.000
1644350935248174848,2022-02-08-20:08:55,10.1.1.2,37,-0.070,-0.070,-0.070,0.000,0.000,0.000
1644350935347243008,2022-02-08-20:08:55,10.1.1.2,36,-0.080,-0.080,-0.080,0.000,0.000,0.000
1644350935437328128,2022-02-08-20:08:55,10.1.1.2,26,-0.090,-0.090,-0.090,0.000,0.000,0.000
1644350935538678784,2022-02-08-20:08:55,10.1.1.2,25,-0.100,-0.100,-0.100,0.000,0.000,0.000
1644350935637548800,2022-02-08-20:08:55,10.1.1.2,24,-0.090,-0.090,-0.090,0.000,0.000,0.000
1644350935737377792,2022-02-08-20:08:55,10.1.1.2,24,-0.080,-0.080,-0.080,0.000,0.000,0.000
1644350935837415936,2022-02-08-20:08:55,10.1.1.2,23,-0.070,-0.070,-0.070,0.000,0.000,0.000
1644350935937762048,2022-02-08-20:08:55,10.1.1.2,23,-0.060,-0.060,-0.060,0.000,0.000,0.000
1644350936037789952,2022-02-08-20:08:56,10.1.1.2,22,-0.050,-0.050,-0.050,0.000,0.000,0.000
1644350936138247936,2022-02-08-20:08:56,10.1.1.2,22,-0.040,-0.040,-0.040,0.000,0.000,0.000
1644350936247899904,2022-02-08-20:08:56,10.1.1.2,31,-0.030,-0.030,-0.030,0.000,0.000,0.000
1644350936336468992,2022-02-08-20:08:56,10.1.1.2,21,-0.020,-0.020,-0.020,0.000,0.000,0.000
1644350936436263168,2022-02-08-20:08:56,10.1.1.2,20,-0.010,-0.010,-0.010,0.000,0.000,0.000
1644350936536248064,2022-02-08-20:08:56,10.1.1.2,19,-0.000,-0.000,-0.000,0.000,0.000,0.000
1644350936646521088,2022-02-08-20:08:56,10.1.1.2,28,0.010,0.010,0.010,0.000,0.000,0.000
1644350936747611136,2022-02-08-20:08:56,10.1.1.2,27,0.020,0.020,0.020,0.000,0.000,0.000
1644350936837049088,2022-02-08-20:08:56,10.1.1.2,17,0.030,0.030,0.030,0.000,0.000,0.000
1644350936946369792,2022-02-08-20:08:56,10.1.1.2,26,0.040,0.040,0.040,0.000,0.000,0.000
1644350937056979968,2022-02-08-20:08:57,10.1.1.2,36,0.050,0.050,0.050,0.000,0.000,0.000
1644350937166654208,2022-02-08-20:08:57,10.1.1.2,45,0.060,0.060,0.060,0.000,0.000,0.000
1644350937246437120,2022-02-08-20:08:57,10.1.1.2,24,0.070,0.070,0.070,0.000,0.000,0.000
1644350937358007040,2022-02-08-20:08:57,10.1.1.2,34,0.080,0.080,0.080,0.000,0.000,0.000
1644350937466821888,2022-02-08-20:08:57,10.1.1.2,43,0.090,0.090,0.090,0.000,0.000,0.000
1644350937566589184,2022-02-08-20:08:57,10.1.1.2,42,0.100,0.100,0.100,0.000,0.000,0.000
1644350937648483072,2022-02-08-20:08:57,10.1.1.2,22,0.090,0.090,0.090,0.000,0.000,0.000
1644350937756894976,2022-02-08-20:08:57,10.1.1.2,31,0.080,0.080,0.080,0.000,0.000,0.000
1644350937846895104,2022-02-08-20:08:57,10.1.1.2,21,0.070,0.070,0.070,0.000,0.000,0.000
1644350937946515200,2022-02-08-20:08:57,10.1.1.2,20,0.060,0.060,0.060,0.000,0.000,0.000
1644350938056672000,2022-02-08-20:08:58,10.1.1.2,30,0.050,0.050,0.050,0.000,0.000,0.000
1644350938156969984,2022-02-08-20:08:58,10.1.1.2,29,0.040,0.040,0.040,0.000,0.000,0.000
1644350938256385024,2022-02-08-20:08:58,10.1.1.2,28,0.030,0.030,0.030,0.000,0.000,0.000
1644350938366710016,2022-02-08-20:08:58,10.1.1.2,38,0.020,0.020,0.020,0.000,0.000,0.000
1644350938457209088,2022-02-08-20:08:58,10.1.1.2,27,0.010,0.010,0.010,0.000,0.000,0.000
1644350938559840000,2022-02-08-20:08:58,10.1.1.2,27,0.000,0.000,0.000,0.000,0.000,0.000
1644350938658195968,2022-02-08-20:08:58,10.1.1.2,27,-0.010,-0.010,-0.010,0.000,0.000,0.000
1644350938757092864,2022-02-08-20:08:58,10.1.1.2,26,-0.020,-0.020,-0.020,0.000,0.000,0.000
1644350938863028992,2022-02-08-20:08:58,10.1.1.2,26,-0.030,-0.030,-0.030,0.000,0.000,0.000
1644350938956736000,2022-02-08-20:08:58,10.1.1.2,25,-0.040,-0.040,-0.040,0.000,0.000,0.000
1644350939060715008,2022-02-08-20:08:59,10.1.1.2,25,-0.050,-0.050,-0.050,0.000,0.000,0.000
1644350939169140992,2022-02-08-20:08:59,10.1.1.2,33,-0.060,-0.060,-0.060,0.000,0.000,0.000
1644350939257370880,2022-02-08-20:08:59,10.1.1.2,22,-0.070,-0.070,-0.070,0.000,0.000,0.000
1644350939402774016,2022-02-08-20:08:59,10.1.1.2,36,-0.080,-0.080,-0.080,0.000,0.000,0.000
1644350939477152000,2022-02-08-20:08:59,10.1.1.2,35,-0.090,-0.090,-0.090,0.000,0.000,0.000
1644350939577711104,2022-02-08-20:08:59,10.1.1.2,35,-0.100,-0.100,-0.100,0.000,0.000,0.000
1644350939666804992,2022-02-08-20:08:59,10.1.1.2,24,-0.090,-0.090,-0.090,0.000,0.000,0.000
1644350939767726848,2022-02-08-20:08:59,10.1.1.2,23,-0.080,-0.080,-0.080,0.000,0.000,0.000
1644350939886599168,2022-02-08-20:08:59,10.1.1.2,43,-0.070,-0.070,-0.070,0.000,0.000,0.000
1644350939995244032,2022-02-08-20:08:59,10.1.1.2,30,-0.060,-0.060,-0.060,0.000,0.000,0.000
1644350940077313792,2022-02-08-20:09:00,10.1.1.2,26,-0.050,-0.050,-0.050,0.000,0.000,0.000
1644350940178078976,2022-02-08-20:09:00,10.1.1.2,26,-0.040,-0.040,-0.040,0.000,0.000,0.000
1644350940318291968,2022-02-08-20:09:00,10.1.1.2,25,-0.030,-0.030,-0.030,0.000,0.000,0.000
1644350940387335168,2022-02-08-20:09:00,10.1.1.2,35,-0.020,-0.020,-0.020,0.000,0.000,0.000
1644350940482886912,2022-02-08-20:09:00,10.1.1.2,24,-0.010,-0.010,-0.010,0.000,0.000,0.000
1644350940577903872,2022-02-08-20:09:00,10.1.1.2,23,0.000,0.000,0.000,0.000,0.000,0.000
1644350940677992192,2022-02-08-20:09:00,10.1.1.2,22,0.010,0.010,0.010,0.000,0.000,0.000
1644350940777692928,2022-02-08-20:09:00,10.1.1.2,22,0.020,0.020,0.020,0.000,0.000,0.000
1644350940887008000,2022-02-08-20:09:00,10.1.1.2,31,0.030,0.030,0.030,0.000,0.000,0.000
1644350940977422080,2022-02-08-20:09:00,10.1.1.2,21,0.040,0.040,0.040,0.000,0.000,0.000
1644350941077291008,2022-02-08-20:09:01,10.1.1.2,21,0.050,0.050,0.050,0.000,0.000,0.000
1644350941187585024,2022-02-08-20:09:01,10.1.1.2,30,0.060,0.060,0.060,0.000,0.000,0.000
1644350941277171968,2022-02-08-20:09:01,10.1.1.2,20,0.070,0.070,0.070,0.000,0.000,0.000
1644350941507458816,2022-02-08-20:09:01,10.1.1.2,32,0.090,0.090,0.090,0.000,0.000,0.000
1644350941607426816,2022-02-08-20:09:01,10.1.1.2,31,0.100,0.100,0.100,0.000,0.000,0.000
1644350941707870976,2022-02-08-20:09:01,10.1.1.2,31,0.090,0.090,0.090,0.000,0.000,0.000
1644350941806361856,2022-02-08-20:09:01,10.1.1.2,30,0.080,0.080,0.080,0.000,0.000,0.000
1644350941906609152,2022-02-08-20:09:01,10.1.1.2,26,0.070,0.070,0.070,0.000,0.000,0.000
1644350942027194112,2022-02-08-20:09:02,10.1.1.2,45,0.060,0.060,0.060,0.000,0.000,0.000
1644350942107172864,2022-02-08-20:09:02,10.1.1.2,24,0.050,0.050,0.050,0.000,0.000,0.000
1644350942227386112,2022-02-08-20:09:02,10.1.1.2,43,0.040,0.040,0.040,0.000,0.000,0.000
1644350942306985984,2022-02-08-20:09:02,10.1.1.2,22,0.030,0.030,0.030,0.000,0.000,0.000
1644350942407105024,2022-02-08-20:09:02,10.1.1.2,21,0.020,0.020,0.020,0.000,0.000,0.000
1644350942531956992,2022-02-08-20:09:02,10.1.1.2,-59,0.020,0.020,0.020,0.000,0.000,0.000
1644350942663059968,2022-02-08-20:09:02,10.1.1.2,20,0.000,0.000,0.000,0.000,0.000,0.000
1644350943700388864,2022-02-08-20:09:02,10.1.1.2,20,-0.010,-0.010,-0.010,0.000,0.000,0.000
1644350943837021952,2022-02-08-20:09:03,10.1.1.2,24,-0.030,-0.030,-0.030,0.000,0.000,0.000
1644350943947491840,2022-02-08-20:09:03,10.1.1.2,33,-0.040,-0.040,-0.040,0.000,0.000,0.000
1644350944036891904,2022-02-08-20:09:04,10.1.1.2,23,-0.050,-0.050,-0.050,0.000,0.000,0.000
1644350944138274816,2022-02-08-20:09:04,10.1.1.2,21,-0.060,-0.060,-0.060,0.000,0.000,0.000
1644350944238840064,2022-02-08-20:09:04,10.1.1.2,20,-0.070,-0.070,-0.070,0.000,0.000,0.000
1644350944348872960,2022-02-08-20:09:04,10.1.1.2,29,-0.080,-0.080,-0.080,0.000,0.000,0.000
1644350944457511936,2022-02-08-20:09:04,10.1.1.2,38,-0.090,-0.090,-0.090,0.000,0.000,0.000
1644350944562746880,2022-02-08-20:09:04,10.1.1.2,37,-0.100,-0.100,-0.100,0.000,0.000,0.000
1644350944672708864,2022-02-08-20:09:04,10.1.1.2,37,-0.090,-0.090,-0.090,0.000,0.000,0.000
1644350944750689024,2022-02-08-20:09:04,10.1.1.2,26,-0.080,-0.080,-0.080,0.000,0.000,0.000
1644350944856811008,2022-02-08-20:09:04,10.1.1.2,35,-0.070,-0.070,-0.070,0.000,0.000,0.000
1644350944957985024,2022-02-08-20:09:04,10.1.1.2,35,-0.060,-0.060,-0.060,0.000,0.000,0.000
1644350945056900864,2022-02-08-20:09:05,10.1.1.2,34,-0.050,-0.050,-0.050,0.000,0.000,0.000
1644350945158149120,2022-02-08-20:09:05,10.1.1.2,32,-0.040,-0.040,-0.040,0.000,0.000,0.000
1644350945247160064,2022-02-08-20:09:05,10.1.1.2,20,-0.030,-0.030,-0.030,0.000,0.000,0.000
1644350945357381120,2022-02-08-20:09:05,10.1.1.2,30,-0.020,-0.020,-0.020,0.000,0.000,0.000
1644350945446452992,2022-02-08-20:09:05,10.1.1.2,19,-0.011,-0.011,-0.011,0.000,0.000,0.000
1644350945556655872,2022-02-08-20:09:05,10.1.1.2,26,0.000,0.000,0.000,0.000,0.000,0.000
1644350945666855936,2022-02-08-20:09:05,10.1.1.2,35,0.010,0.010,0.010,0.000,0.000,0.000
1644350945757190912,2022-02-08-20:09:05,10.1.1.2,24,0.020,0.020,0.020,0.000,0.000,0.000
1644350945866533888,2022-02-08-20:09:05,10.1.1.2,33,0.030,0.030,0.030,0.000,0.000,0.000
1644350945966882048,2022-02-08-20:09:05,10.1.1.2,32,0.040,0.040,0.040,0.000,0.000,0.000
1644350946057257984,2022-02-08-20:09:06,10.1.1.2,22,0.050,0.050,0.050,0.000,0.000,0.000
1644350946166467072,2022-02-08-20:09:06,10.1.1.2,31,0.060,0.060,0.060,0.000,0.000,0.000
1644350946256550912,2022-02-08-20:09:06,10.1.1.2,20,0.070,0.070,0.070,0.000,0.000,0.000
1644350946357253120,2022-02-08-20:09:06,10.1.1.2,19,0.080,0.080,0.080,0.000,0.000,0.000
1644350946457110016,2022-02-08-20:09:06,10.1.1.2,19,0.089,0.089,0.089,0.000,0.000,0.000
1644350946587342080,2022-02-08-20:09:06,10.1.1.2,48,0.100,0.100,0.100,0.000,0.000,0.000
1644350946686959104,2022-02-08-20:09:06,10.1.1.2,48,0.090,0.090,0.090,0.000,0.000,0.000
1644350946766892032,2022-02-08-20:09:06,10.1.1.2,27,0.080,0.080,0.080,0.000,0.000,0.000
1644350946866790912,2022-02-08-20:09:06,10.1.1.2,27,0.070,0.070,0.070,0.000,0.000,0.000
1644350946986648064,2022-02-08-20:09:06,10.1.1.2,47,0.060,0.060,0.060,0.000,0.000,0.000
1644350947086610176,2022-02-08-20:09:07,10.1.1.2,45,0.050,0.050,0.050,0.000,0.000,0.000
1644350947177261056,2022-02-08-20:09:07,10.1.1.2,24,0.040,0.040,0.040,0.000,0.000,0.000
1644350947267134976,2022-02-08-20:09:07,10.1.1.2,24,0.030,0.030,0.030,0.000,0.000,0.000
1644350947376222976,2022-02-08-20:09:07,10.1.1.2,33,0.020,0.020,0.020,0.000,0.000,0.000
1644350947476942080,2022-02-08-20:09:07,10.1.1.2,33,0.010,0.010,0.010,0.000,0.000,0.000
1644350947587888128,2022-02-08-20:09:07,10.1.1.2,42,0.000,0.000,0.000,0.000,0.000,0.000
1644350947666785024,2022-02-08-20:09:07,10.1.1.2,21,-0.010,-0.010,-0.010,0.000,0.000,0.000
1644350947776363008,2022-02-08-20:09:07,10.1.1.2,31,-0.020,-0.020,-0.020,0.000,0.000,0.000
1644350947886849024,2022-02-08-20:09:07,10.1.1.2,40,-0.030,-0.030,-0.030,0.000,0.000,0.000
1644350947986668032,2022-02-08-20:09:07,10.1.1.2,39,-0.040,-0.040,-0.040,0.000,0.000,0.000
1644350948087215872,2022-02-08-20:09:08,10.1.1.2,38,-0.050,-0.050,-0.050,0.000,0.000,0.000
1644350948177047040,2022-02-08-20:09:08,10.1.1.2,28,-0.060,-0.060,-0.060,0.000,0.000,0.000
1644350948287097856,2022-02-08-20:09:08,10.1.1.2,37,-0.070,-0.070,-0.070,0.000,0.000,0.000
1644350948377190144,2022-02-08-20:09:08,10.1.1.2,27,-0.080,-0.080,-0.080,0.000,0.000,0.000
1644350948477070080,2022-02-08-20:09:08,10.1.1.2,27,-0.090,-0.090,-0.090,0.000,0.000,0.000
1644350948589167104,2022-02-08-20:09:08,10.1.1.2,36,-0.100,-0.100,-0.100,0.000,0.000,0.000
1644350948804487936,2022-02-08-20:09:08,10.1.1.2,26,-0.090,-0.090,-0.090,0.000,0.000,0.000
1644350948847089152,2022-02-08-20:09:08,10.1.1.2,31,-0.080,-0.080,-0.080,0.000,0.000,0.000
1644350948936783104,2022-02-08-20:09:08,10.1.1.2,21,-0.070,-0.070,-0.070,0.000,0.000,0.000
1644350949043219968,2022-02-08-20:09:09,10.1.1.2,20,-0.060,-0.060,-0.060,0.000,0.000,0.000
1644350949136836096,2022-02-08-20:09:09,10.1.1.2,19,-0.050,-0.050,-0.050,0.000,0.000,0.000
1644350949256413952,2022-02-08-20:09:09,10.1.1.2,38,-0.040,-0.040,-0.040,0.000,0.000,0.000
1644350949346586880,2022-02-08-20:09:09,10.1.1.2,28,-0.030,-0.030,-0.030,0.000,0.000,0.000
1644350949467170048,2022-02-08-20:09:09,10.1.1.2,47,-0.020,-0.020,-0.020,0.000,0.000,0.000
1644350949556304896,2022-02-08-20:09:09,10.1.1.2,37,-0.010,-0.010,-0.010,0.000,0.000,0.000
1644350949656812032,2022-02-08-20:09:09,10.1.1.2,36,0.000,0.000,0.000,0.000,0.000,0.000
1644350949747457024,2022-02-08-20:09:09,10.1.1.2,25,0.010,0.010,0.010,0.000,0.000,0.000
1644350949856388096,2022-02-08-20:09:09,10.1.1.2,34,0.020,0.020,0.020,0.000,0.000,0.000
1644350949966664192,2022-02-08-20:09:09,10.1.1.2,44,0.030,0.030,0.030,0.000,0.000,0.000
1644350950057053184,2022-02-08-20:09:10,10.1.1.2,34,0.040,0.040,0.040,0.000,0.000,0.000
1644350950146606080,2022-02-08-20:09:10,10.1.1.2,23,0.050,0.050,0.050,0.000,0.000,0.000
1644350950256777984,2022-02-08-20:09:10,10.1.1.2,33,0.060,0.060,0.060,0.000,0.000,0.000
1644350950356802816,2022-02-08-20:09:10,10.1.1.2,32,0.070,0.070,0.070,0.000,0.000,0.000
1644350950447268096,2022-02-08-20:09:10,10.1.1.2,21,0.080,0.080,0.080,0.000,0.000,0.000
1644350950556615168,2022-02-08-20:09:10,10.1.1.2,31,0.090,0.090,0.090,0.000,0.000,0.000
1644350950657012992,2022-02-08-20:09:10,10.1.1.2,30,0.100,0.100,0.100,0.000,0.000,0.000
1644350950767226880,2022-02-08-20:09:10,10.1.1.2,40,0.090,0.090,0.090,0.000,0.000,0.000
1644350950866929152,2022-02-08-20:09:10,10.1.1.2,39,0.080,0.080,0.080,0.000,0.000,0.000
1644350950966962944,2022-02-08-20:09:10,10.1.1.2,39,0.070,0.070,0.070,0.000,0.000,0.000
1644350951056238848,2022-02-08-20:09:11,10.1.1.2,28,0.060,0.060,0.060,0.000,0.000,0.000
1644350951156752128,2022-02-08-20:09:11,10.1.1.2,27,0.050,0.050,0.050,0.000,0.000,0.000
1644350951257924096,2022-02-08-20:09:11,10.1.1.2,27,0.040,0.040,0.040,0.000,0.000,0.000
1644350951356764928,2022-02-08-20:09:11,10.1.1.2,26,0.030,0.030,0.030,0.000,0.000,0.000
1644350951457113856,2022-02-08-20:09:11,10.1.1.2,25,0.020,0.020,0.020,0.000,0.000,0.000
1644350951566790144,2022-02-08-20:09:11,10.1.1.2,34,0.010,0.010,0.010,0.000,0.000,0.000
1644350951667165952,2022-02-08-20:09:11,10.1.1.2,34,0.000,0.000,0.000,0.000,0.000,0.000
1644350951766924032,2022-02-08-20:09:11,10.1.1.2,33,-0.010,-0.010,-0.010,0.000,0.000,0.000
1644350951866465024,2022-02-08-20:09:11,10.1.1.2,33,-0.020,-0.020,-0.020,0.000,0.000,0.000
1644350951967302912,2022-02-08-20:09:11,10.1.1.2,32,-0.030,-0.030,-0.030,0.000,0.000,0.000
1644350952056602112,2022-02-08-20:09:12,10.1.1.2,22,-0.040,-0.040,-0.040,0.000,0.000,0.000
1644350952156358912,2022-02-08-20:09:12,10.1.1.2,21,-0.050,-0.050,-0.050,0.000,0.000,0.000
1644350952256668160,2022-02-08-20:09:12,10.1.1.2,21,-0.060,-0.060,-0.060,0.000,0.000,0.000
1644350952366473984,2022-02-08-20:09:12,10.1.1.2,30,-0.070,-0.070,-0.070,0.000,0.000,0.000
1644350952456593152,2022-02-08-20:09:12,10.1.1.2,19,-0.080,-0.080,-0.080,0.000,0.000,0.000
1644350952556999936,2022-02-08-20:09:12,10.1.1.2,19,-0.090,-0.090,-0.090,0.000,0.000,0.000
1644350952671137024,2022-02-08-20:09:12,10.1.1.2,24,-0.100,-0.100,-0.100,0.000,0.000,0.000
1644350952787249920,2022-02-08-20:09:12,10.1.1.2,43,-0.090,-0.090,-0.090,0.000,0.000,0.000
1644350952886984192,2022-02-08-20:09:12,10.1.1.2,43,-0.080,-0.080,-0.080,0.000,0.000,0.000
1644350952986632192,2022-02-08-20:09:12,10.1.1.2,42,-0.070,-0.070,-0.070,0.000,0.000,0.000
1644350953067182080,2022-02-08-20:09:13,10.1.1.2,21,-0.060,-0.060,-0.060,0.000,0.000,0.000
1644350953187503104,2022-02-08-20:09:13,10.1.1.2,40,-0.050,-0.050,-0.050,0.000,0.000,0.000
1644350953276567808,2022-02-08-20:09:13,10.1.1.2,30,-0.040,-0.040,-0.040,0.000,0.000,0.000
1644350953367048960,2022-02-08-20:09:13,10.1.1.2,19,-0.031,-0.031,-0.031,0.000,0.000,0.000
1644350953487962112,2022-02-08-20:09:13,10.1.1.2,38,-0.020,-0.020,-0.020,0.000,0.000,0.000
1644350953586832896,2022-02-08-20:09:13,10.1.1.2,38,-0.010,-0.010,-0.010,0.000,0.000,0.000
1644350953676704000,2022-02-08-20:09:13,10.1.1.2,27,0.000,0.000,0.000,0.000,0.000,0.000
1644350953776588032,2022-02-08-20:09:13,10.1.1.2,27,0.010,0.010,0.010,0.000,0.000,0.000
1644350953886703872,2022-02-08-20:09:13,10.1.1.2,36,0.020,0.020,0.020,0.000,0.000,0.000
1644350953976850944,2022-02-08-20:09:13,10.1.1.2,26,0.030,0.030,0.030,0.000,0.000,0.000
1644350954077255936,2022-02-08-20:09:14,10.1.1.2,25,0.040,0.040,0.040,0.000,0.000,0.000
1644350954176819200,2022-02-08-20:09:14,10.1.1.2,23,0.050,0.050,0.050,0.000,0.000,0.000
1644350954277064960,2022-02-08-20:09:14,10.1.1.2,23,0.060,0.060,0.060,0.000,0.000,0.000
1644350954386790912,2022-02-08-20:09:14,10.1.1.2,32,0.070,0.070,0.070,0.000,0.000,0.000
1644350954487124992,2022-02-08-20:09:14,10.1.1.2,31,0.080,0.080,0.080,0.000,0.000,0.000
1644350954577459968,2022-02-08-20:09:14,10.1.1.2,21,0.090,0.090,0.090,0.000,0.000,0.000
1644350954697003008,2022-02-08-20:09:14,10.1.1.2,36,0.100,0.100,0.100,0.000,0.000,0.000
1644350954806791936,2022-02-08-20:09:14,10.1.1.2,45,0.090,0.090,0.090,0.000,0.000,0.000
1644350954886508032,2022-02-08-20:09:14,10.1.1.2,25,0.080,0.080,0.080,0.000,0.000,0.000
1644350955006881024,2022-02-08-20:09:15,10.1.1.2,44,0.070,0.070,0.070,0.000,0.000,0.000
1644350955096973056,2022-02-08-20:09:15,10.1.1.2,34,0.060,0.060,0.060,0.000,0.000,0.000
1644350955186844160,2022-02-08-20:09:15,10.1.1.2,24,0.050,0.050,0.050,0.000,0.000,0.000
1644350955286518016,2022-02-08-20:09:15,10.1.1.2,23,0.040,0.040,0.040,0.000,0.000,0.000
1644350955386688000,2022-02-08-20:09:15,10.1.1.2,22,0.030,0.030,0.030,0.000,0.000,0.000
1644350955486532096,2022-02-08-20:09:15,10.1.1.2,22,0.020,0.020,0.020,0.000,0.000,0.000
1644350955587461888,2022-02-08-20:09:15,10.1.1.2,22,0.010,0.010,0.010,0.000,0.000,0.000
1644350955697169920,2022-02-08-20:09:15,10.1.1.2,31,0.000,0.000,0.000,0.000,0.000,0.000
1644350955797197056,2022-02-08-20:09:15,10.1.1.2,30,-0.010,-0.010,-0.010,0.000,0.000,0.000
1644350955887641856,2022-02-08-20:09:15,10.1.1.2,19,-0.020,-0.020,-0.020,0.000,0.000,0.000
1644350955997286144,2022-02-08-20:09:15,10.1.1.2,29,-0.030,-0.030,-0.030,0.000,0.000,0.000
1644350956097531136,2022-02-08-20:09:16,10.1.1.2,28,-0.040,-0.040,-0.040,0.000,0.000,0.000
1644350956207345920,2022-02-08-20:09:16,10.1.1.2,37,-0.050,-0.050,-0.050,0.000,0.000,0.000
1644350956297136128,2022-02-08-20:09:16,10.1.1.2,27,-0.060,-0.060,-0.060,0.000,0.000,0.000
1644350956396857088,2022-02-08-20:09:16,10.1.1.2,26,-0.070,-0.070,-0.070,0.000,0.000,0.000
1644350956506441216,2022-02-08-20:09:16,10.1.1.2,36,-0.080,-0.080,-0.080,0.000,0.000,0.000
1644350956596872192,2022-02-08-20:09:16,10.1.1.2,25,-0.090,-0.090,-0.090,0.000,0.000,0.000
1644350956707008000,2022-02-08-20:09:16,10.1.1.2,34,-0.100,-0.100,-0.100,0.000,0.000,0.000
1644350956797003008,2022-02-08-20:09:16,10.1.1.2,23,-0.090,-0.090,-0.090,0.000,0.000,0.000
1644350956896625920,2022-02-08-20:09:16,10.1.1.2,23,-0.080,-0.080,-0.080,0.000,0.000,0.000
1644350957015086848,2022-02-08-20:09:17,10.1.1.2,25,-0.070,-0.070,-0.070,0.000,0.000,0.000
1644350957116908032,2022-02-08-20:09:17,10.1.1.2,34,-0.060,-0.060,-0.060,0.000,0.000,0.000
1644350957266028800,2022-02-08-20:09:17,10.1.1.2,27,-0.050,-0.050,-0.050,0.000,0.000,0.000
1644350957326828032,2022-02-08-20:09:17,10.1.1.2,30,-0.040,-0.040,-0.040,0.000,0.000,0.000
1644350957441541888,2022-02-08-20:09:17,10.1.1.2,25,-0.030,-0.030,-0.030,0.000,0.000,0.000
1644350957547329024,2022-02-08-20:09:17,10.1.1.2,30,-0.020,-0.020,-0.020,0.000,0.000,0.000
1644350957643926016,2022-02-08-20:09:17,10.1.1.2,20,-0.010,-0.010,-0.010,0.000,0.000,0.000
1644350957757244160,2022-02-08-20:09:17,10.1.1.2,38,0.000,0.000,0.000,0.000,0.000,0.000
1644350957846780160,2022-02-08-20:09:17,10.1.1.2,28,0.010,0.010,0.010,0.000,0.000,0.000
1644350957947386880,2022-02-08-20:09:17,10.1.1.2,27,0.020,0.020,0.020,0.000,0.000,0.000
1644350958059245056,2022-02-08-20:09:18,10.1.1.2,36,0.030,0.030,0.030,0.000,0.000,0.000
1644350958156771072,2022-02-08-20:09:18,10.1.1.2,35,0.040,0.040,0.040,0.000,0.000,0.000
1644350958267771904,2022-02-08-20:09:18,10.1.1.2,44,0.050,0.050,0.050,0.000,0.000,0.000
1644350958367651072,2022-02-08-20:09:18,10.1.1.2,34,0.060,0.060,0.060,0.000,0.000,0.000
1644350958467757824,2022-02-08-20:09:18,10.1.1.2,33,0.070,0.070,0.070,0.000,0.000,0.000
1644350958567461888,2022-02-08-20:09:18,10.1.1.2,32,0.080,0.080,0.080,0.000,0.000,0.000
1644350958667404800,2022-02-08-20:09:18,10.1.1.2,32,0.090,0.090,0.090,0.000,0.000,0.000
1644350958767673088,2022-02-08-20:09:18,10.1.1.2,31,0.100,0.100,0.100,0.000,0.000,0.000
1644350958867034880,2022-02-08-20:09:18,10.1.1.2,30,0.090,0.090,0.090,0.000,0.000,0.000
1644350958957103872,2022-02-08-20:09:18,10.1.1.2,20,0.080,0.080,0.080,0.000,0.000,0.000
1644350959056919040,2022-02-08-20:09:19,10.1.1.2,19,0.071,0.071,0.071,0.000,0.000,0.000
1644350959167720960,2022-02-08-20:09:19,10.1.1.2,28,0.060,0.060,0.060,0.000,0.000,0.000
1644350959287457024,2022-02-08-20:09:19,10.1.1.2,47,0.050,0.050,0.050,0.000,0.000,0.000
1644350959367245824,2022-02-08-20:09:19,10.1.1.2,26,0.040,0.040,0.040,0.000,0.000,0.000
1644350959467545088,2022-02-08-20:09:19,10.1.1.2,25,0.030,0.030,0.030,0.000,0.000,0.000
1644350959568414976,2022-02-08-20:09:19,10.1.1.2,24,0.020,0.020,0.020,0.000,0.000,0.000
1644350959667033856,2022-02-08-20:09:19,10.1.1.2,24,0.010,0.010,0.010,0.000,0.000,0.000
1644350959767531008,2022-02-08-20:09:19,10.1.1.2,22,0.000,0.000,0.000,0.000,0.000,0.000
1644350959877246976,2022-02-08-20:09:19,10.1.1.2,31,-0.010,-0.010,-0.010,0.000,0.000,0.000
1644350959977180928,2022-02-08-20:09:19,10.1.1.2,30,-0.020,-0.020,-0.020,0.000,0.000,0.000
1644350960087329024,2022-02-08-20:09:20,10.1.1.2,40,-0.030,-0.030,-0.030,0.000,0.000,0.000
1644350960188201984,2022-02-08-20:09:20,10.1.1.2,39,-0.040,-0.040,-0.040,0.000,0.000,0.000
1644350960277276160,2022-02-08-20:09:20,10.1.1.2,28,-0.050,-0.050,-0.050,0.000,0.000,0.000
1644350960376732160,2022-02-08-20:09:20,10.1.1.2,27,-0.060,-0.060,-0.060,0.000,0.000,0.000
1644350960477780992,2022-02-08-20:09:20,10.1.1.2,28,-0.070,-0.070,-0.070,0.000,0.000,0.000
1644350960587129088,2022-02-08-20:09:20,10.1.1.2,36,-0.080,-0.080,-0.080,0.000,0.000,0.000
1644350960686791936,2022-02-08-20:09:20,10.1.1.2,36,-0.090,-0.090,-0.090,0.000,0.000,0.000
1644350960777307136,2022-02-08-20:09:20,10.1.1.2,26,-0.100,-0.100,-0.100,0.000,0.000,0.000
1644350960876940032,2022-02-08-20:09:20,10.1.1.2,25,-0.090,-0.090,-0.090,0.000,0.000,0.000
1644350960987153152,2022-02-08-20:09:20,10.1.1.2,35,-0.080,-0.080,-0.080,0.000,0.000,0.000
1644350961076969984,2022-02-08-20:09:21,10.1.1.2,24,-0.070,-0.070,-0.070,0.000,0.000,0.000
1644350961186831104,2022-02-08-20:09:21,10.1.1.2,33,-0.060,-0.060,-0.060,0.000,0.000,0.000
1644350961287661056,2022-02-08-20:09:21,10.1.1.2,32,-0.050,-0.050,-0.050,0.000,0.000,0.000
1644350961376989952,2022-02-08-20:09:21,10.1.1.2,22,-0.040,-0.040,-0.040,0.000,0.000,0.000
1644350961476790016,2022-02-08-20:09:21,10.1.1.2,21,-0.030,-0.030,-0.030,0.000,0.000,0.000
1644350961577219840,2022-02-08-20:09:21,10.1.1.2,21,-0.020,-0.020,-0.020,0.000,0.000,0.000
1644350961677277952,2022-02-08-20:09:21,10.1.1.2,20,-0.010,-0.010,-0.010,0.000,0.000,0.000
1644350961776973056,2022-02-08-20:09:21,10.1.1.2,20,0.000,0.000,0.000,0.000,0.000,0.000
1644350961886939136,2022-02-08-20:09:21,10.1.1.2,29,0.010,0.010,0.010,0.000,0.000,0.000
1644350961986535936,2022-02-08-20:09:21,10.1.1.2,28,0.020,0.020,0.020,0.000,0.000,0.000
1644350962106386944,2022-02-08-20:09:22,10.1.1.2,48,0.030,0.030,0.030,0.000,0.000,0.000
1644350962207257088,2022-02-08-20:09:22,10.1.1.2,47,0.040,0.040,0.040,0.000,0.000,0.000
1644350962306555136,2022-02-08-20:09:22,10.1.1.2,47,0.050,0.050,0.050,0.000,0.000,0.000
1644350962387036928,2022-02-08-20:09:22,10.1.1.2,26,0.060,0.060,0.060,0.000,0.000,0.000
1644350962487080960,2022-02-08-20:09:22,10.1.1.2,26,0.070,0.070,0.070,0.000,0.000,0.000
1644350962587079936,2022-02-08-20:09:22,10.1.1.2,26,0.080,0.080,0.080,0.000,0.000,0.000
1644350962706774016,2022-02-08-20:09:22,10.1.1.2,45,0.090,0.090,0.090,0.000,0.000,0.000
1644350962797348864,2022-02-08-20:09:22,10.1.1.2,34,0.100,0.100,0.100,0.000,0.000,0.000
1644350962897708800,2022-02-08-20:09:22,10.1.1.2,34,0.090,0.090,0.090,0.000,0.000,0.000
1644350963006606080,2022-02-08-20:09:23,10.1.1.2,43,0.080,0.080,0.080,0.000,0.000,0.000
1644350963087933184,2022-02-08-20:09:23,10.1.1.2,22,0.070,0.070,0.070,0.000,0.000,0.000
1644350963200365056,2022-02-08-20:09:23,10.1.1.2,31,0.060,0.060,0.060,0.000,0.000,0.000
1644350963306458880,2022-02-08-20:09:23,10.1.1.2,40,0.050,0.050,0.050,0.000,0.000,0.000
1644350963396955904,2022-02-08-20:09:23,10.1.1.2,30,0.040,0.040,0.040,0.000,0.000,0.000
1644350963506630912,2022-02-08-20:09:23,10.1.1.2,40,0.030,0.030,0.030,0.000,0.000,0.000
1644350963609314816,2022-02-08-20:09:23,10.1.1.2,39,0.020,0.020,0.020,0.000,0.000,0.000
1644350963696609024,2022-02-08-20:09:23,10.1.1.2,28,0.010,0.010,0.010,0.000,0.000,0.000
1644350963798099968,2022-02-08-20:09:23,10.1.1.2,27,0.000,0.000,0.000,0.000,0.000,0.000
1644350963897414912,2022-02-08-20:09:23,10.1.1.2,27,-0.010,-0.010,-0.010,0.000,0.000,0.000
1644350963997843968,2022-02-08-20:09:23,10.1.1.2,27,-0.020,-0.020,-0.020,0.000,0.000,0.000
1644350964097070848,2022-02-08-20:09:24,10.1.1.2,26,-0.030,-0.030,-0.030,0.000,0.000,0.000
1644350964197040128,2022-02-08-20:09:24,10.1.1.2,26,-0.040,-0.040,-0.040,0.000,0.000,0.000
1644350964296955136,2022-02-08-20:09:24,10.1.1.2,25,-0.050,-0.050,-0.050,0.000,0.000,0.000
1644350964397871872,2022-02-08-20:09:24,10.1.1.2,24,-0.060,-0.060,-0.060,0.000,0.000,0.000
1644350964496649984,2022-02-08-20:09:24,10.1.1.2,24,-0.070,-0.070,-0.070,0.000,0.000,0.000
1644350964606725888,2022-02-08-20:09:24,10.1.1.2,33,-0.080,-0.080,-0.080,0.000,0.000,0.000
1644350964696825088,2022-02-08-20:09:24,10.1.1.2,22,-0.090,-0.090,-0.090,0.000,0.000,0.000
1644350964796619008,2022-02-08-20:09:24,10.1.1.2,22,-0.100,-0.100,-0.100,0.000,0.000,0.000
1644350964897185024,2022-02-08-20:09:24,10.1.1.2,21,-0.090,-0.090,-0.090,0.000,0.000,0.000
1644350964996849152,2022-02-08-20:09:24,10.1.1.2,21,-0.080,-0.080,-0.080,0.000,0.000,0.000
1644350965097545984,2022-02-08-20:09:25,10.1.1.2,20,-0.070,-0.070,-0.070,0.000,0.000,0.000
1644350965206497792,2022-02-08-20:09:25,10.1.1.2,30,-0.060,-0.060,-0.060,0.000,0.000,0.000
1644350965297121024,2022-02-08-20:09:25,10.1.1.2,19,-0.051,-0.051,-0.051,0.000,0.000,0.000
1644350965406831104,2022-02-08-20:09:25,10.1.1.2,28,-0.040,-0.040,-0.040,0.000,0.000,0.000
1644350965516995072,2022-02-08-20:09:25,10.1.1.2,38,-0.030,-0.030,-0.030,0.000,0.000,0.000
1644350965617132800,2022-02-08-20:09:25,10.1.1.2,37,-0.020,-0.020,-0.020,0.000,0.000,0.000
1644350965707344128,2022-02-08-20:09:25,10.1.1.2,27,-0.010,-0.010,-0.010,0.000,0.000,0.000
1644350965806937856,2022-02-08-20:09:25,10.1.1.2,26,0.000,0.000,0.000,0.000,0.000,0.000
1644350965906821120,2022-02-08-20:09:25,10.1.1.2,25,0.010,0.010,0.010,0.000,0.000,0.000
1644350966017015040,2022-02-08-20:09:26,10.1.1.2,35,0.020,0.020,0.020,0.000,0.000,0.000
1644350966107866112,2022-02-08-20:09:26,10.1.1.2,24,0.030,0.030,0.030,0.000,0.000,0.000
1644350966226856960,2022-02-08-20:09:26,10.1.1.2,43,0.040,0.040,0.040,0.000,0.000,0.000
1644350966307389952,2022-02-08-20:09:26,10.1.1.2,23,0.050,0.050,0.050,0.000,0.000,0.000
1644350966406988032,2022-02-08-20:09:26,10.1.1.2,22,0.060,0.060,0.060,0.000,0.000,0.000
1644350966517896960,2022-02-08-20:09:26,10.1.1.2,31,0.070,0.070,0.070,0.000,0.000,0.000
1644350966617587200,2022-02-08-20:09:26,10.1.1.2,31,0.080,0.080,0.080,0.000,0.000,0.000
1644350966706963968,2022-02-08-20:09:26,10.1.1.2,20,0.090,0.090,0.090,0.000,0.000,0.000
1644350966816518144,2022-02-08-20:09:26,10.1.1.2,30,0.100,0.100,0.100,0.000,0.000,0.000
1644350966917402112,2022-02-08-20:09:26,10.1.1.2,30,0.090,0.090,0.090,0.000,0.000,0.000
1644350967007035136,2022-02-08-20:09:27,10.1.1.2,19,0.081,0.081,0.081,0.000,0.000,0.000
1644350967116681216,2022-02-08-20:09:27,10.1.1.2,28,0.070,0.070,0.070,0.000,0.000,0.000
1644350967217576960,2022-02-08-20:09:27,10.1.1.2,28,0.060,0.060,0.060,0.000,0.000,0.000
1644350967316683008,2022-02-08-20:09:27,10.1.1.2,27,0.050,0.050,0.050,0.000,0.000,0.000
1644350967427514112,2022-02-08-20:09:27,10.1.1.2,37,0.040,0.040,0.040,0.000,0.000,0.000
1644350967517334016,2022-02-08-20:09:27,10.1.1.2,26,0.030,0.030,0.030,0.000,0.000,0.000
1644350967617313024,2022-02-08-20:09:27,10.1.1.2,26,0.020,0.020,0.020,0.000,0.000,0.000
1644350967717298944,2022-02-08-20:09:27,10.1.1.2,25,0.010,0.010,0.010,0.000,0.000,0.000
1644350967818371072,2022-02-08-20:09:27,10.1.1.2,25,0.000,0.000,0.000,0.000,0.000,0.000
1644350967917216000,2022-02-08-20:09:27,10.1.1.2,24,-0.010,-0.010,-0.010,0.000,0.000,0.000
1644350968017373184,2022-02-08-20:09:28,10.1.1.2,23,-0.020,-0.020,-0.020,0.000,0.000,0.000
1644350968126713088,2022-02-08-20:09:28,10.1.1.2,33,-0.030,-0.030,-0.030,0.000,0.000,0.000
1644350968226889984,2022-02-08-20:09:28,10.1.1.2,32,-0.040,-0.040,-0.040,0.000,0.000,0.000
1644350968317426944,2022-02-08-20:09:28,10.1.1.2,22,-0.050,-0.050,-0.050,0.000,0.000,0.000
1644350968416834048,2022-02-08-20:09:28,10.1.1.2,21,-0.060,-0.060,-0.060,0.000,0.000,0.000
1644350968517852160,2022-02-08-20:09:28,10.1.1.2,21,-0.070,-0.070,-0.070,0.000,0.000,0.000
1644350968616578048,2022-02-08-20:09:28,10.1.1.2,20,-0.080,-0.080,-0.080,0.000,0.000,0.000
1644350968726744832,2022-02-08-20:09:28,10.1.1.2,30,-0.090,-0.090,-0.090,0.000,0.000,0.000
1644350968817222144,2022-02-08-20:09:28,10.1.1.2,19,-0.100,-0.100,-0.100,0.000,0.000,0.000
1644350968917315072,2022-02-08-20:09:28,10.1.1.2,19,-0.091,-0.091,-0.091,0.000,0.000,0.000
1644350969038657024,2022-02-08-20:09:29,10.1.1.2,38,-0.080,-0.080,-0.080,0.000,0.000,0.000
1644350969137620992,2022-02-08-20:09:29,10.1.1.2,38,-0.070,-0.070,-0.070,0.000,0.000,0.000
1644350969227150848,2022-02-08-20:09:29,10.1.1.2,28,-0.060,-0.060,-0.060,0.000,0.000,0.000
1644350969327783168,2022-02-08-20:09:29,10.1.1.2,27,-0.050,-0.050,-0.050,0.000,0.000,0.000
1644350969427002880,2022-02-08-20:09:29,10.1.1.2,26,-0.040,-0.040,-0.040,0.000,0.000,0.000
1644350969527486976,2022-02-08-20:09:29,10.1.1.2,26,-0.030,-0.030,-0.030,0.000,0.000,0.000
1644350969646540032,2022-02-08-20:09:29,10.1.1.2,44,-0.020,-0.020,-0.020,0.000,0.000,0.000
1644350969747066880,2022-02-08-20:09:29,10.1.1.2,44,-0.010,-0.010,-0.010,0.000,0.000,0.000
1644350969827117824,2022-02-08-20:09:29,10.1.1.2,24,0.000,0.000,0.000,0.000,0.000,0.000
1644350969937414912,2022-02-08-20:09:29,10.1.1.2,33,0.010,0.010,0.010,0.000,0.000,0.000
1644350970027010816,2022-02-08-20:09:30,10.1.1.2,23,0.020,0.020,0.020,0.000,0.000,0.000
1644350970136862976,2022-02-08-20:09:30,10.1.1.2,32,0.030,0.030,0.030,0.000,0.000,0.000
1644350970226944000,2022-02-08-20:09:30,10.1.1.2,22,0.040,0.040,0.040,0.000,0.000,0.000
1644350970326734080,2022-02-08-20:09:30,10.1.1.2,21,0.050,0.050,0.050,0.000,0.000,0.000
1644350970427326976,2022-02-08-20:09:30,10.1.1.2,21,0.060,0.060,0.060,0.000,0.000,0.000
1644350970546659840,2022-02-08-20:09:30,10.1.1.2,40,0.070,0.070,0.070,0.000,0.000,0.000
1644350970636673024,2022-02-08-20:09:30,10.1.1.2,30,0.080,0.080,0.080,0.000,0.000,0.000
1644350970746635008,2022-02-08-20:09:30,10.1.1.2,39,0.090,0.090,0.090,0.000,0.000,0.000
1644350970836816128,2022-02-08-20:09:30,10.1.1.2,29,0.100,0.100,0.100,0.000,0.000,0.000
1644350970937028864,2022-02-08-20:09:30,10.1.1.2,28,0.090,0.090,0.090,0.000,0.000,0.000
1644350971036679936,2022-02-08-20:09:31,10.1.1.2,28,0.080,0.080,0.080,0.000,0.000,0.000
1644350971136984064,2022-02-08-20:09:31,10.1.1.2,27,0.070,0.070,0.070,0.000,0.000,0.000
1644350971237273088,2022-02-08-20:09:31,10.1.1.2,27,0.060,0.060,0.060,0.000,0.000,0.000
1644350971347117056,2022-02-08-20:09:31,10.1.1.2,36,0.050,0.050,0.050,0.000,0.000,0.000
1644350971436891136,2022-02-08-20:09:31,10.1.1.2,26,0.040,0.040,0.040,0.000,0.000,0.000
1644350971546977024,2022-02-08-20:09:31,10.1.1.2,35,0.030,0.030,0.030,0.000,0.000,0.000
1644350971638371840,2022-02-08-20:09:31,10.1.1.2,25,0.020,0.020,0.020,0.000,0.000,0.000
1644350971737134080,2022-02-08-20:09:31,10.1.1.2,24,0.010,0.010,0.010,0.000,0.000,0.000
1644350971837029888,2022-02-08-20:09:31,10.1.1.2,23,0.000,0.000,0.000,0.000,0.000,0.000
1644350971946865152,2022-02-08-20:09:31,10.1.1.2,33,-0.010,-0.010,-0.010,0.000,0.000,0.000
1644350972037195008,2022-02-08-20:09:32,10.1.1.2,22,-0.020,-0.020,-0.020,0.000,0.000,0.000
1644350972147399936,2022-02-08-20:09:32,10.1.1.2,32,-0.030,-0.030,-0.030,0.000,0.000,0.000
1644350972237756928,2022-02-08-20:09:32,10.1.1.2,21,-0.040,-0.040,-0.040,0.000,0.000,0.000
1644350972337019904,2022-02-08-20:09:32,10.1.1.2,21,-0.050,-0.050,-0.050,0.000,0.000,0.000
1644350972447089920,2022-02-08-20:09:32,10.1.1.2,30,-0.060,-0.060,-0.060,0.000,0.000,0.000
1644350972537743104,2022-02-08-20:09:32,10.1.1.2,20,-0.070,-0.070,-0.070,0.000,0.000,0.000
1644350972636926976,2022-02-08-20:09:32,10.1.1.2,19,-0.080,-0.080,-0.080,0.000,0.000,0.000
1644350972757607936,2022-02-08-20:09:32,10.1.1.2,38,-0.090,-0.090,-0.090,0.000,0.000,0.000
1644350972846853120,2022-02-08-20:09:32,10.1.1.2,28,-0.100,-0.100,-0.100,0.000,0.000,0.000
1644350972946921984,2022-02-08-20:09:32,10.1.1.2,28,-0.090,-0.090,-0.090,0.000,0.000,0.000
1644350973056827136,2022-02-08-20:09:33,10.1.1.2,37,-0.080,-0.080,-0.080,0.000,0.000,0.000
1644350973158821120,2022-02-08-20:09:33,10.1.1.2,37,-0.070,-0.070,-0.070,0.000,0.000,0.000
1644350973266857984,2022-02-08-20:09:33,10.1.1.2,46,-0.060,-0.060,-0.060,0.000,0.000,0.000
1644350973357961984,2022-02-08-20:09:33,10.1.1.2,36,-0.050,-0.050,-0.050,0.000,0.000,0.000
1644350973456923904,2022-02-08-20:09:33,10.1.1.2,35,-0.040,-0.040,-0.040,0.000,0.000,0.000
1644350973557583104,2022-02-08-20:09:33,10.1.1.2,34,-0.030,-0.030,-0.030,0.000,0.000,0.000
1644350973657978112,2022-02-08-20:09:33,10.1.1.2,34,-0.020,-0.020,-0.020,0.000,0.000,0.000
1644350973766857984,2022-02-08-20:09:33,10.1.1.2,43,-0.010,-0.010,-0.010,0.000,0.000,0.000
1644350973846999040,2022-02-08-20:09:33,10.1.1.2,22,0.000,0.000,0.000,0.000,0.000,0.000
1644350973956724992,2022-02-08-20:09:33,10.1.1.2,31,0.010,0.010,0.010,0.000,0.000,0.000
1644350974046833920,2022-02-08-20:09:34,10.1.1.2,20,0.020,0.020,0.020,0.000,0.000,0.000
1644350974146905856,2022-02-08-20:09:34,10.1.1.2,20,0.030,0.030,0.030,0.000,0.000,0.000
1644350974256652032,2022-02-08-20:09:34,10.1.1.2,29,0.040,0.040,0.040,0.000,0.000,0.000
1644350974356657920,2022-02-08-20:09:34,10.1.1.2,29,0.050,0.050,0.050,0.000,0.000,0.000
1644350974456645888,2022-02-08-20:09:34,10.1.1.2,28,0.060,0.060,0.060,0.000,0.000,0.000
1644350974558129152,2022-02-08-20:09:34,10.1.1.2,28,0.070,0.070,0.070,0.000,0.000,0.000
1644350974656788992,2022-02-08-20:09:34,10.1.1.2,27,0.080,0.080,0.080,0.000,0.000,0.000
1644350974757144064,2022-02-08-20:09:34,10.1.1.2,27,0.090,0.090,0.090,0.000,0.000,0.000
1644350974856751872,2022-02-08-20:09:34,10.1.1.2,26,0.100,0.100,0.100,0.000,0.000,0.000
1644350974956770048,2022-02-08-20:09:34,10.1.1.2,26,0.090,0.090,0.090,0.000,0.000,0.000
1644350975058489088,2022-02-08-20:09:35,10.1.1.2,26,0.080,0.080,0.080,0.000,0.000,0.000
1644350975166707968,2022-02-08-20:09:35,10.1.1.2,35,0.070,0.070,0.070,0.000,0.000,0.000
1644350975266638080,2022-02-08-20:09:35,10.1.1.2,34,0.060,0.060,0.060,0.000,0.000,0.000
1644350975367582208,2022-02-08-20:09:35,10.1.1.2,34,0.050,0.050,0.050,0.000,0.000,0.000
1644350975466852864,2022-02-08-20:09:35,10.1.1.2,31,0.040,0.040,0.040,0.000,0.000,0.000
1644350975567485184,2022-02-08-20:09:35,10.1.1.2,30,0.030,0.030,0.030,0.000,0.000,0.000
1644350975657646848,2022-02-08-20:09:35,10.1.1.2,19,0.020,0.020,0.020,0.000,0.000,0.000
1644350975767205888,2022-02-08-20:09:35,10.1.1.2,29,0.010,0.010,0.010,0.000,0.000,0.000
1644350975867090944,2022-02-08-20:09:35,10.1.1.2,28,0.000,0.000,0.000,0.000,0.000,0.000
1644350975970222848,2022-02-08-20:09:35,10.1.1.2,20,-0.010,-0.010,-0.010,0.000,0.000,0.000
1644350976088076032,2022-02-08-20:09:36,10.1.1.2,39,-0.020,-0.020,-0.020,0.000,0.000,0.000
1644350976194649856,2022-02-08-20:09:36,10.1.1.2,25,-0.030,-0.030,-0.030,0.000,0.000,0.000
1644350976278185984,2022-02-08-20:09:36,10.1.1.2,23,-0.040,-0.040,-0.040,0.000,0.000,0.000
1644350976379021056,2022-02-08-20:09:36,10.1.1.2,22,-0.050,-0.050,-0.050,0.000,0.000,0.000
1644350976477995008,2022-02-08-20:09:36,10.1.1.2,20,-0.060,-0.060,-0.060,0.000,0.000,0.000
1644350976578264832,2022-02-08-20:09:36,10.1.1.2,19,-0.070,-0.070,-0.070,0.000,0.000,0.000
1644350976697485056,2022-02-08-20:09:36,10.1.1.2,36,-0.080,-0.080,-0.080,0.000,0.000,0.000
1644350976807729920,2022-02-08-20:09:36,10.1.1.2,44,-0.090,-0.090,-0.090,0.000,0.000,0.000
1644350976908828928,2022-02-08-20:09:36,10.1.1.2,44,-0.100,-0.100,-0.100,0.000,0.000,0.000
1644350976988344064,2022-02-08-20:09:36,10.1.1.2,23,-0.090,-0.090,-0.090,0.000,0.000,0.000
1644350977129961984,2022-02-08-20:09:37,10.1.1.2,42,-0.080,-0.080,-0.080,0.000,0.000,0.000
1644350977197451008,2022-02-08-20:09:37,10.1.1.2,23,-0.070,-0.070,-0.070,0.000,0.000,0.000
1644350977317723904,2022-02-08-20:09:37,10.1.1.2,38,-0.060,-0.060,-0.060,0.000,0.000,0.000
1644350977417406976,2022-02-08-20:09:37,10.1.1.2,38,-0.050,-0.050,-0.050,0.000,0.000,0.000
1644350977507538944,2022-02-08-20:09:37,10.1.1.2,27,-0.040,-0.040,-0.040,0.000,0.000,0.000
1644350977607959040,2022-02-08-20:09:37,10.1.1.2,27,-0.030,-0.030,-0.030,0.000,0.000,0.000
1644350977727917824,2022-02-08-20:09:37,10.1.1.2,47,-0.020,-0.020,-0.020,0.000,0.000,0.000
1644350977907873024,2022-02-08-20:09:37,10.1.1.2,20,-0.000,-0.000,-0.000,0.000,0.000,0.000
1644350978028173824,2022-02-08-20:09:38,10.1.1.2,32,0.010,0.010,0.010,0.000,0.000,0.000
1644350978127831040,2022-02-08-20:09:38,10.1.1.2,31,0.020,0.020,0.020,0.000,0.000,0.000
1644350978228261888,2022-02-08-20:09:38,10.1.1.2,31,0.030,0.030,0.030,0.000,0.000,0.000
1644350978327707136,2022-02-08-20:09:38,10.1.1.2,30,0.040,0.040,0.040,0.000,0.000,0.000
1644350978427931136,2022-02-08-20:09:38,10.1.1.2,30,0.050,0.050,0.050,0.000,0.000,0.000
1644350978518471936,2022-02-08-20:09:38,10.1.1.2,19,0.059,0.059,0.059,0.000,0.000,0.000
1644350978648060160,2022-02-08-20:09:38,10.1.1.2,48,0.070,0.070,0.070,0.000,0.000,0.000
1644350978737133056,2022-02-08-20:09:38,10.1.1.2,37,0.080,0.080,0.080,0.000,0.000,0.000
1644350978848700928,2022-02-08-20:09:38,10.1.1.2,47,0.090,0.090,0.090,0.000,0.000,0.000
1644350978938486016,2022-02-08-20:09:38,10.1.1.2,36,0.100,0.100,0.100,0.000,0.000,0.000
1644350979037602048,2022-02-08-20:09:39,10.1.1.2,34,0.090,0.090,0.090,0.000,0.000,0.000
1644350979128889088,2022-02-08-20:09:39,10.1.1.2,24,0.080,0.080,0.080,0.000,0.000,0.000
1644350979238166016,2022-02-08-20:09:39,10.1.1.2,33,0.070,0.070,0.070,0.000,0.000,0.000
1644350979329415168,2022-02-08-20:09:39,10.1.1.2,21,0.060,0.060,0.060,0.000,0.000,0.000
1644350979427503104,2022-02-08-20:09:39,10.1.1.2,20,0.050,0.050,0.050,0.000,0.000,0.000
1644350979527827968,2022-02-08-20:09:39,10.1.1.2,20,0.040,0.040,0.040,0.000,0.000,0.000
1644350979647828992,2022-02-08-20:09:39,10.1.1.2,39,0.030,0.030,0.030,0.000,0.000,0.000
1644350979748434944,2022-02-08-20:09:39,10.1.1.2,36,0.020,0.020,0.020,0.000,0.000,0.000
1644350979849289984,2022-02-08-20:09:39,10.1.1.2,35,0.010,0.010,0.010,0.000,0.000,0.000
1644350979939523072,2022-02-08-20:09:39,10.1.1.2,22,0.000,0.000,0.000,0.000,0.000,0.000
1644350980039223040,2022-02-08-20:09:40,10.1.1.2,22,-0.010,-0.010,-0.010,0.000,0.000,0.000
1644350980138441984,2022-02-08-20:09:40,10.1.1.2,21,-0.020,-0.020,-0.020,0.000,0.000,0.000
1644350980250068992,2022-02-08-20:09:40,10.1.1.2,31,-0.030,-0.030,-0.030,0.000,0.000,0.000
1644350980348788992,2022-02-08-20:09:40,10.1.1.2,30,-0.040,-0.040,-0.040,0.000,0.000,0.000
1644350980457355008,2022-02-08-20:09:40,10.1.1.2,38,-0.050,-0.050,-0.050,0.000,0.000,0.000
1644350980546829056,2022-02-08-20:09:40,10.1.1.2,27,-0.060,-0.060,-0.060,0.000,0.000,0.000
1644350980677289984,2022-02-08-20:09:40,10.1.1.2,28,-0.070,-0.070,-0.070,0.000,0.000,0.000
1644350980777592064,2022-02-08-20:09:40,10.1.1.2,27,-0.080,-0.080,-0.080,0.000,0.000,0.000
1644350980889466112,2022-02-08-20:09:40,10.1.1.2,37,-0.090,-0.090,-0.090,0.000,0.000,0.000
1644350980988204032,2022-02-08-20:09:40,10.1.1.2,36,-0.100,-0.100,-0.100,0.000,0.000,0.000
1644350981079211008,2022-02-08-20:09:41,10.1.1.2,26,-0.090,-0.090,-0.090,0.000,0.000,0.000
1644350981185854976,2022-02-08-20:09:41,10.1.1.2,25,-0.080,-0.080,-0.080,0.000,0.000,0.000
1644350981290315008,2022-02-08-20:09:41,10.1.1.2,33,-0.070,-0.070,-0.070,0.000,0.000,0.000
1644350981377425920,2022-02-08-20:09:41,10.1.1.2,22,-0.060,-0.060,-0.060,0.000,0.000,0.000
1644350981488492032,2022-02-08-20:09:41,10.1.1.2,32,-0.050,-0.050,-0.050,0.000,0.000,0.000
1644350981578358784,2022-02-08-20:09:41,10.1.1.2,20,-0.040,-0.040,-0.040,0.000,0.000,0.000
1644350981747723008,2022-02-08-20:09:41,10.1.1.2,34,-0.030,-0.030,-0.030,0.000,0.000,0.000
1644350981838856960,2022-02-08-20:09:41,10.1.1.2,20,-0.020,-0.020,-0.020,0.000,0.000,0.000
1644350981960877056,2022-02-08-20:09:41,10.1.1.2,38,-0.010,-0.010,-0.010,0.000,0.000,0.000
1644350982068900096,2022-02-08-20:09:42,10.1.1.2,45,0.000,0.000,0.000,0.000,0.000,0.000
1644350982159183104,2022-02-08-20:09:42,10.1.1.2,34,0.010,0.010,0.010,0.000,0.000,0.000
1644350982249304064,2022-02-08-20:09:42,10.1.1.2,24,0.020,0.020,0.020,0.000,0.000,0.000
1644350982357063936,2022-02-08-20:09:42,10.1.1.2,32,0.030,0.030,0.030,0.000,0.000,0.000
1644350982466928896,2022-02-08-20:09:42,10.1.1.2,41,0.040,0.040,0.040,0.000,0.000,0.000
1644350982548261888,2022-02-08-20:09:42,10.1.1.2,20,0.050,0.050,0.050,0.000,0.000,0.000
1644350982647260928,2022-02-08-20:09:42,10.1.1.2,20,0.060,0.060,0.060,0.000,0.000,0.000
1644350982757061888,2022-02-08-20:09:42,10.1.1.2,29,0.070,0.070,0.070,0.000,0.000,0.000
1644350982867211008,2022-02-08-20:09:42,10.1.1.2,37,0.080,0.080,0.080,0.000,0.000,0.000
1644350982957425152,2022-02-08-20:09:42,10.1.1.2,27,0.090,0.090,0.090,0.000,0.000,0.000
1644350983056883968,2022-02-08-20:09:43,10.1.1.2,26,0.100,0.100,0.100,0.000,0.000,0.000
1644350983157212928,2022-02-08-20:09:43,10.1.1.2,26,0.090,0.090,0.090,0.000,0.000,0.000
1644350983266925056,2022-02-08-20:09:43,10.1.1.2,35,0.080,0.080,0.080,0.000,0.000,0.000
1644350983367132928,2022-02-08-20:09:43,10.1.1.2,33,0.070,0.070,0.070,0.000,0.000,0.000
1644350983457395200,2022-02-08-20:09:43,10.1.1.2,23,0.060,0.060,0.060,0.000,0.000,0.000
1644350983557213952,2022-02-08-20:09:43,10.1.1.2,22,0.050,0.050,0.050,0.000,0.000,0.000
1644350983657171968,2022-02-08-20:09:43,10.1.1.2,21,0.040,0.040,0.040,0.000,0.000,0.000
1644350983767108864,2022-02-08-20:09:43,10.1.1.2,31,0.030,0.030,0.030,0.000,0.000,0.000
1644350983857428992,2022-02-08-20:09:43,10.1.1.2,19,0.021,0.021,0.021,0.000,0.000,0.000
1644350983967333120,2022-02-08-20:09:43,10.1.1.2,27,0.010,0.010,0.010,0.000,0.000,0.000
1644350984076798976,2022-02-08-20:09:44,10.1.1.2,36,0.000,0.000,0.000,0.000,0.000,0.000
1644350984176986880,2022-02-08-20:09:44,10.1.1.2,35,-0.010,-0.010,-0.010,0.000,0.000,0.000
1644350984277260032,2022-02-08-20:09:44,10.1.1.2,34,-0.020,-0.020,-0.020,0.000,0.000,0.000
1644350984366849792,2022-02-08-20:09:44,10.1.1.2,23,-0.030,-0.030,-0.030,0.000,0.000,0.000
1644350984467735040,2022-02-08-20:09:44,10.1.1.2,22,-0.040,-0.040,-0.040,0.000,0.000,0.000
1644350984577490944,2022-02-08-20:09:44,10.1.1.2,31,-0.050,-0.050,-0.050,0.000,0.000,0.000
1644350984668436992,2022-02-08-20:09:44,10.1.1.2,21,-0.060,-0.060,-0.060,0.000,0.000,0.000
1644350984777232896,2022-02-08-20:09:44,10.1.1.2,30,-0.070,-0.070,-0.070,0.000,0.000,0.000
1644350984877861888,2022-02-08-20:09:44,10.1.1.2,28,-0.080,-0.080,-0.080,0.000,0.000,0.000
1644350984977346816,2022-02-08-20:09:44,10.1.1.2,28,-0.090,-0.090,-0.090,0.000,0.000,0.000
1644350985078627072,2022-02-08-20:09:45,10.1.1.2,27,-0.100,-0.100,-0.100,0.000,0.000,0.000
1644350985178738944,2022-02-08-20:09:45,10.1.1.2,26,-0.090,-0.090,-0.090,0.000,0.000,0.000
1644350985277293056,2022-02-08-20:09:45,10.1.1.2,25,-0.080,-0.080,-0.080,0.000,0.000,0.000
1644350985387727872,2022-02-08-20:09:45,10.1.1.2,35,-0.070,-0.070,-0.070,0.000,0.000,0.000
1644350985487144960,2022-02-08-20:09:45,10.1.1.2,34,-0.060,-0.060,-0.060,0.000,0.000,0.000
1644350985579511040,2022-02-08-20:09:45,10.1.1.2,23,-0.050,-0.050,-0.050,0.000,0.000,0.000
1644350985678839040,2022-02-08-20:09:45,10.1.1.2,23,-0.040,-0.040,-0.040,0.000,0.000,0.000
1644350985778272000,2022-02-08-20:09:45,10.1.1.2,22,-0.030,-0.030,-0.030,0.000,0.000,0.000
1644350985887550208,2022-02-08-20:09:45,10.1.1.2,31,-0.020,-0.020,-0.020,0.000,0.000,0.000
1644350985977460992,2022-02-08-20:09:45,10.1.1.2,21,-0.010,-0.010,-0.010,0.000,0.000,0.000
1644350986077892096,2022-02-08-20:09:46,10.1.1.2,20,-0.000,-0.000,-0.000,0.000,0.000,0.000
1644350986188133888,2022-02-08-20:09:46,10.1.1.2,29,0.010,0.010,0.010,0.000,0.000,0.000
1644350986298307840,2022-02-08-20:09:46,10.1.1.2,38,0.020,0.020,0.020,0.000,0.000,0.000
1644350986399364864,2022-02-08-20:09:46,10.1.1.2,26,0.030,0.030,0.030,0.000,0.000,0.000
1644350986507687936,2022-02-08-20:09:46,10.1.1.2,44,0.040,0.040,0.040,0.000,0.000,0.000
1644350986587568896,2022-02-08-20:09:46,10.1.1.2,24,0.050,0.050,0.050,0.000,0.000,0.000
1644350986687298048,2022-02-08-20:09:46,10.1.1.2,23,0.060,0.060,0.060,0.000,0.000,0.000
1644350986808135936,2022-02-08-20:09:46,10.1.1.2,42,0.070,0.070,0.070,0.000,0.000,0.000
1644350986909377024,2022-02-08-20:09:46,10.1.1.2,42,0.080,0.080,0.080,0.000,0.000,0.000
1644350986987834880,2022-02-08-20:09:46,10.1.1.2,21,0.090,0.090,0.090,0.000,0.000,0.000
1644350987108283136,2022-02-08-20:09:47,10.1.1.2,41,0.100,0.100,0.100,0.000,0.000,0.000
1644350987207848960,2022-02-08-20:09:47,10.1.1.2,40,0.090,0.090,0.090,0.000,0.000,0.000
1644350987287246848,2022-02-08-20:09:47,10.1.1.2,20,0.080,0.080,0.080,0.000,0.000,0.000
1644350987398864128,2022-02-08-20:09:47,10.1.1.2,29,0.070,0.070,0.070,0.000,0.000,0.000
1644350987499015936,2022-02-08-20:09:47,10.1.1.2,28,0.060,0.060,0.060,0.000,0.000,0.000
1644350987598573056,2022-02-08-20:09:47,10.1.1.2,27,0.050,0.050,0.050,0.000,0.000,0.000
1644350987723587072,2022-02-08-20:09:47,10.1.1.2,25,0.040,0.040,0.040,0.000,0.000,0.000
1644350987797980928,2022-02-08-20:09:47,10.1.1.2,20,0.030,0.030,0.030,0.000,0.000,0.000
1644350987897664000,2022-02-08-20:09:47,10.1.1.2,19,0.020,0.020,0.020,0.000,0.000,0.000
1644350988018119168,2022-02-08-20:09:48,10.1.1.2,38,0.010,0.010,0.010,0.000,0.000,0.000
1644350988127666944,2022-02-08-20:09:48,10.1.1.2,48,0.000,0.000,0.000,0.000,0.000,0.000
1644350988217540864,2022-02-08-20:09:48,10.1.1.2,37,-0.010,-0.010,-0.010,0.000,0.000,0.000
1644350988319247104,2022-02-08-20:09:48,10.1.1.2,36,-0.020,-0.020,-0.020,0.000,0.000,0.000
1644350988408692992,2022-02-08-20:09:48,10.1.1.2,25,-0.030,-0.030,-0.030,0.000,0.000,0.000
1644350988527152896,2022-02-08-20:09:48,10.1.1.2,44,-0.040,-0.040,-0.040,0.000,0.000,0.000
1644350988609370880,2022-02-08-20:09:48,10.1.1.2,24,-0.050,-0.050,-0.050,0.000,0.000,0.000
1644350988707691008,2022-02-08-20:09:48,10.1.1.2,24,-0.060,-0.060,-0.060,0.000,0.000,0.000
1644350988828697088,2022-02-08-20:09:48,10.1.1.2,43,-0.070,-0.070,-0.070,0.000,0.000,0.000
1644350988917890048,2022-02-08-20:09:48,10.1.1.2,32,-0.080,-0.080,-0.080,0.000,0.000,0.000
1644350989007937792,2022-02-08-20:09:49,10.1.1.2,21,-0.090,-0.090,-0.090,0.000,0.000,0.000
1644350989118365952,2022-02-08-20:09:49,10.1.1.2,30,-0.100,-0.100,-0.100,0.000,0.000,0.000
1644350989218210048,2022-02-08-20:09:49,10.1.1.2,30,-0.090,-0.090,-0.090,0.000,0.000,0.000
1644350989328722944,2022-02-08-20:09:49,10.1.1.2,39,-0.080,-0.080,-0.080,0.000,0.000,0.000
1644350989428800000,2022-02-08-20:09:49,10.1.1.2,38,-0.070,-0.070,-0.070,0.000,0.000,0.000
1644350989518216960,2022-02-08-20:09:49,10.1.1.2,28,-0.060,-0.060,-0.060,0.000,0.000,0.000
1644350989617899008,2022-02-08-20:09:49,10.1.1.2,27,-0.050,-0.050,-0.050,0.000,0.000,0.000
1644350989719053056,2022-02-08-20:09:49,10.1.1.2,26,-0.040,-0.040,-0.040,0.000,0.000,0.000
1644350989818537984,2022-02-08-20:09:49,10.1.1.2,26,-0.030,-0.030,-0.030,0.000,0.000,0.000
1644350989918494976,2022-02-08-20:09:49,10.1.1.2,25,-0.020,-0.020,-0.020,0.000,0.000,0.000
1644350990017440000,2022-02-08-20:09:50,10.1.1.2,24,-0.010,-0.010,-0.010,0.000,0.000,0.000
1644350990117193984,2022-02-08-20:09:50,10.1.1.2,23,0.000,0.000,0.000,0.000,0.000,0.000
1644350990217854976,2022-02-08-20:09:50,10.1.1.2,21,0.010,0.010,0.010,0.000,0.000,0.000
1644350990318471936,2022-02-08-20:09:50,10.1.1.2,20,0.020,0.020,0.020,0.000,0.000,0.000
1644350990417496064,2022-02-08-20:09:50,10.1.1.2,19,0.030,0.030,0.030,0.000,0.000,0.000
1644350990527460096,2022-02-08-20:09:50,10.1.1.2,28,0.040,0.040,0.040,0.000,0.000,0.000
1644350990637548032,2022-02-08-20:09:50,10.1.1.2,38,0.050,0.050,0.050,0.000,0.000,0.000
1644350990737915904,2022-02-08-20:09:50,10.1.1.2,37,0.060,0.060,0.060,0.000,0.000,0.000
1644350990847611904,2022-02-08-20:09:50,10.1.1.2,46,0.070,0.070,0.070,0.000,0.000,0.000
1644350990927997952,2022-02-08-20:09:50,10.1.1.2,25,0.080,0.080,0.080,0.000,0.000,0.000
1644350991038948096,2022-02-08-20:09:51,10.1.1.2,35,0.090,0.090,0.090,0.000,0.000,0.000
1644350991128054016,2022-02-08-20:09:51,10.1.1.2,25,0.100,0.100,0.100,0.000,0.000,0.000
1644350991227703040,2022-02-08-20:09:51,10.1.1.2,24,0.090,0.090,0.090,0.000,0.000,0.000
1644350991337771008,2022-02-08-20:09:51,10.1.1.2,34,0.080,0.080,0.080,0.000,0.000,0.000
1644350991427215104,2022-02-08-20:09:51,10.1.1.2,23,0.070,0.070,0.070,0.000,0.000,0.000
1644350991527782912,2022-02-08-20:09:51,10.1.1.2,22,0.060,0.060,0.060,0.000,0.000,0.000
1644350991637218048,2022-02-08-20:09:51,10.1.1.2,31,0.050,0.050,0.050,0.000,0.000,0.000
1644350991731995136,2022-02-08-20:09:51,10.1.1.2,20,0.040,0.040,0.040,0.000,0.000,0.000
1644350991838362880,2022-02-08-20:09:51,10.1.1.2,28,0.030,0.030,0.030,0.000,0.000,0.000
1644350991938529024,2022-02-08-20:09:51,10.1.1.2,28,0.020,0.020,0.020,0.000,0.000,0.000
1644350992038428160,2022-02-08-20:09:52,10.1.1.2,27,0.010,0.010,0.010,0.000,0.000,0.000
1644350992148695040,2022-02-08-20:09:52,10.1.1.2,37,0.000,0.000,0.000,0.000,0.000,0.000
1644350992317881088,2022-02-08-20:09:52,10.1.1.2,26,-0.010,-0.010,-0.010,0.000,0.000,0.000
1644350992360003840,2022-02-08-20:09:52,10.1.1.2,28,-0.020,-0.020,-0.020,0.000,0.000,0.000
1644350992467299840,2022-02-08-20:09:52,10.1.1.2,37,-0.030,-0.030,-0.030,0.000,0.000,0.000
1644350992557359872,2022-02-08-20:09:52,10.1.1.2,26,-0.040,-0.040,-0.040,0.000,0.000,0.000
1644350992657522944,2022-02-08-20:09:52,10.1.1.2,26,-0.050,-0.050,-0.050,0.000,0.000,0.000
1644350992758060032,2022-02-08-20:09:52,10.1.1.2,26,-0.060,-0.060,-0.060,0.000,0.000,0.000
1644350992857598976,2022-02-08-20:09:52,10.1.1.2,25,-0.070,-0.070,-0.070,0.000,0.000,0.000
1644350992959938048,2022-02-08-20:09:52,10.1.1.2,21,-0.080,-0.080,-0.080,0.000,0.000,0.000
1644350993057777920,2022-02-08-20:09:53,10.1.1.2,20,-0.090,-0.090,-0.090,0.000,0.000,0.000
1644350993166609920,2022-02-08-20:09:53,10.1.1.2,28,-0.100,-0.100,-0.100,0.000,0.000,0.000
1644350993278685952,2022-02-08-20:09:53,10.1.1.2,37,-0.090,-0.090,-0.090,0.000,0.000,0.000
1644350993367290112,2022-02-08-20:09:53,10.1.1.2,22,-0.080,-0.080,-0.080,0.000,0.000,0.000
1644350993477545984,2022-02-08-20:09:53,10.1.1.2,30,-0.070,-0.070,-0.070,0.000,0.000,0.000
1644350993587866112,2022-02-08-20:09:53,10.1.1.2,39,-0.060,-0.060,-0.060,0.000,0.000,0.000
1644350993677005056,2022-02-08-20:09:53,10.1.1.2,28,-0.050,-0.050,-0.050,0.000,0.000,0.000
1644350993778536960,2022-02-08-20:09:53,10.1.1.2,28,-0.040,-0.040,-0.040,0.000,0.000,0.000
1644350993878764032,2022-02-08-20:09:53,10.1.1.2,27,-0.030,-0.030,-0.030,0.000,0.000,0.000
1644350993977585152,2022-02-08-20:09:53,10.1.1.2,27,-0.020,-0.020,-0.020,0.000,0.000,0.000
1644350994077837056,2022-02-08-20:09:54,10.1.1.2,26,-0.010,-0.010,-0.010,0.000,0.000,0.000
1644350994177728768,2022-02-08-20:09:54,10.1.1.2,25,0.000,0.000,0.000,0.000,0.000,0.000
1644350994277340928,2022-02-08-20:09:54,10.1.1.2,24,0.010,0.010,0.010,0.000,0.000,0.000
1644350994378347008,2022-02-08-20:09:54,10.1.1.2,23,0.020,0.020,0.020,0.000,0.000,0.000
1644350994478199040,2022-02-08-20:09:54,10.1.1.2,23,0.030,0.030,0.030,0.000,0.000,0.000
1644350994578238976,2022-02-08-20:09:54,10.1.1.2,23,0.040,0.040,0.040,0.000,0.000,0.000
1644350994677623040,2022-02-08-20:09:54,10.1.1.2,22,0.050,0.050,0.050,0.000,0.000,0.000
1644350994777682944,2022-02-08-20:09:54,10.1.1.2,21,0.060,0.060,0.060,0.000,0.000,0.000
1644350994877733888,2022-02-08-20:09:54,10.1.1.2,20,0.070,0.070,0.070,0.000,0.000,0.000
1644350994987454976,2022-02-08-20:09:54,10.1.1.2,29,0.080,0.080,0.080,0.000,0.000,0.000
1644350995098552832,2022-02-08-20:09:55,10.1.1.2,38,0.090,0.090,0.090,0.000,0.000,0.000
1644350995197752832,2022-02-08-20:09:55,10.1.1.2,38,0.100,0.100,0.100,0.000,0.000,0.000
1644350995287801856,2022-02-08-20:09:55,10.1.1.2,27,0.090,0.090,0.090,0.000,0.000,0.000
1644350995398107904,2022-02-08-20:09:55,10.1.1.2,36,0.080,0.080,0.080,0.000,0.000,0.000
1644350995497241088,2022-02-08-20:09:55,10.1.1.2,36,0.070,0.070,0.070,0.000,0.000,0.000
1644350995587246848,2022-02-08-20:09:55,10.1.1.2,25,0.060,0.060,0.060,0.000,0.000,0.000
1644350995707819008,2022-02-08-20:09:55,10.1.1.2,44,0.050,0.050,0.050,0.000,0.000,0.000
1644350995797595904,2022-02-08-20:09:55,10.1.1.2,34,0.040,0.040,0.040,0.000,0.000,0.000
1644350995908256000,2022-02-08-20:09:55,10.1.1.2,41,0.030,0.030,0.030,0.000,0.000,0.000
1644350995997387008,2022-02-08-20:09:55,10.1.1.2,31,0.020,0.020,0.020,0.000,0.000,0.000
1644350996098202880,2022-02-08-20:09:56,10.1.1.2,30,0.010,0.010,0.010,0.000,0.000,0.000
1644350996187723008,2022-02-08-20:09:56,10.1.1.2,20,-0.000,-0.000,-0.000,0.000,0.000,0.000
1644350996298520064,2022-02-08-20:09:56,10.1.1.2,29,-0.010,-0.010,-0.010,0.000,0.000,0.000
1644350996407915008,2022-02-08-20:09:56,10.1.1.2,38,-0.020,-0.020,-0.020,0.000,0.000,0.000
1644350996497067008,2022-02-08-20:09:56,10.1.1.2,26,-0.030,-0.030,-0.030,0.000,0.000,0.000
1644350996607642880,2022-02-08-20:09:56,10.1.1.2,34,-0.040,-0.040,-0.040,0.000,0.000,0.000
1644350996697263872,2022-02-08-20:09:56,10.1.1.2,23,-0.050,-0.050,-0.050,0.000,0.000,0.000
1644350996807260160,2022-02-08-20:09:56,10.1.1.2,32,-0.060,-0.060,-0.060,0.000,0.000,0.000
1644350996907574784,2022-02-08-20:09:56,10.1.1.2,32,-0.070,-0.070,-0.070,0.000,0.000,0.000
1644350996998024960,2022-02-08-20:09:56,10.1.1.2,21,-0.080,-0.080,-0.080,0.000,0.000,0.000
1644350997097007104,2022-02-08-20:09:57,10.1.1.2,20,-0.090,-0.090,-0.090,0.000,0.000,0.000
1644350997208281088,2022-02-08-20:09:57,10.1.1.2,30,-0.100,-0.100,-0.100,0.000,0.000,0.000
1644350997318818048,2022-02-08-20:09:57,10.1.1.2,39,-0.090,-0.090,-0.090,0.000,0.000,0.000
1644350997419078144,2022-02-08-20:09:57,10.1.1.2,37,-0.080,-0.080,-0.080,0.000,0.000,0.000
1644350997508184064,2022-02-08-20:09:57,10.1.1.2,27,-0.070,-0.070,-0.070,0.000,0.000,0.000
1644350997619025920,2022-02-08-20:09:57,10.1.1.2,36,-0.060,-0.060,-0.060,0.000,0.000,0.000
1644350997719033088,2022-02-08-20:09:57,10.1.1.2,35,-0.050,-0.050,-0.050,0.000,0.000,0.000
1644350997818427136,2022-02-08-20:09:57,10.1.1.2,31,-0.040,-0.040,-0.040,0.000,0.000,0.000
1644350997909057024,2022-02-08-20:09:57,10.1.1.2,21,-0.030,-0.030,-0.030,0.000,0.000,0.000
1644350998007698944,2022-02-08-20:09:58,10.1.1.2,19,-0.020,-0.020,-0.020,0.000,0.000,0.000
1644350998128320000,2022-02-08-20:09:58,10.1.1.2,37,-0.010,-0.010,-0.010,0.000,0.000,0.000
1644350998218976000,2022-02-08-20:09:58,10.1.1.2,26,0.000,0.000,0.000,0.000,0.000,0.000
1644350998317567232,2022-02-08-20:09:58,10.1.1.2,26,0.010,0.010,0.010,0.000,0.000,0.000
1644350998427639040,2022-02-08-20:09:58,10.1.1.2,36,0.020,0.020,0.020,0.000,0.000,0.000
1644350998517308928,2022-02-08-20:09:58,10.1.1.2,25,0.030,0.030,0.030,0.000,0.000,0.000
1644350998617806848,2022-02-08-20:09:58,10.1.1.2,24,0.040,0.040,0.040,0.000,0.000,0.000
1644350998718179072,2022-02-08-20:09:58,10.1.1.2,23,0.050,0.050,0.050,0.000,0.000,0.000
1644350998819087104,2022-02-08-20:09:58,10.1.1.2,23,0.060,0.060,0.060,0.000,0.000,0.000
1644350998918909184,2022-02-08-20:09:58,10.1.1.2,22,0.070,0.070,0.070,0.000,0.000,0.000
1644350999028034048,2022-02-08-20:09:59,10.1.1.2,31,0.080,0.080,0.080,0.000,0.000,0.000
1644350999117494016,2022-02-08-20:09:59,10.1.1.2,21,0.090,0.090,0.090,0.000,0.000,0.000
1644350999217659904,2022-02-08-20:09:59,10.1.1.2,20,0.100,0.100,0.100,0.000,0.000,0.000
1644350999328926976,2022-02-08-20:09:59,10.1.1.2,30,0.090,0.090,0.090,0.000,0.000,0.000
1644350999428126976,2022-02-08-20:09:59,10.1.1.2,27,0.080,0.080,0.080,0.000,0.000,0.000
1644350999538595072,2022-02-08-20:09:59,10.1.1.2,36,0.070,0.070,0.070,0.000,0.000,0.000
1644350999649185792,2022-02-08-20:09:59,10.1.1.2,46,0.060,0.060,0.060,0.000,0.000,0.000
1644350999738245888,2022-02-08-20:09:59,10.1.1.2,34,0.050,0.050,0.050,0.000,0.000,0.000
1644350999829200896,2022-02-08-20:09:59,10.1.1.2,23,0.040,0.040,0.040,0.000,0.000,0.000
1644350999938843136,2022-02-08-20:09:59,10.1.1.2,33,0.030,0.030,0.030,0.000,0.000,0.000
1644351000048520192,2022-02-08-20:10:00,10.1.1.2,41,0.020,0.020,0.020,0.000,0.000,0.000
1644351000139028992,2022-02-08-20:10:00,10.1.1.2,31,0.010,0.010,0.010,0.000,0.000,0.000
1644351000238394112,2022-02-08-20:10:00,10.1.1.2,30,0.000,0.000,0.000,0.000,0.000,0.000
1644351000329710080,2022-02-08-20:10:00,10.1.1.2,20,-0.010,-0.010,-0.010,0.000,0.000,0.000
1644351000430172928,2022-02-08-20:10:00,10.1.1.2,19,-0.020,-0.020,-0.020,0.000,0.000,0.000
1644351000539721984,2022-02-08-20:10:00,10.1.1.2,29,-0.030,-0.030,-0.030,0.000,0.000,0.000
1644351000738616832,2022-02-08-20:10:00,10.1.1.2,27,-0.050,-0.050,-0.050,0.000,0.000,0.000
1644351000847357952,2022-02-08-20:10:00,10.1.1.2,37,-0.060,-0.060,-0.060,0.000,0.000,0.000
1644351000948056064,2022-02-08-20:10:00,10.1.1.2,36,-0.070,-0.070,-0.070,0.000,0.000,0.000
1644351001038094080,2022-02-08-20:10:01,10.1.1.2,26,-0.080,-0.080,-0.080,0.000,0.000,0.000
1644351001147425792,2022-02-08-20:10:01,10.1.1.2,35,-0.090,-0.090,-0.090,0.000,0.000,0.000
1644351001247526912,2022-02-08-20:10:01,10.1.1.2,35,-0.100,-0.100,-0.100,0.000,0.000,0.000
1644351001347449088,2022-02-08-20:10:01,10.1.1.2,33,-0.090,-0.090,-0.090,0.000,0.000,0.000
1644351001437618944,2022-02-08-20:10:01,10.1.1.2,23,-0.080,-0.080,-0.080,0.000,0.000,0.000
1644351001538071040,2022-02-08-20:10:01,10.1.1.2,22,-0.070,-0.070,-0.070,0.000,0.000,0.000
1644351001638505984,2022-02-08-20:10:01,10.1.1.2,22,-0.060,-0.060,-0.060,0.000,0.000,0.000
1644351001738245888,2022-02-08-20:10:01,10.1.1.2,22,-0.050,-0.050,-0.050,0.000,0.000,0.000
1644351001847369984,2022-02-08-20:10:01,10.1.1.2,31,-0.040,-0.040,-0.040,0.000,0.000,0.000
1644351001947384064,2022-02-08-20:10:01,10.1.1.2,31,-0.030,-0.030,-0.030,0.000,0.000,0.000
1644351002037612032,2022-02-08-20:10:02,10.1.1.2,20,-0.020,-0.020,-0.020,0.000,0.000,0.000
1644351002137435904,2022-02-08-20:10:02,10.1.1.2,20,-0.010,-0.010,-0.010,0.000,0.000,0.000
1644351002237524992,2022-02-08-20:10:02,10.1.1.2,19,-0.000,-0.000,-0.000,0.000,0.000,0.000
1644351002337500928,2022-02-08-20:10:02,10.1.1.2,19,0.009,0.009,0.009,0.000,0.000,0.000
1644351002469250816,2022-02-08-20:10:02,10.1.1.2,48,0.020,0.020,0.020,0.000,0.000,0.000
1644351002558252032,2022-02-08-20:10:02,10.1.1.2,34,0.030,0.030,0.030,0.000,0.000,0.000
1644351002647607040,2022-02-08-20:10:02,10.1.1.2,24,0.040,0.040,0.040,0.000,0.000,0.000
1644351002758158848,2022-02-08-20:10:02,10.1.1.2,34,0.050,0.050,0.050,0.000,0.000,0.000
1644351002857259008,2022-02-08-20:10:02,10.1.1.2,33,0.060,0.060,0.060,0.000,0.000,0.000
1644351002947979008,2022-02-08-20:10:02,10.1.1.2,22,0.070,0.070,0.070,0.000,0.000,0.000
1644351003067246848,2022-02-08-20:10:03,10.1.1.2,42,0.080,0.080,0.080,0.000,0.000,0.000
1644351003157572864,2022-02-08-20:10:03,10.1.1.2,31,0.090,0.090,0.090,0.000,0.000,0.000
1644351003257318912,2022-02-08-20:10:03,10.1.1.2,31,0.100,0.100,0.100,0.000,0.000,0.000
1644351003358242048,2022-02-08-20:10:03,10.1.1.2,30,0.090,0.090,0.090,0.000,0.000,0.000
1644351003457676800,2022-02-08-20:10:03,10.1.1.2,30,0.080,0.080,0.080,0.000,0.000,0.000
1644351003687916032,2022-02-08-20:10:03,10.1.1.2,42,0.060,0.060,0.060,0.000,0.000,0.000
1644351003787813888,2022-02-08-20:10:03,10.1.1.2,41,0.050,0.050,0.050,0.000,0.000,0.000
1644351003868060160,2022-02-08-20:10:03,10.1.1.2,21,0.040,0.040,0.040,0.000,0.000,0.000
1644351003968009984,2022-02-08-20:10:03,10.1.1.2,20,0.030,0.030,0.030,0.000,0.000,0.000
1644351004087335936,2022-02-08-20:10:04,10.1.1.2,40,0.020,0.020,0.020,0.000,0.000,0.000
1644351004177648896,2022-02-08-20:10:04,10.1.1.2,29,0.010,0.010,0.010,0.000,0.000,0.000
1644351004288704000,2022-02-08-20:10:04,10.1.1.2,39,0.000,0.000,0.000,0.000,0.000,0.000
1644351004377182976,2022-02-08-20:10:04,10.1.1.2,28,-0.010,-0.010,-0.010,0.000,0.000,0.000
1644351004487937024,2022-02-08-20:10:04,10.1.1.2,37,-0.020,-0.020,-0.020,0.000,0.000,0.000
1644351004577234944,2022-02-08-20:10:04,10.1.1.2,27,-0.030,-0.030,-0.030,0.000,0.000,0.000
1644351004677680896,2022-02-08-20:10:04,10.1.1.2,26,-0.040,-0.040,-0.040,0.000,0.000,0.000
1644351004778876160,2022-02-08-20:10:04,10.1.1.2,26,-0.050,-0.050,-0.050,0.000,0.000,0.000
1644351004887661824,2022-02-08-20:10:04,10.1.1.2,35,-0.060,-0.060,-0.060,0.000,0.000,0.000
1644351004978274048,2022-02-08-20:10:04,10.1.1.2,24,-0.070,-0.070,-0.070,0.000,0.000,0.000
1644351005087770880,2022-02-08-20:10:05,10.1.1.2,33,-0.080,-0.080,-0.080,0.000,0.000,0.000
1644351005190176000,2022-02-08-20:10:05,10.1.1.2,23,-0.090,-0.090,-0.090,0.000,0.000,0.000
1644351005287759104,2022-02-08-20:10:05,10.1.1.2,32,-0.100,-0.100,-0.100,0.000,0.000,0.000
1644351005376961024,2022-02-08-20:10:05,10.1.1.2,21,-0.090,-0.090,-0.090,0.000,0.000,0.000
1644351005489139968,2022-02-08-20:10:05,10.1.1.2,31,-0.080,-0.080,-0.080,0.000,0.000,0.000
1644351005578476032,2022-02-08-20:10:05,10.1.1.2,20,-0.070,-0.070,-0.070,0.000,0.000,0.000
1644351005687161856,2022-02-08-20:10:05,10.1.1.2,29,-0.060,-0.060,-0.060,0.000,0.000,0.000
1644351005777028096,2022-02-08-20:10:05,10.1.1.2,19,-0.051,-0.051,-0.051,0.000,0.000,0.000
1644351005908103936,2022-02-08-20:10:05,10.1.1.2,48,-0.040,-0.040,-0.040,0.000,0.000,0.000
1644351005998507008,2022-02-08-20:10:05,10.1.1.2,38,-0.030,-0.030,-0.030,0.000,0.000,0.000
1644351006097459968,2022-02-08-20:10:06,10.1.1.2,37,-0.020,-0.020,-0.020,0.000,0.000,0.000
1644351006187885056,2022-02-08-20:10:06,10.1.1.2,27,-0.010,-0.010,-0.010,0.000,0.000,0.000
1644351006311510016,2022-02-08-20:10:06,10.1.1.2,48,0.000,0.000,0.000,0.000,0.000,0.000
1644351006408157184,2022-02-08-20:10:06,10.1.1.2,46,0.010,0.010,0.010,0.000,0.000,0.000
1644351006497704960,2022-02-08-20:10:06,10.1.1.2,36,0.020,0.020,0.020,0.000,0.000,0.000
1644351006587730944,2022-02-08-20:10:06,10.1.1.2,25,0.030,0.030,0.030,0.000,0.000,0.000
1644351006697662976,2022-02-08-20:10:06,10.1.1.2,34,0.040,0.040,0.040,0.000,0.000,0.000
1644351006807813888,2022-02-08-20:10:06,10.1.1.2,44,0.050,0.050,0.050,0.000,0.000,0.000
1644351006897316096,2022-02-08-20:10:06,10.1.1.2,34,0.060,0.060,0.060,0.000,0.000,0.000
1644351007012264960,2022-02-08-20:10:07,10.1.1.2,43,0.070,0.070,0.070,0.000,0.000,0.000
1644351007097340160,2022-02-08-20:10:07,10.1.1.2,19,0.080,0.080,0.080,0.000,0.000,0.000
1644351007207775232,2022-02-08-20:10:07,10.1.1.2,28,0.090,0.090,0.090,0.000,0.000,0.000
1644351007307634176,2022-02-08-20:10:07,10.1.1.2,28,0.100,0.100,0.100,0.000,0.000,0.000
1644351007418878976,2022-02-08-20:10:07,10.1.1.2,37,0.090,0.090,0.090,0.000,0.000,0.000
1644351007508393984,2022-02-08-20:10:07,10.1.1.2,27,0.080,0.080,0.080,0.000,0.000,0.000
1644351007607585792,2022-02-08-20:10:07,10.1.1.2,26,0.070,0.070,0.070,0.000,0.000,0.000
1644351007718484992,2022-02-08-20:10:07,10.1.1.2,36,0.060,0.060,0.060,0.000,0.000,0.000
1644351007808763904,2022-02-08-20:10:07,10.1.1.2,25,0.050,0.050,0.050,0.000,0.000,0.000
1644351007918360832,2022-02-08-20:10:07,10.1.1.2,31,0.040,0.040,0.040,0.000,0.000,0.000
1644351008028770816,2022-02-08-20:10:08,10.1.1.2,41,0.030,0.030,0.030,0.000,0.000,0.000
1644351008127976960,2022-02-08-20:10:08,10.1.1.2,30,0.020,0.020,0.020,0.000,0.000,0.000
1644351008218089984,2022-02-08-20:10:08,10.1.1.2,19,0.011,0.011,0.011,0.000,0.000,0.000
1644351008338093056,2022-02-08-20:10:08,10.1.1.2,38,0.000,0.000,0.000,0.000,0.000,0.000
