FedericoMungari/DigitalTwin_service/01_WiredScenario/Output/Output_script/script_rosapi_2_output_robots8_freq0_5.txt
timestamp,date,node,latency,joint_1,joint_2,joint_3,joint_4,joint_5,joint_6
1643293139026595072,2022-01-27-14:18:59,10.1.1.6,34,-0.011,-0.011,-0.011,0.000,0.000,0.000
1643293139226344960,2022-01-27-14:18:59,10.1.1.6,33,-0.020,-0.020,-0.020,0.000,0.000,0.000
1643293139435416832,2022-01-27-14:18:59,10.1.1.6,39,-0.031,-0.031,-0.031,0.000,0.000,0.000
1643293139624391168,2022-01-27-14:18:59,10.1.1.6,29,-0.041,-0.041,-0.041,0.000,0.000,0.000
1643293139825786112,2022-01-27-14:18:59,10.1.1.6,30,-0.051,-0.051,-0.051,0.000,0.000,0.000
1643293140025861120,2022-01-27-14:19:00,10.1.1.6,29,-0.060,-0.060,-0.060,0.000,0.000,0.000
1643293140224219136,2022-01-27-14:19:00,10.1.1.6,27,-0.071,-0.071,-0.071,0.000,0.000,0.000
1643293140425211904,2022-01-27-14:19:00,10.1.1.6,27,-0.080,-0.080,-0.080,0.000,0.000,0.000
1643293140625125888,2022-01-27-14:19:00,10.1.1.6,26,-0.090,-0.090,-0.090,0.000,0.000,0.000
1643293140824933120,2022-01-27-14:19:00,10.1.1.6,25,-0.100,-0.100,-0.100,0.000,0.000,0.000
1643293141028435968,2022-01-27-14:19:01,10.1.1.6,28,-0.110,-0.110,-0.110,0.000,0.000,0.000
1643293141224375040,2022-01-27-14:19:01,10.1.1.6,24,-0.120,-0.120,-0.120,0.000,0.000,0.000
1643293141424704000,2022-01-27-14:19:01,10.1.1.6,22,-0.130,-0.130,-0.130,0.000,0.000,0.000
1643293141644807168,2022-01-27-14:19:01,10.1.1.6,41,-0.141,-0.141,-0.141,0.000,0.000,0.000
1643293141845050112,2022-01-27-14:19:01,10.1.1.6,41,-0.151,-0.151,-0.151,0.000,0.000,0.000
1643293142024736000,2022-01-27-14:19:02,10.1.1.6,19,-0.160,-0.160,-0.160,0.000,0.000,0.000
1643293142224455168,2022-01-27-14:19:02,10.1.1.6,19,-0.170,-0.170,-0.170,0.000,0.000,0.000
1643293142444610048,2022-01-27-14:19:02,10.1.1.6,38,-0.181,-0.181,-0.181,0.000,0.000,0.000
1643293142624336896,2022-01-27-14:19:02,10.1.1.6,18,-0.190,-0.190,-0.190,0.000,0.000,0.000
1643293142844393984,2022-01-27-14:19:02,10.1.1.6,36,-0.201,-0.201,-0.201,0.000,0.000,0.000
1643293143044642816,2022-01-27-14:19:03,10.1.1.6,36,-0.211,-0.211,-0.211,0.000,0.000,0.000
1643293143244643072,2022-01-27-14:19:03,10.1.1.6,35,-0.221,-0.221,-0.221,0.000,0.000,0.000
1643293143414160128,2022-01-27-14:19:03,10.1.1.6,-3,-0.229,-0.229,-0.229,0.000,0.000,0.000
1643293143645252864,2022-01-27-14:19:03,10.1.1.6,30,-0.240,-0.240,-0.240,0.000,0.000,0.000
1643293143844534016,2022-01-27-14:19:03,10.1.1.6,29,-0.251,-0.251,-0.251,0.000,0.000,0.000
1643293144044269056,2022-01-27-14:19:04,10.1.1.6,28,-0.261,-0.261,-0.261,0.000,0.000,0.000
1643293144244350976,2022-01-27-14:19:04,10.1.1.6,27,-0.271,-0.271,-0.271,0.000,0.000,0.000
1643293144444730112,2022-01-27-14:19:04,10.1.1.6,27,-0.280,-0.280,-0.280,0.000,0.000,0.000
1643293144644570112,2022-01-27-14:19:04,10.1.1.6,26,-0.290,-0.290,-0.290,0.000,0.000,0.000
1643293144844371200,2022-01-27-14:19:04,10.1.1.6,25,-0.300,-0.300,-0.300,0.000,0.000,0.000
1643293145044621056,2022-01-27-14:19:05,10.1.1.6,25,-0.310,-0.310,-0.310,0.000,0.000,0.000
1643293145245584896,2022-01-27-14:19:05,10.1.1.6,25,-0.320,-0.320,-0.320,0.000,0.000,0.000
1643293145446113024,2022-01-27-14:19:05,10.1.1.6,25,-0.330,-0.330,-0.330,0.000,0.000,0.000
1643293145645960192,2022-01-27-14:19:05,10.1.1.6,24,-0.340,-0.340,-0.340,0.000,0.000,0.000
1643293145870872064,2022-01-27-14:19:05,10.1.1.6,48,-0.351,-0.351,-0.351,0.000,0.000,0.000
1643293146065555968,2022-01-27-14:19:06,10.1.1.6,42,-0.361,-0.361,-0.361,0.000,0.000,0.000
1643293146265125888,2022-01-27-14:19:06,10.1.1.6,40,-0.371,-0.371,-0.371,0.000,0.000,0.000
1643293146465297920,2022-01-27-14:19:06,10.1.1.6,39,-0.381,-0.381,-0.381,0.000,0.000,0.000
1643293146664913920,2022-01-27-14:19:06,10.1.1.6,38,-0.391,-0.391,-0.391,0.000,0.000,0.000
1643293146865048832,2022-01-27-14:19:06,10.1.1.6,37,-0.401,-0.401,-0.401,0.000,0.000,0.000
1643293147065208064,2022-01-27-14:19:07,10.1.1.6,37,-0.411,-0.411,-0.411,0.000,0.000,0.000
1643293147276731904,2022-01-27-14:19:07,10.1.1.6,48,-0.421,-0.421,-0.421,0.000,0.000,0.000
1643293147465483776,2022-01-27-14:19:07,10.1.1.6,36,-0.431,-0.431,-0.431,0.000,0.000,0.000
1643293147668826112,2022-01-27-14:19:07,10.1.1.6,38,-0.441,-0.441,-0.441,0.000,0.000,0.000
1643293147864954112,2022-01-27-14:19:07,10.1.1.6,34,-0.451,-0.451,-0.451,0.000,0.000,0.000
1643293148065857792,2022-01-27-14:19:08,10.1.1.6,34,-0.460,-0.460,-0.460,0.000,0.000,0.000
1643293148265093120,2022-01-27-14:19:08,10.1.1.6,27,-0.470,-0.470,-0.470,0.000,0.000,0.000
1643293148466414080,2022-01-27-14:19:08,10.1.1.6,26,-0.480,-0.480,-0.480,0.000,0.000,0.000
1643293148646534912,2022-01-27-14:19:08,10.1.1.6,6,-0.489,-0.489,-0.489,0.000,0.000,0.000
1643293148925873152,2022-01-27-14:19:08,10.1.1.6,71,-0.479,-0.479,-0.479,0.000,0.000,0.000
1643293149067954944,2022-01-27-14:19:09,10.1.1.6,22,-0.470,-0.470,-0.470,0.000,0.000,0.000
1643293149295872000,2022-01-27-14:19:09,10.1.1.6,47,-0.459,-0.459,-0.459,0.000,0.000,0.000
1643293149487212032,2022-01-27-14:19:09,10.1.1.6,38,-0.449,-0.449,-0.449,0.000,0.000,0.000
1643293149685916928,2022-01-27-14:19:09,10.1.1.6,35,-0.439,-0.439,-0.439,0.000,0.000,0.000
1643293149885957888,2022-01-27-14:19:09,10.1.1.6,35,-0.429,-0.429,-0.429,0.000,0.000,0.000
1643293150087926016,2022-01-27-14:19:10,10.1.1.6,36,-0.419,-0.419,-0.419,0.000,0.000,0.000
1643293150284980992,2022-01-27-14:19:10,10.1.1.6,31,-0.409,-0.409,-0.409,0.000,0.000,0.000
1643293150485646080,2022-01-27-14:19:10,10.1.1.6,32,-0.399,-0.399,-0.399,0.000,0.000,0.000
1643293150685731840,2022-01-27-14:19:10,10.1.1.6,31,-0.389,-0.389,-0.389,0.000,0.000,0.000
1643293150885166848,2022-01-27-14:19:10,10.1.1.6,30,-0.380,-0.380,-0.380,0.000,0.000,0.000
1643293151085172992,2022-01-27-14:19:11,10.1.1.6,29,-0.369,-0.369,-0.369,0.000,0.000,0.000
1643293151284569088,2022-01-27-14:19:11,10.1.1.6,24,-0.360,-0.360,-0.360,0.000,0.000,0.000
1643293151485431040,2022-01-27-14:19:11,10.1.1.6,22,-0.350,-0.350,-0.350,0.000,0.000,0.000
1643293151688580096,2022-01-27-14:19:11,10.1.1.6,23,-0.340,-0.340,-0.340,0.000,0.000,0.000
1643293151905029120,2022-01-27-14:19:11,10.1.1.6,38,-0.329,-0.329,-0.329,0.000,0.000,0.000
1643293152085760000,2022-01-27-14:19:12,10.1.1.6,18,-0.320,-0.320,-0.320,0.000,0.000,0.000
1643293152306643968,2022-01-27-14:19:12,10.1.1.6,38,-0.309,-0.309,-0.309,0.000,0.000,0.000
1643293152505484032,2022-01-27-14:19:12,10.1.1.6,36,-0.299,-0.299,-0.299,0.000,0.000,0.000
1643293152705449216,2022-01-27-14:19:12,10.1.1.6,35,-0.289,-0.289,-0.289,0.000,0.000,0.000
1643293152921179136,2022-01-27-14:19:12,10.1.1.6,38,-0.279,-0.279,-0.279,0.000,0.000,0.000
1643293153105317120,2022-01-27-14:19:13,10.1.1.6,32,-0.269,-0.269,-0.269,0.000,0.000,0.000
1643293153305484032,2022-01-27-14:19:13,10.1.1.6,32,-0.259,-0.259,-0.259,0.000,0.000,0.000
1643293153505893120,2022-01-27-14:19:13,10.1.1.6,31,-0.249,-0.249,-0.249,0.000,0.000,0.000
1643293153720880128,2022-01-27-14:19:13,10.1.1.6,34,-0.240,-0.240,-0.240,0.000,0.000,0.000
1643293153926522880,2022-01-27-14:19:13,10.1.1.6,38,-0.229,-0.229,-0.229,0.000,0.000,0.000
1643293154127300864,2022-01-27-14:19:14,10.1.1.6,38,-0.219,-0.219,-0.219,0.000,0.000,0.000
1643293154339008000,2022-01-27-14:19:14,10.1.1.6,49,-0.209,-0.209,-0.209,0.000,0.000,0.000
1643293154547642112,2022-01-27-14:19:14,10.1.1.6,56,-0.199,-0.199,-0.199,0.000,0.000,0.000
1643293154726267136,2022-01-27-14:19:14,10.1.1.6,32,-0.189,-0.189,-0.189,0.000,0.000,0.000
1643293154925512960,2022-01-27-14:19:14,10.1.1.6,31,-0.179,-0.179,-0.179,0.000,0.000,0.000
1643293155125072896,2022-01-27-14:19:15,10.1.1.6,28,-0.169,-0.169,-0.169,0.000,0.000,0.000
1643293155326451968,2022-01-27-14:19:15,10.1.1.6,29,-0.160,-0.160,-0.160,0.000,0.000,0.000
1643293155525920000,2022-01-27-14:19:15,10.1.1.6,28,-0.150,-0.150,-0.150,0.000,0.000,0.000
1643293155725581824,2022-01-27-14:19:15,10.1.1.6,27,-0.140,-0.140,-0.140,0.000,0.000,0.000
1643293155925358080,2022-01-27-14:19:15,10.1.1.6,25,-0.130,-0.130,-0.130,0.000,0.000,0.000
1643293156125555968,2022-01-27-14:19:16,10.1.1.6,23,-0.120,-0.120,-0.120,0.000,0.000,0.000
1643293156324937984,2022-01-27-14:19:16,10.1.1.6,18,-0.110,-0.110,-0.110,0.000,0.000,0.000
1643293156524915968,2022-01-27-14:19:16,10.1.1.6,17,-0.100,-0.100,-0.100,0.000,0.000,0.000
1643293156745479168,2022-01-27-14:19:16,10.1.1.6,37,-0.089,-0.089,-0.089,0.000,0.000,0.000
1643293156946839040,2022-01-27-14:19:16,10.1.1.6,38,-0.079,-0.079,-0.079,0.000,0.000,0.000
1643293157145024000,2022-01-27-14:19:17,10.1.1.6,36,-0.069,-0.069,-0.069,0.000,0.000,0.000
1643293157347842048,2022-01-27-14:19:17,10.1.1.6,38,-0.059,-0.059,-0.059,0.000,0.000,0.000
1643293157546565888,2022-01-27-14:19:17,10.1.1.6,36,-0.049,-0.049,-0.049,0.000,0.000,0.000
1643293157745612032,2022-01-27-14:19:17,10.1.1.6,34,-0.039,-0.039,-0.039,0.000,0.000,0.000
1643293157944915968,2022-01-27-14:19:17,10.1.1.6,33,-0.029,-0.029,-0.029,0.000,0.000,0.000
1643293158144474112,2022-01-27-14:19:18,10.1.1.6,32,-0.019,-0.019,-0.019,0.000,0.000,0.000
1643293158345515008,2022-01-27-14:19:18,10.1.1.6,31,-0.009,-0.009,-0.009,0.000,0.000,0.000
1643293158526253056,2022-01-27-14:19:18,10.1.1.6,10,-0.000,-0.000,-0.000,0.000,0.000,0.000
1643293158744609024,2022-01-27-14:19:18,10.1.1.6,28,-0.011,-0.011,-0.011,0.000,0.000,0.000
1643293158944375040,2022-01-27-14:19:18,10.1.1.6,27,-0.021,-0.021,-0.021,0.000,0.000,0.000
1643293159145865984,2022-01-27-14:19:19,10.1.1.6,28,-0.030,-0.030,-0.030,0.000,0.000,0.000
1643293159345485824,2022-01-27-14:19:19,10.1.1.6,26,-0.040,-0.040,-0.040,0.000,0.000,0.000
1643293159545509120,2022-01-27-14:19:19,10.1.1.6,26,-0.050,-0.050,-0.050,0.000,0.000,0.000
1643293159745127936,2022-01-27-14:19:19,10.1.1.6,25,-0.060,-0.060,-0.060,0.000,0.000,0.000
1643293159945427968,2022-01-27-14:19:19,10.1.1.6,25,-0.070,-0.070,-0.070,0.000,0.000,0.000
1643293160145974016,2022-01-27-14:19:20,10.1.1.6,24,-0.080,-0.080,-0.080,0.000,0.000,0.000
1643293160345244928,2022-01-27-14:19:20,10.1.1.6,23,-0.090,-0.090,-0.090,0.000,0.000,0.000
1643293160544568064,2022-01-27-14:19:20,10.1.1.6,22,-0.100,-0.100,-0.100,0.000,0.000,0.000
1643293160744376832,2022-01-27-14:19:20,10.1.1.6,20,-0.110,-0.110,-0.110,0.000,0.000,0.000
1643293160944279040,2022-01-27-14:19:20,10.1.1.6,19,-0.120,-0.120,-0.120,0.000,0.000,0.000
1643293161165761024,2022-01-27-14:19:21,10.1.1.6,40,-0.131,-0.131,-0.131,0.000,0.000,0.000
1643293161344708864,2022-01-27-14:19:21,10.1.1.6,18,-0.140,-0.140,-0.140,0.000,0.000,0.000
1643293161547049984,2022-01-27-14:19:21,10.1.1.6,20,-0.150,-0.150,-0.150,0.000,0.000,0.000
1643293161764404992,2022-01-27-14:19:21,10.1.1.6,37,-0.161,-0.161,-0.161,0.000,0.000,0.000
1643293161965199872,2022-01-27-14:19:21,10.1.1.6,37,-0.171,-0.171,-0.171,0.000,0.000,0.000
1643293162164519936,2022-01-27-14:19:22,10.1.1.6,36,-0.181,-0.181,-0.181,0.000,0.000,0.000
1643293162364593920,2022-01-27-14:19:22,10.1.1.6,36,-0.191,-0.191,-0.191,0.000,0.000,0.000
1643293162564815104,2022-01-27-14:19:22,10.1.1.6,36,-0.201,-0.201,-0.201,0.000,0.000,0.000
1643293162764687104,2022-01-27-14:19:22,10.1.1.6,30,-0.211,-0.211,-0.211,0.000,0.000,0.000
1643293163012003072,2022-01-27-14:19:23,10.1.1.6,67,-0.220,-0.220,-0.220,0.000,0.000,0.000
1643293163165221888,2022-01-27-14:19:23,10.1.1.6,25,-0.230,-0.230,-0.230,0.000,0.000,0.000
1643293163366176000,2022-01-27-14:19:23,10.1.1.6,25,-0.240,-0.240,-0.240,0.000,0.000,0.000
1643293163565416192,2022-01-27-14:19:23,10.1.1.6,24,-0.250,-0.250,-0.250,0.000,0.000,0.000
1643293163765604096,2022-01-27-14:19:23,10.1.1.6,23,-0.260,-0.260,-0.260,0.000,0.000,0.000
1643293163992937984,2022-01-27-14:19:23,10.1.1.6,49,-0.271,-0.271,-0.271,0.000,0.000,0.000
1643293164168286208,2022-01-27-14:19:24,10.1.1.6,22,-0.280,-0.280,-0.280,0.000,0.000,0.000
1643293164385961984,2022-01-27-14:19:24,10.1.1.6,35,-0.291,-0.291,-0.291,0.000,0.000,0.000
1643293164586013952,2022-01-27-14:19:24,10.1.1.6,34,-0.301,-0.301,-0.301,0.000,0.000,0.000
1643293164785870080,2022-01-27-14:19:24,10.1.1.6,33,-0.311,-0.311,-0.311,0.000,0.000,0.000
1643293164986309888,2022-01-27-14:19:24,10.1.1.6,32,-0.321,-0.321,-0.321,0.000,0.000,0.000
1643293165195798016,2022-01-27-14:19:25,10.1.1.6,34,-0.331,-0.331,-0.331,0.000,0.000,0.000
1643293165385169152,2022-01-27-14:19:25,10.1.1.6,30,-0.340,-0.340,-0.340,0.000,0.000,0.000
1643293165585582848,2022-01-27-14:19:25,10.1.1.6,29,-0.351,-0.351,-0.351,0.000,0.000,0.000
1643293165786749952,2022-01-27-14:19:25,10.1.1.6,30,-0.361,-0.361,-0.361,0.000,0.000,0.000
1643293165987504128,2022-01-27-14:19:25,10.1.1.6,30,-0.370,-0.370,-0.370,0.000,0.000,0.000
1643293166185113856,2022-01-27-14:19:26,10.1.1.6,25,-0.380,-0.380,-0.380,0.000,0.000,0.000
1643293166385129984,2022-01-27-14:19:26,10.1.1.6,25,-0.390,-0.390,-0.390,0.000,0.000,0.000
1643293166585949952,2022-01-27-14:19:26,10.1.1.6,24,-0.400,-0.400,-0.400,0.000,0.000,0.000
1643293166785334016,2022-01-27-14:19:26,10.1.1.6,24,-0.410,-0.410,-0.410,0.000,0.000,0.000
1643293166985566976,2022-01-27-14:19:26,10.1.1.6,23,-0.420,-0.420,-0.420,0.000,0.000,0.000
1643293167184914176,2022-01-27-14:19:27,10.1.1.6,22,-0.430,-0.430,-0.430,0.000,0.000,0.000
1643293167405019904,2022-01-27-14:19:27,10.1.1.6,41,-0.441,-0.441,-0.441,0.000,0.000,0.000
1643293167605169152,2022-01-27-14:19:27,10.1.1.6,38,-0.451,-0.451,-0.451,0.000,0.000,0.000
1643293167785538048,2022-01-27-14:19:27,10.1.1.6,18,-0.460,-0.460,-0.460,0.000,0.000,0.000
1643293168025996800,2022-01-27-14:19:28,10.1.1.6,38,-0.471,-0.471,-0.471,0.000,0.000,0.000
1643293168237086976,2022-01-27-14:19:28,10.1.1.6,47,-0.481,-0.481,-0.481,0.000,0.000,0.000
1643293168405089024,2022-01-27-14:19:28,10.1.1.6,13,-0.490,-0.490,-0.490,0.000,0.000,0.000
1643293168625188096,2022-01-27-14:19:28,10.1.1.6,33,-0.480,-0.480,-0.480,0.000,0.000,0.000
1643293168839400960,2022-01-27-14:19:28,10.1.1.6,32,-0.469,-0.469,-0.469,0.000,0.000,0.000
1643293169026205184,2022-01-27-14:19:29,10.1.1.6,29,-0.460,-0.460,-0.460,0.000,0.000,0.000
1643293169230093056,2022-01-27-14:19:29,10.1.1.6,32,-0.450,-0.450,-0.450,0.000,0.000,0.000
1643293169424904192,2022-01-27-14:19:29,10.1.1.6,27,-0.440,-0.440,-0.440,0.000,0.000,0.000
1643293169626877184,2022-01-27-14:19:29,10.1.1.6,28,-0.430,-0.430,-0.430,0.000,0.000,0.000
1643293169826937856,2022-01-27-14:19:29,10.1.1.6,27,-0.420,-0.420,-0.420,0.000,0.000,0.000
1643293170025465856,2022-01-27-14:19:30,10.1.1.6,24,-0.410,-0.410,-0.410,0.000,0.000,0.000
1643293170225730048,2022-01-27-14:19:30,10.1.1.6,22,-0.400,-0.400,-0.400,0.000,0.000,0.000
1643293170425737984,2022-01-27-14:19:30,10.1.1.6,20,-0.390,-0.390,-0.390,0.000,0.000,0.000
1643293170625284864,2022-01-27-14:19:30,10.1.1.6,19,-0.380,-0.380,-0.380,0.000,0.000,0.000
1643293170865673984,2022-01-27-14:19:30,10.1.1.6,48,-0.369,-0.369,-0.369,0.000,0.000,0.000
1643293171044761856,2022-01-27-14:19:31,10.1.1.6,26,-0.360,-0.360,-0.360,0.000,0.000,0.000
1643293171245726976,2022-01-27-14:19:31,10.1.1.6,26,-0.350,-0.350,-0.350,0.000,0.000,0.000
1643293171445548032,2022-01-27-14:19:31,10.1.1.6,24,-0.340,-0.340,-0.340,0.000,0.000,0.000
1643293171645937920,2022-01-27-14:19:31,10.1.1.6,24,-0.330,-0.330,-0.330,0.000,0.000,0.000
1643293171845329920,2022-01-27-14:19:31,10.1.1.6,23,-0.320,-0.320,-0.320,0.000,0.000,0.000
1643293172046708992,2022-01-27-14:19:32,10.1.1.6,22,-0.310,-0.310,-0.310,0.000,0.000,0.000
1643293172265321984,2022-01-27-14:19:32,10.1.1.6,42,-0.299,-0.299,-0.299,0.000,0.000,0.000
1643293172466084096,2022-01-27-14:19:32,10.1.1.6,42,-0.289,-0.289,-0.289,0.000,0.000,0.000
1643293172702918912,2022-01-27-14:19:32,10.1.1.6,74,-0.279,-0.279,-0.279,0.000,0.000,0.000
1643293172866008064,2022-01-27-14:19:32,10.1.1.6,38,-0.269,-0.269,-0.269,0.000,0.000,0.000
1643293173066176768,2022-01-27-14:19:33,10.1.1.6,37,-0.259,-0.259,-0.259,0.000,0.000,0.000
1643293173265775872,2022-01-27-14:19:33,10.1.1.6,34,-0.249,-0.249,-0.249,0.000,0.000,0.000
1643293173465094144,2022-01-27-14:19:33,10.1.1.6,32,-0.239,-0.239,-0.239,0.000,0.000,0.000
1643293173666380032,2022-01-27-14:19:33,10.1.1.6,33,-0.229,-0.229,-0.229,0.000,0.000,0.000
1643293173865746944,2022-01-27-14:19:33,10.1.1.6,30,-0.219,-0.219,-0.219,0.000,0.000,0.000
1643293174066728192,2022-01-27-14:19:34,10.1.1.6,30,-0.210,-0.210,-0.210,0.000,0.000,0.000
1643293174275842816,2022-01-27-14:19:34,10.1.1.6,34,-0.200,-0.200,-0.200,0.000,0.000,0.000
1643293174466000128,2022-01-27-14:19:34,10.1.1.6,27,-0.190,-0.190,-0.190,0.000,0.000,0.000
1643293174665692928,2022-01-27-14:19:34,10.1.1.6,26,-0.180,-0.180,-0.180,0.000,0.000,0.000
1643293174864641792,2022-01-27-14:19:34,10.1.1.6,24,-0.170,-0.170,-0.170,0.000,0.000,0.000
1643293175065707008,2022-01-27-14:19:35,10.1.1.6,25,-0.160,-0.160,-0.160,0.000,0.000,0.000
1643293175265356032,2022-01-27-14:19:35,10.1.1.6,24,-0.150,-0.150,-0.150,0.000,0.000,0.000
1643293175465169920,2022-01-27-14:19:35,10.1.1.6,23,-0.140,-0.140,-0.140,0.000,0.000,0.000
1643293175664762112,2022-01-27-14:19:35,10.1.1.6,22,-0.130,-0.130,-0.130,0.000,0.000,0.000
1643293175864843008,2022-01-27-14:19:35,10.1.1.6,21,-0.120,-0.120,-0.120,0.000,0.000,0.000
1643293176065136896,2022-01-27-14:19:36,10.1.1.6,20,-0.110,-0.110,-0.110,0.000,0.000,0.000
1643293176265297920,2022-01-27-14:19:36,10.1.1.6,20,-0.100,-0.100,-0.100,0.000,0.000,0.000
1643293176464515840,2022-01-27-14:19:36,10.1.1.6,18,-0.090,-0.090,-0.090,0.000,0.000,0.000
1643293176665038080,2022-01-27-14:19:36,10.1.1.6,18,-0.080,-0.080,-0.080,0.000,0.000,0.000
1643293176884446976,2022-01-27-14:19:36,10.1.1.6,36,-0.069,-0.069,-0.069,0.000,0.000,0.000
1643293177085501952,2022-01-27-14:19:37,10.1.1.6,37,-0.059,-0.059,-0.059,0.000,0.000,0.000
1643293177286838016,2022-01-27-14:19:37,10.1.1.6,38,-0.049,-0.049,-0.049,0.000,0.000,0.000
1643293177485061888,2022-01-27-14:19:37,10.1.1.6,35,-0.039,-0.039,-0.039,0.000,0.000,0.000
1643293177685650176,2022-01-27-14:19:37,10.1.1.6,35,-0.029,-0.029,-0.029,0.000,0.000,0.000
1643293177885006848,2022-01-27-14:19:37,10.1.1.6,33,-0.019,-0.019,-0.019,0.000,0.000,0.000
1643293178085197824,2022-01-27-14:19:38,10.1.1.6,33,-0.009,-0.009,-0.009,0.000,0.000,0.000
1643293178265556224,2022-01-27-14:19:38,10.1.1.6,13,-0.000,-0.000,-0.000,0.000,0.000,0.000
1643293178486000896,2022-01-27-14:19:38,10.1.1.6,32,-0.010,-0.010,-0.010,0.000,0.000,0.000
1643293178684333056,2022-01-27-14:19:38,10.1.1.6,30,-0.021,-0.021,-0.021,0.000,0.000,0.000
1643293178885617920,2022-01-27-14:19:38,10.1.1.6,30,-0.031,-0.031,-0.031,0.000,0.000,0.000
1643293179084888832,2022-01-27-14:19:39,10.1.1.6,29,-0.041,-0.041,-0.041,0.000,0.000,0.000
1643293179284748032,2022-01-27-14:19:39,10.1.1.6,28,-0.050,-0.050,-0.050,0.000,0.000,0.000
1643293179485815040,2022-01-27-14:19:39,10.1.1.6,27,-0.060,-0.060,-0.060,0.000,0.000,0.000
1643293179686985984,2022-01-27-14:19:39,10.1.1.6,27,-0.070,-0.070,-0.070,0.000,0.000,0.000
1643293179884493056,2022-01-27-14:19:39,10.1.1.6,24,-0.080,-0.080,-0.080,0.000,0.000,0.000
1643293180085638912,2022-01-27-14:19:40,10.1.1.6,24,-0.090,-0.090,-0.090,0.000,0.000,0.000
1643293180286609920,2022-01-27-14:19:40,10.1.1.6,24,-0.100,-0.100,-0.100,0.000,0.000,0.000
1643293180485600000,2022-01-27-14:19:40,10.1.1.6,23,-0.110,-0.110,-0.110,0.000,0.000,0.000
1643293180686222080,2022-01-27-14:19:40,10.1.1.6,22,-0.120,-0.120,-0.120,0.000,0.000,0.000
1643293180905277952,2022-01-27-14:19:40,10.1.1.6,40,-0.131,-0.131,-0.131,0.000,0.000,0.000
1643293181105582080,2022-01-27-14:19:41,10.1.1.6,39,-0.141,-0.141,-0.141,0.000,0.000,0.000
1643293181305543936,2022-01-27-14:19:41,10.1.1.6,39,-0.151,-0.151,-0.151,0.000,0.000,0.000
1643293181507457024,2022-01-27-14:19:41,10.1.1.6,40,-0.161,-0.161,-0.161,0.000,0.000,0.000
1643293181705643008,2022-01-27-14:19:41,10.1.1.6,36,-0.171,-0.171,-0.171,0.000,0.000,0.000
1643293181906474240,2022-01-27-14:19:41,10.1.1.6,38,-0.181,-0.181,-0.181,0.000,0.000,0.000
1643293182106497024,2022-01-27-14:19:42,10.1.1.6,36,-0.191,-0.191,-0.191,0.000,0.000,0.000
1643293182305171968,2022-01-27-14:19:42,10.1.1.6,35,-0.201,-0.201,-0.201,0.000,0.000,0.000
1643293182505171968,2022-01-27-14:19:42,10.1.1.6,34,-0.211,-0.211,-0.211,0.000,0.000,0.000
1643293182705438976,2022-01-27-14:19:42,10.1.1.6,34,-0.221,-0.221,-0.221,0.000,0.000,0.000
1643293182906297856,2022-01-27-14:19:42,10.1.1.6,34,-0.231,-0.231,-0.231,0.000,0.000,0.000
1643293183105465856,2022-01-27-14:19:43,10.1.1.6,32,-0.241,-0.241,-0.241,0.000,0.000,0.000
1643293183306690048,2022-01-27-14:19:43,10.1.1.6,29,-0.250,-0.250,-0.250,0.000,0.000,0.000
1643293183505181952,2022-01-27-14:19:43,10.1.1.6,26,-0.260,-0.260,-0.260,0.000,0.000,0.000
1643293183706595072,2022-01-27-14:19:43,10.1.1.6,27,-0.270,-0.270,-0.270,0.000,0.000,0.000
1643293183905504000,2022-01-27-14:19:43,10.1.1.6,25,-0.280,-0.280,-0.280,0.000,0.000,0.000
1643293184106342912,2022-01-27-14:19:44,10.1.1.6,25,-0.290,-0.290,-0.290,0.000,0.000,0.000
1643293184306808832,2022-01-27-14:19:44,10.1.1.6,25,-0.300,-0.300,-0.300,0.000,0.000,0.000
1643293184506955008,2022-01-27-14:19:44,10.1.1.6,24,-0.310,-0.310,-0.310,0.000,0.000,0.000
1643293184706272000,2022-01-27-14:19:44,10.1.1.6,23,-0.320,-0.320,-0.320,0.000,0.000,0.000
1643293184905421056,2022-01-27-14:19:44,10.1.1.6,21,-0.330,-0.330,-0.330,0.000,0.000,0.000
1643293185125937920,2022-01-27-14:19:45,10.1.1.6,40,-0.341,-0.341,-0.341,0.000,0.000,0.000
1643293185305135104,2022-01-27-14:19:45,10.1.1.6,18,-0.350,-0.350,-0.350,0.000,0.000,0.000
1643293185508413952,2022-01-27-14:19:45,10.1.1.6,21,-0.360,-0.360,-0.360,0.000,0.000,0.000
1643293185725105920,2022-01-27-14:19:45,10.1.1.6,37,-0.371,-0.371,-0.371,0.000,0.000,0.000
1643293185925873152,2022-01-27-14:19:45,10.1.1.6,37,-0.381,-0.381,-0.381,0.000,0.000,0.000
1643293186124871936,2022-01-27-14:19:46,10.1.1.6,35,-0.391,-0.391,-0.391,0.000,0.000,0.000
1643293186325097984,2022-01-27-14:19:46,10.1.1.6,35,-0.401,-0.401,-0.401,0.000,0.000,0.000
1643293186524652032,2022-01-27-14:19:46,10.1.1.6,34,-0.411,-0.411,-0.411,0.000,0.000,0.000
1643293186727400192,2022-01-27-14:19:46,10.1.1.6,36,-0.421,-0.421,-0.421,0.000,0.000,0.000
1643293186925206016,2022-01-27-14:19:46,10.1.1.6,33,-0.431,-0.431,-0.431,0.000,0.000,0.000
1643293187126487040,2022-01-27-14:19:47,10.1.1.6,33,-0.441,-0.441,-0.441,0.000,0.000,0.000
1643293187326756096,2022-01-27-14:19:47,10.1.1.6,33,-0.451,-0.451,-0.451,0.000,0.000,0.000
1643293187526437888,2022-01-27-14:19:47,10.1.1.6,32,-0.460,-0.460,-0.460,0.000,0.000,0.000
1643293187725414144,2022-01-27-14:19:47,10.1.1.6,30,-0.471,-0.471,-0.471,0.000,0.000,0.000
1643293187925070080,2022-01-27-14:19:47,10.1.1.6,29,-0.480,-0.480,-0.480,0.000,0.000,0.000
1643293188106539008,2022-01-27-14:19:48,10.1.1.6,9,-0.490,-0.490,-0.490,0.000,0.000,0.000
1643293188328436992,2022-01-27-14:19:48,10.1.1.6,30,-0.480,-0.480,-0.480,0.000,0.000,0.000
1643293188525996032,2022-01-27-14:19:48,10.1.1.6,27,-0.470,-0.470,-0.470,0.000,0.000,0.000
1643293188725670144,2022-01-27-14:19:48,10.1.1.6,26,-0.460,-0.460,-0.460,0.000,0.000,0.000
1643293188925630208,2022-01-27-14:19:48,10.1.1.6,25,-0.450,-0.450,-0.450,0.000,0.000,0.000
1643293189125624064,2022-01-27-14:19:49,10.1.1.6,24,-0.440,-0.440,-0.440,0.000,0.000,0.000
1643293189325778944,2022-01-27-14:19:49,10.1.1.6,24,-0.430,-0.430,-0.430,0.000,0.000,0.000
1643293189525645056,2022-01-27-14:19:49,10.1.1.6,23,-0.420,-0.420,-0.420,0.000,0.000,0.000
1643293189745948160,2022-01-27-14:19:49,10.1.1.6,43,-0.409,-0.409,-0.409,0.000,0.000,0.000
1643293189946095104,2022-01-27-14:19:49,10.1.1.6,42,-0.399,-0.399,-0.399,0.000,0.000,0.000
1643293190126987008,2022-01-27-14:19:50,10.1.1.6,23,-0.390,-0.390,-0.390,0.000,0.000,0.000
1643293190325032960,2022-01-27-14:19:50,10.1.1.6,20,-0.380,-0.380,-0.380,0.000,0.000,0.000
1643293190526173184,2022-01-27-14:19:50,10.1.1.6,20,-0.370,-0.370,-0.370,0.000,0.000,0.000
1643293190725542144,2022-01-27-14:19:50,10.1.1.6,19,-0.360,-0.360,-0.360,0.000,0.000,0.000
1643293190945359104,2022-01-27-14:19:50,10.1.1.6,38,-0.349,-0.349,-0.349,0.000,0.000,0.000
1643293191145304832,2022-01-27-14:19:51,10.1.1.6,38,-0.339,-0.339,-0.339,0.000,0.000,0.000
1643293191345046016,2022-01-27-14:19:51,10.1.1.6,37,-0.329,-0.329,-0.329,0.000,0.000,0.000
1643293191547080960,2022-01-27-14:19:51,10.1.1.6,38,-0.319,-0.319,-0.319,0.000,0.000,0.000
1643293191746354176,2022-01-27-14:19:51,10.1.1.6,37,-0.309,-0.309,-0.309,0.000,0.000,0.000
1643293191944720128,2022-01-27-14:19:51,10.1.1.6,34,-0.299,-0.299,-0.299,0.000,0.000,0.000
1643293192145734912,2022-01-27-14:19:52,10.1.1.6,34,-0.289,-0.289,-0.289,0.000,0.000,0.000
1643293192347564032,2022-01-27-14:19:52,10.1.1.6,34,-0.279,-0.279,-0.279,0.000,0.000,0.000
1643293192545469952,2022-01-27-14:19:52,10.1.1.6,31,-0.270,-0.270,-0.270,0.000,0.000,0.000
1643293192747483136,2022-01-27-14:19:52,10.1.1.6,33,-0.259,-0.259,-0.259,0.000,0.000,0.000
1643293192947575040,2022-01-27-14:19:52,10.1.1.6,31,-0.250,-0.250,-0.250,0.000,0.000,0.000
1643293193146007040,2022-01-27-14:19:53,10.1.1.6,29,-0.240,-0.240,-0.240,0.000,0.000,0.000
1643293193345666816,2022-01-27-14:19:53,10.1.1.6,26,-0.230,-0.230,-0.230,0.000,0.000,0.000
1643293193545048064,2022-01-27-14:19:53,10.1.1.6,26,-0.220,-0.220,-0.220,0.000,0.000,0.000
1643293193745541120,2022-01-27-14:19:53,10.1.1.6,26,-0.210,-0.210,-0.210,0.000,0.000,0.000
1643293193945594112,2022-01-27-14:19:53,10.1.1.6,25,-0.200,-0.200,-0.200,0.000,0.000,0.000
1643293194145043968,2022-01-27-14:19:54,10.1.1.6,24,-0.190,-0.190,-0.190,0.000,0.000,0.000
1643293194345005056,2022-01-27-14:19:54,10.1.1.6,23,-0.180,-0.180,-0.180,0.000,0.000,0.000
1643293194544930048,2022-01-27-14:19:54,10.1.1.6,23,-0.170,-0.170,-0.170,0.000,0.000,0.000
1643293194745362944,2022-01-27-14:19:54,10.1.1.6,20,-0.160,-0.160,-0.160,0.000,0.000,0.000
1643293194967128064,2022-01-27-14:19:54,10.1.1.6,40,-0.149,-0.149,-0.149,0.000,0.000,0.000
1643293195165601024,2022-01-27-14:19:55,10.1.1.6,37,-0.139,-0.139,-0.139,0.000,0.000,0.000
1643293195364940032,2022-01-27-14:19:55,10.1.1.6,35,-0.129,-0.129,-0.129,0.000,0.000,0.000
1643293195566941952,2022-01-27-14:19:55,10.1.1.6,36,-0.119,-0.119,-0.119,0.000,0.000,0.000
1643293195765434880,2022-01-27-14:19:55,10.1.1.6,33,-0.109,-0.109,-0.109,0.000,0.000,0.000
1643293195966532864,2022-01-27-14:19:55,10.1.1.6,33,-0.099,-0.099,-0.099,0.000,0.000,0.000
1643293196168384000,2022-01-27-14:19:56,10.1.1.6,32,-0.089,-0.089,-0.089,0.000,0.000,0.000
1643293196364836096,2022-01-27-14:19:56,10.1.1.6,27,-0.080,-0.080,-0.080,0.000,0.000,0.000
1643293196565288192,2022-01-27-14:19:56,10.1.1.6,28,-0.070,-0.070,-0.070,0.000,0.000,0.000
1643293196766601984,2022-01-27-14:19:56,10.1.1.6,28,-0.060,-0.060,-0.060,0.000,0.000,0.000
1643293196964847104,2022-01-27-14:19:56,10.1.1.6,26,-0.050,-0.050,-0.050,0.000,0.000,0.000
1643293197165465088,2022-01-27-14:19:57,10.1.1.6,25,-0.040,-0.040,-0.040,0.000,0.000,0.000
1643293197368419840,2022-01-27-14:19:57,10.1.1.6,27,-0.030,-0.030,-0.030,0.000,0.000,0.000
1643293197565003008,2022-01-27-14:19:57,10.1.1.6,23,-0.020,-0.020,-0.020,0.000,0.000,0.000
1643293197764897024,2022-01-27-14:19:57,10.1.1.6,23,-0.010,-0.010,-0.010,0.000,0.000,0.000
1643293197945728000,2022-01-27-14:19:57,10.1.1.6,3,-0.001,-0.001,-0.001,0.000,0.000,0.000
1643293198168796160,2022-01-27-14:19:58,10.1.1.6,25,-0.010,-0.010,-0.010,0.000,0.000,0.000
1643293198369789952,2022-01-27-14:19:58,10.1.1.6,24,-0.020,-0.020,-0.020,0.000,0.000,0.000
1643293198597762048,2022-01-27-14:19:58,10.1.1.6,48,-0.031,-0.031,-0.031,0.000,0.000,0.000
1643293198784713984,2022-01-27-14:19:58,10.1.1.6,33,-0.041,-0.041,-0.041,0.000,0.000,0.000
1643293198987344128,2022-01-27-14:19:58,10.1.1.6,34,-0.051,-0.051,-0.051,0.000,0.000,0.000
1643293199185532160,2022-01-27-14:19:59,10.1.1.6,32,-0.061,-0.061,-0.061,0.000,0.000,0.000
1643293199386790912,2022-01-27-14:19:59,10.1.1.6,32,-0.071,-0.071,-0.071,0.000,0.000,0.000
1643293199584749056,2022-01-27-14:19:59,10.1.1.6,29,-0.081,-0.081,-0.081,0.000,0.000,0.000
1643293199785468160,2022-01-27-14:19:59,10.1.1.6,29,-0.091,-0.091,-0.091,0.000,0.000,0.000
1643293199984532992,2022-01-27-14:19:59,10.1.1.6,27,-0.101,-0.101,-0.101,0.000,0.000,0.000
1643293200185295104,2022-01-27-14:20:00,10.1.1.6,28,-0.110,-0.110,-0.110,0.000,0.000,0.000
1643293200385363200,2022-01-27-14:20:00,10.1.1.6,27,-0.120,-0.120,-0.120,0.000,0.000,0.000
1643293200586896896,2022-01-27-14:20:00,10.1.1.6,28,-0.130,-0.130,-0.130,0.000,0.000,0.000
1643293200785257984,2022-01-27-14:20:00,10.1.1.6,26,-0.140,-0.140,-0.140,0.000,0.000,0.000
1643293200985349888,2022-01-27-14:20:00,10.1.1.6,25,-0.150,-0.150,-0.150,0.000,0.000,0.000
1643293201186326016,2022-01-27-14:20:01,10.1.1.6,24,-0.160,-0.160,-0.160,0.000,0.000,0.000
1643293201385485056,2022-01-27-14:20:01,10.1.1.6,24,-0.170,-0.170,-0.170,0.000,0.000,0.000
1643293201606596864,2022-01-27-14:20:01,10.1.1.6,44,-0.181,-0.181,-0.181,0.000,0.000,0.000
1643293201806166016,2022-01-27-14:20:01,10.1.1.6,43,-0.191,-0.191,-0.191,0.000,0.000,0.000
1643293201985249024,2022-01-27-14:20:01,10.1.1.6,21,-0.200,-0.200,-0.200,0.000,0.000,0.000
1643293202207943936,2022-01-27-14:20:02,10.1.1.6,38,-0.211,-0.211,-0.211,0.000,0.000,0.000
1643293202405335040,2022-01-27-14:20:02,10.1.1.6,23,-0.220,-0.220,-0.220,0.000,0.000,0.000
1643293202605763840,2022-01-27-14:20:02,10.1.1.6,23,-0.230,-0.230,-0.230,0.000,0.000,0.000
1643293202825725952,2022-01-27-14:20:02,10.1.1.6,42,-0.241,-0.241,-0.241,0.000,0.000,0.000
1643293203005195008,2022-01-27-14:20:03,10.1.1.6,21,-0.250,-0.250,-0.250,0.000,0.000,0.000
1643293203226573824,2022-01-27-14:20:03,10.1.1.6,41,-0.261,-0.261,-0.261,0.000,0.000,0.000
1643293203425442048,2022-01-27-14:20:03,10.1.1.6,37,-0.271,-0.271,-0.271,0.000,0.000,0.000
1643293203625448960,2022-01-27-14:20:03,10.1.1.6,37,-0.281,-0.281,-0.281,0.000,0.000,0.000
1643293203825794048,2022-01-27-14:20:03,10.1.1.6,36,-0.291,-0.291,-0.291,0.000,0.000,0.000
1643293204024681984,2022-01-27-14:20:04,10.1.1.6,34,-0.301,-0.301,-0.301,0.000,0.000,0.000
1643293204224988928,2022-01-27-14:20:04,10.1.1.6,34,-0.311,-0.311,-0.311,0.000,0.000,0.000
1643293204425852160,2022-01-27-14:20:04,10.1.1.6,34,-0.321,-0.321,-0.321,0.000,0.000,0.000
1643293204626033152,2022-01-27-14:20:04,10.1.1.6,32,-0.331,-0.331,-0.331,0.000,0.000,0.000
1643293204825277952,2022-01-27-14:20:04,10.1.1.6,31,-0.341,-0.341,-0.341,0.000,0.000,0.000
1643293205025885952,2022-01-27-14:20:05,10.1.1.6,31,-0.351,-0.351,-0.351,0.000,0.000,0.000
1643293205225409024,2022-01-27-14:20:05,10.1.1.6,29,-0.361,-0.361,-0.361,0.000,0.000,0.000
1643293205425698048,2022-01-27-14:20:05,10.1.1.6,29,-0.371,-0.371,-0.371,0.000,0.000,0.000
1643293205626270976,2022-01-27-14:20:05,10.1.1.6,29,-0.380,-0.380,-0.380,0.000,0.000,0.000
1643293205826487040,2022-01-27-14:20:05,10.1.1.6,27,-0.390,-0.390,-0.390,0.000,0.000,0.000
1643293206026843904,2022-01-27-14:20:06,10.1.1.6,27,-0.400,-0.400,-0.400,0.000,0.000,0.000
1643293206225154048,2022-01-27-14:20:06,10.1.1.6,25,-0.410,-0.410,-0.410,0.000,0.000,0.000
1643293206424930048,2022-01-27-14:20:06,10.1.1.6,23,-0.420,-0.420,-0.420,0.000,0.000,0.000
1643293206626416896,2022-01-27-14:20:06,10.1.1.6,24,-0.430,-0.430,-0.430,0.000,0.000,0.000
1643293206827403008,2022-01-27-14:20:06,10.1.1.6,24,-0.440,-0.440,-0.440,0.000,0.000,0.000
1643293207046725888,2022-01-27-14:20:07,10.1.1.6,43,-0.451,-0.451,-0.451,0.000,0.000,0.000
1643293207244999936,2022-01-27-14:20:07,10.1.1.6,39,-0.461,-0.461,-0.461,0.000,0.000,0.000
1643293207427185920,2022-01-27-14:20:07,10.1.1.6,21,-0.470,-0.470,-0.470,0.000,0.000,0.000
1643293207625129984,2022-01-27-14:20:07,10.1.1.6,18,-0.480,-0.480,-0.480,0.000,0.000,0.000
1643293207845545984,2022-01-27-14:20:07,10.1.1.6,37,-0.489,-0.489,-0.489,0.000,0.000,0.000
1643293208045295104,2022-01-27-14:20:08,10.1.1.6,37,-0.479,-0.479,-0.479,0.000,0.000,0.000
1643293208247371008,2022-01-27-14:20:08,10.1.1.6,39,-0.469,-0.469,-0.469,0.000,0.000,0.000
1643293208447153152,2022-01-27-14:20:08,10.1.1.6,38,-0.459,-0.459,-0.459,0.000,0.000,0.000
1643293208646342912,2022-01-27-14:20:08,10.1.1.6,37,-0.449,-0.449,-0.449,0.000,0.000,0.000
1643293208845549056,2022-01-27-14:20:08,10.1.1.6,34,-0.439,-0.439,-0.439,0.000,0.000,0.000
1643293209045070848,2022-01-27-14:20:09,10.1.1.6,32,-0.430,-0.430,-0.430,0.000,0.000,0.000
1643293209249762048,2022-01-27-14:20:09,10.1.1.6,31,-0.420,-0.420,-0.420,0.000,0.000,0.000
1643293209446417152,2022-01-27-14:20:09,10.1.1.6,26,-0.410,-0.410,-0.410,0.000,0.000,0.000
1643293209644681984,2022-01-27-14:20:09,10.1.1.6,25,-0.400,-0.400,-0.400,0.000,0.000,0.000
1643293209846806016,2022-01-27-14:20:09,10.1.1.6,26,-0.390,-0.390,-0.390,0.000,0.000,0.000
1643293210047101952,2022-01-27-14:20:10,10.1.1.6,25,-0.380,-0.380,-0.380,0.000,0.000,0.000
1643293210244601856,2022-01-27-14:20:10,10.1.1.6,23,-0.370,-0.370,-0.370,0.000,0.000,0.000
1643293210446778112,2022-01-27-14:20:10,10.1.1.6,23,-0.360,-0.360,-0.360,0.000,0.000,0.000
1643293210647164160,2022-01-27-14:20:10,10.1.1.6,23,-0.350,-0.350,-0.350,0.000,0.000,0.000
1643293210844254976,2022-01-27-14:20:10,10.1.1.6,21,-0.340,-0.340,-0.340,0.000,0.000,0.000
1643293211045995008,2022-01-27-14:20:11,10.1.1.6,19,-0.330,-0.330,-0.330,0.000,0.000,0.000
1643293211244421120,2022-01-27-14:20:11,10.1.1.6,17,-0.320,-0.320,-0.320,0.000,0.000,0.000
1643293211465317888,2022-01-27-14:20:11,10.1.1.6,38,-0.309,-0.309,-0.309,0.000,0.000,0.000
1643293211666022912,2022-01-27-14:20:11,10.1.1.6,36,-0.299,-0.299,-0.299,0.000,0.000,0.000
1643293211865075968,2022-01-27-14:20:11,10.1.1.6,35,-0.289,-0.289,-0.289,0.000,0.000,0.000
1643293212065840128,2022-01-27-14:20:12,10.1.1.6,35,-0.279,-0.279,-0.279,0.000,0.000,0.000
1643293212264997888,2022-01-27-14:20:12,10.1.1.6,32,-0.269,-0.269,-0.269,0.000,0.000,0.000
1643293212465699840,2022-01-27-14:20:12,10.1.1.6,32,-0.260,-0.260,-0.260,0.000,0.000,0.000
1643293212664797952,2022-01-27-14:20:12,10.1.1.6,29,-0.249,-0.249,-0.249,0.000,0.000,0.000
1643293212870480128,2022-01-27-14:20:12,10.1.1.6,31,-0.240,-0.240,-0.240,0.000,0.000,0.000
1643293213065609984,2022-01-27-14:20:13,10.1.1.6,28,-0.230,-0.230,-0.230,0.000,0.000,0.000
1643293213265125888,2022-01-27-14:20:13,10.1.1.6,27,-0.220,-0.220,-0.220,0.000,0.000,0.000
1643293213465712128,2022-01-27-14:20:13,10.1.1.6,27,-0.210,-0.210,-0.210,0.000,0.000,0.000
1643293213666781952,2022-01-27-14:20:13,10.1.1.6,27,-0.200,-0.200,-0.200,0.000,0.000,0.000
1643293213866605056,2022-01-27-14:20:13,10.1.1.6,26,-0.190,-0.190,-0.190,0.000,0.000,0.000
1643293214067815936,2022-01-27-14:20:14,10.1.1.6,26,-0.180,-0.180,-0.180,0.000,0.000,0.000
1643293214265448960,2022-01-27-14:20:14,10.1.1.6,23,-0.170,-0.170,-0.170,0.000,0.000,0.000
1643293214467068928,2022-01-27-14:20:14,10.1.1.6,23,-0.160,-0.160,-0.160,0.000,0.000,0.000
1643293214667104000,2022-01-27-14:20:14,10.1.1.6,22,-0.150,-0.150,-0.150,0.000,0.000,0.000
1643293214865341952,2022-01-27-14:20:14,10.1.1.6,19,-0.140,-0.140,-0.140,0.000,0.000,0.000
1643293215065295872,2022-01-27-14:20:15,10.1.1.6,18,-0.130,-0.130,-0.130,0.000,0.000,0.000
1643293215286326784,2022-01-27-14:20:15,10.1.1.6,38,-0.119,-0.119,-0.119,0.000,0.000,0.000
1643293215487592960,2022-01-27-14:20:15,10.1.1.6,39,-0.109,-0.109,-0.109,0.000,0.000,0.000
1643293215687422976,2022-01-27-14:20:15,10.1.1.6,38,-0.099,-0.099,-0.099,0.000,0.000,0.000
1643293215884526848,2022-01-27-14:20:15,10.1.1.6,34,-0.089,-0.089,-0.089,0.000,0.000,0.000
1643293216085534208,2022-01-27-14:20:16,10.1.1.6,34,-0.079,-0.079,-0.079,0.000,0.000,0.000
1643293216284740096,2022-01-27-14:20:16,10.1.1.6,33,-0.069,-0.069,-0.069,0.000,0.000,0.000
1643293216485622016,2022-01-27-14:20:16,10.1.1.6,34,-0.059,-0.059,-0.059,0.000,0.000,0.000
1643293216689612032,2022-01-27-14:20:16,10.1.1.6,36,-0.049,-0.049,-0.049,0.000,0.000,0.000
1643293216887720192,2022-01-27-14:20:16,10.1.1.6,31,-0.040,-0.040,-0.040,0.000,0.000,0.000
1643293217085964800,2022-01-27-14:20:17,10.1.1.6,29,-0.030,-0.030,-0.030,0.000,0.000,0.000
1643293217286071040,2022-01-27-14:20:17,10.1.1.6,28,-0.020,-0.020,-0.020,0.000,0.000,0.000
1643293217485696000,2022-01-27-14:20:17,10.1.1.6,27,-0.010,-0.010,-0.010,0.000,0.000,0.000
1643293217667834880,2022-01-27-14:20:17,10.1.1.6,9,-0.001,-0.001,-0.001,0.000,0.000,0.000
1643293217889007104,2022-01-27-14:20:17,10.1.1.6,29,-0.010,-0.010,-0.010,0.000,0.000,0.000
1643293218086852096,2022-01-27-14:20:18,10.1.1.6,26,-0.020,-0.020,-0.020,0.000,0.000,0.000
1643293218307271936,2022-01-27-14:20:18,10.1.1.6,46,-0.031,-0.031,-0.031,0.000,0.000,0.000
1643293218506548992,2022-01-27-14:20:18,10.1.1.6,40,-0.041,-0.041,-0.041,0.000,0.000,0.000
1643293218706552064,2022-01-27-14:20:18,10.1.1.6,39,-0.051,-0.051,-0.051,0.000,0.000,0.000
1643293218906482944,2022-01-27-14:20:18,10.1.1.6,38,-0.061,-0.061,-0.061,0.000,0.000,0.000
1643293219106162176,2022-01-27-14:20:19,10.1.1.6,37,-0.071,-0.071,-0.071,0.000,0.000,0.000
1643293219306659840,2022-01-27-14:20:19,10.1.1.6,37,-0.081,-0.081,-0.081,0.000,0.000,0.000
1643293219506781952,2022-01-27-14:20:19,10.1.1.6,34,-0.091,-0.091,-0.091,0.000,0.000,0.000
1643293219704782848,2022-01-27-14:20:19,10.1.1.6,31,-0.101,-0.101,-0.101,0.000,0.000,0.000
1643293219907633152,2022-01-27-14:20:19,10.1.1.6,33,-0.111,-0.111,-0.111,0.000,0.000,0.000
1643293220107238144,2022-01-27-14:20:20,10.1.1.6,32,-0.121,-0.121,-0.121,0.000,0.000,0.000
1643293220305378816,2022-01-27-14:20:20,10.1.1.6,29,-0.131,-0.131,-0.131,0.000,0.000,0.000
1643293220506972160,2022-01-27-14:20:20,10.1.1.6,30,-0.140,-0.140,-0.140,0.000,0.000,0.000
1643293220706607104,2022-01-27-14:20:20,10.1.1.6,29,-0.150,-0.150,-0.150,0.000,0.000,0.000
1643293220906727168,2022-01-27-14:20:20,10.1.1.6,29,-0.160,-0.160,-0.160,0.000,0.000,0.000
1643293221107033856,2022-01-27-14:20:21,10.1.1.6,28,-0.170,-0.170,-0.170,0.000,0.000,0.000
1643293221305547008,2022-01-27-14:20:21,10.1.1.6,26,-0.180,-0.180,-0.180,0.000,0.000,0.000
1643293221506806016,2022-01-27-14:20:21,10.1.1.6,27,-0.190,-0.190,-0.190,0.000,0.000,0.000
1643293221706238976,2022-01-27-14:20:21,10.1.1.6,25,-0.200,-0.200,-0.200,0.000,0.000,0.000
1643293221926379008,2022-01-27-14:20:21,10.1.1.6,43,-0.211,-0.211,-0.211,0.000,0.000,0.000
1643293222106460160,2022-01-27-14:20:22,10.1.1.6,22,-0.220,-0.220,-0.220,0.000,0.000,0.000
1643293222325675008,2022-01-27-14:20:22,10.1.1.6,40,-0.231,-0.231,-0.231,0.000,0.000,0.000
1643293222526644992,2022-01-27-14:20:22,10.1.1.6,39,-0.241,-0.241,-0.241,0.000,0.000,0.000
1643293222726177024,2022-01-27-14:20:22,10.1.1.6,38,-0.251,-0.251,-0.251,0.000,0.000,0.000
1643293222925726976,2022-01-27-14:20:22,10.1.1.6,37,-0.261,-0.261,-0.261,0.000,0.000,0.000
1643293223128073984,2022-01-27-14:20:23,10.1.1.6,39,-0.271,-0.271,-0.271,0.000,0.000,0.000
1643293223325647104,2022-01-27-14:20:23,10.1.1.6,35,-0.281,-0.281,-0.281,0.000,0.000,0.000
1643293223526447104,2022-01-27-14:20:23,10.1.1.6,35,-0.291,-0.291,-0.291,0.000,0.000,0.000
1643293223726272000,2022-01-27-14:20:23,10.1.1.6,34,-0.301,-0.301,-0.301,0.000,0.000,0.000
1643293223927100928,2022-01-27-14:20:23,10.1.1.6,35,-0.311,-0.311,-0.311,0.000,0.000,0.000
1643293224126185984,2022-01-27-14:20:24,10.1.1.6,33,-0.321,-0.321,-0.321,0.000,0.000,0.000
1643293224325992960,2022-01-27-14:20:24,10.1.1.6,32,-0.331,-0.331,-0.331,0.000,0.000,0.000
1643293224526024192,2022-01-27-14:20:24,10.1.1.6,31,-0.341,-0.341,-0.341,0.000,0.000,0.000
1643293224726180096,2022-01-27-14:20:24,10.1.1.6,30,-0.350,-0.350,-0.350,0.000,0.000,0.000
1643293224926817024,2022-01-27-14:20:24,10.1.1.6,31,-0.361,-0.361,-0.361,0.000,0.000,0.000
1643293225127175936,2022-01-27-14:20:25,10.1.1.6,30,-0.370,-0.370,-0.370,0.000,0.000,0.000
1643293225325787904,2022-01-27-14:20:25,10.1.1.6,28,-0.380,-0.380,-0.380,0.000,0.000,0.000
1643293225527012096,2022-01-27-14:20:25,10.1.1.6,28,-0.390,-0.390,-0.390,0.000,0.000,0.000
1643293225725541120,2022-01-27-14:20:25,10.1.1.6,25,-0.400,-0.400,-0.400,0.000,0.000,0.000
1643293225928374016,2022-01-27-14:20:25,10.1.1.6,27,-0.410,-0.410,-0.410,0.000,0.000,0.000
1643293226126939136,2022-01-27-14:20:26,10.1.1.6,25,-0.420,-0.420,-0.420,0.000,0.000,0.000
1643293226327159040,2022-01-27-14:20:26,10.1.1.6,23,-0.430,-0.430,-0.430,0.000,0.000,0.000
1643293226547170048,2022-01-27-14:20:26,10.1.1.6,42,-0.441,-0.441,-0.441,0.000,0.000,0.000
1643293226726800896,2022-01-27-14:20:26,10.1.1.6,21,-0.450,-0.450,-0.450,0.000,0.000,0.000
1643293226947582976,2022-01-27-14:20:26,10.1.1.6,28,-0.460,-0.460,-0.460,0.000,0.000,0.000
1643293227145366784,2022-01-27-14:20:27,10.1.1.6,27,-0.470,-0.470,-0.470,0.000,0.000,0.000
1643293227345573888,2022-01-27-14:20:27,10.1.1.6,27,-0.480,-0.480,-0.480,0.000,0.000,0.000
1643293227525088000,2022-01-27-14:20:27,10.1.1.6,6,-0.489,-0.489,-0.489,0.000,0.000,0.000
1643293227745372160,2022-01-27-14:20:27,10.1.1.6,26,-0.480,-0.480,-0.480,0.000,0.000,0.000
1643293227945352960,2022-01-27-14:20:27,10.1.1.6,25,-0.470,-0.470,-0.470,0.000,0.000,0.000
1643293228145617920,2022-01-27-14:20:28,10.1.1.6,25,-0.460,-0.460,-0.460,0.000,0.000,0.000
1643293228345586176,2022-01-27-14:20:28,10.1.1.6,23,-0.450,-0.450,-0.450,0.000,0.000,0.000
1643293228546072832,2022-01-27-14:20:28,10.1.1.6,22,-0.440,-0.440,-0.440,0.000,0.000,0.000
1643293228766583040,2022-01-27-14:20:28,10.1.1.6,42,-0.429,-0.429,-0.429,0.000,0.000,0.000
1643293228965150976,2022-01-27-14:20:28,10.1.1.6,39,-0.419,-0.419,-0.419,0.000,0.000,0.000
1643293229166408960,2022-01-27-14:20:29,10.1.1.6,39,-0.409,-0.409,-0.409,0.000,0.000,0.000
1643293229364882944,2022-01-27-14:20:29,10.1.1.6,37,-0.399,-0.399,-0.399,0.000,0.000,0.000
1643293229565406208,2022-01-27-14:20:29,10.1.1.6,37,-0.389,-0.389,-0.389,0.000,0.000,0.000
1643293229765966848,2022-01-27-14:20:29,10.1.1.6,37,-0.379,-0.379,-0.379,0.000,0.000,0.000
1643293229965128960,2022-01-27-14:20:29,10.1.1.6,36,-0.369,-0.369,-0.369,0.000,0.000,0.000
1643293230166524928,2022-01-27-14:20:30,10.1.1.6,36,-0.359,-0.359,-0.359,0.000,0.000,0.000
1643293230367016192,2022-01-27-14:20:30,10.1.1.6,36,-0.349,-0.349,-0.349,0.000,0.000,0.000
1643293230565611008,2022-01-27-14:20:30,10.1.1.6,34,-0.339,-0.339,-0.339,0.000,0.000,0.000
1643293230765715968,2022-01-27-14:20:30,10.1.1.6,33,-0.329,-0.329,-0.329,0.000,0.000,0.000
1643293230965136896,2022-01-27-14:20:30,10.1.1.6,30,-0.320,-0.320,-0.320,0.000,0.000,0.000
1643293231166276864,2022-01-27-14:20:31,10.1.1.6,30,-0.309,-0.309,-0.309,0.000,0.000,0.000
1643293231366682880,2022-01-27-14:20:31,10.1.1.6,30,-0.300,-0.300,-0.300,0.000,0.000,0.000
1643293231566700032,2022-01-27-14:20:31,10.1.1.6,29,-0.290,-0.290,-0.290,0.000,0.000,0.000
1643293231766675968,2022-01-27-14:20:31,10.1.1.6,28,-0.280,-0.280,-0.280,0.000,0.000,0.000
1643293231966087936,2022-01-27-14:20:31,10.1.1.6,26,-0.270,-0.270,-0.270,0.000,0.000,0.000
1643293232172720896,2022-01-27-14:20:32,10.1.1.6,32,-0.260,-0.260,-0.260,0.000,0.000,0.000
1643293232371087104,2022-01-27-14:20:32,10.1.1.6,28,-0.250,-0.250,-0.250,0.000,0.000,0.000
1643293232565566976,2022-01-27-14:20:32,10.1.1.6,23,-0.240,-0.240,-0.240,0.000,0.000,0.000
1643293232765466880,2022-01-27-14:20:32,10.1.1.6,22,-0.230,-0.230,-0.230,0.000,0.000,0.000
1643293232966327040,2022-01-27-14:20:32,10.1.1.6,21,-0.220,-0.220,-0.220,0.000,0.000,0.000
1643293233185895936,2022-01-27-14:20:33,10.1.1.6,39,-0.209,-0.209,-0.209,0.000,0.000,0.000
1643293233385531904,2022-01-27-14:20:33,10.1.1.6,38,-0.199,-0.199,-0.199,0.000,0.000,0.000
1643293233587598080,2022-01-27-14:20:33,10.1.1.6,38,-0.189,-0.189,-0.189,0.000,0.000,0.000
1643293233785255936,2022-01-27-14:20:33,10.1.1.6,36,-0.179,-0.179,-0.179,0.000,0.000,0.000
1643293233984813824,2022-01-27-14:20:33,10.1.1.6,35,-0.169,-0.169,-0.169,0.000,0.000,0.000
1643293234186036224,2022-01-27-14:20:34,10.1.1.6,35,-0.159,-0.159,-0.159,0.000,0.000,0.000
1643293234385452032,2022-01-27-14:20:34,10.1.1.6,34,-0.149,-0.149,-0.149,0.000,0.000,0.000
1643293234585263872,2022-01-27-14:20:34,10.1.1.6,33,-0.139,-0.139,-0.139,0.000,0.000,0.000
1643293234786736128,2022-01-27-14:20:34,10.1.1.6,34,-0.129,-0.129,-0.129,0.000,0.000,0.000
1643293234985961984,2022-01-27-14:20:34,10.1.1.6,32,-0.120,-0.120,-0.120,0.000,0.000,0.000
1643293235186813184,2022-01-27-14:20:35,10.1.1.6,31,-0.110,-0.110,-0.110,0.000,0.000,0.000
1643293235386051840,2022-01-27-14:20:35,10.1.1.6,30,-0.099,-0.099,-0.099,0.000,0.000,0.000
1643293235586358016,2022-01-27-14:20:35,10.1.1.6,29,-0.089,-0.089,-0.089,0.000,0.000,0.000
1643293235787062016,2022-01-27-14:20:35,10.1.1.6,29,-0.080,-0.080,-0.080,0.000,0.000,0.000
1643293235985177088,2022-01-27-14:20:35,10.1.1.6,27,-0.070,-0.070,-0.070,0.000,0.000,0.000
1643293236185244160,2022-01-27-14:20:36,10.1.1.6,26,-0.060,-0.060,-0.060,0.000,0.000,0.000
1643293236387377920,2022-01-27-14:20:36,10.1.1.6,27,-0.050,-0.050,-0.050,0.000,0.000,0.000
1643293236585458944,2022-01-27-14:20:36,10.1.1.6,25,-0.040,-0.040,-0.040,0.000,0.000,0.000
1643293236785270016,2022-01-27-14:20:36,10.1.1.6,24,-0.030,-0.030,-0.030,0.000,0.000,0.000
1643293236985723904,2022-01-27-14:20:36,10.1.1.6,24,-0.020,-0.020,-0.020,0.000,0.000,0.000
1643293237186567936,2022-01-27-14:20:37,10.1.1.6,24,-0.010,-0.010,-0.010,0.000,0.000,0.000
1643293237365282048,2022-01-27-14:20:37,10.1.1.6,2,-0.001,-0.001,-0.001,0.000,0.000,0.000
1643293237605169152,2022-01-27-14:20:37,10.1.1.6,40,-0.011,-0.011,-0.011,0.000,0.000,0.000
1643293237806440960,2022-01-27-14:20:37,10.1.1.6,40,-0.021,-0.021,-0.021,0.000,0.000,0.000
1643293238005566976,2022-01-27-14:20:38,10.1.1.6,39,-0.031,-0.031,-0.031,0.000,0.000,0.000
1643293238205848832,2022-01-27-14:20:38,10.1.1.6,36,-0.041,-0.041,-0.041,0.000,0.000,0.000
1643293238405585152,2022-01-27-14:20:38,10.1.1.6,35,-0.051,-0.051,-0.051,0.000,0.000,0.000
1643293238605755136,2022-01-27-14:20:38,10.1.1.6,35,-0.061,-0.061,-0.061,0.000,0.000,0.000
1643293238805908992,2022-01-27-14:20:38,10.1.1.6,33,-0.071,-0.071,-0.071,0.000,0.000,0.000
1643293239005250048,2022-01-27-14:20:39,10.1.1.6,33,-0.081,-0.081,-0.081,0.000,0.000,0.000
1643293239205874944,2022-01-27-14:20:39,10.1.1.6,33,-0.091,-0.091,-0.091,0.000,0.000,0.000
1643293239406022144,2022-01-27-14:20:39,10.1.1.6,32,-0.101,-0.101,-0.101,0.000,0.000,0.000
1643293239606081024,2022-01-27-14:20:39,10.1.1.6,31,-0.111,-0.111,-0.111,0.000,0.000,0.000
1643293239807686144,2022-01-27-14:20:39,10.1.1.6,32,-0.120,-0.120,-0.120,0.000,0.000,0.000
1643293240005705216,2022-01-27-14:20:40,10.1.1.6,29,-0.131,-0.131,-0.131,0.000,0.000,0.000
1643293240208147968,2022-01-27-14:20:40,10.1.1.6,31,-0.141,-0.141,-0.141,0.000,0.000,0.000
1643293240411606016,2022-01-27-14:20:40,10.1.1.6,34,-0.150,-0.150,-0.150,0.000,0.000,0.000
1643293240605323008,2022-01-27-14:20:40,10.1.1.6,27,-0.160,-0.160,-0.160,0.000,0.000,0.000
1643293240805819904,2022-01-27-14:20:40,10.1.1.6,26,-0.170,-0.170,-0.170,0.000,0.000,0.000
1643293241006952960,2022-01-27-14:20:41,10.1.1.6,26,-0.180,-0.180,-0.180,0.000,0.000,0.000
1643293241205806080,2022-01-27-14:20:41,10.1.1.6,24,-0.190,-0.190,-0.190,0.000,0.000,0.000
1643293241405311232,2022-01-27-14:20:41,10.1.1.6,23,-0.200,-0.200,-0.200,0.000,0.000,0.000
1643293241628130816,2022-01-27-14:20:41,10.1.1.6,43,-0.211,-0.211,-0.211,0.000,0.000,0.000
1643293241807249152,2022-01-27-14:20:41,10.1.1.6,23,-0.220,-0.220,-0.220,0.000,0.000,0.000
1643293242006521088,2022-01-27-14:20:42,10.1.1.6,21,-0.230,-0.230,-0.230,0.000,0.000,0.000
1643293242205195776,2022-01-27-14:20:42,10.1.1.6,19,-0.240,-0.240,-0.240,0.000,0.000,0.000
1643293242425882112,2022-01-27-14:20:42,10.1.1.6,39,-0.251,-0.251,-0.251,0.000,0.000,0.000
1643293242645857024,2022-01-27-14:20:42,10.1.1.6,51,-0.261,-0.261,-0.261,0.000,0.000,0.000
1643293242868495104,2022-01-27-14:20:42,10.1.1.6,45,-0.271,-0.271,-0.271,0.000,0.000,0.000
1643293243066612992,2022-01-27-14:20:43,10.1.1.6,43,-0.281,-0.281,-0.281,0.000,0.000,0.000
1643293243245636864,2022-01-27-14:20:43,10.1.1.6,21,-0.290,-0.290,-0.290,0.000,0.000,0.000
1643293243466435840,2022-01-27-14:20:43,10.1.1.6,39,-0.301,-0.301,-0.301,0.000,0.000,0.000
1643293243666227968,2022-01-27-14:20:43,10.1.1.6,38,-0.311,-0.311,-0.311,0.000,0.000,0.000
1643293243865947904,2022-01-27-14:20:43,10.1.1.6,38,-0.321,-0.321,-0.321,0.000,0.000,0.000
1643293244066216960,2022-01-27-14:20:44,10.1.1.6,37,-0.331,-0.331,-0.331,0.000,0.000,0.000
1643293244266105856,2022-01-27-14:20:44,10.1.1.6,36,-0.341,-0.341,-0.341,0.000,0.000,0.000
1643293244465414144,2022-01-27-14:20:44,10.1.1.6,34,-0.351,-0.351,-0.351,0.000,0.000,0.000
1643293244665304832,2022-01-27-14:20:44,10.1.1.6,33,-0.361,-0.361,-0.361,0.000,0.000,0.000
1643293244865084928,2022-01-27-14:20:44,10.1.1.6,32,-0.371,-0.371,-0.371,0.000,0.000,0.000
1643293245065470976,2022-01-27-14:20:45,10.1.1.6,32,-0.381,-0.381,-0.381,0.000,0.000,0.000
1643293245265786880,2022-01-27-14:20:45,10.1.1.6,32,-0.391,-0.391,-0.391,0.000,0.000,0.000
1643293245465772032,2022-01-27-14:20:45,10.1.1.6,31,-0.401,-0.401,-0.401,0.000,0.000,0.000
1643293245668032000,2022-01-27-14:20:45,10.1.1.6,32,-0.411,-0.411,-0.411,0.000,0.000,0.000
1643293245866792960,2022-01-27-14:20:45,10.1.1.6,30,-0.421,-0.421,-0.421,0.000,0.000,0.000
1643293246066142208,2022-01-27-14:20:46,10.1.1.6,29,-0.430,-0.430,-0.430,0.000,0.000,0.000
1643293246265176064,2022-01-27-14:20:46,10.1.1.6,27,-0.440,-0.440,-0.440,0.000,0.000,0.000
1643293246465581824,2022-01-27-14:20:46,10.1.1.6,27,-0.450,-0.450,-0.450,0.000,0.000,0.000
1643293246667706112,2022-01-27-14:20:46,10.1.1.6,28,-0.460,-0.460,-0.460,0.000,0.000,0.000
1643293246866064128,2022-01-27-14:20:46,10.1.1.6,26,-0.470,-0.470,-0.470,0.000,0.000,0.000
1643293247065833216,2022-01-27-14:20:47,10.1.1.6,25,-0.480,-0.480,-0.480,0.000,0.000,0.000
1643293247245596928,2022-01-27-14:20:47,10.1.1.6,4,-0.489,-0.489,-0.489,0.000,0.000,0.000
1643293247467431936,2022-01-27-14:20:47,10.1.1.6,25,-0.480,-0.480,-0.480,0.000,0.000,0.000
1643293247665581824,2022-01-27-14:20:47,10.1.1.6,22,-0.470,-0.470,-0.470,0.000,0.000,0.000
1643293247867360000,2022-01-27-14:20:47,10.1.1.6,21,-0.460,-0.460,-0.460,0.000,0.000,0.000
1643293248065073920,2022-01-27-14:20:48,10.1.1.6,17,-0.450,-0.450,-0.450,0.000,0.000,0.000
1643293248286395136,2022-01-27-14:20:48,10.1.1.6,38,-0.439,-0.439,-0.439,0.000,0.000,0.000
1643293248485760000,2022-01-27-14:20:48,10.1.1.6,37,-0.429,-0.429,-0.429,0.000,0.000,0.000
1643293248686564864,2022-01-27-14:20:48,10.1.1.6,37,-0.419,-0.419,-0.419,0.000,0.000,0.000
1643293248884651008,2022-01-27-14:20:48,10.1.1.6,35,-0.409,-0.409,-0.409,0.000,0.000,0.000
1643293249085357056,2022-01-27-14:20:49,10.1.1.6,35,-0.399,-0.399,-0.399,0.000,0.000,0.000
1643293249284812800,2022-01-27-14:20:49,10.1.1.6,34,-0.389,-0.389,-0.389,0.000,0.000,0.000
1643293249485012992,2022-01-27-14:20:49,10.1.1.6,33,-0.379,-0.379,-0.379,0.000,0.000,0.000
1643293249686108160,2022-01-27-14:20:49,10.1.1.6,33,-0.369,-0.369,-0.369,0.000,0.000,0.000
1643293249885543168,2022-01-27-14:20:49,10.1.1.6,32,-0.359,-0.359,-0.359,0.000,0.000,0.000
1643293250098941952,2022-01-27-14:20:50,10.1.1.6,44,-0.350,-0.350,-0.350,0.000,0.000,0.000
1643293250286458112,2022-01-27-14:20:50,10.1.1.6,29,-0.339,-0.339,-0.339,0.000,0.000,0.000
1643293250486910976,2022-01-27-14:20:50,10.1.1.6,30,-0.329,-0.329,-0.329,0.000,0.000,0.000
1643293250687561984,2022-01-27-14:20:50,10.1.1.6,31,-0.319,-0.319,-0.319,0.000,0.000,0.000
1643293250885893120,2022-01-27-14:20:50,10.1.1.6,28,-0.310,-0.310,-0.310,0.000,0.000,0.000
1643293251087456000,2022-01-27-14:20:51,10.1.1.6,29,-0.300,-0.300,-0.300,0.000,0.000,0.000
1643293251285795840,2022-01-27-14:20:51,10.1.1.6,27,-0.290,-0.290,-0.290,0.000,0.000,0.000
1643293251486422016,2022-01-27-14:20:51,10.1.1.6,27,-0.280,-0.280,-0.280,0.000,0.000,0.000
1643293251685265920,2022-01-27-14:20:51,10.1.1.6,25,-0.270,-0.270,-0.270,0.000,0.000,0.000
1643293251887154176,2022-01-27-14:20:51,10.1.1.6,24,-0.260,-0.260,-0.260,0.000,0.000,0.000
1643293252104892928,2022-01-27-14:20:52,10.1.1.6,41,-0.249,-0.249,-0.249,0.000,0.000,0.000
1643293252286236160,2022-01-27-14:20:52,10.1.1.6,20,-0.240,-0.240,-0.240,0.000,0.000,0.000
1643293252486138112,2022-01-27-14:20:52,10.1.1.6,20,-0.230,-0.230,-0.230,0.000,0.000,0.000
1643293252705157888,2022-01-27-14:20:52,10.1.1.6,38,-0.219,-0.219,-0.219,0.000,0.000,0.000
1643293252905658880,2022-01-27-14:20:52,10.1.1.6,38,-0.209,-0.209,-0.209,0.000,0.000,0.000
1643293253105971200,2022-01-27-14:20:53,10.1.1.6,38,-0.199,-0.199,-0.199,0.000,0.000,0.000
1643293253304904960,2022-01-27-14:20:53,10.1.1.6,36,-0.189,-0.189,-0.189,0.000,0.000,0.000
1643293253508281856,2022-01-27-14:20:53,10.1.1.6,39,-0.179,-0.179,-0.179,0.000,0.000,0.000
1643293253709086976,2022-01-27-14:20:53,10.1.1.6,39,-0.169,-0.169,-0.169,0.000,0.000,0.000
1643293253907099904,2022-01-27-14:20:53,10.1.1.6,36,-0.159,-0.159,-0.159,0.000,0.000,0.000
1643293254107953920,2022-01-27-14:20:54,10.1.1.6,36,-0.149,-0.149,-0.149,0.000,0.000,0.000
1643293254306798080,2022-01-27-14:20:54,10.1.1.6,35,-0.139,-0.139,-0.139,0.000,0.000,0.000
1643293254507318016,2022-01-27-14:20:54,10.1.1.6,35,-0.129,-0.129,-0.129,0.000,0.000,0.000
1643293254706042880,2022-01-27-14:20:54,10.1.1.6,32,-0.119,-0.119,-0.119,0.000,0.000,0.000
1643293254906172160,2022-01-27-14:20:54,10.1.1.6,30,-0.110,-0.110,-0.110,0.000,0.000,0.000
1643293255106426112,2022-01-27-14:20:55,10.1.1.6,29,-0.100,-0.100,-0.100,0.000,0.000,0.000
1643293255306624768,2022-01-27-14:20:55,10.1.1.6,28,-0.090,-0.090,-0.090,0.000,0.000,0.000
1643293255507757824,2022-01-27-14:20:55,10.1.1.6,28,-0.080,-0.080,-0.080,0.000,0.000,0.000
1643293255706422016,2022-01-27-14:20:55,10.1.1.6,27,-0.070,-0.070,-0.070,0.000,0.000,0.000
1643293255907699968,2022-01-27-14:20:55,10.1.1.6,27,-0.060,-0.060,-0.060,0.000,0.000,0.000
1643293256110923008,2022-01-27-14:20:56,10.1.1.6,26,-0.050,-0.050,-0.050,0.000,0.000,0.000
1643293256326199040,2022-01-27-14:20:56,10.1.1.6,42,-0.039,-0.039,-0.039,0.000,0.000,0.000
1643293256525646848,2022-01-27-14:20:56,10.1.1.6,38,-0.029,-0.029,-0.029,0.000,0.000,0.000
1643293256727223040,2022-01-27-14:20:56,10.1.1.6,39,-0.019,-0.019,-0.019,0.000,0.000,0.000
1643293256926528000,2022-01-27-14:20:56,10.1.1.6,38,-0.009,-0.009,-0.009,0.000,0.000,0.000
1643293257110484992,2022-01-27-14:20:57,10.1.1.6,21,-0.000,-0.000,-0.000,0.000,0.000,0.000
1643293257327020800,2022-01-27-14:20:57,10.1.1.6,37,-0.011,-0.011,-0.011,0.000,0.000,0.000
1643293257526546944,2022-01-27-14:20:57,10.1.1.6,35,-0.021,-0.021,-0.021,0.000,0.000,0.000
1643293257726352896,2022-01-27-14:20:57,10.1.1.6,34,-0.031,-0.031,-0.031,0.000,0.000,0.000
1643293257925522944,2022-01-27-14:20:57,10.1.1.6,31,-0.040,-0.040,-0.040,0.000,0.000,0.000
1643293258126684928,2022-01-27-14:20:58,10.1.1.6,31,-0.051,-0.051,-0.051,0.000,0.000,0.000
1643293258325176064,2022-01-27-14:20:58,10.1.1.6,28,-0.060,-0.060,-0.060,0.000,0.000,0.000
1643293258526098944,2022-01-27-14:20:58,10.1.1.6,28,-0.070,-0.070,-0.070,0.000,0.000,0.000
1643293258727292160,2022-01-27-14:20:58,10.1.1.6,25,-0.080,-0.080,-0.080,0.000,0.000,0.000
1643293258926016000,2022-01-27-14:20:58,10.1.1.6,23,-0.090,-0.090,-0.090,0.000,0.000,0.000
1643293259126625024,2022-01-27-14:20:59,10.1.1.6,16,-0.100,-0.100,-0.100,0.000,0.000,0.000
1643293259345932032,2022-01-27-14:20:59,10.1.1.6,34,-0.111,-0.111,-0.111,0.000,0.000,0.000
1643293259551356160,2022-01-27-14:20:59,10.1.1.6,32,-0.121,-0.121,-0.121,0.000,0.000,0.000
1643293259745773056,2022-01-27-14:20:59,10.1.1.6,30,-0.131,-0.131,-0.131,0.000,0.000,0.000
1643293259949389056,2022-01-27-14:20:59,10.1.1.6,33,-0.141,-0.141,-0.141,0.000,0.000,0.000
1643293260147023872,2022-01-27-14:21:00,10.1.1.6,29,-0.150,-0.150,-0.150,0.000,0.000,0.000
1643293260347374848,2022-01-27-14:21:00,10.1.1.6,29,-0.160,-0.160,-0.160,0.000,0.000,0.000
1643293260547247872,2022-01-27-14:21:00,10.1.1.6,27,-0.170,-0.170,-0.170,0.000,0.000,0.000
1643293260747796992,2022-01-27-14:21:00,10.1.1.6,27,-0.180,-0.180,-0.180,0.000,0.000,0.000
1643293260947542016,2022-01-27-14:21:00,10.1.1.6,26,-0.190,-0.190,-0.190,0.000,0.000,0.000
1643293261147258880,2022-01-27-14:21:01,10.1.1.6,25,-0.200,-0.200,-0.200,0.000,0.000,0.000
1643293261349405952,2022-01-27-14:21:01,10.1.1.6,23,-0.210,-0.210,-0.210,0.000,0.000,0.000
1643293261569342976,2022-01-27-14:21:01,10.1.1.6,40,-0.221,-0.221,-0.221,0.000,0.000,0.000
1643293261771607040,2022-01-27-14:21:01,10.1.1.6,42,-0.231,-0.231,-0.231,0.000,0.000,0.000
1643293261967414016,2022-01-27-14:21:01,10.1.1.6,37,-0.241,-0.241,-0.241,0.000,0.000,0.000
1643293262168414976,2022-01-27-14:21:02,10.1.1.6,35,-0.251,-0.251,-0.251,0.000,0.000,0.000
1643293262367670016,2022-01-27-14:21:02,10.1.1.6,34,-0.261,-0.261,-0.261,0.000,0.000,0.000
1643293262568591104,2022-01-27-14:21:02,10.1.1.6,30,-0.270,-0.270,-0.270,0.000,0.000,0.000
1643293262766799872,2022-01-27-14:21:02,10.1.1.6,26,-0.280,-0.280,-0.280,0.000,0.000,0.000
1643293262965976832,2022-01-27-14:21:02,10.1.1.6,26,-0.290,-0.290,-0.290,0.000,0.000,0.000
1643293263166587136,2022-01-27-14:21:03,10.1.1.6,26,-0.300,-0.300,-0.300,0.000,0.000,0.000
1643293263388772096,2022-01-27-14:21:03,10.1.1.6,43,-0.311,-0.311,-0.311,0.000,0.000,0.000
1643293263589819904,2022-01-27-14:21:03,10.1.1.6,38,-0.321,-0.321,-0.321,0.000,0.000,0.000
1643293263789196032,2022-01-27-14:21:03,10.1.1.6,36,-0.331,-0.331,-0.331,0.000,0.000,0.000
1643293263985894912,2022-01-27-14:21:03,10.1.1.6,32,-0.341,-0.341,-0.341,0.000,0.000,0.000
1643293264187344128,2022-01-27-14:21:04,10.1.1.6,30,-0.351,-0.351,-0.351,0.000,0.000,0.000
1643293264387599872,2022-01-27-14:21:04,10.1.1.6,29,-0.360,-0.360,-0.360,0.000,0.000,0.000
1643293264587593984,2022-01-27-14:21:04,10.1.1.6,29,-0.370,-0.370,-0.370,0.000,0.000,0.000
1643293264785897984,2022-01-27-14:21:04,10.1.1.6,27,-0.380,-0.380,-0.380,0.000,0.000,0.000
1643293264986750976,2022-01-27-14:21:04,10.1.1.6,26,-0.390,-0.390,-0.390,0.000,0.000,0.000
1643293265190121984,2022-01-27-14:21:05,10.1.1.6,29,-0.400,-0.400,-0.400,0.000,0.000,0.000
1643293265388858112,2022-01-27-14:21:05,10.1.1.6,27,-0.410,-0.410,-0.410,0.000,0.000,0.000
1643293265586894080,2022-01-27-14:21:05,10.1.1.6,24,-0.420,-0.420,-0.420,0.000,0.000,0.000
1643293265785680896,2022-01-27-14:21:05,10.1.1.6,21,-0.430,-0.430,-0.430,0.000,0.000,0.000
1643293266005917184,2022-01-27-14:21:06,10.1.1.6,35,-0.441,-0.441,-0.441,0.000,0.000,0.000
1643293266205159936,2022-01-27-14:21:06,10.1.1.6,33,-0.451,-0.451,-0.451,0.000,0.000,0.000
1643293266405853952,2022-01-27-14:21:06,10.1.1.6,32,-0.460,-0.460,-0.460,0.000,0.000,0.000
1643293266606095104,2022-01-27-14:21:06,10.1.1.6,32,-0.471,-0.471,-0.471,0.000,0.000,0.000
1643293266807156992,2022-01-27-14:21:06,10.1.1.6,32,-0.481,-0.481,-0.481,0.000,0.000,0.000
1643293266986066176,2022-01-27-14:21:06,10.1.1.6,8,-0.490,-0.490,-0.490,0.000,0.000,0.000
1643293267207261952,2022-01-27-14:21:07,10.1.1.6,28,-0.480,-0.480,-0.480,0.000,0.000,0.000
1643293267405870080,2022-01-27-14:21:07,10.1.1.6,26,-0.470,-0.470,-0.470,0.000,0.000,0.000
1643293267607596032,2022-01-27-14:21:07,10.1.1.6,26,-0.460,-0.460,-0.460,0.000,0.000,0.000
1643293267808777216,2022-01-27-14:21:07,10.1.1.6,27,-0.450,-0.450,-0.450,0.000,0.000,0.000
1643293268006515968,2022-01-27-14:21:08,10.1.1.6,24,-0.440,-0.440,-0.440,0.000,0.000,0.000
1643293268205699072,2022-01-27-14:21:08,10.1.1.6,23,-0.430,-0.430,-0.430,0.000,0.000,0.000
1643293268426562048,2022-01-27-14:21:08,10.1.1.6,43,-0.419,-0.419,-0.419,0.000,0.000,0.000
1643293268605559040,2022-01-27-14:21:08,10.1.1.6,21,-0.410,-0.410,-0.410,0.000,0.000,0.000
1643293268805876992,2022-01-27-14:21:08,10.1.1.6,21,-0.400,-0.400,-0.400,0.000,0.000,0.000
1643293269006445056,2022-01-27-14:21:09,10.1.1.6,20,-0.390,-0.390,-0.390,0.000,0.000,0.000
1643293269226376960,2022-01-27-14:21:09,10.1.1.6,38,-0.379,-0.379,-0.379,0.000,0.000,0.000
1643293269425745920,2022-01-27-14:21:09,10.1.1.6,36,-0.369,-0.369,-0.369,0.000,0.000,0.000
1643293269626688000,2022-01-27-14:21:09,10.1.1.6,36,-0.359,-0.359,-0.359,0.000,0.000,0.000
1643293269826491136,2022-01-27-14:21:09,10.1.1.6,35,-0.349,-0.349,-0.349,0.000,0.000,0.000
1643293270026881024,2022-01-27-14:21:10,10.1.1.6,34,-0.339,-0.339,-0.339,0.000,0.000,0.000
1643293270225939968,2022-01-27-14:21:10,10.1.1.6,32,-0.330,-0.330,-0.330,0.000,0.000,0.000
1643293270426265088,2022-01-27-14:21:10,10.1.1.6,32,-0.319,-0.319,-0.319,0.000,0.000,0.000
1643293270625528064,2022-01-27-14:21:10,10.1.1.6,30,-0.310,-0.310,-0.310,0.000,0.000,0.000
1643293270826828032,2022-01-27-14:21:10,10.1.1.6,31,-0.299,-0.299,-0.299,0.000,0.000,0.000
1643293271026489856,2022-01-27-14:21:11,10.1.1.6,30,-0.290,-0.290,-0.290,0.000,0.000,0.000
1643293271225924864,2022-01-27-14:21:11,10.1.1.6,29,-0.280,-0.280,-0.280,0.000,0.000,0.000
1643293271426115072,2022-01-27-14:21:11,10.1.1.6,28,-0.270,-0.270,-0.270,0.000,0.000,0.000
1643293271627168000,2022-01-27-14:21:11,10.1.1.6,28,-0.260,-0.260,-0.260,0.000,0.000,0.000
1643293271826541824,2022-01-27-14:21:11,10.1.1.6,27,-0.250,-0.250,-0.250,0.000,0.000,0.000
1643293272027154944,2022-01-27-14:21:12,10.1.1.6,26,-0.240,-0.240,-0.240,0.000,0.000,0.000
1643293272228840960,2022-01-27-14:21:12,10.1.1.6,27,-0.230,-0.230,-0.230,0.000,0.000,0.000
1643293272426141952,2022-01-27-14:21:12,10.1.1.6,23,-0.220,-0.220,-0.220,0.000,0.000,0.000
1643293272646929920,2022-01-27-14:21:12,10.1.1.6,42,-0.209,-0.209,-0.209,0.000,0.000,0.000
1643293272827366144,2022-01-27-14:21:12,10.1.1.6,23,-0.200,-0.200,-0.200,0.000,0.000,0.000
1643293273025844992,2022-01-27-14:21:13,10.1.1.6,20,-0.190,-0.190,-0.190,0.000,0.000,0.000
1643293273248017920,2022-01-27-14:21:13,10.1.1.6,39,-0.179,-0.179,-0.179,0.000,0.000,0.000
1643293273449512960,2022-01-27-14:21:13,10.1.1.6,40,-0.169,-0.169,-0.169,0.000,0.000,0.000
1643293273647322880,2022-01-27-14:21:13,10.1.1.6,37,-0.159,-0.159,-0.159,0.000,0.000,0.000
1643293273847426816,2022-01-27-14:21:13,10.1.1.6,36,-0.149,-0.149,-0.149,0.000,0.000,0.000
1643293274047508992,2022-01-27-14:21:14,10.1.1.6,36,-0.139,-0.139,-0.139,0.000,0.000,0.000
1643293274245254912,2022-01-27-14:21:14,10.1.1.6,33,-0.129,-0.129,-0.129,0.000,0.000,0.000
1643293274445360896,2022-01-27-14:21:14,10.1.1.6,33,-0.119,-0.119,-0.119,0.000,0.000,0.000
1643293274645103104,2022-01-27-14:21:14,10.1.1.6,32,-0.109,-0.109,-0.109,0.000,0.000,0.000
1643293274847122944,2022-01-27-14:21:14,10.1.1.6,33,-0.099,-0.099,-0.099,0.000,0.000,0.000
1643293275045378816,2022-01-27-14:21:15,10.1.1.6,30,-0.089,-0.089,-0.089,0.000,0.000,0.000
1643293275245809152,2022-01-27-14:21:15,10.1.1.6,29,-0.080,-0.080,-0.080,0.000,0.000,0.000
1643293275446044928,2022-01-27-14:21:15,10.1.1.6,28,-0.070,-0.070,-0.070,0.000,0.000,0.000
1643293275646931968,2022-01-27-14:21:15,10.1.1.6,27,-0.060,-0.060,-0.060,0.000,0.000,0.000
1643293275845114112,2022-01-27-14:21:15,10.1.1.6,25,-0.050,-0.050,-0.050,0.000,0.000,0.000
1643293276045542912,2022-01-27-14:21:16,10.1.1.6,25,-0.040,-0.040,-0.040,0.000,0.000,0.000
1643293276246336000,2022-01-27-14:21:16,10.1.1.6,25,-0.030,-0.030,-0.030,0.000,0.000,0.000
1643293276444689152,2022-01-27-14:21:16,10.1.1.6,23,-0.020,-0.020,-0.020,0.000,0.000,0.000
1643293276645508096,2022-01-27-14:21:16,10.1.1.6,23,-0.010,-0.010,-0.010,0.000,0.000,0.000
1643293276825411072,2022-01-27-14:21:16,10.1.1.6,3,-0.001,-0.001,-0.001,0.000,0.000,0.000
1643293277044775936,2022-01-27-14:21:17,10.1.1.6,22,-0.010,-0.010,-0.010,0.000,0.000,0.000
1643293277245150976,2022-01-27-14:21:17,10.1.1.6,21,-0.020,-0.020,-0.020,0.000,0.000,0.000
1643293277445355008,2022-01-27-14:21:17,10.1.1.6,19,-0.030,-0.030,-0.030,0.000,0.000,0.000
1643293277665451008,2022-01-27-14:21:17,10.1.1.6,39,-0.041,-0.041,-0.041,0.000,0.000,0.000
1643293277865641216,2022-01-27-14:21:17,10.1.1.6,38,-0.051,-0.051,-0.051,0.000,0.000,0.000
1643293278065024000,2022-01-27-14:21:18,10.1.1.6,36,-0.061,-0.061,-0.061,0.000,0.000,0.000
1643293278267564032,2022-01-27-14:21:18,10.1.1.6,36,-0.071,-0.071,-0.071,0.000,0.000,0.000
1643293278465303040,2022-01-27-14:21:18,10.1.1.6,34,-0.081,-0.081,-0.081,0.000,0.000,0.000
1643293278666832896,2022-01-27-14:21:18,10.1.1.6,35,-0.091,-0.091,-0.091,0.000,0.000,0.000
1643293278866503936,2022-01-27-14:21:18,10.1.1.6,34,-0.101,-0.101,-0.101,0.000,0.000,0.000
1643293279066273024,2022-01-27-14:21:19,10.1.1.6,34,-0.111,-0.111,-0.111,0.000,0.000,0.000
1643293279266695936,2022-01-27-14:21:19,10.1.1.6,33,-0.121,-0.121,-0.121,0.000,0.000,0.000
1643293279466804992,2022-01-27-14:21:19,10.1.1.6,32,-0.131,-0.131,-0.131,0.000,0.000,0.000
1643293279667359232,2022-01-27-14:21:19,10.1.1.6,32,-0.140,-0.140,-0.140,0.000,0.000,0.000
1643293279866584064,2022-01-27-14:21:19,10.1.1.6,30,-0.151,-0.151,-0.151,0.000,0.000,0.000
1643293280066551808,2022-01-27-14:21:20,10.1.1.6,29,-0.160,-0.160,-0.160,0.000,0.000,0.000
1643293280266593024,2022-01-27-14:21:20,10.1.1.6,28,-0.170,-0.170,-0.170,0.000,0.000,0.000
1643293280466007040,2022-01-27-14:21:20,10.1.1.6,25,-0.180,-0.180,-0.180,0.000,0.000,0.000
1643293280667123200,2022-01-27-14:21:20,10.1.1.6,26,-0.190,-0.190,-0.190,0.000,0.000,0.000
1643293280866763008,2022-01-27-14:21:20,10.1.1.6,25,-0.200,-0.200,-0.200,0.000,0.000,0.000
1643293281065879040,2022-01-27-14:21:21,10.1.1.6,23,-0.210,-0.210,-0.210,0.000,0.000,0.000
1643293281285142016,2022-01-27-14:21:21,10.1.1.6,42,-0.221,-0.221,-0.221,0.000,0.000,0.000
1643293281485297920,2022-01-27-14:21:21,10.1.1.6,41,-0.231,-0.231,-0.231,0.000,0.000,0.000
1643293281685345792,2022-01-27-14:21:21,10.1.1.6,41,-0.241,-0.241,-0.241,0.000,0.000,0.000
1643293281886113792,2022-01-27-14:21:21,10.1.1.6,40,-0.251,-0.251,-0.251,0.000,0.000,0.000
1643293282085069824,2022-01-27-14:21:22,10.1.1.6,36,-0.261,-0.261,-0.261,0.000,0.000,0.000
1643293282286045184,2022-01-27-14:21:22,10.1.1.6,36,-0.271,-0.271,-0.271,0.000,0.000,0.000
1643293282485892096,2022-01-27-14:21:22,10.1.1.6,34,-0.281,-0.281,-0.281,0.000,0.000,0.000
1643293282686275840,2022-01-27-14:21:22,10.1.1.6,33,-0.291,-0.291,-0.291,0.000,0.000,0.000
1643293282914832128,2022-01-27-14:21:22,10.1.1.6,60,-0.301,-0.301,-0.301,0.000,0.000,0.000
1643293283086316032,2022-01-27-14:21:23,10.1.1.6,29,-0.310,-0.310,-0.310,0.000,0.000,0.000
1643293283286221056,2022-01-27-14:21:23,10.1.1.6,27,-0.320,-0.320,-0.320,0.000,0.000,0.000
1643293283485884928,2022-01-27-14:21:23,10.1.1.6,27,-0.330,-0.330,-0.330,0.000,0.000,0.000
1643293283685921024,2022-01-27-14:21:23,10.1.1.6,26,-0.340,-0.340,-0.340,0.000,0.000,0.000
1643293283886547968,2022-01-27-14:21:23,10.1.1.6,26,-0.350,-0.350,-0.350,0.000,0.000,0.000
1643293284086273792,2022-01-27-14:21:24,10.1.1.6,25,-0.360,-0.360,-0.360,0.000,0.000,0.000
1643293284287344896,2022-01-27-14:21:24,10.1.1.6,25,-0.370,-0.370,-0.370,0.000,0.000,0.000
1643293284486443008,2022-01-27-14:21:24,10.1.1.6,23,-0.380,-0.380,-0.380,0.000,0.000,0.000
1643293284686780928,2022-01-27-14:21:24,10.1.1.6,22,-0.390,-0.390,-0.390,0.000,0.000,0.000
1643293284906366208,2022-01-27-14:21:24,10.1.1.6,39,-0.401,-0.401,-0.401,0.000,0.000,0.000
1643293285106385920,2022-01-27-14:21:25,10.1.1.6,38,-0.411,-0.411,-0.411,0.000,0.000,0.000
1643293285305836800,2022-01-27-14:21:25,10.1.1.6,37,-0.421,-0.421,-0.421,0.000,0.000,0.000
1643293285506144000,2022-01-27-14:21:25,10.1.1.6,37,-0.431,-0.431,-0.431,0.000,0.000,0.000
1643293285707360000,2022-01-27-14:21:25,10.1.1.6,37,-0.441,-0.441,-0.441,0.000,0.000,0.000
1643293285907318016,2022-01-27-14:21:25,10.1.1.6,36,-0.451,-0.451,-0.451,0.000,0.000,0.000
1643293286105433088,2022-01-27-14:21:26,10.1.1.6,33,-0.461,-0.461,-0.461,0.000,0.000,0.000
1643293286307262976,2022-01-27-14:21:26,10.1.1.6,32,-0.471,-0.471,-0.471,0.000,0.000,0.000
1643293286506808064,2022-01-27-14:21:26,10.1.1.6,32,-0.481,-0.481,-0.481,0.000,0.000,0.000
1643293286686302976,2022-01-27-14:21:26,10.1.1.6,11,-0.490,-0.490,-0.490,0.000,0.000,0.000
1643293286905605120,2022-01-27-14:21:26,10.1.1.6,30,-0.479,-0.479,-0.479,0.000,0.000,0.000
1643293287105999872,2022-01-27-14:21:27,10.1.1.6,30,-0.469,-0.469,-0.469,0.000,0.000,0.000
1643293287305041920,2022-01-27-14:21:27,10.1.1.6,28,-0.459,-0.459,-0.459,0.000,0.000,0.000
1643293287505148928,2022-01-27-14:21:27,10.1.1.6,28,-0.449,-0.449,-0.449,0.000,0.000,0.000
1643293287705652992,2022-01-27-14:21:27,10.1.1.6,28,-0.440,-0.440,-0.440,0.000,0.000,0.000
1643293287905986048,2022-01-27-14:21:27,10.1.1.6,28,-0.430,-0.430,-0.430,0.000,0.000,0.000
1643293288106266112,2022-01-27-14:21:28,10.1.1.6,28,-0.420,-0.420,-0.420,0.000,0.000,0.000
1643293288305725184,2022-01-27-14:21:28,10.1.1.6,26,-0.410,-0.410,-0.410,0.000,0.000,0.000
1643293288506001920,2022-01-27-14:21:28,10.1.1.6,26,-0.400,-0.400,-0.400,0.000,0.000,0.000
1643293288706324992,2022-01-27-14:21:28,10.1.1.6,25,-0.390,-0.390,-0.390,0.000,0.000,0.000
1643293288905725952,2022-01-27-14:21:28,10.1.1.6,25,-0.380,-0.380,-0.380,0.000,0.000,0.000
1643293289105705984,2022-01-27-14:21:29,10.1.1.6,23,-0.370,-0.370,-0.370,0.000,0.000,0.000
1643293289306476032,2022-01-27-14:21:29,10.1.1.6,23,-0.360,-0.360,-0.360,0.000,0.000,0.000
1643293289547524864,2022-01-27-14:21:29,10.1.1.6,62,-0.349,-0.349,-0.349,0.000,0.000,0.000
1643293289748783104,2022-01-27-14:21:29,10.1.1.6,32,-0.339,-0.339,-0.339,0.000,0.000,0.000
1643293289946463232,2022-01-27-14:21:29,10.1.1.6,29,-0.330,-0.330,-0.330,0.000,0.000,0.000
1643293290148276992,2022-01-27-14:21:30,10.1.1.6,30,-0.320,-0.320,-0.320,0.000,0.000,0.000
1643293290346152192,2022-01-27-14:21:30,10.1.1.6,27,-0.310,-0.310,-0.310,0.000,0.000,0.000
1643293290546457088,2022-01-27-14:21:30,10.1.1.6,27,-0.300,-0.300,-0.300,0.000,0.000,0.000
1643293290745879040,2022-01-27-14:21:30,10.1.1.6,25,-0.290,-0.290,-0.290,0.000,0.000,0.000
1643293290945935872,2022-01-27-14:21:30,10.1.1.6,25,-0.280,-0.280,-0.280,0.000,0.000,0.000
1643293291145800192,2022-01-27-14:21:31,10.1.1.6,25,-0.270,-0.270,-0.270,0.000,0.000,0.000
1643293291346904064,2022-01-27-14:21:31,10.1.1.6,25,-0.260,-0.260,-0.260,0.000,0.000,0.000
1643293291545430016,2022-01-27-14:21:31,10.1.1.6,22,-0.250,-0.250,-0.250,0.000,0.000,0.000
1643293291747139840,2022-01-27-14:21:31,10.1.1.6,24,-0.240,-0.240,-0.240,0.000,0.000,0.000
1643293291966511872,2022-01-27-14:21:31,10.1.1.6,43,-0.229,-0.229,-0.229,0.000,0.000,0.000
1643293292167026944,2022-01-27-14:21:32,10.1.1.6,43,-0.219,-0.219,-0.219,0.000,0.000,0.000
1643293292367961856,2022-01-27-14:21:32,10.1.1.6,43,-0.209,-0.209,-0.209,0.000,0.000,0.000
1643293292547422976,2022-01-27-14:21:32,10.1.1.6,21,-0.200,-0.200,-0.200,0.000,0.000,0.000
1643293292766510848,2022-01-27-14:21:32,10.1.1.6,40,-0.189,-0.189,-0.189,0.000,0.000,0.000
1643293292967202048,2022-01-27-14:21:32,10.1.1.6,40,-0.179,-0.179,-0.179,0.000,0.000,0.000
1643293293166664960,2022-01-27-14:21:33,10.1.1.6,38,-0.169,-0.169,-0.169,0.000,0.000,0.000
1643293293367337984,2022-01-27-14:21:33,10.1.1.6,38,-0.159,-0.159,-0.159,0.000,0.000,0.000
1643293293567049984,2022-01-27-14:21:33,10.1.1.6,38,-0.149,-0.149,-0.149,0.000,0.000,0.000
1643293293767904000,2022-01-27-14:21:33,10.1.1.6,38,-0.139,-0.139,-0.139,0.000,0.000,0.000
1643293293966944000,2022-01-27-14:21:33,10.1.1.6,36,-0.129,-0.129,-0.129,0.000,0.000,0.000
1643293294167304960,2022-01-27-14:21:34,10.1.1.6,36,-0.119,-0.119,-0.119,0.000,0.000,0.000
1643293294366633984,2022-01-27-14:21:34,10.1.1.6,34,-0.109,-0.109,-0.109,0.000,0.000,0.000
1643293294567475968,2022-01-27-14:21:34,10.1.1.6,36,-0.099,-0.099,-0.099,0.000,0.000,0.000
1643293294765854976,2022-01-27-14:21:34,10.1.1.6,33,-0.089,-0.089,-0.089,0.000,0.000,0.000
1643293294966274048,2022-01-27-14:21:34,10.1.1.6,33,-0.079,-0.079,-0.079,0.000,0.000,0.000
1643293295166274048,2022-01-27-14:21:35,10.1.1.6,32,-0.069,-0.069,-0.069,0.000,0.000,0.000
1643293295366388992,2022-01-27-14:21:35,10.1.1.6,32,-0.059,-0.059,-0.059,0.000,0.000,0.000
1643293295566906880,2022-01-27-14:21:35,10.1.1.6,31,-0.049,-0.049,-0.049,0.000,0.000,0.000
1643293295781861120,2022-01-27-14:21:35,10.1.1.6,44,-0.040,-0.040,-0.040,0.000,0.000,0.000
1643293295965796864,2022-01-27-14:21:35,10.1.1.6,27,-0.030,-0.030,-0.030,0.000,0.000,0.000
1643293296166355968,2022-01-27-14:21:36,10.1.1.6,27,-0.020,-0.020,-0.020,0.000,0.000,0.000
1643293296365842944,2022-01-27-14:21:36,10.1.1.6,25,-0.010,-0.010,-0.010,0.000,0.000,0.000
1643293296545885952,2022-01-27-14:21:36,10.1.1.6,5,-0.001,-0.001,-0.001,0.000,0.000,0.000
1643293296765670912,2022-01-27-14:21:36,10.1.1.6,23,-0.010,-0.010,-0.010,0.000,0.000,0.000
1643293296965565952,2022-01-27-14:21:36,10.1.1.6,23,-0.020,-0.020,-0.020,0.000,0.000,0.000
1643293297185772800,2022-01-27-14:21:37,10.1.1.6,42,-0.031,-0.031,-0.031,0.000,0.000,0.000
1643293297397769984,2022-01-27-14:21:37,10.1.1.6,53,-0.040,-0.040,-0.040,0.000,0.000,0.000
1643293297569942016,2022-01-27-14:21:37,10.1.1.6,22,-0.050,-0.050,-0.050,0.000,0.000,0.000
1643293297785501952,2022-01-27-14:21:37,10.1.1.6,38,-0.061,-0.061,-0.061,0.000,0.000,0.000
1643293297965883136,2022-01-27-14:21:37,10.1.1.6,18,-0.070,-0.070,-0.070,0.000,0.000,0.000
1643293298185376768,2022-01-27-14:21:38,10.1.1.6,37,-0.081,-0.081,-0.081,0.000,0.000,0.000
1643293298386030080,2022-01-27-14:21:38,10.1.1.6,37,-0.091,-0.091,-0.091,0.000,0.000,0.000
1643293298588262144,2022-01-27-14:21:38,10.1.1.6,37,-0.101,-0.101,-0.101,0.000,0.000,0.000
1643293298786019072,2022-01-27-14:21:38,10.1.1.6,36,-0.111,-0.111,-0.111,0.000,0.000,0.000
1643293298985913088,2022-01-27-14:21:38,10.1.1.6,34,-0.121,-0.121,-0.121,0.000,0.000,0.000
1643293299186217984,2022-01-27-14:21:39,10.1.1.6,34,-0.131,-0.131,-0.131,0.000,0.000,0.000
1643293299385714944,2022-01-27-14:21:39,10.1.1.6,32,-0.141,-0.141,-0.141,0.000,0.000,0.000
1643293299585295872,2022-01-27-14:21:39,10.1.1.6,30,-0.151,-0.151,-0.151,0.000,0.000,0.000
1643293299785506048,2022-01-27-14:21:39,10.1.1.6,29,-0.160,-0.160,-0.160,0.000,0.000,0.000
1643293299984916992,2022-01-27-14:21:39,10.1.1.6,27,-0.171,-0.171,-0.171,0.000,0.000,0.000
1643293300186057216,2022-01-27-14:21:40,10.1.1.6,27,-0.180,-0.180,-0.180,0.000,0.000,0.000
1643293300387390976,2022-01-27-14:21:40,10.1.1.6,28,-0.190,-0.190,-0.190,0.000,0.000,0.000
1643293300586643968,2022-01-27-14:21:40,10.1.1.6,27,-0.200,-0.200,-0.200,0.000,0.000,0.000
1643293300786686976,2022-01-27-14:21:40,10.1.1.6,26,-0.210,-0.210,-0.210,0.000,0.000,0.000
1643293300986685952,2022-01-27-14:21:40,10.1.1.6,25,-0.220,-0.220,-0.220,0.000,0.000,0.000
1643293301186289152,2022-01-27-14:21:41,10.1.1.6,24,-0.230,-0.230,-0.230,0.000,0.000,0.000
1643293301387664128,2022-01-27-14:21:41,10.1.1.6,25,-0.240,-0.240,-0.240,0.000,0.000,0.000
1643293301605338112,2022-01-27-14:21:41,10.1.1.6,42,-0.251,-0.251,-0.251,0.000,0.000,0.000
1643293301785809920,2022-01-27-14:21:41,10.1.1.6,21,-0.260,-0.260,-0.260,0.000,0.000,0.000
1643293302004983808,2022-01-27-14:21:42,10.1.1.6,39,-0.271,-0.271,-0.271,0.000,0.000,0.000
1643293302204782080,2022-01-27-14:21:42,10.1.1.6,38,-0.281,-0.281,-0.281,0.000,0.000,0.000
1643293302406127872,2022-01-27-14:21:42,10.1.1.6,38,-0.291,-0.291,-0.291,0.000,0.000,0.000
1643293302606221056,2022-01-27-14:21:42,10.1.1.6,37,-0.301,-0.301,-0.301,0.000,0.000,0.000
1643293302812591104,2022-01-27-14:21:42,10.1.1.6,28,-0.310,-0.310,-0.310,0.000,0.000,0.000
1643293303006587136,2022-01-27-14:21:43,10.1.1.6,22,-0.320,-0.320,-0.320,0.000,0.000,0.000
1643293303206893056,2022-01-27-14:21:43,10.1.1.6,21,-0.330,-0.330,-0.330,0.000,0.000,0.000
1643293303426501120,2022-01-27-14:21:43,10.1.1.6,38,-0.341,-0.341,-0.341,0.000,0.000,0.000
1643293303629158912,2022-01-27-14:21:43,10.1.1.6,39,-0.351,-0.351,-0.351,0.000,0.000,0.000
1643293303826473984,2022-01-27-14:21:43,10.1.1.6,37,-0.361,-0.361,-0.361,0.000,0.000,0.000
1643293304027251968,2022-01-27-14:21:44,10.1.1.6,37,-0.371,-0.371,-0.371,0.000,0.000,0.000
1643293304226452992,2022-01-27-14:21:44,10.1.1.6,36,-0.381,-0.381,-0.381,0.000,0.000,0.000
1643293304426925824,2022-01-27-14:21:44,10.1.1.6,35,-0.391,-0.391,-0.391,0.000,0.000,0.000
1643293304626266112,2022-01-27-14:21:44,10.1.1.6,33,-0.401,-0.401,-0.401,0.000,0.000,0.000
1643293304826864896,2022-01-27-14:21:44,10.1.1.6,32,-0.411,-0.411,-0.411,0.000,0.000,0.000
1643293305027102976,2022-01-27-14:21:45,10.1.1.6,31,-0.421,-0.421,-0.421,0.000,0.000,0.000
1643293305227833088,2022-01-27-14:21:45,10.1.1.6,31,-0.431,-0.431,-0.431,0.000,0.000,0.000
1643293305428144896,2022-01-27-14:21:45,10.1.1.6,31,-0.440,-0.440,-0.440,0.000,0.000,0.000
1643293305626496000,2022-01-27-14:21:45,10.1.1.6,29,-0.450,-0.450,-0.450,0.000,0.000,0.000
1643293305825521920,2022-01-27-14:21:45,10.1.1.6,27,-0.460,-0.460,-0.460,0.000,0.000,0.000
1643293306027802112,2022-01-27-14:21:46,10.1.1.6,28,-0.470,-0.470,-0.470,0.000,0.000,0.000
1643293306225673984,2022-01-27-14:21:46,10.1.1.6,25,-0.480,-0.480,-0.480,0.000,0.000,0.000
1643293306406408960,2022-01-27-14:21:46,10.1.1.6,6,-0.489,-0.489,-0.489,0.000,0.000,0.000
1643293306627863808,2022-01-27-14:21:46,10.1.1.6,26,-0.480,-0.480,-0.480,0.000,0.000,0.000
1643293306826086912,2022-01-27-14:21:46,10.1.1.6,24,-0.470,-0.470,-0.470,0.000,0.000,0.000
1643293307065445888,2022-01-27-14:21:47,10.1.1.6,61,-0.459,-0.459,-0.459,0.000,0.000,0.000
1643293307227225088,2022-01-27-14:21:47,10.1.1.6,23,-0.450,-0.450,-0.450,0.000,0.000,0.000
1643293307446019840,2022-01-27-14:21:47,10.1.1.6,41,-0.439,-0.439,-0.439,0.000,0.000,0.000
1643293307646126080,2022-01-27-14:21:47,10.1.1.6,39,-0.429,-0.429,-0.429,0.000,0.000,0.000
1643293307845868032,2022-01-27-14:21:47,10.1.1.6,38,-0.419,-0.419,-0.419,0.000,0.000,0.000
1643293308046434048,2022-01-27-14:21:48,10.1.1.6,38,-0.409,-0.409,-0.409,0.000,0.000,0.000
1643293308246635008,2022-01-27-14:21:48,10.1.1.6,37,-0.399,-0.399,-0.399,0.000,0.000,0.000
1643293308447240192,2022-01-27-14:21:48,10.1.1.6,37,-0.389,-0.389,-0.389,0.000,0.000,0.000
1643293308647293184,2022-01-27-14:21:48,10.1.1.6,37,-0.379,-0.379,-0.379,0.000,0.000,0.000
1643293308846929920,2022-01-27-14:21:48,10.1.1.6,35,-0.369,-0.369,-0.369,0.000,0.000,0.000
1643293309046024192,2022-01-27-14:21:49,10.1.1.6,34,-0.359,-0.359,-0.359,0.000,0.000,0.000
1643293309247247872,2022-01-27-14:21:49,10.1.1.6,35,-0.349,-0.349,-0.349,0.000,0.000,0.000
1643293309445713152,2022-01-27-14:21:49,10.1.1.6,32,-0.339,-0.339,-0.339,0.000,0.000,0.000
1643293309646694912,2022-01-27-14:21:49,10.1.1.6,32,-0.329,-0.329,-0.329,0.000,0.000,0.000
1643293309847286016,2022-01-27-14:21:49,10.1.1.6,33,-0.319,-0.319,-0.319,0.000,0.000,0.000
1643293310046052864,2022-01-27-14:21:50,10.1.1.6,31,-0.309,-0.309,-0.309,0.000,0.000,0.000
1643293310245771776,2022-01-27-14:21:50,10.1.1.6,30,-0.299,-0.299,-0.299,0.000,0.000,0.000
1643293310446761984,2022-01-27-14:21:50,10.1.1.6,30,-0.289,-0.289,-0.289,0.000,0.000,0.000
1643293310646009088,2022-01-27-14:21:50,10.1.1.6,29,-0.280,-0.280,-0.280,0.000,0.000,0.000
1643293310846689024,2022-01-27-14:21:50,10.1.1.6,29,-0.270,-0.270,-0.270,0.000,0.000,0.000
1643293311048294144,2022-01-27-14:21:51,10.1.1.6,30,-0.260,-0.260,-0.260,0.000,0.000,0.000
1643293311249181952,2022-01-27-14:21:51,10.1.1.6,27,-0.250,-0.250,-0.250,0.000,0.000,0.000
1643293311446237952,2022-01-27-14:21:51,10.1.1.6,23,-0.240,-0.240,-0.240,0.000,0.000,0.000
1643293311647036160,2022-01-27-14:21:51,10.1.1.6,23,-0.230,-0.230,-0.230,0.000,0.000,0.000
1643293311846007040,2022-01-27-14:21:51,10.1.1.6,22,-0.220,-0.220,-0.220,0.000,0.000,0.000
1643293312064815104,2022-01-27-14:21:52,10.1.1.6,39,-0.209,-0.209,-0.209,0.000,0.000,0.000
1643293312265844992,2022-01-27-14:21:52,10.1.1.6,40,-0.199,-0.199,-0.199,0.000,0.000,0.000
1643293312466008832,2022-01-27-14:21:52,10.1.1.6,39,-0.189,-0.189,-0.189,0.000,0.000,0.000
1643293312665787904,2022-01-27-14:21:52,10.1.1.6,38,-0.179,-0.179,-0.179,0.000,0.000,0.000
1643293312865641984,2022-01-27-14:21:52,10.1.1.6,37,-0.169,-0.169,-0.169,0.000,0.000,0.000
1643293313064822016,2022-01-27-14:21:53,10.1.1.6,35,-0.159,-0.159,-0.159,0.000,0.000,0.000
1643293313265420032,2022-01-27-14:21:53,10.1.1.6,35,-0.149,-0.149,-0.149,0.000,0.000,0.000
1643293313466983168,2022-01-27-14:21:53,10.1.1.6,37,-0.139,-0.139,-0.139,0.000,0.000,0.000
1643293313665571072,2022-01-27-14:21:53,10.1.1.6,34,-0.129,-0.129,-0.129,0.000,0.000,0.000
1643293313866141184,2022-01-27-14:21:53,10.1.1.6,34,-0.119,-0.119,-0.119,0.000,0.000,0.000
1643293314065164032,2022-01-27-14:21:54,10.1.1.6,32,-0.109,-0.109,-0.109,0.000,0.000,0.000
1643293314265857024,2022-01-27-14:21:54,10.1.1.6,32,-0.099,-0.099,-0.099,0.000,0.000,0.000
1643293314465682944,2022-01-27-14:21:54,10.1.1.6,31,-0.089,-0.089,-0.089,0.000,0.000,0.000
1643293314665540096,2022-01-27-14:21:54,10.1.1.6,29,-0.080,-0.080,-0.080,0.000,0.000,0.000
1643293314866014976,2022-01-27-14:21:54,10.1.1.6,29,-0.070,-0.070,-0.070,0.000,0.000,0.000
1643293315065416960,2022-01-27-14:21:55,10.1.1.6,28,-0.060,-0.060,-0.060,0.000,0.000,0.000
1643293315265872128,2022-01-27-14:21:55,10.1.1.6,27,-0.050,-0.050,-0.050,0.000,0.000,0.000
1643293315465976832,2022-01-27-14:21:55,10.1.1.6,27,-0.040,-0.040,-0.040,0.000,0.000,0.000
1643293315665345024,2022-01-27-14:21:55,10.1.1.6,26,-0.030,-0.030,-0.030,0.000,0.000,0.000
1643293315866770944,2022-01-27-14:21:55,10.1.1.6,26,-0.020,-0.020,-0.020,0.000,0.000,0.000
1643293316067323904,2022-01-27-14:21:56,10.1.1.6,27,-0.010,-0.010,-0.010,0.000,0.000,0.000
1643293316244980992,2022-01-27-14:21:56,10.1.1.6,4,-0.001,-0.001,-0.001,0.000,0.000,0.000
1643293316465584896,2022-01-27-14:21:56,10.1.1.6,24,-0.010,-0.010,-0.010,0.000,0.000,0.000
1643293316665910016,2022-01-27-14:21:56,10.1.1.6,24,-0.020,-0.020,-0.020,0.000,0.000,0.000
1643293316866584064,2022-01-27-14:21:56,10.1.1.6,23,-0.030,-0.030,-0.030,0.000,0.000,0.000
1643293317066433792,2022-01-27-14:21:57,10.1.1.6,23,-0.040,-0.040,-0.040,0.000,0.000,0.000
1643293317265816832,2022-01-27-14:21:57,10.1.1.6,20,-0.050,-0.050,-0.050,0.000,0.000,0.000
1643293317487478016,2022-01-27-14:21:57,10.1.1.6,41,-0.061,-0.061,-0.061,0.000,0.000,0.000
1643293317666460160,2022-01-27-14:21:57,10.1.1.6,19,-0.070,-0.070,-0.070,0.000,0.000,0.000
1643293317866695936,2022-01-27-14:21:57,10.1.1.6,19,-0.080,-0.080,-0.080,0.000,0.000,0.000
1643293318066829056,2022-01-27-14:21:58,10.1.1.6,19,-0.090,-0.090,-0.090,0.000,0.000,0.000
1643293318286470912,2022-01-27-14:21:58,10.1.1.6,38,-0.101,-0.101,-0.101,0.000,0.000,0.000
1643293318486931968,2022-01-27-14:21:58,10.1.1.6,38,-0.111,-0.111,-0.111,0.000,0.000,0.000
1643293318686654976,2022-01-27-14:21:58,10.1.1.6,37,-0.121,-0.121,-0.121,0.000,0.000,0.000
1643293318887358976,2022-01-27-14:21:58,10.1.1.6,38,-0.131,-0.131,-0.131,0.000,0.000,0.000
1643293319086072064,2022-01-27-14:21:59,10.1.1.6,36,-0.141,-0.141,-0.141,0.000,0.000,0.000
1643293319285824000,2022-01-27-14:21:59,10.1.1.6,35,-0.151,-0.151,-0.151,0.000,0.000,0.000
1643293319489327872,2022-01-27-14:21:59,10.1.1.6,37,-0.161,-0.161,-0.161,0.000,0.000,0.000
1643293319687330048,2022-01-27-14:21:59,10.1.1.6,35,-0.171,-0.171,-0.171,0.000,0.000,0.000
1643293319886995200,2022-01-27-14:21:59,10.1.1.6,34,-0.181,-0.181,-0.181,0.000,0.000,0.000
1643293320089454848,2022-01-27-14:22:00,10.1.1.6,35,-0.191,-0.191,-0.191,0.000,0.000,0.000
1643293320288463104,2022-01-27-14:22:00,10.1.1.6,29,-0.200,-0.200,-0.200,0.000,0.000,0.000
1643293320487330816,2022-01-27-14:22:00,10.1.1.6,27,-0.210,-0.210,-0.210,0.000,0.000,0.000
1643293320688094976,2022-01-27-14:22:00,10.1.1.6,25,-0.220,-0.220,-0.220,0.000,0.000,0.000
1643293320888828160,2022-01-27-14:22:00,10.1.1.6,25,-0.230,-0.230,-0.230,0.000,0.000,0.000
1643293321106565120,2022-01-27-14:22:01,10.1.1.6,43,-0.241,-0.241,-0.241,0.000,0.000,0.000
1643293321306798848,2022-01-27-14:22:01,10.1.1.6,43,-0.251,-0.251,-0.251,0.000,0.000,0.000
1643293321505465088,2022-01-27-14:22:01,10.1.1.6,38,-0.261,-0.261,-0.261,0.000,0.000,0.000
1643293321708453888,2022-01-27-14:22:01,10.1.1.6,40,-0.271,-0.271,-0.271,0.000,0.000,0.000
1643293321908678912,2022-01-27-14:22:01,10.1.1.6,39,-0.281,-0.281,-0.281,0.000,0.000,0.000
1643293322108544000,2022-01-27-14:22:02,10.1.1.6,36,-0.291,-0.291,-0.291,0.000,0.000,0.000
1643293322308918016,2022-01-27-14:22:02,10.1.1.6,35,-0.301,-0.301,-0.301,0.000,0.000,0.000
1643293322507945984,2022-01-27-14:22:02,10.1.1.6,34,-0.311,-0.311,-0.311,0.000,0.000,0.000
1643293322707334912,2022-01-27-14:22:02,10.1.1.6,30,-0.321,-0.321,-0.321,0.000,0.000,0.000
1643293322906671104,2022-01-27-14:22:02,10.1.1.6,29,-0.330,-0.330,-0.330,0.000,0.000,0.000
1643293323106569984,2022-01-27-14:22:03,10.1.1.6,28,-0.340,-0.340,-0.340,0.000,0.000,0.000
1643293323307872000,2022-01-27-14:22:03,10.1.1.6,29,-0.350,-0.350,-0.350,0.000,0.000,0.000
1643293323507525888,2022-01-27-14:22:03,10.1.1.6,27,-0.360,-0.360,-0.360,0.000,0.000,0.000
1643293323707194112,2022-01-27-14:22:03,10.1.1.6,26,-0.370,-0.370,-0.370,0.000,0.000,0.000
1643293323927273984,2022-01-27-14:22:03,10.1.1.6,45,-0.381,-0.381,-0.381,0.000,0.000,0.000
1643293324127370240,2022-01-27-14:22:04,10.1.1.6,41,-0.391,-0.391,-0.391,0.000,0.000,0.000
1643293324326524928,2022-01-27-14:22:04,10.1.1.6,39,-0.401,-0.401,-0.401,0.000,0.000,0.000
1643293324527965184,2022-01-27-14:22:04,10.1.1.6,40,-0.411,-0.411,-0.411,0.000,0.000,0.000
1643293324726466048,2022-01-27-14:22:04,10.1.1.6,37,-0.421,-0.421,-0.421,0.000,0.000,0.000
1643293324929105152,2022-01-27-14:22:04,10.1.1.6,39,-0.431,-0.431,-0.431,0.000,0.000,0.000
1643293325127899904,2022-01-27-14:22:05,10.1.1.6,37,-0.441,-0.441,-0.441,0.000,0.000,0.000
1643293325327877120,2022-01-27-14:22:05,10.1.1.6,37,-0.451,-0.451,-0.451,0.000,0.000,0.000
1643293325527087872,2022-01-27-14:22:05,10.1.1.6,35,-0.461,-0.461,-0.461,0.000,0.000,0.000
1643293325726939904,2022-01-27-14:22:05,10.1.1.6,32,-0.471,-0.471,-0.471,0.000,0.000,0.000
1643293325927129856,2022-01-27-14:22:05,10.1.1.6,30,-0.480,-0.480,-0.480,0.000,0.000,0.000
1643293326107481088,2022-01-27-14:22:06,10.1.1.6,9,-0.490,-0.490,-0.490,0.000,0.000,0.000
1643293326326620928,2022-01-27-14:22:06,10.1.1.6,27,-0.480,-0.480,-0.480,0.000,0.000,0.000
1643293326526743808,2022-01-27-14:22:06,10.1.1.6,27,-0.470,-0.470,-0.470,0.000,0.000,0.000
1643293326727098112,2022-01-27-14:22:06,10.1.1.6,27,-0.460,-0.460,-0.460,0.000,0.000,0.000
1643293326926523904,2022-01-27-14:22:06,10.1.1.6,25,-0.450,-0.450,-0.450,0.000,0.000,0.000
1643293327126078976,2022-01-27-14:22:07,10.1.1.6,23,-0.440,-0.440,-0.440,0.000,0.000,0.000
1643293327347382016,2022-01-27-14:22:07,10.1.1.6,43,-0.429,-0.429,-0.429,0.000,0.000,0.000
1643293327547902976,2022-01-27-14:22:07,10.1.1.6,41,-0.419,-0.419,-0.419,0.000,0.000,0.000
1643293327746802176,2022-01-27-14:22:07,10.1.1.6,38,-0.409,-0.409,-0.409,0.000,0.000,0.000
1643293327949542144,2022-01-27-14:22:07,10.1.1.6,41,-0.399,-0.399,-0.399,0.000,0.000,0.000
1643293328147484160,2022-01-27-14:22:08,10.1.1.6,37,-0.389,-0.389,-0.389,0.000,0.000,0.000
1643293328347153920,2022-01-27-14:22:08,10.1.1.6,36,-0.379,-0.379,-0.379,0.000,0.000,0.000
1643293328547534080,2022-01-27-14:22:08,10.1.1.6,35,-0.369,-0.369,-0.369,0.000,0.000,0.000
1643293328746604800,2022-01-27-14:22:08,10.1.1.6,33,-0.359,-0.359,-0.359,0.000,0.000,0.000
1643293328948718080,2022-01-27-14:22:08,10.1.1.6,33,-0.349,-0.349,-0.349,0.000,0.000,0.000
1643293329148564992,2022-01-27-14:22:09,10.1.1.6,27,-0.340,-0.340,-0.340,0.000,0.000,0.000
1643293329369317888,2022-01-27-14:22:09,10.1.1.6,47,-0.329,-0.329,-0.329,0.000,0.000,0.000
1643293329570688000,2022-01-27-14:22:09,10.1.1.6,47,-0.319,-0.319,-0.319,0.000,0.000,0.000
1643293329769804032,2022-01-27-14:22:09,10.1.1.6,40,-0.309,-0.309,-0.309,0.000,0.000,0.000
1643293329969705216,2022-01-27-14:22:09,10.1.1.6,39,-0.299,-0.299,-0.299,0.000,0.000,0.000
1643293330168205056,2022-01-27-14:22:10,10.1.1.6,36,-0.289,-0.289,-0.289,0.000,0.000,0.000
1643293330367292928,2022-01-27-14:22:10,10.1.1.6,33,-0.279,-0.279,-0.279,0.000,0.000,0.000
1643293330567019008,2022-01-27-14:22:10,10.1.1.6,31,-0.269,-0.269,-0.269,0.000,0.000,0.000
1643293330766252032,2022-01-27-14:22:10,10.1.1.6,28,-0.260,-0.260,-0.260,0.000,0.000,0.000
1643293330966632960,2022-01-27-14:22:10,10.1.1.6,27,-0.250,-0.250,-0.250,0.000,0.000,0.000
1643293331166605824,2022-01-27-14:22:11,10.1.1.6,27,-0.240,-0.240,-0.240,0.000,0.000,0.000
1643293331368357888,2022-01-27-14:22:11,10.1.1.6,28,-0.230,-0.230,-0.230,0.000,0.000,0.000
1643293331570259968,2022-01-27-14:22:11,10.1.1.6,28,-0.220,-0.220,-0.220,0.000,0.000,0.000
1643293331766583808,2022-01-27-14:22:11,10.1.1.6,23,-0.210,-0.210,-0.210,0.000,0.000,0.000
1643293331987500032,2022-01-27-14:22:11,10.1.1.6,41,-0.199,-0.199,-0.199,0.000,0.000,0.000
1643293332188572928,2022-01-27-14:22:12,10.1.1.6,42,-0.189,-0.189,-0.189,0.000,0.000,0.000
1643293332387398912,2022-01-27-14:22:12,10.1.1.6,39,-0.179,-0.179,-0.179,0.000,0.000,0.000
1643293332587101952,2022-01-27-14:22:12,10.1.1.6,38,-0.169,-0.169,-0.169,0.000,0.000,0.000
1643293332788055040,2022-01-27-14:22:12,10.1.1.6,39,-0.159,-0.159,-0.159,0.000,0.000,0.000
1643293332986806016,2022-01-27-14:22:12,10.1.1.6,36,-0.149,-0.149,-0.149,0.000,0.000,0.000
1643293333187369984,2022-01-27-14:22:13,10.1.1.6,35,-0.139,-0.139,-0.139,0.000,0.000,0.000
1643293333388652032,2022-01-27-14:22:13,10.1.1.6,37,-0.129,-0.129,-0.129,0.000,0.000,0.000
1643293333586995968,2022-01-27-14:22:13,10.1.1.6,34,-0.119,-0.119,-0.119,0.000,0.000,0.000
1643293333785882112,2022-01-27-14:22:13,10.1.1.6,32,-0.109,-0.109,-0.109,0.000,0.000,0.000
1643293333987229952,2022-01-27-14:22:13,10.1.1.6,32,-0.100,-0.100,-0.100,0.000,0.000,0.000
1643293334186150912,2022-01-27-14:22:14,10.1.1.6,28,-0.090,-0.090,-0.090,0.000,0.000,0.000
1643293334385453056,2022-01-27-14:22:14,10.1.1.6,26,-0.080,-0.080,-0.080,0.000,0.000,0.000
1643293334587073024,2022-01-27-14:22:14,10.1.1.6,26,-0.070,-0.070,-0.070,0.000,0.000,0.000
1643293334785274880,2022-01-27-14:22:14,10.1.1.6,24,-0.060,-0.060,-0.060,0.000,0.000,0.000
1643293334986155008,2022-01-27-14:22:14,10.1.1.6,24,-0.050,-0.050,-0.050,0.000,0.000,0.000
1643293335186013952,2022-01-27-14:22:15,10.1.1.6,23,-0.040,-0.040,-0.040,0.000,0.000,0.000
1643293335385731840,2022-01-27-14:22:15,10.1.1.6,22,-0.030,-0.030,-0.030,0.000,0.000,0.000
1643293335586061056,2022-01-27-14:22:15,10.1.1.6,21,-0.020,-0.020,-0.020,0.000,0.000,0.000
1643293335785825024,2022-01-27-14:22:15,10.1.1.6,19,-0.010,-0.010,-0.010,0.000,0.000,0.000
1643293335985058048,2022-01-27-14:22:15,10.1.1.6,17,-0.000,-0.000,-0.000,0.000,0.000,0.000
1643293336205351168,2022-01-27-14:22:16,10.1.1.6,37,-0.011,-0.011,-0.011,0.000,0.000,0.000
1643293336406033920,2022-01-27-14:22:16,10.1.1.6,37,-0.021,-0.021,-0.021,0.000,0.000,0.000
1643293336605586944,2022-01-27-14:22:16,10.1.1.6,36,-0.031,-0.031,-0.031,0.000,0.000,0.000
1643293336805444096,2022-01-27-14:22:16,10.1.1.6,36,-0.041,-0.041,-0.041,0.000,0.000,0.000
1643293337009998080,2022-01-27-14:22:17,10.1.1.6,39,-0.051,-0.051,-0.051,0.000,0.000,0.000
1643293337206316032,2022-01-27-14:22:17,10.1.1.6,35,-0.061,-0.061,-0.061,0.000,0.000,0.000
1643293337406877952,2022-01-27-14:22:17,10.1.1.6,35,-0.071,-0.071,-0.071,0.000,0.000,0.000
1643293337605627136,2022-01-27-14:22:17,10.1.1.6,33,-0.081,-0.081,-0.081,0.000,0.000,0.000
1643293337808072960,2022-01-27-14:22:17,10.1.1.6,34,-0.091,-0.091,-0.091,0.000,0.000,0.000
1643293338006089984,2022-01-27-14:22:18,10.1.1.6,31,-0.101,-0.101,-0.101,0.000,0.000,0.000
1643293338207844864,2022-01-27-14:22:18,10.1.1.6,31,-0.111,-0.111,-0.111,0.000,0.000,0.000
1643293338407074816,2022-01-27-14:22:18,10.1.1.6,30,-0.121,-0.121,-0.121,0.000,0.000,0.000
1643293338606714112,2022-01-27-14:22:18,10.1.1.6,29,-0.130,-0.130,-0.130,0.000,0.000,0.000
1643293338806112000,2022-01-27-14:22:18,10.1.1.6,28,-0.140,-0.140,-0.140,0.000,0.000,0.000
1643293339007945984,2022-01-27-14:22:19,10.1.1.6,29,-0.150,-0.150,-0.150,0.000,0.000,0.000
1643293339206338816,2022-01-27-14:22:19,10.1.1.6,27,-0.160,-0.160,-0.160,0.000,0.000,0.000
1643293339408613888,2022-01-27-14:22:19,10.1.1.6,28,-0.170,-0.170,-0.170,0.000,0.000,0.000
1643293339607648000,2022-01-27-14:22:19,10.1.1.6,26,-0.180,-0.180,-0.180,0.000,0.000,0.000
1643293339806329856,2022-01-27-14:22:19,10.1.1.6,24,-0.190,-0.190,-0.190,0.000,0.000,0.000
1643293340007814912,2022-01-27-14:22:20,10.1.1.6,25,-0.200,-0.200,-0.200,0.000,0.000,0.000
1643293340208049152,2022-01-27-14:22:20,10.1.1.6,24,-0.210,-0.210,-0.210,0.000,0.000,0.000
1643293340405988864,2022-01-27-14:22:20,10.1.1.6,21,-0.220,-0.220,-0.220,0.000,0.000,0.000
1643293340630377984,2022-01-27-14:22:20,10.1.1.6,45,-0.231,-0.231,-0.231,0.000,0.000,0.000
1643293340829140992,2022-01-27-14:22:20,10.1.1.6,41,-0.241,-0.241,-0.241,0.000,0.000,0.000
1643293341026145024,2022-01-27-14:22:21,10.1.1.6,37,-0.251,-0.251,-0.251,0.000,0.000,0.000
1643293341227454976,2022-01-27-14:22:21,10.1.1.6,38,-0.261,-0.261,-0.261,0.000,0.000,0.000
1643293341426553856,2022-01-27-14:22:21,10.1.1.6,35,-0.271,-0.271,-0.271,0.000,0.000,0.000
1643293341630425088,2022-01-27-14:22:21,10.1.1.6,39,-0.281,-0.281,-0.281,0.000,0.000,0.000
1643293341826957824,2022-01-27-14:22:21,10.1.1.6,35,-0.291,-0.291,-0.291,0.000,0.000,0.000
1643293342027813888,2022-01-27-14:22:22,10.1.1.6,35,-0.301,-0.301,-0.301,0.000,0.000,0.000
1643293342228698880,2022-01-27-14:22:22,10.1.1.6,34,-0.311,-0.311,-0.311,0.000,0.000,0.000
1643293342429291008,2022-01-27-14:22:22,10.1.1.6,31,-0.320,-0.320,-0.320,0.000,0.000,0.000
1643293342626779136,2022-01-27-14:22:22,10.1.1.6,27,-0.330,-0.330,-0.330,0.000,0.000,0.000
1643293342826145792,2022-01-27-14:22:22,10.1.1.6,26,-0.340,-0.340,-0.340,0.000,0.000,0.000
1643293343027232000,2022-01-27-14:22:23,10.1.1.6,26,-0.350,-0.350,-0.350,0.000,0.000,0.000
1643293343229796864,2022-01-27-14:22:23,10.1.1.6,28,-0.360,-0.360,-0.360,0.000,0.000,0.000
1643293343425776896,2022-01-27-14:22:23,10.1.1.6,23,-0.370,-0.370,-0.370,0.000,0.000,0.000
1643293343625224960,2022-01-27-14:22:23,10.1.1.6,21,-0.380,-0.380,-0.380,0.000,0.000,0.000
1643293343847749888,2022-01-27-14:22:23,10.1.1.6,41,-0.391,-0.391,-0.391,0.000,0.000,0.000
1643293344045914880,2022-01-27-14:22:24,10.1.1.6,37,-0.401,-0.401,-0.401,0.000,0.000,0.000
1643293344246917120,2022-01-27-14:22:24,10.1.1.6,38,-0.411,-0.411,-0.411,0.000,0.000,0.000
1643293344447310848,2022-01-27-14:22:24,10.1.1.6,37,-0.421,-0.421,-0.421,0.000,0.000,0.000
1643293344648932096,2022-01-27-14:22:24,10.1.1.6,38,-0.431,-0.431,-0.431,0.000,0.000,0.000
1643293344847440128,2022-01-27-14:22:24,10.1.1.6,36,-0.441,-0.441,-0.441,0.000,0.000,0.000
1643293345047885824,2022-01-27-14:22:25,10.1.1.6,35,-0.451,-0.451,-0.451,0.000,0.000,0.000
1643293345246609920,2022-01-27-14:22:25,10.1.1.6,33,-0.461,-0.461,-0.461,0.000,0.000,0.000
1643293345446686976,2022-01-27-14:22:25,10.1.1.6,32,-0.471,-0.471,-0.471,0.000,0.000,0.000
1643293345645967872,2022-01-27-14:22:25,10.1.1.6,30,-0.481,-0.481,-0.481,0.000,0.000,0.000
1643293345826281984,2022-01-27-14:22:25,10.1.1.6,8,-0.490,-0.490,-0.490,0.000,0.000,0.000
1643293346047168000,2022-01-27-14:22:26,10.1.1.6,29,-0.480,-0.480,-0.480,0.000,0.000,0.000
1643293346246062080,2022-01-27-14:22:26,10.1.1.6,27,-0.470,-0.470,-0.470,0.000,0.000,0.000
1643293346447129088,2022-01-27-14:22:26,10.1.1.6,27,-0.460,-0.460,-0.460,0.000,0.000,0.000
1643293346645736960,2022-01-27-14:22:26,10.1.1.6,24,-0.450,-0.450,-0.450,0.000,0.000,0.000
1643293346846846208,2022-01-27-14:22:26,10.1.1.6,25,-0.440,-0.440,-0.440,0.000,0.000,0.000
1643293347048348928,2022-01-27-14:22:27,10.1.1.6,25,-0.430,-0.430,-0.430,0.000,0.000,0.000
1643293347268534016,2022-01-27-14:22:27,10.1.1.6,44,-0.419,-0.419,-0.419,0.000,0.000,0.000
1643293347468367104,2022-01-27-14:22:27,10.1.1.6,43,-0.409,-0.409,-0.409,0.000,0.000,0.000
1643293347667817216,2022-01-27-14:22:27,10.1.1.6,38,-0.399,-0.399,-0.399,0.000,0.000,0.000
1643293347866019072,2022-01-27-14:22:27,10.1.1.6,35,-0.389,-0.389,-0.389,0.000,0.000,0.000
1643293348067624192,2022-01-27-14:22:28,10.1.1.6,36,-0.379,-0.379,-0.379,0.000,0.000,0.000
1643293348268493056,2022-01-27-14:22:28,10.1.1.6,33,-0.369,-0.369,-0.369,0.000,0.000,0.000
1643293348466407936,2022-01-27-14:22:28,10.1.1.6,30,-0.359,-0.359,-0.359,0.000,0.000,0.000
1643293348667046144,2022-01-27-14:22:28,10.1.1.6,30,-0.349,-0.349,-0.349,0.000,0.000,0.000
1643293348866457088,2022-01-27-14:22:28,10.1.1.6,28,-0.340,-0.340,-0.340,0.000,0.000,0.000
1643293349067888128,2022-01-27-14:22:29,10.1.1.6,29,-0.330,-0.330,-0.330,0.000,0.000,0.000
1643293349265203968,2022-01-27-14:22:29,10.1.1.6,25,-0.320,-0.320,-0.320,0.000,0.000,0.000
1643293349466767104,2022-01-27-14:22:29,10.1.1.6,25,-0.310,-0.310,-0.310,0.000,0.000,0.000
1643293349666138880,2022-01-27-14:22:29,10.1.1.6,25,-0.300,-0.300,-0.300,0.000,0.000,0.000
1643293349885689088,2022-01-27-14:22:29,10.1.1.6,41,-0.289,-0.289,-0.289,0.000,0.000,0.000
1643293350067255040,2022-01-27-14:22:30,10.1.1.6,20,-0.280,-0.280,-0.280,0.000,0.000,0.000
1643293350287937024,2022-01-27-14:22:30,10.1.1.6,39,-0.269,-0.269,-0.269,0.000,0.000,0.000
1643293350490767104,2022-01-27-14:22:30,10.1.1.6,41,-0.259,-0.259,-0.259,0.000,0.000,0.000
1643293350685675008,2022-01-27-14:22:30,10.1.1.6,35,-0.249,-0.249,-0.249,0.000,0.000,0.000
1643293350886070016,2022-01-27-14:22:30,10.1.1.6,34,-0.239,-0.239,-0.239,0.000,0.000,0.000
1643293351086299904,2022-01-27-14:22:31,10.1.1.6,33,-0.229,-0.229,-0.229,0.000,0.000,0.000
1643293351289478144,2022-01-27-14:22:31,10.1.1.6,35,-0.220,-0.220,-0.220,0.000,0.000,0.000
1643293351487444992,2022-01-27-14:22:31,10.1.1.6,32,-0.210,-0.210,-0.210,0.000,0.000,0.000
1643293351687581184,2022-01-27-14:22:31,10.1.1.6,31,-0.199,-0.199,-0.199,0.000,0.000,0.000
1643293351887866112,2022-01-27-14:22:31,10.1.1.6,30,-0.190,-0.190,-0.190,0.000,0.000,0.000
1643293352088792064,2022-01-27-14:22:32,10.1.1.6,30,-0.180,-0.180,-0.180,0.000,0.000,0.000
1643293352286621184,2022-01-27-14:22:32,10.1.1.6,26,-0.170,-0.170,-0.170,0.000,0.000,0.000
1643293352485733888,2022-01-27-14:22:32,10.1.1.6,25,-0.160,-0.160,-0.160,0.000,0.000,0.000
1643293352685491968,2022-01-27-14:22:32,10.1.1.6,24,-0.150,-0.150,-0.150,0.000,0.000,0.000
1643293352886153984,2022-01-27-14:22:32,10.1.1.6,24,-0.140,-0.140,-0.140,0.000,0.000,0.000
1643293353087639040,2022-01-27-14:22:33,10.1.1.6,24,-0.130,-0.130,-0.130,0.000,0.000,0.000
1643293353288700160,2022-01-27-14:22:33,10.1.1.6,23,-0.120,-0.120,-0.120,0.000,0.000,0.000
1643293353488387072,2022-01-27-14:22:33,10.1.1.6,22,-0.110,-0.110,-0.110,0.000,0.000,0.000
1643293353688318976,2022-01-27-14:22:33,10.1.1.6,20,-0.100,-0.100,-0.100,0.000,0.000,0.000
1643293353907933952,2022-01-27-14:22:33,10.1.1.6,38,-0.089,-0.089,-0.089,0.000,0.000,0.000
1643293354105576960,2022-01-27-14:22:34,10.1.1.6,35,-0.079,-0.079,-0.079,0.000,0.000,0.000
1643293354306423040,2022-01-27-14:22:34,10.1.1.6,35,-0.069,-0.069,-0.069,0.000,0.000,0.000
1643293354507718144,2022-01-27-14:22:34,10.1.1.6,35,-0.059,-0.059,-0.059,0.000,0.000,0.000
1643293354707567104,2022-01-27-14:22:34,10.1.1.6,34,-0.049,-0.049,-0.049,0.000,0.000,0.000
1643293354907467008,2022-01-27-14:22:34,10.1.1.6,33,-0.039,-0.039,-0.039,0.000,0.000,0.000
1643293355107474176,2022-01-27-14:22:35,10.1.1.6,30,-0.029,-0.029,-0.029,0.000,0.000,0.000
1643293355307385088,2022-01-27-14:22:35,10.1.1.6,30,-0.020,-0.020,-0.020,0.000,0.000,0.000
1643293355507158016,2022-01-27-14:22:35,10.1.1.6,29,-0.010,-0.010,-0.010,0.000,0.000,0.000
1643293355685616896,2022-01-27-14:22:35,10.1.1.6,6,-0.001,-0.001,-0.001,0.000,0.000,0.000
1643293355905628928,2022-01-27-14:22:35,10.1.1.6,25,-0.010,-0.010,-0.010,0.000,0.000,0.000
1643293356128887040,2022-01-27-14:22:36,10.1.1.6,47,-0.021,-0.021,-0.021,0.000,0.000,0.000
1643293356307676928,2022-01-27-14:22:36,10.1.1.6,23,-0.030,-0.030,-0.030,0.000,0.000,0.000
1643293356527874048,2022-01-27-14:22:36,10.1.1.6,38,-0.041,-0.041,-0.041,0.000,0.000,0.000
1643293356725893120,2022-01-27-14:22:36,10.1.1.6,35,-0.051,-0.051,-0.051,0.000,0.000,0.000
1643293356927236096,2022-01-27-14:22:36,10.1.1.6,30,-0.061,-0.061,-0.061,0.000,0.000,0.000
1643293357127742976,2022-01-27-14:22:37,10.1.1.6,30,-0.070,-0.070,-0.070,0.000,0.000,0.000
1643293357328867072,2022-01-27-14:22:37,10.1.1.6,30,-0.080,-0.080,-0.080,0.000,0.000,0.000
