FedericoMungari/DigitalTwin_service/01_WiredScenario/Output/Output_script/script_rosapi_2_output_robots10_freq0_6.txt
timestamp,date,node,latency,joint_1,joint_2,joint_3,joint_4,joint_5,joint_6
1644926756673537024,2022-02-15-12:05:56,10.1.1.7,-6,-0.100,-0.100,-0.100,-0.000,0.000,-0.000
1644926756750861824,2022-02-15-12:05:56,10.1.1.7,21,-0.090,-0.090,-0.090,0.000,0.000,0.000
1644926756811032064,2022-02-15-12:05:56,10.1.1.7,30,-0.080,-0.080,-0.080,0.000,0.000,0.000
1644926756851170048,2022-02-15-12:05:56,10.1.1.7,20,-0.070,-0.070,-0.070,0.000,0.000,0.000
1644926756911094016,2022-02-15-12:05:56,10.1.1.7,29,-0.060,-0.060,-0.060,0.000,0.000,0.000
1644926756950678016,2022-02-15-12:05:56,10.1.1.7,19,-0.051,-0.051,-0.051,0.000,0.000,0.000
1644926757010784000,2022-02-15-12:05:57,10.1.1.7,28,-0.040,-0.040,-0.040,0.000,0.000,0.000
1644926757070555904,2022-02-15-12:05:57,10.1.1.7,38,-0.030,-0.030,-0.030,0.000,0.000,0.000
1644926757110872064,2022-02-15-12:05:57,10.1.1.7,28,-0.020,-0.020,-0.020,0.000,0.000,0.000
1644926757172674816,2022-02-15-12:05:57,10.1.1.7,37,-0.010,-0.010,-0.010,0.000,0.000,0.000
1644926757210753024,2022-02-15-12:05:57,10.1.1.7,26,0.000,0.000,0.000,0.000,0.000,0.000
1644926757271069952,2022-02-15-12:05:57,10.1.1.7,36,0.010,0.010,0.010,0.000,0.000,0.000
1644926757310775040,2022-02-15-12:05:57,10.1.1.7,25,0.020,0.020,0.020,0.000,0.000,0.000
1644926757370817024,2022-02-15-12:05:57,10.1.1.7,33,0.030,0.030,0.030,0.000,0.000,0.000
1644926757410592000,2022-02-15-12:05:57,10.1.1.7,23,0.040,0.040,0.040,0.000,0.000,0.000
1644926757470980864,2022-02-15-12:05:57,10.1.1.7,32,0.050,0.050,0.050,0.000,0.000,0.000
1644926757510649088,2022-02-15-12:05:57,10.1.1.7,21,0.060,0.060,0.060,0.000,0.000,0.000
1644926757570610944,2022-02-15-12:05:57,10.1.1.7,30,0.070,0.070,0.070,0.000,0.000,0.000
1644926757610729984,2022-02-15-12:05:57,10.1.1.7,19,0.080,0.080,0.080,0.000,0.000,0.000
1644926757670874112,2022-02-15-12:05:57,10.1.1.7,28,0.090,0.090,0.090,0.000,0.000,0.000
1644926757731597056,2022-02-15-12:05:57,10.1.1.7,37,0.100,0.100,0.100,0.000,0.000,0.000
1644926757771158016,2022-02-15-12:05:57,10.1.1.7,27,0.090,0.090,0.090,0.000,0.000,0.000
1644926757831026176,2022-02-15-12:05:57,10.1.1.7,35,0.080,0.080,0.080,0.000,0.000,0.000
1644926757871296768,2022-02-15-12:05:57,10.1.1.7,25,0.070,0.070,0.070,0.000,0.000,0.000
1644926757930535936,2022-02-15-12:05:57,10.1.1.7,34,0.060,0.060,0.060,0.000,0.000,0.000
1644926757970256128,2022-02-15-12:05:57,10.1.1.7,20,0.050,0.050,0.050,0.000,0.000,0.000
1644926758030620928,2022-02-15-12:05:58,10.1.1.7,29,0.040,0.040,0.040,0.000,0.000,0.000
1644926758090758144,2022-02-15-12:05:58,10.1.1.7,38,0.030,0.030,0.030,0.000,0.000,0.000
1644926758130770944,2022-02-15-12:05:58,10.1.1.7,28,0.020,0.020,0.020,0.000,0.000,0.000
1644926758191254016,2022-02-15-12:05:58,10.1.1.7,37,0.010,0.010,0.010,0.000,0.000,0.000
1644926758230696960,2022-02-15-12:05:58,10.1.1.7,26,0.000,0.000,0.000,0.000,0.000,0.000
1644926758290872064,2022-02-15-12:05:58,10.1.1.7,35,-0.010,-0.010,-0.010,0.000,0.000,0.000
1644926758330839040,2022-02-15-12:05:58,10.1.1.7,25,-0.020,-0.020,-0.020,0.000,0.000,0.000
1644926758391585024,2022-02-15-12:05:58,10.1.1.7,34,-0.030,-0.030,-0.030,0.000,0.000,0.000
1644926758430552832,2022-02-15-12:05:58,10.1.1.7,23,-0.040,-0.040,-0.040,0.000,0.000,0.000
1644926758491645952,2022-02-15-12:05:58,10.1.1.7,32,-0.050,-0.050,-0.050,0.000,0.000,0.000
1644926758530600192,2022-02-15-12:05:58,10.1.1.7,21,-0.060,-0.060,-0.060,0.000,0.000,0.000
1644926758590382080,2022-02-15-12:05:58,10.1.1.7,30,-0.070,-0.070,-0.070,0.000,0.000,0.000
1644926758630968064,2022-02-15-12:05:58,10.1.1.7,19,-0.079,-0.079,-0.079,0.000,0.000,0.000
1644926758690637056,2022-02-15-12:05:58,10.1.1.7,29,-0.090,-0.090,-0.090,0.000,0.000,0.000
1644926758751024896,2022-02-15-12:05:58,10.1.1.7,38,-0.100,-0.100,-0.100,0.000,0.000,0.000
1644926758790255104,2022-02-15-12:05:58,10.1.1.7,27,-0.090,-0.090,-0.090,0.000,0.000,0.000
1644926758850821888,2022-02-15-12:05:58,10.1.1.7,37,-0.080,-0.080,-0.080,0.000,0.000,0.000
1644926758890667008,2022-02-15-12:05:58,10.1.1.7,26,-0.070,-0.070,-0.070,0.000,0.000,0.000
1644926758950761984,2022-02-15-12:05:58,10.1.1.7,36,-0.060,-0.060,-0.060,0.000,0.000,0.000
1644926758990753024,2022-02-15-12:05:58,10.1.1.7,25,-0.050,-0.050,-0.050,0.000,0.000,0.000
1644926759051283968,2022-02-15-12:05:59,10.1.1.7,34,-0.040,-0.040,-0.040,0.000,0.000,0.000
1644926759091193856,2022-02-15-12:05:59,10.1.1.7,23,-0.030,-0.030,-0.030,0.000,0.000,0.000
1644926759150767104,2022-02-15-12:05:59,10.1.1.7,33,-0.020,-0.020,-0.020,0.000,0.000,0.000
1644926759191049216,2022-02-15-12:05:59,10.1.1.7,22,-0.010,-0.010,-0.010,0.000,0.000,0.000
1644926759250637056,2022-02-15-12:05:59,10.1.1.7,31,0.000,0.000,0.000,0.000,0.000,0.000
1644926759290946048,2022-02-15-12:05:59,10.1.1.7,20,0.010,0.010,0.010,0.000,0.000,0.000
1644926759350902016,2022-02-15-12:05:59,10.1.1.7,28,0.020,0.020,0.020,0.000,0.000,0.000
1644926759410468096,2022-02-15-12:05:59,10.1.1.7,38,0.030,0.030,0.030,0.000,0.000,0.000
1644926759450479104,2022-02-15-12:05:59,10.1.1.7,25,0.040,0.040,0.040,0.000,0.000,0.000
1644926759510714112,2022-02-15-12:05:59,10.1.1.7,34,0.050,0.050,0.050,0.000,0.000,0.000
1644926759552006912,2022-02-15-12:05:59,10.1.1.7,23,0.060,0.060,0.060,0.000,0.000,0.000
1644926759610508032,2022-02-15-12:05:59,10.1.1.7,33,0.070,0.070,0.070,0.000,0.000,0.000
1644926759672408064,2022-02-15-12:05:59,10.1.1.7,22,0.080,0.080,0.080,0.000,0.000,0.000
1644926759731091968,2022-02-15-12:05:59,10.1.1.7,34,0.090,0.090,0.090,0.000,0.000,0.000
1644926759770612992,2022-02-15-12:05:59,10.1.1.7,23,0.100,0.100,0.100,0.000,0.000,0.000
1644926759830884096,2022-02-15-12:05:59,10.1.1.7,33,0.090,0.090,0.090,0.000,0.000,0.000
1644926759870817792,2022-02-15-12:05:59,10.1.1.7,21,0.080,0.080,0.080,0.000,0.000,0.000
1644926759931154944,2022-02-15-12:05:59,10.1.1.7,30,0.070,0.070,0.070,0.000,0.000,0.000
1644926759970681856,2022-02-15-12:05:59,10.1.1.7,19,0.061,0.061,0.061,0.000,0.000,0.000
1644926760031022080,2022-02-15-12:06:00,10.1.1.7,28,0.050,0.050,0.050,0.000,0.000,0.000
1644926760091345152,2022-02-15-12:06:00,10.1.1.7,38,0.040,0.040,0.040,0.000,0.000,0.000
1644926760132071936,2022-02-15-12:06:00,10.1.1.7,27,0.030,0.030,0.030,0.000,0.000,0.000
1644926760190828032,2022-02-15-12:06:00,10.1.1.7,36,0.020,0.020,0.020,0.000,0.000,0.000
1644926760231024896,2022-02-15-12:06:00,10.1.1.7,25,0.010,0.010,0.010,0.000,0.000,0.000
1644926760290503936,2022-02-15-12:06:00,10.1.1.7,35,0.000,0.000,0.000,0.000,0.000,0.000
1644926760330682880,2022-02-15-12:06:00,10.1.1.7,24,-0.010,-0.010,-0.010,0.000,0.000,0.000
1644926760390372864,2022-02-15-12:06:00,10.1.1.7,33,-0.020,-0.020,-0.020,0.000,0.000,0.000
1644926760430490880,2022-02-15-12:06:00,10.1.1.7,22,-0.030,-0.030,-0.030,0.000,0.000,0.000
1644926760490434048,2022-02-15-12:06:00,10.1.1.7,32,-0.040,-0.040,-0.040,0.000,0.000,0.000
1644926760531105024,2022-02-15-12:06:00,10.1.1.7,21,-0.050,-0.050,-0.050,0.000,0.000,0.000
1644926760590379008,2022-02-15-12:06:00,10.1.1.7,30,-0.060,-0.060,-0.060,0.000,0.000,0.000
1644926760650578944,2022-02-15-12:06:00,10.1.1.7,38,-0.070,-0.070,-0.070,0.000,0.000,0.000
1644926760690368000,2022-02-15-12:06:00,10.1.1.7,28,-0.080,-0.080,-0.080,0.000,0.000,0.000
1644926760750582016,2022-02-15-12:06:00,10.1.1.7,36,-0.090,-0.090,-0.090,0.000,0.000,0.000
1644926760790862080,2022-02-15-12:06:00,10.1.1.7,25,-0.100,-0.100,-0.100,0.000,0.000,0.000
1644926760850972928,2022-02-15-12:06:00,10.1.1.7,35,-0.090,-0.090,-0.090,0.000,0.000,0.000
1644926760890768128,2022-02-15-12:06:00,10.1.1.7,24,-0.080,-0.080,-0.080,0.000,0.000,0.000
1644926760950444032,2022-02-15-12:06:00,10.1.1.7,33,-0.070,-0.070,-0.070,0.000,0.000,0.000
1644926760990359040,2022-02-15-12:06:00,10.1.1.7,22,-0.060,-0.060,-0.060,0.000,0.000,0.000
1644926761050520064,2022-02-15-12:06:01,10.1.1.7,32,-0.050,-0.050,-0.050,0.000,0.000,0.000
1644926761110685952,2022-02-15-12:06:01,10.1.1.7,38,-0.040,-0.040,-0.040,0.000,0.000,0.000
1644926761150729984,2022-02-15-12:06:01,10.1.1.7,26,-0.030,-0.030,-0.030,0.000,0.000,0.000
1644926761211345920,2022-02-15-12:06:01,10.1.1.7,35,-0.020,-0.020,-0.020,0.000,0.000,0.000
1644926761250520832,2022-02-15-12:06:01,10.1.1.7,24,-0.010,-0.010,-0.010,0.000,0.000,0.000
1644926761311075072,2022-02-15-12:06:01,10.1.1.7,32,0.000,0.000,0.000,0.000,0.000,0.000
1644926761350152960,2022-02-15-12:06:01,10.1.1.7,22,0.010,0.010,0.010,0.000,0.000,0.000
1644926761410620928,2022-02-15-12:06:01,10.1.1.7,31,0.020,0.020,0.020,0.000,0.000,0.000
1644926761450934016,2022-02-15-12:06:01,10.1.1.7,19,0.030,0.030,0.030,0.000,0.000,0.000
1644926761510188032,2022-02-15-12:06:01,10.1.1.7,28,0.040,0.040,0.040,0.000,0.000,0.000
1644926761570432000,2022-02-15-12:06:01,10.1.1.7,38,0.050,0.050,0.050,0.000,0.000,0.000
1644926761610275072,2022-02-15-12:06:01,10.1.1.7,23,0.060,0.060,0.060,0.000,0.000,0.000
1644926761670764800,2022-02-15-12:06:01,10.1.1.7,32,0.070,0.070,0.070,0.000,0.000,0.000
1644926761730710016,2022-02-15-12:06:01,10.1.1.7,38,0.080,0.080,0.080,0.000,0.000,0.000
1644926761770430208,2022-02-15-12:06:01,10.1.1.7,28,0.090,0.090,0.090,0.000,0.000,0.000
1644926761830105088,2022-02-15-12:06:01,10.1.1.7,38,0.100,0.100,0.100,0.000,0.000,0.000
1644926761870420992,2022-02-15-12:06:01,10.1.1.7,27,0.090,0.090,0.090,0.000,0.000,0.000
1644926761930322944,2022-02-15-12:06:01,10.1.1.7,37,0.080,0.080,0.080,0.000,0.000,0.000
1644926761970670080,2022-02-15-12:06:01,10.1.1.7,26,0.070,0.070,0.070,0.000,0.000,0.000
1644926762030546944,2022-02-15-12:06:02,10.1.1.7,36,0.060,0.060,0.060,0.000,0.000,0.000
1644926762070873088,2022-02-15-12:06:02,10.1.1.7,25,0.050,0.050,0.050,0.000,0.000,0.000
1644926762130461952,2022-02-15-12:06:02,10.1.1.7,35,0.040,0.040,0.040,0.000,0.000,0.000
1644926762170840064,2022-02-15-12:06:02,10.1.1.7,24,0.030,0.030,0.030,0.000,0.000,0.000
1644926762231928064,2022-02-15-12:06:02,10.1.1.7,34,0.020,0.020,0.020,0.000,0.000,0.000
1644926762270579200,2022-02-15-12:06:02,10.1.1.7,24,0.010,0.010,0.010,0.000,0.000,0.000
1644926762330893056,2022-02-15-12:06:02,10.1.1.7,33,0.000,0.000,0.000,0.000,0.000,0.000
1644926762371921152,2022-02-15-12:06:02,10.1.1.7,22,-0.010,-0.010,-0.010,0.000,0.000,0.000
1644926762430379008,2022-02-15-12:06:02,10.1.1.7,32,-0.020,-0.020,-0.020,0.000,0.000,0.000
1644926762471227904,2022-02-15-12:06:02,10.1.1.7,21,-0.030,-0.030,-0.030,0.000,0.000,0.000
1644926762530643968,2022-02-15-12:06:02,10.1.1.7,31,-0.040,-0.040,-0.040,0.000,0.000,0.000
1644926762570772992,2022-02-15-12:06:02,10.1.1.7,20,-0.050,-0.050,-0.050,0.000,0.000,0.000
1644926762630543104,2022-02-15-12:06:02,10.1.1.7,30,-0.060,-0.060,-0.060,0.000,0.000,0.000
1644926762670893056,2022-02-15-12:06:02,10.1.1.7,19,-0.069,-0.069,-0.069,0.000,0.000,0.000
1644926762731826176,2022-02-15-12:06:02,10.1.1.7,29,-0.080,-0.080,-0.080,0.000,0.000,0.000
1644926762891320064,2022-02-15-12:06:02,10.1.1.7,13,-0.090,-0.090,-0.090,0.000,0.000,0.000
1644926762951123968,2022-02-15-12:06:02,10.1.1.7,23,-0.080,-0.080,-0.080,0.000,0.000,0.000
1644926763010792960,2022-02-15-12:06:03,10.1.1.7,32,-0.070,-0.070,-0.070,0.000,0.000,0.000
1644926763050964992,2022-02-15-12:06:03,10.1.1.7,21,-0.060,-0.060,-0.060,0.000,0.000,0.000
1644926763111715072,2022-02-15-12:06:03,10.1.1.7,31,-0.050,-0.050,-0.050,0.000,0.000,0.000
1644926763151164928,2022-02-15-12:06:03,10.1.1.7,21,-0.040,-0.040,-0.040,0.000,0.000,0.000
1644926763210592000,2022-02-15-12:06:03,10.1.1.7,30,-0.030,-0.030,-0.030,0.000,0.000,0.000
1644926763250793984,2022-02-15-12:06:03,10.1.1.7,20,-0.020,-0.020,-0.020,0.000,0.000,0.000
1644926763310972928,2022-02-15-12:06:03,10.1.1.7,29,-0.010,-0.010,-0.010,0.000,0.000,0.000
1644926763350870016,2022-02-15-12:06:03,10.1.1.7,19,-0.001,-0.001,-0.001,0.000,0.000,0.000
1644926763411441920,2022-02-15-12:06:03,10.1.1.7,28,0.010,0.010,0.010,0.000,0.000,0.000
1644926763470843904,2022-02-15-12:06:03,10.1.1.7,37,0.020,0.020,0.020,0.000,0.000,0.000
1644926763511111936,2022-02-15-12:06:03,10.1.1.7,27,0.030,0.030,0.030,0.000,0.000,0.000
1644926763570980096,2022-02-15-12:06:03,10.1.1.7,37,0.040,0.040,0.040,0.000,0.000,0.000
1644926763610713856,2022-02-15-12:06:03,10.1.1.7,26,0.050,0.050,0.050,0.000,0.000,0.000
1644926763670712832,2022-02-15-12:06:03,10.1.1.7,36,0.060,0.060,0.060,0.000,0.000,0.000
1644926763710719232,2022-02-15-12:06:03,10.1.1.7,25,0.070,0.070,0.070,0.000,0.000,0.000
1644926763770595072,2022-02-15-12:06:03,10.1.1.7,34,0.080,0.080,0.080,0.000,0.000,0.000
1644926763810699008,2022-02-15-12:06:03,10.1.1.7,24,0.090,0.090,0.090,0.000,0.000,0.000
1644926763870583040,2022-02-15-12:06:03,10.1.1.7,33,0.100,0.100,0.100,0.000,0.000,0.000
1644926763911004928,2022-02-15-12:06:03,10.1.1.7,23,0.090,0.090,0.090,0.000,0.000,0.000
1644926763970753792,2022-02-15-12:06:03,10.1.1.7,32,0.080,0.080,0.080,0.000,0.000,0.000
1644926764010662912,2022-02-15-12:06:04,10.1.1.7,22,0.070,0.070,0.070,0.000,0.000,0.000
1644926764071078144,2022-02-15-12:06:04,10.1.1.7,31,0.060,0.060,0.060,0.000,0.000,0.000
1644926764110744064,2022-02-15-12:06:04,10.1.1.7,20,0.050,0.050,0.050,0.000,0.000,0.000
1644926764170599936,2022-02-15-12:06:04,10.1.1.7,28,0.040,0.040,0.040,0.000,0.000,0.000
1644926764230824960,2022-02-15-12:06:04,10.1.1.7,38,0.030,0.030,0.030,0.000,0.000,0.000
1644926764270854912,2022-02-15-12:06:04,10.1.1.7,28,0.020,0.020,0.020,0.000,0.000,0.000
1644926764330950144,2022-02-15-12:06:04,10.1.1.7,37,0.010,0.010,0.010,0.000,0.000,0.000
1644926764370859008,2022-02-15-12:06:04,10.1.1.7,27,0.000,0.000,0.000,0.000,0.000,0.000
1644926764430681856,2022-02-15-12:06:04,10.1.1.7,37,-0.010,-0.010,-0.010,0.000,0.000,0.000
1644926764470805760,2022-02-15-12:06:04,10.1.1.7,26,-0.020,-0.020,-0.020,0.000,0.000,0.000
1644926764531584000,2022-02-15-12:06:04,10.1.1.7,35,-0.030,-0.030,-0.030,0.000,0.000,0.000
1644926764570808832,2022-02-15-12:06:04,10.1.1.7,25,-0.040,-0.040,-0.040,0.000,0.000,0.000
1644926764630397184,2022-02-15-12:06:04,10.1.1.7,34,-0.050,-0.050,-0.050,0.000,0.000,0.000
1644926764670804992,2022-02-15-12:06:04,10.1.1.7,24,-0.060,-0.060,-0.060,0.000,0.000,0.000
1644926764731309824,2022-02-15-12:06:04,10.1.1.7,33,-0.070,-0.070,-0.070,0.000,0.000,0.000
1644926764770917888,2022-02-15-12:06:04,10.1.1.7,22,-0.080,-0.080,-0.080,0.000,0.000,0.000
1644926764830481920,2022-02-15-12:06:04,10.1.1.7,32,-0.090,-0.090,-0.090,0.000,0.000,0.000
1644926764870558976,2022-02-15-12:06:04,10.1.1.7,22,-0.100,-0.100,-0.100,0.000,0.000,0.000
1644926764930535168,2022-02-15-12:06:04,10.1.1.7,31,-0.090,-0.090,-0.090,0.000,0.000,0.000
1644926764970446080,2022-02-15-12:06:04,10.1.1.7,19,-0.080,-0.080,-0.080,0.000,0.000,0.000
1644926765031503872,2022-02-15-12:06:05,10.1.1.7,29,-0.070,-0.070,-0.070,0.000,0.000,0.000
1644926765091015936,2022-02-15-12:06:05,10.1.1.7,38,-0.060,-0.060,-0.060,0.000,0.000,0.000
1644926765131246080,2022-02-15-12:06:05,10.1.1.7,28,-0.050,-0.050,-0.050,0.000,0.000,0.000
1644926765190543872,2022-02-15-12:06:05,10.1.1.7,37,-0.040,-0.040,-0.040,0.000,0.000,0.000
1644926765231111168,2022-02-15-12:06:05,10.1.1.7,27,-0.030,-0.030,-0.030,0.000,0.000,0.000
1644926765291033856,2022-02-15-12:06:05,10.1.1.7,36,-0.020,-0.020,-0.020,0.000,0.000,0.000
1644926765331671040,2022-02-15-12:06:05,10.1.1.7,26,-0.010,-0.010,-0.010,0.000,0.000,0.000
1644926765390480896,2022-02-15-12:06:05,10.1.1.7,35,0.000,0.000,0.000,0.000,0.000,0.000
1644926765430412032,2022-02-15-12:06:05,10.1.1.7,24,0.010,0.010,0.010,0.000,0.000,0.000
1644926765490467072,2022-02-15-12:06:05,10.1.1.7,34,0.020,0.020,0.020,0.000,0.000,0.000
1644926765531362048,2022-02-15-12:06:05,10.1.1.7,23,0.030,0.030,0.030,0.000,0.000,0.000
1644926765590555904,2022-02-15-12:06:05,10.1.1.7,32,0.040,0.040,0.040,0.000,0.000,0.000
1644926765630440960,2022-02-15-12:06:05,10.1.1.7,21,0.050,0.050,0.050,0.000,0.000,0.000
1644926765690859008,2022-02-15-12:06:05,10.1.1.7,30,0.060,0.060,0.060,0.000,0.000,0.000
1644926765730812160,2022-02-15-12:06:05,10.1.1.7,20,0.070,0.070,0.070,0.000,0.000,0.000
1644926765790947072,2022-02-15-12:06:05,10.1.1.7,29,0.080,0.080,0.080,0.000,0.000,0.000
1644926765830859008,2022-02-15-12:06:05,10.1.1.7,19,0.090,0.090,0.090,0.000,0.000,0.000
1644926765891047936,2022-02-15-12:06:05,10.1.1.7,29,0.100,0.100,0.100,0.000,0.000,0.000
1644926765950764032,2022-02-15-12:06:05,10.1.1.7,38,0.090,0.090,0.090,0.000,0.000,0.000
1644926765990673152,2022-02-15-12:06:05,10.1.1.7,27,0.080,0.080,0.080,0.000,0.000,0.000
1644926766050712064,2022-02-15-12:06:06,10.1.1.7,36,0.070,0.070,0.070,0.000,0.000,0.000
1644926766091106816,2022-02-15-12:06:06,10.1.1.7,25,0.060,0.060,0.060,0.000,0.000,0.000
1644926766150561024,2022-02-15-12:06:06,10.1.1.7,35,0.050,0.050,0.050,0.000,0.000,0.000
1644926766190833152,2022-02-15-12:06:06,10.1.1.7,23,0.040,0.040,0.040,0.000,0.000,0.000
1644926766251202048,2022-02-15-12:06:06,10.1.1.7,33,0.030,0.030,0.030,0.000,0.000,0.000
1644926766290910976,2022-02-15-12:06:06,10.1.1.7,22,0.020,0.020,0.020,0.000,0.000,0.000
1644926766350501120,2022-02-15-12:06:06,10.1.1.7,32,0.010,0.010,0.010,0.000,0.000,0.000
1644926766391024128,2022-02-15-12:06:06,10.1.1.7,22,0.000,0.000,0.000,0.000,0.000,0.000
1644926766450674944,2022-02-15-12:06:06,10.1.1.7,31,-0.010,-0.010,-0.010,0.000,0.000,0.000
1644926766510621952,2022-02-15-12:06:06,10.1.1.7,36,-0.020,-0.020,-0.020,0.000,0.000,0.000
1644926766551474944,2022-02-15-12:06:06,10.1.1.7,26,-0.030,-0.030,-0.030,0.000,0.000,0.000
1644926766610932992,2022-02-15-12:06:06,10.1.1.7,35,-0.040,-0.040,-0.040,0.000,0.000,0.000
1644926766651080960,2022-02-15-12:06:06,10.1.1.7,24,-0.050,-0.050,-0.050,0.000,0.000,0.000
1644926766710546944,2022-02-15-12:06:06,10.1.1.7,34,-0.060,-0.060,-0.060,0.000,0.000,0.000
1644926766751303936,2022-02-15-12:06:06,10.1.1.7,23,-0.070,-0.070,-0.070,0.000,0.000,0.000
1644926766811142912,2022-02-15-12:06:06,10.1.1.7,33,-0.080,-0.080,-0.080,0.000,0.000,0.000
1644926766851102976,2022-02-15-12:06:06,10.1.1.7,22,-0.090,-0.090,-0.090,0.000,0.000,0.000
1644926766910789120,2022-02-15-12:06:06,10.1.1.7,31,-0.100,-0.100,-0.100,0.000,0.000,0.000
1644926766951059968,2022-02-15-12:06:06,10.1.1.7,21,-0.090,-0.090,-0.090,0.000,0.000,0.000
1644926767011235072,2022-02-15-12:06:07,10.1.1.7,31,-0.080,-0.080,-0.080,0.000,0.000,0.000
1644926767071084032,2022-02-15-12:06:07,10.1.1.7,38,-0.070,-0.070,-0.070,0.000,0.000,0.000
1644926767111063040,2022-02-15-12:06:07,10.1.1.7,27,-0.060,-0.060,-0.060,0.000,0.000,0.000
1644926767170541056,2022-02-15-12:06:07,10.1.1.7,37,-0.050,-0.050,-0.050,0.000,0.000,0.000
1644926767210897920,2022-02-15-12:06:07,10.1.1.7,26,-0.040,-0.040,-0.040,0.000,0.000,0.000
1644926767390640896,2022-02-15-12:06:07,10.1.1.7,32,-0.010,-0.010,-0.010,0.000,0.000,0.000
1644926767430846976,2022-02-15-12:06:07,10.1.1.7,22,0.000,0.000,0.000,0.000,0.000,0.000
1644926767490878208,2022-02-15-12:06:07,10.1.1.7,31,0.010,0.010,0.010,0.000,0.000,0.000
1644926767531258112,2022-02-15-12:06:07,10.1.1.7,20,0.020,0.020,0.020,0.000,0.000,0.000
1644926767591204864,2022-02-15-12:06:07,10.1.1.7,30,0.030,0.030,0.030,0.000,0.000,0.000
1644926767631175936,2022-02-15-12:06:07,10.1.1.7,19,0.039,0.039,0.039,0.000,0.000,0.000
1644926767690649088,2022-02-15-12:06:07,10.1.1.7,28,0.050,0.050,0.050,0.000,0.000,0.000
1644926767751063040,2022-02-15-12:06:07,10.1.1.7,38,0.060,0.060,0.060,0.000,0.000,0.000
1644926767791075072,2022-02-15-12:06:07,10.1.1.7,27,0.070,0.070,0.070,0.000,0.000,0.000
1644926767850745088,2022-02-15-12:06:07,10.1.1.7,37,0.080,0.080,0.080,0.000,0.000,0.000
1644926767891130880,2022-02-15-12:06:07,10.1.1.7,26,0.090,0.090,0.090,0.000,0.000,0.000
1644926767950748928,2022-02-15-12:06:07,10.1.1.7,35,0.100,0.100,0.100,0.000,0.000,0.000
1644926767991014912,2022-02-15-12:06:07,10.1.1.7,24,0.090,0.090,0.090,0.000,0.000,0.000
1644926768051304192,2022-02-15-12:06:08,10.1.1.7,34,0.080,0.080,0.080,0.000,0.000,0.000
1644926768091314944,2022-02-15-12:06:08,10.1.1.7,23,0.070,0.070,0.070,0.000,0.000,0.000
1644926768151233792,2022-02-15-12:06:08,10.1.1.7,33,0.060,0.060,0.060,0.000,0.000,0.000
1644926768191132160,2022-02-15-12:06:08,10.1.1.7,22,0.050,0.050,0.050,0.000,0.000,0.000
1644926768250426880,2022-02-15-12:06:08,10.1.1.7,31,0.040,0.040,0.040,0.000,0.000,0.000
1644926768290860032,2022-02-15-12:06:08,10.1.1.7,19,0.031,0.031,0.031,0.000,0.000,0.000
1644926768350682880,2022-02-15-12:06:08,10.1.1.7,28,0.020,0.020,0.020,0.000,0.000,0.000
1644926768411476992,2022-02-15-12:06:08,10.1.1.7,38,0.010,0.010,0.010,0.000,0.000,0.000
1644926768450880000,2022-02-15-12:06:08,10.1.1.7,28,0.000,0.000,0.000,0.000,0.000,0.000
1644926768510409216,2022-02-15-12:06:08,10.1.1.7,37,-0.010,-0.010,-0.010,0.000,0.000,0.000
1644926768550748160,2022-02-15-12:06:08,10.1.1.7,25,-0.020,-0.020,-0.020,0.000,0.000,0.000
1644926768610850048,2022-02-15-12:06:08,10.1.1.7,34,-0.030,-0.030,-0.030,0.000,0.000,0.000
1644926768651490048,2022-02-15-12:06:08,10.1.1.7,24,-0.040,-0.040,-0.040,0.000,0.000,0.000
1644926768711076864,2022-02-15-12:06:08,10.1.1.7,34,-0.050,-0.050,-0.050,0.000,0.000,0.000
1644926768751462912,2022-02-15-12:06:08,10.1.1.7,23,-0.060,-0.060,-0.060,0.000,0.000,0.000
1644926768810839040,2022-02-15-12:06:08,10.1.1.7,33,-0.070,-0.070,-0.070,0.000,0.000,0.000
1644926768850652928,2022-02-15-12:06:08,10.1.1.7,22,-0.080,-0.080,-0.080,0.000,0.000,0.000
1644926768911084800,2022-02-15-12:06:08,10.1.1.7,32,-0.090,-0.090,-0.090,0.000,0.000,0.000
1644926768950702848,2022-02-15-12:06:08,10.1.1.7,21,-0.100,-0.100,-0.100,0.000,0.000,0.000
1644926769011173120,2022-02-15-12:06:09,10.1.1.7,31,-0.090,-0.090,-0.090,0.000,0.000,0.000
1644926769070818816,2022-02-15-12:06:09,10.1.1.7,39,-0.080,-0.080,-0.080,0.000,0.000,0.000
1644926769110887936,2022-02-15-12:06:09,10.1.1.7,28,-0.070,-0.070,-0.070,0.000,0.000,0.000
1644926769170823936,2022-02-15-12:06:09,10.1.1.7,37,-0.060,-0.060,-0.060,0.000,0.000,0.000
1644926769210916096,2022-02-15-12:06:09,10.1.1.7,27,-0.050,-0.050,-0.050,0.000,0.000,0.000
1644926769271313920,2022-02-15-12:06:09,10.1.1.7,36,-0.040,-0.040,-0.040,0.000,0.000,0.000
1644926769310973952,2022-02-15-12:06:09,10.1.1.7,26,-0.030,-0.030,-0.030,0.000,0.000,0.000
1644926769371501056,2022-02-15-12:06:09,10.1.1.7,36,-0.020,-0.020,-0.020,0.000,0.000,0.000
1644926769410948096,2022-02-15-12:06:09,10.1.1.7,25,-0.010,-0.010,-0.010,0.000,0.000,0.000
1644926769470476032,2022-02-15-12:06:09,10.1.1.7,34,0.000,0.000,0.000,0.000,0.000,0.000
1644926769510524160,2022-02-15-12:06:09,10.1.1.7,24,0.010,0.010,0.010,0.000,0.000,0.000
1644926769571171072,2022-02-15-12:06:09,10.1.1.7,34,0.020,0.020,0.020,0.000,0.000,0.000
1644926769611044864,2022-02-15-12:06:09,10.1.1.7,23,0.030,0.030,0.030,0.000,0.000,0.000
1644926769671282176,2022-02-15-12:06:09,10.1.1.7,32,0.040,0.040,0.040,0.000,0.000,0.000
1644926769710664960,2022-02-15-12:06:09,10.1.1.7,22,0.050,0.050,0.050,0.000,0.000,0.000
1644926769771269120,2022-02-15-12:06:09,10.1.1.7,31,0.060,0.060,0.060,0.000,0.000,0.000
1644926769810990080,2022-02-15-12:06:09,10.1.1.7,19,0.069,0.069,0.069,0.000,0.000,0.000
1644926769871175936,2022-02-15-12:06:09,10.1.1.7,28,0.080,0.080,0.080,0.000,0.000,0.000
1644926769931734016,2022-02-15-12:06:09,10.1.1.7,37,0.090,0.090,0.090,0.000,0.000,0.000
1644926769971810048,2022-02-15-12:06:09,10.1.1.7,26,0.100,0.100,0.100,0.000,0.000,0.000
1644926770031207168,2022-02-15-12:06:10,10.1.1.7,36,0.090,0.090,0.090,0.000,0.000,0.000
1644926770071166976,2022-02-15-12:06:10,10.1.1.7,25,0.080,0.080,0.080,0.000,0.000,0.000
1644926770131311872,2022-02-15-12:06:10,10.1.1.7,35,0.070,0.070,0.070,0.000,0.000,0.000
1644926770170983168,2022-02-15-12:06:10,10.1.1.7,25,0.060,0.060,0.060,0.000,0.000,0.000
1644926770231484928,2022-02-15-12:06:10,10.1.1.7,34,0.050,0.050,0.050,0.000,0.000,0.000
1644926770351060992,2022-02-15-12:06:10,10.1.1.7,28,0.030,0.030,0.030,0.000,0.000,0.000
1644926770411041024,2022-02-15-12:06:10,10.1.1.7,30,0.020,0.020,0.020,0.000,0.000,0.000
1644926770471975936,2022-02-15-12:06:10,10.1.1.7,38,0.010,0.010,0.010,0.000,0.000,0.000
1644926770510572032,2022-02-15-12:06:10,10.1.1.7,27,0.000,0.000,0.000,0.000,0.000,0.000
1644926770571161088,2022-02-15-12:06:10,10.1.1.7,37,-0.010,-0.010,-0.010,0.000,0.000,0.000
1644926770610791936,2022-02-15-12:06:10,10.1.1.7,27,-0.020,-0.020,-0.020,0.000,0.000,0.000
1644926770670932992,2022-02-15-12:06:10,10.1.1.7,35,-0.030,-0.030,-0.030,0.000,0.000,0.000
1644926770711025920,2022-02-15-12:06:10,10.1.1.7,25,-0.040,-0.040,-0.040,0.000,0.000,0.000
1644926770771228928,2022-02-15-12:06:10,10.1.1.7,35,-0.050,-0.050,-0.050,0.000,0.000,0.000
1644926770810864896,2022-02-15-12:06:10,10.1.1.7,23,-0.060,-0.060,-0.060,0.000,0.000,0.000
1644926770871646976,2022-02-15-12:06:10,10.1.1.7,31,-0.070,-0.070,-0.070,0.000,0.000,0.000
1644926770910610944,2022-02-15-12:06:10,10.1.1.7,19,-0.079,-0.079,-0.079,0.000,0.000,0.000
1644926770970465024,2022-02-15-12:06:10,10.1.1.7,29,-0.090,-0.090,-0.090,0.000,0.000,0.000
1644926771031582208,2022-02-15-12:06:11,10.1.1.7,38,-0.100,-0.100,-0.100,0.000,0.000,0.000
1644926771070563072,2022-02-15-12:06:11,10.1.1.7,27,-0.090,-0.090,-0.090,0.000,0.000,0.000
1644926771134391040,2022-02-15-12:06:11,10.1.1.7,37,-0.080,-0.080,-0.080,0.000,0.000,0.000
1644926771171020032,2022-02-15-12:06:11,10.1.1.7,26,-0.070,-0.070,-0.070,0.000,0.000,0.000
1644926771231409152,2022-02-15-12:06:11,10.1.1.7,35,-0.060,-0.060,-0.060,0.000,0.000,0.000
1644926771271610112,2022-02-15-12:06:11,10.1.1.7,24,-0.050,-0.050,-0.050,0.000,0.000,0.000
1644926771330696960,2022-02-15-12:06:11,10.1.1.7,34,-0.040,-0.040,-0.040,0.000,0.000,0.000
1644926771371808000,2022-02-15-12:06:11,10.1.1.7,23,-0.030,-0.030,-0.030,0.000,0.000,0.000
1644926771431005952,2022-02-15-12:06:11,10.1.1.7,33,-0.020,-0.020,-0.020,0.000,0.000,0.000
1644926771470755072,2022-02-15-12:06:11,10.1.1.7,22,-0.010,-0.010,-0.010,0.000,0.000,0.000
1644926771531424000,2022-02-15-12:06:11,10.1.1.7,31,0.000,0.000,0.000,0.000,0.000,0.000
1644926771570800896,2022-02-15-12:06:11,10.1.1.7,20,0.010,0.010,0.010,0.000,0.000,0.000
1644926771630778112,2022-02-15-12:06:11,10.1.1.7,29,0.020,0.020,0.020,0.000,0.000,0.000
1644926771690771968,2022-02-15-12:06:11,10.1.1.7,38,0.030,0.030,0.030,0.000,0.000,0.000
1644926771731204096,2022-02-15-12:06:11,10.1.1.7,27,0.040,0.040,0.040,0.000,0.000,0.000
1644926771790584064,2022-02-15-12:06:11,10.1.1.7,35,0.050,0.050,0.050,0.000,0.000,0.000
1644926771831124992,2022-02-15-12:06:11,10.1.1.7,25,0.060,0.060,0.060,0.000,0.000,0.000
1644926771913327104,2022-02-15-12:06:11,10.1.1.7,26,0.070,0.070,0.070,0.000,0.000,0.000
1644926771970560000,2022-02-15-12:06:11,10.1.1.7,35,0.080,0.080,0.080,0.000,0.000,0.000
1644926772011275008,2022-02-15-12:06:12,10.1.1.7,24,0.090,0.090,0.090,0.000,0.000,0.000
1644926772070760960,2022-02-15-12:06:12,10.1.1.7,34,0.100,0.100,0.100,0.000,0.000,0.000
1644926772110945024,2022-02-15-12:06:12,10.1.1.7,24,0.090,0.090,0.090,0.000,0.000,0.000
1644926772170473216,2022-02-15-12:06:12,10.1.1.7,33,0.080,0.080,0.080,0.000,0.000,0.000
1644926772210612992,2022-02-15-12:06:12,10.1.1.7,23,0.070,0.070,0.070,0.000,0.000,0.000
1644926772270860032,2022-02-15-12:06:12,10.1.1.7,32,0.060,0.060,0.060,0.000,0.000,0.000
1644926772311132928,2022-02-15-12:06:12,10.1.1.7,22,0.050,0.050,0.050,0.000,0.000,0.000
1644926772371270912,2022-02-15-12:06:12,10.1.1.7,31,0.040,0.040,0.040,0.000,0.000,0.000
1644926772411266048,2022-02-15-12:06:12,10.1.1.7,20,0.030,0.030,0.030,0.000,0.000,0.000
1644926772471100928,2022-02-15-12:06:12,10.1.1.7,30,0.020,0.020,0.020,0.000,0.000,0.000
1644926772531004928,2022-02-15-12:06:12,10.1.1.7,38,0.010,0.010,0.010,0.000,0.000,0.000
1644926772571579904,2022-02-15-12:06:12,10.1.1.7,28,0.000,0.000,0.000,0.000,0.000,0.000
1644926772630998016,2022-02-15-12:06:12,10.1.1.7,37,-0.010,-0.010,-0.010,0.000,0.000,0.000
1644926772671226880,2022-02-15-12:06:12,10.1.1.7,26,-0.020,-0.020,-0.020,0.000,0.000,0.000
1644926772730996992,2022-02-15-12:06:12,10.1.1.7,36,-0.030,-0.030,-0.030,0.000,0.000,0.000
1644926772771235840,2022-02-15-12:06:12,10.1.1.7,25,-0.040,-0.040,-0.040,0.000,0.000,0.000
1644926772831158016,2022-02-15-12:06:12,10.1.1.7,34,-0.050,-0.050,-0.050,0.000,0.000,0.000
1644926772871915008,2022-02-15-12:06:12,10.1.1.7,24,-0.060,-0.060,-0.060,0.000,0.000,0.000
1644926772931188992,2022-02-15-12:06:12,10.1.1.7,34,-0.070,-0.070,-0.070,0.000,0.000,0.000
1644926772971642880,2022-02-15-12:06:12,10.1.1.7,23,-0.080,-0.080,-0.080,0.000,0.000,0.000
1644926773030875904,2022-02-15-12:06:13,10.1.1.7,33,-0.090,-0.090,-0.090,0.000,0.000,0.000
1644926773070516224,2022-02-15-12:06:13,10.1.1.7,22,-0.100,-0.100,-0.100,0.000,0.000,0.000
1644926773131027968,2022-02-15-12:06:13,10.1.1.7,32,-0.090,-0.090,-0.090,0.000,0.000,0.000
1644926773170718976,2022-02-15-12:06:13,10.1.1.7,22,-0.080,-0.080,-0.080,0.000,0.000,0.000
1644926773231595008,2022-02-15-12:06:13,10.1.1.7,31,-0.070,-0.070,-0.070,0.000,0.000,0.000
1644926773271286016,2022-02-15-12:06:13,10.1.1.7,20,-0.060,-0.060,-0.060,0.000,0.000,0.000
1644926773330529024,2022-02-15-12:06:13,10.1.1.7,30,-0.050,-0.050,-0.050,0.000,0.000,0.000
1644926773370724864,2022-02-15-12:06:13,10.1.1.7,19,-0.040,-0.040,-0.040,0.000,0.000,0.000
1644926773430748928,2022-02-15-12:06:13,10.1.1.7,28,-0.030,-0.030,-0.030,0.000,0.000,0.000
1644926773490753792,2022-02-15-12:06:13,10.1.1.7,38,-0.020,-0.020,-0.020,0.000,0.000,0.000
1644926773531012096,2022-02-15-12:06:13,10.1.1.7,28,-0.010,-0.010,-0.010,0.000,0.000,0.000
1644926773591031040,2022-02-15-12:06:13,10.1.1.7,37,0.000,0.000,0.000,0.000,0.000,0.000
1644926773630723072,2022-02-15-12:06:13,10.1.1.7,27,0.010,0.010,0.010,0.000,0.000,0.000
1644926773691277056,2022-02-15-12:06:13,10.1.1.7,36,0.020,0.020,0.020,0.000,0.000,0.000
1644926773731697152,2022-02-15-12:06:13,10.1.1.7,26,0.030,0.030,0.030,0.000,0.000,0.000
1644926773790579968,2022-02-15-12:06:13,10.1.1.7,35,0.040,0.040,0.040,0.000,0.000,0.000
1644926773832465920,2022-02-15-12:06:13,10.1.1.7,25,0.050,0.050,0.050,0.000,0.000,0.000
1644926773890556928,2022-02-15-12:06:13,10.1.1.7,34,0.060,0.060,0.060,0.000,0.000,0.000
1644926773930917888,2022-02-15-12:06:13,10.1.1.7,24,0.070,0.070,0.070,0.000,0.000,0.000
1644926773991177984,2022-02-15-12:06:13,10.1.1.7,33,0.080,0.080,0.080,0.000,0.000,0.000
1644926774031236864,2022-02-15-12:06:14,10.1.1.7,22,0.090,0.090,0.090,0.000,0.000,0.000
1644926774091538944,2022-02-15-12:06:14,10.1.1.7,31,0.100,0.100,0.100,0.000,0.000,0.000
1644926774131202048,2022-02-15-12:06:14,10.1.1.7,21,0.090,0.090,0.090,0.000,0.000,0.000
1644926774190956032,2022-02-15-12:06:14,10.1.1.7,28,0.080,0.080,0.080,0.000,0.000,0.000
1644926774250777856,2022-02-15-12:06:14,10.1.1.7,38,0.070,0.070,0.070,0.000,0.000,0.000
1644926774291707136,2022-02-15-12:06:14,10.1.1.7,28,0.060,0.060,0.060,0.000,0.000,0.000
1644926774350828800,2022-02-15-12:06:14,10.1.1.7,37,0.050,0.050,0.050,0.000,0.000,0.000
1644926774390556160,2022-02-15-12:06:14,10.1.1.7,25,0.040,0.040,0.040,0.000,0.000,0.000
1644926774450962176,2022-02-15-12:06:14,10.1.1.7,35,0.030,0.030,0.030,0.000,0.000,0.000
1644926774491187968,2022-02-15-12:06:14,10.1.1.7,24,0.020,0.020,0.020,0.000,0.000,0.000
1644926774551329024,2022-02-15-12:06:14,10.1.1.7,34,0.010,0.010,0.010,0.000,0.000,0.000
1644926774591092224,2022-02-15-12:06:14,10.1.1.7,23,0.000,0.000,0.000,0.000,0.000,0.000
1644926774650590976,2022-02-15-12:06:14,10.1.1.7,33,-0.010,-0.010,-0.010,0.000,0.000,0.000
1644926774690691840,2022-02-15-12:06:14,10.1.1.7,22,-0.020,-0.020,-0.020,0.000,0.000,0.000
1644926774751091968,2022-02-15-12:06:14,10.1.1.7,31,-0.030,-0.030,-0.030,0.000,0.000,0.000
1644926774791144960,2022-02-15-12:06:14,10.1.1.7,21,-0.040,-0.040,-0.040,0.000,0.000,0.000
1644926774850961920,2022-02-15-12:06:14,10.1.1.7,30,-0.050,-0.050,-0.050,0.000,0.000,0.000
1644926774891002880,2022-02-15-12:06:14,10.1.1.7,20,-0.060,-0.060,-0.060,0.000,0.000,0.000
1644926774951385088,2022-02-15-12:06:14,10.1.1.7,29,-0.070,-0.070,-0.070,0.000,0.000,0.000
1644926774991388928,2022-02-15-12:06:14,10.1.1.7,19,-0.079,-0.079,-0.079,0.000,0.000,0.000
1644926775050992128,2022-02-15-12:06:15,10.1.1.7,28,-0.090,-0.090,-0.090,0.000,0.000,0.000
1644926775111116032,2022-02-15-12:06:15,10.1.1.7,38,-0.100,-0.100,-0.100,0.000,0.000,0.000
1644926775150777088,2022-02-15-12:06:15,10.1.1.7,27,-0.090,-0.090,-0.090,0.000,0.000,0.000
1644926775210916096,2022-02-15-12:06:15,10.1.1.7,37,-0.080,-0.080,-0.080,0.000,0.000,0.000
1644926775251461120,2022-02-15-12:06:15,10.1.1.7,27,-0.070,-0.070,-0.070,0.000,0.000,0.000
1644926775310985216,2022-02-15-12:06:15,10.1.1.7,36,-0.060,-0.060,-0.060,0.000,0.000,0.000
1644926775351325952,2022-02-15-12:06:15,10.1.1.7,25,-0.050,-0.050,-0.050,0.000,0.000,0.000
1644926775411232000,2022-02-15-12:06:15,10.1.1.7,35,-0.040,-0.040,-0.040,0.000,0.000,0.000
1644926775451215104,2022-02-15-12:06:15,10.1.1.7,24,-0.030,-0.030,-0.030,0.000,0.000,0.000
1644926775510526976,2022-02-15-12:06:15,10.1.1.7,34,-0.020,-0.020,-0.020,0.000,0.000,0.000
1644926775551203840,2022-02-15-12:06:15,10.1.1.7,24,-0.010,-0.010,-0.010,0.000,0.000,0.000
1644926775611149056,2022-02-15-12:06:15,10.1.1.7,34,0.000,0.000,0.000,0.000,0.000,0.000
1644926775651196928,2022-02-15-12:06:15,10.1.1.7,23,0.010,0.010,0.010,0.000,0.000,0.000
1644926775711497984,2022-02-15-12:06:15,10.1.1.7,33,0.020,0.020,0.020,0.000,0.000,0.000
1644926775750996992,2022-02-15-12:06:15,10.1.1.7,22,0.030,0.030,0.030,0.000,0.000,0.000
1644926775811161088,2022-02-15-12:06:15,10.1.1.7,32,0.040,0.040,0.040,0.000,0.000,0.000
1644926775850945024,2022-02-15-12:06:15,10.1.1.7,21,0.050,0.050,0.050,0.000,0.000,0.000
1644926775910892032,2022-02-15-12:06:15,10.1.1.7,31,0.060,0.060,0.060,0.000,0.000,0.000
1644926775950938112,2022-02-15-12:06:15,10.1.1.7,21,0.070,0.070,0.070,0.000,0.000,0.000
1644926776011109120,2022-02-15-12:06:16,10.1.1.7,30,0.080,0.080,0.080,0.000,0.000,0.000
1644926776051619072,2022-02-15-12:06:16,10.1.1.7,19,0.090,0.090,0.090,0.000,0.000,0.000
1644926776111080960,2022-02-15-12:06:16,10.1.1.7,29,0.100,0.100,0.100,0.000,0.000,0.000
1644926776151126016,2022-02-15-12:06:16,10.1.1.7,18,0.091,0.091,0.091,0.000,0.000,0.000
1644926776210716928,2022-02-15-12:06:16,10.1.1.7,28,0.080,0.080,0.080,0.000,0.000,0.000
1644926776271513856,2022-02-15-12:06:16,10.1.1.7,38,0.070,0.070,0.070,0.000,0.000,0.000
1644926776311028992,2022-02-15-12:06:16,10.1.1.7,27,0.060,0.060,0.060,0.000,0.000,0.000
1644926776371689984,2022-02-15-12:06:16,10.1.1.7,37,0.050,0.050,0.050,0.000,0.000,0.000
1644926776410749952,2022-02-15-12:06:16,10.1.1.7,26,0.040,0.040,0.040,0.000,0.000,0.000
1644926776470490880,2022-02-15-12:06:16,10.1.1.7,36,0.030,0.030,0.030,0.000,0.000,0.000
1644926776511169792,2022-02-15-12:06:16,10.1.1.7,25,0.020,0.020,0.020,0.000,0.000,0.000
1644926776571525120,2022-02-15-12:06:16,10.1.1.7,35,0.010,0.010,0.010,0.000,0.000,0.000
1644926776611276032,2022-02-15-12:06:16,10.1.1.7,25,0.000,0.000,0.000,0.000,0.000,0.000
1644926776670878976,2022-02-15-12:06:16,10.1.1.7,34,-0.010,-0.010,-0.010,0.000,0.000,0.000
1644926776711194880,2022-02-15-12:06:16,10.1.1.7,24,-0.020,-0.020,-0.020,0.000,0.000,0.000
1644926776771256832,2022-02-15-12:06:16,10.1.1.7,33,-0.030,-0.030,-0.030,0.000,0.000,0.000
1644926776810718976,2022-02-15-12:06:16,10.1.1.7,23,-0.040,-0.040,-0.040,0.000,0.000,0.000
1644926776871604992,2022-02-15-12:06:16,10.1.1.7,33,-0.050,-0.050,-0.050,0.000,0.000,0.000
1644926776911528960,2022-02-15-12:06:16,10.1.1.7,22,-0.060,-0.060,-0.060,0.000,0.000,0.000
1644926776970913792,2022-02-15-12:06:16,10.1.1.7,32,-0.070,-0.070,-0.070,0.000,0.000,0.000
1644926777011261952,2022-02-15-12:06:17,10.1.1.7,21,-0.080,-0.080,-0.080,0.000,0.000,0.000
1644926777071144192,2022-02-15-12:06:17,10.1.1.7,31,-0.090,-0.090,-0.090,0.000,0.000,0.000
1644926777111473920,2022-02-15-12:06:17,10.1.1.7,19,-0.100,-0.100,-0.100,0.000,0.000,0.000
1644926777183697920,2022-02-15-12:06:17,10.1.1.7,29,-0.090,-0.090,-0.090,0.000,0.000,0.000
1644926777291460096,2022-02-15-12:06:17,10.1.1.7,32,-0.070,-0.070,-0.070,0.000,0.000,0.000
1644926777331212032,2022-02-15-12:06:17,10.1.1.7,21,-0.060,-0.060,-0.060,0.000,0.000,0.000
1644926777391625984,2022-02-15-12:06:17,10.1.1.7,29,-0.050,-0.050,-0.050,0.000,0.000,0.000
1644926777432893952,2022-02-15-12:06:17,10.1.1.7,19,-0.041,-0.041,-0.041,0.000,0.000,0.000
1644926777491864832,2022-02-15-12:06:17,10.1.1.7,28,-0.030,-0.030,-0.030,0.000,0.000,0.000
1644926777551028992,2022-02-15-12:06:17,10.1.1.7,38,-0.020,-0.020,-0.020,0.000,0.000,0.000
1644926777590836992,2022-02-15-12:06:17,10.1.1.7,28,-0.010,-0.010,-0.010,0.000,0.000,0.000
1644926777650779904,2022-02-15-12:06:17,10.1.1.7,37,0.000,0.000,0.000,0.000,0.000,0.000
1644926777690447104,2022-02-15-12:06:17,10.1.1.7,27,0.010,0.010,0.010,0.000,0.000,0.000
1644926777751133952,2022-02-15-12:06:17,10.1.1.7,37,0.020,0.020,0.020,0.000,0.000,0.000
1644926777791369984,2022-02-15-12:06:17,10.1.1.7,26,0.030,0.030,0.030,0.000,0.000,0.000
1644926777850748160,2022-02-15-12:06:17,10.1.1.7,36,0.040,0.040,0.040,0.000,0.000,0.000
1644926777890622976,2022-02-15-12:06:17,10.1.1.7,25,0.050,0.050,0.050,0.000,0.000,0.000
1644926777950875904,2022-02-15-12:06:17,10.1.1.7,34,0.060,0.060,0.060,0.000,0.000,0.000
1644926777990968832,2022-02-15-12:06:17,10.1.1.7,24,0.070,0.070,0.070,0.000,0.000,0.000
1644926778051245056,2022-02-15-12:06:18,10.1.1.7,33,0.080,0.080,0.080,0.000,0.000,0.000
1644926778090627840,2022-02-15-12:06:18,10.1.1.7,23,0.090,0.090,0.090,0.000,0.000,0.000
1644926778150625024,2022-02-15-12:06:18,10.1.1.7,33,0.100,0.100,0.100,0.000,0.000,0.000
1644926778190651904,2022-02-15-12:06:18,10.1.1.7,22,0.090,0.090,0.090,0.000,0.000,0.000
1644926778250886912,2022-02-15-12:06:18,10.1.1.7,32,0.080,0.080,0.080,0.000,0.000,0.000
1644926778291554048,2022-02-15-12:06:18,10.1.1.7,22,0.070,0.070,0.070,0.000,0.000,0.000
1644926778351526912,2022-02-15-12:06:18,10.1.1.7,31,0.060,0.060,0.060,0.000,0.000,0.000
1644926778390404864,2022-02-15-12:06:18,10.1.1.7,21,0.050,0.050,0.050,0.000,0.000,0.000
1644926778450747136,2022-02-15-12:06:18,10.1.1.7,30,0.040,0.040,0.040,0.000,0.000,0.000
1644926778491277824,2022-02-15-12:06:18,10.1.1.7,19,0.030,0.030,0.030,0.000,0.000,0.000
1644926778550587904,2022-02-15-12:06:18,10.1.1.7,29,0.020,0.020,0.020,0.000,0.000,0.000
1644926778610571008,2022-02-15-12:06:18,10.1.1.7,38,0.010,0.010,0.010,0.000,0.000,0.000
1644926778650537984,2022-02-15-12:06:18,10.1.1.7,27,0.000,0.000,0.000,0.000,0.000,0.000
1644926778710427136,2022-02-15-12:06:18,10.1.1.7,37,-0.010,-0.010,-0.010,0.000,0.000,0.000
1644926778750391040,2022-02-15-12:06:18,10.1.1.7,26,-0.020,-0.020,-0.020,0.000,0.000,0.000
1644926778811103232,2022-02-15-12:06:18,10.1.1.7,35,-0.030,-0.030,-0.030,0.000,0.000,0.000
1644926778850336000,2022-02-15-12:06:18,10.1.1.7,25,-0.040,-0.040,-0.040,0.000,0.000,0.000
1644926778910553088,2022-02-15-12:06:18,10.1.1.7,35,-0.050,-0.050,-0.050,0.000,0.000,0.000
1644926778950522880,2022-02-15-12:06:18,10.1.1.7,24,-0.060,-0.060,-0.060,0.000,0.000,0.000
1644926779011083008,2022-02-15-12:06:19,10.1.1.7,34,-0.070,-0.070,-0.070,0.000,0.000,0.000
1644926779050752000,2022-02-15-12:06:19,10.1.1.7,24,-0.080,-0.080,-0.080,0.000,0.000,0.000
1644926779110917120,2022-02-15-12:06:19,10.1.1.7,33,-0.090,-0.090,-0.090,0.000,0.000,0.000
1644926779150344960,2022-02-15-12:06:19,10.1.1.7,23,-0.100,-0.100,-0.100,0.000,0.000,0.000
1644926779210937856,2022-02-15-12:06:19,10.1.1.7,32,-0.090,-0.090,-0.090,0.000,0.000,0.000
1644926779250716928,2022-02-15-12:06:19,10.1.1.7,21,-0.080,-0.080,-0.080,0.000,0.000,0.000
1644926779310929152,2022-02-15-12:06:19,10.1.1.7,31,-0.070,-0.070,-0.070,0.000,0.000,0.000
1644926779351095040,2022-02-15-12:06:19,10.1.1.7,21,-0.060,-0.060,-0.060,0.000,0.000,0.000
1644926779411303168,2022-02-15-12:06:19,10.1.1.7,30,-0.050,-0.050,-0.050,0.000,0.000,0.000
1644926779450898944,2022-02-15-12:06:19,10.1.1.7,20,-0.040,-0.040,-0.040,0.000,0.000,0.000
1644926779510718976,2022-02-15-12:06:19,10.1.1.7,29,-0.030,-0.030,-0.030,0.000,0.000,0.000
1644926779550878976,2022-02-15-12:06:19,10.1.1.7,18,-0.021,-0.021,-0.021,0.000,0.000,0.000
1644926779610560000,2022-02-15-12:06:19,10.1.1.7,28,-0.010,-0.010,-0.010,0.000,0.000,0.000
1644926779670926080,2022-02-15-12:06:19,10.1.1.7,38,0.000,0.000,0.000,0.000,0.000,0.000
1644926779711098880,2022-02-15-12:06:19,10.1.1.7,27,0.010,0.010,0.010,0.000,0.000,0.000
1644926779770519040,2022-02-15-12:06:19,10.1.1.7,37,0.020,0.020,0.020,0.000,0.000,0.000
1644926779811153920,2022-02-15-12:06:19,10.1.1.7,27,0.030,0.030,0.030,0.000,0.000,0.000
1644926779870630912,2022-02-15-12:06:19,10.1.1.7,36,0.040,0.040,0.040,0.000,0.000,0.000
1644926779910566144,2022-02-15-12:06:19,10.1.1.7,25,0.050,0.050,0.050,0.000,0.000,0.000
1644926779970583808,2022-02-15-12:06:19,10.1.1.7,35,0.060,0.060,0.060,0.000,0.000,0.000
1644926780010433024,2022-02-15-12:06:20,10.1.1.7,24,0.070,0.070,0.070,0.000,0.000,0.000
1644926780071017984,2022-02-15-12:06:20,10.1.1.7,34,0.080,0.080,0.080,0.000,0.000,0.000
1644926780111617024,2022-02-15-12:06:20,10.1.1.7,24,0.090,0.090,0.090,0.000,0.000,0.000
1644926780170181120,2022-02-15-12:06:20,10.1.1.7,33,0.100,0.100,0.100,0.000,0.000,0.000
1644926780210635776,2022-02-15-12:06:20,10.1.1.7,22,0.090,0.090,0.090,0.000,0.000,0.000
1644926780270822144,2022-02-15-12:06:20,10.1.1.7,32,0.080,0.080,0.080,0.000,0.000,0.000
1644926780311293952,2022-02-15-12:06:20,10.1.1.7,22,0.070,0.070,0.070,0.000,0.000,0.000
1644926780370397952,2022-02-15-12:06:20,10.1.1.7,31,0.060,0.060,0.060,0.000,0.000,0.000
1644926780449837824,2022-02-15-12:06:20,10.1.1.7,20,0.050,0.050,0.050,0.000,0.000,0.000
1644926780550329856,2022-02-15-12:06:20,10.1.1.7,33,0.030,0.030,0.030,0.000,0.000,0.000
1644926780590349056,2022-02-15-12:06:20,10.1.1.7,23,0.020,0.020,0.020,0.000,0.000,0.000
1644926780650691072,2022-02-15-12:06:20,10.1.1.7,33,0.010,0.010,0.010,0.000,0.000,0.000
1644926780691059200,2022-02-15-12:06:20,10.1.1.7,22,0.000,0.000,0.000,0.000,0.000,0.000
1644926780751486976,2022-02-15-12:06:20,10.1.1.7,31,-0.010,-0.010,-0.010,0.000,0.000,0.000
1644926780790612992,2022-02-15-12:06:20,10.1.1.7,20,-0.020,-0.020,-0.020,0.000,0.000,0.000
1644926780851239936,2022-02-15-12:06:20,10.1.1.7,29,-0.030,-0.030,-0.030,0.000,0.000,0.000
1644926780891299840,2022-02-15-12:06:20,10.1.1.7,19,-0.039,-0.039,-0.039,0.000,0.000,0.000
1644926780951446016,2022-02-15-12:06:20,10.1.1.7,29,-0.050,-0.050,-0.050,0.000,0.000,0.000
1644926781011138816,2022-02-15-12:06:21,10.1.1.7,38,-0.060,-0.060,-0.060,0.000,0.000,0.000
1644926781050960896,2022-02-15-12:06:21,10.1.1.7,27,-0.070,-0.070,-0.070,0.000,0.000,0.000
1644926781110765824,2022-02-15-12:06:21,10.1.1.7,37,-0.080,-0.080,-0.080,0.000,0.000,0.000
1644926781150921216,2022-02-15-12:06:21,10.1.1.7,26,-0.090,-0.090,-0.090,0.000,0.000,0.000
1644926781210501888,2022-02-15-12:06:21,10.1.1.7,36,-0.100,-0.100,-0.100,0.000,0.000,0.000
1644926781251006976,2022-02-15-12:06:21,10.1.1.7,26,-0.090,-0.090,-0.090,0.000,0.000,0.000
1644926781310790144,2022-02-15-12:06:21,10.1.1.7,35,-0.080,-0.080,-0.080,0.000,0.000,0.000
1644926781350333952,2022-02-15-12:06:21,10.1.1.7,24,-0.070,-0.070,-0.070,0.000,0.000,0.000
1644926781410556160,2022-02-15-12:06:21,10.1.1.7,28,-0.060,-0.060,-0.060,0.000,0.000,0.000
1644926781511106048,2022-02-15-12:06:21,10.1.1.7,25,-0.040,-0.040,-0.040,0.000,0.000,0.000
1644926781631166976,2022-02-15-12:06:21,10.1.1.7,39,-0.020,-0.020,-0.020,0.000,0.000,0.000
1644926781672334080,2022-02-15-12:06:21,10.1.1.7,28,-0.010,-0.010,-0.010,0.000,0.000,0.000
1644926781733436160,2022-02-15-12:06:21,10.1.1.7,37,0.000,0.000,0.000,0.000,0.000,0.000
1644926781777441024,2022-02-15-12:06:21,10.1.1.7,20,0.010,0.010,0.010,0.000,0.000,0.000
1644926781838129152,2022-02-15-12:06:21,10.1.1.7,30,0.020,0.020,0.020,0.000,0.000,0.000
1644926781871304960,2022-02-15-12:06:21,10.1.1.7,19,0.030,0.030,0.030,0.000,0.000,0.000
1644926781930500096,2022-02-15-12:06:21,10.1.1.7,28,0.040,0.040,0.040,0.000,0.000,0.000
1644926781991183104,2022-02-15-12:06:21,10.1.1.7,37,0.050,0.050,0.050,0.000,0.000,0.000
1644926782033467904,2022-02-15-12:06:22,10.1.1.7,26,0.060,0.060,0.060,0.000,0.000,0.000
1644926782090575872,2022-02-15-12:06:22,10.1.1.7,34,0.070,0.070,0.070,0.000,0.000,0.000
1644926782130768128,2022-02-15-12:06:22,10.1.1.7,23,0.080,0.080,0.080,0.000,0.000,0.000
1644926782190731008,2022-02-15-12:06:22,10.1.1.7,33,0.090,0.090,0.090,0.000,0.000,0.000
1644926782231361024,2022-02-15-12:06:22,10.1.1.7,22,0.100,0.100,0.100,0.000,0.000,0.000
1644926782291169792,2022-02-15-12:06:22,10.1.1.7,32,0.090,0.090,0.090,0.000,0.000,0.000
1644926782331682816,2022-02-15-12:06:22,10.1.1.7,19,0.081,0.081,0.081,0.000,0.000,0.000
1644926782392054016,2022-02-15-12:06:22,10.1.1.7,27,0.070,0.070,0.070,0.000,0.000,0.000
1644926782451172096,2022-02-15-12:06:22,10.1.1.7,37,0.060,0.060,0.060,0.000,0.000,0.000
1644926782491452928,2022-02-15-12:06:22,10.1.1.7,21,0.050,0.050,0.050,0.000,0.000,0.000
1644926782551156992,2022-02-15-12:06:22,10.1.1.7,30,0.040,0.040,0.040,0.000,0.000,0.000
1644926782611406080,2022-02-15-12:06:22,10.1.1.7,38,0.030,0.030,0.030,0.000,0.000,0.000
1644926782651794944,2022-02-15-12:06:22,10.1.1.7,26,0.020,0.020,0.020,0.000,0.000,0.000
1644926782711009024,2022-02-15-12:06:22,10.1.1.7,35,0.010,0.010,0.010,0.000,0.000,0.000
1644926782751246848,2022-02-15-12:06:22,10.1.1.7,24,0.000,0.000,0.000,0.000,0.000,0.000
1644926782810823936,2022-02-15-12:06:22,10.1.1.7,34,-0.010,-0.010,-0.010,0.000,0.000,0.000
1644926782851286784,2022-02-15-12:06:22,10.1.1.7,22,-0.020,-0.020,-0.020,0.000,0.000,0.000
1644926782910908928,2022-02-15-12:06:22,10.1.1.7,30,-0.030,-0.030,-0.030,0.000,0.000,0.000
1644926782971436032,2022-02-15-12:06:22,10.1.1.7,38,-0.040,-0.040,-0.040,0.000,0.000,0.000
1644926783010864896,2022-02-15-12:06:23,10.1.1.7,27,-0.050,-0.050,-0.050,0.000,0.000,0.000
1644926783071078144,2022-02-15-12:06:23,10.1.1.7,36,-0.060,-0.060,-0.060,0.000,0.000,0.000
1644926783110832896,2022-02-15-12:06:23,10.1.1.7,25,-0.070,-0.070,-0.070,0.000,0.000,0.000
1644926783170855168,2022-02-15-12:06:23,10.1.1.7,35,-0.080,-0.080,-0.080,0.000,0.000,0.000
1644926783210884096,2022-02-15-12:06:23,10.1.1.7,24,-0.090,-0.090,-0.090,0.000,0.000,0.000
1644926783270926848,2022-02-15-12:06:23,10.1.1.7,34,-0.100,-0.100,-0.100,0.000,0.000,0.000
1644926783310691072,2022-02-15-12:06:23,10.1.1.7,23,-0.090,-0.090,-0.090,0.000,0.000,0.000
1644926783370863872,2022-02-15-12:06:23,10.1.1.7,32,-0.080,-0.080,-0.080,0.000,0.000,0.000
1644926783410921216,2022-02-15-12:06:23,10.1.1.7,21,-0.070,-0.070,-0.070,0.000,0.000,0.000
1644926783470281984,2022-02-15-12:06:23,10.1.1.7,30,-0.060,-0.060,-0.060,0.000,0.000,0.000
1644926783510705920,2022-02-15-12:06:23,10.1.1.7,20,-0.050,-0.050,-0.050,0.000,0.000,0.000
1644926783570589184,2022-02-15-12:06:23,10.1.1.7,29,-0.040,-0.040,-0.040,0.000,0.000,0.000
1644926783630984960,2022-02-15-12:06:23,10.1.1.7,38,-0.030,-0.030,-0.030,0.000,0.000,0.000
1644926783670471936,2022-02-15-12:06:23,10.1.1.7,27,-0.020,-0.020,-0.020,0.000,0.000,0.000
1644926783731025920,2022-02-15-12:06:23,10.1.1.7,37,-0.010,-0.010,-0.010,0.000,0.000,0.000
1644926783770626048,2022-02-15-12:06:23,10.1.1.7,26,0.000,0.000,0.000,0.000,0.000,0.000
1644926783831200000,2022-02-15-12:06:23,10.1.1.7,36,0.010,0.010,0.010,0.000,0.000,0.000
1644926783870894080,2022-02-15-12:06:23,10.1.1.7,25,0.020,0.020,0.020,0.000,0.000,0.000
1644926783930697984,2022-02-15-12:06:23,10.1.1.7,35,0.030,0.030,0.030,0.000,0.000,0.000
1644926783970941184,2022-02-15-12:06:23,10.1.1.7,24,0.040,0.040,0.040,0.000,0.000,0.000
1644926784031361024,2022-02-15-12:06:24,10.1.1.7,34,0.050,0.050,0.050,0.000,0.000,0.000
1644926784070429184,2022-02-15-12:06:24,10.1.1.7,22,0.060,0.060,0.060,0.000,0.000,0.000
1644926784130689024,2022-02-15-12:06:24,10.1.1.7,32,0.070,0.070,0.070,0.000,0.000,0.000
1644926784170775808,2022-02-15-12:06:24,10.1.1.7,21,0.080,0.080,0.080,0.000,0.000,0.000
1644926784230875904,2022-02-15-12:06:24,10.1.1.7,30,0.090,0.090,0.090,0.000,0.000,0.000
1644926784270801920,2022-02-15-12:06:24,10.1.1.7,19,0.099,0.099,0.099,0.000,0.000,0.000
1644926784331700992,2022-02-15-12:06:24,10.1.1.7,27,0.090,0.090,0.090,0.000,0.000,0.000
1644926784391001856,2022-02-15-12:06:24,10.1.1.7,37,0.080,0.080,0.080,0.000,0.000,0.000
1644926784430529024,2022-02-15-12:06:24,10.1.1.7,26,0.070,0.070,0.070,0.000,0.000,0.000
1644926784490919168,2022-02-15-12:06:24,10.1.1.7,35,0.060,0.060,0.060,0.000,0.000,0.000
1644926784530658048,2022-02-15-12:06:24,10.1.1.7,24,0.050,0.050,0.050,0.000,0.000,0.000
1644926784591108096,2022-02-15-12:06:24,10.1.1.7,33,0.040,0.040,0.040,0.000,0.000,0.000
1644926784630574080,2022-02-15-12:06:24,10.1.1.7,23,0.030,0.030,0.030,0.000,0.000,0.000
1644926784690903808,2022-02-15-12:06:24,10.1.1.7,32,0.020,0.020,0.020,0.000,0.000,0.000
1644926784731545856,2022-02-15-12:06:24,10.1.1.7,22,0.010,0.010,0.010,0.000,0.000,0.000
1644926784790718976,2022-02-15-12:06:24,10.1.1.7,31,0.000,0.000,0.000,0.000,0.000,0.000
1644926784831224064,2022-02-15-12:06:24,10.1.1.7,19,-0.010,-0.010,-0.010,0.000,0.000,0.000
1644926784890748928,2022-02-15-12:06:24,10.1.1.7,29,-0.020,-0.020,-0.020,0.000,0.000,0.000
1644926784950272000,2022-02-15-12:06:24,10.1.1.7,38,-0.030,-0.030,-0.030,0.000,0.000,0.000
1644926784990464000,2022-02-15-12:06:24,10.1.1.7,27,-0.040,-0.040,-0.040,0.000,0.000,0.000
1644926785050492928,2022-02-15-12:06:25,10.1.1.7,37,-0.050,-0.050,-0.050,0.000,0.000,0.000
1644926785090332928,2022-02-15-12:06:25,10.1.1.7,26,-0.060,-0.060,-0.060,0.000,0.000,0.000
1644926785151137024,2022-02-15-12:06:25,10.1.1.7,35,-0.070,-0.070,-0.070,0.000,0.000,0.000
1644926785190455040,2022-02-15-12:06:25,10.1.1.7,25,-0.080,-0.080,-0.080,0.000,0.000,0.000
1644926785250863104,2022-02-15-12:06:25,10.1.1.7,34,-0.090,-0.090,-0.090,0.000,0.000,0.000
1644926785290507008,2022-02-15-12:06:25,10.1.1.7,23,-0.100,-0.100,-0.100,0.000,0.000,0.000
1644926785350440960,2022-02-15-12:06:25,10.1.1.7,31,-0.090,-0.090,-0.090,0.000,0.000,0.000
1644926785391008000,2022-02-15-12:06:25,10.1.1.7,20,-0.080,-0.080,-0.080,0.000,0.000,0.000
1644926785450686976,2022-02-15-12:06:25,10.1.1.7,29,-0.070,-0.070,-0.070,0.000,0.000,0.000
1644926785510521856,2022-02-15-12:06:25,10.1.1.7,38,-0.060,-0.060,-0.060,0.000,0.000,0.000
1644926785550950144,2022-02-15-12:06:25,10.1.1.7,27,-0.050,-0.050,-0.050,0.000,0.000,0.000
1644926785610829056,2022-02-15-12:06:25,10.1.1.7,37,-0.040,-0.040,-0.040,0.000,0.000,0.000
1644926785650779136,2022-02-15-12:06:25,10.1.1.7,26,-0.030,-0.030,-0.030,0.000,0.000,0.000
1644926785710930944,2022-02-15-12:06:25,10.1.1.7,35,-0.020,-0.020,-0.020,0.000,0.000,0.000
1644926785750906880,2022-02-15-12:06:25,10.1.1.7,23,-0.010,-0.010,-0.010,0.000,0.000,0.000
1644926785810882048,2022-02-15-12:06:25,10.1.1.7,33,0.000,0.000,0.000,0.000,0.000,0.000
1644926785850731008,2022-02-15-12:06:25,10.1.1.7,22,0.010,0.010,0.010,0.000,0.000,0.000
1644926785910353920,2022-02-15-12:06:25,10.1.1.7,31,0.020,0.020,0.020,0.000,0.000,0.000
1644926785950464000,2022-02-15-12:06:25,10.1.1.7,20,0.030,0.030,0.030,0.000,0.000,0.000
1644926786010451968,2022-02-15-12:06:26,10.1.1.7,30,0.040,0.040,0.040,0.000,0.000,0.000
1644926786050332160,2022-02-15-12:06:26,10.1.1.7,19,0.050,0.050,0.050,0.000,0.000,0.000
1644926786111158016,2022-02-15-12:06:26,10.1.1.7,29,0.060,0.060,0.060,0.000,0.000,0.000
1644926786170780928,2022-02-15-12:06:26,10.1.1.7,37,0.070,0.070,0.070,0.000,0.000,0.000
1644926786210912000,2022-02-15-12:06:26,10.1.1.7,26,0.080,0.080,0.080,0.000,0.000,0.000
1644926786271593216,2022-02-15-12:06:26,10.1.1.7,36,0.090,0.090,0.090,0.000,0.000,0.000
1644926786311170048,2022-02-15-12:06:26,10.1.1.7,24,0.100,0.100,0.100,0.000,0.000,0.000
1644926786370529792,2022-02-15-12:06:26,10.1.1.7,33,0.090,0.090,0.090,0.000,0.000,0.000
1644926786410640896,2022-02-15-12:06:26,10.1.1.7,23,0.080,0.080,0.080,0.000,0.000,0.000
1644926786470635776,2022-02-15-12:06:26,10.1.1.7,31,0.070,0.070,0.070,0.000,0.000,0.000
1644926786511934976,2022-02-15-12:06:26,10.1.1.7,20,0.060,0.060,0.060,0.000,0.000,0.000
1644926786570776832,2022-02-15-12:06:26,10.1.1.7,29,0.050,0.050,0.050,0.000,0.000,0.000
1644926786610723072,2022-02-15-12:06:26,10.1.1.7,19,0.041,0.041,0.041,0.000,0.000,0.000
1644926786670759936,2022-02-15-12:06:26,10.1.1.7,28,0.030,0.030,0.030,0.000,0.000,0.000
1644926786731354112,2022-02-15-12:06:26,10.1.1.7,37,0.020,0.020,0.020,0.000,0.000,0.000
1644926786770642944,2022-02-15-12:06:26,10.1.1.7,27,0.010,0.010,0.010,0.000,0.000,0.000
1644926786830554112,2022-02-15-12:06:26,10.1.1.7,36,0.000,0.000,0.000,0.000,0.000,0.000
1644926786870904064,2022-02-15-12:06:26,10.1.1.7,26,-0.010,-0.010,-0.010,0.000,0.000,0.000
1644926786930896896,2022-02-15-12:06:26,10.1.1.7,35,-0.020,-0.020,-0.020,0.000,0.000,0.000
1644926786970331904,2022-02-15-12:06:26,10.1.1.7,25,-0.030,-0.030,-0.030,0.000,0.000,0.000
1644926787030586880,2022-02-15-12:06:27,10.1.1.7,33,-0.040,-0.040,-0.040,0.000,0.000,0.000
1644926787070993920,2022-02-15-12:06:27,10.1.1.7,22,-0.050,-0.050,-0.050,0.000,0.000,0.000
1644926787131284992,2022-02-15-12:06:27,10.1.1.7,31,-0.060,-0.060,-0.060,0.000,0.000,0.000
1644926787170556928,2022-02-15-12:06:27,10.1.1.7,20,-0.070,-0.070,-0.070,0.000,0.000,0.000
1644926787230561024,2022-02-15-12:06:27,10.1.1.7,29,-0.080,-0.080,-0.080,0.000,0.000,0.000
1644926787270896896,2022-02-15-12:06:27,10.1.1.7,19,-0.089,-0.089,-0.089,0.000,0.000,0.000
1644926787330599168,2022-02-15-12:06:27,10.1.1.7,28,-0.100,-0.100,-0.100,0.000,0.000,0.000
1644926787390752000,2022-02-15-12:06:27,10.1.1.7,38,-0.090,-0.090,-0.090,0.000,0.000,0.000
1644926787430764800,2022-02-15-12:06:27,10.1.1.7,27,-0.080,-0.080,-0.080,0.000,0.000,0.000
1644926787490798848,2022-02-15-12:06:27,10.1.1.7,37,-0.070,-0.070,-0.070,0.000,0.000,0.000
1644926787531003904,2022-02-15-12:06:27,10.1.1.7,26,-0.060,-0.060,-0.060,0.000,0.000,0.000
1644926787590648832,2022-02-15-12:06:27,10.1.1.7,35,-0.050,-0.050,-0.050,0.000,0.000,0.000
1644926787630657792,2022-02-15-12:06:27,10.1.1.7,24,-0.040,-0.040,-0.040,0.000,0.000,0.000
1644926787690900992,2022-02-15-12:06:27,10.1.1.7,34,-0.030,-0.030,-0.030,0.000,0.000,0.000
1644926787730523136,2022-02-15-12:06:27,10.1.1.7,23,-0.020,-0.020,-0.020,0.000,0.000,0.000
1644926787790164992,2022-02-15-12:06:27,10.1.1.7,32,-0.010,-0.010,-0.010,0.000,0.000,0.000
1644926787830856960,2022-02-15-12:06:27,10.1.1.7,21,0.000,0.000,0.000,0.000,0.000,0.000
1644926787890786048,2022-02-15-12:06:27,10.1.1.7,30,0.010,0.010,0.010,0.000,0.000,0.000
1644926787930475008,2022-02-15-12:06:27,10.1.1.7,20,0.020,0.020,0.020,0.000,0.000,0.000
1644926787990766080,2022-02-15-12:06:27,10.1.1.7,29,0.030,0.030,0.030,0.000,0.000,0.000
1644926788050479872,2022-02-15-12:06:28,10.1.1.7,38,0.040,0.040,0.040,0.000,0.000,0.000
1644926788090563072,2022-02-15-12:06:28,10.1.1.7,27,0.050,0.050,0.050,0.000,0.000,0.000
1644926788151531008,2022-02-15-12:06:28,10.1.1.7,36,0.060,0.060,0.060,0.000,0.000,0.000
1644926788190995968,2022-02-15-12:06:28,10.1.1.7,25,0.070,0.070,0.070,0.000,0.000,0.000
1644926788250590208,2022-02-15-12:06:28,10.1.1.7,34,0.080,0.080,0.080,0.000,0.000,0.000
1644926788290510848,2022-02-15-12:06:28,10.1.1.7,22,0.090,0.090,0.090,0.000,0.000,0.000
1644926788351814144,2022-02-15-12:06:28,10.1.1.7,32,0.100,0.100,0.100,0.000,0.000,0.000
1644926788391154176,2022-02-15-12:06:28,10.1.1.7,20,0.090,0.090,0.090,0.000,0.000,0.000
1644926788450985984,2022-02-15-12:06:28,10.1.1.7,29,0.080,0.080,0.080,0.000,0.000,0.000
1644926788510905088,2022-02-15-12:06:28,10.1.1.7,38,0.070,0.070,0.070,0.000,0.000,0.000
1644926788550757888,2022-02-15-12:06:28,10.1.1.7,27,0.060,0.060,0.060,0.000,0.000,0.000
1644926788610872064,2022-02-15-12:06:28,10.1.1.7,35,0.050,0.050,0.050,0.000,0.000,0.000
1644926788650813184,2022-02-15-12:06:28,10.1.1.7,24,0.040,0.040,0.040,0.000,0.000,0.000
1644926788710918912,2022-02-15-12:06:28,10.1.1.7,33,0.030,0.030,0.030,0.000,0.000,0.000
1644926788751352064,2022-02-15-12:06:28,10.1.1.7,22,0.020,0.020,0.020,0.000,0.000,0.000
1644926788811058944,2022-02-15-12:06:28,10.1.1.7,29,0.010,0.010,0.010,0.000,0.000,0.000
1644926788871023872,2022-02-15-12:06:28,10.1.1.7,37,0.000,0.000,0.000,0.000,0.000,0.000
1644926788911272960,2022-02-15-12:06:28,10.1.1.7,26,-0.010,-0.010,-0.010,0.000,0.000,0.000
1644926788971092992,2022-02-15-12:06:28,10.1.1.7,35,-0.020,-0.020,-0.020,0.000,0.000,0.000
1644926789010777856,2022-02-15-12:06:29,10.1.1.7,24,-0.030,-0.030,-0.030,0.000,0.000,0.000
1644926789071098112,2022-02-15-12:06:29,10.1.1.7,34,-0.040,-0.040,-0.040,0.000,0.000,0.000
1644926789110557184,2022-02-15-12:06:29,10.1.1.7,23,-0.050,-0.050,-0.050,0.000,0.000,0.000
1644926789170712832,2022-02-15-12:06:29,10.1.1.7,32,-0.060,-0.060,-0.060,0.000,0.000,0.000
1644926789210806016,2022-02-15-12:06:29,10.1.1.7,21,-0.070,-0.070,-0.070,0.000,0.000,0.000
1644926789271625984,2022-02-15-12:06:29,10.1.1.7,28,-0.080,-0.080,-0.080,0.000,0.000,0.000
1644926789330507008,2022-02-15-12:06:29,10.1.1.7,38,-0.090,-0.090,-0.090,0.000,0.000,0.000
1644926789371170048,2022-02-15-12:06:29,10.1.1.7,27,-0.100,-0.100,-0.100,0.000,0.000,0.000
1644926789430778880,2022-02-15-12:06:29,10.1.1.7,36,-0.090,-0.090,-0.090,0.000,0.000,0.000
1644926789471225856,2022-02-15-12:06:29,10.1.1.7,25,-0.080,-0.080,-0.080,0.000,0.000,0.000
1644926789531155200,2022-02-15-12:06:29,10.1.1.7,33,-0.070,-0.070,-0.070,0.000,0.000,0.000
1644926789571192064,2022-02-15-12:06:29,10.1.1.7,22,-0.060,-0.060,-0.060,0.000,0.000,0.000
1644926789630786048,2022-02-15-12:06:29,10.1.1.7,32,-0.050,-0.050,-0.050,0.000,0.000,0.000
1644926789671236864,2022-02-15-12:06:29,10.1.1.7,21,-0.040,-0.040,-0.040,0.000,0.000,0.000
1644926789730874112,2022-02-15-12:06:29,10.1.1.7,30,-0.030,-0.030,-0.030,0.000,0.000,0.000
1644926789771202048,2022-02-15-12:06:29,10.1.1.7,19,-0.020,-0.020,-0.020,0.000,0.000,0.000
1644926789831384064,2022-02-15-12:06:29,10.1.1.7,28,-0.010,-0.010,-0.010,0.000,0.000,0.000
1644926789891265024,2022-02-15-12:06:29,10.1.1.7,38,0.000,0.000,0.000,0.000,0.000,0.000
1644926789930915072,2022-02-15-12:06:29,10.1.1.7,27,0.010,0.010,0.010,0.000,0.000,0.000
1644926789990366976,2022-02-15-12:06:29,10.1.1.7,36,0.020,0.020,0.020,0.000,0.000,0.000
1644926790030787840,2022-02-15-12:06:30,10.1.1.7,26,0.030,0.030,0.030,0.000,0.000,0.000
1644926790090599936,2022-02-15-12:06:30,10.1.1.7,36,0.040,0.040,0.040,0.000,0.000,0.000
1644926790130326016,2022-02-15-12:06:30,10.1.1.7,25,0.050,0.050,0.050,0.000,0.000,0.000
1644926790190590976,2022-02-15-12:06:30,10.1.1.7,34,0.060,0.060,0.060,0.000,0.000,0.000
1644926790231121152,2022-02-15-12:06:30,10.1.1.7,24,0.070,0.070,0.070,0.000,0.000,0.000
1644926790290569984,2022-02-15-12:06:30,10.1.1.7,33,0.080,0.080,0.080,0.000,0.000,0.000
1644926790331224064,2022-02-15-12:06:30,10.1.1.7,22,0.090,0.090,0.090,0.000,0.000,0.000
1644926790391015168,2022-02-15-12:06:30,10.1.1.7,31,0.100,0.100,0.100,0.000,0.000,0.000
1644926790430584064,2022-02-15-12:06:30,10.1.1.7,21,0.090,0.090,0.090,0.000,0.000,0.000
1644926790491099136,2022-02-15-12:06:30,10.1.1.7,29,0.080,0.080,0.080,0.000,0.000,0.000
1644926790551116032,2022-02-15-12:06:30,10.1.1.7,38,0.070,0.070,0.070,0.000,0.000,0.000
1644926790591244032,2022-02-15-12:06:30,10.1.1.7,28,0.060,0.060,0.060,0.000,0.000,0.000
1644926790650654976,2022-02-15-12:06:30,10.1.1.7,37,0.050,0.050,0.050,0.000,0.000,0.000
1644926790690550016,2022-02-15-12:06:30,10.1.1.7,26,0.040,0.040,0.040,0.000,0.000,0.000
1644926790750899200,2022-02-15-12:06:30,10.1.1.7,34,0.030,0.030,0.030,0.000,0.000,0.000
1644926790790777856,2022-02-15-12:06:30,10.1.1.7,24,0.020,0.020,0.020,0.000,0.000,0.000
1644926790850562048,2022-02-15-12:06:30,10.1.1.7,33,0.010,0.010,0.010,0.000,0.000,0.000
1644926790891251968,2022-02-15-12:06:30,10.1.1.7,23,0.000,0.000,0.000,0.000,0.000,0.000
1644926790950781952,2022-02-15-12:06:30,10.1.1.7,32,-0.010,-0.010,-0.010,0.000,0.000,0.000
1644926790992028928,2022-02-15-12:06:30,10.1.1.7,22,-0.020,-0.020,-0.020,0.000,0.000,0.000
1644926791050867200,2022-02-15-12:06:31,10.1.1.7,32,-0.030,-0.030,-0.030,0.000,0.000,0.000
1644926791090630912,2022-02-15-12:06:31,10.1.1.7,22,-0.040,-0.040,-0.040,0.000,0.000,0.000
1644926791150425856,2022-02-15-12:06:31,10.1.1.7,31,-0.050,-0.050,-0.050,0.000,0.000,0.000
1644926791190861824,2022-02-15-12:06:31,10.1.1.7,20,-0.060,-0.060,-0.060,0.000,0.000,0.000
1644926791250281984,2022-02-15-12:06:31,10.1.1.7,30,-0.070,-0.070,-0.070,0.000,0.000,0.000
1644926791290795008,2022-02-15-12:06:31,10.1.1.7,19,-0.079,-0.079,-0.079,0.000,0.000,0.000
1644926791351002880,2022-02-15-12:06:31,10.1.1.7,28,-0.090,-0.090,-0.090,0.000,0.000,0.000
1644926791411089920,2022-02-15-12:06:31,10.1.1.7,38,-0.100,-0.100,-0.100,0.000,0.000,0.000
1644926791450598912,2022-02-15-12:06:31,10.1.1.7,28,-0.090,-0.090,-0.090,0.000,0.000,0.000
1644926791511350016,2022-02-15-12:06:31,10.1.1.7,37,-0.080,-0.080,-0.080,0.000,0.000,0.000
1644926791560712960,2022-02-15-12:06:31,10.1.1.7,26,-0.070,-0.070,-0.070,0.000,0.000,0.000
1644926791611119104,2022-02-15-12:06:31,10.1.1.7,35,-0.060,-0.060,-0.060,0.000,0.000,0.000
1644926791650789120,2022-02-15-12:06:31,10.1.1.7,24,-0.050,-0.050,-0.050,0.000,0.000,0.000
1644926791710684160,2022-02-15-12:06:31,10.1.1.7,33,-0.040,-0.040,-0.040,0.000,0.000,0.000
1644926791833019904,2022-02-15-12:06:31,10.1.1.7,38,-0.020,-0.020,-0.020,0.000,0.000,0.000
1644926791874684160,2022-02-15-12:06:31,10.1.1.7,27,-0.010,-0.010,-0.010,0.000,0.000,0.000
1644926792292957184,2022-02-15-12:06:32,10.1.1.7,36,0.070,0.070,0.070,0.000,0.000,0.000
1644926792339511040,2022-02-15-12:06:32,10.1.1.7,28,0.080,0.080,0.080,0.000,0.000,0.000
1644926792392760064,2022-02-15-12:06:32,10.1.1.7,30,0.090,0.090,0.090,0.000,0.000,0.000
1644926792437038848,2022-02-15-12:06:32,10.1.1.7,22,0.099,0.099,0.099,0.000,0.000,0.000
1644926792495689984,2022-02-15-12:06:32,10.1.1.7,26,0.090,0.090,0.090,0.000,0.000,0.000
1644926792561497088,2022-02-15-12:06:32,10.1.1.7,38,0.080,0.080,0.080,0.000,0.000,0.000
1644926792673078016,2022-02-15-12:06:32,10.1.1.7,41,0.060,0.060,0.060,0.000,0.000,0.000
1644926792716134144,2022-02-15-12:06:32,10.1.1.7,33,0.050,0.050,0.050,0.000,0.000,0.000
1644926792760011008,2022-02-15-12:06:32,10.1.1.7,20,0.040,0.040,0.040,0.000,0.000,0.000
1644926792874518016,2022-02-15-12:06:32,10.1.1.7,38,0.020,0.020,0.020,0.000,0.000,0.000
1644926792914488064,2022-02-15-12:06:32,10.1.1.7,25,0.010,0.010,0.010,0.000,0.000,0.000
1644926792973678080,2022-02-15-12:06:32,10.1.1.7,33,0.000,0.000,0.000,0.000,0.000,0.000
1644926793033472000,2022-02-15-12:06:33,10.1.1.7,26,-0.010,-0.010,-0.010,0.000,0.000,0.000
1644926793134908928,2022-02-15-12:06:33,10.1.1.7,39,-0.030,-0.030,-0.030,0.000,0.000,0.000
1644926793175635200,2022-02-15-12:06:33,10.1.1.7,27,-0.040,-0.040,-0.040,0.000,0.000,0.000
1644926793237550080,2022-02-15-12:06:33,10.1.1.7,38,-0.050,-0.050,-0.050,0.000,0.000,0.000
1644926793273585920,2022-02-15-12:06:33,10.1.1.7,24,-0.060,-0.060,-0.060,0.000,0.000,0.000
1644926793334544896,2022-02-15-12:06:33,10.1.1.7,33,-0.070,-0.070,-0.070,0.000,0.000,0.000
1644926793374020096,2022-02-15-12:06:33,10.1.1.7,22,-0.080,-0.080,-0.080,0.000,0.000,0.000
1644926793433469184,2022-02-15-12:06:33,10.1.1.7,30,-0.090,-0.090,-0.090,0.000,0.000,0.000
1644926793474298112,2022-02-15-12:06:33,10.1.1.7,20,-0.100,-0.100,-0.100,0.000,0.000,0.000
1644926793540646144,2022-02-15-12:06:33,10.1.1.7,30,-0.090,-0.090,-0.090,0.000,0.000,0.000
1644926793673902080,2022-02-15-12:06:33,10.1.1.7,38,-0.070,-0.070,-0.070,0.000,0.000,0.000
1644926793713181952,2022-02-15-12:06:33,10.1.1.7,27,-0.060,-0.060,-0.060,0.000,0.000,0.000
1644926793774619136,2022-02-15-12:06:33,10.1.1.7,37,-0.050,-0.050,-0.050,0.000,0.000,0.000
1644926793813905920,2022-02-15-12:06:33,10.1.1.7,25,-0.040,-0.040,-0.040,0.000,0.000,0.000
1644926793873116928,2022-02-15-12:06:33,10.1.1.7,35,-0.030,-0.030,-0.030,0.000,0.000,0.000
1644926793914638080,2022-02-15-12:06:33,10.1.1.7,20,-0.020,-0.020,-0.020,0.000,0.000,0.000
1644926793972507904,2022-02-15-12:06:33,10.1.1.7,29,-0.010,-0.010,-0.010,0.000,0.000,0.000
1644926794033648896,2022-02-15-12:06:34,10.1.1.7,31,0.000,0.000,0.000,0.000,0.000,0.000
1644926794074950912,2022-02-15-12:06:34,10.1.1.7,20,0.010,0.010,0.010,0.000,0.000,0.000
1644926794132772096,2022-02-15-12:06:34,10.1.1.7,29,0.020,0.020,0.020,0.000,0.000,0.000
1644926794193965056,2022-02-15-12:06:34,10.1.1.7,38,0.030,0.030,0.030,0.000,0.000,0.000
1644926794232676864,2022-02-15-12:06:34,10.1.1.7,27,0.040,0.040,0.040,0.000,0.000,0.000
1644926794294467840,2022-02-15-12:06:34,10.1.1.7,37,0.050,0.050,0.050,0.000,0.000,0.000
1644926794332678912,2022-02-15-12:06:34,10.1.1.7,25,0.060,0.060,0.060,0.000,0.000,0.000
1644926794393446912,2022-02-15-12:06:34,10.1.1.7,34,0.070,0.070,0.070,0.000,0.000,0.000
1644926794434718976,2022-02-15-12:06:34,10.1.1.7,22,0.080,0.080,0.080,0.000,0.000,0.000
1644926794493693952,2022-02-15-12:06:34,10.1.1.7,32,0.090,0.090,0.090,0.000,0.000,0.000
1644926794533607936,2022-02-15-12:06:34,10.1.1.7,21,0.100,0.100,0.100,0.000,0.000,0.000
1644926794592947968,2022-02-15-12:06:34,10.1.1.7,29,0.090,0.090,0.090,0.000,0.000,0.000
1644926794634518016,2022-02-15-12:06:34,10.1.1.7,19,0.081,0.081,0.081,0.000,0.000,0.000
1644926794695208192,2022-02-15-12:06:34,10.1.1.7,28,0.070,0.070,0.070,0.000,0.000,0.000
1644926794793526016,2022-02-15-12:06:34,10.1.1.7,24,0.050,0.050,0.050,0.000,0.000,0.000
1644926794853532160,2022-02-15-12:06:34,10.1.1.7,34,0.040,0.040,0.040,0.000,0.000,0.000
1644926794892997120,2022-02-15-12:06:34,10.1.1.7,22,0.030,0.030,0.030,0.000,0.000,0.000
1644926794952732928,2022-02-15-12:06:34,10.1.1.7,32,0.020,0.020,0.020,0.000,0.000,0.000
1644926794995901184,2022-02-15-12:06:34,10.1.1.7,20,0.010,0.010,0.010,0.000,0.000,0.000
1644926795053142016,2022-02-15-12:06:35,10.1.1.7,29,0.000,0.000,0.000,0.000,0.000,0.000
1644926795093499904,2022-02-15-12:06:35,10.1.1.7,19,-0.010,-0.010,-0.010,0.000,0.000,0.000
1644926795153048064,2022-02-15-12:06:35,10.1.1.7,28,-0.020,-0.020,-0.020,0.000,0.000,0.000
1644926795214824960,2022-02-15-12:06:35,10.1.1.7,38,-0.030,-0.030,-0.030,0.000,0.000,0.000
1644926795253154048,2022-02-15-12:06:35,10.1.1.7,27,-0.040,-0.040,-0.040,0.000,0.000,0.000
1644926795312835072,2022-02-15-12:06:35,10.1.1.7,36,-0.050,-0.050,-0.050,0.000,0.000,0.000
1644926795353890816,2022-02-15-12:06:35,10.1.1.7,26,-0.060,-0.060,-0.060,0.000,0.000,0.000
1644926795414135040,2022-02-15-12:06:35,10.1.1.7,34,-0.070,-0.070,-0.070,0.000,0.000,0.000
1644926795453974016,2022-02-15-12:06:35,10.1.1.7,23,-0.080,-0.080,-0.080,0.000,0.000,0.000
1644926795512967936,2022-02-15-12:06:35,10.1.1.7,32,-0.090,-0.090,-0.090,0.000,0.000,0.000
1644926795554265088,2022-02-15-12:06:35,10.1.1.7,22,-0.100,-0.100,-0.100,0.000,0.000,0.000
1644926795613089024,2022-02-15-12:06:35,10.1.1.7,31,-0.090,-0.090,-0.090,0.000,0.000,0.000
1644926795652648960,2022-02-15-12:06:35,10.1.1.7,20,-0.080,-0.080,-0.080,0.000,0.000,0.000
1644926795712801024,2022-02-15-12:06:35,10.1.1.7,29,-0.070,-0.070,-0.070,0.000,0.000,0.000
1644926795773684992,2022-02-15-12:06:35,10.1.1.7,38,-0.060,-0.060,-0.060,0.000,0.000,0.000
1644926795813371904,2022-02-15-12:06:35,10.1.1.7,25,-0.050,-0.050,-0.050,0.000,0.000,0.000
1644926795872626944,2022-02-15-12:06:35,10.1.1.7,35,-0.040,-0.040,-0.040,0.000,0.000,0.000
1644926795913161984,2022-02-15-12:06:35,10.1.1.7,24,-0.030,-0.030,-0.030,0.000,0.000,0.000
1644926795975598080,2022-02-15-12:06:35,10.1.1.7,35,-0.020,-0.020,-0.020,0.000,0.000,0.000
1644926796012985088,2022-02-15-12:06:36,10.1.1.7,22,-0.010,-0.010,-0.010,0.000,0.000,0.000
1644926796073053952,2022-02-15-12:06:36,10.1.1.7,31,0.000,0.000,0.000,0.000,0.000,0.000
1644926796113398016,2022-02-15-12:06:36,10.1.1.7,21,0.010,0.010,0.010,0.000,0.000,0.000
1644926796172726016,2022-02-15-12:06:36,10.1.1.7,31,0.020,0.020,0.020,0.000,0.000,0.000
1644926796213232896,2022-02-15-12:06:36,10.1.1.7,20,0.030,0.030,0.030,0.000,0.000,0.000
1644926796272834048,2022-02-15-12:06:36,10.1.1.7,29,0.040,0.040,0.040,0.000,0.000,0.000
1644926796315616000,2022-02-15-12:06:36,10.1.1.7,18,0.049,0.049,0.049,0.000,0.000,0.000
1644926796378585088,2022-02-15-12:06:36,10.1.1.7,28,0.060,0.060,0.060,0.000,0.000,0.000
1644926796432676096,2022-02-15-12:06:36,10.1.1.7,34,0.070,0.070,0.070,0.000,0.000,0.000
1644926796472732160,2022-02-15-12:06:36,10.1.1.7,23,0.080,0.080,0.080,0.000,0.000,0.000
1644926796532780800,2022-02-15-12:06:36,10.1.1.7,32,0.090,0.090,0.090,0.000,0.000,0.000
1644926796573362944,2022-02-15-12:06:36,10.1.1.7,21,0.100,0.100,0.100,0.000,0.000,0.000
1644926796633419008,2022-02-15-12:06:36,10.1.1.7,30,0.090,0.090,0.090,0.000,0.000,0.000
1644926796673313024,2022-02-15-12:06:36,10.1.1.7,19,0.081,0.081,0.081,0.000,0.000,0.000
1644926796732645888,2022-02-15-12:06:36,10.1.1.7,28,0.070,0.070,0.070,0.000,0.000,0.000
1644926796792498176,2022-02-15-12:06:36,10.1.1.7,37,0.060,0.060,0.060,0.000,0.000,0.000
1644926796832592896,2022-02-15-12:06:36,10.1.1.7,26,0.050,0.050,0.050,0.000,0.000,0.000
1644926796892822016,2022-02-15-12:06:36,10.1.1.7,33,0.040,0.040,0.040,0.000,0.000,0.000
1644926796933139968,2022-02-15-12:06:36,10.1.1.7,23,0.030,0.030,0.030,0.000,0.000,0.000
1644926796992499200,2022-02-15-12:06:36,10.1.1.7,31,0.020,0.020,0.020,0.000,0.000,0.000
1644926797032801024,2022-02-15-12:06:37,10.1.1.7,20,0.010,0.010,0.010,0.000,0.000,0.000
1644926797093584896,2022-02-15-12:06:37,10.1.1.7,30,0.000,0.000,0.000,0.000,0.000,0.000
1644926797133155072,2022-02-15-12:06:37,10.1.1.7,19,-0.009,-0.009,-0.009,0.000,0.000,0.000
1644926797193298944,2022-02-15-12:06:37,10.1.1.7,28,-0.020,-0.020,-0.020,0.000,0.000,0.000
1644926797254735104,2022-02-15-12:06:37,10.1.1.7,37,-0.030,-0.030,-0.030,0.000,0.000,0.000
1644926797294874880,2022-02-15-12:06:37,10.1.1.7,26,-0.040,-0.040,-0.040,0.000,0.000,0.000
1644926797354258944,2022-02-15-12:06:37,10.1.1.7,35,-0.050,-0.050,-0.050,0.000,0.000,0.000
1644926797392694016,2022-02-15-12:06:37,10.1.1.7,24,-0.060,-0.060,-0.060,0.000,0.000,0.000
1644926797453188864,2022-02-15-12:06:37,10.1.1.7,34,-0.070,-0.070,-0.070,0.000,0.000,0.000
1644926797493426944,2022-02-15-12:06:37,10.1.1.7,23,-0.080,-0.080,-0.080,0.000,0.000,0.000
1644926797552943104,2022-02-15-12:06:37,10.1.1.7,31,-0.090,-0.090,-0.090,0.000,0.000,0.000
1644926797592489984,2022-02-15-12:06:37,10.1.1.7,20,-0.100,-0.100,-0.100,0.000,0.000,0.000
1644926797652937984,2022-02-15-12:06:37,10.1.1.7,30,-0.090,-0.090,-0.090,0.000,0.000,0.000
1644926797692783104,2022-02-15-12:06:37,10.1.1.7,19,-0.081,-0.081,-0.081,0.000,0.000,0.000
1644926797754867968,2022-02-15-12:06:37,10.1.1.7,28,-0.070,-0.070,-0.070,0.000,0.000,0.000
1644926797813134080,2022-02-15-12:06:37,10.1.1.7,37,-0.060,-0.060,-0.060,0.000,0.000,0.000
1644926797853559040,2022-02-15-12:06:37,10.1.1.7,25,-0.050,-0.050,-0.050,0.000,0.000,0.000
1644926797912710912,2022-02-15-12:06:37,10.1.1.7,33,-0.040,-0.040,-0.040,0.000,0.000,0.000
1644926797953163008,2022-02-15-12:06:37,10.1.1.7,22,-0.030,-0.030,-0.030,0.000,0.000,0.000
1644926798012961024,2022-02-15-12:06:38,10.1.1.7,32,-0.020,-0.020,-0.020,0.000,0.000,0.000
1644926798053778944,2022-02-15-12:06:38,10.1.1.7,20,-0.010,-0.010,-0.010,0.000,0.000,0.000
1644926798112965120,2022-02-15-12:06:38,10.1.1.7,30,0.000,0.000,0.000,0.000,0.000,0.000
1644926798152476928,2022-02-15-12:06:38,10.1.1.7,19,0.010,0.010,0.010,0.000,0.000,0.000
1644926798214572032,2022-02-15-12:06:38,10.1.1.7,28,0.020,0.020,0.020,0.000,0.000,0.000
1644926798273401088,2022-02-15-12:06:38,10.1.1.7,37,0.030,0.030,0.030,0.000,0.000,0.000
1644926798314512896,2022-02-15-12:06:38,10.1.1.7,24,0.040,0.040,0.040,0.000,0.000,0.000
1644926798372952832,2022-02-15-12:06:38,10.1.1.7,32,0.050,0.050,0.050,0.000,0.000,0.000
1644926798412899072,2022-02-15-12:06:38,10.1.1.7,22,0.060,0.060,0.060,0.000,0.000,0.000
1644926798473270016,2022-02-15-12:06:38,10.1.1.7,31,0.070,0.070,0.070,0.000,0.000,0.000
1644926798512402176,2022-02-15-12:06:38,10.1.1.7,19,0.080,0.080,0.080,0.000,0.000,0.000
1644926798574352896,2022-02-15-12:06:38,10.1.1.7,29,0.090,0.090,0.090,0.000,0.000,0.000
1644926798633057024,2022-02-15-12:06:38,10.1.1.7,33,0.100,0.100,0.100,0.000,0.000,0.000
1644926798672792064,2022-02-15-12:06:38,10.1.1.7,23,0.090,0.090,0.090,0.000,0.000,0.000
1644926798732768000,2022-02-15-12:06:38,10.1.1.7,30,0.080,0.080,0.080,0.000,0.000,0.000
1644926798773144064,2022-02-15-12:06:38,10.1.1.7,18,0.070,0.070,0.070,0.000,0.000,0.000
1644926798832600064,2022-02-15-12:06:38,10.1.1.7,27,0.060,0.060,0.060,0.000,0.000,0.000
1644926798893481984,2022-02-15-12:06:38,10.1.1.7,37,0.050,0.050,0.050,0.000,0.000,0.000
1644926799001296128,2022-02-15-12:06:39,10.1.1.7,32,0.030,0.030,0.030,0.000,0.000,0.000
1644926799053376000,2022-02-15-12:06:39,10.1.1.7,34,0.020,0.020,0.020,0.000,0.000,0.000
1644926799093415936,2022-02-15-12:06:39,10.1.1.7,23,0.010,0.010,0.010,0.000,0.000,0.000
1644926799158839040,2022-02-15-12:06:39,10.1.1.7,35,0.000,0.000,0.000,0.000,0.000,0.000
1644926799193703936,2022-02-15-12:06:39,10.1.1.7,21,-0.010,-0.010,-0.010,0.000,0.000,0.000
1644926799334641920,2022-02-15-12:06:39,10.1.1.7,22,-0.030,-0.030,-0.030,0.000,0.000,0.000
1644926799394910208,2022-02-15-12:06:39,10.1.1.7,31,-0.040,-0.040,-0.040,0.000,0.000,0.000
1644926799433063936,2022-02-15-12:06:39,10.1.1.7,20,-0.050,-0.050,-0.050,0.000,0.000,0.000
1644926799495309056,2022-02-15-12:06:39,10.1.1.7,30,-0.060,-0.060,-0.060,0.000,0.000,0.000
1644926799533113856,2022-02-15-12:06:39,10.1.1.7,19,-0.070,-0.070,-0.070,0.000,0.000,0.000
1644926799594313984,2022-02-15-12:06:39,10.1.1.7,27,-0.080,-0.080,-0.080,0.000,0.000,0.000
1644926799654203904,2022-02-15-12:06:39,10.1.1.7,36,-0.090,-0.090,-0.090,0.000,0.000,0.000
1644926799693101056,2022-02-15-12:06:39,10.1.1.7,24,-0.100,-0.100,-0.100,0.000,0.000,0.000
1644926799753103872,2022-02-15-12:06:39,10.1.1.7,33,-0.090,-0.090,-0.090,0.000,0.000,0.000
1644926799793242880,2022-02-15-12:06:39,10.1.1.7,22,-0.080,-0.080,-0.080,0.000,0.000,0.000
1644926799854072064,2022-02-15-12:06:39,10.1.1.7,31,-0.070,-0.070,-0.070,0.000,0.000,0.000
1644926799894587136,2022-02-15-12:06:39,10.1.1.7,21,-0.060,-0.060,-0.060,0.000,0.000,0.000
1644926799954430976,2022-02-15-12:06:39,10.1.1.7,30,-0.050,-0.050,-0.050,0.000,0.000,0.000
1644926799992883968,2022-02-15-12:06:39,10.1.1.7,19,-0.040,-0.040,-0.040,0.000,0.000,0.000
1644926800055079936,2022-02-15-12:06:40,10.1.1.7,27,-0.030,-0.030,-0.030,0.000,0.000,0.000
1644926800114162944,2022-02-15-12:06:40,10.1.1.7,36,-0.020,-0.020,-0.020,0.000,0.000,0.000
1644926800154233088,2022-02-15-12:06:40,10.1.1.7,24,-0.010,-0.010,-0.010,0.000,0.000,0.000
1644926800214832896,2022-02-15-12:06:40,10.1.1.7,33,0.000,0.000,0.000,0.000,0.000,0.000
1644926800255080960,2022-02-15-12:06:40,10.1.1.7,22,0.010,0.010,0.010,0.000,0.000,0.000
1644926800314667008,2022-02-15-12:06:40,10.1.1.7,31,0.020,0.020,0.020,0.000,0.000,0.000
1644926800372908032,2022-02-15-12:06:40,10.1.1.7,36,0.030,0.030,0.030,0.000,0.000,0.000
1644926800414586112,2022-02-15-12:06:40,10.1.1.7,25,0.040,0.040,0.040,0.000,0.000,0.000
1644926800473915136,2022-02-15-12:06:40,10.1.1.7,35,0.050,0.050,0.050,0.000,0.000,0.000
1644926800512724992,2022-02-15-12:06:40,10.1.1.7,24,0.060,0.060,0.060,0.000,0.000,0.000
1644926800572894976,2022-02-15-12:06:40,10.1.1.7,30,0.070,0.070,0.070,0.000,0.000,0.000
1644926800614451968,2022-02-15-12:06:40,10.1.1.7,19,0.080,0.080,0.080,0.000,0.000,0.000
1644926800674998016,2022-02-15-12:06:40,10.1.1.7,28,0.090,0.090,0.090,0.000,0.000,0.000
1644926800734568960,2022-02-15-12:06:40,10.1.1.7,38,0.100,0.100,0.100,0.000,0.000,0.000
1644926800778411008,2022-02-15-12:06:40,10.1.1.7,22,0.090,0.090,0.090,0.000,0.000,0.000
1644926800835241984,2022-02-15-12:06:40,10.1.1.7,27,0.080,0.080,0.080,0.000,0.000,0.000
1644926800972865024,2022-02-15-12:06:40,10.1.1.7,38,0.060,0.060,0.060,0.000,0.000,0.000
1644926801013550080,2022-02-15-12:06:41,10.1.1.7,27,0.050,0.050,0.050,0.000,0.000,0.000
1644926801074009856,2022-02-15-12:06:41,10.1.1.7,36,0.040,0.040,0.040,0.000,0.000,0.000
1644926801115293952,2022-02-15-12:06:41,10.1.1.7,26,0.030,0.030,0.030,0.000,0.000,0.000
1644926801173368064,2022-02-15-12:06:41,10.1.1.7,35,0.020,0.020,0.020,0.000,0.000,0.000
1644926801214435072,2022-02-15-12:06:41,10.1.1.7,24,0.010,0.010,0.010,0.000,0.000,0.000
1644926801273873152,2022-02-15-12:06:41,10.1.1.7,34,0.000,0.000,0.000,0.000,0.000,0.000
1644926801314519040,2022-02-15-12:06:41,10.1.1.7,23,-0.010,-0.010,-0.010,0.000,0.000,0.000
1644926801385690880,2022-02-15-12:06:41,10.1.1.7,31,-0.020,-0.020,-0.020,0.000,0.000,0.000
1644926801413811968,2022-02-15-12:06:41,10.1.1.7,20,-0.030,-0.030,-0.030,0.000,0.000,0.000
1644926801474921984,2022-02-15-12:06:41,10.1.1.7,30,-0.040,-0.040,-0.040,0.000,0.000,0.000
1644926801513283072,2022-02-15-12:06:41,10.1.1.7,19,-0.049,-0.049,-0.049,0.000,0.000,0.000
1644926801652900864,2022-02-15-12:06:41,10.1.1.7,38,-0.070,-0.070,-0.070,0.000,0.000,0.000
1644926801695429120,2022-02-15-12:06:41,10.1.1.7,27,-0.080,-0.080,-0.080,0.000,0.000,0.000
1644926801753601024,2022-02-15-12:06:41,10.1.1.7,36,-0.090,-0.090,-0.090,0.000,0.000,0.000
1644926801794017024,2022-02-15-12:06:41,10.1.1.7,26,-0.100,-0.100,-0.100,0.000,0.000,0.000
1644926801855539968,2022-02-15-12:06:41,10.1.1.7,34,-0.090,-0.090,-0.090,0.000,0.000,0.000
1644926801894882816,2022-02-15-12:06:41,10.1.1.7,24,-0.080,-0.080,-0.080,0.000,0.000,0.000
1644926801953868032,2022-02-15-12:06:41,10.1.1.7,32,-0.070,-0.070,-0.070,0.000,0.000,0.000
1644926801993812992,2022-02-15-12:06:41,10.1.1.7,19,-0.060,-0.060,-0.060,0.000,0.000,0.000
1644926802056098048,2022-02-15-12:06:42,10.1.1.7,28,-0.050,-0.050,-0.050,0.000,0.000,0.000
1644926802114459136,2022-02-15-12:06:42,10.1.1.7,37,-0.040,-0.040,-0.040,0.000,0.000,0.000
1644926802156626944,2022-02-15-12:06:42,10.1.1.7,26,-0.030,-0.030,-0.030,0.000,0.000,0.000
1644926802213344000,2022-02-15-12:06:42,10.1.1.7,32,-0.020,-0.020,-0.020,0.000,0.000,0.000
1644926802253950976,2022-02-15-12:06:42,10.1.1.7,20,-0.010,-0.010,-0.010,0.000,0.000,0.000
1644926802314614016,2022-02-15-12:06:42,10.1.1.7,29,0.000,0.000,0.000,0.000,0.000,0.000
1644926802374913024,2022-02-15-12:06:42,10.1.1.7,37,0.010,0.010,0.010,0.000,0.000,0.000
1644926802433590016,2022-02-15-12:06:42,10.1.1.7,34,0.020,0.020,0.020,0.000,0.000,0.000
1644926802500463872,2022-02-15-12:06:42,10.1.1.7,38,0.030,0.030,0.030,0.000,0.000,0.000
1644926802533026048,2022-02-15-12:06:42,10.1.1.7,26,0.040,0.040,0.040,0.000,0.000,0.000
1644926802554601984,2022-02-15-12:06:42,10.1.1.7,-6,0.040,0.040,0.040,0.000,0.000,0.000
1644926802634738944,2022-02-15-12:06:42,10.1.1.7,24,0.060,0.060,0.060,0.000,0.000,0.000
1644926802694930176,2022-02-15-12:06:42,10.1.1.7,32,0.070,0.070,0.070,0.000,0.000,0.000
1644926802733325056,2022-02-15-12:06:42,10.1.1.7,20,0.080,0.080,0.080,0.000,0.000,0.000
1644926802794408192,2022-02-15-12:06:42,10.1.1.7,30,0.090,0.090,0.090,0.000,0.000,0.000
1644926802853936896,2022-02-15-12:06:42,10.1.1.7,38,0.100,0.100,0.100,0.000,0.000,0.000
1644926802895337984,2022-02-15-12:06:42,10.1.1.7,27,0.090,0.090,0.090,0.000,0.000,0.000
1644926802956796928,2022-02-15-12:06:42,10.1.1.7,32,0.080,0.080,0.080,0.000,0.000,0.000
1644926802993371136,2022-02-15-12:06:42,10.1.1.7,22,0.070,0.070,0.070,0.000,0.000,0.000
1644926803060832000,2022-02-15-12:06:43,10.1.1.7,32,0.060,0.060,0.060,0.000,0.000,0.000
1644926803095202816,2022-02-15-12:06:43,10.1.1.7,18,0.051,0.051,0.051,0.000,0.000,0.000
1644926803154260992,2022-02-15-12:06:43,10.1.1.7,28,0.040,0.040,0.040,0.000,0.000,0.000
1644926803214289920,2022-02-15-12:06:43,10.1.1.7,37,0.030,0.030,0.030,0.000,0.000,0.000
1644926803253788928,2022-02-15-12:06:43,10.1.1.7,26,0.020,0.020,0.020,0.000,0.000,0.000
1644926803353880832,2022-02-15-12:06:43,10.1.1.7,19,0.010,0.010,0.010,0.000,0.000,0.000
1644926803415724032,2022-02-15-12:06:43,10.1.1.7,28,0.000,0.000,0.000,0.000,0.000,0.000
1644926803474451968,2022-02-15-12:06:43,10.1.1.7,37,-0.010,-0.010,-0.010,0.000,0.000,0.000
1644926803514501120,2022-02-15-12:06:43,10.1.1.7,26,-0.020,-0.020,-0.020,0.000,0.000,0.000
1644926803575141888,2022-02-15-12:06:43,10.1.1.7,35,-0.030,-0.030,-0.030,0.000,0.000,0.000
1644926803613966848,2022-02-15-12:06:43,10.1.1.7,24,-0.040,-0.040,-0.040,0.000,0.000,0.000
1644926803673907968,2022-02-15-12:06:43,10.1.1.7,34,-0.050,-0.050,-0.050,0.000,0.000,0.000
1644926803713270784,2022-02-15-12:06:43,10.1.1.7,23,-0.060,-0.060,-0.060,0.000,0.000,0.000
1644926803774193920,2022-02-15-12:06:43,10.1.1.7,33,-0.070,-0.070,-0.070,0.000,0.000,0.000
1644926803814855936,2022-02-15-12:06:43,10.1.1.7,22,-0.080,-0.080,-0.080,0.000,0.000,0.000
1644926803874725120,2022-02-15-12:06:43,10.1.1.7,32,-0.090,-0.090,-0.090,0.000,0.000,0.000
1644926803915431936,2022-02-15-12:06:43,10.1.1.7,20,-0.100,-0.100,-0.100,0.000,0.000,0.000
1644926803974744064,2022-02-15-12:06:43,10.1.1.7,30,-0.090,-0.090,-0.090,0.000,0.000,0.000
1644926804035425792,2022-02-15-12:06:44,10.1.1.7,38,-0.080,-0.080,-0.080,0.000,0.000,0.000
1644926804074955008,2022-02-15-12:06:44,10.1.1.7,27,-0.070,-0.070,-0.070,0.000,0.000,0.000
1644926804133266944,2022-02-15-12:06:44,10.1.1.7,36,-0.060,-0.060,-0.060,0.000,0.000,0.000
1644926804176561152,2022-02-15-12:06:44,10.1.1.7,20,-0.050,-0.050,-0.050,0.000,0.000,0.000
1644926804232997888,2022-02-15-12:06:44,10.1.1.7,29,-0.040,-0.040,-0.040,0.000,0.000,0.000
1644926804294800128,2022-02-15-12:06:44,10.1.1.7,38,-0.030,-0.030,-0.030,0.000,0.000,0.000
1644926804332786176,2022-02-15-12:06:44,10.1.1.7,27,-0.020,-0.020,-0.020,0.000,0.000,0.000
1644926804395083008,2022-02-15-12:06:44,10.1.1.7,35,-0.010,-0.010,-0.010,0.000,0.000,0.000
1644926804433042176,2022-02-15-12:06:44,10.1.1.7,24,0.000,0.000,0.000,0.000,0.000,0.000
1644926804494329088,2022-02-15-12:06:44,10.1.1.7,34,0.010,0.010,0.010,0.000,0.000,0.000
1644926804533935104,2022-02-15-12:06:44,10.1.1.7,22,0.020,0.020,0.020,0.000,0.000,0.000
1644926804592710912,2022-02-15-12:06:44,10.1.1.7,31,0.030,0.030,0.030,0.000,0.000,0.000
1644926804634764032,2022-02-15-12:06:44,10.1.1.7,19,0.039,0.039,0.039,0.000,0.000,0.000
1644926804714405888,2022-02-15-12:06:44,10.1.1.7,38,0.050,0.050,0.050,0.000,0.000,0.000
1644926804755091968,2022-02-15-12:06:44,10.1.1.7,24,0.060,0.060,0.060,0.000,0.000,0.000
1644926804813319936,2022-02-15-12:06:44,10.1.1.7,33,0.070,0.070,0.070,0.000,0.000,0.000
1644926804854928896,2022-02-15-12:06:44,10.1.1.7,22,0.080,0.080,0.080,0.000,0.000,0.000
1644926804915271936,2022-02-15-12:06:44,10.1.1.7,31,0.090,0.090,0.090,0.000,0.000,0.000
1644926804973180928,2022-02-15-12:06:44,10.1.1.7,37,0.100,0.100,0.100,0.000,0.000,0.000
1644926805016661760,2022-02-15-12:06:45,10.1.1.7,25,0.090,0.090,0.090,0.000,0.000,0.000
1644926805075653120,2022-02-15-12:06:45,10.1.1.7,34,0.080,0.080,0.080,0.000,0.000,0.000
1644926805113239040,2022-02-15-12:06:45,10.1.1.7,23,0.070,0.070,0.070,0.000,0.000,0.000
1644926805234870016,2022-02-15-12:06:45,10.1.1.7,32,0.050,0.050,0.050,0.000,0.000,0.000
1644926805275009024,2022-02-15-12:06:45,10.1.1.7,20,0.040,0.040,0.040,0.000,0.000,0.000
1644926805334355968,2022-02-15-12:06:45,10.1.1.7,28,0.030,0.030,0.030,0.000,0.000,0.000
1644926805396417024,2022-02-15-12:06:45,10.1.1.7,37,0.020,0.020,0.020,0.000,0.000,0.000
1644926805435916032,2022-02-15-12:06:45,10.1.1.7,27,0.010,0.010,0.010,0.000,0.000,0.000
1644926805494513152,2022-02-15-12:06:45,10.1.1.7,36,0.000,0.000,0.000,0.000,0.000,0.000
1644926805532915968,2022-02-15-12:06:45,10.1.1.7,25,-0.010,-0.010,-0.010,0.000,0.000,0.000
1644926805595885056,2022-02-15-12:06:45,10.1.1.7,33,-0.020,-0.020,-0.020,0.000,0.000,0.000
1644926805633944064,2022-02-15-12:06:45,10.1.1.7,22,-0.030,-0.030,-0.030,0.000,0.000,0.000
1644926805707129088,2022-02-15-12:06:45,10.1.1.7,32,-0.040,-0.040,-0.040,0.000,0.000,0.000
1644926805752662784,2022-02-15-12:06:45,10.1.1.7,29,-0.050,-0.050,-0.050,0.000,0.000,0.000
1644926805815936000,2022-02-15-12:06:45,10.1.1.7,38,-0.060,-0.060,-0.060,0.000,0.000,0.000
1644926805854248960,2022-02-15-12:06:45,10.1.1.7,28,-0.070,-0.070,-0.070,0.000,0.000,0.000
1644926805913032960,2022-02-15-12:06:45,10.1.1.7,38,-0.080,-0.080,-0.080,0.000,0.000,0.000
1644926805993463040,2022-02-15-12:06:45,10.1.1.7,37,-0.090,-0.090,-0.090,0.000,0.000,0.000
1644926806033387776,2022-02-15-12:06:46,10.1.1.7,26,-0.100,-0.100,-0.100,0.000,0.000,0.000
1644926806093041920,2022-02-15-12:06:46,10.1.1.7,36,-0.090,-0.090,-0.090,0.000,0.000,0.000
1644926806133318912,2022-02-15-12:06:46,10.1.1.7,25,-0.080,-0.080,-0.080,0.000,0.000,0.000
1644926806194219008,2022-02-15-12:06:46,10.1.1.7,34,-0.070,-0.070,-0.070,0.000,0.000,0.000
1644926806233944064,2022-02-15-12:06:46,10.1.1.7,23,-0.060,-0.060,-0.060,0.000,0.000,0.000
1644926806293474048,2022-02-15-12:06:46,10.1.1.7,32,-0.050,-0.050,-0.050,0.000,0.000,0.000
1644926806333039104,2022-02-15-12:06:46,10.1.1.7,21,-0.040,-0.040,-0.040,0.000,0.000,0.000
1644926806393995008,2022-02-15-12:06:46,10.1.1.7,31,-0.030,-0.030,-0.030,0.000,0.000,0.000
1644926806432760064,2022-02-15-12:06:46,10.1.1.7,20,-0.020,-0.020,-0.020,0.000,0.000,0.000
1644926806493176064,2022-02-15-12:06:46,10.1.1.7,30,-0.010,-0.010,-0.010,0.000,0.000,0.000
1644926806554488064,2022-02-15-12:06:46,10.1.1.7,38,0.000,0.000,0.000,0.000,0.000,0.000
1644926806592974848,2022-02-15-12:06:46,10.1.1.7,28,0.010,0.010,0.010,0.000,0.000,0.000
1644926806653892096,2022-02-15-12:06:46,10.1.1.7,37,0.020,0.020,0.020,0.000,0.000,0.000
1644926806693272064,2022-02-15-12:06:46,10.1.1.7,26,0.030,0.030,0.030,0.000,0.000,0.000
1644926806754556928,2022-02-15-12:06:46,10.1.1.7,35,0.040,0.040,0.040,0.000,0.000,0.000
1644926806794171136,2022-02-15-12:06:46,10.1.1.7,24,0.050,0.050,0.050,0.000,0.000,0.000
1644926806853522944,2022-02-15-12:06:46,10.1.1.7,33,0.060,0.060,0.060,0.000,0.000,0.000
1644926806893681152,2022-02-15-12:06:46,10.1.1.7,22,0.070,0.070,0.070,0.000,0.000,0.000
1644926806953754880,2022-02-15-12:06:46,10.1.1.7,32,0.080,0.080,0.080,0.000,0.000,0.000
1644926806993447936,2022-02-15-12:06:46,10.1.1.7,21,0.090,0.090,0.090,0.000,0.000,0.000
1644926807052852992,2022-02-15-12:06:47,10.1.1.7,31,0.100,0.100,0.100,0.000,0.000,0.000
1644926807094050048,2022-02-15-12:06:47,10.1.1.7,20,0.090,0.090,0.090,0.000,0.000,0.000
1644926807154365184,2022-02-15-12:06:47,10.1.1.7,30,0.080,0.080,0.080,0.000,0.000,0.000
1644926807215388928,2022-02-15-12:06:47,10.1.1.7,38,0.070,0.070,0.070,0.000,0.000,0.000
1644926807257981952,2022-02-15-12:06:47,10.1.1.7,27,0.060,0.060,0.060,0.000,0.000,0.000
1644926807313056000,2022-02-15-12:06:47,10.1.1.7,33,0.050,0.050,0.050,0.000,0.000,0.000
1644926807353008896,2022-02-15-12:06:47,10.1.1.7,22,0.040,0.040,0.040,0.000,0.000,0.000
1644926807413374976,2022-02-15-12:06:47,10.1.1.7,31,0.030,0.030,0.030,0.000,0.000,0.000
1644926807452784128,2022-02-15-12:06:47,10.1.1.7,20,0.020,0.020,0.020,0.000,0.000,0.000
1644926807512557056,2022-02-15-12:06:47,10.1.1.7,28,0.010,0.010,0.010,0.000,0.000,0.000
1644926807572731904,2022-02-15-12:06:47,10.1.1.7,37,0.000,0.000,0.000,0.000,0.000,0.000
1644926807612723200,2022-02-15-12:06:47,10.1.1.7,26,-0.010,-0.010,-0.010,0.000,0.000,0.000
1644926807673238016,2022-02-15-12:06:47,10.1.1.7,35,-0.020,-0.020,-0.020,0.000,0.000,0.000
1644926807712864000,2022-02-15-12:06:47,10.1.1.7,24,-0.030,-0.030,-0.030,0.000,0.000,0.000
1644926807772908032,2022-02-15-12:06:47,10.1.1.7,33,-0.040,-0.040,-0.040,0.000,0.000,0.000
1644926807813911808,2022-02-15-12:06:47,10.1.1.7,22,-0.050,-0.050,-0.050,0.000,0.000,0.000
1644926807872869120,2022-02-15-12:06:47,10.1.1.7,31,-0.060,-0.060,-0.060,0.000,0.000,0.000
1644926807916273152,2022-02-15-12:06:47,10.1.1.7,20,-0.070,-0.070,-0.070,0.000,0.000,0.000
1644926807972696064,2022-02-15-12:06:47,10.1.1.7,28,-0.080,-0.080,-0.080,0.000,0.000,0.000
1644926808032942080,2022-02-15-12:06:48,10.1.1.7,37,-0.090,-0.090,-0.090,0.000,0.000,0.000
1644926808073321216,2022-02-15-12:06:48,10.1.1.7,26,-0.100,-0.100,-0.100,0.000,0.000,0.000
1644926808133649152,2022-02-15-12:06:48,10.1.1.7,35,-0.090,-0.090,-0.090,0.000,0.000,0.000
1644926808192559104,2022-02-15-12:06:48,10.1.1.7,37,-0.080,-0.080,-0.080,0.000,0.000,0.000
1644926808233442048,2022-02-15-12:06:48,10.1.1.7,26,-0.070,-0.070,-0.070,0.000,0.000,0.000
1644926808292905984,2022-02-15-12:06:48,10.1.1.7,34,-0.060,-0.060,-0.060,0.000,0.000,0.000
1644926808333692928,2022-02-15-12:06:48,10.1.1.7,20,-0.050,-0.050,-0.050,0.000,0.000,0.000
1644926808393925888,2022-02-15-12:06:48,10.1.1.7,30,-0.040,-0.040,-0.040,0.000,0.000,0.000
1644926808454784000,2022-02-15-12:06:48,10.1.1.7,38,-0.030,-0.030,-0.030,0.000,0.000,0.000
1644926808495544832,2022-02-15-12:06:48,10.1.1.7,24,-0.020,-0.020,-0.020,0.000,0.000,0.000
1644926808554411008,2022-02-15-12:06:48,10.1.1.7,32,-0.010,-0.010,-0.010,0.000,0.000,0.000
1644926808593154816,2022-02-15-12:06:48,10.1.1.7,20,0.000,0.000,0.000,0.000,0.000,0.000
1644926808653952000,2022-02-15-12:06:48,10.1.1.7,30,0.010,0.010,0.010,0.000,0.000,0.000
1644926808712916992,2022-02-15-12:06:48,10.1.1.7,39,0.020,0.020,0.020,0.000,0.000,0.000
1644926808753849088,2022-02-15-12:06:48,10.1.1.7,28,0.030,0.030,0.030,0.000,0.000,0.000
1644926808814842880,2022-02-15-12:06:48,10.1.1.7,38,0.040,0.040,0.040,0.000,0.000,0.000
1644926808853046016,2022-02-15-12:06:48,10.1.1.7,26,0.050,0.050,0.050,0.000,0.000,0.000
1644926808913294080,2022-02-15-12:06:48,10.1.1.7,35,0.060,0.060,0.060,0.000,0.000,0.000
1644926808954340096,2022-02-15-12:06:48,10.1.1.7,23,0.070,0.070,0.070,0.000,0.000,0.000
1644926809014595072,2022-02-15-12:06:49,10.1.1.7,30,0.080,0.080,0.080,0.000,0.000,0.000
1644926809054408192,2022-02-15-12:06:49,10.1.1.7,20,0.090,0.090,0.090,0.000,0.000,0.000
1644926809113306112,2022-02-15-12:06:49,10.1.1.7,30,0.100,0.100,0.100,0.000,0.000,0.000
1644926809154764800,2022-02-15-12:06:49,10.1.1.7,19,0.091,0.091,0.091,0.000,0.000,0.000
1644926809214951936,2022-02-15-12:06:49,10.1.1.7,27,0.080,0.080,0.080,0.000,0.000,0.000
1644926809273794048,2022-02-15-12:06:49,10.1.1.7,37,0.070,0.070,0.070,0.000,0.000,0.000
1644926809313508096,2022-02-15-12:06:49,10.1.1.7,26,0.060,0.060,0.060,0.000,0.000,0.000
1644926809375034112,2022-02-15-12:06:49,10.1.1.7,36,0.050,0.050,0.050,0.000,0.000,0.000
1644926809412677888,2022-02-15-12:06:49,10.1.1.7,21,0.040,0.040,0.040,0.000,0.000,0.000
1644926809474167040,2022-02-15-12:06:49,10.1.1.7,31,0.030,0.030,0.030,0.000,0.000,0.000
1644926809513078016,2022-02-15-12:06:49,10.1.1.7,20,0.020,0.020,0.020,0.000,0.000,0.000
1644926809573005056,2022-02-15-12:06:49,10.1.1.7,28,0.010,0.010,0.010,0.000,0.000,0.000
1644926809634974976,2022-02-15-12:06:49,10.1.1.7,37,0.000,0.000,0.000,0.000,0.000,0.000
1644926809673184000,2022-02-15-12:06:49,10.1.1.7,24,-0.010,-0.010,-0.010,0.000,0.000,0.000
1644926809733764864,2022-02-15-12:06:49,10.1.1.7,28,-0.020,-0.020,-0.020,0.000,0.000,0.000
1644926809795049984,2022-02-15-12:06:49,10.1.1.7,36,-0.030,-0.030,-0.030,0.000,0.000,0.000
1644926809838291968,2022-02-15-12:06:49,10.1.1.7,24,-0.040,-0.040,-0.040,0.000,0.000,0.000
1644926809893168896,2022-02-15-12:06:49,10.1.1.7,33,-0.050,-0.050,-0.050,0.000,0.000,0.000
1644926809940948992,2022-02-15-12:06:49,10.1.1.7,22,-0.060,-0.060,-0.060,0.000,0.000,0.000
1644926809992966912,2022-02-15-12:06:49,10.1.1.7,31,-0.070,-0.070,-0.070,0.000,0.000,0.000
1644926810034221056,2022-02-15-12:06:50,10.1.1.7,20,-0.080,-0.080,-0.080,0.000,0.000,0.000
1644926810094518016,2022-02-15-12:06:50,10.1.1.7,30,-0.090,-0.090,-0.090,0.000,0.000,0.000
1644926810133431808,2022-02-15-12:06:50,10.1.1.7,20,-0.100,-0.100,-0.100,0.000,0.000,0.000
1644926810192930816,2022-02-15-12:06:50,10.1.1.7,29,-0.090,-0.090,-0.090,0.000,0.000,0.000
1644926810253638912,2022-02-15-12:06:50,10.1.1.7,38,-0.080,-0.080,-0.080,0.000,0.000,0.000
1644926810299048960,2022-02-15-12:06:50,10.1.1.7,27,-0.070,-0.070,-0.070,0.000,0.000,0.000
1644926810353174016,2022-02-15-12:06:50,10.1.1.7,37,-0.060,-0.060,-0.060,0.000,0.000,0.000
1644926810393368832,2022-02-15-12:06:50,10.1.1.7,26,-0.050,-0.050,-0.050,0.000,0.000,0.000
1644926810455441920,2022-02-15-12:06:50,10.1.1.7,33,-0.040,-0.040,-0.040,0.000,0.000,0.000
1644926810493131008,2022-02-15-12:06:50,10.1.1.7,22,-0.030,-0.030,-0.030,0.000,0.000,0.000
1644926810553106176,2022-02-15-12:06:50,10.1.1.7,24,-0.020,-0.020,-0.020,0.000,0.000,0.000
1644926810614242048,2022-02-15-12:06:50,10.1.1.7,34,-0.010,-0.010,-0.010,0.000,0.000,0.000
1644926810654917120,2022-02-15-12:06:50,10.1.1.7,23,0.000,0.000,0.000,0.000,0.000,0.000
1644926810714020096,2022-02-15-12:06:50,10.1.1.7,33,0.010,0.010,0.010,0.000,0.000,0.000
1644926810756444928,2022-02-15-12:06:50,10.1.1.7,22,0.020,0.020,0.020,0.000,0.000,0.000
1644926810814976000,2022-02-15-12:06:50,10.1.1.7,30,0.030,0.030,0.030,0.000,0.000,0.000
1644926810854237184,2022-02-15-12:06:50,10.1.1.7,20,0.040,0.040,0.040,0.000,0.000,0.000
1644926810914673920,2022-02-15-12:06:50,10.1.1.7,30,0.050,0.050,0.050,0.000,0.000,0.000
1644926810957200896,2022-02-15-12:06:50,10.1.1.7,19,0.060,0.060,0.060,0.000,0.000,0.000
1644926811014592000,2022-02-15-12:06:51,10.1.1.7,29,0.070,0.070,0.070,0.000,0.000,0.000
1644926811077516032,2022-02-15-12:06:51,10.1.1.7,38,0.080,0.080,0.080,0.000,0.000,0.000
1644926811116060928,2022-02-15-12:06:51,10.1.1.7,27,0.090,0.090,0.090,0.000,0.000,0.000
1644926811174232832,2022-02-15-12:06:51,10.1.1.7,34,0.100,0.100,0.100,0.000,0.000,0.000
1644926811213882880,2022-02-15-12:06:51,10.1.1.7,23,0.090,0.090,0.090,0.000,0.000,0.000
1644926811273953024,2022-02-15-12:06:51,10.1.1.7,32,0.080,0.080,0.080,0.000,0.000,0.000
1644926811314637056,2022-02-15-12:06:51,10.1.1.7,22,0.070,0.070,0.070,0.000,0.000,0.000
1644926811373120000,2022-02-15-12:06:51,10.1.1.7,31,0.060,0.060,0.060,0.000,0.000,0.000
1644926811534307840,2022-02-15-12:06:51,10.1.1.7,39,0.030,0.030,0.030,0.000,0.000,0.000
1644926811574949888,2022-02-15-12:06:51,10.1.1.7,29,0.020,0.020,0.020,0.000,0.000,0.000
1644926811635217920,2022-02-15-12:06:51,10.1.1.7,38,0.010,0.010,0.010,0.000,0.000,0.000
1644926811753711104,2022-02-15-12:06:51,10.1.1.7,30,-0.010,-0.010,-0.010,0.000,0.000,0.000
1644926811793103872,2022-02-15-12:06:51,10.1.1.7,19,-0.019,-0.019,-0.019,0.000,0.000,0.000
1644926811853629184,2022-02-15-12:06:51,10.1.1.7,28,-0.030,-0.030,-0.030,0.000,0.000,0.000
1644926811913307904,2022-02-15-12:06:51,10.1.1.7,38,-0.040,-0.040,-0.040,0.000,0.000,0.000
1644926811953048832,2022-02-15-12:06:51,10.1.1.7,27,-0.050,-0.050,-0.050,0.000,0.000,0.000
1644926812014592768,2022-02-15-12:06:52,10.1.1.7,33,-0.060,-0.060,-0.060,0.000,0.000,0.000
1644926812066222080,2022-02-15-12:06:52,10.1.1.7,21,-0.070,-0.070,-0.070,0.000,0.000,0.000
1644926812114605056,2022-02-15-12:06:52,10.1.1.7,30,-0.080,-0.080,-0.080,0.000,0.000,0.000
1644926812153500928,2022-02-15-12:06:52,10.1.1.7,20,-0.090,-0.090,-0.090,0.000,0.000,0.000
1644926812213046016,2022-02-15-12:06:52,10.1.1.7,30,-0.100,-0.100,-0.100,0.000,0.000,0.000
1644926812254547200,2022-02-15-12:06:52,10.1.1.7,19,-0.090,-0.090,-0.090,0.000,0.000,0.000
1644926812315938048,2022-02-15-12:06:52,10.1.1.7,29,-0.080,-0.080,-0.080,0.000,0.000,0.000
1644926812375545856,2022-02-15-12:06:52,10.1.1.7,38,-0.070,-0.070,-0.070,0.000,0.000,0.000
1644926812415641088,2022-02-15-12:06:52,10.1.1.7,28,-0.060,-0.060,-0.060,0.000,0.000,0.000
1644926812476572928,2022-02-15-12:06:52,10.1.1.7,37,-0.050,-0.050,-0.050,0.000,0.000,0.000
1644926812513127168,2022-02-15-12:06:52,10.1.1.7,27,-0.040,-0.040,-0.040,0.000,0.000,0.000
1644926812573901056,2022-02-15-12:06:52,10.1.1.7,35,-0.030,-0.030,-0.030,0.000,0.000,0.000
1644926812612672000,2022-02-15-12:06:52,10.1.1.7,23,-0.020,-0.020,-0.020,0.000,0.000,0.000
1644926812673392896,2022-02-15-12:06:52,10.1.1.7,33,-0.010,-0.010,-0.010,0.000,0.000,0.000
1644926812712804096,2022-02-15-12:06:52,10.1.1.7,22,0.000,0.000,0.000,0.000,0.000,0.000
1644926812774235136,2022-02-15-12:06:52,10.1.1.7,31,0.010,0.010,0.010,0.000,0.000,0.000
1644926812813836032,2022-02-15-12:06:52,10.1.1.7,20,0.020,0.020,0.020,0.000,0.000,0.000
1644926812874834944,2022-02-15-12:06:52,10.1.1.7,30,0.030,0.030,0.030,0.000,0.000,0.000
1644926812912731904,2022-02-15-12:06:52,10.1.1.7,19,0.040,0.040,0.040,0.000,0.000,0.000
1644926812973309952,2022-02-15-12:06:52,10.1.1.7,29,0.050,0.050,0.050,0.000,0.000,0.000
1644926813032891904,2022-02-15-12:06:53,10.1.1.7,38,0.060,0.060,0.060,0.000,0.000,0.000
1644926813072824064,2022-02-15-12:06:53,10.1.1.7,27,0.070,0.070,0.070,0.000,0.000,0.000
1644926813134296832,2022-02-15-12:06:53,10.1.1.7,37,0.080,0.080,0.080,0.000,0.000,0.000
1644926813173097984,2022-02-15-12:06:53,10.1.1.7,26,0.090,0.090,0.090,0.000,0.000,0.000
1644926813233239808,2022-02-15-12:06:53,10.1.1.7,35,0.100,0.100,0.100,0.000,0.000,0.000
1644926813272864000,2022-02-15-12:06:53,10.1.1.7,24,0.090,0.090,0.090,0.000,0.000,0.000
1644926813334600960,2022-02-15-12:06:53,10.1.1.7,33,0.080,0.080,0.080,0.000,0.000,0.000
1644926813375760128,2022-02-15-12:06:53,10.1.1.7,23,0.070,0.070,0.070,0.000,0.000,0.000
1644926813434812928,2022-02-15-12:06:53,10.1.1.7,32,0.060,0.060,0.060,0.000,0.000,0.000
1644926813495101952,2022-02-15-12:06:53,10.1.1.7,38,0.050,0.050,0.050,0.000,0.000,0.000
1644926813533377024,2022-02-15-12:06:53,10.1.1.7,25,0.040,0.040,0.040,0.000,0.000,0.000
1644926813593564160,2022-02-15-12:06:53,10.1.1.7,35,0.030,0.030,0.030,0.000,0.000,0.000
1644926813634243072,2022-02-15-12:06:53,10.1.1.7,24,0.020,0.020,0.020,0.000,0.000,0.000
1644926813694227968,2022-02-15-12:06:53,10.1.1.7,34,0.010,0.010,0.010,0.000,0.000,0.000
1644926813733167872,2022-02-15-12:06:53,10.1.1.7,23,0.000,0.000,0.000,0.000,0.000,0.000
1644926813793626112,2022-02-15-12:06:53,10.1.1.7,32,-0.010,-0.010,-0.010,0.000,0.000,0.000
1644926813833206784,2022-02-15-12:06:53,10.1.1.7,22,-0.020,-0.020,-0.020,0.000,0.000,0.000
1644926813895066880,2022-02-15-12:06:53,10.1.1.7,31,-0.030,-0.030,-0.030,0.000,0.000,0.000
1644926813933597184,2022-02-15-12:06:53,10.1.1.7,20,-0.040,-0.040,-0.040,0.000,0.000,0.000
1644926813992919040,2022-02-15-12:06:53,10.1.1.7,30,-0.050,-0.050,-0.050,0.000,0.000,0.000
1644926814037136128,2022-02-15-12:06:54,10.1.1.7,22,-0.059,-0.059,-0.059,0.000,0.000,0.000
1644926814094554880,2022-02-15-12:06:54,10.1.1.7,28,-0.070,-0.070,-0.070,0.000,0.000,0.000
1644926814253192960,2022-02-15-12:06:54,10.1.1.7,32,-0.090,-0.090,-0.090,0.000,0.000,0.000
1644926814293474048,2022-02-15-12:06:54,10.1.1.7,21,-0.100,-0.100,-0.100,0.000,0.000,0.000
1644926814353172992,2022-02-15-12:06:54,10.1.1.7,30,-0.090,-0.090,-0.090,0.000,0.000,0.000
1644926814393296128,2022-02-15-12:06:54,10.1.1.7,19,-0.080,-0.080,-0.080,0.000,0.000,0.000
1644926814453298176,2022-02-15-12:06:54,10.1.1.7,28,-0.070,-0.070,-0.070,0.000,0.000,0.000
1644926814513480960,2022-02-15-12:06:54,10.1.1.7,38,-0.060,-0.060,-0.060,0.000,0.000,0.000
1644926814553338112,2022-02-15-12:06:54,10.1.1.7,25,-0.050,-0.050,-0.050,0.000,0.000,0.000
1644926814673263104,2022-02-15-12:06:54,10.1.1.7,34,-0.030,-0.030,-0.030,0.000,0.000,0.000
1644926814712891136,2022-02-15-12:06:54,10.1.1.7,24,-0.020,-0.020,-0.020,0.000,0.000,0.000
1644926814773221888,2022-02-15-12:06:54,10.1.1.7,33,-0.010,-0.010,-0.010,0.000,0.000,0.000
1644926814814577152,2022-02-15-12:06:54,10.1.1.7,22,0.000,0.000,0.000,0.000,0.000,0.000
1644926814873291008,2022-02-15-12:06:54,10.1.1.7,31,0.010,0.010,0.010,0.000,0.000,0.000
1644926814915518976,2022-02-15-12:06:54,10.1.1.7,21,0.020,0.020,0.020,0.000,0.000,0.000
1644926814973204992,2022-02-15-12:06:54,10.1.1.7,30,0.030,0.030,0.030,0.000,0.000,0.000
1644926815012701952,2022-02-15-12:06:55,10.1.1.7,20,0.040,0.040,0.040,0.000,0.000,0.000
1644926815073353984,2022-02-15-12:06:55,10.1.1.7,30,0.050,0.050,0.050,0.000,0.000,0.000
