FedericoMungari/DigitalTwin_service/01_WiredScenario/Output/Output_script/script_rosapi_2_output_robots8_freq0_7.txt
timestamp,date,node,latency,joint_1,joint_2,joint_3,joint_4,joint_5,joint_6
1643293132091911936,2022-01-27-14:18:52,10.1.1.8,19,-0.010,-0.010,-0.010,0.000,0.000,0.000
1643293132291974912,2022-01-27-14:18:52,10.1.1.8,19,-0.020,-0.020,-0.020,0.000,0.000,0.000
1643293132492430080,2022-01-27-14:18:52,10.1.1.8,19,-0.030,-0.030,-0.030,0.000,0.000,0.000
1643293132712733952,2022-01-27-14:18:52,10.1.1.8,38,-0.041,-0.041,-0.041,0.000,0.000,0.000
1643293132911936000,2022-01-27-14:18:52,10.1.1.8,36,-0.051,-0.051,-0.051,0.000,0.000,0.000
1643293133112977920,2022-01-27-14:18:53,10.1.1.8,35,-0.061,-0.061,-0.061,0.000,0.000,0.000
1643293133313474816,2022-01-27-14:18:53,10.1.1.8,34,-0.071,-0.071,-0.071,0.000,0.000,0.000
1643293133512550144,2022-01-27-14:18:53,10.1.1.8,33,-0.081,-0.081,-0.081,0.000,0.000,0.000
1643293133712318976,2022-01-27-14:18:53,10.1.1.8,32,-0.091,-0.091,-0.091,0.000,0.000,0.000
1643293133912090112,2022-01-27-14:18:53,10.1.1.8,31,-0.101,-0.101,-0.101,0.000,0.000,0.000
1643293134118524160,2022-01-27-14:18:54,10.1.1.8,36,-0.111,-0.111,-0.111,0.000,0.000,0.000
1643293134312732928,2022-01-27-14:18:54,10.1.1.8,29,-0.121,-0.121,-0.121,0.000,0.000,0.000
1643293134512082176,2022-01-27-14:18:54,10.1.1.8,23,-0.130,-0.130,-0.130,0.000,0.000,0.000
1643293134713742848,2022-01-27-14:18:54,10.1.1.8,24,-0.140,-0.140,-0.140,0.000,0.000,0.000
1643293134915813888,2022-01-27-14:18:54,10.1.1.8,25,-0.150,-0.150,-0.150,0.000,0.000,0.000
1643293135122257920,2022-01-27-14:18:55,10.1.1.8,28,-0.160,-0.160,-0.160,0.000,0.000,0.000
1643293135332107008,2022-01-27-14:18:55,10.1.1.8,33,-0.171,-0.171,-0.171,0.000,0.000,0.000
1643293135521863936,2022-01-27-14:18:55,10.1.1.8,22,-0.180,-0.180,-0.180,0.000,0.000,0.000
1643293135722978048,2022-01-27-14:18:55,10.1.1.8,20,-0.190,-0.190,-0.190,0.000,0.000,0.000
1643293135952560896,2022-01-27-14:18:55,10.1.1.8,46,-0.201,-0.201,-0.201,0.000,0.000,0.000
1643293136132198144,2022-01-27-14:18:56,10.1.1.8,25,-0.210,-0.210,-0.210,0.000,0.000,0.000
1643293136332581120,2022-01-27-14:18:56,10.1.1.8,24,-0.220,-0.220,-0.220,0.000,0.000,0.000
1643293136552587008,2022-01-27-14:18:56,10.1.1.8,43,-0.231,-0.231,-0.231,0.000,0.000,0.000
1643293136732861952,2022-01-27-14:18:56,10.1.1.8,22,-0.240,-0.240,-0.240,0.000,0.000,0.000
1643293136932094976,2022-01-27-14:18:56,10.1.1.8,20,-0.250,-0.250,-0.250,0.000,0.000,0.000
1643293137133220864,2022-01-27-14:18:57,10.1.1.8,20,-0.260,-0.260,-0.260,0.000,0.000,0.000
1643293137352282880,2022-01-27-14:18:57,10.1.1.8,38,-0.271,-0.271,-0.271,0.000,0.000,0.000
1643293137553319936,2022-01-27-14:18:57,10.1.1.8,38,-0.281,-0.281,-0.281,0.000,0.000,0.000
1643293137752185088,2022-01-27-14:18:57,10.1.1.8,34,-0.291,-0.291,-0.291,0.000,0.000,0.000
1643293137952604160,2022-01-27-14:18:57,10.1.1.8,34,-0.301,-0.301,-0.301,0.000,0.000,0.000
1643293138146630912,2022-01-27-14:18:58,10.1.1.8,28,-0.310,-0.310,-0.310,0.000,0.000,0.000
1643293138352087040,2022-01-27-14:18:58,10.1.1.8,32,-0.321,-0.321,-0.321,0.000,0.000,0.000
1643293138553355008,2022-01-27-14:18:58,10.1.1.8,32,-0.331,-0.331,-0.331,0.000,0.000,0.000
1643293138752742912,2022-01-27-14:18:58,10.1.1.8,29,-0.341,-0.341,-0.341,0.000,0.000,0.000
1643293138952207104,2022-01-27-14:18:58,10.1.1.8,27,-0.350,-0.350,-0.350,0.000,0.000,0.000
1643293139153193984,2022-01-27-14:18:59,10.1.1.8,26,-0.360,-0.360,-0.360,0.000,0.000,0.000
1643293139355820032,2022-01-27-14:18:59,10.1.1.8,27,-0.370,-0.370,-0.370,0.000,0.000,0.000
1643293139552207104,2022-01-27-14:18:59,10.1.1.8,24,-0.380,-0.380,-0.380,0.000,0.000,0.000
1643293139752233984,2022-01-27-14:18:59,10.1.1.8,24,-0.390,-0.390,-0.390,0.000,0.000,0.000
1643293139952142080,2022-01-27-14:18:59,10.1.1.8,23,-0.400,-0.400,-0.400,0.000,0.000,0.000
1643293140171716864,2022-01-27-14:19:00,10.1.1.8,41,-0.411,-0.411,-0.411,0.000,0.000,0.000
1643293140352413952,2022-01-27-14:19:00,10.1.1.8,21,-0.420,-0.420,-0.420,0.000,0.000,0.000
1643293140551936000,2022-01-27-14:19:00,10.1.1.8,19,-0.430,-0.430,-0.430,0.000,0.000,0.000
1643293140771734016,2022-01-27-14:19:00,10.1.1.8,38,-0.441,-0.441,-0.441,0.000,0.000,0.000
1643293140971566848,2022-01-27-14:19:00,10.1.1.8,36,-0.451,-0.451,-0.451,0.000,0.000,0.000
1643293141171662080,2022-01-27-14:19:01,10.1.1.8,36,-0.461,-0.461,-0.461,0.000,0.000,0.000
1643293141371869952,2022-01-27-14:19:01,10.1.1.8,35,-0.471,-0.471,-0.471,0.000,0.000,0.000
1643293141572292096,2022-01-27-14:19:01,10.1.1.8,35,-0.481,-0.481,-0.481,0.000,0.000,0.000
1643293141753597952,2022-01-27-14:19:01,10.1.1.8,16,-0.490,-0.490,-0.490,0.000,0.000,0.000
1643293141972188928,2022-01-27-14:19:01,10.1.1.8,34,-0.479,-0.479,-0.479,0.000,0.000,0.000
1643293142162926848,2022-01-27-14:19:02,10.1.1.8,24,-0.470,-0.470,-0.470,0.000,0.000,0.000
1643293142371910144,2022-01-27-14:19:02,10.1.1.8,31,-0.459,-0.459,-0.459,0.000,0.000,0.000
1643293142592848128,2022-01-27-14:19:02,10.1.1.8,52,-0.448,-0.448,-0.448,0.000,0.000,0.000
1643293142772869120,2022-01-27-14:19:02,10.1.1.8,31,-0.439,-0.439,-0.439,0.000,0.000,0.000
1643293142971812096,2022-01-27-14:19:02,10.1.1.8,26,-0.430,-0.430,-0.430,0.000,0.000,0.000
1643293143172049920,2022-01-27-14:19:03,10.1.1.8,26,-0.420,-0.420,-0.420,0.000,0.000,0.000
1643293143389883136,2022-01-27-14:19:03,10.1.1.8,43,-0.409,-0.409,-0.409,0.000,0.000,0.000
1643293143591870976,2022-01-27-14:19:03,10.1.1.8,44,-0.399,-0.399,-0.399,0.000,0.000,0.000
1643293143771859968,2022-01-27-14:19:03,10.1.1.8,23,-0.390,-0.390,-0.390,0.000,0.000,0.000
1643293143971960064,2022-01-27-14:19:03,10.1.1.8,21,-0.380,-0.380,-0.380,0.000,0.000,0.000
1643293144192935936,2022-01-27-14:19:04,10.1.1.8,41,-0.369,-0.369,-0.369,0.000,0.000,0.000
1643293144392474880,2022-01-27-14:19:04,10.1.1.8,40,-0.359,-0.359,-0.359,0.000,0.000,0.000
1643293144591929856,2022-01-27-14:19:04,10.1.1.8,38,-0.349,-0.349,-0.349,0.000,0.000,0.000
1643293144771662080,2022-01-27-14:19:04,10.1.1.8,18,-0.340,-0.340,-0.340,0.000,0.000,0.000
1643293144991535872,2022-01-27-14:19:04,10.1.1.8,37,-0.329,-0.329,-0.329,0.000,0.000,0.000
1643293145192517120,2022-01-27-14:19:05,10.1.1.8,37,-0.319,-0.319,-0.319,0.000,0.000,0.000
1643293145392026880,2022-01-27-14:19:05,10.1.1.8,36,-0.309,-0.309,-0.309,0.000,0.000,0.000
1643293145591916032,2022-01-27-14:19:05,10.1.1.8,35,-0.299,-0.299,-0.299,0.000,0.000,0.000
1643293145781993984,2022-01-27-14:19:05,10.1.1.8,24,-0.290,-0.290,-0.290,0.000,0.000,0.000
1643293145992242944,2022-01-27-14:19:05,10.1.1.8,33,-0.279,-0.279,-0.279,0.000,0.000,0.000
1643293146192238080,2022-01-27-14:19:06,10.1.1.8,32,-0.269,-0.269,-0.269,0.000,0.000,0.000
1643293146392384000,2022-01-27-14:19:06,10.1.1.8,29,-0.259,-0.259,-0.259,0.000,0.000,0.000
1643293146592290048,2022-01-27-14:19:06,10.1.1.8,28,-0.250,-0.250,-0.250,0.000,0.000,0.000
1643293146791901952,2022-01-27-14:19:06,10.1.1.8,25,-0.240,-0.240,-0.240,0.000,0.000,0.000
1643293146992285952,2022-01-27-14:19:06,10.1.1.8,25,-0.230,-0.230,-0.230,0.000,0.000,0.000
1643293147199820032,2022-01-27-14:19:07,10.1.1.8,27,-0.220,-0.220,-0.220,0.000,0.000,0.000
1643293147412482048,2022-01-27-14:19:07,10.1.1.8,43,-0.209,-0.209,-0.209,0.000,0.000,0.000
1643293147612321024,2022-01-27-14:19:07,10.1.1.8,42,-0.199,-0.199,-0.199,0.000,0.000,0.000
1643293147792062976,2022-01-27-14:19:07,10.1.1.8,21,-0.190,-0.190,-0.190,0.000,0.000,0.000
1643293147992582144,2022-01-27-14:19:07,10.1.1.8,21,-0.180,-0.180,-0.180,0.000,0.000,0.000
1643293148192615936,2022-01-27-14:19:08,10.1.1.8,19,-0.170,-0.170,-0.170,0.000,0.000,0.000
1643293148393016064,2022-01-27-14:19:08,10.1.1.8,19,-0.160,-0.160,-0.160,0.000,0.000,0.000
1643293148612078848,2022-01-27-14:19:08,10.1.1.8,37,-0.149,-0.149,-0.149,0.000,0.000,0.000
1643293148812414976,2022-01-27-14:19:08,10.1.1.8,36,-0.139,-0.139,-0.139,0.000,0.000,0.000
1643293149012634880,2022-01-27-14:19:09,10.1.1.8,36,-0.129,-0.129,-0.129,0.000,0.000,0.000
1643293149212450048,2022-01-27-14:19:09,10.1.1.8,35,-0.119,-0.119,-0.119,0.000,0.000,0.000
1643293149412357120,2022-01-27-14:19:09,10.1.1.8,34,-0.109,-0.109,-0.109,0.000,0.000,0.000
1643293149612165888,2022-01-27-14:19:09,10.1.1.8,30,-0.099,-0.099,-0.099,0.000,0.000,0.000
1643293149813267968,2022-01-27-14:19:09,10.1.1.8,30,-0.089,-0.089,-0.089,0.000,0.000,0.000
1643293150022306816,2022-01-27-14:19:10,10.1.1.8,36,-0.080,-0.080,-0.080,0.000,0.000,0.000
1643293150231906048,2022-01-27-14:19:10,10.1.1.8,32,-0.069,-0.069,-0.069,0.000,0.000,0.000
1643293150432178944,2022-01-27-14:19:10,10.1.1.8,32,-0.059,-0.059,-0.059,0.000,0.000,0.000
1643293150632144896,2022-01-27-14:19:10,10.1.1.8,32,-0.049,-0.049,-0.049,0.000,0.000,0.000
1643293150832305920,2022-01-27-14:19:10,10.1.1.8,31,-0.039,-0.039,-0.039,0.000,0.000,0.000
1643293151031964928,2022-01-27-14:19:11,10.1.1.8,30,-0.029,-0.029,-0.029,0.000,0.000,0.000
1643293151232704000,2022-01-27-14:19:11,10.1.1.8,30,-0.019,-0.019,-0.019,0.000,0.000,0.000
1643293151431934208,2022-01-27-14:19:11,10.1.1.8,29,-0.009,-0.009,-0.009,0.000,0.000,0.000
1643293151613624064,2022-01-27-14:19:11,10.1.1.8,9,-0.000,-0.000,-0.000,0.000,0.000,0.000
1643293151832066048,2022-01-27-14:19:11,10.1.1.8,26,-0.010,-0.010,-0.010,0.000,0.000,0.000
1643293152032617216,2022-01-27-14:19:12,10.1.1.8,25,-0.020,-0.020,-0.020,0.000,0.000,0.000
1643293152235899904,2022-01-27-14:19:12,10.1.1.8,28,-0.030,-0.030,-0.030,0.000,0.000,0.000
1643293152432177920,2022-01-27-14:19:12,10.1.1.8,23,-0.040,-0.040,-0.040,0.000,0.000,0.000
1643293152632534016,2022-01-27-14:19:12,10.1.1.8,23,-0.050,-0.050,-0.050,0.000,0.000,0.000
1643293152863234048,2022-01-27-14:19:12,10.1.1.8,41,-0.061,-0.061,-0.061,0.000,0.000,0.000
1643293153045811968,2022-01-27-14:19:13,10.1.1.8,23,-0.070,-0.070,-0.070,0.000,0.000,0.000
1643293153272209920,2022-01-27-14:19:13,10.1.1.8,49,-0.081,-0.081,-0.081,0.000,0.000,0.000
1643293153455322112,2022-01-27-14:19:13,10.1.1.8,31,-0.090,-0.090,-0.090,0.000,0.000,0.000
1643293153646032128,2022-01-27-14:19:13,10.1.1.8,21,-0.100,-0.100,-0.100,0.000,0.000,0.000
1643293153863264000,2022-01-27-14:19:13,10.1.1.8,35,-0.111,-0.111,-0.111,0.000,0.000,0.000
1643293154084954112,2022-01-27-14:19:14,10.1.1.8,56,-0.121,-0.121,-0.121,0.000,0.000,0.000
1643293154272886016,2022-01-27-14:19:14,10.1.1.8,43,-0.130,-0.130,-0.130,0.000,0.000,0.000
1643293154473142016,2022-01-27-14:19:14,10.1.1.8,42,-0.141,-0.141,-0.141,0.000,0.000,0.000
1643293154666085888,2022-01-27-14:19:14,10.1.1.8,34,-0.150,-0.150,-0.150,0.000,0.000,0.000
1643293154863190016,2022-01-27-14:19:14,10.1.1.8,30,-0.161,-0.161,-0.161,0.000,0.000,0.000
1643293155051899904,2022-01-27-14:19:15,10.1.1.8,17,-0.170,-0.170,-0.170,0.000,0.000,0.000
1643293155262788096,2022-01-27-14:19:15,10.1.1.8,27,-0.180,-0.180,-0.180,0.000,0.000,0.000
1643293155464603904,2022-01-27-14:19:15,10.1.1.8,28,-0.190,-0.190,-0.190,0.000,0.000,0.000
1643293155672087808,2022-01-27-14:19:15,10.1.1.8,35,-0.201,-0.201,-0.201,0.000,0.000,0.000
1643293155862447872,2022-01-27-14:19:15,10.1.1.8,25,-0.210,-0.210,-0.210,0.000,0.000,0.000
1643293156072071168,2022-01-27-14:19:16,10.1.1.8,34,-0.221,-0.221,-0.221,0.000,0.000,0.000
1643293156292124928,2022-01-27-14:19:16,10.1.1.8,51,-0.232,-0.232,-0.232,0.000,0.000,0.000
1643293156482678016,2022-01-27-14:19:16,10.1.1.8,39,-0.241,-0.241,-0.241,0.000,0.000,0.000
1643293156672313856,2022-01-27-14:19:16,10.1.1.8,28,-0.250,-0.250,-0.250,0.000,0.000,0.000
1643293156872101120,2022-01-27-14:19:16,10.1.1.8,27,-0.260,-0.260,-0.260,0.000,0.000,0.000
1643293157092442880,2022-01-27-14:19:17,10.1.1.8,46,-0.271,-0.271,-0.271,0.000,0.000,0.000
1643293157292659968,2022-01-27-14:19:17,10.1.1.8,45,-0.281,-0.281,-0.281,0.000,0.000,0.000
1643293157492140032,2022-01-27-14:19:17,10.1.1.8,44,-0.291,-0.291,-0.291,0.000,0.000,0.000
1643293157693079040,2022-01-27-14:19:17,10.1.1.8,45,-0.301,-0.301,-0.301,0.000,0.000,0.000
1643293157871779072,2022-01-27-14:19:17,10.1.1.8,23,-0.310,-0.310,-0.310,0.000,0.000,0.000
1643293158071804928,2022-01-27-14:19:18,10.1.1.8,22,-0.320,-0.320,-0.320,0.000,0.000,0.000
1643293158272013056,2022-01-27-14:19:18,10.1.1.8,22,-0.330,-0.330,-0.330,0.000,0.000,0.000
1643293158471746816,2022-01-27-14:19:18,10.1.1.8,21,-0.340,-0.340,-0.340,0.000,0.000,0.000
1643293158692944896,2022-01-27-14:19:18,10.1.1.8,41,-0.351,-0.351,-0.351,0.000,0.000,0.000
1643293158872180992,2022-01-27-14:19:18,10.1.1.8,18,-0.360,-0.360,-0.360,0.000,0.000,0.000
1643293159111661824,2022-01-27-14:19:19,10.1.1.8,50,-0.371,-0.371,-0.371,0.000,0.000,0.000
1643293159292187904,2022-01-27-14:19:19,10.1.1.8,30,-0.380,-0.380,-0.380,0.000,0.000,0.000
1643293159493370112,2022-01-27-14:19:19,10.1.1.8,30,-0.391,-0.391,-0.391,0.000,0.000,0.000
1643293159692096000,2022-01-27-14:19:19,10.1.1.8,28,-0.401,-0.401,-0.401,0.000,0.000,0.000
1643293159892187136,2022-01-27-14:19:19,10.1.1.8,26,-0.410,-0.410,-0.410,0.000,0.000,0.000
1643293160091659008,2022-01-27-14:19:20,10.1.1.8,25,-0.420,-0.420,-0.420,0.000,0.000,0.000
1643293160291969024,2022-01-27-14:19:20,10.1.1.8,25,-0.430,-0.430,-0.430,0.000,0.000,0.000
1643293160492759040,2022-01-27-14:19:20,10.1.1.8,25,-0.440,-0.440,-0.440,0.000,0.000,0.000
1643293160691836160,2022-01-27-14:19:20,10.1.1.8,23,-0.450,-0.450,-0.450,0.000,0.000,0.000
1643293160911865088,2022-01-27-14:19:20,10.1.1.8,43,-0.461,-0.461,-0.461,0.000,0.000,0.000
1643293161092075008,2022-01-27-14:19:21,10.1.1.8,23,-0.470,-0.470,-0.470,0.000,0.000,0.000
1643293161305305088,2022-01-27-14:19:21,10.1.1.8,35,-0.481,-0.481,-0.481,0.000,0.000,0.000
1643293161471862016,2022-01-27-14:19:21,10.1.1.8,1,-0.489,-0.489,-0.489,0.000,0.000,0.000
1643293161705287936,2022-01-27-14:19:21,10.1.1.8,34,-0.479,-0.479,-0.479,0.000,0.000,0.000
1643293161892059136,2022-01-27-14:19:21,10.1.1.8,21,-0.470,-0.470,-0.470,0.000,0.000,0.000
1643293162093750016,2022-01-27-14:19:22,10.1.1.8,21,-0.460,-0.460,-0.460,0.000,0.000,0.000
1643293162291937024,2022-01-27-14:19:22,10.1.1.8,19,-0.450,-0.450,-0.450,0.000,0.000,0.000
1643293162511596032,2022-01-27-14:19:22,10.1.1.8,38,-0.439,-0.439,-0.439,0.000,0.000,0.000
1643293162691567872,2022-01-27-14:19:22,10.1.1.8,18,-0.430,-0.430,-0.430,0.000,0.000,0.000
1643293162911559168,2022-01-27-14:19:22,10.1.1.8,37,-0.419,-0.419,-0.419,0.000,0.000,0.000
1643293163091954944,2022-01-27-14:19:23,10.1.1.8,17,-0.410,-0.410,-0.410,0.000,0.000,0.000
1643293163312100864,2022-01-27-14:19:23,10.1.1.8,37,-0.399,-0.399,-0.399,0.000,0.000,0.000
1643293163512244992,2022-01-27-14:19:23,10.1.1.8,36,-0.389,-0.389,-0.389,0.000,0.000,0.000
1643293163702068992,2022-01-27-14:19:23,10.1.1.8,24,-0.380,-0.380,-0.380,0.000,0.000,0.000
1643293163912296960,2022-01-27-14:19:23,10.1.1.8,34,-0.369,-0.369,-0.369,0.000,0.000,0.000
1643293164112307968,2022-01-27-14:19:24,10.1.1.8,34,-0.359,-0.359,-0.359,0.000,0.000,0.000
1643293164312321792,2022-01-27-14:19:24,10.1.1.8,33,-0.349,-0.349,-0.349,0.000,0.000,0.000
1643293164512499200,2022-01-27-14:19:24,10.1.1.8,32,-0.339,-0.339,-0.339,0.000,0.000,0.000
1643293164711949056,2022-01-27-14:19:24,10.1.1.8,31,-0.330,-0.330,-0.330,0.000,0.000,0.000
1643293164912167936,2022-01-27-14:19:24,10.1.1.8,31,-0.319,-0.319,-0.319,0.000,0.000,0.000
1643293165111782912,2022-01-27-14:19:25,10.1.1.8,28,-0.309,-0.309,-0.309,0.000,0.000,0.000
1643293165311968000,2022-01-27-14:19:25,10.1.1.8,27,-0.300,-0.300,-0.300,0.000,0.000,0.000
1643293165512098048,2022-01-27-14:19:25,10.1.1.8,26,-0.290,-0.290,-0.290,0.000,0.000,0.000
1643293165712267008,2022-01-27-14:19:25,10.1.1.8,25,-0.280,-0.280,-0.280,0.000,0.000,0.000
1643293165912336128,2022-01-27-14:19:25,10.1.1.8,24,-0.270,-0.270,-0.270,0.000,0.000,0.000
1643293166114344960,2022-01-27-14:19:26,10.1.1.8,24,-0.260,-0.260,-0.260,0.000,0.000,0.000
1643293166312750080,2022-01-27-14:19:26,10.1.1.8,22,-0.250,-0.250,-0.250,0.000,0.000,0.000
1643293166516192000,2022-01-27-14:19:26,10.1.1.8,24,-0.240,-0.240,-0.240,0.000,0.000,0.000
1643293166731739904,2022-01-27-14:19:26,10.1.1.8,39,-0.229,-0.229,-0.229,0.000,0.000,0.000
1643293166912355840,2022-01-27-14:19:26,10.1.1.8,18,-0.220,-0.220,-0.220,0.000,0.000,0.000
1643293167112242944,2022-01-27-14:19:27,10.1.1.8,18,-0.210,-0.210,-0.210,0.000,0.000,0.000
1643293167332498176,2022-01-27-14:19:27,10.1.1.8,38,-0.199,-0.199,-0.199,0.000,0.000,0.000
1643293167532259072,2022-01-27-14:19:27,10.1.1.8,36,-0.189,-0.189,-0.189,0.000,0.000,0.000
1643293167732386048,2022-01-27-14:19:27,10.1.1.8,36,-0.179,-0.179,-0.179,0.000,0.000,0.000
1643293167941224192,2022-01-27-14:19:27,10.1.1.8,44,-0.169,-0.169,-0.169,0.000,0.000,0.000
1643293168132219136,2022-01-27-14:19:28,10.1.1.8,35,-0.159,-0.159,-0.159,0.000,0.000,0.000
1643293168332073984,2022-01-27-14:19:28,10.1.1.8,34,-0.149,-0.149,-0.149,0.000,0.000,0.000
1643293168532572928,2022-01-27-14:19:28,10.1.1.8,34,-0.139,-0.139,-0.139,0.000,0.000,0.000
1643293168732222976,2022-01-27-14:19:28,10.1.1.8,32,-0.129,-0.129,-0.129,0.000,0.000,0.000
1643293168932264192,2022-01-27-14:19:28,10.1.1.8,32,-0.119,-0.119,-0.119,0.000,0.000,0.000
1643293169131820800,2022-01-27-14:19:29,10.1.1.8,31,-0.109,-0.109,-0.109,0.000,0.000,0.000
1643293169332262144,2022-01-27-14:19:29,10.1.1.8,31,-0.099,-0.099,-0.099,0.000,0.000,0.000
1643293169532625920,2022-01-27-14:19:29,10.1.1.8,30,-0.089,-0.089,-0.089,0.000,0.000,0.000
1643293169732644096,2022-01-27-14:19:29,10.1.1.8,29,-0.080,-0.080,-0.080,0.000,0.000,0.000
1643293169935228160,2022-01-27-14:19:29,10.1.1.8,30,-0.070,-0.070,-0.070,0.000,0.000,0.000
1643293170143058176,2022-01-27-14:19:30,10.1.1.8,37,-0.060,-0.060,-0.060,0.000,0.000,0.000
1643293170332779008,2022-01-27-14:19:30,10.1.1.8,26,-0.050,-0.050,-0.050,0.000,0.000,0.000
1643293170532272128,2022-01-27-14:19:30,10.1.1.8,25,-0.040,-0.040,-0.040,0.000,0.000,0.000
1643293170732357120,2022-01-27-14:19:30,10.1.1.8,24,-0.030,-0.030,-0.030,0.000,0.000,0.000
1643293170931956992,2022-01-27-14:19:30,10.1.1.8,23,-0.020,-0.020,-0.020,0.000,0.000,0.000
1643293171152817920,2022-01-27-14:19:31,10.1.1.8,43,-0.009,-0.009,-0.009,0.000,0.000,0.000
1643293171313368064,2022-01-27-14:19:31,10.1.1.8,1,-0.001,-0.001,-0.001,0.000,0.000,0.000
1643293171552116992,2022-01-27-14:19:31,10.1.1.8,38,-0.011,-0.011,-0.011,0.000,0.000,0.000
1643293171733848064,2022-01-27-14:19:31,10.1.1.8,19,-0.020,-0.020,-0.020,0.000,0.000,0.000
1643293171952510976,2022-01-27-14:19:31,10.1.1.8,34,-0.031,-0.031,-0.031,0.000,0.000,0.000
1643293172152150016,2022-01-27-14:19:32,10.1.1.8,32,-0.041,-0.041,-0.041,0.000,0.000,0.000
1643293172353041920,2022-01-27-14:19:32,10.1.1.8,33,-0.051,-0.051,-0.051,0.000,0.000,0.000
1643293172552290816,2022-01-27-14:19:32,10.1.1.8,31,-0.060,-0.060,-0.060,0.000,0.000,0.000
1643293172752221952,2022-01-27-14:19:32,10.1.1.8,30,-0.071,-0.071,-0.071,0.000,0.000,0.000
1643293172953300992,2022-01-27-14:19:32,10.1.1.8,30,-0.081,-0.081,-0.081,0.000,0.000,0.000
1643293173152243968,2022-01-27-14:19:33,10.1.1.8,28,-0.091,-0.091,-0.091,0.000,0.000,0.000
1643293173352137984,2022-01-27-14:19:33,10.1.1.8,27,-0.101,-0.101,-0.101,0.000,0.000,0.000
1643293173542062080,2022-01-27-14:19:33,10.1.1.8,17,-0.110,-0.110,-0.110,0.000,0.000,0.000
1643293173752343808,2022-01-27-14:19:33,10.1.1.8,26,-0.120,-0.120,-0.120,0.000,0.000,0.000
1643293173952785920,2022-01-27-14:19:33,10.1.1.8,25,-0.130,-0.130,-0.130,0.000,0.000,0.000
1643293174152598016,2022-01-27-14:19:34,10.1.1.8,25,-0.140,-0.140,-0.140,0.000,0.000,0.000
1643293174363024896,2022-01-27-14:19:34,10.1.1.8,34,-0.151,-0.151,-0.151,0.000,0.000,0.000
1643293174572894208,2022-01-27-14:19:34,10.1.1.8,42,-0.161,-0.161,-0.161,0.000,0.000,0.000
1643293174752017920,2022-01-27-14:19:34,10.1.1.8,21,-0.170,-0.170,-0.170,0.000,0.000,0.000
1643293174972385024,2022-01-27-14:19:34,10.1.1.8,40,-0.181,-0.181,-0.181,0.000,0.000,0.000
1643293175172265984,2022-01-27-14:19:35,10.1.1.8,39,-0.191,-0.191,-0.191,0.000,0.000,0.000
1643293175372685824,2022-01-27-14:19:35,10.1.1.8,39,-0.201,-0.201,-0.201,0.000,0.000,0.000
1643293175575027968,2022-01-27-14:19:35,10.1.1.8,40,-0.211,-0.211,-0.211,0.000,0.000,0.000
1643293175753093888,2022-01-27-14:19:35,10.1.1.8,18,-0.220,-0.220,-0.220,0.000,0.000,0.000
1643293175972211968,2022-01-27-14:19:35,10.1.1.8,37,-0.231,-0.231,-0.231,0.000,0.000,0.000
1643293176179152128,2022-01-27-14:19:36,10.1.1.8,42,-0.241,-0.241,-0.241,0.000,0.000,0.000
1643293176371966976,2022-01-27-14:19:36,10.1.1.8,35,-0.251,-0.251,-0.251,0.000,0.000,0.000
1643293176562611968,2022-01-27-14:19:36,10.1.1.8,25,-0.260,-0.260,-0.260,0.000,0.000,0.000
1643293176771702016,2022-01-27-14:19:36,10.1.1.8,34,-0.271,-0.271,-0.271,0.000,0.000,0.000
1643293176972402944,2022-01-27-14:19:36,10.1.1.8,34,-0.281,-0.281,-0.281,0.000,0.000,0.000
1643293177172446976,2022-01-27-14:19:37,10.1.1.8,33,-0.291,-0.291,-0.291,0.000,0.000,0.000
1643293177372064000,2022-01-27-14:19:37,10.1.1.8,32,-0.301,-0.301,-0.301,0.000,0.000,0.000
1643293177572055040,2022-01-27-14:19:37,10.1.1.8,32,-0.311,-0.311,-0.311,0.000,0.000,0.000
1643293177771809024,2022-01-27-14:19:37,10.1.1.8,31,-0.321,-0.321,-0.321,0.000,0.000,0.000
1643293177971802880,2022-01-27-14:19:37,10.1.1.8,30,-0.331,-0.331,-0.331,0.000,0.000,0.000
1643293178172843008,2022-01-27-14:19:38,10.1.1.8,30,-0.341,-0.341,-0.341,0.000,0.000,0.000
1643293178383495936,2022-01-27-14:19:38,10.1.1.8,41,-0.350,-0.350,-0.350,0.000,0.000,0.000
1643293178572407040,2022-01-27-14:19:38,10.1.1.8,30,-0.361,-0.361,-0.361,0.000,0.000,0.000
1643293178772263168,2022-01-27-14:19:38,10.1.1.8,29,-0.370,-0.370,-0.370,0.000,0.000,0.000
1643293178993175040,2022-01-27-14:19:38,10.1.1.8,50,-0.382,-0.382,-0.382,0.000,0.000,0.000
1643293179172300032,2022-01-27-14:19:39,10.1.1.8,28,-0.390,-0.390,-0.390,0.000,0.000,0.000
1643293179372185856,2022-01-27-14:19:39,10.1.1.8,27,-0.400,-0.400,-0.400,0.000,0.000,0.000
1643293179573292032,2022-01-27-14:19:39,10.1.1.8,27,-0.410,-0.410,-0.410,0.000,0.000,0.000
1643293179771888128,2022-01-27-14:19:39,10.1.1.8,25,-0.420,-0.420,-0.420,0.000,0.000,0.000
1643293179971698944,2022-01-27-14:19:39,10.1.1.8,24,-0.430,-0.430,-0.430,0.000,0.000,0.000
1643293180172004864,2022-01-27-14:19:40,10.1.1.8,24,-0.440,-0.440,-0.440,0.000,0.000,0.000
1643293180372680960,2022-01-27-14:19:40,10.1.1.8,24,-0.450,-0.450,-0.450,0.000,0.000,0.000
1643293180572280832,2022-01-27-14:19:40,10.1.1.8,22,-0.460,-0.460,-0.460,0.000,0.000,0.000
1643293180771725824,2022-01-27-14:19:40,10.1.1.8,21,-0.470,-0.470,-0.470,0.000,0.000,0.000
1643293180972295168,2022-01-27-14:19:40,10.1.1.8,20,-0.480,-0.480,-0.480,0.000,0.000,0.000
1643293181152633856,2022-01-27-14:19:41,10.1.1.8,-1,-0.489,-0.489,-0.489,0.000,0.000,0.000
1643293181393073920,2022-01-27-14:19:41,10.1.1.8,39,-0.479,-0.479,-0.479,0.000,0.000,0.000
1643293181593760000,2022-01-27-14:19:41,10.1.1.8,39,-0.469,-0.469,-0.469,0.000,0.000,0.000
1643293181801865984,2022-01-27-14:19:41,10.1.1.8,43,-0.459,-0.459,-0.459,0.000,0.000,0.000
1643293181982269952,2022-01-27-14:19:41,10.1.1.8,22,-0.450,-0.450,-0.450,0.000,0.000,0.000
1643293182192948224,2022-01-27-14:19:42,10.1.1.8,32,-0.439,-0.439,-0.439,0.000,0.000,0.000
1643293182395368960,2022-01-27-14:19:42,10.1.1.8,34,-0.429,-0.429,-0.429,0.000,0.000,0.000
1643293182592423936,2022-01-27-14:19:42,10.1.1.8,30,-0.419,-0.419,-0.419,0.000,0.000,0.000
1643293182802526976,2022-01-27-14:19:42,10.1.1.8,40,-0.409,-0.409,-0.409,0.000,0.000,0.000
1643293182992537856,2022-01-27-14:19:42,10.1.1.8,29,-0.400,-0.400,-0.400,0.000,0.000,0.000
1643293183192704000,2022-01-27-14:19:43,10.1.1.8,28,-0.389,-0.389,-0.389,0.000,0.000,0.000
1643293183392256000,2022-01-27-14:19:43,10.1.1.8,27,-0.380,-0.380,-0.380,0.000,0.000,0.000
1643293183612515072,2022-01-27-14:19:43,10.1.1.8,47,-0.369,-0.369,-0.369,0.000,0.000,0.000
1643293183803997952,2022-01-27-14:19:43,10.1.1.8,36,-0.359,-0.359,-0.359,0.000,0.000,0.000
1643293183992232192,2022-01-27-14:19:43,10.1.1.8,24,-0.350,-0.350,-0.350,0.000,0.000,0.000
1643293184192859904,2022-01-27-14:19:44,10.1.1.8,23,-0.340,-0.340,-0.340,0.000,0.000,0.000
1643293184392446976,2022-01-27-14:19:44,10.1.1.8,23,-0.330,-0.330,-0.330,0.000,0.000,0.000
1643293184592828928,2022-01-27-14:19:44,10.1.1.8,22,-0.320,-0.320,-0.320,0.000,0.000,0.000
1643293184812427008,2022-01-27-14:19:44,10.1.1.8,42,-0.309,-0.309,-0.309,0.000,0.000,0.000
1643293184992161024,2022-01-27-14:19:44,10.1.1.8,21,-0.300,-0.300,-0.300,0.000,0.000,0.000
1643293185212510976,2022-01-27-14:19:45,10.1.1.8,40,-0.289,-0.289,-0.289,0.000,0.000,0.000
1643293185412600064,2022-01-27-14:19:45,10.1.1.8,39,-0.279,-0.279,-0.279,0.000,0.000,0.000
1643293185613591808,2022-01-27-14:19:45,10.1.1.8,37,-0.269,-0.269,-0.269,0.000,0.000,0.000
1643293185813015040,2022-01-27-14:19:45,10.1.1.8,36,-0.259,-0.259,-0.259,0.000,0.000,0.000
1643293186012648960,2022-01-27-14:19:46,10.1.1.8,35,-0.249,-0.249,-0.249,0.000,0.000,0.000
1643293186202413056,2022-01-27-14:19:46,10.1.1.8,24,-0.240,-0.240,-0.240,0.000,0.000,0.000
1643293186414051072,2022-01-27-14:19:46,10.1.1.8,35,-0.229,-0.229,-0.229,0.000,0.000,0.000
1643293186612736000,2022-01-27-14:19:46,10.1.1.8,33,-0.219,-0.219,-0.219,0.000,0.000,0.000
1643293186812670976,2022-01-27-14:19:46,10.1.1.8,32,-0.209,-0.209,-0.209,0.000,0.000,0.000
1643293187032248064,2022-01-27-14:19:47,10.1.1.8,51,-0.198,-0.198,-0.198,0.000,0.000,0.000
1643293187212090880,2022-01-27-14:19:47,10.1.1.8,30,-0.190,-0.190,-0.190,0.000,0.000,0.000
1643293187412007168,2022-01-27-14:19:47,10.1.1.8,29,-0.179,-0.179,-0.179,0.000,0.000,0.000
1643293187633924864,2022-01-27-14:19:47,10.1.1.8,51,-0.168,-0.168,-0.168,0.000,0.000,0.000
1643293187813575936,2022-01-27-14:19:47,10.1.1.8,29,-0.159,-0.159,-0.159,0.000,0.000,0.000
1643293188013294848,2022-01-27-14:19:48,10.1.1.8,28,-0.150,-0.150,-0.150,0.000,0.000,0.000
1643293188217988096,2022-01-27-14:19:48,10.1.1.8,32,-0.140,-0.140,-0.140,0.000,0.000,0.000
1643293188432651008,2022-01-27-14:19:48,10.1.1.8,46,-0.129,-0.129,-0.129,0.000,0.000,0.000
1643293188612620032,2022-01-27-14:19:48,10.1.1.8,25,-0.120,-0.120,-0.120,0.000,0.000,0.000
1643293188812730112,2022-01-27-14:19:48,10.1.1.8,25,-0.110,-0.110,-0.110,0.000,0.000,0.000
1643293189012748032,2022-01-27-14:19:49,10.1.1.8,24,-0.100,-0.100,-0.100,0.000,0.000,0.000
1643293189213133056,2022-01-27-14:19:49,10.1.1.8,23,-0.090,-0.090,-0.090,0.000,0.000,0.000
1643293189413392896,2022-01-27-14:19:49,10.1.1.8,22,-0.080,-0.080,-0.080,0.000,0.000,0.000
1643293189632610048,2022-01-27-14:19:49,10.1.1.8,41,-0.069,-0.069,-0.069,0.000,0.000,0.000
1643293189832333056,2022-01-27-14:19:49,10.1.1.8,39,-0.059,-0.059,-0.059,0.000,0.000,0.000
1643293190013442048,2022-01-27-14:19:50,10.1.1.8,19,-0.050,-0.050,-0.050,0.000,0.000,0.000
1643293190232731136,2022-01-27-14:19:50,10.1.1.8,37,-0.039,-0.039,-0.039,0.000,0.000,0.000
1643293190432427776,2022-01-27-14:19:50,10.1.1.8,36,-0.029,-0.029,-0.029,0.000,0.000,0.000
1643293190634044928,2022-01-27-14:19:50,10.1.1.8,37,-0.019,-0.019,-0.019,0.000,0.000,0.000
1643293190834359040,2022-01-27-14:19:50,10.1.1.8,36,-0.009,-0.009,-0.009,0.000,0.000,0.000
1643293191013588992,2022-01-27-14:19:51,10.1.1.8,15,-0.000,-0.000,-0.000,0.000,0.000,0.000
1643293191233688064,2022-01-27-14:19:51,10.1.1.8,34,-0.011,-0.011,-0.011,0.000,0.000,0.000
1643293191432651008,2022-01-27-14:19:51,10.1.1.8,33,-0.021,-0.021,-0.021,0.000,0.000,0.000
1643293191632894976,2022-01-27-14:19:51,10.1.1.8,31,-0.031,-0.031,-0.031,0.000,0.000,0.000
1643293191832783872,2022-01-27-14:19:51,10.1.1.8,30,-0.041,-0.041,-0.041,0.000,0.000,0.000
1643293192032354048,2022-01-27-14:19:52,10.1.1.8,29,-0.051,-0.051,-0.051,0.000,0.000,0.000
1643293192232899840,2022-01-27-14:19:52,10.1.1.8,29,-0.060,-0.060,-0.060,0.000,0.000,0.000
1643293192432662016,2022-01-27-14:19:52,10.1.1.8,28,-0.070,-0.070,-0.070,0.000,0.000,0.000
1643293192632419072,2022-01-27-14:19:52,10.1.1.8,26,-0.080,-0.080,-0.080,0.000,0.000,0.000
1643293192834428928,2022-01-27-14:19:52,10.1.1.8,26,-0.090,-0.090,-0.090,0.000,0.000,0.000
1643293193032510976,2022-01-27-14:19:53,10.1.1.8,24,-0.100,-0.100,-0.100,0.000,0.000,0.000
1643293193233056000,2022-01-27-14:19:53,10.1.1.8,24,-0.110,-0.110,-0.110,0.000,0.000,0.000
1643293193432545024,2022-01-27-14:19:53,10.1.1.8,22,-0.120,-0.120,-0.120,0.000,0.000,0.000
1643293193633142016,2022-01-27-14:19:53,10.1.1.8,22,-0.130,-0.130,-0.130,0.000,0.000,0.000
1643293193832755968,2022-01-27-14:19:53,10.1.1.8,20,-0.140,-0.140,-0.140,0.000,0.000,0.000
1643293194052285952,2022-01-27-14:19:54,10.1.1.8,39,-0.151,-0.151,-0.151,0.000,0.000,0.000
1643293194234368000,2022-01-27-14:19:54,10.1.1.8,20,-0.160,-0.160,-0.160,0.000,0.000,0.000
1643293194452364032,2022-01-27-14:19:54,10.1.1.8,38,-0.171,-0.171,-0.171,0.000,0.000,0.000
1643293194652199936,2022-01-27-14:19:54,10.1.1.8,37,-0.181,-0.181,-0.181,0.000,0.000,0.000
1643293194843152896,2022-01-27-14:19:54,10.1.1.8,27,-0.190,-0.190,-0.190,0.000,0.000,0.000
1643293195055483136,2022-01-27-14:19:55,10.1.1.8,38,-0.201,-0.201,-0.201,0.000,0.000,0.000
1643293195252711936,2022-01-27-14:19:55,10.1.1.8,35,-0.211,-0.211,-0.211,0.000,0.000,0.000
1643293195452353024,2022-01-27-14:19:55,10.1.1.8,35,-0.221,-0.221,-0.221,0.000,0.000,0.000
1643293195653414912,2022-01-27-14:19:55,10.1.1.8,34,-0.231,-0.231,-0.231,0.000,0.000,0.000
1643293195852049152,2022-01-27-14:19:55,10.1.1.8,33,-0.241,-0.241,-0.241,0.000,0.000,0.000
1643293196042167040,2022-01-27-14:19:56,10.1.1.8,22,-0.250,-0.250,-0.250,0.000,0.000,0.000
1643293196242525184,2022-01-27-14:19:56,10.1.1.8,22,-0.260,-0.260,-0.260,0.000,0.000,0.000
1643293196453116928,2022-01-27-14:19:56,10.1.1.8,31,-0.271,-0.271,-0.271,0.000,0.000,0.000
1643293196656374016,2022-01-27-14:19:56,10.1.1.8,34,-0.281,-0.281,-0.281,0.000,0.000,0.000
1643293196852033024,2022-01-27-14:19:56,10.1.1.8,28,-0.291,-0.291,-0.291,0.000,0.000,0.000
1643293197052654080,2022-01-27-14:19:57,10.1.1.8,27,-0.300,-0.300,-0.300,0.000,0.000,0.000
1643293197252422144,2022-01-27-14:19:57,10.1.1.8,26,-0.310,-0.310,-0.310,0.000,0.000,0.000
1643293197452614912,2022-01-27-14:19:57,10.1.1.8,26,-0.320,-0.320,-0.320,0.000,0.000,0.000
1643293197653445120,2022-01-27-14:19:57,10.1.1.8,26,-0.330,-0.330,-0.330,0.000,0.000,0.000
1643293197852751104,2022-01-27-14:19:57,10.1.1.8,25,-0.340,-0.340,-0.340,0.000,0.000,0.000
1643293198052274944,2022-01-27-14:19:58,10.1.1.8,23,-0.350,-0.350,-0.350,0.000,0.000,0.000
1643293198252381952,2022-01-27-14:19:58,10.1.1.8,23,-0.360,-0.360,-0.360,0.000,0.000,0.000
1643293198451823872,2022-01-27-14:19:58,10.1.1.8,21,-0.370,-0.370,-0.370,0.000,0.000,0.000
1643293198672386048,2022-01-27-14:19:58,10.1.1.8,41,-0.381,-0.381,-0.381,0.000,0.000,0.000
1643293198873174784,2022-01-27-14:19:58,10.1.1.8,41,-0.391,-0.391,-0.391,0.000,0.000,0.000
1643293199071897088,2022-01-27-14:19:59,10.1.1.8,40,-0.401,-0.401,-0.401,0.000,0.000,0.000
1643293199252687104,2022-01-27-14:19:59,10.1.1.8,20,-0.410,-0.410,-0.410,0.000,0.000,0.000
1643293199472726016,2022-01-27-14:19:59,10.1.1.8,39,-0.421,-0.421,-0.421,0.000,0.000,0.000
1643293199692898048,2022-01-27-14:19:59,10.1.1.8,43,-0.431,-0.431,-0.431,0.000,0.000,0.000
1643293199883127040,2022-01-27-14:19:59,10.1.1.8,22,-0.440,-0.440,-0.440,0.000,0.000,0.000
1643293200092067072,2022-01-27-14:20:00,10.1.1.8,29,-0.450,-0.450,-0.450,0.000,0.000,0.000
1643293200293206016,2022-01-27-14:20:00,10.1.1.8,29,-0.460,-0.460,-0.460,0.000,0.000,0.000
1643293200492312064,2022-01-27-14:20:00,10.1.1.8,27,-0.471,-0.471,-0.471,0.000,0.000,0.000
1643293200712656128,2022-01-27-14:20:00,10.1.1.8,46,-0.481,-0.481,-0.481,0.000,0.000,0.000
1643293200872251136,2022-01-27-14:20:00,10.1.1.8,5,-0.489,-0.489,-0.489,0.000,0.000,0.000
1643293201092737024,2022-01-27-14:20:01,10.1.1.8,25,-0.480,-0.480,-0.480,0.000,0.000,0.000
1643293201292185088,2022-01-27-14:20:01,10.1.1.8,24,-0.470,-0.470,-0.470,0.000,0.000,0.000
1643293201492588032,2022-01-27-14:20:01,10.1.1.8,23,-0.460,-0.460,-0.460,0.000,0.000,0.000
1643293201693191168,2022-01-27-14:20:01,10.1.1.8,23,-0.450,-0.450,-0.450,0.000,0.000,0.000
1643293201892761088,2022-01-27-14:20:01,10.1.1.8,23,-0.440,-0.440,-0.440,0.000,0.000,0.000
1643293202092045056,2022-01-27-14:20:02,10.1.1.8,22,-0.430,-0.430,-0.430,0.000,0.000,0.000
1643293202292534016,2022-01-27-14:20:02,10.1.1.8,21,-0.420,-0.420,-0.420,0.000,0.000,0.000
1643293202512169984,2022-01-27-14:20:02,10.1.1.8,40,-0.409,-0.409,-0.409,0.000,0.000,0.000
1643293202692646144,2022-01-27-14:20:02,10.1.1.8,18,-0.400,-0.400,-0.400,0.000,0.000,0.000
1643293202912332032,2022-01-27-14:20:02,10.1.1.8,35,-0.389,-0.389,-0.389,0.000,0.000,0.000
1643293203112303872,2022-01-27-14:20:03,10.1.1.8,35,-0.379,-0.379,-0.379,0.000,0.000,0.000
1643293203312380928,2022-01-27-14:20:03,10.1.1.8,34,-0.369,-0.369,-0.369,0.000,0.000,0.000
1643293203502685184,2022-01-27-14:20:03,10.1.1.8,24,-0.360,-0.360,-0.360,0.000,0.000,0.000
1643293203712378880,2022-01-27-14:20:03,10.1.1.8,33,-0.349,-0.349,-0.349,0.000,0.000,0.000
1643293203912649984,2022-01-27-14:20:03,10.1.1.8,32,-0.339,-0.339,-0.339,0.000,0.000,0.000
1643293204112754944,2022-01-27-14:20:04,10.1.1.8,32,-0.329,-0.329,-0.329,0.000,0.000,0.000
1643293204312633088,2022-01-27-14:20:04,10.1.1.8,31,-0.319,-0.319,-0.319,0.000,0.000,0.000
1643293204512518912,2022-01-27-14:20:04,10.1.1.8,31,-0.309,-0.309,-0.309,0.000,0.000,0.000
1643293204713027072,2022-01-27-14:20:04,10.1.1.8,31,-0.300,-0.300,-0.300,0.000,0.000,0.000
1643293204912837120,2022-01-27-14:20:04,10.1.1.8,30,-0.289,-0.289,-0.289,0.000,0.000,0.000
1643293205112299008,2022-01-27-14:20:05,10.1.1.8,29,-0.280,-0.280,-0.280,0.000,0.000,0.000
1643293205312252928,2022-01-27-14:20:05,10.1.1.8,28,-0.269,-0.269,-0.269,0.000,0.000,0.000
1643293205512221952,2022-01-27-14:20:05,10.1.1.8,27,-0.260,-0.260,-0.260,0.000,0.000,0.000
1643293205712410880,2022-01-27-14:20:05,10.1.1.8,26,-0.250,-0.250,-0.250,0.000,0.000,0.000
1643293205912530944,2022-01-27-14:20:05,10.1.1.8,26,-0.240,-0.240,-0.240,0.000,0.000,0.000
1643293206114011136,2022-01-27-14:20:06,10.1.1.8,26,-0.230,-0.230,-0.230,0.000,0.000,0.000
1643293206312140032,2022-01-27-14:20:06,10.1.1.8,24,-0.220,-0.220,-0.220,0.000,0.000,0.000
1643293206512378880,2022-01-27-14:20:06,10.1.1.8,23,-0.210,-0.210,-0.210,0.000,0.000,0.000
1643293206733603072,2022-01-27-14:20:06,10.1.1.8,44,-0.199,-0.199,-0.199,0.000,0.000,0.000
1643293206935642880,2022-01-27-14:20:06,10.1.1.8,42,-0.189,-0.189,-0.189,0.000,0.000,0.000
1643293207114496000,2022-01-27-14:20:07,10.1.1.8,22,-0.180,-0.180,-0.180,0.000,0.000,0.000
1643293207332559104,2022-01-27-14:20:07,10.1.1.8,39,-0.169,-0.169,-0.169,0.000,0.000,0.000
1643293207533543168,2022-01-27-14:20:07,10.1.1.8,39,-0.159,-0.159,-0.159,0.000,0.000,0.000
1643293207732961792,2022-01-27-14:20:07,10.1.1.8,38,-0.149,-0.149,-0.149,0.000,0.000,0.000
1643293207922899968,2022-01-27-14:20:07,10.1.1.8,27,-0.140,-0.140,-0.140,0.000,0.000,0.000
1643293208122946048,2022-01-27-14:20:08,10.1.1.8,27,-0.130,-0.130,-0.130,0.000,0.000,0.000
1643293208332658176,2022-01-27-14:20:08,10.1.1.8,36,-0.119,-0.119,-0.119,0.000,0.000,0.000
1643293208523070208,2022-01-27-14:20:08,10.1.1.8,26,-0.110,-0.110,-0.110,0.000,0.000,0.000
1643293208732601856,2022-01-27-14:20:08,10.1.1.8,35,-0.099,-0.099,-0.099,0.000,0.000,0.000
1643293208932655104,2022-01-27-14:20:08,10.1.1.8,34,-0.089,-0.089,-0.089,0.000,0.000,0.000
1643293209132797952,2022-01-27-14:20:09,10.1.1.8,34,-0.079,-0.079,-0.079,0.000,0.000,0.000
1643293209333203968,2022-01-27-14:20:09,10.1.1.8,34,-0.069,-0.069,-0.069,0.000,0.000,0.000
1643293209532645888,2022-01-27-14:20:09,10.1.1.8,32,-0.059,-0.059,-0.059,0.000,0.000,0.000
1643293209732393984,2022-01-27-14:20:09,10.1.1.8,32,-0.049,-0.049,-0.049,0.000,0.000,0.000
1643293209932552960,2022-01-27-14:20:09,10.1.1.8,31,-0.039,-0.039,-0.039,0.000,0.000,0.000
1643293210132952064,2022-01-27-14:20:10,10.1.1.8,30,-0.029,-0.029,-0.029,0.000,0.000,0.000
1643293210332254976,2022-01-27-14:20:10,10.1.1.8,29,-0.019,-0.019,-0.019,0.000,0.000,0.000
1643293210532293120,2022-01-27-14:20:10,10.1.1.8,28,-0.010,-0.010,-0.010,0.000,0.000,0.000
1643293210752329984,2022-01-27-14:20:10,10.1.1.8,47,-0.001,-0.001,-0.001,0.000,0.000,0.000
1643293210932282880,2022-01-27-14:20:10,10.1.1.8,26,-0.010,-0.010,-0.010,0.000,0.000,0.000
1643293211132056832,2022-01-27-14:20:11,10.1.1.8,26,-0.020,-0.020,-0.020,0.000,0.000,0.000
1643293211342860032,2022-01-27-14:20:11,10.1.1.8,36,-0.031,-0.031,-0.031,0.000,0.000,0.000
1643293211532870144,2022-01-27-14:20:11,10.1.1.8,25,-0.040,-0.040,-0.040,0.000,0.000,0.000
1643293211732279040,2022-01-27-14:20:11,10.1.1.8,24,-0.050,-0.050,-0.050,0.000,0.000,0.000
1643293211932478976,2022-01-27-14:20:11,10.1.1.8,24,-0.060,-0.060,-0.060,0.000,0.000,0.000
1643293212132730112,2022-01-27-14:20:12,10.1.1.8,23,-0.070,-0.070,-0.070,0.000,0.000,0.000
1643293212332387072,2022-01-27-14:20:12,10.1.1.8,23,-0.080,-0.080,-0.080,0.000,0.000,0.000
1643293212532306944,2022-01-27-14:20:12,10.1.1.8,22,-0.090,-0.090,-0.090,0.000,0.000,0.000
1643293212732599040,2022-01-27-14:20:12,10.1.1.8,21,-0.100,-0.100,-0.100,0.000,0.000,0.000
1643293212943342080,2022-01-27-14:20:12,10.1.1.8,26,-0.110,-0.110,-0.110,0.000,0.000,0.000
1643293213136101888,2022-01-27-14:20:13,10.1.1.8,23,-0.120,-0.120,-0.120,0.000,0.000,0.000
1643293213332205056,2022-01-27-14:20:13,10.1.1.8,19,-0.130,-0.130,-0.130,0.000,0.000,0.000
1643293213552602880,2022-01-27-14:20:13,10.1.1.8,38,-0.141,-0.141,-0.141,0.000,0.000,0.000
1643293213757042944,2022-01-27-14:20:13,10.1.1.8,39,-0.151,-0.151,-0.151,0.000,0.000,0.000
1643293213948723968,2022-01-27-14:20:13,10.1.1.8,30,-0.160,-0.160,-0.160,0.000,0.000,0.000
1643293214152802048,2022-01-27-14:20:14,10.1.1.8,33,-0.171,-0.171,-0.171,0.000,0.000,0.000
1643293214352334080,2022-01-27-14:20:14,10.1.1.8,32,-0.181,-0.181,-0.181,0.000,0.000,0.000
1643293214552516864,2022-01-27-14:20:14,10.1.1.8,31,-0.191,-0.191,-0.191,0.000,0.000,0.000
1643293214752793088,2022-01-27-14:20:14,10.1.1.8,31,-0.200,-0.200,-0.200,0.000,0.000,0.000
1643293214953908992,2022-01-27-14:20:14,10.1.1.8,30,-0.211,-0.211,-0.211,0.000,0.000,0.000
1643293215152684032,2022-01-27-14:20:15,10.1.1.8,27,-0.220,-0.220,-0.220,0.000,0.000,0.000
1643293215352845056,2022-01-27-14:20:15,10.1.1.8,26,-0.230,-0.230,-0.230,0.000,0.000,0.000
1643293215552503040,2022-01-27-14:20:15,10.1.1.8,25,-0.240,-0.240,-0.240,0.000,0.000,0.000
1643293215751877120,2022-01-27-14:20:15,10.1.1.8,24,-0.250,-0.250,-0.250,0.000,0.000,0.000
1643293215952254976,2022-01-27-14:20:15,10.1.1.8,24,-0.260,-0.260,-0.260,0.000,0.000,0.000
1643293216151949824,2022-01-27-14:20:16,10.1.1.8,23,-0.270,-0.270,-0.270,0.000,0.000,0.000
1643293216352331008,2022-01-27-14:20:16,10.1.1.8,23,-0.280,-0.280,-0.280,0.000,0.000,0.000
1643293216552570112,2022-01-27-14:20:16,10.1.1.8,23,-0.290,-0.290,-0.290,0.000,0.000,0.000
1643293216752664064,2022-01-27-14:20:16,10.1.1.8,22,-0.300,-0.300,-0.300,0.000,0.000,0.000
1643293216963188992,2022-01-27-14:20:16,10.1.1.8,31,-0.311,-0.311,-0.311,0.000,0.000,0.000
1643293217173032960,2022-01-27-14:20:17,10.1.1.8,39,-0.321,-0.321,-0.321,0.000,0.000,0.000
1643293217372747008,2022-01-27-14:20:17,10.1.1.8,36,-0.331,-0.331,-0.331,0.000,0.000,0.000
1643293217563297024,2022-01-27-14:20:17,10.1.1.8,25,-0.340,-0.340,-0.340,0.000,0.000,0.000
1643293217772732928,2022-01-27-14:20:17,10.1.1.8,34,-0.351,-0.351,-0.351,0.000,0.000,0.000
1643293217962935040,2022-01-27-14:20:17,10.1.1.8,24,-0.360,-0.360,-0.360,0.000,0.000,0.000
1643293218172396800,2022-01-27-14:20:18,10.1.1.8,33,-0.371,-0.371,-0.371,0.000,0.000,0.000
1643293218363315968,2022-01-27-14:20:18,10.1.1.8,23,-0.380,-0.380,-0.380,0.000,0.000,0.000
1643293218573026816,2022-01-27-14:20:18,10.1.1.8,32,-0.391,-0.391,-0.391,0.000,0.000,0.000
1643293218792491008,2022-01-27-14:20:18,10.1.1.8,50,-0.401,-0.401,-0.401,0.000,0.000,0.000
1643293218996391936,2022-01-27-14:20:18,10.1.1.8,49,-0.412,-0.412,-0.412,0.000,0.000,0.000
1643293219172730880,2022-01-27-14:20:19,10.1.1.8,26,-0.420,-0.420,-0.420,0.000,0.000,0.000
1643293219372994048,2022-01-27-14:20:19,10.1.1.8,26,-0.430,-0.430,-0.430,0.000,0.000,0.000
1643293219572797184,2022-01-27-14:20:19,10.1.1.8,25,-0.440,-0.440,-0.440,0.000,0.000,0.000
1643293219793123840,2022-01-27-14:20:19,10.1.1.8,45,-0.451,-0.451,-0.451,0.000,0.000,0.000
1643293219973129984,2022-01-27-14:20:19,10.1.1.8,24,-0.460,-0.460,-0.460,0.000,0.000,0.000
1643293220173142016,2022-01-27-14:20:20,10.1.1.8,23,-0.470,-0.470,-0.470,0.000,0.000,0.000
1643293220393330944,2022-01-27-14:20:20,10.1.1.8,43,-0.481,-0.481,-0.481,0.000,0.000,0.000
1643293220552877824,2022-01-27-14:20:20,10.1.1.8,1,-0.489,-0.489,-0.489,0.000,0.000,0.000
1643293220793164032,2022-01-27-14:20:20,10.1.1.8,40,-0.479,-0.479,-0.479,0.000,0.000,0.000
1643293220983001856,2022-01-27-14:20:20,10.1.1.8,29,-0.469,-0.469,-0.469,0.000,0.000,0.000
1643293221192517120,2022-01-27-14:20:21,10.1.1.8,38,-0.459,-0.459,-0.459,0.000,0.000,0.000
1643293221392664832,2022-01-27-14:20:21,10.1.1.8,38,-0.449,-0.449,-0.449,0.000,0.000,0.000
1643293221592881920,2022-01-27-14:20:21,10.1.1.8,37,-0.439,-0.439,-0.439,0.000,0.000,0.000
1643293221793601024,2022-01-27-14:20:21,10.1.1.8,37,-0.429,-0.429,-0.429,0.000,0.000,0.000
1643293221983001856,2022-01-27-14:20:21,10.1.1.8,26,-0.420,-0.420,-0.420,0.000,0.000,0.000
1643293222194833920,2022-01-27-14:20:22,10.1.1.8,37,-0.409,-0.409,-0.409,0.000,0.000,0.000
1643293222382700032,2022-01-27-14:20:22,10.1.1.8,24,-0.400,-0.400,-0.400,0.000,0.000,0.000
1643293222592816128,2022-01-27-14:20:22,10.1.1.8,33,-0.389,-0.389,-0.389,0.000,0.000,0.000
1643293222792758016,2022-01-27-14:20:22,10.1.1.8,33,-0.379,-0.379,-0.379,0.000,0.000,0.000
1643293222993211904,2022-01-27-14:20:22,10.1.1.8,32,-0.369,-0.369,-0.369,0.000,0.000,0.000
1643293223193924864,2022-01-27-14:20:23,10.1.1.8,32,-0.360,-0.360,-0.360,0.000,0.000,0.000
1643293223413549056,2022-01-27-14:20:23,10.1.1.8,51,-0.348,-0.348,-0.348,0.000,0.000,0.000
1643293223603195904,2022-01-27-14:20:23,10.1.1.8,40,-0.339,-0.339,-0.339,0.000,0.000,0.000
1643293223812827136,2022-01-27-14:20:23,10.1.1.8,49,-0.328,-0.328,-0.328,0.000,0.000,0.000
1643293223992675072,2022-01-27-14:20:23,10.1.1.8,28,-0.319,-0.319,-0.319,0.000,0.000,0.000
1643293224192998912,2022-01-27-14:20:24,10.1.1.8,28,-0.310,-0.310,-0.310,0.000,0.000,0.000
1643293224403299072,2022-01-27-14:20:24,10.1.1.8,36,-0.299,-0.299,-0.299,0.000,0.000,0.000
1643293224592423936,2022-01-27-14:20:24,10.1.1.8,25,-0.290,-0.290,-0.290,0.000,0.000,0.000
1643293224812660992,2022-01-27-14:20:24,10.1.1.8,44,-0.279,-0.279,-0.279,0.000,0.000,0.000
1643293225013060096,2022-01-27-14:20:25,10.1.1.8,43,-0.269,-0.269,-0.269,0.000,0.000,0.000
1643293225203872000,2022-01-27-14:20:25,10.1.1.8,34,-0.259,-0.259,-0.259,0.000,0.000,0.000
1643293225412830976,2022-01-27-14:20:25,10.1.1.8,42,-0.249,-0.249,-0.249,0.000,0.000,0.000
1643293225605019136,2022-01-27-14:20:25,10.1.1.8,33,-0.240,-0.240,-0.240,0.000,0.000,0.000
1643293225804280064,2022-01-27-14:20:25,10.1.1.8,31,-0.230,-0.230,-0.230,0.000,0.000,0.000
1643293225992527104,2022-01-27-14:20:25,10.1.1.8,19,-0.220,-0.220,-0.220,0.000,0.000,0.000
1643293226202364928,2022-01-27-14:20:26,10.1.1.8,27,-0.210,-0.210,-0.210,0.000,0.000,0.000
1643293226412958976,2022-01-27-14:20:26,10.1.1.8,37,-0.199,-0.199,-0.199,0.000,0.000,0.000
1643293226612713216,2022-01-27-14:20:26,10.1.1.8,36,-0.189,-0.189,-0.189,0.000,0.000,0.000
1643293226812939008,2022-01-27-14:20:26,10.1.1.8,35,-0.179,-0.179,-0.179,0.000,0.000,0.000
1643293227012697088,2022-01-27-14:20:27,10.1.1.8,34,-0.169,-0.169,-0.169,0.000,0.000,0.000
1643293227212563968,2022-01-27-14:20:27,10.1.1.8,33,-0.159,-0.159,-0.159,0.000,0.000,0.000
1643293227412811008,2022-01-27-14:20:27,10.1.1.8,33,-0.149,-0.149,-0.149,0.000,0.000,0.000
1643293227612487936,2022-01-27-14:20:27,10.1.1.8,32,-0.139,-0.139,-0.139,0.000,0.000,0.000
1643293227812252928,2022-01-27-14:20:27,10.1.1.8,31,-0.130,-0.130,-0.130,0.000,0.000,0.000
1643293228003063040,2022-01-27-14:20:28,10.1.1.8,21,-0.120,-0.120,-0.120,0.000,0.000,0.000
1643293228212977920,2022-01-27-14:20:28,10.1.1.8,30,-0.109,-0.109,-0.109,0.000,0.000,0.000
1643293228412466176,2022-01-27-14:20:28,10.1.1.8,29,-0.099,-0.099,-0.099,0.000,0.000,0.000
1643293228612699136,2022-01-27-14:20:28,10.1.1.8,29,-0.090,-0.090,-0.090,0.000,0.000,0.000
1643293228802573824,2022-01-27-14:20:28,10.1.1.8,18,-0.080,-0.080,-0.080,0.000,0.000,0.000
1643293229012332800,2022-01-27-14:20:29,10.1.1.8,27,-0.070,-0.070,-0.070,0.000,0.000,0.000
1643293229212130048,2022-01-27-14:20:29,10.1.1.8,25,-0.060,-0.060,-0.060,0.000,0.000,0.000
1643293229413024000,2022-01-27-14:20:29,10.1.1.8,26,-0.050,-0.050,-0.050,0.000,0.000,0.000
1643293229612268800,2022-01-27-14:20:29,10.1.1.8,24,-0.040,-0.040,-0.040,0.000,0.000,0.000
1643293229813085952,2022-01-27-14:20:29,10.1.1.8,25,-0.030,-0.030,-0.030,0.000,0.000,0.000
1643293230011869952,2022-01-27-14:20:30,10.1.1.8,23,-0.020,-0.020,-0.020,0.000,0.000,0.000
1643293230212024832,2022-01-27-14:20:30,10.1.1.8,23,-0.010,-0.010,-0.010,0.000,0.000,0.000
1643293230391987968,2022-01-27-14:20:30,10.1.1.8,2,-0.001,-0.001,-0.001,0.000,0.000,0.000
1643293230612036096,2022-01-27-14:20:30,10.1.1.8,21,-0.010,-0.010,-0.010,0.000,0.000,0.000
1643293230832854016,2022-01-27-14:20:30,10.1.1.8,41,-0.021,-0.021,-0.021,0.000,0.000,0.000
1643293231012392960,2022-01-27-14:20:31,10.1.1.8,21,-0.030,-0.030,-0.030,0.000,0.000,0.000
1643293231212274944,2022-01-27-14:20:31,10.1.1.8,20,-0.040,-0.040,-0.040,0.000,0.000,0.000
1643293231432628992,2022-01-27-14:20:31,10.1.1.8,39,-0.051,-0.051,-0.051,0.000,0.000,0.000
1643293231611970816,2022-01-27-14:20:31,10.1.1.8,17,-0.060,-0.060,-0.060,0.000,0.000,0.000
1643293231811934976,2022-01-27-14:20:31,10.1.1.8,17,-0.070,-0.070,-0.070,0.000,0.000,0.000
1643293232032305920,2022-01-27-14:20:32,10.1.1.8,36,-0.081,-0.081,-0.081,0.000,0.000,0.000
1643293232232590080,2022-01-27-14:20:32,10.1.1.8,35,-0.091,-0.091,-0.091,0.000,0.000,0.000
1643293232432102912,2022-01-27-14:20:32,10.1.1.8,34,-0.101,-0.101,-0.101,0.000,0.000,0.000
1643293232631970816,2022-01-27-14:20:32,10.1.1.8,34,-0.111,-0.111,-0.111,0.000,0.000,0.000
1643293232832626176,2022-01-27-14:20:32,10.1.1.8,34,-0.121,-0.121,-0.121,0.000,0.000,0.000
1643293233032105984,2022-01-27-14:20:33,10.1.1.8,32,-0.131,-0.131,-0.131,0.000,0.000,0.000
1643293233232256000,2022-01-27-14:20:33,10.1.1.8,32,-0.141,-0.141,-0.141,0.000,0.000,0.000
1643293233432851200,2022-01-27-14:20:33,10.1.1.8,32,-0.151,-0.151,-0.151,0.000,0.000,0.000
1643293233632792832,2022-01-27-14:20:33,10.1.1.8,31,-0.160,-0.160,-0.160,0.000,0.000,0.000
1643293233832758784,2022-01-27-14:20:33,10.1.1.8,31,-0.171,-0.171,-0.171,0.000,0.000,0.000
1643293234032681984,2022-01-27-14:20:34,10.1.1.8,30,-0.181,-0.181,-0.181,0.000,0.000,0.000
1643293234232559872,2022-01-27-14:20:34,10.1.1.8,29,-0.191,-0.191,-0.191,0.000,0.000,0.000
1643293234432751872,2022-01-27-14:20:34,10.1.1.8,29,-0.201,-0.201,-0.201,0.000,0.000,0.000
1643293234633217024,2022-01-27-14:20:34,10.1.1.8,28,-0.211,-0.211,-0.211,0.000,0.000,0.000
1643293234832338176,2022-01-27-14:20:34,10.1.1.8,27,-0.220,-0.220,-0.220,0.000,0.000,0.000
1643293235032710912,2022-01-27-14:20:35,10.1.1.8,27,-0.230,-0.230,-0.230,0.000,0.000,0.000
1643293235232608000,2022-01-27-14:20:35,10.1.1.8,26,-0.240,-0.240,-0.240,0.000,0.000,0.000
1643293235432270080,2022-01-27-14:20:35,10.1.1.8,25,-0.250,-0.250,-0.250,0.000,0.000,0.000
1643293235632281088,2022-01-27-14:20:35,10.1.1.8,24,-0.260,-0.260,-0.260,0.000,0.000,0.000
1643293235832477184,2022-01-27-14:20:35,10.1.1.8,24,-0.270,-0.270,-0.270,0.000,0.000,0.000
1643293236052818176,2022-01-27-14:20:36,10.1.1.8,43,-0.281,-0.281,-0.281,0.000,0.000,0.000
1643293236232928000,2022-01-27-14:20:36,10.1.1.8,23,-0.290,-0.290,-0.290,0.000,0.000,0.000
1643293236432819968,2022-01-27-14:20:36,10.1.1.8,22,-0.300,-0.300,-0.300,0.000,0.000,0.000
1643293236632948992,2022-01-27-14:20:36,10.1.1.8,22,-0.310,-0.310,-0.310,0.000,0.000,0.000
1643293236853209088,2022-01-27-14:20:36,10.1.1.8,42,-0.321,-0.321,-0.321,0.000,0.000,0.000
1643293237053976064,2022-01-27-14:20:37,10.1.1.8,42,-0.331,-0.331,-0.331,0.000,0.000,0.000
1643293237232701952,2022-01-27-14:20:37,10.1.1.8,20,-0.340,-0.340,-0.340,0.000,0.000,0.000
1643293237453068032,2022-01-27-14:20:37,10.1.1.8,39,-0.351,-0.351,-0.351,0.000,0.000,0.000
1643293237652580096,2022-01-27-14:20:37,10.1.1.8,38,-0.361,-0.361,-0.361,0.000,0.000,0.000
1643293237852694016,2022-01-27-14:20:37,10.1.1.8,37,-0.371,-0.371,-0.371,0.000,0.000,0.000
1643293238053182976,2022-01-27-14:20:38,10.1.1.8,35,-0.381,-0.381,-0.381,0.000,0.000,0.000
1643293238252804096,2022-01-27-14:20:38,10.1.1.8,31,-0.391,-0.391,-0.391,0.000,0.000,0.000
1643293238452848896,2022-01-27-14:20:38,10.1.1.8,31,-0.401,-0.401,-0.401,0.000,0.000,0.000
1643293238653328896,2022-01-27-14:20:38,10.1.1.8,31,-0.411,-0.411,-0.411,0.000,0.000,0.000
1643293238853518080,2022-01-27-14:20:38,10.1.1.8,30,-0.420,-0.420,-0.420,0.000,0.000,0.000
1643293239052912896,2022-01-27-14:20:39,10.1.1.8,29,-0.431,-0.431,-0.431,0.000,0.000,0.000
1643293239252324096,2022-01-27-14:20:39,10.1.1.8,28,-0.441,-0.441,-0.441,0.000,0.000,0.000
1643293239452871936,2022-01-27-14:20:39,10.1.1.8,28,-0.450,-0.450,-0.450,0.000,0.000,0.000
1643293239652900864,2022-01-27-14:20:39,10.1.1.8,27,-0.460,-0.460,-0.460,0.000,0.000,0.000
1643293239858334976,2022-01-27-14:20:39,10.1.1.8,30,-0.470,-0.470,-0.470,0.000,0.000,0.000
1643293240054141952,2022-01-27-14:20:40,10.1.1.8,26,-0.480,-0.480,-0.480,0.000,0.000,0.000
1643293240232819968,2022-01-27-14:20:40,10.1.1.8,4,-0.489,-0.489,-0.489,0.000,0.000,0.000
1643293240452593920,2022-01-27-14:20:40,10.1.1.8,22,-0.480,-0.480,-0.480,0.000,0.000,0.000
1643293240653132032,2022-01-27-14:20:40,10.1.1.8,22,-0.470,-0.470,-0.470,0.000,0.000,0.000
1643293240853341952,2022-01-27-14:20:40,10.1.1.8,21,-0.460,-0.460,-0.460,0.000,0.000,0.000
1643293241052752896,2022-01-27-14:20:41,10.1.1.8,20,-0.450,-0.450,-0.450,0.000,0.000,0.000
1643293241303734016,2022-01-27-14:20:41,10.1.1.8,68,-0.438,-0.438,-0.438,0.000,0.000,0.000
1643293241467083008,2022-01-27-14:20:41,10.1.1.8,30,-0.430,-0.430,-0.430,0.000,0.000,0.000
1643293241672699904,2022-01-27-14:20:41,10.1.1.8,35,-0.419,-0.419,-0.419,0.000,0.000,0.000
1643293241872872192,2022-01-27-14:20:41,10.1.1.8,34,-0.409,-0.409,-0.409,0.000,0.000,0.000
1643293242073649920,2022-01-27-14:20:42,10.1.1.8,33,-0.399,-0.399,-0.399,0.000,0.000,0.000
1643293242262876160,2022-01-27-14:20:42,10.1.1.8,23,-0.390,-0.390,-0.390,0.000,0.000,0.000
1643293242473214976,2022-01-27-14:20:42,10.1.1.8,32,-0.379,-0.379,-0.379,0.000,0.000,0.000
1643293242672830976,2022-01-27-14:20:42,10.1.1.8,31,-0.369,-0.369,-0.369,0.000,0.000,0.000
1643293242895855872,2022-01-27-14:20:42,10.1.1.8,53,-0.359,-0.359,-0.359,0.000,0.000,0.000
1643293243072880128,2022-01-27-14:20:43,10.1.1.8,21,-0.350,-0.350,-0.350,0.000,0.000,0.000
1643293243272735232,2022-01-27-14:20:43,10.1.1.8,20,-0.340,-0.340,-0.340,0.000,0.000,0.000
1643293243492527104,2022-01-27-14:20:43,10.1.1.8,38,-0.329,-0.329,-0.329,0.000,0.000,0.000
1643293243693499136,2022-01-27-14:20:43,10.1.1.8,38,-0.319,-0.319,-0.319,0.000,0.000,0.000
1643293243893465088,2022-01-27-14:20:43,10.1.1.8,38,-0.309,-0.309,-0.309,0.000,0.000,0.000
1643293244092924160,2022-01-27-14:20:44,10.1.1.8,36,-0.299,-0.299,-0.299,0.000,0.000,0.000
1643293244292813056,2022-01-27-14:20:44,10.1.1.8,36,-0.289,-0.289,-0.289,0.000,0.000,0.000
1643293244492791040,2022-01-27-14:20:44,10.1.1.8,35,-0.279,-0.279,-0.279,0.000,0.000,0.000
1643293244694753792,2022-01-27-14:20:44,10.1.1.8,36,-0.269,-0.269,-0.269,0.000,0.000,0.000
1643293244901570048,2022-01-27-14:20:44,10.1.1.8,35,-0.259,-0.259,-0.259,0.000,0.000,0.000
1643293245093756928,2022-01-27-14:20:45,10.1.1.8,33,-0.249,-0.249,-0.249,0.000,0.000,0.000
1643293245292097024,2022-01-27-14:20:45,10.1.1.8,32,-0.239,-0.239,-0.239,0.000,0.000,0.000
1643293245492723968,2022-01-27-14:20:45,10.1.1.8,31,-0.229,-0.229,-0.229,0.000,0.000,0.000
1643293245692866048,2022-01-27-14:20:45,10.1.1.8,31,-0.219,-0.219,-0.219,0.000,0.000,0.000
1643293245892798976,2022-01-27-14:20:45,10.1.1.8,31,-0.209,-0.209,-0.209,0.000,0.000,0.000
1643293246092647936,2022-01-27-14:20:46,10.1.1.8,30,-0.199,-0.199,-0.199,0.000,0.000,0.000
1643293246293282048,2022-01-27-14:20:46,10.1.1.8,29,-0.189,-0.189,-0.189,0.000,0.000,0.000
1643293246492393984,2022-01-27-14:20:46,10.1.1.8,27,-0.180,-0.180,-0.180,0.000,0.000,0.000
1643293246691932928,2022-01-27-14:20:46,10.1.1.8,26,-0.170,-0.170,-0.170,0.000,0.000,0.000
1643293246892633088,2022-01-27-14:20:46,10.1.1.8,25,-0.160,-0.160,-0.160,0.000,0.000,0.000
1643293247092143104,2022-01-27-14:20:47,10.1.1.8,24,-0.150,-0.150,-0.150,0.000,0.000,0.000
1643293247292423936,2022-01-27-14:20:47,10.1.1.8,24,-0.140,-0.140,-0.140,0.000,0.000,0.000
1643293247492434944,2022-01-27-14:20:47,10.1.1.8,23,-0.130,-0.130,-0.130,0.000,0.000,0.000
1643293247692854016,2022-01-27-14:20:47,10.1.1.8,22,-0.120,-0.120,-0.120,0.000,0.000,0.000
1643293247892625152,2022-01-27-14:20:47,10.1.1.8,22,-0.110,-0.110,-0.110,0.000,0.000,0.000
1643293248092705024,2022-01-27-14:20:48,10.1.1.8,22,-0.100,-0.100,-0.100,0.000,0.000,0.000
1643293248312676864,2022-01-27-14:20:48,10.1.1.8,41,-0.089,-0.089,-0.089,0.000,0.000,0.000
1643293248492279040,2022-01-27-14:20:48,10.1.1.8,20,-0.080,-0.080,-0.080,0.000,0.000,0.000
1643293248693317888,2022-01-27-14:20:48,10.1.1.8,19,-0.070,-0.070,-0.070,0.000,0.000,0.000
1643293248913003008,2022-01-27-14:20:48,10.1.1.8,37,-0.059,-0.059,-0.059,0.000,0.000,0.000
1643293249112741888,2022-01-27-14:20:49,10.1.1.8,36,-0.049,-0.049,-0.049,0.000,0.000,0.000
1643293249312764928,2022-01-27-14:20:49,10.1.1.8,36,-0.039,-0.039,-0.039,0.000,0.000,0.000
1643293249512924928,2022-01-27-14:20:49,10.1.1.8,35,-0.029,-0.029,-0.029,0.000,0.000,0.000
1643293249712163072,2022-01-27-14:20:49,10.1.1.8,34,-0.019,-0.019,-0.019,0.000,0.000,0.000
1643293249912272896,2022-01-27-14:20:49,10.1.1.8,33,-0.009,-0.009,-0.009,0.000,0.000,0.000
1643293250096581888,2022-01-27-14:20:50,10.1.1.8,16,-0.000,-0.000,-0.000,0.000,0.000,0.000
1643293250312550912,2022-01-27-14:20:50,10.1.1.8,31,-0.011,-0.011,-0.011,0.000,0.000,0.000
1643293250512285952,2022-01-27-14:20:50,10.1.1.8,30,-0.021,-0.021,-0.021,0.000,0.000,0.000
1643293250712567040,2022-01-27-14:20:50,10.1.1.8,29,-0.030,-0.030,-0.030,0.000,0.000,0.000
1643293250913073920,2022-01-27-14:20:50,10.1.1.8,29,-0.040,-0.040,-0.040,0.000,0.000,0.000
1643293251113246976,2022-01-27-14:20:51,10.1.1.8,28,-0.050,-0.050,-0.050,0.000,0.000,0.000
1643293251313116160,2022-01-27-14:20:51,10.1.1.8,26,-0.060,-0.060,-0.060,0.000,0.000,0.000
1643293251513617920,2022-01-27-14:20:51,10.1.1.8,26,-0.070,-0.070,-0.070,0.000,0.000,0.000
1643293251712996864,2022-01-27-14:20:51,10.1.1.8,25,-0.080,-0.080,-0.080,0.000,0.000,0.000
1643293251913476096,2022-01-27-14:20:51,10.1.1.8,25,-0.090,-0.090,-0.090,0.000,0.000,0.000
1643293252113178880,2022-01-27-14:20:52,10.1.1.8,24,-0.100,-0.100,-0.100,0.000,0.000,0.000
1643293252312894976,2022-01-27-14:20:52,10.1.1.8,24,-0.110,-0.110,-0.110,0.000,0.000,0.000
1643293252512875008,2022-01-27-14:20:52,10.1.1.8,23,-0.120,-0.120,-0.120,0.000,0.000,0.000
1643293252712798976,2022-01-27-14:20:52,10.1.1.8,23,-0.130,-0.130,-0.130,0.000,0.000,0.000
1643293252912823040,2022-01-27-14:20:52,10.1.1.8,22,-0.140,-0.140,-0.140,0.000,0.000,0.000
1643293253132837120,2022-01-27-14:20:53,10.1.1.8,41,-0.151,-0.151,-0.151,0.000,0.000,0.000
1643293253312807936,2022-01-27-14:20:53,10.1.1.8,21,-0.160,-0.160,-0.160,0.000,0.000,0.000
1643293253525454080,2022-01-27-14:20:53,10.1.1.8,32,-0.170,-0.170,-0.170,0.000,0.000,0.000
1643293253713486080,2022-01-27-14:20:53,10.1.1.8,19,-0.180,-0.180,-0.180,0.000,0.000,0.000
1643293253928206080,2022-01-27-14:20:53,10.1.1.8,28,-0.190,-0.190,-0.190,0.000,0.000,0.000
1643293254133185024,2022-01-27-14:20:54,10.1.1.8,36,-0.201,-0.201,-0.201,0.000,0.000,0.000
1643293254324830976,2022-01-27-14:20:54,10.1.1.8,26,-0.210,-0.210,-0.210,0.000,0.000,0.000
1643293254538552064,2022-01-27-14:20:54,10.1.1.8,36,-0.221,-0.221,-0.221,0.000,0.000,0.000
1643293254733055232,2022-01-27-14:20:54,10.1.1.8,34,-0.231,-0.231,-0.231,0.000,0.000,0.000
1643293254923394816,2022-01-27-14:20:54,10.1.1.8,23,-0.240,-0.240,-0.240,0.000,0.000,0.000
1643293255156343040,2022-01-27-14:20:55,10.1.1.8,55,-0.252,-0.252,-0.252,0.000,0.000,0.000
1643293255338006016,2022-01-27-14:20:55,10.1.1.8,32,-0.261,-0.261,-0.261,0.000,0.000,0.000
1643293255539601152,2022-01-27-14:20:55,10.1.1.8,37,-0.271,-0.271,-0.271,0.000,0.000,0.000
1643293255733277952,2022-01-27-14:20:55,10.1.1.8,30,-0.281,-0.281,-0.281,0.000,0.000,0.000
1643293255943447040,2022-01-27-14:20:55,10.1.1.8,38,-0.291,-0.291,-0.291,0.000,0.000,0.000
1643293256154714112,2022-01-27-14:20:56,10.1.1.8,45,-0.301,-0.301,-0.301,0.000,0.000,0.000
1643293256333640192,2022-01-27-14:20:56,10.1.1.8,22,-0.310,-0.310,-0.310,0.000,0.000,0.000
1643293256533592832,2022-01-27-14:20:56,10.1.1.8,22,-0.320,-0.320,-0.320,0.000,0.000,0.000
1643293256752895232,2022-01-27-14:20:56,10.1.1.8,40,-0.331,-0.331,-0.331,0.000,0.000,0.000
1643293256933017088,2022-01-27-14:20:56,10.1.1.8,19,-0.340,-0.340,-0.340,0.000,0.000,0.000
1643293257153328896,2022-01-27-14:20:57,10.1.1.8,38,-0.351,-0.351,-0.351,0.000,0.000,0.000
1643293257353121024,2022-01-27-14:20:57,10.1.1.8,36,-0.361,-0.361,-0.361,0.000,0.000,0.000
1643293257552977920,2022-01-27-14:20:57,10.1.1.8,34,-0.371,-0.371,-0.371,0.000,0.000,0.000
1643293257752996864,2022-01-27-14:20:57,10.1.1.8,33,-0.381,-0.381,-0.381,0.000,0.000,0.000
1643293257953315072,2022-01-27-14:20:57,10.1.1.8,32,-0.391,-0.391,-0.391,0.000,0.000,0.000
1643293258152966912,2022-01-27-14:20:58,10.1.1.8,31,-0.400,-0.400,-0.400,0.000,0.000,0.000
1643293258353758976,2022-01-27-14:20:58,10.1.1.8,31,-0.411,-0.411,-0.411,0.000,0.000,0.000
1643293258542907904,2022-01-27-14:20:58,10.1.1.8,19,-0.420,-0.420,-0.420,0.000,0.000,0.000
1643293258754798848,2022-01-27-14:20:58,10.1.1.8,29,-0.430,-0.430,-0.430,0.000,0.000,0.000
1643293258952960000,2022-01-27-14:20:58,10.1.1.8,26,-0.440,-0.440,-0.440,0.000,0.000,0.000
1643293259176436992,2022-01-27-14:20:59,10.1.1.8,48,-0.451,-0.451,-0.451,0.000,0.000,0.000
1643293259353049088,2022-01-27-14:20:59,10.1.1.8,23,-0.460,-0.460,-0.460,0.000,0.000,0.000
1643293259563944192,2022-01-27-14:20:59,10.1.1.8,31,-0.471,-0.471,-0.471,0.000,0.000,0.000
1643293259773349888,2022-01-27-14:20:59,10.1.1.8,40,-0.481,-0.481,-0.481,0.000,0.000,0.000
1643293259953197056,2022-01-27-14:20:59,10.1.1.8,19,-0.490,-0.490,-0.490,0.000,0.000,0.000
1643293260163439872,2022-01-27-14:21:00,10.1.1.8,27,-0.480,-0.480,-0.480,0.000,0.000,0.000
1643293260377236992,2022-01-27-14:21:00,10.1.1.8,36,-0.469,-0.469,-0.469,0.000,0.000,0.000
1643293260573617920,2022-01-27-14:21:00,10.1.1.8,35,-0.459,-0.459,-0.459,0.000,0.000,0.000
1643293260772566016,2022-01-27-14:21:00,10.1.1.8,32,-0.449,-0.449,-0.449,0.000,0.000,0.000
1643293260983514112,2022-01-27-14:21:00,10.1.1.8,42,-0.439,-0.439,-0.439,0.000,0.000,0.000
1643293261172983040,2022-01-27-14:21:01,10.1.1.8,30,-0.429,-0.429,-0.429,0.000,0.000,0.000
1643293261363176960,2022-01-27-14:21:01,10.1.1.8,19,-0.420,-0.420,-0.420,0.000,0.000,0.000
1643293261566481152,2022-01-27-14:21:01,10.1.1.8,21,-0.410,-0.410,-0.410,0.000,0.000,0.000
1643293261783952896,2022-01-27-14:21:01,10.1.1.8,37,-0.399,-0.399,-0.399,0.000,0.000,0.000
1643293261993933824,2022-01-27-14:21:01,10.1.1.8,45,-0.389,-0.389,-0.389,0.000,0.000,0.000
1643293262194503936,2022-01-27-14:21:02,10.1.1.8,45,-0.379,-0.379,-0.379,0.000,0.000,0.000
1643293262396837120,2022-01-27-14:21:02,10.1.1.8,44,-0.369,-0.369,-0.369,0.000,0.000,0.000
1643293262573326080,2022-01-27-14:21:02,10.1.1.8,21,-0.360,-0.360,-0.360,0.000,0.000,0.000
1643293262793089024,2022-01-27-14:21:02,10.1.1.8,41,-0.349,-0.349,-0.349,0.000,0.000,0.000
1643293262975402240,2022-01-27-14:21:02,10.1.1.8,20,-0.340,-0.340,-0.340,0.000,0.000,0.000
1643293263184470016,2022-01-27-14:21:03,10.1.1.8,27,-0.330,-0.330,-0.330,0.000,0.000,0.000
1643293263393448192,2022-01-27-14:21:03,10.1.1.8,36,-0.319,-0.319,-0.319,0.000,0.000,0.000
1643293263584346112,2022-01-27-14:21:03,10.1.1.8,26,-0.310,-0.310,-0.310,0.000,0.000,0.000
1643293263793221120,2022-01-27-14:21:03,10.1.1.8,34,-0.299,-0.299,-0.299,0.000,0.000,0.000
1643293263998236928,2022-01-27-14:21:03,10.1.1.8,38,-0.289,-0.289,-0.289,0.000,0.000,0.000
1643293264195528960,2022-01-27-14:21:04,10.1.1.8,34,-0.279,-0.279,-0.279,0.000,0.000,0.000
1643293264393627904,2022-01-27-14:21:04,10.1.1.8,31,-0.270,-0.270,-0.270,0.000,0.000,0.000
1643293264593090048,2022-01-27-14:21:04,10.1.1.8,29,-0.259,-0.259,-0.259,0.000,0.000,0.000
1643293264794373120,2022-01-27-14:21:04,10.1.1.8,29,-0.250,-0.250,-0.250,0.000,0.000,0.000
1643293264993037056,2022-01-27-14:21:04,10.1.1.8,25,-0.240,-0.240,-0.240,0.000,0.000,0.000
1643293265193911040,2022-01-27-14:21:05,10.1.1.8,25,-0.230,-0.230,-0.230,0.000,0.000,0.000
1643293265393790976,2022-01-27-14:21:05,10.1.1.8,24,-0.220,-0.220,-0.220,0.000,0.000,0.000
1643293265594563072,2022-01-27-14:21:05,10.1.1.8,24,-0.210,-0.210,-0.210,0.000,0.000,0.000
1643293265813199104,2022-01-27-14:21:05,10.1.1.8,42,-0.199,-0.199,-0.199,0.000,0.000,0.000
1643293265992957952,2022-01-27-14:21:05,10.1.1.8,21,-0.190,-0.190,-0.190,0.000,0.000,0.000
1643293266213223936,2022-01-27-14:21:06,10.1.1.8,41,-0.179,-0.179,-0.179,0.000,0.000,0.000
1643293266413063936,2022-01-27-14:21:06,10.1.1.8,39,-0.169,-0.169,-0.169,0.000,0.000,0.000
1643293266616110080,2022-01-27-14:21:06,10.1.1.8,41,-0.159,-0.159,-0.159,0.000,0.000,0.000
1643293266813385984,2022-01-27-14:21:06,10.1.1.8,37,-0.149,-0.149,-0.149,0.000,0.000,0.000
1643293267002952960,2022-01-27-14:21:07,10.1.1.8,26,-0.140,-0.140,-0.140,0.000,0.000,0.000
1643293267212659968,2022-01-27-14:21:07,10.1.1.8,35,-0.129,-0.129,-0.129,0.000,0.000,0.000
1643293267403086848,2022-01-27-14:21:07,10.1.1.8,24,-0.120,-0.120,-0.120,0.000,0.000,0.000
1643293267612935936,2022-01-27-14:21:07,10.1.1.8,33,-0.109,-0.109,-0.109,0.000,0.000,0.000
1643293267816248832,2022-01-27-14:21:07,10.1.1.8,36,-0.100,-0.100,-0.100,0.000,0.000,0.000
1643293268013075200,2022-01-27-14:21:08,10.1.1.8,32,-0.089,-0.089,-0.089,0.000,0.000,0.000
1643293268213277952,2022-01-27-14:21:08,10.1.1.8,31,-0.080,-0.080,-0.080,0.000,0.000,0.000
1643293268413465856,2022-01-27-14:21:08,10.1.1.8,31,-0.070,-0.070,-0.070,0.000,0.000,0.000
1643293268617222912,2022-01-27-14:21:08,10.1.1.8,31,-0.060,-0.060,-0.060,0.000,0.000,0.000
1643293268813630208,2022-01-27-14:21:08,10.1.1.8,29,-0.049,-0.049,-0.049,0.000,0.000,0.000
1643293269013236992,2022-01-27-14:21:09,10.1.1.8,28,-0.040,-0.040,-0.040,0.000,0.000,0.000
1643293269219012096,2022-01-27-14:21:09,10.1.1.8,32,-0.030,-0.030,-0.030,0.000,0.000,0.000
1643293269433007104,2022-01-27-14:21:09,10.1.1.8,45,-0.019,-0.019,-0.019,0.000,0.000,0.000
1643293269613327104,2022-01-27-14:21:09,10.1.1.8,25,-0.010,-0.010,-0.010,0.000,0.000,0.000
1643293269792804864,2022-01-27-14:21:09,10.1.1.8,3,-0.001,-0.001,-0.001,0.000,0.000,0.000
1643293270013158144,2022-01-27-14:21:10,10.1.1.8,23,-0.010,-0.010,-0.010,0.000,0.000,0.000
1643293270233138944,2022-01-27-14:21:10,10.1.1.8,41,-0.021,-0.021,-0.021,0.000,0.000,0.000
1643293270423634176,2022-01-27-14:21:10,10.1.1.8,30,-0.030,-0.030,-0.030,0.000,0.000,0.000
1643293270612998912,2022-01-27-14:21:10,10.1.1.8,18,-0.040,-0.040,-0.040,0.000,0.000,0.000
1643293270839736064,2022-01-27-14:21:10,10.1.1.8,44,-0.051,-0.051,-0.051,0.000,0.000,0.000
1643293271023136000,2022-01-27-14:21:11,10.1.1.8,27,-0.060,-0.060,-0.060,0.000,0.000,0.000
1643293271233298944,2022-01-27-14:21:11,10.1.1.8,37,-0.071,-0.071,-0.071,0.000,0.000,0.000
1643293271433188864,2022-01-27-14:21:11,10.1.1.8,36,-0.081,-0.081,-0.081,0.000,0.000,0.000
1643293271632986112,2022-01-27-14:21:11,10.1.1.8,35,-0.091,-0.091,-0.091,0.000,0.000,0.000
1643293271833684992,2022-01-27-14:21:11,10.1.1.8,35,-0.101,-0.101,-0.101,0.000,0.000,0.000
1643293272033121024,2022-01-27-14:21:12,10.1.1.8,33,-0.111,-0.111,-0.111,0.000,0.000,0.000
1643293272232822016,2022-01-27-14:21:12,10.1.1.8,32,-0.121,-0.121,-0.121,0.000,0.000,0.000
1643293272433121792,2022-01-27-14:21:12,10.1.1.8,32,-0.131,-0.131,-0.131,0.000,0.000,0.000
1643293272634247936,2022-01-27-14:21:12,10.1.1.8,32,-0.141,-0.141,-0.141,0.000,0.000,0.000
1643293272833897216,2022-01-27-14:21:12,10.1.1.8,31,-0.151,-0.151,-0.151,0.000,0.000,0.000
1643293273033154048,2022-01-27-14:21:13,10.1.1.8,29,-0.161,-0.161,-0.161,0.000,0.000,0.000
1643293273233156864,2022-01-27-14:21:13,10.1.1.8,28,-0.170,-0.170,-0.170,0.000,0.000,0.000
1643293273433016064,2022-01-27-14:21:13,10.1.1.8,26,-0.180,-0.180,-0.180,0.000,0.000,0.000
1643293273653603072,2022-01-27-14:21:13,10.1.1.8,46,-0.191,-0.191,-0.191,0.000,0.000,0.000
1643293273832700928,2022-01-27-14:21:13,10.1.1.8,24,-0.200,-0.200,-0.200,0.000,0.000,0.000
1643293274032798976,2022-01-27-14:21:14,10.1.1.8,23,-0.210,-0.210,-0.210,0.000,0.000,0.000
1643293274252443904,2022-01-27-14:21:14,10.1.1.8,41,-0.221,-0.221,-0.221,0.000,0.000,0.000
1643293274433054976,2022-01-27-14:21:14,10.1.1.8,21,-0.230,-0.230,-0.230,0.000,0.000,0.000
1643293274632929024,2022-01-27-14:21:14,10.1.1.8,20,-0.240,-0.240,-0.240,0.000,0.000,0.000
1643293274832513024,2022-01-27-14:21:14,10.1.1.8,18,-0.250,-0.250,-0.250,0.000,0.000,0.000
1643293275052208896,2022-01-27-14:21:15,10.1.1.8,37,-0.261,-0.261,-0.261,0.000,0.000,0.000
1643293275253058816,2022-01-27-14:21:15,10.1.1.8,35,-0.271,-0.271,-0.271,0.000,0.000,0.000
1643293275452433152,2022-01-27-14:21:15,10.1.1.8,33,-0.281,-0.281,-0.281,0.000,0.000,0.000
1643293275652759040,2022-01-27-14:21:15,10.1.1.8,32,-0.291,-0.291,-0.291,0.000,0.000,0.000
1643293275853005056,2022-01-27-14:21:15,10.1.1.8,31,-0.301,-0.301,-0.301,0.000,0.000,0.000
1643293276052550912,2022-01-27-14:21:16,10.1.1.8,30,-0.311,-0.311,-0.311,0.000,0.000,0.000
1643293276252644096,2022-01-27-14:21:16,10.1.1.8,30,-0.321,-0.321,-0.321,0.000,0.000,0.000
1643293276452346112,2022-01-27-14:21:16,10.1.1.8,29,-0.331,-0.331,-0.331,0.000,0.000,0.000
1643293276652327936,2022-01-27-14:21:16,10.1.1.8,28,-0.340,-0.340,-0.340,0.000,0.000,0.000
1643293276852819968,2022-01-27-14:21:16,10.1.1.8,27,-0.350,-0.350,-0.350,0.000,0.000,0.000
1643293277052758016,2022-01-27-14:21:17,10.1.1.8,26,-0.360,-0.360,-0.360,0.000,0.000,0.000
1643293277252471808,2022-01-27-14:21:17,10.1.1.8,25,-0.370,-0.370,-0.370,0.000,0.000,0.000
1643293277452523008,2022-01-27-14:21:17,10.1.1.8,24,-0.380,-0.380,-0.380,0.000,0.000,0.000
1643293277652332032,2022-01-27-14:21:17,10.1.1.8,23,-0.390,-0.390,-0.390,0.000,0.000,0.000
1643293277852631040,2022-01-27-14:21:17,10.1.1.8,23,-0.400,-0.400,-0.400,0.000,0.000,0.000
1643293278052333056,2022-01-27-14:21:18,10.1.1.8,22,-0.410,-0.410,-0.410,0.000,0.000,0.000
1643293278273406976,2022-01-27-14:21:18,10.1.1.8,33,-0.421,-0.421,-0.421,0.000,0.000,0.000
1643293278472551936,2022-01-27-14:21:18,10.1.1.8,32,-0.431,-0.431,-0.431,0.000,0.000,0.000
1643293278674288896,2022-01-27-14:21:18,10.1.1.8,33,-0.440,-0.440,-0.440,0.000,0.000,0.000
1643293278873014016,2022-01-27-14:21:18,10.1.1.8,31,-0.451,-0.451,-0.451,0.000,0.000,0.000
1643293279063411968,2022-01-27-14:21:19,10.1.1.8,21,-0.460,-0.460,-0.460,0.000,0.000,0.000
1643293279263240192,2022-01-27-14:21:19,10.1.1.8,20,-0.470,-0.470,-0.470,0.000,0.000,0.000
1643293279472562944,2022-01-27-14:21:19,10.1.1.8,29,-0.480,-0.480,-0.480,0.000,0.000,0.000
1643293279653809152,2022-01-27-14:21:19,10.1.1.8,9,-0.490,-0.490,-0.490,0.000,0.000,0.000
1643293279873285120,2022-01-27-14:21:19,10.1.1.8,28,-0.480,-0.480,-0.480,0.000,0.000,0.000
1643293280072652032,2022-01-27-14:21:20,10.1.1.8,26,-0.470,-0.470,-0.470,0.000,0.000,0.000
1643293280272444928,2022-01-27-14:21:20,10.1.1.8,25,-0.460,-0.460,-0.460,0.000,0.000,0.000
1643293280473063936,2022-01-27-14:21:20,10.1.1.8,24,-0.450,-0.450,-0.450,0.000,0.000,0.000
1643293280676953088,2022-01-27-14:21:20,10.1.1.8,28,-0.440,-0.440,-0.440,0.000,0.000,0.000
1643293280872677120,2022-01-27-14:21:20,10.1.1.8,23,-0.430,-0.430,-0.430,0.000,0.000,0.000
1643293281080177152,2022-01-27-14:21:21,10.1.1.8,24,-0.420,-0.420,-0.420,0.000,0.000,0.000
1643293281272646912,2022-01-27-14:21:21,10.1.1.8,22,-0.410,-0.410,-0.410,0.000,0.000,0.000
1643293281492889856,2022-01-27-14:21:21,10.1.1.8,40,-0.399,-0.399,-0.399,0.000,0.000,0.000
1643293281673006080,2022-01-27-14:21:21,10.1.1.8,20,-0.390,-0.390,-0.390,0.000,0.000,0.000
1643293281893265920,2022-01-27-14:21:21,10.1.1.8,40,-0.379,-0.379,-0.379,0.000,0.000,0.000
1643293282073112064,2022-01-27-14:21:22,10.1.1.8,18,-0.370,-0.370,-0.370,0.000,0.000,0.000
1643293282293339904,2022-01-27-14:21:22,10.1.1.8,38,-0.359,-0.359,-0.359,0.000,0.000,0.000
1643293282493240064,2022-01-27-14:21:22,10.1.1.8,37,-0.349,-0.349,-0.349,0.000,0.000,0.000
1643293282693238016,2022-01-27-14:21:22,10.1.1.8,36,-0.339,-0.339,-0.339,0.000,0.000,0.000
1643293282921993984,2022-01-27-14:21:22,10.1.1.8,64,-0.329,-0.329,-0.329,0.000,0.000,0.000
1643293283083272960,2022-01-27-14:21:23,10.1.1.8,25,-0.320,-0.320,-0.320,0.000,0.000,0.000
1643293283292871936,2022-01-27-14:21:23,10.1.1.8,34,-0.309,-0.309,-0.309,0.000,0.000,0.000
1643293283493275904,2022-01-27-14:21:23,10.1.1.8,34,-0.299,-0.299,-0.299,0.000,0.000,0.000
1643293283695433984,2022-01-27-14:21:23,10.1.1.8,34,-0.289,-0.289,-0.289,0.000,0.000,0.000
1643293283883078144,2022-01-27-14:21:23,10.1.1.8,23,-0.280,-0.280,-0.280,0.000,0.000,0.000
1643293284093238016,2022-01-27-14:21:24,10.1.1.8,32,-0.269,-0.269,-0.269,0.000,0.000,0.000
1643293284293261056,2022-01-27-14:21:24,10.1.1.8,32,-0.260,-0.260,-0.260,0.000,0.000,0.000
1643293284492374784,2022-01-27-14:21:24,10.1.1.8,31,-0.250,-0.250,-0.250,0.000,0.000,0.000
1643293284693231104,2022-01-27-14:21:24,10.1.1.8,31,-0.240,-0.240,-0.240,0.000,0.000,0.000
1643293284914338048,2022-01-27-14:21:24,10.1.1.8,51,-0.228,-0.228,-0.228,0.000,0.000,0.000
1643293285083361024,2022-01-27-14:21:25,10.1.1.8,20,-0.220,-0.220,-0.220,0.000,0.000,0.000
1643293285292913920,2022-01-27-14:21:25,10.1.1.8,29,-0.210,-0.210,-0.210,0.000,0.000,0.000
1643293285483279872,2022-01-27-14:21:25,10.1.1.8,19,-0.200,-0.200,-0.200,0.000,0.000,0.000
1643293285693512960,2022-01-27-14:21:25,10.1.1.8,28,-0.190,-0.190,-0.190,0.000,0.000,0.000
1643293285913073920,2022-01-27-14:21:25,10.1.1.8,47,-0.179,-0.179,-0.179,0.000,0.000,0.000
1643293286093074176,2022-01-27-14:21:26,10.1.1.8,26,-0.170,-0.170,-0.170,0.000,0.000,0.000
1643293286293494016,2022-01-27-14:21:26,10.1.1.8,26,-0.160,-0.160,-0.160,0.000,0.000,0.000
1643293286513171968,2022-01-27-14:21:26,10.1.1.8,45,-0.149,-0.149,-0.149,0.000,0.000,0.000
1643293286703010048,2022-01-27-14:21:26,10.1.1.8,34,-0.139,-0.139,-0.139,0.000,0.000,0.000
1643293286893851136,2022-01-27-14:21:26,10.1.1.8,24,-0.130,-0.130,-0.130,0.000,0.000,0.000
1643293287112497152,2022-01-27-14:21:27,10.1.1.8,43,-0.119,-0.119,-0.119,0.000,0.000,0.000
1643293287292828160,2022-01-27-14:21:27,10.1.1.8,23,-0.110,-0.110,-0.110,0.000,0.000,0.000
1643293287493051136,2022-01-27-14:21:27,10.1.1.8,22,-0.100,-0.100,-0.100,0.000,0.000,0.000
1643293287692986112,2022-01-27-14:21:27,10.1.1.8,22,-0.090,-0.090,-0.090,0.000,0.000,0.000
1643293287912691968,2022-01-27-14:21:27,10.1.1.8,40,-0.079,-0.079,-0.079,0.000,0.000,0.000
1643293288093884928,2022-01-27-14:21:28,10.1.1.8,19,-0.070,-0.070,-0.070,0.000,0.000,0.000
1643293288303070976,2022-01-27-14:21:28,10.1.1.8,28,-0.060,-0.060,-0.060,0.000,0.000,0.000
1643293288502679040,2022-01-27-14:21:28,10.1.1.8,27,-0.050,-0.050,-0.050,0.000,0.000,0.000
1643293288712722944,2022-01-27-14:21:28,10.1.1.8,36,-0.039,-0.039,-0.039,0.000,0.000,0.000
1643293288913212160,2022-01-27-14:21:28,10.1.1.8,36,-0.029,-0.029,-0.029,0.000,0.000,0.000
1643293289112925952,2022-01-27-14:21:29,10.1.1.8,35,-0.019,-0.019,-0.019,0.000,0.000,0.000
1643293289313345792,2022-01-27-14:21:29,10.1.1.8,35,-0.009,-0.009,-0.009,0.000,0.000,0.000
1643293289494728192,2022-01-27-14:21:29,10.1.1.8,16,-0.000,-0.000,-0.000,0.000,0.000,0.000
1643293289713157888,2022-01-27-14:21:29,10.1.1.8,33,-0.011,-0.011,-0.011,0.000,0.000,0.000
1643293289913264896,2022-01-27-14:21:29,10.1.1.8,32,-0.021,-0.021,-0.021,0.000,0.000,0.000
1643293290113192192,2022-01-27-14:21:30,10.1.1.8,32,-0.031,-0.031,-0.031,0.000,0.000,0.000
1643293290312786944,2022-01-27-14:21:30,10.1.1.8,31,-0.040,-0.040,-0.040,0.000,0.000,0.000
1643293290533144064,2022-01-27-14:21:30,10.1.1.8,50,-0.052,-0.052,-0.052,0.000,0.000,0.000
1643293290703049984,2022-01-27-14:21:30,10.1.1.8,20,-0.060,-0.060,-0.060,0.000,0.000,0.000
1643293290914040064,2022-01-27-14:21:30,10.1.1.8,30,-0.070,-0.070,-0.070,0.000,0.000,0.000
1643293291112740096,2022-01-27-14:21:31,10.1.1.8,28,-0.080,-0.080,-0.080,0.000,0.000,0.000
1643293291313214976,2022-01-27-14:21:31,10.1.1.8,28,-0.090,-0.090,-0.090,0.000,0.000,0.000
1643293291513138944,2022-01-27-14:21:31,10.1.1.8,26,-0.100,-0.100,-0.100,0.000,0.000,0.000
1643293291712685056,2022-01-27-14:21:31,10.1.1.8,25,-0.110,-0.110,-0.110,0.000,0.000,0.000
1643293291912812032,2022-01-27-14:21:31,10.1.1.8,24,-0.120,-0.120,-0.120,0.000,0.000,0.000
1643293292112937984,2022-01-27-14:21:32,10.1.1.8,23,-0.130,-0.130,-0.130,0.000,0.000,0.000
1643293292313012992,2022-01-27-14:21:32,10.1.1.8,23,-0.140,-0.140,-0.140,0.000,0.000,0.000
1643293292533040896,2022-01-27-14:21:32,10.1.1.8,42,-0.151,-0.151,-0.151,0.000,0.000,0.000
1643293292712897024,2022-01-27-14:21:32,10.1.1.8,20,-0.160,-0.160,-0.160,0.000,0.000,0.000
1643293292913336064,2022-01-27-14:21:32,10.1.1.8,20,-0.170,-0.170,-0.170,0.000,0.000,0.000
1643293293113056000,2022-01-27-14:21:33,10.1.1.8,19,-0.180,-0.180,-0.180,0.000,0.000,0.000
1643293293312845056,2022-01-27-14:21:33,10.1.1.8,19,-0.190,-0.190,-0.190,0.000,0.000,0.000
1643293293513230080,2022-01-27-14:21:33,10.1.1.8,18,-0.200,-0.200,-0.200,0.000,0.000,0.000
1643293293732767232,2022-01-27-14:21:33,10.1.1.8,37,-0.211,-0.211,-0.211,0.000,0.000,0.000
1643293293923012096,2022-01-27-14:21:33,10.1.1.8,27,-0.220,-0.220,-0.220,0.000,0.000,0.000
1643293294132950016,2022-01-27-14:21:34,10.1.1.8,36,-0.231,-0.231,-0.231,0.000,0.000,0.000
1643293294333178880,2022-01-27-14:21:34,10.1.1.8,36,-0.241,-0.241,-0.241,0.000,0.000,0.000
1643293294522855936,2022-01-27-14:21:34,10.1.1.8,25,-0.250,-0.250,-0.250,0.000,0.000,0.000
1643293294722745856,2022-01-27-14:21:34,10.1.1.8,24,-0.260,-0.260,-0.260,0.000,0.000,0.000
1643293294923046144,2022-01-27-14:21:34,10.1.1.8,24,-0.270,-0.270,-0.270,0.000,0.000,0.000
1643293295132833024,2022-01-27-14:21:35,10.1.1.8,32,-0.281,-0.281,-0.281,0.000,0.000,0.000
1643293295332980992,2022-01-27-14:21:35,10.1.1.8,32,-0.291,-0.291,-0.291,0.000,0.000,0.000
1643293295533271040,2022-01-27-14:21:35,10.1.1.8,32,-0.301,-0.301,-0.301,0.000,0.000,0.000
1643293295739113984,2022-01-27-14:21:35,10.1.1.8,34,-0.311,-0.311,-0.311,0.000,0.000,0.000
1643293295932737024,2022-01-27-14:21:35,10.1.1.8,29,-0.321,-0.321,-0.321,0.000,0.000,0.000
1643293296132097024,2022-01-27-14:21:36,10.1.1.8,28,-0.331,-0.331,-0.331,0.000,0.000,0.000
1643293296332633088,2022-01-27-14:21:36,10.1.1.8,27,-0.340,-0.340,-0.340,0.000,0.000,0.000
1643293296532835840,2022-01-27-14:21:36,10.1.1.8,26,-0.350,-0.350,-0.350,0.000,0.000,0.000
1643293296732430080,2022-01-27-14:21:36,10.1.1.8,26,-0.360,-0.360,-0.360,0.000,0.000,0.000
1643293296932851200,2022-01-27-14:21:36,10.1.1.8,26,-0.370,-0.370,-0.370,0.000,0.000,0.000
1643293297133953024,2022-01-27-14:21:37,10.1.1.8,25,-0.380,-0.380,-0.380,0.000,0.000,0.000
1643293297332849152,2022-01-27-14:21:37,10.1.1.8,23,-0.390,-0.390,-0.390,0.000,0.000,0.000
1643293297532787200,2022-01-27-14:21:37,10.1.1.8,22,-0.400,-0.400,-0.400,0.000,0.000,0.000
1643293297753280000,2022-01-27-14:21:37,10.1.1.8,42,-0.411,-0.411,-0.411,0.000,0.000,0.000
1643293297936019968,2022-01-27-14:21:37,10.1.1.8,24,-0.420,-0.420,-0.420,0.000,0.000,0.000
1643293298153632000,2022-01-27-14:21:38,10.1.1.8,40,-0.431,-0.431,-0.431,0.000,0.000,0.000
1643293298332647168,2022-01-27-14:21:38,10.1.1.8,19,-0.440,-0.440,-0.440,0.000,0.000,0.000
1643293298552601088,2022-01-27-14:21:38,10.1.1.8,38,-0.451,-0.451,-0.451,0.000,0.000,0.000
1643293298753405184,2022-01-27-14:21:38,10.1.1.8,37,-0.461,-0.461,-0.461,0.000,0.000,0.000
1643293298952817920,2022-01-27-14:21:38,10.1.1.8,35,-0.471,-0.471,-0.471,0.000,0.000,0.000
1643293299152915968,2022-01-27-14:21:39,10.1.1.8,34,-0.481,-0.481,-0.481,0.000,0.000,0.000
1643293299334119168,2022-01-27-14:21:39,10.1.1.8,14,-0.490,-0.490,-0.490,0.000,0.000,0.000
1643293299552680960,2022-01-27-14:21:39,10.1.1.8,32,-0.479,-0.479,-0.479,0.000,0.000,0.000
1643293299753278976,2022-01-27-14:21:39,10.1.1.8,32,-0.469,-0.469,-0.469,0.000,0.000,0.000
1643293299953934080,2022-01-27-14:21:39,10.1.1.8,32,-0.459,-0.459,-0.459,0.000,0.000,0.000
1643293300152623872,2022-01-27-14:21:40,10.1.1.8,30,-0.449,-0.449,-0.449,0.000,0.000,0.000
1643293300373928192,2022-01-27-14:21:40,10.1.1.8,51,-0.438,-0.438,-0.438,0.000,0.000,0.000
1643293300552452096,2022-01-27-14:21:40,10.1.1.8,29,-0.429,-0.429,-0.429,0.000,0.000,0.000
1643293300753009152,2022-01-27-14:21:40,10.1.1.8,29,-0.420,-0.420,-0.420,0.000,0.000,0.000
1643293300953339136,2022-01-27-14:21:40,10.1.1.8,29,-0.410,-0.410,-0.410,0.000,0.000,0.000
1643293301152916992,2022-01-27-14:21:41,10.1.1.8,27,-0.400,-0.400,-0.400,0.000,0.000,0.000
1643293301352651008,2022-01-27-14:21:41,10.1.1.8,26,-0.390,-0.390,-0.390,0.000,0.000,0.000
1643293301552887040,2022-01-27-14:21:41,10.1.1.8,25,-0.380,-0.380,-0.380,0.000,0.000,0.000
1643293301753142016,2022-01-27-14:21:41,10.1.1.8,25,-0.370,-0.370,-0.370,0.000,0.000,0.000
1643293301952670208,2022-01-27-14:21:41,10.1.1.8,24,-0.360,-0.360,-0.360,0.000,0.000,0.000
1643293302153065984,2022-01-27-14:21:42,10.1.1.8,23,-0.350,-0.350,-0.350,0.000,0.000,0.000
1643293302352986112,2022-01-27-14:21:42,10.1.1.8,23,-0.340,-0.340,-0.340,0.000,0.000,0.000
1643293302553116928,2022-01-27-14:21:42,10.1.1.8,22,-0.330,-0.330,-0.330,0.000,0.000,0.000
1643293302757767936,2022-01-27-14:21:42,10.1.1.8,23,-0.320,-0.320,-0.320,0.000,0.000,0.000
1643293302972603136,2022-01-27-14:21:42,10.1.1.8,40,-0.309,-0.309,-0.309,0.000,0.000,0.000
1643293303173125888,2022-01-27-14:21:43,10.1.1.8,40,-0.299,-0.299,-0.299,0.000,0.000,0.000
1643293303373250048,2022-01-27-14:21:43,10.1.1.8,40,-0.289,-0.289,-0.289,0.000,0.000,0.000
1643293303573064960,2022-01-27-14:21:43,10.1.1.8,38,-0.279,-0.279,-0.279,0.000,0.000,0.000
1643293303763729152,2022-01-27-14:21:43,10.1.1.8,27,-0.270,-0.270,-0.270,0.000,0.000,0.000
1643293303972659968,2022-01-27-14:21:43,10.1.1.8,35,-0.259,-0.259,-0.259,0.000,0.000,0.000
1643293304172745984,2022-01-27-14:21:44,10.1.1.8,35,-0.249,-0.249,-0.249,0.000,0.000,0.000
1643293304372783872,2022-01-27-14:21:44,10.1.1.8,34,-0.239,-0.239,-0.239,0.000,0.000,0.000
1643293304601443072,2022-01-27-14:21:44,10.1.1.8,62,-0.229,-0.229,-0.229,0.000,0.000,0.000
1643293304763379200,2022-01-27-14:21:44,10.1.1.8,23,-0.220,-0.220,-0.220,0.000,0.000,0.000
1643293304993132032,2022-01-27-14:21:44,10.1.1.8,41,-0.209,-0.209,-0.209,0.000,0.000,0.000
1643293305193468928,2022-01-27-14:21:45,10.1.1.8,30,-0.199,-0.199,-0.199,0.000,0.000,0.000
1643293305392827136,2022-01-27-14:21:45,10.1.1.8,29,-0.189,-0.189,-0.189,0.000,0.000,0.000
1643293305592868096,2022-01-27-14:21:45,10.1.1.8,28,-0.180,-0.180,-0.180,0.000,0.000,0.000
1643293305792915200,2022-01-27-14:21:45,10.1.1.8,27,-0.170,-0.170,-0.170,0.000,0.000,0.000
1643293305992793088,2022-01-27-14:21:45,10.1.1.8,26,-0.160,-0.160,-0.160,0.000,0.000,0.000
1643293306193548032,2022-01-27-14:21:46,10.1.1.8,26,-0.150,-0.150,-0.150,0.000,0.000,0.000
1643293306413217024,2022-01-27-14:21:46,10.1.1.8,45,-0.139,-0.139,-0.139,0.000,0.000,0.000
1643293306592751104,2022-01-27-14:21:46,10.1.1.8,24,-0.130,-0.130,-0.130,0.000,0.000,0.000
1643293306792793088,2022-01-27-14:21:46,10.1.1.8,24,-0.120,-0.120,-0.120,0.000,0.000,0.000
1643293306994324992,2022-01-27-14:21:46,10.1.1.8,25,-0.110,-0.110,-0.110,0.000,0.000,0.000
1643293307192950016,2022-01-27-14:21:47,10.1.1.8,23,-0.100,-0.100,-0.100,0.000,0.000,0.000
1643293307393434880,2022-01-27-14:21:47,10.1.1.8,23,-0.090,-0.090,-0.090,0.000,0.000,0.000
1643293307592521984,2022-01-27-14:21:47,10.1.1.8,21,-0.080,-0.080,-0.080,0.000,0.000,0.000
1643293307813043200,2022-01-27-14:21:47,10.1.1.8,40,-0.069,-0.069,-0.069,0.000,0.000,0.000
1643293308013051904,2022-01-27-14:21:48,10.1.1.8,37,-0.059,-0.059,-0.059,0.000,0.000,0.000
1643293308213072896,2022-01-27-14:21:48,10.1.1.8,36,-0.049,-0.049,-0.049,0.000,0.000,0.000
1643293308413122048,2022-01-27-14:21:48,10.1.1.8,36,-0.039,-0.039,-0.039,0.000,0.000,0.000
1643293308612679936,2022-01-27-14:21:48,10.1.1.8,35,-0.029,-0.029,-0.029,0.000,0.000,0.000
1643293308813110016,2022-01-27-14:21:48,10.1.1.8,35,-0.019,-0.019,-0.019,0.000,0.000,0.000
1643293309013115904,2022-01-27-14:21:49,10.1.1.8,34,-0.010,-0.010,-0.010,0.000,0.000,0.000
1643293309183109120,2022-01-27-14:21:49,10.1.1.8,3,-0.001,-0.001,-0.001,0.000,0.000,0.000
1643293309412884992,2022-01-27-14:21:49,10.1.1.8,33,-0.011,-0.011,-0.011,0.000,0.000,0.000
1643293309612862208,2022-01-27-14:21:49,10.1.1.8,32,-0.021,-0.021,-0.021,0.000,0.000,0.000
1643293309813332992,2022-01-27-14:21:49,10.1.1.8,32,-0.031,-0.031,-0.031,0.000,0.000,0.000
1643293310012655872,2022-01-27-14:21:50,10.1.1.8,30,-0.041,-0.041,-0.041,0.000,0.000,0.000
1643293310213536000,2022-01-27-14:21:50,10.1.1.8,31,-0.050,-0.050,-0.050,0.000,0.000,0.000
1643293310412894976,2022-01-27-14:21:50,10.1.1.8,29,-0.060,-0.060,-0.060,0.000,0.000,0.000
1643293310613089024,2022-01-27-14:21:50,10.1.1.8,29,-0.071,-0.071,-0.071,0.000,0.000,0.000
1643293310802895104,2022-01-27-14:21:50,10.1.1.8,18,-0.080,-0.080,-0.080,0.000,0.000,0.000
1643293311003408896,2022-01-27-14:21:51,10.1.1.8,18,-0.090,-0.090,-0.090,0.000,0.000,0.000
1643293311220568064,2022-01-27-14:21:51,10.1.1.8,33,-0.100,-0.100,-0.100,0.000,0.000,0.000
1643293311432951040,2022-01-27-14:21:51,10.1.1.8,44,-0.111,-0.111,-0.111,0.000,0.000,0.000
1643293311612860928,2022-01-27-14:21:51,10.1.1.8,24,-0.120,-0.120,-0.120,0.000,0.000,0.000
1643293311812904960,2022-01-27-14:21:51,10.1.1.8,23,-0.130,-0.130,-0.130,0.000,0.000,0.000
1643293312023387904,2022-01-27-14:21:52,10.1.1.8,31,-0.141,-0.141,-0.141,0.000,0.000,0.000
1643293312232733952,2022-01-27-14:21:52,10.1.1.8,39,-0.151,-0.151,-0.151,0.000,0.000,0.000
1643293312432578048,2022-01-27-14:21:52,10.1.1.8,39,-0.161,-0.161,-0.161,0.000,0.000,0.000
1643293312612756992,2022-01-27-14:21:52,10.1.1.8,18,-0.170,-0.170,-0.170,0.000,0.000,0.000
1643293312832470016,2022-01-27-14:21:52,10.1.1.8,37,-0.181,-0.181,-0.181,0.000,0.000,0.000
1643293313032877056,2022-01-27-14:21:53,10.1.1.8,37,-0.191,-0.191,-0.191,0.000,0.000,0.000
1643293313233787136,2022-01-27-14:21:53,10.1.1.8,37,-0.201,-0.201,-0.201,0.000,0.000,0.000
1643293313422626048,2022-01-27-14:21:53,10.1.1.8,26,-0.210,-0.210,-0.210,0.000,0.000,0.000
1643293313633650176,2022-01-27-14:21:53,10.1.1.8,36,-0.221,-0.221,-0.221,0.000,0.000,0.000
1643293313823272960,2022-01-27-14:21:53,10.1.1.8,25,-0.230,-0.230,-0.230,0.000,0.000,0.000
1643293314033628928,2022-01-27-14:21:54,10.1.1.8,34,-0.241,-0.241,-0.241,0.000,0.000,0.000
1643293314232518912,2022-01-27-14:21:54,10.1.1.8,33,-0.251,-0.251,-0.251,0.000,0.000,0.000
1643293314432873984,2022-01-27-14:21:54,10.1.1.8,32,-0.261,-0.261,-0.261,0.000,0.000,0.000
1643293314632841984,2022-01-27-14:21:54,10.1.1.8,32,-0.271,-0.271,-0.271,0.000,0.000,0.000
1643293314832587008,2022-01-27-14:21:54,10.1.1.8,31,-0.281,-0.281,-0.281,0.000,0.000,0.000
1643293315032620800,2022-01-27-14:21:55,10.1.1.8,30,-0.291,-0.291,-0.291,0.000,0.000,0.000
1643293315252824064,2022-01-27-14:21:55,10.1.1.8,49,-0.302,-0.302,-0.302,0.000,0.000,0.000
1643293315432683008,2022-01-27-14:21:55,10.1.1.8,29,-0.311,-0.311,-0.311,0.000,0.000,0.000
1643293315632569088,2022-01-27-14:21:55,10.1.1.8,27,-0.320,-0.320,-0.320,0.000,0.000,0.000
1643293315832947968,2022-01-27-14:21:55,10.1.1.8,26,-0.330,-0.330,-0.330,0.000,0.000,0.000
1643293316035376128,2022-01-27-14:21:56,10.1.1.8,25,-0.340,-0.340,-0.340,0.000,0.000,0.000
1643293316232418048,2022-01-27-14:21:56,10.1.1.8,24,-0.350,-0.350,-0.350,0.000,0.000,0.000
1643293316432705024,2022-01-27-14:21:56,10.1.1.8,24,-0.360,-0.360,-0.360,0.000,0.000,0.000
1643293316632481024,2022-01-27-14:21:56,10.1.1.8,23,-0.370,-0.370,-0.370,0.000,0.000,0.000
1643293316832422912,2022-01-27-14:21:56,10.1.1.8,22,-0.380,-0.380,-0.380,0.000,0.000,0.000
1643293317052613120,2022-01-27-14:21:57,10.1.1.8,41,-0.391,-0.391,-0.391,0.000,0.000,0.000
1643293317233400064,2022-01-27-14:21:57,10.1.1.8,21,-0.400,-0.400,-0.400,0.000,0.000,0.000
1643293317453171968,2022-01-27-14:21:57,10.1.1.8,40,-0.411,-0.411,-0.411,0.000,0.000,0.000
1643293317643162880,2022-01-27-14:21:57,10.1.1.8,30,-0.421,-0.421,-0.421,0.000,0.000,0.000
1643293317842920192,2022-01-27-14:21:57,10.1.1.8,29,-0.431,-0.431,-0.431,0.000,0.000,0.000
1643293318053448960,2022-01-27-14:21:58,10.1.1.8,39,-0.441,-0.441,-0.441,0.000,0.000,0.000
1643293318253058048,2022-01-27-14:21:58,10.1.1.8,38,-0.451,-0.451,-0.451,0.000,0.000,0.000
1643293318452805888,2022-01-27-14:21:58,10.1.1.8,37,-0.461,-0.461,-0.461,0.000,0.000,0.000
1643293318644264960,2022-01-27-14:21:58,10.1.1.8,27,-0.470,-0.470,-0.470,0.000,0.000,0.000
1643293318852883968,2022-01-27-14:21:58,10.1.1.8,35,-0.481,-0.481,-0.481,0.000,0.000,0.000
1643293319033184000,2022-01-27-14:21:59,10.1.1.8,15,-0.490,-0.490,-0.490,0.000,0.000,0.000
1643293319243225088,2022-01-27-14:21:59,10.1.1.8,25,-0.480,-0.480,-0.480,0.000,0.000,0.000
1643293319452898048,2022-01-27-14:21:59,10.1.1.8,34,-0.469,-0.469,-0.469,0.000,0.000,0.000
1643293319643421952,2022-01-27-14:21:59,10.1.1.8,24,-0.460,-0.460,-0.460,0.000,0.000,0.000
1643293319855348224,2022-01-27-14:21:59,10.1.1.8,34,-0.449,-0.449,-0.449,0.000,0.000,0.000
1643293320053436928,2022-01-27-14:22:00,10.1.1.8,31,-0.439,-0.439,-0.439,0.000,0.000,0.000
1643293320253956096,2022-01-27-14:22:00,10.1.1.8,31,-0.429,-0.429,-0.429,0.000,0.000,0.000
1643293320453413120,2022-01-27-14:22:00,10.1.1.8,29,-0.420,-0.420,-0.420,0.000,0.000,0.000
1643293320653695232,2022-01-27-14:22:00,10.1.1.8,28,-0.410,-0.410,-0.410,0.000,0.000,0.000
1643293320853410048,2022-01-27-14:22:00,10.1.1.8,25,-0.400,-0.400,-0.400,0.000,0.000,0.000
1643293321053177088,2022-01-27-14:22:01,10.1.1.8,23,-0.390,-0.390,-0.390,0.000,0.000,0.000
1643293321273374208,2022-01-27-14:22:01,10.1.1.8,42,-0.379,-0.379,-0.379,0.000,0.000,0.000
1643293321473367808,2022-01-27-14:22:01,10.1.1.8,41,-0.369,-0.369,-0.369,0.000,0.000,0.000
1643293321653240832,2022-01-27-14:22:01,10.1.1.8,20,-0.360,-0.360,-0.360,0.000,0.000,0.000
1643293321863535872,2022-01-27-14:22:01,10.1.1.8,28,-0.350,-0.350,-0.350,0.000,0.000,0.000
1643293322073681152,2022-01-27-14:22:02,10.1.1.8,37,-0.339,-0.339,-0.339,0.000,0.000,0.000
1643293322275024896,2022-01-27-14:22:02,10.1.1.8,37,-0.329,-0.329,-0.329,0.000,0.000,0.000
1643293322473254912,2022-01-27-14:22:02,10.1.1.8,35,-0.319,-0.319,-0.319,0.000,0.000,0.000
1643293322673501952,2022-01-27-14:22:02,10.1.1.8,34,-0.309,-0.309,-0.309,0.000,0.000,0.000
1643293322864339968,2022-01-27-14:22:02,10.1.1.8,23,-0.300,-0.300,-0.300,0.000,0.000,0.000
1643293323073319936,2022-01-27-14:22:03,10.1.1.8,32,-0.289,-0.289,-0.289,0.000,0.000,0.000
1643293323272589824,2022-01-27-14:22:03,10.1.1.8,31,-0.279,-0.279,-0.279,0.000,0.000,0.000
1643293323473385984,2022-01-27-14:22:03,10.1.1.8,31,-0.269,-0.269,-0.269,0.000,0.000,0.000
1643293323673955072,2022-01-27-14:22:03,10.1.1.8,30,-0.260,-0.260,-0.260,0.000,0.000,0.000
1643293323873177088,2022-01-27-14:22:03,10.1.1.8,29,-0.249,-0.249,-0.249,0.000,0.000,0.000
1643293324083758080,2022-01-27-14:22:04,10.1.1.8,38,-0.240,-0.240,-0.240,0.000,0.000,0.000
1643293324293346048,2022-01-27-14:22:04,10.1.1.8,42,-0.229,-0.229,-0.229,0.000,0.000,0.000
1643293324493246976,2022-01-27-14:22:04,10.1.1.8,41,-0.219,-0.219,-0.219,0.000,0.000,0.000
1643293324693598976,2022-01-27-14:22:04,10.1.1.8,40,-0.209,-0.209,-0.209,0.000,0.000,0.000
1643293324893547008,2022-01-27-14:22:04,10.1.1.8,37,-0.199,-0.199,-0.199,0.000,0.000,0.000
1643293325093316096,2022-01-27-14:22:05,10.1.1.8,36,-0.189,-0.189,-0.189,0.000,0.000,0.000
1643293325293270016,2022-01-27-14:22:05,10.1.1.8,36,-0.179,-0.179,-0.179,0.000,0.000,0.000
1643293325492934912,2022-01-27-14:22:05,10.1.1.8,35,-0.169,-0.169,-0.169,0.000,0.000,0.000
1643293325693281024,2022-01-27-14:22:05,10.1.1.8,35,-0.159,-0.159,-0.159,0.000,0.000,0.000
1643293325893426944,2022-01-27-14:22:05,10.1.1.8,34,-0.149,-0.149,-0.149,0.000,0.000,0.000
1643293326092901888,2022-01-27-14:22:06,10.1.1.8,31,-0.140,-0.140,-0.140,0.000,0.000,0.000
1643293326283316992,2022-01-27-14:22:06,10.1.1.8,20,-0.130,-0.130,-0.130,0.000,0.000,0.000
1643293326493213952,2022-01-27-14:22:06,10.1.1.8,29,-0.119,-0.119,-0.119,0.000,0.000,0.000
1643293326693201920,2022-01-27-14:22:06,10.1.1.8,28,-0.110,-0.110,-0.110,0.000,0.000,0.000
1643293326894368768,2022-01-27-14:22:06,10.1.1.8,28,-0.100,-0.100,-0.100,0.000,0.000,0.000
1643293327092969984,2022-01-27-14:22:07,10.1.1.8,26,-0.090,-0.090,-0.090,0.000,0.000,0.000
1643293327294065920,2022-01-27-14:22:07,10.1.1.8,26,-0.080,-0.080,-0.080,0.000,0.000,0.000
1643293327493361920,2022-01-27-14:22:07,10.1.1.8,24,-0.070,-0.070,-0.070,0.000,0.000,0.000
1643293327693638912,2022-01-27-14:22:07,10.1.1.8,24,-0.060,-0.060,-0.060,0.000,0.000,0.000
1643293327893737984,2022-01-27-14:22:07,10.1.1.8,23,-0.050,-0.050,-0.050,0.000,0.000,0.000
1643293328093869056,2022-01-27-14:22:08,10.1.1.8,22,-0.040,-0.040,-0.040,0.000,0.000,0.000
1643293328313438976,2022-01-27-14:22:08,10.1.1.8,42,-0.029,-0.029,-0.029,0.000,0.000,0.000
1643293328504550912,2022-01-27-14:22:08,10.1.1.8,32,-0.019,-0.019,-0.019,0.000,0.000,0.000
1643293328713182976,2022-01-27-14:22:08,10.1.1.8,40,-0.009,-0.009,-0.009,0.000,0.000,0.000
1643293328874084096,2022-01-27-14:22:08,10.1.1.8,0,-0.001,-0.001,-0.001,0.000,0.000,0.000
1643293329112787968,2022-01-27-14:22:09,10.1.1.8,35,-0.011,-0.011,-0.011,0.000,0.000,0.000
1643293329313106944,2022-01-27-14:22:09,10.1.1.8,35,-0.021,-0.021,-0.021,0.000,0.000,0.000
1643293329513558016,2022-01-27-14:22:09,10.1.1.8,35,-0.031,-0.031,-0.031,0.000,0.000,0.000
1643293329712954112,2022-01-27-14:22:09,10.1.1.8,33,-0.041,-0.041,-0.041,0.000,0.000,0.000
1643293329913222912,2022-01-27-14:22:09,10.1.1.8,32,-0.051,-0.051,-0.051,0.000,0.000,0.000
1643293330113764096,2022-01-27-14:22:10,10.1.1.8,32,-0.060,-0.060,-0.060,0.000,0.000,0.000
1643293330313785088,2022-01-27-14:22:10,10.1.1.8,30,-0.071,-0.071,-0.071,0.000,0.000,0.000
1643293330513634048,2022-01-27-14:22:10,10.1.1.8,28,-0.080,-0.080,-0.080,0.000,0.000,0.000
1643293330713246976,2022-01-27-14:22:10,10.1.1.8,26,-0.090,-0.090,-0.090,0.000,0.000,0.000
1643293330933216000,2022-01-27-14:22:10,10.1.1.8,45,-0.101,-0.101,-0.101,0.000,0.000,0.000
1643293331115257088,2022-01-27-14:22:11,10.1.1.8,26,-0.110,-0.110,-0.110,0.000,0.000,0.000
1643293331317101056,2022-01-27-14:22:11,10.1.1.8,27,-0.120,-0.120,-0.120,0.000,0.000,0.000
1643293331513186048,2022-01-27-14:22:11,10.1.1.8,21,-0.130,-0.130,-0.130,0.000,0.000,0.000
1643293331712729856,2022-01-27-14:22:11,10.1.1.8,20,-0.140,-0.140,-0.140,0.000,0.000,0.000
1643293331913155072,2022-01-27-14:22:11,10.1.1.8,20,-0.150,-0.150,-0.150,0.000,0.000,0.000
1643293332132550912,2022-01-27-14:22:12,10.1.1.8,39,-0.161,-0.161,-0.161,0.000,0.000,0.000
1643293332333252864,2022-01-27-14:22:12,10.1.1.8,36,-0.171,-0.171,-0.171,0.000,0.000,0.000
1643293332533149952,2022-01-27-14:22:12,10.1.1.8,35,-0.181,-0.181,-0.181,0.000,0.000,0.000
1643293332724718080,2022-01-27-14:22:12,10.1.1.8,25,-0.190,-0.190,-0.190,0.000,0.000,0.000
1643293332932795136,2022-01-27-14:22:12,10.1.1.8,32,-0.201,-0.201,-0.201,0.000,0.000,0.000
1643293333132687104,2022-01-27-14:22:13,10.1.1.8,31,-0.211,-0.211,-0.211,0.000,0.000,0.000
1643293333333050112,2022-01-27-14:22:13,10.1.1.8,31,-0.221,-0.221,-0.221,0.000,0.000,0.000
1643293333533342976,2022-01-27-14:22:13,10.1.1.8,31,-0.230,-0.230,-0.230,0.000,0.000,0.000
1643293333733995008,2022-01-27-14:22:13,10.1.1.8,31,-0.241,-0.241,-0.241,0.000,0.000,0.000
1643293333932804096,2022-01-27-14:22:13,10.1.1.8,29,-0.251,-0.251,-0.251,0.000,0.000,0.000
1643293334133035776,2022-01-27-14:22:14,10.1.1.8,28,-0.260,-0.260,-0.260,0.000,0.000,0.000
1643293334333741056,2022-01-27-14:22:14,10.1.1.8,26,-0.270,-0.270,-0.270,0.000,0.000,0.000
1643293334538233088,2022-01-27-14:22:14,10.1.1.8,30,-0.280,-0.280,-0.280,0.000,0.000,0.000
1643293334732440832,2022-01-27-14:22:14,10.1.1.8,24,-0.290,-0.290,-0.290,0.000,0.000,0.000
1643293334940068864,2022-01-27-14:22:14,10.1.1.8,30,-0.300,-0.300,-0.300,0.000,0.000,0.000
1643293335132672000,2022-01-27-14:22:15,10.1.1.8,22,-0.310,-0.310,-0.310,0.000,0.000,0.000
1643293335352951040,2022-01-27-14:22:15,10.1.1.8,41,-0.321,-0.321,-0.321,0.000,0.000,0.000
1643293335533821184,2022-01-27-14:22:15,10.1.1.8,21,-0.330,-0.330,-0.330,0.000,0.000,0.000
1643293335732989952,2022-01-27-14:22:15,10.1.1.8,19,-0.340,-0.340,-0.340,0.000,0.000,0.000
1643293335945161216,2022-01-27-14:22:15,10.1.1.8,30,-0.350,-0.350,-0.350,0.000,0.000,0.000
1643293336153107968,2022-01-27-14:22:16,10.1.1.8,36,-0.361,-0.361,-0.361,0.000,0.000,0.000
1643293336353581056,2022-01-27-14:22:16,10.1.1.8,36,-0.371,-0.371,-0.371,0.000,0.000,0.000
1643293336552830976,2022-01-27-14:22:16,10.1.1.8,35,-0.381,-0.381,-0.381,0.000,0.000,0.000
1643293336753287168,2022-01-27-14:22:16,10.1.1.8,35,-0.391,-0.391,-0.391,0.000,0.000,0.000
1643293336952953088,2022-01-27-14:22:16,10.1.1.8,34,-0.401,-0.401,-0.401,0.000,0.000,0.000
1643293337153469952,2022-01-27-14:22:17,10.1.1.8,34,-0.411,-0.411,-0.411,0.000,0.000,0.000
1643293337353296896,2022-01-27-14:22:17,10.1.1.8,33,-0.421,-0.421,-0.421,0.000,0.000,0.000
1643293337553609984,2022-01-27-14:22:17,10.1.1.8,33,-0.431,-0.431,-0.431,0.000,0.000,0.000
1643293337753464832,2022-01-27-14:22:17,10.1.1.8,31,-0.441,-0.441,-0.441,0.000,0.000,0.000
1643293337958196992,2022-01-27-14:22:17,10.1.1.8,35,-0.451,-0.451,-0.451,0.000,0.000,0.000
1643293338153145088,2022-01-27-14:22:18,10.1.1.8,28,-0.460,-0.460,-0.460,0.000,0.000,0.000
1643293338353720832,2022-01-27-14:22:18,10.1.1.8,27,-0.470,-0.470,-0.470,0.000,0.000,0.000
1643293338554050816,2022-01-27-14:22:18,10.1.1.8,26,-0.480,-0.480,-0.480,0.000,0.000,0.000
1643293338733372928,2022-01-27-14:22:18,10.1.1.8,4,-0.489,-0.489,-0.489,0.000,0.000,0.000
1643293338953420032,2022-01-27-14:22:18,10.1.1.8,23,-0.480,-0.480,-0.480,0.000,0.000,0.000
1643293339174888960,2022-01-27-14:22:19,10.1.1.8,42,-0.469,-0.469,-0.469,0.000,0.000,0.000
1643293339373980928,2022-01-27-14:22:19,10.1.1.8,43,-0.459,-0.459,-0.459,0.000,0.000,0.000
1643293339563956992,2022-01-27-14:22:19,10.1.1.8,32,-0.450,-0.450,-0.450,0.000,0.000,0.000
1643293339773415936,2022-01-27-14:22:19,10.1.1.8,41,-0.439,-0.439,-0.439,0.000,0.000,0.000
1643293339973159936,2022-01-27-14:22:19,10.1.1.8,40,-0.429,-0.429,-0.429,0.000,0.000,0.000
1643293340164544000,2022-01-27-14:22:20,10.1.1.8,31,-0.419,-0.419,-0.419,0.000,0.000,0.000
1643293340363533056,2022-01-27-14:22:20,10.1.1.8,28,-0.410,-0.410,-0.410,0.000,0.000,0.000
1643293340573339904,2022-01-27-14:22:20,10.1.1.8,37,-0.399,-0.399,-0.399,0.000,0.000,0.000
1643293340763159040,2022-01-27-14:22:20,10.1.1.8,26,-0.390,-0.390,-0.390,0.000,0.000,0.000
1643293340974729984,2022-01-27-14:22:20,10.1.1.8,36,-0.379,-0.379,-0.379,0.000,0.000,0.000
1643293341173587200,2022-01-27-14:22:21,10.1.1.8,34,-0.369,-0.369,-0.369,0.000,0.000,0.000
1643293341372910080,2022-01-27-14:22:21,10.1.1.8,33,-0.359,-0.359,-0.359,0.000,0.000,0.000
1643293341574152960,2022-01-27-14:22:21,10.1.1.8,33,-0.349,-0.349,-0.349,0.000,0.000,0.000
1643293341773382912,2022-01-27-14:22:21,10.1.1.8,32,-0.339,-0.339,-0.339,0.000,0.000,0.000
1643293341973102080,2022-01-27-14:22:21,10.1.1.8,31,-0.330,-0.330,-0.330,0.000,0.000,0.000
1643293342173128960,2022-01-27-14:22:22,10.1.1.8,30,-0.319,-0.319,-0.319,0.000,0.000,0.000
1643293342376627968,2022-01-27-14:22:22,10.1.1.8,32,-0.309,-0.309,-0.309,0.000,0.000,0.000
1643293342573662976,2022-01-27-14:22:22,10.1.1.8,29,-0.300,-0.300,-0.300,0.000,0.000,0.000
1643293342792992000,2022-01-27-14:22:22,10.1.1.8,46,-0.289,-0.289,-0.289,0.000,0.000,0.000
1643293342992965888,2022-01-27-14:22:22,10.1.1.8,45,-0.279,-0.279,-0.279,0.000,0.000,0.000
1643293343183545088,2022-01-27-14:22:23,10.1.1.8,35,-0.269,-0.269,-0.269,0.000,0.000,0.000
1643293343373101824,2022-01-27-14:22:23,10.1.1.8,23,-0.260,-0.260,-0.260,0.000,0.000,0.000
1643293343593180928,2022-01-27-14:22:23,10.1.1.8,43,-0.249,-0.249,-0.249,0.000,0.000,0.000
1643293343794492928,2022-01-27-14:22:23,10.1.1.8,43,-0.239,-0.239,-0.239,0.000,0.000,0.000
1643293343993848064,2022-01-27-14:22:23,10.1.1.8,41,-0.229,-0.229,-0.229,0.000,0.000,0.000
1643293344193489920,2022-01-27-14:22:24,10.1.1.8,40,-0.219,-0.219,-0.219,0.000,0.000,0.000
1643293344373218048,2022-01-27-14:22:24,10.1.1.8,19,-0.210,-0.210,-0.210,0.000,0.000,0.000
1643293344583585024,2022-01-27-14:22:24,10.1.1.8,26,-0.200,-0.200,-0.200,0.000,0.000,0.000
1643293344793191936,2022-01-27-14:22:24,10.1.1.8,35,-0.189,-0.189,-0.189,0.000,0.000,0.000
1643293344993158144,2022-01-27-14:22:24,10.1.1.8,35,-0.179,-0.179,-0.179,0.000,0.000,0.000
1643293345193576192,2022-01-27-14:22:25,10.1.1.8,34,-0.169,-0.169,-0.169,0.000,0.000,0.000
1643293345383547136,2022-01-27-14:22:25,10.1.1.8,23,-0.160,-0.160,-0.160,0.000,0.000,0.000
1643293345593091072,2022-01-27-14:22:25,10.1.1.8,32,-0.149,-0.149,-0.149,0.000,0.000,0.000
1643293345793555968,2022-01-27-14:22:25,10.1.1.8,32,-0.139,-0.139,-0.139,0.000,0.000,0.000
1643293345993127936,2022-01-27-14:22:25,10.1.1.8,31,-0.129,-0.129,-0.129,0.000,0.000,0.000
1643293346193104128,2022-01-27-14:22:26,10.1.1.8,30,-0.119,-0.119,-0.119,0.000,0.000,0.000
1643293346395260928,2022-01-27-14:22:26,10.1.1.8,31,-0.110,-0.110,-0.110,0.000,0.000,0.000
1643293346593409024,2022-01-27-14:22:26,10.1.1.8,18,-0.100,-0.100,-0.100,0.000,0.000,0.000
1643293346793350912,2022-01-27-14:22:26,10.1.1.8,17,-0.090,-0.090,-0.090,0.000,0.000,0.000
1643293347013238016,2022-01-27-14:22:27,10.1.1.8,36,-0.079,-0.079,-0.079,0.000,0.000,0.000
1643293347212945920,2022-01-27-14:22:27,10.1.1.8,35,-0.069,-0.069,-0.069,0.000,0.000,0.000
1643293347413147904,2022-01-27-14:22:27,10.1.1.8,34,-0.059,-0.059,-0.059,0.000,0.000,0.000
1643293347612695808,2022-01-27-14:22:27,10.1.1.8,33,-0.049,-0.049,-0.049,0.000,0.000,0.000
1643293347813446144,2022-01-27-14:22:27,10.1.1.8,32,-0.039,-0.039,-0.039,0.000,0.000,0.000
1643293348013438976,2022-01-27-14:22:28,10.1.1.8,32,-0.029,-0.029,-0.029,0.000,0.000,0.000
1643293348212872960,2022-01-27-14:22:28,10.1.1.8,30,-0.019,-0.019,-0.019,0.000,0.000,0.000
1643293348402926848,2022-01-27-14:22:28,10.1.1.8,19,-0.010,-0.010,-0.010,0.000,0.000,0.000
1643293348593338112,2022-01-27-14:22:28,10.1.1.8,9,-0.000,-0.000,-0.000,0.000,0.000,0.000
1643293348813220864,2022-01-27-14:22:28,10.1.1.8,27,-0.010,-0.010,-0.010,0.000,0.000,0.000
1643293349013062912,2022-01-27-14:22:29,10.1.1.8,26,-0.020,-0.020,-0.020,0.000,0.000,0.000
1643293349212850176,2022-01-27-14:22:29,10.1.1.8,25,-0.030,-0.030,-0.030,0.000,0.000,0.000
1643293349412705792,2022-01-27-14:22:29,10.1.1.8,24,-0.040,-0.040,-0.040,0.000,0.000,0.000
1643293349613058048,2022-01-27-14:22:29,10.1.1.8,23,-0.050,-0.050,-0.050,0.000,0.000,0.000
1643293349813086976,2022-01-27-14:22:29,10.1.1.8,23,-0.060,-0.060,-0.060,0.000,0.000,0.000
1643293350012749056,2022-01-27-14:22:30,10.1.1.8,21,-0.070,-0.070,-0.070,0.000,0.000,0.000
1643293350213417984,2022-01-27-14:22:30,10.1.1.8,22,-0.080,-0.080,-0.080,0.000,0.000,0.000
