FedericoMungari/DigitalTwin_service/01_WiredScenario/Output/Output_script/script_rosapi_2_output_robots1_freq0_1.txt
timestamp,date,node,latency,joint_1,joint_2,joint_3,joint_4,joint_5,joint_6
1641170764640145920,2022-01-03-00:46:04,10.1.1.2,177,-0.020,-0.020,-0.020,0.000,0.000,0.000
1641170764842552832,2022-01-03-00:46:04,10.1.1.2,179,-0.030,-0.030,-0.030,0.000,0.000,0.000
1641170765254363904,2022-01-03-00:46:05,10.1.1.2,185,-0.050,-0.050,-0.050,0.000,0.000,0.000
1641170765453250816,2022-01-03-00:46:05,10.1.1.2,183,-0.060,-0.060,-0.060,0.000,0.000,0.000
1641170765653754880,2022-01-03-00:46:05,10.1.1.2,180,-0.070,-0.070,-0.070,0.000,0.000,0.000
1641170765854312960,2022-01-03-00:46:05,10.1.1.2,179,-0.080,-0.080,-0.080,0.000,0.000,0.000
1641170766053245184,2022-01-03-00:46:06,10.1.1.2,177,-0.090,-0.090,-0.090,0.000,0.000,0.000
1641170766259795968,2022-01-03-00:46:06,10.1.1.2,182,-0.100,-0.100,-0.100,0.000,0.000,0.000
1641170766470702848,2022-01-03-00:46:06,10.1.1.2,191,-0.110,-0.110,-0.110,0.000,0.000,0.000
1641170766669321984,2022-01-03-00:46:06,10.1.1.2,188,-0.120,-0.120,-0.120,0.000,0.000,0.000
1641170766869512192,2022-01-03-00:46:06,10.1.1.2,187,-0.130,-0.130,-0.130,0.000,0.000,0.000
1641170767068794112,2022-01-03-00:46:07,10.1.1.2,185,-0.140,-0.140,-0.140,0.000,0.000,0.000
1641170767269832960,2022-01-03-00:46:07,10.1.1.2,185,-0.150,-0.150,-0.150,0.000,0.000,0.000
1641170767469229824,2022-01-03-00:46:07,10.1.1.2,183,-0.160,-0.160,-0.160,0.000,0.000,0.000
1641170767669662976,2022-01-03-00:46:07,10.1.1.2,181,-0.170,-0.170,-0.170,0.000,0.000,0.000
1641170767868257024,2022-01-03-00:46:07,10.1.1.2,178,-0.180,-0.180,-0.180,0.000,0.000,0.000
1641170768067703040,2022-01-03-00:46:08,10.1.1.2,176,-0.190,-0.190,-0.190,0.000,0.000,0.000
1641170768273446144,2022-01-03-00:46:08,10.1.1.2,180,-0.200,-0.200,-0.200,0.000,0.000,0.000
1641170768483234816,2022-01-03-00:46:08,10.1.1.2,188,-0.210,-0.210,-0.210,0.000,0.000,0.000
1641170769277689856,2022-01-03-00:46:09,10.1.1.2,170,-0.250,-0.250,-0.250,0.000,0.000,0.000
1641170769486660864,2022-01-03-00:46:09,10.1.1.2,177,-0.260,-0.260,-0.260,0.000,0.000,0.000
1641170769689074944,2022-01-03-00:46:09,10.1.1.2,179,-0.270,-0.270,-0.270,0.000,0.000,0.000
1641170769887362048,2022-01-03-00:46:09,10.1.1.2,176,-0.280,-0.280,-0.280,0.000,0.000,0.000
1641170770087793152,2022-01-03-00:46:10,10.1.1.2,175,-0.290,-0.290,-0.290,0.000,0.000,0.000
1641170770299004928,2022-01-03-00:46:10,10.1.1.2,184,-0.300,-0.300,-0.300,0.000,0.000,0.000
1641170770487560960,2022-01-03-00:46:10,10.1.1.2,171,-0.310,-0.310,-0.310,0.000,0.000,0.000
1641170770697737984,2022-01-03-00:46:10,10.1.1.2,179,-0.320,-0.320,-0.320,0.000,0.000,0.000
1641170770920530176,2022-01-03-00:46:10,10.1.1.2,196,-0.330,-0.330,-0.330,0.000,0.000,0.000
1641170771118289920,2022-01-03-00:46:11,10.1.1.2,193,-0.340,-0.340,-0.340,0.000,0.000,0.000
1641170771310803968,2022-01-03-00:46:11,10.1.1.2,184,-0.350,-0.350,-0.350,0.000,0.000,0.000
1641170771507301120,2022-01-03-00:46:11,10.1.1.2,180,-0.360,-0.360,-0.360,0.000,0.000,0.000
1641170771708921856,2022-01-03-00:46:11,10.1.1.2,179,-0.370,-0.370,-0.370,0.000,0.000,0.000
1641170771919832064,2022-01-03-00:46:11,10.1.1.2,189,-0.380,-0.380,-0.380,0.000,0.000,0.000
1641170772122412800,2022-01-03-00:46:12,10.1.1.2,189,-0.390,-0.390,-0.390,0.000,0.000,0.000
1641170772301460992,2022-01-03-00:46:12,10.1.1.2,165,-0.400,-0.400,-0.400,0.000,0.000,0.000
1641170772503685888,2022-01-03-00:46:12,10.1.1.2,166,-0.410,-0.410,-0.410,0.000,0.000,0.000
1641170772703911168,2022-01-03-00:46:12,10.1.1.2,165,-0.420,-0.420,-0.420,0.000,0.000,0.000
1641170772911053056,2022-01-03-00:46:12,10.1.1.2,170,-0.430,-0.430,-0.430,0.000,0.000,0.000
1641170773120368896,2022-01-03-00:46:13,10.1.1.2,179,-0.440,-0.440,-0.440,0.000,0.000,0.000
1641170773504244992,2022-01-03-00:46:13,10.1.1.2,160,-0.460,-0.460,-0.460,0.000,0.000,0.000
1641170773708292096,2022-01-03-00:46:13,10.1.1.2,163,-0.470,-0.470,-0.470,0.000,0.000,0.000
1641170774124589824,2022-01-03-00:46:14,10.1.1.2,174,-0.490,-0.490,-0.490,0.000,0.000,0.000
1641170774324062976,2022-01-03-00:46:14,10.1.1.2,172,-0.480,-0.480,-0.480,0.000,0.000,0.000
1641170774544788992,2022-01-03-00:46:14,10.1.1.2,189,-0.470,-0.470,-0.470,0.000,0.000,0.000
1641170774724087040,2022-01-03-00:46:14,10.1.1.2,167,-0.460,-0.460,-0.460,0.000,0.000,0.000
1641170774944033024,2022-01-03-00:46:14,10.1.1.2,186,-0.450,-0.450,-0.450,0.000,0.000,0.000
1641170775121992960,2022-01-03-00:46:15,10.1.1.2,163,-0.440,-0.440,-0.440,0.000,0.000,0.000
1641170775321490176,2022-01-03-00:46:15,10.1.1.2,162,-0.430,-0.430,-0.430,0.000,0.000,0.000
1641170775536945152,2022-01-03-00:46:15,10.1.1.2,176,-0.420,-0.420,-0.420,0.000,0.000,0.000
1641170775951432960,2022-01-03-00:46:15,10.1.1.2,189,-0.400,-0.400,-0.400,0.000,0.000,0.000
1641170776140760832,2022-01-03-00:46:16,10.1.1.2,176,-0.390,-0.390,-0.390,0.000,0.000,0.000
1641170776343381760,2022-01-03-00:46:16,10.1.1.2,178,-0.380,-0.380,-0.380,0.000,0.000,0.000
1641170776539707904,2022-01-03-00:46:16,10.1.1.2,168,-0.370,-0.370,-0.370,0.000,0.000,0.000
1641170776764507136,2022-01-03-00:46:16,10.1.1.2,192,-0.360,-0.360,-0.360,0.000,0.000,0.000
1641170776942262784,2022-01-03-00:46:16,10.1.1.2,168,-0.350,-0.350,-0.350,0.000,0.000,0.000
1641170777159298816,2022-01-03-00:46:17,10.1.1.2,184,-0.340,-0.340,-0.340,0.000,0.000,0.000
1641170777342161920,2022-01-03-00:46:17,10.1.1.2,165,-0.330,-0.330,-0.330,0.000,0.000,0.000
1641170777540841216,2022-01-03-00:46:17,10.1.1.2,162,-0.320,-0.320,-0.320,0.000,0.000,0.000
1641170777741539840,2022-01-03-00:46:17,10.1.1.2,162,-0.310,-0.310,-0.310,0.000,0.000,0.000
1641170777940396032,2022-01-03-00:46:17,10.1.1.2,160,-0.300,-0.300,-0.300,0.000,0.000,0.000
1641170778181016064,2022-01-03-00:46:18,10.1.1.2,200,-0.290,-0.290,-0.290,0.000,0.000,0.000
1641170778758356992,2022-01-03-00:46:18,10.1.1.2,171,-0.260,-0.260,-0.260,0.000,0.000,0.000
1641170778958162176,2022-01-03-00:46:18,10.1.1.2,170,-0.250,-0.250,-0.250,0.000,0.000,0.000
1641170779159718144,2022-01-03-00:46:19,10.1.1.2,171,-0.240,-0.240,-0.240,0.000,0.000,0.000
1641170779588510976,2022-01-03-00:46:19,10.1.1.2,196,-0.220,-0.220,-0.220,0.000,0.000,0.000
1641170779768222208,2022-01-03-00:46:19,10.1.1.2,174,-0.210,-0.210,-0.210,0.000,0.000,0.000
1641170779971243008,2022-01-03-00:46:19,10.1.1.2,177,-0.200,-0.200,-0.200,0.000,0.000,0.000
1641170780166163968,2022-01-03-00:46:20,10.1.1.2,171,-0.190,-0.190,-0.190,0.000,0.000,0.000
1641170780366486016,2022-01-03-00:46:20,10.1.1.2,170,-0.180,-0.180,-0.180,0.000,0.000,0.000
1641170780595126016,2022-01-03-00:46:20,10.1.1.2,197,-0.170,-0.170,-0.170,0.000,0.000,0.000
1641170780772610048,2022-01-03-00:46:20,10.1.1.2,174,-0.160,-0.160,-0.160,0.000,0.000,0.000
1641170780973457152,2022-01-03-00:46:20,10.1.1.2,174,-0.150,-0.150,-0.150,0.000,0.000,0.000
1641170781173414912,2022-01-03-00:46:21,10.1.1.2,173,-0.140,-0.140,-0.140,0.000,0.000,0.000
1641170781377969920,2022-01-03-00:46:21,10.1.1.2,177,-0.130,-0.130,-0.130,0.000,0.000,0.000
1641170781589561088,2022-01-03-00:46:21,10.1.1.2,188,-0.120,-0.120,-0.120,0.000,0.000,0.000
1641170781784795136,2022-01-03-00:46:21,10.1.1.2,182,-0.110,-0.110,-0.110,0.000,0.000,0.000
1641170781993065984,2022-01-03-00:46:21,10.1.1.2,190,-0.100,-0.100,-0.100,0.000,0.000,0.000
1641170782199444992,2022-01-03-00:46:22,10.1.1.2,195,-0.090,-0.090,-0.090,0.000,0.000,0.000
1641170782398590976,2022-01-03-00:46:22,10.1.1.2,194,-0.080,-0.080,-0.080,0.000,0.000,0.000
1641170782593935872,2022-01-03-00:46:22,10.1.1.2,188,-0.070,-0.070,-0.070,0.000,0.000,0.000
1641170782793620224,2022-01-03-00:46:22,10.1.1.2,188,-0.060,-0.060,-0.060,0.000,0.000,0.000
1641170782995155200,2022-01-03-00:46:22,10.1.1.2,188,-0.050,-0.050,-0.050,0.000,0.000,0.000
1641170783199571968,2022-01-03-00:46:23,10.1.1.2,187,-0.040,-0.040,-0.040,0.000,0.000,0.000
1641170783394767872,2022-01-03-00:46:23,10.1.1.2,182,-0.030,-0.030,-0.030,0.000,0.000,0.000
1641170783596108800,2022-01-03-00:46:23,10.1.1.2,182,-0.020,-0.020,-0.020,0.000,0.000,0.000
1641170783798945024,2022-01-03-00:46:23,10.1.1.2,183,-0.010,-0.010,-0.010,0.000,0.000,0.000
1641170783998553088,2022-01-03-00:46:23,10.1.1.2,182,0.000,0.000,0.000,0.000,0.000,0.000
1641170784198617856,2022-01-03-00:46:24,10.1.1.2,181,-0.010,-0.010,-0.010,0.000,0.000,0.000
1641170784399322880,2022-01-03-00:46:24,10.1.1.2,181,-0.020,-0.020,-0.020,0.000,0.000,0.000
1641170784599565056,2022-01-03-00:46:24,10.1.1.2,179,-0.030,-0.030,-0.030,0.000,0.000,0.000
1641170784799315968,2022-01-03-00:46:24,10.1.1.2,178,-0.040,-0.040,-0.040,0.000,0.000,0.000
1641170785011398144,2022-01-03-00:46:25,10.1.1.2,189,-0.050,-0.050,-0.050,0.000,0.000,0.000
1641170785623689984,2022-01-03-00:46:25,10.1.1.2,193,-0.080,-0.080,-0.080,0.000,0.000,0.000
1641170785823586048,2022-01-03-00:46:25,10.1.1.2,191,-0.090,-0.090,-0.090,0.000,0.000,0.000
1641170786224740096,2022-01-03-00:46:26,10.1.1.2,191,-0.110,-0.110,-0.110,0.000,0.000,0.000
1641170787224513024,2022-01-03-00:46:27,10.1.1.2,185,-0.160,-0.160,-0.160,0.000,0.000,0.000
1641170787424830976,2022-01-03-00:46:27,10.1.1.2,184,-0.170,-0.170,-0.170,0.000,0.000,0.000
1641170787625780224,2022-01-03-00:46:27,10.1.1.2,184,-0.180,-0.180,-0.180,0.000,0.000,0.000
1641170787825687808,2022-01-03-00:46:27,10.1.1.2,180,-0.190,-0.190,-0.190,0.000,0.000,0.000
1641170788041498880,2022-01-03-00:46:28,10.1.1.2,193,-0.200,-0.200,-0.200,0.000,0.000,0.000
1641170788242963200,2022-01-03-00:46:28,10.1.1.2,193,-0.210,-0.210,-0.210,0.000,0.000,0.000
1641170788442605056,2022-01-03-00:46:28,10.1.1.2,192,-0.220,-0.220,-0.220,0.000,0.000,0.000
1641170788843624960,2022-01-03-00:46:28,10.1.1.2,192,-0.240,-0.240,-0.240,0.000,0.000,0.000
1641170789044431872,2022-01-03-00:46:29,10.1.1.2,192,-0.250,-0.250,-0.250,0.000,0.000,0.000
1641170789244105216,2022-01-03-00:46:29,10.1.1.2,188,-0.260,-0.260,-0.260,0.000,0.000,0.000
1641170789442528000,2022-01-03-00:46:29,10.1.1.2,186,-0.270,-0.270,-0.270,0.000,0.000,0.000
1641170789643389952,2022-01-03-00:46:29,10.1.1.2,186,-0.280,-0.280,-0.280,0.000,0.000,0.000
1641170789844676096,2022-01-03-00:46:29,10.1.1.2,186,-0.290,-0.290,-0.290,0.000,0.000,0.000
1641170790044350976,2022-01-03-00:46:30,10.1.1.2,185,-0.300,-0.300,-0.300,0.000,0.000,0.000
1641170790245146880,2022-01-03-00:46:30,10.1.1.2,185,-0.310,-0.310,-0.310,0.000,0.000,0.000
1641170790443576064,2022-01-03-00:46:30,10.1.1.2,182,-0.320,-0.320,-0.320,0.000,0.000,0.000
1641170790657416192,2022-01-03-00:46:30,10.1.1.2,195,-0.330,-0.330,-0.330,0.000,0.000,0.000
1641170791263014912,2022-01-03-00:46:31,10.1.1.2,195,-0.360,-0.360,-0.360,0.000,0.000,0.000
1641170791663211008,2022-01-03-00:46:31,10.1.1.2,186,-0.380,-0.380,-0.380,0.000,0.000,0.000
1641170791863638016,2022-01-03-00:46:31,10.1.1.2,186,-0.390,-0.390,-0.390,0.000,0.000,0.000
1641170792266141952,2022-01-03-00:46:32,10.1.1.2,185,-0.410,-0.410,-0.410,0.000,0.000,0.000
1641170792676243968,2022-01-03-00:46:32,10.1.1.2,194,-0.430,-0.430,-0.430,0.000,0.000,0.000
1641170792879479040,2022-01-03-00:46:32,10.1.1.2,197,-0.440,-0.440,-0.440,0.000,0.000,0.000
1641170793077488896,2022-01-03-00:46:33,10.1.1.2,193,-0.450,-0.450,-0.450,0.000,0.000,0.000
1641170793466193920,2022-01-03-00:46:33,10.1.1.2,180,-0.470,-0.470,-0.470,0.000,0.000,0.000
1641170793878241024,2022-01-03-00:46:33,10.1.1.2,191,-0.490,-0.490,-0.490,0.000,0.000,0.000
1641170794077584896,2022-01-03-00:46:34,10.1.1.2,190,-0.480,-0.480,-0.480,0.000,0.000,0.000
1641170794278889984,2022-01-03-00:46:34,10.1.1.2,190,-0.470,-0.470,-0.470,0.000,0.000,0.000
1641170794478118912,2022-01-03-00:46:34,10.1.1.2,188,-0.460,-0.460,-0.460,0.000,0.000,0.000
1641170794682832128,2022-01-03-00:46:34,10.1.1.2,192,-0.450,-0.450,-0.450,0.000,0.000,0.000
1641170794883860992,2022-01-03-00:46:34,10.1.1.2,190,-0.440,-0.440,-0.440,0.000,0.000,0.000
1641170795276655872,2022-01-03-00:46:35,10.1.1.2,181,-0.420,-0.420,-0.420,0.000,0.000,0.000
1641170795480797952,2022-01-03-00:46:35,10.1.1.2,184,-0.410,-0.410,-0.410,0.000,0.000,0.000
1641170795682375936,2022-01-03-00:46:35,10.1.1.2,183,-0.400,-0.400,-0.400,0.000,0.000,0.000
1641170795882106112,2022-01-03-00:46:35,10.1.1.2,181,-0.390,-0.390,-0.390,0.000,0.000,0.000
1641170796081304064,2022-01-03-00:46:36,10.1.1.2,180,-0.380,-0.380,-0.380,0.000,0.000,0.000
1641170796499946240,2022-01-03-00:46:36,10.1.1.2,195,-0.360,-0.360,-0.360,0.000,0.000,0.000
1641170796700019968,2022-01-03-00:46:36,10.1.1.2,194,-0.350,-0.350,-0.350,0.000,0.000,0.000
1641170796902267904,2022-01-03-00:46:36,10.1.1.2,195,-0.340,-0.340,-0.340,0.000,0.000,0.000
1641170797100475904,2022-01-03-00:46:37,10.1.1.2,192,-0.330,-0.330,-0.330,0.000,0.000,0.000
1641170797299089920,2022-01-03-00:46:37,10.1.1.2,190,-0.320,-0.320,-0.320,0.000,0.000,0.000
1641170797493220096,2022-01-03-00:46:37,10.1.1.2,182,-0.310,-0.310,-0.310,0.000,0.000,0.000
1641170797700404992,2022-01-03-00:46:37,10.1.1.2,188,-0.300,-0.300,-0.300,0.000,0.000,0.000
1641170797889998848,2022-01-03-00:46:37,10.1.1.2,177,-0.290,-0.290,-0.290,0.000,0.000,0.000
1641170798090724864,2022-01-03-00:46:38,10.1.1.2,175,-0.280,-0.280,-0.280,0.000,0.000,0.000
1641170798290870016,2022-01-03-00:46:38,10.1.1.2,174,-0.270,-0.270,-0.270,0.000,0.000,0.000
1641170798490076928,2022-01-03-00:46:38,10.1.1.2,172,-0.260,-0.260,-0.260,0.000,0.000,0.000
1641170798697123072,2022-01-03-00:46:38,10.1.1.2,178,-0.250,-0.250,-0.250,0.000,0.000,0.000
1641170798898819072,2022-01-03-00:46:38,10.1.1.2,177,-0.240,-0.240,-0.240,0.000,0.000,0.000
1641170799098593024,2022-01-03-00:46:39,10.1.1.2,174,-0.230,-0.230,-0.230,0.000,0.000,0.000
1641170799299358976,2022-01-03-00:46:39,10.1.1.2,174,-0.220,-0.220,-0.220,0.000,0.000,0.000
1641170799517788928,2022-01-03-00:46:39,10.1.1.2,190,-0.210,-0.210,-0.210,0.000,0.000,0.000
1641170799717696000,2022-01-03-00:46:39,10.1.1.2,188,-0.200,-0.200,-0.200,0.000,0.000,0.000
1641170799907265792,2022-01-03-00:46:39,10.1.1.2,176,-0.190,-0.190,-0.190,0.000,0.000,0.000
1641170800117504000,2022-01-03-00:46:40,10.1.1.2,185,-0.180,-0.180,-0.180,0.000,0.000,0.000
1641170800311065856,2022-01-03-00:46:40,10.1.1.2,177,-0.170,-0.170,-0.170,0.000,0.000,0.000
1641170800515454976,2022-01-03-00:46:40,10.1.1.2,180,-0.160,-0.160,-0.160,0.000,0.000,0.000
1641170800718432000,2022-01-03-00:46:40,10.1.1.2,182,-0.150,-0.150,-0.150,0.000,0.000,0.000
1641170800908759040,2022-01-03-00:46:40,10.1.1.2,172,-0.140,-0.140,-0.140,0.000,0.000,0.000
1641170801136527104,2022-01-03-00:46:41,10.1.1.2,198,-0.130,-0.130,-0.130,0.000,0.000,0.000
1641170801315650048,2022-01-03-00:46:41,10.1.1.2,176,-0.120,-0.120,-0.120,0.000,0.000,0.000
1641170801525976832,2022-01-03-00:46:41,10.1.1.2,185,-0.110,-0.110,-0.110,0.000,0.000,0.000
1641170801912072960,2022-01-03-00:46:41,10.1.1.2,171,-0.090,-0.090,-0.090,0.000,0.000,0.000
1641170802310179840,2022-01-03-00:46:42,10.1.1.2,166,-0.070,-0.070,-0.070,0.000,0.000,0.000
1641170802736605952,2022-01-03-00:46:42,10.1.1.2,191,-0.050,-0.050,-0.050,0.000,0.000,0.000
1641170802939255040,2022-01-03-00:46:42,10.1.1.2,193,-0.040,-0.040,-0.040,0.000,0.000,0.000
1641170803128604928,2022-01-03-00:46:43,10.1.1.2,182,-0.030,-0.030,-0.030,0.000,0.000,0.000
1641170803329676032,2022-01-03-00:46:43,10.1.1.2,182,-0.020,-0.020,-0.020,0.000,0.000,0.000
1641170803529670912,2022-01-03-00:46:43,10.1.1.2,180,-0.010,-0.010,-0.010,0.000,0.000,0.000
1641170803729712128,2022-01-03-00:46:43,10.1.1.2,175,0.000,0.000,0.000,0.000,0.000,0.000
1641170803931467008,2022-01-03-00:46:43,10.1.1.2,175,-0.010,-0.010,-0.010,0.000,0.000,0.000
1641170804130727936,2022-01-03-00:46:44,10.1.1.2,172,-0.020,-0.020,-0.020,0.000,0.000,0.000
1641170804329950208,2022-01-03-00:46:44,10.1.1.2,170,-0.030,-0.030,-0.030,0.000,0.000,0.000
1641170804529690880,2022-01-03-00:46:44,10.1.1.2,170,-0.040,-0.040,-0.040,0.000,0.000,0.000
1641170804729266944,2022-01-03-00:46:44,10.1.1.2,168,-0.050,-0.050,-0.050,0.000,0.000,0.000
1641170804928122112,2022-01-03-00:46:44,10.1.1.2,165,-0.060,-0.060,-0.060,0.000,0.000,0.000
1641170805144731136,2022-01-03-00:46:45,10.1.1.2,181,-0.070,-0.070,-0.070,0.000,0.000,0.000
1641170805348495872,2022-01-03-00:46:45,10.1.1.2,184,-0.080,-0.080,-0.080,0.000,0.000,0.000
1641170805773560064,2022-01-03-00:46:45,10.1.1.2,-1,-0.100,-0.100,-0.100,0.000,0.000,0.000
1641170806157509120,2022-01-03-00:46:46,10.1.1.2,183,-0.120,-0.120,-0.120,0.000,0.000,0.000
1641170806348017920,2022-01-03-00:46:46,10.1.1.2,173,-0.130,-0.130,-0.130,0.000,0.000,0.000
1641170806547950080,2022-01-03-00:46:46,10.1.1.2,172,-0.140,-0.140,-0.140,0.000,0.000,0.000
1641170806762032896,2022-01-03-00:46:46,10.1.1.2,185,-0.150,-0.150,-0.150,0.000,0.000,0.000
1641170806946734848,2022-01-03-00:46:46,10.1.1.2,169,-0.160,-0.160,-0.160,0.000,0.000,0.000
1641170807145863936,2022-01-03-00:46:47,10.1.1.2,167,-0.170,-0.170,-0.170,0.000,0.000,0.000
1641170807350505984,2022-01-03-00:46:47,10.1.1.2,170,-0.180,-0.180,-0.180,0.000,0.000,0.000
1641170807545351936,2022-01-03-00:46:47,10.1.1.2,164,-0.190,-0.190,-0.190,0.000,0.000,0.000
1641170807755459072,2022-01-03-00:46:47,10.1.1.2,174,-0.200,-0.200,-0.200,0.000,0.000,0.000
1641170807943974144,2022-01-03-00:46:47,10.1.1.2,161,-0.210,-0.210,-0.210,0.000,0.000,0.000
1641170808143570944,2022-01-03-00:46:48,10.1.1.2,160,-0.220,-0.220,-0.220,0.000,0.000,0.000
1641170808361720064,2022-01-03-00:46:48,10.1.1.2,177,-0.230,-0.230,-0.230,0.000,0.000,0.000
1641170808561808128,2022-01-03-00:46:48,10.1.1.2,174,-0.240,-0.240,-0.240,0.000,0.000,0.000
1641170808755376128,2022-01-03-00:46:48,10.1.1.2,165,-0.250,-0.250,-0.250,0.000,0.000,0.000
1641170808963856896,2022-01-03-00:46:48,10.1.1.2,174,-0.260,-0.260,-0.260,0.000,0.000,0.000
1641170809185970944,2022-01-03-00:46:49,10.1.1.2,195,-0.270,-0.270,-0.270,0.000,0.000,0.000
1641170809377632000,2022-01-03-00:46:49,10.1.1.2,185,-0.280,-0.280,-0.280,0.000,0.000,0.000
1641170809575393792,2022-01-03-00:46:49,10.1.1.2,180,-0.290,-0.290,-0.290,0.000,0.000,0.000
1641170809794547968,2022-01-03-00:46:49,10.1.1.2,198,-0.300,-0.300,-0.300,0.000,0.000,0.000
1641170809968463872,2022-01-03-00:46:49,10.1.1.2,166,-0.310,-0.310,-0.310,0.000,0.000,0.000
1641170810175246080,2022-01-03-00:46:50,10.1.1.2,171,-0.320,-0.320,-0.320,0.000,0.000,0.000
1641170810398094848,2022-01-03-00:46:50,10.1.1.2,190,-0.330,-0.330,-0.330,0.000,0.000,0.000
1641170810572668160,2022-01-03-00:46:50,10.1.1.2,163,-0.340,-0.340,-0.340,0.000,0.000,0.000
1641170810812324096,2022-01-03-00:46:50,10.1.1.2,199,-0.350,-0.350,-0.350,0.000,0.000,0.000
1641170811195974144,2022-01-03-00:46:51,10.1.1.2,181,-0.370,-0.370,-0.370,0.000,0.000,0.000
1641170811375344896,2022-01-03-00:46:51,10.1.1.2,159,-0.380,-0.380,-0.380,0.000,0.000,0.000
1641170811575193856,2022-01-03-00:46:51,10.1.1.2,158,-0.390,-0.390,-0.390,0.000,0.000,0.000
1641170811776500992,2022-01-03-00:46:51,10.1.1.2,158,-0.400,-0.400,-0.400,0.000,0.000,0.000
1641170812000338176,2022-01-03-00:46:52,10.1.1.2,181,-0.410,-0.410,-0.410,0.000,0.000,0.000
1641170812183056128,2022-01-03-00:46:52,10.1.1.2,162,-0.420,-0.420,-0.420,0.000,0.000,0.000
1641170812410717952,2022-01-03-00:46:52,10.1.1.2,188,-0.430,-0.430,-0.430,0.000,0.000,0.000
1641170812601232128,2022-01-03-00:46:52,10.1.1.2,178,-0.440,-0.440,-0.440,0.000,0.000,0.000
1641170812804552192,2022-01-03-00:46:52,10.1.1.2,180,-0.450,-0.450,-0.450,0.000,0.000,0.000
1641170813232076032,2022-01-03-00:46:53,10.1.1.2,199,-0.470,-0.470,-0.470,0.000,0.000,0.000
1641170813823396864,2022-01-03-00:46:53,10.1.1.2,180,-0.480,-0.480,-0.480,0.000,0.000,0.000
1641170814013312000,2022-01-03-00:46:54,10.1.1.2,169,-0.470,-0.470,-0.470,0.000,0.000,0.000
1641170814234059008,2022-01-03-00:46:54,10.1.1.2,187,-0.460,-0.460,-0.460,0.000,0.000,0.000
1641170814625940992,2022-01-03-00:46:54,10.1.1.2,176,-0.440,-0.440,-0.440,0.000,0.000,0.000
1641170815030881024,2022-01-03-00:46:55,10.1.1.2,179,-0.420,-0.420,-0.420,0.000,0.000,0.000
1641170815838004224,2022-01-03-00:46:55,10.1.1.2,180,-0.380,-0.380,-0.380,0.000,0.000,0.000
1641170816035064064,2022-01-03-00:46:56,10.1.1.2,176,-0.370,-0.370,-0.370,0.000,0.000,0.000
1641170816237721856,2022-01-03-00:46:56,10.1.1.2,178,-0.360,-0.360,-0.360,0.000,0.000,0.000
1641170817441303040,2022-01-03-00:46:57,10.1.1.2,175,-0.300,-0.300,-0.300,0.000,0.000,0.000
1641170817661401088,2022-01-03-00:46:57,10.1.1.2,192,-0.290,-0.290,-0.290,0.000,0.000,0.000
1641170817861552128,2022-01-03-00:46:57,10.1.1.2,192,-0.280,-0.280,-0.280,0.000,0.000,0.000
1641170818062403840,2022-01-03-00:46:58,10.1.1.2,191,-0.270,-0.270,-0.270,0.000,0.000,0.000
1641170818261044992,2022-01-03-00:46:58,10.1.1.2,189,-0.260,-0.260,-0.260,0.000,0.000,0.000
1641170818659062016,2022-01-03-00:46:58,10.1.1.2,184,-0.240,-0.240,-0.240,0.000,0.000,0.000
1641170818858035200,2022-01-03-00:46:58,10.1.1.2,178,-0.230,-0.230,-0.230,0.000,0.000,0.000
1641170819058598144,2022-01-03-00:46:59,10.1.1.2,178,-0.220,-0.220,-0.220,0.000,0.000,0.000
1641170819259748864,2022-01-03-00:46:59,10.1.1.2,179,-0.210,-0.210,-0.210,0.000,0.000,0.000
1641170820058828032,2022-01-03-00:47:00,10.1.1.2,174,-0.170,-0.170,-0.170,0.000,0.000,0.000
1641170820278790912,2022-01-03-00:47:00,10.1.1.2,194,-0.160,-0.160,-0.160,0.000,0.000,0.000
1641170820676083968,2022-01-03-00:47:00,10.1.1.2,185,-0.140,-0.140,-0.140,0.000,0.000,0.000
1641170820876945920,2022-01-03-00:47:00,10.1.1.2,181,-0.130,-0.130,-0.130,0.000,0.000,0.000
1641170821079102976,2022-01-03-00:47:01,10.1.1.2,182,-0.120,-0.120,-0.120,0.000,0.000,0.000
1641170821278238976,2022-01-03-00:47:01,10.1.1.2,180,-0.110,-0.110,-0.110,0.000,0.000,0.000
1641170821300960000,2022-01-03-00:47:01,10.1.1.2,-3,-0.110,-0.110,-0.110,0.000,0.000,0.000
1641170821683415040,2022-01-03-00:47:01,10.1.1.2,181,-0.090,-0.090,-0.090,0.000,0.000,0.000
1641170822098354944,2022-01-03-00:47:02,10.1.1.2,195,-0.070,-0.070,-0.070,0.000,0.000,0.000
1641170822497014016,2022-01-03-00:47:02,10.1.1.2,192,-0.050,-0.050,-0.050,0.000,0.000,0.000
1641170822703790848,2022-01-03-00:47:02,10.1.1.2,197,-0.040,-0.040,-0.040,0.000,0.000,0.000
1641170822903714816,2022-01-03-00:47:02,10.1.1.2,196,-0.030,-0.030,-0.030,0.000,0.000,0.000
1641170823098651904,2022-01-03-00:47:03,10.1.1.2,187,-0.020,-0.020,-0.020,0.000,0.000,0.000
1641170823297984000,2022-01-03-00:47:03,10.1.1.2,184,-0.010,-0.010,-0.010,0.000,0.000,0.000
1641170823904002816,2022-01-03-00:47:03,10.1.1.2,182,-0.020,-0.020,-0.020,0.000,0.000,0.000
1641170824106461952,2022-01-03-00:47:04,10.1.1.2,184,-0.030,-0.030,-0.030,0.000,0.000,0.000
1641170824314701056,2022-01-03-00:47:04,10.1.1.2,192,-0.040,-0.040,-0.040,0.000,0.000,0.000
1641170824504115968,2022-01-03-00:47:04,10.1.1.2,180,-0.050,-0.050,-0.050,0.000,0.000,0.000
1641170824714236928,2022-01-03-00:47:04,10.1.1.2,189,-0.060,-0.060,-0.060,0.000,0.000,0.000
1641170824914514176,2022-01-03-00:47:04,10.1.1.2,188,-0.070,-0.070,-0.070,0.000,0.000,0.000
1641170825114743040,2022-01-03-00:47:05,10.1.1.2,188,-0.080,-0.080,-0.080,0.000,0.000,0.000
1641170825522345984,2022-01-03-00:47:05,10.1.1.2,194,-0.100,-0.100,-0.100,0.000,0.000,0.000
1641170825720283904,2022-01-03-00:47:05,10.1.1.2,191,-0.110,-0.110,-0.110,0.000,0.000,0.000
1641170825919962880,2022-01-03-00:47:05,10.1.1.2,190,-0.120,-0.120,-0.120,0.000,0.000,0.000
1641170826110446848,2022-01-03-00:47:06,10.1.1.2,180,-0.130,-0.130,-0.130,0.000,0.000,0.000
1641170826330161152,2022-01-03-00:47:06,10.1.1.2,199,-0.140,-0.140,-0.140,0.000,0.000,0.000
1641170826513083904,2022-01-03-00:47:06,10.1.1.2,179,-0.150,-0.150,-0.150,0.000,0.000,0.000
1641170826721465088,2022-01-03-00:47:06,10.1.1.2,184,-0.160,-0.160,-0.160,0.000,0.000,0.000
1641170826919769088,2022-01-03-00:47:06,10.1.1.2,181,-0.170,-0.170,-0.170,0.000,0.000,0.000
1641170827120371968,2022-01-03-00:47:07,10.1.1.2,179,-0.180,-0.180,-0.180,0.000,0.000,0.000
1641170827320836096,2022-01-03-00:47:07,10.1.1.2,178,-0.190,-0.190,-0.190,0.000,0.000,0.000
1641170827732666880,2022-01-03-00:47:07,10.1.1.2,180,-0.210,-0.210,-0.210,0.000,0.000,0.000
1641170828139131904,2022-01-03-00:47:08,10.1.1.2,185,-0.230,-0.230,-0.230,0.000,0.000,0.000
1641170828338813952,2022-01-03-00:47:08,10.1.1.2,184,-0.240,-0.240,-0.240,0.000,0.000,0.000
1641170828559031040,2022-01-03-00:47:08,10.1.1.2,201,-0.250,-0.250,-0.250,0.000,0.000,0.000
1641170828952519936,2022-01-03-00:47:08,10.1.1.2,192,-0.270,-0.270,-0.270,0.000,0.000,0.000
1641170829158055936,2022-01-03-00:47:09,10.1.1.2,195,-0.280,-0.280,-0.280,0.000,0.000,0.000
1641170829358459904,2022-01-03-00:47:09,10.1.1.2,192,-0.290,-0.290,-0.290,0.000,0.000,0.000
1641170829756998912,2022-01-03-00:47:09,10.1.1.2,187,-0.310,-0.310,-0.310,0.000,0.000,0.000
1641170829955444992,2022-01-03-00:47:09,10.1.1.2,186,-0.320,-0.320,-0.320,0.000,0.000,0.000
1641170830169857024,2022-01-03-00:47:10,10.1.1.2,199,-0.330,-0.330,-0.330,0.000,0.000,0.000
1641170830348321024,2022-01-03-00:47:10,10.1.1.2,176,-0.340,-0.340,-0.340,0.000,0.000,0.000
1641170830769903872,2022-01-03-00:47:10,10.1.1.2,196,-0.360,-0.360,-0.360,0.000,0.000,0.000
1641170830971684864,2022-01-03-00:47:10,10.1.1.2,197,-0.370,-0.370,-0.370,0.000,0.000,0.000
1641170831148864000,2022-01-03-00:47:11,10.1.1.2,173,-0.380,-0.380,-0.380,0.000,0.000,0.000
1641170831349905920,2022-01-03-00:47:11,10.1.1.2,173,-0.390,-0.390,-0.390,0.000,0.000,0.000
1641170831551405056,2022-01-03-00:47:11,10.1.1.2,174,-0.400,-0.400,-0.400,0.000,0.000,0.000
1641170831752919808,2022-01-03-00:47:11,10.1.1.2,174,-0.410,-0.410,-0.410,0.000,0.000,0.000
1641170831950449920,2022-01-03-00:47:11,10.1.1.2,171,-0.420,-0.420,-0.420,0.000,0.000,0.000
1641170832374191104,2022-01-03-00:47:12,10.1.1.2,193,-0.440,-0.440,-0.440,0.000,0.000,0.000
1641170832564477952,2022-01-03-00:47:12,10.1.1.2,182,-0.450,-0.450,-0.450,0.000,0.000,0.000
1641170832761963008,2022-01-03-00:47:12,10.1.1.2,178,-0.460,-0.460,-0.460,0.000,0.000,0.000
1641170833363023104,2022-01-03-00:47:13,10.1.1.2,176,-0.490,-0.490,-0.490,0.000,0.000,0.000
1641170833566564096,2022-01-03-00:47:13,10.1.1.2,178,-0.480,-0.480,-0.480,0.000,0.000,0.000
1641170833769361920,2022-01-03-00:47:13,10.1.1.2,180,-0.470,-0.470,-0.470,0.000,0.000,0.000
1641170833967632128,2022-01-03-00:47:13,10.1.1.2,177,-0.460,-0.460,-0.460,0.000,0.000,0.000
1641170834185094144,2022-01-03-00:47:14,10.1.1.2,194,-0.450,-0.450,-0.450,0.000,0.000,0.000
1641170834583345920,2022-01-03-00:47:14,10.1.1.2,190,-0.430,-0.430,-0.430,0.000,0.000,0.000
1641170834763886848,2022-01-03-00:47:14,10.1.1.2,170,-0.420,-0.420,-0.420,0.000,0.000,0.000
1641170834966137856,2022-01-03-00:47:14,10.1.1.2,171,-0.410,-0.410,-0.410,0.000,0.000,0.000
1641170835163481856,2022-01-03-00:47:15,10.1.1.2,166,-0.400,-0.400,-0.400,0.000,0.000,0.000
1641170835392997888,2022-01-03-00:47:15,10.1.1.2,193,-0.390,-0.390,-0.390,0.000,0.000,0.000
1641170835583992832,2022-01-03-00:47:15,10.1.1.2,179,-0.380,-0.380,-0.380,0.000,0.000,0.000
1641170835782872832,2022-01-03-00:47:15,10.1.1.2,177,-0.370,-0.370,-0.370,0.000,0.000,0.000
1641170835982019840,2022-01-03-00:47:15,10.1.1.2,174,-0.360,-0.360,-0.360,0.000,0.000,0.000
1641170836186883840,2022-01-03-00:47:16,10.1.1.2,176,-0.350,-0.350,-0.350,0.000,0.000,0.000
1641170836383634176,2022-01-03-00:47:16,10.1.1.2,171,-0.340,-0.340,-0.340,0.000,0.000,0.000
1641170836581775872,2022-01-03-00:47:16,10.1.1.2,168,-0.330,-0.330,-0.330,0.000,0.000,0.000
1641170836781563136,2022-01-03-00:47:16,10.1.1.2,166,-0.320,-0.320,-0.320,0.000,0.000,0.000
1641170837009886976,2022-01-03-00:47:17,10.1.1.2,188,-0.310,-0.310,-0.310,0.000,0.000,0.000
1641170837201911040,2022-01-03-00:47:17,10.1.1.2,178,-0.300,-0.300,-0.300,0.000,0.000,0.000
1641170837418899968,2022-01-03-00:47:17,10.1.1.2,190,-0.290,-0.290,-0.290,0.000,0.000,0.000
1641170837622461184,2022-01-03-00:47:17,10.1.1.2,195,-0.280,-0.280,-0.280,0.000,0.000,0.000
1641170837805672960,2022-01-03-00:47:17,10.1.1.2,175,-0.270,-0.270,-0.270,0.000,0.000,0.000
1641170838022669056,2022-01-03-00:47:18,10.1.1.2,191,-0.260,-0.260,-0.260,0.000,0.000,0.000
1641170838224122880,2022-01-03-00:47:18,10.1.1.2,191,-0.250,-0.250,-0.250,0.000,0.000,0.000
1641170838405850880,2022-01-03-00:47:18,10.1.1.2,169,-0.240,-0.240,-0.240,0.000,0.000,0.000
1641170838604836096,2022-01-03-00:47:18,10.1.1.2,167,-0.230,-0.230,-0.230,0.000,0.000,0.000
1641170838805108992,2022-01-03-00:47:18,10.1.1.2,166,-0.220,-0.220,-0.220,0.000,0.000,0.000
1641170839004393984,2022-01-03-00:47:19,10.1.1.2,164,-0.210,-0.210,-0.210,0.000,0.000,0.000
1641170839203571968,2022-01-03-00:47:19,10.1.1.2,160,-0.200,-0.200,-0.200,0.000,0.000,0.000
1641170839430316800,2022-01-03-00:47:19,10.1.1.2,180,-0.190,-0.190,-0.190,0.000,0.000,0.000
1641170839623513088,2022-01-03-00:47:19,10.1.1.2,178,-0.180,-0.180,-0.180,0.000,0.000,0.000
1641170839823416832,2022-01-03-00:47:19,10.1.1.2,176,-0.170,-0.170,-0.170,0.000,0.000,0.000
1641170840022135040,2022-01-03-00:47:20,10.1.1.2,171,-0.160,-0.160,-0.160,0.000,0.000,0.000
1641170840222448128,2022-01-03-00:47:20,10.1.1.2,170,-0.150,-0.150,-0.150,0.000,0.000,0.000
1641170840415812864,2022-01-03-00:47:20,10.1.1.2,162,-0.140,-0.140,-0.140,0.000,0.000,0.000
1641170840639452928,2022-01-03-00:47:20,10.1.1.2,184,-0.130,-0.130,-0.130,0.000,0.000,0.000
1641170840818341120,2022-01-03-00:47:20,10.1.1.2,162,-0.120,-0.120,-0.120,0.000,0.000,0.000
1641170841021495040,2022-01-03-00:47:21,10.1.1.2,162,-0.110,-0.110,-0.110,0.000,0.000,0.000
1641170841465442816,2022-01-03-00:47:21,10.1.1.2,199,-0.090,-0.090,-0.090,0.000,0.000,0.000
1641170841639419136,2022-01-03-00:47:21,10.1.1.2,173,-0.080,-0.080,-0.080,0.000,0.000,0.000
1641170841858968064,2022-01-03-00:47:21,10.1.1.2,192,-0.070,-0.070,-0.070,0.000,0.000,0.000
1641170842038907904,2022-01-03-00:47:22,10.1.1.2,171,-0.060,-0.060,-0.060,0.000,0.000,0.000
1641170842637540096,2022-01-03-00:47:22,10.1.1.2,167,-0.030,-0.030,-0.030,0.000,0.000,0.000
1641170842874514176,2022-01-03-00:47:22,10.1.1.2,200,-0.020,-0.020,-0.020,0.000,0.000,0.000
1641170843032683008,2022-01-03-00:47:23,10.1.1.2,157,-0.010,-0.010,-0.010,0.000,0.000,0.000
1641170843275328000,2022-01-03-00:47:23,10.1.1.2,199,0.000,0.000,0.000,0.000,0.000,0.000
1641170843644283136,2022-01-03-00:47:23,10.1.1.2,164,-0.020,-0.020,-0.020,0.000,0.000,0.000
1641170843845810944,2022-01-03-00:47:23,10.1.1.2,163,-0.030,-0.030,-0.030,0.000,0.000,0.000
1641170844043180032,2022-01-03-00:47:24,10.1.1.2,160,-0.040,-0.040,-0.040,0.000,0.000,0.000
1641170844274274048,2022-01-03-00:47:24,10.1.1.2,191,-0.050,-0.050,-0.050,0.000,0.000,0.000
1641170844463582976,2022-01-03-00:47:24,10.1.1.2,179,-0.060,-0.060,-0.060,0.000,0.000,0.000
1641170845069442048,2022-01-03-00:47:25,10.1.1.2,182,-0.090,-0.090,-0.090,0.000,0.000,0.000
1641170845272641024,2022-01-03-00:47:25,10.1.1.2,183,-0.100,-0.100,-0.100,0.000,0.000,0.000
1641170845457769984,2022-01-03-00:47:25,10.1.1.2,167,-0.110,-0.110,-0.110,0.000,0.000,0.000
1641170845691478016,2022-01-03-00:47:25,10.1.1.2,199,-0.120,-0.120,-0.120,0.000,0.000,0.000
1641170845863899904,2022-01-03-00:47:25,10.1.1.2,170,-0.130,-0.130,-0.130,0.000,0.000,0.000
1641170846064280064,2022-01-03-00:47:26,10.1.1.2,170,-0.140,-0.140,-0.140,0.000,0.000,0.000
1641170846263689984,2022-01-03-00:47:26,10.1.1.2,168,-0.150,-0.150,-0.150,0.000,0.000,0.000
1641170846465974016,2022-01-03-00:47:26,10.1.1.2,169,-0.160,-0.160,-0.160,0.000,0.000,0.000
1641170846673673984,2022-01-03-00:47:26,10.1.1.2,169,-0.170,-0.170,-0.170,0.000,0.000,0.000
1641170846886167040,2022-01-03-00:47:26,10.1.1.2,178,-0.180,-0.180,-0.180,0.000,0.000,0.000
1641170847095994880,2022-01-03-00:47:27,10.1.1.2,187,-0.190,-0.190,-0.190,0.000,0.000,0.000
1641170847296314880,2022-01-03-00:47:27,10.1.1.2,187,-0.200,-0.200,-0.200,0.000,0.000,0.000
1641170847497339904,2022-01-03-00:47:27,10.1.1.2,183,-0.210,-0.210,-0.210,0.000,0.000,0.000
1641170847901623040,2022-01-03-00:47:27,10.1.1.2,183,-0.230,-0.230,-0.230,0.000,0.000,0.000
1641170848110887936,2022-01-03-00:47:28,10.1.1.2,190,-0.240,-0.240,-0.240,0.000,0.000,0.000
1641170848312334080,2022-01-03-00:47:28,10.1.1.2,190,-0.250,-0.250,-0.250,0.000,0.000,0.000
1641170848513521920,2022-01-03-00:47:28,10.1.1.2,191,-0.260,-0.260,-0.260,0.000,0.000,0.000
1641170848714134016,2022-01-03-00:47:28,10.1.1.2,188,-0.270,-0.270,-0.270,0.000,0.000,0.000
1641170848915785984,2022-01-03-00:47:28,10.1.1.2,186,-0.280,-0.280,-0.280,0.000,0.000,0.000
1641170849115139072,2022-01-03-00:47:29,10.1.1.2,182,-0.290,-0.290,-0.290,0.000,0.000,0.000
1641170849316888064,2022-01-03-00:47:29,10.1.1.2,182,-0.300,-0.300,-0.300,0.000,0.000,0.000
1641170849527243008,2022-01-03-00:47:29,10.1.1.2,191,-0.310,-0.310,-0.310,0.000,0.000,0.000
1641170850533297920,2022-01-03-00:47:30,10.1.1.2,191,-0.360,-0.360,-0.360,0.000,0.000,0.000
1641170850734215936,2022-01-03-00:47:30,10.1.1.2,191,-0.370,-0.370,-0.370,0.000,0.000,0.000
1641170850933991936,2022-01-03-00:47:30,10.1.1.2,189,-0.380,-0.380,-0.380,0.000,0.000,0.000
1641170851145459968,2022-01-03-00:47:31,10.1.1.2,199,-0.390,-0.390,-0.390,0.000,0.000,0.000
1641170851334785024,2022-01-03-00:47:31,10.1.1.2,188,-0.400,-0.400,-0.400,0.000,0.000,0.000
1641170851544820992,2022-01-03-00:47:31,10.1.1.2,198,-0.410,-0.410,-0.410,0.000,0.000,0.000
1641170851735088128,2022-01-03-00:47:31,10.1.1.2,187,-0.420,-0.420,-0.420,0.000,0.000,0.000
1641170851945085952,2022-01-03-00:47:31,10.1.1.2,196,-0.430,-0.430,-0.430,0.000,0.000,0.000
1641170852130863872,2022-01-03-00:47:32,10.1.1.2,181,-0.440,-0.440,-0.440,0.000,0.000,0.000
1641170852338541056,2022-01-03-00:47:32,10.1.1.2,188,-0.450,-0.450,-0.450,0.000,0.000,0.000
1641170852536624896,2022-01-03-00:47:32,10.1.1.2,185,-0.460,-0.460,-0.460,0.000,0.000,0.000
1641170852737920000,2022-01-03-00:47:32,10.1.1.2,184,-0.470,-0.470,-0.470,0.000,0.000,0.000
1641170852937057024,2022-01-03-00:47:32,10.1.1.2,183,-0.480,-0.480,-0.480,0.000,0.000,0.000
1641170853137393920,2022-01-03-00:47:33,10.1.1.2,183,-0.490,-0.490,-0.490,0.000,0.000,0.000
1641170853539348992,2022-01-03-00:47:33,10.1.1.2,183,-0.470,-0.470,-0.470,0.000,0.000,0.000
1641170853739075072,2022-01-03-00:47:33,10.1.1.2,181,-0.460,-0.460,-0.460,0.000,0.000,0.000
1641170853759809024,2022-01-03-00:47:33,10.1.1.2,-1,-0.460,-0.460,-0.460,0.000,0.000,0.000
1641170854138339072,2022-01-03-00:47:34,10.1.1.2,178,-0.440,-0.440,-0.440,0.000,0.000,0.000
1641170854556324096,2022-01-03-00:47:34,10.1.1.2,195,-0.420,-0.420,-0.420,0.000,0.000,0.000
1641170854755981056,2022-01-03-00:47:34,10.1.1.2,194,-0.410,-0.410,-0.410,0.000,0.000,0.000
1641170854956520192,2022-01-03-00:47:34,10.1.1.2,193,-0.400,-0.400,-0.400,0.000,0.000,0.000
1641170855354775040,2022-01-03-00:47:35,10.1.1.2,190,-0.380,-0.380,-0.380,0.000,0.000,0.000
1641170855560476160,2022-01-03-00:47:35,10.1.1.2,195,-0.370,-0.370,-0.370,0.000,0.000,0.000
1641170856154053888,2022-01-03-00:47:36,10.1.1.2,185,-0.340,-0.340,-0.340,0.000,0.000,0.000
1641170856359271168,2022-01-03-00:47:36,10.1.1.2,189,-0.330,-0.330,-0.330,0.000,0.000,0.000
1641170856554979072,2022-01-03-00:47:36,10.1.1.2,184,-0.320,-0.320,-0.320,0.000,0.000,0.000
1641170856753302016,2022-01-03-00:47:36,10.1.1.2,182,-0.310,-0.310,-0.310,0.000,0.000,0.000
1641170856962470912,2022-01-03-00:47:36,10.1.1.2,189,-0.300,-0.300,-0.300,0.000,0.000,0.000
1641170857359515904,2022-01-03-00:47:37,10.1.1.2,184,-0.280,-0.280,-0.280,0.000,0.000,0.000
1641170857762317824,2022-01-03-00:47:37,10.1.1.2,186,-0.260,-0.260,-0.260,0.000,0.000,0.000
1641170857965572096,2022-01-03-00:47:37,10.1.1.2,188,-0.250,-0.250,-0.250,0.000,0.000,0.000
1641170858154601984,2022-01-03-00:47:38,10.1.1.2,177,-0.240,-0.240,-0.240,0.000,0.000,0.000
1641170858356478976,2022-01-03-00:47:38,10.1.1.2,178,-0.230,-0.230,-0.230,0.000,0.000,0.000
1641170858574209024,2022-01-03-00:47:38,10.1.1.2,195,-0.220,-0.220,-0.220,0.000,0.000,0.000
1641170858975586816,2022-01-03-00:47:38,10.1.1.2,194,-0.200,-0.200,-0.200,0.000,0.000,0.000
1641170859176172032,2022-01-03-00:47:39,10.1.1.2,193,-0.190,-0.190,-0.190,0.000,0.000,0.000
1641170859381136896,2022-01-03-00:47:39,10.1.1.2,197,-0.180,-0.180,-0.180,0.000,0.000,0.000
1641170859770322176,2022-01-03-00:47:39,10.1.1.2,181,-0.160,-0.160,-0.160,0.000,0.000,0.000
1641170860162347008,2022-01-03-00:47:40,10.1.1.2,172,-0.140,-0.140,-0.140,0.000,0.000,0.000
1641170860372532992,2022-01-03-00:47:40,10.1.1.2,181,-0.130,-0.130,-0.130,0.000,0.000,0.000
1641170860572738048,2022-01-03-00:47:40,10.1.1.2,178,-0.120,-0.120,-0.120,0.000,0.000,0.000
1641170860771645184,2022-01-03-00:47:40,10.1.1.2,175,-0.110,-0.110,-0.110,0.000,0.000,0.000
1641170860974683136,2022-01-03-00:47:40,10.1.1.2,178,-0.100,-0.100,-0.100,0.000,0.000,0.000
1641170861174035968,2022-01-03-00:47:41,10.1.1.2,174,-0.090,-0.090,-0.090,0.000,0.000,0.000
1641170861392363008,2022-01-03-00:47:41,10.1.1.2,192,-0.080,-0.080,-0.080,0.000,0.000,0.000
1641170861599458048,2022-01-03-00:47:41,10.1.1.2,198,-0.070,-0.070,-0.070,0.000,0.000,0.000
1641170861987524096,2022-01-03-00:47:41,10.1.1.2,180,-0.050,-0.050,-0.050,0.000,0.000,0.000
1641170862189101824,2022-01-03-00:47:42,10.1.1.2,180,-0.040,-0.040,-0.040,0.000,0.000,0.000
1641170862402021888,2022-01-03-00:47:42,10.1.1.2,192,-0.030,-0.030,-0.030,0.000,0.000,0.000
1641170862591661824,2022-01-03-00:47:42,10.1.1.2,181,-0.020,-0.020,-0.020,0.000,0.000,0.000
1641170862810278912,2022-01-03-00:47:42,10.1.1.2,192,-0.010,-0.010,-0.010,0.000,0.000,0.000
1641170863009957120,2022-01-03-00:47:43,10.1.1.2,186,0.000,0.000,0.000,0.000,0.000,0.000
1641170863218141952,2022-01-03-00:47:43,10.1.1.2,193,-0.010,-0.010,-0.010,0.000,0.000,0.000
1641170863409435904,2022-01-03-00:47:43,10.1.1.2,183,-0.020,-0.020,-0.020,0.000,0.000,0.000
1641170863812455936,2022-01-03-00:47:43,10.1.1.2,184,-0.040,-0.040,-0.040,0.000,0.000,0.000
1641170864206615040,2022-01-03-00:47:44,10.1.1.2,177,-0.060,-0.060,-0.060,0.000,0.000,0.000
1641170864415021824,2022-01-03-00:47:44,10.1.1.2,184,-0.070,-0.070,-0.070,0.000,0.000,0.000
1641170864613587968,2022-01-03-00:47:44,10.1.1.2,179,-0.080,-0.080,-0.080,0.000,0.000,0.000
1641170864815692032,2022-01-03-00:47:44,10.1.1.2,180,-0.090,-0.090,-0.090,0.000,0.000,0.000
1641170865215475968,2022-01-03-00:47:45,10.1.1.2,178,-0.110,-0.110,-0.110,0.000,0.000,0.000
1641170865415048960,2022-01-03-00:47:45,10.1.1.2,176,-0.120,-0.120,-0.120,0.000,0.000,0.000
1641170865613884928,2022-01-03-00:47:45,10.1.1.2,174,-0.130,-0.130,-0.130,0.000,0.000,0.000
1641170865813978880,2022-01-03-00:47:45,10.1.1.2,173,-0.140,-0.140,-0.140,0.000,0.000,0.000
1641170866016797184,2022-01-03-00:47:46,10.1.1.2,174,-0.150,-0.150,-0.150,0.000,0.000,0.000
1641170866234905856,2022-01-03-00:47:46,10.1.1.2,192,-0.160,-0.160,-0.160,0.000,0.000,0.000
1641170866413675008,2022-01-03-00:47:46,10.1.1.2,170,-0.170,-0.170,-0.170,0.000,0.000,0.000
1641170866613073152,2022-01-03-00:47:46,10.1.1.2,168,-0.180,-0.180,-0.180,0.000,0.000,0.000
1641170866832364032,2022-01-03-00:47:46,10.1.1.2,187,-0.190,-0.190,-0.190,0.000,0.000,0.000
1641170867033039104,2022-01-03-00:47:47,10.1.1.2,186,-0.200,-0.200,-0.200,0.000,0.000,0.000
1641170867231770880,2022-01-03-00:47:47,10.1.1.2,184,-0.210,-0.210,-0.210,0.000,0.000,0.000
1641170867431715840,2022-01-03-00:47:47,10.1.1.2,183,-0.220,-0.220,-0.220,0.000,0.000,0.000
1641170867632616960,2022-01-03-00:47:47,10.1.1.2,183,-0.230,-0.230,-0.230,0.000,0.000,0.000
1641170867828464128,2022-01-03-00:47:47,10.1.1.2,178,-0.240,-0.240,-0.240,0.000,0.000,0.000
1641170868029145088,2022-01-03-00:47:48,10.1.1.2,179,-0.250,-0.250,-0.250,0.000,0.000,0.000
1641170868227467008,2022-01-03-00:47:48,10.1.1.2,176,-0.260,-0.260,-0.260,0.000,0.000,0.000
1641170868422213120,2022-01-03-00:47:48,10.1.1.2,170,-0.270,-0.270,-0.270,0.000,0.000,0.000
1641170868622754048,2022-01-03-00:47:48,10.1.1.2,170,-0.280,-0.280,-0.280,0.000,0.000,0.000
1641170868830452992,2022-01-03-00:47:48,10.1.1.2,177,-0.290,-0.290,-0.290,0.000,0.000,0.000
1641170869021529856,2022-01-03-00:47:49,10.1.1.2,167,-0.300,-0.300,-0.300,0.000,0.000,0.000
1641170869223021056,2022-01-03-00:47:49,10.1.1.2,168,-0.310,-0.310,-0.310,0.000,0.000,0.000
1641170869420829952,2022-01-03-00:47:49,10.1.1.2,165,-0.320,-0.320,-0.320,0.000,0.000,0.000
1641170869620147968,2022-01-03-00:47:49,10.1.1.2,163,-0.330,-0.330,-0.330,0.000,0.000,0.000
1641170869840003840,2022-01-03-00:47:49,10.1.1.2,182,-0.340,-0.340,-0.340,0.000,0.000,0.000
1641170870021430016,2022-01-03-00:47:50,10.1.1.2,162,-0.350,-0.350,-0.350,0.000,0.000,0.000
1641170870226039040,2022-01-03-00:47:50,10.1.1.2,166,-0.360,-0.360,-0.360,0.000,0.000,0.000
1641170870425887232,2022-01-03-00:47:50,10.1.1.2,165,-0.370,-0.370,-0.370,0.000,0.000,0.000
1641170870626200064,2022-01-03-00:47:50,10.1.1.2,164,-0.380,-0.380,-0.380,0.000,0.000,0.000
1641170870823848960,2022-01-03-00:47:50,10.1.1.2,161,-0.390,-0.390,-0.390,0.000,0.000,0.000
1641170871043991040,2022-01-03-00:47:51,10.1.1.2,180,-0.400,-0.400,-0.400,0.000,0.000,0.000
1641170871246045184,2022-01-03-00:47:51,10.1.1.2,181,-0.410,-0.410,-0.410,0.000,0.000,0.000
1641170871438829056,2022-01-03-00:47:51,10.1.1.2,173,-0.420,-0.420,-0.420,0.000,0.000,0.000
1641170871638945024,2022-01-03-00:47:51,10.1.1.2,173,-0.430,-0.430,-0.430,0.000,0.000,0.000
1641170871831457024,2022-01-03-00:47:51,10.1.1.2,164,-0.440,-0.440,-0.440,0.000,0.000,0.000
1641170872042004224,2022-01-03-00:47:52,10.1.1.2,174,-0.450,-0.450,-0.450,0.000,0.000,0.000
1641170872240295936,2022-01-03-00:47:52,10.1.1.2,172,-0.460,-0.460,-0.460,0.000,0.000,0.000
1641170872459379968,2022-01-03-00:47:52,10.1.1.2,187,-0.470,-0.470,-0.470,0.000,0.000,0.000
1641170872640834048,2022-01-03-00:47:52,10.1.1.2,167,-0.480,-0.480,-0.480,0.000,0.000,0.000
1641170872836807936,2022-01-03-00:47:52,10.1.1.2,163,-0.490,-0.490,-0.490,0.000,0.000,0.000
1641170873034168832,2022-01-03-00:47:53,10.1.1.2,159,-0.480,-0.480,-0.480,0.000,0.000,0.000
1641170873247284992,2022-01-03-00:47:53,10.1.1.2,171,-0.470,-0.470,-0.470,0.000,0.000,0.000
1641170873440656896,2022-01-03-00:47:53,10.1.1.2,163,-0.460,-0.460,-0.460,0.000,0.000,0.000
1641170873649125120,2022-01-03-00:47:53,10.1.1.2,171,-0.450,-0.450,-0.450,0.000,0.000,0.000
1641170873838515968,2022-01-03-00:47:53,10.1.1.2,159,-0.440,-0.440,-0.440,0.000,0.000,0.000
1641170874037803776,2022-01-03-00:47:54,10.1.1.2,157,-0.430,-0.430,-0.430,0.000,0.000,0.000
1641170874238374912,2022-01-03-00:47:54,10.1.1.2,157,-0.420,-0.420,-0.420,0.000,0.000,0.000
1641170874653767936,2022-01-03-00:47:54,10.1.1.2,167,-0.400,-0.400,-0.400,0.000,0.000,0.000
1641170874855092992,2022-01-03-00:47:54,10.1.1.2,167,-0.390,-0.390,-0.390,0.000,0.000,0.000
1641170875069577984,2022-01-03-00:47:55,10.1.1.2,180,-0.380,-0.380,-0.380,0.000,0.000,0.000
1641170875251254016,2022-01-03-00:47:55,10.1.1.2,161,-0.370,-0.370,-0.370,0.000,0.000,0.000
1641170875462830080,2022-01-03-00:47:55,10.1.1.2,172,-0.360,-0.360,-0.360,0.000,0.000,0.000
1641170875664226048,2022-01-03-00:47:55,10.1.1.2,172,-0.350,-0.350,-0.350,0.000,0.000,0.000
1641170875869704960,2022-01-03-00:47:55,10.1.1.2,177,-0.340,-0.340,-0.340,0.000,0.000,0.000
1641170876060271872,2022-01-03-00:47:56,10.1.1.2,167,-0.330,-0.330,-0.330,0.000,0.000,0.000
1641170876260178944,2022-01-03-00:47:56,10.1.1.2,165,-0.320,-0.320,-0.320,0.000,0.000,0.000
1641170876465656064,2022-01-03-00:47:56,10.1.1.2,170,-0.310,-0.310,-0.310,0.000,0.000,0.000
1641170876684647936,2022-01-03-00:47:56,10.1.1.2,189,-0.300,-0.300,-0.300,0.000,0.000,0.000
1641170876865657088,2022-01-03-00:47:56,10.1.1.2,169,-0.290,-0.290,-0.290,0.000,0.000,0.000
1641170877068581120,2022-01-03-00:47:57,10.1.1.2,169,-0.280,-0.280,-0.280,0.000,0.000,0.000
1641170877488815104,2022-01-03-00:47:57,10.1.1.2,186,-0.260,-0.260,-0.260,0.000,0.000,0.000
1641170877694617088,2022-01-03-00:47:57,10.1.1.2,191,-0.250,-0.250,-0.250,0.000,0.000,0.000
1641170877889230080,2022-01-03-00:47:57,10.1.1.2,185,-0.240,-0.240,-0.240,0.000,0.000,0.000
1641170878086081024,2022-01-03-00:47:58,10.1.1.2,181,-0.230,-0.230,-0.230,0.000,0.000,0.000
1641170878285521920,2022-01-03-00:47:58,10.1.1.2,180,-0.220,-0.220,-0.220,0.000,0.000,0.000
1641170878487790080,2022-01-03-00:47:58,10.1.1.2,180,-0.210,-0.210,-0.210,0.000,0.000,0.000
1641170878887149056,2022-01-03-00:47:58,10.1.1.2,175,-0.190,-0.190,-0.190,0.000,0.000,0.000
1641170879088537088,2022-01-03-00:47:59,10.1.1.2,173,-0.180,-0.180,-0.180,0.000,0.000,0.000
1641170879310036992,2022-01-03-00:47:59,10.1.1.2,190,-0.170,-0.170,-0.170,0.000,0.000,0.000
1641170879905970944,2022-01-03-00:47:59,10.1.1.2,183,-0.140,-0.140,-0.140,0.000,0.000,0.000
1641170880117017088,2022-01-03-00:48:00,10.1.1.2,193,-0.130,-0.130,-0.130,0.000,0.000,0.000
1641170880316557056,2022-01-03-00:48:00,10.1.1.2,192,-0.120,-0.120,-0.120,0.000,0.000,0.000
1641170880524513024,2022-01-03-00:48:00,10.1.1.2,198,-0.110,-0.110,-0.110,0.000,0.000,0.000
1641170880918020864,2022-01-03-00:48:00,10.1.1.2,187,-0.090,-0.090,-0.090,0.000,0.000,0.000
1641170881329405952,2022-01-03-00:48:01,10.1.1.2,195,-0.070,-0.070,-0.070,0.000,0.000,0.000
1641170881529035008,2022-01-03-00:48:01,10.1.1.2,193,-0.060,-0.060,-0.060,0.000,0.000,0.000
1641170881919148800,2022-01-03-00:48:01,10.1.1.2,181,-0.040,-0.040,-0.040,0.000,0.000,0.000
1641170882729361152,2022-01-03-00:48:02,10.1.1.2,180,0.000,0.000,0.000,0.000,0.000,0.000
1641170882933597184,2022-01-03-00:48:02,10.1.1.2,182,-0.010,-0.010,-0.010,0.000,0.000,0.000
1641170883143393024,2022-01-03-00:48:03,10.1.1.2,190,-0.020,-0.020,-0.020,0.000,0.000,0.000
1641170883354984960,2022-01-03-00:48:03,10.1.1.2,200,-0.030,-0.030,-0.030,0.000,0.000,0.000
1641170883532870144,2022-01-03-00:48:03,10.1.1.2,177,-0.040,-0.040,-0.040,0.000,0.000,0.000
1641170883743808000,2022-01-03-00:48:03,10.1.1.2,183,-0.050,-0.050,-0.050,0.000,0.000,0.000
1641170883957953024,2022-01-03-00:48:03,10.1.1.2,197,-0.060,-0.060,-0.060,0.000,0.000,0.000
1641170884956662016,2022-01-03-00:48:04,10.1.1.2,185,-0.110,-0.110,-0.110,0.000,0.000,0.000
1641170885157437184,2022-01-03-00:48:05,10.1.1.2,185,-0.120,-0.120,-0.120,0.000,0.000,0.000
1641170885356892160,2022-01-03-00:48:05,10.1.1.2,182,-0.130,-0.130,-0.130,0.000,0.000,0.000
1641170885564467968,2022-01-03-00:48:05,10.1.1.2,189,-0.140,-0.140,-0.140,0.000,0.000,0.000
1641170885756793088,2022-01-03-00:48:05,10.1.1.2,179,-0.150,-0.150,-0.150,0.000,0.000,0.000
1641170885959076864,2022-01-03-00:48:05,10.1.1.2,180,-0.160,-0.160,-0.160,0.000,0.000,0.000
1641170886159693056,2022-01-03-00:48:06,10.1.1.2,180,-0.170,-0.170,-0.170,0.000,0.000,0.000
1641170886368851968,2022-01-03-00:48:06,10.1.1.2,186,-0.180,-0.180,-0.180,0.000,0.000,0.000
1641170886576670976,2022-01-03-00:48:06,10.1.1.2,193,-0.190,-0.190,-0.190,0.000,0.000,0.000
1641170886776503040,2022-01-03-00:48:06,10.1.1.2,192,-0.200,-0.200,-0.200,0.000,0.000,0.000
1641170886981039104,2022-01-03-00:48:06,10.1.1.2,196,-0.210,-0.210,-0.210,0.000,0.000,0.000
1641170887167484928,2022-01-03-00:48:07,10.1.1.2,180,-0.220,-0.220,-0.220,0.000,0.000,0.000
1641170887382324992,2022-01-03-00:48:07,10.1.1.2,194,-0.230,-0.230,-0.230,0.000,0.000,0.000
1641170887587842048,2022-01-03-00:48:07,10.1.1.2,194,-0.240,-0.240,-0.240,0.000,0.000,0.000
1641170887790129920,2022-01-03-00:48:07,10.1.1.2,193,-0.250,-0.250,-0.250,0.000,0.000,0.000
1641170887982162944,2022-01-03-00:48:07,10.1.1.2,184,-0.260,-0.260,-0.260,0.000,0.000,0.000
1641170888183469056,2022-01-03-00:48:08,10.1.1.2,184,-0.270,-0.270,-0.270,0.000,0.000,0.000
1641170888586131968,2022-01-03-00:48:08,10.1.1.2,186,-0.290,-0.290,-0.290,0.000,0.000,0.000
1641170888783194112,2022-01-03-00:48:08,10.1.1.2,181,-0.300,-0.300,-0.300,0.000,0.000,0.000
1641170888994592000,2022-01-03-00:48:08,10.1.1.2,191,-0.310,-0.310,-0.310,0.000,0.000,0.000
1641170889393785856,2022-01-03-00:48:09,10.1.1.2,189,-0.330,-0.330,-0.330,0.000,0.000,0.000
1641170890003884032,2022-01-03-00:48:10,10.1.1.2,194,-0.360,-0.360,-0.360,0.000,0.000,0.000
1641170890210469120,2022-01-03-00:48:10,10.1.1.2,200,-0.370,-0.370,-0.370,0.000,0.000,0.000
1641170890395380992,2022-01-03-00:48:10,10.1.1.2,184,-0.380,-0.380,-0.380,0.000,0.000,0.000
1641170890600239872,2022-01-03-00:48:10,10.1.1.2,187,-0.390,-0.390,-0.390,0.000,0.000,0.000
1641170890801112832,2022-01-03-00:48:10,10.1.1.2,187,-0.400,-0.400,-0.400,0.000,0.000,0.000
1641170891010245120,2022-01-03-00:48:11,10.1.1.2,195,-0.410,-0.410,-0.410,0.000,0.000,0.000
1641170891200096000,2022-01-03-00:48:11,10.1.1.2,184,-0.420,-0.420,-0.420,0.000,0.000,0.000
1641170892422512128,2022-01-03-00:48:12,10.1.1.2,193,-0.480,-0.480,-0.480,0.000,0.000,0.000
1641170892616632832,2022-01-03-00:48:12,10.1.1.2,184,-0.490,-0.490,-0.490,0.000,0.000,0.000
1641170892816350976,2022-01-03-00:48:12,10.1.1.2,181,-0.480,-0.480,-0.480,0.000,0.000,0.000
1641170893022699008,2022-01-03-00:48:13,10.1.1.2,186,-0.470,-0.470,-0.470,0.000,0.000,0.000
1641170893621793024,2022-01-03-00:48:13,10.1.1.2,182,-0.440,-0.440,-0.440,0.000,0.000,0.000
1641170894025234944,2022-01-03-00:48:14,10.1.1.2,184,-0.420,-0.420,-0.420,0.000,0.000,0.000
1641170894242714880,2022-01-03-00:48:14,10.1.1.2,201,-0.410,-0.410,-0.410,0.000,0.000,0.000
1641170894434422016,2022-01-03-00:48:14,10.1.1.2,189,-0.400,-0.400,-0.400,0.000,0.000,0.000
1641170894633555968,2022-01-03-00:48:14,10.1.1.2,187,-0.390,-0.390,-0.390,0.000,0.000,0.000
1641170894834471936,2022-01-03-00:48:14,10.1.1.2,185,-0.380,-0.380,-0.380,0.000,0.000,0.000
1641170895030816000,2022-01-03-00:48:15,10.1.1.2,177,-0.370,-0.370,-0.370,0.000,0.000,0.000
1641170895634917888,2022-01-03-00:48:15,10.1.1.2,178,-0.340,-0.340,-0.340,0.000,0.000,0.000
1641170896044236800,2022-01-03-00:48:16,10.1.1.2,182,-0.320,-0.320,-0.320,0.000,0.000,0.000
1641170896446305024,2022-01-03-00:48:16,10.1.1.2,179,-0.300,-0.300,-0.300,0.000,0.000,0.000
1641170896650438144,2022-01-03-00:48:16,10.1.1.2,181,-0.290,-0.290,-0.290,0.000,0.000,0.000
1641170896670563072,2022-01-03-00:48:16,10.1.1.2,-1,-0.290,-0.290,-0.290,0.000,0.000,0.000
1641170897248201984,2022-01-03-00:48:17,10.1.1.2,174,-0.260,-0.260,-0.260,0.000,0.000,0.000
1641170897447254784,2022-01-03-00:48:17,10.1.1.2,169,-0.250,-0.250,-0.250,0.000,0.000,0.000
1641170897666964992,2022-01-03-00:48:17,10.1.1.2,187,-0.240,-0.240,-0.240,0.000,0.000,0.000
1641170897867629056,2022-01-03-00:48:17,10.1.1.2,184,-0.230,-0.230,-0.230,0.000,0.000,0.000
1641170898070221824,2022-01-03-00:48:18,10.1.1.2,185,-0.220,-0.220,-0.220,0.000,0.000,0.000
1641170898487984896,2022-01-03-00:48:18,10.1.1.2,200,-0.200,-0.200,-0.200,0.000,0.000,0.000
1641170898866650112,2022-01-03-00:48:18,10.1.1.2,175,-0.180,-0.180,-0.180,0.000,0.000,0.000
1641170899292370944,2022-01-03-00:48:19,10.1.1.2,199,-0.160,-0.160,-0.160,0.000,0.000,0.000
1641170899485908992,2022-01-03-00:48:19,10.1.1.2,191,-0.150,-0.150,-0.150,0.000,0.000,0.000
1641170899696958976,2022-01-03-00:48:19,10.1.1.2,199,-0.140,-0.140,-0.140,0.000,0.000,0.000
1641170899883564032,2022-01-03-00:48:19,10.1.1.2,184,-0.130,-0.130,-0.130,0.000,0.000,0.000
1641170900083558912,2022-01-03-00:48:20,10.1.1.2,184,-0.120,-0.120,-0.120,0.000,0.000,0.000
1641170900282761216,2022-01-03-00:48:20,10.1.1.2,182,-0.110,-0.110,-0.110,0.000,0.000,0.000
1641170900482979072,2022-01-03-00:48:20,10.1.1.2,181,-0.100,-0.100,-0.100,0.000,0.000,0.000
1641170900682010880,2022-01-03-00:48:20,10.1.1.2,179,-0.090,-0.090,-0.090,0.000,0.000,0.000
1641170900872541952,2022-01-03-00:48:20,10.1.1.2,169,-0.080,-0.080,-0.080,0.000,0.000,0.000
1641170901089571072,2022-01-03-00:48:21,10.1.1.2,186,-0.070,-0.070,-0.070,0.000,0.000,0.000
1641170901284507904,2022-01-03-00:48:21,10.1.1.2,179,-0.060,-0.060,-0.060,0.000,0.000,0.000
1641170901484577792,2022-01-03-00:48:21,10.1.1.2,178,-0.050,-0.050,-0.050,0.000,0.000,0.000
1641170901684809984,2022-01-03-00:48:21,10.1.1.2,177,-0.040,-0.040,-0.040,0.000,0.000,0.000
1641170901897273088,2022-01-03-00:48:21,10.1.1.2,189,-0.030,-0.030,-0.030,0.000,0.000,0.000
1641170902087808000,2022-01-03-00:48:22,10.1.1.2,178,-0.020,-0.020,-0.020,0.000,0.000,0.000
1641170902300313088,2022-01-03-00:48:22,10.1.1.2,182,-0.010,-0.010,-0.010,0.000,0.000,0.000
1641170902490487040,2022-01-03-00:48:22,10.1.1.2,172,0.000,0.000,0.000,0.000,0.000,0.000
1641170902686937088,2022-01-03-00:48:22,10.1.1.2,167,-0.010,-0.010,-0.010,0.000,0.000,0.000
1641170902913257984,2022-01-03-00:48:22,10.1.1.2,193,-0.020,-0.020,-0.020,0.000,0.000,0.000
1641170903111448064,2022-01-03-00:48:23,10.1.1.2,190,-0.030,-0.030,-0.030,0.000,0.000,0.000
1641170903282877952,2022-01-03-00:48:23,10.1.1.2,161,-0.040,-0.040,-0.040,0.000,0.000,0.000
1641170903503431168,2022-01-03-00:48:23,10.1.1.2,180,-0.050,-0.050,-0.050,0.000,0.000,0.000
1641170903719512064,2022-01-03-00:48:23,10.1.1.2,196,-0.060,-0.060,-0.060,0.000,0.000,0.000
1641170903898288896,2022-01-03-00:48:23,10.1.1.2,174,-0.070,-0.070,-0.070,0.000,0.000,0.000
1641170904114063104,2022-01-03-00:48:24,10.1.1.2,189,-0.080,-0.080,-0.080,0.000,0.000,0.000
1641170904294444032,2022-01-03-00:48:24,10.1.1.2,168,-0.090,-0.090,-0.090,0.000,0.000,0.000
1641170904520076032,2022-01-03-00:48:24,10.1.1.2,193,-0.100,-0.100,-0.100,0.000,0.000,0.000
1641170904695169024,2022-01-03-00:48:24,10.1.1.2,168,-0.110,-0.110,-0.110,0.000,0.000,0.000
1641170904898123008,2022-01-03-00:48:24,10.1.1.2,169,-0.120,-0.120,-0.120,0.000,0.000,0.000
1641170905301597184,2022-01-03-00:48:25,10.1.1.2,166,-0.140,-0.140,-0.140,0.000,0.000,0.000
1641170905502265088,2022-01-03-00:48:25,10.1.1.2,164,-0.150,-0.150,-0.150,0.000,0.000,0.000
1641170905700730112,2022-01-03-00:48:25,10.1.1.2,162,-0.160,-0.160,-0.160,0.000,0.000,0.000
1641170905930831872,2022-01-03-00:48:25,10.1.1.2,190,-0.170,-0.170,-0.170,0.000,0.000,0.000
1641170906137569792,2022-01-03-00:48:26,10.1.1.2,196,-0.180,-0.180,-0.180,0.000,0.000,0.000
1641170906317977856,2022-01-03-00:48:26,10.1.1.2,175,-0.190,-0.190,-0.190,0.000,0.000,0.000
1641170906517905920,2022-01-03-00:48:26,10.1.1.2,174,-0.200,-0.200,-0.200,0.000,0.000,0.000
1641170906715097856,2022-01-03-00:48:26,10.1.1.2,170,-0.210,-0.210,-0.210,0.000,0.000,0.000
1641170906916924928,2022-01-03-00:48:26,10.1.1.2,170,-0.220,-0.220,-0.220,0.000,0.000,0.000
1641170907119437824,2022-01-03-00:48:27,10.1.1.2,171,-0.230,-0.230,-0.230,0.000,0.000,0.000
1641170907319735040,2022-01-03-00:48:27,10.1.1.2,170,-0.240,-0.240,-0.240,0.000,0.000,0.000
1641170907520307968,2022-01-03-00:48:27,10.1.1.2,170,-0.250,-0.250,-0.250,0.000,0.000,0.000
1641170907724481024,2022-01-03-00:48:27,10.1.1.2,174,-0.260,-0.260,-0.260,0.000,0.000,0.000
1641170907907252992,2022-01-03-00:48:27,10.1.1.2,156,-0.270,-0.270,-0.270,0.000,0.000,0.000
1641170908132476160,2022-01-03-00:48:28,10.1.1.2,181,-0.280,-0.280,-0.280,0.000,0.000,0.000
1641170908324649984,2022-01-03-00:48:28,10.1.1.2,172,-0.290,-0.290,-0.290,0.000,0.000,0.000
1641170908523241984,2022-01-03-00:48:28,10.1.1.2,169,-0.300,-0.300,-0.300,0.000,0.000,0.000
1641170908719516160,2022-01-03-00:48:28,10.1.1.2,164,-0.310,-0.310,-0.310,0.000,0.000,0.000
1641170908931683072,2022-01-03-00:48:28,10.1.1.2,176,-0.320,-0.320,-0.320,0.000,0.000,0.000
1641170909142080000,2022-01-03-00:48:29,10.1.1.2,182,-0.330,-0.330,-0.330,0.000,0.000,0.000
1641170909342729984,2022-01-03-00:48:29,10.1.1.2,180,-0.340,-0.340,-0.340,0.000,0.000,0.000
1641170909544197120,2022-01-03-00:48:29,10.1.1.2,181,-0.350,-0.350,-0.350,0.000,0.000,0.000
1641170909744066048,2022-01-03-00:48:29,10.1.1.2,179,-0.360,-0.360,-0.360,0.000,0.000,0.000
1641170909945417984,2022-01-03-00:48:29,10.1.1.2,180,-0.370,-0.370,-0.370,0.000,0.000,0.000
1641170910146657024,2022-01-03-00:48:30,10.1.1.2,180,-0.380,-0.380,-0.380,0.000,0.000,0.000
1641170910347080960,2022-01-03-00:48:30,10.1.1.2,179,-0.390,-0.390,-0.390,0.000,0.000,0.000
1641170910547154944,2022-01-03-00:48:30,10.1.1.2,179,-0.400,-0.400,-0.400,0.000,0.000,0.000
1641170910747014144,2022-01-03-00:48:30,10.1.1.2,178,-0.410,-0.410,-0.410,0.000,0.000,0.000
1641170910934117120,2022-01-03-00:48:30,10.1.1.2,164,-0.420,-0.420,-0.420,0.000,0.000,0.000
1641170911357264896,2022-01-03-00:48:31,10.1.1.2,185,-0.440,-0.440,-0.440,0.000,0.000,0.000
1641170911559176960,2022-01-03-00:48:31,10.1.1.2,186,-0.450,-0.450,-0.450,0.000,0.000,0.000
1641170911759111936,2022-01-03-00:48:31,10.1.1.2,185,-0.460,-0.460,-0.460,0.000,0.000,0.000
1641170912157605888,2022-01-03-00:48:32,10.1.1.2,181,-0.480,-0.480,-0.480,0.000,0.000,0.000
1641170912178180096,2022-01-03-00:48:32,10.1.1.2,-2,-0.480,-0.480,-0.480,0.000,0.000,0.000
1641170912558240768,2022-01-03-00:48:32,10.1.1.2,179,-0.480,-0.480,-0.480,0.000,0.000,0.000
1641170912758182912,2022-01-03-00:48:32,10.1.1.2,178,-0.470,-0.470,-0.470,0.000,0.000,0.000
1641170912958409984,2022-01-03-00:48:32,10.1.1.2,176,-0.460,-0.460,-0.460,0.000,0.000,0.000
1641170913177654016,2022-01-03-00:48:33,10.1.1.2,195,-0.450,-0.450,-0.450,0.000,0.000,0.000
1641170913360820992,2022-01-03-00:48:33,10.1.1.2,177,-0.440,-0.440,-0.440,0.000,0.000,0.000
1641170913585164032,2022-01-03-00:48:33,10.1.1.2,200,-0.430,-0.430,-0.430,0.000,0.000,0.000
1641170913783147008,2022-01-03-00:48:33,10.1.1.2,197,-0.420,-0.420,-0.420,0.000,0.000,0.000
1641170913977166848,2022-01-03-00:48:33,10.1.1.2,190,-0.410,-0.410,-0.410,0.000,0.000,0.000
1641170914179671040,2022-01-03-00:48:34,10.1.1.2,192,-0.400,-0.400,-0.400,0.000,0.000,0.000
1641170914571830016,2022-01-03-00:48:34,10.1.1.2,176,-0.380,-0.380,-0.380,0.000,0.000,0.000
1641170914777659904,2022-01-03-00:48:34,10.1.1.2,179,-0.370,-0.370,-0.370,0.000,0.000,0.000
1641170914978044160,2022-01-03-00:48:34,10.1.1.2,179,-0.360,-0.360,-0.360,0.000,0.000,0.000
1641170915178097920,2022-01-03-00:48:35,10.1.1.2,178,-0.350,-0.350,-0.350,0.000,0.000,0.000
1641170915398119936,2022-01-03-00:48:35,10.1.1.2,197,-0.340,-0.340,-0.340,0.000,0.000,0.000
1641170915997286144,2022-01-03-00:48:35,10.1.1.2,192,-0.310,-0.310,-0.310,0.000,0.000,0.000
1641170916389072896,2022-01-03-00:48:36,10.1.1.2,183,-0.290,-0.290,-0.290,0.000,0.000,0.000
1641170916607516160,2022-01-03-00:48:36,10.1.1.2,201,-0.280,-0.280,-0.280,0.000,0.000,0.000
1641170916804409856,2022-01-03-00:48:36,10.1.1.2,195,-0.270,-0.270,-0.270,0.000,0.000,0.000
1641170916996057088,2022-01-03-00:48:36,10.1.1.2,186,-0.260,-0.260,-0.260,0.000,0.000,0.000
1641170917196672000,2022-01-03-00:48:37,10.1.1.2,182,-0.250,-0.250,-0.250,0.000,0.000,0.000
1641170917399072768,2022-01-03-00:48:37,10.1.1.2,182,-0.240,-0.240,-0.240,0.000,0.000,0.000
1641170917605257984,2022-01-03-00:48:37,10.1.1.2,187,-0.230,-0.230,-0.230,0.000,0.000,0.000
1641170917815640064,2022-01-03-00:48:37,10.1.1.2,194,-0.220,-0.220,-0.220,0.000,0.000,0.000
1641170918020112128,2022-01-03-00:48:38,10.1.1.2,195,-0.210,-0.210,-0.210,0.000,0.000,0.000
1641170918216667904,2022-01-03-00:48:38,10.1.1.2,190,-0.200,-0.200,-0.200,0.000,0.000,0.000
1641170918417076992,2022-01-03-00:48:38,10.1.1.2,189,-0.190,-0.190,-0.190,0.000,0.000,0.000
1641170918616087040,2022-01-03-00:48:38,10.1.1.2,186,-0.180,-0.180,-0.180,0.000,0.000,0.000
1641170918819142144,2022-01-03-00:48:38,10.1.1.2,187,-0.170,-0.170,-0.170,0.000,0.000,0.000
1641170919016523008,2022-01-03-00:48:39,10.1.1.2,184,-0.160,-0.160,-0.160,0.000,0.000,0.000
1641170919216840960,2022-01-03-00:48:39,10.1.1.2,181,-0.150,-0.150,-0.150,0.000,0.000,0.000
1641170919416032000,2022-01-03-00:48:39,10.1.1.2,179,-0.140,-0.140,-0.140,0.000,0.000,0.000
1641170919636220928,2022-01-03-00:48:39,10.1.1.2,198,-0.130,-0.130,-0.130,0.000,0.000,0.000
1641170919836503040,2022-01-03-00:48:39,10.1.1.2,197,-0.120,-0.120,-0.120,0.000,0.000,0.000
1641170920243113984,2022-01-03-00:48:40,10.1.1.2,198,-0.100,-0.100,-0.100,0.000,0.000,0.000
1641170920638638848,2022-01-03-00:48:40,10.1.1.2,189,-0.080,-0.080,-0.080,0.000,0.000,0.000
1641170920838265856,2022-01-03-00:48:40,10.1.1.2,185,-0.070,-0.070,-0.070,0.000,0.000,0.000
1641170921037954048,2022-01-03-00:48:41,10.1.1.2,183,-0.060,-0.060,-0.060,0.000,0.000,0.000
1641170921239533824,2022-01-03-00:48:41,10.1.1.2,182,-0.050,-0.050,-0.050,0.000,0.000,0.000
1641170921436315904,2022-01-03-00:48:41,10.1.1.2,178,-0.040,-0.040,-0.040,0.000,0.000,0.000
1641170921661520896,2022-01-03-00:48:41,10.1.1.2,194,-0.030,-0.030,-0.030,0.000,0.000,0.000
1641170921863503872,2022-01-03-00:48:41,10.1.1.2,194,-0.020,-0.020,-0.020,0.000,0.000,0.000
1641170922057550080,2022-01-03-00:48:42,10.1.1.2,187,-0.010,-0.010,-0.010,0.000,0.000,0.000
1641170922257733120,2022-01-03-00:48:42,10.1.1.2,179,-0.000,-0.000,-0.000,0.000,0.000,0.000
1641170922476689152,2022-01-03-00:48:42,10.1.1.2,197,-0.010,-0.010,-0.010,0.000,0.000,0.000
1641170922660402176,2022-01-03-00:48:42,10.1.1.2,179,-0.020,-0.020,-0.020,0.000,0.000,0.000
1641170922860713984,2022-01-03-00:48:42,10.1.1.2,179,-0.030,-0.030,-0.030,0.000,0.000,0.000
1641170923065836032,2022-01-03-00:48:43,10.1.1.2,183,-0.040,-0.040,-0.040,0.000,0.000,0.000
1641170923473510912,2022-01-03-00:48:43,10.1.1.2,185,-0.060,-0.060,-0.060,0.000,0.000,0.000
1641170923681798912,2022-01-03-00:48:43,10.1.1.2,192,-0.070,-0.070,-0.070,0.000,0.000,0.000
1641170923882944000,2022-01-03-00:48:43,10.1.1.2,191,-0.080,-0.080,-0.080,0.000,0.000,0.000
1641170924082917888,2022-01-03-00:48:44,10.1.1.2,188,-0.090,-0.090,-0.090,0.000,0.000,0.000
1641170924278203904,2022-01-03-00:48:44,10.1.1.2,183,-0.100,-0.100,-0.100,0.000,0.000,0.000
1641170924681605120,2022-01-03-00:48:44,10.1.1.2,184,-0.120,-0.120,-0.120,0.000,0.000,0.000
1641170924884742912,2022-01-03-00:48:44,10.1.1.2,186,-0.130,-0.130,-0.130,0.000,0.000,0.000
1641170925080431104,2022-01-03-00:48:45,10.1.1.2,181,-0.140,-0.140,-0.140,0.000,0.000,0.000
1641170925280779008,2022-01-03-00:48:45,10.1.1.2,180,-0.150,-0.150,-0.150,0.000,0.000,0.000
1641170925478949120,2022-01-03-00:48:45,10.1.1.2,175,-0.160,-0.160,-0.160,0.000,0.000,0.000
1641170925701076992,2022-01-03-00:48:45,10.1.1.2,194,-0.170,-0.170,-0.170,0.000,0.000,0.000
1641170925902081024,2022-01-03-00:48:45,10.1.1.2,191,-0.180,-0.180,-0.180,0.000,0.000,0.000
1641170926100378112,2022-01-03-00:48:46,10.1.1.2,189,-0.190,-0.190,-0.190,0.000,0.000,0.000
1641170926291398144,2022-01-03-00:48:46,10.1.1.2,179,-0.200,-0.200,-0.200,0.000,0.000,0.000
1641170926501296128,2022-01-03-00:48:46,10.1.1.2,186,-0.210,-0.210,-0.210,0.000,0.000,0.000
1641170926901593088,2022-01-03-00:48:46,10.1.1.2,184,-0.230,-0.230,-0.230,0.000,0.000,0.000
1641170927112036096,2022-01-03-00:48:47,10.1.1.2,191,-0.240,-0.240,-0.240,0.000,0.000,0.000
1641170927311828992,2022-01-03-00:48:47,10.1.1.2,186,-0.250,-0.250,-0.250,0.000,0.000,0.000
1641170927514427904,2022-01-03-00:48:47,10.1.1.2,184,-0.260,-0.260,-0.260,0.000,0.000,0.000
1641170927713558016,2022-01-03-00:48:47,10.1.1.2,180,-0.270,-0.270,-0.270,0.000,0.000,0.000
1641170927913094144,2022-01-03-00:48:47,10.1.1.2,177,-0.280,-0.280,-0.280,0.000,0.000,0.000
1641170928331474944,2022-01-03-00:48:48,10.1.1.2,193,-0.300,-0.300,-0.300,0.000,0.000,0.000
1641170928517335040,2022-01-03-00:48:48,10.1.1.2,178,-0.310,-0.310,-0.310,0.000,0.000,0.000
1641170928915492096,2022-01-03-00:48:48,10.1.1.2,171,-0.330,-0.330,-0.330,0.000,0.000,0.000
1641170929132356864,2022-01-03-00:48:49,10.1.1.2,187,-0.340,-0.340,-0.340,0.000,0.000,0.000
1641170929319564032,2022-01-03-00:48:49,10.1.1.2,174,-0.350,-0.350,-0.350,0.000,0.000,0.000
1641170929528753920,2022-01-03-00:48:49,10.1.1.2,180,-0.360,-0.360,-0.360,0.000,0.000,0.000
1641170929928445952,2022-01-03-00:48:49,10.1.1.2,175,-0.380,-0.380,-0.380,0.000,0.000,0.000
1641170930127161856,2022-01-03-00:48:50,10.1.1.2,173,-0.390,-0.390,-0.390,0.000,0.000,0.000
1641170930531553024,2022-01-03-00:48:50,10.1.1.2,174,-0.410,-0.410,-0.410,0.000,0.000,0.000
1641170930735461888,2022-01-03-00:48:50,10.1.1.2,176,-0.420,-0.420,-0.420,0.000,0.000,0.000
1641170930929497856,2022-01-03-00:48:50,10.1.1.2,169,-0.430,-0.430,-0.430,0.000,0.000,0.000
1641170931144596224,2022-01-03-00:48:51,10.1.1.2,183,-0.440,-0.440,-0.440,0.000,0.000,0.000
1641170931347322880,2022-01-03-00:48:51,10.1.1.2,186,-0.450,-0.450,-0.450,0.000,0.000,0.000
1641170931547362048,2022-01-03-00:48:51,10.1.1.2,185,-0.460,-0.460,-0.460,0.000,0.000,0.000
1641170931728337920,2022-01-03-00:48:51,10.1.1.2,164,-0.470,-0.470,-0.470,0.000,0.000,0.000
1641170931947101184,2022-01-03-00:48:51,10.1.1.2,182,-0.480,-0.480,-0.480,0.000,0.000,0.000
1641170932346607872,2022-01-03-00:48:52,10.1.1.2,179,-0.480,-0.480,-0.480,0.000,0.000,0.000
1641170932544056064,2022-01-03-00:48:52,10.1.1.2,176,-0.470,-0.470,-0.470,0.000,0.000,0.000
1641170932745225984,2022-01-03-00:48:52,10.1.1.2,176,-0.460,-0.460,-0.460,0.000,0.000,0.000
1641170932942316032,2022-01-03-00:48:52,10.1.1.2,172,-0.450,-0.450,-0.450,0.000,0.000,0.000
1641170933143755008,2022-01-03-00:48:53,10.1.1.2,172,-0.440,-0.440,-0.440,0.000,0.000,0.000
1641170933346072064,2022-01-03-00:48:53,10.1.1.2,173,-0.430,-0.430,-0.430,0.000,0.000,0.000
1641170933546590976,2022-01-03-00:48:53,10.1.1.2,172,-0.420,-0.420,-0.420,0.000,0.000,0.000
1641170933745112064,2022-01-03-00:48:53,10.1.1.2,170,-0.410,-0.410,-0.410,0.000,0.000,0.000
1641170933944571904,2022-01-03-00:48:53,10.1.1.2,169,-0.400,-0.400,-0.400,0.000,0.000,0.000
1641170934145037824,2022-01-03-00:48:54,10.1.1.2,167,-0.390,-0.390,-0.390,0.000,0.000,0.000
1641170934344248064,2022-01-03-00:48:54,10.1.1.2,166,-0.380,-0.380,-0.380,0.000,0.000,0.000
1641170934544388096,2022-01-03-00:48:54,10.1.1.2,165,-0.370,-0.370,-0.370,0.000,0.000,0.000
1641170934743362048,2022-01-03-00:48:54,10.1.1.2,163,-0.360,-0.360,-0.360,0.000,0.000,0.000
1641170934948136192,2022-01-03-00:48:54,10.1.1.2,166,-0.350,-0.350,-0.350,0.000,0.000,0.000
1641170935163391232,2022-01-03-00:48:55,10.1.1.2,181,-0.340,-0.340,-0.340,0.000,0.000,0.000
1641170935361711104,2022-01-03-00:48:55,10.1.1.2,178,-0.330,-0.330,-0.330,0.000,0.000,0.000
1641170935544336128,2022-01-03-00:48:55,10.1.1.2,160,-0.320,-0.320,-0.320,0.000,0.000,0.000
1641170935743049984,2022-01-03-00:48:55,10.1.1.2,158,-0.310,-0.310,-0.310,0.000,0.000,0.000
1641170936161886976,2022-01-03-00:48:56,10.1.1.2,175,-0.290,-0.290,-0.290,0.000,0.000,0.000
1641170936557835008,2022-01-03-00:48:56,10.1.1.2,169,-0.270,-0.270,-0.270,0.000,0.000,0.000
1641170936958563072,2022-01-03-00:48:56,10.1.1.2,167,-0.250,-0.250,-0.250,0.000,0.000,0.000
1641170937163186944,2022-01-03-00:48:57,10.1.1.2,171,-0.240,-0.240,-0.240,0.000,0.000,0.000
1641170937363957760,2022-01-03-00:48:57,10.1.1.2,170,-0.230,-0.230,-0.230,0.000,0.000,0.000
1641170937555936000,2022-01-03-00:48:57,10.1.1.2,161,-0.220,-0.220,-0.220,0.000,0.000,0.000
1641170937756495872,2022-01-03-00:48:57,10.1.1.2,160,-0.210,-0.210,-0.210,0.000,0.000,0.000
1641170937958247936,2022-01-03-00:48:57,10.1.1.2,161,-0.200,-0.200,-0.200,0.000,0.000,0.000
1641170938158607872,2022-01-03-00:48:58,10.1.1.2,159,-0.190,-0.190,-0.190,0.000,0.000,0.000
1641170938391240960,2022-01-03-00:48:58,10.1.1.2,190,-0.180,-0.180,-0.180,0.000,0.000,0.000
1641170938561758976,2022-01-03-00:48:58,10.1.1.2,159,-0.170,-0.170,-0.170,0.000,0.000,0.000
1641170938766756096,2022-01-03-00:48:58,10.1.1.2,162,-0.160,-0.160,-0.160,0.000,0.000,0.000
1641170938980668928,2022-01-03-00:48:58,10.1.1.2,175,-0.150,-0.150,-0.150,0.000,0.000,0.000
1641170939181961984,2022-01-03-00:48:59,10.1.1.2,175,-0.140,-0.140,-0.140,0.000,0.000,0.000
1641170939384774912,2022-01-03-00:48:59,10.1.1.2,177,-0.130,-0.130,-0.130,0.000,0.000,0.000
1641170939570192128,2022-01-03-00:48:59,10.1.1.2,161,-0.120,-0.120,-0.120,0.000,0.000,0.000
1641170939779728896,2022-01-03-00:48:59,10.1.1.2,170,-0.110,-0.110,-0.110,0.000,0.000,0.000
1641170939979528960,2022-01-03-00:48:59,10.1.1.2,169,-0.100,-0.100,-0.100,0.000,0.000,0.000
1641170940179561984,2022-01-03-00:49:00,10.1.1.2,169,-0.090,-0.090,-0.090,0.000,0.000,0.000
1641170940381146880,2022-01-03-00:49:00,10.1.1.2,168,-0.080,-0.080,-0.080,0.000,0.000,0.000
1641170940581295104,2022-01-03-00:49:00,10.1.1.2,167,-0.070,-0.070,-0.070,0.000,0.000,0.000
1641170940786159104,2022-01-03-00:49:00,10.1.1.2,168,-0.060,-0.060,-0.060,0.000,0.000,0.000
1641170941194081024,2022-01-03-00:49:01,10.1.1.2,168,-0.040,-0.040,-0.040,0.000,0.000,0.000
1641170941403137024,2022-01-03-00:49:01,10.1.1.2,177,-0.030,-0.030,-0.030,0.000,0.000,0.000
1641170941604030976,2022-01-03-00:49:01,10.1.1.2,174,-0.020,-0.020,-0.020,0.000,0.000,0.000
1641170941803034112,2022-01-03-00:49:01,10.1.1.2,172,-0.010,-0.010,-0.010,0.000,0.000,0.000
1641170942017950976,2022-01-03-00:49:02,10.1.1.2,186,0.000,0.000,0.000,0.000,0.000,0.000
1641170942203792128,2022-01-03-00:49:02,10.1.1.2,171,-0.010,-0.010,-0.010,0.000,0.000,0.000
1641170942402370816,2022-01-03-00:49:02,10.1.1.2,169,-0.020,-0.020,-0.020,0.000,0.000,0.000
1641170942603120128,2022-01-03-00:49:02,10.1.1.2,170,-0.030,-0.030,-0.030,0.000,0.000,0.000
1641170943208059136,2022-01-03-00:49:03,10.1.1.2,172,-0.060,-0.060,-0.060,0.000,0.000,0.000
1641170943409596928,2022-01-03-00:49:03,10.1.1.2,172,-0.070,-0.070,-0.070,0.000,0.000,0.000
1641170943611062016,2022-01-03-00:49:03,10.1.1.2,173,-0.080,-0.080,-0.080,0.000,0.000,0.000
1641170943812556032,2022-01-03-00:49:03,10.1.1.2,173,-0.090,-0.090,-0.090,0.000,0.000,0.000
1641170944011579136,2022-01-03-00:49:04,10.1.1.2,171,-0.100,-0.100,-0.100,0.000,0.000,0.000
1641170944829992960,2022-01-03-00:49:04,10.1.1.2,183,-0.140,-0.140,-0.140,0.000,0.000,0.000
1641170945447654912,2022-01-03-00:49:05,10.1.1.2,197,-0.170,-0.170,-0.170,0.000,0.000,0.000
1641170945637441024,2022-01-03-00:49:05,10.1.1.2,186,-0.180,-0.180,-0.180,0.000,0.000,0.000
1641170945837199872,2022-01-03-00:49:05,10.1.1.2,185,-0.190,-0.190,-0.190,0.000,0.000,0.000
1641170946241355008,2022-01-03-00:49:06,10.1.1.2,186,-0.210,-0.210,-0.210,0.000,0.000,0.000
1641170946452200960,2022-01-03-00:49:06,10.1.1.2,193,-0.220,-0.220,-0.220,0.000,0.000,0.000
1641170946843385856,2022-01-03-00:49:06,10.1.1.2,181,-0.240,-0.240,-0.240,0.000,0.000,0.000
1641170947041635072,2022-01-03-00:49:07,10.1.1.2,178,-0.250,-0.250,-0.250,0.000,0.000,0.000
1641170947655323904,2022-01-03-00:49:07,10.1.1.2,188,-0.280,-0.280,-0.280,0.000,0.000,0.000
1641170947851926016,2022-01-03-00:49:07,10.1.1.2,185,-0.290,-0.290,-0.290,0.000,0.000,0.000
1641170948068432128,2022-01-03-00:49:08,10.1.1.2,197,-0.300,-0.300,-0.300,0.000,0.000,0.000
1641170948251558144,2022-01-03-00:49:08,10.1.1.2,179,-0.310,-0.310,-0.310,0.000,0.000,0.000
1641170948665608960,2022-01-03-00:49:08,10.1.1.2,190,-0.330,-0.330,-0.330,0.000,0.000,0.000
1641170948863612928,2022-01-03-00:49:08,10.1.1.2,187,-0.340,-0.340,-0.340,0.000,0.000,0.000
1641170949262150144,2022-01-03-00:49:09,10.1.1.2,183,-0.360,-0.360,-0.360,0.000,0.000,0.000
1641170949661186816,2022-01-03-00:49:09,10.1.1.2,181,-0.380,-0.380,-0.380,0.000,0.000,0.000
1641170949861519104,2022-01-03-00:49:09,10.1.1.2,178,-0.390,-0.390,-0.390,0.000,0.000,0.000
1641170950082920960,2022-01-03-00:49:10,10.1.1.2,198,-0.400,-0.400,-0.400,0.000,0.000,0.000
1641170950283090176,2022-01-03-00:49:10,10.1.1.2,198,-0.410,-0.410,-0.410,0.000,0.000,0.000
1641170950482603008,2022-01-03-00:49:10,10.1.1.2,196,-0.420,-0.420,-0.420,0.000,0.000,0.000
1641170950688105984,2022-01-03-00:49:10,10.1.1.2,200,-0.430,-0.430,-0.430,0.000,0.000,0.000
1641170951078651904,2022-01-03-00:49:11,10.1.1.2,183,-0.450,-0.450,-0.450,0.000,0.000,0.000
1641170951288926976,2022-01-03-00:49:11,10.1.1.2,192,-0.460,-0.460,-0.460,0.000,0.000,0.000
1641170951485095936,2022-01-03-00:49:11,10.1.1.2,187,-0.470,-0.470,-0.470,0.000,0.000,0.000
1641170951699481088,2022-01-03-00:49:11,10.1.1.2,197,-0.480,-0.480,-0.480,0.000,0.000,0.000
1641170951900158976,2022-01-03-00:49:11,10.1.1.2,197,-0.490,-0.490,-0.490,0.000,0.000,0.000
1641170952098243072,2022-01-03-00:49:12,10.1.1.2,194,-0.480,-0.480,-0.480,0.000,0.000,0.000
1641170952299375104,2022-01-03-00:49:12,10.1.1.2,194,-0.470,-0.470,-0.470,0.000,0.000,0.000
1641170952499297024,2022-01-03-00:49:12,10.1.1.2,192,-0.460,-0.460,-0.460,0.000,0.000,0.000
1641170952698408960,2022-01-03-00:49:12,10.1.1.2,189,-0.450,-0.450,-0.450,0.000,0.000,0.000
1641170952898874112,2022-01-03-00:49:12,10.1.1.2,189,-0.440,-0.440,-0.440,0.000,0.000,0.000
1641170953098887936,2022-01-03-00:49:13,10.1.1.2,187,-0.430,-0.430,-0.430,0.000,0.000,0.000
1641170953298015232,2022-01-03-00:49:13,10.1.1.2,182,-0.420,-0.420,-0.420,0.000,0.000,0.000
1641170953504896000,2022-01-03-00:49:13,10.1.1.2,188,-0.410,-0.410,-0.410,0.000,0.000,0.000
1641170953721117952,2022-01-03-00:49:13,10.1.1.2,196,-0.400,-0.400,-0.400,0.000,0.000,0.000
1641170953919164928,2022-01-03-00:49:13,10.1.1.2,193,-0.390,-0.390,-0.390,0.000,0.000,0.000
1641170954110748160,2022-01-03-00:49:14,10.1.1.2,183,-0.380,-0.380,-0.380,0.000,0.000,0.000
1641170954517096960,2022-01-03-00:49:14,10.1.1.2,188,-0.360,-0.360,-0.360,0.000,0.000,0.000
1641170954717542912,2022-01-03-00:49:14,10.1.1.2,186,-0.350,-0.350,-0.350,0.000,0.000,0.000
1641170954917715200,2022-01-03-00:49:14,10.1.1.2,185,-0.340,-0.340,-0.340,0.000,0.000,0.000
1641170955106034944,2022-01-03-00:49:15,10.1.1.2,171,-0.330,-0.330,-0.330,0.000,0.000,0.000
1641170955316349952,2022-01-03-00:49:15,10.1.1.2,180,-0.320,-0.320,-0.320,0.000,0.000,0.000
1641170955534977024,2022-01-03-00:49:15,10.1.1.2,196,-0.310,-0.310,-0.310,0.000,0.000,0.000
1641170955733102080,2022-01-03-00:49:15,10.1.1.2,194,-0.300,-0.300,-0.300,0.000,0.000,0.000
1641170955937846016,2022-01-03-00:49:15,10.1.1.2,197,-0.290,-0.290,-0.290,0.000,0.000,0.000
1641170956132462080,2022-01-03-00:49:16,10.1.1.2,191,-0.280,-0.280,-0.280,0.000,0.000,0.000
1641170956339180032,2022-01-03-00:49:16,10.1.1.2,195,-0.270,-0.270,-0.270,0.000,0.000,0.000
1641170956527185920,2022-01-03-00:49:16,10.1.1.2,183,-0.260,-0.260,-0.260,0.000,0.000,0.000
1641170956739927040,2022-01-03-00:49:16,10.1.1.2,194,-0.250,-0.250,-0.250,0.000,0.000,0.000
1641170956938991104,2022-01-03-00:49:16,10.1.1.2,191,-0.240,-0.240,-0.240,0.000,0.000,0.000
1641170957138756864,2022-01-03-00:49:17,10.1.1.2,188,-0.230,-0.230,-0.230,0.000,0.000,0.000
1641170957337879808,2022-01-03-00:49:17,10.1.1.2,186,-0.220,-0.220,-0.220,0.000,0.000,0.000
1641170957538796800,2022-01-03-00:49:17,10.1.1.2,186,-0.210,-0.210,-0.210,0.000,0.000,0.000
1641170957739124992,2022-01-03-00:49:17,10.1.1.2,184,-0.200,-0.200,-0.200,0.000,0.000,0.000
1641170957937897984,2022-01-03-00:49:17,10.1.1.2,180,-0.190,-0.190,-0.190,0.000,0.000,0.000
1641170958138782976,2022-01-03-00:49:18,10.1.1.2,179,-0.180,-0.180,-0.180,0.000,0.000,0.000
1641170958338748928,2022-01-03-00:49:18,10.1.1.2,179,-0.170,-0.170,-0.170,0.000,0.000,0.000
1641170958553683968,2022-01-03-00:49:18,10.1.1.2,188,-0.160,-0.160,-0.160,0.000,0.000,0.000
1641170958758387200,2022-01-03-00:49:18,10.1.1.2,190,-0.150,-0.150,-0.150,0.000,0.000,0.000
1641170958955322112,2022-01-03-00:49:18,10.1.1.2,185,-0.140,-0.140,-0.140,0.000,0.000,0.000
1641170959161957888,2022-01-03-00:49:19,10.1.1.2,191,-0.130,-0.130,-0.130,0.000,0.000,0.000
1641170959355433984,2022-01-03-00:49:19,10.1.1.2,184,-0.120,-0.120,-0.120,0.000,0.000,0.000
1641170959551123968,2022-01-03-00:49:19,10.1.1.2,179,-0.110,-0.110,-0.110,0.000,0.000,0.000
1641170959749978112,2022-01-03-00:49:19,10.1.1.2,177,-0.100,-0.100,-0.100,0.000,0.000,0.000
1641170959954962944,2022-01-03-00:49:19,10.1.1.2,181,-0.090,-0.090,-0.090,0.000,0.000,0.000
1641170960163853056,2022-01-03-00:49:20,10.1.1.2,188,-0.080,-0.080,-0.080,0.000,0.000,0.000
1641170960360665088,2022-01-03-00:49:20,10.1.1.2,183,-0.070,-0.070,-0.070,0.000,0.000,0.000
1641170960550446080,2022-01-03-00:49:20,10.1.1.2,171,-0.060,-0.060,-0.060,0.000,0.000,0.000
1641170960959323904,2022-01-03-00:49:20,10.1.1.2,179,-0.040,-0.040,-0.040,0.000,0.000,0.000
1641170961156217088,2022-01-03-00:49:21,10.1.1.2,175,-0.030,-0.030,-0.030,0.000,0.000,0.000
1641170961356240128,2022-01-03-00:49:21,10.1.1.2,173,-0.020,-0.020,-0.020,0.000,0.000,0.000
1641170961567275008,2022-01-03-00:49:21,10.1.1.2,181,-0.010,-0.010,-0.010,0.000,0.000,0.000
1641170961772874240,2022-01-03-00:49:21,10.1.1.2,182,0.000,0.000,0.000,0.000,0.000,0.000
1641170961970778112,2022-01-03-00:49:21,10.1.1.2,179,-0.010,-0.010,-0.010,0.000,0.000,0.000
1641170962170153984,2022-01-03-00:49:22,10.1.1.2,177,-0.020,-0.020,-0.020,0.000,0.000,0.000
1641170962378415104,2022-01-03-00:49:22,10.1.1.2,184,-0.030,-0.030,-0.030,0.000,0.000,0.000
1641170962591326976,2022-01-03-00:49:22,10.1.1.2,195,-0.040,-0.040,-0.040,0.000,0.000,0.000
1641170962790852096,2022-01-03-00:49:22,10.1.1.2,195,-0.050,-0.050,-0.050,0.000,0.000,0.000
1641170962987153152,2022-01-03-00:49:22,10.1.1.2,191,-0.060,-0.060,-0.060,0.000,0.000,0.000
1641170963371911168,2022-01-03-00:49:23,10.1.1.2,171,-0.080,-0.080,-0.080,0.000,0.000,0.000
1641170963773865984,2022-01-03-00:49:23,10.1.1.2,170,-0.100,-0.100,-0.100,0.000,0.000,0.000
1641170963984409088,2022-01-03-00:49:23,10.1.1.2,180,-0.110,-0.110,-0.110,0.000,0.000,0.000
1641170964193219072,2022-01-03-00:49:24,10.1.1.2,187,-0.120,-0.120,-0.120,0.000,0.000,0.000
1641170964381880064,2022-01-03-00:49:24,10.1.1.2,172,-0.130,-0.130,-0.130,0.000,0.000,0.000
1641170964582917888,2022-01-03-00:49:24,10.1.1.2,169,-0.140,-0.140,-0.140,0.000,0.000,0.000
1641170964813769984,2022-01-03-00:49:24,10.1.1.2,193,-0.150,-0.150,-0.150,0.000,0.000,0.000
1641170964991417856,2022-01-03-00:49:24,10.1.1.2,170,-0.160,-0.160,-0.160,0.000,0.000,0.000
1641170965211983872,2022-01-03-00:49:25,10.1.1.2,190,-0.170,-0.170,-0.170,0.000,0.000,0.000
1641170965390562048,2022-01-03-00:49:25,10.1.1.2,168,-0.180,-0.180,-0.180,0.000,0.000,0.000
1641170965590915072,2022-01-03-00:49:25,10.1.1.2,167,-0.190,-0.190,-0.190,0.000,0.000,0.000
1641170965802184192,2022-01-03-00:49:25,10.1.1.2,178,-0.200,-0.200,-0.200,0.000,0.000,0.000
1641170966002383872,2022-01-03-00:49:26,10.1.1.2,175,-0.210,-0.210,-0.210,0.000,0.000,0.000
1641170966202217216,2022-01-03-00:49:26,10.1.1.2,174,-0.220,-0.220,-0.220,0.000,0.000,0.000
1641170966402905088,2022-01-03-00:49:26,10.1.1.2,173,-0.230,-0.230,-0.230,0.000,0.000,0.000
1641170966604172032,2022-01-03-00:49:26,10.1.1.2,173,-0.240,-0.240,-0.240,0.000,0.000,0.000
1641170966804692992,2022-01-03-00:49:26,10.1.1.2,173,-0.250,-0.250,-0.250,0.000,0.000,0.000
1641170967003529984,2022-01-03-00:49:27,10.1.1.2,170,-0.260,-0.260,-0.260,0.000,0.000,0.000
1641170967203383040,2022-01-03-00:49:27,10.1.1.2,169,-0.270,-0.270,-0.270,0.000,0.000,0.000
1641170967410956032,2022-01-03-00:49:27,10.1.1.2,176,-0.280,-0.280,-0.280,0.000,0.000,0.000
1641170967603529984,2022-01-03-00:49:27,10.1.1.2,167,-0.290,-0.290,-0.290,0.000,0.000,0.000
1641170967811436032,2022-01-03-00:49:27,10.1.1.2,174,-0.300,-0.300,-0.300,0.000,0.000,0.000
1641170968018371072,2022-01-03-00:49:28,10.1.1.2,180,-0.310,-0.310,-0.310,0.000,0.000,0.000
1641170968217964800,2022-01-03-00:49:28,10.1.1.2,177,-0.320,-0.320,-0.320,0.000,0.000,0.000
1641170968438647040,2022-01-03-00:49:28,10.1.1.2,197,-0.330,-0.330,-0.330,0.000,0.000,0.000
1641170968641180928,2022-01-03-00:49:28,10.1.1.2,198,-0.340,-0.340,-0.340,0.000,0.000,0.000
1641170968830980096,2022-01-03-00:49:28,10.1.1.2,187,-0.350,-0.350,-0.350,0.000,0.000,0.000
1641170969031752192,2022-01-03-00:49:29,10.1.1.2,185,-0.360,-0.360,-0.360,0.000,0.000,0.000
1641170969241763072,2022-01-03-00:49:29,10.1.1.2,194,-0.370,-0.370,-0.370,0.000,0.000,0.000
1641170969623127040,2022-01-03-00:49:29,10.1.1.2,168,-0.390,-0.390,-0.390,0.000,0.000,0.000
1641170969822291968,2022-01-03-00:49:29,10.1.1.2,167,-0.400,-0.400,-0.400,0.000,0.000,0.000
1641170970029406976,2022-01-03-00:49:30,10.1.1.2,163,-0.410,-0.410,-0.410,0.000,0.000,0.000
1641170970235737088,2022-01-03-00:49:30,10.1.1.2,167,-0.420,-0.420,-0.420,0.000,0.000,0.000
1641170970439700992,2022-01-03-00:49:30,10.1.1.2,170,-0.430,-0.430,-0.430,0.000,0.000,0.000
1641170970638199040,2022-01-03-00:49:30,10.1.1.2,168,-0.440,-0.440,-0.440,0.000,0.000,0.000
1641170970835483136,2022-01-03-00:49:30,10.1.1.2,164,-0.450,-0.450,-0.450,0.000,0.000,0.000
1641170971055558912,2022-01-03-00:49:31,10.1.1.2,183,-0.460,-0.460,-0.460,0.000,0.000,0.000
1641170971240590080,2022-01-03-00:49:31,10.1.1.2,168,-0.470,-0.470,-0.470,0.000,0.000,0.000
1641170971445049088,2022-01-03-00:49:31,10.1.1.2,172,-0.480,-0.480,-0.480,0.000,0.000,0.000
1641170971647988992,2022-01-03-00:49:31,10.1.1.2,173,-0.490,-0.490,-0.490,0.000,0.000,0.000
1641170972038254080,2022-01-03-00:49:32,10.1.1.2,160,-0.470,-0.470,-0.470,0.000,0.000,0.000
1641170972248608000,2022-01-03-00:49:32,10.1.1.2,168,-0.460,-0.460,-0.460,0.000,0.000,0.000
1641170972447148032,2022-01-03-00:49:32,10.1.1.2,166,-0.450,-0.450,-0.450,0.000,0.000,0.000
1641170972655462144,2022-01-03-00:49:32,10.1.1.2,174,-0.440,-0.440,-0.440,0.000,0.000,0.000
1641170972843558144,2022-01-03-00:49:32,10.1.1.2,161,-0.430,-0.430,-0.430,0.000,0.000,0.000
1641170973061997056,2022-01-03-00:49:33,10.1.1.2,177,-0.420,-0.420,-0.420,0.000,0.000,0.000
1641170973666109184,2022-01-03-00:49:33,10.1.1.2,178,-0.390,-0.390,-0.390,0.000,0.000,0.000
1641170973878836992,2022-01-03-00:49:33,10.1.1.2,190,-0.380,-0.380,-0.380,0.000,0.000,0.000
1641170974062423040,2022-01-03-00:49:34,10.1.1.2,173,-0.370,-0.370,-0.370,0.000,0.000,0.000
1641170974256205056,2022-01-03-00:49:34,10.1.1.2,165,-0.360,-0.360,-0.360,0.000,0.000,0.000
1641170974468125184,2022-01-03-00:49:34,10.1.1.2,176,-0.350,-0.350,-0.350,0.000,0.000,0.000
1641170974668019968,2022-01-03-00:49:34,10.1.1.2,175,-0.340,-0.340,-0.340,0.000,0.000,0.000
1641170974868002048,2022-01-03-00:49:34,10.1.1.2,174,-0.330,-0.330,-0.330,0.000,0.000,0.000
1641170975069943808,2022-01-03-00:49:35,10.1.1.2,175,-0.320,-0.320,-0.320,0.000,0.000,0.000
1641170975270451968,2022-01-03-00:49:35,10.1.1.2,175,-0.310,-0.310,-0.310,0.000,0.000,0.000
1641170975490833152,2022-01-03-00:49:35,10.1.1.2,194,-0.300,-0.300,-0.300,0.000,0.000,0.000
1641170975671427072,2022-01-03-00:49:35,10.1.1.2,172,-0.290,-0.290,-0.290,0.000,0.000,0.000
1641170975881480960,2022-01-03-00:49:35,10.1.1.2,181,-0.280,-0.280,-0.280,0.000,0.000,0.000
1641170976092267008,2022-01-03-00:49:36,10.1.1.2,191,-0.270,-0.270,-0.270,0.000,0.000,0.000
1641170976293436160,2022-01-03-00:49:36,10.1.1.2,187,-0.260,-0.260,-0.260,0.000,0.000,0.000
1641170976493423104,2022-01-03-00:49:36,10.1.1.2,186,-0.250,-0.250,-0.250,0.000,0.000,0.000
1641170976694093056,2022-01-03-00:49:36,10.1.1.2,186,-0.240,-0.240,-0.240,0.000,0.000,0.000
1641170976895057920,2022-01-03-00:49:36,10.1.1.2,185,-0.230,-0.230,-0.230,0.000,0.000,0.000
1641170977094791936,2022-01-03-00:49:37,10.1.1.2,184,-0.220,-0.220,-0.220,0.000,0.000,0.000
1641170977295933952,2022-01-03-00:49:37,10.1.1.2,184,-0.210,-0.210,-0.210,0.000,0.000,0.000
1641170977499227904,2022-01-03-00:49:37,10.1.1.2,187,-0.200,-0.200,-0.200,0.000,0.000,0.000
1641170977702210048,2022-01-03-00:49:37,10.1.1.2,189,-0.190,-0.190,-0.190,0.000,0.000,0.000
1641170977901509120,2022-01-03-00:49:37,10.1.1.2,188,-0.180,-0.180,-0.180,0.000,0.000,0.000
1641170978104655872,2022-01-03-00:49:38,10.1.1.2,190,-0.170,-0.170,-0.170,0.000,0.000,0.000
1641170978494974976,2022-01-03-00:49:38,10.1.1.2,178,-0.150,-0.150,-0.150,0.000,0.000,0.000
1641170978695732992,2022-01-03-00:49:38,10.1.1.2,179,-0.140,-0.140,-0.140,0.000,0.000,0.000
1641170979106985216,2022-01-03-00:49:39,10.1.1.2,188,-0.120,-0.120,-0.120,0.000,0.000,0.000
1641170979698174976,2022-01-03-00:49:39,10.1.1.2,178,-0.090,-0.090,-0.090,0.000,0.000,0.000
1641170979907915008,2022-01-03-00:49:39,10.1.1.2,186,-0.080,-0.080,-0.080,0.000,0.000,0.000
1641170980098797056,2022-01-03-00:49:40,10.1.1.2,177,-0.070,-0.070,-0.070,0.000,0.000,0.000
1641170980305607168,2022-01-03-00:49:40,10.1.1.2,183,-0.060,-0.060,-0.060,0.000,0.000,0.000
1641170980522466048,2022-01-03-00:49:40,10.1.1.2,199,-0.050,-0.050,-0.050,0.000,0.000,0.000
1641170980914444032,2022-01-03-00:49:40,10.1.1.2,189,-0.030,-0.030,-0.030,0.000,0.000,0.000
1641170981103590912,2022-01-03-00:49:41,10.1.1.2,175,-0.020,-0.020,-0.020,0.000,0.000,0.000
1641170981317243136,2022-01-03-00:49:41,10.1.1.2,188,-0.010,-0.010,-0.010,0.000,0.000,0.000
1641170981720119040,2022-01-03-00:49:41,10.1.1.2,180,-0.010,-0.010,-0.010,0.000,0.000,0.000
1641170982133673984,2022-01-03-00:49:42,10.1.1.2,191,-0.030,-0.030,-0.030,0.000,0.000,0.000
1641170982544672000,2022-01-03-00:49:42,10.1.1.2,197,-0.050,-0.050,-0.050,0.000,0.000,0.000
1641170982745515008,2022-01-03-00:49:42,10.1.1.2,196,-0.060,-0.060,-0.060,0.000,0.000,0.000
1641170982947849984,2022-01-03-00:49:42,10.1.1.2,198,-0.070,-0.070,-0.070,0.000,0.000,0.000
1641170983146946816,2022-01-03-00:49:43,10.1.1.2,193,-0.080,-0.080,-0.080,0.000,0.000,0.000
1641170983337987840,2022-01-03-00:49:43,10.1.1.2,183,-0.090,-0.090,-0.090,0.000,0.000,0.000
1641170983538557952,2022-01-03-00:49:43,10.1.1.2,182,-0.100,-0.100,-0.100,0.000,0.000,0.000
1641170983738817024,2022-01-03-00:49:43,10.1.1.2,181,-0.110,-0.110,-0.110,0.000,0.000,0.000
1641170983939037952,2022-01-03-00:49:43,10.1.1.2,180,-0.120,-0.120,-0.120,0.000,0.000,0.000
1641170984158222080,2022-01-03-00:49:44,10.1.1.2,196,-0.130,-0.130,-0.130,0.000,0.000,0.000
1641170984359235072,2022-01-03-00:49:44,10.1.1.2,191,-0.140,-0.140,-0.140,0.000,0.000,0.000
1641170984560014848,2022-01-03-00:49:44,10.1.1.2,191,-0.150,-0.150,-0.150,0.000,0.000,0.000
1641170984757412864,2022-01-03-00:49:44,10.1.1.2,187,-0.160,-0.160,-0.160,0.000,0.000,0.000
1641170984958151168,2022-01-03-00:49:44,10.1.1.2,187,-0.170,-0.170,-0.170,0.000,0.000,0.000
1641170985162338048,2022-01-03-00:49:45,10.1.1.2,190,-0.180,-0.180,-0.180,0.000,0.000,0.000
1641170985573774080,2022-01-03-00:49:45,10.1.1.2,200,-0.200,-0.200,-0.200,0.000,0.000,0.000
1641170985770163968,2022-01-03-00:49:45,10.1.1.2,195,-0.210,-0.210,-0.210,0.000,0.000,0.000
1641170985958113792,2022-01-03-00:49:45,10.1.1.2,183,-0.220,-0.220,-0.220,0.000,0.000,0.000
1641170986355586048,2022-01-03-00:49:46,10.1.1.2,179,-0.240,-0.240,-0.240,0.000,0.000,0.000
1641170986564780032,2022-01-03-00:49:46,10.1.1.2,187,-0.250,-0.250,-0.250,0.000,0.000,0.000
1641170986775428096,2022-01-03-00:49:46,10.1.1.2,197,-0.260,-0.260,-0.260,0.000,0.000,0.000
1641170986975389952,2022-01-03-00:49:46,10.1.1.2,196,-0.270,-0.270,-0.270,0.000,0.000,0.000
1641170987174803968,2022-01-03-00:49:47,10.1.1.2,194,-0.280,-0.280,-0.280,0.000,0.000,0.000
1641170987374947072,2022-01-03-00:49:47,10.1.1.2,193,-0.290,-0.290,-0.290,0.000,0.000,0.000
1641170987574914048,2022-01-03-00:49:47,10.1.1.2,192,-0.300,-0.300,-0.300,0.000,0.000,0.000
1641170987775053056,2022-01-03-00:49:47,10.1.1.2,191,-0.310,-0.310,-0.310,0.000,0.000,0.000
1641170987976015104,2022-01-03-00:49:47,10.1.1.2,188,-0.320,-0.320,-0.320,0.000,0.000,0.000
1641170988174324992,2022-01-03-00:49:48,10.1.1.2,182,-0.330,-0.330,-0.330,0.000,0.000,0.000
1641170988375790080,2022-01-03-00:49:48,10.1.1.2,180,-0.340,-0.340,-0.340,0.000,0.000,0.000
1641170988574459136,2022-01-03-00:49:48,10.1.1.2,178,-0.350,-0.350,-0.350,0.000,0.000,0.000
1641170988984731904,2022-01-03-00:49:48,10.1.1.2,186,-0.370,-0.370,-0.370,0.000,0.000,0.000
1641170989387674112,2022-01-03-00:49:49,10.1.1.2,188,-0.390,-0.390,-0.390,0.000,0.000,0.000
1641170990194231040,2022-01-03-00:49:50,10.1.1.2,190,-0.430,-0.430,-0.430,0.000,0.000,0.000
1641170990391650816,2022-01-03-00:49:50,10.1.1.2,186,-0.440,-0.440,-0.440,0.000,0.000,0.000
1641170990599283968,2022-01-03-00:49:50,10.1.1.2,193,-0.450,-0.450,-0.450,0.000,0.000,0.000
1641170991008753920,2022-01-03-00:49:51,10.1.1.2,201,-0.470,-0.470,-0.470,0.000,0.000,0.000
1641170991202279168,2022-01-03-00:49:51,10.1.1.2,193,-0.480,-0.480,-0.480,0.000,0.000,0.000
1641170991397922048,2022-01-03-00:49:51,10.1.1.2,187,-0.490,-0.490,-0.490,0.000,0.000,0.000
1641170991599448832,2022-01-03-00:49:51,10.1.1.2,188,-0.480,-0.480,-0.480,0.000,0.000,0.000
1641170991797494016,2022-01-03-00:49:51,10.1.1.2,177,-0.470,-0.470,-0.470,0.000,0.000,0.000
1641170991997311232,2022-01-03-00:49:51,10.1.1.2,176,-0.460,-0.460,-0.460,0.000,0.000,0.000
1641170992196791808,2022-01-03-00:49:52,10.1.1.2,175,-0.450,-0.450,-0.450,0.000,0.000,0.000
1641170992396898048,2022-01-03-00:49:52,10.1.1.2,172,-0.440,-0.440,-0.440,0.000,0.000,0.000
1641170992617065984,2022-01-03-00:49:52,10.1.1.2,192,-0.430,-0.430,-0.430,0.000,0.000,0.000
1641170992805507840,2022-01-03-00:49:52,10.1.1.2,179,-0.420,-0.420,-0.420,0.000,0.000,0.000
1641170993003289088,2022-01-03-00:49:53,10.1.1.2,176,-0.410,-0.410,-0.410,0.000,0.000,0.000
1641170993223017984,2022-01-03-00:49:53,10.1.1.2,194,-0.400,-0.400,-0.400,0.000,0.000,0.000
1641170993409011968,2022-01-03-00:49:53,10.1.1.2,179,-0.390,-0.390,-0.390,0.000,0.000,0.000
1641170993832453888,2022-01-03-00:49:53,10.1.1.2,194,-0.370,-0.370,-0.370,0.000,0.000,0.000
1641170994214029056,2022-01-03-00:49:54,10.1.1.2,174,-0.350,-0.350,-0.350,0.000,0.000,0.000
1641170994414562048,2022-01-03-00:49:54,10.1.1.2,174,-0.340,-0.340,-0.340,0.000,0.000,0.000
1641170994611347968,2022-01-03-00:49:54,10.1.1.2,170,-0.330,-0.330,-0.330,0.000,0.000,0.000
1641170995029598976,2022-01-03-00:49:55,10.1.1.2,185,-0.310,-0.310,-0.310,0.000,0.000,0.000
1641170995214725888,2022-01-03-00:49:55,10.1.1.2,171,-0.300,-0.300,-0.300,0.000,0.000,0.000
1641170995427275008,2022-01-03-00:49:55,10.1.1.2,182,-0.290,-0.290,-0.290,0.000,0.000,0.000
1641170995627067136,2022-01-03-00:49:55,10.1.1.2,178,-0.280,-0.280,-0.280,0.000,0.000,0.000
1641170995824932096,2022-01-03-00:49:55,10.1.1.2,169,-0.270,-0.270,-0.270,0.000,0.000,0.000
1641170996024916992,2022-01-03-00:49:56,10.1.1.2,168,-0.260,-0.260,-0.260,0.000,0.000,0.000
1641170996247714048,2022-01-03-00:49:56,10.1.1.2,184,-0.250,-0.250,-0.250,0.000,0.000,0.000
1641170996451458816,2022-01-03-00:49:56,10.1.1.2,186,-0.240,-0.240,-0.240,0.000,0.000,0.000
1641170996644470016,2022-01-03-00:49:56,10.1.1.2,178,-0.230,-0.230,-0.230,0.000,0.000,0.000
1641170997047425024,2022-01-03-00:49:57,10.1.1.2,174,-0.210,-0.210,-0.210,0.000,0.000,0.000
1641170997246891008,2022-01-03-00:49:57,10.1.1.2,173,-0.200,-0.200,-0.200,0.000,0.000,0.000
1641170997447084800,2022-01-03-00:49:57,10.1.1.2,172,-0.190,-0.190,-0.190,0.000,0.000,0.000
1641170997646153984,2022-01-03-00:49:57,10.1.1.2,170,-0.180,-0.180,-0.180,0.000,0.000,0.000
1641170998269548800,2022-01-03-00:49:58,10.1.1.2,184,-0.150,-0.150,-0.150,0.000,0.000,0.000
1641170998469046016,2022-01-03-00:49:58,10.1.1.2,183,-0.140,-0.140,-0.140,0.000,0.000,0.000
1641170998647519232,2022-01-03-00:49:58,10.1.1.2,161,-0.130,-0.130,-0.130,0.000,0.000,0.000
1641170999054653952,2022-01-03-00:49:59,10.1.1.2,165,-0.110,-0.110,-0.110,0.000,0.000,0.000
1641170999263092992,2022-01-03-00:49:59,10.1.1.2,172,-0.100,-0.100,-0.100,0.000,0.000,0.000
1641170999474080000,2022-01-03-00:49:59,10.1.1.2,176,-0.090,-0.090,-0.090,0.000,0.000,0.000
1641170999667237120,2022-01-03-00:49:59,10.1.1.2,167,-0.080,-0.080,-0.080,0.000,0.000,0.000
1641170999866640128,2022-01-03-00:49:59,10.1.1.2,165,-0.070,-0.070,-0.070,0.000,0.000,0.000
1641171000272120832,2022-01-03-00:50:00,10.1.1.2,164,-0.050,-0.050,-0.050,0.000,0.000,0.000
1641171000486861056,2022-01-03-00:50:00,10.1.1.2,178,-0.040,-0.040,-0.040,0.000,0.000,0.000
1641171000681338112,2022-01-03-00:50:00,10.1.1.2,171,-0.030,-0.030,-0.030,0.000,0.000,0.000
1641171000888387072,2022-01-03-00:50:00,10.1.1.2,174,-0.020,-0.020,-0.020,0.000,0.000,0.000
1641171001085704960,2022-01-03-00:50:01,10.1.1.2,168,-0.010,-0.010,-0.010,0.000,0.000,0.000
1641171001288635904,2022-01-03-00:50:01,10.1.1.2,168,0.000,0.000,0.000,0.000,0.000,0.000
1641171001500534016,2022-01-03-00:50:01,10.1.1.2,179,-0.010,-0.010,-0.010,0.000,0.000,0.000
1641171001698290176,2022-01-03-00:50:01,10.1.1.2,175,-0.020,-0.020,-0.020,0.000,0.000,0.000
1641171001900623104,2022-01-03-00:50:01,10.1.1.2,174,-0.030,-0.030,-0.030,0.000,0.000,0.000
1641171002297189888,2022-01-03-00:50:02,10.1.1.2,167,-0.050,-0.050,-0.050,0.000,0.000,0.000
1641171002502004992,2022-01-03-00:50:02,10.1.1.2,171,-0.060,-0.060,-0.060,0.000,0.000,0.000
1641171002701355008,2022-01-03-00:50:02,10.1.1.2,168,-0.070,-0.070,-0.070,0.000,0.000,0.000
1641171002906001920,2022-01-03-00:50:02,10.1.1.2,172,-0.080,-0.080,-0.080,0.000,0.000,0.000
1641171003101010176,2022-01-03-00:50:03,10.1.1.2,162,-0.090,-0.090,-0.090,0.000,0.000,0.000
1641171003300232960,2022-01-03-00:50:03,10.1.1.2,160,-0.100,-0.100,-0.100,0.000,0.000,0.000
1641171003519439104,2022-01-03-00:50:03,10.1.1.2,177,-0.110,-0.110,-0.110,0.000,0.000,0.000
1641171003698408960,2022-01-03-00:50:03,10.1.1.2,156,-0.120,-0.120,-0.120,0.000,0.000,0.000
1641171003918572800,2022-01-03-00:50:03,10.1.1.2,175,-0.130,-0.130,-0.130,0.000,0.000,0.000
1641171004104592128,2022-01-03-00:50:04,10.1.1.2,160,-0.140,-0.140,-0.140,0.000,0.000,0.000
1641171004321500928,2022-01-03-00:50:04,10.1.1.2,176,-0.150,-0.150,-0.150,0.000,0.000,0.000
1641171004511207168,2022-01-03-00:50:04,10.1.1.2,165,-0.160,-0.160,-0.160,0.000,0.000,0.000
1641171004724932864,2022-01-03-00:50:04,10.1.1.2,177,-0.170,-0.170,-0.170,0.000,0.000,0.000
1641171004925576960,2022-01-03-00:50:04,10.1.1.2,175,-0.180,-0.180,-0.180,0.000,0.000,0.000
1641171005121278976,2022-01-03-00:50:05,10.1.1.2,170,-0.190,-0.190,-0.190,0.000,0.000,0.000
1641171005330095104,2022-01-03-00:50:05,10.1.1.2,178,-0.200,-0.200,-0.200,0.000,0.000,0.000
1641171005519929856,2022-01-03-00:50:05,10.1.1.2,167,-0.210,-0.210,-0.210,0.000,0.000,0.000
1641171005719497984,2022-01-03-00:50:05,10.1.1.2,165,-0.220,-0.220,-0.220,0.000,0.000,0.000
1641171005931421952,2022-01-03-00:50:05,10.1.1.2,176,-0.230,-0.230,-0.230,0.000,0.000,0.000
1641171006140645888,2022-01-03-00:50:06,10.1.1.2,185,-0.240,-0.240,-0.240,0.000,0.000,0.000
1641171006343170816,2022-01-03-00:50:06,10.1.1.2,182,-0.250,-0.250,-0.250,0.000,0.000,0.000
1641171006529969920,2022-01-03-00:50:06,10.1.1.2,168,-0.260,-0.260,-0.260,0.000,0.000,0.000
1641171006935506944,2022-01-03-00:50:06,10.1.1.2,171,-0.280,-0.280,-0.280,0.000,0.000,0.000
1641171007155488000,2022-01-03-00:50:07,10.1.1.2,189,-0.290,-0.290,-0.290,0.000,0.000,0.000
1641171007357212160,2022-01-03-00:50:07,10.1.1.2,181,-0.300,-0.300,-0.300,0.000,0.000,0.000
1641171007556932096,2022-01-03-00:50:07,10.1.1.2,181,-0.310,-0.310,-0.310,0.000,0.000,0.000
1641171007767122944,2022-01-03-00:50:07,10.1.1.2,188,-0.320,-0.320,-0.320,0.000,0.000,0.000
1641171007969243136,2022-01-03-00:50:07,10.1.1.2,189,-0.330,-0.330,-0.330,0.000,0.000,0.000
1641171008170306048,2022-01-03-00:50:08,10.1.1.2,185,-0.340,-0.340,-0.340,0.000,0.000,0.000
1641171008370400000,2022-01-03-00:50:08,10.1.1.2,184,-0.350,-0.350,-0.350,0.000,0.000,0.000
1641171008576009984,2022-01-03-00:50:08,10.1.1.2,188,-0.360,-0.360,-0.360,0.000,0.000,0.000
1641171008771107840,2022-01-03-00:50:08,10.1.1.2,180,-0.370,-0.370,-0.370,0.000,0.000,0.000
1641171008975678976,2022-01-03-00:50:08,10.1.1.2,184,-0.380,-0.380,-0.380,0.000,0.000,0.000
1641171009185656064,2022-01-03-00:50:09,10.1.1.2,193,-0.390,-0.390,-0.390,0.000,0.000,0.000
1641171009370451968,2022-01-03-00:50:09,10.1.1.2,177,-0.400,-0.400,-0.400,0.000,0.000,0.000
1641171009582039040,2022-01-03-00:50:09,10.1.1.2,187,-0.410,-0.410,-0.410,0.000,0.000,0.000
1641171009772957952,2022-01-03-00:50:09,10.1.1.2,177,-0.420,-0.420,-0.420,0.000,0.000,0.000
1641171009978413056,2022-01-03-00:50:09,10.1.1.2,181,-0.430,-0.430,-0.430,0.000,0.000,0.000
1641171010182745856,2022-01-03-00:50:10,10.1.1.2,184,-0.440,-0.440,-0.440,0.000,0.000,0.000
1641171010382982912,2022-01-03-00:50:10,10.1.1.2,180,-0.450,-0.450,-0.450,0.000,0.000,0.000
1641171010583006976,2022-01-03-00:50:10,10.1.1.2,180,-0.460,-0.460,-0.460,0.000,0.000,0.000
1641171010782257152,2022-01-03-00:50:10,10.1.1.2,178,-0.470,-0.470,-0.470,0.000,0.000,0.000
1641171011003601152,2022-01-03-00:50:11,10.1.1.2,195,-0.480,-0.480,-0.480,0.000,0.000,0.000
1641171011203789056,2022-01-03-00:50:11,10.1.1.2,191,-0.490,-0.490,-0.490,0.000,0.000,0.000
1641171011406701056,2022-01-03-00:50:11,10.1.1.2,193,-0.480,-0.480,-0.480,0.000,0.000,0.000
1641171011604079872,2022-01-03-00:50:11,10.1.1.2,190,-0.470,-0.470,-0.470,0.000,0.000,0.000
1641171011803948032,2022-01-03-00:50:11,10.1.1.2,188,-0.460,-0.460,-0.460,0.000,0.000,0.000
1641171012013360128,2022-01-03-00:50:12,10.1.1.2,196,-0.450,-0.450,-0.450,0.000,0.000,0.000
1641171012204096000,2022-01-03-00:50:12,10.1.1.2,186,-0.440,-0.440,-0.440,0.000,0.000,0.000
1641171012617413120,2022-01-03-00:50:12,10.1.1.2,197,-0.420,-0.420,-0.420,0.000,0.000,0.000
1641171012817506048,2022-01-03-00:50:12,10.1.1.2,193,-0.410,-0.410,-0.410,0.000,0.000,0.000
1641171013005443072,2022-01-03-00:50:13,10.1.1.2,180,-0.400,-0.400,-0.400,0.000,0.000,0.000
1641171013406867968,2022-01-03-00:50:13,10.1.1.2,180,-0.380,-0.380,-0.380,0.000,0.000,0.000
1641171013612605952,2022-01-03-00:50:13,10.1.1.2,179,-0.370,-0.370,-0.370,0.000,0.000,0.000
1641171013824253952,2022-01-03-00:50:13,10.1.1.2,190,-0.360,-0.360,-0.360,0.000,0.000,0.000
1641171014015908864,2022-01-03-00:50:14,10.1.1.2,181,-0.350,-0.350,-0.350,0.000,0.000,0.000
1641171014227919104,2022-01-03-00:50:14,10.1.1.2,192,-0.340,-0.340,-0.340,0.000,0.000,0.000
1641171014639385856,2022-01-03-00:50:14,10.1.1.2,199,-0.320,-0.320,-0.320,0.000,0.000,0.000
1641171014825810944,2022-01-03-00:50:14,10.1.1.2,186,-0.310,-0.310,-0.310,0.000,0.000,0.000
1641171015024527104,2022-01-03-00:50:15,10.1.1.2,183,-0.300,-0.300,-0.300,0.000,0.000,0.000
1641171015237991936,2022-01-03-00:50:15,10.1.1.2,195,-0.290,-0.290,-0.290,0.000,0.000,0.000
1641171015638964992,2022-01-03-00:50:15,10.1.1.2,194,-0.270,-0.270,-0.270,0.000,0.000,0.000
1641171015837851904,2022-01-03-00:50:15,10.1.1.2,192,-0.260,-0.260,-0.260,0.000,0.000,0.000
1641171016038312960,2022-01-03-00:50:16,10.1.1.2,181,-0.250,-0.250,-0.250,0.000,0.000,0.000
1641171016241883904,2022-01-03-00:50:16,10.1.1.2,179,-0.240,-0.240,-0.240,0.000,0.000,0.000
1641171016462673920,2022-01-03-00:50:16,10.1.1.2,199,-0.230,-0.230,-0.230,0.000,0.000,0.000
1641171016661817088,2022-01-03-00:50:16,10.1.1.2,198,-0.220,-0.220,-0.220,0.000,0.000,0.000
1641171016861426944,2022-01-03-00:50:16,10.1.1.2,196,-0.210,-0.210,-0.210,0.000,0.000,0.000
1641171017062980864,2022-01-03-00:50:17,10.1.1.2,196,-0.200,-0.200,-0.200,0.000,0.000,0.000
1641171017456847872,2022-01-03-00:50:17,10.1.1.2,188,-0.180,-0.180,-0.180,0.000,0.000,0.000
1641171017656771072,2022-01-03-00:50:17,10.1.1.2,186,-0.170,-0.170,-0.170,0.000,0.000,0.000
1641171017869925888,2022-01-03-00:50:17,10.1.1.2,198,-0.160,-0.160,-0.160,0.000,0.000,0.000
1641171018054651904,2022-01-03-00:50:18,10.1.1.2,182,-0.150,-0.150,-0.150,0.000,0.000,0.000
1641171018260008960,2022-01-03-00:50:18,10.1.1.2,186,-0.140,-0.140,-0.140,0.000,0.000,0.000
1641171018466962944,2022-01-03-00:50:18,10.1.1.2,192,-0.130,-0.130,-0.130,0.000,0.000,0.000
1641171018663045888,2022-01-03-00:50:18,10.1.1.2,186,-0.120,-0.120,-0.120,0.000,0.000,0.000
1641171018862589952,2022-01-03-00:50:18,10.1.1.2,183,-0.110,-0.110,-0.110,0.000,0.000,0.000
1641171019265767936,2022-01-03-00:50:19,10.1.1.2,181,-0.090,-0.090,-0.090,0.000,0.000,0.000
1641171019481696000,2022-01-03-00:50:19,10.1.1.2,196,-0.080,-0.080,-0.080,0.000,0.000,0.000
1641171019662863872,2022-01-03-00:50:19,10.1.1.2,177,-0.070,-0.070,-0.070,0.000,0.000,0.000
1641171020280577024,2022-01-03-00:50:20,10.1.1.2,189,-0.040,-0.040,-0.040,0.000,0.000,0.000
1641171020482358016,2022-01-03-00:50:20,10.1.1.2,190,-0.030,-0.030,-0.030,0.000,0.000,0.000
1641171020680811008,2022-01-03-00:50:20,10.1.1.2,186,-0.020,-0.020,-0.020,0.000,0.000,0.000
1641171020880767232,2022-01-03-00:50:20,10.1.1.2,184,-0.010,-0.010,-0.010,0.000,0.000,0.000
1641171021095895040,2022-01-03-00:50:21,10.1.1.2,198,0.000,0.000,0.000,0.000,0.000,0.000
1641171021275789056,2022-01-03-00:50:21,10.1.1.2,177,-0.010,-0.010,-0.010,0.000,0.000,0.000
1641171021475578112,2022-01-03-00:50:21,10.1.1.2,176,-0.020,-0.020,-0.020,0.000,0.000,0.000
1641171021878979840,2022-01-03-00:50:21,10.1.1.2,174,-0.040,-0.040,-0.040,0.000,0.000,0.000
1641171022100393984,2022-01-03-00:50:22,10.1.1.2,194,-0.050,-0.050,-0.050,0.000,0.000,0.000
