FedericoMungari/DigitalTwin_service/01_WiredScenario/Output/Output_script/script_rosapi_2_output_robots12_freq0_3.txt
timestamp,date,node,latency,joint_1,joint_2,joint_3,joint_4,joint_5,joint_6
1644374590300060160,2022-02-09-02:43:10,10.1.1.4,-9,-0.100,-0.100,-0.100,-0.000,0.000,-0.000
1644374590439996928,2022-02-09-02:43:10,10.1.1.4,28,-0.090,-0.090,-0.090,0.000,0.000,0.000
1644374590565463040,2022-02-09-02:43:10,10.1.1.4,27,-0.080,-0.080,-0.080,0.000,0.000,0.000
1644374590652935936,2022-02-09-02:43:10,10.1.1.4,24,-0.070,-0.070,-0.070,0.000,0.000,0.000
1644374590739446016,2022-02-09-02:43:10,10.1.1.4,24,-0.060,-0.060,-0.060,0.000,0.000,0.000
1644374590839361024,2022-02-09-02:43:10,10.1.1.4,23,-0.050,-0.050,-0.050,0.000,0.000,0.000
1644374590943105024,2022-02-09-02:43:10,10.1.1.4,22,-0.040,-0.040,-0.040,0.000,0.000,0.000
1644374591039439872,2022-02-09-02:43:11,10.1.1.4,22,-0.030,-0.030,-0.030,0.000,0.000,0.000
1644374591139802880,2022-02-09-02:43:11,10.1.1.4,22,-0.020,-0.020,-0.020,0.000,0.000,0.000
1644374591239607040,2022-02-09-02:43:11,10.1.1.4,20,-0.010,-0.010,-0.010,0.000,0.000,0.000
1644374591363388160,2022-02-09-02:43:11,10.1.1.4,38,0.000,0.000,0.000,0.000,0.000,0.000
1644374591460434944,2022-02-09-02:43:11,10.1.1.4,37,0.010,0.010,0.010,0.000,0.000,0.000
1644374591565176064,2022-02-09-02:43:11,10.1.1.4,36,0.020,0.020,0.020,0.000,0.000,0.000
1644374591660204800,2022-02-09-02:43:11,10.1.1.4,35,0.030,0.030,0.030,0.000,0.000,0.000
1644374591761684992,2022-02-09-02:43:11,10.1.1.4,35,0.040,0.040,0.040,0.000,0.000,0.000
1644374591859785984,2022-02-09-02:43:11,10.1.1.4,34,0.050,0.050,0.050,0.000,0.000,0.000
1644374591959620864,2022-02-09-02:43:11,10.1.1.4,33,0.060,0.060,0.060,0.000,0.000,0.000
1644374592060173056,2022-02-09-02:43:12,10.1.1.4,33,0.070,0.070,0.070,0.000,0.000,0.000
1644374592160859136,2022-02-09-02:43:12,10.1.1.4,32,0.080,0.080,0.080,0.000,0.000,0.000
1644374592262459904,2022-02-09-02:43:12,10.1.1.4,32,0.090,0.090,0.090,0.000,0.000,0.000
1644374592361259008,2022-02-09-02:43:12,10.1.1.4,30,0.100,0.100,0.100,0.000,0.000,0.000
1644374592459863808,2022-02-09-02:43:12,10.1.1.4,30,0.090,0.090,0.090,0.000,0.000,0.000
1644374592559712000,2022-02-09-02:43:12,10.1.1.4,27,0.080,0.080,0.080,0.000,0.000,0.000
1644374592661780992,2022-02-09-02:43:12,10.1.1.4,24,0.070,0.070,0.070,0.000,0.000,0.000
1644374592779650048,2022-02-09-02:43:12,10.1.1.4,21,0.060,0.060,0.060,0.000,0.000,0.000
1644374592879997952,2022-02-09-02:43:12,10.1.1.4,20,0.050,0.050,0.050,0.000,0.000,0.000
1644374592980235008,2022-02-09-02:43:12,10.1.1.4,19,0.041,0.041,0.041,0.000,0.000,0.000
1644374593100003072,2022-02-09-02:43:13,10.1.1.4,37,0.030,0.030,0.030,0.000,0.000,0.000
1644374593199676928,2022-02-09-02:43:13,10.1.1.4,35,0.020,0.020,0.020,0.000,0.000,0.000
1644374593300240896,2022-02-09-02:43:13,10.1.1.4,34,0.010,0.010,0.010,0.000,0.000,0.000
1644374593419553024,2022-02-09-02:43:13,10.1.1.4,34,0.000,0.000,0.000,0.000,0.000,0.000
1644374594171716096,2022-02-09-02:43:13,10.1.1.4,33,-0.010,-0.010,-0.010,0.000,0.000,0.000
1644374594218787072,2022-02-09-02:43:14,10.1.1.4,36,-0.020,-0.020,-0.020,0.000,0.000,0.000
1644374594319322112,2022-02-09-02:43:14,10.1.1.4,35,-0.030,-0.030,-0.030,0.000,0.000,0.000
1644374594419049984,2022-02-09-02:43:14,10.1.1.4,34,-0.040,-0.040,-0.040,0.000,0.000,0.000
1644374594519150080,2022-02-09-02:43:14,10.1.1.4,32,-0.050,-0.050,-0.050,0.000,0.000,0.000
1644374594619486976,2022-02-09-02:43:14,10.1.1.4,32,-0.060,-0.060,-0.060,0.000,0.000,0.000
1644374594718900992,2022-02-09-02:43:14,10.1.1.4,31,-0.070,-0.070,-0.070,0.000,0.000,0.000
1644374594821655040,2022-02-09-02:43:14,10.1.1.4,27,-0.080,-0.080,-0.080,0.000,0.000,0.000
1644374594918844928,2022-02-09-02:43:14,10.1.1.4,25,-0.090,-0.090,-0.090,0.000,0.000,0.000
1644374595043566080,2022-02-09-02:43:15,10.1.1.4,34,-0.100,-0.100,-0.100,0.000,0.000,0.000
1644374596213267200,2022-02-09-02:43:15,10.1.1.4,31,-0.090,-0.090,-0.090,0.000,0.000,0.000
1644374596259749888,2022-02-09-02:43:16,10.1.1.4,24,-0.080,-0.080,-0.080,0.000,0.000,0.000
1644374596359091968,2022-02-09-02:43:16,10.1.1.4,22,-0.070,-0.070,-0.070,0.000,0.000,0.000
1644374596459598080,2022-02-09-02:43:16,10.1.1.4,21,-0.060,-0.060,-0.060,0.000,0.000,0.000
1644374596579951104,2022-02-09-02:43:16,10.1.1.4,31,-0.050,-0.050,-0.050,0.000,0.000,0.000
1644374596679857920,2022-02-09-02:43:16,10.1.1.4,30,-0.040,-0.040,-0.040,0.000,0.000,0.000
1644374599524313856,2022-02-09-02:43:16,10.1.1.4,27,-0.030,-0.030,-0.030,0.000,0.000,0.000
1644374602899769088,2022-02-09-02:43:20,10.1.1.4,32,0.000,0.000,0.000,0.000,0.000,0.000
1644374606097563904,2022-02-09-02:43:23,10.1.1.4,21,0.030,0.030,0.030,0.000,0.000,0.000
1644374610902946048,2022-02-09-02:43:28,10.1.1.4,30,0.090,0.090,0.090,0.000,0.000,0.000
1644374612955918080,2022-02-09-02:43:32,10.1.1.4,-3461,0.090,0.090,0.090,0.000,0.000,0.000
1644374614725929984,2022-02-09-02:43:33,10.1.1.4,21,0.070,0.070,0.070,0.000,0.000,0.000
1644374616819164928,2022-02-09-02:43:35,10.1.1.4,20,0.040,0.040,0.040,0.000,0.000,0.000
1644374621793488896,2022-02-09-02:43:39,10.1.1.4,24,-0.060,-0.060,-0.060,0.000,0.000,0.000
1644374625807256832,2022-02-09-02:43:44,10.1.1.4,35,-0.080,-0.080,-0.080,0.000,0.000,0.000
1644374625859771904,2022-02-09-02:43:45,10.1.1.4,37,-0.070,-0.070,-0.070,0.000,0.000,0.000
1644374625959502080,2022-02-09-02:43:45,10.1.1.4,36,-0.060,-0.060,-0.060,0.000,0.000,0.000
1644374626090388992,2022-02-09-02:43:46,10.1.1.4,29,-0.050,-0.050,-0.050,0.000,0.000,0.000
1644374626263414016,2022-02-09-02:43:46,10.1.1.4,24,-0.040,-0.040,-0.040,0.000,0.000,0.000
1644374630099715840,2022-02-09-02:43:46,10.1.1.4,-175,-0.040,-0.040,-0.040,0.000,0.000,0.000
1644374634359035136,2022-02-09-02:43:52,10.1.1.4,37,0.070,0.070,0.070,0.000,0.000,0.000
1644374637933531904,2022-02-09-02:43:54,10.1.1.4,34,0.080,0.080,0.080,0.000,0.000,0.000
1644374638000471040,2022-02-09-02:43:58,10.1.1.4,24,0.090,0.090,0.090,0.000,0.000,0.000
1644374638118870016,2022-02-09-02:43:58,10.1.1.4,30,0.100,0.100,0.100,0.000,0.000,0.000
1644374638219842048,2022-02-09-02:43:58,10.1.1.4,30,0.090,0.090,0.090,0.000,0.000,0.000
1644374638318936064,2022-02-09-02:43:58,10.1.1.4,29,0.080,0.080,0.080,0.000,0.000,0.000
1644374638440736000,2022-02-09-02:43:58,10.1.1.4,36,0.070,0.070,0.070,0.000,0.000,0.000
1644374638539459072,2022-02-09-02:43:58,10.1.1.4,36,0.060,0.060,0.060,0.000,0.000,0.000
1644374638666862080,2022-02-09-02:43:58,10.1.1.4,35,0.050,0.050,0.050,0.000,0.000,0.000
1644374638740751872,2022-02-09-02:43:58,10.1.1.4,35,0.040,0.040,0.040,0.000,0.000,0.000
1644374640701440000,2022-02-09-02:43:59,10.1.1.4,21,0.020,0.020,0.020,0.000,0.000,0.000
1644374646012610048,2022-02-09-02:44:03,10.1.1.4,20,-0.020,-0.020,-0.020,0.000,0.000,0.000
1644374648686801920,2022-02-09-02:44:08,10.1.1.4,21,-0.070,-0.070,-0.070,0.000,0.000,0.000
1644374650919683840,2022-02-09-02:44:09,10.1.1.4,33,-0.100,-0.100,-0.100,0.000,0.000,0.000
1644374659764359936,2022-02-09-02:44:18,10.1.1.4,-761,0.050,0.050,0.050,0.000,0.000,0.000
1644374662753537024,2022-02-09-02:44:22,10.1.1.4,23,-0.030,-0.030,-0.030,0.000,0.000,0.000
1644374668002758144,2022-02-09-02:44:25,10.1.1.4,28,-0.090,-0.090,-0.090,0.000,0.000,0.000
1644374670478818816,2022-02-09-02:44:28,10.1.1.4,35,-0.100,-0.100,-0.100,0.000,0.000,0.000
1644374670758676992,2022-02-09-02:44:30,10.1.1.4,23,-0.090,-0.090,-0.090,0.000,0.000,0.000
1644374670859069184,2022-02-09-02:44:30,10.1.1.4,21,-0.080,-0.080,-0.080,0.000,0.000,0.000
1644374670979923968,2022-02-09-02:44:30,10.1.1.4,27,-0.070,-0.070,-0.070,0.000,0.000,0.000
1644374671099107072,2022-02-09-02:44:31,10.1.1.4,29,-0.060,-0.060,-0.060,0.000,0.000,0.000
1644374671199439104,2022-02-09-02:44:31,10.1.1.4,29,-0.050,-0.050,-0.050,0.000,0.000,0.000
1644374671299463936,2022-02-09-02:44:31,10.1.1.4,26,-0.040,-0.040,-0.040,0.000,0.000,0.000
1644374672953352960,2022-02-09-02:44:31,10.1.1.4,25,-0.030,-0.030,-0.030,0.000,0.000,0.000
1644374677886880000,2022-02-09-02:44:36,10.1.1.4,37,0.060,0.060,0.060,0.000,0.000,0.000
1644374679762712064,2022-02-09-02:44:38,10.1.1.4,29,0.080,0.080,0.080,0.000,0.000,0.000
1644374682460713984,2022-02-09-02:44:40,10.1.1.4,-218,0.090,0.090,0.090,0.000,0.000,0.000
1644374693170756096,2022-02-09-02:44:49,10.1.1.4,-751,-0.080,-0.080,-0.080,0.000,0.000,0.000
1644374694213809920,2022-02-09-02:44:53,10.1.1.4,30,-0.070,-0.070,-0.070,0.000,0.000,0.000
1644374698713903872,2022-02-09-02:44:57,10.1.1.4,34,0.000,0.000,0.000,0.000,0.000,0.000
1644374698840487936,2022-02-09-02:44:58,10.1.1.4,37,0.010,0.010,0.010,0.000,0.000,0.000
1644374698943033856,2022-02-09-02:44:58,10.1.1.4,36,0.020,0.020,0.020,0.000,0.000,0.000
1644374699039454976,2022-02-09-02:44:59,10.1.1.4,36,0.030,0.030,0.030,0.000,0.000,0.000
1644374699152137984,2022-02-09-02:44:59,10.1.1.4,35,0.040,0.040,0.040,0.000,0.000,0.000
1644374699240489984,2022-02-09-02:44:59,10.1.1.4,34,0.050,0.050,0.050,0.000,0.000,0.000
1644374699338807040,2022-02-09-02:44:59,10.1.1.4,33,0.060,0.060,0.060,0.000,0.000,0.000
1644374699458699008,2022-02-09-02:44:59,10.1.1.4,33,0.070,0.070,0.070,0.000,0.000,0.000
1644374699540573952,2022-02-09-02:44:59,10.1.1.4,31,0.080,0.080,0.080,0.000,0.000,0.000
1644374699638817024,2022-02-09-02:44:59,10.1.1.4,30,0.090,0.090,0.090,0.000,0.000,0.000
1644374699755548928,2022-02-09-02:44:59,10.1.1.4,30,0.100,0.100,0.100,0.000,0.000,0.000
1644374699858184960,2022-02-09-02:44:59,10.1.1.4,30,0.090,0.090,0.090,0.000,0.000,0.000
1644374699949202944,2022-02-09-02:44:59,10.1.1.4,29,0.080,0.080,0.080,0.000,0.000,0.000
1644374700070089984,2022-02-09-02:45:00,10.1.1.4,28,0.070,0.070,0.070,0.000,0.000,0.000
1644374701933196032,2022-02-09-02:45:00,10.1.1.4,21,0.060,0.060,0.060,0.000,0.000,0.000
1644374705714011904,2022-02-09-02:45:02,10.1.1.4,33,0.040,0.040,0.040,0.000,0.000,0.000
1644374722770574080,2022-02-09-02:45:19,10.1.1.4,33,0.090,0.090,0.090,0.000,0.000,0.000
1644374728342680064,2022-02-09-02:45:25,10.1.1.4,21,0.030,0.030,0.030,0.000,0.000,0.000
1644374738184850944,2022-02-09-02:45:33,10.1.1.4,30,-0.070,-0.070,-0.070,0.000,0.000,0.000
1644374740228097024,2022-02-09-02:45:38,10.1.1.4,22,-0.090,-0.090,-0.090,0.000,0.000,0.000
1644374740353590016,2022-02-09-02:45:40,10.1.1.4,-1563,-0.090,-0.090,-0.090,0.000,0.000,0.000
1644374740499118080,2022-02-09-02:45:40,10.1.1.4,37,-0.090,-0.090,-0.090,0.000,0.000,0.000
1644374740599430912,2022-02-09-02:45:40,10.1.1.4,36,-0.080,-0.080,-0.080,0.000,0.000,0.000
1644374740699964928,2022-02-09-02:45:40,10.1.1.4,36,-0.070,-0.070,-0.070,0.000,0.000,0.000
1644374740798909952,2022-02-09-02:45:40,10.1.1.4,34,-0.060,-0.060,-0.060,0.000,0.000,0.000
1644374740899669760,2022-02-09-02:45:40,10.1.1.4,33,-0.050,-0.050,-0.050,0.000,0.000,0.000
1644374741004689920,2022-02-09-02:45:41,10.1.1.4,32,-0.040,-0.040,-0.040,0.000,0.000,0.000
1644374741099868928,2022-02-09-02:45:41,10.1.1.4,30,-0.030,-0.030,-0.030,0.000,0.000,0.000
1644374741200140032,2022-02-09-02:45:41,10.1.1.4,31,-0.020,-0.020,-0.020,0.000,0.000,0.000
1644374741300011008,2022-02-09-02:45:41,10.1.1.4,28,-0.010,-0.010,-0.010,0.000,0.000,0.000
1644374741427328000,2022-02-09-02:45:41,10.1.1.4,27,0.000,0.000,0.000,0.000,0.000,0.000
1644374741499915008,2022-02-09-02:45:41,10.1.1.4,26,0.010,0.010,0.010,0.000,0.000,0.000
1644374741599848960,2022-02-09-02:45:41,10.1.1.4,22,0.020,0.020,0.020,0.000,0.000,0.000
1644374741700439808,2022-02-09-02:45:41,10.1.1.4,22,0.030,0.030,0.030,0.000,0.000,0.000
1644374745370897152,2022-02-09-02:45:41,10.1.1.4,37,0.040,0.040,0.040,0.000,0.000,0.000
1644374749787444224,2022-02-09-02:45:45,10.1.1.4,21,0.060,0.060,0.060,0.000,0.000,0.000
1644374753170976000,2022-02-09-02:45:50,10.1.1.4,32,0.080,0.080,0.080,0.000,0.000,0.000
1644374755922249984,2022-02-09-02:45:54,10.1.1.4,33,0.090,0.090,0.090,0.000,0.000,0.000
1644374759716253952,2022-02-09-02:45:56,10.1.1.4,-3006,0.090,0.090,0.090,0.000,0.000,0.000
1644374763375565056,2022-02-09-02:46:01,10.1.1.4,36,0.030,0.030,0.030,0.000,0.000,0.000
1644374766088721152,2022-02-09-02:46:05,10.1.1.4,33,-0.030,-0.030,-0.030,0.000,0.000,0.000
1644374769579892992,2022-02-09-02:46:06,10.1.1.4,24,-0.070,-0.070,-0.070,0.000,0.000,0.000
1644374773616024064,2022-02-09-02:46:11,10.1.1.4,-4289,-0.070,-0.070,-0.070,0.000,0.000,0.000
1644374816070041856,2022-02-09-02:46:52,10.1.1.4,-493,-0.060,-0.060,-0.060,0.000,0.000,0.000
1644374830456794112,2022-02-09-02:47:07,10.1.1.4,-992,-0.060,-0.060,-0.060,0.000,0.000,0.000
1644374855607700224,2022-02-09-02:47:33,10.1.1.4,-2,-0.060,-0.060,-0.060,0.000,0.000,0.000
1644374859159287808,2022-02-09-02:47:37,10.1.1.4,-1157,-0.060,-0.060,-0.060,0.000,0.000,0.000
1644374881248183040,2022-02-09-02:47:57,10.1.1.4,-611,-0.060,-0.060,-0.060,0.000,0.000,0.000
1644374886439393024,2022-02-09-02:48:04,10.1.1.4,-6457,-0.060,-0.060,-0.060,0.000,0.000,0.000
1644374901911735040,2022-02-09-02:48:18,10.1.1.4,-1278,-0.060,-0.060,-0.060,0.000,0.000,0.000
1644374916936036096,2022-02-09-02:48:33,10.1.1.4,-611,-0.060,-0.060,-0.060,0.000,0.000,0.000
1644374920015885056,2022-02-09-02:48:37,10.1.1.4,-15,-0.060,-0.060,-0.060,0.000,0.000,0.000
1644374932117594112,2022-02-09-02:48:50,10.1.1.4,-208,-0.060,-0.060,-0.060,0.000,0.000,0.000
1644374944064904960,2022-02-09-02:49:02,10.1.1.4,-279,-0.060,-0.060,-0.060,0.000,0.000,0.000
1644374948106782976,2022-02-09-02:49:07,10.1.1.4,-5065,-0.060,-0.060,-0.060,0.000,0.000,0.000
1644374950946400000,2022-02-09-02:49:09,10.1.1.4,-4062,-0.060,-0.060,-0.060,0.000,0.000,0.000
1644374980319747072,2022-02-09-02:49:35,10.1.1.4,-114,-0.060,-0.060,-0.060,0.000,0.000,0.000
1644374985846937856,2022-02-09-02:49:43,10.1.1.4,-464,-0.060,-0.060,-0.060,0.000,0.000,0.000
1644375008844864000,2022-02-09-02:50:06,10.1.1.4,-41,-0.060,-0.060,-0.060,0.000,0.000,0.000
1644375021013533184,2022-02-09-02:50:18,10.1.1.4,-645,-0.060,-0.060,-0.060,0.000,0.000,0.000
1644375025201307904,2022-02-09-02:50:22,10.1.1.4,-3142,-0.060,-0.060,-0.060,0.000,0.000,0.000
1644375037212080128,2022-02-09-02:50:34,10.1.1.4,-422,-0.060,-0.060,-0.060,0.000,0.000,0.000
1644375040144583936,2022-02-09-02:50:38,10.1.1.4,-4,-0.060,-0.060,-0.060,0.000,0.000,0.000
1644375054834462976,2022-02-09-02:50:52,10.1.1.4,-134,-0.060,-0.060,-0.060,0.000,0.000,0.000
1644375060087641088,2022-02-09-02:50:57,10.1.1.4,-5203,-0.060,-0.060,-0.060,0.000,0.000,0.000
1644375073826440960,2022-02-09-02:51:11,10.1.1.4,-59,-0.060,-0.060,-0.060,0.000,0.000,0.000
1644375077700046080,2022-02-09-02:51:16,10.1.1.4,-986,-0.060,-0.060,-0.060,0.000,0.000,0.000
1644375089247077888,2022-02-09-02:51:27,10.1.1.4,-1590,-0.060,-0.060,-0.060,0.000,0.000,0.000
1644375092840845056,2022-02-09-02:51:31,10.1.1.4,-560,-0.060,-0.060,-0.060,0.000,0.000,0.000
1644375106619534848,2022-02-09-02:51:43,10.1.1.4,-1091,-0.060,-0.060,-0.060,0.000,0.000,0.000
1644375121447175936,2022-02-09-02:51:58,10.1.1.4,-833,-0.060,-0.060,-0.060,0.000,0.000,0.000
1644375127089590016,2022-02-09-02:52:05,10.1.1.4,-4807,-0.060,-0.060,-0.060,0.000,0.000,0.000
1644375143093259008,2022-02-09-02:52:19,10.1.1.4,-70,-0.060,-0.060,-0.060,0.000,0.000,0.000
1644375157611145984,2022-02-09-02:52:34,10.1.1.4,-349,-0.060,-0.060,-0.060,0.000,0.000,0.000
1644375171265927168,2022-02-09-02:52:47,10.1.1.4,-311,-0.060,-0.060,-0.060,0.000,0.000,0.000
1644375181748765952,2022-02-09-02:53:00,10.1.1.4,-459,-0.060,-0.060,-0.060,0.000,0.000,0.000
1644375192935452928,2022-02-09-02:53:11,10.1.1.4,-575,-0.060,-0.060,-0.060,0.000,0.000,0.000
1644375206435621888,2022-02-09-02:53:24,10.1.1.4,-1286,-0.060,-0.060,-0.060,0.000,0.000,0.000
1644375224098077952,2022-02-09-02:53:41,10.1.1.4,-40,-0.060,-0.060,-0.060,0.000,0.000,0.000
1644375239612816128,2022-02-09-02:53:56,10.1.1.4,-800,-0.060,-0.060,-0.060,0.000,0.000,0.000
1644375254131982080,2022-02-09-02:54:11,10.1.1.4,-16,-0.060,-0.060,-0.060,0.000,0.000,0.000
1644375258615981056,2022-02-09-02:54:17,10.1.1.4,-842,-0.060,-0.060,-0.060,0.000,0.000,0.000
1644375275925858048,2022-02-09-02:54:29,10.1.1.4,-490,-0.060,-0.060,-0.060,0.000,0.000,0.000
1644375282217048832,2022-02-09-02:54:41,10.1.1.4,-9,-0.060,-0.060,-0.060,0.000,0.000,0.000
1644375282236325888,2022-02-09-02:54:42,10.1.1.4,-765,-0.060,-0.060,-0.060,0.000,0.000,0.000
1644375285405061888,2022-02-09-02:54:45,10.1.1.4,-14,-0.060,-0.060,-0.060,0.000,0.000,0.000
1644375286220925184,2022-02-09-02:54:46,10.1.1.4,1,-0.060,-0.060,-0.060,0.000,0.000,0.000
1644375289622279936,2022-02-09-02:54:49,10.1.1.4,-21,-0.060,-0.060,-0.060,0.000,0.000,0.000
1644375290363362048,2022-02-09-02:54:50,10.1.1.4,0,-0.060,-0.060,-0.060,0.000,0.000,0.000
1644375293995657984,2022-02-09-02:54:53,10.1.1.4,1,-0.060,-0.060,-0.060,0.000,0.000,0.000
1644375294720206848,2022-02-09-02:54:54,10.1.1.4,-11,-0.060,-0.060,-0.060,0.000,0.000,0.000
1644375297960414976,2022-02-09-02:54:57,10.1.1.4,-4,-0.060,-0.060,-0.060,0.000,0.000,0.000
1644375298760150016,2022-02-09-02:54:58,10.1.1.4,-9,-0.060,-0.060,-0.060,0.000,0.000,0.000
1644375301982920960,2022-02-09-02:55:01,10.1.1.4,-13,-0.060,-0.060,-0.060,0.000,0.000,0.000
1644375302804899840,2022-02-09-02:55:02,10.1.1.4,-5,-0.060,-0.060,-0.060,0.000,0.000,0.000
1644375306019730944,2022-02-09-02:55:06,10.1.1.4,-9,-0.060,-0.060,-0.060,0.000,0.000,0.000
1644375306842497024,2022-02-09-02:55:06,10.1.1.4,5,-0.060,-0.060,-0.060,0.000,0.000,0.000
1644375310063379968,2022-02-09-02:55:10,10.1.1.4,3,-0.060,-0.060,-0.060,0.000,0.000,0.000
1644375310864379904,2022-02-09-02:55:10,10.1.1.4,-3,-0.060,-0.060,-0.060,0.000,0.000,0.000
1644375314086553088,2022-02-09-02:55:14,10.1.1.4,-11,-0.060,-0.060,-0.060,0.000,0.000,0.000
1644375314902488832,2022-02-09-02:55:14,10.1.1.4,1,-0.060,-0.060,-0.060,0.000,0.000,0.000
1644375318120269056,2022-02-09-02:55:18,10.1.1.4,-3,-0.060,-0.060,-0.060,0.000,0.000,0.000
1644375318922333952,2022-02-09-02:55:18,10.1.1.4,-13,-0.060,-0.060,-0.060,0.000,0.000,0.000
1644375322458605056,2022-02-09-02:55:22,10.1.1.4,-2,-0.060,-0.060,-0.060,0.000,0.000,0.000
1644375323225596928,2022-02-09-02:55:23,10.1.1.4,-5,-0.060,-0.060,-0.060,0.000,0.000,0.000
1644375331074242048,2022-02-09-02:55:27,10.1.1.4,-162,-0.060,-0.060,-0.060,0.000,0.000,0.000
1644375341169666048,2022-02-09-02:55:34,10.1.1.4,-1823,-0.060,-0.060,-0.060,0.000,0.000,0.000
1644375347344157952,2022-02-09-02:55:41,10.1.1.4,-7911,-0.060,-0.060,-0.060,0.000,0.000,0.000
1644375351000379136,2022-02-09-02:55:50,10.1.1.4,-8,-0.060,-0.060,-0.060,0.000,0.000,0.000
1644375351720784896,2022-02-09-02:55:51,10.1.1.4,-70,-0.060,-0.060,-0.060,0.000,0.000,0.000
1644375355004920064,2022-02-09-02:55:55,10.1.1.4,-13,-0.060,-0.060,-0.060,0.000,0.000,0.000
1644375355821188864,2022-02-09-02:55:55,10.1.1.4,-2,-0.060,-0.060,-0.060,0.000,0.000,0.000
1644375359122487040,2022-02-09-02:55:59,10.1.1.4,1,-0.060,-0.060,-0.060,0.000,0.000,0.000
1644375359962738944,2022-02-09-02:55:59,10.1.1.4,4,-0.060,-0.060,-0.060,0.000,0.000,0.000
1644375363182612992,2022-02-09-02:56:03,10.1.1.4,-6,-0.060,-0.060,-0.060,0.000,0.000,0.000
1644375364003462144,2022-02-09-02:56:04,10.1.1.4,-13,-0.060,-0.060,-0.060,0.000,0.000,0.000
1644375367428685824,2022-02-09-02:56:07,10.1.1.4,-13,-0.060,-0.060,-0.060,0.000,0.000,0.000
1644375368141732864,2022-02-09-02:56:08,10.1.1.4,-7,-0.060,-0.060,-0.060,0.000,0.000,0.000
1644375371406251008,2022-02-09-02:56:11,10.1.1.4,-9,-0.060,-0.060,-0.060,0.000,0.000,0.000
1644375372181580032,2022-02-09-02:56:12,10.1.1.4,6,-0.060,-0.060,-0.060,0.000,0.000,0.000
1644375375495171072,2022-02-09-02:56:15,10.1.1.4,-9,-0.060,-0.060,-0.060,0.000,0.000,0.000
1644375376347589120,2022-02-09-02:56:16,10.1.1.4,-12,-0.060,-0.060,-0.060,0.000,0.000,0.000
1644375381524310016,2022-02-09-02:56:19,10.1.1.4,-10,-0.060,-0.060,-0.060,0.000,0.000,0.000
1644375382684478976,2022-02-09-02:56:22,10.1.1.4,2,-0.060,-0.060,-0.060,0.000,0.000,0.000
1644375382692898048,2022-02-09-02:56:22,10.1.1.4,-161,-0.060,-0.060,-0.060,0.000,0.000,0.000
1644375387161879040,2022-02-09-02:56:25,10.1.1.4,-12,-0.060,-0.060,-0.060,0.000,0.000,0.000
1644375388100681984,2022-02-09-02:56:28,10.1.1.4,2,-0.060,-0.060,-0.060,0.000,0.000,0.000
1644375392876039936,2022-02-09-02:56:31,10.1.1.4,-6,-0.060,-0.060,-0.060,0.000,0.000,0.000
1644375393925825024,2022-02-09-02:56:33,10.1.1.4,1,-0.060,-0.060,-0.060,0.000,0.000,0.000
1644375398624188928,2022-02-09-02:56:37,10.1.1.4,-4,-0.060,-0.060,-0.060,0.000,0.000,0.000
1644375399825874944,2022-02-09-02:56:39,10.1.1.4,-2,-0.060,-0.060,-0.060,0.000,0.000,0.000
1644375403711517952,2022-02-09-02:56:43,10.1.1.4,-10,-0.060,-0.060,-0.060,0.000,0.000,0.000
1644375405978225920,2022-02-09-02:56:44,10.1.1.4,-8,-0.060,-0.060,-0.060,0.000,0.000,0.000
1644375409546465024,2022-02-09-02:56:49,10.1.1.4,6,-0.060,-0.060,-0.060,0.000,0.000,0.000
1644375410362579968,2022-02-09-02:56:50,10.1.1.4,-10,-0.060,-0.060,-0.060,0.000,0.000,0.000
1644375414348948992,2022-02-09-02:56:53,10.1.1.4,-10,-0.060,-0.060,-0.060,0.000,0.000,0.000
1644375415300961024,2022-02-09-02:56:55,10.1.1.4,-2,-0.060,-0.060,-0.060,0.000,0.000,0.000
1644375419835692800,2022-02-09-02:56:59,10.1.1.4,-8,-0.060,-0.060,-0.060,0.000,0.000,0.000
1644375420642339840,2022-02-09-02:57:00,10.1.1.4,-6,-0.060,-0.060,-0.060,0.000,0.000,0.000
1644375428092881920,2022-02-09-02:57:04,10.1.1.4,-36,-0.060,-0.060,-0.060,0.000,0.000,0.000
1644375431423668992,2022-02-09-02:57:08,10.1.1.4,-12,-0.060,-0.060,-0.060,0.000,0.000,0.000
1644375435046684928,2022-02-09-02:57:14,10.1.1.4,-7,-0.060,-0.060,-0.060,0.000,0.000,0.000
1644375435767569152,2022-02-09-02:57:15,10.1.1.4,-3,-0.060,-0.060,-0.060,0.000,0.000,0.000
1644375439106736896,2022-02-09-02:57:19,10.1.1.4,1,-0.060,-0.060,-0.060,0.000,0.000,0.000
1644375439822693120,2022-02-09-02:57:19,10.1.1.4,-11,-0.060,-0.060,-0.060,0.000,0.000,0.000
1644375443165227008,2022-02-09-02:57:23,10.1.1.4,-4,-0.060,-0.060,-0.060,0.000,0.000,0.000
1644375443965993984,2022-02-09-02:57:23,10.1.1.4,-12,-0.060,-0.060,-0.060,0.000,0.000,0.000
1644375447250492928,2022-02-09-02:57:27,10.1.1.4,-5,-0.060,-0.060,-0.060,0.000,0.000,0.000
1644375448020674048,2022-02-09-02:57:28,10.1.1.4,-10,-0.060,-0.060,-0.060,0.000,0.000,0.000
1644375451260907776,2022-02-09-02:57:31,10.1.1.4,-8,-0.060,-0.060,-0.060,0.000,0.000,0.000
1644375452081445888,2022-02-09-02:57:32,10.1.1.4,1,-0.060,-0.060,-0.060,0.000,0.000,0.000
1644375455436395008,2022-02-09-02:57:35,10.1.1.4,-14,-0.060,-0.060,-0.060,0.000,0.000,0.000
1644375456213602048,2022-02-09-02:57:36,10.1.1.4,-14,-0.060,-0.060,-0.060,0.000,0.000,0.000
1644375459705310208,2022-02-09-02:57:39,10.1.1.4,-11,-0.060,-0.060,-0.060,0.000,0.000,0.000
1644375460958039040,2022-02-09-02:57:40,10.1.1.4,-8,-0.060,-0.060,-0.060,0.000,0.000,0.000
1644375464186351104,2022-02-09-02:57:44,10.1.1.4,-9,-0.060,-0.060,-0.060,0.000,0.000,0.000
1644375465475373056,2022-02-09-02:57:45,10.1.1.4,-9,-0.060,-0.060,-0.060,0.000,0.000,0.000
1644375468700751104,2022-02-09-02:57:48,10.1.1.4,-11,-0.060,-0.060,-0.060,0.000,0.000,0.000
1644375469988427008,2022-02-09-02:57:49,10.1.1.4,-7,-0.060,-0.060,-0.060,0.000,0.000,0.000
1644375473184190976,2022-02-09-02:57:53,10.1.1.4,-15,-0.060,-0.060,-0.060,0.000,0.000,0.000
1644375474021120000,2022-02-09-02:57:54,10.1.1.4,-11,-0.060,-0.060,-0.060,0.000,0.000,0.000
1644375478673790976,2022-02-09-02:57:57,10.1.1.4,-3,-0.060,-0.060,-0.060,0.000,0.000,0.000
1644375479645568000,2022-02-09-02:57:59,10.1.1.4,-1,-0.060,-0.060,-0.060,0.000,0.000,0.000
1644375484802540032,2022-02-09-02:58:03,10.1.1.4,-14,-0.060,-0.060,-0.060,0.000,0.000,0.000
1644375486068921088,2022-02-09-02:58:05,10.1.1.4,-3,-0.060,-0.060,-0.060,0.000,0.000,0.000
1644375492897278976,2022-02-09-02:58:09,10.1.1.4,-1,-0.060,-0.060,-0.060,0.000,0.000,0.000
1644375497089466112,2022-02-09-02:58:15,10.1.1.4,-7,-0.060,-0.060,-0.060,0.000,0.000,0.000
1644375503341059840,2022-02-09-02:58:20,10.1.1.4,4,-0.060,-0.060,-0.060,0.000,0.000,0.000
1644375504341160960,2022-02-09-02:58:24,10.1.1.4,-7,-0.060,-0.060,-0.060,0.000,0.000,0.000
1644375509542505984,2022-02-09-02:58:27,10.1.1.4,-12,-0.060,-0.060,-0.060,0.000,0.000,0.000
1644375510621687040,2022-02-09-02:58:30,10.1.1.4,-7,-0.060,-0.060,-0.060,0.000,0.000,0.000
1644375516907982080,2022-02-09-02:58:33,10.1.1.4,6,-0.060,-0.060,-0.060,0.000,0.000,0.000
1644375519119936000,2022-02-09-02:58:37,10.1.1.4,-10,-0.060,-0.060,-0.060,0.000,0.000,0.000
1644375524178641152,2022-02-09-02:58:42,10.1.1.4,-29,-0.060,-0.060,-0.060,0.000,0.000,0.000
1644375530426842880,2022-02-09-02:58:45,10.1.1.4,-10,-0.060,-0.060,-0.060,0.000,0.000,0.000
1644375540029742848,2022-02-09-02:58:55,10.1.1.4,-13,-0.060,-0.060,-0.060,0.000,0.000,0.000
1644375545786820864,2022-02-09-02:59:01,10.1.1.4,-12,-0.060,-0.060,-0.060,0.000,0.000,0.000
1644375557950337792,2022-02-09-02:59:14,10.1.1.4,-12,-0.060,-0.060,-0.060,0.000,0.000,0.000
1644375564513199104,2022-02-09-02:59:20,10.1.1.4,-20,-0.060,-0.060,-0.060,0.000,0.000,0.000
1644375570268152064,2022-02-09-02:59:28,10.1.1.4,3,-0.060,-0.060,-0.060,0.000,0.000,0.000
1644375571581800960,2022-02-09-02:59:31,10.1.1.4,-3,-0.060,-0.060,-0.060,0.000,0.000,0.000
1644375578988760064,2022-02-09-02:59:34,10.1.1.4,3,-0.060,-0.060,-0.060,0.000,0.000,0.000
1644375585139121152,2022-02-09-02:59:40,10.1.1.4,-5,-0.060,-0.060,-0.060,0.000,0.000,0.000
1644375677859406848,2022-02-09-03:01:16,10.1.1.4,-5,-0.060,-0.060,-0.060,0.000,0.000,0.000
1644375678601553920,2022-02-09-03:01:18,10.1.1.4,-13,-0.060,-0.060,-0.060,0.000,0.000,0.000
1644375682794811136,2022-02-09-03:01:21,10.1.1.4,-4,-0.060,-0.060,-0.060,0.000,0.000,0.000
1644375683521871104,2022-02-09-03:01:23,10.1.1.4,-2,-0.060,-0.060,-0.060,0.000,0.000,0.000
1644375683672336128,2022-02-09-03:01:23,10.1.1.4,-75,-0.060,-0.060,-0.060,0.000,0.000,0.000
1644375687250754048,2022-02-09-03:01:26,10.1.1.4,-10,-0.060,-0.060,-0.060,0.000,0.000,0.000
1644375687992145152,2022-02-09-03:01:27,10.1.1.4,-18,-0.060,-0.060,-0.060,0.000,0.000,0.000
1644375692725498880,2022-02-09-03:01:31,10.1.1.4,1,-0.060,-0.060,-0.060,0.000,0.000,0.000
1644375693504275200,2022-02-09-03:01:33,10.1.1.4,-9,-0.060,-0.060,-0.060,0.000,0.000,0.000
1644375697037581824,2022-02-09-03:01:36,10.1.1.4,-14,-0.060,-0.060,-0.060,0.000,0.000,0.000
1644375698695682048,2022-02-09-03:01:37,10.1.1.4,-13,-0.060,-0.060,-0.060,0.000,0.000,0.000
1644375708234214912,2022-02-09-03:01:42,10.1.1.4,-8,-0.060,-0.060,-0.060,0.000,0.000,0.000
1644375719163845120,2022-02-09-03:01:49,10.1.1.4,-8,-0.060,-0.060,-0.060,0.000,0.000,0.000
1644375749946135040,2022-02-09-03:02:26,10.1.1.4,-6,-0.060,-0.060,-0.060,0.000,0.000,0.000
1644375777972336128,2022-02-09-03:02:47,10.1.1.4,6,-0.060,-0.060,-0.060,0.000,0.000,0.000
1644375779982443008,2022-02-09-03:02:59,10.1.1.4,-5,-0.060,-0.060,-0.060,0.000,0.000,0.000
1644375783221854976,2022-02-09-03:03:03,10.1.1.4,-4,-0.060,-0.060,-0.060,0.000,0.000,0.000
1644375784023214080,2022-02-09-03:03:04,10.1.1.4,-10,-0.060,-0.060,-0.060,0.000,0.000,0.000
1644375787242820096,2022-02-09-03:03:07,10.1.1.4,-10,-0.060,-0.060,-0.060,0.000,0.000,0.000
1644375788052174080,2022-02-09-03:03:08,10.1.1.4,-13,-0.060,-0.060,-0.060,0.000,0.000,0.000
1644375791262957056,2022-02-09-03:03:11,10.1.1.4,-13,-0.060,-0.060,-0.060,0.000,0.000,0.000
1644375792083329024,2022-02-09-03:03:12,10.1.1.4,-10,-0.060,-0.060,-0.060,0.000,0.000,0.000
1644375811072936960,2022-02-09-03:03:15,10.1.1.4,-15,-0.060,-0.060,-0.060,0.000,0.000,0.000
1644375816744265984,2022-02-09-03:03:34,10.1.1.4,0,-0.060,-0.060,-0.060,0.000,0.000,0.000
1644375820185623808,2022-02-09-03:03:39,10.1.1.4,-9,-0.060,-0.060,-0.060,0.000,0.000,0.000
1644375820902780928,2022-02-09-03:03:40,10.1.1.4,-2,-0.060,-0.060,-0.060,0.000,0.000,0.000
1644375826267059968,2022-02-09-03:03:44,10.1.1.4,-1,-0.060,-0.060,-0.060,0.000,0.000,0.000
1644375826984803840,2022-02-09-03:03:46,10.1.1.4,-5,-0.060,-0.060,-0.060,0.000,0.000,0.000
1644375830440071168,2022-02-09-03:03:50,10.1.1.4,-5,-0.060,-0.060,-0.060,0.000,0.000,0.000
1644375831172934912,2022-02-09-03:03:51,10.1.1.4,-24,-0.060,-0.060,-0.060,0.000,0.000,0.000
1644375834443047168,2022-02-09-03:03:54,10.1.1.4,-5,-0.060,-0.060,-0.060,0.000,0.000,0.000
1644375835243598080,2022-02-09-03:03:55,10.1.1.4,-13,-0.060,-0.060,-0.060,0.000,0.000,0.000
1644375838484642048,2022-02-09-03:03:58,10.1.1.4,-1,-0.060,-0.060,-0.060,0.000,0.000,0.000
1644375839283086080,2022-02-09-03:03:59,10.1.1.4,-5,-0.060,-0.060,-0.060,0.000,0.000,0.000
1644375842504017152,2022-02-09-03:04:02,10.1.1.4,-4,-0.060,-0.060,-0.060,0.000,0.000,0.000
1644375843302707968,2022-02-09-03:04:03,10.1.1.4,-10,-0.060,-0.060,-0.060,0.000,0.000,0.000
1644375846545672960,2022-02-09-03:04:06,10.1.1.4,-7,-0.060,-0.060,-0.060,0.000,0.000,0.000
1644375847342406144,2022-02-09-03:04:07,10.1.1.4,-11,-0.060,-0.060,-0.060,0.000,0.000,0.000
1644375850582693120,2022-02-09-03:04:10,10.1.1.4,-3,-0.060,-0.060,-0.060,0.000,0.000,0.000
1644375851382072064,2022-02-09-03:04:11,10.1.1.4,-10,-0.060,-0.060,-0.060,0.000,0.000,0.000
1644375854602678016,2022-02-09-03:04:14,10.1.1.4,-14,-0.060,-0.060,-0.060,0.000,0.000,0.000
1644375855422637056,2022-02-09-03:04:15,10.1.1.4,0,-0.060,-0.060,-0.060,0.000,0.000,0.000
1644375858642754048,2022-02-09-03:04:18,10.1.1.4,-14,-0.060,-0.060,-0.060,0.000,0.000,0.000
1644375859462946048,2022-02-09-03:04:19,10.1.1.4,-2,-0.060,-0.060,-0.060,0.000,0.000,0.000
1644375862683151872,2022-02-09-03:04:22,10.1.1.4,-11,-0.060,-0.060,-0.060,0.000,0.000,0.000
1644375863508677888,2022-02-09-03:04:23,10.1.1.4,-1,-0.060,-0.060,-0.060,0.000,0.000,0.000
1644375866723866880,2022-02-09-03:04:26,10.1.1.4,-13,-0.060,-0.060,-0.060,0.000,0.000,0.000
1644375867543983104,2022-02-09-03:04:27,10.1.1.4,-3,-0.060,-0.060,-0.060,0.000,0.000,0.000
1644375870767921920,2022-02-09-03:04:30,10.1.1.4,-5,-0.060,-0.060,-0.060,0.000,0.000,0.000
1644375871567419904,2022-02-09-03:04:31,10.1.1.4,-11,-0.060,-0.060,-0.060,0.000,0.000,0.000
1644375874784163072,2022-02-09-03:04:34,10.1.1.4,-9,-0.060,-0.060,-0.060,0.000,0.000,0.000
1644375875582472192,2022-02-09-03:04:35,10.1.1.4,-13,-0.060,-0.060,-0.060,0.000,0.000,0.000
1644375878803771904,2022-02-09-03:04:38,10.1.1.4,-14,-0.060,-0.060,-0.060,0.000,0.000,0.000
1644375879621861888,2022-02-09-03:04:39,10.1.1.4,-3,-0.060,-0.060,-0.060,0.000,0.000,0.000
1644375882842745088,2022-02-09-03:04:42,10.1.1.4,-1,-0.060,-0.060,-0.060,0.000,0.000,0.000
1644375883642592000,2022-02-09-03:04:43,10.1.1.4,-5,-0.060,-0.060,-0.060,0.000,0.000,0.000
1644375886862817024,2022-02-09-03:04:46,10.1.1.4,-3,-0.060,-0.060,-0.060,0.000,0.000,0.000
1644375887663051008,2022-02-09-03:04:47,10.1.1.4,-7,-0.060,-0.060,-0.060,0.000,0.000,0.000
1644375890883200768,2022-02-09-03:04:50,10.1.1.4,-4,-0.060,-0.060,-0.060,0.000,0.000,0.000
1644375891686820864,2022-02-09-03:04:51,10.1.1.4,-8,-0.060,-0.060,-0.060,0.000,0.000,0.000
1644375894907435776,2022-02-09-03:04:54,10.1.1.4,-12,-0.060,-0.060,-0.060,0.000,0.000,0.000
1644375895723750144,2022-02-09-03:04:55,10.1.1.4,-1,-0.060,-0.060,-0.060,0.000,0.000,0.000
1644375898928265216,2022-02-09-03:04:58,10.1.1.4,-20,-0.060,-0.060,-0.060,0.000,0.000,0.000
1644375899744577024,2022-02-09-03:04:59,10.1.1.4,-3,-0.060,-0.060,-0.060,0.000,0.000,0.000
1644375902964176896,2022-02-09-03:05:02,10.1.1.4,-7,-0.060,-0.060,-0.060,0.000,0.000,0.000
1644375903804027136,2022-02-09-03:05:03,10.1.1.4,-5,-0.060,-0.060,-0.060,0.000,0.000,0.000
1644375907022844160,2022-02-09-03:05:07,10.1.1.4,-6,-0.060,-0.060,-0.060,0.000,0.000,0.000
1644375907822819072,2022-02-09-03:05:07,10.1.1.4,-12,-0.060,-0.060,-0.060,0.000,0.000,0.000
1644375911083426048,2022-02-09-03:05:11,10.1.1.4,3,-0.060,-0.060,-0.060,0.000,0.000,0.000
1644375911882259968,2022-02-09-03:05:11,10.1.1.4,-7,-0.060,-0.060,-0.060,0.000,0.000,0.000
1644375915102683904,2022-02-09-03:05:15,10.1.1.4,-3,-0.060,-0.060,-0.060,0.000,0.000,0.000
1644375915903099904,2022-02-09-03:05:15,10.1.1.4,-5,-0.060,-0.060,-0.060,0.000,0.000,0.000
1644375919123678976,2022-02-09-03:05:19,10.1.1.4,-4,-0.060,-0.060,-0.060,0.000,0.000,0.000
1644375919923499008,2022-02-09-03:05:19,10.1.1.4,-8,-0.060,-0.060,-0.060,0.000,0.000,0.000
1644375923142874880,2022-02-09-03:05:23,10.1.1.4,-6,-0.060,-0.060,-0.060,0.000,0.000,0.000
1644375923942592000,2022-02-09-03:05:23,10.1.1.4,-10,-0.060,-0.060,-0.060,0.000,0.000,0.000
1644375927162360832,2022-02-09-03:05:27,10.1.1.4,-5,-0.060,-0.060,-0.060,0.000,0.000,0.000
1644375927962735872,2022-02-09-03:05:27,10.1.1.4,-8,-0.060,-0.060,-0.060,0.000,0.000,0.000
1644375931183120896,2022-02-09-03:05:31,10.1.1.4,-5,-0.060,-0.060,-0.060,0.000,0.000,0.000
1644375931984086016,2022-02-09-03:05:31,10.1.1.4,-8,-0.060,-0.060,-0.060,0.000,0.000,0.000
1644375935207860992,2022-02-09-03:05:35,10.1.1.4,-14,-0.060,-0.060,-0.060,0.000,0.000,0.000
1644375936023236096,2022-02-09-03:05:36,10.1.1.4,3,-0.060,-0.060,-0.060,0.000,0.000,0.000
1644375939222970880,2022-02-09-03:05:39,10.1.1.4,-11,-0.060,-0.060,-0.060,0.000,0.000,0.000
1644375940058595840,2022-02-09-03:05:40,10.1.1.4,-39,-0.060,-0.060,-0.060,0.000,0.000,0.000
1644375943263324928,2022-02-09-03:05:43,10.1.1.4,-4,-0.060,-0.060,-0.060,0.000,0.000,0.000
1644375944064110080,2022-02-09-03:05:44,10.1.1.4,-11,-0.060,-0.060,-0.060,0.000,0.000,0.000
1644375947283107072,2022-02-09-03:05:47,10.1.1.4,-12,-0.060,-0.060,-0.060,0.000,0.000,0.000
1644375948093313024,2022-02-09-03:05:48,10.1.1.4,-10,-0.060,-0.060,-0.060,0.000,0.000,0.000
1644375951322894080,2022-02-09-03:05:51,10.1.1.4,0,-0.060,-0.060,-0.060,0.000,0.000,0.000
1644375952125054976,2022-02-09-03:05:52,10.1.1.4,-5,-0.060,-0.060,-0.060,0.000,0.000,0.000
1644375955343609088,2022-02-09-03:05:55,10.1.1.4,-3,-0.060,-0.060,-0.060,0.000,0.000,0.000
1644375956143186176,2022-02-09-03:05:56,10.1.1.4,-6,-0.060,-0.060,-0.060,0.000,0.000,0.000
1644375959364072192,2022-02-09-03:05:59,10.1.1.4,-5,-0.060,-0.060,-0.060,0.000,0.000,0.000
1644375960163641088,2022-02-09-03:06:00,10.1.1.4,-9,-0.060,-0.060,-0.060,0.000,0.000,0.000
1644375963383075840,2022-02-09-03:06:03,10.1.1.4,-7,-0.060,-0.060,-0.060,0.000,0.000,0.000
1644375964183696128,2022-02-09-03:06:04,10.1.1.4,-9,-0.060,-0.060,-0.060,0.000,0.000,0.000
1644375967403315968,2022-02-09-03:06:07,10.1.1.4,-10,-0.060,-0.060,-0.060,0.000,0.000,0.000
1644375968203706880,2022-02-09-03:06:08,10.1.1.4,-14,-0.060,-0.060,-0.060,0.000,0.000,0.000
1644375971443214848,2022-02-09-03:06:11,10.1.1.4,3,-0.060,-0.060,-0.060,0.000,0.000,0.000
1644375972243500032,2022-02-09-03:06:12,10.1.1.4,-7,-0.060,-0.060,-0.060,0.000,0.000,0.000
1644375975463595008,2022-02-09-03:06:15,10.1.1.4,-10,-0.060,-0.060,-0.060,0.000,0.000,0.000
1644375976265743104,2022-02-09-03:06:16,10.1.1.4,-14,-0.060,-0.060,-0.060,0.000,0.000,0.000
1644375979512903936,2022-02-09-03:06:19,10.1.1.4,0,-0.060,-0.060,-0.060,0.000,0.000,0.000
1644375980304295168,2022-02-09-03:06:20,10.1.1.4,-9,-0.060,-0.060,-0.060,0.000,0.000,0.000
1644375983548440064,2022-02-09-03:06:23,10.1.1.4,0,-0.060,-0.060,-0.060,0.000,0.000,0.000
1644375984343944960,2022-02-09-03:06:24,10.1.1.4,-5,-0.060,-0.060,-0.060,0.000,0.000,0.000
1644375987568058880,2022-02-09-03:06:27,10.1.1.4,-6,-0.060,-0.060,-0.060,0.000,0.000,0.000
1644375988367571200,2022-02-09-03:06:28,10.1.1.4,-11,-0.060,-0.060,-0.060,0.000,0.000,0.000
1644375991583122944,2022-02-09-03:06:31,10.1.1.4,-8,-0.060,-0.060,-0.060,0.000,0.000,0.000
1644375992387428096,2022-02-09-03:06:32,10.1.1.4,-12,-0.060,-0.060,-0.060,0.000,0.000,0.000
1644375995622760960,2022-02-09-03:06:35,10.1.1.4,-6,-0.060,-0.060,-0.060,0.000,0.000,0.000
1644375996424122112,2022-02-09-03:06:36,10.1.1.4,-9,-0.060,-0.060,-0.060,0.000,0.000,0.000
1644375999663332864,2022-02-09-03:06:39,10.1.1.4,3,-0.060,-0.060,-0.060,0.000,0.000,0.000
1644376000464068864,2022-02-09-03:06:40,10.1.1.4,-2,-0.060,-0.060,-0.060,0.000,0.000,0.000
1644376003683518976,2022-02-09-03:06:43,10.1.1.4,-6,-0.060,-0.060,-0.060,0.000,0.000,0.000
1644376004540879872,2022-02-09-03:06:44,10.1.1.4,-3,-0.060,-0.060,-0.060,0.000,0.000,0.000
1644376007722779136,2022-02-09-03:06:47,10.1.1.4,1,-0.060,-0.060,-0.060,0.000,0.000,0.000
1644376008524568064,2022-02-09-03:06:48,10.1.1.4,-4,-0.060,-0.060,-0.060,0.000,0.000,0.000
1644376011743654912,2022-02-09-03:06:51,10.1.1.4,4,-0.060,-0.060,-0.060,0.000,0.000,0.000
1644376012544086016,2022-02-09-03:06:52,10.1.1.4,-1,-0.060,-0.060,-0.060,0.000,0.000,0.000
1644376015763288064,2022-02-09-03:06:55,10.1.1.4,-2,-0.060,-0.060,-0.060,0.000,0.000,0.000
1644376016564007168,2022-02-09-03:06:56,10.1.1.4,-6,-0.060,-0.060,-0.060,0.000,0.000,0.000
1644376019784989952,2022-02-09-03:06:59,10.1.1.4,-2,-0.060,-0.060,-0.060,0.000,0.000,0.000
1644376020583172096,2022-02-09-03:07:00,10.1.1.4,-6,-0.060,-0.060,-0.060,0.000,0.000,0.000
1644376023803621120,2022-02-09-03:07:03,10.1.1.4,-7,-0.060,-0.060,-0.060,0.000,0.000,0.000
1644376024603616000,2022-02-09-03:07:04,10.1.1.4,-11,-0.060,-0.060,-0.060,0.000,0.000,0.000
1644376027863943168,2022-02-09-03:07:07,10.1.1.4,-14,-0.060,-0.060,-0.060,0.000,0.000,0.000
1644376028685029888,2022-02-09-03:07:08,10.1.1.4,2,-0.060,-0.060,-0.060,0.000,0.000,0.000
1644376031903563008,2022-02-09-03:07:11,10.1.1.4,-7,-0.060,-0.060,-0.060,0.000,0.000,0.000
1644376032707377920,2022-02-09-03:07:12,10.1.1.4,-13,-0.060,-0.060,-0.060,0.000,0.000,0.000
1644376035923042048,2022-02-09-03:07:15,10.1.1.4,-10,-0.060,-0.060,-0.060,0.000,0.000,0.000
1644376036723964928,2022-02-09-03:07:16,10.1.1.4,-14,-0.060,-0.060,-0.060,0.000,0.000,0.000
1644376039963717888,2022-02-09-03:07:19,10.1.1.4,-1,-0.060,-0.060,-0.060,0.000,0.000,0.000
1644376040763917824,2022-02-09-03:07:20,10.1.1.4,-10,-0.060,-0.060,-0.060,0.000,0.000,0.000
1644376043986639872,2022-02-09-03:07:23,10.1.1.4,-9,-0.060,-0.060,-0.060,0.000,0.000,0.000
1644376044785917952,2022-02-09-03:07:24,10.1.1.4,-13,-0.060,-0.060,-0.060,0.000,0.000,0.000
1644376048003375104,2022-02-09-03:07:28,10.1.1.4,-13,-0.060,-0.060,-0.060,0.000,0.000,0.000
1644376048823442944,2022-02-09-03:07:28,10.1.1.4,-3,-0.060,-0.060,-0.060,0.000,0.000,0.000
1644376052043822080,2022-02-09-03:07:32,10.1.1.4,2,-0.060,-0.060,-0.060,0.000,0.000,0.000
1644376052842937856,2022-02-09-03:07:32,10.1.1.4,-1,-0.060,-0.060,-0.060,0.000,0.000,0.000
1644376056064060928,2022-02-09-03:07:36,10.1.1.4,-8,-0.060,-0.060,-0.060,0.000,0.000,0.000
1644376056863572992,2022-02-09-03:07:36,10.1.1.4,-13,-0.060,-0.060,-0.060,0.000,0.000,0.000
1644376060129996032,2022-02-09-03:07:40,10.1.1.4,-9,-0.060,-0.060,-0.060,0.000,0.000,0.000
1644376060944333056,2022-02-09-03:07:40,10.1.1.4,-6,-0.060,-0.060,-0.060,0.000,0.000,0.000
1644376064168695040,2022-02-09-03:07:44,10.1.1.4,-13,-0.060,-0.060,-0.060,0.000,0.000,0.000
1644376064984282112,2022-02-09-03:07:44,10.1.1.4,1,-0.060,-0.060,-0.060,0.000,0.000,0.000
1644376068203825920,2022-02-09-03:07:48,10.1.1.4,-3,-0.060,-0.060,-0.060,0.000,0.000,0.000
1644376069004014080,2022-02-09-03:07:49,10.1.1.4,-8,-0.060,-0.060,-0.060,0.000,0.000,0.000
1644376072223661824,2022-02-09-03:07:52,10.1.1.4,-10,-0.060,-0.060,-0.060,0.000,0.000,0.000
1644376073024000000,2022-02-09-03:07:53,10.1.1.4,-15,-0.060,-0.060,-0.060,0.000,0.000,0.000
1644376076263554048,2022-02-09-03:07:56,10.1.1.4,0,-0.060,-0.060,-0.060,0.000,0.000,0.000
1644376077063162112,2022-02-09-03:07:57,10.1.1.4,-8,-0.060,-0.060,-0.060,0.000,0.000,0.000
1644376080283595008,2022-02-09-03:08:00,10.1.1.4,-15,-0.060,-0.060,-0.060,0.000,0.000,0.000
1644376081107599872,2022-02-09-03:08:01,10.1.1.4,-6,-0.060,-0.060,-0.060,0.000,0.000,0.000
1644376084324109056,2022-02-09-03:08:04,10.1.1.4,-9,-0.060,-0.060,-0.060,0.000,0.000,0.000
1644376085123543040,2022-02-09-03:08:05,10.1.1.4,-14,-0.060,-0.060,-0.060,0.000,0.000,0.000
1644376088363100928,2022-02-09-03:08:08,10.1.1.4,4,-0.060,-0.060,-0.060,0.000,0.000,0.000
1644376089164289024,2022-02-09-03:08:09,10.1.1.4,-1,-0.060,-0.060,-0.060,0.000,0.000,0.000
1644376092383673856,2022-02-09-03:08:12,10.1.1.4,-6,-0.060,-0.060,-0.060,0.000,0.000,0.000
1644376093183995904,2022-02-09-03:08:13,10.1.1.4,-11,-0.060,-0.060,-0.060,0.000,0.000,0.000
1644376096402822144,2022-02-09-03:08:16,10.1.1.4,-13,-0.060,-0.060,-0.060,0.000,0.000,0.000
1644376097225905920,2022-02-09-03:08:17,10.1.1.4,0,-0.060,-0.060,-0.060,0.000,0.000,0.000
1644376100444880128,2022-02-09-03:08:20,10.1.1.4,-13,-0.060,-0.060,-0.060,0.000,0.000,0.000
1644376101247355904,2022-02-09-03:08:21,10.1.1.4,-18,-0.060,-0.060,-0.060,0.000,0.000,0.000
1644376104486170880,2022-02-09-03:08:24,10.1.1.4,-6,-0.060,-0.060,-0.060,0.000,0.000,0.000
1644376105283604992,2022-02-09-03:08:25,10.1.1.4,-11,-0.060,-0.060,-0.060,0.000,0.000,0.000
1644376108503762944,2022-02-09-03:08:28,10.1.1.4,-15,-0.060,-0.060,-0.060,0.000,0.000,0.000
1644376109324003072,2022-02-09-03:08:29,10.1.1.4,-6,-0.060,-0.060,-0.060,0.000,0.000,0.000
1644376112544190976,2022-02-09-03:08:32,10.1.1.4,-11,-0.060,-0.060,-0.060,0.000,0.000,0.000
1644376113364978176,2022-02-09-03:08:33,10.1.1.4,0,-0.060,-0.060,-0.060,0.000,0.000,0.000
1644376116585993984,2022-02-09-03:08:36,10.1.1.4,-17,-0.060,-0.060,-0.060,0.000,0.000,0.000
1644376117406123008,2022-02-09-03:08:37,10.1.1.4,-5,-0.060,-0.060,-0.060,0.000,0.000,0.000
1644376120649387008,2022-02-09-03:08:40,10.1.1.4,-12,-0.060,-0.060,-0.060,0.000,0.000,0.000
1644376121463574016,2022-02-09-03:08:41,10.1.1.4,1,-0.060,-0.060,-0.060,0.000,0.000,0.000
1644376124664233984,2022-02-09-03:08:44,10.1.1.4,-15,-0.060,-0.060,-0.060,0.000,0.000,0.000
1644376125484273920,2022-02-09-03:08:45,10.1.1.4,1,-0.060,-0.060,-0.060,0.000,0.000,0.000
1644376128684350976,2022-02-09-03:08:48,10.1.1.4,-14,-0.060,-0.060,-0.060,0.000,0.000,0.000
1644376129503560960,2022-02-09-03:08:49,10.1.1.4,1,-0.060,-0.060,-0.060,0.000,0.000,0.000
1644376132723870976,2022-02-09-03:08:52,10.1.1.4,2,-0.060,-0.060,-0.060,0.000,0.000,0.000
1644376133523102976,2022-02-09-03:08:53,10.1.1.4,-4,-0.060,-0.060,-0.060,0.000,0.000,0.000
1644376136744004096,2022-02-09-03:08:56,10.1.1.4,-4,-0.060,-0.060,-0.060,0.000,0.000,0.000
1644376137544451840,2022-02-09-03:08:57,10.1.1.4,-7,-0.060,-0.060,-0.060,0.000,0.000,0.000
1644376140764025856,2022-02-09-03:09:00,10.1.1.4,-12,-0.060,-0.060,-0.060,0.000,0.000,0.000
1644376141583719936,2022-02-09-03:09:01,10.1.1.4,4,-0.060,-0.060,-0.060,0.000,0.000,0.000
1644376144804148992,2022-02-09-03:09:04,10.1.1.4,3,-0.060,-0.060,-0.060,0.000,0.000,0.000
1644376145603954944,2022-02-09-03:09:05,10.1.1.4,-15,-0.060,-0.060,-0.060,0.000,0.000,0.000
1644376148823483904,2022-02-09-03:09:08,10.1.1.4,-15,-0.060,-0.060,-0.060,0.000,0.000,0.000
1644376149643915776,2022-02-09-03:09:09,10.1.1.4,2,-0.060,-0.060,-0.060,0.000,0.000,0.000
1644376152863792896,2022-02-09-03:09:12,10.1.1.4,3,-0.060,-0.060,-0.060,0.000,0.000,0.000
1644376153664536064,2022-02-09-03:09:13,10.1.1.4,-3,-0.060,-0.060,-0.060,0.000,0.000,0.000
1644376156884707072,2022-02-09-03:09:16,10.1.1.4,-1,-0.060,-0.060,-0.060,0.000,0.000,0.000
1644376157684111104,2022-02-09-03:09:17,10.1.1.4,-9,-0.060,-0.060,-0.060,0.000,0.000,0.000
1644376160942883072,2022-02-09-03:09:20,10.1.1.4,1,-0.060,-0.060,-0.060,0.000,0.000,0.000
1644376161744282112,2022-02-09-03:09:21,10.1.1.4,-5,-0.060,-0.060,-0.060,0.000,0.000,0.000
1644376164962210048,2022-02-09-03:09:24,10.1.1.4,-6,-0.060,-0.060,-0.060,0.000,0.000,0.000
1644376165761835008,2022-02-09-03:09:25,10.1.1.4,-10,-0.060,-0.060,-0.060,0.000,0.000,0.000
1644376168982722048,2022-02-09-03:09:28,10.1.1.4,-6,-0.060,-0.060,-0.060,0.000,0.000,0.000
1644376169782372864,2022-02-09-03:09:29,10.1.1.4,-9,-0.060,-0.060,-0.060,0.000,0.000,0.000
1644376173004066048,2022-02-09-03:09:33,10.1.1.4,-9,-0.060,-0.060,-0.060,0.000,0.000,0.000
1644376173801959936,2022-02-09-03:09:33,10.1.1.4,-12,-0.060,-0.060,-0.060,0.000,0.000,0.000
1644376177027777792,2022-02-09-03:09:37,10.1.1.4,-13,-0.060,-0.060,-0.060,0.000,0.000,0.000
1644376177842820864,2022-02-09-03:09:37,10.1.1.4,-9,-0.060,-0.060,-0.060,0.000,0.000,0.000
1644376181082490880,2022-02-09-03:09:41,10.1.1.4,-12,-0.060,-0.060,-0.060,0.000,0.000,0.000
1644376181903276032,2022-02-09-03:09:41,10.1.1.4,-1,-0.060,-0.060,-0.060,0.000,0.000,0.000
1644376185121990912,2022-02-09-03:09:45,10.1.1.4,-5,-0.060,-0.060,-0.060,0.000,0.000,0.000
1644376185923548928,2022-02-09-03:09:45,10.1.1.4,-11,-0.060,-0.060,-0.060,0.000,0.000,0.000
1644376189161384192,2022-02-09-03:09:49,10.1.1.4,4,-0.060,-0.060,-0.060,0.000,0.000,0.000
1644376189961890816,2022-02-09-03:09:49,10.1.1.4,0,-0.060,-0.060,-0.060,0.000,0.000,0.000
1644376193183828224,2022-02-09-03:09:53,10.1.1.4,-5,-0.060,-0.060,-0.060,0.000,0.000,0.000
1644376193982603008,2022-02-09-03:09:53,10.1.1.4,-13,-0.060,-0.060,-0.060,0.000,0.000,0.000
1644376197221051904,2022-02-09-03:09:57,10.1.1.4,-7,-0.060,-0.060,-0.060,0.000,0.000,0.000
1644376198041680128,2022-02-09-03:09:58,10.1.1.4,6,-0.060,-0.060,-0.060,0.000,0.000,0.000
1644376201345715968,2022-02-09-03:10:01,10.1.1.4,-3,-0.060,-0.060,-0.060,0.000,0.000,0.000
1644376202081085952,2022-02-09-03:10:02,10.1.1.4,-10,-0.060,-0.060,-0.060,0.000,0.000,0.000
1644376205322434816,2022-02-09-03:10:05,10.1.1.4,2,-0.060,-0.060,-0.060,0.000,0.000,0.000
1644376206126746880,2022-02-09-03:10:06,10.1.1.4,-4,-0.060,-0.060,-0.060,0.000,0.000,0.000
1644376209342940160,2022-02-09-03:10:09,10.1.1.4,-5,-0.060,-0.060,-0.060,0.000,0.000,0.000
1644376210160242176,2022-02-09-03:10:10,10.1.1.4,8,-0.060,-0.060,-0.060,0.000,0.000,0.000
1644376213380617984,2022-02-09-03:10:13,10.1.1.4,-8,-0.060,-0.060,-0.060,0.000,0.000,0.000
1644376214200030976,2022-02-09-03:10:14,10.1.1.4,2,-0.060,-0.060,-0.060,0.000,0.000,0.000
1644376217440901888,2022-02-09-03:10:17,10.1.1.4,-7,-0.060,-0.060,-0.060,0.000,0.000,0.000
1644376218243588864,2022-02-09-03:10:18,10.1.1.4,-14,-0.060,-0.060,-0.060,0.000,0.000,0.000
1644376221482067200,2022-02-09-03:10:21,10.1.1.4,-6,-0.060,-0.060,-0.060,0.000,0.000,0.000
1644376222300110080,2022-02-09-03:10:22,10.1.1.4,-7,-0.060,-0.060,-0.060,0.000,0.000,0.000
1644376225540695040,2022-02-09-03:10:25,10.1.1.4,0,-0.060,-0.060,-0.060,0.000,0.000,0.000
1644376226340399872,2022-02-09-03:10:26,10.1.1.4,-7,-0.060,-0.060,-0.060,0.000,0.000,0.000
1644376229566923008,2022-02-09-03:10:29,10.1.1.4,-11,-0.060,-0.060,-0.060,0.000,0.000,0.000
1644376230382330880,2022-02-09-03:10:30,10.1.1.4,-1,-0.060,-0.060,-0.060,0.000,0.000,0.000
1644376233599998976,2022-02-09-03:10:33,10.1.1.4,4,-0.060,-0.060,-0.060,0.000,0.000,0.000
1644376234404968960,2022-02-09-03:10:34,10.1.1.4,-1,-0.060,-0.060,-0.060,0.000,0.000,0.000
1644376237620649984,2022-02-09-03:10:37,10.1.1.4,-1,-0.060,-0.060,-0.060,0.000,0.000,0.000
1644376238419881984,2022-02-09-03:10:38,10.1.1.4,-5,-0.060,-0.060,-0.060,0.000,0.000,0.000
1644376241640750848,2022-02-09-03:10:41,10.1.1.4,-1,-0.060,-0.060,-0.060,0.000,0.000,0.000
1644376242439910912,2022-02-09-03:10:42,10.1.1.4,-7,-0.060,-0.060,-0.060,0.000,0.000,0.000
1644376245659449088,2022-02-09-03:10:45,10.1.1.4,-4,-0.060,-0.060,-0.060,0.000,0.000,0.000
1644376246460041984,2022-02-09-03:10:46,10.1.1.4,-8,-0.060,-0.060,-0.060,0.000,0.000,0.000
1644376249699851008,2022-02-09-03:10:49,10.1.1.4,8,-0.060,-0.060,-0.060,0.000,0.000,0.000
1644376250505724928,2022-02-09-03:10:50,10.1.1.4,-2,-0.060,-0.060,-0.060,0.000,0.000,0.000
1644376253719621888,2022-02-09-03:10:53,10.1.1.4,-1,-0.060,-0.060,-0.060,0.000,0.000,0.000
1644376254519449088,2022-02-09-03:10:54,10.1.1.4,-4,-0.060,-0.060,-0.060,0.000,0.000,0.000
1644376257739442176,2022-02-09-03:10:57,10.1.1.4,0,-0.060,-0.060,-0.060,0.000,0.000,0.000
1644376258540606976,2022-02-09-03:10:58,10.1.1.4,-6,-0.060,-0.060,-0.060,0.000,0.000,0.000
1644376261760039936,2022-02-09-03:11:01,10.1.1.4,-5,-0.060,-0.060,-0.060,0.000,0.000,0.000
1644376262559827968,2022-02-09-03:11:02,10.1.1.4,-11,-0.060,-0.060,-0.060,0.000,0.000,0.000
1644376265798953984,2022-02-09-03:11:05,10.1.1.4,-5,-0.060,-0.060,-0.060,0.000,0.000,0.000
1644376266601182976,2022-02-09-03:11:06,10.1.1.4,-9,-0.060,-0.060,-0.060,0.000,0.000,0.000
1644376269828059904,2022-02-09-03:11:09,10.1.1.4,-16,-0.060,-0.060,-0.060,0.000,0.000,0.000
1644376270639076096,2022-02-09-03:11:10,10.1.1.4,-3,-0.060,-0.060,-0.060,0.000,0.000,0.000
1644376273858972928,2022-02-09-03:11:13,10.1.1.4,-3,-0.060,-0.060,-0.060,0.000,0.000,0.000
1644376274658973952,2022-02-09-03:11:14,10.1.1.4,-6,-0.060,-0.060,-0.060,0.000,0.000,0.000
1644376277878868992,2022-02-09-03:11:17,10.1.1.4,-9,-0.060,-0.060,-0.060,0.000,0.000,0.000
1644376278699577088,2022-02-09-03:11:18,10.1.1.4,8,-0.060,-0.060,-0.060,0.000,0.000,0.000
1644376281918123008,2022-02-09-03:11:21,10.1.1.4,6,-0.060,-0.060,-0.060,0.000,0.000,0.000
1644376282722588928,2022-02-09-03:11:22,10.1.1.4,0,-0.060,-0.060,-0.060,0.000,0.000,0.000
1644376285993697024,2022-02-09-03:11:25,10.1.1.4,-64,-0.060,-0.060,-0.060,0.000,0.000,0.000
1644376286798777088,2022-02-09-03:11:26,10.1.1.4,-11,-0.060,-0.060,-0.060,0.000,0.000,0.000
1644376290021068032,2022-02-09-03:11:30,10.1.1.4,-9,-0.060,-0.060,-0.060,0.000,0.000,0.000
1644376290839684096,2022-02-09-03:11:30,10.1.1.4,6,-0.060,-0.060,-0.060,0.000,0.000,0.000
1644376294063954944,2022-02-09-03:11:34,10.1.1.4,3,-0.060,-0.060,-0.060,0.000,0.000,0.000
1644376294858233088,2022-02-09-03:11:34,10.1.1.4,-4,-0.060,-0.060,-0.060,0.000,0.000,0.000
1644376298117368064,2022-02-09-03:11:38,10.1.1.4,5,-0.060,-0.060,-0.060,0.000,0.000,0.000
1644376298940054016,2022-02-09-03:11:38,10.1.1.4,1,-0.060,-0.060,-0.060,0.000,0.000,0.000
1644376302158722048,2022-02-09-03:11:42,10.1.1.4,-2,-0.060,-0.060,-0.060,0.000,0.000,0.000
1644376302962883072,2022-02-09-03:11:42,10.1.1.4,-6,-0.060,-0.060,-0.060,0.000,0.000,0.000
1644376306182779136,2022-02-09-03:11:46,10.1.1.4,-4,-0.060,-0.060,-0.060,0.000,0.000,0.000
1644376306983081216,2022-02-09-03:11:46,10.1.1.4,-8,-0.060,-0.060,-0.060,0.000,0.000,0.000
1644376310198999040,2022-02-09-03:11:50,10.1.1.4,-4,-0.060,-0.060,-0.060,0.000,0.000,0.000
1644376311017659904,2022-02-09-03:11:51,10.1.1.4,2,-0.060,-0.060,-0.060,0.000,0.000,0.000
1644376314241864960,2022-02-09-03:11:54,10.1.1.4,2,-0.060,-0.060,-0.060,0.000,0.000,0.000
1644376315038120960,2022-02-09-03:11:55,10.1.1.4,-2,-0.060,-0.060,-0.060,0.000,0.000,0.000
1644376318277650944,2022-02-09-03:11:58,10.1.1.4,-7,-0.060,-0.060,-0.060,0.000,0.000,0.000
1644376319097900032,2022-02-09-03:11:59,10.1.1.4,6,-0.060,-0.060,-0.060,0.000,0.000,0.000
1644376322317904896,2022-02-09-03:12:02,10.1.1.4,-7,-0.060,-0.060,-0.060,0.000,0.000,0.000
1644376323138597888,2022-02-09-03:12:03,10.1.1.4,5,-0.060,-0.060,-0.060,0.000,0.000,0.000
1644376326357618176,2022-02-09-03:12:06,10.1.1.4,1,-0.060,-0.060,-0.060,0.000,0.000,0.000
1644376327161508096,2022-02-09-03:12:07,10.1.1.4,-4,-0.060,-0.060,-0.060,0.000,0.000,0.000
1644376330396819200,2022-02-09-03:12:10,10.1.1.4,0,-0.060,-0.060,-0.060,0.000,0.000,0.000
1644376331199081984,2022-02-09-03:12:11,10.1.1.4,-6,-0.060,-0.060,-0.060,0.000,0.000,0.000
1644376334440603136,2022-02-09-03:12:14,10.1.1.4,-2,-0.060,-0.060,-0.060,0.000,0.000,0.000
1644376335241112064,2022-02-09-03:12:15,10.1.1.4,-8,-0.060,-0.060,-0.060,0.000,0.000,0.000
1644376335339442944,2022-02-09-03:12:15,10.1.1.4,-9,-0.060,-0.060,-0.060,0.000,0.000,0.000
1644376338482822912,2022-02-09-03:12:18,10.1.1.4,-5,-0.060,-0.060,-0.060,0.000,0.000,0.000
1644376339296390912,2022-02-09-03:12:19,10.1.1.4,9,-0.060,-0.060,-0.060,0.000,0.000,0.000
1644376342517725952,2022-02-09-03:12:22,10.1.1.4,10,-0.060,-0.060,-0.060,0.000,0.000,0.000
1644376343316307968,2022-02-09-03:12:23,10.1.1.4,2,-0.060,-0.060,-0.060,0.000,0.000,0.000
1644376346535720192,2022-02-09-03:12:26,10.1.1.4,-3,-0.060,-0.060,-0.060,0.000,0.000,0.000
1644376347355746048,2022-02-09-03:12:27,10.1.1.4,8,-0.060,-0.060,-0.060,0.000,0.000,0.000
1644376350578524160,2022-02-09-03:12:30,10.1.1.4,-8,-0.060,-0.060,-0.060,0.000,0.000,0.000
1644376351396796928,2022-02-09-03:12:31,10.1.1.4,6,-0.060,-0.060,-0.060,0.000,0.000,0.000
1644376354618443008,2022-02-09-03:12:34,10.1.1.4,6,-0.060,-0.060,-0.060,0.000,0.000,0.000
1644376355417000960,2022-02-09-03:12:35,10.1.1.4,1,-0.060,-0.060,-0.060,0.000,0.000,0.000
1644376358636818944,2022-02-09-03:12:38,10.1.1.4,6,-0.060,-0.060,-0.060,0.000,0.000,0.000
1644376359436017920,2022-02-09-03:12:39,10.1.1.4,2,-0.060,-0.060,-0.060,0.000,0.000,0.000
1644376362656876032,2022-02-09-03:12:42,10.1.1.4,2,-0.060,-0.060,-0.060,0.000,0.000,0.000
1644376363456060928,2022-02-09-03:12:43,10.1.1.4,-2,-0.060,-0.060,-0.060,0.000,0.000,0.000
1644376366675923968,2022-02-09-03:12:46,10.1.1.4,1,-0.060,-0.060,-0.060,0.000,0.000,0.000
1644376367477906944,2022-02-09-03:12:47,10.1.1.4,-3,-0.060,-0.060,-0.060,0.000,0.000,0.000
1644376370735290112,2022-02-09-03:12:50,10.1.1.4,5,-0.060,-0.060,-0.060,0.000,0.000,0.000
1644376371535471872,2022-02-09-03:12:51,10.1.1.4,-2,-0.060,-0.060,-0.060,0.000,0.000,0.000
1644376374775964928,2022-02-09-03:12:54,10.1.1.4,8,-0.060,-0.060,-0.060,0.000,0.000,0.000
1644376375577227008,2022-02-09-03:12:55,10.1.1.4,1,-0.060,-0.060,-0.060,0.000,0.000,0.000
1644376378820756992,2022-02-09-03:12:58,10.1.1.4,5,-0.060,-0.060,-0.060,0.000,0.000,0.000
1644376379617598976,2022-02-09-03:12:59,10.1.1.4,0,-0.060,-0.060,-0.060,0.000,0.000,0.000
1644376382855789056,2022-02-09-03:13:02,10.1.1.4,9,-0.060,-0.060,-0.060,0.000,0.000,0.000
1644376383655406080,2022-02-09-03:13:03,10.1.1.4,6,-0.060,-0.060,-0.060,0.000,0.000,0.000
1644376386878236160,2022-02-09-03:13:06,10.1.1.4,-2,-0.060,-0.060,-0.060,0.000,0.000,0.000
1644376387695655168,2022-02-09-03:13:07,10.1.1.4,13,-0.060,-0.060,-0.060,0.000,0.000,0.000
1644376390896524800,2022-02-09-03:13:10,10.1.1.4,-8,-0.060,-0.060,-0.060,0.000,0.000,0.000
1644376391716475904,2022-02-09-03:13:11,10.1.1.4,8,-0.060,-0.060,-0.060,0.000,0.000,0.000
1644376394939307008,2022-02-09-03:13:14,10.1.1.4,-1,-0.060,-0.060,-0.060,0.000,0.000,0.000
1644376395735922944,2022-02-09-03:13:15,10.1.1.4,-5,-0.060,-0.060,-0.060,0.000,0.000,0.000
1644376398974963968,2022-02-09-03:13:18,10.1.1.4,9,-0.060,-0.060,-0.060,0.000,0.000,0.000
1644376399775731200,2022-02-09-03:13:19,10.1.1.4,5,-0.060,-0.060,-0.060,0.000,0.000,0.000
1644376402995268096,2022-02-09-03:13:22,10.1.1.4,9,-0.060,-0.060,-0.060,0.000,0.000,0.000
1644376403795660032,2022-02-09-03:13:23,10.1.1.4,7,-0.060,-0.060,-0.060,0.000,0.000,0.000
1644376407015223040,2022-02-09-03:13:27,10.1.1.4,8,-0.060,-0.060,-0.060,0.000,0.000,0.000
1644376407815181056,2022-02-09-03:13:27,10.1.1.4,3,-0.060,-0.060,-0.060,0.000,0.000,0.000
1644376411042946048,2022-02-09-03:13:31,10.1.1.4,5,-0.060,-0.060,-0.060,0.000,0.000,0.000
1644376411839201024,2022-02-09-03:13:31,10.1.1.4,-3,-0.060,-0.060,-0.060,0.000,0.000,0.000
1644376415073859840,2022-02-09-03:13:35,10.1.1.4,4,-0.060,-0.060,-0.060,0.000,0.000,0.000
1644376415873624064,2022-02-09-03:13:35,10.1.1.4,-3,-0.060,-0.060,-0.060,0.000,0.000,0.000
1644376419114383104,2022-02-09-03:13:39,10.1.1.4,12,-0.060,-0.060,-0.060,0.000,0.000,0.000
1644376419914944768,2022-02-09-03:13:39,10.1.1.4,9,-0.060,-0.060,-0.060,0.000,0.000,0.000
1644376423134248960,2022-02-09-03:13:43,10.1.1.4,4,-0.060,-0.060,-0.060,0.000,0.000,0.000
1644376423934326016,2022-02-09-03:13:43,10.1.1.4,-2,-0.060,-0.060,-0.060,0.000,0.000,0.000
1644376427174729984,2022-02-09-03:13:47,10.1.1.4,-1,-0.060,-0.060,-0.060,0.000,0.000,0.000
1644376427995017984,2022-02-09-03:13:47,10.1.1.4,9,-0.060,-0.060,-0.060,0.000,0.000,0.000
1644376431219602176,2022-02-09-03:13:51,10.1.1.4,7,-0.060,-0.060,-0.060,0.000,0.000,0.000
1644376432013957888,2022-02-09-03:13:52,10.1.1.4,2,-0.060,-0.060,-0.060,0.000,0.000,0.000
1644376435233602048,2022-02-09-03:13:55,10.1.1.4,-3,-0.060,-0.060,-0.060,0.000,0.000,0.000
1644376436053436928,2022-02-09-03:13:56,10.1.1.4,13,-0.060,-0.060,-0.060,0.000,0.000,0.000
1644376439253784064,2022-02-09-03:13:59,10.1.1.4,-4,-0.060,-0.060,-0.060,0.000,0.000,0.000
1644376440073137920,2022-02-09-03:14:00,10.1.1.4,11,-0.060,-0.060,-0.060,0.000,0.000,0.000
1644376443299617024,2022-02-09-03:14:03,10.1.1.4,9,-0.060,-0.060,-0.060,0.000,0.000,0.000
1644376444092652032,2022-02-09-03:14:04,10.1.1.4,4,-0.060,-0.060,-0.060,0.000,0.000,0.000
1644376447354294016,2022-02-09-03:14:07,10.1.1.4,9,-0.060,-0.060,-0.060,0.000,0.000,0.000
1644376448153856000,2022-02-09-03:14:08,10.1.1.4,4,-0.060,-0.060,-0.060,0.000,0.000,0.000
1644376451379401984,2022-02-09-03:14:11,10.1.1.4,-11,-0.060,-0.060,-0.060,0.000,0.000,0.000
1644376452195053056,2022-02-09-03:14:12,10.1.1.4,4,-0.060,-0.060,-0.060,0.000,0.000,0.000
1644376455433432064,2022-02-09-03:14:15,10.1.1.4,11,-0.060,-0.060,-0.060,0.000,0.000,0.000
1644376456233954048,2022-02-09-03:14:16,10.1.1.4,7,-0.060,-0.060,-0.060,0.000,0.000,0.000
1644376459455476992,2022-02-09-03:14:19,10.1.1.4,3,-0.060,-0.060,-0.060,0.000,0.000,0.000
1644376460256678144,2022-02-09-03:14:20,10.1.1.4,0,-0.060,-0.060,-0.060,0.000,0.000,0.000
1644376463493556992,2022-02-09-03:14:23,10.1.1.4,2,-0.060,-0.060,-0.060,0.000,0.000,0.000
1644376464294053120,2022-02-09-03:14:24,10.1.1.4,-1,-0.060,-0.060,-0.060,0.000,0.000,0.000
1644376467514333952,2022-02-09-03:14:27,10.1.1.4,3,-0.060,-0.060,-0.060,0.000,0.000,0.000
1644376468312318976,2022-02-09-03:14:28,10.1.1.4,0,-0.060,-0.060,-0.060,0.000,0.000,0.000
1644376471533829888,2022-02-09-03:14:31,10.1.1.4,-1,-0.060,-0.060,-0.060,0.000,0.000,0.000
1644376472352869888,2022-02-09-03:14:32,10.1.1.4,12,-0.060,-0.060,-0.060,0.000,0.000,0.000
1644376475553445120,2022-02-09-03:14:35,10.1.1.4,-4,-0.060,-0.060,-0.060,0.000,0.000,0.000
1644376476373063168,2022-02-09-03:14:36,10.1.1.4,9,-0.060,-0.060,-0.060,0.000,0.000,0.000
1644376479592219136,2022-02-09-03:14:39,10.1.1.4,12,-0.060,-0.060,-0.060,0.000,0.000,0.000
1644376480393396992,2022-02-09-03:14:40,10.1.1.4,7,-0.060,-0.060,-0.060,0.000,0.000,0.000
1644376483611870976,2022-02-09-03:14:43,10.1.1.4,10,-0.060,-0.060,-0.060,0.000,0.000,0.000
1644376484412323840,2022-02-09-03:14:44,10.1.1.4,7,-0.060,-0.060,-0.060,0.000,0.000,0.000
1644376487632942080,2022-02-09-03:14:47,10.1.1.4,1,-0.060,-0.060,-0.060,0.000,0.000,0.000
1644376488441198080,2022-02-09-03:14:48,10.1.1.4,-5,-0.060,-0.060,-0.060,0.000,0.000,0.000
1644376491672926976,2022-02-09-03:14:51,10.1.1.4,15,-0.060,-0.060,-0.060,0.000,0.000,0.000
1644376492471878912,2022-02-09-03:14:52,10.1.1.4,12,-0.060,-0.060,-0.060,0.000,0.000,0.000
1644376495673296896,2022-02-09-03:14:55,10.1.1.4,-1,-0.060,-0.060,-0.060,0.000,0.000,0.000
1644376496473648128,2022-02-09-03:14:56,10.1.1.4,-4,-0.060,-0.060,-0.060,0.000,0.000,0.000
1644376499692712960,2022-02-09-03:14:59,10.1.1.4,0,-0.060,-0.060,-0.060,0.000,0.000,0.000
1644376500500346880,2022-02-09-03:15:00,10.1.1.4,-6,-0.060,-0.060,-0.060,0.000,0.000,0.000
1644376503732069120,2022-02-09-03:15:03,10.1.1.4,6,-0.060,-0.060,-0.060,0.000,0.000,0.000
1644376504532860928,2022-02-09-03:15:04,10.1.1.4,2,-0.060,-0.060,-0.060,0.000,0.000,0.000
1644376507754401024,2022-02-09-03:15:07,10.1.1.4,1,-0.060,-0.060,-0.060,0.000,0.000,0.000
1644376508571664128,2022-02-09-03:15:08,10.1.1.4,8,-0.060,-0.060,-0.060,0.000,0.000,0.000
1644376511791758080,2022-02-09-03:15:11,10.1.1.4,6,-0.060,-0.060,-0.060,0.000,0.000,0.000
1644376512592441088,2022-02-09-03:15:12,10.1.1.4,2,-0.060,-0.060,-0.060,0.000,0.000,0.000
1644376515817888000,2022-02-09-03:15:15,10.1.1.4,-4,-0.060,-0.060,-0.060,0.000,0.000,0.000
1644376516631246080,2022-02-09-03:15:16,10.1.1.4,11,-0.060,-0.060,-0.060,0.000,0.000,0.000
1644376519851224832,2022-02-09-03:15:19,10.1.1.4,13,-0.060,-0.060,-0.060,0.000,0.000,0.000
1644376520651896064,2022-02-09-03:15:20,10.1.1.4,10,-0.060,-0.060,-0.060,0.000,0.000,0.000
1644376523871128064,2022-02-09-03:15:23,10.1.1.4,-1,-0.060,-0.060,-0.060,0.000,0.000,0.000
1644376524692538112,2022-02-09-03:15:24,10.1.1.4,11,-0.060,-0.060,-0.060,0.000,0.000,0.000
1644376527911895040,2022-02-09-03:15:27,10.1.1.4,5,-0.060,-0.060,-0.060,0.000,0.000,0.000
1644376528711378944,2022-02-09-03:15:28,10.1.1.4,-2,-0.060,-0.060,-0.060,0.000,0.000,0.000
1644376531951471104,2022-02-09-03:15:31,10.1.1.4,9,-0.060,-0.060,-0.060,0.000,0.000,0.000
1644376532751622912,2022-02-09-03:15:32,10.1.1.4,3,-0.060,-0.060,-0.060,0.000,0.000,0.000
1644376535978882048,2022-02-09-03:15:35,10.1.1.4,5,-0.060,-0.060,-0.060,0.000,0.000,0.000
1644376536772422144,2022-02-09-03:15:36,10.1.1.4,1,-0.060,-0.060,-0.060,0.000,0.000,0.000
1644376540011287040,2022-02-09-03:15:40,10.1.1.4,7,-0.060,-0.060,-0.060,0.000,0.000,0.000
1644376540811429120,2022-02-09-03:15:40,10.1.1.4,2,-0.060,-0.060,-0.060,0.000,0.000,0.000
1644376544050644992,2022-02-09-03:15:44,10.1.1.4,3,-0.060,-0.060,-0.060,0.000,0.000,0.000
1644376544851572992,2022-02-09-03:15:44,10.1.1.4,-3,-0.060,-0.060,-0.060,0.000,0.000,0.000
1644376548091224832,2022-02-09-03:15:48,10.1.1.4,1,-0.060,-0.060,-0.060,0.000,0.000,0.000
1644376548924073984,2022-02-09-03:15:48,10.1.1.4,10,-0.060,-0.060,-0.060,0.000,0.000,0.000
1644376552143107840,2022-02-09-03:15:52,10.1.1.4,-3,-0.060,-0.060,-0.060,0.000,0.000,0.000
1644376552954483968,2022-02-09-03:15:52,10.1.1.4,2,-0.060,-0.060,-0.060,0.000,0.000,0.000
1644376556219069952,2022-02-09-03:15:56,10.1.1.4,-5,-0.060,-0.060,-0.060,0.000,0.000,0.000
1644376557051960064,2022-02-09-03:15:57,10.1.1.4,7,-0.060,-0.060,-0.060,0.000,0.000,0.000
1644376560291721984,2022-02-09-03:16:00,10.1.1.4,-2,-0.060,-0.060,-0.060,0.000,0.000,0.000
1644376561136611072,2022-02-09-03:16:01,10.1.1.4,6,-0.060,-0.060,-0.060,0.000,0.000,0.000
1644376564391341056,2022-02-09-03:16:04,10.1.1.4,16,-0.060,-0.060,-0.060,0.000,0.000,0.000
1644376565190236928,