FedericoMungari/DigitalTwin_service/01_WiredScenario/Output/Output_script/script_rosapi_2_output_robots8_freq0_2.txt
timestamp,date,node,latency,joint_1,joint_2,joint_3,joint_4,joint_5,joint_6
1641207845684113920,2022-01-03-11:04:05,10.1.1.3,174,-0.010,-0.010,-0.010,0.000,0.000,0.000
1641207845883214080,2022-01-03-11:04:05,10.1.1.3,172,-0.020,-0.020,-0.020,0.000,0.000,0.000
1641207846082982144,2022-01-03-11:04:06,10.1.1.3,171,-0.030,-0.030,-0.030,0.000,0.000,0.000
1641207846282633984,2022-01-03-11:04:06,10.1.1.3,169,-0.040,-0.040,-0.040,0.000,0.000,0.000
1641207846482382080,2022-01-03-11:04:06,10.1.1.3,169,-0.050,-0.050,-0.050,0.000,0.000,0.000
1641207846683252224,2022-01-03-11:04:06,10.1.1.3,169,-0.060,-0.060,-0.060,0.000,0.000,0.000
1641207846882281984,2022-01-03-11:04:06,10.1.1.3,167,-0.070,-0.070,-0.070,0.000,0.000,0.000
1641207847082941952,2022-01-03-11:04:07,10.1.1.3,167,-0.080,-0.080,-0.080,0.000,0.000,0.000
1641207847282989056,2022-01-03-11:04:07,10.1.1.3,167,-0.090,-0.090,-0.090,0.000,0.000,0.000
1641207847481831936,2022-01-03-11:04:07,10.1.1.3,165,-0.100,-0.100,-0.100,0.000,0.000,0.000
1641207847681417984,2022-01-03-11:04:07,10.1.1.3,164,-0.110,-0.110,-0.110,0.000,0.000,0.000
1641207847880541952,2022-01-03-11:04:07,10.1.1.3,162,-0.120,-0.120,-0.120,0.000,0.000,0.000
1641207848080621056,2022-01-03-11:04:08,10.1.1.3,161,-0.130,-0.130,-0.130,0.000,0.000,0.000
1641207848279710976,2022-01-03-11:04:08,10.1.1.3,159,-0.140,-0.140,-0.140,0.000,0.000,0.000
1641207848499546112,2022-01-03-11:04:08,10.1.1.3,177,-0.150,-0.150,-0.150,0.000,0.000,0.000
1641207848698916864,2022-01-03-11:04:08,10.1.1.3,176,-0.160,-0.160,-0.160,0.000,0.000,0.000
1641207848899416832,2022-01-03-11:04:08,10.1.1.3,175,-0.170,-0.170,-0.170,0.000,0.000,0.000
1641207849099293952,2022-01-03-11:04:09,10.1.1.3,174,-0.180,-0.180,-0.180,0.000,0.000,0.000
1641207849299906048,2022-01-03-11:04:09,10.1.1.3,174,-0.190,-0.190,-0.190,0.000,0.000,0.000
1641207849500928000,2022-01-03-11:04:09,10.1.1.3,175,-0.200,-0.200,-0.200,0.000,0.000,0.000
1641207849702428160,2022-01-03-11:04:09,10.1.1.3,174,-0.210,-0.210,-0.210,0.000,0.000,0.000
1641207849903860992,2022-01-03-11:04:09,10.1.1.3,173,-0.220,-0.220,-0.220,0.000,0.000,0.000
1641207850104516096,2022-01-03-11:04:10,10.1.1.3,173,-0.230,-0.230,-0.230,0.000,0.000,0.000
1641207850304868096,2022-01-03-11:04:10,10.1.1.3,172,-0.240,-0.240,-0.240,0.000,0.000,0.000
1641207850505774080,2022-01-03-11:04:10,10.1.1.3,172,-0.250,-0.250,-0.250,0.000,0.000,0.000
1641207850706676992,2022-01-03-11:04:10,10.1.1.3,172,-0.260,-0.260,-0.260,0.000,0.000,0.000
1641207850907727104,2022-01-03-11:04:10,10.1.1.3,172,-0.270,-0.270,-0.270,0.000,0.000,0.000
1641207851108228096,2022-01-03-11:04:11,10.1.1.3,172,-0.280,-0.280,-0.280,0.000,0.000,0.000
1641207851309242880,2022-01-03-11:04:11,10.1.1.3,172,-0.290,-0.290,-0.290,0.000,0.000,0.000
1641207851509718784,2022-01-03-11:04:11,10.1.1.3,171,-0.300,-0.300,-0.300,0.000,0.000,0.000
1641207851710285824,2022-01-03-11:04:11,10.1.1.3,170,-0.310,-0.310,-0.310,0.000,0.000,0.000
1641207851911587072,2022-01-03-11:04:11,10.1.1.3,170,-0.320,-0.320,-0.320,0.000,0.000,0.000
1641207852112206848,2022-01-03-11:04:12,10.1.1.3,170,-0.330,-0.330,-0.330,0.000,0.000,0.000
1641207852333192192,2022-01-03-11:04:12,10.1.1.3,189,-0.340,-0.340,-0.340,0.000,0.000,0.000
1641207852532999936,2022-01-03-11:04:12,10.1.1.3,186,-0.350,-0.350,-0.350,0.000,0.000,0.000
1641207852733820928,2022-01-03-11:04:12,10.1.1.3,186,-0.360,-0.360,-0.360,0.000,0.000,0.000
1641207852933926144,2022-01-03-11:04:12,10.1.1.3,182,-0.370,-0.370,-0.370,0.000,0.000,0.000
1641207853135289856,2022-01-03-11:04:13,10.1.1.3,182,-0.380,-0.380,-0.380,0.000,0.000,0.000
1641207853335761152,2022-01-03-11:04:13,10.1.1.3,179,-0.390,-0.390,-0.390,0.000,0.000,0.000
1641207853536027904,2022-01-03-11:04:13,10.1.1.3,179,-0.400,-0.400,-0.400,0.000,0.000,0.000
1641207853737144832,2022-01-03-11:04:13,10.1.1.3,178,-0.410,-0.410,-0.410,0.000,0.000,0.000
1641207853936913920,2022-01-03-11:04:13,10.1.1.3,178,-0.420,-0.420,-0.420,0.000,0.000,0.000
1641207854137442048,2022-01-03-11:04:14,10.1.1.3,178,-0.430,-0.430,-0.430,0.000,0.000,0.000
1641207854338114048,2022-01-03-11:04:14,10.1.1.3,178,-0.440,-0.440,-0.440,0.000,0.000,0.000
1641207854538063104,2022-01-03-11:04:14,10.1.1.3,177,-0.450,-0.450,-0.450,0.000,0.000,0.000
1641207854738437888,2022-01-03-11:04:14,10.1.1.3,177,-0.460,-0.460,-0.460,0.000,0.000,0.000
1641207854938311936,2022-01-03-11:04:14,10.1.1.3,176,-0.470,-0.470,-0.470,0.000,0.000,0.000
1641207855158224128,2022-01-03-11:04:15,10.1.1.3,195,-0.480,-0.480,-0.480,0.000,0.000,0.000
1641207855359621888,2022-01-03-11:04:15,10.1.1.3,196,-0.490,-0.490,-0.490,0.000,0.000,0.000
1641207855559247104,2022-01-03-11:04:15,10.1.1.3,195,-0.480,-0.480,-0.480,0.000,0.000,0.000
1641207855759512064,2022-01-03-11:04:15,10.1.1.3,194,-0.470,-0.470,-0.470,0.000,0.000,0.000
1641207855959399936,2022-01-03-11:04:15,10.1.1.3,193,-0.460,-0.460,-0.460,0.000,0.000,0.000
1641207856159899904,2022-01-03-11:04:16,10.1.1.3,193,-0.450,-0.450,-0.450,0.000,0.000,0.000
1641207856360337920,2022-01-03-11:04:16,10.1.1.3,193,-0.440,-0.440,-0.440,0.000,0.000,0.000
1641207856560489984,2022-01-03-11:04:16,10.1.1.3,193,-0.430,-0.430,-0.430,0.000,0.000,0.000
1641207856760921856,2022-01-03-11:04:16,10.1.1.3,193,-0.420,-0.420,-0.420,0.000,0.000,0.000
1641207856960632064,2022-01-03-11:04:16,10.1.1.3,192,-0.410,-0.410,-0.410,0.000,0.000,0.000
1641207857161067008,2022-01-03-11:04:17,10.1.1.3,192,-0.400,-0.400,-0.400,0.000,0.000,0.000
1641207857362829824,2022-01-03-11:04:17,10.1.1.3,192,-0.390,-0.390,-0.390,0.000,0.000,0.000
1641207857560792832,2022-01-03-11:04:17,10.1.1.3,190,-0.380,-0.380,-0.380,0.000,0.000,0.000
1641207857762556160,2022-01-03-11:04:17,10.1.1.3,190,-0.370,-0.370,-0.370,0.000,0.000,0.000
1641207857961222912,2022-01-03-11:04:17,10.1.1.3,189,-0.360,-0.360,-0.360,0.000,0.000,0.000
1641207858161638144,2022-01-03-11:04:18,10.1.1.3,189,-0.350,-0.350,-0.350,0.000,0.000,0.000
1641207858361444864,2022-01-03-11:04:18,10.1.1.3,188,-0.340,-0.340,-0.340,0.000,0.000,0.000
1641207858562263040,2022-01-03-11:04:18,10.1.1.3,188,-0.330,-0.330,-0.330,0.000,0.000,0.000
1641207858761702144,2022-01-03-11:04:18,10.1.1.3,186,-0.320,-0.320,-0.320,0.000,0.000,0.000
1641207858962401024,2022-01-03-11:04:18,10.1.1.3,185,-0.310,-0.310,-0.310,0.000,0.000,0.000
1641207859162128896,2022-01-03-11:04:19,10.1.1.3,184,-0.300,-0.300,-0.300,0.000,0.000,0.000
1641207859361708032,2022-01-03-11:04:19,10.1.1.3,183,-0.290,-0.290,-0.290,0.000,0.000,0.000
1641207859561889024,2022-01-03-11:04:19,10.1.1.3,183,-0.280,-0.280,-0.280,0.000,0.000,0.000
1641207859761841920,2022-01-03-11:04:19,10.1.1.3,182,-0.270,-0.270,-0.270,0.000,0.000,0.000
1641207859962605056,2022-01-03-11:04:19,10.1.1.3,182,-0.260,-0.260,-0.260,0.000,0.000,0.000
1641207860161598976,2022-01-03-11:04:20,10.1.1.3,181,-0.250,-0.250,-0.250,0.000,0.000,0.000
1641207860362029056,2022-01-03-11:04:20,10.1.1.3,180,-0.240,-0.240,-0.240,0.000,0.000,0.000
1641207860561700096,2022-01-03-11:04:20,10.1.1.3,179,-0.230,-0.230,-0.230,0.000,0.000,0.000
1641207860782782976,2022-01-03-11:04:20,10.1.1.3,200,-0.220,-0.220,-0.220,0.000,0.000,0.000
1641207860983244800,2022-01-03-11:04:20,10.1.1.3,199,-0.210,-0.210,-0.210,0.000,0.000,0.000
1641207861181863936,2022-01-03-11:04:21,10.1.1.3,195,-0.200,-0.200,-0.200,0.000,0.000,0.000
1641207861381912064,2022-01-03-11:04:21,10.1.1.3,193,-0.190,-0.190,-0.190,0.000,0.000,0.000
1641207861589095168,2022-01-03-11:04:21,10.1.1.3,200,-0.180,-0.180,-0.180,0.000,0.000,0.000
1641207861782777088,2022-01-03-11:04:21,10.1.1.3,193,-0.170,-0.170,-0.170,0.000,0.000,0.000
1641207861981524992,2022-01-03-11:04:21,10.1.1.3,190,-0.160,-0.160,-0.160,0.000,0.000,0.000
1641207862182750976,2022-01-03-11:04:22,10.1.1.3,190,-0.150,-0.150,-0.150,0.000,0.000,0.000
1641207862381221888,2022-01-03-11:04:22,10.1.1.3,188,-0.140,-0.140,-0.140,0.000,0.000,0.000
1641207862581123072,2022-01-03-11:04:22,10.1.1.3,187,-0.130,-0.130,-0.130,0.000,0.000,0.000
1641207862780456192,2022-01-03-11:04:22,10.1.1.3,186,-0.120,-0.120,-0.120,0.000,0.000,0.000
1641207862980688128,2022-01-03-11:04:22,10.1.1.3,185,-0.110,-0.110,-0.110,0.000,0.000,0.000
1641207863180386048,2022-01-03-11:04:23,10.1.1.3,185,-0.100,-0.100,-0.100,0.000,0.000,0.000
1641207863380281856,2022-01-03-11:04:23,10.1.1.3,184,-0.090,-0.090,-0.090,0.000,0.000,0.000
1641207863580632832,2022-01-03-11:04:23,10.1.1.3,184,-0.080,-0.080,-0.080,0.000,0.000,0.000
1641207863780147968,2022-01-03-11:04:23,10.1.1.3,183,-0.070,-0.070,-0.070,0.000,0.000,0.000
1641207863980276992,2022-01-03-11:04:23,10.1.1.3,183,-0.060,-0.060,-0.060,0.000,0.000,0.000
1641207864180738048,2022-01-03-11:04:24,10.1.1.3,183,-0.050,-0.050,-0.050,0.000,0.000,0.000
1641207864379486976,2022-01-03-11:04:24,10.1.1.3,181,-0.040,-0.040,-0.040,0.000,0.000,0.000
1641207864579744000,2022-01-03-11:04:24,10.1.1.3,180,-0.030,-0.030,-0.030,0.000,0.000,0.000
1641207864781315072,2022-01-03-11:04:24,10.1.1.3,181,-0.020,-0.020,-0.020,0.000,0.000,0.000
1641207864978902016,2022-01-03-11:04:24,10.1.1.3,177,-0.010,-0.010,-0.010,0.000,0.000,0.000
1641207865198713088,2022-01-03-11:04:25,10.1.1.3,196,0.000,0.000,0.000,0.000,0.000,0.000
1641207865401612032,2022-01-03-11:04:25,10.1.1.3,198,-0.010,-0.010,-0.010,0.000,0.000,0.000
1641207865598467072,2022-01-03-11:04:25,10.1.1.3,193,-0.020,-0.020,-0.020,0.000,0.000,0.000
1641207865798063872,2022-01-03-11:04:25,10.1.1.3,192,-0.030,-0.030,-0.030,0.000,0.000,0.000
1641207865999396096,2022-01-03-11:04:25,10.1.1.3,192,-0.040,-0.040,-0.040,0.000,0.000,0.000
1641207866198926848,2022-01-03-11:04:26,10.1.1.3,189,-0.050,-0.050,-0.050,0.000,0.000,0.000
1641207866398368000,2022-01-03-11:04:26,10.1.1.3,187,-0.060,-0.060,-0.060,0.000,0.000,0.000
1641207866598753024,2022-01-03-11:04:26,10.1.1.3,187,-0.070,-0.070,-0.070,0.000,0.000,0.000
1641207866797396992,2022-01-03-11:04:26,10.1.1.3,185,-0.080,-0.080,-0.080,0.000,0.000,0.000
1641207866997198080,2022-01-03-11:04:26,10.1.1.3,185,-0.090,-0.090,-0.090,0.000,0.000,0.000
1641207867198360064,2022-01-03-11:04:27,10.1.1.3,185,-0.100,-0.100,-0.100,0.000,0.000,0.000
1641207867396560896,2022-01-03-11:04:27,10.1.1.3,183,-0.110,-0.110,-0.110,0.000,0.000,0.000
1641207867596855040,2022-01-03-11:04:27,10.1.1.3,182,-0.120,-0.120,-0.120,0.000,0.000,0.000
1641207867796327168,2022-01-03-11:04:27,10.1.1.3,181,-0.130,-0.130,-0.130,0.000,0.000,0.000
1641207867995671040,2022-01-03-11:04:27,10.1.1.3,180,-0.140,-0.140,-0.140,0.000,0.000,0.000
1641207868196156928,2022-01-03-11:04:28,10.1.1.3,179,-0.150,-0.150,-0.150,0.000,0.000,0.000
1641207868397660928,2022-01-03-11:04:28,10.1.1.3,180,-0.160,-0.160,-0.160,0.000,0.000,0.000
1641207868595521024,2022-01-03-11:04:28,10.1.1.3,175,-0.170,-0.170,-0.170,0.000,0.000,0.000
1641207868815223808,2022-01-03-11:04:28,10.1.1.3,192,-0.180,-0.180,-0.180,0.000,0.000,0.000
1641207869014767872,2022-01-03-11:04:29,10.1.1.3,191,-0.190,-0.190,-0.190,0.000,0.000,0.000
1641207869215117824,2022-01-03-11:04:29,10.1.1.3,191,-0.200,-0.200,-0.200,0.000,0.000,0.000
1641207869414316800,2022-01-03-11:04:29,10.1.1.3,190,-0.210,-0.210,-0.210,0.000,0.000,0.000
1641207869614280960,2022-01-03-11:04:29,10.1.1.3,189,-0.220,-0.220,-0.220,0.000,0.000,0.000
1641207869813489920,2022-01-03-11:04:29,10.1.1.3,188,-0.230,-0.230,-0.230,0.000,0.000,0.000
1641207870014386944,2022-01-03-11:04:30,10.1.1.3,188,-0.240,-0.240,-0.240,0.000,0.000,0.000
1641207870213445888,2022-01-03-11:04:30,10.1.1.3,186,-0.250,-0.250,-0.250,0.000,0.000,0.000
1641207870412888064,2022-01-03-11:04:30,10.1.1.3,185,-0.260,-0.260,-0.260,0.000,0.000,0.000
1641207870613476096,2022-01-03-11:04:30,10.1.1.3,186,-0.270,-0.270,-0.270,0.000,0.000,0.000
1641207870816241152,2022-01-03-11:04:30,10.1.1.3,188,-0.280,-0.280,-0.280,0.000,0.000,0.000
1641207871012051200,2022-01-03-11:04:31,10.1.1.3,183,-0.290,-0.290,-0.290,0.000,0.000,0.000
1641207871212024832,2022-01-03-11:04:31,10.1.1.3,182,-0.300,-0.300,-0.300,0.000,0.000,0.000
1641207871412403968,2022-01-03-11:04:31,10.1.1.3,182,-0.310,-0.310,-0.310,0.000,0.000,0.000
1641207871611998208,2022-01-03-11:04:31,10.1.1.3,181,-0.320,-0.320,-0.320,0.000,0.000,0.000
1641207871811518976,2022-01-03-11:04:31,10.1.1.3,181,-0.330,-0.330,-0.330,0.000,0.000,0.000
1641207872010635008,2022-01-03-11:04:32,10.1.1.3,179,-0.340,-0.340,-0.340,0.000,0.000,0.000
1641207872210288128,2022-01-03-11:04:32,10.1.1.3,178,-0.350,-0.350,-0.350,0.000,0.000,0.000
1641207872417378816,2022-01-03-11:04:32,10.1.1.3,185,-0.360,-0.360,-0.360,0.000,0.000,0.000
1641207872610123008,2022-01-03-11:04:32,10.1.1.3,177,-0.370,-0.370,-0.370,0.000,0.000,0.000
1641207872810061056,2022-01-03-11:04:32,10.1.1.3,176,-0.380,-0.380,-0.380,0.000,0.000,0.000
1641207873010249984,2022-01-03-11:04:33,10.1.1.3,176,-0.390,-0.390,-0.390,0.000,0.000,0.000
1641207873209259008,2022-01-03-11:04:33,10.1.1.3,174,-0.400,-0.400,-0.400,0.000,0.000,0.000
1641207873410173952,2022-01-03-11:04:33,10.1.1.3,174,-0.410,-0.410,-0.410,0.000,0.000,0.000
1641207873608593920,2022-01-03-11:04:33,10.1.1.3,171,-0.420,-0.420,-0.420,0.000,0.000,0.000
1641207873808829184,2022-01-03-11:04:33,10.1.1.3,171,-0.430,-0.430,-0.430,0.000,0.000,0.000
1641207874008835072,2022-01-03-11:04:34,10.1.1.3,170,-0.440,-0.440,-0.440,0.000,0.000,0.000
1641207874207987968,2022-01-03-11:04:34,10.1.1.3,169,-0.450,-0.450,-0.450,0.000,0.000,0.000
1641207874407984128,2022-01-03-11:04:34,10.1.1.3,168,-0.460,-0.460,-0.460,0.000,0.000,0.000
1641207874607601920,2022-01-03-11:04:34,10.1.1.3,167,-0.470,-0.470,-0.470,0.000,0.000,0.000
1641207874807089920,2022-01-03-11:04:34,10.1.1.3,166,-0.480,-0.480,-0.480,0.000,0.000,0.000
1641207875007014912,2022-01-03-11:04:35,10.1.1.3,165,-0.490,-0.490,-0.490,0.000,0.000,0.000
1641207875207346944,2022-01-03-11:04:35,10.1.1.3,165,-0.480,-0.480,-0.480,0.000,0.000,0.000
1641207875426019840,2022-01-03-11:04:35,10.1.1.3,183,-0.470,-0.470,-0.470,0.000,0.000,0.000
1641207875626033920,2022-01-03-11:04:35,10.1.1.3,183,-0.460,-0.460,-0.460,0.000,0.000,0.000
1641207875825208064,2022-01-03-11:04:35,10.1.1.3,181,-0.450,-0.450,-0.450,0.000,0.000,0.000
1641207876026809088,2022-01-03-11:04:36,10.1.1.3,182,-0.440,-0.440,-0.440,0.000,0.000,0.000
1641207876224848896,2022-01-03-11:04:36,10.1.1.3,180,-0.430,-0.430,-0.430,0.000,0.000,0.000
1641207876424756992,2022-01-03-11:04:36,10.1.1.3,179,-0.420,-0.420,-0.420,0.000,0.000,0.000
1641207876624850944,2022-01-03-11:04:36,10.1.1.3,179,-0.410,-0.410,-0.410,0.000,0.000,0.000
1641207876823934976,2022-01-03-11:04:36,10.1.1.3,178,-0.400,-0.400,-0.400,0.000,0.000,0.000
1641207877023316992,2022-01-03-11:04:37,10.1.1.3,176,-0.390,-0.390,-0.390,0.000,0.000,0.000
1641207877222930944,2022-01-03-11:04:37,10.1.1.3,175,-0.380,-0.380,-0.380,0.000,0.000,0.000
1641207877422673920,2022-01-03-11:04:37,10.1.1.3,174,-0.370,-0.370,-0.370,0.000,0.000,0.000
1641207877624109056,2022-01-03-11:04:37,10.1.1.3,175,-0.360,-0.360,-0.360,0.000,0.000,0.000
1641207877822696960,2022-01-03-11:04:37,10.1.1.3,173,-0.350,-0.350,-0.350,0.000,0.000,0.000
1641207878022270976,2022-01-03-11:04:38,10.1.1.3,172,-0.340,-0.340,-0.340,0.000,0.000,0.000
1641207878224345856,2022-01-03-11:04:38,10.1.1.3,173,-0.330,-0.330,-0.330,0.000,0.000,0.000
1641207878422604032,2022-01-03-11:04:38,10.1.1.3,172,-0.320,-0.320,-0.320,0.000,0.000,0.000
1641207878621156096,2022-01-03-11:04:38,10.1.1.3,169,-0.310,-0.310,-0.310,0.000,0.000,0.000
1641207878821239040,2022-01-03-11:04:38,10.1.1.3,168,-0.300,-0.300,-0.300,0.000,0.000,0.000
1641207879020636160,2022-01-03-11:04:39,10.1.1.3,167,-0.290,-0.290,-0.290,0.000,0.000,0.000
1641207879220771072,2022-01-03-11:04:39,10.1.1.3,166,-0.280,-0.280,-0.280,0.000,0.000,0.000
1641207879419892992,2022-01-03-11:04:39,10.1.1.3,164,-0.270,-0.270,-0.270,0.000,0.000,0.000
1641207879623740928,2022-01-03-11:04:39,10.1.1.3,168,-0.260,-0.260,-0.260,0.000,0.000,0.000
1641207879819497216,2022-01-03-11:04:39,10.1.1.3,160,-0.250,-0.250,-0.250,0.000,0.000,0.000
1641207880019550976,2022-01-03-11:04:40,10.1.1.3,159,-0.240,-0.240,-0.240,0.000,0.000,0.000
1641207880218445056,2022-01-03-11:04:40,10.1.1.3,157,-0.230,-0.230,-0.230,0.000,0.000,0.000
1641207880438095104,2022-01-03-11:04:40,10.1.1.3,176,-0.220,-0.220,-0.220,0.000,0.000,0.000
1641207880638394112,2022-01-03-11:04:40,10.1.1.3,176,-0.210,-0.210,-0.210,0.000,0.000,0.000
1641207880838555136,2022-01-03-11:04:40,10.1.1.3,175,-0.200,-0.200,-0.200,0.000,0.000,0.000
1641207881038278144,2022-01-03-11:04:41,10.1.1.3,172,-0.190,-0.190,-0.190,0.000,0.000,0.000
1641207881240015104,2022-01-03-11:04:41,10.1.1.3,173,-0.180,-0.180,-0.180,0.000,0.000,0.000
1641207881440790016,2022-01-03-11:04:41,10.1.1.3,169,-0.170,-0.170,-0.170,0.000,0.000,0.000
1641207881640788992,2022-01-03-11:04:41,10.1.1.3,168,-0.160,-0.160,-0.160,0.000,0.000,0.000
1641207881842397952,2022-01-03-11:04:41,10.1.1.3,169,-0.150,-0.150,-0.150,0.000,0.000,0.000
1641207882043725056,2022-01-03-11:04:42,10.1.1.3,167,-0.140,-0.140,-0.140,0.000,0.000,0.000
1641207882266042880,2022-01-03-11:04:42,10.1.1.3,182,-0.130,-0.130,-0.130,0.000,0.000,0.000
1641207882465883136,2022-01-03-11:04:42,10.1.1.3,181,-0.120,-0.120,-0.120,0.000,0.000,0.000
1641207882665478912,2022-01-03-11:04:42,10.1.1.3,180,-0.110,-0.110,-0.110,0.000,0.000,0.000
1641207882866221056,2022-01-03-11:04:42,10.1.1.3,181,-0.100,-0.100,-0.100,0.000,0.000,0.000
1641207883067425024,2022-01-03-11:04:43,10.1.1.3,181,-0.090,-0.090,-0.090,0.000,0.000,0.000
1641207883268771840,2022-01-03-11:04:43,10.1.1.3,182,-0.080,-0.080,-0.080,0.000,0.000,0.000
1641207883468455168,2022-01-03-11:04:43,10.1.1.3,181,-0.070,-0.070,-0.070,0.000,0.000,0.000
1641207883669905920,2022-01-03-11:04:43,10.1.1.3,182,-0.060,-0.060,-0.060,0.000,0.000,0.000
1641207883870312960,2022-01-03-11:04:43,10.1.1.3,182,-0.050,-0.050,-0.050,0.000,0.000,0.000
1641207884071325952,2022-01-03-11:04:44,10.1.1.3,182,-0.040,-0.040,-0.040,0.000,0.000,0.000
1641207884272576000,2022-01-03-11:04:44,10.1.1.3,183,-0.030,-0.030,-0.030,0.000,0.000,0.000
1641207884472798208,2022-01-03-11:04:44,10.1.1.3,182,-0.020,-0.020,-0.020,0.000,0.000,0.000
1641207884673003008,2022-01-03-11:04:44,10.1.1.3,182,-0.010,-0.010,-0.010,0.000,0.000,0.000
1641207884873539072,2022-01-03-11:04:44,10.1.1.3,182,0.000,0.000,0.000,0.000,0.000,0.000
1641207885075380992,2022-01-03-11:04:45,10.1.1.3,183,-0.010,-0.010,-0.010,0.000,0.000,0.000
1641207885274424064,2022-01-03-11:04:45,10.1.1.3,181,-0.020,-0.020,-0.020,0.000,0.000,0.000
1641207885475214848,2022-01-03-11:04:45,10.1.1.3,180,-0.030,-0.030,-0.030,0.000,0.000,0.000
1641207885675417856,2022-01-03-11:04:45,10.1.1.3,180,-0.040,-0.040,-0.040,0.000,0.000,0.000
1641207885875590144,2022-01-03-11:04:45,10.1.1.3,179,-0.050,-0.050,-0.050,0.000,0.000,0.000
1641207886076396032,2022-01-03-11:04:46,10.1.1.3,179,-0.060,-0.060,-0.060,0.000,0.000,0.000
1641207886277978880,2022-01-03-11:04:46,10.1.1.3,179,-0.070,-0.070,-0.070,0.000,0.000,0.000
1641207886476815872,2022-01-03-11:04:46,10.1.1.3,178,-0.080,-0.080,-0.080,0.000,0.000,0.000
1641207886677011968,2022-01-03-11:04:46,10.1.1.3,178,-0.090,-0.090,-0.090,0.000,0.000,0.000
1641207886877826048,2022-01-03-11:04:46,10.1.1.3,178,-0.100,-0.100,-0.100,0.000,0.000,0.000
1641207887078383872,2022-01-03-11:04:47,10.1.1.3,178,-0.110,-0.110,-0.110,0.000,0.000,0.000
1641207887278994944,2022-01-03-11:04:47,10.1.1.3,178,-0.120,-0.120,-0.120,0.000,0.000,0.000
1641207887479090944,2022-01-03-11:04:47,10.1.1.3,178,-0.130,-0.130,-0.130,0.000,0.000,0.000
1641207887679174912,2022-01-03-11:04:47,10.1.1.3,177,-0.140,-0.140,-0.140,0.000,0.000,0.000
1641207887879555840,2022-01-03-11:04:47,10.1.1.3,177,-0.150,-0.150,-0.150,0.000,0.000,0.000
1641207888099965184,2022-01-03-11:04:48,10.1.1.3,197,-0.160,-0.160,-0.160,0.000,0.000,0.000
1641207888300039168,2022-01-03-11:04:48,10.1.1.3,197,-0.170,-0.170,-0.170,0.000,0.000,0.000
1641207888499782912,2022-01-03-11:04:48,10.1.1.3,196,-0.180,-0.180,-0.180,0.000,0.000,0.000
1641207888700516864,2022-01-03-11:04:48,10.1.1.3,196,-0.190,-0.190,-0.190,0.000,0.000,0.000
1641207888902189056,2022-01-03-11:04:48,10.1.1.3,197,-0.200,-0.200,-0.200,0.000,0.000,0.000
1641207889100644096,2022-01-03-11:04:49,10.1.1.3,195,-0.210,-0.210,-0.210,0.000,0.000,0.000
1641207889301134080,2022-01-03-11:04:49,10.1.1.3,195,-0.220,-0.220,-0.220,0.000,0.000,0.000
1641207889501723904,2022-01-03-11:04:49,10.1.1.3,195,-0.230,-0.230,-0.230,0.000,0.000,0.000
1641207889700947968,2022-01-03-11:04:49,10.1.1.3,193,-0.240,-0.240,-0.240,0.000,0.000,0.000
1641207889901419008,2022-01-03-11:04:49,10.1.1.3,192,-0.250,-0.250,-0.250,0.000,0.000,0.000
1641207890101288960,2022-01-03-11:04:50,10.1.1.3,192,-0.260,-0.260,-0.260,0.000,0.000,0.000
1641207890301332992,2022-01-03-11:04:50,10.1.1.3,191,-0.270,-0.270,-0.270,0.000,0.000,0.000
1641207890501195008,2022-01-03-11:04:50,10.1.1.3,190,-0.280,-0.280,-0.280,0.000,0.000,0.000
1641207890701792000,2022-01-03-11:04:50,10.1.1.3,190,-0.290,-0.290,-0.290,0.000,0.000,0.000
1641207890905248000,2022-01-03-11:04:50,10.1.1.3,193,-0.300,-0.300,-0.300,0.000,0.000,0.000
1641207891101295872,2022-01-03-11:04:51,10.1.1.3,188,-0.310,-0.310,-0.310,0.000,0.000,0.000
1641207891301434112,2022-01-03-11:04:51,10.1.1.3,188,-0.320,-0.320,-0.320,0.000,0.000,0.000
1641207891501647872,2022-01-03-11:04:51,10.1.1.3,187,-0.330,-0.330,-0.330,0.000,0.000,0.000
1641207891702297088,2022-01-03-11:04:51,10.1.1.3,188,-0.340,-0.340,-0.340,0.000,0.000,0.000
1641207891901555968,2022-01-03-11:04:51,10.1.1.3,185,-0.350,-0.350,-0.350,0.000,0.000,0.000
1641207892102284032,2022-01-03-11:04:52,10.1.1.3,185,-0.360,-0.360,-0.360,0.000,0.000,0.000
1641207892301918976,2022-01-03-11:04:52,10.1.1.3,184,-0.370,-0.370,-0.370,0.000,0.000,0.000
1641207892505682944,2022-01-03-11:04:52,10.1.1.3,187,-0.380,-0.380,-0.380,0.000,0.000,0.000
1641207892702236928,2022-01-03-11:04:52,10.1.1.3,183,-0.390,-0.390,-0.390,0.000,0.000,0.000
1641207892901710080,2022-01-03-11:04:52,10.1.1.3,182,-0.400,-0.400,-0.400,0.000,0.000,0.000
1641207893101639936,2022-01-03-11:04:53,10.1.1.3,181,-0.410,-0.410,-0.410,0.000,0.000,0.000
1641207893301682944,2022-01-03-11:04:53,10.1.1.3,181,-0.420,-0.420,-0.420,0.000,0.000,0.000
1641207893501228032,2022-01-03-11:04:53,10.1.1.3,180,-0.430,-0.430,-0.430,0.000,0.000,0.000
1641207893721295104,2022-01-03-11:04:53,10.1.1.3,199,-0.440,-0.440,-0.440,0.000,0.000,0.000
1641207894121457152,2022-01-03-11:04:54,10.1.1.3,198,-0.460,-0.460,-0.460,0.000,0.000,0.000
1641207894321338880,2022-01-03-11:04:54,10.1.1.3,197,-0.470,-0.470,-0.470,0.000,0.000,0.000
1641207894521182976,2022-01-03-11:04:54,10.1.1.3,196,-0.480,-0.480,-0.480,0.000,0.000,0.000
1641207894721164032,2022-01-03-11:04:54,10.1.1.3,195,-0.490,-0.490,-0.490,0.000,0.000,0.000
1641207894920599040,2022-01-03-11:04:54,10.1.1.3,194,-0.480,-0.480,-0.480,0.000,0.000,0.000
1641207895120564992,2022-01-03-11:04:55,10.1.1.3,193,-0.470,-0.470,-0.470,0.000,0.000,0.000
1641207895320771840,2022-01-03-11:04:55,10.1.1.3,193,-0.460,-0.460,-0.460,0.000,0.000,0.000
1641207895520136960,2022-01-03-11:04:55,10.1.1.3,191,-0.450,-0.450,-0.450,0.000,0.000,0.000
1641207895720061184,2022-01-03-11:04:55,10.1.1.3,190,-0.440,-0.440,-0.440,0.000,0.000,0.000
1641207896120016128,2022-01-03-11:04:56,10.1.1.3,189,-0.420,-0.420,-0.420,0.000,0.000,0.000
1641207896320204032,2022-01-03-11:04:56,10.1.1.3,189,-0.410,-0.410,-0.410,0.000,0.000,0.000
1641207896519720960,2022-01-03-11:04:56,10.1.1.3,188,-0.400,-0.400,-0.400,0.000,0.000,0.000
1641207896719252992,2022-01-03-11:04:56,10.1.1.3,186,-0.390,-0.390,-0.390,0.000,0.000,0.000
1641207896919304960,2022-01-03-11:04:56,10.1.1.3,185,-0.380,-0.380,-0.380,0.000,0.000,0.000
1641207897119836928,2022-01-03-11:04:57,10.1.1.3,185,-0.370,-0.370,-0.370,0.000,0.000,0.000
1641207897319034112,2022-01-03-11:04:57,10.1.1.3,183,-0.360,-0.360,-0.360,0.000,0.000,0.000
1641207897518973184,2022-01-03-11:04:57,10.1.1.3,183,-0.350,-0.350,-0.350,0.000,0.000,0.000
1641207897718893056,2022-01-03-11:04:57,10.1.1.3,182,-0.340,-0.340,-0.340,0.000,0.000,0.000
1641207897918319872,2022-01-03-11:04:57,10.1.1.3,181,-0.330,-0.330,-0.330,0.000,0.000,0.000
1641207898118500096,2022-01-03-11:04:58,10.1.1.3,181,-0.320,-0.320,-0.320,0.000,0.000,0.000
1641207898318362880,2022-01-03-11:04:58,10.1.1.3,180,-0.310,-0.310,-0.310,0.000,0.000,0.000
1641207898538288128,2022-01-03-11:04:58,10.1.1.3,195,-0.300,-0.300,-0.300,0.000,0.000,0.000
1641207898738621952,2022-01-03-11:04:58,10.1.1.3,194,-0.290,-0.290,-0.290,0.000,0.000,0.000
1641207898939064064,2022-01-03-11:04:58,10.1.1.3,194,-0.280,-0.280,-0.280,0.000,0.000,0.000
1641207899137806848,2022-01-03-11:04:59,10.1.1.3,189,-0.270,-0.270,-0.270,0.000,0.000,0.000
1641207899337691136,2022-01-03-11:04:59,10.1.1.3,177,-0.260,-0.260,-0.260,0.000,0.000,0.000
1641207899537250048,2022-01-03-11:04:59,10.1.1.3,176,-0.250,-0.250,-0.250,0.000,0.000,0.000
1641207899737543168,2022-01-03-11:04:59,10.1.1.3,175,-0.240,-0.240,-0.240,0.000,0.000,0.000
1641207899956516864,2022-01-03-11:04:59,10.1.1.3,194,-0.230,-0.230,-0.230,0.000,0.000,0.000
1641207900156685056,2022-01-03-11:05:00,10.1.1.3,193,-0.220,-0.220,-0.220,0.000,0.000,0.000
1641207900356189952,2022-01-03-11:05:00,10.1.1.3,193,-0.210,-0.210,-0.210,0.000,0.000,0.000
1641207900555979008,2022-01-03-11:05:00,10.1.1.3,191,-0.200,-0.200,-0.200,0.000,0.000,0.000
1641207900758227968,2022-01-03-11:05:00,10.1.1.3,193,-0.190,-0.190,-0.190,0.000,0.000,0.000
1641207900955312128,2022-01-03-11:05:00,10.1.1.3,190,-0.180,-0.180,-0.180,0.000,0.000,0.000
1641207901155132928,2022-01-03-11:05:01,10.1.1.3,189,-0.170,-0.170,-0.170,0.000,0.000,0.000
1641207901354600960,2022-01-03-11:05:01,10.1.1.3,188,-0.160,-0.160,-0.160,0.000,0.000,0.000
1641207901554656000,2022-01-03-11:05:01,10.1.1.3,187,-0.150,-0.150,-0.150,0.000,0.000,0.000
1641207901754329856,2022-01-03-11:05:01,10.1.1.3,186,-0.140,-0.140,-0.140,0.000,0.000,0.000
1641207901954799872,2022-01-03-11:05:01,10.1.1.3,186,-0.130,-0.130,-0.130,0.000,0.000,0.000
1641207902153964032,2022-01-03-11:05:02,10.1.1.3,185,-0.120,-0.120,-0.120,0.000,0.000,0.000
1641207902354449920,2022-01-03-11:05:02,10.1.1.3,185,-0.110,-0.110,-0.110,0.000,0.000,0.000
1641207902553082112,2022-01-03-11:05:02,10.1.1.3,183,-0.100,-0.100,-0.100,0.000,0.000,0.000
1641207902753495808,2022-01-03-11:05:02,10.1.1.3,183,-0.090,-0.090,-0.090,0.000,0.000,0.000
1641207902952708864,2022-01-03-11:05:02,10.1.1.3,182,-0.080,-0.080,-0.080,0.000,0.000,0.000
1641207903155166976,2022-01-03-11:05:03,10.1.1.3,183,-0.070,-0.070,-0.070,0.000,0.000,0.000
1641207903352487168,2022-01-03-11:05:03,10.1.1.3,180,-0.060,-0.060,-0.060,0.000,0.000,0.000
1641207903552069888,2022-01-03-11:05:03,10.1.1.3,176,-0.050,-0.050,-0.050,0.000,0.000,0.000
1641207903752228864,2022-01-03-11:05:03,10.1.1.3,175,-0.040,-0.040,-0.040,0.000,0.000,0.000
1641207903951542016,2022-01-03-11:05:03,10.1.1.3,174,-0.030,-0.030,-0.030,0.000,0.000,0.000
1641207904153260032,2022-01-03-11:05:04,10.1.1.3,175,-0.020,-0.020,-0.020,0.000,0.000,0.000
1641207904350959104,2022-01-03-11:05:04,10.1.1.3,172,-0.010,-0.010,-0.010,0.000,0.000,0.000
1641207904550872064,2022-01-03-11:05:04,10.1.1.3,171,0.000,0.000,0.000,0.000,0.000,0.000
1641207904750700032,2022-01-03-11:05:04,10.1.1.3,171,-0.010,-0.010,-0.010,0.000,0.000,0.000
1641207904951759104,2022-01-03-11:05:04,10.1.1.3,171,-0.020,-0.020,-0.020,0.000,0.000,0.000
1641207905149683968,2022-01-03-11:05:05,10.1.1.3,168,-0.030,-0.030,-0.030,0.000,0.000,0.000
1641207905369508096,2022-01-03-11:05:05,10.1.1.3,187,-0.040,-0.040,-0.040,0.000,0.000,0.000
1641207905569006080,2022-01-03-11:05:05,10.1.1.3,186,-0.050,-0.050,-0.050,0.000,0.000,0.000
1641207905768327936,2022-01-03-11:05:05,10.1.1.3,185,-0.060,-0.060,-0.060,0.000,0.000,0.000
1641207905968355840,2022-01-03-11:05:05,10.1.1.3,184,-0.070,-0.070,-0.070,0.000,0.000,0.000
1641207906168683008,2022-01-03-11:05:06,10.1.1.3,184,-0.080,-0.080,-0.080,0.000,0.000,0.000
1641207906368344064,2022-01-03-11:05:06,10.1.1.3,183,-0.090,-0.090,-0.090,0.000,0.000,0.000
1641207906567582976,2022-01-03-11:05:06,10.1.1.3,182,-0.100,-0.100,-0.100,0.000,0.000,0.000
1641207906767429120,2022-01-03-11:05:06,10.1.1.3,181,-0.110,-0.110,-0.110,0.000,0.000,0.000
1641207906966716160,2022-01-03-11:05:06,10.1.1.3,180,-0.120,-0.120,-0.120,0.000,0.000,0.000
1641207907166445056,2022-01-03-11:05:07,10.1.1.3,180,-0.130,-0.130,-0.130,0.000,0.000,0.000
1641207907366183936,2022-01-03-11:05:07,10.1.1.3,179,-0.140,-0.140,-0.140,0.000,0.000,0.000
1641207907567068160,2022-01-03-11:05:07,10.1.1.3,179,-0.150,-0.150,-0.150,0.000,0.000,0.000
1641207907769264896,2022-01-03-11:05:07,10.1.1.3,181,-0.160,-0.160,-0.160,0.000,0.000,0.000
1641207907965671168,2022-01-03-11:05:07,10.1.1.3,177,-0.170,-0.170,-0.170,0.000,0.000,0.000
1641207908165036032,2022-01-03-11:05:08,10.1.1.3,175,-0.180,-0.180,-0.180,0.000,0.000,0.000
1641207908364825088,2022-01-03-11:05:08,10.1.1.3,175,-0.190,-0.190,-0.190,0.000,0.000,0.000
1641207908564683008,2022-01-03-11:05:08,10.1.1.3,174,-0.200,-0.200,-0.200,0.000,0.000,0.000
1641207908764640000,2022-01-03-11:05:08,10.1.1.3,173,-0.210,-0.210,-0.210,0.000,0.000,0.000
1641207908961352960,2022-01-03-11:05:08,10.1.1.3,170,-0.220,-0.220,-0.220,0.000,0.000,0.000
1641207909163794944,2022-01-03-11:05:09,10.1.1.3,172,-0.230,-0.230,-0.230,0.000,0.000,0.000
1641207909371226112,2022-01-03-11:05:09,10.1.1.3,178,-0.240,-0.240,-0.240,0.000,0.000,0.000
1641207909563097856,2022-01-03-11:05:09,10.1.1.3,169,-0.250,-0.250,-0.250,0.000,0.000,0.000
1641207909766683136,2022-01-03-11:05:09,10.1.1.3,172,-0.260,-0.260,-0.260,0.000,0.000,0.000
1641207909963021056,2022-01-03-11:05:09,10.1.1.3,168,-0.270,-0.270,-0.270,0.000,0.000,0.000
1641207910162049024,2022-01-03-11:05:10,10.1.1.3,167,-0.280,-0.280,-0.280,0.000,0.000,0.000
1641207910361951232,2022-01-03-11:05:10,10.1.1.3,166,-0.290,-0.290,-0.290,0.000,0.000,0.000
1641207910561224960,2022-01-03-11:05:10,10.1.1.3,165,-0.300,-0.300,-0.300,0.000,0.000,0.000
1641207910760932096,2022-01-03-11:05:10,10.1.1.3,164,-0.310,-0.310,-0.310,0.000,0.000,0.000
1641207910960601088,2022-01-03-11:05:10,10.1.1.3,159,-0.320,-0.320,-0.320,0.000,0.000,0.000
1641207911180900096,2022-01-03-11:05:11,10.1.1.3,179,-0.330,-0.330,-0.330,0.000,0.000,0.000
1641207911379811072,2022-01-03-11:05:11,10.1.1.3,177,-0.340,-0.340,-0.340,0.000,0.000,0.000
1641207911579996160,2022-01-03-11:05:11,10.1.1.3,176,-0.350,-0.350,-0.350,0.000,0.000,0.000
1641207911779980800,2022-01-03-11:05:11,10.1.1.3,176,-0.360,-0.360,-0.360,0.000,0.000,0.000
1641207911979595776,2022-01-03-11:05:11,10.1.1.3,175,-0.370,-0.370,-0.370,0.000,0.000,0.000
1641207912179304960,2022-01-03-11:05:12,10.1.1.3,173,-0.380,-0.380,-0.380,0.000,0.000,0.000
1641207912378854144,2022-01-03-11:05:12,10.1.1.3,172,-0.390,-0.390,-0.390,0.000,0.000,0.000
1641207912578643968,2022-01-03-11:05:12,10.1.1.3,171,-0.400,-0.400,-0.400,0.000,0.000,0.000
1641207912777935872,2022-01-03-11:05:12,10.1.1.3,170,-0.410,-0.410,-0.410,0.000,0.000,0.000
1641207912977679104,2022-01-03-11:05:12,10.1.1.3,169,-0.420,-0.420,-0.420,0.000,0.000,0.000
1641207913177629952,2022-01-03-11:05:13,10.1.1.3,169,-0.430,-0.430,-0.430,0.000,0.000,0.000
1641207913377161984,2022-01-03-11:05:13,10.1.1.3,168,-0.440,-0.440,-0.440,0.000,0.000,0.000
1641207913578341120,2022-01-03-11:05:13,10.1.1.3,168,-0.450,-0.450,-0.450,0.000,0.000,0.000
1641207913777219072,2022-01-03-11:05:13,10.1.1.3,166,-0.460,-0.460,-0.460,0.000,0.000,0.000
1641207913976926976,2022-01-03-11:05:13,10.1.1.3,166,-0.470,-0.470,-0.470,0.000,0.000,0.000
1641207914177143040,2022-01-03-11:05:14,10.1.1.3,166,-0.480,-0.480,-0.480,0.000,0.000,0.000
1641207914378163968,2022-01-03-11:05:14,10.1.1.3,166,-0.490,-0.490,-0.490,0.000,0.000,0.000
1641207914578870016,2022-01-03-11:05:14,10.1.1.3,166,-0.480,-0.480,-0.480,0.000,0.000,0.000
1641207914779746048,2022-01-03-11:05:14,10.1.1.3,166,-0.470,-0.470,-0.470,0.000,0.000,0.000
1641207914982238976,2022-01-03-11:05:14,10.1.1.3,168,-0.460,-0.460,-0.460,0.000,0.000,0.000
1641207915184992000,2022-01-03-11:05:15,10.1.1.3,170,-0.450,-0.450,-0.450,0.000,0.000,0.000
1641207915383645952,2022-01-03-11:05:15,10.1.1.3,164,-0.440,-0.440,-0.440,0.000,0.000,0.000
1641207915591738880,2022-01-03-11:05:15,10.1.1.3,171,-0.430,-0.430,-0.430,0.000,0.000,0.000
1641207915784617984,2022-01-03-11:05:15,10.1.1.3,164,-0.420,-0.420,-0.420,0.000,0.000,0.000
1641207915985934848,2022-01-03-11:05:15,10.1.1.3,164,-0.410,-0.410,-0.410,0.000,0.000,0.000
1641207916206424064,2022-01-03-11:05:16,10.1.1.3,184,-0.400,-0.400,-0.400,0.000,0.000,0.000
1641207916407485952,2022-01-03-11:05:16,10.1.1.3,184,-0.390,-0.390,-0.390,0.000,0.000,0.000
1641207916607919104,2022-01-03-11:05:16,10.1.1.3,184,-0.380,-0.380,-0.380,0.000,0.000,0.000
1641207916808327936,2022-01-03-11:05:16,10.1.1.3,184,-0.370,-0.370,-0.370,0.000,0.000,0.000
1641207917010121216,2022-01-03-11:05:17,10.1.1.3,185,-0.360,-0.360,-0.360,0.000,0.000,0.000
1641207917210834944,2022-01-03-11:05:17,10.1.1.3,185,-0.350,-0.350,-0.350,0.000,0.000,0.000
1641207917410557952,2022-01-03-11:05:17,10.1.1.3,184,-0.340,-0.340,-0.340,0.000,0.000,0.000
1641207917611241984,2022-01-03-11:05:17,10.1.1.3,183,-0.330,-0.330,-0.330,0.000,0.000,0.000
1641207917815091968,2022-01-03-11:05:17,10.1.1.3,186,-0.320,-0.320,-0.320,0.000,0.000,0.000
1641207918016153088,2022-01-03-11:05:18,10.1.1.3,187,-0.310,-0.310,-0.310,0.000,0.000,0.000
1641207918213413888,2022-01-03-11:05:18,10.1.1.3,184,-0.300,-0.300,-0.300,0.000,0.000,0.000
1641207918413740032,2022-01-03-11:05:18,10.1.1.3,182,-0.290,-0.290,-0.290,0.000,0.000,0.000
1641207918614809088,2022-01-03-11:05:18,10.1.1.3,183,-0.280,-0.280,-0.280,0.000,0.000,0.000
1641207918814831104,2022-01-03-11:05:18,10.1.1.3,183,-0.270,-0.270,-0.270,0.000,0.000,0.000
1641207919014894080,2022-01-03-11:05:19,10.1.1.3,183,-0.260,-0.260,-0.260,0.000,0.000,0.000
1641207919215131904,2022-01-03-11:05:19,10.1.1.3,182,-0.250,-0.250,-0.250,0.000,0.000,0.000
1641207919416505088,2022-01-03-11:05:19,10.1.1.3,183,-0.240,-0.240,-0.240,0.000,0.000,0.000
1641207919616122112,2022-01-03-11:05:19,10.1.1.3,182,-0.230,-0.230,-0.230,0.000,0.000,0.000
1641207919819525120,2022-01-03-11:05:19,10.1.1.3,185,-0.220,-0.220,-0.220,0.000,0.000,0.000
1641207920017255936,2022-01-03-11:05:20,10.1.1.3,182,-0.210,-0.210,-0.210,0.000,0.000,0.000
1641207920217263104,2022-01-03-11:05:20,10.1.1.3,182,-0.200,-0.200,-0.200,0.000,0.000,0.000
1641207920417280000,2022-01-03-11:05:20,10.1.1.3,181,-0.190,-0.190,-0.190,0.000,0.000,0.000
1641207920617622016,2022-01-03-11:05:20,10.1.1.3,181,-0.180,-0.180,-0.180,0.000,0.000,0.000
1641207920817712896,2022-01-03-11:05:20,10.1.1.3,181,-0.170,-0.170,-0.170,0.000,0.000,0.000
1641207921018109184,2022-01-03-11:05:21,10.1.1.3,181,-0.160,-0.160,-0.160,0.000,0.000,0.000
1641207921218384896,2022-01-03-11:05:21,10.1.1.3,180,-0.150,-0.150,-0.150,0.000,0.000,0.000
1641207921419629056,2022-01-03-11:05:21,10.1.1.3,181,-0.140,-0.140,-0.140,0.000,0.000,0.000
1641207921618552064,2022-01-03-11:05:21,10.1.1.3,180,-0.130,-0.130,-0.130,0.000,0.000,0.000
1641207921821142016,2022-01-03-11:05:21,10.1.1.3,181,-0.120,-0.120,-0.120,0.000,0.000,0.000
1641207922019386112,2022-01-03-11:05:22,10.1.1.3,178,-0.110,-0.110,-0.110,0.000,0.000,0.000
1641207922240553984,2022-01-03-11:05:22,10.1.1.3,198,-0.100,-0.100,-0.100,0.000,0.000,0.000
1641207922639986944,2022-01-03-11:05:22,10.1.1.3,190,-0.080,-0.080,-0.080,0.000,0.000,0.000
1641207922844883968,2022-01-03-11:05:22,10.1.1.3,191,-0.070,-0.070,-0.070,0.000,0.000,0.000
1641207923040144896,2022-01-03-11:05:23,10.1.1.3,186,-0.060,-0.060,-0.060,0.000,0.000,0.000
1641207923241895936,2022-01-03-11:05:23,10.1.1.3,186,-0.050,-0.050,-0.050,0.000,0.000,0.000
1641207923440728832,2022-01-03-11:05:23,10.1.1.3,185,-0.040,-0.040,-0.040,0.000,0.000,0.000
1641207923640116992,2022-01-03-11:05:23,10.1.1.3,183,-0.030,-0.030,-0.030,0.000,0.000,0.000
1641207923840647936,2022-01-03-11:05:23,10.1.1.3,183,-0.020,-0.020,-0.020,0.000,0.000,0.000
1641207924041075968,2022-01-03-11:05:24,10.1.1.3,183,-0.010,-0.010,-0.010,0.000,0.000,0.000
1641207924240680960,2022-01-03-11:05:24,10.1.1.3,182,0.000,0.000,0.000,0.000,0.000,0.000
1641207924442092032,2022-01-03-11:05:24,10.1.1.3,183,-0.010,-0.010,-0.010,0.000,0.000,0.000
1641207924642180864,2022-01-03-11:05:24,10.1.1.3,182,-0.020,-0.020,-0.020,0.000,0.000,0.000
1641207924841955072,2022-01-03-11:05:24,10.1.1.3,180,-0.030,-0.030,-0.030,0.000,0.000,0.000
1641207925041306880,2022-01-03-11:05:25,10.1.1.3,179,-0.040,-0.040,-0.040,0.000,0.000,0.000
1641207925260986112,2022-01-03-11:05:25,10.1.1.3,199,-0.050,-0.050,-0.050,0.000,0.000,0.000
1641207925460787968,2022-01-03-11:05:25,10.1.1.3,198,-0.060,-0.060,-0.060,0.000,0.000,0.000
1641207925861040128,2022-01-03-11:05:25,10.1.1.3,195,-0.080,-0.080,-0.080,0.000,0.000,0.000
1641207926061157888,2022-01-03-11:05:26,10.1.1.3,195,-0.090,-0.090,-0.090,0.000,0.000,0.000
1641207926260598016,2022-01-03-11:05:26,10.1.1.3,193,-0.100,-0.100,-0.100,0.000,0.000,0.000
1641207926461800960,2022-01-03-11:05:26,10.1.1.3,194,-0.110,-0.110,-0.110,0.000,0.000,0.000
1641207926660782080,2022-01-03-11:05:26,10.1.1.3,192,-0.120,-0.120,-0.120,0.000,0.000,0.000
1641207926868477184,2022-01-03-11:05:26,10.1.1.3,196,-0.130,-0.130,-0.130,0.000,0.000,0.000
1641207927060570880,2022-01-03-11:05:27,10.1.1.3,189,-0.140,-0.140,-0.140,0.000,0.000,0.000
1641207927260804864,2022-01-03-11:05:27,10.1.1.3,182,-0.150,-0.150,-0.150,0.000,0.000,0.000
1641207927464876800,2022-01-03-11:05:27,10.1.1.3,185,-0.160,-0.160,-0.160,0.000,0.000,0.000
1641207927660660992,2022-01-03-11:05:27,10.1.1.3,181,-0.170,-0.170,-0.170,0.000,0.000,0.000
1641207927859924992,2022-01-03-11:05:27,10.1.1.3,179,-0.180,-0.180,-0.180,0.000,0.000,0.000
1641207928079869952,2022-01-03-11:05:28,10.1.1.3,197,-0.190,-0.190,-0.190,0.000,0.000,0.000
1641207928279467008,2022-01-03-11:05:28,10.1.1.3,196,-0.200,-0.200,-0.200,0.000,0.000,0.000
1641207928480365056,2022-01-03-11:05:28,10.1.1.3,197,-0.210,-0.210,-0.210,0.000,0.000,0.000
1641207928679919872,2022-01-03-11:05:28,10.1.1.3,196,-0.220,-0.220,-0.220,0.000,0.000,0.000
1641207928879214080,2022-01-03-11:05:28,10.1.1.3,195,-0.230,-0.230,-0.230,0.000,0.000,0.000
1641207929079702016,2022-01-03-11:05:29,10.1.1.3,195,-0.240,-0.240,-0.240,0.000,0.000,0.000
1641207929279537920,2022-01-03-11:05:29,10.1.1.3,194,-0.250,-0.250,-0.250,0.000,0.000,0.000
1641207929479015168,2022-01-03-11:05:29,10.1.1.3,193,-0.260,-0.260,-0.260,0.000,0.000,0.000
1641207929678467072,2022-01-03-11:05:29,10.1.1.3,192,-0.270,-0.270,-0.270,0.000,0.000,0.000
1641207929881579008,2022-01-03-11:05:29,10.1.1.3,193,-0.280,-0.280,-0.280,0.000,0.000,0.000
1641207930078391040,2022-01-03-11:05:30,10.1.1.3,189,-0.290,-0.290,-0.290,0.000,0.000,0.000
1641207930278928128,2022-01-03-11:05:30,10.1.1.3,189,-0.300,-0.300,-0.300,0.000,0.000,0.000
1641207930478853888,2022-01-03-11:05:30,10.1.1.3,188,-0.310,-0.310,-0.310,0.000,0.000,0.000
1641207930677897984,2022-01-03-11:05:30,10.1.1.3,186,-0.320,-0.320,-0.320,0.000,0.000,0.000
1641207930877873920,2022-01-03-11:05:30,10.1.1.3,186,-0.330,-0.330,-0.330,0.000,0.000,0.000
1641207931079734016,2022-01-03-11:05:31,10.1.1.3,187,-0.340,-0.340,-0.340,0.000,0.000,0.000
1641207931277925120,2022-01-03-11:05:31,10.1.1.3,184,-0.350,-0.350,-0.350,0.000,0.000,0.000
1641207931478020864,2022-01-03-11:05:31,10.1.1.3,184,-0.360,-0.360,-0.360,0.000,0.000,0.000
1641207931677221120,2022-01-03-11:05:31,10.1.1.3,183,-0.370,-0.370,-0.370,0.000,0.000,0.000
1641207931877448192,2022-01-03-11:05:31,10.1.1.3,183,-0.380,-0.380,-0.380,0.000,0.000,0.000
1641207932076587008,2022-01-03-11:05:32,10.1.1.3,181,-0.390,-0.390,-0.390,0.000,0.000,0.000
1641207932276483072,2022-01-03-11:05:32,10.1.1.3,180,-0.400,-0.400,-0.400,0.000,0.000,0.000
1641207932476200960,2022-01-03-11:05:32,10.1.1.3,180,-0.410,-0.410,-0.410,0.000,0.000,0.000
1641207932679992832,2022-01-03-11:05:32,10.1.1.3,183,-0.420,-0.420,-0.420,0.000,0.000,0.000
1641207932875924224,2022-01-03-11:05:32,10.1.1.3,178,-0.430,-0.430,-0.430,0.000,0.000,0.000
1641207933076252928,2022-01-03-11:05:33,10.1.1.3,178,-0.440,-0.440,-0.440,0.000,0.000,0.000
1641207933274764032,2022-01-03-11:05:33,10.1.1.3,176,-0.450,-0.450,-0.450,0.000,0.000,0.000
1641207933475079168,2022-01-03-11:05:33,10.1.1.3,176,-0.460,-0.460,-0.460,0.000,0.000,0.000
1641207933674698240,2022-01-03-11:05:33,10.1.1.3,175,-0.470,-0.470,-0.470,0.000,0.000,0.000
1641207933874716928,2022-01-03-11:05:33,10.1.1.3,174,-0.480,-0.480,-0.480,0.000,0.000,0.000
1641207934074300160,2022-01-03-11:05:34,10.1.1.3,173,-0.490,-0.490,-0.490,0.000,0.000,0.000
1641207934274149888,2022-01-03-11:05:34,10.1.1.3,173,-0.480,-0.480,-0.480,0.000,0.000,0.000
1641207934493629952,2022-01-03-11:05:34,10.1.1.3,191,-0.470,-0.470,-0.470,0.000,0.000,0.000
1641207934693083904,2022-01-03-11:05:34,10.1.1.3,190,-0.460,-0.460,-0.460,0.000,0.000,0.000
1641207934893100032,2022-01-03-11:05:34,10.1.1.3,189,-0.450,-0.450,-0.450,0.000,0.000,0.000
1641207935092951040,2022-01-03-11:05:35,10.1.1.3,188,-0.440,-0.440,-0.440,0.000,0.000,0.000
1641207935292561920,2022-01-03-11:05:35,10.1.1.3,187,-0.430,-0.430,-0.430,0.000,0.000,0.000
1641207935492367104,2022-01-03-11:05:35,10.1.1.3,187,-0.420,-0.420,-0.420,0.000,0.000,0.000
1641207935692154880,2022-01-03-11:05:35,10.1.1.3,186,-0.410,-0.410,-0.410,0.000,0.000,0.000
1641207935892111104,2022-01-03-11:05:35,10.1.1.3,185,-0.400,-0.400,-0.400,0.000,0.000,0.000
1641207936091352064,2022-01-03-11:05:36,10.1.1.3,184,-0.390,-0.390,-0.390,0.000,0.000,0.000
1641207936291756032,2022-01-03-11:05:36,10.1.1.3,184,-0.380,-0.380,-0.380,0.000,0.000,0.000
1641207936491149824,2022-01-03-11:05:36,10.1.1.3,183,-0.370,-0.370,-0.370,0.000,0.000,0.000
1641207936690913792,2022-01-03-11:05:36,10.1.1.3,182,-0.360,-0.360,-0.360,0.000,0.000,0.000
1641207936890459136,2022-01-03-11:05:36,10.1.1.3,181,-0.350,-0.350,-0.350,0.000,0.000,0.000
1641207937090364928,2022-01-03-11:05:37,10.1.1.3,181,-0.340,-0.340,-0.340,0.000,0.000,0.000
1641207937289805056,2022-01-03-11:05:37,10.1.1.3,180,-0.330,-0.330,-0.330,0.000,0.000,0.000
1641207937489763072,2022-01-03-11:05:37,10.1.1.3,179,-0.320,-0.320,-0.320,0.000,0.000,0.000
1641207937689976064,2022-01-03-11:05:37,10.1.1.3,179,-0.310,-0.310,-0.310,0.000,0.000,0.000
1641207937888984064,2022-01-03-11:05:37,10.1.1.3,177,-0.300,-0.300,-0.300,0.000,0.000,0.000
1641207938089585152,2022-01-03-11:05:38,10.1.1.3,178,-0.290,-0.290,-0.290,0.000,0.000,0.000
1641207938288569088,2022-01-03-11:05:38,10.1.1.3,176,-0.280,-0.280,-0.280,0.000,0.000,0.000
1641207938488466944,2022-01-03-11:05:38,10.1.1.3,175,-0.270,-0.270,-0.270,0.000,0.000,0.000
1641207938688652032,2022-01-03-11:05:38,10.1.1.3,172,-0.260,-0.260,-0.260,0.000,0.000,0.000
1641207938887995904,2022-01-03-11:05:38,10.1.1.3,171,-0.250,-0.250,-0.250,0.000,0.000,0.000
1641207939088198912,2022-01-03-11:05:39,10.1.1.3,171,-0.240,-0.240,-0.240,0.000,0.000,0.000
1641207939291538944,2022-01-03-11:05:39,10.1.1.3,173,-0.230,-0.230,-0.230,0.000,0.000,0.000
1641207939487162112,2022-01-03-11:05:39,10.1.1.3,168,-0.220,-0.220,-0.220,0.000,0.000,0.000
1641207939686752000,2022-01-03-11:05:39,10.1.1.3,167,-0.210,-0.210,-0.210,0.000,0.000,0.000
1641207939889678848,2022-01-03-11:05:39,10.1.1.3,169,-0.200,-0.200,-0.200,0.000,0.000,0.000
1641207940086316032,2022-01-03-11:05:40,10.1.1.3,165,-0.190,-0.190,-0.190,0.000,0.000,0.000
1641207940286237952,2022-01-03-11:05:40,10.1.1.3,165,-0.180,-0.180,-0.180,0.000,0.000,0.000
1641207940485927168,2022-01-03-11:05:40,10.1.1.3,164,-0.170,-0.170,-0.170,0.000,0.000,0.000
1641207940705282816,2022-01-03-11:05:40,10.1.1.3,183,-0.160,-0.160,-0.160,0.000,0.000,0.000
1641207940905267968,2022-01-03-11:05:40,10.1.1.3,183,-0.150,-0.150,-0.150,0.000,0.000,0.000
1641207941105083904,2022-01-03-11:05:41,10.1.1.3,182,-0.140,-0.140,-0.140,0.000,0.000,0.000
1641207941304837888,2022-01-03-11:05:41,10.1.1.3,181,-0.130,-0.130,-0.130,0.000,0.000,0.000
1641207941504052992,2022-01-03-11:05:41,10.1.1.3,179,-0.120,-0.120,-0.120,0.000,0.000,0.000
1641207941704164864,2022-01-03-11:05:41,10.1.1.3,179,-0.110,-0.110,-0.110,0.000,0.000,0.000
1641207941903412224,2022-01-03-11:05:41,10.1.1.3,178,-0.100,-0.100,-0.100,0.000,0.000,0.000
1641207942103878144,2022-01-03-11:05:42,10.1.1.3,178,-0.090,-0.090,-0.090,0.000,0.000,0.000
1641207942302772992,2022-01-03-11:05:42,10.1.1.3,176,-0.080,-0.080,-0.080,0.000,0.000,0.000
1641207942502274048,2022-01-03-11:05:42,10.1.1.3,175,-0.070,-0.070,-0.070,0.000,0.000,0.000
1641207942702478848,2022-01-03-11:05:42,10.1.1.3,175,-0.060,-0.060,-0.060,0.000,0.000,0.000
1641207942901666048,2022-01-03-11:05:42,10.1.1.3,173,-0.050,-0.050,-0.050,0.000,0.000,0.000
1641207943102451200,2022-01-03-11:05:43,10.1.1.3,173,-0.040,-0.040,-0.040,0.000,0.000,0.000
1641207943301153792,2022-01-03-11:05:43,10.1.1.3,171,-0.030,-0.030,-0.030,0.000,0.000,0.000
1641207943500855808,2022-01-03-11:05:43,10.1.1.3,170,-0.020,-0.020,-0.020,0.000,0.000,0.000
1641207943700467200,2022-01-03-11:05:43,10.1.1.3,169,-0.010,-0.010,-0.010,0.000,0.000,0.000
1641207943899951104,2022-01-03-11:05:43,10.1.1.3,168,0.000,0.000,0.000,0.000,0.000,0.000
1641207944099465984,2022-01-03-11:05:44,10.1.1.3,167,-0.010,-0.010,-0.010,0.000,0.000,0.000
1641207944299511808,2022-01-03-11:05:44,10.1.1.3,167,-0.020,-0.020,-0.020,0.000,0.000,0.000
1641207944499461888,2022-01-03-11:05:44,10.1.1.3,166,-0.030,-0.030,-0.030,0.000,0.000,0.000
1641207944699440128,2022-01-03-11:05:44,10.1.1.3,165,-0.040,-0.040,-0.040,0.000,0.000,0.000
1641207944898347008,2022-01-03-11:05:44,10.1.1.3,163,-0.050,-0.050,-0.050,0.000,0.000,0.000
1641207945098139136,2022-01-03-11:05:45,10.1.1.3,162,-0.060,-0.060,-0.060,0.000,0.000,0.000
1641207945298212096,2022-01-03-11:05:45,10.1.1.3,162,-0.070,-0.070,-0.070,0.000,0.000,0.000
1641207945497472000,2022-01-03-11:05:45,10.1.1.3,160,-0.080,-0.080,-0.080,0.000,0.000,0.000
1641207945699968000,2022-01-03-11:05:45,10.1.1.3,162,-0.090,-0.090,-0.090,0.000,0.000,0.000
1641207945896902144,2022-01-03-11:05:45,10.1.1.3,159,-0.100,-0.100,-0.100,0.000,0.000,0.000
1641207946097288960,2022-01-03-11:05:46,10.1.1.3,159,-0.110,-0.110,-0.110,0.000,0.000,0.000
1641207946298067968,2022-01-03-11:05:46,10.1.1.3,159,-0.120,-0.120,-0.120,0.000,0.000,0.000
1641207946502564864,2022-01-03-11:05:46,10.1.1.3,163,-0.130,-0.130,-0.130,0.000,0.000,0.000
1641207946700470016,2022-01-03-11:05:46,10.1.1.3,160,-0.140,-0.140,-0.140,0.000,0.000,0.000
1641207946901861888,2022-01-03-11:05:46,10.1.1.3,161,-0.150,-0.150,-0.150,0.000,0.000,0.000
1641207947102200064,2022-01-03-11:05:47,10.1.1.3,161,-0.160,-0.160,-0.160,0.000,0.000,0.000
1641207947305423104,2022-01-03-11:05:47,10.1.1.3,163,-0.170,-0.170,-0.170,0.000,0.000,0.000
1641207947525078016,2022-01-03-11:05:47,10.1.1.3,183,-0.180,-0.180,-0.180,0.000,0.000,0.000
1641207947725740800,2022-01-03-11:05:47,10.1.1.3,183,-0.190,-0.190,-0.190,0.000,0.000,0.000
1641207947925923072,2022-01-03-11:05:47,10.1.1.3,183,-0.200,-0.200,-0.200,0.000,0.000,0.000
1641207948126582016,2022-01-03-11:05:48,10.1.1.3,183,-0.210,-0.210,-0.210,0.000,0.000,0.000
1641207948327965952,2022-01-03-11:05:48,10.1.1.3,184,-0.220,-0.220,-0.220,0.000,0.000,0.000
1641207948528326912,2022-01-03-11:05:48,10.1.1.3,184,-0.230,-0.230,-0.230,0.000,0.000,0.000
1641207948729291008,2022-01-03-11:05:48,10.1.1.3,184,-0.240,-0.240,-0.240,0.000,0.000,0.000
1641207948931122944,2022-01-03-11:05:48,10.1.1.3,186,-0.250,-0.250,-0.250,0.000,0.000,0.000
1641207949131011840,2022-01-03-11:05:49,10.1.1.3,185,-0.260,-0.260,-0.260,0.000,0.000,0.000
1641207949331937024,2022-01-03-11:05:49,10.1.1.3,185,-0.270,-0.270,-0.270,0.000,0.000,0.000
1641207949532283904,2022-01-03-11:05:49,10.1.1.3,185,-0.280,-0.280,-0.280,0.000,0.000,0.000
1641207949732930816,2022-01-03-11:05:49,10.1.1.3,185,-0.290,-0.290,-0.290,0.000,0.000,0.000
1641207949935898112,2022-01-03-11:05:49,10.1.1.3,187,-0.300,-0.300,-0.300,0.000,0.000,0.000
1641207950133363968,2022-01-03-11:05:50,10.1.1.3,184,-0.310,-0.310,-0.310,0.000,0.000,0.000
1641207950333657088,2022-01-03-11:05:50,10.1.1.3,183,-0.320,-0.320,-0.320,0.000,0.000,0.000
1641207950534074112,2022-01-03-11:05:50,10.1.1.3,183,-0.330,-0.330,-0.330,0.000,0.000,0.000
1641207950734798080,2022-01-03-11:05:50,10.1.1.3,183,-0.340,-0.340,-0.340,0.000,0.000,0.000
1641207950935828992,2022-01-03-11:05:50,10.1.1.3,183,-0.350,-0.350,-0.350,0.000,0.000,0.000
1641207951135826176,2022-01-03-11:05:51,10.1.1.3,182,-0.360,-0.360,-0.360,0.000,0.000,0.000
1641207951335858944,2022-01-03-11:05:51,10.1.1.3,182,-0.370,-0.370,-0.370,0.000,0.000,0.000
1641207951536421888,2022-01-03-11:05:51,10.1.1.3,182,-0.380,-0.380,-0.380,0.000,0.000,0.000
1641207951736833024,2022-01-03-11:05:51,10.1.1.3,181,-0.390,-0.390,-0.390,0.000,0.000,0.000
1641207951941047808,2022-01-03-11:05:51,10.1.1.3,185,-0.400,-0.400,-0.400,0.000,0.000,0.000
1641207952137479936,2022-01-03-11:05:52,10.1.1.3,181,-0.410,-0.410,-0.410,0.000,0.000,0.000
1641207952337753088,2022-01-03-11:05:52,10.1.1.3,181,-0.420,-0.420,-0.420,0.000,0.000,0.000
1641207952538192896,2022-01-03-11:05:52,10.1.1.3,181,-0.430,-0.430,-0.430,0.000,0.000,0.000
1641207952738092032,2022-01-03-11:05:52,10.1.1.3,180,-0.440,-0.440,-0.440,0.000,0.000,0.000
1641207952938750976,2022-01-03-11:05:52,10.1.1.3,181,-0.450,-0.450,-0.450,0.000,0.000,0.000
1641207953139414016,2022-01-03-11:05:53,10.1.1.3,180,-0.460,-0.460,-0.460,0.000,0.000,0.000
1641207953339055104,2022-01-03-11:05:53,10.1.1.3,180,-0.470,-0.470,-0.470,0.000,0.000,0.000
1641207953539369216,2022-01-03-11:05:53,10.1.1.3,179,-0.480,-0.480,-0.480,0.000,0.000,0.000
1641207953739894016,2022-01-03-11:05:53,10.1.1.3,179,-0.490,-0.490,-0.490,0.000,0.000,0.000
1641207953940133120,2022-01-03-11:05:53,10.1.1.3,179,-0.480,-0.480,-0.480,0.000,0.000,0.000
1641207954139934976,2022-01-03-11:05:54,10.1.1.3,178,-0.470,-0.470,-0.470,0.000,0.000,0.000
1641207954359752960,2022-01-03-11:05:54,10.1.1.3,197,-0.460,-0.460,-0.460,0.000,0.000,0.000
1641207954560142080,2022-01-03-11:05:54,10.1.1.3,195,-0.450,-0.450,-0.450,0.000,0.000,0.000
1641207954762774016,2022-01-03-11:05:54,10.1.1.3,197,-0.440,-0.440,-0.440,0.000,0.000,0.000
1641207954960604928,2022-01-03-11:05:54,10.1.1.3,193,-0.430,-0.430,-0.430,0.000,0.000,0.000
1641207955160636928,2022-01-03-11:05:55,10.1.1.3,193,-0.420,-0.420,-0.420,0.000,0.000,0.000
1641207955360518912,2022-01-03-11:05:55,10.1.1.3,192,-0.410,-0.410,-0.410,0.000,0.000,0.000
1641207955561583104,2022-01-03-11:05:55,10.1.1.3,193,-0.400,-0.400,-0.400,0.000,0.000,0.000
1641207955761328896,2022-01-03-11:05:55,10.1.1.3,192,-0.390,-0.390,-0.390,0.000,0.000,0.000
1641207955961112064,2022-01-03-11:05:55,10.1.1.3,191,-0.380,-0.380,-0.380,0.000,0.000,0.000
1641207956161388032,2022-01-03-11:05:56,10.1.1.3,191,-0.370,-0.370,-0.370,0.000,0.000,0.000
1641207956361413120,2022-01-03-11:05:56,10.1.1.3,190,-0.360,-0.360,-0.360,0.000,0.000,0.000
1641207956561027072,2022-01-03-11:05:56,10.1.1.3,190,-0.350,-0.350,-0.350,0.000,0.000,0.000
1641207956760883968,2022-01-03-11:05:56,10.1.1.3,189,-0.340,-0.340,-0.340,0.000,0.000,0.000
1641207956961436160,2022-01-03-11:05:56,10.1.1.3,189,-0.330,-0.330,-0.330,0.000,0.000,0.000
1641207957161271040,2022-01-03-11:05:57,10.1.1.3,188,-0.320,-0.320,-0.320,0.000,0.000,0.000
1641207957360964096,2022-01-03-11:05:57,10.1.1.3,187,-0.310,-0.310,-0.310,0.000,0.000,0.000
1641207957562139136,2022-01-03-11:05:57,10.1.1.3,188,-0.300,-0.300,-0.300,0.000,0.000,0.000
1641207957761261824,2022-01-03-11:05:57,10.1.1.3,186,-0.290,-0.290,-0.290,0.000,0.000,0.000
1641207957961283072,2022-01-03-11:05:57,10.1.1.3,185,-0.280,-0.280,-0.280,0.000,0.000,0.000
1641207958161106176,2022-01-03-11:05:58,10.1.1.3,184,-0.270,-0.270,-0.270,0.000,0.000,0.000
1641207958362100992,2022-01-03-11:05:58,10.1.1.3,184,-0.260,-0.260,-0.260,0.000,0.000,0.000
1641207958561415936,2022-01-03-11:05:58,10.1.1.3,183,-0.250,-0.250,-0.250,0.000,0.000,0.000
1641207958760958976,2022-01-03-11:05:58,10.1.1.3,182,-0.240,-0.240,-0.240,0.000,0.000,0.000
1641207958960846848,2022-01-03-11:05:58,10.1.1.3,181,-0.230,-0.230,-0.230,0.000,0.000,0.000
1641207959160480000,2022-01-03-11:05:59,10.1.1.3,180,-0.220,-0.220,-0.220,0.000,0.000,0.000
1641207959360749056,2022-01-03-11:05:59,10.1.1.3,180,-0.210,-0.210,-0.210,0.000,0.000,0.000
1641207959560764928,2022-01-03-11:05:59,10.1.1.3,180,-0.200,-0.200,-0.200,0.000,0.000,0.000
1641207959761428224,2022-01-03-11:05:59,10.1.1.3,179,-0.190,-0.190,-0.190,0.000,0.000,0.000
1641207959980123904,2022-01-03-11:05:59,10.1.1.3,197,-0.180,-0.180,-0.180,0.000,0.000,0.000
1641207960160114944,2022-01-03-11:06:00,10.1.1.3,177,-0.170,-0.170,-0.170,0.000,0.000,0.000
1641207960381076224,2022-01-03-11:06:00,10.1.1.3,196,-0.160,-0.160,-0.160,0.000,0.000,0.000
1641207960583201792,2022-01-03-11:06:00,10.1.1.3,198,-0.150,-0.150,-0.150,0.000,0.000,0.000
1641207960780233984,2022-01-03-11:06:00,10.1.1.3,194,-0.140,-0.140,-0.140,0.000,0.000,0.000
1641207960979316992,2022-01-03-11:06:00,10.1.1.3,192,-0.130,-0.130,-0.130,0.000,0.000,0.000
1641207961179522048,2022-01-03-11:06:01,10.1.1.3,192,-0.120,-0.120,-0.120,0.000,0.000,0.000
1641207961380187904,2022-01-03-11:06:01,10.1.1.3,192,-0.110,-0.110,-0.110,0.000,0.000,0.000
1641207961579714048,2022-01-03-11:06:01,10.1.1.3,191,-0.100,-0.100,-0.100,0.000,0.000,0.000
1641207961779081984,2022-01-03-11:06:01,10.1.1.3,190,-0.090,-0.090,-0.090,0.000,0.000,0.000
1641207961980348160,2022-01-03-11:06:01,10.1.1.3,191,-0.080,-0.080,-0.080,0.000,0.000,0.000
1641207962178467072,2022-01-03-11:06:02,10.1.1.3,188,-0.070,-0.070,-0.070,0.000,0.000,0.000
1641207962378971136,2022-01-03-11:06:02,10.1.1.3,187,-0.060,-0.060,-0.060,0.000,0.000,0.000
1641207962577897984,2022-01-03-11:06:02,10.1.1.3,186,-0.050,-0.050,-0.050,0.000,0.000,0.000
1641207962777633792,2022-01-03-11:06:02,10.1.1.3,185,-0.040,-0.040,-0.040,0.000,0.000,0.000
1641207962978654976,2022-01-03-11:06:02,10.1.1.3,186,-0.030,-0.030,-0.030,0.000,0.000,0.000
1641207963177862912,2022-01-03-11:06:03,10.1.1.3,184,-0.020,-0.020,-0.020,0.000,0.000,0.000
1641207963377302016,2022-01-03-11:06:03,10.1.1.3,183,-0.010,-0.010,-0.010,0.000,0.000,0.000
1641207963577217024,2022-01-03-11:06:03,10.1.1.3,182,0.000,0.000,0.000,0.000,0.000,0.000
1641207963776954880,2022-01-03-11:06:03,10.1.1.3,182,-0.010,-0.010,-0.010,0.000,0.000,0.000
1641207963977302016,2022-01-03-11:06:03,10.1.1.3,181,-0.020,-0.020,-0.020,0.000,0.000,0.000
1641207964180231168,2022-01-03-11:06:04,10.1.1.3,184,-0.030,-0.030,-0.030,0.000,0.000,0.000
1641207964376409088,2022-01-03-11:06:04,10.1.1.3,180,-0.040,-0.040,-0.040,0.000,0.000,0.000
1641207964576698112,2022-01-03-11:06:04,10.1.1.3,179,-0.050,-0.050,-0.050,0.000,0.000,0.000
1641207964777911040,2022-01-03-11:06:04,10.1.1.3,180,-0.060,-0.060,-0.060,0.000,0.000,0.000
1641207964976836864,2022-01-03-11:06:04,10.1.1.3,178,-0.070,-0.070,-0.070,0.000,0.000,0.000
1641207965176173056,2022-01-03-11:06:05,10.1.1.3,177,-0.080,-0.080,-0.080,0.000,0.000,0.000
1641207965375603968,2022-01-03-11:06:05,10.1.1.3,176,-0.090,-0.090,-0.090,0.000,0.000,0.000
1641207965575090944,2022-01-03-11:06:05,10.1.1.3,174,-0.100,-0.100,-0.100,0.000,0.000,0.000
1641207965774898176,2022-01-03-11:06:05,10.1.1.3,173,-0.110,-0.110,-0.110,0.000,0.000,0.000
1641207965994554880,2022-01-03-11:06:05,10.1.1.3,189,-0.120,-0.120,-0.120,0.000,0.000,0.000
1641207966194439936,2022-01-03-11:06:06,10.1.1.3,188,-0.130,-0.130,-0.130,0.000,0.000,0.000
1641207966394247936,2022-01-03-11:06:06,10.1.1.3,187,-0.140,-0.140,-0.140,0.000,0.000,0.000
1641207966597104128,2022-01-03-11:06:06,10.1.1.3,189,-0.150,-0.150,-0.150,0.000,0.000,0.000
1641207966794920960,2022-01-03-11:06:06,10.1.1.3,186,-0.160,-0.160,-0.160,0.000,0.000,0.000
1641207966993349120,2022-01-03-11:06:06,10.1.1.3,183,-0.170,-0.170,-0.170,0.000,0.000,0.000
1641207967192873984,2022-01-03-11:06:07,10.1.1.3,182,-0.180,-0.180,-0.180,0.000,0.000,0.000
1641207967393191168,2022-01-03-11:06:07,10.1.1.3,182,-0.190,-0.190,-0.190,0.000,0.000,0.000
1641207967592544000,2022-01-03-11:06:07,10.1.1.3,181,-0.200,-0.200,-0.200,0.000,0.000,0.000
1641207967792411136,2022-01-03-11:06:07,10.1.1.3,180,-0.210,-0.210,-0.210,0.000,0.000,0.000
1641207967992305920,2022-01-03-11:06:07,10.1.1.3,180,-0.220,-0.220,-0.220,0.000,0.000,0.000
1641207968013134080,2022-01-03-11:06:08,10.1.1.3,-1,-0.220,-0.220,-0.220,0.000,0.000,0.000
1641207968391640064,2022-01-03-11:06:08,10.1.1.3,177,-0.240,-0.240,-0.240,0.000,0.000,0.000
1641207968591787008,2022-01-03-11:06:08,10.1.1.3,177,-0.250,-0.250,-0.250,0.000,0.000,0.000
1641207968791271936,2022-01-03-11:06:08,10.1.1.3,176,-0.260,-0.260,-0.260,0.000,0.000,0.000
1641207968991408128,2022-01-03-11:06:08,10.1.1.3,175,-0.270,-0.270,-0.270,0.000,0.000,0.000
1641207969190874112,2022-01-03-11:06:09,10.1.1.3,174,-0.280,-0.280,-0.280,0.000,0.000,0.000
1641207969390443008,2022-01-03-11:06:09,10.1.1.3,173,-0.290,-0.290,-0.290,0.000,0.000,0.000
1641207969589827072,2022-01-03-11:06:09,10.1.1.3,171,-0.300,-0.300,-0.300,0.000,0.000,0.000
1641207969789732096,2022-01-03-11:06:09,10.1.1.3,171,-0.310,-0.310,-0.310,0.000,0.000,0.000
1641207969989264896,2022-01-03-11:06:09,10.1.1.3,169,-0.320,-0.320,-0.320,0.000,0.000,0.000
1641207970192073984,2022-01-03-11:06:10,10.1.1.3,170,-0.330,-0.330,-0.330,0.000,0.000,0.000
1641207970389071872,2022-01-03-11:06:10,10.1.1.3,167,-0.340,-0.340,-0.340,0.000,0.000,0.000
1641207970609949952,2022-01-03-11:06:10,10.1.1.3,187,-0.350,-0.350,-0.350,0.000,0.000,0.000
1641207970807904000,2022-01-03-11:06:10,10.1.1.3,185,-0.360,-0.360,-0.360,0.000,0.000,0.000
1641207971007916800,2022-01-03-11:06:11,10.1.1.3,184,-0.370,-0.370,-0.370,0.000,0.000,0.000
1641207971207962880,2022-01-03-11:06:11,10.1.1.3,184,-0.380,-0.380,-0.380,0.000,0.000,0.000
1641207971407314944,2022-01-03-11:06:11,10.1.1.3,183,-0.390,-0.390,-0.390,0.000,0.000,0.000
1641207971611480064,2022-01-03-11:06:11,10.1.1.3,187,-0.400,-0.400,-0.400,0.000,0.000,0.000
1641207971807188992,2022-01-03-11:06:11,10.1.1.3,182,-0.410,-0.410,-0.410,0.000,0.000,0.000
1641207972006678016,2022-01-03-11:06:12,10.1.1.3,181,-0.420,-0.420,-0.420,0.000,0.000,0.000
1641207972206607104,2022-01-03-11:06:12,10.1.1.3,180,-0.430,-0.430,-0.430,0.000,0.000,0.000
1641207972405837056,2022-01-03-11:06:12,10.1.1.3,179,-0.440,-0.440,-0.440,0.000,0.000,0.000
1641207972605541888,2022-01-03-11:06:12,10.1.1.3,178,-0.450,-0.450,-0.450,0.000,0.000,0.000
1641207972804008960,2022-01-03-11:06:12,10.1.1.3,176,-0.460,-0.460,-0.460,0.000,0.000,0.000
1641207973005229056,2022-01-03-11:06:13,10.1.1.3,175,-0.470,-0.470,-0.470,0.000,0.000,0.000
1641207973205681152,2022-01-03-11:06:13,10.1.1.3,175,-0.480,-0.480,-0.480,0.000,0.000,0.000
1641207973405571072,2022-01-03-11:06:13,10.1.1.3,170,-0.490,-0.490,-0.490,0.000,0.000,0.000
1641207973604701952,2022-01-03-11:06:13,10.1.1.3,169,-0.480,-0.480,-0.480,0.000,0.000,0.000
1641207973804038912,2022-01-03-11:06:13,10.1.1.3,168,-0.470,-0.470,-0.470,0.000,0.000,0.000
1641207974003709952,2022-01-03-11:06:14,10.1.1.3,167,-0.460,-0.460,-0.460,0.000,0.000,0.000
1641207974203139072,2022-01-03-11:06:14,10.1.1.3,166,-0.450,-0.450,-0.450,0.000,0.000,0.000
1641207974402833920,2022-01-03-11:06:14,10.1.1.3,165,-0.440,-0.440,-0.440,0.000,0.000,0.000
1641207974602656000,2022-01-03-11:06:14,10.1.1.3,165,-0.430,-0.430,-0.430,0.000,0.000,0.000
1641207974802756096,2022-01-03-11:06:14,10.1.1.3,165,-0.420,-0.420,-0.420,0.000,0.000,0.000
1641207975002499072,2022-01-03-11:06:15,10.1.1.3,162,-0.410,-0.410,-0.410,0.000,0.000,0.000
1641207975201981952,2022-01-03-11:06:15,10.1.1.3,161,-0.400,-0.400,-0.400,0.000,0.000,0.000
1641207975403788032,2022-01-03-11:06:15,10.1.1.3,161,-0.390,-0.390,-0.390,0.000,0.000,0.000
1641207975621890048,2022-01-03-11:06:15,10.1.1.3,180,-0.380,-0.380,-0.380,0.000,0.000,0.000
1641207975821142784,2022-01-03-11:06:15,10.1.1.3,178,-0.370,-0.370,-0.370,0.000,0.000,0.000
1641207976020239104,2022-01-03-11:06:16,10.1.1.3,176,-0.360,-0.360,-0.360,0.000,0.000,0.000
1641207976220396032,2022-01-03-11:06:16,10.1.1.3,176,-0.350,-0.350,-0.350,0.000,0.000,0.000
1641207976420568064,2022-01-03-11:06:16,10.1.1.3,175,-0.340,-0.340,-0.340,0.000,0.000,0.000
1641207976619631104,2022-01-03-11:06:16,10.1.1.3,174,-0.330,-0.330,-0.330,0.000,0.000,0.000
1641207976819305984,2022-01-03-11:06:16,10.1.1.3,173,-0.320,-0.320,-0.320,0.000,0.000,0.000
1641207977024868864,2022-01-03-11:06:17,10.1.1.3,177,-0.310,-0.310,-0.310,0.000,0.000,0.000
1641207977219151104,2022-01-03-11:06:17,10.1.1.3,171,-0.300,-0.300,-0.300,0.000,0.000,0.000
1641207977418657024,2022-01-03-11:06:17,10.1.1.3,170,-0.290,-0.290,-0.290,0.000,0.000,0.000
1641207977617718016,2022-01-03-11:06:17,10.1.1.3,167,-0.280,-0.280,-0.280,0.000,0.000,0.000
1641207977817629952,2022-01-03-11:06:17,10.1.1.3,166,-0.270,-0.270,-0.270,0.000,0.000,0.000
1641207978016916992,2022-01-03-11:06:18,10.1.1.3,165,-0.260,-0.260,-0.260,0.000,0.000,0.000
1641207978218117120,2022-01-03-11:06:18,10.1.1.3,166,-0.250,-0.250,-0.250,0.000,0.000,0.000
1641207978419504896,2022-01-03-11:06:18,10.1.1.3,167,-0.240,-0.240,-0.240,0.000,0.000,0.000
1641207978620697856,2022-01-03-11:06:18,10.1.1.3,167,-0.230,-0.230,-0.230,0.000,0.000,0.000
1641207978821619968,2022-01-03-11:06:18,10.1.1.3,168,-0.220,-0.220,-0.220,0.000,0.000,0.000
1641207979022896128,2022-01-03-11:06:19,10.1.1.3,169,-0.210,-0.210,-0.210,0.000,0.000,0.000
1641207979226396928,2022-01-03-11:06:19,10.1.1.3,172,-0.200,-0.200,-0.200,0.000,0.000,0.000
1641207979425373952,2022-01-03-11:06:19,10.1.1.3,170,-0.190,-0.190,-0.190,0.000,0.000,0.000
1641207979625132032,2022-01-03-11:06:19,10.1.1.3,169,-0.180,-0.180,-0.180,0.000,0.000,0.000
1641207979826548224,2022-01-03-11:06:19,10.1.1.3,170,-0.170,-0.170,-0.170,0.000,0.000,0.000
1641207980027067904,2022-01-03-11:06:20,10.1.1.3,170,-0.160,-0.160,-0.160,0.000,0.000,0.000
1641207980227631104,2022-01-03-11:06:20,10.1.1.3,170,-0.150,-0.150,-0.150,0.000,0.000,0.000
1641207980428372992,2022-01-03-11:06:20,10.1.1.3,171,-0.140,-0.140,-0.140,0.000,0.000,0.000
1641207980629067776,2022-01-03-11:06:20,10.1.1.3,171,-0.130,-0.130,-0.130,0.000,0.000,0.000
1641207980831245824,2022-01-03-11:06:20,10.1.1.3,173,-0.120,-0.120,-0.120,0.000,0.000,0.000
1641207981033123072,2022-01-03-11:06:21,10.1.1.3,174,-0.110,-0.110,-0.110,0.000,0.000,0.000
1641207981235109120,2022-01-03-11:06:21,10.1.1.3,175,-0.100,-0.100,-0.100,0.000,0.000,0.000
1641207981452217088,2022-01-03-11:06:21,10.1.1.3,189,-0.090,-0.090,-0.090,0.000,0.000,0.000
1641207981652731904,2022-01-03-11:06:21,10.1.1.3,189,-0.080,-0.080,-0.080,0.000,0.000,0.000
1641207981853600000,2022-01-03-11:06:21,10.1.1.3,189,-0.070,-0.070,-0.070,0.000,0.000,0.000
1641207982054213120,2022-01-03-11:06:22,10.1.1.3,190,-0.060,-0.060,-0.060,0.000,0.000,0.000
1641207982257080064,2022-01-03-11:06:22,10.1.1.3,191,-0.050,-0.050,-0.050,0.000,0.000,0.000
1641207982455470080,2022-01-03-11:06:22,10.1.1.3,189,-0.040,-0.040,-0.040,0.000,0.000,0.000
1641207982656125952,2022-01-03-11:06:22,10.1.1.3,188,-0.030,-0.030,-0.030,0.000,0.000,0.000
1641207982855375104,2022-01-03-11:06:22,10.1.1.3,188,-0.020,-0.020,-0.020,0.000,0.000,0.000
1641207983056204032,2022-01-03-11:06:23,10.1.1.3,188,-0.010,-0.010,-0.010,0.000,0.000,0.000
1641207983257052928,2022-01-03-11:06:23,10.1.1.3,188,0.000,0.000,0.000,0.000,0.000,0.000
1641207983457197056,2022-01-03-11:06:23,10.1.1.3,187,-0.010,-0.010,-0.010,0.000,0.000,0.000
1641207983657388800,2022-01-03-11:06:23,10.1.1.3,187,-0.020,-0.020,-0.020,0.000,0.000,0.000
1641207983857552896,2022-01-03-11:06:23,10.1.1.3,187,-0.030,-0.030,-0.030,0.000,0.000,0.000
1641207984057775872,2022-01-03-11:06:24,10.1.1.3,187,-0.040,-0.040,-0.040,0.000,0.000,0.000
1641207984258182144,2022-01-03-11:06:24,10.1.1.3,187,-0.050,-0.050,-0.050,0.000,0.000,0.000
1641207984458530048,2022-01-03-11:06:24,10.1.1.3,187,-0.060,-0.060,-0.060,0.000,0.000,0.000
1641207984658795008,2022-01-03-11:06:24,10.1.1.3,186,-0.070,-0.070,-0.070,0.000,0.000,0.000
1641207984860829952,2022-01-03-11:06:24,10.1.1.3,188,-0.080,-0.080,-0.080,0.000,0.000,0.000
1641207985066063872,2022-01-03-11:06:25,10.1.1.3,192,-0.090,-0.090,-0.090,0.000,0.000,0.000
1641207985259576064,2022-01-03-11:06:25,10.1.1.3,185,-0.100,-0.100,-0.100,0.000,0.000,0.000
1641207985460199168,2022-01-03-11:06:25,10.1.1.3,185,-0.110,-0.110,-0.110,0.000,0.000,0.000
1641207985660579072,2022-01-03-11:06:25,10.1.1.3,185,-0.120,-0.120,-0.120,0.000,0.000,0.000
1641207985861629952,2022-01-03-11:06:25,10.1.1.3,185,-0.130,-0.130,-0.130,0.000,0.000,0.000
1641207986061566976,2022-01-03-11:06:26,10.1.1.3,184,-0.140,-0.140,-0.140,0.000,0.000,0.000
1641207986260406016,2022-01-03-11:06:26,10.1.1.3,182,-0.150,-0.150,-0.150,0.000,0.000,0.000
1641207986460747008,2022-01-03-11:06:26,10.1.1.3,182,-0.160,-0.160,-0.160,0.000,0.000,0.000
1641207986661094912,2022-01-03-11:06:26,10.1.1.3,182,-0.170,-0.170,-0.170,0.000,0.000,0.000
1641207986860864000,2022-01-03-11:06:26,10.1.1.3,181,-0.180,-0.180,-0.180,0.000,0.000,0.000
1641207987061703936,2022-01-03-11:06:27,10.1.1.3,181,-0.190,-0.190,-0.190,0.000,0.000,0.000
1641207987263196928,2022-01-03-11:06:27,10.1.1.3,181,-0.200,-0.200,-0.200,0.000,0.000,0.000
1641207987481602816,2022-01-03-11:06:27,10.1.1.3,199,-0.210,-0.210,-0.210,0.000,0.000,0.000
1641207987681875968,2022-01-03-11:06:27,10.1.1.3,199,-0.220,-0.220,-0.220,0.000,0.000,0.000
1641207987881905920,2022-01-03-11:06:27,10.1.1.3,198,-0.230,-0.230,-0.230,0.000,0.000,0.000
1641207988083204864,2022-01-03-11:06:28,10.1.1.3,199,-0.240,-0.240,-0.240,0.000,0.000,0.000
1641207988282077952,2022-01-03-11:06:28,10.1.1.3,197,-0.250,-0.250,-0.250,0.000,0.000,0.000
1641207988481367040,2022-01-03-11:06:28,10.1.1.3,196,-0.260,-0.260,-0.260,0.000,0.000,0.000
1641207988681665792,2022-01-03-11:06:28,10.1.1.3,195,-0.270,-0.270,-0.270,0.000,0.000,0.000
1641207988882046976,2022-01-03-11:06:28,10.1.1.3,194,-0.280,-0.280,-0.280,0.000,0.000,0.000
1641207989084038144,2022-01-03-11:06:29,10.1.1.3,196,-0.290,-0.290,-0.290,0.000,0.000,0.000
1641207989284340992,2022-01-03-11:06:29,10.1.1.3,196,-0.300,-0.300,-0.300,0.000,0.000,0.000
1641207989485286912,2022-01-03-11:06:29,10.1.1.3,196,-0.310,-0.310,-0.310,0.000,0.000,0.000
1641207989684318976,2022-01-03-11:06:29,10.1.1.3,195,-0.320,-0.320,-0.320,0.000,0.000,0.000
1641207989881486848,2022-01-03-11:06:29,10.1.1.3,191,-0.330,-0.330,-0.330,0.000,0.000,0.000
1641207990082489088,2022-01-03-11:06:30,10.1.1.3,191,-0.340,-0.340,-0.340,0.000,0.000,0.000
1641207990281969152,2022-01-03-11:06:30,10.1.1.3,190,-0.350,-0.350,-0.350,0.000,0.000,0.000
1641207990481362944,2022-01-03-11:06:30,10.1.1.3,189,-0.360,-0.360,-0.360,0.000,0.000,0.000
1641207990681356032,2022-01-03-11:06:30,10.1.1.3,189,-0.370,-0.370,-0.370,0.000,0.000,0.000
1641207990881470976,2022-01-03-11:06:30,10.1.1.3,188,-0.380,-0.380,-0.380,0.000,0.000,0.000
1641207991081190144,2022-01-03-11:06:31,10.1.1.3,187,-0.390,-0.390,-0.390,0.000,0.000,0.000
1641207991281164800,2022-01-03-11:06:31,10.1.1.3,186,-0.400,-0.400,-0.400,0.000,0.000,0.000
1641207991481281024,2022-01-03-11:06:31,10.1.1.3,186,-0.410,-0.410,-0.410,0.000,0.000,0.000
1641207991680897024,2022-01-03-11:06:31,10.1.1.3,185,-0.420,-0.420,-0.420,0.000,0.000,0.000
1641207991880732928,2022-01-03-11:06:31,10.1.1.3,184,-0.430,-0.430,-0.430,0.000,0.000,0.000
1641207992084142848,2022-01-03-11:06:32,10.1.1.3,187,-0.440,-0.440,-0.440,0.000,0.000,0.000
1641207992280733184,2022-01-03-11:06:32,10.1.1.3,183,-0.450,-0.450,-0.450,0.000,0.000,0.000
1641207992480588032,2022-01-03-11:06:32,10.1.1.3,183,-0.460,-0.460,-0.460,0.000,0.000,0.000
1641207992680179200,2022-01-03-11:06:32,10.1.1.3,182,-0.470,-0.470,-0.470,0.000,0.000,0.000
1641207992884787200,2022-01-03-11:06:32,10.1.1.3,186,-0.480,-0.480,-0.480,0.000,0.000,0.000
1641207993080427776,2022-01-03-11:06:33,10.1.1.3,181,-0.490,-0.490,-0.490,0.000,0.000,0.000
1641207993280262912,2022-01-03-11:06:33,10.1.1.3,180,-0.480,-0.480,-0.480,0.000,0.000,0.000
1641207993480542976,2022-01-03-11:06:33,10.1.1.3,180,-0.470,-0.470,-0.470,0.000,0.000,0.000
1641207993679678976,2022-01-03-11:06:33,10.1.1.3,179,-0.460,-0.460,-0.460,0.000,0.000,0.000
1641207993879411968,2022-01-03-11:06:33,10.1.1.3,178,-0.450,-0.450,-0.450,0.000,0.000,0.000
1641207994079337984,2022-01-03-11:06:34,10.1.1.3,177,-0.440,-0.440,-0.440,0.000,0.000,0.000
1641207994299206144,2022-01-03-11:06:34,10.1.1.3,197,-0.430,-0.430,-0.430,0.000,0.000,0.000
1641207994498873856,2022-01-03-11:06:34,10.1.1.3,196,-0.420,-0.420,-0.420,0.000,0.000,0.000
1641207994699451904,2022-01-03-11:06:34,10.1.1.3,196,-0.410,-0.410,-0.410,0.000,0.000,0.000
1641207994898885888,2022-01-03-11:06:34,10.1.1.3,195,-0.400,-0.400,-0.400,0.000,0.000,0.000
1641207995098494976,2022-01-03-11:06:35,10.1.1.3,194,-0.390,-0.390,-0.390,0.000,0.000,0.000
1641207995298161920,2022-01-03-11:06:35,10.1.1.3,192,-0.380,-0.380,-0.380,0.000,0.000,0.000
1641207995498147072,2022-01-03-11:06:35,10.1.1.3,192,-0.370,-0.370,-0.370,0.000,0.000,0.000
1641207995700804096,2022-01-03-11:06:35,10.1.1.3,194,-0.360,-0.360,-0.360,0.000,0.000,0.000
1641207995897501952,2022-01-03-11:06:35,10.1.1.3,190,-0.350,-0.350,-0.350,0.000,0.000,0.000
1641207996098851840,2022-01-03-11:06:36,10.1.1.3,191,-0.340,-0.340,-0.340,0.000,0.000,0.000
1641207996297348096,2022-01-03-11:06:36,10.1.1.3,188,-0.330,-0.330,-0.330,0.000,0.000,0.000
1641207996497304064,2022-01-03-11:06:36,10.1.1.3,187,-0.320,-0.320,-0.320,0.000,0.000,0.000
1641207996696852992,2022-01-03-11:06:36,10.1.1.3,186,-0.310,-0.310,-0.310,0.000,0.000,0.000
1641207996900766976,2022-01-03-11:06:36,10.1.1.3,189,-0.300,-0.300,-0.300,0.000,0.000,0.000
1641207997096600064,2022-01-03-11:06:37,10.1.1.3,183,-0.290,-0.290,-0.290,0.000,0.000,0.000
1641207997297039872,2022-01-03-11:06:37,10.1.1.3,182,-0.280,-0.280,-0.280,0.000,0.000,0.000
1641207997496376064,2022-01-03-11:06:37,10.1.1.3,181,-0.270,-0.270,-0.270,0.000,0.000,0.000
1641207997695954944,2022-01-03-11:06:37,10.1.1.3,177,-0.260,-0.260,-0.260,0.000,0.000,0.000
1641207997895934976,2022-01-03-11:06:37,10.1.1.3,177,-0.250,-0.250,-0.250,0.000,0.000,0.000
1641207998096173056,2022-01-03-11:06:38,10.1.1.3,177,-0.240,-0.240,-0.240,0.000,0.000,0.000
1641207998294884864,2022-01-03-11:06:38,10.1.1.3,174,-0.230,-0.230,-0.230,0.000,0.000,0.000
1641207998514918144,2022-01-03-11:06:38,10.1.1.3,192,-0.220,-0.220,-0.220,0.000,0.000,0.000
1641207998714662912,2022-01-03-11:06:38,10.1.1.3,190,-0.210,-0.210,-0.210,0.000,0.000,0.000
1641207998914778112,2022-01-03-11:06:38,10.1.1.3,189,-0.200,-0.200,-0.200,0.000,0.000,0.000
1641207999114516992,2022-01-03-11:06:39,10.1.1.3,188,-0.190,-0.190,-0.190,0.000,0.000,0.000
1641207999313728000,2022-01-03-11:06:39,10.1.1.3,186,-0.180,-0.180,-0.180,0.000,0.000,0.000
1641207999513658112,2022-01-03-11:06:39,10.1.1.3,185,-0.170,-0.170,-0.170,0.000,0.000,0.000
1641207999715055872,2022-01-03-11:06:39,10.1.1.3,185,-0.160,-0.160,-0.160,0.000,0.000,0.000
1641207999912689920,2022-01-03-11:06:39,10.1.1.3,182,-0.150,-0.150,-0.150,0.000,0.000,0.000
1641208000112940032,2022-01-03-11:06:40,10.1.1.3,182,-0.140,-0.140,-0.140,0.000,0.000,0.000
1641208000318105856,2022-01-03-11:06:40,10.1.1.3,186,-0.130,-0.130,-0.130,0.000,0.000,0.000
1641208000511848960,2022-01-03-11:06:40,10.1.1.3,180,-0.120,-0.120,-0.120,0.000,0.000,0.000
1641208000711858944,2022-01-03-11:06:40,10.1.1.3,179,-0.110,-0.110,-0.110,0.000,0.000,0.000
1641208000913188096,2022-01-03-11:06:40,10.1.1.3,180,-0.100,-0.100,-0.100,0.000,0.000,0.000
1641208001111581952,2022-01-03-11:06:41,10.1.1.3,177,-0.090,-0.090,-0.090,0.000,0.000,0.000
1641208001311090944,2022-01-03-11:06:41,10.1.1.3,175,-0.080,-0.080,-0.080,0.000,0.000,0.000
1641208001512586240,2022-01-03-11:06:41,10.1.1.3,176,-0.070,-0.070,-0.070,0.000,0.000,0.000
1641208001710962944,2022-01-03-11:06:41,10.1.1.3,173,-0.060,-0.060,-0.060,0.000,0.000,0.000
1641208001911405056,2022-01-03-11:06:41,10.1.1.3,173,-0.050,-0.050,-0.050,0.000,0.000,0.000
1641208002110124032,2022-01-03-11:06:42,10.1.1.3,171,-0.040,-0.040,-0.040,0.000,0.000,0.000
1641208002310748160,2022-01-03-11:06:42,10.1.1.3,170,-0.030,-0.030,-0.030,0.000,0.000,0.000
1641208002509720064,2022-01-03-11:06:42,10.1.1.3,169,-0.020,-0.020,-0.020,0.000,0.000,0.000
1641208002729305856,2022-01-03-11:06:42,10.1.1.3,187,-0.010,-0.010,-0.010,0.000,0.000,0.000
1641208002929703936,2022-01-03-11:06:42,10.1.1.3,187,0.000,0.000,0.000,0.000,0.000,0.000
1641208003129755904,2022-01-03-11:06:43,10.1.1.3,187,-0.010,-0.010,-0.010,0.000,0.000,0.000
1641208003328193024,2022-01-03-11:06:43,10.1.1.3,184,-0.020,-0.020,-0.020,0.000,0.000,0.000
1641208003528872960,2022-01-03-11:06:43,10.1.1.3,183,-0.030,-0.030,-0.030,0.000,0.000,0.000
1641208003731031808,2022-01-03-11:06:43,10.1.1.3,185,-0.040,-0.040,-0.040,0.000,0.000,0.000
1641208003927596032,2022-01-03-11:06:43,10.1.1.3,179,-0.050,-0.050,-0.050,0.000,0.000,0.000
1641208004127270912,2022-01-03-11:06:44,10.1.1.3,178,-0.060,-0.060,-0.060,0.000,0.000,0.000
1641208004326786048,2022-01-03-11:06:44,10.1.1.3,177,-0.070,-0.070,-0.070,0.000,0.000,0.000
1641208004527714048,2022-01-03-11:06:44,10.1.1.3,178,-0.080,-0.080,-0.080,0.000,0.000,0.000
1641208004731211008,2022-01-03-11:06:44,10.1.1.3,181,-0.090,-0.090,-0.090,0.000,0.000,0.000
1641208004926900992,2022-01-03-11:06:44,10.1.1.3,176,-0.100,-0.100,-0.100,0.000,0.000,0.000
1641208005126138880,2022-01-03-11:06:45,10.1.1.3,174,-0.110,-0.110,-0.110,0.000,0.000,0.000
1641208005365016832,2022-01-03-11:06:45,10.1.1.3,177,-0.120,-0.120,-0.120,0.000,0.000,0.000
1641208005564740864,2022-01-03-11:06:45,10.1.1.3,175,-0.130,-0.130,-0.130,0.000,0.000,0.000
1641208005764403968,2022-01-03-11:06:45,10.1.1.3,174,-0.140,-0.140,-0.140,0.000,0.000,0.000
1641208005963928832,2022-01-03-11:06:45,10.1.1.3,173,-0.150,-0.150,-0.150,0.000,0.000,0.000
1641208006164696064,2022-01-03-11:06:46,10.1.1.3,173,-0.160,-0.160,-0.160,0.000,0.000,0.000
1641208006364525056,2022-01-03-11:06:46,10.1.1.3,172,-0.170,-0.170,-0.170,0.000,0.000,0.000
1641208006563150848,2022-01-03-11:06:46,10.1.1.3,170,-0.180,-0.180,-0.180,0.000,0.000,0.000
1641208006763111168,2022-01-03-11:06:46,10.1.1.3,166,-0.190,-0.190,-0.190,0.000,0.000,0.000
1641208006962446848,2022-01-03-11:06:46,10.1.1.3,164,-0.200,-0.200,-0.200,0.000,0.000,0.000
1641208007162412800,2022-01-03-11:06:47,10.1.1.3,164,-0.210,-0.210,-0.210,0.000,0.000,0.000
1641208007362620160,2022-01-03-11:06:47,10.1.1.3,163,-0.220,-0.220,-0.220,0.000,0.000,0.000
1641208007561912064,2022-01-03-11:06:47,10.1.1.3,161,-0.230,-0.230,-0.230,0.000,0.000,0.000
1641208007781251072,2022-01-03-11:06:47,10.1.1.3,179,-0.240,-0.240,-0.240,0.000,0.000,0.000
1641208007980711936,2022-01-03-11:06:47,10.1.1.3,178,-0.250,-0.250,-0.250,0.000,0.000,0.000
1641208008181762048,2022-01-03-11:06:48,10.1.1.3,178,-0.260,-0.260,-0.260,0.000,0.000,0.000
1641208008380433920,2022-01-03-11:06:48,10.1.1.3,177,-0.270,-0.270,-0.270,0.000,0.000,0.000
1641208008580478976,2022-01-03-11:06:48,10.1.1.3,176,-0.280,-0.280,-0.280,0.000,0.000,0.000
1641208008779924992,2022-01-03-11:06:48,10.1.1.3,174,-0.290,-0.290,-0.290,0.000,0.000,0.000
1641208008979418112,2022-01-03-11:06:48,10.1.1.3,173,-0.300,-0.300,-0.300,0.000,0.000,0.000
1641208009179468032,2022-01-03-11:06:49,10.1.1.3,173,-0.310,-0.310,-0.310,0.000,0.000,0.000
1641208009378926080,2022-01-03-11:06:49,10.1.1.3,172,-0.320,-0.320,-0.320,0.000,0.000,0.000
1641208009578424064,2022-01-03-11:06:49,10.1.1.3,170,-0.330,-0.330,-0.330,0.000,0.000,0.000
1641208009778913024,2022-01-03-11:06:49,10.1.1.3,170,-0.340,-0.340,-0.340,0.000,0.000,0.000
1641208009979219968,2022-01-03-11:06:49,10.1.1.3,169,-0.350,-0.350,-0.350,0.000,0.000,0.000
1641208010179056896,2022-01-03-11:06:50,10.1.1.3,168,-0.360,-0.360,-0.360,0.000,0.000,0.000
1641208010379764992,2022-01-03-11:06:50,10.1.1.3,169,-0.370,-0.370,-0.370,0.000,0.000,0.000
1641208010582827008,2022-01-03-11:06:50,10.1.1.3,171,-0.380,-0.380,-0.380,0.000,0.000,0.000
1641208010781665024,2022-01-03-11:06:50,10.1.1.3,169,-0.390,-0.390,-0.390,0.000,0.000,0.000
1641208010983570944,2022-01-03-11:06:50,10.1.1.3,171,-0.400,-0.400,-0.400,0.000,0.000,0.000
1641208011184046080,2022-01-03-11:06:51,10.1.1.3,171,-0.410,-0.410,-0.410,0.000,0.000,0.000
1641208011386484992,2022-01-03-11:06:51,10.1.1.3,173,-0.420,-0.420,-0.420,0.000,0.000,0.000
1641208011587964160,2022-01-03-11:06:51,10.1.1.3,174,-0.430,-0.430,-0.430,0.000,0.000,0.000
1641208011786493184,2022-01-03-11:06:51,10.1.1.3,172,-0.440,-0.440,-0.440,0.000,0.000,0.000
1641208011987674112,2022-01-03-11:06:51,10.1.1.3,173,-0.450,-0.450,-0.450,0.000,0.000,0.000
1641208012187968000,2022-01-03-11:06:52,10.1.1.3,173,-0.460,-0.460,-0.460,0.000,0.000,0.000
1641208012389309952,2022-01-03-11:06:52,10.1.1.3,173,-0.470,-0.470,-0.470,0.000,0.000,0.000
1641208012589526016,2022-01-03-11:06:52,10.1.1.3,173,-0.480,-0.480,-0.480,0.000,0.000,0.000
1641208012790510848,2022-01-03-11:06:52,10.1.1.3,173,-0.490,-0.490,-0.490,0.000,0.000,0.000
1641208012991193088,2022-01-03-11:06:52,10.1.1.3,173,-0.480,-0.480,-0.480,0.000,0.000,0.000
1641208013192887040,2022-01-03-11:06:53,10.1.1.3,174,-0.470,-0.470,-0.470,0.000,0.000,0.000
1641208013392816896,2022-01-03-11:06:53,10.1.1.3,174,-0.460,-0.460,-0.460,0.000,0.000,0.000
1641208013593303040,2022-01-03-11:06:53,10.1.1.3,174,-0.450,-0.450,-0.450,0.000,0.000,0.000
1641208013793634816,2022-01-03-11:06:53,10.1.1.3,173,-0.440,-0.440,-0.440,0.000,0.000,0.000
1641208013994599936,2022-01-03-11:06:53,10.1.1.3,173,-0.430,-0.430,-0.430,0.000,0.000,0.000
1641208014195190784,2022-01-03-11:06:54,10.1.1.3,173,-0.420,-0.420,-0.420,0.000,0.000,0.000
1641208014395742976,2022-01-03-11:06:54,10.1.1.3,173,-0.410,-0.410,-0.410,0.000,0.000,0.000
1641208014615639808,2022-01-03-11:06:54,10.1.1.3,193,-0.400,-0.400,-0.400,0.000,0.000,0.000
1641208014816761088,2022-01-03-11:06:54,10.1.1.3,193,-0.390,-0.390,-0.390,0.000,0.000,0.000
1641208015016815872,2022-01-03-11:06:55,10.1.1.3,192,-0.380,-0.380,-0.380,0.000,0.000,0.000
1641208015220849152,2022-01-03-11:06:55,10.1.1.3,195,-0.370,-0.370,-0.370,0.000,0.000,0.000
1641208015417591040,2022-01-03-11:06:55,10.1.1.3,192,-0.360,-0.360,-0.360,0.000,0.000,0.000
1641208015617516032,2022-01-03-11:06:55,10.1.1.3,191,-0.350,-0.350,-0.350,0.000,0.000,0.000
1641208015817924096,2022-01-03-11:06:55,10.1.1.3,191,-0.340,-0.340,-0.340,0.000,0.000,0.000
1641208016018896128,2022-01-03-11:06:56,10.1.1.3,191,-0.330,-0.330,-0.330,0.000,0.000,0.000
1641208016218908160,2022-01-03-11:06:56,10.1.1.3,191,-0.320,-0.320,-0.320,0.000,0.000,0.000
1641208016419598080,2022-01-03-11:06:56,10.1.1.3,191,-0.310,-0.310,-0.310,0.000,0.000,0.000
1641208016621426176,2022-01-03-11:06:56,10.1.1.3,193,-0.300,-0.300,-0.300,0.000,0.000,0.000
1641208016820379136,2022-01-03-11:06:56,10.1.1.3,191,-0.290,-0.290,-0.290,0.000,0.000,0.000
1641208017020312064,2022-01-03-11:06:57,10.1.1.3,190,-0.280,-0.280,-0.280,0.000,0.000,0.000
1641208017221571840,2022-01-03-11:06:57,10.1.1.3,191,-0.270,-0.270,-0.270,0.000,0.000,0.000
1641208017420422912,2022-01-03-11:06:57,10.1.1.3,189,-0.260,-0.260,-0.260,0.000,0.000,0.000
1641208017620961792,2022-01-03-11:06:57,10.1.1.3,188,-0.250,-0.250,-0.250,0.000,0.000,0.000
1641208017820940032,2022-01-03-11:06:57,10.1.1.3,187,-0.240,-0.240,-0.240,0.000,0.000,0.000
1641208018020940032,2022-01-03-11:06:58,10.1.1.3,186,-0.230,-0.230,-0.230,0.000,0.000,0.000
1641208018221198080,2022-01-03-11:06:58,10.1.1.3,186,-0.220,-0.220,-0.220,0.000,0.000,0.000
1641208018421344000,2022-01-03-11:06:58,10.1.1.3,186,-0.210,-0.210,-0.210,0.000,0.000,0.000
1641208018621899008,2022-01-03-11:06:58,10.1.1.3,185,-0.200,-0.200,-0.200,0.000,0.000,0.000
1641208018821867008,2022-01-03-11:06:58,10.1.1.3,185,-0.190,-0.190,-0.190,0.000,0.000,0.000
1641208019022470912,2022-01-03-11:06:59,10.1.1.3,185,-0.180,-0.180,-0.180,0.000,0.000,0.000
1641208019221760000,2022-01-03-11:06:59,10.1.1.3,184,-0.170,-0.170,-0.170,0.000,0.000,0.000
1641208019422187008,2022-01-03-11:06:59,10.1.1.3,184,-0.160,-0.160,-0.160,0.000,0.000,0.000
1641208019622124032,2022-01-03-11:06:59,10.1.1.3,183,-0.150,-0.150,-0.150,0.000,0.000,0.000
1641208019822011904,2022-01-03-11:06:59,10.1.1.3,183,-0.140,-0.140,-0.140,0.000,0.000,0.000
1641208020023066112,2022-01-03-11:07:00,10.1.1.3,183,-0.130,-0.130,-0.130,0.000,0.000,0.000
1641208020222433024,2022-01-03-11:07:00,10.1.1.3,182,-0.120,-0.120,-0.120,0.000,0.000,0.000
1641208020421905920,2022-01-03-11:07:00,10.1.1.3,180,-0.110,-0.110,-0.110,0.000,0.000,0.000
1641208021043149056,2022-01-03-11:07:01,10.1.1.3,199,-0.080,-0.080,-0.080,0.000,0.000,0.000
1641208021242491904,2022-01-03-11:07:01,10.1.1.3,197,-0.070,-0.070,-0.070,0.000,0.000,0.000
1641208021442368000,2022-01-03-11:07:01,10.1.1.3,196,-0.060,-0.060,-0.060,0.000,0.000,0.000
1641208021642589184,2022-01-03-11:07:01,10.1.1.3,195,-0.050,-0.050,-0.050,0.000,0.000,0.000
1641208021842642176,2022-01-03-11:07:01,10.1.1.3,194,-0.040,-0.040,-0.040,0.000,0.000,0.000
1641208022042156032,2022-01-03-11:07:02,10.1.1.3,193,-0.030,-0.030,-0.030,0.000,0.000,0.000
1641208022242029824,2022-01-03-11:07:02,10.1.1.3,192,-0.020,-0.020,-0.020,0.000,0.000,0.000
1641208022441849856,2022-01-03-11:07:02,10.1.1.3,192,-0.010,-0.010,-0.010,0.000,0.000,0.000
1641208022642050048,2022-01-03-11:07:02,10.1.1.3,191,0.000,0.000,0.000,0.000,0.000,0.000
1641208022842219008,2022-01-03-11:07:02,10.1.1.3,189,-0.010,-0.010,-0.010,0.000,0.000,0.000
1641208023042231040,2022-01-03-11:07:03,10.1.1.3,189,-0.020,-0.020,-0.020,0.000,0.000,0.000
1641208023242232064,2022-01-03-11:07:03,10.1.1.3,188,-0.030,-0.030,-0.030,0.000,0.000,0.000
1641208023441948928,2022-01-03-11:07:03,10.1.1.3,187,-0.040,-0.040,-0.040,0.000,0.000,0.000
1641208023641707776,2022-01-03-11:07:03,10.1.1.3,186,-0.050,-0.050,-0.050,0.000,0.000,0.000
1641208023841485056,2022-01-03-11:07:03,10.1.1.3,185,-0.060,-0.060,-0.060,0.000,0.000,0.000
1641208024048417024,2022-01-03-11:07:04,10.1.1.3,189,-0.070,-0.070,-0.070,0.000,0.000,0.000
1641208024241511936,2022-01-03-11:07:04,10.1.1.3,179,-0.080,-0.080,-0.080,0.000,0.000,0.000
1641208024461404160,2022-01-03-11:07:04,10.1.1.3,197,-0.090,-0.090,-0.090,0.000,0.000,0.000
1641208024660852992,2022-01-03-11:07:04,10.1.1.3,195,-0.100,-0.100,-0.100,0.000,0.000,0.000
1641208024860763136,2022-01-03-11:07:04,10.1.1.3,194,-0.110,-0.110,-0.110,0.000,0.000,0.000
1641208025060547072,2022-01-03-11:07:05,10.1.1.3,193,-0.120,-0.120,-0.120,0.000,0.000,0.000
1641208025260987904,2022-01-03-11:07:05,10.1.1.3,193,-0.130,-0.130,-0.130,0.000,0.000,0.000
1641208025463488000,2022-01-03-11:07:05,10.1.1.3,195,-0.140,-0.140,-0.140,0.000,0.000,0.000
1641208025660837888,2022-01-03-11:07:05,10.1.1.3,191,-0.150,-0.150,-0.150,0.000,0.000,0.000
1641208025861323008,2022-01-03-11:07:05,10.1.1.3,190,-0.160,-0.160,-0.160,0.000,0.000,0.000
1641208026061966848,2022-01-03-11:07:06,10.1.1.3,188,-0.170,-0.170,-0.170,0.000,0.000,0.000
1641208026259571200,2022-01-03-11:07:06,10.1.1.3,183,-0.180,-0.180,-0.180,0.000,0.000,0.000
1641208026459547904,2022-01-03-11:07:06,10.1.1.3,182,-0.190,-0.190,-0.190,0.000,0.000,0.000
1641208026659152896,2022-01-03-11:07:06,10.1.1.3,181,-0.200,-0.200,-0.200,0.000,0.000,0.000
1641208026859900928,2022-01-03-11:07:06,10.1.1.3,180,-0.210,-0.210,-0.210,0.000,0.000,0.000
1641208027059091200,2022-01-03-11:07:07,10.1.1.3,179,-0.220,-0.220,-0.220,0.000,0.000,0.000
1641208027259682048,2022-01-03-11:07:07,10.1.1.3,178,-0.230,-0.230,-0.230,0.000,0.000,0.000
1641208027478888960,2022-01-03-11:07:07,10.1.1.3,196,-0.240,-0.240,-0.240,0.000,0.000,0.000
1641208027678607104,2022-01-03-11:07:07,10.1.1.3,195,-0.250,-0.250,-0.250,0.000,0.000,0.000
1641208027879193088,2022-01-03-11:07:07,10.1.1.3,195,-0.260,-0.260,-0.260,0.000,0.000,0.000
1641208028078147840,2022-01-03-11:07:08,10.1.1.3,189,-0.270,-0.270,-0.270,0.000,0.000,0.000
1641208028277869824,2022-01-03-11:07:08,10.1.1.3,188,-0.280,-0.280,-0.280,0.000,0.000,0.000
1641208028478622976,2022-01-03-11:07:08,10.1.1.3,187,-0.290,-0.290,-0.290,0.000,0.000,0.000
1641208028677761024,2022-01-03-11:07:08,10.1.1.3,186,-0.300,-0.300,-0.300,0.000,0.000,0.000
1641208028877784064,2022-01-03-11:07:08,10.1.1.3,184,-0.310,-0.310,-0.310,0.000,0.000,0.000
1641208029077181952,2022-01-03-11:07:09,10.1.1.3,183,-0.320,-0.320,-0.320,0.000,0.000,0.000
1641208029277235968,2022-01-03-11:07:09,10.1.1.3,182,-0.330,-0.330,-0.330,0.000,0.000,0.000
1641208029476342016,2022-01-03-11:07:09,10.1.1.3,181,-0.340,-0.340,-0.340,0.000,0.000,0.000
1641208029677113088,2022-01-03-11:07:09,10.1.1.3,181,-0.350,-0.350,-0.350,0.000,0.000,0.000
1641208029875969024,2022-01-03-11:07:09,10.1.1.3,180,-0.360,-0.360,-0.360,0.000,0.000,0.000
1641208030076119808,2022-01-03-11:07:10,10.1.1.3,178,-0.370,-0.370,-0.370,0.000,0.000,0.000
1641208030276015104,2022-01-03-11:07:10,10.1.1.3,178,-0.380,-0.380,-0.380,0.000,0.000,0.000
1641208030476592128,2022-01-03-11:07:10,10.1.1.3,178,-0.390,-0.390,-0.390,0.000,0.000,0.000
1641208030675251968,2022-01-03-11:07:10,10.1.1.3,176,-0.400,-0.400,-0.400,0.000,0.000,0.000
1641208030875442944,2022-01-03-11:07:10,10.1.1.3,176,-0.410,-0.410,-0.410,0.000,0.000,0.000
1641208031075591936,2022-01-03-11:07:11,10.1.1.3,175,-0.420,-0.420,-0.420,0.000,0.000,0.000
1641208031277244160,2022-01-03-11:07:11,10.1.1.3,176,-0.430,-0.430,-0.430,0.000,0.000,0.000
1641208031494967040,2022-01-03-11:07:11,10.1.1.3,192,-0.440,-0.440,-0.440,0.000,0.000,0.000
1641208031694680064,2022-01-03-11:07:11,10.1.1.3,191,-0.450,-0.450,-0.450,0.000,0.000,0.000
1641208031893348096,2022-01-03-11:07:11,10.1.1.3,188,-0.460,-0.460,-0.460,0.000,0.000,0.000
1641208032093190912,2022-01-03-11:07:12,10.1.1.3,187,-0.470,-0.470,-0.470,0.000,0.000,0.000
1641208032293096192,2022-01-03-11:07:12,10.1.1.3,186,-0.480,-0.480,-0.480,0.000,0.000,0.000
1641208032492837888,2022-01-03-11:07:12,10.1.1.3,186,-0.490,-0.490,-0.490,0.000,0.000,0.000
1641208032693556992,2022-01-03-11:07:12,10.1.1.3,185,-0.480,-0.480,-0.480,0.000,0.000,0.000
1641208032894351872,2022-01-03-11:07:12,10.1.1.3,185,-0.470,-0.470,-0.470,0.000,0.000,0.000
1641208033092289024,2022-01-03-11:07:13,10.1.1.3,183,-0.460,-0.460,-0.460,0.000,0.000,0.000
1641208033292316928,2022-01-03-11:07:13,10.1.1.3,183,-0.450,-0.450,-0.450,0.000,0.000,0.000
1641208033491942912,2022-01-03-11:07:13,10.1.1.3,181,-0.440,-0.440,-0.440,0.000,0.000,0.000
1641208033691351040,2022-01-03-11:07:13,10.1.1.3,181,-0.430,-0.430,-0.430,0.000,0.000,0.000
1641208033890878976,2022-01-03-11:07:13,10.1.1.3,179,-0.420,-0.420,-0.420,0.000,0.000,0.000
1641208034091272960,2022-01-03-11:07:14,10.1.1.3,178,-0.410,-0.410,-0.410,0.000,0.000,0.000
1641208034290334976,2022-01-03-11:07:14,10.1.1.3,177,-0.400,-0.400,-0.400,0.000,0.000,0.000
1641208034489555968,2022-01-03-11:07:14,10.1.1.3,176,-0.390,-0.390,-0.390,0.000,0.000,0.000
1641208034689935872,2022-01-03-11:07:14,10.1.1.3,175,-0.380,-0.380,-0.380,0.000,0.000,0.000
1641208034890001920,2022-01-03-11:07:14,10.1.1.3,173,-0.370,-0.370,-0.370,0.000,0.000,0.000
1641208035089878016,2022-01-03-11:07:15,10.1.1.3,172,-0.360,-0.360,-0.360,0.000,0.000,0.000
1641208035289600000,2022-01-03-11:07:15,10.1.1.3,171,-0.350,-0.350,-0.350,0.000,0.000,0.000
1641208035489323008,2022-01-03-11:07:15,10.1.1.3,169,-0.340,-0.340,-0.340,0.000,0.000,0.000
1641208035688664832,2022-01-03-11:07:15,10.1.1.3,168,-0.330,-0.330,-0.330,0.000,0.000,0.000
1641208035888588800,2022-01-03-11:07:15,10.1.1.3,168,-0.320,-0.320,-0.320,0.000,0.000,0.000
1641208036088710144,2022-01-03-11:07:16,10.1.1.3,167,-0.310,-0.310,-0.310,0.000,0.000,0.000
1641208036287462912,2022-01-03-11:07:16,10.1.1.3,166,-0.300,-0.300,-0.300,0.000,0.000,0.000
1641208036507163904,2022-01-03-11:07:16,10.1.1.3,185,-0.290,-0.290,-0.290,0.000,0.000,0.000
1641208036687046144,2022-01-03-11:07:16,10.1.1.3,164,-0.280,-0.280,-0.280,0.000,0.000,0.000
1641208036907037952,2022-01-03-11:07:16,10.1.1.3,177,-0.270,-0.270,-0.270,0.000,0.000,0.000
1641208037105943040,2022-01-03-11:07:17,10.1.1.3,171,-0.260,-0.260,-0.260,0.000,0.000,0.000
1641208037317455104,2022-01-03-11:07:17,10.1.1.3,182,-0.250,-0.250,-0.250,0.000,0.000,0.000
1641208037505924096,2022-01-03-11:07:17,10.1.1.3,170,-0.240,-0.240,-0.240,0.000,0.000,0.000
1641208037704796928,2022-01-03-11:07:17,10.1.1.3,169,-0.230,-0.230,-0.230,0.000,0.000,0.000
1641208037904838912,2022-01-03-11:07:17,10.1.1.3,168,-0.220,-0.220,-0.220,0.000,0.000,0.000
1641208038104573952,2022-01-03-11:07:18,10.1.1.3,166,-0.210,-0.210,-0.210,0.000,0.000,0.000
1641208038303917824,2022-01-03-11:07:18,10.1.1.3,165,-0.200,-0.200,-0.200,0.000,0.000,0.000
1641208038524193024,2022-01-03-11:07:18,10.1.1.3,181,-0.190,-0.190,-0.190,0.000,0.000,0.000
1641208038723809024,2022-01-03-11:07:18,10.1.1.3,180,-0.180,-0.180,-0.180,0.000,0.000,0.000
1641208038924480000,2022-01-03-11:07:18,10.1.1.3,180,-0.170,-0.170,-0.170,0.000,0.000,0.000
1641208039124027136,2022-01-03-11:07:19,10.1.1.3,179,-0.160,-0.160,-0.160,0.000,0.000,0.000
1641208039322562816,2022-01-03-11:07:19,10.1.1.3,177,-0.150,-0.150,-0.150,0.000,0.000,0.000
1641208039522556928,2022-01-03-11:07:19,10.1.1.3,177,-0.140,-0.140,-0.140,0.000,0.000,0.000
1641208039721967872,2022-01-03-11:07:19,10.1.1.3,176,-0.130,-0.130,-0.130,0.000,0.000,0.000
1641208039921602048,2022-01-03-11:07:19,10.1.1.3,175,-0.120,-0.120,-0.120,0.000,0.000,0.000
1641208040121522944,2022-01-03-11:07:20,10.1.1.3,172,-0.110,-0.110,-0.110,0.000,0.000,0.000
1641208040321628928,2022-01-03-11:07:20,10.1.1.3,172,-0.100,-0.100,-0.100,0.000,0.000,0.000
1641208040520904192,2022-01-03-11:07:20,10.1.1.3,170,-0.090,-0.090,-0.090,0.000,0.000,0.000
1641208040721009920,2022-01-03-11:07:20,10.1.1.3,169,-0.080,-0.080,-0.080,0.000,0.000,0.000
1641208040920169984,2022-01-03-11:07:20,10.1.1.3,168,-0.070,-0.070,-0.070,0.000,0.000,0.000
1641208041120640000,2022-01-03-11:07:21,10.1.1.3,168,-0.060,-0.060,-0.060,0.000,0.000,0.000
1641208041319102976,2022-01-03-11:07:21,10.1.1.3,165,-0.050,-0.050,-0.050,0.000,0.000,0.000
1641208041519022848,2022-01-03-11:07:21,10.1.1.3,164,-0.040,-0.040,-0.040,0.000,0.000,0.000
1641208041718553088,2022-01-03-11:07:21,10.1.1.3,163,-0.030,-0.030,-0.030,0.000,0.000,0.000
1641208041918819072,2022-01-03-11:07:21,10.1.1.3,163,-0.020,-0.020,-0.020,0.000,0.000,0.000
1641208042117871872,2022-01-03-11:07:22,10.1.1.3,161,-0.010,-0.010,-0.010,0.000,0.000,0.000
1641208042321097984,2022-01-03-11:07:22,10.1.1.3,163,0.000,0.000,0.000,0.000,0.000,0.000
1641208042518505216,2022-01-03-11:07:22,10.1.1.3,160,-0.010,-0.010,-0.010,0.000,0.000,0.000
1641208042721337088,2022-01-03-11:07:22,10.1.1.3,162,-0.020,-0.020,-0.020,0.000,0.000,0.000
1641208042916798208,2022-01-03-11:07:22,10.1.1.3,157,-0.030,-0.030,-0.030,0.000,0.000,0.000
1641208043117366016,2022-01-03-11:07:23,10.1.1.3,157,-0.040,-0.040,-0.040,0.000,0.000,0.000
1641208043318342912,2022-01-03-11:07:23,10.1.1.3,157,-0.050,-0.050,-0.050,0.000,0.000,0.000
1641208043542745088,2022-01-03-11:07:23,10.1.1.3,179,-0.060,-0.060,-0.060,0.000,0.000,0.000
1641208043740699904,2022-01-03-11:07:23,10.1.1.3,178,-0.070,-0.070,-0.070,0.000,0.000,0.000
1641208043942009088,2022-01-03-11:07:23,10.1.1.3,179,-0.080,-0.080,-0.080,0.000,0.000,0.000
1641208044142668032,2022-01-03-11:07:24,10.1.1.3,179,-0.090,-0.090,-0.090,0.000,0.000,0.000
1641208044343703040,2022-01-03-11:07:24,10.1.1.3,179,-0.100,-0.100,-0.100,0.000,0.000,0.000
1641208044544336128,2022-01-03-11:07:24,10.1.1.3,179,-0.110,-0.110,-0.110,0.000,0.000,0.000
1641208044745899008,2022-01-03-11:07:24,10.1.1.3,180,-0.120,-0.120,-0.120,0.000,0.000,0.000
1641208044948056832,2022-01-03-11:07:24,10.1.1.3,181,-0.130,-0.130,-0.130,0.000,0.000,0.000
1641208045148369152,2022-01-03-11:07:25,10.1.1.3,180,-0.140,-0.140,-0.140,0.000,0.000,0.000
1641208045348099072,2022-01-03-11:07:25,10.1.1.3,179,-0.150,-0.150,-0.150,0.000,0.000,0.000
1641208045595275008,2022-01-03-11:07:25,10.1.1.3,184,-0.160,-0.160,-0.160,0.000,0.000,0.000
1641208045789561088,2022-01-03-11:07:25,10.1.1.3,178,-0.170,-0.170,-0.170,0.000,0.000,0.000
1641208045989986048,2022-01-03-11:07:25,10.1.1.3,177,-0.180,-0.180,-0.180,0.000,0.000,0.000
1641208046190740224,2022-01-03-11:07:26,10.1.1.3,177,-0.190,-0.190,-0.190,0.000,0.000,0.000
1641208046393351168,2022-01-03-11:07:26,10.1.1.3,179,-0.200,-0.200,-0.200,0.000,0.000,0.000
1641208046592228864,2022-01-03-11:07:26,10.1.1.3,177,-0.210,-0.210,-0.210,0.000,0.000,0.000
1641208046792432896,2022-01-03-11:07:26,10.1.1.3,177,-0.220,-0.220,-0.220,0.000,0.000,0.000
1641208047002577152,2022-01-03-11:07:27,10.1.1.3,186,-0.230,-0.230,-0.230,0.000,0.000,0.000
1641208047193696000,2022-01-03-11:07:27,10.1.1.3,175,-0.240,-0.240,-0.240,0.000,0.000,0.000
1641208047394835968,2022-01-03-11:07:27,10.1.1.3,176,-0.250,-0.250,-0.250,0.000,0.000,0.000
1641208047595194112,2022-01-03-11:07:27,10.1.1.3,175,-0.260,-0.260,-0.260,0.000,0.000,0.000
1641208047795111936,2022-01-03-11:07:27,10.1.1.3,174,-0.270,-0.270,-0.270,0.000,0.000,0.000
1641208048016115968,2022-01-03-11:07:28,10.1.1.3,193,-0.280,-0.280,-0.280,0.000,0.000,0.000
1641208048218769920,2022-01-03-11:07:28,10.1.1.3,195,-0.290,-0.290,-0.290,0.000,0.000,0.000
1641208048417197056,2022-01-03-11:07:28,10.1.1.3,193,-0.300,-0.300,-0.300,0.000,0.000,0.000
1641208048617225984,2022-01-03-11:07:28,10.1.1.3,193,-0.310,-0.310,-0.310,0.000,0.000,0.000
1641208048817184000,2022-01-03-11:07:28,10.1.1.3,192,-0.320,-0.320,-0.320,0.000,0.000,0.000
1641208049018114048,2022-01-03-11:07:29,10.1.1.3,193,-0.330,-0.330,-0.330,0.000,0.000,0.000
1641208049221041920,2022-01-03-11:07:29,10.1.1.3,195,-0.340,-0.340,-0.340,0.000,0.000,0.000
1641208049418518016,2022-01-03-11:07:29,10.1.1.3,191,-0.350,-0.350,-0.350,0.000,0.000,0.000
1641208049618364928,2022-01-03-11:07:29,10.1.1.3,191,-0.360,-0.360,-0.360,0.000,0.000,0.000
1641208049818659072,2022-01-03-11:07:29,10.1.1.3,190,-0.370,-0.370,-0.370,0.000,0.000,0.000
1641208050019390208,2022-01-03-11:07:30,10.1.1.3,190,-0.380,-0.380,-0.380,0.000,0.000,0.000
1641208050220283136,2022-01-03-11:07:30,10.1.1.3,189,-0.390,-0.390,-0.390,0.000,0.000,0.000
1641208050419771904,2022-01-03-11:07:30,10.1.1.3,188,-0.400,-0.400,-0.400,0.000,0.000,0.000
1641208050620569856,2022-01-03-11:07:30,10.1.1.3,188,-0.410,-0.410,-0.410,0.000,0.000,0.000
1641208050823604992,2022-01-03-11:07:30,10.1.1.3,190,-0.420,-0.420,-0.420,0.000,0.000,0.000
1641208051020060160,2022-01-03-11:07:31,10.1.1.3,186,-0.430,-0.430,-0.430,0.000,0.000,0.000
1641208051222807808,2022-01-03-11:07:31,10.1.1.3,189,-0.440,-0.440,-0.440,0.000,0.000,0.000
1641208051420332032,2022-01-03-11:07:31,10.1.1.3,183,-0.450,-0.450,-0.450,0.000,0.000,0.000
1641208051620222208,2022-01-03-11:07:31,10.1.1.3,181,-0.460,-0.460,-0.460,0.000,0.000,0.000
1641208051820951040,2022-01-03-11:07:31,10.1.1.3,181,-0.470,-0.470,-0.470,0.000,0.000,0.000
1641208052020879872,2022-01-03-11:07:32,10.1.1.3,181,-0.480,-0.480,-0.480,0.000,0.000,0.000
1641208052220731136,2022-01-03-11:07:32,10.1.1.3,180,-0.490,-0.490,-0.490,0.000,0.000,0.000
1641208052420924928,2022-01-03-11:07:32,10.1.1.3,180,-0.480,-0.480,-0.480,0.000,0.000,0.000
1641208052624563968,2022-01-03-11:07:32,10.1.1.3,183,-0.470,-0.470,-0.470,0.000,0.000,0.000
1641208052841110016,2022-01-03-11:07:32,10.1.1.3,199,-0.460,-0.460,-0.460,0.000,0.000,0.000
1641208053041240832,2022-01-03-11:07:33,10.1.1.3,198,-0.450,-0.450,-0.450,0.000,0.000,0.000
1641208053241668864,2022-01-03-11:07:33,10.1.1.3,198,-0.440,-0.440,-0.440,0.000,0.000,0.000
1641208053441626112,2022-01-03-11:07:33,10.1.1.3,198,-0.430,-0.430,-0.430,0.000,0.000,0.000
1641208053641704192,2022-01-03-11:07:33,10.1.1.3,198,-0.420,-0.420,-0.420,0.000,0.000,0.000
1641208053842503168,2022-01-03-11:07:33,10.1.1.3,198,-0.410,-0.410,-0.410,0.000,0.000,0.000
1641208054041340160,2022-01-03-11:07:34,10.1.1.3,196,-0.400,-0.400,-0.400,0.000,0.000,0.000
1641208054241501184,2022-01-03-11:07:34,10.1.1.3,196,-0.390,-0.390,-0.390,0.000,0.000,0.000
1641208054442307072,2022-01-03-11:07:34,10.1.1.3,195,-0.380,-0.380,-0.380,0.000,0.000,0.000
1641208054641374976,2022-01-03-11:07:34,10.1.1.3,194,-0.370,-0.370,-0.370,0.000,0.000,0.000
1641208054841656064,2022-01-03-11:07:34,10.1.1.3,194,-0.360,-0.360,-0.360,0.000,0.000,0.000
1641208055041501952,2022-01-03-11:07:35,10.1.1.3,193,-0.350,-0.350,-0.350,0.000,0.000,0.000
1641208055241564928,2022-01-03-11:07:35,10.1.1.3,189,-0.340,-0.340,-0.340,0.000,0.000,0.000
1641208055441606144,2022-01-03-11:07:35,10.1.1.3,189,-0.330,-0.330,-0.330,0.000,0.000,0.000
1641208055641990912,2022-01-03-11:07:35,10.1.1.3,188,-0.320,-0.320,-0.320,0.000,0.000,0.000
1641208055841223936,2022-01-03-11:07:35,10.1.1.3,186,-0.310,-0.310,-0.310,0.000,0.000,0.000
1641208056041294080,2022-01-03-11:07:36,10.1.1.3,186,-0.300,-0.300,-0.300,0.000,0.000,0.000
1641208056241611008,2022-01-03-11:07:36,10.1.1.3,185,-0.290,-0.290,-0.290,0.000,0.000,0.000
1641208056440676096,2022-01-03-11:07:36,10.1.1.3,184,-0.280,-0.280,-0.280,0.000,0.000,0.000
1641208056641298944,2022-01-03-11:07:36,10.1.1.3,184,-0.270,-0.270,-0.270,0.000,0.000,0.000
1641208056840944128,2022-01-03-11:07:36,10.1.1.3,183,-0.260,-0.260,-0.260,0.000,0.000,0.000
1641208057042336000,2022-01-03-11:07:37,10.1.1.3,184,-0.250,-0.250,-0.250,0.000,0.000,0.000
1641208057240587008,2022-01-03-11:07:37,10.1.1.3,182,-0.240,-0.240,-0.240,0.000,0.000,0.000
1641208057440651008,2022-01-03-11:07:37,10.1.1.3,181,-0.230,-0.230,-0.230,0.000,0.000,0.000
1641208057642510848,2022-01-03-11:07:37,10.1.1.3,182,-0.220,-0.220,-0.220,0.000,0.000,0.000
1641208057840205824,2022-01-03-11:07:37,10.1.1.3,180,-0.210,-0.210,-0.210,0.000,0.000,0.000
1641208058041181952,2022-01-03-11:07:38,10.1.1.3,180,-0.200,-0.200,-0.200,0.000,0.000,0.000
1641208058240225024,2022-01-03-11:07:38,10.1.1.3,178,-0.190,-0.190,-0.190,0.000,0.000,0.000
1641208058460377856,2022-01-03-11:07:38,10.1.1.3,198,-0.180,-0.180,-0.180,0.000,0.000,0.000
1641208058659085056,2022-01-03-11:07:38,10.1.1.3,196,-0.170,-0.170,-0.170,0.000,0.000,0.000
1641208058859264000,2022-01-03-11:07:38,10.1.1.3,196,-0.160,-0.160,-0.160,0.000,0.000,0.000
1641208059059962112,2022-01-03-11:07:39,10.1.1.3,195,-0.150,-0.150,-0.150,0.000,0.000,0.000
1641208059261436928,2022-01-03-11:07:39,10.1.1.3,195,-0.140,-0.140,-0.140,0.000,0.000,0.000
1641208059458585088,2022-01-03-11:07:39,10.1.1.3,191,-0.130,-0.130,-0.130,0.000,0.000,0.000
1641208059659166208,2022-01-03-11:07:39,10.1.1.3,190,-0.120,-0.120,-0.120,0.000,0.000,0.000
1641208059858391040,2022-01-03-11:07:39,10.1.1.3,189,-0.110,-0.110,-0.110,0.000,0.000,0.000
1641208060058862848,2022-01-03-11:07:40,10.1.1.3,188,-0.100,-0.100,-0.100,0.000,0.000,0.000
1641208060258465024,2022-01-03-11:07:40,10.1.1.3,187,-0.090,-0.090,-0.090,0.000,0.000,0.000
1641208060457874176,2022-01-03-11:07:40,10.1.1.3,186,-0.080,-0.080,-0.080,0.000,0.000,0.000
1641208060658500864,2022-01-03-11:07:40,10.1.1.3,186,-0.070,-0.070,-0.070,0.000,0.000,0.000
1641208060865153024,2022-01-03-11:07:40,10.1.1.3,192,-0.060,-0.060,-0.060,0.000,0.000,0.000
1641208061057388032,2022-01-03-11:07:41,10.1.1.3,184,-0.050,-0.050,-0.050,0.000,0.000,0.000
1641208061272044032,2022-01-03-11:07:41,10.1.1.3,198,-0.040,-0.040,-0.040,0.000,0.000,0.000
1641208061456896000,2022-01-03-11:07:41,10.1.1.3,179,-0.030,-0.030,-0.030,0.000,0.000,0.000
1641208061658464000,2022-01-03-11:07:41,10.1.1.3,179,-0.020,-0.020,-0.020,0.000,0.000,0.000
1641208061857337856,2022-01-03-11:07:41,10.1.1.3,178,-0.010,-0.010,-0.010,0.000,0.000,0.000
1641208062056293888,2022-01-03-11:07:42,10.1.1.3,176,-0.000,-0.000,-0.000,0.000,0.000,0.000
1641208062255688960,2022-01-03-11:07:42,10.1.1.3,175,-0.010,-0.010,-0.010,0.000,0.000,0.000
1641208062457000960,2022-01-03-11:07:42,10.1.1.3,175,-0.020,-0.020,-0.020,0.000,0.000,0.000
