FedericoMungari/DigitalTwin_service/01_WiredScenario/Output/Output_script/script_rosapi_2_output_robots2_freq0_2.txt
timestamp,date,node,latency,joint_1,joint_2,joint_3,joint_4,joint_5,joint_6
1644887317028229888,2022-02-15-01:08:37,10.1.1.3,8,-0.100,-0.100,-0.100,-0.000,-0.000,0.000
1644887317108936960,2022-02-15-01:08:37,10.1.1.3,37,-0.090,-0.090,-0.090,0.000,0.000,0.000
1644887317150952192,2022-02-15-01:08:37,10.1.1.3,23,-0.080,-0.080,-0.080,0.000,0.000,0.000
1644887317209729792,2022-02-15-01:08:37,10.1.1.3,28,-0.070,-0.070,-0.070,0.000,0.000,0.000
1644887317269104128,2022-02-15-01:08:37,10.1.1.3,37,-0.060,-0.060,-0.060,0.000,0.000,0.000
1644887317309528064,2022-02-15-01:08:37,10.1.1.3,26,-0.050,-0.050,-0.050,0.000,0.000,0.000
1644887317369255168,2022-02-15-01:08:37,10.1.1.3,35,-0.040,-0.040,-0.040,0.000,0.000,0.000
1644887317409339904,2022-02-15-01:08:37,10.1.1.3,23,-0.030,-0.030,-0.030,0.000,0.000,0.000
1644887317470334976,2022-02-15-01:08:37,10.1.1.3,32,-0.020,-0.020,-0.020,0.000,0.000,0.000
1644887317510027776,2022-02-15-01:08:37,10.1.1.3,21,-0.010,-0.010,-0.010,0.000,0.000,0.000
1644887317569218048,2022-02-15-01:08:37,10.1.1.3,29,0.000,0.000,0.000,0.000,0.000,0.000
1644887317628654848,2022-02-15-01:08:37,10.1.1.3,38,0.010,0.010,0.010,0.000,0.000,0.000
1644887317668570112,2022-02-15-01:08:37,10.1.1.3,27,0.020,0.020,0.020,0.000,0.000,0.000
1644887317728667136,2022-02-15-01:08:37,10.1.1.3,36,0.030,0.030,0.030,0.000,0.000,0.000
1644887317770662912,2022-02-15-01:08:37,10.1.1.3,24,0.040,0.040,0.040,0.000,0.000,0.000
1644887317828708864,2022-02-15-01:08:37,10.1.1.3,33,0.050,0.050,0.050,0.000,0.000,0.000
1644887317869564928,2022-02-15-01:08:37,10.1.1.3,23,0.060,0.060,0.060,0.000,0.000,0.000
1644887317929574912,2022-02-15-01:08:37,10.1.1.3,32,0.070,0.070,0.070,0.000,0.000,0.000
1644887317970160896,2022-02-15-01:08:37,10.1.1.3,21,0.080,0.080,0.080,0.000,0.000,0.000
1644887318030499840,2022-02-15-01:08:38,10.1.1.3,31,0.090,0.090,0.090,0.000,0.000,0.000
1644887318110819072,2022-02-15-01:08:38,10.1.1.3,7,0.090,0.090,0.090,0.000,0.000,0.000
1644887318191047936,2022-02-15-01:08:38,10.1.1.3,35,0.080,0.080,0.080,0.000,0.000,0.000
1644887318230534144,2022-02-15-01:08:38,10.1.1.3,21,0.070,0.070,0.070,0.000,0.000,0.000
1644887318289548032,2022-02-15-01:08:38,10.1.1.3,31,0.060,0.060,0.060,0.000,0.000,0.000
1644887318349984000,2022-02-15-01:08:38,10.1.1.3,40,0.050,0.050,0.050,0.000,0.000,0.000
1644887318393612032,2022-02-15-01:08:38,10.1.1.3,32,0.040,0.040,0.040,0.000,0.000,0.000
1644887318449336064,2022-02-15-01:08:38,10.1.1.3,36,0.030,0.030,0.030,0.000,0.000,0.000
1644887318490597888,2022-02-15-01:08:38,10.1.1.3,25,0.020,0.020,0.020,0.000,0.000,0.000
1644887318549705984,2022-02-15-01:08:38,10.1.1.3,32,0.010,0.010,0.010,0.000,0.000,0.000
1644887318609253888,2022-02-15-01:08:38,10.1.1.3,36,0.000,0.000,0.000,0.000,0.000,0.000
1644887318651650048,2022-02-15-01:08:38,10.1.1.3,24,-0.010,-0.010,-0.010,0.000,0.000,0.000
1644887318709792000,2022-02-15-01:08:38,10.1.1.3,34,-0.020,-0.020,-0.020,0.000,0.000,0.000
1644887318748963072,2022-02-15-01:08:38,10.1.1.3,23,-0.030,-0.030,-0.030,0.000,0.000,0.000
1644887318809072128,2022-02-15-01:08:38,10.1.1.3,32,-0.040,-0.040,-0.040,0.000,0.000,0.000
1644887318851831808,2022-02-15-01:08:38,10.1.1.3,22,-0.050,-0.050,-0.050,0.000,0.000,0.000
1644887318909105152,2022-02-15-01:08:38,10.1.1.3,30,-0.060,-0.060,-0.060,0.000,0.000,0.000
1644887319009272064,2022-02-15-01:08:39,10.1.1.3,29,-0.080,-0.080,-0.080,0.000,0.000,0.000
1644887319071171072,2022-02-15-01:08:39,10.1.1.3,37,-0.090,-0.090,-0.090,0.000,0.000,0.000
1644887319109108992,2022-02-15-01:08:39,10.1.1.3,24,-0.100,-0.100,-0.100,0.000,0.000,0.000
1644887319171608832,2022-02-15-01:08:39,10.1.1.3,35,-0.090,-0.090,-0.090,0.000,0.000,0.000
1644887319211132160,2022-02-15-01:08:39,10.1.1.3,21,-0.080,-0.080,-0.080,0.000,0.000,0.000
1644887319329634816,2022-02-15-01:08:39,10.1.1.3,38,-0.060,-0.060,-0.060,0.000,0.000,0.000
1644887319370977024,2022-02-15-01:08:39,10.1.1.3,27,-0.050,-0.050,-0.050,0.000,0.000,0.000
1644887319435143936,2022-02-15-01:08:39,10.1.1.3,36,-0.040,-0.040,-0.040,0.000,0.000,0.000
1644887319474888960,2022-02-15-01:08:39,10.1.1.3,25,-0.030,-0.030,-0.030,0.000,0.000,0.000
1644887319529645824,2022-02-15-01:08:39,10.1.1.3,27,-0.020,-0.020,-0.020,0.000,0.000,0.000
1644887319590770944,2022-02-15-01:08:39,10.1.1.3,36,-0.010,-0.010,-0.010,0.000,0.000,0.000
1644887319633507840,2022-02-15-01:08:39,10.1.1.3,26,0.000,0.000,0.000,0.000,0.000,0.000
1644887319689629952,2022-02-15-01:08:39,10.1.1.3,31,0.010,0.010,0.010,0.000,0.000,0.000
1644887319789968896,2022-02-15-01:08:39,10.1.1.3,27,0.030,0.030,0.030,0.000,0.000,0.000
1644887319849451008,2022-02-15-01:08:39,10.1.1.3,36,0.040,0.040,0.040,0.000,0.000,0.000
1644887319889684992,2022-02-15-01:08:39,10.1.1.3,26,0.050,0.050,0.050,0.000,0.000,0.000
1644887319949116928,2022-02-15-01:08:39,10.1.1.3,35,0.060,0.060,0.060,0.000,0.000,0.000
1644887319989882880,2022-02-15-01:08:39,10.1.1.3,24,0.070,0.070,0.070,0.000,0.000,0.000
1644887320049166080,2022-02-15-01:08:40,10.1.1.3,33,0.080,0.080,0.080,0.000,0.000,0.000
1644887320089410048,2022-02-15-01:08:40,10.1.1.3,23,0.090,0.090,0.090,0.000,0.000,0.000
1644887320157065984,2022-02-15-01:08:40,10.1.1.3,37,0.100,0.100,0.100,0.000,0.000,0.000
1644887320190548992,2022-02-15-01:08:40,10.1.1.3,20,0.090,0.090,0.090,0.000,0.000,0.000
1644887320250664960,2022-02-15-01:08:40,10.1.1.3,29,0.080,0.080,0.080,0.000,0.000,0.000
1644887320309132032,2022-02-15-01:08:40,10.1.1.3,38,0.070,0.070,0.070,0.000,0.000,0.000
1644887320349991936,2022-02-15-01:08:40,10.1.1.3,27,0.060,0.060,0.060,0.000,0.000,0.000
1644887320409665024,2022-02-15-01:08:40,10.1.1.3,36,0.050,0.050,0.050,0.000,0.000,0.000
1644887320449150208,2022-02-15-01:08:40,10.1.1.3,25,0.040,0.040,0.040,0.000,0.000,0.000
1644887320509509120,2022-02-15-01:08:40,10.1.1.3,34,0.030,0.030,0.030,0.000,0.000,0.000
1644887320549856000,2022-02-15-01:08:40,10.1.1.3,22,0.020,0.020,0.020,0.000,0.000,0.000
1644887320670820096,2022-02-15-01:08:40,10.1.1.3,39,0.000,0.000,0.000,0.000,0.000,0.000
1644887320770226944,2022-02-15-01:08:40,10.1.1.3,36,-0.020,-0.020,-0.020,0.000,0.000,0.000
1644887320870860032,2022-02-15-01:08:40,10.1.1.3,32,-0.040,-0.040,-0.040,0.000,0.000,0.000
1644887320930542080,2022-02-15-01:08:40,10.1.1.3,35,-0.050,-0.050,-0.050,0.000,0.000,0.000
1644887320969643008,2022-02-15-01:08:40,10.1.1.3,24,-0.060,-0.060,-0.060,0.000,0.000,0.000
1644887321029864960,2022-02-15-01:08:41,10.1.1.3,32,-0.070,-0.070,-0.070,0.000,0.000,0.000
1644887321089751040,2022-02-15-01:08:41,10.1.1.3,37,-0.080,-0.080,-0.080,0.000,0.000,0.000
1644887321130490112,2022-02-15-01:08:41,10.1.1.3,25,-0.090,-0.090,-0.090,0.000,0.000,0.000
1644887321191604992,2022-02-15-01:08:41,10.1.1.3,35,-0.100,-0.100,-0.100,0.000,0.000,0.000
1644887321229617152,2022-02-15-01:08:41,10.1.1.3,23,-0.090,-0.090,-0.090,0.000,0.000,0.000
1644887321289947136,2022-02-15-01:08:41,10.1.1.3,32,-0.080,-0.080,-0.080,0.000,0.000,0.000
1644887321329488128,2022-02-15-01:08:41,10.1.1.3,21,-0.070,-0.070,-0.070,0.000,0.000,0.000
1644887321389622016,2022-02-15-01:08:41,10.1.1.3,29,-0.060,-0.060,-0.060,0.000,0.000,0.000
1644887321449748992,2022-02-15-01:08:41,10.1.1.3,37,-0.050,-0.050,-0.050,0.000,0.000,0.000
1644887321490618880,2022-02-15-01:08:41,10.1.1.3,27,-0.040,-0.040,-0.040,0.000,0.000,0.000
1644887321591574784,2022-02-15-01:08:41,10.1.1.3,25,-0.020,-0.020,-0.020,0.000,0.000,0.000
1644887321650657024,2022-02-15-01:08:41,10.1.1.3,34,-0.010,-0.010,-0.010,0.000,0.000,0.000
1644887321690963968,2022-02-15-01:08:41,10.1.1.3,23,0.000,0.000,0.000,0.000,0.000,0.000
1644887321750488064,2022-02-15-01:08:41,10.1.1.3,33,0.010,0.010,0.010,0.000,0.000,0.000
1644887321789513216,2022-02-15-01:08:41,10.1.1.3,22,0.020,0.020,0.020,0.000,0.000,0.000
1644887321848915968,2022-02-15-01:08:41,10.1.1.3,30,0.030,0.030,0.030,0.000,0.000,0.000
1644887321909310976,2022-02-15-01:08:41,10.1.1.3,39,0.040,0.040,0.040,0.000,0.000,0.000
1644887321949351936,2022-02-15-01:08:41,10.1.1.3,28,0.050,0.050,0.050,0.000,0.000,0.000
1644887322009783040,2022-02-15-01:08:42,10.1.1.3,37,0.060,0.060,0.060,0.000,0.000,0.000
1644887322049679104,2022-02-15-01:08:42,10.1.1.3,26,0.070,0.070,0.070,0.000,0.000,0.000
1644887322109335808,2022-02-15-01:08:42,10.1.1.3,35,0.080,0.080,0.080,0.000,0.000,0.000
1644887322149492992,2022-02-15-01:08:42,10.1.1.3,22,0.090,0.090,0.090,0.000,0.000,0.000
1644887322231475968,2022-02-15-01:08:42,10.1.1.3,-1,0.090,0.090,0.090,0.000,0.000,0.000
1644887322310280960,2022-02-15-01:08:42,10.1.1.3,25,0.080,0.080,0.080,0.000,0.000,0.000
1644887322369478912,2022-02-15-01:08:42,10.1.1.3,34,0.070,0.070,0.070,0.000,0.000,0.000
1644887322409164032,2022-02-15-01:08:42,10.1.1.3,23,0.060,0.060,0.060,0.000,0.000,0.000
1644887322469399808,2022-02-15-01:08:42,10.1.1.3,32,0.050,0.050,0.050,0.000,0.000,0.000
1644887322509187072,2022-02-15-01:08:42,10.1.1.3,21,0.040,0.040,0.040,0.000,0.000,0.000
1644887322569832192,2022-02-15-01:08:42,10.1.1.3,31,0.030,0.030,0.030,0.000,0.000,0.000
1644887322682420992,2022-02-15-01:08:42,10.1.1.3,42,0.010,0.010,0.010,0.000,0.000,0.000
1644887322730642176,2022-02-15-01:08:42,10.1.1.3,39,0.000,0.000,0.000,0.000,0.000,0.000
1644887322771377152,2022-02-15-01:08:42,10.1.1.3,27,-0.010,-0.010,-0.010,0.000,0.000,0.000
1644887322830915840,2022-02-15-01:08:42,10.1.1.3,37,-0.020,-0.020,-0.020,0.000,0.000,0.000
1644887322870786048,2022-02-15-01:08:42,10.1.1.3,25,-0.030,-0.030,-0.030,0.000,0.000,0.000
1644887322929950976,2022-02-15-01:08:42,10.1.1.3,34,-0.040,-0.040,-0.040,0.000,0.000,0.000
1644887322969665024,2022-02-15-01:08:42,10.1.1.3,23,-0.050,-0.050,-0.050,0.000,0.000,0.000
1644887323030664960,2022-02-15-01:08:43,10.1.1.3,33,-0.060,-0.060,-0.060,0.000,0.000,0.000
1644887323070391040,2022-02-15-01:08:43,10.1.1.3,22,-0.070,-0.070,-0.070,0.000,0.000,0.000
1644887323191535104,2022-02-15-01:08:43,10.1.1.3,37,-0.090,-0.090,-0.090,0.000,0.000,0.000
1644887323230523136,2022-02-15-01:08:43,10.1.1.3,24,-0.100,-0.100,-0.100,0.000,0.000,0.000
1644887323289768960,2022-02-15-01:08:43,10.1.1.3,33,-0.090,-0.090,-0.090,0.000,0.000,0.000
1644887323328854016,2022-02-15-01:08:43,10.1.1.3,22,-0.080,-0.080,-0.080,0.000,0.000,0.000
1644887323490760960,2022-02-15-01:08:43,10.1.1.3,28,-0.050,-0.050,-0.050,0.000,0.000,0.000
1644887323552148992,2022-02-15-01:08:43,10.1.1.3,36,-0.040,-0.040,-0.040,0.000,0.000,0.000
1644887323590866944,2022-02-15-01:08:43,10.1.1.3,26,-0.030,-0.030,-0.030,0.000,0.000,0.000
1644887323690382080,2022-02-15-01:08:43,10.1.1.3,22,-0.010,-0.010,-0.010,0.000,0.000,0.000
1644887323750459904,2022-02-15-01:08:43,10.1.1.3,31,0.000,0.000,0.000,0.000,0.000,0.000
1644887323809256960,2022-02-15-01:08:43,10.1.1.3,39,0.010,0.010,0.010,0.000,0.000,0.000
1644887323849654016,2022-02-15-01:08:43,10.1.1.3,28,0.020,0.020,0.020,0.000,0.000,0.000
1644887323949187072,2022-02-15-01:08:43,10.1.1.3,24,0.040,0.040,0.040,0.000,0.000,0.000
1644887324009426176,2022-02-15-01:08:44,10.1.1.3,29,0.050,0.050,0.050,0.000,0.000,0.000
1644887324072993024,2022-02-15-01:08:44,10.1.1.3,40,0.060,0.060,0.060,0.000,0.000,0.000
1644887324170128128,2022-02-15-01:08:44,10.1.1.3,36,0.080,0.080,0.080,0.000,0.000,0.000
1644887324209562112,2022-02-15-01:08:44,10.1.1.3,25,0.090,0.090,0.090,0.000,0.000,0.000
1644887324270832128,2022-02-15-01:08:44,10.1.1.3,34,0.100,0.100,0.100,0.000,0.000,0.000
1644887324320025856,2022-02-15-01:08:44,10.1.1.3,24,0.090,0.090,0.090,0.000,0.000,0.000
1644887324370025984,2022-02-15-01:08:44,10.1.1.3,32,0.080,0.080,0.080,0.000,0.000,0.000
1644887324410569984,2022-02-15-01:08:44,10.1.1.3,21,0.070,0.070,0.070,0.000,0.000,0.000
1644887324471040000,2022-02-15-01:08:44,10.1.1.3,29,0.060,0.060,0.060,0.000,0.000,0.000
1644887324510388992,2022-02-15-01:08:44,10.1.1.3,19,0.050,0.050,0.050,0.000,0.000,0.000
1644887324632833024,2022-02-15-01:08:44,10.1.1.3,38,0.030,0.030,0.030,0.000,0.000,0.000
1644887324670313984,2022-02-15-01:08:44,10.1.1.3,24,0.020,0.020,0.020,0.000,0.000,0.000
1644887324731051008,2022-02-15-01:08:44,10.1.1.3,32,0.010,0.010,0.010,0.000,0.000,0.000
1644887324789916928,2022-02-15-01:08:44,10.1.1.3,40,0.000,0.000,0.000,0.000,0.000,0.000
1644887324890897152,2022-02-15-01:08:44,10.1.1.3,36,-0.020,-0.020,-0.020,0.000,0.000,0.000
1644887324930555136,2022-02-15-01:08:44,10.1.1.3,24,-0.030,-0.030,-0.030,0.000,0.000,0.000
1644887324990565120,2022-02-15-01:08:44,10.1.1.3,26,-0.040,-0.040,-0.040,0.000,0.000,0.000
1644887325050715904,2022-02-15-01:08:45,10.1.1.3,35,-0.050,-0.050,-0.050,0.000,0.000,0.000
1644887325091792128,2022-02-15-01:08:45,10.1.1.3,23,-0.060,-0.060,-0.060,0.000,0.000,0.000
1644887325153006080,2022-02-15-01:08:45,10.1.1.3,33,-0.070,-0.070,-0.070,0.000,0.000,0.000
1644887325190857984,2022-02-15-01:08:45,10.1.1.3,21,-0.080,-0.080,-0.080,0.000,0.000,0.000
1644887325249704960,2022-02-15-01:08:45,10.1.1.3,30,-0.090,-0.090,-0.090,0.000,0.000,0.000
1644887325309577984,2022-02-15-01:08:45,10.1.1.3,34,-0.100,-0.100,-0.100,0.000,0.000,0.000
1644887325350803968,2022-02-15-01:08:45,10.1.1.3,23,-0.090,-0.090,-0.090,0.000,0.000,0.000
1644887325467864064,2022-02-15-01:08:45,10.1.1.3,35,-0.070,-0.070,-0.070,0.000,0.000,0.000
1644887325509818112,2022-02-15-01:08:45,10.1.1.3,26,-0.060,-0.060,-0.060,0.000,0.000,0.000
1644887325570468864,2022-02-15-01:08:45,10.1.1.3,34,-0.050,-0.050,-0.050,0.000,0.000,0.000
1644887325609263872,2022-02-15-01:08:45,10.1.1.3,23,-0.040,-0.040,-0.040,0.000,0.000,0.000
1644887325669528064,2022-02-15-01:08:45,10.1.1.3,32,-0.030,-0.030,-0.030,0.000,0.000,0.000
1644887325711123968,2022-02-15-01:08:45,10.1.1.3,20,-0.020,-0.020,-0.020,0.000,0.000,0.000
1644887325770343936,2022-02-15-01:08:45,10.1.1.3,27,-0.010,-0.010,-0.010,0.000,0.000,0.000
1644887325830513920,2022-02-15-01:08:45,10.1.1.3,30,0.000,0.000,0.000,0.000,0.000,0.000
1644887325891890944,2022-02-15-01:08:45,10.1.1.3,39,0.010,0.010,0.010,0.000,0.000,0.000
1644887325931453952,2022-02-15-01:08:45,10.1.1.3,27,0.020,0.020,0.020,0.000,0.000,0.000
1644887325990691840,2022-02-15-01:08:45,10.1.1.3,34,0.030,0.030,0.030,0.000,0.000,0.000
1644887326031148032,2022-02-15-01:08:46,10.1.1.3,23,0.040,0.040,0.040,0.000,0.000,0.000
1644887326089398016,2022-02-15-01:08:46,10.1.1.3,31,0.050,0.050,0.050,0.000,0.000,0.000
1644887326151738880,2022-02-15-01:08:46,10.1.1.3,36,0.060,0.060,0.060,0.000,0.000,0.000
1644887326189726976,2022-02-15-01:08:46,10.1.1.3,24,0.070,0.070,0.070,0.000,0.000,0.000
1644887326251267840,2022-02-15-01:08:46,10.1.1.3,34,0.080,0.080,0.080,0.000,0.000,0.000
1644887326289645824,2022-02-15-01:08:46,10.1.1.3,23,0.090,0.090,0.090,0.000,0.000,0.000
1644887326351528960,2022-02-15-01:08:46,10.1.1.3,33,0.100,0.100,0.100,0.000,0.000,0.000
1644887326390296832,2022-02-15-01:08:46,10.1.1.3,19,0.090,0.090,0.090,0.000,0.000,0.000
1644887326450493952,2022-02-15-01:08:46,10.1.1.3,28,0.080,0.080,0.080,0.000,0.000,0.000
1644887326509836800,2022-02-15-01:08:46,10.1.1.3,36,0.070,0.070,0.070,0.000,0.000,0.000
1644887326550359040,2022-02-15-01:08:46,10.1.1.3,24,0.060,0.060,0.060,0.000,0.000,0.000
1644887326610415872,2022-02-15-01:08:46,10.1.1.3,34,0.050,0.050,0.050,0.000,0.000,0.000
1644887326651145984,2022-02-15-01:08:46,10.1.1.3,23,0.040,0.040,0.040,0.000,0.000,0.000
1644887326710609920,2022-02-15-01:08:46,10.1.1.3,32,0.030,0.030,0.030,0.000,0.000,0.000
1644887326750724096,2022-02-15-01:08:46,10.1.1.3,21,0.020,0.020,0.020,0.000,0.000,0.000
1644887326810992896,2022-02-15-01:08:46,10.1.1.3,31,0.010,0.010,0.010,0.000,0.000,0.000
1644887326971566080,2022-02-15-01:08:46,10.1.1.3,38,-0.020,-0.020,-0.020,0.000,0.000,0.000
1644887327009531136,2022-02-15-01:08:47,10.1.1.3,27,-0.030,-0.030,-0.030,0.000,0.000,0.000
1644887327070187008,2022-02-15-01:08:47,10.1.1.3,36,-0.040,-0.040,-0.040,0.000,0.000,0.000
1644887327110973952,2022-02-15-01:08:47,10.1.1.3,25,-0.050,-0.050,-0.050,0.000,0.000,0.000
1644887327170518016,2022-02-15-01:08:47,10.1.1.3,31,-0.060,-0.060,-0.060,0.000,0.000,0.000
1644887327269708032,2022-02-15-01:08:47,10.1.1.3,29,-0.080,-0.080,-0.080,0.000,0.000,0.000
1644887327328803072,2022-02-15-01:08:47,10.1.1.3,37,-0.090,-0.090,-0.090,0.000,0.000,0.000
1644887327373001984,2022-02-15-01:08:47,10.1.1.3,28,-0.100,-0.100,-0.100,0.000,0.000,0.000
1644887327430125056,2022-02-15-01:08:47,10.1.1.3,35,-0.090,-0.090,-0.090,0.000,0.000,0.000
1644887327469715968,2022-02-15-01:08:47,10.1.1.3,24,-0.080,-0.080,-0.080,0.000,0.000,0.000
1644887327529586176,2022-02-15-01:08:47,10.1.1.3,33,-0.070,-0.070,-0.070,0.000,0.000,0.000
1644887327570817024,2022-02-15-01:08:47,10.1.1.3,22,-0.060,-0.060,-0.060,0.000,0.000,0.000
1644887327638059008,2022-02-15-01:08:47,10.1.1.3,38,-0.050,-0.050,-0.050,0.000,0.000,0.000
1644887327732062208,2022-02-15-01:08:47,10.1.1.3,29,-0.030,-0.030,-0.030,0.000,0.000,0.000
1644887327791176960,2022-02-15-01:08:47,10.1.1.3,37,-0.020,-0.020,-0.020,0.000,0.000,0.000
1644887327829848064,2022-02-15-01:08:47,10.1.1.3,25,-0.010,-0.010,-0.010,0.000,0.000,0.000
1644887327891910912,2022-02-15-01:08:47,10.1.1.3,34,0.000,0.000,0.000,0.000,0.000,0.000
1644887327930136064,2022-02-15-01:08:47,10.1.1.3,23,0.010,0.010,0.010,0.000,0.000,0.000
1644887327989989888,2022-02-15-01:08:47,10.1.1.3,32,0.020,0.020,0.020,0.000,0.000,0.000
1644887328030804992,2022-02-15-01:08:48,10.1.1.3,21,0.030,0.030,0.030,0.000,0.000,0.000
1644887328151226880,2022-02-15-01:08:48,10.1.1.3,37,0.050,0.050,0.050,0.000,0.000,0.000
1644887328191987968,2022-02-15-01:08:48,10.1.1.3,26,0.060,0.060,0.060,0.000,0.000,0.000
1644887328254574080,2022-02-15-01:08:48,10.1.1.3,39,0.070,0.070,0.070,0.000,0.000,0.000
1644887328290499840,2022-02-15-01:08:48,10.1.1.3,24,0.080,0.080,0.080,0.000,0.000,0.000
1644887328350245120,2022-02-15-01:08:48,10.1.1.3,33,0.090,0.090,0.090,0.000,0.000,0.000
1644887328390937088,2022-02-15-01:08:48,10.1.1.3,22,0.100,0.100,0.100,0.000,0.000,0.000
1644887328509728000,2022-02-15-01:08:48,10.1.1.3,39,0.080,0.080,0.080,0.000,0.000,0.000
1644887328550064128,2022-02-15-01:08:48,10.1.1.3,25,0.070,0.070,0.070,0.000,0.000,0.000
1644887328609891840,2022-02-15-01:08:48,10.1.1.3,34,0.060,0.060,0.060,0.000,0.000,0.000
1644887328651264000,2022-02-15-01:08:48,10.1.1.3,23,0.050,0.050,0.050,0.000,0.000,0.000
1644887328709219072,2022-02-15-01:08:48,10.1.1.3,31,0.040,0.040,0.040,0.000,0.000,0.000
1644887328750456064,2022-02-15-01:08:48,10.1.1.3,21,0.030,0.030,0.030,0.000,0.000,0.000
1644887328812036096,2022-02-15-01:08:48,10.1.1.3,30,0.020,0.020,0.020,0.000,0.000,0.000
1644887328869005824,2022-02-15-01:08:48,10.1.1.3,36,0.010,0.010,0.010,0.000,0.000,0.000
1644887328915458816,2022-02-15-01:08:48,10.1.1.3,23,0.000,0.000,0.000,0.000,0.000,0.000
1644887328969927168,2022-02-15-01:08:48,10.1.1.3,32,-0.010,-0.010,-0.010,0.000,0.000,0.000
1644887329010305792,2022-02-15-01:08:49,10.1.1.3,21,-0.020,-0.020,-0.020,0.000,0.000,0.000
1644887329070704896,2022-02-15-01:08:49,10.1.1.3,29,-0.030,-0.030,-0.030,0.000,0.000,0.000
1644887329109651968,2022-02-15-01:08:49,10.1.1.3,18,-0.040,-0.040,-0.040,0.000,0.000,0.000
1644887329172190976,2022-02-15-01:08:49,10.1.1.3,27,-0.050,-0.050,-0.050,0.000,0.000,0.000
1644887329229528832,2022-02-15-01:08:49,10.1.1.3,34,-0.060,-0.060,-0.060,0.000,0.000,0.000
1644887329270323968,2022-02-15-01:08:49,10.1.1.3,23,-0.070,-0.070,-0.070,0.000,0.000,0.000
1644887329329544960,2022-02-15-01:08:49,10.1.1.3,31,-0.080,-0.080,-0.080,0.000,0.000,0.000
1644887329370430976,2022-02-15-01:08:49,10.1.1.3,20,-0.090,-0.090,-0.090,0.000,0.000,0.000
1644887329457197824,2022-02-15-01:08:49,10.1.1.3,5,-0.090,-0.090,-0.090,0.000,0.000,0.000
1644887329533366016,2022-02-15-01:08:49,10.1.1.3,31,-0.080,-0.080,-0.080,0.000,0.000,0.000
1644887329632818944,2022-02-15-01:08:49,10.1.1.3,29,-0.060,-0.060,-0.060,0.000,0.000,0.000
1644887329692614144,2022-02-15-01:08:49,10.1.1.3,34,-0.050,-0.050,-0.050,0.000,0.000,0.000
1644887329753068032,2022-02-15-01:08:49,10.1.1.3,42,-0.040,-0.040,-0.040,0.000,0.000,0.000
1644887329793462016,2022-02-15-01:08:49,10.1.1.3,31,-0.030,-0.030,-0.030,0.000,0.000,0.000
1644887329852531968,2022-02-15-01:08:49,10.1.1.3,37,-0.020,-0.020,-0.020,0.000,0.000,0.000
1644887329893711104,2022-02-15-01:08:49,10.1.1.3,26,-0.010,-0.010,-0.010,0.000,0.000,0.000
1644887329953454080,2022-02-15-01:08:49,10.1.1.3,33,0.000,0.000,0.000,0.000,0.000,0.000
1644887330052206080,2022-02-15-01:08:50,10.1.1.3,29,0.020,0.020,0.020,0.000,0.000,0.000
1644887330113008896,2022-02-15-01:08:50,10.1.1.3,37,0.030,0.030,0.030,0.000,0.000,0.000
1644887330154041088,2022-02-15-01:08:50,10.1.1.3,25,0.040,0.040,0.040,0.000,0.000,0.000
1644887330211945984,2022-02-15-01:08:50,10.1.1.3,34,0.050,0.050,0.050,0.000,0.000,0.000
1644887330262712064,2022-02-15-01:08:50,10.1.1.3,29,0.060,0.060,0.060,0.000,0.000,0.000
1644887330314151168,2022-02-15-01:08:50,10.1.1.3,31,0.070,0.070,0.070,0.000,0.000,0.000
1644887330473272064,2022-02-15-01:08:50,10.1.1.3,34,0.100,0.100,0.100,0.000,0.000,0.000
1644887330512712960,2022-02-15-01:08:50,10.1.1.3,23,0.090,0.090,0.090,0.000,0.000,0.000
1644887330572595968,2022-02-15-01:08:50,10.1.1.3,33,0.080,0.080,0.080,0.000,0.000,0.000
1644887330613367040,2022-02-15-01:08:50,10.1.1.3,21,0.070,0.070,0.070,0.000,0.000,0.000
1644887330672262912,2022-02-15-01:08:50,10.1.1.3,30,0.060,0.060,0.060,0.000,0.000,0.000
1644887330772135936,2022-02-15-01:08:50,10.1.1.3,28,0.040,0.040,0.040,0.000,0.000,0.000
1644887330832539136,2022-02-15-01:08:50,10.1.1.3,34,0.030,0.030,0.030,0.000,0.000,0.000
1644887330872728064,2022-02-15-01:08:50,10.1.1.3,23,0.020,0.020,0.020,0.000,0.000,0.000
1644887330932388096,2022-02-15-01:08:50,10.1.1.3,32,0.010,0.010,0.010,0.000,0.000,0.000
1644887330973267200,2022-02-15-01:08:50,10.1.1.3,21,0.000,0.000,0.000,0.000,0.000,0.000
1644887331032310016,2022-02-15-01:08:51,10.1.1.3,30,-0.010,-0.010,-0.010,0.000,0.000,0.000
1644887331132459008,2022-02-15-01:08:51,10.1.1.3,29,-0.030,-0.030,-0.030,0.000,0.000,0.000
1644887331193747968,2022-02-15-01:08:51,10.1.1.3,38,-0.040,-0.040,-0.040,0.000,0.000,0.000
1644887331232630016,2022-02-15-01:08:51,10.1.1.3,25,-0.050,-0.050,-0.050,0.000,0.000,0.000
1644887331293505792,2022-02-15-01:08:51,10.1.1.3,35,-0.060,-0.060,-0.060,0.000,0.000,0.000
1644887331333054976,2022-02-15-01:08:51,10.1.1.3,24,-0.070,-0.070,-0.070,0.000,0.000,0.000
1644887331392652032,2022-02-15-01:08:51,10.1.1.3,33,-0.080,-0.080,-0.080,0.000,0.000,0.000
1644887331433362944,2022-02-15-01:08:51,10.1.1.3,22,-0.090,-0.090,-0.090,0.000,0.000,0.000
1644887331492517120,2022-02-15-01:08:51,10.1.1.3,31,-0.100,-0.100,-0.100,0.000,0.000,0.000
1644887331533297920,2022-02-15-01:08:51,10.1.1.3,20,-0.090,-0.090,-0.090,0.000,0.000,0.000
1644887331592578816,2022-02-15-01:08:51,10.1.1.3,27,-0.080,-0.080,-0.080,0.000,0.000,0.000
1644887331652602880,2022-02-15-01:08:51,10.1.1.3,34,-0.070,-0.070,-0.070,0.000,0.000,0.000
1644887331692809216,2022-02-15-01:08:51,10.1.1.3,22,-0.060,-0.060,-0.060,0.000,0.000,0.000
1644887331752547072,2022-02-15-01:08:51,10.1.1.3,31,-0.050,-0.050,-0.050,0.000,0.000,0.000
1644887331912707072,2022-02-15-01:08:51,10.1.1.3,37,-0.020,-0.020,-0.020,0.000,0.000,0.000
1644887331953049856,2022-02-15-01:08:51,10.1.1.3,26,-0.010,-0.010,-0.010,0.000,0.000,0.000
1644887332012526080,2022-02-15-01:08:52,10.1.1.3,35,0.000,0.000,0.000,0.000,0.000,0.000
1644887332052529152,2022-02-15-01:08:52,10.1.1.3,25,0.010,0.010,0.010,0.000,0.000,0.000
1644887332113140992,2022-02-15-01:08:52,10.1.1.3,30,0.020,0.020,0.020,0.000,0.000,0.000
1644887332174909952,2022-02-15-01:08:52,10.1.1.3,38,0.030,0.030,0.030,0.000,0.000,0.000
1644887332212812800,2022-02-15-01:08:52,10.1.1.3,25,0.040,0.040,0.040,0.000,0.000,0.000
1644887332278631936,2022-02-15-01:08:52,10.1.1.3,38,0.050,0.050,0.050,0.000,0.000,0.000
1644887332319858944,2022-02-15-01:08:52,10.1.1.3,29,0.060,0.060,0.060,0.000,0.000,0.000
1644887332372407808,2022-02-15-01:08:52,10.1.1.3,31,0.070,0.070,0.070,0.000,0.000,0.000
1644887332415190016,2022-02-15-01:08:52,10.1.1.3,22,0.080,0.080,0.080,0.000,0.000,0.000
1644887332492471040,2022-02-15-01:08:52,10.1.1.3,47,0.090,0.090,0.090,0.000,0.000,0.000
1644887332532530176,2022-02-15-01:08:52,10.1.1.3,35,0.100,0.100,0.100,0.000,0.000,0.000
1644887332573120000,2022-02-15-01:08:52,10.1.1.3,24,0.090,0.090,0.090,0.000,0.000,0.000
1644887332632893952,2022-02-15-01:08:52,10.1.1.3,33,0.080,0.080,0.080,0.000,0.000,0.000
1644887332672605952,2022-02-15-01:08:52,10.1.1.3,22,0.070,0.070,0.070,0.000,0.000,0.000
1644887332732634112,2022-02-15-01:08:52,10.1.1.3,30,0.060,0.060,0.060,0.000,0.000,0.000
1644887332893449984,2022-02-15-01:08:52,10.1.1.3,37,0.030,0.030,0.030,0.000,0.000,0.000
1644887332932537088,2022-02-15-01:08:52,10.1.1.3,26,0.020,0.020,0.020,0.000,0.000,0.000
1644887332992655872,2022-02-15-01:08:52,10.1.1.3,34,0.010,0.010,0.010,0.000,0.000,0.000
1644887333032361984,2022-02-15-01:08:53,10.1.1.3,23,0.000,0.000,0.000,0.000,0.000,0.000
1644887333104108032,2022-02-15-01:08:53,10.1.1.3,41,-0.010,-0.010,-0.010,0.000,0.000,0.000
1644887333135407872,2022-02-15-01:08:53,10.1.1.3,21,-0.020,-0.020,-0.020,0.000,0.000,0.000
1644887333252363008,2022-02-15-01:08:53,10.1.1.3,37,-0.040,-0.040,-0.040,0.000,0.000,0.000
1644887333293380096,2022-02-15-01:08:53,10.1.1.3,26,-0.050,-0.050,-0.050,0.000,0.000,0.000
1644887333352332032,2022-02-15-01:08:53,10.1.1.3,32,-0.060,-0.060,-0.060,0.000,0.000,0.000
1644887333452773120,2022-02-15-01:08:53,10.1.1.3,29,-0.080,-0.080,-0.080,0.000,0.000,0.000
1644887333512960000,2022-02-15-01:08:53,10.1.1.3,38,-0.090,-0.090,-0.090,0.000,0.000,0.000
1644887333564151040,2022-02-15-01:08:53,10.1.1.3,31,-0.100,-0.100,-0.100,0.000,0.000,0.000
1644887333613032192,2022-02-15-01:08:53,10.1.1.3,34,-0.090,-0.090,-0.090,0.000,0.000,0.000
1644887333653046016,2022-02-15-01:08:53,10.1.1.3,23,-0.080,-0.080,-0.080,0.000,0.000,0.000
1644887333712441856,2022-02-15-01:08:53,10.1.1.3,32,-0.070,-0.070,-0.070,0.000,0.000,0.000
1644887333753006080,2022-02-15-01:08:53,10.1.1.3,21,-0.060,-0.060,-0.060,0.000,0.000,0.000
1644887333826138112,2022-02-15-01:08:53,10.1.1.3,39,-0.050,-0.050,-0.050,0.000,0.000,0.000
1644887333913084928,2022-02-15-01:08:53,10.1.1.3,22,-0.030,-0.030,-0.030,0.000,0.000,0.000
1644887333973620992,2022-02-15-01:08:53,10.1.1.3,31,-0.020,-0.020,-0.020,0.000,0.000,0.000
1644887334074675200,2022-02-15-01:08:54,10.1.1.3,29,0.000,0.000,0.000,0.000,0.000,0.000
1644887334135443968,2022-02-15-01:08:54,10.1.1.3,36,0.010,0.010,0.010,0.000,0.000,0.000
1644887334172563200,2022-02-15-01:08:54,10.1.1.3,25,0.020,0.020,0.020,0.000,0.000,0.000
1644887334234728192,2022-02-15-01:08:54,10.1.1.3,35,0.030,0.030,0.030,0.000,0.000,0.000
1644887334273577984,2022-02-15-01:08:54,10.1.1.3,23,0.040,0.040,0.040,0.000,0.000,0.000
1644887334333185024,2022-02-15-01:08:54,10.1.1.3,29,0.050,0.050,0.050,0.000,0.000,0.000
1644887334392641024,2022-02-15-01:08:54,10.1.1.3,38,0.060,0.060,0.060,0.000,0.000,0.000
1644887334432455168,2022-02-15-01:08:54,10.1.1.3,24,0.070,0.070,0.070,0.000,0.000,0.000
1644887334532651776,2022-02-15-01:08:54,10.1.1.3,21,0.090,0.090,0.090,0.000,0.000,0.000
1644887334593208064,2022-02-15-01:08:54,10.1.1.3,30,0.100,0.100,0.100,0.000,0.000,0.000
1644887334692425984,2022-02-15-01:08:54,10.1.1.3,29,0.080,0.080,0.080,0.000,0.000,0.000
1644887334752107008,2022-02-15-01:08:54,10.1.1.3,38,0.070,0.070,0.070,0.000,0.000,0.000
1644887334793189888,2022-02-15-01:08:54,10.1.1.3,26,0.060,0.060,0.060,0.000,0.000,0.000
1644887334852536832,2022-02-15-01:08:54,10.1.1.3,35,0.050,0.050,0.050,0.000,0.000,0.000
1644887334893030912,2022-02-15-01:08:54,10.1.1.3,25,0.040,0.040,0.040,0.000,0.000,0.000
1644887334953159936,2022-02-15-01:08:54,10.1.1.3,34,0.030,0.030,0.030,0.000,0.000,0.000
1644887334994853120,2022-02-15-01:08:54,10.1.1.3,24,0.020,0.020,0.020,0.000,0.000,0.000
1644887335112364032,2022-02-15-01:08:55,10.1.1.3,39,0.000,0.000,0.000,0.000,0.000,0.000
1644887335154590976,2022-02-15-01:08:55,10.1.1.3,28,-0.010,-0.010,-0.010,0.000,0.000,0.000
1644887335213821952,2022-02-15-01:08:55,10.1.1.3,38,-0.020,-0.020,-0.020,0.000,0.000,0.000
1644887335254252800,2022-02-15-01:08:55,10.1.1.3,27,-0.030,-0.030,-0.030,0.000,0.000,0.000
1644887335312220928,2022-02-15-01:08:55,10.1.1.3,35,-0.040,-0.040,-0.040,0.000,0.000,0.000
1644887335352564992,2022-02-15-01:08:55,10.1.1.3,25,-0.050,-0.050,-0.050,0.000,0.000,0.000
1644887335412820992,2022-02-15-01:08:55,10.1.1.3,34,-0.060,-0.060,-0.060,0.000,0.000,0.000
1644887335452389888,2022-02-15-01:08:55,10.1.1.3,23,-0.070,-0.070,-0.070,0.000,0.000,0.000
1644887335512534016,2022-02-15-01:08:55,10.1.1.3,33,-0.080,-0.080,-0.080,0.000,0.000,0.000
1644887335552897024,2022-02-15-01:08:55,10.1.1.3,22,-0.090,-0.090,-0.090,0.000,0.000,0.000
1644887335612685824,2022-02-15-01:08:55,10.1.1.3,31,-0.100,-0.100,-0.100,0.000,0.000,0.000
1644887335652691968,2022-02-15-01:08:55,10.1.1.3,20,-0.090,-0.090,-0.090,0.000,0.000,0.000
1644887335773174016,2022-02-15-01:08:55,10.1.1.3,38,-0.070,-0.070,-0.070,0.000,0.000,0.000
1644887335812165888,2022-02-15-01:08:55,10.1.1.3,26,-0.060,-0.060,-0.060,0.000,0.000,0.000
1644887335872658944,2022-02-15-01:08:55,10.1.1.3,36,-0.050,-0.050,-0.050,0.000,0.000,0.000
1644887335914284032,2022-02-15-01:08:55,10.1.1.3,26,-0.040,-0.040,-0.040,0.000,0.000,0.000
1644887335973965056,2022-02-15-01:08:55,10.1.1.3,35,-0.030,-0.030,-0.030,0.000,0.000,0.000
1644887336012828160,2022-02-15-01:08:56,10.1.1.3,23,-0.020,-0.020,-0.020,0.000,0.000,0.000
1644887336072571904,2022-02-15-01:08:56,10.1.1.3,31,-0.010,-0.010,-0.010,0.000,0.000,0.000
1644887336177808896,2022-02-15-01:08:56,10.1.1.3,34,0.010,0.010,0.010,0.000,0.000,0.000
1644887336229393920,2022-02-15-01:08:56,10.1.1.3,32,0.020,0.020,0.020,0.000,0.000,0.000
1644887336273818880,2022-02-15-01:08:56,10.1.1.3,26,0.030,0.030,0.030,0.000,0.000,0.000
1644887336332696832,2022-02-15-01:08:56,10.1.1.3,34,0.040,0.040,0.040,0.000,0.000,0.000
1644887336373152000,2022-02-15-01:08:56,10.1.1.3,23,0.050,0.050,0.050,0.000,0.000,0.000
1644887336438082048,2022-02-15-01:08:56,10.1.1.3,37,0.060,0.060,0.060,0.000,0.000,0.000
1644887336472804096,2022-02-15-01:08:56,10.1.1.3,21,0.070,0.070,0.070,0.000,0.000,0.000
1644887336532280832,2022-02-15-01:08:56,10.1.1.3,25,0.080,0.080,0.080,0.000,0.000,0.000
1644887336589390080,2022-02-15-01:08:56,10.1.1.3,28,0.090,0.090,0.090,0.000,0.000,0.000
1644887336648711936,2022-02-15-01:08:56,10.1.1.3,38,0.100,0.100,0.100,0.000,0.000,0.000
1644887336690359040,2022-02-15-01:08:56,10.1.1.3,26,0.090,0.090,0.090,0.000,0.000,0.000
1644887336749195008,2022-02-15-01:08:56,10.1.1.3,35,0.080,0.080,0.080,0.000,0.000,0.000
1644887336789273088,2022-02-15-01:08:56,10.1.1.3,23,0.070,0.070,0.070,0.000,0.000,0.000
1644887336849160960,2022-02-15-01:08:56,10.1.1.3,33,0.060,0.060,0.060,0.000,0.000,0.000
1644887336889859840,2022-02-15-01:08:56,10.1.1.3,22,0.050,0.050,0.050,0.000,0.000,0.000
1644887336948407808,2022-02-15-01:08:56,10.1.1.3,26,0.040,0.040,0.040,0.000,0.000,0.000
1644887337008750080,2022-02-15-01:08:57,10.1.1.3,35,0.030,0.030,0.030,0.000,0.000,0.000
1644887337047662080,2022-02-15-01:08:57,10.1.1.3,23,0.020,0.020,0.020,0.000,0.000,0.000
1644887337108570112,2022-02-15-01:08:57,10.1.1.3,33,0.010,0.010,0.010,0.000,0.000,0.000
1644887337148291072,2022-02-15-01:08:57,10.1.1.3,22,0.000,0.000,0.000,0.000,0.000,0.000
1644887337209928960,2022-02-15-01:08:57,10.1.1.3,30,-0.010,-0.010,-0.010,0.000,0.000,0.000
1644887337268925952,2022-02-15-01:08:57,10.1.1.3,39,-0.020,-0.020,-0.020,0.000,0.000,0.000
1644887337367443968,2022-02-15-01:08:57,10.1.1.3,37,-0.040,-0.040,-0.040,0.000,0.000,0.000
1644887337468897024,2022-02-15-01:08:57,10.1.1.3,26,-0.060,-0.060,-0.060,0.000,0.000,0.000
1644887337529849088,2022-02-15-01:08:57,10.1.1.3,35,-0.070,-0.070,-0.070,0.000,0.000,0.000
1644887337568641024,2022-02-15-01:08:57,10.1.1.3,24,-0.080,-0.080,-0.080,0.000,0.000,0.000
1644887337629602816,2022-02-15-01:08:57,10.1.1.3,33,-0.090,-0.090,-0.090,0.000,0.000,0.000
1644887337668230912,2022-02-15-01:08:57,10.1.1.3,21,-0.100,-0.100,-0.100,0.000,0.000,0.000
1644887337728524032,2022-02-15-01:08:57,10.1.1.3,30,-0.090,-0.090,-0.090,0.000,0.000,0.000
1644887337789575168,2022-02-15-01:08:57,10.1.1.3,39,-0.080,-0.080,-0.080,0.000,0.000,0.000
1644887337828783872,2022-02-15-01:08:57,10.1.1.3,27,-0.070,-0.070,-0.070,0.000,0.000,0.000
1644887337889944064,2022-02-15-01:08:57,10.1.1.3,33,-0.060,-0.060,-0.060,0.000,0.000,0.000
1644887337927611136,2022-02-15-01:08:57,10.1.1.3,21,-0.050,-0.050,-0.050,0.000,0.000,0.000
1644887337990770944,2022-02-15-01:08:57,10.1.1.3,30,-0.040,-0.040,-0.040,0.000,0.000,0.000
1644887338090070016,2022-02-15-01:08:58,10.1.1.3,30,-0.020,-0.020,-0.020,0.000,0.000,0.000
1644887338149427968,2022-02-15-01:08:58,10.1.1.3,38,-0.010,-0.010,-0.010,0.000,0.000,0.000
1644887338190057984,2022-02-15-01:08:58,10.1.1.3,27,0.000,0.000,0.000,0.000,0.000,0.000
1644887338249504000,2022-02-15-01:08:58,10.1.1.3,35,0.010,0.010,0.010,0.000,0.000,0.000
1644887338289718016,2022-02-15-01:08:58,10.1.1.3,21,0.020,0.020,0.020,0.000,0.000,0.000
1644887338514620160,2022-02-15-01:08:58,10.1.1.3,41,0.060,0.060,0.060,0.000,0.000,0.000
1644887338558970880,2022-02-15-01:08:58,10.1.1.3,25,0.070,0.070,0.070,0.000,0.000,0.000
1644887338609543936,2022-02-15-01:08:58,10.1.1.3,33,0.080,0.080,0.080,0.000,0.000,0.000
1644887338650501888,2022-02-15-01:08:58,10.1.1.3,24,0.090,0.090,0.090,0.000,0.000,0.000
1644887338708055040,2022-02-15-01:08:58,10.1.1.3,32,0.100,0.100,0.100,0.000,0.000,0.000
1644887338749108992,2022-02-15-01:08:58,10.1.1.3,20,0.090,0.090,0.090,0.000,0.000,0.000
1644887338807246080,2022-02-15-01:08:58,10.1.1.3,29,0.080,0.080,0.080,0.000,0.000,0.000
1644887338909265152,2022-02-15-01:08:58,10.1.1.3,25,0.060,0.060,0.060,0.000,0.000,0.000
1644887338950622208,2022-02-15-01:08:58,10.1.1.3,17,0.050,0.050,0.050,0.000,0.000,0.000
1644887339008961792,2022-02-15-01:08:59,10.1.1.3,23,0.040,0.040,0.040,0.000,0.000,0.000
1644887339070605056,2022-02-15-01:08:59,10.1.1.3,31,0.030,0.030,0.030,0.000,0.000,0.000
1644887339108431104,2022-02-15-01:08:59,10.1.1.3,20,0.020,0.020,0.020,0.000,0.000,0.000
1644887339168315904,2022-02-15-01:08:59,10.1.1.3,28,0.010,0.010,0.010,0.000,0.000,0.000
1644887339230395136,2022-02-15-01:08:59,10.1.1.3,35,0.000,0.000,0.000,0.000,0.000,0.000
1644887339268532992,2022-02-15-01:08:59,10.1.1.3,21,-0.010,-0.010,-0.010,0.000,0.000,0.000
1644887339330729984,2022-02-15-01:08:59,10.1.1.3,30,-0.020,-0.020,-0.020,0.000,0.000,0.000
1644887339390317824,2022-02-15-01:08:59,10.1.1.3,37,-0.030,-0.030,-0.030,0.000,0.000,0.000
1644887339428399104,2022-02-15-01:08:59,10.1.1.3,24,-0.040,-0.040,-0.040,0.000,0.000,0.000
1644887339488636928,2022-02-15-01:08:59,10.1.1.3,32,-0.050,-0.050,-0.050,0.000,0.000,0.000
1644887339548471808,2022-02-15-01:08:59,10.1.1.3,35,-0.060,-0.060,-0.060,0.000,0.000,0.000
1644887339590300160,2022-02-15-01:08:59,10.1.1.3,22,-0.070,-0.070,-0.070,0.000,0.000,0.000
1644887339647450880,2022-02-15-01:08:59,10.1.1.3,30,-0.080,-0.080,-0.080,0.000,0.000,0.000
1644887339708134912,2022-02-15-01:08:59,10.1.1.3,39,-0.090,-0.090,-0.090,0.000,0.000,0.000
1644887339749069056,2022-02-15-01:08:59,10.1.1.3,28,-0.100,-0.100,-0.100,0.000,0.000,0.000
1644887339808358912,2022-02-15-01:08:59,10.1.1.3,36,-0.090,-0.090,-0.090,0.000,0.000,0.000
1644887339848283136,2022-02-15-01:08:59,10.1.1.3,22,-0.080,-0.080,-0.080,0.000,0.000,0.000
1644887339909594112,2022-02-15-01:08:59,10.1.1.3,29,-0.070,-0.070,-0.070,0.000,0.000,0.000
1644887339970331904,2022-02-15-01:08:59,10.1.1.3,39,-0.060,-0.060,-0.060,0.000,0.000,0.000
1644887340007555072,2022-02-15-01:09:00,10.1.1.3,26,-0.050,-0.050,-0.050,0.000,0.000,0.000
1644887340068900096,2022-02-15-01:09:00,10.1.1.3,35,-0.040,-0.040,-0.040,0.000,0.000,0.000
1644887340167893760,2022-02-15-01:09:00,10.1.1.3,29,-0.020,-0.020,-0.020,0.000,0.000,0.000
1644887340228729088,2022-02-15-01:09:00,10.1.1.3,38,-0.010,-0.010,-0.010,0.000,0.000,0.000
1644887340269042944,2022-02-15-01:09:00,10.1.1.3,27,0.000,0.000,0.000,0.000,0.000,0.000
1644887340328217088,2022-02-15-01:09:00,10.1.1.3,36,0.010,0.010,0.010,0.000,0.000,0.000
1644887340368186112,2022-02-15-01:09:00,10.1.1.3,25,0.020,0.020,0.020,0.000,0.000,0.000
1644887340428428032,2022-02-15-01:09:00,10.1.1.3,34,0.030,0.030,0.030,0.000,0.000,0.000
1644887340468983808,2022-02-15-01:09:00,10.1.1.3,23,0.040,0.040,0.040,0.000,0.000,0.000
1644887340529336064,2022-02-15-01:09:00,10.1.1.3,32,0.050,0.050,0.050,0.000,0.000,0.000
1644887340567360000,2022-02-15-01:09:00,10.1.1.3,22,0.060,0.060,0.060,0.000,0.000,0.000
1644887340636316160,2022-02-15-01:09:00,10.1.1.3,38,0.070,0.070,0.070,0.000,0.000,0.000
1644887340769131776,2022-02-15-01:09:00,10.1.1.3,18,0.100,0.100,0.100,0.000,0.000,0.000
1644887340839413760,2022-02-15-01:09:00,10.1.1.3,37,0.090,0.090,0.090,0.000,0.000,0.000
1644887340932915968,2022-02-15-01:09:00,10.1.1.3,28,0.070,0.070,0.070,0.000,0.000,0.000
1644887340992999168,2022-02-15-01:09:00,10.1.1.3,37,0.060,0.060,0.060,0.000,0.000,0.000
1644887341029577984,2022-02-15-01:09:01,10.1.1.3,21,0.050,0.050,0.050,0.000,0.000,0.000
1644887341090641920,2022-02-15-01:09:01,10.1.1.3,30,0.040,0.040,0.040,0.000,0.000,0.000
1644887341193864192,2022-02-15-01:09:01,10.1.1.3,33,0.020,0.020,0.020,0.000,0.000,0.000
1644887341249248000,2022-02-15-01:09:01,10.1.1.3,38,0.010,0.010,0.010,0.000,0.000,0.000
1644887341350028032,2022-02-15-01:09:01,10.1.1.3,39,-0.010,-0.010,-0.010,0.000,0.000,0.000
1644887341390355968,2022-02-15-01:09:01,10.1.1.3,27,-0.020,-0.020,-0.020,0.000,0.000,0.000
1644887341449332992,2022-02-15-01:09:01,10.1.1.3,35,-0.030,-0.030,-0.030,0.000,0.000,0.000
1644887341488472832,2022-02-15-01:09:01,10.1.1.3,24,-0.040,-0.040,-0.040,0.000,0.000,0.000
1644887341547900928,2022-02-15-01:09:01,10.1.1.3,33,-0.050,-0.050,-0.050,0.000,0.000,0.000
1644887341589627136,2022-02-15-01:09:01,10.1.1.3,22,-0.060,-0.060,-0.060,0.000,0.000,0.000
1644887341649519872,2022-02-15-01:09:01,10.1.1.3,31,-0.070,-0.070,-0.070,0.000,0.000,0.000
1644887341749156096,2022-02-15-01:09:01,10.1.1.3,29,-0.090,-0.090,-0.090,0.000,0.000,0.000
1644887341808791040,2022-02-15-01:09:01,10.1.1.3,35,-0.100,-0.100,-0.100,0.000,0.000,0.000
1644887341848861952,2022-02-15-01:09:01,10.1.1.3,24,-0.090,-0.090,-0.090,0.000,0.000,0.000
1644887341909277952,2022-02-15-01:09:01,10.1.1.3,33,-0.080,-0.080,-0.080,0.000,0.000,0.000
1644887341948523008,2022-02-15-01:09:01,10.1.1.3,22,-0.070,-0.070,-0.070,0.000,0.000,0.000
1644887342010447872,2022-02-15-01:09:02,10.1.1.3,31,-0.060,-0.060,-0.060,0.000,0.000,0.000
1644887342048908032,2022-02-15-01:09:02,10.1.1.3,20,-0.050,-0.050,-0.050,0.000,0.000,0.000
1644887342108180992,2022-02-15-01:09:02,10.1.1.3,29,-0.040,-0.040,-0.040,0.000,0.000,0.000
1644887342168303104,2022-02-15-01:09:02,10.1.1.3,39,-0.030,-0.030,-0.030,0.000,0.000,0.000
1644887342209427200,2022-02-15-01:09:02,10.1.1.3,28,-0.020,-0.020,-0.020,0.000,0.000,0.000
1644887342269058048,2022-02-15-01:09:02,10.1.1.3,36,-0.010,-0.010,-0.010,0.000,0.000,0.000
1644887342308662784,2022-02-15-01:09:02,10.1.1.3,25,0.000,0.000,0.000,0.000,0.000,0.000
1644887342368463872,2022-02-15-01:09:02,10.1.1.3,34,0.010,0.010,0.010,0.000,0.000,0.000
1644887342467638016,2022-02-15-01:09:02,10.1.1.3,32,0.030,0.030,0.030,0.000,0.000,0.000
1644887342512624896,2022-02-15-01:09:02,10.1.1.3,25,0.040,0.040,0.040,0.000,0.000,0.000
1644887342569853952,2022-02-15-01:09:02,10.1.1.3,31,0.050,0.050,0.050,0.000,0.000,0.000
1644887342611430912,2022-02-15-01:09:02,10.1.1.3,23,0.060,0.060,0.060,0.000,0.000,0.000
1644887342667587072,2022-02-15-01:09:02,10.1.1.3,29,0.070,0.070,0.070,0.000,0.000,0.000
1644887342709966848,2022-02-15-01:09:02,10.1.1.3,18,0.080,0.080,0.080,0.000,0.000,0.000
1644887342768431872,2022-02-15-01:09:02,10.1.1.3,28,0.090,0.090,0.090,0.000,0.000,0.000
1644887342828867840,2022-02-15-01:09:02,10.1.1.3,37,0.100,0.100,0.100,0.000,0.000,0.000
1644887342867880192,2022-02-15-01:09:02,10.1.1.3,26,0.090,0.090,0.090,0.000,0.000,0.000
1644887342928105984,2022-02-15-01:09:02,10.1.1.3,35,0.080,0.080,0.080,0.000,0.000,0.000
1644887342968856064,2022-02-15-01:09:02,10.1.1.3,24,0.070,0.070,0.070,0.000,0.000,0.000
1644887343028665088,2022-02-15-01:09:03,10.1.1.3,33,0.060,0.060,0.060,0.000,0.000,0.000
1644887343067776000,2022-02-15-01:09:03,10.1.1.3,22,0.050,0.050,0.050,0.000,0.000,0.000
1644887343189995008,2022-02-15-01:09:03,10.1.1.3,39,0.030,0.030,0.030,0.000,0.000,0.000
1644887343289707776,2022-02-15-01:09:03,10.1.1.3,38,0.010,0.010,0.010,0.000,0.000,0.000
1644887343328809984,2022-02-15-01:09:03,10.1.1.3,25,0.000,0.000,0.000,0.000,0.000,0.000
1644887343390178048,2022-02-15-01:09:03,10.1.1.3,34,-0.010,-0.010,-0.010,0.000,0.000,0.000
1644887343429117952,2022-02-15-01:09:03,10.1.1.3,23,-0.020,-0.020,-0.020,0.000,0.000,0.000
1644887343491020032,2022-02-15-01:09:03,10.1.1.3,32,-0.030,-0.030,-0.030,0.000,0.000,0.000
1644887343529326848,2022-02-15-01:09:03,10.1.1.3,22,-0.040,-0.040,-0.040,0.000,0.000,0.000
1644887343597117952,2022-02-15-01:09:03,10.1.1.3,37,-0.050,-0.050,-0.050,0.000,0.000,0.000
1644887343635677952,2022-02-15-01:09:03,10.1.1.3,27,-0.060,-0.060,-0.060,0.000,0.000,0.000
1644887343748879872,2022-02-15-01:09:03,10.1.1.3,37,-0.080,-0.080,-0.080,0.000,0.000,0.000
1644887343790136064,2022-02-15-01:09:03,10.1.1.3,26,-0.090,-0.090,-0.090,0.000,0.000,0.000
1644887343848443136,2022-02-15-01:09:03,10.1.1.3,35,-0.100,-0.100,-0.100,0.000,0.000,0.000
1644887343895716864,2022-02-15-01:09:03,10.1.1.3,30,-0.090,-0.090,-0.090,0.000,0.000,0.000
1644887343995147008,2022-02-15-01:09:03,10.1.1.3,29,-0.070,-0.070,-0.070,0.000,0.000,0.000
1644887344054972928,2022-02-15-01:09:04,10.1.1.3,37,-0.060,-0.060,-0.060,0.000,0.000,0.000
1644887344094667008,2022-02-15-01:09:04,10.1.1.3,25,-0.050,-0.050,-0.050,0.000,0.000,0.000
1644887344155265024,2022-02-15-01:09:04,10.1.1.3,34,-0.040,-0.040,-0.040,0.000,0.000,0.000
1644887344195012096,2022-02-15-01:09:04,10.1.1.3,23,-0.030,-0.030,-0.030,0.000,0.000,0.000
1644887344256872960,2022-02-15-01:09:04,10.1.1.3,34,-0.020,-0.020,-0.020,0.000,0.000,0.000
1644887344295689216,2022-02-15-01:09:04,10.1.1.3,20,-0.010,-0.010,-0.010,0.000,0.000,0.000
1644887344355740928,2022-02-15-01:09:04,10.1.1.3,29,0.000,0.000,0.000,0.000,0.000,0.000
1644887344416176128,2022-02-15-01:09:04,10.1.1.3,38,0.010,0.010,0.010,0.000,0.000,0.000
1644887344455225856,2022-02-15-01:09:04,10.1.1.3,26,0.020,0.020,0.020,0.000,0.000,0.000
1644887344514935040,2022-02-15-01:09:04,10.1.1.3,35,0.030,0.030,0.030,0.000,0.000,0.000
1644887344555033856,2022-02-15-01:09:04,10.1.1.3,24,0.040,0.040,0.040,0.000,0.000,0.000
1644887344615010048,2022-02-15-01:09:04,10.1.1.3,32,0.050,0.050,0.050,0.000,0.000,0.000
1644887344655864064,2022-02-15-01:09:04,10.1.1.3,21,0.060,0.060,0.060,0.000,0.000,0.000
1644887344718710016,2022-02-15-01:09:04,10.1.1.3,30,0.070,0.070,0.070,0.000,0.000,0.000
1644887344778552064,2022-02-15-01:09:04,10.1.1.3,41,0.080,0.080,0.080,0.000,0.000,0.000
1644887344816055040,2022-02-15-01:09:04,10.1.1.3,26,0.090,0.090,0.090,0.000,0.000,0.000
1644887344875386880,2022-02-15-01:09:04,10.1.1.3,35,0.100,0.100,0.100,0.000,0.000,0.000
1644887344915369984,2022-02-15-01:09:04,10.1.1.3,25,0.090,0.090,0.090,0.000,0.000,0.000
1644887344976724992,2022-02-15-01:09:04,10.1.1.3,33,0.080,0.080,0.080,0.000,0.000,0.000
1644887345015084032,2022-02-15-01:09:05,10.1.1.3,21,0.070,0.070,0.070,0.000,0.000,0.000
1644887345075525120,2022-02-15-01:09:05,10.1.1.3,30,0.060,0.060,0.060,0.000,0.000,0.000
1644887345135590144,2022-02-15-01:09:05,10.1.1.3,39,0.050,0.050,0.050,0.000,0.000,0.000
1644887345176423168,2022-02-15-01:09:05,10.1.1.3,28,0.040,0.040,0.040,0.000,0.000,0.000
1644887345236812032,2022-02-15-01:09:05,10.1.1.3,35,0.030,0.030,0.030,0.000,0.000,0.000
1644887345276015104,2022-02-15-01:09:05,10.1.1.3,24,0.020,0.020,0.020,0.000,0.000,0.000
1644887345335736064,2022-02-15-01:09:05,10.1.1.3,33,0.010,0.010,0.010,0.000,0.000,0.000
1644887345495047936,2022-02-15-01:09:05,10.1.1.3,36,-0.020,-0.020,-0.020,0.000,0.000,0.000
1644887345535684096,2022-02-15-01:09:05,10.1.1.3,23,-0.030,-0.030,-0.030,0.000,0.000,0.000
1644887345595120896,2022-02-15-01:09:05,10.1.1.3,30,-0.040,-0.040,-0.040,0.000,0.000,0.000
1644887345655013120,2022-02-15-01:09:05,10.1.1.3,39,-0.050,-0.050,-0.050,0.000,0.000,0.000
1644887345696540160,2022-02-15-01:09:05,10.1.1.3,28,-0.060,-0.060,-0.060,0.000,0.000,0.000
1644887345757404160,2022-02-15-01:09:05,10.1.1.3,36,-0.070,-0.070,-0.070,0.000,0.000,0.000
1644887345795326976,2022-02-15-01:09:05,10.1.1.3,25,-0.080,-0.080,-0.080,0.000,0.000,0.000
1644887345855900928,2022-02-15-01:09:05,10.1.1.3,34,-0.090,-0.090,-0.090,0.000,0.000,0.000
1644887345895729920,2022-02-15-01:09:05,10.1.1.3,24,-0.100,-0.100,-0.100,0.000,0.000,0.000
1644887345956563968,2022-02-15-01:09:05,10.1.1.3,33,-0.090,-0.090,-0.090,0.000,0.000,0.000
1644887345995683840,2022-02-15-01:09:05,10.1.1.3,22,-0.080,-0.080,-0.080,0.000,0.000,0.000
1644887346055171072,2022-02-15-01:09:06,10.1.1.3,29,-0.070,-0.070,-0.070,0.000,0.000,0.000
1644887346115614976,2022-02-15-01:09:06,10.1.1.3,38,-0.060,-0.060,-0.060,0.000,0.000,0.000
1644887346156208896,2022-02-15-01:09:06,10.1.1.3,26,-0.050,-0.050,-0.050,0.000,0.000,0.000
1644887346215670016,2022-02-15-01:09:06,10.1.1.3,36,-0.040,-0.040,-0.040,0.000,0.000,0.000
1644887346256192000,2022-02-15-01:09:06,10.1.1.3,25,-0.030,-0.030,-0.030,0.000,0.000,0.000
1644887346307187200,2022-02-15-01:09:06,10.1.1.3,25,-0.020,-0.020,-0.020,0.000,0.000,0.000
1644887346356102912,2022-02-15-01:09:06,10.1.1.3,22,-0.010,-0.010,-0.010,0.000,0.000,0.000
1644887346416488960,2022-02-15-01:09:06,10.1.1.3,31,0.000,0.000,0.000,0.000,0.000,0.000
1644887346517455104,2022-02-15-01:09:06,10.1.1.3,29,0.020,0.020,0.020,0.000,0.000,0.000
1644887346614903040,2022-02-15-01:09:06,10.1.1.3,26,0.040,0.040,0.040,0.000,0.000,0.000
1644887346675421952,2022-02-15-01:09:06,10.1.1.3,35,0.050,0.050,0.050,0.000,0.000,0.000
1644887346716652032,2022-02-15-01:09:06,10.1.1.3,24,0.060,0.060,0.060,0.000,0.000,0.000
1644887346774963968,2022-02-15-01:09:06,10.1.1.3,33,0.070,0.070,0.070,0.000,0.000,0.000
1644887346836123904,2022-02-15-01:09:06,10.1.1.3,39,0.080,0.080,0.080,0.000,0.000,0.000
1644887346943335168,2022-02-15-01:09:06,10.1.1.3,43,0.100,0.100,0.100,0.000,0.000,0.000
1644887346975735040,2022-02-15-01:09:06,10.1.1.3,25,0.090,0.090,0.090,0.000,0.000,0.000
1644887347035057920,2022-02-15-01:09:07,10.1.1.3,34,0.080,0.080,0.080,0.000,0.000,0.000
1644887347075230976,2022-02-15-01:09:07,10.1.1.3,23,0.070,0.070,0.070,0.000,0.000,0.000
1644887347135715840,2022-02-15-01:09:07,10.1.1.3,31,0.060,0.060,0.060,0.000,0.000,0.000
1644887347176184064,2022-02-15-01:09:07,10.1.1.3,20,0.050,0.050,0.050,0.000,0.000,0.000
1644887347234832896,2022-02-15-01:09:07,10.1.1.3,29,0.040,0.040,0.040,0.000,0.000,0.000
1644887347296855040,2022-02-15-01:09:07,10.1.1.3,37,0.030,0.030,0.030,0.000,0.000,0.000
1644887347337409024,2022-02-15-01:09:07,10.1.1.3,25,0.020,0.020,0.020,0.000,0.000,0.000
1644887347395032832,2022-02-15-01:09:07,10.1.1.3,34,0.010,0.010,0.010,0.000,0.000,0.000
1644887347435224064,2022-02-15-01:09:07,10.1.1.3,23,0.000,0.000,0.000,0.000,0.000,0.000
1644887347495505152,2022-02-15-01:09:07,10.1.1.3,32,-0.010,-0.010,-0.010,0.000,0.000,0.000
1644887347556024064,2022-02-15-01:09:07,10.1.1.3,35,-0.020,-0.020,-0.020,0.000,0.000,0.000
1644887347595499008,2022-02-15-01:09:07,10.1.1.3,24,-0.030,-0.030,-0.030,0.000,0.000,0.000
1644887347655479808,2022-02-15-01:09:07,10.1.1.3,34,-0.040,-0.040,-0.040,0.000,0.000,0.000
1644887347694726912,2022-02-15-01:09:07,10.1.1.3,23,-0.050,-0.050,-0.050,0.000,0.000,0.000
1644887347754733056,2022-02-15-01:09:07,10.1.1.3,32,-0.060,-0.060,-0.060,0.000,0.000,0.000
1644887347794898944,2022-02-15-01:09:07,10.1.1.3,21,-0.070,-0.070,-0.070,0.000,0.000,0.000
1644887347915694080,2022-02-15-01:09:07,10.1.1.3,38,-0.090,-0.090,-0.090,0.000,0.000,0.000
1644887347955892992,2022-02-15-01:09:07,10.1.1.3,27,-0.100,-0.100,-0.100,0.000,0.000,0.000
1644887348020495872,2022-02-15-01:09:08,10.1.1.3,36,-0.090,-0.090,-0.090,0.000,0.000,0.000
1644887348075834880,2022-02-15-01:09:08,10.1.1.3,44,-0.080,-0.080,-0.080,0.000,0.000,0.000
1644887348116339968,2022-02-15-01:09:08,10.1.1.3,34,-0.070,-0.070,-0.070,0.000,0.000,0.000
1644887348155623936,2022-02-15-01:09:08,10.1.1.3,21,-0.060,-0.060,-0.060,0.000,0.000,0.000
1644887348215493888,2022-02-15-01:09:08,10.1.1.3,31,-0.050,-0.050,-0.050,0.000,0.000,0.000
1644887348275121920,2022-02-15-01:09:08,10.1.1.3,39,-0.040,-0.040,-0.040,0.000,0.000,0.000
1644887348315687936,2022-02-15-01:09:08,10.1.1.3,29,-0.030,-0.030,-0.030,0.000,0.000,0.000
1644887348376044032,2022-02-15-01:09:08,10.1.1.3,37,-0.020,-0.020,-0.020,0.000,0.000,0.000
1644887348415239936,2022-02-15-01:09:08,10.1.1.3,25,-0.010,-0.010,-0.010,0.000,0.000,0.000
1644887348474809856,2022-02-15-01:09:08,10.1.1.3,34,0.000,0.000,0.000,0.000,0.000,0.000
1644887348515048960,2022-02-15-01:09:08,10.1.1.3,23,0.010,0.010,0.010,0.000,0.000,0.000
1644887348576379904,2022-02-15-01:09:08,10.1.1.3,32,0.020,0.020,0.020,0.000,0.000,0.000
1644887348615037952,2022-02-15-01:09:08,10.1.1.3,21,0.030,0.030,0.030,0.000,0.000,0.000
1644887348741487872,2022-02-15-01:09:08,10.1.1.3,45,0.050,0.050,0.050,0.000,0.000,0.000
1644887348776773888,2022-02-15-01:09:08,10.1.1.3,29,0.060,0.060,0.060,0.000,0.000,0.000
1644887348835683072,2022-02-15-01:09:08,10.1.1.3,38,0.070,0.070,0.070,0.000,0.000,0.000
1644887348875931904,2022-02-15-01:09:08,10.1.1.3,27,0.080,0.080,0.080,0.000,0.000,0.000
1644887348934994944,2022-02-15-01:09:08,10.1.1.3,36,0.090,0.090,0.090,0.000,0.000,0.000
1644887348975965952,2022-02-15-01:09:08,10.1.1.3,25,0.100,0.100,0.100,0.000,0.000,0.000
1644887349037164800,2022-02-15-01:09:09,10.1.1.3,32,0.090,0.090,0.090,0.000,0.000,0.000
1644887349075392000,2022-02-15-01:09:09,10.1.1.3,22,0.080,0.080,0.080,0.000,0.000,0.000
1644887349129733120,2022-02-15-01:09:09,10.1.1.3,23,0.070,0.070,0.070,0.000,0.000,0.000
1644887349175484928,2022-02-15-01:09:09,10.1.1.3,21,0.060,0.060,0.060,0.000,0.000,0.000
1644887349235671040,2022-02-15-01:09:09,10.1.1.3,30,0.050,0.050,0.050,0.000,0.000,0.000
1644887349295133184,2022-02-15-01:09:09,10.1.1.3,39,0.040,0.040,0.040,0.000,0.000,0.000
1644887349336452096,2022-02-15-01:09:09,10.1.1.3,27,0.030,0.030,0.030,0.000,0.000,0.000
1644887349395790080,2022-02-15-01:09:09,10.1.1.3,35,0.020,0.020,0.020,0.000,0.000,0.000
1644887349456075008,2022-02-15-01:09:09,10.1.1.3,45,0.010,0.010,0.010,0.000,0.000,0.000
1644887349496752128,2022-02-15-01:09:09,10.1.1.3,34,0.000,0.000,0.000,0.000,0.000,0.000
1644887349535963904,2022-02-15-01:09:09,10.1.1.3,23,-0.010,-0.010,-0.010,0.000,0.000,0.000
1644887349595723008,2022-02-15-01:09:09,10.1.1.3,32,-0.020,-0.020,-0.020,0.000,0.000,0.000
1644887349636641024,2022-02-15-01:09:09,10.1.1.3,22,-0.030,-0.030,-0.030,0.000,0.000,0.000
1644887349696278016,2022-02-15-01:09:09,10.1.1.3,31,-0.040,-0.040,-0.040,0.000,0.000,0.000
1644887349855403008,2022-02-15-01:09:09,10.1.1.3,39,-0.070,-0.070,-0.070,0.000,0.000,0.000
1644887349894892032,2022-02-15-01:09:09,10.1.1.3,28,-0.080,-0.080,-0.080,0.000,0.000,0.000
1644887349954860800,2022-02-15-01:09:09,10.1.1.3,36,-0.090,-0.090,-0.090,0.000,0.000,0.000
1644887349994763008,2022-02-15-01:09:09,10.1.1.3,25,-0.100,-0.100,-0.100,0.000,0.000,0.000
1644887350055983104,2022-02-15-01:09:10,10.1.1.3,34,-0.090,-0.090,-0.090,0.000,0.000,0.000
1644887350120444928,2022-02-15-01:09:10,10.1.1.3,46,-0.080,-0.080,-0.080,0.000,0.000,0.000
1644887350155663872,2022-02-15-01:09:10,10.1.1.3,31,-0.070,-0.070,-0.070,0.000,0.000,0.000
1644887350262100992,2022-02-15-01:09:10,10.1.1.3,31,-0.050,-0.050,-0.050,0.000,0.000,0.000
1644887350315723776,2022-02-15-01:09:10,10.1.1.3,37,-0.040,-0.040,-0.040,0.000,0.000,0.000
1644887350416448000,2022-02-15-01:09:10,10.1.1.3,37,-0.020,-0.020,-0.020,0.000,0.000,0.000
1644887350455394048,2022-02-15-01:09:10,10.1.1.3,25,-0.010,-0.010,-0.010,0.000,0.000,0.000
1644887350515580928,2022-02-15-01:09:10,10.1.1.3,33,0.000,0.000,0.000,0.000,0.000,0.000
1644887350555234816,2022-02-15-01:09:10,10.1.1.3,23,0.010,0.010,0.010,0.000,0.000,0.000
1644887350615993088,2022-02-15-01:09:10,10.1.1.3,31,0.020,0.020,0.020,0.000,0.000,0.000
1644887350655347200,2022-02-15-01:09:10,10.1.1.3,21,0.030,0.030,0.030,0.000,0.000,0.000
1644887350715273984,2022-02-15-01:09:10,10.1.1.3,30,0.040,0.040,0.040,0.000,0.000,0.000
1644887350755609088,2022-02-15-01:09:10,10.1.1.3,19,0.050,0.050,0.050,0.000,0.000,0.000
1644887350815862784,2022-02-15-01:09:10,10.1.1.3,29,0.060,0.060,0.060,0.000,0.000,0.000
1644887350875494912,2022-02-15-01:09:10,10.1.1.3,36,0.070,0.070,0.070,0.000,0.000,0.000
1644887350914685952,2022-02-15-01:09:10,10.1.1.3,25,0.080,0.080,0.080,0.000,0.000,0.000
1644887350976443904,2022-02-15-01:09:10,10.1.1.3,34,0.090,0.090,0.090,0.000,0.000,0.000
1644887351015141888,2022-02-15-01:09:11,10.1.1.3,24,0.100,0.100,0.100,0.000,0.000,0.000
1644887351076803072,2022-02-15-01:09:11,10.1.1.3,33,0.090,0.090,0.090,0.000,0.000,0.000
1644887351115763968,2022-02-15-01:09:11,10.1.1.3,23,0.080,0.080,0.080,0.000,0.000,0.000
1644887351175895808,2022-02-15-01:09:11,10.1.1.3,32,0.070,0.070,0.070,0.000,0.000,0.000
1644887351238866176,2022-02-15-01:09:11,10.1.1.3,37,0.060,0.060,0.060,0.000,0.000,0.000
1644887351331474176,2022-02-15-01:09:11,10.1.1.3,30,0.040,0.040,0.040,0.000,0.000,0.000
1644887351375991040,2022-02-15-01:09:11,10.1.1.3,23,0.030,0.030,0.030,0.000,0.000,0.000
1644887351436259072,2022-02-15-01:09:11,10.1.1.3,32,0.020,0.020,0.020,0.000,0.000,0.000
1644887351474919168,2022-02-15-01:09:11,10.1.1.3,21,0.010,0.010,0.010,0.000,0.000,0.000
1644887351535716096,2022-02-15-01:09:11,10.1.1.3,30,0.000,0.000,0.000,0.000,0.000,0.000
1644887351595002880,2022-02-15-01:09:11,10.1.1.3,39,-0.010,-0.010,-0.010,0.000,0.000,0.000
1644887351635483904,2022-02-15-01:09:11,10.1.1.3,29,-0.020,-0.020,-0.020,0.000,0.000,0.000
1644887351696011008,2022-02-15-01:09:11,10.1.1.3,38,-0.030,-0.030,-0.030,0.000,0.000,0.000
1644887351735808000,2022-02-15-01:09:11,10.1.1.3,26,-0.040,-0.040,-0.040,0.000,0.000,0.000
1644887351795588096,2022-02-15-01:09:11,10.1.1.3,35,-0.050,-0.050,-0.050,0.000,0.000,0.000
1644887351835205120,2022-02-15-01:09:11,10.1.1.3,24,-0.060,-0.060,-0.060,0.000,0.000,0.000
1644887351895356928,2022-02-15-01:09:11,10.1.1.3,33,-0.070,-0.070,-0.070,0.000,0.000,0.000
1644887351935628032,2022-02-15-01:09:11,10.1.1.3,22,-0.080,-0.080,-0.080,0.000,0.000,0.000
1644887351995821056,2022-02-15-01:09:11,10.1.1.3,31,-0.090,-0.090,-0.090,0.000,0.000,0.000
1644887352035824896,2022-02-15-01:09:12,10.1.1.3,20,-0.100,-0.100,-0.100,0.000,0.000,0.000
1644887352155302144,2022-02-15-01:09:12,10.1.1.3,38,-0.080,-0.080,-0.080,0.000,0.000,0.000
1644887352255256832,2022-02-15-01:09:12,10.1.1.3,33,-0.060,-0.060,-0.060,0.000,0.000,0.000
1644887352296659968,2022-02-15-01:09:12,10.1.1.3,22,-0.050,-0.050,-0.050,0.000,0.000,0.000
1644887352356125184,2022-02-15-01:09:12,10.1.1.3,31,-0.040,-0.040,-0.040,0.000,0.000,0.000
1644887352416080896,2022-02-15-01:09:12,10.1.1.3,39,-0.030,-0.030,-0.030,0.000,0.000,0.000
1644887352516197888,2022-02-15-01:09:12,10.1.1.3,36,-0.010,-0.010,-0.010,0.000,0.000,0.000
1644887352560408064,2022-02-15-01:09:12,10.1.1.3,31,0.000,0.000,0.000,0.000,0.000,0.000
1644887352615335936,2022-02-15-01:09:12,10.1.1.3,35,0.010,0.010,0.010,0.000,0.000,0.000
1644887352655288832,2022-02-15-01:09:12,10.1.1.3,24,0.020,0.020,0.020,0.000,0.000,0.000
1644887352715589888,2022-02-15-01:09:12,10.1.1.3,33,0.030,0.030,0.030,0.000,0.000,0.000
1644887352755241984,2022-02-15-01:09:12,10.1.1.3,22,0.040,0.040,0.040,0.000,0.000,0.000
1644887352816480000,2022-02-15-01:09:12,10.1.1.3,32,0.050,0.050,0.050,0.000,0.000,0.000
1644887352856105216,2022-02-15-01:09:12,10.1.1.3,21,0.060,0.060,0.060,0.000,0.000,0.000
1644887352915246080,2022-02-15-01:09:12,10.1.1.3,30,0.070,0.070,0.070,0.000,0.000,0.000
1644887352975863040,2022-02-15-01:09:12,10.1.1.3,39,0.080,0.080,0.080,0.000,0.000,0.000
1644887353016145920,2022-02-15-01:09:13,10.1.1.3,28,0.090,0.090,0.090,0.000,0.000,0.000
1644887353075591168,2022-02-15-01:09:13,10.1.1.3,37,0.100,0.100,0.100,0.000,0.000,0.000
1644887353116041984,2022-02-15-01:09:13,10.1.1.3,26,0.090,0.090,0.090,0.000,0.000,0.000
1644887353214788864,2022-02-15-01:09:13,10.1.1.3,24,0.070,0.070,0.070,0.000,0.000,0.000
1644887353275793152,2022-02-15-01:09:13,10.1.1.3,33,0.060,0.060,0.060,0.000,0.000,0.000
1644887353315368960,2022-02-15-01:09:13,10.1.1.3,23,0.050,0.050,0.050,0.000,0.000,0.000
1644887353375294976,2022-02-15-01:09:13,10.1.1.3,32,0.040,0.040,0.040,0.000,0.000,0.000
1644887353415288064,2022-02-15-01:09:13,10.1.1.3,21,0.030,0.030,0.030,0.000,0.000,0.000
1644887353530190848,2022-02-15-01:09:13,10.1.1.3,31,0.010,0.010,0.010,0.000,0.000,0.000
1644887353577100032,2022-02-15-01:09:13,10.1.1.3,26,0.000,0.000,0.000,0.000,0.000,0.000
1644887353635552768,2022-02-15-01:09:13,10.1.1.3,33,-0.010,-0.010,-0.010,0.000,0.000,0.000
1644887353675385856,2022-02-15-01:09:13,10.1.1.3,21,-0.020,-0.020,-0.020,0.000,0.000,0.000
1644887353795949056,2022-02-15-01:09:13,10.1.1.3,39,-0.040,-0.040,-0.040,0.000,0.000,0.000
1644887353835702016,2022-02-15-01:09:13,10.1.1.3,28,-0.050,-0.050,-0.050,0.000,0.000,0.000
1644887353895268864,2022-02-15-01:09:13,10.1.1.3,37,-0.060,-0.060,-0.060,0.000,0.000,0.000
1644887353935409920,2022-02-15-01:09:13,10.1.1.3,26,-0.070,-0.070,-0.070,0.000,0.000,0.000
1644887353995027968,2022-02-15-01:09:13,10.1.1.3,35,-0.080,-0.080,-0.080,0.000,0.000,0.000
1644887354035255040,2022-02-15-01:09:14,10.1.1.3,22,-0.090,-0.090,-0.090,0.000,0.000,0.000
1644887354094831104,2022-02-15-01:09:14,10.1.1.3,29,-0.100,-0.100,-0.100,0.000,0.000,0.000
1644887354156378112,2022-02-15-01:09:14,10.1.1.3,36,-0.090,-0.090,-0.090,0.000,0.000,0.000
1644887354195355904,2022-02-15-01:09:14,10.1.1.3,25,-0.080,-0.080,-0.080,0.000,0.000,0.000
1644887354264384000,2022-02-15-01:09:14,10.1.1.3,42,-0.070,-0.070,-0.070,0.000,0.000,0.000
1644887354295460096,2022-02-15-01:09:14,10.1.1.3,24,-0.060,-0.060,-0.060,0.000,0.000,0.000
1644887354355191040,2022-02-15-01:09:14,10.1.1.3,33,-0.050,-0.050,-0.050,0.000,0.000,0.000
1644887354395895040,2022-02-15-01:09:14,10.1.1.3,22,-0.040,-0.040,-0.040,0.000,0.000,0.000
1644887354455457024,2022-02-15-01:09:14,10.1.1.3,31,-0.030,-0.030,-0.030,0.000,0.000,0.000
1644887354495986944,2022-02-15-01:09:14,10.1.1.3,21,-0.020,-0.020,-0.020,0.000,0.000,0.000
1644887354554877952,2022-02-15-01:09:14,10.1.1.3,29,-0.010,-0.010,-0.010,0.000,0.000,0.000
1644887354616465920,2022-02-15-01:09:14,10.1.1.3,39,0.000,0.000,0.000,0.000,0.000,0.000
1644887354656384000,2022-02-15-01:09:14,10.1.1.3,27,0.010,0.010,0.010,0.000,0.000,0.000
1644887354715241984,2022-02-15-01:09:14,10.1.1.3,33,0.020,0.020,0.020,0.000,0.000,0.000
1644887354775192064,2022-02-15-01:09:14,10.1.1.3,36,0.030,0.030,0.030,0.000,0.000,0.000
1644887354824729856,2022-02-15-01:09:14,10.1.1.3,31,0.040,0.040,0.040,0.000,0.000,0.000
1644887354874774016,2022-02-15-01:09:14,10.1.1.3,33,0.050,0.050,0.050,0.000,0.000,0.000
1644887354915314944,2022-02-15-01:09:14,10.1.1.3,23,0.060,0.060,0.060,0.000,0.000,0.000
1644887354975145216,2022-02-15-01:09:14,10.1.1.3,31,0.070,0.070,0.070,0.000,0.000,0.000
1644887355015582976,2022-02-15-01:09:15,10.1.1.3,21,0.080,0.080,0.080,0.000,0.000,0.000
1644887355075740160,2022-02-15-01:09:15,10.1.1.3,29,0.090,0.090,0.090,0.000,0.000,0.000
1644887355136604928,2022-02-15-01:09:15,10.1.1.3,38,0.100,0.100,0.100,0.000,0.000,0.000
1644887355234936832,2022-02-15-01:09:15,10.1.1.3,36,0.080,0.080,0.080,0.000,0.000,0.000
1644887355275753984,2022-02-15-01:09:15,10.1.1.3,25,0.070,0.070,0.070,0.000,0.000,0.000
1644887355336096000,2022-02-15-01:09:15,10.1.1.3,34,0.060,0.060,0.060,0.000,0.000,0.000
1644887355377154048,2022-02-15-01:09:15,10.1.1.3,24,0.050,0.050,0.050,0.000,0.000,0.000
1644887355440058880,2022-02-15-01:09:15,10.1.1.3,37,0.040,0.040,0.040,0.000,0.000,0.000
1644887355475607040,2022-02-15-01:09:15,10.1.1.3,22,0.030,0.030,0.030,0.000,0.000,0.000
1644887355535995904,2022-02-15-01:09:15,10.1.1.3,31,0.020,0.020,0.020,0.000,0.000,0.000
1644887355584889856,2022-02-15-01:09:15,10.1.1.3,25,0.010,0.010,0.010,0.000,0.000,0.000
1644887355634924032,2022-02-15-01:09:15,10.1.1.3,26,0.000,0.000,0.000,0.000,0.000,0.000
1644887355695698944,2022-02-15-01:09:15,10.1.1.3,35,-0.010,-0.010,-0.010,0.000,0.000,0.000
1644887355736105984,2022-02-15-01:09:15,10.1.1.3,24,-0.020,-0.020,-0.020,0.000,0.000,0.000
1644887355795623936,2022-02-15-01:09:15,10.1.1.3,32,-0.030,-0.030,-0.030,0.000,0.000,0.000
1644887355836963840,2022-02-15-01:09:15,10.1.1.3,21,-0.040,-0.040,-0.040,0.000,0.000,0.000
1644887355895663872,2022-02-15-01:09:15,10.1.1.3,31,-0.050,-0.050,-0.050,0.000,0.000,0.000
1644887355995429888,2022-02-15-01:09:15,10.1.1.3,29,-0.070,-0.070,-0.070,0.000,0.000,0.000
1644887356055873024,2022-02-15-01:09:16,10.1.1.3,37,-0.080,-0.080,-0.080,0.000,0.000,0.000
1644887356114917120,2022-02-15-01:09:16,10.1.1.3,40,-0.090,-0.090,-0.090,0.000,0.000,0.000
1644887356155312128,2022-02-15-01:09:16,10.1.1.3,35,-0.100,-0.100,-0.100,0.000,0.000,0.000
1644887356195076096,2022-02-15-01:09:16,10.1.1.3,24,-0.090,-0.090,-0.090,0.000,0.000,0.000
1644887356255825920,2022-02-15-01:09:16,10.1.1.3,33,-0.080,-0.080,-0.080,0.000,0.000,0.000
1644887356295470080,2022-02-15-01:09:16,10.1.1.3,19,-0.070,-0.070,-0.070,0.000,0.000,0.000
1644887356356062976,2022-02-15-01:09:16,10.1.1.3,28,-0.060,-0.060,-0.060,0.000,0.000,0.000
1644887356418339072,2022-02-15-01:09:16,10.1.1.3,39,-0.050,-0.050,-0.050,0.000,0.000,0.000
1644887356456103168,2022-02-15-01:09:16,10.1.1.3,26,-0.040,-0.040,-0.040,0.000,0.000,0.000
1644887356516388864,2022-02-15-01:09:16,10.1.1.3,35,-0.030,-0.030,-0.030,0.000,0.000,0.000
1644887356562405120,2022-02-15-01:09:16,10.1.1.3,24,-0.020,-0.020,-0.020,0.000,0.000,0.000
1644887356655354112,2022-02-15-01:09:16,10.1.1.3,23,0.000,0.000,0.000,0.000,0.000,0.000
1644887356715204096,2022-02-15-01:09:16,10.1.1.3,31,0.010,0.010,0.010,0.000,0.000,0.000
1644887356815165952,2022-02-15-01:09:16,10.1.1.3,29,0.030,0.030,0.030,0.000,0.000,0.000
1644887356875714048,2022-02-15-01:09:16,10.1.1.3,38,0.040,0.040,0.040,0.000,0.000,0.000
1644887356915368960,2022-02-15-01:09:16,10.1.1.3,27,0.050,0.050,0.050,0.000,0.000,0.000
1644887356976408832,2022-02-15-01:09:16,10.1.1.3,34,0.060,0.060,0.060,0.000,0.000,0.000
1644887357016001024,2022-02-15-01:09:17,10.1.1.3,23,0.070,0.070,0.070,0.000,0.000,0.000
1644887357075706880,2022-02-15-01:09:17,10.1.1.3,33,0.080,0.080,0.080,0.000,0.000,0.000
1644887357115724032,2022-02-15-01:09:17,10.1.1.3,22,0.090,0.090,0.090,0.000,0.000,0.000
1644887357183657984,2022-02-15-01:09:17,10.1.1.3,38,0.100,0.100,0.100,0.000,0.000,0.000
1644887357216861952,2022-02-15-01:09:17,10.1.1.3,20,0.090,0.090,0.090,0.000,0.000,0.000
1644887357327609088,2022-02-15-01:09:17,10.1.1.3,31,0.070,0.070,0.070,0.000,0.000,0.000
1644887357369263872,2022-02-15-01:09:17,10.1.1.3,20,0.060,0.060,0.060,0.000,0.000,0.000
1644887357437295872,2022-02-15-01:09:17,10.1.1.3,37,0.050,0.050,0.050,0.000,0.000,0.000
1644887357475334912,2022-02-15-01:09:17,10.1.1.3,26,0.040,0.040,0.040,0.000,0.000,0.000
1644887357530100992,2022-02-15-01:09:17,10.1.1.3,29,0.030,0.030,0.030,0.000,0.000,0.000
1644887357635472896,2022-02-15-01:09:17,10.1.1.3,34,0.010,0.010,0.010,0.000,0.000,0.000
1644887357676130048,2022-02-15-01:09:17,10.1.1.3,22,0.000,0.000,0.000,0.000,0.000,0.000
1644887357735634944,2022-02-15-01:09:17,10.1.1.3,31,-0.010,-0.010,-0.010,0.000,0.000,0.000
1644887357896434944,2022-02-15-01:09:17,10.1.1.3,37,-0.040,-0.040,-0.040,0.000,0.000,0.000
1644887357936795904,2022-02-15-01:09:17,10.1.1.3,24,-0.050,-0.050,-0.050,0.000,0.000,0.000
1644887357996242944,2022-02-15-01:09:17,10.1.1.3,33,-0.060,-0.060,-0.060,0.000,0.000,0.000
1644887358038352128,2022-02-15-01:09:18,10.1.1.3,22,-0.070,-0.070,-0.070,0.000,0.000,0.000
1644887358095557888,2022-02-15-01:09:18,10.1.1.3,31,-0.080,-0.080,-0.080,0.000,0.000,0.000
1644887358135937024,2022-02-15-01:09:18,10.1.1.3,20,-0.090,-0.090,-0.090,0.000,0.000,0.000
1644887358195709952,2022-02-15-01:09:18,10.1.1.3,29,-0.100,-0.100,-0.100,0.000,0.000,0.000
1644887358255661056,2022-02-15-01:09:18,10.1.1.3,37,-0.090,-0.090,-0.090,0.000,0.000,0.000
1644887358295536128,2022-02-15-01:09:18,10.1.1.3,26,-0.080,-0.080,-0.080,0.000,0.000,0.000
1644887358355616000,2022-02-15-01:09:18,10.1.1.3,36,-0.070,-0.070,-0.070,0.000,0.000,0.000
1644887358395844864,2022-02-15-01:09:18,10.1.1.3,24,-0.060,-0.060,-0.060,0.000,0.000,0.000
1644887358450125056,2022-02-15-01:09:18,10.1.1.3,26,-0.050,-0.050,-0.050,0.000,0.000,0.000
1644887358495846912,2022-02-15-01:09:18,10.1.1.3,22,-0.040,-0.040,-0.040,0.000,0.000,0.000
1644887358565722880,2022-02-15-01:09:18,10.1.1.3,36,-0.030,-0.030,-0.030,0.000,0.000,0.000
1644887358595150080,2022-02-15-01:09:18,10.1.1.3,21,-0.020,-0.020,-0.020,0.000,0.000,0.000
1644887358715622912,2022-02-15-01:09:18,10.1.1.3,39,0.000,0.000,0.000,0.000,0.000,0.000
1644887358755348992,2022-02-15-01:09:18,10.1.1.3,28,0.010,0.010,0.010,0.000,0.000,0.000
1644887358817212160,2022-02-15-01:09:18,10.1.1.3,38,0.020,0.020,0.020,0.000,0.000,0.000
1644887358856785920,2022-02-15-01:09:18,10.1.1.3,26,0.030,0.030,0.030,0.000,0.000,0.000
1644887358916187904,2022-02-15-01:09:18,10.1.1.3,35,0.040,0.040,0.040,0.000,0.000,0.000
1644887358955261952,2022-02-15-01:09:18,10.1.1.3,23,0.050,0.050,0.050,0.000,0.000,0.000
1644887359015388928,2022-02-15-01:09:19,10.1.1.3,32,0.060,0.060,0.060,0.000,0.000,0.000
1644887359055908864,2022-02-15-01:09:19,10.1.1.3,21,0.070,0.070,0.070,0.000,0.000,0.000
1644887359175895808,2022-02-15-01:09:19,10.1.1.3,38,0.090,0.090,0.090,0.000,0.000,0.000
1644887359214905088,2022-02-15-01:09:19,10.1.1.3,26,0.100,0.100,0.100,0.000,0.000,0.000
1644887359274926848,2022-02-15-01:09:19,10.1.1.3,35,0.090,0.090,0.090,0.000,0.000,0.000
1644887359315602176,2022-02-15-01:09:19,10.1.1.3,24,0.080,0.080,0.080,0.000,0.000,0.000
1644887359375633920,2022-02-15-01:09:19,10.1.1.3,33,0.070,0.070,0.070,0.000,0.000,0.000
1644887359415258880,2022-02-15-01:09:19,10.1.1.3,23,0.060,0.060,0.060,0.000,0.000,0.000
1644887359475928064,2022-02-15-01:09:19,10.1.1.3,31,0.050,0.050,0.050,0.000,0.000,0.000
1644887359576720896,2022-02-15-01:09:19,10.1.1.3,29,0.030,0.030,0.030,0.000,0.000,0.000
1644887359635042048,2022-02-15-01:09:19,10.1.1.3,38,0.020,0.020,0.020,0.000,0.000,0.000
1644887359675052800,2022-02-15-01:09:19,10.1.1.3,26,0.010,0.010,0.010,0.000,0.000,0.000
1644887359735645952,2022-02-15-01:09:19,10.1.1.3,36,0.000,0.000,0.000,0.000,0.000,0.000
1644887359774816000,2022-02-15-01:09:19,10.1.1.3,25,-0.010,-0.010,-0.010,0.000,0.000,0.000
1644887359836760064,2022-02-15-01:09:19,10.1.1.3,32,-0.020,-0.020,-0.020,0.000,0.000,0.000
1644887359894974976,2022-02-15-01:09:19,10.1.1.3,39,-0.030,-0.030,-0.030,0.000,0.000,0.000
1644887359936372992,2022-02-15-01:09:19,10.1.1.3,26,-0.040,-0.040,-0.040,0.000,0.000,0.000
1644887359995710976,2022-02-15-01:09:19,10.1.1.3,34,-0.050,-0.050,-0.050,0.000,0.000,0.000
1644887360036994816,2022-02-15-01:09:20,10.1.1.3,23,-0.060,-0.060,-0.060,0.000,0.000,0.000
1644887360095712000,2022-02-15-01:09:20,10.1.1.3,32,-0.070,-0.070,-0.070,0.000,0.000,0.000
1644887360135431936,2022-02-15-01:09:20,10.1.1.3,21,-0.080,-0.080,-0.080,0.000,0.000,0.000
1644887360195277056,2022-02-15-01:09:20,10.1.1.3,30,-0.090,-0.090,-0.090,0.000,0.000,0.000
1644887360255510016,2022-02-15-01:09:20,10.1.1.3,39,-0.100,-0.100,-0.100,0.000,0.000,0.000
1644887360296441088,2022-02-15-01:09:20,10.1.1.3,27,-0.090,-0.090,-0.090,0.000,0.000,0.000
1644887360356785920,2022-02-15-01:09:20,10.1.1.3,35,-0.080,-0.080,-0.080,0.000,0.000,0.000
1644887360395896064,2022-02-15-01:09:20,10.1.1.3,25,-0.070,-0.070,-0.070,0.000,0.000,0.000
1644887360456336128,2022-02-15-01:09:20,10.1.1.3,35,-0.060,-0.060,-0.060,0.000,0.000,0.000
1644887360495038976,2022-02-15-01:09:20,10.1.1.3,23,-0.050,-0.050,-0.050,0.000,0.000,0.000
1644887360556058880,2022-02-15-01:09:20,10.1.1.3,32,-0.040,-0.040,-0.040,0.000,0.000,0.000
1644887360595194112,2022-02-15-01:09:20,10.1.1.3,21,-0.030,-0.030,-0.030,0.000,0.000,0.000
1644887360655726848,2022-02-15-01:09:20,10.1.1.3,30,-0.020,-0.020,-0.020,0.000,0.000,0.000
1644887360714814976,2022-02-15-01:09:20,10.1.1.3,39,-0.010,-0.010,-0.010,0.000,0.000,0.000
1644887360755485184,2022-02-15-01:09:20,10.1.1.3,28,0.000,0.000,0.000,0.000,0.000,0.000
1644887360815112960,2022-02-15-01:09:20,10.1.1.3,36,0.010,0.010,0.010,0.000,0.000,0.000
1644887360855663104,2022-02-15-01:09:20,10.1.1.3,25,0.020,0.020,0.020,0.000,0.000,0.000
1644887360915328000,2022-02-15-01:09:20,10.1.1.3,34,0.030,0.030,0.030,0.000,0.000,0.000
1644887360955056896,2022-02-15-01:09:20,10.1.1.3,23,0.040,0.040,0.040,0.000,0.000,0.000
1644887361015141888,2022-02-15-01:09:21,10.1.1.3,32,0.050,0.050,0.050,0.000,0.000,0.000
1644887361055401984,2022-02-15-01:09:21,10.1.1.3,21,0.060,0.060,0.060,0.000,0.000,0.000
1644887361115063040,2022-02-15-01:09:21,10.1.1.3,30,0.070,0.070,0.070,0.000,0.000,0.000
1644887361175641088,2022-02-15-01:09:21,10.1.1.3,39,0.080,0.080,0.080,0.000,0.000,0.000
1644887361215756032,2022-02-15-01:09:21,10.1.1.3,26,0.090,0.090,0.090,0.000,0.000,0.000
1644887361275686912,2022-02-15-01:09:21,10.1.1.3,36,0.100,0.100,0.100,0.000,0.000,0.000
1644887361315916032,2022-02-15-01:09:21,10.1.1.3,25,0.090,0.090,0.090,0.000,0.000,0.000
1644887361375905024,2022-02-15-01:09:21,10.1.1.3,34,0.080,0.080,0.080,0.000,0.000,0.000
1644887361415220992,2022-02-15-01:09:21,10.1.1.3,23,0.070,0.070,0.070,0.000,0.000,0.000
1644887361475804928,2022-02-15-01:09:21,10.1.1.3,32,0.060,0.060,0.060,0.000,0.000,0.000
1644887361526141952,2022-02-15-01:09:21,10.1.1.3,25,0.050,0.050,0.050,0.000,0.000,0.000
1644887361576652032,2022-02-15-01:09:21,10.1.1.3,31,0.040,0.040,0.040,0.000,0.000,0.000
1644887361615799040,2022-02-15-01:09:21,10.1.1.3,20,0.030,0.030,0.030,0.000,0.000,0.000
1644887361675159040,2022-02-15-01:09:21,10.1.1.3,29,0.020,0.020,0.020,0.000,0.000,0.000
1644887361735953920,2022-02-15-01:09:21,10.1.1.3,38,0.010,0.010,0.010,0.000,0.000,0.000
1644887361774944000,2022-02-15-01:09:21,10.1.1.3,26,0.000,0.000,0.000,0.000,0.000,0.000
1644887361842216960,2022-02-15-01:09:21,10.1.1.3,36,-0.010,-0.010,-0.010,0.000,0.000,0.000
1644887361875045888,2022-02-15-01:09:21,10.1.1.3,25,-0.020,-0.020,-0.020,0.000,0.000,0.000
1644887361935246848,2022-02-15-01:09:21,10.1.1.3,34,-0.030,-0.030,-0.030,0.000,0.000,0.000
1644887361975377920,2022-02-15-01:09:21,10.1.1.3,23,-0.040,-0.040,-0.040,0.000,0.000,0.000
1644887362035131904,2022-02-15-01:09:22,10.1.1.3,32,-0.050,-0.050,-0.050,0.000,0.000,0.000
1644887362075640832,2022-02-15-01:09:22,10.1.1.3,22,-0.060,-0.060,-0.060,0.000,0.000,0.000
1644887362136097792,2022-02-15-01:09:22,10.1.1.3,31,-0.070,-0.070,-0.070,0.000,0.000,0.000
1644887362175614976,2022-02-15-01:09:22,10.1.1.3,19,-0.080,-0.080,-0.080,0.000,0.000,0.000
1644887362235531008,2022-02-15-01:09:22,10.1.1.3,29,-0.090,-0.090,-0.090,0.000,0.000,0.000
1644887362296360960,2022-02-15-01:09:22,10.1.1.3,38,-0.100,-0.100,-0.100,0.000,0.000,0.000
1644887362336088832,2022-02-15-01:09:22,10.1.1.3,24,-0.090,-0.090,-0.090,0.000,0.000,0.000
1644887362391993088,2022-02-15-01:09:22,10.1.1.3,26,-0.080,-0.080,-0.080,0.000,0.000,0.000
1644887362454967040,2022-02-15-01:09:22,10.1.1.3,42,-0.070,-0.070,-0.070,0.000,0.000,0.000
1644887362495604992,2022-02-15-01:09:22,10.1.1.3,27,-0.060,-0.060,-0.060,0.000,0.000,0.000
1644887362555433984,2022-02-15-01:09:22,10.1.1.3,36,-0.050,-0.050,-0.050,0.000,0.000,0.000
1644887362595814912,2022-02-15-01:09:22,10.1.1.3,24,-0.040,-0.040,-0.040,0.000,0.000,0.000
1644887362655438848,2022-02-15-01:09:22,10.1.1.3,33,-0.030,-0.030,-0.030,0.000,0.000,0.000
1644887362695142912,2022-02-15-01:09:22,10.1.1.3,22,-0.020,-0.020,-0.020,0.000,0.000,0.000
1644887362756977152,2022-02-15-01:09:22,10.1.1.3,29,-0.010,-0.010,-0.010,0.000,0.000,0.000
1644887362855237888,2022-02-15-01:09:22,10.1.1.3,26,0.010,0.010,0.010,0.000,0.000,0.000
1644887362916676096,2022-02-15-01:09:22,10.1.1.3,37,0.020,0.020,0.020,0.000,0.000,0.000
1644887362955725056,2022-02-15-01:09:22,10.1.1.3,26,0.030,0.030,0.030,0.000,0.000,0.000
1644887363015933952,2022-02-15-01:09:23,10.1.1.3,34,0.040,0.040,0.040,0.000,0.000,0.000
1644887363056510976,2022-02-15-01:09:23,10.1.1.3,23,0.050,0.050,0.050,0.000,0.000,0.000
1644887363118599936,2022-02-15-01:09:23,10.1.1.3,35,0.060,0.060,0.060,0.000,0.000,0.000
1644887363155522048,2022-02-15-01:09:23,10.1.1.3,22,0.070,0.070,0.070,0.000,0.000,0.000
1644887363216473088,2022-02-15-01:09:23,10.1.1.3,31,0.080,0.080,0.080,0.000,0.000,0.000
1644887363255252992,2022-02-15-01:09:23,10.1.1.3,20,0.090,0.090,0.090,0.000,0.000,0.000
1644887363316442880,2022-02-15-01:09:23,10.1.1.3,30,0.100,0.100,0.100,0.000,0.000,0.000
1644887363376195072,2022-02-15-01:09:23,10.1.1.3,39,0.090,0.090,0.090,0.000,0.000,0.000
1644887363416282880,2022-02-15-01:09:23,10.1.1.3,24,0.080,0.080,0.080,0.000,0.000,0.000
1644887363474827008,2022-02-15-01:09:23,10.1.1.3,32,0.070,0.070,0.070,0.000,0.000,0.000
1644887363515230976,2022-02-15-01:09:23,10.1.1.3,22,0.060,0.060,0.060,0.000,0.000,0.000
1644887363575517952,2022-02-15-01:09:23,10.1.1.3,31,0.050,0.050,0.050,0.000,0.000,0.000
1644887363675323136,2022-02-15-01:09:23,10.1.1.3,29,0.030,0.030,0.030,0.000,0.000,0.000
1644887363736128000,2022-02-15-01:09:23,10.1.1.3,38,0.020,0.020,0.020,0.000,0.000,0.000
1644887363792582144,2022-02-15-01:09:23,10.1.1.3,42,0.010,0.010,0.010,0.000,0.000,0.000
1644887363835987968,2022-02-15-01:09:23,10.1.1.3,36,0.000,0.000,0.000,0.000,0.000,0.000
1644887363876086016,2022-02-15-01:09:23,10.1.1.3,25,-0.010,-0.010,-0.010,0.000,0.000,0.000
1644887363937427968,2022-02-15-01:09:23,10.1.1.3,36,-0.020,-0.020,-0.020,0.000,0.000,0.000
1644887363984091136,2022-02-15-01:09:23,10.1.1.3,23,-0.030,-0.030,-0.030,0.000,0.000,0.000
1644887364103342080,2022-02-15-01:09:24,10.1.1.3,30,-0.050,-0.050,-0.050,0.000,0.000,0.000
1644887364155411968,2022-02-15-01:09:24,10.1.1.3,38,-0.060,-0.060,-0.060,0.000,0.000,0.000
1644887364214768896,2022-02-15-01:09:24,10.1.1.3,44,-0.070,-0.070,-0.070,0.000,0.000,0.000
1644887364254925056,2022-02-15-01:09:24,10.1.1.3,33,-0.080,-0.080,-0.080,0.000,0.000,0.000
1644887364294908928,2022-02-15-01:09:24,10.1.1.3,21,-0.090,-0.090,-0.090,0.000,0.000,0.000
1644887364375268864,2022-02-15-01:09:24,10.1.1.3,-1,-0.090,-0.090,-0.090,0.000,0.000,0.000
1644887364463748096,2022-02-15-01:09:24,10.1.1.3,34,-0.080,-0.080,-0.080,0.000,0.000,0.000
1644887364555403008,2022-02-15-01:09:24,10.1.1.3,25,-0.060,-0.060,-0.060,0.000,0.000,0.000
1644887364614765824,2022-02-15-01:09:24,10.1.1.3,34,-0.050,-0.050,-0.050,0.000,0.000,0.000
1644887364655726848,2022-02-15-01:09:24,10.1.1.3,24,-0.040,-0.040,-0.040,0.000,0.000,0.000
1644887364715269120,2022-02-15-01:09:24,10.1.1.3,33,-0.030,-0.030,-0.030,0.000,0.000,0.000
1644887364758023936,2022-02-15-01:09:24,10.1.1.3,25,-0.020,-0.020,-0.020,0.000,0.000,0.000
1644887364815834112,2022-02-15-01:09:24,10.1.1.3,30,-0.010,-0.010,-0.010,0.000,0.000,0.000
1644887364855036928,2022-02-15-01:09:24,10.1.1.3,19,-0.000,-0.000,-0.000,0.000,0.000,0.000
1644887364922404096,2022-02-15-01:09:24,10.1.1.3,34,0.010,0.010,0.010,0.000,0.000,0.000
1644887365094893824,2022-02-15-01:09:25,10.1.1.3,38,0.040,0.040,0.040,0.000,0.000,0.000
1644887365154444032,2022-02-15-01:09:25,10.1.1.3,47,0.050,0.050,0.050,0.000,0.000,0.000
1644887365194509056,2022-02-15-01:09:25,10.1.1.3,36,0.060,0.060,0.060,0.000,0.000,0.000
1644887365236901888,2022-02-15-01:09:25,10.1.1.3,27,0.070,0.070,0.070,0.000,0.000,0.000
1644887365294415872,2022-02-15-01:09:25,10.1.1.3,34,0.080,0.080,0.080,0.000,0.000,0.000
1644887365335582976,2022-02-15-01:09:25,10.1.1.3,25,0.090,0.090,0.090,0.000,0.000,0.000
1644887365394539008,2022-02-15-01:09:25,10.1.1.3,33,0.100,0.100,0.100,0.000,0.000,0.000
1644887365434825984,2022-02-15-01:09:25,10.1.1.3,22,0.090,0.090,0.090,0.000,0.000,0.000
1644887365494791936,2022-02-15-01:09:25,10.1.1.3,31,0.080,0.080,0.080,0.000,0.000,0.000
1644887365554593024,2022-02-15-01:09:25,10.1.1.3,38,0.070,0.070,0.070,0.000,0.000,0.000
1644887365605982976,2022-02-15-01:09:25,10.1.1.3,39,0.060,0.060,0.060,0.000,0.000,0.000
1644887365695202048,2022-02-15-01:09:25,10.1.1.3,25,0.040,0.040,0.040,0.000,0.000,0.000
1644887365754576896,2022-02-15-01:09:25,10.1.1.3,35,0.030,0.030,0.030,0.000,0.000,0.000
1644887365814944000,2022-02-15-01:09:25,10.1.1.3,44,0.020,0.020,0.020,0.000,0.000,0.000
1644887365854789888,2022-02-15-01:09:25,10.1.1.3,33,0.010,0.010,0.010,0.000,0.000,0.000
1644887365895163136,2022-02-15-01:09:25,10.1.1.3,22,0.000,0.000,0.000,0.000,0.000,0.000
1644887365954658048,2022-02-15-01:09:25,10.1.1.3,29,-0.010,-0.010,-0.010,0.000,0.000,0.000
1644887366014637056,2022-02-15-01:09:26,10.1.1.3,37,-0.020,-0.020,-0.020,0.000,0.000,0.000
1644887366054734080,2022-02-15-01:09:26,10.1.1.3,20,-0.030,-0.030,-0.030,0.000,0.000,0.000
1644887366115083008,2022-02-15-01:09:26,10.1.1.3,29,-0.040,-0.040,-0.040,0.000,0.000,0.000
1644887366175319808,2022-02-15-01:09:26,10.1.1.3,38,-0.050,-0.050,-0.050,0.000,0.000,0.000
1644887366225438976,2022-02-15-01:09:26,10.1.1.3,27,-0.060,-0.060,-0.060,0.000,0.000,0.000
1644887366275602176,2022-02-15-01:09:26,10.1.1.3,35,-0.070,-0.070,-0.070,0.000,0.000,0.000
1644887366314793216,2022-02-15-01:09:26,10.1.1.3,25,-0.080,-0.080,-0.080,0.000,0.000,0.000
1644887366375534080,2022-02-15-01:09:26,10.1.1.3,33,-0.090,-0.090,-0.090,0.000,0.000,0.000
1644887366436919808,2022-02-15-01:09:26,10.1.1.3,43,-0.100,-0.100,-0.100,0.000,0.000,0.000
1644887366475148032,2022-02-15-01:09:26,10.1.1.3,31,-0.090,-0.090,-0.090,0.000,0.000,0.000
1644887366515763968,2022-02-15-01:09:26,10.1.1.3,20,-0.080,-0.080,-0.080,0.000,0.000,0.000
1644887366634972160,2022-02-15-01:09:26,10.1.1.3,39,-0.060,-0.060,-0.060,0.000,0.000,0.000
1644887366675000832,2022-02-15-01:09:26,10.1.1.3,29,-0.050,-0.050,-0.050,0.000,0.000,0.000
1644887366735141120,2022-02-15-01:09:26,10.1.1.3,37,-0.040,-0.040,-0.040,0.000,0.000,0.000
1644887366776475904,2022-02-15-01:09:26,10.1.1.3,28,-0.030,-0.030,-0.030,0.000,0.000,0.000
1644887366831250944,2022-02-15-01:09:26,10.1.1.3,31,-0.020,-0.020,-0.020,0.000,0.000,0.000
1644887366875268096,2022-02-15-01:09:26,10.1.1.3,25,-0.010,-0.010,-0.010,0.000,0.000,0.000
1644887366936348928,2022-02-15-01:09:26,10.1.1.3,34,0.000,0.000,0.000,0.000,0.000,0.000
1644887366975849984,2022-02-15-01:09:26,10.1.1.3,24,0.010,0.010,0.010,0.000,0.000,0.000
1644887367037161984,2022-02-15-01:09:27,10.1.1.3,33,0.020,0.020,0.020,0.000,0.000,0.000
1644887367075723008,2022-02-15-01:09:27,10.1.1.3,22,0.030,0.030,0.030,0.000,0.000,0.000
1644887367135326976,2022-02-15-01:09:27,10.1.1.3,31,0.040,0.040,0.040,0.000,0.000,0.000
1644887367175461888,2022-02-15-01:09:27,10.1.1.3,20,0.050,0.050,0.050,0.000,0.000,0.000
1644887367295170048,2022-02-15-01:09:27,10.1.1.3,39,0.070,0.070,0.070,0.000,0.000,0.000
1644887367335745024,2022-02-15-01:09:27,10.1.1.3,28,0.080,0.080,0.080,0.000,0.000,0.000
1644887367394290944,2022-02-15-01:09:27,10.1.1.3,37,0.090,0.090,0.090,0.000,0.000,0.000
1644887367434706944,2022-02-15-01:09:27,10.1.1.3,26,0.100,0.100,0.100,0.000,0.000,0.000
1644887367494708992,2022-02-15-01:09:27,10.1.1.3,35,0.090,0.090,0.090,0.000,0.000,0.000
1644887367535196928,2022-02-15-01:09:27,10.1.1.3,25,0.080,0.080,0.080,0.000,0.000,0.000
1644887367594582016,2022-02-15-01:09:27,10.1.1.3,34,0.070,0.070,0.070,0.000,0.000,0.000
1644887367635119872,2022-02-15-01:09:27,10.1.1.3,24,0.060,0.060,0.060,0.000,0.000,0.000
1644887367697871872,2022-02-15-01:09:27,10.1.1.3,34,0.050,0.050,0.050,0.000,0.000,0.000
1644887367735325952,2022-02-15-01:09:27,10.1.1.3,22,0.040,0.040,0.040,0.000,0.000,0.000
1644887367797195008,2022-02-15-01:09:27,10.1.1.3,31,0.030,0.030,0.030,0.000,0.000,0.000
1644887367855684096,2022-02-15-01:09:27,10.1.1.3,39,0.020,0.020,0.020,0.000,0.000,0.000
1644887367894761984,2022-02-15-01:09:27,10.1.1.3,28,0.010,0.010,0.010,0.000,0.000,0.000
1644887367958126080,2022-02-15-01:09:27,10.1.1.3,40,0.000,0.000,0.000,0.000,0.000,0.000
1644887367995326976,2022-02-15-01:09:27,10.1.1.3,27,-0.010,-0.010,-0.010,0.000,0.000,0.000
1644887368055026944,2022-02-15-01:09:28,10.1.1.3,36,-0.020,-0.020,-0.020,0.000,0.000,0.000
1644887368094758912,2022-02-15-01:09:28,10.1.1.3,25,-0.030,-0.030,-0.030,0.000,0.000,0.000
1644887368154743808,2022-02-15-01:09:28,10.1.1.3,33,-0.040,-0.040,-0.040,0.000,0.000,0.000
1644887368195081984,2022-02-15-01:09:28,10.1.1.3,23,-0.050,-0.050,-0.050,0.000,0.000,0.000
1644887368314956800,2022-02-15-01:09:28,10.1.1.3,38,-0.070,-0.070,-0.070,0.000,0.000,0.000
1644887368355003136,2022-02-15-01:09:28,10.1.1.3,27,-0.080,-0.080,-0.080,0.000,0.000,0.000
1644887368414188032,2022-02-15-01:09:28,10.1.1.3,36,-0.090,-0.090,-0.090,0.000,0.000,0.000
1644887368455291136,2022-02-15-01:09:28,10.1.1.3,26,-0.100,-0.100,-0.100,0.000,0.000,0.000
1644887368515755008,2022-02-15-01:09:28,10.1.1.3,35,-0.090,-0.090,-0.090,0.000,0.000,0.000
1644887368555268096,2022-02-15-01:09:28,10.1.1.3,24,-0.080,-0.080,-0.080,0.000,0.000,0.000
1644887368615283968,2022-02-15-01:09:28,10.1.1.3,34,-0.070,-0.070,-0.070,0.000,0.000,0.000
1644887368655340032,2022-02-15-01:09:28,10.1.1.3,22,-0.060,-0.060,-0.060,0.000,0.000,0.000
1644887368715643904,2022-02-15-01:09:28,10.1.1.3,31,-0.050,-0.050,-0.050,0.000,0.000,0.000
1644887368776109824,2022-02-15-01:09:28,10.1.1.3,40,-0.040,-0.040,-0.040,0.000,0.000,0.000
1644887368814994176,2022-02-15-01:09:28,10.1.1.3,28,-0.030,-0.030,-0.030,0.000,0.000,0.000
1644887368875313920,2022-02-15-01:09:28,10.1.1.3,35,-0.020,-0.020,-0.020,0.000,0.000,0.000
1644887368914680064,2022-02-15-01:09:28,10.1.1.3,24,-0.010,-0.010,-0.010,0.000,0.000,0.000
1644887368974707968,2022-02-15-01:09:28,10.1.1.3,34,0.000,0.000,0.000,0.000,0.000,0.000
1644887369014486016,2022-02-15-01:09:29,10.1.1.3,23,0.010,0.010,0.010,0.000,0.000,0.000
1644887369074913024,2022-02-15-01:09:29,10.1.1.3,33,0.020,0.020,0.020,0.000,0.000,0.000
1644887369114710016,2022-02-15-01:09:29,10.1.1.3,23,0.030,0.030,0.030,0.000,0.000,0.000
1644887369175656192,2022-02-15-01:09:29,10.1.1.3,32,0.040,0.040,0.040,0.000,0.000,0.000
1644887369215564032,2022-02-15-01:09:29,10.1.1.3,21,0.050,0.050,0.050,0.000,0.000,0.000
1644887369275321088,2022-02-15-01:09:29,10.1.1.3,30,0.060,0.060,0.060,0.000,0.000,0.000
1644887369315187968,2022-02-15-01:09:29,10.1.1.3,20,0.070,0.070,0.070,0.000,0.000,0.000
1644887369375204096,2022-02-15-01:09:29,10.1.1.3,29,0.080,0.080,0.080,0.000,0.000,0.000
1644887369434909952,2022-02-15-01:09:29,10.1.1.3,38,0.090,0.090,0.090,0.000,0.000,0.000
1644887369474781952,2022-02-15-01:09:29,10.1.1.3,27,0.100,0.100,0.100,0.000,0.000,0.000
1644887369535358976,2022-02-15-01:09:29,10.1.1.3,37,0.090,0.090,0.090,0.000,0.000,0.000
1644887369574755840,2022-02-15-01:09:29,10.1.1.3,26,0.080,0.080,0.080,0.000,0.000,0.000
1644887369635068928,2022-02-15-01:09:29,10.1.1.3,35,0.070,0.070,0.070,0.000,0.000,0.000
1644887369675749120,2022-02-15-01:09:29,10.1.1.3,25,0.060,0.060,0.060,0.000,0.000,0.000
1644887369734800128,2022-02-15-01:09:29,10.1.1.3,34,0.050,0.050,0.050,0.000,0.000,0.000
1644887369774600960,2022-02-15-01:09:29,10.1.1.3,24,0.040,0.040,0.040,0.000,0.000,0.000
1644887369848391936,2022-02-15-01:09:29,10.1.1.3,45,0.030,0.030,0.030,0.000,0.000,0.000
1644887369874525952,2022-02-15-01:09:29,10.1.1.3,21,0.020,0.020,0.020,0.000,0.000,0.000
1644887369936482048,2022-02-15-01:09:29,10.1.1.3,30,0.010,0.010,0.010,0.000,0.000,0.000
1644887370034123776,2022-02-15-01:09:30,10.1.1.3,29,-0.010,-0.010,-0.010,0.000,0.000,0.000
1644887370095346944,2022-02-15-01:09:30,10.1.1.3,39,-0.020,-0.020,-0.020,0.000,0.000,0.000
1644887370137882880,2022-02-15-01:09:30,10.1.1.3,28,-0.030,-0.030,-0.030,0.000,0.000,0.000
1644887370195102976,2022-02-15-01:09:30,10.1.1.3,36,-0.040,-0.040,-0.040,0.000,0.000,0.000
1644887370235249920,2022-02-15-01:09:30,10.1.1.3,25,-0.050,-0.050,-0.050,0.000,0.000,0.000
1644887370295459072,2022-02-15-01:09:30,10.1.1.3,34,-0.060,-0.060,-0.060,0.000,0.000,0.000
1644887370336096000,2022-02-15-01:09:30,10.1.1.3,23,-0.070,-0.070,-0.070,0.000,0.000,0.000
1644887370395046912,2022-02-15-01:09:30,10.1.1.3,32,-0.080,-0.080,-0.080,0.000,0.000,0.000
1644887370434128896,2022-02-15-01:09:30,10.1.1.3,21,-0.090,-0.090,-0.090,0.000,0.000,0.000
1644887370495197952,2022-02-15-01:09:30,10.1.1.3,31,-0.100,-0.100,-0.100,0.000,0.000,0.000
1644887370536081920,2022-02-15-01:09:30,10.1.1.3,20,-0.090,-0.090,-0.090,0.000,0.000,0.000
1644887370595851776,2022-02-15-01:09:30,10.1.1.3,29,-0.080,-0.080,-0.080,0.000,0.000,0.000
1644887370656286976,2022-02-15-01:09:30,10.1.1.3,38,-0.070,-0.070,-0.070,0.000,0.000,0.000
1644887370696193024,2022-02-15-01:09:30,10.1.1.3,26,-0.060,-0.060,-0.060,0.000,0.000,0.000
1644887370756120832,2022-02-15-01:09:30,10.1.1.3,35,-0.050,-0.050,-0.050,0.000,0.000,0.000
1644887370795654912,2022-02-15-01:09:30,10.1.1.3,23,-0.040,-0.040,-0.040,0.000,0.000,0.000
1644887370855879168,2022-02-15-01:09:30,10.1.1.3,32,-0.030,-0.030,-0.030,0.000,0.000,0.000
1644887370895122944,2022-02-15-01:09:30,10.1.1.3,21,-0.020,-0.020,-0.020,0.000,0.000,0.000
1644887371017033216,2022-02-15-01:09:31,10.1.1.3,39,0.000,0.000,0.000,0.000,0.000,0.000
1644887371062653184,2022-02-15-01:09:31,10.1.1.3,34,0.010,0.010,0.010,0.000,0.000,0.000
1644887371114987008,2022-02-15-01:09:31,10.1.1.3,37,0.020,0.020,0.020,0.000,0.000,0.000
1644887371156843776,2022-02-15-01:09:31,10.1.1.3,25,0.030,0.030,0.030,0.000,0.000,0.000
1644887371215089920,2022-02-15-01:09:31,10.1.1.3,34,0.040,0.040,0.040,0.000,0.000,0.000
1644887371255682048,2022-02-15-01:09:31,10.1.1.3,23,0.050,0.050,0.050,0.000,0.000,0.000
1644887371315203840,2022-02-15-01:09:31,10.1.1.3,27,0.060,0.060,0.060,0.000,0.000,0.000
1644887371375507968,2022-02-15-01:09:31,10.1.1.3,36,0.070,0.070,0.070,0.000,0.000,0.000
1644887371414882816,2022-02-15-01:09:31,10.1.1.3,25,0.080,0.080,0.080,0.000,0.000,0.000
1644887371476039936,2022-02-15-01:09:31,10.1.1.3,34,0.090,0.090,0.090,0.000,0.000,0.000
1644887371515720960,2022-02-15-01:09:31,10.1.1.3,23,0.100,0.100,0.100,0.000,0.000,0.000
1644887371575459072,2022-02-15-01:09:31,10.1.1.3,33,0.090,0.090,0.090,0.000,0.000,0.000
1644887371615047936,2022-02-15-01:09:31,10.1.1.3,22,0.080,0.080,0.080,0.000,0.000,0.000
1644887371675388928,2022-02-15-01:09:31,10.1.1.3,31,0.070,0.070,0.070,0.000,0.000,0.000
1644887371736242176,2022-02-15-01:09:31,10.1.1.3,39,0.060,0.060,0.060,0.000,0.000,0.000
1644887371776207872,2022-02-15-01:09:31,10.1.1.3,29,0.050,0.050,0.050,0.000,0.000,0.000
1644887371835618048,2022-02-15-01:09:31,10.1.1.3,37,0.040,0.040,0.040,0.000,0.000,0.000
1644887371875746048,2022-02-15-01:09:31,10.1.1.3,26,0.030,0.030,0.030,0.000,0.000,0.000
1644887371897249024,2022-02-15-01:09:31,10.1.1.3,-5,0.030,0.030,0.030,0.000,0.000,0.000
1644887371975956992,2022-02-15-01:09:31,10.1.1.3,24,0.010,0.010,0.010,0.000,0.000,0.000
1644887372036720896,2022-02-15-01:09:32,10.1.1.3,33,0.000,0.000,0.000,0.000,0.000,0.000
1644887372075304960,2022-02-15-01:09:32,10.1.1.3,22,-0.010,-0.010,-0.010,0.000,0.000,0.000
1644887372135965952,2022-02-15-01:09:32,10.1.1.3,31,-0.020,-0.020,-0.020,0.000,0.000,0.000
1644887372175941888,2022-02-15-01:09:32,10.1.1.3,20,-0.030,-0.030,-0.030,0.000,0.000,0.000
1644887372235773952,2022-02-15-01:09:32,10.1.1.3,29,-0.040,-0.040,-0.040,0.000,0.000,0.000
1644887372295895040,2022-02-15-01:09:32,10.1.1.3,38,-0.050,-0.050,-0.050,0.000,0.000,0.000
1644887372335942912,2022-02-15-01:09:32,10.1.1.3,26,-0.060,-0.060,-0.060,0.000,0.000,0.000
1644887372395778048,2022-02-15-01:09:32,10.1.1.3,35,-0.070,-0.070,-0.070,0.000,0.000,0.000
1644887372434586880,2022-02-15-01:09:32,10.1.1.3,25,-0.080,-0.080,-0.080,0.000,0.000,0.000
1644887372494383104,2022-02-15-01:09:32,10.1.1.3,34,-0.090,-0.090,-0.090,0.000,0.000,0.000
1644887372535275008,2022-02-15-01:09:32,10.1.1.3,23,-0.100,-0.100,-0.100,0.000,0.000,0.000
1644887372594846976,2022-02-15-01:09:32,10.1.1.3,33,-0.090,-0.090,-0.090,0.000,0.000,0.000
1644887372634972928,2022-02-15-01:09:32,10.1.1.3,22,-0.080,-0.080,-0.080,0.000,0.000,0.000
1644887372695063040,2022-02-15-01:09:32,10.1.1.3,32,-0.070,-0.070,-0.070,0.000,0.000,0.000
1644887372734311168,2022-02-15-01:09:32,10.1.1.3,21,-0.060,-0.060,-0.060,0.000,0.000,0.000
1644887372794138880,2022-02-15-01:09:32,10.1.1.3,30,-0.050,-0.050,-0.050,0.000,0.000,0.000
1644887372834553088,2022-02-15-01:09:32,10.1.1.3,20,-0.040,-0.040,-0.040,0.000,0.000,0.000
1644887372887239936,2022-02-15-01:09:32,10.1.1.3,22,-0.030,-0.030,-0.030,0.000,0.000,0.000
1644887372947642112,2022-02-15-01:09:32,10.1.1.3,29,-0.020,-0.020,-0.020,0.000,0.000,0.000
1644887373015345152,2022-02-15-01:09:33,10.1.1.3,46,-0.010,-0.010,-0.010,0.000,0.000,0.000
1644887373059066112,2022-02-15-01:09:33,10.1.1.3,39,0.000,0.000,0.000,0.000,0.000,0.000
1644887373095138048,2022-02-15-01:09:33,10.1.1.3,25,0.010,0.010,0.010,0.000,0.000,0.000
1644887373154684160,2022-02-15-01:09:33,10.1.1.3,35,0.020,0.020,0.020,0.000,0.000,0.000
1644887373194628096,2022-02-15-01:09:33,10.1.1.3,24,0.030,0.030,0.030,0.000,0.000,0.000
1644887373254470144,2022-02-15-01:09:33,10.1.1.3,34,0.040,0.040,0.040,0.000,0.000,0.000
1644887373294633984,2022-02-15-01:09:33,10.1.1.3,23,0.050,0.050,0.050,0.000,0.000,0.000
1644887373354980096,2022-02-15-01:09:33,10.1.1.3,32,0.060,0.060,0.060,0.000,0.000,0.000
1644887373394372864,2022-02-15-01:09:33,10.1.1.3,20,0.070,0.070,0.070,0.000,0.000,0.000
1644887373454428928,2022-02-15-01:09:33,10.1.1.3,30,0.080,0.080,0.080,0.000,0.000,0.000
1644887373515439104,2022-02-15-01:09:33,10.1.1.3,39,0.090,0.090,0.090,0.000,0.000,0.000
1644887373555217152,2022-02-15-01:09:33,10.1.1.3,28,0.100,0.100,0.100,0.000,0.000,0.000
1644887373616101120,2022-02-15-01:09:33,10.1.1.3,36,0.090,0.090,0.090,0.000,0.000,0.000
1644887373655325952,2022-02-15-01:09:33,10.1.1.3,24,0.080,0.080,0.080,0.000,0.000,0.000
1644887373715388160,2022-02-15-01:09:33,10.1.1.3,34,0.070,0.070,0.070,0.000,0.000,0.000
1644887373755617024,2022-02-15-01:09:33,10.1.1.3,23,0.060,0.060,0.060,0.000,0.000,0.000
1644887373815550976,2022-02-15-01:09:33,10.1.1.3,32,0.050,0.050,0.050,0.000,0.000,0.000
1644887373860989952,2022-02-15-01:09:33,10.1.1.3,22,0.040,0.040,0.040,0.000,0.000,0.000
1644887373914906112,2022-02-15-01:09:33,10.1.1.3,30,0.030,0.030,0.030,0.000,0.000,0.000
1644887373955312128,2022-02-15-01:09:33,10.1.1.3,19,0.020,0.020,0.020,0.000,0.000,0.000
1644887374017740032,2022-02-15-01:09:34,10.1.1.3,28,0.010,0.010,0.010,0.000,0.000,0.000
1644887374075805952,2022-02-15-01:09:34,10.1.1.3,37,0.000,0.000,0.000,0.000,0.000,0.000
1644887374127399936,2022-02-15-01:09:34,10.1.1.3,36,-0.010,-0.010,-0.010,0.000,0.000,0.000
1644887374176044032,2022-02-15-01:09:34,10.1.1.3,34,-0.020,-0.020,-0.020,0.000,0.000,0.000
1644887374216249088,2022-02-15-01:09:34,10.1.1.3,23,-0.030,-0.030,-0.030,0.000,0.000,0.000
1644887374275201024,2022-02-15-01:09:34,10.1.1.3,32,-0.040,-0.040,-0.040,0.000,0.000,0.000
1644887374314369024,2022-02-15-01:09:34,10.1.1.3,21,-0.050,-0.050,-0.050,0.000,0.000,0.000
1644887374475719936,2022-02-15-01:09:34,10.1.1.3,29,-0.080,-0.080,-0.080,0.000,0.000,0.000
1644887374535734016,2022-02-15-01:09:34,10.1.1.3,38,-0.090,-0.090,-0.090,0.000,0.000,0.000
1644887374576729088,2022-02-15-01:09:34,10.1.1.3,27,-0.100,-0.100,-0.100,0.000,0.000,0.000
1644887374632477952,2022-02-15-01:09:34,10.1.1.3,32,-0.090,-0.090,-0.090,0.000,0.000,0.000
1644887374675364096,2022-02-15-01:09:34,10.1.1.3,24,-0.080,-0.080,-0.080,0.000,0.000,0.000
1644887374736167936,2022-02-15-01:09:34,10.1.1.3,33,-0.070,-0.070,-0.070,0.000,0.000,0.000
1644887374775809024,2022-02-15-01:09:34,10.1.1.3,22,-0.060,-0.060,-0.060,0.000,0.000,0.000
1644887374835164160,2022-02-15-01:09:34,10.1.1.3,32,-0.050,-0.050,-0.050,0.000,0.000,0.000
1644887374935267072,2022-02-15-01:09:34,10.1.1.3,28,-0.030,-0.030,-0.030,0.000,0.000,0.000
1644887374997070080,2022-02-15-01:09:34,10.1.1.3,36,-0.020,-0.020,-0.020,0.000,0.000,0.000
1644887375035597056,2022-02-15-01:09:35,10.1.1.3,25,-0.010,-0.010,-0.010,0.000,0.000,0.000
1644887375095364096,2022-02-15-01:09:35,10.1.1.3,34,0.000,0.000,0.000,0.000,0.000,0.000
1644887375136176128,2022-02-15-01:09:35,10.1.1.3,23,0.010,0.010,0.010,0.000,0.000,0.000
1644887375189287936,2022-02-15-01:09:35,10.1.1.3,24,0.020,0.020,0.020,0.000,0.000,0.000
1644887375237209088,2022-02-15-01:09:35,10.1.1.3,21,0.030,0.030,0.030,0.000,0.000,0.000
1644887375296364032,2022-02-15-01:09:35,10.1.1.3,30,0.040,0.040,0.040,0.000,0.000,0.000
1644887375358038784,2022-02-15-01:09:35,10.1.1.3,41,0.050,0.050,0.050,0.000,0.000,0.000
1644887375395896064,2022-02-15-01:09:35,10.1.1.3,27,0.060,0.060,0.060,0.000,0.000,0.000
1644887375449353984,2022-02-15-01:09:35,10.1.1.3,27,0.070,0.070,0.070,0.000,0.000,0.000
1644887375495582976,2022-02-15-01:09:35,10.1.1.3,24,0.080,0.080,0.080,0.000,0.000,0.000
1644887375555633920,2022-02-15-01:09:35,10.1.1.3,33,0.090,0.090,0.090,0.000,0.000,0.000
1644887375596077056,2022-02-15-01:09:35,10.1.1.3,22,0.100,0.100,0.100,0.000,0.000,0.000
1644887375655833088,2022-02-15-01:09:35,10.1.1.3,31,0.090,0.090,0.090,0.000,0.000,0.000
1644887375695907072,2022-02-15-01:09:35,10.1.1.3,20,0.080,0.080,0.080,0.000,0.000,0.000
1644887375755783168,2022-02-15-01:09:35,10.1.1.3,29,0.070,0.070,0.070,0.000,0.000,0.000
1644887375819731968,2022-02-15-01:09:35,10.1.1.3,38,0.060,0.060,0.060,0.000,0.000,0.000
1644887375875505920,2022-02-15-01:09:35,10.1.1.3,47,0.050,0.050,0.050,0.000,0.000,0.000
1644887375915597824,2022-02-15-01:09:35,10.1.1.3,36,0.040,0.040,0.040,0.000,0.000,0.000
1644887375955250944,2022-02-15-01:09:35,10.1.1.3,25,0.030,0.030,0.030,0.000,0.000,0.000
1644887376015779072,2022-02-15-01:09:36,10.1.1.3,34,0.020,0.020,0.020,0.000,0.000,0.000
1644887376055638016,2022-02-15-01:09:36,10.1.1.3,23,0.010,0.010,0.010,0.000,0.000,0.000
1644887376114918912,2022-02-15-01:09:36,10.1.1.3,33,0.000,0.000,0.000,0.000,0.000,0.000
1644887376156294144,2022-02-15-01:09:36,10.1.1.3,22,-0.010,-0.010,-0.010,0.000,0.000,0.000
1644887376215081984,2022-02-15-01:09:36,10.1.1.3,31,-0.020,-0.020,-0.020,0.000,0.000,0.000
1644887376255919104,2022-02-15-01:09:36,10.1.1.3,21,-0.030,-0.030,-0.030,0.000,0.000,0.000
1644887376415635968,2022-02-15-01:09:36,10.1.1.3,28,-0.060,-0.060,-0.060,0.000,0.000,0.000
1644887376479203840,2022-02-15-01:09:36,10.1.1.3,37,-0.070,-0.070,-0.070,0.000,0.000,0.000
1644887376578985984,2022-02-15-01:09:36,10.1.1.3,37,-0.090,-0.090,-0.090,0.000,0.000,0.000
1644887376615909120,2022-02-15-01:09:36,10.1.1.3,22,-0.100,-0.100,-0.100,0.000,0.000,0.000
1644887376676803072,2022-02-15-01:09:36,10.1.1.3,32,-0.090,-0.090,-0.090,0.000,0.000,0.000
1644887376730149120,2022-02-15-01:09:36,10.1.1.3,30,-0.080,-0.080,-0.080,0.000,0.000,0.000
1644887376775346944,2022-02-15-01:09:36,10.1.1.3,24,-0.070,-0.070,-0.070,0.000,0.000,0.000
1644887376834947072,2022-02-15-01:09:36,10.1.1.3,33,-0.060,-0.060,-0.060,0.000,0.000,0.000
1644887376876734976,2022-02-15-01:09:36,10.1.1.3,22,-0.050,-0.050,-0.050,0.000,0.000,0.000
1644887376931337984,2022-02-15-01:09:36,10.1.1.3,24,-0.040,-0.040,-0.040,0.000,0.000,0.000
1644887376976217088,2022-02-15-01:09:36,10.1.1.3,20,-0.030,-0.030,-0.030,0.000,0.000,0.000
1644887377035578880,2022-02-15-01:09:37,10.1.1.3,30,-0.020,-0.020,-0.020,0.000,0.000,0.000
1644887377096091136,2022-02-15-01:09:37,10.1.1.3,39,-0.010,-0.010,-0.010,0.000,0.000,0.000
1644887377135992064,2022-02-15-01:09:37,10.1.1.3,28,0.000,0.000,0.000,0.000,0.000,0.000
1644887377187800832,2022-02-15-01:09:37,10.1.1.3,30,0.010,0.010,0.010,0.000,0.000,0.000
1644887377236546048,2022-02-15-01:09:37,10.1.1.3,26,0.020,0.020,0.020,0.000,0.000,0.000
1644887377295164160,2022-02-15-01:09:37,10.1.1.3,32,0.030,0.030,0.030,0.000,0.000,0.000
1644887377336643840,2022-02-15-01:09:37,10.1.1.3,22,0.040,0.040,0.040,0.000,0.000,0.000
1644887377395181056,2022-02-15-01:09:37,10.1.1.3,31,0.050,0.050,0.050,0.000,0.000,0.000
1644887377435296000,2022-02-15-01:09:37,10.1.1.3,20,0.060,0.060,0.060,0.000,0.000,0.000
1644887377555272192,2022-02-15-01:09:37,10.1.1.3,39,0.080,0.080,0.080,0.000,0.000,0.000
1644887377594862080,2022-02-15-01:09:37,10.1.1.3,28,0.090,0.090,0.090,0.000,0.000,0.000
1644887377655386880,2022-02-15-01:09:37,10.1.1.3,36,0.100,0.100,0.100,0.000,0.000,0.000
1644887377695143936,2022-02-15-01:09:37,10.1.1.3,25,0.090,0.090,0.090,0.000,0.000,0.000
1644887377755727104,2022-02-15-01:09:37,10.1.1.3,30,0.080,0.080,0.080,0.000,0.000,0.000
1644887377816046080,2022-02-15-01:09:37,10.1.1.3,37,0.070,0.070,0.070,0.000,0.000,0.000
1644887377854955008,2022-02-15-01:09:37,10.1.1.3,25,0.060,0.060,0.060,0.000,0.000,0.000
1644887377914452992,2022-02-15-01:09:37,10.1.1.3,35,0.050,0.050,0.050,0.000,0.000,0.000
1644887377954694144,2022-02-15-01:09:37,10.1.1.3,24,0.040,0.040,0.040,0.000,0.000,0.000
1644887378055705088,2022-02-15-01:09:38,10.1.1.3,23,0.020,0.020,0.020,0.000,0.000,0.000
1644887378115617024,2022-02-15-01:09:38,10.1.1.3,32,0.010,0.010,0.010,0.000,0.000,0.000
1644887378155441152,2022-02-15-01:09:38,10.1.1.3,21,0.000,0.000,0.000,0.000,0.000,0.000
1644887378215235072,2022-02-15-01:09:38,10.1.1.3,30,-0.010,-0.010,-0.010,0.000,0.000,0.000
1644887378256612096,2022-02-15-01:09:38,10.1.1.3,20,-0.020,-0.020,-0.020,0.000,0.000,0.000
1644887378317492992,2022-02-15-01:09:38,10.1.1.3,30,-0.030,-0.030,-0.030,0.000,0.000,0.000
1644887378377178880,2022-02-15-01:09:38,10.1.1.3,38,-0.040,-0.040,-0.040,0.000,0.000,0.000
1644887378414587904,2022-02-15-01:09:38,10.1.1.3,28,-0.050,-0.050,-0.050,0.000,0.000,0.000
1644887378474838016,2022-02-15-01:09:38,10.1.1.3,36,-0.060,-0.060,-0.060,0.000,0.000,0.000
1644887378515731968,2022-02-15-01:09:38,10.1.1.3,26,-0.070,-0.070,-0.070,0.000,0.000,0.000
1644887378575575040,2022-02-15-01:09:38,10.1.1.3,35,-0.080,-0.080,-0.080,0.000,0.000,0.000
1644887378615403776,2022-02-15-01:09:38,10.1.1.3,24,-0.090,-0.090,-0.090,0.000,0.000,0.000
1644887378675834880,2022-02-15-01:09:38,10.1.1.3,34,-0.100,-0.100,-0.100,0.000,0.000,0.000
1644887378715404032,2022-02-15-01:09:38,10.1.1.3,23,-0.090,-0.090,-0.090,0.000,0.000,0.000
1644887378779809024,2022-02-15-01:09:38,10.1.1.3,37,-0.080,-0.080,-0.080,0.000,0.000,0.000
1644887378815112192,2022-02-15-01:09:38,10.1.1.3,21,-0.070,-0.070,-0.070,0.000,0.000,0.000
1644887378875073024,2022-02-15-01:09:38,10.1.1.3,30,-0.060,-0.060,-0.060,0.000,0.000,0.000
1644887378935315968,2022-02-15-01:09:38,10.1.1.3,39,-0.050,-0.050,-0.050,0.000,0.000,0.000
1644887378974745088,2022-02-15-01:09:38,10.1.1.3,29,-0.040,-0.040,-0.040,0.000,0.000,0.000
1644887379035554816,2022-02-15-01:09:39,10.1.1.3,37,-0.030,-0.030,-0.030,0.000,0.000,0.000
1644887379074807040,2022-02-15-01:09:39,10.1.1.3,27,-0.020,-0.020,-0.020,0.000,0.000,0.000
1644887379134803968,2022-02-15-01:09:39,10.1.1.3,36,-0.010,-0.010,-0.010,0.000,0.000,0.000
1644887379174190080,2022-02-15-01:09:39,10.1.1.3,25,0.000,0.000,0.000,0.000,0.000,0.000
1644887379235141120,2022-02-15-01:09:39,10.1.1.3,35,0.010,0.010,0.010,0.000,0.000,0.000
1644887379275092992,2022-02-15-01:09:39,10.1.1.3,24,0.020,0.020,0.020,0.000,0.000,0.000
1644887379335709952,2022-02-15-01:09:39,10.1.1.3,33,0.030,0.030,0.030,0.000,0.000,0.000
1644887379375593984,2022-02-15-01:09:39,10.1.1.3,22,0.040,0.040,0.040,0.000,0.000,0.000
1644887379434302976,2022-02-15-01:09:39,10.1.1.3,31,0.050,0.050,0.050,0.000,0.000,0.000
1644887379495132928,2022-02-15-01:09:39,10.1.1.3,37,0.060,0.060,0.060,0.000,0.000,0.000
1644887379555529984,2022-02-15-01:09:39,10.1.1.3,46,0.070,0.070,0.070,0.000,0.000,0.000
1644887379597084160,2022-02-15-01:09:39,10.1.1.3,36,0.080,0.080,0.080,0.000,0.000,0.000
