FedericoMungari/DigitalTwin_service/01_WiredScenario/Output/Output_script/script_rosapi_2_output_robots10_freq0_4.txt
timestamp,date,node,latency,joint_1,joint_2,joint_3,joint_4,joint_5,joint_6
1644926732745827840,2022-02-15-12:05:32,10.1.1.5,1,-0.100,-0.100,-0.100,0.000,-0.000,0.000
1644926732825383936,2022-02-15-12:05:32,10.1.1.5,31,-0.090,-0.090,-0.090,0.000,0.000,0.000
1644926732865907968,2022-02-15-12:05:32,10.1.1.5,20,-0.080,-0.080,-0.080,0.000,0.000,0.000
1644926732926345216,2022-02-15-12:05:32,10.1.1.5,29,-0.070,-0.070,-0.070,0.000,0.000,0.000
1644926732966502912,2022-02-15-12:05:32,10.1.1.5,19,-0.061,-0.061,-0.061,0.000,0.000,0.000
1644926733027569152,2022-02-15-12:05:33,10.1.1.5,28,-0.050,-0.050,-0.050,0.000,0.000,0.000
1644926733165446144,2022-02-15-12:05:33,10.1.1.5,38,-0.030,-0.030,-0.030,0.000,0.000,0.000
1644926733205352192,2022-02-15-12:05:33,10.1.1.5,31,-0.020,-0.020,-0.020,0.000,0.000,0.000
1644926733246931968,2022-02-15-12:05:33,10.1.1.5,20,-0.010,-0.010,-0.010,0.000,0.000,0.000
1644926733306081024,2022-02-15-12:05:33,10.1.1.5,29,0.000,0.000,0.000,0.000,0.000,0.000
1644926733366394112,2022-02-15-12:05:33,10.1.1.5,38,0.010,0.010,0.010,0.000,0.000,0.000
1644926733406369024,2022-02-15-12:05:33,10.1.1.5,27,0.020,0.020,0.020,0.000,0.000,0.000
1644926733465428224,2022-02-15-12:05:33,10.1.1.5,37,0.030,0.030,0.030,0.000,0.000,0.000
1644926733506850048,2022-02-15-12:05:33,10.1.1.5,26,0.040,0.040,0.040,0.000,0.000,0.000
1644926733566049024,2022-02-15-12:05:33,10.1.1.5,36,0.050,0.050,0.050,0.000,0.000,0.000
1644926733605608960,2022-02-15-12:05:33,10.1.1.5,25,0.060,0.060,0.060,0.000,0.000,0.000
1644926733666932224,2022-02-15-12:05:33,10.1.1.5,34,0.070,0.070,0.070,0.000,0.000,0.000
1644926733706526976,2022-02-15-12:05:33,10.1.1.5,23,0.080,0.080,0.080,0.000,0.000,0.000
1644926733767358976,2022-02-15-12:05:33,10.1.1.5,33,0.090,0.090,0.090,0.000,0.000,0.000
1644926733806652160,2022-02-15-12:05:33,10.1.1.5,22,0.100,0.100,0.100,0.000,0.000,0.000
1644926733866157056,2022-02-15-12:05:33,10.1.1.5,32,0.090,0.090,0.090,0.000,0.000,0.000
1644926733906671104,2022-02-15-12:05:33,10.1.1.5,21,0.080,0.080,0.080,0.000,0.000,0.000
1644926733966654976,2022-02-15-12:05:33,10.1.1.5,30,0.070,0.070,0.070,0.000,0.000,0.000
1644926734006198784,2022-02-15-12:05:34,10.1.1.5,20,0.060,0.060,0.060,0.000,0.000,0.000
1644926734066776064,2022-02-15-12:05:34,10.1.1.5,29,0.050,0.050,0.050,0.000,0.000,0.000
1644926734106638080,2022-02-15-12:05:34,10.1.1.5,19,0.041,0.041,0.041,0.000,0.000,0.000
1644926734165734912,2022-02-15-12:05:34,10.1.1.5,28,0.030,0.030,0.030,0.000,0.000,0.000
1644926734227299072,2022-02-15-12:05:34,10.1.1.5,38,0.020,0.020,0.020,0.000,0.000,0.000
1644926734266747904,2022-02-15-12:05:34,10.1.1.5,27,0.010,0.010,0.010,0.000,0.000,0.000
1644926734325590016,2022-02-15-12:05:34,10.1.1.5,37,0.000,0.000,0.000,0.000,0.000,0.000
1644926734366332160,2022-02-15-12:05:34,10.1.1.5,26,-0.010,-0.010,-0.010,0.000,0.000,0.000
1644926734426297856,2022-02-15-12:05:34,10.1.1.5,36,-0.020,-0.020,-0.020,0.000,0.000,0.000
1644926734466938880,2022-02-15-12:05:34,10.1.1.5,25,-0.030,-0.030,-0.030,0.000,0.000,0.000
1644926734527012096,2022-02-15-12:05:34,10.1.1.5,35,-0.040,-0.040,-0.040,0.000,0.000,0.000
1644926734567342080,2022-02-15-12:05:34,10.1.1.5,24,-0.050,-0.050,-0.050,0.000,0.000,0.000
1644926734626672128,2022-02-15-12:05:34,10.1.1.5,34,-0.060,-0.060,-0.060,0.000,0.000,0.000
1644926734666728960,2022-02-15-12:05:34,10.1.1.5,23,-0.070,-0.070,-0.070,0.000,0.000,0.000
1644926734726883840,2022-02-15-12:05:34,10.1.1.5,33,-0.080,-0.080,-0.080,0.000,0.000,0.000
1644926734766226944,2022-02-15-12:05:34,10.1.1.5,22,-0.090,-0.090,-0.090,0.000,0.000,0.000
1644926734826814976,2022-02-15-12:05:34,10.1.1.5,33,-0.100,-0.100,-0.100,0.000,0.000,0.000
1644926734866610176,2022-02-15-12:05:34,10.1.1.5,22,-0.090,-0.090,-0.090,0.000,0.000,0.000
1644926734930169088,2022-02-15-12:05:34,10.1.1.5,31,-0.080,-0.080,-0.080,0.000,0.000,0.000
1644926734970905088,2022-02-15-12:05:34,10.1.1.5,21,-0.070,-0.070,-0.070,0.000,0.000,0.000
1644926735026792960,2022-02-15-12:05:35,10.1.1.5,30,-0.060,-0.060,-0.060,0.000,0.000,0.000
1644926735068569856,2022-02-15-12:05:35,10.1.1.5,19,-0.050,-0.050,-0.050,0.000,0.000,0.000
1644926735127054080,2022-02-15-12:05:35,10.1.1.5,29,-0.040,-0.040,-0.040,0.000,0.000,0.000
1644926735230977024,2022-02-15-12:05:35,10.1.1.5,27,-0.020,-0.020,-0.020,0.000,0.000,0.000
1644926735741233152,2022-02-15-12:05:35,10.1.1.5,35,-0.010,-0.010,-0.010,0.000,0.000,0.000
1644926735786034944,2022-02-15-12:05:35,10.1.1.5,38,0.000,0.000,0.000,0.000,0.000,0.000
1644926735826998016,2022-02-15-12:05:35,10.1.1.5,27,0.010,0.010,0.010,0.000,0.000,0.000
1644926735886856192,2022-02-15-12:05:35,10.1.1.5,36,0.020,0.020,0.020,0.000,0.000,0.000
1644926735926351104,2022-02-15-12:05:35,10.1.1.5,26,0.030,0.030,0.030,0.000,0.000,0.000
1644926735988334848,2022-02-15-12:05:35,10.1.1.5,35,0.040,0.040,0.040,0.000,0.000,0.000
1644926736025661952,2022-02-15-12:05:36,10.1.1.5,24,0.050,0.050,0.050,0.000,0.000,0.000
1644926736085666816,2022-02-15-12:05:36,10.1.1.5,34,0.060,0.060,0.060,0.000,0.000,0.000
1644926736126472960,2022-02-15-12:05:36,10.1.1.5,22,0.070,0.070,0.070,0.000,0.000,0.000
1644926736186682112,2022-02-15-12:05:36,10.1.1.5,31,0.080,0.080,0.080,0.000,0.000,0.000
1644926736226706944,2022-02-15-12:05:36,10.1.1.5,22,0.090,0.090,0.090,0.000,0.000,0.000
1644926736287339008,2022-02-15-12:05:36,10.1.1.5,30,0.100,0.100,0.100,0.000,0.000,0.000
1644926736326344960,2022-02-15-12:05:36,10.1.1.5,20,0.090,0.090,0.090,0.000,0.000,0.000
1644926736385627136,2022-02-15-12:05:36,10.1.1.5,28,0.080,0.080,0.080,0.000,0.000,0.000
1644926736445880832,2022-02-15-12:05:36,10.1.1.5,38,0.070,0.070,0.070,0.000,0.000,0.000
1644926736486191104,2022-02-15-12:05:36,10.1.1.5,27,0.060,0.060,0.060,0.000,0.000,0.000
1644926736546864896,2022-02-15-12:05:36,10.1.1.5,35,0.050,0.050,0.050,0.000,0.000,0.000
1644926736587228928,2022-02-15-12:05:36,10.1.1.5,24,0.040,0.040,0.040,0.000,0.000,0.000
1644926736645718016,2022-02-15-12:05:36,10.1.1.5,34,0.030,0.030,0.030,0.000,0.000,0.000
1644926736685728000,2022-02-15-12:05:36,10.1.1.5,23,0.020,0.020,0.020,0.000,0.000,0.000
1644926736746864128,2022-02-15-12:05:36,10.1.1.5,33,0.010,0.010,0.010,0.000,0.000,0.000
1644926736786861056,2022-02-15-12:05:36,10.1.1.5,23,0.000,0.000,0.000,0.000,0.000,0.000
1644926736846853120,2022-02-15-12:05:36,10.1.1.5,32,-0.010,-0.010,-0.010,0.000,0.000,0.000
1644926736885769984,2022-02-15-12:05:36,10.1.1.5,22,-0.020,-0.020,-0.020,0.000,0.000,0.000
1644926736945821952,2022-02-15-12:05:36,10.1.1.5,31,-0.030,-0.030,-0.030,0.000,0.000,0.000
1644926736986076160,2022-02-15-12:05:36,10.1.1.5,20,-0.040,-0.040,-0.040,0.000,0.000,0.000
1644926737046956032,2022-02-15-12:05:37,10.1.1.5,30,-0.050,-0.050,-0.050,0.000,0.000,0.000
1644926737085669120,2022-02-15-12:05:37,10.1.1.5,19,-0.059,-0.059,-0.059,0.000,0.000,0.000
1644926737146567936,2022-02-15-12:05:37,10.1.1.5,28,-0.070,-0.070,-0.070,0.000,0.000,0.000
1644926737206001920,2022-02-15-12:05:37,10.1.1.5,38,-0.080,-0.080,-0.080,0.000,0.000,0.000
1644926737245282816,2022-02-15-12:05:37,10.1.1.5,27,-0.090,-0.090,-0.090,0.000,0.000,0.000
1644926737305984000,2022-02-15-12:05:37,10.1.1.5,37,-0.100,-0.100,-0.100,0.000,0.000,0.000
1644926737347351040,2022-02-15-12:05:37,10.1.1.5,22,-0.090,-0.090,-0.090,0.000,0.000,0.000
1644926737407588096,2022-02-15-12:05:37,10.1.1.5,32,-0.080,-0.080,-0.080,0.000,0.000,0.000
1644926737446917120,2022-02-15-12:05:37,10.1.1.5,21,-0.070,-0.070,-0.070,0.000,0.000,0.000
1644926737507299840,2022-02-15-12:05:37,10.1.1.5,30,-0.060,-0.060,-0.060,0.000,0.000,0.000
1644926737548884992,2022-02-15-12:05:37,10.1.1.5,20,-0.050,-0.050,-0.050,0.000,0.000,0.000
1644926737607212032,2022-02-15-12:05:37,10.1.1.5,30,-0.040,-0.040,-0.040,0.000,0.000,0.000
1644926737646142976,2022-02-15-12:05:37,10.1.1.5,19,-0.030,-0.030,-0.030,0.000,0.000,0.000
1644926737708684800,2022-02-15-12:05:37,10.1.1.5,28,-0.020,-0.020,-0.020,0.000,0.000,0.000
1644926737767036928,2022-02-15-12:05:37,10.1.1.5,38,-0.010,-0.010,-0.010,0.000,0.000,0.000
1644926737807185920,2022-02-15-12:05:37,10.1.1.5,27,0.000,0.000,0.000,0.000,0.000,0.000
1644926737867057920,2022-02-15-12:05:37,10.1.1.5,37,0.010,0.010,0.010,0.000,0.000,0.000
1644926737907448064,2022-02-15-12:05:37,10.1.1.5,26,0.020,0.020,0.020,0.000,0.000,0.000
1644926737967144960,2022-02-15-12:05:37,10.1.1.5,31,0.030,0.030,0.030,0.000,0.000,0.000
1644926738008014848,2022-02-15-12:05:38,10.1.1.5,20,0.040,0.040,0.040,0.000,0.000,0.000
1644926738065989888,2022-02-15-12:05:38,10.1.1.5,29,0.050,0.050,0.050,0.000,0.000,0.000
1644926738126535936,2022-02-15-12:05:38,10.1.1.5,38,0.060,0.060,0.060,0.000,0.000,0.000
1644926738165606144,2022-02-15-12:05:38,10.1.1.5,28,0.070,0.070,0.070,0.000,0.000,0.000
1644926738226592000,2022-02-15-12:05:38,10.1.1.5,37,0.080,0.080,0.080,0.000,0.000,0.000
1644926738265538048,2022-02-15-12:05:38,10.1.1.5,26,0.090,0.090,0.090,0.000,0.000,0.000
1644926738325504000,2022-02-15-12:05:38,10.1.1.5,36,0.100,0.100,0.100,0.000,0.000,0.000
1644926738366106880,2022-02-15-12:05:38,10.1.1.5,25,0.090,0.090,0.090,0.000,0.000,0.000
1644926738426876928,2022-02-15-12:05:38,10.1.1.5,34,0.080,0.080,0.080,0.000,0.000,0.000
1644926738465495040,2022-02-15-12:05:38,10.1.1.5,23,0.070,0.070,0.070,0.000,0.000,0.000
1644926738525906944,2022-02-15-12:05:38,10.1.1.5,33,0.060,0.060,0.060,0.000,0.000,0.000
1644926738566656000,2022-02-15-12:05:38,10.1.1.5,23,0.050,0.050,0.050,0.000,0.000,0.000
1644926738626103040,2022-02-15-12:05:38,10.1.1.5,30,0.040,0.040,0.040,0.000,0.000,0.000
1644926738665971968,2022-02-15-12:05:38,10.1.1.5,20,0.030,0.030,0.030,0.000,0.000,0.000
1644926738727545856,2022-02-15-12:05:38,10.1.1.5,29,0.020,0.020,0.020,0.000,0.000,0.000
1644926738767975168,2022-02-15-12:05:38,10.1.1.5,19,0.011,0.011,0.011,0.000,0.000,0.000
1644926738829054976,2022-02-15-12:05:38,10.1.1.5,28,0.000,0.000,0.000,0.000,0.000,0.000
1644926738887084032,2022-02-15-12:05:38,10.1.1.5,33,-0.010,-0.010,-0.010,0.000,0.000,0.000
1644926738927799040,2022-02-15-12:05:38,10.1.1.5,22,-0.020,-0.020,-0.020,0.000,0.000,0.000
1644926738986468096,2022-02-15-12:05:38,10.1.1.5,23,-0.030,-0.030,-0.030,0.000,0.000,0.000
1644926739046693120,2022-02-15-12:05:39,10.1.1.5,33,-0.040,-0.040,-0.040,0.000,0.000,0.000
1644926739085972992,2022-02-15-12:05:39,10.1.1.5,22,-0.050,-0.050,-0.050,0.000,0.000,0.000
1644926739145456128,2022-02-15-12:05:39,10.1.1.5,32,-0.060,-0.060,-0.060,0.000,0.000,0.000
1644926739186563072,2022-02-15-12:05:39,10.1.1.5,21,-0.070,-0.070,-0.070,0.000,0.000,0.000
1644926739246972928,2022-02-15-12:05:39,10.1.1.5,30,-0.080,-0.080,-0.080,0.000,0.000,0.000
1644926739286355968,2022-02-15-12:05:39,10.1.1.5,19,-0.089,-0.089,-0.089,0.000,0.000,0.000
1644926739347013120,2022-02-15-12:05:39,10.1.1.5,27,-0.100,-0.100,-0.100,0.000,0.000,0.000
1644926739406619136,2022-02-15-12:05:39,10.1.1.5,37,-0.090,-0.090,-0.090,0.000,0.000,0.000
1644926739446077184,2022-02-15-12:05:39,10.1.1.5,26,-0.080,-0.080,-0.080,0.000,0.000,0.000
1644926739506426112,2022-02-15-12:05:39,10.1.1.5,34,-0.070,-0.070,-0.070,0.000,0.000,0.000
1644926739546720000,2022-02-15-12:05:39,10.1.1.5,23,-0.060,-0.060,-0.060,0.000,0.000,0.000
1644926739606408192,2022-02-15-12:05:39,10.1.1.5,33,-0.050,-0.050,-0.050,0.000,0.000,0.000
1644926739646658048,2022-02-15-12:05:39,10.1.1.5,23,-0.040,-0.040,-0.040,0.000,0.000,0.000
1644926739706547968,2022-02-15-12:05:39,10.1.1.5,32,-0.030,-0.030,-0.030,0.000,0.000,0.000
1644926739745971968,2022-02-15-12:05:39,10.1.1.5,22,-0.020,-0.020,-0.020,0.000,0.000,0.000
1644926739814882048,2022-02-15-12:05:39,10.1.1.5,32,-0.010,-0.010,-0.010,0.000,0.000,0.000
1644926739846301184,2022-02-15-12:05:39,10.1.1.5,21,0.000,0.000,0.000,0.000,0.000,0.000
1644926739905355008,2022-02-15-12:05:39,10.1.1.5,30,0.010,0.010,0.010,0.000,0.000,0.000
1644926739945254144,2022-02-15-12:05:39,10.1.1.5,19,0.020,0.020,0.020,0.000,0.000,0.000
1644926740006880000,2022-02-15-12:05:40,10.1.1.5,29,0.030,0.030,0.030,0.000,0.000,0.000
1644926740066386944,2022-02-15-12:05:40,10.1.1.5,37,0.040,0.040,0.040,0.000,0.000,0.000
1644926740106235136,2022-02-15-12:05:40,10.1.1.5,27,0.050,0.050,0.050,0.000,0.000,0.000
1644926740166050816,2022-02-15-12:05:40,10.1.1.5,36,0.060,0.060,0.060,0.000,0.000,0.000
1644926740207209984,2022-02-15-12:05:40,10.1.1.5,26,0.070,0.070,0.070,0.000,0.000,0.000
1644926740265235968,2022-02-15-12:05:40,10.1.1.5,36,0.080,0.080,0.080,0.000,0.000,0.000
1644926740305389824,2022-02-15-12:05:40,10.1.1.5,25,0.090,0.090,0.090,0.000,0.000,0.000
1644926740365145856,2022-02-15-12:05:40,10.1.1.5,35,0.100,0.100,0.100,0.000,0.000,0.000
1644926740406585088,2022-02-15-12:05:40,10.1.1.5,24,0.090,0.090,0.090,0.000,0.000,0.000
1644926740465213952,2022-02-15-12:05:40,10.1.1.5,33,0.080,0.080,0.080,0.000,0.000,0.000
1644926740505434112,2022-02-15-12:05:40,10.1.1.5,23,0.070,0.070,0.070,0.000,0.000,0.000
1644926740566109952,2022-02-15-12:05:40,10.1.1.5,32,0.060,0.060,0.060,0.000,0.000,0.000
1644926740606343936,2022-02-15-12:05:40,10.1.1.5,22,0.050,0.050,0.050,0.000,0.000,0.000
1644926740666176000,2022-02-15-12:05:40,10.1.1.5,31,0.040,0.040,0.040,0.000,0.000,0.000
1644926740705508864,2022-02-15-12:05:40,10.1.1.5,21,0.030,0.030,0.030,0.000,0.000,0.000
1644926740767414016,2022-02-15-12:05:40,10.1.1.5,31,0.020,0.020,0.020,0.000,0.000,0.000
1644926740807034880,2022-02-15-12:05:40,10.1.1.5,20,0.010,0.010,0.010,0.000,0.000,0.000
1644926740866990080,2022-02-15-12:05:40,10.1.1.5,30,0.000,0.000,0.000,0.000,0.000,0.000
1644926740905832960,2022-02-15-12:05:40,10.1.1.5,19,-0.009,-0.009,-0.009,0.000,0.000,0.000
1644926740965421824,2022-02-15-12:05:40,10.1.1.5,29,-0.020,-0.020,-0.020,0.000,0.000,0.000
1644926741027111168,2022-02-15-12:05:41,10.1.1.5,38,-0.030,-0.030,-0.030,0.000,0.000,0.000
1644926741065339136,2022-02-15-12:05:41,10.1.1.5,28,-0.040,-0.040,-0.040,0.000,0.000,0.000
1644926741125435136,2022-02-15-12:05:41,10.1.1.5,37,-0.050,-0.050,-0.050,0.000,0.000,0.000
1644926741165074944,2022-02-15-12:05:41,10.1.1.5,26,-0.060,-0.060,-0.060,0.000,0.000,0.000
1644926741227625984,2022-02-15-12:05:41,10.1.1.5,35,-0.070,-0.070,-0.070,0.000,0.000,0.000
1644926741267236096,2022-02-15-12:05:41,10.1.1.5,24,-0.080,-0.080,-0.080,0.000,0.000,0.000
1644926741326873088,2022-02-15-12:05:41,10.1.1.5,33,-0.090,-0.090,-0.090,0.000,0.000,0.000
1644926741365763072,2022-02-15-12:05:41,10.1.1.5,22,-0.100,-0.100,-0.100,0.000,0.000,0.000
1644926741425592832,2022-02-15-12:05:41,10.1.1.5,32,-0.090,-0.090,-0.090,0.000,0.000,0.000
1644926741465123840,2022-02-15-12:05:41,10.1.1.5,21,-0.080,-0.080,-0.080,0.000,0.000,0.000
1644926741525253888,2022-02-15-12:05:41,10.1.1.5,30,-0.070,-0.070,-0.070,0.000,0.000,0.000
1644926741567109120,2022-02-15-12:05:41,10.1.1.5,19,-0.061,-0.061,-0.061,0.000,0.000,0.000
1644926741626900992,2022-02-15-12:05:41,10.1.1.5,28,-0.050,-0.050,-0.050,0.000,0.000,0.000
1644926741686820864,2022-02-15-12:05:41,10.1.1.5,37,-0.040,-0.040,-0.040,0.000,0.000,0.000
1644926741726022912,2022-02-15-12:05:41,10.1.1.5,27,-0.030,-0.030,-0.030,0.000,0.000,0.000
1644926741786747904,2022-02-15-12:05:41,10.1.1.5,35,-0.020,-0.020,-0.020,0.000,0.000,0.000
1644926741826944000,2022-02-15-12:05:41,10.1.1.5,24,-0.010,-0.010,-0.010,0.000,0.000,0.000
1644926741887898880,2022-02-15-12:05:41,10.1.1.5,33,0.000,0.000,0.000,0.000,0.000,0.000
1644926741926310144,2022-02-15-12:05:41,10.1.1.5,22,0.010,0.010,0.010,0.000,0.000,0.000
1644926741986799104,2022-02-15-12:05:41,10.1.1.5,32,0.020,0.020,0.020,0.000,0.000,0.000
1644926742027363072,2022-02-15-12:05:42,10.1.1.5,21,0.030,0.030,0.030,0.000,0.000,0.000
1644926742087651072,2022-02-15-12:05:42,10.1.1.5,30,0.040,0.040,0.040,0.000,0.000,0.000
1644926742126935040,2022-02-15-12:05:42,10.1.1.5,19,0.049,0.049,0.049,0.000,0.000,0.000
1644926742185437952,2022-02-15-12:05:42,10.1.1.5,28,0.060,0.060,0.060,0.000,0.000,0.000
1644926742248420864,2022-02-15-12:05:42,10.1.1.5,38,0.070,0.070,0.070,0.000,0.000,0.000
1644926742286857984,2022-02-15-12:05:42,10.1.1.5,27,0.080,0.080,0.080,0.000,0.000,0.000
1644926742348326912,2022-02-15-12:05:42,10.1.1.5,36,0.090,0.090,0.090,0.000,0.000,0.000
1644926742386446080,2022-02-15-12:05:42,10.1.1.5,24,0.100,0.100,0.100,0.000,0.000,0.000
1644926742446744832,2022-02-15-12:05:42,10.1.1.5,33,0.090,0.090,0.090,0.000,0.000,0.000
1644926742485861120,2022-02-15-12:05:42,10.1.1.5,22,0.080,0.080,0.080,0.000,0.000,0.000
1644926742547996160,2022-02-15-12:05:42,10.1.1.5,32,0.070,0.070,0.070,0.000,0.000,0.000
1644926742586770176,2022-02-15-12:05:42,10.1.1.5,21,0.060,0.060,0.060,0.000,0.000,0.000
1644926742647172864,2022-02-15-12:05:42,10.1.1.5,31,0.050,0.050,0.050,0.000,0.000,0.000
1644926742685726976,2022-02-15-12:05:42,10.1.1.5,20,0.040,0.040,0.040,0.000,0.000,0.000
1644926742746636032,2022-02-15-12:05:42,10.1.1.5,29,0.030,0.030,0.030,0.000,0.000,0.000
1644926742787784192,2022-02-15-12:05:42,10.1.1.5,19,0.021,0.021,0.021,0.000,0.000,0.000
1644926742847170048,2022-02-15-12:05:42,10.1.1.5,29,0.010,0.010,0.010,0.000,0.000,0.000
1644926742905744128,2022-02-15-12:05:42,10.1.1.5,37,0.000,0.000,0.000,0.000,0.000,0.000
1644926742946141952,2022-02-15-12:05:42,10.1.1.5,21,-0.010,-0.010,-0.010,0.000,0.000,0.000
1644926743006247168,2022-02-15-12:05:43,10.1.1.5,29,-0.020,-0.020,-0.020,0.000,0.000,0.000
1644926743046782976,2022-02-15-12:05:43,10.1.1.5,19,-0.029,-0.029,-0.029,0.000,0.000,0.000
1644926743105912064,2022-02-15-12:05:43,10.1.1.5,28,-0.040,-0.040,-0.040,0.000,0.000,0.000
1644926743165786112,2022-02-15-12:05:43,10.1.1.5,37,-0.050,-0.050,-0.050,0.000,0.000,0.000
1644926743206945024,2022-02-15-12:05:43,10.1.1.5,26,-0.060,-0.060,-0.060,0.000,0.000,0.000
1644926743367281920,2022-02-15-12:05:43,10.1.1.5,22,-0.080,-0.080,-0.080,0.000,0.000,0.000
1644926743427283968,2022-02-15-12:05:43,10.1.1.5,31,-0.090,-0.090,-0.090,0.000,0.000,0.000
1644926743467003136,2022-02-15-12:05:43,10.1.1.5,19,-0.100,-0.100,-0.100,0.000,0.000,0.000
1644926743526166016,2022-02-15-12:05:43,10.1.1.5,27,-0.090,-0.090,-0.090,0.000,0.000,0.000
1644926743585463040,2022-02-15-12:05:43,10.1.1.5,37,-0.080,-0.080,-0.080,0.000,0.000,0.000
1644926743626733056,2022-02-15-12:05:43,10.1.1.5,26,-0.070,-0.070,-0.070,0.000,0.000,0.000
1644926743686521088,2022-02-15-12:05:43,10.1.1.5,32,-0.060,-0.060,-0.060,0.000,0.000,0.000
1644926743725694976,2022-02-15-12:05:43,10.1.1.5,21,-0.050,-0.050,-0.050,0.000,0.000,0.000
1644926743787564032,2022-02-15-12:05:43,10.1.1.5,31,-0.040,-0.040,-0.040,0.000,0.000,0.000
1644926743826825984,2022-02-15-12:05:43,10.1.1.5,21,-0.030,-0.030,-0.030,0.000,0.000,0.000
1644926743887415040,2022-02-15-12:05:43,10.1.1.5,30,-0.020,-0.020,-0.020,0.000,0.000,0.000
1644926743928354048,2022-02-15-12:05:43,10.1.1.5,19,-0.010,-0.010,-0.010,0.000,0.000,0.000
1644926743986785024,2022-02-15-12:05:43,10.1.1.5,27,0.000,0.000,0.000,0.000,0.000,0.000
1644926744047211776,2022-02-15-12:05:44,10.1.1.5,32,0.010,0.010,0.010,0.000,0.000,0.000
1644926744087599872,2022-02-15-12:05:44,10.1.1.5,22,0.020,0.020,0.020,0.000,0.000,0.000
1644926744147369984,2022-02-15-12:05:44,10.1.1.5,30,0.030,0.030,0.030,0.000,0.000,0.000
1644926744187638016,2022-02-15-12:05:44,10.1.1.5,19,0.040,0.040,0.040,0.000,0.000,0.000
1644926744246722048,2022-02-15-12:05:44,10.1.1.5,28,0.050,0.050,0.050,0.000,0.000,0.000
1644926744306482944,2022-02-15-12:05:44,10.1.1.5,37,0.060,0.060,0.060,0.000,0.000,0.000
1644926744346429184,2022-02-15-12:05:44,10.1.1.5,26,0.070,0.070,0.070,0.000,0.000,0.000
1644926744407053824,2022-02-15-12:05:44,10.1.1.5,33,0.080,0.080,0.080,0.000,0.000,0.000
1644926744446863872,2022-02-15-12:05:44,10.1.1.5,21,0.090,0.090,0.090,0.000,0.000,0.000
1644926744506309888,2022-02-15-12:05:44,10.1.1.5,31,0.100,0.100,0.100,0.000,0.000,0.000
1644926744547097856,2022-02-15-12:05:44,10.1.1.5,20,0.090,0.090,0.090,0.000,0.000,0.000
1644926744607302912,2022-02-15-12:05:44,10.1.1.5,28,0.080,0.080,0.080,0.000,0.000,0.000
1644926744666095104,2022-02-15-12:05:44,10.1.1.5,38,0.070,0.070,0.070,0.000,0.000,0.000
1644926744707976192,2022-02-15-12:05:44,10.1.1.5,27,0.060,0.060,0.060,0.000,0.000,0.000
1644926744768446976,2022-02-15-12:05:44,10.1.1.5,36,0.050,0.050,0.050,0.000,0.000,0.000
1644926744806862080,2022-02-15-12:05:44,10.1.1.5,25,0.040,0.040,0.040,0.000,0.000,0.000
1644926744866518016,2022-02-15-12:05:44,10.1.1.5,33,0.030,0.030,0.030,0.000,0.000,0.000
1644926744906140160,2022-02-15-12:05:44,10.1.1.5,23,0.020,0.020,0.020,0.000,0.000,0.000
1644926744966167040,2022-02-15-12:05:44,10.1.1.5,32,0.010,0.010,0.010,0.000,0.000,0.000
1644926745005470976,2022-02-15-12:05:45,10.1.1.5,22,0.000,0.000,0.000,0.000,0.000,0.000
1644926745066750976,2022-02-15-12:05:45,10.1.1.5,32,-0.010,-0.010,-0.010,0.000,0.000,0.000
1644926745105899008,2022-02-15-12:05:45,10.1.1.5,21,-0.020,-0.020,-0.020,0.000,0.000,0.000
1644926745166237184,2022-02-15-12:05:45,10.1.1.5,30,-0.030,-0.030,-0.030,0.000,0.000,0.000
1644926745205414144,2022-02-15-12:05:45,10.1.1.5,20,-0.040,-0.040,-0.040,0.000,0.000,0.000
1644926745266720000,2022-02-15-12:05:45,10.1.1.5,29,-0.050,-0.050,-0.050,0.000,0.000,0.000
1644926745325867008,2022-02-15-12:05:45,10.1.1.5,38,-0.060,-0.060,-0.060,0.000,0.000,0.000
1644926745367538944,2022-02-15-12:05:45,10.1.1.5,27,-0.070,-0.070,-0.070,0.000,0.000,0.000
1644926745427437056,2022-02-15-12:05:45,10.1.1.5,36,-0.080,-0.080,-0.080,0.000,0.000,0.000
1644926745466548992,2022-02-15-12:05:45,10.1.1.5,25,-0.090,-0.090,-0.090,0.000,0.000,0.000
1644926745525088000,2022-02-15-12:05:45,10.1.1.5,33,-0.100,-0.100,-0.100,0.000,0.000,0.000
1644926745567624960,2022-02-15-12:05:45,10.1.1.5,23,-0.090,-0.090,-0.090,0.000,0.000,0.000
1644926745626661120,2022-02-15-12:05:45,10.1.1.5,32,-0.080,-0.080,-0.080,0.000,0.000,0.000
1644926745666331136,2022-02-15-12:05:45,10.1.1.5,22,-0.070,-0.070,-0.070,0.000,0.000,0.000
1644926745727508992,2022-02-15-12:05:45,10.1.1.5,30,-0.060,-0.060,-0.060,0.000,0.000,0.000
1644926745789051904,2022-02-15-12:05:45,10.1.1.5,39,-0.050,-0.050,-0.050,0.000,0.000,0.000
1644926745826628864,2022-02-15-12:05:45,10.1.1.5,28,-0.040,-0.040,-0.040,0.000,0.000,0.000
1644926745889528064,2022-02-15-12:05:45,10.1.1.5,37,-0.030,-0.030,-0.030,0.000,0.000,0.000
1644926745929464064,2022-02-15-12:05:45,10.1.1.5,25,-0.020,-0.020,-0.020,0.000,0.000,0.000
1644926745986326016,2022-02-15-12:05:45,10.1.1.5,33,-0.010,-0.010,-0.010,0.000,0.000,0.000
1644926746026201088,2022-02-15-12:05:46,10.1.1.5,23,0.000,0.000,0.000,0.000,0.000,0.000
1644926746086336000,2022-02-15-12:05:46,10.1.1.5,31,0.010,0.010,0.010,0.000,0.000,0.000
1644926746146731008,2022-02-15-12:05:46,10.1.1.5,37,0.020,0.020,0.020,0.000,0.000,0.000
1644926746186178816,2022-02-15-12:05:46,10.1.1.5,27,0.030,0.030,0.030,0.000,0.000,0.000
1644926746246865920,2022-02-15-12:05:46,10.1.1.5,36,0.040,0.040,0.040,0.000,0.000,0.000
1644926746287473920,2022-02-15-12:05:46,10.1.1.5,26,0.050,0.050,0.050,0.000,0.000,0.000
1644926746347215872,2022-02-15-12:05:46,10.1.1.5,36,0.060,0.060,0.060,0.000,0.000,0.000
1644926746385917952,2022-02-15-12:05:46,10.1.1.5,25,0.070,0.070,0.070,0.000,0.000,0.000
1644926746446522112,2022-02-15-12:05:46,10.1.1.5,35,0.080,0.080,0.080,0.000,0.000,0.000
1644926746486285056,2022-02-15-12:05:46,10.1.1.5,24,0.090,0.090,0.090,0.000,0.000,0.000
1644926746546168064,2022-02-15-12:05:46,10.1.1.5,34,0.100,0.100,0.100,0.000,0.000,0.000
1644926746587330048,2022-02-15-12:05:46,10.1.1.5,24,0.090,0.090,0.090,0.000,0.000,0.000
1644926746646080000,2022-02-15-12:05:46,10.1.1.5,33,0.080,0.080,0.080,0.000,0.000,0.000
1644926746686316032,2022-02-15-12:05:46,10.1.1.5,23,0.070,0.070,0.070,0.000,0.000,0.000
1644926746747063040,2022-02-15-12:05:46,10.1.1.5,32,0.060,0.060,0.060,0.000,0.000,0.000
1644926746791939072,2022-02-15-12:05:46,10.1.1.5,24,0.050,0.050,0.050,0.000,0.000,0.000
1644926746846676992,2022-02-15-12:05:46,10.1.1.5,32,0.040,0.040,0.040,0.000,0.000,0.000
1644926746886260992,2022-02-15-12:05:46,10.1.1.5,21,0.030,0.030,0.030,0.000,0.000,0.000
1644926746947186944,2022-02-15-12:05:46,10.1.1.5,30,0.020,0.020,0.020,0.000,0.000,0.000
1644926746986702080,2022-02-15-12:05:46,10.1.1.5,20,0.010,0.010,0.010,0.000,0.000,0.000
1644926747045875200,2022-02-15-12:05:47,10.1.1.5,30,0.000,0.000,0.000,0.000,0.000,0.000
1644926747087744000,2022-02-15-12:05:47,10.1.1.5,19,-0.009,-0.009,-0.009,0.000,0.000,0.000
1644926747147958016,2022-02-15-12:05:47,10.1.1.5,28,-0.020,-0.020,-0.020,0.000,0.000,0.000
1644926747208563968,2022-02-15-12:05:47,10.1.1.5,38,-0.030,-0.030,-0.030,0.000,0.000,0.000
1644926747245927168,2022-02-15-12:05:47,10.1.1.5,27,-0.040,-0.040,-0.040,0.000,0.000,0.000
1644926747306648064,2022-02-15-12:05:47,10.1.1.5,36,-0.050,-0.050,-0.050,0.000,0.000,0.000
1644926747345654016,2022-02-15-12:05:47,10.1.1.5,25,-0.060,-0.060,-0.060,0.000,0.000,0.000
1644926747406407168,2022-02-15-12:05:47,10.1.1.5,34,-0.070,-0.070,-0.070,0.000,0.000,0.000
1644926747446577152,2022-02-15-12:05:47,10.1.1.5,23,-0.080,-0.080,-0.080,0.000,0.000,0.000
1644926747505778944,2022-02-15-12:05:47,10.1.1.5,33,-0.090,-0.090,-0.090,0.000,0.000,0.000
1644926747546295040,2022-02-15-12:05:47,10.1.1.5,22,-0.100,-0.100,-0.100,0.000,0.000,0.000
1644926747605956096,2022-02-15-12:05:47,10.1.1.5,31,-0.090,-0.090,-0.090,0.000,0.000,0.000
1644926747645876992,2022-02-15-12:05:47,10.1.1.5,20,-0.080,-0.080,-0.080,0.000,0.000,0.000
1644926747704951040,2022-02-15-12:05:47,10.1.1.5,29,-0.070,-0.070,-0.070,0.000,0.000,0.000
1644926747766226944,2022-02-15-12:05:47,10.1.1.5,38,-0.060,-0.060,-0.060,0.000,0.000,0.000
1644926747805972224,2022-02-15-12:05:47,10.1.1.5,27,-0.050,-0.050,-0.050,0.000,0.000,0.000
1644926747866939904,2022-02-15-12:05:47,10.1.1.5,33,-0.040,-0.040,-0.040,0.000,0.000,0.000
1644926747906619904,2022-02-15-12:05:47,10.1.1.5,20,-0.030,-0.030,-0.030,0.000,0.000,0.000
1644926747966063872,2022-02-15-12:05:47,10.1.1.5,29,-0.020,-0.020,-0.020,0.000,0.000,0.000
1644926748025681920,2022-02-15-12:05:48,10.1.1.5,38,-0.010,-0.010,-0.010,0.000,0.000,0.000
1644926748066708992,2022-02-15-12:05:48,10.1.1.5,27,0.000,0.000,0.000,0.000,0.000,0.000
1644926748125922048,2022-02-15-12:05:48,10.1.1.5,37,0.010,0.010,0.010,0.000,0.000,0.000
1644926748166203136,2022-02-15-12:05:48,10.1.1.5,23,0.020,0.020,0.020,0.000,0.000,0.000
1644926748227749120,2022-02-15-12:05:48,10.1.1.5,33,0.030,0.030,0.030,0.000,0.000,0.000
1644926748285548800,2022-02-15-12:05:48,10.1.1.5,38,0.040,0.040,0.040,0.000,0.000,0.000
1644926748328521984,2022-02-15-12:05:48,10.1.1.5,27,0.050,0.050,0.050,0.000,0.000,0.000
1644926748388199168,2022-02-15-12:05:48,10.1.1.5,35,0.060,0.060,0.060,0.000,0.000,0.000
1644926748427095040,2022-02-15-12:05:48,10.1.1.5,22,0.070,0.070,0.070,0.000,0.000,0.000
1644926748546812928,2022-02-15-12:05:48,10.1.1.5,28,0.080,0.080,0.080,0.000,0.000,0.000
1644926748606612992,2022-02-15-12:05:48,10.1.1.5,36,0.090,0.090,0.090,0.000,0.000,0.000
1644926748648820992,2022-02-15-12:05:48,10.1.1.5,26,0.100,0.100,0.100,0.000,0.000,0.000
1644926748707554048,2022-02-15-12:05:48,10.1.1.5,35,0.090,0.090,0.090,0.000,0.000,0.000
1644926748746298112,2022-02-15-12:05:48,10.1.1.5,23,0.080,0.080,0.080,0.000,0.000,0.000
1644926748907282944,2022-02-15-12:05:48,10.1.1.5,35,0.060,0.060,0.060,0.000,0.000,0.000
1644926748946816000,2022-02-15-12:05:48,10.1.1.5,21,0.050,0.050,0.050,0.000,0.000,0.000
1644926749005839104,2022-02-15-12:05:49,10.1.1.5,30,0.040,0.040,0.040,0.000,0.000,0.000
1644926749066919936,2022-02-15-12:05:49,10.1.1.5,38,0.030,0.030,0.030,0.000,0.000,0.000
1644926749106617088,2022-02-15-12:05:49,10.1.1.5,27,0.020,0.020,0.020,0.000,0.000,0.000
1644926749166859008,2022-02-15-12:05:49,10.1.1.5,37,0.010,0.010,0.010,0.000,0.000,0.000
1644926749205673984,2022-02-15-12:05:49,10.1.1.5,26,0.000,0.000,0.000,0.000,0.000,0.000
1644926749266291968,2022-02-15-12:05:49,10.1.1.5,35,-0.010,-0.010,-0.010,0.000,0.000,0.000
1644926749306871808,2022-02-15-12:05:49,10.1.1.5,25,-0.020,-0.020,-0.020,0.000,0.000,0.000
1644926749366195968,2022-02-15-12:05:49,10.1.1.5,31,-0.030,-0.030,-0.030,0.000,0.000,0.000
1644926749425487872,2022-02-15-12:05:49,10.1.1.5,38,-0.040,-0.040,-0.040,0.000,0.000,0.000
1644926749468865024,2022-02-15-12:05:49,10.1.1.5,27,-0.050,-0.050,-0.050,0.000,0.000,0.000
1644926749525229056,2022-02-15-12:05:49,10.1.1.5,36,-0.060,-0.060,-0.060,0.000,0.000,0.000
1644926749566718976,2022-02-15-12:05:49,10.1.1.5,25,-0.070,-0.070,-0.070,0.000,0.000,0.000
1644926749625916928,2022-02-15-12:05:49,10.1.1.5,35,-0.080,-0.080,-0.080,0.000,0.000,0.000
1644926749665576960,2022-02-15-12:05:49,10.1.1.5,24,-0.090,-0.090,-0.090,0.000,0.000,0.000
1644926749726340096,2022-02-15-12:05:49,10.1.1.5,33,-0.100,-0.100,-0.100,0.000,0.000,0.000
1644926749789248000,2022-02-15-12:05:49,10.1.1.5,23,-0.090,-0.090,-0.090,0.000,0.000,0.000
1644926749826493952,2022-02-15-12:05:49,10.1.1.5,25,-0.080,-0.080,-0.080,0.000,0.000,0.000
1644926749886593024,2022-02-15-12:05:49,10.1.1.5,33,-0.070,-0.070,-0.070,0.000,0.000,0.000
1644926749944145920,2022-02-15-12:05:49,10.1.1.5,22,-0.060,-0.060,-0.060,0.000,0.000,0.000
1644926749986379008,2022-02-15-12:05:49,10.1.1.5,33,-0.050,-0.050,-0.050,0.000,0.000,0.000
1644926750046370048,2022-02-15-12:05:50,10.1.1.5,38,-0.040,-0.040,-0.040,0.000,0.000,0.000
1644926750086035968,2022-02-15-12:05:50,10.1.1.5,26,-0.030,-0.030,-0.030,0.000,0.000,0.000
1644926750146639104,2022-02-15-12:05:50,10.1.1.5,36,-0.020,-0.020,-0.020,0.000,0.000,0.000
1644926750185200896,2022-02-15-12:05:50,10.1.1.5,24,-0.010,-0.010,-0.010,0.000,0.000,0.000
1644926750245381120,2022-02-15-12:05:50,10.1.1.5,34,0.000,0.000,0.000,0.000,0.000,0.000
1644926750286472192,2022-02-15-12:05:50,10.1.1.5,24,0.010,0.010,0.010,0.000,0.000,0.000
1644926750405827072,2022-02-15-12:05:50,10.1.1.5,39,0.030,0.030,0.030,0.000,0.000,0.000
1644926750445921024,2022-02-15-12:05:50,10.1.1.5,28,0.040,0.040,0.040,0.000,0.000,0.000
1644926750666582016,2022-02-15-12:05:50,10.1.1.5,22,0.080,0.080,0.080,0.000,0.000,0.000
1644926750791642880,2022-02-15-12:05:50,10.1.1.5,35,0.100,0.100,0.100,0.000,0.000,0.000
1644926750826433792,2022-02-15-12:05:50,10.1.1.5,23,0.090,0.090,0.090,0.000,0.000,0.000
1644926750899108864,2022-02-15-12:05:50,10.1.1.5,31,0.080,0.080,0.080,0.000,0.000,0.000
1644926750948813824,2022-02-15-12:05:50,10.1.1.5,39,0.070,0.070,0.070,0.000,0.000,0.000
1644926750987518976,2022-02-15-12:05:50,10.1.1.5,26,0.060,0.060,0.060,0.000,0.000,0.000
1644926751046364160,2022-02-15-12:05:51,10.1.1.5,36,0.050,0.050,0.050,0.000,0.000,0.000
1644926751108096000,2022-02-15-12:05:51,10.1.1.5,23,0.040,0.040,0.040,0.000,0.000,0.000
1644926751165449984,2022-02-15-12:05:51,10.1.1.5,33,0.030,0.030,0.030,0.000,0.000,0.000
1644926751207164928,2022-02-15-12:05:51,10.1.1.5,21,0.020,0.020,0.020,0.000,0.000,0.000
1644926751265434880,2022-02-15-12:05:51,10.1.1.5,29,0.010,0.010,0.010,0.000,0.000,0.000
1644926751305888768,2022-02-15-12:05:51,10.1.1.5,19,0.001,0.001,0.001,0.000,0.000,0.000
1644926751366210048,2022-02-15-12:05:51,10.1.1.5,28,-0.010,-0.010,-0.010,0.000,0.000,0.000
1644926751425658880,2022-02-15-12:05:51,10.1.1.5,37,-0.020,-0.020,-0.020,0.000,0.000,0.000
1644926751466608128,2022-02-15-12:05:51,10.1.1.5,26,-0.030,-0.030,-0.030,0.000,0.000,0.000
1644926751525502976,2022-02-15-12:05:51,10.1.1.5,36,-0.040,-0.040,-0.040,0.000,0.000,0.000
1644926751566883072,2022-02-15-12:05:51,10.1.1.5,25,-0.050,-0.050,-0.050,0.000,0.000,0.000
1644926751626651904,2022-02-15-12:05:51,10.1.1.5,34,-0.060,-0.060,-0.060,0.000,0.000,0.000
1644926751666516992,2022-02-15-12:05:51,10.1.1.5,22,-0.070,-0.070,-0.070,0.000,0.000,0.000
1644926751726690048,2022-02-15-12:05:51,10.1.1.5,31,-0.080,-0.080,-0.080,0.000,0.000,0.000
1644926751787257856,2022-02-15-12:05:51,10.1.1.5,39,-0.090,-0.090,-0.090,0.000,0.000,0.000
1644926751826760960,2022-02-15-12:05:51,10.1.1.5,28,-0.100,-0.100,-0.100,0.000,0.000,0.000
1644926751886917120,2022-02-15-12:05:51,10.1.1.5,34,-0.090,-0.090,-0.090,0.000,0.000,0.000
1644926751926110976,2022-02-15-12:05:51,10.1.1.5,23,-0.080,-0.080,-0.080,0.000,0.000,0.000
1644926751986125056,2022-02-15-12:05:51,10.1.1.5,32,-0.070,-0.070,-0.070,0.000,0.000,0.000
1644926752026725120,2022-02-15-12:05:52,10.1.1.5,22,-0.060,-0.060,-0.060,0.000,0.000,0.000
1644926752126082048,2022-02-15-12:05:52,10.1.1.5,38,-0.050,-0.050,-0.050,0.000,0.000,0.000
1644926752166692096,2022-02-15-12:05:52,10.1.1.5,25,-0.040,-0.040,-0.040,0.000,0.000,0.000
1644926752226747904,2022-02-15-12:05:52,10.1.1.5,34,-0.030,-0.030,-0.030,0.000,0.000,0.000
1644926752266941952,2022-02-15-12:05:52,10.1.1.5,23,-0.020,-0.020,-0.020,0.000,0.000,0.000
1644926752328318976,2022-02-15-12:05:52,10.1.1.5,32,-0.010,-0.010,-0.010,0.000,0.000,0.000
1644926752427442176,2022-02-15-12:05:52,10.1.1.5,27,0.010,0.010,0.010,0.000,0.000,0.000
1644926752486601216,2022-02-15-12:05:52,10.1.1.5,34,0.020,0.020,0.020,0.000,0.000,0.000
1644926752526102016,2022-02-15-12:05:52,10.1.1.5,23,0.030,0.030,0.030,0.000,0.000,0.000
1644926752587176192,2022-02-15-12:05:52,10.1.1.5,32,0.040,0.040,0.040,0.000,0.000,0.000
1644926752726385152,2022-02-15-12:05:52,10.1.1.5,19,0.069,0.069,0.069,0.000,0.000,0.000
1644926752786300928,2022-02-15-12:05:52,10.1.1.5,29,0.080,0.080,0.080,0.000,0.000,0.000
1644926752846249984,2022-02-15-12:05:52,10.1.1.5,38,0.090,0.090,0.090,0.000,0.000,0.000
1644926752886544896,2022-02-15-12:05:52,10.1.1.5,28,0.100,0.100,0.100,0.000,0.000,0.000
1644926752946841856,2022-02-15-12:05:52,10.1.1.5,38,0.090,0.090,0.090,0.000,0.000,0.000
1644926752986663168,2022-02-15-12:05:52,10.1.1.5,26,0.080,0.080,0.080,0.000,0.000,0.000
1644926753049658112,2022-02-15-12:05:53,10.1.1.5,35,0.070,0.070,0.070,0.000,0.000,0.000
1644926753089531904,2022-02-15-12:05:53,10.1.1.5,24,0.060,0.060,0.060,0.000,0.000,0.000
1644926753146842880,2022-02-15-12:05:53,10.1.1.5,33,0.050,0.050,0.050,0.000,0.000,0.000
1644926753186213120,2022-02-15-12:05:53,10.1.1.5,22,0.040,0.040,0.040,0.000,0.000,0.000
1644926753247685888,2022-02-15-12:05:53,10.1.1.5,32,0.030,0.030,0.030,0.000,0.000,0.000
1644926753285160192,2022-02-15-12:05:53,10.1.1.5,21,0.020,0.020,0.020,0.000,0.000,0.000
1644926753347155200,2022-02-15-12:05:53,10.1.1.5,31,0.010,0.010,0.010,0.000,0.000,0.000
1644926753386562048,2022-02-15-12:05:53,10.1.1.5,20,0.000,0.000,0.000,0.000,0.000,0.000
1644926753445734144,2022-02-15-12:05:53,10.1.1.5,30,-0.010,-0.010,-0.010,0.000,0.000,0.000
1644926753486681856,2022-02-15-12:05:53,10.1.1.5,19,-0.019,-0.019,-0.019,0.000,0.000,0.000
1644926753548707840,2022-02-15-12:05:53,10.1.1.5,28,-0.030,-0.030,-0.030,0.000,0.000,0.000
1644926753605438976,2022-02-15-12:05:53,10.1.1.5,37,-0.040,-0.040,-0.040,0.000,0.000,0.000
1644926753645452032,2022-02-15-12:05:53,10.1.1.5,26,-0.050,-0.050,-0.050,0.000,0.000,0.000
1644926753706685952,2022-02-15-12:05:53,10.1.1.5,36,-0.060,-0.060,-0.060,0.000,0.000,0.000
1644926753746348032,2022-02-15-12:05:53,10.1.1.5,24,-0.070,-0.070,-0.070,0.000,0.000,0.000
1644926753806305024,2022-02-15-12:05:53,10.1.1.5,33,-0.080,-0.080,-0.080,0.000,0.000,0.000
1644926753846501120,2022-02-15-12:05:53,10.1.1.5,23,-0.090,-0.090,-0.090,0.000,0.000,0.000
1644926753906529792,2022-02-15-12:05:53,10.1.1.5,32,-0.100,-0.100,-0.100,0.000,0.000,0.000
1644926753945350912,2022-02-15-12:05:53,10.1.1.5,22,-0.090,-0.090,-0.090,0.000,0.000,0.000
1644926754006242048,2022-02-15-12:05:54,10.1.1.5,30,-0.080,-0.080,-0.080,0.000,0.000,0.000
1644926754046770176,2022-02-15-12:05:54,10.1.1.5,19,-0.071,-0.071,-0.071,0.000,0.000,0.000
1644926754105403904,2022-02-15-12:05:54,10.1.1.5,28,-0.060,-0.060,-0.060,0.000,0.000,0.000
1644926754165342208,2022-02-15-12:05:54,10.1.1.5,37,-0.050,-0.050,-0.050,0.000,0.000,0.000
1644926754208091136,2022-02-15-12:05:54,10.1.1.5,26,-0.040,-0.040,-0.040,0.000,0.000,0.000
1644926754265125120,2022-02-15-12:05:54,10.1.1.5,33,-0.030,-0.030,-0.030,0.000,0.000,0.000
1644926754306359040,2022-02-15-12:05:54,10.1.1.5,23,-0.020,-0.020,-0.020,0.000,0.000,0.000
1644926754365339136,2022-02-15-12:05:54,10.1.1.5,32,-0.010,-0.010,-0.010,0.000,0.000,0.000
1644926754405096960,2022-02-15-12:05:54,10.1.1.5,21,0.000,0.000,0.000,0.000,0.000,0.000
1644926754465169920,2022-02-15-12:05:54,10.1.1.5,31,0.010,0.010,0.010,0.000,0.000,0.000
1644926754505415936,2022-02-15-12:05:54,10.1.1.5,20,0.020,0.020,0.020,0.000,0.000,0.000
1644926754566781952,2022-02-15-12:05:54,10.1.1.5,30,0.030,0.030,0.030,0.000,0.000,0.000
1644926754607276800,2022-02-15-12:05:54,10.1.1.5,19,0.040,0.040,0.040,0.000,0.000,0.000
1644926754665474048,2022-02-15-12:05:54,10.1.1.5,29,0.050,0.050,0.050,0.000,0.000,0.000
1644926754726275840,2022-02-15-12:05:54,10.1.1.5,38,0.060,0.060,0.060,0.000,0.000,0.000
1644926754766356992,2022-02-15-12:05:54,10.1.1.5,27,0.070,0.070,0.070,0.000,0.000,0.000
1644926754826533120,2022-02-15-12:05:54,10.1.1.5,36,0.080,0.080,0.080,0.000,0.000,0.000
1644926754866981120,2022-02-15-12:05:54,10.1.1.5,26,0.090,0.090,0.090,0.000,0.000,0.000
1644926754925883904,2022-02-15-12:05:54,10.1.1.5,35,0.100,0.100,0.100,0.000,0.000,0.000
1644926754966530048,2022-02-15-12:05:54,10.1.1.5,25,0.090,0.090,0.090,0.000,0.000,0.000
1644926755026552064,2022-02-15-12:05:55,10.1.1.5,34,0.080,0.080,0.080,0.000,0.000,0.000
1644926755066131968,2022-02-15-12:05:55,10.1.1.5,23,0.070,0.070,0.070,0.000,0.000,0.000
1644926755126669824,2022-02-15-12:05:55,10.1.1.5,33,0.060,0.060,0.060,0.000,0.000,0.000
1644926755166812928,2022-02-15-12:05:55,10.1.1.5,23,0.050,0.050,0.050,0.000,0.000,0.000
1644926755227482112,2022-02-15-12:05:55,10.1.1.5,32,0.040,0.040,0.040,0.000,0.000,0.000
1644926755267265024,2022-02-15-12:05:55,10.1.1.5,20,0.030,0.030,0.030,0.000,0.000,0.000
1644926755326699008,2022-02-15-12:05:55,10.1.1.5,29,0.020,0.020,0.020,0.000,0.000,0.000
1644926755365441024,2022-02-15-12:05:55,10.1.1.5,19,0.011,0.011,0.011,0.000,0.000,0.000
1644926755425911040,2022-02-15-12:05:55,10.1.1.5,28,0.000,0.000,0.000,0.000,0.000,0.000
1644926755486076160,2022-02-15-12:05:55,10.1.1.5,37,-0.010,-0.010,-0.010,0.000,0.000,0.000
1644926755526001920,2022-02-15-12:05:55,10.1.1.5,27,-0.020,-0.020,-0.020,0.000,0.000,0.000
1644926755586468864,2022-02-15-12:05:55,10.1.1.5,36,-0.030,-0.030,-0.030,0.000,0.000,0.000
1644926755627042048,2022-02-15-12:05:55,10.1.1.5,26,-0.040,-0.040,-0.040,0.000,0.000,0.000
1644926755685530880,2022-02-15-12:05:55,10.1.1.5,33,-0.050,-0.050,-0.050,0.000,0.000,0.000
1644926755752677888,2022-02-15-12:05:55,10.1.1.5,37,-0.060,-0.060,-0.060,0.000,0.000,0.000
1644926755786676992,2022-02-15-12:05:55,10.1.1.5,25,-0.070,-0.070,-0.070,0.000,0.000,0.000
1644926755845393920,2022-02-15-12:05:55,10.1.1.5,35,-0.080,-0.080,-0.080,0.000,0.000,0.000
1644926755885571840,2022-02-15-12:05:55,10.1.1.5,24,-0.090,-0.090,-0.090,0.000,0.000,0.000
1644926755946786048,2022-02-15-12:05:55,10.1.1.5,34,-0.100,-0.100,-0.100,0.000,0.000,0.000
1644926755987806208,2022-02-15-12:05:55,10.1.1.5,22,-0.090,-0.090,-0.090,0.000,0.000,0.000
1644926756045353984,2022-02-15-12:05:56,10.1.1.5,32,-0.080,-0.080,-0.080,0.000,0.000,0.000
1644926756087034112,2022-02-15-12:05:56,10.1.1.5,21,-0.070,-0.070,-0.070,0.000,0.000,0.000
1644926756147467008,2022-02-15-12:05:56,10.1.1.5,31,-0.060,-0.060,-0.060,0.000,0.000,0.000
1644926756186276864,2022-02-15-12:05:56,10.1.1.5,20,-0.050,-0.050,-0.050,0.000,0.000,0.000
1644926756246985984,2022-02-15-12:05:56,10.1.1.5,28,-0.040,-0.040,-0.040,0.000,0.000,0.000
1644926756306252032,2022-02-15-12:05:56,10.1.1.5,38,-0.030,-0.030,-0.030,0.000,0.000,0.000
1644926756345803008,2022-02-15-12:05:56,10.1.1.5,25,-0.020,-0.020,-0.020,0.000,0.000,0.000
1644926756407355904,2022-02-15-12:05:56,10.1.1.5,34,-0.010,-0.010,-0.010,0.000,0.000,0.000
1644926756446754048,2022-02-15-12:05:56,10.1.1.5,24,0.000,0.000,0.000,0.000,0.000,0.000
1644926756506266112,2022-02-15-12:05:56,10.1.1.5,33,0.010,0.010,0.010,0.000,0.000,0.000
1644926756545223936,2022-02-15-12:05:56,10.1.1.5,22,0.020,0.020,0.020,0.000,0.000,0.000
1644926756606964224,2022-02-15-12:05:56,10.1.1.5,32,0.030,0.030,0.030,0.000,0.000,0.000
1644926756649019904,2022-02-15-12:05:56,10.1.1.5,22,0.040,0.040,0.040,0.000,0.000,0.000
1644926756765216000,2022-02-15-12:05:56,10.1.1.5,35,0.060,0.060,0.060,0.000,0.000,0.000
1644926756805166080,2022-02-15-12:05:56,10.1.1.5,24,0.070,0.070,0.070,0.000,0.000,0.000
1644926756866630912,2022-02-15-12:05:56,10.1.1.5,34,0.080,0.080,0.080,0.000,0.000,0.000
1644926756906064896,2022-02-15-12:05:56,10.1.1.5,23,0.090,0.090,0.090,0.000,0.000,0.000
1644926756966000128,2022-02-15-12:05:56,10.1.1.5,32,0.100,0.100,0.100,0.000,0.000,0.000
1644926757007024896,2022-02-15-12:05:57,10.1.1.5,21,0.090,0.090,0.090,0.000,0.000,0.000
1644926757065419008,2022-02-15-12:05:57,10.1.1.5,31,0.080,0.080,0.080,0.000,0.000,0.000
1644926757105273088,2022-02-15-12:05:57,10.1.1.5,20,0.070,0.070,0.070,0.000,0.000,0.000
1644926757171049984,2022-02-15-12:05:57,10.1.1.5,29,0.060,0.060,0.060,0.000,0.000,0.000
1644926757227446016,2022-02-15-12:05:57,10.1.1.5,39,0.050,0.050,0.050,0.000,0.000,0.000
1644926757267809024,2022-02-15-12:05:57,10.1.1.5,28,0.040,0.040,0.040,0.000,0.000,0.000
1644926757327811840,2022-02-15-12:05:57,10.1.1.5,38,0.030,0.030,0.030,0.000,0.000,0.000
1644926757366353152,2022-02-15-12:05:57,10.1.1.5,27,0.020,0.020,0.020,0.000,0.000,0.000
1644926757426536192,2022-02-15-12:05:57,10.1.1.5,36,0.010,0.010,0.010,0.000,0.000,0.000
1644926757466612992,2022-02-15-12:05:57,10.1.1.5,26,0.000,0.000,0.000,0.000,0.000,0.000
1644926757526369024,2022-02-15-12:05:57,10.1.1.5,35,-0.010,-0.010,-0.010,0.000,0.000,0.000
1644926757566839040,2022-02-15-12:05:57,10.1.1.5,24,-0.020,-0.020,-0.020,0.000,0.000,0.000
1644926757626928128,2022-02-15-12:05:57,10.1.1.5,32,-0.030,-0.030,-0.030,0.000,0.000,0.000
1644926757665345792,2022-02-15-12:05:57,10.1.1.5,21,-0.040,-0.040,-0.040,0.000,0.000,0.000
1644926757727052800,2022-02-15-12:05:57,10.1.1.5,31,-0.050,-0.050,-0.050,0.000,0.000,0.000
1644926757765353984,2022-02-15-12:05:57,10.1.1.5,20,-0.060,-0.060,-0.060,0.000,0.000,0.000
1644926757826513920,2022-02-15-12:05:57,10.1.1.5,29,-0.070,-0.070,-0.070,0.000,0.000,0.000
1644926757887019008,2022-02-15-12:05:57,10.1.1.5,39,-0.080,-0.080,-0.080,0.000,0.000,0.000
1644926757927546112,2022-02-15-12:05:57,10.1.1.5,27,-0.090,-0.090,-0.090,0.000,0.000,0.000
1644926757985871104,2022-02-15-12:05:57,10.1.1.5,36,-0.100,-0.100,-0.100,0.000,0.000,0.000
1644926758026873088,2022-02-15-12:05:58,10.1.1.5,24,-0.090,-0.090,-0.090,0.000,0.000,0.000
1644926758086937856,2022-02-15-12:05:58,10.1.1.5,33,-0.080,-0.080,-0.080,0.000,0.000,0.000
1644926758127201024,2022-02-15-12:05:58,10.1.1.5,22,-0.070,-0.070,-0.070,0.000,0.000,0.000
1644926758186366208,2022-02-15-12:05:58,10.1.1.5,31,-0.060,-0.060,-0.060,0.000,0.000,0.000
1644926758227209216,2022-02-15-12:05:58,10.1.1.5,20,-0.050,-0.050,-0.050,0.000,0.000,0.000
1644926758287854080,2022-02-15-12:05:58,10.1.1.5,29,-0.040,-0.040,-0.040,0.000,0.000,0.000
1644926758346888192,2022-02-15-12:05:58,10.1.1.5,38,-0.030,-0.030,-0.030,0.000,0.000,0.000
1644926758386554880,2022-02-15-12:05:58,10.1.1.5,28,-0.020,-0.020,-0.020,0.000,0.000,0.000
1644926758445534976,2022-02-15-12:05:58,10.1.1.5,37,-0.010,-0.010,-0.010,0.000,0.000,0.000
1644926758487271168,2022-02-15-12:05:58,10.1.1.5,26,0.000,0.000,0.000,0.000,0.000,0.000
1644926758547374848,2022-02-15-12:05:58,10.1.1.5,36,0.010,0.010,0.010,0.000,0.000,0.000
1644926758584883968,2022-02-15-12:05:58,10.1.1.5,24,0.020,0.020,0.020,0.000,0.000,0.000
1644926758646572032,2022-02-15-12:05:58,10.1.1.5,33,0.030,0.030,0.030,0.000,0.000,0.000
1644926758686888960,2022-02-15-12:05:58,10.1.1.5,22,0.040,0.040,0.040,0.000,0.000,0.000
1644926758746939904,2022-02-15-12:05:58,10.1.1.5,32,0.050,0.050,0.050,0.000,0.000,0.000
1644926758786590976,2022-02-15-12:05:58,10.1.1.5,22,0.060,0.060,0.060,0.000,0.000,0.000
1644926758845523968,2022-02-15-12:05:58,10.1.1.5,31,0.070,0.070,0.070,0.000,0.000,0.000
1644926758886342144,2022-02-15-12:05:58,10.1.1.5,20,0.080,0.080,0.080,0.000,0.000,0.000
1644926758946768128,2022-02-15-12:05:58,10.1.1.5,29,0.090,0.090,0.090,0.000,0.000,0.000
1644926759007489792,2022-02-15-12:05:59,10.1.1.5,38,0.100,0.100,0.100,0.000,0.000,0.000
1644926759045370112,2022-02-15-12:05:59,10.1.1.5,28,0.090,0.090,0.090,0.000,0.000,0.000
1644926759106301952,2022-02-15-12:05:59,10.1.1.5,37,0.080,0.080,0.080,0.000,0.000,0.000
1644926759146889984,2022-02-15-12:05:59,10.1.1.5,27,0.070,0.070,0.070,0.000,0.000,0.000
1644926759211708928,2022-02-15-12:05:59,10.1.1.5,36,0.060,0.060,0.060,0.000,0.000,0.000
1644926759246332928,2022-02-15-12:05:59,10.1.1.5,25,0.050,0.050,0.050,0.000,0.000,0.000
1644926759306267136,2022-02-15-12:05:59,10.1.1.5,34,0.040,0.040,0.040,0.000,0.000,0.000
1644926759347002112,2022-02-15-12:05:59,10.1.1.5,23,0.030,0.030,0.030,0.000,0.000,0.000
1644926759406728960,2022-02-15-12:05:59,10.1.1.5,32,0.020,0.020,0.020,0.000,0.000,0.000
1644926759446764032,2022-02-15-12:05:59,10.1.1.5,22,0.010,0.010,0.010,0.000,0.000,0.000
1644926759507219200,2022-02-15-12:05:59,10.1.1.5,31,0.000,0.000,0.000,0.000,0.000,0.000
1644926759547267840,2022-02-15-12:05:59,10.1.1.5,21,-0.010,-0.010,-0.010,0.000,0.000,0.000
1644926759607391232,2022-02-15-12:05:59,10.1.1.5,30,-0.020,-0.020,-0.020,0.000,0.000,0.000
1644926759649595904,2022-02-15-12:05:59,10.1.1.5,19,-0.029,-0.029,-0.029,0.000,0.000,0.000
1644926759727613952,2022-02-15-12:05:59,10.1.1.5,21,-0.040,-0.040,-0.040,0.000,0.000,0.000
1644926759786588928,2022-02-15-12:05:59,10.1.1.5,29,-0.050,-0.050,-0.050,0.000,0.000,0.000
1644926759846940928,2022-02-15-12:05:59,10.1.1.5,38,-0.060,-0.060,-0.060,0.000,0.000,0.000
1644926759886930944,2022-02-15-12:05:59,10.1.1.5,27,-0.070,-0.070,-0.070,0.000,0.000,0.000
1644926759948093952,2022-02-15-12:05:59,10.1.1.5,36,-0.080,-0.080,-0.080,0.000,0.000,0.000
1644926759986483968,2022-02-15-12:05:59,10.1.1.5,26,-0.090,-0.090,-0.090,0.000,0.000,0.000
1644926760047444992,2022-02-15-12:06:00,10.1.1.5,35,-0.100,-0.100,-0.100,0.000,0.000,0.000
1644926760087986944,2022-02-15-12:06:00,10.1.1.5,19,-0.091,-0.091,-0.091,0.000,0.000,0.000
1644926760147390976,2022-02-15-12:06:00,10.1.1.5,28,-0.080,-0.080,-0.080,0.000,0.000,0.000
1644926760207063808,2022-02-15-12:06:00,10.1.1.5,37,-0.070,-0.070,-0.070,0.000,0.000,0.000
1644926760244872960,2022-02-15-12:06:00,10.1.1.5,26,-0.060,-0.060,-0.060,0.000,0.000,0.000
1644926760305521920,2022-02-15-12:06:00,10.1.1.5,37,-0.050,-0.050,-0.050,0.000,0.000,0.000
1644926760346484992,2022-02-15-12:06:00,10.1.1.5,26,-0.040,-0.040,-0.040,0.000,0.000,0.000
1644926760407115008,2022-02-15-12:06:00,10.1.1.5,35,-0.030,-0.030,-0.030,0.000,0.000,0.000
1644926760447856896,2022-02-15-12:06:00,10.1.1.5,26,-0.020,-0.020,-0.020,0.000,0.000,0.000
1644926760506917120,2022-02-15-12:06:00,10.1.1.5,34,-0.010,-0.010,-0.010,0.000,0.000,0.000
1644926760545742080,2022-02-15-12:06:00,10.1.1.5,23,0.000,0.000,0.000,0.000,0.000,0.000
1644926760606825984,2022-02-15-12:06:00,10.1.1.5,33,0.010,0.010,0.010,0.000,0.000,0.000
1644926760646889984,2022-02-15-12:06:00,10.1.1.5,22,0.020,0.020,0.020,0.000,0.000,0.000
1644926760705751808,2022-02-15-12:06:00,10.1.1.5,32,0.030,0.030,0.030,0.000,0.000,0.000
1644926760746750976,2022-02-15-12:06:00,10.1.1.5,22,0.040,0.040,0.040,0.000,0.000,0.000
1644926760806530048,2022-02-15-12:06:00,10.1.1.5,32,0.050,0.050,0.050,0.000,0.000,0.000
1644926760847429888,2022-02-15-12:06:00,10.1.1.5,22,0.060,0.060,0.060,0.000,0.000,0.000
1644926760905416960,2022-02-15-12:06:00,10.1.1.5,30,0.070,0.070,0.070,0.000,0.000,0.000
1644926760946733056,2022-02-15-12:06:00,10.1.1.5,20,0.080,0.080,0.080,0.000,0.000,0.000
1644926761006788864,2022-02-15-12:06:01,10.1.1.5,30,0.090,0.090,0.090,0.000,0.000,0.000
1644926761045455872,2022-02-15-12:06:01,10.1.1.5,19,0.100,0.100,0.100,0.000,0.000,0.000
1644926761106344960,2022-02-15-12:06:01,10.1.1.5,29,0.090,0.090,0.090,0.000,0.000,0.000
1644926761165709056,2022-02-15-12:06:01,10.1.1.5,38,0.080,0.080,0.080,0.000,0.000,0.000
1644926761206681088,2022-02-15-12:06:01,10.1.1.5,27,0.070,0.070,0.070,0.000,0.000,0.000
1644926761265427200,2022-02-15-12:06:01,10.1.1.5,37,0.060,0.060,0.060,0.000,0.000,0.000
1644926761306277120,2022-02-15-12:06:01,10.1.1.5,26,0.050,0.050,0.050,0.000,0.000,0.000
1644926761367144192,2022-02-15-12:06:01,10.1.1.5,36,0.040,0.040,0.040,0.000,0.000,0.000
1644926761405725952,2022-02-15-12:06:01,10.1.1.5,25,0.030,0.030,0.030,0.000,0.000,0.000
1644926761466896128,2022-02-15-12:06:01,10.1.1.5,35,0.020,0.020,0.020,0.000,0.000,0.000
1644926761506866944,2022-02-15-12:06:01,10.1.1.5,24,0.010,0.010,0.010,0.000,0.000,0.000
1644926761566966016,2022-02-15-12:06:01,10.1.1.5,33,0.000,0.000,0.000,0.000,0.000,0.000
1644926761606217984,2022-02-15-12:06:01,10.1.1.5,24,-0.010,-0.010,-0.010,0.000,0.000,0.000
1644926761667379968,2022-02-15-12:06:01,10.1.1.5,33,-0.020,-0.020,-0.020,0.000,0.000,0.000
1644926761705697024,2022-02-15-12:06:01,10.1.1.5,23,-0.030,-0.030,-0.030,0.000,0.000,0.000
1644926761768197120,2022-02-15-12:06:01,10.1.1.5,32,-0.040,-0.040,-0.040,0.000,0.000,0.000
1644926761805944064,2022-02-15-12:06:01,10.1.1.5,21,-0.050,-0.050,-0.050,0.000,0.000,0.000
1644926761865497088,2022-02-15-12:06:01,10.1.1.5,31,-0.060,-0.060,-0.060,0.000,0.000,0.000
1644926761907126016,2022-02-15-12:06:01,10.1.1.5,19,-0.070,-0.070,-0.070,0.000,0.000,0.000
1644926761966414080,2022-02-15-12:06:01,10.1.1.5,29,-0.080,-0.080,-0.080,0.000,0.000,0.000
1644926762026473984,2022-02-15-12:06:02,10.1.1.5,39,-0.090,-0.090,-0.090,0.000,0.000,0.000
1644926762067009024,2022-02-15-12:06:02,10.1.1.5,28,-0.100,-0.100,-0.100,0.000,0.000,0.000
1644926762126343936,2022-02-15-12:06:02,10.1.1.5,37,-0.090,-0.090,-0.090,0.000,0.000,0.000
1644926762166448128,2022-02-15-12:06:02,10.1.1.5,27,-0.080,-0.080,-0.080,0.000,0.000,0.000
1644926762227072000,2022-02-15-12:06:02,10.1.1.5,37,-0.070,-0.070,-0.070,0.000,0.000,0.000
1644926762266295808,2022-02-15-12:06:02,10.1.1.5,26,-0.060,-0.060,-0.060,0.000,0.000,0.000
1644926762326738176,2022-02-15-12:06:02,10.1.1.5,35,-0.050,-0.050,-0.050,0.000,0.000,0.000
1644926762366381824,2022-02-15-12:06:02,10.1.1.5,25,-0.040,-0.040,-0.040,0.000,0.000,0.000
1644926762428718080,2022-02-15-12:06:02,10.1.1.5,34,-0.030,-0.030,-0.030,0.000,0.000,0.000
1644926762466950912,2022-02-15-12:06:02,10.1.1.5,24,-0.020,-0.020,-0.020,0.000,0.000,0.000
1644926762526843136,2022-02-15-12:06:02,10.1.1.5,33,-0.010,-0.010,-0.010,0.000,0.000,0.000
1644926762566247936,2022-02-15-12:06:02,10.1.1.5,23,0.000,0.000,0.000,0.000,0.000,0.000
1644926762627366912,2022-02-15-12:06:02,10.1.1.5,33,0.010,0.010,0.010,0.000,0.000,0.000
1644926762666659072,2022-02-15-12:06:02,10.1.1.5,22,0.020,0.020,0.020,0.000,0.000,0.000
1644926762726443008,2022-02-15-12:06:02,10.1.1.5,31,0.030,0.030,0.030,0.000,0.000,0.000
1644926762768972032,2022-02-15-12:06:02,10.1.1.5,21,0.040,0.040,0.040,0.000,0.000,0.000
1644926762886540800,2022-02-15-12:06:02,10.1.1.5,21,0.060,0.060,0.060,0.000,0.000,0.000
1644926762945384960,2022-02-15-12:06:02,10.1.1.5,30,0.070,0.070,0.070,0.000,0.000,0.000
1644926762986599936,2022-02-15-12:06:02,10.1.1.5,20,0.080,0.080,0.080,0.000,0.000,0.000
1644926763045947904,2022-02-15-12:06:03,10.1.1.5,29,0.090,0.090,0.090,0.000,0.000,0.000
1644926763087207936,2022-02-15-12:06:03,10.1.1.5,19,0.099,0.099,0.099,0.000,0.000,0.000
1644926763145915136,2022-02-15-12:06:03,10.1.1.5,28,0.090,0.090,0.090,0.000,0.000,0.000
1644926763206159104,2022-02-15-12:06:03,10.1.1.5,38,0.080,0.080,0.080,0.000,0.000,0.000
1644926763247216896,2022-02-15-12:06:03,10.1.1.5,26,0.070,0.070,0.070,0.000,0.000,0.000
1644926763305520128,2022-02-15-12:06:03,10.1.1.5,35,0.060,0.060,0.060,0.000,0.000,0.000
1644926763346930944,2022-02-15-12:06:03,10.1.1.5,24,0.050,0.050,0.050,0.000,0.000,0.000
1644926763406541056,2022-02-15-12:06:03,10.1.1.5,34,0.040,0.040,0.040,0.000,0.000,0.000
1644926763444999936,2022-02-15-12:06:03,10.1.1.5,23,0.030,0.030,0.030,0.000,0.000,0.000
1644926763506397952,2022-02-15-12:06:03,10.1.1.5,33,0.020,0.020,0.020,0.000,0.000,0.000
1644926763545340928,2022-02-15-12:06:03,10.1.1.5,23,0.010,0.010,0.010,0.000,0.000,0.000
1644926763605385984,2022-02-15-12:06:03,10.1.1.5,32,0.000,0.000,0.000,0.000,0.000,0.000
1644926763646522112,2022-02-15-12:06:03,10.1.1.5,20,-0.010,-0.010,-0.010,0.000,0.000,0.000
1644926763706233088,2022-02-15-12:06:03,10.1.1.5,29,-0.020,-0.020,-0.020,0.000,0.000,0.000
1644926763747375104,2022-02-15-12:06:03,10.1.1.5,19,-0.029,-0.029,-0.029,0.000,0.000,0.000
1644926763806180864,2022-02-15-12:06:03,10.1.1.5,29,-0.040,-0.040,-0.040,0.000,0.000,0.000
1644926763866082048,2022-02-15-12:06:03,10.1.1.5,38,-0.050,-0.050,-0.050,0.000,0.000,0.000
1644926763906248192,2022-02-15-12:06:03,10.1.1.5,28,-0.060,-0.060,-0.060,0.000,0.000,0.000
1644926763966001152,2022-02-15-12:06:03,10.1.1.5,37,-0.070,-0.070,-0.070,0.000,0.000,0.000
1644926764005762048,2022-02-15-12:06:04,10.1.1.5,27,-0.080,-0.080,-0.080,0.000,0.000,0.000
1644926764066306048,2022-02-15-12:06:04,10.1.1.5,37,-0.090,-0.090,-0.090,0.000,0.000,0.000
1644926764106020864,2022-02-15-12:06:04,10.1.1.5,26,-0.100,-0.100,-0.100,0.000,0.000,0.000
1644926764165963776,2022-02-15-12:06:04,10.1.1.5,36,-0.090,-0.090,-0.090,0.000,0.000,0.000
1644926764206341888,2022-02-15-12:06:04,10.1.1.5,24,-0.080,-0.080,-0.080,0.000,0.000,0.000
1644926764266364928,2022-02-15-12:06:04,10.1.1.5,34,-0.070,-0.070,-0.070,0.000,0.000,0.000
1644926764306083072,2022-02-15-12:06:04,10.1.1.5,23,-0.060,-0.060,-0.060,0.000,0.000,0.000
1644926764365972992,2022-02-15-12:06:04,10.1.1.5,32,-0.050,-0.050,-0.050,0.000,0.000,0.000
1644926764407524096,2022-02-15-12:06:04,10.1.1.5,22,-0.040,-0.040,-0.040,0.000,0.000,0.000
1644926764466092032,2022-02-15-12:06:04,10.1.1.5,32,-0.030,-0.030,-0.030,0.000,0.000,0.000
1644926764506205184,2022-02-15-12:06:04,10.1.1.5,21,-0.020,-0.020,-0.020,0.000,0.000,0.000
1644926764565381888,2022-02-15-12:06:04,10.1.1.5,31,-0.010,-0.010,-0.010,0.000,0.000,0.000
1644926764605554176,2022-02-15-12:06:04,10.1.1.5,20,0.000,0.000,0.000,0.000,0.000,0.000
1644926764667192832,2022-02-15-12:06:04,10.1.1.5,30,0.010,0.010,0.010,0.000,0.000,0.000
1644926764705995008,2022-02-15-12:06:04,10.1.1.5,20,0.020,0.020,0.020,0.000,0.000,0.000
1644926764765444096,2022-02-15-12:06:04,10.1.1.5,29,0.030,0.030,0.030,0.000,0.000,0.000
1644926764805775872,2022-02-15-12:06:04,10.1.1.5,18,0.039,0.039,0.039,0.000,0.000,0.000
1644926764865278976,2022-02-15-12:06:04,10.1.1.5,28,0.050,0.050,0.050,0.000,0.000,0.000
1644926764925371904,2022-02-15-12:06:04,10.1.1.5,38,0.060,0.060,0.060,0.000,0.000,0.000
1644926764964921088,2022-02-15-12:06:04,10.1.1.5,27,0.070,0.070,0.070,0.000,0.000,0.000
1644926765025844992,2022-02-15-12:06:05,10.1.1.5,37,0.080,0.080,0.080,0.000,0.000,0.000
1644926765066121984,2022-02-15-12:06:05,10.1.1.5,26,0.090,0.090,0.090,0.000,0.000,0.000
1644926765125241088,2022-02-15-12:06:05,10.1.1.5,36,0.100,0.100,0.100,0.000,0.000,0.000
1644926765165405952,2022-02-15-12:06:05,10.1.1.5,25,0.090,0.090,0.090,0.000,0.000,0.000
1644926765226329088,2022-02-15-12:06:05,10.1.1.5,35,0.080,0.080,0.080,0.000,0.000,0.000
1644926765265451008,2022-02-15-12:06:05,10.1.1.5,24,0.070,0.070,0.070,0.000,0.000,0.000
1644926765326336000,2022-02-15-12:06:05,10.1.1.5,34,0.060,0.060,0.060,0.000,0.000,0.000
1644926765366422016,2022-02-15-12:06:05,10.1.1.5,24,0.050,0.050,0.050,0.000,0.000,0.000
1644926765426388992,2022-02-15-12:06:05,10.1.1.5,34,0.040,0.040,0.040,0.000,0.000,0.000
1644926765466092032,2022-02-15-12:06:05,10.1.1.5,23,0.030,0.030,0.030,0.000,0.000,0.000
1644926765526813952,2022-02-15-12:06:05,10.1.1.5,33,0.020,0.020,0.020,0.000,0.000,0.000
1644926765566132992,2022-02-15-12:06:05,10.1.1.5,21,0.010,0.010,0.010,0.000,0.000,0.000
1644926765625185024,2022-02-15-12:06:05,10.1.1.5,31,-0.000,-0.000,-0.000,0.000,0.000,0.000
1644926765665168896,2022-02-15-12:06:05,10.1.1.5,20,-0.010,-0.010,-0.010,0.000,0.000,0.000
1644926765725126144,2022-02-15-12:06:05,10.1.1.5,30,-0.020,-0.020,-0.020,0.000,0.000,0.000
1644926765765122048,2022-02-15-12:06:05,10.1.1.5,19,-0.029,-0.029,-0.029,0.000,0.000,0.000
1644926765825431040,2022-02-15-12:06:05,10.1.1.5,29,-0.040,-0.040,-0.040,0.000,0.000,0.000
1644926765885231104,2022-02-15-12:06:05,10.1.1.5,38,-0.050,-0.050,-0.050,0.000,0.000,0.000
1644926765924798976,2022-02-15-12:06:05,10.1.1.5,27,-0.060,-0.060,-0.060,0.000,0.000,0.000
1644926765985465088,2022-02-15-12:06:05,10.1.1.5,37,-0.070,-0.070,-0.070,0.000,0.000,0.000
1644926766026840832,2022-02-15-12:06:06,10.1.1.5,27,-0.080,-0.080,-0.080,0.000,0.000,0.000
1644926766086230016,2022-02-15-12:06:06,10.1.1.5,37,-0.090,-0.090,-0.090,0.000,0.000,0.000
1644926766125616128,2022-02-15-12:06:06,10.1.1.5,26,-0.100,-0.100,-0.100,0.000,0.000,0.000
1644926766185710848,2022-02-15-12:06:06,10.1.1.5,36,-0.090,-0.090,-0.090,0.000,0.000,0.000
1644926766225682944,2022-02-15-12:06:06,10.1.1.5,25,-0.080,-0.080,-0.080,0.000,0.000,0.000
1644926766285444864,2022-02-15-12:06:06,10.1.1.5,35,-0.070,-0.070,-0.070,0.000,0.000,0.000
1644926766325319168,2022-02-15-12:06:06,10.1.1.5,24,-0.060,-0.060,-0.060,0.000,0.000,0.000
1644926766387088128,2022-02-15-12:06:06,10.1.1.5,33,-0.050,-0.050,-0.050,0.000,0.000,0.000
1644926766425302016,2022-02-15-12:06:06,10.1.1.5,23,-0.040,-0.040,-0.040,0.000,0.000,0.000
1644926766485331968,2022-02-15-12:06:06,10.1.1.5,32,-0.030,-0.030,-0.030,0.000,0.000,0.000
1644926766525056000,2022-02-15-12:06:06,10.1.1.5,22,-0.020,-0.020,-0.020,0.000,0.000,0.000
1644926766586366976,2022-02-15-12:06:06,10.1.1.5,31,-0.010,-0.010,-0.010,0.000,0.000,0.000
1644926766626409984,2022-02-15-12:06:06,10.1.1.5,21,0.000,0.000,0.000,0.000,0.000,0.000
1644926766687185920,2022-02-15-12:06:06,10.1.1.5,31,0.010,0.010,0.010,0.000,0.000,0.000
1644926766726371072,2022-02-15-12:06:06,10.1.1.5,20,0.020,0.020,0.020,0.000,0.000,0.000
1644926766786490880,2022-02-15-12:06:06,10.1.1.5,29,0.030,0.030,0.030,0.000,0.000,0.000
1644926766845829888,2022-02-15-12:06:06,10.1.1.5,38,0.040,0.040,0.040,0.000,0.000,0.000
1644926766885835008,2022-02-15-12:06:06,10.1.1.5,28,0.050,0.050,0.050,0.000,0.000,0.000
1644926766945501952,2022-02-15-12:06:06,10.1.1.5,37,0.060,0.060,0.060,0.000,0.000,0.000
1644926766986129920,2022-02-15-12:06:06,10.1.1.5,28,0.070,0.070,0.070,0.000,0.000,0.000
1644926767045384960,2022-02-15-12:06:07,10.1.1.5,36,0.080,0.080,0.080,0.000,0.000,0.000
1644926767085725184,2022-02-15-12:06:07,10.1.1.5,26,0.090,0.090,0.090,0.000,0.000,0.000
1644926767145172224,2022-02-15-12:06:07,10.1.1.5,36,0.100,0.100,0.100,0.000,0.000,0.000
1644926767186435840,2022-02-15-12:06:07,10.1.1.5,25,0.090,0.090,0.090,0.000,0.000,0.000
1644926767245684992,2022-02-15-12:06:07,10.1.1.5,34,0.080,0.080,0.080,0.000,0.000,0.000
1644926767300257024,2022-02-15-12:06:07,10.1.1.5,22,0.070,0.070,0.070,0.000,0.000,0.000
1644926767366460160,2022-02-15-12:06:07,10.1.1.5,35,0.060,0.060,0.060,0.000,0.000,0.000
1644926767407348992,2022-02-15-12:06:07,10.1.1.5,26,0.050,0.050,0.050,0.000,0.000,0.000
1644926767466461952,2022-02-15-12:06:07,10.1.1.5,34,0.040,0.040,0.040,0.000,0.000,0.000
1644926767508079104,2022-02-15-12:06:07,10.1.1.5,24,0.030,0.030,0.030,0.000,0.000,0.000
1644926767566729984,2022-02-15-12:06:07,10.1.1.5,34,0.020,0.020,0.020,0.000,0.000,0.000
1644926767608259840,2022-02-15-12:06:07,10.1.1.5,23,0.010,0.010,0.010,0.000,0.000,0.000
1644926767667169024,2022-02-15-12:06:07,10.1.1.5,32,0.000,0.000,0.000,0.000,0.000,0.000
1644926767708539904,2022-02-15-12:06:07,10.1.1.5,22,-0.010,-0.010,-0.010,0.000,0.000,0.000
1644926767767461888,2022-02-15-12:06:07,10.1.1.5,32,-0.020,-0.020,-0.020,0.000,0.000,0.000
1644926767806354944,2022-02-15-12:06:07,10.1.1.5,21,-0.030,-0.030,-0.030,0.000,0.000,0.000
1644926767866622976,2022-02-15-12:06:07,10.1.1.5,29,-0.040,-0.040,-0.040,0.000,0.000,0.000
1644926767907042048,2022-02-15-12:06:07,10.1.1.5,20,-0.050,-0.050,-0.050,0.000,0.000,0.000
1644926767965650944,2022-02-15-12:06:07,10.1.1.5,29,-0.060,-0.060,-0.060,0.000,0.000,0.000
1644926768026652160,2022-02-15-12:06:08,10.1.1.5,38,-0.070,-0.070,-0.070,0.000,0.000,0.000
1644926768066906880,2022-02-15-12:06:08,10.1.1.5,29,-0.080,-0.080,-0.080,0.000,0.000,0.000
1644926768125464064,2022-02-15-12:06:08,10.1.1.5,38,-0.090,-0.090,-0.090,0.000,0.000,0.000
1644926768167112960,2022-02-15-12:06:08,10.1.1.5,27,-0.100,-0.100,-0.100,0.000,0.000,0.000
1644926768225871104,2022-02-15-12:06:08,10.1.1.5,37,-0.090,-0.090,-0.090,0.000,0.000,0.000
1644926768266208768,2022-02-15-12:06:08,10.1.1.5,26,-0.080,-0.080,-0.080,0.000,0.000,0.000
1644926768326376960,2022-02-15-12:06:08,10.1.1.5,36,-0.070,-0.070,-0.070,0.000,0.000,0.000
1644926768366147072,2022-02-15-12:06:08,10.1.1.5,25,-0.060,-0.060,-0.060,0.000,0.000,0.000
1644926768425533952,2022-02-15-12:06:08,10.1.1.5,34,-0.050,-0.050,-0.050,0.000,0.000,0.000
1644926768467094016,2022-02-15-12:06:08,10.1.1.5,24,-0.040,-0.040,-0.040,0.000,0.000,0.000
1644926768525636864,2022-02-15-12:06:08,10.1.1.5,33,-0.030,-0.030,-0.030,0.000,0.000,0.000
1644926768566388992,2022-02-15-12:06:08,10.1.1.5,23,-0.020,-0.020,-0.020,0.000,0.000,0.000
1644926768626842112,2022-02-15-12:06:08,10.1.1.5,33,-0.010,-0.010,-0.010,0.000,0.000,0.000
1644926768666776832,2022-02-15-12:06:08,10.1.1.5,22,0.000,0.000,0.000,0.000,0.000,0.000
1644926768726728960,2022-02-15-12:06:08,10.1.1.5,32,0.010,0.010,0.010,0.000,0.000,0.000
1644926768766410240,2022-02-15-12:06:08,10.1.1.5,21,0.020,0.020,0.020,0.000,0.000,0.000
1644926768826693120,2022-02-15-12:06:08,10.1.1.5,31,0.030,0.030,0.030,0.000,0.000,0.000
1644926768865645056,2022-02-15-12:06:08,10.1.1.5,20,0.040,0.040,0.040,0.000,0.000,0.000
1644926768927254016,2022-02-15-12:06:08,10.1.1.5,29,0.050,0.050,0.050,0.000,0.000,0.000
1644926768966577152,2022-02-15-12:06:08,10.1.1.5,19,0.060,0.060,0.060,0.000,0.000,0.000
1644926769025788928,2022-02-15-12:06:09,10.1.1.5,29,0.070,0.070,0.070,0.000,0.000,0.000
1644926769085374208,2022-02-15-12:06:09,10.1.1.5,38,0.080,0.080,0.080,0.000,0.000,0.000
1644926769126914048,2022-02-15-12:06:09,10.1.1.5,28,0.090,0.090,0.090,0.000,0.000,0.000
1644926769186614016,2022-02-15-12:06:09,10.1.1.5,37,0.100,0.100,0.100,0.000,0.000,0.000
1644926769227382784,2022-02-15-12:06:09,10.1.1.5,27,0.090,0.090,0.090,0.000,0.000,0.000
1644926769286526976,2022-02-15-12:06:09,10.1.1.5,35,0.080,0.080,0.080,0.000,0.000,0.000
1644926769327224064,2022-02-15-12:06:09,10.1.1.5,25,0.070,0.070,0.070,0.000,0.000,0.000
1644926769385519104,2022-02-15-12:06:09,10.1.1.5,34,0.060,0.060,0.060,0.000,0.000,0.000
1644926769425702144,2022-02-15-12:06:09,10.1.1.5,23,0.050,0.050,0.050,0.000,0.000,0.000
1644926769485792000,2022-02-15-12:06:09,10.1.1.5,33,0.040,0.040,0.040,0.000,0.000,0.000
1644926769525537024,2022-02-15-12:06:09,10.1.1.5,23,0.030,0.030,0.030,0.000,0.000,0.000
1644926769587025920,2022-02-15-12:06:09,10.1.1.5,32,0.020,0.020,0.020,0.000,0.000,0.000
1644926769627597056,2022-02-15-12:06:09,10.1.1.5,21,0.010,0.010,0.010,0.000,0.000,0.000
1644926769686209024,2022-02-15-12:06:09,10.1.1.5,31,0.000,0.000,0.000,0.000,0.000,0.000
1644926769785657856,2022-02-15-12:06:09,10.1.1.5,28,-0.020,-0.020,-0.020,0.000,0.000,0.000
1644926769846432000,2022-02-15-12:06:09,10.1.1.5,37,-0.030,-0.030,-0.030,0.000,0.000,0.000
1644926769887600896,2022-02-15-12:06:09,10.1.1.5,27,-0.040,-0.040,-0.040,0.000,0.000,0.000
1644926769947115008,2022-02-15-12:06:09,10.1.1.5,36,-0.050,-0.050,-0.050,0.000,0.000,0.000
1644926769985436928,2022-02-15-12:06:09,10.1.1.5,25,-0.060,-0.060,-0.060,0.000,0.000,0.000
1644926770045883904,2022-02-15-12:06:10,10.1.1.5,34,-0.070,-0.070,-0.070,0.000,0.000,0.000
1644926770085566976,2022-02-15-12:06:10,10.1.1.5,24,-0.080,-0.080,-0.080,0.000,0.000,0.000
1644926770146908928,2022-02-15-12:06:10,10.1.1.5,33,-0.090,-0.090,-0.090,0.000,0.000,0.000
1644926770187109888,2022-02-15-12:06:10,10.1.1.5,22,-0.100,-0.100,-0.100,0.000,0.000,0.000
1644926770246145024,2022-02-15-12:06:10,10.1.1.5,32,-0.090,-0.090,-0.090,0.000,0.000,0.000
1644926770323456000,2022-02-15-12:06:10,10.1.1.5,21,-0.080,-0.080,-0.080,0.000,0.000,0.000
1644926770366616064,2022-02-15-12:06:10,10.1.1.5,37,-0.070,-0.070,-0.070,0.000,0.000,0.000
1644926770406718976,2022-02-15-12:06:10,10.1.1.5,26,-0.060,-0.060,-0.060,0.000,0.000,0.000
1644926770466533888,2022-02-15-12:06:10,10.1.1.5,36,-0.050,-0.050,-0.050,0.000,0.000,0.000
1644926770506184192,2022-02-15-12:06:10,10.1.1.5,25,-0.040,-0.040,-0.040,0.000,0.000,0.000
1644926770566437120,2022-02-15-12:06:10,10.1.1.5,35,-0.030,-0.030,-0.030,0.000,0.000,0.000
1644926770605982976,2022-02-15-12:06:10,10.1.1.5,24,-0.020,-0.020,-0.020,0.000,0.000,0.000
1644926770665803008,2022-02-15-12:06:10,10.1.1.5,33,-0.010,-0.010,-0.010,0.000,0.000,0.000
1644926770705265920,2022-02-15-12:06:10,10.1.1.5,23,0.000,0.000,0.000,0.000,0.000,0.000
1644926770765462016,2022-02-15-12:06:10,10.1.1.5,33,0.010,0.010,0.010,0.000,0.000,0.000
1644926770805899008,2022-02-15-12:06:10,10.1.1.5,22,0.020,0.020,0.020,0.000,0.000,0.000
1644926770866424064,2022-02-15-12:06:10,10.1.1.5,32,0.030,0.030,0.030,0.000,0.000,0.000
1644926770906477056,2022-02-15-12:06:10,10.1.1.5,22,0.040,0.040,0.040,0.000,0.000,0.000
1644926770966006016,2022-02-15-12:06:10,10.1.1.5,32,0.050,0.050,0.050,0.000,0.000,0.000
1644926771006537984,2022-02-15-12:06:11,10.1.1.5,21,0.060,0.060,0.060,0.000,0.000,0.000
1644926771066291200,2022-02-15-12:06:11,10.1.1.5,30,0.070,0.070,0.070,0.000,0.000,0.000
1644926771106089984,2022-02-15-12:06:11,10.1.1.5,20,0.080,0.080,0.080,0.000,0.000,0.000
1644926771166160128,2022-02-15-12:06:11,10.1.1.5,29,0.090,0.090,0.090,0.000,0.000,0.000
1644926771205859072,2022-02-15-12:06:11,10.1.1.5,19,0.099,0.099,0.099,0.000,0.000,0.000
1644926771265991936,2022-02-15-12:06:11,10.1.1.5,28,0.090,0.090,0.090,0.000,0.000,0.000
1644926771326220032,2022-02-15-12:06:11,10.1.1.5,37,0.080,0.080,0.080,0.000,0.000,0.000
1644926771365783808,2022-02-15-12:06:11,10.1.1.5,26,0.070,0.070,0.070,0.000,0.000,0.000
1644926771426119936,2022-02-15-12:06:11,10.1.1.5,36,0.060,0.060,0.060,0.000,0.000,0.000
1644926771466146048,2022-02-15-12:06:11,10.1.1.5,26,0.050,0.050,0.050,0.000,0.000,0.000
1644926771526788096,2022-02-15-12:06:11,10.1.1.5,35,0.040,0.040,0.040,0.000,0.000,0.000
1644926771566464000,2022-02-15-12:06:11,10.1.1.5,25,0.030,0.030,0.030,0.000,0.000,0.000
1644926771626643968,2022-02-15-12:06:11,10.1.1.5,34,0.020,0.020,0.020,0.000,0.000,0.000
1644926771666034944,2022-02-15-12:06:11,10.1.1.5,24,0.010,0.010,0.010,0.000,0.000,0.000
1644926771726861056,2022-02-15-12:06:11,10.1.1.5,33,0.000,0.000,0.000,0.000,0.000,0.000
1644926771765974016,2022-02-15-12:06:11,10.1.1.5,23,-0.010,-0.010,-0.010,0.000,0.000,0.000
1644926771826242816,2022-02-15-12:06:11,10.1.1.5,33,-0.020,-0.020,-0.020,0.000,0.000,0.000
1644926771946428160,2022-02-15-12:06:11,10.1.1.5,30,-0.040,-0.040,-0.040,0.000,0.000,0.000
1644926771986761984,2022-02-15-12:06:11,10.1.1.5,21,-0.050,-0.050,-0.050,0.000,0.000,0.000
1644926772046722048,2022-02-15-12:06:12,10.1.1.5,29,-0.060,-0.060,-0.060,0.000,0.000,0.000
1644926772106573056,2022-02-15-12:06:12,10.1.1.5,38,-0.070,-0.070,-0.070,0.000,0.000,0.000
1644926772146733056,2022-02-15-12:06:12,10.1.1.5,29,-0.080,-0.080,-0.080,0.000,0.000,0.000
1644926772246423040,2022-02-15-12:06:12,10.1.1.5,27,-0.100,-0.100,-0.100,0.000,0.000,0.000
1644926772306440192,2022-02-15-12:06:12,10.1.1.5,37,-0.090,-0.090,-0.090,0.000,0.000,0.000
1644926772346676992,2022-02-15-12:06:12,10.1.1.5,27,-0.080,-0.080,-0.080,0.000,0.000,0.000
1644926772407085056,2022-02-15-12:06:12,10.1.1.5,35,-0.070,-0.070,-0.070,0.000,0.000,0.000
1644926772446023936,2022-02-15-12:06:12,10.1.1.5,25,-0.060,-0.060,-0.060,0.000,0.000,0.000
1644926772506266112,2022-02-15-12:06:12,10.1.1.5,35,-0.050,-0.050,-0.050,0.000,0.000,0.000
1644926772546950144,2022-02-15-12:06:12,10.1.1.5,25,-0.040,-0.040,-0.040,0.000,0.000,0.000
1644926772607130112,2022-02-15-12:06:12,10.1.1.5,34,-0.030,-0.030,-0.030,0.000,0.000,0.000
1644926772645734144,2022-02-15-12:06:12,10.1.1.5,23,-0.020,-0.020,-0.020,0.000,0.000,0.000
1644926772706629888,2022-02-15-12:06:12,10.1.1.5,32,-0.010,-0.010,-0.010,0.000,0.000,0.000
1644926772746528000,2022-02-15-12:06:12,10.1.1.5,22,0.000,0.000,0.000,0.000,0.000,0.000
1644926772806001920,2022-02-15-12:06:12,10.1.1.5,32,0.010,0.010,0.010,0.000,0.000,0.000
1644926772846193920,2022-02-15-12:06:12,10.1.1.5,20,0.020,0.020,0.020,0.000,0.000,0.000
1644926772906125056,2022-02-15-12:06:12,10.1.1.5,30,0.030,0.030,0.030,0.000,0.000,0.000
1644926772946201088,2022-02-15-12:06:12,10.1.1.5,19,0.040,0.040,0.040,0.000,0.000,0.000
1644926773006284032,2022-02-15-12:06:13,10.1.1.5,29,0.050,0.050,0.050,0.000,0.000,0.000
1644926773066188032,2022-02-15-12:06:13,10.1.1.5,38,0.060,0.060,0.060,0.000,0.000,0.000
1644926773106447104,2022-02-15-12:06:13,10.1.1.5,28,0.070,0.070,0.070,0.000,0.000,0.000
1644926773166095872,2022-02-15-12:06:13,10.1.1.5,37,0.080,0.080,0.080,0.000,0.000,0.000
1644926773205332992,2022-02-15-12:06:13,10.1.1.5,27,0.090,0.090,0.090,0.000,0.000,0.000
1644926773266092032,2022-02-15-12:06:13,10.1.1.5,36,0.100,0.100,0.100,0.000,0.000,0.000
1644926773306676992,2022-02-15-12:06:13,10.1.1.5,26,0.090,0.090,0.090,0.000,0.000,0.000
1644926773366044928,2022-02-15-12:06:13,10.1.1.5,35,0.080,0.080,0.080,0.000,0.000,0.000
1644926773406560000,2022-02-15-12:06:13,10.1.1.5,25,0.070,0.070,0.070,0.000,0.000,0.000
1644926773466164992,2022-02-15-12:06:13,10.1.1.5,34,0.060,0.060,0.060,0.000,0.000,0.000
1644926773506568960,2022-02-15-12:06:13,10.1.1.5,24,0.050,0.050,0.050,0.000,0.000,0.000
1644926773566353152,2022-02-15-12:06:13,10.1.1.5,33,0.040,0.040,0.040,0.000,0.000,0.000
1644926773606225920,2022-02-15-12:06:13,10.1.1.5,22,0.030,0.030,0.030,0.000,0.000,0.000
1644926773665307136,2022-02-15-12:06:13,10.1.1.5,32,0.020,0.020,0.020,0.000,0.000,0.000
1644926773706640896,2022-02-15-12:06:13,10.1.1.5,21,0.010,0.010,0.010,0.000,0.000,0.000
1644926773766809088,2022-02-15-12:06:13,10.1.1.5,31,0.000,0.000,0.000,0.000,0.000,0.000
1644926773806936064,2022-02-15-12:06:13,10.1.1.5,21,-0.010,-0.010,-0.010,0.000,0.000,0.000
1644926773866435072,2022-02-15-12:06:13,10.1.1.5,29,-0.020,-0.020,-0.020,0.000,0.000,0.000
1644926773925321984,2022-02-15-12:06:13,10.1.1.5,39,-0.030,-0.030,-0.030,0.000,0.000,0.000
1644926773965540864,2022-02-15-12:06:13,10.1.1.5,28,-0.040,-0.040,-0.040,0.000,0.000,0.000
1644926774027462912,2022-02-15-12:06:14,10.1.1.5,38,-0.050,-0.050,-0.050,0.000,0.000,0.000
1644926774066514944,2022-02-15-12:06:14,10.1.1.5,28,-0.060,-0.060,-0.060,0.000,0.000,0.000
1644926774126215936,2022-02-15-12:06:14,10.1.1.5,37,-0.070,-0.070,-0.070,0.000,0.000,0.000
1644926774166484992,2022-02-15-12:06:14,10.1.1.5,26,-0.080,-0.080,-0.080,0.000,0.000,0.000
1644926774226157056,2022-02-15-12:06:14,10.1.1.5,36,-0.090,-0.090,-0.090,0.000,0.000,0.000
1644926774266391040,2022-02-15-12:06:14,10.1.1.5,25,-0.100,-0.100,-0.100,0.000,0.000,0.000
1644926774325846016,2022-02-15-12:06:14,10.1.1.5,34,-0.090,-0.090,-0.090,0.000,0.000,0.000
1644926774366482944,2022-02-15-12:06:14,10.1.1.5,23,-0.080,-0.080,-0.080,0.000,0.000,0.000
1644926774426665984,2022-02-15-12:06:14,10.1.1.5,33,-0.070,-0.070,-0.070,0.000,0.000,0.000
1644926774466450944,2022-02-15-12:06:14,10.1.1.5,22,-0.060,-0.060,-0.060,0.000,0.000,0.000
1644926774526294016,2022-02-15-12:06:14,10.1.1.5,32,-0.050,-0.050,-0.050,0.000,0.000,0.000
1644926774567241984,2022-02-15-12:06:14,10.1.1.5,22,-0.040,-0.040,-0.040,0.000,0.000,0.000
1644926774626487040,2022-02-15-12:06:14,10.1.1.5,31,-0.030,-0.030,-0.030,0.000,0.000,0.000
1644926774665740032,2022-02-15-12:06:14,10.1.1.5,20,-0.020,-0.020,-0.020,0.000,0.000,0.000
1644926774726475008,2022-02-15-12:06:14,10.1.1.5,29,-0.010,-0.010,-0.010,0.000,0.000,0.000
1644926774767227904,2022-02-15-12:06:14,10.1.1.5,18,-0.001,-0.001,-0.001,0.000,0.000,0.000
1644926774827308800,2022-02-15-12:06:14,10.1.1.5,28,0.010,0.010,0.010,0.000,0.000,0.000
1644926774886530048,2022-02-15-12:06:14,10.1.1.5,38,0.020,0.020,0.020,0.000,0.000,0.000
1644926774926904832,2022-02-15-12:06:14,10.1.1.5,27,0.030,0.030,0.030,0.000,0.000,0.000
1644926774986991872,2022-02-15-12:06:14,10.1.1.5,37,0.040,0.040,0.040,0.000,0.000,0.000
1644926775026169088,2022-02-15-12:06:15,10.1.1.5,26,0.050,0.050,0.050,0.000,0.000,0.000
1644926775086096128,2022-02-15-12:06:15,10.1.1.5,35,0.060,0.060,0.060,0.000,0.000,0.000
1644926775130123008,2022-02-15-12:06:15,10.1.1.5,25,0.070,0.070,0.070,0.000,0.000,0.000
1644926775185782784,2022-02-15-12:06:15,10.1.1.5,33,0.080,0.080,0.080,0.000,0.000,0.000
1644926775226562048,2022-02-15-12:06:15,10.1.1.5,23,0.090,0.090,0.090,0.000,0.000,0.000
1644926775286484992,2022-02-15-12:06:15,10.1.1.5,32,0.100,0.100,0.100,0.000,0.000,0.000
1644926775327336960,2022-02-15-12:06:15,10.1.1.5,23,0.090,0.090,0.090,0.000,0.000,0.000
1644926775386694912,2022-02-15-12:06:15,10.1.1.5,31,0.080,0.080,0.080,0.000,0.000,0.000
1644926775425745920,2022-02-15-12:06:15,10.1.1.5,21,0.070,0.070,0.070,0.000,0.000,0.000
1644926775487878912,2022-02-15-12:06:15,10.1.1.5,32,0.060,0.060,0.060,0.000,0.000,0.000
1644926775526707968,2022-02-15-12:06:15,10.1.1.5,21,0.050,0.050,0.050,0.000,0.000,0.000
1644926775587357952,2022-02-15-12:06:15,10.1.1.5,30,0.040,0.040,0.040,0.000,0.000,0.000
1644926775647137024,2022-02-15-12:06:15,10.1.1.5,39,0.030,0.030,0.030,0.000,0.000,0.000
1644926775686501120,2022-02-15-12:06:15,10.1.1.5,29,0.020,0.020,0.020,0.000,0.000,0.000
1644926775746264064,2022-02-15-12:06:15,10.1.1.5,38,0.010,0.010,0.010,0.000,0.000,0.000
1644926775786257152,2022-02-15-12:06:15,10.1.1.5,27,0.000,0.000,0.000,0.000,0.000,0.000
1644926775846432000,2022-02-15-12:06:15,10.1.1.5,36,-0.010,-0.010,-0.010,0.000,0.000,0.000
1644926775886742016,2022-02-15-12:06:15,10.1.1.5,26,-0.020,-0.020,-0.020,0.000,0.000,0.000
1644926775945682176,2022-02-15-12:06:15,10.1.1.5,35,-0.030,-0.030,-0.030,0.000,0.000,0.000
1644926775986243072,2022-02-15-12:06:15,10.1.1.5,25,-0.040,-0.040,-0.040,0.000,0.000,0.000
1644926776045988096,2022-02-15-12:06:16,10.1.1.5,35,-0.050,-0.050,-0.050,0.000,0.000,0.000
1644926776086825984,2022-02-15-12:06:16,10.1.1.5,24,-0.060,-0.060,-0.060,0.000,0.000,0.000
1644926776146542080,2022-02-15-12:06:16,10.1.1.5,33,-0.070,-0.070,-0.070,0.000,0.000,0.000
1644926776186131968,2022-02-15-12:06:16,10.1.1.5,23,-0.080,-0.080,-0.080,0.000,0.000,0.000
1644926776246409984,2022-02-15-12:06:16,10.1.1.5,33,-0.090,-0.090,-0.090,0.000,0.000,0.000
1644926776286488064,2022-02-15-12:06:16,10.1.1.5,22,-0.100,-0.100,-0.100,0.000,0.000,0.000
1644926776346108928,2022-02-15-12:06:16,10.1.1.5,32,-0.090,-0.090,-0.090,0.000,0.000,0.000
1644926776386667008,2022-02-15-12:06:16,10.1.1.5,21,-0.080,-0.080,-0.080,0.000,0.000,0.000
1644926776446603008,2022-02-15-12:06:16,10.1.1.5,30,-0.070,-0.070,-0.070,0.000,0.000,0.000
1644926776486884096,2022-02-15-12:06:16,10.1.1.5,19,-0.061,-0.061,-0.061,0.000,0.000,0.000
1644926776545747968,2022-02-15-12:06:16,10.1.1.5,29,-0.050,-0.050,-0.050,0.000,0.000,0.000
1644926776605235968,2022-02-15-12:06:16,10.1.1.5,38,-0.040,-0.040,-0.040,0.000,0.000,0.000
1644926776646487040,2022-02-15-12:06:16,10.1.1.5,28,-0.030,-0.030,-0.030,0.000,0.000,0.000
1644926776709031168,2022-02-15-12:06:16,10.1.1.5,38,-0.020,-0.020,-0.020,0.000,0.000,0.000
1644926776746918912,2022-02-15-12:06:16,10.1.1.5,27,-0.010,-0.010,-0.010,0.000,0.000,0.000
1644926776806860800,2022-02-15-12:06:16,10.1.1.5,34,0.000,0.000,0.000,0.000,0.000,0.000
1644926776845110016,2022-02-15-12:06:16,10.1.1.5,22,0.010,0.010,0.010,0.000,0.000,0.000
1644926776907030016,2022-02-15-12:06:16,10.1.1.5,32,0.020,0.020,0.020,0.000,0.000,0.000
1644926776947563008,2022-02-15-12:06:16,10.1.1.5,19,0.030,0.030,0.030,0.000,0.000,0.000
1644926777006715904,2022-02-15-12:06:17,10.1.1.5,29,0.040,0.040,0.040,0.000,0.000,0.000
1644926777067725056,2022-02-15-12:06:17,10.1.1.5,40,0.050,0.050,0.050,0.000,0.000,0.000
1644926777106961920,2022-02-15-12:06:17,10.1.1.5,28,0.060,0.060,0.060,0.000,0.000,0.000
1644926777169341184,2022-02-15-12:06:17,10.1.1.5,37,0.070,0.070,0.070,0.000,0.000,0.000
1644926777226331904,2022-02-15-12:06:17,10.1.1.5,36,0.080,0.080,0.080,0.000,0.000,0.000
1644926777266805760,2022-02-15-12:06:17,10.1.1.5,25,0.090,0.090,0.090,0.000,0.000,0.000
1644926777327447808,2022-02-15-12:06:17,10.1.1.5,36,0.100,0.100,0.100,0.000,0.000,0.000
1644926777367026176,2022-02-15-12:06:17,10.1.1.5,24,0.090,0.090,0.090,0.000,0.000,0.000
1644926777425360896,2022-02-15-12:06:17,10.1.1.5,34,0.080,0.080,0.080,0.000,0.000,0.000
1644926777465547008,2022-02-15-12:06:17,10.1.1.5,23,0.070,0.070,0.070,0.000,0.000,0.000
1644926777526892032,2022-02-15-12:06:17,10.1.1.5,33,0.060,0.060,0.060,0.000,0.000,0.000
1644926777565846016,2022-02-15-12:06:17,10.1.1.5,22,0.050,0.050,0.050,0.000,0.000,0.000
1644926777626457856,2022-02-15-12:06:17,10.1.1.5,32,0.040,0.040,0.040,0.000,0.000,0.000
1644926777668121088,2022-02-15-12:06:17,10.1.1.5,22,0.030,0.030,0.030,0.000,0.000,0.000
1644926777726615808,2022-02-15-12:06:17,10.1.1.5,31,0.020,0.020,0.020,0.000,0.000,0.000
1644926777769326848,2022-02-15-12:06:17,10.1.1.5,20,0.010,0.010,0.010,0.000,0.000,0.000
1644926777827128832,2022-02-15-12:06:17,10.1.1.5,29,0.000,0.000,0.000,0.000,0.000,0.000
1644926777866631936,2022-02-15-12:06:17,10.1.1.5,19,-0.009,-0.009,-0.009,0.000,0.000,0.000
1644926777926498048,2022-02-15-12:06:17,10.1.1.5,28,-0.020,-0.020,-0.020,0.000,0.000,0.000
1644926777987365120,2022-02-15-12:06:17,10.1.1.5,38,-0.030,-0.030,-0.030,0.000,0.000,0.000
1644926778027249152,2022-02-15-12:06:18,10.1.1.5,27,-0.040,-0.040,-0.040,0.000,0.000,0.000
1644926778086627840,2022-02-15-12:06:18,10.1.1.5,37,-0.050,-0.050,-0.050,0.000,0.000,0.000
1644926778126768128,2022-02-15-12:06:18,10.1.1.5,26,-0.060,-0.060,-0.060,0.000,0.000,0.000
1644926778187201024,2022-02-15-12:06:18,10.1.1.5,35,-0.070,-0.070,-0.070,0.000,0.000,0.000
1644926778226737920,2022-02-15-12:06:18,10.1.1.5,25,-0.080,-0.080,-0.080,0.000,0.000,0.000
1644926778287184128,2022-02-15-12:06:18,10.1.1.5,34,-0.090,-0.090,-0.090,0.000,0.000,0.000
1644926778327282944,2022-02-15-12:06:18,10.1.1.5,22,-0.100,-0.100,-0.100,0.000,0.000,0.000
1644926778387904000,2022-02-15-12:06:18,10.1.1.5,31,-0.090,-0.090,-0.090,0.000,0.000,0.000
1644926778427062016,2022-02-15-12:06:18,10.1.1.5,21,-0.080,-0.080,-0.080,0.000,0.000,0.000
1644926778487907840,2022-02-15-12:06:18,10.1.1.5,30,-0.070,-0.070,-0.070,0.000,0.000,0.000
1644926778525856000,2022-02-15-12:06:18,10.1.1.5,20,-0.060,-0.060,-0.060,0.000,0.000,0.000
1644926778585448960,2022-02-15-12:06:18,10.1.1.5,29,-0.050,-0.050,-0.050,0.000,0.000,0.000
1644926778626490112,2022-02-15-12:06:18,10.1.1.5,19,-0.041,-0.041,-0.041,0.000,0.000,0.000
1644926778686262016,2022-02-15-12:06:18,10.1.1.5,28,-0.030,-0.030,-0.030,0.000,0.000,0.000
1644926778747802112,2022-02-15-12:06:18,10.1.1.5,39,-0.020,-0.020,-0.020,0.000,0.000,0.000
1644926778786091008,2022-02-15-12:06:18,10.1.1.5,27,-0.010,-0.010,-0.010,0.000,0.000,0.000
1644926778845863168,2022-02-15-12:06:18,10.1.1.5,36,0.000,0.000,0.000,0.000,0.000,0.000
1644926778885967104,2022-02-15-12:06:18,10.1.1.5,26,0.010,0.010,0.010,0.000,0.000,0.000
1644926778946546176,2022-02-15-12:06:18,10.1.1.5,36,0.020,0.020,0.020,0.000,0.000,0.000
1644926778985455104,2022-02-15-12:06:18,10.1.1.5,25,0.030,0.030,0.030,0.000,0.000,0.000
1644926779045733888,2022-02-15-12:06:19,10.1.1.5,35,0.040,0.040,0.040,0.000,0.000,0.000
1644926779086464000,2022-02-15-12:06:19,10.1.1.5,24,0.050,0.050,0.050,0.000,0.000,0.000
1644926779146142976,2022-02-15-12:06:19,10.1.1.5,33,0.060,0.060,0.060,0.000,0.000,0.000
1644926779185853952,2022-02-15-12:06:19,10.1.1.5,23,0.070,0.070,0.070,0.000,0.000,0.000
1644926779246118144,2022-02-15-12:06:19,10.1.1.5,33,0.080,0.080,0.080,0.000,0.000,0.000
1644926779286631936,2022-02-15-12:06:19,10.1.1.5,22,0.090,0.090,0.090,0.000,0.000,0.000
1644926779346096128,2022-02-15-12:06:19,10.1.1.5,32,0.100,0.100,0.100,0.000,0.000,0.000
1644926779385350912,2022-02-15-12:06:19,10.1.1.5,22,0.090,0.090,0.090,0.000,0.000,0.000
1644926779445086976,2022-02-15-12:06:19,10.1.1.5,31,0.080,0.080,0.080,0.000,0.000,0.000
1644926779486285056,2022-02-15-12:06:19,10.1.1.5,20,0.070,0.070,0.070,0.000,0.000,0.000
1644926779547920896,2022-02-15-12:06:19,10.1.1.5,30,0.060,0.060,0.060,0.000,0.000,0.000
1644926779585753856,2022-02-15-12:06:19,10.1.1.5,19,0.050,0.050,0.050,0.000,0.000,0.000
1644926779645571840,2022-02-15-12:06:19,10.1.1.5,29,0.040,0.040,0.040,0.000,0.000,0.000
1644926779705629184,2022-02-15-12:06:19,10.1.1.5,38,0.030,0.030,0.030,0.000,0.000,0.000
1644926779745721088,2022-02-15-12:06:19,10.1.1.5,28,0.020,0.020,0.020,0.000,0.000,0.000
1644926779806898176,2022-02-15-12:06:19,10.1.1.5,37,0.010,0.010,0.010,0.000,0.000,0.000
1644926779845850880,2022-02-15-12:06:19,10.1.1.5,27,0.000,0.000,0.000,0.000,0.000,0.000
1644926779906115072,2022-02-15-12:06:19,10.1.1.5,36,-0.010,-0.010,-0.010,0.000,0.000,0.000
1644926779945522176,2022-02-15-12:06:19,10.1.1.5,25,-0.020,-0.020,-0.020,0.000,0.000,0.000
1644926780006247936,2022-02-15-12:06:20,10.1.1.5,35,-0.030,-0.030,-0.030,0.000,0.000,0.000
1644926780045833984,2022-02-15-12:06:20,10.1.1.5,24,-0.040,-0.040,-0.040,0.000,0.000,0.000
1644926780109554944,2022-02-15-12:06:20,10.1.1.5,32,-0.050,-0.050,-0.050,0.000,0.000,0.000
1644926780146228992,2022-02-15-12:06:20,10.1.1.5,22,-0.060,-0.060,-0.060,0.000,0.000,0.000
1644926780206063104,2022-02-15-12:06:20,10.1.1.5,32,-0.070,-0.070,-0.070,0.000,0.000,0.000
1644926780245691136,2022-02-15-12:06:20,10.1.1.5,21,-0.080,-0.080,-0.080,0.000,0.000,0.000
1644926780306020864,2022-02-15-12:06:20,10.1.1.5,30,-0.090,-0.090,-0.090,0.000,0.000,0.000
1644926780346152960,2022-02-15-12:06:20,10.1.1.5,19,-0.100,-0.100,-0.100,0.000,0.000,0.000
1644926780411532032,2022-02-15-12:06:20,10.1.1.5,29,-0.090,-0.090,-0.090,0.000,0.000,0.000
1644926780470215168,2022-02-15-12:06:20,10.1.1.5,37,-0.080,-0.080,-0.080,0.000,0.000,0.000
1644926780505934848,2022-02-15-12:06:20,10.1.1.5,24,-0.070,-0.070,-0.070,0.000,0.000,0.000
1644926780565838080,2022-02-15-12:06:20,10.1.1.5,33,-0.060,-0.060,-0.060,0.000,0.000,0.000
1644926780606189056,2022-02-15-12:06:20,10.1.1.5,23,-0.050,-0.050,-0.050,0.000,0.000,0.000
1644926780666469120,2022-02-15-12:06:20,10.1.1.5,32,-0.040,-0.040,-0.040,0.000,0.000,0.000
1644926780706049024,2022-02-15-12:06:20,10.1.1.5,22,-0.030,-0.030,-0.030,0.000,0.000,0.000
1644926780767425024,2022-02-15-12:06:20,10.1.1.5,31,-0.020,-0.020,-0.020,0.000,0.000,0.000
1644926780805572864,2022-02-15-12:06:20,10.1.1.5,21,-0.010,-0.010,-0.010,0.000,0.000,0.000
1644926780866415104,2022-02-15-12:06:20,10.1.1.5,29,0.000,0.000,0.000,0.000,0.000,0.000
1644926780926608128,2022-02-15-12:06:20,10.1.1.5,38,0.010,0.010,0.010,0.000,0.000,0.000
1644926780968400896,2022-02-15-12:06:20,10.1.1.5,28,0.020,0.020,0.020,0.000,0.000,0.000
1644926781027371776,2022-02-15-12:06:21,10.1.1.5,37,0.030,0.030,0.030,0.000,0.000,0.000
1644926781066586112,2022-02-15-12:06:21,10.1.1.5,26,0.040,0.040,0.040,0.000,0.000,0.000
1644926781126313984,2022-02-15-12:06:21,10.1.1.5,36,0.050,0.050,0.050,0.000,0.000,0.000
1644926781166742016,2022-02-15-12:06:21,10.1.1.5,25,0.060,0.060,0.060,0.000,0.000,0.000
1644926781226653952,2022-02-15-12:06:21,10.1.1.5,33,0.070,0.070,0.070,0.000,0.000,0.000
1644926781265921024,2022-02-15-12:06:21,10.1.1.5,22,0.080,0.080,0.080,0.000,0.000,0.000
1644926781327168000,2022-02-15-12:06:21,10.1.1.5,31,0.090,0.090,0.090,0.000,0.000,0.000
1644926781367019776,2022-02-15-12:06:21,10.1.1.5,21,0.100,0.100,0.100,0.000,0.000,0.000
1644926781488844032,2022-02-15-12:06:21,10.1.1.5,38,0.080,0.080,0.080,0.000,0.000,0.000
1644926781537602816,2022-02-15-12:06:21,10.1.1.5,25,0.070,0.070,0.070,0.000,0.000,0.000
1644926781685876992,2022-02-15-12:06:21,10.1.1.5,29,0.040,0.040,0.040,0.000,0.000,0.000
1644926781752348928,2022-02-15-12:06:21,10.1.1.5,38,0.030,0.030,0.030,0.000,0.000,0.000
1644926781788188928,2022-02-15-12:06:21,10.1.1.5,28,0.020,0.020,0.020,0.000,0.000,0.000
1644926781849086976,2022-02-15-12:06:21,10.1.1.5,37,0.010,0.010,0.010,0.000,0.000,0.000
1644926781887676928,2022-02-15-12:06:21,10.1.1.5,26,0.000,0.000,0.000,0.000,0.000,0.000
1644926781946665984,2022-02-15-12:06:21,10.1.1.5,36,-0.010,-0.010,-0.010,0.000,0.000,0.000
1644926781987062016,2022-02-15-12:06:21,10.1.1.5,25,-0.020,-0.020,-0.020,0.000,0.000,0.000
1644926782046982912,2022-02-15-12:06:22,10.1.1.5,35,-0.030,-0.030,-0.030,0.000,0.000,0.000
1644926782088033024,2022-02-15-12:06:22,10.1.1.5,21,-0.040,-0.040,-0.040,0.000,0.000,0.000
1644926782145999872,2022-02-15-12:06:22,10.1.1.5,30,-0.050,-0.050,-0.050,0.000,0.000,0.000
1644926782187506944,2022-02-15-12:06:22,10.1.1.5,20,-0.060,-0.060,-0.060,0.000,0.000,0.000
1644926782246417152,2022-02-15-12:06:22,10.1.1.5,29,-0.070,-0.070,-0.070,0.000,0.000,0.000
1644926782309268992,2022-02-15-12:06:22,10.1.1.5,38,-0.080,-0.080,-0.080,0.000,0.000,0.000
1644926782346909952,2022-02-15-12:06:22,10.1.1.5,27,-0.090,-0.090,-0.090,0.000,0.000,0.000
1644926782406474240,2022-02-15-12:06:22,10.1.1.5,36,-0.100,-0.100,-0.100,0.000,0.000,0.000
1644926782448581888,2022-02-15-12:06:22,10.1.1.5,26,-0.090,-0.090,-0.090,0.000,0.000,0.000
1644926782507704064,2022-02-15-12:06:22,10.1.1.5,35,-0.080,-0.080,-0.080,0.000,0.000,0.000
1644926782547395072,2022-02-15-12:06:22,10.1.1.5,25,-0.070,-0.070,-0.070,0.000,0.000,0.000
1644926782607214080,2022-02-15-12:06:22,10.1.1.5,34,-0.060,-0.060,-0.060,0.000,0.000,0.000
1644926782646836992,2022-02-15-12:06:22,10.1.1.5,21,-0.050,-0.050,-0.050,0.000,0.000,0.000
1644926782706299904,2022-02-15-12:06:22,10.1.1.5,30,-0.040,-0.040,-0.040,0.000,0.000,0.000
1644926782746071040,2022-02-15-12:06:22,10.1.1.5,19,-0.030,-0.030,-0.030,0.000,0.000,0.000
1644926782807704832,2022-02-15-12:06:22,10.1.1.5,28,-0.020,-0.020,-0.020,0.000,0.000,0.000
1644926782866440960,2022-02-15-12:06:22,10.1.1.5,36,-0.010,-0.010,-0.010,0.000,0.000,0.000
1644926782907036928,2022-02-15-12:06:22,10.1.1.5,23,0.000,0.000,0.000,0.000,0.000,0.000
1644926782966867968,2022-02-15-12:06:22,10.1.1.5,32,0.010,0.010,0.010,0.000,0.000,0.000
1644926783008258048,2022-02-15-12:06:23,10.1.1.5,21,0.020,0.020,0.020,0.000,0.000,0.000
1644926783067760896,2022-02-15-12:06:23,10.1.1.5,30,0.030,0.030,0.030,0.000,0.000,0.000
1644926783111366912,2022-02-15-12:06:23,10.1.1.5,22,0.040,0.040,0.040,0.000,0.000,0.000
1644926783166939904,2022-02-15-12:06:23,10.1.1.5,29,0.050,0.050,0.050,0.000,0.000,0.000
1644926783228288000,2022-02-15-12:06:23,10.1.1.5,39,0.060,0.060,0.060,0.000,0.000,0.000
1644926783267430144,2022-02-15-12:06:23,10.1.1.5,28,0.070,0.070,0.070,0.000,0.000,0.000
1644926783328244992,2022-02-15-12:06:23,10.1.1.5,37,0.080,0.080,0.080,0.000,0.000,0.000
1644926783368099840,2022-02-15-12:06:23,10.1.1.5,27,0.090,0.090,0.090,0.000,0.000,0.000
1644926783428652032,2022-02-15-12:06:23,10.1.1.5,36,0.100,0.100,0.100,0.000,0.000,0.000
1644926783467015936,2022-02-15-12:06:23,10.1.1.5,26,0.090,0.090,0.090,0.000,0.000,0.000
1644926783528745984,2022-02-15-12:06:23,10.1.1.5,35,0.080,0.080,0.080,0.000,0.000,0.000
1644926783566994944,2022-02-15-12:06:23,10.1.1.5,23,0.070,0.070,0.070,0.000,0.000,0.000
1644926783629606912,2022-02-15-12:06:23,10.1.1.5,32,0.060,0.060,0.060,0.000,0.000,0.000
1644926783665932800,2022-02-15-12:06:23,10.1.1.5,21,0.050,0.050,0.050,0.000,0.000,0.000
1644926783727448832,2022-02-15-12:06:23,10.1.1.5,31,0.040,0.040,0.040,0.000,0.000,0.000
1644926783766587904,2022-02-15-12:06:23,10.1.1.5,20,0.030,0.030,0.030,0.000,0.000,0.000
1644926783826237952,2022-02-15-12:06:23,10.1.1.5,29,0.020,0.020,0.020,0.000,0.000,0.000
1644926783887011072,2022-02-15-12:06:23,10.1.1.5,38,0.010,0.010,0.010,0.000,0.000,0.000
1644926783928344064,2022-02-15-12:06:23,10.1.1.5,28,0.000,0.000,0.000,0.000,0.000,0.000
1644926783986974976,2022-02-15-12:06:23,10.1.1.5,36,-0.010,-0.010,-0.010,0.000,0.000,0.000
1644926784026714112,2022-02-15-12:06:24,10.1.1.5,25,-0.020,-0.020,-0.020,0.000,0.000,0.000
1644926784091063040,2022-02-15-12:06:24,10.1.1.5,34,-0.030,-0.030,-0.030,0.000,0.000,0.000
1644926784127814912,2022-02-15-12:06:24,10.1.1.5,24,-0.040,-0.040,-0.040,0.000,0.000,0.000
1644926784186227968,2022-02-15-12:06:24,10.1.1.5,33,-0.050,-0.050,-0.050,0.000,0.000,0.000
1644926784227543040,2022-02-15-12:06:24,10.1.1.5,22,-0.060,-0.060,-0.060,0.000,0.000,0.000
1644926784287542016,2022-02-15-12:06:24,10.1.1.5,31,-0.070,-0.070,-0.070,0.000,0.000,0.000
1644926784328139008,2022-02-15-12:06:24,10.1.1.5,21,-0.080,-0.080,-0.080,0.000,0.000,0.000
1644926784386360832,2022-02-15-12:06:24,10.1.1.5,30,-0.090,-0.090,-0.090,0.000,0.000,0.000
1644926784427556864,2022-02-15-12:06:24,10.1.1.5,19,-0.100,-0.100,-0.100,0.000,0.000,0.000
1644926784487447040,2022-02-15-12:06:24,10.1.1.5,29,-0.090,-0.090,-0.090,0.000,0.000,0.000
1644926784548100096,2022-02-15-12:06:24,10.1.1.5,38,-0.080,-0.080,-0.080,0.000,0.000,0.000
1644926784586714880,2022-02-15-12:06:24,10.1.1.5,27,-0.070,-0.070,-0.070,0.000,0.000,0.000
1644926784647175936,2022-02-15-12:06:24,10.1.1.5,36,-0.060,-0.060,-0.060,0.000,0.000,0.000
1644926784686682880,2022-02-15-12:06:24,10.1.1.5,26,-0.050,-0.050,-0.050,0.000,0.000,0.000
1644926784746903040,2022-02-15-12:06:24,10.1.1.5,34,-0.040,-0.040,-0.040,0.000,0.000,0.000
1644926784787539968,2022-02-15-12:06:24,10.1.1.5,24,-0.030,-0.030,-0.030,0.000,0.000,0.000
1644926784847665152,2022-02-15-12:06:24,10.1.1.5,33,-0.020,-0.020,-0.020,0.000,0.000,0.000
1644926784886849024,2022-02-15-12:06:24,10.1.1.5,22,-0.010,-0.010,-0.010,0.000,0.000,0.000
1644926784947011840,2022-02-15-12:06:24,10.1.1.5,33,0.000,0.000,0.000,0.000,0.000,0.000
1644926784987542016,2022-02-15-12:06:24,10.1.1.5,21,0.010,0.010,0.010,0.000,0.000,0.000
1644926785047230976,2022-02-15-12:06:25,10.1.1.5,31,0.020,0.020,0.020,0.000,0.000,0.000
1644926785087044864,2022-02-15-12:06:25,10.1.1.5,20,0.030,0.030,0.030,0.000,0.000,0.000
1644926785147120896,2022-02-15-12:06:25,10.1.1.5,29,0.040,0.040,0.040,0.000,0.000,0.000
1644926785207691008,2022-02-15-12:06:25,10.1.1.5,38,0.050,0.050,0.050,0.000,0.000,0.000
1644926785246781184,2022-02-15-12:06:25,10.1.1.5,28,0.060,0.060,0.060,0.000,0.000,0.000
1644926785305413888,2022-02-15-12:06:25,10.1.1.5,37,0.070,0.070,0.070,0.000,0.000,0.000
1644926785347181056,2022-02-15-12:06:25,10.1.1.5,27,0.080,0.080,0.080,0.000,0.000,0.000
1644926785406738944,2022-02-15-12:06:25,10.1.1.5,36,0.090,0.090,0.090,0.000,0.000,0.000
1644926785447922944,2022-02-15-12:06:25,10.1.1.5,25,0.100,0.100,0.100,0.000,0.000,0.000
1644926785507385088,2022-02-15-12:06:25,10.1.1.5,34,0.090,0.090,0.090,0.000,0.000,0.000
1644926785546142976,2022-02-15-12:06:25,10.1.1.5,23,0.080,0.080,0.080,0.000,0.000,0.000
1644926785606315008,2022-02-15-12:06:25,10.1.1.5,33,0.070,0.070,0.070,0.000,0.000,0.000
1644926785646466048,2022-02-15-12:06:25,10.1.1.5,22,0.060,0.060,0.060,0.000,0.000,0.000
1644926785706192128,2022-02-15-12:06:25,10.1.1.5,32,0.050,0.050,0.050,0.000,0.000,0.000
1644926785746829056,2022-02-15-12:06:25,10.1.1.5,21,0.040,0.040,0.040,0.000,0.000,0.000
1644926785806766080,2022-02-15-12:06:25,10.1.1.5,31,0.030,0.030,0.030,0.000,0.000,0.000
1644926785847373056,2022-02-15-12:06:25,10.1.1.5,20,0.020,0.020,0.020,0.000,0.000,0.000
1644926785909075968,2022-02-15-12:06:25,10.1.1.5,31,0.010,0.010,0.010,0.000,0.000,0.000
1644926785966803968,2022-02-15-12:06:25,10.1.1.5,39,0.000,0.000,0.000,0.000,0.000,0.000
1644926786008006144,2022-02-15-12:06:26,10.1.1.5,28,-0.010,-0.010,-0.010,0.000,0.000,0.000
1644926786067089920,2022-02-15-12:06:26,10.1.1.5,37,-0.020,-0.020,-0.020,0.000,0.000,0.000
1644926786107040000,2022-02-15-12:06:26,10.1.1.5,26,-0.030,-0.030,-0.030,0.000,0.000,0.000
1644926786166925824,2022-02-15-12:06:26,10.1.1.5,36,-0.040,-0.040,-0.040,0.000,0.000,0.000
1644926786205341184,2022-02-15-12:06:26,10.1.1.5,25,-0.050,-0.050,-0.050,0.000,0.000,0.000
1644926786265990144,2022-02-15-12:06:26,10.1.1.5,34,-0.060,-0.060,-0.060,0.000,0.000,0.000
1644926786307260928,2022-02-15-12:06:26,10.1.1.5,24,-0.070,-0.070,-0.070,0.000,0.000,0.000
1644926786368118016,2022-02-15-12:06:26,10.1.1.5,32,-0.080,-0.080,-0.080,0.000,0.000,0.000
1644926786406374912,2022-02-15-12:06:26,10.1.1.5,21,-0.090,-0.090,-0.090,0.000,0.000,0.000
1644926786468339968,2022-02-15-12:06:26,10.1.1.5,31,-0.100,-0.100,-0.100,0.000,0.000,0.000
1644926786508062976,2022-02-15-12:06:26,10.1.1.5,20,-0.090,-0.090,-0.090,0.000,0.000,0.000
1644926786568272128,2022-02-15-12:06:26,10.1.1.5,29,-0.080,-0.080,-0.080,0.000,0.000,0.000
1644926786606427904,2022-02-15-12:06:26,10.1.1.5,19,-0.071,-0.071,-0.071,0.000,0.000,0.000
1644926786667054848,2022-02-15-12:06:26,10.1.1.5,28,-0.060,-0.060,-0.060,0.000,0.000,0.000
1644926786726896128,2022-02-15-12:06:26,10.1.1.5,37,-0.050,-0.050,-0.050,0.000,0.000,0.000
1644926786767791872,2022-02-15-12:06:26,10.1.1.5,26,-0.040,-0.040,-0.040,0.000,0.000,0.000
1644926786826714112,2022-02-15-12:06:26,10.1.1.5,36,-0.030,-0.030,-0.030,0.000,0.000,0.000
1644926786867759872,2022-02-15-12:06:26,10.1.1.5,26,-0.020,-0.020,-0.020,0.000,0.000,0.000
1644926786928697088,2022-02-15-12:06:26,10.1.1.5,35,-0.010,-0.010,-0.010,0.000,0.000,0.000
1644926786966494976,2022-02-15-12:06:26,10.1.1.5,24,0.000,0.000,0.000,0.000,0.000,0.000
1644926787026752000,2022-02-15-12:06:27,10.1.1.5,33,0.010,0.010,0.010,0.000,0.000,0.000
1644926787066473984,2022-02-15-12:06:27,10.1.1.5,22,0.020,0.020,0.020,0.000,0.000,0.000
1644926787126700032,2022-02-15-12:06:27,10.1.1.5,31,0.030,0.030,0.030,0.000,0.000,0.000
1644926787165596928,2022-02-15-12:06:27,10.1.1.5,20,0.040,0.040,0.040,0.000,0.000,0.000
1644926787227904000,2022-02-15-12:06:27,10.1.1.5,30,0.050,0.050,0.050,0.000,0.000,0.000
1644926787287580928,2022-02-15-12:06:27,10.1.1.5,37,0.060,0.060,0.060,0.000,0.000,0.000
1644926787326407936,2022-02-15-12:06:27,10.1.1.5,26,0.070,0.070,0.070,0.000,0.000,0.000
1644926787387079936,2022-02-15-12:06:27,10.1.1.5,33,0.080,0.080,0.080,0.000,0.000,0.000
1644926787427867904,2022-02-15-12:06:27,10.1.1.5,23,0.090,0.090,0.090,0.000,0.000,0.000
1644926787487404032,2022-02-15-12:06:27,10.1.1.5,32,0.100,0.100,0.100,0.000,0.000,0.000
1644926787547962880,2022-02-15-12:06:27,10.1.1.5,38,0.090,0.090,0.090,0.000,0.000,0.000
1644926787588585984,2022-02-15-12:06:27,10.1.1.5,27,0.080,0.080,0.080,0.000,0.000,0.000
1644926787646286848,2022-02-15-12:06:27,10.1.1.5,36,0.070,0.070,0.070,0.000,0.000,0.000
1644926787688275200,2022-02-15-12:06:27,10.1.1.5,23,0.060,0.060,0.060,0.000,0.000,0.000
1644926787746599936,2022-02-15-12:06:27,10.1.1.5,33,0.050,0.050,0.050,0.000,0.000,0.000
1644926787787460096,2022-02-15-12:06:27,10.1.1.5,22,0.040,0.040,0.040,0.000,0.000,0.000
1644926787847289088,2022-02-15-12:06:27,10.1.1.5,30,0.030,0.030,0.030,0.000,0.000,0.000
1644926787886642944,2022-02-15-12:06:27,10.1.1.5,19,0.020,0.020,0.020,0.000,0.000,0.000
1644926787947266048,2022-02-15-12:06:27,10.1.1.5,29,0.010,0.010,0.010,0.000,0.000,0.000
1644926788007744000,2022-02-15-12:06:28,10.1.1.5,38,0.000,0.000,0.000,0.000,0.000,0.000
1644926788047827968,2022-02-15-12:06:28,10.1.1.5,26,-0.010,-0.010,-0.010,0.000,0.000,0.000
1644926788107019776,2022-02-15-12:06:28,10.1.1.5,35,-0.020,-0.020,-0.020,0.000,0.000,0.000
1644926788147735040,2022-02-15-12:06:28,10.1.1.5,23,-0.030,-0.030,-0.030,0.000,0.000,0.000
1644926788207858944,2022-02-15-12:06:28,10.1.1.5,29,-0.040,-0.040,-0.040,0.000,0.000,0.000
1644926788247770112,2022-02-15-12:06:28,10.1.1.5,19,-0.049,-0.049,-0.049,0.000,0.000,0.000
1644926788307154944,2022-02-15-12:06:28,10.1.1.5,29,-0.060,-0.060,-0.060,0.000,0.000,0.000
1644926788367736064,2022-02-15-12:06:28,10.1.1.5,38,-0.070,-0.070,-0.070,0.000,0.000,0.000
1644926788407727104,2022-02-15-12:06:28,10.1.1.5,27,-0.080,-0.080,-0.080,0.000,0.000,0.000
1644926788469737984,2022-02-15-12:06:28,10.1.1.5,37,-0.090,-0.090,-0.090,0.000,0.000,0.000
1644926788507163136,2022-02-15-12:06:28,10.1.1.5,27,-0.100,-0.100,-0.100,0.000,0.000,0.000
1644926788567898112,2022-02-15-12:06:28,10.1.1.5,36,-0.090,-0.090,-0.090,0.000,0.000,0.000
1644926788606790144,2022-02-15-12:06:28,10.1.1.5,26,-0.080,-0.080,-0.080,0.000,0.000,0.000
1644926788666976000,2022-02-15-12:06:28,10.1.1.5,35,-0.070,-0.070,-0.070,0.000,0.000,0.000
1644926788707872000,2022-02-15-12:06:28,10.1.1.5,24,-0.060,-0.060,-0.060,0.000,0.000,0.000
1644926788767493888,2022-02-15-12:06:28,10.1.1.5,34,-0.050,-0.050,-0.050,0.000,0.000,0.000
1644926788806664960,2022-02-15-12:06:28,10.1.1.5,23,-0.040,-0.040,-0.040,0.000,0.000,0.000
1644926788868486912,2022-02-15-12:06:28,10.1.1.5,33,-0.030,-0.030,-0.030,0.000,0.000,0.000
1644926788906915072,2022-02-15-12:06:28,10.1.1.5,23,-0.020,-0.020,-0.020,0.000,0.000,0.000
1644926788966866944,2022-02-15-12:06:28,10.1.1.5,32,-0.010,-0.010,-0.010,0.000,0.000,0.000
1644926789007961088,2022-02-15-12:06:29,10.1.1.5,22,0.000,0.000,0.000,0.000,0.000,0.000
1644926789068173056,2022-02-15-12:06:29,10.1.1.5,32,0.010,0.010,0.010,0.000,0.000,0.000
1644926789106236928,2022-02-15-12:06:29,10.1.1.5,21,0.020,0.020,0.020,0.000,0.000,0.000
1644926789167293952,2022-02-15-12:06:29,10.1.1.5,31,0.030,0.030,0.030,0.000,0.000,0.000
1644926789208125952,2022-02-15-12:06:29,10.1.1.5,21,0.040,0.040,0.040,0.000,0.000,0.000
1644926789267628800,2022-02-15-12:06:29,10.1.1.5,30,0.050,0.050,0.050,0.000,0.000,0.000
1644926789328984064,2022-02-15-12:06:29,10.1.1.5,38,0.060,0.060,0.060,0.000,0.000,0.000
1644926789366717952,2022-02-15-12:06:29,10.1.1.5,27,0.070,0.070,0.070,0.000,0.000,0.000
1644926789428293888,2022-02-15-12:06:29,10.1.1.5,36,0.080,0.080,0.080,0.000,0.000,0.000
1644926789467780096,2022-02-15-12:06:29,10.1.1.5,26,0.090,0.090,0.090,0.000,0.000,0.000
1644926789527543040,2022-02-15-12:06:29,10.1.1.5,35,0.100,0.100,0.100,0.000,0.000,0.000
1644926789567874048,2022-02-15-12:06:29,10.1.1.5,25,0.090,0.090,0.090,0.000,0.000,0.000
1644926789626041856,2022-02-15-12:06:29,10.1.1.5,34,0.080,0.080,0.080,0.000,0.000,0.000
1644926789666939136,2022-02-15-12:06:29,10.1.1.5,24,0.070,0.070,0.070,0.000,0.000,0.000
1644926789727330816,2022-02-15-12:06:29,10.1.1.5,33,0.060,0.060,0.060,0.000,0.000,0.000
1644926789767867136,2022-02-15-12:06:29,10.1.1.5,23,0.050,0.050,0.050,0.000,0.000,0.000
1644926789827204864,2022-02-15-12:06:29,10.1.1.5,32,0.040,0.040,0.040,0.000,0.000,0.000
1644926789866849792,2022-02-15-12:06:29,10.1.1.5,22,0.030,0.030,0.030,0.000,0.000,0.000
1644926789927407104,2022-02-15-12:06:29,10.1.1.5,31,0.020,0.020,0.020,0.000,0.000,0.000
1644926789967211008,2022-02-15-12:06:29,10.1.1.5,20,0.010,0.010,0.010,0.000,0.000,0.000
1644926790027278848,2022-02-15-12:06:30,10.1.1.5,30,0.000,0.000,0.000,0.000,0.000,0.000
1644926790068290048,2022-02-15-12:06:30,10.1.1.5,19,-0.009,-0.009,-0.009,0.000,0.000,0.000
1644926790126967808,2022-02-15-12:06:30,10.1.1.5,28,-0.020,-0.020,-0.020,0.000,0.000,0.000
1644926790186928896,2022-02-15-12:06:30,10.1.1.5,37,-0.030,-0.030,-0.030,0.000,0.000,0.000
1644926790227139072,2022-02-15-12:06:30,10.1.1.5,27,-0.040,-0.040,-0.040,0.000,0.000,0.000
1644926790286874112,2022-02-15-12:06:30,10.1.1.5,36,-0.050,-0.050,-0.050,0.000,0.000,0.000
1644926790327760896,2022-02-15-12:06:30,10.1.1.5,25,-0.060,-0.060,-0.060,0.000,0.000,0.000
1644926790387805952,2022-02-15-12:06:30,10.1.1.5,35,-0.070,-0.070,-0.070,0.000,0.000,0.000
1644926790427766016,2022-02-15-12:06:30,10.1.1.5,24,-0.080,-0.080,-0.080,0.000,0.000,0.000
1644926790487421952,2022-02-15-12:06:30,10.1.1.5,34,-0.090,-0.090,-0.090,0.000,0.000,0.000
1644926790527215872,2022-02-15-12:06:30,10.1.1.5,23,-0.100,-0.100,-0.100,0.000,0.000,0.000
1644926790587368960,2022-02-15-12:06:30,10.1.1.5,32,-0.090,-0.090,-0.090,0.000,0.000,0.000
1644926790628184064,2022-02-15-12:06:30,10.1.1.5,21,-0.080,-0.080,-0.080,0.000,0.000,0.000
1644926790687796992,2022-02-15-12:06:30,10.1.1.5,31,-0.070,-0.070,-0.070,0.000,0.000,0.000
