FedericoMungari/DigitalTwin_service/01_WiredScenario/Output/Output_script/script_rosapi_2_output_robots12_freq0_1.txt
timestamp,date,node,latency,joint_1,joint_2,joint_3,joint_4,joint_5,joint_6
1641234781172672000,2022-01-03-18:33:01,10.1.1.2,182,-0.010,-0.010,-0.010,0.000,0.000,0.000
1641234781372070144,2022-01-03-18:33:01,10.1.1.2,180,-0.020,-0.020,-0.020,0.000,0.000,0.000
1641234781572081920,2022-01-03-18:33:01,10.1.1.2,179,-0.030,-0.030,-0.030,0.000,0.000,0.000
1641234781772152832,2022-01-03-18:33:01,10.1.1.2,175,-0.040,-0.040,-0.040,0.000,0.000,0.000
1641234781971892224,2022-01-03-18:33:01,10.1.1.2,174,-0.050,-0.050,-0.050,0.000,0.000,0.000
1641234782171150080,2022-01-03-18:33:02,10.1.1.2,172,-0.060,-0.060,-0.060,0.000,0.000,0.000
1641234782370754048,2022-01-03-18:33:02,10.1.1.2,171,-0.070,-0.070,-0.070,0.000,0.000,0.000
1641234782570470144,2022-01-03-18:33:02,10.1.1.2,170,-0.080,-0.080,-0.080,0.000,0.000,0.000
1641234782770809856,2022-01-03-18:33:02,10.1.1.2,170,-0.090,-0.090,-0.090,0.000,0.000,0.000
1641234782969452032,2022-01-03-18:33:02,10.1.1.2,166,-0.100,-0.100,-0.100,0.000,0.000,0.000
1641234783169266944,2022-01-03-18:33:03,10.1.1.2,165,-0.110,-0.110,-0.110,0.000,0.000,0.000
1641234783368994048,2022-01-03-18:33:03,10.1.1.2,165,-0.120,-0.120,-0.120,0.000,0.000,0.000
1641234783568450816,2022-01-03-18:33:03,10.1.1.2,162,-0.130,-0.130,-0.130,0.000,0.000,0.000
1641234783768464128,2022-01-03-18:33:03,10.1.1.2,161,-0.140,-0.140,-0.140,0.000,0.000,0.000
1641234783968403200,2022-01-03-18:33:03,10.1.1.2,161,-0.150,-0.150,-0.150,0.000,0.000,0.000
1641234784168910080,2022-01-03-18:33:04,10.1.1.2,161,-0.160,-0.160,-0.160,0.000,0.000,0.000
1641234784367698944,2022-01-03-18:33:04,10.1.1.2,159,-0.170,-0.170,-0.170,0.000,0.000,0.000
1641234784589740032,2022-01-03-18:33:04,10.1.1.2,178,-0.180,-0.180,-0.180,0.000,0.000,0.000
1641234784786573056,2022-01-03-18:33:04,10.1.1.2,174,-0.190,-0.190,-0.190,0.000,0.000,0.000
1641234784986216192,2022-01-03-18:33:04,10.1.1.2,173,-0.200,-0.200,-0.200,0.000,0.000,0.000
1641234785186316032,2022-01-03-18:33:05,10.1.1.2,172,-0.210,-0.210,-0.210,0.000,0.000,0.000
1641234785385356800,2022-01-03-18:33:05,10.1.1.2,170,-0.220,-0.220,-0.220,0.000,0.000,0.000
1641234785586349056,2022-01-03-18:33:05,10.1.1.2,170,-0.230,-0.230,-0.230,0.000,0.000,0.000
1641234785785499136,2022-01-03-18:33:05,10.1.1.2,169,-0.240,-0.240,-0.240,0.000,0.000,0.000
1641234785984903936,2022-01-03-18:33:05,10.1.1.2,167,-0.250,-0.250,-0.250,0.000,0.000,0.000
1641234786185112064,2022-01-03-18:33:06,10.1.1.2,167,-0.260,-0.260,-0.260,0.000,0.000,0.000
1641234786384414976,2022-01-03-18:33:06,10.1.1.2,164,-0.270,-0.270,-0.270,0.000,0.000,0.000
1641234786584207104,2022-01-03-18:33:06,10.1.1.2,163,-0.280,-0.280,-0.280,0.000,0.000,0.000
1641234786783714048,2022-01-03-18:33:06,10.1.1.2,162,-0.290,-0.290,-0.290,0.000,0.000,0.000
1641234786983630848,2022-01-03-18:33:06,10.1.1.2,161,-0.300,-0.300,-0.300,0.000,0.000,0.000
1641234787183156992,2022-01-03-18:33:07,10.1.1.2,161,-0.310,-0.310,-0.310,0.000,0.000,0.000
1641234787382443008,2022-01-03-18:33:07,10.1.1.2,159,-0.320,-0.320,-0.320,0.000,0.000,0.000
1641234787582432000,2022-01-03-18:33:07,10.1.1.2,158,-0.330,-0.330,-0.330,0.000,0.000,0.000
1641234787785408000,2022-01-03-18:33:07,10.1.1.2,160,-0.340,-0.340,-0.340,0.000,0.000,0.000
1641234787982145024,2022-01-03-18:33:07,10.1.1.2,156,-0.350,-0.350,-0.350,0.000,0.000,0.000
1641234788185961984,2022-01-03-18:33:08,10.1.1.2,159,-0.360,-0.360,-0.360,0.000,0.000,0.000
1641234788385012992,2022-01-03-18:33:08,10.1.1.2,158,-0.370,-0.370,-0.370,0.000,0.000,0.000
1641234788586875904,2022-01-03-18:33:08,10.1.1.2,158,-0.380,-0.380,-0.380,0.000,0.000,0.000
1641234788807940096,2022-01-03-18:33:08,10.1.1.2,178,-0.390,-0.390,-0.390,0.000,0.000,0.000
1641234789009373952,2022-01-03-18:33:09,10.1.1.2,178,-0.400,-0.400,-0.400,0.000,0.000,0.000
1641234789209948160,2022-01-03-18:33:09,10.1.1.2,178,-0.410,-0.410,-0.410,0.000,0.000,0.000
1641234789412098816,2022-01-03-18:33:09,10.1.1.2,179,-0.420,-0.420,-0.420,0.000,0.000,0.000
1641234789612495872,2022-01-03-18:33:09,10.1.1.2,179,-0.430,-0.430,-0.430,0.000,0.000,0.000
1641234789813677056,2022-01-03-18:33:09,10.1.1.2,178,-0.440,-0.440,-0.440,0.000,0.000,0.000
1641234790015389952,2022-01-03-18:33:10,10.1.1.2,180,-0.450,-0.450,-0.450,0.000,0.000,0.000
1641234790217086976,2022-01-03-18:33:10,10.1.1.2,181,-0.460,-0.460,-0.460,0.000,0.000,0.000
1641234790417451008,2022-01-03-18:33:10,10.1.1.2,181,-0.470,-0.470,-0.470,0.000,0.000,0.000
1641234790618269952,2022-01-03-18:33:10,10.1.1.2,181,-0.480,-0.480,-0.480,0.000,0.000,0.000
1641234790819145984,2022-01-03-18:33:10,10.1.1.2,181,-0.490,-0.490,-0.490,0.000,0.000,0.000
1641234791020457984,2022-01-03-18:33:11,10.1.1.2,182,-0.480,-0.480,-0.480,0.000,0.000,0.000
1641234791221499904,2022-01-03-18:33:11,10.1.1.2,183,-0.470,-0.470,-0.470,0.000,0.000,0.000
1641234791424815872,2022-01-03-18:33:11,10.1.1.2,185,-0.460,-0.460,-0.460,0.000,0.000,0.000
1641234791623341056,2022-01-03-18:33:11,10.1.1.2,184,-0.450,-0.450,-0.450,0.000,0.000,0.000
1641234791824173056,2022-01-03-18:33:11,10.1.1.2,184,-0.440,-0.440,-0.440,0.000,0.000,0.000
1641234792025083904,2022-01-03-18:33:12,10.1.1.2,184,-0.430,-0.430,-0.430,0.000,0.000,0.000
1641234792225734912,2022-01-03-18:33:12,10.1.1.2,184,-0.420,-0.420,-0.420,0.000,0.000,0.000
1641234792426237184,2022-01-03-18:33:12,10.1.1.2,184,-0.410,-0.410,-0.410,0.000,0.000,0.000
1641234792627766016,2022-01-03-18:33:12,10.1.1.2,184,-0.400,-0.400,-0.400,0.000,0.000,0.000
1641234792829210112,2022-01-03-18:33:12,10.1.1.2,185,-0.390,-0.390,-0.390,0.000,0.000,0.000
1641234793028704000,2022-01-03-18:33:13,10.1.1.2,184,-0.380,-0.380,-0.380,0.000,0.000,0.000
1641234793229059072,2022-01-03-18:33:13,10.1.1.2,184,-0.370,-0.370,-0.370,0.000,0.000,0.000
1641234793431065088,2022-01-03-18:33:13,10.1.1.2,184,-0.360,-0.360,-0.360,0.000,0.000,0.000
1641234793630022144,2022-01-03-18:33:13,10.1.1.2,184,-0.350,-0.350,-0.350,0.000,0.000,0.000
1641234793831699968,2022-01-03-18:33:13,10.1.1.2,185,-0.340,-0.340,-0.340,0.000,0.000,0.000
1641234794032124928,2022-01-03-18:33:14,10.1.1.2,184,-0.330,-0.330,-0.330,0.000,0.000,0.000
1641234794232267008,2022-01-03-18:33:14,10.1.1.2,183,-0.320,-0.320,-0.320,0.000,0.000,0.000
1641234794431763968,2022-01-03-18:33:14,10.1.1.2,183,-0.310,-0.310,-0.310,0.000,0.000,0.000
1641234795637068032,2022-01-03-18:33:15,10.1.1.2,185,-0.250,-0.250,-0.250,0.000,0.000,0.000
1641234796857124096,2022-01-03-18:33:16,10.1.1.2,199,-0.190,-0.190,-0.190,0.000,0.000,0.000
1641234797257219072,2022-01-03-18:33:17,10.1.1.2,196,-0.170,-0.170,-0.170,0.000,0.000,0.000
1641234797459235072,2022-01-03-18:33:17,10.1.1.2,197,-0.160,-0.160,-0.160,0.000,0.000,0.000
1641234797658170880,2022-01-03-18:33:17,10.1.1.2,195,-0.150,-0.150,-0.150,0.000,0.000,0.000
1641234797858510848,2022-01-03-18:33:17,10.1.1.2,195,-0.140,-0.140,-0.140,0.000,0.000,0.000
1641234798058759936,2022-01-03-18:33:18,10.1.1.2,193,-0.130,-0.130,-0.130,0.000,0.000,0.000
1641234798261110016,2022-01-03-18:33:18,10.1.1.2,192,-0.120,-0.120,-0.120,0.000,0.000,0.000
1641234798461422080,2022-01-03-18:33:18,10.1.1.2,195,-0.110,-0.110,-0.110,0.000,0.000,0.000
1641234798658222848,2022-01-03-18:33:18,10.1.1.2,191,-0.100,-0.100,-0.100,0.000,0.000,0.000
1641234798861117952,2022-01-03-18:33:18,10.1.1.2,192,-0.090,-0.090,-0.090,0.000,0.000,0.000
1641234799678942976,2022-01-03-18:33:19,10.1.1.2,200,-0.050,-0.050,-0.050,0.000,0.000,0.000
1641234799878894080,2022-01-03-18:33:19,10.1.1.2,198,-0.040,-0.040,-0.040,0.000,0.000,0.000
1641234800078913024,2022-01-03-18:33:20,10.1.1.2,197,-0.030,-0.030,-0.030,0.000,0.000,0.000
1641234800279300096,2022-01-03-18:33:20,10.1.1.2,197,-0.020,-0.020,-0.020,0.000,0.000,0.000
1641234800478957824,2022-01-03-18:33:20,10.1.1.2,196,-0.010,-0.010,-0.010,0.000,0.000,0.000
1641234800678711808,2022-01-03-18:33:20,10.1.1.2,195,0.000,0.000,0.000,0.000,0.000,0.000
1641234800878750208,2022-01-03-18:33:20,10.1.1.2,195,-0.010,-0.010,-0.010,0.000,0.000,0.000
1641234801079086080,2022-01-03-18:33:21,10.1.1.2,194,-0.020,-0.020,-0.020,0.000,0.000,0.000
1641234801279348992,2022-01-03-18:33:21,10.1.1.2,194,-0.030,-0.030,-0.030,0.000,0.000,0.000
1641234801479758080,2022-01-03-18:33:21,10.1.1.2,193,-0.040,-0.040,-0.040,0.000,0.000,0.000
1641234802498914048,2022-01-03-18:33:22,10.1.1.2,200,-0.090,-0.090,-0.090,0.000,0.000,0.000
1641234802698982912,2022-01-03-18:33:22,10.1.1.2,199,-0.100,-0.100,-0.100,0.000,0.000,0.000
1641234802898770176,2022-01-03-18:33:22,10.1.1.2,198,-0.110,-0.110,-0.110,0.000,0.000,0.000
1641234803098547968,2022-01-03-18:33:23,10.1.1.2,197,-0.120,-0.120,-0.120,0.000,0.000,0.000
1641234803298486016,2022-01-03-18:33:23,10.1.1.2,196,-0.130,-0.130,-0.130,0.000,0.000,0.000
1641234803502381056,2022-01-03-18:33:23,10.1.1.2,199,-0.140,-0.140,-0.140,0.000,0.000,0.000
1641234803698132992,2022-01-03-18:33:23,10.1.1.2,194,-0.150,-0.150,-0.150,0.000,0.000,0.000
1641234803898368000,2022-01-03-18:33:23,10.1.1.2,193,-0.160,-0.160,-0.160,0.000,0.000,0.000
1641234804098252032,2022-01-03-18:33:24,10.1.1.2,192,-0.170,-0.170,-0.170,0.000,0.000,0.000
1641234804301028864,2022-01-03-18:33:24,10.1.1.2,194,-0.180,-0.180,-0.180,0.000,0.000,0.000
1641234804497734144,2022-01-03-18:33:24,10.1.1.2,190,-0.190,-0.190,-0.190,0.000,0.000,0.000
1641234804701519872,2022-01-03-18:33:24,10.1.1.2,193,-0.200,-0.200,-0.200,0.000,0.000,0.000
1641234804900480000,2022-01-03-18:33:24,10.1.1.2,191,-0.210,-0.210,-0.210,0.000,0.000,0.000
1641234805097142016,2022-01-03-18:33:25,10.1.1.2,188,-0.220,-0.220,-0.220,0.000,0.000,0.000
1641234806519761920,2022-01-03-18:33:26,10.1.1.2,202,-0.290,-0.290,-0.290,0.000,0.000,0.000
1641234806721344000,2022-01-03-18:33:26,10.1.1.2,197,-0.300,-0.300,-0.300,0.000,0.000,0.000
1641234806916802048,2022-01-03-18:33:26,10.1.1.2,191,-0.310,-0.310,-0.310,0.000,0.000,0.000
1641234807116611072,2022-01-03-18:33:27,10.1.1.2,190,-0.320,-0.320,-0.320,0.000,0.000,0.000
1641234807315859968,2022-01-03-18:33:27,10.1.1.2,188,-0.330,-0.330,-0.330,0.000,0.000,0.000
1641234807517095168,2022-01-03-18:33:27,10.1.1.2,189,-0.340,-0.340,-0.340,0.000,0.000,0.000
1641234808534668800,2022-01-03-18:33:28,10.1.1.2,198,-0.390,-0.390,-0.390,0.000,0.000,0.000
1641234808737935104,2022-01-03-18:33:28,10.1.1.2,199,-0.400,-0.400,-0.400,0.000,0.000,0.000
1641234808934043904,2022-01-03-18:33:28,10.1.1.2,194,-0.410,-0.410,-0.410,0.000,0.000,0.000
1641234809135117056,2022-01-03-18:33:29,10.1.1.2,194,-0.420,-0.420,-0.420,0.000,0.000,0.000
1641234809333459968,2022-01-03-18:33:29,10.1.1.2,192,-0.430,-0.430,-0.430,0.000,0.000,0.000
1641234809533288960,2022-01-03-18:33:29,10.1.1.2,191,-0.440,-0.440,-0.440,0.000,0.000,0.000
1641234809733589760,2022-01-03-18:33:29,10.1.1.2,186,-0.450,-0.450,-0.450,0.000,0.000,0.000
1641234809932989952,2022-01-03-18:33:29,10.1.1.2,184,-0.460,-0.460,-0.460,0.000,0.000,0.000
1641234810353404928,2022-01-03-18:33:30,10.1.1.2,196,-0.480,-0.480,-0.480,0.000,0.000,0.000
1641234810554112000,2022-01-03-18:33:30,10.1.1.2,197,-0.490,-0.490,-0.490,0.000,0.000,0.000
1641234810755136000,2022-01-03-18:33:30,10.1.1.2,198,-0.480,-0.480,-0.480,0.000,0.000,0.000
1641234810951968000,2022-01-03-18:33:30,10.1.1.2,193,-0.470,-0.470,-0.470,0.000,0.000,0.000
1641234811152615936,2022-01-03-18:33:31,10.1.1.2,190,-0.460,-0.460,-0.460,0.000,0.000,0.000
1641234811552321024,2022-01-03-18:33:31,10.1.1.2,186,-0.440,-0.440,-0.440,0.000,0.000,0.000
1641234811761720064,2022-01-03-18:33:31,10.1.1.2,195,-0.430,-0.430,-0.430,0.000,0.000,0.000
1641234811953996032,2022-01-03-18:33:31,10.1.1.2,186,-0.420,-0.420,-0.420,0.000,0.000,0.000
1641234812152561920,2022-01-03-18:33:32,10.1.1.2,184,-0.410,-0.410,-0.410,0.000,0.000,0.000
1641234812354237184,2022-01-03-18:33:32,10.1.1.2,185,-0.400,-0.400,-0.400,0.000,0.000,0.000
1641234812773534976,2022-01-03-18:33:32,10.1.1.2,198,-0.380,-0.380,-0.380,0.000,0.000,0.000
1641234812971566080,2022-01-03-18:33:32,10.1.1.2,197,-0.370,-0.370,-0.370,0.000,0.000,0.000
1641234813168483072,2022-01-03-18:33:33,10.1.1.2,192,-0.360,-0.360,-0.360,0.000,0.000,0.000
1641234813368286976,2022-01-03-18:33:33,10.1.1.2,191,-0.350,-0.350,-0.350,0.000,0.000,0.000
1641234813569722880,2022-01-03-18:33:33,10.1.1.2,192,-0.340,-0.340,-0.340,0.000,0.000,0.000
1641234813771033088,2022-01-03-18:33:33,10.1.1.2,193,-0.330,-0.330,-0.330,0.000,0.000,0.000
1641234813967369984,2022-01-03-18:33:33,10.1.1.2,188,-0.320,-0.320,-0.320,0.000,0.000,0.000
1641234814170462976,2022-01-03-18:33:34,10.1.1.2,190,-0.310,-0.310,-0.310,0.000,0.000,0.000
1641234814366952960,2022-01-03-18:33:34,10.1.1.2,186,-0.300,-0.300,-0.300,0.000,0.000,0.000
1641234814566227968,2022-01-03-18:33:34,10.1.1.2,184,-0.290,-0.290,-0.290,0.000,0.000,0.000
1641234814765947136,2022-01-03-18:33:34,10.1.1.2,184,-0.280,-0.280,-0.280,0.000,0.000,0.000
1641234814966630912,2022-01-03-18:33:34,10.1.1.2,184,-0.270,-0.270,-0.270,0.000,0.000,0.000
1641234815169033984,2022-01-03-18:33:35,10.1.1.2,186,-0.260,-0.260,-0.260,0.000,0.000,0.000
1641234815366263040,2022-01-03-18:33:35,10.1.1.2,182,-0.250,-0.250,-0.250,0.000,0.000,0.000
1641234815566057984,2022-01-03-18:33:35,10.1.1.2,181,-0.240,-0.240,-0.240,0.000,0.000,0.000
1641234815765145088,2022-01-03-18:33:35,10.1.1.2,180,-0.230,-0.230,-0.230,0.000,0.000,0.000
1641234815966348032,2022-01-03-18:33:35,10.1.1.2,181,-0.220,-0.220,-0.220,0.000,0.000,0.000
1641234816166646016,2022-01-03-18:33:36,10.1.1.2,180,-0.210,-0.210,-0.210,0.000,0.000,0.000
1641234816363836928,2022-01-03-18:33:36,10.1.1.2,176,-0.200,-0.200,-0.200,0.000,0.000,0.000
1641234816565089024,2022-01-03-18:33:36,10.1.1.2,177,-0.190,-0.190,-0.190,0.000,0.000,0.000
1641234816765302784,2022-01-03-18:33:36,10.1.1.2,176,-0.180,-0.180,-0.180,0.000,0.000,0.000
1641234816983345920,2022-01-03-18:33:36,10.1.1.2,194,-0.170,-0.170,-0.170,0.000,0.000,0.000
1641234817184849920,2022-01-03-18:33:37,10.1.1.2,195,-0.160,-0.160,-0.160,0.000,0.000,0.000
1641234817385999872,2022-01-03-18:33:37,10.1.1.2,195,-0.150,-0.150,-0.150,0.000,0.000,0.000
1641234817584242944,2022-01-03-18:33:37,10.1.1.2,192,-0.140,-0.140,-0.140,0.000,0.000,0.000
1641234817782208000,2022-01-03-18:33:37,10.1.1.2,189,-0.130,-0.130,-0.130,0.000,0.000,0.000
1641234817982853888,2022-01-03-18:33:37,10.1.1.2,189,-0.120,-0.120,-0.120,0.000,0.000,0.000
1641234818182492928,2022-01-03-18:33:38,10.1.1.2,188,-0.110,-0.110,-0.110,0.000,0.000,0.000
1641234818383802880,2022-01-03-18:33:38,10.1.1.2,188,-0.100,-0.100,-0.100,0.000,0.000,0.000
1641234818581598976,2022-01-03-18:33:38,10.1.1.2,186,-0.090,-0.090,-0.090,0.000,0.000,0.000
1641234818781146880,2022-01-03-18:33:38,10.1.1.2,179,-0.080,-0.080,-0.080,0.000,0.000,0.000
1641234818993029120,2022-01-03-18:33:38,10.1.1.2,189,-0.070,-0.070,-0.070,0.000,0.000,0.000
1641234819179491072,2022-01-03-18:33:39,10.1.1.2,174,-0.060,-0.060,-0.060,0.000,0.000,0.000
1641234819381477120,2022-01-03-18:33:39,10.1.1.2,175,-0.050,-0.050,-0.050,0.000,0.000,0.000
1641234819600646144,2022-01-03-18:33:39,10.1.1.2,189,-0.040,-0.040,-0.040,0.000,0.000,0.000
1641234819801792000,2022-01-03-18:33:39,10.1.1.2,189,-0.030,-0.030,-0.030,0.000,0.000,0.000
1641234819998168832,2022-01-03-18:33:39,10.1.1.2,185,-0.020,-0.020,-0.020,0.000,0.000,0.000
1641234820238962944,2022-01-03-18:33:40,10.1.1.2,186,-0.010,-0.010,-0.010,0.000,0.000,0.000
1641234820442084096,2022-01-03-18:33:40,10.1.1.2,187,0.000,0.000,0.000,0.000,0.000,0.000
1641234820838983168,2022-01-03-18:33:40,10.1.1.2,181,-0.020,-0.020,-0.020,0.000,0.000,0.000
1641234821038808064,2022-01-03-18:33:41,10.1.1.2,180,-0.030,-0.030,-0.030,0.000,0.000,0.000
1641234821240758784,2022-01-03-18:33:41,10.1.1.2,174,-0.040,-0.040,-0.040,0.000,0.000,0.000
1641234821456623104,2022-01-03-18:33:41,10.1.1.2,186,-0.050,-0.050,-0.050,0.000,0.000,0.000
1641234821661523200,2022-01-03-18:33:41,10.1.1.2,190,-0.060,-0.060,-0.060,0.000,0.000,0.000
1641234821860076800,2022-01-03-18:33:41,10.1.1.2,188,-0.070,-0.070,-0.070,0.000,0.000,0.000
1641234822064984064,2022-01-03-18:33:42,10.1.1.2,190,-0.080,-0.080,-0.080,0.000,0.000,0.000
1641234822261976064,2022-01-03-18:33:42,10.1.1.2,180,-0.090,-0.090,-0.090,0.000,0.000,0.000
1641234822460208896,2022-01-03-18:33:42,10.1.1.2,179,-0.100,-0.100,-0.100,0.000,0.000,0.000
1641234822660649984,2022-01-03-18:33:42,10.1.1.2,178,-0.110,-0.110,-0.110,0.000,0.000,0.000
1641234822859698176,2022-01-03-18:33:42,10.1.1.2,177,-0.120,-0.120,-0.120,0.000,0.000,0.000
1641234823060477952,2022-01-03-18:33:43,10.1.1.2,177,-0.130,-0.130,-0.130,0.000,0.000,0.000
1641234823260508928,2022-01-03-18:33:43,10.1.1.2,177,-0.140,-0.140,-0.140,0.000,0.000,0.000
1641234823460922880,2022-01-03-18:33:43,10.1.1.2,177,-0.150,-0.150,-0.150,0.000,0.000,0.000
1641234823673084928,2022-01-03-18:33:43,10.1.1.2,188,-0.160,-0.160,-0.160,0.000,0.000,0.000
1641234823874831872,2022-01-03-18:33:43,10.1.1.2,189,-0.170,-0.170,-0.170,0.000,0.000,0.000
1641234824061543936,2022-01-03-18:33:44,10.1.1.2,175,-0.180,-0.180,-0.180,0.000,0.000,0.000
1641234824260314880,2022-01-03-18:33:44,10.1.1.2,173,-0.190,-0.190,-0.190,0.000,0.000,0.000
1641234824460627200,2022-01-03-18:33:44,10.1.1.2,173,-0.200,-0.200,-0.200,0.000,0.000,0.000
1641234824660895232,2022-01-03-18:33:44,10.1.1.2,172,-0.210,-0.210,-0.210,0.000,0.000,0.000
1641234824880523008,2022-01-03-18:33:44,10.1.1.2,191,-0.220,-0.220,-0.220,0.000,0.000,0.000
1641234825081635072,2022-01-03-18:33:45,10.1.1.2,191,-0.230,-0.230,-0.230,0.000,0.000,0.000
1641234825280731904,2022-01-03-18:33:45,10.1.1.2,190,-0.240,-0.240,-0.240,0.000,0.000,0.000
1641234825481492992,2022-01-03-18:33:45,10.1.1.2,189,-0.250,-0.250,-0.250,0.000,0.000,0.000
1641234825680375040,2022-01-03-18:33:45,10.1.1.2,188,-0.260,-0.260,-0.260,0.000,0.000,0.000
1641234825881170944,2022-01-03-18:33:45,10.1.1.2,186,-0.270,-0.270,-0.270,0.000,0.000,0.000
1641234826080609024,2022-01-03-18:33:46,10.1.1.2,186,-0.280,-0.280,-0.280,0.000,0.000,0.000
1641234826285444864,2022-01-03-18:33:46,10.1.1.2,189,-0.290,-0.290,-0.290,0.000,0.000,0.000
1641234826484312064,2022-01-03-18:33:46,10.1.1.2,175,-0.300,-0.300,-0.300,0.000,0.000,0.000
1641234826681332992,2022-01-03-18:33:46,10.1.1.2,172,-0.310,-0.310,-0.310,0.000,0.000,0.000
1641234827105640960,2022-01-03-18:33:47,10.1.1.2,189,-0.330,-0.330,-0.330,0.000,0.000,0.000
1641234827304284928,2022-01-03-18:33:47,10.1.1.2,184,-0.340,-0.340,-0.340,0.000,0.000,0.000
1641234827501890816,2022-01-03-18:33:47,10.1.1.2,179,-0.350,-0.350,-0.350,0.000,0.000,0.000
1641234827701822976,2022-01-03-18:33:47,10.1.1.2,177,-0.360,-0.360,-0.360,0.000,0.000,0.000
1641234827900759040,2022-01-03-18:33:47,10.1.1.2,175,-0.370,-0.370,-0.370,0.000,0.000,0.000
1641234828100701952,2022-01-03-18:33:48,10.1.1.2,174,-0.380,-0.380,-0.380,0.000,0.000,0.000
1641234828301636864,2022-01-03-18:33:48,10.1.1.2,174,-0.390,-0.390,-0.390,0.000,0.000,0.000
1641234828526012928,2022-01-03-18:33:48,10.1.1.2,195,-0.400,-0.400,-0.400,0.000,0.000,0.000
1641234828721071104,2022-01-03-18:33:48,10.1.1.2,189,-0.410,-0.410,-0.410,0.000,0.000,0.000
1641234828930569984,2022-01-03-18:33:48,10.1.1.2,193,-0.420,-0.420,-0.420,0.000,0.000,0.000
1641234829123856128,2022-01-03-18:33:49,10.1.1.2,184,-0.430,-0.430,-0.430,0.000,0.000,0.000
1641234829323991040,2022-01-03-18:33:49,10.1.1.2,185,-0.440,-0.440,-0.440,0.000,0.000,0.000
1641234829520431104,2022-01-03-18:33:49,10.1.1.2,181,-0.450,-0.450,-0.450,0.000,0.000,0.000
1641234829725132032,2022-01-03-18:33:49,10.1.1.2,185,-0.460,-0.460,-0.460,0.000,0.000,0.000
1641234829921096960,2022-01-03-18:33:49,10.1.1.2,179,-0.470,-0.470,-0.470,0.000,0.000,0.000
1641234830121020160,2022-01-03-18:33:50,10.1.1.2,178,-0.480,-0.480,-0.480,0.000,0.000,0.000
1641234830322968832,2022-01-03-18:33:50,10.1.1.2,179,-0.490,-0.490,-0.490,0.000,0.000,0.000
1641234830520541952,2022-01-03-18:33:50,10.1.1.2,175,-0.480,-0.480,-0.480,0.000,0.000,0.000
1641234830720155904,2022-01-03-18:33:50,10.1.1.2,174,-0.470,-0.470,-0.470,0.000,0.000,0.000
1641234830920402944,2022-01-03-18:33:50,10.1.1.2,174,-0.460,-0.460,-0.460,0.000,0.000,0.000
1641234831120270848,2022-01-03-18:33:51,10.1.1.2,173,-0.450,-0.450,-0.450,0.000,0.000,0.000
1641234831322796032,2022-01-03-18:33:51,10.1.1.2,175,-0.440,-0.440,-0.440,0.000,0.000,0.000
1641234831519431168,2022-01-03-18:33:51,10.1.1.2,171,-0.430,-0.430,-0.430,0.000,0.000,0.000
1641234831721286912,2022-01-03-18:33:51,10.1.1.2,172,-0.420,-0.420,-0.420,0.000,0.000,0.000
1641234831939817984,2022-01-03-18:33:51,10.1.1.2,188,-0.410,-0.410,-0.410,0.000,0.000,0.000
1641234832140237056,2022-01-03-18:33:52,10.1.1.2,182,-0.400,-0.400,-0.400,0.000,0.000,0.000
1641234832339011840,2022-01-03-18:33:52,10.1.1.2,181,-0.390,-0.390,-0.390,0.000,0.000,0.000
1641234832538971904,2022-01-03-18:33:52,10.1.1.2,181,-0.380,-0.380,-0.380,0.000,0.000,0.000
1641234832739078912,2022-01-03-18:33:52,10.1.1.2,180,-0.370,-0.370,-0.370,0.000,0.000,0.000
1641234832939030016,2022-01-03-18:33:52,10.1.1.2,180,-0.360,-0.360,-0.360,0.000,0.000,0.000
1641234833138631936,2022-01-03-18:33:53,10.1.1.2,178,-0.350,-0.350,-0.350,0.000,0.000,0.000
1641234833346265088,2022-01-03-18:33:53,10.1.1.2,185,-0.340,-0.340,-0.340,0.000,0.000,0.000
1641234833539782912,2022-01-03-18:33:53,10.1.1.2,176,-0.330,-0.330,-0.330,0.000,0.000,0.000
1641234833739187968,2022-01-03-18:33:53,10.1.1.2,175,-0.320,-0.320,-0.320,0.000,0.000,0.000
1641234833941266944,2022-01-03-18:33:53,10.1.1.2,176,-0.310,-0.310,-0.310,0.000,0.000,0.000
1641234834137812992,2022-01-03-18:33:54,10.1.1.2,172,-0.300,-0.300,-0.300,0.000,0.000,0.000
1641234834338007808,2022-01-03-18:33:54,10.1.1.2,172,-0.290,-0.290,-0.290,0.000,0.000,0.000
1641234834538258176,2022-01-03-18:33:54,10.1.1.2,171,-0.280,-0.280,-0.280,0.000,0.000,0.000
1641234834742152960,2022-01-03-18:33:54,10.1.1.2,171,-0.270,-0.270,-0.270,0.000,0.000,0.000
1641234834937355008,2022-01-03-18:33:54,10.1.1.2,168,-0.260,-0.260,-0.260,0.000,0.000,0.000
1641234835159194112,2022-01-03-18:33:55,10.1.1.2,189,-0.250,-0.250,-0.250,0.000,0.000,0.000
1641234835357545984,2022-01-03-18:33:55,10.1.1.2,184,-0.240,-0.240,-0.240,0.000,0.000,0.000
1641234835574528000,2022-01-03-18:33:55,10.1.1.2,199,-0.230,-0.230,-0.230,0.000,0.000,0.000
1641234835760186880,2022-01-03-18:33:55,10.1.1.2,182,-0.220,-0.220,-0.220,0.000,0.000,0.000
1641234835957389056,2022-01-03-18:33:55,10.1.1.2,181,-0.210,-0.210,-0.210,0.000,0.000,0.000
1641234836157249024,2022-01-03-18:33:56,10.1.1.2,180,-0.200,-0.200,-0.200,0.000,0.000,0.000
1641234836360038144,2022-01-03-18:33:56,10.1.1.2,182,-0.190,-0.190,-0.190,0.000,0.000,0.000
1641234836558309120,2022-01-03-18:33:56,10.1.1.2,180,-0.180,-0.180,-0.180,0.000,0.000,0.000
1641234836755950080,2022-01-03-18:33:56,10.1.1.2,175,-0.170,-0.170,-0.170,0.000,0.000,0.000
1641234836955831040,2022-01-03-18:33:56,10.1.1.2,174,-0.160,-0.160,-0.160,0.000,0.000,0.000
1641234837156583168,2022-01-03-18:33:57,10.1.1.2,174,-0.150,-0.150,-0.150,0.000,0.000,0.000
1641234837355924992,2022-01-03-18:33:57,10.1.1.2,173,-0.140,-0.140,-0.140,0.000,0.000,0.000
1641234837555718912,2022-01-03-18:33:57,10.1.1.2,172,-0.130,-0.130,-0.130,0.000,0.000,0.000
1641234837759049984,2022-01-03-18:33:57,10.1.1.2,174,-0.120,-0.120,-0.120,0.000,0.000,0.000
1641234837974976000,2022-01-03-18:33:57,10.1.1.2,184,-0.110,-0.110,-0.110,0.000,0.000,0.000
1641234838174891008,2022-01-03-18:33:58,10.1.1.2,178,-0.100,-0.100,-0.100,0.000,0.000,0.000
1641234838374729984,2022-01-03-18:33:58,10.1.1.2,177,-0.090,-0.090,-0.090,0.000,0.000,0.000
1641234838578327040,2022-01-03-18:33:58,10.1.1.2,180,-0.080,-0.080,-0.080,0.000,0.000,0.000
1641234838774094080,2022-01-03-18:33:58,10.1.1.2,174,-0.070,-0.070,-0.070,0.000,0.000,0.000
1641234838974138112,2022-01-03-18:33:58,10.1.1.2,173,-0.060,-0.060,-0.060,0.000,0.000,0.000
1641234839174096128,2022-01-03-18:33:59,10.1.1.2,171,-0.050,-0.050,-0.050,0.000,0.000,0.000
1641234839373826048,2022-01-03-18:33:59,10.1.1.2,170,-0.040,-0.040,-0.040,0.000,0.000,0.000
1641234839573352192,2022-01-03-18:33:59,10.1.1.2,169,-0.030,-0.030,-0.030,0.000,0.000,0.000
1641234839773719040,2022-01-03-18:33:59,10.1.1.2,169,-0.020,-0.020,-0.020,0.000,0.000,0.000
1641234839973364992,2022-01-03-18:33:59,10.1.1.2,167,-0.010,-0.010,-0.010,0.000,0.000,0.000
1641234840197686784,2022-01-03-18:34:00,10.1.1.2,188,0.000,0.000,0.000,0.000,0.000,0.000
1641234840392508928,2022-01-03-18:34:00,10.1.1.2,180,-0.010,-0.010,-0.010,0.000,0.000,0.000
1641234840592880896,2022-01-03-18:34:00,10.1.1.2,177,-0.020,-0.020,-0.020,0.000,0.000,0.000
1641234840792325120,2022-01-03-18:34:00,10.1.1.2,175,-0.030,-0.030,-0.030,0.000,0.000,0.000
1641234840993249792,2022-01-03-18:34:00,10.1.1.2,174,-0.040,-0.040,-0.040,0.000,0.000,0.000
1641234841195591936,2022-01-03-18:34:01,10.1.1.2,176,-0.050,-0.050,-0.050,0.000,0.000,0.000
1641234841391779072,2022-01-03-18:34:01,10.1.1.2,167,-0.060,-0.060,-0.060,0.000,0.000,0.000
1641234841592001024,2022-01-03-18:34:01,10.1.1.2,165,-0.070,-0.070,-0.070,0.000,0.000,0.000
1641234841811832832,2022-01-03-18:34:01,10.1.1.2,182,-0.080,-0.080,-0.080,0.000,0.000,0.000
1641234842011527168,2022-01-03-18:34:02,10.1.1.2,181,-0.090,-0.090,-0.090,0.000,0.000,0.000
1641234842211312128,2022-01-03-18:34:02,10.1.1.2,181,-0.100,-0.100,-0.100,0.000,0.000,0.000
1641234842410629120,2022-01-03-18:34:02,10.1.1.2,179,-0.110,-0.110,-0.110,0.000,0.000,0.000
1641234842613105920,2022-01-03-18:34:02,10.1.1.2,179,-0.120,-0.120,-0.120,0.000,0.000,0.000
1641234842810179072,2022-01-03-18:34:02,10.1.1.2,176,-0.130,-0.130,-0.130,0.000,0.000,0.000
1641234843010662912,2022-01-03-18:34:03,10.1.1.2,171,-0.140,-0.140,-0.140,0.000,0.000,0.000
1641234843210396160,2022-01-03-18:34:03,10.1.1.2,167,-0.150,-0.150,-0.150,0.000,0.000,0.000
1641234843413674240,2022-01-03-18:34:03,10.1.1.2,170,-0.160,-0.160,-0.160,0.000,0.000,0.000
1641234843613751808,2022-01-03-18:34:03,10.1.1.2,167,-0.170,-0.170,-0.170,0.000,0.000,0.000
1641234843831880192,2022-01-03-18:34:03,10.1.1.2,175,-0.180,-0.180,-0.180,0.000,0.000,0.000
1641234844029201920,2022-01-03-18:34:04,10.1.1.2,171,-0.190,-0.190,-0.190,0.000,0.000,0.000
1641234844239451904,2022-01-03-18:34:04,10.1.1.2,181,-0.200,-0.200,-0.200,0.000,0.000,0.000
1641234844428876032,2022-01-03-18:34:04,10.1.1.2,170,-0.210,-0.210,-0.210,0.000,0.000,0.000
1641234844641133056,2022-01-03-18:34:04,10.1.1.2,180,-0.220,-0.220,-0.220,0.000,0.000,0.000
1641234844832969984,2022-01-03-18:34:04,10.1.1.2,166,-0.230,-0.230,-0.230,0.000,0.000,0.000
1641234845028232960,2022-01-03-18:34:05,10.1.1.2,165,-0.240,-0.240,-0.240,0.000,0.000,0.000
1641234845233479936,2022-01-03-18:34:05,10.1.1.2,169,-0.250,-0.250,-0.250,0.000,0.000,0.000
1641234845427584000,2022-01-03-18:34:05,10.1.1.2,161,-0.260,-0.260,-0.260,0.000,0.000,0.000
1641234845627862016,2022-01-03-18:34:05,10.1.1.2,160,-0.270,-0.270,-0.270,0.000,0.000,0.000
1641234845827524864,2022-01-03-18:34:05,10.1.1.2,158,-0.280,-0.280,-0.280,0.000,0.000,0.000
1641234846088818944,2022-01-03-18:34:06,10.1.1.2,158,-0.290,-0.290,-0.290,0.000,0.000,0.000
1641234846313586944,2022-01-03-18:34:06,10.1.1.2,184,-0.300,-0.300,-0.300,0.000,0.000,0.000
1641234846513075200,2022-01-03-18:34:06,10.1.1.2,183,-0.310,-0.310,-0.310,0.000,0.000,0.000
1641234846706638080,2022-01-03-18:34:06,10.1.1.2,176,-0.320,-0.320,-0.320,0.000,0.000,0.000
1641234846906067968,2022-01-03-18:34:06,10.1.1.2,171,-0.330,-0.330,-0.330,0.000,0.000,0.000
1641234847105467136,2022-01-03-18:34:07,10.1.1.2,170,-0.340,-0.340,-0.340,0.000,0.000,0.000
1641234847310138880,2022-01-03-18:34:07,10.1.1.2,173,-0.350,-0.350,-0.350,0.000,0.000,0.000
1641234847504699904,2022-01-03-18:34:07,10.1.1.2,166,-0.360,-0.360,-0.360,0.000,0.000,0.000
1641234847704876800,2022-01-03-18:34:07,10.1.1.2,165,-0.370,-0.370,-0.370,0.000,0.000,0.000
1641234847904294912,2022-01-03-18:34:07,10.1.1.2,163,-0.380,-0.380,-0.380,0.000,0.000,0.000
1641234848323857920,2022-01-03-18:34:08,10.1.1.2,161,-0.400,-0.400,-0.400,0.000,0.000,0.000
1641234848524274944,2022-01-03-18:34:08,10.1.1.2,161,-0.410,-0.410,-0.410,0.000,0.000,0.000
1641234848733208832,2022-01-03-18:34:08,10.1.1.2,168,-0.420,-0.420,-0.420,0.000,0.000,0.000
1641234848928807936,2022-01-03-18:34:08,10.1.1.2,160,-0.430,-0.430,-0.430,0.000,0.000,0.000
1641234849142710016,2022-01-03-18:34:09,10.1.1.2,173,-0.440,-0.440,-0.440,0.000,0.000,0.000
1641234849342583040,2022-01-03-18:34:09,10.1.1.2,172,-0.450,-0.450,-0.450,0.000,0.000,0.000
1641234849541934848,2022-01-03-18:34:09,10.1.1.2,170,-0.460,-0.460,-0.460,0.000,0.000,0.000
1641234849741213184,2022-01-03-18:34:09,10.1.1.2,168,-0.470,-0.470,-0.470,0.000,0.000,0.000
1641234849941787904,2022-01-03-18:34:09,10.1.1.2,168,-0.480,-0.480,-0.480,0.000,0.000,0.000
1641234850141752832,2022-01-03-18:34:10,10.1.1.2,167,-0.490,-0.490,-0.490,0.000,0.000,0.000
1641234850344943104,2022-01-03-18:34:10,10.1.1.2,170,-0.480,-0.480,-0.480,0.000,0.000,0.000
1641234850594264064,2022-01-03-18:34:10,10.1.1.2,188,-0.470,-0.470,-0.470,0.000,0.000,0.000
1641234850763299840,2022-01-03-18:34:10,10.1.1.2,168,-0.460,-0.460,-0.460,0.000,0.000,0.000
1641234850960174080,2022-01-03-18:34:10,10.1.1.2,164,-0.450,-0.450,-0.450,0.000,0.000,0.000
1641234851175898112,2022-01-03-18:34:11,10.1.1.2,179,-0.440,-0.440,-0.440,0.000,0.000,0.000
1641234851372831232,2022-01-03-18:34:11,10.1.1.2,175,-0.430,-0.430,-0.430,0.000,0.000,0.000
1641234851559723008,2022-01-03-18:34:11,10.1.1.2,159,-0.420,-0.420,-0.420,0.000,0.000,0.000
1641234851765096960,2022-01-03-18:34:11,10.1.1.2,162,-0.410,-0.410,-0.410,0.000,0.000,0.000
1641234851963705088,2022-01-03-18:34:11,10.1.1.2,160,-0.400,-0.400,-0.400,0.000,0.000,0.000
1641234852157951232,2022-01-03-18:34:12,10.1.1.2,154,-0.390,-0.390,-0.390,0.000,0.000,0.000
1641234852360311040,2022-01-03-18:34:12,10.1.1.2,156,-0.380,-0.380,-0.380,0.000,0.000,0.000
1641234852557598976,2022-01-03-18:34:12,10.1.1.2,152,-0.370,-0.370,-0.370,0.000,0.000,0.000
1641234852761772032,2022-01-03-18:34:12,10.1.1.2,156,-0.360,-0.360,-0.360,0.000,0.000,0.000
1641234852957289984,2022-01-03-18:34:12,10.1.1.2,149,-0.350,-0.350,-0.350,0.000,0.000,0.000
1641234853157128960,2022-01-03-18:34:13,10.1.1.2,148,-0.340,-0.340,-0.340,0.000,0.000,0.000
1641234853356511232,2022-01-03-18:34:13,10.1.1.2,147,-0.330,-0.330,-0.330,0.000,0.000,0.000
1641234853576591872,2022-01-03-18:34:13,10.1.1.2,167,-0.320,-0.320,-0.320,0.000,0.000,0.000
1641234853776509952,2022-01-03-18:34:13,10.1.1.2,166,-0.310,-0.310,-0.310,0.000,0.000,0.000
1641234853979342848,2022-01-03-18:34:13,10.1.1.2,168,-0.300,-0.300,-0.300,0.000,0.000,0.000
1641234854176914944,2022-01-03-18:34:14,10.1.1.2,165,-0.290,-0.290,-0.290,0.000,0.000,0.000
1641234854377089024,2022-01-03-18:34:14,10.1.1.2,163,-0.280,-0.280,-0.280,0.000,0.000,0.000
1641234854577910016,2022-01-03-18:34:14,10.1.1.2,165,-0.270,-0.270,-0.270,0.000,0.000,0.000
1641234854775100928,2022-01-03-18:34:14,10.1.1.2,161,-0.260,-0.260,-0.260,0.000,0.000,0.000
1641234854974364928,2022-01-03-18:34:14,10.1.1.2,160,-0.250,-0.250,-0.250,0.000,0.000,0.000
1641234855147847936,2022-01-03-18:34:15,10.1.1.2,-87,-0.250,-0.250,-0.250,0.000,0.000,0.000
1641234855453753088,2022-01-03-18:34:15,10.1.1.2,152,-0.230,-0.230,-0.230,0.000,0.000,0.000
1641234855654858240,2022-01-03-18:34:15,10.1.1.2,151,-0.220,-0.220,-0.220,0.000,0.000,0.000
1641234855853449216,2022-01-03-18:34:15,10.1.1.2,149,-0.210,-0.210,-0.210,0.000,0.000,0.000
1641234856053880832,2022-01-03-18:34:16,10.1.1.2,147,-0.200,-0.200,-0.200,0.000,0.000,0.000
1641234856263555072,2022-01-03-18:34:16,10.1.1.2,156,-0.190,-0.190,-0.190,0.000,0.000,0.000
1641234856472471040,2022-01-03-18:34:16,10.1.1.2,161,-0.180,-0.180,-0.180,0.000,0.000,0.000
1641234856672033024,2022-01-03-18:34:16,10.1.1.2,154,-0.170,-0.170,-0.170,0.000,0.000,0.000
1641234856872966144,2022-01-03-18:34:16,10.1.1.2,153,-0.160,-0.160,-0.160,0.000,0.000,0.000
1641234857074928896,2022-01-03-18:34:17,10.1.1.2,151,-0.150,-0.150,-0.150,0.000,0.000,0.000
1641234857272186112,2022-01-03-18:34:17,10.1.1.2,150,-0.140,-0.140,-0.140,0.000,0.000,0.000
1641234857487297024,2022-01-03-18:34:17,10.1.1.2,162,-0.130,-0.130,-0.130,0.000,0.000,0.000
1641234857670878976,2022-01-03-18:34:17,10.1.1.2,144,-0.120,-0.120,-0.120,0.000,0.000,0.000
1641234857872785920,2022-01-03-18:34:17,10.1.1.2,145,-0.110,-0.110,-0.110,0.000,0.000,0.000
1641234858077091072,2022-01-03-18:34:18,10.1.1.2,149,-0.100,-0.100,-0.100,0.000,0.000,0.000
1641234858269558784,2022-01-03-18:34:18,10.1.1.2,140,-0.090,-0.090,-0.090,0.000,0.000,0.000
1641234858491940864,2022-01-03-18:34:18,10.1.1.2,162,-0.080,-0.080,-0.080,0.000,0.000,0.000
1641234858689100032,2022-01-03-18:34:18,10.1.1.2,158,-0.070,-0.070,-0.070,0.000,0.000,0.000
1641234858888845056,2022-01-03-18:34:18,10.1.1.2,157,-0.060,-0.060,-0.060,0.000,0.000,0.000
1641234859090382080,2022-01-03-18:34:19,10.1.1.2,157,-0.050,-0.050,-0.050,0.000,0.000,0.000
1641234859287961856,2022-01-03-18:34:19,10.1.1.2,154,-0.040,-0.040,-0.040,0.000,0.000,0.000
1641234859487299840,2022-01-03-18:34:19,10.1.1.2,153,-0.030,-0.030,-0.030,0.000,0.000,0.000
1641234859710203904,2022-01-03-18:34:19,10.1.1.2,175,-0.020,-0.020,-0.020,0.000,0.000,0.000
1641234859887012096,2022-01-03-18:34:19,10.1.1.2,150,-0.010,-0.010,-0.010,0.000,0.000,0.000
1641234860087281920,2022-01-03-18:34:20,10.1.1.2,150,0.000,0.000,0.000,0.000,0.000,0.000
1641234860289947136,2022-01-03-18:34:20,10.1.1.2,151,-0.010,-0.010,-0.010,0.000,0.000,0.000
1641234860486145024,2022-01-03-18:34:20,10.1.1.2,145,-0.020,-0.020,-0.020,0.000,0.000,0.000
1641234860686616064,2022-01-03-18:34:20,10.1.1.2,143,-0.030,-0.030,-0.030,0.000,0.000,0.000
1641234860945022208,2022-01-03-18:34:20,10.1.1.2,139,-0.040,-0.040,-0.040,0.000,0.000,0.000
1641234861145217024,2022-01-03-18:34:21,10.1.1.2,138,-0.050,-0.050,-0.050,0.000,0.000,0.000
1641234861344832000,2022-01-03-18:34:21,10.1.1.2,137,-0.060,-0.060,-0.060,0.000,0.000,0.000
1641234861544328960,2022-01-03-18:34:21,10.1.1.2,136,-0.070,-0.070,-0.070,0.000,0.000,0.000
1641234861745431040,2022-01-03-18:34:21,10.1.1.2,137,-0.080,-0.080,-0.080,0.000,0.000,0.000
1641234861981907968,2022-01-03-18:34:21,10.1.1.2,172,-0.090,-0.090,-0.090,0.000,0.000,0.000
1641234862163881984,2022-01-03-18:34:22,10.1.1.2,153,-0.100,-0.100,-0.100,0.000,0.000,0.000
1641234862379500032,2022-01-03-18:34:22,10.1.1.2,169,-0.110,-0.110,-0.110,0.000,0.000,0.000
1641234862581830144,2022-01-03-18:34:22,10.1.1.2,168,-0.120,-0.120,-0.120,0.000,0.000,0.000
1641234862762765824,2022-01-03-18:34:22,10.1.1.2,148,-0.130,-0.130,-0.130,0.000,0.000,0.000
1641234862967180032,2022-01-03-18:34:22,10.1.1.2,151,-0.140,-0.140,-0.140,0.000,0.000,0.000
1641234863182073088,2022-01-03-18:34:23,10.1.1.2,152,-0.150,-0.150,-0.150,0.000,0.000,0.000
1641234863422264064,2022-01-03-18:34:23,10.1.1.2,138,-0.160,-0.160,-0.160,0.000,0.000,0.000
1641234863627165952,2022-01-03-18:34:23,10.1.1.2,142,-0.170,-0.170,-0.170,0.000,0.000,0.000
1641234863820979968,2022-01-03-18:34:23,10.1.1.2,135,-0.180,-0.180,-0.180,0.000,0.000,0.000
1641234864022400000,2022-01-03-18:34:24,10.1.1.2,135,-0.190,-0.190,-0.190,0.000,0.000,0.000
1641234864300091904,2022-01-03-18:34:24,10.1.1.2,132,-0.200,-0.200,-0.200,0.000,0.000,0.000
1641234864520687104,2022-01-03-18:34:24,10.1.1.2,151,-0.210,-0.210,-0.210,0.000,0.000,0.000
1641234864750333184,2022-01-03-18:34:24,10.1.1.2,179,-0.220,-0.220,-0.220,0.000,0.000,0.000
1641234864961846016,2022-01-03-18:34:24,10.1.1.2,147,-0.230,-0.230,-0.230,0.000,0.000,0.000
1641234865159424000,2022-01-03-18:34:25,10.1.1.2,144,-0.240,-0.240,-0.240,0.000,0.000,0.000
1641234865395712000,2022-01-03-18:34:25,10.1.1.2,180,-0.250,-0.250,-0.250,0.000,0.000,0.000
1641234865558859008,2022-01-03-18:34:25,10.1.1.2,143,-0.260,-0.260,-0.260,0.000,0.000,0.000
1641234865757982976,2022-01-03-18:34:25,10.1.1.2,141,-0.270,-0.270,-0.270,0.000,0.000,0.000
1641234865957773824,2022-01-03-18:34:25,10.1.1.2,140,-0.280,-0.280,-0.280,0.000,0.000,0.000
1641234866018658048,2022-01-03-18:34:26,10.1.1.2,-1,-0.280,-0.280,-0.280,0.000,0.000,0.000
1641234866357175040,2022-01-03-18:34:26,10.1.1.2,135,-0.300,-0.300,-0.300,0.000,0.000,0.000
1641234866557251840,2022-01-03-18:34:26,10.1.1.2,130,-0.310,-0.310,-0.310,0.000,0.000,0.000
1641234866756953088,2022-01-03-18:34:26,10.1.1.2,129,-0.320,-0.320,-0.320,0.000,0.000,0.000
1641234866976643072,2022-01-03-18:34:26,10.1.1.2,147,-0.330,-0.330,-0.330,0.000,0.000,0.000
1641234867175998976,2022-01-03-18:34:27,10.1.1.2,146,-0.340,-0.340,-0.340,0.000,0.000,0.000
1641234867398415104,2022-01-03-18:34:27,10.1.1.2,144,-0.350,-0.350,-0.350,0.000,0.000,0.000
1641234867635730944,2022-01-03-18:34:27,10.1.1.2,181,-0.360,-0.360,-0.360,0.000,0.000,0.000
1641234867801292800,2022-01-03-18:34:27,10.1.1.2,145,-0.370,-0.370,-0.370,0.000,0.000,0.000
1641234867994649856,2022-01-03-18:34:27,10.1.1.2,138,-0.380,-0.380,-0.380,0.000,0.000,0.000
1641234868194492160,2022-01-03-18:34:28,10.1.1.2,136,-0.390,-0.390,-0.390,0.000,0.000,0.000
1641234868393688064,2022-01-03-18:34:28,10.1.1.2,135,-0.400,-0.400,-0.400,0.000,0.000,0.000
1641234868593161216,2022-01-03-18:34:28,10.1.1.2,134,-0.410,-0.410,-0.410,0.000,0.000,0.000
1641234868813416960,2022-01-03-18:34:28,10.1.1.2,143,-0.420,-0.420,-0.420,0.000,0.000,0.000
1641234869012856064,2022-01-03-18:34:29,10.1.1.2,142,-0.430,-0.430,-0.430,0.000,0.000,0.000
1641234869213526016,2022-01-03-18:34:29,10.1.1.2,141,-0.440,-0.440,-0.440,0.000,0.000,0.000
1641234869412239104,2022-01-03-18:34:29,10.1.1.2,139,-0.450,-0.450,-0.450,0.000,0.000,0.000
1641234869617016064,2022-01-03-18:34:29,10.1.1.2,139,-0.460,-0.460,-0.460,0.000,0.000,0.000
1641234869894022912,2022-01-03-18:34:29,10.1.1.2,188,-0.470,-0.470,-0.470,0.000,0.000,0.000
1641234870033782016,2022-01-03-18:34:30,10.1.1.2,127,-0.480,-0.480,-0.480,0.000,0.000,0.000
1641234870231326976,2022-01-03-18:34:30,10.1.1.2,123,-0.490,-0.490,-0.490,0.000,0.000,0.000
1641234870430042880,2022-01-03-18:34:30,10.1.1.2,121,-0.480,-0.480,-0.480,0.000,0.000,0.000
1641234870650134016,2022-01-03-18:34:30,10.1.1.2,141,-0.470,-0.470,-0.470,0.000,0.000,0.000
1641234870849483008,2022-01-03-18:34:30,10.1.1.2,140,-0.460,-0.460,-0.460,0.000,0.000,0.000
1641234871049079040,2022-01-03-18:34:31,10.1.1.2,138,-0.450,-0.450,-0.450,0.000,0.000,0.000
1641234871250955008,2022-01-03-18:34:31,10.1.1.2,138,-0.440,-0.440,-0.440,0.000,0.000,0.000
1641234871450210048,2022-01-03-18:34:31,10.1.1.2,137,-0.430,-0.430,-0.430,0.000,0.000,0.000
1641234871651124992,2022-01-03-18:34:31,10.1.1.2,137,-0.420,-0.420,-0.420,0.000,0.000,0.000
1641234871857533952,2022-01-03-18:34:31,10.1.1.2,142,-0.410,-0.410,-0.410,0.000,0.000,0.000
1641234872069614848,2022-01-03-18:34:32,10.1.1.2,154,-0.400,-0.400,-0.400,0.000,0.000,0.000
1641234872248014080,2022-01-03-18:34:32,10.1.1.2,125,-0.390,-0.390,-0.390,0.000,0.000,0.000
1641234872447544064,2022-01-03-18:34:32,10.1.1.2,122,-0.380,-0.380,-0.380,0.000,0.000,0.000
1641234872647571968,2022-01-03-18:34:32,10.1.1.2,122,-0.370,-0.370,-0.370,0.000,0.000,0.000
1641234872846713088,2022-01-03-18:34:32,10.1.1.2,120,-0.360,-0.360,-0.360,0.000,0.000,0.000
1641234873051388928,2022-01-03-18:34:33,10.1.1.2,123,-0.350,-0.350,-0.350,0.000,0.000,0.000
1641234873289623040,2022-01-03-18:34:33,10.1.1.2,158,-0.340,-0.340,-0.340,0.000,0.000,0.000
1641234873466509056,2022-01-03-18:34:33,10.1.1.2,134,-0.330,-0.330,-0.330,0.000,0.000,0.000
1641234873669636864,2022-01-03-18:34:33,10.1.1.2,133,-0.320,-0.320,-0.320,0.000,0.000,0.000
1641234873865284864,2022-01-03-18:34:33,10.1.1.2,130,-0.310,-0.310,-0.310,0.000,0.000,0.000
1641234874067476992,2022-01-03-18:34:34,10.1.1.2,130,-0.300,-0.300,-0.300,0.000,0.000,0.000
1641234874271277824,2022-01-03-18:34:34,10.1.1.2,133,-0.290,-0.290,-0.290,0.000,0.000,0.000
1641234874533760000,2022-01-03-18:34:34,10.1.1.2,135,-0.280,-0.280,-0.280,0.000,0.000,0.000
1641234874722904064,2022-01-03-18:34:34,10.1.1.2,122,-0.270,-0.270,-0.270,0.000,0.000,0.000
1641234874923052032,2022-01-03-18:34:34,10.1.1.2,121,-0.260,-0.260,-0.260,0.000,0.000,0.000
1641234875122739968,2022-01-03-18:34:35,10.1.1.2,119,-0.250,-0.250,-0.250,0.000,0.000,0.000
1641234875323303936,2022-01-03-18:34:35,10.1.1.2,117,-0.240,-0.240,-0.240,0.000,0.000,0.000
1641234875523124992,2022-01-03-18:34:35,10.1.1.2,115,-0.230,-0.230,-0.230,0.000,0.000,0.000
1641234875721326080,2022-01-03-18:34:35,10.1.1.2,113,-0.220,-0.220,-0.220,0.000,0.000,0.000
1641234875940794112,2022-01-03-18:34:35,10.1.1.2,131,-0.210,-0.210,-0.210,0.000,0.000,0.000
1641234876141669120,2022-01-03-18:34:36,10.1.1.2,129,-0.200,-0.200,-0.200,0.000,0.000,0.000
1641234876341378048,2022-01-03-18:34:36,10.1.1.2,128,-0.190,-0.190,-0.190,0.000,0.000,0.000
1641234876541207040,2022-01-03-18:34:36,10.1.1.2,114,-0.180,-0.180,-0.180,0.000,0.000,0.000
1641234876796838144,2022-01-03-18:34:36,10.1.1.2,165,-0.170,-0.170,-0.170,0.000,0.000,0.000
1641234876960228864,2022-01-03-18:34:36,10.1.1.2,127,-0.160,-0.160,-0.160,0.000,0.000,0.000
1641234877159182080,2022-01-03-18:34:37,10.1.1.2,122,-0.150,-0.150,-0.150,0.000,0.000,0.000
1641234877360176128,2022-01-03-18:34:37,10.1.1.2,121,-0.140,-0.140,-0.140,0.000,0.000,0.000
1641234877561840896,2022-01-03-18:34:37,10.1.1.2,122,-0.130,-0.130,-0.130,0.000,0.000,0.000
1641234877759951104,2022-01-03-18:34:37,10.1.1.2,117,-0.120,-0.120,-0.120,0.000,0.000,0.000
1641234877958018048,2022-01-03-18:34:37,10.1.1.2,113,-0.110,-0.110,-0.110,0.000,0.000,0.000
1641234878158974976,2022-01-03-18:34:38,10.1.1.2,113,-0.100,-0.100,-0.100,0.000,0.000,0.000
1641234878357916160,2022-01-03-18:34:38,10.1.1.2,111,-0.090,-0.090,-0.090,0.000,0.000,0.000
1641234878559606016,2022-01-03-18:34:38,10.1.1.2,112,-0.080,-0.080,-0.080,0.000,0.000,0.000
1641234878756911104,2022-01-03-18:34:38,10.1.1.2,109,-0.070,-0.070,-0.070,0.000,0.000,0.000
1641234878978746880,2022-01-03-18:34:38,10.1.1.2,129,-0.060,-0.060,-0.060,0.000,0.000,0.000
1641234879181315072,2022-01-03-18:34:39,10.1.1.2,116,-0.050,-0.050,-0.050,0.000,0.000,0.000
1641234879429856000,2022-01-03-18:34:39,10.1.1.2,135,-0.040,-0.040,-0.040,0.000,0.000,0.000
1641234879615425024,2022-01-03-18:34:39,10.1.1.2,118,-0.030,-0.030,-0.030,0.000,0.000,0.000
1641234879816131072,2022-01-03-18:34:39,10.1.1.2,111,-0.020,-0.020,-0.020,0.000,0.000,0.000
1641234880015193088,2022-01-03-18:34:40,10.1.1.2,109,-0.010,-0.010,-0.010,0.000,0.000,0.000
1641234880238821120,2022-01-03-18:34:40,10.1.1.2,122,0.000,0.000,0.000,0.000,0.000,0.000
1641234880437414912,2022-01-03-18:34:40,10.1.1.2,110,-0.010,-0.010,-0.010,0.000,0.000,0.000
1641234880637643008,2022-01-03-18:34:40,10.1.1.2,109,-0.020,-0.020,-0.020,0.000,0.000,0.000
1641234880879833088,2022-01-03-18:34:40,10.1.1.2,148,-0.030,-0.030,-0.030,0.000,0.000,0.000
1641234881056276992,2022-01-03-18:34:41,10.1.1.2,110,-0.040,-0.040,-0.040,0.000,0.000,0.000
1641234881254967808,2022-01-03-18:34:41,10.1.1.2,108,-0.050,-0.050,-0.050,0.000,0.000,0.000
1641234881453361920,2022-01-03-18:34:41,10.1.1.2,106,-0.060,-0.060,-0.060,0.000,0.000,0.000
1641234881657272064,2022-01-03-18:34:41,10.1.1.2,109,-0.070,-0.070,-0.070,0.000,0.000,0.000
1641234881872440064,2022-01-03-18:34:41,10.1.1.2,123,-0.080,-0.080,-0.080,0.000,0.000,0.000
1641234882081440000,2022-01-03-18:34:42,10.1.1.2,132,-0.090,-0.090,-0.090,0.000,0.000,0.000
1641234882273238016,2022-01-03-18:34:42,10.1.1.2,123,-0.100,-0.100,-0.100,0.000,0.000,0.000
1641234882470622976,2022-01-03-18:34:42,10.1.1.2,119,-0.110,-0.110,-0.110,0.000,0.000,0.000
1641234882670823936,2022-01-03-18:34:42,10.1.1.2,117,-0.120,-0.120,-0.120,0.000,0.000,0.000
1641234882872907008,2022-01-03-18:34:42,10.1.1.2,118,-0.130,-0.130,-0.130,0.000,0.000,0.000
1641234883074184960,2022-01-03-18:34:43,10.1.1.2,112,-0.140,-0.140,-0.140,0.000,0.000,0.000
1641234883289583872,2022-01-03-18:34:43,10.1.1.2,118,-0.150,-0.150,-0.150,0.000,0.000,0.000
1641234883516530944,2022-01-03-18:34:43,10.1.1.2,144,-0.160,-0.160,-0.160,0.000,0.000,0.000
1641234883690064896,2022-01-03-18:34:43,10.1.1.2,115,-0.170,-0.170,-0.170,0.000,0.000,0.000
1641234883888566016,2022-01-03-18:34:43,10.1.1.2,115,-0.180,-0.180,-0.180,0.000,0.000,0.000
1641234884091442176,2022-01-03-18:34:44,10.1.1.2,117,-0.190,-0.190,-0.190,0.000,0.000,0.000
1641234884289537024,2022-01-03-18:34:44,10.1.1.2,115,-0.200,-0.200,-0.200,0.000,0.000,0.000
1641234884490391040,2022-01-03-18:34:44,10.1.1.2,115,-0.210,-0.210,-0.210,0.000,0.000,0.000
1641234884711668992,2022-01-03-18:34:44,10.1.1.2,122,-0.220,-0.220,-0.220,0.000,0.000,0.000
1641234884938568192,2022-01-03-18:34:44,10.1.1.2,116,-0.230,-0.230,-0.230,0.000,0.000,0.000
1641234885137499136,2022-01-03-18:34:45,10.1.1.2,114,-0.240,-0.240,-0.240,0.000,0.000,0.000
1641234885345829888,2022-01-03-18:34:45,10.1.1.2,120,-0.250,-0.250,-0.250,0.000,0.000,0.000
1641234885535557120,2022-01-03-18:34:45,10.1.1.2,108,-0.260,-0.260,-0.260,0.000,0.000,0.000
1641234885773873152,2022-01-03-18:34:45,10.1.1.2,145,-0.270,-0.270,-0.270,0.000,0.000,0.000
1641234885957876992,2022-01-03-18:34:45,10.1.1.2,127,-0.280,-0.280,-0.280,0.000,0.000,0.000
1641234886158755072,2022-01-03-18:34:46,10.1.1.2,126,-0.290,-0.290,-0.290,0.000,0.000,0.000
1641234886359635200,2022-01-03-18:34:46,10.1.1.2,126,-0.300,-0.300,-0.300,0.000,0.000,0.000
1641234886561634048,2022-01-03-18:34:46,10.1.1.2,127,-0.310,-0.310,-0.310,0.000,0.000,0.000
1641234886761600000,2022-01-03-18:34:46,10.1.1.2,126,-0.320,-0.320,-0.320,0.000,0.000,0.000
1641234886963721984,2022-01-03-18:34:46,10.1.1.2,127,-0.330,-0.330,-0.330,0.000,0.000,0.000
1641234887162551040,2022-01-03-18:34:47,10.1.1.2,122,-0.340,-0.340,-0.340,0.000,0.000,0.000
1641234887363707904,2022-01-03-18:34:47,10.1.1.2,122,-0.350,-0.350,-0.350,0.000,0.000,0.000
1641234887564638976,2022-01-03-18:34:47,10.1.1.2,122,-0.360,-0.360,-0.360,0.000,0.000,0.000
1641234887765376000,2022-01-03-18:34:47,10.1.1.2,117,-0.370,-0.370,-0.370,0.000,0.000,0.000
1641234887988361984,2022-01-03-18:34:47,10.1.1.2,138,-0.380,-0.380,-0.380,0.000,0.000,0.000
1641234888187011072,2022-01-03-18:34:48,10.1.1.2,136,-0.390,-0.390,-0.390,0.000,0.000,0.000
1641234888388113920,2022-01-03-18:34:48,10.1.1.2,136,-0.400,-0.400,-0.400,0.000,0.000,0.000
1641234888589051136,2022-01-03-18:34:48,10.1.1.2,136,-0.410,-0.410,-0.410,0.000,0.000,0.000
1641234888789248000,2022-01-03-18:34:48,10.1.1.2,136,-0.420,-0.420,-0.420,0.000,0.000,0.000
1641234888990287104,2022-01-03-18:34:48,10.1.1.2,136,-0.430,-0.430,-0.430,0.000,0.000,0.000
1641234889198116096,2022-01-03-18:34:49,10.1.1.2,138,-0.440,-0.440,-0.440,0.000,0.000,0.000
1641234889391361024,2022-01-03-18:34:49,10.1.1.2,130,-0.450,-0.450,-0.450,0.000,0.000,0.000
1641234889594860032,2022-01-03-18:34:49,10.1.1.2,131,-0.460,-0.460,-0.460,0.000,0.000,0.000
1641234889794679040,2022-01-03-18:34:49,10.1.1.2,129,-0.470,-0.470,-0.470,0.000,0.000,0.000
1641234890013825792,2022-01-03-18:34:50,10.1.1.2,143,-0.480,-0.480,-0.480,0.000,0.000,0.000
1641234890410032128,2022-01-03-18:34:50,10.1.1.2,136,-0.480,-0.480,-0.480,0.000,0.000,0.000
1641234890613289216,2022-01-03-18:34:50,10.1.1.2,139,-0.470,-0.470,-0.470,0.000,0.000,0.000
1641234890812925952,2022-01-03-18:34:50,10.1.1.2,138,-0.460,-0.460,-0.460,0.000,0.000,0.000
1641234891011936000,2022-01-03-18:34:51,10.1.1.2,136,-0.450,-0.450,-0.450,0.000,0.000,0.000
1641234891212492032,2022-01-03-18:34:51,10.1.1.2,135,-0.440,-0.440,-0.440,0.000,0.000,0.000
1641234891435715072,2022-01-03-18:34:51,10.1.1.2,152,-0.430,-0.430,-0.430,0.000,0.000,0.000
1641234891613357056,2022-01-03-18:34:51,10.1.1.2,129,-0.420,-0.420,-0.420,0.000,0.000,0.000
1641234891833914880,2022-01-03-18:34:51,10.1.1.2,149,-0.410,-0.410,-0.410,0.000,0.000,0.000
1641234892034923008,2022-01-03-18:34:52,10.1.1.2,149,-0.400,-0.400,-0.400,0.000,0.000,0.000
1641234892234652928,2022-01-03-18:34:52,10.1.1.2,145,-0.390,-0.390,-0.390,0.000,0.000,0.000
1641234892450371072,2022-01-03-18:34:52,10.1.1.2,160,-0.380,-0.380,-0.380,0.000,0.000,0.000
1641234892636032000,2022-01-03-18:34:52,10.1.1.2,138,-0.370,-0.370,-0.370,0.000,0.000,0.000
1641234892840962816,2022-01-03-18:34:52,10.1.1.2,141,-0.360,-0.360,-0.360,0.000,0.000,0.000
1641234893038131968,2022-01-03-18:34:53,10.1.1.2,137,-0.350,-0.350,-0.350,0.000,0.000,0.000
1641234893237936128,2022-01-03-18:34:53,10.1.1.2,136,-0.340,-0.340,-0.340,0.000,0.000,0.000
1641234893438070016,2022-01-03-18:34:53,10.1.1.2,135,-0.330,-0.330,-0.330,0.000,0.000,0.000
1641234893680898816,2022-01-03-18:34:53,10.1.1.2,170,-0.320,-0.320,-0.320,0.000,0.000,0.000
1641234893861159936,2022-01-03-18:34:53,10.1.1.2,156,-0.310,-0.310,-0.310,0.000,0.000,0.000
1641234894061007104,2022-01-03-18:34:54,10.1.1.2,152,-0.300,-0.300,-0.300,0.000,0.000,0.000
1641234894260282112,2022-01-03-18:34:54,10.1.1.2,150,-0.290,-0.290,-0.290,0.000,0.000,0.000
1641234894459757056,2022-01-03-18:34:54,10.1.1.2,149,-0.280,-0.280,-0.280,0.000,0.000,0.000
1641234894660162816,2022-01-03-18:34:54,10.1.1.2,149,-0.270,-0.270,-0.270,0.000,0.000,0.000
1641234894862827008,2022-01-03-18:34:54,10.1.1.2,141,-0.260,-0.260,-0.260,0.000,0.000,0.000
1641234895061639168,2022-01-03-18:34:55,10.1.1.2,139,-0.250,-0.250,-0.250,0.000,0.000,0.000
1641234895263062016,2022-01-03-18:34:55,10.1.1.2,140,-0.240,-0.240,-0.240,0.000,0.000,0.000
1641234895462027008,2022-01-03-18:34:55,10.1.1.2,138,-0.230,-0.230,-0.230,0.000,0.000,0.000
1641234895662785024,2022-01-03-18:34:55,10.1.1.2,138,-0.220,-0.220,-0.220,0.000,0.000,0.000
1641234895883147008,2022-01-03-18:34:55,10.1.1.2,158,-0.210,-0.210,-0.210,0.000,0.000,0.000
1641234896082969856,2022-01-03-18:34:56,10.1.1.2,154,-0.200,-0.200,-0.200,0.000,0.000,0.000
1641234896283934208,2022-01-03-18:34:56,10.1.1.2,153,-0.190,-0.190,-0.190,0.000,0.000,0.000
1641234896484161024,2022-01-03-18:34:56,10.1.1.2,151,-0.180,-0.180,-0.180,0.000,0.000,0.000
1641234896715022080,2022-01-03-18:34:56,10.1.1.2,169,-0.170,-0.170,-0.170,0.000,0.000,0.000
1641234896904813056,2022-01-03-18:34:56,10.1.1.2,158,-0.160,-0.160,-0.160,0.000,0.000,0.000
1641234897305062144,2022-01-03-18:34:57,10.1.1.2,156,-0.140,-0.140,-0.140,0.000,0.000,0.000
1641234897504948992,2022-01-03-18:34:57,10.1.1.2,156,-0.130,-0.130,-0.130,0.000,0.000,0.000
1641234897705257984,2022-01-03-18:34:57,10.1.1.2,156,-0.120,-0.120,-0.120,0.000,0.000,0.000
1641234897905657088,2022-01-03-18:34:57,10.1.1.2,155,-0.110,-0.110,-0.110,0.000,0.000,0.000
1641234898105867008,2022-01-03-18:34:58,10.1.1.2,153,-0.100,-0.100,-0.100,0.000,0.000,0.000
1641234898337742080,2022-01-03-18:34:58,10.1.1.2,183,-0.090,-0.090,-0.090,0.000,0.000,0.000
1641234898509442048,2022-01-03-18:34:58,10.1.1.2,148,-0.080,-0.080,-0.080,0.000,0.000,0.000
1641234898705741824,2022-01-03-18:34:58,10.1.1.2,144,-0.070,-0.070,-0.070,0.000,0.000,0.000
1641234898914128128,2022-01-03-18:34:58,10.1.1.2,151,-0.060,-0.060,-0.060,0.000,0.000,0.000
1641234899106566912,2022-01-03-18:34:59,10.1.1.2,143,-0.050,-0.050,-0.050,0.000,0.000,0.000
1641234899346699008,2022-01-03-18:34:59,10.1.1.2,182,-0.040,-0.040,-0.040,0.000,0.000,0.000
1641234899529891840,2022-01-03-18:34:59,10.1.1.2,162,-0.030,-0.030,-0.030,0.000,0.000,0.000
1641234899727662080,2022-01-03-18:34:59,10.1.1.2,158,-0.020,-0.020,-0.020,0.000,0.000,0.000
1641234899929116928,2022-01-03-18:34:59,10.1.1.2,159,-0.010,-0.010,-0.010,0.000,0.000,0.000
1641234900131098112,2022-01-03-18:35:00,10.1.1.2,160,0.000,0.000,0.000,0.000,0.000,0.000
1641234900328411136,2022-01-03-18:35:00,10.1.1.2,157,-0.010,-0.010,-0.010,0.000,0.000,0.000
1641234900528121088,2022-01-03-18:35:00,10.1.1.2,156,-0.020,-0.020,-0.020,0.000,0.000,0.000
1641234900754355968,2022-01-03-18:35:00,10.1.1.2,160,-0.030,-0.030,-0.030,0.000,0.000,0.000
1641234900948878080,2022-01-03-18:35:00,10.1.1.2,145,-0.040,-0.040,-0.040,0.000,0.000,0.000
1641234901169841920,2022-01-03-18:35:01,10.1.1.2,165,-0.050,-0.050,-0.050,0.000,0.000,0.000
1641234901368988160,2022-01-03-18:35:01,10.1.1.2,164,-0.060,-0.060,-0.060,0.000,0.000,0.000
1641234901568509952,2022-01-03-18:35:01,10.1.1.2,154,-0.070,-0.070,-0.070,0.000,0.000,0.000
1641234901769278976,2022-01-03-18:35:01,10.1.1.2,154,-0.080,-0.080,-0.080,0.000,0.000,0.000
1641234901969484032,2022-01-03-18:35:01,10.1.1.2,153,-0.090,-0.090,-0.090,0.000,0.000,0.000
1641234902169233920,2022-01-03-18:35:02,10.1.1.2,151,-0.100,-0.100,-0.100,0.000,0.000,0.000
1641234902369678848,2022-01-03-18:35:02,10.1.1.2,151,-0.110,-0.110,-0.110,0.000,0.000,0.000
1641234902571691008,2022-01-03-18:35:02,10.1.1.2,152,-0.120,-0.120,-0.120,0.000,0.000,0.000
1641234902837778944,2022-01-03-18:35:02,10.1.1.2,217,-0.130,-0.130,-0.130,0.000,0.000,0.000
1641234903020126976,2022-01-03-18:35:03,10.1.1.2,166,-0.140,-0.140,-0.140,0.000,0.000,0.000
1641234903209846016,2022-01-03-18:35:03,10.1.1.2,156,-0.150,-0.150,-0.150,0.000,0.000,0.000
1641234903420196096,2022-01-03-18:35:03,10.1.1.2,166,-0.160,-0.160,-0.160,0.000,0.000,0.000
1641234903641392896,2022-01-03-18:35:03,10.1.1.2,184,-0.170,-0.170,-0.170,0.000,0.000,0.000
1641234903849713152,2022-01-03-18:35:03,10.1.1.2,165,-0.180,-0.180,-0.180,0.000,0.000,0.000
1641234904050040064,2022-01-03-18:35:04,10.1.1.2,165,-0.190,-0.190,-0.190,0.000,0.000,0.000
1641234904250785024,2022-01-03-18:35:04,10.1.1.2,165,-0.200,-0.200,-0.200,0.000,0.000,0.000
1641234904452854016,2022-01-03-18:35:04,10.1.1.2,166,-0.210,-0.210,-0.210,0.000,0.000,0.000
1641234904649602048,2022-01-03-18:35:04,10.1.1.2,163,-0.220,-0.220,-0.220,0.000,0.000,0.000
1641234904849585920,2022-01-03-18:35:04,10.1.1.2,162,-0.230,-0.230,-0.230,0.000,0.000,0.000
1641234905050950144,2022-01-03-18:35:05,10.1.1.2,162,-0.240,-0.240,-0.240,0.000,0.000,0.000
1641234905249970944,2022-01-03-18:35:05,10.1.1.2,155,-0.250,-0.250,-0.250,0.000,0.000,0.000
1641234905450328064,2022-01-03-18:35:05,10.1.1.2,155,-0.260,-0.260,-0.260,0.000,0.000,0.000
1641234905649550080,2022-01-03-18:35:05,10.1.1.2,151,-0.270,-0.270,-0.270,0.000,0.000,0.000
1641234905850230016,2022-01-03-18:35:05,10.1.1.2,150,-0.280,-0.280,-0.280,0.000,0.000,0.000
1641234906050528000,2022-01-03-18:35:06,10.1.1.2,150,-0.290,-0.290,-0.290,0.000,0.000,0.000
1641234906251068160,2022-01-03-18:35:06,10.1.1.2,150,-0.300,-0.300,-0.300,0.000,0.000,0.000
1641234906449876992,2022-01-03-18:35:06,10.1.1.2,148,-0.310,-0.310,-0.310,0.000,0.000,0.000
1641234906656145152,2022-01-03-18:35:06,10.1.1.2,153,-0.320,-0.320,-0.320,0.000,0.000,0.000
1641234906850205952,2022-01-03-18:35:06,10.1.1.2,146,-0.330,-0.330,-0.330,0.000,0.000,0.000
1641234907070000896,2022-01-03-18:35:07,10.1.1.2,164,-0.340,-0.340,-0.340,0.000,0.000,0.000
1641234907269931008,2022-01-03-18:35:07,10.1.1.2,164,-0.350,-0.350,-0.350,0.000,0.000,0.000
1641234907488591872,2022-01-03-18:35:07,10.1.1.2,182,-0.360,-0.360,-0.360,0.000,0.000,0.000
1641234907670353920,2022-01-03-18:35:07,10.1.1.2,162,-0.370,-0.370,-0.370,0.000,0.000,0.000
1641234907870307072,2022-01-03-18:35:07,10.1.1.2,160,-0.380,-0.380,-0.380,0.000,0.000,0.000
1641234908070319872,2022-01-03-18:35:08,10.1.1.2,159,-0.390,-0.390,-0.390,0.000,0.000,0.000
1641234908271688960,2022-01-03-18:35:08,10.1.1.2,158,-0.400,-0.400,-0.400,0.000,0.000,0.000
1641234908469291008,2022-01-03-18:35:08,10.1.1.2,155,-0.410,-0.410,-0.410,0.000,0.000,0.000
1641234908684630016,2022-01-03-18:35:08,10.1.1.2,166,-0.420,-0.420,-0.420,0.000,0.000,0.000
1641234908870270976,2022-01-03-18:35:08,10.1.1.2,151,-0.430,-0.430,-0.430,0.000,0.000,0.000
1641234909069936128,2022-01-03-18:35:09,10.1.1.2,149,-0.440,-0.440,-0.440,0.000,0.000,0.000
1641234909269812992,2022-01-03-18:35:09,10.1.1.2,148,-0.450,-0.450,-0.450,0.000,0.000,0.000
1641234909469364992,2022-01-03-18:35:09,10.1.1.2,147,-0.460,-0.460,-0.460,0.000,0.000,0.000
1641234909670188032,2022-01-03-18:35:09,10.1.1.2,147,-0.470,-0.470,-0.470,0.000,0.000,0.000
1641234909889259008,2022-01-03-18:35:09,10.1.1.2,164,-0.480,-0.480,-0.480,0.000,0.000,0.000
1641234910089296128,2022-01-03-18:35:10,10.1.1.2,163,-0.490,-0.490,-0.490,0.000,0.000,0.000
1641234910289200128,2022-01-03-18:35:10,10.1.1.2,162,-0.480,-0.480,-0.480,0.000,0.000,0.000
1641234910488712960,2022-01-03-18:35:10,10.1.1.2,161,-0.470,-0.470,-0.470,0.000,0.000,0.000
1641234910689133824,2022-01-03-18:35:10,10.1.1.2,159,-0.460,-0.460,-0.460,0.000,0.000,0.000
1641234910915488000,2022-01-03-18:35:10,10.1.1.2,184,-0.450,-0.450,-0.450,0.000,0.000,0.000
1641234911089148160,2022-01-03-18:35:11,10.1.1.2,157,-0.440,-0.440,-0.440,0.000,0.000,0.000
1641234911288845056,2022-01-03-18:35:11,10.1.1.2,155,-0.430,-0.430,-0.430,0.000,0.000,0.000
1641234911488503040,2022-01-03-18:35:11,10.1.1.2,155,-0.420,-0.420,-0.420,0.000,0.000,0.000
1641234911688615168,2022-01-03-18:35:11,10.1.1.2,154,-0.410,-0.410,-0.410,0.000,0.000,0.000
1641234911888904960,2022-01-03-18:35:11,10.1.1.2,152,-0.400,-0.400,-0.400,0.000,0.000,0.000
1641234912103153920,2022-01-03-18:35:12,10.1.1.2,166,-0.390,-0.390,-0.390,0.000,0.000,0.000
1641234912290440960,2022-01-03-18:35:12,10.1.1.2,152,-0.380,-0.380,-0.380,0.000,0.000,0.000
1641234912488595968,2022-01-03-18:35:12,10.1.1.2,150,-0.370,-0.370,-0.370,0.000,0.000,0.000
1641234912688285184,2022-01-03-18:35:12,10.1.1.2,149,-0.360,-0.360,-0.360,0.000,0.000,0.000
1641234912888456960,2022-01-03-18:35:12,10.1.1.2,148,-0.350,-0.350,-0.350,0.000,0.000,0.000
1641234913088075008,2022-01-03-18:35:13,10.1.1.2,145,-0.340,-0.340,-0.340,0.000,0.000,0.000
1641234913307288832,2022-01-03-18:35:13,10.1.1.2,162,-0.330,-0.330,-0.330,0.000,0.000,0.000
1641234913507145984,2022-01-03-18:35:13,10.1.1.2,160,-0.320,-0.320,-0.320,0.000,0.000,0.000
1641234913707075072,2022-01-03-18:35:13,10.1.1.2,158,-0.310,-0.310,-0.310,0.000,0.000,0.000
1641234913906892032,2022-01-03-18:35:13,10.1.1.2,158,-0.300,-0.300,-0.300,0.000,0.000,0.000
1641234914108567040,2022-01-03-18:35:14,10.1.1.2,159,-0.290,-0.290,-0.290,0.000,0.000,0.000
1641234914318902016,2022-01-03-18:35:14,10.1.1.2,167,-0.280,-0.280,-0.280,0.000,0.000,0.000
1641234914507406848,2022-01-03-18:35:14,10.1.1.2,155,-0.270,-0.270,-0.270,0.000,0.000,0.000
1641234914706754816,2022-01-03-18:35:14,10.1.1.2,154,-0.260,-0.260,-0.260,0.000,0.000,0.000
1641234914909286912,2022-01-03-18:35:14,10.1.1.2,155,-0.250,-0.250,-0.250,0.000,0.000,0.000
1641234915106889984,2022-01-03-18:35:15,10.1.1.2,152,-0.240,-0.240,-0.240,0.000,0.000,0.000
1641234915307030016,2022-01-03-18:35:15,10.1.1.2,149,-0.230,-0.230,-0.230,0.000,0.000,0.000
1641234915526201088,2022-01-03-18:35:15,10.1.1.2,159,-0.220,-0.220,-0.220,0.000,0.000,0.000
1641234915730304000,2022-01-03-18:35:15,10.1.1.2,162,-0.210,-0.210,-0.210,0.000,0.000,0.000
1641234915927294976,2022-01-03-18:35:15,10.1.1.2,158,-0.200,-0.200,-0.200,0.000,0.000,0.000
1641234916125709056,2022-01-03-18:35:16,10.1.1.2,156,-0.190,-0.190,-0.190,0.000,0.000,0.000
1641234916326353152,2022-01-03-18:35:16,10.1.1.2,156,-0.180,-0.180,-0.180,0.000,0.000,0.000
1641234916554827008,2022-01-03-18:35:16,10.1.1.2,184,-0.170,-0.170,-0.170,0.000,0.000,0.000
1641234916766351104,2022-01-03-18:35:16,10.1.1.2,149,-0.160,-0.160,-0.160,0.000,0.000,0.000
1641234916965884928,2022-01-03-18:35:16,10.1.1.2,149,-0.150,-0.150,-0.150,0.000,0.000,0.000
1641234917205776896,2022-01-03-18:35:17,10.1.1.2,188,-0.140,-0.140,-0.140,0.000,0.000,0.000
1641234917364733952,2022-01-03-18:35:17,10.1.1.2,144,-0.130,-0.130,-0.130,0.000,0.000,0.000
1641234917565280000,2022-01-03-18:35:17,10.1.1.2,144,-0.120,-0.120,-0.120,0.000,0.000,0.000
1641234917785701888,2022-01-03-18:35:17,10.1.1.2,156,-0.110,-0.110,-0.110,0.000,0.000,0.000
1641234917984640000,2022-01-03-18:35:17,10.1.1.2,155,-0.100,-0.100,-0.100,0.000,0.000,0.000
1641234918183980032,2022-01-03-18:35:18,10.1.1.2,153,-0.090,-0.090,-0.090,0.000,0.000,0.000
1641234918383825920,2022-01-03-18:35:18,10.1.1.2,152,-0.080,-0.080,-0.080,0.000,0.000,0.000
1641234918583036928,2022-01-03-18:35:18,10.1.1.2,150,-0.070,-0.070,-0.070,0.000,0.000,0.000
1641234918792721920,2022-01-03-18:35:18,10.1.1.2,159,-0.060,-0.060,-0.060,0.000,0.000,0.000
1641234919006745088,2022-01-03-18:35:18,10.1.1.2,153,-0.050,-0.050,-0.050,0.000,0.000,0.000
1641234919182363136,2022-01-03-18:35:19,10.1.1.2,143,-0.040,-0.040,-0.040,0.000,0.000,0.000
1641234919382425088,2022-01-03-18:35:19,10.1.1.2,140,-0.030,-0.030,-0.030,0.000,0.000,0.000
1641234919584954112,2022-01-03-18:35:19,10.1.1.2,142,-0.020,-0.020,-0.020,0.000,0.000,0.000
1641234919802534144,2022-01-03-18:35:19,10.1.1.2,156,-0.010,-0.010,-0.010,0.000,0.000,0.000
1641234920002778112,2022-01-03-18:35:20,10.1.1.2,156,0.000,0.000,0.000,0.000,0.000,0.000
1641234920202637824,2022-01-03-18:35:20,10.1.1.2,155,-0.010,-0.010,-0.010,0.000,0.000,0.000
1641234920401040128,2022-01-03-18:35:20,10.1.1.2,152,-0.020,-0.020,-0.020,0.000,0.000,0.000
1641234920601403904,2022-01-03-18:35:20,10.1.1.2,152,-0.030,-0.030,-0.030,0.000,0.000,0.000
1641234920801271040,2022-01-03-18:35:20,10.1.1.2,150,-0.040,-0.040,-0.040,0.000,0.000,0.000
1641234921000560128,2022-01-03-18:35:21,10.1.1.2,149,-0.050,-0.050,-0.050,0.000,0.000,0.000
1641234921203897856,2022-01-03-18:35:21,10.1.1.2,152,-0.060,-0.060,-0.060,0.000,0.000,0.000
1641234921401011968,2022-01-03-18:35:21,10.1.1.2,146,-0.070,-0.070,-0.070,0.000,0.000,0.000
1641234921600173056,2022-01-03-18:35:21,10.1.1.2,144,-0.080,-0.080,-0.080,0.000,0.000,0.000
1641234921800587008,2022-01-03-18:35:21,10.1.1.2,144,-0.090,-0.090,-0.090,0.000,0.000,0.000
1641234922000785152,2022-01-03-18:35:22,10.1.1.2,144,-0.100,-0.100,-0.100,0.000,0.000,0.000
1641234922219315968,2022-01-03-18:35:22,10.1.1.2,148,-0.110,-0.110,-0.110,0.000,0.000,0.000
1641234922443427072,2022-01-03-18:35:22,10.1.1.2,171,-0.120,-0.120,-0.120,0.000,0.000,0.000
1641234922618616064,2022-01-03-18:35:22,10.1.1.2,145,-0.130,-0.130,-0.130,0.000,0.000,0.000
1641234922819229952,2022-01-03-18:35:22,10.1.1.2,145,-0.140,-0.140,-0.140,0.000,0.000,0.000
1641234923018711040,2022-01-03-18:35:23,10.1.1.2,142,-0.150,-0.150,-0.150,0.000,0.000,0.000
1641234923218494976,2022-01-03-18:35:23,10.1.1.2,139,-0.160,-0.160,-0.160,0.000,0.000,0.000
1641234923418402816,2022-01-03-18:35:23,10.1.1.2,139,-0.170,-0.170,-0.170,0.000,0.000,0.000
1641234923617924864,2022-01-03-18:35:23,10.1.1.2,135,-0.180,-0.180,-0.180,0.000,0.000,0.000
1641234923817299968,2022-01-03-18:35:23,10.1.1.2,133,-0.190,-0.190,-0.190,0.000,0.000,0.000
1641234924036990976,2022-01-03-18:35:24,10.1.1.2,152,-0.200,-0.200,-0.200,0.000,0.000,0.000
1641234924264861184,2022-01-03-18:35:24,10.1.1.2,179,-0.210,-0.210,-0.210,0.000,0.000,0.000
1641234924438315008,2022-01-03-18:35:24,10.1.1.2,149,-0.220,-0.220,-0.220,0.000,0.000,0.000
1641234924636889856,2022-01-03-18:35:24,10.1.1.2,146,-0.230,-0.230,-0.230,0.000,0.000,0.000
1641234924836431872,2022-01-03-18:35:24,10.1.1.2,145,-0.240,-0.240,-0.240,0.000,0.000,0.000
1641234925036412928,2022-01-03-18:35:25,10.1.1.2,144,-0.250,-0.250,-0.250,0.000,0.000,0.000
1641234925237703936,2022-01-03-18:35:25,10.1.1.2,145,-0.260,-0.260,-0.260,0.000,0.000,0.000
1641234925437274880,2022-01-03-18:35:25,10.1.1.2,144,-0.270,-0.270,-0.270,0.000,0.000,0.000
1641234925635515904,2022-01-03-18:35:25,10.1.1.2,142,-0.280,-0.280,-0.280,0.000,0.000,0.000
1641234925865672192,2022-01-03-18:35:25,10.1.1.2,171,-0.290,-0.290,-0.290,0.000,0.000,0.000
1641234926055066112,2022-01-03-18:35:26,10.1.1.2,148,-0.300,-0.300,-0.300,0.000,0.000,0.000
1641234926254152960,2022-01-03-18:35:26,10.1.1.2,143,-0.310,-0.310,-0.310,0.000,0.000,0.000
1641234926455027968,2022-01-03-18:35:26,10.1.1.2,143,-0.320,-0.320,-0.320,0.000,0.000,0.000
1641234926679339776,2022-01-03-18:35:26,10.1.1.2,167,-0.330,-0.330,-0.330,0.000,0.000,0.000
1641234926855667968,2022-01-03-18:35:26,10.1.1.2,142,-0.340,-0.340,-0.340,0.000,0.000,0.000
1641234927094688000,2022-01-03-18:35:27,10.1.1.2,151,-0.350,-0.350,-0.350,0.000,0.000,0.000
1641234927272911104,2022-01-03-18:35:27,10.1.1.2,129,-0.360,-0.360,-0.360,0.000,0.000,0.000
1641234927493579008,2022-01-03-18:35:27,10.1.1.2,142,-0.370,-0.370,-0.370,0.000,0.000,0.000
1641234927696890112,2022-01-03-18:35:27,10.1.1.2,145,-0.380,-0.380,-0.380,0.000,0.000,0.000
1641234927892416000,2022-01-03-18:35:27,10.1.1.2,140,-0.390,-0.390,-0.390,0.000,0.000,0.000
1641234928110694912,2022-01-03-18:35:28,10.1.1.2,153,-0.400,-0.400,-0.400,0.000,0.000,0.000
1641234928331469056,2022-01-03-18:35:28,10.1.1.2,128,-0.410,-0.410,-0.410,0.000,0.000,0.000
1641234928552377856,2022-01-03-18:35:28,10.1.1.2,140,-0.420,-0.420,-0.420,0.000,0.000,0.000
1641234928752704000,2022-01-03-18:35:28,10.1.1.2,140,-0.430,-0.430,-0.430,0.000,0.000,0.000
1641234928970053888,2022-01-03-18:35:28,10.1.1.2,156,-0.440,-0.440,-0.440,0.000,0.000,0.000
1641234929150699008,2022-01-03-18:35:29,10.1.1.2,132,-0.450,-0.450,-0.450,0.000,0.000,0.000
1641234929351695104,2022-01-03-18:35:29,10.1.1.2,132,-0.460,-0.460,-0.460,0.000,0.000,0.000
1641234929551819008,2022-01-03-18:35:29,10.1.1.2,130,-0.470,-0.470,-0.470,0.000,0.000,0.000
1641234929751774976,2022-01-03-18:35:29,10.1.1.2,129,-0.480,-0.480,-0.480,0.000,0.000,0.000
1641234929973820928,2022-01-03-18:35:29,10.1.1.2,148,-0.490,-0.490,-0.490,0.000,0.000,0.000
1641234930169998848,2022-01-03-18:35:30,10.1.1.2,144,-0.480,-0.480,-0.480,0.000,0.000,0.000
1641234930389960960,2022-01-03-18:35:30,10.1.1.2,163,-0.470,-0.470,-0.470,0.000,0.000,0.000
1641234930568759808,2022-01-03-18:35:30,10.1.1.2,140,-0.460,-0.460,-0.460,0.000,0.000,0.000
1641234930769298176,2022-01-03-18:35:30,10.1.1.2,140,-0.450,-0.450,-0.450,0.000,0.000,0.000
1641234930979186944,2022-01-03-18:35:30,10.1.1.2,148,-0.440,-0.440,-0.440,0.000,0.000,0.000
1641234931170592000,2022-01-03-18:35:31,10.1.1.2,139,-0.430,-0.430,-0.430,0.000,0.000,0.000
1641234931368332032,2022-01-03-18:35:31,10.1.1.2,136,-0.420,-0.420,-0.420,0.000,0.000,0.000
1641234931569665792,2022-01-03-18:35:31,10.1.1.2,137,-0.410,-0.410,-0.410,0.000,0.000,0.000
1641234931767430912,2022-01-03-18:35:31,10.1.1.2,134,-0.400,-0.400,-0.400,0.000,0.000,0.000
1641234931968457984,2022-01-03-18:35:31,10.1.1.2,134,-0.390,-0.390,-0.390,0.000,0.000,0.000
1641234932166435072,2022-01-03-18:35:32,10.1.1.2,131,-0.380,-0.380,-0.380,0.000,0.000,0.000
1641234932366487040,2022-01-03-18:35:32,10.1.1.2,131,-0.370,-0.370,-0.370,0.000,0.000,0.000
1641234932573057792,2022-01-03-18:35:32,10.1.1.2,134,-0.360,-0.360,-0.360,0.000,0.000,0.000
1641234932765906176,2022-01-03-18:35:32,10.1.1.2,124,-0.350,-0.350,-0.350,0.000,0.000,0.000
1641234932965910784,2022-01-03-18:35:32,10.1.1.2,124,-0.340,-0.340,-0.340,0.000,0.000,0.000
1641234933186313984,2022-01-03-18:35:33,10.1.1.2,140,-0.330,-0.330,-0.330,0.000,0.000,0.000
1641234933386369024,2022-01-03-18:35:33,10.1.1.2,139,-0.320,-0.320,-0.320,0.000,0.000,0.000
1641234933585267968,2022-01-03-18:35:33,10.1.1.2,136,-0.310,-0.310,-0.310,0.000,0.000,0.000
1641234933819087872,2022-01-03-18:35:33,10.1.1.2,166,-0.300,-0.300,-0.300,0.000,0.000,0.000
1641234933985997824,2022-01-03-18:35:33,10.1.1.2,125,-0.290,-0.290,-0.290,0.000,0.000,0.000
1641234934184022016,2022-01-03-18:35:34,10.1.1.2,122,-0.280,-0.280,-0.280,0.000,0.000,0.000
1641234934383656960,2022-01-03-18:35:34,10.1.1.2,120,-0.270,-0.270,-0.270,0.000,0.000,0.000
1641234934605528064,2022-01-03-18:35:34,10.1.1.2,139,-0.260,-0.260,-0.260,0.000,0.000,0.000
1641234934804544000,2022-01-03-18:35:34,10.1.1.2,140,-0.250,-0.250,-0.250,0.000,0.000,0.000
1641234935021692160,2022-01-03-18:35:35,10.1.1.2,156,-0.240,-0.240,-0.240,0.000,0.000,0.000
1641234935224060928,2022-01-03-18:35:35,10.1.1.2,132,-0.230,-0.230,-0.230,0.000,0.000,0.000
1641234935422477056,2022-01-03-18:35:35,10.1.1.2,128,-0.220,-0.220,-0.220,0.000,0.000,0.000
1641234935623176960,2022-01-03-18:35:35,10.1.1.2,126,-0.210,-0.210,-0.210,0.000,0.000,0.000
1641234935841684224,2022-01-03-18:35:35,10.1.1.2,136,-0.200,-0.200,-0.200,0.000,0.000,0.000
1641234936044392960,2022-01-03-18:35:36,10.1.1.2,138,-0.190,-0.190,-0.190,0.000,0.000,0.000
1641234936261712128,2022-01-03-18:35:36,10.1.1.2,136,-0.180,-0.180,-0.180,0.000,0.000,0.000
1641234936461654784,2022-01-03-18:35:36,10.1.1.2,135,-0.170,-0.170,-0.170,0.000,0.000,0.000
1641234936660634112,2022-01-03-18:35:36,10.1.1.2,134,-0.160,-0.160,-0.160,0.000,0.000,0.000
1641234936860732928,2022-01-03-18:35:36,10.1.1.2,133,-0.150,-0.150,-0.150,0.000,0.000,0.000
1641234937060250112,2022-01-03-18:35:37,10.1.1.2,132,-0.140,-0.140,-0.140,0.000,0.000,0.000
1641234937269336064,2022-01-03-18:35:37,10.1.1.2,140,-0.130,-0.130,-0.130,0.000,0.000,0.000
1641234937459945984,2022-01-03-18:35:37,10.1.1.2,130,-0.120,-0.120,-0.120,0.000,0.000,0.000
1641234937658701056,2022-01-03-18:35:37,10.1.1.2,129,-0.110,-0.110,-0.110,0.000,0.000,0.000
1641234937867918080,2022-01-03-18:35:37,10.1.1.2,136,-0.100,-0.100,-0.100,0.000,0.000,0.000
1641234938062215168,2022-01-03-18:35:38,10.1.1.2,130,-0.090,-0.090,-0.090,0.000,0.000,0.000
1641234938258704896,2022-01-03-18:35:38,10.1.1.2,125,-0.080,-0.080,-0.080,0.000,0.000,0.000
1641234938462758912,2022-01-03-18:35:38,10.1.1.2,128,-0.070,-0.070,-0.070,0.000,0.000,0.000
1641234938657551104,2022-01-03-18:35:38,10.1.1.2,122,-0.060,-0.060,-0.060,0.000,0.000,0.000
1641234938857342976,2022-01-03-18:35:38,10.1.1.2,121,-0.050,-0.050,-0.050,0.000,0.000,0.000
1641234939056616960,2022-01-03-18:35:39,10.1.1.2,119,-0.040,-0.040,-0.040,0.000,0.000,0.000
1641234939256941056,2022-01-03-18:35:39,10.1.1.2,119,-0.030,-0.030,-0.030,0.000,0.000,0.000
1641234939457974016,2022-01-03-18:35:39,10.1.1.2,120,-0.020,-0.020,-0.020,0.000,0.000,0.000
1641234939676734976,2022-01-03-18:35:39,10.1.1.2,121,-0.010,-0.010,-0.010,0.000,0.000,0.000
1641234939876516096,2022-01-03-18:35:39,10.1.1.2,112,-0.000,-0.000,-0.000,0.000,0.000,0.000
1641234940104520960,2022-01-03-18:35:40,10.1.1.2,139,-0.010,-0.010,-0.010,0.000,0.000,0.000
1641234940299598848,2022-01-03-18:35:40,10.1.1.2,133,-0.020,-0.020,-0.020,0.000,0.000,0.000
1641234940494297088,2022-01-03-18:35:40,10.1.1.2,127,-0.030,-0.030,-0.030,0.000,0.000,0.000
1641234940712576000,2022-01-03-18:35:40,10.1.1.2,136,-0.040,-0.040,-0.040,0.000,0.000,0.000
1641234940893709056,2022-01-03-18:35:40,10.1.1.2,117,-0.050,-0.050,-0.050,0.000,0.000,0.000
1641234941094170112,2022-01-03-18:35:41,10.1.1.2,116,-0.060,-0.060,-0.060,0.000,0.000,0.000
1641234941294482944,2022-01-03-18:35:41,10.1.1.2,115,-0.070,-0.070,-0.070,0.000,0.000,0.000
1641234941493271040,2022-01-03-18:35:41,10.1.1.2,113,-0.080,-0.080,-0.080,0.000,0.000,0.000
1641234941706529024,2022-01-03-18:35:41,10.1.1.2,125,-0.090,-0.090,-0.090,0.000,0.000,0.000
1641234941893323776,2022-01-03-18:35:41,10.1.1.2,110,-0.100,-0.100,-0.100,0.000,0.000,0.000
1641234942092487168,2022-01-03-18:35:42,10.1.1.2,108,-0.110,-0.110,-0.110,0.000,0.000,0.000
1641234942312939776,2022-01-03-18:35:42,10.1.1.2,127,-0.120,-0.120,-0.120,0.000,0.000,0.000
1641234942552876032,2022-01-03-18:35:42,10.1.1.2,167,-0.130,-0.130,-0.130,0.000,0.000,0.000
1641234942711883008,2022-01-03-18:35:42,10.1.1.2,125,-0.140,-0.140,-0.140,0.000,0.000,0.000
1641234942943990016,2022-01-03-18:35:42,10.1.1.2,154,-0.150,-0.150,-0.150,0.000,0.000,0.000
1641234943110897152,2022-01-03-18:35:43,10.1.1.2,120,-0.160,-0.160,-0.160,0.000,0.000,0.000
1641234943310818816,2022-01-03-18:35:43,10.1.1.2,118,-0.170,-0.170,-0.170,0.000,0.000,0.000
1641234943510454784,2022-01-03-18:35:43,10.1.1.2,110,-0.180,-0.180,-0.180,0.000,0.000,0.000
1641234943710117120,2022-01-03-18:35:43,10.1.1.2,110,-0.190,-0.190,-0.190,0.000,0.000,0.000
1641234943929598208,2022-01-03-18:35:43,10.1.1.2,124,-0.200,-0.200,-0.200,0.000,0.000,0.000
1641234944141455872,2022-01-03-18:35:44,10.1.1.2,134,-0.210,-0.210,-0.210,0.000,0.000,0.000
1641234944332081152,2022-01-03-18:35:44,10.1.1.2,118,-0.220,-0.220,-0.220,0.000,0.000,0.000
1641234944528076800,2022-01-03-18:35:44,10.1.1.2,113,-0.230,-0.230,-0.230,0.000,0.000,0.000
1641234944728102912,2022-01-03-18:35:44,10.1.1.2,111,-0.240,-0.240,-0.240,0.000,0.000,0.000
1641234944928649984,2022-01-03-18:35:44,10.1.1.2,111,-0.250,-0.250,-0.250,0.000,0.000,0.000
1641234945127710976,2022-01-03-18:35:45,10.1.1.2,108,-0.260,-0.260,-0.260,0.000,0.000,0.000
1641234945327789056,2022-01-03-18:35:45,10.1.1.2,108,-0.270,-0.270,-0.270,0.000,0.000,0.000
1641234945546993920,2022-01-03-18:35:45,10.1.1.2,106,-0.280,-0.280,-0.280,0.000,0.000,0.000
1641234945746583040,2022-01-03-18:35:45,10.1.1.2,106,-0.290,-0.290,-0.290,0.000,0.000,0.000
1641234945947228928,2022-01-03-18:35:45,10.1.1.2,106,-0.300,-0.300,-0.300,0.000,0.000,0.000
1641234946146033920,2022-01-03-18:35:46,10.1.1.2,104,-0.310,-0.310,-0.310,0.000,0.000,0.000
1641234946686083072,2022-01-03-18:35:46,10.1.1.2,176,-0.330,-0.330,-0.330,0.000,0.000,0.000
1641234946907778048,2022-01-03-18:35:46,10.1.1.2,142,-0.340,-0.340,-0.340,0.000,0.000,0.000
1641234947084242944,2022-01-03-18:35:47,10.1.1.2,118,-0.350,-0.350,-0.350,0.000,0.000,0.000
1641234947284288000,2022-01-03-18:35:47,10.1.1.2,117,-0.360,-0.360,-0.360,0.000,0.000,0.000
1641234947483437056,2022-01-03-18:35:47,10.1.1.2,109,-0.370,-0.370,-0.370,0.000,0.000,0.000
1641234947883730944,2022-01-03-18:35:47,10.1.1.2,101,-0.390,-0.390,-0.390,0.000,0.000,0.000
1641234948084600832,2022-01-03-18:35:48,10.1.1.2,100,-0.400,-0.400,-0.400,0.000,0.000,0.000
1641234948304963072,2022-01-03-18:35:48,10.1.1.2,119,-0.410,-0.410,-0.410,0.000,0.000,0.000
1641234948506788864,2022-01-03-18:35:48,10.1.1.2,120,-0.420,-0.420,-0.420,0.000,0.000,0.000
1641234948707292928,2022-01-03-18:35:48,10.1.1.2,121,-0.430,-0.430,-0.430,0.000,0.000,0.000
1641234948939249152,2022-01-03-18:35:48,10.1.1.2,150,-0.440,-0.440,-0.440,0.000,0.000,0.000
1641234949110660096,2022-01-03-18:35:49,10.1.1.2,120,-0.450,-0.450,-0.450,0.000,0.000,0.000
1641234949314862848,2022-01-03-18:35:49,10.1.1.2,122,-0.460,-0.460,-0.460,0.000,0.000,0.000
1641234949512815104,2022-01-03-18:35:49,10.1.1.2,120,-0.470,-0.470,-0.470,0.000,0.000,0.000
1641234949734167040,2022-01-03-18:35:49,10.1.1.2,115,-0.480,-0.480,-0.480,0.000,0.000,0.000
1641234949956268032,2022-01-03-18:35:49,10.1.1.2,125,-0.490,-0.490,-0.490,0.000,0.000,0.000
1641234950174190080,2022-01-03-18:35:50,10.1.1.2,126,-0.480,-0.480,-0.480,0.000,0.000,0.000
1641234950394614016,2022-01-03-18:35:50,10.1.1.2,126,-0.470,-0.470,-0.470,0.000,0.000,0.000
1641234950595272192,2022-01-03-18:35:50,10.1.1.2,125,-0.460,-0.460,-0.460,0.000,0.000,0.000
1641234950796530944,2022-01-03-18:35:50,10.1.1.2,125,-0.450,-0.450,-0.450,0.000,0.000,0.000
1641234950997672960,2022-01-03-18:35:50,10.1.1.2,124,-0.440,-0.440,-0.440,0.000,0.000,0.000
1641234951214875904,2022-01-03-18:35:51,10.1.1.2,140,-0.430,-0.430,-0.430,0.000,0.000,0.000
1641234951398533120,2022-01-03-18:35:51,10.1.1.2,122,-0.420,-0.420,-0.420,0.000,0.000,0.000
1641234951599512064,2022-01-03-18:35:51,10.1.1.2,122,-0.410,-0.410,-0.410,0.000,0.000,0.000
1641234951800980992,2022-01-03-18:35:51,10.1.1.2,123,-0.400,-0.400,-0.400,0.000,0.000,0.000
1641234952002294016,2022-01-03-18:35:52,10.1.1.2,123,-0.390,-0.390,-0.390,0.000,0.000,0.000
1641234952217349888,2022-01-03-18:35:52,10.1.1.2,136,-0.380,-0.380,-0.380,0.000,0.000,0.000
1641234952426397952,2022-01-03-18:35:52,10.1.1.2,140,-0.370,-0.370,-0.370,0.000,0.000,0.000
1641234952628201984,2022-01-03-18:35:52,10.1.1.2,141,-0.360,-0.360,-0.360,0.000,0.000,0.000
1641234952828808960,2022-01-03-18:35:52,10.1.1.2,141,-0.350,-0.350,-0.350,0.000,0.000,0.000
1641234953026428928,2022-01-03-18:35:53,10.1.1.2,137,-0.340,-0.340,-0.340,0.000,0.000,0.000
1641234953229969152,2022-01-03-18:35:53,10.1.1.2,140,-0.330,-0.330,-0.330,0.000,0.000,0.000
1641234953430018048,2022-01-03-18:35:53,10.1.1.2,139,-0.320,-0.320,-0.320,0.000,0.000,0.000
1641234953647846912,2022-01-03-18:35:53,10.1.1.2,140,-0.310,-0.310,-0.310,0.000,0.000,0.000
1641234953848417024,2022-01-03-18:35:53,10.1.1.2,140,-0.300,-0.300,-0.300,0.000,0.000,0.000
1641234954060875776,2022-01-03-18:35:54,10.1.1.2,151,-0.290,-0.290,-0.290,0.000,0.000,0.000
1641234954250380032,2022-01-03-18:35:54,10.1.1.2,131,-0.280,-0.280,-0.280,0.000,0.000,0.000
1641234954450028032,2022-01-03-18:35:54,10.1.1.2,126,-0.270,-0.270,-0.270,0.000,0.000,0.000
1641234954670468096,2022-01-03-18:35:54,10.1.1.2,146,-0.260,-0.260,-0.260,0.000,0.000,0.000
1641234954871110912,2022-01-03-18:35:54,10.1.1.2,146,-0.250,-0.250,-0.250,0.000,0.000,0.000
1641234955072371968,2022-01-03-18:35:55,10.1.1.2,146,-0.240,-0.240,-0.240,0.000,0.000,0.000
1641234955272686080,2022-01-03-18:35:55,10.1.1.2,145,-0.230,-0.230,-0.230,0.000,0.000,0.000
1641234955472719872,2022-01-03-18:35:55,10.1.1.2,141,-0.220,-0.220,-0.220,0.000,0.000,0.000
1641234955678662912,2022-01-03-18:35:55,10.1.1.2,147,-0.210,-0.210,-0.210,0.000,0.000,0.000
1641234955873863936,2022-01-03-18:35:55,10.1.1.2,141,-0.200,-0.200,-0.200,0.000,0.000,0.000
1641234956074321920,2022-01-03-18:35:56,10.1.1.2,140,-0.190,-0.190,-0.190,0.000,0.000,0.000
1641234956274905088,2022-01-03-18:35:56,10.1.1.2,140,-0.180,-0.180,-0.180,0.000,0.000,0.000
1641234956477276160,2022-01-03-18:35:56,10.1.1.2,141,-0.170,-0.170,-0.170,0.000,0.000,0.000
1641234956696424960,2022-01-03-18:35:56,10.1.1.2,151,-0.160,-0.160,-0.160,0.000,0.000,0.000
1641234956916350976,2022-01-03-18:35:56,10.1.1.2,169,-0.150,-0.150,-0.150,0.000,0.000,0.000
1641234957096790016,2022-01-03-18:35:57,10.1.1.2,147,-0.140,-0.140,-0.140,0.000,0.000,0.000
1641234957297836032,2022-01-03-18:35:57,10.1.1.2,145,-0.130,-0.130,-0.130,0.000,0.000,0.000
1641234957499043840,2022-01-03-18:35:57,10.1.1.2,146,-0.120,-0.120,-0.120,0.000,0.000,0.000
1641234957719260928,2022-01-03-18:35:57,10.1.1.2,149,-0.110,-0.110,-0.110,0.000,0.000,0.000
1641234957925432832,2022-01-03-18:35:57,10.1.1.2,155,-0.100,-0.100,-0.100,0.000,0.000,0.000
1641234958129478912,2022-01-03-18:35:58,10.1.1.2,149,-0.090,-0.090,-0.090,0.000,0.000,0.000
1641234958321203968,2022-01-03-18:35:58,10.1.1.2,146,-0.080,-0.080,-0.080,0.000,0.000,0.000
1641234958520425984,2022-01-03-18:35:58,10.1.1.2,144,-0.070,-0.070,-0.070,0.000,0.000,0.000
1641234958720756992,2022-01-03-18:35:58,10.1.1.2,141,-0.060,-0.060,-0.060,0.000,0.000,0.000
1641234958920816896,2022-01-03-18:35:58,10.1.1.2,141,-0.050,-0.050,-0.050,0.000,0.000,0.000
1641234959124152064,2022-01-03-18:35:59,10.1.1.2,140,-0.040,-0.040,-0.040,0.000,0.000,0.000
1641234959341486848,2022-01-03-18:35:59,10.1.1.2,143,-0.030,-0.030,-0.030,0.000,0.000,0.000
1641234959542285056,2022-01-03-18:35:59,10.1.1.2,143,-0.020,-0.020,-0.020,0.000,0.000,0.000
1641234959742916096,2022-01-03-18:35:59,10.1.1.2,143,-0.010,-0.010,-0.010,0.000,0.000,0.000
1641234959942673920,2022-01-03-18:35:59,10.1.1.2,141,0.000,0.000,0.000,0.000,0.000,0.000
1641234960142976000,2022-01-03-18:36:00,10.1.1.2,139,-0.010,-0.010,-0.010,0.000,0.000,0.000
1641234960360701184,2022-01-03-18:36:00,10.1.1.2,156,-0.020,-0.020,-0.020,0.000,0.000,0.000
1641234960564663040,2022-01-03-18:36:00,10.1.1.2,159,-0.030,-0.030,-0.030,0.000,0.000,0.000
1641234960763991040,2022-01-03-18:36:00,10.1.1.2,158,-0.040,-0.040,-0.040,0.000,0.000,0.000
1641234960964793856,2022-01-03-18:36:00,10.1.1.2,157,-0.050,-0.050,-0.050,0.000,0.000,0.000
1641234961164641024,2022-01-03-18:36:01,10.1.1.2,152,-0.060,-0.060,-0.060,0.000,0.000,0.000
1641234961365016832,2022-01-03-18:36:01,10.1.1.2,151,-0.070,-0.070,-0.070,0.000,0.000,0.000
1641234961565289984,2022-01-03-18:36:01,10.1.1.2,148,-0.080,-0.080,-0.080,0.000,0.000,0.000
1641234961765856000,2022-01-03-18:36:01,10.1.1.2,147,-0.090,-0.090,-0.090,0.000,0.000,0.000
1641234961965758208,2022-01-03-18:36:01,10.1.1.2,144,-0.100,-0.100,-0.100,0.000,0.000,0.000
1641234962165903104,2022-01-03-18:36:02,10.1.1.2,144,-0.110,-0.110,-0.110,0.000,0.000,0.000
1641234962366404096,2022-01-03-18:36:02,10.1.1.2,143,-0.120,-0.120,-0.120,0.000,0.000,0.000
1641234962590856192,2022-01-03-18:36:02,10.1.1.2,164,-0.130,-0.130,-0.130,0.000,0.000,0.000
1641234962788517888,2022-01-03-18:36:02,10.1.1.2,154,-0.140,-0.140,-0.140,0.000,0.000,0.000
1641234963007170048,2022-01-03-18:36:03,10.1.1.2,162,-0.150,-0.150,-0.150,0.000,0.000,0.000
1641234963210540032,2022-01-03-18:36:03,10.1.1.2,163,-0.160,-0.160,-0.160,0.000,0.000,0.000
1641234963407474944,2022-01-03-18:36:03,10.1.1.2,155,-0.170,-0.170,-0.170,0.000,0.000,0.000
1641234963611059968,2022-01-03-18:36:03,10.1.1.2,157,-0.180,-0.180,-0.180,0.000,0.000,0.000
1641234963859939072,2022-01-03-18:36:03,10.1.1.2,178,-0.190,-0.190,-0.190,0.000,0.000,0.000
1641234964068788992,2022-01-03-18:36:04,10.1.1.2,159,-0.200,-0.200,-0.200,0.000,0.000,0.000
1641234964267982080,2022-01-03-18:36:04,10.1.1.2,157,-0.210,-0.210,-0.210,0.000,0.000,0.000
1641234964476716032,2022-01-03-18:36:04,10.1.1.2,165,-0.220,-0.220,-0.220,0.000,0.000,0.000
1641234964669135104,2022-01-03-18:36:04,10.1.1.2,156,-0.230,-0.230,-0.230,0.000,0.000,0.000
1641234964908824832,2022-01-03-18:36:04,10.1.1.2,196,-0.240,-0.240,-0.240,0.000,0.000,0.000
1641234965068829952,2022-01-03-18:36:05,10.1.1.2,149,-0.250,-0.250,-0.250,0.000,0.000,0.000
1641234965269739008,2022-01-03-18:36:05,10.1.1.2,148,-0.260,-0.260,-0.260,0.000,0.000,0.000
1641234965469441024,2022-01-03-18:36:05,10.1.1.2,145,-0.270,-0.270,-0.270,0.000,0.000,0.000
1641234965718269184,2022-01-03-18:36:05,10.1.1.2,189,-0.280,-0.280,-0.280,0.000,0.000,0.000
1641234965889565952,2022-01-03-18:36:05,10.1.1.2,158,-0.290,-0.290,-0.290,0.000,0.000,0.000
1641234966091200000,2022-01-03-18:36:06,10.1.1.2,159,-0.300,-0.300,-0.300,0.000,0.000,0.000
1641234966289105920,2022-01-03-18:36:06,10.1.1.2,156,-0.310,-0.310,-0.310,0.000,0.000,0.000
1641234966490031872,2022-01-03-18:36:06,10.1.1.2,156,-0.320,-0.320,-0.320,0.000,0.000,0.000
1641234966689805056,2022-01-03-18:36:06,10.1.1.2,155,-0.330,-0.330,-0.330,0.000,0.000,0.000
1641234966889565952,2022-01-03-18:36:06,10.1.1.2,155,-0.340,-0.340,-0.340,0.000,0.000,0.000
1641234967289444096,2022-01-03-18:36:07,10.1.1.2,150,-0.360,-0.360,-0.360,0.000,0.000,0.000
1641234967490775040,2022-01-03-18:36:07,10.1.1.2,150,-0.370,-0.370,-0.370,0.000,0.000,0.000
1641234967690615040,2022-01-03-18:36:07,10.1.1.2,148,-0.380,-0.380,-0.380,0.000,0.000,0.000
1641234967911160064,2022-01-03-18:36:07,10.1.1.2,162,-0.390,-0.390,-0.390,0.000,0.000,0.000
1641234968110177024,2022-01-03-18:36:08,10.1.1.2,147,-0.400,-0.400,-0.400,0.000,0.000,0.000
1641234968339368192,2022-01-03-18:36:08,10.1.1.2,169,-0.410,-0.410,-0.410,0.000,0.000,0.000
1641234968529885952,2022-01-03-18:36:08,10.1.1.2,164,-0.420,-0.420,-0.420,0.000,0.000,0.000
1641234968730830848,2022-01-03-18:36:08,10.1.1.2,161,-0.430,-0.430,-0.430,0.000,0.000,0.000
1641234968930690048,2022-01-03-18:36:08,10.1.1.2,152,-0.440,-0.440,-0.440,0.000,0.000,0.000
1641234969131470080,2022-01-03-18:36:09,10.1.1.2,150,-0.450,-0.450,-0.450,0.000,0.000,0.000
1641234969330144768,2022-01-03-18:36:09,10.1.1.2,148,-0.460,-0.460,-0.460,0.000,0.000,0.000
1641234969530881792,2022-01-03-18:36:09,10.1.1.2,148,-0.470,-0.470,-0.470,0.000,0.000,0.000
1641234969730413824,2022-01-03-18:36:09,10.1.1.2,146,-0.480,-0.480,-0.480,0.000,0.000,0.000
1641234969950688000,2022-01-03-18:36:09,10.1.1.2,164,-0.490,-0.490,-0.490,0.000,0.000,0.000
1641234970163113216,2022-01-03-18:36:10,10.1.1.2,174,-0.480,-0.480,-0.480,0.000,0.000,0.000
1641234970350270976,2022-01-03-18:36:10,10.1.1.2,160,-0.470,-0.470,-0.470,0.000,0.000,0.000
1641234970553582080,2022-01-03-18:36:10,10.1.1.2,163,-0.460,-0.460,-0.460,0.000,0.000,0.000
1641234970750621952,2022-01-03-18:36:10,10.1.1.2,159,-0.450,-0.450,-0.450,0.000,0.000,0.000
1641234970950732032,2022-01-03-18:36:10,10.1.1.2,158,-0.440,-0.440,-0.440,0.000,0.000,0.000
1641234971155791872,2022-01-03-18:36:11,10.1.1.2,163,-0.430,-0.430,-0.430,0.000,0.000,0.000
1641234971354283008,2022-01-03-18:36:11,10.1.1.2,159,-0.420,-0.420,-0.420,0.000,0.000,0.000
1641234971553234176,2022-01-03-18:36:11,10.1.1.2,159,-0.410,-0.410,-0.410,0.000,0.000,0.000
1641234971751023104,2022-01-03-18:36:11,10.1.1.2,156,-0.400,-0.400,-0.400,0.000,0.000,0.000
1641234971950822144,2022-01-03-18:36:11,10.1.1.2,156,-0.390,-0.390,-0.390,0.000,0.000,0.000
1641234972150253056,2022-01-03-18:36:12,10.1.1.2,154,-0.380,-0.380,-0.380,0.000,0.000,0.000
1641234972350846976,2022-01-03-18:36:12,10.1.1.2,151,-0.370,-0.370,-0.370,0.000,0.000,0.000
1641234972569946880,2022-01-03-18:36:12,10.1.1.2,165,-0.360,-0.360,-0.360,0.000,0.000,0.000
1641234972770392064,2022-01-03-18:36:12,10.1.1.2,164,-0.350,-0.350,-0.350,0.000,0.000,0.000
1641234972969959936,2022-01-03-18:36:12,10.1.1.2,163,-0.340,-0.340,-0.340,0.000,0.000,0.000
1641234973170299904,2022-01-03-18:36:13,10.1.1.2,151,-0.330,-0.330,-0.330,0.000,0.000,0.000
1641234973370256896,2022-01-03-18:36:13,10.1.1.2,150,-0.320,-0.320,-0.320,0.000,0.000,0.000
1641234973570358016,2022-01-03-18:36:13,10.1.1.2,150,-0.310,-0.310,-0.310,0.000,0.000,0.000
1641234973770406912,2022-01-03-18:36:13,10.1.1.2,149,-0.300,-0.300,-0.300,0.000,0.000,0.000
1641234974010014976,2022-01-03-18:36:14,10.1.1.2,184,-0.290,-0.290,-0.290,0.000,0.000,0.000
1641234974190226176,2022-01-03-18:36:14,10.1.1.2,160,-0.280,-0.280,-0.280,0.000,0.000,0.000
1641234974389719040,2022-01-03-18:36:14,10.1.1.2,159,-0.270,-0.270,-0.270,0.000,0.000,0.000
1641234974591012096,2022-01-03-18:36:14,10.1.1.2,160,-0.260,-0.260,-0.260,0.000,0.000,0.000
1641234974810867968,2022-01-03-18:36:14,10.1.1.2,164,-0.250,-0.250,-0.250,0.000,0.000,0.000
1641234975015026944,2022-01-03-18:36:15,10.1.1.2,165,-0.240,-0.240,-0.240,0.000,0.000,0.000
1641234975209181952,2022-01-03-18:36:15,10.1.1.2,159,-0.230,-0.230,-0.230,0.000,0.000,0.000
1641234975409236992,2022-01-03-18:36:15,10.1.1.2,159,-0.220,-0.220,-0.220,0.000,0.000,0.000
1641234975609483008,2022-01-03-18:36:15,10.1.1.2,157,-0.210,-0.210,-0.210,0.000,0.000,0.000
1641234975809371904,2022-01-03-18:36:15,10.1.1.2,156,-0.200,-0.200,-0.200,0.000,0.000,0.000
1641234976009049856,2022-01-03-18:36:16,10.1.1.2,155,-0.190,-0.190,-0.190,0.000,0.000,0.000
1641234976215965952,2022-01-03-18:36:16,10.1.1.2,160,-0.180,-0.180,-0.180,0.000,0.000,0.000
1641234976409178112,2022-01-03-18:36:16,10.1.1.2,151,-0.170,-0.170,-0.170,0.000,0.000,0.000
1641234976608353024,2022-01-03-18:36:16,10.1.1.2,149,-0.160,-0.160,-0.160,0.000,0.000,0.000
1641234976809447168,2022-01-03-18:36:16,10.1.1.2,149,-0.150,-0.150,-0.150,0.000,0.000,0.000
1641234977008395008,2022-01-03-18:36:17,10.1.1.2,146,-0.140,-0.140,-0.140,0.000,0.000,0.000
1641234977209260032,2022-01-03-18:36:17,10.1.1.2,147,-0.130,-0.130,-0.130,0.000,0.000,0.000
1641234977428147200,2022-01-03-18:36:17,10.1.1.2,163,-0.120,-0.120,-0.120,0.000,0.000,0.000
1641234977628263936,2022-01-03-18:36:17,10.1.1.2,162,-0.110,-0.110,-0.110,0.000,0.000,0.000
1641234977828068096,2022-01-03-18:36:17,10.1.1.2,161,-0.100,-0.100,-0.100,0.000,0.000,0.000
1641234978029416192,2022-01-03-18:36:18,10.1.1.2,161,-0.090,-0.090,-0.090,0.000,0.000,0.000
1641234978227220992,2022-01-03-18:36:18,10.1.1.2,158,-0.080,-0.080,-0.080,0.000,0.000,0.000
1641234978429090048,2022-01-03-18:36:18,10.1.1.2,159,-0.070,-0.070,-0.070,0.000,0.000,0.000
1641234978627356160,2022-01-03-18:36:18,10.1.1.2,156,-0.060,-0.060,-0.060,0.000,0.000,0.000
1641234978827023104,2022-01-03-18:36:18,10.1.1.2,152,-0.050,-0.050,-0.050,0.000,0.000,0.000
1641234979029166080,2022-01-03-18:36:19,10.1.1.2,151,-0.040,-0.040,-0.040,0.000,0.000,0.000
1641234979228293888,2022-01-03-18:36:19,10.1.1.2,148,-0.030,-0.030,-0.030,0.000,0.000,0.000
1641234979426376192,2022-01-03-18:36:19,10.1.1.2,145,-0.020,-0.020,-0.020,0.000,0.000,0.000
1641234979678777856,2022-01-03-18:36:19,10.1.1.2,197,-0.010,-0.010,-0.010,0.000,0.000,0.000
1641234979826332928,2022-01-03-18:36:19,10.1.1.2,144,0.000,0.000,0.000,0.000,0.000,0.000
1641234980026221056,2022-01-03-18:36:20,10.1.1.2,143,-0.010,-0.010,-0.010,0.000,0.000,0.000
1641234980227632896,2022-01-03-18:36:20,10.1.1.2,143,-0.020,-0.020,-0.020,0.000,0.000,0.000
1641234980445869824,2022-01-03-18:36:20,10.1.1.2,160,-0.030,-0.030,-0.030,0.000,0.000,0.000
1641234980674339072,2022-01-03-18:36:20,10.1.1.2,187,-0.040,-0.040,-0.040,0.000,0.000,0.000
1641234980845662208,2022-01-03-18:36:20,10.1.1.2,157,-0.050,-0.050,-0.050,0.000,0.000,0.000
1641234981049523968,2022-01-03-18:36:21,10.1.1.2,158,-0.060,-0.060,-0.060,0.000,0.000,0.000
1641234981245004800,2022-01-03-18:36:21,10.1.1.2,151,-0.070,-0.070,-0.070,0.000,0.000,0.000
1641234981445272064,2022-01-03-18:36:21,10.1.1.2,144,-0.080,-0.080,-0.080,0.000,0.000,0.000
1641234981664758016,2022-01-03-18:36:21,10.1.1.2,158,-0.090,-0.090,-0.090,0.000,0.000,0.000
1641234981867010048,2022-01-03-18:36:21,10.1.1.2,160,-0.100,-0.100,-0.100,0.000,0.000,0.000
1641234982065586176,2022-01-03-18:36:22,10.1.1.2,157,-0.110,-0.110,-0.110,0.000,0.000,0.000
1641234982264151040,2022-01-03-18:36:22,10.1.1.2,147,-0.120,-0.120,-0.120,0.000,0.000,0.000
1641234982463932928,2022-01-03-18:36:22,10.1.1.2,146,-0.130,-0.130,-0.130,0.000,0.000,0.000
1641234982664091136,2022-01-03-18:36:22,10.1.1.2,143,-0.140,-0.140,-0.140,0.000,0.000,0.000
1641234982863837952,2022-01-03-18:36:22,10.1.1.2,142,-0.150,-0.150,-0.150,0.000,0.000,0.000
1641234983073369088,2022-01-03-18:36:23,10.1.1.2,151,-0.160,-0.160,-0.160,0.000,0.000,0.000
1641234983264476160,2022-01-03-18:36:23,10.1.1.2,141,-0.170,-0.170,-0.170,0.000,0.000,0.000
1641234983462578944,2022-01-03-18:36:23,10.1.1.2,139,-0.180,-0.180,-0.180,0.000,0.000,0.000
1641234983683121920,2022-01-03-18:36:23,10.1.1.2,158,-0.190,-0.190,-0.190,0.000,0.000,0.000
1641234983884571904,2022-01-03-18:36:23,10.1.1.2,159,-0.200,-0.200,-0.200,0.000,0.000,0.000
1641234984120688896,2022-01-03-18:36:24,10.1.1.2,195,-0.210,-0.210,-0.210,0.000,0.000,0.000
1641234984282712064,2022-01-03-18:36:24,10.1.1.2,156,-0.220,-0.220,-0.220,0.000,0.000,0.000
1641234984506072064,2022-01-03-18:36:24,10.1.1.2,158,-0.230,-0.230,-0.230,0.000,0.000,0.000
1641234984704782080,2022-01-03-18:36:24,10.1.1.2,156,-0.240,-0.240,-0.240,0.000,0.000,0.000
1641234984904269056,2022-01-03-18:36:24,10.1.1.2,153,-0.250,-0.250,-0.250,0.000,0.000,0.000
1641234985102209024,2022-01-03-18:36:25,10.1.1.2,150,-0.260,-0.260,-0.260,0.000,0.000,0.000
1641234985341275904,2022-01-03-18:36:25,10.1.1.2,140,-0.270,-0.270,-0.270,0.000,0.000,0.000
1641234985541547008,2022-01-03-18:36:25,10.1.1.2,140,-0.280,-0.280,-0.280,0.000,0.000,0.000
1641234985741169920,2022-01-03-18:36:25,10.1.1.2,139,-0.290,-0.290,-0.290,0.000,0.000,0.000
1641234985942385920,2022-01-03-18:36:25,10.1.1.2,139,-0.300,-0.300,-0.300,0.000,0.000,0.000
1641234986140346880,2022-01-03-18:36:26,10.1.1.2,136,-0.310,-0.310,-0.310,0.000,0.000,0.000
1641234986362772992,2022-01-03-18:36:26,10.1.1.2,158,-0.320,-0.320,-0.320,0.000,0.000,0.000
1641234986560018944,2022-01-03-18:36:26,10.1.1.2,154,-0.330,-0.330,-0.330,0.000,0.000,0.000
1641234986760122112,2022-01-03-18:36:26,10.1.1.2,153,-0.340,-0.340,-0.340,0.000,0.000,0.000
1641234986959204864,2022-01-03-18:36:26,10.1.1.2,151,-0.350,-0.350,-0.350,0.000,0.000,0.000
1641234987159273984,2022-01-03-18:36:27,10.1.1.2,151,-0.360,-0.360,-0.360,0.000,0.000,0.000
1641234987359623936,2022-01-03-18:36:27,10.1.1.2,151,-0.370,-0.370,-0.370,0.000,0.000,0.000
1641234987571471872,2022-01-03-18:36:27,10.1.1.2,162,-0.380,-0.380,-0.380,0.000,0.000,0.000
1641234987759361024,2022-01-03-18:36:27,10.1.1.2,149,-0.390,-0.390,-0.390,0.000,0.000,0.000
1641234987958544128,2022-01-03-18:36:27,10.1.1.2,147,-0.400,-0.400,-0.400,0.000,0.000,0.000
1641234988158187008,2022-01-03-18:36:28,10.1.1.2,146,-0.410,-0.410,-0.410,0.000,0.000,0.000
1641234988357844224,2022-01-03-18:36:28,10.1.1.2,145,-0.420,-0.420,-0.420,0.000,0.000,0.000
1641234988557048064,2022-01-03-18:36:28,10.1.1.2,143,-0.430,-0.430,-0.430,0.000,0.000,0.000
1641234988760001792,2022-01-03-18:36:28,10.1.1.2,145,-0.440,-0.440,-0.440,0.000,0.000,0.000
1641234988957281024,2022-01-03-18:36:28,10.1.1.2,142,-0.450,-0.450,-0.450,0.000,0.000,0.000
1641234989156416000,2022-01-03-18:36:29,10.1.1.2,141,-0.460,-0.460,-0.460,0.000,0.000,0.000
1641234989356672000,2022-01-03-18:36:29,10.1.1.2,140,-0.470,-0.470,-0.470,0.000,0.000,0.000
1641234989556423936,2022-01-03-18:36:29,10.1.1.2,139,-0.480,-0.480,-0.480,0.000,0.000,0.000
1641234989769488128,2022-01-03-18:36:29,10.1.1.2,152,-0.490,-0.490,-0.490,0.000,0.000,0.000
1641234989957154048,2022-01-03-18:36:29,10.1.1.2,136,-0.480,-0.480,-0.480,0.000,0.000,0.000
1641234990176235008,2022-01-03-18:36:30,10.1.1.2,144,-0.470,-0.470,-0.470,0.000,0.000,0.000
1641234990377876992,2022-01-03-18:36:30,10.1.1.2,144,-0.460,-0.460,-0.460,0.000,0.000,0.000
1641234990575348992,2022-01-03-18:36:30,10.1.1.2,141,-0.450,-0.450,-0.450,0.000,0.000,0.000
1641234990774328832,2022-01-03-18:36:30,10.1.1.2,139,-0.440,-0.440,-0.440,0.000,0.000,0.000
1641234990975006976,2022-01-03-18:36:30,10.1.1.2,139,-0.430,-0.430,-0.430,0.000,0.000,0.000
1641234991174319872,2022-01-03-18:36:31,10.1.1.2,138,-0.420,-0.420,-0.420,0.000,0.000,0.000
1641234991374012928,2022-01-03-18:36:31,10.1.1.2,137,-0.410,-0.410,-0.410,0.000,0.000,0.000
1641234991574078208,2022-01-03-18:36:31,10.1.1.2,137,-0.400,-0.400,-0.400,0.000,0.000,0.000
1641234991773821952,2022-01-03-18:36:31,10.1.1.2,136,-0.390,-0.390,-0.390,0.000,0.000,0.000
1641234991973751040,2022-01-03-18:36:31,10.1.1.2,134,-0.380,-0.380,-0.380,0.000,0.000,0.000
1641234992193736960,2022-01-03-18:36:32,10.1.1.2,148,-0.370,-0.370,-0.370,0.000,0.000,0.000
1641234992392541952,2022-01-03-18:36:32,10.1.1.2,145,-0.360,-0.360,-0.360,0.000,0.000,0.000
1641234992592786944,2022-01-03-18:36:32,10.1.1.2,145,-0.350,-0.350,-0.350,0.000,0.000,0.000
1641234992792323072,2022-01-03-18:36:32,10.1.1.2,140,-0.340,-0.340,-0.340,0.000,0.000,0.000
1641234992992217088,2022-01-03-18:36:32,10.1.1.2,140,-0.330,-0.330,-0.330,0.000,0.000,0.000
1641234993223678976,2022-01-03-18:36:33,10.1.1.2,162,-0.320,-0.320,-0.320,0.000,0.000,0.000
1641234993392963840,2022-01-03-18:36:33,10.1.1.2,139,-0.310,-0.310,-0.310,0.000,0.000,0.000
1641234993592662016,2022-01-03-18:36:33,10.1.1.2,138,-0.300,-0.300,-0.300,0.000,0.000,0.000
1641234993793750016,2022-01-03-18:36:33,10.1.1.2,138,-0.290,-0.290,-0.290,0.000,0.000,0.000
1641234993991520768,2022-01-03-18:36:33,10.1.1.2,135,-0.280,-0.280,-0.280,0.000,0.000,0.000
1641234994199815936,2022-01-03-18:36:34,10.1.1.2,143,-0.270,-0.270,-0.270,0.000,0.000,0.000
1641234994410692864,2022-01-03-18:36:34,10.1.1.2,144,-0.260,-0.260,-0.260,0.000,0.000,0.000
1641234994611460864,2022-01-03-18:36:34,10.1.1.2,144,-0.250,-0.250,-0.250,0.000,0.000,0.000
1641234994809987072,2022-01-03-18:36:34,10.1.1.2,142,-0.240,-0.240,-0.240,0.000,0.000,0.000
1641234995009677056,2022-01-03-18:36:35,10.1.1.2,136,-0.230,-0.230,-0.230,0.000,0.000,0.000
1641234995249475840,2022-01-03-18:36:35,10.1.1.2,137,-0.220,-0.220,-0.220,0.000,0.000,0.000
1641234995517180928,2022-01-03-18:36:35,10.1.1.2,192,-0.210,-0.210,-0.210,0.000,0.000,0.000
1641234995669382144,2022-01-03-18:36:35,10.1.1.2,125,-0.200,-0.200,-0.200,0.000,0.000,0.000
1641234995889841920,2022-01-03-18:36:35,10.1.1.2,142,-0.190,-0.190,-0.190,0.000,0.000,0.000
1641234996092328192,2022-01-03-18:36:36,10.1.1.2,143,-0.180,-0.180,-0.180,0.000,0.000,0.000
1641234996287687936,2022-01-03-18:36:36,10.1.1.2,137,-0.170,-0.170,-0.170,0.000,0.000,0.000
1641234996493801216,2022-01-03-18:36:36,10.1.1.2,142,-0.160,-0.160,-0.160,0.000,0.000,0.000
1641234996707326976,2022-01-03-18:36:36,10.1.1.2,128,-0.150,-0.150,-0.150,0.000,0.000,0.000
1641234996907372032,2022-01-03-18:36:36,10.1.1.2,125,-0.140,-0.140,-0.140,0.000,0.000,0.000
1641234997107464192,2022-01-03-18:36:37,10.1.1.2,124,-0.130,-0.130,-0.130,0.000,0.000,0.000
1641234997314754048,2022-01-03-18:36:37,10.1.1.2,131,-0.120,-0.120,-0.120,0.000,0.000,0.000
1641234997526528000,2022-01-03-18:36:37,10.1.1.2,142,-0.110,-0.110,-0.110,0.000,0.000,0.000
1641234997738265088,2022-01-03-18:36:37,10.1.1.2,150,-0.100,-0.100,-0.100,0.000,0.000,0.000
1641234997925123840,2022-01-03-18:36:37,10.1.1.2,140,-0.090,-0.090,-0.090,0.000,0.000,0.000
1641234998124856832,2022-01-03-18:36:38,10.1.1.2,139,-0.080,-0.080,-0.080,0.000,0.000,0.000
1641234998324531200,2022-01-03-18:36:38,10.1.1.2,137,-0.070,-0.070,-0.070,0.000,0.000,0.000
1641234998524256000,2022-01-03-18:36:38,10.1.1.2,136,-0.060,-0.060,-0.060,0.000,0.000,0.000
1641234998724360960,2022-01-03-18:36:38,10.1.1.2,135,-0.050,-0.050,-0.050,0.000,0.000,0.000
1641234998926588928,2022-01-03-18:36:38,10.1.1.2,132,-0.040,-0.040,-0.040,0.000,0.000,0.000
1641234999128696832,2022-01-03-18:36:39,10.1.1.2,134,-0.030,-0.030,-0.030,0.000,0.000,0.000
1641234999323265024,2022-01-03-18:36:39,10.1.1.2,127,-0.020,-0.020,-0.020,0.000,0.000,0.000
1641234999525362944,2022-01-03-18:36:39,10.1.1.2,127,-0.010,-0.010,-0.010,0.000,0.000,0.000
1641234999723313920,2022-01-03-18:36:39,10.1.1.2,123,0.000,0.000,0.000,0.000,0.000,0.000
1641234999945699840,2022-01-03-18:36:39,10.1.1.2,144,-0.010,-0.010,-0.010,0.000,0.000,0.000
1641235000121876992,2022-01-03-18:36:40,10.1.1.2,120,-0.020,-0.020,-0.020,0.000,0.000,0.000
1641235000321736960,2022-01-03-18:36:40,10.1.1.2,119,-0.030,-0.030,-0.030,0.000,0.000,0.000
1641235000521106944,2022-01-03-18:36:40,10.1.1.2,117,-0.040,-0.040,-0.040,0.000,0.000,0.000
1641235000740652032,2022-01-03-18:36:40,10.1.1.2,136,-0.050,-0.050,-0.050,0.000,0.000,0.000
1641235000941049088,2022-01-03-18:36:40,10.1.1.2,136,-0.060,-0.060,-0.060,0.000,0.000,0.000
1641235001181200896,2022-01-03-18:36:41,10.1.1.2,134,-0.070,-0.070,-0.070,0.000,0.000,0.000
1641235001382844928,2022-01-03-18:36:41,10.1.1.2,134,-0.080,-0.080,-0.080,0.000,0.000,0.000
1641235001581069056,2022-01-03-18:36:41,10.1.1.2,132,-0.090,-0.090,-0.090,0.000,0.000,0.000
1641235001789284864,2022-01-03-18:36:41,10.1.1.2,137,-0.100,-0.100,-0.100,0.000,0.000,0.000
1641235001979974912,2022-01-03-18:36:41,10.1.1.2,126,-0.110,-0.110,-0.110,0.000,0.000,0.000
1641235002179899904,2022-01-03-18:36:42,10.1.1.2,125,-0.120,-0.120,-0.120,0.000,0.000,0.000
1641235002378964992,2022-01-03-18:36:42,10.1.1.2,120,-0.130,-0.130,-0.130,0.000,0.000,0.000
1641235002578644992,2022-01-03-18:36:42,10.1.1.2,116,-0.140,-0.140,-0.140,0.000,0.000,0.000
1641235002781683968,2022-01-03-18:36:42,10.1.1.2,118,-0.150,-0.150,-0.150,0.000,0.000,0.000
1641235002998418944,2022-01-03-18:36:42,10.1.1.2,127,-0.160,-0.160,-0.160,0.000,0.000,0.000
1641235003398716928,2022-01-03-18:36:43,10.1.1.2,119,-0.180,-0.180,-0.180,0.000,0.000,0.000
1641235003597896192,2022-01-03-18:36:43,10.1.1.2,117,-0.190,-0.190,-0.190,0.000,0.000,0.000
1641235003797123072,2022-01-03-18:36:43,10.1.1.2,115,-0.200,-0.200,-0.200,0.000,0.000,0.000
1641235003996606208,2022-01-03-18:36:43,10.1.1.2,114,-0.210,-0.210,-0.210,0.000,0.000,0.000
1641235004195755008,2022-01-03-18:36:44,10.1.1.2,112,-0.220,-0.220,-0.220,0.000,0.000,0.000
1641235004415133952,2022-01-03-18:36:44,10.1.1.2,129,-0.230,-0.230,-0.230,0.000,0.000,0.000
1641235004616018944,2022-01-03-18:36:44,10.1.1.2,128,-0.240,-0.240,-0.240,0.000,0.000,0.000
1641235004814893056,2022-01-03-18:36:44,10.1.1.2,125,-0.250,-0.250,-0.250,0.000,0.000,0.000
1641235005014585856,2022-01-03-18:36:45,10.1.1.2,123,-0.260,-0.260,-0.260,0.000,0.000,0.000
1641235005215072000,2022-01-03-18:36:45,10.1.1.2,123,-0.270,-0.270,-0.270,0.000,0.000,0.000
1641235005413852928,2022-01-03-18:36:45,10.1.1.2,121,-0.280,-0.280,-0.280,0.000,0.000,0.000
1641235005614913024,2022-01-03-18:36:45,10.1.1.2,121,-0.290,-0.290,-0.290,0.000,0.000,0.000
1641235005814768128,2022-01-03-18:36:45,10.1.1.2,115,-0.300,-0.300,-0.300,0.000,0.000,0.000
1641235006033526784,2022-01-03-18:36:46,10.1.1.2,121,-0.310,-0.310,-0.310,0.000,0.000,0.000
1641235006233551104,2022-01-03-18:36:46,10.1.1.2,120,-0.320,-0.320,-0.320,0.000,0.000,0.000
1641235006432766976,2022-01-03-18:36:46,10.1.1.2,118,-0.330,-0.330,-0.330,0.000,0.000,0.000
1641235006636609024,2022-01-03-18:36:46,10.1.1.2,120,-0.340,-0.340,-0.340,0.000,0.000,0.000
1641235006832396032,2022-01-03-18:36:46,10.1.1.2,115,-0.350,-0.350,-0.350,0.000,0.000,0.000
1641235007031554816,2022-01-03-18:36:47,10.1.1.2,113,-0.360,-0.360,-0.360,0.000,0.000,0.000
