FedericoMungari/DigitalTwin_service/01_WiredScenario/Output/Output_script/script_rosapi_2_output_robots6_freq0_2.txt
timestamp,date,node,latency,joint_1,joint_2,joint_3,joint_4,joint_5,joint_6
1644905246647442944,2022-02-15-06:07:26,10.1.1.3,-6,-0.100,-0.100,-0.100,0.000,-0.000,0.000
1644905246727575040,2022-02-15-06:07:26,10.1.1.3,24,-0.090,-0.090,-0.090,0.000,0.000,0.000
1644905246787558912,2022-02-15-06:07:26,10.1.1.3,33,-0.080,-0.080,-0.080,0.000,0.000,0.000
1644905246826445056,2022-02-15-06:07:26,10.1.1.3,23,-0.070,-0.070,-0.070,0.000,0.000,0.000
1644905246888989952,2022-02-15-06:07:26,10.1.1.3,32,-0.060,-0.060,-0.060,0.000,0.000,0.000
1644905246931063808,2022-02-15-06:07:26,10.1.1.3,22,-0.050,-0.050,-0.050,0.000,0.000,0.000
1644905246987811072,2022-02-15-06:07:26,10.1.1.3,32,-0.040,-0.040,-0.040,0.000,0.000,0.000
1644905247028275968,2022-02-15-06:07:27,10.1.1.3,22,-0.030,-0.030,-0.030,0.000,0.000,0.000
1644905247088361984,2022-02-15-06:07:27,10.1.1.3,31,-0.020,-0.020,-0.020,0.000,0.000,0.000
1644905247126929152,2022-02-15-06:07:27,10.1.1.3,20,-0.010,-0.010,-0.010,0.000,0.000,0.000
1644905247186445056,2022-02-15-06:07:27,10.1.1.3,30,0.000,0.000,0.000,0.000,0.000,0.000
1644905247227205888,2022-02-15-06:07:27,10.1.1.3,19,0.010,0.010,0.010,0.000,0.000,0.000
1644905247286742016,2022-02-15-06:07:27,10.1.1.3,29,0.020,0.020,0.020,0.000,0.000,0.000
1644905247347640064,2022-02-15-06:07:27,10.1.1.3,38,0.030,0.030,0.030,0.000,0.000,0.000
1644905247387297024,2022-02-15-06:07:27,10.1.1.3,28,0.040,0.040,0.040,0.000,0.000,0.000
1644905247446728960,2022-02-15-06:07:27,10.1.1.3,37,0.050,0.050,0.050,0.000,0.000,0.000
1644905247486402048,2022-02-15-06:07:27,10.1.1.3,27,0.060,0.060,0.060,0.000,0.000,0.000
1644905247546365952,2022-02-15-06:07:27,10.1.1.3,36,0.070,0.070,0.070,0.000,0.000,0.000
1644905247586268928,2022-02-15-06:07:27,10.1.1.3,26,0.080,0.080,0.080,0.000,0.000,0.000
1644905247646401792,2022-02-15-06:07:27,10.1.1.3,35,0.090,0.090,0.090,0.000,0.000,0.000
1644905247706507008,2022-02-15-06:07:27,10.1.1.3,45,0.100,0.100,0.100,0.000,0.000,0.000
1644905247746476032,2022-02-15-06:07:27,10.1.1.3,34,0.090,0.090,0.090,0.000,0.000,0.000
1644905247786354944,2022-02-15-06:07:27,10.1.1.3,23,0.080,0.080,0.080,0.000,0.000,0.000
1644905247847163904,2022-02-15-06:07:27,10.1.1.3,33,0.070,0.070,0.070,0.000,0.000,0.000
1644905247886054144,2022-02-15-06:07:27,10.1.1.3,22,0.060,0.060,0.060,0.000,0.000,0.000
1644905247946038016,2022-02-15-06:07:27,10.1.1.3,32,0.050,0.050,0.050,0.000,0.000,0.000
1644905247986823936,2022-02-15-06:07:27,10.1.1.3,21,0.040,0.040,0.040,0.000,0.000,0.000
1644905248047729920,2022-02-15-06:07:28,10.1.1.3,31,0.030,0.030,0.030,0.000,0.000,0.000
1644905248086563072,2022-02-15-06:07:28,10.1.1.3,20,0.020,0.020,0.020,0.000,0.000,0.000
1644905248146082048,2022-02-15-06:07:28,10.1.1.3,29,0.010,0.010,0.010,0.000,0.000,0.000
1644905248186068992,2022-02-15-06:07:28,10.1.1.3,19,0.001,0.001,0.001,0.000,0.000,0.000
1644905248246206976,2022-02-15-06:07:28,10.1.1.3,28,-0.010,-0.010,-0.010,0.000,0.000,0.000
1644905248306093056,2022-02-15-06:07:28,10.1.1.3,37,-0.020,-0.020,-0.020,0.000,0.000,0.000
1644905248346530816,2022-02-15-06:07:28,10.1.1.3,27,-0.030,-0.030,-0.030,0.000,0.000,0.000
1644905248406863872,2022-02-15-06:07:28,10.1.1.3,36,-0.040,-0.040,-0.040,0.000,0.000,0.000
1644905248446501120,2022-02-15-06:07:28,10.1.1.3,26,-0.050,-0.050,-0.050,0.000,0.000,0.000
1644905248506490112,2022-02-15-06:07:28,10.1.1.3,35,-0.060,-0.060,-0.060,0.000,0.000,0.000
1644905248546930176,2022-02-15-06:07:28,10.1.1.3,24,-0.070,-0.070,-0.070,0.000,0.000,0.000
1644905248606897152,2022-02-15-06:07:28,10.1.1.3,33,-0.080,-0.080,-0.080,0.000,0.000,0.000
1644905248646304000,2022-02-15-06:07:28,10.1.1.3,23,-0.090,-0.090,-0.090,0.000,0.000,0.000
1644905248706657792,2022-02-15-06:07:28,10.1.1.3,33,-0.100,-0.100,-0.100,0.000,0.000,0.000
1644905248746611200,2022-02-15-06:07:28,10.1.1.3,22,-0.090,-0.090,-0.090,0.000,0.000,0.000
1644905248806814976,2022-02-15-06:07:28,10.1.1.3,32,-0.080,-0.080,-0.080,0.000,0.000,0.000
1644905248846743040,2022-02-15-06:07:28,10.1.1.3,21,-0.070,-0.070,-0.070,0.000,0.000,0.000
1644905248906380800,2022-02-15-06:07:28,10.1.1.3,30,-0.060,-0.060,-0.060,0.000,0.000,0.000
1644905248945977088,2022-02-15-06:07:28,10.1.1.3,19,-0.051,-0.051,-0.051,0.000,0.000,0.000
1644905249006373888,2022-02-15-06:07:29,10.1.1.3,28,-0.040,-0.040,-0.040,0.000,0.000,0.000
1644905249066481152,2022-02-15-06:07:29,10.1.1.3,37,-0.030,-0.030,-0.030,0.000,0.000,0.000
1644905249119163904,2022-02-15-06:07:29,10.1.1.3,26,-0.020,-0.020,-0.020,0.000,0.000,0.000
1644905249227443968,2022-02-15-06:07:29,10.1.1.3,24,0.000,0.000,0.000,0.000,0.000,0.000
1644905249288784896,2022-02-15-06:07:29,10.1.1.3,32,0.010,0.010,0.010,0.000,0.000,0.000
1644905249326240000,2022-02-15-06:07:29,10.1.1.3,22,0.020,0.020,0.020,0.000,0.000,0.000
1644905249386724864,2022-02-15-06:07:29,10.1.1.3,31,0.030,0.030,0.030,0.000,0.000,0.000
1644905249447442176,2022-02-15-06:07:29,10.1.1.3,41,0.040,0.040,0.040,0.000,0.000,0.000
1644905249487025920,2022-02-15-06:07:29,10.1.1.3,29,0.050,0.050,0.050,0.000,0.000,0.000
1644905249547354880,2022-02-15-06:07:29,10.1.1.3,38,0.060,0.060,0.060,0.000,0.000,0.000
1644905249586607872,2022-02-15-06:07:29,10.1.1.3,27,0.070,0.070,0.070,0.000,0.000,0.000
1644905249646362112,2022-02-15-06:07:29,10.1.1.3,36,0.080,0.080,0.080,0.000,0.000,0.000
1644905249687813888,2022-02-15-06:07:29,10.1.1.3,26,0.090,0.090,0.090,0.000,0.000,0.000
1644905249747678976,2022-02-15-06:07:29,10.1.1.3,35,0.100,0.100,0.100,0.000,0.000,0.000
1644905249787281152,2022-02-15-06:07:29,10.1.1.3,24,0.090,0.090,0.090,0.000,0.000,0.000
1644905249846298880,2022-02-15-06:07:29,10.1.1.3,34,0.080,0.080,0.080,0.000,0.000,0.000
1644905249886696960,2022-02-15-06:07:29,10.1.1.3,23,0.070,0.070,0.070,0.000,0.000,0.000
1644905249946630912,2022-02-15-06:07:29,10.1.1.3,32,0.060,0.060,0.060,0.000,0.000,0.000
1644905249987202816,2022-02-15-06:07:29,10.1.1.3,21,0.050,0.050,0.050,0.000,0.000,0.000
1644905250046554112,2022-02-15-06:07:30,10.1.1.3,30,0.040,0.040,0.040,0.000,0.000,0.000
1644905250086457088,2022-02-15-06:07:30,10.1.1.3,20,0.030,0.030,0.030,0.000,0.000,0.000
1644905250146543104,2022-02-15-06:07:30,10.1.1.3,29,0.020,0.020,0.020,0.000,0.000,0.000
1644905250206549760,2022-02-15-06:07:30,10.1.1.3,38,0.010,0.010,0.010,0.000,0.000,0.000
1644905250246493184,2022-02-15-06:07:30,10.1.1.3,27,0.000,0.000,0.000,0.000,0.000,0.000
1644905250306076160,2022-02-15-06:07:30,10.1.1.3,37,-0.010,-0.010,-0.010,0.000,0.000,0.000
1644905250348403968,2022-02-15-06:07:30,10.1.1.3,26,-0.020,-0.020,-0.020,0.000,0.000,0.000
1644905250406233088,2022-02-15-06:07:30,10.1.1.3,35,-0.030,-0.030,-0.030,0.000,0.000,0.000
1644905250446702080,2022-02-15-06:07:30,10.1.1.3,24,-0.040,-0.040,-0.040,0.000,0.000,0.000
1644905250506327040,2022-02-15-06:07:30,10.1.1.3,32,-0.050,-0.050,-0.050,0.000,0.000,0.000
1644905250546798080,2022-02-15-06:07:30,10.1.1.3,21,-0.060,-0.060,-0.060,0.000,0.000,0.000
1644905250606561792,2022-02-15-06:07:30,10.1.1.3,31,-0.070,-0.070,-0.070,0.000,0.000,0.000
1644905250646820096,2022-02-15-06:07:30,10.1.1.3,20,-0.080,-0.080,-0.080,0.000,0.000,0.000
1644905250706456832,2022-02-15-06:07:30,10.1.1.3,29,-0.090,-0.090,-0.090,0.000,0.000,0.000
1644905250767399168,2022-02-15-06:07:30,10.1.1.3,39,-0.100,-0.100,-0.100,0.000,0.000,0.000
1644905250807211008,2022-02-15-06:07:30,10.1.1.3,25,-0.090,-0.090,-0.090,0.000,0.000,0.000
1644905250867200000,2022-02-15-06:07:30,10.1.1.3,34,-0.080,-0.080,-0.080,0.000,0.000,0.000
1644905250906289152,2022-02-15-06:07:30,10.1.1.3,23,-0.070,-0.070,-0.070,0.000,0.000,0.000
1644905250966846976,2022-02-15-06:07:30,10.1.1.3,33,-0.060,-0.060,-0.060,0.000,0.000,0.000
1644905251027427840,2022-02-15-06:07:31,10.1.1.3,36,-0.050,-0.050,-0.050,0.000,0.000,0.000
1644905251067564032,2022-02-15-06:07:31,10.1.1.3,26,-0.040,-0.040,-0.040,0.000,0.000,0.000
1644905251170334976,2022-02-15-06:07:31,10.1.1.3,19,-0.020,-0.020,-0.020,0.000,0.000,0.000
1644905251236397056,2022-02-15-06:07:31,10.1.1.3,28,-0.010,-0.010,-0.010,0.000,0.000,0.000
1644905251291440896,2022-02-15-06:07:31,10.1.1.3,38,0.000,0.000,0.000,0.000,0.000,0.000
1644905251327752960,2022-02-15-06:07:31,10.1.1.3,25,0.010,0.010,0.010,0.000,0.000,0.000
1644905251376760832,2022-02-15-06:07:31,10.1.1.3,24,0.020,0.020,0.020,0.000,0.000,0.000
1644905251427820800,2022-02-15-06:07:31,10.1.1.3,21,0.030,0.030,0.030,0.000,0.000,0.000
1644905251477891840,2022-02-15-06:07:31,10.1.1.3,19,0.039,0.039,0.039,0.000,0.000,0.000
1644905251548176896,2022-02-15-06:07:31,10.1.1.3,37,0.050,0.050,0.050,0.000,0.000,0.000
1644905251586906880,2022-02-15-06:07:31,10.1.1.3,26,0.060,0.060,0.060,0.000,0.000,0.000
1644905251647883008,2022-02-15-06:07:31,10.1.1.3,34,0.070,0.070,0.070,0.000,0.000,0.000
1644905251689854976,2022-02-15-06:07:31,10.1.1.3,23,0.080,0.080,0.080,0.000,0.000,0.000
1644905251747436032,2022-02-15-06:07:31,10.1.1.3,31,0.090,0.090,0.090,0.000,0.000,0.000
1644905251787817984,2022-02-15-06:07:31,10.1.1.3,21,0.100,0.100,0.100,0.000,0.000,0.000
1644905251847672832,2022-02-15-06:07:31,10.1.1.3,30,0.090,0.090,0.090,0.000,0.000,0.000
1644905251913441024,2022-02-15-06:07:31,10.1.1.3,38,0.080,0.080,0.080,0.000,0.000,0.000
1644905251947458048,2022-02-15-06:07:31,10.1.1.3,27,0.070,0.070,0.070,0.000,0.000,0.000
1644905252008578048,2022-02-15-06:07:32,10.1.1.3,35,0.060,0.060,0.060,0.000,0.000,0.000
1644905252048783104,2022-02-15-06:07:32,10.1.1.3,23,0.050,0.050,0.050,0.000,0.000,0.000
1644905252107027968,2022-02-15-06:07:32,10.1.1.3,33,0.040,0.040,0.040,0.000,0.000,0.000
1644905252148451072,2022-02-15-06:07:32,10.1.1.3,22,0.030,0.030,0.030,0.000,0.000,0.000
1644905252208435968,2022-02-15-06:07:32,10.1.1.3,28,0.020,0.020,0.020,0.000,0.000,0.000
1644905252267460096,2022-02-15-06:07:32,10.1.1.3,37,0.010,0.010,0.010,0.000,0.000,0.000
1644905252306721024,2022-02-15-06:07:32,10.1.1.3,25,0.000,0.000,0.000,0.000,0.000,0.000
1644905252367439872,2022-02-15-06:07:32,10.1.1.3,34,-0.010,-0.010,-0.010,0.000,0.000,0.000
1644905252407635968,2022-02-15-06:07:32,10.1.1.3,23,-0.020,-0.020,-0.020,0.000,0.000,0.000
1644905252469240832,2022-02-15-06:07:32,10.1.1.3,32,-0.030,-0.030,-0.030,0.000,0.000,0.000
1644905252529292032,2022-02-15-06:07:32,10.1.1.3,39,-0.040,-0.040,-0.040,0.000,0.000,0.000
1644905252570128896,2022-02-15-06:07:32,10.1.1.3,26,-0.050,-0.050,-0.050,0.000,0.000,0.000
1644905252627405824,2022-02-15-06:07:32,10.1.1.3,35,-0.060,-0.060,-0.060,0.000,0.000,0.000
1644905252729729792,2022-02-15-06:07:32,10.1.1.3,27,-0.080,-0.080,-0.080,0.000,0.000,0.000
1644905252866897152,2022-02-15-06:07:32,10.1.1.3,-1,-0.090,-0.090,-0.090,0.000,0.000,0.000
1644905252947581952,2022-02-15-06:07:32,10.1.1.3,26,-0.080,-0.080,-0.080,0.000,0.000,0.000
1644905253006728960,2022-02-15-06:07:33,10.1.1.3,35,-0.070,-0.070,-0.070,0.000,0.000,0.000
1644905253047333120,2022-02-15-06:07:33,10.1.1.3,21,-0.060,-0.060,-0.060,0.000,0.000,0.000
1644905253109683968,2022-02-15-06:07:33,10.1.1.3,29,-0.050,-0.050,-0.050,0.000,0.000,0.000
1644905253169233152,2022-02-15-06:07:33,10.1.1.3,36,-0.040,-0.040,-0.040,0.000,0.000,0.000
1644905253226633984,2022-02-15-06:07:33,10.1.1.3,44,-0.030,-0.030,-0.030,0.000,0.000,0.000
1644905253257217024,2022-02-15-06:07:33,10.1.1.3,22,-0.020,-0.020,-0.020,0.000,0.000,0.000
1644905253307912960,2022-02-15-06:07:33,10.1.1.3,21,-0.010,-0.010,-0.010,0.000,0.000,0.000
1644905253366718976,2022-02-15-06:07:33,10.1.1.3,30,0.000,0.000,0.000,0.000,0.000,0.000
1644905253427275008,2022-02-15-06:07:33,10.1.1.3,38,0.010,0.010,0.010,0.000,0.000,0.000
1644905253469374976,2022-02-15-06:07:33,10.1.1.3,28,0.020,0.020,0.020,0.000,0.000,0.000
1644905253528678912,2022-02-15-06:07:33,10.1.1.3,37,0.030,0.030,0.030,0.000,0.000,0.000
1644905253567444992,2022-02-15-06:07:33,10.1.1.3,26,0.040,0.040,0.040,0.000,0.000,0.000
1644905253628329984,2022-02-15-06:07:33,10.1.1.3,35,0.050,0.050,0.050,0.000,0.000,0.000
1644905253671721984,2022-02-15-06:07:33,10.1.1.3,24,0.060,0.060,0.060,0.000,0.000,0.000
1644905253727219968,2022-02-15-06:07:33,10.1.1.3,32,0.070,0.070,0.070,0.000,0.000,0.000
1644905253767076096,2022-02-15-06:07:33,10.1.1.3,21,0.080,0.080,0.080,0.000,0.000,0.000
1644905253828881152,2022-02-15-06:07:33,10.1.1.3,28,0.090,0.090,0.090,0.000,0.000,0.000
1644905253897124096,2022-02-15-06:07:33,10.1.1.3,-15,0.100,0.100,0.100,0.000,0.000,0.000
1644905253987833088,2022-02-15-06:07:33,10.1.1.3,31,0.080,0.080,0.080,0.000,0.000,0.000
1644905254029700096,2022-02-15-06:07:34,10.1.1.3,21,0.070,0.070,0.070,0.000,0.000,0.000
1644905254094202880,2022-02-15-06:07:34,10.1.1.3,30,0.060,0.060,0.060,0.000,0.000,0.000
1644905254148164864,2022-02-15-06:07:34,10.1.1.3,38,0.050,0.050,0.050,0.000,0.000,0.000
1644905254187194112,2022-02-15-06:07:34,10.1.1.3,26,0.040,0.040,0.040,0.000,0.000,0.000
1644905254247522048,2022-02-15-06:07:34,10.1.1.3,35,0.030,0.030,0.030,0.000,0.000,0.000
1644905254291058944,2022-02-15-06:07:34,10.1.1.3,23,0.020,0.020,0.020,0.000,0.000,0.000
1644905254347493888,2022-02-15-06:07:34,10.1.1.3,26,0.010,0.010,0.010,0.000,0.000,0.000
1644905254406840064,2022-02-15-06:07:34,10.1.1.3,34,0.000,0.000,0.000,0.000,0.000,0.000
1644905254447296000,2022-02-15-06:07:34,10.1.1.3,21,-0.010,-0.010,-0.010,0.000,0.000,0.000
1644905254508200960,2022-02-15-06:07:34,10.1.1.3,31,-0.020,-0.020,-0.020,0.000,0.000,0.000
1644905254547646976,2022-02-15-06:07:34,10.1.1.3,20,-0.030,-0.030,-0.030,0.000,0.000,0.000
1644905254608176896,2022-02-15-06:07:34,10.1.1.3,29,-0.040,-0.040,-0.040,0.000,0.000,0.000
1644905254670196992,2022-02-15-06:07:34,10.1.1.3,37,-0.050,-0.050,-0.050,0.000,0.000,0.000
1644905254728338944,2022-02-15-06:07:34,10.1.1.3,20,-0.060,-0.060,-0.060,0.000,0.000,0.000
1644905254766667008,2022-02-15-06:07:34,10.1.1.3,27,-0.070,-0.070,-0.070,0.000,0.000,0.000
1644905254830810112,2022-02-15-06:07:34,10.1.1.3,33,-0.080,-0.080,-0.080,0.000,0.000,0.000
1644905254868130048,2022-02-15-06:07:34,10.1.1.3,22,-0.090,-0.090,-0.090,0.000,0.000,0.000
1644905254927576064,2022-02-15-06:07:34,10.1.1.3,30,-0.100,-0.100,-0.100,0.000,0.000,0.000
1644905254989207040,2022-02-15-06:07:34,10.1.1.3,32,-0.090,-0.090,-0.090,0.000,0.000,0.000
1644905255048145920,2022-02-15-06:07:35,10.1.1.3,31,-0.080,-0.080,-0.080,0.000,0.000,0.000
1644905255090002944,2022-02-15-06:07:35,10.1.1.3,19,-0.071,-0.071,-0.071,0.000,0.000,0.000
1644905255148228864,2022-02-15-06:07:35,10.1.1.3,25,-0.060,-0.060,-0.060,0.000,0.000,0.000
1644905255206889984,2022-02-15-06:07:35,10.1.1.3,33,-0.050,-0.050,-0.050,0.000,0.000,0.000
1644905255268801024,2022-02-15-06:07:35,10.1.1.3,37,-0.040,-0.040,-0.040,0.000,0.000,0.000
1644905255312692992,2022-02-15-06:07:35,10.1.1.3,25,-0.030,-0.030,-0.030,0.000,0.000,0.000
1644905255366578944,2022-02-15-06:07:35,10.1.1.3,33,-0.020,-0.020,-0.020,0.000,0.000,0.000
1644905255408294912,2022-02-15-06:07:35,10.1.1.3,22,-0.010,-0.010,-0.010,0.000,0.000,0.000
1644905255466656000,2022-02-15-06:07:35,10.1.1.3,31,0.000,0.000,0.000,0.000,0.000,0.000
1644905255506714112,2022-02-15-06:07:35,10.1.1.3,21,0.010,0.010,0.010,0.000,0.000,0.000
1644905255566690816,2022-02-15-06:07:35,10.1.1.3,30,0.020,0.020,0.020,0.000,0.000,0.000
1644905255608203008,2022-02-15-06:07:35,10.1.1.3,19,0.030,0.030,0.030,0.000,0.000,0.000
1644905255667977984,2022-02-15-06:07:35,10.1.1.3,29,0.040,0.040,0.040,0.000,0.000,0.000
1644905255727063040,2022-02-15-06:07:35,10.1.1.3,36,0.050,0.050,0.050,0.000,0.000,0.000
1644905255767008000,2022-02-15-06:07:35,10.1.1.3,26,0.060,0.060,0.060,0.000,0.000,0.000
1644905255827471872,2022-02-15-06:07:35,10.1.1.3,35,0.070,0.070,0.070,0.000,0.000,0.000
1644905255868259072,2022-02-15-06:07:35,10.1.1.3,24,0.080,0.080,0.080,0.000,0.000,0.000
1644905255928481024,2022-02-15-06:07:35,10.1.1.3,32,0.090,0.090,0.090,0.000,0.000,0.000
1644905255968007936,2022-02-15-06:07:35,10.1.1.3,21,0.100,0.100,0.100,0.000,0.000,0.000
1644905256027624960,2022-02-15-06:07:36,10.1.1.3,29,0.090,0.090,0.090,0.000,0.000,0.000
1644905256088980992,2022-02-15-06:07:36,10.1.1.3,38,0.080,0.080,0.080,0.000,0.000,0.000
1644905256127878912,2022-02-15-06:07:36,10.1.1.3,26,0.070,0.070,0.070,0.000,0.000,0.000
1644905256187854080,2022-02-15-06:07:36,10.1.1.3,35,0.060,0.060,0.060,0.000,0.000,0.000
1644905256227997952,2022-02-15-06:07:36,10.1.1.3,25,0.050,0.050,0.050,0.000,0.000,0.000
1644905256289722880,2022-02-15-06:07:36,10.1.1.3,34,0.040,0.040,0.040,0.000,0.000,0.000
1644905256327233024,2022-02-15-06:07:36,10.1.1.3,23,0.030,0.030,0.030,0.000,0.000,0.000
1644905256386830080,2022-02-15-06:07:36,10.1.1.3,32,0.020,0.020,0.020,0.000,0.000,0.000
1644905256429760000,2022-02-15-06:07:36,10.1.1.3,22,0.010,0.010,0.010,0.000,0.000,0.000
1644905256493181952,2022-02-15-06:07:36,10.1.1.3,31,0.000,0.000,0.000,0.000,0.000,0.000
1644905256528487936,2022-02-15-06:07:36,10.1.1.3,21,-0.010,-0.010,-0.010,0.000,0.000,0.000
1644905256646811904,2022-02-15-06:07:36,10.1.1.3,25,-0.030,-0.030,-0.030,0.000,0.000,0.000
1644905256707171072,2022-02-15-06:07:36,10.1.1.3,32,-0.040,-0.040,-0.040,0.000,0.000,0.000
1644905256747347968,2022-02-15-06:07:36,10.1.1.3,22,-0.050,-0.050,-0.050,0.000,0.000,0.000
1644905256807404032,2022-02-15-06:07:36,10.1.1.3,31,-0.060,-0.060,-0.060,0.000,0.000,0.000
1644905256846648064,2022-02-15-06:07:36,10.1.1.3,20,-0.070,-0.070,-0.070,0.000,0.000,0.000
1644905256906546176,2022-02-15-06:07:36,10.1.1.3,29,-0.080,-0.080,-0.080,0.000,0.000,0.000
1644905256967673088,2022-02-15-06:07:36,10.1.1.3,37,-0.090,-0.090,-0.090,0.000,0.000,0.000
1644905257007862016,2022-02-15-06:07:37,10.1.1.3,27,-0.100,-0.100,-0.100,0.000,0.000,0.000
1644905257067122944,2022-02-15-06:07:37,10.1.1.3,36,-0.090,-0.090,-0.090,0.000,0.000,0.000
1644905257107920896,2022-02-15-06:07:37,10.1.1.3,24,-0.080,-0.080,-0.080,0.000,0.000,0.000
1644905257169091840,2022-02-15-06:07:37,10.1.1.3,33,-0.070,-0.070,-0.070,0.000,0.000,0.000
1644905257208038144,2022-02-15-06:07:37,10.1.1.3,22,-0.060,-0.060,-0.060,0.000,0.000,0.000
1644905257266881024,2022-02-15-06:07:37,10.1.1.3,31,-0.050,-0.050,-0.050,0.000,0.000,0.000
1644905257307631872,2022-02-15-06:07:37,10.1.1.3,22,-0.040,-0.040,-0.040,0.000,0.000,0.000
1644905257368425984,2022-02-15-06:07:37,10.1.1.3,31,-0.030,-0.030,-0.030,0.000,0.000,0.000
1644905257417288960,2022-02-15-06:07:37,10.1.1.3,27,-0.020,-0.020,-0.020,0.000,0.000,0.000
1644905257467323904,2022-02-15-06:07:37,10.1.1.3,25,-0.010,-0.010,-0.010,0.000,0.000,0.000
1644905257528707072,2022-02-15-06:07:37,10.1.1.3,33,0.000,0.000,0.000,0.000,0.000,0.000
1644905257566920960,2022-02-15-06:07:37,10.1.1.3,22,0.010,0.010,0.010,0.000,0.000,0.000
1644905257629293824,2022-02-15-06:07:37,10.1.1.3,31,0.020,0.020,0.020,0.000,0.000,0.000
1644905257672113920,2022-02-15-06:07:37,10.1.1.3,21,0.030,0.030,0.030,0.000,0.000,0.000
1644905257729451776,2022-02-15-06:07:37,10.1.1.3,30,0.040,0.040,0.040,0.000,0.000,0.000
1644905257788825088,2022-02-15-06:07:37,10.1.1.3,38,0.050,0.050,0.050,0.000,0.000,0.000
1644905257827600128,2022-02-15-06:07:37,10.1.1.3,26,0.060,0.060,0.060,0.000,0.000,0.000
1644905257887968000,2022-02-15-06:07:37,10.1.1.3,35,0.070,0.070,0.070,0.000,0.000,0.000
1644905257937228032,2022-02-15-06:07:37,10.1.1.3,21,0.080,0.080,0.080,0.000,0.000,0.000
1644905257987034112,2022-02-15-06:07:37,10.1.1.3,29,0.090,0.090,0.090,0.000,0.000,0.000
1644905258048151040,2022-02-15-06:07:38,10.1.1.3,37,0.100,0.100,0.100,0.000,0.000,0.000
1644905258147165184,2022-02-15-06:07:38,10.1.1.3,35,0.080,0.080,0.080,0.000,0.000,0.000
1644905258187154944,2022-02-15-06:07:38,10.1.1.3,24,0.070,0.070,0.070,0.000,0.000,0.000
1644905258247730944,2022-02-15-06:07:38,10.1.1.3,34,0.060,0.060,0.060,0.000,0.000,0.000
1644905258288093184,2022-02-15-06:07:38,10.1.1.3,21,0.050,0.050,0.050,0.000,0.000,0.000
1644905258346981120,2022-02-15-06:07:38,10.1.1.3,31,0.040,0.040,0.040,0.000,0.000,0.000
1644905258386522112,2022-02-15-06:07:38,10.1.1.3,20,0.030,0.030,0.030,0.000,0.000,0.000
1644905258446572032,2022-02-15-06:07:38,10.1.1.3,30,0.020,0.020,0.020,0.000,0.000,0.000
1644905258506172928,2022-02-15-06:07:38,10.1.1.3,38,0.010,0.010,0.010,0.000,0.000,0.000
1644905258547458048,2022-02-15-06:07:38,10.1.1.3,28,0.000,0.000,0.000,0.000,0.000,0.000
1644905258607137792,2022-02-15-06:07:38,10.1.1.3,37,-0.010,-0.010,-0.010,0.000,0.000,0.000
1644905258647502848,2022-02-15-06:07:38,10.1.1.3,26,-0.020,-0.020,-0.020,0.000,0.000,0.000
1644905258706337024,2022-02-15-06:07:38,10.1.1.3,34,-0.030,-0.030,-0.030,0.000,0.000,0.000
1644905258747584000,2022-02-15-06:07:38,10.1.1.3,22,-0.040,-0.040,-0.040,0.000,0.000,0.000
1644905258807443968,2022-02-15-06:07:38,10.1.1.3,29,-0.050,-0.050,-0.050,0.000,0.000,0.000
1644905258867675904,2022-02-15-06:07:38,10.1.1.3,37,-0.060,-0.060,-0.060,0.000,0.000,0.000
1644905258906712064,2022-02-15-06:07:38,10.1.1.3,26,-0.070,-0.070,-0.070,0.000,0.000,0.000
1644905258966432000,2022-02-15-06:07:38,10.1.1.3,36,-0.080,-0.080,-0.080,0.000,0.000,0.000
1644905259007124992,2022-02-15-06:07:39,10.1.1.3,24,-0.090,-0.090,-0.090,0.000,0.000,0.000
1644905259066540032,2022-02-15-06:07:39,10.1.1.3,33,-0.100,-0.100,-0.100,0.000,0.000,0.000
1644905259108089856,2022-02-15-06:07:39,10.1.1.3,22,-0.090,-0.090,-0.090,0.000,0.000,0.000
1644905259167543808,2022-02-15-06:07:39,10.1.1.3,31,-0.080,-0.080,-0.080,0.000,0.000,0.000
1644905259206787072,2022-02-15-06:07:39,10.1.1.3,20,-0.070,-0.070,-0.070,0.000,0.000,0.000
1644905259266490880,2022-02-15-06:07:39,10.1.1.3,29,-0.060,-0.060,-0.060,0.000,0.000,0.000
1644905259327367936,2022-02-15-06:07:39,10.1.1.3,38,-0.050,-0.050,-0.050,0.000,0.000,0.000
1644905259368307200,2022-02-15-06:07:39,10.1.1.3,26,-0.040,-0.040,-0.040,0.000,0.000,0.000
1644905259429163008,2022-02-15-06:07:39,10.1.1.3,35,-0.030,-0.030,-0.030,0.000,0.000,0.000
1644905259468921856,2022-02-15-06:07:39,10.1.1.3,25,-0.020,-0.020,-0.020,0.000,0.000,0.000
1644905259526796032,2022-02-15-06:07:39,10.1.1.3,32,-0.010,-0.010,-0.010,0.000,0.000,0.000
1644905259567362048,2022-02-15-06:07:39,10.1.1.3,21,0.000,0.000,0.000,0.000,0.000,0.000
1644905259628189184,2022-02-15-06:07:39,10.1.1.3,28,0.010,0.010,0.010,0.000,0.000,0.000
1644905259689321984,2022-02-15-06:07:39,10.1.1.3,37,0.020,0.020,0.020,0.000,0.000,0.000
1644905259728497152,2022-02-15-06:07:39,10.1.1.3,26,0.030,0.030,0.030,0.000,0.000,0.000
1644905259789465856,2022-02-15-06:07:39,10.1.1.3,34,0.040,0.040,0.040,0.000,0.000,0.000
1644905259827905024,2022-02-15-06:07:39,10.1.1.3,24,0.050,0.050,0.050,0.000,0.000,0.000
1644905259888247040,2022-02-15-06:07:39,10.1.1.3,33,0.060,0.060,0.060,0.000,0.000,0.000
1644905259927952896,2022-02-15-06:07:39,10.1.1.3,22,0.070,0.070,0.070,0.000,0.000,0.000
1644905259987441152,2022-02-15-06:07:39,10.1.1.3,31,0.080,0.080,0.080,0.000,0.000,0.000
1644905260027354112,2022-02-15-06:07:40,10.1.1.3,21,0.090,0.090,0.090,0.000,0.000,0.000
1644905260093938176,2022-02-15-06:07:40,10.1.1.3,28,0.100,0.100,0.100,0.000,0.000,0.000
1644905260206841088,2022-02-15-06:07:40,10.1.1.3,34,0.080,0.080,0.080,0.000,0.000,0.000
1644905260247972096,2022-02-15-06:07:40,10.1.1.3,21,0.070,0.070,0.070,0.000,0.000,0.000
1644905260307984128,2022-02-15-06:07:40,10.1.1.3,29,0.060,0.060,0.060,0.000,0.000,0.000
1644905260367091968,2022-02-15-06:07:40,10.1.1.3,37,0.050,0.050,0.050,0.000,0.000,0.000
1644905260407885056,2022-02-15-06:07:40,10.1.1.3,26,0.040,0.040,0.040,0.000,0.000,0.000
1644905260466811904,2022-02-15-06:07:40,10.1.1.3,36,0.030,0.030,0.030,0.000,0.000,0.000
1644905260508744960,2022-02-15-06:07:40,10.1.1.3,25,0.020,0.020,0.020,0.000,0.000,0.000
1644905260567913984,2022-02-15-06:07:40,10.1.1.3,34,0.010,0.010,0.010,0.000,0.000,0.000
1644905260606971136,2022-02-15-06:07:40,10.1.1.3,22,0.000,0.000,0.000,0.000,0.000,0.000
1644905260666689024,2022-02-15-06:07:40,10.1.1.3,30,-0.010,-0.010,-0.010,0.000,0.000,0.000
1644905260706827008,2022-02-15-06:07:40,10.1.1.3,19,-0.020,-0.020,-0.020,0.000,0.000,0.000
1644905260766565120,2022-02-15-06:07:40,10.1.1.3,29,-0.030,-0.030,-0.030,0.000,0.000,0.000
1644905260826724096,2022-02-15-06:07:40,10.1.1.3,38,-0.040,-0.040,-0.040,0.000,0.000,0.000
1644905260866627072,2022-02-15-06:07:40,10.1.1.3,27,-0.050,-0.050,-0.050,0.000,0.000,0.000
1644905260928281088,2022-02-15-06:07:40,10.1.1.3,36,-0.060,-0.060,-0.060,0.000,0.000,0.000
1644905260966973952,2022-02-15-06:07:40,10.1.1.3,26,-0.070,-0.070,-0.070,0.000,0.000,0.000
1644905261027486208,2022-02-15-06:07:41,10.1.1.3,35,-0.080,-0.080,-0.080,0.000,0.000,0.000
1644905261067296000,2022-02-15-06:07:41,10.1.1.3,25,-0.090,-0.090,-0.090,0.000,0.000,0.000
1644905261127036928,2022-02-15-06:07:41,10.1.1.3,34,-0.100,-0.100,-0.100,0.000,0.000,0.000
1644905261167956224,2022-02-15-06:07:41,10.1.1.3,23,-0.090,-0.090,-0.090,0.000,0.000,0.000
1644905261226726144,2022-02-15-06:07:41,10.1.1.3,33,-0.080,-0.080,-0.080,0.000,0.000,0.000
1644905261268873984,2022-02-15-06:07:41,10.1.1.3,22,-0.070,-0.070,-0.070,0.000,0.000,0.000
1644905261368280832,2022-02-15-06:07:41,10.1.1.3,28,-0.060,-0.060,-0.060,0.000,0.000,0.000
1644905261428659968,2022-02-15-06:07:41,10.1.1.3,36,-0.050,-0.050,-0.050,0.000,0.000,0.000
1644905261468645120,2022-02-15-06:07:41,10.1.1.3,26,-0.040,-0.040,-0.040,0.000,0.000,0.000
1644905261517671168,2022-02-15-06:07:41,10.1.1.3,24,-0.030,-0.030,-0.030,0.000,0.000,0.000
1644905261567799040,2022-02-15-06:07:41,10.1.1.3,23,-0.020,-0.020,-0.020,0.000,0.000,0.000
1644905261627623168,2022-02-15-06:07:41,10.1.1.3,32,-0.010,-0.010,-0.010,0.000,0.000,0.000
1644905261668803840,2022-02-15-06:07:41,10.1.1.3,22,0.000,0.000,0.000,0.000,0.000,0.000
1644905261728401920,2022-02-15-06:07:41,10.1.1.3,32,0.010,0.010,0.010,0.000,0.000,0.000
1644905261788177920,2022-02-15-06:07:41,10.1.1.3,41,0.020,0.020,0.020,0.000,0.000,0.000
1644905261829047808,2022-02-15-06:07:41,10.1.1.3,30,0.030,0.030,0.030,0.000,0.000,0.000
1644905261868094976,2022-02-15-06:07:41,10.1.1.3,19,0.040,0.040,0.040,0.000,0.000,0.000
1644905261927862784,2022-02-15-06:07:41,10.1.1.3,29,0.050,0.050,0.050,0.000,0.000,0.000
1644905261986605824,2022-02-15-06:07:41,10.1.1.3,38,0.060,0.060,0.060,0.000,0.000,0.000
1644905262027281920,2022-02-15-06:07:42,10.1.1.3,27,0.070,0.070,0.070,0.000,0.000,0.000
1644905262088300032,2022-02-15-06:07:42,10.1.1.3,37,0.080,0.080,0.080,0.000,0.000,0.000
1644905262128972032,2022-02-15-06:07:42,10.1.1.3,27,0.090,0.090,0.090,0.000,0.000,0.000
1644905262187060224,2022-02-15-06:07:42,10.1.1.3,34,0.100,0.100,0.100,0.000,0.000,0.000
1644905262227237888,2022-02-15-06:07:42,10.1.1.3,24,0.090,0.090,0.090,0.000,0.000,0.000
1644905262286958080,2022-02-15-06:07:42,10.1.1.3,33,0.080,0.080,0.080,0.000,0.000,0.000
1644905262327811072,2022-02-15-06:07:42,10.1.1.3,22,0.070,0.070,0.070,0.000,0.000,0.000
1644905262387415808,2022-02-15-06:07:42,10.1.1.3,31,0.060,0.060,0.060,0.000,0.000,0.000
1644905262427508992,2022-02-15-06:07:42,10.1.1.3,19,0.050,0.050,0.050,0.000,0.000,0.000
1644905262488697088,2022-02-15-06:07:42,10.1.1.3,28,0.040,0.040,0.040,0.000,0.000,0.000
1644905262547079936,2022-02-15-06:07:42,10.1.1.3,37,0.030,0.030,0.030,0.000,0.000,0.000
1644905262586518016,2022-02-15-06:07:42,10.1.1.3,27,0.020,0.020,0.020,0.000,0.000,0.000
1644905262648505856,2022-02-15-06:07:42,10.1.1.3,34,0.010,0.010,0.010,0.000,0.000,0.000
1644905262688956928,2022-02-15-06:07:42,10.1.1.3,24,0.000,0.000,0.000,0.000,0.000,0.000
1644905262747788032,2022-02-15-06:07:42,10.1.1.3,33,-0.010,-0.010,-0.010,0.000,0.000,0.000
1644905262786947072,2022-02-15-06:07:42,10.1.1.3,22,-0.020,-0.020,-0.020,0.000,0.000,0.000
1644905262847335936,2022-02-15-06:07:42,10.1.1.3,31,-0.030,-0.030,-0.030,0.000,0.000,0.000
1644905262886321920,2022-02-15-06:07:42,10.1.1.3,21,-0.040,-0.040,-0.040,0.000,0.000,0.000
1644905262946577152,2022-02-15-06:07:42,10.1.1.3,29,-0.050,-0.050,-0.050,0.000,0.000,0.000
1644905263007266048,2022-02-15-06:07:43,10.1.1.3,39,-0.060,-0.060,-0.060,0.000,0.000,0.000
1644905263047211008,2022-02-15-06:07:43,10.1.1.3,28,-0.070,-0.070,-0.070,0.000,0.000,0.000
1644905263108551936,2022-02-15-06:07:43,10.1.1.3,37,-0.080,-0.080,-0.080,0.000,0.000,0.000
1644905263148099072,2022-02-15-06:07:43,10.1.1.3,26,-0.090,-0.090,-0.090,0.000,0.000,0.000
1644905263206838016,2022-02-15-06:07:43,10.1.1.3,36,-0.100,-0.100,-0.100,0.000,0.000,0.000
1644905263249017856,2022-02-15-06:07:43,10.1.1.3,25,-0.090,-0.090,-0.090,0.000,0.000,0.000
1644905263307895040,2022-02-15-06:07:43,10.1.1.3,35,-0.080,-0.080,-0.080,0.000,0.000,0.000
1644905263347138048,2022-02-15-06:07:43,10.1.1.3,23,-0.070,-0.070,-0.070,0.000,0.000,0.000
1644905263407220992,2022-02-15-06:07:43,10.1.1.3,32,-0.060,-0.060,-0.060,0.000,0.000,0.000
1644905263446300928,2022-02-15-06:07:43,10.1.1.3,22,-0.050,-0.050,-0.050,0.000,0.000,0.000
1644905263508060928,2022-02-15-06:07:43,10.1.1.3,31,-0.040,-0.040,-0.040,0.000,0.000,0.000
1644905263548540160,2022-02-15-06:07:43,10.1.1.3,20,-0.030,-0.030,-0.030,0.000,0.000,0.000
1644905263607741952,2022-02-15-06:07:43,10.1.1.3,30,-0.020,-0.020,-0.020,0.000,0.000,0.000
1644905263668230144,2022-02-15-06:07:43,10.1.1.3,38,-0.010,-0.010,-0.010,0.000,0.000,0.000
1644905263708729088,2022-02-15-06:07:43,10.1.1.3,28,0.000,0.000,0.000,0.000,0.000,0.000
1644905263809294848,2022-02-15-06:07:43,10.1.1.3,26,0.020,0.020,0.020,0.000,0.000,0.000
1644905263867924992,2022-02-15-06:07:43,10.1.1.3,35,0.030,0.030,0.030,0.000,0.000,0.000
1644905263906979072,2022-02-15-06:07:43,10.1.1.3,24,0.040,0.040,0.040,0.000,0.000,0.000
1644905263967235072,2022-02-15-06:07:43,10.1.1.3,34,0.050,0.050,0.050,0.000,0.000,0.000
1644905264007239168,2022-02-15-06:07:44,10.1.1.3,23,0.060,0.060,0.060,0.000,0.000,0.000
1644905264067343872,2022-02-15-06:07:44,10.1.1.3,32,0.070,0.070,0.070,0.000,0.000,0.000
1644905264107870208,2022-02-15-06:07:44,10.1.1.3,21,0.080,0.080,0.080,0.000,0.000,0.000
1644905264171749120,2022-02-15-06:07:44,10.1.1.3,31,0.090,0.090,0.090,0.000,0.000,0.000
1644905264207516928,2022-02-15-06:07:44,10.1.1.3,19,0.100,0.100,0.100,0.000,0.000,0.000
1644905264267396864,2022-02-15-06:07:44,10.1.1.3,28,0.090,0.090,0.090,0.000,0.000,0.000
1644905264317775104,2022-02-15-06:07:44,10.1.1.3,28,0.080,0.080,0.080,0.000,0.000,0.000
1644905264367998976,2022-02-15-06:07:44,10.1.1.3,28,0.070,0.070,0.070,0.000,0.000,0.000
1644905264431570176,2022-02-15-06:07:44,10.1.1.3,37,0.060,0.060,0.060,0.000,0.000,0.000
1644905264528104192,2022-02-15-06:07:44,10.1.1.3,36,0.040,0.040,0.040,0.000,0.000,0.000
1644905264568098048,2022-02-15-06:07:44,10.1.1.3,25,0.030,0.030,0.030,0.000,0.000,0.000
1644905264632250112,2022-02-15-06:07:44,10.1.1.3,33,0.020,0.020,0.020,0.000,0.000,0.000
1644905264669383168,2022-02-15-06:07:44,10.1.1.3,22,0.010,0.010,0.010,0.000,0.000,0.000
1644905264728233984,2022-02-15-06:07:44,10.1.1.3,32,0.000,0.000,0.000,0.000,0.000,0.000
1644905264788368896,2022-02-15-06:07:44,10.1.1.3,37,-0.010,-0.010,-0.010,0.000,0.000,0.000
1644905264828129024,2022-02-15-06:07:44,10.1.1.3,26,-0.020,-0.020,-0.020,0.000,0.000,0.000
1644905264890386176,2022-02-15-06:07:44,10.1.1.3,36,-0.030,-0.030,-0.030,0.000,0.000,0.000
1644905264928230144,2022-02-15-06:07:44,10.1.1.3,25,-0.040,-0.040,-0.040,0.000,0.000,0.000
1644905264988486144,2022-02-15-06:07:44,10.1.1.3,34,-0.050,-0.050,-0.050,0.000,0.000,0.000
1644905265032027904,2022-02-15-06:07:45,10.1.1.3,24,-0.060,-0.060,-0.060,0.000,0.000,0.000
1644905265089538048,2022-02-15-06:07:45,10.1.1.3,33,-0.070,-0.070,-0.070,0.000,0.000,0.000
1644905265141135872,2022-02-15-06:07:45,10.1.1.3,23,-0.080,-0.080,-0.080,0.000,0.000,0.000
1644905265247342080,2022-02-15-06:07:45,10.1.1.3,36,-0.100,-0.100,-0.100,0.000,0.000,0.000
1644905265289298176,2022-02-15-06:07:45,10.1.1.3,26,-0.090,-0.090,-0.090,0.000,0.000,0.000
1644905265348444928,2022-02-15-06:07:45,10.1.1.3,35,-0.080,-0.080,-0.080,0.000,0.000,0.000
1644905265392403968,2022-02-15-06:07:45,10.1.1.3,24,-0.070,-0.070,-0.070,0.000,0.000,0.000
1644905265450680064,2022-02-15-06:07:45,10.1.1.3,34,-0.060,-0.060,-0.060,0.000,0.000,0.000
1644905265506526976,2022-02-15-06:07:45,10.1.1.3,42,-0.050,-0.050,-0.050,0.000,0.000,0.000
1644905265537089024,2022-02-15-06:07:45,10.1.1.3,21,-0.040,-0.040,-0.040,0.000,0.000,0.000
1644905265586711040,2022-02-15-06:07:45,10.1.1.3,19,-0.030,-0.030,-0.030,0.000,0.000,0.000
1644905265646918144,2022-02-15-06:07:45,10.1.1.3,29,-0.020,-0.020,-0.020,0.000,0.000,0.000
1644905265707065088,2022-02-15-06:07:45,10.1.1.3,38,-0.010,-0.010,-0.010,0.000,0.000,0.000
1644905265747111168,2022-02-15-06:07:45,10.1.1.3,27,0.000,0.000,0.000,0.000,0.000,0.000
1644905265807985920,2022-02-15-06:07:45,10.1.1.3,37,0.010,0.010,0.010,0.000,0.000,0.000
1644905265847548928,2022-02-15-06:07:45,10.1.1.3,25,0.020,0.020,0.020,0.000,0.000,0.000
1644905265908142080,2022-02-15-06:07:45,10.1.1.3,34,0.030,0.030,0.030,0.000,0.000,0.000
1644905265946715136,2022-02-15-06:07:45,10.1.1.3,23,0.040,0.040,0.040,0.000,0.000,0.000
1644905266006532864,2022-02-15-06:07:46,10.1.1.3,32,0.050,0.050,0.050,0.000,0.000,0.000
1644905266047090176,2022-02-15-06:07:46,10.1.1.3,22,0.060,0.060,0.060,0.000,0.000,0.000
1644905266106904064,2022-02-15-06:07:46,10.1.1.3,31,0.070,0.070,0.070,0.000,0.000,0.000
1644905266147995904,2022-02-15-06:07:46,10.1.1.3,21,0.080,0.080,0.080,0.000,0.000,0.000
1644905266207395072,2022-02-15-06:07:46,10.1.1.3,30,0.090,0.090,0.090,0.000,0.000,0.000
1644905266249291776,2022-02-15-06:07:46,10.1.1.3,20,0.100,0.100,0.100,0.000,0.000,0.000
1644905266307022080,2022-02-15-06:07:46,10.1.1.3,29,0.090,0.090,0.090,0.000,0.000,0.000
1644905266357032960,2022-02-15-06:07:46,10.1.1.3,28,0.080,0.080,0.080,0.000,0.000,0.000
1644905266407342848,2022-02-15-06:07:46,10.1.1.3,27,0.070,0.070,0.070,0.000,0.000,0.000
1644905266467567872,2022-02-15-06:07:46,10.1.1.3,37,0.060,0.060,0.060,0.000,0.000,0.000
1644905266506544128,2022-02-15-06:07:46,10.1.1.3,26,0.050,0.050,0.050,0.000,0.000,0.000
1644905266567881984,2022-02-15-06:07:46,10.1.1.3,34,0.040,0.040,0.040,0.000,0.000,0.000
1644905266606926080,2022-02-15-06:07:46,10.1.1.3,23,0.030,0.030,0.030,0.000,0.000,0.000
1644905266668654848,2022-02-15-06:07:46,10.1.1.3,32,0.020,0.020,0.020,0.000,0.000,0.000
1644905266707914240,2022-02-15-06:07:46,10.1.1.3,22,0.010,0.010,0.010,0.000,0.000,0.000
1644905266768375040,2022-02-15-06:07:46,10.1.1.3,31,0.000,0.000,0.000,0.000,0.000,0.000
1644905266806682112,2022-02-15-06:07:46,10.1.1.3,20,-0.010,-0.010,-0.010,0.000,0.000,0.000
1644905266867352064,2022-02-15-06:07:46,10.1.1.3,29,-0.020,-0.020,-0.020,0.000,0.000,0.000
1644905266918801920,2022-02-15-06:07:46,10.1.1.3,29,-0.030,-0.030,-0.030,0.000,0.000,0.000
1644905266968013056,2022-02-15-06:07:46,10.1.1.3,28,-0.040,-0.040,-0.040,0.000,0.000,0.000
1644905267026656000,2022-02-15-06:07:47,10.1.1.3,36,-0.050,-0.050,-0.050,0.000,0.000,0.000
1644905267067114240,2022-02-15-06:07:47,10.1.1.3,26,-0.060,-0.060,-0.060,0.000,0.000,0.000
1644905267126429952,2022-02-15-06:07:47,10.1.1.3,35,-0.070,-0.070,-0.070,0.000,0.000,0.000
1644905267167457024,2022-02-15-06:07:47,10.1.1.3,24,-0.080,-0.080,-0.080,0.000,0.000,0.000
1644905267227440128,2022-02-15-06:07:47,10.1.1.3,33,-0.090,-0.090,-0.090,0.000,0.000,0.000
1644905267368935168,2022-02-15-06:07:47,10.1.1.3,20,-0.080,-0.080,-0.080,0.000,0.000,0.000
1644905267428101120,2022-02-15-06:07:47,10.1.1.3,29,-0.070,-0.070,-0.070,0.000,0.000,0.000
1644905267469330176,2022-02-15-06:07:47,10.1.1.3,19,-0.061,-0.061,-0.061,0.000,0.000,0.000
1644905267528893952,2022-02-15-06:07:47,10.1.1.3,28,-0.050,-0.050,-0.050,0.000,0.000,0.000
1644905267589572864,2022-02-15-06:07:47,10.1.1.3,37,-0.040,-0.040,-0.040,0.000,0.000,0.000
1644905267628189952,2022-02-15-06:07:47,10.1.1.3,26,-0.030,-0.030,-0.030,0.000,0.000,0.000
1644905267690115840,2022-02-15-06:07:47,10.1.1.3,36,-0.020,-0.020,-0.020,0.000,0.000,0.000
1644905267728900864,2022-02-15-06:07:47,10.1.1.3,25,-0.010,-0.010,-0.010,0.000,0.000,0.000
1644905267790461184,2022-02-15-06:07:47,10.1.1.3,34,0.000,0.000,0.000,0.000,0.000,0.000
1644905267832084992,2022-02-15-06:07:47,10.1.1.3,23,0.010,0.010,0.010,0.000,0.000,0.000
1644905267891058944,2022-02-15-06:07:47,10.1.1.3,32,0.020,0.020,0.020,0.000,0.000,0.000
1644905267929797888,2022-02-15-06:07:47,10.1.1.3,22,0.030,0.030,0.030,0.000,0.000,0.000
1644905267987484928,2022-02-15-06:07:47,10.1.1.3,31,0.040,0.040,0.040,0.000,0.000,0.000
1644905268047873024,2022-02-15-06:07:48,10.1.1.3,39,0.050,0.050,0.050,0.000,0.000,0.000
1644905268087867136,2022-02-15-06:07:48,10.1.1.3,28,0.060,0.060,0.060,0.000,0.000,0.000
1644905268147664128,2022-02-15-06:07:48,10.1.1.3,38,0.070,0.070,0.070,0.000,0.000,0.000
1644905268186923008,2022-02-15-06:07:48,10.1.1.3,25,0.080,0.080,0.080,0.000,0.000,0.000
1644905268236881920,2022-02-15-06:07:48,10.1.1.3,22,0.090,0.090,0.090,0.000,0.000,0.000
1644905268288760832,2022-02-15-06:07:48,10.1.1.3,21,0.100,0.100,0.100,0.000,0.000,0.000
1644905268347251968,2022-02-15-06:07:48,10.1.1.3,31,0.090,0.090,0.090,0.000,0.000,0.000
1644905268386253056,2022-02-15-06:07:48,10.1.1.3,20,0.080,0.080,0.080,0.000,0.000,0.000
1644905268446633984,2022-02-15-06:07:48,10.1.1.3,28,0.070,0.070,0.070,0.000,0.000,0.000
1644905268507908096,2022-02-15-06:07:48,10.1.1.3,37,0.060,0.060,0.060,0.000,0.000,0.000
1644905268548823040,2022-02-15-06:07:48,10.1.1.3,27,0.050,0.050,0.050,0.000,0.000,0.000
1644905268608135936,2022-02-15-06:07:48,10.1.1.3,35,0.040,0.040,0.040,0.000,0.000,0.000
1644905268648438016,2022-02-15-06:07:48,10.1.1.3,24,0.030,0.030,0.030,0.000,0.000,0.000
1644905268708201984,2022-02-15-06:07:48,10.1.1.3,33,0.020,0.020,0.020,0.000,0.000,0.000
1644905268746974976,2022-02-15-06:07:48,10.1.1.3,20,0.010,0.010,0.010,0.000,0.000,0.000
1644905268807558912,2022-02-15-06:07:48,10.1.1.3,29,0.000,0.000,0.000,0.000,0.000,0.000
1644905268867707904,2022-02-15-06:07:48,10.1.1.3,38,-0.010,-0.010,-0.010,0.000,0.000,0.000
1644905268908518144,2022-02-15-06:07:48,10.1.1.3,28,-0.020,-0.020,-0.020,0.000,0.000,0.000
1644905268967993088,2022-02-15-06:07:48,10.1.1.3,37,-0.030,-0.030,-0.030,0.000,0.000,0.000
1644905269070553088,2022-02-15-06:07:49,10.1.1.3,35,-0.050,-0.050,-0.050,0.000,0.000,0.000
1644905269107532032,2022-02-15-06:07:49,10.1.1.3,24,-0.060,-0.060,-0.060,0.000,0.000,0.000
1644905269169114112,2022-02-15-06:07:49,10.1.1.3,33,-0.070,-0.070,-0.070,0.000,0.000,0.000
1644905269209347072,2022-02-15-06:07:49,10.1.1.3,22,-0.080,-0.080,-0.080,0.000,0.000,0.000
1644905269268590848,2022-02-15-06:07:49,10.1.1.3,32,-0.090,-0.090,-0.090,0.000,0.000,0.000
1644905269312282112,2022-02-15-06:07:49,10.1.1.3,21,-0.100,-0.100,-0.100,0.000,0.000,0.000
1644905269369127936,2022-02-15-06:07:49,10.1.1.3,30,-0.090,-0.090,-0.090,0.000,0.000,0.000
1644905269415108864,2022-02-15-06:07:49,10.1.1.3,20,-0.080,-0.080,-0.080,0.000,0.000,0.000
1644905269469115904,2022-02-15-06:07:49,10.1.1.3,29,-0.070,-0.070,-0.070,0.000,0.000,0.000
1644905269530158080,2022-02-15-06:07:49,10.1.1.3,38,-0.060,-0.060,-0.060,0.000,0.000,0.000
1644905269567408128,2022-02-15-06:07:49,10.1.1.3,27,-0.050,-0.050,-0.050,0.000,0.000,0.000
1644905269628462080,2022-02-15-06:07:49,10.1.1.3,36,-0.040,-0.040,-0.040,0.000,0.000,0.000
1644905269668626176,2022-02-15-06:07:49,10.1.1.3,25,-0.030,-0.030,-0.030,0.000,0.000,0.000
1644905269717592832,2022-02-15-06:07:49,10.1.1.3,24,-0.020,-0.020,-0.020,0.000,0.000,0.000
1644905269767639040,2022-02-15-06:07:49,10.1.1.3,23,-0.010,-0.010,-0.010,0.000,0.000,0.000
1644905269817174784,2022-02-15-06:07:49,10.1.1.3,22,0.000,0.000,0.000,0.000,0.000,0.000
1644905269887635968,2022-02-15-06:07:49,10.1.1.3,41,0.010,0.010,0.010,0.000,0.000,0.000
1644905269932574976,2022-02-15-06:07:49,10.1.1.3,30,0.020,0.020,0.020,0.000,0.000,0.000
1644905269986928896,2022-02-15-06:07:49,10.1.1.3,38,0.030,0.030,0.030,0.000,0.000,0.000
1644905270029843200,2022-02-15-06:07:50,10.1.1.3,26,0.040,0.040,0.040,0.000,0.000,0.000
1644905270087315200,2022-02-15-06:07:50,10.1.1.3,36,0.050,0.050,0.050,0.000,0.000,0.000
1644905270128285952,2022-02-15-06:07:50,10.1.1.3,25,0.060,0.060,0.060,0.000,0.000,0.000
1644905270187463936,2022-02-15-06:07:50,10.1.1.3,34,0.070,0.070,0.070,0.000,0.000,0.000
1644905270228563968,2022-02-15-06:07:50,10.1.1.3,23,0.080,0.080,0.080,0.000,0.000,0.000
1644905270289334016,2022-02-15-06:07:50,10.1.1.3,32,0.090,0.090,0.090,0.000,0.000,0.000
1644905270328507904,2022-02-15-06:07:50,10.1.1.3,21,0.100,0.100,0.100,0.000,0.000,0.000
1644905270392077056,2022-02-15-06:07:50,10.1.1.3,31,0.090,0.090,0.090,0.000,0.000,0.000
1644905270448243968,2022-02-15-06:07:50,10.1.1.3,37,0.080,0.080,0.080,0.000,0.000,0.000
1644905270489021952,2022-02-15-06:07:50,10.1.1.3,26,0.070,0.070,0.070,0.000,0.000,0.000
1644905270552429824,2022-02-15-06:07:50,10.1.1.3,35,0.060,0.060,0.060,0.000,0.000,0.000
1644905270609172992,2022-02-15-06:07:50,10.1.1.3,41,0.050,0.050,0.050,0.000,0.000,0.000
1644905270647133952,2022-02-15-06:07:50,10.1.1.3,29,0.040,0.040,0.040,0.000,0.000,0.000
1644905270709294080,2022-02-15-06:07:50,10.1.1.3,37,0.030,0.030,0.030,0.000,0.000,0.000
1644905270750138880,2022-02-15-06:07:50,10.1.1.3,26,0.020,0.020,0.020,0.000,0.000,0.000
1644905270810953984,2022-02-15-06:07:50,10.1.1.3,36,0.010,0.010,0.010,0.000,0.000,0.000
1644905270849832960,2022-02-15-06:07:50,10.1.1.3,25,0.000,0.000,0.000,0.000,0.000,0.000
1644905270912717056,2022-02-15-06:07:50,10.1.1.3,33,-0.010,-0.010,-0.010,0.000,0.000,0.000
1644905270950774016,2022-02-15-06:07:50,10.1.1.3,22,-0.020,-0.020,-0.020,0.000,0.000,0.000
1644905271011412992,2022-02-15-06:07:51,10.1.1.3,31,-0.030,-0.030,-0.030,0.000,0.000,0.000
1644905271049398016,2022-02-15-06:07:51,10.1.1.3,19,-0.040,-0.040,-0.040,0.000,0.000,0.000
1644905271111943936,2022-02-15-06:07:51,10.1.1.3,24,-0.050,-0.050,-0.050,0.000,0.000,0.000
1644905271171412992,2022-02-15-06:07:51,10.1.1.3,32,-0.060,-0.060,-0.060,0.000,0.000,0.000
1644905271212819968,2022-02-15-06:07:51,10.1.1.3,21,-0.070,-0.070,-0.070,0.000,0.000,0.000
1644905271269669888,2022-02-15-06:07:51,10.1.1.3,29,-0.080,-0.080,-0.080,0.000,0.000,0.000
1644905271331553024,2022-02-15-06:07:51,10.1.1.3,37,-0.090,-0.090,-0.090,0.000,0.000,0.000
1644905271367800064,2022-02-15-06:07:51,10.1.1.3,25,-0.100,-0.100,-0.100,0.000,0.000,0.000
1644905271428719104,2022-02-15-06:07:51,10.1.1.3,32,-0.090,-0.090,-0.090,0.000,0.000,0.000
1644905271468102912,2022-02-15-06:07:51,10.1.1.3,21,-0.080,-0.080,-0.080,0.000,0.000,0.000
1644905271520737792,2022-02-15-06:07:51,10.1.1.3,21,-0.070,-0.070,-0.070,0.000,0.000,0.000
1644905271588689920,2022-02-15-06:07:51,10.1.1.3,37,-0.060,-0.060,-0.060,0.000,0.000,0.000
1644905271627561216,2022-02-15-06:07:51,10.1.1.3,25,-0.050,-0.050,-0.050,0.000,0.000,0.000
1644905271688827904,2022-02-15-06:07:51,10.1.1.3,32,-0.040,-0.040,-0.040,0.000,0.000,0.000
1644905271726827008,2022-02-15-06:07:51,10.1.1.3,21,-0.030,-0.030,-0.030,0.000,0.000,0.000
1644905271786678016,2022-02-15-06:07:51,10.1.1.3,31,-0.020,-0.020,-0.020,0.000,0.000,0.000
1644905271827339776,2022-02-15-06:07:51,10.1.1.3,19,-0.010,-0.010,-0.010,0.000,0.000,0.000
1644905271888762880,2022-02-15-06:07:51,10.1.1.3,29,0.000,0.000,0.000,0.000,0.000,0.000
1644905271948260096,2022-02-15-06:07:51,10.1.1.3,38,0.010,0.010,0.010,0.000,0.000,0.000
1644905271987323904,2022-02-15-06:07:51,10.1.1.3,26,0.020,0.020,0.020,0.000,0.000,0.000
1644905272047049984,2022-02-15-06:07:52,10.1.1.3,35,0.030,0.030,0.030,0.000,0.000,0.000
1644905272088247040,2022-02-15-06:07:52,10.1.1.3,24,0.040,0.040,0.040,0.000,0.000,0.000
1644905272147033856,2022-02-15-06:07:52,10.1.1.3,33,0.050,0.050,0.050,0.000,0.000,0.000
1644905272186793216,2022-02-15-06:07:52,10.1.1.3,22,0.060,0.060,0.060,0.000,0.000,0.000
1644905272247201024,2022-02-15-06:07:52,10.1.1.3,31,0.070,0.070,0.070,0.000,0.000,0.000
1644905272288964096,2022-02-15-06:07:52,10.1.1.3,19,0.080,0.080,0.080,0.000,0.000,0.000
1644905272346919936,2022-02-15-06:07:52,10.1.1.3,29,0.090,0.090,0.090,0.000,0.000,0.000
1644905272406671104,2022-02-15-06:07:52,10.1.1.3,37,0.100,0.100,0.100,0.000,0.000,0.000
1644905272447367936,2022-02-15-06:07:52,10.1.1.3,27,0.090,0.090,0.090,0.000,0.000,0.000
1644905272507328000,2022-02-15-06:07:52,10.1.1.3,34,0.080,0.080,0.080,0.000,0.000,0.000
1644905272546819072,2022-02-15-06:07:52,10.1.1.3,22,0.070,0.070,0.070,0.000,0.000,0.000
1644905272607603200,2022-02-15-06:07:52,10.1.1.3,31,0.060,0.060,0.060,0.000,0.000,0.000
1644905272647581952,2022-02-15-06:07:52,10.1.1.3,20,0.050,0.050,0.050,0.000,0.000,0.000
1644905272707328000,2022-02-15-06:07:52,10.1.1.3,29,0.040,0.040,0.040,0.000,0.000,0.000
1644905272771748096,2022-02-15-06:07:52,10.1.1.3,37,0.030,0.030,0.030,0.000,0.000,0.000
1644905272808628992,2022-02-15-06:07:52,10.1.1.3,27,0.020,0.020,0.020,0.000,0.000,0.000
1644905272869467904,2022-02-15-06:07:52,10.1.1.3,36,0.010,0.010,0.010,0.000,0.000,0.000
1644905272908626176,2022-02-15-06:07:52,10.1.1.3,25,0.000,0.000,0.000,0.000,0.000,0.000
1644905272966761984,2022-02-15-06:07:52,10.1.1.3,33,-0.010,-0.010,-0.010,0.000,0.000,0.000
1644905273009217024,2022-02-15-06:07:53,10.1.1.3,21,-0.020,-0.020,-0.020,0.000,0.000,0.000
1644905273067086080,2022-02-15-06:07:53,10.1.1.3,30,-0.030,-0.030,-0.030,0.000,0.000,0.000
1644905273107314944,2022-02-15-06:07:53,10.1.1.3,19,-0.039,-0.039,-0.039,0.000,0.000,0.000
1644905273168448000,2022-02-15-06:07:53,10.1.1.3,28,-0.050,-0.050,-0.050,0.000,0.000,0.000
1644905273228566016,2022-02-15-06:07:53,10.1.1.3,37,-0.060,-0.060,-0.060,0.000,0.000,0.000
1644905273287184128,2022-02-15-06:07:53,10.1.1.3,46,-0.070,-0.070,-0.070,0.000,0.000,0.000
1644905273328455936,2022-02-15-06:07:53,10.1.1.3,30,-0.080,-0.080,-0.080,0.000,0.000,0.000
1644905273368439808,2022-02-15-06:07:53,10.1.1.3,18,-0.089,-0.089,-0.089,0.000,0.000,0.000
1644905273428699904,2022-02-15-06:07:53,10.1.1.3,28,-0.100,-0.100,-0.100,0.000,0.000,0.000
1644905273491659008,2022-02-15-06:07:53,10.1.1.3,37,-0.090,-0.090,-0.090,0.000,0.000,0.000
1644905273528835072,2022-02-15-06:07:53,10.1.1.3,24,-0.080,-0.080,-0.080,0.000,0.000,0.000
1644905273587049984,2022-02-15-06:07:53,10.1.1.3,29,-0.070,-0.070,-0.070,0.000,0.000,0.000
1644905273646169856,2022-02-15-06:07:53,10.1.1.3,38,-0.060,-0.060,-0.060,0.000,0.000,0.000
1644905273686713088,2022-02-15-06:07:53,10.1.1.3,26,-0.050,-0.050,-0.050,0.000,0.000,0.000
1644905273747443968,2022-02-15-06:07:53,10.1.1.3,35,-0.040,-0.040,-0.040,0.000,0.000,0.000
1644905273786556928,2022-02-15-06:07:53,10.1.1.3,23,-0.030,-0.030,-0.030,0.000,0.000,0.000
1644905273846124800,2022-02-15-06:07:53,10.1.1.3,33,-0.020,-0.020,-0.020,0.000,0.000,0.000
1644905273886637824,2022-02-15-06:07:53,10.1.1.3,22,-0.010,-0.010,-0.010,0.000,0.000,0.000
1644905273946676992,2022-02-15-06:07:53,10.1.1.3,28,0.000,0.000,0.000,0.000,0.000,0.000
1644905274006962176,2022-02-15-06:07:54,10.1.1.3,37,0.010,0.010,0.010,0.000,0.000,0.000
1644905274046777856,2022-02-15-06:07:54,10.1.1.3,26,0.020,0.020,0.020,0.000,0.000,0.000
1644905274106717184,2022-02-15-06:07:54,10.1.1.3,36,0.030,0.030,0.030,0.000,0.000,0.000
1644905274146699008,2022-02-15-06:07:54,10.1.1.3,25,0.040,0.040,0.040,0.000,0.000,0.000
1644905274206372864,2022-02-15-06:07:54,10.1.1.3,32,0.050,0.050,0.050,0.000,0.000,0.000
1644905274246637056,2022-02-15-06:07:54,10.1.1.3,22,0.060,0.060,0.060,0.000,0.000,0.000
1644905274306185984,2022-02-15-06:07:54,10.1.1.3,31,0.070,0.070,0.070,0.000,0.000,0.000
1644905274346891008,2022-02-15-06:07:54,10.1.1.3,20,0.080,0.080,0.080,0.000,0.000,0.000
1644905274406622976,2022-02-15-06:07:54,10.1.1.3,29,0.090,0.090,0.090,0.000,0.000,0.000
1644905274446435072,2022-02-15-06:07:54,10.1.1.3,19,0.099,0.099,0.099,0.000,0.000,0.000
1644905274507208192,2022-02-15-06:07:54,10.1.1.3,28,0.090,0.090,0.090,0.000,0.000,0.000
1644905274567075840,2022-02-15-06:07:54,10.1.1.3,38,0.080,0.080,0.080,0.000,0.000,0.000
1644905274610925056,2022-02-15-06:07:54,10.1.1.3,27,0.070,0.070,0.070,0.000,0.000,0.000
1644905274671433984,2022-02-15-06:07:54,10.1.1.3,36,0.060,0.060,0.060,0.000,0.000,0.000
1644905274707561984,2022-02-15-06:07:54,10.1.1.3,24,0.050,0.050,0.050,0.000,0.000,0.000
1644905274769135872,2022-02-15-06:07:54,10.1.1.3,33,0.040,0.040,0.040,0.000,0.000,0.000
1644905274807104000,2022-02-15-06:07:54,10.1.1.3,21,0.030,0.030,0.030,0.000,0.000,0.000
1644905274867290112,2022-02-15-06:07:54,10.1.1.3,30,0.020,0.020,0.020,0.000,0.000,0.000
1644905274927643136,2022-02-15-06:07:54,10.1.1.3,37,0.010,0.010,0.010,0.000,0.000,0.000
1644905274968601856,2022-02-15-06:07:54,10.1.1.3,27,0.000,0.000,0.000,0.000,0.000,0.000
1644905275028600064,2022-02-15-06:07:55,10.1.1.3,36,-0.010,-0.010,-0.010,0.000,0.000,0.000
1644905275068135936,2022-02-15-06:07:55,10.1.1.3,26,-0.020,-0.020,-0.020,0.000,0.000,0.000
1644905275128464896,2022-02-15-06:07:55,10.1.1.3,35,-0.030,-0.030,-0.030,0.000,0.000,0.000
1644905275166086912,2022-02-15-06:07:55,10.1.1.3,25,-0.040,-0.040,-0.040,0.000,0.000,0.000
1644905275227747840,2022-02-15-06:07:55,10.1.1.3,34,-0.050,-0.050,-0.050,0.000,0.000,0.000
1644905275266210048,2022-02-15-06:07:55,10.1.1.3,23,-0.060,-0.060,-0.060,0.000,0.000,0.000
1644905275316886784,2022-02-15-06:07:55,10.1.1.3,23,-0.070,-0.070,-0.070,0.000,0.000,0.000
1644905275366825984,2022-02-15-06:07:55,10.1.1.3,22,-0.080,-0.080,-0.080,0.000,0.000,0.000
1644905275428431872,2022-02-15-06:07:55,10.1.1.3,31,-0.090,-0.090,-0.090,0.000,0.000,0.000
1644905275468231936,2022-02-15-06:07:55,10.1.1.3,21,-0.100,-0.100,-0.100,0.000,0.000,0.000
1644905275516952064,2022-02-15-06:07:55,10.1.1.3,20,-0.090,-0.090,-0.090,0.000,0.000,0.000
1644905275568198912,2022-02-15-06:07:55,10.1.1.3,19,-0.080,-0.080,-0.080,0.000,0.000,0.000
1644905275628144896,2022-02-15-06:07:55,10.1.1.3,27,-0.070,-0.070,-0.070,0.000,0.000,0.000
1644905275689739008,2022-02-15-06:07:55,10.1.1.3,37,-0.060,-0.060,-0.060,0.000,0.000,0.000
1644905275726605824,2022-02-15-06:07:55,10.1.1.3,26,-0.050,-0.050,-0.050,0.000,0.000,0.000
1644905275789187072,2022-02-15-06:07:55,10.1.1.3,32,-0.040,-0.040,-0.040,0.000,0.000,0.000
1644905275828546048,2022-02-15-06:07:55,10.1.1.3,20,-0.030,-0.030,-0.030,0.000,0.000,0.000
1644905275892379904,2022-02-15-06:07:55,10.1.1.3,28,-0.020,-0.020,-0.020,0.000,0.000,0.000
1644905275947744000,2022-02-15-06:07:55,10.1.1.3,37,-0.010,-0.010,-0.010,0.000,0.000,0.000
1644905275986712064,2022-02-15-06:07:55,10.1.1.3,25,0.000,0.000,0.000,0.000,0.000,0.000
1644905276047275008,2022-02-15-06:07:56,10.1.1.3,34,0.010,0.010,0.010,0.000,0.000,0.000
1644905276087066880,2022-02-15-06:07:56,10.1.1.3,21,0.020,0.020,0.020,0.000,0.000,0.000
1644905276146786048,2022-02-15-06:07:56,10.1.1.3,28,0.030,0.030,0.030,0.000,0.000,0.000
1644905276207473152,2022-02-15-06:07:56,10.1.1.3,38,0.040,0.040,0.040,0.000,0.000,0.000
1644905276247351040,2022-02-15-06:07:56,10.1.1.3,27,0.050,0.050,0.050,0.000,0.000,0.000
1644905276310981120,2022-02-15-06:07:56,10.1.1.3,36,0.060,0.060,0.060,0.000,0.000,0.000
1644905276348103936,2022-02-15-06:07:56,10.1.1.3,22,0.070,0.070,0.070,0.000,0.000,0.000
1644905276467384064,2022-02-15-06:07:56,10.1.1.3,24,0.090,0.090,0.090,0.000,0.000,0.000
1644905276526585088,2022-02-15-06:07:56,10.1.1.3,33,0.100,0.100,0.100,0.000,0.000,0.000
1644905276566941952,2022-02-15-06:07:56,10.1.1.3,22,0.090,0.090,0.090,0.000,0.000,0.000
1644905276627307008,2022-02-15-06:07:56,10.1.1.3,32,0.080,0.080,0.080,0.000,0.000,0.000
1644905276667731968,2022-02-15-06:07:56,10.1.1.3,20,0.070,0.070,0.070,0.000,0.000,0.000
1644905276726732032,2022-02-15-06:07:56,10.1.1.3,28,0.060,0.060,0.060,0.000,0.000,0.000
1644905276788758016,2022-02-15-06:07:56,10.1.1.3,37,0.050,0.050,0.050,0.000,0.000,0.000
1644905276830435072,2022-02-15-06:07:56,10.1.1.3,26,0.040,0.040,0.040,0.000,0.000,0.000
1644905276889117952,2022-02-15-06:07:56,10.1.1.3,35,0.030,0.030,0.030,0.000,0.000,0.000
1644905276927084800,2022-02-15-06:07:56,10.1.1.3,24,0.020,0.020,0.020,0.000,0.000,0.000
1644905276988190976,2022-02-15-06:07:56,10.1.1.3,32,0.010,0.010,0.010,0.000,0.000,0.000
1644905277048242176,2022-02-15-06:07:57,10.1.1.3,37,0.000,0.000,0.000,0.000,0.000,0.000
1644905277091150080,2022-02-15-06:07:57,10.1.1.3,25,-0.010,-0.010,-0.010,0.000,0.000,0.000
1644905277151597056,2022-02-15-06:07:57,10.1.1.3,35,-0.020,-0.020,-0.020,0.000,0.000,0.000
1644905277187779072,2022-02-15-06:07:57,10.1.1.3,24,-0.030,-0.030,-0.030,0.000,0.000,0.000
1644905277246788096,2022-02-15-06:07:57,10.1.1.3,32,-0.040,-0.040,-0.040,0.000,0.000,0.000
1644905277289742080,2022-02-15-06:07:57,10.1.1.3,20,-0.050,-0.050,-0.050,0.000,0.000,0.000
1644905277350662912,2022-02-15-06:07:57,10.1.1.3,28,-0.060,-0.060,-0.060,0.000,0.000,0.000
1644905277408870912,2022-02-15-06:07:57,10.1.1.3,37,-0.070,-0.070,-0.070,0.000,0.000,0.000
1644905277448805120,2022-02-15-06:07:57,10.1.1.3,26,-0.080,-0.080,-0.080,0.000,0.000,0.000
1644905277508868864,2022-02-15-06:07:57,10.1.1.3,35,-0.090,-0.090,-0.090,0.000,0.000,0.000
1644905277549385984,2022-02-15-06:07:57,10.1.1.3,25,-0.100,-0.100,-0.100,0.000,0.000,0.000
1644905277599878912,2022-02-15-06:07:57,10.1.1.3,24,-0.090,-0.090,-0.090,0.000,0.000,0.000
1644905277648045056,2022-02-15-06:07:57,10.1.1.3,21,-0.080,-0.080,-0.080,0.000,0.000,0.000
1644905277716520960,2022-02-15-06:07:57,10.1.1.3,28,-0.070,-0.070,-0.070,0.000,0.000,0.000
1644905277768274944,2022-02-15-06:07:57,10.1.1.3,37,-0.060,-0.060,-0.060,0.000,0.000,0.000
1644905277808049920,2022-02-15-06:07:57,10.1.1.3,25,-0.050,-0.050,-0.050,0.000,0.000,0.000
1644905277866592000,2022-02-15-06:07:57,10.1.1.3,32,-0.040,-0.040,-0.040,0.000,0.000,0.000
1644905277913191168,2022-02-15-06:07:57,10.1.1.3,21,-0.030,-0.030,-0.030,0.000,0.000,0.000
1644905277971304960,2022-02-15-06:07:57,10.1.1.3,33,-0.020,-0.020,-0.020,0.000,0.000,0.000
1644905278082030080,2022-02-15-06:07:58,10.1.1.3,37,0.000,0.000,0.000,0.000,0.000,0.000
1644905278128356096,2022-02-15-06:07:58,10.1.1.3,36,0.010,0.010,0.010,0.000,0.000,0.000
1644905278167753984,2022-02-15-06:07:58,10.1.1.3,25,0.020,0.020,0.020,0.000,0.000,0.000
1644905278217294848,2022-02-15-06:07:58,10.1.1.3,25,0.030,0.030,0.030,0.000,0.000,0.000
1644905278281413120,2022-02-15-06:07:58,10.1.1.3,38,0.040,0.040,0.040,0.000,0.000,0.000
1644905278316658944,2022-02-15-06:07:58,10.1.1.3,24,0.050,0.050,0.050,0.000,0.000,0.000
1644905278572314112,2022-02-15-06:07:58,10.1.1.3,23,0.100,0.100,0.100,0.000,0.000,0.000
1644905278619111936,2022-02-15-06:07:58,10.1.1.3,13,0.090,0.090,0.090,0.000,0.000,0.000
1644905278678836224,2022-02-15-06:07:58,10.1.1.3,23,0.080,0.080,0.080,0.000,0.000,0.000
1644905278739736064,2022-02-15-06:07:58,10.1.1.3,34,0.070,0.070,0.070,0.000,0.000,0.000
1644905278786014976,2022-02-15-06:07:58,10.1.1.3,27,0.060,0.060,0.060,0.000,0.000,0.000
1644905278848187904,2022-02-15-06:07:58,10.1.1.3,39,0.050,0.050,0.050,0.000,0.000,0.000
1644905278887353856,2022-02-15-06:07:58,10.1.1.3,26,0.040,0.040,0.040,0.000,0.000,0.000
1644905278952047104,2022-02-15-06:07:58,10.1.1.3,38,0.030,0.030,0.030,0.000,0.000,0.000
1644905279006760960,2022-02-15-06:07:59,10.1.1.3,40,0.020,0.020,0.020,0.000,0.000,0.000
1644905279036753920,2022-02-15-06:07:59,10.1.1.3,19,0.011,0.011,0.011,0.000,0.000,0.000
1644905279107276032,2022-02-15-06:07:59,10.1.1.3,37,0.000,0.000,0.000,0.000,0.000,0.000
1644905279198555904,2022-02-15-06:07:59,10.1.1.3,28,-0.020,-0.020,-0.020,0.000,0.000,0.000
1644905279256797184,2022-02-15-06:07:59,10.1.1.3,35,-0.030,-0.030,-0.030,0.000,0.000,0.000
1644905279311101952,2022-02-15-06:07:59,10.1.1.3,36,-0.040,-0.040,-0.040,0.000,0.000,0.000
1644905279351793920,2022-02-15-06:07:59,10.1.1.3,26,-0.050,-0.050,-0.050,0.000,0.000,0.000
1644905279371117056,2022-02-15-06:07:59,10.1.1.3,-7,-0.050,-0.050,-0.050,0.000,0.000,0.000
1644905279457217024,2022-02-15-06:07:59,10.1.1.3,28,-0.070,-0.070,-0.070,0.000,0.000,0.000
1644905279517349120,2022-02-15-06:07:59,10.1.1.3,38,-0.080,-0.080,-0.080,0.000,0.000,0.000
1644905279567322880,2022-02-15-06:07:59,10.1.1.3,36,-0.090,-0.090,-0.090,0.000,0.000,0.000
1644905279606753024,2022-02-15-06:07:59,10.1.1.3,26,-0.100,-0.100,-0.100,0.000,0.000,0.000
1644905279667234048,2022-02-15-06:07:59,10.1.1.3,35,-0.090,-0.090,-0.090,0.000,0.000,0.000
1644905279707941120,2022-02-15-06:07:59,10.1.1.3,24,-0.080,-0.080,-0.080,0.000,0.000,0.000
1644905279769893888,2022-02-15-06:07:59,10.1.1.3,34,-0.070,-0.070,-0.070,0.000,0.000,0.000
1644905279809441024,2022-02-15-06:07:59,10.1.1.3,23,-0.060,-0.060,-0.060,0.000,0.000,0.000
1644905279928354048,2022-02-15-06:07:59,10.1.1.3,35,-0.040,-0.040,-0.040,0.000,0.000,0.000
1644905279968724992,2022-02-15-06:07:59,10.1.1.3,24,-0.030,-0.030,-0.030,0.000,0.000,0.000
1644905280027399168,2022-02-15-06:08:00,10.1.1.3,34,-0.020,-0.020,-0.020,0.000,0.000,0.000
1644905280066807040,2022-02-15-06:08:00,10.1.1.3,23,-0.010,-0.010,-0.010,0.000,0.000,0.000
1644905280127209984,2022-02-15-06:08:00,10.1.1.3,30,0.000,0.000,0.000,0.000,0.000,0.000
1644905280166913024,2022-02-15-06:08:00,10.1.1.3,20,0.010,0.010,0.010,0.000,0.000,0.000
1644905280228941056,2022-02-15-06:08:00,10.1.1.3,29,0.020,0.020,0.020,0.000,0.000,0.000
1644905280287947008,2022-02-15-06:08:00,10.1.1.3,38,0.030,0.030,0.030,0.000,0.000,0.000
1644905280326447104,2022-02-15-06:08:00,10.1.1.3,27,0.040,0.040,0.040,0.000,0.000,0.000
1644905280388128000,2022-02-15-06:08:00,10.1.1.3,36,0.050,0.050,0.050,0.000,0.000,0.000
1644905280428227840,2022-02-15-06:08:00,10.1.1.3,26,0.060,0.060,0.060,0.000,0.000,0.000
1644905280591597056,2022-02-15-06:08:00,10.1.1.3,29,0.090,0.090,0.090,0.000,0.000,0.000
1644905280647079936,2022-02-15-06:08:00,10.1.1.3,37,0.100,0.100,0.100,0.000,0.000,0.000
1644905280686970112,2022-02-15-06:08:00,10.1.1.3,26,0.090,0.090,0.090,0.000,0.000,0.000
1644905280746898944,2022-02-15-06:08:00,10.1.1.3,34,0.080,0.080,0.080,0.000,0.000,0.000
1644905280787603968,2022-02-15-06:08:00,10.1.1.3,23,0.070,0.070,0.070,0.000,0.000,0.000
1644905280847217152,2022-02-15-06:08:00,10.1.1.3,33,0.060,0.060,0.060,0.000,0.000,0.000
1644905280891942144,2022-02-15-06:08:00,10.1.1.3,22,0.050,0.050,0.050,0.000,0.000,0.000
1644905280947949824,2022-02-15-06:08:00,10.1.1.3,27,0.040,0.040,0.040,0.000,0.000,0.000
1644905281006946048,2022-02-15-06:08:01,10.1.1.3,29,0.030,0.030,0.030,0.000,0.000,0.000
1644905281067954176,2022-02-15-06:08:01,10.1.1.3,38,0.020,0.020,0.020,0.000,0.000,0.000
1644905281109011968,2022-02-15-06:08:01,10.1.1.3,27,0.010,0.010,0.010,0.000,0.000,0.000
1644905281169049856,2022-02-15-06:08:01,10.1.1.3,30,0.000,0.000,0.000,0.000,0.000,0.000
1644905281230979840,2022-02-15-06:08:01,10.1.1.3,36,-0.010,-0.010,-0.010,0.000,0.000,0.000
1644905281268600064,2022-02-15-06:08:01,10.1.1.3,23,-0.020,-0.020,-0.020,0.000,0.000,0.000
1644905281328875008,2022-02-15-06:08:01,10.1.1.3,28,-0.030,-0.030,-0.030,0.000,0.000,0.000
1644905281392093952,2022-02-15-06:08:01,10.1.1.3,36,-0.040,-0.040,-0.040,0.000,0.000,0.000
1644905281435481088,2022-02-15-06:08:01,10.1.1.3,21,-0.050,-0.050,-0.050,0.000,0.000,0.000
1644905281495040768,2022-02-15-06:08:01,10.1.1.3,31,-0.060,-0.060,-0.060,0.000,0.000,0.000
1644905281547571968,2022-02-15-06:08:01,10.1.1.3,38,-0.070,-0.070,-0.070,0.000,0.000,0.000
1644905281588166912,2022-02-15-06:08:01,10.1.1.3,26,-0.080,-0.080,-0.080,0.000,0.000,0.000
1644905281648112128,2022-02-15-06:08:01,10.1.1.3,36,-0.090,-0.090,-0.090,0.000,0.000,0.000
1644905281688209920,2022-02-15-06:08:01,10.1.1.3,23,-0.100,-0.100,-0.100,0.000,0.000,0.000
1644905281847456000,2022-02-15-06:08:01,10.1.1.3,26,-0.080,-0.080,-0.080,0.000,0.000,0.000
1644905281906620928,2022-02-15-06:08:01,10.1.1.3,36,-0.070,-0.070,-0.070,0.000,0.000,0.000
1644905281946997760,2022-02-15-06:08:01,10.1.1.3,24,-0.060,-0.060,-0.060,0.000,0.000,0.000
1644905282007226880,2022-02-15-06:08:02,10.1.1.3,33,-0.050,-0.050,-0.050,0.000,0.000,0.000
1644905282046673920,2022-02-15-06:08:02,10.1.1.3,22,-0.040,-0.040,-0.040,0.000,0.000,0.000
1644905282097174784,2022-02-15-06:08:02,10.1.1.3,21,-0.030,-0.030,-0.030,0.000,0.000,0.000
1644905282147512832,2022-02-15-06:08:02,10.1.1.3,20,-0.020,-0.020,-0.020,0.000,0.000,0.000
1644905282206724864,2022-02-15-06:08:02,10.1.1.3,29,-0.010,-0.010,-0.010,0.000,0.000,0.000
1644905282248112896,2022-02-15-06:08:02,10.1.1.3,18,-0.001,-0.001,-0.001,0.000,0.000,0.000
1644905282306728960,2022-02-15-06:08:02,10.1.1.3,26,0.010,0.010,0.010,0.000,0.000,0.000
1644905282366684928,2022-02-15-06:08:02,10.1.1.3,35,0.020,0.020,0.020,0.000,0.000,0.000
1644905282407247104,2022-02-15-06:08:02,10.1.1.3,25,0.030,0.030,0.030,0.000,0.000,0.000
1644905282466563072,2022-02-15-06:08:02,10.1.1.3,35,0.040,0.040,0.040,0.000,0.000,0.000
1644905282506539008,2022-02-15-06:08:02,10.1.1.3,24,0.050,0.050,0.050,0.000,0.000,0.000
1644905282566448896,2022-02-15-06:08:02,10.1.1.3,34,0.060,0.060,0.060,0.000,0.000,0.000
1644905282626405888,2022-02-15-06:08:02,10.1.1.3,43,0.070,0.070,0.070,0.000,0.000,0.000
1644905282666532096,2022-02-15-06:08:02,10.1.1.3,33,0.080,0.080,0.080,0.000,0.000,0.000
1644905282706676992,2022-02-15-06:08:02,10.1.1.3,22,0.090,0.090,0.090,0.000,0.000,0.000
1644905282766565120,2022-02-15-06:08:02,10.1.1.3,32,0.100,0.100,0.100,0.000,0.000,0.000
1644905282806885120,2022-02-15-06:08:02,10.1.1.3,21,0.090,0.090,0.090,0.000,0.000,0.000
1644905282867516160,2022-02-15-06:08:02,10.1.1.3,31,0.080,0.080,0.080,0.000,0.000,0.000
1644905282906383104,2022-02-15-06:08:02,10.1.1.3,20,0.070,0.070,0.070,0.000,0.000,0.000
1644905282966694144,2022-02-15-06:08:02,10.1.1.3,29,0.060,0.060,0.060,0.000,0.000,0.000
1644905283006542080,2022-02-15-06:08:03,10.1.1.3,19,0.050,0.050,0.050,0.000,0.000,0.000
1644905283066683136,2022-02-15-06:08:03,10.1.1.3,29,0.040,0.040,0.040,0.000,0.000,0.000
1644905283126465024,2022-02-15-06:08:03,10.1.1.3,38,0.030,0.030,0.030,0.000,0.000,0.000
1644905283169292032,2022-02-15-06:08:03,10.1.1.3,27,0.020,0.020,0.020,0.000,0.000,0.000
1644905283227121152,2022-02-15-06:08:03,10.1.1.3,36,0.010,0.010,0.010,0.000,0.000,0.000
1644905283267708928,2022-02-15-06:08:03,10.1.1.3,25,0.000,0.000,0.000,0.000,0.000,0.000
1644905283328393984,2022-02-15-06:08:03,10.1.1.3,35,-0.010,-0.010,-0.010,0.000,0.000,0.000
1644905283367448064,2022-02-15-06:08:03,10.1.1.3,25,-0.020,-0.020,-0.020,0.000,0.000,0.000
1644905283427712000,2022-02-15-06:08:03,10.1.1.3,34,-0.030,-0.030,-0.030,0.000,0.000,0.000
1644905283467539968,2022-02-15-06:08:03,10.1.1.3,23,-0.040,-0.040,-0.040,0.000,0.000,0.000
1644905283527000064,2022-02-15-06:08:03,10.1.1.3,25,-0.050,-0.050,-0.050,0.000,0.000,0.000
1644905283586700032,2022-02-15-06:08:03,10.1.1.3,34,-0.060,-0.060,-0.060,0.000,0.000,0.000
1644905283626327040,2022-02-15-06:08:03,10.1.1.3,23,-0.070,-0.070,-0.070,0.000,0.000,0.000
1644905283677038080,2022-02-15-06:08:03,10.1.1.3,23,-0.080,-0.080,-0.080,0.000,0.000,0.000
1644905283727497216,2022-02-15-06:08:03,10.1.1.3,22,-0.090,-0.090,-0.090,0.000,0.000,0.000
1644905283787975936,2022-02-15-06:08:03,10.1.1.3,31,-0.100,-0.100,-0.100,0.000,0.000,0.000
1644905283826898944,2022-02-15-06:08:03,10.1.1.3,19,-0.091,-0.091,-0.091,0.000,0.000,0.000
1644905283887908096,2022-02-15-06:08:03,10.1.1.3,28,-0.080,-0.080,-0.080,0.000,0.000,0.000
1644905283946501120,2022-02-15-06:08:03,10.1.1.3,36,-0.070,-0.070,-0.070,0.000,0.000,0.000
1644905283987448832,2022-02-15-06:08:03,10.1.1.3,26,-0.060,-0.060,-0.060,0.000,0.000,0.000
1644905284047825152,2022-02-15-06:08:04,10.1.1.3,31,-0.050,-0.050,-0.050,0.000,0.000,0.000
1644905284088082176,2022-02-15-06:08:04,10.1.1.3,21,-0.040,-0.040,-0.040,0.000,0.000,0.000
1644905284146958080,2022-02-15-06:08:04,10.1.1.3,30,-0.030,-0.030,-0.030,0.000,0.000,0.000
1644905284186620928,2022-02-15-06:08:04,10.1.1.3,20,-0.020,-0.020,-0.020,0.000,0.000,0.000
1644905284246256128,2022-02-15-06:08:04,10.1.1.3,28,-0.010,-0.010,-0.010,0.000,0.000,0.000
1644905284306097152,2022-02-15-06:08:04,10.1.1.3,38,0.000,0.000,0.000,0.000,0.000,0.000
1644905284347783168,2022-02-15-06:08:04,10.1.1.3,27,0.010,0.010,0.010,0.000,0.000,0.000
1644905284406553088,2022-02-15-06:08:04,10.1.1.3,37,0.020,0.020,0.020,0.000,0.000,0.000
1644905284447654912,2022-02-15-06:08:04,10.1.1.3,26,0.030,0.030,0.030,0.000,0.000,0.000
1644905284506694144,2022-02-15-06:08:04,10.1.1.3,35,0.040,0.040,0.040,0.000,0.000,0.000
1644905284546672128,2022-02-15-06:08:04,10.1.1.3,24,0.050,0.050,0.050,0.000,0.000,0.000
1644905284606566912,2022-02-15-06:08:04,10.1.1.3,33,0.060,0.060,0.060,0.000,0.000,0.000
1644905284647124992,2022-02-15-06:08:04,10.1.1.3,23,0.070,0.070,0.070,0.000,0.000,0.000
1644905284713012992,2022-02-15-06:08:04,10.1.1.3,32,0.080,0.080,0.080,0.000,0.000,0.000
1644905284806827008,2022-02-15-06:08:04,10.1.1.3,25,0.100,0.100,0.100,0.000,0.000,0.000
1644905284867273216,2022-02-15-06:08:04,10.1.1.3,34,0.090,0.090,0.090,0.000,0.000,0.000
1644905284907022848,2022-02-15-06:08:04,10.1.1.3,23,0.080,0.080,0.080,0.000,0.000,0.000
1644905284967016960,2022-02-15-06:08:04,10.1.1.3,32,0.070,0.070,0.070,0.000,0.000,0.000
1644905285007067904,2022-02-15-06:08:05,10.1.1.3,20,0.060,0.060,0.060,0.000,0.000,0.000
1644905285068337920,2022-02-15-06:08:05,10.1.1.3,30,0.050,0.050,0.050,0.000,0.000,0.000
1644905285106776832,2022-02-15-06:08:05,10.1.1.3,19,0.041,0.041,0.041,0.000,0.000,0.000
1644905285170226944,2022-02-15-06:08:05,10.1.1.3,28,0.030,0.030,0.030,0.000,0.000,0.000
1644905285289334016,2022-02-15-06:08:05,10.1.1.3,32,0.010,0.010,0.010,0.000,0.000,0.000
1644905285327704832,2022-02-15-06:08:05,10.1.1.3,21,0.000,0.000,0.000,0.000,0.000,0.000
1644905285388422912,2022-02-15-06:08:05,10.1.1.3,28,-0.010,-0.010,-0.010,0.000,0.000,0.000
1644905285448385024,2022-02-15-06:08:05,10.1.1.3,37,-0.020,-0.020,-0.020,0.000,0.000,0.000
1644905285489238016,2022-02-15-06:08:05,10.1.1.3,25,-0.030,-0.030,-0.030,0.000,0.000,0.000
1644905285549735168,2022-02-15-06:08:05,10.1.1.3,32,-0.040,-0.040,-0.040,0.000,0.000,0.000
1644905285588887808,2022-02-15-06:08:05,10.1.1.3,21,-0.050,-0.050,-0.050,0.000,0.000,0.000
1644905285650167040,2022-02-15-06:08:05,10.1.1.3,29,-0.060,-0.060,-0.060,0.000,0.000,0.000
1644905285708551936,2022-02-15-06:08:05,10.1.1.3,37,-0.070,-0.070,-0.070,0.000,0.000,0.000
1644905285749644032,2022-02-15-06:08:05,10.1.1.3,25,-0.080,-0.080,-0.080,0.000,0.000,0.000
1644905285809388032,2022-02-15-06:08:05,10.1.1.3,34,-0.090,-0.090,-0.090,0.000,0.000,0.000
1644905285867561216,2022-02-15-06:08:05,10.1.1.3,43,-0.100,-0.100,-0.100,0.000,0.000,0.000
1644905285907321088,2022-02-15-06:08:05,10.1.1.3,31,-0.090,-0.090,-0.090,0.000,0.000,0.000
1644905285947407104,2022-02-15-06:08:05,10.1.1.3,20,-0.080,-0.080,-0.080,0.000,0.000,0.000
1644905286006524928,2022-02-15-06:08:06,10.1.1.3,29,-0.070,-0.070,-0.070,0.000,0.000,0.000
1644905286066695936,2022-02-15-06:08:06,10.1.1.3,37,-0.060,-0.060,-0.060,0.000,0.000,0.000
1644905286106436096,2022-02-15-06:08:06,10.1.1.3,26,-0.050,-0.050,-0.050,0.000,0.000,0.000
1644905286168660992,2022-02-15-06:08:06,10.1.1.3,36,-0.040,-0.040,-0.040,0.000,0.000,0.000
1644905286206412032,2022-02-15-06:08:06,10.1.1.3,25,-0.030,-0.030,-0.030,0.000,0.000,0.000
1644905286266508032,2022-02-15-06:08:06,10.1.1.3,35,-0.020,-0.020,-0.020,0.000,0.000,0.000
1644905286306507008,2022-02-15-06:08:06,10.1.1.3,24,-0.010,-0.010,-0.010,0.000,0.000,0.000
1644905286366637824,2022-02-15-06:08:06,10.1.1.3,33,0.000,0.000,0.000,0.000,0.000,0.000
1644905286407022080,2022-02-15-06:08:06,10.1.1.3,22,0.010,0.010,0.010,0.000,0.000,0.000
1644905286466238976,2022-02-15-06:08:06,10.1.1.3,32,0.020,0.020,0.020,0.000,0.000,0.000
1644905286506521088,2022-02-15-06:08:06,10.1.1.3,20,0.030,0.030,0.030,0.000,0.000,0.000
1644905286566539008,2022-02-15-06:08:06,10.1.1.3,30,0.040,0.040,0.040,0.000,0.000,0.000
1644905286606683904,2022-02-15-06:08:06,10.1.1.3,19,0.050,0.050,0.050,0.000,0.000,0.000
1644905286666680064,2022-02-15-06:08:06,10.1.1.3,29,0.060,0.060,0.060,0.000,0.000,0.000
1644905286707185152,2022-02-15-06:08:06,10.1.1.3,19,0.069,0.069,0.069,0.000,0.000,0.000
1644905286768590848,2022-02-15-06:08:06,10.1.1.3,28,0.080,0.080,0.080,0.000,0.000,0.000
1644905286826489856,2022-02-15-06:08:06,10.1.1.3,30,0.090,0.090,0.090,0.000,0.000,0.000
1644905286868116992,2022-02-15-06:08:06,10.1.1.3,19,0.100,0.100,0.100,0.000,0.000,0.000
1644905286927331072,2022-02-15-06:08:06,10.1.1.3,20,0.090,0.090,0.090,0.000,0.000,0.000
1644905286987116032,2022-02-15-06:08:06,10.1.1.3,25,0.080,0.080,0.080,0.000,0.000,0.000
1644905287085561088,2022-02-15-06:08:07,10.1.1.3,34,0.070,0.070,0.070,0.000,0.000,0.000
1644905287126797056,2022-02-15-06:08:07,10.1.1.3,24,0.060,0.060,0.060,0.000,0.000,0.000
1644905287187105024,2022-02-15-06:08:07,10.1.1.3,33,0.050,0.050,0.050,0.000,0.000,0.000
1644905287227252992,2022-02-15-06:08:07,10.1.1.3,21,0.040,0.040,0.040,0.000,0.000,0.000
1644905287290635008,2022-02-15-06:08:07,10.1.1.3,29,0.030,0.030,0.030,0.000,0.000,0.000
1644905287348946176,2022-02-15-06:08:07,10.1.1.3,38,0.020,0.020,0.020,0.000,0.000,0.000
1644905287388396032,2022-02-15-06:08:07,10.1.1.3,27,0.010,0.010,0.010,0.000,0.000,0.000
1644905287447546880,2022-02-15-06:08:07,10.1.1.3,35,0.000,0.000,0.000,0.000,0.000,0.000
1644905287487056896,2022-02-15-06:08:07,10.1.1.3,22,-0.010,-0.010,-0.010,0.000,0.000,0.000
1644905287550945024,2022-02-15-06:08:07,10.1.1.3,31,-0.020,-0.020,-0.020,0.000,0.000,0.000
1644905287608623872,2022-02-15-06:08:07,10.1.1.3,29,-0.030,-0.030,-0.030,0.000,0.000,0.000
1644905287668519936,2022-02-15-06:08:07,10.1.1.3,38,-0.040,-0.040,-0.040,0.000,0.000,0.000
1644905287721696000,2022-02-15-06:08:07,10.1.1.3,27,-0.050,-0.050,-0.050,0.000,0.000,0.000
1644905287770401024,2022-02-15-06:08:07,10.1.1.3,34,-0.060,-0.060,-0.060,0.000,0.000,0.000
1644905287807190016,2022-02-15-06:08:07,10.1.1.3,23,-0.070,-0.070,-0.070,0.000,0.000,0.000
1644905287869174016,2022-02-15-06:08:07,10.1.1.3,33,-0.080,-0.080,-0.080,0.000,0.000,0.000
1644905287908258816,2022-02-15-06:08:07,10.1.1.3,21,-0.090,-0.090,-0.090,0.000,0.000,0.000
1644905287967139840,2022-02-15-06:08:07,10.1.1.3,31,-0.100,-0.100,-0.100,0.000,0.000,0.000
1644905288008486144,2022-02-15-06:08:08,10.1.1.3,20,-0.090,-0.090,-0.090,0.000,0.000,0.000
1644905288071943168,2022-02-15-06:08:08,10.1.1.3,29,-0.080,-0.080,-0.080,0.000,0.000,0.000
1644905288129404160,2022-02-15-06:08:08,10.1.1.3,38,-0.070,-0.070,-0.070,0.000,0.000,0.000
1644905288169539072,2022-02-15-06:08:08,10.1.1.3,26,-0.060,-0.060,-0.060,0.000,0.000,0.000
1644905288227976960,2022-02-15-06:08:08,10.1.1.3,35,-0.050,-0.050,-0.050,0.000,0.000,0.000
1644905288266571008,2022-02-15-06:08:08,10.1.1.3,21,-0.040,-0.040,-0.040,0.000,0.000,0.000
1644905288326818816,2022-02-15-06:08:08,10.1.1.3,31,-0.030,-0.030,-0.030,0.000,0.000,0.000
1644905288367491072,2022-02-15-06:08:08,10.1.1.3,20,-0.020,-0.020,-0.020,0.000,0.000,0.000
1644905288428917760,2022-02-15-06:08:08,10.1.1.3,29,-0.010,-0.010,-0.010,0.000,0.000,0.000
1644905288468432896,2022-02-15-06:08:08,10.1.1.3,19,-0.001,-0.001,-0.001,0.000,0.000,0.000
1644905288527676160,2022-02-15-06:08:08,10.1.1.3,28,0.010,0.010,0.010,0.000,0.000,0.000
1644905288592076032,2022-02-15-06:08:08,10.1.1.3,36,0.020,0.020,0.020,0.000,0.000,0.000
1644905288653424896,2022-02-15-06:08:08,10.1.1.3,24,0.030,0.030,0.030,0.000,0.000,0.000
1644905288707080960,2022-02-15-06:08:08,10.1.1.3,33,0.040,0.040,0.040,0.000,0.000,0.000
1644905288746917120,2022-02-15-06:08:08,10.1.1.3,21,0.050,0.050,0.050,0.000,0.000,0.000
1644905288807243008,2022-02-15-06:08:08,10.1.1.3,31,0.060,0.060,0.060,0.000,0.000,0.000
1644905288846941952,2022-02-15-06:08:08,10.1.1.3,20,0.070,0.070,0.070,0.000,0.000,0.000
1644905288906317824,2022-02-15-06:08:08,10.1.1.3,29,0.080,0.080,0.080,0.000,0.000,0.000
1644905288966576128,2022-02-15-06:08:08,10.1.1.3,37,0.090,0.090,0.090,0.000,0.000,0.000
1644905289006701056,2022-02-15-06:08:09,10.1.1.3,27,0.100,0.100,0.100,0.000,0.000,0.000
1644905289067142912,2022-02-15-06:08:09,10.1.1.3,34,0.090,0.090,0.090,0.000,0.000,0.000
1644905289106796032,2022-02-15-06:08:09,10.1.1.3,22,0.080,0.080,0.080,0.000,0.000,0.000
1644905289166511104,2022-02-15-06:08:09,10.1.1.3,31,0.070,0.070,0.070,0.000,0.000,0.000
1644905289207225088,2022-02-15-06:08:09,10.1.1.3,20,0.060,0.060,0.060,0.000,0.000,0.000
1644905289257287936,2022-02-15-06:08:09,10.1.1.3,20,0.050,0.050,0.050,0.000,0.000,0.000
1644905289308157952,2022-02-15-06:08:09,10.1.1.3,19,0.040,0.040,0.040,0.000,0.000,0.000
1644905289366480128,2022-02-15-06:08:09,10.1.1.3,29,0.030,0.030,0.030,0.000,0.000,0.000
1644905289426984960,2022-02-15-06:08:09,10.1.1.3,38,0.020,0.020,0.020,0.000,0.000,0.000
1644905289466747904,2022-02-15-06:08:09,10.1.1.3,27,0.010,0.010,0.010,0.000,0.000,0.000
1644905289526840832,2022-02-15-06:08:09,10.1.1.3,34,0.000,0.000,0.000,0.000,0.000,0.000
1644905289567142912,2022-02-15-06:08:09,10.1.1.3,24,-0.010,-0.010,-0.010,0.000,0.000,0.000
1644905289626771968,2022-02-15-06:08:09,10.1.1.3,33,-0.020,-0.020,-0.020,0.000,0.000,0.000
1644905289666865152,2022-02-15-06:08:09,10.1.1.3,22,-0.030,-0.030,-0.030,0.000,0.000,0.000
1644905289727149056,2022-02-15-06:08:09,10.1.1.3,32,-0.040,-0.040,-0.040,0.000,0.000,0.000
1644905289766590976,2022-02-15-06:08:09,10.1.1.3,21,-0.050,-0.050,-0.050,0.000,0.000,0.000
1644905289827580928,2022-02-15-06:08:09,10.1.1.3,31,-0.060,-0.060,-0.060,0.000,0.000,0.000
1644905289869924096,2022-02-15-06:08:09,10.1.1.3,19,-0.070,-0.070,-0.070,0.000,0.000,0.000
1644905289926394112,2022-02-15-06:08:09,10.1.1.3,28,-0.080,-0.080,-0.080,0.000,0.000,0.000
1644905289987051008,2022-02-15-06:08:09,10.1.1.3,38,-0.090,-0.090,-0.090,0.000,0.000,0.000
1644905290037667072,2022-02-15-06:08:10,10.1.1.3,26,-0.100,-0.100,-0.100,0.000,0.000,0.000
1644905290090377984,2022-02-15-06:08:10,10.1.1.3,32,-0.090,-0.090,-0.090,0.000,0.000,0.000
1644905290127254016,2022-02-15-06:08:10,10.1.1.3,20,-0.080,-0.080,-0.080,0.000,0.000,0.000
1644905290187077888,2022-02-15-06:08:10,10.1.1.3,28,-0.070,-0.070,-0.070,0.000,0.000,0.000
1644905290248114176,2022-02-15-06:08:10,10.1.1.3,38,-0.060,-0.060,-0.060,0.000,0.000,0.000
1644905290288399872,2022-02-15-06:08:10,10.1.1.3,27,-0.050,-0.050,-0.050,0.000,0.000,0.000
1644905290346620160,2022-02-15-06:08:10,10.1.1.3,35,-0.040,-0.040,-0.040,0.000,0.000,0.000
1644905290386635008,2022-02-15-06:08:10,10.1.1.3,19,-0.031,-0.031,-0.031,0.000,0.000,0.000
1644905290447194112,2022-02-15-06:08:10,10.1.1.3,28,-0.020,-0.020,-0.020,0.000,0.000,0.000
1644905290497282048,2022-02-15-06:08:10,10.1.1.3,27,-0.010,-0.010,-0.010,0.000,0.000,0.000
1644905290547410944,2022-02-15-06:08:10,10.1.1.3,26,0.000,0.000,0.000,0.000,0.000,0.000
1644905290607475968,2022-02-15-06:08:10,10.1.1.3,36,0.010,0.010,0.010,0.000,0.000,0.000
1644905290650672896,2022-02-15-06:08:10,10.1.1.3,20,0.020,0.020,0.020,0.000,0.000,0.000
1644905290709362944,2022-02-15-06:08:10,10.1.1.3,29,0.030,0.030,0.030,0.000,0.000,0.000
1644905290813227008,2022-02-15-06:08:10,10.1.1.3,26,0.050,0.050,0.050,0.000,0.000,0.000
1644905290929483008,2022-02-15-06:08:10,10.1.1.3,25,0.070,0.070,0.070,0.000,0.000,0.000
1644905290986692864,2022-02-15-06:08:10,10.1.1.3,33,0.080,0.080,0.080,0.000,0.000,0.000
1644905291027089152,2022-02-15-06:08:11,10.1.1.3,23,0.090,0.090,0.090,0.000,0.000,0.000
1644905291086749184,2022-02-15-06:08:11,10.1.1.3,32,0.100,0.100,0.100,0.000,0.000,0.000
1644905291127179008,2022-02-15-06:08:11,10.1.1.3,21,0.090,0.090,0.090,0.000,0.000,0.000
1644905291187081216,2022-02-15-06:08:11,10.1.1.3,31,0.080,0.080,0.080,0.000,0.000,0.000
1644905291227463936,2022-02-15-06:08:11,10.1.1.3,20,0.070,0.070,0.070,0.000,0.000,0.000
1644905291291783936,2022-02-15-06:08:11,10.1.1.3,30,0.060,0.060,0.060,0.000,0.000,0.000
1644905291332634880,2022-02-15-06:08:11,10.1.1.3,19,0.051,0.051,0.051,0.000,0.000,0.000
1644905291389497088,2022-02-15-06:08:11,10.1.1.3,25,0.040,0.040,0.040,0.000,0.000,0.000
1644905291449101056,2022-02-15-06:08:11,10.1.1.3,35,0.030,0.030,0.030,0.000,0.000,0.000
1644905291491281152,2022-02-15-06:08:11,10.1.1.3,23,0.020,0.020,0.020,0.000,0.000,0.000
1644905291546955008,2022-02-15-06:08:11,10.1.1.3,31,0.010,0.010,0.010,0.000,0.000,0.000
1644905291588894976,2022-02-15-06:08:11,10.1.1.3,21,0.000,0.000,0.000,0.000,0.000,0.000
1644905291647800064,2022-02-15-06:08:11,10.1.1.3,30,-0.010,-0.010,-0.010,0.000,0.000,0.000
1644905291688891904,2022-02-15-06:08:11,10.1.1.3,19,-0.020,-0.020,-0.020,0.000,0.000,0.000
1644905291748477952,2022-02-15-06:08:11,10.1.1.3,29,-0.030,-0.030,-0.030,0.000,0.000,0.000
1644905291808992000,2022-02-15-06:08:11,10.1.1.3,38,-0.040,-0.040,-0.040,0.000,0.000,0.000
1644905291846995968,2022-02-15-06:08:11,10.1.1.3,27,-0.050,-0.050,-0.050,0.000,0.000,0.000
1644905292007448832,2022-02-15-06:08:12,10.1.1.3,33,-0.080,-0.080,-0.080,0.000,0.000,0.000
1644905292046897920,2022-02-15-06:08:12,10.1.1.3,22,-0.090,-0.090,-0.090,0.000,0.000,0.000
1644905292106662144,2022-02-15-06:08:12,10.1.1.3,30,-0.100,-0.100,-0.100,0.000,0.000,0.000
1644905292146832896,2022-02-15-06:08:12,10.1.1.3,20,-0.090,-0.090,-0.090,0.000,0.000,0.000
1644905292207796992,2022-02-15-06:08:12,10.1.1.3,29,-0.080,-0.080,-0.080,0.000,0.000,0.000
1644905292246828032,2022-02-15-06:08:12,10.1.1.3,19,-0.071,-0.071,-0.071,0.000,0.000,0.000
1644905292311984128,2022-02-15-06:08:12,10.1.1.3,28,-0.060,-0.060,-0.060,0.000,0.000,0.000
1644905292366857984,2022-02-15-06:08:12,10.1.1.3,38,-0.050,-0.050,-0.050,0.000,0.000,0.000
1644905292408314880,2022-02-15-06:08:12,10.1.1.3,24,-0.040,-0.040,-0.040,0.000,0.000,0.000
1644905292466934016,2022-02-15-06:08:12,10.1.1.3,32,-0.030,-0.030,-0.030,0.000,0.000,0.000
1644905292507191040,2022-02-15-06:08:12,10.1.1.3,22,-0.020,-0.020,-0.020,0.000,0.000,0.000
1644905292566646016,2022-02-15-06:08:12,10.1.1.3,31,-0.010,-0.010,-0.010,0.000,0.000,0.000
1644905292606694912,2022-02-15-06:08:12,10.1.1.3,20,0.000,0.000,0.000,0.000,0.000,0.000
1644905292666788096,2022-02-15-06:08:12,10.1.1.3,29,0.010,0.010,0.010,0.000,0.000,0.000
1644905292728201984,2022-02-15-06:08:12,10.1.1.3,38,0.020,0.020,0.020,0.000,0.000,0.000
1644905292769861888,2022-02-15-06:08:12,10.1.1.3,27,0.030,0.030,0.030,0.000,0.000,0.000
1644905292826955008,2022-02-15-06:08:12,10.1.1.3,33,0.040,0.040,0.040,0.000,0.000,0.000
1644905292868110848,2022-02-15-06:08:12,10.1.1.3,20,0.050,0.050,0.050,0.000,0.000,0.000
1644905292927001856,2022-02-15-06:08:12,10.1.1.3,30,0.060,0.060,0.060,0.000,0.000,0.000
1644905292987443968,2022-02-15-06:08:12,10.1.1.3,37,0.070,0.070,0.070,0.000,0.000,0.000
1644905293028002048,2022-02-15-06:08:13,10.1.1.3,26,0.080,0.080,0.080,0.000,0.000,0.000
1644905293088179968,2022-02-15-06:08:13,10.1.1.3,33,0.090,0.090,0.090,0.000,0.000,0.000
1644905293128612096,2022-02-15-06:08:13,10.1.1.3,22,0.100,0.100,0.100,0.000,0.000,0.000
1644905293187714048,2022-02-15-06:08:13,10.1.1.3,32,0.090,0.090,0.090,0.000,0.000,0.000
1644905293233978112,2022-02-15-06:08:13,10.1.1.3,21,0.080,0.080,0.080,0.000,0.000,0.000
1644905293291815936,2022-02-15-06:08:13,10.1.1.3,28,0.070,0.070,0.070,0.000,0.000,0.000
1644905293346836992,2022-02-15-06:08:13,10.1.1.3,25,0.060,0.060,0.060,0.000,0.000,0.000
1644905293407043072,2022-02-15-06:08:13,10.1.1.3,34,0.050,0.050,0.050,0.000,0.000,0.000
1644905293447164160,2022-02-15-06:08:13,10.1.1.3,22,0.040,0.040,0.040,0.000,0.000,0.000
1644905293506968064,2022-02-15-06:08:13,10.1.1.3,32,0.030,0.030,0.030,0.000,0.000,0.000
1644905293547097088,2022-02-15-06:08:13,10.1.1.3,21,0.020,0.020,0.020,0.000,0.000,0.000
1644905293606776064,2022-02-15-06:08:13,10.1.1.3,31,0.010,0.010,0.010,0.000,0.000,0.000
1644905293654989056,2022-02-15-06:08:13,10.1.1.3,21,0.000,0.000,0.000,0.000,0.000,0.000
1644905293706752000,2022-02-15-06:08:13,10.1.1.3,29,-0.010,-0.010,-0.010,0.000,0.000,0.000
1644905293767036928,2022-02-15-06:08:13,10.1.1.3,38,-0.020,-0.020,-0.020,0.000,0.000,0.000
1644905293808867840,2022-02-15-06:08:13,10.1.1.3,26,-0.030,-0.030,-0.030,0.000,0.000,0.000
1644905293867535104,2022-02-15-06:08:13,10.1.1.3,35,-0.040,-0.040,-0.040,0.000,0.000,0.000
1644905293908157184,2022-02-15-06:08:13,10.1.1.3,23,-0.050,-0.050,-0.050,0.000,0.000,0.000
1644905293968689920,2022-02-15-06:08:13,10.1.1.3,32,-0.060,-0.060,-0.060,0.000,0.000,0.000
1644905294009011968,2022-02-15-06:08:14,10.1.1.3,21,-0.070,-0.070,-0.070,0.000,0.000,0.000
1644905294067784960,2022-02-15-06:08:14,10.1.1.3,29,-0.080,-0.080,-0.080,0.000,0.000,0.000
1644905294169321984,2022-02-15-06:08:14,10.1.1.3,19,-0.099,-0.099,-0.099,0.000,0.000,0.000
1644905294227302912,2022-02-15-06:08:14,10.1.1.3,28,-0.090,-0.090,-0.090,0.000,0.000,0.000
1644905294327874048,2022-02-15-06:08:14,10.1.1.3,27,-0.070,-0.070,-0.070,0.000,0.000,0.000
1644905294387427072,2022-02-15-06:08:14,10.1.1.3,35,-0.060,-0.060,-0.060,0.000,0.000,0.000
1644905294432457984,2022-02-15-06:08:14,10.1.1.3,24,-0.050,-0.050,-0.050,0.000,0.000,0.000
1644905294486866944,2022-02-15-06:08:14,10.1.1.3,28,-0.040,-0.040,-0.040,0.000,0.000,0.000
1644905294546448896,2022-02-15-06:08:14,10.1.1.3,36,-0.030,-0.030,-0.030,0.000,0.000,0.000
1644905294587730944,2022-02-15-06:08:14,10.1.1.3,23,-0.020,-0.020,-0.020,0.000,0.000,0.000
1644905294646459136,2022-02-15-06:08:14,10.1.1.3,28,-0.010,-0.010,-0.010,0.000,0.000,0.000
1644905294707015936,2022-02-15-06:08:14,10.1.1.3,38,0.000,0.000,0.000,0.000,0.000,0.000
1644905294747590144,2022-02-15-06:08:14,10.1.1.3,27,0.010,0.010,0.010,0.000,0.000,0.000
1644905294807086080,2022-02-15-06:08:14,10.1.1.3,35,0.020,0.020,0.020,0.000,0.000,0.000
1644905294846450176,2022-02-15-06:08:14,10.1.1.3,24,0.030,0.030,0.030,0.000,0.000,0.000
1644905294906584064,2022-02-15-06:08:14,10.1.1.3,33,0.040,0.040,0.040,0.000,0.000,0.000
1644905294946508800,2022-02-15-06:08:14,10.1.1.3,22,0.050,0.050,0.050,0.000,0.000,0.000
1644905295006946048,2022-02-15-06:08:15,10.1.1.3,31,0.060,0.060,0.060,0.000,0.000,0.000
1644905295047276032,2022-02-15-06:08:15,10.1.1.3,19,0.070,0.070,0.070,0.000,0.000,0.000
1644905295107695104,2022-02-15-06:08:15,10.1.1.3,29,0.080,0.080,0.080,0.000,0.000,0.000
1644905295168935936,2022-02-15-06:08:15,10.1.1.3,38,0.090,0.090,0.090,0.000,0.000,0.000
1644905295209918976,2022-02-15-06:08:15,10.1.1.3,27,0.100,0.100,0.100,0.000,0.000,0.000
1644905295266617088,2022-02-15-06:08:15,10.1.1.3,36,0.090,0.090,0.090,0.000,0.000,0.000
1644905295306966016,2022-02-15-06:08:15,10.1.1.3,25,0.080,0.080,0.080,0.000,0.000,0.000
1644905295367176960,2022-02-15-06:08:15,10.1.1.3,35,0.070,0.070,0.070,0.000,0.000,0.000
1644905295406996992,2022-02-15-06:08:15,10.1.1.3,24,0.060,0.060,0.060,0.000,0.000,0.000
1644905295468938240,2022-02-15-06:08:15,10.1.1.3,32,0.050,0.050,0.050,0.000,0.000,0.000
1644905295515696896,2022-02-15-06:08:15,10.1.1.3,21,0.040,0.040,0.040,0.000,0.000,0.000
1644905295575654912,2022-02-15-06:08:15,10.1.1.3,29,0.030,0.030,0.030,0.000,0.000,0.000
1644905295688947968,2022-02-15-06:08:15,10.1.1.3,31,0.010,0.010,0.010,0.000,0.000,0.000
1644905295728261120,2022-02-15-06:08:15,10.1.1.3,19,0.001,0.001,0.001,0.000,0.000,0.000
1644905295788896000,2022-02-15-06:08:15,10.1.1.3,26,-0.010,-0.010,-0.010,0.000,0.000,0.000
1644905295848830976,2022-02-15-06:08:15,10.1.1.3,34,-0.020,-0.020,-0.020,0.000,0.000,0.000
1644905295890141952,2022-02-15-06:08:15,10.1.1.3,21,-0.030,-0.030,-0.030,0.000,0.000,0.000
1644905295947031040,2022-02-15-06:08:15,10.1.1.3,28,-0.040,-0.040,-0.040,0.000,0.000,0.000
1644905296006931968,2022-02-15-06:08:16,10.1.1.3,37,-0.050,-0.050,-0.050,0.000,0.000,0.000
1644905296048430848,2022-02-15-06:08:16,10.1.1.3,26,-0.060,-0.060,-0.060,0.000,0.000,0.000
1644905296108836864,2022-02-15-06:08:16,10.1.1.3,35,-0.070,-0.070,-0.070,0.000,0.000,0.000
1644905296148345088,2022-02-15-06:08:16,10.1.1.3,24,-0.080,-0.080,-0.080,0.000,0.000,0.000
1644905296208983808,2022-02-15-06:08:16,10.1.1.3,31,-0.090,-0.090,-0.090,0.000,0.000,0.000
1644905296247520000,2022-02-15-06:08:16,10.1.1.3,19,-0.100,-0.100,-0.100,0.000,0.000,0.000
1644905296308901120,2022-02-15-06:08:16,10.1.1.3,27,-0.090,-0.090,-0.090,0.000,0.000,0.000
1644905296367718912,2022-02-15-06:08:16,10.1.1.3,36,-0.080,-0.080,-0.080,0.000,0.000,0.000
1644905296407053824,2022-02-15-06:08:16,10.1.1.3,25,-0.070,-0.070,-0.070,0.000,0.000,0.000
1644905296466995968,2022-02-15-06:08:16,10.1.1.3,33,-0.060,-0.060,-0.060,0.000,0.000,0.000
1644905296513447936,2022-02-15-06:08:16,10.1.1.3,21,-0.050,-0.050,-0.050,0.000,0.000,0.000
1644905296566952960,2022-02-15-06:08:16,10.1.1.3,30,-0.040,-0.040,-0.040,0.000,0.000,0.000
1644905296607147008,2022-02-15-06:08:16,10.1.1.3,20,-0.030,-0.030,-0.030,0.000,0.000,0.000
1644905296667289856,2022-02-15-06:08:16,10.1.1.3,29,-0.020,-0.020,-0.020,0.000,0.000,0.000
1644905296726658048,2022-02-15-06:08:16,10.1.1.3,37,-0.010,-0.010,-0.010,0.000,0.000,0.000
1644905296768055808,2022-02-15-06:08:16,10.1.1.3,26,0.000,0.000,0.000,0.000,0.000,0.000
1644905296827699968,2022-02-15-06:08:16,10.1.1.3,36,0.010,0.010,0.010,0.000,0.000,0.000
1644905296867429888,2022-02-15-06:08:16,10.1.1.3,24,0.020,0.020,0.020,0.000,0.000,0.000
1644905296889394944,2022-02-15-06:08:16,10.1.1.3,-8,0.020,0.020,0.020,0.000,0.000,0.000
1644905296968893952,2022-02-15-06:08:16,10.1.1.3,21,0.040,0.040,0.040,0.000,0.000,0.000
1644905297028686080,2022-02-15-06:08:17,10.1.1.3,31,0.050,0.050,0.050,0.000,0.000,0.000
1644905297088065024,2022-02-15-06:08:17,10.1.1.3,32,0.060,0.060,0.060,0.000,0.000,0.000
1644905297127193088,2022-02-15-06:08:17,10.1.1.3,22,0.070,0.070,0.070,0.000,0.000,0.000
1644905297187463168,2022-02-15-06:08:17,10.1.1.3,31,0.080,0.080,0.080,0.000,0.000,0.000
1644905297227281920,2022-02-15-06:08:17,10.1.1.3,21,0.090,0.090,0.090,0.000,0.000,0.000
1644905297288722944,2022-02-15-06:08:17,10.1.1.3,30,0.100,0.100,0.100,0.000,0.000,0.000
1644905297347603968,2022-02-15-06:08:17,10.1.1.3,31,0.090,0.090,0.090,0.000,0.000,0.000
1644905297386753024,2022-02-15-06:08:17,10.1.1.3,20,0.080,0.080,0.080,0.000,0.000,0.000
1644905297447087104,2022-02-15-06:08:17,10.1.1.3,29,0.070,0.070,0.070,0.000,0.000,0.000
1644905297492175104,2022-02-15-06:08:17,10.1.1.3,19,0.061,0.061,0.061,0.000,0.000,0.000
1644905297546612992,2022-02-15-06:08:17,10.1.1.3,28,0.050,0.050,0.050,0.000,0.000,0.000
1644905297606486016,2022-02-15-06:08:17,10.1.1.3,36,0.040,0.040,0.040,0.000,0.000,0.000
1644905297647917056,2022-02-15-06:08:17,10.1.1.3,25,0.030,0.030,0.030,0.000,0.000,0.000
1644905297711593984,2022-02-15-06:08:17,10.1.1.3,35,0.020,0.020,0.020,0.000,0.000,0.000
1644905297746705920,2022-02-15-06:08:17,10.1.1.3,24,0.010,0.010,0.010,0.000,0.000,0.000
1644905297806982912,2022-02-15-06:08:17,10.1.1.3,33,0.000,0.000,0.000,0.000,0.000,0.000
1644905297847057152,2022-02-15-06:08:17,10.1.1.3,22,-0.010,-0.010,-0.010,0.000,0.000,0.000
1644905297907996928,2022-02-15-06:08:17,10.1.1.3,26,-0.020,-0.020,-0.020,0.000,0.000,0.000
1644905297967851008,2022-02-15-06:08:17,10.1.1.3,35,-0.030,-0.030,-0.030,0.000,0.000,0.000
1644905298008065024,2022-02-15-06:08:18,10.1.1.3,24,-0.040,-0.040,-0.040,0.000,0.000,0.000
1644905298075675136,2022-02-15-06:08:18,10.1.1.3,33,-0.050,-0.050,-0.050,0.000,0.000,0.000
1644905298129556992,2022-02-15-06:08:18,10.1.1.3,22,-0.060,-0.060,-0.060,0.000,0.000,0.000
1644905298166899968,2022-02-15-06:08:18,10.1.1.3,28,-0.070,-0.070,-0.070,0.000,0.000,0.000
1644905298226480128,2022-02-15-06:08:18,10.1.1.3,37,-0.080,-0.080,-0.080,0.000,0.000,0.000
1644905298267684096,2022-02-15-06:08:18,10.1.1.3,27,-0.090,-0.090,-0.090,0.000,0.000,0.000
1644905298328349184,2022-02-15-06:08:18,10.1.1.3,31,-0.100,-0.100,-0.100,0.000,0.000,0.000
1644905298368706816,2022-02-15-06:08:18,10.1.1.3,19,-0.090,-0.090,-0.090,0.000,0.000,0.000
1644905298431875072,2022-02-15-06:08:18,10.1.1.3,27,-0.080,-0.080,-0.080,0.000,0.000,0.000
1644905298492507904,2022-02-15-06:08:18,10.1.1.3,37,-0.070,-0.070,-0.070,0.000,0.000,0.000
1644905298529899008,2022-02-15-06:08:18,10.1.1.3,26,-0.060,-0.060,-0.060,0.000,0.000,0.000
1644905298586967040,2022-02-15-06:08:18,10.1.1.3,35,-0.050,-0.050,-0.050,0.000,0.000,0.000
1644905298628652032,2022-02-15-06:08:18,10.1.1.3,23,-0.040,-0.040,-0.040,0.000,0.000,0.000
1644905298688788992,2022-02-15-06:08:18,10.1.1.3,32,-0.030,-0.030,-0.030,0.000,0.000,0.000
1644905298727937024,2022-02-15-06:08:18,10.1.1.3,21,-0.020,-0.020,-0.020,0.000,0.000,0.000
1644905298792599040,2022-02-15-06:08:18,10.1.1.3,27,-0.010,-0.010,-0.010,0.000,0.000,0.000
1644905298847150080,2022-02-15-06:08:18,10.1.1.3,26,0.000,0.000,0.000,0.000,0.000,0.000
1644905298908803840,2022-02-15-06:08:18,10.1.1.3,29,0.010,0.010,0.010,0.000,0.000,0.000
1644905298967806208,2022-02-15-06:08:18,10.1.1.3,38,0.020,0.020,0.020,0.000,0.000,0.000
1644905299006874112,2022-02-15-06:08:19,10.1.1.3,26,0.030,0.030,0.030,0.000,0.000,0.000
1644905299067655936,2022-02-15-06:08:19,10.1.1.3,35,0.040,0.040,0.040,0.000,0.000,0.000
1644905299109234176,2022-02-15-06:08:19,10.1.1.3,25,0.050,0.050,0.050,0.000,0.000,0.000
1644905299166593024,2022-02-15-06:08:19,10.1.1.3,34,0.060,0.060,0.060,0.000,0.000,0.000
1644905299206774016,2022-02-15-06:08:19,10.1.1.3,23,0.070,0.070,0.070,0.000,0.000,0.000
1644905299266809856,2022-02-15-06:08:19,10.1.1.3,32,0.080,0.080,0.080,0.000,0.000,0.000
1644905299307609088,2022-02-15-06:08:19,10.1.1.3,22,0.090,0.090,0.090,0.000,0.000,0.000
1644905299368196096,2022-02-15-06:08:19,10.1.1.3,31,0.100,0.100,0.100,0.000,0.000,0.000
1644905299408513024,2022-02-15-06:08:19,10.1.1.3,20,0.090,0.090,0.090,0.000,0.000,0.000
1644905299467431168,2022-02-15-06:08:19,10.1.1.3,29,0.080,0.080,0.080,0.000,0.000,0.000
1644905299508459008,2022-02-15-06:08:19,10.1.1.3,19,0.071,0.071,0.071,0.000,0.000,0.000
1644905299571832832,2022-02-15-06:08:19,10.1.1.3,28,0.060,0.060,0.060,0.000,0.000,0.000
1644905299629616896,2022-02-15-06:08:19,10.1.1.3,37,0.050,0.050,0.050,0.000,0.000,0.000
1644905299669126912,2022-02-15-06:08:19,10.1.1.3,25,0.040,0.040,0.040,0.000,0.000,0.000
1644905299728306944,2022-02-15-06:08:19,10.1.1.3,32,0.030,0.030,0.030,0.000,0.000,0.000
1644905299769432064,2022-02-15-06:08:19,10.1.1.3,21,0.020,0.020,0.020,0.000,0.000,0.000
1644905299827166208,2022-02-15-06:08:19,10.1.1.3,30,0.010,0.010,0.010,0.000,0.000,0.000
1644905299867108096,2022-02-15-06:08:19,10.1.1.3,19,0.000,0.000,0.000,0.000,0.000,0.000
1644905299928966912,2022-02-15-06:08:19,10.1.1.3,28,-0.010,-0.010,-0.010,0.000,0.000,0.000
1644905299988423168,2022-02-15-06:08:19,10.1.1.3,38,-0.020,-0.020,-0.020,0.000,0.000,0.000
1644905300027700992,2022-02-15-06:08:20,10.1.1.3,26,-0.030,-0.030,-0.030,0.000,0.000,0.000
1644905300089071104,2022-02-15-06:08:20,10.1.1.3,36,-0.040,-0.040,-0.040,0.000,0.000,0.000
1644905300129933056,2022-02-15-06:08:20,10.1.1.3,24,-0.050,-0.050,-0.050,0.000,0.000,0.000
1644905300188466944,2022-02-15-06:08:20,10.1.1.3,19,-0.059,-0.059,-0.059,0.000,0.000,0.000
1644905300246988032,2022-02-15-06:08:20,10.1.1.3,24,-0.070,-0.070,-0.070,0.000,0.000,0.000
1644905300312457984,2022-02-15-06:08:20,10.1.1.3,33,-0.080,-0.080,-0.080,0.000,0.000,0.000
1644905300350204928,2022-02-15-06:08:20,10.1.1.3,21,-0.090,-0.090,-0.090,0.000,0.000,0.000
1644905300408553984,2022-02-15-06:08:20,10.1.1.3,30,-0.100,-0.100,-0.100,0.000,0.000,0.000
1644905300446810880,2022-02-15-06:08:20,10.1.1.3,20,-0.090,-0.090,-0.090,0.000,0.000,0.000
1644905300507102976,2022-02-15-06:08:20,10.1.1.3,29,-0.080,-0.080,-0.080,0.000,0.000,0.000
1644905300568505088,2022-02-15-06:08:20,10.1.1.3,37,-0.070,-0.070,-0.070,0.000,0.000,0.000
1644905300608733952,2022-02-15-06:08:20,10.1.1.3,26,-0.060,-0.060,-0.060,0.000,0.000,0.000
1644905300666980096,2022-02-15-06:08:20,10.1.1.3,35,-0.050,-0.050,-0.050,0.000,0.000,0.000
1644905300706964992,2022-02-15-06:08:20,10.1.1.3,24,-0.040,-0.040,-0.040,0.000,0.000,0.000
1644905300766731008,2022-02-15-06:08:20,10.1.1.3,33,-0.030,-0.030,-0.030,0.000,0.000,0.000
1644905300807218944,2022-02-15-06:08:20,10.1.1.3,22,-0.020,-0.020,-0.020,0.000,0.000,0.000
1644905300868932096,2022-02-15-06:08:20,10.1.1.3,31,-0.010,-0.010,-0.010,0.000,0.000,0.000
1644905300926738944,2022-02-15-06:08:20,10.1.1.3,37,0.000,0.000,0.000,0.000,0.000,0.000
1644905300966939904,2022-02-15-06:08:20,10.1.1.3,25,0.010,0.010,0.010,0.000,0.000,0.000
1644905301026720000,2022-02-15-06:08:21,10.1.1.3,34,0.020,0.020,0.020,0.000,0.000,0.000
1644905301066437888,2022-02-15-06:08:21,10.1.1.3,22,0.030,0.030,0.030,0.000,0.000,0.000
1644905301128092928,2022-02-15-06:08:21,10.1.1.3,31,0.040,0.040,0.040,0.000,0.000,0.000
1644905301170439936,2022-02-15-06:08:21,10.1.1.3,20,0.050,0.050,0.050,0.000,0.000,0.000
1644905301227731968,2022-02-15-06:08:21,10.1.1.3,30,0.060,0.060,0.060,0.000,0.000,0.000
1644905301269426176,2022-02-15-06:08:21,10.1.1.3,19,0.070,0.070,0.070,0.000,0.000,0.000
1644905301327410944,2022-02-15-06:08:21,10.1.1.3,28,0.080,0.080,0.080,0.000,0.000,0.000
1644905301388200960,2022-02-15-06:08:21,10.1.1.3,38,0.090,0.090,0.090,0.000,0.000,0.000
1644905301429358848,2022-02-15-06:08:21,10.1.1.3,26,0.100,0.100,0.100,0.000,0.000,0.000
1644905301486934016,2022-02-15-06:08:21,10.1.1.3,35,0.090,0.090,0.090,0.000,0.000,0.000
1644905301527684864,2022-02-15-06:08:21,10.1.1.3,25,0.080,0.080,0.080,0.000,0.000,0.000
1644905301586912000,2022-02-15-06:08:21,10.1.1.3,34,0.070,0.070,0.070,0.000,0.000,0.000
1644905301628539136,2022-02-15-06:08:21,10.1.1.3,21,0.060,0.060,0.060,0.000,0.000,0.000
1644905301687086080,2022-02-15-06:08:21,10.1.1.3,30,0.050,0.050,0.050,0.000,0.000,0.000
1644905301748570880,2022-02-15-06:08:21,10.1.1.3,39,0.040,0.040,0.040,0.000,0.000,0.000
1644905301787548160,2022-02-15-06:08:21,10.1.1.3,27,0.030,0.030,0.030,0.000,0.000,0.000
1644905301849095936,2022-02-15-06:08:21,10.1.1.3,34,0.020,0.020,0.020,0.000,0.000,0.000
1644905301892105984,2022-02-15-06:08:21,10.1.1.3,23,0.010,0.010,0.010,0.000,0.000,0.000
1644905301947958016,2022-02-15-06:08:21,10.1.1.3,32,0.000,0.000,0.000,0.000,0.000,0.000
1644905301988819968,2022-02-15-06:08:21,10.1.1.3,21,-0.010,-0.010,-0.010,0.000,0.000,0.000
1644905302047256064,2022-02-15-06:08:22,10.1.1.3,30,-0.020,-0.020,-0.020,0.000,0.000,0.000
1644905302091586048,2022-02-15-06:08:22,10.1.1.3,20,-0.030,-0.030,-0.030,0.000,0.000,0.000
1644905302146595840,2022-02-15-06:08:22,10.1.1.3,28,-0.040,-0.040,-0.040,0.000,0.000,0.000
1644905302207066112,2022-02-15-06:08:22,10.1.1.3,37,-0.050,-0.050,-0.050,0.000,0.000,0.000
1644905302246391040,2022-02-15-06:08:22,10.1.1.3,27,-0.060,-0.060,-0.060,0.000,0.000,0.000
1644905302308114944,2022-02-15-06:08:22,10.1.1.3,36,-0.070,-0.070,-0.070,0.000,0.000,0.000
1644905302347512064,2022-02-15-06:08:22,10.1.1.3,25,-0.080,-0.080,-0.080,0.000,0.000,0.000
1644905302407130112,2022-02-15-06:08:22,10.1.1.3,34,-0.090,-0.090,-0.090,0.000,0.000,0.000
1644905302446588160,2022-02-15-06:08:22,10.1.1.3,21,-0.100,-0.100,-0.100,0.000,0.000,0.000
1644905302508934144,2022-02-15-06:08:22,10.1.1.3,30,-0.090,-0.090,-0.090,0.000,0.000,0.000
1644905302550039040,2022-02-15-06:08:22,10.1.1.3,19,-0.080,-0.080,-0.080,0.000,0.000,0.000
1644905302607702016,2022-02-15-06:08:22,10.1.1.3,28,-0.070,-0.070,-0.070,0.000,0.000,0.000
1644905302668306176,2022-02-15-06:08:22,10.1.1.3,37,-0.060,-0.060,-0.060,0.000,0.000,0.000
1644905302708730880,2022-02-15-06:08:22,10.1.1.3,25,-0.050,-0.050,-0.050,0.000,0.000,0.000
1644905302769081088,2022-02-15-06:08:22,10.1.1.3,34,-0.040,-0.040,-0.040,0.000,0.000,0.000
1644905302812856064,2022-02-15-06:08:22,10.1.1.3,22,-0.030,-0.030,-0.030,0.000,0.000,0.000
1644905302867567104,2022-02-15-06:08:22,10.1.1.3,31,-0.020,-0.020,-0.020,0.000,0.000,0.000
1644905302908288000,2022-02-15-06:08:22,10.1.1.3,19,-0.010,-0.010,-0.010,0.000,0.000,0.000
1644905302967098112,2022-02-15-06:08:22,10.1.1.3,28,0.000,0.000,0.000,0.000,0.000,0.000
1644905303028686080,2022-02-15-06:08:23,10.1.1.3,37,0.010,0.010,0.010,0.000,0.000,0.000
1644905303068365056,2022-02-15-06:08:23,10.1.1.3,24,0.020,0.020,0.020,0.000,0.000,0.000
1644905303129446912,2022-02-15-06:08:23,10.1.1.3,32,0.030,0.030,0.030,0.000,0.000,0.000
1644905303168754176,2022-02-15-06:08:23,10.1.1.3,20,0.040,0.040,0.040,0.000,0.000,0.000
1644905303229044992,2022-02-15-06:08:23,10.1.1.3,28,0.050,0.050,0.050,0.000,0.000,0.000
1644905303286514944,2022-02-15-06:08:23,10.1.1.3,37,0.060,0.060,0.060,0.000,0.000,0.000
1644905303327037952,2022-02-15-06:08:23,10.1.1.3,25,0.070,0.070,0.070,0.000,0.000,0.000
1644905303387667968,2022-02-15-06:08:23,10.1.1.3,34,0.080,0.080,0.080,0.000,0.000,0.000
1644905303427319040,2022-02-15-06:08:23,10.1.1.3,23,0.090,0.090,0.090,0.000,0.000,0.000
1644905303487771904,2022-02-15-06:08:23,10.1.1.3,31,0.100,0.100,0.100,0.000,0.000,0.000
1644905303526863104,2022-02-15-06:08:23,10.1.1.3,20,0.090,0.090,0.090,0.000,0.000,0.000
1644905303586721024,2022-02-15-06:08:23,10.1.1.3,29,0.080,0.080,0.080,0.000,0.000,0.000
1644905303646848000,2022-02-15-06:08:23,10.1.1.3,38,0.070,0.070,0.070,0.000,0.000,0.000
1644905303688630016,2022-02-15-06:08:23,10.1.1.3,26,0.060,0.060,0.060,0.000,0.000,0.000
1644905303748747008,2022-02-15-06:08:23,10.1.1.3,35,0.050,0.050,0.050,0.000,0.000,0.000
1644905303856761088,2022-02-15-06:08:23,10.1.1.3,29,0.030,0.030,0.030,0.000,0.000,0.000
1644905303909326080,2022-02-15-06:08:23,10.1.1.3,38,0.020,0.020,0.020,0.000,0.000,0.000
1644905303983325952,2022-02-15-06:08:23,10.1.1.3,19,0.011,0.011,0.011,0.000,0.000,0.000
1644905304029468160,2022-02-15-06:08:24,10.1.1.3,26,0.000,0.000,0.000,0.000,0.000,0.000
1644905304089342208,2022-02-15-06:08:24,10.1.1.3,35,-0.010,-0.010,-0.010,0.000,0.000,0.000
1644905304129611008,2022-02-15-06:08:24,10.1.1.3,25,-0.020,-0.020,-0.020,0.000,0.000,0.000
1644905304189289216,2022-02-15-06:08:24,10.1.1.3,33,-0.030,-0.030,-0.030,0.000,0.000,0.000
1644905304226268160,2022-02-15-06:08:24,10.1.1.3,21,-0.040,-0.040,-0.040,0.000,0.000,0.000
1644905304349893120,2022-02-15-06:08:24,10.1.1.3,39,-0.060,-0.060,-0.060,0.000,0.000,0.000
1644905304386887168,2022-02-15-06:08:24,10.1.1.3,28,-0.070,-0.070,-0.070,0.000,0.000,0.000
1644905304447166976,2022-02-15-06:08:24,10.1.1.3,37,-0.080,-0.080,-0.080,0.000,0.000,0.000
1644905304488481024,2022-02-15-06:08:24,10.1.1.3,25,-0.090,-0.090,-0.090,0.000,0.000,0.000
1644905304549197056,2022-02-15-06:08:24,10.1.1.3,33,-0.100,-0.100,-0.100,0.000,0.000,0.000
1644905304588537856,2022-02-15-06:08:24,10.1.1.3,22,-0.090,-0.090,-0.090,0.000,0.000,0.000
1644905304647708928,2022-02-15-06:08:24,10.1.1.3,31,-0.080,-0.080,-0.080,0.000,0.000,0.000
1644905304807746048,2022-02-15-06:08:24,10.1.1.3,35,-0.050,-0.050,-0.050,0.000,0.000,0.000
1644905304847672832,2022-02-15-06:08:24,10.1.1.3,25,-0.040,-0.040,-0.040,0.000,0.000,0.000
1644905304908800000,2022-02-15-06:08:24,10.1.1.3,34,-0.030,-0.030,-0.030,0.000,0.000,0.000
1644905304946412032,2022-02-15-06:08:24,10.1.1.3,23,-0.020,-0.020,-0.020,0.000,0.000,0.000
1644905305006895104,2022-02-15-06:08:25,10.1.1.3,32,-0.010,-0.010,-0.010,0.000,0.000,0.000
1644905305047374848,2022-02-15-06:08:25,10.1.1.3,21,0.000,0.000,0.000,0.000,0.000,0.000
1644905305107822848,2022-02-15-06:08:25,10.1.1.3,31,0.010,0.010,0.010,0.000,0.000,0.000
1644905305146630144,2022-02-15-06:08:25,10.1.1.3,20,0.020,0.020,0.020,0.000,0.000,0.000
1644905305206976000,2022-02-15-06:08:25,10.1.1.3,29,0.030,0.030,0.030,0.000,0.000,0.000
1644905305267684864,2022-02-15-06:08:25,10.1.1.3,38,0.040,0.040,0.040,0.000,0.000,0.000
1644905305308275968,2022-02-15-06:08:25,10.1.1.3,28,0.050,0.050,0.050,0.000,0.000,0.000
1644905305368279040,2022-02-15-06:08:25,10.1.1.3,37,0.060,0.060,0.060,0.000,0.000,0.000
1644905305407699968,2022-02-15-06:08:25,10.1.1.3,26,0.070,0.070,0.070,0.000,0.000,0.000
1644905305469990912,2022-02-15-06:08:25,10.1.1.3,35,0.080,0.080,0.080,0.000,0.000,0.000
1644905305507566080,2022-02-15-06:08:25,10.1.1.3,23,0.090,0.090,0.090,0.000,0.000,0.000
1644905305567234048,2022-02-15-06:08:25,10.1.1.3,31,0.100,0.100,0.100,0.000,0.000,0.000
1644905305606502144,2022-02-15-06:08:25,10.1.1.3,21,0.090,0.090,0.090,0.000,0.000,0.000
1644905305667205120,2022-02-15-06:08:25,10.1.1.3,30,0.080,0.080,0.080,0.000,0.000,0.000
1644905305706589952,2022-02-15-06:08:25,10.1.1.3,20,0.070,0.070,0.070,0.000,0.000,0.000
