FedericoMungari/DigitalTwin_service/01_WiredScenario/Output/Output_script/script_rosapi_2_output_robots12_freq0_10.txt
timestamp,date,node,latency,joint_1,joint_2,joint_3,joint_4,joint_5,joint_6
1641234796850307072,2022-01-03-18:33:16,10.1.1.11,197,-0.040,-0.040,-0.040,0.000,0.000,0.000
1641234797052324096,2022-01-03-18:33:17,10.1.1.11,197,-0.050,-0.050,-0.050,0.000,0.000,0.000
1641234797251430144,2022-01-03-18:33:17,10.1.1.11,195,-0.060,-0.060,-0.060,0.000,0.000,0.000
1641234797456263168,2022-01-03-18:33:17,10.1.1.11,193,-0.070,-0.070,-0.070,0.000,0.000,0.000
1641234797650446848,2022-01-03-18:33:17,10.1.1.11,189,-0.080,-0.080,-0.080,0.000,0.000,0.000
1641234797853726976,2022-01-03-18:33:17,10.1.1.11,192,-0.090,-0.090,-0.090,0.000,0.000,0.000
1641234799071780864,2022-01-03-18:33:19,10.1.1.11,-1,-0.150,-0.150,-0.150,0.000,0.000,0.000
1641234799473318144,2022-01-03-18:33:19,10.1.1.11,200,-0.170,-0.170,-0.170,0.000,0.000,0.000
1641234799671204096,2022-01-03-18:33:19,10.1.1.11,194,-0.180,-0.180,-0.180,0.000,0.000,0.000
1641234799871260928,2022-01-03-18:33:19,10.1.1.11,193,-0.190,-0.190,-0.190,0.000,0.000,0.000
1641234800071894016,2022-01-03-18:33:20,10.1.1.11,193,-0.200,-0.200,-0.200,0.000,0.000,0.000
1641234800272206080,2022-01-03-18:33:20,10.1.1.11,191,-0.210,-0.210,-0.210,0.000,0.000,0.000
1641234800471822080,2022-01-03-18:33:20,10.1.1.11,191,-0.220,-0.220,-0.220,0.000,0.000,0.000
1641234802691257088,2022-01-03-18:33:22,10.1.1.11,200,-0.330,-0.330,-0.330,0.000,0.000,0.000
1641234802891390976,2022-01-03-18:33:22,10.1.1.11,199,-0.340,-0.340,-0.340,0.000,0.000,0.000
1641234803091145984,2022-01-03-18:33:23,10.1.1.11,198,-0.350,-0.350,-0.350,0.000,0.000,0.000
1641234803503341824,2022-01-03-18:33:23,10.1.1.11,200,-0.370,-0.370,-0.370,0.000,0.000,0.000
1641234804100728064,2022-01-03-18:33:24,10.1.1.11,190,-0.400,-0.400,-0.400,0.000,0.000,0.000
1641234804310283008,2022-01-03-18:33:24,10.1.1.11,198,-0.410,-0.410,-0.410,0.000,0.000,0.000
1641234804510359040,2022-01-03-18:33:24,10.1.1.11,198,-0.420,-0.420,-0.420,0.000,0.000,0.000
1641234804710465792,2022-01-03-18:33:24,10.1.1.11,196,-0.430,-0.430,-0.430,0.000,0.000,0.000
1641234804911919104,2022-01-03-18:33:24,10.1.1.11,194,-0.440,-0.440,-0.440,0.000,0.000,0.000
1641234805111233024,2022-01-03-18:33:25,10.1.1.11,192,-0.450,-0.450,-0.450,0.000,0.000,0.000
1641234805309954048,2022-01-03-18:33:25,10.1.1.11,191,-0.460,-0.460,-0.460,0.000,0.000,0.000
1641234805510097152,2022-01-03-18:33:25,10.1.1.11,190,-0.470,-0.470,-0.470,0.000,0.000,0.000
1641234805909417984,2022-01-03-18:33:25,10.1.1.11,187,-0.490,-0.490,-0.490,0.000,0.000,0.000
1641234807328561920,2022-01-03-18:33:27,10.1.1.11,200,-0.420,-0.420,-0.420,0.000,0.000,0.000
1641234807517841152,2022-01-03-18:33:27,10.1.1.11,188,-0.410,-0.410,-0.410,0.000,0.000,0.000
1641234807729555968,2022-01-03-18:33:27,10.1.1.11,199,-0.400,-0.400,-0.400,0.000,0.000,0.000
1641234807936316928,2022-01-03-18:33:27,10.1.1.11,202,-0.390,-0.390,-0.390,0.000,0.000,0.000
1641234808546713088,2022-01-03-18:33:28,10.1.1.11,196,-0.360,-0.360,-0.360,0.000,0.000,0.000
1641234808747628800,2022-01-03-18:33:28,10.1.1.11,196,-0.350,-0.350,-0.350,0.000,0.000,0.000
1641234808947127040,2022-01-03-18:33:28,10.1.1.11,194,-0.340,-0.340,-0.340,0.000,0.000,0.000
1641234809149879808,2022-01-03-18:33:29,10.1.1.11,196,-0.330,-0.330,-0.330,0.000,0.000,0.000
1641234809345784064,2022-01-03-18:33:29,10.1.1.11,191,-0.320,-0.320,-0.320,0.000,0.000,0.000
1641234809548335104,2022-01-03-18:33:29,10.1.1.11,192,-0.310,-0.310,-0.310,0.000,0.000,0.000
1641234809745428992,2022-01-03-18:33:29,10.1.1.11,189,-0.300,-0.300,-0.300,0.000,0.000,0.000
1641234809945552128,2022-01-03-18:33:29,10.1.1.11,188,-0.290,-0.290,-0.290,0.000,0.000,0.000
1641234810145232896,2022-01-03-18:33:30,10.1.1.11,187,-0.280,-0.280,-0.280,0.000,0.000,0.000
1641234810345155072,2022-01-03-18:33:30,10.1.1.11,187,-0.270,-0.270,-0.270,0.000,0.000,0.000
1641234810545121024,2022-01-03-18:33:30,10.1.1.11,186,-0.260,-0.260,-0.260,0.000,0.000,0.000
1641234810744229120,2022-01-03-18:33:30,10.1.1.11,182,-0.250,-0.250,-0.250,0.000,0.000,0.000
1641234811164335872,2022-01-03-18:33:31,10.1.1.11,200,-0.230,-0.230,-0.230,0.000,0.000,0.000
1641234811363819008,2022-01-03-18:33:31,10.1.1.11,198,-0.220,-0.220,-0.220,0.000,0.000,0.000
1641234811564190976,2022-01-03-18:33:31,10.1.1.11,197,-0.210,-0.210,-0.210,0.000,0.000,0.000
1641234811763053056,2022-01-03-18:33:31,10.1.1.11,195,-0.200,-0.200,-0.200,0.000,0.000,0.000
1641234811962772992,2022-01-03-18:33:31,10.1.1.11,194,-0.190,-0.190,-0.190,0.000,0.000,0.000
1641234812163005952,2022-01-03-18:33:32,10.1.1.11,193,-0.180,-0.180,-0.180,0.000,0.000,0.000
1641234812362593792,2022-01-03-18:33:32,10.1.1.11,191,-0.170,-0.170,-0.170,0.000,0.000,0.000
1641234812562145024,2022-01-03-18:33:32,10.1.1.11,189,-0.160,-0.160,-0.160,0.000,0.000,0.000
1641234812762002944,2022-01-03-18:33:32,10.1.1.11,188,-0.150,-0.150,-0.150,0.000,0.000,0.000
1641234812962002944,2022-01-03-18:33:32,10.1.1.11,187,-0.140,-0.140,-0.140,0.000,0.000,0.000
1641234813161508096,2022-01-03-18:33:33,10.1.1.11,183,-0.130,-0.130,-0.130,0.000,0.000,0.000
1641234813381660928,2022-01-03-18:33:33,10.1.1.11,197,-0.120,-0.120,-0.120,0.000,0.000,0.000
1641234813580547072,2022-01-03-18:33:33,10.1.1.11,194,-0.110,-0.110,-0.110,0.000,0.000,0.000
1641234813780339968,2022-01-03-18:33:33,10.1.1.11,193,-0.100,-0.100,-0.100,0.000,0.000,0.000
1641234813981044992,2022-01-03-18:33:33,10.1.1.11,193,-0.090,-0.090,-0.090,0.000,0.000,0.000
1641234814179806976,2022-01-03-18:33:34,10.1.1.11,191,-0.080,-0.080,-0.080,0.000,0.000,0.000
1641234814379695872,2022-01-03-18:33:34,10.1.1.11,190,-0.070,-0.070,-0.070,0.000,0.000,0.000
1641234814580375040,2022-01-03-18:33:34,10.1.1.11,190,-0.060,-0.060,-0.060,0.000,0.000,0.000
1641234814778979072,2022-01-03-18:33:34,10.1.1.11,187,-0.050,-0.050,-0.050,0.000,0.000,0.000
1641234814978825216,2022-01-03-18:33:34,10.1.1.11,186,-0.040,-0.040,-0.040,0.000,0.000,0.000
1641234815178496000,2022-01-03-18:33:35,10.1.1.11,185,-0.030,-0.030,-0.030,0.000,0.000,0.000
1641234815577536000,2022-01-03-18:33:35,10.1.1.11,182,-0.010,-0.010,-0.010,0.000,0.000,0.000
1641234815777213184,2022-01-03-18:33:35,10.1.1.11,181,0.000,0.000,0.000,0.000,0.000,0.000
1641234815977016832,2022-01-03-18:33:35,10.1.1.11,180,-0.010,-0.010,-0.010,0.000,0.000,0.000
1641234816177096960,2022-01-03-18:33:36,10.1.1.11,179,-0.020,-0.020,-0.020,0.000,0.000,0.000
1641234816376832000,2022-01-03-18:33:36,10.1.1.11,179,-0.030,-0.030,-0.030,0.000,0.000,0.000
1641234816576256000,2022-01-03-18:33:36,10.1.1.11,178,-0.040,-0.040,-0.040,0.000,0.000,0.000
1641234816777658880,2022-01-03-18:33:36,10.1.1.11,178,-0.050,-0.050,-0.050,0.000,0.000,0.000
1641234816976020992,2022-01-03-18:33:36,10.1.1.11,176,-0.060,-0.060,-0.060,0.000,0.000,0.000
1641234817176093184,2022-01-03-18:33:37,10.1.1.11,175,-0.070,-0.070,-0.070,0.000,0.000,0.000
1641234817375785984,2022-01-03-18:33:37,10.1.1.11,174,-0.080,-0.080,-0.080,0.000,0.000,0.000
1641234817574673920,2022-01-03-18:33:37,10.1.1.11,173,-0.090,-0.090,-0.090,0.000,0.000,0.000
1641234817794931968,2022-01-03-18:33:37,10.1.1.11,190,-0.100,-0.100,-0.100,0.000,0.000,0.000
1641234817995915008,2022-01-03-18:33:37,10.1.1.11,190,-0.110,-0.110,-0.110,0.000,0.000,0.000
1641234818193420800,2022-01-03-18:33:38,10.1.1.11,187,-0.120,-0.120,-0.120,0.000,0.000,0.000
1641234818393517056,2022-01-03-18:33:38,10.1.1.11,187,-0.130,-0.130,-0.130,0.000,0.000,0.000
1641234818793126144,2022-01-03-18:33:38,10.1.1.11,182,-0.150,-0.150,-0.150,0.000,0.000,0.000
1641234818996044032,2022-01-03-18:33:38,10.1.1.11,184,-0.160,-0.160,-0.160,0.000,0.000,0.000
1641234819192284160,2022-01-03-18:33:39,10.1.1.11,180,-0.170,-0.170,-0.170,0.000,0.000,0.000
1641234819392151040,2022-01-03-18:33:39,10.1.1.11,179,-0.180,-0.180,-0.180,0.000,0.000,0.000
1641234819591937024,2022-01-03-18:33:39,10.1.1.11,178,-0.190,-0.190,-0.190,0.000,0.000,0.000
1641234819790968064,2022-01-03-18:33:39,10.1.1.11,177,-0.200,-0.200,-0.200,0.000,0.000,0.000
1641234819993516800,2022-01-03-18:33:39,10.1.1.11,178,-0.210,-0.210,-0.210,0.000,0.000,0.000
1641234820190731008,2022-01-03-18:33:40,10.1.1.11,175,-0.220,-0.220,-0.220,0.000,0.000,0.000
1641234820391684096,2022-01-03-18:33:40,10.1.1.11,174,-0.230,-0.230,-0.230,0.000,0.000,0.000
1641234820590846976,2022-01-03-18:33:40,10.1.1.11,173,-0.240,-0.240,-0.240,0.000,0.000,0.000
1641234820791732992,2022-01-03-18:33:40,10.1.1.11,173,-0.250,-0.250,-0.250,0.000,0.000,0.000
1641234821000785152,2022-01-03-18:33:41,10.1.1.11,181,-0.260,-0.260,-0.260,0.000,0.000,0.000
1641234821216968960,2022-01-03-18:33:41,10.1.1.11,195,-0.270,-0.270,-0.270,0.000,0.000,0.000
1641234821412030976,2022-01-03-18:33:41,10.1.1.11,190,-0.280,-0.280,-0.280,0.000,0.000,0.000
1641234821612206080,2022-01-03-18:33:41,10.1.1.11,189,-0.290,-0.290,-0.290,0.000,0.000,0.000
1641234821812741120,2022-01-03-18:33:41,10.1.1.11,189,-0.300,-0.300,-0.300,0.000,0.000,0.000
1641234822013478144,2022-01-03-18:33:42,10.1.1.11,189,-0.310,-0.310,-0.310,0.000,0.000,0.000
1641234822212380928,2022-01-03-18:33:42,10.1.1.11,187,-0.320,-0.320,-0.320,0.000,0.000,0.000
1641234822412928000,2022-01-03-18:33:42,10.1.1.11,187,-0.330,-0.330,-0.330,0.000,0.000,0.000
1641234822614108160,2022-01-03-18:33:42,10.1.1.11,187,-0.340,-0.340,-0.340,0.000,0.000,0.000
1641234822813952000,2022-01-03-18:33:42,10.1.1.11,184,-0.350,-0.350,-0.350,0.000,0.000,0.000
1641234823014031872,2022-01-03-18:33:43,10.1.1.11,183,-0.360,-0.360,-0.360,0.000,0.000,0.000
1641234823213593856,2022-01-03-18:33:43,10.1.1.11,182,-0.370,-0.370,-0.370,0.000,0.000,0.000
1641234823413476096,2022-01-03-18:33:43,10.1.1.11,182,-0.380,-0.380,-0.380,0.000,0.000,0.000
1641234823613851136,2022-01-03-18:33:43,10.1.1.11,181,-0.390,-0.390,-0.390,0.000,0.000,0.000
1641234823826524928,2022-01-03-18:33:43,10.1.1.11,191,-0.400,-0.400,-0.400,0.000,0.000,0.000
1641234824035067136,2022-01-03-18:33:44,10.1.1.11,192,-0.410,-0.410,-0.410,0.000,0.000,0.000
1641234824236228864,2022-01-03-18:33:44,10.1.1.11,192,-0.420,-0.420,-0.420,0.000,0.000,0.000
1641234824433937152,2022-01-03-18:33:44,10.1.1.11,189,-0.430,-0.430,-0.430,0.000,0.000,0.000
1641234824634332928,2022-01-03-18:33:44,10.1.1.11,188,-0.440,-0.440,-0.440,0.000,0.000,0.000
1641234824833556992,2022-01-03-18:33:44,10.1.1.11,187,-0.450,-0.450,-0.450,0.000,0.000,0.000
1641234825033985024,2022-01-03-18:33:45,10.1.1.11,187,-0.460,-0.460,-0.460,0.000,0.000,0.000
1641234825234009856,2022-01-03-18:33:45,10.1.1.11,186,-0.470,-0.470,-0.470,0.000,0.000,0.000
1641234825433959936,2022-01-03-18:33:45,10.1.1.11,185,-0.480,-0.480,-0.480,0.000,0.000,0.000
1641234825636759040,2022-01-03-18:33:45,10.1.1.11,183,-0.490,-0.490,-0.490,0.000,0.000,0.000
1641234825850055936,2022-01-03-18:33:45,10.1.1.11,194,-0.480,-0.480,-0.480,0.000,0.000,0.000
1641234826034025984,2022-01-03-18:33:46,10.1.1.11,177,-0.470,-0.470,-0.470,0.000,0.000,0.000
1641234826434273024,2022-01-03-18:33:46,10.1.1.11,173,-0.450,-0.450,-0.450,0.000,0.000,0.000
1641234826653146112,2022-01-03-18:33:46,10.1.1.11,190,-0.440,-0.440,-0.440,0.000,0.000,0.000
1641234826855475968,2022-01-03-18:33:46,10.1.1.11,190,-0.430,-0.430,-0.430,0.000,0.000,0.000
1641234827059178240,2022-01-03-18:33:47,10.1.1.11,190,-0.420,-0.420,-0.420,0.000,0.000,0.000
1641234827277102848,2022-01-03-18:33:47,10.1.1.11,194,-0.410,-0.410,-0.410,0.000,0.000,0.000
1641234827473149184,2022-01-03-18:33:47,10.1.1.11,189,-0.400,-0.400,-0.400,0.000,0.000,0.000
1641234827668303872,2022-01-03-18:33:47,10.1.1.11,184,-0.390,-0.390,-0.390,0.000,0.000,0.000
1641234827873480192,2022-01-03-18:33:47,10.1.1.11,188,-0.380,-0.380,-0.380,0.000,0.000,0.000
1641234828073635072,2022-01-03-18:33:48,10.1.1.11,187,-0.370,-0.370,-0.370,0.000,0.000,0.000
1641234828273601024,2022-01-03-18:33:48,10.1.1.11,187,-0.360,-0.360,-0.360,0.000,0.000,0.000
1641234828475840000,2022-01-03-18:33:48,10.1.1.11,188,-0.350,-0.350,-0.350,0.000,0.000,0.000
1641234828673569792,2022-01-03-18:33:48,10.1.1.11,185,-0.340,-0.340,-0.340,0.000,0.000,0.000
1641234828875937024,2022-01-03-18:33:48,10.1.1.11,186,-0.330,-0.330,-0.330,0.000,0.000,0.000
1641234829072952064,2022-01-03-18:33:49,10.1.1.11,182,-0.320,-0.320,-0.320,0.000,0.000,0.000
1641234829273379072,2022-01-03-18:33:49,10.1.1.11,179,-0.310,-0.310,-0.310,0.000,0.000,0.000
1641234829472899840,2022-01-03-18:33:49,10.1.1.11,178,-0.300,-0.300,-0.300,0.000,0.000,0.000
1641234829674768896,2022-01-03-18:33:49,10.1.1.11,180,-0.290,-0.290,-0.290,0.000,0.000,0.000
1641234829872940032,2022-01-03-18:33:49,10.1.1.11,177,-0.280,-0.280,-0.280,0.000,0.000,0.000
1641234830072889088,2022-01-03-18:33:50,10.1.1.11,175,-0.270,-0.270,-0.270,0.000,0.000,0.000
1641234830273478912,2022-01-03-18:33:50,10.1.1.11,175,-0.260,-0.260,-0.260,0.000,0.000,0.000
1641234830473503232,2022-01-03-18:33:50,10.1.1.11,174,-0.250,-0.250,-0.250,0.000,0.000,0.000
1641234830674552832,2022-01-03-18:33:50,10.1.1.11,174,-0.240,-0.240,-0.240,0.000,0.000,0.000
1641234830873832960,2022-01-03-18:33:50,10.1.1.11,173,-0.230,-0.230,-0.230,0.000,0.000,0.000
1641234831092269056,2022-01-03-18:33:51,10.1.1.11,180,-0.220,-0.220,-0.220,0.000,0.000,0.000
1641234831284054016,2022-01-03-18:33:51,10.1.1.11,171,-0.210,-0.210,-0.210,0.000,0.000,0.000
1641234831514248960,2022-01-03-18:33:51,10.1.1.11,200,-0.200,-0.200,-0.200,0.000,0.000,0.000
1641234831692517888,2022-01-03-18:33:51,10.1.1.11,177,-0.190,-0.190,-0.190,0.000,0.000,0.000
1641234831893884928,2022-01-03-18:33:51,10.1.1.11,178,-0.180,-0.180,-0.180,0.000,0.000,0.000
1641234832092710144,2022-01-03-18:33:52,10.1.1.11,172,-0.170,-0.170,-0.170,0.000,0.000,0.000
1641234832292449024,2022-01-03-18:33:52,10.1.1.11,171,-0.160,-0.160,-0.160,0.000,0.000,0.000
1641234832511246080,2022-01-03-18:33:52,10.1.1.11,187,-0.150,-0.150,-0.150,0.000,0.000,0.000
1641234832712591872,2022-01-03-18:33:52,10.1.1.11,187,-0.140,-0.140,-0.140,0.000,0.000,0.000
1641234832913325056,2022-01-03-18:33:52,10.1.1.11,187,-0.130,-0.130,-0.130,0.000,0.000,0.000
1641234833121434880,2022-01-03-18:33:53,10.1.1.11,194,-0.120,-0.120,-0.120,0.000,0.000,0.000
1641234833316765952,2022-01-03-18:33:53,10.1.1.11,188,-0.110,-0.110,-0.110,0.000,0.000,0.000
1641234833533396992,2022-01-03-18:33:53,10.1.1.11,189,-0.100,-0.100,-0.100,0.000,0.000,0.000
1641234833732844032,2022-01-03-18:33:53,10.1.1.11,187,-0.090,-0.090,-0.090,0.000,0.000,0.000
1641234833922880000,2022-01-03-18:33:53,10.1.1.11,176,-0.080,-0.080,-0.080,0.000,0.000,0.000
1641234834132535808,2022-01-03-18:33:54,10.1.1.11,184,-0.070,-0.070,-0.070,0.000,0.000,0.000
1641234834331659008,2022-01-03-18:33:54,10.1.1.11,183,-0.060,-0.060,-0.060,0.000,0.000,0.000
1641234834532224768,2022-01-03-18:33:54,10.1.1.11,182,-0.050,-0.050,-0.050,0.000,0.000,0.000
1641234834731924992,2022-01-03-18:33:54,10.1.1.11,182,-0.040,-0.040,-0.040,0.000,0.000,0.000
1641234834932339968,2022-01-03-18:33:54,10.1.1.11,179,-0.030,-0.030,-0.030,0.000,0.000,0.000
1641234835134813184,2022-01-03-18:33:55,10.1.1.11,176,-0.020,-0.020,-0.020,0.000,0.000,0.000
1641234835330212096,2022-01-03-18:33:55,10.1.1.11,173,-0.010,-0.010,-0.010,0.000,0.000,0.000
1641234835751992832,2022-01-03-18:33:55,10.1.1.11,171,-0.010,-0.010,-0.010,0.000,0.000,0.000
1641234835952615936,2022-01-03-18:33:55,10.1.1.11,171,-0.020,-0.020,-0.020,0.000,0.000,0.000
1641234836169908992,2022-01-03-18:33:56,10.1.1.11,187,-0.030,-0.030,-0.030,0.000,0.000,0.000
1641234836369204992,2022-01-03-18:33:56,10.1.1.11,183,-0.040,-0.040,-0.040,0.000,0.000,0.000
1641234836569722880,2022-01-03-18:33:56,10.1.1.11,183,-0.050,-0.050,-0.050,0.000,0.000,0.000
1641234836772830976,2022-01-03-18:33:56,10.1.1.11,177,-0.060,-0.060,-0.060,0.000,0.000,0.000
1641234836969163008,2022-01-03-18:33:56,10.1.1.11,173,-0.070,-0.070,-0.070,0.000,0.000,0.000
1641234837170144000,2022-01-03-18:33:57,10.1.1.11,173,-0.080,-0.080,-0.080,0.000,0.000,0.000
1641234837369278976,2022-01-03-18:33:57,10.1.1.11,172,-0.090,-0.090,-0.090,0.000,0.000,0.000
1641234837569988096,2022-01-03-18:33:57,10.1.1.11,172,-0.100,-0.100,-0.100,0.000,0.000,0.000
1641234837989821952,2022-01-03-18:33:57,10.1.1.11,187,-0.120,-0.120,-0.120,0.000,0.000,0.000
1641234838188097024,2022-01-03-18:33:58,10.1.1.11,181,-0.130,-0.130,-0.130,0.000,0.000,0.000
1641234838388452096,2022-01-03-18:33:58,10.1.1.11,180,-0.140,-0.140,-0.140,0.000,0.000,0.000
1641234838596860928,2022-01-03-18:33:58,10.1.1.11,188,-0.150,-0.150,-0.150,0.000,0.000,0.000
1641234838787494912,2022-01-03-18:33:58,10.1.1.11,178,-0.160,-0.160,-0.160,0.000,0.000,0.000
1641234839186723072,2022-01-03-18:33:59,10.1.1.11,168,-0.180,-0.180,-0.180,0.000,0.000,0.000
1641234839386989056,2022-01-03-18:33:59,10.1.1.11,167,-0.190,-0.190,-0.190,0.000,0.000,0.000
1641234839586564096,2022-01-03-18:33:59,10.1.1.11,166,-0.200,-0.200,-0.200,0.000,0.000,0.000
1641234839788584960,2022-01-03-18:33:59,10.1.1.11,168,-0.210,-0.210,-0.210,0.000,0.000,0.000
1641234840000509952,2022-01-03-18:34:00,10.1.1.11,178,-0.220,-0.220,-0.220,0.000,0.000,0.000
1641234840206080000,2022-01-03-18:34:00,10.1.1.11,168,-0.230,-0.230,-0.230,0.000,0.000,0.000
1641234840405710080,2022-01-03-18:34:00,10.1.1.11,166,-0.240,-0.240,-0.240,0.000,0.000,0.000
1641234840609316096,2022-01-03-18:34:00,10.1.1.11,167,-0.250,-0.250,-0.250,0.000,0.000,0.000
1641234840826266880,2022-01-03-18:34:00,10.1.1.11,182,-0.260,-0.260,-0.260,0.000,0.000,0.000
1641234841030982912,2022-01-03-18:34:01,10.1.1.11,185,-0.270,-0.270,-0.270,0.000,0.000,0.000
1641234841240633856,2022-01-03-18:34:01,10.1.1.11,194,-0.280,-0.280,-0.280,0.000,0.000,0.000
1641234841424304128,2022-01-03-18:34:01,10.1.1.11,175,-0.290,-0.290,-0.290,0.000,0.000,0.000
1641234841644912896,2022-01-03-18:34:01,10.1.1.11,179,-0.300,-0.300,-0.300,0.000,0.000,0.000
1641234841844997888,2022-01-03-18:34:01,10.1.1.11,178,-0.310,-0.310,-0.310,0.000,0.000,0.000
1641234842045336064,2022-01-03-18:34:02,10.1.1.11,179,-0.320,-0.320,-0.320,0.000,0.000,0.000
1641234842250610176,2022-01-03-18:34:02,10.1.1.11,183,-0.330,-0.330,-0.330,0.000,0.000,0.000
1641234842439676160,2022-01-03-18:34:02,10.1.1.11,172,-0.340,-0.340,-0.340,0.000,0.000,0.000
1641234842653731072,2022-01-03-18:34:02,10.1.1.11,168,-0.350,-0.350,-0.350,0.000,0.000,0.000
1641234842863663872,2022-01-03-18:34:02,10.1.1.11,175,-0.360,-0.360,-0.360,0.000,0.000,0.000
1641234843062484992,2022-01-03-18:34:03,10.1.1.11,170,-0.370,-0.370,-0.370,0.000,0.000,0.000
1641234843266220032,2022-01-03-18:34:03,10.1.1.11,173,-0.380,-0.380,-0.380,0.000,0.000,0.000
1641234843462428160,2022-01-03-18:34:03,10.1.1.11,169,-0.390,-0.390,-0.390,0.000,0.000,0.000
1641234843670931200,2022-01-03-18:34:03,10.1.1.11,176,-0.400,-0.400,-0.400,0.000,0.000,0.000
1641234843861608960,2022-01-03-18:34:03,10.1.1.11,162,-0.410,-0.410,-0.410,0.000,0.000,0.000
1641234844077626880,2022-01-03-18:34:04,10.1.1.11,177,-0.420,-0.420,-0.420,0.000,0.000,0.000
1641234844272589056,2022-01-03-18:34:04,10.1.1.11,169,-0.430,-0.430,-0.430,0.000,0.000,0.000
1641234844481241088,2022-01-03-18:34:04,10.1.1.11,176,-0.440,-0.440,-0.440,0.000,0.000,0.000
1641234844680605952,2022-01-03-18:34:04,10.1.1.11,175,-0.450,-0.450,-0.450,0.000,0.000,0.000
1641234844881372928,2022-01-03-18:34:04,10.1.1.11,175,-0.460,-0.460,-0.460,0.000,0.000,0.000
1641234845080777984,2022-01-03-18:34:05,10.1.1.11,174,-0.470,-0.470,-0.470,0.000,0.000,0.000
1641234845281542912,2022-01-03-18:34:05,10.1.1.11,174,-0.480,-0.480,-0.480,0.000,0.000,0.000
1641234845480123904,2022-01-03-18:34:05,10.1.1.11,171,-0.490,-0.490,-0.490,0.000,0.000,0.000
1641234845680481792,2022-01-03-18:34:05,10.1.1.11,170,-0.480,-0.480,-0.480,0.000,0.000,0.000
1641234845885899008,2022-01-03-18:34:05,10.1.1.11,175,-0.470,-0.470,-0.470,0.000,0.000,0.000
1641234846080908032,2022-01-03-18:34:06,10.1.1.11,162,-0.460,-0.460,-0.460,0.000,0.000,0.000
1641234846280706048,2022-01-03-18:34:06,10.1.1.11,158,-0.450,-0.450,-0.450,0.000,0.000,0.000
1641234846509363968,2022-01-03-18:34:06,10.1.1.11,186,-0.440,-0.440,-0.440,0.000,0.000,0.000
1641234846707457024,2022-01-03-18:34:06,10.1.1.11,184,-0.430,-0.430,-0.430,0.000,0.000,0.000
1641234846898948864,2022-01-03-18:34:06,10.1.1.11,175,-0.420,-0.420,-0.420,0.000,0.000,0.000
1641234847098104832,2022-01-03-18:34:07,10.1.1.11,173,-0.410,-0.410,-0.410,0.000,0.000,0.000
1641234847297709056,2022-01-03-18:34:07,10.1.1.11,170,-0.400,-0.400,-0.400,0.000,0.000,0.000
1641234847497350912,2022-01-03-18:34:07,10.1.1.11,166,-0.390,-0.390,-0.390,0.000,0.000,0.000
1641234847697582080,2022-01-03-18:34:07,10.1.1.11,164,-0.380,-0.380,-0.380,0.000,0.000,0.000
1641234847897604864,2022-01-03-18:34:07,10.1.1.11,164,-0.370,-0.370,-0.370,0.000,0.000,0.000
1641234848100558080,2022-01-03-18:34:08,10.1.1.11,166,-0.360,-0.360,-0.360,0.000,0.000,0.000
1641234848296512000,2022-01-03-18:34:08,10.1.1.11,160,-0.350,-0.350,-0.350,0.000,0.000,0.000
1641234848515662080,2022-01-03-18:34:08,10.1.1.11,172,-0.340,-0.340,-0.340,0.000,0.000,0.000
1641234848724280064,2022-01-03-18:34:08,10.1.1.11,180,-0.330,-0.330,-0.330,0.000,0.000,0.000
1641234848919398144,2022-01-03-18:34:08,10.1.1.11,173,-0.320,-0.320,-0.320,0.000,0.000,0.000
1641234849115972096,2022-01-03-18:34:09,10.1.1.11,169,-0.310,-0.310,-0.310,0.000,0.000,0.000
1641234849316489984,2022-01-03-18:34:09,10.1.1.11,167,-0.300,-0.300,-0.300,0.000,0.000,0.000
1641234849515189760,2022-01-03-18:34:09,10.1.1.11,164,-0.290,-0.290,-0.290,0.000,0.000,0.000
1641234849714531072,2022-01-03-18:34:09,10.1.1.11,162,-0.280,-0.280,-0.280,0.000,0.000,0.000
1641234849934350080,2022-01-03-18:34:09,10.1.1.11,181,-0.270,-0.270,-0.270,0.000,0.000,0.000
1641234850114481920,2022-01-03-18:34:10,10.1.1.11,160,-0.260,-0.260,-0.260,0.000,0.000,0.000
1641234850314457856,2022-01-03-18:34:10,10.1.1.11,158,-0.250,-0.250,-0.250,0.000,0.000,0.000
1641234850560386816,2022-01-03-18:34:10,10.1.1.11,156,-0.240,-0.240,-0.240,0.000,0.000,0.000
1641234850753829888,2022-01-03-18:34:10,10.1.1.11,166,-0.230,-0.230,-0.230,0.000,0.000,0.000
1641234850952662016,2022-01-03-18:34:10,10.1.1.11,164,-0.220,-0.220,-0.220,0.000,0.000,0.000
1641234851153088000,2022-01-03-18:34:11,10.1.1.11,163,-0.210,-0.210,-0.210,0.000,0.000,0.000
1641234851352961024,2022-01-03-18:34:11,10.1.1.11,161,-0.200,-0.200,-0.200,0.000,0.000,0.000
1641234851552244992,2022-01-03-18:34:11,10.1.1.11,158,-0.190,-0.190,-0.190,0.000,0.000,0.000
1641234851751846912,2022-01-03-18:34:11,10.1.1.11,156,-0.180,-0.180,-0.180,0.000,0.000,0.000
1641234851972548096,2022-01-03-18:34:11,10.1.1.11,176,-0.170,-0.170,-0.170,0.000,0.000,0.000
1641234852151698944,2022-01-03-18:34:12,10.1.1.11,154,-0.160,-0.160,-0.160,0.000,0.000,0.000
1641234852350824192,2022-01-03-18:34:12,10.1.1.11,153,-0.150,-0.150,-0.150,0.000,0.000,0.000
1641234852572995072,2022-01-03-18:34:12,10.1.1.11,174,-0.140,-0.140,-0.140,0.000,0.000,0.000
1641234852750888192,2022-01-03-18:34:12,10.1.1.11,151,-0.130,-0.130,-0.130,0.000,0.000,0.000
1641234852972037120,2022-01-03-18:34:12,10.1.1.11,167,-0.120,-0.120,-0.120,0.000,0.000,0.000
1641234853210779904,2022-01-03-18:34:13,10.1.1.11,160,-0.110,-0.110,-0.110,0.000,0.000,0.000
1641234853429544960,2022-01-03-18:34:13,10.1.1.11,167,-0.100,-0.100,-0.100,0.000,0.000,0.000
1641234853628758784,2022-01-03-18:34:13,10.1.1.11,149,-0.090,-0.090,-0.090,0.000,0.000,0.000
1641234853828608000,2022-01-03-18:34:13,10.1.1.11,148,-0.080,-0.080,-0.080,0.000,0.000,0.000
1641234854028296960,2022-01-03-18:34:14,10.1.1.11,146,-0.070,-0.070,-0.070,0.000,0.000,0.000
1641234854248580096,2022-01-03-18:34:14,10.1.1.11,165,-0.060,-0.060,-0.060,0.000,0.000,0.000
1641234854449103104,2022-01-03-18:34:14,10.1.1.11,164,-0.050,-0.050,-0.050,0.000,0.000,0.000
1641234854641833984,2022-01-03-18:34:14,10.1.1.11,156,-0.040,-0.040,-0.040,0.000,0.000,0.000
1641234854848155904,2022-01-03-18:34:14,10.1.1.11,161,-0.030,-0.030,-0.030,0.000,0.000,0.000
1641234855050349056,2022-01-03-18:34:15,10.1.1.11,163,-0.020,-0.020,-0.020,0.000,0.000,0.000
1641234855248441088,2022-01-03-18:34:15,10.1.1.11,149,-0.010,-0.010,-0.010,0.000,0.000,0.000
1641234855447035904,2022-01-03-18:34:15,10.1.1.11,147,0.000,0.000,0.000,0.000,0.000,0.000
1641234855647258112,2022-01-03-18:34:15,10.1.1.11,147,-0.010,-0.010,-0.010,0.000,0.000,0.000
1641234855868647936,2022-01-03-18:34:15,10.1.1.11,166,-0.020,-0.020,-0.020,0.000,0.000,0.000
1641234856065757952,2022-01-03-18:34:16,10.1.1.11,159,-0.030,-0.030,-0.030,0.000,0.000,0.000
1641234856288386048,2022-01-03-18:34:16,10.1.1.11,176,-0.040,-0.040,-0.040,0.000,0.000,0.000
1641234856465157888,2022-01-03-18:34:16,10.1.1.11,156,-0.050,-0.050,-0.050,0.000,0.000,0.000
1641234856664581120,2022-01-03-18:34:16,10.1.1.11,154,-0.060,-0.060,-0.060,0.000,0.000,0.000
1641234856864495104,2022-01-03-18:34:16,10.1.1.11,152,-0.070,-0.070,-0.070,0.000,0.000,0.000
1641234857064690944,2022-01-03-18:34:17,10.1.1.11,151,-0.080,-0.080,-0.080,0.000,0.000,0.000
1641234857264549120,2022-01-03-18:34:17,10.1.1.11,150,-0.090,-0.090,-0.090,0.000,0.000,0.000
1641234857472111104,2022-01-03-18:34:17,10.1.1.11,157,-0.100,-0.100,-0.100,0.000,0.000,0.000
1641234857663471104,2022-01-03-18:34:17,10.1.1.11,148,-0.110,-0.110,-0.110,0.000,0.000,0.000
1641234857863826944,2022-01-03-18:34:17,10.1.1.11,147,-0.120,-0.120,-0.120,0.000,0.000,0.000
1641234858062941184,2022-01-03-18:34:18,10.1.1.11,145,-0.130,-0.130,-0.130,0.000,0.000,0.000
1641234858263427072,2022-01-03-18:34:18,10.1.1.11,143,-0.140,-0.140,-0.140,0.000,0.000,0.000
1641234858486574848,2022-01-03-18:34:18,10.1.1.11,163,-0.150,-0.150,-0.150,0.000,0.000,0.000
1641234858682022144,2022-01-03-18:34:18,10.1.1.11,158,-0.160,-0.160,-0.160,0.000,0.000,0.000
1641234858881145856,2022-01-03-18:34:18,10.1.1.11,155,-0.170,-0.170,-0.170,0.000,0.000,0.000
1641234859081257216,2022-01-03-18:34:19,10.1.1.11,154,-0.180,-0.180,-0.180,0.000,0.000,0.000
1641234859280966144,2022-01-03-18:34:19,10.1.1.11,152,-0.190,-0.190,-0.190,0.000,0.000,0.000
1641234859479959040,2022-01-03-18:34:19,10.1.1.11,150,-0.200,-0.200,-0.200,0.000,0.000,0.000
1641234859717108992,2022-01-03-18:34:19,10.1.1.11,186,-0.210,-0.210,-0.210,0.000,0.000,0.000
1641234859880076032,2022-01-03-18:34:19,10.1.1.11,145,-0.220,-0.220,-0.220,0.000,0.000,0.000
1641234860079965952,2022-01-03-18:34:20,10.1.1.11,141,-0.230,-0.230,-0.230,0.000,0.000,0.000
1641234860285594880,2022-01-03-18:34:20,10.1.1.11,146,-0.240,-0.240,-0.240,0.000,0.000,0.000
1641234860498866944,2022-01-03-18:34:20,10.1.1.11,156,-0.250,-0.250,-0.250,0.000,0.000,0.000
1641234860699258112,2022-01-03-18:34:20,10.1.1.11,155,-0.260,-0.260,-0.260,0.000,0.000,0.000
1641234860898524928,2022-01-03-18:34:20,10.1.1.11,153,-0.270,-0.270,-0.270,0.000,0.000,0.000
1641234861089289984,2022-01-03-18:34:21,10.1.1.11,143,-0.280,-0.280,-0.280,0.000,0.000,0.000
1641234861297728000,2022-01-03-18:34:21,10.1.1.11,148,-0.290,-0.290,-0.290,0.000,0.000,0.000
1641234861497421056,2022-01-03-18:34:21,10.1.1.11,147,-0.300,-0.300,-0.300,0.000,0.000,0.000
1641234861696795904,2022-01-03-18:34:21,10.1.1.11,146,-0.310,-0.310,-0.310,0.000,0.000,0.000
1641234861897206016,2022-01-03-18:34:21,10.1.1.11,146,-0.320,-0.320,-0.320,0.000,0.000,0.000
1641234862096416000,2022-01-03-18:34:22,10.1.1.11,137,-0.330,-0.330,-0.330,0.000,0.000,0.000
1641234862296304896,2022-01-03-18:34:22,10.1.1.11,136,-0.340,-0.340,-0.340,0.000,0.000,0.000
1641234862518196224,2022-01-03-18:34:22,10.1.1.11,151,-0.350,-0.350,-0.350,0.000,0.000,0.000
1641234862732567040,2022-01-03-18:34:22,10.1.1.11,156,-0.360,-0.360,-0.360,0.000,0.000,0.000
1641234862926366976,2022-01-03-18:34:22,10.1.1.11,156,-0.370,-0.370,-0.370,0.000,0.000,0.000
1641234863115801088,2022-01-03-18:34:23,10.1.1.11,136,-0.380,-0.380,-0.380,0.000,0.000,0.000
1641234863423016960,2022-01-03-18:34:23,10.1.1.11,146,-0.390,-0.390,-0.390,0.000,0.000,0.000
1641234863615407872,2022-01-03-18:34:23,10.1.1.11,137,-0.400,-0.400,-0.400,0.000,0.000,0.000
1641234863815494144,2022-01-03-18:34:23,10.1.1.11,137,-0.410,-0.410,-0.410,0.000,0.000,0.000
1641234864015827968,2022-01-03-18:34:24,10.1.1.11,136,-0.420,-0.420,-0.420,0.000,0.000,0.000
1641234864214853120,2022-01-03-18:34:24,10.1.1.11,133,-0.430,-0.430,-0.430,0.000,0.000,0.000
1641234864436826880,2022-01-03-18:34:24,10.1.1.11,154,-0.440,-0.440,-0.440,0.000,0.000,0.000
1641234864633809152,2022-01-03-18:34:24,10.1.1.11,149,-0.450,-0.450,-0.450,0.000,0.000,0.000
1641234864833235968,2022-01-03-18:34:24,10.1.1.11,147,-0.460,-0.460,-0.460,0.000,0.000,0.000
1641234865033261056,2022-01-03-18:34:25,10.1.1.11,146,-0.470,-0.470,-0.470,0.000,0.000,0.000
1641234865231864832,2022-01-03-18:34:25,10.1.1.11,143,-0.480,-0.480,-0.480,0.000,0.000,0.000
1641234865431380992,2022-01-03-18:34:25,10.1.1.11,141,-0.490,-0.490,-0.490,0.000,0.000,0.000
1641234865631753984,2022-01-03-18:34:25,10.1.1.11,140,-0.480,-0.480,-0.480,0.000,0.000,0.000
1641234865692361984,2022-01-03-18:34:25,10.1.1.11,-1,-0.480,-0.480,-0.480,0.000,0.000,0.000
1641234866030322176,2022-01-03-18:34:26,10.1.1.11,137,-0.460,-0.460,-0.460,0.000,0.000,0.000
1641234866230156032,2022-01-03-18:34:26,10.1.1.11,135,-0.450,-0.450,-0.450,0.000,0.000,0.000
1641234866498615040,2022-01-03-18:34:26,10.1.1.11,203,-0.440,-0.440,-0.440,0.000,0.000,0.000
1641234866649824000,2022-01-03-18:34:26,10.1.1.11,148,-0.430,-0.430,-0.430,0.000,0.000,0.000
1641234866849384960,2022-01-03-18:34:26,10.1.1.11,136,-0.420,-0.420,-0.420,0.000,0.000,0.000
1641234867054248960,2022-01-03-18:34:27,10.1.1.11,140,-0.410,-0.410,-0.410,0.000,0.000,0.000
1641234867252087040,2022-01-03-18:34:27,10.1.1.11,136,-0.400,-0.400,-0.400,0.000,0.000,0.000
1641234867447980032,2022-01-03-18:34:27,10.1.1.11,130,-0.390,-0.390,-0.390,0.000,0.000,0.000
1641234867647465984,2022-01-03-18:34:27,10.1.1.11,128,-0.380,-0.380,-0.380,0.000,0.000,0.000
1641234867847634944,2022-01-03-18:34:27,10.1.1.11,128,-0.370,-0.370,-0.370,0.000,0.000,0.000
1641234868049300992,2022-01-03-18:34:28,10.1.1.11,128,-0.360,-0.360,-0.360,0.000,0.000,0.000
1641234868266459904,2022-01-03-18:34:28,10.1.1.11,145,-0.350,-0.350,-0.350,0.000,0.000,0.000
1641234868466526976,2022-01-03-18:34:28,10.1.1.11,143,-0.340,-0.340,-0.340,0.000,0.000,0.000
1641234868666074112,2022-01-03-18:34:28,10.1.1.11,141,-0.330,-0.330,-0.330,0.000,0.000,0.000
1641234868866072832,2022-01-03-18:34:28,10.1.1.11,139,-0.320,-0.320,-0.320,0.000,0.000,0.000
1641234869065218048,2022-01-03-18:34:29,10.1.1.11,137,-0.310,-0.310,-0.310,0.000,0.000,0.000
1641234869265364992,2022-01-03-18:34:29,10.1.1.11,136,-0.300,-0.300,-0.300,0.000,0.000,0.000
1641234869479171072,2022-01-03-18:34:29,10.1.1.11,146,-0.290,-0.290,-0.290,0.000,0.000,0.000
1641234869664510976,2022-01-03-18:34:29,10.1.1.11,130,-0.280,-0.280,-0.280,0.000,0.000,0.000
1641234869864588032,2022-01-03-18:34:29,10.1.1.11,128,-0.270,-0.270,-0.270,0.000,0.000,0.000
1641234870064349952,2022-01-03-18:34:30,10.1.1.11,127,-0.260,-0.260,-0.260,0.000,0.000,0.000
1641234870267388160,2022-01-03-18:34:30,10.1.1.11,129,-0.250,-0.250,-0.250,0.000,0.000,0.000
1641234870464593920,2022-01-03-18:34:30,10.1.1.11,126,-0.240,-0.240,-0.240,0.000,0.000,0.000
1641234870662772992,2022-01-03-18:34:30,10.1.1.11,121,-0.230,-0.230,-0.230,0.000,0.000,0.000
1641234870886163968,2022-01-03-18:34:30,10.1.1.11,143,-0.220,-0.220,-0.220,0.000,0.000,0.000
1641234871083200000,2022-01-03-18:34:31,10.1.1.11,130,-0.210,-0.210,-0.210,0.000,0.000,0.000
1641234871282184960,2022-01-03-18:34:31,10.1.1.11,128,-0.200,-0.200,-0.200,0.000,0.000,0.000
1641234871484225024,2022-01-03-18:34:31,10.1.1.11,127,-0.190,-0.190,-0.190,0.000,0.000,0.000
1641234871683094016,2022-01-03-18:34:31,10.1.1.11,125,-0.180,-0.180,-0.180,0.000,0.000,0.000
1641234871900818176,2022-01-03-18:34:31,10.1.1.11,130,-0.170,-0.170,-0.170,0.000,0.000,0.000
1641234872100811008,2022-01-03-18:34:32,10.1.1.11,129,-0.160,-0.160,-0.160,0.000,0.000,0.000
1641234872300381952,2022-01-03-18:34:32,10.1.1.11,125,-0.150,-0.150,-0.150,0.000,0.000,0.000
1641234872499883776,2022-01-03-18:34:32,10.1.1.11,125,-0.140,-0.140,-0.140,0.000,0.000,0.000
1641234872699456000,2022-01-03-18:34:32,10.1.1.11,123,-0.130,-0.130,-0.130,0.000,0.000,0.000
1641234872898919936,2022-01-03-18:34:32,10.1.1.11,122,-0.120,-0.120,-0.120,0.000,0.000,0.000
1641234873098676992,2022-01-03-18:34:33,10.1.1.11,121,-0.110,-0.110,-0.110,0.000,0.000,0.000
1641234873325304064,2022-01-03-18:34:33,10.1.1.11,146,-0.100,-0.100,-0.100,0.000,0.000,0.000
1641234873518682880,2022-01-03-18:34:33,10.1.1.11,136,-0.090,-0.090,-0.090,0.000,0.000,0.000
1641234873718471168,2022-01-03-18:34:33,10.1.1.11,135,-0.080,-0.080,-0.080,0.000,0.000,0.000
1641234873918669056,2022-01-03-18:34:33,10.1.1.11,135,-0.070,-0.070,-0.070,0.000,0.000,0.000
1641234874117494016,2022-01-03-18:34:34,10.1.1.11,133,-0.060,-0.060,-0.060,0.000,0.000,0.000
1641234874318658048,2022-01-03-18:34:34,10.1.1.11,130,-0.050,-0.050,-0.050,0.000,0.000,0.000
1641234874516929024,2022-01-03-18:34:34,10.1.1.11,127,-0.040,-0.040,-0.040,0.000,0.000,0.000
1641234874716291840,2022-01-03-18:34:34,10.1.1.11,126,-0.030,-0.030,-0.030,0.000,0.000,0.000
1641234874915741952,2022-01-03-18:34:34,10.1.1.11,124,-0.020,-0.020,-0.020,0.000,0.000,0.000
1641234875116118016,2022-01-03-18:34:35,10.1.1.11,123,-0.010,-0.010,-0.010,0.000,0.000,0.000
1641234875315016960,2022-01-03-18:34:35,10.1.1.11,121,0.000,0.000,0.000,0.000,0.000,0.000
1641234875516408064,2022-01-03-18:34:35,10.1.1.11,121,-0.010,-0.010,-0.010,0.000,0.000,0.000
1641234875714628096,2022-01-03-18:34:35,10.1.1.11,119,-0.020,-0.020,-0.020,0.000,0.000,0.000
1641234875913907968,2022-01-03-18:34:35,10.1.1.11,117,-0.030,-0.030,-0.030,0.000,0.000,0.000
1641234876116666112,2022-01-03-18:34:36,10.1.1.11,119,-0.040,-0.040,-0.040,0.000,0.000,0.000
1641234876313790976,2022-01-03-18:34:36,10.1.1.11,114,-0.050,-0.050,-0.050,0.000,0.000,0.000
1641234876513214208,2022-01-03-18:34:36,10.1.1.11,113,-0.060,-0.060,-0.060,0.000,0.000,0.000
1641234876718238976,2022-01-03-18:34:36,10.1.1.11,118,-0.070,-0.070,-0.070,0.000,0.000,0.000
1641234876932262912,2022-01-03-18:34:36,10.1.1.11,126,-0.080,-0.080,-0.080,0.000,0.000,0.000
1641234877132237824,2022-01-03-18:34:37,10.1.1.11,125,-0.090,-0.090,-0.090,0.000,0.000,0.000
1641234877332418048,2022-01-03-18:34:37,10.1.1.11,124,-0.100,-0.100,-0.100,0.000,0.000,0.000
1641234877531738880,2022-01-03-18:34:37,10.1.1.11,123,-0.110,-0.110,-0.110,0.000,0.000,0.000
1641234877731400960,2022-01-03-18:34:37,10.1.1.11,122,-0.120,-0.120,-0.120,0.000,0.000,0.000
1641234877950760960,2022-01-03-18:34:37,10.1.1.11,126,-0.130,-0.130,-0.130,0.000,0.000,0.000
1641234878151501824,2022-01-03-18:34:38,10.1.1.11,123,-0.140,-0.140,-0.140,0.000,0.000,0.000
1641234878349543936,2022-01-03-18:34:38,10.1.1.11,119,-0.150,-0.150,-0.150,0.000,0.000,0.000
1641234878654902016,2022-01-03-18:34:38,10.1.1.11,191,-0.160,-0.160,-0.160,0.000,0.000,0.000
1641234878789519104,2022-01-03-18:34:38,10.1.1.11,119,-0.170,-0.170,-0.170,0.000,0.000,0.000
1641234878998778112,2022-01-03-18:34:38,10.1.1.11,127,-0.180,-0.180,-0.180,0.000,0.000,0.000
1641234879191689984,2022-01-03-18:34:39,10.1.1.11,113,-0.190,-0.190,-0.190,0.000,0.000,0.000
1641234879388923904,2022-01-03-18:34:39,10.1.1.11,110,-0.200,-0.200,-0.200,0.000,0.000,0.000
1641234879588589824,2022-01-03-18:34:39,10.1.1.11,109,-0.210,-0.210,-0.210,0.000,0.000,0.000
1641234879787729152,2022-01-03-18:34:39,10.1.1.11,107,-0.220,-0.220,-0.220,0.000,0.000,0.000
1641234879991906816,2022-01-03-18:34:39,10.1.1.11,111,-0.230,-0.230,-0.230,0.000,0.000,0.000
1641234880187230976,2022-01-03-18:34:40,10.1.1.11,106,-0.240,-0.240,-0.240,0.000,0.000,0.000
1641234880409691136,2022-01-03-18:34:40,10.1.1.11,128,-0.250,-0.250,-0.250,0.000,0.000,0.000
1641234880606674944,2022-01-03-18:34:40,10.1.1.11,124,-0.260,-0.260,-0.260,0.000,0.000,0.000
1641234880887428096,2022-01-03-18:34:40,10.1.1.11,201,-0.270,-0.270,-0.270,0.000,0.000,0.000
1641234881026222848,2022-01-03-18:34:41,10.1.1.11,124,-0.280,-0.280,-0.280,0.000,0.000,0.000
1641234881226610944,2022-01-03-18:34:41,10.1.1.11,110,-0.290,-0.290,-0.290,0.000,0.000,0.000
1641234881425605888,2022-01-03-18:34:41,10.1.1.11,107,-0.300,-0.300,-0.300,0.000,0.000,0.000
1641234881644419072,2022-01-03-18:34:41,10.1.1.11,121,-0.310,-0.310,-0.310,0.000,0.000,0.000
1641234881844221184,2022-01-03-18:34:41,10.1.1.11,121,-0.320,-0.320,-0.320,0.000,0.000,0.000
1641234882043045888,2022-01-03-18:34:42,10.1.1.11,114,-0.330,-0.330,-0.330,0.000,0.000,0.000
1641234882243869184,2022-01-03-18:34:42,10.1.1.11,118,-0.340,-0.340,-0.340,0.000,0.000,0.000
1641234882464068864,2022-01-03-18:34:42,10.1.1.11,121,-0.350,-0.350,-0.350,0.000,0.000,0.000
1641234882662585088,2022-01-03-18:34:42,10.1.1.11,119,-0.360,-0.360,-0.360,0.000,0.000,0.000
1641234882864089856,2022-01-03-18:34:42,10.1.1.11,120,-0.370,-0.370,-0.370,0.000,0.000,0.000
1641234883062930176,2022-01-03-18:34:43,10.1.1.11,114,-0.380,-0.380,-0.380,0.000,0.000,0.000
1641234883262712832,2022-01-03-18:34:43,10.1.1.11,113,-0.390,-0.390,-0.390,0.000,0.000,0.000
1641234883685606912,2022-01-03-18:34:43,10.1.1.11,122,-0.410,-0.410,-0.410,0.000,0.000,0.000
1641234883879442944,2022-01-03-18:34:43,10.1.1.11,115,-0.420,-0.420,-0.420,0.000,0.000,0.000
1641234884081383936,2022-01-03-18:34:44,10.1.1.11,116,-0.430,-0.430,-0.430,0.000,0.000,0.000
1641234884282230016,2022-01-03-18:34:44,10.1.1.11,116,-0.440,-0.440,-0.440,0.000,0.000,0.000
1641234884482886912,2022-01-03-18:34:44,10.1.1.11,116,-0.450,-0.450,-0.450,0.000,0.000,0.000
1641234884684748800,2022-01-03-18:34:44,10.1.1.11,112,-0.460,-0.460,-0.460,0.000,0.000,0.000
1641234884885231872,2022-01-03-18:34:44,10.1.1.11,110,-0.470,-0.470,-0.470,0.000,0.000,0.000
1641234885086203136,2022-01-03-18:34:45,10.1.1.11,110,-0.480,-0.480,-0.480,0.000,0.000,0.000
1641234885307756800,2022-01-03-18:34:45,10.1.1.11,120,-0.490,-0.490,-0.490,0.000,0.000,0.000
1641234885509416192,2022-01-03-18:34:45,10.1.1.11,121,-0.480,-0.480,-0.480,0.000,0.000,0.000
1641234885770898944,2022-01-03-18:34:45,10.1.1.11,177,-0.470,-0.470,-0.470,0.000,0.000,0.000
1641234885911526912,2022-01-03-18:34:45,10.1.1.11,117,-0.460,-0.460,-0.460,0.000,0.000,0.000
1641234886112283904,2022-01-03-18:34:46,10.1.1.11,117,-0.450,-0.450,-0.450,0.000,0.000,0.000
1641234886313457920,2022-01-03-18:34:46,10.1.1.11,118,-0.440,-0.440,-0.440,0.000,0.000,0.000
1641234886513849088,2022-01-03-18:34:46,10.1.1.11,117,-0.430,-0.430,-0.430,0.000,0.000,0.000
1641234886718892032,2022-01-03-18:34:46,10.1.1.11,122,-0.420,-0.420,-0.420,0.000,0.000,0.000
1641234886997779968,2022-01-03-18:34:46,10.1.1.11,121,-0.410,-0.410,-0.410,0.000,0.000,0.000
1641234887215456000,2022-01-03-18:34:47,10.1.1.11,118,-0.400,-0.400,-0.400,0.000,0.000,0.000
1641234887417409024,2022-01-03-18:34:47,10.1.1.11,119,-0.390,-0.390,-0.390,0.000,0.000,0.000
1641234887617326080,2022-01-03-18:34:47,10.1.1.11,117,-0.380,-0.380,-0.380,0.000,0.000,0.000
1641234887839462144,2022-01-03-18:34:47,10.1.1.11,138,-0.370,-0.370,-0.370,0.000,0.000,0.000
1641234888062553856,2022-01-03-18:34:48,10.1.1.11,160,-0.360,-0.360,-0.360,0.000,0.000,0.000
1641234888240147968,2022-01-03-18:34:48,10.1.1.11,136,-0.350,-0.350,-0.350,0.000,0.000,0.000
1641234888441005056,2022-01-03-18:34:48,10.1.1.11,136,-0.340,-0.340,-0.340,0.000,0.000,0.000
1641234888642157056,2022-01-03-18:34:48,10.1.1.11,136,-0.330,-0.330,-0.330,0.000,0.000,0.000
1641234888842885888,2022-01-03-18:34:48,10.1.1.11,136,-0.320,-0.320,-0.320,0.000,0.000,0.000
1641234889042846976,2022-01-03-18:34:49,10.1.1.11,136,-0.310,-0.310,-0.310,0.000,0.000,0.000
1641234889245073152,2022-01-03-18:34:49,10.1.1.11,136,-0.300,-0.300,-0.300,0.000,0.000,0.000
1641234889445085952,2022-01-03-18:34:49,10.1.1.11,125,-0.290,-0.290,-0.290,0.000,0.000,0.000
1641234889664978944,2022-01-03-18:34:49,10.1.1.11,141,-0.280,-0.280,-0.280,0.000,0.000,0.000
1641234889866715904,2022-01-03-18:34:49,10.1.1.11,136,-0.270,-0.270,-0.270,0.000,0.000,0.000
1641234890066445056,2022-01-03-18:34:50,10.1.1.11,135,-0.260,-0.260,-0.260,0.000,0.000,0.000
1641234890268944896,2022-01-03-18:34:50,10.1.1.11,137,-0.250,-0.250,-0.250,0.000,0.000,0.000
1641234890468628992,2022-01-03-18:34:50,10.1.1.11,136,-0.240,-0.240,-0.240,0.000,0.000,0.000
1641234890669576960,2022-01-03-18:34:50,10.1.1.11,136,-0.230,-0.230,-0.230,0.000,0.000,0.000
1641234890868666880,2022-01-03-18:34:50,10.1.1.11,135,-0.220,-0.220,-0.220,0.000,0.000,0.000
1641234891069596160,2022-01-03-18:34:51,10.1.1.11,135,-0.210,-0.210,-0.210,0.000,0.000,0.000
1641234891473963008,2022-01-03-18:34:51,10.1.1.11,136,-0.190,-0.190,-0.190,0.000,0.000,0.000
1641234891691540992,2022-01-03-18:34:51,10.1.1.11,141,-0.180,-0.180,-0.180,0.000,0.000,0.000
1641234891892348160,2022-01-03-18:34:51,10.1.1.11,141,-0.170,-0.170,-0.170,0.000,0.000,0.000
1641234892091779840,2022-01-03-18:34:52,10.1.1.11,140,-0.160,-0.160,-0.160,0.000,0.000,0.000
1641234892294200832,2022-01-03-18:34:52,10.1.1.11,139,-0.150,-0.150,-0.150,0.000,0.000,0.000
1641234892526269952,2022-01-03-18:34:52,10.1.1.11,159,-0.140,-0.140,-0.140,0.000,0.000,0.000
1641234892693309184,2022-01-03-18:34:52,10.1.1.11,136,-0.130,-0.130,-0.130,0.000,0.000,0.000
1641234892894457088,2022-01-03-18:34:52,10.1.1.11,136,-0.120,-0.120,-0.120,0.000,0.000,0.000
1641234893093789184,2022-01-03-18:34:53,10.1.1.11,134,-0.110,-0.110,-0.110,0.000,0.000,0.000
1641234893294914048,2022-01-03-18:34:53,10.1.1.11,135,-0.100,-0.100,-0.100,0.000,0.000,0.000
1641234893514852096,2022-01-03-18:34:53,10.1.1.11,154,-0.090,-0.090,-0.090,0.000,0.000,0.000
1641234893716001024,2022-01-03-18:34:53,10.1.1.11,153,-0.080,-0.080,-0.080,0.000,0.000,0.000
1641234893916225024,2022-01-03-18:34:53,10.1.1.11,142,-0.070,-0.070,-0.070,0.000,0.000,0.000
1641234894116684032,2022-01-03-18:34:54,10.1.1.11,142,-0.060,-0.060,-0.060,0.000,0.000,0.000
1641234894323414016,2022-01-03-18:34:54,10.1.1.11,146,-0.050,-0.050,-0.050,0.000,0.000,0.000
1641234894518973952,2022-01-03-18:34:54,10.1.1.11,141,-0.040,-0.040,-0.040,0.000,0.000,0.000
1641234894746043904,2022-01-03-18:34:54,10.1.1.11,167,-0.030,-0.030,-0.030,0.000,0.000,0.000
1641234894919763200,2022-01-03-18:34:54,10.1.1.11,140,-0.020,-0.020,-0.020,0.000,0.000,0.000
1641234895118812160,2022-01-03-18:34:55,10.1.1.11,139,-0.010,-0.010,-0.010,0.000,0.000,0.000
1641234895320198912,2022-01-03-18:34:55,10.1.1.11,139,-0.000,-0.000,-0.000,0.000,0.000,0.000
1641234895519654144,2022-01-03-18:34:55,10.1.1.11,138,-0.010,-0.010,-0.010,0.000,0.000,0.000
1641234895739841024,2022-01-03-18:34:55,10.1.1.11,157,-0.020,-0.020,-0.020,0.000,0.000,0.000
1641234895965730048,2022-01-03-18:34:55,10.1.1.11,163,-0.030,-0.030,-0.030,0.000,0.000,0.000
1641234896161186816,2022-01-03-18:34:56,10.1.1.11,163,-0.040,-0.040,-0.040,0.000,0.000,0.000
1641234896340666112,2022-01-03-18:34:56,10.1.1.11,141,-0.050,-0.050,-0.050,0.000,0.000,0.000
1641234896542302976,2022-01-03-18:34:56,10.1.1.11,142,-0.060,-0.060,-0.060,0.000,0.000,0.000
1641234896741305088,2022-01-03-18:34:56,10.1.1.11,139,-0.070,-0.070,-0.070,0.000,0.000,0.000
1641234896961860864,2022-01-03-18:34:56,10.1.1.11,159,-0.080,-0.080,-0.080,0.000,0.000,0.000
1641234897162061056,2022-01-03-18:34:57,10.1.1.11,159,-0.090,-0.090,-0.090,0.000,0.000,0.000
1641234897362228992,2022-01-03-18:34:57,10.1.1.11,151,-0.100,-0.100,-0.100,0.000,0.000,0.000
1641234897562476032,2022-01-03-18:34:57,10.1.1.11,150,-0.110,-0.110,-0.110,0.000,0.000,0.000
1641234897782376960,2022-01-03-18:34:57,10.1.1.11,169,-0.120,-0.120,-0.120,0.000,0.000,0.000
1641234897962941952,2022-01-03-18:34:57,10.1.1.11,149,-0.130,-0.130,-0.130,0.000,0.000,0.000
1641234898163012864,2022-01-03-18:34:58,10.1.1.11,149,-0.140,-0.140,-0.140,0.000,0.000,0.000
1641234898364577024,2022-01-03-18:34:58,10.1.1.11,146,-0.150,-0.150,-0.150,0.000,0.000,0.000
1641234898563802880,2022-01-03-18:34:58,10.1.1.11,143,-0.160,-0.160,-0.160,0.000,0.000,0.000
1641234898765201920,2022-01-03-18:34:58,10.1.1.11,144,-0.170,-0.170,-0.170,0.000,0.000,0.000
1641234898976183808,2022-01-03-18:34:58,10.1.1.11,154,-0.180,-0.180,-0.180,0.000,0.000,0.000
1641234899183127040,2022-01-03-18:34:59,10.1.1.11,160,-0.190,-0.190,-0.190,0.000,0.000,0.000
1641234899421193984,2022-01-03-18:34:59,10.1.1.11,197,-0.200,-0.200,-0.200,0.000,0.000,0.000
1641234899604509184,2022-01-03-18:34:59,10.1.1.11,159,-0.210,-0.210,-0.210,0.000,0.000,0.000
1641234899804632832,2022-01-03-18:34:59,10.1.1.11,158,-0.220,-0.220,-0.220,0.000,0.000,0.000
1641234899998985984,2022-01-03-18:34:59,10.1.1.11,151,-0.230,-0.230,-0.230,0.000,0.000,0.000
1641234900206130944,2022-01-03-18:35:00,10.1.1.11,157,-0.240,-0.240,-0.240,0.000,0.000,0.000
1641234900404686080,2022-01-03-18:35:00,10.1.1.11,155,-0.250,-0.250,-0.250,0.000,0.000,0.000
1641234900651446016,2022-01-03-18:35:00,10.1.1.11,185,-0.260,-0.260,-0.260,0.000,0.000,0.000
1641234900826225152,2022-01-03-18:35:00,10.1.1.11,145,-0.270,-0.270,-0.270,0.000,0.000,0.000
1641234901041374976,2022-01-03-18:35:01,10.1.1.11,154,-0.280,-0.280,-0.280,0.000,0.000,0.000
1641234901245708032,2022-01-03-18:35:01,10.1.1.11,158,-0.290,-0.290,-0.290,0.000,0.000,0.000
1641234901451361024,2022-01-03-18:35:01,10.1.1.11,157,-0.300,-0.300,-0.300,0.000,0.000,0.000
1641234901654304000,2022-01-03-18:35:01,10.1.1.11,162,-0.310,-0.310,-0.310,0.000,0.000,0.000
1641234901846669824,2022-01-03-18:35:01,10.1.1.11,153,-0.320,-0.320,-0.320,0.000,0.000,0.000
1641234902046937856,2022-01-03-18:35:02,10.1.1.11,153,-0.330,-0.330,-0.330,0.000,0.000,0.000
1641234902250278912,2022-01-03-18:35:02,10.1.1.11,156,-0.340,-0.340,-0.340,0.000,0.000,0.000
1641234902447226880,2022-01-03-18:35:02,10.1.1.11,152,-0.350,-0.350,-0.350,0.000,0.000,0.000
1641234902646236928,2022-01-03-18:35:02,10.1.1.11,150,-0.360,-0.360,-0.360,0.000,0.000,0.000
1641234902889195008,2022-01-03-18:35:02,10.1.1.11,192,-0.370,-0.370,-0.370,0.000,0.000,0.000
1641234903067666176,2022-01-03-18:35:03,10.1.1.11,160,-0.380,-0.380,-0.380,0.000,0.000,0.000
1641234903266334976,2022-01-03-18:35:03,10.1.1.11,147,-0.390,-0.390,-0.390,0.000,0.000,0.000
1641234903467546880,2022-01-03-18:35:03,10.1.1.11,148,-0.400,-0.400,-0.400,0.000,0.000,0.000
1641234903687109120,2022-01-03-18:35:03,10.1.1.11,165,-0.410,-0.410,-0.410,0.000,0.000,0.000
1641234903878081024,2022-01-03-18:35:03,10.1.1.11,149,-0.420,-0.420,-0.420,0.000,0.000,0.000
1641234904090909952,2022-01-03-18:35:04,10.1.1.11,159,-0.430,-0.430,-0.430,0.000,0.000,0.000
1641234904290544896,2022-01-03-18:35:04,10.1.1.11,151,-0.440,-0.440,-0.440,0.000,0.000,0.000
1641234904507116032,2022-01-03-18:35:04,10.1.1.11,161,-0.450,-0.450,-0.450,0.000,0.000,0.000
1641234904707325952,2022-01-03-18:35:04,10.1.1.11,161,-0.460,-0.460,-0.460,0.000,0.000,0.000
1641234904907723776,2022-01-03-18:35:04,10.1.1.11,160,-0.470,-0.470,-0.470,0.000,0.000,0.000
1641234905307535872,2022-01-03-18:35:05,10.1.1.11,158,-0.490,-0.490,-0.490,0.000,0.000,0.000
1641234905507587840,2022-01-03-18:35:05,10.1.1.11,158,-0.480,-0.480,-0.480,0.000,0.000,0.000
1641234905707194112,2022-01-03-18:35:05,10.1.1.11,157,-0.470,-0.470,-0.470,0.000,0.000,0.000
1641234905906944000,2022-01-03-18:35:05,10.1.1.11,155,-0.460,-0.460,-0.460,0.000,0.000,0.000
1641234906107137792,2022-01-03-18:35:06,10.1.1.11,154,-0.450,-0.450,-0.450,0.000,0.000,0.000
1641234906310787840,2022-01-03-18:35:06,10.1.1.11,157,-0.440,-0.440,-0.440,0.000,0.000,0.000
1641234906507141120,2022-01-03-18:35:06,10.1.1.11,147,-0.430,-0.430,-0.430,0.000,0.000,0.000
1641234906726800896,2022-01-03-18:35:06,10.1.1.11,158,-0.420,-0.420,-0.420,0.000,0.000,0.000
1641234906926835968,2022-01-03-18:35:06,10.1.1.11,157,-0.410,-0.410,-0.410,0.000,0.000,0.000
1641234907127185152,2022-01-03-18:35:07,10.1.1.11,156,-0.400,-0.400,-0.400,0.000,0.000,0.000
1641234907326880000,2022-01-03-18:35:07,10.1.1.11,156,-0.390,-0.390,-0.390,0.000,0.000,0.000
1641234907548861952,2022-01-03-18:35:07,10.1.1.11,167,-0.380,-0.380,-0.380,0.000,0.000,0.000
1641234907748531968,2022-01-03-18:35:07,10.1.1.11,166,-0.370,-0.370,-0.370,0.000,0.000,0.000
1641234907948920064,2022-01-03-18:35:07,10.1.1.11,166,-0.360,-0.360,-0.360,0.000,0.000,0.000
1641234908150615808,2022-01-03-18:35:08,10.1.1.11,167,-0.350,-0.350,-0.350,0.000,0.000,0.000
1641234908347574016,2022-01-03-18:35:08,10.1.1.11,163,-0.340,-0.340,-0.340,0.000,0.000,0.000
1641234908548994048,2022-01-03-18:35:08,10.1.1.11,162,-0.330,-0.330,-0.330,0.000,0.000,0.000
1641234908751308800,2022-01-03-18:35:08,10.1.1.11,163,-0.320,-0.320,-0.320,0.000,0.000,0.000
1641234908947463936,2022-01-03-18:35:08,10.1.1.11,160,-0.310,-0.310,-0.310,0.000,0.000,0.000
1641234909149118976,2022-01-03-18:35:09,10.1.1.11,155,-0.300,-0.300,-0.300,0.000,0.000,0.000
1641234909347966976,2022-01-03-18:35:09,10.1.1.11,153,-0.290,-0.290,-0.290,0.000,0.000,0.000
1641234909546462976,2022-01-03-18:35:09,10.1.1.11,151,-0.280,-0.280,-0.280,0.000,0.000,0.000
1641234909793634816,2022-01-03-18:35:09,10.1.1.11,197,-0.270,-0.270,-0.270,0.000,0.000,0.000
1641234909946667008,2022-01-03-18:35:09,10.1.1.11,149,-0.260,-0.260,-0.260,0.000,0.000,0.000
1641234910147119872,2022-01-03-18:35:10,10.1.1.11,148,-0.250,-0.250,-0.250,0.000,0.000,0.000
1641234910348577024,2022-01-03-18:35:10,10.1.1.11,149,-0.240,-0.240,-0.240,0.000,0.000,0.000
1641234910597459968,2022-01-03-18:35:10,10.1.1.11,171,-0.230,-0.230,-0.230,0.000,0.000,0.000
1641234910765858048,2022-01-03-18:35:10,10.1.1.11,146,-0.220,-0.220,-0.220,0.000,0.000,0.000
1641234910986592000,2022-01-03-18:35:10,10.1.1.11,161,-0.210,-0.210,-0.210,0.000,0.000,0.000
1641234911265830912,2022-01-03-18:35:11,10.1.1.11,157,-0.200,-0.200,-0.200,0.000,0.000,0.000
1641234911466654976,2022-01-03-18:35:11,10.1.1.11,157,-0.190,-0.190,-0.190,0.000,0.000,0.000
1641234911665885952,2022-01-03-18:35:11,10.1.1.11,156,-0.180,-0.180,-0.180,0.000,0.000,0.000
1641234911866085120,2022-01-03-18:35:11,10.1.1.11,155,-0.170,-0.170,-0.170,0.000,0.000,0.000
1641234912089103104,2022-01-03-18:35:12,10.1.1.11,174,-0.160,-0.160,-0.160,0.000,0.000,0.000
1641234912268694016,2022-01-03-18:35:12,10.1.1.11,148,-0.150,-0.150,-0.150,0.000,0.000,0.000
1641234912485268224,2022-01-03-18:35:12,10.1.1.11,160,-0.140,-0.140,-0.140,0.000,0.000,0.000
1641234912690201088,2022-01-03-18:35:12,10.1.1.11,164,-0.130,-0.130,-0.130,0.000,0.000,0.000
1641234912886611968,2022-01-03-18:35:12,10.1.1.11,157,-0.120,-0.120,-0.120,0.000,0.000,0.000
1641234913085563904,2022-01-03-18:35:13,10.1.1.11,153,-0.110,-0.110,-0.110,0.000,0.000,0.000
1641234913288196096,2022-01-03-18:35:13,10.1.1.11,153,-0.100,-0.100,-0.100,0.000,0.000,0.000
1641234913486608128,2022-01-03-18:35:13,10.1.1.11,150,-0.090,-0.090,-0.090,0.000,0.000,0.000
1641234913704289024,2022-01-03-18:35:13,10.1.1.11,160,-0.080,-0.080,-0.080,0.000,0.000,0.000
1641234913904642048,2022-01-03-18:35:13,10.1.1.11,159,-0.070,-0.070,-0.070,0.000,0.000,0.000
1641234914109638912,2022-01-03-18:35:14,10.1.1.11,164,-0.060,-0.060,-0.060,0.000,0.000,0.000
1641234914347501056,2022-01-03-18:35:14,10.1.1.11,174,-0.050,-0.050,-0.050,0.000,0.000,0.000
1641234914523699968,2022-01-03-18:35:14,10.1.1.11,145,-0.040,-0.040,-0.040,0.000,0.000,0.000
1641234914723853056,2022-01-03-18:35:14,10.1.1.11,142,-0.030,-0.030,-0.030,0.000,0.000,0.000
1641234914943446016,2022-01-03-18:35:14,10.1.1.11,161,-0.020,-0.020,-0.020,0.000,0.000,0.000
1641234915152692992,2022-01-03-18:35:15,10.1.1.11,168,-0.010,-0.010,-0.010,0.000,0.000,0.000
1641234915345949952,2022-01-03-18:35:15,10.1.1.11,158,0.000,0.000,0.000,0.000,0.000,0.000
1641234915543004928,2022-01-03-18:35:15,10.1.1.11,157,-0.010,-0.010,-0.010,0.000,0.000,0.000
1641234915744292864,2022-01-03-18:35:15,10.1.1.11,157,-0.020,-0.020,-0.020,0.000,0.000,0.000
1641234915942924032,2022-01-03-18:35:15,10.1.1.11,155,-0.030,-0.030,-0.030,0.000,0.000,0.000
1641234916143048960,2022-01-03-18:35:16,10.1.1.11,153,-0.040,-0.040,-0.040,0.000,0.000,0.000
1641234916358628096,2022-01-03-18:35:16,10.1.1.11,168,-0.050,-0.050,-0.050,0.000,0.000,0.000
1641234916551026944,2022-01-03-18:35:16,10.1.1.11,160,-0.060,-0.060,-0.060,0.000,0.000,0.000
1641234916782341120,2022-01-03-18:35:16,10.1.1.11,157,-0.070,-0.070,-0.070,0.000,0.000,0.000
1641234916829292032,2022-01-03-18:35:16,10.1.1.11,-1,-0.070,-0.070,-0.070,0.000,0.000,0.000
1641234917189193984,2022-01-03-18:35:17,10.1.1.11,160,-0.090,-0.090,-0.090,0.000,0.000,0.000
1641234917383469056,2022-01-03-18:35:17,10.1.1.11,151,-0.100,-0.100,-0.100,0.000,0.000,0.000
1641234917581719040,2022-01-03-18:35:17,10.1.1.11,148,-0.110,-0.110,-0.110,0.000,0.000,0.000
1641234917781754112,2022-01-03-18:35:17,10.1.1.11,148,-0.120,-0.120,-0.120,0.000,0.000,0.000
1641234917981792000,2022-01-03-18:35:17,10.1.1.11,144,-0.130,-0.130,-0.130,0.000,0.000,0.000
1641234918185417984,2022-01-03-18:35:18,10.1.1.11,147,-0.140,-0.140,-0.140,0.000,0.000,0.000
1641234918385884928,2022-01-03-18:35:18,10.1.1.11,147,-0.150,-0.150,-0.150,0.000,0.000,0.000
1641234918582885120,2022-01-03-18:35:18,10.1.1.11,143,-0.160,-0.160,-0.160,0.000,0.000,0.000
1641234918831764992,2022-01-03-18:35:18,10.1.1.11,192,-0.170,-0.170,-0.170,0.000,0.000,0.000
1641234918982718976,2022-01-03-18:35:18,10.1.1.11,141,-0.180,-0.180,-0.180,0.000,0.000,0.000
1641234919200763904,2022-01-03-18:35:19,10.1.1.11,152,-0.190,-0.190,-0.190,0.000,0.000,0.000
1641234919404211968,2022-01-03-18:35:19,10.1.1.11,153,-0.200,-0.200,-0.200,0.000,0.000,0.000
1641234919609426944,2022-01-03-18:35:19,10.1.1.11,158,-0.210,-0.210,-0.210,0.000,0.000,0.000
1641234919813015040,2022-01-03-18:35:19,10.1.1.11,156,-0.220,-0.220,-0.220,0.000,0.000,0.000
1641234919999020032,2022-01-03-18:35:19,10.1.1.11,140,-0.230,-0.230,-0.230,0.000,0.000,0.000
1641234920249193984,2022-01-03-18:35:20,10.1.1.11,185,-0.240,-0.240,-0.240,0.000,0.000,0.000
1641234920420592128,2022-01-03-18:35:20,10.1.1.11,154,-0.250,-0.250,-0.250,0.000,0.000,0.000
1641234920620382976,2022-01-03-18:35:20,10.1.1.11,145,-0.260,-0.260,-0.260,0.000,0.000,0.000
1641234920819021824,2022-01-03-18:35:20,10.1.1.11,139,-0.270,-0.270,-0.270,0.000,0.000,0.000
1641234921019616000,2022-01-03-18:35:21,10.1.1.11,138,-0.280,-0.280,-0.280,0.000,0.000,0.000
1641234921244528128,2022-01-03-18:35:21,10.1.1.11,161,-0.290,-0.290,-0.290,0.000,0.000,0.000
1641234921458738944,2022-01-03-18:35:21,10.1.1.11,155,-0.300,-0.300,-0.300,0.000,0.000,0.000
1641234921656968960,2022-01-03-18:35:21,10.1.1.11,152,-0.310,-0.310,-0.310,0.000,0.000,0.000
1641234921857462784,2022-01-03-18:35:21,10.1.1.11,152,-0.320,-0.320,-0.320,0.000,0.000,0.000
1641234922060076032,2022-01-03-18:35:22,10.1.1.11,151,-0.330,-0.330,-0.330,0.000,0.000,0.000
1641234922258171136,2022-01-03-18:35:22,10.1.1.11,148,-0.340,-0.340,-0.340,0.000,0.000,0.000
1641234922459235840,2022-01-03-18:35:22,10.1.1.11,147,-0.350,-0.350,-0.350,0.000,0.000,0.000
1641234922656002048,2022-01-03-18:35:22,10.1.1.11,142,-0.360,-0.360,-0.360,0.000,0.000,0.000
1641234922855933952,2022-01-03-18:35:22,10.1.1.11,140,-0.370,-0.370,-0.370,0.000,0.000,0.000
1641234923055748864,2022-01-03-18:35:23,10.1.1.11,139,-0.380,-0.380,-0.380,0.000,0.000,0.000
1641234923255768064,2022-01-03-18:35:23,10.1.1.11,138,-0.390,-0.390,-0.390,0.000,0.000,0.000
1641234923481744896,2022-01-03-18:35:23,10.1.1.11,164,-0.400,-0.400,-0.400,0.000,0.000,0.000
1641234923674717952,2022-01-03-18:35:23,10.1.1.11,147,-0.410,-0.410,-0.410,0.000,0.000,0.000
1641234923877335040,2022-01-03-18:35:23,10.1.1.11,150,-0.420,-0.420,-0.420,0.000,0.000,0.000
1641234924074835968,2022-01-03-18:35:24,10.1.1.11,145,-0.430,-0.430,-0.430,0.000,0.000,0.000
1641234924279657984,2022-01-03-18:35:24,10.1.1.11,148,-0.440,-0.440,-0.440,0.000,0.000,0.000
1641234924473968896,2022-01-03-18:35:24,10.1.1.11,140,-0.450,-0.450,-0.450,0.000,0.000,0.000
1641234924675301120,2022-01-03-18:35:24,10.1.1.11,141,-0.460,-0.460,-0.460,0.000,0.000,0.000
1641234924873478912,2022-01-03-18:35:24,10.1.1.11,136,-0.470,-0.470,-0.470,0.000,0.000,0.000
1641234925074567168,2022-01-03-18:35:25,10.1.1.11,136,-0.480,-0.480,-0.480,0.000,0.000,0.000
1641234925273617152,2022-01-03-18:35:25,10.1.1.11,135,-0.490,-0.490,-0.490,0.000,0.000,0.000
1641234925482240000,2022-01-03-18:35:25,10.1.1.11,141,-0.480,-0.480,-0.480,0.000,0.000,0.000
1641234925695131136,2022-01-03-18:35:25,10.1.1.11,155,-0.470,-0.470,-0.470,0.000,0.000,0.000
1641234925932736000,2022-01-03-18:35:25,10.1.1.11,190,-0.460,-0.460,-0.460,0.000,0.000,0.000
1641234926092904192,2022-01-03-18:35:26,10.1.1.11,149,-0.450,-0.450,-0.450,0.000,0.000,0.000
1641234926292207104,2022-01-03-18:35:26,10.1.1.11,147,-0.440,-0.440,-0.440,0.000,0.000,0.000
1641234926492605952,2022-01-03-18:35:26,10.1.1.11,147,-0.430,-0.430,-0.430,0.000,0.000,0.000
1641234926692190976,2022-01-03-18:35:26,10.1.1.11,145,-0.420,-0.420,-0.420,0.000,0.000,0.000
1641234926894821888,2022-01-03-18:35:26,10.1.1.11,147,-0.410,-0.410,-0.410,0.000,0.000,0.000
1641234927097443072,2022-01-03-18:35:27,10.1.1.11,141,-0.400,-0.400,-0.400,0.000,0.000,0.000
1641234927310444032,2022-01-03-18:35:27,10.1.1.11,139,-0.390,-0.390,-0.390,0.000,0.000,0.000
1641234927510605056,2022-01-03-18:35:27,10.1.1.11,139,-0.380,-0.380,-0.380,0.000,0.000,0.000
1641234927711257856,2022-01-03-18:35:27,10.1.1.11,138,-0.370,-0.370,-0.370,0.000,0.000,0.000
1641234927909820928,2022-01-03-18:35:27,10.1.1.11,136,-0.360,-0.360,-0.360,0.000,0.000,0.000
1641234928110212096,2022-01-03-18:35:28,10.1.1.11,135,-0.350,-0.350,-0.350,0.000,0.000,0.000
1641234928330071808,2022-01-03-18:35:28,10.1.1.11,134,-0.340,-0.340,-0.340,0.000,0.000,0.000
1641234928529480960,2022-01-03-18:35:28,10.1.1.11,131,-0.330,-0.330,-0.330,0.000,0.000,0.000
1641234928728915968,2022-01-03-18:35:28,10.1.1.11,130,-0.320,-0.320,-0.320,0.000,0.000,0.000
1641234928928883968,2022-01-03-18:35:28,10.1.1.11,129,-0.310,-0.310,-0.310,0.000,0.000,0.000
1641234929128096000,2022-01-03-18:35:29,10.1.1.11,127,-0.300,-0.300,-0.300,0.000,0.000,0.000
1641234929348206080,2022-01-03-18:35:29,10.1.1.11,146,-0.290,-0.290,-0.290,0.000,0.000,0.000
1641234929547760896,2022-01-03-18:35:29,10.1.1.11,144,-0.280,-0.280,-0.280,0.000,0.000,0.000
1641234929747697152,2022-01-03-18:35:29,10.1.1.11,143,-0.270,-0.270,-0.270,0.000,0.000,0.000
1641234929946981888,2022-01-03-18:35:29,10.1.1.11,141,-0.260,-0.260,-0.260,0.000,0.000,0.000
1641234930146678016,2022-01-03-18:35:30,10.1.1.11,141,-0.250,-0.250,-0.250,0.000,0.000,0.000
1641234930350185984,2022-01-03-18:35:30,10.1.1.11,142,-0.240,-0.240,-0.240,0.000,0.000,0.000
1641234930546658048,2022-01-03-18:35:30,10.1.1.11,136,-0.230,-0.230,-0.230,0.000,0.000,0.000
1641234930746514176,2022-01-03-18:35:30,10.1.1.11,136,-0.220,-0.220,-0.220,0.000,0.000,0.000
1641234930945612032,2022-01-03-18:35:30,10.1.1.11,133,-0.210,-0.210,-0.210,0.000,0.000,0.000
1641234931145606144,2022-01-03-18:35:31,10.1.1.11,132,-0.200,-0.200,-0.200,0.000,0.000,0.000
1641234931348280064,2022-01-03-18:35:31,10.1.1.11,134,-0.190,-0.190,-0.190,0.000,0.000,0.000
1641234931561393920,2022-01-03-18:35:31,10.1.1.11,146,-0.180,-0.180,-0.180,0.000,0.000,0.000
1641234931744652032,2022-01-03-18:35:31,10.1.1.11,128,-0.170,-0.170,-0.170,0.000,0.000,0.000
1641234931944782848,2022-01-03-18:35:31,10.1.1.11,127,-0.160,-0.160,-0.160,0.000,0.000,0.000
1641234932165140992,2022-01-03-18:35:32,10.1.1.11,147,-0.150,-0.150,-0.150,0.000,0.000,0.000
1641234932344246016,2022-01-03-18:35:32,10.1.1.11,125,-0.140,-0.140,-0.140,0.000,0.000,0.000
1641234932568775936,2022-01-03-18:35:32,10.1.1.11,149,-0.130,-0.130,-0.130,0.000,0.000,0.000
1641234932763348992,2022-01-03-18:35:32,10.1.1.11,138,-0.120,-0.120,-0.120,0.000,0.000,0.000
1641234932963308032,2022-01-03-18:35:32,10.1.1.11,137,-0.110,-0.110,-0.110,0.000,0.000,0.000
1641234933162870784,2022-01-03-18:35:33,10.1.1.11,136,-0.100,-0.100,-0.100,0.000,0.000,0.000
1641234933362412032,2022-01-03-18:35:33,10.1.1.11,134,-0.090,-0.090,-0.090,0.000,0.000,0.000
1641234933562451968,2022-01-03-18:35:33,10.1.1.11,132,-0.080,-0.080,-0.080,0.000,0.000,0.000
1641234934002896128,2022-01-03-18:35:34,10.1.1.11,137,-0.060,-0.060,-0.060,0.000,0.000,0.000
1641234934192274176,2022-01-03-18:35:34,10.1.1.11,125,-0.050,-0.050,-0.050,0.000,0.000,0.000
1641234934401488128,2022-01-03-18:35:34,10.1.1.11,134,-0.040,-0.040,-0.040,0.000,0.000,0.000
1641234934605268992,2022-01-03-18:35:34,10.1.1.11,137,-0.030,-0.030,-0.030,0.000,0.000,0.000
1641234934801127936,2022-01-03-18:35:34,10.1.1.11,129,-0.020,-0.020,-0.020,0.000,0.000,0.000
1641234935049382912,2022-01-03-18:35:35,10.1.1.11,130,-0.010,-0.010,-0.010,0.000,0.000,0.000
1641234935280133120,2022-01-03-18:35:35,10.1.1.11,126,0.000,0.000,0.000,0.000,0.000,0.000
1641234935500015104,2022-01-03-18:35:35,10.1.1.11,144,-0.010,-0.010,-0.010,0.000,0.000,0.000
1641234935704012032,2022-01-03-18:35:35,10.1.1.11,147,-0.020,-0.020,-0.020,0.000,0.000,0.000
1641234935898966016,2022-01-03-18:35:35,10.1.1.11,121,-0.030,-0.030,-0.030,0.000,0.000,0.000
1641234936130755840,2022-01-03-18:35:36,10.1.1.11,146,-0.040,-0.040,-0.040,0.000,0.000,0.000
1641234936318518016,2022-01-03-18:35:36,10.1.1.11,128,-0.050,-0.050,-0.050,0.000,0.000,0.000
1641234936518394880,2022-01-03-18:35:36,10.1.1.11,126,-0.060,-0.060,-0.060,0.000,0.000,0.000
1641234936718411008,2022-01-03-18:35:36,10.1.1.11,124,-0.070,-0.070,-0.070,0.000,0.000,0.000
1641234936917126912,2022-01-03-18:35:36,10.1.1.11,122,-0.080,-0.080,-0.080,0.000,0.000,0.000
1641234937137047040,2022-01-03-18:35:37,10.1.1.11,141,-0.090,-0.090,-0.090,0.000,0.000,0.000
1641234937337584896,2022-01-03-18:35:37,10.1.1.11,129,-0.100,-0.100,-0.100,0.000,0.000,0.000
1641234937528284928,2022-01-03-18:35:37,10.1.1.11,118,-0.110,-0.110,-0.110,0.000,0.000,0.000
1641234937729601024,2022-01-03-18:35:37,10.1.1.11,118,-0.120,-0.120,-0.120,0.000,0.000,0.000
1641234937935345920,2022-01-03-18:35:37,10.1.1.11,117,-0.130,-0.130,-0.130,0.000,0.000,0.000
1641234938135420928,2022-01-03-18:35:38,10.1.1.11,117,-0.140,-0.140,-0.140,0.000,0.000,0.000
1641234938335954944,2022-01-03-18:35:38,10.1.1.11,116,-0.150,-0.150,-0.150,0.000,0.000,0.000
1641234938534161920,2022-01-03-18:35:38,10.1.1.11,113,-0.160,-0.160,-0.160,0.000,0.000,0.000
1641234938754319872,2022-01-03-18:35:38,10.1.1.11,125,-0.170,-0.170,-0.170,0.000,0.000,0.000
1641234938955058944,2022-01-03-18:35:38,10.1.1.11,125,-0.180,-0.180,-0.180,0.000,0.000,0.000
1641234939153896192,2022-01-03-18:35:39,10.1.1.11,123,-0.190,-0.190,-0.190,0.000,0.000,0.000
1641234939353254144,2022-01-03-18:35:39,10.1.1.11,118,-0.200,-0.200,-0.200,0.000,0.000,0.000
1641234939580888064,2022-01-03-18:35:39,10.1.1.11,142,-0.210,-0.210,-0.210,0.000,0.000,0.000
1641234939772888064,2022-01-03-18:35:39,10.1.1.11,118,-0.220,-0.220,-0.220,0.000,0.000,0.000
1641234939973022976,2022-01-03-18:35:39,10.1.1.11,117,-0.230,-0.230,-0.230,0.000,0.000,0.000
1641234940173772032,2022-01-03-18:35:40,10.1.1.11,117,-0.240,-0.240,-0.240,0.000,0.000,0.000
1641234940372279040,2022-01-03-18:35:40,10.1.1.11,115,-0.250,-0.250,-0.250,0.000,0.000,0.000
1641234940573223168,2022-01-03-18:35:40,10.1.1.11,115,-0.260,-0.260,-0.260,0.000,0.000,0.000
1641234940792263936,2022-01-03-18:35:40,10.1.1.11,127,-0.270,-0.270,-0.270,0.000,0.000,0.000
1641234940998260992,2022-01-03-18:35:40,10.1.1.11,118,-0.280,-0.280,-0.280,0.000,0.000,0.000
1641234941191552000,2022-01-03-18:35:41,10.1.1.11,111,-0.290,-0.290,-0.290,0.000,0.000,0.000
1641234941412549120,2022-01-03-18:35:41,10.1.1.11,125,-0.300,-0.300,-0.300,0.000,0.000,0.000
1641234941619041024,2022-01-03-18:35:41,10.1.1.11,130,-0.310,-0.310,-0.310,0.000,0.000,0.000
1641234941857271808,2022-01-03-18:35:41,10.1.1.11,168,-0.320,-0.320,-0.320,0.000,0.000,0.000
1641234942009916928,2022-01-03-18:35:42,10.1.1.11,116,-0.330,-0.330,-0.330,0.000,0.000,0.000
1641234942211836928,2022-01-03-18:35:42,10.1.1.11,117,-0.340,-0.340,-0.340,0.000,0.000,0.000
1641234942414539008,2022-01-03-18:35:42,10.1.1.11,118,-0.350,-0.350,-0.350,0.000,0.000,0.000
1641234942610193920,2022-01-03-18:35:42,10.1.1.11,113,-0.360,-0.360,-0.360,0.000,0.000,0.000
1641234942810157056,2022-01-03-18:35:42,10.1.1.11,112,-0.370,-0.370,-0.370,0.000,0.000,0.000
1641234943033694976,2022-01-03-18:35:43,10.1.1.11,132,-0.380,-0.380,-0.380,0.000,0.000,0.000
1641234943268177152,2022-01-03-18:35:43,10.1.1.11,125,-0.390,-0.390,-0.390,0.000,0.000,0.000
1641234943467842048,2022-01-03-18:35:43,10.1.1.11,124,-0.400,-0.400,-0.400,0.000,0.000,0.000
1641234943666923008,2022-01-03-18:35:43,10.1.1.11,122,-0.410,-0.410,-0.410,0.000,0.000,0.000
1641234943866564864,2022-01-03-18:35:43,10.1.1.11,121,-0.420,-0.420,-0.420,0.000,0.000,0.000
1641234944080955136,2022-01-03-18:35:44,10.1.1.11,129,-0.430,-0.430,-0.430,0.000,0.000,0.000
1641234944307548928,2022-01-03-18:35:44,10.1.1.11,128,-0.440,-0.440,-0.440,0.000,0.000,0.000
1641234944487026944,2022-01-03-18:35:44,10.1.1.11,106,-0.450,-0.450,-0.450,0.000,0.000,0.000
1641234944707603968,2022-01-03-18:35:44,10.1.1.11,126,-0.460,-0.460,-0.460,0.000,0.000,0.000
1641234944910624000,2022-01-03-18:35:44,10.1.1.11,128,-0.470,-0.470,-0.470,0.000,0.000,0.000
1641234945104731136,2022-01-03-18:35:45,10.1.1.11,121,-0.480,-0.480,-0.480,0.000,0.000,0.000
1641234945307353856,2022-01-03-18:35:45,10.1.1.11,117,-0.490,-0.490,-0.490,0.000,0.000,0.000
1641234945504990208,2022-01-03-18:35:45,10.1.1.11,115,-0.480,-0.480,-0.480,0.000,0.000,0.000
1641234945704890880,2022-01-03-18:35:45,10.1.1.11,114,-0.470,-0.470,-0.470,0.000,0.000,0.000
1641234945903262976,2022-01-03-18:35:45,10.1.1.11,110,-0.460,-0.460,-0.460,0.000,0.000,0.000
1641234946104171008,2022-01-03-18:35:46,10.1.1.11,110,-0.450,-0.450,-0.450,0.000,0.000,0.000
1641234946306952960,2022-01-03-18:35:46,10.1.1.11,112,-0.440,-0.440,-0.440,0.000,0.000,0.000
1641234946503969792,2022-01-03-18:35:46,10.1.1.11,109,-0.430,-0.430,-0.430,0.000,0.000,0.000
1641234946733771008,2022-01-03-18:35:46,10.1.1.11,124,-0.420,-0.420,-0.420,0.000,0.000,0.000
1641234946941453824,2022-01-03-18:35:46,10.1.1.11,114,-0.410,-0.410,-0.410,0.000,0.000,0.000
1641234947143204096,2022-01-03-18:35:47,10.1.1.11,114,-0.400,-0.400,-0.400,0.000,0.000,0.000
1641234947342119936,2022-01-03-18:35:47,10.1.1.11,103,-0.390,-0.390,-0.390,0.000,0.000,0.000
1641234947540833024,2022-01-03-18:35:47,10.1.1.11,102,-0.380,-0.380,-0.380,0.000,0.000,0.000
1641234947765966848,2022-01-03-18:35:47,10.1.1.11,126,-0.370,-0.370,-0.370,0.000,0.000,0.000
1641234947962408960,2022-01-03-18:35:47,10.1.1.11,117,-0.360,-0.360,-0.360,0.000,0.000,0.000
1641234948161475840,2022-01-03-18:35:48,10.1.1.11,115,-0.350,-0.350,-0.350,0.000,0.000,0.000
1641234948361661952,2022-01-03-18:35:48,10.1.1.11,114,-0.340,-0.340,-0.340,0.000,0.000,0.000
1641234948562294016,2022-01-03-18:35:48,10.1.1.11,113,-0.330,-0.330,-0.330,0.000,0.000,0.000
1641234948764939008,2022-01-03-18:35:48,10.1.1.11,114,-0.320,-0.320,-0.320,0.000,0.000,0.000
1641234948972368896,2022-01-03-18:35:48,10.1.1.11,113,-0.310,-0.310,-0.310,0.000,0.000,0.000
1641234949186883072,2022-01-03-18:35:49,10.1.1.11,127,-0.300,-0.300,-0.300,0.000,0.000,0.000
1641234949368883968,2022-01-03-18:35:49,10.1.1.11,107,-0.290,-0.290,-0.290,0.000,0.000,0.000
1641234949633070848,2022-01-03-18:35:49,10.1.1.11,166,-0.280,-0.280,-0.280,0.000,0.000,0.000
1641234949792931072,2022-01-03-18:35:49,10.1.1.11,128,-0.270,-0.270,-0.270,0.000,0.000,0.000
1641234950061934848,2022-01-03-18:35:50,10.1.1.11,193,-0.260,-0.260,-0.260,0.000,0.000,0.000
1641234950195710976,2022-01-03-18:35:50,10.1.1.11,125,-0.250,-0.250,-0.250,0.000,0.000,0.000
1641234950393264128,2022-01-03-18:35:50,10.1.1.11,121,-0.240,-0.240,-0.240,0.000,0.000,0.000
1641234950592755200,2022-01-03-18:35:50,10.1.1.11,120,-0.230,-0.230,-0.230,0.000,0.000,0.000
1641234950794764032,2022-01-03-18:35:50,10.1.1.11,121,-0.220,-0.220,-0.220,0.000,0.000,0.000
1641234950998706176,2022-01-03-18:35:50,10.1.1.11,123,-0.210,-0.210,-0.210,0.000,0.000,0.000
1641234951238435072,2022-01-03-18:35:51,10.1.1.11,120,-0.200,-0.200,-0.200,0.000,0.000,0.000
1641234951436687104,2022-01-03-18:35:51,10.1.1.11,118,-0.190,-0.190,-0.190,0.000,0.000,0.000
1641234951637495040,2022-01-03-18:35:51,10.1.1.11,118,-0.180,-0.180,-0.180,0.000,0.000,0.000
1641234951838680064,2022-01-03-18:35:51,10.1.1.11,118,-0.170,-0.170,-0.170,0.000,0.000,0.000
1641234952058984960,2022-01-03-18:35:52,10.1.1.11,135,-0.160,-0.160,-0.160,0.000,0.000,0.000
1641234952262365184,2022-01-03-18:35:52,10.1.1.11,136,-0.150,-0.150,-0.150,0.000,0.000,0.000
1641234952461954048,2022-01-03-18:35:52,10.1.1.11,135,-0.140,-0.140,-0.140,0.000,0.000,0.000
1641234952661881856,2022-01-03-18:35:52,10.1.1.11,134,-0.130,-0.130,-0.130,0.000,0.000,0.000
1641234952862092032,2022-01-03-18:35:52,10.1.1.11,133,-0.120,-0.120,-0.120,0.000,0.000,0.000
1641234953062046976,2022-01-03-18:35:53,10.1.1.11,133,-0.110,-0.110,-0.110,0.000,0.000,0.000
1641234953263422976,2022-01-03-18:35:53,10.1.1.11,134,-0.100,-0.100,-0.100,0.000,0.000,0.000
1641234953465229056,2022-01-03-18:35:53,10.1.1.11,135,-0.090,-0.090,-0.090,0.000,0.000,0.000
1641234953664340992,2022-01-03-18:35:53,10.1.1.11,130,-0.080,-0.080,-0.080,0.000,0.000,0.000
1641234953865078016,2022-01-03-18:35:53,10.1.1.11,130,-0.070,-0.070,-0.070,0.000,0.000,0.000
1641234954069288960,2022-01-03-18:35:54,10.1.1.11,134,-0.060,-0.060,-0.060,0.000,0.000,0.000
1641234954286417920,2022-01-03-18:35:54,10.1.1.11,139,-0.050,-0.050,-0.050,0.000,0.000,0.000
1641234954491642112,2022-01-03-18:35:54,10.1.1.11,139,-0.040,-0.040,-0.040,0.000,0.000,0.000
1641234954716348928,2022-01-03-18:35:54,10.1.1.11,134,-0.030,-0.030,-0.030,0.000,0.000,0.000
1641234954929868032,2022-01-03-18:35:54,10.1.1.11,129,-0.020,-0.020,-0.020,0.000,0.000,0.000
1641234955150475008,2022-01-03-18:35:55,10.1.1.11,147,-0.010,-0.010,-0.010,0.000,0.000,0.000
1641234955353553152,2022-01-03-18:35:55,10.1.1.11,146,0.000,0.000,0.000,0.000,0.000,0.000
1641234955558656000,2022-01-03-18:35:55,10.1.1.11,150,-0.010,-0.010,-0.010,0.000,0.000,0.000
1641234955818173952,2022-01-03-18:35:55,10.1.1.11,159,-0.020,-0.020,-0.020,0.000,0.000,0.000
1641234955972644096,2022-01-03-18:35:55,10.1.1.11,154,-0.030,-0.030,-0.030,0.000,0.000,0.000
1641234956174927104,2022-01-03-18:35:56,10.1.1.11,147,-0.040,-0.040,-0.040,0.000,0.000,0.000
1641234956389844992,2022-01-03-18:35:56,10.1.1.11,152,-0.050,-0.050,-0.050,0.000,0.000,0.000
1641234956574132992,2022-01-03-18:35:56,10.1.1.11,136,-0.060,-0.060,-0.060,0.000,0.000,0.000
1641234956774462976,2022-01-03-18:35:56,10.1.1.11,135,-0.070,-0.070,-0.070,0.000,0.000,0.000
1641234956997839872,2022-01-03-18:35:56,10.1.1.11,155,-0.080,-0.080,-0.080,0.000,0.000,0.000
1641234957194749952,2022-01-03-18:35:57,10.1.1.11,149,-0.090,-0.090,-0.090,0.000,0.000,0.000
1641234957395001856,2022-01-03-18:35:57,10.1.1.11,148,-0.100,-0.100,-0.100,0.000,0.000,0.000
1641234957596012032,2022-01-03-18:35:57,10.1.1.11,148,-0.110,-0.110,-0.110,0.000,0.000,0.000
1641234957799608832,2022-01-03-18:35:57,10.1.1.11,151,-0.120,-0.120,-0.120,0.000,0.000,0.000
1641234958197947904,2022-01-03-18:35:58,10.1.1.11,140,-0.140,-0.140,-0.140,0.000,0.000,0.000
1641234958416960000,2022-01-03-18:35:58,10.1.1.11,155,-0.150,-0.150,-0.150,0.000,0.000,0.000
1641234958618109952,2022-01-03-18:35:58,10.1.1.11,155,-0.160,-0.160,-0.160,0.000,0.000,0.000
1641234958818074112,2022-01-03-18:35:58,10.1.1.11,153,-0.170,-0.170,-0.170,0.000,0.000,0.000
1641234959019376896,2022-01-03-18:35:59,10.1.1.11,154,-0.180,-0.180,-0.180,0.000,0.000,0.000
1641234959218998784,2022-01-03-18:35:59,10.1.1.11,153,-0.190,-0.190,-0.190,0.000,0.000,0.000
1641234959422068992,2022-01-03-18:35:59,10.1.1.11,155,-0.200,-0.200,-0.200,0.000,0.000,0.000
1641234959619961088,2022-01-03-18:35:59,10.1.1.11,150,-0.210,-0.210,-0.210,0.000,0.000,0.000
1641234959824826880,2022-01-03-18:35:59,10.1.1.11,152,-0.220,-0.220,-0.220,0.000,0.000,0.000
1641234960021133056,2022-01-03-18:36:00,10.1.1.11,150,-0.230,-0.230,-0.230,0.000,0.000,0.000
1641234960283366912,2022-01-03-18:36:00,10.1.1.11,197,-0.240,-0.240,-0.240,0.000,0.000,0.000
1641234960482313984,2022-01-03-18:36:00,10.1.1.11,154,-0.250,-0.250,-0.250,0.000,0.000,0.000
1641234960681880064,2022-01-03-18:36:00,10.1.1.11,154,-0.260,-0.260,-0.260,0.000,0.000,0.000
1641234960886759936,2022-01-03-18:36:00,10.1.1.11,157,-0.270,-0.270,-0.270,0.000,0.000,0.000
1641234961108000000,2022-01-03-18:36:01,10.1.1.11,175,-0.280,-0.280,-0.280,0.000,0.000,0.000
1641234961285104128,2022-01-03-18:36:01,10.1.1.11,151,-0.290,-0.290,-0.290,0.000,0.000,0.000
1641234961486862848,2022-01-03-18:36:01,10.1.1.11,149,-0.300,-0.300,-0.300,0.000,0.000,0.000
1641234961723725056,2022-01-03-18:36:01,10.1.1.11,147,-0.310,-0.310,-0.310,0.000,0.000,0.000
1641234961923030016,2022-01-03-18:36:01,10.1.1.11,146,-0.320,-0.320,-0.320,0.000,0.000,0.000
1641234962123003904,2022-01-03-18:36:02,10.1.1.11,145,-0.330,-0.330,-0.330,0.000,0.000,0.000
1641234962323120128,2022-01-03-18:36:02,10.1.1.11,145,-0.340,-0.340,-0.340,0.000,0.000,0.000
1641234962524823040,2022-01-03-18:36:02,10.1.1.11,145,-0.350,-0.350,-0.350,0.000,0.000,0.000
1641234962767417856,2022-01-03-18:36:02,10.1.1.11,146,-0.360,-0.360,-0.360,0.000,0.000,0.000
1641234962988027136,2022-01-03-18:36:02,10.1.1.11,165,-0.370,-0.370,-0.370,0.000,0.000,0.000
1641234963190912000,2022-01-03-18:36:03,10.1.1.11,167,-0.380,-0.380,-0.380,0.000,0.000,0.000
1641234963398881024,2022-01-03-18:36:03,10.1.1.11,175,-0.390,-0.390,-0.390,0.000,0.000,0.000
1641234963590219008,2022-01-03-18:36:03,10.1.1.11,164,-0.400,-0.400,-0.400,0.000,0.000,0.000
1641234963823000064,2022-01-03-18:36:03,10.1.1.11,196,-0.410,-0.410,-0.410,0.000,0.000,0.000
1641234963986562048,2022-01-03-18:36:03,10.1.1.11,146,-0.420,-0.420,-0.420,0.000,0.000,0.000
1641234964205212160,2022-01-03-18:36:04,10.1.1.11,163,-0.430,-0.430,-0.430,0.000,0.000,0.000
1641234964405332992,2022-01-03-18:36:04,10.1.1.11,162,-0.440,-0.440,-0.440,0.000,0.000,0.000
1641234964605187840,2022-01-03-18:36:04,10.1.1.11,162,-0.450,-0.450,-0.450,0.000,0.000,0.000
1641234964805911040,2022-01-03-18:36:04,10.1.1.11,161,-0.460,-0.460,-0.460,0.000,0.000,0.000
1641234965005965824,2022-01-03-18:36:05,10.1.1.11,160,-0.470,-0.470,-0.470,0.000,0.000,0.000
1641234965207784960,2022-01-03-18:36:05,10.1.1.11,160,-0.480,-0.480,-0.480,0.000,0.000,0.000
1641234965405654784,2022-01-03-18:36:05,10.1.1.11,157,-0.490,-0.490,-0.490,0.000,0.000,0.000
1641234965624888064,2022-01-03-18:36:05,10.1.1.11,175,-0.480,-0.480,-0.480,0.000,0.000,0.000
1641234965807318016,2022-01-03-18:36:05,10.1.1.11,155,-0.470,-0.470,-0.470,0.000,0.000,0.000
1641234966024317952,2022-01-03-18:36:06,10.1.1.11,171,-0.460,-0.460,-0.460,0.000,0.000,0.000
1641234966230663168,2022-01-03-18:36:06,10.1.1.11,166,-0.450,-0.450,-0.450,0.000,0.000,0.000
1641234966430417152,2022-01-03-18:36:06,10.1.1.11,168,-0.440,-0.440,-0.440,0.000,0.000,0.000
1641234966628843008,2022-01-03-18:36:06,10.1.1.11,165,-0.430,-0.430,-0.430,0.000,0.000,0.000
1641234966834789120,2022-01-03-18:36:06,10.1.1.11,170,-0.420,-0.420,-0.420,0.000,0.000,0.000
1641234967029422080,2022-01-03-18:36:07,10.1.1.11,164,-0.410,-0.410,-0.410,0.000,0.000,0.000
1641234967259557888,2022-01-03-18:36:07,10.1.1.11,193,-0.400,-0.400,-0.400,0.000,0.000,0.000
1641234967432593152,2022-01-03-18:36:07,10.1.1.11,164,-0.390,-0.390,-0.390,0.000,0.000,0.000
1641234967627011072,2022-01-03-18:36:07,10.1.1.11,157,-0.380,-0.380,-0.380,0.000,0.000,0.000
1641234967828434944,2022-01-03-18:36:07,10.1.1.11,157,-0.370,-0.370,-0.370,0.000,0.000,0.000
1641234968032121856,2022-01-03-18:36:08,10.1.1.11,156,-0.360,-0.360,-0.360,0.000,0.000,0.000
1641234968254696960,2022-01-03-18:36:08,10.1.1.11,181,-0.350,-0.350,-0.350,0.000,0.000,0.000
1641234968427959808,2022-01-03-18:36:08,10.1.1.11,152,-0.340,-0.340,-0.340,0.000,0.000,0.000
1641234968628984064,2022-01-03-18:36:08,10.1.1.11,152,-0.330,-0.330,-0.330,0.000,0.000,0.000
1641234968828205056,2022-01-03-18:36:08,10.1.1.11,149,-0.320,-0.320,-0.320,0.000,0.000,0.000
1641234969028768000,2022-01-03-18:36:09,10.1.1.11,149,-0.310,-0.310,-0.310,0.000,0.000,0.000
1641234969227462144,2022-01-03-18:36:09,10.1.1.11,147,-0.300,-0.300,-0.300,0.000,0.000,0.000
1641234969470112000,2022-01-03-18:36:09,10.1.1.11,188,-0.290,-0.290,-0.290,0.000,0.000,0.000
1641234969648556032,2022-01-03-18:36:09,10.1.1.11,166,-0.280,-0.280,-0.280,0.000,0.000,0.000
1641234969848660992,2022-01-03-18:36:09,10.1.1.11,165,-0.270,-0.270,-0.270,0.000,0.000,0.000
1641234970049905920,2022-01-03-18:36:10,10.1.1.11,163,-0.260,-0.260,-0.260,0.000,0.000,0.000
1641234970258482944,2022-01-03-18:36:10,10.1.1.11,173,-0.250,-0.250,-0.250,0.000,0.000,0.000
1641234970448436992,2022-01-03-18:36:10,10.1.1.11,161,-0.240,-0.240,-0.240,0.000,0.000,0.000
1641234970658038016,2022-01-03-18:36:10,10.1.1.11,164,-0.230,-0.230,-0.230,0.000,0.000,0.000
1641234970849235968,2022-01-03-18:36:10,10.1.1.11,155,-0.220,-0.220,-0.220,0.000,0.000,0.000
1641234971054583040,2022-01-03-18:36:11,10.1.1.11,160,-0.210,-0.210,-0.210,0.000,0.000,0.000
1641234971254426112,2022-01-03-18:36:11,10.1.1.11,159,-0.200,-0.200,-0.200,0.000,0.000,0.000
1641234971449042176,2022-01-03-18:36:11,10.1.1.11,152,-0.190,-0.190,-0.190,0.000,0.000,0.000
1641234971653745920,2022-01-03-18:36:11,10.1.1.11,155,-0.180,-0.180,-0.180,0.000,0.000,0.000
1641234971851115008,2022-01-03-18:36:11,10.1.1.11,150,-0.170,-0.170,-0.170,0.000,0.000,0.000
1641234972052092160,2022-01-03-18:36:12,10.1.1.11,151,-0.160,-0.160,-0.160,0.000,0.000,0.000
1641234972277972992,2022-01-03-18:36:12,10.1.1.11,171,-0.150,-0.150,-0.150,0.000,0.000,0.000
1641234972473671936,2022-01-03-18:36:12,10.1.1.11,158,-0.140,-0.140,-0.140,0.000,0.000,0.000
1641234972668793856,2022-01-03-18:36:12,10.1.1.11,152,-0.130,-0.130,-0.130,0.000,0.000,0.000
1641234972909789184,2022-01-03-18:36:12,10.1.1.11,162,-0.120,-0.120,-0.120,0.000,0.000,0.000
1641234973110112000,2022-01-03-18:36:13,10.1.1.11,155,-0.110,-0.110,-0.110,0.000,0.000,0.000
1641234973307184896,2022-01-03-18:36:13,10.1.1.11,150,-0.100,-0.100,-0.100,0.000,0.000,0.000
1641234973507749120,2022-01-03-18:36:13,10.1.1.11,149,-0.090,-0.090,-0.090,0.000,0.000,0.000
1641234973727742976,2022-01-03-18:36:13,10.1.1.11,168,-0.080,-0.080,-0.080,0.000,0.000,0.000
1641234974166776832,2022-01-03-18:36:14,10.1.1.11,159,-0.060,-0.060,-0.060,0.000,0.000,0.000
1641234974368297984,2022-01-03-18:36:14,10.1.1.11,154,-0.050,-0.050,-0.050,0.000,0.000,0.000
1641234974568591104,2022-01-03-18:36:14,10.1.1.11,153,-0.040,-0.040,-0.040,0.000,0.000,0.000
1641234974768468992,2022-01-03-18:36:14,10.1.1.11,152,-0.030,-0.030,-0.030,0.000,0.000,0.000
1641234975187129856,2022-01-03-18:36:15,10.1.1.11,150,-0.010,-0.010,-0.010,0.000,0.000,0.000
1641234975406732032,2022-01-03-18:36:15,10.1.1.11,147,0.000,0.000,0.000,0.000,0.000,0.000
1641234975606422784,2022-01-03-18:36:15,10.1.1.11,146,-0.010,-0.010,-0.010,0.000,0.000,0.000
1641234975807395840,2022-01-03-18:36:15,10.1.1.11,147,-0.020,-0.020,-0.020,0.000,0.000,0.000
1641234976031294208,2022-01-03-18:36:16,10.1.1.11,169,-0.030,-0.030,-0.030,0.000,0.000,0.000
1641234976217699072,2022-01-03-18:36:16,10.1.1.11,156,-0.040,-0.040,-0.040,0.000,0.000,0.000
1641234976427355904,2022-01-03-18:36:16,10.1.1.11,164,-0.050,-0.050,-0.050,0.000,0.000,0.000
1641234976625481984,2022-01-03-18:36:16,10.1.1.11,162,-0.060,-0.060,-0.060,0.000,0.000,0.000
1641234976826829824,2022-01-03-18:36:16,10.1.1.11,162,-0.070,-0.070,-0.070,0.000,0.000,0.000
1641234977025729024,2022-01-03-18:36:17,10.1.1.11,160,-0.080,-0.080,-0.080,0.000,0.000,0.000
1641234977228396032,2022-01-03-18:36:17,10.1.1.11,162,-0.090,-0.090,-0.090,0.000,0.000,0.000
1641234977425394944,2022-01-03-18:36:17,10.1.1.11,154,-0.100,-0.100,-0.100,0.000,0.000,0.000
1641234977625391872,2022-01-03-18:36:17,10.1.1.11,148,-0.110,-0.110,-0.110,0.000,0.000,0.000
1641234977825361920,2022-01-03-18:36:17,10.1.1.11,148,-0.120,-0.120,-0.120,0.000,0.000,0.000
1641234978025345024,2022-01-03-18:36:18,10.1.1.11,147,-0.130,-0.130,-0.130,0.000,0.000,0.000
1641234978225207040,2022-01-03-18:36:18,10.1.1.11,146,-0.140,-0.140,-0.140,0.000,0.000,0.000
1641234978644603136,2022-01-03-18:36:18,10.1.1.11,160,-0.160,-0.160,-0.160,0.000,0.000,0.000
1641234978844918016,2022-01-03-18:36:18,10.1.1.11,159,-0.170,-0.170,-0.170,0.000,0.000,0.000
1641234979054425856,2022-01-03-18:36:19,10.1.1.11,168,-0.180,-0.180,-0.180,0.000,0.000,0.000
1641234979252001024,2022-01-03-18:36:19,10.1.1.11,158,-0.190,-0.190,-0.190,0.000,0.000,0.000
1641234979446983168,2022-01-03-18:36:19,10.1.1.11,151,-0.200,-0.200,-0.200,0.000,0.000,0.000
1641234979669511936,2022-01-03-18:36:19,10.1.1.11,173,-0.210,-0.210,-0.210,0.000,0.000,0.000
1641234979844657920,2022-01-03-18:36:19,10.1.1.11,147,-0.220,-0.220,-0.220,0.000,0.000,0.000
1641234980045103104,2022-01-03-18:36:20,10.1.1.11,146,-0.230,-0.230,-0.230,0.000,0.000,0.000
1641234980258790912,2022-01-03-18:36:20,10.1.1.11,161,-0.240,-0.240,-0.240,0.000,0.000,0.000
1641234980446601984,2022-01-03-18:36:20,10.1.1.11,148,-0.250,-0.250,-0.250,0.000,0.000,0.000
1641234980863055872,2022-01-03-18:36:20,10.1.1.11,150,-0.270,-0.270,-0.270,0.000,0.000,0.000
1641234981103187968,2022-01-03-18:36:21,10.1.1.11,168,-0.280,-0.280,-0.280,0.000,0.000,0.000
1641234981283188224,2022-01-03-18:36:21,10.1.1.11,147,-0.290,-0.290,-0.290,0.000,0.000,0.000
1641234981516145920,2022-01-03-18:36:21,10.1.1.11,179,-0.300,-0.300,-0.300,0.000,0.000,0.000
1641234981702649088,2022-01-03-18:36:21,10.1.1.11,164,-0.310,-0.310,-0.310,0.000,0.000,0.000
1641234981887831040,2022-01-03-18:36:21,10.1.1.11,147,-0.320,-0.320,-0.320,0.000,0.000,0.000
1641234982081988096,2022-01-03-18:36:22,10.1.1.11,141,-0.330,-0.330,-0.330,0.000,0.000,0.000
1641234982286031104,2022-01-03-18:36:22,10.1.1.11,144,-0.340,-0.340,-0.340,0.000,0.000,0.000
1641234982501221888,2022-01-03-18:36:22,10.1.1.11,159,-0.350,-0.350,-0.350,0.000,0.000,0.000
1641234982703059968,2022-01-03-18:36:22,10.1.1.11,160,-0.360,-0.360,-0.360,0.000,0.000,0.000
1641234982928410880,2022-01-03-18:36:22,10.1.1.11,182,-0.370,-0.370,-0.370,0.000,0.000,0.000
1641234983101334016,2022-01-03-18:36:23,10.1.1.11,154,-0.380,-0.380,-0.380,0.000,0.000,0.000
1641234983291781888,2022-01-03-18:36:23,10.1.1.11,144,-0.390,-0.390,-0.390,0.000,0.000,0.000
1641234983501220864,2022-01-03-18:36:23,10.1.1.11,153,-0.400,-0.400,-0.400,0.000,0.000,0.000
1641234983700977920,2022-01-03-18:36:23,10.1.1.11,152,-0.410,-0.410,-0.410,0.000,0.000,0.000
1641234983900073984,2022-01-03-18:36:23,10.1.1.11,147,-0.420,-0.420,-0.420,0.000,0.000,0.000
1641234984100948992,2022-01-03-18:36:24,10.1.1.11,147,-0.430,-0.430,-0.430,0.000,0.000,0.000
1641234984299094016,2022-01-03-18:36:24,10.1.1.11,145,-0.440,-0.440,-0.440,0.000,0.000,0.000
1641234984499043072,2022-01-03-18:36:24,10.1.1.11,144,-0.450,-0.450,-0.450,0.000,0.000,0.000
1641234984700346880,2022-01-03-18:36:24,10.1.1.11,144,-0.460,-0.460,-0.460,0.000,0.000,0.000
1641234984898678016,2022-01-03-18:36:24,10.1.1.11,142,-0.470,-0.470,-0.470,0.000,0.000,0.000
1641234985101093120,2022-01-03-18:36:25,10.1.1.11,144,-0.480,-0.480,-0.480,0.000,0.000,0.000
1641234985302632960,2022-01-03-18:36:25,10.1.1.11,145,-0.490,-0.490,-0.490,0.000,0.000,0.000
1641234985499385088,2022-01-03-18:36:25,10.1.1.11,141,-0.480,-0.480,-0.480,0.000,0.000,0.000
1641234985698980096,2022-01-03-18:36:25,10.1.1.11,140,-0.470,-0.470,-0.470,0.000,0.000,0.000
1641234985918089984,2022-01-03-18:36:25,10.1.1.11,156,-0.460,-0.460,-0.460,0.000,0.000,0.000
1641234986109102848,2022-01-03-18:36:26,10.1.1.11,145,-0.450,-0.450,-0.450,0.000,0.000,0.000
1641234986361499136,2022-01-03-18:36:26,10.1.1.11,192,-0.440,-0.440,-0.440,0.000,0.000,0.000
1641234986518084096,2022-01-03-18:36:26,10.1.1.11,147,-0.430,-0.430,-0.430,0.000,0.000,0.000
1641234986737572864,2022-01-03-18:36:26,10.1.1.11,159,-0.420,-0.420,-0.420,0.000,0.000,0.000
1641234986919884032,2022-01-03-18:36:26,10.1.1.11,140,-0.410,-0.410,-0.410,0.000,0.000,0.000
1641234987116849920,2022-01-03-18:36:27,10.1.1.11,137,-0.400,-0.400,-0.400,0.000,0.000,0.000
1641234987321705984,2022-01-03-18:36:27,10.1.1.11,141,-0.390,-0.390,-0.390,0.000,0.000,0.000
1641234987582375168,2022-01-03-18:36:27,10.1.1.11,202,-0.380,-0.380,-0.380,0.000,0.000,0.000
1641234987730428928,2022-01-03-18:36:27,10.1.1.11,147,-0.370,-0.370,-0.370,0.000,0.000,0.000
1641234987935440128,2022-01-03-18:36:27,10.1.1.11,152,-0.360,-0.360,-0.360,0.000,0.000,0.000
1641234988135323904,2022-01-03-18:36:28,10.1.1.11,151,-0.350,-0.350,-0.350,0.000,0.000,0.000
1641234988338748928,2022-01-03-18:36:28,10.1.1.11,146,-0.340,-0.340,-0.340,0.000,0.000,0.000
1641234988541948928,2022-01-03-18:36:28,10.1.1.11,150,-0.330,-0.330,-0.330,0.000,0.000,0.000
1641234988735207936,2022-01-03-18:36:28,10.1.1.11,140,-0.320,-0.320,-0.320,0.000,0.000,0.000
1641234988934479104,2022-01-03-18:36:28,10.1.1.11,138,-0.310,-0.310,-0.310,0.000,0.000,0.000
1641234989135087104,2022-01-03-18:36:29,10.1.1.11,138,-0.300,-0.300,-0.300,0.000,0.000,0.000
1641234989336889856,2022-01-03-18:36:29,10.1.1.11,137,-0.290,-0.290,-0.290,0.000,0.000,0.000
1641234989533628928,2022-01-03-18:36:29,10.1.1.11,135,-0.280,-0.280,-0.280,0.000,0.000,0.000
1641234989788640000,2022-01-03-18:36:29,10.1.1.11,189,-0.270,-0.270,-0.270,0.000,0.000,0.000
1641234990043202048,2022-01-03-18:36:30,10.1.1.11,145,-0.260,-0.260,-0.260,0.000,0.000,0.000
1641234990253790976,2022-01-03-18:36:30,10.1.1.11,155,-0.250,-0.250,-0.250,0.000,0.000,0.000
1641234990436878848,2022-01-03-18:36:30,10.1.1.11,137,-0.240,-0.240,-0.240,0.000,0.000,0.000
1641234990656549888,2022-01-03-18:36:30,10.1.1.11,156,-0.230,-0.230,-0.230,0.000,0.000,0.000
1641234990901981184,2022-01-03-18:36:30,10.1.1.11,144,-0.220,-0.220,-0.220,0.000,0.000,0.000
1641234991092331008,2022-01-03-18:36:31,10.1.1.11,133,-0.210,-0.210,-0.210,0.000,0.000,0.000
1641234991312942080,2022-01-03-18:36:31,10.1.1.11,150,-0.200,-0.200,-0.200,0.000,0.000,0.000
1641234991513176064,2022-01-03-18:36:31,10.1.1.11,150,-0.190,-0.190,-0.190,0.000,0.000,0.000
1641234991712265984,2022-01-03-18:36:31,10.1.1.11,147,-0.180,-0.180,-0.180,0.000,0.000,0.000
1641234991910473984,2022-01-03-18:36:31,10.1.1.11,144,-0.170,-0.170,-0.170,0.000,0.000,0.000
1641234992110685184,2022-01-03-18:36:32,10.1.1.11,133,-0.160,-0.160,-0.160,0.000,0.000,0.000
1641234992330270976,2022-01-03-18:36:32,10.1.1.11,147,-0.150,-0.150,-0.150,0.000,0.000,0.000
1641234992530426112,2022-01-03-18:36:32,10.1.1.11,146,-0.140,-0.140,-0.140,0.000,0.000,0.000
1641234992733478912,2022-01-03-18:36:32,10.1.1.11,143,-0.130,-0.130,-0.130,0.000,0.000,0.000
1641234992949841920,2022-01-03-18:36:32,10.1.1.11,155,-0.120,-0.120,-0.120,0.000,0.000,0.000
1641234993141166848,2022-01-03-18:36:33,10.1.1.11,145,-0.110,-0.110,-0.110,0.000,0.000,0.000
1641234993328662016,2022-01-03-18:36:33,10.1.1.11,131,-0.100,-0.100,-0.100,0.000,0.000,0.000
1641234993528561152,2022-01-03-18:36:33,10.1.1.11,130,-0.090,-0.090,-0.090,0.000,0.000,0.000
1641234993731461120,2022-01-03-18:36:33,10.1.1.11,132,-0.080,-0.080,-0.080,0.000,0.000,0.000
1641234993928894976,2022-01-03-18:36:33,10.1.1.11,129,-0.070,-0.070,-0.070,0.000,0.000,0.000
1641234994127872000,2022-01-03-18:36:34,10.1.1.11,127,-0.060,-0.060,-0.060,0.000,0.000,0.000
1641234994373222144,2022-01-03-18:36:34,10.1.1.11,170,-0.050,-0.050,-0.050,0.000,0.000,0.000
1641234994549196032,2022-01-03-18:36:34,10.1.1.11,145,-0.040,-0.040,-0.040,0.000,0.000,0.000
1641234994748389888,2022-01-03-18:36:34,10.1.1.11,142,-0.030,-0.030,-0.030,0.000,0.000,0.000
1641234994946973952,2022-01-03-18:36:34,10.1.1.11,140,-0.020,-0.020,-0.020,0.000,0.000,0.000
1641234995146724864,2022-01-03-18:36:35,10.1.1.11,139,-0.010,-0.010,-0.010,0.000,0.000,0.000
1641234995346330880,2022-01-03-18:36:35,10.1.1.11,134,0.000,0.000,0.000,0.000,0.000,0.000
1641234995566586880,2022-01-03-18:36:35,10.1.1.11,153,-0.010,-0.010,-0.010,0.000,0.000,0.000
1641234995767580160,2022-01-03-18:36:35,10.1.1.11,153,-0.020,-0.020,-0.020,0.000,0.000,0.000
1641234995945511936,2022-01-03-18:36:35,10.1.1.11,129,-0.030,-0.030,-0.030,0.000,0.000,0.000
1641234996157565952,2022-01-03-18:36:36,10.1.1.11,141,-0.040,-0.040,-0.040,0.000,0.000,0.000
1641234996357502976,2022-01-03-18:36:36,10.1.1.11,140,-0.050,-0.050,-0.050,0.000,0.000,0.000
1641234996757253888,2022-01-03-18:36:36,10.1.1.11,134,-0.070,-0.070,-0.070,0.000,0.000,0.000
1641234996976126976,2022-01-03-18:36:36,10.1.1.11,132,-0.080,-0.080,-0.080,0.000,0.000,0.000
1641234997176567040,2022-01-03-18:36:37,10.1.1.11,131,-0.090,-0.090,-0.090,0.000,0.000,0.000
1641234997376784128,2022-01-03-18:36:37,10.1.1.11,131,-0.100,-0.100,-0.100,0.000,0.000,0.000
1641234997576402944,2022-01-03-18:36:37,10.1.1.11,129,-0.110,-0.110,-0.110,0.000,0.000,0.000
1641234997816345856,2022-01-03-18:36:37,10.1.1.11,135,-0.120,-0.120,-0.120,0.000,0.000,0.000
1641234998015281920,2022-01-03-18:36:38,10.1.1.11,133,-0.130,-0.130,-0.130,0.000,0.000,0.000
1641234998214999040,2022-01-03-18:36:38,10.1.1.11,131,-0.140,-0.140,-0.140,0.000,0.000,0.000
1641234998414857984,2022-01-03-18:36:38,10.1.1.11,129,-0.150,-0.150,-0.150,0.000,0.000,0.000
1641234998614157824,2022-01-03-18:36:38,10.1.1.11,125,-0.160,-0.160,-0.160,0.000,0.000,0.000
1641234998818937088,2022-01-03-18:36:38,10.1.1.11,129,-0.170,-0.170,-0.170,0.000,0.000,0.000
1641234999013209088,2022-01-03-18:36:39,10.1.1.11,122,-0.180,-0.180,-0.180,0.000,0.000,0.000
1641234999212739072,2022-01-03-18:36:39,10.1.1.11,121,-0.190,-0.190,-0.190,0.000,0.000,0.000
1641234999412622848,2022-01-03-18:36:39,10.1.1.11,120,-0.200,-0.200,-0.200,0.000,0.000,0.000
1641234999631517952,2022-01-03-18:36:39,10.1.1.11,137,-0.210,-0.210,-0.210,0.000,0.000,0.000
1641234999831801856,2022-01-03-18:36:39,10.1.1.11,136,-0.220,-0.220,-0.220,0.000,0.000,0.000
1641235000032073984,2022-01-03-18:36:40,10.1.1.11,121,-0.230,-0.230,-0.230,0.000,0.000,0.000
1641235000251192064,2022-01-03-18:36:40,10.1.1.11,135,-0.240,-0.240,-0.240,0.000,0.000,0.000
1641235000451196928,2022-01-03-18:36:40,10.1.1.11,134,-0.250,-0.250,-0.250,0.000,0.000,0.000
1641235000650788096,2022-01-03-18:36:40,10.1.1.11,133,-0.260,-0.260,-0.260,0.000,0.000,0.000
1641235000850539008,2022-01-03-18:36:40,10.1.1.11,131,-0.270,-0.270,-0.270,0.000,0.000,0.000
1641235001100795136,2022-01-03-18:36:41,10.1.1.11,179,-0.280,-0.280,-0.280,0.000,0.000,0.000
1641235001250190848,2022-01-03-18:36:41,10.1.1.11,128,-0.290,-0.290,-0.290,0.000,0.000,0.000
1641235001449939968,2022-01-03-18:36:41,10.1.1.11,125,-0.300,-0.300,-0.300,0.000,0.000,0.000
1641235001649848832,2022-01-03-18:36:41,10.1.1.11,124,-0.310,-0.310,-0.310,0.000,0.000,0.000
1641235001858575104,2022-01-03-18:36:41,10.1.1.11,132,-0.320,-0.320,-0.320,0.000,0.000,0.000
1641235002048926976,2022-01-03-18:36:42,10.1.1.11,122,-0.330,-0.330,-0.330,0.000,0.000,0.000
1641235002249312000,2022-01-03-18:36:42,10.1.1.11,120,-0.340,-0.340,-0.340,0.000,0.000,0.000
1641235002448204032,2022-01-03-18:36:42,10.1.1.11,117,-0.350,-0.350,-0.350,0.000,0.000,0.000
1641235002648235008,2022-01-03-18:36:42,10.1.1.11,116,-0.360,-0.360,-0.360,0.000,0.000,0.000
1641235002847748096,2022-01-03-18:36:42,10.1.1.11,115,-0.370,-0.370,-0.370,0.000,0.000,0.000
1641235003067449088,2022-01-03-18:36:43,10.1.1.11,132,-0.380,-0.380,-0.380,0.000,0.000,0.000
1641235003296081920,2022-01-03-18:36:43,10.1.1.11,160,-0.390,-0.390,-0.390,0.000,0.000,0.000
1641235003467254016,2022-01-03-18:36:43,10.1.1.11,130,-0.400,-0.400,-0.400,0.000,0.000,0.000
1641235003666286848,2022-01-03-18:36:43,10.1.1.11,127,-0.410,-0.410,-0.410,0.000,0.000,0.000
1641235003866347008,2022-01-03-18:36:43,10.1.1.11,127,-0.420,-0.420,-0.420,0.000,0.000,0.000
1641235004068641024,2022-01-03-18:36:44,10.1.1.11,126,-0.430,-0.430,-0.430,0.000,0.000,0.000
1641235004266059008,2022-01-03-18:36:44,10.1.1.11,121,-0.440,-0.440,-0.440,0.000,0.000,0.000
1641235004477488896,2022-01-03-18:36:44,10.1.1.11,131,-0.450,-0.450,-0.450,0.000,0.000,0.000
1641235004664509184,2022-01-03-18:36:44,10.1.1.11,115,-0.460,-0.460,-0.460,0.000,0.000,0.000
1641235004875858944,2022-01-03-18:36:44,10.1.1.11,126,-0.470,-0.470,-0.470,0.000,0.000,0.000
1641235005064721152,2022-01-03-18:36:45,10.1.1.11,112,-0.480,-0.480,-0.480,0.000,0.000,0.000
1641235005264707072,2022-01-03-18:36:45,10.1.1.11,112,-0.490,-0.490,-0.490,0.000,0.000,0.000
1641235005487833856,2022-01-03-18:36:45,10.1.1.11,131,-0.480,-0.480,-0.480,0.000,0.000,0.000
1641235005692379904,2022-01-03-18:36:45,10.1.1.11,124,-0.470,-0.470,-0.470,0.000,0.000,0.000
1641235005892973824,2022-01-03-18:36:45,10.1.1.11,123,-0.460,-0.460,-0.460,0.000,0.000,0.000
1641235006087544832,2022-01-03-18:36:46,10.1.1.11,112,-0.450,-0.450,-0.450,0.000,0.000,0.000
1641235006302426112,2022-01-03-18:36:46,10.1.1.11,126,-0.440,-0.440,-0.440,0.000,0.000,0.000
1641235006510051840,2022-01-03-18:36:46,10.1.1.11,133,-0.430,-0.430,-0.430,0.000,0.000,0.000
1641235006706161920,2022-01-03-18:36:46,10.1.1.11,128,-0.420,-0.420,-0.420,0.000,0.000,0.000
1641235006901345024,2022-01-03-18:36:46,10.1.1.11,122,-0.410,-0.410,-0.410,0.000,0.000,0.000
1641235007100869888,2022-01-03-18:36:47,10.1.1.11,121,-0.400,-0.400,-0.400,0.000,0.000,0.000
1641235007301191168,2022-01-03-18:36:47,10.1.1.11,121,-0.390,-0.390,-0.390,0.000,0.000,0.000
1641235007500630016,2022-01-03-18:36:47,10.1.1.11,119,-0.380,-0.380,-0.380,0.000,0.000,0.000
1641235007700974848,2022-01-03-18:36:47,10.1.1.11,118,-0.370,-0.370,-0.370,0.000,0.000,0.000
1641235007909118976,2022-01-03-18:36:47,10.1.1.11,118,-0.360,-0.360,-0.360,0.000,0.000,0.000
1641235008100232960,2022-01-03-18:36:48,10.1.1.11,108,-0.350,-0.350,-0.350,0.000,0.000,0.000
1641235008301775872,2022-01-03-18:36:48,10.1.1.11,107,-0.340,-0.340,-0.340,0.000,0.000,0.000
1641235008519078144,2022-01-03-18:36:48,10.1.1.11,123,-0.330,-0.330,-0.330,0.000,0.000,0.000
1641235008718491904,2022-01-03-18:36:48,10.1.1.11,121,-0.320,-0.320,-0.320,0.000,0.000,0.000
1641235009118000128,2022-01-03-18:36:49,10.1.1.11,119,-0.300,-0.300,-0.300,0.000,0.000,0.000
1641235009317562112,2022-01-03-18:36:49,10.1.1.11,118,-0.290,-0.290,-0.290,0.000,0.000,0.000
1641235009519428096,2022-01-03-18:36:49,10.1.1.11,119,-0.280,-0.280,-0.280,0.000,0.000,0.000
1641235009717359104,2022-01-03-18:36:49,10.1.1.11,116,-0.270,-0.270,-0.270,0.000,0.000,0.000
1641235009917793024,2022-01-03-18:36:49,10.1.1.11,116,-0.260,-0.260,-0.260,0.000,0.000,0.000
1641235010146843904,2022-01-03-18:36:50,10.1.1.11,144,-0.250,-0.250,-0.250,0.000,0.000,0.000
1641235010316612096,2022-01-03-18:36:50,10.1.1.11,112,-0.240,-0.240,-0.240,0.000,0.000,0.000
1641235010516890880,2022-01-03-18:36:50,10.1.1.11,111,-0.230,-0.230,-0.230,0.000,0.000,0.000
1641235010719185152,2022-01-03-18:36:50,10.1.1.11,112,-0.220,-0.220,-0.220,0.000,0.000,0.000
1641235010929020928,2022-01-03-18:36:50,10.1.1.11,117,-0.210,-0.210,-0.210,0.000,0.000,0.000
1641235011115049984,2022-01-03-18:36:51,10.1.1.11,101,-0.200,-0.200,-0.200,0.000,0.000,0.000
1641235011335104000,2022-01-03-18:36:51,10.1.1.11,121,-0.190,-0.190,-0.190,0.000,0.000,0.000
1641235011554411776,2022-01-03-18:36:51,10.1.1.11,113,-0.180,-0.180,-0.180,0.000,0.000,0.000
1641235011755009024,2022-01-03-18:36:51,10.1.1.11,112,-0.170,-0.170,-0.170,0.000,0.000,0.000
1641235011959497984,2022-01-03-18:36:51,10.1.1.11,115,-0.160,-0.160,-0.160,0.000,0.000,0.000
1641235012153427968,2022-01-03-18:36:52,10.1.1.11,107,-0.150,-0.150,-0.150,0.000,0.000,0.000
1641235012355825920,2022-01-03-18:36:52,10.1.1.11,108,-0.140,-0.140,-0.140,0.000,0.000,0.000
1641235012561707008,2022-01-03-18:36:52,10.1.1.11,106,-0.130,-0.130,-0.130,0.000,0.000,0.000
1641235012752428032,2022-01-03-18:36:52,10.1.1.11,101,-0.120,-0.120,-0.120,0.000,0.000,0.000
1641235012852536832,2022-01-03-18:36:52,10.1.1.11,-1,-0.120,-0.120,-0.120,0.000,0.000,0.000
1641235013154035968,2022-01-03-18:36:53,10.1.1.11,100,-0.100,-0.100,-0.100,0.000,0.000,0.000
1641235013394388992,2022-01-03-18:36:53,10.1.1.11,120,-0.090,-0.090,-0.090,0.000,0.000,0.000
1641235013622469888,2022-01-03-18:36:53,10.1.1.11,148,-0.080,-0.080,-0.080,0.000,0.000,0.000
1641235013797337088,2022-01-03-18:36:53,10.1.1.11,109,-0.070,-0.070,-0.070,0.000,0.000,0.000
1641235013996852992,2022-01-03-18:36:53,10.1.1.11,108,-0.060,-0.060,-0.060,0.000,0.000,0.000
1641235014198700032,2022-01-03-18:36:54,10.1.1.11,109,-0.050,-0.050,-0.050,0.000,0.000,0.000
1641235014400721920,2022-01-03-18:36:54,10.1.1.11,110,-0.040,-0.040,-0.040,0.000,0.000,0.000
1641235014599819776,2022-01-03-18:36:54,10.1.1.11,109,-0.030,-0.030,-0.030,0.000,0.000,0.000
1641235014842283008,2022-01-03-18:36:54,10.1.1.11,140,-0.020,-0.020,-0.020,0.000,0.000,0.000
1641235015025528064,2022-01-03-18:36:55,10.1.1.11,120,-0.010,-0.010,-0.010,0.000,0.000,0.000
1641235015223395072,2022-01-03-18:36:55,10.1.1.11,117,0.000,0.000,0.000,0.000,0.000,0.000
1641235015424410112,2022-01-03-18:36:55,10.1.1.11,117,-0.010,-0.010,-0.010,0.000,0.000,0.000
1641235015624721152,2022-01-03-18:36:55,10.1.1.11,113,-0.020,-0.020,-0.020,0.000,0.000,0.000
1641235015828873984,2022-01-03-18:36:55,10.1.1.11,116,-0.030,-0.030,-0.030,0.000,0.000,0.000
1641235016050235136,2022-01-03-18:36:56,10.1.1.11,136,-0.040,-0.040,-0.040,0.000,0.000,0.000
1641235016249592064,2022-01-03-18:36:56,10.1.1.11,133,-0.050,-0.050,-0.050,0.000,0.000,0.000
1641235016448233984,2022-01-03-18:36:56,10.1.1.11,130,-0.060,-0.060,-0.060,0.000,0.000,0.000
1641235016648893184,2022-01-03-18:36:56,10.1.1.11,130,-0.070,-0.070,-0.070,0.000,0.000,0.000
1641235016849231104,2022-01-03-18:36:56,10.1.1.11,129,-0.080,-0.080,-0.080,0.000,0.000,0.000
1641235017251898112,2022-01-03-18:36:57,10.1.1.11,130,-0.100,-0.100,-0.100,0.000,0.000,0.000
1641235017451620096,2022-01-03-18:36:57,10.1.1.11,117,-0.110,-0.110,-0.110,0.000,0.000,0.000
1641235017673444864,2022-01-03-18:36:57,10.1.1.11,138,-0.120,-0.120,-0.120,0.000,0.000,0.000
1641235017907026944,2022-01-03-18:36:57,10.1.1.11,168,-0.130,-0.130,-0.130,0.000,0.000,0.000
1641235018075782144,2022-01-03-18:36:58,10.1.1.11,133,-0.140,-0.140,-0.140,0.000,0.000,0.000
1641235018279043072,2022-01-03-18:36:58,10.1.1.11,136,-0.150,-0.150,-0.150,0.000,0.000,0.000
1641235018476126976,2022-01-03-18:36:58,10.1.1.11,132,-0.160,-0.160,-0.160,0.000,0.000,0.000
1641235018677295872,2022-01-03-18:36:58,10.1.1.11,132,-0.170,-0.170,-0.170,0.000,0.000,0.000
1641235018882994944,2022-01-03-18:36:58,10.1.1.11,137,-0.180,-0.180,-0.180,0.000,0.000,0.000
1641235019078583040,2022-01-03-18:36:59,10.1.1.11,131,-0.190,-0.190,-0.190,0.000,0.000,0.000
1641235019518640896,2022-01-03-18:36:59,10.1.1.11,137,-0.210,-0.210,-0.210,0.000,0.000,0.000
1641235019719944960,2022-01-03-18:36:59,10.1.1.11,136,-0.220,-0.220,-0.220,0.000,0.000,0.000
1641235019921238784,2022-01-03-18:36:59,10.1.1.11,136,-0.230,-0.230,-0.230,0.000,0.000,0.000
1641235020120861952,2022-01-03-18:37:00,10.1.1.11,135,-0.240,-0.240,-0.240,0.000,0.000,0.000
1641235020321739008,2022-01-03-18:37:00,10.1.1.11,134,-0.250,-0.250,-0.250,0.000,0.000,0.000
1641235020546372864,2022-01-03-18:37:00,10.1.1.11,157,-0.260,-0.260,-0.260,0.000,0.000,0.000
1641235020722276864,2022-01-03-18:37:00,10.1.1.11,132,-0.270,-0.270,-0.270,0.000,0.000,0.000
1641235020922866944,2022-01-03-18:37:00,10.1.1.11,132,-0.280,-0.280,-0.280,0.000,0.000,0.000
1641235021123436800,2022-01-03-18:37:01,10.1.1.11,132,-0.290,-0.290,-0.290,0.000,0.000,0.000
1641235021324896000,2022-01-03-18:37:01,10.1.1.11,132,-0.300,-0.300,-0.300,0.000,0.000,0.000
1641235021524236032,2022-01-03-18:37:01,10.1.1.11,130,-0.310,-0.310,-0.310,0.000,0.000,0.000
1641235021745520128,2022-01-03-18:37:01,10.1.1.11,148,-0.320,-0.320,-0.320,0.000,0.000,0.000
1641235021949249024,2022-01-03-18:37:01,10.1.1.11,151,-0.330,-0.330,-0.330,0.000,0.000,0.000
1641235022146162944,2022-01-03-18:37:02,10.1.1.11,148,-0.340,-0.340,-0.340,0.000,0.000,0.000
1641235022350533120,2022-01-03-18:37:02,10.1.1.11,145,-0.350,-0.350,-0.350,0.000,0.000,0.000
1641235022567440128,2022-01-03-18:37:02,10.1.1.11,147,-0.360,-0.360,-0.360,0.000,0.000,0.000
