FedericoMungari/DigitalTwin_service/01_WiredScenario/Output/Output_script/script_rosapi_2_output_robots6_freq0_4.txt
timestamp,date,node,latency,joint_1,joint_2,joint_3,joint_4,joint_5,joint_6
1641091003693252096,2022-01-02-02:36:43,10.1.1.5,184,-0.010,-0.010,-0.010,0.000,0.000,0.000
1641091003891328000,2022-01-02-02:36:43,10.1.1.5,178,-0.020,-0.020,-0.020,0.000,0.000,0.000
1641091004090672896,2022-01-02-02:36:44,10.1.1.5,175,-0.030,-0.030,-0.030,0.000,0.000,0.000
1641091004292009216,2022-01-02-02:36:44,10.1.1.5,175,-0.040,-0.040,-0.040,0.000,0.000,0.000
1641091004479640064,2022-01-02-02:36:44,10.1.1.5,161,-0.050,-0.050,-0.050,0.000,0.000,0.000
1641091004695819008,2022-01-02-02:36:44,10.1.1.5,174,-0.060,-0.060,-0.060,0.000,0.000,0.000
1641091004889628928,2022-01-02-02:36:44,10.1.1.5,167,-0.070,-0.070,-0.070,0.000,0.000,0.000
1641091005091600896,2022-01-02-02:36:45,10.1.1.5,167,-0.080,-0.080,-0.080,0.000,0.000,0.000
1641091005288480000,2022-01-02-02:36:45,10.1.1.5,163,-0.090,-0.090,-0.090,0.000,0.000,0.000
1641091005489475072,2022-01-02-02:36:45,10.1.1.5,163,-0.100,-0.100,-0.100,0.000,0.000,0.000
1641091005688390144,2022-01-02-02:36:45,10.1.1.5,160,-0.110,-0.110,-0.110,0.000,0.000,0.000
1641091005907812096,2022-01-02-02:36:45,10.1.1.5,177,-0.120,-0.120,-0.120,0.000,0.000,0.000
1641091006117609984,2022-01-02-02:36:46,10.1.1.5,185,-0.130,-0.130,-0.130,0.000,0.000,0.000
1641091006308764928,2022-01-02-02:36:46,10.1.1.5,175,-0.140,-0.140,-0.140,0.000,0.000,0.000
1641091006506757120,2022-01-02-02:36:46,10.1.1.5,173,-0.150,-0.150,-0.150,0.000,0.000,0.000
1641091006706525952,2022-01-02-02:36:46,10.1.1.5,172,-0.160,-0.160,-0.160,0.000,0.000,0.000
1641091006907699968,2022-01-02-02:36:46,10.1.1.5,172,-0.170,-0.170,-0.170,0.000,0.000,0.000
1641091007106353152,2022-01-02-02:36:47,10.1.1.5,170,-0.180,-0.180,-0.180,0.000,0.000,0.000
1641091007315558912,2022-01-02-02:36:47,10.1.1.5,179,-0.190,-0.190,-0.190,0.000,0.000,0.000
1641091007506371072,2022-01-02-02:36:47,10.1.1.5,166,-0.200,-0.200,-0.200,0.000,0.000,0.000
1641091007706855936,2022-01-02-02:36:47,10.1.1.5,166,-0.210,-0.210,-0.210,0.000,0.000,0.000
1641091007907052032,2022-01-02-02:36:47,10.1.1.5,165,-0.220,-0.220,-0.220,0.000,0.000,0.000
1641091008106941952,2022-01-02-02:36:48,10.1.1.5,163,-0.230,-0.230,-0.230,0.000,0.000,0.000
1641091008306732800,2022-01-02-02:36:48,10.1.1.5,163,-0.240,-0.240,-0.240,0.000,0.000,0.000
1641091008505462784,2022-01-02-02:36:48,10.1.1.5,159,-0.250,-0.250,-0.250,0.000,0.000,0.000
1641091008704411136,2022-01-02-02:36:48,10.1.1.5,156,-0.260,-0.260,-0.260,0.000,0.000,0.000
1641091008903984896,2022-01-02-02:36:48,10.1.1.5,155,-0.270,-0.270,-0.270,0.000,0.000,0.000
1641091009123447808,2022-01-02-02:36:49,10.1.1.5,174,-0.280,-0.280,-0.280,0.000,0.000,0.000
1641091009323196928,2022-01-02-02:36:49,10.1.1.5,172,-0.290,-0.290,-0.290,0.000,0.000,0.000
1641091009532232960,2022-01-02-02:36:49,10.1.1.5,181,-0.300,-0.300,-0.300,0.000,0.000,0.000
1641091009721824768,2022-01-02-02:36:49,10.1.1.5,170,-0.310,-0.310,-0.310,0.000,0.000,0.000
1641091009922214144,2022-01-02-02:36:49,10.1.1.5,170,-0.320,-0.320,-0.320,0.000,0.000,0.000
1641091010121489152,2022-01-02-02:36:50,10.1.1.5,169,-0.330,-0.330,-0.330,0.000,0.000,0.000
1641091010321315072,2022-01-02-02:36:50,10.1.1.5,168,-0.340,-0.340,-0.340,0.000,0.000,0.000
1641091010521686016,2022-01-02-02:36:50,10.1.1.5,167,-0.350,-0.350,-0.350,0.000,0.000,0.000
1641091010730100992,2022-01-02-02:36:50,10.1.1.5,174,-0.360,-0.360,-0.360,0.000,0.000,0.000
1641091010920547072,2022-01-02-02:36:50,10.1.1.5,164,-0.370,-0.370,-0.370,0.000,0.000,0.000
1641091011130114048,2022-01-02-02:36:51,10.1.1.5,173,-0.380,-0.380,-0.380,0.000,0.000,0.000
1641091011309159168,2022-01-02-02:36:51,10.1.1.5,151,-0.390,-0.390,-0.390,0.000,0.000,0.000
1641091011519501824,2022-01-02-02:36:51,10.1.1.5,160,-0.400,-0.400,-0.400,0.000,0.000,0.000
1641091011719852800,2022-01-02-02:36:51,10.1.1.5,159,-0.410,-0.410,-0.410,0.000,0.000,0.000
1641091011921446144,2022-01-02-02:36:51,10.1.1.5,159,-0.420,-0.420,-0.420,0.000,0.000,0.000
1641091012118464000,2022-01-02-02:36:52,10.1.1.5,155,-0.430,-0.430,-0.430,0.000,0.000,0.000
1641091012318341120,2022-01-02-02:36:52,10.1.1.5,154,-0.440,-0.440,-0.440,0.000,0.000,0.000
1641091012518880000,2022-01-02-02:36:52,10.1.1.5,154,-0.450,-0.450,-0.450,0.000,0.000,0.000
1641091012728399104,2022-01-02-02:36:52,10.1.1.5,163,-0.460,-0.460,-0.460,0.000,0.000,0.000
1641091012917803008,2022-01-02-02:36:52,10.1.1.5,151,-0.470,-0.470,-0.470,0.000,0.000,0.000
1641091013118364928,2022-01-02-02:36:53,10.1.1.5,151,-0.480,-0.480,-0.480,0.000,0.000,0.000
1641091013326110976,2022-01-02-02:36:53,10.1.1.5,158,-0.490,-0.490,-0.490,0.000,0.000,0.000
1641091013536432896,2022-01-02-02:36:53,10.1.1.5,165,-0.480,-0.480,-0.480,0.000,0.000,0.000
1641091013735827968,2022-01-02-02:36:53,10.1.1.5,164,-0.470,-0.470,-0.470,0.000,0.000,0.000
1641091013935764992,2022-01-02-02:36:53,10.1.1.5,163,-0.460,-0.460,-0.460,0.000,0.000,0.000
1641091014135165952,2022-01-02-02:36:54,10.1.1.5,161,-0.450,-0.450,-0.450,0.000,0.000,0.000
1641091014335235072,2022-01-02-02:36:54,10.1.1.5,160,-0.440,-0.440,-0.440,0.000,0.000,0.000
1641091014534870016,2022-01-02-02:36:54,10.1.1.5,159,-0.430,-0.430,-0.430,0.000,0.000,0.000
1641091014734900992,2022-01-02-02:36:54,10.1.1.5,158,-0.420,-0.420,-0.420,0.000,0.000,0.000
1641091014934046976,2022-01-02-02:36:54,10.1.1.5,156,-0.410,-0.410,-0.410,0.000,0.000,0.000
1641091015134509056,2022-01-02-02:36:55,10.1.1.5,156,-0.400,-0.400,-0.400,0.000,0.000,0.000
1641091015333617920,2022-01-02-02:36:55,10.1.1.5,154,-0.390,-0.390,-0.390,0.000,0.000,0.000
1641091015532836864,2022-01-02-02:36:55,10.1.1.5,153,-0.380,-0.380,-0.380,0.000,0.000,0.000
1641091015734550016,2022-01-02-02:36:55,10.1.1.5,153,-0.370,-0.370,-0.370,0.000,0.000,0.000
1641091015932835072,2022-01-02-02:36:55,10.1.1.5,151,-0.360,-0.360,-0.360,0.000,0.000,0.000
1641091016133976832,2022-01-02-02:36:56,10.1.1.5,151,-0.350,-0.350,-0.350,0.000,0.000,0.000
1641091016334147840,2022-01-02-02:36:56,10.1.1.5,150,-0.340,-0.340,-0.340,0.000,0.000,0.000
1641091016534980096,2022-01-02-02:36:56,10.1.1.5,150,-0.330,-0.330,-0.330,0.000,0.000,0.000
1641091016961271040,2022-01-02-02:36:56,10.1.1.5,170,-0.310,-0.310,-0.310,0.000,0.000,0.000
1641091017163858944,2022-01-02-02:36:57,10.1.1.5,171,-0.300,-0.300,-0.300,0.000,0.000,0.000
1641091017352420096,2022-01-02-02:36:57,10.1.1.5,158,-0.290,-0.290,-0.290,0.000,0.000,0.000
1641091017569765120,2022-01-02-02:36:57,10.1.1.5,173,-0.280,-0.280,-0.280,0.000,0.000,0.000
1641091017781487872,2022-01-02-02:36:57,10.1.1.5,171,-0.270,-0.270,-0.270,0.000,0.000,0.000
1641091017983537920,2022-01-02-02:36:57,10.1.1.5,171,-0.260,-0.260,-0.260,0.000,0.000,0.000
1641091018183001088,2022-01-02-02:36:58,10.1.1.5,170,-0.250,-0.250,-0.250,0.000,0.000,0.000
1641091018383848960,2022-01-02-02:36:58,10.1.1.5,170,-0.240,-0.240,-0.240,0.000,0.000,0.000
1641091018585419008,2022-01-02-02:36:58,10.1.1.5,170,-0.230,-0.230,-0.230,0.000,0.000,0.000
1641091018785341952,2022-01-02-02:36:58,10.1.1.5,169,-0.220,-0.220,-0.220,0.000,0.000,0.000
1641091018985338880,2022-01-02-02:36:58,10.1.1.5,168,-0.210,-0.210,-0.210,0.000,0.000,0.000
1641091019186386944,2022-01-02-02:36:59,10.1.1.5,169,-0.200,-0.200,-0.200,0.000,0.000,0.000
1641091019387933952,2022-01-02-02:36:59,10.1.1.5,169,-0.190,-0.190,-0.190,0.000,0.000,0.000
1641091019587735040,2022-01-02-02:36:59,10.1.1.5,168,-0.180,-0.180,-0.180,0.000,0.000,0.000
1641091019787870976,2022-01-02-02:36:59,10.1.1.5,167,-0.170,-0.170,-0.170,0.000,0.000,0.000
1641091019990225152,2022-01-02-02:36:59,10.1.1.5,167,-0.160,-0.160,-0.160,0.000,0.000,0.000
1641091020189670912,2022-01-02-02:37:00,10.1.1.5,167,-0.150,-0.150,-0.150,0.000,0.000,0.000
1641091020389959936,2022-01-02-02:37:00,10.1.1.5,167,-0.140,-0.140,-0.140,0.000,0.000,0.000
1641091020600041984,2022-01-02-02:37:00,10.1.1.5,176,-0.130,-0.130,-0.130,0.000,0.000,0.000
1641091020790739968,2022-01-02-02:37:00,10.1.1.5,166,-0.120,-0.120,-0.120,0.000,0.000,0.000
1641091020991958016,2022-01-02-02:37:00,10.1.1.5,166,-0.110,-0.110,-0.110,0.000,0.000,0.000
1641091021193985024,2022-01-02-02:37:01,10.1.1.5,167,-0.100,-0.100,-0.100,0.000,0.000,0.000
1641091021414225152,2022-01-02-02:37:01,10.1.1.5,184,-0.090,-0.090,-0.090,0.000,0.000,0.000
1641091021621539072,2022-01-02-02:37:01,10.1.1.5,190,-0.080,-0.080,-0.080,0.000,0.000,0.000
1641091021813265920,2022-01-02-02:37:01,10.1.1.5,178,-0.070,-0.070,-0.070,0.000,0.000,0.000
1641091022013510912,2022-01-02-02:37:02,10.1.1.5,177,-0.060,-0.060,-0.060,0.000,0.000,0.000
1641091022212534016,2022-01-02-02:37:02,10.1.1.5,174,-0.050,-0.050,-0.050,0.000,0.000,0.000
1641091022402982912,2022-01-02-02:37:02,10.1.1.5,164,-0.040,-0.040,-0.040,0.000,0.000,0.000
1641091022614740992,2022-01-02-02:37:02,10.1.1.5,174,-0.030,-0.030,-0.030,0.000,0.000,0.000
1641091022814404864,2022-01-02-02:37:02,10.1.1.5,174,-0.020,-0.020,-0.020,0.000,0.000,0.000
1641091023014187008,2022-01-02-02:37:03,10.1.1.5,172,-0.010,-0.010,-0.010,0.000,0.000,0.000
1641091023214963968,2022-01-02-02:37:03,10.1.1.5,172,0.000,0.000,0.000,0.000,0.000,0.000
1641091023415219968,2022-01-02-02:37:03,10.1.1.5,171,-0.010,-0.010,-0.010,0.000,0.000,0.000
1641091023615223040,2022-01-02-02:37:03,10.1.1.5,170,-0.020,-0.020,-0.020,0.000,0.000,0.000
1641091023814776832,2022-01-02-02:37:03,10.1.1.5,169,-0.030,-0.030,-0.030,0.000,0.000,0.000
1641091024015838976,2022-01-02-02:37:04,10.1.1.5,170,-0.040,-0.040,-0.040,0.000,0.000,0.000
1641091024225806080,2022-01-02-02:37:04,10.1.1.5,179,-0.050,-0.050,-0.050,0.000,0.000,0.000
1641091024418510080,2022-01-02-02:37:04,10.1.1.5,170,-0.060,-0.060,-0.060,0.000,0.000,0.000
1641091024615604992,2022-01-02-02:37:04,10.1.1.5,166,-0.070,-0.070,-0.070,0.000,0.000,0.000
1641091024836244224,2022-01-02-02:37:04,10.1.1.5,185,-0.080,-0.080,-0.080,0.000,0.000,0.000
1641091025036536064,2022-01-02-02:37:05,10.1.1.5,185,-0.090,-0.090,-0.090,0.000,0.000,0.000
1641091025236148224,2022-01-02-02:37:05,10.1.1.5,184,-0.100,-0.100,-0.100,0.000,0.000,0.000
1641091025436701184,2022-01-02-02:37:05,10.1.1.5,183,-0.110,-0.110,-0.110,0.000,0.000,0.000
1641091025635788032,2022-01-02-02:37:05,10.1.1.5,182,-0.120,-0.120,-0.120,0.000,0.000,0.000
1641091025846287872,2022-01-02-02:37:05,10.1.1.5,191,-0.130,-0.130,-0.130,0.000,0.000,0.000
1641091026037337088,2022-01-02-02:37:06,10.1.1.5,180,-0.140,-0.140,-0.140,0.000,0.000,0.000
1641091026237059072,2022-01-02-02:37:06,10.1.1.5,179,-0.150,-0.150,-0.150,0.000,0.000,0.000
1641091026437177856,2022-01-02-02:37:06,10.1.1.5,178,-0.160,-0.160,-0.160,0.000,0.000,0.000
1641091026637054976,2022-01-02-02:37:06,10.1.1.5,177,-0.170,-0.170,-0.170,0.000,0.000,0.000
1641091026837407232,2022-01-02-02:37:06,10.1.1.5,176,-0.180,-0.180,-0.180,0.000,0.000,0.000
1641091027036739072,2022-01-02-02:37:07,10.1.1.5,175,-0.190,-0.190,-0.190,0.000,0.000,0.000
1641091027236697856,2022-01-02-02:37:07,10.1.1.5,174,-0.200,-0.200,-0.200,0.000,0.000,0.000
1641091027437057024,2022-01-02-02:37:07,10.1.1.5,173,-0.210,-0.210,-0.210,0.000,0.000,0.000
1641091027636871168,2022-01-02-02:37:07,10.1.1.5,172,-0.220,-0.220,-0.220,0.000,0.000,0.000
1641091027837363968,2022-01-02-02:37:07,10.1.1.5,171,-0.230,-0.230,-0.230,0.000,0.000,0.000
1641091028038064896,2022-01-02-02:37:08,10.1.1.5,171,-0.240,-0.240,-0.240,0.000,0.000,0.000
1641091028236546048,2022-01-02-02:37:08,10.1.1.5,169,-0.250,-0.250,-0.250,0.000,0.000,0.000
1641091028437274880,2022-01-02-02:37:08,10.1.1.5,169,-0.260,-0.260,-0.260,0.000,0.000,0.000
1641091028636357120,2022-01-02-02:37:08,10.1.1.5,168,-0.270,-0.270,-0.270,0.000,0.000,0.000
1641091028837178880,2022-01-02-02:37:08,10.1.1.5,168,-0.280,-0.280,-0.280,0.000,0.000,0.000
1641091029055902976,2022-01-02-02:37:09,10.1.1.5,186,-0.290,-0.290,-0.290,0.000,0.000,0.000
1641091029256580096,2022-01-02-02:37:09,10.1.1.5,186,-0.300,-0.300,-0.300,0.000,0.000,0.000
1641091029455621888,2022-01-02-02:37:09,10.1.1.5,184,-0.310,-0.310,-0.310,0.000,0.000,0.000
1641091029659142912,2022-01-02-02:37:09,10.1.1.5,187,-0.320,-0.320,-0.320,0.000,0.000,0.000
1641091029855649024,2022-01-02-02:37:09,10.1.1.5,183,-0.330,-0.330,-0.330,0.000,0.000,0.000
1641091030056006912,2022-01-02-02:37:10,10.1.1.5,182,-0.340,-0.340,-0.340,0.000,0.000,0.000
1641091030258084096,2022-01-02-02:37:10,10.1.1.5,182,-0.350,-0.350,-0.350,0.000,0.000,0.000
1641091030445211904,2022-01-02-02:37:10,10.1.1.5,168,-0.360,-0.360,-0.360,0.000,0.000,0.000
1641091030655608832,2022-01-02-02:37:10,10.1.1.5,177,-0.370,-0.370,-0.370,0.000,0.000,0.000
1641091030855237120,2022-01-02-02:37:10,10.1.1.5,176,-0.380,-0.380,-0.380,0.000,0.000,0.000
1641091031055689216,2022-01-02-02:37:11,10.1.1.5,176,-0.390,-0.390,-0.390,0.000,0.000,0.000
1641091031255404032,2022-01-02-02:37:11,10.1.1.5,174,-0.400,-0.400,-0.400,0.000,0.000,0.000
1641091031454746112,2022-01-02-02:37:11,10.1.1.5,173,-0.410,-0.410,-0.410,0.000,0.000,0.000
1641091031655616000,2022-01-02-02:37:11,10.1.1.5,174,-0.420,-0.420,-0.420,0.000,0.000,0.000
1641091031854779904,2022-01-02-02:37:11,10.1.1.5,172,-0.430,-0.430,-0.430,0.000,0.000,0.000
1641091032055237120,2022-01-02-02:37:12,10.1.1.5,172,-0.440,-0.440,-0.440,0.000,0.000,0.000
1641091032254311936,2022-01-02-02:37:12,10.1.1.5,170,-0.450,-0.450,-0.450,0.000,0.000,0.000
1641091032454096128,2022-01-02-02:37:12,10.1.1.5,169,-0.460,-0.460,-0.460,0.000,0.000,0.000
1641091032653873920,2022-01-02-02:37:12,10.1.1.5,169,-0.470,-0.470,-0.470,0.000,0.000,0.000
1641091032853555968,2022-01-02-02:37:12,10.1.1.5,168,-0.480,-0.480,-0.480,0.000,0.000,0.000
1641091033055043840,2022-01-02-02:37:13,10.1.1.5,169,-0.490,-0.490,-0.490,0.000,0.000,0.000
1641091033253443072,2022-01-02-02:37:13,10.1.1.5,167,-0.480,-0.480,-0.480,0.000,0.000,0.000
1641091033453170176,2022-01-02-02:37:13,10.1.1.5,166,-0.470,-0.470,-0.470,0.000,0.000,0.000
1641091033652124928,2022-01-02-02:37:13,10.1.1.5,164,-0.460,-0.460,-0.460,0.000,0.000,0.000
1641091033852034048,2022-01-02-02:37:13,10.1.1.5,163,-0.450,-0.450,-0.450,0.000,0.000,0.000
1641091034062799104,2022-01-02-02:37:14,10.1.1.5,173,-0.440,-0.440,-0.440,0.000,0.000,0.000
1641091034282102016,2022-01-02-02:37:14,10.1.1.5,191,-0.430,-0.430,-0.430,0.000,0.000,0.000
1641091034472281088,2022-01-02-02:37:14,10.1.1.5,178,-0.420,-0.420,-0.420,0.000,0.000,0.000
1641091034673932032,2022-01-02-02:37:14,10.1.1.5,179,-0.410,-0.410,-0.410,0.000,0.000,0.000
1641091034872311040,2022-01-02-02:37:14,10.1.1.5,177,-0.400,-0.400,-0.400,0.000,0.000,0.000
1641091035081847040,2022-01-02-02:37:15,10.1.1.5,186,-0.390,-0.390,-0.390,0.000,0.000,0.000
1641091035281553152,2022-01-02-02:37:15,10.1.1.5,184,-0.380,-0.380,-0.380,0.000,0.000,0.000
1641091035470958848,2022-01-02-02:37:15,10.1.1.5,173,-0.370,-0.370,-0.370,0.000,0.000,0.000
1641091035670967040,2022-01-02-02:37:15,10.1.1.5,173,-0.360,-0.360,-0.360,0.000,0.000,0.000
1641091035870372096,2022-01-02-02:37:15,10.1.1.5,172,-0.350,-0.350,-0.350,0.000,0.000,0.000
1641091036070902016,2022-01-02-02:37:16,10.1.1.5,171,-0.340,-0.340,-0.340,0.000,0.000,0.000
1641091036270683136,2022-01-02-02:37:16,10.1.1.5,170,-0.330,-0.330,-0.330,0.000,0.000,0.000
1641091036470135808,2022-01-02-02:37:16,10.1.1.5,169,-0.320,-0.320,-0.320,0.000,0.000,0.000
1641091036669872128,2022-01-02-02:37:16,10.1.1.5,168,-0.310,-0.310,-0.310,0.000,0.000,0.000
1641091036869965056,2022-01-02-02:37:16,10.1.1.5,167,-0.300,-0.300,-0.300,0.000,0.000,0.000
1641091037071688960,2022-01-02-02:37:17,10.1.1.5,169,-0.290,-0.290,-0.290,0.000,0.000,0.000
1641091037278902016,2022-01-02-02:37:17,10.1.1.5,175,-0.280,-0.280,-0.280,0.000,0.000,0.000
1641091037468462848,2022-01-02-02:37:17,10.1.1.5,164,-0.270,-0.270,-0.270,0.000,0.000,0.000
1641091037678281984,2022-01-02-02:37:17,10.1.1.5,173,-0.260,-0.260,-0.260,0.000,0.000,0.000
1641091037869754112,2022-01-02-02:37:17,10.1.1.5,164,-0.250,-0.250,-0.250,0.000,0.000,0.000
1641091038069710848,2022-01-02-02:37:18,10.1.1.5,163,-0.240,-0.240,-0.240,0.000,0.000,0.000
1641091038268423168,2022-01-02-02:37:18,10.1.1.5,161,-0.230,-0.230,-0.230,0.000,0.000,0.000
1641091038467497984,2022-01-02-02:37:18,10.1.1.5,160,-0.220,-0.220,-0.220,0.000,0.000,0.000
1641091038671355136,2022-01-02-02:37:18,10.1.1.5,162,-0.210,-0.210,-0.210,0.000,0.000,0.000
1641091038887102976,2022-01-02-02:37:18,10.1.1.5,177,-0.200,-0.200,-0.200,0.000,0.000,0.000
1641091039085704960,2022-01-02-02:37:19,10.1.1.5,175,-0.190,-0.190,-0.190,0.000,0.000,0.000
1641091039285937920,2022-01-02-02:37:19,10.1.1.5,174,-0.180,-0.180,-0.180,0.000,0.000,0.000
1641091039485719808,2022-01-02-02:37:19,10.1.1.5,173,-0.170,-0.170,-0.170,0.000,0.000,0.000
1641091039685316096,2022-01-02-02:37:19,10.1.1.5,172,-0.160,-0.160,-0.160,0.000,0.000,0.000
1641091039885835008,2022-01-02-02:37:19,10.1.1.5,172,-0.150,-0.150,-0.150,0.000,0.000,0.000
1641091040084592128,2022-01-02-02:37:20,10.1.1.5,170,-0.140,-0.140,-0.140,0.000,0.000,0.000
1641091040285105920,2022-01-02-02:37:20,10.1.1.5,170,-0.130,-0.130,-0.130,0.000,0.000,0.000
1641091040485584128,2022-01-02-02:37:20,10.1.1.5,169,-0.120,-0.120,-0.120,0.000,0.000,0.000
1641091040687351040,2022-01-02-02:37:20,10.1.1.5,171,-0.110,-0.110,-0.110,0.000,0.000,0.000
1641091040885603840,2022-01-02-02:37:20,10.1.1.5,168,-0.100,-0.100,-0.100,0.000,0.000,0.000
1641091041083419136,2022-01-02-02:37:21,10.1.1.5,165,-0.090,-0.090,-0.090,0.000,0.000,0.000
1641091041283705088,2022-01-02-02:37:21,10.1.1.5,164,-0.080,-0.080,-0.080,0.000,0.000,0.000
1641091041484030976,2022-01-02-02:37:21,10.1.1.5,164,-0.070,-0.070,-0.070,0.000,0.000,0.000
1641091041683703040,2022-01-02-02:37:21,10.1.1.5,163,-0.060,-0.060,-0.060,0.000,0.000,0.000
1641091041883132928,2022-01-02-02:37:21,10.1.1.5,162,-0.050,-0.050,-0.050,0.000,0.000,0.000
1641091042081961984,2022-01-02-02:37:22,10.1.1.5,159,-0.040,-0.040,-0.040,0.000,0.000,0.000
1641091042283278080,2022-01-02-02:37:22,10.1.1.5,159,-0.030,-0.030,-0.030,0.000,0.000,0.000
1641091042482300928,2022-01-02-02:37:22,10.1.1.5,157,-0.020,-0.020,-0.020,0.000,0.000,0.000
1641091042690844928,2022-01-02-02:37:22,10.1.1.5,165,-0.010,-0.010,-0.010,0.000,0.000,0.000
1641091042882467072,2022-01-02-02:37:22,10.1.1.5,156,0.000,0.000,0.000,0.000,0.000,0.000
1641091043080663040,2022-01-02-02:37:23,10.1.1.5,153,-0.010,-0.010,-0.010,0.000,0.000,0.000
1641091043282263040,2022-01-02-02:37:23,10.1.1.5,154,-0.020,-0.020,-0.020,0.000,0.000,0.000
1641091043480233984,2022-01-02-02:37:23,10.1.1.5,151,-0.030,-0.030,-0.030,0.000,0.000,0.000
1641091043701946112,2022-01-02-02:37:23,10.1.1.5,173,-0.040,-0.040,-0.040,0.000,0.000,0.000
1641091043899600128,2022-01-02-02:37:23,10.1.1.5,170,-0.050,-0.050,-0.050,0.000,0.000,0.000
1641091044099884032,2022-01-02-02:37:24,10.1.1.5,169,-0.060,-0.060,-0.060,0.000,0.000,0.000
1641091044289868032,2022-01-02-02:37:24,10.1.1.5,158,-0.070,-0.070,-0.070,0.000,0.000,0.000
1641091044499066112,2022-01-02-02:37:24,10.1.1.5,167,-0.080,-0.080,-0.080,0.000,0.000,0.000
1641091044699538944,2022-01-02-02:37:24,10.1.1.5,166,-0.090,-0.090,-0.090,0.000,0.000,0.000
1641091044900178944,2022-01-02-02:37:24,10.1.1.5,166,-0.100,-0.100,-0.100,0.000,0.000,0.000
1641091045097176064,2022-01-02-02:37:25,10.1.1.5,163,-0.110,-0.110,-0.110,0.000,0.000,0.000
1641091045297462016,2022-01-02-02:37:25,10.1.1.5,163,-0.120,-0.120,-0.120,0.000,0.000,0.000
1641091045496537088,2022-01-02-02:37:25,10.1.1.5,160,-0.130,-0.130,-0.130,0.000,0.000,0.000
1641091045696738048,2022-01-02-02:37:25,10.1.1.5,160,-0.140,-0.140,-0.140,0.000,0.000,0.000
1641091045905627136,2022-01-02-02:37:25,10.1.1.5,167,-0.150,-0.150,-0.150,0.000,0.000,0.000
1641091046095572992,2022-01-02-02:37:26,10.1.1.5,157,-0.160,-0.160,-0.160,0.000,0.000,0.000
1641091046295842816,2022-01-02-02:37:26,10.1.1.5,157,-0.170,-0.170,-0.170,0.000,0.000,0.000
1641091046495143936,2022-01-02-02:37:26,10.1.1.5,156,-0.180,-0.180,-0.180,0.000,0.000,0.000
1641091046695220992,2022-01-02-02:37:26,10.1.1.5,154,-0.190,-0.190,-0.190,0.000,0.000,0.000
1641091046895092992,2022-01-02-02:37:26,10.1.1.5,154,-0.200,-0.200,-0.200,0.000,0.000,0.000
1641091047093972992,2022-01-02-02:37:27,10.1.1.5,152,-0.210,-0.210,-0.210,0.000,0.000,0.000
1641091047294086912,2022-01-02-02:37:27,10.1.1.5,151,-0.220,-0.220,-0.220,0.000,0.000,0.000
1641091047494208000,2022-01-02-02:37:27,10.1.1.5,151,-0.230,-0.230,-0.230,0.000,0.000,0.000
1641091047693412096,2022-01-02-02:37:27,10.1.1.5,149,-0.240,-0.240,-0.240,0.000,0.000,0.000
1641091047892834816,2022-01-02-02:37:27,10.1.1.5,148,-0.250,-0.250,-0.250,0.000,0.000,0.000
1641091048093810944,2022-01-02-02:37:28,10.1.1.5,148,-0.260,-0.260,-0.260,0.000,0.000,0.000
1641091048295001856,2022-01-02-02:37:28,10.1.1.5,147,-0.270,-0.270,-0.270,0.000,0.000,0.000
1641091048495341056,2022-01-02-02:37:28,10.1.1.5,146,-0.280,-0.280,-0.280,0.000,0.000,0.000
1641091048717218048,2022-01-02-02:37:28,10.1.1.5,167,-0.290,-0.290,-0.290,0.000,0.000,0.000
1641091048917689088,2022-01-02-02:37:28,10.1.1.5,166,-0.300,-0.300,-0.300,0.000,0.000,0.000
1641091049118857984,2022-01-02-02:37:29,10.1.1.5,167,-0.310,-0.310,-0.310,0.000,0.000,0.000
1641091049319763968,2022-01-02-02:37:29,10.1.1.5,167,-0.320,-0.320,-0.320,0.000,0.000,0.000
1641091049520219136,2022-01-02-02:37:29,10.1.1.5,166,-0.330,-0.330,-0.330,0.000,0.000,0.000
1641091049720956160,2022-01-02-02:37:29,10.1.1.5,165,-0.340,-0.340,-0.340,0.000,0.000,0.000
1641091049922481920,2022-01-02-02:37:29,10.1.1.5,166,-0.350,-0.350,-0.350,0.000,0.000,0.000
1641091050122867968,2022-01-02-02:37:30,10.1.1.5,166,-0.360,-0.360,-0.360,0.000,0.000,0.000
1641091050323902976,2022-01-02-02:37:30,10.1.1.5,166,-0.370,-0.370,-0.370,0.000,0.000,0.000
1641091050526671872,2022-01-02-02:37:30,10.1.1.5,168,-0.380,-0.380,-0.380,0.000,0.000,0.000
1641091050726793984,2022-01-02-02:37:30,10.1.1.5,167,-0.390,-0.390,-0.390,0.000,0.000,0.000
1641091050928230144,2022-01-02-02:37:30,10.1.1.5,168,-0.400,-0.400,-0.400,0.000,0.000,0.000
1641091051128058880,2022-01-02-02:37:31,10.1.1.5,167,-0.410,-0.410,-0.410,0.000,0.000,0.000
1641091051329474816,2022-01-02-02:37:31,10.1.1.5,167,-0.420,-0.420,-0.420,0.000,0.000,0.000
1641091051527857920,2022-01-02-02:37:31,10.1.1.5,164,-0.430,-0.430,-0.430,0.000,0.000,0.000
1641091051728246016,2022-01-02-02:37:31,10.1.1.5,163,-0.440,-0.440,-0.440,0.000,0.000,0.000
1641091051928997120,2022-01-02-02:37:31,10.1.1.5,163,-0.450,-0.450,-0.450,0.000,0.000,0.000
1641091052130932992,2022-01-02-02:37:32,10.1.1.5,165,-0.460,-0.460,-0.460,0.000,0.000,0.000
1641091052329854976,2022-01-02-02:37:32,10.1.1.5,162,-0.470,-0.470,-0.470,0.000,0.000,0.000
1641091052550767872,2022-01-02-02:37:32,10.1.1.5,181,-0.480,-0.480,-0.480,0.000,0.000,0.000
1641091052751352064,2022-01-02-02:37:32,10.1.1.5,180,-0.490,-0.490,-0.490,0.000,0.000,0.000
1641091052951436032,2022-01-02-02:37:32,10.1.1.5,177,-0.480,-0.480,-0.480,0.000,0.000,0.000
1641091053151782144,2022-01-02-02:37:33,10.1.1.5,176,-0.470,-0.470,-0.470,0.000,0.000,0.000
1641091053352436992,2022-01-02-02:37:33,10.1.1.5,176,-0.460,-0.460,-0.460,0.000,0.000,0.000
1641091053552279040,2022-01-02-02:37:33,10.1.1.5,175,-0.450,-0.450,-0.450,0.000,0.000,0.000
1641091053754183936,2022-01-02-02:37:33,10.1.1.5,176,-0.440,-0.440,-0.440,0.000,0.000,0.000
1641091053953479936,2022-01-02-02:37:33,10.1.1.5,174,-0.430,-0.430,-0.430,0.000,0.000,0.000
1641091054154669056,2022-01-02-02:37:34,10.1.1.5,175,-0.420,-0.420,-0.420,0.000,0.000,0.000
1641091054354552064,2022-01-02-02:37:34,10.1.1.5,173,-0.410,-0.410,-0.410,0.000,0.000,0.000
1641091054554516992,2022-01-02-02:37:34,10.1.1.5,173,-0.400,-0.400,-0.400,0.000,0.000,0.000
1641091054755300096,2022-01-02-02:37:34,10.1.1.5,173,-0.390,-0.390,-0.390,0.000,0.000,0.000
1641091054955148032,2022-01-02-02:37:34,10.1.1.5,172,-0.380,-0.380,-0.380,0.000,0.000,0.000
1641091055155896064,2022-01-02-02:37:35,10.1.1.5,171,-0.370,-0.370,-0.370,0.000,0.000,0.000
1641091055369939200,2022-01-02-02:37:35,10.1.1.5,184,-0.360,-0.360,-0.360,0.000,0.000,0.000
1641091055555845888,2022-01-02-02:37:35,10.1.1.5,169,-0.350,-0.350,-0.350,0.000,0.000,0.000
1641091055756414976,2022-01-02-02:37:35,10.1.1.5,169,-0.340,-0.340,-0.340,0.000,0.000,0.000
1641091055957448960,2022-01-02-02:37:35,10.1.1.5,168,-0.330,-0.330,-0.330,0.000,0.000,0.000
1641091056155644928,2022-01-02-02:37:36,10.1.1.5,167,-0.320,-0.320,-0.320,0.000,0.000,0.000
1641091056377579008,2022-01-02-02:37:36,10.1.1.5,187,-0.310,-0.310,-0.310,0.000,0.000,0.000
1641091056575761152,2022-01-02-02:37:36,10.1.1.5,184,-0.300,-0.300,-0.300,0.000,0.000,0.000
1641091056777399040,2022-01-02-02:37:36,10.1.1.5,184,-0.290,-0.290,-0.290,0.000,0.000,0.000
1641091056966490880,2022-01-02-02:37:36,10.1.1.5,172,-0.280,-0.280,-0.280,0.000,0.000,0.000
1641091057176748032,2022-01-02-02:37:37,10.1.1.5,169,-0.270,-0.270,-0.270,0.000,0.000,0.000
1641091057377432064,2022-01-02-02:37:37,10.1.1.5,169,-0.260,-0.260,-0.260,0.000,0.000,0.000
1641091057598553856,2022-01-02-02:37:37,10.1.1.5,189,-0.250,-0.250,-0.250,0.000,0.000,0.000
1641091057807739136,2022-01-02-02:37:37,10.1.1.5,194,-0.240,-0.240,-0.240,0.000,0.000,0.000
1641091057997591040,2022-01-02-02:37:37,10.1.1.5,183,-0.230,-0.230,-0.230,0.000,0.000,0.000
1641091058186948096,2022-01-02-02:37:38,10.1.1.5,170,-0.220,-0.220,-0.220,0.000,0.000,0.000
1641091058397437184,2022-01-02-02:37:38,10.1.1.5,178,-0.210,-0.210,-0.210,0.000,0.000,0.000
1641091058597698816,2022-01-02-02:37:38,10.1.1.5,178,-0.200,-0.200,-0.200,0.000,0.000,0.000
1641091058799830016,2022-01-02-02:37:38,10.1.1.5,179,-0.190,-0.190,-0.190,0.000,0.000,0.000
1641091058999369984,2022-01-02-02:37:38,10.1.1.5,176,-0.180,-0.180,-0.180,0.000,0.000,0.000
1641091059197495040,2022-01-02-02:37:39,10.1.1.5,175,-0.170,-0.170,-0.170,0.000,0.000,0.000
1641091059396621824,2022-01-02-02:37:39,10.1.1.5,174,-0.160,-0.160,-0.160,0.000,0.000,0.000
1641091059597053952,2022-01-02-02:37:39,10.1.1.5,173,-0.150,-0.150,-0.150,0.000,0.000,0.000
1641091059797164032,2022-01-02-02:37:39,10.1.1.5,172,-0.140,-0.140,-0.140,0.000,0.000,0.000
1641091059998264064,2022-01-02-02:37:39,10.1.1.5,172,-0.130,-0.130,-0.130,0.000,0.000,0.000
1641091060196884992,2022-01-02-02:37:40,10.1.1.5,170,-0.120,-0.120,-0.120,0.000,0.000,0.000
1641091060398010880,2022-01-02-02:37:40,10.1.1.5,170,-0.110,-0.110,-0.110,0.000,0.000,0.000
1641091060596900864,2022-01-02-02:37:40,10.1.1.5,168,-0.100,-0.100,-0.100,0.000,0.000,0.000
1641091060817504768,2022-01-02-02:37:40,10.1.1.5,187,-0.090,-0.090,-0.090,0.000,0.000,0.000
1641091061019313152,2022-01-02-02:37:41,10.1.1.5,188,-0.080,-0.080,-0.080,0.000,0.000,0.000
1641091061217582080,2022-01-02-02:37:41,10.1.1.5,186,-0.070,-0.070,-0.070,0.000,0.000,0.000
1641091061420020992,2022-01-02-02:37:41,10.1.1.5,186,-0.060,-0.060,-0.060,0.000,0.000,0.000
1641091061627023104,2022-01-02-02:37:41,10.1.1.5,194,-0.050,-0.050,-0.050,0.000,0.000,0.000
1641091061816529920,2022-01-02-02:37:41,10.1.1.5,183,-0.040,-0.040,-0.040,0.000,0.000,0.000
1641091062017929984,2022-01-02-02:37:42,10.1.1.5,183,-0.030,-0.030,-0.030,0.000,0.000,0.000
1641091062216183808,2022-01-02-02:37:42,10.1.1.5,180,-0.020,-0.020,-0.020,0.000,0.000,0.000
1641091062415420928,2022-01-02-02:37:42,10.1.1.5,179,-0.010,-0.010,-0.010,0.000,0.000,0.000
1641091062616254976,2022-01-02-02:37:42,10.1.1.5,179,0.000,0.000,0.000,0.000,0.000,0.000
1641091062815763968,2022-01-02-02:37:42,10.1.1.5,178,-0.010,-0.010,-0.010,0.000,0.000,0.000
1641091063018419968,2022-01-02-02:37:43,10.1.1.5,179,-0.020,-0.020,-0.020,0.000,0.000,0.000
1641091063216322048,2022-01-02-02:37:43,10.1.1.5,177,-0.030,-0.030,-0.030,0.000,0.000,0.000
1641091063419207168,2022-01-02-02:37:43,10.1.1.5,178,-0.040,-0.040,-0.040,0.000,0.000,0.000
1641091063615753984,2022-01-02-02:37:43,10.1.1.5,174,-0.050,-0.050,-0.050,0.000,0.000,0.000
1641091063815779840,2022-01-02-02:37:43,10.1.1.5,173,-0.060,-0.060,-0.060,0.000,0.000,0.000
1641091064015528960,2022-01-02-02:37:44,10.1.1.5,172,-0.070,-0.070,-0.070,0.000,0.000,0.000
1641091064216862976,2022-01-02-02:37:44,10.1.1.5,173,-0.080,-0.080,-0.080,0.000,0.000,0.000
1641091064415042048,2022-01-02-02:37:44,10.1.1.5,171,-0.090,-0.090,-0.090,0.000,0.000,0.000
1641091064616903168,2022-01-02-02:37:44,10.1.1.5,171,-0.100,-0.100,-0.100,0.000,0.000,0.000
1641091064814466048,2022-01-02-02:37:44,10.1.1.5,168,-0.110,-0.110,-0.110,0.000,0.000,0.000
1641091065014524928,2022-01-02-02:37:45,10.1.1.5,168,-0.120,-0.120,-0.120,0.000,0.000,0.000
1641091065213517056,2022-01-02-02:37:45,10.1.1.5,166,-0.130,-0.130,-0.130,0.000,0.000,0.000
1641091065413810944,2022-01-02-02:37:45,10.1.1.5,166,-0.140,-0.140,-0.140,0.000,0.000,0.000
1641091065623838976,2022-01-02-02:37:45,10.1.1.5,175,-0.150,-0.150,-0.150,0.000,0.000,0.000
1641091065833420032,2022-01-02-02:37:45,10.1.1.5,184,-0.160,-0.160,-0.160,0.000,0.000,0.000
1641091066023206912,2022-01-02-02:37:46,10.1.1.5,173,-0.170,-0.170,-0.170,0.000,0.000,0.000
1641091066235877120,2022-01-02-02:37:46,10.1.1.5,185,-0.180,-0.180,-0.180,0.000,0.000,0.000
1641091066434408960,2022-01-02-02:37:46,10.1.1.5,179,-0.190,-0.190,-0.190,0.000,0.000,0.000
1641091066632824832,2022-01-02-02:37:46,10.1.1.5,178,-0.200,-0.200,-0.200,0.000,0.000,0.000
1641091066832630016,2022-01-02-02:37:46,10.1.1.5,177,-0.210,-0.210,-0.210,0.000,0.000,0.000
1641091067032026880,2022-01-02-02:37:47,10.1.1.5,176,-0.220,-0.220,-0.220,0.000,0.000,0.000
1641091067232311040,2022-01-02-02:37:47,10.1.1.5,175,-0.230,-0.230,-0.230,0.000,0.000,0.000
1641091067431719936,2022-01-02-02:37:47,10.1.1.5,174,-0.240,-0.240,-0.240,0.000,0.000,0.000
1641091067632424192,2022-01-02-02:37:47,10.1.1.5,173,-0.250,-0.250,-0.250,0.000,0.000,0.000
1641091067831165952,2022-01-02-02:37:47,10.1.1.5,172,-0.260,-0.260,-0.260,0.000,0.000,0.000
1641091068030968064,2022-01-02-02:37:48,10.1.1.5,171,-0.270,-0.270,-0.270,0.000,0.000,0.000
1641091068231493120,2022-01-02-02:37:48,10.1.1.5,171,-0.280,-0.280,-0.280,0.000,0.000,0.000
1641091068430176000,2022-01-02-02:37:48,10.1.1.5,168,-0.290,-0.290,-0.290,0.000,0.000,0.000
1641091068630125056,2022-01-02-02:37:48,10.1.1.5,168,-0.300,-0.300,-0.300,0.000,0.000,0.000
1641091068829891072,2022-01-02-02:37:48,10.1.1.5,167,-0.310,-0.310,-0.310,0.000,0.000,0.000
1641091069030308096,2022-01-02-02:37:49,10.1.1.5,167,-0.320,-0.320,-0.320,0.000,0.000,0.000
1641091069230351872,2022-01-02-02:37:49,10.1.1.5,165,-0.330,-0.330,-0.330,0.000,0.000,0.000
1641091069430792192,2022-01-02-02:37:49,10.1.1.5,163,-0.340,-0.340,-0.340,0.000,0.000,0.000
1641091069629248000,2022-01-02-02:37:49,10.1.1.5,160,-0.350,-0.350,-0.350,0.000,0.000,0.000
1641091069850483968,2022-01-02-02:37:49,10.1.1.5,180,-0.360,-0.360,-0.360,0.000,0.000,0.000
1641091070049700096,2022-01-02-02:37:50,10.1.1.5,179,-0.370,-0.370,-0.370,0.000,0.000,0.000
1641091070257705984,2022-01-02-02:37:50,10.1.1.5,186,-0.380,-0.380,-0.380,0.000,0.000,0.000
1641091070437686016,2022-01-02-02:37:50,10.1.1.5,165,-0.390,-0.390,-0.390,0.000,0.000,0.000
1641091070648829952,2022-01-02-02:37:50,10.1.1.5,176,-0.400,-0.400,-0.400,0.000,0.000,0.000
1641091070848088064,2022-01-02-02:37:50,10.1.1.5,175,-0.410,-0.410,-0.410,0.000,0.000,0.000
1641091071047494912,2022-01-02-02:37:51,10.1.1.5,173,-0.420,-0.420,-0.420,0.000,0.000,0.000
1641091071246644992,2022-01-02-02:37:51,10.1.1.5,172,-0.430,-0.430,-0.430,0.000,0.000,0.000
1641091071447240960,2022-01-02-02:37:51,10.1.1.5,171,-0.440,-0.440,-0.440,0.000,0.000,0.000
1641091071646568960,2022-01-02-02:37:51,10.1.1.5,170,-0.450,-0.450,-0.450,0.000,0.000,0.000
1641091071845558016,2022-01-02-02:37:51,10.1.1.5,168,-0.460,-0.460,-0.460,0.000,0.000,0.000
1641091072046111232,2022-01-02-02:37:52,10.1.1.5,168,-0.470,-0.470,-0.470,0.000,0.000,0.000
1641091072246398976,2022-01-02-02:37:52,10.1.1.5,167,-0.480,-0.480,-0.480,0.000,0.000,0.000
1641091072444762880,2022-01-02-02:37:52,10.1.1.5,165,-0.490,-0.490,-0.490,0.000,0.000,0.000
1641091072645447936,2022-01-02-02:37:52,10.1.1.5,165,-0.480,-0.480,-0.480,0.000,0.000,0.000
1641091072844640000,2022-01-02-02:37:52,10.1.1.5,163,-0.470,-0.470,-0.470,0.000,0.000,0.000
1641091073044235008,2022-01-02-02:37:53,10.1.1.5,162,-0.460,-0.460,-0.460,0.000,0.000,0.000
1641091073243633152,2022-01-02-02:37:53,10.1.1.5,161,-0.450,-0.450,-0.450,0.000,0.000,0.000
1641091073443977984,2022-01-02-02:37:53,10.1.1.5,160,-0.440,-0.440,-0.440,0.000,0.000,0.000
1641091073644180992,2022-01-02-02:37:53,10.1.1.5,159,-0.430,-0.430,-0.430,0.000,0.000,0.000
1641091073843094016,2022-01-02-02:37:53,10.1.1.5,158,-0.420,-0.420,-0.420,0.000,0.000,0.000
1641091074042594816,2022-01-02-02:37:54,10.1.1.5,156,-0.410,-0.410,-0.410,0.000,0.000,0.000
1641091074242216960,2022-01-02-02:37:54,10.1.1.5,155,-0.400,-0.400,-0.400,0.000,0.000,0.000
1641091074441804800,2022-01-02-02:37:54,10.1.1.5,154,-0.390,-0.390,-0.390,0.000,0.000,0.000
1641091074663129088,2022-01-02-02:37:54,10.1.1.5,173,-0.380,-0.380,-0.380,0.000,0.000,0.000
1641091074862231040,2022-01-02-02:37:54,10.1.1.5,171,-0.370,-0.370,-0.370,0.000,0.000,0.000
1641091075060920832,2022-01-02-02:37:55,10.1.1.5,169,-0.360,-0.360,-0.360,0.000,0.000,0.000
1641091075261383936,2022-01-02-02:37:55,10.1.1.5,168,-0.350,-0.350,-0.350,0.000,0.000,0.000
1641091075463053824,2022-01-02-02:37:55,10.1.1.5,169,-0.340,-0.340,-0.340,0.000,0.000,0.000
1641091075661456128,2022-01-02-02:37:55,10.1.1.5,167,-0.330,-0.330,-0.330,0.000,0.000,0.000
1641091075860259072,2022-01-02-02:37:55,10.1.1.5,165,-0.320,-0.320,-0.320,0.000,0.000,0.000
1641091076049690880,2022-01-02-02:37:56,10.1.1.5,154,-0.310,-0.310,-0.310,0.000,0.000,0.000
1641091076259708928,2022-01-02-02:37:56,10.1.1.5,163,-0.300,-0.300,-0.300,0.000,0.000,0.000
1641091076460231936,2022-01-02-02:37:56,10.1.1.5,162,-0.290,-0.290,-0.290,0.000,0.000,0.000
1641091076660037120,2022-01-02-02:37:56,10.1.1.5,161,-0.280,-0.280,-0.280,0.000,0.000,0.000
1641091076868294912,2022-01-02-02:37:56,10.1.1.5,167,-0.270,-0.270,-0.270,0.000,0.000,0.000
1641091077058087168,2022-01-02-02:37:57,10.1.1.5,155,-0.260,-0.260,-0.260,0.000,0.000,0.000
1641091077259578112,2022-01-02-02:37:57,10.1.1.5,155,-0.250,-0.250,-0.250,0.000,0.000,0.000
1641091077457527040,2022-01-02-02:37:57,10.1.1.5,153,-0.240,-0.240,-0.240,0.000,0.000,0.000
1641091077657281024,2022-01-02-02:37:57,10.1.1.5,152,-0.230,-0.230,-0.230,0.000,0.000,0.000
1641091077859491072,2022-01-02-02:37:57,10.1.1.5,153,-0.220,-0.220,-0.220,0.000,0.000,0.000
1641091078058379008,2022-01-02-02:37:58,10.1.1.5,151,-0.210,-0.210,-0.210,0.000,0.000,0.000
1641091078256083968,2022-01-02-02:37:58,10.1.1.5,148,-0.200,-0.200,-0.200,0.000,0.000,0.000
1641091078455749120,2022-01-02-02:37:58,10.1.1.5,147,-0.190,-0.190,-0.190,0.000,0.000,0.000
1641091078655525888,2022-01-02-02:37:58,10.1.1.5,147,-0.180,-0.180,-0.180,0.000,0.000,0.000
1641091078875822080,2022-01-02-02:37:58,10.1.1.5,166,-0.170,-0.170,-0.170,0.000,0.000,0.000
1641091079076078848,2022-01-02-02:37:59,10.1.1.5,166,-0.160,-0.160,-0.160,0.000,0.000,0.000
1641091079274665984,2022-01-02-02:37:59,10.1.1.5,163,-0.150,-0.150,-0.150,0.000,0.000,0.000
1641091079476990976,2022-01-02-02:37:59,10.1.1.5,165,-0.140,-0.140,-0.140,0.000,0.000,0.000
1641091079677110016,2022-01-02-02:37:59,10.1.1.5,165,-0.130,-0.130,-0.130,0.000,0.000,0.000
1641091079874562048,2022-01-02-02:37:59,10.1.1.5,159,-0.120,-0.120,-0.120,0.000,0.000,0.000
1641091080073771008,2022-01-02-02:38:00,10.1.1.5,158,-0.110,-0.110,-0.110,0.000,0.000,0.000
1641091080274213120,2022-01-02-02:38:00,10.1.1.5,158,-0.100,-0.100,-0.100,0.000,0.000,0.000
1641091080486226944,2022-01-02-02:38:00,10.1.1.5,169,-0.090,-0.090,-0.090,0.000,0.000,0.000
1641091080678291200,2022-01-02-02:38:00,10.1.1.5,160,-0.080,-0.080,-0.080,0.000,0.000,0.000
1641091080879362048,2022-01-02-02:38:00,10.1.1.5,160,-0.070,-0.070,-0.070,0.000,0.000,0.000
1641091081079767040,2022-01-02-02:38:01,10.1.1.5,160,-0.060,-0.060,-0.060,0.000,0.000,0.000
1641091081281582080,2022-01-02-02:38:01,10.1.1.5,161,-0.050,-0.050,-0.050,0.000,0.000,0.000
1641091081481230080,2022-01-02-02:38:01,10.1.1.5,160,-0.040,-0.040,-0.040,0.000,0.000,0.000
1641091081682231808,2022-01-02-02:38:01,10.1.1.5,160,-0.030,-0.030,-0.030,0.000,0.000,0.000
1641091081882966016,2022-01-02-02:38:01,10.1.1.5,159,-0.020,-0.020,-0.020,0.000,0.000,0.000
1641091082093060096,2022-01-02-02:38:02,10.1.1.5,168,-0.010,-0.010,-0.010,0.000,0.000,0.000
1641091082284214016,2022-01-02-02:38:02,10.1.1.5,158,0.000,0.000,0.000,0.000,0.000,0.000
1641091082485359872,2022-01-02-02:38:02,10.1.1.5,158,-0.010,-0.010,-0.010,0.000,0.000,0.000
1641091082686168832,2022-01-02-02:38:02,10.1.1.5,158,-0.020,-0.020,-0.020,0.000,0.000,0.000
1641091082886658048,2022-01-02-02:38:02,10.1.1.5,158,-0.030,-0.030,-0.030,0.000,0.000,0.000
1641091083086937856,2022-01-02-02:38:03,10.1.1.5,158,-0.040,-0.040,-0.040,0.000,0.000,0.000
1641091083308566016,2022-01-02-02:38:03,10.1.1.5,179,-0.050,-0.050,-0.050,0.000,0.000,0.000
1641091083508131072,2022-01-02-02:38:03,10.1.1.5,177,-0.060,-0.060,-0.060,0.000,0.000,0.000
1641091083709378048,2022-01-02-02:38:03,10.1.1.5,177,-0.070,-0.070,-0.070,0.000,0.000,0.000
1641091083910315008,2022-01-02-02:38:03,10.1.1.5,177,-0.080,-0.080,-0.080,0.000,0.000,0.000
1641091084110235904,2022-01-02-02:38:04,10.1.1.5,176,-0.090,-0.090,-0.090,0.000,0.000,0.000
1641091084310700800,2022-01-02-02:38:04,10.1.1.5,175,-0.100,-0.100,-0.100,0.000,0.000,0.000
1641091084512375040,2022-01-02-02:38:04,10.1.1.5,175,-0.110,-0.110,-0.110,0.000,0.000,0.000
1641091084713270016,2022-01-02-02:38:04,10.1.1.5,175,-0.120,-0.120,-0.120,0.000,0.000,0.000
1641091084912013056,2022-01-02-02:38:04,10.1.1.5,173,-0.130,-0.130,-0.130,0.000,0.000,0.000
1641091085112919040,2022-01-02-02:38:05,10.1.1.5,173,-0.140,-0.140,-0.140,0.000,0.000,0.000
1641091085313867008,2022-01-02-02:38:05,10.1.1.5,173,-0.150,-0.150,-0.150,0.000,0.000,0.000
1641091085513828096,2022-01-02-02:38:05,10.1.1.5,172,-0.160,-0.160,-0.160,0.000,0.000,0.000
1641091085723424000,2022-01-02-02:38:05,10.1.1.5,180,-0.170,-0.170,-0.170,0.000,0.000,0.000
1641091085914704128,2022-01-02-02:38:05,10.1.1.5,170,-0.180,-0.180,-0.180,0.000,0.000,0.000
1641091086114885120,2022-01-02-02:38:06,10.1.1.5,168,-0.190,-0.190,-0.190,0.000,0.000,0.000
1641091086324558080,2022-01-02-02:38:06,10.1.1.5,177,-0.200,-0.200,-0.200,0.000,0.000,0.000
1641091086515069952,2022-01-02-02:38:06,10.1.1.5,167,-0.210,-0.210,-0.210,0.000,0.000,0.000
1641091086715889920,2022-01-02-02:38:06,10.1.1.5,167,-0.220,-0.220,-0.220,0.000,0.000,0.000
1641091086935755008,2022-01-02-02:38:06,10.1.1.5,186,-0.230,-0.230,-0.230,0.000,0.000,0.000
1641091087135888128,2022-01-02-02:38:07,10.1.1.5,185,-0.240,-0.240,-0.240,0.000,0.000,0.000
1641091087339211008,2022-01-02-02:38:07,10.1.1.5,185,-0.250,-0.250,-0.250,0.000,0.000,0.000
1641091087538832896,2022-01-02-02:38:07,10.1.1.5,186,-0.260,-0.260,-0.260,0.000,0.000,0.000
1641091087737668864,2022-01-02-02:38:07,10.1.1.5,183,-0.270,-0.270,-0.270,0.000,0.000,0.000
1641091087936409856,2022-01-02-02:38:07,10.1.1.5,179,-0.280,-0.280,-0.280,0.000,0.000,0.000
1641091088136697088,2022-01-02-02:38:08,10.1.1.5,178,-0.290,-0.290,-0.290,0.000,0.000,0.000
1641091088337088000,2022-01-02-02:38:08,10.1.1.5,178,-0.300,-0.300,-0.300,0.000,0.000,0.000
1641091088546914048,2022-01-02-02:38:08,10.1.1.5,187,-0.310,-0.310,-0.310,0.000,0.000,0.000
1641091088737296128,2022-01-02-02:38:08,10.1.1.5,177,-0.320,-0.320,-0.320,0.000,0.000,0.000
1641091088938169856,2022-01-02-02:38:08,10.1.1.5,177,-0.330,-0.330,-0.330,0.000,0.000,0.000
1641091089137526016,2022-01-02-02:38:09,10.1.1.5,174,-0.340,-0.340,-0.340,0.000,0.000,0.000
1641091089337939968,2022-01-02-02:38:09,10.1.1.5,173,-0.350,-0.350,-0.350,0.000,0.000,0.000
1641091089537849856,2022-01-02-02:38:09,10.1.1.5,172,-0.360,-0.360,-0.360,0.000,0.000,0.000
1641091089738028032,2022-01-02-02:38:09,10.1.1.5,172,-0.370,-0.370,-0.370,0.000,0.000,0.000
1641091089937952000,2022-01-02-02:38:09,10.1.1.5,170,-0.380,-0.380,-0.380,0.000,0.000,0.000
1641091090138174976,2022-01-02-02:38:10,10.1.1.5,169,-0.390,-0.390,-0.390,0.000,0.000,0.000
1641091090358551040,2022-01-02-02:38:10,10.1.1.5,189,-0.400,-0.400,-0.400,0.000,0.000,0.000
1641091090557499904,2022-01-02-02:38:10,10.1.1.5,187,-0.410,-0.410,-0.410,0.000,0.000,0.000
1641091090757460224,2022-01-02-02:38:10,10.1.1.5,186,-0.420,-0.420,-0.420,0.000,0.000,0.000
1641091090957672192,2022-01-02-02:38:10,10.1.1.5,186,-0.430,-0.430,-0.430,0.000,0.000,0.000
1641091091157542912,2022-01-02-02:38:11,10.1.1.5,185,-0.440,-0.440,-0.440,0.000,0.000,0.000
1641091091358338048,2022-01-02-02:38:11,10.1.1.5,185,-0.450,-0.450,-0.450,0.000,0.000,0.000
1641091091557413120,2022-01-02-02:38:11,10.1.1.5,183,-0.460,-0.460,-0.460,0.000,0.000,0.000
1641091091758795008,2022-01-02-02:38:11,10.1.1.5,183,-0.470,-0.470,-0.470,0.000,0.000,0.000
1641091091958374912,2022-01-02-02:38:11,10.1.1.5,182,-0.480,-0.480,-0.480,0.000,0.000,0.000
1641091092157826048,2022-01-02-02:38:12,10.1.1.5,181,-0.490,-0.490,-0.490,0.000,0.000,0.000
1641091092358951936,2022-01-02-02:38:12,10.1.1.5,181,-0.480,-0.480,-0.480,0.000,0.000,0.000
1641091092558373888,2022-01-02-02:38:12,10.1.1.5,178,-0.470,-0.470,-0.470,0.000,0.000,0.000
1641091092757090048,2022-01-02-02:38:12,10.1.1.5,174,-0.460,-0.460,-0.460,0.000,0.000,0.000
1641091092957549056,2022-01-02-02:38:12,10.1.1.5,174,-0.450,-0.450,-0.450,0.000,0.000,0.000
1641091093157895168,2022-01-02-02:38:13,10.1.1.5,174,-0.440,-0.440,-0.440,0.000,0.000,0.000
1641091093357944064,2022-01-02-02:38:13,10.1.1.5,173,-0.430,-0.430,-0.430,0.000,0.000,0.000
1641091093557152000,2022-01-02-02:38:13,10.1.1.5,171,-0.420,-0.420,-0.420,0.000,0.000,0.000
1641091093756779008,2022-01-02-02:38:13,10.1.1.5,171,-0.410,-0.410,-0.410,0.000,0.000,0.000
1641091093958780160,2022-01-02-02:38:13,10.1.1.5,172,-0.400,-0.400,-0.400,0.000,0.000,0.000
1641091094158752000,2022-01-02-02:38:14,10.1.1.5,171,-0.390,-0.390,-0.390,0.000,0.000,0.000
1641091094358402048,2022-01-02-02:38:14,10.1.1.5,170,-0.380,-0.380,-0.380,0.000,0.000,0.000
1641091094556723968,2022-01-02-02:38:14,10.1.1.5,167,-0.370,-0.370,-0.370,0.000,0.000,0.000
1641091094776777984,2022-01-02-02:38:14,10.1.1.5,186,-0.360,-0.360,-0.360,0.000,0.000,0.000
1641091094976141056,2022-01-02-02:38:14,10.1.1.5,184,-0.350,-0.350,-0.350,0.000,0.000,0.000
1641091095186503936,2022-01-02-02:38:15,10.1.1.5,194,-0.340,-0.340,-0.340,0.000,0.000,0.000
1641091095376184064,2022-01-02-02:38:15,10.1.1.5,184,-0.330,-0.330,-0.330,0.000,0.000,0.000
1641091095575697920,2022-01-02-02:38:15,10.1.1.5,182,-0.320,-0.320,-0.320,0.000,0.000,0.000
1641091095775759104,2022-01-02-02:38:15,10.1.1.5,182,-0.310,-0.310,-0.310,0.000,0.000,0.000
1641091095965871104,2022-01-02-02:38:15,10.1.1.5,171,-0.300,-0.300,-0.300,0.000,0.000,0.000
1641091096185604096,2022-01-02-02:38:16,10.1.1.5,190,-0.290,-0.290,-0.290,0.000,0.000,0.000
1641091096375014912,2022-01-02-02:38:16,10.1.1.5,178,-0.280,-0.280,-0.280,0.000,0.000,0.000
1641091096575803904,2022-01-02-02:38:16,10.1.1.5,178,-0.270,-0.270,-0.270,0.000,0.000,0.000
1641091096774894080,2022-01-02-02:38:16,10.1.1.5,177,-0.260,-0.260,-0.260,0.000,0.000,0.000
1641091096976037888,2022-01-02-02:38:16,10.1.1.5,177,-0.250,-0.250,-0.250,0.000,0.000,0.000
1641091097176889856,2022-01-02-02:38:17,10.1.1.5,177,-0.240,-0.240,-0.240,0.000,0.000,0.000
1641091097374733056,2022-01-02-02:38:17,10.1.1.5,174,-0.230,-0.230,-0.230,0.000,0.000,0.000
1641091097574428160,2022-01-02-02:38:17,10.1.1.5,173,-0.220,-0.220,-0.220,0.000,0.000,0.000
1641091097784663040,2022-01-02-02:38:17,10.1.1.5,182,-0.210,-0.210,-0.210,0.000,0.000,0.000
1641091097974659072,2022-01-02-02:38:17,10.1.1.5,172,-0.200,-0.200,-0.200,0.000,0.000,0.000
1641091098176434944,2022-01-02-02:38:18,10.1.1.5,170,-0.190,-0.190,-0.190,0.000,0.000,0.000
1641091098373997824,2022-01-02-02:38:18,10.1.1.5,169,-0.180,-0.180,-0.180,0.000,0.000,0.000
1641091098583586816,2022-01-02-02:38:18,10.1.1.5,177,-0.170,-0.170,-0.170,0.000,0.000,0.000
1641091098774339072,2022-01-02-02:38:18,10.1.1.5,166,-0.160,-0.160,-0.160,0.000,0.000,0.000
1641091098973409792,2022-01-02-02:38:18,10.1.1.5,166,-0.150,-0.150,-0.150,0.000,0.000,0.000
1641091099173444096,2022-01-02-02:38:19,10.1.1.5,165,-0.140,-0.140,-0.140,0.000,0.000,0.000
1641091099392754944,2022-01-02-02:38:19,10.1.1.5,183,-0.130,-0.130,-0.130,0.000,0.000,0.000
1641091099591725056,2022-01-02-02:38:19,10.1.1.5,181,-0.120,-0.120,-0.120,0.000,0.000,0.000
1641091099792424960,2022-01-02-02:38:19,10.1.1.5,181,-0.110,-0.110,-0.110,0.000,0.000,0.000
1641091099991863040,2022-01-02-02:38:19,10.1.1.5,180,-0.100,-0.100,-0.100,0.000,0.000,0.000
1641091100013985024,2022-01-02-02:38:20,10.1.1.5,-1,-0.100,-0.100,-0.100,0.000,0.000,0.000
1641091100391213824,2022-01-02-02:38:20,10.1.1.5,177,-0.080,-0.080,-0.080,0.000,0.000,0.000
1641091100590610944,2022-01-02-02:38:20,10.1.1.5,175,-0.070,-0.070,-0.070,0.000,0.000,0.000
1641091100791395840,2022-01-02-02:38:20,10.1.1.5,175,-0.060,-0.060,-0.060,0.000,0.000,0.000
1641091100989913856,2022-01-02-02:38:20,10.1.1.5,173,-0.050,-0.050,-0.050,0.000,0.000,0.000
1641091101190768128,2022-01-02-02:38:21,10.1.1.5,173,-0.040,-0.040,-0.040,0.000,0.000,0.000
1641091101389704960,2022-01-02-02:38:21,10.1.1.5,171,-0.030,-0.030,-0.030,0.000,0.000,0.000
1641091101590790144,2022-01-02-02:38:21,10.1.1.5,171,-0.020,-0.020,-0.020,0.000,0.000,0.000
1641091101790065152,2022-01-02-02:38:21,10.1.1.5,170,-0.010,-0.010,-0.010,0.000,0.000,0.000
1641091101990305024,2022-01-02-02:38:21,10.1.1.5,170,0.000,0.000,0.000,0.000,0.000,0.000
1641091102190116864,2022-01-02-02:38:22,10.1.1.5,168,-0.010,-0.010,-0.010,0.000,0.000,0.000
1641091102389121024,2022-01-02-02:38:22,10.1.1.5,166,-0.020,-0.020,-0.020,0.000,0.000,0.000
1641091102591033088,2022-01-02-02:38:22,10.1.1.5,167,-0.030,-0.030,-0.030,0.000,0.000,0.000
1641091102788403968,2022-01-02-02:38:22,10.1.1.5,164,-0.040,-0.040,-0.040,0.000,0.000,0.000
1641091102987799808,2022-01-02-02:38:22,10.1.1.5,163,-0.050,-0.050,-0.050,0.000,0.000,0.000
1641091103188185088,2022-01-02-02:38:23,10.1.1.5,163,-0.060,-0.060,-0.060,0.000,0.000,0.000
1641091103397890048,2022-01-02-02:38:23,10.1.1.5,171,-0.070,-0.070,-0.070,0.000,0.000,0.000
1641091103586662144,2022-01-02-02:38:23,10.1.1.5,159,-0.080,-0.080,-0.080,0.000,0.000,0.000
1641091103786734080,2022-01-02-02:38:23,10.1.1.5,158,-0.090,-0.090,-0.090,0.000,0.000,0.000
1641091103986408960,2022-01-02-02:38:23,10.1.1.5,158,-0.100,-0.100,-0.100,0.000,0.000,0.000
1641091104186212096,2022-01-02-02:38:24,10.1.1.5,157,-0.110,-0.110,-0.110,0.000,0.000,0.000
1641091104406048000,2022-01-02-02:38:24,10.1.1.5,175,-0.120,-0.120,-0.120,0.000,0.000,0.000
1641091104595393024,2022-01-02-02:38:24,10.1.1.5,163,-0.130,-0.130,-0.130,0.000,0.000,0.000
1641091104805315072,2022-01-02-02:38:24,10.1.1.5,173,-0.140,-0.140,-0.140,0.000,0.000,0.000
1641091105005069056,2022-01-02-02:38:25,10.1.1.5,168,-0.150,-0.150,-0.150,0.000,0.000,0.000
1641091105204600064,2022-01-02-02:38:25,10.1.1.5,167,-0.160,-0.160,-0.160,0.000,0.000,0.000
1641091105405283072,2022-01-02-02:38:25,10.1.1.5,166,-0.170,-0.170,-0.170,0.000,0.000,0.000
1641091105605063936,2022-01-02-02:38:25,10.1.1.5,165,-0.180,-0.180,-0.180,0.000,0.000,0.000
1641091105804176128,2022-01-02-02:38:25,10.1.1.5,164,-0.190,-0.190,-0.190,0.000,0.000,0.000
1641091106004368896,2022-01-02-02:38:26,10.1.1.5,163,-0.200,-0.200,-0.200,0.000,0.000,0.000
1641091106204119808,2022-01-02-02:38:26,10.1.1.5,162,-0.210,-0.210,-0.210,0.000,0.000,0.000
1641091106403420928,2022-01-02-02:38:26,10.1.1.5,160,-0.220,-0.220,-0.220,0.000,0.000,0.000
1641091106611689984,2022-01-02-02:38:26,10.1.1.5,168,-0.230,-0.230,-0.230,0.000,0.000,0.000
1641091106803971072,2022-01-02-02:38:26,10.1.1.5,159,-0.240,-0.240,-0.240,0.000,0.000,0.000
1641091107002676992,2022-01-02-02:38:27,10.1.1.5,154,-0.250,-0.250,-0.250,0.000,0.000,0.000
1641091107202121984,2022-01-02-02:38:27,10.1.1.5,153,-0.260,-0.260,-0.260,0.000,0.000,0.000
1641091107422082048,2022-01-02-02:38:27,10.1.1.5,172,-0.270,-0.270,-0.270,0.000,0.000,0.000
1641091107621524992,2022-01-02-02:38:27,10.1.1.5,170,-0.280,-0.280,-0.280,0.000,0.000,0.000
1641091107820835072,2022-01-02-02:38:27,10.1.1.5,169,-0.290,-0.290,-0.290,0.000,0.000,0.000
1641091108020494080,2022-01-02-02:38:28,10.1.1.5,167,-0.300,-0.300,-0.300,0.000,0.000,0.000
1641091108222366976,2022-01-02-02:38:28,10.1.1.5,166,-0.310,-0.310,-0.310,0.000,0.000,0.000
1641091108420397056,2022-01-02-02:38:28,10.1.1.5,161,-0.320,-0.320,-0.320,0.000,0.000,0.000
1641091108641104896,2022-01-02-02:38:28,10.1.1.5,168,-0.330,-0.330,-0.330,0.000,0.000,0.000
1641091108839183104,2022-01-02-02:38:28,10.1.1.5,165,-0.340,-0.340,-0.340,0.000,0.000,0.000
1641091109038425856,2022-01-02-02:38:29,10.1.1.5,164,-0.350,-0.350,-0.350,0.000,0.000,0.000
1641091109238370048,2022-01-02-02:38:29,10.1.1.5,163,-0.360,-0.360,-0.360,0.000,0.000,0.000
1641091109439241984,2022-01-02-02:38:29,10.1.1.5,163,-0.370,-0.370,-0.370,0.000,0.000,0.000
1641091109637924864,2022-01-02-02:38:29,10.1.1.5,160,-0.380,-0.380,-0.380,0.000,0.000,0.000
1641091109837536000,2022-01-02-02:38:29,10.1.1.5,159,-0.390,-0.390,-0.390,0.000,0.000,0.000
1641091110036626176,2022-01-02-02:38:30,10.1.1.5,156,-0.400,-0.400,-0.400,0.000,0.000,0.000
1641091110237071872,2022-01-02-02:38:30,10.1.1.5,156,-0.410,-0.410,-0.410,0.000,0.000,0.000
1641091110438155776,2022-01-02-02:38:30,10.1.1.5,157,-0.420,-0.420,-0.420,0.000,0.000,0.000
1641091110637801984,2022-01-02-02:38:30,10.1.1.5,156,-0.430,-0.430,-0.430,0.000,0.000,0.000
1641091110839271168,2022-01-02-02:38:30,10.1.1.5,157,-0.440,-0.440,-0.440,0.000,0.000,0.000
1641091111035820032,2022-01-02-02:38:31,10.1.1.5,153,-0.450,-0.450,-0.450,0.000,0.000,0.000
1641091111239296000,2022-01-02-02:38:31,10.1.1.5,155,-0.460,-0.460,-0.460,0.000,0.000,0.000
1641091111435094016,2022-01-02-02:38:31,10.1.1.5,148,-0.470,-0.470,-0.470,0.000,0.000,0.000
1641091111635700992,2022-01-02-02:38:31,10.1.1.5,147,-0.480,-0.480,-0.480,0.000,0.000,0.000
1641091111835567872,2022-01-02-02:38:31,10.1.1.5,147,-0.490,-0.490,-0.490,0.000,0.000,0.000
1641091112036612864,2022-01-02-02:38:32,10.1.1.5,147,-0.480,-0.480,-0.480,0.000,0.000,0.000
1641091112256683008,2022-01-02-02:38:32,10.1.1.5,167,-0.470,-0.470,-0.470,0.000,0.000,0.000
1641091112456857088,2022-01-02-02:38:32,10.1.1.5,166,-0.460,-0.460,-0.460,0.000,0.000,0.000
1641091112647953152,2022-01-02-02:38:32,10.1.1.5,156,-0.450,-0.450,-0.450,0.000,0.000,0.000
1641091112859322112,2022-01-02-02:38:32,10.1.1.5,166,-0.440,-0.440,-0.440,0.000,0.000,0.000
1641091113050256896,2022-01-02-02:38:33,10.1.1.5,155,-0.430,-0.430,-0.430,0.000,0.000,0.000
1641091113264568064,2022-01-02-02:38:33,10.1.1.5,166,-0.420,-0.420,-0.420,0.000,0.000,0.000
1641091113462551040,2022-01-02-02:38:33,10.1.1.5,164,-0.410,-0.410,-0.410,0.000,0.000,0.000
1641091113663484928,2022-01-02-02:38:33,10.1.1.5,164,-0.400,-0.400,-0.400,0.000,0.000,0.000
1641091113864378880,2022-01-02-02:38:33,10.1.1.5,164,-0.390,-0.390,-0.390,0.000,0.000,0.000
1641091114066448896,2022-01-02-02:38:34,10.1.1.5,165,-0.380,-0.380,-0.380,0.000,0.000,0.000
1641091114266014208,2022-01-02-02:38:34,10.1.1.5,163,-0.370,-0.370,-0.370,0.000,0.000,0.000
1641091114476378880,2022-01-02-02:38:34,10.1.1.5,169,-0.360,-0.360,-0.360,0.000,0.000,0.000
1641091114677644032,2022-01-02-02:38:34,10.1.1.5,170,-0.350,-0.350,-0.350,0.000,0.000,0.000
1641091114868001024,2022-01-02-02:38:34,10.1.1.5,159,-0.340,-0.340,-0.340,0.000,0.000,0.000
1641091115088712960,2022-01-02-02:38:35,10.1.1.5,179,-0.330,-0.330,-0.330,0.000,0.000,0.000
1641091115290457088,2022-01-02-02:38:35,10.1.1.5,179,-0.320,-0.320,-0.320,0.000,0.000,0.000
1641091115490490880,2022-01-02-02:38:35,10.1.1.5,178,-0.310,-0.310,-0.310,0.000,0.000,0.000
1641091115692637952,2022-01-02-02:38:35,10.1.1.5,179,-0.300,-0.300,-0.300,0.000,0.000,0.000
1641091115891995904,2022-01-02-02:38:35,10.1.1.5,176,-0.290,-0.290,-0.290,0.000,0.000,0.000
1641091116092274944,2022-01-02-02:38:36,10.1.1.5,175,-0.280,-0.280,-0.280,0.000,0.000,0.000
1641091116294720000,2022-01-02-02:38:36,10.1.1.5,177,-0.270,-0.270,-0.270,0.000,0.000,0.000
1641091116494624000,2022-01-02-02:38:36,10.1.1.5,176,-0.260,-0.260,-0.260,0.000,0.000,0.000
1641091116693986816,2022-01-02-02:38:36,10.1.1.5,174,-0.250,-0.250,-0.250,0.000,0.000,0.000
1641091116894525952,2022-01-02-02:38:36,10.1.1.5,174,-0.240,-0.240,-0.240,0.000,0.000,0.000
1641091117095145984,2022-01-02-02:38:37,10.1.1.5,174,-0.230,-0.230,-0.230,0.000,0.000,0.000
1641091117296468992,2022-01-02-02:38:37,10.1.1.5,174,-0.220,-0.220,-0.220,0.000,0.000,0.000
1641091117496283136,2022-01-02-02:38:37,10.1.1.5,174,-0.210,-0.210,-0.210,0.000,0.000,0.000
1641091117696240896,2022-01-02-02:38:37,10.1.1.5,174,-0.200,-0.200,-0.200,0.000,0.000,0.000
1641091117896792832,2022-01-02-02:38:37,10.1.1.5,174,-0.190,-0.190,-0.190,0.000,0.000,0.000
1641091118097071872,2022-01-02-02:38:38,10.1.1.5,173,-0.180,-0.180,-0.180,0.000,0.000,0.000
1641091118299249920,2022-01-02-02:38:38,10.1.1.5,175,-0.170,-0.170,-0.170,0.000,0.000,0.000
1641091118507149056,2022-01-02-02:38:38,10.1.1.5,182,-0.160,-0.160,-0.160,0.000,0.000,0.000
1641091118708477952,2022-01-02-02:38:38,10.1.1.5,183,-0.150,-0.150,-0.150,0.000,0.000,0.000
1641091118899226880,2022-01-02-02:38:38,10.1.1.5,173,-0.140,-0.140,-0.140,0.000,0.000,0.000
1641091119099598848,2022-01-02-02:38:39,10.1.1.5,171,-0.130,-0.130,-0.130,0.000,0.000,0.000
1641091119299097088,2022-01-02-02:38:39,10.1.1.5,170,-0.120,-0.120,-0.120,0.000,0.000,0.000
1641091119519598080,2022-01-02-02:38:39,10.1.1.5,190,-0.110,-0.110,-0.110,0.000,0.000,0.000
1641091119718720000,2022-01-02-02:38:39,10.1.1.5,189,-0.100,-0.100,-0.100,0.000,0.000,0.000
1641091119920152832,2022-01-02-02:38:39,10.1.1.5,189,-0.090,-0.090,-0.090,0.000,0.000,0.000
1641091120120564992,2022-01-02-02:38:40,10.1.1.5,189,-0.080,-0.080,-0.080,0.000,0.000,0.000
1641091120329922048,2022-01-02-02:38:40,10.1.1.5,198,-0.070,-0.070,-0.070,0.000,0.000,0.000
1641091120520775936,2022-01-02-02:38:40,10.1.1.5,187,-0.060,-0.060,-0.060,0.000,0.000,0.000
1641091120721195008,2022-01-02-02:38:40,10.1.1.5,186,-0.050,-0.050,-0.050,0.000,0.000,0.000
1641091120920576000,2022-01-02-02:38:40,10.1.1.5,184,-0.040,-0.040,-0.040,0.000,0.000,0.000
1641091121120398080,2022-01-02-02:38:41,10.1.1.5,183,-0.030,-0.030,-0.030,0.000,0.000,0.000
1641091121320653056,2022-01-02-02:38:41,10.1.1.5,183,-0.020,-0.020,-0.020,0.000,0.000,0.000
1641091121522034944,2022-01-02-02:38:41,10.1.1.5,181,-0.010,-0.010,-0.010,0.000,0.000,0.000
1641091121725126144,2022-01-02-02:38:41,10.1.1.5,182,0.000,0.000,0.000,0.000,0.000,0.000
1641091121921937920,2022-01-02-02:38:41,10.1.1.5,179,-0.010,-0.010,-0.010,0.000,0.000,0.000
1641091122121779968,2022-01-02-02:38:42,10.1.1.5,178,-0.020,-0.020,-0.020,0.000,0.000,0.000
1641091122334487040,2022-01-02-02:38:42,10.1.1.5,190,-0.030,-0.030,-0.030,0.000,0.000,0.000
1641091122521239040,2022-01-02-02:38:42,10.1.1.5,176,-0.040,-0.040,-0.040,0.000,0.000,0.000
1641091122721780992,2022-01-02-02:38:42,10.1.1.5,176,-0.050,-0.050,-0.050,0.000,0.000,0.000
1641091122921984000,2022-01-02-02:38:42,10.1.1.5,174,-0.060,-0.060,-0.060,0.000,0.000,0.000
1641091123121757952,2022-01-02-02:38:43,10.1.1.5,173,-0.070,-0.070,-0.070,0.000,0.000,0.000
1641091123341719040,2022-01-02-02:38:43,10.1.1.5,192,-0.080,-0.080,-0.080,0.000,0.000,0.000
1641091123542441984,2022-01-02-02:38:43,10.1.1.5,192,-0.090,-0.090,-0.090,0.000,0.000,0.000
1641091123743598848,2022-01-02-02:38:43,10.1.1.5,193,-0.100,-0.100,-0.100,0.000,0.000,0.000
1641091123941793792,2022-01-02-02:38:43,10.1.1.5,190,-0.110,-0.110,-0.110,0.000,0.000,0.000
1641091124142662144,2022-01-02-02:38:44,10.1.1.5,191,-0.120,-0.120,-0.120,0.000,0.000,0.000
1641091124341732096,2022-01-02-02:38:44,10.1.1.5,189,-0.130,-0.130,-0.130,0.000,0.000,0.000
1641091124541253120,2022-01-02-02:38:44,10.1.1.5,188,-0.140,-0.140,-0.140,0.000,0.000,0.000
1641091124744327168,2022-01-02-02:38:44,10.1.1.5,190,-0.150,-0.150,-0.150,0.000,0.000,0.000
1641091124941127168,2022-01-02-02:38:44,10.1.1.5,186,-0.160,-0.160,-0.160,0.000,0.000,0.000
1641091125150693888,2022-01-02-02:38:45,10.1.1.5,194,-0.170,-0.170,-0.170,0.000,0.000,0.000
1641091125341456896,2022-01-02-02:38:45,10.1.1.5,182,-0.180,-0.180,-0.180,0.000,0.000,0.000
1641091125542391040,2022-01-02-02:38:45,10.1.1.5,181,-0.190,-0.190,-0.190,0.000,0.000,0.000
1641091125741425920,2022-01-02-02:38:45,10.1.1.5,179,-0.200,-0.200,-0.200,0.000,0.000,0.000
1641091125950867968,2022-01-02-02:38:45,10.1.1.5,188,-0.210,-0.210,-0.210,0.000,0.000,0.000
1641091126141711104,2022-01-02-02:38:46,10.1.1.5,177,-0.220,-0.220,-0.220,0.000,0.000,0.000
1641091126341228032,2022-01-02-02:38:46,10.1.1.5,177,-0.230,-0.230,-0.230,0.000,0.000,0.000
1641091126540868096,2022-01-02-02:38:46,10.1.1.5,175,-0.240,-0.240,-0.240,0.000,0.000,0.000
1641091126740203008,2022-01-02-02:38:46,10.1.1.5,175,-0.250,-0.250,-0.250,0.000,0.000,0.000
1641091126940390144,2022-01-02-02:38:46,10.1.1.5,174,-0.260,-0.260,-0.260,0.000,0.000,0.000
1641091127141846016,2022-01-02-02:38:47,10.1.1.5,175,-0.270,-0.270,-0.270,0.000,0.000,0.000
1641091127340531968,2022-01-02-02:38:47,10.1.1.5,173,-0.280,-0.280,-0.280,0.000,0.000,0.000
1641091127540818944,2022-01-02-02:38:47,10.1.1.5,172,-0.290,-0.290,-0.290,0.000,0.000,0.000
1641091127759649024,2022-01-02-02:38:47,10.1.1.5,189,-0.300,-0.300,-0.300,0.000,0.000,0.000
1641091127949641984,2022-01-02-02:38:47,10.1.1.5,178,-0.310,-0.310,-0.310,0.000,0.000,0.000
1641091128159260928,2022-01-02-02:38:48,10.1.1.5,187,-0.320,-0.320,-0.320,0.000,0.000,0.000
1641091128369765888,2022-01-02-02:38:48,10.1.1.5,196,-0.330,-0.330,-0.330,0.000,0.000,0.000
1641091128559619072,2022-01-02-02:38:48,10.1.1.5,184,-0.340,-0.340,-0.340,0.000,0.000,0.000
1641091128759258880,2022-01-02-02:38:48,10.1.1.5,183,-0.350,-0.350,-0.350,0.000,0.000,0.000
1641091128961879040,2022-01-02-02:38:48,10.1.1.5,185,-0.360,-0.360,-0.360,0.000,0.000,0.000
1641091129164707840,2022-01-02-02:38:49,10.1.1.5,184,-0.370,-0.370,-0.370,0.000,0.000,0.000
1641091129358526976,2022-01-02-02:38:49,10.1.1.5,177,-0.380,-0.380,-0.380,0.000,0.000,0.000
1641091129558883840,2022-01-02-02:38:49,10.1.1.5,175,-0.390,-0.390,-0.390,0.000,0.000,0.000
1641091129759035136,2022-01-02-02:38:49,10.1.1.5,174,-0.400,-0.400,-0.400,0.000,0.000,0.000
1641091129958672896,2022-01-02-02:38:49,10.1.1.5,174,-0.410,-0.410,-0.410,0.000,0.000,0.000
1641091130157830912,2022-01-02-02:38:50,10.1.1.5,173,-0.420,-0.420,-0.420,0.000,0.000,0.000
1641091130359571968,2022-01-02-02:38:50,10.1.1.5,173,-0.430,-0.430,-0.430,0.000,0.000,0.000
1641091130558558976,2022-01-02-02:38:50,10.1.1.5,170,-0.440,-0.440,-0.440,0.000,0.000,0.000
1641091130757504000,2022-01-02-02:38:50,10.1.1.5,169,-0.450,-0.450,-0.450,0.000,0.000,0.000
1641091130956525056,2022-01-02-02:38:50,10.1.1.5,168,-0.460,-0.460,-0.460,0.000,0.000,0.000
1641091131177963008,2022-01-02-02:38:51,10.1.1.5,188,-0.470,-0.470,-0.470,0.000,0.000,0.000
1641091131377043968,2022-01-02-02:38:51,10.1.1.5,187,-0.480,-0.480,-0.480,0.000,0.000,0.000
1641091131575928832,2022-01-02-02:38:51,10.1.1.5,185,-0.490,-0.490,-0.490,0.000,0.000,0.000
1641091131775513856,2022-01-02-02:38:51,10.1.1.5,183,-0.480,-0.480,-0.480,0.000,0.000,0.000
1641091131977977088,2022-01-02-02:38:51,10.1.1.5,185,-0.470,-0.470,-0.470,0.000,0.000,0.000
1641091132175158016,2022-01-02-02:38:52,10.1.1.5,182,-0.460,-0.460,-0.460,0.000,0.000,0.000
1641091132375494912,2022-01-02-02:38:52,10.1.1.5,181,-0.450,-0.450,-0.450,0.000,0.000,0.000
1641091132575820032,2022-01-02-02:38:52,10.1.1.5,181,-0.440,-0.440,-0.440,0.000,0.000,0.000
1641091132774949120,2022-01-02-02:38:52,10.1.1.5,179,-0.430,-0.430,-0.430,0.000,0.000,0.000
1641091132974666240,2022-01-02-02:38:52,10.1.1.5,178,-0.420,-0.420,-0.420,0.000,0.000,0.000
1641091133174153984,2022-01-02-02:38:53,10.1.1.5,177,-0.410,-0.410,-0.410,0.000,0.000,0.000
1641091133374727936,2022-01-02-02:38:53,10.1.1.5,176,-0.400,-0.400,-0.400,0.000,0.000,0.000
1641091133573460224,2022-01-02-02:38:53,10.1.1.5,175,-0.390,-0.390,-0.390,0.000,0.000,0.000
1641091133772995840,2022-01-02-02:38:53,10.1.1.5,173,-0.380,-0.380,-0.380,0.000,0.000,0.000
1641091133973579008,2022-01-02-02:38:53,10.1.1.5,173,-0.370,-0.370,-0.370,0.000,0.000,0.000
1641091134172668928,2022-01-02-02:38:54,10.1.1.5,172,-0.360,-0.360,-0.360,0.000,0.000,0.000
1641091134373660160,2022-01-02-02:38:54,10.1.1.5,171,-0.350,-0.350,-0.350,0.000,0.000,0.000
1641091134572769024,2022-01-02-02:38:54,10.1.1.5,170,-0.340,-0.340,-0.340,0.000,0.000,0.000
1641091134776303104,2022-01-02-02:38:54,10.1.1.5,173,-0.330,-0.330,-0.330,0.000,0.000,0.000
1641091134971966976,2022-01-02-02:38:54,10.1.1.5,167,-0.320,-0.320,-0.320,0.000,0.000,0.000
1641091135171638016,2022-01-02-02:38:55,10.1.1.5,166,-0.310,-0.310,-0.310,0.000,0.000,0.000
1641091135370959104,2022-01-02-02:38:55,10.1.1.5,165,-0.300,-0.300,-0.300,0.000,0.000,0.000
1641091135570584064,2022-01-02-02:38:55,10.1.1.5,164,-0.290,-0.290,-0.290,0.000,0.000,0.000
1641091135770493952,2022-01-02-02:38:55,10.1.1.5,163,-0.280,-0.280,-0.280,0.000,0.000,0.000
1641091135970583808,2022-01-02-02:38:55,10.1.1.5,163,-0.270,-0.270,-0.270,0.000,0.000,0.000
1641091136179971840,2022-01-02-02:38:56,10.1.1.5,171,-0.260,-0.260,-0.260,0.000,0.000,0.000
1641091136389975040,2022-01-02-02:38:56,10.1.1.5,179,-0.250,-0.250,-0.250,0.000,0.000,0.000
1641091136589432832,2022-01-02-02:38:56,10.1.1.5,177,-0.240,-0.240,-0.240,0.000,0.000,0.000
1641091136789716992,2022-01-02-02:38:56,10.1.1.5,177,-0.230,-0.230,-0.230,0.000,0.000,0.000
1641091136978935040,2022-01-02-02:38:56,10.1.1.5,166,-0.220,-0.220,-0.220,0.000,0.000,0.000
1641091137188328960,2022-01-02-02:38:57,10.1.1.5,174,-0.210,-0.210,-0.210,0.000,0.000,0.000
1641091137388175104,2022-01-02-02:38:57,10.1.1.5,173,-0.200,-0.200,-0.200,0.000,0.000,0.000
1641091137587742976,2022-01-02-02:38:57,10.1.1.5,172,-0.190,-0.190,-0.190,0.000,0.000,0.000
1641091137788027136,2022-01-02-02:38:57,10.1.1.5,171,-0.180,-0.180,-0.180,0.000,0.000,0.000
1641091137987728128,2022-01-02-02:38:57,10.1.1.5,169,-0.170,-0.170,-0.170,0.000,0.000,0.000
1641091138187520000,2022-01-02-02:38:58,10.1.1.5,168,-0.160,-0.160,-0.160,0.000,0.000,0.000
1641091138387592960,2022-01-02-02:38:58,10.1.1.5,167,-0.150,-0.150,-0.150,0.000,0.000,0.000
1641091138587143936,2022-01-02-02:38:58,10.1.1.5,166,-0.140,-0.140,-0.140,0.000,0.000,0.000
1641091138788656896,2022-01-02-02:38:58,10.1.1.5,167,-0.130,-0.130,-0.130,0.000,0.000,0.000
1641091138986974976,2022-01-02-02:38:58,10.1.1.5,165,-0.120,-0.120,-0.120,0.000,0.000,0.000
1641091139185667072,2022-01-02-02:38:59,10.1.1.5,159,-0.110,-0.110,-0.110,0.000,0.000,0.000
1641091139385759232,2022-01-02-02:38:59,10.1.1.5,158,-0.100,-0.100,-0.100,0.000,0.000,0.000
1641091139587564032,2022-01-02-02:38:59,10.1.1.5,160,-0.090,-0.090,-0.090,0.000,0.000,0.000
1641091139786840832,2022-01-02-02:38:59,10.1.1.5,158,-0.080,-0.080,-0.080,0.000,0.000,0.000
1641091139985816064,2022-01-02-02:38:59,10.1.1.5,157,-0.070,-0.070,-0.070,0.000,0.000,0.000
1641091140206654976,2022-01-02-02:39:00,10.1.1.5,177,-0.060,-0.060,-0.060,0.000,0.000,0.000
1641091140404210176,2022-01-02-02:39:00,10.1.1.5,174,-0.050,-0.050,-0.050,0.000,0.000,0.000
1641091140604173824,2022-01-02-02:39:00,10.1.1.5,173,-0.040,-0.040,-0.040,0.000,0.000,0.000
1641091140806284032,2022-01-02-02:39:00,10.1.1.5,175,-0.030,-0.030,-0.030,0.000,0.000,0.000
1641091141003126016,2022-01-02-02:39:01,10.1.1.5,171,-0.020,-0.020,-0.020,0.000,0.000,0.000
1641091141192764160,2022-01-02-02:39:01,10.1.1.5,160,-0.010,-0.010,-0.010,0.000,0.000,0.000
1641091141412250880,2022-01-02-02:39:01,10.1.1.5,179,0.000,0.000,0.000,0.000,0.000,0.000
1641091141601743872,2022-01-02-02:39:01,10.1.1.5,164,-0.010,-0.010,-0.010,0.000,0.000,0.000
1641091141802606080,2022-01-02-02:39:01,10.1.1.5,164,-0.020,-0.020,-0.020,0.000,0.000,0.000
1641091142001519872,2022-01-02-02:39:02,10.1.1.5,163,-0.030,-0.030,-0.030,0.000,0.000,0.000
1641091142202663936,2022-01-02-02:39:02,10.1.1.5,163,-0.040,-0.040,-0.040,0.000,0.000,0.000
1641091142401891072,2022-01-02-02:39:02,10.1.1.5,161,-0.050,-0.050,-0.050,0.000,0.000,0.000
1641091142601075968,2022-01-02-02:39:02,10.1.1.5,160,-0.060,-0.060,-0.060,0.000,0.000,0.000
1641091142800924160,2022-01-02-02:39:02,10.1.1.5,159,-0.070,-0.070,-0.070,0.000,0.000,0.000
1641091143000935168,2022-01-02-02:39:03,10.1.1.5,158,-0.080,-0.080,-0.080,0.000,0.000,0.000
1641091143200429056,2022-01-02-02:39:03,10.1.1.5,157,-0.090,-0.090,-0.090,0.000,0.000,0.000
1641091143399610112,2022-01-02-02:39:03,10.1.1.5,155,-0.100,-0.100,-0.100,0.000,0.000,0.000
1641091143600486912,2022-01-02-02:39:03,10.1.1.5,156,-0.110,-0.110,-0.110,0.000,0.000,0.000
1641091143799297024,2022-01-02-02:39:03,10.1.1.5,154,-0.120,-0.120,-0.120,0.000,0.000,0.000
1641091144000214016,2022-01-02-02:39:04,10.1.1.5,154,-0.130,-0.130,-0.130,0.000,0.000,0.000
1641091144200288000,2022-01-02-02:39:04,10.1.1.5,154,-0.140,-0.140,-0.140,0.000,0.000,0.000
1641091144399523072,2022-01-02-02:39:04,10.1.1.5,150,-0.150,-0.150,-0.150,0.000,0.000,0.000
1641091144617285120,2022-01-02-02:39:04,10.1.1.5,168,-0.160,-0.160,-0.160,0.000,0.000,0.000
1641091144816905984,2022-01-02-02:39:04,10.1.1.5,167,-0.170,-0.170,-0.170,0.000,0.000,0.000
1641091145017019904,2022-01-02-02:39:05,10.1.1.5,166,-0.180,-0.180,-0.180,0.000,0.000,0.000
1641091145228065024,2022-01-02-02:39:05,10.1.1.5,177,-0.190,-0.190,-0.190,0.000,0.000,0.000
1641091145418718976,2022-01-02-02:39:05,10.1.1.5,167,-0.200,-0.200,-0.200,0.000,0.000,0.000
1641091145620271872,2022-01-02-02:39:05,10.1.1.5,168,-0.210,-0.210,-0.210,0.000,0.000,0.000
1641091145820636928,2022-01-02-02:39:05,10.1.1.5,168,-0.220,-0.220,-0.220,0.000,0.000,0.000
1641091146023656960,2022-01-02-02:39:06,10.1.1.5,170,-0.230,-0.230,-0.230,0.000,0.000,0.000
1641091146225203968,2022-01-02-02:39:06,10.1.1.5,171,-0.240,-0.240,-0.240,0.000,0.000,0.000
1641091146423883008,2022-01-02-02:39:06,10.1.1.5,168,-0.250,-0.250,-0.250,0.000,0.000,0.000
1641091146625704960,2022-01-02-02:39:06,10.1.1.5,169,-0.260,-0.260,-0.260,0.000,0.000,0.000
1641091146815278080,2022-01-02-02:39:06,10.1.1.5,158,-0.270,-0.270,-0.270,0.000,0.000,0.000
1641091147025632000,2022-01-02-02:39:07,10.1.1.5,167,-0.280,-0.280,-0.280,0.000,0.000,0.000
1641091147236464128,2022-01-02-02:39:07,10.1.1.5,178,-0.290,-0.290,-0.290,0.000,0.000,0.000
1641091147427036928,2022-01-02-02:39:07,10.1.1.5,168,-0.300,-0.300,-0.300,0.000,0.000,0.000
1641091147627717120,2022-01-02-02:39:07,10.1.1.5,168,-0.310,-0.310,-0.310,0.000,0.000,0.000
1641091147831298048,2022-01-02-02:39:07,10.1.1.5,171,-0.320,-0.320,-0.320,0.000,0.000,0.000
1641091148030720000,2022-01-02-02:39:08,10.1.1.5,169,-0.330,-0.330,-0.330,0.000,0.000,0.000
1641091148230034176,2022-01-02-02:39:08,10.1.1.5,167,-0.340,-0.340,-0.340,0.000,0.000,0.000
1641091148430115840,2022-01-02-02:39:08,10.1.1.5,167,-0.350,-0.350,-0.350,0.000,0.000,0.000
1641091148640433152,2022-01-02-02:39:08,10.1.1.5,175,-0.360,-0.360,-0.360,0.000,0.000,0.000
1641091148832772864,2022-01-02-02:39:08,10.1.1.5,167,-0.370,-0.370,-0.370,0.000,0.000,0.000
1641091149031842048,2022-01-02-02:39:09,10.1.1.5,165,-0.380,-0.380,-0.380,0.000,0.000,0.000
1641091149231995136,2022-01-02-02:39:09,10.1.1.5,164,-0.390,-0.390,-0.390,0.000,0.000,0.000
1641091149432466944,2022-01-02-02:39:09,10.1.1.5,164,-0.400,-0.400,-0.400,0.000,0.000,0.000
1641091149633719040,2022-01-02-02:39:09,10.1.1.5,165,-0.410,-0.410,-0.410,0.000,0.000,0.000
1641091149853794048,2022-01-02-02:39:09,10.1.1.5,184,-0.420,-0.420,-0.420,0.000,0.000,0.000
1641091150054172160,2022-01-02-02:39:10,10.1.1.5,184,-0.430,-0.430,-0.430,0.000,0.000,0.000
1641091150264422912,2022-01-02-02:39:10,10.1.1.5,194,-0.440,-0.440,-0.440,0.000,0.000,0.000
1641091150454608896,2022-01-02-02:39:10,10.1.1.5,183,-0.450,-0.450,-0.450,0.000,0.000,0.000
1641091150654956032,2022-01-02-02:39:10,10.1.1.5,183,-0.460,-0.460,-0.460,0.000,0.000,0.000
1641091150856091904,2022-01-02-02:39:10,10.1.1.5,183,-0.470,-0.470,-0.470,0.000,0.000,0.000
1641091151056324864,2022-01-02-02:39:11,10.1.1.5,183,-0.480,-0.480,-0.480,0.000,0.000,0.000
1641091151256505856,2022-01-02-02:39:11,10.1.1.5,182,-0.490,-0.490,-0.490,0.000,0.000,0.000
1641091151456124160,2022-01-02-02:39:11,10.1.1.5,180,-0.480,-0.480,-0.480,0.000,0.000,0.000
1641091151645946880,2022-01-02-02:39:11,10.1.1.5,168,-0.470,-0.470,-0.470,0.000,0.000,0.000
1641091151866606848,2022-01-02-02:39:11,10.1.1.5,188,-0.460,-0.460,-0.460,0.000,0.000,0.000
1641091152056872960,2022-01-02-02:39:12,10.1.1.5,178,-0.450,-0.450,-0.450,0.000,0.000,0.000
1641091152257010944,2022-01-02-02:39:12,10.1.1.5,177,-0.440,-0.440,-0.440,0.000,0.000,0.000
1641091152458170880,2022-01-02-02:39:12,10.1.1.5,177,-0.430,-0.430,-0.430,0.000,0.000,0.000
1641091152667200000,2022-01-02-02:39:12,10.1.1.5,186,-0.420,-0.420,-0.420,0.000,0.000,0.000
1641091152859278848,2022-01-02-02:39:12,10.1.1.5,177,-0.410,-0.410,-0.410,0.000,0.000,0.000
1641091153058353920,2022-01-02-02:39:13,10.1.1.5,175,-0.400,-0.400,-0.400,0.000,0.000,0.000
1641091153257988864,2022-01-02-02:39:13,10.1.1.5,174,-0.390,-0.390,-0.390,0.000,0.000,0.000
1641091153459712000,2022-01-02-02:39:13,10.1.1.5,174,-0.380,-0.380,-0.380,0.000,0.000,0.000
1641091153659262976,2022-01-02-02:39:13,10.1.1.5,172,-0.370,-0.370,-0.370,0.000,0.000,0.000
1641091153859394048,2022-01-02-02:39:13,10.1.1.5,171,-0.360,-0.360,-0.360,0.000,0.000,0.000
1641091154059750144,2022-01-02-02:39:14,10.1.1.5,171,-0.350,-0.350,-0.350,0.000,0.000,0.000
1641091154278784000,2022-01-02-02:39:14,10.1.1.5,188,-0.340,-0.340,-0.340,0.000,0.000,0.000
1641091154478905856,2022-01-02-02:39:14,10.1.1.5,187,-0.330,-0.330,-0.330,0.000,0.000,0.000
1641091154679197952,2022-01-02-02:39:14,10.1.1.5,187,-0.320,-0.320,-0.320,0.000,0.000,0.000
1641091154889853952,2022-01-02-02:39:14,10.1.1.5,197,-0.310,-0.310,-0.310,0.000,0.000,0.000
1641091155079327232,2022-01-02-02:39:15,10.1.1.5,185,-0.300,-0.300,-0.300,0.000,0.000,0.000
1641091155279005952,2022-01-02-02:39:15,10.1.1.5,184,-0.290,-0.290,-0.290,0.000,0.000,0.000
1641091155479727104,2022-01-02-02:39:15,10.1.1.5,184,-0.280,-0.280,-0.280,0.000,0.000,0.000
1641091155679469056,2022-01-02-02:39:15,10.1.1.5,183,-0.270,-0.270,-0.270,0.000,0.000,0.000
1641091155878732800,2022-01-02-02:39:15,10.1.1.5,181,-0.260,-0.260,-0.260,0.000,0.000,0.000
1641091156083286016,2022-01-02-02:39:16,10.1.1.5,184,-0.250,-0.250,-0.250,0.000,0.000,0.000
1641091156279040000,2022-01-02-02:39:16,10.1.1.5,179,-0.240,-0.240,-0.240,0.000,0.000,0.000
1641091156479096832,2022-01-02-02:39:16,10.1.1.5,179,-0.230,-0.230,-0.230,0.000,0.000,0.000
1641091156680102144,2022-01-02-02:39:16,10.1.1.5,179,-0.220,-0.220,-0.220,0.000,0.000,0.000
1641091156879398144,2022-01-02-02:39:16,10.1.1.5,177,-0.210,-0.210,-0.210,0.000,0.000,0.000
1641091157078896128,2022-01-02-02:39:17,10.1.1.5,176,-0.200,-0.200,-0.200,0.000,0.000,0.000
1641091157279632128,2022-01-02-02:39:17,10.1.1.5,176,-0.190,-0.190,-0.190,0.000,0.000,0.000
1641091157488236032,2022-01-02-02:39:17,10.1.1.5,184,-0.180,-0.180,-0.180,0.000,0.000,0.000
1641091157679091968,2022-01-02-02:39:17,10.1.1.5,174,-0.170,-0.170,-0.170,0.000,0.000,0.000
1641091157882838016,2022-01-02-02:39:17,10.1.1.5,177,-0.160,-0.160,-0.160,0.000,0.000,0.000
1641091158087578112,2022-01-02-02:39:18,10.1.1.5,181,-0.150,-0.150,-0.150,0.000,0.000,0.000
1641091158278649088,2022-01-02-02:39:18,10.1.1.5,170,-0.140,-0.140,-0.140,0.000,0.000,0.000
1641091158478897152,2022-01-02-02:39:18,10.1.1.5,170,-0.130,-0.130,-0.130,0.000,0.000,0.000
1641091158699599872,2022-01-02-02:39:18,10.1.1.5,190,-0.120,-0.120,-0.120,0.000,0.000,0.000
1641091158897522944,2022-01-02-02:39:18,10.1.1.5,187,-0.110,-0.110,-0.110,0.000,0.000,0.000
1641091159097480960,2022-01-02-02:39:19,10.1.1.5,186,-0.100,-0.100,-0.100,0.000,0.000,0.000
1641091159299262976,2022-01-02-02:39:19,10.1.1.5,186,-0.090,-0.090,-0.090,0.000,0.000,0.000
1641091159497912832,2022-01-02-02:39:19,10.1.1.5,184,-0.080,-0.080,-0.080,0.000,0.000,0.000
1641091159697697024,2022-01-02-02:39:19,10.1.1.5,182,-0.070,-0.070,-0.070,0.000,0.000,0.000
1641091159896583936,2022-01-02-02:39:19,10.1.1.5,176,-0.060,-0.060,-0.060,0.000,0.000,0.000
1641091160097115904,2022-01-02-02:39:20,10.1.1.5,175,-0.050,-0.050,-0.050,0.000,0.000,0.000
1641091160306574080,2022-01-02-02:39:20,10.1.1.5,184,-0.040,-0.040,-0.040,0.000,0.000,0.000
1641091160497010944,2022-01-02-02:39:20,10.1.1.5,174,-0.030,-0.030,-0.030,0.000,0.000,0.000
1641091160697082112,2022-01-02-02:39:20,10.1.1.5,173,-0.020,-0.020,-0.020,0.000,0.000,0.000
1641091160895812864,2022-01-02-02:39:20,10.1.1.5,172,-0.010,-0.010,-0.010,0.000,0.000,0.000
1641091161095907072,2022-01-02-02:39:21,10.1.1.5,171,0.000,0.000,0.000,0.000,0.000,0.000
1641091161296547840,2022-01-02-02:39:21,10.1.1.5,171,-0.010,-0.010,-0.010,0.000,0.000,0.000
1641091161496460800,2022-01-02-02:39:21,10.1.1.5,171,-0.020,-0.020,-0.020,0.000,0.000,0.000
1641091161696219904,2022-01-02-02:39:21,10.1.1.5,169,-0.030,-0.030,-0.030,0.000,0.000,0.000
1641091161895795968,2022-01-02-02:39:21,10.1.1.5,169,-0.040,-0.040,-0.040,0.000,0.000,0.000
1641091162097854976,2022-01-02-02:39:22,10.1.1.5,170,-0.050,-0.050,-0.050,0.000,0.000,0.000
1641091162294810112,2022-01-02-02:39:22,10.1.1.5,166,-0.060,-0.060,-0.060,0.000,0.000,0.000
1641091162515389952,2022-01-02-02:39:22,10.1.1.5,186,-0.070,-0.070,-0.070,0.000,0.000,0.000
1641091162717988864,2022-01-02-02:39:22,10.1.1.5,187,-0.080,-0.080,-0.080,0.000,0.000,0.000
1641091162914117120,2022-01-02-02:39:22,10.1.1.5,183,-0.090,-0.090,-0.090,0.000,0.000,0.000
1641091163113799168,2022-01-02-02:39:23,10.1.1.5,182,-0.100,-0.100,-0.100,0.000,0.000,0.000
1641091163303222784,2022-01-02-02:39:23,10.1.1.5,171,-0.110,-0.110,-0.110,0.000,0.000,0.000
1641091163514434048,2022-01-02-02:39:23,10.1.1.5,181,-0.120,-0.120,-0.120,0.000,0.000,0.000
1641091163713490944,2022-01-02-02:39:23,10.1.1.5,180,-0.130,-0.130,-0.130,0.000,0.000,0.000
1641091163914307072,2022-01-02-02:39:23,10.1.1.5,180,-0.140,-0.140,-0.140,0.000,0.000,0.000
1641091164113657088,2022-01-02-02:39:24,10.1.1.5,178,-0.150,-0.150,-0.150,0.000,0.000,0.000
1641091164312381952,2022-01-02-02:39:24,10.1.1.5,176,-0.160,-0.160,-0.160,0.000,0.000,0.000
1641091164516546048,2022-01-02-02:39:24,10.1.1.5,179,-0.170,-0.170,-0.170,0.000,0.000,0.000
1641091164712872960,2022-01-02-02:39:24,10.1.1.5,175,-0.180,-0.180,-0.180,0.000,0.000,0.000
1641091164912445952,2022-01-02-02:39:24,10.1.1.5,174,-0.190,-0.190,-0.190,0.000,0.000,0.000
1641091165113896960,2022-01-02-02:39:25,10.1.1.5,175,-0.200,-0.200,-0.200,0.000,0.000,0.000
1641091165312491008,2022-01-02-02:39:25,10.1.1.5,172,-0.210,-0.210,-0.210,0.000,0.000,0.000
1641091165510675968,2022-01-02-02:39:25,10.1.1.5,169,-0.220,-0.220,-0.220,0.000,0.000,0.000
1641091165711823872,2022-01-02-02:39:25,10.1.1.5,170,-0.230,-0.230,-0.230,0.000,0.000,0.000
1641091165910778880,2022-01-02-02:39:25,10.1.1.5,168,-0.240,-0.240,-0.240,0.000,0.000,0.000
1641091166110052096,2022-01-02-02:39:26,10.1.1.5,166,-0.250,-0.250,-0.250,0.000,0.000,0.000
1641091166310686208,2022-01-02-02:39:26,10.1.1.5,166,-0.260,-0.260,-0.260,0.000,0.000,0.000
1641091166509677824,2022-01-02-02:39:26,10.1.1.5,165,-0.270,-0.270,-0.270,0.000,0.000,0.000
1641091166709281024,2022-01-02-02:39:26,10.1.1.5,164,-0.280,-0.280,-0.280,0.000,0.000,0.000
1641091166910020096,2022-01-02-02:39:26,10.1.1.5,164,-0.290,-0.290,-0.290,0.000,0.000,0.000
1641091167110054912,2022-01-02-02:39:27,10.1.1.5,163,-0.300,-0.300,-0.300,0.000,0.000,0.000
1641091167312024064,2022-01-02-02:39:27,10.1.1.5,164,-0.310,-0.310,-0.310,0.000,0.000,0.000
1641091167510278912,2022-01-02-02:39:27,10.1.1.5,161,-0.320,-0.320,-0.320,0.000,0.000,0.000
1641091167738661888,2022-01-02-02:39:27,10.1.1.5,189,-0.330,-0.330,-0.330,0.000,0.000,0.000
1641091167927928832,2022-01-02-02:39:27,10.1.1.5,178,-0.340,-0.340,-0.340,0.000,0.000,0.000
1641091168127952128,2022-01-02-02:39:28,10.1.1.5,177,-0.350,-0.350,-0.350,0.000,0.000,0.000
1641091168328717824,2022-01-02-02:39:28,10.1.1.5,177,-0.360,-0.360,-0.360,0.000,0.000,0.000
1641091168526767104,2022-01-02-02:39:28,10.1.1.5,174,-0.370,-0.370,-0.370,0.000,0.000,0.000
1641091168717298944,2022-01-02-02:39:28,10.1.1.5,164,-0.380,-0.380,-0.380,0.000,0.000,0.000
1641091168926512896,2022-01-02-02:39:28,10.1.1.5,172,-0.390,-0.390,-0.390,0.000,0.000,0.000
1641091169126683904,2022-01-02-02:39:29,10.1.1.5,171,-0.400,-0.400,-0.400,0.000,0.000,0.000
1641091169326190080,2022-01-02-02:39:29,10.1.1.5,170,-0.410,-0.410,-0.410,0.000,0.000,0.000
1641091169526055936,2022-01-02-02:39:29,10.1.1.5,168,-0.420,-0.420,-0.420,0.000,0.000,0.000
1641091169725797888,2022-01-02-02:39:29,10.1.1.5,167,-0.430,-0.430,-0.430,0.000,0.000,0.000
1641091169925319936,2022-01-02-02:39:29,10.1.1.5,166,-0.440,-0.440,-0.440,0.000,0.000,0.000
1641091170134375168,2022-01-02-02:39:30,10.1.1.5,174,-0.450,-0.450,-0.450,0.000,0.000,0.000
1641091170324860160,2022-01-02-02:39:30,10.1.1.5,164,-0.460,-0.460,-0.460,0.000,0.000,0.000
1641091170533662208,2022-01-02-02:39:30,10.1.1.5,172,-0.470,-0.470,-0.470,0.000,0.000,0.000
1641091170734107904,2022-01-02-02:39:30,10.1.1.5,170,-0.480,-0.480,-0.480,0.000,0.000,0.000
1641091170923585792,2022-01-02-02:39:30,10.1.1.5,159,-0.490,-0.490,-0.490,0.000,0.000,0.000
1641091171123916032,2022-01-02-02:39:31,10.1.1.5,157,-0.480,-0.480,-0.480,0.000,0.000,0.000
1641091171323206912,2022-01-02-02:39:31,10.1.1.5,156,-0.470,-0.470,-0.470,0.000,0.000,0.000
1641091171522166016,2022-01-02-02:39:31,10.1.1.5,154,-0.460,-0.460,-0.460,0.000,0.000,0.000
1641091171725300992,2022-01-02-02:39:31,10.1.1.5,156,-0.450,-0.450,-0.450,0.000,0.000,0.000
1641091171942801920,2022-01-02-02:39:31,10.1.1.5,172,-0.440,-0.440,-0.440,0.000,0.000,0.000
1641091172142072064,2022-01-02-02:39:32,10.1.1.5,170,-0.430,-0.430,-0.430,0.000,0.000,0.000
1641091172341259008,2022-01-02-02:39:32,10.1.1.5,169,-0.420,-0.420,-0.420,0.000,0.000,0.000
1641091172541574912,2022-01-02-02:39:32,10.1.1.5,168,-0.410,-0.410,-0.410,0.000,0.000,0.000
1641091172740755968,2022-01-02-02:39:32,10.1.1.5,166,-0.400,-0.400,-0.400,0.000,0.000,0.000
1641091172950542848,2022-01-02-02:39:32,10.1.1.5,175,-0.390,-0.390,-0.390,0.000,0.000,0.000
1641091173140657920,2022-01-02-02:39:33,10.1.1.5,165,-0.380,-0.380,-0.380,0.000,0.000,0.000
1641091173339934208,2022-01-02-02:39:33,10.1.1.5,163,-0.370,-0.370,-0.370,0.000,0.000,0.000
1641091173539522048,2022-01-02-02:39:33,10.1.1.5,161,-0.360,-0.360,-0.360,0.000,0.000,0.000
1641091173739057152,2022-01-02-02:39:33,10.1.1.5,158,-0.350,-0.350,-0.350,0.000,0.000,0.000
1641091173940200192,2022-01-02-02:39:33,10.1.1.5,155,-0.340,-0.340,-0.340,0.000,0.000,0.000
1641091174142844928,2022-01-02-02:39:34,10.1.1.5,156,-0.330,-0.330,-0.330,0.000,0.000,0.000
1641091174339188992,2022-01-02-02:39:34,10.1.1.5,150,-0.320,-0.320,-0.320,0.000,0.000,0.000
1641091174558651904,2022-01-02-02:39:34,10.1.1.5,168,-0.310,-0.310,-0.310,0.000,0.000,0.000
1641091174762592000,2022-01-02-02:39:34,10.1.1.5,171,-0.300,-0.300,-0.300,0.000,0.000,0.000
1641091174958440192,2022-01-02-02:39:34,10.1.1.5,165,-0.290,-0.290,-0.290,0.000,0.000,0.000
1641091175157753856,2022-01-02-02:39:35,10.1.1.5,163,-0.280,-0.280,-0.280,0.000,0.000,0.000
1641091175366583040,2022-01-02-02:39:35,10.1.1.5,172,-0.270,-0.270,-0.270,0.000,0.000,0.000
1641091175556765184,2022-01-02-02:39:35,10.1.1.5,160,-0.260,-0.260,-0.260,0.000,0.000,0.000
1641091175756877824,2022-01-02-02:39:35,10.1.1.5,158,-0.250,-0.250,-0.250,0.000,0.000,0.000
1641091175966624000,2022-01-02-02:39:35,10.1.1.5,167,-0.240,-0.240,-0.240,0.000,0.000,0.000
1641091176156064000,2022-01-02-02:39:36,10.1.1.5,156,-0.230,-0.230,-0.230,0.000,0.000,0.000
1641091176365441024,2022-01-02-02:39:36,10.1.1.5,164,-0.220,-0.220,-0.220,0.000,0.000,0.000
1641091176554791936,2022-01-02-02:39:36,10.1.1.5,153,-0.210,-0.210,-0.210,0.000,0.000,0.000
1641091176763762944,2022-01-02-02:39:36,10.1.1.5,160,-0.200,-0.200,-0.200,0.000,0.000,0.000
1641091176954880000,2022-01-02-02:39:36,10.1.1.5,150,-0.190,-0.190,-0.190,0.000,0.000,0.000
1641091177155096064,2022-01-02-02:39:37,10.1.1.5,150,-0.180,-0.180,-0.180,0.000,0.000,0.000
1641091177356108800,2022-01-02-02:39:37,10.1.1.5,151,-0.170,-0.170,-0.170,0.000,0.000,0.000
1641091177556731904,2022-01-02-02:39:37,10.1.1.5,150,-0.160,-0.160,-0.160,0.000,0.000,0.000
1641091177758949888,2022-01-02-02:39:37,10.1.1.5,151,-0.150,-0.150,-0.150,0.000,0.000,0.000
1641091177960005888,2022-01-02-02:39:37,10.1.1.5,152,-0.140,-0.140,-0.140,0.000,0.000,0.000
1641091178181669120,2022-01-02-02:39:38,10.1.1.5,172,-0.130,-0.130,-0.130,0.000,0.000,0.000
1641091178381541888,2022-01-02-02:39:38,10.1.1.5,171,-0.120,-0.120,-0.120,0.000,0.000,0.000
1641091178582140928,2022-01-02-02:39:38,10.1.1.5,170,-0.110,-0.110,-0.110,0.000,0.000,0.000
1641091178784698880,2022-01-02-02:39:38,10.1.1.5,172,-0.100,-0.100,-0.100,0.000,0.000,0.000
1641091178994435072,2022-01-02-02:39:38,10.1.1.5,181,-0.090,-0.090,-0.090,0.000,0.000,0.000
1641091179174659072,2022-01-02-02:39:39,10.1.1.5,160,-0.080,-0.080,-0.080,0.000,0.000,0.000
1641091179387017984,2022-01-02-02:39:39,10.1.1.5,172,-0.070,-0.070,-0.070,0.000,0.000,0.000
1641091179586523136,2022-01-02-02:39:39,10.1.1.5,171,-0.060,-0.060,-0.060,0.000,0.000,0.000
1641091179788254976,2022-01-02-02:39:39,10.1.1.5,172,-0.050,-0.050,-0.050,0.000,0.000,0.000
1641091179988044032,2022-01-02-02:39:39,10.1.1.5,171,-0.040,-0.040,-0.040,0.000,0.000,0.000
1641091180188658944,2022-01-02-02:39:40,10.1.1.5,171,-0.030,-0.030,-0.030,0.000,0.000,0.000
1641091180399020800,2022-01-02-02:39:40,10.1.1.5,181,-0.020,-0.020,-0.020,0.000,0.000,0.000
1641091180590274048,2022-01-02-02:39:40,10.1.1.5,171,-0.010,-0.010,-0.010,0.000,0.000,0.000
1641091180795511040,2022-01-02-02:39:40,10.1.1.5,176,0.000,0.000,0.000,0.000,0.000,0.000
1641091180991996928,2022-01-02-02:39:40,10.1.1.5,172,-0.010,-0.010,-0.010,0.000,0.000,0.000
1641091181192116992,2022-01-02-02:39:41,10.1.1.5,171,-0.020,-0.020,-0.020,0.000,0.000,0.000
1641091181392525056,2022-01-02-02:39:41,10.1.1.5,171,-0.030,-0.030,-0.030,0.000,0.000,0.000
1641091181592936960,2022-01-02-02:39:41,10.1.1.5,170,-0.040,-0.040,-0.040,0.000,0.000,0.000
1641091181793179904,2022-01-02-02:39:41,10.1.1.5,170,-0.050,-0.050,-0.050,0.000,0.000,0.000
1641091181993701888,2022-01-02-02:39:41,10.1.1.5,170,-0.060,-0.060,-0.060,0.000,0.000,0.000
1641091182194461184,2022-01-02-02:39:42,10.1.1.5,170,-0.070,-0.070,-0.070,0.000,0.000,0.000
1641091182394062080,2022-01-02-02:39:42,10.1.1.5,168,-0.080,-0.080,-0.080,0.000,0.000,0.000
1641091182595279872,2022-01-02-02:39:42,10.1.1.5,169,-0.090,-0.090,-0.090,0.000,0.000,0.000
1641091182795753984,2022-01-02-02:39:42,10.1.1.5,169,-0.100,-0.100,-0.100,0.000,0.000,0.000
1641091182999766016,2022-01-02-02:39:42,10.1.1.5,171,-0.110,-0.110,-0.110,0.000,0.000,0.000
1641091183196357888,2022-01-02-02:39:43,10.1.1.5,167,-0.120,-0.120,-0.120,0.000,0.000,0.000
1641091183416534784,2022-01-02-02:39:43,10.1.1.5,186,-0.130,-0.130,-0.130,0.000,0.000,0.000
1641091183617849088,2022-01-02-02:39:43,10.1.1.5,187,-0.140,-0.140,-0.140,0.000,0.000,0.000
1641091183820606976,2022-01-02-02:39:43,10.1.1.5,188,-0.150,-0.150,-0.150,0.000,0.000,0.000
1641091184007294976,2022-01-02-02:39:44,10.1.1.5,175,-0.160,-0.160,-0.160,0.000,0.000,0.000
1641091184218044160,2022-01-02-02:39:44,10.1.1.5,184,-0.170,-0.170,-0.170,0.000,0.000,0.000
1641091184420399872,2022-01-02-02:39:44,10.1.1.5,186,-0.180,-0.180,-0.180,0.000,0.000,0.000
1641091184619020032,2022-01-02-02:39:44,10.1.1.5,184,-0.190,-0.190,-0.190,0.000,0.000,0.000
1641091184819126016,2022-01-02-02:39:44,10.1.1.5,183,-0.200,-0.200,-0.200,0.000,0.000,0.000
1641091185020355072,2022-01-02-02:39:45,10.1.1.5,183,-0.210,-0.210,-0.210,0.000,0.000,0.000
1641091185220238848,2022-01-02-02:39:45,10.1.1.5,180,-0.220,-0.220,-0.220,0.000,0.000,0.000
1641091185419020032,2022-01-02-02:39:45,10.1.1.5,178,-0.230,-0.230,-0.230,0.000,0.000,0.000
1641091185619429120,2022-01-02-02:39:45,10.1.1.5,177,-0.240,-0.240,-0.240,0.000,0.000,0.000
1641091185820931072,2022-01-02-02:39:45,10.1.1.5,178,-0.250,-0.250,-0.250,0.000,0.000,0.000
1641091186020580096,2022-01-02-02:39:46,10.1.1.5,176,-0.260,-0.260,-0.260,0.000,0.000,0.000
1641091186220915968,2022-01-02-02:39:46,10.1.1.5,176,-0.270,-0.270,-0.270,0.000,0.000,0.000
1641091186421462016,2022-01-02-02:39:46,10.1.1.5,175,-0.280,-0.280,-0.280,0.000,0.000,0.000
1641091186620304128,2022-01-02-02:39:46,10.1.1.5,173,-0.290,-0.290,-0.290,0.000,0.000,0.000
1641091186819493120,2022-01-02-02:39:46,10.1.1.5,171,-0.300,-0.300,-0.300,0.000,0.000,0.000
1641091187024836096,2022-01-02-02:39:47,10.1.1.5,176,-0.310,-0.310,-0.310,0.000,0.000,0.000
1641091187219755008,2022-01-02-02:39:47,10.1.1.5,168,-0.320,-0.320,-0.320,0.000,0.000,0.000
1641091187439600896,2022-01-02-02:39:47,10.1.1.5,187,-0.330,-0.330,-0.330,0.000,0.000,0.000
1641091187639923200,2022-01-02-02:39:47,10.1.1.5,187,-0.340,-0.340,-0.340,0.000,0.000,0.000
1641091187839979776,2022-01-02-02:39:47,10.1.1.5,187,-0.350,-0.350,-0.350,0.000,0.000,0.000
1641091188040100096,2022-01-02-02:39:48,10.1.1.5,186,-0.360,-0.360,-0.360,0.000,0.000,0.000
1641091188239945984,2022-01-02-02:39:48,10.1.1.5,185,-0.370,-0.370,-0.370,0.000,0.000,0.000
1641091188440193024,2022-01-02-02:39:48,10.1.1.5,185,-0.380,-0.380,-0.380,0.000,0.000,0.000
1641091188645684992,2022-01-02-02:39:48,10.1.1.5,190,-0.390,-0.390,-0.390,0.000,0.000,0.000
1641091188841069824,2022-01-02-02:39:48,10.1.1.5,185,-0.400,-0.400,-0.400,0.000,0.000,0.000
1641091189030320896,2022-01-02-02:39:49,10.1.1.5,172,-0.410,-0.410,-0.410,0.000,0.000,0.000
1641091189245568000,2022-01-02-02:39:49,10.1.1.5,182,-0.420,-0.420,-0.420,0.000,0.000,0.000
1641091189439943168,2022-01-02-02:39:49,10.1.1.5,175,-0.430,-0.430,-0.430,0.000,0.000,0.000
1641091189640048128,2022-01-02-02:39:49,10.1.1.5,174,-0.440,-0.440,-0.440,0.000,0.000,0.000
1641091189840357120,2022-01-02-02:39:49,10.1.1.5,173,-0.450,-0.450,-0.450,0.000,0.000,0.000
1641091190039820800,2022-01-02-02:39:50,10.1.1.5,172,-0.460,-0.460,-0.460,0.000,0.000,0.000
1641091190240460032,2022-01-02-02:39:50,10.1.1.5,171,-0.470,-0.470,-0.470,0.000,0.000,0.000
1641091190469561088,2022-01-02-02:39:50,10.1.1.5,199,-0.480,-0.480,-0.480,0.000,0.000,0.000
1641091190649637888,2022-01-02-02:39:50,10.1.1.5,178,-0.490,-0.490,-0.490,0.000,0.000,0.000
1641091190862812160,2022-01-02-02:39:50,10.1.1.5,190,-0.480,-0.480,-0.480,0.000,0.000,0.000
1641091191069092096,2022-01-02-02:39:51,10.1.1.5,196,-0.470,-0.470,-0.470,0.000,0.000,0.000
1641091191259922944,2022-01-02-02:39:51,10.1.1.5,186,-0.460,-0.460,-0.460,0.000,0.000,0.000
1641091191459227136,2022-01-02-02:39:51,10.1.1.5,184,-0.450,-0.450,-0.450,0.000,0.000,0.000
1641091191659251968,2022-01-02-02:39:51,10.1.1.5,183,-0.440,-0.440,-0.440,0.000,0.000,0.000
1641091191868845824,2022-01-02-02:39:51,10.1.1.5,192,-0.430,-0.430,-0.430,0.000,0.000,0.000
1641091192059518976,2022-01-02-02:39:52,10.1.1.5,182,-0.420,-0.420,-0.420,0.000,0.000,0.000
1641091192259318016,2022-01-02-02:39:52,10.1.1.5,180,-0.410,-0.410,-0.410,0.000,0.000,0.000
1641091192458690816,2022-01-02-02:39:52,10.1.1.5,178,-0.400,-0.400,-0.400,0.000,0.000,0.000
1641091192659301888,2022-01-02-02:39:52,10.1.1.5,179,-0.390,-0.390,-0.390,0.000,0.000,0.000
1641091192861121792,2022-01-02-02:39:52,10.1.1.5,180,-0.380,-0.380,-0.380,0.000,0.000,0.000
1641091193057862144,2022-01-02-02:39:53,10.1.1.5,175,-0.370,-0.370,-0.370,0.000,0.000,0.000
1641091193257932800,2022-01-02-02:39:53,10.1.1.5,174,-0.360,-0.360,-0.360,0.000,0.000,0.000
1641091193457628928,2022-01-02-02:39:53,10.1.1.5,173,-0.350,-0.350,-0.350,0.000,0.000,0.000
1641091193659492096,2022-01-02-02:39:53,10.1.1.5,174,-0.340,-0.340,-0.340,0.000,0.000,0.000
1641091193859816960,2022-01-02-02:39:53,10.1.1.5,173,-0.330,-0.330,-0.330,0.000,0.000,0.000
1641091194057063936,2022-01-02-02:39:54,10.1.1.5,170,-0.320,-0.320,-0.320,0.000,0.000,0.000
1641091194257025024,2022-01-02-02:39:54,10.1.1.5,169,-0.310,-0.310,-0.310,0.000,0.000,0.000
1641091194457328128,2022-01-02-02:39:54,10.1.1.5,169,-0.300,-0.300,-0.300,0.000,0.000,0.000
1641091194686700032,2022-01-02-02:39:54,10.1.1.5,197,-0.290,-0.290,-0.290,0.000,0.000,0.000
1641091194877360128,2022-01-02-02:39:54,10.1.1.5,187,-0.280,-0.280,-0.280,0.000,0.000,0.000
1641091195077918976,2022-01-02-02:39:55,10.1.1.5,187,-0.270,-0.270,-0.270,0.000,0.000,0.000
1641091195276038912,2022-01-02-02:39:55,10.1.1.5,184,-0.260,-0.260,-0.260,0.000,0.000,0.000
1641091195476165888,2022-01-02-02:39:55,10.1.1.5,183,-0.250,-0.250,-0.250,0.000,0.000,0.000
1641091195675620096,2022-01-02-02:39:55,10.1.1.5,182,-0.240,-0.240,-0.240,0.000,0.000,0.000
1641091195875597056,2022-01-02-02:39:55,10.1.1.5,181,-0.230,-0.230,-0.230,0.000,0.000,0.000
1641091196075547904,2022-01-02-02:39:56,10.1.1.5,180,-0.220,-0.220,-0.220,0.000,0.000,0.000
1641091196275024896,2022-01-02-02:39:56,10.1.1.5,179,-0.210,-0.210,-0.210,0.000,0.000,0.000
1641091196474849024,2022-01-02-02:39:56,10.1.1.5,178,-0.200,-0.200,-0.200,0.000,0.000,0.000
1641091196675473920,2022-01-02-02:39:56,10.1.1.5,178,-0.190,-0.190,-0.190,0.000,0.000,0.000
1641091196889071872,2022-01-02-02:39:56,10.1.1.5,188,-0.180,-0.180,-0.180,0.000,0.000,0.000
1641091197074860032,2022-01-02-02:39:57,10.1.1.5,175,-0.170,-0.170,-0.170,0.000,0.000,0.000
1641091197274738176,2022-01-02-02:39:57,10.1.1.5,174,-0.160,-0.160,-0.160,0.000,0.000,0.000
1641091197473553920,2022-01-02-02:39:57,10.1.1.5,173,-0.150,-0.150,-0.150,0.000,0.000,0.000
1641091197673296896,2022-01-02-02:39:57,10.1.1.5,171,-0.140,-0.140,-0.140,0.000,0.000,0.000
1641091197877235968,2022-01-02-02:39:57,10.1.1.5,175,-0.130,-0.130,-0.130,0.000,0.000,0.000
1641091198072233984,2022-01-02-02:39:58,10.1.1.5,169,-0.120,-0.120,-0.120,0.000,0.000,0.000
1641091198282605824,2022-01-02-02:39:58,10.1.1.5,178,-0.110,-0.110,-0.110,0.000,0.000,0.000
1641091198472841984,2022-01-02-02:39:58,10.1.1.5,168,-0.100,-0.100,-0.100,0.000,0.000,0.000
1641091198672045824,2022-01-02-02:39:58,10.1.1.5,167,-0.090,-0.090,-0.090,0.000,0.000,0.000
1641091198871398912,2022-01-02-02:39:58,10.1.1.5,164,-0.080,-0.080,-0.080,0.000,0.000,0.000
1641091199070724096,2022-01-02-02:39:59,10.1.1.5,163,-0.070,-0.070,-0.070,0.000,0.000,0.000
1641091199281573120,2022-01-02-02:39:59,10.1.1.5,173,-0.060,-0.060,-0.060,0.000,0.000,0.000
1641091199495228160,2022-01-02-02:39:59,10.1.1.5,184,-0.050,-0.050,-0.050,0.000,0.000,0.000
1641091199690972928,2022-01-02-02:39:59,10.1.1.5,178,-0.040,-0.040,-0.040,0.000,0.000,0.000
1641091199890896128,2022-01-02-02:39:59,10.1.1.5,178,-0.030,-0.030,-0.030,0.000,0.000,0.000
1641091200090182144,2022-01-02-02:40:00,10.1.1.5,176,-0.020,-0.020,-0.020,0.000,0.000,0.000
1641091200279644928,2022-01-02-02:40:00,10.1.1.5,164,-0.010,-0.010,-0.010,0.000,0.000,0.000
1641091200479901184,2022-01-02-02:40:00,10.1.1.5,164,0.000,0.000,0.000,0.000,0.000,0.000
1641091200689826048,2022-01-02-02:40:00,10.1.1.5,173,-0.010,-0.010,-0.010,0.000,0.000,0.000
1641091200889745920,2022-01-02-02:40:00,10.1.1.5,172,-0.020,-0.020,-0.020,0.000,0.000,0.000
1641091201089217792,2022-01-02-02:40:01,10.1.1.5,171,-0.030,-0.030,-0.030,0.000,0.000,0.000
1641091201288440064,2022-01-02-02:40:01,10.1.1.5,169,-0.040,-0.040,-0.040,0.000,0.000,0.000
1641091201493067008,2022-01-02-02:40:01,10.1.1.5,174,-0.050,-0.050,-0.050,0.000,0.000,0.000
1641091201687542016,2022-01-02-02:40:01,10.1.1.5,167,-0.060,-0.060,-0.060,0.000,0.000,0.000
1641091201887640832,2022-01-02-02:40:01,10.1.1.5,167,-0.070,-0.070,-0.070,0.000,0.000,0.000
1641091202088429056,2022-01-02-02:40:02,10.1.1.5,167,-0.080,-0.080,-0.080,0.000,0.000,0.000
1641091202288242944,2022-01-02-02:40:02,10.1.1.5,166,-0.090,-0.090,-0.090,0.000,0.000,0.000
1641091202486716928,2022-01-02-02:40:02,10.1.1.5,164,-0.100,-0.100,-0.100,0.000,0.000,0.000
1641091202688105216,2022-01-02-02:40:02,10.1.1.5,164,-0.110,-0.110,-0.110,0.000,0.000,0.000
1641091202884793088,2022-01-02-02:40:02,10.1.1.5,160,-0.120,-0.120,-0.120,0.000,0.000,0.000
1641091203087936000,2022-01-02-02:40:03,10.1.1.5,161,-0.130,-0.130,-0.130,0.000,0.000,0.000
1641091203286497024,2022-01-02-02:40:03,10.1.1.5,159,-0.140,-0.140,-0.140,0.000,0.000,0.000
1641091203486974976,2022-01-02-02:40:03,10.1.1.5,158,-0.150,-0.150,-0.150,0.000,0.000,0.000
1641091203706093056,2022-01-02-02:40:03,10.1.1.5,176,-0.160,-0.160,-0.160,0.000,0.000,0.000
1641091203905097984,2022-01-02-02:40:03,10.1.1.5,173,-0.170,-0.170,-0.170,0.000,0.000,0.000
1641091204106448896,2022-01-02-02:40:04,10.1.1.5,173,-0.180,-0.180,-0.180,0.000,0.000,0.000
1641091204305908992,2022-01-02-02:40:04,10.1.1.5,172,-0.190,-0.190,-0.190,0.000,0.000,0.000
1641091204504452096,2022-01-02-02:40:04,10.1.1.5,169,-0.200,-0.200,-0.200,0.000,0.000,0.000
1641091204713381120,2022-01-02-02:40:04,10.1.1.5,176,-0.210,-0.210,-0.210,0.000,0.000,0.000
1641091204902633984,2022-01-02-02:40:04,10.1.1.5,164,-0.220,-0.220,-0.220,0.000,0.000,0.000
1641091205102795008,2022-01-02-02:40:05,10.1.1.5,162,-0.230,-0.230,-0.230,0.000,0.000,0.000
1641091205303909120,2022-01-02-02:40:05,10.1.1.5,157,-0.240,-0.240,-0.240,0.000,0.000,0.000
1641091205503367936,2022-01-02-02:40:05,10.1.1.5,155,-0.250,-0.250,-0.250,0.000,0.000,0.000
1641091205710267136,2022-01-02-02:40:05,10.1.1.5,155,-0.260,-0.260,-0.260,0.000,0.000,0.000
1641091205922786048,2022-01-02-02:40:05,10.1.1.5,172,-0.270,-0.270,-0.270,0.000,0.000,0.000
1641091206123483904,2022-01-02-02:40:06,10.1.1.5,172,-0.280,-0.280,-0.280,0.000,0.000,0.000
1641091206321896192,2022-01-02-02:40:06,10.1.1.5,169,-0.290,-0.290,-0.290,0.000,0.000,0.000
1641091206522032128,2022-01-02-02:40:06,10.1.1.5,169,-0.300,-0.300,-0.300,0.000,0.000,0.000
1641091206720807936,2022-01-02-02:40:06,10.1.1.5,167,-0.310,-0.310,-0.310,0.000,0.000,0.000
1641091206919891968,2022-01-02-02:40:06,10.1.1.5,165,-0.320,-0.320,-0.320,0.000,0.000,0.000
1641091207120444928,2022-01-02-02:40:07,10.1.1.5,164,-0.330,-0.330,-0.330,0.000,0.000,0.000
1641091207321444096,2022-01-02-02:40:07,10.1.1.5,164,-0.340,-0.340,-0.340,0.000,0.000,0.000
1641091207519456000,2022-01-02-02:40:07,10.1.1.5,161,-0.350,-0.350,-0.350,0.000,0.000,0.000
1641091207718522112,2022-01-02-02:40:07,10.1.1.5,158,-0.360,-0.360,-0.360,0.000,0.000,0.000
1641091207917853952,2022-01-02-02:40:07,10.1.1.5,157,-0.370,-0.370,-0.370,0.000,0.000,0.000
1641091208119695872,2022-01-02-02:40:08,10.1.1.5,158,-0.380,-0.380,-0.380,0.000,0.000,0.000
1641091208317991936,2022-01-02-02:40:08,10.1.1.5,156,-0.390,-0.390,-0.390,0.000,0.000,0.000
1641091208519307008,2022-01-02-02:40:08,10.1.1.5,157,-0.400,-0.400,-0.400,0.000,0.000,0.000
1641091208717302016,2022-01-02-02:40:08,10.1.1.5,154,-0.410,-0.410,-0.410,0.000,0.000,0.000
1641091208916777984,2022-01-02-02:40:08,10.1.1.5,153,-0.420,-0.420,-0.420,0.000,0.000,0.000
1641091209117549056,2022-01-02-02:40:09,10.1.1.5,152,-0.430,-0.430,-0.430,0.000,0.000,0.000
1641091209318761984,2022-01-02-02:40:09,10.1.1.5,152,-0.440,-0.440,-0.440,0.000,0.000,0.000
1641091209520015104,2022-01-02-02:40:09,10.1.1.5,152,-0.450,-0.450,-0.450,0.000,0.000,0.000
1641091209730247936,2022-01-02-02:40:09,10.1.1.5,162,-0.460,-0.460,-0.460,0.000,0.000,0.000
1641091209942043904,2022-01-02-02:40:09,10.1.1.5,172,-0.470,-0.470,-0.470,0.000,0.000,0.000
1641091210142461184,2022-01-02-02:40:10,10.1.1.5,172,-0.480,-0.480,-0.480,0.000,0.000,0.000
1641091210343488000,2022-01-02-02:40:10,10.1.1.5,172,-0.490,-0.490,-0.490,0.000,0.000,0.000
1641091210545451008,2022-01-02-02:40:10,10.1.1.5,173,-0.480,-0.480,-0.480,0.000,0.000,0.000
1641091210745846016,2022-01-02-02:40:10,10.1.1.5,173,-0.470,-0.470,-0.470,0.000,0.000,0.000
1641091210946676992,2022-01-02-02:40:10,10.1.1.5,173,-0.460,-0.460,-0.460,0.000,0.000,0.000
1641091211156946944,2022-01-02-02:40:11,10.1.1.5,182,-0.450,-0.450,-0.450,0.000,0.000,0.000
1641091211347920896,2022-01-02-02:40:11,10.1.1.5,172,-0.440,-0.440,-0.440,0.000,0.000,0.000
1641091211551589120,2022-01-02-02:40:11,10.1.1.5,173,-0.430,-0.430,-0.430,0.000,0.000,0.000
1641091211748435968,2022-01-02-02:40:11,10.1.1.5,167,-0.420,-0.420,-0.420,0.000,0.000,0.000
1641091211949854976,2022-01-02-02:40:11,10.1.1.5,168,-0.410,-0.410,-0.410,0.000,0.000,0.000
1641091212150780928,2022-01-02-02:40:12,10.1.1.5,168,-0.400,-0.400,-0.400,0.000,0.000,0.000
1641091212350689024,2022-01-02-02:40:12,10.1.1.5,167,-0.390,-0.390,-0.390,0.000,0.000,0.000
1641091212552196864,2022-01-02-02:40:12,10.1.1.5,168,-0.380,-0.380,-0.380,0.000,0.000,0.000
1641091212754131968,2022-01-02-02:40:12,10.1.1.5,169,-0.370,-0.370,-0.370,0.000,0.000,0.000
1641091212952467968,2022-01-02-02:40:12,10.1.1.5,166,-0.360,-0.360,-0.360,0.000,0.000,0.000
1641091213153805056,2022-01-02-02:40:13,10.1.1.5,167,-0.350,-0.350,-0.350,0.000,0.000,0.000
1641091213362976000,2022-01-02-02:40:13,10.1.1.5,176,-0.340,-0.340,-0.340,0.000,0.000,0.000
1641091213554584064,2022-01-02-02:40:13,10.1.1.5,167,-0.330,-0.330,-0.330,0.000,0.000,0.000
1641091213755139072,2022-01-02-02:40:13,10.1.1.5,166,-0.320,-0.320,-0.320,0.000,0.000,0.000
1641091213975585024,2022-01-02-02:40:13,10.1.1.5,185,-0.310,-0.310,-0.310,0.000,0.000,0.000
1641091214176163072,2022-01-02-02:40:14,10.1.1.5,185,-0.300,-0.300,-0.300,0.000,0.000,0.000
1641091214376271872,2022-01-02-02:40:14,10.1.1.5,185,-0.290,-0.290,-0.290,0.000,0.000,0.000
1641091214575531008,2022-01-02-02:40:14,10.1.1.5,184,-0.280,-0.280,-0.280,0.000,0.000,0.000
1641091214766809856,2022-01-02-02:40:14,10.1.1.5,174,-0.270,-0.270,-0.270,0.000,0.000,0.000
1641091214966305024,2022-01-02-02:40:14,10.1.1.5,173,-0.260,-0.260,-0.260,0.000,0.000,0.000
1641091215176609024,2022-01-02-02:40:15,10.1.1.5,182,-0.250,-0.250,-0.250,0.000,0.000,0.000
1641091215376578048,2022-01-02-02:40:15,10.1.1.5,182,-0.240,-0.240,-0.240,0.000,0.000,0.000
1641091215577976832,2022-01-02-02:40:15,10.1.1.5,182,-0.230,-0.230,-0.230,0.000,0.000,0.000
1641091215779459840,2022-01-02-02:40:15,10.1.1.5,182,-0.220,-0.220,-0.220,0.000,0.000,0.000
1641091215967672064,2022-01-02-02:40:15,10.1.1.5,169,-0.210,-0.210,-0.210,0.000,0.000,0.000
1641091216178106112,2022-01-02-02:40:16,10.1.1.5,178,-0.200,-0.200,-0.200,0.000,0.000,0.000
1641091216379163136,2022-01-02-02:40:16,10.1.1.5,178,-0.190,-0.190,-0.190,0.000,0.000,0.000
1641091216579096064,2022-01-02-02:40:16,10.1.1.5,178,-0.180,-0.180,-0.180,0.000,0.000,0.000
1641091216778966016,2022-01-02-02:40:16,10.1.1.5,176,-0.170,-0.170,-0.170,0.000,0.000,0.000
1641091216978445056,2022-01-02-02:40:16,10.1.1.5,174,-0.160,-0.160,-0.160,0.000,0.000,0.000
1641091217178443008,2022-01-02-02:40:17,10.1.1.5,174,-0.150,-0.150,-0.150,0.000,0.000,0.000
1641091217379880960,2022-01-02-02:40:17,10.1.1.5,175,-0.140,-0.140,-0.140,0.000,0.000,0.000
1641091217579340032,2022-01-02-02:40:17,10.1.1.5,174,-0.130,-0.130,-0.130,0.000,0.000,0.000
1641091217780025856,2022-01-02-02:40:17,10.1.1.5,173,-0.120,-0.120,-0.120,0.000,0.000,0.000
1641091217979502848,2022-01-02-02:40:17,10.1.1.5,172,-0.110,-0.110,-0.110,0.000,0.000,0.000
1641091218179574016,2022-01-02-02:40:18,10.1.1.5,171,-0.100,-0.100,-0.100,0.000,0.000,0.000
1641091218379302912,2022-01-02-02:40:18,10.1.1.5,170,-0.090,-0.090,-0.090,0.000,0.000,0.000
1641091218602526976,2022-01-02-02:40:18,10.1.1.5,191,-0.080,-0.080,-0.080,0.000,0.000,0.000
1641091218800146944,2022-01-02-02:40:18,10.1.1.5,190,-0.070,-0.070,-0.070,0.000,0.000,0.000
1641091219003020032,2022-01-02-02:40:19,10.1.1.5,192,-0.060,-0.060,-0.060,0.000,0.000,0.000
1641091219202194944,2022-01-02-02:40:19,10.1.1.5,189,-0.050,-0.050,-0.050,0.000,0.000,0.000
1641091219400412928,2022-01-02-02:40:19,10.1.1.5,186,-0.040,-0.040,-0.040,0.000,0.000,0.000
1641091219600914944,2022-01-02-02:40:19,10.1.1.5,185,-0.030,-0.030,-0.030,0.000,0.000,0.000
