FedericoMungari/DigitalTwin_service/01_WiredScenario/Output/Output_script/script_rosapi_2_output_robots10_freq0_10.txt
timestamp,date,node,latency,joint_1,joint_2,joint_3,joint_4,joint_5,joint_6
1641220955408189184,2022-01-03-14:42:35,10.1.1.11,169,-0.010,-0.010,-0.010,0.000,0.000,0.000
1641220955617432064,2022-01-03-14:42:35,10.1.1.11,177,-0.020,-0.020,-0.020,0.000,0.000,0.000
1641220955807396864,2022-01-03-14:42:35,10.1.1.11,167,-0.030,-0.030,-0.030,0.000,0.000,0.000
1641220956007718144,2022-01-03-14:42:36,10.1.1.11,166,-0.040,-0.040,-0.040,0.000,0.000,0.000
1641220956206883840,2022-01-03-14:42:36,10.1.1.11,164,-0.050,-0.050,-0.050,0.000,0.000,0.000
1641220956406342912,2022-01-03-14:42:36,10.1.1.11,163,-0.060,-0.060,-0.060,0.000,0.000,0.000
1641220956616203008,2022-01-03-14:42:36,10.1.1.11,173,-0.070,-0.070,-0.070,0.000,0.000,0.000
1641220956815586048,2022-01-03-14:42:36,10.1.1.11,171,-0.080,-0.080,-0.080,0.000,0.000,0.000
1641220957025545984,2022-01-03-14:42:37,10.1.1.11,181,-0.090,-0.090,-0.090,0.000,0.000,0.000
1641220957235150080,2022-01-03-14:42:37,10.1.1.11,190,-0.100,-0.100,-0.100,0.000,0.000,0.000
1641220957434593792,2022-01-03-14:42:37,10.1.1.11,189,-0.110,-0.110,-0.110,0.000,0.000,0.000
1641220957614199040,2022-01-03-14:42:37,10.1.1.11,167,-0.120,-0.120,-0.120,0.000,0.000,0.000
1641220957813960192,2022-01-03-14:42:37,10.1.1.11,166,-0.130,-0.130,-0.130,0.000,0.000,0.000
1641220958034200064,2022-01-03-14:42:38,10.1.1.11,185,-0.140,-0.140,-0.140,0.000,0.000,0.000
1641220958213411072,2022-01-03-14:42:38,10.1.1.11,164,-0.150,-0.150,-0.150,0.000,0.000,0.000
1641220958423176960,2022-01-03-14:42:38,10.1.1.11,173,-0.160,-0.160,-0.160,0.000,0.000,0.000
1641220958612984832,2022-01-03-14:42:38,10.1.1.11,162,-0.170,-0.170,-0.170,0.000,0.000,0.000
1641220958812688128,2022-01-03-14:42:38,10.1.1.11,162,-0.180,-0.180,-0.180,0.000,0.000,0.000
1641220959022195200,2022-01-03-14:42:39,10.1.1.11,170,-0.190,-0.190,-0.190,0.000,0.000,0.000
1641220959221474048,2022-01-03-14:42:39,10.1.1.11,169,-0.200,-0.200,-0.200,0.000,0.000,0.000
1641220959411362816,2022-01-03-14:42:39,10.1.1.11,158,-0.210,-0.210,-0.210,0.000,0.000,0.000
1641220959631345152,2022-01-03-14:42:39,10.1.1.11,177,-0.220,-0.220,-0.220,0.000,0.000,0.000
1641220959820555008,2022-01-03-14:42:39,10.1.1.11,164,-0.230,-0.230,-0.230,0.000,0.000,0.000
1641220960030383104,2022-01-03-14:42:40,10.1.1.11,173,-0.240,-0.240,-0.240,0.000,0.000,0.000
1641220960220568832,2022-01-03-14:42:40,10.1.1.11,163,-0.250,-0.250,-0.250,0.000,0.000,0.000
1641220960430164992,2022-01-03-14:42:40,10.1.1.11,172,-0.260,-0.260,-0.260,0.000,0.000,0.000
1641220960629519872,2022-01-03-14:42:40,10.1.1.11,171,-0.270,-0.270,-0.270,0.000,0.000,0.000
1641220960829020928,2022-01-03-14:42:40,10.1.1.11,170,-0.280,-0.280,-0.280,0.000,0.000,0.000
1641220961019025152,2022-01-03-14:42:41,10.1.1.11,159,-0.290,-0.290,-0.290,0.000,0.000,0.000
1641220961234679040,2022-01-03-14:42:41,10.1.1.11,174,-0.300,-0.300,-0.300,0.000,0.000,0.000
1641220961432642816,2022-01-03-14:42:41,10.1.1.11,171,-0.310,-0.310,-0.310,0.000,0.000,0.000
1641220961622968064,2022-01-03-14:42:41,10.1.1.11,161,-0.320,-0.320,-0.320,0.000,0.000,0.000
1641220961837931008,2022-01-03-14:42:41,10.1.1.11,175,-0.330,-0.330,-0.330,0.000,0.000,0.000
1641220962034348032,2022-01-03-14:42:42,10.1.1.11,162,-0.340,-0.340,-0.340,0.000,0.000,0.000
1641220962250340096,2022-01-03-14:42:42,10.1.1.11,177,-0.350,-0.350,-0.350,0.000,0.000,0.000
1641220962446470144,2022-01-03-14:42:42,10.1.1.11,172,-0.360,-0.360,-0.360,0.000,0.000,0.000
1641220962647826944,2022-01-03-14:42:42,10.1.1.11,173,-0.370,-0.370,-0.370,0.000,0.000,0.000
1641220962848253952,2022-01-03-14:42:42,10.1.1.11,173,-0.380,-0.380,-0.380,0.000,0.000,0.000
1641220963048598016,2022-01-03-14:42:43,10.1.1.11,172,-0.390,-0.390,-0.390,0.000,0.000,0.000
1641220963260919040,2022-01-03-14:42:43,10.1.1.11,184,-0.400,-0.400,-0.400,0.000,0.000,0.000
1641220963452197120,2022-01-03-14:42:43,10.1.1.11,174,-0.410,-0.410,-0.410,0.000,0.000,0.000
1641220963660634112,2022-01-03-14:42:43,10.1.1.11,182,-0.420,-0.420,-0.420,0.000,0.000,0.000
1641220963861730048,2022-01-03-14:42:43,10.1.1.11,183,-0.430,-0.430,-0.430,0.000,0.000,0.000
1641220964062513152,2022-01-03-14:42:44,10.1.1.11,183,-0.440,-0.440,-0.440,0.000,0.000,0.000
1641220964263389184,2022-01-03-14:42:44,10.1.1.11,182,-0.450,-0.450,-0.450,0.000,0.000,0.000
1641220964464109824,2022-01-03-14:42:44,10.1.1.11,181,-0.460,-0.460,-0.460,0.000,0.000,0.000
1641220964655992064,2022-01-03-14:42:44,10.1.1.11,173,-0.470,-0.470,-0.470,0.000,0.000,0.000
1641220964867305984,2022-01-03-14:42:44,10.1.1.11,184,-0.480,-0.480,-0.480,0.000,0.000,0.000
1641220965065810944,2022-01-03-14:42:45,10.1.1.11,182,-0.490,-0.490,-0.490,0.000,0.000,0.000
1641220965265972992,2022-01-03-14:42:45,10.1.1.11,181,-0.480,-0.480,-0.480,0.000,0.000,0.000
1641220965466258176,2022-01-03-14:42:45,10.1.1.11,180,-0.470,-0.470,-0.470,0.000,0.000,0.000
1641220965667404800,2022-01-03-14:42:45,10.1.1.11,180,-0.460,-0.460,-0.460,0.000,0.000,0.000
1641220965868369152,2022-01-03-14:42:45,10.1.1.11,180,-0.450,-0.450,-0.450,0.000,0.000,0.000
1641220966067711232,2022-01-03-14:42:46,10.1.1.11,179,-0.440,-0.440,-0.440,0.000,0.000,0.000
1641220966268000000,2022-01-03-14:42:46,10.1.1.11,178,-0.430,-0.430,-0.430,0.000,0.000,0.000
1641220966468175872,2022-01-03-14:42:46,10.1.1.11,178,-0.420,-0.420,-0.420,0.000,0.000,0.000
1641220966668467968,2022-01-03-14:42:46,10.1.1.11,177,-0.410,-0.410,-0.410,0.000,0.000,0.000
1641220966869095936,2022-01-03-14:42:46,10.1.1.11,177,-0.400,-0.400,-0.400,0.000,0.000,0.000
1641220967070228992,2022-01-03-14:42:47,10.1.1.11,176,-0.390,-0.390,-0.390,0.000,0.000,0.000
1641220967280227072,2022-01-03-14:42:47,10.1.1.11,185,-0.380,-0.380,-0.380,0.000,0.000,0.000
1641220967480144128,2022-01-03-14:42:47,10.1.1.11,183,-0.370,-0.370,-0.370,0.000,0.000,0.000
1641220967681031936,2022-01-03-14:42:47,10.1.1.11,183,-0.360,-0.360,-0.360,0.000,0.000,0.000
1641220967887026176,2022-01-03-14:42:47,10.1.1.11,188,-0.350,-0.350,-0.350,0.000,0.000,0.000
1641220968082333184,2022-01-03-14:42:48,10.1.1.11,182,-0.340,-0.340,-0.340,0.000,0.000,0.000
1641220968281931008,2022-01-03-14:42:48,10.1.1.11,181,-0.330,-0.330,-0.330,0.000,0.000,0.000
1641220968482168064,2022-01-03-14:42:48,10.1.1.11,179,-0.320,-0.320,-0.320,0.000,0.000,0.000
1641220968691834880,2022-01-03-14:42:48,10.1.1.11,188,-0.310,-0.310,-0.310,0.000,0.000,0.000
1641220968891823104,2022-01-03-14:42:48,10.1.1.11,183,-0.300,-0.300,-0.300,0.000,0.000,0.000
1641220969102433792,2022-01-03-14:42:49,10.1.1.11,192,-0.290,-0.290,-0.290,0.000,0.000,0.000
1641220969492419072,2022-01-03-14:42:49,10.1.1.11,182,-0.270,-0.270,-0.270,0.000,0.000,0.000
1641220969904453120,2022-01-03-14:42:49,10.1.1.11,191,-0.250,-0.250,-0.250,0.000,0.000,0.000
1641220970112915968,2022-01-03-14:42:50,10.1.1.11,184,-0.240,-0.240,-0.240,0.000,0.000,0.000
1641220970914638080,2022-01-03-14:42:50,10.1.1.11,182,-0.200,-0.200,-0.200,0.000,0.000,0.000
1641220971114848000,2022-01-03-14:42:51,10.1.1.11,182,-0.190,-0.190,-0.190,0.000,0.000,0.000
1641220971313262848,2022-01-03-14:42:51,10.1.1.11,180,-0.180,-0.180,-0.180,0.000,0.000,0.000
1641220971533211904,2022-01-03-14:42:51,10.1.1.11,199,-0.170,-0.170,-0.170,0.000,0.000,0.000
1641220971733058816,2022-01-03-14:42:51,10.1.1.11,199,-0.160,-0.160,-0.160,0.000,0.000,0.000
1641220971933031936,2022-01-03-14:42:51,10.1.1.11,198,-0.150,-0.150,-0.150,0.000,0.000,0.000
1641220972133222144,2022-01-03-14:42:52,10.1.1.11,198,-0.140,-0.140,-0.140,0.000,0.000,0.000
1641220972332974080,2022-01-03-14:42:52,10.1.1.11,197,-0.130,-0.130,-0.130,0.000,0.000,0.000
1641220972523901952,2022-01-03-14:42:52,10.1.1.11,188,-0.120,-0.120,-0.120,0.000,0.000,0.000
1641220972733985024,2022-01-03-14:42:52,10.1.1.11,197,-0.110,-0.110,-0.110,0.000,0.000,0.000
1641220972934104832,2022-01-03-14:42:52,10.1.1.11,197,-0.100,-0.100,-0.100,0.000,0.000,0.000
1641220973123398912,2022-01-03-14:42:53,10.1.1.11,186,-0.090,-0.090,-0.090,0.000,0.000,0.000
1641220973333459968,2022-01-03-14:42:53,10.1.1.11,194,-0.080,-0.080,-0.080,0.000,0.000,0.000
1641220973523216128,2022-01-03-14:42:53,10.1.1.11,184,-0.070,-0.070,-0.070,0.000,0.000,0.000
1641220973723373056,2022-01-03-14:42:53,10.1.1.11,184,-0.060,-0.060,-0.060,0.000,0.000,0.000
1641220973922586880,2022-01-03-14:42:53,10.1.1.11,182,-0.050,-0.050,-0.050,0.000,0.000,0.000
1641220974123245056,2022-01-03-14:42:54,10.1.1.11,182,-0.040,-0.040,-0.040,0.000,0.000,0.000
1641220974332720128,2022-01-03-14:42:54,10.1.1.11,191,-0.030,-0.030,-0.030,0.000,0.000,0.000
1641220974523802112,2022-01-03-14:42:54,10.1.1.11,181,-0.020,-0.020,-0.020,0.000,0.000,0.000
1641220974733263872,2022-01-03-14:42:54,10.1.1.11,190,-0.010,-0.010,-0.010,0.000,0.000,0.000
1641220974933044992,2022-01-03-14:42:54,10.1.1.11,188,0.000,0.000,0.000,0.000,0.000,0.000
1641220975342708992,2022-01-03-14:42:55,10.1.1.11,194,-0.020,-0.020,-0.020,0.000,0.000,0.000
1641220975736620032,2022-01-03-14:42:55,10.1.1.11,187,-0.040,-0.040,-0.040,0.000,0.000,0.000
1641220975952183040,2022-01-03-14:42:55,10.1.1.11,200,-0.050,-0.050,-0.050,0.000,0.000,0.000
1641220976143170048,2022-01-03-14:42:56,10.1.1.11,190,-0.060,-0.060,-0.060,0.000,0.000,0.000
1641220976332060160,2022-01-03-14:42:56,10.1.1.11,178,-0.070,-0.070,-0.070,0.000,0.000,0.000
1641220976552248832,2022-01-03-14:42:56,10.1.1.11,198,-0.080,-0.080,-0.080,0.000,0.000,0.000
1641220976742594048,2022-01-03-14:42:56,10.1.1.11,187,-0.090,-0.090,-0.090,0.000,0.000,0.000
1641220976941720064,2022-01-03-14:42:56,10.1.1.11,184,-0.100,-0.100,-0.100,0.000,0.000,0.000
1641220977141074944,2022-01-03-14:42:57,10.1.1.11,182,-0.110,-0.110,-0.110,0.000,0.000,0.000
1641220977350806016,2022-01-03-14:42:57,10.1.1.11,191,-0.120,-0.120,-0.120,0.000,0.000,0.000
1641220977540642048,2022-01-03-14:42:57,10.1.1.11,180,-0.130,-0.130,-0.130,0.000,0.000,0.000
1641220977751694080,2022-01-03-14:42:57,10.1.1.11,191,-0.140,-0.140,-0.140,0.000,0.000,0.000
1641220977943231232,2022-01-03-14:42:57,10.1.1.11,182,-0.150,-0.150,-0.150,0.000,0.000,0.000
1641220978150796032,2022-01-03-14:42:58,10.1.1.11,188,-0.160,-0.160,-0.160,0.000,0.000,0.000
1641220978351090944,2022-01-03-14:42:58,10.1.1.11,189,-0.170,-0.170,-0.170,0.000,0.000,0.000
1641220978549366016,2022-01-03-14:42:58,10.1.1.11,186,-0.180,-0.180,-0.180,0.000,0.000,0.000
1641220978748899840,2022-01-03-14:42:58,10.1.1.11,184,-0.190,-0.190,-0.190,0.000,0.000,0.000
1641220978961548032,2022-01-03-14:42:58,10.1.1.11,194,-0.200,-0.200,-0.200,0.000,0.000,0.000
1641220979349401088,2022-01-03-14:42:59,10.1.1.11,182,-0.220,-0.220,-0.220,0.000,0.000,0.000
1641220979548795904,2022-01-03-14:42:59,10.1.1.11,181,-0.230,-0.230,-0.230,0.000,0.000,0.000
1641220979768451072,2022-01-03-14:42:59,10.1.1.11,199,-0.240,-0.240,-0.240,0.000,0.000,0.000
1641220979968038912,2022-01-03-14:42:59,10.1.1.11,198,-0.250,-0.250,-0.250,0.000,0.000,0.000
1641220980147772160,2022-01-03-14:43:00,10.1.1.11,177,-0.260,-0.260,-0.260,0.000,0.000,0.000
1641220980367831040,2022-01-03-14:43:00,10.1.1.11,196,-0.270,-0.270,-0.270,0.000,0.000,0.000
1641220980547403008,2022-01-03-14:43:00,10.1.1.11,175,-0.280,-0.280,-0.280,0.000,0.000,0.000
1641220980766984960,2022-01-03-14:43:00,10.1.1.11,193,-0.290,-0.290,-0.290,0.000,0.000,0.000
1641220980966219008,2022-01-03-14:43:00,10.1.1.11,192,-0.300,-0.300,-0.300,0.000,0.000,0.000
1641220981167449088,2022-01-03-14:43:01,10.1.1.11,192,-0.310,-0.310,-0.310,0.000,0.000,0.000
1641220981366533888,2022-01-03-14:43:01,10.1.1.11,191,-0.320,-0.320,-0.320,0.000,0.000,0.000
1641220981570002176,2022-01-03-14:43:01,10.1.1.11,191,-0.330,-0.330,-0.330,0.000,0.000,0.000
1641220981765809152,2022-01-03-14:43:01,10.1.1.11,181,-0.340,-0.340,-0.340,0.000,0.000,0.000
1641220981965938944,2022-01-03-14:43:01,10.1.1.11,180,-0.350,-0.350,-0.350,0.000,0.000,0.000
1641220982165252864,2022-01-03-14:43:02,10.1.1.11,179,-0.360,-0.360,-0.360,0.000,0.000,0.000
1641220982384722944,2022-01-03-14:43:02,10.1.1.11,198,-0.370,-0.370,-0.370,0.000,0.000,0.000
1641220982575527936,2022-01-03-14:43:02,10.1.1.11,188,-0.380,-0.380,-0.380,0.000,0.000,0.000
1641220982765410048,2022-01-03-14:43:02,10.1.1.11,177,-0.390,-0.390,-0.390,0.000,0.000,0.000
1641220982965424896,2022-01-03-14:43:02,10.1.1.11,177,-0.400,-0.400,-0.400,0.000,0.000,0.000
1641220983164318208,2022-01-03-14:43:03,10.1.1.11,175,-0.410,-0.410,-0.410,0.000,0.000,0.000
1641220983377076992,2022-01-03-14:43:03,10.1.1.11,187,-0.420,-0.420,-0.420,0.000,0.000,0.000
1641220983585573888,2022-01-03-14:43:03,10.1.1.11,195,-0.430,-0.430,-0.430,0.000,0.000,0.000
1641220983775120128,2022-01-03-14:43:03,10.1.1.11,184,-0.440,-0.440,-0.440,0.000,0.000,0.000
1641220983983365120,2022-01-03-14:43:03,10.1.1.11,191,-0.450,-0.450,-0.450,0.000,0.000,0.000
1641220984163012096,2022-01-03-14:43:04,10.1.1.11,170,-0.460,-0.460,-0.460,0.000,0.000,0.000
1641220984382471936,2022-01-03-14:43:04,10.1.1.11,189,-0.470,-0.470,-0.470,0.000,0.000,0.000
1641220984562340096,2022-01-03-14:43:04,10.1.1.11,168,-0.480,-0.480,-0.480,0.000,0.000,0.000
1641220984604154112,2022-01-03-14:43:04,10.1.1.11,-1,-0.480,-0.480,-0.480,0.000,0.000,0.000
1641220984981908992,2022-01-03-14:43:04,10.1.1.11,178,-0.480,-0.480,-0.480,0.000,0.000,0.000
1641220985174816000,2022-01-03-14:43:05,10.1.1.11,170,-0.470,-0.470,-0.470,0.000,0.000,0.000
1641220985401922816,2022-01-03-14:43:05,10.1.1.11,197,-0.460,-0.460,-0.460,0.000,0.000,0.000
1641220985582614784,2022-01-03-14:43:05,10.1.1.11,177,-0.450,-0.450,-0.450,0.000,0.000,0.000
1641220985781307904,2022-01-03-14:43:05,10.1.1.11,175,-0.440,-0.440,-0.440,0.000,0.000,0.000
1641220985999958016,2022-01-03-14:43:05,10.1.1.11,193,-0.430,-0.430,-0.430,0.000,0.000,0.000
1641220986179709952,2022-01-03-14:43:06,10.1.1.11,171,-0.420,-0.420,-0.420,0.000,0.000,0.000
1641220986399846144,2022-01-03-14:43:06,10.1.1.11,191,-0.410,-0.410,-0.410,0.000,0.000,0.000
1641220986599246080,2022-01-03-14:43:06,10.1.1.11,189,-0.400,-0.400,-0.400,0.000,0.000,0.000
1641220986779382016,2022-01-03-14:43:06,10.1.1.11,169,-0.390,-0.390,-0.390,0.000,0.000,0.000
1641220986980699904,2022-01-03-14:43:06,10.1.1.11,170,-0.380,-0.380,-0.380,0.000,0.000,0.000
1641220987188403968,2022-01-03-14:43:07,10.1.1.11,177,-0.370,-0.370,-0.370,0.000,0.000,0.000
1641220987399427840,2022-01-03-14:43:07,10.1.1.11,186,-0.360,-0.360,-0.360,0.000,0.000,0.000
1641220987598361856,2022-01-03-14:43:07,10.1.1.11,185,-0.350,-0.350,-0.350,0.000,0.000,0.000
1641220987777387008,2022-01-03-14:43:07,10.1.1.11,164,-0.340,-0.340,-0.340,0.000,0.000,0.000
1641220987997381888,2022-01-03-14:43:07,10.1.1.11,180,-0.330,-0.330,-0.330,0.000,0.000,0.000
1641220988186777088,2022-01-03-14:43:08,10.1.1.11,169,-0.320,-0.320,-0.320,0.000,0.000,0.000
1641220988388026880,2022-01-03-14:43:08,10.1.1.11,170,-0.310,-0.310,-0.310,0.000,0.000,0.000
1641220988596152064,2022-01-03-14:43:08,10.1.1.11,176,-0.300,-0.300,-0.300,0.000,0.000,0.000
1641220988796109056,2022-01-03-14:43:08,10.1.1.11,174,-0.290,-0.290,-0.290,0.000,0.000,0.000
1641220988987719168,2022-01-03-14:43:08,10.1.1.11,166,-0.280,-0.280,-0.280,0.000,0.000,0.000
1641220989196621056,2022-01-03-14:43:09,10.1.1.11,174,-0.270,-0.270,-0.270,0.000,0.000,0.000
1641220989406460928,2022-01-03-14:43:09,10.1.1.11,183,-0.260,-0.260,-0.260,0.000,0.000,0.000
1641220989595418880,2022-01-03-14:43:09,10.1.1.11,171,-0.250,-0.250,-0.250,0.000,0.000,0.000
1641220989804470016,2022-01-03-14:43:09,10.1.1.11,180,-0.240,-0.240,-0.240,0.000,0.000,0.000
1641220990004623872,2022-01-03-14:43:10,10.1.1.11,180,-0.230,-0.230,-0.230,0.000,0.000,0.000
1641220990203470080,2022-01-03-14:43:10,10.1.1.11,178,-0.220,-0.220,-0.220,0.000,0.000,0.000
1641220990401273856,2022-01-03-14:43:10,10.1.1.11,170,-0.210,-0.210,-0.210,0.000,0.000,0.000
1641220990604461056,2022-01-03-14:43:10,10.1.1.11,175,-0.200,-0.200,-0.200,0.000,0.000,0.000
1641220990814380800,2022-01-03-14:43:10,10.1.1.11,185,-0.190,-0.190,-0.190,0.000,0.000,0.000
1641220991002846976,2022-01-03-14:43:11,10.1.1.11,161,-0.180,-0.180,-0.180,0.000,0.000,0.000
1641220991205081856,2022-01-03-14:43:11,10.1.1.11,162,-0.170,-0.170,-0.170,0.000,0.000,0.000
1641220991402086912,2022-01-03-14:43:11,10.1.1.11,159,-0.160,-0.160,-0.160,0.000,0.000,0.000
1641220991603132928,2022-01-03-14:43:11,10.1.1.11,159,-0.150,-0.150,-0.150,0.000,0.000,0.000
1641220991831281920,2022-01-03-14:43:11,10.1.1.11,187,-0.140,-0.140,-0.140,0.000,0.000,0.000
1641220992021604096,2022-01-03-14:43:12,10.1.1.11,176,-0.130,-0.130,-0.130,0.000,0.000,0.000
1641220992220323072,2022-01-03-14:43:12,10.1.1.11,173,-0.120,-0.120,-0.120,0.000,0.000,0.000
1641220992420509184,2022-01-03-14:43:12,10.1.1.11,172,-0.110,-0.110,-0.110,0.000,0.000,0.000
1641220992619923968,2022-01-03-14:43:12,10.1.1.11,171,-0.100,-0.100,-0.100,0.000,0.000,0.000
1641220992819610112,2022-01-03-14:43:12,10.1.1.11,169,-0.090,-0.090,-0.090,0.000,0.000,0.000
1641220993029694208,2022-01-03-14:43:13,10.1.1.11,179,-0.080,-0.080,-0.080,0.000,0.000,0.000
1641220993242230784,2022-01-03-14:43:13,10.1.1.11,175,-0.070,-0.070,-0.070,0.000,0.000,0.000
1641220993452354816,2022-01-03-14:43:13,10.1.1.11,183,-0.060,-0.060,-0.060,0.000,0.000,0.000
1641220993652750848,2022-01-03-14:43:13,10.1.1.11,183,-0.050,-0.050,-0.050,0.000,0.000,0.000
1641220993847755008,2022-01-03-14:43:13,10.1.1.11,173,-0.040,-0.040,-0.040,0.000,0.000,0.000
1641220994054956032,2022-01-03-14:43:14,10.1.1.11,179,-0.030,-0.030,-0.030,0.000,0.000,0.000
1641220994255759872,2022-01-03-14:43:14,10.1.1.11,178,-0.020,-0.020,-0.020,0.000,0.000,0.000
1641220994446767104,2022-01-03-14:43:14,10.1.1.11,169,-0.010,-0.010,-0.010,0.000,0.000,0.000
1641220994657785856,2022-01-03-14:43:14,10.1.1.11,179,0.000,0.000,0.000,0.000,0.000,0.000
1641220994858362880,2022-01-03-14:43:14,10.1.1.11,178,-0.010,-0.010,-0.010,0.000,0.000,0.000
1641220995059612160,2022-01-03-14:43:15,10.1.1.11,179,-0.020,-0.020,-0.020,0.000,0.000,0.000
1641220995265799936,2022-01-03-14:43:15,10.1.1.11,184,-0.030,-0.030,-0.030,0.000,0.000,0.000
1641220995460442112,2022-01-03-14:43:15,10.1.1.11,178,-0.040,-0.040,-0.040,0.000,0.000,0.000
1641220995660840960,2022-01-03-14:43:15,10.1.1.11,177,-0.050,-0.050,-0.050,0.000,0.000,0.000
1641220995882468864,2022-01-03-14:43:15,10.1.1.11,198,-0.060,-0.060,-0.060,0.000,0.000,0.000
1641220996083208192,2022-01-03-14:43:16,10.1.1.11,198,-0.070,-0.070,-0.070,0.000,0.000,0.000
1641220996273268992,2022-01-03-14:43:16,10.1.1.11,187,-0.080,-0.080,-0.080,0.000,0.000,0.000
1641220996474499072,2022-01-03-14:43:16,10.1.1.11,184,-0.090,-0.090,-0.090,0.000,0.000,0.000
1641220996685486080,2022-01-03-14:43:16,10.1.1.11,195,-0.100,-0.100,-0.100,0.000,0.000,0.000
1641220996875493888,2022-01-03-14:43:16,10.1.1.11,185,-0.110,-0.110,-0.110,0.000,0.000,0.000
1641220997066294784,2022-01-03-14:43:17,10.1.1.11,175,-0.120,-0.120,-0.120,0.000,0.000,0.000
1641220997276806144,2022-01-03-14:43:17,10.1.1.11,185,-0.130,-0.130,-0.130,0.000,0.000,0.000
1641220997469593088,2022-01-03-14:43:17,10.1.1.11,175,-0.140,-0.140,-0.140,0.000,0.000,0.000
1641220997667438080,2022-01-03-14:43:17,10.1.1.11,173,-0.150,-0.150,-0.150,0.000,0.000,0.000
1641220997880578048,2022-01-03-14:43:17,10.1.1.11,186,-0.160,-0.160,-0.160,0.000,0.000,0.000
1641220998079236096,2022-01-03-14:43:18,10.1.1.11,183,-0.170,-0.170,-0.170,0.000,0.000,0.000
1641220998278812928,2022-01-03-14:43:18,10.1.1.11,183,-0.180,-0.180,-0.180,0.000,0.000,0.000
1641220998490333184,2022-01-03-14:43:18,10.1.1.11,193,-0.190,-0.190,-0.190,0.000,0.000,0.000
1641220998692312064,2022-01-03-14:43:18,10.1.1.11,187,-0.200,-0.200,-0.200,0.000,0.000,0.000
1641220999090384896,2022-01-03-14:43:19,10.1.1.11,184,-0.220,-0.220,-0.220,0.000,0.000,0.000
1641220999290039040,2022-01-03-14:43:19,10.1.1.11,184,-0.230,-0.230,-0.230,0.000,0.000,0.000
1641220999492194816,2022-01-03-14:43:19,10.1.1.11,185,-0.240,-0.240,-0.240,0.000,0.000,0.000
1641220999691190016,2022-01-03-14:43:19,10.1.1.11,184,-0.250,-0.250,-0.250,0.000,0.000,0.000
1641220999896334848,2022-01-03-14:43:19,10.1.1.11,188,-0.260,-0.260,-0.260,0.000,0.000,0.000
1641221000091645952,2022-01-03-14:43:20,10.1.1.11,183,-0.270,-0.270,-0.270,0.000,0.000,0.000
1641221000303552000,2022-01-03-14:43:20,10.1.1.11,192,-0.280,-0.280,-0.280,0.000,0.000,0.000
1641221000492489984,2022-01-03-14:43:20,10.1.1.11,181,-0.290,-0.290,-0.290,0.000,0.000,0.000
1641221000702706944,2022-01-03-14:43:20,10.1.1.11,188,-0.300,-0.300,-0.300,0.000,0.000,0.000
1641221000902632960,2022-01-03-14:43:20,10.1.1.11,187,-0.310,-0.310,-0.310,0.000,0.000,0.000
1641221001102906112,2022-01-03-14:43:21,10.1.1.11,187,-0.320,-0.320,-0.320,0.000,0.000,0.000
1641221001303235072,2022-01-03-14:43:21,10.1.1.11,186,-0.330,-0.330,-0.330,0.000,0.000,0.000
1641221001513370880,2022-01-03-14:43:21,10.1.1.11,195,-0.340,-0.340,-0.340,0.000,0.000,0.000
1641221001705398016,2022-01-03-14:43:21,10.1.1.11,187,-0.350,-0.350,-0.350,0.000,0.000,0.000
1641221001913896192,2022-01-03-14:43:21,10.1.1.11,193,-0.360,-0.360,-0.360,0.000,0.000,0.000
1641221002103717120,2022-01-03-14:43:22,10.1.1.11,182,-0.370,-0.370,-0.370,0.000,0.000,0.000
1641221002313894144,2022-01-03-14:43:22,10.1.1.11,192,-0.380,-0.380,-0.380,0.000,0.000,0.000
1641221002504580096,2022-01-03-14:43:22,10.1.1.11,182,-0.390,-0.390,-0.390,0.000,0.000,0.000
1641221002715922944,2022-01-03-14:43:22,10.1.1.11,193,-0.400,-0.400,-0.400,0.000,0.000,0.000
1641221002914401024,2022-01-03-14:43:22,10.1.1.11,191,-0.410,-0.410,-0.410,0.000,0.000,0.000
1641221003104320000,2022-01-03-14:43:23,10.1.1.11,180,-0.420,-0.420,-0.420,0.000,0.000,0.000
1641221003314363904,2022-01-03-14:43:23,10.1.1.11,189,-0.430,-0.430,-0.430,0.000,0.000,0.000
1641221003515446784,2022-01-03-14:43:23,10.1.1.11,189,-0.440,-0.440,-0.440,0.000,0.000,0.000
1641221003713490944,2022-01-03-14:43:23,10.1.1.11,188,-0.450,-0.450,-0.450,0.000,0.000,0.000
1641221003917030144,2022-01-03-14:43:23,10.1.1.11,191,-0.460,-0.460,-0.460,0.000,0.000,0.000
1641221004124294144,2022-01-03-14:43:24,10.1.1.11,196,-0.470,-0.470,-0.470,0.000,0.000,0.000
1641221004543826176,2022-01-03-14:43:24,10.1.1.11,198,-0.490,-0.490,-0.490,0.000,0.000,0.000
1641221005134126848,2022-01-03-14:43:25,10.1.1.11,182,-0.460,-0.460,-0.460,0.000,0.000,0.000
1641221005544845056,2022-01-03-14:43:25,10.1.1.11,192,-0.440,-0.440,-0.440,0.000,0.000,0.000
1641221006144155904,2022-01-03-14:43:26,10.1.1.11,190,-0.410,-0.410,-0.410,0.000,0.000,0.000
1641221006354145024,2022-01-03-14:43:26,10.1.1.11,198,-0.400,-0.400,-0.400,0.000,0.000,0.000
1641221006543788800,2022-01-03-14:43:26,10.1.1.11,187,-0.390,-0.390,-0.390,0.000,0.000,0.000
1641221006746247168,2022-01-03-14:43:26,10.1.1.11,189,-0.380,-0.380,-0.380,0.000,0.000,0.000
1641221006944408064,2022-01-03-14:43:26,10.1.1.11,185,-0.370,-0.370,-0.370,0.000,0.000,0.000
1641221007153217024,2022-01-03-14:43:27,10.1.1.11,193,-0.360,-0.360,-0.360,0.000,0.000,0.000
1641221007353917952,2022-01-03-14:43:27,10.1.1.11,193,-0.350,-0.350,-0.350,0.000,0.000,0.000
1641221007542795008,2022-01-03-14:43:27,10.1.1.11,180,-0.340,-0.340,-0.340,0.000,0.000,0.000
1641221007763501824,2022-01-03-14:43:27,10.1.1.11,197,-0.330,-0.330,-0.330,0.000,0.000,0.000
1641221007964495872,2022-01-03-14:43:27,10.1.1.11,198,-0.320,-0.320,-0.320,0.000,0.000,0.000
1641221008167963136,2022-01-03-14:43:28,10.1.1.11,200,-0.310,-0.310,-0.310,0.000,0.000,0.000
1641221008360078080,2022-01-03-14:43:28,10.1.1.11,183,-0.300,-0.300,-0.300,0.000,0.000,0.000
1641221008567083008,2022-01-03-14:43:28,10.1.1.11,195,-0.290,-0.290,-0.290,0.000,0.000,0.000
1641221008771499008,2022-01-03-14:43:28,10.1.1.11,199,-0.280,-0.280,-0.280,0.000,0.000,0.000
1641221008952502016,2022-01-03-14:43:28,10.1.1.11,180,-0.270,-0.270,-0.270,0.000,0.000,0.000
1641221009152574976,2022-01-03-14:43:29,10.1.1.11,179,-0.260,-0.260,-0.260,0.000,0.000,0.000
1641221009373466880,2022-01-03-14:43:29,10.1.1.11,199,-0.250,-0.250,-0.250,0.000,0.000,0.000
1641221009562138112,2022-01-03-14:43:29,10.1.1.11,188,-0.240,-0.240,-0.240,0.000,0.000,0.000
1641221009761656064,2022-01-03-14:43:29,10.1.1.11,185,-0.230,-0.230,-0.230,0.000,0.000,0.000
1641221009960787968,2022-01-03-14:43:29,10.1.1.11,184,-0.220,-0.220,-0.220,0.000,0.000,0.000
1641221010161971968,2022-01-03-14:43:30,10.1.1.11,180,-0.210,-0.210,-0.210,0.000,0.000,0.000
1641221010570807040,2022-01-03-14:43:30,10.1.1.11,185,-0.190,-0.190,-0.190,0.000,0.000,0.000
1641221010981078016,2022-01-03-14:43:30,10.1.1.11,192,-0.170,-0.170,-0.170,0.000,0.000,0.000
1641221011189537024,2022-01-03-14:43:31,10.1.1.11,199,-0.160,-0.160,-0.160,0.000,0.000,0.000
1641221011370460160,2022-01-03-14:43:31,10.1.1.11,178,-0.150,-0.150,-0.150,0.000,0.000,0.000
1641221011589123840,2022-01-03-14:43:31,10.1.1.11,194,-0.140,-0.140,-0.140,0.000,0.000,0.000
1641221011788791808,2022-01-03-14:43:31,10.1.1.11,193,-0.130,-0.130,-0.130,0.000,0.000,0.000
1641221011989308160,2022-01-03-14:43:31,10.1.1.11,193,-0.120,-0.120,-0.120,0.000,0.000,0.000
1641221012180043008,2022-01-03-14:43:32,10.1.1.11,183,-0.110,-0.110,-0.110,0.000,0.000,0.000
1641221012389044992,2022-01-03-14:43:32,10.1.1.11,191,-0.100,-0.100,-0.100,0.000,0.000,0.000
1641221012592622080,2022-01-03-14:43:32,10.1.1.11,194,-0.090,-0.090,-0.090,0.000,0.000,0.000
1641221012788361984,2022-01-03-14:43:32,10.1.1.11,189,-0.080,-0.080,-0.080,0.000,0.000,0.000
1641221012987688192,2022-01-03-14:43:32,10.1.1.11,188,-0.070,-0.070,-0.070,0.000,0.000,0.000
1641221013187674880,2022-01-03-14:43:33,10.1.1.11,186,-0.060,-0.060,-0.060,0.000,0.000,0.000
1641221013387000064,2022-01-03-14:43:33,10.1.1.11,185,-0.050,-0.050,-0.050,0.000,0.000,0.000
1641221013592321024,2022-01-03-14:43:33,10.1.1.11,189,-0.040,-0.040,-0.040,0.000,0.000,0.000
1641221013787173120,2022-01-03-14:43:33,10.1.1.11,182,-0.030,-0.030,-0.030,0.000,0.000,0.000
1641221013988462848,2022-01-03-14:43:33,10.1.1.11,183,-0.020,-0.020,-0.020,0.000,0.000,0.000
1641221014187557888,2022-01-03-14:43:34,10.1.1.11,182,-0.010,-0.010,-0.010,0.000,0.000,0.000
1641221014388151040,2022-01-03-14:43:34,10.1.1.11,181,0.000,0.000,0.000,0.000,0.000,0.000
1641221014596067072,2022-01-03-14:43:34,10.1.1.11,187,-0.010,-0.010,-0.010,0.000,0.000,0.000
1641221014792371968,2022-01-03-14:43:34,10.1.1.11,182,-0.020,-0.020,-0.020,0.000,0.000,0.000
1641221014984736000,2022-01-03-14:43:34,10.1.1.11,174,-0.030,-0.030,-0.030,0.000,0.000,0.000
1641221015184727808,2022-01-03-14:43:35,10.1.1.11,173,-0.040,-0.040,-0.040,0.000,0.000,0.000
1641221015386352128,2022-01-03-14:43:35,10.1.1.11,173,-0.050,-0.050,-0.050,0.000,0.000,0.000
1641221015584107008,2022-01-03-14:43:35,10.1.1.11,171,-0.060,-0.060,-0.060,0.000,0.000,0.000
1641221015801160960,2022-01-03-14:43:35,10.1.1.11,188,-0.070,-0.070,-0.070,0.000,0.000,0.000
1641221015994868992,2022-01-03-14:43:35,10.1.1.11,181,-0.080,-0.080,-0.080,0.000,0.000,0.000
1641221016204197888,2022-01-03-14:43:36,10.1.1.11,189,-0.090,-0.090,-0.090,0.000,0.000,0.000
1641221016400119040,2022-01-03-14:43:36,10.1.1.11,184,-0.100,-0.100,-0.100,0.000,0.000,0.000
1641221016592992000,2022-01-03-14:43:36,10.1.1.11,176,-0.110,-0.110,-0.110,0.000,0.000,0.000
1641221016792960768,2022-01-03-14:43:36,10.1.1.11,175,-0.120,-0.120,-0.120,0.000,0.000,0.000
1641221017013340928,2022-01-03-14:43:37,10.1.1.11,179,-0.130,-0.130,-0.130,0.000,0.000,0.000
1641221017212626944,2022-01-03-14:43:37,10.1.1.11,178,-0.140,-0.140,-0.140,0.000,0.000,0.000
1641221017412059904,2022-01-03-14:43:37,10.1.1.11,177,-0.150,-0.150,-0.150,0.000,0.000,0.000
1641221017622076928,2022-01-03-14:43:37,10.1.1.11,186,-0.160,-0.160,-0.160,0.000,0.000,0.000
1641221017811907072,2022-01-03-14:43:37,10.1.1.11,174,-0.170,-0.170,-0.170,0.000,0.000,0.000
1641221018011923968,2022-01-03-14:43:38,10.1.1.11,174,-0.180,-0.180,-0.180,0.000,0.000,0.000
1641221018211399936,2022-01-03-14:43:38,10.1.1.11,173,-0.190,-0.190,-0.190,0.000,0.000,0.000
1641221018410661888,2022-01-03-14:43:38,10.1.1.11,172,-0.200,-0.200,-0.200,0.000,0.000,0.000
1641221018610588160,2022-01-03-14:43:38,10.1.1.11,171,-0.210,-0.210,-0.210,0.000,0.000,0.000
1641221018809830912,2022-01-03-14:43:38,10.1.1.11,170,-0.220,-0.220,-0.220,0.000,0.000,0.000
1641221019027277056,2022-01-03-14:43:39,10.1.1.11,185,-0.230,-0.230,-0.230,0.000,0.000,0.000
1641221019209819136,2022-01-03-14:43:39,10.1.1.11,168,-0.240,-0.240,-0.240,0.000,0.000,0.000
1641221019408928000,2022-01-03-14:43:39,10.1.1.11,167,-0.250,-0.250,-0.250,0.000,0.000,0.000
1641221019618489856,2022-01-03-14:43:39,10.1.1.11,176,-0.260,-0.260,-0.260,0.000,0.000,0.000
1641221019828943872,2022-01-03-14:43:39,10.1.1.11,183,-0.270,-0.270,-0.270,0.000,0.000,0.000
1641221020028271872,2022-01-03-14:43:40,10.1.1.11,181,-0.280,-0.280,-0.280,0.000,0.000,0.000
1641221020217910016,2022-01-03-14:43:40,10.1.1.11,170,-0.290,-0.290,-0.290,0.000,0.000,0.000
1641221020428279040,2022-01-03-14:43:40,10.1.1.11,180,-0.300,-0.300,-0.300,0.000,0.000,0.000
1641221020638153984,2022-01-03-14:43:40,10.1.1.11,189,-0.310,-0.310,-0.310,0.000,0.000,0.000
1641221020816752896,2022-01-03-14:43:40,10.1.1.11,167,-0.320,-0.320,-0.320,0.000,0.000,0.000
1641221021027322112,2022-01-03-14:43:41,10.1.1.11,176,-0.330,-0.330,-0.330,0.000,0.000,0.000
1641221021228039936,2022-01-03-14:43:41,10.1.1.11,176,-0.340,-0.340,-0.340,0.000,0.000,0.000
1641221021426214912,2022-01-03-14:43:41,10.1.1.11,174,-0.350,-0.350,-0.350,0.000,0.000,0.000
1641221021615289088,2022-01-03-14:43:41,10.1.1.11,162,-0.360,-0.360,-0.360,0.000,0.000,0.000
1641221021834621952,2022-01-03-14:43:41,10.1.1.11,181,-0.370,-0.370,-0.370,0.000,0.000,0.000
1641221022026294016,2022-01-03-14:43:42,10.1.1.11,170,-0.380,-0.380,-0.380,0.000,0.000,0.000
1641221022238273024,2022-01-03-14:43:42,10.1.1.11,178,-0.390,-0.390,-0.390,0.000,0.000,0.000
1641221022424438016,2022-01-03-14:43:42,10.1.1.11,162,-0.400,-0.400,-0.400,0.000,0.000,0.000
1641221022634360064,2022-01-03-14:43:42,10.1.1.11,172,-0.410,-0.410,-0.410,0.000,0.000,0.000
1641221022824075008,2022-01-03-14:43:42,10.1.1.11,161,-0.420,-0.420,-0.420,0.000,0.000,0.000
1641221023033318912,2022-01-03-14:43:43,10.1.1.11,168,-0.430,-0.430,-0.430,0.000,0.000,0.000
1641221023233508096,2022-01-03-14:43:43,10.1.1.11,167,-0.440,-0.440,-0.440,0.000,0.000,0.000
1641221023452635904,2022-01-03-14:43:43,10.1.1.11,185,-0.450,-0.450,-0.450,0.000,0.000,0.000
1641221023632282112,2022-01-03-14:43:43,10.1.1.11,163,-0.460,-0.460,-0.460,0.000,0.000,0.000
1641221023832252928,2022-01-03-14:43:43,10.1.1.11,163,-0.470,-0.470,-0.470,0.000,0.000,0.000
1641221024033406976,2022-01-03-14:43:44,10.1.1.11,163,-0.480,-0.480,-0.480,0.000,0.000,0.000
1641221024251699968,2022-01-03-14:43:44,10.1.1.11,180,-0.490,-0.490,-0.490,0.000,0.000,0.000
1641221024451392768,2022-01-03-14:43:44,10.1.1.11,172,-0.480,-0.480,-0.480,0.000,0.000,0.000
1641221024646745088,2022-01-03-14:43:44,10.1.1.11,167,-0.470,-0.470,-0.470,0.000,0.000,0.000
1641221024850483968,2022-01-03-14:43:44,10.1.1.11,170,-0.460,-0.460,-0.460,0.000,0.000,0.000
1641221025051002112,2022-01-03-14:43:45,10.1.1.11,170,-0.450,-0.450,-0.450,0.000,0.000,0.000
1641221025251741952,2022-01-03-14:43:45,10.1.1.11,170,-0.440,-0.440,-0.440,0.000,0.000,0.000
1641221025461539072,2022-01-03-14:43:45,10.1.1.11,179,-0.430,-0.430,-0.430,0.000,0.000,0.000
1641221025643867904,2022-01-03-14:43:45,10.1.1.11,161,-0.420,-0.420,-0.420,0.000,0.000,0.000
1641221025844942080,2022-01-03-14:43:45,10.1.1.11,161,-0.410,-0.410,-0.410,0.000,0.000,0.000
1641221026070779136,2022-01-03-14:43:46,10.1.1.11,185,-0.400,-0.400,-0.400,0.000,0.000,0.000
1641221026266834944,2022-01-03-14:43:46,10.1.1.11,181,-0.390,-0.390,-0.390,0.000,0.000,0.000
1641221026468077056,2022-01-03-14:43:46,10.1.1.11,181,-0.380,-0.380,-0.380,0.000,0.000,0.000
1641221026659190784,2022-01-03-14:43:46,10.1.1.11,171,-0.370,-0.370,-0.370,0.000,0.000,0.000
1641221026879410944,2022-01-03-14:43:46,10.1.1.11,184,-0.360,-0.360,-0.360,0.000,0.000,0.000
1641221027080236800,2022-01-03-14:43:47,10.1.1.11,183,-0.350,-0.350,-0.350,0.000,0.000,0.000
1641221027280720896,2022-01-03-14:43:47,10.1.1.11,183,-0.340,-0.340,-0.340,0.000,0.000,0.000
1641221027481988864,2022-01-03-14:43:47,10.1.1.11,184,-0.330,-0.330,-0.330,0.000,0.000,0.000
1641221027672472064,2022-01-03-14:43:47,10.1.1.11,174,-0.320,-0.320,-0.320,0.000,0.000,0.000
1641221027873187072,2022-01-03-14:43:47,10.1.1.11,173,-0.310,-0.310,-0.310,0.000,0.000,0.000
1641221028083663872,2022-01-03-14:43:48,10.1.1.11,182,-0.300,-0.300,-0.300,0.000,0.000,0.000
1641221028275321088,2022-01-03-14:43:48,10.1.1.11,173,-0.290,-0.290,-0.290,0.000,0.000,0.000
1641221028486412032,2022-01-03-14:43:48,10.1.1.11,183,-0.280,-0.280,-0.280,0.000,0.000,0.000
1641221028675076096,2022-01-03-14:43:48,10.1.1.11,171,-0.270,-0.270,-0.270,0.000,0.000,0.000
1641221028885968896,2022-01-03-14:43:48,10.1.1.11,181,-0.260,-0.260,-0.260,0.000,0.000,0.000
1641221029287036928,2022-01-03-14:43:49,10.1.1.11,181,-0.240,-0.240,-0.240,0.000,0.000,0.000
1641221029507465984,2022-01-03-14:43:49,10.1.1.11,201,-0.230,-0.230,-0.230,0.000,0.000,0.000
1641221029687822080,2022-01-03-14:43:49,10.1.1.11,180,-0.220,-0.220,-0.220,0.000,0.000,0.000
1641221029908514048,2022-01-03-14:43:49,10.1.1.11,200,-0.210,-0.210,-0.210,0.000,0.000,0.000
1641221030089030912,2022-01-03-14:43:50,10.1.1.11,179,-0.200,-0.200,-0.200,0.000,0.000,0.000
1641221030289256192,2022-01-03-14:43:50,10.1.1.11,179,-0.190,-0.190,-0.190,0.000,0.000,0.000
1641221030500860928,2022-01-03-14:43:50,10.1.1.11,189,-0.180,-0.180,-0.180,0.000,0.000,0.000
1641221030690924032,2022-01-03-14:43:50,10.1.1.11,179,-0.170,-0.170,-0.170,0.000,0.000,0.000
1641221030889980160,2022-01-03-14:43:50,10.1.1.11,177,-0.160,-0.160,-0.160,0.000,0.000,0.000
1641221031090372096,2022-01-03-14:43:51,10.1.1.11,177,-0.150,-0.150,-0.150,0.000,0.000,0.000
1641221031303915008,2022-01-03-14:43:51,10.1.1.11,188,-0.140,-0.140,-0.140,0.000,0.000,0.000
1641221031502350080,2022-01-03-14:43:51,10.1.1.11,186,-0.130,-0.130,-0.130,0.000,0.000,0.000
1641221031716235008,2022-01-03-14:43:51,10.1.1.11,199,-0.120,-0.120,-0.120,0.000,0.000,0.000
1641221031902574080,2022-01-03-14:43:51,10.1.1.11,184,-0.110,-0.110,-0.110,0.000,0.000,0.000
1641221032102420992,2022-01-03-14:43:52,10.1.1.11,184,-0.100,-0.100,-0.100,0.000,0.000,0.000
1641221032313030912,2022-01-03-14:43:52,10.1.1.11,181,-0.090,-0.090,-0.090,0.000,0.000,0.000
1641221032932995072,2022-01-03-14:43:52,10.1.1.11,184,-0.060,-0.060,-0.060,0.000,0.000,0.000
1641221033152430080,2022-01-03-14:43:53,10.1.1.11,-1,-0.050,-0.050,-0.050,0.000,0.000,0.000
1641221033544882176,2022-01-03-14:43:53,10.1.1.11,192,-0.030,-0.030,-0.030,0.000,0.000,0.000
1641221033734693888,2022-01-03-14:43:53,10.1.1.11,180,-0.020,-0.020,-0.020,0.000,0.000,0.000
1641221033954220032,2022-01-03-14:43:53,10.1.1.11,199,-0.010,-0.010,-0.010,0.000,0.000,0.000
1641221034153767936,2022-01-03-14:43:54,10.1.1.11,197,0.000,0.000,0.000,0.000,0.000,0.000
1641221034354604032,2022-01-03-14:43:54,10.1.1.11,196,-0.010,-0.010,-0.010,0.000,0.000,0.000
1641221034554682112,2022-01-03-14:43:54,10.1.1.11,195,-0.020,-0.020,-0.020,0.000,0.000,0.000
1641221034744056064,2022-01-03-14:43:54,10.1.1.11,183,-0.030,-0.030,-0.030,0.000,0.000,0.000
1641221034945374976,2022-01-03-14:43:54,10.1.1.11,184,-0.040,-0.040,-0.040,0.000,0.000,0.000
1641221035154469120,2022-01-03-14:43:55,10.1.1.11,187,-0.050,-0.050,-0.050,0.000,0.000,0.000
1641221035365191936,2022-01-03-14:43:55,10.1.1.11,197,-0.060,-0.060,-0.060,0.000,0.000,0.000
1641221035755342080,2022-01-03-14:43:55,10.1.1.11,182,-0.080,-0.080,-0.080,0.000,0.000,0.000
1641221036365294080,2022-01-03-14:43:56,10.1.1.11,191,-0.110,-0.110,-0.110,0.000,0.000,0.000
1641221036564676096,2022-01-03-14:43:56,10.1.1.11,189,-0.120,-0.120,-0.120,0.000,0.000,0.000
1641221036765458944,2022-01-03-14:43:56,10.1.1.11,189,-0.130,-0.130,-0.130,0.000,0.000,0.000
1641221036976557056,2022-01-03-14:43:56,10.1.1.11,197,-0.140,-0.140,-0.140,0.000,0.000,0.000
1641221037165182976,2022-01-03-14:43:57,10.1.1.11,186,-0.150,-0.150,-0.150,0.000,0.000,0.000
1641221037374479104,2022-01-03-14:43:57,10.1.1.11,195,-0.160,-0.160,-0.160,0.000,0.000,0.000
1641221037565222912,2022-01-03-14:43:57,10.1.1.11,183,-0.170,-0.170,-0.170,0.000,0.000,0.000
1641221037768280064,2022-01-03-14:43:57,10.1.1.11,186,-0.180,-0.180,-0.180,0.000,0.000,0.000
1641221037966682880,2022-01-03-14:43:57,10.1.1.11,183,-0.190,-0.190,-0.190,0.000,0.000,0.000
1641221038185137920,2022-01-03-14:43:58,10.1.1.11,200,-0.200,-0.200,-0.200,0.000,0.000,0.000
1641221038973822976,2022-01-03-14:43:58,10.1.1.11,185,-0.240,-0.240,-0.240,0.000,0.000,0.000
1641221039174198016,2022-01-03-14:43:59,10.1.1.11,185,-0.250,-0.250,-0.250,0.000,0.000,0.000
1641221039383919104,2022-01-03-14:43:59,10.1.1.11,194,-0.260,-0.260,-0.260,0.000,0.000,0.000
1641221039573163008,2022-01-03-14:43:59,10.1.1.11,182,-0.270,-0.270,-0.270,0.000,0.000,0.000
1641221039773540096,2022-01-03-14:43:59,10.1.1.11,182,-0.280,-0.280,-0.280,0.000,0.000,0.000
1641221039985001984,2022-01-03-14:43:59,10.1.1.11,193,-0.290,-0.290,-0.290,0.000,0.000,0.000
1641221040182557952,2022-01-03-14:44:00,10.1.1.11,190,-0.300,-0.300,-0.300,0.000,0.000,0.000
1641221040382754048,2022-01-03-14:44:00,10.1.1.11,189,-0.310,-0.310,-0.310,0.000,0.000,0.000
1641221040582253056,2022-01-03-14:44:00,10.1.1.11,186,-0.320,-0.320,-0.320,0.000,0.000,0.000
1641221040783720960,2022-01-03-14:44:00,10.1.1.11,185,-0.330,-0.330,-0.330,0.000,0.000,0.000
1641221040982183936,2022-01-03-14:44:00,10.1.1.11,182,-0.340,-0.340,-0.340,0.000,0.000,0.000
1641221041181910016,2022-01-03-14:44:01,10.1.1.11,181,-0.350,-0.350,-0.350,0.000,0.000,0.000
1641221041387438080,2022-01-03-14:44:01,10.1.1.11,186,-0.360,-0.360,-0.360,0.000,0.000,0.000
1641221041583038976,2022-01-03-14:44:01,10.1.1.11,181,-0.370,-0.370,-0.370,0.000,0.000,0.000
1641221041792037888,2022-01-03-14:44:01,10.1.1.11,189,-0.380,-0.380,-0.380,0.000,0.000,0.000
1641221041983288064,2022-01-03-14:44:01,10.1.1.11,179,-0.390,-0.390,-0.390,0.000,0.000,0.000
1641221042181710848,2022-01-03-14:44:02,10.1.1.11,178,-0.400,-0.400,-0.400,0.000,0.000,0.000
1641221042391565056,2022-01-03-14:44:02,10.1.1.11,186,-0.410,-0.410,-0.410,0.000,0.000,0.000
1641221042801240832,2022-01-03-14:44:02,10.1.1.11,194,-0.430,-0.430,-0.430,0.000,0.000,0.000
1641221042998728960,2022-01-03-14:44:02,10.1.1.11,191,-0.440,-0.440,-0.440,0.000,0.000,0.000
1641221043189723136,2022-01-03-14:44:03,10.1.1.11,181,-0.450,-0.450,-0.450,0.000,0.000,0.000
1641221043389345024,2022-01-03-14:44:03,10.1.1.11,180,-0.460,-0.460,-0.460,0.000,0.000,0.000
1641221043609517056,2022-01-03-14:44:03,10.1.1.11,199,-0.470,-0.470,-0.470,0.000,0.000,0.000
1641221043789421056,2022-01-03-14:44:03,10.1.1.11,178,-0.480,-0.480,-0.480,0.000,0.000,0.000
1641221043989329152,2022-01-03-14:44:03,10.1.1.11,177,-0.490,-0.490,-0.490,0.000,0.000,0.000
1641221044208817920,2022-01-03-14:44:04,10.1.1.11,193,-0.480,-0.480,-0.480,0.000,0.000,0.000
1641221044398792960,2022-01-03-14:44:04,10.1.1.11,182,-0.470,-0.470,-0.470,0.000,0.000,0.000
1641221044608529920,2022-01-03-14:44:04,10.1.1.11,191,-0.460,-0.460,-0.460,0.000,0.000,0.000
1641221044799296000,2022-01-03-14:44:04,10.1.1.11,181,-0.450,-0.450,-0.450,0.000,0.000,0.000
1641221045008323840,2022-01-03-14:44:05,10.1.1.11,189,-0.440,-0.440,-0.440,0.000,0.000,0.000
1641221045214615040,2022-01-03-14:44:05,10.1.1.11,191,-0.430,-0.430,-0.430,0.000,0.000,0.000
1641221045408673024,2022-01-03-14:44:05,10.1.1.11,188,-0.420,-0.420,-0.420,0.000,0.000,0.000
1641221045607129088,2022-01-03-14:44:05,10.1.1.11,186,-0.410,-0.410,-0.410,0.000,0.000,0.000
1641221045806863104,2022-01-03-14:44:05,10.1.1.11,185,-0.400,-0.400,-0.400,0.000,0.000,0.000
1641221045996859136,2022-01-03-14:44:05,10.1.1.11,174,-0.390,-0.390,-0.390,0.000,0.000,0.000
1641221046197472000,2022-01-03-14:44:06,10.1.1.11,174,-0.380,-0.380,-0.380,0.000,0.000,0.000
1641221046396137984,2022-01-03-14:44:06,10.1.1.11,172,-0.370,-0.370,-0.370,0.000,0.000,0.000
1641221046595869184,2022-01-03-14:44:06,10.1.1.11,172,-0.360,-0.360,-0.360,0.000,0.000,0.000
1641221046805548032,2022-01-03-14:44:06,10.1.1.11,181,-0.350,-0.350,-0.350,0.000,0.000,0.000
1641221047224910848,2022-01-03-14:44:07,10.1.1.11,199,-0.330,-0.330,-0.330,0.000,0.000,0.000
1641221047415113984,2022-01-03-14:44:07,10.1.1.11,189,-0.320,-0.320,-0.320,0.000,0.000,0.000
1641221047615997184,2022-01-03-14:44:07,10.1.1.11,189,-0.310,-0.310,-0.310,0.000,0.000,0.000
1641221047824881152,2022-01-03-14:44:07,10.1.1.11,197,-0.300,-0.300,-0.300,0.000,0.000,0.000
1641221048015183872,2022-01-03-14:44:08,10.1.1.11,186,-0.290,-0.290,-0.290,0.000,0.000,0.000
1641221048214040064,2022-01-03-14:44:08,10.1.1.11,185,-0.280,-0.280,-0.280,0.000,0.000,0.000
1641221048413974016,2022-01-03-14:44:08,10.1.1.11,184,-0.270,-0.270,-0.270,0.000,0.000,0.000
1641221048603444992,2022-01-03-14:44:08,10.1.1.11,173,-0.260,-0.260,-0.260,0.000,0.000,0.000
1641221048814085888,2022-01-03-14:44:08,10.1.1.11,182,-0.250,-0.250,-0.250,0.000,0.000,0.000
1641221049012797184,2022-01-03-14:44:09,10.1.1.11,181,-0.240,-0.240,-0.240,0.000,0.000,0.000
1641221049213064960,2022-01-03-14:44:09,10.1.1.11,181,-0.230,-0.230,-0.230,0.000,0.000,0.000
1641221049413327104,2022-01-03-14:44:09,10.1.1.11,180,-0.220,-0.220,-0.220,0.000,0.000,0.000
1641221049621666048,2022-01-03-14:44:09,10.1.1.11,188,-0.210,-0.210,-0.210,0.000,0.000,0.000
1641221049801448960,2022-01-03-14:44:09,10.1.1.11,168,-0.200,-0.200,-0.200,0.000,0.000,0.000
1641221050001462016,2022-01-03-14:44:10,10.1.1.11,168,-0.190,-0.190,-0.190,0.000,0.000,0.000
1641221050222671872,2022-01-03-14:44:10,10.1.1.11,188,-0.180,-0.180,-0.180,0.000,0.000,0.000
1641221050410695936,2022-01-03-14:44:10,10.1.1.11,175,-0.170,-0.170,-0.170,0.000,0.000,0.000
1641221050618899200,2022-01-03-14:44:10,10.1.1.11,182,-0.160,-0.160,-0.160,0.000,0.000,0.000
1641221050810636032,2022-01-03-14:44:10,10.1.1.11,168,-0.150,-0.150,-0.150,0.000,0.000,0.000
1641221051010226944,2022-01-03-14:44:11,10.1.1.11,166,-0.140,-0.140,-0.140,0.000,0.000,0.000
1641221051229204992,2022-01-03-14:44:11,10.1.1.11,184,-0.130,-0.130,-0.130,0.000,0.000,0.000
1641221051429303040,2022-01-03-14:44:11,10.1.1.11,183,-0.120,-0.120,-0.120,0.000,0.000,0.000
1641221051629452032,2022-01-03-14:44:11,10.1.1.11,182,-0.110,-0.110,-0.110,0.000,0.000,0.000
1641221051831002880,2022-01-03-14:44:11,10.1.1.11,182,-0.100,-0.100,-0.100,0.000,0.000,0.000
1641221052018213888,2022-01-03-14:44:12,10.1.1.11,167,-0.090,-0.090,-0.090,0.000,0.000,0.000
1641221052227827200,2022-01-03-14:44:12,10.1.1.11,175,-0.080,-0.080,-0.080,0.000,0.000,0.000
1641221052428430080,2022-01-03-14:44:12,10.1.1.11,175,-0.070,-0.070,-0.070,0.000,0.000,0.000
1641221052637509120,2022-01-03-14:44:12,10.1.1.11,181,-0.060,-0.060,-0.060,0.000,0.000,0.000
1641221052845467136,2022-01-03-14:44:12,10.1.1.11,187,-0.050,-0.050,-0.050,0.000,0.000,0.000
1641221053036986112,2022-01-03-14:44:13,10.1.1.11,179,-0.040,-0.040,-0.040,0.000,0.000,0.000
1641221053236051968,2022-01-03-14:44:13,10.1.1.11,177,-0.030,-0.030,-0.030,0.000,0.000,0.000
1641221053426358016,2022-01-03-14:44:13,10.1.1.11,164,-0.020,-0.020,-0.020,0.000,0.000,0.000
1641221053626887168,2022-01-03-14:44:13,10.1.1.11,163,-0.010,-0.010,-0.010,0.000,0.000,0.000
1641221053836080128,2022-01-03-14:44:13,10.1.1.11,172,0.000,0.000,0.000,0.000,0.000,0.000
1641221054047367168,2022-01-03-14:44:14,10.1.1.11,181,-0.010,-0.010,-0.010,0.000,0.000,0.000
1641221054245409024,2022-01-03-14:44:14,10.1.1.11,180,-0.020,-0.020,-0.020,0.000,0.000,0.000
1641221054444989952,2022-01-03-14:44:14,10.1.1.11,178,-0.030,-0.030,-0.030,0.000,0.000,0.000
1641221054644510976,2022-01-03-14:44:14,10.1.1.11,173,-0.040,-0.040,-0.040,0.000,0.000,0.000
1641221054833918976,2022-01-03-14:44:14,10.1.1.11,160,-0.050,-0.050,-0.050,0.000,0.000,0.000
1641221055045734912,2022-01-03-14:44:15,10.1.1.11,170,-0.060,-0.060,-0.060,0.000,0.000,0.000
1641221055253933824,2022-01-03-14:44:15,10.1.1.11,179,-0.070,-0.070,-0.070,0.000,0.000,0.000
1641221055443517952,2022-01-03-14:44:15,10.1.1.11,168,-0.080,-0.080,-0.080,0.000,0.000,0.000
1641221055643037184,2022-01-03-14:44:15,10.1.1.11,167,-0.090,-0.090,-0.090,0.000,0.000,0.000
1641221055843243008,2022-01-03-14:44:15,10.1.1.11,166,-0.100,-0.100,-0.100,0.000,0.000,0.000
1641221056046436096,2022-01-03-14:44:16,10.1.1.11,169,-0.110,-0.110,-0.110,0.000,0.000,0.000
1641221056242414848,2022-01-03-14:44:16,10.1.1.11,164,-0.120,-0.120,-0.120,0.000,0.000,0.000
1641221056441349120,2022-01-03-14:44:16,10.1.1.11,161,-0.130,-0.130,-0.130,0.000,0.000,0.000
1641221056650970880,2022-01-03-14:44:16,10.1.1.11,170,-0.140,-0.140,-0.140,0.000,0.000,0.000
1641221056840795904,2022-01-03-14:44:16,10.1.1.11,159,-0.150,-0.150,-0.150,0.000,0.000,0.000
1641221057041008896,2022-01-03-14:44:17,10.1.1.11,159,-0.160,-0.160,-0.160,0.000,0.000,0.000
1641221057241305088,2022-01-03-14:44:17,10.1.1.11,159,-0.170,-0.170,-0.170,0.000,0.000,0.000
1641221057442831104,2022-01-03-14:44:17,10.1.1.11,160,-0.180,-0.180,-0.180,0.000,0.000,0.000
1641221057653358848,2022-01-03-14:44:17,10.1.1.11,170,-0.190,-0.190,-0.190,0.000,0.000,0.000
1641221057875643904,2022-01-03-14:44:17,10.1.1.11,191,-0.200,-0.200,-0.200,0.000,0.000,0.000
1641221058057015808,2022-01-03-14:44:18,10.1.1.11,172,-0.210,-0.210,-0.210,0.000,0.000,0.000
1641221058259696896,2022-01-03-14:44:18,10.1.1.11,174,-0.220,-0.220,-0.220,0.000,0.000,0.000
1641221058477846016,2022-01-03-14:44:18,10.1.1.11,191,-0.230,-0.230,-0.230,0.000,0.000,0.000
1641221058658334976,2022-01-03-14:44:18,10.1.1.11,167,-0.240,-0.240,-0.240,0.000,0.000,0.000
1641221058880652800,2022-01-03-14:44:18,10.1.1.11,189,-0.250,-0.250,-0.250,0.000,0.000,0.000
1641221059060574976,2022-01-03-14:44:19,10.1.1.11,168,-0.260,-0.260,-0.260,0.000,0.000,0.000
1641221059260720128,2022-01-03-14:44:19,10.1.1.11,168,-0.270,-0.270,-0.270,0.000,0.000,0.000
1641221059462097920,2022-01-03-14:44:19,10.1.1.11,169,-0.280,-0.280,-0.280,0.000,0.000,0.000
1641221059672396032,2022-01-03-14:44:19,10.1.1.11,178,-0.290,-0.290,-0.290,0.000,0.000,0.000
1641221059883315968,2022-01-03-14:44:19,10.1.1.11,189,-0.300,-0.300,-0.300,0.000,0.000,0.000
1641221060085542912,2022-01-03-14:44:20,10.1.1.11,190,-0.310,-0.310,-0.310,0.000,0.000,0.000
1641221060274804224,2022-01-03-14:44:20,10.1.1.11,178,-0.320,-0.320,-0.320,0.000,0.000,0.000
1641221060491183104,2022-01-03-14:44:20,10.1.1.11,194,-0.330,-0.330,-0.330,0.000,0.000,0.000
1641221060687693056,2022-01-03-14:44:20,10.1.1.11,190,-0.340,-0.340,-0.340,0.000,0.000,0.000
1641221060876513024,2022-01-03-14:44:20,10.1.1.11,177,-0.350,-0.350,-0.350,0.000,0.000,0.000
1641221061083302912,2022-01-03-14:44:21,10.1.1.11,184,-0.360,-0.360,-0.360,0.000,0.000,0.000
1641221061287507968,2022-01-03-14:44:21,10.1.1.11,181,-0.370,-0.370,-0.370,0.000,0.000,0.000
1641221061488083968,2022-01-03-14:44:21,10.1.1.11,181,-0.380,-0.380,-0.380,0.000,0.000,0.000
1641221061688709120,2022-01-03-14:44:21,10.1.1.11,180,-0.390,-0.390,-0.390,0.000,0.000,0.000
1641221061889501184,2022-01-03-14:44:21,10.1.1.11,180,-0.400,-0.400,-0.400,0.000,0.000,0.000
1641221062099692032,2022-01-03-14:44:22,10.1.1.11,190,-0.410,-0.410,-0.410,0.000,0.000,0.000
1641221062491463936,2022-01-03-14:44:22,10.1.1.11,180,-0.430,-0.430,-0.430,0.000,0.000,0.000
1641221062690758912,2022-01-03-14:44:22,10.1.1.11,179,-0.440,-0.440,-0.440,0.000,0.000,0.000
1641221062901942016,2022-01-03-14:44:22,10.1.1.11,190,-0.450,-0.450,-0.450,0.000,0.000,0.000
1641221063101840128,2022-01-03-14:44:23,10.1.1.11,189,-0.460,-0.460,-0.460,0.000,0.000,0.000
1641221063292035072,2022-01-03-14:44:23,10.1.1.11,178,-0.470,-0.470,-0.470,0.000,0.000,0.000
1641221063503891968,2022-01-03-14:44:23,10.1.1.11,189,-0.480,-0.480,-0.480,0.000,0.000,0.000
1641221063709853952,2022-01-03-14:44:23,10.1.1.11,193,-0.490,-0.490,-0.490,0.000,0.000,0.000
1641221063902936832,2022-01-03-14:44:23,10.1.1.11,180,-0.480,-0.480,-0.480,0.000,0.000,0.000
1641221064113177088,2022-01-03-14:44:24,10.1.1.11,189,-0.470,-0.470,-0.470,0.000,0.000,0.000
1641221064313291008,2022-01-03-14:44:24,10.1.1.11,188,-0.460,-0.460,-0.460,0.000,0.000,0.000
1641221064513529088,2022-01-03-14:44:24,10.1.1.11,188,-0.450,-0.450,-0.450,0.000,0.000,0.000
1641221064723532032,2022-01-03-14:44:24,10.1.1.11,197,-0.440,-0.440,-0.440,0.000,0.000,0.000
1641221064924282112,2022-01-03-14:44:24,10.1.1.11,196,-0.430,-0.430,-0.430,0.000,0.000,0.000
1641221065126018048,2022-01-03-14:44:25,10.1.1.11,198,-0.420,-0.420,-0.420,0.000,0.000,0.000
1641221065516019200,2022-01-03-14:44:25,10.1.1.11,186,-0.400,-0.400,-0.400,0.000,0.000,0.000
1641221065725060864,2022-01-03-14:44:25,10.1.1.11,194,-0.390,-0.390,-0.390,0.000,0.000,0.000
1641221066125267968,2022-01-03-14:44:26,10.1.1.11,193,-0.370,-0.370,-0.370,0.000,0.000,0.000
1641221066325553920,2022-01-03-14:44:26,10.1.1.11,192,-0.360,-0.360,-0.360,0.000,0.000,0.000
1641221066516145920,2022-01-03-14:44:26,10.1.1.11,182,-0.350,-0.350,-0.350,0.000,0.000,0.000
1641221066725032960,2022-01-03-14:44:26,10.1.1.11,191,-0.340,-0.340,-0.340,0.000,0.000,0.000
1641221066925733120,2022-01-03-14:44:26,10.1.1.11,191,-0.330,-0.330,-0.330,0.000,0.000,0.000
1641221067135889920,2022-01-03-14:44:27,10.1.1.11,194,-0.320,-0.320,-0.320,0.000,0.000,0.000
1641221067348573952,2022-01-03-14:44:27,10.1.1.11,193,-0.310,-0.310,-0.310,0.000,0.000,0.000
1641221067545051136,2022-01-03-14:44:27,10.1.1.11,188,-0.300,-0.300,-0.300,0.000,0.000,0.000
1641221067747233024,2022-01-03-14:44:27,10.1.1.11,185,-0.290,-0.290,-0.290,0.000,0.000,0.000
1641221068166342912,2022-01-03-14:44:28,10.1.1.11,199,-0.270,-0.270,-0.270,0.000,0.000,0.000
1641221068355354112,2022-01-03-14:44:28,10.1.1.11,188,-0.260,-0.260,-0.260,0.000,0.000,0.000
1641221068565489920,2022-01-03-14:44:28,10.1.1.11,198,-0.250,-0.250,-0.250,0.000,0.000,0.000
1641221068955570944,2022-01-03-14:44:28,10.1.1.11,187,-0.230,-0.230,-0.230,0.000,0.000,0.000
1641221069365683968,2022-01-03-14:44:29,10.1.1.11,193,-0.210,-0.210,-0.210,0.000,0.000,0.000
1641221069765481984,2022-01-03-14:44:29,10.1.1.11,192,-0.190,-0.190,-0.190,0.000,0.000,0.000
1641221069978007040,2022-01-03-14:44:29,10.1.1.11,202,-0.180,-0.180,-0.180,0.000,0.000,0.000
1641221070164947968,2022-01-03-14:44:30,10.1.1.11,183,-0.170,-0.170,-0.170,0.000,0.000,0.000
1641221070365283840,2022-01-03-14:44:30,10.1.1.11,182,-0.160,-0.160,-0.160,0.000,0.000,0.000
1641221070566149888,2022-01-03-14:44:30,10.1.1.11,182,-0.150,-0.150,-0.150,0.000,0.000,0.000
1641221070964773888,2022-01-03-14:44:30,10.1.1.11,180,-0.130,-0.130,-0.130,0.000,0.000,0.000
1641221071184571136,2022-01-03-14:44:31,10.1.1.11,199,-0.120,-0.120,-0.120,0.000,0.000,0.000
1641221071590224896,2022-01-03-14:44:31,10.1.1.11,193,-0.100,-0.100,-0.100,0.000,0.000,0.000
1641221071784374016,2022-01-03-14:44:31,10.1.1.11,187,-0.090,-0.090,-0.090,0.000,0.000,0.000
1641221071994627840,2022-01-03-14:44:31,10.1.1.11,192,-0.080,-0.080,-0.080,0.000,0.000,0.000
1641221072204036096,2022-01-03-14:44:32,10.1.1.11,199,-0.070,-0.070,-0.070,0.000,0.000,0.000
1641221072403655168,2022-01-03-14:44:32,10.1.1.11,197,-0.060,-0.060,-0.060,0.000,0.000,0.000
1641221072603444224,2022-01-03-14:44:32,10.1.1.11,195,-0.050,-0.050,-0.050,0.000,0.000,0.000
1641221072803565056,2022-01-03-14:44:32,10.1.1.11,194,-0.040,-0.040,-0.040,0.000,0.000,0.000
1641221073393372928,2022-01-03-14:44:33,10.1.1.11,182,-0.010,-0.010,-0.010,0.000,0.000,0.000
1641221073610032128,2022-01-03-14:44:33,10.1.1.11,199,0.000,0.000,0.000,0.000,0.000,0.000
1641221074002283008,2022-01-03-14:44:34,10.1.1.11,189,-0.020,-0.020,-0.020,0.000,0.000,0.000
1641221074213798144,2022-01-03-14:44:34,10.1.1.11,199,-0.030,-0.030,-0.030,0.000,0.000,0.000
1641221074412372992,2022-01-03-14:44:34,10.1.1.11,196,-0.040,-0.040,-0.040,0.000,0.000,0.000
1641221074606881024,2022-01-03-14:44:34,10.1.1.11,187,-0.050,-0.050,-0.050,0.000,0.000,0.000
1641221074811520000,2022-01-03-14:44:34,10.1.1.11,194,-0.060,-0.060,-0.060,0.000,0.000,0.000
1641221075011399936,2022-01-03-14:44:35,10.1.1.11,193,-0.070,-0.070,-0.070,0.000,0.000,0.000
1641221075210550016,2022-01-03-14:44:35,10.1.1.11,190,-0.080,-0.080,-0.080,0.000,0.000,0.000
1641221075400805120,2022-01-03-14:44:35,10.1.1.11,180,-0.090,-0.090,-0.090,0.000,0.000,0.000
1641221075600517120,2022-01-03-14:44:35,10.1.1.11,178,-0.100,-0.100,-0.100,0.000,0.000,0.000
1641221075811646976,2022-01-03-14:44:35,10.1.1.11,188,-0.110,-0.110,-0.110,0.000,0.000,0.000
1641221076010057984,2022-01-03-14:44:36,10.1.1.11,185,-0.120,-0.120,-0.120,0.000,0.000,0.000
1641221076209582080,2022-01-03-14:44:36,10.1.1.11,184,-0.130,-0.130,-0.130,0.000,0.000,0.000
1641221076419982080,2022-01-03-14:44:36,10.1.1.11,193,-0.140,-0.140,-0.140,0.000,0.000,0.000
1641221076629635072,2022-01-03-14:44:36,10.1.1.11,200,-0.150,-0.150,-0.150,0.000,0.000,0.000
1641221076812681984,2022-01-03-14:44:36,10.1.1.11,182,-0.160,-0.160,-0.160,0.000,0.000,0.000
1641221077009438976,2022-01-03-14:44:37,10.1.1.11,178,-0.170,-0.170,-0.170,0.000,0.000,0.000
1641221077213721088,2022-01-03-14:44:37,10.1.1.11,182,-0.180,-0.180,-0.180,0.000,0.000,0.000
1641221077429177088,2022-01-03-14:44:37,10.1.1.11,197,-0.190,-0.190,-0.190,0.000,0.000,0.000
1641221077628894208,2022-01-03-14:44:37,10.1.1.11,195,-0.200,-0.200,-0.200,0.000,0.000,0.000
1641221077808038912,2022-01-03-14:44:37,10.1.1.11,174,-0.210,-0.210,-0.210,0.000,0.000,0.000
1641221078027779072,2022-01-03-14:44:38,10.1.1.11,191,-0.220,-0.220,-0.220,0.000,0.000,0.000
1641221078227726080,2022-01-03-14:44:38,10.1.1.11,190,-0.230,-0.230,-0.230,0.000,0.000,0.000
1641221078427222016,2022-01-03-14:44:38,10.1.1.11,189,-0.240,-0.240,-0.240,0.000,0.000,0.000
1641221078627208960,2022-01-03-14:44:38,10.1.1.11,187,-0.250,-0.250,-0.250,0.000,0.000,0.000
1641221078827777024,2022-01-03-14:44:38,10.1.1.11,187,-0.260,-0.260,-0.260,0.000,0.000,0.000
1641221079026084864,2022-01-03-14:44:39,10.1.1.11,184,-0.270,-0.270,-0.270,0.000,0.000,0.000
1641221079215961088,2022-01-03-14:44:39,10.1.1.11,174,-0.280,-0.280,-0.280,0.000,0.000,0.000
1641221079435316992,2022-01-03-14:44:39,10.1.1.11,192,-0.290,-0.290,-0.290,0.000,0.000,0.000
1641221079626142976,2022-01-03-14:44:39,10.1.1.11,182,-0.300,-0.300,-0.300,0.000,0.000,0.000
1641221079835432960,2022-01-03-14:44:39,10.1.1.11,191,-0.310,-0.310,-0.310,0.000,0.000,0.000
1641221080019048960,2022-01-03-14:44:40,10.1.1.11,174,-0.320,-0.320,-0.320,0.000,0.000,0.000
1641221080235294208,2022-01-03-14:44:40,10.1.1.11,190,-0.330,-0.330,-0.330,0.000,0.000,0.000
1641221080434566144,2022-01-03-14:44:40,10.1.1.11,188,-0.340,-0.340,-0.340,0.000,0.000,0.000
1641221080634470912,2022-01-03-14:44:40,10.1.1.11,187,-0.350,-0.350,-0.350,0.000,0.000,0.000
1641221080845121024,2022-01-03-14:44:40,10.1.1.11,196,-0.360,-0.360,-0.360,0.000,0.000,0.000
1641221081034513920,2022-01-03-14:44:41,10.1.1.11,185,-0.370,-0.370,-0.370,0.000,0.000,0.000
1641221081234008064,2022-01-03-14:44:41,10.1.1.11,183,-0.380,-0.380,-0.380,0.000,0.000,0.000
1641221081441245184,2022-01-03-14:44:41,10.1.1.11,188,-0.390,-0.390,-0.390,0.000,0.000,0.000
1641221081634601984,2022-01-03-14:44:41,10.1.1.11,181,-0.400,-0.400,-0.400,0.000,0.000,0.000
1641221081833060096,2022-01-03-14:44:41,10.1.1.11,178,-0.410,-0.410,-0.410,0.000,0.000,0.000
1641221082033335808,2022-01-03-14:44:42,10.1.1.11,177,-0.420,-0.420,-0.420,0.000,0.000,0.000
1641221082236398848,2022-01-03-14:44:42,10.1.1.11,180,-0.430,-0.430,-0.430,0.000,0.000,0.000
1641221082434017792,2022-01-03-14:44:42,10.1.1.11,176,-0.440,-0.440,-0.440,0.000,0.000,0.000
1641221082632989952,2022-01-03-14:44:42,10.1.1.11,175,-0.450,-0.450,-0.450,0.000,0.000,0.000
1641221082835352832,2022-01-03-14:44:42,10.1.1.11,177,-0.460,-0.460,-0.460,0.000,0.000,0.000
1641221083032211968,2022-01-03-14:44:43,10.1.1.11,170,-0.470,-0.470,-0.470,0.000,0.000,0.000
1641221083233169152,2022-01-03-14:44:43,10.1.1.11,170,-0.480,-0.480,-0.480,0.000,0.000,0.000
1641221083452033024,2022-01-03-14:44:43,10.1.1.11,186,-0.490,-0.490,-0.490,0.000,0.000,0.000
1641221083651459840,2022-01-03-14:44:43,10.1.1.11,185,-0.480,-0.480,-0.480,0.000,0.000,0.000
1641221083851776000,2022-01-03-14:44:43,10.1.1.11,184,-0.470,-0.470,-0.470,0.000,0.000,0.000
1641221084050349824,2022-01-03-14:44:44,10.1.1.11,182,-0.460,-0.460,-0.460,0.000,0.000,0.000
1641221084252468224,2022-01-03-14:44:44,10.1.1.11,183,-0.450,-0.450,-0.450,0.000,0.000,0.000
1641221084432622080,2022-01-03-14:44:44,10.1.1.11,162,-0.440,-0.440,-0.440,0.000,0.000,0.000
1641221084650625024,2022-01-03-14:44:44,10.1.1.11,179,-0.430,-0.430,-0.430,0.000,0.000,0.000
1641221084849359872,2022-01-03-14:44:44,10.1.1.11,176,-0.420,-0.420,-0.420,0.000,0.000,0.000
1641221085055986944,2022-01-03-14:44:45,10.1.1.11,182,-0.410,-0.410,-0.410,0.000,0.000,0.000
1641221085248507904,2022-01-03-14:44:45,10.1.1.11,174,-0.400,-0.400,-0.400,0.000,0.000,0.000
1641221085449027072,2022-01-03-14:44:45,10.1.1.11,174,-0.390,-0.390,-0.390,0.000,0.000,0.000
1641221085648132096,2022-01-03-14:44:45,10.1.1.11,173,-0.380,-0.380,-0.380,0.000,0.000,0.000
1641221085848525056,2022-01-03-14:44:45,10.1.1.11,172,-0.370,-0.370,-0.370,0.000,0.000,0.000
1641221086047422976,2022-01-03-14:44:46,10.1.1.11,171,-0.360,-0.360,-0.360,0.000,0.000,0.000
1641221086247433984,2022-01-03-14:44:46,10.1.1.11,170,-0.350,-0.350,-0.350,0.000,0.000,0.000
1641221086447011072,2022-01-03-14:44:46,10.1.1.11,168,-0.340,-0.340,-0.340,0.000,0.000,0.000
1641221086646304000,2022-01-03-14:44:46,10.1.1.11,162,-0.330,-0.330,-0.330,0.000,0.000,0.000
1641221086847408128,2022-01-03-14:44:46,10.1.1.11,162,-0.320,-0.320,-0.320,0.000,0.000,0.000
1641221087066121984,2022-01-03-14:44:47,10.1.1.11,180,-0.310,-0.310,-0.310,0.000,0.000,0.000
1641221087265396224,2022-01-03-14:44:47,10.1.1.11,177,-0.300,-0.300,-0.300,0.000,0.000,0.000
1641221087465868032,2022-01-03-14:44:47,10.1.1.11,177,-0.290,-0.290,-0.290,0.000,0.000,0.000
1641221087665203200,2022-01-03-14:44:47,10.1.1.11,176,-0.280,-0.280,-0.280,0.000,0.000,0.000
1641221087865027072,2022-01-03-14:44:47,10.1.1.11,175,-0.270,-0.270,-0.270,0.000,0.000,0.000
1641221088064397056,2022-01-03-14:44:48,10.1.1.11,174,-0.260,-0.260,-0.260,0.000,0.000,0.000
1641221088268583936,2022-01-03-14:44:48,10.1.1.11,178,-0.250,-0.250,-0.250,0.000,0.000,0.000
1641221088464070912,2022-01-03-14:44:48,10.1.1.11,173,-0.240,-0.240,-0.240,0.000,0.000,0.000
1641221088675481088,2022-01-03-14:44:48,10.1.1.11,183,-0.230,-0.230,-0.230,0.000,0.000,0.000
1641221088863378944,2022-01-03-14:44:48,10.1.1.11,171,-0.220,-0.220,-0.220,0.000,0.000,0.000
1641221089063474944,2022-01-03-14:44:49,10.1.1.11,170,-0.210,-0.210,-0.210,0.000,0.000,0.000
1641221089262227968,2022-01-03-14:44:49,10.1.1.11,168,-0.200,-0.200,-0.200,0.000,0.000,0.000
1641221089462321920,2022-01-03-14:44:49,10.1.1.11,162,-0.190,-0.190,-0.190,0.000,0.000,0.000
1641221089662157056,2022-01-03-14:44:49,10.1.1.11,161,-0.180,-0.180,-0.180,0.000,0.000,0.000
1641221089861888768,2022-01-03-14:44:49,10.1.1.11,160,-0.170,-0.170,-0.170,0.000,0.000,0.000
1641221090064660992,2022-01-03-14:44:50,10.1.1.11,160,-0.160,-0.160,-0.160,0.000,0.000,0.000
1641221090265012992,2022-01-03-14:44:50,10.1.1.11,161,-0.150,-0.150,-0.150,0.000,0.000,0.000
1641221090463048960,2022-01-03-14:44:50,10.1.1.11,159,-0.140,-0.140,-0.140,0.000,0.000,0.000
1641221090664345088,2022-01-03-14:44:50,10.1.1.11,159,-0.130,-0.130,-0.130,0.000,0.000,0.000
1641221090888118016,2022-01-03-14:44:50,10.1.1.11,182,-0.120,-0.120,-0.120,0.000,0.000,0.000
1641221091086519040,2022-01-03-14:44:51,10.1.1.11,180,-0.110,-0.110,-0.110,0.000,0.000,0.000
1641221091288340992,2022-01-03-14:44:51,10.1.1.11,181,-0.100,-0.100,-0.100,0.000,0.000,0.000
1641221091487798016,2022-01-03-14:44:51,10.1.1.11,179,-0.090,-0.090,-0.090,0.000,0.000,0.000
1641221091688900096,2022-01-03-14:44:51,10.1.1.11,179,-0.080,-0.080,-0.080,0.000,0.000,0.000
1641221091889893120,2022-01-03-14:44:51,10.1.1.11,179,-0.070,-0.070,-0.070,0.000,0.000,0.000
1641221092091217920,2022-01-03-14:44:52,10.1.1.11,179,-0.060,-0.060,-0.060,0.000,0.000,0.000
1641221092291852032,2022-01-03-14:44:52,10.1.1.11,174,-0.050,-0.050,-0.050,0.000,0.000,0.000
1641221092492011008,2022-01-03-14:44:52,10.1.1.11,174,-0.040,-0.040,-0.040,0.000,0.000,0.000
1641221092693568000,2022-01-03-14:44:52,10.1.1.11,175,-0.030,-0.030,-0.030,0.000,0.000,0.000
1641221092893928960,2022-01-03-14:44:52,10.1.1.11,175,-0.020,-0.020,-0.020,0.000,0.000,0.000
1641221093097058048,2022-01-03-14:44:53,10.1.1.11,178,-0.010,-0.010,-0.010,0.000,0.000,0.000
1641221093295654912,2022-01-03-14:44:53,10.1.1.11,175,0.000,0.000,0.000,0.000,0.000,0.000
1641221093495827968,2022-01-03-14:44:53,10.1.1.11,175,-0.010,-0.010,-0.010,0.000,0.000,0.000
1641221093705284096,2022-01-03-14:44:53,10.1.1.11,184,-0.020,-0.020,-0.020,0.000,0.000,0.000
1641221093896472832,2022-01-03-14:44:53,10.1.1.11,175,-0.030,-0.030,-0.030,0.000,0.000,0.000
1641221094101387008,2022-01-03-14:44:54,10.1.1.11,179,-0.040,-0.040,-0.040,0.000,0.000,0.000
1641221094318182912,2022-01-03-14:44:54,10.1.1.11,193,-0.050,-0.050,-0.050,0.000,0.000,0.000
1641221094518661120,2022-01-03-14:44:54,10.1.1.11,192,-0.060,-0.060,-0.060,0.000,0.000,0.000
1641221094718930944,2022-01-03-14:44:54,10.1.1.11,192,-0.070,-0.070,-0.070,0.000,0.000,0.000
1641221094902375936,2022-01-03-14:44:54,10.1.1.11,175,-0.080,-0.080,-0.080,0.000,0.000,0.000
1641221095121069824,2022-01-03-14:44:55,10.1.1.11,193,-0.090,-0.090,-0.090,0.000,0.000,0.000
1641221095320811008,2022-01-03-14:44:55,10.1.1.11,192,-0.100,-0.100,-0.100,0.000,0.000,0.000
1641221095520780032,2022-01-03-14:44:55,10.1.1.11,191,-0.110,-0.110,-0.110,0.000,0.000,0.000
1641221095721393152,2022-01-03-14:44:55,10.1.1.11,191,-0.120,-0.120,-0.120,0.000,0.000,0.000
1641221095941761024,2022-01-03-14:44:55,10.1.1.11,186,-0.130,-0.130,-0.130,0.000,0.000,0.000
1641221096141659136,2022-01-03-14:44:56,10.1.1.11,185,-0.140,-0.140,-0.140,0.000,0.000,0.000
1641221096341833216,2022-01-03-14:44:56,10.1.1.11,185,-0.150,-0.150,-0.150,0.000,0.000,0.000
1641221096542816000,2022-01-03-14:44:56,10.1.1.11,185,-0.160,-0.160,-0.160,0.000,0.000,0.000
1641221096742237952,2022-01-03-14:44:56,10.1.1.11,183,-0.170,-0.170,-0.170,0.000,0.000,0.000
1641221096943393024,2022-01-03-14:44:56,10.1.1.11,184,-0.180,-0.180,-0.180,0.000,0.000,0.000
1641221097143012096,2022-01-03-14:44:57,10.1.1.11,183,-0.190,-0.190,-0.190,0.000,0.000,0.000
1641221097343983872,2022-01-03-14:44:57,10.1.1.11,183,-0.200,-0.200,-0.200,0.000,0.000,0.000
1641221097544553984,2022-01-03-14:44:57,10.1.1.11,183,-0.210,-0.210,-0.210,0.000,0.000,0.000
1641221097747900928,2022-01-03-14:44:57,10.1.1.11,186,-0.220,-0.220,-0.220,0.000,0.000,0.000
1641221097943728896,2022-01-03-14:44:57,10.1.1.11,181,-0.230,-0.230,-0.230,0.000,0.000,0.000
1641221098144995840,2022-01-03-14:44:58,10.1.1.11,182,-0.240,-0.240,-0.240,0.000,0.000,0.000
1641221098345123072,2022-01-03-14:44:58,10.1.1.11,182,-0.250,-0.250,-0.250,0.000,0.000,0.000
1641221098544836096,2022-01-03-14:44:58,10.1.1.11,181,-0.260,-0.260,-0.260,0.000,0.000,0.000
1641221098744769024,2022-01-03-14:44:58,10.1.1.11,180,-0.270,-0.270,-0.270,0.000,0.000,0.000
1641221098944870912,2022-01-03-14:44:58,10.1.1.11,180,-0.280,-0.280,-0.280,0.000,0.000,0.000
1641221099366951936,2022-01-03-14:44:59,10.1.1.11,199,-0.300,-0.300,-0.300,0.000,0.000,0.000
1641221099568581120,2022-01-03-14:44:59,10.1.1.11,198,-0.310,-0.310,-0.310,0.000,0.000,0.000
1641221099767854848,2022-01-03-14:44:59,10.1.1.11,198,-0.320,-0.320,-0.320,0.000,0.000,0.000
1641221099966732032,2022-01-03-14:44:59,10.1.1.11,197,-0.330,-0.330,-0.330,0.000,0.000,0.000
1641221100169521920,2022-01-03-14:45:00,10.1.1.11,199,-0.340,-0.340,-0.340,0.000,0.000,0.000
1641221100365236992,2022-01-03-14:45:00,10.1.1.11,194,-0.350,-0.350,-0.350,0.000,0.000,0.000
1641221100565423872,2022-01-03-14:45:00,10.1.1.11,194,-0.360,-0.360,-0.360,0.000,0.000,0.000
1641221100768634112,2022-01-03-14:45:00,10.1.1.11,196,-0.370,-0.370,-0.370,0.000,0.000,0.000
1641221100965491968,2022-01-03-14:45:00,10.1.1.11,193,-0.380,-0.380,-0.380,0.000,0.000,0.000
1641221101167949824,2022-01-03-14:45:01,10.1.1.11,194,-0.390,-0.390,-0.390,0.000,0.000,0.000
1641221101365058816,2022-01-03-14:45:01,10.1.1.11,191,-0.400,-0.400,-0.400,0.000,0.000,0.000
1641221101572849920,2022-01-03-14:45:01,10.1.1.11,196,-0.410,-0.410,-0.410,0.000,0.000,0.000
1641221101784800000,2022-01-03-14:45:01,10.1.1.11,197,-0.420,-0.420,-0.420,0.000,0.000,0.000
1641221101984896000,2022-01-03-14:45:01,10.1.1.11,196,-0.430,-0.430,-0.430,0.000,0.000,0.000
1641221102184786944,2022-01-03-14:45:02,10.1.1.11,196,-0.440,-0.440,-0.440,0.000,0.000,0.000
1641221102385186048,2022-01-03-14:45:02,10.1.1.11,196,-0.450,-0.450,-0.450,0.000,0.000,0.000
1641221102586437888,2022-01-03-14:45:02,10.1.1.11,192,-0.460,-0.460,-0.460,0.000,0.000,0.000
1641221102785250048,2022-01-03-14:45:02,10.1.1.11,182,-0.470,-0.470,-0.470,0.000,0.000,0.000
1641221102985265920,2022-01-03-14:45:02,10.1.1.11,180,-0.480,-0.480,-0.480,0.000,0.000,0.000
1641221103404459008,2022-01-03-14:45:03,10.1.1.11,198,-0.480,-0.480,-0.480,0.000,0.000,0.000
1641221103605200128,2022-01-03-14:45:03,10.1.1.11,197,-0.470,-0.470,-0.470,0.000,0.000,0.000
1641221104005250816,2022-01-03-14:45:04,10.1.1.11,180,-0.450,-0.450,-0.450,0.000,0.000,0.000
1641221104224491008,2022-01-03-14:45:04,10.1.1.11,199,-0.440,-0.440,-0.440,0.000,0.000,0.000
1641221104623734016,2022-01-03-14:45:04,10.1.1.11,196,-0.420,-0.420,-0.420,0.000,0.000,0.000
1641221104824083200,2022-01-03-14:45:04,10.1.1.11,196,-0.410,-0.410,-0.410,0.000,0.000,0.000
1641221105024840960,2022-01-03-14:45:05,10.1.1.11,193,-0.400,-0.400,-0.400,0.000,0.000,0.000
1641221105223470848,2022-01-03-14:45:05,10.1.1.11,189,-0.390,-0.390,-0.390,0.000,0.000,0.000
1641221105423471872,2022-01-03-14:45:05,10.1.1.11,189,-0.380,-0.380,-0.380,0.000,0.000,0.000
1641221105625569024,2022-01-03-14:45:05,10.1.1.11,190,-0.370,-0.370,-0.370,0.000,0.000,0.000
1641221105822593024,2022-01-03-14:45:05,10.1.1.11,186,-0.360,-0.360,-0.360,0.000,0.000,0.000
1641221106023632896,2022-01-03-14:45:06,10.1.1.11,186,-0.350,-0.350,-0.350,0.000,0.000,0.000
1641221106222423040,2022-01-03-14:45:06,10.1.1.11,179,-0.340,-0.340,-0.340,0.000,0.000,0.000
1641221106422095104,2022-01-03-14:45:06,10.1.1.11,178,-0.330,-0.330,-0.330,0.000,0.000,0.000
1641221106622167040,2022-01-03-14:45:06,10.1.1.11,177,-0.320,-0.320,-0.320,0.000,0.000,0.000
1641221106841555200,2022-01-03-14:45:06,10.1.1.11,196,-0.310,-0.310,-0.310,0.000,0.000,0.000
1641221107041313024,2022-01-03-14:45:07,10.1.1.11,195,-0.300,-0.300,-0.300,0.000,0.000,0.000
1641221107241358080,2022-01-03-14:45:07,10.1.1.11,195,-0.290,-0.290,-0.290,0.000,0.000,0.000
1641221107441304832,2022-01-03-14:45:07,10.1.1.11,194,-0.280,-0.280,-0.280,0.000,0.000,0.000
1641221107641134080,2022-01-03-14:45:07,10.1.1.11,193,-0.270,-0.270,-0.270,0.000,0.000,0.000
1641221107840903168,2022-01-03-14:45:07,10.1.1.11,192,-0.260,-0.260,-0.260,0.000,0.000,0.000
1641221108040358912,2022-01-03-14:45:08,10.1.1.11,191,-0.250,-0.250,-0.250,0.000,0.000,0.000
1641221108240283904,2022-01-03-14:45:08,10.1.1.11,190,-0.240,-0.240,-0.240,0.000,0.000,0.000
1641221108440144128,2022-01-03-14:45:08,10.1.1.11,190,-0.230,-0.230,-0.230,0.000,0.000,0.000
1641221108639972864,2022-01-03-14:45:08,10.1.1.11,189,-0.220,-0.220,-0.220,0.000,0.000,0.000
1641221108839823104,2022-01-03-14:45:08,10.1.1.11,188,-0.210,-0.210,-0.210,0.000,0.000,0.000
1641221109042032128,2022-01-03-14:45:09,10.1.1.11,188,-0.200,-0.200,-0.200,0.000,0.000,0.000
1641221109238932992,2022-01-03-14:45:09,10.1.1.11,184,-0.190,-0.190,-0.190,0.000,0.000,0.000
1641221109441995008,2022-01-03-14:45:09,10.1.1.11,186,-0.180,-0.180,-0.180,0.000,0.000,0.000
1641221109638684160,2022-01-03-14:45:09,10.1.1.11,182,-0.170,-0.170,-0.170,0.000,0.000,0.000
1641221109838725120,2022-01-03-14:45:09,10.1.1.11,182,-0.160,-0.160,-0.160,0.000,0.000,0.000
1641221110038400768,2022-01-03-14:45:10,10.1.1.11,181,-0.150,-0.150,-0.150,0.000,0.000,0.000
1641221110237889024,2022-01-03-14:45:10,10.1.1.11,179,-0.140,-0.140,-0.140,0.000,0.000,0.000
1641221110437897984,2022-01-03-14:45:10,10.1.1.11,178,-0.130,-0.130,-0.130,0.000,0.000,0.000
1641221110638086144,2022-01-03-14:45:10,10.1.1.11,178,-0.120,-0.120,-0.120,0.000,0.000,0.000
1641221110838116864,2022-01-03-14:45:10,10.1.1.11,177,-0.110,-0.110,-0.110,0.000,0.000,0.000
1641221111037389056,2022-01-03-14:45:11,10.1.1.11,176,-0.100,-0.100,-0.100,0.000,0.000,0.000
1641221111237584128,2022-01-03-14:45:11,10.1.1.11,176,-0.090,-0.090,-0.090,0.000,0.000,0.000
1641221111439676160,2022-01-03-14:45:11,10.1.1.11,177,-0.080,-0.080,-0.080,0.000,0.000,0.000
1641221111656548096,2022-01-03-14:45:11,10.1.1.11,191,-0.070,-0.070,-0.070,0.000,0.000,0.000
1641221111860466944,2022-01-03-14:45:11,10.1.1.11,194,-0.060,-0.060,-0.060,0.000,0.000,0.000
1641221112055956992,2022-01-03-14:45:12,10.1.1.11,189,-0.050,-0.050,-0.050,0.000,0.000,0.000
1641221112262523904,2022-01-03-14:45:12,10.1.1.11,195,-0.040,-0.040,-0.040,0.000,0.000,0.000
1641221112455431936,2022-01-03-14:45:12,10.1.1.11,188,-0.030,-0.030,-0.030,0.000,0.000,0.000
1641221112655266048,2022-01-03-14:45:12,10.1.1.11,187,-0.020,-0.020,-0.020,0.000,0.000,0.000
1641221112857403136,2022-01-03-14:45:12,10.1.1.11,186,-0.010,-0.010,-0.010,0.000,0.000,0.000
1641221113055190016,2022-01-03-14:45:13,10.1.1.11,184,0.000,0.000,0.000,0.000,0.000,0.000
1641221113255297792,2022-01-03-14:45:13,10.1.1.11,183,-0.010,-0.010,-0.010,0.000,0.000,0.000
1641221113454967040,2022-01-03-14:45:13,10.1.1.11,177,-0.020,-0.020,-0.020,0.000,0.000,0.000
1641221113656950016,2022-01-03-14:45:13,10.1.1.11,177,-0.030,-0.030,-0.030,0.000,0.000,0.000
1641221113853617920,2022-01-03-14:45:13,10.1.1.11,173,-0.040,-0.040,-0.040,0.000,0.000,0.000
1641221114054006016,2022-01-03-14:45:14,10.1.1.11,173,-0.050,-0.050,-0.050,0.000,0.000,0.000
1641221114254066944,2022-01-03-14:45:14,10.1.1.11,172,-0.060,-0.060,-0.060,0.000,0.000,0.000
1641221114452867072,2022-01-03-14:45:14,10.1.1.11,171,-0.070,-0.070,-0.070,0.000,0.000,0.000
1641221114654609920,2022-01-03-14:45:14,10.1.1.11,171,-0.080,-0.080,-0.080,0.000,0.000,0.000
1641221114873075968,2022-01-03-14:45:14,10.1.1.11,186,-0.090,-0.090,-0.090,0.000,0.000,0.000
1641221115071936000,2022-01-03-14:45:15,10.1.1.11,184,-0.100,-0.100,-0.100,0.000,0.000,0.000
1641221115272079872,2022-01-03-14:45:15,10.1.1.11,183,-0.110,-0.110,-0.110,0.000,0.000,0.000
1641221115475764992,2022-01-03-14:45:15,10.1.1.11,186,-0.120,-0.120,-0.120,0.000,0.000,0.000
1641221115671159040,2022-01-03-14:45:15,10.1.1.11,181,-0.130,-0.130,-0.130,0.000,0.000,0.000
1641221115873712128,2022-01-03-14:45:15,10.1.1.11,183,-0.140,-0.140,-0.140,0.000,0.000,0.000
1641221116071090944,2022-01-03-14:45:16,10.1.1.11,180,-0.150,-0.150,-0.150,0.000,0.000,0.000
1641221116269917952,2022-01-03-14:45:16,10.1.1.11,177,-0.160,-0.160,-0.160,0.000,0.000,0.000
1641221116469409024,2022-01-03-14:45:16,10.1.1.11,176,-0.170,-0.170,-0.170,0.000,0.000,0.000
1641221116669516032,2022-01-03-14:45:16,10.1.1.11,176,-0.180,-0.180,-0.180,0.000,0.000,0.000
1641221116869579008,2022-01-03-14:45:16,10.1.1.11,175,-0.190,-0.190,-0.190,0.000,0.000,0.000
1641221117068867840,2022-01-03-14:45:17,10.1.1.11,173,-0.200,-0.200,-0.200,0.000,0.000,0.000
1641221117269180160,2022-01-03-14:45:17,10.1.1.11,173,-0.210,-0.210,-0.210,0.000,0.000,0.000
1641221117474180864,2022-01-03-14:45:17,10.1.1.11,177,-0.220,-0.220,-0.220,0.000,0.000,0.000
1641221117668626944,2022-01-03-14:45:17,10.1.1.11,171,-0.230,-0.230,-0.230,0.000,0.000,0.000
1641221117867836928,2022-01-03-14:45:17,10.1.1.11,169,-0.240,-0.240,-0.240,0.000,0.000,0.000
1641221118070578176,2022-01-03-14:45:18,10.1.1.11,169,-0.250,-0.250,-0.250,0.000,0.000,0.000
1641221118267074048,2022-01-03-14:45:18,10.1.1.11,166,-0.260,-0.260,-0.260,0.000,0.000,0.000
1641221118466972160,2022-01-03-14:45:18,10.1.1.11,165,-0.270,-0.270,-0.270,0.000,0.000,0.000
1641221118668566016,2022-01-03-14:45:18,10.1.1.11,165,-0.280,-0.280,-0.280,0.000,0.000,0.000
1641221118868477952,2022-01-03-14:45:18,10.1.1.11,163,-0.290,-0.290,-0.290,0.000,0.000,0.000
1641221119073640960,2022-01-03-14:45:19,10.1.1.11,169,-0.300,-0.300,-0.300,0.000,0.000,0.000
1641221119286524160,2022-01-03-14:45:19,10.1.1.11,179,-0.310,-0.310,-0.310,0.000,0.000,0.000
1641221119486640896,2022-01-03-14:45:19,10.1.1.11,178,-0.320,-0.320,-0.320,0.000,0.000,0.000
1641221119694401024,2022-01-03-14:45:19,10.1.1.11,186,-0.330,-0.330,-0.330,0.000,0.000,0.000
1641221119884568832,2022-01-03-14:45:19,10.1.1.11,172,-0.340,-0.340,-0.340,0.000,0.000,0.000
1641221120087707136,2022-01-03-14:45:20,10.1.1.11,174,-0.350,-0.350,-0.350,0.000,0.000,0.000
1641221120504070912,2022-01-03-14:45:20,10.1.1.11,171,-0.370,-0.370,-0.370,0.000,0.000,0.000
1641221120703648000,2022-01-03-14:45:20,10.1.1.11,170,-0.380,-0.380,-0.380,0.000,0.000,0.000
1641221120902842880,2022-01-03-14:45:20,10.1.1.11,168,-0.390,-0.390,-0.390,0.000,0.000,0.000
1641221121102343936,2022-01-03-14:45:21,10.1.1.11,167,-0.400,-0.400,-0.400,0.000,0.000,0.000
1641221121302163968,2022-01-03-14:45:21,10.1.1.11,166,-0.410,-0.410,-0.410,0.000,0.000,0.000
1641221121501555968,2022-01-03-14:45:21,10.1.1.11,165,-0.420,-0.420,-0.420,0.000,0.000,0.000
1641221121701432064,2022-01-03-14:45:21,10.1.1.11,164,-0.430,-0.430,-0.430,0.000,0.000,0.000
1641221121901396992,2022-01-03-14:45:21,10.1.1.11,163,-0.440,-0.440,-0.440,0.000,0.000,0.000
1641221122101760000,2022-01-03-14:45:22,10.1.1.11,162,-0.450,-0.450,-0.450,0.000,0.000,0.000
1641221122361074944,2022-01-03-14:45:22,10.1.1.11,218,-0.460,-0.460,-0.460,0.000,0.000,0.000
1641221122525927168,2022-01-03-14:45:22,10.1.1.11,164,-0.470,-0.470,-0.470,0.000,0.000,0.000
1641221122724900096,2022-01-03-14:45:22,10.1.1.11,163,-0.480,-0.480,-0.480,0.000,0.000,0.000
1641221122925894144,2022-01-03-14:45:22,10.1.1.11,163,-0.490,-0.490,-0.490,0.000,0.000,0.000
1641221123126913024,2022-01-03-14:45:23,10.1.1.11,163,-0.480,-0.480,-0.480,0.000,0.000,0.000
1641221123327662080,2022-01-03-14:45:23,10.1.1.11,163,-0.470,-0.470,-0.470,0.000,0.000,0.000
1641221123548969984,2022-01-03-14:45:23,10.1.1.11,182,-0.460,-0.460,-0.460,0.000,0.000,0.000
1641221123749676032,2022-01-03-14:45:23,10.1.1.11,179,-0.450,-0.450,-0.450,0.000,0.000,0.000
1641221123950509056,2022-01-03-14:45:23,10.1.1.11,180,-0.440,-0.440,-0.440,0.000,0.000,0.000
1641221124151177984,2022-01-03-14:45:24,10.1.1.11,180,-0.430,-0.430,-0.430,0.000,0.000,0.000
1641221124352039168,2022-01-03-14:45:24,10.1.1.11,179,-0.420,-0.420,-0.420,0.000,0.000,0.000
1641221124552819968,2022-01-03-14:45:24,10.1.1.11,180,-0.410,-0.410,-0.410,0.000,0.000,0.000
1641221124753297920,2022-01-03-14:45:24,10.1.1.11,180,-0.400,-0.400,-0.400,0.000,0.000,0.000
1641221124954216960,2022-01-03-14:45:24,10.1.1.11,180,-0.390,-0.390,-0.390,0.000,0.000,0.000
1641221125155474944,2022-01-03-14:45:25,10.1.1.11,181,-0.380,-0.380,-0.380,0.000,0.000,0.000
1641221125360619008,2022-01-03-14:45:25,10.1.1.11,185,-0.370,-0.370,-0.370,0.000,0.000,0.000
1641221125569650944,2022-01-03-14:45:25,10.1.1.11,189,-0.360,-0.360,-0.360,0.000,0.000,0.000
1641221125756326912,2022-01-03-14:45:25,10.1.1.11,179,-0.350,-0.350,-0.350,0.000,0.000,0.000
1641221125957499904,2022-01-03-14:45:25,10.1.1.11,180,-0.340,-0.340,-0.340,0.000,0.000,0.000
1641221126165811968,2022-01-03-14:45:26,10.1.1.11,188,-0.330,-0.330,-0.330,0.000,0.000,0.000
1641221126358155008,2022-01-03-14:45:26,10.1.1.11,179,-0.320,-0.320,-0.320,0.000,0.000,0.000
1641221126559011072,2022-01-03-14:45:26,10.1.1.11,180,-0.310,-0.310,-0.310,0.000,0.000,0.000
1641221126759123200,2022-01-03-14:45:26,10.1.1.11,179,-0.300,-0.300,-0.300,0.000,0.000,0.000
1641221126961793024,2022-01-03-14:45:26,10.1.1.11,182,-0.290,-0.290,-0.290,0.000,0.000,0.000
1641221127160211200,2022-01-03-14:45:27,10.1.1.11,179,-0.280,-0.280,-0.280,0.000,0.000,0.000
1641221127360548864,2022-01-03-14:45:27,10.1.1.11,179,-0.270,-0.270,-0.270,0.000,0.000,0.000
1641221127560870912,2022-01-03-14:45:27,10.1.1.11,179,-0.260,-0.260,-0.260,0.000,0.000,0.000
1641221127765793024,2022-01-03-14:45:27,10.1.1.11,183,-0.250,-0.250,-0.250,0.000,0.000,0.000
1641221127961827072,2022-01-03-14:45:27,10.1.1.11,178,-0.240,-0.240,-0.240,0.000,0.000,0.000
1641221128162110208,2022-01-03-14:45:28,10.1.1.11,178,-0.230,-0.230,-0.230,0.000,0.000,0.000
1641221128363255040,2022-01-03-14:45:28,10.1.1.11,179,-0.220,-0.220,-0.220,0.000,0.000,0.000
1641221128562892032,2022-01-03-14:45:28,10.1.1.11,178,-0.210,-0.210,-0.210,0.000,0.000,0.000
1641221128984173056,2022-01-03-14:45:28,10.1.1.11,197,-0.190,-0.190,-0.190,0.000,0.000,0.000
1641221129183912960,2022-01-03-14:45:29,10.1.1.11,197,-0.180,-0.180,-0.180,0.000,0.000,0.000
1641221129384473088,2022-01-03-14:45:29,10.1.1.11,197,-0.170,-0.170,-0.170,0.000,0.000,0.000
1641221129583770880,2022-01-03-14:45:29,10.1.1.11,196,-0.160,-0.160,-0.160,0.000,0.000,0.000
1641221129786196992,2022-01-03-14:45:29,10.1.1.11,198,-0.150,-0.150,-0.150,0.000,0.000,0.000
1641221129985208064,2022-01-03-14:45:29,10.1.1.11,194,-0.140,-0.140,-0.140,0.000,0.000,0.000
1641221130184642048,2022-01-03-14:45:30,10.1.1.11,193,-0.130,-0.130,-0.130,0.000,0.000,0.000
1641221130385040128,2022-01-03-14:45:30,10.1.1.11,193,-0.120,-0.120,-0.120,0.000,0.000,0.000
1641221130786515968,2022-01-03-14:45:30,10.1.1.11,194,-0.100,-0.100,-0.100,0.000,0.000,0.000
1641221130985483008,2022-01-03-14:45:30,10.1.1.11,192,-0.090,-0.090,-0.090,0.000,0.000,0.000
1641221131185494784,2022-01-03-14:45:31,10.1.1.11,189,-0.080,-0.080,-0.080,0.000,0.000,0.000
1641221131385603840,2022-01-03-14:45:31,10.1.1.11,188,-0.070,-0.070,-0.070,0.000,0.000,0.000
1641221131585638144,2022-01-03-14:45:31,10.1.1.11,185,-0.060,-0.060,-0.060,0.000,0.000,0.000
1641221131785679104,2022-01-03-14:45:31,10.1.1.11,183,-0.050,-0.050,-0.050,0.000,0.000,0.000
1641221131985655040,2022-01-03-14:45:31,10.1.1.11,182,-0.040,-0.040,-0.040,0.000,0.000,0.000
1641221132185239040,2022-01-03-14:45:32,10.1.1.11,181,-0.030,-0.030,-0.030,0.000,0.000,0.000
1641221132386776832,2022-01-03-14:45:32,10.1.1.11,182,-0.020,-0.020,-0.020,0.000,0.000,0.000
1641221132806140928,2022-01-03-14:45:32,10.1.1.11,197,0.000,0.000,0.000,0.000,0.000,0.000
1641221133006430976,2022-01-03-14:45:33,10.1.1.11,197,-0.010,-0.010,-0.010,0.000,0.000,0.000
1641221133206199808,2022-01-03-14:45:33,10.1.1.11,196,-0.020,-0.020,-0.020,0.000,0.000,0.000
1641221133405544960,2022-01-03-14:45:33,10.1.1.11,195,-0.030,-0.030,-0.030,0.000,0.000,0.000
1641221133605998080,2022-01-03-14:45:33,10.1.1.11,195,-0.040,-0.040,-0.040,0.000,0.000,0.000
1641221133805766144,2022-01-03-14:45:33,10.1.1.11,195,-0.050,-0.050,-0.050,0.000,0.000,0.000
1641221134005959936,2022-01-03-14:45:34,10.1.1.11,194,-0.060,-0.060,-0.060,0.000,0.000,0.000
1641221134216262144,2022-01-03-14:45:34,10.1.1.11,204,-0.070,-0.070,-0.070,0.000,0.000,0.000
1641221134405786112,2022-01-03-14:45:34,10.1.1.11,187,-0.080,-0.080,-0.080,0.000,0.000,0.000
1641221134605686016,2022-01-03-14:45:34,10.1.1.11,186,-0.090,-0.090,-0.090,0.000,0.000,0.000
1641221134805284096,2022-01-03-14:45:34,10.1.1.11,185,-0.100,-0.100,-0.100,0.000,0.000,0.000
1641221135005306112,2022-01-03-14:45:35,10.1.1.11,184,-0.110,-0.110,-0.110,0.000,0.000,0.000
1641221135205780992,2022-01-03-14:45:35,10.1.1.11,184,-0.120,-0.120,-0.120,0.000,0.000,0.000
1641221135405249024,2022-01-03-14:45:35,10.1.1.11,182,-0.130,-0.130,-0.130,0.000,0.000,0.000
1641221135605295872,2022-01-03-14:45:35,10.1.1.11,181,-0.140,-0.140,-0.140,0.000,0.000,0.000
1641221135804711936,2022-01-03-14:45:35,10.1.1.11,180,-0.150,-0.150,-0.150,0.000,0.000,0.000
1641221136004993024,2022-01-03-14:45:36,10.1.1.11,180,-0.160,-0.160,-0.160,0.000,0.000,0.000
1641221136225475072,2022-01-03-14:45:36,10.1.1.11,199,-0.170,-0.170,-0.170,0.000,0.000,0.000
1641221136425483008,2022-01-03-14:45:36,10.1.1.11,199,-0.180,-0.180,-0.180,0.000,0.000,0.000
1641221136624224000,2022-01-03-14:45:36,10.1.1.11,194,-0.190,-0.190,-0.190,0.000,0.000,0.000
1641221136825447936,2022-01-03-14:45:36,10.1.1.11,195,-0.200,-0.200,-0.200,0.000,0.000,0.000
1641221137024790016,2022-01-03-14:45:37,10.1.1.11,194,-0.210,-0.210,-0.210,0.000,0.000,0.000
1641221137224090112,2022-01-03-14:45:37,10.1.1.11,192,-0.220,-0.220,-0.220,0.000,0.000,0.000
1641221137423738112,2022-01-03-14:45:37,10.1.1.11,191,-0.230,-0.230,-0.230,0.000,0.000,0.000
1641221137624051968,2022-01-03-14:45:37,10.1.1.11,182,-0.240,-0.240,-0.240,0.000,0.000,0.000
1641221137843552000,2022-01-03-14:45:37,10.1.1.11,196,-0.250,-0.250,-0.250,0.000,0.000,0.000
1641221138043726080,2022-01-03-14:45:38,10.1.1.11,196,-0.260,-0.260,-0.260,0.000,0.000,0.000
1641221138243144960,2022-01-03-14:45:38,10.1.1.11,195,-0.270,-0.270,-0.270,0.000,0.000,0.000
1641221138443625984,2022-01-03-14:45:38,10.1.1.11,195,-0.280,-0.280,-0.280,0.000,0.000,0.000
1641221138643333888,2022-01-03-14:45:38,10.1.1.11,194,-0.290,-0.290,-0.290,0.000,0.000,0.000
1641221138842344960,2022-01-03-14:45:38,10.1.1.11,193,-0.300,-0.300,-0.300,0.000,0.000,0.000
1641221139043507200,2022-01-03-14:45:39,10.1.1.11,193,-0.310,-0.310,-0.310,0.000,0.000,0.000
1641221139245081856,2022-01-03-14:45:39,10.1.1.11,194,-0.320,-0.320,-0.320,0.000,0.000,0.000
1641221139442225920,2022-01-03-14:45:39,10.1.1.11,183,-0.330,-0.330,-0.330,0.000,0.000,0.000
1641221139648989952,2022-01-03-14:45:39,10.1.1.11,188,-0.340,-0.340,-0.340,0.000,0.000,0.000
1641221139844562176,2022-01-03-14:45:39,10.1.1.11,183,-0.350,-0.350,-0.350,0.000,0.000,0.000
1641221140041380864,2022-01-03-14:45:40,10.1.1.11,179,-0.360,-0.360,-0.360,0.000,0.000,0.000
1641221140241965056,2022-01-03-14:45:40,10.1.1.11,179,-0.370,-0.370,-0.370,0.000,0.000,0.000
1641221140440694016,2022-01-03-14:45:40,10.1.1.11,176,-0.380,-0.380,-0.380,0.000,0.000,0.000
1641221140860337920,2022-01-03-14:45:40,10.1.1.11,193,-0.400,-0.400,-0.400,0.000,0.000,0.000
1641221141080358912,2022-01-03-14:45:41,10.1.1.11,186,-0.410,-0.410,-0.410,0.000,0.000,0.000
1641221141280019968,2022-01-03-14:45:41,10.1.1.11,185,-0.420,-0.420,-0.420,0.000,0.000,0.000
1641221141479720192,2022-01-03-14:45:41,10.1.1.11,184,-0.430,-0.430,-0.430,0.000,0.000,0.000
1641221141680134144,2022-01-03-14:45:41,10.1.1.11,184,-0.440,-0.440,-0.440,0.000,0.000,0.000
1641221141879340032,2022-01-03-14:45:41,10.1.1.11,182,-0.450,-0.450,-0.450,0.000,0.000,0.000
1641221142080902144,2022-01-03-14:45:42,10.1.1.11,183,-0.460,-0.460,-0.460,0.000,0.000,0.000
1641221142278856960,2022-01-03-14:45:42,10.1.1.11,181,-0.470,-0.470,-0.470,0.000,0.000,0.000
1641221142479401984,2022-01-03-14:45:42,10.1.1.11,180,-0.480,-0.480,-0.480,0.000,0.000,0.000
1641221142678236928,2022-01-03-14:45:42,10.1.1.11,179,-0.490,-0.490,-0.490,0.000,0.000,0.000
1641221142880801024,2022-01-03-14:45:42,10.1.1.11,181,-0.480,-0.480,-0.480,0.000,0.000,0.000
1641221143077730048,2022-01-03-14:45:43,10.1.1.11,177,-0.470,-0.470,-0.470,0.000,0.000,0.000
1641221143277647104,2022-01-03-14:45:43,10.1.1.11,176,-0.460,-0.460,-0.460,0.000,0.000,0.000
1641221143477318144,2022-01-03-14:45:43,10.1.1.11,175,-0.450,-0.450,-0.450,0.000,0.000,0.000
1641221143698985216,2022-01-03-14:45:43,10.1.1.11,192,-0.440,-0.440,-0.440,0.000,0.000,0.000
1641221143900773120,2022-01-03-14:45:43,10.1.1.11,194,-0.430,-0.430,-0.430,0.000,0.000,0.000
1641221144096941056,2022-01-03-14:45:44,10.1.1.11,188,-0.420,-0.420,-0.420,0.000,0.000,0.000
1641221144297338880,2022-01-03-14:45:44,10.1.1.11,188,-0.410,-0.410,-0.410,0.000,0.000,0.000
1641221144496429824,2022-01-03-14:45:44,10.1.1.11,186,-0.400,-0.400,-0.400,0.000,0.000,0.000
1641221144696510976,2022-01-03-14:45:44,10.1.1.11,185,-0.390,-0.390,-0.390,0.000,0.000,0.000
1641221144895718144,2022-01-03-14:45:44,10.1.1.11,184,-0.380,-0.380,-0.380,0.000,0.000,0.000
1641221145096059136,2022-01-03-14:45:45,10.1.1.11,184,-0.370,-0.370,-0.370,0.000,0.000,0.000
1641221145295188992,2022-01-03-14:45:45,10.1.1.11,183,-0.360,-0.360,-0.360,0.000,0.000,0.000
1641221145495044864,2022-01-03-14:45:45,10.1.1.11,182,-0.350,-0.350,-0.350,0.000,0.000,0.000
1641221145700333056,2022-01-03-14:45:45,10.1.1.11,186,-0.340,-0.340,-0.340,0.000,0.000,0.000
1641221145894926080,2022-01-03-14:45:45,10.1.1.11,179,-0.330,-0.330,-0.330,0.000,0.000,0.000
1641221146098923008,2022-01-03-14:45:46,10.1.1.11,183,-0.320,-0.320,-0.320,0.000,0.000,0.000
1641221146293860864,2022-01-03-14:45:46,10.1.1.11,177,-0.310,-0.310,-0.310,0.000,0.000,0.000
1641221146493777920,2022-01-03-14:45:46,10.1.1.11,176,-0.300,-0.300,-0.300,0.000,0.000,0.000
1641221146693805824,2022-01-03-14:45:46,10.1.1.11,176,-0.290,-0.290,-0.290,0.000,0.000,0.000
1641221146893347072,2022-01-03-14:45:46,10.1.1.11,175,-0.280,-0.280,-0.280,0.000,0.000,0.000
1641221147092598016,2022-01-03-14:45:47,10.1.1.11,173,-0.270,-0.270,-0.270,0.000,0.000,0.000
1641221147293579008,2022-01-03-14:45:47,10.1.1.11,172,-0.260,-0.260,-0.260,0.000,0.000,0.000
1641221147492300032,2022-01-03-14:45:47,10.1.1.11,168,-0.250,-0.250,-0.250,0.000,0.000,0.000
1641221147693076992,2022-01-03-14:45:47,10.1.1.11,168,-0.240,-0.240,-0.240,0.000,0.000,0.000
1641221148116486144,2022-01-03-14:45:48,10.1.1.11,190,-0.220,-0.220,-0.220,0.000,0.000,0.000
1641221148310765056,2022-01-03-14:45:48,10.1.1.11,182,-0.210,-0.210,-0.210,0.000,0.000,0.000
1641221148511913984,2022-01-03-14:45:48,10.1.1.11,182,-0.200,-0.200,-0.200,0.000,0.000,0.000
1641221148710302976,2022-01-03-14:45:48,10.1.1.11,179,-0.190,-0.190,-0.190,0.000,0.000,0.000
1641221148909778944,2022-01-03-14:45:48,10.1.1.11,177,-0.180,-0.180,-0.180,0.000,0.000,0.000
1641221149109612032,2022-01-03-14:45:49,10.1.1.11,176,-0.170,-0.170,-0.170,0.000,0.000,0.000
1641221149510273024,2022-01-03-14:45:49,10.1.1.11,173,-0.150,-0.150,-0.150,0.000,0.000,0.000
1641221149708997888,2022-01-03-14:45:49,10.1.1.11,172,-0.140,-0.140,-0.140,0.000,0.000,0.000
1641221149908238848,2022-01-03-14:45:49,10.1.1.11,170,-0.130,-0.130,-0.130,0.000,0.000,0.000
1641221150128015104,2022-01-03-14:45:50,10.1.1.11,177,-0.120,-0.120,-0.120,0.000,0.000,0.000
1641221150334381056,2022-01-03-14:45:50,10.1.1.11,181,-0.110,-0.110,-0.110,0.000,0.000,0.000
1641221150527292928,2022-01-03-14:45:50,10.1.1.11,173,-0.100,-0.100,-0.100,0.000,0.000,0.000
1641221150727876864,2022-01-03-14:45:50,10.1.1.11,171,-0.090,-0.090,-0.090,0.000,0.000,0.000
1641221150927678208,2022-01-03-14:45:50,10.1.1.11,170,-0.080,-0.080,-0.080,0.000,0.000,0.000
1641221151129647104,2022-01-03-14:45:51,10.1.1.11,169,-0.070,-0.070,-0.070,0.000,0.000,0.000
1641221151326329088,2022-01-03-14:45:51,10.1.1.11,163,-0.060,-0.060,-0.060,0.000,0.000,0.000
1641221151548034816,2022-01-03-14:45:51,10.1.1.11,183,-0.050,-0.050,-0.050,0.000,0.000,0.000
1641221151745196032,2022-01-03-14:45:51,10.1.1.11,179,-0.040,-0.040,-0.040,0.000,0.000,0.000
1641221151945286912,2022-01-03-14:45:51,10.1.1.11,179,-0.030,-0.030,-0.030,0.000,0.000,0.000
1641221152145037056,2022-01-03-14:45:52,10.1.1.11,178,-0.020,-0.020,-0.020,0.000,0.000,0.000
1641221152344860928,2022-01-03-14:45:52,10.1.1.11,177,-0.010,-0.010,-0.010,0.000,0.000,0.000
1641221152544769024,2022-01-03-14:45:52,10.1.1.11,176,0.000,0.000,0.000,0.000,0.000,0.000
1641221152744098048,2022-01-03-14:45:52,10.1.1.11,173,-0.010,-0.010,-0.010,0.000,0.000,0.000
1641221152945939968,2022-01-03-14:45:52,10.1.1.11,161,-0.020,-0.020,-0.020,0.000,0.000,0.000
1641221153163091968,2022-01-03-14:45:53,10.1.1.11,175,-0.030,-0.030,-0.030,0.000,0.000,0.000
1641221153362855936,2022-01-03-14:45:53,10.1.1.11,174,-0.040,-0.040,-0.040,0.000,0.000,0.000
1641221153563175936,2022-01-03-14:45:53,10.1.1.11,174,-0.050,-0.050,-0.050,0.000,0.000,0.000
1641221153761943040,2022-01-03-14:45:53,10.1.1.11,172,-0.060,-0.060,-0.060,0.000,0.000,0.000
1641221153961259008,2022-01-03-14:45:53,10.1.1.11,171,-0.070,-0.070,-0.070,0.000,0.000,0.000
1641221154163311104,2022-01-03-14:45:54,10.1.1.11,171,-0.080,-0.080,-0.080,0.000,0.000,0.000
1641221154363403008,2022-01-03-14:45:54,10.1.1.11,172,-0.090,-0.090,-0.090,0.000,0.000,0.000
1641221154564454144,2022-01-03-14:45:54,10.1.1.11,172,-0.100,-0.100,-0.100,0.000,0.000,0.000
1641221154766486016,2022-01-03-14:45:54,10.1.1.11,174,-0.110,-0.110,-0.110,0.000,0.000,0.000
1641221154966944000,2022-01-03-14:45:54,10.1.1.11,174,-0.120,-0.120,-0.120,0.000,0.000,0.000
1641221155167643904,2022-01-03-14:45:55,10.1.1.11,174,-0.130,-0.130,-0.130,0.000,0.000,0.000
1641221155368542976,2022-01-03-14:45:55,10.1.1.11,174,-0.140,-0.140,-0.140,0.000,0.000,0.000
1641221155569556992,2022-01-03-14:45:55,10.1.1.11,175,-0.150,-0.150,-0.150,0.000,0.000,0.000
1641221155770426112,2022-01-03-14:45:55,10.1.1.11,175,-0.160,-0.160,-0.160,0.000,0.000,0.000
1641221155971113984,2022-01-03-14:45:55,10.1.1.11,175,-0.170,-0.170,-0.170,0.000,0.000,0.000
1641221156171674112,2022-01-03-14:45:56,10.1.1.11,174,-0.180,-0.180,-0.180,0.000,0.000,0.000
1641221156377545984,2022-01-03-14:45:56,10.1.1.11,180,-0.190,-0.190,-0.190,0.000,0.000,0.000
1641221156573160960,2022-01-03-14:45:56,10.1.1.11,174,-0.200,-0.200,-0.200,0.000,0.000,0.000
1641221156774163968,2022-01-03-14:45:56,10.1.1.11,175,-0.210,-0.210,-0.210,0.000,0.000,0.000
1641221156974324992,2022-01-03-14:45:56,10.1.1.11,175,-0.220,-0.220,-0.220,0.000,0.000,0.000
1641221157175216896,2022-01-03-14:45:57,10.1.1.11,175,-0.230,-0.230,-0.230,0.000,0.000,0.000
1641221157376150016,2022-01-03-14:45:57,10.1.1.11,176,-0.240,-0.240,-0.240,0.000,0.000,0.000
1641221157576324096,2022-01-03-14:45:57,10.1.1.11,175,-0.250,-0.250,-0.250,0.000,0.000,0.000
1641221157777987840,2022-01-03-14:45:57,10.1.1.11,177,-0.260,-0.260,-0.260,0.000,0.000,0.000
1641221157978464000,2022-01-03-14:45:57,10.1.1.11,177,-0.270,-0.270,-0.270,0.000,0.000,0.000
1641221158179008000,2022-01-03-14:45:58,10.1.1.11,176,-0.280,-0.280,-0.280,0.000,0.000,0.000
1641221158379322112,2022-01-03-14:45:58,10.1.1.11,176,-0.290,-0.290,-0.290,0.000,0.000,0.000
1641221158582603008,2022-01-03-14:45:58,10.1.1.11,179,-0.300,-0.300,-0.300,0.000,0.000,0.000
1641221158800539904,2022-01-03-14:45:58,10.1.1.11,191,-0.310,-0.310,-0.310,0.000,0.000,0.000
1641221159000823040,2022-01-03-14:45:59,10.1.1.11,189,-0.320,-0.320,-0.320,0.000,0.000,0.000
1641221159201248768,2022-01-03-14:45:59,10.1.1.11,189,-0.330,-0.330,-0.330,0.000,0.000,0.000
1641221159401318912,2022-01-03-14:45:59,10.1.1.11,188,-0.340,-0.340,-0.340,0.000,0.000,0.000
1641221159603707904,2022-01-03-14:45:59,10.1.1.11,189,-0.350,-0.350,-0.350,0.000,0.000,0.000
1641221159802210048,2022-01-03-14:45:59,10.1.1.11,185,-0.360,-0.360,-0.360,0.000,0.000,0.000
1641221160002379776,2022-01-03-14:46:00,10.1.1.11,185,-0.370,-0.370,-0.370,0.000,0.000,0.000
1641221160203068928,2022-01-03-14:46:00,10.1.1.11,185,-0.380,-0.380,-0.380,0.000,0.000,0.000
1641221160403596032,2022-01-03-14:46:00,10.1.1.11,185,-0.390,-0.390,-0.390,0.000,0.000,0.000
1641221160604232192,2022-01-03-14:46:00,10.1.1.11,185,-0.400,-0.400,-0.400,0.000,0.000,0.000
1641221160807341056,2022-01-03-14:46:00,10.1.1.11,188,-0.410,-0.410,-0.410,0.000,0.000,0.000
1641221161003535104,2022-01-03-14:46:01,10.1.1.11,183,-0.420,-0.420,-0.420,0.000,0.000,0.000
1641221161203991808,2022-01-03-14:46:01,10.1.1.11,183,-0.430,-0.430,-0.430,0.000,0.000,0.000
1641221161404512768,2022-01-03-14:46:01,10.1.1.11,183,-0.440,-0.440,-0.440,0.000,0.000,0.000
1641221161604536064,2022-01-03-14:46:01,10.1.1.11,182,-0.450,-0.450,-0.450,0.000,0.000,0.000
1641221161804622848,2022-01-03-14:46:01,10.1.1.11,182,-0.460,-0.460,-0.460,0.000,0.000,0.000
1641221162005507840,2022-01-03-14:46:02,10.1.1.11,182,-0.470,-0.470,-0.470,0.000,0.000,0.000
1641221162205091072,2022-01-03-14:46:02,10.1.1.11,181,-0.480,-0.480,-0.480,0.000,0.000,0.000
1641221162405998080,2022-01-03-14:46:02,10.1.1.11,181,-0.490,-0.490,-0.490,0.000,0.000,0.000
1641221162605292032,2022-01-03-14:46:02,10.1.1.11,180,-0.480,-0.480,-0.480,0.000,0.000,0.000
1641221162825890048,2022-01-03-14:46:02,10.1.1.11,199,-0.470,-0.470,-0.470,0.000,0.000,0.000
1641221163026127104,2022-01-03-14:46:03,10.1.1.11,199,-0.460,-0.460,-0.460,0.000,0.000,0.000
1641221163225992960,2022-01-03-14:46:03,10.1.1.11,196,-0.450,-0.450,-0.450,0.000,0.000,0.000
1641221163428397056,2022-01-03-14:46:03,10.1.1.11,198,-0.440,-0.440,-0.440,0.000,0.000,0.000
1641221163625639936,2022-01-03-14:46:03,10.1.1.11,195,-0.430,-0.430,-0.430,0.000,0.000,0.000
1641221163825940992,2022-01-03-14:46:03,10.1.1.11,195,-0.420,-0.420,-0.420,0.000,0.000,0.000
1641221164026875904,2022-01-03-14:46:04,10.1.1.11,195,-0.410,-0.410,-0.410,0.000,0.000,0.000
1641221164228462080,2022-01-03-14:46:04,10.1.1.11,194,-0.400,-0.400,-0.400,0.000,0.000,0.000
1641221164426400000,2022-01-03-14:46:04,10.1.1.11,193,-0.390,-0.390,-0.390,0.000,0.000,0.000
1641221164826515968,2022-01-03-14:46:04,10.1.1.11,192,-0.370,-0.370,-0.370,0.000,0.000,0.000
1641221165026350080,2022-01-03-14:46:05,10.1.1.11,191,-0.360,-0.360,-0.360,0.000,0.000,0.000
1641221165226170112,2022-01-03-14:46:05,10.1.1.11,189,-0.350,-0.350,-0.350,0.000,0.000,0.000
1641221165427164928,2022-01-03-14:46:05,10.1.1.11,188,-0.340,-0.340,-0.340,0.000,0.000,0.000
1641221165628227072,2022-01-03-14:46:05,10.1.1.11,189,-0.330,-0.330,-0.330,0.000,0.000,0.000
1641221165826411008,2022-01-03-14:46:05,10.1.1.11,187,-0.320,-0.320,-0.320,0.000,0.000,0.000
1641221166026487040,2022-01-03-14:46:06,10.1.1.11,186,-0.310,-0.310,-0.310,0.000,0.000,0.000
1641221166228547072,2022-01-03-14:46:06,10.1.1.11,187,-0.300,-0.300,-0.300,0.000,0.000,0.000
1641221166425884928,2022-01-03-14:46:06,10.1.1.11,184,-0.290,-0.290,-0.290,0.000,0.000,0.000
1641221166639937024,2022-01-03-14:46:06,10.1.1.11,190,-0.280,-0.280,-0.280,0.000,0.000,0.000
1641221166826266112,2022-01-03-14:46:06,10.1.1.11,183,-0.270,-0.270,-0.270,0.000,0.000,0.000
1641221167026205952,2022-01-03-14:46:07,10.1.1.11,182,-0.260,-0.260,-0.260,0.000,0.000,0.000
1641221167246191104,2022-01-03-14:46:07,10.1.1.11,201,-0.250,-0.250,-0.250,0.000,0.000,0.000
1641221167446848000,2022-01-03-14:46:07,10.1.1.11,196,-0.240,-0.240,-0.240,0.000,0.000,0.000
1641221167645551872,2022-01-03-14:46:07,10.1.1.11,195,-0.230,-0.230,-0.230,0.000,0.000,0.000
1641221167850779904,2022-01-03-14:46:07,10.1.1.11,199,-0.220,-0.220,-0.220,0.000,0.000,0.000
1641221168046010880,2022-01-03-14:46:08,10.1.1.11,194,-0.210,-0.210,-0.210,0.000,0.000,0.000
1641221168246323200,2022-01-03-14:46:08,10.1.1.11,193,-0.200,-0.200,-0.200,0.000,0.000,0.000
1641221168445049088,2022-01-03-14:46:08,10.1.1.11,191,-0.190,-0.190,-0.190,0.000,0.000,0.000
1641221168645420032,2022-01-03-14:46:08,10.1.1.11,191,-0.180,-0.180,-0.180,0.000,0.000,0.000
1641221168845143040,2022-01-03-14:46:08,10.1.1.11,189,-0.170,-0.170,-0.170,0.000,0.000,0.000
1641221169045959936,2022-01-03-14:46:09,10.1.1.11,189,-0.160,-0.160,-0.160,0.000,0.000,0.000
1641221169244585984,2022-01-03-14:46:09,10.1.1.11,185,-0.150,-0.150,-0.150,0.000,0.000,0.000
1641221169449554944,2022-01-03-14:46:09,10.1.1.11,189,-0.140,-0.140,-0.140,0.000,0.000,0.000
1641221169644913920,2022-01-03-14:46:09,10.1.1.11,184,-0.130,-0.130,-0.130,0.000,0.000,0.000
1641221169844022016,2022-01-03-14:46:09,10.1.1.11,180,-0.120,-0.120,-0.120,0.000,0.000,0.000
1641221170046597888,2022-01-03-14:46:10,10.1.1.11,182,-0.110,-0.110,-0.110,0.000,0.000,0.000
1641221170263813120,2022-01-03-14:46:10,10.1.1.11,198,-0.100,-0.100,-0.100,0.000,0.000,0.000
1641221170463357952,2022-01-03-14:46:10,10.1.1.11,197,-0.090,-0.090,-0.090,0.000,0.000,0.000
1641221170662998016,2022-01-03-14:46:10,10.1.1.11,196,-0.080,-0.080,-0.080,0.000,0.000,0.000
1641221170862994944,2022-01-03-14:46:10,10.1.1.11,195,-0.070,-0.070,-0.070,0.000,0.000,0.000
1641221171264386816,2022-01-03-14:46:11,10.1.1.11,195,-0.050,-0.050,-0.050,0.000,0.000,0.000
1641221171462678016,2022-01-03-14:46:11,10.1.1.11,193,-0.040,-0.040,-0.040,0.000,0.000,0.000
1641221171662398976,2022-01-03-14:46:11,10.1.1.11,192,-0.030,-0.030,-0.030,0.000,0.000,0.000
1641221171863399936,2022-01-03-14:46:11,10.1.1.11,192,-0.020,-0.020,-0.020,0.000,0.000,0.000
1641221172064304128,2022-01-03-14:46:12,10.1.1.11,193,-0.010,-0.010,-0.010,0.000,0.000,0.000
1641221172262296064,2022-01-03-14:46:12,10.1.1.11,190,0.000,0.000,0.000,0.000,0.000,0.000
1641221172461949184,2022-01-03-14:46:12,10.1.1.11,189,-0.010,-0.010,-0.010,0.000,0.000,0.000
1641221172661266176,2022-01-03-14:46:12,10.1.1.11,187,-0.020,-0.020,-0.020,0.000,0.000,0.000
1641221172861105920,2022-01-03-14:46:12,10.1.1.11,184,-0.030,-0.030,-0.030,0.000,0.000,0.000
1641221173061711104,2022-01-03-14:46:13,10.1.1.11,184,-0.040,-0.040,-0.040,0.000,0.000,0.000
1641221173260847104,2022-01-03-14:46:13,10.1.1.11,183,-0.050,-0.050,-0.050,0.000,0.000,0.000
1641221173460125952,2022-01-03-14:46:13,10.1.1.11,181,-0.060,-0.060,-0.060,0.000,0.000,0.000
1641221173660270848,2022-01-03-14:46:13,10.1.1.11,178,-0.070,-0.070,-0.070,0.000,0.000,0.000
1641221173860364032,2022-01-03-14:46:13,10.1.1.11,177,-0.080,-0.080,-0.080,0.000,0.000,0.000
1641221174060049152,2022-01-03-14:46:14,10.1.1.11,176,-0.090,-0.090,-0.090,0.000,0.000,0.000
1641221174259394816,2022-01-03-14:46:14,10.1.1.11,174,-0.100,-0.100,-0.100,0.000,0.000,0.000
1641221174479307776,2022-01-03-14:46:14,10.1.1.11,194,-0.110,-0.110,-0.110,0.000,0.000,0.000
1641221174678829824,2022-01-03-14:46:14,10.1.1.11,192,-0.120,-0.120,-0.120,0.000,0.000,0.000
1641221174878426112,2022-01-03-14:46:14,10.1.1.11,191,-0.130,-0.130,-0.130,0.000,0.000,0.000
1641221175080028160,2022-01-03-14:46:15,10.1.1.11,192,-0.140,-0.140,-0.140,0.000,0.000,0.000
1641221175278423040,2022-01-03-14:46:15,10.1.1.11,189,-0.150,-0.150,-0.150,0.000,0.000,0.000
1641221175478601984,2022-01-03-14:46:15,10.1.1.11,188,-0.160,-0.160,-0.160,0.000,0.000,0.000
1641221175678358016,2022-01-03-14:46:15,10.1.1.11,185,-0.170,-0.170,-0.170,0.000,0.000,0.000
1641221175879648000,2022-01-03-14:46:15,10.1.1.11,186,-0.180,-0.180,-0.180,0.000,0.000,0.000
1641221176083950080,2022-01-03-14:46:16,10.1.1.11,189,-0.190,-0.190,-0.190,0.000,0.000,0.000
1641221176277601024,2022-01-03-14:46:16,10.1.1.11,182,-0.200,-0.200,-0.200,0.000,0.000,0.000
1641221176476752896,2022-01-03-14:46:16,10.1.1.11,181,-0.210,-0.210,-0.210,0.000,0.000,0.000
1641221176677140992,2022-01-03-14:46:16,10.1.1.11,180,-0.220,-0.220,-0.220,0.000,0.000,0.000
1641221176881057024,2022-01-03-14:46:16,10.1.1.11,183,-0.230,-0.230,-0.230,0.000,0.000,0.000
1641221177076195072,2022-01-03-14:46:17,10.1.1.11,178,-0.240,-0.240,-0.240,0.000,0.000,0.000
1641221177275665152,2022-01-03-14:46:17,10.1.1.11,177,-0.250,-0.250,-0.250,0.000,0.000,0.000
1641221177476974848,2022-01-03-14:46:17,10.1.1.11,178,-0.260,-0.260,-0.260,0.000,0.000,0.000
1641221177675272960,2022-01-03-14:46:17,10.1.1.11,175,-0.270,-0.270,-0.270,0.000,0.000,0.000
1641221177875386880,2022-01-03-14:46:17,10.1.1.11,174,-0.280,-0.280,-0.280,0.000,0.000,0.000
1641221178075100928,2022-01-03-14:46:18,10.1.1.11,173,-0.290,-0.290,-0.290,0.000,0.000,0.000
1641221178281295104,2022-01-03-14:46:18,10.1.1.11,178,-0.300,-0.300,-0.300,0.000,0.000,0.000
1641221178493645056,2022-01-03-14:46:18,10.1.1.11,179,-0.310,-0.310,-0.310,0.000,0.000,0.000
1641221178693214976,2022-01-03-14:46:18,10.1.1.11,176,-0.320,-0.320,-0.320,0.000,0.000,0.000
1641221178894518016,2022-01-03-14:46:18,10.1.1.11,176,-0.330,-0.330,-0.330,0.000,0.000,0.000
1641221179097507072,2022-01-03-14:46:19,10.1.1.11,179,-0.340,-0.340,-0.340,0.000,0.000,0.000
1641221179293697024,2022-01-03-14:46:19,10.1.1.11,174,-0.350,-0.350,-0.350,0.000,0.000,0.000
1641221179492777216,2022-01-03-14:46:19,10.1.1.11,172,-0.360,-0.360,-0.360,0.000,0.000,0.000
1641221179693965056,2022-01-03-14:46:19,10.1.1.11,172,-0.370,-0.370,-0.370,0.000,0.000,0.000
1641221179901502976,2022-01-03-14:46:19,10.1.1.11,178,-0.380,-0.380,-0.380,0.000,0.000,0.000
1641221180092008960,2022-01-03-14:46:20,10.1.1.11,168,-0.390,-0.390,-0.390,0.000,0.000,0.000
