FedericoMungari/DigitalTwin_service/01_WiredScenario/Output/Output_script/script_rosapi_2_output_robots8_freq0_6.txt
timestamp,date,node,latency,joint_1,joint_2,joint_3,joint_4,joint_5,joint_6
1644350894601057024,2022-02-08-20:08:14,10.1.1.7,0,-0.100,-0.100,-0.100,-0.000,0.000,-0.000
1644350894720902912,2022-02-08-20:08:14,10.1.1.7,19,-0.091,-0.091,-0.091,0.000,0.000,0.000
1644350894841155072,2022-02-08-20:08:14,10.1.1.7,37,-0.080,-0.080,-0.080,0.000,0.000,0.000
1644350894941512960,2022-02-08-20:08:14,10.1.1.7,36,-0.070,-0.070,-0.070,0.000,0.000,0.000
1644350895041294080,2022-02-08-20:08:15,10.1.1.7,32,-0.060,-0.060,-0.060,0.000,0.000,0.000
1644350895141470976,2022-02-08-20:08:15,10.1.1.7,31,-0.050,-0.050,-0.050,0.000,0.000,0.000
1644350895240912896,2022-02-08-20:08:15,10.1.1.7,30,-0.040,-0.040,-0.040,0.000,0.000,0.000
1644350895342014976,2022-02-08-20:08:15,10.1.1.7,28,-0.030,-0.030,-0.030,0.000,0.000,0.000
1644350895440958976,2022-02-08-20:08:15,10.1.1.7,27,-0.020,-0.020,-0.020,0.000,0.000,0.000
1644350895542150912,2022-02-08-20:08:15,10.1.1.7,26,-0.010,-0.010,-0.010,0.000,0.000,0.000
1644350895641998080,2022-02-08-20:08:15,10.1.1.7,23,0.000,0.000,0.000,0.000,0.000,0.000
1644350895741241088,2022-02-08-20:08:15,10.1.1.7,23,0.010,0.010,0.010,0.000,0.000,0.000
1644350895842238976,2022-02-08-20:08:15,10.1.1.7,22,0.020,0.020,0.020,0.000,0.000,0.000
1644350895941606912,2022-02-08-20:08:15,10.1.1.7,21,0.030,0.030,0.030,0.000,0.000,0.000
1644350896043149056,2022-02-08-20:08:16,10.1.1.7,21,0.040,0.040,0.040,0.000,0.000,0.000
1644350896142360064,2022-02-08-20:08:16,10.1.1.7,20,0.050,0.050,0.050,0.000,0.000,0.000
1644350896261073152,2022-02-08-20:08:16,10.1.1.7,39,0.060,0.060,0.060,0.000,0.000,0.000
1644350896363902976,2022-02-08-20:08:16,10.1.1.7,38,0.070,0.070,0.070,0.000,0.000,0.000
1644350896461797120,2022-02-08-20:08:16,10.1.1.7,36,0.080,0.080,0.080,0.000,0.000,0.000
1644350896561024000,2022-02-08-20:08:16,10.1.1.7,36,0.090,0.090,0.090,0.000,0.000,0.000
1644350896662513920,2022-02-08-20:08:16,10.1.1.7,34,0.100,0.100,0.100,0.000,0.000,0.000
1644350896763227904,2022-02-08-20:08:16,10.1.1.7,33,0.090,0.090,0.090,0.000,0.000,0.000
1644350896861656064,2022-02-08-20:08:16,10.1.1.7,32,0.080,0.080,0.080,0.000,0.000,0.000
1644350896963161856,2022-02-08-20:08:16,10.1.1.7,31,0.070,0.070,0.070,0.000,0.000,0.000
1644350897062115072,2022-02-08-20:08:17,10.1.1.7,29,0.060,0.060,0.060,0.000,0.000,0.000
1644350897162672896,2022-02-08-20:08:17,10.1.1.7,28,0.050,0.050,0.050,0.000,0.000,0.000
1644350897294434048,2022-02-08-20:08:17,10.1.1.7,27,0.040,0.040,0.040,0.000,0.000,0.000
1644350897362985984,2022-02-08-20:08:17,10.1.1.7,22,0.030,0.030,0.030,0.000,0.000,0.000
1644350897461783040,2022-02-08-20:08:17,10.1.1.7,22,0.020,0.020,0.020,0.000,0.000,0.000
1644350897562753024,2022-02-08-20:08:17,10.1.1.7,20,0.010,0.010,0.010,0.000,0.000,0.000
1644350897661091072,2022-02-08-20:08:17,10.1.1.7,19,0.000,0.000,0.000,0.000,0.000,0.000
1644350897782361088,2022-02-08-20:08:17,10.1.1.7,37,-0.010,-0.010,-0.010,0.000,0.000,0.000
1644350897885929216,2022-02-08-20:08:17,10.1.1.7,36,-0.020,-0.020,-0.020,0.000,0.000,0.000
1644350897982812928,2022-02-08-20:08:17,10.1.1.7,35,-0.030,-0.030,-0.030,0.000,0.000,0.000
1644350898082568960,2022-02-08-20:08:18,10.1.1.7,32,-0.040,-0.040,-0.040,0.000,0.000,0.000
1644350898183373056,2022-02-08-20:08:18,10.1.1.7,31,-0.050,-0.050,-0.050,0.000,0.000,0.000
1644350898281542912,2022-02-08-20:08:18,10.1.1.7,31,-0.060,-0.060,-0.060,0.000,0.000,0.000
1644350898381275904,2022-02-08-20:08:18,10.1.1.7,29,-0.070,-0.070,-0.070,0.000,0.000,0.000
1644350898483143168,2022-02-08-20:08:18,10.1.1.7,27,-0.080,-0.080,-0.080,0.000,0.000,0.000
1644350898582007040,2022-02-08-20:08:18,10.1.1.7,27,-0.090,-0.090,-0.090,0.000,0.000,0.000
1644350898681843968,2022-02-08-20:08:18,10.1.1.7,26,-0.100,-0.100,-0.100,0.000,0.000,0.000
1644350898782963968,2022-02-08-20:08:18,10.1.1.7,25,-0.090,-0.090,-0.090,0.000,0.000,0.000
1644350898882776064,2022-02-08-20:08:18,10.1.1.7,23,-0.080,-0.080,-0.080,0.000,0.000,0.000
1644350898981818880,2022-02-08-20:08:18,10.1.1.7,22,-0.070,-0.070,-0.070,0.000,0.000,0.000
1644350899084091904,2022-02-08-20:08:19,10.1.1.7,21,-0.060,-0.060,-0.060,0.000,0.000,0.000
1644350899184395008,2022-02-08-20:08:19,10.1.1.7,21,-0.050,-0.050,-0.050,0.000,0.000,0.000
1644350899283463936,2022-02-08-20:08:19,10.1.1.7,19,-0.040,-0.040,-0.040,0.000,0.000,0.000
1644350899402291968,2022-02-08-20:08:19,10.1.1.7,37,-0.030,-0.030,-0.030,0.000,0.000,0.000
1644350899504035072,2022-02-08-20:08:19,10.1.1.7,33,-0.020,-0.020,-0.020,0.000,0.000,0.000
1644350899602253824,2022-02-08-20:08:19,10.1.1.7,31,-0.010,-0.010,-0.010,0.000,0.000,0.000
1644350899702831872,2022-02-08-20:08:19,10.1.1.7,29,0.000,0.000,0.000,0.000,0.000,0.000
1644350899803386880,2022-02-08-20:08:19,10.1.1.7,28,0.010,0.010,0.010,0.000,0.000,0.000
1644350899902642944,2022-02-08-20:08:19,10.1.1.7,27,0.020,0.020,0.020,0.000,0.000,0.000
1644350900001254912,2022-02-08-20:08:20,10.1.1.7,26,0.030,0.030,0.030,0.000,0.000,0.000
1644350900101283072,2022-02-08-20:08:20,10.1.1.7,25,0.040,0.040,0.040,0.000,0.000,0.000
1644350900201384192,2022-02-08-20:08:20,10.1.1.7,25,0.050,0.050,0.050,0.000,0.000,0.000
1644350900301562112,2022-02-08-20:08:20,10.1.1.7,23,0.060,0.060,0.060,0.000,0.000,0.000
1644350900401308928,2022-02-08-20:08:20,10.1.1.7,22,0.070,0.070,0.070,0.000,0.000,0.000
1644350900503309056,2022-02-08-20:08:20,10.1.1.7,21,0.080,0.080,0.080,0.000,0.000,0.000
1644350900601207040,2022-02-08-20:08:20,10.1.1.7,19,0.090,0.090,0.090,0.000,0.000,0.000
1644350900701212928,2022-02-08-20:08:20,10.1.1.7,19,0.099,0.099,0.099,0.000,0.000,0.000
1644350900822148096,2022-02-08-20:08:20,10.1.1.7,37,0.090,0.090,0.090,0.000,0.000,0.000
1644350900921911040,2022-02-08-20:08:20,10.1.1.7,36,0.080,0.080,0.080,0.000,0.000,0.000
1644350901021049088,2022-02-08-20:08:21,10.1.1.7,35,0.070,0.070,0.070,0.000,0.000,0.000
1644350901123987968,2022-02-08-20:08:21,10.1.1.7,33,0.060,0.060,0.060,0.000,0.000,0.000
1644350901222042112,2022-02-08-20:08:21,10.1.1.7,33,0.050,0.050,0.050,0.000,0.000,0.000
1644350901322487040,2022-02-08-20:08:21,10.1.1.7,32,0.040,0.040,0.040,0.000,0.000,0.000
1644350901421957888,2022-02-08-20:08:21,10.1.1.7,32,0.030,0.030,0.030,0.000,0.000,0.000
1644350901524171008,2022-02-08-20:08:21,10.1.1.7,31,0.020,0.020,0.020,0.000,0.000,0.000
1644350901621746176,2022-02-08-20:08:21,10.1.1.7,30,0.010,0.010,0.010,0.000,0.000,0.000
1644350901722004992,2022-02-08-20:08:21,10.1.1.7,29,0.000,0.000,0.000,0.000,0.000,0.000
1644350901823756032,2022-02-08-20:08:21,10.1.1.7,28,-0.010,-0.010,-0.010,0.000,0.000,0.000
1644350901924352768,2022-02-08-20:08:21,10.1.1.7,27,-0.020,-0.020,-0.020,0.000,0.000,0.000
1644350902021500160,2022-02-08-20:08:22,10.1.1.7,26,-0.030,-0.030,-0.030,0.000,0.000,0.000
1644350902121714944,2022-02-08-20:08:22,10.1.1.7,23,-0.040,-0.040,-0.040,0.000,0.000,0.000
1644350902343239168,2022-02-08-20:08:22,10.1.1.7,37,-0.060,-0.060,-0.060,0.000,0.000,0.000
1644350902441627136,2022-02-08-20:08:22,10.1.1.7,35,-0.070,-0.070,-0.070,0.000,0.000,0.000
1644350902542582016,2022-02-08-20:08:22,10.1.1.7,33,-0.080,-0.080,-0.080,0.000,0.000,0.000
1644350902640755968,2022-02-08-20:08:22,10.1.1.7,32,-0.090,-0.090,-0.090,0.000,0.000,0.000
1644350902741748992,2022-02-08-20:08:22,10.1.1.7,32,-0.100,-0.100,-0.100,0.000,0.000,0.000
1644350902842365952,2022-02-08-20:08:22,10.1.1.7,32,-0.090,-0.090,-0.090,0.000,0.000,0.000
1644350902942011136,2022-02-08-20:08:22,10.1.1.7,30,-0.080,-0.080,-0.080,0.000,0.000,0.000
1644350903042149120,2022-02-08-20:08:23,10.1.1.7,29,-0.070,-0.070,-0.070,0.000,0.000,0.000
1644350903141208832,2022-02-08-20:08:23,10.1.1.7,28,-0.060,-0.060,-0.060,0.000,0.000,0.000
1644350903242209792,2022-02-08-20:08:23,10.1.1.7,28,-0.050,-0.050,-0.050,0.000,0.000,0.000
1644350903342087936,2022-02-08-20:08:23,10.1.1.7,28,-0.040,-0.040,-0.040,0.000,0.000,0.000
1644350903440978176,2022-02-08-20:08:23,10.1.1.7,27,-0.030,-0.030,-0.030,0.000,0.000,0.000
1644350903542091008,2022-02-08-20:08:23,10.1.1.7,26,-0.020,-0.020,-0.020,0.000,0.000,0.000
1644350903641320960,2022-02-08-20:08:23,10.1.1.7,25,-0.010,-0.010,-0.010,0.000,0.000,0.000
1644350903741760000,2022-02-08-20:08:23,10.1.1.7,25,0.000,0.000,0.000,0.000,0.000,0.000
1644350903840826880,2022-02-08-20:08:23,10.1.1.7,23,0.010,0.010,0.010,0.000,0.000,0.000
1644350903941683968,2022-02-08-20:08:23,10.1.1.7,23,0.020,0.020,0.020,0.000,0.000,0.000
1644350904041014016,2022-02-08-20:08:24,10.1.1.7,22,0.030,0.030,0.030,0.000,0.000,0.000
1644350904141808128,2022-02-08-20:08:24,10.1.1.7,22,0.040,0.040,0.040,0.000,0.000,0.000
1644350904241664768,2022-02-08-20:08:24,10.1.1.7,21,0.050,0.050,0.050,0.000,0.000,0.000
1644350904342212864,2022-02-08-20:08:24,10.1.1.7,21,0.060,0.060,0.060,0.000,0.000,0.000
1644350904440749056,2022-02-08-20:08:24,10.1.1.7,20,0.070,0.070,0.070,0.000,0.000,0.000
1644350904541858816,2022-02-08-20:08:24,10.1.1.7,19,0.080,0.080,0.080,0.000,0.000,0.000
1644350904642273792,2022-02-08-20:08:24,10.1.1.7,19,0.089,0.089,0.089,0.000,0.000,0.000
1644350904762449920,2022-02-08-20:08:24,10.1.1.7,37,0.100,0.100,0.100,0.000,0.000,0.000
1644350904860888064,2022-02-08-20:08:24,10.1.1.7,36,0.090,0.090,0.090,0.000,0.000,0.000
1644350904962308864,2022-02-08-20:08:24,10.1.1.7,36,0.080,0.080,0.080,0.000,0.000,0.000
1644350905068988160,2022-02-08-20:08:25,10.1.1.7,35,0.070,0.070,0.070,0.000,0.000,0.000
1644350905162662912,2022-02-08-20:08:25,10.1.1.7,31,0.060,0.060,0.060,0.000,0.000,0.000
1644350905262219008,2022-02-08-20:08:25,10.1.1.7,30,0.050,0.050,0.050,0.000,0.000,0.000
1644350905362754048,2022-02-08-20:08:25,10.1.1.7,29,0.040,0.040,0.040,0.000,0.000,0.000
1644350905463888896,2022-02-08-20:08:25,10.1.1.7,29,0.030,0.030,0.030,0.000,0.000,0.000
1644350905561264128,2022-02-08-20:08:25,10.1.1.7,27,0.020,0.020,0.020,0.000,0.000,0.000
1644350905661134080,2022-02-08-20:08:25,10.1.1.7,26,0.010,0.010,0.010,0.000,0.000,0.000
1644350905801448192,2022-02-08-20:08:25,10.1.1.7,36,0.000,0.000,0.000,0.000,0.000,0.000
1644350905901597952,2022-02-08-20:08:25,10.1.1.7,35,-0.010,-0.010,-0.010,0.000,0.000,0.000
1644350906001591808,2022-02-08-20:08:26,10.1.1.7,35,-0.020,-0.020,-0.020,0.000,0.000,0.000
1644350906101744896,2022-02-08-20:08:26,10.1.1.7,33,-0.030,-0.030,-0.030,0.000,0.000,0.000
1644350906202745088,2022-02-08-20:08:26,10.1.1.7,32,-0.040,-0.040,-0.040,0.000,0.000,0.000
1644350906301907968,2022-02-08-20:08:26,10.1.1.7,32,-0.050,-0.050,-0.050,0.000,0.000,0.000
1644350906401483008,2022-02-08-20:08:26,10.1.1.7,31,-0.060,-0.060,-0.060,0.000,0.000,0.000
1644350906502355200,2022-02-08-20:08:26,10.1.1.7,31,-0.070,-0.070,-0.070,0.000,0.000,0.000
1644350906602086144,2022-02-08-20:08:26,10.1.1.7,30,-0.080,-0.080,-0.080,0.000,0.000,0.000
1644350906701241856,2022-02-08-20:08:26,10.1.1.7,29,-0.090,-0.090,-0.090,0.000,0.000,0.000
1644350906804089088,2022-02-08-20:08:26,10.1.1.7,31,-0.100,-0.100,-0.100,0.000,0.000,0.000
1644350906901256960,2022-02-08-20:08:26,10.1.1.7,27,-0.090,-0.090,-0.090,0.000,0.000,0.000
1644350907101110016,2022-02-08-20:08:27,10.1.1.7,26,-0.070,-0.070,-0.070,0.000,0.000,0.000
1644350907201765120,2022-02-08-20:08:27,10.1.1.7,25,-0.060,-0.060,-0.060,0.000,0.000,0.000
1644350907302299904,2022-02-08-20:08:27,10.1.1.7,24,-0.050,-0.050,-0.050,0.000,0.000,0.000
1644350907401579008,2022-02-08-20:08:27,10.1.1.7,23,-0.040,-0.040,-0.040,0.000,0.000,0.000
1644350907501665024,2022-02-08-20:08:27,10.1.1.7,23,-0.030,-0.030,-0.030,0.000,0.000,0.000
1644350907601181952,2022-02-08-20:08:27,10.1.1.7,22,-0.020,-0.020,-0.020,0.000,0.000,0.000
1644350907701383168,2022-02-08-20:08:27,10.1.1.7,22,-0.010,-0.010,-0.010,0.000,0.000,0.000
1644350907801378048,2022-02-08-20:08:27,10.1.1.7,21,0.000,0.000,0.000,0.000,0.000,0.000
1644350907901700096,2022-02-08-20:08:27,10.1.1.7,20,0.010,0.010,0.010,0.000,0.000,0.000
1644350908001286912,2022-02-08-20:08:28,10.1.1.7,20,0.020,0.020,0.020,0.000,0.000,0.000
1644350908101191936,2022-02-08-20:08:28,10.1.1.7,20,0.030,0.030,0.030,0.000,0.000,0.000
1644350908202048000,2022-02-08-20:08:28,10.1.1.7,19,0.039,0.039,0.039,0.000,0.000,0.000
1644350908321494016,2022-02-08-20:08:28,10.1.1.7,38,0.050,0.050,0.050,0.000,0.000,0.000
1644350908421457152,2022-02-08-20:08:28,10.1.1.7,37,0.060,0.060,0.060,0.000,0.000,0.000
1644350908522011136,2022-02-08-20:08:28,10.1.1.7,36,0.070,0.070,0.070,0.000,0.000,0.000
1644350908622103808,2022-02-08-20:08:28,10.1.1.7,36,0.080,0.080,0.080,0.000,0.000,0.000
1644350908722105856,2022-02-08-20:08:28,10.1.1.7,35,0.090,0.090,0.090,0.000,0.000,0.000
1644350908822406912,2022-02-08-20:08:28,10.1.1.7,34,0.100,0.100,0.100,0.000,0.000,0.000
1644350908921449984,2022-02-08-20:08:28,10.1.1.7,33,0.090,0.090,0.090,0.000,0.000,0.000
1644350909022833152,2022-02-08-20:08:29,10.1.1.7,32,0.080,0.080,0.080,0.000,0.000,0.000
1644350909122356992,2022-02-08-20:08:29,10.1.1.7,30,0.070,0.070,0.070,0.000,0.000,0.000
1644350909222099968,2022-02-08-20:08:29,10.1.1.7,30,0.060,0.060,0.060,0.000,0.000,0.000
1644350909321472768,2022-02-08-20:08:29,10.1.1.7,29,0.050,0.050,0.050,0.000,0.000,0.000
1644350909422054144,2022-02-08-20:08:29,10.1.1.7,28,0.040,0.040,0.040,0.000,0.000,0.000
1644350909522924800,2022-02-08-20:08:29,10.1.1.7,28,0.030,0.030,0.030,0.000,0.000,0.000
1644350909622081024,2022-02-08-20:08:29,10.1.1.7,27,0.020,0.020,0.020,0.000,0.000,0.000
1644350909722131968,2022-02-08-20:08:29,10.1.1.7,26,0.010,0.010,0.010,0.000,0.000,0.000
1644350909821703936,2022-02-08-20:08:29,10.1.1.7,25,0.000,0.000,0.000,0.000,0.000,0.000
1644350909920871936,2022-02-08-20:08:29,10.1.1.7,25,-0.010,-0.010,-0.010,0.000,0.000,0.000
1644350910021133824,2022-02-08-20:08:30,10.1.1.7,23,-0.020,-0.020,-0.020,0.000,0.000,0.000
1644350910121916160,2022-02-08-20:08:30,10.1.1.7,22,-0.030,-0.030,-0.030,0.000,0.000,0.000
1644350910221991936,2022-02-08-20:08:30,10.1.1.7,22,-0.040,-0.040,-0.040,0.000,0.000,0.000
1644350910321721088,2022-02-08-20:08:30,10.1.1.7,21,-0.050,-0.050,-0.050,0.000,0.000,0.000
1644350910421526784,2022-02-08-20:08:30,10.1.1.7,19,-0.060,-0.060,-0.060,0.000,0.000,0.000
1644350910521747200,2022-02-08-20:08:30,10.1.1.7,19,-0.069,-0.069,-0.069,0.000,0.000,0.000
1644350910642003968,2022-02-08-20:08:30,10.1.1.7,37,-0.080,-0.080,-0.080,0.000,0.000,0.000
1644350910742171136,2022-02-08-20:08:30,10.1.1.7,36,-0.090,-0.090,-0.090,0.000,0.000,0.000
1644350910842020864,2022-02-08-20:08:30,10.1.1.7,36,-0.100,-0.100,-0.100,0.000,0.000,0.000
1644350910942526976,2022-02-08-20:08:30,10.1.1.7,33,-0.090,-0.090,-0.090,0.000,0.000,0.000
1644350911041594112,2022-02-08-20:08:31,10.1.1.7,33,-0.080,-0.080,-0.080,0.000,0.000,0.000
1644350911141076992,2022-02-08-20:08:31,10.1.1.7,32,-0.070,-0.070,-0.070,0.000,0.000,0.000
1644350911242376960,2022-02-08-20:08:31,10.1.1.7,29,-0.060,-0.060,-0.060,0.000,0.000,0.000
1644350911343859968,2022-02-08-20:08:31,10.1.1.7,29,-0.050,-0.050,-0.050,0.000,0.000,0.000
1644350911442130176,2022-02-08-20:08:31,10.1.1.7,28,-0.040,-0.040,-0.040,0.000,0.000,0.000
1644350911541600000,2022-02-08-20:08:31,10.1.1.7,27,-0.030,-0.030,-0.030,0.000,0.000,0.000
1644350911643043072,2022-02-08-20:08:31,10.1.1.7,27,-0.020,-0.020,-0.020,0.000,0.000,0.000
1644350911741606912,2022-02-08-20:08:31,10.1.1.7,26,-0.010,-0.010,-0.010,0.000,0.000,0.000
1644350911841356032,2022-02-08-20:08:31,10.1.1.7,26,0.000,0.000,0.000,0.000,0.000,0.000
1644350911941265152,2022-02-08-20:08:31,10.1.1.7,25,0.010,0.010,0.010,0.000,0.000,0.000
1644350912041593088,2022-02-08-20:08:32,10.1.1.7,24,0.020,0.020,0.020,0.000,0.000,0.000
1644350912142270208,2022-02-08-20:08:32,10.1.1.7,23,0.030,0.030,0.030,0.000,0.000,0.000
1644350912241022976,2022-02-08-20:08:32,10.1.1.7,23,0.040,0.040,0.040,0.000,0.000,0.000
1644350912342871808,2022-02-08-20:08:32,10.1.1.7,22,0.050,0.050,0.050,0.000,0.000,0.000
1644350912441193984,2022-02-08-20:08:32,10.1.1.7,21,0.060,0.060,0.060,0.000,0.000,0.000
1644350912541361152,2022-02-08-20:08:32,10.1.1.7,21,0.070,0.070,0.070,0.000,0.000,0.000
1644350912641228032,2022-02-08-20:08:32,10.1.1.7,20,0.080,0.080,0.080,0.000,0.000,0.000
1644350912742707968,2022-02-08-20:08:32,10.1.1.7,18,0.089,0.089,0.089,0.000,0.000,0.000
1644350912861691904,2022-02-08-20:08:32,10.1.1.7,37,0.100,0.100,0.100,0.000,0.000,0.000
1644350912961622016,2022-02-08-20:08:32,10.1.1.7,36,0.090,0.090,0.090,0.000,0.000,0.000
1644350913061427968,2022-02-08-20:08:33,10.1.1.7,36,0.080,0.080,0.080,0.000,0.000,0.000
1644350913162919936,2022-02-08-20:08:33,10.1.1.7,35,0.070,0.070,0.070,0.000,0.000,0.000
1644350913261334016,2022-02-08-20:08:33,10.1.1.7,34,0.060,0.060,0.060,0.000,0.000,0.000
1644350913362109952,2022-02-08-20:08:33,10.1.1.7,34,0.050,0.050,0.050,0.000,0.000,0.000
1644350913461476096,2022-02-08-20:08:33,10.1.1.7,33,0.040,0.040,0.040,0.000,0.000,0.000
1644350913561983232,2022-02-08-20:08:33,10.1.1.7,33,0.030,0.030,0.030,0.000,0.000,0.000
1644350913661569024,2022-02-08-20:08:33,10.1.1.7,32,0.020,0.020,0.020,0.000,0.000,0.000
1644350913761202176,2022-02-08-20:08:33,10.1.1.7,32,0.010,0.010,0.010,0.000,0.000,0.000
1644350913861016064,2022-02-08-20:08:33,10.1.1.7,31,0.000,0.000,0.000,0.000,0.000,0.000
1644350913961647872,2022-02-08-20:08:33,10.1.1.7,31,-0.010,-0.010,-0.010,0.000,0.000,0.000
1644350914062496000,2022-02-08-20:08:34,10.1.1.7,29,-0.020,-0.020,-0.020,0.000,0.000,0.000
1644350914161658112,2022-02-08-20:08:34,10.1.1.7,28,-0.030,-0.030,-0.030,0.000,0.000,0.000
1644350914261346048,2022-02-08-20:08:34,10.1.1.7,28,-0.040,-0.040,-0.040,0.000,0.000,0.000
1644350914361272064,2022-02-08-20:08:34,10.1.1.7,27,-0.050,-0.050,-0.050,0.000,0.000,0.000
1644350914463735040,2022-02-08-20:08:34,10.1.1.7,26,-0.060,-0.060,-0.060,0.000,0.000,0.000
1644350914561955840,2022-02-08-20:08:34,10.1.1.7,25,-0.070,-0.070,-0.070,0.000,0.000,0.000
1644350914661093888,2022-02-08-20:08:34,10.1.1.7,25,-0.080,-0.080,-0.080,0.000,0.000,0.000
1644350914761924864,2022-02-08-20:08:34,10.1.1.7,24,-0.090,-0.090,-0.090,0.000,0.000,0.000
1644350914862664960,2022-02-08-20:08:34,10.1.1.7,24,-0.100,-0.100,-0.100,0.000,0.000,0.000
1644350914961526016,2022-02-08-20:08:34,10.1.1.7,23,-0.090,-0.090,-0.090,0.000,0.000,0.000
1644350915062135808,2022-02-08-20:08:35,10.1.1.7,22,-0.080,-0.080,-0.080,0.000,0.000,0.000
1644350915162848000,2022-02-08-20:08:35,10.1.1.7,22,-0.070,-0.070,-0.070,0.000,0.000,0.000
1644350915261585920,2022-02-08-20:08:35,10.1.1.7,21,-0.060,-0.060,-0.060,0.000,0.000,0.000
1644350915363408128,2022-02-08-20:08:35,10.1.1.7,21,-0.050,-0.050,-0.050,0.000,0.000,0.000
1644350915462699776,2022-02-08-20:08:35,10.1.1.7,19,-0.040,-0.040,-0.040,0.000,0.000,0.000
1644350915561701120,2022-02-08-20:08:35,10.1.1.7,19,-0.031,-0.031,-0.031,0.000,0.000,0.000
1644350915682691072,2022-02-08-20:08:35,10.1.1.7,38,-0.020,-0.020,-0.020,0.000,0.000,0.000
1644350915781536000,2022-02-08-20:08:35,10.1.1.7,38,-0.010,-0.010,-0.010,0.000,0.000,0.000
1644350915881809920,2022-02-08-20:08:35,10.1.1.7,29,0.000,0.000,0.000,0.000,0.000,0.000
1644350916001637888,2022-02-08-20:08:36,10.1.1.7,21,0.010,0.010,0.010,0.000,0.000,0.000
1644350916101039872,2022-02-08-20:08:36,10.1.1.7,19,0.019,0.019,0.019,0.000,0.000,0.000
1644350916220980992,2022-02-08-20:08:36,10.1.1.7,38,0.030,0.030,0.030,0.000,0.000,0.000
1644350916322760960,2022-02-08-20:08:36,10.1.1.7,37,0.040,0.040,0.040,0.000,0.000,0.000
1644350916421693952,2022-02-08-20:08:36,10.1.1.7,37,0.050,0.050,0.050,0.000,0.000,0.000
1644350916521634048,2022-02-08-20:08:36,10.1.1.7,36,0.060,0.060,0.060,0.000,0.000,0.000
1644350916621154048,2022-02-08-20:08:36,10.1.1.7,34,0.070,0.070,0.070,0.000,0.000,0.000
1644350916721416960,2022-02-08-20:08:36,10.1.1.7,33,0.080,0.080,0.080,0.000,0.000,0.000
1644350916821368064,2022-02-08-20:08:36,10.1.1.7,33,0.090,0.090,0.090,0.000,0.000,0.000
1644350916921252864,2022-02-08-20:08:36,10.1.1.7,32,0.100,0.100,0.100,0.000,0.000,0.000
1644350917022020096,2022-02-08-20:08:37,10.1.1.7,32,0.090,0.090,0.090,0.000,0.000,0.000
1644350917122482176,2022-02-08-20:08:37,10.1.1.7,31,0.080,0.080,0.080,0.000,0.000,0.000
1644350917221587968,2022-02-08-20:08:37,10.1.1.7,31,0.070,0.070,0.070,0.000,0.000,0.000
1644350917321057024,2022-02-08-20:08:37,10.1.1.7,30,0.060,0.060,0.060,0.000,0.000,0.000
1644350917421454848,2022-02-08-20:08:37,10.1.1.7,29,0.050,0.050,0.050,0.000,0.000,0.000
1644350917521330176,2022-02-08-20:08:37,10.1.1.7,29,0.040,0.040,0.040,0.000,0.000,0.000
1644350917621200128,2022-02-08-20:08:37,10.1.1.7,27,0.030,0.030,0.030,0.000,0.000,0.000
1644350917721224192,2022-02-08-20:08:37,10.1.1.7,27,0.020,0.020,0.020,0.000,0.000,0.000
1644350917821142784,2022-02-08-20:08:37,10.1.1.7,26,0.010,0.010,0.010,0.000,0.000,0.000
1644350917923000064,2022-02-08-20:08:37,10.1.1.7,25,0.000,0.000,0.000,0.000,0.000,0.000
1644350918021424896,2022-02-08-20:08:38,10.1.1.7,23,-0.010,-0.010,-0.010,0.000,0.000,0.000
1644350918121742848,2022-02-08-20:08:38,10.1.1.7,22,-0.020,-0.020,-0.020,0.000,0.000,0.000
1644350918221291008,2022-02-08-20:08:38,10.1.1.7,22,-0.030,-0.030,-0.030,0.000,0.000,0.000
1644350918321812992,2022-02-08-20:08:38,10.1.1.7,21,-0.040,-0.040,-0.040,0.000,0.000,0.000
1644350918421188096,2022-02-08-20:08:38,10.1.1.7,20,-0.050,-0.050,-0.050,0.000,0.000,0.000
1644350918521928192,2022-02-08-20:08:38,10.1.1.7,20,-0.060,-0.060,-0.060,0.000,0.000,0.000
1644350918624098048,2022-02-08-20:08:38,10.1.1.7,19,-0.070,-0.070,-0.070,0.000,0.000,0.000
1644350918722052096,2022-02-08-20:08:38,10.1.1.7,18,-0.079,-0.079,-0.079,0.000,0.000,0.000
1644350918841826816,2022-02-08-20:08:38,10.1.1.7,38,-0.090,-0.090,-0.090,0.000,0.000,0.000
1644350918941669888,2022-02-08-20:08:38,10.1.1.7,37,-0.100,-0.100,-0.100,0.000,0.000,0.000
1644350919041580800,2022-02-08-20:08:39,10.1.1.7,37,-0.090,-0.090,-0.090,0.000,0.000,0.000
1644350919141870848,2022-02-08-20:08:39,10.1.1.7,36,-0.080,-0.080,-0.080,0.000,0.000,0.000
1644350919241841920,2022-02-08-20:08:39,10.1.1.7,36,-0.070,-0.070,-0.070,0.000,0.000,0.000
1644350919342395904,2022-02-08-20:08:39,10.1.1.7,35,-0.060,-0.060,-0.060,0.000,0.000,0.000
1644350919441153024,2022-02-08-20:08:39,10.1.1.7,35,-0.050,-0.050,-0.050,0.000,0.000,0.000
1644350919542411008,2022-02-08-20:08:39,10.1.1.7,34,-0.040,-0.040,-0.040,0.000,0.000,0.000
1644350919641391104,2022-02-08-20:08:39,10.1.1.7,33,-0.030,-0.030,-0.030,0.000,0.000,0.000
1644350919742574080,2022-02-08-20:08:39,10.1.1.7,33,-0.020,-0.020,-0.020,0.000,0.000,0.000
1644350919841434112,2022-02-08-20:08:39,10.1.1.7,32,-0.010,-0.010,-0.010,0.000,0.000,0.000
1644350919941368064,2022-02-08-20:08:39,10.1.1.7,32,0.000,0.000,0.000,0.000,0.000,0.000
1644350920041662976,2022-02-08-20:08:40,10.1.1.7,31,0.010,0.010,0.010,0.000,0.000,0.000
1644350920141213952,2022-02-08-20:08:40,10.1.1.7,30,0.020,0.020,0.020,0.000,0.000,0.000
1644350920241744896,2022-02-08-20:08:40,10.1.1.7,29,0.030,0.030,0.030,0.000,0.000,0.000
1644350920342480896,2022-02-08-20:08:40,10.1.1.7,28,0.040,0.040,0.040,0.000,0.000,0.000
1644350920441262848,2022-02-08-20:08:40,10.1.1.7,28,0.050,0.050,0.050,0.000,0.000,0.000
1644350920541742080,2022-02-08-20:08:40,10.1.1.7,28,0.060,0.060,0.060,0.000,0.000,0.000
1644350920642124800,2022-02-08-20:08:40,10.1.1.7,27,0.070,0.070,0.070,0.000,0.000,0.000
1644350920741661184,2022-02-08-20:08:40,10.1.1.7,27,0.080,0.080,0.080,0.000,0.000,0.000
1644350920841747968,2022-02-08-20:08:40,10.1.1.7,26,0.090,0.090,0.090,0.000,0.000,0.000
1644350920941673984,2022-02-08-20:08:40,10.1.1.7,23,0.100,0.100,0.100,0.000,0.000,0.000
1644350921041528832,2022-02-08-20:08:41,10.1.1.7,22,0.090,0.090,0.090,0.000,0.000,0.000
1644350921142304000,2022-02-08-20:08:41,10.1.1.7,21,0.080,0.080,0.080,0.000,0.000,0.000
1644350921242044928,2022-02-08-20:08:41,10.1.1.7,20,0.070,0.070,0.070,0.000,0.000,0.000
1644350921341769984,2022-02-08-20:08:41,10.1.1.7,19,0.060,0.060,0.060,0.000,0.000,0.000
1644350921461366784,2022-02-08-20:08:41,10.1.1.7,38,0.050,0.050,0.050,0.000,0.000,0.000
1644350921562331904,2022-02-08-20:08:41,10.1.1.7,38,0.040,0.040,0.040,0.000,0.000,0.000
1644350921661920000,2022-02-08-20:08:41,10.1.1.7,37,0.030,0.030,0.030,0.000,0.000,0.000
1644350921762707968,2022-02-08-20:08:41,10.1.1.7,36,0.020,0.020,0.020,0.000,0.000,0.000
1644350921863037952,2022-02-08-20:08:41,10.1.1.7,36,0.010,0.010,0.010,0.000,0.000,0.000
1644350921960932096,2022-02-08-20:08:41,10.1.1.7,35,0.000,0.000,0.000,0.000,0.000,0.000
1644350922061554944,2022-02-08-20:08:42,10.1.1.7,35,-0.010,-0.010,-0.010,0.000,0.000,0.000
1644350922161500928,2022-02-08-20:08:42,10.1.1.7,34,-0.020,-0.020,-0.020,0.000,0.000,0.000
1644350922261125120,2022-02-08-20:08:42,10.1.1.7,34,-0.030,-0.030,-0.030,0.000,0.000,0.000
1644350922361942016,2022-02-08-20:08:42,10.1.1.7,33,-0.040,-0.040,-0.040,0.000,0.000,0.000
1644350922461155840,2022-02-08-20:08:42,10.1.1.7,33,-0.050,-0.050,-0.050,0.000,0.000,0.000
1644350922561014784,2022-02-08-20:08:42,10.1.1.7,32,-0.060,-0.060,-0.060,0.000,0.000,0.000
1644350922661356800,2022-02-08-20:08:42,10.1.1.7,32,-0.070,-0.070,-0.070,0.000,0.000,0.000
1644350922761950976,2022-02-08-20:08:42,10.1.1.7,31,-0.080,-0.080,-0.080,0.000,0.000,0.000
1644350922863454208,2022-02-08-20:08:42,10.1.1.7,30,-0.090,-0.090,-0.090,0.000,0.000,0.000
1644350922962121984,2022-02-08-20:08:42,10.1.1.7,30,-0.100,-0.100,-0.100,0.000,0.000,0.000
1644350923067636992,2022-02-08-20:08:43,10.1.1.7,26,-0.090,-0.090,-0.090,0.000,0.000,0.000
1644350923161117184,2022-02-08-20:08:43,10.1.1.7,20,-0.080,-0.080,-0.080,0.000,0.000,0.000
1644350923261522944,2022-02-08-20:08:43,10.1.1.7,20,-0.070,-0.070,-0.070,0.000,0.000,0.000
1644350923363563008,2022-02-08-20:08:43,10.1.1.7,19,-0.060,-0.060,-0.060,0.000,0.000,0.000
1644350923461918208,2022-02-08-20:08:43,10.1.1.7,19,-0.051,-0.051,-0.051,0.000,0.000,0.000
1644350923582032896,2022-02-08-20:08:43,10.1.1.7,38,-0.040,-0.040,-0.040,0.000,0.000,0.000
1644350923682547968,2022-02-08-20:08:43,10.1.1.7,37,-0.030,-0.030,-0.030,0.000,0.000,0.000
1644350923782107136,2022-02-08-20:08:43,10.1.1.7,36,-0.020,-0.020,-0.020,0.000,0.000,0.000
1644350923881561088,2022-02-08-20:08:43,10.1.1.7,36,-0.010,-0.010,-0.010,0.000,0.000,0.000
1644350923981940992,2022-02-08-20:08:43,10.1.1.7,35,0.000,0.000,0.000,0.000,0.000,0.000
1644350924082139904,2022-02-08-20:08:44,10.1.1.7,34,0.010,0.010,0.010,0.000,0.000,0.000
1644350924181443072,2022-02-08-20:08:44,10.1.1.7,33,0.020,0.020,0.020,0.000,0.000,0.000
1644350924295508992,2022-02-08-20:08:44,10.1.1.7,32,0.030,0.030,0.030,0.000,0.000,0.000
1644350924402103808,2022-02-08-20:08:44,10.1.1.7,32,0.040,0.040,0.040,0.000,0.000,0.000
1644350924482068992,2022-02-08-20:08:44,10.1.1.7,32,0.050,0.050,0.050,0.000,0.000,0.000
1644350924581379840,2022-02-08-20:08:44,10.1.1.7,31,0.060,0.060,0.060,0.000,0.000,0.000
1644350924681644032,2022-02-08-20:08:44,10.1.1.7,31,0.070,0.070,0.070,0.000,0.000,0.000
1644350924781723904,2022-02-08-20:08:44,10.1.1.7,30,0.080,0.080,0.080,0.000,0.000,0.000
1644350924902471936,2022-02-08-20:08:44,10.1.1.7,30,0.090,0.090,0.090,0.000,0.000,0.000
1644350925002487040,2022-02-08-20:08:45,10.1.1.7,29,0.100,0.100,0.100,0.000,0.000,0.000
1644350925102011904,2022-02-08-20:08:45,10.1.1.7,27,0.090,0.090,0.090,0.000,0.000,0.000
1644350925242343936,2022-02-08-20:08:45,10.1.1.7,26,0.080,0.080,0.080,0.000,0.000,0.000
1644350925302244864,2022-02-08-20:08:45,10.1.1.7,25,0.070,0.070,0.070,0.000,0.000,0.000
1644350925402030848,2022-02-08-20:08:45,10.1.1.7,24,0.060,0.060,0.060,0.000,0.000,0.000
1644350925502934016,2022-02-08-20:08:45,10.1.1.7,23,0.050,0.050,0.050,0.000,0.000,0.000
1644350925602054144,2022-02-08-20:08:45,10.1.1.7,23,0.040,0.040,0.040,0.000,0.000,0.000
1644350925702609152,2022-02-08-20:08:45,10.1.1.7,22,0.030,0.030,0.030,0.000,0.000,0.000
1644350925802576896,2022-02-08-20:08:45,10.1.1.7,21,0.020,0.020,0.020,0.000,0.000,0.000
1644350925921837056,2022-02-08-20:08:45,10.1.1.7,20,0.010,0.010,0.010,0.000,0.000,0.000
1644350926041948160,2022-02-08-20:08:46,10.1.1.7,23,0.000,0.000,0.000,0.000,0.000,0.000
1644350926142210048,2022-02-08-20:08:46,10.1.1.7,23,-0.010,-0.010,-0.010,0.000,0.000,0.000
1644350926241623040,2022-02-08-20:08:46,10.1.1.7,22,-0.020,-0.020,-0.020,0.000,0.000,0.000
1644350926341669120,2022-02-08-20:08:46,10.1.1.7,22,-0.030,-0.030,-0.030,0.000,0.000,0.000
1644350926441106176,2022-02-08-20:08:46,10.1.1.7,21,-0.040,-0.040,-0.040,0.000,0.000,0.000
1644350926541641984,2022-02-08-20:08:46,10.1.1.7,21,-0.050,-0.050,-0.050,0.000,0.000,0.000
1644350926641117184,2022-02-08-20:08:46,10.1.1.7,20,-0.060,-0.060,-0.060,0.000,0.000,0.000
1644350926741807872,2022-02-08-20:08:46,10.1.1.7,19,-0.070,-0.070,-0.070,0.000,0.000,0.000
1644350926841413888,2022-02-08-20:08:46,10.1.1.7,19,-0.080,-0.080,-0.080,0.000,0.000,0.000
1644350926961647872,2022-02-08-20:08:46,10.1.1.7,38,-0.090,-0.090,-0.090,0.000,0.000,0.000
1644350927061553920,2022-02-08-20:08:47,10.1.1.7,38,-0.100,-0.100,-0.100,0.000,0.000,0.000
1644350927161679104,2022-02-08-20:08:47,10.1.1.7,38,-0.090,-0.090,-0.090,0.000,0.000,0.000
1644350927261751040,2022-02-08-20:08:47,10.1.1.7,37,-0.080,-0.080,-0.080,0.000,0.000,0.000
1644350927361161984,2022-02-08-20:08:47,10.1.1.7,37,-0.070,-0.070,-0.070,0.000,0.000,0.000
1644350927461927936,2022-02-08-20:08:47,10.1.1.7,36,-0.060,-0.060,-0.060,0.000,0.000,0.000
1644350927562274048,2022-02-08-20:08:47,10.1.1.7,36,-0.050,-0.050,-0.050,0.000,0.000,0.000
1644350927661940992,2022-02-08-20:08:47,10.1.1.7,35,-0.040,-0.040,-0.040,0.000,0.000,0.000
1644350927762612224,2022-02-08-20:08:47,10.1.1.7,35,-0.030,-0.030,-0.030,0.000,0.000,0.000
1644350927861531136,2022-02-08-20:08:47,10.1.1.7,34,-0.020,-0.020,-0.020,0.000,0.000,0.000
1644350927961488128,2022-02-08-20:08:47,10.1.1.7,33,-0.010,-0.010,-0.010,0.000,0.000,0.000
1644350928061948160,2022-02-08-20:08:48,10.1.1.7,33,0.000,0.000,0.000,0.000,0.000,0.000
1644350928161360896,2022-02-08-20:08:48,10.1.1.7,33,0.010,0.010,0.010,0.000,0.000,0.000
1644350928261316096,2022-02-08-20:08:48,10.1.1.7,32,0.020,0.020,0.020,0.000,0.000,0.000
1644350928364145152,2022-02-08-20:08:48,10.1.1.7,30,0.030,0.030,0.030,0.000,0.000,0.000
1644350928462873856,2022-02-08-20:08:48,10.1.1.7,30,0.040,0.040,0.040,0.000,0.000,0.000
1644350928562158080,2022-02-08-20:08:48,10.1.1.7,28,0.050,0.050,0.050,0.000,0.000,0.000
1644350928661550080,2022-02-08-20:08:48,10.1.1.7,28,0.060,0.060,0.060,0.000,0.000,0.000
1644350928762516992,2022-02-08-20:08:48,10.1.1.7,27,0.070,0.070,0.070,0.000,0.000,0.000
1644350928861515008,2022-02-08-20:08:48,10.1.1.7,27,0.080,0.080,0.080,0.000,0.000,0.000
1644350928961675776,2022-02-08-20:08:48,10.1.1.7,25,0.090,0.090,0.090,0.000,0.000,0.000
1644350929061861120,2022-02-08-20:08:49,10.1.1.7,25,0.100,0.100,0.100,0.000,0.000,0.000
1644350929161704960,2022-02-08-20:08:49,10.1.1.7,23,0.090,0.090,0.090,0.000,0.000,0.000
1644350929262262016,2022-02-08-20:08:49,10.1.1.7,22,0.080,0.080,0.080,0.000,0.000,0.000
1644350929362216960,2022-02-08-20:08:49,10.1.1.7,22,0.070,0.070,0.070,0.000,0.000,0.000
1644350929462130944,2022-02-08-20:08:49,10.1.1.7,21,0.060,0.060,0.060,0.000,0.000,0.000
1644350929562952960,2022-02-08-20:08:49,10.1.1.7,20,0.050,0.050,0.050,0.000,0.000,0.000
1644350929661772032,2022-02-08-20:08:49,10.1.1.7,19,0.040,0.040,0.040,0.000,0.000,0.000
1644350929762137856,2022-02-08-20:08:49,10.1.1.7,19,0.031,0.031,0.031,0.000,0.000,0.000
1644350929882577920,2022-02-08-20:08:49,10.1.1.7,38,0.020,0.020,0.020,0.000,0.000,0.000
1644350929982084096,2022-02-08-20:08:49,10.1.1.7,36,0.010,0.010,0.010,0.000,0.000,0.000
1644350930081671936,2022-02-08-20:08:50,10.1.1.7,35,0.000,0.000,0.000,0.000,0.000,0.000
1644350930181518080,2022-02-08-20:08:50,10.1.1.7,33,-0.010,-0.010,-0.010,0.000,0.000,0.000
1644350930280901888,2022-02-08-20:08:50,10.1.1.7,33,-0.020,-0.020,-0.020,0.000,0.000,0.000
1644350930381440000,2022-02-08-20:08:50,10.1.1.7,32,-0.030,-0.030,-0.030,0.000,0.000,0.000
1644350930485091072,2022-02-08-20:08:50,10.1.1.7,31,-0.040,-0.040,-0.040,0.000,0.000,0.000
1644350930581478144,2022-02-08-20:08:50,10.1.1.7,29,-0.050,-0.050,-0.050,0.000,0.000,0.000
1644350930682137856,2022-02-08-20:08:50,10.1.1.7,28,-0.060,-0.060,-0.060,0.000,0.000,0.000
1644350930781543936,2022-02-08-20:08:50,10.1.1.7,27,-0.070,-0.070,-0.070,0.000,0.000,0.000
1644350930881732096,2022-02-08-20:08:50,10.1.1.7,26,-0.080,-0.080,-0.080,0.000,0.000,0.000
1644350930981539072,2022-02-08-20:08:50,10.1.1.7,26,-0.090,-0.090,-0.090,0.000,0.000,0.000
1644350931080992000,2022-02-08-20:08:51,10.1.1.7,25,-0.100,-0.100,-0.100,0.000,0.000,0.000
1644350931189131008,2022-02-08-20:08:51,10.1.1.7,24,-0.090,-0.090,-0.090,0.000,0.000,0.000
1644350931302413056,2022-02-08-20:08:51,10.1.1.7,37,-0.080,-0.080,-0.080,0.000,0.000,0.000
1644350931406679040,2022-02-08-20:08:51,10.1.1.7,37,-0.070,-0.070,-0.070,0.000,0.000,0.000
1644350931502659072,2022-02-08-20:08:51,10.1.1.7,32,-0.060,-0.060,-0.060,0.000,0.000,0.000
1644350931603261952,2022-02-08-20:08:51,10.1.1.7,31,-0.050,-0.050,-0.050,0.000,0.000,0.000
1644350931701801984,2022-02-08-20:08:51,10.1.1.7,29,-0.040,-0.040,-0.040,0.000,0.000,0.000
1644350931803496960,2022-02-08-20:08:51,10.1.1.7,29,-0.030,-0.030,-0.030,0.000,0.000,0.000
1644350931899456000,2022-02-08-20:08:51,10.1.1.7,24,-0.020,-0.020,-0.020,0.000,0.000,0.000
1644350932002974976,2022-02-08-20:08:52,10.1.1.7,29,-0.010,-0.010,-0.010,0.000,0.000,0.000
1644350932102642944,2022-02-08-20:08:52,10.1.1.7,26,0.000,0.000,0.000,0.000,0.000,0.000
1644350932203606016,2022-02-08-20:08:52,10.1.1.7,24,0.010,0.010,0.010,0.000,0.000,0.000
1644350932302473984,2022-02-08-20:08:52,10.1.1.7,23,0.020,0.020,0.020,0.000,0.000,0.000
1644350932407147008,2022-02-08-20:08:52,10.1.1.7,20,0.030,0.030,0.030,0.000,0.000,0.000
1644350932507287040,2022-02-08-20:08:52,10.1.1.7,24,0.040,0.040,0.040,0.000,0.000,0.000
1644350932621426176,2022-02-08-20:08:52,10.1.1.7,38,0.050,0.050,0.050,0.000,0.000,0.000
1644350932722637056,2022-02-08-20:08:52,10.1.1.7,38,0.060,0.060,0.060,0.000,0.000,0.000
1644350932822864896,2022-02-08-20:08:52,10.1.1.7,36,0.070,0.070,0.070,0.000,0.000,0.000
1644350932922629120,2022-02-08-20:08:52,10.1.1.7,36,0.080,0.080,0.080,0.000,0.000,0.000
1644350933022793984,2022-02-08-20:08:53,10.1.1.7,36,0.090,0.090,0.090,0.000,0.000,0.000
1644350933123048192,2022-02-08-20:08:53,10.1.1.7,35,0.100,0.100,0.100,0.000,0.000,0.000
1644350933221784064,2022-02-08-20:08:53,10.1.1.7,34,0.090,0.090,0.090,0.000,0.000,0.000
1644350933321810944,2022-02-08-20:08:53,10.1.1.7,34,0.080,0.080,0.080,0.000,0.000,0.000
1644350933422599936,2022-02-08-20:08:53,10.1.1.7,33,0.070,0.070,0.070,0.000,0.000,0.000
1644350933522449920,2022-02-08-20:08:53,10.1.1.7,32,0.060,0.060,0.060,0.000,0.000,0.000
1644350933623357184,2022-02-08-20:08:53,10.1.1.7,31,0.050,0.050,0.050,0.000,0.000,0.000
1644350933728427008,2022-02-08-20:08:53,10.1.1.7,30,0.040,0.040,0.040,0.000,0.000,0.000
1644350933822611968,2022-02-08-20:08:53,10.1.1.7,29,0.030,0.030,0.030,0.000,0.000,0.000
1644350933921907968,2022-02-08-20:08:53,10.1.1.7,29,0.020,0.020,0.020,0.000,0.000,0.000
1644350934021897984,2022-02-08-20:08:54,10.1.1.7,28,0.010,0.010,0.010,0.000,0.000,0.000
1644350934123985920,2022-02-08-20:08:54,10.1.1.7,27,0.000,0.000,0.000,0.000,0.000,0.000
1644350934222050816,2022-02-08-20:08:54,10.1.1.7,27,-0.010,-0.010,-0.010,0.000,0.000,0.000
1644350934322604032,2022-02-08-20:08:54,10.1.1.7,27,-0.020,-0.020,-0.020,0.000,0.000,0.000
1644350934423068160,2022-02-08-20:08:54,10.1.1.7,26,-0.030,-0.030,-0.030,0.000,0.000,0.000
1644350934522011136,2022-02-08-20:08:54,10.1.1.7,26,-0.040,-0.040,-0.040,0.000,0.000,0.000
1644350934622010880,2022-02-08-20:08:54,10.1.1.7,25,-0.050,-0.050,-0.050,0.000,0.000,0.000
1644350934722523904,2022-02-08-20:08:54,10.1.1.7,23,-0.060,-0.060,-0.060,0.000,0.000,0.000
1644350934822247936,2022-02-08-20:08:54,10.1.1.7,23,-0.070,-0.070,-0.070,0.000,0.000,0.000
1644350934922925824,2022-02-08-20:08:54,10.1.1.7,21,-0.080,-0.080,-0.080,0.000,0.000,0.000
1644350935022072064,2022-02-08-20:08:55,10.1.1.7,20,-0.090,-0.090,-0.090,0.000,0.000,0.000
1644350935121649920,2022-02-08-20:08:55,10.1.1.7,20,-0.100,-0.100,-0.100,0.000,0.000,0.000
1644350935222609920,2022-02-08-20:08:55,10.1.1.7,20,-0.090,-0.090,-0.090,0.000,0.000,0.000
1644350935323895808,2022-02-08-20:08:55,10.1.1.7,19,-0.081,-0.081,-0.081,0.000,0.000,0.000
1644350935442158080,2022-02-08-20:08:55,10.1.1.7,38,-0.070,-0.070,-0.070,0.000,0.000,0.000
1644350935542115072,2022-02-08-20:08:55,10.1.1.7,38,-0.060,-0.060,-0.060,0.000,0.000,0.000
1644350935642002944,2022-02-08-20:08:55,10.1.1.7,37,-0.050,-0.050,-0.050,0.000,0.000,0.000
1644350935742411008,2022-02-08-20:08:55,10.1.1.7,36,-0.040,-0.040,-0.040,0.000,0.000,0.000
1644350935841871104,2022-02-08-20:08:55,10.1.1.7,36,-0.030,-0.030,-0.030,0.000,0.000,0.000
1644350935941804032,2022-02-08-20:08:55,10.1.1.7,35,-0.020,-0.020,-0.020,0.000,0.000,0.000
1644350936041575936,2022-02-08-20:08:56,10.1.1.7,35,-0.010,-0.010,-0.010,0.000,0.000,0.000
1644350936141338112,2022-02-08-20:08:56,10.1.1.7,34,0.000,0.000,0.000,0.000,0.000,0.000
1644350936241532160,2022-02-08-20:08:56,10.1.1.7,33,0.010,0.010,0.010,0.000,0.000,0.000
1644350936341912064,2022-02-08-20:08:56,10.1.1.7,33,0.020,0.020,0.020,0.000,0.000,0.000
1644350936442354944,2022-02-08-20:08:56,10.1.1.7,33,0.030,0.030,0.030,0.000,0.000,0.000
1644350936541923072,2022-02-08-20:08:56,10.1.1.7,32,0.040,0.040,0.040,0.000,0.000,0.000
1644350936641811968,2022-02-08-20:08:56,10.1.1.7,32,0.050,0.050,0.050,0.000,0.000,0.000
1644350936741244160,2022-02-08-20:08:56,10.1.1.7,31,0.060,0.060,0.060,0.000,0.000,0.000
1644350936841671936,2022-02-08-20:08:56,10.1.1.7,31,0.070,0.070,0.070,0.000,0.000,0.000
1644350936941302016,2022-02-08-20:08:56,10.1.1.7,30,0.080,0.080,0.080,0.000,0.000,0.000
1644350937042212864,2022-02-08-20:08:57,10.1.1.7,28,0.090,0.090,0.090,0.000,0.000,0.000
1644350937141395968,2022-02-08-20:08:57,10.1.1.7,27,0.100,0.100,0.100,0.000,0.000,0.000
1644350937242269952,2022-02-08-20:08:57,10.1.1.7,27,0.090,0.090,0.090,0.000,0.000,0.000
1644350937352241920,2022-02-08-20:08:57,10.1.1.7,25,0.080,0.080,0.080,0.000,0.000,0.000
1644350937441478912,2022-02-08-20:08:57,10.1.1.7,24,0.070,0.070,0.070,0.000,0.000,0.000
1644350937541927936,2022-02-08-20:08:57,10.1.1.7,23,0.060,0.060,0.060,0.000,0.000,0.000
1644350937641818880,2022-02-08-20:08:57,10.1.1.7,22,0.050,0.050,0.050,0.000,0.000,0.000
1644350937741744896,2022-02-08-20:08:57,10.1.1.7,22,0.040,0.040,0.040,0.000,0.000,0.000
1644350937841921024,2022-02-08-20:08:57,10.1.1.7,21,0.030,0.030,0.030,0.000,0.000,0.000
1644350937942339840,2022-02-08-20:08:57,10.1.1.7,21,0.020,0.020,0.020,0.000,0.000,0.000
1644350938041999104,2022-02-08-20:08:58,10.1.1.7,21,0.010,0.010,0.010,0.000,0.000,0.000
1644350938141284864,2022-02-08-20:08:58,10.1.1.7,20,0.000,0.000,0.000,0.000,0.000,0.000
1644350938241633024,2022-02-08-20:08:58,10.1.1.7,20,-0.010,-0.010,-0.010,0.000,0.000,0.000
1644350938342377984,2022-02-08-20:08:58,10.1.1.7,20,-0.020,-0.020,-0.020,0.000,0.000,0.000
1644350938442092800,2022-02-08-20:08:58,10.1.1.7,19,-0.030,-0.030,-0.030,0.000,0.000,0.000
1644350938543129856,2022-02-08-20:08:58,10.1.1.7,19,-0.039,-0.039,-0.039,0.000,0.000,0.000
1644350938661982976,2022-02-08-20:08:58,10.1.1.7,38,-0.050,-0.050,-0.050,0.000,0.000,0.000
1644350938762489088,2022-02-08-20:08:58,10.1.1.7,37,-0.060,-0.060,-0.060,0.000,0.000,0.000
1644350938866866176,2022-02-08-20:08:58,10.1.1.7,37,-0.070,-0.070,-0.070,0.000,0.000,0.000
1644350938963414784,2022-02-08-20:08:58,10.1.1.7,35,-0.080,-0.080,-0.080,0.000,0.000,0.000
1644350939062279936,2022-02-08-20:08:59,10.1.1.7,31,-0.090,-0.090,-0.090,0.000,0.000,0.000
1644350939168220160,2022-02-08-20:08:59,10.1.1.7,26,-0.100,-0.100,-0.100,0.000,0.000,0.000
1644350939262264064,2022-02-08-20:08:59,10.1.1.7,26,-0.090,-0.090,-0.090,0.000,0.000,0.000
1644350939381235968,2022-02-08-20:08:59,10.1.1.7,37,-0.080,-0.080,-0.080,0.000,0.000,0.000
1644350939483574016,2022-02-08-20:08:59,10.1.1.7,36,-0.070,-0.070,-0.070,0.000,0.000,0.000
1644350939582705920,2022-02-08-20:08:59,10.1.1.7,36,-0.060,-0.060,-0.060,0.000,0.000,0.000
1644350939681830912,2022-02-08-20:08:59,10.1.1.7,35,-0.050,-0.050,-0.050,0.000,0.000,0.000
1644350939781863936,2022-02-08-20:08:59,10.1.1.7,34,-0.040,-0.040,-0.040,0.000,0.000,0.000
1644350939881573888,2022-02-08-20:08:59,10.1.1.7,33,-0.030,-0.030,-0.030,0.000,0.000,0.000
1644350939994792960,2022-02-08-20:08:59,10.1.1.7,32,-0.020,-0.020,-0.020,0.000,0.000,0.000
1644350940082347008,2022-02-08-20:09:00,10.1.1.7,31,-0.010,-0.010,-0.010,0.000,0.000,0.000
1644350940182835968,2022-02-08-20:09:00,10.1.1.7,32,0.000,0.000,0.000,0.000,0.000,0.000
1644350940322702848,2022-02-08-20:09:00,10.1.1.7,31,0.010,0.010,0.010,0.000,0.000,0.000
1644350940386420992,2022-02-08-20:09:00,10.1.1.7,30,0.020,0.020,0.020,0.000,0.000,0.000
1644350940481844992,2022-02-08-20:09:00,10.1.1.7,30,0.030,0.030,0.030,0.000,0.000,0.000
1644350940582146048,2022-02-08-20:09:00,10.1.1.7,28,0.040,0.040,0.040,0.000,0.000,0.000
1644350940681811968,2022-02-08-20:09:00,10.1.1.7,28,0.050,0.050,0.050,0.000,0.000,0.000
1644350940782778880,2022-02-08-20:09:00,10.1.1.7,28,0.060,0.060,0.060,0.000,0.000,0.000
1644350940882072064,2022-02-08-20:09:00,10.1.1.7,27,0.070,0.070,0.070,0.000,0.000,0.000
1644350940982424064,2022-02-08-20:09:00,10.1.1.7,27,0.080,0.080,0.080,0.000,0.000,0.000
1644350941082046976,2022-02-08-20:09:01,10.1.1.7,27,0.090,0.090,0.090,0.000,0.000,0.000
1644350941182192128,2022-02-08-20:09:01,10.1.1.7,26,0.100,0.100,0.100,0.000,0.000,0.000
1644350941282094080,2022-02-08-20:09:01,10.1.1.7,26,0.090,0.090,0.090,0.000,0.000,0.000
1644350941398526976,2022-02-08-20:09:01,10.1.1.7,23,0.080,0.080,0.080,0.000,0.000,0.000
1644350941482529024,2022-02-08-20:09:01,10.1.1.7,22,0.070,0.070,0.070,0.000,0.000,0.000
1644350941582302976,2022-02-08-20:09:01,10.1.1.7,22,0.060,0.060,0.060,0.000,0.000,0.000
1644350941681634048,2022-02-08-20:09:01,10.1.1.7,22,0.050,0.050,0.050,0.000,0.000,0.000
1644350941782049024,2022-02-08-20:09:01,10.1.1.7,21,0.040,0.040,0.040,0.000,0.000,0.000
1644350941902651904,2022-02-08-20:09:01,10.1.1.7,28,0.030,0.030,0.030,0.000,0.000,0.000
1644350942001306112,2022-02-08-20:09:02,10.1.1.7,27,0.020,0.020,0.020,0.000,0.000,0.000
1644350942101507072,2022-02-08-20:09:02,10.1.1.7,26,0.010,0.010,0.010,0.000,0.000,0.000
1644350942201529088,2022-02-08-20:09:02,10.1.1.7,26,0.000,0.000,0.000,0.000,0.000,0.000
1644350942301294080,2022-02-08-20:09:02,10.1.1.7,26,-0.010,-0.010,-0.010,0.000,0.000,0.000
1644350942402337024,2022-02-08-20:09:02,10.1.1.7,25,-0.020,-0.020,-0.020,0.000,0.000,0.000
1644350942503310848,2022-02-08-20:09:02,10.1.1.7,25,-0.030,-0.030,-0.030,0.000,0.000,0.000
1644350942601797120,2022-02-08-20:09:02,10.1.1.7,24,-0.040,-0.040,-0.040,0.000,0.000,0.000
1644350942701585152,2022-02-08-20:09:02,10.1.1.7,23,-0.050,-0.050,-0.050,0.000,0.000,0.000
1644350943704983040,2022-02-08-20:09:02,10.1.1.7,23,-0.060,-0.060,-0.060,0.000,0.000,0.000
1644350943762100992,2022-02-08-20:09:03,10.1.1.7,29,-0.070,-0.070,-0.070,0.000,0.000,0.000
1644350943861934848,2022-02-08-20:09:03,10.1.1.7,24,-0.080,-0.080,-0.080,0.000,0.000,0.000
1644350943961957888,2022-02-08-20:09:03,10.1.1.7,23,-0.090,-0.090,-0.090,0.000,0.000,0.000
1644350944063025920,2022-02-08-20:09:04,10.1.1.7,22,-0.100,-0.100,-0.100,0.000,0.000,0.000
1644350944182656000,2022-02-08-20:09:04,10.1.1.7,38,-0.090,-0.090,-0.090,0.000,0.000,0.000
1644350944282259968,2022-02-08-20:09:04,10.1.1.7,37,-0.080,-0.080,-0.080,0.000,0.000,0.000
1644350944382852096,2022-02-08-20:09:04,10.1.1.7,35,-0.070,-0.070,-0.070,0.000,0.000,0.000
1644350944481858048,2022-02-08-20:09:04,10.1.1.7,34,-0.060,-0.060,-0.060,0.000,0.000,0.000
1644350944582798080,2022-02-08-20:09:04,10.1.1.7,33,-0.050,-0.050,-0.050,0.000,0.000,0.000
1644350944686944000,2022-02-08-20:09:04,10.1.1.7,32,-0.040,-0.040,-0.040,0.000,0.000,0.000
1644350944795749888,2022-02-08-20:09:04,10.1.1.7,31,-0.030,-0.030,-0.030,0.000,0.000,0.000
1644350944882199040,2022-02-08-20:09:04,10.1.1.7,31,-0.020,-0.020,-0.020,0.000,0.000,0.000
1644350944985905920,2022-02-08-20:09:04,10.1.1.7,30,-0.010,-0.010,-0.010,0.000,0.000,0.000
1644350945082897920,2022-02-08-20:09:05,10.1.1.7,27,0.000,0.000,0.000,0.000,0.000,0.000
1644350945183856128,2022-02-08-20:09:05,10.1.1.7,27,0.010,0.010,0.010,0.000,0.000,0.000
1644350945282579968,2022-02-08-20:09:05,10.1.1.7,22,0.020,0.020,0.020,0.000,0.000,0.000
1644350945382266112,2022-02-08-20:09:05,10.1.1.7,21,0.030,0.030,0.030,0.000,0.000,0.000
1644350945502196992,2022-02-08-20:09:05,10.1.1.7,26,0.040,0.040,0.040,0.000,0.000,0.000
1644350945617976064,2022-02-08-20:09:05,10.1.1.7,24,0.050,0.050,0.050,0.000,0.000,0.000
1644350945702842112,2022-02-08-20:09:05,10.1.1.7,22,0.060,0.060,0.060,0.000,0.000,0.000
1644350945802097152,2022-02-08-20:09:05,10.1.1.7,19,0.070,0.070,0.070,0.000,0.000,0.000
1644350945902831104,2022-02-08-20:09:05,10.1.1.7,19,0.079,0.079,0.079,0.000,0.000,0.000
1644350946022013952,2022-02-08-20:09:06,10.1.1.7,36,0.090,0.090,0.090,0.000,0.000,0.000
1644350946124079104,2022-02-08-20:09:06,10.1.1.7,35,0.100,0.100,0.100,0.000,0.000,0.000
1644350946222668800,2022-02-08-20:09:06,10.1.1.7,34,0.090,0.090,0.090,0.000,0.000,0.000
1644350946321700096,2022-02-08-20:09:06,10.1.1.7,33,0.080,0.080,0.080,0.000,0.000,0.000
1644350946422283008,2022-02-08-20:09:06,10.1.1.7,33,0.070,0.070,0.070,0.000,0.000,0.000
1644350946521539840,2022-02-08-20:09:06,10.1.1.7,32,0.060,0.060,0.060,0.000,0.000,0.000
1644350946621357824,2022-02-08-20:09:06,10.1.1.7,32,0.050,0.050,0.050,0.000,0.000,0.000
1644350946721644032,2022-02-08-20:09:06,10.1.1.7,31,0.040,0.040,0.040,0.000,0.000,0.000
1644350946822084864,2022-02-08-20:09:06,10.1.1.7,31,0.030,0.030,0.030,0.000,0.000,0.000
1644350946921400064,2022-02-08-20:09:06,10.1.1.7,31,0.020,0.020,0.020,0.000,0.000,0.000
1644350947021630976,2022-02-08-20:09:07,10.1.1.7,30,0.010,0.010,0.010,0.000,0.000,0.000
1644350947121469952,2022-02-08-20:09:07,10.1.1.7,30,0.000,0.000,0.000,0.000,0.000,0.000
1644350947221271040,2022-02-08-20:09:07,10.1.1.7,29,-0.010,-0.010,-0.010,0.000,0.000,0.000
1644350947321400832,2022-02-08-20:09:07,10.1.1.7,28,-0.020,-0.020,-0.020,0.000,0.000,0.000
1644350947422087936,2022-02-08-20:09:07,10.1.1.7,28,-0.030,-0.030,-0.030,0.000,0.000,0.000
1644350947521754112,2022-02-08-20:09:07,10.1.1.7,27,-0.040,-0.040,-0.040,0.000,0.000,0.000
1644350947621669120,2022-02-08-20:09:07,10.1.1.7,27,-0.050,-0.050,-0.050,0.000,0.000,0.000
1644350947721463808,2022-02-08-20:09:07,10.1.1.7,27,-0.060,-0.060,-0.060,0.000,0.000,0.000
1644350947821692928,2022-02-08-20:09:07,10.1.1.7,27,-0.070,-0.070,-0.070,0.000,0.000,0.000
1644350947922144000,2022-02-08-20:09:07,10.1.1.7,26,-0.080,-0.080,-0.080,0.000,0.000,0.000
1644350948021523968,2022-02-08-20:09:08,10.1.1.7,26,-0.090,-0.090,-0.090,0.000,0.000,0.000
1644350948122255104,2022-02-08-20:09:08,10.1.1.7,25,-0.100,-0.100,-0.100,0.000,0.000,0.000
1644350948222578176,2022-02-08-20:09:08,10.1.1.7,24,-0.090,-0.090,-0.090,0.000,0.000,0.000
1644350948322358016,2022-02-08-20:09:08,10.1.1.7,23,-0.080,-0.080,-0.080,0.000,0.000,0.000
1644350948422432000,2022-02-08-20:09:08,10.1.1.7,23,-0.070,-0.070,-0.070,0.000,0.000,0.000
1644350948521338880,2022-02-08-20:09:08,10.1.1.7,21,-0.060,-0.060,-0.060,0.000,0.000,0.000
1644350948816420096,2022-02-08-20:09:08,10.1.1.7,21,-0.050,-0.050,-0.050,0.000,0.000,0.000
1644350948861411072,2022-02-08-20:09:08,10.1.1.7,31,-0.040,-0.040,-0.040,0.000,0.000,0.000
1644350948963022080,2022-02-08-20:09:08,10.1.1.7,31,-0.030,-0.030,-0.030,0.000,0.000,0.000
1644350949066514944,2022-02-08-20:09:09,10.1.1.7,30,-0.020,-0.020,-0.020,0.000,0.000,0.000
1644350949162157056,2022-02-08-20:09:09,10.1.1.7,30,-0.010,-0.010,-0.010,0.000,0.000,0.000
1644350949262146048,2022-02-08-20:09:09,10.1.1.7,29,0.000,0.000,0.000,0.000,0.000,0.000
1644350949362373120,2022-02-08-20:09:09,10.1.1.7,27,0.010,0.010,0.010,0.000,0.000,0.000
1644350949462136064,2022-02-08-20:09:09,10.1.1.7,27,0.020,0.020,0.020,0.000,0.000,0.000
1644350949562340096,2022-02-08-20:09:09,10.1.1.7,26,0.030,0.030,0.030,0.000,0.000,0.000
1644350949662204928,2022-02-08-20:09:09,10.1.1.7,26,0.040,0.040,0.040,0.000,0.000,0.000
1644350949782603008,2022-02-08-20:09:09,10.1.1.7,38,0.050,0.050,0.050,0.000,0.000,0.000
1644350949881728768,2022-02-08-20:09:09,10.1.1.7,36,0.060,0.060,0.060,0.000,0.000,0.000
1644350949989090048,2022-02-08-20:09:09,10.1.1.7,36,0.070,0.070,0.070,0.000,0.000,0.000
1644350950082438912,2022-02-08-20:09:10,10.1.1.7,35,0.080,0.080,0.080,0.000,0.000,0.000
1644350950181693952,2022-02-08-20:09:10,10.1.1.7,35,0.090,0.090,0.090,0.000,0.000,0.000
1644350950281734912,2022-02-08-20:09:10,10.1.1.7,34,0.100,0.100,0.100,0.000,0.000,0.000
1644350950381776128,2022-02-08-20:09:10,10.1.1.7,33,0.090,0.090,0.090,0.000,0.000,0.000
1644350950482150144,2022-02-08-20:09:10,10.1.1.7,33,0.080,0.080,0.080,0.000,0.000,0.000
1644350950581912064,2022-02-08-20:09:10,10.1.1.7,32,0.070,0.070,0.070,0.000,0.000,0.000
1644350950682070016,2022-02-08-20:09:10,10.1.1.7,32,0.060,0.060,0.060,0.000,0.000,0.000
1644350950782557952,2022-02-08-20:09:10,10.1.1.7,32,0.050,0.050,0.050,0.000,0.000,0.000
1644350950882540032,2022-02-08-20:09:10,10.1.1.7,31,0.040,0.040,0.040,0.000,0.000,0.000
1644350950982558976,2022-02-08-20:09:10,10.1.1.7,31,0.030,0.030,0.030,0.000,0.000,0.000
1644350951081715200,2022-02-08-20:09:11,10.1.1.7,30,0.020,0.020,0.020,0.000,0.000,0.000
1644350951182491904,2022-02-08-20:09:11,10.1.1.7,30,0.010,0.010,0.010,0.000,0.000,0.000
1644350951283180032,2022-02-08-20:09:11,10.1.1.7,29,0.000,0.000,0.000,0.000,0.000,0.000
1644350951381742080,2022-02-08-20:09:11,10.1.1.7,28,-0.010,-0.010,-0.010,0.000,0.000,0.000
1644350951481716992,2022-02-08-20:09:11,10.1.1.7,27,-0.020,-0.020,-0.020,0.000,0.000,0.000
1644350951581219840,2022-02-08-20:09:11,10.1.1.7,27,-0.030,-0.030,-0.030,0.000,0.000,0.000
1644350951682231040,2022-02-08-20:09:11,10.1.1.7,26,-0.040,-0.040,-0.040,0.000,0.000,0.000
1644350951781975040,2022-02-08-20:09:11,10.1.1.7,26,-0.050,-0.050,-0.050,0.000,0.000,0.000
1644350951882252032,2022-02-08-20:09:11,10.1.1.7,26,-0.060,-0.060,-0.060,0.000,0.000,0.000
1644350951982845952,2022-02-08-20:09:11,10.1.1.7,25,-0.070,-0.070,-0.070,0.000,0.000,0.000
1644350952081531136,2022-02-08-20:09:12,10.1.1.7,25,-0.080,-0.080,-0.080,0.000,0.000,0.000
1644350952182085120,2022-02-08-20:09:12,10.1.1.7,24,-0.090,-0.090,-0.090,0.000,0.000,0.000
1644350952281995008,2022-02-08-20:09:12,10.1.1.7,24,-0.100,-0.100,-0.100,0.000,0.000,0.000
1644350952382068992,2022-02-08-20:09:12,10.1.1.7,23,-0.090,-0.090,-0.090,0.000,0.000,0.000
1644350952481733120,2022-02-08-20:09:12,10.1.1.7,23,-0.080,-0.080,-0.080,0.000,0.000,0.000
1644350952581892096,2022-02-08-20:09:12,10.1.1.7,22,-0.070,-0.070,-0.070,0.000,0.000,0.000
1644350952702505216,2022-02-08-20:09:12,10.1.1.7,27,-0.060,-0.060,-0.060,0.000,0.000,0.000
1644350952802665984,2022-02-08-20:09:12,10.1.1.7,26,-0.050,-0.050,-0.050,0.000,0.000,0.000
1644350952901913856,2022-02-08-20:09:12,10.1.1.7,25,-0.040,-0.040,-0.040,0.000,0.000,0.000
1644350953002177024,2022-02-08-20:09:13,10.1.1.7,24,-0.030,-0.030,-0.030,0.000,0.000,0.000
1644350953102529024,2022-02-08-20:09:13,10.1.1.7,24,-0.020,-0.020,-0.020,0.000,0.000,0.000
1644350953201539072,2022-02-08-20:09:13,10.1.1.7,23,-0.010,-0.010,-0.010,0.000,0.000,0.000
1644350953303303936,2022-02-08-20:09:13,10.1.1.7,22,0.000,0.000,0.000,0.000,0.000,0.000
1644350953402359040,2022-02-08-20:09:13,10.1.1.7,22,0.010,0.010,0.010,0.000,0.000,0.000
1644350953502501888,2022-02-08-20:09:13,10.1.1.7,22,0.020,0.020,0.020,0.000,0.000,0.000
1644350953602191872,2022-02-08-20:09:13,10.1.1.7,21,0.030,0.030,0.030,0.000,0.000,0.000
1644350953701936128,2022-02-08-20:09:13,10.1.1.7,20,0.040,0.040,0.040,0.000,0.000,0.000
1644350953802417152,2022-02-08-20:09:13,10.1.1.7,19,0.050,0.050,0.050,0.000,0.000,0.000
1644350953902358016,2022-02-08-20:09:13,10.1.1.7,19,0.059,0.059,0.059,0.000,0.000,0.000
1644350954021927168,2022-02-08-20:09:14,10.1.1.7,37,0.070,0.070,0.070,0.000,0.000,0.000
1644350954122138112,2022-02-08-20:09:14,10.1.1.7,36,0.080,0.080,0.080,0.000,0.000,0.000
1644350954221568000,2022-02-08-20:09:14,10.1.1.7,35,0.090,0.090,0.090,0.000,0.000,0.000
1644350954322912000,2022-02-08-20:09:14,10.1.1.7,35,0.100,0.100,0.100,0.000,0.000,0.000
1644350954422827008,2022-02-08-20:09:14,10.1.1.7,34,0.090,0.090,0.090,0.000,0.000,0.000
1644350954522123008,2022-02-08-20:09:14,10.1.1.7,33,0.080,0.080,0.080,0.000,0.000,0.000
1644350954622769152,2022-02-08-20:09:14,10.1.1.7,33,0.070,0.070,0.070,0.000,0.000,0.000
1644350954722057984,2022-02-08-20:09:14,10.1.1.7,26,0.060,0.060,0.060,0.000,0.000,0.000
1644350954821703936,2022-02-08-20:09:14,10.1.1.7,26,0.050,0.050,0.050,0.000,0.000,0.000
1644350954922306048,2022-02-08-20:09:14,10.1.1.7,25,0.040,0.040,0.040,0.000,0.000,0.000
1644350955021475072,2022-02-08-20:09:15,10.1.1.7,22,0.030,0.030,0.030,0.000,0.000,0.000
1644350955122415104,2022-02-08-20:09:15,10.1.1.7,22,0.020,0.020,0.020,0.000,0.000,0.000
1644350955221699072,2022-02-08-20:09:15,10.1.1.7,21,0.010,0.010,0.010,0.000,0.000,0.000
1644350955322129920,2022-02-08-20:09:15,10.1.1.7,21,0.000,0.000,0.000,0.000,0.000,0.000
1644350955422168064,2022-02-08-20:09:15,10.1.1.7,21,-0.010,-0.010,-0.010,0.000,0.000,0.000
1644350955521641984,2022-02-08-20:09:15,10.1.1.7,20,-0.020,-0.020,-0.020,0.000,0.000,0.000
1644350955623086080,2022-02-08-20:09:15,10.1.1.7,19,-0.030,-0.030,-0.030,0.000,0.000,0.000
1644350955722539776,2022-02-08-20:09:15,10.1.1.7,19,-0.039,-0.039,-0.039,0.000,0.000,0.000
1644350955822464000,2022-02-08-20:09:15,10.1.1.7,18,-0.049,-0.049,-0.049,0.000,0.000,0.000
1644350955942526976,2022-02-08-20:09:15,10.1.1.7,38,-0.060,-0.060,-0.060,0.000,0.000,0.000
1644350956042887936,2022-02-08-20:09:16,10.1.1.7,37,-0.070,-0.070,-0.070,0.000,0.000,0.000
1644350956142178048,2022-02-08-20:09:16,10.1.1.7,36,-0.080,-0.080,-0.080,0.000,0.000,0.000
1644350956241911040,2022-02-08-20:09:16,10.1.1.7,36,-0.090,-0.090,-0.090,0.000,0.000,0.000
1644350956341753856,2022-02-08-20:09:16,10.1.1.7,35,-0.100,-0.100,-0.100,0.000,0.000,0.000
1644350956441700864,2022-02-08-20:09:16,10.1.1.7,35,-0.090,-0.090,-0.090,0.000,0.000,0.000
1644350956541670144,2022-02-08-20:09:16,10.1.1.7,34,-0.080,-0.080,-0.080,0.000,0.000,0.000
1644350956641735936,2022-02-08-20:09:16,10.1.1.7,34,-0.070,-0.070,-0.070,0.000,0.000,0.000
1644350956742386944,2022-02-08-20:09:16,10.1.1.7,33,-0.060,-0.060,-0.060,0.000,0.000,0.000
1644350956842608896,2022-02-08-20:09:16,10.1.1.7,33,-0.050,-0.050,-0.050,0.000,0.000,0.000
1644350956941838080,2022-02-08-20:09:16,10.1.1.7,32,-0.040,-0.040,-0.040,0.000,0.000,0.000
1644350957061372160,2022-02-08-20:09:17,10.1.1.7,33,-0.030,-0.030,-0.030,0.000,0.000,0.000
1644350957162481152,2022-02-08-20:09:17,10.1.1.7,30,-0.020,-0.020,-0.020,0.000,0.000,0.000
1644350957268704768,2022-02-08-20:09:17,10.1.1.7,30,-0.010,-0.010,-0.010,0.000,0.000,0.000
1644350957371077120,2022-02-08-20:09:17,10.1.1.7,29,0.000,0.000,0.000,0.000,0.000,0.000
1644350957468427008,2022-02-08-20:09:17,10.1.1.7,28,0.010,0.010,0.010,0.000,0.000,0.000
1644350957569649920,2022-02-08-20:09:17,10.1.1.7,26,0.020,0.020,0.020,0.000,0.000,0.000
1644350957662555904,2022-02-08-20:09:17,10.1.1.7,25,0.030,0.030,0.030,0.000,0.000,0.000
1644350957762089984,2022-02-08-20:09:17,10.1.1.7,19,0.040,0.040,0.040,0.000,0.000,0.000
1644350957862485760,2022-02-08-20:09:17,10.1.1.7,18,0.049,0.049,0.049,0.000,0.000,0.000
1644350957999077120,2022-02-08-20:09:17,10.1.1.7,37,0.060,0.060,0.060,0.000,0.000,0.000
1644350958082382080,2022-02-08-20:09:18,10.1.1.7,22,0.070,0.070,0.070,0.000,0.000,0.000
1644350958182524928,2022-02-08-20:09:18,10.1.1.7,21,0.080,0.080,0.080,0.000,0.000,0.000
1644350958282279936,2022-02-08-20:09:18,10.1.1.7,20,0.090,0.090,0.090,0.000,0.000,0.000
1644350958382895872,2022-02-08-20:09:18,10.1.1.7,19,0.099,0.099,0.099,0.000,0.000,0.000
1644350958504599040,2022-02-08-20:09:18,10.1.1.7,37,0.090,0.090,0.090,0.000,0.000,0.000
1644350958602720000,2022-02-08-20:09:18,10.1.1.7,36,0.080,0.080,0.080,0.000,0.000,0.000
1644350958702886144,2022-02-08-20:09:18,10.1.1.7,35,0.070,0.070,0.070,0.000,0.000,0.000
1644350958802691072,2022-02-08-20:09:18,10.1.1.7,33,0.060,0.060,0.060,0.000,0.000,0.000
1644350958903078144,2022-02-08-20:09:18,10.1.1.7,32,0.050,0.050,0.050,0.000,0.000,0.000
1644350959003866880,2022-02-08-20:09:19,10.1.1.7,31,0.040,0.040,0.040,0.000,0.000,0.000
1644350959104548864,2022-02-08-20:09:19,10.1.1.7,30,0.030,0.030,0.030,0.000,0.000,0.000
1644350959202843904,2022-02-08-20:09:19,10.1.1.7,29,0.020,0.020,0.020,0.000,0.000,0.000
1644350959303177216,2022-02-08-20:09:19,10.1.1.7,28,0.010,0.010,0.010,0.000,0.000,0.000
1644350959403037184,2022-02-08-20:09:19,10.1.1.7,27,0.000,0.000,0.000,0.000,0.000,0.000
1644350959503544064,2022-02-08-20:09:19,10.1.1.7,26,-0.010,-0.010,-0.010,0.000,0.000,0.000
1644350959603262976,2022-02-08-20:09:19,10.1.1.7,25,-0.020,-0.020,-0.020,0.000,0.000,0.000
1644350959703387136,2022-02-08-20:09:19,10.1.1.7,24,-0.030,-0.030,-0.030,0.000,0.000,0.000
1644350959803201024,2022-02-08-20:09:19,10.1.1.7,22,-0.040,-0.040,-0.040,0.000,0.000,0.000
1644350959904016896,2022-02-08-20:09:19,10.1.1.7,21,-0.050,-0.050,-0.050,0.000,0.000,0.000
1644350960004209152,2022-02-08-20:09:20,10.1.1.7,20,-0.060,-0.060,-0.060,0.000,0.000,0.000
1644350960123589888,2022-02-08-20:09:20,10.1.1.7,32,-0.070,-0.070,-0.070,0.000,0.000,0.000
1644350960222914816,2022-02-08-20:09:20,10.1.1.7,31,-0.080,-0.080,-0.080,0.000,0.000,0.000
1644350960322676992,2022-02-08-20:09:20,10.1.1.7,31,-0.090,-0.090,-0.090,0.000,0.000,0.000
1644350960423340032,2022-02-08-20:09:20,10.1.1.7,30,-0.100,-0.100,-0.100,0.000,0.000,0.000
1644350960521810176,2022-02-08-20:09:20,10.1.1.7,28,-0.090,-0.090,-0.090,0.000,0.000,0.000
1644350960622270208,2022-02-08-20:09:20,10.1.1.7,27,-0.080,-0.080,-0.080,0.000,0.000,0.000
1644350960722244864,2022-02-08-20:09:20,10.1.1.7,27,-0.070,-0.070,-0.070,0.000,0.000,0.000
1644350960822576896,2022-02-08-20:09:20,10.1.1.7,27,-0.060,-0.060,-0.060,0.000,0.000,0.000
1644350960922059008,2022-02-08-20:09:20,10.1.1.7,26,-0.050,-0.050,-0.050,0.000,0.000,0.000
1644350961021902080,2022-02-08-20:09:21,10.1.1.7,26,-0.040,-0.040,-0.040,0.000,0.000,0.000
1644350961122324992,2022-02-08-20:09:21,10.1.1.7,25,-0.030,-0.030,-0.030,0.000,0.000,0.000
1644350961222116096,2022-02-08-20:09:21,10.1.1.7,25,-0.020,-0.020,-0.020,0.000,0.000,0.000
1644350961322635776,2022-02-08-20:09:21,10.1.1.7,24,-0.010,-0.010,-0.010,0.000,0.000,0.000
1644350961422936832,2022-02-08-20:09:21,10.1.1.7,24,0.000,0.000,0.000,0.000,0.000,0.000
1644350961522499072,2022-02-08-20:09:21,10.1.1.7,23,0.010,0.010,0.010,0.000,0.000,0.000
1644350961622343936,2022-02-08-20:09:21,10.1.1.7,23,0.020,0.020,0.020,0.000,0.000,0.000
1644350961722304000,2022-02-08-20:09:21,10.1.1.7,22,0.030,0.030,0.030,0.000,0.000,0.000
1644350961822552064,2022-02-08-20:09:21,10.1.1.7,21,0.040,0.040,0.040,0.000,0.000,0.000
1644350961922607872,2022-02-08-20:09:21,10.1.1.7,21,0.050,0.050,0.050,0.000,0.000,0.000
1644350962023297024,2022-02-08-20:09:22,10.1.1.7,19,0.060,0.060,0.060,0.000,0.000,0.000
1644350962143037184,2022-02-08-20:09:22,10.1.1.7,38,0.070,0.070,0.070,0.000,0.000,0.000
1644350962242405888,2022-02-08-20:09:22,10.1.1.7,37,0.080,0.080,0.080,0.000,0.000,0.000
1644350962342705920,2022-02-08-20:09:22,10.1.1.7,36,0.090,0.090,0.090,0.000,0.000,0.000
1644350962443234816,2022-02-08-20:09:22,10.1.1.7,35,0.100,0.100,0.100,0.000,0.000,0.000
1644350962542849024,2022-02-08-20:09:22,10.1.1.7,35,0.090,0.090,0.090,0.000,0.000,0.000
1644350962642915840,2022-02-08-20:09:22,10.1.1.7,35,0.080,0.080,0.080,0.000,0.000,0.000
1644350962743716096,2022-02-08-20:09:22,10.1.1.7,34,0.070,0.070,0.070,0.000,0.000,0.000
1644350962842909184,2022-02-08-20:09:22,10.1.1.7,33,0.060,0.060,0.060,0.000,0.000,0.000
1644350962943456000,2022-02-08-20:09:22,10.1.1.7,32,0.050,0.050,0.050,0.000,0.000,0.000
1644350963043365888,2022-02-08-20:09:23,10.1.1.7,32,0.040,0.040,0.040,0.000,0.000,0.000
1644350963186620928,2022-02-08-20:09:23,10.1.1.7,31,0.030,0.030,0.030,0.000,0.000,0.000
1644350963262578944,2022-02-08-20:09:23,10.1.1.7,39,0.020,0.020,0.020,0.000,0.000,0.000
1644350963363034112,2022-02-08-20:09:23,10.1.1.7,37,0.010,0.010,0.010,0.000,0.000,0.000
1644350963462078208,2022-02-08-20:09:23,10.1.1.7,37,0.000,0.000,0.000,0.000,0.000,0.000
1644350963564572928,2022-02-08-20:09:23,10.1.1.7,36,-0.010,-0.010,-0.010,0.000,0.000,0.000
1644350963662525952,2022-02-08-20:09:23,10.1.1.7,34,-0.020,-0.020,-0.020,0.000,0.000,0.000
1644350963763608832,2022-02-08-20:09:23,10.1.1.7,31,-0.030,-0.030,-0.030,0.000,0.000,0.000
1644350963862697984,2022-02-08-20:09:23,10.1.1.7,31,-0.040,-0.040,-0.040,0.000,0.000,0.000
1644350963962633984,2022-02-08-20:09:23,10.1.1.7,31,-0.050,-0.050,-0.050,0.000,0.000,0.000
1644350964063510016,2022-02-08-20:09:24,10.1.1.7,30,-0.060,-0.060,-0.060,0.000,0.000,0.000
1644350964163403008,2022-02-08-20:09:24,10.1.1.7,29,-0.070,-0.070,-0.070,0.000,0.000,0.000
1644350964263030016,2022-02-08-20:09:24,10.1.1.7,29,-0.080,-0.080,-0.080,0.000,0.000,0.000
1644350964363759872,2022-02-08-20:09:24,10.1.1.7,27,-0.090,-0.090,-0.090,0.000,0.000,0.000
1644350964463283968,2022-02-08-20:09:24,10.1.1.7,27,-0.100,-0.100,-0.100,0.000,0.000,0.000
1644350964563076864,2022-02-08-20:09:24,10.1.1.7,27,-0.090,-0.090,-0.090,0.000,0.000,0.000
1644350964663686144,2022-02-08-20:09:24,10.1.1.7,26,-0.080,-0.080,-0.080,0.000,0.000,0.000
1644350964763799040,2022-02-08-20:09:24,10.1.1.7,26,-0.070,-0.070,-0.070,0.000,0.000,0.000
1644350964864310016,2022-02-08-20:09:24,10.1.1.7,25,-0.060,-0.060,-0.060,0.000,0.000,0.000
1644350964963429888,2022-02-08-20:09:24,10.1.1.7,25,-0.050,-0.050,-0.050,0.000,0.000,0.000
1644350965063035904,2022-02-08-20:09:25,10.1.1.7,25,-0.040,-0.040,-0.040,0.000,0.000,0.000
1644350965163305984,2022-02-08-20:09:25,10.1.1.7,22,-0.030,-0.030,-0.030,0.000,0.000,0.000
1644350965262381056,2022-02-08-20:09:25,10.1.1.7,21,-0.020,-0.020,-0.020,0.000,0.000,0.000
1644350965363449088,2022-02-08-20:09:25,10.1.1.7,21,-0.010,-0.010,-0.010,0.000,0.000,0.000
1644350965463206912,2022-02-08-20:09:25,10.1.1.7,20,0.000,0.000,0.000,0.000,0.000,0.000
1644350965563312896,2022-02-08-20:09:25,10.1.1.7,18,0.009,0.009,0.009,0.000,0.000,0.000
1644350965682360832,2022-02-08-20:09:25,10.1.1.7,35,0.020,0.020,0.020,0.000,0.000,0.000
1644350965783044096,2022-02-08-20:09:25,10.1.1.7,32,0.030,0.030,0.030,0.000,0.000,0.000
1644350965883228160,2022-02-08-20:09:25,10.1.1.7,31,0.040,0.040,0.040,0.000,0.000,0.000
1644350965981602048,2022-02-08-20:09:25,10.1.1.7,31,0.050,0.050,0.050,0.000,0.000,0.000
1644350966082510848,2022-02-08-20:09:26,10.1.1.7,30,0.060,0.060,0.060,0.000,0.000,0.000
1644350966182545920,2022-02-08-20:09:26,10.1.1.7,30,0.070,0.070,0.070,0.000,0.000,0.000
1644350966283086080,2022-02-08-20:09:26,10.1.1.7,29,0.080,0.080,0.080,0.000,0.000,0.000
1644350966381867776,2022-02-08-20:09:26,10.1.1.7,28,0.090,0.090,0.090,0.000,0.000,0.000
1644350966483315968,2022-02-08-20:09:26,10.1.1.7,27,0.100,0.100,0.100,0.000,0.000,0.000
1644350966583630080,2022-02-08-20:09:26,10.1.1.7,27,0.090,0.090,0.090,0.000,0.000,0.000
1644350966682411008,2022-02-08-20:09:26,10.1.1.7,27,0.080,0.080,0.080,0.000,0.000,0.000
1644350966783133952,2022-02-08-20:09:26,10.1.1.7,26,0.070,0.070,0.070,0.000,0.000,0.000
1644350966884049920,2022-02-08-20:09:26,10.1.1.7,26,0.060,0.060,0.060,0.000,0.000,0.000
1644350966984142080,2022-02-08-20:09:26,10.1.1.7,25,0.050,0.050,0.050,0.000,0.000,0.000
1644350967083128064,2022-02-08-20:09:27,10.1.1.7,25,0.040,0.040,0.040,0.000,0.000,0.000
1644350967183022848,2022-02-08-20:09:27,10.1.1.7,24,0.030,0.030,0.030,0.000,0.000,0.000
1644350967282746112,2022-02-08-20:09:27,10.1.1.7,23,0.020,0.020,0.020,0.000,0.000,0.000
1644350967382900992,2022-02-08-20:09:27,10.1.1.7,23,0.010,0.010,0.010,0.000,0.000,0.000
1644350967482472960,2022-02-08-20:09:27,10.1.1.7,22,0.000,0.000,0.000,0.000,0.000,0.000
1644350967583013120,2022-02-08-20:09:27,10.1.1.7,22,-0.010,-0.010,-0.010,0.000,0.000,0.000
1644350967682429184,2022-02-08-20:09:27,10.1.1.7,21,-0.020,-0.020,-0.020,0.000,0.000,0.000
1644350967782875904,2022-02-08-20:09:27,10.1.1.7,21,-0.030,-0.030,-0.030,0.000,0.000,0.000
1644350967902647040,2022-02-08-20:09:27,10.1.1.7,38,-0.040,-0.040,-0.040,0.000,0.000,0.000
1644350968002881024,2022-02-08-20:09:28,10.1.1.7,35,-0.050,-0.050,-0.050,0.000,0.000,0.000
1644350968103059968,2022-02-08-20:09:28,10.1.1.7,35,-0.060,-0.060,-0.060,0.000,0.000,0.000
1644350968202430976,2022-02-08-20:09:28,10.1.1.7,34,-0.070,-0.070,-0.070,0.000,0.000,0.000
1644350968303497984,2022-02-08-20:09:28,10.1.1.7,33,-0.080,-0.080,-0.080,0.000,0.000,0.000
1644350968403287040,2022-02-08-20:09:28,10.1.1.7,32,-0.090,-0.090,-0.090,0.000,0.000,0.000
1644350968502747136,2022-02-08-20:09:28,10.1.1.7,32,-0.100,-0.100,-0.100,0.000,0.000,0.000
1644350968602204160,2022-02-08-20:09:28,10.1.1.7,31,-0.090,-0.090,-0.090,0.000,0.000,0.000
1644350968702383872,2022-02-08-20:09:28,10.1.1.7,31,-0.080,-0.080,-0.080,0.000,0.000,0.000
1644350968802497024,2022-02-08-20:09:28,10.1.1.7,30,-0.070,-0.070,-0.070,0.000,0.000,0.000
1644350968902507008,2022-02-08-20:09:28,10.1.1.7,30,-0.060,-0.060,-0.060,0.000,0.000,0.000
1644350969002275072,2022-02-08-20:09:29,10.1.1.7,29,-0.050,-0.050,-0.050,0.000,0.000,0.000
1644350969102107904,2022-02-08-20:09:29,10.1.1.7,28,-0.040,-0.040,-0.040,0.000,0.000,0.000
1644350969203102976,2022-02-08-20:09:29,10.1.1.7,28,-0.030,-0.030,-0.030,0.000,0.000,0.000
1644350969303096064,2022-02-08-20:09:29,10.1.1.7,27,-0.020,-0.020,-0.020,0.000,0.000,0.000
1644350969402230016,2022-02-08-20:09:29,10.1.1.7,27,-0.010,-0.010,-0.010,0.000,0.000,0.000
1644350969502778880,2022-02-08-20:09:29,10.1.1.7,26,0.000,0.000,0.000,0.000,0.000,0.000
1644350969602277120,2022-02-08-20:09:29,10.1.1.7,26,0.010,0.010,0.010,0.000,0.000,0.000
1644350969701975040,2022-02-08-20:09:29,10.1.1.7,25,0.020,0.020,0.020,0.000,0.000,0.000
1644350969802918912,2022-02-08-20:09:29,10.1.1.7,25,0.030,0.030,0.030,0.000,0.000,0.000
1644350969903141888,2022-02-08-20:09:29,10.1.1.7,23,0.040,0.040,0.040,0.000,0.000,0.000
1644350970003602944,2022-02-08-20:09:30,10.1.1.7,23,0.050,0.050,0.050,0.000,0.000,0.000
1644350970103329792,2022-02-08-20:09:30,10.1.1.7,22,0.060,0.060,0.060,0.000,0.000,0.000
1644350970202404864,2022-02-08-20:09:30,10.1.1.7,22,0.070,0.070,0.070,0.000,0.000,0.000
1644350970302311936,2022-02-08-20:09:30,10.1.1.7,22,0.080,0.080,0.080,0.000,0.000,0.000
1644350970402726912,2022-02-08-20:09:30,10.1.1.7,21,0.090,0.090,0.090,0.000,0.000,0.000
1644350970502151936,2022-02-08-20:09:30,10.1.1.7,19,0.100,0.100,0.100,0.000,0.000,0.000
1644350970602386944,2022-02-08-20:09:30,10.1.1.7,18,0.091,0.091,0.091,0.000,0.000,0.000
1644350970721619968,2022-02-08-20:09:30,10.1.1.7,37,0.080,0.080,0.080,0.000,0.000,0.000
1644350970822556928,2022-02-08-20:09:30,10.1.1.7,36,0.070,0.070,0.070,0.000,0.000,0.000
1644350970922856960,2022-02-08-20:09:30,10.1.1.7,36,0.060,0.060,0.060,0.000,0.000,0.000
1644350971022253056,2022-02-08-20:09:31,10.1.1.7,35,0.050,0.050,0.050,0.000,0.000,0.000
1644350971122385920,2022-02-08-20:09:31,10.1.1.7,34,0.040,0.040,0.040,0.000,0.000,0.000
1644350971221597952,2022-02-08-20:09:31,10.1.1.7,32,0.030,0.030,0.030,0.000,0.000,0.000
1644350971321684992,2022-02-08-20:09:31,10.1.1.7,32,0.020,0.020,0.020,0.000,0.000,0.000
1644350971422016000,2022-02-08-20:09:31,10.1.1.7,32,0.010,0.010,0.010,0.000,0.000,0.000
1644350971522957056,2022-02-08-20:09:31,10.1.1.7,31,0.000,0.000,0.000,0.000,0.000,0.000
1644350971622669824,2022-02-08-20:09:31,10.1.1.7,31,-0.010,-0.010,-0.010,0.000,0.000,0.000
1644350971722466048,2022-02-08-20:09:31,10.1.1.7,30,-0.020,-0.020,-0.020,0.000,0.000,0.000
1644350971823062016,2022-02-08-20:09:31,10.1.1.7,30,-0.030,-0.030,-0.030,0.000,0.000,0.000
1644350971921870848,2022-02-08-20:09:31,10.1.1.7,30,-0.040,-0.040,-0.040,0.000,0.000,0.000
1644350972022116864,2022-02-08-20:09:32,10.1.1.7,28,-0.050,-0.050,-0.050,0.000,0.000,0.000
1644350972121684992,2022-02-08-20:09:32,10.1.1.7,28,-0.060,-0.060,-0.060,0.000,0.000,0.000
1644350972221730048,2022-02-08-20:09:32,10.1.1.7,27,-0.070,-0.070,-0.070,0.000,0.000,0.000
1644350972322674944,2022-02-08-20:09:32,10.1.1.7,27,-0.080,-0.080,-0.080,0.000,0.000,0.000
1644350972422117120,2022-02-08-20:09:32,10.1.1.7,26,-0.090,-0.090,-0.090,0.000,0.000,0.000
1644350972522299136,2022-02-08-20:09:32,10.1.1.7,25,-0.100,-0.100,-0.100,0.000,0.000,0.000
1644350972621777152,2022-02-08-20:09:32,10.1.1.7,25,-0.090,-0.090,-0.090,0.000,0.000,0.000
1644350972722814976,2022-02-08-20:09:32,10.1.1.7,25,-0.080,-0.080,-0.080,0.000,0.000,0.000
1644350972821522944,2022-02-08-20:09:32,10.1.1.7,23,-0.070,-0.070,-0.070,0.000,0.000,0.000
1644350972922470144,2022-02-08-20:09:32,10.1.1.7,23,-0.060,-0.060,-0.060,0.000,0.000,0.000
1644350973022622208,2022-02-08-20:09:33,10.1.1.7,23,-0.050,-0.050,-0.050,0.000,0.000,0.000
1644350973121905152,2022-02-08-20:09:33,10.1.1.7,22,-0.040,-0.040,-0.040,0.000,0.000,0.000
1644350973222629120,2022-02-08-20:09:33,10.1.1.7,22,-0.030,-0.030,-0.030,0.000,0.000,0.000
1644350973322025984,2022-02-08-20:09:33,10.1.1.7,21,-0.020,-0.020,-0.020,0.000,0.000,0.000
1644350973428054016,2022-02-08-20:09:33,10.1.1.7,20,-0.010,-0.010,-0.010,0.000,0.000,0.000
1644350973522731008,2022-02-08-20:09:33,10.1.1.7,19,-0.001,-0.001,-0.001,0.000,0.000,0.000
1644350973642686976,2022-02-08-20:09:33,10.1.1.7,38,0.010,0.010,0.010,0.000,0.000,0.000
1644350973743699200,2022-02-08-20:09:33,10.1.1.7,36,0.020,0.020,0.020,0.000,0.000,0.000
1644350973843183872,2022-02-08-20:09:33,10.1.1.7,36,0.030,0.030,0.030,0.000,0.000,0.000
1644350973943058944,2022-02-08-20:09:33,10.1.1.7,26,0.040,0.040,0.040,0.000,0.000,0.000
1644350974042403840,2022-02-08-20:09:34,10.1.1.7,26,0.050,0.050,0.050,0.000,0.000,0.000
1644350974141884928,2022-02-08-20:09:34,10.1.1.7,25,0.060,0.060,0.060,0.000,0.000,0.000
1644350974242383104,2022-02-08-20:09:34,10.1.1.7,24,0.070,0.070,0.070,0.000,0.000,0.000
1644350974342430976,2022-02-08-20:09:34,10.1.1.7,23,0.080,0.080,0.080,0.000,0.000,0.000
1644350974442776064,2022-02-08-20:09:34,10.1.1.7,23,0.090,0.090,0.090,0.000,0.000,0.000
1644350974542149120,2022-02-08-20:09:34,10.1.1.7,22,0.100,0.100,0.100,0.000,0.000,0.000
1644350974641588992,2022-02-08-20:09:34,10.1.1.7,22,0.090,0.090,0.090,0.000,0.000,0.000
1644350974742407168,2022-02-08-20:09:34,10.1.1.7,22,0.080,0.080,0.080,0.000,0.000,0.000
1644350974841931008,2022-02-08-20:09:34,10.1.1.7,21,0.070,0.070,0.070,0.000,0.000,0.000
1644350974941952000,2022-02-08-20:09:34,10.1.1.7,20,0.060,0.060,0.060,0.000,0.000,0.000
1644350975043737856,2022-02-08-20:09:35,10.1.1.7,19,0.050,0.050,0.050,0.000,0.000,0.000
1644350975141468928,2022-02-08-20:09:35,10.1.1.7,19,0.040,0.040,0.040,0.000,0.000,0.000
1644350975261734912,2022-02-08-20:09:35,10.1.1.7,39,0.030,0.030,0.030,0.000,0.000,0.000
1644350975363261952,2022-02-08-20:09:35,10.1.1.7,38,0.020,0.020,0.020,0.000,0.000,0.000
1644350975463095808,2022-02-08-20:09:35,10.1.1.7,35,0.010,0.010,0.010,0.000,0.000,0.000
1644350975563193088,2022-02-08-20:09:35,10.1.1.7,33,0.000,0.000,0.000,0.000,0.000,0.000
1644350975662620928,2022-02-08-20:09:35,10.1.1.7,32,-0.010,-0.010,-0.010,0.000,0.000,0.000
1644350975762404864,2022-02-08-20:09:35,10.1.1.7,32,-0.020,-0.020,-0.020,0.000,0.000,0.000
1644350975862539008,2022-02-08-20:09:35,10.1.1.7,31,-0.030,-0.030,-0.030,0.000,0.000,0.000
1644350975968406016,2022-02-08-20:09:35,10.1.1.7,30,-0.040,-0.040,-0.040,0.000,0.000,0.000
1644350976062607104,2022-02-08-20:09:36,10.1.1.7,24,-0.050,-0.050,-0.050,0.000,0.000,0.000
1644350976164854016,2022-02-08-20:09:36,10.1.1.7,22,-0.060,-0.060,-0.060,0.000,0.000,0.000
1644350976262352896,2022-02-08-20:09:36,10.1.1.7,19,-0.070,-0.070,-0.070,0.000,0.000,0.000
1644350976363593216,2022-02-08-20:09:36,10.1.1.7,18,-0.079,-0.079,-0.079,0.000,0.000,0.000
1644350976482812928,2022-02-08-20:09:36,10.1.1.7,38,-0.090,-0.090,-0.090,0.000,0.000,0.000
1644350976582359040,2022-02-08-20:09:36,10.1.1.7,36,-0.100,-0.100,-0.100,0.000,0.000,0.000
1644350976681780992,2022-02-08-20:09:36,10.1.1.7,35,-0.090,-0.090,-0.090,0.000,0.000,0.000
1644350976782897920,2022-02-08-20:09:36,10.1.1.7,35,-0.080,-0.080,-0.080,0.000,0.000,0.000
1644350976882343936,2022-02-08-20:09:36,10.1.1.7,34,-0.070,-0.070,-0.070,0.000,0.000,0.000
1644350976982702848,2022-02-08-20:09:36,10.1.1.7,33,-0.060,-0.060,-0.060,0.000,0.000,0.000
1644350977082191104,2022-02-08-20:09:37,10.1.1.7,33,-0.050,-0.050,-0.050,0.000,0.000,0.000
1644350977182422016,2022-02-08-20:09:37,10.1.1.7,32,-0.040,-0.040,-0.040,0.000,0.000,0.000
1644350977282278144,2022-02-08-20:09:37,10.1.1.7,31,-0.030,-0.030,-0.030,0.000,0.000,0.000
1644350977381881088,2022-02-08-20:09:37,10.1.1.7,30,-0.020,-0.020,-0.020,0.000,0.000,0.000
1644350977482594048,2022-02-08-20:09:37,10.1.1.7,30,-0.010,-0.010,-0.010,0.000,0.000,0.000
1644350977582597888,2022-02-08-20:09:37,10.1.1.7,30,0.000,0.000,0.000,0.000,0.000,0.000
1644350977682564096,2022-02-08-20:09:37,10.1.1.7,29,0.010,0.010,0.010,0.000,0.000,0.000
1644350977781702144,2022-02-08-20:09:37,10.1.1.7,28,0.020,0.020,0.020,0.000,0.000,0.000
1644350977903314944,2022-02-08-20:09:37,10.1.1.7,27,0.030,0.030,0.030,0.000,0.000,0.000
1644350977983237120,2022-02-08-20:09:37,10.1.1.7,26,0.040,0.040,0.040,0.000,0.000,0.000
1644350978082711808,2022-02-08-20:09:38,10.1.1.7,25,0.050,0.050,0.050,0.000,0.000,0.000
1644350978182305024,2022-02-08-20:09:38,10.1.1.7,25,0.060,0.060,0.060,0.000,0.000,0.000
1644350978282234880,2022-02-08-20:09:38,10.1.1.7,25,0.070,0.070,0.070,0.000,0.000,0.000
1644350978382801152,2022-02-08-20:09:38,10.1.1.7,23,0.080,0.080,0.080,0.000,0.000,0.000
1644350978483064832,2022-02-08-20:09:38,10.1.1.7,23,0.090,0.090,0.090,0.000,0.000,0.000
1644350978602487040,2022-02-08-20:09:38,10.1.1.7,38,0.100,0.100,0.100,0.000,0.000,0.000
1644350978702667008,2022-02-08-20:09:38,10.1.1.7,37,0.090,0.090,0.090,0.000,0.000,0.000
1644350978802254080,2022-02-08-20:09:38,10.1.1.7,36,0.080,0.080,0.080,0.000,0.000,0.000
1644350978902045952,2022-02-08-20:09:38,10.1.1.7,35,0.070,0.070,0.070,0.000,0.000,0.000
1644350979002542848,2022-02-08-20:09:39,10.1.1.7,35,0.060,0.060,0.060,0.000,0.000,0.000
1644350979102465024,2022-02-08-20:09:39,10.1.1.7,34,0.050,0.050,0.050,0.000,0.000,0.000
1644350979202771968,2022-02-08-20:09:39,10.1.1.7,34,0.040,0.040,0.040,0.000,0.000,0.000
1644350979301592064,2022-02-08-20:09:39,10.1.1.7,33,0.030,0.030,0.030,0.000,0.000,0.000
1644350979402117888,2022-02-08-20:09:39,10.1.1.7,32,0.020,0.020,0.020,0.000,0.000,0.000
1644350979502244096,2022-02-08-20:09:39,10.1.1.7,32,0.010,0.010,0.010,0.000,0.000,0.000
1644350979601871104,2022-02-08-20:09:39,10.1.1.7,31,0.000,0.000,0.000,0.000,0.000,0.000
1644350979704709120,2022-02-08-20:09:39,10.1.1.7,30,-0.010,-0.010,-0.010,0.000,0.000,0.000
1644350979802316800,2022-02-08-20:09:39,10.1.1.7,29,-0.020,-0.020,-0.020,0.000,0.000,0.000
1644350979905478912,2022-02-08-20:09:39,10.1.1.7,28,-0.030,-0.030,-0.030,0.000,0.000,0.000
1644350980003364096,2022-02-08-20:09:40,10.1.1.7,26,-0.040,-0.040,-0.040,0.000,0.000,0.000
1644350980102268928,2022-02-08-20:09:40,10.1.1.7,24,-0.050,-0.050,-0.050,0.000,0.000,0.000
1644350980203334144,2022-02-08-20:09:40,10.1.1.7,22,-0.060,-0.060,-0.060,0.000,0.000,0.000
1644350980303540992,2022-02-08-20:09:40,10.1.1.7,22,-0.070,-0.070,-0.070,0.000,0.000,0.000
1644350980403794176,2022-02-08-20:09:40,10.1.1.7,21,-0.080,-0.080,-0.080,0.000,0.000,0.000
1644350980503098880,2022-02-08-20:09:40,10.1.1.7,20,-0.090,-0.090,-0.090,0.000,0.000,0.000
1644350980633335040,2022-02-08-20:09:40,10.1.1.7,36,-0.100,-0.100,-0.100,0.000,0.000,0.000
1644350980722985984,2022-02-08-20:09:40,10.1.1.7,35,-0.090,-0.090,-0.090,0.000,0.000,0.000
1644350980821944064,2022-02-08-20:09:40,10.1.1.7,35,-0.080,-0.080,-0.080,0.000,0.000,0.000
1644350980922555904,2022-02-08-20:09:40,10.1.1.7,35,-0.070,-0.070,-0.070,0.000,0.000,0.000
1644350981022491904,2022-02-08-20:09:41,10.1.1.7,34,-0.060,-0.060,-0.060,0.000,0.000,0.000
1644350981136564992,2022-02-08-20:09:41,10.1.1.7,32,-0.050,-0.050,-0.050,0.000,0.000,0.000
1644350981222500096,2022-02-08-20:09:41,10.1.1.7,27,-0.040,-0.040,-0.040,0.000,0.000,0.000
1644350981284353024,2022-02-08-20:09:41,10.1.1.7,-13,-0.040,-0.040,-0.040,0.000,0.000,0.000
1644350981422332160,2022-02-08-20:09:41,10.1.1.7,26,-0.020,-0.020,-0.020,0.000,0.000,0.000
1644350981522353920,2022-02-08-20:09:41,10.1.1.7,26,-0.010,-0.010,-0.010,0.000,0.000,0.000
1644350981622556928,2022-02-08-20:09:41,10.1.1.7,25,0.000,0.000,0.000,0.000,0.000,0.000
1644350981743331072,2022-02-08-20:09:41,10.1.1.7,35,0.010,0.010,0.010,0.000,0.000,0.000
1644350981843507968,2022-02-08-20:09:41,10.1.1.7,34,0.020,0.020,0.020,0.000,0.000,0.000
1644350981942650112,2022-02-08-20:09:41,10.1.1.7,34,0.030,0.030,0.030,0.000,0.000,0.000
1644350982042840064,2022-02-08-20:09:42,10.1.1.7,33,0.040,0.040,0.040,0.000,0.000,0.000
1644350982142689024,2022-02-08-20:09:42,10.1.1.7,33,0.050,0.050,0.050,0.000,0.000,0.000
1644350982241745920,2022-02-08-20:09:42,10.1.1.7,32,0.060,0.060,0.060,0.000,0.000,0.000
1644350982342347008,2022-02-08-20:09:42,10.1.1.7,32,0.070,0.070,0.070,0.000,0.000,0.000
1644350982442963968,2022-02-08-20:09:42,10.1.1.7,31,0.080,0.080,0.080,0.000,0.000,0.000
1644350982541848832,2022-02-08-20:09:42,10.1.1.7,31,0.090,0.090,0.090,0.000,0.000,0.000
1644350982642518016,2022-02-08-20:09:42,10.1.1.7,30,0.100,0.100,0.100,0.000,0.000,0.000
1644350982743002880,2022-02-08-20:09:42,10.1.1.7,29,0.090,0.090,0.090,0.000,0.000,0.000
1644350982842458112,2022-02-08-20:09:42,10.1.1.7,28,0.080,0.080,0.080,0.000,0.000,0.000
1644350982942023936,2022-02-08-20:09:42,10.1.1.7,28,0.070,0.070,0.070,0.000,0.000,0.000
1644350983042521088,2022-02-08-20:09:43,10.1.1.7,27,0.060,0.060,0.060,0.000,0.000,0.000
1644350983142682112,2022-02-08-20:09:43,10.1.1.7,27,0.050,0.050,0.050,0.000,0.000,0.000
1644350983242501888,2022-02-08-20:09:43,10.1.1.7,27,0.040,0.040,0.040,0.000,0.000,0.000
1644350983342635008,2022-02-08-20:09:43,10.1.1.7,26,0.030,0.030,0.030,0.000,0.000,0.000
1644350983442460160,2022-02-08-20:09:43,10.1.1.7,26,0.020,0.020,0.020,0.000,0.000,0.000
1644350983542831872,2022-02-08-20:09:43,10.1.1.7,26,0.010,0.010,0.010,0.000,0.000,0.000
1644350983641513984,2022-02-08-20:09:43,10.1.1.7,25,0.000,0.000,0.000,0.000,0.000,0.000
1644350983742291968,2022-02-08-20:09:43,10.1.1.7,25,-0.010,-0.010,-0.010,0.000,0.000,0.000
1644350983842461952,2022-02-08-20:09:43,10.1.1.7,24,-0.020,-0.020,-0.020,0.000,0.000,0.000
1644350983942181120,2022-02-08-20:09:43,10.1.1.7,24,-0.030,-0.030,-0.030,0.000,0.000,0.000
1644350984043090176,2022-02-08-20:09:44,10.1.1.7,23,-0.040,-0.040,-0.040,0.000,0.000,0.000
1644350984143134976,2022-02-08-20:09:44,10.1.1.7,23,-0.050,-0.050,-0.050,0.000,0.000,0.000
1644350984242845184,2022-02-08-20:09:44,10.1.1.7,22,-0.060,-0.060,-0.060,0.000,0.000,0.000
1644350984342313984,2022-02-08-20:09:44,10.1.1.7,22,-0.070,-0.070,-0.070,0.000,0.000,0.000
1644350984441939968,2022-02-08-20:09:44,10.1.1.7,21,-0.080,-0.080,-0.080,0.000,0.000,0.000
1644350984542518016,2022-02-08-20:09:44,10.1.1.7,20,-0.090,-0.090,-0.090,0.000,0.000,0.000
1644350984642247936,2022-02-08-20:09:44,10.1.1.7,20,-0.100,-0.100,-0.100,0.000,0.000,0.000
1644350984742755840,2022-02-08-20:09:44,10.1.1.7,19,-0.090,-0.090,-0.090,0.000,0.000,0.000
1644350984842696960,2022-02-08-20:09:44,10.1.1.7,19,-0.081,-0.081,-0.081,0.000,0.000,0.000
1644350984962918144,2022-02-08-20:09:44,10.1.1.7,38,-0.070,-0.070,-0.070,0.000,0.000,0.000
1644350985062297088,2022-02-08-20:09:45,10.1.1.7,37,-0.060,-0.060,-0.060,0.000,0.000,0.000
1644350985163002112,2022-02-08-20:09:45,10.1.1.7,37,-0.050,-0.050,-0.050,0.000,0.000,0.000
1644350985262567168,2022-02-08-20:09:45,10.1.1.7,37,-0.040,-0.040,-0.040,0.000,0.000,0.000
1644350985363089152,2022-02-08-20:09:45,10.1.1.7,36,-0.030,-0.030,-0.030,0.000,0.000,0.000
1644350985462426880,2022-02-08-20:09:45,10.1.1.7,35,-0.020,-0.020,-0.020,0.000,0.000,0.000
1644350985562886912,2022-02-08-20:09:45,10.1.1.7,35,-0.010,-0.010,-0.010,0.000,0.000,0.000
1644350985664282112,2022-02-08-20:09:45,10.1.1.7,34,0.000,0.000,0.000,0.000,0.000,0.000
1644350985763300864,2022-02-08-20:09:45,10.1.1.7,34,0.010,0.010,0.010,0.000,0.000,0.000
1644350985862596096,2022-02-08-20:09:45,10.1.1.7,33,0.020,0.020,0.020,0.000,0.000,0.000
1644350985962824960,2022-02-08-20:09:45,10.1.1.7,33,0.030,0.030,0.030,0.000,0.000,0.000
1644350986063262976,2022-02-08-20:09:46,10.1.1.7,32,0.040,0.040,0.040,0.000,0.000,0.000
1644350986163068928,2022-02-08-20:09:46,10.1.1.7,32,0.050,0.050,0.050,0.000,0.000,0.000
1644350986262551040,2022-02-08-20:09:46,10.1.1.7,31,0.060,0.060,0.060,0.000,0.000,0.000
1644350986363854848,2022-02-08-20:09:46,10.1.1.7,30,0.070,0.070,0.070,0.000,0.000,0.000
1644350986461862144,2022-02-08-20:09:46,10.1.1.7,29,0.080,0.080,0.080,0.000,0.000,0.000
1644350986562604032,2022-02-08-20:09:46,10.1.1.7,29,0.090,0.090,0.090,0.000,0.000,0.000
1644350986662110976,2022-02-08-20:09:46,10.1.1.7,28,0.100,0.100,0.100,0.000,0.000,0.000
1644350986762577920,2022-02-08-20:09:46,10.1.1.7,27,0.090,0.090,0.090,0.000,0.000,0.000
1644350986862482944,2022-02-08-20:09:46,10.1.1.7,27,0.080,0.080,0.080,0.000,0.000,0.000
1644350986963474944,2022-02-08-20:09:46,10.1.1.7,26,0.070,0.070,0.070,0.000,0.000,0.000
1644350987061551104,2022-02-08-20:09:47,10.1.1.7,26,0.060,0.060,0.060,0.000,0.000,0.000
1644350987162956032,2022-02-08-20:09:47,10.1.1.7,26,0.050,0.050,0.050,0.000,0.000,0.000
1644350987262423040,2022-02-08-20:09:47,10.1.1.7,25,0.040,0.040,0.040,0.000,0.000,0.000
1644350987363180032,2022-02-08-20:09:47,10.1.1.7,25,0.030,0.030,0.030,0.000,0.000,0.000
1644350987462534912,2022-02-08-20:09:47,10.1.1.7,24,0.020,0.020,0.020,0.000,0.000,0.000
1644350987562896896,2022-02-08-20:09:47,10.1.1.7,24,0.010,0.010,0.010,0.000,0.000,0.000
1644350987665401088,2022-02-08-20:09:47,10.1.1.7,23,0.000,0.000,0.000,0.000,0.000,0.000
1644350987763386112,2022-02-08-20:09:47,10.1.1.7,22,-0.010,-0.010,-0.010,0.000,0.000,0.000
1644350987862993920,2022-02-08-20:09:47,10.1.1.7,22,-0.020,-0.020,-0.020,0.000,0.000,0.000
1644350987963447040,2022-02-08-20:09:47,10.1.1.7,21,-0.030,-0.030,-0.030,0.000,0.000,0.000
1644350988063222784,2022-02-08-20:09:48,10.1.1.7,21,-0.040,-0.040,-0.040,0.000,0.000,0.000
1644350988162996992,2022-02-08-20:09:48,10.1.1.7,20,-0.050,-0.050,-0.050,0.000,0.000,0.000
1644350988262715136,2022-02-08-20:09:48,10.1.1.7,20,-0.060,-0.060,-0.060,0.000,0.000,0.000
1644350988363168000,2022-02-08-20:09:48,10.1.1.7,19,-0.069,-0.069,-0.069,0.000,0.000,0.000
1644350988483803904,2022-02-08-20:09:48,10.1.1.7,38,-0.080,-0.080,-0.080,0.000,0.000,0.000
1644350988582764032,2022-02-08-20:09:48,10.1.1.7,38,-0.090,-0.090,-0.090,0.000,0.000,0.000
1644350988683027968,2022-02-08-20:09:48,10.1.1.7,37,-0.100,-0.100,-0.100,0.000,0.000,0.000
1644350988782268160,2022-02-08-20:09:48,10.1.1.7,37,-0.090,-0.090,-0.090,0.000,0.000,0.000
1644350988882662912,2022-02-08-20:09:48,10.1.1.7,35,-0.080,-0.080,-0.080,0.000,0.000,0.000
1644350988983591168,2022-02-08-20:09:48,10.1.1.7,35,-0.070,-0.070,-0.070,0.000,0.000,0.000
1644350989082441216,2022-02-08-20:09:49,10.1.1.7,34,-0.060,-0.060,-0.060,0.000,0.000,0.000
1644350989181940992,2022-02-08-20:09:49,10.1.1.7,34,-0.050,-0.050,-0.050,0.000,0.000,0.000
1644350989282010112,2022-02-08-20:09:49,10.1.1.7,33,-0.040,-0.040,-0.040,0.000,0.000,0.000
1644350989382046976,2022-02-08-20:09:49,10.1.1.7,32,-0.030,-0.030,-0.030,0.000,0.000,0.000
1644350989482733056,2022-02-08-20:09:49,10.1.1.7,32,-0.020,-0.020,-0.020,0.000,0.000,0.000
1644350989581587968,2022-02-08-20:09:49,10.1.1.7,31,-0.010,-0.010,-0.010,0.000,0.000,0.000
1644350989682518016,2022-02-08-20:09:49,10.1.1.7,31,0.000,0.000,0.000,0.000,0.000,0.000
1644350989782497792,2022-02-08-20:09:49,10.1.1.7,31,0.010,0.010,0.010,0.000,0.000,0.000
1644350989882124800,2022-02-08-20:09:49,10.1.1.7,30,0.020,0.020,0.020,0.000,0.000,0.000
1644350989983443968,2022-02-08-20:09:49,10.1.1.7,29,0.030,0.030,0.030,0.000,0.000,0.000
1644350990083395072,2022-02-08-20:09:50,10.1.1.7,28,0.040,0.040,0.040,0.000,0.000,0.000
1644350990181793024,2022-02-08-20:09:50,10.1.1.7,28,0.050,0.050,0.050,0.000,0.000,0.000
1644350990282236928,2022-02-08-20:09:50,10.1.1.7,27,0.060,0.060,0.060,0.000,0.000,0.000
1644350990382225920,2022-02-08-20:09:50,10.1.1.7,27,0.070,0.070,0.070,0.000,0.000,0.000
1644350990482560000,2022-02-08-20:09:50,10.1.1.7,26,0.080,0.080,0.080,0.000,0.000,0.000
1644350990582575104,2022-02-08-20:09:50,10.1.1.7,25,0.090,0.090,0.090,0.000,0.000,0.000
1644350990682436096,2022-02-08-20:09:50,10.1.1.7,25,0.100,0.100,0.100,0.000,0.000,0.000
1644350990782835968,2022-02-08-20:09:50,10.1.1.7,24,0.090,0.090,0.090,0.000,0.000,0.000
1644350990883111936,2022-02-08-20:09:50,10.1.1.7,24,0.080,0.080,0.080,0.000,0.000,0.000
1644350990982723072,2022-02-08-20:09:50,10.1.1.7,24,0.070,0.070,0.070,0.000,0.000,0.000
1644350991081823232,2022-02-08-20:09:51,10.1.1.7,23,0.060,0.060,0.060,0.000,0.000,0.000
1644350991182568192,2022-02-08-20:09:51,10.1.1.7,23,0.050,0.050,0.050,0.000,0.000,0.000
1644350991282094848,2022-02-08-20:09:51,10.1.1.7,22,0.040,0.040,0.040,0.000,0.000,0.000
1644350991382318080,2022-02-08-20:09:51,10.1.1.7,22,0.030,0.030,0.030,0.000,0.000,0.000
1644350991482983168,2022-02-08-20:09:51,10.1.1.7,22,0.020,0.020,0.020,0.000,0.000,0.000
1644350991582222080,2022-02-08-20:09:51,10.1.1.7,21,0.010,0.010,0.010,0.000,0.000,0.000
1644350991684427008,2022-02-08-20:09:51,10.1.1.7,21,0.000,0.000,0.000,0.000,0.000,0.000
1644350991782716928,2022-02-08-20:09:51,10.1.1.7,20,-0.010,-0.010,-0.010,0.000,0.000,0.000
1644350991902749952,2022-02-08-20:09:51,10.1.1.7,38,-0.020,-0.020,-0.020,0.000,0.000,0.000
1644350992002322944,2022-02-08-20:09:52,10.1.1.7,38,-0.030,-0.030,-0.030,0.000,0.000,0.000
1644350992102381056,2022-02-08-20:09:52,10.1.1.7,37,-0.040,-0.040,-0.040,0.000,0.000,0.000
1644350992202137088,2022-02-08-20:09:52,10.1.1.7,37,-0.050,-0.050,-0.050,0.000,0.000,0.000
1644350992303565056,2022-02-08-20:09:52,10.1.1.7,32,-0.060,-0.060,-0.060,0.000,0.000,0.000
1644350992401654016,2022-02-08-20:09:52,10.1.1.7,31,-0.070,-0.070,-0.070,0.000,0.000,0.000
1644350992502222080,2022-02-08-20:09:52,10.1.1.7,31,-0.080,-0.080,-0.080,0.000,0.000,0.000
1644350992602355968,2022-02-08-20:09:52,10.1.1.7,31,-0.090,-0.090,-0.090,0.000,0.000,0.000
1644350992701797120,2022-02-08-20:09:52,10.1.1.7,30,-0.100,-0.100,-0.100,0.000,0.000,0.000
1644350992801620992,2022-02-08-20:09:52,10.1.1.7,30,-0.090,-0.090,-0.090,0.000,0.000,0.000
1644350992903279104,2022-02-08-20:09:52,10.1.1.7,29,-0.080,-0.080,-0.080,0.000,0.000,0.000
1644350993001981952,2022-02-08-20:09:53,10.1.1.7,26,-0.070,-0.070,-0.070,0.000,0.000,0.000
1644350993102669056,2022-02-08-20:09:53,10.1.1.7,19,-0.061,-0.061,-0.061,0.000,0.000,0.000
1644350993222327040,2022-02-08-20:09:53,10.1.1.7,38,-0.050,-0.050,-0.050,0.000,0.000,0.000
1644350993324100864,2022-02-08-20:09:53,10.1.1.7,37,-0.040,-0.040,-0.040,0.000,0.000,0.000
1644350993421747968,2022-02-08-20:09:53,10.1.1.7,35,-0.030,-0.030,-0.030,0.000,0.000,0.000
1644350993522465024,2022-02-08-20:09:53,10.1.1.7,34,-0.020,-0.020,-0.020,0.000,0.000,0.000
1644350993622735104,2022-02-08-20:09:53,10.1.1.7,32,-0.010,-0.010,-0.010,0.000,0.000,0.000
1644350993722085120,2022-02-08-20:09:53,10.1.1.7,32,0.000,0.000,0.000,0.000,0.000,0.000
1644350993822611200,2022-02-08-20:09:53,10.1.1.7,31,0.010,0.010,0.010,0.000,0.000,0.000
1644350993922405120,2022-02-08-20:09:53,10.1.1.7,30,0.020,0.020,0.020,0.000,0.000,0.000
1644350994022258944,2022-02-08-20:09:54,10.1.1.7,30,0.030,0.030,0.030,0.000,0.000,0.000
1644350994122522112,2022-02-08-20:09:54,10.1.1.7,29,0.040,0.040,0.040,0.000,0.000,0.000
1644350994222208000,2022-02-08-20:09:54,10.1.1.7,29,0.050,0.050,0.050,0.000,0.000,0.000
1644350994322984960,2022-02-08-20:09:54,10.1.1.7,28,0.060,0.060,0.060,0.000,0.000,0.000
1644350994422157056,2022-02-08-20:09:54,10.1.1.7,28,0.070,0.070,0.070,0.000,0.000,0.000
1644350994522601984,2022-02-08-20:09:54,10.1.1.7,27,0.080,0.080,0.080,0.000,0.000,0.000
1644350994622425088,2022-02-08-20:09:54,10.1.1.7,27,0.090,0.090,0.090,0.000,0.000,0.000
1644350994723116032,2022-02-08-20:09:54,10.1.1.7,26,0.100,0.100,0.100,0.000,0.000,0.000
1644350994822287104,2022-02-08-20:09:54,10.1.1.7,26,0.090,0.090,0.090,0.000,0.000,0.000
1644350994922532096,2022-02-08-20:09:54,10.1.1.7,24,0.080,0.080,0.080,0.000,0.000,0.000
1644350995023083008,2022-02-08-20:09:55,10.1.1.7,23,0.070,0.070,0.070,0.000,0.000,0.000
1644350995122782976,2022-02-08-20:09:55,10.1.1.7,22,0.060,0.060,0.060,0.000,0.000,0.000
1644350995221880064,2022-02-08-20:09:55,10.1.1.7,21,0.050,0.050,0.050,0.000,0.000,0.000
1644350995323298048,2022-02-08-20:09:55,10.1.1.7,21,0.040,0.040,0.040,0.000,0.000,0.000
1644350995423532032,2022-02-08-20:09:55,10.1.1.7,21,0.030,0.030,0.030,0.000,0.000,0.000
1644350995522949888,2022-02-08-20:09:55,10.1.1.7,20,0.020,0.020,0.020,0.000,0.000,0.000
1644350995623245056,2022-02-08-20:09:55,10.1.1.7,20,0.010,0.010,0.010,0.000,0.000,0.000
1644350995722318848,2022-02-08-20:09:55,10.1.1.7,19,0.001,0.001,0.001,0.000,0.000,0.000
1644350995822541056,2022-02-08-20:09:55,10.1.1.7,19,-0.009,-0.009,-0.009,0.000,0.000,0.000
1644350995943470080,2022-02-08-20:09:55,10.1.1.7,38,-0.020,-0.020,-0.020,0.000,0.000,0.000
1644350996043159040,2022-02-08-20:09:56,10.1.1.7,37,-0.030,-0.030,-0.030,0.000,0.000,0.000
1644350996142983936,2022-02-08-20:09:56,10.1.1.7,34,-0.040,-0.040,-0.040,0.000,0.000,0.000
1644350996243048960,2022-02-08-20:09:56,10.1.1.7,34,-0.050,-0.050,-0.050,0.000,0.000,0.000
1644350996343113984,2022-02-08-20:09:56,10.1.1.7,32,-0.060,-0.060,-0.060,0.000,0.000,0.000
1644350996442646016,2022-02-08-20:09:56,10.1.1.7,32,-0.070,-0.070,-0.070,0.000,0.000,0.000
1644350996542983168,2022-02-08-20:09:56,10.1.1.7,31,-0.080,-0.080,-0.080,0.000,0.000,0.000
1644350996642539008,2022-02-08-20:09:56,10.1.1.7,30,-0.090,-0.090,-0.090,0.000,0.000,0.000
1644350996743006976,2022-02-08-20:09:56,10.1.1.7,29,-0.100,-0.100,-0.100,0.000,0.000,0.000
1644350996844308992,2022-02-08-20:09:56,10.1.1.7,27,-0.090,-0.090,-0.090,0.000,0.000,0.000
1644350996942811136,2022-02-08-20:09:56,10.1.1.7,26,-0.080,-0.080,-0.080,0.000,0.000,0.000
1644350997043156992,2022-02-08-20:09:57,10.1.1.7,26,-0.070,-0.070,-0.070,0.000,0.000,0.000
1644350997143141888,2022-02-08-20:09:57,10.1.1.7,25,-0.060,-0.060,-0.060,0.000,0.000,0.000
1644350997275254016,2022-02-08-20:09:57,10.1.1.7,24,-0.050,-0.050,-0.050,0.000,0.000,0.000
1644350997343492864,2022-02-08-20:09:57,10.1.1.7,23,-0.040,-0.040,-0.040,0.000,0.000,0.000
1644350997444286208,2022-02-08-20:09:57,10.1.1.7,22,-0.030,-0.030,-0.030,0.000,0.000,0.000
1644350997543554048,2022-02-08-20:09:57,10.1.1.7,21,-0.020,-0.020,-0.020,0.000,0.000,0.000
1644350997642584064,2022-02-08-20:09:57,10.1.1.7,19,-0.011,-0.011,-0.011,0.000,0.000,0.000
1644350997763154944,2022-02-08-20:09:57,10.1.1.7,38,0.000,0.000,0.000,0.000,0.000,0.000
1644350997863389952,2022-02-08-20:09:57,10.1.1.7,37,0.010,0.010,0.010,0.000,0.000,0.000
1644350997963421952,2022-02-08-20:09:57,10.1.1.7,36,0.020,0.020,0.020,0.000,0.000,0.000
1644350998063508992,2022-02-08-20:09:58,10.1.1.7,35,0.030,0.030,0.030,0.000,0.000,0.000
1644350998162530048,2022-02-08-20:09:58,10.1.1.7,34,0.040,0.040,0.040,0.000,0.000,0.000
1644350998262348800,2022-02-08-20:09:58,10.1.1.7,33,0.050,0.050,0.050,0.000,0.000,0.000
1644350998362349056,2022-02-08-20:09:58,10.1.1.7,33,0.060,0.060,0.060,0.000,0.000,0.000
1644350998461857024,2022-02-08-20:09:58,10.1.1.7,32,0.070,0.070,0.070,0.000,0.000,0.000
1644350998562294016,2022-02-08-20:09:58,10.1.1.7,31,0.080,0.080,0.080,0.000,0.000,0.000
1644350998662478080,2022-02-08-20:09:58,10.1.1.7,30,0.090,0.090,0.090,0.000,0.000,0.000
1644350998763254784,2022-02-08-20:09:58,10.1.1.7,30,0.100,0.100,0.100,0.000,0.000,0.000
1644350998862725120,2022-02-08-20:09:58,10.1.1.7,27,0.090,0.090,0.090,0.000,0.000,0.000
1644350998963763968,2022-02-08-20:09:58,10.1.1.7,24,0.080,0.080,0.080,0.000,0.000,0.000
1644350999062969088,2022-02-08-20:09:59,10.1.1.7,22,0.070,0.070,0.070,0.000,0.000,0.000
1644350999162915072,2022-02-08-20:09:59,10.1.1.7,20,0.060,0.060,0.060,0.000,0.000,0.000
1644350999266940160,2022-02-08-20:09:59,10.1.1.7,20,0.050,0.050,0.050,0.000,0.000,0.000
1644350999362612992,2022-02-08-20:09:59,10.1.1.7,19,0.040,0.040,0.040,0.000,0.000,0.000
1644350999462869760,2022-02-08-20:09:59,10.1.1.7,19,0.031,0.031,0.031,0.000,0.000,0.000
1644350999581757952,2022-02-08-20:09:59,10.1.1.7,38,0.020,0.020,0.020,0.000,0.000,0.000
1644350999682915840,2022-02-08-20:09:59,10.1.1.7,38,0.010,0.010,0.010,0.000,0.000,0.000
1644350999782882048,2022-02-08-20:09:59,10.1.1.7,37,0.000,0.000,0.000,0.000,0.000,0.000
1644350999882416896,2022-02-08-20:09:59,10.1.1.7,37,-0.010,-0.010,-0.010,0.000,0.000,0.000
1644350999982455040,2022-02-08-20:09:59,10.1.1.7,36,-0.020,-0.020,-0.020,0.000,0.000,0.000
1644351000082455040,2022-02-08-20:10:00,10.1.1.7,35,-0.030,-0.030,-0.030,0.000,0.000,0.000
1644351000182561024,2022-02-08-20:10:00,10.1.1.7,35,-0.040,-0.040,-0.040,0.000,0.000,0.000
1644351000282525952,2022-02-08-20:10:00,10.1.1.7,35,-0.050,-0.050,-0.050,0.000,0.000,0.000
1644351000382512128,2022-02-08-20:10:00,10.1.1.7,34,-0.060,-0.060,-0.060,0.000,0.000,0.000
1644351000483192832,2022-02-08-20:10:00,10.1.1.7,33,-0.070,-0.070,-0.070,0.000,0.000,0.000
1644351000581859072,2022-02-08-20:10:00,10.1.1.7,33,-0.080,-0.080,-0.080,0.000,0.000,0.000
1644351000684060160,2022-02-08-20:10:00,10.1.1.7,31,-0.090,-0.090,-0.090,0.000,0.000,0.000
1644351000783023104,2022-02-08-20:10:00,10.1.1.7,25,-0.100,-0.100,-0.100,0.000,0.000,0.000
1644351000882494976,2022-02-08-20:10:00,10.1.1.7,25,-0.090,-0.090,-0.090,0.000,0.000,0.000
1644351000982876160,2022-02-08-20:10:00,10.1.1.7,24,-0.080,-0.080,-0.080,0.000,0.000,0.000
1644351001083159040,2022-02-08-20:10:01,10.1.1.7,24,-0.070,-0.070,-0.070,0.000,0.000,0.000
1644351001182270976,2022-02-08-20:10:01,10.1.1.7,23,-0.060,-0.060,-0.060,0.000,0.000,0.000
1644351001282414848,2022-02-08-20:10:01,10.1.1.7,22,-0.050,-0.050,-0.050,0.000,0.000,0.000
1644351001383004928,2022-02-08-20:10:01,10.1.1.7,22,-0.040,-0.040,-0.040,0.000,0.000,0.000
1644351001482428160,2022-02-08-20:10:01,10.1.1.7,21,-0.030,-0.030,-0.030,0.000,0.000,0.000
1644351001581824000,2022-02-08-20:10:01,10.1.1.7,21,-0.020,-0.020,-0.020,0.000,0.000,0.000
1644351001682509056,2022-02-08-20:10:01,10.1.1.7,20,-0.010,-0.010,-0.010,0.000,0.000,0.000
1644351001783410944,2022-02-08-20:10:01,10.1.1.7,19,-0.000,-0.000,-0.000,0.000,0.000,0.000
1644351001882641920,2022-02-08-20:10:01,10.1.1.7,19,0.009,0.009,0.009,0.000,0.000,0.000
1644351002002248960,2022-02-08-20:10:02,10.1.1.7,38,0.020,0.020,0.020,0.000,0.000,0.000
1644351002103202048,2022-02-08-20:10:02,10.1.1.7,37,0.030,0.030,0.030,0.000,0.000,0.000
1644351002203206912,2022-02-08-20:10:02,10.1.1.7,36,0.040,0.040,0.040,0.000,0.000,0.000
1644351002303355904,2022-02-08-20:10:02,10.1.1.7,36,0.050,0.050,0.050,0.000,0.000,0.000
1644351002402617856,2022-02-08-20:10:02,10.1.1.7,35,0.060,0.060,0.060,0.000,0.000,0.000
1644351002508729856,2022-02-08-20:10:02,10.1.1.7,33,0.070,0.070,0.070,0.000,0.000,0.000
1644351002602704128,2022-02-08-20:10:02,10.1.1.7,30,0.080,0.080,0.080,0.000,0.000,0.000
1644351002703597056,2022-02-08-20:10:02,10.1.1.7,30,0.090,0.090,0.090,0.000,0.000,0.000
1644351002802452992,2022-02-08-20:10:02,10.1.1.7,28,0.100,0.100,0.100,0.000,0.000,0.000
1644351002902586880,2022-02-08-20:10:02,10.1.1.7,28,0.090,0.090,0.090,0.000,0.000,0.000
1644351003002501120,2022-02-08-20:10:03,10.1.1.7,27,0.080,0.080,0.080,0.000,0.000,0.000
1644351003102166016,2022-02-08-20:10:03,10.1.1.7,27,0.070,0.070,0.070,0.000,0.000,0.000
1644351003203318016,2022-02-08-20:10:03,10.1.1.7,26,0.060,0.060,0.060,0.000,0.000,0.000
1644351003302746112,2022-02-08-20:10:03,10.1.1.7,26,0.050,0.050,0.050,0.000,0.000,0.000
1644351003402702080,2022-02-08-20:10:03,10.1.1.7,25,0.040,0.040,0.040,0.000,0.000,0.000
1644351003502411008,2022-02-08-20:10:03,10.1.1.7,25,0.030,0.030,0.030,0.000,0.000,0.000
1644351003742365952,2022-02-08-20:10:03,10.1.1.7,36,0.010,0.010,0.010,0.000,0.000,0.000
1644351003843058176,2022-02-08-20:10:03,10.1.1.7,36,0.000,0.000,0.000,0.000,0.000,0.000
1644351003942341120,2022-02-08-20:10:03,10.1.1.7,35,-0.010,-0.010,-0.010,0.000,0.000,0.000
1644351004042287104,2022-02-08-20:10:04,10.1.1.7,35,-0.020,-0.020,-0.020,0.000,0.000,0.000
1644351004142697216,2022-02-08-20:10:04,10.1.1.7,35,-0.030,-0.030,-0.030,0.000,0.000,0.000
1644351004242065920,2022-02-08-20:10:04,10.1.1.7,34,-0.040,-0.040,-0.040,0.000,0.000,0.000
1644351004342447872,2022-02-08-20:10:04,10.1.1.7,33,-0.050,-0.050,-0.050,0.000,0.000,0.000
1644351004442270976,2022-02-08-20:10:04,10.1.1.7,32,-0.060,-0.060,-0.060,0.000,0.000,0.000
1644351004542568960,2022-02-08-20:10:04,10.1.1.7,32,-0.070,-0.070,-0.070,0.000,0.000,0.000
1644351004642765056,2022-02-08-20:10:04,10.1.1.7,32,-0.080,-0.080,-0.080,0.000,0.000,0.000
1644351004743079936,2022-02-08-20:10:04,10.1.1.7,31,-0.090,-0.090,-0.090,0.000,0.000,0.000
1644351004843202048,2022-02-08-20:10:04,10.1.1.7,31,-0.100,-0.100,-0.100,0.000,0.000,0.000
1644351004942900992,2022-02-08-20:10:04,10.1.1.7,30,-0.090,-0.090,-0.090,0.000,0.000,0.000
1644351005042534144,2022-02-08-20:10:05,10.1.1.7,30,-0.080,-0.080,-0.080,0.000,0.000,0.000
1644351005141936896,2022-02-08-20:10:05,10.1.1.7,29,-0.070,-0.070,-0.070,0.000,0.000,0.000
1644351005244046080,2022-02-08-20:10:05,10.1.1.7,28,-0.060,-0.060,-0.060,0.000,0.000,0.000
1644351005342331904,2022-02-08-20:10:05,10.1.1.7,27,-0.050,-0.050,-0.050,0.000,0.000,0.000
1644351005441917952,2022-02-08-20:10:05,10.1.1.7,26,-0.040,-0.040,-0.040,0.000,0.000,0.000
1644351005543296000,2022-02-08-20:10:05,10.1.1.7,25,-0.030,-0.030,-0.030,0.000,0.000,0.000
1644351005642545920,2022-02-08-20:10:05,10.1.1.7,25,-0.020,-0.020,-0.020,0.000,0.000,0.000
1644351005742022144,2022-02-08-20:10:05,10.1.1.7,24,-0.010,-0.010,-0.010,0.000,0.000,0.000
1644351005842370048,2022-02-08-20:10:05,10.1.1.7,24,0.000,0.000,0.000,0.000,0.000,0.000
1644351005942753024,2022-02-08-20:10:05,10.1.1.7,23,0.010,0.010,0.010,0.000,0.000,0.000
1644351006042839040,2022-02-08-20:10:06,10.1.1.7,23,0.020,0.020,0.020,0.000,0.000,0.000
1644351006142669056,2022-02-08-20:10:06,10.1.1.7,22,0.030,0.030,0.030,0.000,0.000,0.000
1644351006242310144,2022-02-08-20:10:06,10.1.1.7,22,0.040,0.040,0.040,0.000,0.000,0.000
1644351006342614784,2022-02-08-20:10:06,10.1.1.7,21,0.050,0.050,0.050,0.000,0.000,0.000
1644351006442415872,2022-02-08-20:10:06,10.1.1.7,20,0.060,0.060,0.060,0.000,0.000,0.000
1644351006543878144,2022-02-08-20:10:06,10.1.1.7,20,0.070,0.070,0.070,0.000,0.000,0.000
1644351006643517952,2022-02-08-20:10:06,10.1.1.7,20,0.080,0.080,0.080,0.000,0.000,0.000
1644351006743566080,2022-02-08-20:10:06,10.1.1.7,19,0.089,0.089,0.089,0.000,0.000,0.000
1644351006862274048,2022-02-08-20:10:06,10.1.1.7,38,0.100,0.100,0.100,0.000,0.000,0.000
1644351006962720000,2022-02-08-20:10:06,10.1.1.7,38,0.090,0.090,0.090,0.000,0.000,0.000
1644351007064898048,2022-02-08-20:10:07,10.1.1.7,37,0.080,0.080,0.080,0.000,0.000,0.000
1644351007162516992,2022-02-08-20:10:07,10.1.1.7,36,0.070,0.070,0.070,0.000,0.000,0.000
1644351007261756928,2022-02-08-20:10:07,10.1.1.7,36,0.060,0.060,0.060,0.000,0.000,0.000
1644351007361908992,2022-02-08-20:10:07,10.1.1.7,35,0.050,0.050,0.050,0.000,0.000,0.000
1644351007463170048,2022-02-08-20:10:07,10.1.1.7,35,0.040,0.040,0.040,0.000,0.000,0.000
1644351007561531904,2022-02-08-20:10:07,10.1.1.7,34,0.030,0.030,0.030,0.000,0.000,0.000
