FedericoMungari/DigitalTwin_service/01_WiredScenario/Output/Output_script/script_rosapi_2_output_robots10_freq0_2.txt
timestamp,date,node,latency,joint_1,joint_2,joint_3,joint_4,joint_5,joint_6
1641220947616340992,2022-01-03-14:42:27,10.1.1.3,190,-0.010,-0.010,-0.010,0.000,0.000,0.000
1641220947812956928,2022-01-03-14:42:27,10.1.1.3,186,-0.020,-0.020,-0.020,0.000,0.000,0.000
1641220948012464896,2022-01-03-14:42:28,10.1.1.3,185,-0.030,-0.030,-0.030,0.000,0.000,0.000
1641220948213452032,2022-01-03-14:42:28,10.1.1.3,184,-0.040,-0.040,-0.040,0.000,0.000,0.000
1641220948412169984,2022-01-03-14:42:28,10.1.1.3,181,-0.050,-0.050,-0.050,0.000,0.000,0.000
1641220948612409088,2022-01-03-14:42:28,10.1.1.3,180,-0.060,-0.060,-0.060,0.000,0.000,0.000
1641220948812716032,2022-01-03-14:42:28,10.1.1.3,179,-0.070,-0.070,-0.070,0.000,0.000,0.000
1641220949011270144,2022-01-03-14:42:29,10.1.1.3,177,-0.080,-0.080,-0.080,0.000,0.000,0.000
1641220949210866944,2022-01-03-14:42:29,10.1.1.3,176,-0.090,-0.090,-0.090,0.000,0.000,0.000
1641220949411201024,2022-01-03-14:42:29,10.1.1.3,176,-0.100,-0.100,-0.100,0.000,0.000,0.000
1641220949610060032,2022-01-03-14:42:29,10.1.1.3,174,-0.110,-0.110,-0.110,0.000,0.000,0.000
1641220949810450176,2022-01-03-14:42:29,10.1.1.3,173,-0.120,-0.120,-0.120,0.000,0.000,0.000
1641220950009248000,2022-01-03-14:42:30,10.1.1.3,172,-0.130,-0.130,-0.130,0.000,0.000,0.000
1641220950209453056,2022-01-03-14:42:30,10.1.1.3,171,-0.140,-0.140,-0.140,0.000,0.000,0.000
1641220950430007040,2022-01-03-14:42:30,10.1.1.3,190,-0.150,-0.150,-0.150,0.000,0.000,0.000
1641220950629508864,2022-01-03-14:42:30,10.1.1.3,189,-0.160,-0.160,-0.160,0.000,0.000,0.000
1641220950828908800,2022-01-03-14:42:30,10.1.1.3,189,-0.170,-0.170,-0.170,0.000,0.000,0.000
1641220951028664064,2022-01-03-14:42:31,10.1.1.3,188,-0.180,-0.180,-0.180,0.000,0.000,0.000
1641220951228313856,2022-01-03-14:42:31,10.1.1.3,187,-0.190,-0.190,-0.190,0.000,0.000,0.000
1641220951428111104,2022-01-03-14:42:31,10.1.1.3,185,-0.200,-0.200,-0.200,0.000,0.000,0.000
1641220951627975936,2022-01-03-14:42:31,10.1.1.3,175,-0.210,-0.210,-0.210,0.000,0.000,0.000
1641220951946917120,2022-01-03-14:42:31,10.1.1.3,183,-0.220,-0.220,-0.220,0.000,0.000,0.000
1641220952146275072,2022-01-03-14:42:32,10.1.1.3,170,-0.230,-0.230,-0.230,0.000,0.000,0.000
1641220952345968128,2022-01-03-14:42:32,10.1.1.3,169,-0.240,-0.240,-0.240,0.000,0.000,0.000
1641220952545655040,2022-01-03-14:42:32,10.1.1.3,168,-0.250,-0.250,-0.250,0.000,0.000,0.000
1641220952745810944,2022-01-03-14:42:32,10.1.1.3,167,-0.260,-0.260,-0.260,0.000,0.000,0.000
1641220952966240768,2022-01-03-14:42:32,10.1.1.3,187,-0.270,-0.270,-0.270,0.000,0.000,0.000
1641220953166119936,2022-01-03-14:42:33,10.1.1.3,187,-0.280,-0.280,-0.280,0.000,0.000,0.000
1641220953366023168,2022-01-03-14:42:33,10.1.1.3,186,-0.290,-0.290,-0.290,0.000,0.000,0.000
1641220953564624128,2022-01-03-14:42:33,10.1.1.3,185,-0.300,-0.300,-0.300,0.000,0.000,0.000
1641220953764628992,2022-01-03-14:42:33,10.1.1.3,184,-0.310,-0.310,-0.310,0.000,0.000,0.000
1641220953964145920,2022-01-03-14:42:33,10.1.1.3,184,-0.320,-0.320,-0.320,0.000,0.000,0.000
1641220954164463872,2022-01-03-14:42:34,10.1.1.3,183,-0.330,-0.330,-0.330,0.000,0.000,0.000
1641220954363782912,2022-01-03-14:42:34,10.1.1.3,182,-0.340,-0.340,-0.340,0.000,0.000,0.000
1641220954563666176,2022-01-03-14:42:34,10.1.1.3,181,-0.350,-0.350,-0.350,0.000,0.000,0.000
1641220954763889152,2022-01-03-14:42:34,10.1.1.3,180,-0.360,-0.360,-0.360,0.000,0.000,0.000
1641220954963769856,2022-01-03-14:42:34,10.1.1.3,180,-0.370,-0.370,-0.370,0.000,0.000,0.000
1641220955162266112,2022-01-03-14:42:35,10.1.1.3,178,-0.380,-0.380,-0.380,0.000,0.000,0.000
1641220955362496000,2022-01-03-14:42:35,10.1.1.3,177,-0.390,-0.390,-0.390,0.000,0.000,0.000
1641220955562764800,2022-01-03-14:42:35,10.1.1.3,177,-0.400,-0.400,-0.400,0.000,0.000,0.000
1641220955762990848,2022-01-03-14:42:35,10.1.1.3,176,-0.410,-0.410,-0.410,0.000,0.000,0.000
1641220955961210880,2022-01-03-14:42:35,10.1.1.3,174,-0.420,-0.420,-0.420,0.000,0.000,0.000
1641220956160919808,2022-01-03-14:42:36,10.1.1.3,173,-0.430,-0.430,-0.430,0.000,0.000,0.000
1641220956361135104,2022-01-03-14:42:36,10.1.1.3,172,-0.440,-0.440,-0.440,0.000,0.000,0.000
1641220956561073152,2022-01-03-14:42:36,10.1.1.3,172,-0.450,-0.450,-0.450,0.000,0.000,0.000
1641220956760727040,2022-01-03-14:42:36,10.1.1.3,171,-0.460,-0.460,-0.460,0.000,0.000,0.000
1641220956960844032,2022-01-03-14:42:36,10.1.1.3,170,-0.470,-0.470,-0.470,0.000,0.000,0.000
1641220957159789056,2022-01-03-14:42:37,10.1.1.3,168,-0.480,-0.480,-0.480,0.000,0.000,0.000
1641220957359854848,2022-01-03-14:42:37,10.1.1.3,168,-0.490,-0.490,-0.490,0.000,0.000,0.000
1641220957560530944,2022-01-03-14:42:37,10.1.1.3,168,-0.480,-0.480,-0.480,0.000,0.000,0.000
1641220957759062016,2022-01-03-14:42:37,10.1.1.3,166,-0.470,-0.470,-0.470,0.000,0.000,0.000
1641220957958429184,2022-01-03-14:42:37,10.1.1.3,165,-0.460,-0.460,-0.460,0.000,0.000,0.000
1641220958158593024,2022-01-03-14:42:38,10.1.1.3,164,-0.450,-0.450,-0.450,0.000,0.000,0.000
1641220958358278912,2022-01-03-14:42:38,10.1.1.3,163,-0.440,-0.440,-0.440,0.000,0.000,0.000
1641220958557593088,2022-01-03-14:42:38,10.1.1.3,162,-0.430,-0.430,-0.430,0.000,0.000,0.000
1641220958757263872,2022-01-03-14:42:38,10.1.1.3,161,-0.420,-0.420,-0.420,0.000,0.000,0.000
1641220958957763072,2022-01-03-14:42:38,10.1.1.3,161,-0.410,-0.410,-0.410,0.000,0.000,0.000
1641220959157635072,2022-01-03-14:42:39,10.1.1.3,160,-0.400,-0.400,-0.400,0.000,0.000,0.000
1641220959356034048,2022-01-03-14:42:39,10.1.1.3,158,-0.390,-0.390,-0.390,0.000,0.000,0.000
1641220959577101056,2022-01-03-14:42:39,10.1.1.3,179,-0.380,-0.380,-0.380,0.000,0.000,0.000
1641220959776947968,2022-01-03-14:42:39,10.1.1.3,178,-0.370,-0.370,-0.370,0.000,0.000,0.000
1641220959977442048,2022-01-03-14:42:39,10.1.1.3,177,-0.360,-0.360,-0.360,0.000,0.000,0.000
1641220960175313920,2022-01-03-14:42:40,10.1.1.3,175,-0.350,-0.350,-0.350,0.000,0.000,0.000
1641220960375107072,2022-01-03-14:42:40,10.1.1.3,173,-0.340,-0.340,-0.340,0.000,0.000,0.000
1641220960574350080,2022-01-03-14:42:40,10.1.1.3,171,-0.330,-0.330,-0.330,0.000,0.000,0.000
1641220960774436864,2022-01-03-14:42:40,10.1.1.3,170,-0.320,-0.320,-0.320,0.000,0.000,0.000
1641220960975700992,2022-01-03-14:42:40,10.1.1.3,170,-0.310,-0.310,-0.310,0.000,0.000,0.000
1641220961176048896,2022-01-03-14:42:41,10.1.1.3,170,-0.300,-0.300,-0.300,0.000,0.000,0.000
1641220961393497088,2022-01-03-14:42:41,10.1.1.3,186,-0.290,-0.290,-0.290,0.000,0.000,0.000
1641220961576553216,2022-01-03-14:42:41,10.1.1.3,169,-0.280,-0.280,-0.280,0.000,0.000,0.000
1641220961777862144,2022-01-03-14:42:41,10.1.1.3,170,-0.270,-0.270,-0.270,0.000,0.000,0.000
1641220961978224896,2022-01-03-14:42:41,10.1.1.3,169,-0.260,-0.260,-0.260,0.000,0.000,0.000
1641220962185775104,2022-01-03-14:42:42,10.1.1.3,176,-0.250,-0.250,-0.250,0.000,0.000,0.000
1641220962381510144,2022-01-03-14:42:42,10.1.1.3,171,-0.240,-0.240,-0.240,0.000,0.000,0.000
1641220962581049856,2022-01-03-14:42:42,10.1.1.3,169,-0.230,-0.230,-0.230,0.000,0.000,0.000
1641220962782365184,2022-01-03-14:42:42,10.1.1.3,169,-0.220,-0.220,-0.220,0.000,0.000,0.000
1641220962982614016,2022-01-03-14:42:42,10.1.1.3,169,-0.210,-0.210,-0.210,0.000,0.000,0.000
1641220963186728960,2022-01-03-14:42:43,10.1.1.3,172,-0.200,-0.200,-0.200,0.000,0.000,0.000
1641220963384144128,2022-01-03-14:42:43,10.1.1.3,169,-0.190,-0.190,-0.190,0.000,0.000,0.000
1641220963584708864,2022-01-03-14:42:43,10.1.1.3,169,-0.180,-0.180,-0.180,0.000,0.000,0.000
1641220963785403904,2022-01-03-14:42:43,10.1.1.3,169,-0.170,-0.170,-0.170,0.000,0.000,0.000
1641220963987628032,2022-01-03-14:42:43,10.1.1.3,170,-0.160,-0.160,-0.160,0.000,0.000,0.000
1641220964207019008,2022-01-03-14:42:44,10.1.1.3,189,-0.150,-0.150,-0.150,0.000,0.000,0.000
1641220964409549824,2022-01-03-14:42:44,10.1.1.3,191,-0.140,-0.140,-0.140,0.000,0.000,0.000
1641220964607984128,2022-01-03-14:42:44,10.1.1.3,189,-0.130,-0.130,-0.130,0.000,0.000,0.000
1641220964816355840,2022-01-03-14:42:44,10.1.1.3,195,-0.120,-0.120,-0.120,0.000,0.000,0.000
1641220965010180096,2022-01-03-14:42:45,10.1.1.3,190,-0.110,-0.110,-0.110,0.000,0.000,0.000
1641220965212131072,2022-01-03-14:42:45,10.1.1.3,191,-0.100,-0.100,-0.100,0.000,0.000,0.000
1641220965410319104,2022-01-03-14:42:45,10.1.1.3,189,-0.090,-0.090,-0.090,0.000,0.000,0.000
1641220965610888960,2022-01-03-14:42:45,10.1.1.3,189,-0.080,-0.080,-0.080,0.000,0.000,0.000
1641220965812616192,2022-01-03-14:42:45,10.1.1.3,190,-0.070,-0.070,-0.070,0.000,0.000,0.000
1641220966011324928,2022-01-03-14:42:46,10.1.1.3,186,-0.060,-0.060,-0.060,0.000,0.000,0.000
1641220966212222208,2022-01-03-14:42:46,10.1.1.3,187,-0.050,-0.050,-0.050,0.000,0.000,0.000
1641220966412488960,2022-01-03-14:42:46,10.1.1.3,185,-0.040,-0.040,-0.040,0.000,0.000,0.000
1641220966613556992,2022-01-03-14:42:46,10.1.1.3,185,-0.030,-0.030,-0.030,0.000,0.000,0.000
1641220966813725952,2022-01-03-14:42:46,10.1.1.3,185,-0.020,-0.020,-0.020,0.000,0.000,0.000
1641220967014381824,2022-01-03-14:42:47,10.1.1.3,184,-0.010,-0.010,-0.010,0.000,0.000,0.000
1641220967213952000,2022-01-03-14:42:47,10.1.1.3,183,0.000,0.000,0.000,0.000,0.000,0.000
1641220967414215168,2022-01-03-14:42:47,10.1.1.3,182,-0.010,-0.010,-0.010,0.000,0.000,0.000
1641220967614245888,2022-01-03-14:42:47,10.1.1.3,182,-0.020,-0.020,-0.020,0.000,0.000,0.000
1641220967815767040,2022-01-03-14:42:47,10.1.1.3,183,-0.030,-0.030,-0.030,0.000,0.000,0.000
1641220968015422208,2022-01-03-14:42:48,10.1.1.3,182,-0.040,-0.040,-0.040,0.000,0.000,0.000
1641220968216893952,2022-01-03-14:42:48,10.1.1.3,182,-0.050,-0.050,-0.050,0.000,0.000,0.000
1641220968416253184,2022-01-03-14:42:48,10.1.1.3,181,-0.060,-0.060,-0.060,0.000,0.000,0.000
1641220968617856000,2022-01-03-14:42:48,10.1.1.3,182,-0.070,-0.070,-0.070,0.000,0.000,0.000
1641220968816541952,2022-01-03-14:42:48,10.1.1.3,180,-0.080,-0.080,-0.080,0.000,0.000,0.000
1641220969016205056,2022-01-03-14:42:49,10.1.1.3,179,-0.090,-0.090,-0.090,0.000,0.000,0.000
1641220969216677888,2022-01-03-14:42:49,10.1.1.3,179,-0.100,-0.100,-0.100,0.000,0.000,0.000
1641220969436861952,2022-01-03-14:42:49,10.1.1.3,198,-0.110,-0.110,-0.110,0.000,0.000,0.000
1641220969637623040,2022-01-03-14:42:49,10.1.1.3,199,-0.120,-0.120,-0.120,0.000,0.000,0.000
1641220969838152960,2022-01-03-14:42:49,10.1.1.3,194,-0.130,-0.130,-0.130,0.000,0.000,0.000
1641220970036834048,2022-01-03-14:42:50,10.1.1.3,192,-0.140,-0.140,-0.140,0.000,0.000,0.000
1641220970237201920,2022-01-03-14:42:50,10.1.1.3,190,-0.150,-0.150,-0.150,0.000,0.000,0.000
1641220970437208832,2022-01-03-14:42:50,10.1.1.3,189,-0.160,-0.160,-0.160,0.000,0.000,0.000
1641220970637284096,2022-01-03-14:42:50,10.1.1.3,189,-0.170,-0.170,-0.170,0.000,0.000,0.000
1641220970837338880,2022-01-03-14:42:50,10.1.1.3,188,-0.180,-0.180,-0.180,0.000,0.000,0.000
1641220971037873152,2022-01-03-14:42:51,10.1.1.3,188,-0.190,-0.190,-0.190,0.000,0.000,0.000
1641220971237943808,2022-01-03-14:42:51,10.1.1.3,186,-0.200,-0.200,-0.200,0.000,0.000,0.000
1641220971442672128,2022-01-03-14:42:51,10.1.1.3,191,-0.210,-0.210,-0.210,0.000,0.000,0.000
1641220971638021888,2022-01-03-14:42:51,10.1.1.3,186,-0.220,-0.220,-0.220,0.000,0.000,0.000
1641220971837932032,2022-01-03-14:42:51,10.1.1.3,185,-0.230,-0.230,-0.230,0.000,0.000,0.000
1641220972039397888,2022-01-03-14:42:52,10.1.1.3,181,-0.240,-0.240,-0.240,0.000,0.000,0.000
1641220972258446080,2022-01-03-14:42:52,10.1.1.3,199,-0.250,-0.250,-0.250,0.000,0.000,0.000
1641220972658030080,2022-01-03-14:42:52,10.1.1.3,195,-0.270,-0.270,-0.270,0.000,0.000,0.000
1641220972859236096,2022-01-03-14:42:52,10.1.1.3,194,-0.280,-0.280,-0.280,0.000,0.000,0.000
1641220973057446912,2022-01-03-14:42:53,10.1.1.3,191,-0.290,-0.290,-0.290,0.000,0.000,0.000
1641220973258054912,2022-01-03-14:42:53,10.1.1.3,190,-0.300,-0.300,-0.300,0.000,0.000,0.000
1641220973458308096,2022-01-03-14:42:53,10.1.1.3,190,-0.310,-0.310,-0.310,0.000,0.000,0.000
1641220973657221120,2022-01-03-14:42:53,10.1.1.3,188,-0.320,-0.320,-0.320,0.000,0.000,0.000
1641220973858520064,2022-01-03-14:42:53,10.1.1.3,189,-0.330,-0.330,-0.330,0.000,0.000,0.000
1641220974058270976,2022-01-03-14:42:54,10.1.1.3,188,-0.340,-0.340,-0.340,0.000,0.000,0.000
1641220974259478016,2022-01-03-14:42:54,10.1.1.3,188,-0.350,-0.350,-0.350,0.000,0.000,0.000
1641220974458520832,2022-01-03-14:42:54,10.1.1.3,187,-0.360,-0.360,-0.360,0.000,0.000,0.000
1641220974660044800,2022-01-03-14:42:54,10.1.1.3,188,-0.370,-0.370,-0.370,0.000,0.000,0.000
1641220974880378112,2022-01-03-14:42:54,10.1.1.3,197,-0.380,-0.380,-0.380,0.000,0.000,0.000
1641220975077227008,2022-01-03-14:42:55,10.1.1.3,192,-0.390,-0.390,-0.390,0.000,0.000,0.000
1641220975277488896,2022-01-03-14:42:55,10.1.1.3,191,-0.400,-0.400,-0.400,0.000,0.000,0.000
1641220975477315072,2022-01-03-14:42:55,10.1.1.3,188,-0.410,-0.410,-0.410,0.000,0.000,0.000
1641220975676261888,2022-01-03-14:42:55,10.1.1.3,187,-0.420,-0.420,-0.420,0.000,0.000,0.000
1641220975876409088,2022-01-03-14:42:55,10.1.1.3,186,-0.430,-0.430,-0.430,0.000,0.000,0.000
1641220976075767040,2022-01-03-14:42:56,10.1.1.3,185,-0.440,-0.440,-0.440,0.000,0.000,0.000
1641220976276145920,2022-01-03-14:42:56,10.1.1.3,184,-0.450,-0.450,-0.450,0.000,0.000,0.000
1641220976477153024,2022-01-03-14:42:56,10.1.1.3,184,-0.460,-0.460,-0.460,0.000,0.000,0.000
1641220976676248064,2022-01-03-14:42:56,10.1.1.3,183,-0.470,-0.470,-0.470,0.000,0.000,0.000
1641220976875412992,2022-01-03-14:42:56,10.1.1.3,181,-0.480,-0.480,-0.480,0.000,0.000,0.000
1641220977075501824,2022-01-03-14:42:57,10.1.1.3,180,-0.490,-0.490,-0.490,0.000,0.000,0.000
1641220977276126976,2022-01-03-14:42:57,10.1.1.3,179,-0.480,-0.480,-0.480,0.000,0.000,0.000
1641220977475749120,2022-01-03-14:42:57,10.1.1.3,178,-0.470,-0.470,-0.470,0.000,0.000,0.000
1641220977695293952,2022-01-03-14:42:57,10.1.1.3,194,-0.460,-0.460,-0.460,0.000,0.000,0.000
1641220977897957120,2022-01-03-14:42:57,10.1.1.3,196,-0.450,-0.450,-0.450,0.000,0.000,0.000
1641220978095787008,2022-01-03-14:42:58,10.1.1.3,193,-0.440,-0.440,-0.440,0.000,0.000,0.000
1641220978294118912,2022-01-03-14:42:58,10.1.1.3,188,-0.430,-0.430,-0.430,0.000,0.000,0.000
1641220978494134016,2022-01-03-14:42:58,10.1.1.3,188,-0.420,-0.420,-0.420,0.000,0.000,0.000
1641220978693669120,2022-01-03-14:42:58,10.1.1.3,187,-0.410,-0.410,-0.410,0.000,0.000,0.000
1641220978893605888,2022-01-03-14:42:58,10.1.1.3,186,-0.400,-0.400,-0.400,0.000,0.000,0.000
1641220979093693952,2022-01-03-14:42:59,10.1.1.3,185,-0.390,-0.390,-0.390,0.000,0.000,0.000
1641220979313859072,2022-01-03-14:42:59,10.1.1.3,189,-0.380,-0.380,-0.380,0.000,0.000,0.000
1641220979515958016,2022-01-03-14:42:59,10.1.1.3,189,-0.370,-0.370,-0.370,0.000,0.000,0.000
1641220979712930816,2022-01-03-14:42:59,10.1.1.3,184,-0.360,-0.360,-0.360,0.000,0.000,0.000
1641220979912555008,2022-01-03-14:42:59,10.1.1.3,183,-0.350,-0.350,-0.350,0.000,0.000,0.000
1641220980112508160,2022-01-03-14:43:00,10.1.1.3,183,-0.340,-0.340,-0.340,0.000,0.000,0.000
1641220980312269824,2022-01-03-14:43:00,10.1.1.3,182,-0.330,-0.330,-0.330,0.000,0.000,0.000
1641220980513776128,2022-01-03-14:43:00,10.1.1.3,183,-0.320,-0.320,-0.320,0.000,0.000,0.000
1641220980711937792,2022-01-03-14:43:00,10.1.1.3,180,-0.310,-0.310,-0.310,0.000,0.000,0.000
1641220980912105984,2022-01-03-14:43:00,10.1.1.3,180,-0.300,-0.300,-0.300,0.000,0.000,0.000
1641220981111553792,2022-01-03-14:43:01,10.1.1.3,178,-0.290,-0.290,-0.290,0.000,0.000,0.000
1641220981311453184,2022-01-03-14:43:01,10.1.1.3,174,-0.280,-0.280,-0.280,0.000,0.000,0.000
1641220981530711808,2022-01-03-14:43:01,10.1.1.3,192,-0.270,-0.270,-0.270,0.000,0.000,0.000
1641220981730503936,2022-01-03-14:43:01,10.1.1.3,191,-0.260,-0.260,-0.260,0.000,0.000,0.000
1641220981929684992,2022-01-03-14:43:01,10.1.1.3,189,-0.250,-0.250,-0.250,0.000,0.000,0.000
1641220982130321920,2022-01-03-14:43:02,10.1.1.3,188,-0.240,-0.240,-0.240,0.000,0.000,0.000
1641220982330328832,2022-01-03-14:43:02,10.1.1.3,187,-0.230,-0.230,-0.230,0.000,0.000,0.000
1641220982528534016,2022-01-03-14:43:02,10.1.1.3,185,-0.220,-0.220,-0.220,0.000,0.000,0.000
1641220982729719040,2022-01-03-14:43:02,10.1.1.3,185,-0.210,-0.210,-0.210,0.000,0.000,0.000
1641220982928636160,2022-01-03-14:43:02,10.1.1.3,183,-0.200,-0.200,-0.200,0.000,0.000,0.000
1641220983128283136,2022-01-03-14:43:03,10.1.1.3,182,-0.190,-0.190,-0.190,0.000,0.000,0.000
1641220983330990080,2022-01-03-14:43:03,10.1.1.3,183,-0.180,-0.180,-0.180,0.000,0.000,0.000
1641220983528059904,2022-01-03-14:43:03,10.1.1.3,174,-0.170,-0.170,-0.170,0.000,0.000,0.000
1641220983728401920,2022-01-03-14:43:03,10.1.1.3,171,-0.160,-0.160,-0.160,0.000,0.000,0.000
1641220983928178944,2022-01-03-14:43:03,10.1.1.3,170,-0.150,-0.150,-0.150,0.000,0.000,0.000
1641220984147521024,2022-01-03-14:43:04,10.1.1.3,188,-0.140,-0.140,-0.140,0.000,0.000,0.000
1641220984347130112,2022-01-03-14:43:04,10.1.1.3,187,-0.130,-0.130,-0.130,0.000,0.000,0.000
1641220984547777024,2022-01-03-14:43:04,10.1.1.3,187,-0.120,-0.120,-0.120,0.000,0.000,0.000
1641220984747036928,2022-01-03-14:43:04,10.1.1.3,186,-0.110,-0.110,-0.110,0.000,0.000,0.000
1641220984945885952,2022-01-03-14:43:04,10.1.1.3,184,-0.100,-0.100,-0.100,0.000,0.000,0.000
1641220985147835904,2022-01-03-14:43:05,10.1.1.3,186,-0.090,-0.090,-0.090,0.000,0.000,0.000
1641220985365464832,2022-01-03-14:43:05,10.1.1.3,186,-0.080,-0.080,-0.080,0.000,0.000,0.000
1641220985564980992,2022-01-03-14:43:05,10.1.1.3,184,-0.070,-0.070,-0.070,0.000,0.000,0.000
1641220985764259072,2022-01-03-14:43:05,10.1.1.3,183,-0.060,-0.060,-0.060,0.000,0.000,0.000
1641220985965722112,2022-01-03-14:43:05,10.1.1.3,184,-0.050,-0.050,-0.050,0.000,0.000,0.000
1641220986164160000,2022-01-03-14:43:06,10.1.1.3,182,-0.040,-0.040,-0.040,0.000,0.000,0.000
1641220986363794944,2022-01-03-14:43:06,10.1.1.3,181,-0.030,-0.030,-0.030,0.000,0.000,0.000
1641220986564451840,2022-01-03-14:43:06,10.1.1.3,181,-0.020,-0.020,-0.020,0.000,0.000,0.000
1641220986764014080,2022-01-03-14:43:06,10.1.1.3,180,-0.010,-0.010,-0.010,0.000,0.000,0.000
1641220986963696896,2022-01-03-14:43:06,10.1.1.3,179,0.000,0.000,0.000,0.000,0.000,0.000
1641220987163939072,2022-01-03-14:43:07,10.1.1.3,179,-0.010,-0.010,-0.010,0.000,0.000,0.000
1641220987364996864,2022-01-03-14:43:07,10.1.1.3,178,-0.020,-0.020,-0.020,0.000,0.000,0.000
1641220987562550016,2022-01-03-14:43:07,10.1.1.3,176,-0.030,-0.030,-0.030,0.000,0.000,0.000
1641220987761817088,2022-01-03-14:43:07,10.1.1.3,174,-0.040,-0.040,-0.040,0.000,0.000,0.000
1641220987962342144,2022-01-03-14:43:07,10.1.1.3,174,-0.050,-0.050,-0.050,0.000,0.000,0.000
1641220988162745856,2022-01-03-14:43:08,10.1.1.3,174,-0.060,-0.060,-0.060,0.000,0.000,0.000
1641220988361669120,2022-01-03-14:43:08,10.1.1.3,172,-0.070,-0.070,-0.070,0.000,0.000,0.000
1641220988562604800,2022-01-03-14:43:08,10.1.1.3,173,-0.080,-0.080,-0.080,0.000,0.000,0.000
1641220988761239040,2022-01-03-14:43:08,10.1.1.3,170,-0.090,-0.090,-0.090,0.000,0.000,0.000
1641220988961030912,2022-01-03-14:43:08,10.1.1.3,169,-0.100,-0.100,-0.100,0.000,0.000,0.000
1641220989161262080,2022-01-03-14:43:09,10.1.1.3,169,-0.110,-0.110,-0.110,0.000,0.000,0.000
1641220989363213056,2022-01-03-14:43:09,10.1.1.3,170,-0.120,-0.120,-0.120,0.000,0.000,0.000
1641220989560101888,2022-01-03-14:43:09,10.1.1.3,164,-0.130,-0.130,-0.130,0.000,0.000,0.000
1641220989759737088,2022-01-03-14:43:09,10.1.1.3,163,-0.140,-0.140,-0.140,0.000,0.000,0.000
1641220989960992000,2022-01-03-14:43:09,10.1.1.3,163,-0.150,-0.150,-0.150,0.000,0.000,0.000
1641220990159993856,2022-01-03-14:43:10,10.1.1.3,162,-0.160,-0.160,-0.160,0.000,0.000,0.000
1641220990378333184,2022-01-03-14:43:10,10.1.1.3,180,-0.170,-0.170,-0.170,0.000,0.000,0.000
1641220990587122944,2022-01-03-14:43:10,10.1.1.3,188,-0.180,-0.180,-0.180,0.000,0.000,0.000
1641220990780744192,2022-01-03-14:43:10,10.1.1.3,180,-0.190,-0.190,-0.190,0.000,0.000,0.000
1641220990981359872,2022-01-03-14:43:10,10.1.1.3,174,-0.200,-0.200,-0.200,0.000,0.000,0.000
1641220991178524928,2022-01-03-14:43:11,10.1.1.3,170,-0.210,-0.210,-0.210,0.000,0.000,0.000
1641220991377267968,2022-01-03-14:43:11,10.1.1.3,168,-0.220,-0.220,-0.220,0.000,0.000,0.000
1641220991591672832,2022-01-03-14:43:11,10.1.1.3,182,-0.230,-0.230,-0.230,0.000,0.000,0.000
1641220991776488192,2022-01-03-14:43:11,10.1.1.3,165,-0.240,-0.240,-0.240,0.000,0.000,0.000
1641220991976176896,2022-01-03-14:43:11,10.1.1.3,164,-0.250,-0.250,-0.250,0.000,0.000,0.000
1641220992180943104,2022-01-03-14:43:12,10.1.1.3,168,-0.260,-0.260,-0.260,0.000,0.000,0.000
1641220992375750144,2022-01-03-14:43:12,10.1.1.3,162,-0.270,-0.270,-0.270,0.000,0.000,0.000
1641220992582302208,2022-01-03-14:43:12,10.1.1.3,168,-0.280,-0.280,-0.280,0.000,0.000,0.000
1641220992776256000,2022-01-03-14:43:12,10.1.1.3,161,-0.290,-0.290,-0.290,0.000,0.000,0.000
1641220992976687872,2022-01-03-14:43:12,10.1.1.3,160,-0.300,-0.300,-0.300,0.000,0.000,0.000
1641220993175120128,2022-01-03-14:43:13,10.1.1.3,159,-0.310,-0.310,-0.310,0.000,0.000,0.000
1641220993376792064,2022-01-03-14:43:13,10.1.1.3,160,-0.320,-0.320,-0.320,0.000,0.000,0.000
1641220993597677056,2022-01-03-14:43:13,10.1.1.3,173,-0.330,-0.330,-0.330,0.000,0.000,0.000
1641220993802146048,2022-01-03-14:43:13,10.1.1.3,177,-0.340,-0.340,-0.340,0.000,0.000,0.000
1641220993999140864,2022-01-03-14:43:13,10.1.1.3,169,-0.350,-0.350,-0.350,0.000,0.000,0.000
1641220994211185920,2022-01-03-14:43:14,10.1.1.3,180,-0.360,-0.360,-0.360,0.000,0.000,0.000
1641220994401127168,2022-01-03-14:43:14,10.1.1.3,169,-0.370,-0.370,-0.370,0.000,0.000,0.000
1641220994601434880,2022-01-03-14:43:14,10.1.1.3,169,-0.380,-0.380,-0.380,0.000,0.000,0.000
1641220994802691072,2022-01-03-14:43:14,10.1.1.3,169,-0.390,-0.390,-0.390,0.000,0.000,0.000
1641220995002988032,2022-01-03-14:43:15,10.1.1.3,169,-0.400,-0.400,-0.400,0.000,0.000,0.000
1641220995203737088,2022-01-03-14:43:15,10.1.1.3,169,-0.410,-0.410,-0.410,0.000,0.000,0.000
1641220995405071104,2022-01-03-14:43:15,10.1.1.3,169,-0.420,-0.420,-0.420,0.000,0.000,0.000
1641220995605129984,2022-01-03-14:43:15,10.1.1.3,169,-0.430,-0.430,-0.430,0.000,0.000,0.000
1641220995806660864,2022-01-03-14:43:15,10.1.1.3,169,-0.440,-0.440,-0.440,0.000,0.000,0.000
1641220996031580928,2022-01-03-14:43:16,10.1.1.3,192,-0.450,-0.450,-0.450,0.000,0.000,0.000
1641220996227411968,2022-01-03-14:43:16,10.1.1.3,186,-0.460,-0.460,-0.460,0.000,0.000,0.000
1641220996428142080,2022-01-03-14:43:16,10.1.1.3,184,-0.470,-0.470,-0.470,0.000,0.000,0.000
1641220996629223168,2022-01-03-14:43:16,10.1.1.3,185,-0.480,-0.480,-0.480,0.000,0.000,0.000
1641220996830545920,2022-01-03-14:43:16,10.1.1.3,186,-0.490,-0.490,-0.490,0.000,0.000,0.000
1641220997031034112,2022-01-03-14:43:17,10.1.1.3,186,-0.480,-0.480,-0.480,0.000,0.000,0.000
1641220997230895872,2022-01-03-14:43:17,10.1.1.3,185,-0.470,-0.470,-0.470,0.000,0.000,0.000
1641220997431976192,2022-01-03-14:43:17,10.1.1.3,186,-0.460,-0.460,-0.460,0.000,0.000,0.000
1641220997636822016,2022-01-03-14:43:17,10.1.1.3,188,-0.450,-0.450,-0.450,0.000,0.000,0.000
1641220997831811840,2022-01-03-14:43:17,10.1.1.3,183,-0.440,-0.440,-0.440,0.000,0.000,0.000
1641220998033710848,2022-01-03-14:43:18,10.1.1.3,184,-0.430,-0.430,-0.430,0.000,0.000,0.000
1641220998233293056,2022-01-03-14:43:18,10.1.1.3,184,-0.420,-0.420,-0.420,0.000,0.000,0.000
1641220998433913856,2022-01-03-14:43:18,10.1.1.3,184,-0.410,-0.410,-0.410,0.000,0.000,0.000
1641220998634054912,2022-01-03-14:43:18,10.1.1.3,184,-0.400,-0.400,-0.400,0.000,0.000,0.000
1641220998836750080,2022-01-03-14:43:18,10.1.1.3,185,-0.390,-0.390,-0.390,0.000,0.000,0.000
1641220999035217920,2022-01-03-14:43:19,10.1.1.3,183,-0.380,-0.380,-0.380,0.000,0.000,0.000
1641220999234580992,2022-01-03-14:43:19,10.1.1.3,182,-0.370,-0.370,-0.370,0.000,0.000,0.000
1641220999435118080,2022-01-03-14:43:19,10.1.1.3,182,-0.360,-0.360,-0.360,0.000,0.000,0.000
1641220999635243008,2022-01-03-14:43:19,10.1.1.3,182,-0.350,-0.350,-0.350,0.000,0.000,0.000
1641220999835887872,2022-01-03-14:43:19,10.1.1.3,182,-0.340,-0.340,-0.340,0.000,0.000,0.000
1641221000039372032,2022-01-03-14:43:20,10.1.1.3,185,-0.330,-0.330,-0.330,0.000,0.000,0.000
1641221000236581120,2022-01-03-14:43:20,10.1.1.3,181,-0.320,-0.320,-0.320,0.000,0.000,0.000
1641221000436672000,2022-01-03-14:43:20,10.1.1.3,181,-0.310,-0.310,-0.310,0.000,0.000,0.000
1641221000637003776,2022-01-03-14:43:20,10.1.1.3,180,-0.300,-0.300,-0.300,0.000,0.000,0.000
1641221000837097984,2022-01-03-14:43:20,10.1.1.3,179,-0.290,-0.290,-0.290,0.000,0.000,0.000
1641221001037682176,2022-01-03-14:43:21,10.1.1.3,179,-0.280,-0.280,-0.280,0.000,0.000,0.000
1641221001237214976,2022-01-03-14:43:21,10.1.1.3,178,-0.270,-0.270,-0.270,0.000,0.000,0.000
1641221001458464000,2022-01-03-14:43:21,10.1.1.3,199,-0.260,-0.260,-0.260,0.000,0.000,0.000
1641221001658159104,2022-01-03-14:43:21,10.1.1.3,198,-0.250,-0.250,-0.250,0.000,0.000,0.000
1641221002061556224,2022-01-03-14:43:22,10.1.1.3,199,-0.230,-0.230,-0.230,0.000,0.000,0.000
1641221002259769088,2022-01-03-14:43:22,10.1.1.3,196,-0.220,-0.220,-0.220,0.000,0.000,0.000
1641221002461769984,2022-01-03-14:43:22,10.1.1.3,197,-0.210,-0.210,-0.210,0.000,0.000,0.000
1641221002659586816,2022-01-03-14:43:22,10.1.1.3,194,-0.200,-0.200,-0.200,0.000,0.000,0.000
1641221002859479808,2022-01-03-14:43:22,10.1.1.3,193,-0.190,-0.190,-0.190,0.000,0.000,0.000
1641221003058540032,2022-01-03-14:43:23,10.1.1.3,191,-0.180,-0.180,-0.180,0.000,0.000,0.000
1641221003265554944,2022-01-03-14:43:23,10.1.1.3,198,-0.170,-0.170,-0.170,0.000,0.000,0.000
1641221003458760960,2022-01-03-14:43:23,10.1.1.3,190,-0.160,-0.160,-0.160,0.000,0.000,0.000
1641221003659513856,2022-01-03-14:43:23,10.1.1.3,191,-0.150,-0.150,-0.150,0.000,0.000,0.000
1641221004059613952,2022-01-03-14:43:24,10.1.1.3,190,-0.130,-0.130,-0.130,0.000,0.000,0.000
1641221004259206144,2022-01-03-14:43:24,10.1.1.3,189,-0.120,-0.120,-0.120,0.000,0.000,0.000
1641221004460292096,2022-01-03-14:43:24,10.1.1.3,189,-0.110,-0.110,-0.110,0.000,0.000,0.000
1641221004658032896,2022-01-03-14:43:24,10.1.1.3,187,-0.100,-0.100,-0.100,0.000,0.000,0.000
1641221004859834880,2022-01-03-14:43:24,10.1.1.3,188,-0.090,-0.090,-0.090,0.000,0.000,0.000
1641221005058296832,2022-01-03-14:43:25,10.1.1.3,186,-0.080,-0.080,-0.080,0.000,0.000,0.000
1641221005259494144,2022-01-03-14:43:25,10.1.1.3,186,-0.070,-0.070,-0.070,0.000,0.000,0.000
1641221005459367936,2022-01-03-14:43:25,10.1.1.3,185,-0.060,-0.060,-0.060,0.000,0.000,0.000
1641221005658117888,2022-01-03-14:43:25,10.1.1.3,183,-0.050,-0.050,-0.050,0.000,0.000,0.000
1641221005859106048,2022-01-03-14:43:25,10.1.1.3,182,-0.040,-0.040,-0.040,0.000,0.000,0.000
1641221006058523904,2022-01-03-14:43:26,10.1.1.3,181,-0.030,-0.030,-0.030,0.000,0.000,0.000
1641221006278376192,2022-01-03-14:43:26,10.1.1.3,188,-0.020,-0.020,-0.020,0.000,0.000,0.000
1641221006478554880,2022-01-03-14:43:26,10.1.1.3,187,-0.010,-0.010,-0.010,0.000,0.000,0.000
1641221006678142976,2022-01-03-14:43:26,10.1.1.3,186,0.000,0.000,0.000,0.000,0.000,0.000
1641221006877827840,2022-01-03-14:43:26,10.1.1.3,185,-0.010,-0.010,-0.010,0.000,0.000,0.000
1641221007077817856,2022-01-03-14:43:27,10.1.1.3,185,-0.020,-0.020,-0.020,0.000,0.000,0.000
1641221007277524992,2022-01-03-14:43:27,10.1.1.3,184,-0.030,-0.030,-0.030,0.000,0.000,0.000
1641221007677792000,2022-01-03-14:43:27,10.1.1.3,183,-0.050,-0.050,-0.050,0.000,0.000,0.000
1641221007876888064,2022-01-03-14:43:27,10.1.1.3,181,-0.060,-0.060,-0.060,0.000,0.000,0.000
1641221008098071040,2022-01-03-14:43:28,10.1.1.3,197,-0.070,-0.070,-0.070,0.000,0.000,0.000
1641221008297033984,2022-01-03-14:43:28,10.1.1.3,195,-0.080,-0.080,-0.080,0.000,0.000,0.000
1641221008497971968,2022-01-03-14:43:28,10.1.1.3,196,-0.090,-0.090,-0.090,0.000,0.000,0.000
1641221008697619968,2022-01-03-14:43:28,10.1.1.3,195,-0.100,-0.100,-0.100,0.000,0.000,0.000
1641221008898364160,2022-01-03-14:43:28,10.1.1.3,195,-0.110,-0.110,-0.110,0.000,0.000,0.000
1641221009096857088,2022-01-03-14:43:29,10.1.1.3,193,-0.120,-0.120,-0.120,0.000,0.000,0.000
1641221009296116224,2022-01-03-14:43:29,10.1.1.3,192,-0.130,-0.130,-0.130,0.000,0.000,0.000
1641221009496067072,2022-01-03-14:43:29,10.1.1.3,190,-0.140,-0.140,-0.140,0.000,0.000,0.000
1641221009696592128,2022-01-03-14:43:29,10.1.1.3,191,-0.150,-0.150,-0.150,0.000,0.000,0.000
1641221009895791104,2022-01-03-14:43:29,10.1.1.3,189,-0.160,-0.160,-0.160,0.000,0.000,0.000
1641221010095388928,2022-01-03-14:43:30,10.1.1.3,188,-0.170,-0.170,-0.170,0.000,0.000,0.000
1641221010295418880,2022-01-03-14:43:30,10.1.1.3,187,-0.180,-0.180,-0.180,0.000,0.000,0.000
1641221010497788928,2022-01-03-14:43:30,10.1.1.3,188,-0.190,-0.190,-0.190,0.000,0.000,0.000
1641221010695728896,2022-01-03-14:43:30,10.1.1.3,187,-0.200,-0.200,-0.200,0.000,0.000,0.000
1641221010894580992,2022-01-03-14:43:30,10.1.1.3,185,-0.210,-0.210,-0.210,0.000,0.000,0.000
1641221011094064896,2022-01-03-14:43:31,10.1.1.3,184,-0.220,-0.220,-0.220,0.000,0.000,0.000
1641221011293500928,2022-01-03-14:43:31,10.1.1.3,183,-0.230,-0.230,-0.230,0.000,0.000,0.000
1641221011494044160,2022-01-03-14:43:31,10.1.1.3,182,-0.240,-0.240,-0.240,0.000,0.000,0.000
1641221011693363968,2022-01-03-14:43:31,10.1.1.3,181,-0.250,-0.250,-0.250,0.000,0.000,0.000
1641221011892954112,2022-01-03-14:43:31,10.1.1.3,180,-0.260,-0.260,-0.260,0.000,0.000,0.000
1641221012092475904,2022-01-03-14:43:32,10.1.1.3,179,-0.270,-0.270,-0.270,0.000,0.000,0.000
1641221012292957952,2022-01-03-14:43:32,10.1.1.3,179,-0.280,-0.280,-0.280,0.000,0.000,0.000
1641221012491979008,2022-01-03-14:43:32,10.1.1.3,177,-0.290,-0.290,-0.290,0.000,0.000,0.000
1641221012714006016,2022-01-03-14:43:32,10.1.1.3,196,-0.300,-0.300,-0.300,0.000,0.000,0.000
1641221012912599040,2022-01-03-14:43:32,10.1.1.3,193,-0.310,-0.310,-0.310,0.000,0.000,0.000
1641221013111862784,2022-01-03-14:43:33,10.1.1.3,191,-0.320,-0.320,-0.320,0.000,0.000,0.000
1641221013317071872,2022-01-03-14:43:33,10.1.1.3,196,-0.330,-0.330,-0.330,0.000,0.000,0.000
1641221013511959040,2022-01-03-14:43:33,10.1.1.3,190,-0.340,-0.340,-0.340,0.000,0.000,0.000
1641221013712567040,2022-01-03-14:43:33,10.1.1.3,190,-0.350,-0.350,-0.350,0.000,0.000,0.000
1641221013911484928,2022-01-03-14:43:33,10.1.1.3,189,-0.360,-0.360,-0.360,0.000,0.000,0.000
1641221014111119104,2022-01-03-14:43:34,10.1.1.3,188,-0.370,-0.370,-0.370,0.000,0.000,0.000
1641221014310450176,2022-01-03-14:43:34,10.1.1.3,187,-0.380,-0.380,-0.380,0.000,0.000,0.000
1641221014509947904,2022-01-03-14:43:34,10.1.1.3,186,-0.390,-0.390,-0.390,0.000,0.000,0.000
1641221014709938176,2022-01-03-14:43:34,10.1.1.3,185,-0.400,-0.400,-0.400,0.000,0.000,0.000
1641221014915644928,2022-01-03-14:43:34,10.1.1.3,190,-0.410,-0.410,-0.410,0.000,0.000,0.000
1641221015109366784,2022-01-03-14:43:35,10.1.1.3,182,-0.420,-0.420,-0.420,0.000,0.000,0.000
1641221015309032960,2022-01-03-14:43:35,10.1.1.3,182,-0.430,-0.430,-0.430,0.000,0.000,0.000
1641221015508809216,2022-01-03-14:43:35,10.1.1.3,181,-0.440,-0.440,-0.440,0.000,0.000,0.000
1641221015708523008,2022-01-03-14:43:35,10.1.1.3,180,-0.450,-0.450,-0.450,0.000,0.000,0.000
1641221015908685824,2022-01-03-14:43:35,10.1.1.3,179,-0.460,-0.460,-0.460,0.000,0.000,0.000
1641221016108198912,2022-01-03-14:43:36,10.1.1.3,176,-0.470,-0.470,-0.470,0.000,0.000,0.000
1641221016308805888,2022-01-03-14:43:36,10.1.1.3,175,-0.480,-0.480,-0.480,0.000,0.000,0.000
1641221016527463936,2022-01-03-14:43:36,10.1.1.3,187,-0.490,-0.490,-0.490,0.000,0.000,0.000
1641221016727576064,2022-01-03-14:43:36,10.1.1.3,186,-0.480,-0.480,-0.480,0.000,0.000,0.000
1641221016926497024,2022-01-03-14:43:36,10.1.1.3,185,-0.470,-0.470,-0.470,0.000,0.000,0.000
1641221017126902016,2022-01-03-14:43:37,10.1.1.3,185,-0.460,-0.460,-0.460,0.000,0.000,0.000
1641221017330498816,2022-01-03-14:43:37,10.1.1.3,188,-0.450,-0.450,-0.450,0.000,0.000,0.000
1641221017526374144,2022-01-03-14:43:37,10.1.1.3,182,-0.440,-0.440,-0.440,0.000,0.000,0.000
1641221017726291968,2022-01-03-14:43:37,10.1.1.3,181,-0.430,-0.430,-0.430,0.000,0.000,0.000
1641221018124931072,2022-01-03-14:43:38,10.1.1.3,174,-0.410,-0.410,-0.410,0.000,0.000,0.000
1641221018325531904,2022-01-03-14:43:38,10.1.1.3,172,-0.400,-0.400,-0.400,0.000,0.000,0.000
1641221018546061056,2022-01-03-14:43:38,10.1.1.3,191,-0.390,-0.390,-0.390,0.000,0.000,0.000
1641221018724838144,2022-01-03-14:43:38,10.1.1.3,169,-0.380,-0.380,-0.380,0.000,0.000,0.000
1641221018925856000,2022-01-03-14:43:38,10.1.1.3,170,-0.370,-0.370,-0.370,0.000,0.000,0.000
1641221019125545984,2022-01-03-14:43:39,10.1.1.3,169,-0.360,-0.360,-0.360,0.000,0.000,0.000
1641221019324491008,2022-01-03-14:43:39,10.1.1.3,167,-0.350,-0.350,-0.350,0.000,0.000,0.000
1641221019523098112,2022-01-03-14:43:39,10.1.1.3,165,-0.340,-0.340,-0.340,0.000,0.000,0.000
1641221019731955968,2022-01-03-14:43:39,10.1.1.3,169,-0.330,-0.330,-0.330,0.000,0.000,0.000
1641221019946300928,2022-01-03-14:43:39,10.1.1.3,187,-0.320,-0.320,-0.320,0.000,0.000,0.000
1641221020143936000,2022-01-03-14:43:40,10.1.1.3,184,-0.310,-0.310,-0.310,0.000,0.000,0.000
1641221020342940928,2022-01-03-14:43:40,10.1.1.3,180,-0.300,-0.300,-0.300,0.000,0.000,0.000
1641221020543185920,2022-01-03-14:43:40,10.1.1.3,180,-0.290,-0.290,-0.290,0.000,0.000,0.000
1641221020745477888,2022-01-03-14:43:40,10.1.1.3,182,-0.280,-0.280,-0.280,0.000,0.000,0.000
1641221020941734912,2022-01-03-14:43:40,10.1.1.3,178,-0.270,-0.270,-0.270,0.000,0.000,0.000
1641221021141534208,2022-01-03-14:43:41,10.1.1.3,176,-0.260,-0.260,-0.260,0.000,0.000,0.000
1641221021341201152,2022-01-03-14:43:41,10.1.1.3,174,-0.250,-0.250,-0.250,0.000,0.000,0.000
1641221021540371968,2022-01-03-14:43:41,10.1.1.3,173,-0.240,-0.240,-0.240,0.000,0.000,0.000
1641221021742412032,2022-01-03-14:43:41,10.1.1.3,174,-0.230,-0.230,-0.230,0.000,0.000,0.000
1641221021941243904,2022-01-03-14:43:41,10.1.1.3,172,-0.220,-0.220,-0.220,0.000,0.000,0.000
1641221022143397120,2022-01-03-14:43:42,10.1.1.3,169,-0.210,-0.210,-0.210,0.000,0.000,0.000
1641221022370472960,2022-01-03-14:43:42,10.1.1.3,186,-0.200,-0.200,-0.200,0.000,0.000,0.000
1641221022558990848,2022-01-03-14:43:42,10.1.1.3,180,-0.190,-0.190,-0.190,0.000,0.000,0.000
1641221022759272960,2022-01-03-14:43:42,10.1.1.3,177,-0.180,-0.180,-0.180,0.000,0.000,0.000
1641221022960195072,2022-01-03-14:43:42,10.1.1.3,177,-0.170,-0.170,-0.170,0.000,0.000,0.000
1641221023157762048,2022-01-03-14:43:43,10.1.1.3,172,-0.160,-0.160,-0.160,0.000,0.000,0.000
1641221023358361856,2022-01-03-14:43:43,10.1.1.3,171,-0.150,-0.150,-0.150,0.000,0.000,0.000
1641221023557153024,2022-01-03-14:43:43,10.1.1.3,169,-0.140,-0.140,-0.140,0.000,0.000,0.000
1641221023757026048,2022-01-03-14:43:43,10.1.1.3,167,-0.130,-0.130,-0.130,0.000,0.000,0.000
1641221023957555968,2022-01-03-14:43:43,10.1.1.3,166,-0.120,-0.120,-0.120,0.000,0.000,0.000
1641221024155476992,2022-01-03-14:43:44,10.1.1.3,163,-0.110,-0.110,-0.110,0.000,0.000,0.000
1641221024355144960,2022-01-03-14:43:44,10.1.1.3,161,-0.100,-0.100,-0.100,0.000,0.000,0.000
1641221024559643136,2022-01-03-14:43:44,10.1.1.3,164,-0.090,-0.090,-0.090,0.000,0.000,0.000
1641221024754889984,2022-01-03-14:43:44,10.1.1.3,159,-0.080,-0.080,-0.080,0.000,0.000,0.000
1641221024954932992,2022-01-03-14:43:44,10.1.1.3,158,-0.070,-0.070,-0.070,0.000,0.000,0.000
1641221025177056000,2022-01-03-14:43:45,10.1.1.3,179,-0.060,-0.060,-0.060,0.000,0.000,0.000
1641221025376964096,2022-01-03-14:43:45,10.1.1.3,178,-0.050,-0.050,-0.050,0.000,0.000,0.000
1641221025593210880,2022-01-03-14:43:45,10.1.1.3,193,-0.040,-0.040,-0.040,0.000,0.000,0.000
1641221025780066048,2022-01-03-14:43:45,10.1.1.3,170,-0.030,-0.030,-0.030,0.000,0.000,0.000
1641221025980581120,2022-01-03-14:43:45,10.1.1.3,170,-0.020,-0.020,-0.020,0.000,0.000,0.000
1641221026180985856,2022-01-03-14:43:46,10.1.1.3,169,-0.010,-0.010,-0.010,0.000,0.000,0.000
1641221026382008064,2022-01-03-14:43:46,10.1.1.3,170,0.000,0.000,0.000,0.000,0.000,0.000
1641221026582521856,2022-01-03-14:43:46,10.1.1.3,170,-0.010,-0.010,-0.010,0.000,0.000,0.000
1641221026782459904,2022-01-03-14:43:46,10.1.1.3,169,-0.020,-0.020,-0.020,0.000,0.000,0.000
1641221026983804928,2022-01-03-14:43:46,10.1.1.3,169,-0.030,-0.030,-0.030,0.000,0.000,0.000
1641221027184989952,2022-01-03-14:43:47,10.1.1.3,170,-0.040,-0.040,-0.040,0.000,0.000,0.000
1641221027386050048,2022-01-03-14:43:47,10.1.1.3,171,-0.050,-0.050,-0.050,0.000,0.000,0.000
1641221027586689024,2022-01-03-14:43:47,10.1.1.3,171,-0.060,-0.060,-0.060,0.000,0.000,0.000
1641221027793019904,2022-01-03-14:43:47,10.1.1.3,176,-0.070,-0.070,-0.070,0.000,0.000,0.000
1641221027987736832,2022-01-03-14:43:47,10.1.1.3,169,-0.080,-0.080,-0.080,0.000,0.000,0.000
1641221028208216064,2022-01-03-14:43:48,10.1.1.3,190,-0.090,-0.090,-0.090,0.000,0.000,0.000
1641221028412201984,2022-01-03-14:43:48,10.1.1.3,192,-0.100,-0.100,-0.100,0.000,0.000,0.000
1641221028609769984,2022-01-03-14:43:48,10.1.1.3,189,-0.110,-0.110,-0.110,0.000,0.000,0.000
1641221028810131968,2022-01-03-14:43:48,10.1.1.3,189,-0.120,-0.120,-0.120,0.000,0.000,0.000
1641221029010722048,2022-01-03-14:43:49,10.1.1.3,189,-0.130,-0.130,-0.130,0.000,0.000,0.000
1641221029211194112,2022-01-03-14:43:49,10.1.1.3,187,-0.140,-0.140,-0.140,0.000,0.000,0.000
1641221029412622848,2022-01-03-14:43:49,10.1.1.3,187,-0.150,-0.150,-0.150,0.000,0.000,0.000
1641221029612043008,2022-01-03-14:43:49,10.1.1.3,186,-0.160,-0.160,-0.160,0.000,0.000,0.000
1641221029812225024,2022-01-03-14:43:49,10.1.1.3,185,-0.170,-0.170,-0.170,0.000,0.000,0.000
1641221030012674048,2022-01-03-14:43:50,10.1.1.3,185,-0.180,-0.180,-0.180,0.000,0.000,0.000
1641221030213161984,2022-01-03-14:43:50,10.1.1.3,185,-0.190,-0.190,-0.190,0.000,0.000,0.000
1641221030414030080,2022-01-03-14:43:50,10.1.1.3,184,-0.200,-0.200,-0.200,0.000,0.000,0.000
1641221030614510080,2022-01-03-14:43:50,10.1.1.3,185,-0.210,-0.210,-0.210,0.000,0.000,0.000
1641221030814708992,2022-01-03-14:43:50,10.1.1.3,184,-0.220,-0.220,-0.220,0.000,0.000,0.000
1641221031220304128,2022-01-03-14:43:51,10.1.1.3,185,-0.240,-0.240,-0.240,0.000,0.000,0.000
1641221031416277760,2022-01-03-14:43:51,10.1.1.3,180,-0.250,-0.250,-0.250,0.000,0.000,0.000
1641221031615973120,2022-01-03-14:43:51,10.1.1.3,178,-0.260,-0.260,-0.260,0.000,0.000,0.000
1641221031837048064,2022-01-03-14:43:51,10.1.1.3,196,-0.270,-0.270,-0.270,0.000,0.000,0.000
1641221032037733120,2022-01-03-14:43:52,10.1.1.3,196,-0.280,-0.280,-0.280,0.000,0.000,0.000
1641221032240067072,2022-01-03-14:43:52,10.1.1.3,196,-0.290,-0.290,-0.290,0.000,0.000,0.000
1641221032440572928,2022-01-03-14:43:52,10.1.1.3,196,-0.300,-0.300,-0.300,0.000,0.000,0.000
1641221032638322944,2022-01-03-14:43:52,10.1.1.3,193,-0.310,-0.310,-0.310,0.000,0.000,0.000
1641221032839906048,2022-01-03-14:43:52,10.1.1.3,191,-0.320,-0.320,-0.320,0.000,0.000,0.000
1641221033039175936,2022-01-03-14:43:53,10.1.1.3,190,-0.330,-0.330,-0.330,0.000,0.000,0.000
1641221033238467840,2022-01-03-14:43:53,10.1.1.3,189,-0.340,-0.340,-0.340,0.000,0.000,0.000
1641221033441696768,2022-01-03-14:43:53,10.1.1.3,191,-0.350,-0.350,-0.350,0.000,0.000,0.000
1641221033638440960,2022-01-03-14:43:53,10.1.1.3,188,-0.360,-0.360,-0.360,0.000,0.000,0.000
1641221033843458048,2022-01-03-14:43:53,10.1.1.3,192,-0.370,-0.370,-0.370,0.000,0.000,0.000
1641221034039554048,2022-01-03-14:43:54,10.1.1.3,186,-0.380,-0.380,-0.380,0.000,0.000,0.000
1641221034244733952,2022-01-03-14:43:54,10.1.1.3,190,-0.390,-0.390,-0.390,0.000,0.000,0.000
1641221034438912000,2022-01-03-14:43:54,10.1.1.3,182,-0.400,-0.400,-0.400,0.000,0.000,0.000
1641221034639257856,2022-01-03-14:43:54,10.1.1.3,181,-0.410,-0.410,-0.410,0.000,0.000,0.000
1641221035059904000,2022-01-03-14:43:55,10.1.1.3,200,-0.430,-0.430,-0.430,0.000,0.000,0.000
1641221035258734848,2022-01-03-14:43:55,10.1.1.3,197,-0.440,-0.440,-0.440,0.000,0.000,0.000
1641221035459276800,2022-01-03-14:43:55,10.1.1.3,197,-0.450,-0.450,-0.450,0.000,0.000,0.000
1641221035659092992,2022-01-03-14:43:55,10.1.1.3,196,-0.460,-0.460,-0.460,0.000,0.000,0.000
1641221035858418944,2022-01-03-14:43:55,10.1.1.3,195,-0.470,-0.470,-0.470,0.000,0.000,0.000
1641221036058733824,2022-01-03-14:43:56,10.1.1.3,195,-0.480,-0.480,-0.480,0.000,0.000,0.000
1641221036259500032,2022-01-03-14:43:56,10.1.1.3,195,-0.490,-0.490,-0.490,0.000,0.000,0.000
1641221036462228992,2022-01-03-14:43:56,10.1.1.3,198,-0.480,-0.480,-0.480,0.000,0.000,0.000
1641221036658772992,2022-01-03-14:43:56,10.1.1.3,193,-0.470,-0.470,-0.470,0.000,0.000,0.000
1641221036858729984,2022-01-03-14:43:56,10.1.1.3,192,-0.460,-0.460,-0.460,0.000,0.000,0.000
1641221037059601920,2022-01-03-14:43:57,10.1.1.3,192,-0.450,-0.450,-0.450,0.000,0.000,0.000
1641221037259962112,2022-01-03-14:43:57,10.1.1.3,191,-0.440,-0.440,-0.440,0.000,0.000,0.000
1641221037459770880,2022-01-03-14:43:57,10.1.1.3,190,-0.430,-0.430,-0.430,0.000,0.000,0.000
1641221037658985984,2022-01-03-14:43:57,10.1.1.3,183,-0.420,-0.420,-0.420,0.000,0.000,0.000
1641221037858871040,2022-01-03-14:43:57,10.1.1.3,181,-0.410,-0.410,-0.410,0.000,0.000,0.000
1641221038059169024,2022-01-03-14:43:58,10.1.1.3,181,-0.400,-0.400,-0.400,0.000,0.000,0.000
1641221038279043072,2022-01-03-14:43:58,10.1.1.3,199,-0.390,-0.390,-0.390,0.000,0.000,0.000
1641221038479352064,2022-01-03-14:43:58,10.1.1.3,198,-0.380,-0.380,-0.380,0.000,0.000,0.000
1641221038678589952,2022-01-03-14:43:58,10.1.1.3,197,-0.370,-0.370,-0.370,0.000,0.000,0.000
1641221038878948864,2022-01-03-14:43:58,10.1.1.3,196,-0.360,-0.360,-0.360,0.000,0.000,0.000
1641221039078861056,2022-01-03-14:43:59,10.1.1.3,195,-0.350,-0.350,-0.350,0.000,0.000,0.000
1641221039281395968,2022-01-03-14:43:59,10.1.1.3,193,-0.340,-0.340,-0.340,0.000,0.000,0.000
1641221039478056960,2022-01-03-14:43:59,10.1.1.3,193,-0.330,-0.330,-0.330,0.000,0.000,0.000
1641221039681228032,2022-01-03-14:43:59,10.1.1.3,193,-0.320,-0.320,-0.320,0.000,0.000,0.000
1641221039878629888,2022-01-03-14:43:59,10.1.1.3,188,-0.310,-0.310,-0.310,0.000,0.000,0.000
1641221040078277120,2022-01-03-14:44:00,10.1.1.3,186,-0.300,-0.300,-0.300,0.000,0.000,0.000
1641221040277835008,2022-01-03-14:44:00,10.1.1.3,183,-0.290,-0.290,-0.290,0.000,0.000,0.000
1641221040478094080,2022-01-03-14:44:00,10.1.1.3,180,-0.280,-0.280,-0.280,0.000,0.000,0.000
1641221040696834048,2022-01-03-14:44:00,10.1.1.3,197,-0.270,-0.270,-0.270,0.000,0.000,0.000
1641221040897558016,2022-01-03-14:44:00,10.1.1.3,197,-0.260,-0.260,-0.260,0.000,0.000,0.000
1641221041105604864,2022-01-03-14:44:01,10.1.1.3,-1,-0.250,-0.250,-0.250,0.000,0.000,0.000
1641221041502088960,2022-01-03-14:44:01,10.1.1.3,195,-0.230,-0.230,-0.230,0.000,0.000,0.000
1641221041697009920,2022-01-03-14:44:01,10.1.1.3,188,-0.220,-0.220,-0.220,0.000,0.000,0.000
1641221041896837888,2022-01-03-14:44:01,10.1.1.3,187,-0.210,-0.210,-0.210,0.000,0.000,0.000
1641221042096797952,2022-01-03-14:44:02,10.1.1.3,182,-0.200,-0.200,-0.200,0.000,0.000,0.000
1641221042296024064,2022-01-03-14:44:02,10.1.1.3,182,-0.190,-0.190,-0.190,0.000,0.000,0.000
1641221042495851008,2022-01-03-14:44:02,10.1.1.3,179,-0.180,-0.180,-0.180,0.000,0.000,0.000
1641221042694906880,2022-01-03-14:44:02,10.1.1.3,177,-0.170,-0.170,-0.170,0.000,0.000,0.000
1641221042914887936,2022-01-03-14:44:02,10.1.1.3,195,-0.160,-0.160,-0.160,0.000,0.000,0.000
1641221043115934976,2022-01-03-14:44:03,10.1.1.3,196,-0.150,-0.150,-0.150,0.000,0.000,0.000
1641221043314053120,2022-01-03-14:44:03,10.1.1.3,190,-0.140,-0.140,-0.140,0.000,0.000,0.000
1641221043514190080,2022-01-03-14:44:03,10.1.1.3,188,-0.130,-0.130,-0.130,0.000,0.000,0.000
1641221043715102976,2022-01-03-14:44:03,10.1.1.3,187,-0.120,-0.120,-0.120,0.000,0.000,0.000
1641221043913912064,2022-01-03-14:44:03,10.1.1.3,185,-0.110,-0.110,-0.110,0.000,0.000,0.000
1641221044114660096,2022-01-03-14:44:04,10.1.1.3,184,-0.100,-0.100,-0.100,0.000,0.000,0.000
1641221044313405952,2022-01-03-14:44:04,10.1.1.3,182,-0.090,-0.090,-0.090,0.000,0.000,0.000
1641221044514450944,2022-01-03-14:44:04,10.1.1.3,183,-0.080,-0.080,-0.080,0.000,0.000,0.000
1641221044712642048,2022-01-03-14:44:04,10.1.1.3,179,-0.070,-0.070,-0.070,0.000,0.000,0.000
1641221044912393216,2022-01-03-14:44:04,10.1.1.3,178,-0.060,-0.060,-0.060,0.000,0.000,0.000
1641221045116410880,2022-01-03-14:44:05,10.1.1.3,181,-0.050,-0.050,-0.050,0.000,0.000,0.000
1641221045312398080,2022-01-03-14:44:05,10.1.1.3,175,-0.040,-0.040,-0.040,0.000,0.000,0.000
1641221045511699968,2022-01-03-14:44:05,10.1.1.3,174,-0.030,-0.030,-0.030,0.000,0.000,0.000
1641221045732148992,2022-01-03-14:44:05,10.1.1.3,192,-0.020,-0.020,-0.020,0.000,0.000,0.000
1641221045932797952,2022-01-03-14:44:05,10.1.1.3,187,-0.010,-0.010,-0.010,0.000,0.000,0.000
1641221046131205120,2022-01-03-14:44:06,10.1.1.3,184,0.000,0.000,0.000,0.000,0.000,0.000
1641221046331008000,2022-01-03-14:44:06,10.1.1.3,183,-0.010,-0.010,-0.010,0.000,0.000,0.000
1641221046531296000,2022-01-03-14:44:06,10.1.1.3,182,-0.020,-0.020,-0.020,0.000,0.000,0.000
1641221046729981952,2022-01-03-14:44:06,10.1.1.3,181,-0.030,-0.030,-0.030,0.000,0.000,0.000
1641221046931472128,2022-01-03-14:44:06,10.1.1.3,181,-0.040,-0.040,-0.040,0.000,0.000,0.000
1641221047130790912,2022-01-03-14:44:07,10.1.1.3,179,-0.050,-0.050,-0.050,0.000,0.000,0.000
1641221047333526016,2022-01-03-14:44:07,10.1.1.3,181,-0.060,-0.060,-0.060,0.000,0.000,0.000
1641221047530551808,2022-01-03-14:44:07,10.1.1.3,176,-0.070,-0.070,-0.070,0.000,0.000,0.000
1641221047729796864,2022-01-03-14:44:07,10.1.1.3,174,-0.080,-0.080,-0.080,0.000,0.000,0.000
1641221047935902208,2022-01-03-14:44:07,10.1.1.3,178,-0.090,-0.090,-0.090,0.000,0.000,0.000
1641221048147974912,2022-01-03-14:44:08,10.1.1.3,188,-0.100,-0.100,-0.100,0.000,0.000,0.000
1641221048348283904,2022-01-03-14:44:08,10.1.1.3,187,-0.110,-0.110,-0.110,0.000,0.000,0.000
1641221048548770048,2022-01-03-14:44:08,10.1.1.3,187,-0.120,-0.120,-0.120,0.000,0.000,0.000
1641221048748288000,2022-01-03-14:44:08,10.1.1.3,186,-0.130,-0.130,-0.130,0.000,0.000,0.000
1641221048947835904,2022-01-03-14:44:08,10.1.1.3,185,-0.140,-0.140,-0.140,0.000,0.000,0.000
1641221049148194048,2022-01-03-14:44:09,10.1.1.3,180,-0.150,-0.150,-0.150,0.000,0.000,0.000
1641221049347363072,2022-01-03-14:44:09,10.1.1.3,178,-0.160,-0.160,-0.160,0.000,0.000,0.000
1641221049548405760,2022-01-03-14:44:09,10.1.1.3,178,-0.170,-0.170,-0.170,0.000,0.000,0.000
1641221049746149120,2022-01-03-14:44:09,10.1.1.3,175,-0.180,-0.180,-0.180,0.000,0.000,0.000
1641221049945925888,2022-01-03-14:44:09,10.1.1.3,174,-0.190,-0.190,-0.190,0.000,0.000,0.000
1641221050146500096,2022-01-03-14:44:10,10.1.1.3,173,-0.200,-0.200,-0.200,0.000,0.000,0.000
1641221050346148864,2022-01-03-14:44:10,10.1.1.3,172,-0.210,-0.210,-0.210,0.000,0.000,0.000
1641221050545829120,2022-01-03-14:44:10,10.1.1.3,171,-0.220,-0.220,-0.220,0.000,0.000,0.000
1641221050744626944,2022-01-03-14:44:10,10.1.1.3,169,-0.230,-0.230,-0.230,0.000,0.000,0.000
1641221050963671040,2022-01-03-14:44:10,10.1.1.3,178,-0.240,-0.240,-0.240,0.000,0.000,0.000
1641221051164532992,2022-01-03-14:44:11,10.1.1.3,178,-0.250,-0.250,-0.250,0.000,0.000,0.000
1641221051364222976,2022-01-03-14:44:11,10.1.1.3,177,-0.260,-0.260,-0.260,0.000,0.000,0.000
1641221051563791872,2022-01-03-14:44:11,10.1.1.3,176,-0.270,-0.270,-0.270,0.000,0.000,0.000
1641221051769366016,2022-01-03-14:44:11,10.1.1.3,176,-0.280,-0.280,-0.280,0.000,0.000,0.000
1641221051963110912,2022-01-03-14:44:11,10.1.1.3,174,-0.290,-0.290,-0.290,0.000,0.000,0.000
1641221052162617856,2022-01-03-14:44:12,10.1.1.3,173,-0.300,-0.300,-0.300,0.000,0.000,0.000
1641221052367623168,2022-01-03-14:44:12,10.1.1.3,177,-0.310,-0.310,-0.310,0.000,0.000,0.000
1641221052561760000,2022-01-03-14:44:12,10.1.1.3,169,-0.320,-0.320,-0.320,0.000,0.000,0.000
1641221052764369920,2022-01-03-14:44:12,10.1.1.3,171,-0.330,-0.330,-0.330,0.000,0.000,0.000
1641221052965518080,2022-01-03-14:44:12,10.1.1.3,172,-0.340,-0.340,-0.340,0.000,0.000,0.000
1641221053161519104,2022-01-03-14:44:13,10.1.1.3,167,-0.350,-0.350,-0.350,0.000,0.000,0.000
1641221053361355008,2022-01-03-14:44:13,10.1.1.3,166,-0.360,-0.360,-0.360,0.000,0.000,0.000
1641221053560521984,2022-01-03-14:44:13,10.1.1.3,165,-0.370,-0.370,-0.370,0.000,0.000,0.000
1641221053759905024,2022-01-03-14:44:13,10.1.1.3,163,-0.380,-0.380,-0.380,0.000,0.000,0.000
1641221053965707008,2022-01-03-14:44:13,10.1.1.3,168,-0.390,-0.390,-0.390,0.000,0.000,0.000
1641221054179874816,2022-01-03-14:44:14,10.1.1.3,181,-0.400,-0.400,-0.400,0.000,0.000,0.000
1641221054379811072,2022-01-03-14:44:14,10.1.1.3,180,-0.410,-0.410,-0.410,0.000,0.000,0.000
1641221054592215040,2022-01-03-14:44:14,10.1.1.3,192,-0.420,-0.420,-0.420,0.000,0.000,0.000
1641221054778331136,2022-01-03-14:44:14,10.1.1.3,175,-0.430,-0.430,-0.430,0.000,0.000,0.000
1641221054978503936,2022-01-03-14:44:14,10.1.1.3,171,-0.440,-0.440,-0.440,0.000,0.000,0.000
1641221055178674944,2022-01-03-14:44:15,10.1.1.3,171,-0.450,-0.450,-0.450,0.000,0.000,0.000
1641221055380444928,2022-01-03-14:44:15,10.1.1.3,171,-0.460,-0.460,-0.460,0.000,0.000,0.000
1641221055577239040,2022-01-03-14:44:15,10.1.1.3,168,-0.470,-0.470,-0.470,0.000,0.000,0.000
1641221055778516992,2022-01-03-14:44:15,10.1.1.3,168,-0.480,-0.480,-0.480,0.000,0.000,0.000
1641221055976731904,2022-01-03-14:44:15,10.1.1.3,166,-0.490,-0.490,-0.490,0.000,0.000,0.000
1641221056178305024,2022-01-03-14:44:16,10.1.1.3,167,-0.480,-0.480,-0.480,0.000,0.000,0.000
1641221056376637952,2022-01-03-14:44:16,10.1.1.3,165,-0.470,-0.470,-0.470,0.000,0.000,0.000
1641221056576046848,2022-01-03-14:44:16,10.1.1.3,164,-0.460,-0.460,-0.460,0.000,0.000,0.000
1641221056779855872,2022-01-03-14:44:16,10.1.1.3,167,-0.450,-0.450,-0.450,0.000,0.000,0.000
1641221056975688960,2022-01-03-14:44:16,10.1.1.3,162,-0.440,-0.440,-0.440,0.000,0.000,0.000
1641221057192080128,2022-01-03-14:44:17,10.1.1.3,178,-0.430,-0.430,-0.430,0.000,0.000,0.000
1641221057378438912,2022-01-03-14:44:17,10.1.1.3,163,-0.420,-0.420,-0.420,0.000,0.000,0.000
1641221057578469120,2022-01-03-14:44:17,10.1.1.3,162,-0.410,-0.410,-0.410,0.000,0.000,0.000
1641221057781146112,2022-01-03-14:44:17,10.1.1.3,163,-0.400,-0.400,-0.400,0.000,0.000,0.000
1641221058000578048,2022-01-03-14:44:18,10.1.1.3,180,-0.390,-0.390,-0.390,0.000,0.000,0.000
1641221058201984000,2022-01-03-14:44:18,10.1.1.3,181,-0.380,-0.380,-0.380,0.000,0.000,0.000
1641221058403351040,2022-01-03-14:44:18,10.1.1.3,181,-0.370,-0.370,-0.370,0.000,0.000,0.000
1641221058603176960,2022-01-03-14:44:18,10.1.1.3,178,-0.360,-0.360,-0.360,0.000,0.000,0.000
1641221058804177152,2022-01-03-14:44:18,10.1.1.3,178,-0.350,-0.350,-0.350,0.000,0.000,0.000
1641221059009515008,2022-01-03-14:44:19,10.1.1.3,183,-0.340,-0.340,-0.340,0.000,0.000,0.000
1641221059205679872,2022-01-03-14:44:19,10.1.1.3,177,-0.330,-0.330,-0.330,0.000,0.000,0.000
1641221059407100928,2022-01-03-14:44:19,10.1.1.3,177,-0.320,-0.320,-0.320,0.000,0.000,0.000
1641221059607561216,2022-01-03-14:44:19,10.1.1.3,178,-0.310,-0.310,-0.310,0.000,0.000,0.000
1641221059809051904,2022-01-03-14:44:19,10.1.1.3,178,-0.300,-0.300,-0.300,0.000,0.000,0.000
1641221060008541952,2022-01-03-14:44:20,10.1.1.3,177,-0.290,-0.290,-0.290,0.000,0.000,0.000
1641221060208738048,2022-01-03-14:44:20,10.1.1.3,176,-0.280,-0.280,-0.280,0.000,0.000,0.000
1641221060409677056,2022-01-03-14:44:20,10.1.1.3,176,-0.270,-0.270,-0.270,0.000,0.000,0.000
1641221060609737984,2022-01-03-14:44:20,10.1.1.3,175,-0.260,-0.260,-0.260,0.000,0.000,0.000
1641221060810426880,2022-01-03-14:44:20,10.1.1.3,173,-0.250,-0.250,-0.250,0.000,0.000,0.000
1641221061043482112,2022-01-03-14:44:21,10.1.1.3,200,-0.240,-0.240,-0.240,0.000,0.000,0.000
1641221061232086784,2022-01-03-14:44:21,10.1.1.3,188,-0.230,-0.230,-0.230,0.000,0.000,0.000
1641221061432889088,2022-01-03-14:44:21,10.1.1.3,188,-0.220,-0.220,-0.220,0.000,0.000,0.000
1641221061632704000,2022-01-03-14:44:21,10.1.1.3,187,-0.210,-0.210,-0.210,0.000,0.000,0.000
1641221061835922944,2022-01-03-14:44:21,10.1.1.3,190,-0.200,-0.200,-0.200,0.000,0.000,0.000
1641221062038199808,2022-01-03-14:44:22,10.1.1.3,192,-0.190,-0.190,-0.190,0.000,0.000,0.000
1641221062233902848,2022-01-03-14:44:22,10.1.1.3,187,-0.180,-0.180,-0.180,0.000,0.000,0.000
1641221062439649024,2022-01-03-14:44:22,10.1.1.3,191,-0.170,-0.170,-0.170,0.000,0.000,0.000
1641221062638254848,2022-01-03-14:44:22,10.1.1.3,189,-0.160,-0.160,-0.160,0.000,0.000,0.000
1641221062836966144,2022-01-03-14:44:22,10.1.1.3,187,-0.150,-0.150,-0.150,0.000,0.000,0.000
1641221063036168960,2022-01-03-14:44:23,10.1.1.3,185,-0.140,-0.140,-0.140,0.000,0.000,0.000
1641221063242872064,2022-01-03-14:44:23,10.1.1.3,191,-0.130,-0.130,-0.130,0.000,0.000,0.000
1641221063437051904,2022-01-03-14:44:23,10.1.1.3,185,-0.120,-0.120,-0.120,0.000,0.000,0.000
1641221063637434112,2022-01-03-14:44:23,10.1.1.3,185,-0.110,-0.110,-0.110,0.000,0.000,0.000
1641221063838115840,2022-01-03-14:44:23,10.1.1.3,185,-0.100,-0.100,-0.100,0.000,0.000,0.000
1641221064037662976,2022-01-03-14:44:24,10.1.1.3,184,-0.090,-0.090,-0.090,0.000,0.000,0.000
1641221064239054080,2022-01-03-14:44:24,10.1.1.3,185,-0.080,-0.080,-0.080,0.000,0.000,0.000
1641221064442248192,2022-01-03-14:44:24,10.1.1.3,187,-0.070,-0.070,-0.070,0.000,0.000,0.000
1641221064638571008,2022-01-03-14:44:24,10.1.1.3,183,-0.060,-0.060,-0.060,0.000,0.000,0.000
1641221064842169088,2022-01-03-14:44:24,10.1.1.3,186,-0.050,-0.050,-0.050,0.000,0.000,0.000
1641221065039261184,2022-01-03-14:44:25,10.1.1.3,181,-0.040,-0.040,-0.040,0.000,0.000,0.000
1641221065459141120,2022-01-03-14:44:25,10.1.1.3,199,-0.020,-0.020,-0.020,0.000,0.000,0.000
1641221065660391936,2022-01-03-14:44:25,10.1.1.3,200,-0.010,-0.010,-0.010,0.000,0.000,0.000
1641221065861135104,2022-01-03-14:44:25,10.1.1.3,200,0.000,0.000,0.000,0.000,0.000,0.000
1641221066060297984,2022-01-03-14:44:26,10.1.1.3,193,-0.010,-0.010,-0.010,0.000,0.000,0.000
1641221066260600064,2022-01-03-14:44:26,10.1.1.3,192,-0.020,-0.020,-0.020,0.000,0.000,0.000
1641221066459611904,2022-01-03-14:44:26,10.1.1.3,191,-0.030,-0.030,-0.030,0.000,0.000,0.000
1641221066663054080,2022-01-03-14:44:26,10.1.1.3,194,-0.040,-0.040,-0.040,0.000,0.000,0.000
1641221066860327936,2022-01-03-14:44:26,10.1.1.3,191,-0.050,-0.050,-0.050,0.000,0.000,0.000
1641221067060143872,2022-01-03-14:44:27,10.1.1.3,190,-0.060,-0.060,-0.060,0.000,0.000,0.000
1641221067260364032,2022-01-03-14:44:27,10.1.1.3,189,-0.070,-0.070,-0.070,0.000,0.000,0.000
1641221067459898880,2022-01-03-14:44:27,10.1.1.3,188,-0.080,-0.080,-0.080,0.000,0.000,0.000
1641221067660752128,2022-01-03-14:44:27,10.1.1.3,188,-0.090,-0.090,-0.090,0.000,0.000,0.000
1641221067860687872,2022-01-03-14:44:27,10.1.1.3,186,-0.100,-0.100,-0.100,0.000,0.000,0.000
1641221068061904896,2022-01-03-14:44:28,10.1.1.3,185,-0.110,-0.110,-0.110,0.000,0.000,0.000
1641221068259720960,2022-01-03-14:44:28,10.1.1.3,184,-0.120,-0.120,-0.120,0.000,0.000,0.000
1641221068460220928,2022-01-03-14:44:28,10.1.1.3,182,-0.130,-0.130,-0.130,0.000,0.000,0.000
1641221068859437824,2022-01-03-14:44:28,10.1.1.3,180,-0.150,-0.150,-0.150,0.000,0.000,0.000
1641221069280622848,2022-01-03-14:44:29,10.1.1.3,199,-0.170,-0.170,-0.170,0.000,0.000,0.000
1641221069479380992,2022-01-03-14:44:29,10.1.1.3,198,-0.180,-0.180,-0.180,0.000,0.000,0.000
1641221069680280064,2022-01-03-14:44:29,10.1.1.3,198,-0.190,-0.190,-0.190,0.000,0.000,0.000
1641221070079399936,2022-01-03-14:44:30,10.1.1.3,195,-0.210,-0.210,-0.210,0.000,0.000,0.000
1641221070280957952,2022-01-03-14:44:30,10.1.1.3,196,-0.220,-0.220,-0.220,0.000,0.000,0.000
1641221070479958016,2022-01-03-14:44:30,10.1.1.3,194,-0.230,-0.230,-0.230,0.000,0.000,0.000
1641221070680244992,2022-01-03-14:44:30,10.1.1.3,193,-0.240,-0.240,-0.240,0.000,0.000,0.000
1641221070879631104,2022-01-03-14:44:30,10.1.1.3,192,-0.250,-0.250,-0.250,0.000,0.000,0.000
1641221071080406016,2022-01-03-14:44:31,10.1.1.3,192,-0.260,-0.260,-0.260,0.000,0.000,0.000
1641221071278775808,2022-01-03-14:44:31,10.1.1.3,190,-0.270,-0.270,-0.270,0.000,0.000,0.000
1641221071478984192,2022-01-03-14:44:31,10.1.1.3,189,-0.280,-0.280,-0.280,0.000,0.000,0.000
1641221071679069952,2022-01-03-14:44:31,10.1.1.3,189,-0.290,-0.290,-0.290,0.000,0.000,0.000
1641221071878487040,2022-01-03-14:44:31,10.1.1.3,188,-0.300,-0.300,-0.300,0.000,0.000,0.000
1641221072079629824,2022-01-03-14:44:32,10.1.1.3,188,-0.310,-0.310,-0.310,0.000,0.000,0.000
1641221072279335936,2022-01-03-14:44:32,10.1.1.3,187,-0.320,-0.320,-0.320,0.000,0.000,0.000
1641221072479252992,2022-01-03-14:44:32,10.1.1.3,187,-0.330,-0.330,-0.330,0.000,0.000,0.000
1641221072682446080,2022-01-03-14:44:32,10.1.1.3,189,-0.340,-0.340,-0.340,0.000,0.000,0.000
1641221072878891008,2022-01-03-14:44:32,10.1.1.3,185,-0.350,-0.350,-0.350,0.000,0.000,0.000
1641221073078366976,2022-01-03-14:44:33,10.1.1.3,184,-0.360,-0.360,-0.360,0.000,0.000,0.000
1641221073278593024,2022-01-03-14:44:33,10.1.1.3,184,-0.370,-0.370,-0.370,0.000,0.000,0.000
1641221073479145984,2022-01-03-14:44:33,10.1.1.3,184,-0.380,-0.380,-0.380,0.000,0.000,0.000
1641221073677282048,2022-01-03-14:44:33,10.1.1.3,182,-0.390,-0.390,-0.390,0.000,0.000,0.000
1641221073877172992,2022-01-03-14:44:33,10.1.1.3,181,-0.400,-0.400,-0.400,0.000,0.000,0.000
1641221074076803840,2022-01-03-14:44:34,10.1.1.3,180,-0.410,-0.410,-0.410,0.000,0.000,0.000
1641221074288162048,2022-01-03-14:44:34,10.1.1.3,190,-0.420,-0.420,-0.420,0.000,0.000,0.000
1641221074497196032,2022-01-03-14:44:34,10.1.1.3,198,-0.430,-0.430,-0.430,0.000,0.000,0.000
1641221074696669952,2022-01-03-14:44:34,10.1.1.3,197,-0.440,-0.440,-0.440,0.000,0.000,0.000
1641221074875653120,2022-01-03-14:44:34,10.1.1.3,176,-0.450,-0.450,-0.450,0.000,0.000,0.000
1641221075095483904,2022-01-03-14:44:35,10.1.1.3,195,-0.460,-0.460,-0.460,0.000,0.000,0.000
1641221075296957952,2022-01-03-14:44:35,10.1.1.3,196,-0.470,-0.470,-0.470,0.000,0.000,0.000
1641221075495138816,2022-01-03-14:44:35,10.1.1.3,193,-0.480,-0.480,-0.480,0.000,0.000,0.000
1641221075699843840,2022-01-03-14:44:35,10.1.1.3,197,-0.490,-0.490,-0.490,0.000,0.000,0.000
1641221075895474944,2022-01-03-14:44:35,10.1.1.3,189,-0.480,-0.480,-0.480,0.000,0.000,0.000
1641221076095240192,2022-01-03-14:44:36,10.1.1.3,188,-0.470,-0.470,-0.470,0.000,0.000,0.000
1641221076296128000,2022-01-03-14:44:36,10.1.1.3,188,-0.460,-0.460,-0.460,0.000,0.000,0.000
1641221076494245888,2022-01-03-14:44:36,10.1.1.3,186,-0.450,-0.450,-0.450,0.000,0.000,0.000
1641221076694405120,2022-01-03-14:44:36,10.1.1.3,186,-0.440,-0.440,-0.440,0.000,0.000,0.000
1641221076896246016,2022-01-03-14:44:36,10.1.1.3,187,-0.430,-0.430,-0.430,0.000,0.000,0.000
1641221077093139968,2022-01-03-14:44:37,10.1.1.3,183,-0.420,-0.420,-0.420,0.000,0.000,0.000
1641221077295526912,2022-01-03-14:44:37,10.1.1.3,182,-0.410,-0.410,-0.410,0.000,0.000,0.000
1641221077492973056,2022-01-03-14:44:37,10.1.1.3,182,-0.400,-0.400,-0.400,0.000,0.000,0.000
1641221077692903936,2022-01-03-14:44:37,10.1.1.3,181,-0.390,-0.390,-0.390,0.000,0.000,0.000
1641221077893035776,2022-01-03-14:44:37,10.1.1.3,180,-0.380,-0.380,-0.380,0.000,0.000,0.000
1641221078092667136,2022-01-03-14:44:38,10.1.1.3,179,-0.370,-0.370,-0.370,0.000,0.000,0.000
1641221078292980992,2022-01-03-14:44:38,10.1.1.3,179,-0.360,-0.360,-0.360,0.000,0.000,0.000
1641221078491878912,2022-01-03-14:44:38,10.1.1.3,178,-0.350,-0.350,-0.350,0.000,0.000,0.000
1641221078711205888,2022-01-03-14:44:38,10.1.1.3,193,-0.340,-0.340,-0.340,0.000,0.000,0.000
1641221078919424000,2022-01-03-14:44:38,10.1.1.3,200,-0.330,-0.330,-0.330,0.000,0.000,0.000
1641221079111048960,2022-01-03-14:44:39,10.1.1.3,185,-0.320,-0.320,-0.320,0.000,0.000,0.000
1641221079311568896,2022-01-03-14:44:39,10.1.1.3,184,-0.310,-0.310,-0.310,0.000,0.000,0.000
1641221079510204928,2022-01-03-14:44:39,10.1.1.3,182,-0.300,-0.300,-0.300,0.000,0.000,0.000
1641221079710361088,2022-01-03-14:44:39,10.1.1.3,181,-0.290,-0.290,-0.290,0.000,0.000,0.000
1641221079910332928,2022-01-03-14:44:39,10.1.1.3,180,-0.280,-0.280,-0.280,0.000,0.000,0.000
1641221080119354880,2022-01-03-14:44:40,10.1.1.3,188,-0.270,-0.270,-0.270,0.000,0.000,0.000
1641221080312175872,2022-01-03-14:44:40,10.1.1.3,181,-0.260,-0.260,-0.260,0.000,0.000,0.000
1641221080510576896,2022-01-03-14:44:40,10.1.1.3,178,-0.250,-0.250,-0.250,0.000,0.000,0.000
1641221080709556224,2022-01-03-14:44:40,10.1.1.3,177,-0.240,-0.240,-0.240,0.000,0.000,0.000
1641221080928896000,2022-01-03-14:44:40,10.1.1.3,189,-0.230,-0.230,-0.230,0.000,0.000,0.000
1641221081128539136,2022-01-03-14:44:41,10.1.1.3,188,-0.220,-0.220,-0.220,0.000,0.000,0.000
1641221081328423936,2022-01-03-14:44:41,10.1.1.3,187,-0.210,-0.210,-0.210,0.000,0.000,0.000
1641221081528140032,2022-01-03-14:44:41,10.1.1.3,187,-0.200,-0.200,-0.200,0.000,0.000,0.000
1641221081740143104,2022-01-03-14:44:41,10.1.1.3,198,-0.190,-0.190,-0.190,0.000,0.000,0.000
1641221081927120896,2022-01-03-14:44:41,10.1.1.3,184,-0.180,-0.180,-0.180,0.000,0.000,0.000
1641221082127134208,2022-01-03-14:44:42,10.1.1.3,184,-0.170,-0.170,-0.170,0.000,0.000,0.000
1641221082326475008,2022-01-03-14:44:42,10.1.1.3,181,-0.160,-0.160,-0.160,0.000,0.000,0.000
1641221082526191872,2022-01-03-14:44:42,10.1.1.3,180,-0.150,-0.150,-0.150,0.000,0.000,0.000
1641221082730460928,2022-01-03-14:44:42,10.1.1.3,180,-0.140,-0.140,-0.140,0.000,0.000,0.000
1641221082927458048,2022-01-03-14:44:42,10.1.1.3,180,-0.130,-0.130,-0.130,0.000,0.000,0.000
1641221083126252800,2022-01-03-14:44:43,10.1.1.3,178,-0.120,-0.120,-0.120,0.000,0.000,0.000
1641221083325792000,2022-01-03-14:44:43,10.1.1.3,176,-0.110,-0.110,-0.110,0.000,0.000,0.000
1641221083525479168,2022-01-03-14:44:43,10.1.1.3,175,-0.100,-0.100,-0.100,0.000,0.000,0.000
1641221083725719808,2022-01-03-14:44:43,10.1.1.3,175,-0.090,-0.090,-0.090,0.000,0.000,0.000
1641221083924712960,2022-01-03-14:44:43,10.1.1.3,173,-0.080,-0.080,-0.080,0.000,0.000,0.000
1641221084123712000,2022-01-03-14:44:44,10.1.1.3,171,-0.070,-0.070,-0.070,0.000,0.000,0.000
1641221084344017920,2022-01-03-14:44:44,10.1.1.3,191,-0.060,-0.060,-0.060,0.000,0.000,0.000
1641221084524605952,2022-01-03-14:44:44,10.1.1.3,171,-0.050,-0.050,-0.050,0.000,0.000,0.000
1641221084724646144,2022-01-03-14:44:44,10.1.1.3,170,-0.040,-0.040,-0.040,0.000,0.000,0.000
1641221084923770880,2022-01-03-14:44:44,10.1.1.3,169,-0.030,-0.030,-0.030,0.000,0.000,0.000
1641221085124192000,2022-01-03-14:44:45,10.1.1.3,169,-0.020,-0.020,-0.020,0.000,0.000,0.000
1641221085324947200,2022-01-03-14:44:45,10.1.1.3,168,-0.010,-0.010,-0.010,0.000,0.000,0.000
1641221085522160128,2022-01-03-14:44:45,10.1.1.3,165,-0.000,-0.000,-0.000,0.000,0.000,0.000
1641221085722651904,2022-01-03-14:44:45,10.1.1.3,165,-0.010,-0.010,-0.010,0.000,0.000,0.000
1641221085941626112,2022-01-03-14:44:45,10.1.1.3,182,-0.020,-0.020,-0.020,0.000,0.000,0.000
1641221086141992192,2022-01-03-14:44:46,10.1.1.3,181,-0.030,-0.030,-0.030,0.000,0.000,0.000
1641221086344399872,2022-01-03-14:44:46,10.1.1.3,181,-0.040,-0.040,-0.040,0.000,0.000,0.000
1641221086552662016,2022-01-03-14:44:46,10.1.1.3,188,-0.050,-0.050,-0.050,0.000,0.000,0.000
1641221086740540928,2022-01-03-14:44:46,10.1.1.3,170,-0.060,-0.060,-0.060,0.000,0.000,0.000
1641221086941030144,2022-01-03-14:44:46,10.1.1.3,168,-0.070,-0.070,-0.070,0.000,0.000,0.000
1641221087140507904,2022-01-03-14:44:47,10.1.1.3,168,-0.080,-0.080,-0.080,0.000,0.000,0.000
1641221087342291200,2022-01-03-14:44:47,10.1.1.3,169,-0.090,-0.090,-0.090,0.000,0.000,0.000
1641221087540155904,2022-01-03-14:44:47,10.1.1.3,167,-0.100,-0.100,-0.100,0.000,0.000,0.000
1641221087759387136,2022-01-03-14:44:47,10.1.1.3,166,-0.110,-0.110,-0.110,0.000,0.000,0.000
1641221087981092096,2022-01-03-14:44:47,10.1.1.3,165,-0.120,-0.120,-0.120,0.000,0.000,0.000
1641221088180110848,2022-01-03-14:44:48,10.1.1.3,164,-0.130,-0.130,-0.130,0.000,0.000,0.000
1641221088378560000,2022-01-03-14:44:48,10.1.1.3,161,-0.140,-0.140,-0.140,0.000,0.000,0.000
1641221088599929088,2022-01-03-14:44:48,10.1.1.3,182,-0.150,-0.150,-0.150,0.000,0.000,0.000
1641221088800173056,2022-01-03-14:44:48,10.1.1.3,172,-0.160,-0.160,-0.160,0.000,0.000,0.000
1641221088997319936,2022-01-03-14:44:48,10.1.1.3,169,-0.170,-0.170,-0.170,0.000,0.000,0.000
1641221089198164992,2022-01-03-14:44:49,10.1.1.3,168,-0.180,-0.180,-0.180,0.000,0.000,0.000
1641221089395942912,2022-01-03-14:44:49,10.1.1.3,162,-0.190,-0.190,-0.190,0.000,0.000,0.000
1641221089601102080,2022-01-03-14:44:49,10.1.1.3,166,-0.200,-0.200,-0.200,0.000,0.000,0.000
1641221089815900160,2022-01-03-14:44:49,10.1.1.3,177,-0.210,-0.210,-0.210,0.000,0.000,0.000
1641221090016030976,2022-01-03-14:44:50,10.1.1.3,176,-0.220,-0.220,-0.220,0.000,0.000,0.000
1641221090216072960,2022-01-03-14:44:50,10.1.1.3,175,-0.230,-0.230,-0.230,0.000,0.000,0.000
1641221090416312832,2022-01-03-14:44:50,10.1.1.3,173,-0.240,-0.240,-0.240,0.000,0.000,0.000
1641221090617381120,2022-01-03-14:44:50,10.1.1.3,173,-0.250,-0.250,-0.250,0.000,0.000,0.000
1641221090819884032,2022-01-03-14:44:50,10.1.1.3,175,-0.260,-0.260,-0.260,0.000,0.000,0.000
1641221091019131904,2022-01-03-14:44:51,10.1.1.3,164,-0.270,-0.270,-0.270,0.000,0.000,0.000
1641221091220606976,2022-01-03-14:44:51,10.1.1.3,164,-0.280,-0.280,-0.280,0.000,0.000,0.000
1641221091421641984,2022-01-03-14:44:51,10.1.1.3,163,-0.290,-0.290,-0.290,0.000,0.000,0.000
1641221091642159872,2022-01-03-14:44:51,10.1.1.3,183,-0.300,-0.300,-0.300,0.000,0.000,0.000
1641221091843102976,2022-01-03-14:44:51,10.1.1.3,183,-0.310,-0.310,-0.310,0.000,0.000,0.000
1641221092043904000,2022-01-03-14:44:52,10.1.1.3,183,-0.320,-0.320,-0.320,0.000,0.000,0.000
1641221092244507904,2022-01-03-14:44:52,10.1.1.3,183,-0.330,-0.330,-0.330,0.000,0.000,0.000
1641221092445363968,2022-01-03-14:44:52,10.1.1.3,183,-0.340,-0.340,-0.340,0.000,0.000,0.000
1641221092647272192,2022-01-03-14:44:52,10.1.1.3,183,-0.350,-0.350,-0.350,0.000,0.000,0.000
1641221092846961920,2022-01-03-14:44:52,10.1.1.3,183,-0.360,-0.360,-0.360,0.000,0.000,0.000
1641221093047802880,2022-01-03-14:44:53,10.1.1.3,183,-0.370,-0.370,-0.370,0.000,0.000,0.000
1641221093248964096,2022-01-03-14:44:53,10.1.1.3,183,-0.380,-0.380,-0.380,0.000,0.000,0.000
1641221093448558080,2022-01-03-14:44:53,10.1.1.3,182,-0.390,-0.390,-0.390,0.000,0.000,0.000
1641221093648848896,2022-01-03-14:44:53,10.1.1.3,181,-0.400,-0.400,-0.400,0.000,0.000,0.000
1641221093849896960,2022-01-03-14:44:53,10.1.1.3,181,-0.410,-0.410,-0.410,0.000,0.000,0.000
1641221094050720000,2022-01-03-14:44:54,10.1.1.3,181,-0.420,-0.420,-0.420,0.000,0.000,0.000
1641221094071279104,2022-01-03-14:44:54,10.1.1.3,-1,-0.420,-0.420,-0.420,0.000,0.000,0.000
1641221094450932992,2022-01-03-14:44:54,10.1.1.3,178,-0.440,-0.440,-0.440,0.000,0.000,0.000
1641221094652482048,2022-01-03-14:44:54,10.1.1.3,180,-0.450,-0.450,-0.450,0.000,0.000,0.000
1641221094853188096,2022-01-03-14:44:54,10.1.1.3,179,-0.460,-0.460,-0.460,0.000,0.000,0.000
1641221095054238208,2022-01-03-14:44:55,10.1.1.3,179,-0.470,-0.470,-0.470,0.000,0.000,0.000
1641221095256047104,2022-01-03-14:44:55,10.1.1.3,178,-0.480,-0.480,-0.480,0.000,0.000,0.000
1641221095453545216,2022-01-03-14:44:55,10.1.1.3,176,-0.490,-0.490,-0.490,0.000,0.000,0.000
1641221095654246144,2022-01-03-14:44:55,10.1.1.3,176,-0.480,-0.480,-0.480,0.000,0.000,0.000
1641221095877059840,2022-01-03-14:44:55,10.1.1.3,198,-0.470,-0.470,-0.470,0.000,0.000,0.000
1641221096075817984,2022-01-03-14:44:56,10.1.1.3,196,-0.460,-0.460,-0.460,0.000,0.000,0.000
1641221096276582912,2022-01-03-14:44:56,10.1.1.3,194,-0.450,-0.450,-0.450,0.000,0.000,0.000
1641221096476890112,2022-01-03-14:44:56,10.1.1.3,194,-0.440,-0.440,-0.440,0.000,0.000,0.000
1641221096675843840,2022-01-03-14:44:56,10.1.1.3,191,-0.430,-0.430,-0.430,0.000,0.000,0.000
1641221096877731072,2022-01-03-14:44:56,10.1.1.3,192,-0.420,-0.420,-0.420,0.000,0.000,0.000
1641221097077605888,2022-01-03-14:44:57,10.1.1.3,190,-0.410,-0.410,-0.410,0.000,0.000,0.000
1641221097276797184,2022-01-03-14:44:57,10.1.1.3,188,-0.400,-0.400,-0.400,0.000,0.000,0.000
1641221097482251776,2022-01-03-14:44:57,10.1.1.3,190,-0.390,-0.390,-0.390,0.000,0.000,0.000
1641221097677617152,2022-01-03-14:44:57,10.1.1.3,188,-0.380,-0.380,-0.380,0.000,0.000,0.000
1641221097877907968,2022-01-03-14:44:57,10.1.1.3,187,-0.370,-0.370,-0.370,0.000,0.000,0.000
1641221098077867008,2022-01-03-14:44:58,10.1.1.3,187,-0.360,-0.360,-0.360,0.000,0.000,0.000
1641221098278753024,2022-01-03-14:44:58,10.1.1.3,185,-0.350,-0.350,-0.350,0.000,0.000,0.000
1641221098478894080,2022-01-03-14:44:58,10.1.1.3,185,-0.340,-0.340,-0.340,0.000,0.000,0.000
1641221098678343936,2022-01-03-14:44:58,10.1.1.3,183,-0.330,-0.330,-0.330,0.000,0.000,0.000
1641221098878086144,2022-01-03-14:44:58,10.1.1.3,181,-0.320,-0.320,-0.320,0.000,0.000,0.000
1641221099098330112,2022-01-03-14:44:59,10.1.1.3,200,-0.310,-0.310,-0.310,0.000,0.000,0.000
1641221099299480832,2022-01-03-14:44:59,10.1.1.3,199,-0.300,-0.300,-0.300,0.000,0.000,0.000
1641221099499504128,2022-01-03-14:44:59,10.1.1.3,198,-0.290,-0.290,-0.290,0.000,0.000,0.000
1641221099699606784,2022-01-03-14:44:59,10.1.1.3,196,-0.280,-0.280,-0.280,0.000,0.000,0.000
1641221099900113152,2022-01-03-14:44:59,10.1.1.3,196,-0.270,-0.270,-0.270,0.000,0.000,0.000
1641221100103108864,2022-01-03-14:45:00,10.1.1.3,197,-0.260,-0.260,-0.260,0.000,0.000,0.000
1641221100299607040,2022-01-03-14:45:00,10.1.1.3,190,-0.250,-0.250,-0.250,0.000,0.000,0.000
1641221100499659008,2022-01-03-14:45:00,10.1.1.3,190,-0.240,-0.240,-0.240,0.000,0.000,0.000
1641221100702179072,2022-01-03-14:45:00,10.1.1.3,192,-0.230,-0.230,-0.230,0.000,0.000,0.000
1641221100900536064,2022-01-03-14:45:00,10.1.1.3,187,-0.220,-0.220,-0.220,0.000,0.000,0.000
1641221101100503040,2022-01-03-14:45:01,10.1.1.3,187,-0.210,-0.210,-0.210,0.000,0.000,0.000
1641221101299482112,2022-01-03-14:45:01,10.1.1.3,185,-0.200,-0.200,-0.200,0.000,0.000,0.000
1641221101498380800,2022-01-03-14:45:01,10.1.1.3,183,-0.190,-0.190,-0.190,0.000,0.000,0.000
1641221101707973120,2022-01-03-14:45:01,10.1.1.3,192,-0.180,-0.180,-0.180,0.000,0.000,0.000
1641221101918786048,2022-01-03-14:45:01,10.1.1.3,197,-0.170,-0.170,-0.170,0.000,0.000,0.000
1641221102118839040,2022-01-03-14:45:02,10.1.1.3,197,-0.160,-0.160,-0.160,0.000,0.000,0.000
1641221102320102912,2022-01-03-14:45:02,10.1.1.3,197,-0.150,-0.150,-0.150,0.000,0.000,0.000
1641221102518994176,2022-01-03-14:45:02,10.1.1.3,196,-0.140,-0.140,-0.140,0.000,0.000,0.000
1641221102718637056,2022-01-03-14:45:02,10.1.1.3,195,-0.130,-0.130,-0.130,0.000,0.000,0.000
1641221102917659904,2022-01-03-14:45:02,10.1.1.3,193,-0.120,-0.120,-0.120,0.000,0.000,0.000
1641221103119236864,2022-01-03-14:45:03,10.1.1.3,191,-0.110,-0.110,-0.110,0.000,0.000,0.000
1641221103317603072,2022-01-03-14:45:03,10.1.1.3,189,-0.100,-0.100,-0.100,0.000,0.000,0.000
1641221103520508160,2022-01-03-14:45:03,10.1.1.3,190,-0.090,-0.090,-0.090,0.000,0.000,0.000
1641221103721118976,2022-01-03-14:45:03,10.1.1.3,191,-0.080,-0.080,-0.080,0.000,0.000,0.000
1641221103918924032,2022-01-03-14:45:03,10.1.1.3,188,-0.070,-0.070,-0.070,0.000,0.000,0.000
1641221104120239872,2022-01-03-14:45:04,10.1.1.3,188,-0.060,-0.060,-0.060,0.000,0.000,0.000
1641221104318931200,2022-01-03-14:45:04,10.1.1.3,186,-0.050,-0.050,-0.050,0.000,0.000,0.000
1641221104517700864,2022-01-03-14:45:04,10.1.1.3,185,-0.040,-0.040,-0.040,0.000,0.000,0.000
1641221104719875072,2022-01-03-14:45:04,10.1.1.3,184,-0.030,-0.030,-0.030,0.000,0.000,0.000
1641221104928334848,2022-01-03-14:45:04,10.1.1.3,182,-0.020,-0.020,-0.020,0.000,0.000,0.000
1641221105117603072,2022-01-03-14:45:05,10.1.1.3,180,-0.010,-0.010,-0.010,0.000,0.000,0.000
1641221105317744128,2022-01-03-14:45:05,10.1.1.3,180,-0.000,-0.000,-0.000,0.000,0.000,0.000
1641221105518599936,2022-01-03-14:45:05,10.1.1.3,180,-0.010,-0.010,-0.010,0.000,0.000,0.000
1641221105739238912,2022-01-03-14:45:05,10.1.1.3,200,-0.020,-0.020,-0.020,0.000,0.000,0.000
1641221105936148992,2022-01-03-14:45:05,10.1.1.3,196,-0.030,-0.030,-0.030,0.000,0.000,0.000
1641221106135854848,2022-01-03-14:45:06,10.1.1.3,195,-0.040,-0.040,-0.040,0.000,0.000,0.000
1641221106335974912,2022-01-03-14:45:06,10.1.1.3,194,-0.050,-0.050,-0.050,0.000,0.000,0.000
1641221106535328000,2022-01-03-14:45:06,10.1.1.3,193,-0.060,-0.060,-0.060,0.000,0.000,0.000
1641221106735846912,2022-01-03-14:45:06,10.1.1.3,193,-0.070,-0.070,-0.070,0.000,0.000,0.000
1641221106935961088,2022-01-03-14:45:06,10.1.1.3,193,-0.080,-0.080,-0.080,0.000,0.000,0.000
1641221107137440000,2022-01-03-14:45:07,10.1.1.3,194,-0.090,-0.090,-0.090,0.000,0.000,0.000
1641221107335543040,2022-01-03-14:45:07,10.1.1.3,191,-0.100,-0.100,-0.100,0.000,0.000,0.000
1641221107534612992,2022-01-03-14:45:07,10.1.1.3,187,-0.110,-0.110,-0.110,0.000,0.000,0.000
1641221107736813056,2022-01-03-14:45:07,10.1.1.3,189,-0.120,-0.120,-0.120,0.000,0.000,0.000
1641221107934504960,2022-01-03-14:45:07,10.1.1.3,186,-0.130,-0.130,-0.130,0.000,0.000,0.000
1641221108134813952,2022-01-03-14:45:08,10.1.1.3,186,-0.140,-0.140,-0.140,0.000,0.000,0.000
1641221108333862912,2022-01-03-14:45:08,10.1.1.3,184,-0.150,-0.150,-0.150,0.000,0.000,0.000
1641221108533346048,2022-01-03-14:45:08,10.1.1.3,184,-0.160,-0.160,-0.160,0.000,0.000,0.000
1641221108733374208,2022-01-03-14:45:08,10.1.1.3,183,-0.170,-0.170,-0.170,0.000,0.000,0.000
1641221108934245120,2022-01-03-14:45:08,10.1.1.3,183,-0.180,-0.180,-0.180,0.000,0.000,0.000
1641221109136460032,2022-01-03-14:45:09,10.1.1.3,185,-0.190,-0.190,-0.190,0.000,0.000,0.000
1641221109337523968,2022-01-03-14:45:09,10.1.1.3,182,-0.200,-0.200,-0.200,0.000,0.000,0.000
1641221109531940096,2022-01-03-14:45:09,10.1.1.3,179,-0.210,-0.210,-0.210,0.000,0.000,0.000
1641221109733586176,2022-01-03-14:45:09,10.1.1.3,180,-0.220,-0.220,-0.220,0.000,0.000,0.000
1641221109931631104,2022-01-03-14:45:09,10.1.1.3,178,-0.230,-0.230,-0.230,0.000,0.000,0.000
1641221110131846912,2022-01-03-14:45:10,10.1.1.3,177,-0.240,-0.240,-0.240,0.000,0.000,0.000
1641221110331666944,2022-01-03-14:45:10,10.1.1.3,176,-0.250,-0.250,-0.250,0.000,0.000,0.000
1641221110534708992,2022-01-03-14:45:10,10.1.1.3,174,-0.260,-0.260,-0.260,0.000,0.000,0.000
1641221110751651072,2022-01-03-14:45:10,10.1.1.3,193,-0.270,-0.270,-0.270,0.000,0.000,0.000
1641221110951632896,2022-01-03-14:45:10,10.1.1.3,192,-0.280,-0.280,-0.280,0.000,0.000,0.000
1641221111153052160,2022-01-03-14:45:11,10.1.1.3,193,-0.290,-0.290,-0.290,0.000,0.000,0.000
1641221111352380928,2022-01-03-14:45:11,10.1.1.3,192,-0.300,-0.300,-0.300,0.000,0.000,0.000
1641221111551259136,2022-01-03-14:45:11,10.1.1.3,190,-0.310,-0.310,-0.310,0.000,0.000,0.000
1641221111750590208,2022-01-03-14:45:11,10.1.1.3,189,-0.320,-0.320,-0.320,0.000,0.000,0.000
1641221111950141952,2022-01-03-14:45:11,10.1.1.3,188,-0.330,-0.330,-0.330,0.000,0.000,0.000
1641221112149758976,2022-01-03-14:45:12,10.1.1.3,187,-0.340,-0.340,-0.340,0.000,0.000,0.000
1641221112349720832,2022-01-03-14:45:12,10.1.1.3,186,-0.350,-0.350,-0.350,0.000,0.000,0.000
1641221112549086976,2022-01-03-14:45:12,10.1.1.3,184,-0.360,-0.360,-0.360,0.000,0.000,0.000
1641221112749350144,2022-01-03-14:45:12,10.1.1.3,183,-0.370,-0.370,-0.370,0.000,0.000,0.000
1641221112949392128,2022-01-03-14:45:12,10.1.1.3,182,-0.380,-0.380,-0.380,0.000,0.000,0.000
1641221113150113024,2022-01-03-14:45:13,10.1.1.3,183,-0.390,-0.390,-0.390,0.000,0.000,0.000
1641221113352756992,2022-01-03-14:45:13,10.1.1.3,185,-0.400,-0.400,-0.400,0.000,0.000,0.000
1641221113550641152,2022-01-03-14:45:13,10.1.1.3,178,-0.410,-0.410,-0.410,0.000,0.000,0.000
1641221113751656960,2022-01-03-14:45:13,10.1.1.3,180,-0.420,-0.420,-0.420,0.000,0.000,0.000
1641221113946885120,2022-01-03-14:45:13,10.1.1.3,175,-0.430,-0.430,-0.430,0.000,0.000,0.000
1641221114149064960,2022-01-03-14:45:14,10.1.1.3,176,-0.440,-0.440,-0.440,0.000,0.000,0.000
1641221114346016000,2022-01-03-14:45:14,10.1.1.3,173,-0.450,-0.450,-0.450,0.000,0.000,0.000
1641221114546355968,2022-01-03-14:45:14,10.1.1.3,172,-0.460,-0.460,-0.460,0.000,0.000,0.000
1641221114745784064,2022-01-03-14:45:14,10.1.1.3,172,-0.470,-0.470,-0.470,0.000,0.000,0.000
1641221114945463808,2022-01-03-14:45:14,10.1.1.3,168,-0.480,-0.480,-0.480,0.000,0.000,0.000
1641221115144691968,2022-01-03-14:45:15,10.1.1.3,167,-0.490,-0.490,-0.490,0.000,0.000,0.000
1641221115355515904,2022-01-03-14:45:15,10.1.1.3,177,-0.480,-0.480,-0.480,0.000,0.000,0.000
1641221115564708096,2022-01-03-14:45:15,10.1.1.3,183,-0.470,-0.470,-0.470,0.000,0.000,0.000
1641221115763990016,2022-01-03-14:45:15,10.1.1.3,182,-0.460,-0.460,-0.460,0.000,0.000,0.000
1641221115966692096,2022-01-03-14:45:15,10.1.1.3,184,-0.450,-0.450,-0.450,0.000,0.000,0.000
1641221116166546944,2022-01-03-14:45:16,10.1.1.3,181,-0.440,-0.440,-0.440,0.000,0.000,0.000
1641221116363312896,2022-01-03-14:45:16,10.1.1.3,180,-0.430,-0.430,-0.430,0.000,0.000,0.000
1641221116563536896,2022-01-03-14:45:16,10.1.1.3,179,-0.420,-0.420,-0.420,0.000,0.000,0.000
1641221116763262976,2022-01-03-14:45:16,10.1.1.3,177,-0.410,-0.410,-0.410,0.000,0.000,0.000
1641221116963567872,2022-01-03-14:45:16,10.1.1.3,177,-0.400,-0.400,-0.400,0.000,0.000,0.000
1641221117165831168,2022-01-03-14:45:17,10.1.1.3,178,-0.390,-0.390,-0.390,0.000,0.000,0.000
1641221117362904064,2022-01-03-14:45:17,10.1.1.3,176,-0.380,-0.380,-0.380,0.000,0.000,0.000
1641221117561767168,2022-01-03-14:45:17,10.1.1.3,174,-0.370,-0.370,-0.370,0.000,0.000,0.000
1641221117762313984,2022-01-03-14:45:17,10.1.1.3,172,-0.360,-0.360,-0.360,0.000,0.000,0.000
1641221117962140160,2022-01-03-14:45:17,10.1.1.3,171,-0.350,-0.350,-0.350,0.000,0.000,0.000
1641221118186536960,2022-01-03-14:45:18,10.1.1.3,185,-0.340,-0.340,-0.340,0.000,0.000,0.000
1641221118380443136,2022-01-03-14:45:18,10.1.1.3,178,-0.330,-0.330,-0.330,0.000,0.000,0.000
1641221118580795136,2022-01-03-14:45:18,10.1.1.3,176,-0.320,-0.320,-0.320,0.000,0.000,0.000
1641221118780119808,2022-01-03-14:45:18,10.1.1.3,175,-0.310,-0.310,-0.310,0.000,0.000,0.000
1641221118979887872,2022-01-03-14:45:18,10.1.1.3,174,-0.300,-0.300,-0.300,0.000,0.000,0.000
1641221119180034048,2022-01-03-14:45:19,10.1.1.3,174,-0.290,-0.290,-0.290,0.000,0.000,0.000
1641221119379858944,2022-01-03-14:45:19,10.1.1.3,173,-0.280,-0.280,-0.280,0.000,0.000,0.000
1641221119578839040,2022-01-03-14:45:19,10.1.1.3,172,-0.270,-0.270,-0.270,0.000,0.000,0.000
1641221119783339008,2022-01-03-14:45:19,10.1.1.3,175,-0.260,-0.260,-0.260,0.000,0.000,0.000
1641221119978811136,2022-01-03-14:45:19,10.1.1.3,170,-0.250,-0.250,-0.250,0.000,0.000,0.000
1641221120180342016,2022-01-03-14:45:20,10.1.1.3,171,-0.240,-0.240,-0.240,0.000,0.000,0.000
1641221120377982976,2022-01-03-14:45:20,10.1.1.3,168,-0.230,-0.230,-0.230,0.000,0.000,0.000
1641221120591948032,2022-01-03-14:45:20,10.1.1.3,181,-0.220,-0.220,-0.220,0.000,0.000,0.000
1641221120777974016,2022-01-03-14:45:20,10.1.1.3,166,-0.210,-0.210,-0.210,0.000,0.000,0.000
1641221120977775104,2022-01-03-14:45:20,10.1.1.3,165,-0.200,-0.200,-0.200,0.000,0.000,0.000
1641221121176563968,2022-01-03-14:45:21,10.1.1.3,163,-0.190,-0.190,-0.190,0.000,0.000,0.000
1641221121417392128,2022-01-03-14:45:21,10.1.1.3,178,-0.180,-0.180,-0.180,0.000,0.000,0.000
1641221121636087040,2022-01-03-14:45:21,10.1.1.3,175,-0.170,-0.170,-0.170,0.000,0.000,0.000
1641221121835411968,2022-01-03-14:45:21,10.1.1.3,173,-0.160,-0.160,-0.160,0.000,0.000,0.000
1641221122035489024,2022-01-03-14:45:22,10.1.1.3,172,-0.150,-0.150,-0.150,0.000,0.000,0.000
1641221122237894144,2022-01-03-14:45:22,10.1.1.3,173,-0.140,-0.140,-0.140,0.000,0.000,0.000
1641221122439074048,2022-01-03-14:45:22,10.1.1.3,173,-0.130,-0.130,-0.130,0.000,0.000,0.000
1641221122639569152,2022-01-03-14:45:22,10.1.1.3,173,-0.120,-0.120,-0.120,0.000,0.000,0.000
1641221122841018880,2022-01-03-14:45:22,10.1.1.3,173,-0.110,-0.110,-0.110,0.000,0.000,0.000
1641221123041958144,2022-01-03-14:45:23,10.1.1.3,173,-0.100,-0.100,-0.100,0.000,0.000,0.000
1641221123241746944,2022-01-03-14:45:23,10.1.1.3,172,-0.090,-0.090,-0.090,0.000,0.000,0.000
1641221123452912128,2022-01-03-14:45:23,10.1.1.3,181,-0.080,-0.080,-0.080,0.000,0.000,0.000
1641221123643474944,2022-01-03-14:45:23,10.1.1.3,171,-0.070,-0.070,-0.070,0.000,0.000,0.000
1641221123843727104,2022-01-03-14:45:23,10.1.1.3,171,-0.060,-0.060,-0.060,0.000,0.000,0.000
1641221124044524800,2022-01-03-14:45:24,10.1.1.3,171,-0.050,-0.050,-0.050,0.000,0.000,0.000
1641221124245815040,2022-01-03-14:45:24,10.1.1.3,170,-0.040,-0.040,-0.040,0.000,0.000,0.000
1641221124446033920,2022-01-03-14:45:24,10.1.1.3,170,-0.030,-0.030,-0.030,0.000,0.000,0.000
1641221124647389952,2022-01-03-14:45:24,10.1.1.3,171,-0.020,-0.020,-0.020,0.000,0.000,0.000
1641221124848280832,2022-01-03-14:45:24,10.1.1.3,171,-0.010,-0.010,-0.010,0.000,0.000,0.000
1641221125050408960,2022-01-03-14:45:25,10.1.1.3,172,-0.000,-0.000,-0.000,0.000,0.000,0.000
1641221125280795136,2022-01-03-14:45:25,10.1.1.3,202,-0.010,-0.010,-0.010,0.000,0.000,0.000
1641221125471303936,2022-01-03-14:45:25,10.1.1.3,190,-0.020,-0.020,-0.020,0.000,0.000,0.000
1641221125671279872,2022-01-03-14:45:25,10.1.1.3,182,-0.030,-0.030,-0.030,0.000,0.000,0.000
1641221125870610944,2022-01-03-14:45:25,10.1.1.3,180,-0.040,-0.040,-0.040,0.000,0.000,0.000
1641221126071593984,2022-01-03-14:45:26,10.1.1.3,179,-0.050,-0.050,-0.050,0.000,0.000,0.000
1641221126271686912,2022-01-03-14:45:26,10.1.1.3,179,-0.060,-0.060,-0.060,0.000,0.000,0.000
1641221126472906240,2022-01-03-14:45:26,10.1.1.3,179,-0.070,-0.070,-0.070,0.000,0.000,0.000
1641221126673476096,2022-01-03-14:45:26,10.1.1.3,178,-0.080,-0.080,-0.080,0.000,0.000,0.000
1641221126885488128,2022-01-03-14:45:26,10.1.1.3,190,-0.090,-0.090,-0.090,0.000,0.000,0.000
1641221127105216000,2022-01-03-14:45:27,10.1.1.3,206,-0.100,-0.100,-0.100,0.000,0.000,0.000
1641221127294323968,2022-01-03-14:45:27,10.1.1.3,185,-0.110,-0.110,-0.110,0.000,0.000,0.000
1641221127496850944,2022-01-03-14:45:27,10.1.1.3,186,-0.120,-0.120,-0.120,0.000,0.000,0.000
1641221127707196928,2022-01-03-14:45:27,10.1.1.3,197,-0.130,-0.130,-0.130,0.000,0.000,0.000
1641221127896246784,2022-01-03-14:45:27,10.1.1.3,185,-0.140,-0.140,-0.140,0.000,0.000,0.000
1641221128104795904,2022-01-03-14:45:28,10.1.1.3,193,-0.150,-0.150,-0.150,0.000,0.000,0.000
1641221128298556160,2022-01-03-14:45:28,10.1.1.3,186,-0.160,-0.160,-0.160,0.000,0.000,0.000
1641221128495780096,2022-01-03-14:45:28,10.1.1.3,182,-0.170,-0.170,-0.170,0.000,0.000,0.000
1641221128697857024,2022-01-03-14:45:28,10.1.1.3,184,-0.180,-0.180,-0.180,0.000,0.000,0.000
1641221128897334016,2022-01-03-14:45:28,10.1.1.3,182,-0.190,-0.190,-0.190,0.000,0.000,0.000
1641221129117602048,2022-01-03-14:45:29,10.1.1.3,198,-0.200,-0.200,-0.200,0.000,0.000,0.000
1641221129517976064,2022-01-03-14:45:29,10.1.1.3,197,-0.220,-0.220,-0.220,0.000,0.000,0.000
1641221129719161088,2022-01-03-14:45:29,10.1.1.3,197,-0.230,-0.230,-0.230,0.000,0.000,0.000
1641221130121215232,2022-01-03-14:45:30,10.1.1.3,194,-0.250,-0.250,-0.250,0.000,0.000,0.000
1641221130320318976,2022-01-03-14:45:30,10.1.1.3,190,-0.260,-0.260,-0.260,0.000,0.000,0.000
1641221130523298048,2022-01-03-14:45:30,10.1.1.3,193,-0.270,-0.270,-0.270,0.000,0.000,0.000
1641221130720057856,2022-01-03-14:45:30,10.1.1.3,189,-0.280,-0.280,-0.280,0.000,0.000,0.000
1641221130922113024,2022-01-03-14:45:30,10.1.1.3,191,-0.290,-0.290,-0.290,0.000,0.000,0.000
1641221131119364864,2022-01-03-14:45:31,10.1.1.3,187,-0.300,-0.300,-0.300,0.000,0.000,0.000
1641221131321417984,2022-01-03-14:45:31,10.1.1.3,187,-0.310,-0.310,-0.310,0.000,0.000,0.000
1641221131518632960,2022-01-03-14:45:31,10.1.1.3,183,-0.320,-0.320,-0.320,0.000,0.000,0.000
1641221131721623040,2022-01-03-14:45:31,10.1.1.3,183,-0.330,-0.330,-0.330,0.000,0.000,0.000
1641221131922466048,2022-01-03-14:45:31,10.1.1.3,185,-0.340,-0.340,-0.340,0.000,0.000,0.000
1641221132120089088,2022-01-03-14:45:32,10.1.1.3,182,-0.350,-0.350,-0.350,0.000,0.000,0.000
1641221132539769856,2022-01-03-14:45:32,10.1.1.3,199,-0.370,-0.370,-0.370,0.000,0.000,0.000
1641221132739547904,2022-01-03-14:45:32,10.1.1.3,199,-0.380,-0.380,-0.380,0.000,0.000,0.000
1641221132939443968,2022-01-03-14:45:32,10.1.1.3,198,-0.390,-0.390,-0.390,0.000,0.000,0.000
1641221133540292096,2022-01-03-14:45:33,10.1.1.3,184,-0.420,-0.420,-0.420,0.000,0.000,0.000
1641221133760873984,2022-01-03-14:45:33,10.1.1.3,200,-0.430,-0.430,-0.430,0.000,0.000,0.000
1641221134161790976,2022-01-03-14:45:34,10.1.1.3,199,-0.450,-0.450,-0.450,0.000,0.000,0.000
1641221134359716864,2022-01-03-14:45:34,10.1.1.3,197,-0.460,-0.460,-0.460,0.000,0.000,0.000
1641221134560342016,2022-01-03-14:45:34,10.1.1.3,197,-0.470,-0.470,-0.470,0.000,0.000,0.000
1641221134760133120,2022-01-03-14:45:34,10.1.1.3,196,-0.480,-0.480,-0.480,0.000,0.000,0.000
1641221134961488128,2022-01-03-14:45:34,10.1.1.3,195,-0.490,-0.490,-0.490,0.000,0.000,0.000
1641221135181811968,2022-01-03-14:45:35,10.1.1.3,191,-0.480,-0.480,-0.480,0.000,0.000,0.000
1641221135379712000,2022-01-03-14:45:35,10.1.1.3,188,-0.470,-0.470,-0.470,0.000,0.000,0.000
1641221135578747136,2022-01-03-14:45:35,10.1.1.3,185,-0.460,-0.460,-0.460,0.000,0.000,0.000
1641221135777998848,2022-01-03-14:45:35,10.1.1.3,183,-0.450,-0.450,-0.450,0.000,0.000,0.000
1641221135979467008,2022-01-03-14:45:35,10.1.1.3,184,-0.440,-0.440,-0.440,0.000,0.000,0.000
1641221136178412032,2022-01-03-14:45:36,10.1.1.3,181,-0.430,-0.430,-0.430,0.000,0.000,0.000
1641221136398461952,2022-01-03-14:45:36,10.1.1.3,199,-0.420,-0.420,-0.420,0.000,0.000,0.000
1641221136598164992,2022-01-03-14:45:36,10.1.1.3,195,-0.410,-0.410,-0.410,0.000,0.000,0.000
1641221136798074880,2022-01-03-14:45:36,10.1.1.3,187,-0.400,-0.400,-0.400,0.000,0.000,0.000
1641221136998002176,2022-01-03-14:45:36,10.1.1.3,185,-0.390,-0.390,-0.390,0.000,0.000,0.000
1641221137197364992,2022-01-03-14:45:37,10.1.1.3,183,-0.380,-0.380,-0.380,0.000,0.000,0.000
1641221137397520896,2022-01-03-14:45:37,10.1.1.3,180,-0.370,-0.370,-0.370,0.000,0.000,0.000
1641221137617605888,2022-01-03-14:45:37,10.1.1.3,199,-0.360,-0.360,-0.360,0.000,0.000,0.000
1641221137818591232,2022-01-03-14:45:37,10.1.1.3,200,-0.350,-0.350,-0.350,0.000,0.000,0.000
1641221138017756928,2022-01-03-14:45:38,10.1.1.3,195,-0.340,-0.340,-0.340,0.000,0.000,0.000
1641221138217665024,2022-01-03-14:45:38,10.1.1.3,194,-0.330,-0.330,-0.330,0.000,0.000,0.000
1641221138416369920,2022-01-03-14:45:38,10.1.1.3,192,-0.320,-0.320,-0.320,0.000,0.000,0.000
1641221138615899136,2022-01-03-14:45:38,10.1.1.3,191,-0.310,-0.310,-0.310,0.000,0.000,0.000
1641221138815761152,2022-01-03-14:45:38,10.1.1.3,190,-0.300,-0.300,-0.300,0.000,0.000,0.000
1641221139015324160,2022-01-03-14:45:39,10.1.1.3,189,-0.290,-0.290,-0.290,0.000,0.000,0.000
1641221139215766784,2022-01-03-14:45:39,10.1.1.3,189,-0.280,-0.280,-0.280,0.000,0.000,0.000
1641221139417814016,2022-01-03-14:45:39,10.1.1.3,191,-0.270,-0.270,-0.270,0.000,0.000,0.000
1641221139619698944,2022-01-03-14:45:39,10.1.1.3,187,-0.260,-0.260,-0.260,0.000,0.000,0.000
1641221139816112896,2022-01-03-14:45:39,10.1.1.3,188,-0.250,-0.250,-0.250,0.000,0.000,0.000
1641221140015644928,2022-01-03-14:45:40,10.1.1.3,187,-0.240,-0.240,-0.240,0.000,0.000,0.000
1641221140216037120,2022-01-03-14:45:40,10.1.1.3,187,-0.230,-0.230,-0.230,0.000,0.000,0.000
1641221140414464000,2022-01-03-14:45:40,10.1.1.3,184,-0.220,-0.220,-0.220,0.000,0.000,0.000
1641221140613931008,2022-01-03-14:45:40,10.1.1.3,179,-0.210,-0.210,-0.210,0.000,0.000,0.000
1641221140814264064,2022-01-03-14:45:40,10.1.1.3,179,-0.200,-0.200,-0.200,0.000,0.000,0.000
1641221141014825216,2022-01-03-14:45:41,10.1.1.3,179,-0.190,-0.190,-0.190,0.000,0.000,0.000
1641221141218662912,2022-01-03-14:45:41,10.1.1.3,182,-0.180,-0.180,-0.180,0.000,0.000,0.000
1641221141412883968,2022-01-03-14:45:41,10.1.1.3,176,-0.170,-0.170,-0.170,0.000,0.000,0.000
1641221141612595200,2022-01-03-14:45:41,10.1.1.3,175,-0.160,-0.160,-0.160,0.000,0.000,0.000
1641221141813165824,2022-01-03-14:45:41,10.1.1.3,175,-0.150,-0.150,-0.150,0.000,0.000,0.000
1641221142032493056,2022-01-03-14:45:42,10.1.1.3,194,-0.140,-0.140,-0.140,0.000,0.000,0.000
1641221142232022016,2022-01-03-14:45:42,10.1.1.3,193,-0.130,-0.130,-0.130,0.000,0.000,0.000
1641221142432094208,2022-01-03-14:45:42,10.1.1.3,191,-0.120,-0.120,-0.120,0.000,0.000,0.000
1641221142832987136,2022-01-03-14:45:42,10.1.1.3,191,-0.100,-0.100,-0.100,0.000,0.000,0.000
1641221143031610880,2022-01-03-14:45:43,10.1.1.3,187,-0.090,-0.090,-0.090,0.000,0.000,0.000
1641221143231343872,2022-01-03-14:45:43,10.1.1.3,186,-0.080,-0.080,-0.080,0.000,0.000,0.000
1641221143431156992,2022-01-03-14:45:43,10.1.1.3,186,-0.070,-0.070,-0.070,0.000,0.000,0.000
1641221143632092928,2022-01-03-14:45:43,10.1.1.3,186,-0.060,-0.060,-0.060,0.000,0.000,0.000
1641221143830465024,2022-01-03-14:45:43,10.1.1.3,184,-0.050,-0.050,-0.050,0.000,0.000,0.000
1641221144030544896,2022-01-03-14:45:44,10.1.1.3,183,-0.040,-0.040,-0.040,0.000,0.000,0.000
1641221144230635008,2022-01-03-14:45:44,10.1.1.3,182,-0.030,-0.030,-0.030,0.000,0.000,0.000
1641221144429459968,2022-01-03-14:45:44,10.1.1.3,180,-0.020,-0.020,-0.020,0.000,0.000,0.000
1641221144629918976,2022-01-03-14:45:44,10.1.1.3,180,-0.010,-0.010,-0.010,0.000,0.000,0.000
1641221144830275072,2022-01-03-14:45:44,10.1.1.3,179,0.000,0.000,0.000,0.000,0.000,0.000
1641221145031554816,2022-01-03-14:45:45,10.1.1.3,180,-0.010,-0.010,-0.010,0.000,0.000,0.000
1641221145228275968,2022-01-03-14:45:45,10.1.1.3,176,-0.020,-0.020,-0.020,0.000,0.000,0.000
1641221145428867072,2022-01-03-14:45:45,10.1.1.3,176,-0.030,-0.030,-0.030,0.000,0.000,0.000
1641221145633050880,2022-01-03-14:45:45,10.1.1.3,178,-0.040,-0.040,-0.040,0.000,0.000,0.000
1641221145832227840,2022-01-03-14:45:45,10.1.1.3,178,-0.050,-0.050,-0.050,0.000,0.000,0.000
1641221146028630016,2022-01-03-14:45:46,10.1.1.3,174,-0.060,-0.060,-0.060,0.000,0.000,0.000
1641221146228448000,2022-01-03-14:45:46,10.1.1.3,173,-0.070,-0.070,-0.070,0.000,0.000,0.000
1641221146427017984,2022-01-03-14:45:46,10.1.1.3,171,-0.080,-0.080,-0.080,0.000,0.000,0.000
1641221146627228928,2022-01-03-14:45:46,10.1.1.3,170,-0.090,-0.090,-0.090,0.000,0.000,0.000
1641221146827158016,2022-01-03-14:45:46,10.1.1.3,170,-0.100,-0.100,-0.100,0.000,0.000,0.000
1641221147032336896,2022-01-03-14:45:47,10.1.1.3,174,-0.110,-0.110,-0.110,0.000,0.000,0.000
1641221147248510976,2022-01-03-14:45:47,10.1.1.3,190,-0.120,-0.120,-0.120,0.000,0.000,0.000
1641221147446072064,2022-01-03-14:45:47,10.1.1.3,187,-0.130,-0.130,-0.130,0.000,0.000,0.000
1641221147645903104,2022-01-03-14:45:47,10.1.1.3,186,-0.140,-0.140,-0.140,0.000,0.000,0.000
1641221147855586048,2022-01-03-14:45:47,10.1.1.3,195,-0.150,-0.150,-0.150,0.000,0.000,0.000
1641221148044446976,2022-01-03-14:45:48,10.1.1.3,183,-0.160,-0.160,-0.160,0.000,0.000,0.000
1641221148249512960,2022-01-03-14:45:48,10.1.1.3,187,-0.170,-0.170,-0.170,0.000,0.000,0.000
1641221148444999936,2022-01-03-14:45:48,10.1.1.3,183,-0.180,-0.180,-0.180,0.000,0.000,0.000
1641221148644505856,2022-01-03-14:45:48,10.1.1.3,181,-0.190,-0.190,-0.190,0.000,0.000,0.000
1641221148843072000,2022-01-03-14:45:48,10.1.1.3,178,-0.200,-0.200,-0.200,0.000,0.000,0.000
1641221149043894016,2022-01-03-14:45:49,10.1.1.3,179,-0.210,-0.210,-0.210,0.000,0.000,0.000
1641221149243216128,2022-01-03-14:45:49,10.1.1.3,177,-0.220,-0.220,-0.220,0.000,0.000,0.000
1641221149446429952,2022-01-03-14:45:49,10.1.1.3,179,-0.230,-0.230,-0.230,0.000,0.000,0.000
1641221149642198016,2022-01-03-14:45:49,10.1.1.3,174,-0.240,-0.240,-0.240,0.000,0.000,0.000
1641221149843174912,2022-01-03-14:45:49,10.1.1.3,175,-0.250,-0.250,-0.250,0.000,0.000,0.000
1641221150041347072,2022-01-03-14:45:50,10.1.1.3,172,-0.260,-0.260,-0.260,0.000,0.000,0.000
1641221150242630912,2022-01-03-14:45:50,10.1.1.3,173,-0.270,-0.270,-0.270,0.000,0.000,0.000
1641221150441245952,2022-01-03-14:45:50,10.1.1.3,171,-0.280,-0.280,-0.280,0.000,0.000,0.000
1641221150641210112,2022-01-03-14:45:50,10.1.1.3,170,-0.290,-0.290,-0.290,0.000,0.000,0.000
1641221150841366016,2022-01-03-14:45:50,10.1.1.3,170,-0.300,-0.300,-0.300,0.000,0.000,0.000
1641221151040409088,2022-01-03-14:45:51,10.1.1.3,168,-0.310,-0.310,-0.310,0.000,0.000,0.000
1641221151241298944,2022-01-03-14:45:51,10.1.1.3,168,-0.320,-0.320,-0.320,0.000,0.000,0.000
1641221151440084992,2022-01-03-14:45:51,10.1.1.3,167,-0.330,-0.330,-0.330,0.000,0.000,0.000
1641221151638701056,2022-01-03-14:45:51,10.1.1.3,165,-0.340,-0.340,-0.340,0.000,0.000,0.000
1641221151838233856,2022-01-03-14:45:51,10.1.1.3,164,-0.350,-0.350,-0.350,0.000,0.000,0.000
1641221152039678208,2022-01-03-14:45:52,10.1.1.3,164,-0.360,-0.360,-0.360,0.000,0.000,0.000
1641221152240221952,2022-01-03-14:45:52,10.1.1.3,164,-0.370,-0.370,-0.370,0.000,0.000,0.000
1641221152439011072,2022-01-03-14:45:52,10.1.1.3,161,-0.380,-0.380,-0.380,0.000,0.000,0.000
1641221152647512064,2022-01-03-14:45:52,10.1.1.3,169,-0.390,-0.390,-0.390,0.000,0.000,0.000
1641221152859769088,2022-01-03-14:45:52,10.1.1.3,180,-0.400,-0.400,-0.400,0.000,0.000,0.000
1641221153060728064,2022-01-03-14:45:53,10.1.1.3,176,-0.410,-0.410,-0.410,0.000,0.000,0.000
1641221153257316096,2022-01-03-14:45:53,10.1.1.3,173,-0.420,-0.420,-0.420,0.000,0.000,0.000
1641221153456448000,2022-01-03-14:45:53,10.1.1.3,171,-0.430,-0.430,-0.430,0.000,0.000,0.000
1641221153661981952,2022-01-03-14:45:53,10.1.1.3,172,-0.440,-0.440,-0.440,0.000,0.000,0.000
1641221153856110080,2022-01-03-14:45:53,10.1.1.3,169,-0.450,-0.450,-0.450,0.000,0.000,0.000
1641221154056086016,2022-01-03-14:45:54,10.1.1.3,167,-0.460,-0.460,-0.460,0.000,0.000,0.000
1641221154257541888,2022-01-03-14:45:54,10.1.1.3,168,-0.470,-0.470,-0.470,0.000,0.000,0.000
1641221154457963008,2022-01-03-14:45:54,10.1.1.3,168,-0.480,-0.480,-0.480,0.000,0.000,0.000
1641221154659030016,2022-01-03-14:45:54,10.1.1.3,169,-0.490,-0.490,-0.490,0.000,0.000,0.000
1641221154859041024,2022-01-03-14:45:54,10.1.1.3,167,-0.480,-0.480,-0.480,0.000,0.000,0.000
1641221155060745984,2022-01-03-14:45:55,10.1.1.3,168,-0.470,-0.470,-0.470,0.000,0.000,0.000
1641221155261367040,2022-01-03-14:45:55,10.1.1.3,169,-0.460,-0.460,-0.460,0.000,0.000,0.000
1641221155463812096,2022-01-03-14:45:55,10.1.1.3,171,-0.450,-0.450,-0.450,0.000,0.000,0.000
1641221155663887872,2022-01-03-14:45:55,10.1.1.3,170,-0.440,-0.440,-0.440,0.000,0.000,0.000
1641221155865998080,2022-01-03-14:45:55,10.1.1.3,172,-0.430,-0.430,-0.430,0.000,0.000,0.000
1641221156064868864,2022-01-03-14:45:56,10.1.1.3,170,-0.420,-0.420,-0.420,0.000,0.000,0.000
1641221156266503168,2022-01-03-14:45:56,10.1.1.3,171,-0.410,-0.410,-0.410,0.000,0.000,0.000
1641221156467330816,2022-01-03-14:45:56,10.1.1.3,171,-0.400,-0.400,-0.400,0.000,0.000,0.000
1641221156669912064,2022-01-03-14:45:56,10.1.1.3,172,-0.390,-0.390,-0.390,0.000,0.000,0.000
1641221156867181056,2022-01-03-14:45:56,10.1.1.3,169,-0.380,-0.380,-0.380,0.000,0.000,0.000
1641221157088488960,2022-01-03-14:45:57,10.1.1.3,189,-0.370,-0.370,-0.370,0.000,0.000,0.000
1641221157288974080,2022-01-03-14:45:57,10.1.1.3,189,-0.360,-0.360,-0.360,0.000,0.000,0.000
1641221157489826816,2022-01-03-14:45:57,10.1.1.3,189,-0.350,-0.350,-0.350,0.000,0.000,0.000
1641221157689935872,2022-01-03-14:45:57,10.1.1.3,189,-0.340,-0.340,-0.340,0.000,0.000,0.000
1641221157890841856,2022-01-03-14:45:57,10.1.1.3,189,-0.330,-0.330,-0.330,0.000,0.000,0.000
1641221158091520000,2022-01-03-14:45:58,10.1.1.3,189,-0.320,-0.320,-0.320,0.000,0.000,0.000
1641221158291499008,2022-01-03-14:45:58,10.1.1.3,189,-0.310,-0.310,-0.310,0.000,0.000,0.000
1641221158491979008,2022-01-03-14:45:58,10.1.1.3,188,-0.300,-0.300,-0.300,0.000,0.000,0.000
1641221158693799936,2022-01-03-14:45:58,10.1.1.3,190,-0.290,-0.290,-0.290,0.000,0.000,0.000
1641221158894514176,2022-01-03-14:45:58,10.1.1.3,190,-0.280,-0.280,-0.280,0.000,0.000,0.000
1641221159097170176,2022-01-03-14:45:59,10.1.1.3,189,-0.270,-0.270,-0.270,0.000,0.000,0.000
1641221159302736128,2022-01-03-14:45:59,10.1.1.3,192,-0.260,-0.260,-0.260,0.000,0.000,0.000
1641221159498467072,2022-01-03-14:45:59,10.1.1.3,190,-0.250,-0.250,-0.250,0.000,0.000,0.000
1641221159696077056,2022-01-03-14:45:59,10.1.1.3,187,-0.240,-0.240,-0.240,0.000,0.000,0.000
1641221159895648000,2022-01-03-14:45:59,10.1.1.3,185,-0.230,-0.230,-0.230,0.000,0.000,0.000
1641221160099772928,2022-01-03-14:46:00,10.1.1.3,187,-0.220,-0.220,-0.220,0.000,0.000,0.000
1641221160297158912,2022-01-03-14:46:00,10.1.1.3,185,-0.210,-0.210,-0.210,0.000,0.000,0.000
1641221160718260992,2022-01-03-14:46:00,10.1.1.3,189,-0.190,-0.190,-0.190,0.000,0.000,0.000
1641221160937289984,2022-01-03-14:46:00,10.1.1.3,198,-0.180,-0.180,-0.180,0.000,0.000,0.000
1641221161139465216,2022-01-03-14:46:01,10.1.1.3,199,-0.170,-0.170,-0.170,0.000,0.000,0.000
1641221161340477952,2022-01-03-14:46:01,10.1.1.3,200,-0.160,-0.160,-0.160,0.000,0.000,0.000
1641221161538397952,2022-01-03-14:46:01,10.1.1.3,196,-0.150,-0.150,-0.150,0.000,0.000,0.000
1641221161739394048,2022-01-03-14:46:01,10.1.1.3,195,-0.140,-0.140,-0.140,0.000,0.000,0.000
1641221161940788992,2022-01-03-14:46:01,10.1.1.3,196,-0.130,-0.130,-0.130,0.000,0.000,0.000
1641221162138195968,2022-01-03-14:46:02,10.1.1.3,192,-0.120,-0.120,-0.120,0.000,0.000,0.000
1641221162337938176,2022-01-03-14:46:02,10.1.1.3,191,-0.110,-0.110,-0.110,0.000,0.000,0.000
1641221162755922176,2022-01-03-14:46:02,10.1.1.3,188,-0.090,-0.090,-0.090,0.000,0.000,0.000
1641221162957037056,2022-01-03-14:46:02,10.1.1.3,189,-0.080,-0.080,-0.080,0.000,0.000,0.000
1641221163156827904,2022-01-03-14:46:03,10.1.1.3,188,-0.070,-0.070,-0.070,0.000,0.000,0.000
1641221163357018112,2022-01-03-14:46:03,10.1.1.3,187,-0.060,-0.060,-0.060,0.000,0.000,0.000
1641221163557532928,2022-01-03-14:46:03,10.1.1.3,187,-0.050,-0.050,-0.050,0.000,0.000,0.000
1641221163756920064,2022-01-03-14:46:03,10.1.1.3,186,-0.040,-0.040,-0.040,0.000,0.000,0.000
1641221163957016832,2022-01-03-14:46:03,10.1.1.3,186,-0.030,-0.030,-0.030,0.000,0.000,0.000
1641221164157068032,2022-01-03-14:46:04,10.1.1.3,185,-0.020,-0.020,-0.020,0.000,0.000,0.000
1641221164359684864,2022-01-03-14:46:04,10.1.1.3,187,-0.010,-0.010,-0.010,0.000,0.000,0.000
1641221164557225984,2022-01-03-14:46:04,10.1.1.3,184,0.000,0.000,0.000,0.000,0.000,0.000
1641221164757120000,2022-01-03-14:46:04,10.1.1.3,183,-0.010,-0.010,-0.010,0.000,0.000,0.000
1641221164959505152,2022-01-03-14:46:04,10.1.1.3,183,-0.020,-0.020,-0.020,0.000,0.000,0.000
1641221165160260864,2022-01-03-14:46:05,10.1.1.3,185,-0.030,-0.030,-0.030,0.000,0.000,0.000
1641221165377110016,2022-01-03-14:46:05,10.1.1.3,186,-0.040,-0.040,-0.040,0.000,0.000,0.000
1641221165776803072,2022-01-03-14:46:05,10.1.1.3,182,-0.060,-0.060,-0.060,0.000,0.000,0.000
1641221165977353984,2022-01-03-14:46:05,10.1.1.3,182,-0.070,-0.070,-0.070,0.000,0.000,0.000
1641221166177551872,2022-01-03-14:46:06,10.1.1.3,182,-0.080,-0.080,-0.080,0.000,0.000,0.000
1641221166380852992,2022-01-03-14:46:06,10.1.1.3,183,-0.090,-0.090,-0.090,0.000,0.000,0.000
1641221166796737792,2022-01-03-14:46:06,10.1.1.3,199,-0.110,-0.110,-0.110,0.000,0.000,0.000
1641221166999311872,2022-01-03-14:46:06,10.1.1.3,198,-0.120,-0.120,-0.120,0.000,0.000,0.000
1641221167197096192,2022-01-03-14:46:07,10.1.1.3,195,-0.130,-0.130,-0.130,0.000,0.000,0.000
1641221167411003136,2022-01-03-14:46:07,10.1.1.3,194,-0.140,-0.140,-0.140,0.000,0.000,0.000
1641221167597003008,2022-01-03-14:46:07,10.1.1.3,185,-0.150,-0.150,-0.150,0.000,0.000,0.000
1641221167810401024,2022-01-03-14:46:07,10.1.1.3,186,-0.160,-0.160,-0.160,0.000,0.000,0.000
1641221167997908224,2022-01-03-14:46:07,10.1.1.3,184,-0.170,-0.170,-0.170,0.000,0.000,0.000
1641221168217103104,2022-01-03-14:46:08,10.1.1.3,190,-0.180,-0.180,-0.180,0.000,0.000,0.000
1641221168415872000,2022-01-03-14:46:08,10.1.1.3,188,-0.190,-0.190,-0.190,0.000,0.000,0.000
