FedericoMungari/DigitalTwin_service/01_WiredScenario/Output/Output_script/script_rosapi_2_output_robots12_freq0_9.txt
timestamp,date,node,latency,joint_1,joint_2,joint_3,joint_4,joint_5,joint_6
1644939944437499136,2022-02-15-15:45:30,10.1.1.10,39,-0.030,-0.030,-0.030,0.000,0.000,0.000
1644939947859087104,2022-02-15-15:45:47,10.1.1.10,29,0.050,0.050,0.050,0.000,0.000,0.000
1644939949155096064,2022-02-15-15:45:49,10.1.1.10,39,-0.010,-0.010,-0.010,0.000,0.000,0.000
1644939949615087104,2022-02-15-15:45:49,10.1.1.10,39,0.080,0.080,0.080,0.000,0.000,0.000
1644939949815336960,2022-02-15-15:45:49,10.1.1.10,22,0.080,0.080,0.080,0.000,0.000,0.000
1644939950435211776,2022-02-15-15:45:50,10.1.1.10,20,-0.040,-0.040,-0.040,0.000,0.000,0.000
1644939950494575872,2022-02-15-15:45:50,10.1.1.10,29,-0.050,-0.050,-0.050,0.000,0.000,0.000
1644939950997387776,2022-02-15-15:45:50,10.1.1.10,17,-0.050,-0.050,-0.050,0.000,0.000,0.000
1644939952515321856,2022-02-15-15:45:52,10.1.1.10,40,-0.040,-0.040,-0.040,0.000,0.000,0.000
1644939952716766208,2022-02-15-15:45:52,10.1.1.10,30,-0.080,-0.080,-0.080,0.000,0.000,0.000
1644939952917640960,2022-02-15-15:45:52,10.1.1.10,8,-0.080,-0.080,-0.080,0.000,0.000,0.000
1644939953295005184,2022-02-15-15:45:53,10.1.1.10,29,-0.010,-0.010,-0.010,0.000,0.000,0.000
1644939953674717952,2022-02-15-15:45:53,10.1.1.10,29,0.060,0.060,0.060,0.000,0.000,0.000
1644939954075524096,2022-02-15-15:45:54,10.1.1.10,19,0.060,0.060,0.060,0.000,0.000,0.000
1644939955714774016,2022-02-15-15:45:55,10.1.1.10,39,0.010,0.010,0.010,0.000,0.000,0.000
1644939956015380992,2022-02-15-15:45:56,10.1.1.10,29,0.070,0.070,0.070,0.000,0.000,0.000
1644939956315211008,2022-02-15-15:45:56,10.1.1.10,21,0.070,0.070,0.070,0.000,0.000,0.000
1644939956695308800,2022-02-15-15:45:56,10.1.1.10,30,0.000,0.000,0.000,0.000,0.000,0.000
1644939956735040000,2022-02-15-15:45:56,10.1.1.10,19,-0.009,-0.009,-0.009,0.000,0.000,0.000
1644939956795154944,2022-02-15-15:45:56,10.1.1.10,28,-0.020,-0.020,-0.020,0.000,0.000,0.000
1644939957395132160,2022-02-15-15:45:57,10.1.1.10,29,-0.070,-0.070,-0.070,0.000,0.000,0.000
1644939958478030080,2022-02-15-15:45:58,10.1.1.10,8,0.070,0.070,0.070,0.000,0.000,0.000
1644939959174590976,2022-02-15-15:45:59,10.1.1.10,39,-0.060,-0.060,-0.060,0.000,0.000,0.000
1644939959555458048,2022-02-15-15:45:59,10.1.1.10,14,-0.060,-0.060,-0.060,0.000,0.000,0.000
1644939959935362048,2022-02-15-15:45:59,10.1.1.10,39,0.010,0.010,0.010,0.000,0.000,0.000
1644939959974412800,2022-02-15-15:45:59,10.1.1.10,28,0.020,0.020,0.020,0.000,0.000,0.000
1644939960235366144,2022-02-15-15:46:00,10.1.1.10,29,0.070,0.070,0.070,0.000,0.000,0.000
1644939960534210048,2022-02-15-15:46:00,10.1.1.10,13,0.070,0.070,0.070,0.000,0.000,0.000
1644939961409163008,2022-02-15-15:46:01,10.1.1.10,39,-0.090,-0.090,-0.090,0.000,0.000,0.000
1644939961479831808,2022-02-15-15:46:01,10.1.1.10,6,-0.090,-0.090,-0.090,0.000,0.000,0.000
1644939962634697984,2022-02-15-15:46:02,10.1.1.10,29,0.080,0.080,0.080,0.000,0.000,0.000
1644939963377474048,2022-02-15-15:46:03,10.1.1.10,29,-0.060,-0.060,-0.060,0.000,0.000,0.000
1644939964217950208,2022-02-15-15:46:04,10.1.1.10,29,0.020,0.020,0.020,0.000,0.000,0.000
1644939965036768000,2022-02-15-15:46:05,10.1.1.10,12,0.020,0.020,0.020,0.000,0.000,0.000
1644939966214775040,2022-02-15-15:46:06,10.1.1.10,20,0.010,0.010,0.010,0.000,0.000,0.000
1644939966274899968,2022-02-15-15:46:06,10.1.1.10,29,0.020,0.020,0.020,0.000,0.000,0.000
1644939966335025920,2022-02-15-15:46:06,10.1.1.10,39,0.030,0.030,0.030,0.000,0.000,0.000
1644939966975464192,2022-02-15-15:46:06,10.1.1.10,22,0.040,0.040,0.040,0.000,0.000,0.000
1644939967075171840,2022-02-15-15:46:07,10.1.1.10,21,0.020,0.020,0.020,0.000,0.000,0.000
1644939967135507200,2022-02-15-15:46:07,10.1.1.10,30,0.010,0.010,0.010,0.000,0.000,0.000
1644939967994920960,2022-02-15-15:46:07,10.1.1.10,29,-0.040,-0.040,-0.040,0.000,0.000,0.000
1644939968854814976,2022-02-15-15:46:08,10.1.1.10,29,0.070,0.070,0.070,0.000,0.000,0.000
1644939968916512000,2022-02-15-15:46:08,10.1.1.10,39,0.060,0.060,0.060,0.000,0.000,0.000
1644939969515291904,2022-02-15-15:46:09,10.1.1.10,30,-0.060,-0.060,-0.060,0.000,0.000,0.000
1644939969575046912,2022-02-15-15:46:09,10.1.1.10,39,-0.070,-0.070,-0.070,0.000,0.000,0.000
1644939969774818048,2022-02-15-15:46:09,10.1.1.10,29,-0.090,-0.090,-0.090,0.000,0.000,0.000
1644939969834842880,2022-02-15-15:46:09,10.1.1.10,39,-0.080,-0.080,-0.080,0.000,0.000,0.000
1644939969876903936,2022-02-15-15:46:09,10.1.1.10,29,-0.070,-0.070,-0.070,0.000,0.000,0.000
1644939970534950912,2022-02-15-15:46:10,10.1.1.10,29,0.060,0.060,0.060,0.000,0.000,0.000
1644939970935746048,2022-02-15-15:46:10,10.1.1.10,19,0.060,0.060,0.060,0.000,0.000,0.000
1644939970995403008,2022-02-15-15:46:10,10.1.1.10,29,0.050,0.050,0.050,0.000,0.000,0.000
1644939971554928128,2022-02-15-15:46:11,10.1.1.10,29,-0.060,-0.060,-0.060,0.000,0.000,0.000
1644939971959368960,2022-02-15-15:46:11,10.1.1.10,3,-0.060,-0.060,-0.060,0.000,0.000,0.000
1644939972135163136,2022-02-15-15:46:12,10.1.1.10,30,-0.030,-0.030,-0.030,0.000,0.000,0.000
1644939972794936832,2022-02-15-15:46:12,10.1.1.10,29,0.100,0.100,0.100,0.000,0.000,0.000
1644939973455169024,2022-02-15-15:46:13,10.1.1.10,30,-0.030,-0.030,-0.030,0.000,0.000,0.000
1644939974014923008,2022-02-15-15:46:14,10.1.1.10,29,-0.060,-0.060,-0.060,0.000,0.000,0.000
1644939974535067136,2022-02-15-15:46:14,10.1.1.10,39,0.040,0.040,0.040,0.000,0.000,0.000
1644939975115777024,2022-02-15-15:46:15,10.1.1.10,6,0.040,0.040,0.040,0.000,0.000,0.000
1644939975595001856,2022-02-15-15:46:15,10.1.1.10,30,-0.050,-0.050,-0.050,0.000,0.000,0.000
1644939976056241152,2022-02-15-15:46:16,10.1.1.10,30,-0.060,-0.060,-0.060,0.000,0.000,0.000
1644939976615212032,2022-02-15-15:46:16,10.1.1.10,29,0.050,0.050,0.050,0.000,0.000,0.000
1644939977114414848,2022-02-15-15:46:17,10.1.1.10,20,0.050,0.050,0.050,0.000,0.000,0.000
1644939977174546944,2022-02-15-15:46:17,10.1.1.10,30,0.040,0.040,0.040,0.000,0.000,0.000
1644939977734011904,2022-02-15-15:46:17,10.1.1.10,29,-0.070,-0.070,-0.070,0.000,0.000,0.000
1644939977795188992,2022-02-15-15:46:17,10.1.1.10,39,-0.080,-0.080,-0.080,0.000,0.000,0.000
1644939977975361024,2022-02-15-15:46:17,10.1.1.10,16,-0.080,-0.080,-0.080,0.000,0.000,0.000
1644939978395217920,2022-02-15-15:46:18,10.1.1.10,29,0.000,0.000,0.000,0.000,0.000,0.000
1644939978454574080,2022-02-15-15:46:18,10.1.1.10,39,0.010,0.010,0.010,0.000,0.000,0.000
1644939978955804160,2022-02-15-15:46:18,10.1.1.10,29,0.090,0.090,0.090,0.000,0.000,0.000
1644939979514903040,2022-02-15-15:46:19,10.1.1.10,30,-0.020,-0.020,-0.020,0.000,0.000,0.000
1644939980314703872,2022-02-15-15:46:20,10.1.1.10,12,-0.020,-0.020,-0.020,0.000,0.000,0.000
1644939980535031040,2022-02-15-15:46:20,10.1.1.10,29,0.020,0.020,0.020,0.000,0.000,0.000
1644939981155095040,2022-02-15-15:46:21,10.1.1.10,40,0.060,0.060,0.060,0.000,0.000,0.000
1644939981754932992,2022-02-15-15:46:21,10.1.1.10,29,-0.060,-0.060,-0.060,0.000,0.000,0.000
1644939982139280128,2022-02-15-15:46:22,10.1.1.10,2,-0.060,-0.060,-0.060,0.000,0.000,0.000
1644939982255825920,2022-02-15-15:46:22,10.1.1.10,20,-0.040,-0.040,-0.040,0.000,0.000,0.000
1644939982316061952,2022-02-15-15:46:22,10.1.1.10,29,-0.030,-0.030,-0.030,0.000,0.000,0.000
1644939982935651072,2022-02-15-15:46:22,10.1.1.10,39,0.090,0.090,0.090,0.000,0.000,0.000
1644939983015160064,2022-02-15-15:46:23,10.1.1.10,15,0.090,0.090,0.090,0.000,0.000,0.000
1644939983735073024,2022-02-15-15:46:23,10.1.1.10,19,-0.050,-0.050,-0.050,0.000,0.000,0.000
1644939983794977024,2022-02-15-15:46:23,10.1.1.10,29,-0.060,-0.060,-0.060,0.000,0.000,0.000
1644939984194369024,2022-02-15-15:46:24,10.1.1.10,18,-0.060,-0.060,-0.060,0.000,0.000,0.000
1644939985235124224,2022-02-15-15:46:25,10.1.1.10,40,0.060,0.060,0.060,0.000,0.000,0.000
1644939985934948864,2022-02-15-15:46:25,10.1.1.10,30,-0.080,-0.080,-0.080,0.000,0.000,0.000
1644939985994785024,2022-02-15-15:46:25,10.1.1.10,39,-0.090,-0.090,-0.090,0.000,0.000,0.000
1644939986074493952,2022-02-15-15:46:26,10.1.1.10,17,-0.090,-0.090,-0.090,0.000,0.000,0.000
1644939986394422016,2022-02-15-15:46:26,10.1.1.10,30,-0.030,-0.030,-0.030,0.000,0.000,0.000
1644939986494961920,2022-02-15-15:46:26,10.1.1.10,29,-0.010,-0.010,-0.010,0.000,0.000,0.000
1644939987254884096,2022-02-15-15:46:27,10.1.1.10,29,0.060,0.060,0.060,0.000,0.000,0.000
1644939987314745856,2022-02-15-15:46:27,10.1.1.10,38,0.050,0.050,0.050,0.000,0.000,0.000
1644939987914782976,2022-02-15-15:46:27,10.1.1.10,29,-0.070,-0.070,-0.070,0.000,0.000,0.000
1644939987974519040,2022-02-15-15:46:27,10.1.1.10,39,-0.080,-0.080,-0.080,0.000,0.000,0.000
1644939988156024832,2022-02-15-15:46:28,10.1.1.10,17,-0.080,-0.080,-0.080,0.000,0.000,0.000
1644939988834597120,2022-02-15-15:46:28,10.1.1.10,39,0.050,0.050,0.050,0.000,0.000,0.000
1644939989314652928,2022-02-15-15:46:29,10.1.1.10,12,0.050,0.050,0.050,0.000,0.000,0.000
1644939989534034944,2022-02-15-15:46:29,10.1.1.10,30,0.010,0.010,0.010,0.000,0.000,0.000
1644939990255345152,2022-02-15-15:46:30,10.1.1.10,39,-0.070,-0.070,-0.070,0.000,0.000,0.000
1644939990294099200,2022-02-15-15:46:30,10.1.1.10,28,-0.060,-0.060,-0.060,0.000,0.000,0.000
1644939990914757120,2022-02-15-15:46:30,10.1.1.10,39,0.060,0.060,0.060,0.000,0.000,0.000
1644939991294266880,2022-02-15-15:46:31,10.1.1.10,12,0.060,0.060,0.060,0.000,0.000,0.000
1644939991514259200,2022-02-15-15:46:31,10.1.1.10,30,0.020,0.020,0.020,0.000,0.000,0.000
1644939992535034880,2022-02-15-15:46:32,10.1.1.10,39,-0.020,-0.020,-0.020,0.000,0.000,0.000
1644939993194061056,2022-02-15-15:46:33,10.1.1.10,38,0.090,0.090,0.090,0.000,0.000,0.000
1644939993694781184,2022-02-15-15:46:33,10.1.1.10,30,-0.010,-0.010,-0.010,0.000,0.000,0.000
1644939993755165184,2022-02-15-15:46:33,10.1.1.10,39,-0.020,-0.020,-0.020,0.000,0.000,0.000
1644939994555730944,2022-02-15-15:46:34,10.1.1.10,25,-0.020,-0.020,-0.020,0.000,0.000,0.000
1644939994814969088,2022-02-15-15:46:34,10.1.1.10,29,0.030,0.030,0.030,0.000,0.000,0.000
1644939995514683904,2022-02-15-15:46:35,10.1.1.10,14,0.030,0.030,0.030,0.000,0.000,0.000
1644939995835236096,2022-02-15-15:46:35,10.1.1.10,29,-0.030,-0.030,-0.030,0.000,0.000,0.000
1644939996234733056,2022-02-15-15:46:36,10.1.1.10,21,-0.090,-0.090,-0.090,0.000,0.000,0.000
1644939996335251968,2022-02-15-15:46:36,10.1.1.10,20,-0.070,-0.070,-0.070,0.000,0.000,0.000
1644939996394706944,2022-02-15-15:46:36,10.1.1.10,29,-0.060,-0.060,-0.060,0.000,0.000,0.000
1644939997055377920,2022-02-15-15:46:37,10.1.1.10,29,0.070,0.070,0.070,0.000,0.000,0.000
1644939997355770112,2022-02-15-15:46:37,10.1.1.10,23,0.070,0.070,0.070,0.000,0.000,0.000
1644939998034893056,2022-02-15-15:46:38,10.1.1.10,39,-0.060,-0.060,-0.060,0.000,0.000,0.000
1644939998414964992,2022-02-15-15:46:38,10.1.1.10,10,-0.060,-0.060,-0.060,0.000,0.000,0.000
1644939998494119936,2022-02-15-15:46:38,10.1.1.10,39,-0.050,-0.050,-0.050,0.000,0.000,0.000
1644939999257400064,2022-02-15-15:46:39,10.1.1.10,29,0.100,0.100,0.100,0.000,0.000,0.000
1644939999775075840,2022-02-15-15:46:39,10.1.1.10,39,0.000,0.000,0.000,0.000,0.000,0.000
1644940000236328960,2022-02-15-15:46:40,10.1.1.10,20,-0.090,-0.090,-0.090,0.000,0.000,0.000
1644940000295049984,2022-02-15-15:46:40,10.1.1.10,29,-0.100,-0.100,-0.100,0.000,0.000,0.000
1644940000914976000,2022-02-15-15:46:40,10.1.1.10,39,0.020,0.020,0.020,0.000,0.000,0.000
1644940001476145920,2022-02-15-15:46:41,10.1.1.10,39,0.070,0.070,0.070,0.000,0.000,0.000
1644940001514648064,2022-02-15-15:46:41,10.1.1.10,29,0.060,0.060,0.060,0.000,0.000,0.000
1644940002054880000,2022-02-15-15:46:42,10.1.1.10,40,-0.040,-0.040,-0.040,0.000,0.000,0.000
1644940002655553024,2022-02-15-15:46:42,10.1.1.10,23,-0.040,-0.040,-0.040,0.000,0.000,0.000
1644940002917056000,2022-02-15-15:46:42,10.1.1.10,30,0.010,0.010,0.010,0.000,0.000,0.000
1644940003075809024,2022-02-15-15:46:43,10.1.1.10,29,0.040,0.040,0.040,0.000,0.000,0.000
1644940003697662208,2022-02-15-15:46:43,10.1.1.10,6,0.040,0.040,0.040,0.000,0.000,0.000
1644940003979373824,2022-02-15-15:46:43,10.1.1.10,29,-0.010,-0.010,-0.010,0.000,0.000,0.000
1644940004494419200,2022-02-15-15:46:44,10.1.1.10,39,-0.090,-0.090,-0.090,0.000,0.000,0.000
1644940004534797056,2022-02-15-15:46:44,10.1.1.10,29,-0.080,-0.080,-0.080,0.000,0.000,0.000
1644940005414300928,2022-02-15-15:46:45,10.1.1.10,39,0.090,0.090,0.090,0.000,0.000,0.000
1644940005496691968,2022-02-15-15:46:45,10.1.1.10,16,0.090,0.090,0.090,0.000,0.000,0.000
1644940005915128064,2022-02-15-15:46:45,10.1.1.10,29,0.010,0.010,0.010,0.000,0.000,0.000
1644940005975291904,2022-02-15-15:46:45,10.1.1.10,38,0.000,0.000,0.000,0.000,0.000,0.000
1644940006974176000,2022-02-15-15:46:46,10.1.1.10,13,0.000,0.000,0.000,0.000,0.000,0.000
1644940008015077120,2022-02-15-15:46:48,10.1.1.10,24,0.000,0.000,0.000,0.000,0.000,0.000
1644940008597166080,2022-02-15-15:46:48,10.1.1.10,29,-0.090,-0.090,-0.090,0.000,0.000,0.000
1644940009537036032,2022-02-15-15:46:49,10.1.1.10,29,0.090,0.090,0.090,0.000,0.000,0.000
1644940009634179072,2022-02-15-15:46:49,10.1.1.10,24,0.090,0.090,0.090,0.000,0.000,0.000
1644940009794899968,2022-02-15-15:46:49,10.1.1.10,29,0.060,0.060,0.060,0.000,0.000,0.000
1644940011094597120,2022-02-15-15:46:51,10.1.1.10,29,-0.010,-0.010,-0.010,0.000,0.000,0.000
1644940012235480064,2022-02-15-15:46:52,10.1.1.10,16,-0.010,-0.010,-0.010,0.000,0.000,0.000
1644940012914833920,2022-02-15-15:46:52,10.1.1.10,29,-0.060,-0.060,-0.060,0.000,0.000,0.000
1644940014534644992,2022-02-15-15:46:54,10.1.1.10,16,-0.060,-0.060,-0.060,0.000,0.000,0.000
1644940014854507008,2022-02-15-15:46:54,10.1.1.10,29,-0.080,-0.080,-0.080,0.000,0.000,0.000
1644940015254852096,2022-02-15-15:46:55,10.1.1.10,19,0.000,0.000,0.000,0.000,0.000,0.000
1644940015314796032,2022-02-15-15:46:55,10.1.1.10,29,0.010,0.010,0.010,0.000,0.000,0.000
1644940015874456832,2022-02-15-15:46:55,10.1.1.10,29,0.080,0.080,0.080,0.000,0.000,0.000
1644940016474790144,2022-02-15-15:46:56,10.1.1.10,20,-0.040,-0.040,-0.040,0.000,0.000,0.000
1644940017095046912,2022-02-15-15:46:57,10.1.1.10,23,-0.040,-0.040,-0.040,0.000,0.000,0.000
1644940017454953984,2022-02-15-15:46:57,10.1.1.10,29,0.030,0.030,0.030,0.000,0.000,0.000
1644940018074883840,2022-02-15-15:46:58,10.1.1.10,39,0.050,0.050,0.050,0.000,0.000,0.000
1644940018534286848,2022-02-15-15:46:58,10.1.1.10,39,-0.040,-0.040,-0.040,0.000,0.000,0.000
1644940019115657216,2022-02-15-15:46:59,10.1.1.10,9,-0.040,-0.040,-0.040,0.000,0.000,0.000
1644940019695022080,2022-02-15-15:46:59,10.1.1.10,29,0.070,0.070,0.070,0.000,0.000,0.000
1644940019994981120,2022-02-15-15:46:59,10.1.1.10,23,0.070,0.070,0.070,0.000,0.000,0.000
1644940020156066048,2022-02-15-15:47:00,10.1.1.10,29,0.040,0.040,0.040,0.000,0.000,0.000
1644940021494415104,2022-02-15-15:47:01,10.1.1.10,39,0.020,0.020,0.020,0.000,0.000,0.000
1644940022294621952,2022-02-15-15:47:02,10.1.1.10,23,0.020,0.020,0.020,0.000,0.000,0.000
1644940022514275072,2022-02-15-15:47:02,10.1.1.10,39,-0.020,-0.020,-0.020,0.000,0.000,0.000
1644940023074553856,2022-02-15-15:47:03,10.1.1.10,39,-0.070,-0.070,-0.070,0.000,0.000,0.000
1644940023634907904,2022-02-15-15:47:03,10.1.1.10,39,0.040,0.040,0.040,0.000,0.000,0.000
1644940023994275072,2022-02-15-15:47:03,10.1.1.10,39,0.090,0.090,0.090,0.000,0.000,0.000
1644940024336195840,2022-02-15-15:47:04,10.1.1.10,20,0.020,0.020,0.020,0.000,0.000,0.000
1644940024394146048,2022-02-15-15:47:04,10.1.1.10,29,0.010,0.010,0.010,0.000,0.000,0.000
1644940024854917120,2022-02-15-15:47:04,10.1.1.10,29,-0.080,-0.080,-0.080,0.000,0.000,0.000
1644940024915234048,2022-02-15-15:47:04,10.1.1.10,39,-0.090,-0.090,-0.090,0.000,0.000,0.000
1644940024994499840,2022-02-15-15:47:04,10.1.1.10,17,-0.090,-0.090,-0.090,0.000,0.000,0.000
1644940025254889984,2022-02-15-15:47:05,10.1.1.10,19,-0.040,-0.040,-0.040,0.000,0.000,0.000
1644940026674888960,2022-02-15-15:47:06,10.1.1.10,13,-0.040,-0.040,-0.040,0.000,0.000,0.000
1644940027278301952,2022-02-15-15:47:07,10.1.1.10,9,-0.040,-0.040,-0.040,0.000,0.000,0.000
1644940027594304000,2022-02-15-15:47:07,10.1.1.10,20,0.020,0.020,0.020,0.000,0.000,0.000
1644940027715130112,2022-02-15-15:47:07,10.1.1.10,39,0.040,0.040,0.040,0.000,0.000,0.000
1644940028315484160,2022-02-15-15:47:08,10.1.1.10,24,0.040,0.040,0.040,0.000,0.000,0.000
1644940029735478016,2022-02-15-15:47:09,10.1.1.10,17,0.040,0.040,0.040,0.000,0.000,0.000
1644940030355405056,2022-02-15-15:47:10,10.1.1.10,24,0.040,0.040,0.040,0.000,0.000,0.000
1644940030614770944,2022-02-15-15:47:10,10.1.1.10,30,-0.010,-0.010,-0.010,0.000,0.000,0.000
1644940031518772992,2022-02-15-15:47:11,10.1.1.10,15,-0.010,-0.010,-0.010,0.000,0.000,0.000
1644940032294136064,2022-02-15-15:47:12,10.1.1.10,29,0.060,0.060,0.060,0.000,0.000,0.000
1644940032355240192,2022-02-15-15:47:12,10.1.1.10,39,0.050,0.050,0.050,0.000,0.000,0.000
1644940033858392832,2022-02-15-15:47:13,10.1.1.10,13,0.050,0.050,0.050,0.000,0.000,0.000
1644940034074855168,2022-02-15-15:47:14,10.1.1.10,30,0.090,0.090,0.090,0.000,0.000,0.000
1644940034155047936,2022-02-15-15:47:14,10.1.1.10,7,0.090,0.090,0.090,0.000,0.000,0.000
1644940034634594048,2022-02-15-15:47:14,10.1.1.10,30,-0.000,-0.000,-0.000,0.000,0.000,0.000
1644940035295084032,2022-02-15-15:47:15,10.1.1.10,29,-0.070,-0.070,-0.070,0.000,0.000,0.000
1644940036515132928,2022-02-15-15:47:16,10.1.1.10,29,0.030,0.030,0.030,0.000,0.000,0.000
1644940037694062848,2022-02-15-15:47:17,10.1.1.10,29,-0.000,-0.000,-0.000,0.000,0.000,0.000
1644940038314508800,2022-02-15-15:47:18,10.1.1.10,39,0.080,0.080,0.080,0.000,0.000,0.000
1644940038655162112,2022-02-15-15:47:18,10.1.1.10,20,0.010,0.010,0.010,0.000,0.000,0.000
1644940038714516992,2022-02-15-15:47:18,10.1.1.10,29,0.000,0.000,0.000,0.000,0.000,0.000
1644940039214665984,2022-02-15-15:47:19,10.1.1.10,20,-0.100,-0.100,-0.100,0.000,0.000,0.000
1644940039274616064,2022-02-15-15:47:19,10.1.1.10,29,-0.090,-0.090,-0.090,0.000,0.000,0.000
1644940039734724096,2022-02-15-15:47:19,10.1.1.10,30,0.000,0.000,0.000,0.000,0.000,0.000
1644940040254700032,2022-02-15-15:47:20,10.1.1.10,39,0.100,0.100,0.100,0.000,0.000,0.000
1644940042274748160,2022-02-15-15:47:22,10.1.1.10,21,0.100,0.100,0.100,0.000,0.000,0.000
1644940042374275840,2022-02-15-15:47:22,10.1.1.10,19,0.080,0.080,0.080,0.000,0.000,0.000
1644940043414621952,2022-02-15-15:47:23,10.1.1.10,39,-0.080,-0.080,-0.080,0.000,0.000,0.000
1644940044055435776,2022-02-15-15:47:24,10.1.1.10,21,0.050,0.050,0.050,0.000,0.000,0.000
1644940044554816000,2022-02-15-15:47:24,10.1.1.10,11,0.050,0.050,0.050,0.000,0.000,0.000
1644940045294928128,2022-02-15-15:47:25,10.1.1.10,40,-0.090,-0.090,-0.090,0.000,0.000,0.000
1644940045374353920,2022-02-15-15:47:25,10.1.1.10,18,-0.090,-0.090,-0.090,0.000,0.000,0.000
1644940045895955200,2022-02-15-15:47:25,10.1.1.10,30,0.010,0.010,0.010,0.000,0.000,0.000
1644940046515036160,2022-02-15-15:47:26,10.1.1.10,38,0.070,0.070,0.070,0.000,0.000,0.000
1644940047074778112,2022-02-15-15:47:27,10.1.1.10,39,-0.040,-0.040,-0.040,0.000,0.000,0.000
1644940047674680832,2022-02-15-15:47:27,10.1.1.10,22,-0.040,-0.040,-0.040,0.000,0.000,0.000
1644940048194569216,2022-02-15-15:47:28,10.1.1.10,30,0.060,0.060,0.060,0.000,0.000,0.000
1644940048594782208,2022-02-15-15:47:28,10.1.1.10,24,0.060,0.060,0.060,0.000,0.000,0.000
1644940049014292992,2022-02-15-15:47:29,10.1.1.10,39,-0.020,-0.020,-0.020,0.000,0.000,0.000
1644940049795161856,2022-02-15-15:47:29,10.1.1.10,7,-0.020,-0.020,-0.020,0.000,0.000,0.000
1644940050895112960,2022-02-15-15:47:30,10.1.1.10,40,0.010,0.010,0.010,0.000,0.000,0.000
1644940051994749184,2022-02-15-15:47:31,10.1.1.10,11,0.010,0.010,0.010,0.000,0.000,0.000
1644940052054276864,2022-02-15-15:47:32,10.1.1.10,20,0.020,0.020,0.020,0.000,0.000,0.000
1644940052675396864,2022-02-15-15:47:32,10.1.1.10,29,0.060,0.060,0.060,0.000,0.000,0.000
1644940053555588096,2022-02-15-15:47:33,10.1.1.10,39,-0.090,-0.090,-0.090,0.000,0.000,0.000
1644940054014693888,2022-02-15-15:47:34,10.1.1.10,39,0.000,0.000,0.000,0.000,0.000,0.000
1644940055014729984,2022-02-15-15:47:35,10.1.1.10,20,0.000,0.000,0.000,0.000,0.000,0.000
1644940055074615040,2022-02-15-15:47:35,10.1.1.10,29,-0.010,-0.010,-0.010,0.000,0.000,0.000
1644940055734030848,2022-02-15-15:47:35,10.1.1.10,30,-0.060,-0.060,-0.060,0.000,0.000,0.000
1644940057356528896,2022-02-15-15:47:37,10.1.1.10,21,-0.060,-0.060,-0.060,0.000,0.000,0.000
1644940057754720000,2022-02-15-15:47:37,10.1.1.10,10,-0.060,-0.060,-0.060,0.000,0.000,0.000
1644940057814647040,2022-02-15-15:47:37,10.1.1.10,19,-0.050,-0.050,-0.050,0.000,0.000,0.000
1644940058995323904,2022-02-15-15:47:38,10.1.1.10,20,0.020,0.020,0.020,0.000,0.000,0.000
1644940059055470080,2022-02-15-15:47:39,10.1.1.10,29,0.010,0.010,0.010,0.000,0.000,0.000
1644940059514067968,2022-02-15-15:47:39,10.1.1.10,29,-0.080,-0.080,-0.080,0.000,0.000,0.000
1644940059574606848,2022-02-15-15:47:39,10.1.1.10,39,-0.090,-0.090,-0.090,0.000,0.000,0.000
1644940059655177216,2022-02-15-15:47:39,10.1.1.10,15,-0.090,-0.090,-0.090,0.000,0.000,0.000
1644940060175635968,2022-02-15-15:47:40,10.1.1.10,30,0.010,0.010,0.010,0.000,0.000,0.000
1644940060734486016,2022-02-15-15:47:40,10.1.1.10,29,0.080,0.080,0.080,0.000,0.000,0.000
1644940060794712064,2022-02-15-15:47:40,10.1.1.10,39,0.070,0.070,0.070,0.000,0.000,0.000
1644940061594801920,2022-02-15-15:47:41,10.1.1.10,30,-0.090,-0.090,-0.090,0.000,0.000,0.000
1644940061654866944,2022-02-15-15:47:41,10.1.1.10,39,-0.100,-0.100,-0.100,0.000,0.000,0.000
1644940062157393920,2022-02-15-15:47:42,10.1.1.10,31,0.000,0.000,0.000,0.000,0.000,0.000
1644940063154647040,2022-02-15-15:47:43,10.1.1.10,17,0.000,0.000,0.000,0.000,0.000,0.000
1644940064174597888,2022-02-15-15:47:44,10.1.1.10,21,0.000,0.000,0.000,0.000,0.000,0.000
1644940064894965760,2022-02-15-15:47:44,10.1.1.10,30,0.060,0.060,0.060,0.000,0.000,0.000
1644940064934444032,2022-02-15-15:47:44,10.1.1.10,19,0.050,0.050,0.050,0.000,0.000,0.000
1644940065854945024,2022-02-15-15:47:45,10.1.1.10,30,-0.070,-0.070,-0.070,0.000,0.000,0.000
1644940066516488960,2022-02-15-15:47:46,10.1.1.10,29,0.060,0.060,0.060,0.000,0.000,0.000
1644940066917249024,2022-02-15-15:47:46,10.1.1.10,23,0.060,0.060,0.060,0.000,0.000,0.000
1644940068034921984,2022-02-15-15:47:48,10.1.1.10,30,-0.040,-0.040,-0.040,0.000,0.000,0.000
1644940068095148032,2022-02-15-15:47:48,10.1.1.10,39,-0.030,-0.030,-0.030,0.000,0.000,0.000
1644940068935132928,2022-02-15-15:47:48,10.1.1.10,20,0.060,0.060,0.060,0.000,0.000,0.000
1644940069694926080,2022-02-15-15:47:49,10.1.1.10,20,-0.090,-0.090,-0.090,0.000,0.000,0.000
1644940069794454016,2022-02-15-15:47:49,10.1.1.10,19,-0.090,-0.090,-0.090,0.000,0.000,0.000
1644940071374966016,2022-02-15-15:47:51,10.1.1.10,29,-0.020,-0.020,-0.020,0.000,0.000,0.000
1644940072175041024,2022-02-15-15:47:52,10.1.1.10,19,-0.020,-0.020,-0.020,0.000,0.000,0.000
1644940073375641088,2022-02-15-15:47:53,10.1.1.10,6,-0.020,-0.020,-0.020,0.000,0.000,0.000
1644940074116352000,2022-02-15-15:47:54,10.1.1.10,39,-0.040,-0.040,-0.040,0.000,0.000,0.000
1644940075514971136,2022-02-15-15:47:55,10.1.1.10,23,-0.040,-0.040,-0.040,0.000,0.000,0.000
1644940076114639872,2022-02-15-15:47:56,10.1.1.10,12,-0.040,-0.040,-0.040,0.000,0.000,0.000
1644940076993982976,2022-02-15-15:47:56,10.1.1.10,30,0.070,0.070,0.070,0.000,0.000,0.000
1644940077894660864,2022-02-15-15:47:57,10.1.1.10,19,-0.090,-0.090,-0.090,0.000,0.000,0.000
1644940078814727936,2022-02-15-15:47:58,10.1.1.10,29,0.090,0.090,0.090,0.000,0.000,0.000
1644940078873897984,2022-02-15-15:47:58,10.1.1.10,39,0.100,0.100,0.100,0.000,0.000,0.000
1644940080380008960,2022-02-15-15:48:00,10.1.1.10,29,-0.020,-0.020,-0.020,0.000,0.000,0.000
1644940081575133952,2022-02-15-15:48:01,10.1.1.10,24,-0.020,-0.020,-0.020,0.000,0.000,0.000
1644940081934242048,2022-02-15-15:48:01,10.1.1.10,30,-0.090,-0.090,-0.090,0.000,0.000,0.000
1644940082015782144,2022-02-15-15:48:02,10.1.1.10,9,-0.090,-0.090,-0.090,0.000,0.000,0.000
1644940083955478784,2022-02-15-15:48:03,10.1.1.10,13,-0.090,-0.090,-0.090,0.000,0.000,0.000
1644940084055220992,2022-02-15-15:48:04,10.1.1.10,12,-0.090,-0.090,-0.090,0.000,0.000,0.000
1644940085295408896,2022-02-15-15:48:05,10.1.1.10,30,0.050,0.050,0.050,0.000,0.000,0.000
1644940086815704064,2022-02-15-15:48:06,10.1.1.10,26,0.050,0.050,0.050,0.000,0.000,0.000
1644940087274814976,2022-02-15-15:48:07,10.1.1.10,29,0.060,0.060,0.060,0.000,0.000,0.000
1644940087994497024,2022-02-15-15:48:07,10.1.1.10,39,-0.080,-0.080,-0.080,0.000,0.000,0.000
1644940088175553024,2022-02-15-15:48:08,10.1.1.10,16,-0.080,-0.080,-0.080,0.000,0.000,0.000
1644940089175235072,2022-02-15-15:48:09,10.1.1.10,29,0.090,0.090,0.090,0.000,0.000,0.000
1644940089895064064,2022-02-15-15:48:09,10.1.1.10,29,-0.050,-0.050,-0.050,0.000,0.000,0.000
1644940090394447104,2022-02-15-15:48:10,10.1.1.10,12,-0.050,-0.050,-0.050,0.000,0.000,0.000
1644940090515059968,2022-02-15-15:48:10,10.1.1.10,30,-0.030,-0.030,-0.030,0.000,0.000,0.000
1644940091834908928,2022-02-15-15:48:11,10.1.1.10,10,-0.030,-0.030,-0.030,0.000,0.000,0.000
1644940092558013952,2022-02-15-15:48:12,10.1.1.10,10,-0.030,-0.030,-0.030,0.000,0.000,0.000
1644940093894740224,2022-02-15-15:48:13,10.1.1.10,20,-0.030,-0.030,-0.030,0.000,0.000,0.000
1644940093955400960,2022-02-15-15:48:13,10.1.1.10,29,-0.040,-0.040,-0.040,0.000,0.000,0.000
1644940094555011072,2022-02-15-15:48:14,10.1.1.10,20,-0.040,-0.040,-0.040,0.000,0.000,0.000
1644940095274534912,2022-02-15-15:48:15,10.1.1.10,29,0.100,0.100,0.100,0.000,0.000,0.000
1644940095939145984,2022-02-15-15:48:15,10.1.1.10,30,-0.030,-0.030,-0.030,0.000,0.000,0.000
1644940096634521088,2022-02-15-15:48:16,10.1.1.10,16,-0.030,-0.030,-0.030,0.000,0.000,0.000
1644940096675120128,2022-02-15-15:48:16,10.1.1.10,6,-0.030,-0.030,-0.030,0.000,0.000,0.000
1644940097955281920,2022-02-15-15:48:17,10.1.1.10,15,-0.030,-0.030,-0.030,0.000,0.000,0.000
1644940098655500032,2022-02-15-15:48:18,10.1.1.10,6,-0.030,-0.030,-0.030,0.000,0.000,0.000
1644940099974664960,2022-02-15-15:48:19,10.1.1.10,9,-0.030,-0.030,-0.030,0.000,0.000,0.000
1644940100695055872,2022-02-15-15:48:20,10.1.1.10,12,-0.030,-0.030,-0.030,0.000,0.000,0.000
1644940101374941952,2022-02-15-15:48:21,10.1.1.10,30,0.100,0.100,0.100,0.000,0.000,0.000
1644940103418589184,2022-02-15-15:48:23,10.1.1.10,19,0.100,0.100,0.100,0.000,0.000,0.000
1644940103835164160,2022-02-15-15:48:23,10.1.1.10,30,0.020,0.020,0.020,0.000,0.000,0.000
1644940105056058880,2022-02-15-15:48:25,10.1.1.10,12,0.020,0.020,0.020,0.000,0.000,0.000
1644940105876236032,2022-02-15-15:48:25,10.1.1.10,5,0.020,0.020,0.020,0.000,0.000,0.000
1644940106056391936,2022-02-15-15:48:26,10.1.1.10,29,-0.010,-0.010,-0.010,0.000,0.000,0.000
1644940106955200000,2022-02-15-15:48:26,10.1.1.10,14,-0.010,-0.010,-0.010,0.000,0.000,0.000
1644940107235513856,2022-02-15-15:48:27,10.1.1.10,39,0.040,0.040,0.040,0.000,0.000,0.000
1644940107815284992,2022-02-15-15:48:27,10.1.1.10,13,0.040,0.040,0.040,0.000,0.000,0.000
1644940109236093952,2022-02-15-15:48:29,10.1.1.10,11,0.040,0.040,0.040,0.000,0.000,0.000
1644940109855156992,2022-02-15-15:48:29,10.1.1.10,24,0.040,0.040,0.040,0.000,0.000,0.000
1644940110314866176,2022-02-15-15:48:30,10.1.1.10,29,-0.050,-0.050,-0.050,0.000,0.000,0.000
1644940110814810880,2022-02-15-15:48:30,10.1.1.10,17,-0.050,-0.050,-0.050,0.000,0.000,0.000
1644940112357072128,2022-02-15-15:48:32,10.1.1.10,23,-0.050,-0.050,-0.050,0.000,0.000,0.000
1644940112856011008,2022-02-15-15:48:32,10.1.1.10,13,-0.050,-0.050,-0.050,0.000,0.000,0.000
1644940113794493952,2022-02-15-15:48:33,10.1.1.10,29,0.070,0.070,0.070,0.000,0.000,0.000
1644940115495717888,2022-02-15-15:48:35,10.1.1.10,9,0.070,0.070,0.070,0.000,0.000,0.000
1644940115815494144,2022-02-15-15:48:35,10.1.1.10,24,0.070,0.070,0.070,0.000,0.000,0.000
1644940116796446976,2022-02-15-15:48:36,10.1.1.10,39,-0.080,-0.080,-0.080,0.000,0.000,0.000
1644940117294464000,2022-02-15-15:48:37,10.1.1.10,29,0.020,0.020,0.020,0.000,0.000,0.000
1644940118095662080,2022-02-15-15:48:38,10.1.1.10,16,0.020,0.020,0.020,0.000,0.000,0.000
1644940118614917888,2022-02-15-15:48:38,10.1.1.10,29,-0.080,-0.080,-0.080,0.000,0.000,0.000
1644940118816142080,2022-02-15-15:48:38,10.1.1.10,24,-0.080,-0.080,-0.080,0.000,0.000,0.000
1644940120674979072,2022-02-15-15:48:40,10.1.1.10,20,-0.080,-0.080,-0.080,0.000,0.000,0.000
1644940120878608896,2022-02-15-15:48:40,10.1.1.10,21,-0.080,-0.080,-0.080,0.000,0.000,0.000
1644940121534810112,2022-02-15-15:48:41,10.1.1.10,20,0.050,0.050,0.050,0.000,0.000,0.000
1644940121595303936,2022-02-15-15:48:41,10.1.1.10,30,0.060,0.060,0.060,0.000,0.000,0.000
1644940121994898944,2022-02-15-15:48:41,10.1.1.10,23,0.060,0.060,0.060,0.000,0.000,0.000
1644940123214132992,2022-02-15-15:48:43,10.1.1.10,30,-0.020,-0.020,-0.020,0.000,0.000,0.000
1644940123814273024,2022-02-15-15:48:43,10.1.1.10,20,0.100,0.100,0.100,0.000,0.000,0.000
1644940124434619904,2022-02-15-15:48:44,10.1.1.10,30,-0.020,-0.020,-0.020,0.000,0.000,0.000
1644940125234360064,2022-02-15-15:48:45,10.1.1.10,19,-0.020,-0.020,-0.020,0.000,0.000,0.000
1644940126456743936,2022-02-15-15:48:46,10.1.1.10,25,-0.020,-0.020,-0.020,0.000,0.000,0.000
1644940127254481152,2022-02-15-15:48:47,10.1.1.10,13,-0.020,-0.020,-0.020,0.000,0.000,0.000
1644940128234738944,2022-02-15-15:48:48,10.1.1.10,29,0.030,0.030,0.030,0.000,0.000,0.000
1644940129534651136,2022-02-15-15:48:49,10.1.1.10,12,0.030,0.030,0.030,0.000,0.000,0.000
1644940129754626048,2022-02-15-15:48:49,10.1.1.10,30,0.070,0.070,0.070,0.000,0.000,0.000
1644940130053849856,2022-02-15-15:48:50,10.1.1.10,25,0.070,0.070,0.070,0.000,0.000,0.000
1644940131013873152,2022-02-15-15:48:51,10.1.1.10,20,-0.080,-0.080,-0.080,0.000,0.000,0.000
1644940132494766080,2022-02-15-15:48:52,10.1.1.10,30,-0.010,-0.010,-0.010,0.000,0.000,0.000
1644940133393992960,2022-02-15-15:48:53,10.1.1.10,18,-0.010,-0.010,-0.010,0.000,0.000,0.000
1644940134113828864,2022-02-15-15:48:54,10.1.1.10,30,0.070,0.070,0.070,0.000,0.000,0.000
1644940134974308864,2022-02-15-15:48:54,10.1.1.10,30,-0.100,-0.100,-0.100,0.000,0.000,0.000
1644940136977675008,2022-02-15-15:48:56,10.1.1.10,7,-0.100,-0.100,-0.100,0.000,0.000,0.000
1644940137555904000,2022-02-15-15:48:57,10.1.1.10,29,0.010,0.010,0.010,0.000,0.000,0.000
1644940138114729984,2022-02-15-15:48:58,10.1.1.10,31,0.080,0.080,0.080,0.000,0.000,0.000
1644940139894497024,2022-02-15-15:48:59,10.1.1.10,39,0.070,0.070,0.070,0.000,0.000,0.000
1644940140173669120,2022-02-15-15:49:00,10.1.1.10,15,0.070,0.070,0.070,0.000,0.000,0.000
1644940141894726144,2022-02-15-15:49:01,10.1.1.10,12,0.070,0.070,0.070,0.000,0.000,0.000
1644940142194859008,2022-02-15-15:49:02,10.1.1.10,7,0.070,0.070,0.070,0.000,0.000,0.000
1644940143794932992,2022-02-15-15:49:03,10.1.1.10,39,0.040,0.040,0.040,0.000,0.000,0.000
1644940144374761216,2022-02-15-15:49:04,10.1.1.10,13,0.040,0.040,0.040,0.000,0.000,0.000
1644940144694492928,2022-02-15-15:49:04,10.1.1.10,29,-0.020,-0.020,-0.020,0.000,0.000,0.000
1644940145493992192,2022-02-15-15:49:05,10.1.1.10,18,-0.020,-0.020,-0.020,0.000,0.000,0.000
1644940146474611968,2022-02-15-15:49:06,10.1.1.10,39,0.030,0.030,0.030,0.000,0.000,0.000
1644940147274346240,2022-02-15-15:49:07,10.1.1.10,30,-0.070,-0.070,-0.070,0.000,0.000,0.000
1644940148975182080,2022-02-15-15:49:08,10.1.1.10,6,-0.070,-0.070,-0.070,0.000,0.000,0.000
1644940149295262208,2022-02-15-15:49:09,10.1.1.10,23,-0.070,-0.070,-0.070,0.000,0.000,0.000
1644940149494345984,2022-02-15-15:49:09,10.1.1.10,20,-0.030,-0.030,-0.030,0.000,0.000,0.000
1644940150814296064,2022-02-15-15:49:10,10.1.1.10,23,-0.030,-0.030,-0.030,0.000,0.000,0.000
1644940151014839808,2022-02-15-15:49:11,10.1.1.10,20,-0.070,-0.070,-0.070,0.000,0.000,0.000
1644940151314959104,2022-02-15-15:49:11,10.1.1.10,16,-0.070,-0.070,-0.070,0.000,0.000,0.000
1644940152894440960,2022-02-15-15:49:12,10.1.1.10,29,-0.040,-0.040,-0.040,0.000,0.000,0.000
1644940153495268096,2022-02-15-15:49:13,10.1.1.10,22,-0.040,-0.040,-0.040,0.000,0.000,0.000
1644940154414212864,2022-02-15-15:49:14,10.1.1.10,29,0.060,0.060,0.060,0.000,0.000,0.000
1644940156035687936,2022-02-15-15:49:16,10.1.1.10,6,0.060,0.060,0.060,0.000,0.000,0.000
1644940156454860032,2022-02-15-15:49:16,10.1.1.10,15,0.060,0.060,0.060,0.000,0.000,0.000
1644940158074668032,2022-02-15-15:49:18,10.1.1.10,11,0.060,0.060,0.060,0.000,0.000,0.000
1644940158494149888,2022-02-15-15:49:18,10.1.1.10,25,0.060,0.060,0.060,0.000,0.000,0.000
1644940158955730944,2022-02-15-15:49:18,10.1.1.10,30,-0.030,-0.030,-0.030,0.000,0.000,0.000
1644940159655344896,2022-02-15-15:49:19,10.1.1.10,22,-0.030,-0.030,-0.030,0.000,0.000,0.000
1644940160973875968,2022-02-15-15:49:20,10.1.1.10,16,-0.030,-0.030,-0.030,0.000,0.000,0.000
1644940161194969856,2022-02-15-15:49:21,10.1.1.10,30,-0.070,-0.070,-0.070,0.000,0.000,0.000
1644940161494728192,2022-02-15-15:49:21,10.1.1.10,21,-0.070,-0.070,-0.070,0.000,0.000,0.000
1644940162674228992,2022-02-15-15:49:22,10.1.1.10,29,0.040,0.040,0.040,0.000,0.000,0.000
1644940162733940992,2022-02-15-15:49:22,10.1.1.10,39,0.030,0.030,0.030,0.000,0.000,0.000
1644940164034918912,2022-02-15-15:49:24,10.1.1.10,20,0.030,0.030,0.030,0.000,0.000,0.000
1644940164735089152,2022-02-15-15:49:24,10.1.1.10,11,0.030,0.030,0.030,0.000,0.000,0.000
1644940164954670080,2022-02-15-15:49:24,10.1.1.10,30,-0.010,-0.010,-0.010,0.000,0.000,0.000
1644940165854508032,2022-02-15-15:49:25,10.1.1.10,18,-0.010,-0.010,-0.010,0.000,0.000,0.000
1644940166974919168,2022-02-15-15:49:26,10.1.1.10,20,-0.010,-0.010,-0.010,0.000,0.000,0.000
1644940167874865920,2022-02-15-15:49:27,10.1.1.10,6,-0.010,-0.010,-0.010,0.000,0.000,0.000
1644940168995567104,2022-02-15-15:49:28,10.1.1.10,11,-0.010,-0.010,-0.010,0.000,0.000,0.000
1644940169915582976,2022-02-15-15:49:29,10.1.1.10,9,-0.010,-0.010,-0.010,0.000,0.000,0.000
1644940170454840064,2022-02-15-15:49:30,10.1.1.10,40,0.090,0.090,0.090,0.000,0.000,0.000
1644940170535842048,2022-02-15-15:49:30,10.1.1.10,17,0.090,0.090,0.090,0.000,0.000,0.000
1644940171975012096,2022-02-15-15:49:31,10.1.1.10,39,-0.010,-0.010,-0.010,0.000,0.000,0.000
1644940173054939136,2022-02-15-15:49:33,10.1.1.10,7,-0.010,-0.010,-0.010,0.000,0.000,0.000
1644940173974306048,2022-02-15-15:49:33,10.1.1.10,15,-0.010,-0.010,-0.010,0.000,0.000,0.000
1644940175094718976,2022-02-15-15:49:35,10.1.1.10,21,-0.010,-0.010,-0.010,0.000,0.000,0.000
1644940175815136000,2022-02-15-15:49:35,10.1.1.10,29,-0.050,-0.050,-0.050,0.000,0.000,0.000
1644940177336796928,2022-02-15-15:49:37,10.1.1.10,11,-0.050,-0.050,-0.050,0.000,0.000,0.000
1644940177855976960,2022-02-15-15:49:37,10.1.1.10,21,-0.050,-0.050,-0.050,0.000,0.000,0.000
1644940177914635008,2022-02-15-15:49:37,10.1.1.10,30,-0.040,-0.040,-0.040,0.000,0.000,0.000
1644940179315494144,2022-02-15-15:49:39,10.1.1.10,7,-0.040,-0.040,-0.040,0.000,0.000,0.000
1644940179936062976,2022-02-15-15:49:39,10.1.1.10,13,-0.040,-0.040,-0.040,0.000,0.000,0.000
1644940181175025920,2022-02-15-15:49:41,10.1.1.10,29,0.000,0.000,0.000,0.000,0.000,0.000
1644940182217545984,2022-02-15-15:49:42,10.1.1.10,18,0.000,0.000,0.000,0.000,0.000,0.000
1644940182496022016,2022-02-15-15:49:42,10.1.1.10,30,0.050,0.050,0.050,0.000,0.000,0.000
1644940182994940160,2022-02-15-15:49:42,10.1.1.10,14,0.050,0.050,0.050,0.000,0.000,0.000
1644940184514866176,2022-02-15-15:49:44,10.1.1.10,10,0.050,0.050,0.050,0.000,0.000,0.000
1644940185034657024,2022-02-15-15:49:45,10.1.1.10,25,0.050,0.050,0.050,0.000,0.000,0.000
1644940185555334144,2022-02-15-15:49:45,10.1.1.10,39,-0.050,-0.050,-0.050,0.000,0.000,0.000
1644940186033790208,2022-02-15-15:49:46,10.1.1.10,14,-0.050,-0.050,-0.050,0.000,0.000,0.000
1644940186493529088,2022-02-15-15:49:46,10.1.1.10,19,0.040,0.040,0.040,0.000,0.000,0.000
1644940187094508800,2022-02-15-15:49:47,10.1.1.10,13,0.040,0.040,0.040,0.000,0.000,0.000
1644940187777869056,2022-02-15-15:49:47,10.1.1.10,30,-0.090,-0.090,-0.090,0.000,0.000,0.000
1644940187854819072,2022-02-15-15:49:47,10.1.1.10,8,-0.090,-0.090,-0.090,0.000,0.000,0.000
1644940188734515968,2022-02-15-15:49:48,10.1.1.10,29,0.080,0.080,0.080,0.000,0.000,0.000
1644940188915844864,2022-02-15-15:49:48,10.1.1.10,6,0.080,0.080,0.080,0.000,0.000,0.000
1644940189355300864,2022-02-15-15:49:49,10.1.1.10,42,0.000,0.000,0.000,0.000,0.000,0.000
1644940190335248896,2022-02-15-15:49:50,10.1.1.10,9,0.000,0.000,0.000,0.000,0.000,0.000
1644940191354678016,2022-02-15-15:49:51,10.1.1.10,18,0.000,0.000,0.000,0.000,0.000,0.000
1644940192354404096,2022-02-15-15:49:52,10.1.1.10,8,0.000,0.000,0.000,0.000,0.000,0.000
1644940193134460928,2022-02-15-15:49:53,10.1.1.10,29,0.050,0.050,0.050,0.000,0.000,0.000
1644940194634657024,2022-02-15-15:49:54,10.1.1.10,11,0.050,0.050,0.050,0.000,0.000,0.000
1644940194754298880,2022-02-15-15:49:54,10.1.1.10,29,0.070,0.070,0.070,0.000,0.000,0.000
1644940195054146048,2022-02-15-15:49:55,10.1.1.10,23,0.070,0.070,0.070,0.000,0.000,0.000
1644940195214864896,2022-02-15-15:49:55,10.1.1.10,29,0.040,0.040,0.040,0.000,0.000,0.000
1644940196655033088,2022-02-15-15:49:56,10.1.1.10,22,0.040,0.040,0.040,0.000,0.000,0.000
1644940197274838016,2022-02-15-15:49:57,10.1.1.10,21,0.040,0.040,0.040,0.000,0.000,0.000
1644940198694681856,2022-02-15-15:49:58,10.1.1.10,17,0.040,0.040,0.040,0.000,0.000,0.000
1644940199014857984,2022-02-15-15:49:59,10.1.1.10,29,0.100,0.100,0.100,0.000,0.000,0.000
1644940200394606080,2022-02-15-15:50:00,10.1.1.10,29,-0.030,-0.030,-0.030,0.000,0.000,0.000
1644940201695375872,2022-02-15-15:50:01,10.1.1.10,6,-0.030,-0.030,-0.030,0.000,0.000,0.000
1644940201976313088,2022-02-15-15:50:01,10.1.1.10,29,-0.080,-0.080,-0.080,0.000,0.000,0.000
1644940202157249024,2022-02-15-15:50:02,10.1.1.10,6,-0.080,-0.080,-0.080,0.000,0.000,0.000
1644940202574140160,2022-02-15-15:50:02,10.1.1.10,20,0.000,0.000,0.000,0.000,0.000,0.000
1644940203195864064,2022-02-15-15:50:03,10.1.1.10,31,0.080,0.080,0.080,0.000,0.000,0.000
1644940203814614016,2022-02-15-15:50:03,10.1.1.10,39,-0.040,-0.040,-0.040,0.000,0.000,0.000
1644940204355716096,2022-02-15-15:50:04,10.1.1.10,20,-0.050,-0.050,-0.050,0.000,0.000,0.000
1644940205674483968,2022-02-15-15:50:05,10.1.1.10,19,-0.010,-0.010,-0.010,0.000,0.000,0.000
1644940206573635072,2022-02-15-15:50:06,10.1.1.10,9,-0.010,-0.010,-0.010,0.000,0.000,0.000
1644940207454298112,2022-02-15-15:50:07,10.1.1.10,29,0.040,0.040,0.040,0.000,0.000,0.000
1644940208854854144,2022-02-15-15:50:08,10.1.1.10,14,0.040,0.040,0.040,0.000,0.000,0.000
1644940209234671104,2022-02-15-15:50:09,10.1.1.10,40,0.090,0.090,0.090,0.000,0.000,0.000
1644940209936204800,2022-02-15-15:50:09,10.1.1.10,29,-0.050,-0.050,-0.050,0.000,0.000,0.000
1644940210134224896,2022-02-15-15:50:10,10.1.1.10,20,-0.090,-0.090,-0.090,0.000,0.000,0.000
1644940210234464000,2022-02-15-15:50:10,10.1.1.10,18,-0.090,-0.090,-0.090,0.000,0.000,0.000
1644940212174504960,2022-02-15-15:50:12,10.1.1.10,23,-0.090,-0.090,-0.090,0.000,0.000,0.000
1644940212274777856,2022-02-15-15:50:12,10.1.1.10,22,-0.090,-0.090,-0.090,0.000,0.000,0.000
1644940212395176960,2022-02-15-15:50:12,10.1.1.10,39,-0.070,-0.070,-0.070,0.000,0.000,0.000
1644940213013976064,2022-02-15-15:50:13,10.1.1.10,20,0.050,0.050,0.050,0.000,0.000,0.000
1644940213513808896,2022-02-15-15:50:13,10.1.1.10,9,0.050,0.050,0.050,0.000,0.000,0.000
1644940213594479104,2022-02-15-15:50:13,10.1.1.10,39,0.040,0.040,0.040,0.000,0.000,0.000
1644940214054459136,2022-02-15-15:50:14,10.1.1.10,39,-0.050,-0.050,-0.050,0.000,0.000,0.000
1644940214557154816,2022-02-15-15:50:14,10.1.1.10,12,-0.050,-0.050,-0.050,0.000,0.000,0.000
1644940216074661888,2022-02-15-15:50:16,10.1.1.10,10,-0.050,-0.050,-0.050,0.000,0.000,0.000
1644940216594312960,2022-02-15-15:50:16,10.1.1.10,19,-0.050,-0.050,-0.050,0.000,0.000,0.000
1644940217573964032,2022-02-15-15:50:17,10.1.1.10,29,0.060,0.060,0.060,0.000,0.000,0.000
1644940218333942784,2022-02-15-15:50:18,10.1.1.10,29,-0.090,-0.090,-0.090,0.000,0.000,0.000
1644940218414953984,2022-02-15-15:50:18,10.1.1.10,8,-0.090,-0.090,-0.090,0.000,0.000,0.000
1644940220353933056,2022-02-15-15:50:20,10.1.1.10,22,-0.090,-0.090,-0.090,0.000,0.000,0.000
1644940220454537984,2022-02-15-15:50:20,10.1.1.10,21,-0.090,-0.090,-0.090,0.000,0.000,0.000
1644940221314011136,2022-02-15-15:50:21,10.1.1.10,20,0.080,0.080,0.080,0.000,0.000,0.000
1644940221514280192,2022-02-15-15:50:21,10.1.1.10,18,0.080,0.080,0.080,0.000,0.000,0.000
1644940223334050816,2022-02-15-15:50:23,10.1.1.10,17,0.080,0.080,0.080,0.000,0.000,0.000
1644940223534885888,2022-02-15-15:50:23,10.1.1.10,14,0.080,0.080,0.080,0.000,0.000,0.000
1644940224834039040,2022-02-15-15:50:24,10.1.1.10,39,-0.030,-0.030,-0.030,0.000,0.000,0.000
1644940225374692864,2022-02-15-15:50:25,10.1.1.10,19,0.080,0.080,0.080,0.000,0.000,0.000
1644940225574811904,2022-02-15-15:50:25,10.1.1.10,16,0.080,0.080,0.080,0.000,0.000,0.000
1644940227034558976,2022-02-15-15:50:27,10.1.1.10,39,0.000,0.000,0.000,0.000,0.000,0.000
1644940227994370048,2022-02-15-15:50:27,10.1.1.10,30,0.010,0.010,0.010,0.000,0.000,0.000
1644940228614424832,2022-02-15-15:50:28,10.1.1.10,39,-0.090,-0.090,-0.090,0.000,0.000,0.000
1644940230534818048,2022-02-15-15:50:30,10.1.1.10,24,-0.090,-0.090,-0.090,0.000,0.000,0.000
1644940230634195200,2022-02-15-15:50:30,10.1.1.10,21,-0.090,-0.090,-0.090,0.000,0.000,0.000
1644940231657524992,2022-02-15-15:50:31,10.1.1.10,19,0.090,0.090,0.090,0.000,0.000,0.000
1644940233594310144,2022-02-15-15:50:33,10.1.1.10,18,0.090,0.090,0.090,0.000,0.000,0.000
1644940233694515968,2022-02-15-15:50:33,10.1.1.10,17,0.090,0.090,0.090,0.000,0.000,0.000
1644940235614265856,2022-02-15-15:50:35,10.1.1.10,11,0.090,0.090,0.090,0.000,0.000,0.000
1644940235714489088,2022-02-15-15:50:35,10.1.1.10,10,0.090,0.090,0.090,0.000,0.000,0.000
1644940237654292992,2022-02-15-15:50:37,10.1.1.10,26,0.090,0.090,0.090,0.000,0.000,0.000
1644940237754662912,2022-02-15-15:50:37,10.1.1.10,25,0.090,0.090,0.090,0.000,0.000,0.000
1644940239674439936,2022-02-15-15:50:39,10.1.1.10,22,0.090,0.090,0.090,0.000,0.000,0.000
1644940239775390976,2022-02-15-15:50:39,10.1.1.10,21,0.090,0.090,0.090,0.000,0.000,0.000
1644940241694489088,2022-02-15-15:50:41,10.1.1.10,17,0.090,0.090,0.090,0.000,0.000,0.000
1644940241794332928,2022-02-15-15:50:41,10.1.1.10,14,0.090,0.090,0.090,0.000,0.000,0.000
1644940242974404096,2022-02-15-15:50:42,10.1.1.10,29,-0.060,-0.060,-0.060,0.000,0.000,0.000
1644940243734520832,2022-02-15-15:50:43,10.1.1.10,29,0.090,0.090,0.090,0.000,0.000,0.000
1644940243813752832,2022-02-15-15:50:43,10.1.1.10,8,0.090,0.090,0.090,0.000,0.000,0.000
1644940244493808128,2022-02-15-15:50:44,10.1.1.10,30,-0.040,-0.040,-0.040,0.000,0.000,0.000
1644940245094135040,2022-02-15-15:50:45,10.1.1.10,22,-0.040,-0.040,-0.040,0.000,0.000,0.000
1644940245314116864,2022-02-15-15:50:45,10.1.1.10,39,0.000,0.000,0.000,0.000,0.000,0.000
1644940246074390016,2022-02-15-15:50:46,10.1.1.10,39,0.050,0.050,0.050,0.000,0.000,0.000
1644940246914949888,2022-02-15-15:50:46,10.1.1.10,20,-0.080,-0.080,-0.080,0.000,0.000,0.000
1644940246975048960,2022-02-15-15:50:46,10.1.1.10,30,-0.070,-0.070,-0.070,0.000,0.000,0.000
1644940247574733056,2022-02-15-15:50:47,10.1.1.10,20,0.050,0.050,0.050,0.000,0.000,0.000
1644940247636676096,2022-02-15-15:50:47,10.1.1.10,29,0.060,0.060,0.060,0.000,0.000,0.000
1644940248035397888,2022-02-15-15:50:48,10.1.1.10,21,0.060,0.060,0.060,0.000,0.000,0.000
1644940249654727936,2022-02-15-15:50:49,10.1.1.10,10,0.060,0.060,0.060,0.000,0.000,0.000
1644940250074223872,2022-02-15-15:50:50,10.1.1.10,24,0.060,0.060,0.060,0.000,0.000,0.000
1644940251714430976,2022-02-15-15:50:51,10.1.1.10,11,0.060,0.060,0.060,0.000,0.000,0.000
1644940251774180864,2022-02-15-15:50:51,10.1.1.10,19,0.070,0.070,0.070,0.000,0.000,0.000
1644940252074334976,2022-02-15-15:50:52,10.1.1.10,14,0.070,0.070,0.070,0.000,0.000,0.000
1644940253813508096,2022-02-15-15:50:53,10.1.1.10,24,0.070,0.070,0.070,0.000,0.000,0.000
1644940254114739968,2022-02-15-15:50:54,10.1.1.10,17,0.070,0.070,0.070,0.000,0.000,0.000
1644940255695333888,2022-02-15-15:50:55,10.1.1.10,20,0.040,0.040,0.040,0.000,0.000,0.000
1644940256293865984,2022-02-15-15:50:56,10.1.1.10,12,0.040,0.040,0.040,0.000,0.000,0.000
1644940257013680896,2022-02-15-15:50:57,10.1.1.10,21,-0.100,-0.100,-0.100,0.000,0.000,0.000
1644940257115252992,2022-02-15-15:50:57,10.1.1.10,20,-0.080,-0.080,-0.080,0.000,0.000,0.000
1644940257874740992,2022-02-15-15:50:57,10.1.1.10,21,0.070,0.070,0.070,0.000,0.000,0.000
1644940258174587904,2022-02-15-15:50:58,10.1.1.10,18,0.070,0.070,0.070,0.000,0.000,0.000
1644940259894038016,2022-02-15-15:50:59,10.1.1.10,14,0.070,0.070,0.070,0.000,0.000,0.000
1644940260193804032,2022-02-15-15:51:00,10.1.1.10,11,0.070,0.070,0.070,0.000,0.000,0.000
1644940260313956864,2022-02-15-15:51:00,10.1.1.10,30,0.050,0.050,0.050,0.000,0.000,0.000
1644940261816787968,2022-02-15-15:51:01,10.1.1.10,11,0.050,0.050,0.050,0.000,0.000,0.000
1644940261976214016,2022-02-15-15:51:01,10.1.1.10,19,0.080,0.080,0.080,0.000,0.000,0.000
1644940262174205184,2022-02-15-15:51:02,10.1.1.10,17,0.080,0.080,0.080,0.000,0.000,0.000
1644940263994266880,2022-02-15-15:51:03,10.1.1.10,8,0.080,0.080,0.080,0.000,0.000,0.000
1644940264214212864,2022-02-15-15:51:04,10.1.1.10,25,0.080,0.080,0.080,0.000,0.000,0.000
1644940266055062016,2022-02-15-15:51:06,10.1.1.10,24,0.080,0.080,0.080,0.000,0.000,0.000
1644940266275002880,2022-02-15-15:51:06,10.1.1.10,24,0.080,0.080,0.080,0.000,0.000,0.000
1644940267895384064,2022-02-15-15:51:07,10.1.1.10,20,0.040,0.040,0.040,0.000,0.000,0.000
1644940268514107904,2022-02-15-15:51:08,10.1.1.10,21,0.040,0.040,0.040,0.000,0.000,0.000
1644940268974964992,2022-02-15-15:51:08,10.1.1.10,20,-0.050,-0.050,-0.050,0.000,0.000,0.000
1644940269486685952,2022-02-15-15:51:09,10.1.1.10,11,-0.050,-0.050,-0.050,0.000,0.000,0.000
1644940271036977152,2022-02-15-15:51:11,10.1.1.10,10,-0.050,-0.050,-0.050,0.000,0.000,0.000
1644940271554876928,2022-02-15-15:51:11,10.1.1.10,22,-0.050,-0.050,-0.050,0.000,0.000,0.000
1644940272494510848,2022-02-15-15:51:12,10.1.1.10,39,0.070,0.070,0.070,0.000,0.000,0.000
1644940274194125824,2022-02-15-15:51:14,10.1.1.10,8,0.070,0.070,0.070,0.000,0.000,0.000
1644940274513766912,2022-02-15-15:51:14,10.1.1.10,23,0.070,0.070,0.070,0.000,0.000,0.000
1644940274715218944,2022-02-15-15:51:14,10.1.1.10,20,0.030,0.030,0.030,0.000,0.000,0.000
1644940276054414080,2022-02-15-15:51:16,10.1.1.10,27,0.030,0.030,0.030,0.000,0.000,0.000
1644940276574812928,2022-02-15-15:51:16,10.1.1.10,30,0.070,0.070,0.070,0.000,0.000,0.000
1644940276974329856,2022-02-15-15:51:16,10.1.1.10,19,-0.010,-0.010,-0.010,0.000,0.000,0.000
1644940277914565120,2022-02-15-15:51:17,10.1.1.10,25,-0.010,-0.010,-0.010,0.000,0.000,0.000
1644940279034982912,2022-02-15-15:51:19,10.1.1.10,20,-0.010,-0.010,-0.010,0.000,0.000,0.000
1644940279954065920,2022-02-15-15:51:19,10.1.1.10,13,-0.010,-0.010,-0.010,0.000,0.000,0.000
1644940281074309120,2022-02-15-15:51:21,10.1.1.10,9,-0.010,-0.010,-0.010,0.000,0.000,0.000
1644940281994057984,2022-02-15-15:51:21,10.1.1.10,13,-0.010,-0.010,-0.010,0.000,0.000,0.000
1644940283114721024,2022-02-15-15:51:23,10.1.1.10,14,-0.010,-0.010,-0.010,0.000,0.000,0.000
1644940284034584064,2022-02-15-15:51:24,10.1.1.10,15,-0.010,-0.010,-0.010,0.000,0.000,0.000
1644940285154746112,2022-02-15-15:51:25,10.1.1.10,7,-0.010,-0.010,-0.010,0.000,0.000,0.000
1644940286074242048,2022-02-15-15:51:26,10.1.1.10,11,-0.010,-0.010,-0.010,0.000,0.000,0.000
1644940286694909184,2022-02-15-15:51:26,10.1.1.10,20,0.090,0.090,0.090,0.000,0.000,0.000
1644940288614351872,2022-02-15-15:51:28,10.1.1.10,16,0.090,0.090,0.090,0.000,0.000,0.000
1644940288714323968,2022-02-15-15:51:28,10.1.1.10,15,0.090,0.090,0.090,0.000,0.000,0.000
1644940290093871104,2022-02-15-15:51:30,10.1.1.10,30,-0.020,-0.020,-0.020,0.000,0.000,0.000
1644940291293974016,2022-02-15-15:51:31,10.1.1.10,13,-0.020,-0.020,-0.020,0.000,0.000,0.000
1644940291514065152,2022-02-15-15:51:31,10.1.1.10,30,-0.060,-0.060,-0.060,0.000,0.000,0.000
1644940291914098944,2022-02-15-15:51:31,10.1.1.10,24,-0.060,-0.060,-0.060,0.000,0.000,0.000
1644940292374339072,2022-02-15-15:51:32,10.1.1.10,30,0.030,0.030,0.030,0.000,0.000,0.000
1644940293074091008,2022-02-15-15:51:33,10.1.1.10,21,0.030,0.030,0.030,0.000,0.000,0.000
1644940293174600960,2022-02-15-15:51:33,10.1.1.10,19,0.010,0.010,0.010,0.000,0.000,0.000
1644940293695208192,2022-02-15-15:51:33,10.1.1.10,29,-0.090,-0.090,-0.090,0.000,0.000,0.000
1644940293774461952,2022-02-15-15:51:33,10.1.1.10,8,-0.090,-0.090,-0.090,0.000,0.000,0.000
1644940294814536960,2022-02-15-15:51:34,10.1.1.10,29,0.090,0.090,0.090,0.000,0.000,0.000
1644940295473598976,2022-02-15-15:51:35,10.1.1.10,29,-0.040,-0.040,-0.040,0.000,0.000,0.000
1644940296074204928,2022-02-15-15:51:36,10.1.1.10,23,-0.040,-0.040,-0.040,0.000,0.000,0.000
1644940297294064896,2022-02-15-15:51:37,10.1.1.10,29,0.000,0.000,0.000,0.000,0.000,0.000
1644940298015309056,2022-02-15-15:51:38,10.1.1.10,39,-0.060,-0.060,-0.060,0.000,0.000,0.000
1644940299614444032,2022-02-15-15:51:39,10.1.1.10,16,-0.060,-0.060,-0.060,0.000,0.000,0.000
1644940300016050176,2022-02-15-15:51:40,10.1.1.10,8,-0.060,-0.060,-0.060,0.000,0.000,0.000
1644940300454430976,2022-02-15-15:51:40,10.1.1.10,40,0.020,0.020,0.020,0.000,0.000,0.000
1644940301154134016,2022-02-15-15:51:41,10.1.1.10,30,0.040,0.040,0.040,0.000,0.000,0.000
1644940302576414976,2022-02-15-15:51:42,10.1.1.10,22,0.040,0.040,0.040,0.000,0.000,0.000
1644940303094288128,2022-02-15-15:51:43,10.1.1.10,29,0.060,0.060,0.060,0.000,0.000,0.000
1644940304694295040,2022-02-15-15:51:44,10.1.1.10,7,0.060,0.060,0.060,0.000,0.000,0.000
1644940305114101760,2022-02-15-15:51:45,10.1.1.10,23,0.060,0.060,0.060,0.000,0.000,0.000
1644940306234749952,2022-02-15-15:51:46,10.1.1.10,30,-0.040,-0.040,-0.040,0.000,0.000,0.000
1644940307654066944,2022-02-15-15:51:47,10.1.1.10,14,-0.040,-0.040,-0.040,0.000,0.000,0.000
1644940308274032128,2022-02-15-15:51:48,10.1.1.10,23,-0.040,-0.040,-0.040,0.000,0.000,0.000
1644940309694180864,2022-02-15-15:51:49,10.1.1.10,19,-0.040,-0.040,-0.040,0.000,0.000,0.000
1644940310294800128,2022-02-15-15:51:50,10.1.1.10,12,-0.040,-0.040,-0.040,0.000,0.000,0.000
1644940311434520064,2022-02-15-15:51:51,10.1.1.10,39,0.020,0.020,0.020,0.000,0.000,0.000
1644940312634242048,2022-02-15-15:51:52,10.1.1.10,12,0.020,0.020,0.020,0.000,0.000,0.000
1644940313454628096,2022-02-15-15:51:53,10.1.1.10,19,0.020,0.020,0.020,0.000,0.000,0.000
1644940314673679104,2022-02-15-15:51:54,10.1.1.10,22,0.020,0.020,0.020,0.000,0.000,0.000
1644940314833556992,2022-02-15-15:51:54,10.1.1.10,30,0.050,0.050,0.050,0.000,0.000,0.000
1644940315336024064,2022-02-15-15:51:55,10.1.1.10,23,0.050,0.050,0.050,0.000,0.000,0.000
1644940316857630976,2022-02-15-15:51:56,10.1.1.10,22,0.050,0.050,0.050,0.000,0.000,0.000
1644940317013643008,2022-02-15-15:51:57,10.1.1.10,30,0.080,0.080,0.080,0.000,0.000,0.000
1644940317218163968,2022-02-15-15:51:57,10.1.1.10,26,0.080,0.080,0.080,0.000,0.000,0.000
1644940318274502912,2022-02-15-15:51:58,10.1.1.10,20,-0.070,-0.070,-0.070,0.000,0.000,0.000
1644940319394001920,2022-02-15-15:51:59,10.1.1.10,19,0.050,0.050,0.050,0.000,0.000,0.000
1644940320714844928,2022-02-15-15:52:00,10.1.1.10,20,0.010,0.010,0.010,0.000,0.000,0.000
1644940320774745856,2022-02-15-15:52:00,10.1.1.10,29,0.020,0.020,0.020,0.000,0.000,0.000
1644940321573937920,2022-02-15-15:52:01,10.1.1.10,14,0.020,0.020,0.020,0.000,0.000,0.000
1644940322793736960,2022-02-15-15:52:02,10.1.1.10,12,0.020,0.020,0.020,0.000,0.000,0.000
1644940323637824000,2022-02-15-15:52:03,10.1.1.10,1,0.020,0.020,0.020,0.000,0.000,0.000
1644940324878552064,2022-02-15-15:52:04,10.1.1.10,9,0.020,0.020,0.020,0.000,0.000,0.000
1644940325694763008,2022-02-15-15:52:05,10.1.1.10,9,0.020,0.020,0.020,0.000,0.000,0.000
1644940326934381056,2022-02-15-15:52:06,10.1.1.10,21,0.020,0.020,0.020,0.000,0.000,0.000
1644940326995567104,2022-02-15-15:52:06,10.1.1.10,30,0.030,0.030,0.030,0.000,0.000,0.000
1644940327694336768,2022-02-15-15:52:07,10.1.1.10,19,0.030,0.030,0.030,0.000,0.000,0.000
1644940327854383872,2022-02-15-15:52:07,10.1.1.10,27,0.000,0.000,0.000,0.000,0.000,0.000
1644940328857377024,2022-02-15-15:52:08,10.1.1.10,6,0.000,0.000,0.000,0.000,0.000,0.000
1644940329894139136,2022-02-15-15:52:09,10.1.1.10,20,0.000,0.000,0.000,0.000,0.000,0.000
1644940330913830144,2022-02-15-15:52:10,10.1.1.10,17,0.000,0.000,0.000,0.000,0.000,0.000
1644940331935578112,2022-02-15-15:52:11,10.1.1.10,12,0.000,0.000,0.000,0.000,0.000,0.000
1644940332574228992,2022-02-15-15:52:12,10.1.1.10,39,-0.080,-0.080,-0.080,0.000,0.000,0.000
1644940333833700864,2022-02-15-15:52:13,10.1.1.10,30,0.030,0.030,0.030,0.000,0.000,0.000
1644940335154080000,2022-02-15-15:52:15,10.1.1.10,21,0.030,0.030,0.030,0.000,0.000,0.000
1644940335875185920,2022-02-15-15:52:15,10.1.1.10,26,0.030,0.030,0.030,0.000,0.000,0.000
1644940337193913856,2022-02-15-15:52:17,10.1.1.10,24,0.030,0.030,0.030,0.000,0.000,0.000
1644940337895984896,2022-02-15-15:52:17,10.1.1.10,12,0.030,0.030,0.030,0.000,0.000,0.000
1644940339234082048,2022-02-15-15:52:19,10.1.1.10,25,0.030,0.030,0.030,0.000,0.000,0.000
1644940339933920000,2022-02-15-15:52:19,10.1.1.10,12,0.030,0.030,0.030,0.000,0.000,0.000
1644940341254533120,2022-02-15-15:52:21,10.1.1.10,8,0.030,0.030,0.030,0.000,0.000,0.000
1644940341997332992,2022-02-15-15:52:21,10.1.1.10,10,0.030,0.030,0.030,0.000,0.000,0.000
1644940343318643968,2022-02-15-15:52:23,10.1.1.10,11,0.030,0.030,0.030,0.000,0.000,0.000
1644940344034874880,2022-02-15-15:52:24,10.1.1.10,20,0.030,0.030,0.030,0.000,0.000,0.000
1644940345354967040,2022-02-15-15:52:25,10.1.1.10,21,0.030,0.030,0.030,0.000,0.000,0.000
1644940346054241024,2022-02-15-15:52:26,10.1.1.10,14,0.030,0.030,0.030,0.000,0.000,0.000
1644940346273766912,2022-02-15-15:52:26,10.1.1.10,30,-0.010,-0.010,-0.010,0.000,0.000,0.000
1644940347134989056,2022-02-15-15:52:27,10.1.1.10,31,-0.020,-0.020,-0.020,0.000,0.000,0.000
1644940348334441984,2022-02-15-15:52:28,10.1.1.10,14,-0.020,-0.020,-0.020,0.000,0.000,0.000
1644940348554039040,2022-02-15-15:52:28,10.1.1.10,30,-0.060,-0.060,-0.060,0.000,0.000,0.000
1644940348955194112,2022-02-15-15:52:28,10.1.1.10,23,-0.060,-0.060,-0.060,0.000,0.000,0.000
1644940350574803200,2022-02-15-15:52:30,10.1.1.10,14,-0.060,-0.060,-0.060,0.000,0.000,0.000
1644940350975298816,2022-02-15-15:52:30,10.1.1.10,9,-0.060,-0.060,-0.060,0.000,0.000,0.000
1644940352594548992,2022-02-15-15:52:32,10.1.1.10,10,-0.060,-0.060,-0.060,0.000,0.000,0.000
1644940353015057152,2022-02-15-15:52:33,10.1.1.10,23,-0.060,-0.060,-0.060,0.000,0.000,0.000
1644940353414597888,2022-02-15-15:52:33,10.1.1.10,20,0.020,0.020,0.020,0.000,0.000,0.000
1644940354214392064,2022-02-15-15:52:34,10.1.1.10,8,0.020,0.020,0.020,0.000,0.000,0.000
1644940355434818048,2022-02-15-15:52:35,10.1.1.10,10,0.020,0.020,0.020,0.000,0.000,0.000
1644940356256848128,2022-02-15-15:52:36,10.1.1.10,10,0.020,0.020,0.020,0.000,0.000,0.000
1644940357494159104,2022-02-15-15:52:37,10.1.1.10,20,0.020,0.020,0.020,0.000,0.000,0.000
1644940358302097152,2022-02-15-15:52:38,10.1.1.10,6,0.020,0.020,0.020,0.000,0.000,0.000
1644940359434036992,2022-02-15-15:52:39,10.1.1.10,30,0.000,0.000,0.000,0.000,0.000,0.000
1644940360434998016,2022-02-15-15:52:40,10.1.1.10,13,0.000,0.000,0.000,0.000,0.000,0.000
1644940361454308096,2022-02-15-15:52:41,10.1.1.10,23,0.000,0.000,0.000,0.000,0.000,0.000
1644940362456023040,2022-02-15-15:52:42,10.1.1.10,11,0.000,0.000,0.000,0.000,0.000,0.000
1644940363334860032,2022-02-15-15:52:43,10.1.1.10,30,-0.030,-0.030,-0.030,0.000,0.000,0.000
1644940364035075840,2022-02-15-15:52:44,10.1.1.10,20,0.090,0.090,0.090,0.000,0.000,0.000
1644940364095070976,2022-02-15-15:52:44,10.1.1.10,29,0.080,0.080,0.080,0.000,0.000,0.000
1644940365914295040,2022-02-15-15:52:45,10.1.1.10,23,0.080,0.080,0.080,0.000,0.000,0.000
1644940366113640192,2022-02-15-15:52:46,10.1.1.10,21,0.080,0.080,0.080,0.000,0.000,0.000
1644940367693594880,2022-02-15-15:52:47,10.1.1.10,29,0.030,0.030,0.030,0.000,0.000,0.000
1644940368394018048,2022-02-15-15:52:48,10.1.1.10,20,0.030,0.030,0.030,0.000,0.000,0.000
1644940369414025984,2022-02-15-15:52:49,10.1.1.10,29,-0.030,-0.030,-0.030,0.000,0.000,0.000
1644940370716644096,2022-02-15-15:52:50,10.1.1.10,10,-0.030,-0.030,-0.030,0.000,0.000,0.000
1644940371434163200,2022-02-15-15:52:51,10.1.1.10,22,-0.030,-0.030,-0.030,0.000,0.000,0.000
1644940372754949120,2022-02-15-15:52:52,10.1.1.10,22,-0.030,-0.030,-0.030,0.000,0.000,0.000
1644940373453862912,2022-02-15-15:52:53,10.1.1.10,11,-0.030,-0.030,-0.030,0.000,0.000,0.000
1644940373615330816,2022-02-15-15:52:53,10.1.1.10,20,0.000,0.000,0.000,0.000,0.000,0.000
1644940374234508032,2022-02-15-15:52:54,10.1.1.10,30,0.080,0.080,0.080,0.000,0.000,0.000
1644940376054081024,2022-02-15-15:52:56,10.1.1.10,11,0.080,0.080,0.080,0.000,0.000,0.000
1644940376213931008,2022-02-15-15:52:56,10.1.1.10,19,0.090,0.090,0.090,0.000,0.000,0.000
1644940377896365824,2022-02-15-15:52:57,10.1.1.10,20,0.040,0.040,0.040,0.000,0.000,0.000
1644940378514292992,2022-02-15-15:52:58,10.1.1.10,25,0.040,0.040,0.040,0.000,0.000,0.000
1644940379233840896,2022-02-15-15:52:59,10.1.1.10,29,-0.100,-0.100,-0.100,0.000,0.000,0.000
1644940381254034944,2022-02-15-15:53:01,10.1.1.10,7,-0.100,-0.100,-0.100,0.000,0.000,0.000
1644940383314213120,2022-02-15-15:53:03,10.1.1.10,11,-0.100,-0.100,-0.100,0.000,0.000,0.000
1644940384774689792,2022-02-15-15:53:04,10.1.1.10,30,0.020,0.020,0.020,0.000,0.000,0.000
1644940385994006016,2022-02-15-15:53:05,10.1.1.10,24,0.020,0.020,0.020,0.000,0.000,0.000
1644940386793390080,2022-02-15-15:53:06,10.1.1.10,10,0.020,0.020,0.020,0.000,0.000,0.000
1644940386875741952,2022-02-15-15:53:06,10.1.1.10,39,0.010,0.010,0.010,0.000,0.000,0.000
1644940387374455808,2022-02-15-15:53:07,10.1.1.10,21,-0.090,-0.090,-0.090,0.000,0.000,0.000
1644940387475094016,2022-02-15-15:53:07,10.1.1.10,19,-0.090,-0.090,-0.090,0.000,0.000,0.000
1644940388317812992,2022-02-15-15:53:08,10.1.1.10,23,0.070,0.070,0.070,0.000,0.000,0.000
1644940388614765056,2022-02-15-15:53:08,10.1.1.10,8,0.070,0.070,0.070,0.000,0.000,0.000
1644940390394226944,2022-02-15-15:53:10,10.1.1.10,16,0.070,0.070,0.070,0.000,0.000,0.000
1644940390693975040,2022-02-15-15:53:10,10.1.1.10,11,0.070,0.070,0.070,0.000,0.000,0.000
1644940392434334976,2022-02-15-15:53:12,10.1.1.10,23,0.070,0.070,0.070,0.000,0.000,0.000
1644940392734585088,2022-02-15-15:53:12,10.1.1.10,12,0.070,0.070,0.070,0.000,0.000,0.000
1644940393454418944,2022-02-15-15:53:13,10.1.1.10,22,-0.070,-0.070,-0.070,0.000,0.000,0.000
1644940393754339072,2022-02-15-15:53:13,10.1.1.10,15,-0.070,-0.070,-0.070,0.000,0.000,0.000
1644940395493958912,2022-02-15-15:53:15,10.1.1.10,20,-0.070,-0.070,-0.070,0.000,0.000,0.000
1644940395794444032,2022-02-15-15:53:15,10.1.1.10,15,-0.070,-0.070,-0.070,0.000,0.000,0.000
1644940397534181120,2022-02-15-15:53:17,10.1.1.10,17,-0.070,-0.070,-0.070,0.000,0.000,0.000
1644940397834247168,2022-02-15-15:53:17,10.1.1.10,12,-0.070,-0.070,-0.070,0.000,0.000,0.000
1644940398634267136,2022-02-15-15:53:18,10.1.1.10,39,0.080,0.080,0.080,0.000,0.000,0.000
1644940398815041024,2022-02-15-15:53:18,10.1.1.10,12,0.080,0.080,0.080,0.000,0.000,0.000
1644940400674086144,2022-02-15-15:53:20,10.1.1.10,20,0.080,0.080,0.080,0.000,0.000,0.000
1644940400874473984,2022-02-15-15:53:20,10.1.1.10,16,0.080,0.080,0.080,0.000,0.000,0.000
1644940402713876992,2022-02-15-15:53:22,10.1.1.10,22,0.080,0.080,0.080,0.000,0.000,0.000
1644940402914364928,2022-02-15-15:53:22,10.1.1.10,20,0.080,0.080,0.080,0.000,0.000,0.000
1644940404734411008,2022-02-15-15:53:24,10.1.1.10,19,0.080,0.080,0.080,0.000,0.000,0.000
1644940404936721152,2022-02-15-15:53:24,10.1.1.10,16,0.080,0.080,0.080,0.000,0.000,0.000
1644940406473947904,2022-02-15-15:53:26,10.1.1.10,39,0.020,0.020,0.020,0.000,0.000,0.000
1644940407258018048,2022-02-15-15:53:27,10.1.1.10,11,0.020,0.020,0.020,0.000,0.000,0.000
1644940408516091136,2022-02-15-15:53:28,10.1.1.10,21,0.020,0.020,0.020,0.000,0.000,0.000
1644940408773901056,2022-02-15-15:53:28,10.1.1.10,21,0.070,0.070,0.070,0.000,0.000,0.000
1644940408873985024,2022-02-15-15:53:28,10.1.1.10,20,0.090,0.090,0.090,0.000,0.000,0.000
1644940408974173952,2022-02-15-15:53:28,10.1.1.10,16,0.090,0.090,0.090,0.000,0.000,0.000
1644940410273646080,2022-02-15-15:53:30,10.1.1.10,30,-0.050,-0.050,-0.050,0.000,0.000,0.000
1644940410314233088,2022-02-15-15:53:30,10.1.1.10,19,-0.040,-0.040,-0.040,0.000,0.000,0.000
1644940411814733056,2022-02-15-15:53:31,10.1.1.10,22,-0.040,-0.040,-0.040,0.000,0.000,0.000
1644940412413888000,2022-02-15-15:53:32,10.1.1.10,11,-0.040,-0.040,-0.040,0.000,0.000,0.000
1644940413153826048,2022-02-15-15:53:33,10.1.1.10,40,0.100,0.100,0.100,0.000,0.000,0.000
1644940415154169088,2022-02-15-15:53:35,10.1.1.10,14,0.100,0.100,0.100,0.000,0.000,0.000
1644940415513771008,2022-02-15-15:53:35,10.1.1.10,20,0.030,0.030,0.030,0.000,0.000,0.000
1644940415974152960,2022-02-15-15:53:35,10.1.1.10,24,-0.060,-0.060,-0.060,0.000,0.000,0.000
1644940416173623040,2022-02-15-15:53:36,10.1.1.10,22,-0.100,-0.100,-0.100,0.000,0.000,0.000
1644940417494688000,2022-02-15-15:53:37,10.1.1.10,20,0.040,0.040,0.040,0.000,0.000,0.000
1644940418354270976,2022-02-15-15:53:38,10.1.1.10,19,-0.070,-0.070,-0.070,0.000,0.000,0.000
1644940420075126016,2022-02-15-15:53:40,10.1.1.10,11,-0.070,-0.070,-0.070,0.000,0.000,0.000
1644940420393721088,2022-02-15-15:53:40,10.1.1.10,26,-0.070,-0.070,-0.070,0.000,0.000,0.000
1644940422114406144,2022-02-15-15:53:42,10.1.1.10,20,-0.070,-0.070,-0.070,0.000,0.000,0.000
1644940422414586112,2022-02-15-15:53:42,10.1.1.10,16,-0.070,-0.070,-0.070,0.000,0.000,0.000
1644940422934312192,2022-02-15-15:53:42,10.1.1.10,30,0.030,0.030,0.030,0.000,0.000,0.000
1644940423633377024,2022-02-15-15:53:43,10.1.1.10,18,0.030,0.030,0.030,0.000,0.000,0.000
1644940424955970048,2022-02-15-15:53:44,10.1.1.10,9,0.030,0.030,0.030,0.000,0.000,0.000
1644940425674288896,2022-02-15-15:53:45,10.1.1.10,15,0.030,0.030,0.030,0.000,0.000,0.000
1644940426094202880,2022-02-15-15:53:46,10.1.1.10,28,-0.050,-0.050,-0.050,0.000,0.000,0.000
1644940426594007040,2022-02-15-15:53:46,10.1.1.10,16,-0.050,-0.050,-0.050,0.000,0.000,0.000
1644940428159412992,2022-02-15-15:53:48,10.1.1.10,15,-0.050,-0.050,-0.050,0.000,0.000,0.000
1644940428674022912,2022-02-15-15:53:48,10.1.1.10,21,-0.050,-0.050,-0.050,0.000,0.000,0.000
1644940430235620096,2022-02-15-15:53:50,10.1.1.10,24,-0.050,-0.050,-0.050,0.000,0.000,0.000
1644940430735866112,2022-02-15-15:53:50,10.1.1.10,18,-0.050,-0.050,-0.050,0.000,0.000,0.000
1644940432254575872,2022-02-15-15:53:52,10.1.1.10,11,-0.050,-0.050,-0.050,0.000,0.000,0.000
1644940432775561216,2022-02-15-15:53:52,10.1.1.10,16,-0.050,-0.050,-0.050,0.000,0.000,0.000
1644940434313225984,2022-02-15-15:53:54,10.1.1.10,10,-0.050,-0.050,-0.050,0.000,0.000,0.000
1644940434833547008,2022-02-15-15:53:54,10.1.1.10,24,-0.050,-0.050,-0.050,0.000,0.000,0.000
1644940436354242048,2022-02-15-15:53:56,10.1.1.10,18,-0.050,-0.050,-0.050,0.000,0.000,0.000
1644940436855757824,2022-02-15-15:53:56,10.1.1.10,11,-0.050,-0.050,-0.050,0.000,0.000,0.000
1644940437894705152,2022-02-15-15:53:57,10.1.1.10,31,0.050,0.050,0.050,0.000,0.000,0.000
1644940439415366912,2022-02-15-15:53:59,10.1.1.10,10,0.050,0.050,0.050,0.000,0.000,0.000
1644940439937905152,2022-02-15-15:53:59,10.1.1.10,11,0.050,0.050,0.050,0.000,0.000,0.000
1644940441494054912,2022-02-15-15:54:01,10.1.1.10,7,0.050,0.050,0.050,0.000,0.000,0.000
1644940442015537920,2022-02-15-15:54:02,10.1.1.10,13,0.050,0.050,0.050,0.000,0.000,0.000
1644940443554418944,2022-02-15-15:54:03,10.1.1.10,8,0.050,0.050,0.050,0.000,0.000,0.000
1644940444073976064,2022-02-15-15:54:04,10.1.1.10,18,0.050,0.050,0.050,0.000,0.000,0.000
1644940444976428032,2022-02-15-15:54:04,10.1.1.10,30,-0.080,-0.080,-0.080,0.000,0.000,0.000
1644940446850127104,2022-02-15-15:54:06,10.1.1.10,17,-0.080,-0.080,-0.080,0.000,0.000,0.000
1644940447055831808,2022-02-15-15:54:07,10.1.1.10,15,-0.080,-0.080,-0.080,0.000,0.000,0.000
1644940448894764032,2022-02-15-15:54:08,10.1.1.10,20,-0.070,-0.070,-0.070,0.000,0.000,0.000
1644940449195170048,2022-02-15-15:54:09,10.1.1.10,15,-0.070,-0.070,-0.070,0.000,0.000,0.000
1644940449774070016,2022-02-15-15:54:09,10.1.1.10,30,0.040,0.040,0.040,0.000,0.000,0.000
1644940450374191872,2022-02-15-15:54:10,10.1.1.10,13,0.040,0.040,0.040,0.000,0.000,0.000
1644940451795060992,2022-02-15-15:54:11,10.1.1.10,15,0.040,0.040,0.040,0.000,0.000,0.000
1644940452414236160,2022-02-15-15:54:12,10.1.1.10,23,0.040,0.040,0.040,0.000,0.000,0.000
1644940453834158848,2022-02-15-15:54:13,10.1.1.10,22,0.040,0.040,0.040,0.000,0.000,0.000
1644940454094834176,2022-02-15-15:54:14,10.1.1.10,30,0.090,0.090,0.090,0.000,0.000,0.000
1644940454174056960,2022-02-15-15:54:14,10.1.1.10,9,0.090,0.090,0.090,0.000,0.000,0.000
1644940456115859968,2022-02-15-15:54:16,10.1.1.10,23,0.090,0.090,0.090,0.000,0.000,0.000
1644940456213990912,2022-02-15-15:54:16,10.1.1.10,20,0.090,0.090,0.090,0.000,0.000,0.000
1644940458157926912,2022-02-15-15:54:18,10.1.1.10,8,0.090,0.090,0.090,0.000,0.000,0.000
1644940458255906048,2022-02-15-15:54:18,10.1.1.10,5,0.090,0.090,0.090,0.000,0.000,0.000
1644940459293936896,2022-02-15-15:54:19,10.1.1.10,29,-0.090,-0.090,-0.090,0.000,0.000,0.000
1644940461213529088,2022-02-15-15:54:21,10.1.1.10,22,-0.090,-0.090,-0.090,0.000,0.000,0.000
1644940461314109952,2022-02-15-15:54:21,10.1.1.10,19,-0.090,-0.090,-0.090,0.000,0.000,0.000
1644940463234777856,2022-02-15-15:54:23,10.1.1.10,17,-0.090,-0.090,-0.090,0.000,0.000,0.000
1644940463333862912,2022-02-15-15:54:23,10.1.1.10,15,-0.090,-0.090,-0.090,0.000,0.000,0.000
1644940464455017984,2022-02-15-15:54:24,10.1.1.10,20,0.070,0.070,0.070,0.000,0.000,0.000
1644940465934226944,2022-02-15-15:54:25,10.1.1.10,30,0.020,0.020,0.020,0.000,0.000,0.000
1644940466734877952,2022-02-15-15:54:26,10.1.1.10,20,0.020,0.020,0.020,0.000,0.000,0.000
1644940467954437120,2022-02-15-15:54:27,10.1.1.10,22,0.020,0.020,0.020,0.000,0.000,0.000
1644940468755460864,2022-02-15-15:54:28,10.1.1.10,10,0.020,0.020,0.020,0.000,0.000,0.000
1644940469974181888,2022-02-15-15:54:29,10.1.1.10,14,0.020,0.020,0.020,0.000,0.000,0.000
1644940470795124992,2022-02-15-15:54:30,10.1.1.10,23,0.020,0.020,0.020,0.000,0.000,0.000
1644940470955138816,2022-02-15-15:54:30,10.1.1.10,23,-0.010,-0.010,-0.010,0.000,0.000,0.000
1644940471874021888,2022-02-15-15:54:31,10.1.1.10,13,-0.010,-0.010,-0.010,0.000,0.000,0.000
1644940472993659904,2022-02-15-15:54:32,10.1.1.10,18,-0.010,-0.010,-0.010,0.000,0.000,0.000
1644940473895665920,2022-02-15-15:54:33,10.1.1.10,9,-0.010,-0.010,-0.010,0.000,0.000,0.000
1644940475014035968,2022-02-15-15:54:35,10.1.1.10,14,-0.010,-0.010,-0.010,0.000,0.000,0.000
1644940475934014976,2022-02-15-15:54:35,10.1.1.10,21,-0.010,-0.010,-0.010,0.000,0.000,0.000
1644940477035553024,2022-02-15-15:54:37,10.1.1.10,7,-0.010,-0.010,-0.010,0.000,0.000,0.000
1644940477954558976,2022-02-15-15:54:37,10.1.1.10,17,-0.010,-0.010,-0.010,0.000,0.000,0.000
1644940478473071104,2022-02-15-15:54:38,10.1.1.10,30,0.090,0.090,0.090,0.000,0.000,0.000
1644940478554379008,2022-02-15-15:54:38,10.1.1.10,9,0.090,0.090,0.090,0.000,0.000,0.000
1644940480496221184,2022-02-15-15:54:40,10.1.1.10,23,0.090,0.090,0.090,0.000,0.000,0.000
1644940480594351104,2022-02-15-15:54:40,10.1.1.10,21,0.090,0.090,0.090,0.000,0.000,0.000
1644940482513644032,2022-02-15-15:54:42,10.1.1.10,19,0.090,0.090,0.090,0.000,0.000,0.000
1644940482614224896,2022-02-15-15:54:42,10.1.1.10,18,0.090,0.090,0.090,0.000,0.000,0.000
1644940483734316032,2022-02-15-15:54:43,10.1.1.10,20,-0.070,-0.070,-0.070,0.000,0.000,0.000
1644940485493790976,2022-02-15-15:54:45,10.1.1.10,14,-0.070,-0.070,-0.070,0.000,0.000,0.000
1644940485794600960,2022-02-15-15:54:45,10.1.1.10,9,-0.070,-0.070,-0.070,0.000,0.000,0.000
1644940486413469952,2022-02-15-15:54:46,10.1.1.10,21,0.050,0.050,0.050,0.000,0.000,0.000
1644940486514269952,2022-02-15-15:54:46,10.1.1.10,19,0.070,0.070,0.070,0.000,0.000,0.000
1644940486814110976,2022-02-15-15:54:46,10.1.1.10,14,0.070,0.070,0.070,0.000,0.000,0.000
1644940487895014912,2022-02-15-15:54:47,10.1.1.10,20,-0.060,-0.060,-0.060,0.000,0.000,0.000
1644940489094199808,2022-02-15-15:54:49,10.1.1.10,21,0.040,0.040,0.040,0.000,0.000,0.000
1644940490534048000,2022-02-15-15:54:50,10.1.1.10,13,0.040,0.040,0.040,0.000,0.000,0.000
1644940491154625024,2022-02-15-15:54:51,10.1.1.10,17,0.040,0.040,0.040,0.000,0.000,0.000
1644940492633830144,2022-02-15-15:54:52,10.1.1.10,9,0.040,0.040,0.040,0.000,0.000,0.000
1644940493254625024,2022-02-15-15:54:53,10.1.1.10,16,0.040,0.040,0.040,0.000,0.000,0.000
1644940494694871808,2022-02-15-15:54:54,10.1.1.10,13,0.040,0.040,0.040,0.000,0.000,0.000
1644940495334319104,2022-02-15-15:54:55,10.1.1.10,13,0.040,0.040,0.040,0.000,0.000,0.000
1644940496776446976,2022-02-15-15:54:56,10.1.1.10,5,0.040,0.040,0.040,0.000,0.000,0.000
1644940497393861120,2022-02-15-15:54:57,10.1.1.10,13,0.040,0.040,0.040,0.000,0.000,0.000
1644940498834567168,2022-02-15-15:54:58,10.1.1.10,13,0.040,0.040,0.040,0.000,0.000,0.000
1644940499454041088,2022-02-15-15:54:59,10.1.1.10,21,0.040,0.040,0.040,0.000,0.000,0.000
1644940500874284032,2022-02-15-15:55:00,10.1.1.10,14,0.040,0.040,0.040,0.000,0.000,0.000
1644940501493412096,2022-02-15-15:55:01,10.1.1.10,22,0.040,0.040,0.040,0.000,0.000,0.000
1644940502915662080,2022-02-15-15:55:02,10.1.1.10,11,0.040,0.040,0.040,0.000,0.000,0.000
1644940503535569920,2022-02-15-15:55:03,10.1.1.10,21,0.040,0.040,0.040,0.000,0.000,0.000
1644940504954278912,2022-02-15-15:55:04,10.1.1.10,14,0.040,0.040,0.040,0.000,0.000,0.000
1644940505556183040,2022-02-15-15:55:05,10.1.1.10,6,0.040,0.040,0.040,0.000,0.000,0.000
1644940506993926912,2022-02-15-15:55:06,10.1.1.10,13,0.040,0.040,0.040,0.000,0.000,0.000
1644940507614048000,2022-02-15-15:55:07,10.1.1.10,20,0.040,0.040,0.040,0.000,0.000,0.000
1644940509032936192,2022-02-15-15:55:09,10.1.1.10,13,0.040,0.040,0.040,0.000,0.000,0.000
1644940509653830144,2022-02-15-15:55:09,10.1.1.10,21,0.040,0.040,0.040,0.000,0.000,0.000
1644940511074068992,2022-02-15-15:55:11,10.1.1.10,14,0.040,0.040,0.040,0.000,0.000,0.000
1644940511693427968,2022-02-15-15:55:11,10.1.1.10,22,0.040,0.040,0.040,0.000,0.000,0.000
1644940513114268928,2022-02-15-15:55:13,10.1.1.10,13,0.040,0.040,0.040,0.000,0.000,0.000
1644940513734075904,2022-02-15-15:55:13,10.1.1.10,21,0.040,0.040,0.040,0.000,0.000,0.000
1644940515155205888,2022-02-15-15:55:15,10.1.1.10,11,0.040,0.040,0.040,0.000,0.000,0.000
1644940515774080000,2022-02-15-15:55:15,10.1.1.10,20,0.040,0.040,0.040,0.000,0.000,0.000
1644940517193677824,2022-02-15-15:55:17,10.1.1.10,13,0.040,0.040,0.040,0.000,0.000,0.000
1644940517813785088,2022-02-15-15:55:17,10.1.1.10,23,0.040,0.040,0.040,0.000,0.000,0.000
1644940519233169920,2022-02-15-15:55:19,10.1.1.10,18,0.040,0.040,0.040,0.000,0.000,0.000
1644940519833477120,2022-02-15-15:55:19,10.1.1.10,58,0.040,0.040,0.040,0.000,0.000,0.000
1644940521273838080,2022-02-15-15:55:21,10.1.1.10,21,0.040,0.040,0.040,0.000,0.000,0.000
1644940521894804992,2022-02-15-15:55:21,10.1.1.10,23,0.040,0.040,0.040,0.000,0.000,0.000
1644940522454194176,2022-02-15-15:55:22,10.1.1.10,21,-0.070,-0.070,-0.070,0.000,0.000,0.000
1644940522753690112,2022-02-15-15:55:22,10.1.1.10,14,-0.070,-0.070,-0.070,0.000,0.000,0.000
1644940524494593024,2022-02-15-15:55:24,10.1.1.10,9,-0.070,-0.070,-0.070,0.000,0.000,0.000
1644940524814395904,2022-02-15-15:55:24,10.1.1.10,21,-0.070,-0.070,-0.070,0.000,0.000,0.000
1644940524915375872,2022-02-15-15:55:24,10.1.1.10,20,-0.050,-0.050,-0.050,0.000,0.000,0.000
1644940525273971968,2022-02-15-15:55:25,10.1.1.10,21,0.020,0.020,0.020,0.000,0.000,0.000
1644940526093698048,2022-02-15-15:55:26,10.1.1.10,20,0.020,0.020,0.020,0.000,0.000,0.000
1644940527372848896,2022-02-15-15:55:27,10.1.1.10,11,0.020,0.020,0.020,0.000,0.000,0.000
1644940528193697024,2022-02-15-15:55:28,10.1.1.10,13,0.020,0.020,0.020,0.000,0.000,0.000
1644940529434128896,2022-02-15-15:55:29,10.1.1.10,8,0.020,0.020,0.020,0.000,0.000,0.000
1644940530273922048,2022-02-15-15:55:30,10.1.1.10,25,0.020,0.020,0.020,0.000,0.000,0.000
1644940531293915904,2022-02-15-15:55:31,10.1.1.10,21,-0.020,-0.020,-0.020,0.000,0.000,0.000
1644940531653667840,2022-02-15-15:55:31,10.1.1.10,22,0.050,0.050,0.050,0.000,0.000,0.000
1644940532156651008,2022-02-15-15:55:32,10.1.1.10,11,0.050,0.050,0.050,0.000,0.000,0.000
1644940533370352128,2022-02-15-15:55:33,10.1.1.10,38,-0.020,-0.020,-0.020,0.000,0.000,0.000
1644940534374423040,2022-02-15-15:55:34,10.1.1.10,21,0.020,0.020,0.020,0.000,0.000,0.000
1644940535053991168,2022-02-15-15:55:35,10.1.1.10,40,-0.090,-0.090,-0.090,0.000,0.000,0.000
1644940536975193856,2022-02-15-15:55:36,10.1.1.10,10,-0.090,-0.090,-0.090,0.000,0.000,0.000
1644940537074248960,2022-02-15-15:55:37,10.1.1.10,7,-0.090,-0.090,-0.090,0.000,0.000,0.000
1644940539033626112,2022-02-15-15:55:39,10.1.1.10,22,-0.090,-0.090,-0.090,0.000,0.000,0.000
1644940539133996032,2022-02-15-15:55:39,10.1.1.10,21,-0.090,-0.090,-0.090,0.000,0.000,0.000
1644940541094459136,2022-02-15-15:55:41,10.1.1.10,21,-0.090,-0.090,-0.090,0.000,0.000,0.000
1644940541193248000,2022-02-15-15:55:41,10.1.1.10,20,-0.090,-0.090,-0.090,0.000,0.000,0.000
1644940543115237120,2022-02-15-15:55:43,10.1.1.10,6,-0.090,-0.090,-0.090,0.000,0.000,0.000
1644940543233617152,2022-02-15-15:55:43,10.1.1.10,25,-0.090,-0.090,-0.090,0.000,0.000,0.000
1644940545153480960,2022-02-15-15:55:45,10.1.1.10,14,-0.090,-0.090,-0.090,0.000,0.000,0.000
1644940545254686976,2022-02-15-15:55:45,10.1.1.10,13,-0.090,-0.090,-0.090,0.000,0.000,0.000
1644940547193809920,2022-02-15-15:55:47,10.1.1.10,7,-0.090,-0.090,-0.090,0.000,0.000,0.000
1644940547313891840,2022-02-15-15:55:47,10.1.1.10,26,-0.090,-0.090,-0.090,0.000,0.000,0.000
1644940549273979904,2022-02-15-15:55:49,10.1.1.10,26,-0.090,-0.090,-0.090,0.000,0.000,0.000
1644940549373605120,2022-02-15-15:55:49,10.1.1.10,23,-0.090,-0.090,-0.090,0.000,0.000,0.000
1644940551315501824,2022-02-15-15:55:51,10.1.1.10,20,-0.090,-0.090,-0.090,0.000,0.000,0.000
1644940551413615104,2022-02-15-15:55:51,10.1.1.10,18,-0.090,-0.090,-0.090,0.000,0.000,0.000
1644940553335936000,2022-02-15-15:55:53,10.1.1.10,8,-0.090,-0.090,-0.090,0.000,0.000,0.000
1644940553453454080,2022-02-15-15:55:53,10.1.1.10,27,-0.090,-0.090,-0.090,0.000,0.000,0.000
1644940554114494208,2022-02-15-15:55:54,10.1.1.10,30,0.040,0.040,0.040,0.000,0.000,0.000
1644940554715230976,2022-02-15-15:55:54,10.1.1.10,22,0.040,0.040,0.040,0.000,0.000,0.000
1644940556133430016,2022-02-15-15:55:56,10.1.1.10,19,0.040,0.040,0.040,0.000,0.000,0.000
1644940556755444992,2022-02-15-15:55:56,10.1.1.10,28,0.040,0.040,0.040,0.000,0.000,0.000
1644940558173569792,2022-02-15-15:55:58,10.1.1.10,21,0.040,0.040,0.040,0.000,0.000,0.000
1644940558773502976,2022-02-15-15:55:58,10.1.1.10,10,0.040,0.040,0.040,0.000,0.000,0.000
1644940560193348864,2022-02-15-15:56:00,10.1.1.10,12,0.040,0.040,0.040,0.000,0.000,0.000
1644940560813869056,2022-02-15-15:56:00,10.1.1.10,24,0.040,0.040,0.040,0.000,0.000,0.000
1644940562213690112,2022-02-15-15:56:02,10.1.1.10,8,0.040,0.040,0.040,0.000,0.000,0.000
1644940562833338880,2022-02-15-15:56:02,10.1.1.10,20,0.040,0.040,0.040,0.000,0.000,0.000
1644940564273488896,2022-02-15-15:56:04,10.1.1.10,11,0.040,0.040,0.040,0.000,0.000,0.000
1644940564933294080,2022-02-15-15:56:04,10.1.1.10,26,0.040,0.040,0.040,0.000,0.000,0.000
1644940566393775104,2022-02-15-15:56:06,10.1.1.10,27,0.040,0.040,0.040,0.000,0.000,0.000
1644940567033737984,2022-02-15-15:56:07,10.1.1.10,23,0.040,0.040,0.040,0.000,0.000,0.000
1644940568473602048,2022-02-15-15:56:08,10.1.1.10,11,0.040,0.040,0.040,0.000,0.000,0.000
1644940569093654016,2022-02-15-15:56:09,10.1.1.10,15,0.040,0.040,0.040,0.000,0.000,0.000
1644940570533422848,2022-02-15-15:56:10,10.1.1.10,13,0.040,0.040,0.040,0.000,0.000,0.000
1644940571157542912,2022-02-15-15:56:11,10.1.1.10,4,0.040,0.040,0.040,0.000,0.000,0.000
1644940572593524992,2022-02-15-15:56:12,10.1.1.10,15,0.040,0.040,0.040,0.000,0.000,0.000
1644940573214636032,2022-02-15-15:56:13,10.1.1.10,9,0.040,0.040,0.040,0.000,0.000,0.000
1644940574634715136,2022-02-15-15:56:14,10.1.1.10,10,0.040,0.040,0.040,0.000,0.000,0.000
1644940575254129920,2022-02-15-15:56:15,10.1.1.10,22,0.040,0.040,0.040,0.000,0.000,0.000
1644940576677899008,2022-02-15-15:56:16,10.1.1.10,22,0.040,0.040,0.040,0.000,0.000,0.000
1644940577275121920,2022-02-15-15:56:17,10.1.1.10,16,0.040,0.040,0.040,0.000,0.000,0.000
1644940578713423104,2022-02-15-15:56:18,10.1.1.10,21,0.040,0.040,0.040,0.000,0.000,0.000
1644940579312741120,2022-02-15-15:56:19,10.1.1.10,10,0.040,0.040,0.040,0.000,0.000,0.000
1644940580753169152,2022-02-15-15:56:20,10.1.1.10,13,0.040,0.040,0.040,0.000,0.000,0.000
1644940581373640960,2022-02-15-15:56:21,10.1.1.10,21,0.040,0.040,0.040,0.000,0.000,0.000
1644940582793853952,2022-02-15-15:56:22,10.1.1.10,13,0.040,0.040,0.040,0.000,0.000,0.000
1644940583413626880,2022-02-15-15:56:23,10.1.1.10,21,0.040,0.040,0.040,0.000,0.000,0.000
1644940584853709824,2022-02-15-15:56:24,10.1.1.10,25,0.040,0.040,0.040,0.000,0.000,0.000
1644940585454245120,2022-02-15-15:56:25,10.1.1.10,15,0.040,0.040,0.040,0.000,0.000,0.000
1644940586893484032,2022-02-15-15:56:26,10.1.1.10,25,0.040,0.040,0.040,0.000,0.000,0.000
1644940587512922880,2022-02-15-15:56:27,10.1.1.10,9,0.040,0.040,0.040,0.000,0.000,0.000
1644940588973009152,2022-02-15-15:56:28,10.1.1.10,23,0.040,0.040,0.040,0.000,0.000,0.000
1644940589594034944,2022-02-15-15:56:29,10.1.1.10,23,0.040,0.040,0.040,0.000,0.000,0.000
1644940591033427968,2022-02-15-15:56:31,10.1.1.10,27,0.040,0.040,0.040,0.000,0.000,0.000
1644940591632928000,2022-02-15-15:56:31,10.1.1.10,16,0.040,0.040,0.040,0.000,0.000,0.000
1644940593073812992,2022-02-15-15:56:33,10.1.1.10,23,0.040,0.040,0.040,0.000,0.000,0.000
1644940593675343104,2022-02-15-15:56:33,10.1.1.10,13,0.040,0.040,0.040,0.000,0.000,0.000
1644940595112987904,2022-02-15-15:56:35,10.1.1.10,13,0.040,0.040,0.040,0.000,0.000,0.000
1644940595733208064,2022-02-15-15:56:35,10.1.1.10,23,0.040,0.040,0.040,0.000,0.000,0.000
1644940597053703936,2022-02-15-15:56:37,10.1.1.10,28,0.010,0.010,0.010,0.000,0.000,0.000
1644940597954116096,2022-02-15-15:56:37,10.1.1.10,7,0.010,0.010,0.010,0.000,0.000,0.000
1644940599133004032,2022-02-15-15:56:39,10.1.1.10,23,0.010,0.010,0.010,0.000,0.000,0.000
1644940600093652992,2022-02-15-15:56:40,10.1.1.10,26,0.010,0.010,0.010,0.000,0.000,0.000
1644940601212939008,2022-02-15-15:56:41,10.1.1.10,11,0.010,0.010,0.010,0.000,0.000,0.000
1644940602133836032,2022-02-15-15:56:42,10.1.1.10,11,0.010,0.010,0.010,0.000,0.000,0.000
1644940603273569024,2022-02-15-15:56:43,10.1.1.10,17,0.010,0.010,0.010,0.000,0.000,0.000
1644940604194300928,2022-02-15-15:56:44,10.1.1.10,12,0.010,0.010,0.010,0.000,0.000,0.000
1644940605313230080,2022-02-15-15:56:45,10.1.1.10,12,0.010,0.010,0.010,0.000,0.000,0.000
1644940606232918016,2022-02-15-15:56:46,10.1.1.10,13,0.010,0.010,0.010,0.000,0.000,0.000
1644940607352862976,2022-02-15-15:56:47,10.1.1.10,15,0.010,0.010,0.010,0.000,0.000,0.000
1644940608273620992,2022-02-15-15:56:48,10.1.1.10,23,0.010,0.010,0.010,0.000,0.000,0.000
1644940609413036032,2022-02-15-15:56:49,10.1.1.10,11,0.010,0.010,0.010,0.000,0.000,0.000
1644940610393435904,2022-02-15-15:56:50,10.1.1.10,12,0.010,0.010,0.010,0.000,0.000,0.000
1644940611533384192,2022-02-15-15:56:51,10.1.1.10,21,0.010,0.010,0.010,0.000,0.000,0.000
1644940611593399040,2022-02-15-15:56:51,10.1.1.10,31,0.020,0.020,0.020,0.000,0.000,0.000
1644940612413302016,2022-02-15-15:56:52,10.1.1.10,24,0.020,0.020,0.020,0.000,0.000,0.000
1644940613633182976,2022-02-15-15:56:53,10.1.1.10,15,0.020,0.020,0.020,0.000,0.000,0.000
1644940614453233920,2022-02-15-15:56:54,10.1.1.10,13,0.020,0.020,0.020,0.000,0.000,0.000
1644940615694114816,2022-02-15-15:56:55,10.1.1.10,25,0.020,0.020,0.020,0.000,0.000,0.000
1644940616513580032,2022-02-15-15:56:56,10.1.1.10,14,0.020,0.020,0.020,0.000,0.000,0.000
1644940617773071104,2022-02-15-15:56:57,10.1.1.10,12,0.020,0.020,0.020,0.000,0.000,0.000
1644940617833048064,2022-02-15-15:56:57,10.1.1.10,21,0.030,0.030,0.030,0.000,0.000,0.000
1644940618538897920,2022-02-15-15:56:58,10.1.1.10,2,0.030,0.030,0.030,0.000,0.000,0.000
1644940619873563136,2022-02-15-15:56:59,10.1.1.10,20,0.030,0.030,0.030,0.000,0.000,0.000
1644940620573434112,2022-02-15-15:57:00,10.1.1.10,12,0.030,0.030,0.030,0.000,0.000,0.000
1644940621893452800,2022-02-15-15:57:01,10.1.1.10,15,0.030,0.030,0.030,0.000,0.000,0.000
1644940622593655040,2022-02-15-15:57:02,10.1.1.10,7,0.030,0.030,0.030,0.000,0.000,0.000
1644940623914441984,2022-02-15-15:57:03,10.1.1.10,10,0.030,0.030,0.030,0.000,0.000,0.000
1644940624633869824,2022-02-15-15:57:04,10.1.1.10,21,0.030,0.030,0.030,0.000,0.000,0.000
1644940625949492992,2022-02-15-15:57:05,10.1.1.10,16,0.030,0.030,0.030,0.000,0.000,0.000
1644940626679510016,2022-02-15-15:57:06,10.1.1.10,23,0.030,0.030,0.030,0.000,0.000,0.000
1644940627993743872,2022-02-15-15:57:07,10.1.1.10,21,0.030,0.030,0.030,0.000,0.000,0.000
1644940628694177024,2022-02-15-15:57:08,10.1.1.10,10,0.030,0.030,0.030,0.000,0.000,0.000
1644940630014499840,2022-02-15-15:57:10,10.1.1.10,12,0.030,0.030,0.030,0.000,0.000,0.000
1644940630234571008,2022-02-15-15:57:10,10.1.1.10,30,0.070,0.070,0.070,0.000,0.000,0.000
1644940630533825024,2022-02-15-15:57:10,10.1.1.10,27,0.070,0.070,0.070,0.000,0.000,0.000
1644940632254245888,2022-02-15-15:57:12,10.1.1.10,26,0.070,0.070,0.070,0.000,0.000,0.000
1644940632554227200,2022-02-15-15:57:12,10.1.1.10,23,0.070,0.070,0.070,0.000,0.000,0.000
1644940634273148160,2022-02-15-15:57:14,10.1.1.10,17,0.070,0.070,0.070,0.000,0.000,0.000
1644940634572933888,2022-02-15-15:57:14,10.1.1.10,13,0.070,0.070,0.070,0.000,0.000,0.000
1644940636307846144,2022-02-15-15:57:16,10.1.1.10,7,0.070,0.070,0.070,0.000,0.000,0.000
1644940636617521920,2022-02-15-15:57:16,10.1.1.10,20,0.070,0.070,0.070,0.000,0.000,0.000
1644940637433809152,2022-02-15-15:57:17,10.1.1.10,20,-0.090,-0.090,-0.090,0.000,0.000,0.000
1644940637582851840,2022-02-15-15:57:17,10.1.1.10,15,-0.090,-0.090,-0.090,0.000,0.000,0.000
1644940639493854976,2022-02-15-15:57:19,10.1.1.10,21,-0.090,-0.090,-0.090,0.000,0.000,0.000
1644940639594193920,2022-02-15-15:57:19,10.1.1.10,17,-0.090,-0.090,-0.090,0.000,0.000,0.000
1644940641533049088,2022-02-15-15:57:21,10.1.1.10,26,-0.090,-0.090,-0.090,0.000,0.000,0.000
1644940641633146880,2022-02-15-15:57:21,10.1.1.10,26,-0.090,-0.090,-0.090,0.000,0.000,0.000
1644940643573798912,2022-02-15-15:57:23,10.1.1.10,25,-0.090,-0.090,-0.090,0.000,0.000,0.000
1644940643673641984,2022-02-15-15:57:23,10.1.1.10,24,-0.090,-0.090,-0.090,0.000,0.000,0.000
1644940645613993984,2022-02-15-15:57:25,10.1.1.10,11,-0.090,-0.090,-0.090,0.000,0.000,0.000
1644940645713568000,2022-02-15-15:57:25,10.1.1.10,9,-0.090,-0.090,-0.090,0.000,0.000,0.000
1644940647654465792,2022-02-15-15:57:27,10.1.1.10,10,-0.090,-0.090,-0.090,0.000,0.000,0.000
1644940647754658816,2022-02-15-15:57:27,10.1.1.10,7,-0.090,-0.090,-0.090,0.000,0.000,0.000
1644940649713581056,2022-02-15-15:57:29,10.1.1.10,11,-0.090,-0.090,-0.090,0.000,0.000,0.000
1644940649816060928,2022-02-15-15:57:29,10.1.1.10,10,-0.090,-0.090,-0.090,0.000,0.000,0.000
1644940651754877952,2022-02-15-15:57:31,10.1.1.10,13,-0.090,-0.090,-0.090,0.000,0.000,0.000
1644940651853761792,2022-02-15-15:57:31,10.1.1.10,7,-0.090,-0.090,-0.090,0.000,0.000,0.000
1644940653815424000,2022-02-15-15:57:33,10.1.1.10,23,-0.090,-0.090,-0.090,0.000,0.000,0.000
1644940653915513088,2022-02-15-15:57:33,10.1.1.10,20,-0.090,-0.090,-0.090,0.000,0.000,0.000
1644940655896590080,2022-02-15-15:57:35,10.1.1.10,20,-0.090,-0.090,-0.090,0.000,0.000,0.000
1644940655993747968,2022-02-15-15:57:35,10.1.1.10,16,-0.090,-0.090,-0.090,0.000,0.000,0.000
1644940657913392896,2022-02-15-15:57:37,10.1.1.10,9,-0.090,-0.090,-0.090,0.000,0.000,0.000
1644940658014117888,2022-02-15-15:57:38,10.1.1.10,8,-0.090,-0.090,-0.090,0.000,0.000,0.000
1644940659955044864,2022-02-15-15:57:39,10.1.1.10,15,-0.090,-0.090,-0.090,0.000,0.000,0.000
1644940660053543168,2022-02-15-15:57:40,10.1.1.10,12,-0.090,-0.090,-0.090,0.000,0.000,0.000
1644940661993632000,2022-02-15-15:57:41,10.1.1.10,13,-0.090,-0.090,-0.090,0.000,0.000,0.000
1644940662093656064,2022-02-15-15:57:42,10.1.1.10,12,-0.090,-0.090,-0.090,0.000,0.000,0.000
1644940664033922048,2022-02-15-15:57:44,10.1.1.10,12,-0.090,-0.090,-0.090,0.000,0.000,0.000
1644940664135243008,2022-02-15-15:57:44,10.1.1.10,11,-0.090,-0.090,-0.090,0.000,0.000,0.000
1644940666073750016,2022-02-15-15:57:46,10.1.1.10,16,-0.090,-0.090,-0.090,0.000,0.000,0.000
1644940666173423104,2022-02-15-15:57:46,10.1.1.10,15,-0.090,-0.090,-0.090,0.000,0.000,0.000
1644940668113854976,2022-02-15-15:57:48,10.1.1.10,20,-0.090,-0.090,-0.090,0.000,0.000,0.000
1644940668214107904,2022-02-15-15:57:48,10.1.1.10,19,-0.090,-0.090,-0.090,0.000,0.000,0.000
1644940670132445184,2022-02-15-15:57:50,10.1.1.10,12,-0.090,-0.090,-0.090,0.000,0.000,0.000
1644940670233786112,2022-02-15-15:57:50,10.1.1.10,11,-0.090,-0.090,-0.090,0.000,0.000,0.000
1644940672173260032,2022-02-15-15:57:52,10.1.1.10,18,-0.090,-0.090,-0.090,0.000,0.000,0.000
1644940672293477120,2022-02-15-15:57:52,10.1.1.10,23,-0.090,-0.090,-0.090,0.000,0.000,0.000
1644940674233248000,2022-02-15-15:57:54,10.1.1.10,13,-0.090,-0.090,-0.090,0.000,0.000,0.000
1644940674333291008,2022-02-15-15:57:54,10.1.1.10,12,-0.090,-0.090,-0.090,0.000,0.000,0.000
1644940676254287104,2022-02-15-15:57:56,10.1.1.10,9,-0.090,-0.090,-0.090,0.000,0.000,0.000
1644940676353072896,2022-02-15-15:57:56,10.1.1.10,8,-0.090,-0.090,-0.090,0.000,0.000,0.000
1644940678313337088,2022-02-15-15:57:58,10.1.1.10,18,-0.090,-0.090,-0.090,0.000,0.000,0.000
1644940678414309120,2022-02-15-15:57:58,10.1.1.10,16,-0.090,-0.090,-0.090,0.000,0.000,0.000
1644940680353095936,2022-02-15-15:58:00,10.1.1.10,24,-0.090,-0.090,-0.090,0.000,0.000,0.000
1644940680453326080,2022-02-15-15:58:00,10.1.1.10,23,-0.090,-0.090,-0.090,0.000,0.000,0.000
1644940682393657856,2022-02-15-15:58:02,10.1.1.10,22,-0.090,-0.090,-0.090,0.000,0.000,0.000
1644940682502659072,2022-02-15-15:58:02,10.1.1.10,20,-0.090,-0.090,-0.090,0.000,0.000,0.000
1644940684547340032,2022-02-15-15:58:04,10.1.1.10,14,-0.090,-0.090,-0.090,0.000,0.000,0.000
1644940684617265920,2022-02-15-15:58:04,10.1.1.10,4,-0.090,-0.090,-0.090,0.000,0.000,0.000
1644940686593558016,2022-02-15-15:58:06,10.1.1.10,12,-0.090,-0.090,-0.090,0.000,0.000,0.000
1644940686693198848,2022-02-15-15:58:06,10.1.1.10,10,-0.090,-0.090,-0.090,0.000,0.000,0.000
1644940688652985088,2022-02-15-15:58:08,10.1.1.10,24,-0.090,-0.090,-0.090,0.000,0.000,0.000
1644940688752939008,2022-02-15-15:58:08,10.1.1.10,22,-0.090,-0.090,-0.090,0.000,0.000,0.000
1644940690694249984,2022-02-15-15:58:10,10.1.1.10,27,-0.090,-0.090,-0.090,0.000,0.000,0.000
1644940690792519936,2022-02-15-15:58:10,10.1.1.10,26,-0.090,-0.090,-0.090,0.000,0.000,0.000
1644940692753231104,2022-02-15-15:58:12,10.1.1.10,23,-0.090,-0.090,-0.090,0.000,0.000,0.000
1644940692852817920,2022-02-15-15:58:12,10.1.1.10,21,-0.090,-0.090,-0.090,0.000,0.000,0.000
1644940694792576000,2022-02-15-15:58:14,10.1.1.10,26,-0.090,-0.090,-0.090,0.000,0.000,0.000
1644940694893261824,2022-02-15-15:58:14,10.1.1.10,25,-0.090,-0.090,-0.090,0.000,0.000,0.000
1644940696854938880,2022-02-15-15:58:16,10.1.1.10,18,-0.090,-0.090,-0.090,0.000,0.000,0.000
1644940696952652032,2022-02-15-15:58:16,10.1.1.10,15,-0.090,-0.090,-0.090,0.000,0.000,0.000
1644940698912792064,2022-02-15-15:58:18,10.1.1.10,23,-0.090,-0.090,-0.090,0.000,0.000,0.000
1644940699013408000,2022-02-15-15:58:19,10.1.1.10,22,-0.090,-0.090,-0.090,0.000,0.000,0.000
1644940701113374976,2022-02-15-15:58:21,10.1.1.10,23,-0.090,-0.090,-0.090,0.000,0.000,0.000
1644940701215606016,2022-02-15-15:58:21,10.1.1.10,20,-0.090,-0.090,-0.090,0.000,0.000,0.000
1644940703212702976,2022-02-15-15:58:23,10.1.1.10,19,-0.090,-0.090,-0.090,0.000,0.000,0.000
1644940703312644096,2022-02-15-15:58:23,10.1.1.10,17,-0.090,-0.090,-0.090,0.000,0.000,0.000
1644940705273046016,2022-02-15-15:58:25,10.1.1.10,14,-0.090,-0.090,-0.090,0.000,0.000,0.000
1644940705373167872,2022-02-15-15:58:25,10.1.1.10,12,-0.090,-0.090,-0.090,0.000,0.000,0.000
1644940707293240064,2022-02-15-15:58:27,10.1.1.10,12,-0.090,-0.090,-0.090,0.000,0.000,0.000
1644940707392805120,2022-02-15-15:58:27,10.1.1.10,11,-0.090,-0.090,-0.090,0.000,0.000,0.000
1644940709433128960,2022-02-15-15:58:29,10.1.1.10,25,-0.090,-0.090,-0.090,0.000,0.000,0.000
1644940711412902144,2022-02-15-15:58:31,10.1.1.10,22,-0.090,-0.090,-0.090,0.000,0.000,0.000
1644940711513137152,2022-02-15-15:58:31,10.1.1.10,21,-0.090,-0.090,-0.090,0.000,0.000,0.000
1644940713433124096,2022-02-15-15:58:33,10.1.1.10,17,-0.090,-0.090,-0.090,0.000,0.000,0.000
1644940713538904064,2022-02-15-15:58:33,10.1.1.10,12,-0.090,-0.090,-0.090,0.000,0.000,0.000
1644940715512837888,2022-02-15-15:58:35,10.1.1.10,23,-0.090,-0.090,-0.090,0.000,0.000,0.000
1644940715613807872,2022-02-15-15:58:35,10.1.1.10,22,-0.090,-0.090,-0.090,0.000,0.000,0.000
1644940717533014016,2022-02-15-15:58:37,10.1.1.10,12,-0.090,-0.090,-0.090,0.000,0.000,0.000
1644940717632515840,2022-02-15-15:58:37,10.1.1.10,11,-0.090,-0.090,-0.090,0.000,0.000,0.000
1644940719625161984,2022-02-15-15:58:39,10.1.1.10,16,-0.090,-0.090,-0.090,0.000,0.000,0.000
1644940719692507136,2022-02-15-15:58:39,10.1.1.10,14,-0.090,-0.090,-0.090,0.000,0.000,0.000
1644940721633326080,2022-02-15-15:58:41,10.1.1.10,21,-0.090,-0.090,-0.090,0.000,0.000,0.000
1644940721733763072,2022-02-15-15:58:41,10.1.1.10,18,-0.090,-0.090,-0.090,0.000,0.000,0.000
1644940723672478976,2022-02-15-15:58:43,10.1.1.10,22,-0.090,-0.090,-0.090,0.000,0.000,0.000
1644940723773867008,2022-02-15-15:58:43,10.1.1.10,21,-0.090,-0.090,-0.090,0.000,0.000,0.000
1644940725693926144,2022-02-15-15:58:45,10.1.1.10,19,-0.090,-0.090,-0.090,0.000,0.000,0.000
1644940725793050880,2022-02-15-15:58:45,10.1.1.10,17,-0.090,-0.090,-0.090,0.000,0.000,0.000
1644940727713538816,2022-02-15-15:58:47,10.1.1.10,10,-0.090,-0.090,-0.090,0.000,0.000,0.000
1644940727813609984,2022-02-15-15:58:47,10.1.1.10,9,-0.090,-0.090,-0.090,0.000,0.000,0.000
1644940729792653056,2022-02-15-15:58:49,10.1.1.10,25,-0.090,-0.090,-0.090,0.000,0.000,0.000
1644940729893217024,2022-02-15-15:58:49,10.1.1.10,24,-0.090,-0.090,-0.090,0.000,0.000,0.000
1644940731817441024,2022-02-15-15:58:51,10.1.1.10,11,-0.090,-0.090,-0.090,0.000,0.000,0.000
1644940731914594816,2022-02-15-15:58:51,10.1.1.10,10,-0.090,-0.090,-0.090,0.000,0.000,0.000
1644940733913335040,2022-02-15-15:58:53,10.1.1.10,17,-0.090,-0.090,-0.090,0.000,0.000,0.000
1644940734012516864,2022-02-15-15:58:54,10.1.1.10,15,-0.090,-0.090,-0.090,0.000,0.000,0.000
1644940735972222208,2022-02-15-15:58:55,10.1.1.10,12,-0.090,-0.090,-0.090,0.000,0.000,0.000
1644940736072393984,2022-02-15-15:58:56,10.1.1.10,11,-0.090,-0.090,-0.090,0.000,0.000,0.000
1644940738014235136,2022-02-15-15:58:58,10.1.1.10,15,-0.090,-0.090,-0.090,0.000,0.000,0.000
1644940738113176064,2022-02-15-15:58:58,10.1.1.10,14,-0.090,-0.090,-0.090,0.000,0.000,0.000
1644940740053270016,2022-02-15-15:59:00,10.1.1.10,18,-0.090,-0.090,-0.090,0.000,0.000,0.000
1644940740153331968,2022-02-15-15:59:00,10.1.1.10,17,-0.090,-0.090,-0.090,0.000,0.000,0.000
1644940742112829952,2022-02-15-15:59:02,10.1.1.10,26,-0.090,-0.090,-0.090,0.000,0.000,0.000
1644940742212260096,2022-02-15-15:59:02,10.1.1.10,24,-0.090,-0.090,-0.090,0.000,0.000,0.000
1644940744196006144,2022-02-15-15:59:04,10.1.1.10,7,-0.090,-0.090,-0.090,0.000,0.000,0.000
1644940744313225984,2022-02-15-15:59:04,10.1.1.10,23,-0.090,-0.090,-0.090,0.000,0.000,0.000
1644940746272929024,2022-02-15-15:59:06,10.1.1.10,20,-0.090,-0.090,-0.090,0.000,0.000,0.000
1644940746372615936,2022-02-15-15:59:06,10.1.1.10,18,-0.090,-0.090,-0.090,0.000,0.000,0.000
1644940748292721920,2022-02-15-15:59:08,10.1.1.10,15,-0.090,-0.090,-0.090,0.000,0.000,0.000
1644940748393310976,2022-02-15-15:59:08,10.1.1.10,14,-0.090,-0.090,-0.090,0.000,0.000,0.000
1644940750312736000,2022-02-15-15:59:10,10.1.1.10,16,-0.090,-0.090,-0.090,0.000,0.000,0.000
1644940750414056960,2022-02-15-15:59:10,10.1.1.10,15,-0.090,-0.090,-0.090,0.000,0.000,0.000
1644940752353025792,2022-02-15-15:59:12,10.1.1.10,8,-0.090,-0.090,-0.090,0.000,0.000,0.000
1644940752473074944,2022-02-15-15:59:12,10.1.1.10,27,-0.090,-0.090,-0.090,0.000,0.000,0.000
1644940754419232000,2022-02-15-15:59:14,10.1.1.10,22,-0.090,-0.090,-0.090,0.000,0.000,0.000
1644940754513164032,2022-02-15-15:59:14,10.1.1.10,21,-0.090,-0.090,-0.090,0.000,0.000,0.000
1644940756452836864,2022-02-15-15:59:16,10.1.1.10,10,-0.090,-0.090,-0.090,0.000,0.000,0.000
1644940756552737024,2022-02-15-15:59:16,10.1.1.10,9,-0.090,-0.090,-0.090,0.000,0.000,0.000
1644940758492399872,2022-02-15-15:59:18,10.1.1.10,19,-0.090,-0.090,-0.090,0.000,0.000,0.000
1644940758592278016,2022-02-15-15:59:18,10.1.1.10,17,-0.090,-0.090,-0.090,0.000,0.000,0.000
1644940760533731072,2022-02-15-15:59:20,10.1.1.10,22,-0.090,-0.090,-0.090,0.000,0.000,0.000
1644940760632771072,2022-02-15-15:59:20,10.1.1.10,21,-0.090,-0.090,-0.090,0.000,0.000,0.000
1644940762626194944,2022-02-15-15:59:22,10.1.1.10,16,-0.090,-0.090,-0.090,0.000,0.000,0.000
1644940762712781056,2022-02-15-15:59:22,10.1.1.10,23,-0.090,-0.090,-0.090,0.000,0.000,0.000
1644940764756975872,2022-02-15-15:59:24,10.1.1.10,10,-0.090,-0.090,-0.090,0.000,0.000,0.000
1644940764852866816,2022-02-15-15:59:24,10.1.1.10,9,-0.090,-0.090,-0.090,0.000,0.000,0.000
1644940766793243904,2022-02-15-15:59:26,10.1.1.10,26,-0.090,-0.090,-0.090,0.000,0.000,0.000
1644940766892660992,2022-02-15-15:59:26,10.1.1.10,25,-0.090,-0.090,-0.090,0.000,0.000,0.000
1644940768813481216,2022-02-15-15:59:28,10.1.1.10,24,-0.090,-0.090,-0.090,0.000,0.000,0.000
1644940768912736768,2022-02-15-15:59:28,10.1.1.10,23,-0.090,-0.090,-0.090,0.000,0.000,0.000
1644940770853734144,2022-02-15-15:59:30,10.1.1.10,18,-0.090,-0.090,-0.090,0.000,0.000,0.000
1644940772912282880,2022-02-15-15:59:32,10.1.1.10,28,-0.090,-0.090,-0.090,0.000,0.000,0.000
1644940773013278976,2022-02-15-15:59:33,10.1.1.10,27,-0.090,-0.090,-0.090,0.000,0.000,0.000
1644940775033282048,2022-02-15-15:59:35,10.1.1.10,13,-0.090,-0.090,-0.090,0.000,0.000,0.000
1644940775136168960,2022-02-15-15:59:35,10.1.1.10,12,-0.090,-0.090,-0.090,0.000,0.000,0.000
1644940777073946112,2022-02-15-15:59:37,10.1.1.10,7,-0.090,-0.090,-0.090,0.000,0.000,0.000
1644940777192899840,2022-02-15-15:59:37,10.1.1.10,25,-0.090,-0.090,-0.090,0.000,0.000,0.000
1644940779133655040,2022-02-15-15:59:39,10.1.1.10,24,-0.090,-0.090,-0.090,0.000,0.000,0.000
1644940779232315136,2022-02-15-15:59:39,10.1.1.10,22,-0.090,-0.090,-0.090,0.000,0.000,0.000
1644940781171865088,2022-02-15-15:59:41,10.1.1.10,14,-0.090,-0.090,-0.090,0.000,0.000,0.000
1644940781272516864,2022-02-15-15:59:41,10.1.1.10,13,-0.090,-0.090,-0.090,0.000,0.000,0.000
1644940783213285888,2022-02-15-15:59:43,10.1.1.10,10,-0.090,-0.090,-0.090,0.000,0.000,0.000
1644940783312517888,2022-02-15-15:59:43,10.1.1.10,9,-0.090,-0.090,-0.090,0.000,0.000,0.000
1644940785272311808,2022-02-15-15:59:45,10.1.1.10,12,-0.090,-0.090,-0.090,0.000,0.000,0.000
1644940785373155072,2022-02-15-15:59:45,10.1.1.10,11,-0.090,-0.090,-0.090,0.000,0.000,0.000
1644940787332684032,2022-02-15-15:59:47,10.1.1.10,26,-0.090,-0.090,-0.090,0.000,0.000,0.000
1644940787432897024,2022-02-15-15:59:47,10.1.1.10,15,-0.090,-0.090,-0.090,0.000,0.000,0.000
1644940789552894976,2022-02-15-15:59:49,10.1.1.10,24,-0.090,-0.090,-0.090,0.000,0.000,0.000
1644940789653403904,2022-02-15-15:59:49,10.1.1.10,22,-0.090,-0.090,-0.090,0.000,0.000,0.000
1644940791574025984,2022-02-15-15:59:51,10.1.1.10,16,-0.090,-0.090,-0.090,0.000,0.000,0.000
1644940791672924160,2022-02-15-15:59:51,10.1.1.10,14,-0.090,-0.090,-0.090,0.000,0.000,0.000
1644940793612907776,2022-02-15-15:59:53,10.1.1.10,23,-0.090,-0.090,-0.090,0.000,0.000,0.000
1644940793712587008,2022-02-15-15:59:53,10.1.1.10,22,-0.090,-0.090,-0.090,0.000,0.000,0.000
1644940795653580032,2022-02-15-15:59:55,10.1.1.10,18,-0.090,-0.090,-0.090,0.000,0.000,0.000
1644940795752932096,2022-02-15-15:59:55,10.1.1.10,16,-0.090,-0.090,-0.090,0.000,0.000,0.000
1644940797692753920,2022-02-15-15:59:57,10.1.1.10,11,-0.090,-0.090,-0.090,0.000,0.000,0.000
1644940797792881920,2022-02-15-15:59:57,10.1.1.10,9,-0.090,-0.090,-0.090,0.000,0.000,0.000
1644940799772049920,2022-02-15-15:59:59,10.1.1.10,16,-0.090,-0.090,-0.090,0.000,0.000,0.000
1644940799872662016,2022-02-15-15:59:59,10.1.1.10,11,-0.090,-0.090,-0.090,0.000,0.000,0.000
1644940801832726016,2022-02-15-16:00:01,10.1.1.10,26,-0.090,-0.090,-0.090,0.000,0.000,0.000
1644940801932265984,2022-02-15-16:00:01,10.1.1.10,24,-0.090,-0.090,-0.090,0.000,0.000,0.000
1644940803854275072,2022-02-15-16:00:03,10.1.1.10,22,-0.090,-0.090,-0.090,0.000,0.000,0.000
1644940803958812928,2022-02-15-16:00:03,10.1.1.10,21,-0.090,-0.090,-0.090,0.000,0.000,0.000
1644940805873112832,2022-02-15-16:00:05,10.1.1.10,11,-0.090,-0.090,-0.090,0.000,0.000,0.000
1644940805972652800,2022-02-15-16:00:05,10.1.1.10,9,-0.090,-0.090,-0.090,0.000,0.000,0.000
1644940807952559104,2022-02-15-16:00:07,10.1.1.10,25,-0.090,-0.090,-0.090,0.000,0.000,0.000
1644940808052773888,2022-02-15-16:00:08,10.1.1.10,24,-0.090,-0.090,-0.090,0.000,0.000,0.000
1644940810116414976,2022-02-15-16:00:10,10.1.1.10,8,-0.090,-0.090,-0.090,0.000,0.000,0.000
1644940810232420864,2022-02-15-16:00:10,10.1.1.10,27,-0.090,-0.090,-0.090,0.000,0.000,0.000
1644940812213005056,2022-02-15-16:00:12,10.1.1.10,8,-0.090,-0.090,-0.090,0.000,0.000,0.000
1644940812333314816,2022-02-15-16:00:12,10.1.1.10,27,-0.090,-0.090,-0.090,0.000,0.000,0.000
1644940814252856064,2022-02-15-16:00:14,10.1.1.10,9,-0.090,-0.090,-0.090,0.000,0.000,0.000
1644940814372324864,2022-02-15-16:00:14,10.1.1.10,27,-0.090,-0.090,-0.090,0.000,0.000,0.000
1644940816312571904,2022-02-15-16:00:16,10.1.1.10,15,-0.090,-0.090,-0.090,0.000,0.000,0.000
1644940816413860096,2022-02-15-16:00:16,10.1.1.10,13,-0.090,-0.090,-0.090,0.000,0.000,0.000
1644940818358184960,2022-02-15-16:00:18,10.1.1.10,11,-0.090,-0.090,-0.090,0.000,0.000,0.000
1644940818434082048,2022-02-15-16:00:18,10.1.1.10,10,-0.090,-0.090,-0.090,0.000,0.000,0.000
1644940820372728064,2022-02-15-16:00:20,10.1.1.10,16,-0.090,-0.090,-0.090,0.000,0.000,0.000
1644940820472479232,2022-02-15-16:00:20,10.1.1.10,15,-0.090,-0.090,-0.090,0.000,0.000,0.000
1644940822413090048,2022-02-15-16:00:22,10.1.1.10,12,-0.090,-0.090,-0.090,0.000,0.000,0.000
1644940822472886016,2022-02-15-16:00:22,10.1.1.10,21,-0.100,-0.100,-0.100,0.000,0.000,0.000
1644940824572374016,2022-02-15-16:00:24,10.1.1.10,27,-0.100,-0.100,-0.100,0.000,0.000,0.000
1644940826592489984,2022-02-15-16:00:26,10.1.1.10,12,-0.100,-0.100,-0.100,0.000,0.000,0.000
1644940828637166080,2022-02-15-16:00:28,10.1.1.10,8,-0.100,-0.100,-0.100,0.000,0.000,0.000
1644940830673540096,2022-02-15-16:00:30,10.1.1.10,12,-0.100,-0.100,-0.100,0.000,0.000,0.000
1644940832731921920,2022-02-15-16:00:32,10.1.1.10,28,-0.100,-0.100,-0.100,0.000,0.000,0.000
1644940834752798208,2022-02-15-16:00:34,10.1.1.10,13,-0.100,-0.100,-0.100,0.000,0.000,0.000
1644940836793037056,2022-02-15-16:00:36,10.1.1.10,9,-0.100,-0.100,-0.100,0.000,0.000,0.000
1644940838831826944,2022-02-15-16:00:38,10.1.1.10,16,-0.100,-0.100,-0.100,0.000,0.000,0.000
1644940840892167168,2022-02-15-16:00:40,10.1.1.10,16,-0.100,-0.100,-0.100,0.000,0.000,0.000
1644940842934062848,2022-02-15-16:00:42,10.1.1.10,10,-0.100,-0.100,-0.100,0.000,0.000,0.000
1644940844991736832,2022-02-15-16:00:44,10.1.1.10,24,-0.100,-0.100,-0.100,0.000,0.000,0.000
