FedericoMungari/DigitalTwin_service/01_WiredScenario/Output/Output_script/script_rosapi_2_output_robots6_freq0_1.txt
timestamp,date,node,latency,joint_1,joint_2,joint_3,joint_4,joint_5,joint_6
1644347636046612992,2022-02-08-19:13:56,10.1.1.2,10,-0.100,-0.100,-0.100,0.000,0.000,0.000
1644347636167748096,2022-02-08-19:13:56,10.1.1.2,29,-0.090,-0.090,-0.090,0.000,0.000,0.000
1644347636268246784,2022-02-08-19:13:56,10.1.1.2,29,-0.080,-0.080,-0.080,0.000,0.000,0.000
1644347636367712000,2022-02-08-19:13:56,10.1.1.2,28,-0.070,-0.070,-0.070,0.000,0.000,0.000
1644347636467337984,2022-02-08-19:13:56,10.1.1.2,27,-0.060,-0.060,-0.060,0.000,0.000,0.000
1644347636573307904,2022-02-08-19:13:56,10.1.1.2,26,-0.050,-0.050,-0.050,0.000,0.000,0.000
1644347636667152896,2022-02-08-19:13:56,10.1.1.2,22,-0.040,-0.040,-0.040,0.000,0.000,0.000
1644347636766536960,2022-02-08-19:13:56,10.1.1.2,20,-0.030,-0.030,-0.030,0.000,0.000,0.000
1644347636867330048,2022-02-08-19:13:56,10.1.1.2,19,-0.020,-0.020,-0.020,0.000,0.000,0.000
1644347636967730944,2022-02-08-19:13:56,10.1.1.2,19,-0.011,-0.011,-0.011,0.000,0.000,0.000
1644347637088730112,2022-02-08-19:13:57,10.1.1.2,38,0.000,0.000,0.000,0.000,0.000,0.000
1644347637187640064,2022-02-08-19:13:57,10.1.1.2,36,0.010,0.010,0.010,0.000,0.000,0.000
1644347637290211840,2022-02-08-19:13:57,10.1.1.2,35,0.020,0.020,0.020,0.000,0.000,0.000
1644347637387916032,2022-02-08-19:13:57,10.1.1.2,33,0.030,0.030,0.030,0.000,0.000,0.000
1644347637487979776,2022-02-08-19:13:57,10.1.1.2,32,0.040,0.040,0.040,0.000,0.000,0.000
1644347637587377152,2022-02-08-19:13:57,10.1.1.2,31,0.050,0.050,0.050,0.000,0.000,0.000
1644347637687305984,2022-02-08-19:13:57,10.1.1.2,30,0.060,0.060,0.060,0.000,0.000,0.000
1644347637786822144,2022-02-08-19:13:57,10.1.1.2,29,0.070,0.070,0.070,0.000,0.000,0.000
1644347637887420928,2022-02-08-19:13:57,10.1.1.2,28,0.080,0.080,0.080,0.000,0.000,0.000
1644347637987926016,2022-02-08-19:13:57,10.1.1.2,27,0.090,0.090,0.090,0.000,0.000,0.000
1644347638088882944,2022-02-08-19:13:58,10.1.1.2,26,0.100,0.100,0.100,0.000,0.000,0.000
1644347638187799040,2022-02-08-19:13:58,10.1.1.2,26,0.090,0.090,0.090,0.000,0.000,0.000
1644347638286899200,2022-02-08-19:13:58,10.1.1.2,25,0.080,0.080,0.080,0.000,0.000,0.000
1644347638388144128,2022-02-08-19:13:58,10.1.1.2,24,0.070,0.070,0.070,0.000,0.000,0.000
1644347638487921920,2022-02-08-19:13:58,10.1.1.2,24,0.060,0.060,0.060,0.000,0.000,0.000
1644347638588025088,2022-02-08-19:13:58,10.1.1.2,23,0.050,0.050,0.050,0.000,0.000,0.000
1644347638687837952,2022-02-08-19:13:58,10.1.1.2,22,0.040,0.040,0.040,0.000,0.000,0.000
1644347638787694080,2022-02-08-19:13:58,10.1.1.2,21,0.030,0.030,0.030,0.000,0.000,0.000
1644347638886236928,2022-02-08-19:13:58,10.1.1.2,21,0.020,0.020,0.020,0.000,0.000,0.000
1644347638988424960,2022-02-08-19:13:58,10.1.1.2,21,0.010,0.010,0.010,0.000,0.000,0.000
1644347639086999040,2022-02-08-19:13:59,10.1.1.2,20,0.000,0.000,0.000,0.000,0.000,0.000
1644347639187524096,2022-02-08-19:13:59,10.1.1.2,20,-0.010,-0.010,-0.010,0.000,0.000,0.000
1644347639287837952,2022-02-08-19:13:59,10.1.1.2,19,-0.019,-0.019,-0.019,0.000,0.000,0.000
1644347639407064832,2022-02-08-19:13:59,10.1.1.2,39,-0.030,-0.030,-0.030,0.000,0.000,0.000
1644347639506788864,2022-02-08-19:13:59,10.1.1.2,38,-0.040,-0.040,-0.040,0.000,0.000,0.000
1644347639607610880,2022-02-08-19:13:59,10.1.1.2,37,-0.050,-0.050,-0.050,0.000,0.000,0.000
1644347639708339968,2022-02-08-19:13:59,10.1.1.2,36,-0.060,-0.060,-0.060,0.000,0.000,0.000
1644347639808044032,2022-02-08-19:13:59,10.1.1.2,35,-0.070,-0.070,-0.070,0.000,0.000,0.000
1644347639907386112,2022-02-08-19:13:59,10.1.1.2,34,-0.080,-0.080,-0.080,0.000,0.000,0.000
1644347640007164928,2022-02-08-19:14:00,10.1.1.2,33,-0.090,-0.090,-0.090,0.000,0.000,0.000
1644347640108217088,2022-02-08-19:14:00,10.1.1.2,32,-0.100,-0.100,-0.100,0.000,0.000,0.000
1644347640207469824,2022-02-08-19:14:00,10.1.1.2,31,-0.090,-0.090,-0.090,0.000,0.000,0.000
1644347640305998080,2022-02-08-19:14:00,10.1.1.2,30,-0.080,-0.080,-0.080,0.000,0.000,0.000
1644347640406131968,2022-02-08-19:14:00,10.1.1.2,29,-0.070,-0.070,-0.070,0.000,0.000,0.000
1644347640507652096,2022-02-08-19:14:00,10.1.1.2,29,-0.060,-0.060,-0.060,0.000,0.000,0.000
1644347640607497984,2022-02-08-19:14:00,10.1.1.2,28,-0.050,-0.050,-0.050,0.000,0.000,0.000
1644347640707511040,2022-02-08-19:14:00,10.1.1.2,28,-0.040,-0.040,-0.040,0.000,0.000,0.000
1644347640808342016,2022-02-08-19:14:00,10.1.1.2,27,-0.030,-0.030,-0.030,0.000,0.000,0.000
1644347640907522048,2022-02-08-19:14:00,10.1.1.2,26,-0.020,-0.020,-0.020,0.000,0.000,0.000
1644347641007837184,2022-02-08-19:14:01,10.1.1.2,25,-0.010,-0.010,-0.010,0.000,0.000,0.000
1644347641107106816,2022-02-08-19:14:01,10.1.1.2,24,0.000,0.000,0.000,0.000,0.000,0.000
1644347641207950080,2022-02-08-19:14:01,10.1.1.2,24,0.010,0.010,0.010,0.000,0.000,0.000
1644347641307652096,2022-02-08-19:14:01,10.1.1.2,22,0.020,0.020,0.020,0.000,0.000,0.000
1644347641407091968,2022-02-08-19:14:01,10.1.1.2,22,0.030,0.030,0.030,0.000,0.000,0.000
1644347641506882816,2022-02-08-19:14:01,10.1.1.2,21,0.040,0.040,0.040,0.000,0.000,0.000
1644347641608052992,2022-02-08-19:14:01,10.1.1.2,20,0.050,0.050,0.050,0.000,0.000,0.000
1644347641727956992,2022-02-08-19:14:01,10.1.1.2,38,0.060,0.060,0.060,0.000,0.000,0.000
1644347641826405120,2022-02-08-19:14:01,10.1.1.2,37,0.070,0.070,0.070,0.000,0.000,0.000
1644347641926366208,2022-02-08-19:14:01,10.1.1.2,36,0.080,0.080,0.080,0.000,0.000,0.000
1644347642028126976,2022-02-08-19:14:02,10.1.1.2,36,0.090,0.090,0.090,0.000,0.000,0.000
1644347642128978944,2022-02-08-19:14:02,10.1.1.2,36,0.100,0.100,0.100,0.000,0.000,0.000
1644347642226948864,2022-02-08-19:14:02,10.1.1.2,34,0.090,0.090,0.090,0.000,0.000,0.000
1644347642326711808,2022-02-08-19:14:02,10.1.1.2,33,0.080,0.080,0.080,0.000,0.000,0.000
1644347642426891008,2022-02-08-19:14:02,10.1.1.2,33,0.070,0.070,0.070,0.000,0.000,0.000
1644347642527790080,2022-02-08-19:14:02,10.1.1.2,32,0.060,0.060,0.060,0.000,0.000,0.000
1644347642627749888,2022-02-08-19:14:02,10.1.1.2,31,0.050,0.050,0.050,0.000,0.000,0.000
1644347642728028928,2022-02-08-19:14:02,10.1.1.2,31,0.040,0.040,0.040,0.000,0.000,0.000
1644347642827176192,2022-02-08-19:14:02,10.1.1.2,30,0.030,0.030,0.030,0.000,0.000,0.000
1644347642927479040,2022-02-08-19:14:02,10.1.1.2,29,0.020,0.020,0.020,0.000,0.000,0.000
1644347643026825984,2022-02-08-19:14:03,10.1.1.2,29,0.010,0.010,0.010,0.000,0.000,0.000
1644347643127693056,2022-02-08-19:14:03,10.1.1.2,28,0.000,0.000,0.000,0.000,0.000,0.000
1644347643227832064,2022-02-08-19:14:03,10.1.1.2,28,-0.010,-0.010,-0.010,0.000,0.000,0.000
1644347643327142912,2022-02-08-19:14:03,10.1.1.2,27,-0.020,-0.020,-0.020,0.000,0.000,0.000
1644347643426774016,2022-02-08-19:14:03,10.1.1.2,26,-0.030,-0.030,-0.030,0.000,0.000,0.000
1644347643528199936,2022-02-08-19:14:03,10.1.1.2,25,-0.040,-0.040,-0.040,0.000,0.000,0.000
1644347643626311168,2022-02-08-19:14:03,10.1.1.2,24,-0.050,-0.050,-0.050,0.000,0.000,0.000
1644347643726424064,2022-02-08-19:14:03,10.1.1.2,24,-0.060,-0.060,-0.060,0.000,0.000,0.000
1644347643826508032,2022-02-08-19:14:03,10.1.1.2,23,-0.070,-0.070,-0.070,0.000,0.000,0.000
1644347643926550016,2022-02-08-19:14:03,10.1.1.2,22,-0.080,-0.080,-0.080,0.000,0.000,0.000
1644347644027204096,2022-02-08-19:14:04,10.1.1.2,21,-0.090,-0.090,-0.090,0.000,0.000,0.000
1644347644128210176,2022-02-08-19:14:04,10.1.1.2,21,-0.100,-0.100,-0.100,0.000,0.000,0.000
1644347644228648960,2022-02-08-19:14:04,10.1.1.2,20,-0.090,-0.090,-0.090,0.000,0.000,0.000
1644347644346353920,2022-02-08-19:14:04,10.1.1.2,39,-0.080,-0.080,-0.080,0.000,0.000,0.000
1644347644446533888,2022-02-08-19:14:04,10.1.1.2,38,-0.070,-0.070,-0.070,0.000,0.000,0.000
1644347644548301824,2022-02-08-19:14:04,10.1.1.2,37,-0.060,-0.060,-0.060,0.000,0.000,0.000
1644347644647737088,2022-02-08-19:14:04,10.1.1.2,37,-0.050,-0.050,-0.050,0.000,0.000,0.000
1644347644747172096,2022-02-08-19:14:04,10.1.1.2,36,-0.040,-0.040,-0.040,0.000,0.000,0.000
1644347644846710016,2022-02-08-19:14:04,10.1.1.2,35,-0.030,-0.030,-0.030,0.000,0.000,0.000
1644347644948486144,2022-02-08-19:14:04,10.1.1.2,32,-0.020,-0.020,-0.020,0.000,0.000,0.000
1644347645049050112,2022-02-08-19:14:05,10.1.1.2,32,-0.010,-0.010,-0.010,0.000,0.000,0.000
1644347645167087104,2022-02-08-19:14:05,10.1.1.2,39,0.000,0.000,0.000,0.000,0.000,0.000
1644347645270494976,2022-02-08-19:14:05,10.1.1.2,37,0.010,0.010,0.010,0.000,0.000,0.000
1644347645367193088,2022-02-08-19:14:05,10.1.1.2,34,0.020,0.020,0.020,0.000,0.000,0.000
1644347645467307008,2022-02-08-19:14:05,10.1.1.2,33,0.030,0.030,0.030,0.000,0.000,0.000
1644347645566761984,2022-02-08-19:14:05,10.1.1.2,33,0.040,0.040,0.040,0.000,0.000,0.000
1644347645665883904,2022-02-08-19:14:05,10.1.1.2,32,0.050,0.050,0.050,0.000,0.000,0.000
1644347645768923904,2022-02-08-19:14:05,10.1.1.2,32,0.060,0.060,0.060,0.000,0.000,0.000
1644347645867139072,2022-02-08-19:14:05,10.1.1.2,30,0.070,0.070,0.070,0.000,0.000,0.000
1644347645967611904,2022-02-08-19:14:05,10.1.1.2,29,0.080,0.080,0.080,0.000,0.000,0.000
1644347646066539008,2022-02-08-19:14:06,10.1.1.2,29,0.090,0.090,0.090,0.000,0.000,0.000
1644347646169179904,2022-02-08-19:14:06,10.1.1.2,29,0.100,0.100,0.100,0.000,0.000,0.000
1644347646268715008,2022-02-08-19:14:06,10.1.1.2,28,0.090,0.090,0.090,0.000,0.000,0.000
1644347646367408128,2022-02-08-19:14:06,10.1.1.2,26,0.080,0.080,0.080,0.000,0.000,0.000
1644347646467611904,2022-02-08-19:14:06,10.1.1.2,25,0.070,0.070,0.070,0.000,0.000,0.000
1644347646567912192,2022-02-08-19:14:06,10.1.1.2,24,0.060,0.060,0.060,0.000,0.000,0.000
1644347646666939904,2022-02-08-19:14:06,10.1.1.2,22,0.050,0.050,0.050,0.000,0.000,0.000
1644347646769239808,2022-02-08-19:14:06,10.1.1.2,22,0.040,0.040,0.040,0.000,0.000,0.000
1644347646868333056,2022-02-08-19:14:06,10.1.1.2,20,0.030,0.030,0.030,0.000,0.000,0.000
1644347646969255936,2022-02-08-19:14:06,10.1.1.2,19,0.020,0.020,0.020,0.000,0.000,0.000
1644347647086749184,2022-02-08-19:14:07,10.1.1.2,39,0.010,0.010,0.010,0.000,0.000,0.000
1644347647186417152,2022-02-08-19:14:07,10.1.1.2,37,0.000,0.000,0.000,0.000,0.000,0.000
1644347647289722880,2022-02-08-19:14:07,10.1.1.2,37,-0.010,-0.010,-0.010,0.000,0.000,0.000
1644347647387789056,2022-02-08-19:14:07,10.1.1.2,35,-0.020,-0.020,-0.020,0.000,0.000,0.000
1644347647487956992,2022-02-08-19:14:07,10.1.1.2,32,-0.030,-0.030,-0.030,0.000,0.000,0.000
1644347647587660032,2022-02-08-19:14:07,10.1.1.2,31,-0.040,-0.040,-0.040,0.000,0.000,0.000
1644347647687324160,2022-02-08-19:14:07,10.1.1.2,31,-0.050,-0.050,-0.050,0.000,0.000,0.000
1644347647787625984,2022-02-08-19:14:07,10.1.1.2,30,-0.060,-0.060,-0.060,0.000,0.000,0.000
1644347647887804928,2022-02-08-19:14:07,10.1.1.2,29,-0.070,-0.070,-0.070,0.000,0.000,0.000
1644347647989156864,2022-02-08-19:14:07,10.1.1.2,28,-0.080,-0.080,-0.080,0.000,0.000,0.000
1644347648087446016,2022-02-08-19:14:08,10.1.1.2,27,-0.090,-0.090,-0.090,0.000,0.000,0.000
1644347648187026944,2022-02-08-19:14:08,10.1.1.2,25,-0.100,-0.100,-0.100,0.000,0.000,0.000
1644347648288980992,2022-02-08-19:14:08,10.1.1.2,25,-0.090,-0.090,-0.090,0.000,0.000,0.000
1644347648386689792,2022-02-08-19:14:08,10.1.1.2,24,-0.080,-0.080,-0.080,0.000,0.000,0.000
1644347648489660928,2022-02-08-19:14:08,10.1.1.2,22,-0.070,-0.070,-0.070,0.000,0.000,0.000
1644347648586296064,2022-02-08-19:14:08,10.1.1.2,22,-0.060,-0.060,-0.060,0.000,0.000,0.000
1644347648687830016,2022-02-08-19:14:08,10.1.1.2,21,-0.050,-0.050,-0.050,0.000,0.000,0.000
1644347648788258048,2022-02-08-19:14:08,10.1.1.2,20,-0.040,-0.040,-0.040,0.000,0.000,0.000
1644347648892606976,2022-02-08-19:14:08,10.1.1.2,20,-0.030,-0.030,-0.030,0.000,0.000,0.000
1644347648989182976,2022-02-08-19:14:08,10.1.1.2,19,-0.020,-0.020,-0.020,0.000,0.000,0.000
1644347649088051968,2022-02-08-19:14:09,10.1.1.2,19,-0.011,-0.011,-0.011,0.000,0.000,0.000
1644347649208743168,2022-02-08-19:14:09,10.1.1.2,38,0.000,0.000,0.000,0.000,0.000,0.000
1644347649307357952,2022-02-08-19:14:09,10.1.1.2,38,0.010,0.010,0.010,0.000,0.000,0.000
1644347649406824960,2022-02-08-19:14:09,10.1.1.2,37,0.020,0.020,0.020,0.000,0.000,0.000
1644347649507868928,2022-02-08-19:14:09,10.1.1.2,36,0.030,0.030,0.030,0.000,0.000,0.000
1644347649607443968,2022-02-08-19:14:09,10.1.1.2,35,0.040,0.040,0.040,0.000,0.000,0.000
1644347649708731904,2022-02-08-19:14:09,10.1.1.2,34,0.050,0.050,0.050,0.000,0.000,0.000
1644347649806469888,2022-02-08-19:14:09,10.1.1.2,33,0.060,0.060,0.060,0.000,0.000,0.000
1644347649908207872,2022-02-08-19:14:09,10.1.1.2,31,0.070,0.070,0.070,0.000,0.000,0.000
1644347650008135936,2022-02-08-19:14:10,10.1.1.2,30,0.080,0.080,0.080,0.000,0.000,0.000
1644347650109561088,2022-02-08-19:14:10,10.1.1.2,29,0.090,0.090,0.090,0.000,0.000,0.000
1644347650206238976,2022-02-08-19:14:10,10.1.1.2,28,0.100,0.100,0.100,0.000,0.000,0.000
1644347650306281984,2022-02-08-19:14:10,10.1.1.2,28,0.090,0.090,0.090,0.000,0.000,0.000
1644347650407016960,2022-02-08-19:14:10,10.1.1.2,26,0.080,0.080,0.080,0.000,0.000,0.000
1644347650507571968,2022-02-08-19:14:10,10.1.1.2,25,0.070,0.070,0.070,0.000,0.000,0.000
1644347650606721024,2022-02-08-19:14:10,10.1.1.2,25,0.060,0.060,0.060,0.000,0.000,0.000
1644347650709086976,2022-02-08-19:14:10,10.1.1.2,21,0.050,0.050,0.050,0.000,0.000,0.000
1644347650808265984,2022-02-08-19:14:10,10.1.1.2,20,0.040,0.040,0.040,0.000,0.000,0.000
1644347650907131904,2022-02-08-19:14:10,10.1.1.2,19,0.030,0.030,0.030,0.000,0.000,0.000
1644347651009341952,2022-02-08-19:14:11,10.1.1.2,19,0.021,0.021,0.021,0.000,0.000,0.000
1644347651127420928,2022-02-08-19:14:11,10.1.1.2,38,0.010,0.010,0.010,0.000,0.000,0.000
1644347651227058944,2022-02-08-19:14:11,10.1.1.2,38,0.000,0.000,0.000,0.000,0.000,0.000
1644347651328747008,2022-02-08-19:14:11,10.1.1.2,36,-0.010,-0.010,-0.010,0.000,0.000,0.000
1644347651427934976,2022-02-08-19:14:11,10.1.1.2,35,-0.020,-0.020,-0.020,0.000,0.000,0.000
1644347651527673088,2022-02-08-19:14:11,10.1.1.2,33,-0.030,-0.030,-0.030,0.000,0.000,0.000
1644347651628887040,2022-02-08-19:14:11,10.1.1.2,33,-0.040,-0.040,-0.040,0.000,0.000,0.000
1644347651729069824,2022-02-08-19:14:11,10.1.1.2,34,-0.050,-0.050,-0.050,0.000,0.000,0.000
1644347651827174912,2022-02-08-19:14:11,10.1.1.2,31,-0.060,-0.060,-0.060,0.000,0.000,0.000
1644347651927664128,2022-02-08-19:14:11,10.1.1.2,31,-0.070,-0.070,-0.070,0.000,0.000,0.000
1644347652028857088,2022-02-08-19:14:12,10.1.1.2,30,-0.080,-0.080,-0.080,0.000,0.000,0.000
1644347652132046848,2022-02-08-19:14:12,10.1.1.2,28,-0.090,-0.090,-0.090,0.000,0.000,0.000
1644347652227179008,2022-02-08-19:14:12,10.1.1.2,25,-0.100,-0.100,-0.100,0.000,0.000,0.000
1644347652328454912,2022-02-08-19:14:12,10.1.1.2,24,-0.090,-0.090,-0.090,0.000,0.000,0.000
1644347652427525888,2022-02-08-19:14:12,10.1.1.2,23,-0.080,-0.080,-0.080,0.000,0.000,0.000
1644347652527436032,2022-02-08-19:14:12,10.1.1.2,22,-0.070,-0.070,-0.070,0.000,0.000,0.000
1644347652627958016,2022-02-08-19:14:12,10.1.1.2,21,-0.060,-0.060,-0.060,0.000,0.000,0.000
1644347652748271104,2022-02-08-19:14:12,10.1.1.2,38,-0.050,-0.050,-0.050,0.000,0.000,0.000
1644347652848225024,2022-02-08-19:14:12,10.1.1.2,38,-0.040,-0.040,-0.040,0.000,0.000,0.000
1644347652946983168,2022-02-08-19:14:12,10.1.1.2,37,-0.030,-0.030,-0.030,0.000,0.000,0.000
1644347653047086080,2022-02-08-19:14:13,10.1.1.2,35,-0.020,-0.020,-0.020,0.000,0.000,0.000
1644347653146852096,2022-02-08-19:14:13,10.1.1.2,32,-0.010,-0.010,-0.010,0.000,0.000,0.000
1644347653249197056,2022-02-08-19:14:13,10.1.1.2,32,0.000,0.000,0.000,0.000,0.000,0.000
1644347653347943936,2022-02-08-19:14:13,10.1.1.2,31,0.010,0.010,0.010,0.000,0.000,0.000
1644347653448677120,2022-02-08-19:14:13,10.1.1.2,31,0.020,0.020,0.020,0.000,0.000,0.000
1644347653546770176,2022-02-08-19:14:13,10.1.1.2,29,0.030,0.030,0.030,0.000,0.000,0.000
1644347653646830080,2022-02-08-19:14:13,10.1.1.2,28,0.040,0.040,0.040,0.000,0.000,0.000
1644347653746205952,2022-02-08-19:14:13,10.1.1.2,27,0.050,0.050,0.050,0.000,0.000,0.000
1644347653848672000,2022-02-08-19:14:13,10.1.1.2,27,0.060,0.060,0.060,0.000,0.000,0.000
1644347653947770112,2022-02-08-19:14:13,10.1.1.2,25,0.070,0.070,0.070,0.000,0.000,0.000
1644347654051753984,2022-02-08-19:14:14,10.1.1.2,24,0.080,0.080,0.080,0.000,0.000,0.000
1644347654151560960,2022-02-08-19:14:14,10.1.1.2,19,0.089,0.089,0.089,0.000,0.000,0.000
1644347654265993984,2022-02-08-19:14:14,10.1.1.2,37,0.100,0.100,0.100,0.000,0.000,0.000
1644347654366123008,2022-02-08-19:14:14,10.1.1.2,37,0.090,0.090,0.090,0.000,0.000,0.000
1644347654468187136,2022-02-08-19:14:14,10.1.1.2,36,0.080,0.080,0.080,0.000,0.000,0.000
1644347654568819968,2022-02-08-19:14:14,10.1.1.2,36,0.070,0.070,0.070,0.000,0.000,0.000
1644347654669719808,2022-02-08-19:14:14,10.1.1.2,35,0.060,0.060,0.060,0.000,0.000,0.000
1644347654767756032,2022-02-08-19:14:14,10.1.1.2,35,0.050,0.050,0.050,0.000,0.000,0.000
1644347654867674112,2022-02-08-19:14:14,10.1.1.2,34,0.040,0.040,0.040,0.000,0.000,0.000
1644347654966934016,2022-02-08-19:14:14,10.1.1.2,33,0.030,0.030,0.030,0.000,0.000,0.000
1644347655068288000,2022-02-08-19:14:15,10.1.1.2,30,0.020,0.020,0.020,0.000,0.000,0.000
1644347655167907840,2022-02-08-19:14:15,10.1.1.2,29,0.010,0.010,0.010,0.000,0.000,0.000
1644347655267941888,2022-02-08-19:14:15,10.1.1.2,27,0.000,0.000,0.000,0.000,0.000,0.000
1644347655367948032,2022-02-08-19:14:15,10.1.1.2,26,-0.010,-0.010,-0.010,0.000,0.000,0.000
1644347655467723008,2022-02-08-19:14:15,10.1.1.2,25,-0.020,-0.020,-0.020,0.000,0.000,0.000
1644347655566344960,2022-02-08-19:14:15,10.1.1.2,23,-0.030,-0.030,-0.030,0.000,0.000,0.000
1644347655669213952,2022-02-08-19:14:15,10.1.1.2,22,-0.040,-0.040,-0.040,0.000,0.000,0.000
1644347655768951040,2022-02-08-19:14:15,10.1.1.2,21,-0.050,-0.050,-0.050,0.000,0.000,0.000
1644347655866753024,2022-02-08-19:14:15,10.1.1.2,20,-0.060,-0.060,-0.060,0.000,0.000,0.000
1644347655966875136,2022-02-08-19:14:15,10.1.1.2,19,-0.069,-0.069,-0.069,0.000,0.000,0.000
1644347656087590912,2022-02-08-19:14:16,10.1.1.2,39,-0.080,-0.080,-0.080,0.000,0.000,0.000
1644347656186424064,2022-02-08-19:14:16,10.1.1.2,38,-0.090,-0.090,-0.090,0.000,0.000,0.000
1644347656287148032,2022-02-08-19:14:16,10.1.1.2,37,-0.100,-0.100,-0.100,0.000,0.000,0.000
1644347656386626048,2022-02-08-19:14:16,10.1.1.2,36,-0.090,-0.090,-0.090,0.000,0.000,0.000
1644347656487843072,2022-02-08-19:14:16,10.1.1.2,35,-0.080,-0.080,-0.080,0.000,0.000,0.000
1644347656588301056,2022-02-08-19:14:16,10.1.1.2,35,-0.070,-0.070,-0.070,0.000,0.000,0.000
1644347656686327040,2022-02-08-19:14:16,10.1.1.2,33,-0.060,-0.060,-0.060,0.000,0.000,0.000
1644347656788965888,2022-02-08-19:14:16,10.1.1.2,32,-0.050,-0.050,-0.050,0.000,0.000,0.000
1644347656888453120,2022-02-08-19:14:16,10.1.1.2,31,-0.040,-0.040,-0.040,0.000,0.000,0.000
1644347656987458048,2022-02-08-19:14:16,10.1.1.2,30,-0.030,-0.030,-0.030,0.000,0.000,0.000
1644347657088134144,2022-02-08-19:14:17,10.1.1.2,31,-0.020,-0.020,-0.020,0.000,0.000,0.000
1644347657188688128,2022-02-08-19:14:17,10.1.1.2,29,-0.010,-0.010,-0.010,0.000,0.000,0.000
1644347657286865920,2022-02-08-19:14:17,10.1.1.2,29,0.000,0.000,0.000,0.000,0.000,0.000
1644347657388628992,2022-02-08-19:14:17,10.1.1.2,28,0.010,0.010,0.010,0.000,0.000,0.000
1644347657490256128,2022-02-08-19:14:17,10.1.1.2,27,0.020,0.020,0.020,0.000,0.000,0.000
1644347657589596928,2022-02-08-19:14:17,10.1.1.2,25,0.030,0.030,0.030,0.000,0.000,0.000
1644347657689400064,2022-02-08-19:14:17,10.1.1.2,24,0.040,0.040,0.040,0.000,0.000,0.000
1644347657788357120,2022-02-08-19:14:17,10.1.1.2,23,0.050,0.050,0.050,0.000,0.000,0.000
1644347657889625088,2022-02-08-19:14:17,10.1.1.2,23,0.060,0.060,0.060,0.000,0.000,0.000
1644347657988896000,2022-02-08-19:14:17,10.1.1.2,22,0.070,0.070,0.070,0.000,0.000,0.000
1644347658088258048,2022-02-08-19:14:18,10.1.1.2,21,0.080,0.080,0.080,0.000,0.000,0.000
1644347658188169984,2022-02-08-19:14:18,10.1.1.2,21,0.090,0.090,0.090,0.000,0.000,0.000
1644347658288286976,2022-02-08-19:14:18,10.1.1.2,19,0.100,0.100,0.100,0.000,0.000,0.000
1644347658389393920,2022-02-08-19:14:18,10.1.1.2,19,0.091,0.091,0.091,0.000,0.000,0.000
1644347658507172096,2022-02-08-19:14:18,10.1.1.2,38,0.080,0.080,0.080,0.000,0.000,0.000
1644347658609208064,2022-02-08-19:14:18,10.1.1.2,37,0.070,0.070,0.070,0.000,0.000,0.000
1644347658706923008,2022-02-08-19:14:18,10.1.1.2,35,0.060,0.060,0.060,0.000,0.000,0.000
1644347658806697984,2022-02-08-19:14:18,10.1.1.2,34,0.050,0.050,0.050,0.000,0.000,0.000
1644347658907227136,2022-02-08-19:14:18,10.1.1.2,33,0.040,0.040,0.040,0.000,0.000,0.000
1644347659006383872,2022-02-08-19:14:19,10.1.1.2,33,0.030,0.030,0.030,0.000,0.000,0.000
1644347659107629056,2022-02-08-19:14:19,10.1.1.2,31,0.020,0.020,0.020,0.000,0.000,0.000
1644347659208566784,2022-02-08-19:14:19,10.1.1.2,29,0.010,0.010,0.010,0.000,0.000,0.000
1644347659306778880,2022-02-08-19:14:19,10.1.1.2,28,0.000,0.000,0.000,0.000,0.000,0.000
1644347659407828992,2022-02-08-19:14:19,10.1.1.2,27,-0.010,-0.010,-0.010,0.000,0.000,0.000
1644347659507145984,2022-02-08-19:14:19,10.1.1.2,27,-0.020,-0.020,-0.020,0.000,0.000,0.000
1644347659606040832,2022-02-08-19:14:19,10.1.1.2,26,-0.030,-0.030,-0.030,0.000,0.000,0.000
1644347659706765056,2022-02-08-19:14:19,10.1.1.2,25,-0.040,-0.040,-0.040,0.000,0.000,0.000
1644347659806312192,2022-02-08-19:14:19,10.1.1.2,25,-0.050,-0.050,-0.050,0.000,0.000,0.000
1644347659906387968,2022-02-08-19:14:19,10.1.1.2,24,-0.060,-0.060,-0.060,0.000,0.000,0.000
1644347660006140928,2022-02-08-19:14:20,10.1.1.2,24,-0.070,-0.070,-0.070,0.000,0.000,0.000
1644347660106803968,2022-02-08-19:14:20,10.1.1.2,23,-0.080,-0.080,-0.080,0.000,0.000,0.000
1644347660206532096,2022-02-08-19:14:20,10.1.1.2,23,-0.090,-0.090,-0.090,0.000,0.000,0.000
1644347660306283008,2022-02-08-19:14:20,10.1.1.2,22,-0.100,-0.100,-0.100,0.000,0.000,0.000
1644347660409394944,2022-02-08-19:14:20,10.1.1.2,20,-0.090,-0.090,-0.090,0.000,0.000,0.000
1644347660527592960,2022-02-08-19:14:20,10.1.1.2,39,-0.080,-0.080,-0.080,0.000,0.000,0.000
1644347660626605056,2022-02-08-19:14:20,10.1.1.2,38,-0.070,-0.070,-0.070,0.000,0.000,0.000
1644347660730743040,2022-02-08-19:14:20,10.1.1.2,37,-0.060,-0.060,-0.060,0.000,0.000,0.000
1644347660828152064,2022-02-08-19:14:20,10.1.1.2,36,-0.050,-0.050,-0.050,0.000,0.000,0.000
1644347660928705024,2022-02-08-19:14:20,10.1.1.2,33,-0.040,-0.040,-0.040,0.000,0.000,0.000
1644347661028589056,2022-02-08-19:14:21,10.1.1.2,32,-0.030,-0.030,-0.030,0.000,0.000,0.000
1644347661129108992,2022-02-08-19:14:21,10.1.1.2,31,-0.020,-0.020,-0.020,0.000,0.000,0.000
1644347661226043904,2022-02-08-19:14:21,10.1.1.2,31,-0.010,-0.010,-0.010,0.000,0.000,0.000
1644347661326236928,2022-02-08-19:14:21,10.1.1.2,30,0.000,0.000,0.000,0.000,0.000,0.000
1644347661426414080,2022-02-08-19:14:21,10.1.1.2,29,0.010,0.010,0.010,0.000,0.000,0.000
1644347661529376000,2022-02-08-19:14:21,10.1.1.2,29,0.020,0.020,0.020,0.000,0.000,0.000
1644347661627931136,2022-02-08-19:14:21,10.1.1.2,28,0.030,0.030,0.030,0.000,0.000,0.000
1644347661729191936,2022-02-08-19:14:21,10.1.1.2,28,0.040,0.040,0.040,0.000,0.000,0.000
1644347661829243904,2022-02-08-19:14:21,10.1.1.2,25,0.050,0.050,0.050,0.000,0.000,0.000
1644347661927824896,2022-02-08-19:14:21,10.1.1.2,21,0.060,0.060,0.060,0.000,0.000,0.000
1644347662028728064,2022-02-08-19:14:22,10.1.1.2,21,0.070,0.070,0.070,0.000,0.000,0.000
1644347662129388032,2022-02-08-19:14:22,10.1.1.2,20,0.080,0.080,0.080,0.000,0.000,0.000
1644347662227735040,2022-02-08-19:14:22,10.1.1.2,19,0.090,0.090,0.090,0.000,0.000,0.000
1644347662328242176,2022-02-08-19:14:22,10.1.1.2,19,0.099,0.099,0.099,0.000,0.000,0.000
1644347662448546816,2022-02-08-19:14:22,10.1.1.2,38,0.090,0.090,0.090,0.000,0.000,0.000
1644347662546848000,2022-02-08-19:14:22,10.1.1.2,37,0.080,0.080,0.080,0.000,0.000,0.000
1644347662646460160,2022-02-08-19:14:22,10.1.1.2,35,0.070,0.070,0.070,0.000,0.000,0.000
1644347662746298112,2022-02-08-19:14:22,10.1.1.2,34,0.060,0.060,0.060,0.000,0.000,0.000
1644347662849952000,2022-02-08-19:14:22,10.1.1.2,34,0.050,0.050,0.050,0.000,0.000,0.000
1644347662948947968,2022-02-08-19:14:22,10.1.1.2,33,0.040,0.040,0.040,0.000,0.000,0.000
1644347663046354176,2022-02-08-19:14:23,10.1.1.2,32,0.030,0.030,0.030,0.000,0.000,0.000
1644347663146467840,2022-02-08-19:14:23,10.1.1.2,32,0.020,0.020,0.020,0.000,0.000,0.000
1644347663246989056,2022-02-08-19:14:23,10.1.1.2,31,0.010,0.010,0.010,0.000,0.000,0.000
1644347663346895104,2022-02-08-19:14:23,10.1.1.2,31,0.000,0.000,0.000,0.000,0.000,0.000
1644347663446343936,2022-02-08-19:14:23,10.1.1.2,30,-0.010,-0.010,-0.010,0.000,0.000,0.000
1644347663547784960,2022-02-08-19:14:23,10.1.1.2,29,-0.020,-0.020,-0.020,0.000,0.000,0.000
1644347663648289024,2022-02-08-19:14:23,10.1.1.2,29,-0.030,-0.030,-0.030,0.000,0.000,0.000
1644347663748174080,2022-02-08-19:14:23,10.1.1.2,28,-0.040,-0.040,-0.040,0.000,0.000,0.000
1644347663848901888,2022-02-08-19:14:23,10.1.1.2,28,-0.050,-0.050,-0.050,0.000,0.000,0.000
1644347663951854848,2022-02-08-19:14:23,10.1.1.2,27,-0.060,-0.060,-0.060,0.000,0.000,0.000
1644347664047269120,2022-02-08-19:14:24,10.1.1.2,21,-0.070,-0.070,-0.070,0.000,0.000,0.000
1644347664154643968,2022-02-08-19:14:24,10.1.1.2,21,-0.080,-0.080,-0.080,0.000,0.000,0.000
1644347664247842048,2022-02-08-19:14:24,10.1.1.2,19,-0.090,-0.090,-0.090,0.000,0.000,0.000
1644347664348284928,2022-02-08-19:14:24,10.1.1.2,19,-0.099,-0.099,-0.099,0.000,0.000,0.000
1644347664447959808,2022-02-08-19:14:24,10.1.1.2,18,-0.091,-0.091,-0.091,0.000,0.000,0.000
1644347664569558016,2022-02-08-19:14:24,10.1.1.2,38,-0.080,-0.080,-0.080,0.000,0.000,0.000
1644347664667995904,2022-02-08-19:14:24,10.1.1.2,38,-0.070,-0.070,-0.070,0.000,0.000,0.000
1644347664768974080,2022-02-08-19:14:24,10.1.1.2,36,-0.060,-0.060,-0.060,0.000,0.000,0.000
1644347664868236032,2022-02-08-19:14:24,10.1.1.2,36,-0.050,-0.050,-0.050,0.000,0.000,0.000
1644347664966289152,2022-02-08-19:14:24,10.1.1.2,35,-0.040,-0.040,-0.040,0.000,0.000,0.000
1644347665068364032,2022-02-08-19:14:25,10.1.1.2,33,-0.030,-0.030,-0.030,0.000,0.000,0.000
1644347665167414016,2022-02-08-19:14:25,10.1.1.2,32,-0.020,-0.020,-0.020,0.000,0.000,0.000
1644347665268767232,2022-02-08-19:14:25,10.1.1.2,32,-0.010,-0.010,-0.010,0.000,0.000,0.000
1644347665367041024,2022-02-08-19:14:25,10.1.1.2,31,0.000,0.000,0.000,0.000,0.000,0.000
1644347665467876864,2022-02-08-19:14:25,10.1.1.2,30,0.010,0.010,0.010,0.000,0.000,0.000
1644347665566792960,2022-02-08-19:14:25,10.1.1.2,29,0.020,0.020,0.020,0.000,0.000,0.000
1644347665667223040,2022-02-08-19:14:25,10.1.1.2,28,0.030,0.030,0.030,0.000,0.000,0.000
1644347665766331904,2022-02-08-19:14:25,10.1.1.2,28,0.040,0.040,0.040,0.000,0.000,0.000
1644347665866499840,2022-02-08-19:14:25,10.1.1.2,27,0.050,0.050,0.050,0.000,0.000,0.000
1644347665973096960,2022-02-08-19:14:25,10.1.1.2,27,0.060,0.060,0.060,0.000,0.000,0.000
1644347666072599040,2022-02-08-19:14:26,10.1.1.2,25,0.070,0.070,0.070,0.000,0.000,0.000
1644347666166829056,2022-02-08-19:14:26,10.1.1.2,24,0.080,0.080,0.080,0.000,0.000,0.000
1644347666268072960,2022-02-08-19:14:26,10.1.1.2,23,0.090,0.090,0.090,0.000,0.000,0.000
1644347666366530816,2022-02-08-19:14:26,10.1.1.2,22,0.100,0.100,0.100,0.000,0.000,0.000
1644347666467641088,2022-02-08-19:14:26,10.1.1.2,21,0.090,0.090,0.090,0.000,0.000,0.000
1644347666567104000,2022-02-08-19:14:26,10.1.1.2,21,0.080,0.080,0.080,0.000,0.000,0.000
1644347666667852032,2022-02-08-19:14:26,10.1.1.2,19,0.070,0.070,0.070,0.000,0.000,0.000
1644347666767090176,2022-02-08-19:14:26,10.1.1.2,19,0.061,0.061,0.061,0.000,0.000,0.000
1644347666888535040,2022-02-08-19:14:26,10.1.1.2,38,0.050,0.050,0.050,0.000,0.000,0.000
1644347666988228096,2022-02-08-19:14:26,10.1.1.2,38,0.040,0.040,0.040,0.000,0.000,0.000
1644347667089268992,2022-02-08-19:14:27,10.1.1.2,37,0.030,0.030,0.030,0.000,0.000,0.000
1644347667187386112,2022-02-08-19:14:27,10.1.1.2,36,0.020,0.020,0.020,0.000,0.000,0.000
1644347667288932096,2022-02-08-19:14:27,10.1.1.2,35,0.010,0.010,0.010,0.000,0.000,0.000
1644347667388391936,2022-02-08-19:14:27,10.1.1.2,32,0.000,0.000,0.000,0.000,0.000,0.000
1644347667507601920,2022-02-08-19:14:27,10.1.1.2,36,-0.010,-0.010,-0.010,0.000,0.000,0.000
1644347667608256000,2022-02-08-19:14:27,10.1.1.2,30,-0.020,-0.020,-0.020,0.000,0.000,0.000
1644347667711682048,2022-02-08-19:14:27,10.1.1.2,29,-0.030,-0.030,-0.030,0.000,0.000,0.000
1644347667806618880,2022-02-08-19:14:27,10.1.1.2,28,-0.040,-0.040,-0.040,0.000,0.000,0.000
1644347667906338048,2022-02-08-19:14:27,10.1.1.2,27,-0.050,-0.050,-0.050,0.000,0.000,0.000
1644347668007864832,2022-02-08-19:14:28,10.1.1.2,27,-0.060,-0.060,-0.060,0.000,0.000,0.000
1644347668108793088,2022-02-08-19:14:28,10.1.1.2,25,-0.070,-0.070,-0.070,0.000,0.000,0.000
1644347668208167936,2022-02-08-19:14:28,10.1.1.2,24,-0.080,-0.080,-0.080,0.000,0.000,0.000
1644347668308860160,2022-02-08-19:14:28,10.1.1.2,22,-0.090,-0.090,-0.090,0.000,0.000,0.000
1644347668407185152,2022-02-08-19:14:28,10.1.1.2,21,-0.100,-0.100,-0.100,0.000,0.000,0.000
1644347668507185920,2022-02-08-19:14:28,10.1.1.2,20,-0.090,-0.090,-0.090,0.000,0.000,0.000
1644347668629214976,2022-02-08-19:14:28,10.1.1.2,37,-0.080,-0.080,-0.080,0.000,0.000,0.000
1644347668728045824,2022-02-08-19:14:28,10.1.1.2,37,-0.070,-0.070,-0.070,0.000,0.000,0.000
1644347668828764928,2022-02-08-19:14:28,10.1.1.2,36,-0.060,-0.060,-0.060,0.000,0.000,0.000
1644347668928592896,2022-02-08-19:14:28,10.1.1.2,35,-0.050,-0.050,-0.050,0.000,0.000,0.000
1644347669028045824,2022-02-08-19:14:29,10.1.1.2,33,-0.040,-0.040,-0.040,0.000,0.000,0.000
1644347669129367040,2022-02-08-19:14:29,10.1.1.2,32,-0.030,-0.030,-0.030,0.000,0.000,0.000
1644347669228411904,2022-02-08-19:14:29,10.1.1.2,32,-0.020,-0.020,-0.020,0.000,0.000,0.000
1644347669326201088,2022-02-08-19:14:29,10.1.1.2,30,-0.010,-0.010,-0.010,0.000,0.000,0.000
1644347669427730944,2022-02-08-19:14:29,10.1.1.2,29,0.000,0.000,0.000,0.000,0.000,0.000
1644347669527829760,2022-02-08-19:14:29,10.1.1.2,28,0.010,0.010,0.010,0.000,0.000,0.000
1644347669628380160,2022-02-08-19:14:29,10.1.1.2,27,0.020,0.020,0.020,0.000,0.000,0.000
1644347669727822080,2022-02-08-19:14:29,10.1.1.2,27,0.030,0.030,0.030,0.000,0.000,0.000
1644347669828583936,2022-02-08-19:14:29,10.1.1.2,26,0.040,0.040,0.040,0.000,0.000,0.000
1644347669927091968,2022-02-08-19:14:29,10.1.1.2,22,0.050,0.050,0.050,0.000,0.000,0.000
1644347670027788032,2022-02-08-19:14:30,10.1.1.2,21,0.060,0.060,0.060,0.000,0.000,0.000
1644347670126912000,2022-02-08-19:14:30,10.1.1.2,21,0.070,0.070,0.070,0.000,0.000,0.000
1644347670226349056,2022-02-08-19:14:30,10.1.1.2,20,0.080,0.080,0.080,0.000,0.000,0.000
1644347670326540032,2022-02-08-19:14:30,10.1.1.2,19,0.090,0.090,0.090,0.000,0.000,0.000
1644347670447390976,2022-02-08-19:14:30,10.1.1.2,38,0.100,0.100,0.100,0.000,0.000,0.000
1644347670548033024,2022-02-08-19:14:30,10.1.1.2,38,0.090,0.090,0.090,0.000,0.000,0.000
1644347670646740992,2022-02-08-19:14:30,10.1.1.2,36,0.080,0.080,0.080,0.000,0.000,0.000
1644347670748532992,2022-02-08-19:14:30,10.1.1.2,35,0.070,0.070,0.070,0.000,0.000,0.000
1644347670848215040,2022-02-08-19:14:30,10.1.1.2,32,0.060,0.060,0.060,0.000,0.000,0.000
1644347670947060992,2022-02-08-19:14:30,10.1.1.2,31,0.050,0.050,0.050,0.000,0.000,0.000
1644347671046562048,2022-02-08-19:14:31,10.1.1.2,31,0.040,0.040,0.040,0.000,0.000,0.000
1644347671147937024,2022-02-08-19:14:31,10.1.1.2,30,0.030,0.030,0.030,0.000,0.000,0.000
1644347671250075136,2022-02-08-19:14:31,10.1.1.2,29,0.020,0.020,0.020,0.000,0.000,0.000
1644347671348283904,2022-02-08-19:14:31,10.1.1.2,28,0.010,0.010,0.010,0.000,0.000,0.000
1644347671447737088,2022-02-08-19:14:31,10.1.1.2,28,0.000,0.000,0.000,0.000,0.000,0.000
1644347671549639936,2022-02-08-19:14:31,10.1.1.2,28,-0.010,-0.010,-0.010,0.000,0.000,0.000
1644347671647609856,2022-02-08-19:14:31,10.1.1.2,27,-0.020,-0.020,-0.020,0.000,0.000,0.000
1644347671753600000,2022-02-08-19:14:31,10.1.1.2,25,-0.030,-0.030,-0.030,0.000,0.000,0.000
1644347671850449152,2022-02-08-19:14:31,10.1.1.2,24,-0.040,-0.040,-0.040,0.000,0.000,0.000
1644347671947796224,2022-02-08-19:14:31,10.1.1.2,23,-0.050,-0.050,-0.050,0.000,0.000,0.000
1644347672048196096,2022-02-08-19:14:32,10.1.1.2,21,-0.060,-0.060,-0.060,0.000,0.000,0.000
1644347672148366848,2022-02-08-19:14:32,10.1.1.2,21,-0.070,-0.070,-0.070,0.000,0.000,0.000
1644347672246340096,2022-02-08-19:14:32,10.1.1.2,19,-0.080,-0.080,-0.080,0.000,0.000,0.000
1644347672348979968,2022-02-08-19:14:32,10.1.1.2,19,-0.089,-0.089,-0.089,0.000,0.000,0.000
1644347672468136960,2022-02-08-19:14:32,10.1.1.2,36,-0.100,-0.100,-0.100,0.000,0.000,0.000
1644347672567184896,2022-02-08-19:14:32,10.1.1.2,35,-0.090,-0.090,-0.090,0.000,0.000,0.000
1644347672667560192,2022-02-08-19:14:32,10.1.1.2,32,-0.080,-0.080,-0.080,0.000,0.000,0.000
1644347672772964096,2022-02-08-19:14:32,10.1.1.2,31,-0.070,-0.070,-0.070,0.000,0.000,0.000
1644347672869081088,2022-02-08-19:14:32,10.1.1.2,30,-0.060,-0.060,-0.060,0.000,0.000,0.000
1644347672968222976,2022-02-08-19:14:32,10.1.1.2,29,-0.050,-0.050,-0.050,0.000,0.000,0.000
1644347673066356992,2022-02-08-19:14:33,10.1.1.2,28,-0.040,-0.040,-0.040,0.000,0.000,0.000
1644347673168761856,2022-02-08-19:14:33,10.1.1.2,29,-0.030,-0.030,-0.030,0.000,0.000,0.000
1644347673269454080,2022-02-08-19:14:33,10.1.1.2,28,-0.020,-0.020,-0.020,0.000,0.000,0.000
1644347673368622080,2022-02-08-19:14:33,10.1.1.2,28,-0.010,-0.010,-0.010,0.000,0.000,0.000
1644347673467570944,2022-02-08-19:14:33,10.1.1.2,27,0.000,0.000,0.000,0.000,0.000,0.000
1644347673567228928,2022-02-08-19:14:33,10.1.1.2,26,0.010,0.010,0.010,0.000,0.000,0.000
1644347673666529792,2022-02-08-19:14:33,10.1.1.2,24,0.020,0.020,0.020,0.000,0.000,0.000
1644347673768392960,2022-02-08-19:14:33,10.1.1.2,24,0.030,0.030,0.030,0.000,0.000,0.000
1644347673867059968,2022-02-08-19:14:33,10.1.1.2,23,0.040,0.040,0.040,0.000,0.000,0.000
1644347673966660096,2022-02-08-19:14:33,10.1.1.2,23,0.050,0.050,0.050,0.000,0.000,0.000
1644347674086102016,2022-02-08-19:14:34,10.1.1.2,38,0.060,0.060,0.060,0.000,0.000,0.000
1644347674189146112,2022-02-08-19:14:34,10.1.1.2,38,0.070,0.070,0.070,0.000,0.000,0.000
1644347674286278912,2022-02-08-19:14:34,10.1.1.2,38,0.080,0.080,0.080,0.000,0.000,0.000
1644347674387238912,2022-02-08-19:14:34,10.1.1.2,38,0.090,0.090,0.090,0.000,0.000,0.000
1644347674488370944,2022-02-08-19:14:34,10.1.1.2,36,0.100,0.100,0.100,0.000,0.000,0.000
1644347674585691904,2022-02-08-19:14:34,10.1.1.2,36,0.090,0.090,0.090,0.000,0.000,0.000
1644347674686275072,2022-02-08-19:14:34,10.1.1.2,36,0.080,0.080,0.080,0.000,0.000,0.000
1644347674786010880,2022-02-08-19:14:34,10.1.1.2,35,0.070,0.070,0.070,0.000,0.000,0.000
1644347674886217984,2022-02-08-19:14:34,10.1.1.2,34,0.060,0.060,0.060,0.000,0.000,0.000
1644347674987432960,2022-02-08-19:14:34,10.1.1.2,33,0.050,0.050,0.050,0.000,0.000,0.000
1644347675086478848,2022-02-08-19:14:35,10.1.1.2,32,0.040,0.040,0.040,0.000,0.000,0.000
1644347675188749056,2022-02-08-19:14:35,10.1.1.2,32,0.030,0.030,0.030,0.000,0.000,0.000
1644347675286524928,2022-02-08-19:14:35,10.1.1.2,31,0.020,0.020,0.020,0.000,0.000,0.000
1644347675386315008,2022-02-08-19:14:35,10.1.1.2,30,0.010,0.010,0.010,0.000,0.000,0.000
1644347675488028160,2022-02-08-19:14:35,10.1.1.2,30,0.000,0.000,0.000,0.000,0.000,0.000
1644347675586124800,2022-02-08-19:14:35,10.1.1.2,29,-0.010,-0.010,-0.010,0.000,0.000,0.000
1644347675690449920,2022-02-08-19:14:35,10.1.1.2,28,-0.020,-0.020,-0.020,0.000,0.000,0.000
1644347675786659840,2022-02-08-19:14:35,10.1.1.2,27,-0.030,-0.030,-0.030,0.000,0.000,0.000
1644347675887126016,2022-02-08-19:14:35,10.1.1.2,27,-0.040,-0.040,-0.040,0.000,0.000,0.000
1644347675986401024,2022-02-08-19:14:35,10.1.1.2,26,-0.050,-0.050,-0.050,0.000,0.000,0.000
1644347676087642880,2022-02-08-19:14:36,10.1.1.2,26,-0.060,-0.060,-0.060,0.000,0.000,0.000
1644347676187845888,2022-02-08-19:14:36,10.1.1.2,25,-0.070,-0.070,-0.070,0.000,0.000,0.000
1644347676288466944,2022-02-08-19:14:36,10.1.1.2,25,-0.080,-0.080,-0.080,0.000,0.000,0.000
1644347676386200064,2022-02-08-19:14:36,10.1.1.2,24,-0.090,-0.090,-0.090,0.000,0.000,0.000
1644347676487633920,2022-02-08-19:14:36,10.1.1.2,24,-0.100,-0.100,-0.100,0.000,0.000,0.000
1644347676586729984,2022-02-08-19:14:36,10.1.1.2,23,-0.090,-0.090,-0.090,0.000,0.000,0.000
1644347676686680064,2022-02-08-19:14:36,10.1.1.2,22,-0.080,-0.080,-0.080,0.000,0.000,0.000
1644347676787343872,2022-02-08-19:14:36,10.1.1.2,22,-0.070,-0.070,-0.070,0.000,0.000,0.000
1644347676886696192,2022-02-08-19:14:36,10.1.1.2,21,-0.060,-0.060,-0.060,0.000,0.000,0.000
1644347676991590144,2022-02-08-19:14:36,10.1.1.2,21,-0.050,-0.050,-0.050,0.000,0.000,0.000
1644347677086536960,2022-02-08-19:14:37,10.1.1.2,20,-0.040,-0.040,-0.040,0.000,0.000,0.000
1644347677186625024,2022-02-08-19:14:37,10.1.1.2,19,-0.030,-0.030,-0.030,0.000,0.000,0.000
1644347677287988992,2022-02-08-19:14:37,10.1.1.2,19,-0.020,-0.020,-0.020,0.000,0.000,0.000
1644347677406496000,2022-02-08-19:14:37,10.1.1.2,39,-0.010,-0.010,-0.010,0.000,0.000,0.000
1644347677506383872,2022-02-08-19:14:37,10.1.1.2,38,0.000,0.000,0.000,0.000,0.000,0.000
1644347677606810112,2022-02-08-19:14:37,10.1.1.2,38,0.010,0.010,0.010,0.000,0.000,0.000
1644347677708990976,2022-02-08-19:14:37,10.1.1.2,37,0.020,0.020,0.020,0.000,0.000,0.000
1644347677806121984,2022-02-08-19:14:37,10.1.1.2,37,0.030,0.030,0.030,0.000,0.000,0.000
1644347677907134976,2022-02-08-19:14:37,10.1.1.2,36,0.040,0.040,0.040,0.000,0.000,0.000
1644347678006262016,2022-02-08-19:14:38,10.1.1.2,35,0.050,0.050,0.050,0.000,0.000,0.000
1644347678106648832,2022-02-08-19:14:38,10.1.1.2,34,0.060,0.060,0.060,0.000,0.000,0.000
1644347678206777088,2022-02-08-19:14:38,10.1.1.2,33,0.070,0.070,0.070,0.000,0.000,0.000
1644347678306328064,2022-02-08-19:14:38,10.1.1.2,33,0.080,0.080,0.080,0.000,0.000,0.000
1644347678407439104,2022-02-08-19:14:38,10.1.1.2,33,0.090,0.090,0.090,0.000,0.000,0.000
1644347678506720000,2022-02-08-19:14:38,10.1.1.2,33,0.100,0.100,0.100,0.000,0.000,0.000
1644347678606440192,2022-02-08-19:14:38,10.1.1.2,32,0.090,0.090,0.090,0.000,0.000,0.000
1644347678707163136,2022-02-08-19:14:38,10.1.1.2,31,0.080,0.080,0.080,0.000,0.000,0.000
1644347678806525952,2022-02-08-19:14:38,10.1.1.2,31,0.070,0.070,0.070,0.000,0.000,0.000
1644347678907607040,2022-02-08-19:14:38,10.1.1.2,29,0.060,0.060,0.060,0.000,0.000,0.000
1644347679006132992,2022-02-08-19:14:39,10.1.1.2,29,0.050,0.050,0.050,0.000,0.000,0.000
1644347679107696896,2022-02-08-19:14:39,10.1.1.2,28,0.040,0.040,0.040,0.000,0.000,0.000
1644347679206077952,2022-02-08-19:14:39,10.1.1.2,28,0.030,0.030,0.030,0.000,0.000,0.000
1644347679306305024,2022-02-08-19:14:39,10.1.1.2,27,0.020,0.020,0.020,0.000,0.000,0.000
1644347679406652928,2022-02-08-19:14:39,10.1.1.2,26,0.010,0.010,0.010,0.000,0.000,0.000
1644347679506750976,2022-02-08-19:14:39,10.1.1.2,25,0.000,0.000,0.000,0.000,0.000,0.000
1644347679609022976,2022-02-08-19:14:39,10.1.1.2,24,-0.010,-0.010,-0.010,0.000,0.000,0.000
1644347679706758912,2022-02-08-19:14:39,10.1.1.2,23,-0.020,-0.020,-0.020,0.000,0.000,0.000
1644347679806185984,2022-02-08-19:14:39,10.1.1.2,22,-0.030,-0.030,-0.030,0.000,0.000,0.000
1644347679906418944,2022-02-08-19:14:39,10.1.1.2,22,-0.040,-0.040,-0.040,0.000,0.000,0.000
1644347680006932992,2022-02-08-19:14:40,10.1.1.2,21,-0.050,-0.050,-0.050,0.000,0.000,0.000
1644347680106332160,2022-02-08-19:14:40,10.1.1.2,21,-0.060,-0.060,-0.060,0.000,0.000,0.000
1644347680206345984,2022-02-08-19:14:40,10.1.1.2,20,-0.070,-0.070,-0.070,0.000,0.000,0.000
1644347680306569984,2022-02-08-19:14:40,10.1.1.2,20,-0.080,-0.080,-0.080,0.000,0.000,0.000
1644347680406372096,2022-02-08-19:14:40,10.1.1.2,19,-0.090,-0.090,-0.090,0.000,0.000,0.000
1644347680507805952,2022-02-08-19:14:40,10.1.1.2,19,-0.099,-0.099,-0.099,0.000,0.000,0.000
1644347680626297088,2022-02-08-19:14:40,10.1.1.2,38,-0.090,-0.090,-0.090,0.000,0.000,0.000
1644347680728583936,2022-02-08-19:14:40,10.1.1.2,37,-0.080,-0.080,-0.080,0.000,0.000,0.000
1644347680826228992,2022-02-08-19:14:40,10.1.1.2,37,-0.070,-0.070,-0.070,0.000,0.000,0.000
1644347680926529792,2022-02-08-19:14:40,10.1.1.2,36,-0.060,-0.060,-0.060,0.000,0.000,0.000
1644347681026333952,2022-02-08-19:14:41,10.1.1.2,36,-0.050,-0.050,-0.050,0.000,0.000,0.000
1644347681126341120,2022-02-08-19:14:41,10.1.1.2,35,-0.040,-0.040,-0.040,0.000,0.000,0.000
1644347681228854784,2022-02-08-19:14:41,10.1.1.2,32,-0.030,-0.030,-0.030,0.000,0.000,0.000
1644347681327632896,2022-02-08-19:14:41,10.1.1.2,31,-0.020,-0.020,-0.020,0.000,0.000,0.000
1644347681426352128,2022-02-08-19:14:41,10.1.1.2,30,-0.010,-0.010,-0.010,0.000,0.000,0.000
1644347681529257984,2022-02-08-19:14:41,10.1.1.2,30,0.000,0.000,0.000,0.000,0.000,0.000
1644347681631481856,2022-02-08-19:14:41,10.1.1.2,29,0.010,0.010,0.010,0.000,0.000,0.000
1644347681726439936,2022-02-08-19:14:41,10.1.1.2,28,0.020,0.020,0.020,0.000,0.000,0.000
1644347681828079104,2022-02-08-19:14:41,10.1.1.2,28,0.030,0.030,0.030,0.000,0.000,0.000
1644347681928932864,2022-02-08-19:14:41,10.1.1.2,23,0.040,0.040,0.040,0.000,0.000,0.000
1644347682026525952,2022-02-08-19:14:42,10.1.1.2,23,0.050,0.050,0.050,0.000,0.000,0.000
1644347682126671104,2022-02-08-19:14:42,10.1.1.2,22,0.060,0.060,0.060,0.000,0.000,0.000
1644347682226402048,2022-02-08-19:14:42,10.1.1.2,22,0.070,0.070,0.070,0.000,0.000,0.000
1644347682326934016,2022-02-08-19:14:42,10.1.1.2,21,0.080,0.080,0.080,0.000,0.000,0.000
1644347682430718976,2022-02-08-19:14:42,10.1.1.2,21,0.090,0.090,0.090,0.000,0.000,0.000
1644347682532387072,2022-02-08-19:14:42,10.1.1.2,21,0.100,0.100,0.100,0.000,0.000,0.000
1644347682626322944,2022-02-08-19:14:42,10.1.1.2,20,0.090,0.090,0.090,0.000,0.000,0.000
1644347682726269952,2022-02-08-19:14:42,10.1.1.2,20,0.080,0.080,0.080,0.000,0.000,0.000
1644347682826249984,2022-02-08-19:14:42,10.1.1.2,19,0.070,0.070,0.070,0.000,0.000,0.000
1644347683049736960,2022-02-08-19:14:43,10.1.1.2,27,0.050,0.050,0.050,0.000,0.000,0.000
1644347683146675968,2022-02-08-19:14:43,10.1.1.2,26,0.040,0.040,0.040,0.000,0.000,0.000
1644347683248037120,2022-02-08-19:14:43,10.1.1.2,26,0.030,0.030,0.030,0.000,0.000,0.000
1644347683348037888,2022-02-08-19:14:43,10.1.1.2,25,0.020,0.020,0.020,0.000,0.000,0.000
1644347683447237888,2022-02-08-19:14:43,10.1.1.2,24,0.010,0.010,0.010,0.000,0.000,0.000
1644347683547669760,2022-02-08-19:14:43,10.1.1.2,23,0.000,0.000,0.000,0.000,0.000,0.000
1644347683646349056,2022-02-08-19:14:43,10.1.1.2,22,-0.010,-0.010,-0.010,0.000,0.000,0.000
1644347683746434048,2022-02-08-19:14:43,10.1.1.2,21,-0.020,-0.020,-0.020,0.000,0.000,0.000
1644347683846347008,2022-02-08-19:14:43,10.1.1.2,21,-0.030,-0.030,-0.030,0.000,0.000,0.000
1644347683947776000,2022-02-08-19:14:43,10.1.1.2,20,-0.040,-0.040,-0.040,0.000,0.000,0.000
1644347684047120128,2022-02-08-19:14:44,10.1.1.2,20,-0.050,-0.050,-0.050,0.000,0.000,0.000
1644347684146703104,2022-02-08-19:14:44,10.1.1.2,19,-0.060,-0.060,-0.060,0.000,0.000,0.000
1644347684247066880,2022-02-08-19:14:44,10.1.1.2,19,-0.069,-0.069,-0.069,0.000,0.000,0.000
1644347684368011008,2022-02-08-19:14:44,10.1.1.2,39,-0.080,-0.080,-0.080,0.000,0.000,0.000
1644347684467627008,2022-02-08-19:14:44,10.1.1.2,38,-0.090,-0.090,-0.090,0.000,0.000,0.000
1644347684569203968,2022-02-08-19:14:44,10.1.1.2,37,-0.100,-0.100,-0.100,0.000,0.000,0.000
1644347684667709184,2022-02-08-19:14:44,10.1.1.2,36,-0.090,-0.090,-0.090,0.000,0.000,0.000
1644347684767759104,2022-02-08-19:14:44,10.1.1.2,34,-0.080,-0.080,-0.080,0.000,0.000,0.000
1644347684900641024,2022-02-08-19:14:44,10.1.1.2,28,-0.070,-0.070,-0.070,0.000,0.000,0.000
1644347684968625920,2022-02-08-19:14:44,10.1.1.2,25,-0.060,-0.060,-0.060,0.000,0.000,0.000
1644347685072109824,2022-02-08-19:14:45,10.1.1.2,24,-0.050,-0.050,-0.050,0.000,0.000,0.000
1644347685167980800,2022-02-08-19:14:45,10.1.1.2,23,-0.040,-0.040,-0.040,0.000,0.000,0.000
1644347685267458048,2022-02-08-19:14:45,10.1.1.2,22,-0.030,-0.030,-0.030,0.000,0.000,0.000
1644347685367633152,2022-02-08-19:14:45,10.1.1.2,21,-0.020,-0.020,-0.020,0.000,0.000,0.000
1644347685467770112,2022-02-08-19:14:45,10.1.1.2,20,-0.010,-0.010,-0.010,0.000,0.000,0.000
1644347685567718144,2022-02-08-19:14:45,10.1.1.2,19,-0.000,-0.000,-0.000,0.000,0.000,0.000
1644347685668157952,2022-02-08-19:14:45,10.1.1.2,19,0.009,0.009,0.009,0.000,0.000,0.000
1644347685787533056,2022-02-08-19:14:45,10.1.1.2,38,0.020,0.020,0.020,0.000,0.000,0.000
1644347685889111040,2022-02-08-19:14:45,10.1.1.2,38,0.030,0.030,0.030,0.000,0.000,0.000
1644347685986531072,2022-02-08-19:14:45,10.1.1.2,38,0.040,0.040,0.040,0.000,0.000,0.000
1644347686087011072,2022-02-08-19:14:46,10.1.1.2,37,0.050,0.050,0.050,0.000,0.000,0.000
1644347686186671872,2022-02-08-19:14:46,10.1.1.2,36,0.060,0.060,0.060,0.000,0.000,0.000
1644347686288908032,2022-02-08-19:14:46,10.1.1.2,36,0.070,0.070,0.070,0.000,0.000,0.000
1644347686385766912,2022-02-08-19:14:46,10.1.1.2,25,0.080,0.080,0.080,0.000,0.000,0.000
1644347686486545920,2022-02-08-19:14:46,10.1.1.2,24,0.090,0.090,0.090,0.000,0.000,0.000
1644347686586657024,2022-02-08-19:14:46,10.1.1.2,24,0.100,0.100,0.100,0.000,0.000,0.000
1644347686686636032,2022-02-08-19:14:46,10.1.1.2,24,0.090,0.090,0.090,0.000,0.000,0.000
1644347686786452992,2022-02-08-19:14:46,10.1.1.2,23,0.080,0.080,0.080,0.000,0.000,0.000
1644347686887940864,2022-02-08-19:14:46,10.1.1.2,22,0.070,0.070,0.070,0.000,0.000,0.000
1644347686992207104,2022-02-08-19:14:46,10.1.1.2,22,0.060,0.060,0.060,0.000,0.000,0.000
1644347687187750144,2022-02-08-19:14:47,10.1.1.2,20,0.040,0.040,0.040,0.000,0.000,0.000
1644347687307638016,2022-02-08-19:14:47,10.1.1.2,37,0.030,0.030,0.030,0.000,0.000,0.000
1644347687628137984,2022-02-08-19:14:47,10.1.1.2,38,0.000,0.000,0.000,0.000,0.000,0.000
1644347687727844096,2022-02-08-19:14:47,10.1.1.2,37,-0.010,-0.010,-0.010,0.000,0.000,0.000
1644347687828089088,2022-02-08-19:14:47,10.1.1.2,36,-0.020,-0.020,-0.020,0.000,0.000,0.000
1644347687928297984,2022-02-08-19:14:47,10.1.1.2,33,-0.030,-0.030,-0.030,0.000,0.000,0.000
1644347688028529920,2022-02-08-19:14:48,10.1.1.2,32,-0.040,-0.040,-0.040,0.000,0.000,0.000
1644347688128963072,2022-02-08-19:14:48,10.1.1.2,30,-0.050,-0.050,-0.050,0.000,0.000,0.000
1644347688228241920,2022-02-08-19:14:48,10.1.1.2,29,-0.060,-0.060,-0.060,0.000,0.000,0.000
1644347688327975936,2022-02-08-19:14:48,10.1.1.2,29,-0.070,-0.070,-0.070,0.000,0.000,0.000
1644347688428334848,2022-02-08-19:14:48,10.1.1.2,28,-0.080,-0.080,-0.080,0.000,0.000,0.000
1644347688531625984,2022-02-08-19:14:48,10.1.1.2,26,-0.090,-0.090,-0.090,0.000,0.000,0.000
1644347688630062080,2022-02-08-19:14:48,10.1.1.2,26,-0.100,-0.100,-0.100,0.000,0.000,0.000
1644347688827790080,2022-02-08-19:14:48,10.1.1.2,19,-0.081,-0.081,-0.081,0.000,0.000,0.000
1644347688947674880,2022-02-08-19:14:48,10.1.1.2,38,-0.070,-0.070,-0.070,0.000,0.000,0.000
1644347689047597824,2022-02-08-19:14:49,10.1.1.2,36,-0.060,-0.060,-0.060,0.000,0.000,0.000
1644347689148304896,2022-02-08-19:14:49,10.1.1.2,35,-0.050,-0.050,-0.050,0.000,0.000,0.000
1644347689248902144,2022-02-08-19:14:49,10.1.1.2,33,-0.040,-0.040,-0.040,0.000,0.000,0.000
1644347689349124864,2022-02-08-19:14:49,10.1.1.2,33,-0.030,-0.030,-0.030,0.000,0.000,0.000
1644347689448357120,2022-02-08-19:14:49,10.1.1.2,31,-0.020,-0.020,-0.020,0.000,0.000,0.000
1644347689548701952,2022-02-08-19:14:49,10.1.1.2,31,-0.010,-0.010,-0.010,0.000,0.000,0.000
1644347689748317952,2022-02-08-19:14:49,10.1.1.2,22,0.010,0.010,0.010,0.000,0.000,0.000
1644347689849015040,2022-02-08-19:14:49,10.1.1.2,20,0.020,0.020,0.020,0.000,0.000,0.000
1644347689949112064,2022-02-08-19:14:49,10.1.1.2,18,0.029,0.029,0.029,0.000,0.000,0.000
1644347690068367104,2022-02-08-19:14:50,10.1.1.2,37,0.040,0.040,0.040,0.000,0.000,0.000
1644347690166685184,2022-02-08-19:14:50,10.1.1.2,36,0.050,0.050,0.050,0.000,0.000,0.000
1644347690266724096,2022-02-08-19:14:50,10.1.1.2,32,0.060,0.060,0.060,0.000,0.000,0.000
1644347690366548992,2022-02-08-19:14:50,10.1.1.2,22,0.070,0.070,0.070,0.000,0.000,0.000
1644347690466772992,2022-02-08-19:14:50,10.1.1.2,22,0.080,0.080,0.080,0.000,0.000,0.000
1644347690567751936,2022-02-08-19:14:50,10.1.1.2,20,0.090,0.090,0.090,0.000,0.000,0.000
1644347690667859200,2022-02-08-19:14:50,10.1.1.2,19,0.099,0.099,0.099,0.000,0.000,0.000
1644347690787874816,2022-02-08-19:14:50,10.1.1.2,38,0.090,0.090,0.090,0.000,0.000,0.000
1644347690887545088,2022-02-08-19:14:50,10.1.1.2,37,0.080,0.080,0.080,0.000,0.000,0.000
1644347690986907904,2022-02-08-19:14:50,10.1.1.2,36,0.070,0.070,0.070,0.000,0.000,0.000
1644347691087603200,2022-02-08-19:14:51,10.1.1.2,36,0.060,0.060,0.060,0.000,0.000,0.000
1644347691188070912,2022-02-08-19:14:51,10.1.1.2,34,0.050,0.050,0.050,0.000,0.000,0.000
1644347691288072192,2022-02-08-19:14:51,10.1.1.2,31,0.040,0.040,0.040,0.000,0.000,0.000
1644347691393448960,2022-02-08-19:14:51,10.1.1.2,30,0.030,0.030,0.030,0.000,0.000,0.000
1644347691486622976,2022-02-08-19:14:51,10.1.1.2,29,0.020,0.020,0.020,0.000,0.000,0.000
1644347691587735808,2022-02-08-19:14:51,10.1.1.2,29,0.010,0.010,0.010,0.000,0.000,0.000
1644347691687695104,2022-02-08-19:14:51,10.1.1.2,28,0.000,0.000,0.000,0.000,0.000,0.000
1644347691788336128,2022-02-08-19:14:51,10.1.1.2,27,-0.010,-0.010,-0.010,0.000,0.000,0.000
1644347691892790016,2022-02-08-19:14:51,10.1.1.2,26,-0.020,-0.020,-0.020,0.000,0.000,0.000
1644347692007251968,2022-02-08-19:14:52,10.1.1.2,35,-0.030,-0.030,-0.030,0.000,0.000,0.000
1644347692106295040,2022-02-08-19:14:52,10.1.1.2,33,-0.040,-0.040,-0.040,0.000,0.000,0.000
1644347692206988032,2022-02-08-19:14:52,10.1.1.2,33,-0.050,-0.050,-0.050,0.000,0.000,0.000
1644347692306728960,2022-02-08-19:14:52,10.1.1.2,32,-0.060,-0.060,-0.060,0.000,0.000,0.000
1644347692406487040,2022-02-08-19:14:52,10.1.1.2,31,-0.070,-0.070,-0.070,0.000,0.000,0.000
1644347692507524864,2022-02-08-19:14:52,10.1.1.2,31,-0.080,-0.080,-0.080,0.000,0.000,0.000
1644347692606381056,2022-02-08-19:14:52,10.1.1.2,30,-0.090,-0.090,-0.090,0.000,0.000,0.000
1644347692707653120,2022-02-08-19:14:52,10.1.1.2,29,-0.100,-0.100,-0.100,0.000,0.000,0.000
1644347692808089088,2022-02-08-19:14:52,10.1.1.2,29,-0.090,-0.090,-0.090,0.000,0.000,0.000
1644347692907539968,2022-02-08-19:14:52,10.1.1.2,28,-0.080,-0.080,-0.080,0.000,0.000,0.000
1644347693007026944,2022-02-08-19:14:53,10.1.1.2,28,-0.070,-0.070,-0.070,0.000,0.000,0.000
1644347693107131904,2022-02-08-19:14:53,10.1.1.2,27,-0.060,-0.060,-0.060,0.000,0.000,0.000
1644347693206987008,2022-02-08-19:14:53,10.1.1.2,26,-0.050,-0.050,-0.050,0.000,0.000,0.000
1644347693306575104,2022-02-08-19:14:53,10.1.1.2,25,-0.040,-0.040,-0.040,0.000,0.000,0.000
1644347693407001856,2022-02-08-19:14:53,10.1.1.2,23,-0.030,-0.030,-0.030,0.000,0.000,0.000
1644347693506420992,2022-02-08-19:14:53,10.1.1.2,21,-0.020,-0.020,-0.020,0.000,0.000,0.000
1644347693606228992,2022-02-08-19:14:53,10.1.1.2,19,-0.010,-0.010,-0.010,0.000,0.000,0.000
1644347693707712768,2022-02-08-19:14:53,10.1.1.2,19,-0.001,-0.001,-0.001,0.000,0.000,0.000
1644347693826461952,2022-02-08-19:14:53,10.1.1.2,38,0.010,0.010,0.010,0.000,0.000,0.000
1644347693927546112,2022-02-08-19:14:53,10.1.1.2,38,0.020,0.020,0.020,0.000,0.000,0.000
1644347694026652160,2022-02-08-19:14:54,10.1.1.2,36,0.030,0.030,0.030,0.000,0.000,0.000
1644347694126369024,2022-02-08-19:14:54,10.1.1.2,36,0.040,0.040,0.040,0.000,0.000,0.000
1644347694226249984,2022-02-08-19:14:54,10.1.1.2,35,0.050,0.050,0.050,0.000,0.000,0.000
1644347694327613952,2022-02-08-19:14:54,10.1.1.2,33,0.060,0.060,0.060,0.000,0.000,0.000
1644347694427063040,2022-02-08-19:14:54,10.1.1.2,33,0.070,0.070,0.070,0.000,0.000,0.000
1644347694527846144,2022-02-08-19:14:54,10.1.1.2,32,0.080,0.080,0.080,0.000,0.000,0.000
1644347694626018048,2022-02-08-19:14:54,10.1.1.2,32,0.090,0.090,0.090,0.000,0.000,0.000
1644347694727811072,2022-02-08-19:14:54,10.1.1.2,31,0.100,0.100,0.100,0.000,0.000,0.000
1644347694826267904,2022-02-08-19:14:54,10.1.1.2,31,0.090,0.090,0.090,0.000,0.000,0.000
1644347694926755840,2022-02-08-19:14:54,10.1.1.2,30,0.080,0.080,0.080,0.000,0.000,0.000
1644347695026607104,2022-02-08-19:14:55,10.1.1.2,30,0.070,0.070,0.070,0.000,0.000,0.000
1644347695126622976,2022-02-08-19:14:55,10.1.1.2,30,0.060,0.060,0.060,0.000,0.000,0.000
1644347695227472128,2022-02-08-19:14:55,10.1.1.2,29,0.050,0.050,0.050,0.000,0.000,0.000
1644347695327117056,2022-02-08-19:14:55,10.1.1.2,28,0.040,0.040,0.040,0.000,0.000,0.000
1644347695426110976,2022-02-08-19:14:55,10.1.1.2,27,0.030,0.030,0.030,0.000,0.000,0.000
1644347695526791168,2022-02-08-19:14:55,10.1.1.2,27,0.020,0.020,0.020,0.000,0.000,0.000
1644347695628241152,2022-02-08-19:14:55,10.1.1.2,26,0.010,0.010,0.010,0.000,0.000,0.000
1644347695732614144,2022-02-08-19:14:55,10.1.1.2,24,0.000,0.000,0.000,0.000,0.000,0.000
1644347695833300992,2022-02-08-19:14:55,10.1.1.2,22,-0.010,-0.010,-0.010,0.000,0.000,0.000
1644347695947880960,2022-02-08-19:14:55,10.1.1.2,38,-0.020,-0.020,-0.020,0.000,0.000,0.000
1644347696048032000,2022-02-08-19:14:56,10.1.1.2,37,-0.030,-0.030,-0.030,0.000,0.000,0.000
1644347696149178112,2022-02-08-19:14:56,10.1.1.2,37,-0.040,-0.040,-0.040,0.000,0.000,0.000
1644347696251097088,2022-02-08-19:14:56,10.1.1.2,35,-0.050,-0.050,-0.050,0.000,0.000,0.000
1644347696349026816,2022-02-08-19:14:56,10.1.1.2,30,-0.060,-0.060,-0.060,0.000,0.000,0.000
1644347696448611072,2022-02-08-19:14:56,10.1.1.2,29,-0.070,-0.070,-0.070,0.000,0.000,0.000
1644347696548059904,2022-02-08-19:14:56,10.1.1.2,29,-0.080,-0.080,-0.080,0.000,0.000,0.000
1644347696649143040,2022-02-08-19:14:56,10.1.1.2,25,-0.090,-0.090,-0.090,0.000,0.000,0.000
1644347696748364800,2022-02-08-19:14:56,10.1.1.2,22,-0.100,-0.100,-0.100,0.000,0.000,0.000
1644347696848877056,2022-02-08-19:14:56,10.1.1.2,22,-0.090,-0.090,-0.090,0.000,0.000,0.000
1644347696948529920,2022-02-08-19:14:56,10.1.1.2,21,-0.080,-0.080,-0.080,0.000,0.000,0.000
1644347697048704000,2022-02-08-19:14:57,10.1.1.2,19,-0.070,-0.070,-0.070,0.000,0.000,0.000
1644347697168839936,2022-02-08-19:14:57,10.1.1.2,39,-0.060,-0.060,-0.060,0.000,0.000,0.000
1644347697269709056,2022-02-08-19:14:57,10.1.1.2,38,-0.050,-0.050,-0.050,0.000,0.000,0.000
1644347697368802048,2022-02-08-19:14:57,10.1.1.2,37,-0.040,-0.040,-0.040,0.000,0.000,0.000
1644347697469600000,2022-02-08-19:14:57,10.1.1.2,36,-0.030,-0.030,-0.030,0.000,0.000,0.000
1644347697571460096,2022-02-08-19:14:57,10.1.1.2,36,-0.020,-0.020,-0.020,0.000,0.000,0.000
1644347697669060096,2022-02-08-19:14:57,10.1.1.2,35,-0.010,-0.010,-0.010,0.000,0.000,0.000
1644347697769774080,2022-02-08-19:14:57,10.1.1.2,34,0.000,0.000,0.000,0.000,0.000,0.000
1644347697868774912,2022-02-08-19:14:57,10.1.1.2,33,0.010,0.010,0.010,0.000,0.000,0.000
1644347697968801024,2022-02-08-19:14:57,10.1.1.2,33,0.020,0.020,0.020,0.000,0.000,0.000
1644347698068395008,2022-02-08-19:14:58,10.1.1.2,32,0.030,0.030,0.030,0.000,0.000,0.000
1644347698168276992,2022-02-08-19:14:58,10.1.1.2,32,0.040,0.040,0.040,0.000,0.000,0.000
1644347698266947072,2022-02-08-19:14:58,10.1.1.2,31,0.050,0.050,0.050,0.000,0.000,0.000
1644347698368217088,2022-02-08-19:14:58,10.1.1.2,30,0.060,0.060,0.060,0.000,0.000,0.000
1644347698466450944,2022-02-08-19:14:58,10.1.1.2,30,0.070,0.070,0.070,0.000,0.000,0.000
1644347698569124864,2022-02-08-19:14:58,10.1.1.2,29,0.080,0.080,0.080,0.000,0.000,0.000
1644347698668605952,2022-02-08-19:14:58,10.1.1.2,29,0.090,0.090,0.090,0.000,0.000,0.000
1644347698768579840,2022-02-08-19:14:58,10.1.1.2,28,0.100,0.100,0.100,0.000,0.000,0.000
1644347698868722944,2022-02-08-19:14:58,10.1.1.2,28,0.090,0.090,0.090,0.000,0.000,0.000
1644347698968303872,2022-02-08-19:14:58,10.1.1.2,27,0.080,0.080,0.080,0.000,0.000,0.000
1644347699068101888,2022-02-08-19:14:59,10.1.1.2,27,0.070,0.070,0.070,0.000,0.000,0.000
1644347699168430080,2022-02-08-19:14:59,10.1.1.2,26,0.060,0.060,0.060,0.000,0.000,0.000
1644347699268156160,2022-02-08-19:14:59,10.1.1.2,25,0.050,0.050,0.050,0.000,0.000,0.000
1644347699367037184,2022-02-08-19:14:59,10.1.1.2,23,0.040,0.040,0.040,0.000,0.000,0.000
1644347699467865088,2022-02-08-19:14:59,10.1.1.2,22,0.030,0.030,0.030,0.000,0.000,0.000
1644347699567461888,2022-02-08-19:14:59,10.1.1.2,22,0.020,0.020,0.020,0.000,0.000,0.000
1644347699667288064,2022-02-08-19:14:59,10.1.1.2,21,0.010,0.010,0.010,0.000,0.000,0.000
1644347699766776064,2022-02-08-19:14:59,10.1.1.2,21,0.000,0.000,0.000,0.000,0.000,0.000
1644347699867677952,2022-02-08-19:14:59,10.1.1.2,20,-0.010,-0.010,-0.010,0.000,0.000,0.000
1644347699988498944,2022-02-08-19:14:59,10.1.1.2,39,-0.020,-0.020,-0.020,0.000,0.000,0.000
1644347700088509952,2022-02-08-19:15:00,10.1.1.2,37,-0.030,-0.030,-0.030,0.000,0.000,0.000
1644347700187240960,2022-02-08-19:15:00,10.1.1.2,36,-0.040,-0.040,-0.040,0.000,0.000,0.000
1644347700287319808,2022-02-08-19:15:00,10.1.1.2,36,-0.050,-0.050,-0.050,0.000,0.000,0.000
1644347700388227072,2022-02-08-19:15:00,10.1.1.2,35,-0.060,-0.060,-0.060,0.000,0.000,0.000
1644347700488236032,2022-02-08-19:15:00,10.1.1.2,33,-0.070,-0.070,-0.070,0.000,0.000,0.000
1644347700587620864,2022-02-08-19:15:00,10.1.1.2,32,-0.080,-0.080,-0.080,0.000,0.000,0.000
1644347700687723008,2022-02-08-19:15:00,10.1.1.2,31,-0.090,-0.090,-0.090,0.000,0.000,0.000
1644347700788723968,2022-02-08-19:15:00,10.1.1.2,31,-0.100,-0.100,-0.100,0.000,0.000,0.000
1644347700887557888,2022-02-08-19:15:00,10.1.1.2,30,-0.090,-0.090,-0.090,0.000,0.000,0.000
1644347700988246016,2022-02-08-19:15:00,10.1.1.2,29,-0.080,-0.080,-0.080,0.000,0.000,0.000
1644347701087335936,2022-02-08-19:15:01,10.1.1.2,29,-0.070,-0.070,-0.070,0.000,0.000,0.000
1644347701187699200,2022-02-08-19:15:01,10.1.1.2,28,-0.060,-0.060,-0.060,0.000,0.000,0.000
1644347701286635008,2022-02-08-19:15:01,10.1.1.2,27,-0.050,-0.050,-0.050,0.000,0.000,0.000
1644347701388803840,2022-02-08-19:15:01,10.1.1.2,26,-0.040,-0.040,-0.040,0.000,0.000,0.000
1644347701486819072,2022-02-08-19:15:01,10.1.1.2,25,-0.030,-0.030,-0.030,0.000,0.000,0.000
1644347701588728832,2022-02-08-19:15:01,10.1.1.2,23,-0.020,-0.020,-0.020,0.000,0.000,0.000
1644347701688161024,2022-02-08-19:15:01,10.1.1.2,23,-0.010,-0.010,-0.010,0.000,0.000,0.000
1644347701787667968,2022-02-08-19:15:01,10.1.1.2,22,0.000,0.000,0.000,0.000,0.000,0.000
1644347701888313088,2022-02-08-19:15:01,10.1.1.2,22,0.010,0.010,0.010,0.000,0.000,0.000
1644347701987608832,2022-02-08-19:15:01,10.1.1.2,21,0.020,0.020,0.020,0.000,0.000,0.000
1644347702088310016,2022-02-08-19:15:02,10.1.1.2,20,0.030,0.030,0.030,0.000,0.000,0.000
1644347702187702784,2022-02-08-19:15:02,10.1.1.2,19,0.039,0.039,0.039,0.000,0.000,0.000
1644347702308252160,2022-02-08-19:15:02,10.1.1.2,38,0.050,0.050,0.050,0.000,0.000,0.000
1644347702407399936,2022-02-08-19:15:02,10.1.1.2,37,0.060,0.060,0.060,0.000,0.000,0.000
1644347702507579136,2022-02-08-19:15:02,10.1.1.2,37,0.070,0.070,0.070,0.000,0.000,0.000
1644347702607059968,2022-02-08-19:15:02,10.1.1.2,36,0.080,0.080,0.080,0.000,0.000,0.000
1644347702707223808,2022-02-08-19:15:02,10.1.1.2,36,0.090,0.090,0.090,0.000,0.000,0.000
1644347702807259136,2022-02-08-19:15:02,10.1.1.2,35,0.100,0.100,0.100,0.000,0.000,0.000
1644347702907501056,2022-02-08-19:15:02,10.1.1.2,34,0.090,0.090,0.090,0.000,0.000,0.000
1644347703007069184,2022-02-08-19:15:03,10.1.1.2,32,0.080,0.080,0.080,0.000,0.000,0.000
1644347703107572992,2022-02-08-19:15:03,10.1.1.2,32,0.070,0.070,0.070,0.000,0.000,0.000
1644347703206976768,2022-02-08-19:15:03,10.1.1.2,31,0.060,0.060,0.060,0.000,0.000,0.000
1644347703306427904,2022-02-08-19:15:03,10.1.1.2,30,0.050,0.050,0.050,0.000,0.000,0.000
1644347703407907072,2022-02-08-19:15:03,10.1.1.2,30,0.040,0.040,0.040,0.000,0.000,0.000
1644347703506745088,2022-02-08-19:15:03,10.1.1.2,29,0.030,0.030,0.030,0.000,0.000,0.000
1644347703606667008,2022-02-08-19:15:03,10.1.1.2,28,0.020,0.020,0.020,0.000,0.000,0.000
1644347703708369920,2022-02-08-19:15:03,10.1.1.2,28,0.010,0.010,0.010,0.000,0.000,0.000
1644347703808046080,2022-02-08-19:15:03,10.1.1.2,27,0.000,0.000,0.000,0.000,0.000,0.000
1644347703908385024,2022-02-08-19:15:03,10.1.1.2,27,-0.010,-0.010,-0.010,0.000,0.000,0.000
1644347704008444928,2022-02-08-19:15:04,10.1.1.2,25,-0.020,-0.020,-0.020,0.000,0.000,0.000
1644347704107014912,2022-02-08-19:15:04,10.1.1.2,25,-0.030,-0.030,-0.030,0.000,0.000,0.000
1644347704207848960,2022-02-08-19:15:04,10.1.1.2,24,-0.040,-0.040,-0.040,0.000,0.000,0.000
1644347704307559936,2022-02-08-19:15:04,10.1.1.2,23,-0.050,-0.050,-0.050,0.000,0.000,0.000
1644347704406972928,2022-02-08-19:15:04,10.1.1.2,23,-0.060,-0.060,-0.060,0.000,0.000,0.000
1644347704508656896,2022-02-08-19:15:04,10.1.1.2,22,-0.070,-0.070,-0.070,0.000,0.000,0.000
1644347704608254976,2022-02-08-19:15:04,10.1.1.2,22,-0.080,-0.080,-0.080,0.000,0.000,0.000
1644347704708729856,2022-02-08-19:15:04,10.1.1.2,21,-0.090,-0.090,-0.090,0.000,0.000,0.000
1644347704807998976,2022-02-08-19:15:04,10.1.1.2,21,-0.100,-0.100,-0.100,0.000,0.000,0.000
1644347704909159936,2022-02-08-19:15:04,10.1.1.2,20,-0.090,-0.090,-0.090,0.000,0.000,0.000
1644347705007660032,2022-02-08-19:15:05,10.1.1.2,19,-0.080,-0.080,-0.080,0.000,0.000,0.000
1644347705128359168,2022-02-08-19:15:05,10.1.1.2,38,-0.070,-0.070,-0.070,0.000,0.000,0.000
1644347705229948160,2022-02-08-19:15:05,10.1.1.2,38,-0.060,-0.060,-0.060,0.000,0.000,0.000
1644347705327883008,2022-02-08-19:15:05,10.1.1.2,37,-0.050,-0.050,-0.050,0.000,0.000,0.000
1644347705429820160,2022-02-08-19:15:05,10.1.1.2,32,-0.040,-0.040,-0.040,0.000,0.000,0.000
1644347705528331008,2022-02-08-19:15:05,10.1.1.2,31,-0.030,-0.030,-0.030,0.000,0.000,0.000
1644347705628475904,2022-02-08-19:15:05,10.1.1.2,31,-0.020,-0.020,-0.020,0.000,0.000,0.000
1644347705728411904,2022-02-08-19:15:05,10.1.1.2,30,-0.010,-0.010,-0.010,0.000,0.000,0.000
1644347705828263168,2022-02-08-19:15:05,10.1.1.2,29,0.000,0.000,0.000,0.000,0.000,0.000
1644347705929115904,2022-02-08-19:15:05,10.1.1.2,29,0.010,0.010,0.010,0.000,0.000,0.000
1644347706028268032,2022-02-08-19:15:06,10.1.1.2,28,0.020,0.020,0.020,0.000,0.000,0.000
1644347706128257024,2022-02-08-19:15:06,10.1.1.2,27,0.030,0.030,0.030,0.000,0.000,0.000
1644347706229090048,2022-02-08-19:15:06,10.1.1.2,27,0.040,0.040,0.040,0.000,0.000,0.000
1644347706327864832,2022-02-08-19:15:06,10.1.1.2,24,0.050,0.050,0.050,0.000,0.000,0.000
1644347706427753984,2022-02-08-19:15:06,10.1.1.2,23,0.060,0.060,0.060,0.000,0.000,0.000
1644347706528323840,2022-02-08-19:15:06,10.1.1.2,22,0.070,0.070,0.070,0.000,0.000,0.000
1644347706628006912,2022-02-08-19:15:06,10.1.1.2,21,0.080,0.080,0.080,0.000,0.000,0.000
1644347706727803904,2022-02-08-19:15:06,10.1.1.2,20,0.090,0.090,0.090,0.000,0.000,0.000
1644347706828264960,2022-02-08-19:15:06,10.1.1.2,20,0.100,0.100,0.100,0.000,0.000,0.000
1644347706947834112,2022-02-08-19:15:06,10.1.1.2,38,0.090,0.090,0.090,0.000,0.000,0.000
1644347707047666176,2022-02-08-19:15:07,10.1.1.2,37,0.080,0.080,0.080,0.000,0.000,0.000
1644347707149296128,2022-02-08-19:15:07,10.1.1.2,37,0.070,0.070,0.070,0.000,0.000,0.000
1644347707248267776,2022-02-08-19:15:07,10.1.1.2,35,0.060,0.060,0.060,0.000,0.000,0.000
1644347707347748096,2022-02-08-19:15:07,10.1.1.2,34,0.050,0.050,0.050,0.000,0.000,0.000
1644347707448389120,2022-02-08-19:15:07,10.1.1.2,32,0.040,0.040,0.040,0.000,0.000,0.000
1644347707547863040,2022-02-08-19:15:07,10.1.1.2,31,0.030,0.030,0.030,0.000,0.000,0.000
1644347707647072000,2022-02-08-19:15:07,10.1.1.2,30,0.020,0.020,0.020,0.000,0.000,0.000
1644347707746606080,2022-02-08-19:15:07,10.1.1.2,29,0.010,0.010,0.010,0.000,0.000,0.000
1644347707848282112,2022-02-08-19:15:07,10.1.1.2,29,0.000,0.000,0.000,0.000,0.000,0.000
1644347707947695872,2022-02-08-19:15:07,10.1.1.2,28,-0.010,-0.010,-0.010,0.000,0.000,0.000
1644347708047962880,2022-02-08-19:15:08,10.1.1.2,28,-0.020,-0.020,-0.020,0.000,0.000,0.000
1644347708147012096,2022-02-08-19:15:08,10.1.1.2,27,-0.030,-0.030,-0.030,0.000,0.000,0.000
1644347708246938880,2022-02-08-19:15:08,10.1.1.2,27,-0.040,-0.040,-0.040,0.000,0.000,0.000
1644347708347342080,2022-02-08-19:15:08,10.1.1.2,26,-0.050,-0.050,-0.050,0.000,0.000,0.000
1644347708447787008,2022-02-08-19:15:08,10.1.1.2,25,-0.060,-0.060,-0.060,0.000,0.000,0.000
1644347708547097088,2022-02-08-19:15:08,10.1.1.2,24,-0.070,-0.070,-0.070,0.000,0.000,0.000
1644347708647505152,2022-02-08-19:15:08,10.1.1.2,23,-0.080,-0.080,-0.080,0.000,0.000,0.000
1644347708747406080,2022-02-08-19:15:08,10.1.1.2,23,-0.090,-0.090,-0.090,0.000,0.000,0.000
1644347708847113984,2022-02-08-19:15:08,10.1.1.2,22,-0.100,-0.100,-0.100,0.000,0.000,0.000
1644347708966774016,2022-02-08-19:15:08,10.1.1.2,22,-0.090,-0.090,-0.090,0.000,0.000,0.000
1644347709067137024,2022-02-08-19:15:09,10.1.1.2,20,-0.080,-0.080,-0.080,0.000,0.000,0.000
1644347709186685184,2022-02-08-19:15:09,10.1.1.2,36,-0.070,-0.070,-0.070,0.000,0.000,0.000
1644347709288160000,2022-02-08-19:15:09,10.1.1.2,34,-0.060,-0.060,-0.060,0.000,0.000,0.000
1644347709388067072,2022-02-08-19:15:09,10.1.1.2,33,-0.050,-0.050,-0.050,0.000,0.000,0.000
1644347709486300928,2022-02-08-19:15:09,10.1.1.2,32,-0.040,-0.040,-0.040,0.000,0.000,0.000
1644347709588027904,2022-02-08-19:15:09,10.1.1.2,31,-0.030,-0.030,-0.030,0.000,0.000,0.000
1644347709686096896,2022-02-08-19:15:09,10.1.1.2,31,-0.020,-0.020,-0.020,0.000,0.000,0.000
1644347709786266112,2022-02-08-19:15:09,10.1.1.2,30,-0.010,-0.010,-0.010,0.000,0.000,0.000
1644347709886990080,2022-02-08-19:15:09,10.1.1.2,29,0.000,0.000,0.000,0.000,0.000,0.000
1644347709986836992,2022-02-08-19:15:09,10.1.1.2,28,0.010,0.010,0.010,0.000,0.000,0.000
1644347710087358976,2022-02-08-19:15:10,10.1.1.2,28,0.020,0.020,0.020,0.000,0.000,0.000
1644347710186129152,2022-02-08-19:15:10,10.1.1.2,27,0.030,0.030,0.030,0.000,0.000,0.000
1644347710287624960,2022-02-08-19:15:10,10.1.1.2,27,0.040,0.040,0.040,0.000,0.000,0.000
1644347710387520000,2022-02-08-19:15:10,10.1.1.2,26,0.050,0.050,0.050,0.000,0.000,0.000
1644347710486932992,2022-02-08-19:15:10,10.1.1.2,25,0.060,0.060,0.060,0.000,0.000,0.000
1644347710587091968,2022-02-08-19:15:10,10.1.1.2,24,0.070,0.070,0.070,0.000,0.000,0.000
1644347710693416192,2022-02-08-19:15:10,10.1.1.2,19,0.079,0.079,0.079,0.000,0.000,0.000
1644347710808933888,2022-02-08-19:15:10,10.1.1.2,36,0.090,0.090,0.090,0.000,0.000,0.000
1644347710908909056,2022-02-08-19:15:10,10.1.1.2,28,0.100,0.100,0.100,0.000,0.000,0.000
1644347711009630976,2022-02-08-19:15:11,10.1.1.2,27,0.090,0.090,0.090,0.000,0.000,0.000
1644347711108755968,2022-02-08-19:15:11,10.1.1.2,26,0.080,0.080,0.080,0.000,0.000,0.000
1644347711207859968,2022-02-08-19:15:11,10.1.1.2,25,0.070,0.070,0.070,0.000,0.000,0.000
1644347711308624128,2022-02-08-19:15:11,10.1.1.2,24,0.060,0.060,0.060,0.000,0.000,0.000
1644347711408467968,2022-02-08-19:15:11,10.1.1.2,23,0.050,0.050,0.050,0.000,0.000,0.000
1644347711508768000,2022-02-08-19:15:11,10.1.1.2,21,0.040,0.040,0.040,0.000,0.000,0.000
1644347711607944960,2022-02-08-19:15:11,10.1.1.2,19,0.030,0.030,0.030,0.000,0.000,0.000
1644347711706448128,2022-02-08-19:15:11,10.1.1.2,18,0.021,0.021,0.021,0.000,0.000,0.000
1644347711827019008,2022-02-08-19:15:11,10.1.1.2,38,0.010,0.010,0.010,0.000,0.000,0.000
1644347711927987200,2022-02-08-19:15:11,10.1.1.2,37,0.000,0.000,0.000,0.000,0.000,0.000
1644347712026995968,2022-02-08-19:15:12,10.1.1.2,36,-0.010,-0.010,-0.010,0.000,0.000,0.000
1644347712127710208,2022-02-08-19:15:12,10.1.1.2,32,-0.020,-0.020,-0.020,0.000,0.000,0.000
1644347712229526016,2022-02-08-19:15:12,10.1.1.2,32,-0.030,-0.030,-0.030,0.000,0.000,0.000
1644347712327255040,2022-02-08-19:15:12,10.1.1.2,27,-0.040,-0.040,-0.040,0.000,0.000,0.000
1644347712426881024,2022-02-08-19:15:12,10.1.1.2,25,-0.050,-0.050,-0.050,0.000,0.000,0.000
1644347712527030016,2022-02-08-19:15:12,10.1.1.2,23,-0.060,-0.060,-0.060,0.000,0.000,0.000
1644347712627207168,2022-02-08-19:15:12,10.1.1.2,23,-0.070,-0.070,-0.070,0.000,0.000,0.000
1644347712727059968,2022-02-08-19:15:12,10.1.1.2,21,-0.080,-0.080,-0.080,0.000,0.000,0.000
1644347712827777024,2022-02-08-19:15:12,10.1.1.2,21,-0.090,-0.090,-0.090,0.000,0.000,0.000
1644347712926998016,2022-02-08-19:15:12,10.1.1.2,20,-0.100,-0.100,-0.100,0.000,0.000,0.000
1644347713027569152,2022-02-08-19:15:13,10.1.1.2,19,-0.090,-0.090,-0.090,0.000,0.000,0.000
1644347713149718016,2022-02-08-19:15:13,10.1.1.2,38,-0.080,-0.080,-0.080,0.000,0.000,0.000
1644347713248512000,2022-02-08-19:15:13,10.1.1.2,37,-0.070,-0.070,-0.070,0.000,0.000,0.000
1644347713447873024,2022-02-08-19:15:13,10.1.1.2,32,-0.050,-0.050,-0.050,0.000,0.000,0.000
1644347713548399872,2022-02-08-19:15:13,10.1.1.2,31,-0.040,-0.040,-0.040,0.000,0.000,0.000
1644347713647952128,2022-02-08-19:15:13,10.1.1.2,29,-0.030,-0.030,-0.030,0.000,0.000,0.000
1644347713746573056,2022-02-08-19:15:13,10.1.1.2,28,-0.020,-0.020,-0.020,0.000,0.000,0.000
1644347713847739904,2022-02-08-19:15:13,10.1.1.2,28,-0.010,-0.010,-0.010,0.000,0.000,0.000
1644347713947894016,2022-02-08-19:15:13,10.1.1.2,27,0.000,0.000,0.000,0.000,0.000,0.000
1644347714048294912,2022-02-08-19:15:14,10.1.1.2,26,0.010,0.010,0.010,0.000,0.000,0.000
1644347714147873024,2022-02-08-19:15:14,10.1.1.2,25,0.020,0.020,0.020,0.000,0.000,0.000
1644347714248101120,2022-02-08-19:15:14,10.1.1.2,24,0.030,0.030,0.030,0.000,0.000,0.000
1644347714346558976,2022-02-08-19:15:14,10.1.1.2,23,0.040,0.040,0.040,0.000,0.000,0.000
1644347714448140032,2022-02-08-19:15:14,10.1.1.2,22,0.050,0.050,0.050,0.000,0.000,0.000
1644347714547678976,2022-02-08-19:15:14,10.1.1.2,21,0.060,0.060,0.060,0.000,0.000,0.000
1644347714647324928,2022-02-08-19:15:14,10.1.1.2,20,0.070,0.070,0.070,0.000,0.000,0.000
1644347714746486016,2022-02-08-19:15:14,10.1.1.2,19,0.079,0.079,0.079,0.000,0.000,0.000
1644347714866458880,2022-02-08-19:15:14,10.1.1.2,38,0.090,0.090,0.090,0.000,0.000,0.000
1644347714966854144,2022-02-08-19:15:14,10.1.1.2,37,0.100,0.100,0.100,0.000,0.000,0.000
1644347715067575808,2022-02-08-19:15:15,10.1.1.2,37,0.090,0.090,0.090,0.000,0.000,0.000
1644347715167151872,2022-02-08-19:15:15,10.1.1.2,36,0.080,0.080,0.080,0.000,0.000,0.000
1644347715266449920,2022-02-08-19:15:15,10.1.1.2,35,0.070,0.070,0.070,0.000,0.000,0.000
1644347715366743040,2022-02-08-19:15:15,10.1.1.2,34,0.060,0.060,0.060,0.000,0.000,0.000
1644347715466966016,2022-02-08-19:15:15,10.1.1.2,33,0.050,0.050,0.050,0.000,0.000,0.000
1644347715566785024,2022-02-08-19:15:15,10.1.1.2,33,0.040,0.040,0.040,0.000,0.000,0.000
1644347715669347072,2022-02-08-19:15:15,10.1.1.2,32,0.030,0.030,0.030,0.000,0.000,0.000
1644347715771630080,2022-02-08-19:15:15,10.1.1.2,31,0.020,0.020,0.020,0.000,0.000,0.000
1644347715868913920,2022-02-08-19:15:15,10.1.1.2,30,0.010,0.010,0.010,0.000,0.000,0.000
1644347715968905984,2022-02-08-19:15:15,10.1.1.2,29,0.000,0.000,0.000,0.000,0.000,0.000
1644347716069328896,2022-02-08-19:15:16,10.1.1.2,28,-0.010,-0.010,-0.010,0.000,0.000,0.000
1644347716169004800,2022-02-08-19:15:16,10.1.1.2,28,-0.020,-0.020,-0.020,0.000,0.000,0.000
1644347716269027840,2022-02-08-19:15:16,10.1.1.2,27,-0.030,-0.030,-0.030,0.000,0.000,0.000
1644347716367705088,2022-02-08-19:15:16,10.1.1.2,25,-0.040,-0.040,-0.040,0.000,0.000,0.000
1644347716466851840,2022-02-08-19:15:16,10.1.1.2,24,-0.050,-0.050,-0.050,0.000,0.000,0.000
1644347716568430848,2022-02-08-19:15:16,10.1.1.2,23,-0.060,-0.060,-0.060,0.000,0.000,0.000
1644347716667644928,2022-02-08-19:15:16,10.1.1.2,21,-0.070,-0.070,-0.070,0.000,0.000,0.000
1644347716769699072,2022-02-08-19:15:16,10.1.1.2,20,-0.080,-0.080,-0.080,0.000,0.000,0.000
1644347716868248064,2022-02-08-19:15:16,10.1.1.2,18,-0.089,-0.089,-0.089,0.000,0.000,0.000
1644347716989201920,2022-02-08-19:15:16,10.1.1.2,38,-0.100,-0.100,-0.100,0.000,0.000,0.000
1644347717089996032,2022-02-08-19:15:17,10.1.1.2,30,-0.090,-0.090,-0.090,0.000,0.000,0.000
1644347717188209920,2022-02-08-19:15:17,10.1.1.2,29,-0.080,-0.080,-0.080,0.000,0.000,0.000
1644347717289676032,2022-02-08-19:15:17,10.1.1.2,29,-0.070,-0.070,-0.070,0.000,0.000,0.000
1644347717389103872,2022-02-08-19:15:17,10.1.1.2,28,-0.060,-0.060,-0.060,0.000,0.000,0.000
1644347717487552000,2022-02-08-19:15:17,10.1.1.2,27,-0.050,-0.050,-0.050,0.000,0.000,0.000
1644347717588303104,2022-02-08-19:15:17,10.1.1.2,26,-0.040,-0.040,-0.040,0.000,0.000,0.000
1644347717690907904,2022-02-08-19:15:17,10.1.1.2,25,-0.030,-0.030,-0.030,0.000,0.000,0.000
1644347717789326080,2022-02-08-19:15:17,10.1.1.2,22,-0.020,-0.020,-0.020,0.000,0.000,0.000
1644347717888865024,2022-02-08-19:15:17,10.1.1.2,21,-0.010,-0.010,-0.010,0.000,0.000,0.000
1644347717986583040,2022-02-08-19:15:17,10.1.1.2,19,-0.001,-0.001,-0.001,0.000,0.000,0.000
1644347718106436864,2022-02-08-19:15:18,10.1.1.2,38,0.010,0.010,0.010,0.000,0.000,0.000
1644347718206556928,2022-02-08-19:15:18,10.1.1.2,37,0.020,0.020,0.020,0.000,0.000,0.000
1644347718307458048,2022-02-08-19:15:18,10.1.1.2,36,0.030,0.030,0.030,0.000,0.000,0.000
1644347718407883008,2022-02-08-19:15:18,10.1.1.2,36,0.040,0.040,0.040,0.000,0.000,0.000
1644347718506572032,2022-02-08-19:15:18,10.1.1.2,35,0.050,0.050,0.050,0.000,0.000,0.000
1644347718608715008,2022-02-08-19:15:18,10.1.1.2,33,0.060,0.060,0.060,0.000,0.000,0.000
1644347718706758144,2022-02-08-19:15:18,10.1.1.2,32,0.070,0.070,0.070,0.000,0.000,0.000
1644347718809449984,2022-02-08-19:15:18,10.1.1.2,31,0.080,0.080,0.080,0.000,0.000,0.000
1644347718909379072,2022-02-08-19:15:18,10.1.1.2,31,0.090,0.090,0.090,0.000,0.000,0.000
1644347719008035840,2022-02-08-19:15:19,10.1.1.2,30,0.100,0.100,0.100,0.000,0.000,0.000
1644347719107920896,2022-02-08-19:15:19,10.1.1.2,30,0.090,0.090,0.090,0.000,0.000,0.000
1644347719208322048,2022-02-08-19:15:19,10.1.1.2,30,0.080,0.080,0.080,0.000,0.000,0.000
1644347719308077056,2022-02-08-19:15:19,10.1.1.2,29,0.070,0.070,0.070,0.000,0.000,0.000
1644347719406637056,2022-02-08-19:15:19,10.1.1.2,28,0.060,0.060,0.060,0.000,0.000,0.000
1644347719508194048,2022-02-08-19:15:19,10.1.1.2,28,0.050,0.050,0.050,0.000,0.000,0.000
1644347719608582912,2022-02-08-19:15:19,10.1.1.2,27,0.040,0.040,0.040,0.000,0.000,0.000
1644347719708796928,2022-02-08-19:15:19,10.1.1.2,27,0.030,0.030,0.030,0.000,0.000,0.000
1644347719806572032,2022-02-08-19:15:19,10.1.1.2,26,0.020,0.020,0.020,0.000,0.000,0.000
1644347719909398016,2022-02-08-19:15:19,10.1.1.2,25,0.010,0.010,0.010,0.000,0.000,0.000
1644347720006696960,2022-02-08-19:15:20,10.1.1.2,25,-0.000,-0.000,-0.000,0.000,0.000,0.000
1644347720108275968,2022-02-08-19:15:20,10.1.1.2,24,-0.010,-0.010,-0.010,0.000,0.000,0.000
1644347720207043840,2022-02-08-19:15:20,10.1.1.2,19,-0.020,-0.020,-0.020,0.000,0.000,0.000
1644347720327745792,2022-02-08-19:15:20,10.1.1.2,38,-0.030,-0.030,-0.030,0.000,0.000,0.000
1644347720428056832,2022-02-08-19:15:20,10.1.1.2,36,-0.040,-0.040,-0.040,0.000,0.000,0.000
1644347720526670080,2022-02-08-19:15:20,10.1.1.2,35,-0.050,-0.050,-0.050,0.000,0.000,0.000
1644347720628329984,2022-02-08-19:15:20,10.1.1.2,33,-0.060,-0.060,-0.060,0.000,0.000,0.000
1644347720729163776,2022-02-08-19:15:20,10.1.1.2,32,-0.070,-0.070,-0.070,0.000,0.000,0.000
1644347720827907072,2022-02-08-19:15:20,10.1.1.2,31,-0.080,-0.080,-0.080,0.000,0.000,0.000
1644347720928076032,2022-02-08-19:15:20,10.1.1.2,31,-0.090,-0.090,-0.090,0.000,0.000,0.000
1644347721028343040,2022-02-08-19:15:21,10.1.1.2,31,-0.100,-0.100,-0.100,0.000,0.000,0.000
1644347721128026880,2022-02-08-19:15:21,10.1.1.2,30,-0.090,-0.090,-0.090,0.000,0.000,0.000
1644347721228591872,2022-02-08-19:15:21,10.1.1.2,29,-0.080,-0.080,-0.080,0.000,0.000,0.000
1644347721328023040,2022-02-08-19:15:21,10.1.1.2,29,-0.070,-0.070,-0.070,0.000,0.000,0.000
1644347721426511104,2022-02-08-19:15:21,10.1.1.2,27,-0.060,-0.060,-0.060,0.000,0.000,0.000
1644347721528143872,2022-02-08-19:15:21,10.1.1.2,27,-0.050,-0.050,-0.050,0.000,0.000,0.000
1644347721746931968,2022-02-08-19:15:21,10.1.1.2,28,-0.030,-0.030,-0.030,0.000,0.000,0.000
1644347721846407936,2022-02-08-19:15:21,10.1.1.2,28,-0.020,-0.020,-0.020,0.000,0.000,0.000
1644347721946483968,2022-02-08-19:15:21,10.1.1.2,27,-0.010,-0.010,-0.010,0.000,0.000,0.000
1644347722048377088,2022-02-08-19:15:22,10.1.1.2,25,0.000,0.000,0.000,0.000,0.000,0.000
1644347722149570048,2022-02-08-19:15:22,10.1.1.2,24,0.010,0.010,0.010,0.000,0.000,0.000
1644347722247147008,2022-02-08-19:15:22,10.1.1.2,23,0.020,0.020,0.020,0.000,0.000,0.000
1644347722347898112,2022-02-08-19:15:22,10.1.1.2,22,0.030,0.030,0.030,0.000,0.000,0.000
1644347722447365888,2022-02-08-19:15:22,10.1.1.2,22,0.040,0.040,0.040,0.000,0.000,0.000
1644347722546703104,2022-02-08-19:15:22,10.1.1.2,21,0.050,0.050,0.050,0.000,0.000,0.000
1644347722648345088,2022-02-08-19:15:22,10.1.1.2,20,0.060,0.060,0.060,0.000,0.000,0.000
1644347722748060928,2022-02-08-19:15:22,10.1.1.2,19,0.070,0.070,0.070,0.000,0.000,0.000
1644347722847380992,2022-02-08-19:15:22,10.1.1.2,19,0.079,0.079,0.079,0.000,0.000,0.000
1644347722967835904,2022-02-08-19:15:22,10.1.1.2,39,0.090,0.090,0.090,0.000,0.000,0.000
1644347723066956032,2022-02-08-19:15:23,10.1.1.2,38,0.100,0.100,0.100,0.000,0.000,0.000
1644347723170309120,2022-02-08-19:15:23,10.1.1.2,38,0.090,0.090,0.090,0.000,0.000,0.000
1644347723274842880,2022-02-08-19:15:23,10.1.1.2,37,0.080,0.080,0.080,0.000,0.000,0.000
1644347723367739904,2022-02-08-19:15:23,10.1.1.2,35,0.070,0.070,0.070,0.000,0.000,0.000
1644347723468556800,2022-02-08-19:15:23,10.1.1.2,34,0.060,0.060,0.060,0.000,0.000,0.000
1644347723578398976,2022-02-08-19:15:23,10.1.1.2,33,0.050,0.050,0.050,0.000,0.000,0.000
1644347723671563008,2022-02-08-19:15:23,10.1.1.2,31,0.040,0.040,0.040,0.000,0.000,0.000
1644347723766444800,2022-02-08-19:15:23,10.1.1.2,30,0.030,0.030,0.030,0.000,0.000,0.000
1644347723866096128,2022-02-08-19:15:23,10.1.1.2,30,0.020,0.020,0.020,0.000,0.000,0.000
1644347723967917056,2022-02-08-19:15:23,10.1.1.2,29,0.010,0.010,0.010,0.000,0.000,0.000
1644347724067721984,2022-02-08-19:15:24,10.1.1.2,29,0.000,0.000,0.000,0.000,0.000,0.000
1644347724166774016,2022-02-08-19:15:24,10.1.1.2,29,-0.010,-0.010,-0.010,0.000,0.000,0.000
1644347724267514112,2022-02-08-19:15:24,10.1.1.2,28,-0.020,-0.020,-0.020,0.000,0.000,0.000
1644347724367098112,2022-02-08-19:15:24,10.1.1.2,28,-0.030,-0.030,-0.030,0.000,0.000,0.000
1644347724466443008,2022-02-08-19:15:24,10.1.1.2,27,-0.040,-0.040,-0.040,0.000,0.000,0.000
1644347724569104896,2022-02-08-19:15:24,10.1.1.2,24,-0.050,-0.050,-0.050,0.000,0.000,0.000
1644347724667344128,2022-02-08-19:15:24,10.1.1.2,23,-0.060,-0.060,-0.060,0.000,0.000,0.000
1644347724766767104,2022-02-08-19:15:24,10.1.1.2,23,-0.070,-0.070,-0.070,0.000,0.000,0.000
1644347724866710016,2022-02-08-19:15:24,10.1.1.2,21,-0.080,-0.080,-0.080,0.000,0.000,0.000
1644347724966650112,2022-02-08-19:15:24,10.1.1.2,20,-0.090,-0.090,-0.090,0.000,0.000,0.000
1644347725066895104,2022-02-08-19:15:25,10.1.1.2,19,-0.100,-0.100,-0.100,0.000,0.000,0.000
1644347725167347968,2022-02-08-19:15:25,10.1.1.2,19,-0.090,-0.090,-0.090,0.000,0.000,0.000
1644347725287908096,2022-02-08-19:15:25,10.1.1.2,38,-0.080,-0.080,-0.080,0.000,0.000,0.000
1644347725386465024,2022-02-08-19:15:25,10.1.1.2,37,-0.070,-0.070,-0.070,0.000,0.000,0.000
1644347725486490112,2022-02-08-19:15:25,10.1.1.2,36,-0.060,-0.060,-0.060,0.000,0.000,0.000
1644347725588342016,2022-02-08-19:15:25,10.1.1.2,36,-0.050,-0.050,-0.050,0.000,0.000,0.000
1644347725689649152,2022-02-08-19:15:25,10.1.1.2,34,-0.040,-0.040,-0.040,0.000,0.000,0.000
1644347725789830912,2022-02-08-19:15:25,10.1.1.2,33,-0.030,-0.030,-0.030,0.000,0.000,0.000
1644347725887875072,2022-02-08-19:15:25,10.1.1.2,32,-0.020,-0.020,-0.020,0.000,0.000,0.000
1644347725987282944,2022-02-08-19:15:25,10.1.1.2,32,-0.010,-0.010,-0.010,0.000,0.000,0.000
1644347726087706112,2022-02-08-19:15:26,10.1.1.2,31,0.000,0.000,0.000,0.000,0.000,0.000
1644347726188328960,2022-02-08-19:15:26,10.1.1.2,32,0.010,0.010,0.010,0.000,0.000,0.000
1644347726288424960,2022-02-08-19:15:26,10.1.1.2,30,0.020,0.020,0.020,0.000,0.000,0.000
1644347726388822016,2022-02-08-19:15:26,10.1.1.2,29,0.030,0.030,0.030,0.000,0.000,0.000
1644347726489777152,2022-02-08-19:15:26,10.1.1.2,28,0.040,0.040,0.040,0.000,0.000,0.000
1644347726586844928,2022-02-08-19:15:26,10.1.1.2,27,0.050,0.050,0.050,0.000,0.000,0.000
1644347726689856000,2022-02-08-19:15:26,10.1.1.2,26,0.060,0.060,0.060,0.000,0.000,0.000
1644347726787758080,2022-02-08-19:15:26,10.1.1.2,23,0.070,0.070,0.070,0.000,0.000,0.000
1644347726888444928,2022-02-08-19:15:26,10.1.1.2,23,0.080,0.080,0.080,0.000,0.000,0.000
1644347726987795968,2022-02-08-19:15:26,10.1.1.2,22,0.090,0.090,0.090,0.000,0.000,0.000
1644347727089210112,2022-02-08-19:15:27,10.1.1.2,22,0.100,0.100,0.100,0.000,0.000,0.000
1644347727188487936,2022-02-08-19:15:27,10.1.1.2,21,0.090,0.090,0.090,0.000,0.000,0.000
1644347727286486016,2022-02-08-19:15:27,10.1.1.2,21,0.080,0.080,0.080,0.000,0.000,0.000
1644347727387380992,2022-02-08-19:15:27,10.1.1.2,20,0.070,0.070,0.070,0.000,0.000,0.000
1644347727489057024,2022-02-08-19:15:27,10.1.1.2,19,0.060,0.060,0.060,0.000,0.000,0.000
1644347727589404160,2022-02-08-19:15:27,10.1.1.2,19,0.051,0.051,0.051,0.000,0.000,0.000
1644347727707874048,2022-02-08-19:15:27,10.1.1.2,38,0.040,0.040,0.040,0.000,0.000,0.000
1644347727807810048,2022-02-08-19:15:27,10.1.1.2,37,0.030,0.030,0.030,0.000,0.000,0.000
1644347727908134912,2022-02-08-19:15:27,10.1.1.2,36,0.020,0.020,0.020,0.000,0.000,0.000
1644347728007308032,2022-02-08-19:15:28,10.1.1.2,35,0.010,0.010,0.010,0.000,0.000,0.000
1644347728108429824,2022-02-08-19:15:28,10.1.1.2,34,0.000,0.000,0.000,0.000,0.000,0.000
1644347728208275200,2022-02-08-19:15:28,10.1.1.2,33,-0.010,-0.010,-0.010,0.000,0.000,0.000
1644347728307707136,2022-02-08-19:15:28,10.1.1.2,33,-0.020,-0.020,-0.020,0.000,0.000,0.000
1644347728408886784,2022-02-08-19:15:28,10.1.1.2,32,-0.030,-0.030,-0.030,0.000,0.000,0.000
1644347728530725120,2022-02-08-19:15:28,10.1.1.2,30,-0.040,-0.040,-0.040,0.000,0.000,0.000
1644347728607994112,2022-02-08-19:15:28,10.1.1.2,28,-0.050,-0.050,-0.050,0.000,0.000,0.000
1644347728708164096,2022-02-08-19:15:28,10.1.1.2,28,-0.060,-0.060,-0.060,0.000,0.000,0.000
1644347728808918016,2022-02-08-19:15:28,10.1.1.2,28,-0.070,-0.070,-0.070,0.000,0.000,0.000
1644347728909558016,2022-02-08-19:15:28,10.1.1.2,27,-0.080,-0.080,-0.080,0.000,0.000,0.000
1644347729008084992,2022-02-08-19:15:29,10.1.1.2,27,-0.090,-0.090,-0.090,0.000,0.000,0.000
1644347729108262912,2022-02-08-19:15:29,10.1.1.2,25,-0.100,-0.100,-0.100,0.000,0.000,0.000
1644347729208542208,2022-02-08-19:15:29,10.1.1.2,24,-0.090,-0.090,-0.090,0.000,0.000,0.000
1644347729308188928,2022-02-08-19:15:29,10.1.1.2,21,-0.080,-0.080,-0.080,0.000,0.000,0.000
1644347729428616960,2022-02-08-19:15:29,10.1.1.2,38,-0.070,-0.070,-0.070,0.000,0.000,0.000
1644347729529702912,2022-02-08-19:15:29,10.1.1.2,37,-0.060,-0.060,-0.060,0.000,0.000,0.000
1644347729628921088,2022-02-08-19:15:29,10.1.1.2,36,-0.050,-0.050,-0.050,0.000,0.000,0.000
1644347729729159168,2022-02-08-19:15:29,10.1.1.2,35,-0.040,-0.040,-0.040,0.000,0.000,0.000
1644347729827822848,2022-02-08-19:15:29,10.1.1.2,34,-0.030,-0.030,-0.030,0.000,0.000,0.000
1644347729927494912,2022-02-08-19:15:29,10.1.1.2,32,-0.020,-0.020,-0.020,0.000,0.000,0.000
1644347730027795200,2022-02-08-19:15:30,10.1.1.2,31,-0.010,-0.010,-0.010,0.000,0.000,0.000
1644347730127824896,2022-02-08-19:15:30,10.1.1.2,31,0.000,0.000,0.000,0.000,0.000,0.000
1644347730227080192,2022-02-08-19:15:30,10.1.1.2,30,0.010,0.010,0.010,0.000,0.000,0.000
1644347730328620800,2022-02-08-19:15:30,10.1.1.2,29,0.020,0.020,0.020,0.000,0.000,0.000
1644347730427740928,2022-02-08-19:15:30,10.1.1.2,29,0.030,0.030,0.030,0.000,0.000,0.000
1644347730528701184,2022-02-08-19:15:30,10.1.1.2,28,0.040,0.040,0.040,0.000,0.000,0.000
1644347730629005824,2022-02-08-19:15:30,10.1.1.2,27,0.050,0.050,0.050,0.000,0.000,0.000
1644347730727549952,2022-02-08-19:15:30,10.1.1.2,25,0.060,0.060,0.060,0.000,0.000,0.000
1644347730829152000,2022-02-08-19:15:30,10.1.1.2,23,0.070,0.070,0.070,0.000,0.000,0.000
1644347730928503040,2022-02-08-19:15:30,10.1.1.2,21,0.080,0.080,0.080,0.000,0.000,0.000
1644347731028284928,2022-02-08-19:15:31,10.1.1.2,21,0.090,0.090,0.090,0.000,0.000,0.000
1644347731129152000,2022-02-08-19:15:31,10.1.1.2,19,0.100,0.100,0.100,0.000,0.000,0.000
1644347731227762944,2022-02-08-19:15:31,10.1.1.2,19,0.091,0.091,0.091,0.000,0.000,0.000
1644347731348622080,2022-02-08-19:15:31,10.1.1.2,38,0.080,0.080,0.080,0.000,0.000,0.000
1644347731447751936,2022-02-08-19:15:31,10.1.1.2,37,0.070,0.070,0.070,0.000,0.000,0.000
1644347731547228928,2022-02-08-19:15:31,10.1.1.2,37,0.060,0.060,0.060,0.000,0.000,0.000
1644347731647293952,2022-02-08-19:15:31,10.1.1.2,36,0.050,0.050,0.050,0.000,0.000,0.000
1644347731746697984,2022-02-08-19:15:31,10.1.1.2,35,0.040,0.040,0.040,0.000,0.000,0.000
1644347731848876032,2022-02-08-19:15:31,10.1.1.2,33,0.030,0.030,0.030,0.000,0.000,0.000
1644347731949511936,2022-02-08-19:15:31,10.1.1.2,32,0.020,0.020,0.020,0.000,0.000,0.000
1644347732047204864,2022-02-08-19:15:32,10.1.1.2,31,0.010,0.010,0.010,0.000,0.000,0.000
1644347732146444032,2022-02-08-19:15:32,10.1.1.2,31,-0.000,-0.000,-0.000,0.000,0.000,0.000
1644347732248187904,2022-02-08-19:15:32,10.1.1.2,30,-0.010,-0.010,-0.010,0.000,0.000,0.000
1644347732348186112,2022-02-08-19:15:32,10.1.1.2,30,-0.020,-0.020,-0.020,0.000,0.000,0.000
1644347732454329856,2022-02-08-19:15:32,10.1.1.2,28,-0.030,-0.030,-0.030,0.000,0.000,0.000
1644347732547622912,2022-02-08-19:15:32,10.1.1.2,27,-0.040,-0.040,-0.040,0.000,0.000,0.000
1644347732646697984,2022-02-08-19:15:32,10.1.1.2,27,-0.050,-0.050,-0.050,0.000,0.000,0.000
1644347732747788800,2022-02-08-19:15:32,10.1.1.2,26,-0.060,-0.060,-0.060,0.000,0.000,0.000
1644347732847758080,2022-02-08-19:15:32,10.1.1.2,26,-0.070,-0.070,-0.070,0.000,0.000,0.000
1644347732946258176,2022-02-08-19:15:32,10.1.1.2,25,-0.080,-0.080,-0.080,0.000,0.000,0.000
1644347733047880960,2022-02-08-19:15:33,10.1.1.2,25,-0.090,-0.090,-0.090,0.000,0.000,0.000
1644347733147536896,2022-02-08-19:15:33,10.1.1.2,23,-0.100,-0.100,-0.100,0.000,0.000,0.000
1644347733249635840,2022-02-08-19:15:33,10.1.1.2,24,-0.090,-0.090,-0.090,0.000,0.000,0.000
1644347733348100864,2022-02-08-19:15:33,10.1.1.2,22,-0.080,-0.080,-0.080,0.000,0.000,0.000
1644347733446438912,2022-02-08-19:15:33,10.1.1.2,21,-0.070,-0.070,-0.070,0.000,0.000,0.000
1644347733548348928,2022-02-08-19:15:33,10.1.1.2,20,-0.060,-0.060,-0.060,0.000,0.000,0.000
1644347733648043008,2022-02-08-19:15:33,10.1.1.2,19,-0.050,-0.050,-0.050,0.000,0.000,0.000
1644347733752325888,2022-02-08-19:15:33,10.1.1.2,19,-0.041,-0.041,-0.041,0.000,0.000,0.000
1644347733866656000,2022-02-08-19:15:33,10.1.1.2,36,-0.030,-0.030,-0.030,0.000,0.000,0.000
1644347733967081984,2022-02-08-19:15:33,10.1.1.2,34,-0.020,-0.020,-0.020,0.000,0.000,0.000
1644347734067717120,2022-02-08-19:15:34,10.1.1.2,33,-0.010,-0.010,-0.010,0.000,0.000,0.000
1644347734166696960,2022-02-08-19:15:34,10.1.1.2,33,0.000,0.000,0.000,0.000,0.000,0.000
1644347734270129920,2022-02-08-19:15:34,10.1.1.2,32,0.010,0.010,0.010,0.000,0.000,0.000
1644347734370161920,2022-02-08-19:15:34,10.1.1.2,30,0.020,0.020,0.020,0.000,0.000,0.000
1644347734468455936,2022-02-08-19:15:34,10.1.1.2,28,0.030,0.030,0.030,0.000,0.000,0.000
1644347734568332800,2022-02-08-19:15:34,10.1.1.2,27,0.040,0.040,0.040,0.000,0.000,0.000
1644347734668675072,2022-02-08-19:15:34,10.1.1.2,26,0.050,0.050,0.050,0.000,0.000,0.000
1644347734767548928,2022-02-08-19:15:34,10.1.1.2,25,0.060,0.060,0.060,0.000,0.000,0.000
1644347734867516928,2022-02-08-19:15:34,10.1.1.2,25,0.070,0.070,0.070,0.000,0.000,0.000
1644347734968538112,2022-02-08-19:15:34,10.1.1.2,24,0.080,0.080,0.080,0.000,0.000,0.000
1644347735067686912,2022-02-08-19:15:35,10.1.1.2,23,0.090,0.090,0.090,0.000,0.000,0.000
1644347735167536128,2022-02-08-19:15:35,10.1.1.2,22,0.100,0.100,0.100,0.000,0.000,0.000
1644347735268094976,2022-02-08-19:15:35,10.1.1.2,22,0.090,0.090,0.090,0.000,0.000,0.000
1644347735368478976,2022-02-08-19:15:35,10.1.1.2,21,0.080,0.080,0.080,0.000,0.000,0.000
1644347735468017152,2022-02-08-19:15:35,10.1.1.2,20,0.070,0.070,0.070,0.000,0.000,0.000
1644347735566365952,2022-02-08-19:15:35,10.1.1.2,19,0.060,0.060,0.060,0.000,0.000,0.000
1644347735688496128,2022-02-08-19:15:35,10.1.1.2,38,0.050,0.050,0.050,0.000,0.000,0.000
1644347735786895104,2022-02-08-19:15:35,10.1.1.2,37,0.040,0.040,0.040,0.000,0.000,0.000
1644347735888290816,2022-02-08-19:15:35,10.1.1.2,37,0.030,0.030,0.030,0.000,0.000,0.000
1644347735987427072,2022-02-08-19:15:35,10.1.1.2,36,0.020,0.020,0.020,0.000,0.000,0.000
1644347736088762112,2022-02-08-19:15:36,10.1.1.2,35,0.010,0.010,0.010,0.000,0.000,0.000
1644347736186371072,2022-02-08-19:15:36,10.1.1.2,33,0.000,0.000,0.000,0.000,0.000,0.000
1644347736286592000,2022-02-08-19:15:36,10.1.1.2,32,-0.010,-0.010,-0.010,0.000,0.000,0.000
1644347736387022080,2022-02-08-19:15:36,10.1.1.2,32,-0.020,-0.020,-0.020,0.000,0.000,0.000
1644347736489465856,2022-02-08-19:15:36,10.1.1.2,31,-0.030,-0.030,-0.030,0.000,0.000,0.000
1644347736588819968,2022-02-08-19:15:36,10.1.1.2,30,-0.040,-0.040,-0.040,0.000,0.000,0.000
1644347736687931136,2022-02-08-19:15:36,10.1.1.2,29,-0.050,-0.050,-0.050,0.000,0.000,0.000
1644347736787933952,2022-02-08-19:15:36,10.1.1.2,28,-0.060,-0.060,-0.060,0.000,0.000,0.000
1644347736888902912,2022-02-08-19:15:36,10.1.1.2,28,-0.070,-0.070,-0.070,0.000,0.000,0.000
1644347736987865856,2022-02-08-19:15:36,10.1.1.2,27,-0.080,-0.080,-0.080,0.000,0.000,0.000
1644347737088943872,2022-02-08-19:15:37,10.1.1.2,26,-0.090,-0.090,-0.090,0.000,0.000,0.000
1644347737187921920,2022-02-08-19:15:37,10.1.1.2,25,-0.100,-0.100,-0.100,0.000,0.000,0.000
1644347737311763968,2022-02-08-19:15:37,10.1.1.2,36,-0.090,-0.090,-0.090,0.000,0.000,0.000
1644347737408848896,2022-02-08-19:15:37,10.1.1.2,33,-0.080,-0.080,-0.080,0.000,0.000,0.000
1644347737507785984,2022-02-08-19:15:37,10.1.1.2,32,-0.070,-0.070,-0.070,0.000,0.000,0.000
1644347737607177984,2022-02-08-19:15:37,10.1.1.2,31,-0.060,-0.060,-0.060,0.000,0.000,0.000
1644347737708679936,2022-02-08-19:15:37,10.1.1.2,30,-0.050,-0.050,-0.050,0.000,0.000,0.000
1644347737815289088,2022-02-08-19:15:37,10.1.1.2,32,-0.040,-0.040,-0.040,0.000,0.000,0.000
1644347737906824960,2022-02-08-19:15:37,10.1.1.2,28,-0.030,-0.030,-0.030,0.000,0.000,0.000
1644347738008996864,2022-02-08-19:15:38,10.1.1.2,26,-0.020,-0.020,-0.020,0.000,0.000,0.000
1644347738109641984,2022-02-08-19:15:38,10.1.1.2,25,-0.010,-0.010,-0.010,0.000,0.000,0.000
1644347738210667008,2022-02-08-19:15:38,10.1.1.2,24,0.000,0.000,0.000,0.000,0.000,0.000
1644347738307917056,2022-02-08-19:15:38,10.1.1.2,22,0.010,0.010,0.010,0.000,0.000,0.000
1644347738428908032,2022-02-08-19:15:38,10.1.1.2,37,0.020,0.020,0.020,0.000,0.000,0.000
1644347738527318016,2022-02-08-19:15:38,10.1.1.2,36,0.030,0.030,0.030,0.000,0.000,0.000
1644347738627523072,2022-02-08-19:15:38,10.1.1.2,34,0.040,0.040,0.040,0.000,0.000,0.000
1644347738727740928,2022-02-08-19:15:38,10.1.1.2,32,0.050,0.050,0.050,0.000,0.000,0.000
1644347738829433856,2022-02-08-19:15:38,10.1.1.2,32,0.060,0.060,0.060,0.000,0.000,0.000
1644347738928316160,2022-02-08-19:15:38,10.1.1.2,29,0.070,0.070,0.070,0.000,0.000,0.000
1644347739026652160,2022-02-08-19:15:39,10.1.1.2,27,0.080,0.080,0.080,0.000,0.000,0.000
1644347739128081152,2022-02-08-19:15:39,10.1.1.2,26,0.090,0.090,0.090,0.000,0.000,0.000
1644347739228836096,2022-02-08-19:15:39,10.1.1.2,25,0.100,0.100,0.100,0.000,0.000,0.000
1644347739327703040,2022-02-08-19:15:39,10.1.1.2,24,0.090,0.090,0.090,0.000,0.000,0.000
1644347739428719872,2022-02-08-19:15:39,10.1.1.2,23,0.080,0.080,0.080,0.000,0.000,0.000
1644347739527055872,2022-02-08-19:15:39,10.1.1.2,22,0.070,0.070,0.070,0.000,0.000,0.000
1644347739628128000,2022-02-08-19:15:39,10.1.1.2,21,0.060,0.060,0.060,0.000,0.000,0.000
1644347739727934976,2022-02-08-19:15:39,10.1.1.2,19,0.051,0.051,0.051,0.000,0.000,0.000
1644347739850215936,2022-02-08-19:15:39,10.1.1.2,37,0.040,0.040,0.040,0.000,0.000,0.000
1644347739948587776,2022-02-08-19:15:39,10.1.1.2,37,0.030,0.030,0.030,0.000,0.000,0.000
1644347740050499840,2022-02-08-19:15:40,10.1.1.2,27,0.020,0.020,0.020,0.000,0.000,0.000
1644347740147489024,2022-02-08-19:15:40,10.1.1.2,25,0.010,0.010,0.010,0.000,0.000,0.000
1644347740248457984,2022-02-08-19:15:40,10.1.1.2,24,0.000,0.000,0.000,0.000,0.000,0.000
1644347740349409024,2022-02-08-19:15:40,10.1.1.2,23,-0.010,-0.010,-0.010,0.000,0.000,0.000
1644347740447528960,2022-02-08-19:15:40,10.1.1.2,22,-0.020,-0.020,-0.020,0.000,0.000,0.000
1644347740548445952,2022-02-08-19:15:40,10.1.1.2,21,-0.030,-0.030,-0.030,0.000,0.000,0.000
1644347740647284992,2022-02-08-19:15:40,10.1.1.2,20,-0.040,-0.040,-0.040,0.000,0.000,0.000
1644347740750402048,2022-02-08-19:15:40,10.1.1.2,20,-0.050,-0.050,-0.050,0.000,0.000,0.000
1644347740847399936,2022-02-08-19:15:40,10.1.1.2,19,-0.059,-0.059,-0.059,0.000,0.000,0.000
1644347740966679040,2022-02-08-19:15:40,10.1.1.2,38,-0.070,-0.070,-0.070,0.000,0.000,0.000
1644347741068092160,2022-02-08-19:15:41,10.1.1.2,38,-0.080,-0.080,-0.080,0.000,0.000,0.000
1644347741168095232,2022-02-08-19:15:41,10.1.1.2,36,-0.090,-0.090,-0.090,0.000,0.000,0.000
1644347741267645952,2022-02-08-19:15:41,10.1.1.2,36,-0.100,-0.100,-0.100,0.000,0.000,0.000
1644347741366460928,2022-02-08-19:15:41,10.1.1.2,34,-0.090,-0.090,-0.090,0.000,0.000,0.000
1644347741467294976,2022-02-08-19:15:41,10.1.1.2,31,-0.080,-0.080,-0.080,0.000,0.000,0.000
1644347741569822976,2022-02-08-19:15:41,10.1.1.2,31,-0.070,-0.070,-0.070,0.000,0.000,0.000
1644347741668310016,2022-02-08-19:15:41,10.1.1.2,31,-0.060,-0.060,-0.060,0.000,0.000,0.000
1644347741767333120,2022-02-08-19:15:41,10.1.1.2,31,-0.050,-0.050,-0.050,0.000,0.000,0.000
1644347741867575808,2022-02-08-19:15:41,10.1.1.2,29,-0.040,-0.040,-0.040,0.000,0.000,0.000
1644347741966691072,2022-02-08-19:15:41,10.1.1.2,29,-0.030,-0.030,-0.030,0.000,0.000,0.000
1644347742067003136,2022-02-08-19:15:42,10.1.1.2,28,-0.020,-0.020,-0.020,0.000,0.000,0.000
1644347742166624000,2022-02-08-19:15:42,10.1.1.2,27,-0.010,-0.010,-0.010,0.000,0.000,0.000
1644347742267695872,2022-02-08-19:15:42,10.1.1.2,27,0.000,0.000,0.000,0.000,0.000,0.000
1644347742368444928,2022-02-08-19:15:42,10.1.1.2,26,0.010,0.010,0.010,0.000,0.000,0.000
1644347742467917824,2022-02-08-19:15:42,10.1.1.2,26,0.020,0.020,0.020,0.000,0.000,0.000
1644347742568852992,2022-02-08-19:15:42,10.1.1.2,24,0.030,0.030,0.030,0.000,0.000,0.000
1644347742668994816,2022-02-08-19:15:42,10.1.1.2,22,0.040,0.040,0.040,0.000,0.000,0.000
1644347742767980032,2022-02-08-19:15:42,10.1.1.2,21,0.050,0.050,0.050,0.000,0.000,0.000
1644347742866387968,2022-02-08-19:15:42,10.1.1.2,21,0.060,0.060,0.060,0.000,0.000,0.000
1644347742966406144,2022-02-08-19:15:42,10.1.1.2,20,0.070,0.070,0.070,0.000,0.000,0.000
1644347743078408960,2022-02-08-19:15:43,10.1.1.2,19,0.080,0.080,0.080,0.000,0.000,0.000
1644347743189216000,2022-02-08-19:15:43,10.1.1.2,38,0.090,0.090,0.090,0.000,0.000,0.000
1644347743287684864,2022-02-08-19:15:43,10.1.1.2,37,0.100,0.100,0.100,0.000,0.000,0.000
1644347743386636032,2022-02-08-19:15:43,10.1.1.2,37,0.090,0.090,0.090,0.000,0.000,0.000
1644347743486910976,2022-02-08-19:15:43,10.1.1.2,36,0.080,0.080,0.080,0.000,0.000,0.000
1644347743587756032,2022-02-08-19:15:43,10.1.1.2,36,0.070,0.070,0.070,0.000,0.000,0.000
1644347743686867968,2022-02-08-19:15:43,10.1.1.2,35,0.060,0.060,0.060,0.000,0.000,0.000
1644347743787420928,2022-02-08-19:15:43,10.1.1.2,34,0.050,0.050,0.050,0.000,0.000,0.000
1644347743886443008,2022-02-08-19:15:43,10.1.1.2,33,0.040,0.040,0.040,0.000,0.000,0.000
1644347743989355008,2022-02-08-19:15:43,10.1.1.2,33,0.030,0.030,0.030,0.000,0.000,0.000
1644347744088388864,2022-02-08-19:15:44,10.1.1.2,31,0.020,0.020,0.020,0.000,0.000,0.000
1644347744186748928,2022-02-08-19:15:44,10.1.1.2,31,0.010,0.010,0.010,0.000,0.000,0.000
1644347744287090176,2022-02-08-19:15:44,10.1.1.2,30,0.000,0.000,0.000,0.000,0.000,0.000
1644347744388590080,2022-02-08-19:15:44,10.1.1.2,29,-0.010,-0.010,-0.010,0.000,0.000,0.000
1644347744489479168,2022-02-08-19:15:44,10.1.1.2,26,-0.020,-0.020,-0.020,0.000,0.000,0.000
1644347744588873984,2022-02-08-19:15:44,10.1.1.2,26,-0.030,-0.030,-0.030,0.000,0.000,0.000
1644347744688730880,2022-02-08-19:15:44,10.1.1.2,24,-0.040,-0.040,-0.040,0.000,0.000,0.000
1644347744886606080,2022-02-08-19:15:44,10.1.1.2,22,-0.060,-0.060,-0.060,0.000,0.000,0.000
1644347744987181824,2022-02-08-19:15:44,10.1.1.2,22,-0.070,-0.070,-0.070,0.000,0.000,0.000
1644347745088912128,2022-02-08-19:15:45,10.1.1.2,21,-0.080,-0.080,-0.080,0.000,0.000,0.000
1644347745186440960,2022-02-08-19:15:45,10.1.1.2,21,-0.090,-0.090,-0.090,0.000,0.000,0.000
1644347745288620032,2022-02-08-19:15:45,10.1.1.2,19,-0.100,-0.100,-0.100,0.000,0.000,0.000
1644347745386778112,2022-02-08-19:15:45,10.1.1.2,19,-0.091,-0.091,-0.091,0.000,0.000,0.000
1644347745508321024,2022-02-08-19:15:45,10.1.1.2,37,-0.080,-0.080,-0.080,0.000,0.000,0.000
1644347745606874112,2022-02-08-19:15:45,10.1.1.2,37,-0.070,-0.070,-0.070,0.000,0.000,0.000
1644347745707572992,2022-02-08-19:15:45,10.1.1.2,36,-0.060,-0.060,-0.060,0.000,0.000,0.000
1644347745807533056,2022-02-08-19:15:45,10.1.1.2,36,-0.050,-0.050,-0.050,0.000,0.000,0.000
1644347745907203072,2022-02-08-19:15:45,10.1.1.2,35,-0.040,-0.040,-0.040,0.000,0.000,0.000
1644347746007034112,2022-02-08-19:15:46,10.1.1.2,35,-0.030,-0.030,-0.030,0.000,0.000,0.000
1644347746107394816,2022-02-08-19:15:46,10.1.1.2,34,-0.020,-0.020,-0.020,0.000,0.000,0.000
1644347746207289856,2022-02-08-19:15:46,10.1.1.2,33,-0.010,-0.010,-0.010,0.000,0.000,0.000
1644347746306923008,2022-02-08-19:15:46,10.1.1.2,33,0.000,0.000,0.000,0.000,0.000,0.000
1644347746407543808,2022-02-08-19:15:46,10.1.1.2,32,0.010,0.010,0.010,0.000,0.000,0.000
1644347746506880000,2022-02-08-19:15:46,10.1.1.2,32,0.020,0.020,0.020,0.000,0.000,0.000
1644347746607587072,2022-02-08-19:15:46,10.1.1.2,31,0.030,0.030,0.030,0.000,0.000,0.000
1644347746707042048,2022-02-08-19:15:46,10.1.1.2,31,0.040,0.040,0.040,0.000,0.000,0.000
1644347746806376960,2022-02-08-19:15:46,10.1.1.2,30,0.050,0.050,0.050,0.000,0.000,0.000
1644347746906419968,2022-02-08-19:15:46,10.1.1.2,29,0.060,0.060,0.060,0.000,0.000,0.000
1644347747006678016,2022-02-08-19:15:47,10.1.1.2,29,0.070,0.070,0.070,0.000,0.000,0.000
1644347747106429184,2022-02-08-19:15:47,10.1.1.2,27,0.080,0.080,0.080,0.000,0.000,0.000
1644347747206907136,2022-02-08-19:15:47,10.1.1.2,27,0.090,0.090,0.090,0.000,0.000,0.000
1644347747306923008,2022-02-08-19:15:47,10.1.1.2,27,0.100,0.100,0.100,0.000,0.000,0.000
1644347747407730944,2022-02-08-19:15:47,10.1.1.2,26,0.090,0.090,0.090,0.000,0.000,0.000
1644347747508196096,2022-02-08-19:15:47,10.1.1.2,25,0.080,0.080,0.080,0.000,0.000,0.000
1644347747606201856,2022-02-08-19:15:47,10.1.1.2,25,0.070,0.070,0.070,0.000,0.000,0.000
1644347747707348992,2022-02-08-19:15:47,10.1.1.2,25,0.060,0.060,0.060,0.000,0.000,0.000
1644347747806982912,2022-02-08-19:15:47,10.1.1.2,24,0.050,0.050,0.050,0.000,0.000,0.000
1644347747906006016,2022-02-08-19:15:47,10.1.1.2,24,0.040,0.040,0.040,0.000,0.000,0.000
1644347748006580224,2022-02-08-19:15:48,10.1.1.2,23,0.030,0.030,0.030,0.000,0.000,0.000
1644347748108000000,2022-02-08-19:15:48,10.1.1.2,23,0.020,0.020,0.020,0.000,0.000,0.000
1644347748207223808,2022-02-08-19:15:48,10.1.1.2,22,0.010,0.010,0.010,0.000,0.000,0.000
1644347748308496896,2022-02-08-19:15:48,10.1.1.2,21,0.000,0.000,0.000,0.000,0.000,0.000
1644347748407015936,2022-02-08-19:15:48,10.1.1.2,20,-0.010,-0.010,-0.010,0.000,0.000,0.000
1644347748507915008,2022-02-08-19:15:48,10.1.1.2,19,-0.020,-0.020,-0.020,0.000,0.000,0.000
