FedericoMungari/DigitalTwin_service/01_WiredScenario/Output/Output_script/script_rosapi_2_output_robots14_freq0_12.txt
timestamp,date,node,latency,joint_1,joint_2,joint_3,joint_4,joint_5,joint_6
1643146540787698944,2022-01-25-21:35:40,10.1.1.13,37,-0.010,-0.010,-0.010,0.000,0.000,0.000
1643146541005966848,2022-01-25-21:35:41,10.1.1.13,53,-0.020,-0.020,-0.020,0.000,0.000,0.000
1643146541198152960,2022-01-25-21:35:41,10.1.1.13,44,-0.031,-0.031,-0.031,0.000,0.000,0.000
1643146541414201856,2022-01-25-21:35:41,10.1.1.13,37,-0.041,-0.041,-0.041,0.000,0.000,0.000
1643146541598587136,2022-01-25-21:35:41,10.1.1.13,27,-0.050,-0.050,-0.050,0.000,0.000,0.000
1643146541797216000,2022-01-25-21:35:41,10.1.1.13,24,-0.060,-0.060,-0.060,0.000,0.000,0.000
1643146541997169920,2022-01-25-21:35:41,10.1.1.13,23,-0.070,-0.070,-0.070,0.000,0.000,0.000
1643146542228956928,2022-01-25-21:35:42,10.1.1.13,42,-0.081,-0.081,-0.081,0.000,0.000,0.000
1643146542452550912,2022-01-25-21:35:42,10.1.1.13,75,-0.090,-0.090,-0.090,0.000,0.000,0.000
1643146542637423872,2022-01-25-21:35:42,10.1.1.13,31,-0.100,-0.100,-0.100,0.000,0.000,0.000
1643146542872659968,2022-01-25-21:35:42,10.1.1.13,63,-0.110,-0.110,-0.110,0.000,0.000,0.000
1643146543038369792,2022-01-25-21:35:43,10.1.1.13,10,-0.120,-0.120,-0.120,0.000,0.000,0.000
1643146543258006016,2022-01-25-21:35:43,10.1.1.13,27,-0.130,-0.130,-0.130,0.000,0.000,0.000
1643146543458027008,2022-01-25-21:35:43,10.1.1.13,25,-0.140,-0.140,-0.140,0.000,0.000,0.000
1643146543678566912,2022-01-25-21:35:43,10.1.1.13,43,-0.151,-0.151,-0.151,0.000,0.000,0.000
1643146543889591040,2022-01-25-21:35:43,10.1.1.13,45,-0.161,-0.161,-0.161,0.000,0.000,0.000
1643146544100636928,2022-01-25-21:35:44,10.1.1.13,56,-0.171,-0.171,-0.171,0.000,0.000,0.000
1643146544281310976,2022-01-25-21:35:44,10.1.1.13,29,-0.180,-0.180,-0.180,0.000,0.000,0.000
1643146544643974912,2022-01-25-21:35:44,10.1.1.13,139,-0.191,-0.191,-0.191,0.000,0.000,0.000
1643146544738949120,2022-01-25-21:35:44,10.1.1.13,31,-0.200,-0.200,-0.200,0.000,0.000,0.000
1643146544959252992,2022-01-25-21:35:44,10.1.1.13,50,-0.210,-0.210,-0.210,0.000,0.000,0.000
1643146545164648960,2022-01-25-21:35:45,10.1.1.13,44,-0.221,-0.221,-0.221,0.000,0.000,0.000
1643146545358191872,2022-01-25-21:35:45,10.1.1.13,43,-0.231,-0.231,-0.231,0.000,0.000,0.000
1643146545560025856,2022-01-25-21:35:45,10.1.1.13,43,-0.241,-0.241,-0.241,0.000,0.000,0.000
1643146545758018048,2022-01-25-21:35:45,10.1.1.13,40,-0.251,-0.251,-0.251,0.000,0.000,0.000
1643146545958113024,2022-01-25-21:35:45,10.1.1.13,38,-0.261,-0.261,-0.261,0.000,0.000,0.000
1643146546171724032,2022-01-25-21:35:46,10.1.1.13,51,-0.271,-0.271,-0.271,0.000,0.000,0.000
1643146546360539904,2022-01-25-21:35:46,10.1.1.13,35,-0.280,-0.280,-0.280,0.000,0.000,0.000
1643146546570467840,2022-01-25-21:35:46,10.1.1.13,42,-0.290,-0.290,-0.290,0.000,0.000,0.000
1643146546761362176,2022-01-25-21:35:46,10.1.1.13,33,-0.300,-0.300,-0.300,0.000,0.000,0.000
1643146547005257984,2022-01-25-21:35:46,10.1.1.13,61,-0.310,-0.310,-0.310,0.000,0.000,0.000
1643146547216652032,2022-01-25-21:35:47,10.1.1.13,44,-0.320,-0.320,-0.320,0.000,0.000,0.000
1643146547403572992,2022-01-25-21:35:47,10.1.1.13,62,-0.331,-0.331,-0.331,0.000,0.000,0.000
1643146547578749952,2022-01-25-21:35:47,10.1.1.13,42,-0.341,-0.341,-0.341,0.000,0.000,0.000
1643146547798728960,2022-01-25-21:35:47,10.1.1.13,51,-0.351,-0.351,-0.351,0.000,0.000,0.000
1643146547999017984,2022-01-25-21:35:47,10.1.1.13,42,-0.361,-0.361,-0.361,0.000,0.000,0.000
1643146548268955904,2022-01-25-21:35:48,10.1.1.13,108,-0.371,-0.371,-0.371,0.000,0.000,0.000
1643146548397825024,2022-01-25-21:35:48,10.1.1.13,35,-0.381,-0.381,-0.381,0.000,0.000,0.000
1643146548600548096,2022-01-25-21:35:48,10.1.1.13,34,-0.390,-0.390,-0.390,0.000,0.000,0.000
1643146548798347008,2022-01-25-21:35:48,10.1.1.13,29,-0.400,-0.400,-0.400,0.000,0.000,0.000
1643146548998398976,2022-01-25-21:35:48,10.1.1.13,27,-0.410,-0.410,-0.410,0.000,0.000,0.000
1643146549220640000,2022-01-25-21:35:49,10.1.1.13,43,-0.421,-0.421,-0.421,0.000,0.000,0.000
1643146549418390016,2022-01-25-21:35:49,10.1.1.13,42,-0.431,-0.431,-0.431,0.000,0.000,0.000
1643146549618566912,2022-01-25-21:35:49,10.1.1.13,42,-0.441,-0.441,-0.441,0.000,0.000,0.000
1643146549824840960,2022-01-25-21:35:49,10.1.1.13,34,-0.450,-0.450,-0.450,0.000,0.000,0.000
1643146550052256000,2022-01-25-21:35:50,10.1.1.13,59,-0.461,-0.461,-0.461,0.000,0.000,0.000
1643146550255662848,2022-01-25-21:35:50,10.1.1.13,46,-0.471,-0.471,-0.471,0.000,0.000,0.000
1643146550491682048,2022-01-25-21:35:50,10.1.1.13,84,-0.481,-0.481,-0.481,0.000,0.000,0.000
1643146550637166080,2022-01-25-21:35:50,10.1.1.13,23,-0.489,-0.489,-0.489,0.000,0.000,0.000
1643146550857458176,2022-01-25-21:35:50,10.1.1.13,40,-0.479,-0.479,-0.479,0.000,0.000,0.000
1643146551071672832,2022-01-25-21:35:51,10.1.1.13,44,-0.470,-0.470,-0.470,0.000,0.000,0.000
1643146551269196032,2022-01-25-21:35:51,10.1.1.13,38,-0.460,-0.460,-0.460,0.000,0.000,0.000
1643146551482729984,2022-01-25-21:35:51,10.1.1.13,49,-0.449,-0.449,-0.449,0.000,0.000,0.000
1643146551677769984,2022-01-25-21:35:51,10.1.1.13,40,-0.439,-0.439,-0.439,0.000,0.000,0.000
1643146551878594048,2022-01-25-21:35:51,10.1.1.13,39,-0.429,-0.429,-0.429,0.000,0.000,0.000
1643146552093694976,2022-01-25-21:35:52,10.1.1.13,47,-0.420,-0.420,-0.420,0.000,0.000,0.000
1643146552277539072,2022-01-25-21:35:52,10.1.1.13,28,-0.410,-0.410,-0.410,0.000,0.000,0.000
1643146552488295936,2022-01-25-21:35:52,10.1.1.13,37,-0.400,-0.400,-0.400,0.000,0.000,0.000
1643146552695420928,2022-01-25-21:35:52,10.1.1.13,43,-0.390,-0.390,-0.390,0.000,0.000,0.000
1643146552900638976,2022-01-25-21:35:52,10.1.1.13,44,-0.379,-0.379,-0.379,0.000,0.000,0.000
1643146553099442944,2022-01-25-21:35:53,10.1.1.13,36,-0.369,-0.369,-0.369,0.000,0.000,0.000
1643146553308537088,2022-01-25-21:35:53,10.1.1.13,35,-0.360,-0.360,-0.360,0.000,0.000,0.000
1643146553517283840,2022-01-25-21:35:53,10.1.1.13,42,-0.349,-0.349,-0.349,0.000,0.000,0.000
1643146553726504192,2022-01-25-21:35:53,10.1.1.13,50,-0.339,-0.339,-0.339,0.000,0.000,0.000
1643146553920645888,2022-01-25-21:35:53,10.1.1.13,40,-0.329,-0.329,-0.329,0.000,0.000,0.000
1643146554119859968,2022-01-25-21:35:54,10.1.1.13,38,-0.319,-0.319,-0.319,0.000,0.000,0.000
1643146554317197056,2022-01-25-21:35:54,10.1.1.13,34,-0.310,-0.310,-0.310,0.000,0.000,0.000
1643146554565638144,2022-01-25-21:35:54,10.1.1.13,81,-0.300,-0.300,-0.300,0.000,0.000,0.000
1643146554731703040,2022-01-25-21:35:54,10.1.1.13,39,-0.290,-0.290,-0.290,0.000,0.000,0.000
1643146554918992896,2022-01-25-21:35:54,10.1.1.13,26,-0.280,-0.280,-0.280,0.000,0.000,0.000
1643146555151431936,2022-01-25-21:35:55,10.1.1.13,52,-0.269,-0.269,-0.269,0.000,0.000,0.000
1643146555346215936,2022-01-25-21:35:55,10.1.1.13,50,-0.259,-0.259,-0.259,0.000,0.000,0.000
1643146555551225856,2022-01-25-21:35:55,10.1.1.13,41,-0.249,-0.249,-0.249,0.000,0.000,0.000
1643146555806326016,2022-01-25-21:35:55,10.1.1.13,108,-0.239,-0.239,-0.239,0.000,0.000,0.000
1643146555971017984,2022-01-25-21:35:55,10.1.1.13,66,-0.229,-0.229,-0.229,0.000,0.000,0.000
1643146556171264768,2022-01-25-21:35:56,10.1.1.13,70,-0.219,-0.219,-0.219,0.000,0.000,0.000
1643146556345988864,2022-01-25-21:35:56,10.1.1.13,41,-0.210,-0.210,-0.210,0.000,0.000,0.000
1643146556539715072,2022-01-25-21:35:56,10.1.1.13,29,-0.200,-0.200,-0.200,0.000,0.000,0.000
1643146556772366080,2022-01-25-21:35:56,10.1.1.13,45,-0.189,-0.189,-0.189,0.000,0.000,0.000
1643146556959286016,2022-01-25-21:35:56,10.1.1.13,42,-0.179,-0.179,-0.179,0.000,0.000,0.000
1643146557157573888,2022-01-25-21:35:57,10.1.1.13,41,-0.169,-0.169,-0.169,0.000,0.000,0.000
1643146557358364160,2022-01-25-21:35:57,10.1.1.13,41,-0.159,-0.159,-0.159,0.000,0.000,0.000
1643146557559138048,2022-01-25-21:35:57,10.1.1.13,40,-0.149,-0.149,-0.149,0.000,0.000,0.000
1643146557758104064,2022-01-25-21:35:57,10.1.1.13,38,-0.139,-0.139,-0.139,0.000,0.000,0.000
1643146557957874176,2022-01-25-21:35:57,10.1.1.13,37,-0.129,-0.129,-0.129,0.000,0.000,0.000
1643146558157152768,2022-01-25-21:35:58,10.1.1.13,36,-0.119,-0.119,-0.119,0.000,0.000,0.000
1643146558359250944,2022-01-25-21:35:58,10.1.1.13,34,-0.110,-0.110,-0.110,0.000,0.000,0.000
1643146558561136128,2022-01-25-21:35:58,10.1.1.13,32,-0.100,-0.100,-0.100,0.000,0.000,0.000
1643146558766323200,2022-01-25-21:35:58,10.1.1.13,35,-0.090,-0.090,-0.090,0.000,0.000,0.000
1643146558959089152,2022-01-25-21:35:58,10.1.1.13,26,-0.080,-0.080,-0.080,0.000,0.000,0.000
1643146559269901056,2022-01-25-21:35:59,10.1.1.13,97,-0.069,-0.069,-0.069,0.000,0.000,0.000
1643146559441186048,2022-01-25-21:35:59,10.1.1.13,37,-0.060,-0.060,-0.060,0.000,0.000,0.000
1643146559652966912,2022-01-25-21:35:59,10.1.1.13,37,-0.050,-0.050,-0.050,0.000,0.000,0.000
1643146559846031872,2022-01-25-21:35:59,10.1.1.13,40,-0.040,-0.040,-0.040,0.000,0.000,0.000
1643146560057282816,2022-01-25-21:36:00,10.1.1.13,32,-0.030,-0.030,-0.030,0.000,0.000,0.000
1643146560272436992,2022-01-25-21:36:00,10.1.1.13,34,-0.020,-0.020,-0.020,0.000,0.000,0.000
1643146560486193920,2022-01-25-21:36:00,10.1.1.13,43,-0.009,-0.009,-0.009,0.000,0.000,0.000
1643146560687799040,2022-01-25-21:36:00,10.1.1.13,39,-0.001,-0.001,-0.001,0.000,0.000,0.000
1643146560886403072,2022-01-25-21:36:00,10.1.1.13,34,-0.010,-0.010,-0.010,0.000,0.000,0.000
1643146561116194048,2022-01-25-21:36:01,10.1.1.13,61,-0.020,-0.020,-0.020,0.000,0.000,0.000
1643146561328818944,2022-01-25-21:36:01,10.1.1.13,55,-0.031,-0.031,-0.031,0.000,0.000,0.000
1643146561571953920,2022-01-25-21:36:01,10.1.1.13,98,-0.041,-0.041,-0.041,0.000,0.000,0.000
1643146561720573952,2022-01-25-21:36:01,10.1.1.13,-12,-0.049,-0.049,-0.049,0.000,0.000,0.000
1643146561952028160,2022-01-25-21:36:01,10.1.1.13,40,-0.060,-0.060,-0.060,0.000,0.000,0.000
1643146562184713984,2022-01-25-21:36:02,10.1.1.13,42,-0.070,-0.070,-0.070,0.000,0.000,0.000
1643146562415216896,2022-01-25-21:36:02,10.1.1.13,73,-0.080,-0.080,-0.080,0.000,0.000,0.000
1643146562651418880,2022-01-25-21:36:02,10.1.1.13,70,-0.090,-0.090,-0.090,0.000,0.000,0.000
1643146562842003968,2022-01-25-21:36:02,10.1.1.13,55,-0.100,-0.100,-0.100,0.000,0.000,0.000
1643146563019792128,2022-01-25-21:36:03,10.1.1.13,26,-0.110,-0.110,-0.110,0.000,0.000,0.000
1643146563253072128,2022-01-25-21:36:03,10.1.1.13,26,-0.120,-0.120,-0.120,0.000,0.000,0.000
1643146563487848960,2022-01-25-21:36:03,10.1.1.13,60,-0.130,-0.130,-0.130,0.000,0.000,0.000
1643146563700434944,2022-01-25-21:36:03,10.1.1.13,66,-0.141,-0.141,-0.141,0.000,0.000,0.000
1643146563929011968,2022-01-25-21:36:03,10.1.1.13,90,-0.151,-0.151,-0.151,0.000,0.000,0.000
1643146564089391104,2022-01-25-21:36:04,10.1.1.13,32,-0.160,-0.160,-0.160,0.000,0.000,0.000
1643146564392694016,2022-01-25-21:36:04,10.1.1.13,141,-0.171,-0.171,-0.171,0.000,0.000,0.000
1643146564594931968,2022-01-25-21:36:04,10.1.1.13,89,-0.180,-0.180,-0.180,0.000,0.000,0.000
1643146564753388032,2022-01-25-21:36:04,10.1.1.13,41,-0.190,-0.190,-0.190,0.000,0.000,0.000
1643146564938541056,2022-01-25-21:36:04,10.1.1.13,25,-0.200,-0.200,-0.200,0.000,0.000,0.000
1643146565167646976,2022-01-25-21:36:05,10.1.1.13,45,-0.211,-0.211,-0.211,0.000,0.000,0.000
1643146565373094912,2022-01-25-21:36:05,10.1.1.13,43,-0.221,-0.221,-0.221,0.000,0.000,0.000
1643146565558383872,2022-01-25-21:36:05,10.1.1.13,37,-0.230,-0.230,-0.230,0.000,0.000,0.000
1643146565763160832,2022-01-25-21:36:05,10.1.1.13,36,-0.240,-0.240,-0.240,0.000,0.000,0.000
1643146565960315904,2022-01-25-21:36:05,10.1.1.13,31,-0.250,-0.250,-0.250,0.000,0.000,0.000
1643146566160238080,2022-01-25-21:36:06,10.1.1.13,30,-0.260,-0.260,-0.260,0.000,0.000,0.000
1643146566359764224,2022-01-25-21:36:06,10.1.1.13,26,-0.270,-0.270,-0.270,0.000,0.000,0.000
1643146566558883840,2022-01-25-21:36:06,10.1.1.13,26,-0.280,-0.280,-0.280,0.000,0.000,0.000
1643146566778023936,2022-01-25-21:36:06,10.1.1.13,43,-0.291,-0.291,-0.291,0.000,0.000,0.000
1643146566985654016,2022-01-25-21:36:06,10.1.1.13,49,-0.301,-0.301,-0.301,0.000,0.000,0.000
1643146567178643968,2022-01-25-21:36:07,10.1.1.13,41,-0.311,-0.311,-0.311,0.000,0.000,0.000
1643146567378882816,2022-01-25-21:36:07,10.1.1.13,38,-0.321,-0.321,-0.321,0.000,0.000,0.000
1643146567601782016,2022-01-25-21:36:07,10.1.1.13,54,-0.331,-0.331,-0.331,0.000,0.000,0.000
1643146567797039872,2022-01-25-21:36:07,10.1.1.13,33,-0.340,-0.340,-0.340,0.000,0.000,0.000
1643146568040580864,2022-01-25-21:36:08,10.1.1.13,69,-0.351,-0.351,-0.351,0.000,0.000,0.000
1643146568254801152,2022-01-25-21:36:08,10.1.1.13,47,-0.360,-0.360,-0.360,0.000,0.000,0.000
1643146568453543936,2022-01-25-21:36:08,10.1.1.13,41,-0.370,-0.370,-0.370,0.000,0.000,0.000
1643146568638579968,2022-01-25-21:36:08,10.1.1.13,25,-0.380,-0.380,-0.380,0.000,0.000,0.000
1643146568869229056,2022-01-25-21:36:08,10.1.1.13,52,-0.391,-0.391,-0.391,0.000,0.000,0.000
1643146569057784064,2022-01-25-21:36:09,10.1.1.13,38,-0.401,-0.401,-0.401,0.000,0.000,0.000
1643146569258416896,2022-01-25-21:36:09,10.1.1.13,36,-0.411,-0.411,-0.411,0.000,0.000,0.000
1643146569457839872,2022-01-25-21:36:09,10.1.1.13,35,-0.421,-0.421,-0.421,0.000,0.000,0.000
1643146569672948992,2022-01-25-21:36:09,10.1.1.13,32,-0.430,-0.430,-0.430,0.000,0.000,0.000
1643146569877895168,2022-01-25-21:36:09,10.1.1.13,43,-0.441,-0.441,-0.441,0.000,0.000,0.000
1643146570082309888,2022-01-25-21:36:10,10.1.1.13,42,-0.451,-0.451,-0.451,0.000,0.000,0.000
1643146570331747072,2022-01-25-21:36:10,10.1.1.13,82,-0.460,-0.460,-0.460,0.000,0.000,0.000
1643146570505943040,2022-01-25-21:36:10,10.1.1.13,37,-0.470,-0.470,-0.470,0.000,0.000,0.000
1643146570719214080,2022-01-25-21:36:10,10.1.1.13,44,-0.481,-0.481,-0.481,0.000,0.000,0.000
1643146570906488832,2022-01-25-21:36:10,10.1.1.13,20,-0.489,-0.489,-0.489,0.000,0.000,0.000
1643146571120160000,2022-01-25-21:36:11,10.1.1.13,30,-0.480,-0.480,-0.480,0.000,0.000,0.000
1643146571323633920,2022-01-25-21:36:11,10.1.1.13,33,-0.470,-0.470,-0.470,0.000,0.000,0.000
1643146571532881920,2022-01-25-21:36:11,10.1.1.13,41,-0.460,-0.460,-0.460,0.000,0.000,0.000
1643146571740317184,2022-01-25-21:36:11,10.1.1.13,47,-0.449,-0.449,-0.449,0.000,0.000,0.000
1643146571944583936,2022-01-25-21:36:11,10.1.1.13,48,-0.439,-0.439,-0.439,0.000,0.000,0.000
1643146572152968960,2022-01-25-21:36:12,10.1.1.13,56,-0.429,-0.429,-0.429,0.000,0.000,0.000
1643146572343106048,2022-01-25-21:36:12,10.1.1.13,45,-0.419,-0.419,-0.419,0.000,0.000,0.000
1643146572548973056,2022-01-25-21:36:12,10.1.1.13,49,-0.409,-0.409,-0.409,0.000,0.000,0.000
1643146572756222976,2022-01-25-21:36:12,10.1.1.13,49,-0.400,-0.400,-0.400,0.000,0.000,0.000
1643146572951311104,2022-01-25-21:36:12,10.1.1.13,32,-0.390,-0.390,-0.390,0.000,0.000,0.000
1643146573170033920,2022-01-25-21:36:13,10.1.1.13,56,-0.379,-0.379,-0.379,0.000,0.000,0.000
1643146573377680128,2022-01-25-21:36:13,10.1.1.13,58,-0.369,-0.369,-0.369,0.000,0.000,0.000
1643146573592986112,2022-01-25-21:36:13,10.1.1.13,56,-0.359,-0.359,-0.359,0.000,0.000,0.000
1643146573800422912,2022-01-25-21:36:13,10.1.1.13,40,-0.350,-0.350,-0.350,0.000,0.000,0.000
1643146574062285056,2022-01-25-21:36:14,10.1.1.13,63,-0.340,-0.340,-0.340,0.000,0.000,0.000
1643146574278381056,2022-01-25-21:36:14,10.1.1.13,41,-0.329,-0.329,-0.329,0.000,0.000,0.000
1643146574600126976,2022-01-25-21:36:14,10.1.1.13,61,-0.319,-0.319,-0.319,0.000,0.000,0.000
1643146574778432000,2022-01-25-21:36:14,10.1.1.13,37,-0.309,-0.309,-0.309,0.000,0.000,0.000
1643146574980304896,2022-01-25-21:36:14,10.1.1.13,38,-0.299,-0.299,-0.299,0.000,0.000,0.000
1643146575207427072,2022-01-25-21:36:15,10.1.1.13,43,-0.290,-0.290,-0.290,0.000,0.000,0.000
1643146575415702016,2022-01-25-21:36:15,10.1.1.13,43,-0.280,-0.280,-0.280,0.000,0.000,0.000
1643146575600244992,2022-01-25-21:36:15,10.1.1.13,27,-0.270,-0.270,-0.270,0.000,0.000,0.000
1643146575821053952,2022-01-25-21:36:15,10.1.1.13,45,-0.259,-0.259,-0.259,0.000,0.000,0.000
1643146576026808064,2022-01-25-21:36:16,10.1.1.13,44,-0.249,-0.249,-0.249,0.000,0.000,0.000
1643146576256675072,2022-01-25-21:36:16,10.1.1.13,66,-0.239,-0.239,-0.239,0.000,0.000,0.000
1643146576502924800,2022-01-25-21:36:16,10.1.1.13,105,-0.229,-0.229,-0.229,0.000,0.000,0.000
1643146576644505856,2022-01-25-21:36:16,10.1.1.13,43,-0.219,-0.219,-0.219,0.000,0.000,0.000
1643146576914418944,2022-01-25-21:36:16,10.1.1.13,86,-0.209,-0.209,-0.209,0.000,0.000,0.000
1643146577097284096,2022-01-25-21:36:17,10.1.1.13,91,-0.200,-0.200,-0.200,0.000,0.000,0.000
1643146577259208960,2022-01-25-21:36:17,10.1.1.13,52,-0.190,-0.190,-0.190,0.000,0.000,0.000
1643146577445403136,2022-01-25-21:36:17,10.1.1.13,27,-0.180,-0.180,-0.180,0.000,0.000,0.000
1643146577715158016,2022-01-25-21:36:17,10.1.1.13,80,-0.169,-0.169,-0.169,0.000,0.000,0.000
1643146577881046016,2022-01-25-21:36:17,10.1.1.13,45,-0.159,-0.159,-0.159,0.000,0.000,0.000
1643146578152259072,2022-01-25-21:36:18,10.1.1.13,108,-0.149,-0.149,-0.149,0.000,0.000,0.000
1643146578299182848,2022-01-25-21:36:18,10.1.1.13,53,-0.139,-0.139,-0.139,0.000,0.000,0.000
1643146578484689920,2022-01-25-21:36:18,10.1.1.13,36,-0.130,-0.130,-0.130,0.000,0.000,0.000
1643146578681148928,2022-01-25-21:36:18,10.1.1.13,30,-0.120,-0.120,-0.120,0.000,0.000,0.000
1643146578896542976,2022-01-25-21:36:18,10.1.1.13,42,-0.110,-0.110,-0.110,0.000,0.000,0.000
1643146579171860992,2022-01-25-21:36:19,10.1.1.13,83,-0.099,-0.099,-0.099,0.000,0.000,0.000
1643146579378284032,2022-01-25-21:36:19,10.1.1.13,100,-0.090,-0.090,-0.090,0.000,0.000,0.000
1643146579572311040,2022-01-25-21:36:19,10.1.1.13,84,-0.080,-0.080,-0.080,0.000,0.000,0.000
1643146579715012096,2022-01-25-21:36:19,10.1.1.13,-1,-0.072,-0.072,-0.072,0.000,0.000,0.000
1643146579956957952,2022-01-25-21:36:19,10.1.1.13,41,-0.059,-0.059,-0.059,0.000,0.000,0.000
1643146580206244864,2022-01-25-21:36:20,10.1.1.13,48,-0.049,-0.049,-0.049,0.000,0.000,0.000
1643146580420371968,2022-01-25-21:36:20,10.1.1.13,46,-0.039,-0.039,-0.039,0.000,0.000,0.000
1643146580590913024,2022-01-25-21:36:20,10.1.1.13,-20,-0.032,-0.032,-0.032,0.000,0.000,0.000
1643146580828697856,2022-01-25-21:36:20,10.1.1.13,43,-0.020,-0.020,-0.020,0.000,0.000,0.000
1643146581049437952,2022-01-25-21:36:21,10.1.1.13,53,-0.009,-0.009,-0.009,0.000,0.000,0.000
1643146581200830976,2022-01-25-21:36:21,10.1.1.13,5,-0.001,-0.001,-0.001,0.000,0.000,0.000
1643146581439873024,2022-01-25-21:36:21,10.1.1.13,44,-0.011,-0.011,-0.011,0.000,0.000,0.000
1643146581636779008,2022-01-25-21:36:21,10.1.1.13,39,-0.021,-0.021,-0.021,0.000,0.000,0.000
1643146581867083008,2022-01-25-21:36:21,10.1.1.13,68,-0.031,-0.031,-0.031,0.000,0.000,0.000
1643146582047906048,2022-01-25-21:36:22,10.1.1.13,48,-0.041,-0.041,-0.041,0.000,0.000,0.000
1643146582236861952,2022-01-25-21:36:22,10.1.1.13,30,-0.050,-0.050,-0.050,0.000,0.000,0.000
1643146582485760000,2022-01-25-21:36:22,10.1.1.13,75,-0.061,-0.061,-0.061,0.000,0.000,0.000
1643146582658963968,2022-01-25-21:36:22,10.1.1.13,14,-0.070,-0.070,-0.070,0.000,0.000,0.000
1643146582880305920,2022-01-25-21:36:22,10.1.1.13,32,-0.080,-0.080,-0.080,0.000,0.000,0.000
1643146583078296832,2022-01-25-21:36:23,10.1.1.13,31,-0.090,-0.090,-0.090,0.000,0.000,0.000
1643146583277971968,2022-01-25-21:36:23,10.1.1.13,28,-0.100,-0.100,-0.100,0.000,0.000,0.000
1643146583479811072,2022-01-25-21:36:23,10.1.1.13,29,-0.110,-0.110,-0.110,0.000,0.000,0.000
1643146583687475968,2022-01-25-21:36:23,10.1.1.13,12,-0.120,-0.120,-0.120,0.000,0.000,0.000
1643146583926484224,2022-01-25-21:36:23,10.1.1.13,50,-0.131,-0.131,-0.131,0.000,0.000,0.000
1643146584117721088,2022-01-25-21:36:24,10.1.1.13,40,-0.141,-0.141,-0.141,0.000,0.000,0.000
1643146584324353024,2022-01-25-21:36:24,10.1.1.13,46,-0.151,-0.151,-0.151,0.000,0.000,0.000
1643146584517745920,2022-01-25-21:36:24,10.1.1.13,36,-0.161,-0.161,-0.161,0.000,0.000,0.000
1643146584718411008,2022-01-25-21:36:24,10.1.1.13,36,-0.171,-0.171,-0.171,0.000,0.000,0.000
1643146584920928000,2022-01-25-21:36:24,10.1.1.13,37,-0.181,-0.181,-0.181,0.000,0.000,0.000
1643146585127365120,2022-01-25-21:36:25,10.1.1.13,32,-0.190,-0.190,-0.190,0.000,0.000,0.000
1643146585388878080,2022-01-25-21:36:25,10.1.1.13,96,-0.200,-0.200,-0.200,0.000,0.000,0.000
1643146585551094016,2022-01-25-21:36:25,10.1.1.13,57,-0.211,-0.211,-0.211,0.000,0.000,0.000
1643146585748756992,2022-01-25-21:36:25,10.1.1.13,52,-0.221,-0.221,-0.221,0.000,0.000,0.000
1643146585940401152,2022-01-25-21:36:25,10.1.1.13,43,-0.231,-0.231,-0.231,0.000,0.000,0.000
1643146586155569920,2022-01-25-21:36:26,10.1.1.13,57,-0.241,-0.241,-0.241,0.000,0.000,0.000
1643146586429033984,2022-01-25-21:36:26,10.1.1.13,125,-0.251,-0.251,-0.251,0.000,0.000,0.000
1643146586568912128,2022-01-25-21:36:26,10.1.1.13,46,-0.261,-0.261,-0.261,0.000,0.000,0.000
1643146586759990016,2022-01-25-21:36:26,10.1.1.13,36,-0.270,-0.270,-0.270,0.000,0.000,0.000
1643146586957235200,2022-01-25-21:36:26,10.1.1.13,32,-0.280,-0.280,-0.280,0.000,0.000,0.000
1643146587205732096,2022-01-25-21:36:27,10.1.1.13,59,-0.291,-0.291,-0.291,0.000,0.000,0.000
1643146587459752960,2022-01-25-21:36:27,10.1.1.13,70,-0.301,-0.301,-0.301,0.000,0.000,0.000
1643146587684194048,2022-01-25-21:36:27,10.1.1.13,60,-0.311,-0.311,-0.311,0.000,0.000,0.000
1643146587892049152,2022-01-25-21:36:27,10.1.1.13,76,-0.321,-0.321,-0.321,0.000,0.000,0.000
1643146588073554944,2022-01-25-21:36:28,10.1.1.13,56,-0.331,-0.331,-0.331,0.000,0.000,0.000
1643146588275644160,2022-01-25-21:36:28,10.1.1.13,55,-0.341,-0.341,-0.341,0.000,0.000,0.000
1643146588457185024,2022-01-25-21:36:28,10.1.1.13,35,-0.351,-0.351,-0.351,0.000,0.000,0.000
1643146588658977024,2022-01-25-21:36:28,10.1.1.13,36,-0.361,-0.361,-0.361,0.000,0.000,0.000
1643146588866395904,2022-01-25-21:36:28,10.1.1.13,37,-0.370,-0.370,-0.370,0.000,0.000,0.000
1643146589058487808,2022-01-25-21:36:29,10.1.1.13,33,-0.380,-0.380,-0.380,0.000,0.000,0.000
1643146589258119168,2022-01-25-21:36:29,10.1.1.13,32,-0.390,-0.390,-0.390,0.000,0.000,0.000
1643146589458164992,2022-01-25-21:36:29,10.1.1.13,30,-0.400,-0.400,-0.400,0.000,0.000,0.000
1643146589659287040,2022-01-25-21:36:29,10.1.1.13,31,-0.410,-0.410,-0.410,0.000,0.000,0.000
1643146589872442112,2022-01-25-21:36:29,10.1.1.13,43,-0.420,-0.420,-0.420,0.000,0.000,0.000
1643146590067431936,2022-01-25-21:36:30,10.1.1.13,36,-0.430,-0.430,-0.430,0.000,0.000,0.000
1643146590259421184,2022-01-25-21:36:30,10.1.1.13,27,-0.440,-0.440,-0.440,0.000,0.000,0.000
1643146590506028032,2022-01-25-21:36:30,10.1.1.13,71,-0.451,-0.451,-0.451,0.000,0.000,0.000
1643146590691674880,2022-01-25-21:36:30,10.1.1.13,52,-0.461,-0.461,-0.461,0.000,0.000,0.000
1643146590896489984,2022-01-25-21:36:30,10.1.1.13,59,-0.471,-0.471,-0.471,0.000,0.000,0.000
1643146591153209856,2022-01-25-21:36:31,10.1.1.13,103,-0.481,-0.481,-0.481,0.000,0.000,0.000
1643146591265500160,2022-01-25-21:36:31,10.1.1.13,7,-0.489,-0.489,-0.489,0.000,0.000,0.000
1643146591483387904,2022-01-25-21:36:31,10.1.1.13,30,-0.480,-0.480,-0.480,0.000,0.000,0.000
1643146591699778048,2022-01-25-21:36:31,10.1.1.13,45,-0.469,-0.469,-0.469,0.000,0.000,0.000
1643146591932619008,2022-01-25-21:36:31,10.1.1.13,45,-0.460,-0.460,-0.460,0.000,0.000,0.000
1643146592150594048,2022-01-25-21:36:32,10.1.1.13,53,-0.449,-0.449,-0.449,0.000,0.000,0.000
1643146592365313024,2022-01-25-21:36:32,10.1.1.13,52,-0.440,-0.440,-0.440,0.000,0.000,0.000
1643146592606339072,2022-01-25-21:36:32,10.1.1.13,92,-0.429,-0.429,-0.429,0.000,0.000,0.000
1643146592800483840,2022-01-25-21:36:32,10.1.1.13,64,-0.419,-0.419,-0.419,0.000,0.000,0.000
1643146592979358976,2022-01-25-21:36:32,10.1.1.13,42,-0.409,-0.409,-0.409,0.000,0.000,0.000
1643146593178153984,2022-01-25-21:36:33,10.1.1.13,40,-0.399,-0.399,-0.399,0.000,0.000,0.000
1643146593377427200,2022-01-25-21:36:33,10.1.1.13,36,-0.389,-0.389,-0.389,0.000,0.000,0.000
1643146593590553088,2022-01-25-21:36:33,10.1.1.13,48,-0.379,-0.379,-0.379,0.000,0.000,0.000
1643146593784424960,2022-01-25-21:36:33,10.1.1.13,36,-0.370,-0.370,-0.370,0.000,0.000,0.000
1643146593983869952,2022-01-25-21:36:33,10.1.1.13,27,-0.360,-0.360,-0.360,0.000,0.000,0.000
1643146594199273984,2022-01-25-21:36:34,10.1.1.13,45,-0.349,-0.349,-0.349,0.000,0.000,0.000
1643146594398435072,2022-01-25-21:36:34,10.1.1.13,43,-0.339,-0.339,-0.339,0.000,0.000,0.000
1643146594599528960,2022-01-25-21:36:34,10.1.1.13,43,-0.329,-0.329,-0.329,0.000,0.000,0.000
1643146594797257984,2022-01-25-21:36:34,10.1.1.13,40,-0.319,-0.319,-0.319,0.000,0.000,0.000
1643146594997687040,2022-01-25-21:36:34,10.1.1.13,39,-0.309,-0.309,-0.309,0.000,0.000,0.000
1643146595197283072,2022-01-25-21:36:35,10.1.1.13,38,-0.299,-0.299,-0.299,0.000,0.000,0.000
1643146595398883072,2022-01-25-21:36:35,10.1.1.13,35,-0.290,-0.290,-0.290,0.000,0.000,0.000
1643146595599535104,2022-01-25-21:36:35,10.1.1.13,34,-0.280,-0.280,-0.280,0.000,0.000,0.000
1643146595799247104,2022-01-25-21:36:35,10.1.1.13,32,-0.270,-0.270,-0.270,0.000,0.000,0.000
1643146596018248960,2022-01-25-21:36:36,10.1.1.13,46,-0.259,-0.259,-0.259,0.000,0.000,0.000
1643146596209212160,2022-01-25-21:36:36,10.1.1.13,36,-0.250,-0.250,-0.250,0.000,0.000,0.000
1643146596417794048,2022-01-25-21:36:36,10.1.1.13,43,-0.239,-0.239,-0.239,0.000,0.000,0.000
1643146596633143040,2022-01-25-21:36:36,10.1.1.13,49,-0.229,-0.229,-0.229,0.000,0.000,0.000
1643146596840962816,2022-01-25-21:36:36,10.1.1.13,43,-0.219,-0.219,-0.219,0.000,0.000,0.000
1643146597042874112,2022-01-25-21:36:37,10.1.1.13,45,-0.209,-0.209,-0.209,0.000,0.000,0.000
1643146597237710848,2022-01-25-21:36:37,10.1.1.13,44,-0.199,-0.199,-0.199,0.000,0.000,0.000
1643146597441266176,2022-01-25-21:36:37,10.1.1.13,42,-0.189,-0.189,-0.189,0.000,0.000,0.000
1643146597641062912,2022-01-25-21:36:37,10.1.1.13,44,-0.179,-0.179,-0.179,0.000,0.000,0.000
1643146597838953984,2022-01-25-21:36:37,10.1.1.13,37,-0.169,-0.169,-0.169,0.000,0.000,0.000
1643146598039781120,2022-01-25-21:36:38,10.1.1.13,35,-0.160,-0.160,-0.160,0.000,0.000,0.000
1643146598274863872,2022-01-25-21:36:38,10.1.1.13,69,-0.149,-0.149,-0.149,0.000,0.000,0.000
1643146598467875840,2022-01-25-21:36:38,10.1.1.13,55,-0.140,-0.140,-0.140,0.000,0.000,0.000
1643146598649595136,2022-01-25-21:36:38,10.1.1.13,29,-0.130,-0.130,-0.130,0.000,0.000,0.000
1643146598899919104,2022-01-25-21:36:38,10.1.1.13,82,-0.120,-0.120,-0.120,0.000,0.000,0.000
1643146599125088000,2022-01-25-21:36:39,10.1.1.13,36,-0.110,-0.110,-0.110,0.000,0.000,0.000
1643146599402628864,2022-01-25-21:36:39,10.1.1.13,91,-0.100,-0.100,-0.100,0.000,0.000,0.000
1643146599810381824,2022-01-25-21:36:39,10.1.1.13,236,-0.090,-0.090,-0.090,0.000,0.000,0.000
1643146599908337152,2022-01-25-21:36:39,10.1.1.13,10,-0.080,-0.080,-0.080,0.000,0.000,0.000
1643146600795638016,2022-01-25-21:36:40,10.1.1.13,139,-0.050,-0.050,-0.050,0.000,0.000,0.000
1643146601020452864,2022-01-25-21:36:40,10.1.1.13,50,-0.040,-0.040,-0.040,0.000,0.000,0.000
1643146601453035008,2022-01-25-21:36:41,10.1.1.13,145,-0.030,-0.030,-0.030,0.000,0.000,0.000
1643146601632310016,2022-01-25-21:36:41,10.1.1.13,124,-0.019,-0.019,-0.019,0.000,0.000,0.000
1643146601835470848,2022-01-25-21:36:41,10.1.1.13,81,-0.009,-0.009,-0.009,0.000,0.000,0.000
1643146601979931136,2022-01-25-21:36:41,10.1.1.13,23,-0.001,-0.001,-0.001,0.000,0.000,0.000
1643146602324145920,2022-01-25-21:36:42,10.1.1.13,104,-0.011,-0.011,-0.011,0.000,0.000,0.000
1643146602525089024,2022-01-25-21:36:42,10.1.1.13,76,-0.020,-0.020,-0.020,0.000,0.000,0.000
1643146602791505152,2022-01-25-21:36:42,10.1.1.13,138,-0.030,-0.030,-0.030,0.000,0.000,0.000
1643146602887613952,2022-01-25-21:36:42,10.1.1.13,32,-0.040,-0.040,-0.040,0.000,0.000,0.000
1643146603082999040,2022-01-25-21:36:43,10.1.1.13,26,-0.050,-0.050,-0.050,0.000,0.000,0.000
1643146603288839936,2022-01-25-21:36:43,10.1.1.13,30,-0.060,-0.060,-0.060,0.000,0.000,0.000
1643146603502983168,2022-01-25-21:36:43,10.1.1.13,42,-0.071,-0.071,-0.071,0.000,0.000,0.000
1643146603704862208,2022-01-25-21:36:43,10.1.1.13,42,-0.081,-0.081,-0.081,0.000,0.000,0.000
1643146603902742016,2022-01-25-21:36:43,10.1.1.13,39,-0.091,-0.091,-0.091,0.000,0.000,0.000
1643146604159367936,2022-01-25-21:36:44,10.1.1.13,94,-0.101,-0.101,-0.101,0.000,0.000,0.000
1643146604326732032,2022-01-25-21:36:44,10.1.1.13,60,-0.111,-0.111,-0.111,0.000,0.000,0.000
1643146604515773952,2022-01-25-21:36:44,10.1.1.13,45,-0.120,-0.120,-0.120,0.000,0.000,0.000
1643146604702151936,2022-01-25-21:36:44,10.1.1.13,31,-0.130,-0.130,-0.130,0.000,0.000,0.000
1643146604902820096,2022-01-25-21:36:44,10.1.1.13,31,-0.140,-0.140,-0.140,0.000,0.000,0.000
1643146605102885120,2022-01-25-21:36:45,10.1.1.13,30,-0.150,-0.150,-0.150,0.000,0.000,0.000
1643146605302607104,2022-01-25-21:36:45,10.1.1.13,29,-0.160,-0.160,-0.160,0.000,0.000,0.000
1643146605502599936,2022-01-25-21:36:45,10.1.1.13,28,-0.170,-0.170,-0.170,0.000,0.000,0.000
1643146605732929024,2022-01-25-21:36:45,10.1.1.13,45,-0.181,-0.181,-0.181,0.000,0.000,0.000
1643146605952833024,2022-01-25-21:36:45,10.1.1.13,43,-0.191,-0.191,-0.191,0.000,0.000,0.000
1643146606175117056,2022-01-25-21:36:46,10.1.1.13,67,-0.201,-0.201,-0.201,0.000,0.000,0.000
1643146606343226880,2022-01-25-21:36:46,10.1.1.13,34,-0.210,-0.210,-0.210,0.000,0.000,0.000
1643146606542754048,2022-01-25-21:36:46,10.1.1.13,32,-0.220,-0.220,-0.220,0.000,0.000,0.000
1643146606742567936,2022-01-25-21:36:46,10.1.1.13,25,-0.230,-0.230,-0.230,0.000,0.000,0.000
1643146606962632960,2022-01-25-21:36:46,10.1.1.13,45,-0.241,-0.241,-0.241,0.000,0.000,0.000
1643146607162775040,2022-01-25-21:36:47,10.1.1.13,44,-0.251,-0.251,-0.251,0.000,0.000,0.000
1643146607414248960,2022-01-25-21:36:47,10.1.1.13,93,-0.261,-0.261,-0.261,0.000,0.000,0.000
1643146607572324864,2022-01-25-21:36:47,10.1.1.13,50,-0.270,-0.270,-0.270,0.000,0.000,0.000
1643146607763115776,2022-01-25-21:36:47,10.1.1.13,40,-0.281,-0.281,-0.281,0.000,0.000,0.000
1643146607992976896,2022-01-25-21:36:47,10.1.1.13,67,-0.291,-0.291,-0.291,0.000,0.000,0.000
1643146608205910016,2022-01-25-21:36:48,10.1.1.13,72,-0.301,-0.301,-0.301,0.000,0.000,0.000
1643146608384203008,2022-01-25-21:36:48,10.1.1.13,48,-0.310,-0.310,-0.310,0.000,0.000,0.000
1643146608594786816,2022-01-25-21:36:48,10.1.1.13,57,-0.321,-0.321,-0.321,0.000,0.000,0.000
1643146608782150144,2022-01-25-21:36:48,10.1.1.13,41,-0.331,-0.331,-0.331,0.000,0.000,0.000
1643146608982752000,2022-01-25-21:36:48,10.1.1.13,40,-0.341,-0.341,-0.341,0.000,0.000,0.000
1643146609202310144,2022-01-25-21:36:49,10.1.1.13,59,-0.350,-0.350,-0.350,0.000,0.000,0.000
1643146609398441984,2022-01-25-21:36:49,10.1.1.13,51,-0.360,-0.360,-0.360,0.000,0.000,0.000
1643146609583350784,2022-01-25-21:36:49,10.1.1.13,35,-0.370,-0.370,-0.370,0.000,0.000,0.000
1643146609786542848,2022-01-25-21:36:49,10.1.1.13,37,-0.380,-0.380,-0.380,0.000,0.000,0.000
1643146610104878848,2022-01-25-21:36:50,10.1.1.13,81,-0.391,-0.391,-0.391,0.000,0.000,0.000
1643146610272798976,2022-01-25-21:36:50,10.1.1.13,41,-0.401,-0.401,-0.401,0.000,0.000,0.000
1643146610464334848,2022-01-25-21:36:50,10.1.1.13,38,-0.411,-0.411,-0.411,0.000,0.000,0.000
1643146610815330048,2022-01-25-21:36:50,10.1.1.13,189,-0.420,-0.420,-0.420,0.000,0.000,0.000
1643146610962884864,2022-01-25-21:36:50,10.1.1.13,-103,-0.429,-0.429,-0.429,0.000,0.000,0.000
1643146611252739840,2022-01-25-21:36:51,10.1.1.13,73,-0.440,-0.440,-0.440,0.000,0.000,0.000
1643146611535814144,2022-01-25-21:36:51,10.1.1.13,48,-0.450,-0.450,-0.450,0.000,0.000,0.000
1643146611805975040,2022-01-25-21:36:51,10.1.1.13,99,-0.461,-0.461,-0.461,0.000,0.000,0.000
1643146611962843904,2022-01-25-21:36:51,10.1.1.13,44,-0.471,-0.471,-0.471,0.000,0.000,0.000
1643146612163200000,2022-01-25-21:36:52,10.1.1.13,43,-0.481,-0.481,-0.481,0.000,0.000,0.000
1643146612343060992,2022-01-25-21:36:52,10.1.1.13,12,-0.490,-0.490,-0.490,0.000,0.000,0.000
1643146612654791168,2022-01-25-21:36:52,10.1.1.13,48,-0.480,-0.480,-0.480,0.000,0.000,0.000
1643146612879633920,2022-01-25-21:36:52,10.1.1.13,129,-0.469,-0.469,-0.469,0.000,0.000,0.000
1643146613091344128,2022-01-25-21:36:53,10.1.1.13,81,-0.460,-0.460,-0.460,0.000,0.000,0.000
1643146613251065856,2022-01-25-21:36:53,10.1.1.13,38,-0.450,-0.450,-0.450,0.000,0.000,0.000
1643146613448154880,2022-01-25-21:36:53,10.1.1.13,32,-0.440,-0.440,-0.440,0.000,0.000,0.000
1643146613664340992,2022-01-25-21:36:53,10.1.1.13,43,-0.429,-0.429,-0.429,0.000,0.000,0.000
1643146613864876032,2022-01-25-21:36:53,10.1.1.13,42,-0.419,-0.419,-0.419,0.000,0.000,0.000
1643146614076020992,2022-01-25-21:36:54,10.1.1.13,40,-0.409,-0.409,-0.409,0.000,0.000,0.000
1643146614268104192,2022-01-25-21:36:54,10.1.1.13,40,-0.399,-0.399,-0.399,0.000,0.000,0.000
1643146614464414976,2022-01-25-21:36:54,10.1.1.13,38,-0.389,-0.389,-0.389,0.000,0.000,0.000
1643146614662622976,2022-01-25-21:36:54,10.1.1.13,36,-0.379,-0.379,-0.379,0.000,0.000,0.000
1643146614869458944,2022-01-25-21:36:54,10.1.1.13,41,-0.369,-0.369,-0.369,0.000,0.000,0.000
1643146615141100800,2022-01-25-21:36:55,10.1.1.13,107,-0.360,-0.360,-0.360,0.000,0.000,0.000
1643146615307336192,2022-01-25-21:36:55,10.1.1.13,62,-0.349,-0.349,-0.349,0.000,0.000,0.000
1643146615508182016,2022-01-25-21:36:55,10.1.1.13,33,-0.340,-0.340,-0.340,0.000,0.000,0.000
1643146615769166848,2022-01-25-21:36:55,10.1.1.13,44,-0.330,-0.330,-0.330,0.000,0.000,0.000
1643146615923620864,2022-01-25-21:36:55,10.1.1.13,33,-0.320,-0.320,-0.320,0.000,0.000,0.000
1643146616146492928,2022-01-25-21:36:56,10.1.1.13,54,-0.310,-0.310,-0.310,0.000,0.000,0.000
1643146616325334016,2022-01-25-21:36:56,10.1.1.13,31,-0.300,-0.300,-0.300,0.000,0.000,0.000
1643146616572608000,2022-01-25-21:36:56,10.1.1.13,72,-0.289,-0.289,-0.289,0.000,0.000,0.000
1643146616744489984,2022-01-25-21:36:56,10.1.1.13,43,-0.279,-0.279,-0.279,0.000,0.000,0.000
1643146616983348992,2022-01-25-21:36:56,10.1.1.13,62,-0.269,-0.269,-0.269,0.000,0.000,0.000
1643146617200078080,2022-01-25-21:36:57,10.1.1.13,78,-0.259,-0.259,-0.259,0.000,0.000,0.000
1643146617364276992,2022-01-25-21:36:57,10.1.1.13,41,-0.249,-0.249,-0.249,0.000,0.000,0.000
1643146617706969856,2022-01-25-21:36:57,10.1.1.13,181,-0.239,-0.239,-0.239,0.000,0.000,0.000
1643146618032265984,2022-01-25-21:36:57,10.1.1.13,100,-0.229,-0.229,-0.229,0.000,0.000,0.000
1643146618382091008,2022-01-25-21:36:58,10.1.1.13,77,-0.209,-0.209,-0.209,0.000,0.000,0.000
1643146618542435840,2022-01-25-21:36:58,10.1.1.13,34,-0.200,-0.200,-0.200,0.000,0.000,0.000
1643146618747425024,2022-01-25-21:36:58,10.1.1.13,31,-0.190,-0.190,-0.190,0.000,0.000,0.000
1643146618962702080,2022-01-25-21:36:58,10.1.1.13,35,-0.180,-0.180,-0.180,0.000,0.000,0.000
1643146619162512128,2022-01-25-21:36:59,10.1.1.13,29,-0.170,-0.170,-0.170,0.000,0.000,0.000
1643146619370727168,2022-01-25-21:36:59,10.1.1.13,26,-0.160,-0.160,-0.160,0.000,0.000,0.000
1643146619567779072,2022-01-25-21:36:59,10.1.1.13,32,-0.150,-0.150,-0.150,0.000,0.000,0.000
1643146619764268032,2022-01-25-21:36:59,10.1.1.13,28,-0.140,-0.140,-0.140,0.000,0.000,0.000
1643146619996694016,2022-01-25-21:36:59,10.1.1.13,15,-0.130,-0.130,-0.130,0.000,0.000,0.000
1643146620250057984,2022-01-25-21:37:00,10.1.1.13,32,-0.120,-0.120,-0.120,0.000,0.000,0.000
1643146620452686080,2022-01-25-21:37:00,10.1.1.13,18,-0.110,-0.110,-0.110,0.000,0.000,0.000
1643146620760718080,2022-01-25-21:37:00,10.1.1.13,76,-0.100,-0.100,-0.100,0.000,0.000,0.000
1643146620958803968,2022-01-25-21:37:00,10.1.1.13,21,-0.090,-0.090,-0.090,0.000,0.000,0.000
1643146621268572928,2022-01-25-21:37:01,10.1.1.13,25,-0.080,-0.080,-0.080,0.000,0.000,0.000
1643146621495680000,2022-01-25-21:37:01,10.1.1.13,43,-0.069,-0.069,-0.069,0.000,0.000,0.000
1643146621687240960,2022-01-25-21:37:01,10.1.1.13,40,-0.059,-0.059,-0.059,0.000,0.000,0.000
1643146621909022976,2022-01-25-21:37:01,10.1.1.13,55,-0.050,-0.050,-0.050,0.000,0.000,0.000
1643146622544358912,2022-01-25-21:37:02,10.1.1.13,241,-0.029,-0.029,-0.029,0.000,0.000,0.000
1643146622742723072,2022-01-25-21:37:02,10.1.1.13,69,-0.019,-0.019,-0.019,0.000,0.000,0.000
1643146622906252032,2022-01-25-21:37:02,10.1.1.13,77,-0.009,-0.009,-0.009,0.000,0.000,0.000
1643146623072535040,2022-01-25-21:37:03,10.1.1.13,15,-0.001,-0.001,-0.001,0.000,0.000,0.000
1643146623415129856,2022-01-25-21:37:03,10.1.1.13,88,-0.011,-0.011,-0.011,0.000,0.000,0.000
1643146624018598144,2022-01-25-21:37:04,10.1.1.13,130,-0.031,-0.031,-0.031,0.000,0.000,0.000
1643146624153072128,2022-01-25-21:37:04,10.1.1.13,64,-0.040,-0.040,-0.040,0.000,0.000,0.000
1643146624419699968,2022-01-25-21:37:04,10.1.1.13,117,-0.050,-0.050,-0.050,0.000,0.000,0.000
1643146624529068032,2022-01-25-21:37:04,10.1.1.13,35,-0.060,-0.060,-0.060,0.000,0.000,0.000
1643146624703726080,2022-01-25-21:37:04,10.1.1.13,-47,-0.064,-0.064,-0.064,0.000,0.000,0.000
1643146624942980096,2022-01-25-21:37:04,10.1.1.13,47,-0.080,-0.080,-0.080,0.000,0.000,0.000
1643146625178056960,2022-01-25-21:37:05,10.1.1.13,79,-0.090,-0.090,-0.090,0.000,0.000,0.000
1643146625418683904,2022-01-25-21:37:05,10.1.1.13,65,-0.100,-0.100,-0.100,0.000,0.000,0.000
1643146625587174912,2022-01-25-21:37:05,10.1.1.13,30,-0.110,-0.110,-0.110,0.000,0.000,0.000
1643146625783526912,2022-01-25-21:37:05,10.1.1.13,16,-0.120,-0.120,-0.120,0.000,0.000,0.000
1643146626020744960,2022-01-25-21:37:06,10.1.1.13,51,-0.130,-0.130,-0.130,0.000,0.000,0.000
1643146626241873920,2022-01-25-21:37:06,10.1.1.13,65,-0.140,-0.140,-0.140,0.000,0.000,0.000
1643146626439415040,2022-01-25-21:37:06,10.1.1.13,58,-0.151,-0.151,-0.151,0.000,0.000,0.000
1643146626642821120,2022-01-25-21:37:06,10.1.1.13,35,-0.160,-0.160,-0.160,0.000,0.000,0.000
1643146626853056000,2022-01-25-21:37:06,10.1.1.13,48,-0.171,-0.171,-0.171,0.000,0.000,0.000
1643146627055131904,2022-01-25-21:37:07,10.1.1.13,55,-0.181,-0.181,-0.181,0.000,0.000,0.000
1643146627245025024,2022-01-25-21:37:07,10.1.1.13,43,-0.191,-0.191,-0.191,0.000,0.000,0.000
1643146627443234048,2022-01-25-21:37:07,10.1.1.13,36,-0.201,-0.201,-0.201,0.000,0.000,0.000
1643146627643119104,2022-01-25-21:37:07,10.1.1.13,30,-0.210,-0.210,-0.210,0.000,0.000,0.000
1643146627871718912,2022-01-25-21:37:07,10.1.1.13,30,-0.220,-0.220,-0.220,0.000,0.000,0.000
1643146628094892032,2022-01-25-21:37:08,10.1.1.13,42,-0.230,-0.230,-0.230,0.000,0.000,0.000
1643146628298910976,2022-01-25-21:37:08,10.1.1.13,44,-0.240,-0.240,-0.240,0.000,0.000,0.000
1643146628493072896,2022-01-25-21:37:08,10.1.1.13,37,-0.250,-0.250,-0.250,0.000,0.000,0.000
1643146628702819072,2022-01-25-21:37:08,10.1.1.13,44,-0.261,-0.261,-0.261,0.000,0.000,0.000
1643146628903752192,2022-01-25-21:37:08,10.1.1.13,38,-0.271,-0.271,-0.271,0.000,0.000,0.000
1643146629128012032,2022-01-25-21:37:09,10.1.1.13,62,-0.280,-0.280,-0.280,0.000,0.000,0.000
1643146629356049152,2022-01-25-21:37:09,10.1.1.13,52,-0.290,-0.290,-0.290,0.000,0.000,0.000
1643146629573193984,2022-01-25-21:37:09,10.1.1.13,73,-0.301,-0.301,-0.301,0.000,0.000,0.000
1643146629747979008,2022-01-25-21:37:09,10.1.1.13,29,-0.310,-0.310,-0.310,0.000,0.000,0.000
1643146629968556800,2022-01-25-21:37:09,10.1.1.13,50,-0.321,-0.321,-0.321,0.000,0.000,0.000
1643146630164460800,2022-01-25-21:37:10,10.1.1.13,42,-0.331,-0.331,-0.331,0.000,0.000,0.000
1643146630384325888,2022-01-25-21:37:10,10.1.1.13,54,-0.341,-0.341,-0.341,0.000,0.000,0.000
1643146630569276928,2022-01-25-21:37:10,10.1.1.13,35,-0.350,-0.350,-0.350,0.000,0.000,0.000
1643146630800844032,2022-01-25-21:37:10,10.1.1.13,66,-0.360,-0.360,-0.360,0.000,0.000,0.000
1643146631021421824,2022-01-25-21:37:11,10.1.1.13,74,-0.370,-0.370,-0.370,0.000,0.000,0.000
1643146631187319040,2022-01-25-21:37:11,10.1.1.13,40,-0.381,-0.381,-0.381,0.000,0.000,0.000
1643146631384188928,2022-01-25-21:37:11,10.1.1.13,40,-0.391,-0.391,-0.391,0.000,0.000,0.000
1643146631645373952,2022-01-25-21:37:11,10.1.1.13,52,-0.400,-0.400,-0.400,0.000,0.000,0.000
1643146631783049216,2022-01-25-21:37:11,10.1.1.13,28,-0.410,-0.410,-0.410,0.000,0.000,0.000
1643146632044226048,2022-01-25-21:37:12,10.1.1.13,76,-0.420,-0.420,-0.420,0.000,0.000,0.000
1643146632202429184,2022-01-25-21:37:12,10.1.1.13,26,-0.430,-0.430,-0.430,0.000,0.000,0.000
1643146632422415872,2022-01-25-21:37:12,10.1.1.13,38,-0.441,-0.441,-0.441,0.000,0.000,0.000
1643146632622661120,2022-01-25-21:37:12,10.1.1.13,36,-0.451,-0.451,-0.451,0.000,0.000,0.000
1643146632822465792,2022-01-25-21:37:12,10.1.1.13,33,-0.460,-0.460,-0.460,0.000,0.000,0.000
1643146633022876928,2022-01-25-21:37:13,10.1.1.13,33,-0.470,-0.470,-0.470,0.000,0.000,0.000
1643146633222490112,2022-01-25-21:37:13,10.1.1.13,30,-0.480,-0.480,-0.480,0.000,0.000,0.000
1643146633402545920,2022-01-25-21:37:13,10.1.1.13,9,-0.489,-0.489,-0.489,0.000,0.000,0.000
1643146633623315200,2022-01-25-21:37:13,10.1.1.13,29,-0.480,-0.480,-0.480,0.000,0.000,0.000
1643146633823158016,2022-01-25-21:37:13,10.1.1.13,27,-0.470,-0.470,-0.470,0.000,0.000,0.000
1643146634022327040,2022-01-25-21:37:14,10.1.1.13,25,-0.460,-0.460,-0.460,0.000,0.000,0.000
1643146634243226112,2022-01-25-21:37:14,10.1.1.13,42,-0.449,-0.449,-0.449,0.000,0.000,0.000
1643146634442696192,2022-01-25-21:37:14,10.1.1.13,39,-0.439,-0.439,-0.439,0.000,0.000,0.000
1643146634642656000,2022-01-25-21:37:14,10.1.1.13,38,-0.429,-0.429,-0.429,0.000,0.000,0.000
1643146634842597120,2022-01-25-21:37:14,10.1.1.13,36,-0.419,-0.419,-0.419,0.000,0.000,0.000
1643146635047715840,2022-01-25-21:37:15,10.1.1.13,40,-0.409,-0.409,-0.409,0.000,0.000,0.000
1643146635245035776,2022-01-25-21:37:15,10.1.1.13,37,-0.400,-0.400,-0.400,0.000,0.000,0.000
1643146635442075136,2022-01-25-21:37:15,10.1.1.13,32,-0.390,-0.390,-0.390,0.000,0.000,0.000
1643146635662978816,2022-01-25-21:37:15,10.1.1.13,52,-0.379,-0.379,-0.379,0.000,0.000,0.000
1643146635862963968,2022-01-25-21:37:15,10.1.1.13,41,-0.369,-0.369,-0.369,0.000,0.000,0.000
1643146636068321024,2022-01-25-21:37:16,10.1.1.13,45,-0.359,-0.359,-0.359,0.000,0.000,0.000
1643146636273005056,2022-01-25-21:37:16,10.1.1.13,46,-0.349,-0.349,-0.349,0.000,0.000,0.000
1643146636462696960,2022-01-25-21:37:16,10.1.1.13,33,-0.340,-0.340,-0.340,0.000,0.000,0.000
1643146636663496960,2022-01-25-21:37:16,10.1.1.13,26,-0.330,-0.330,-0.330,0.000,0.000,0.000
1643146636881903872,2022-01-25-21:37:16,10.1.1.13,41,-0.319,-0.319,-0.319,0.000,0.000,0.000
1643146637082642176,2022-01-25-21:37:17,10.1.1.13,39,-0.309,-0.309,-0.309,0.000,0.000,0.000
1643146637282532864,2022-01-25-21:37:17,10.1.1.13,38,-0.299,-0.299,-0.299,0.000,0.000,0.000
1643146637483100928,2022-01-25-21:37:17,10.1.1.13,36,-0.289,-0.289,-0.289,0.000,0.000,0.000
1643146637682957056,2022-01-25-21:37:17,10.1.1.13,35,-0.280,-0.280,-0.280,0.000,0.000,0.000
1643146637882993920,2022-01-25-21:37:17,10.1.1.13,33,-0.270,-0.270,-0.270,0.000,0.000,0.000
1643146638114268928,2022-01-25-21:37:18,10.1.1.13,63,-0.260,-0.260,-0.260,0.000,0.000,0.000
1643146638295579904,2022-01-25-21:37:18,10.1.1.13,30,-0.250,-0.250,-0.250,0.000,0.000,0.000
1643146638483734016,2022-01-25-21:37:18,10.1.1.13,29,-0.240,-0.240,-0.240,0.000,0.000,0.000
1643146638700154112,2022-01-25-21:37:18,10.1.1.13,44,-0.230,-0.230,-0.230,0.000,0.000,0.000
1643146639000348160,2022-01-25-21:37:19,10.1.1.13,126,-0.219,-0.219,-0.219,0.000,0.000,0.000
1643146639148962048,2022-01-25-21:37:19,10.1.1.13,66,-0.209,-0.209,-0.209,0.000,0.000,0.000
1643146639396624128,2022-01-25-21:37:19,10.1.1.13,100,-0.200,-0.200,-0.200,0.000,0.000,0.000
1643146639615608832,2022-01-25-21:37:19,10.1.1.13,70,-0.189,-0.189,-0.189,0.000,0.000,0.000
1643146639784753152,2022-01-25-21:37:19,10.1.1.13,26,-0.180,-0.180,-0.180,0.000,0.000,0.000
1643146640080408064,2022-01-25-21:37:20,10.1.1.13,57,-0.169,-0.169,-0.169,0.000,0.000,0.000
1643146640266226944,2022-01-25-21:37:20,10.1.1.13,77,-0.160,-0.160,-0.160,0.000,0.000,0.000
1643146640455326208,2022-01-25-21:37:20,10.1.1.13,54,-0.150,-0.150,-0.150,0.000,0.000,0.000
1643146640678237952,2022-01-25-21:37:20,10.1.1.13,82,-0.139,-0.139,-0.139,0.000,0.000,0.000
1643146640842370048,2022-01-25-21:37:20,10.1.1.13,5,-0.130,-0.130,-0.130,0.000,0.000,0.000
1643146641063026944,2022-01-25-21:37:21,10.1.1.13,19,-0.120,-0.120,-0.120,0.000,0.000,0.000
1643146641294013952,2022-01-25-21:37:21,10.1.1.13,43,-0.110,-0.110,-0.110,0.000,0.000,0.000
1643146641483750144,2022-01-25-21:37:21,10.1.1.13,28,-0.100,-0.100,-0.100,0.000,0.000,0.000
1643146641683892992,2022-01-25-21:37:21,10.1.1.13,19,-0.090,-0.090,-0.090,0.000,0.000,0.000
1643146641898287104,2022-01-25-21:37:21,10.1.1.13,30,-0.080,-0.080,-0.080,0.000,0.000,0.000
1643146642102604032,2022-01-25-21:37:22,10.1.1.13,33,-0.070,-0.070,-0.070,0.000,0.000,0.000
1643146642302624000,2022-01-25-21:37:22,10.1.1.13,32,-0.060,-0.060,-0.060,0.000,0.000,0.000
1643146642502585856,2022-01-25-21:37:22,10.1.1.13,31,-0.050,-0.050,-0.050,0.000,0.000,0.000
1643146642702694912,2022-01-25-21:37:22,10.1.1.13,30,-0.040,-0.040,-0.040,0.000,0.000,0.000
1643146642902394112,2022-01-25-21:37:22,10.1.1.13,28,-0.030,-0.030,-0.030,0.000,0.000,0.000
1643146643125776896,2022-01-25-21:37:23,10.1.1.13,50,-0.020,-0.020,-0.020,0.000,0.000,0.000
1643146643356326144,2022-01-25-21:37:23,10.1.1.13,65,-0.009,-0.009,-0.009,0.000,0.000,0.000
1643146643497163008,2022-01-25-21:37:23,10.1.1.13,9,-0.001,-0.001,-0.001,0.000,0.000,0.000
1643146643774020864,2022-01-25-21:37:23,10.1.1.13,75,-0.011,-0.011,-0.011,0.000,0.000,0.000
1643146643942511104,2022-01-25-21:37:23,10.1.1.13,42,-0.021,-0.021,-0.021,0.000,0.000,0.000
1643146644143309056,2022-01-25-21:37:24,10.1.1.13,42,-0.031,-0.031,-0.031,0.000,0.000,0.000
1643146644366444032,2022-01-25-21:37:24,10.1.1.13,62,-0.041,-0.041,-0.041,0.000,0.000,0.000
1643146644542658048,2022-01-25-21:37:24,10.1.1.13,37,-0.051,-0.051,-0.051,0.000,0.000,0.000
1643146644742855168,2022-01-25-21:37:24,10.1.1.13,37,-0.061,-0.061,-0.061,0.000,0.000,0.000
1643146644954437120,2022-01-25-21:37:24,10.1.1.13,47,-0.071,-0.071,-0.071,0.000,0.000,0.000
1643146645142631168,2022-01-25-21:37:25,10.1.1.13,35,-0.080,-0.080,-0.080,0.000,0.000,0.000
1643146645345336832,2022-01-25-21:37:25,10.1.1.13,36,-0.090,-0.090,-0.090,0.000,0.000,0.000
1643146645543181824,2022-01-25-21:37:25,10.1.1.13,33,-0.100,-0.100,-0.100,0.000,0.000,0.000
1643146645777959936,2022-01-25-21:37:25,10.1.1.13,63,-0.110,-0.110,-0.110,0.000,0.000,0.000
1643146645942595072,2022-01-25-21:37:25,10.1.1.13,25,-0.120,-0.120,-0.120,0.000,0.000,0.000
1643146646164097024,2022-01-25-21:37:26,10.1.1.13,44,-0.131,-0.131,-0.131,0.000,0.000,0.000
1643146646362183936,2022-01-25-21:37:26,10.1.1.13,41,-0.141,-0.141,-0.141,0.000,0.000,0.000
1643146646563337984,2022-01-25-21:37:26,10.1.1.13,39,-0.151,-0.151,-0.151,0.000,0.000,0.000
1643146646762969088,2022-01-25-21:37:26,10.1.1.13,38,-0.161,-0.161,-0.161,0.000,0.000,0.000
1643146646962380032,2022-01-25-21:37:26,10.1.1.13,36,-0.171,-0.171,-0.171,0.000,0.000,0.000
1643146647163328000,2022-01-25-21:37:27,10.1.1.13,36,-0.181,-0.181,-0.181,0.000,0.000,0.000
1643146647363019008,2022-01-25-21:37:27,10.1.1.13,34,-0.190,-0.190,-0.190,0.000,0.000,0.000
1643146647565574912,2022-01-25-21:37:27,10.1.1.13,36,-0.200,-0.200,-0.200,0.000,0.000,0.000
1643146647763802112,2022-01-25-21:37:27,10.1.1.13,33,-0.210,-0.210,-0.210,0.000,0.000,0.000
1643146647962737920,2022-01-25-21:37:27,10.1.1.13,30,-0.220,-0.220,-0.220,0.000,0.000,0.000
1643146648166505984,2022-01-25-21:37:28,10.1.1.13,33,-0.230,-0.230,-0.230,0.000,0.000,0.000
1643146648362673920,2022-01-25-21:37:28,10.1.1.13,29,-0.240,-0.240,-0.240,0.000,0.000,0.000
1643146648563512064,2022-01-25-21:37:28,10.1.1.13,29,-0.250,-0.250,-0.250,0.000,0.000,0.000
1643146648763042048,2022-01-25-21:37:28,10.1.1.13,27,-0.260,-0.260,-0.260,0.000,0.000,0.000
1643146648962960128,2022-01-25-21:37:28,10.1.1.13,26,-0.270,-0.270,-0.270,0.000,0.000,0.000
1643146649182526976,2022-01-25-21:37:29,10.1.1.13,45,-0.281,-0.281,-0.281,0.000,0.000,0.000
1643146649383862016,2022-01-25-21:37:29,10.1.1.13,44,-0.291,-0.291,-0.291,0.000,0.000,0.000
1643146649581752064,2022-01-25-21:37:29,10.1.1.13,41,-0.301,-0.301,-0.301,0.000,0.000,0.000
1643146649782462976,2022-01-25-21:37:29,10.1.1.13,41,-0.311,-0.311,-0.311,0.000,0.000,0.000
1643146649983150080,2022-01-25-21:37:29,10.1.1.13,41,-0.321,-0.321,-0.321,0.000,0.000,0.000
1643146650187852032,2022-01-25-21:37:30,10.1.1.13,44,-0.331,-0.331,-0.331,0.000,0.000,0.000
1643146650385714176,2022-01-25-21:37:30,10.1.1.13,29,-0.340,-0.340,-0.340,0.000,0.000,0.000
1643146650697060096,2022-01-25-21:37:30,10.1.1.13,74,-0.351,-0.351,-0.351,0.000,0.000,0.000
1643146650863924992,2022-01-25-21:37:30,10.1.1.13,37,-0.361,-0.361,-0.361,0.000,0.000,0.000
1643146651063836928,2022-01-25-21:37:31,10.1.1.13,36,-0.371,-0.371,-0.371,0.000,0.000,0.000
1643146651316246016,2022-01-25-21:37:31,10.1.1.13,71,-0.381,-0.381,-0.381,0.000,0.000,0.000
1643146651495191040,2022-01-25-21:37:31,10.1.1.13,49,-0.391,-0.391,-0.391,0.000,0.000,0.000
1643146651723670016,2022-01-25-21:37:31,10.1.1.13,67,-0.401,-0.401,-0.401,0.000,0.000,0.000
1643146651952683008,2022-01-25-21:37:31,10.1.1.13,49,-0.411,-0.411,-0.411,0.000,0.000,0.000
1643146652187879168,2022-01-25-21:37:32,10.1.1.13,63,-0.421,-0.421,-0.421,0.000,0.000,0.000
1643146652425028096,2022-01-25-21:37:32,10.1.1.13,53,-0.430,-0.430,-0.430,0.000,0.000,0.000
1643146652644563968,2022-01-25-21:37:32,10.1.1.13,34,-0.440,-0.440,-0.440,0.000,0.000,0.000
1643146652844513024,2022-01-25-21:37:32,10.1.1.13,33,-0.450,-0.450,-0.450,0.000,0.000,0.000
1643146653159034112,2022-01-25-21:37:33,10.1.1.13,140,-0.461,-0.461,-0.461,0.000,0.000,0.000
1643146653308366080,2022-01-25-21:37:33,10.1.1.13,40,-0.471,-0.471,-0.471,0.000,0.000,0.000
1643146653462610944,2022-01-25-21:37:33,10.1.1.13,34,-0.480,-0.480,-0.480,0.000,0.000,0.000
1643146653657697792,2022-01-25-21:37:33,10.1.1.13,13,-0.488,-0.488,-0.488,0.000,0.000,0.000
1643146653884143104,2022-01-25-21:37:33,10.1.1.13,45,-0.479,-0.479,-0.479,0.000,0.000,0.000
1643146654088460032,2022-01-25-21:37:34,10.1.1.13,46,-0.469,-0.469,-0.469,0.000,0.000,0.000
1643146654307164928,2022-01-25-21:37:34,10.1.1.13,61,-0.459,-0.459,-0.459,0.000,0.000,0.000
1643146654486084864,2022-01-25-21:37:34,10.1.1.13,38,-0.449,-0.449,-0.449,0.000,0.000,0.000
1643146654683863040,2022-01-25-21:37:34,10.1.1.13,35,-0.440,-0.440,-0.440,0.000,0.000,0.000
1643146654882772992,2022-01-25-21:37:34,10.1.1.13,33,-0.430,-0.430,-0.430,0.000,0.000,0.000
1643146655083756032,2022-01-25-21:37:35,10.1.1.13,33,-0.420,-0.420,-0.420,0.000,0.000,0.000
1643146655282750976,2022-01-25-21:37:35,10.1.1.13,30,-0.410,-0.410,-0.410,0.000,0.000,0.000
1643146655483459840,2022-01-25-21:37:35,10.1.1.13,30,-0.400,-0.400,-0.400,0.000,0.000,0.000
1643146655683486976,2022-01-25-21:37:35,10.1.1.13,28,-0.390,-0.390,-0.390,0.000,0.000,0.000
1643146655902582784,2022-01-25-21:37:35,10.1.1.13,42,-0.379,-0.379,-0.379,0.000,0.000,0.000
1643146656103152896,2022-01-25-21:37:36,10.1.1.13,42,-0.369,-0.369,-0.369,0.000,0.000,0.000
1643146656305507840,2022-01-25-21:37:36,10.1.1.13,43,-0.359,-0.359,-0.359,0.000,0.000,0.000
1643146656506125056,2022-01-25-21:37:36,10.1.1.13,38,-0.349,-0.349,-0.349,0.000,0.000,0.000
1643146656702521088,2022-01-25-21:37:36,10.1.1.13,35,-0.339,-0.339,-0.339,0.000,0.000,0.000
1643146656902713088,2022-01-25-21:37:36,10.1.1.13,34,-0.329,-0.329,-0.329,0.000,0.000,0.000
1643146657102588928,2022-01-25-21:37:37,10.1.1.13,32,-0.320,-0.320,-0.320,0.000,0.000,0.000
1643146657302486784,2022-01-25-21:37:37,10.1.1.13,30,-0.310,-0.310,-0.310,0.000,0.000,0.000
1643146657502604032,2022-01-25-21:37:37,10.1.1.13,29,-0.300,-0.300,-0.300,0.000,0.000,0.000
1643146657736460032,2022-01-25-21:37:37,10.1.1.13,57,-0.289,-0.289,-0.289,0.000,0.000,0.000
1643146658054987008,2022-01-25-21:37:38,10.1.1.13,167,-0.280,-0.280,-0.280,0.000,0.000,0.000
1643146658157537024,2022-01-25-21:37:38,10.1.1.13,59,-0.270,-0.270,-0.270,0.000,0.000,0.000
1643146658383694848,2022-01-25-21:37:38,10.1.1.13,76,-0.259,-0.259,-0.259,0.000,0.000,0.000
1643146658624211200,2022-01-25-21:37:38,10.1.1.13,67,-0.249,-0.249,-0.249,0.000,0.000,0.000
1643146658799531008,2022-01-25-21:37:38,10.1.1.13,56,-0.240,-0.240,-0.240,0.000,0.000,0.000
1643146658966995968,2022-01-25-21:37:38,10.1.1.13,36,-0.230,-0.230,-0.230,0.000,0.000,0.000
1643146659162374912,2022-01-25-21:37:39,10.1.1.13,28,-0.220,-0.220,-0.220,0.000,0.000,0.000
1643146659346995968,2022-01-25-21:37:39,10.1.1.13,-11,-0.212,-0.212,-0.212,0.000,0.000,0.000
1643146659564715008,2022-01-25-21:37:39,10.1.1.13,27,-0.200,-0.200,-0.200,0.000,0.000,0.000
1643146659766944000,2022-01-25-21:37:39,10.1.1.13,29,-0.190,-0.190,-0.190,0.000,0.000,0.000
1643146660012253952,2022-01-25-21:37:39,10.1.1.13,45,-0.179,-0.179,-0.179,0.000,0.000,0.000
1643146660192733952,2022-01-25-21:37:40,10.1.1.13,46,-0.170,-0.170,-0.170,0.000,0.000,0.000
1643146660405661952,2022-01-25-21:37:40,10.1.1.13,52,-0.160,-0.160,-0.160,0.000,0.000,0.000
1643146660646337024,2022-01-25-21:37:40,10.1.1.13,71,-0.150,-0.150,-0.150,0.000,0.000,0.000
1643146660897658112,2022-01-25-21:37:40,10.1.1.13,114,-0.139,-0.139,-0.139,0.000,0.000,0.000
1643146661027632896,2022-01-25-21:37:41,10.1.1.13,41,-0.129,-0.129,-0.129,0.000,0.000,0.000
1643146661283356928,2022-01-25-21:37:41,10.1.1.13,84,-0.120,-0.120,-0.120,0.000,0.000,0.000
1643146661454514944,2022-01-25-21:37:41,10.1.1.13,41,-0.110,-0.110,-0.110,0.000,0.000,0.000
1643146661658761984,2022-01-25-21:37:41,10.1.1.13,36,-0.100,-0.100,-0.100,0.000,0.000,0.000
1643146661843412992,2022-01-25-21:37:41,10.1.1.13,27,-0.090,-0.090,-0.090,0.000,0.000,0.000
1643146662043294976,2022-01-25-21:37:42,10.1.1.13,25,-0.080,-0.080,-0.080,0.000,0.000,0.000
1643146662263035136,2022-01-25-21:37:42,10.1.1.13,42,-0.069,-0.069,-0.069,0.000,0.000,0.000
1643146662462523904,2022-01-25-21:37:42,10.1.1.13,40,-0.059,-0.059,-0.059,0.000,0.000,0.000
1643146662663362048,2022-01-25-21:37:42,10.1.1.13,40,-0.049,-0.049,-0.049,0.000,0.000,0.000
1643146662868212992,2022-01-25-21:37:42,10.1.1.13,43,-0.039,-0.039,-0.039,0.000,0.000,0.000
1643146663062972160,2022-01-25-21:37:43,10.1.1.13,37,-0.029,-0.029,-0.029,0.000,0.000,0.000
1643146663262763008,2022-01-25-21:37:43,10.1.1.13,35,-0.020,-0.020,-0.020,0.000,0.000,0.000
1643146663463090944,2022-01-25-21:37:43,10.1.1.13,34,-0.010,-0.010,-0.010,0.000,0.000,0.000
1643146663645658880,2022-01-25-21:37:43,10.1.1.13,15,-0.001,-0.001,-0.001,0.000,0.000,0.000
1643146663863794176,2022-01-25-21:37:43,10.1.1.13,31,-0.010,-0.010,-0.010,0.000,0.000,0.000
1643146664064520960,2022-01-25-21:37:44,10.1.1.13,29,-0.020,-0.020,-0.020,0.000,0.000,0.000
1643146664284132096,2022-01-25-21:37:44,10.1.1.13,42,-0.031,-0.031,-0.031,0.000,0.000,0.000
1643146664493083904,2022-01-25-21:37:44,10.1.1.13,45,-0.040,-0.040,-0.040,0.000,0.000,0.000
1643146664713949952,2022-01-25-21:37:44,10.1.1.13,52,-0.051,-0.051,-0.051,0.000,0.000,0.000
1643146664917419008,2022-01-25-21:37:44,10.1.1.13,53,-0.061,-0.061,-0.061,0.000,0.000,0.000
1643146665114317056,2022-01-25-21:37:45,10.1.1.13,28,-0.070,-0.070,-0.070,0.000,0.000,0.000
1643146665303309056,2022-01-25-21:37:45,10.1.1.13,20,-0.080,-0.080,-0.080,0.000,0.000,0.000
1643146665523298048,2022-01-25-21:37:45,10.1.1.13,36,-0.090,-0.090,-0.090,0.000,0.000,0.000
1643146665722678016,2022-01-25-21:37:45,10.1.1.13,18,-0.100,-0.100,-0.100,0.000,0.000,0.000
1643146665942488064,2022-01-25-21:37:45,10.1.1.13,34,-0.111,-0.111,-0.111,0.000,0.000,0.000
1643146666147133952,2022-01-25-21:37:46,10.1.1.13,38,-0.120,-0.120,-0.120,0.000,0.000,0.000
1643146666347459072,2022-01-25-21:37:46,10.1.1.13,36,-0.130,-0.130,-0.130,0.000,0.000,0.000
1643146666542426112,2022-01-25-21:37:46,10.1.1.13,30,-0.140,-0.140,-0.140,0.000,0.000,0.000
1643146666743582976,2022-01-25-21:37:46,10.1.1.13,29,-0.150,-0.150,-0.150,0.000,0.000,0.000
1643146666943877888,2022-01-25-21:37:46,10.1.1.13,29,-0.160,-0.160,-0.160,0.000,0.000,0.000
1643146667143353856,2022-01-25-21:37:47,10.1.1.13,27,-0.170,-0.170,-0.170,0.000,0.000,0.000
1643146667343337984,2022-01-25-21:37:47,10.1.1.13,24,-0.180,-0.180,-0.180,0.000,0.000,0.000
1643146667566086912,2022-01-25-21:37:47,10.1.1.13,45,-0.191,-0.191,-0.191,0.000,0.000,0.000
1643146667799814912,2022-01-25-21:37:47,10.1.1.13,66,-0.200,-0.200,-0.200,0.000,0.000,0.000
1643146667963732992,2022-01-25-21:37:47,10.1.1.13,27,-0.210,-0.210,-0.210,0.000,0.000,0.000
1643146668185203200,2022-01-25-21:37:48,10.1.1.13,43,-0.221,-0.221,-0.221,0.000,0.000,0.000
1643146668508178944,2022-01-25-21:37:48,10.1.1.13,163,-0.231,-0.231,-0.231,0.000,0.000,0.000
1643146668688945920,2022-01-25-21:37:48,10.1.1.13,81,-0.240,-0.240,-0.240,0.000,0.000,0.000
1643146668842832128,2022-01-25-21:37:48,10.1.1.13,39,-0.250,-0.250,-0.250,0.000,0.000,0.000
1643146669082561024,2022-01-25-21:37:49,10.1.1.13,54,-0.260,-0.260,-0.260,0.000,0.000,0.000
1643146669262752000,2022-01-25-21:37:49,10.1.1.13,33,-0.270,-0.270,-0.270,0.000,0.000,0.000
1643146669593808896,2022-01-25-21:37:49,10.1.1.13,160,-0.281,-0.281,-0.281,0.000,0.000,0.000
1643146669823394048,2022-01-25-21:37:49,10.1.1.13,165,-0.290,-0.290,-0.290,0.000,0.000,0.000
1643146669920129024,2022-01-25-21:37:49,10.1.1.13,44,-0.300,-0.300,-0.300,0.000,0.000,0.000
1643146670206949888,2022-01-25-21:37:50,10.1.1.13,42,-0.311,-0.311,-0.311,0.000,0.000,0.000
1643146670403428096,2022-01-25-21:37:50,10.1.1.13,37,-0.321,-0.321,-0.321,0.000,0.000,0.000
1643146670636393984,2022-01-25-21:37:50,10.1.1.13,52,-0.331,-0.331,-0.331,0.000,0.000,0.000
1643146671013483008,2022-01-25-21:37:51,10.1.1.13,214,-0.346,-0.346,-0.346,0.000,0.000,0.000
1643146671183908096,2022-01-25-21:37:51,10.1.1.13,68,-0.350,-0.350,-0.350,0.000,0.000,0.000
1643146671343282944,2022-01-25-21:37:51,10.1.1.13,27,-0.360,-0.360,-0.360,0.000,0.000,0.000
1643146671567801088,2022-01-25-21:37:51,10.1.1.13,48,-0.371,-0.371,-0.371,0.000,0.000,0.000
1643146671815852032,2022-01-25-21:37:51,10.1.1.13,86,-0.380,-0.380,-0.380,0.000,0.000,0.000
1643146671983527936,2022-01-25-21:37:51,10.1.1.13,44,-0.391,-0.391,-0.391,0.000,0.000,0.000
1643146672206923008,2022-01-25-21:37:52,10.1.1.13,62,-0.401,-0.401,-0.401,0.000,0.000,0.000
1643146672415077888,2022-01-25-21:37:52,10.1.1.13,57,-0.411,-0.411,-0.411,0.000,0.000,0.000
1643146672650074112,2022-01-25-21:37:52,10.1.1.13,71,-0.421,-0.421,-0.421,0.000,0.000,0.000
1643146672804567040,2022-01-25-21:37:52,10.1.1.13,44,-0.431,-0.431,-0.431,0.000,0.000,0.000
1643146673002834944,2022-01-25-21:37:53,10.1.1.13,40,-0.441,-0.441,-0.441,0.000,0.000,0.000
1643146673203140096,2022-01-25-21:37:53,10.1.1.13,40,-0.451,-0.451,-0.451,0.000,0.000,0.000
1643146673403176960,2022-01-25-21:37:53,10.1.1.13,38,-0.461,-0.461,-0.461,0.000,0.000,0.000
1643146673613949952,2022-01-25-21:37:53,10.1.1.13,37,-0.471,-0.471,-0.471,0.000,0.000,0.000
1643146673802927104,2022-01-25-21:37:53,10.1.1.13,35,-0.481,-0.481,-0.481,0.000,0.000,0.000
1643146673975971840,2022-01-25-21:37:53,10.1.1.13,6,-0.489,-0.489,-0.489,0.000,0.000,0.000
1643146674211361024,2022-01-25-21:37:54,10.1.1.13,35,-0.480,-0.480,-0.480,0.000,0.000,0.000
1643146674429136128,2022-01-25-21:37:54,10.1.1.13,46,-0.469,-0.469,-0.469,0.000,0.000,0.000
1643146674633888000,2022-01-25-21:37:54,10.1.1.13,39,-0.460,-0.460,-0.460,0.000,0.000,0.000
1643146674827613952,2022-01-25-21:37:54,10.1.1.13,31,-0.450,-0.450,-0.450,0.000,0.000,0.000
1643146675022483968,2022-01-25-21:37:55,10.1.1.13,25,-0.440,-0.440,-0.440,0.000,0.000,0.000
1643146675243087104,2022-01-25-21:37:55,10.1.1.13,44,-0.429,-0.429,-0.429,0.000,0.000,0.000
1643146675456367872,2022-01-25-21:37:55,10.1.1.13,56,-0.419,-0.419,-0.419,0.000,0.000,0.000
1643146675741278976,2022-01-25-21:37:55,10.1.1.13,135,-0.409,-0.409,-0.409,0.000,0.000,0.000
1643146675878628096,2022-01-25-21:37:55,10.1.1.13,60,-0.399,-0.399,-0.399,0.000,0.000,0.000
1643146676063585024,2022-01-25-21:37:56,10.1.1.13,43,-0.389,-0.389,-0.389,0.000,0.000,0.000
1643146676375332096,2022-01-25-21:37:56,10.1.1.13,100,-0.380,-0.380,-0.380,0.000,0.000,0.000
1643146676574460928,2022-01-25-21:37:56,10.1.1.13,85,-0.370,-0.370,-0.370,0.000,0.000,0.000
1643146676728740864,2022-01-25-21:37:56,10.1.1.13,35,-0.360,-0.360,-0.360,0.000,0.000,0.000
1643146676955162112,2022-01-25-21:37:56,10.1.1.13,60,-0.350,-0.350,-0.350,0.000,0.000,0.000
1643146677262886912,2022-01-25-21:37:57,10.1.1.13,71,-0.339,-0.339,-0.339,0.000,0.000,0.000
1643146677538074880,2022-01-25-21:37:57,10.1.1.13,121,-0.329,-0.329,-0.329,0.000,0.000,0.000
1643146677642761984,2022-01-25-21:37:57,10.1.1.13,32,-0.320,-0.320,-0.320,0.000,0.000,0.000
1643146677871419904,2022-01-25-21:37:57,10.1.1.13,36,-0.310,-0.310,-0.310,0.000,0.000,0.000
1643146678082766080,2022-01-25-21:37:58,10.1.1.13,38,-0.300,-0.300,-0.300,0.000,0.000,0.000
1643146678348762112,2022-01-25-21:37:58,10.1.1.13,55,-0.290,-0.290,-0.290,0.000,0.000,0.000
1643146678578167040,2022-01-25-21:37:58,10.1.1.13,81,-0.280,-0.280,-0.280,0.000,0.000,0.000
1643146678750938880,2022-01-25-21:37:58,10.1.1.13,49,-0.269,-0.269,-0.269,0.000,0.000,0.000
1643146678943425024,2022-01-25-21:37:58,10.1.1.13,40,-0.259,-0.259,-0.259,0.000,0.000,0.000
1643146679142987008,2022-01-25-21:37:59,10.1.1.13,38,-0.249,-0.249,-0.249,0.000,0.000,0.000
1643146679343911936,2022-01-25-21:37:59,10.1.1.13,39,-0.239,-0.239,-0.239,0.000,0.000,0.000
1643146679543083008,2022-01-25-21:37:59,10.1.1.13,37,-0.229,-0.229,-0.229,0.000,0.000,0.000
1643146679742556160,2022-01-25-21:37:59,10.1.1.13,35,-0.219,-0.219,-0.219,0.000,0.000,0.000
1643146679942959104,2022-01-25-21:37:59,10.1.1.13,35,-0.210,-0.210,-0.210,0.000,0.000,0.000
1643146680143228160,2022-01-25-21:38:00,10.1.1.13,33,-0.200,-0.200,-0.200,0.000,0.000,0.000
1643146680343246848,2022-01-25-21:38:00,10.1.1.13,32,-0.190,-0.190,-0.190,0.000,0.000,0.000
1643146680544032000,2022-01-25-21:38:00,10.1.1.13,30,-0.180,-0.180,-0.180,0.000,0.000,0.000
1643146680743138048,2022-01-25-21:38:00,10.1.1.13,28,-0.170,-0.170,-0.170,0.000,0.000,0.000
1643146680943523840,2022-01-25-21:38:00,10.1.1.13,27,-0.160,-0.160,-0.160,0.000,0.000,0.000
1643146681143047168,2022-01-25-21:38:01,10.1.1.13,26,-0.150,-0.150,-0.150,0.000,0.000,0.000
1643146681363774976,2022-01-25-21:38:01,10.1.1.13,45,-0.139,-0.139,-0.139,0.000,0.000,0.000
1643146681563747840,2022-01-25-21:38:01,10.1.1.13,44,-0.129,-0.129,-0.129,0.000,0.000,0.000
1643146681774731008,2022-01-25-21:38:01,10.1.1.13,38,-0.119,-0.119,-0.119,0.000,0.000,0.000
1643146681964130048,2022-01-25-21:38:01,10.1.1.13,37,-0.109,-0.109,-0.109,0.000,0.000,0.000
1643146682167032832,2022-01-25-21:38:02,10.1.1.13,37,-0.100,-0.100,-0.100,0.000,0.000,0.000
1643146682363706112,2022-01-25-21:38:02,10.1.1.13,29,-0.090,-0.090,-0.090,0.000,0.000,0.000
1643146682562984960,2022-01-25-21:38:02,10.1.1.13,27,-0.080,-0.080,-0.080,0.000,0.000,0.000
1643146682767002112,2022-01-25-21:38:02,10.1.1.13,29,-0.070,-0.070,-0.070,0.000,0.000,0.000
1643146682983465984,2022-01-25-21:38:02,10.1.1.13,44,-0.059,-0.059,-0.059,0.000,0.000,0.000
1643146683182641152,2022-01-25-21:38:03,10.1.1.13,42,-0.049,-0.049,-0.049,0.000,0.000,0.000
1643146683383330048,2022-01-25-21:38:03,10.1.1.13,42,-0.039,-0.039,-0.039,0.000,0.000,0.000
1643146683583838976,2022-01-25-21:38:03,10.1.1.13,41,-0.029,-0.029,-0.029,0.000,0.000,0.000
1643146683784507136,2022-01-25-21:38:03,10.1.1.13,41,-0.019,-0.019,-0.019,0.000,0.000,0.000
1643146683982716160,2022-01-25-21:38:03,10.1.1.13,38,-0.009,-0.009,-0.009,0.000,0.000,0.000
1643146684163738880,2022-01-25-21:38:04,10.1.1.13,18,-0.000,-0.000,-0.000,0.000,0.000,0.000
1643146684382603776,2022-01-25-21:38:04,10.1.1.13,36,-0.011,-0.011,-0.011,0.000,0.000,0.000
1643146684583201024,2022-01-25-21:38:04,10.1.1.13,35,-0.021,-0.021,-0.021,0.000,0.000,0.000
1643146684783056128,2022-01-25-21:38:04,10.1.1.13,34,-0.030,-0.030,-0.030,0.000,0.000,0.000
1643146684983462144,2022-01-25-21:38:04,10.1.1.13,32,-0.040,-0.040,-0.040,0.000,0.000,0.000
1643146685183211008,2022-01-25-21:38:05,10.1.1.13,31,-0.050,-0.050,-0.050,0.000,0.000,0.000
1643146685383938048,2022-01-25-21:38:05,10.1.1.13,31,-0.060,-0.060,-0.060,0.000,0.000,0.000
1643146685596023040,2022-01-25-21:38:05,10.1.1.13,42,-0.070,-0.070,-0.070,0.000,0.000,0.000
1643146685782784000,2022-01-25-21:38:05,10.1.1.13,28,-0.080,-0.080,-0.080,0.000,0.000,0.000
1643146685983943936,2022-01-25-21:38:05,10.1.1.13,29,-0.090,-0.090,-0.090,0.000,0.000,0.000
1643146686182439936,2022-01-25-21:38:06,10.1.1.13,26,-0.100,-0.100,-0.100,0.000,0.000,0.000
1643146686382710016,2022-01-25-21:38:06,10.1.1.13,25,-0.110,-0.110,-0.110,0.000,0.000,0.000
1643146686582461952,2022-01-25-21:38:06,10.1.1.13,24,-0.120,-0.120,-0.120,0.000,0.000,0.000
1643146686803927808,2022-01-25-21:38:06,10.1.1.13,45,-0.131,-0.131,-0.131,0.000,0.000,0.000
1643146687002580992,2022-01-25-21:38:07,10.1.1.13,42,-0.141,-0.141,-0.141,0.000,0.000,0.000
1643146687202861056,2022-01-25-21:38:07,10.1.1.13,41,-0.151,-0.151,-0.151,0.000,0.000,0.000
1643146687402400000,2022-01-25-21:38:07,10.1.1.13,39,-0.161,-0.161,-0.161,0.000,0.000,0.000
1643146687611386112,2022-01-25-21:38:07,10.1.1.13,46,-0.171,-0.171,-0.171,0.000,0.000,0.000
1643146687802653952,2022-01-25-21:38:07,10.1.1.13,36,-0.181,-0.181,-0.181,0.000,0.000,0.000
1643146688004993792,2022-01-25-21:38:08,10.1.1.13,38,-0.191,-0.191,-0.191,0.000,0.000,0.000
1643146688229124096,2022-01-25-21:38:08,10.1.1.13,53,-0.200,-0.200,-0.200,0.000,0.000,0.000
1643146688450455808,2022-01-25-21:38:08,10.1.1.13,60,-0.210,-0.210,-0.210,0.000,0.000,0.000
1643146688754883072,2022-01-25-21:38:08,10.1.1.13,137,-0.220,-0.220,-0.220,0.000,0.000,0.000
1643146688867383040,2022-01-25-21:38:08,10.1.1.13,-14,-0.226,-0.226,-0.226,0.000,0.000,0.000
1643146689179060992,2022-01-25-21:38:09,10.1.1.13,122,-0.240,-0.240,-0.240,0.000,0.000,0.000
1643146689318528000,2022-01-25-21:38:09,10.1.1.13,43,-0.250,-0.250,-0.250,0.000,0.000,0.000
1643146689510420992,2022-01-25-21:38:09,10.1.1.13,27,-0.260,-0.260,-0.260,0.000,0.000,0.000
1643146689708441088,2022-01-25-21:38:09,10.1.1.13,30,-0.270,-0.270,-0.270,0.000,0.000,0.000
1643146689947896832,2022-01-25-21:38:09,10.1.1.13,64,-0.281,-0.281,-0.281,0.000,0.000,0.000
1643146690133054976,2022-01-25-21:38:10,10.1.1.13,39,-0.291,-0.291,-0.291,0.000,0.000,0.000
1643146690378693120,2022-01-25-21:38:10,10.1.1.13,94,-0.301,-0.301,-0.301,0.000,0.000,0.000
1643146690537689088,2022-01-25-21:38:10,10.1.1.13,48,-0.310,-0.310,-0.310,0.000,0.000,0.000
1643146690755747072,2022-01-25-21:38:10,10.1.1.13,59,-0.320,-0.320,-0.320,0.000,0.000,0.000
1643146690929630976,2022-01-25-21:38:10,10.1.1.13,31,-0.330,-0.330,-0.330,0.000,0.000,0.000
1643146691144610816,2022-01-25-21:38:11,10.1.1.13,45,-0.341,-0.341,-0.341,0.000,0.000,0.000
1643146691342946048,2022-01-25-21:38:11,10.1.1.13,42,-0.351,-0.351,-0.351,0.000,0.000,0.000
1643146691542584832,2022-01-25-21:38:11,10.1.1.13,40,-0.361,-0.361,-0.361,0.000,0.000,0.000
1643146691742692864,2022-01-25-21:38:11,10.1.1.13,39,-0.371,-0.371,-0.371,0.000,0.000,0.000
1643146691943945984,2022-01-25-21:38:11,10.1.1.13,39,-0.381,-0.381,-0.381,0.000,0.000,0.000
1643146692143357952,2022-01-25-21:38:12,10.1.1.13,34,-0.390,-0.390,-0.390,0.000,0.000,0.000
1643146692351830016,2022-01-25-21:38:12,10.1.1.13,36,-0.400,-0.400,-0.400,0.000,0.000,0.000
1643146692604089088,2022-01-25-21:38:12,10.1.1.13,86,-0.411,-0.411,-0.411,0.000,0.000,0.000
1643146692762810112,2022-01-25-21:38:12,10.1.1.13,31,-0.420,-0.420,-0.420,0.000,0.000,0.000
1643146692963347968,2022-01-25-21:38:12,10.1.1.13,30,-0.430,-0.430,-0.430,0.000,0.000,0.000
1643146693163099136,2022-01-25-21:38:13,10.1.1.13,28,-0.440,-0.440,-0.440,0.000,0.000,0.000
1643146693363159808,2022-01-25-21:38:13,10.1.1.13,27,-0.450,-0.450,-0.450,0.000,0.000,0.000
1643146693563611136,2022-01-25-21:38:13,10.1.1.13,26,-0.460,-0.460,-0.460,0.000,0.000,0.000
1643146693782923008,2022-01-25-21:38:13,10.1.1.13,44,-0.471,-0.471,-0.471,0.000,0.000,0.000
1643146693982625024,2022-01-25-21:38:13,10.1.1.13,42,-0.481,-0.481,-0.481,0.000,0.000,0.000
1643146694148214016,2022-01-25-21:38:14,10.1.1.13,6,-0.489,-0.489,-0.489,0.000,0.000,0.000
1643146694382614016,2022-01-25-21:38:14,10.1.1.13,39,-0.479,-0.479,-0.479,0.000,0.000,0.000
1643146694582865920,2022-01-25-21:38:14,10.1.1.13,37,-0.469,-0.469,-0.469,0.000,0.000,0.000
1643146694782784000,2022-01-25-21:38:14,10.1.1.13,34,-0.460,-0.460,-0.460,0.000,0.000,0.000
1643146694983057920,2022-01-25-21:38:14,10.1.1.13,31,-0.450,-0.450,-0.450,0.000,0.000,0.000
1643146695183033088,2022-01-25-21:38:15,10.1.1.13,30,-0.440,-0.440,-0.440,0.000,0.000,0.000
1643146695436579840,2022-01-25-21:38:15,10.1.1.13,55,-0.429,-0.429,-0.429,0.000,0.000,0.000
1643146695644374016,2022-01-25-21:38:15,10.1.1.13,39,-0.419,-0.419,-0.419,0.000,0.000,0.000
1643146695844347904,2022-01-25-21:38:15,10.1.1.13,36,-0.410,-0.410,-0.410,0.000,0.000,0.000
1643146696047386880,2022-01-25-21:38:16,10.1.1.13,27,-0.400,-0.400,-0.400,0.000,0.000,0.000
1643146696263360000,2022-01-25-21:38:16,10.1.1.13,38,-0.389,-0.389,-0.389,0.000,0.000,0.000
1643146696464119808,2022-01-25-21:38:16,10.1.1.13,36,-0.380,-0.380,-0.380,0.000,0.000,0.000
1643146696664532992,2022-01-25-21:38:16,10.1.1.13,34,-0.370,-0.370,-0.370,0.000,0.000,0.000
1643146696862416128,2022-01-25-21:38:16,10.1.1.13,31,-0.360,-0.360,-0.360,0.000,0.000,0.000
1643146697063057920,2022-01-25-21:38:17,10.1.1.13,29,-0.350,-0.350,-0.350,0.000,0.000,0.000
1643146697262574080,2022-01-25-21:38:17,10.1.1.13,28,-0.340,-0.340,-0.340,0.000,0.000,0.000
1643146697463997952,2022-01-25-21:38:17,10.1.1.13,28,-0.330,-0.330,-0.330,0.000,0.000,0.000
1643146697663310080,2022-01-25-21:38:17,10.1.1.13,27,-0.320,-0.320,-0.320,0.000,0.000,0.000
1643146697961982976,2022-01-25-21:38:17,10.1.1.13,80,-0.309,-0.309,-0.309,0.000,0.000,0.000
1643146698087697152,2022-01-25-21:38:18,10.1.1.13,43,-0.299,-0.299,-0.299,0.000,0.000,0.000
1643146698284574976,2022-01-25-21:38:18,10.1.1.13,37,-0.289,-0.289,-0.289,0.000,0.000,0.000
1643146698483695104,2022-01-25-21:38:18,10.1.1.13,27,-0.280,-0.280,-0.280,0.000,0.000,0.000
1643146698703151872,2022-01-25-21:38:18,10.1.1.13,45,-0.269,-0.269,-0.269,0.000,0.000,0.000
1643146698903198976,2022-01-25-21:38:18,10.1.1.13,39,-0.259,-0.259,-0.259,0.000,0.000,0.000
1643146699103420928,2022-01-25-21:38:19,10.1.1.13,38,-0.249,-0.249,-0.249,0.000,0.000,0.000
1643146699303399168,2022-01-25-21:38:19,10.1.1.13,36,-0.239,-0.239,-0.239,0.000,0.000,0.000
1643146699502929920,2022-01-25-21:38:19,10.1.1.13,34,-0.230,-0.230,-0.230,0.000,0.000,0.000
1643146699703726080,2022-01-25-21:38:19,10.1.1.13,33,-0.220,-0.220,-0.220,0.000,0.000,0.000
1643146699934149888,2022-01-25-21:38:19,10.1.1.13,56,-0.209,-0.209,-0.209,0.000,0.000,0.000
1643146700132865792,2022-01-25-21:38:20,10.1.1.13,38,-0.200,-0.200,-0.200,0.000,0.000,0.000
1643146700322963968,2022-01-25-21:38:20,10.1.1.13,27,-0.190,-0.190,-0.190,0.000,0.000,0.000
1643146700536060160,2022-01-25-21:38:20,10.1.1.13,39,-0.180,-0.180,-0.180,0.000,0.000,0.000
1643146700754230016,2022-01-25-21:38:20,10.1.1.13,50,-0.169,-0.169,-0.169,0.000,0.000,0.000
1643146700999618048,2022-01-25-21:38:20,10.1.1.13,77,-0.160,-0.160,-0.160,0.000,0.000,0.000
1643146701202840064,2022-01-25-21:38:21,10.1.1.13,65,-0.149,-0.149,-0.149,0.000,0.000,0.000
1643146701416706048,2022-01-25-21:38:21,10.1.1.13,77,-0.139,-0.139,-0.139,0.000,0.000,0.000
1643146701664425984,2022-01-25-21:38:21,10.1.1.13,108,-0.130,-0.130,-0.130,0.000,0.000,0.000
1643146701785080832,2022-01-25-21:38:21,10.1.1.13,25,-0.120,-0.120,-0.120,0.000,0.000,0.000
1643146702016793856,2022-01-25-21:38:22,10.1.1.13,44,-0.110,-0.110,-0.110,0.000,0.000,0.000
1643146702208837888,2022-01-25-21:38:22,10.1.1.13,30,-0.100,-0.100,-0.100,0.000,0.000,0.000
1643146702427069952,2022-01-25-21:38:22,10.1.1.13,45,-0.090,-0.090,-0.090,0.000,0.000,0.000
1643146702613635072,2022-01-25-21:38:22,10.1.1.13,36,-0.080,-0.080,-0.080,0.000,0.000,0.000
1643146702803024128,2022-01-25-21:38:22,10.1.1.13,26,-0.070,-0.070,-0.070,0.000,0.000,0.000
1643146703022886144,2022-01-25-21:38:23,10.1.1.13,43,-0.059,-0.059,-0.059,0.000,0.000,0.000
1643146703228854016,2022-01-25-21:38:23,10.1.1.13,44,-0.049,-0.049,-0.049,0.000,0.000,0.000
1643146703446235904,2022-01-25-21:38:23,10.1.1.13,55,-0.040,-0.040,-0.040,0.000,0.000,0.000
1643146703655158016,2022-01-25-21:38:23,10.1.1.13,59,-0.030,-0.030,-0.030,0.000,0.000,0.000
1643146703916829184,2022-01-25-21:38:23,10.1.1.13,85,-0.019,-0.019,-0.019,0.000,0.000,0.000
1643146704155312896,2022-01-25-21:38:24,10.1.1.13,48,-0.010,-0.010,-0.010,0.000,0.000,0.000
1643146704353779968,2022-01-25-21:38:24,10.1.1.13,14,-0.001,-0.001,-0.001,0.000,0.000,0.000
1643146704563163136,2022-01-25-21:38:24,10.1.1.13,30,-0.010,-0.010,-0.010,0.000,0.000,0.000
1643146704798940928,2022-01-25-21:38:24,10.1.1.13,59,-0.021,-0.021,-0.021,0.000,0.000,0.000
1643146705064201216,2022-01-25-21:38:25,10.1.1.13,69,-0.031,-0.031,-0.031,0.000,0.000,0.000
1643146705217392896,2022-01-25-21:38:25,10.1.1.13,72,-0.041,-0.041,-0.041,0.000,0.000,0.000
1643146705402523136,2022-01-25-21:38:25,10.1.1.13,37,-0.051,-0.051,-0.051,0.000,0.000,0.000
1643146705614537984,2022-01-25-21:38:25,10.1.1.13,46,-0.060,-0.060,-0.060,0.000,0.000,0.000
1643146705809243904,2022-01-25-21:38:25,10.1.1.13,39,-0.070,-0.070,-0.070,0.000,0.000,0.000
1643146706008279040,2022-01-25-21:38:26,10.1.1.13,26,-0.080,-0.080,-0.080,0.000,0.000,0.000
1643146706270999040,2022-01-25-21:38:26,10.1.1.13,88,-0.091,-0.091,-0.091,0.000,0.000,0.000
1643146706492086016,2022-01-25-21:38:26,10.1.1.13,106,-0.101,-0.101,-0.101,0.000,0.000,0.000
1643146706624676864,2022-01-25-21:38:26,10.1.1.13,35,-0.110,-0.110,-0.110,0.000,0.000,0.000
1643146706822727936,2022-01-25-21:38:26,10.1.1.13,31,-0.120,-0.120,-0.120,0.000,0.000,0.000
1643146707023747840,2022-01-25-21:38:27,10.1.1.13,30,-0.130,-0.130,-0.130,0.000,0.000,0.000
1643146707222841088,2022-01-25-21:38:27,10.1.1.13,28,-0.140,-0.140,-0.140,0.000,0.000,0.000
1643146707424838144,2022-01-25-21:38:27,10.1.1.13,28,-0.150,-0.150,-0.150,0.000,0.000,0.000
1643146707647367936,2022-01-25-21:38:27,10.1.1.13,46,-0.161,-0.161,-0.161,0.000,0.000,0.000
1643146707842807040,2022-01-25-21:38:27,10.1.1.13,40,-0.171,-0.171,-0.171,0.000,0.000,0.000
1643146708048939008,2022-01-25-21:38:28,10.1.1.13,40,-0.180,-0.180,-0.180,0.000,0.000,0.000
1643146708243459840,2022-01-25-21:38:28,10.1.1.13,34,-0.190,-0.190,-0.190,0.000,0.000,0.000
1643146708443465984,2022-01-25-21:38:28,10.1.1.13,32,-0.200,-0.200,-0.200,0.000,0.000,0.000
1643146708663384064,2022-01-25-21:38:28,10.1.1.13,45,-0.211,-0.211,-0.211,0.000,0.000,0.000
1643146708895410176,2022-01-25-21:38:28,10.1.1.13,63,-0.221,-0.221,-0.221,0.000,0.000,0.000
1643146709096888064,2022-01-25-21:38:29,10.1.1.13,75,-0.230,-0.230,-0.230,0.000,0.000,0.000
1643146709375794944,2022-01-25-21:38:29,10.1.1.13,137,-0.241,-0.241,-0.241,0.000,0.000,0.000
1643146709484857088,2022-01-25-21:38:29,10.1.1.13,39,-0.251,-0.251,-0.251,0.000,0.000,0.000
1643146709692656128,2022-01-25-21:38:29,10.1.1.13,43,-0.261,-0.261,-0.261,0.000,0.000,0.000
1643146709883879936,2022-01-25-21:38:29,10.1.1.13,37,-0.271,-0.271,-0.271,0.000,0.000,0.000
1643146710083117056,2022-01-25-21:38:30,10.1.1.13,35,-0.280,-0.280,-0.280,0.000,0.000,0.000
1643146710283752960,2022-01-25-21:38:30,10.1.1.13,34,-0.290,-0.290,-0.290,0.000,0.000,0.000
1643146710487411968,2022-01-25-21:38:30,10.1.1.13,33,-0.300,-0.300,-0.300,0.000,0.000,0.000
1643146710688654848,2022-01-25-21:38:30,10.1.1.13,34,-0.310,-0.310,-0.310,0.000,0.000,0.000
1643146710966355968,2022-01-25-21:38:30,10.1.1.13,97,-0.320,-0.320,-0.320,0.000,0.000,0.000
1643146711143587072,2022-01-25-21:38:31,10.1.1.13,43,-0.331,-0.331,-0.331,0.000,0.000,0.000
1643146711357598976,2022-01-25-21:38:31,10.1.1.13,56,-0.341,-0.341,-0.341,0.000,0.000,0.000
1643146711546721024,2022-01-25-21:38:31,10.1.1.13,43,-0.351,-0.351,-0.351,0.000,0.000,0.000
1643146711743824128,2022-01-25-21:38:31,10.1.1.13,39,-0.361,-0.361,-0.361,0.000,0.000,0.000
1643146711943331072,2022-01-25-21:38:31,10.1.1.13,37,-0.371,-0.371,-0.371,0.000,0.000,0.000
1643146712143891968,2022-01-25-21:38:32,10.1.1.13,35,-0.380,-0.380,-0.380,0.000,0.000,0.000
1643146712348684032,2022-01-25-21:38:32,10.1.1.13,38,-0.390,-0.390,-0.390,0.000,0.000,0.000
1643146712550157056,2022-01-25-21:38:32,10.1.1.13,36,-0.400,-0.400,-0.400,0.000,0.000,0.000
1643146712769155072,2022-01-25-21:38:32,10.1.1.13,55,-0.410,-0.410,-0.410,0.000,0.000,0.000
1643146712951518976,2022-01-25-21:38:32,10.1.1.13,34,-0.420,-0.420,-0.420,0.000,0.000,0.000
1643146713162856192,2022-01-25-21:38:33,10.1.1.13,47,-0.430,-0.430,-0.430,0.000,0.000,0.000
1643146713343106048,2022-01-25-21:38:33,10.1.1.13,27,-0.440,-0.440,-0.440,0.000,0.000,0.000
1643146713543446016,2022-01-25-21:38:33,10.1.1.13,26,-0.450,-0.450,-0.450,0.000,0.000,0.000
1643146713762959104,2022-01-25-21:38:33,10.1.1.13,44,-0.461,-0.461,-0.461,0.000,0.000,0.000
1643146713967108096,2022-01-25-21:38:33,10.1.1.13,45,-0.471,-0.471,-0.471,0.000,0.000,0.000
1643146714166654976,2022-01-25-21:38:34,10.1.1.13,41,-0.481,-0.481,-0.481,0.000,0.000,0.000
1643146714342736896,2022-01-25-21:38:34,10.1.1.13,18,-0.490,-0.490,-0.490,0.000,0.000,0.000
1643146714564472832,2022-01-25-21:38:34,10.1.1.13,39,-0.479,-0.479,-0.479,0.000,0.000,0.000
1643146714768291072,2022-01-25-21:38:34,10.1.1.13,36,-0.469,-0.469,-0.469,0.000,0.000,0.000
1643146714963388928,2022-01-25-21:38:34,10.1.1.13,33,-0.460,-0.460,-0.460,0.000,0.000,0.000
1643146715162658816,2022-01-25-21:38:35,10.1.1.13,32,-0.450,-0.450,-0.450,0.000,0.000,0.000
1643146715363610880,2022-01-25-21:38:35,10.1.1.13,32,-0.440,-0.440,-0.440,0.000,0.000,0.000
1643146715563725824,2022-01-25-21:38:35,10.1.1.13,31,-0.430,-0.430,-0.430,0.000,0.000,0.000
1643146715762921984,2022-01-25-21:38:35,10.1.1.13,28,-0.420,-0.420,-0.420,0.000,0.000,0.000
1643146715963011072,2022-01-25-21:38:35,10.1.1.13,27,-0.410,-0.410,-0.410,0.000,0.000,0.000
1643146716163278080,2022-01-25-21:38:36,10.1.1.13,26,-0.400,-0.400,-0.400,0.000,0.000,0.000
1643146716383145984,2022-01-25-21:38:36,10.1.1.13,45,-0.389,-0.389,-0.389,0.000,0.000,0.000
1643146716583191040,2022-01-25-21:38:36,10.1.1.13,44,-0.379,-0.379,-0.379,0.000,0.000,0.000
1643146716783207936,2022-01-25-21:38:36,10.1.1.13,43,-0.369,-0.369,-0.369,0.000,0.000,0.000
1643146716983715072,2022-01-25-21:38:36,10.1.1.13,42,-0.359,-0.359,-0.359,0.000,0.000,0.000
1643146717183731200,2022-01-25-21:38:37,10.1.1.13,41,-0.349,-0.349,-0.349,0.000,0.000,0.000
1643146717383987968,2022-01-25-21:38:37,10.1.1.13,40,-0.339,-0.339,-0.339,0.000,0.000,0.000
1643146717582729984,2022-01-25-21:38:37,10.1.1.13,38,-0.329,-0.329,-0.329,0.000,0.000,0.000
1643146717783945984,2022-01-25-21:38:37,10.1.1.13,37,-0.319,-0.319,-0.319,0.000,0.000,0.000
1643146717984674816,2022-01-25-21:38:37,10.1.1.13,36,-0.310,-0.310,-0.310,0.000,0.000,0.000
1643146718211909120,2022-01-25-21:38:38,10.1.1.13,46,-0.299,-0.299,-0.299,0.000,0.000,0.000
1643146718404102144,2022-01-25-21:38:38,10.1.1.13,44,-0.289,-0.289,-0.289,0.000,0.000,0.000
1643146718616241920,2022-01-25-21:38:38,10.1.1.13,51,-0.279,-0.279,-0.279,0.000,0.000,0.000
1643146718813007104,2022-01-25-21:38:38,10.1.1.13,47,-0.269,-0.269,-0.269,0.000,0.000,0.000
1643146719114375168,2022-01-25-21:38:39,10.1.1.13,115,-0.260,-0.260,-0.260,0.000,0.000,0.000
1643146719253954048,2022-01-25-21:38:39,10.1.1.13,82,-0.249,-0.249,-0.249,0.000,0.000,0.000
1643146719424634880,2022-01-25-21:38:39,10.1.1.13,35,-0.240,-0.240,-0.240,0.000,0.000,0.000
1643146719647633920,2022-01-25-21:38:39,10.1.1.13,45,-0.229,-0.229,-0.229,0.000,0.000,0.000
1643146719856584192,2022-01-25-21:38:39,10.1.1.13,46,-0.219,-0.219,-0.219,0.000,0.000,0.000
1643146720064416000,2022-01-25-21:38:40,10.1.1.13,41,-0.209,-0.209,-0.209,0.000,0.000,0.000
1643146720279945984,2022-01-25-21:38:40,10.1.1.13,50,-0.200,-0.200,-0.200,0.000,0.000,0.000
1643146720551062016,2022-01-25-21:38:40,10.1.1.13,42,-0.190,-0.190,-0.190,0.000,0.000,0.000
1643146720793000960,2022-01-25-21:38:40,10.1.1.13,84,-0.180,-0.180,-0.180,0.000,0.000,0.000
1643146720988094976,2022-01-25-21:38:40,10.1.1.13,44,-0.169,-0.169,-0.169,0.000,0.000,0.000
1643146721206744832,2022-01-25-21:38:41,10.1.1.13,46,-0.160,-0.160,-0.160,0.000,0.000,0.000
1643146721451649024,2022-01-25-21:38:41,10.1.1.13,75,-0.150,-0.150,-0.150,0.000,0.000,0.000
1643146721640043008,2022-01-25-21:38:41,10.1.1.13,65,-0.140,-0.140,-0.140,0.000,0.000,0.000
1643146721815629056,2022-01-25-21:38:41,10.1.1.13,1,-0.130,-0.130,-0.130,0.000,0.000,0.000
1643146722084595968,2022-01-25-21:38:42,10.1.1.13,44,-0.120,-0.120,-0.120,0.000,0.000,0.000
1643146722263704064,2022-01-25-21:38:42,10.1.1.13,27,-0.110,-0.110,-0.110,0.000,0.000,0.000
1643146722464643072,2022-01-25-21:38:42,10.1.1.13,36,-0.100,-0.100,-0.100,0.000,0.000,0.000
1643146722682522112,2022-01-25-21:38:42,10.1.1.13,39,-0.090,-0.090,-0.090,0.000,0.000,0.000
1643146722914413056,2022-01-25-21:38:42,10.1.1.13,63,-0.080,-0.080,-0.080,0.000,0.000,0.000
1643146723100594944,2022-01-25-21:38:43,10.1.1.13,51,-0.070,-0.070,-0.070,0.000,0.000,0.000
1643146723327912960,2022-01-25-21:38:43,10.1.1.13,50,-0.059,-0.059,-0.059,0.000,0.000,0.000
1643146723547730944,2022-01-25-21:38:43,10.1.1.13,56,-0.050,-0.050,-0.050,0.000,0.000,0.000
1643146723747759104,2022-01-25-21:38:43,10.1.1.13,43,-0.039,-0.039,-0.039,0.000,0.000,0.000
1643146723955619072,2022-01-25-21:38:43,10.1.1.13,48,-0.029,-0.029,-0.029,0.000,0.000,0.000
1643146724153480960,2022-01-25-21:38:44,10.1.1.13,40,-0.020,-0.020,-0.020,0.000,0.000,0.000
1643146724352716800,2022-01-25-21:38:44,10.1.1.13,44,-0.010,-0.010,-0.010,0.000,0.000,0.000
1643146724524310016,2022-01-25-21:38:44,10.1.1.13,12,-0.001,-0.001,-0.001,0.000,0.000,0.000
1643146724783639040,2022-01-25-21:38:44,10.1.1.13,70,-0.010,-0.010,-0.010,0.000,0.000,0.000
1643146724954551808,2022-01-25-21:38:44,10.1.1.13,40,-0.020,-0.020,-0.020,0.000,0.000,0.000
1643146725153878016,2022-01-25-21:38:45,10.1.1.13,32,-0.030,-0.030,-0.030,0.000,0.000,0.000
1643146725369703168,2022-01-25-21:38:45,10.1.1.13,46,-0.040,-0.040,-0.040,0.000,0.000,0.000
1643146725567930880,2022-01-25-21:38:45,10.1.1.13,49,-0.051,-0.051,-0.051,0.000,0.000,0.000
1643146725763937024,2022-01-25-21:38:45,10.1.1.13,44,-0.061,-0.061,-0.061,0.000,0.000,0.000
1643146725963161856,2022-01-25-21:38:45,10.1.1.13,42,-0.071,-0.071,-0.071,0.000,0.000,0.000
1643146726163094016,2022-01-25-21:38:46,10.1.1.13,41,-0.081,-0.081,-0.081,0.000,0.000,0.000
1643146726362816000,2022-01-25-21:38:46,10.1.1.13,39,-0.091,-0.091,-0.091,0.000,0.000,0.000
1643146726575668992,2022-01-25-21:38:46,10.1.1.13,44,-0.101,-0.101,-0.101,0.000,0.000,0.000
1643146726764091136,2022-01-25-21:38:46,10.1.1.13,39,-0.111,-0.111,-0.111,0.000,0.000,0.000
1643146726967225088,2022-01-25-21:38:46,10.1.1.13,42,-0.121,-0.121,-0.121,0.000,0.000,0.000
1643146727166049024,2022-01-25-21:38:47,10.1.1.13,30,-0.130,-0.130,-0.130,0.000,0.000,0.000
1643146727365660928,2022-01-25-21:38:47,10.1.1.13,28,-0.140,-0.140,-0.140,0.000,0.000,0.000
1643146727563559936,2022-01-25-21:38:47,10.1.1.13,26,-0.150,-0.150,-0.150,0.000,0.000,0.000
1643146727788017152,2022-01-25-21:38:47,10.1.1.13,49,-0.161,-0.161,-0.161,0.000,0.000,0.000
1643146727984442880,2022-01-25-21:38:47,10.1.1.13,42,-0.171,-0.171,-0.171,0.000,0.000,0.000
1643146728184724992,2022-01-25-21:38:48,10.1.1.13,41,-0.181,-0.181,-0.181,0.000,0.000,0.000
1643146728383609088,2022-01-25-21:38:48,10.1.1.13,39,-0.191,-0.191,-0.191,0.000,0.000,0.000
1643146728582899968,2022-01-25-21:38:48,10.1.1.13,37,-0.201,-0.201,-0.201,0.000,0.000,0.000
1643146728782449920,2022-01-25-21:38:48,10.1.1.13,36,-0.211,-0.211,-0.211,0.000,0.000,0.000
1643146728982675200,2022-01-25-21:38:48,10.1.1.13,34,-0.220,-0.220,-0.220,0.000,0.000,0.000
1643146729182455040,2022-01-25-21:38:49,10.1.1.13,32,-0.230,-0.230,-0.230,0.000,0.000,0.000
1643146729382884096,2022-01-25-21:38:49,10.1.1.13,31,-0.240,-0.240,-0.240,0.000,0.000,0.000
1643146729582390016,2022-01-25-21:38:49,10.1.1.13,29,-0.250,-0.250,-0.250,0.000,0.000,0.000
1643146729782247168,2022-01-25-21:38:49,10.1.1.13,27,-0.260,-0.260,-0.260,0.000,0.000,0.000
1643146729982311936,2022-01-25-21:38:49,10.1.1.13,26,-0.270,-0.270,-0.270,0.000,0.000,0.000
1643146730184251904,2022-01-25-21:38:50,10.1.1.13,27,-0.280,-0.280,-0.280,0.000,0.000,0.000
1643146730402915840,2022-01-25-21:38:50,10.1.1.13,44,-0.291,-0.291,-0.291,0.000,0.000,0.000
1643146730602884096,2022-01-25-21:38:50,10.1.1.13,37,-0.301,-0.301,-0.301,0.000,0.000,0.000
1643146730803412992,2022-01-25-21:38:50,10.1.1.13,35,-0.310,-0.310,-0.310,0.000,0.000,0.000
1643146731002422016,2022-01-25-21:38:51,10.1.1.13,30,-0.320,-0.320,-0.320,0.000,0.000,0.000
1643146731204546048,2022-01-25-21:38:51,10.1.1.13,31,-0.330,-0.330,-0.330,0.000,0.000,0.000
1643146731423106816,2022-01-25-21:38:51,10.1.1.13,40,-0.341,-0.341,-0.341,0.000,0.000,0.000
1643146731622932992,2022-01-25-21:38:51,10.1.1.13,38,-0.351,-0.351,-0.351,0.000,0.000,0.000
1643146731823240960,2022-01-25-21:38:51,10.1.1.13,34,-0.360,-0.360,-0.360,0.000,0.000,0.000
1643146732022490880,2022-01-25-21:38:52,10.1.1.13,32,-0.370,-0.370,-0.370,0.000,0.000,0.000
1643146732247826176,2022-01-25-21:38:52,10.1.1.13,50,-0.381,-0.381,-0.381,0.000,0.000,0.000
1643146732443121920,2022-01-25-21:38:52,10.1.1.13,39,-0.391,-0.391,-0.391,0.000,0.000,0.000
1643146732655853056,2022-01-25-21:38:52,10.1.1.13,46,-0.401,-0.401,-0.401,0.000,0.000,0.000
1643146732843437056,2022-01-25-21:38:52,10.1.1.13,37,-0.411,-0.411,-0.411,0.000,0.000,0.000
1643146733052122112,2022-01-25-21:38:53,10.1.1.13,45,-0.421,-0.421,-0.421,0.000,0.000,0.000
1643146733249022976,2022-01-25-21:38:53,10.1.1.13,41,-0.431,-0.431,-0.431,0.000,0.000,0.000
1643146733483719168,2022-01-25-21:38:53,10.1.1.13,45,-0.440,-0.440,-0.440,0.000,0.000,0.000
1643146733704727808,2022-01-25-21:38:53,10.1.1.13,35,-0.450,-0.450,-0.450,0.000,0.000,0.000
1643146733944133888,2022-01-25-21:38:53,10.1.1.13,65,-0.460,-0.460,-0.460,0.000,0.000,0.000
1643146734124578048,2022-01-25-21:38:54,10.1.1.13,47,-0.470,-0.470,-0.470,0.000,0.000,0.000
1643146734344012032,2022-01-25-21:38:54,10.1.1.13,38,-0.481,-0.481,-0.481,0.000,0.000,0.000
1643146734524483072,2022-01-25-21:38:54,10.1.1.13,17,-0.490,-0.490,-0.490,0.000,0.000,0.000
1643146734743779840,2022-01-25-21:38:54,10.1.1.13,36,-0.480,-0.480,-0.480,0.000,0.000,0.000
1643146734943192832,2022-01-25-21:38:54,10.1.1.13,34,-0.470,-0.470,-0.470,0.000,0.000,0.000
1643146735161477120,2022-01-25-21:38:55,10.1.1.13,42,-0.460,-0.460,-0.460,0.000,0.000,0.000
1643146735349311232,2022-01-25-21:38:55,10.1.1.13,32,-0.450,-0.450,-0.450,0.000,0.000,0.000
1643146735564385792,2022-01-25-21:38:55,10.1.1.13,46,-0.439,-0.439,-0.439,0.000,0.000,0.000
1643146735772218112,2022-01-25-21:38:55,10.1.1.13,52,-0.429,-0.429,-0.429,0.000,0.000,0.000
1643146735973968128,2022-01-25-21:38:55,10.1.1.13,49,-0.419,-0.419,-0.419,0.000,0.000,0.000
1643146736168494848,2022-01-25-21:38:56,10.1.1.13,45,-0.409,-0.409,-0.409,0.000,0.000,0.000
1643146736363504896,2022-01-25-21:38:56,10.1.1.13,41,-0.399,-0.399,-0.399,0.000,0.000,0.000
1643146736562871040,2022-01-25-21:38:56,10.1.1.13,39,-0.389,-0.389,-0.389,0.000,0.000,0.000
1643146736763232000,2022-01-25-21:38:56,10.1.1.13,38,-0.379,-0.379,-0.379,0.000,0.000,0.000
1643146736991436032,2022-01-25-21:38:56,10.1.1.13,41,-0.369,-0.369,-0.369,0.000,0.000,0.000
1643146737167845888,2022-01-25-21:38:57,10.1.1.13,40,-0.359,-0.359,-0.359,0.000,0.000,0.000
1643146737364457984,2022-01-25-21:38:57,10.1.1.13,32,-0.350,-0.350,-0.350,0.000,0.000,0.000
1643146737563529984,2022-01-25-21:38:57,10.1.1.13,27,-0.340,-0.340,-0.340,0.000,0.000,0.000
1643146737885464064,2022-01-25-21:38:57,10.1.1.13,102,-0.329,-0.329,-0.329,0.000,0.000,0.000
1643146738068344064,2022-01-25-21:38:58,10.1.1.13,78,-0.320,-0.320,-0.320,0.000,0.000,0.000
1643146738246253056,2022-01-25-21:38:58,10.1.1.13,49,-0.309,-0.309,-0.309,0.000,0.000,0.000
1643146738447344128,2022-01-25-21:38:58,10.1.1.13,30,-0.300,-0.300,-0.300,0.000,0.000,0.000
1643146738667826944,2022-01-25-21:38:58,10.1.1.13,43,-0.289,-0.289,-0.289,0.000,0.000,0.000
1643146738918580992,2022-01-25-21:38:58,10.1.1.13,93,-0.279,-0.279,-0.279,0.000,0.000,0.000
1643146739064192000,2022-01-25-21:38:59,10.1.1.13,36,-0.270,-0.270,-0.270,0.000,0.000,0.000
1643146739264718080,2022-01-25-21:38:59,10.1.1.13,35,-0.260,-0.260,-0.260,0.000,0.000,0.000
1643146739463948032,2022-01-25-21:38:59,10.1.1.13,33,-0.250,-0.250,-0.250,0.000,0.000,0.000
1643146739664679936,2022-01-25-21:38:59,10.1.1.13,32,-0.240,-0.240,-0.240,0.000,0.000,0.000
1643146739863493888,2022-01-25-21:38:59,10.1.1.13,27,-0.230,-0.230,-0.230,0.000,0.000,0.000
1643146740068404992,2022-01-25-21:39:00,10.1.1.13,31,-0.220,-0.220,-0.220,0.000,0.000,0.000
1643146740283688960,2022-01-25-21:39:00,10.1.1.13,44,-0.209,-0.209,-0.209,0.000,0.000,0.000
1643146740483866880,2022-01-25-21:39:00,10.1.1.13,43,-0.199,-0.199,-0.199,0.000,0.000,0.000
1643146740686328832,2022-01-25-21:39:00,10.1.1.13,43,-0.189,-0.189,-0.189,0.000,0.000,0.000
1643146740885204992,2022-01-25-21:39:00,10.1.1.13,40,-0.179,-0.179,-0.179,0.000,0.000,0.000
1643146741086600192,2022-01-25-21:39:01,10.1.1.13,41,-0.169,-0.169,-0.169,0.000,0.000,0.000
1643146741283271168,2022-01-25-21:39:01,10.1.1.13,36,-0.159,-0.159,-0.159,0.000,0.000,0.000
1643146741491208192,2022-01-25-21:39:01,10.1.1.13,44,-0.149,-0.149,-0.149,0.000,0.000,0.000
1643146741683832832,2022-01-25-21:39:01,10.1.1.13,35,-0.140,-0.140,-0.140,0.000,0.000,0.000
1643146741885524992,2022-01-25-21:39:01,10.1.1.13,36,-0.130,-0.130,-0.130,0.000,0.000,0.000
1643146742083470080,2022-01-25-21:39:02,10.1.1.13,33,-0.120,-0.120,-0.120,0.000,0.000,0.000
1643146742283084032,2022-01-25-21:39:02,10.1.1.13,32,-0.110,-0.110,-0.110,0.000,0.000,0.000
1643146742483848192,2022-01-25-21:39:02,10.1.1.13,31,-0.100,-0.100,-0.100,0.000,0.000,0.000
1643146742684064000,2022-01-25-21:39:02,10.1.1.13,31,-0.090,-0.090,-0.090,0.000,0.000,0.000
1643146742884372992,2022-01-25-21:39:02,10.1.1.13,30,-0.080,-0.080,-0.080,0.000,0.000,0.000
1643146743083463936,2022-01-25-21:39:03,10.1.1.13,28,-0.070,-0.070,-0.070,0.000,0.000,0.000
1643146743283597056,2022-01-25-21:39:03,10.1.1.13,27,-0.060,-0.060,-0.060,0.000,0.000,0.000
1643146743487075072,2022-01-25-21:39:03,10.1.1.13,30,-0.050,-0.050,-0.050,0.000,0.000,0.000
1643146743703217920,2022-01-25-21:39:03,10.1.1.13,45,-0.039,-0.039,-0.039,0.000,0.000,0.000
1643146743903696128,2022-01-25-21:39:03,10.1.1.13,44,-0.029,-0.029,-0.029,0.000,0.000,0.000
1643146744125616128,2022-01-25-21:39:04,10.1.1.13,58,-0.019,-0.019,-0.019,0.000,0.000,0.000
1643146744304326144,2022-01-25-21:39:04,10.1.1.13,31,-0.010,-0.010,-0.010,0.000,0.000,0.000
1643146744483297024,2022-01-25-21:39:04,10.1.1.13,9,-0.001,-0.001,-0.001,0.000,0.000,0.000
1643146744704104960,2022-01-25-21:39:04,10.1.1.13,29,-0.010,-0.010,-0.010,0.000,0.000,0.000
1643146744912847872,2022-01-25-21:39:04,10.1.1.13,36,-0.020,-0.020,-0.020,0.000,0.000,0.000
1643146745106394112,2022-01-25-21:39:05,10.1.1.13,28,-0.030,-0.030,-0.030,0.000,0.000,0.000
1643146745328449024,2022-01-25-21:39:05,10.1.1.13,49,-0.041,-0.041,-0.041,0.000,0.000,0.000
1643146745528084992,2022-01-25-21:39:05,10.1.1.13,48,-0.051,-0.051,-0.051,0.000,0.000,0.000
1643146745724819968,2022-01-25-21:39:05,10.1.1.13,44,-0.061,-0.061,-0.061,0.000,0.000,0.000
1643146745923825152,2022-01-25-21:39:05,10.1.1.13,41,-0.071,-0.071,-0.071,0.000,0.000,0.000
1643146746122988032,2022-01-25-21:39:06,10.1.1.13,40,-0.081,-0.081,-0.081,0.000,0.000,0.000
1643146746325341952,2022-01-25-21:39:06,10.1.1.13,36,-0.090,-0.090,-0.090,0.000,0.000,0.000
1643146746523883008,2022-01-25-21:39:06,10.1.1.13,33,-0.100,-0.100,-0.100,0.000,0.000,0.000
1643146746723613952,2022-01-25-21:39:06,10.1.1.13,32,-0.110,-0.110,-0.110,0.000,0.000,0.000
1643146746924297216,2022-01-25-21:39:06,10.1.1.13,32,-0.120,-0.120,-0.120,0.000,0.000,0.000
1643146747123482112,2022-01-25-21:39:07,10.1.1.13,30,-0.130,-0.130,-0.130,0.000,0.000,0.000
1643146747322994944,2022-01-25-21:39:07,10.1.1.13,28,-0.140,-0.140,-0.140,0.000,0.000,0.000
1643146747524813824,2022-01-25-21:39:07,10.1.1.13,29,-0.150,-0.150,-0.150,0.000,0.000,0.000
1643146747723037952,2022-01-25-21:39:07,10.1.1.13,26,-0.160,-0.160,-0.160,0.000,0.000,0.000
1643146747924689152,2022-01-25-21:39:07,10.1.1.13,27,-0.170,-0.170,-0.170,0.000,0.000,0.000
1643146748144750080,2022-01-25-21:39:08,10.1.1.13,45,-0.181,-0.181,-0.181,0.000,0.000,0.000
1643146748343620096,2022-01-25-21:39:08,10.1.1.13,42,-0.191,-0.191,-0.191,0.000,0.000,0.000
1643146748544243968,2022-01-25-21:39:08,10.1.1.13,41,-0.201,-0.201,-0.201,0.000,0.000,0.000
1643146748744438784,2022-01-25-21:39:08,10.1.1.13,40,-0.211,-0.211,-0.211,0.000,0.000,0.000
1643146748943975936,2022-01-25-21:39:08,10.1.1.13,38,-0.221,-0.221,-0.221,0.000,0.000,0.000
1643146749144085760,2022-01-25-21:39:09,10.1.1.13,37,-0.231,-0.231,-0.231,0.000,0.000,0.000
1643146749343961856,2022-01-25-21:39:09,10.1.1.13,35,-0.240,-0.240,-0.240,0.000,0.000,0.000
1643146749548806912,2022-01-25-21:39:09,10.1.1.13,40,-0.250,-0.250,-0.250,0.000,0.000,0.000
1643146749776484096,2022-01-25-21:39:09,10.1.1.13,66,-0.260,-0.260,-0.260,0.000,0.000,0.000
1643146749945704960,2022-01-25-21:39:09,10.1.1.13,30,-0.270,-0.270,-0.270,0.000,0.000,0.000
1643146750143161088,2022-01-25-21:39:10,10.1.1.13,27,-0.280,-0.280,-0.280,0.000,0.000,0.000
1643146750364414976,2022-01-25-21:39:10,10.1.1.13,46,-0.291,-0.291,-0.291,0.000,0.000,0.000
1643146750583756800,2022-01-25-21:39:10,10.1.1.13,44,-0.301,-0.301,-0.301,0.000,0.000,0.000
1643146750797933056,2022-01-25-21:39:10,10.1.1.13,41,-0.310,-0.310,-0.310,0.000,0.000,0.000
1643146751003244032,2022-01-25-21:39:11,10.1.1.13,44,-0.321,-0.321,-0.321,0.000,0.000,0.000
1643146751212913920,2022-01-25-21:39:11,10.1.1.13,53,-0.331,-0.331,-0.331,0.000,0.000,0.000
1643146751404446976,2022-01-25-21:39:11,10.1.1.13,43,-0.341,-0.341,-0.341,0.000,0.000,0.000
1643146751611697920,2022-01-25-21:39:11,10.1.1.13,44,-0.351,-0.351,-0.351,0.000,0.000,0.000
1643146751803235072,2022-01-25-21:39:11,10.1.1.13,37,-0.361,-0.361,-0.361,0.000,0.000,0.000
1643146752005729024,2022-01-25-21:39:12,10.1.1.13,39,-0.371,-0.371,-0.371,0.000,0.000,0.000
1643146752206528000,2022-01-25-21:39:12,10.1.1.13,37,-0.380,-0.380,-0.380,0.000,0.000,0.000
1643146752403778048,2022-01-25-21:39:12,10.1.1.13,34,-0.390,-0.390,-0.390,0.000,0.000,0.000
1643146752605195008,2022-01-25-21:39:12,10.1.1.13,35,-0.400,-0.400,-0.400,0.000,0.000,0.000
1643146752804696064,2022-01-25-21:39:12,10.1.1.13,33,-0.410,-0.410,-0.410,0.000,0.000,0.000
1643146753003789824,2022-01-25-21:39:13,10.1.1.13,31,-0.420,-0.420,-0.420,0.000,0.000,0.000
1643146753206337024,2022-01-25-21:39:13,10.1.1.13,33,-0.430,-0.430,-0.430,0.000,0.000,0.000
1643146753404200960,2022-01-25-21:39:13,10.1.1.13,30,-0.440,-0.440,-0.440,0.000,0.000,0.000
1643146753603072000,2022-01-25-21:39:13,10.1.1.13,28,-0.450,-0.450,-0.450,0.000,0.000,0.000
1643146753803760896,2022-01-25-21:39:13,10.1.1.13,28,-0.460,-0.460,-0.460,0.000,0.000,0.000
1643146754003083008,2022-01-25-21:39:14,10.1.1.13,26,-0.470,-0.470,-0.470,0.000,0.000,0.000
1643146754223779840,2022-01-25-21:39:14,10.1.1.13,45,-0.481,-0.481,-0.481,0.000,0.000,0.000
1643146754384435968,2022-01-25-21:39:14,10.1.1.13,4,-0.489,-0.489,-0.489,0.000,0.000,0.000
1643146754624524032,2022-01-25-21:39:14,10.1.1.13,43,-0.479,-0.479,-0.479,0.000,0.000,0.000
1643146754823728128,2022-01-25-21:39:14,10.1.1.13,41,-0.469,-0.469,-0.469,0.000,0.000,0.000
1643146755024872192,2022-01-25-21:39:15,10.1.1.13,41,-0.459,-0.459,-0.459,0.000,0.000,0.000
1643146755223265024,2022-01-25-21:39:15,10.1.1.13,39,-0.449,-0.449,-0.449,0.000,0.000,0.000
1643146755424017920,2022-01-25-21:39:15,10.1.1.13,38,-0.439,-0.439,-0.439,0.000,0.000,0.000
1643146755626849024,2022-01-25-21:39:15,10.1.1.13,40,-0.429,-0.429,-0.429,0.000,0.000,0.000
1643146755823309824,2022-01-25-21:39:15,10.1.1.13,35,-0.419,-0.419,-0.419,0.000,0.000,0.000
1643146756023563008,2022-01-25-21:39:16,10.1.1.13,33,-0.410,-0.410,-0.410,0.000,0.000,0.000
1643146756223488000,2022-01-25-21:39:16,10.1.1.13,29,-0.400,-0.400,-0.400,0.000,0.000,0.000
1643146756424804096,2022-01-25-21:39:16,10.1.1.13,30,-0.390,-0.390,-0.390,0.000,0.000,0.000
1643146756624207104,2022-01-25-21:39:16,10.1.1.13,28,-0.380,-0.380,-0.380,0.000,0.000,0.000
1643146756827523072,2022-01-25-21:39:16,10.1.1.13,31,-0.370,-0.370,-0.370,0.000,0.000,0.000
1643146757023795968,2022-01-25-21:39:17,10.1.1.13,26,-0.360,-0.360,-0.360,0.000,0.000,0.000
1643146757244805120,2022-01-25-21:39:17,10.1.1.13,47,-0.349,-0.349,-0.349,0.000,0.000,0.000
1643146757444220928,2022-01-25-21:39:17,10.1.1.13,45,-0.339,-0.339,-0.339,0.000,0.000,0.000
1643146757643992064,2022-01-25-21:39:17,10.1.1.13,44,-0.329,-0.329,-0.329,0.000,0.000,0.000
1643146757844371968,2022-01-25-21:39:17,10.1.1.13,38,-0.319,-0.319,-0.319,0.000,0.000,0.000
1643146758043405056,2022-01-25-21:39:18,10.1.1.13,36,-0.309,-0.309,-0.309,0.000,0.000,0.000
1643146758242838016,2022-01-25-21:39:18,10.1.1.13,35,-0.299,-0.299,-0.299,0.000,0.000,0.000
1643146758448582912,2022-01-25-21:39:18,10.1.1.13,35,-0.290,-0.290,-0.290,0.000,0.000,0.000
1643146758642662144,2022-01-25-21:39:18,10.1.1.13,29,-0.280,-0.280,-0.280,0.000,0.000,0.000
1643146758843267072,2022-01-25-21:39:18,10.1.1.13,28,-0.270,-0.270,-0.270,0.000,0.000,0.000
1643146759042967040,2022-01-25-21:39:19,10.1.1.13,26,-0.260,-0.260,-0.260,0.000,0.000,0.000
1643146759243372032,2022-01-25-21:39:19,10.1.1.13,25,-0.250,-0.250,-0.250,0.000,0.000,0.000
1643146759481211904,2022-01-25-21:39:19,10.1.1.13,52,-0.239,-0.239,-0.239,0.000,0.000,0.000
1643146759769527808,2022-01-25-21:39:19,10.1.1.13,108,-0.230,-0.230,-0.230,0.000,0.000,0.000
1643146759840210944,2022-01-25-21:39:19,10.1.1.13,-13,-0.222,-0.222,-0.222,0.000,0.000,0.000
1643146760136545792,2022-01-25-21:39:20,10.1.1.13,80,-0.210,-0.210,-0.210,0.000,0.000,0.000
1643146760324100096,2022-01-25-21:39:20,10.1.1.13,37,-0.199,-0.199,-0.199,0.000,0.000,0.000
1643146760523776000,2022-01-25-21:39:20,10.1.1.13,35,-0.190,-0.190,-0.190,0.000,0.000,0.000
1643146760724186880,2022-01-25-21:39:20,10.1.1.13,33,-0.180,-0.180,-0.180,0.000,0.000,0.000
1643146760923435008,2022-01-25-21:39:20,10.1.1.13,31,-0.170,-0.170,-0.170,0.000,0.000,0.000
1643146761123508992,2022-01-25-21:39:21,10.1.1.13,29,-0.160,-0.160,-0.160,0.000,0.000,0.000
1643146761323887104,2022-01-25-21:39:21,10.1.1.13,27,-0.150,-0.150,-0.150,0.000,0.000,0.000
1643146761543366912,2022-01-25-21:39:21,10.1.1.13,45,-0.139,-0.139,-0.139,0.000,0.000,0.000
1643146761744009984,2022-01-25-21:39:21,10.1.1.13,44,-0.129,-0.129,-0.129,0.000,0.000,0.000
1643146761942676992,2022-01-25-21:39:21,10.1.1.13,42,-0.119,-0.119,-0.119,0.000,0.000,0.000
1643146762143245056,2022-01-25-21:39:22,10.1.1.13,39,-0.109,-0.109,-0.109,0.000,0.000,0.000
1643146762342859008,2022-01-25-21:39:22,10.1.1.13,38,-0.099,-0.099,-0.099,0.000,0.000,0.000
1643146762543731968,2022-01-25-21:39:22,10.1.1.13,37,-0.089,-0.089,-0.089,0.000,0.000,0.000
1643146762751771904,2022-01-25-21:39:22,10.1.1.13,44,-0.080,-0.080,-0.080,0.000,0.000,0.000
1643146762948136960,2022-01-25-21:39:22,10.1.1.13,37,-0.070,-0.070,-0.070,0.000,0.000,0.000
1643146763260331008,2022-01-25-21:39:23,10.1.1.13,145,-0.059,-0.059,-0.059,0.000,0.000,0.000
1643146763447796224,2022-01-25-21:39:23,10.1.1.13,94,-0.049,-0.049,-0.049,0.000,0.000,0.000
1643146763703599104,2022-01-25-21:39:23,10.1.1.13,94,-0.040,-0.040,-0.040,0.000,0.000,0.000
1643146763863371008,2022-01-25-21:39:23,10.1.1.13,28,-0.030,-0.030,-0.030,0.000,0.000,0.000
1643146764063965184,2022-01-25-21:39:24,10.1.1.13,28,-0.020,-0.020,-0.020,0.000,0.000,0.000
1643146764288988160,2022-01-25-21:39:24,10.1.1.13,50,-0.009,-0.009,-0.009,0.000,0.000,0.000
1643146764447969024,2022-01-25-21:39:24,10.1.1.13,8,-0.001,-0.001,-0.001,0.000,0.000,0.000
1643146764684380160,2022-01-25-21:39:24,10.1.1.13,41,-0.011,-0.011,-0.011,0.000,0.000,0.000
