FedericoMungari/DigitalTwin_service/01_WiredScenario/Output/Output_script/script_rosapi_2_output_robots12_freq0_3.txt
timestamp,date,node,latency,joint_1,joint_2,joint_3,joint_4,joint_5,joint_6
1644939419922137088,2022-02-15-15:36:59,10.1.1.4,-213,-0.100,-0.100,-0.100,0.000,0.000,-0.000
1644939420879494912,2022-02-15-15:37:00,10.1.1.4,40,0.070,0.070,0.070,0.000,0.000,0.000
1644939420955130112,2022-02-15-15:37:00,10.1.1.4,29,0.090,0.090,0.090,0.000,0.000,0.000
1644939421035069952,2022-02-15-15:37:01,10.1.1.4,7,0.090,0.090,0.090,0.000,0.000,0.000
1644939421933736960,2022-02-15-15:37:01,10.1.1.4,29,-0.080,-0.080,-0.080,0.000,0.000,0.000
1644939421994576896,2022-02-15-15:37:01,10.1.1.4,39,-0.090,-0.090,-0.090,0.000,0.000,0.000
1644939422035571200,2022-02-15-15:37:02,10.1.1.4,28,-0.100,-0.100,-0.100,0.000,0.000,0.000
1644939422917649152,2022-02-15-15:37:02,10.1.1.4,39,0.070,0.070,0.070,0.000,0.000,0.000
1644939422954065920,2022-02-15-15:37:02,10.1.1.4,28,0.080,0.080,0.080,0.000,0.000,0.000
1644939423154019072,2022-02-15-15:37:03,10.1.1.4,22,0.080,0.080,0.080,0.000,0.000,0.000
1644939423277953024,2022-02-15-15:37:03,10.1.1.4,39,0.060,0.060,0.060,0.000,0.000,0.000
1644939423313862144,2022-02-15-15:37:03,10.1.1.4,28,0.050,0.050,0.050,0.000,0.000,0.000
1644939423633862912,2022-02-15-15:37:03,10.1.1.4,39,-0.010,-0.010,-0.010,0.000,0.000,0.000
1644939423736951040,2022-02-15-15:37:03,10.1.1.4,38,-0.030,-0.030,-0.030,0.000,0.000,0.000
1644939424413729792,2022-02-15-15:37:04,10.1.1.4,8,-0.030,-0.030,-0.030,0.000,0.000,0.000
1644939424493998080,2022-02-15-15:37:04,10.1.1.4,38,-0.020,-0.020,-0.020,0.000,0.000,0.000
1644939425448491008,2022-02-15-15:37:05,10.1.1.4,39,0.060,0.060,0.060,0.000,0.000,0.000
1644939426173035008,2022-02-15-15:37:06,10.1.1.4,29,-0.070,-0.070,-0.070,0.000,0.000,0.000
1644939426434014208,2022-02-15-15:37:06,10.1.1.4,11,-0.070,-0.070,-0.070,0.000,0.000,0.000
1644939426556445952,2022-02-15-15:37:06,10.1.1.4,29,-0.050,-0.050,-0.050,0.000,0.000,0.000
1644939426914330880,2022-02-15-15:37:06,10.1.1.4,30,0.020,0.020,0.020,0.000,0.000,0.000
1644939426974535936,2022-02-15-15:37:06,10.1.1.4,38,0.030,0.030,0.030,0.000,0.000,0.000
1644939427732312064,2022-02-15-15:37:07,10.1.1.4,19,0.030,0.030,0.030,0.000,0.000,0.000
1644939427794082048,2022-02-15-15:37:07,10.1.1.4,40,0.020,0.020,0.020,0.000,0.000,0.000
1644939427833861120,2022-02-15-15:37:07,10.1.1.4,29,0.010,0.010,0.010,0.000,0.000,0.000
1644939427894171904,2022-02-15-15:37:07,10.1.1.4,38,0.000,0.000,0.000,0.000,0.000,0.000
1644939428356303104,2022-02-15-15:37:08,10.1.1.4,28,-0.090,-0.090,-0.090,0.000,0.000,0.000
1644939428433723904,2022-02-15-15:37:08,10.1.1.4,6,-0.090,-0.090,-0.090,0.000,0.000,0.000
1644939428614053120,2022-02-15-15:37:08,10.1.1.4,29,-0.060,-0.060,-0.060,0.000,0.000,0.000
1644939429076677120,2022-02-15-15:37:09,10.1.1.4,29,0.030,0.030,0.030,0.000,0.000,0.000
1644939429136279040,2022-02-15-15:37:09,10.1.1.4,38,0.040,0.040,0.040,0.000,0.000,0.000
1644939430233346048,2022-02-15-15:37:09,10.1.1.4,21,0.040,0.040,0.040,0.000,0.000,0.000
1644939430673923072,2022-02-15-15:37:10,10.1.1.4,39,-0.040,-0.040,-0.040,0.000,0.000,0.000
1644939430713881856,2022-02-15-15:37:10,10.1.1.4,28,-0.050,-0.050,-0.050,0.000,0.000,0.000
1644939431073744128,2022-02-15-15:37:11,10.1.1.4,29,-0.080,-0.080,-0.080,0.000,0.000,0.000
1644939431333935872,2022-02-15-15:37:11,10.1.1.4,28,-0.030,-0.030,-0.030,0.000,0.000,0.000
1644939431854612992,2022-02-15-15:37:11,10.1.1.4,39,0.070,0.070,0.070,0.000,0.000,0.000
1644939431894849024,2022-02-15-15:37:11,10.1.1.4,28,0.080,0.080,0.080,0.000,0.000,0.000
1644939432078744832,2022-02-15-15:37:12,10.1.1.4,3,0.080,0.080,0.080,0.000,0.000,0.000
1644939432213555200,2022-02-15-15:37:12,10.1.1.4,39,0.060,0.060,0.060,0.000,0.000,0.000
1644939433067635968,2022-02-15-15:37:13,10.1.1.4,29,-0.100,-0.100,-0.100,0.000,0.000,0.000
1644939433421289984,2022-02-15-15:37:13,10.1.1.4,37,-0.040,-0.040,-0.040,0.000,0.000,0.000
1644939433733969920,2022-02-15-15:37:13,10.1.1.4,29,0.020,0.020,0.020,0.000,0.000,0.000
1644939434198804992,2022-02-15-15:37:14,10.1.1.4,28,0.090,0.090,0.090,0.000,0.000,0.000
1644939435635750144,2022-02-15-15:37:15,10.1.1.4,29,-0.080,-0.080,-0.080,0.000,0.000,0.000
1644939436128894976,2022-02-15-15:37:16,10.1.1.4,28,-0.000,-0.000,-0.000,0.000,0.000,0.000
1644939436273735936,2022-02-15-15:37:16,10.1.1.4,39,0.020,0.020,0.020,0.000,0.000,0.000
1644939436314362880,2022-02-15-15:37:16,10.1.1.4,29,0.030,0.030,0.030,0.000,0.000,0.000
1644939437667657984,2022-02-15-15:37:17,10.1.1.4,-22,0.030,0.030,0.030,0.000,0.000,0.000
1644939438173527040,2022-02-15-15:37:18,10.1.1.4,39,-0.070,-0.070,-0.070,0.000,0.000,0.000
1644939438453528832,2022-02-15-15:37:18,10.1.1.4,9,-0.070,-0.070,-0.070,0.000,0.000,0.000
1644939439254390016,2022-02-15-15:37:19,10.1.1.4,39,0.080,0.080,0.080,0.000,0.000,0.000
1644939439433971968,2022-02-15-15:37:19,10.1.1.4,14,0.080,0.080,0.080,0.000,0.000,0.000
1644939440957212928,2022-02-15-15:37:20,10.1.1.4,39,-0.010,-0.010,-0.010,0.000,0.000,0.000
1644939442776744960,2022-02-15-15:37:22,10.1.1.4,12,-0.010,-0.010,-0.010,0.000,0.000,0.000
1644939442955068160,2022-02-15-15:37:22,10.1.1.4,28,-0.050,-0.050,-0.050,0.000,0.000,0.000
1644939446058383104,2022-02-15-15:37:23,10.1.1.4,8,-0.050,-0.050,-0.050,0.000,0.000,0.000
1644939453013248000,2022-02-15-15:37:30,10.1.1.4,39,0.070,0.070,0.070,0.000,0.000,0.000
1644939456961817088,2022-02-15-15:37:33,10.1.1.4,30,0.040,0.040,0.040,0.000,0.000,0.000
1644939463006295040,2022-02-15-15:37:41,10.1.1.4,20,-0.070,-0.070,-0.070,0.000,0.000,0.000
1644939463274188032,2022-02-15-15:37:43,10.1.1.4,29,-0.020,-0.020,-0.020,0.000,0.000,0.000
1644939463334260992,2022-02-15-15:37:43,10.1.1.4,39,-0.010,-0.010,-0.010,0.000,0.000,0.000
1644939463694187008,2022-02-15-15:37:43,10.1.1.4,39,0.060,0.060,0.060,0.000,0.000,0.000
1644939463734482176,2022-02-15-15:37:43,10.1.1.4,29,0.070,0.070,0.070,0.000,0.000,0.000
1644939463794038016,2022-02-15-15:37:43,10.1.1.4,39,0.080,0.080,0.080,0.000,0.000,0.000
1644939463974050048,2022-02-15-15:37:43,10.1.1.4,11,0.080,0.080,0.080,0.000,0.000,0.000
1644939464093952000,2022-02-15-15:37:44,10.1.1.4,30,0.060,0.060,0.060,0.000,0.000,0.000
1644939464154563072,2022-02-15-15:37:44,10.1.1.4,39,0.050,0.050,0.050,0.000,0.000,0.000
1644939471299262976,2022-02-15-15:37:48,10.1.1.4,39,-0.010,-0.010,-0.010,0.000,0.000,0.000
1644939491343991040,2022-02-15-15:37:59,10.1.1.4,28,-0.010,-0.010,-0.010,0.000,0.000,0.000
1644939498945478912,2022-02-15-15:38:16,10.1.1.4,39,-0.030,-0.030,-0.030,0.000,0.000,0.000
1644939499354270976,2022-02-15-15:38:19,10.1.1.4,20,0.040,0.040,0.040,0.000,0.000,0.000
1644939499954061056,2022-02-15-15:38:19,10.1.1.4,10,0.040,0.040,0.040,0.000,0.000,0.000
1644939500039374080,2022-02-15-15:38:20,10.1.1.4,39,0.030,0.030,0.030,0.000,0.000,0.000
1644939500074675968,2022-02-15-15:38:20,10.1.1.4,29,0.020,0.020,0.020,0.000,0.000,0.000
1644939500734173184,2022-02-15-15:38:20,10.1.1.4,29,-0.090,-0.090,-0.090,0.000,0.000,0.000
1644939501393970944,2022-02-15-15:38:21,10.1.1.4,29,0.040,0.040,0.040,0.000,0.000,0.000
1644939501453891072,2022-02-15-15:38:21,10.1.1.4,39,0.050,0.050,0.050,0.000,0.000,0.000
1644939501754322176,2022-02-15-15:38:21,10.1.1.4,29,0.090,0.090,0.090,0.000,0.000,0.000
1644939502679214080,2022-02-15-15:38:22,10.1.1.4,29,-0.090,-0.090,-0.090,0.000,0.000,0.000
1644939502734126080,2022-02-15-15:38:22,10.1.1.4,39,-0.100,-0.100,-0.100,0.000,0.000,0.000
1644939503514718976,2022-02-15-15:38:23,10.1.1.4,38,0.050,0.050,0.050,0.000,0.000,0.000
1644939503852530944,2022-02-15-15:38:23,10.1.1.4,-13,0.080,0.080,0.080,0.000,0.000,0.000
1644939504238028032,2022-02-15-15:38:24,10.1.1.4,29,0.010,0.010,0.010,0.000,0.000,0.000
1644939505175121152,2022-02-15-15:38:25,10.1.1.4,29,-0.030,-0.030,-0.030,0.000,0.000,0.000
1644939505237287168,2022-02-15-15:38:25,10.1.1.4,38,-0.020,-0.020,-0.020,0.000,0.000,0.000
1644939505499458048,2022-02-15-15:38:25,10.1.1.4,39,0.030,0.030,0.030,0.000,0.000,0.000
1644939505537527040,2022-02-15-15:38:25,10.1.1.4,28,0.040,0.040,0.040,0.000,0.000,0.000
1644939506175230976,2022-02-15-15:38:26,10.1.1.4,22,0.040,0.040,0.040,0.000,0.000,0.000
1644939506375840000,2022-02-15-15:38:26,10.1.1.4,20,0.000,0.000,0.000,0.000,0.000,0.000
1644939506498217216,2022-02-15-15:38:26,10.1.1.4,38,-0.020,-0.020,-0.020,0.000,0.000,0.000
1644939506994290944,2022-02-15-15:38:26,10.1.1.4,20,-0.080,-0.080,-0.080,0.000,0.000,0.000
1644939507057588992,2022-02-15-15:38:27,10.1.1.4,29,-0.070,-0.070,-0.070,0.000,0.000,0.000
1644939507115284992,2022-02-15-15:38:27,10.1.1.4,38,-0.060,-0.060,-0.060,0.000,0.000,0.000
1644939507496672000,2022-02-15-15:38:27,10.1.1.4,29,0.010,0.010,0.010,0.000,0.000,0.000
1644939507837871104,2022-02-15-15:38:27,10.1.1.4,39,0.070,0.070,0.070,0.000,0.000,0.000
1644939507873454080,2022-02-15-15:38:27,10.1.1.4,28,0.080,0.080,0.080,0.000,0.000,0.000
1644939508034283008,2022-02-15-15:38:28,10.1.1.4,29,0.090,0.090,0.090,0.000,0.000,0.000
1644939508514558976,2022-02-15-15:38:28,10.1.1.4,38,0.000,0.000,0.000,0.000,0.000,0.000
1644939508555217152,2022-02-15-15:38:28,10.1.1.4,28,-0.010,-0.010,-0.010,0.000,0.000,0.000
1644939509114423040,2022-02-15-15:38:29,10.1.1.4,19,-0.090,-0.090,-0.090,0.000,0.000,0.000
1644939509173824000,2022-02-15-15:38:29,10.1.1.4,29,-0.080,-0.080,-0.080,0.000,0.000,0.000
1644939509237558016,2022-02-15-15:38:29,10.1.1.4,38,-0.070,-0.070,-0.070,0.000,0.000,0.000
1644939509594536192,2022-02-15-15:38:29,10.1.1.4,29,0.000,0.000,0.000,0.000,0.000,0.000
1644939510114572032,2022-02-15-15:38:30,10.1.1.4,30,0.100,0.100,0.100,0.000,0.000,0.000
1644939510156925952,2022-02-15-15:38:30,10.1.1.4,19,0.090,0.090,0.090,0.000,0.000,0.000
1644939510734107904,2022-02-15-15:38:30,10.1.1.4,20,-0.020,-0.020,-0.020,0.000,0.000,0.000
1644939511594458112,2022-02-15-15:38:31,10.1.1.4,32,-0.020,-0.020,-0.020,0.000,0.000,0.000
1644939511894016000,2022-02-15-15:38:31,10.1.1.4,20,0.040,0.040,0.040,0.000,0.000,0.000
1644939511956608000,2022-02-15-15:38:31,10.1.1.4,29,0.050,0.050,0.050,0.000,0.000,0.000
1644939512016019200,2022-02-15-15:38:32,10.1.1.4,39,0.060,0.060,0.060,0.000,0.000,0.000
1644939512057457920,2022-02-15-15:38:32,10.1.1.4,29,0.070,0.070,0.070,0.000,0.000,0.000
1644939512347217152,2022-02-15-15:38:32,10.1.1.4,12,0.070,0.070,0.070,0.000,0.000,0.000
1644939512637660928,2022-02-15-15:38:32,10.1.1.4,39,0.020,0.020,0.020,0.000,0.000,0.000
1644939512674180864,2022-02-15-15:38:32,10.1.1.4,28,0.010,0.010,0.010,0.000,0.000,0.000
1644939513794071808,2022-02-15-15:38:33,10.1.1.4,21,0.010,0.010,0.010,0.000,0.000,0.000
1644939514014631936,2022-02-15-15:38:34,10.1.1.4,38,0.050,0.050,0.050,0.000,0.000,0.000
1644939514498554112,2022-02-15-15:38:34,10.1.1.4,5,0.050,0.050,0.050,0.000,0.000,0.000
1644939514574251776,2022-02-15-15:38:34,10.1.1.4,30,0.040,0.040,0.040,0.000,0.000,0.000
1644939514638340096,2022-02-15-15:38:34,10.1.1.4,38,0.030,0.030,0.030,0.000,0.000,0.000
1644939516530426880,2022-02-15-15:38:34,10.1.1.4,30,-0.030,-0.030,-0.030,0.000,0.000,0.000
1644939516577157888,2022-02-15-15:38:36,10.1.1.4,39,-0.040,-0.040,-0.040,0.000,0.000,0.000
1644939516914094848,2022-02-15-15:38:36,10.1.1.4,19,-0.090,-0.090,-0.090,0.000,0.000,0.000
1644939517433478144,2022-02-15-15:38:37,10.1.1.4,28,0.010,0.010,0.010,0.000,0.000,0.000
1644939517858110976,2022-02-15-15:38:37,10.1.1.4,40,0.090,0.090,0.090,0.000,0.000,0.000
1644939517893788160,2022-02-15-15:38:37,10.1.1.4,29,0.100,0.100,0.100,0.000,0.000,0.000
1644939518415847936,2022-02-15-15:38:38,10.1.1.4,40,0.000,0.000,0.000,0.000,0.000,0.000
1644939518759394048,2022-02-15-15:38:38,10.1.1.4,20,-0.070,-0.070,-0.070,0.000,0.000,0.000
1644939519053574144,2022-02-15-15:38:39,10.1.1.4,9,-0.070,-0.070,-0.070,0.000,0.000,0.000
1644939519276765952,2022-02-15-15:38:39,10.1.1.4,20,-0.030,-0.030,-0.030,0.000,0.000,0.000
1644939519654036992,2022-02-15-15:38:39,10.1.1.4,38,0.040,0.040,0.040,0.000,0.000,0.000
1644939520213645056,2022-02-15-15:38:40,10.1.1.4,20,0.050,0.050,0.050,0.000,0.000,0.000
1644939520273603072,2022-02-15-15:38:40,10.1.1.4,29,0.040,0.040,0.040,0.000,0.000,0.000
1644939520333936896,2022-02-15-15:38:40,10.1.1.4,38,0.030,0.030,0.030,0.000,0.000,0.000
1644939520693875968,2022-02-15-15:38:40,10.1.1.4,39,-0.040,-0.040,-0.040,0.000,0.000,0.000
1644939520734638080,2022-02-15-15:38:40,10.1.1.4,28,-0.050,-0.050,-0.050,0.000,0.000,0.000
1644939521133982976,2022-02-15-15:38:41,10.1.1.4,20,-0.070,-0.070,-0.070,0.000,0.000,0.000
1644939521194201088,2022-02-15-15:38:41,10.1.1.4,29,-0.060,-0.060,-0.060,0.000,0.000,0.000
1644939521253747968,2022-02-15-15:38:41,10.1.1.4,38,-0.050,-0.050,-0.050,0.000,0.000,0.000
1644939522354091008,2022-02-15-15:38:42,10.1.1.4,39,0.040,0.040,0.040,0.000,0.000,0.000
1644939522913755904,2022-02-15-15:38:42,10.1.1.4,38,-0.070,-0.070,-0.070,0.000,0.000,0.000
1644939523193785856,2022-02-15-15:38:43,10.1.1.4,13,-0.070,-0.070,-0.070,0.000,0.000,0.000
1644939523693788928,2022-02-15-15:38:43,10.1.1.4,39,0.020,0.020,0.020,0.000,0.000,0.000
1644939523733445888,2022-02-15-15:38:43,10.1.1.4,28,0.030,0.030,0.030,0.000,0.000,0.000
1644939524094935808,2022-02-15-15:38:44,10.1.1.4,29,0.100,0.100,0.100,0.000,0.000,0.000
1644939524514827008,2022-02-15-15:38:44,10.1.1.4,38,0.020,0.020,0.020,0.000,0.000,0.000
1644939524855458048,2022-02-15-15:38:44,10.1.1.4,20,-0.050,-0.050,-0.050,0.000,0.000,0.000
1644939524917097984,2022-02-15-15:38:44,10.1.1.4,29,-0.060,-0.060,-0.060,0.000,0.000,0.000
1644939524974158080,2022-02-15-15:38:44,10.1.1.4,39,-0.070,-0.070,-0.070,0.000,0.000,0.000
1644939525253793024,2022-02-15-15:38:45,10.1.1.4,13,-0.070,-0.070,-0.070,0.000,0.000,0.000
1644939525841455872,2022-02-15-15:38:45,10.1.1.4,29,0.040,0.040,0.040,0.000,0.000,0.000
1644939525901207808,2022-02-15-15:38:45,10.1.1.4,39,0.050,0.050,0.050,0.000,0.000,0.000
1644939526394227968,2022-02-15-15:38:46,10.1.1.4,20,0.050,0.050,0.050,0.000,0.000,0.000
1644939526514019072,2022-02-15-15:38:46,10.1.1.4,39,0.030,0.030,0.030,0.000,0.000,0.000
1644939526556193024,2022-02-15-15:38:46,10.1.1.4,28,0.020,0.020,0.020,0.000,0.000,0.000
1644939526613650176,2022-02-15-15:38:46,10.1.1.4,38,0.010,0.010,0.010,0.000,0.000,0.000
1644939527573491968,2022-02-15-15:38:47,10.1.1.4,30,-0.020,-0.020,-0.020,0.000,0.000,0.000
1644939527613817856,2022-02-15-15:38:47,10.1.1.4,19,-0.010,-0.010,-0.010,0.000,0.000,0.000
1644939527684467200,2022-02-15-15:38:47,10.1.1.4,29,0.000,0.000,0.000,0.000,0.000,0.000
1644939528213824000,2022-02-15-15:38:48,10.1.1.4,29,0.100,0.100,0.100,0.000,0.000,0.000
1644939528273585152,2022-02-15-15:38:48,10.1.1.4,38,0.090,0.090,0.090,0.000,0.000,0.000
1644939528913989120,2022-02-15-15:38:48,10.1.1.4,38,-0.030,-0.030,-0.030,0.000,0.000,0.000
1644939529273312000,2022-02-15-15:38:49,10.1.1.4,39,-0.100,-0.100,-0.100,0.000,0.000,0.000
1644939530155559936,2022-02-15-15:38:50,10.1.1.4,39,0.060,0.060,0.060,0.000,0.000,0.000
1644939530194469888,2022-02-15-15:38:50,10.1.1.4,29,0.070,0.070,0.070,0.000,0.000,0.000
1644939530494374912,2022-02-15-15:38:50,10.1.1.4,22,0.070,0.070,0.070,0.000,0.000,0.000
1644939530713556992,2022-02-15-15:38:50,10.1.1.4,39,0.030,0.030,0.030,0.000,0.000,0.000
1644939530753830912,2022-02-15-15:38:50,10.1.1.4,28,0.020,0.020,0.020,0.000,0.000,0.000
1644939531310415104,2022-02-15-15:38:51,10.1.1.4,29,-0.080,-0.080,-0.080,0.000,0.000,0.000
1644939531334625024,2022-02-15-15:38:51,10.1.1.4,28,-0.090,-0.090,-0.090,0.000,0.000,0.000
1644939531414345984,2022-02-15-15:38:51,10.1.1.4,7,-0.090,-0.090,-0.090,0.000,0.000,0.000
1644939531795140864,2022-02-15-15:38:51,10.1.1.4,29,-0.020,-0.020,-0.020,0.000,0.000,0.000
1644939532674194944,2022-02-15-15:38:52,10.1.1.4,28,0.050,0.050,0.050,0.000,0.000,0.000
1644939533353625088,2022-02-15-15:38:53,10.1.1.4,39,-0.080,-0.080,-0.080,0.000,0.000,0.000
1644939533536154112,2022-02-15-15:38:53,10.1.1.4,15,-0.080,-0.080,-0.080,0.000,0.000,0.000
1644939533915878144,2022-02-15-15:38:53,10.1.1.4,39,-0.010,-0.010,-0.010,0.000,0.000,0.000
1644939533953839104,2022-02-15-15:38:53,10.1.1.4,28,0.000,0.000,0.000,0.000,0.000,0.000
1644939534017466112,2022-02-15-15:38:54,10.1.1.4,38,0.010,0.010,0.010,0.000,0.000,0.000
1644939534713784064,2022-02-15-15:38:54,10.1.1.4,20,0.050,0.050,0.050,0.000,0.000,0.000
1644939534874198016,2022-02-15-15:38:54,10.1.1.4,28,0.020,0.020,0.020,0.000,0.000,0.000
1644939535273870848,2022-02-15-15:38:55,10.1.1.4,20,-0.060,-0.060,-0.060,0.000,0.000,0.000
1644939535333697024,2022-02-15-15:38:55,10.1.1.4,29,-0.070,-0.070,-0.070,0.000,0.000,0.000
1644939535634125056,2022-02-15-15:38:55,10.1.1.4,22,-0.070,-0.070,-0.070,0.000,0.000,0.000
1644939535756272128,2022-02-15-15:38:55,10.1.1.4,39,-0.050,-0.050,-0.050,0.000,0.000,0.000
1644939535895190016,2022-02-15-15:38:55,10.1.1.4,19,-0.020,-0.020,-0.020,0.000,0.000,0.000
1644939535953896960,2022-02-15-15:38:55,10.1.1.4,28,-0.010,-0.010,-0.010,0.000,0.000,0.000
1644939536274099968,2022-02-15-15:38:56,10.1.1.4,39,0.050,0.050,0.050,0.000,0.000,0.000
1644939536334182912,2022-02-15-15:38:56,10.1.1.4,48,0.060,0.060,0.060,0.000,0.000,0.000
1644939536725958144,2022-02-15-15:38:56,10.1.1.4,-22,0.060,0.060,0.060,0.000,0.000,0.000
1644939537376261888,2022-02-15-15:38:57,10.1.1.4,39,-0.060,-0.060,-0.060,0.000,0.000,0.000
1644939537475788032,2022-02-15-15:38:57,10.1.1.4,38,-0.080,-0.080,-0.080,0.000,0.000,0.000
1644939537673697024,2022-02-15-15:38:57,10.1.1.4,19,-0.080,-0.080,-0.080,0.000,0.000,0.000
1644939537736783104,2022-02-15-15:38:57,10.1.1.4,28,-0.070,-0.070,-0.070,0.000,0.000,0.000
1644939538599034112,2022-02-15-15:38:58,10.1.1.4,20,0.100,0.100,0.100,0.000,0.000,0.000
1644939538658441984,2022-02-15-15:38:58,10.1.1.4,29,0.090,0.090,0.090,0.000,0.000,0.000
1644939538716295936,2022-02-15-15:38:58,10.1.1.4,39,0.080,0.080,0.080,0.000,0.000,0.000
1644939539274394880,2022-02-15-15:38:59,10.1.1.4,39,-0.030,-0.030,-0.030,0.000,0.000,0.000
1644939539315661056,2022-02-15-15:38:59,10.1.1.4,29,-0.040,-0.040,-0.040,0.000,0.000,0.000
1644939539373900032,2022-02-15-15:38:59,10.1.1.4,38,-0.050,-0.050,-0.050,0.000,0.000,0.000
1644939539858153984,2022-02-15-15:38:59,10.1.1.4,7,-0.050,-0.050,-0.050,0.000,0.000,0.000
1644939540193871104,2022-02-15-15:39:00,10.1.1.4,28,0.010,0.010,0.010,0.000,0.000,0.000
1644939540513957888,2022-02-15-15:39:00,10.1.1.4,29,0.070,0.070,0.070,0.000,0.000,0.000
1644939540675652096,2022-02-15-15:39:00,10.1.1.4,28,0.100,0.100,0.100,0.000,0.000,0.000
1644939541159280896,2022-02-15-15:39:01,10.1.1.4,39,0.010,0.010,0.010,0.000,0.000,0.000
1644939541439311872,2022-02-15-15:39:01,10.1.1.4,29,-0.040,-0.040,-0.040,0.000,0.000,0.000
1644939541495049984,2022-02-15-15:39:01,10.1.1.4,38,-0.050,-0.050,-0.050,0.000,0.000,0.000
1644939541813806080,2022-02-15-15:39:01,10.1.1.4,39,-0.090,-0.090,-0.090,0.000,0.000,0.000
1644939541857897984,2022-02-15-15:39:01,10.1.1.4,28,-0.080,-0.080,-0.080,0.000,0.000,0.000
1644939542076577024,2022-02-15-15:39:02,10.1.1.4,28,-0.040,-0.040,-0.040,0.000,0.000,0.000
1644939542715430912,2022-02-15-15:39:02,10.1.1.4,20,0.080,0.080,0.080,0.000,0.000,0.000
1644939542916753152,2022-02-15-15:39:02,10.1.1.4,17,0.080,0.080,0.080,0.000,0.000,0.000
1644939543433885952,2022-02-15-15:39:03,10.1.1.4,29,-0.020,-0.020,-0.020,0.000,0.000,0.000
1644939543494074112,2022-02-15-15:39:03,10.1.1.4,38,-0.030,-0.030,-0.030,0.000,0.000,0.000
1644939543544012032,2022-02-15-15:39:03,10.1.1.4,28,-0.040,-0.040,-0.040,0.000,0.000,0.000
1644939544141208832,2022-02-15-15:39:04,10.1.1.4,38,-0.050,-0.050,-0.050,0.000,0.000,0.000
1644939544176211968,2022-02-15-15:39:04,10.1.1.4,28,-0.040,-0.040,-0.040,0.000,0.000,0.000
1644939544995703040,2022-02-15-15:39:04,10.1.1.4,28,0.080,0.080,0.080,0.000,0.000,0.000
1644939545045510144,2022-02-15-15:39:05,10.1.1.4,28,0.070,0.070,0.070,0.000,0.000,0.000
1644939545820962048,2022-02-15-15:39:05,10.1.1.4,29,-0.020,-0.020,-0.020,0.000,0.000,0.000
1644939546153545984,2022-02-15-15:39:06,10.1.1.4,28,-0.090,-0.090,-0.090,0.000,0.000,0.000
1644939546247369984,2022-02-15-15:39:06,10.1.1.4,7,-0.090,-0.090,-0.090,0.000,0.000,0.000
1644939546473747968,2022-02-15-15:39:06,10.1.1.4,29,-0.050,-0.050,-0.050,0.000,0.000,0.000
1644939547468928000,2022-02-15-15:39:07,10.1.1.4,39,0.060,0.060,0.060,0.000,0.000,0.000
1644939547837341952,2022-02-15-15:39:07,10.1.1.4,28,-0.010,-0.010,-0.010,0.000,0.000,0.000
1644939547993971968,2022-02-15-15:39:07,10.1.1.4,29,-0.040,-0.040,-0.040,0.000,0.000,0.000
1644939548614512896,2022-02-15-15:39:08,10.1.1.4,5,-0.040,-0.040,-0.040,0.000,0.000,0.000
1644939549116985088,2022-02-15-15:39:09,10.1.1.4,39,0.050,0.050,0.050,0.000,0.000,0.000
1644939549159836160,2022-02-15-15:39:09,10.1.1.4,20,0.060,0.060,0.060,0.000,0.000,0.000
1644939549573972992,2022-02-15-15:39:09,10.1.1.4,18,0.060,0.060,0.060,0.000,0.000,0.000
1644939549753953024,2022-02-15-15:39:09,10.1.1.4,39,0.030,0.030,0.030,0.000,0.000,0.000
1644939550013531904,2022-02-15-15:39:10,10.1.1.4,29,-0.020,-0.020,-0.020,0.000,0.000,0.000
1644939550255101952,2022-02-15-15:39:10,10.1.1.4,39,-0.050,-0.050,-0.050,0.000,0.000,0.000
1644939550293689856,2022-02-15-15:39:10,10.1.1.4,28,-0.060,-0.060,-0.060,0.000,0.000,0.000
1644939550695118848,2022-02-15-15:39:10,10.1.1.4,17,-0.060,-0.060,-0.060,0.000,0.000,0.000
1644939551114185216,2022-02-15-15:39:11,10.1.1.4,29,0.020,0.020,0.020,0.000,0.000,0.000
1644939551435971072,2022-02-15-15:39:11,10.1.1.4,39,0.080,0.080,0.080,0.000,0.000,0.000
1644939551481678080,2022-02-15-15:39:11,10.1.1.4,29,0.090,0.090,0.090,0.000,0.000,0.000
1644939551554215936,2022-02-15-15:39:11,10.1.1.4,7,0.090,0.090,0.090,0.000,0.000,0.000
1644939551935774208,2022-02-15-15:39:11,10.1.1.4,28,0.020,0.020,0.020,0.000,0.000,0.000
1644939552634061056,2022-02-15-15:39:12,10.1.1.4,39,-0.090,-0.090,-0.090,0.000,0.000,0.000
1644939552677451008,2022-02-15-15:39:12,10.1.1.4,28,-0.080,-0.080,-0.080,0.000,0.000,0.000
1644939553873587968,2022-02-15-15:39:13,10.1.1.4,30,0.050,0.050,0.050,0.000,0.000,0.000
1644939554796979968,2022-02-15-15:39:14,10.1.1.4,30,-0.080,-0.080,-0.080,0.000,0.000,0.000
1644939555054650112,2022-02-15-15:39:15,10.1.1.4,29,-0.030,-0.030,-0.030,0.000,0.000,0.000
1644939555663602944,2022-02-15-15:39:15,10.1.1.4,29,0.040,0.040,0.040,0.000,0.000,0.000
1644939555835518976,2022-02-15-15:39:15,10.1.1.4,21,0.080,0.080,0.080,0.000,0.000,0.000
1644939555897105920,2022-02-15-15:39:15,10.1.1.4,29,0.090,0.090,0.090,0.000,0.000,0.000
1644939555978524928,2022-02-15-15:39:15,10.1.1.4,6,0.090,0.090,0.090,0.000,0.000,0.000
1644939556575639040,2022-02-15-15:39:16,10.1.1.4,39,-0.020,-0.020,-0.020,0.000,0.000,0.000
1644939557335855104,2022-02-15-15:39:17,10.1.1.4,29,-0.030,-0.030,-0.030,0.000,0.000,0.000
1644939558313508096,2022-02-15-15:39:18,10.1.1.4,39,0.040,0.040,0.040,0.000,0.000,0.000
1644939558673976064,2022-02-15-15:39:18,10.1.1.4,39,-0.030,-0.030,-0.030,0.000,0.000,0.000
1644939559134500096,2022-02-15-15:39:19,10.1.1.4,40,-0.080,-0.080,-0.080,0.000,0.000,0.000
1644939559797116160,2022-02-15-15:39:19,10.1.1.4,29,0.050,0.050,0.050,0.000,0.000,0.000
1644939559854244864,2022-02-15-15:39:19,10.1.1.4,39,0.060,0.060,0.060,0.000,0.000,0.000
1644939560237411072,2022-02-15-15:39:20,10.1.1.4,13,0.060,0.060,0.060,0.000,0.000,0.000
1644939561697056000,2022-02-15-15:39:21,10.1.1.4,29,0.020,0.020,0.020,0.000,0.000,0.000
1644939562273920000,2022-02-15-15:39:22,10.1.1.4,29,0.070,0.070,0.070,0.000,0.000,0.000
1644939562333982976,2022-02-15-15:39:22,10.1.1.4,39,0.060,0.060,0.060,0.000,0.000,0.000
1644939562374032128,2022-02-15-15:39:22,10.1.1.4,28,0.050,0.050,0.050,0.000,0.000,0.000
1644939562813801984,2022-02-15-15:39:22,10.1.1.4,39,-0.030,-0.030,-0.030,0.000,0.000,0.000
1644939562854747136,2022-02-15-15:39:22,10.1.1.4,29,-0.040,-0.040,-0.040,0.000,0.000,0.000
1644939563120569088,2022-02-15-15:39:23,10.1.1.4,28,-0.090,-0.090,-0.090,0.000,0.000,0.000
1644939563194652928,2022-02-15-15:39:23,10.1.1.4,6,-0.090,-0.090,-0.090,0.000,0.000,0.000
1644939563893712896,2022-02-15-15:39:23,10.1.1.4,39,0.040,0.040,0.040,0.000,0.000,0.000
1644939564416833024,2022-02-15-15:39:24,10.1.1.4,39,0.070,0.070,0.070,0.000,0.000,0.000
1644939564455298816,2022-02-15-15:39:24,10.1.1.4,29,0.060,0.060,0.060,0.000,0.000,0.000
1644939564513643008,2022-02-15-15:39:24,10.1.1.4,38,0.050,0.050,0.050,0.000,0.000,0.000
1644939565173719808,2022-02-15-15:39:25,10.1.1.4,39,-0.080,-0.080,-0.080,0.000,0.000,0.000
1644939565355049984,2022-02-15-15:39:25,10.1.1.4,14,-0.080,-0.080,-0.080,0.000,0.000,0.000
1644939565678085120,2022-02-15-15:39:25,10.1.1.4,30,-0.020,-0.020,-0.020,0.000,0.000,0.000
1644939565734349056,2022-02-15-15:39:25,10.1.1.4,39,-0.010,-0.010,-0.010,0.000,0.000,0.000
1644939565778915840,2022-02-15-15:39:25,10.1.1.4,29,0.000,0.000,0.000,0.000,0.000,0.000
1644939565833612800,2022-02-15-15:39:25,10.1.1.4,38,0.010,0.010,0.010,0.000,0.000,0.000
1644939566397540096,2022-02-15-15:39:26,10.1.1.4,29,0.080,0.080,0.080,0.000,0.000,0.000
1644939566753920000,2022-02-15-15:39:26,10.1.1.4,30,0.010,0.010,0.010,0.000,0.000,0.000
1644939566813819904,2022-02-15-15:39:26,10.1.1.4,40,0.000,0.000,0.000,0.000,0.000,0.000
1644939566853868032,2022-02-15-15:39:26,10.1.1.4,29,-0.010,-0.010,-0.010,0.000,0.000,0.000
1644939566913541120,2022-02-15-15:39:26,10.1.1.4,38,-0.020,-0.020,-0.020,0.000,0.000,0.000
1644939566953710080,2022-02-15-15:39:26,10.1.1.4,28,-0.030,-0.030,-0.030,0.000,0.000,0.000
1644939567453548800,2022-02-15-15:39:27,10.1.1.4,19,-0.070,-0.070,-0.070,0.000,0.000,0.000
1644939567513899008,2022-02-15-15:39:27,10.1.1.4,29,-0.060,-0.060,-0.060,0.000,0.000,0.000
1644939567575098880,2022-02-15-15:39:27,10.1.1.4,39,-0.050,-0.050,-0.050,0.000,0.000,0.000
1644939567614046208,2022-02-15-15:39:27,10.1.1.4,28,-0.040,-0.040,-0.040,0.000,0.000,0.000
1644939568277547008,2022-02-15-15:39:28,10.1.1.4,30,0.090,0.090,0.090,0.000,0.000,0.000
1644939568354269952,2022-02-15-15:39:28,10.1.1.4,56,0.090,0.090,0.090,0.000,0.000,0.000
1644939568677232896,2022-02-15-15:39:28,10.1.1.4,28,0.050,0.050,0.050,0.000,0.000,0.000
1644939568797223936,2022-02-15-15:39:28,10.1.1.4,19,0.020,0.020,0.020,0.000,0.000,0.000
1644939569154242048,2022-02-15-15:39:29,10.1.1.4,20,-0.050,-0.050,-0.050,0.000,0.000,0.000
1644939569639725824,2022-02-15-15:39:29,10.1.1.4,39,-0.060,-0.060,-0.060,0.000,0.000,0.000
1644939569677699072,2022-02-15-15:39:29,10.1.1.4,28,-0.050,-0.050,-0.050,0.000,0.000,0.000
1644939570494479872,2022-02-15-15:39:30,10.1.1.4,39,0.090,0.090,0.090,0.000,0.000,0.000
1644939570535272960,2022-02-15-15:39:30,10.1.1.4,28,0.080,0.080,0.080,0.000,0.000,0.000
1644939570755395840,2022-02-15-15:39:30,10.1.1.4,38,0.040,0.040,0.040,0.000,0.000,0.000
1644939570953822976,2022-02-15-15:39:30,10.1.1.4,29,0.000,0.000,0.000,0.000,0.000,0.000
1644939571973850880,2022-02-15-15:39:31,10.1.1.4,19,0.000,0.000,0.000,0.000,0.000,0.000
1644939572257498112,2022-02-15-15:39:32,10.1.1.4,39,0.050,0.050,0.050,0.000,0.000,0.000
1644939572573860864,2022-02-15-15:39:32,10.1.1.4,39,0.100,0.100,0.100,0.000,0.000,0.000
1644939572614228992,2022-02-15-15:39:32,10.1.1.4,28,0.090,0.090,0.090,0.000,0.000,0.000
1644939573033926912,2022-02-15-15:39:33,10.1.1.4,38,0.010,0.010,0.010,0.000,0.000,0.000
1644939573433350144,2022-02-15-15:39:33,10.1.1.4,20,-0.070,-0.070,-0.070,0.000,0.000,0.000
1644939573733853184,2022-02-15-15:39:33,10.1.1.4,10,-0.070,-0.070,-0.070,0.000,0.000,0.000
1644939575177791232,2022-02-15-15:39:35,10.1.1.4,30,0.020,0.020,0.020,0.000,0.000,0.000
1644939575453528832,2022-02-15-15:39:35,10.1.1.4,20,-0.040,-0.040,-0.040,0.000,0.000,0.000
1644939575527604224,2022-02-15-15:39:35,10.1.1.4,29,-0.050,-0.050,-0.050,0.000,0.000,0.000
1644939575793374976,2022-02-15-15:39:35,10.1.1.4,39,-0.100,-0.100,-0.100,0.000,0.000,0.000
1644939575833256960,2022-02-15-15:39:35,10.1.1.4,28,-0.090,-0.090,-0.090,0.000,0.000,0.000
1644939576065803008,2022-02-15-15:39:36,10.1.1.4,39,-0.050,-0.050,-0.050,0.000,0.000,0.000
1644939576526845952,2022-02-15-15:39:36,10.1.1.4,31,0.040,0.040,0.040,0.000,0.000,0.000
1644939577126296064,2022-02-15-15:39:37,10.1.1.4,10,0.040,0.040,0.040,0.000,0.000,0.000
1644939578176464128,2022-02-15-15:39:38,10.1.1.4,29,-0.070,-0.070,-0.070,0.000,0.000,0.000
1644939578234937856,2022-02-15-15:39:38,10.1.1.4,38,-0.060,-0.060,-0.060,0.000,0.000,0.000
1644939578334139136,2022-02-15-15:39:38,10.1.1.4,29,-0.040,-0.040,-0.040,0.000,0.000,0.000
1644939578677181952,2022-02-15-15:39:38,10.1.1.4,19,0.020,0.020,0.020,0.000,0.000,0.000
1644939578737168128,2022-02-15-15:39:38,10.1.1.4,28,0.030,0.030,0.030,0.000,0.000,0.000
1644939579599122944,2022-02-15-15:39:39,10.1.1.4,20,0.030,0.030,0.030,0.000,0.000,0.000
1644939580254155008,2022-02-15-15:39:40,10.1.1.4,38,-0.100,-0.100,-0.100,0.000,0.000,0.000
1644939580853837056,2022-02-15-15:39:40,10.1.1.4,39,0.010,0.010,0.010,0.000,0.000,0.000
1644939581493999872,2022-02-15-15:39:41,10.1.1.4,38,0.070,0.070,0.070,0.000,0.000,0.000
1644939581873827840,2022-02-15-15:39:41,10.1.1.4,39,0.000,0.000,0.000,0.000,0.000,0.000
1644939581913788160,2022-02-15-15:39:41,10.1.1.4,28,-0.010,-0.010,-0.010,0.000,0.000,0.000
1644939582134145024,2022-02-15-15:39:42,10.1.1.4,38,-0.050,-0.050,-0.050,0.000,0.000,0.000
1644939582510812928,2022-02-15-15:39:42,10.1.1.4,29,-0.080,-0.080,-0.080,0.000,0.000,0.000
1644939583638555904,2022-02-15-15:39:43,10.1.1.4,32,0.090,0.090,0.090,0.000,0.000,0.000
1644939585811131904,2022-02-15-15:39:45,10.1.1.4,15,0.090,0.090,0.090,0.000,0.000,0.000
1644939585898544128,2022-02-15-15:39:45,10.1.1.4,10,0.090,0.090,0.090,0.000,0.000,0.000
1644939586006618880,2022-02-15-15:39:46,10.1.1.4,20,0.070,0.070,0.070,0.000,0.000,0.000
1644939586073708032,2022-02-15-15:39:46,10.1.1.4,29,0.060,0.060,0.060,0.000,0.000,0.000
1644939586467046912,2022-02-15-15:39:46,10.1.1.4,39,-0.010,-0.010,-0.010,0.000,0.000,0.000
1644939587185076992,2022-02-15-15:39:47,10.1.1.4,39,-0.050,-0.050,-0.050,0.000,0.000,0.000
1644939587805499136,2022-02-15-15:39:47,10.1.1.4,40,0.060,0.060,0.060,0.000,0.000,0.000
1644939588186508800,2022-02-15-15:39:48,10.1.1.4,11,0.060,0.060,0.060,0.000,0.000,0.000
1644939589325292032,2022-02-15-15:39:49,10.1.1.4,39,-0.060,-0.060,-0.060,0.000,0.000,0.000
1644939589926866176,2022-02-15-15:39:49,10.1.1.4,29,0.050,0.050,0.050,0.000,0.000,0.000
1644939590426636032,2022-02-15-15:39:50,10.1.1.4,4,0.050,0.050,0.050,0.000,0.000,0.000
1644939591211715840,2022-02-15-15:39:51,10.1.1.4,29,-0.070,-0.070,-0.070,0.000,0.000,0.000
1644939591407666944,2022-02-15-15:39:51,10.1.1.4,-36,-0.090,-0.090,-0.090,0.000,0.000,0.000
1644939591504381952,2022-02-15-15:39:51,10.1.1.4,-49,-0.090,-0.090,-0.090,0.000,0.000,0.000
1644939592037794048,2022-02-15-15:39:52,10.1.1.4,29,0.010,0.010,0.010,0.000,0.000,0.000
1644939592593617920,2022-02-15-15:39:52,10.1.1.4,38,0.100,0.100,0.100,0.000,0.000,0.000
1644939593645353984,2022-02-15-15:39:53,10.1.1.4,29,-0.090,-0.090,-0.090,0.000,0.000,0.000
1644939593710302976,2022-02-15-15:39:53,10.1.1.4,40,-0.100,-0.100,-0.100,0.000,0.000,0.000
1644939594247011840,2022-02-15-15:39:54,10.1.1.4,19,0.010,0.010,0.010,0.000,0.000,0.000
1644939595165222912,2022-02-15-15:39:55,10.1.1.4,8,0.010,0.010,0.010,0.000,0.000,0.000
1644939595607652864,2022-02-15-15:39:55,10.1.1.4,30,-0.070,-0.070,-0.070,0.000,0.000,0.000
1644939595906568960,2022-02-15-15:39:55,10.1.1.4,24,-0.070,-0.070,-0.070,0.000,0.000,0.000
1644939596285337856,2022-02-15-15:39:56,10.1.1.4,39,0.000,0.000,0.000,0.000,0.000,0.000
1644939596485204992,2022-02-15-15:39:56,10.1.1.4,29,0.040,0.040,0.040,0.000,0.000,0.000
1644939596545372928,2022-02-15-15:39:56,10.1.1.4,39,0.050,0.050,0.050,0.000,0.000,0.000
1644939597045051136,2022-02-15-15:39:57,10.1.1.4,13,0.050,0.050,0.050,0.000,0.000,0.000
1644939597865618944,2022-02-15-15:39:57,10.1.1.4,29,-0.100,-0.100,-0.100,0.000,0.000,0.000
1644939599565124096,2022-02-15-15:39:59,10.1.1.4,20,-0.030,-0.030,-0.030,0.000,0.000,0.000
1644939599625351936,2022-02-15-15:39:59,10.1.1.4,29,-0.040,-0.040,-0.040,0.000,0.000,0.000
1644939599926637056,2022-02-15-15:39:59,10.1.1.4,20,-0.100,-0.100,-0.100,0.000,0.000,0.000
1644939600204500992,2022-02-15-15:40:00,10.1.1.4,39,-0.050,-0.050,-0.050,0.000,0.000,0.000
1644939600245079040,2022-02-15-15:40:00,10.1.1.4,29,-0.040,-0.040,-0.040,0.000,0.000,0.000
1644939601085243904,2022-02-15-15:40:01,10.1.1.4,38,0.080,0.080,0.080,0.000,0.000,0.000
1644939601705313024,2022-02-15-15:40:01,10.1.1.4,39,-0.040,-0.040,-0.040,0.000,0.000,0.000
1644939602291002880,2022-02-15-15:40:02,10.1.1.4,2,-0.040,-0.040,-0.040,0.000,0.000,0.000
1644939602625088000,2022-02-15-15:40:02,10.1.1.4,29,0.020,0.020,0.020,0.000,0.000,0.000
1644939602945821952,2022-02-15-15:40:02,10.1.1.4,39,0.080,0.080,0.080,0.000,0.000,0.000
1644939602985089024,2022-02-15-15:40:02,10.1.1.4,28,0.090,0.090,0.090,0.000,0.000,0.000
1644939603045232128,2022-02-15-15:40:03,10.1.1.4,38,0.100,0.100,0.100,0.000,0.000,0.000
1644939603605782016,2022-02-15-15:40:03,10.1.1.4,39,-0.010,-0.010,-0.010,0.000,0.000,0.000
1644939603644686080,2022-02-15-15:40:03,10.1.1.4,29,-0.020,-0.020,-0.020,0.000,0.000,0.000
1644939603705373952,2022-02-15-15:40:03,10.1.1.4,38,-0.030,-0.030,-0.030,0.000,0.000,0.000
1644939603744931072,2022-02-15-15:40:03,10.1.1.4,28,-0.040,-0.040,-0.040,0.000,0.000,0.000
1644939604347004928,2022-02-15-15:40:04,10.1.1.4,21,-0.040,-0.040,-0.040,0.000,0.000,0.000
1644939604504967936,2022-02-15-15:40:04,10.1.1.4,29,-0.010,-0.010,-0.010,0.000,0.000,0.000
1644939604925389056,2022-02-15-15:40:04,10.1.1.4,38,0.070,0.070,0.070,0.000,0.000,0.000
1644939605207032832,2022-02-15-15:40:05,10.1.1.4,12,0.070,0.070,0.070,0.000,0.000,0.000
1644939605484965120,2022-02-15-15:40:05,10.1.1.4,40,0.020,0.020,0.020,0.000,0.000,0.000
1644939605584568064,2022-02-15-15:40:05,10.1.1.4,38,0.000,0.000,0.000,0.000,0.000,0.000
1644939605945121024,2022-02-15-15:40:05,10.1.1.4,39,-0.070,-0.070,-0.070,0.000,0.000,0.000
1644939605984518144,2022-02-15-15:40:05,10.1.1.4,28,-0.080,-0.080,-0.080,0.000,0.000,0.000
1644939606184717824,2022-02-15-15:40:06,10.1.1.4,24,-0.080,-0.080,-0.080,0.000,0.000,0.000
1644939606446404096,2022-02-15-15:40:06,10.1.1.4,30,-0.030,-0.030,-0.030,0.000,0.000,0.000
1644939606605107968,2022-02-15-15:40:06,10.1.1.4,28,0.000,0.000,0.000,0.000,0.000,0.000
1644939608985884928,2022-02-15-15:40:08,10.1.1.4,-14,0.060,0.060,0.060,0.000,0.000,0.000
1644939609384818176,2022-02-15-15:40:09,10.1.1.4,29,0.070,0.070,0.070,0.000,0.000,0.000
1644939609805180160,2022-02-15-15:40:09,10.1.1.4,39,-0.010,-0.010,-0.010,0.000,0.000,0.000
1644939609845544960,2022-02-15-15:40:09,10.1.1.4,28,-0.020,-0.020,-0.020,0.000,0.000,0.000
1644939610366512896,2022-02-15-15:40:10,10.1.1.4,39,-0.080,-0.080,-0.080,0.000,0.000,0.000
1644939610585201152,2022-02-15-15:40:10,10.1.1.4,38,-0.040,-0.040,-0.040,0.000,0.000,0.000
1644939610804794112,2022-02-15-15:40:10,10.1.1.4,29,0.000,0.000,0.000,0.000,0.000,0.000
1644939610864785920,2022-02-15-15:40:10,10.1.1.4,38,0.010,0.010,0.010,0.000,0.000,0.000
1644939610907139072,2022-02-15-15:40:10,10.1.1.4,28,0.020,0.020,0.020,0.000,0.000,0.000
1644939611725501184,2022-02-15-15:40:11,10.1.1.4,10,0.020,0.020,0.020,0.000,0.000,0.000
1644939611804759040,2022-02-15-15:40:11,10.1.1.4,39,0.010,0.010,0.010,0.000,0.000,0.000
1644939612205406976,2022-02-15-15:40:12,10.1.1.4,29,-0.070,-0.070,-0.070,0.000,0.000,0.000
1644939612264574976,2022-02-15-15:40:12,10.1.1.4,38,-0.080,-0.080,-0.080,0.000,0.000,0.000
1644939612444916992,2022-02-15-15:40:12,10.1.1.4,14,-0.080,-0.080,-0.080,0.000,0.000,0.000
1644939612524875008,2022-02-15-15:40:12,10.1.1.4,39,-0.070,-0.070,-0.070,0.000,0.000,0.000
1644939612784761856,2022-02-15-15:40:12,10.1.1.4,39,-0.020,-0.020,-0.020,0.000,0.000,0.000
1644939613184581120,2022-02-15-15:40:13,10.1.1.4,29,0.060,0.060,0.060,0.000,0.000,0.000
1644939613244947968,2022-02-15-15:40:13,10.1.1.4,39,0.070,0.070,0.070,0.000,0.000,0.000
1644939613525713920,2022-02-15-15:40:13,10.1.1.4,8,0.070,0.070,0.070,0.000,0.000,0.000
1644939614125169152,2022-02-15-15:40:14,10.1.1.4,39,-0.040,-0.040,-0.040,0.000,0.000,0.000
1644939614425949184,2022-02-15-15:40:14,10.1.1.4,29,-0.100,-0.100,-0.100,0.000,0.000,0.000
1644939614644525056,2022-02-15-15:40:14,10.1.1.4,39,-0.060,-0.060,-0.060,0.000,0.000,0.000
1644939614684705024,2022-02-15-15:40:14,10.1.1.4,28,-0.050,-0.050,-0.050,0.000,0.000,0.000
1644939618051796992,2022-02-15-15:40:15,10.1.1.4,38,0.060,0.060,0.060,0.000,0.000,0.000
1644939618205207040,2022-02-15-15:40:18,10.1.1.4,40,0.030,0.030,0.030,0.000,0.000,0.000
1644939618244666112,2022-02-15-15:40:18,10.1.1.4,28,0.020,0.020,0.020,0.000,0.000,0.000
1644939619104782080,2022-02-15-15:40:19,10.1.1.4,29,-0.050,-0.050,-0.050,0.000,0.000,0.000
1644939619165201920,2022-02-15-15:40:19,10.1.1.4,39,-0.040,-0.040,-0.040,0.000,0.000,0.000
1644939619738782976,2022-02-15-15:40:19,10.1.1.4,39,0.070,0.070,0.070,0.000,0.000,0.000
1644939620005745920,2022-02-15-15:40:20,10.1.1.4,6,0.070,0.070,0.070,0.000,0.000,0.000
1644939621367400960,2022-02-15-15:40:21,10.1.1.4,39,-0.010,-0.010,-0.010,0.000,0.000,0.000
1644939622025158912,2022-02-15-15:40:22,10.1.1.4,39,0.080,0.080,0.080,0.000,0.000,0.000
1644939622124787968,2022-02-15-15:40:22,10.1.1.4,38,0.060,0.060,0.060,0.000,0.000,0.000
1644939622164880128,2022-02-15-15:40:22,10.1.1.4,28,0.050,0.050,0.050,0.000,0.000,0.000
1644939622625729024,2022-02-15-15:40:22,10.1.1.4,28,-0.040,-0.040,-0.040,0.000,0.000,0.000
1644939623225822976,2022-02-15-15:40:23,10.1.1.4,14,-0.040,-0.040,-0.040,0.000,0.000,0.000
1644939623447429888,2022-02-15-15:40:23,10.1.1.4,28,0.000,0.000,0.000,0.000,0.000,0.000
1644939623805676032,2022-02-15-15:40:23,10.1.1.4,29,0.070,0.070,0.070,0.000,0.000,0.000
1644939624091880192,2022-02-15-15:40:24,10.1.1.4,4,0.070,0.070,0.070,0.000,0.000,0.000
1644939625284809216,2022-02-15-15:40:25,10.1.1.4,39,-0.040,-0.040,-0.040,0.000,0.000,0.000
1644939625845417984,2022-02-15-15:40:25,10.1.1.4,39,0.070,0.070,0.070,0.000,0.000,0.000
1644939625884666880,2022-02-15-15:40:25,10.1.1.4,29,0.080,0.080,0.080,0.000,0.000,0.000
1644939625946580992,2022-02-15-15:40:25,10.1.1.4,38,0.090,0.090,0.090,0.000,0.000,0.000
1644939626025078016,2022-02-15-15:40:26,10.1.1.4,17,0.090,0.090,0.090,0.000,0.000,0.000
1644939626705682944,2022-02-15-15:40:26,10.1.1.4,39,-0.040,-0.040,-0.040,0.000,0.000,0.000
1644939626745112064,2022-02-15-15:40:26,10.1.1.4,29,-0.050,-0.050,-0.050,0.000,0.000,0.000
1644939627244947968,2022-02-15-15:40:27,10.1.1.4,20,-0.050,-0.050,-0.050,0.000,0.000,0.000
1644939627833704960,2022-02-15-15:40:27,10.1.1.4,39,0.060,0.060,0.060,0.000,0.000,0.000
1644939628106456064,2022-02-15-15:40:28,10.1.1.4,14,0.080,0.080,0.080,0.000,0.000,0.000
1644939628445475072,2022-02-15-15:40:28,10.1.1.4,38,0.020,0.020,0.020,0.000,0.000,0.000
1644939629005233152,2022-02-15-15:40:29,10.1.1.4,38,-0.090,-0.090,-0.090,0.000,0.000,0.000
1644939629084715008,2022-02-15-15:40:29,10.1.1.4,17,-0.090,-0.090,-0.090,0.000,0.000,0.000
1644939629404689920,2022-02-15-15:40:29,10.1.1.4,29,-0.030,-0.030,-0.030,0.000,0.000,0.000
1644939630045515008,2022-02-15-15:40:30,10.1.1.4,39,0.090,0.090,0.090,0.000,0.000,0.000
1644939630127490048,2022-02-15-15:40:30,10.1.1.4,12,0.090,0.090,0.090,0.000,0.000,0.000
1644939630665643008,2022-02-15-15:40:30,10.1.1.4,39,-0.010,-0.010,-0.010,0.000,0.000,0.000
1644939631084800000,2022-02-15-15:40:31,10.1.1.4,39,-0.090,-0.090,-0.090,0.000,0.000,0.000
1644939631125304832,2022-02-15-15:40:31,10.1.1.4,28,-0.100,-0.100,-0.100,0.000,0.000,0.000
1644939631645268992,2022-02-15-15:40:31,10.1.1.4,30,0.000,0.000,0.000,0.000,0.000,0.000
1644939632124805888,2022-02-15-15:40:32,10.1.1.4,30,0.090,0.090,0.090,0.000,0.000,0.000
1644939632217870848,2022-02-15-15:40:32,10.1.1.4,-43,0.090,0.090,0.090,0.000,0.000,0.000
1644939633845718016,2022-02-15-15:40:33,10.1.1.4,29,0.000,0.000,0.000,0.000,0.000,0.000
1644939633906770944,2022-02-15-15:40:33,10.1.1.4,38,0.010,0.010,0.010,0.000,0.000,0.000
1644939634805443072,2022-02-15-15:40:34,10.1.1.4,25,0.010,0.010,0.010,0.000,0.000,0.000
1644939635444562944,2022-02-15-15:40:35,10.1.1.4,29,-0.090,-0.090,-0.090,0.000,0.000,0.000
1644939635505533952,2022-02-15-15:40:35,10.1.1.4,39,-0.080,-0.080,-0.080,0.000,0.000,0.000
1644939636545265920,2022-02-15-15:40:36,10.1.1.4,38,0.080,0.080,0.080,0.000,0.000,0.000
1644939636865411072,2022-02-15-15:40:36,10.1.1.4,39,0.020,0.020,0.020,0.000,0.000,0.000
1644939637945529856,2022-02-15-15:40:37,10.1.1.4,39,-0.040,-0.040,-0.040,0.000,0.000,0.000
1644939638105748992,2022-02-15-15:40:38,10.1.1.4,39,-0.010,-0.010,-0.010,0.000,0.000,0.000
1644939638278904064,2022-02-15-15:40:38,10.1.1.4,39,0.020,0.020,0.020,0.000,0.000,0.000
1644939638304738048,2022-02-15-15:40:38,10.1.1.4,29,0.030,0.030,0.030,0.000,0.000,0.000
1644939638367486976,2022-02-15-15:40:38,10.1.1.4,38,0.040,0.040,0.040,0.000,0.000,0.000
1644939639004855040,2022-02-15-15:40:39,10.1.1.4,11,0.040,0.040,0.040,0.000,0.000,0.000
1644939639125422848,2022-02-15-15:40:39,10.1.1.4,29,0.020,0.020,0.020,0.000,0.000,0.000
1644939640105864960,2022-02-15-15:40:40,10.1.1.4,39,-0.050,-0.050,-0.050,0.000,0.000,0.000
1644939640744990208,2022-02-15-15:40:40,10.1.1.4,39,0.070,0.070,0.070,0.000,0.000,0.000
1644939640785414912,2022-02-15-15:40:40,10.1.1.4,28,0.080,0.080,0.080,0.000,0.000,0.000
1644939640977979904,2022-02-15-15:40:40,10.1.1.4,1,0.080,0.080,0.080,0.000,0.000,0.000
1644939641564625920,2022-02-15-15:40:41,10.1.1.4,39,-0.030,-0.030,-0.030,0.000,0.000,0.000
1644939641605065984,2022-02-15-15:40:41,10.1.1.4,29,-0.040,-0.040,-0.040,0.000,0.000,0.000
1644939641664721920,2022-02-15-15:40:41,10.1.1.4,38,-0.050,-0.050,-0.050,0.000,0.000,0.000
1644939641966022912,2022-02-15-15:40:41,10.1.1.4,29,-0.090,-0.090,-0.090,0.000,0.000,0.000
1644939642025496832,2022-02-15-15:40:42,10.1.1.4,38,-0.080,-0.080,-0.080,0.000,0.000,0.000
1644939642556612864,2022-02-15-15:40:42,10.1.1.4,29,0.020,0.020,0.020,0.000,0.000,0.000
1644939642605537024,2022-02-15-15:40:42,10.1.1.4,38,0.030,0.030,0.030,0.000,0.000,0.000
1644939642864538880,2022-02-15-15:40:42,10.1.1.4,29,0.080,0.080,0.080,0.000,0.000,0.000
1644939642925946880,2022-02-15-15:40:42,10.1.1.4,39,0.090,0.090,0.090,0.000,0.000,0.000
1644939643015405056,2022-02-15-15:40:43,10.1.1.4,-6,0.090,0.090,0.090,0.000,0.000,0.000
1644939643824902912,2022-02-15-15:40:43,10.1.1.4,19,-0.060,-0.060,-0.060,0.000,0.000,0.000
1644939643885998848,2022-02-15-15:40:43,10.1.1.4,28,-0.070,-0.070,-0.070,0.000,0.000,0.000
1644939644205425920,2022-02-15-15:40:44,10.1.1.4,-42,-0.070,-0.070,-0.070,0.000,0.000,0.000
1644939645243577856,2022-02-15-15:40:44,10.1.1.4,19,0.040,0.040,0.040,0.000,0.000,0.000
1644939645484561920,2022-02-15-15:40:45,10.1.1.4,39,0.090,0.090,0.090,0.000,0.000,0.000
1644939645565711104,2022-02-15-15:40:45,10.1.1.4,17,0.090,0.090,0.090,0.000,0.000,0.000
1644939646046184960,2022-02-15-15:40:46,10.1.1.4,39,0.000,0.000,0.000,0.000,0.000,0.000
1644939647027138048,2022-02-15-15:40:47,10.1.1.4,39,-0.010,-0.010,-0.010,0.000,0.000,0.000
1644939647064591872,2022-02-15-15:40:47,10.1.1.4,28,0.000,0.000,0.000,0.000,0.000,0.000
1644939648165446912,2022-02-15-15:40:48,10.1.1.4,16,0.000,0.000,0.000,0.000,0.000,0.000
1644939648245070848,2022-02-15-15:40:48,10.1.1.4,39,-0.010,-0.010,-0.010,0.000,0.000,0.000
1644939648659095040,2022-02-15-15:40:48,10.1.1.4,29,-0.090,-0.090,-0.090,0.000,0.000,0.000
1644939648706054912,2022-02-15-15:40:48,10.1.1.4,39,-0.100,-0.100,-0.100,0.000,0.000,0.000
1644939649085117184,2022-02-15-15:40:49,10.1.1.4,29,-0.030,-0.030,-0.030,0.000,0.000,0.000
1644939649144724992,2022-02-15-15:40:49,10.1.1.4,38,-0.020,-0.020,-0.020,0.000,0.000,0.000
1644939649626413056,2022-02-15-15:40:49,10.1.1.4,29,0.070,0.070,0.070,0.000,0.000,0.000
1644939649859680768,2022-02-15-15:40:49,10.1.1.4,39,0.090,0.090,0.090,0.000,0.000,0.000
1644939650465238016,2022-02-15-15:40:50,10.1.1.4,39,-0.030,-0.030,-0.030,0.000,0.000,0.000
1644939650504879872,2022-02-15-15:40:50,10.1.1.4,28,-0.040,-0.040,-0.040,0.000,0.000,0.000
1644939650924519168,2022-02-15-15:40:50,10.1.1.4,38,-0.080,-0.080,-0.080,0.000,0.000,0.000
1644939651135451136,2022-02-15-15:40:51,10.1.1.4,29,-0.040,-0.040,-0.040,0.000,0.000,0.000
1644939651987774976,2022-02-15-15:40:51,10.1.1.4,29,0.080,0.080,0.080,0.000,0.000,0.000
1644939652045381120,2022-02-15-15:40:52,10.1.1.4,38,0.070,0.070,0.070,0.000,0.000,0.000
1644939652687973120,2022-02-15-15:40:52,10.1.1.4,20,-0.060,-0.060,-0.060,0.000,0.000,0.000
1644939652811430912,2022-02-15-15:40:52,10.1.1.4,38,-0.080,-0.080,-0.080,0.000,0.000,0.000
1644939652987636992,2022-02-15-15:40:52,10.1.1.4,15,-0.080,-0.080,-0.080,0.000,0.000,0.000
1644939653765517056,2022-02-15-15:40:53,10.1.1.4,39,0.060,0.060,0.060,0.000,0.000,0.000
1644939654153209856,2022-02-15-15:40:54,10.1.1.4,0,0.060,0.060,0.060,0.000,0.000,0.000
1644939654224497152,2022-02-15-15:40:54,10.1.1.4,30,0.050,0.050,0.050,0.000,0.000,0.000
1644939654294405888,2022-02-15-15:40:54,10.1.1.4,39,0.040,0.040,0.040,0.000,0.000,0.000
1644939654419718912,2022-02-15-15:40:54,10.1.1.4,29,0.020,0.020,0.020,0.000,0.000,0.000
1644939654467664128,2022-02-15-15:40:54,10.1.1.4,39,0.010,0.010,0.010,0.000,0.000,0.000
1644939655127959040,2022-02-15-15:40:55,10.1.1.4,29,-0.100,-0.100,-0.100,0.000,0.000,0.000
1644939655405200896,2022-02-15-15:40:55,10.1.1.4,39,-0.050,-0.050,-0.050,0.000,0.000,0.000
1644939655445209088,2022-02-15-15:40:55,10.1.1.4,28,-0.040,-0.040,-0.040,0.000,0.000,0.000
1644939655984596992,2022-02-15-15:40:55,10.1.1.4,39,0.060,0.060,0.060,0.000,0.000,0.000
1644939656207546880,2022-02-15-15:40:56,10.1.1.4,28,0.100,0.100,0.100,0.000,0.000,0.000
1644939656632768000,2022-02-15-15:40:56,10.1.1.4,19,0.030,0.030,0.030,0.000,0.000,0.000
1644939656685234176,2022-02-15-15:40:56,10.1.1.4,29,0.020,0.020,0.020,0.000,0.000,0.000
1644939657049263872,2022-02-15-15:40:57,10.1.1.4,29,-0.050,-0.050,-0.050,0.000,0.000,0.000
1644939657364535040,2022-02-15-15:40:57,10.1.1.4,39,-0.090,-0.090,-0.090,0.000,0.000,0.000
1644939657405775104,2022-02-15-15:40:57,10.1.1.4,28,-0.080,-0.080,-0.080,0.000,0.000,0.000
1644939657825041152,2022-02-15-15:40:57,10.1.1.4,38,0.000,0.000,0.000,0.000,0.000,0.000
1644939657869620992,2022-02-15-15:40:57,10.1.1.4,28,0.010,0.010,0.010,0.000,0.000,0.000
1644939657967681024,2022-02-15-15:40:57,10.1.1.4,19,0.030,0.030,0.030,0.000,0.000,0.000
1644939658024368128,2022-02-15-15:40:58,10.1.1.4,28,0.040,0.040,0.040,0.000,0.000,0.000
1644939658285510912,2022-02-15-15:40:58,10.1.1.4,39,0.080,0.080,0.080,0.000,0.000,0.000
1644939658471533056,2022-02-15-15:40:58,10.1.1.4,-1,0.080,0.080,0.080,0.000,0.000,0.000
1644939658826648832,2022-02-15-15:40:58,10.1.1.4,39,0.020,0.020,0.020,0.000,0.000,0.000
1644939659424956160,2022-02-15-15:40:59,10.1.1.4,28,-0.090,-0.090,-0.090,0.000,0.000,0.000
1644939659506279936,2022-02-15-15:40:59,10.1.1.4,7,-0.090,-0.090,-0.090,0.000,0.000,0.000
1644939659884510976,2022-02-15-15:40:59,10.1.1.4,29,-0.020,-0.020,-0.020,0.000,0.000,0.000
1644939660204896000,2022-02-15-15:41:00,10.1.1.4,29,0.040,0.040,0.040,0.000,0.000,0.000
1644939660266141952,2022-02-15-15:41:00,10.1.1.4,39,0.050,0.050,0.050,0.000,0.000,0.000
1644939660624596224,2022-02-15-15:41:00,10.1.1.4,39,0.080,0.080,0.080,0.000,0.000,0.000
1644939661788048128,2022-02-15-15:41:01,10.1.1.4,38,-0.060,-0.060,-0.060,0.000,0.000,0.000
1644939662385030144,2022-02-15-15:41:02,10.1.1.4,29,0.060,0.060,0.060,0.000,0.000,0.000
1644939662445607936,2022-02-15-15:41:02,10.1.1.4,39,0.070,0.070,0.070,0.000,0.000,0.000
1644939662724699904,2022-02-15-15:41:02,10.1.1.4,13,0.070,0.070,0.070,0.000,0.000,0.000
1644939663920155904,2022-02-15-15:41:03,10.1.1.4,39,-0.080,-0.080,-0.080,0.000,0.000,0.000
1644939664005436928,2022-02-15-15:41:04,10.1.1.4,39,-0.100,-0.100,-0.100,0.000,0.000,0.000
1644939664526343936,2022-02-15-15:41:04,10.1.1.4,20,0.000,0.000,0.000,0.000,0.000,0.000
1644939664584760832,2022-02-15-15:41:04,10.1.1.4,29,0.010,0.010,0.010,0.000,0.000,0.000
1644939664648221952,2022-02-15-15:41:04,10.1.1.4,38,0.020,0.020,0.020,0.000,0.000,0.000
1644939665424937984,2022-02-15-15:41:05,10.1.1.4,39,0.030,0.030,0.030,0.000,0.000,0.000
1644939665465308928,2022-02-15-15:41:05,10.1.1.4,29,0.020,0.020,0.020,0.000,0.000,0.000
1644939665864638208,2022-02-15-15:41:05,10.1.1.4,39,-0.050,-0.050,-0.050,0.000,0.000,0.000
1644939665904736000,2022-02-15-15:41:05,10.1.1.4,28,-0.060,-0.060,-0.060,0.000,0.000,0.000
1644939666307117824,2022-02-15-15:41:06,10.1.1.4,4,-0.060,-0.060,-0.060,0.000,0.000,0.000
1644939666964971008,2022-02-15-15:41:06,10.1.1.4,39,0.060,0.060,0.060,0.000,0.000,0.000
1644939667005584896,2022-02-15-15:41:07,10.1.1.4,29,0.070,0.070,0.070,0.000,0.000,0.000
1644939667306390016,2022-02-15-15:41:07,10.1.1.4,24,0.070,0.070,0.070,0.000,0.000,0.000
1644939667864643072,2022-02-15-15:41:07,10.1.1.4,39,-0.030,-0.030,-0.030,0.000,0.000,0.000
1644939667904660992,2022-02-15-15:41:07,10.1.1.4,28,-0.040,-0.040,-0.040,0.000,0.000,0.000
1644939668265038080,2022-02-15-15:41:08,10.1.1.4,28,-0.090,-0.090,-0.090,0.000,0.000,0.000
1644939668585305856,2022-02-15-15:41:08,10.1.1.4,39,-0.030,-0.030,-0.030,0.000,0.000,0.000
1644939669305114112,2022-02-15-15:41:09,10.1.1.4,23,0.100,0.100,0.100,0.000,0.000,0.000
1644939669464466944,2022-02-15-15:41:09,10.1.1.4,29,0.070,0.070,0.070,0.000,0.000,0.000
1644939669525078016,2022-02-15-15:41:09,10.1.1.4,38,0.060,0.060,0.060,0.000,0.000,0.000
1644939670124509184,2022-02-15-15:41:10,10.1.1.4,39,-0.050,-0.050,-0.050,0.000,0.000,0.000
1644939670224418048,2022-02-15-15:41:10,10.1.1.4,38,-0.070,-0.070,-0.070,0.000,0.000,0.000
1644939670524908032,2022-02-15-15:41:10,10.1.1.4,25,-0.070,-0.070,-0.070,0.000,0.000,0.000
1644939671285358080,2022-02-15-15:41:11,10.1.1.4,30,0.070,0.070,0.070,0.000,0.000,0.000
1644939671585575168,2022-02-15-15:41:11,10.1.1.4,25,0.070,0.070,0.070,0.000,0.000,0.000
1644939671904637952,2022-02-15-15:41:11,10.1.1.4,29,0.020,0.020,0.020,0.000,0.000,0.000
1644939671965060096,2022-02-15-15:41:11,10.1.1.4,39,0.010,0.010,0.010,0.000,0.000,0.000
1644939672324577024,2022-02-15-15:41:12,10.1.1.4,38,-0.060,-0.060,-0.060,0.000,0.000,0.000
1644939672705558016,2022-02-15-15:41:12,10.1.1.4,11,-0.060,-0.060,-0.060,0.000,0.000,0.000
1644939672865920000,2022-02-15-15:41:12,10.1.1.4,20,-0.030,-0.030,-0.030,0.000,0.000,0.000
1644939672925146112,2022-02-15-15:41:12,10.1.1.4,29,-0.020,-0.020,-0.020,0.000,0.000,0.000
1644939673813159936,2022-02-15-15:41:13,10.1.1.4,29,0.050,0.050,0.050,0.000,0.000,0.000
1644939673984957952,2022-02-15-15:41:13,10.1.1.4,38,0.020,0.020,0.020,0.000,0.000,0.000
1644939674465475072,2022-02-15-15:41:14,10.1.1.4,39,-0.070,-0.070,-0.070,0.000,0.000,0.000
1644939674762733056,2022-02-15-15:41:14,10.1.1.4,11,-0.070,-0.070,-0.070,0.000,0.000,0.000
1644939675325180160,2022-02-15-15:41:15,10.1.1.4,39,0.030,0.030,0.030,0.000,0.000,0.000
1644939675364643072,2022-02-15-15:41:15,10.1.1.4,28,0.040,0.040,0.040,0.000,0.000,0.000
1644939676029728768,2022-02-15-15:41:16,10.1.1.4,19,0.040,0.040,0.040,0.000,0.000,0.000
1644939676308503040,2022-02-15-15:41:16,10.1.1.4,39,-0.010,-0.010,-0.010,0.000,0.000,0.000
1644939676808738048,2022-02-15-15:41:16,10.1.1.4,29,-0.090,-0.090,-0.090,0.000,0.000,0.000
1644939677231762944,2022-02-15-15:41:17,10.1.1.4,39,-0.010,-0.010,-0.010,0.000,0.000,0.000
1644939677265479936,2022-02-15-15:41:17,10.1.1.4,29,0.000,0.000,0.000,0.000,0.000,0.000
1644939677425184000,2022-02-15-15:41:17,10.1.1.4,29,0.030,0.030,0.030,0.000,0.000,0.000
1644939677784893952,2022-02-15-15:41:17,10.1.1.4,28,0.100,0.100,0.100,0.000,0.000,0.000
1644939678145209088,2022-02-15-15:41:18,10.1.1.4,29,0.030,0.030,0.030,0.000,0.000,0.000
1644939678724625152,2022-02-15-15:41:18,10.1.1.4,39,-0.080,-0.080,-0.080,0.000,0.000,0.000
1644939678884998144,2022-02-15-15:41:18,10.1.1.4,39,-0.090,-0.090,-0.090,0.000,0.000,0.000
1644939679206056960,2022-02-15-15:41:19,10.1.1.4,28,-0.030,-0.030,-0.030,0.000,0.000,0.000
1644939679725809152,2022-02-15-15:41:19,10.1.1.4,29,0.070,0.070,0.070,0.000,0.000,0.000
1644939680006483968,2022-02-15-15:41:20,10.1.1.4,4,0.070,0.070,0.070,0.000,0.000,0.000
1644939680345956096,2022-02-15-15:41:20,10.1.1.4,39,0.010,0.010,0.010,0.000,0.000,0.000
1644939680386988032,2022-02-15-15:41:20,10.1.1.4,28,0.000,0.000,0.000,0.000,0.000,0.000
1644939681504508928,2022-02-15-15:41:21,10.1.1.4,21,0.000,0.000,0.000,0.000,0.000,0.000
1644939682184723968,2022-02-15-15:41:22,10.1.1.4,39,0.070,0.070,0.070,0.000,0.000,0.000
1644939682224914944,2022-02-15-15:41:22,10.1.1.4,29,0.060,0.060,0.060,0.000,0.000,0.000
1644939682285645056,2022-02-15-15:41:22,10.1.1.4,38,0.050,0.050,0.050,0.000,0.000,0.000
1644939682487540992,2022-02-15-15:41:22,10.1.1.4,29,0.010,0.010,0.010,0.000,0.000,0.000
1644939683464653056,2022-02-15-15:41:23,10.1.1.4,29,-0.020,-0.020,-0.020,0.000,0.000,0.000
1644939683986115840,2022-02-15-15:41:23,10.1.1.4,39,0.080,0.080,0.080,0.000,0.000,0.000
1644939684024719104,2022-02-15-15:41:24,10.1.1.4,29,0.090,0.090,0.090,0.000,0.000,0.000
1644939684104450816,2022-02-15-15:41:24,10.1.1.4,7,0.090,0.090,0.090,0.000,0.000,0.000
1644939684644268032,2022-02-15-15:41:24,10.1.1.4,39,-0.010,-0.010,-0.010,0.000,0.000,0.000
1644939685110065920,2022-02-15-15:41:25,10.1.1.4,39,-0.100,-0.100,-0.100,0.000,0.000,0.000
1644939685145528064,2022-02-15-15:41:25,10.1.1.4,28,-0.090,-0.090,-0.090,0.000,0.000,0.000
1644939685762560000,2022-02-15-15:41:25,10.1.1.4,20,-0.010,-0.010,-0.010,0.000,0.000,0.000
1644939686346046976,2022-02-15-15:41:26,10.1.1.4,29,0.090,0.090,0.090,0.000,0.000,0.000
1644939686444980992,2022-02-15-15:41:26,10.1.1.4,28,0.070,0.070,0.070,0.000,0.000,0.000
1644939687007600128,2022-02-15-15:41:27,10.1.1.4,29,-0.040,-0.040,-0.040,0.000,0.000,0.000
1644939687607738880,2022-02-15-15:41:27,10.1.1.4,22,-0.040,-0.040,-0.040,0.000,0.000,0.000
1644939687764608000,2022-02-15-15:41:27,10.1.1.4,29,-0.010,-0.010,-0.010,0.000,0.000,0.000
1644939687825051904,2022-02-15-15:41:27,10.1.1.4,39,0.000,0.000,0.000,0.000,0.000,0.000
1644939687864907008,2022-02-15-15:41:27,10.1.1.4,28,0.010,0.010,0.010,0.000,0.000,0.000
1644939688226084096,2022-02-15-15:41:28,10.1.1.4,29,0.080,0.080,0.080,0.000,0.000,0.000
1644939688408328960,2022-02-15-15:41:28,10.1.1.4,5,0.080,0.080,0.080,0.000,0.000,0.000
1644939688785038848,2022-02-15-15:41:28,10.1.1.4,29,0.010,0.010,0.010,0.000,0.000,0.000
1644939689707187968,2022-02-15-15:41:29,10.1.1.4,29,-0.030,-0.030,-0.030,0.000,0.000,0.000
1644939691925484032,2022-02-15-15:41:31,10.1.1.4,21,-0.010,-0.010,-0.010,0.000,0.000,0.000
1644939692045833216,2022-02-15-15:41:32,10.1.1.4,39,0.010,0.010,0.010,0.000,0.000,0.000
1644939692085242880,2022-02-15-15:41:32,10.1.1.4,29,0.020,0.020,0.020,0.000,0.000,0.000
1644939692144870912,2022-02-15-15:41:32,10.1.1.4,38,0.030,0.030,0.030,0.000,0.000,0.000
1644939692524972032,2022-02-15-15:41:32,10.1.1.4,28,0.090,0.090,0.090,0.000,0.000,0.000
1644939692649977856,2022-02-15-15:41:32,10.1.1.4,-8,0.090,0.090,0.090,0.000,0.000,0.000
1644939692737353984,2022-02-15-15:41:32,10.1.1.4,39,0.080,0.080,0.080,0.000,0.000,0.000
1644939693444966912,2022-02-15-15:41:33,10.1.1.4,39,-0.050,-0.050,-0.050,0.000,0.000,0.000
1644939693487590144,2022-02-15-15:41:33,10.1.1.4,28,-0.060,-0.060,-0.060,0.000,0.000,0.000
1644939693870969088,2022-02-15-15:41:33,10.1.1.4,2,-0.060,-0.060,-0.060,0.000,0.000,0.000
1644939694104992000,2022-02-15-15:41:34,10.1.1.4,39,-0.020,-0.020,-0.020,0.000,0.000,0.000
1644939694511814144,2022-02-15-15:41:34,10.1.1.4,29,0.060,0.060,0.060,0.000,0.000,0.000
1644939694904971008,2022-02-15-15:41:34,10.1.1.4,23,0.060,0.060,0.060,0.000,0.000,0.000
1644939695065484032,2022-02-15-15:41:35,10.1.1.4,29,0.030,0.030,0.030,0.000,0.000,0.000
1644939695385158144,2022-02-15-15:41:35,10.1.1.4,38,-0.030,-0.030,-0.030,0.000,0.000,0.000
1644939695905897984,2022-02-15-15:41:35,10.1.1.4,39,-0.070,-0.070,-0.070,0.000,0.000,0.000
1644939696026469888,2022-02-15-15:41:36,10.1.1.4,38,-0.050,-0.050,-0.050,0.000,0.000,0.000
1644939696585701888,2022-02-15-15:41:36,10.1.1.4,29,0.060,0.060,0.060,0.000,0.000,0.000
1644939696985362944,2022-02-15-15:41:36,10.1.1.4,21,0.060,0.060,0.060,0.000,0.000,0.000
1644939697388294912,2022-02-15-15:41:37,10.1.1.4,18,-0.010,-0.010,-0.010,0.000,0.000,0.000
1644939697505302784,2022-02-15-15:41:37,10.1.1.4,29,-0.030,-0.030,-0.030,0.000,0.000,0.000
1644939697605329920,2022-02-15-15:41:37,10.1.1.4,19,-0.050,-0.050,-0.050,0.000,0.000,0.000
1644939697664901888,2022-02-15-15:41:37,10.1.1.4,29,-0.060,-0.060,-0.060,0.000,0.000,0.000
1644939698177201920,2022-02-15-15:41:38,10.1.1.4,-113,-0.060,-0.060,-0.060,0.000,0.000,0.000
1644939698485167872,2022-02-15-15:41:38,10.1.1.4,29,0.000,0.000,0.000,0.000,0.000,0.000
1644939698546413056,2022-02-15-15:41:38,10.1.1.4,39,0.010,0.010,0.010,0.000,0.000,0.000
1644939698585773824,2022-02-15-15:41:38,10.1.1.4,29,0.020,0.020,0.020,0.000,0.000,0.000
1644939699384058112,2022-02-15-15:41:39,10.1.1.4,20,0.020,0.020,0.020,0.000,0.000,0.000
1644939699450080000,2022-02-15-15:41:39,10.1.1.4,29,0.010,0.010,0.010,0.000,0.000,0.000
1644939699505729792,2022-02-15-15:41:39,10.1.1.4,38,0.000,0.000,0.000,0.000,0.000,0.000
1644939699905795072,2022-02-15-15:41:39,10.1.1.4,28,-0.080,-0.080,-0.080,0.000,0.000,0.000
1644939700873790976,2022-02-15-15:41:40,10.1.1.4,22,-0.080,-0.080,-0.080,0.000,0.000,0.000
1644939701467525120,2022-02-15-15:41:41,10.1.1.4,39,0.040,0.040,0.040,0.000,0.000,0.000
1644939702068588032,2022-02-15-15:41:42,10.1.1.4,19,0.040,0.040,0.040,0.000,0.000,0.000
1644939702145459968,2022-02-15-15:41:42,10.1.1.4,39,0.030,0.030,0.030,0.000,0.000,0.000
1644939702235752192,2022-02-15-15:41:42,10.1.1.4,38,0.020,0.020,0.020,0.000,0.000,0.000
1644939704432946944,2022-02-15-15:41:43,10.1.1.4,7,0.020,0.020,0.020,0.000,0.000,0.000
1644939704524921856,2022-02-15-15:41:44,10.1.1.4,39,0.040,0.040,0.040,0.000,0.000,0.000
1644939704564850944,2022-02-15-15:41:44,10.1.1.4,28,0.050,0.050,0.050,0.000,0.000,0.000
1644939705064940032,2022-02-15-15:41:45,10.1.1.4,20,0.050,0.050,0.050,0.000,0.000,0.000
1644939705184449792,2022-02-15-15:41:45,10.1.1.4,39,0.030,0.030,0.030,0.000,0.000,0.000
1644939705225060864,2022-02-15-15:41:45,10.1.1.4,28,0.020,0.020,0.020,0.000,0.000,0.000
1644939705984740096,2022-02-15-15:41:45,10.1.1.4,29,-0.070,-0.070,-0.070,0.000,0.000,0.000
1644939706105405952,2022-02-15-15:41:46,10.1.1.4,29,-0.050,-0.050,-0.050,0.000,0.000,0.000
1644939706894093056,2022-02-15-15:41:46,10.1.1.4,29,0.050,0.050,0.050,0.000,0.000,0.000
1644939707368055040,2022-02-15-15:41:47,10.1.1.4,16,0.050,0.050,0.050,0.000,0.000,0.000
1644939708005765888,2022-02-15-15:41:48,10.1.1.4,29,-0.070,-0.070,-0.070,0.000,0.000,0.000
1644939708185069056,2022-02-15-15:41:48,10.1.1.4,40,-0.100,-0.100,-0.100,0.000,0.000,0.000
1644939708224317952,2022-02-15-15:41:48,10.1.1.4,28,-0.090,-0.090,-0.090,0.000,0.000,0.000
1644939708766652160,2022-02-15-15:41:48,10.1.1.4,29,0.010,0.010,0.010,0.000,0.000,0.000
1644939708825040128,2022-02-15-15:41:48,10.1.1.4,39,0.020,0.020,0.020,0.000,0.000,0.000
1644939708864919808,2022-02-15-15:41:48,10.1.1.4,29,0.030,0.030,0.030,0.000,0.000,0.000
1644939709164684032,2022-02-15-15:41:49,10.1.1.4,19,0.090,0.090,0.090,0.000,0.000,0.000
1644939709286467072,2022-02-15-15:41:49,10.1.1.4,23,0.090,0.090,0.090,0.000,0.000,0.000
1644939709557102848,2022-02-15-15:41:49,10.1.1.4,29,0.040,0.040,0.040,0.000,0.000,0.000
1644939709950541056,2022-02-15-15:41:49,10.1.1.4,28,-0.030,-0.030,-0.030,0.000,0.000,0.000
1644939714621884160,2022-02-15-15:41:50,10.1.1.4,18,-0.080,-0.080,-0.080,0.000,0.000,0.000
1644939720050875904,2022-02-15-15:41:55,10.1.1.4,39,0.060,0.060,0.060,0.000,0.000,0.000
1644939724930282240,2022-02-15-15:42:01,10.1.1.4,14,0.060,0.060,0.060,0.000,0.000,0.000
1644939730445689088,2022-02-15-15:42:05,10.1.1.4,-4015,0.060,0.060,0.060,0.000,0.000,0.000
1644939736256790016,2022-02-15-15:42:11,10.1.1.4,22,0.000,0.000,0.000,0.000,0.000,0.000
1644939740393908992,2022-02-15-15:42:17,10.1.1.4,-18,0.000,0.000,0.000,0.000,0.000,0.000
1644939741765542144,2022-02-15-15:42:21,10.1.1.4,38,0.080,0.080,0.080,0.000,0.000,0.000
1644939742670347008,2022-02-15-15:42:22,10.1.1.4,29,0.000,0.000,0.000,0.000,0.000,0.000
1644939746862489088,2022-02-15-15:42:23,10.1.1.4,29,-0.070,-0.070,-0.070,0.000,0.000,0.000
1644939750081896192,2022-02-15-15:42:28,10.1.1.4,29,0.080,0.080,0.080,0.000,0.000,0.000
1644939750347828992,2022-02-15-15:42:30,10.1.1.4,-17,0.080,0.080,0.080,0.000,0.000,0.000
1644939750785082112,2022-02-15-15:42:30,10.1.1.4,29,0.010,0.010,0.010,0.000,0.000,0.000
1644939753878492160,2022-02-15-15:42:32,10.1.1.4,-199,0.010,0.010,0.010,0.000,0.000,0.000
1644939757257038080,2022-02-15-15:42:34,10.1.1.4,39,0.020,0.020,0.020,0.000,0.000,0.000
1644939757899107072,2022-02-15-15:42:37,10.1.1.4,29,0.070,0.070,0.070,0.000,0.000,0.000
1644939757945956096,2022-02-15-15:42:37,10.1.1.4,39,0.060,0.060,0.060,0.000,0.000,0.000
1644939761017937920,2022-02-15-15:42:38,10.1.1.4,29,-0.100,-0.100,-0.100,0.000,0.000,0.000
1644939766045517824,2022-02-15-15:42:45,10.1.1.4,39,-0.050,-0.050,-0.050,0.000,0.000,0.000
1644939769326504960,2022-02-15-15:42:48,10.1.1.4,39,0.000,0.000,0.000,0.000,0.000,0.000
1644939771976386048,2022-02-15-15:42:49,10.1.1.4,38,-0.060,-0.060,-0.060,0.000,0.000,0.000
1644939775836986112,2022-02-15-15:42:54,10.1.1.4,-304,-0.060,-0.060,-0.060,0.000,0.000,0.000
1644939776602194176,2022-02-15-15:42:56,10.1.1.4,39,-0.010,-0.010,-0.010,0.000,0.000,0.000
1644939777664570112,2022-02-15-15:42:57,10.1.1.4,38,0.000,0.000,0.000,0.000,0.000,0.000
1644939778185071872,2022-02-15-15:42:58,10.1.1.4,28,-0.100,-0.100,-0.100,0.000,0.000,0.000
1644939778943907072,2022-02-15-15:42:58,10.1.1.4,29,0.040,0.040,0.040,0.000,0.000,0.000
1644939779557809152,2022-02-15-15:42:59,10.1.1.4,0,0.040,0.040,0.040,0.000,0.000,0.000
1644939780613966848,2022-02-15-15:43:00,10.1.1.4,39,-0.050,-0.050,-0.050,0.000,0.000,0.000
1644939781024424960,2022-02-15-15:43:01,10.1.1.4,39,0.030,0.030,0.030,0.000,0.000,0.000
1644939781128979968,2022-02-15-15:43:01,10.1.1.4,29,0.050,0.050,0.050,0.000,0.000,0.000
1644939781191496960,2022-02-15-15:43:01,10.1.1.4,38,0.060,0.060,0.060,0.000,0.000,0.000
1644939781598525952,2022-02-15-15:43:01,10.1.1.4,0,0.060,0.060,0.060,0.000,0.000,0.000
1644939782906203904,2022-02-15-15:43:02,10.1.1.4,39,-0.080,-0.080,-0.080,0.000,0.000,0.000
1644939783365508096,2022-02-15-15:43:03,10.1.1.4,39,-0.010,-0.010,-0.010,0.000,0.000,0.000
1644939783585612032,2022-02-15-15:43:03,10.1.1.4,29,0.030,0.030,0.030,0.000,0.000,0.000
1644939784730710016,2022-02-15-15:43:04,10.1.1.4,16,0.030,0.030,0.030,0.000,0.000,0.000
1644939785545222144,2022-02-15-15:43:05,10.1.1.4,38,-0.080,-0.080,-0.080,0.000,0.000,0.000
1644939785725399040,2022-02-15-15:43:05,10.1.1.4,39,-0.050,-0.050,-0.050,0.000,0.000,0.000
1644939786985372928,2022-02-15-15:43:06,10.1.1.4,29,0.020,0.020,0.020,0.000,0.000,0.000
1644939787532016128,2022-02-15-15:43:07,10.1.1.4,29,-0.080,-0.080,-0.080,0.000,0.000,0.000
1644939787792992000,2022-02-15-15:43:07,10.1.1.4,2,-0.080,-0.080,-0.080,0.000,0.000,0.000
1644939787924916992,2022-02-15-15:43:07,10.1.1.4,39,-0.060,-0.060,-0.060,0.000,0.000,0.000
1644939788564793088,2022-02-15-15:43:08,10.1.1.4,39,0.060,0.060,0.060,0.000,0.000,0.000
1644939788607255808,2022-02-15-15:43:08,10.1.1.4,29,0.070,0.070,0.070,0.000,0.000,0.000
1644939788644335104,2022-02-15-15:43:08,10.1.1.4,18,0.080,0.080,0.080,0.000,0.000,0.000
1644939788844964864,2022-02-15-15:43:08,10.1.1.4,13,0.080,0.080,0.080,0.000,0.000,0.000
1644939789873893888,2022-02-15-15:43:09,10.1.1.4,39,0.020,0.020,0.020,0.000,0.000,0.000
1644939791127515136,2022-02-15-15:43:11,10.1.1.4,20,-0.010,-0.010,-0.010,0.000,0.000,0.000
1644939791206866944,2022-02-15-15:43:11,10.1.1.4,29,0.010,0.010,0.010,0.000,0.000,0.000
1644939791327589120,2022-02-15-15:43:11,10.1.1.4,39,0.030,0.030,0.030,0.000,0.000,0.000
1644939792043179008,2022-02-15-15:43:12,10.1.1.4,-31,0.030,0.030,0.030,0.000,0.000,0.000
1644939792284692992,2022-02-15-15:43:12,10.1.1.4,39,-0.010,-0.010,-0.010,0.000,0.000,0.000
1644939795820807936,2022-02-15-15:43:13,10.1.1.4,20,0.050,0.050,0.050,0.000,0.000,0.000
1644939798241401856,2022-02-15-15:43:16,10.1.1.4,-2051,0.050,0.050,0.050,0.000,0.000,0.000
1644939799125212928,2022-02-15-15:43:19,10.1.1.4,21,0.060,0.060,0.060,0.000,0.000,0.000
1644939799454168064,2022-02-15-15:43:19,10.1.1.4,29,0.000,0.000,0.000,0.000,0.000,0.000
1644939799504059136,2022-02-15-15:43:19,10.1.1.4,39,-0.010,-0.010,-0.010,0.000,0.000,0.000
1644939800096896000,2022-02-15-15:43:19,10.1.1.4,38,-0.070,-0.070,-0.070,0.000,0.000,0.000
1644939800644037888,2022-02-15-15:43:20,10.1.1.4,20,-0.080,-0.080,-0.080,0.000,0.000,0.000
1644939800703975936,2022-02-15-15:43:20,10.1.1.4,29,-0.090,-0.090,-0.090,0.000,0.000,0.000
1644939800784691200,2022-02-15-15:43:20,10.1.1.4,7,-0.090,-0.090,-0.090,0.000,0.000,0.000
1644939801584184832,2022-02-15-15:43:21,10.1.1.4,20,0.060,0.060,0.060,0.000,0.000,0.000
1644939802497123840,2022-02-15-15:43:22,10.1.1.4,6,0.060,0.060,0.060,0.000,0.000,0.000
1644939802685022208,2022-02-15-15:43:22,10.1.1.4,39,0.020,0.020,0.020,0.000,0.000,0.000
1644939802730827008,2022-02-15-15:43:22,10.1.1.4,28,0.010,0.010,0.010,0.000,0.000,0.000
1644939804279683072,2022-02-15-15:43:23,10.1.1.4,-9,0.010,0.010,0.010,0.000,0.000,0.000
1644939807041307904,2022-02-15-15:43:25,10.1.1.4,10,0.010,0.010,0.010,0.000,0.000,0.000
1644939807273526784,2022-02-15-15:43:27,10.1.1.4,39,-0.030,-0.030,-0.030,0.000,0.000,0.000
1644939808973683200,2022-02-15-15:43:28,10.1.1.4,10,-0.030,-0.030,-0.030,0.000,0.000,0.000
1644939810686379008,2022-02-15-15:43:30,10.1.1.4,19,-0.030,-0.030,-0.030,0.000,0.000,0.000
1644939811484441088,2022-02-15-15:43:31,10.1.1.4,15,-0.030,-0.030,-0.030,0.000,0.000,0.000
1644939811528367872,2022-02-15-15:43:31,10.1.1.4,3,-0.030,-0.030,-0.030,0.000,0.000,0.000
1644939812518465024,2022-02-15-15:43:32,10.1.1.4,38,0.080,0.080,0.080,0.000,0.000,0.000
1644939812772115968,2022-02-15-15:43:32,10.1.1.4,-9,0.090,0.090,0.090,0.000,0.000,0.000
1644939812851015168,2022-02-15-15:43:32,10.1.1.4,41,0.080,0.080,0.080,0.000,0.000,0.000
1644939814184720896,2022-02-15-15:43:34,10.1.1.4,29,-0.020,-0.020,-0.020,0.000,0.000,0.000
1644939814902628864,2022-02-15-15:43:34,10.1.1.4,19,0.040,0.040,0.040,0.000,0.000,0.000
1644939815553359872,2022-02-15-15:43:35,10.1.1.4,-39,0.040,0.040,0.040,0.000,0.000,0.000
1644939817398912000,2022-02-15-15:43:37,10.1.1.4,8,0.040,0.040,0.040,0.000,0.000,0.000
1644939818337688832,2022-02-15-15:43:38,10.1.1.4,-4,0.040,0.040,0.040,0.000,0.000,0.000
1644939818765197056,2022-02-15-15:43:38,10.1.1.4,19,-0.050,-0.050,-0.050,0.000,0.000,0.000
1644939818826612992,2022-02-15-15:43:38,10.1.1.4,29,-0.060,-0.060,-0.060,0.000,0.000,0.000
1644939819221513984,2022-02-15-15:43:39,10.1.1.4,1,-0.060,-0.060,-0.060,0.000,0.000,0.000
1644939819324527104,2022-02-15-15:43:39,10.1.1.4,19,-0.040,-0.040,-0.040,0.000,0.000,0.000
1644939819385529088,2022-02-15-15:43:39,10.1.1.4,29,-0.030,-0.030,-0.030,0.000,0.000,0.000
1644939819793313024,2022-02-15-15:43:39,10.1.1.4,20,0.050,0.050,0.050,0.000,0.000,0.000
1644939820599479040,2022-02-15-15:43:40,10.1.1.4,-54,0.050,0.050,0.050,0.000,0.000,0.000
1644939823059535872,2022-02-15-15:43:42,10.1.1.4,8,0.050,0.050,0.050,0.000,0.000,0.000
1644939824012262144,2022-02-15-15:43:43,10.1.1.4,22,0.050,0.050,0.050,0.000,0.000,0.000
1644939825893505024,2022-02-15-15:43:45,10.1.1.4,9,0.050,0.050,0.050,0.000,0.000,0.000
1644939826545802240,2022-02-15-15:43:46,10.1.1.4,18,0.050,0.050,0.050,0.000,0.000,0.000
1644939831055859968,2022-02-15-15:43:48,10.1.1.4,17,0.050,0.050,0.050,0.000,0.000,0.000
1644939833048150016,2022-02-15-15:43:51,10.1.1.4,16,0.050,0.050,0.050,0.000,0.000,0.000
1644939833204411136,2022-02-15-15:43:53,10.1.1.4,39,0.020,0.020,0.020,0.000,0.000,0.000
1644939833243808000,2022-02-15-15:43:53,10.1.1.4,29,0.010,0.010,0.010,0.000,0.000,0.000
1644939833547881984,2022-02-15-15:43:53,10.1.1.4,22,-0.050,-0.050,-0.050,0.000,0.000,0.000
1644939833672207104,2022-02-15-15:43:53,10.1.1.4,39,-0.070,-0.070,-0.070,0.000,0.000,0.000
1644939834657943040,2022-02-15-15:43:54,10.1.1.4,9,-0.070,-0.070,-0.070,0.000,0.000,0.000
1644939834749815040,2022-02-15-15:43:54,10.1.1.4,-539,-0.070,-0.070,-0.070,0.000,0.000,0.000
1644939835005217024,2022-02-15-15:43:55,10.1.1.4,29,-0.020,-0.020,-0.020,0.000,0.000,0.000
1644939835164717056,2022-02-15-15:43:55,10.1.1.4,29,0.010,0.010,0.010,0.000,0.000,0.000
1644939835224674816,2022-02-15-15:43:55,10.1.1.4,38,0.020,0.020,0.020,0.000,0.000,0.000
1644939835524925952,2022-02-15-15:43:55,10.1.1.4,29,0.080,0.080,0.080,0.000,0.000,0.000
1644939835632626944,2022-02-15-15:43:55,10.1.1.4,28,0.100,0.100,0.100,0.000,0.000,0.000
1644939835845689088,2022-02-15-15:43:55,10.1.1.4,30,0.060,0.060,0.060,0.000,0.000,0.000
1644939836545472000,2022-02-15-15:43:56,10.1.1.4,29,-0.040,-0.040,-0.040,0.000,0.000,0.000
1644939836589049088,2022-02-15-15:43:56,10.1.1.4,-27,-0.040,-0.040,-0.040,0.000,0.000,0.000
1644939837184576000,2022-02-15-15:43:57,10.1.1.4,10,-0.040,-0.040,-0.040,0.000,0.000,0.000
1644939837625143040,2022-02-15-15:43:57,10.1.1.4,29,0.040,0.040,0.040,0.000,0.000,0.000
1644939838246393856,2022-02-15-15:43:58,10.1.1.4,20,0.040,0.040,0.040,0.000,0.000,0.000
1644939838305660928,2022-02-15-15:43:58,10.1.1.4,29,0.030,0.030,0.030,0.000,0.000,0.000
1644939838967389184,2022-02-15-15:43:58,10.1.1.4,29,-0.100,-0.100,-0.100,0.000,0.000,0.000
1644939839324444928,2022-02-15-15:43:59,10.1.1.4,29,-0.030,-0.030,-0.030,0.000,0.000,0.000
1644939839384763904,2022-02-15-15:43:59,10.1.1.4,38,-0.020,-0.020,-0.020,0.000,0.000,0.000
1644939840491264000,2022-02-15-15:44:00,10.1.1.4,19,0.049,0.049,0.049,0.000,0.000,0.000
1644939841044632064,2022-02-15-15:44:01,10.1.1.4,39,-0.060,-0.060,-0.060,0.000,0.000,0.000
1644939841344030976,2022-02-15-15:44:01,10.1.1.4,30,-0.080,-0.080,-0.080,0.000,0.000,0.000
1644939841404427008,2022-02-15-15:44:01,10.1.1.4,39,-0.070,-0.070,-0.070,0.000,0.000,0.000
1644939841445015040,2022-02-15-15:44:01,10.1.1.4,28,-0.060,-0.060,-0.060,0.000,0.000,0.000
1644939841964827904,2022-02-15-15:44:01,10.1.1.4,28,0.040,0.040,0.040,0.000,0.000,0.000
1644939842642624000,2022-02-15-15:44:02,10.1.1.4,13,0.040,0.040,0.040,0.000,0.000,0.000
1644939845751923968,2022-02-15-15:44:04,10.1.1.4,19,0.040,0.040,0.040,0.000,0.000,0.000
1644939847260886784,2022-02-15-15:44:06,10.1.1.4,23,0.040,0.040,0.040,0.000,0.000,0.000
1644939848395781120,2022-02-15-15:44:07,10.1.1.4,40,-0.070,-0.070,-0.070,0.000,0.000,0.000
1644939849099083008,2022-02-15-15:44:08,10.1.1.4,-28,-0.070,-0.070,-0.070,0.000,0.000,0.000
1644939850066535936,2022-02-15-15:44:10,10.1.1.4,39,0.090,0.090,0.090,0.000,0.000,0.000
1644939852987500032,2022-02-15-15:44:11,10.1.1.4,29,-0.080,-0.080,-0.080,0.000,0.000,0.000
1644939860042766080,2022-02-15-15:44:18,10.1.1.4,20,-0.050,-0.050,-0.050,0.000,0.000,0.000
1644939863530880000,2022-02-15-15:44:21,10.1.1.4,20,-0.050,-0.050,-0.050,0.000,0.000,0.000
1644939867159504896,2022-02-15-15:44:26,10.1.1.4,19,0.020,0.020,0.020,0.000,0.000,0.000
1644939875707499008,2022-02-15-15:44:32,10.1.1.4,-29,0.020,0.020,0.020,0.000,0.000,0.000
1644939879952644096,2022-02-15-15:44:38,10.1.1.4,11,0.020,0.020,0.020,0.000,0.000,0.000
1644939885516012800,2022-02-15-15:44:43,10.1.1.4,-25,0.020,0.020,0.020,0.000,0.000,0.000
1644939892516793856,2022-02-15-15:44:48,10.1.1.4,-440,0.020,0.020,0.020,0.000,0.000,0.000
1644939917720550912,2022-02-15-15:45:13,10.1.1.4,-3155,0.090,0.090,0.090,0.000,0.000,0.000
1644939928734304000,2022-02-15-15:45:21,10.1.1.4,-8745,0.090,0.090,0.090,0.000,0.000,0.000
1644939944437470976,2022-02-15-15:45:28,10.1.1.4,21,0.050,0.050,0.050,0.000,0.000,0.000
1644939952222429952,2022-02-15-15:45:47,10.1.1.4,9,0.040,0.040,0.040,0.000,0.000,0.000
1644939952305242112,2022-02-15-15:45:52,10.1.1.4,29,0.060,0.060,0.060,0.000,0.000,0.000
1644939952364208896,2022-02-15-15:45:52,10.1.1.4,38,0.070,0.070,0.070,0.000,0.000,0.000
1644939952653753088,2022-02-15-15:45:52,10.1.1.4,-26,0.070,0.070,0.070,0.000,0.000,0.000
1644939953125457920,2022-02-15-15:45:53,10.1.1.4,29,-0.020,-0.020,-0.020,0.000,0.000,0.000
1644939953966011136,2022-02-15-15:45:53,10.1.1.4,6,-0.020,-0.020,-0.020,0.000,0.000,0.000
1644939955344948992,2022-02-15-15:45:55,10.1.1.4,21,-0.020,-0.020,-0.020,0.000,0.000,0.000
1644939955444762112,2022-02-15-15:45:55,10.1.1.4,20,-0.040,-0.040,-0.040,0.000,0.000,0.000
1644939956065504000,2022-02-15-15:45:56,10.1.1.4,11,-0.040,-0.040,-0.040,0.000,0.000,0.000
1644939956192510976,2022-02-15-15:45:56,10.1.1.4,29,-0.020,-0.020,-0.020,0.000,0.000,0.000
1644939957428143104,2022-02-15-15:45:57,10.1.1.4,12,-0.020,-0.020,-0.020,0.000,0.000,0.000
1644939957606188032,2022-02-15-15:45:57,10.1.1.4,29,-0.050,-0.050,-0.050,0.000,0.000,0.000
1644939958194941952,2022-02-15-15:45:58,10.1.1.4,20,-0.050,-0.050,-0.050,0.000,0.000,0.000
1644939958470430976,2022-02-15-15:45:58,10.1.1.4,30,0.000,0.000,0.000,0.000,0.000,0.000
1644939959164942080,2022-02-15-15:45:59,10.1.1.4,29,0.060,0.060,0.060,0.000,0.000,0.000
1644939959564203008,2022-02-15-15:45:59,10.1.1.4,20,-0.020,-0.020,-0.020,0.000,0.000,0.000
1644939959624974080,2022-02-15-15:45:59,10.1.1.4,29,-0.030,-0.030,-0.030,0.000,0.000,0.000
1644939960347564032,2022-02-15-15:46:00,10.1.1.4,15,-0.030,-0.030,-0.030,0.000,0.000,0.000
1644939961675661056,2022-02-15-15:46:01,10.1.1.4,-5,-0.030,-0.030,-0.030,0.000,0.000,0.000
1644939962424186112,2022-02-15-15:46:02,10.1.1.4,24,-0.030,-0.030,-0.030,0.000,0.000,0.000
1644939963754884096,2022-02-15-15:46:03,10.1.1.4,6,-0.030,-0.030,-0.030,0.000,0.000,0.000
1644939964465316096,2022-02-15-15:46:04,10.1.1.4,12,-0.030,-0.030,-0.030,0.000,0.000,0.000
1644939964586118912,2022-02-15-15:46:04,10.1.1.4,30,-0.010,-0.010,-0.010,0.000,0.000,0.000
1644939964624531968,2022-02-15-15:46:04,10.1.1.4,19,-0.000,-0.000,-0.000,0.000,0.000,0.000
1644939965664614912,2022-02-15-15:46:05,10.1.1.4,21,0.000,0.000,0.000,0.000,0.000,0.000
1644939965783866880,2022-02-15-15:46:05,10.1.1.4,39,-0.020,-0.020,-0.020,0.000,0.000,0.000
1644939966226337792,2022-02-15-15:46:06,10.1.1.4,20,-0.090,-0.090,-0.090,0.000,0.000,0.000
1644939966684361984,2022-02-15-15:46:06,10.1.1.4,20,0.000,0.000,0.000,0.000,0.000,0.000
1644939967705292032,2022-02-15-15:46:07,10.1.1.4,21,0.000,0.000,0.000,0.000,0.000,0.000
1644939967824212992,2022-02-15-15:46:07,10.1.1.4,39,-0.020,-0.020,-0.020,0.000,0.000,0.000
1644939968185378048,2022-02-15-15:46:08,10.1.1.4,40,-0.090,-0.090,-0.090,0.000,0.000,0.000
1644939968264568064,2022-02-15-15:46:08,10.1.1.4,17,-0.090,-0.090,-0.090,0.000,0.000,0.000
1644939968746156032,2022-02-15-15:46:08,10.1.1.4,39,-0.000,-0.000,-0.000,0.000,0.000,0.000
1644939969308103936,2022-02-15-15:46:09,10.1.1.4,39,0.090,0.090,0.090,0.000,0.000,0.000
1644939969605917952,2022-02-15-15:46:09,10.1.1.4,30,0.030,0.030,0.030,0.000,0.000,0.000
1644939970131614976,2022-02-15-15:46:10,10.1.1.4,39,-0.070,-0.070,-0.070,0.000,0.000,0.000
1644939970412152064,2022-02-15-15:46:10,10.1.1.4,12,-0.070,-0.070,-0.070,0.000,0.000,0.000
1644939972244199936,2022-02-15-15:46:12,10.1.1.4,18,-0.070,-0.070,-0.070,0.000,0.000,0.000
1644939972546246912,2022-02-15-15:46:12,10.1.1.4,13,-0.070,-0.070,-0.070,0.000,0.000,0.000
1644939972863746816,2022-02-15-15:46:12,10.1.1.4,29,-0.010,-0.010,-0.010,0.000,0.000,0.000
1644939973584058880,2022-02-15-15:46:13,10.1.1.4,39,0.070,0.070,0.070,0.000,0.000,0.000
1644939974485740032,2022-02-15-15:46:14,10.1.1.4,29,-0.090,-0.090,-0.090,0.000,0.000,0.000
1644939976403958016,2022-02-15-15:46:16,10.1.1.4,19,-0.090,-0.090,-0.090,0.000,0.000,0.000
1644939976504491008,2022-02-15-15:46:16,10.1.1.4,18,-0.090,-0.090,-0.090,0.000,0.000,0.000
1644939978424669952,2022-02-15-15:46:18,10.1.1.4,6,-0.090,-0.090,-0.090,0.000,0.000,0.000
1644939978546375936,2022-02-15-15:46:18,10.1.1.4,25,-0.090,-0.090,-0.090,0.000,0.000,0.000
1644939979404786176,2022-02-15-15:46:19,10.1.1.4,20,0.080,0.080,0.080,0.000,0.000,0.000
1644939979604206080,2022-02-15-15:46:19,10.1.1.4,16,0.080,0.080,0.080,0.000,0.000,0.000
1644939981445069056,2022-02-15-15:46:21,10.1.1.4,7,0.080,0.080,0.080,0.000,0.000,0.000
1644939981665467904,2022-02-15-15:46:21,10.1.1.4,25,0.080,0.080,0.080,0.000,0.000,0.000
1644939982544338944,2022-02-15-15:46:22,10.1.1.4,39,-0.090,-0.090,-0.090,0.000,0.000,0.000
1644939982623750912,2022-02-15-15:46:22,10.1.1.4,17,-0.090,-0.090,-0.090,0.000,0.000,0.000
1644939983144974080,2022-02-15-15:46:23,10.1.1.4,30,0.010,0.010,0.010,0.000,0.000,0.000
1644939983204057856,2022-02-15-15:46:23,10.1.1.4,39,0.020,0.020,0.020,0.000,0.000,0.000
1644939983764656128,2022-02-15-15:46:23,10.1.1.4,39,0.070,0.070,0.070,0.000,0.000,0.000
1644939984524894976,2022-02-15-15:46:24,10.1.1.4,39,-0.080,-0.080,-0.080,0.000,0.000,0.000
1644939984704407040,2022-02-15-15:46:24,10.1.1.4,16,-0.080,-0.080,-0.080,0.000,0.000,0.000
1644939986564729856,2022-02-15-15:46:26,10.1.1.4,14,-0.080,-0.080,-0.080,0.000,0.000,0.000
1644939986763753984,2022-02-15-15:46:26,10.1.1.4,12,-0.080,-0.080,-0.080,0.000,0.000,0.000
1644939986824220928,2022-02-15-15:46:26,10.1.1.4,19,-0.070,-0.070,-0.070,0.000,0.000,0.000
1644939988577337088,2022-02-15-15:46:28,10.1.1.4,-3,-0.070,-0.070,-0.070,0.000,0.000,0.000
1644939988908118016,2022-02-15-15:46:28,10.1.1.4,23,-0.070,-0.070,-0.070,0.000,0.000,0.000
1644939989703963136,2022-02-15-15:46:29,10.1.1.4,40,0.080,0.080,0.080,0.000,0.000,0.000
1644939989886329856,2022-02-15-15:46:29,10.1.1.4,16,0.080,0.080,0.080,0.000,0.000,0.000
1644939991746555136,2022-02-15-15:46:31,10.1.1.4,15,0.080,0.080,0.080,0.000,0.000,0.000
1644939991951721984,2022-02-15-15:46:31,10.1.1.4,3,0.080,0.080,0.080,0.000,0.000,0.000
1644939992025549056,2022-02-15-15:46:32,10.1.1.4,29,0.070,0.070,0.070,0.000,0.000,0.000
1644939992227704064,2022-02-15-15:46:32,10.1.1.4,19,0.030,0.030,0.030,0.000,0.000,0.000
1644939992284396800,2022-02-15-15:46:32,10.1.1.4,29,0.020,0.020,0.020,0.000,0.000,0.000
1644939992884229888,2022-02-15-15:46:32,10.1.1.4,20,-0.100,-0.100,-0.100,0.000,0.000,0.000
1644939993763806976,2022-02-15-15:46:33,10.1.1.4,21,0.070,0.070,0.070,0.000,0.000,0.000
1644939994065112064,2022-02-15-15:46:34,10.1.1.4,12,0.070,0.070,0.070,0.000,0.000,0.000
1644939994905144832,2022-02-15-15:46:34,10.1.1.4,29,-0.090,-0.090,-0.090,0.000,0.000,0.000
1644939994984285184,2022-02-15-15:46:34,10.1.1.4,8,-0.090,-0.090,-0.090,0.000,0.000,0.000
1644939996151244032,2022-02-15-15:46:36,10.1.1.4,39,0.070,0.070,0.070,0.000,0.000,0.000
1644939996183798016,2022-02-15-15:46:36,10.1.1.4,28,0.060,0.060,0.060,0.000,0.000,0.000
1644939997205286912,2022-02-15-15:46:37,10.1.1.4,30,-0.060,-0.060,-0.060,0.000,0.000,0.000
1644939998109848064,2022-02-15-15:46:38,10.1.1.4,39,0.090,0.090,0.090,0.000,0.000,0.000
1644939998766392064,2022-02-15-15:46:38,10.1.1.4,20,-0.040,-0.040,-0.040,0.000,0.000,0.000
1644939999084466944,2022-02-15-15:46:39,10.1.1.4,29,-0.100,-0.100,-0.100,0.000,0.000,0.000
1644939999161616128,2022-02-15-15:46:39,10.1.1.4,39,-0.090,-0.090,-0.090,0.000,0.000,0.000
1644939999303698176,2022-02-15-15:46:39,10.1.1.4,39,-0.060,-0.060,-0.060,0.000,0.000,0.000
1644940000546789888,2022-02-15-15:46:40,10.1.1.4,19,0.020,0.020,0.020,0.000,0.000,0.000
1644940000604509184,2022-02-15-15:46:40,10.1.1.4,29,0.010,0.010,0.010,0.000,0.000,0.000
1644940000664907008,2022-02-15-15:46:40,10.1.1.4,38,0.000,0.000,0.000,0.000,0.000,0.000
1644940001304965888,2022-02-15-15:46:41,10.1.1.4,20,-0.070,-0.070,-0.070,0.000,0.000,0.000
1644940001363910912,2022-02-15-15:46:41,10.1.1.4,29,-0.060,-0.060,-0.060,0.000,0.000,0.000
1644940002023994880,2022-02-15-15:46:42,10.1.1.4,29,0.070,0.070,0.070,0.000,0.000,0.000
1644940002063945984,2022-02-15-15:46:42,10.1.1.4,19,0.080,0.080,0.080,0.000,0.000,0.000
1644940002266972160,2022-02-15-15:46:42,10.1.1.4,16,0.080,0.080,0.080,0.000,0.000,0.000
1644940002884083968,2022-02-15-15:46:42,10.1.1.4,29,-0.040,-0.040,-0.040,0.000,0.000,0.000
1644940002947160064,2022-02-15-15:46:42,10.1.1.4,39,-0.050,-0.050,-0.050,0.000,0.000,0.000
1644940003424124928,2022-02-15-15:46:43,10.1.1.4,11,-0.050,-0.050,-0.050,0.000,0.000,0.000
1644940003544641024,2022-02-15-15:46:43,10.1.1.4,29,-0.030,-0.030,-0.030,0.000,0.000,0.000
1644940004804496896,2022-02-15-15:46:44,10.1.1.4,20,-0.020,-0.020,-0.020,0.000,0.000,0.000
1644940004863706112,2022-02-15-15:46:44,10.1.1.4,29,-0.030,-0.030,-0.030,0.000,0.000,0.000
1644940004924566016,2022-02-15-15:46:44,10.1.1.4,39,-0.040,-0.040,-0.040,0.000,0.000,0.000
1644940005503695872,2022-02-15-15:46:45,10.1.1.4,11,-0.040,-0.040,-0.040,0.000,0.000,0.000
1644940005684439040,2022-02-15-15:46:45,10.1.1.4,39,-0.010,-0.010,-0.010,0.000,0.000,0.000
1644940006784115968,2022-02-15-15:46:46,10.1.1.4,24,-0.010,-0.010,-0.010,0.000,0.000,0.000
1644940007184462080,2022-02-15-15:46:47,10.1.1.4,20,-0.090,-0.090,-0.090,0.000,0.000,0.000
1644940007244697088,2022-02-15-15:46:47,10.1.1.4,30,-0.100,-0.100,-0.100,0.000,0.000,0.000
1644940007944263936,2022-02-15-15:46:47,10.1.1.4,22,0.040,0.040,0.040,0.000,0.000,0.000
1644940008043762944,2022-02-15-15:46:48,10.1.1.4,20,0.060,0.060,0.060,0.000,0.000,0.000
1644940008445038080,2022-02-15-15:46:48,10.1.1.4,12,0.060,0.060,0.060,0.000,0.000,0.000
1644940008624086016,2022-02-15-15:46:48,10.1.1.4,39,0.030,0.030,0.030,0.000,0.000,0.000
1644940009923866880,2022-02-15-15:46:49,10.1.1.4,22,0.030,0.030,0.030,0.000,0.000,0.000
1644940010644434944,2022-02-15-15:46:50,10.1.1.4,20,0.030,0.030,0.030,0.000,0.000,0.000
1644940011529846784,2022-02-15-15:46:51,10.1.1.4,30,-0.060,-0.060,-0.060,0.000,0.000,0.000
1644940011565701888,2022-02-15-15:46:51,10.1.1.4,20,-0.050,-0.050,-0.050,0.000,0.000,0.000
1644940012466190080,2022-02-15-15:46:52,10.1.1.4,29,0.080,0.080,0.080,0.000,0.000,0.000
1644940013364200192,2022-02-15-15:46:53,10.1.1.4,39,-0.090,-0.090,-0.090,0.000,0.000,0.000
1644940013447411968,2022-02-15-15:46:53,10.1.1.4,18,-0.090,-0.090,-0.090,0.000,0.000,0.000
1644940013864009984,2022-02-15-15:46:53,10.1.1.4,30,-0.010,-0.010,-0.010,0.000,0.000,0.000
1644940014964653056,2022-02-15-15:46:54,10.1.1.4,8,-0.010,-0.010,-0.010,0.000,0.000,0.000
1644940015884848128,2022-02-15-15:46:55,10.1.1.4,7,-0.010,-0.010,-0.010,0.000,0.000,0.000
1644940016764115968,2022-02-15-15:46:56,10.1.1.4,20,0.040,0.040,0.040,0.000,0.000,0.000
1644940017563951872,2022-02-15-15:46:57,10.1.1.4,39,-0.090,-0.090,-0.090,0.000,0.000,0.000
1644940018064534784,2022-02-15-15:46:58,10.1.1.4,31,0.010,0.010,0.010,0.000,0.000,0.000
1644940018966876928,2022-02-15-15:46:58,10.1.1.4,17,0.010,0.010,0.010,0.000,0.000,0.000
1644940019348835072,2022-02-15-15:46:59,10.1.1.4,39,-0.060,-0.060,-0.060,0.000,0.000,0.000
1644940019726937088,2022-02-15-15:46:59,10.1.1.4,12,-0.060,-0.060,-0.060,0.000,0.000,0.000
1644940019886941952,2022-02-15-15:46:59,10.1.1.4,19,-0.030,-0.030,-0.030,0.000,0.000,0.000
1644940020446710016,2022-02-15-15:47:00,10.1.1.4,20,0.080,0.080,0.080,0.000,0.000,0.000
1644940020507751936,2022-02-15-15:47:00,10.1.1.4,30,0.090,0.090,0.090,0.000,0.000,0.000
1644940020586977024,2022-02-15-15:47:00,10.1.1.4,8,0.090,0.090,0.090,0.000,0.000,0.000
1644940021067586816,2022-02-15-15:47:01,10.1.1.4,30,0.000,0.000,0.000,0.000,0.000,0.000
1644940021105892864,2022-02-15-15:47:01,10.1.1.4,19,-0.010,-0.010,-0.010,0.000,0.000,0.000
1644940022025208832,2022-02-15-15:47:02,10.1.1.4,20,-0.010,-0.010,-0.010,0.000,0.000,0.000
1644940022704046848,2022-02-15-15:47:02,10.1.1.4,39,0.080,0.080,0.080,0.000,0.000,0.000
1644940023768249088,2022-02-15-15:47:03,10.1.1.4,20,-0.070,-0.070,-0.070,0.000,0.000,0.000
1644940024824018944,2022-02-15-15:47:04,10.1.1.4,20,0.070,0.070,0.070,0.000,0.000,0.000
1644940026224272128,2022-02-15-15:47:06,10.1.1.4,19,0.000,0.000,0.000,0.000,0.000,0.000
1644940026286237952,2022-02-15-15:47:06,10.1.1.4,28,0.010,0.010,0.010,0.000,0.000,0.000
1644940026703756032,2022-02-15-15:47:06,10.1.1.4,40,0.090,0.090,0.090,0.000,0.000,0.000
1644940026784167936,2022-02-15-15:47:06,10.1.1.4,18,0.090,0.090,0.090,0.000,0.000,0.000
1644940027004977920,2022-02-15-15:47:07,10.1.1.4,30,0.050,0.050,0.050,0.000,0.000,0.000
1644940027304292864,2022-02-15-15:47:07,10.1.1.4,20,-0.010,-0.010,-0.010,0.000,0.000,0.000
1644940027364228096,2022-02-15-15:47:07,10.1.1.4,29,-0.020,-0.020,-0.020,0.000,0.000,0.000
1644940027763827200,2022-02-15-15:47:07,10.1.1.4,20,-0.100,-0.100,-0.100,0.000,0.000,0.000
1644940028844363008,2022-02-15-15:47:08,10.1.1.4,30,0.090,0.090,0.090,0.000,0.000,0.000
1644940030327267840,2022-02-15-15:47:10,10.1.1.4,29,0.000,0.000,0.000,0.000,0.000,0.000
1644940030983907072,2022-02-15-15:47:10,10.1.1.4,30,0.070,0.070,0.070,0.000,0.000,0.000
1644940031484570880,2022-02-15-15:47:11,10.1.1.4,20,-0.030,-0.030,-0.030,0.000,0.000,0.000
1644940032005366016,2022-02-15-15:47:12,10.1.1.4,30,-0.070,-0.070,-0.070,0.000,0.000,0.000
1644940032065620992,2022-02-15-15:47:12,10.1.1.4,39,-0.060,-0.060,-0.060,0.000,0.000,0.000
1644940032524410880,2022-02-15-15:47:12,10.1.1.4,39,0.030,0.030,0.030,0.000,0.000,0.000
1644940033024955904,2022-02-15-15:47:13,10.1.1.4,28,0.070,0.070,0.070,0.000,0.000,0.000
1644940033444962048,2022-02-15-15:47:13,10.1.1.4,39,-0.010,-0.010,-0.010,0.000,0.000,0.000
1644940033944848128,2022-02-15-15:47:13,10.1.1.4,29,-0.090,-0.090,-0.090,0.000,0.000,0.000
1644940034544328960,2022-02-15-15:47:14,10.1.1.4,19,0.030,0.030,0.030,0.000,0.000,0.000
1644940034965261056,2022-02-15-15:47:14,10.1.1.4,29,0.090,0.090,0.090,0.000,0.000,0.000
1644940035026550016,2022-02-15-15:47:15,10.1.1.4,38,0.080,0.080,0.080,0.000,0.000,0.000
1644940036443929856,2022-02-15-15:47:16,10.1.1.4,28,0.000,0.000,0.000,0.000,0.000,0.000
1644940037444449024,2022-02-15-15:47:17,10.1.1.4,13,0.000,0.000,0.000,0.000,0.000,0.000
1644940038464402944,2022-02-15-15:47:18,10.1.1.4,13,0.000,0.000,0.000,0.000,0.000,0.000
1644940038745601792,2022-02-15-15:47:18,10.1.1.4,39,0.050,0.050,0.050,0.000,0.000,0.000
1644940039223921152,2022-02-15-15:47:19,10.1.1.4,9,0.050,0.050,0.050,0.000,0.000,0.000
1644940039305222912,2022-02-15-15:47:19,10.1.1.4,39,0.040,0.040,0.040,0.000,0.000,0.000
1644940039804619008,2022-02-15-15:47:19,10.1.1.4,29,-0.060,-0.060,-0.060,0.000,0.000,0.000
1644940040204421888,2022-02-15-15:47:20,10.1.1.4,21,-0.060,-0.060,-0.060,0.000,0.000,0.000
1644940040425273856,2022-02-15-15:47:20,10.1.1.4,36,-0.020,-0.020,-0.020,0.000,0.000,0.000
1644940041184169984,2022-02-15-15:47:21,10.1.1.4,29,0.070,0.070,0.070,0.000,0.000,0.000
1644940041245438208,2022-02-15-15:47:21,10.1.1.4,39,0.060,0.060,0.060,0.000,0.000,0.000
1644940042404931072,2022-02-15-15:47:22,10.1.1.4,29,-0.030,-0.030,-0.030,0.000,0.000,0.000
1644940042804996096,2022-02-15-15:47:22,10.1.1.4,20,0.050,0.050,0.050,0.000,0.000,0.000
1644940042864850944,2022-02-15-15:47:22,10.1.1.4,29,0.060,0.060,0.060,0.000,0.000,0.000
1644940043264436992,2022-02-15-15:47:23,10.1.1.4,20,0.060,0.060,0.060,0.000,0.000,0.000
1644940043384353024,2022-02-15-15:47:23,10.1.1.4,39,0.040,0.040,0.040,0.000,0.000,0.000
1644940043784616960,2022-02-15-15:47:23,10.1.1.4,29,-0.040,-0.040,-0.040,0.000,0.000,0.000
1644940043847014912,2022-02-15-15:47:23,10.1.1.4,39,-0.050,-0.050,-0.050,0.000,0.000,0.000
1644940044331116800,2022-02-15-15:47:24,10.1.1.4,10,-0.050,-0.050,-0.050,0.000,0.000,0.000
1644940044404726016,2022-02-15-15:47:24,10.1.1.4,39,-0.040,-0.040,-0.040,0.000,0.000,0.000
1644940045306004992,2022-02-15-15:47:25,10.1.1.4,20,0.060,0.060,0.060,0.000,0.000,0.000
1644940045784399872,2022-02-15-15:47:25,10.1.1.4,39,-0.030,-0.030,-0.030,0.000,0.000,0.000
1644940046284579072,2022-02-15-15:47:26,10.1.1.4,29,-0.070,-0.070,-0.070,0.000,0.000,0.000
1644940046344815104,2022-02-15-15:47:26,10.1.1.4,39,-0.060,-0.060,-0.060,0.000,0.000,0.000
1644940047364628992,2022-02-15-15:47:27,10.1.1.4,39,0.060,0.060,0.060,0.000,0.000,0.000
1644940048603777024,2022-02-15-15:47:28,10.1.1.4,39,-0.020,-0.020,-0.020,0.000,0.000,0.000
1644940049104816896,2022-02-15-15:47:29,10.1.1.4,30,0.080,0.080,0.080,0.000,0.000,0.000
1644940049286680832,2022-02-15-15:47:29,10.1.1.4,6,0.080,0.080,0.080,0.000,0.000,0.000
1644940049563927808,2022-02-15-15:47:29,10.1.1.4,29,0.030,0.030,0.030,0.000,0.000,0.000
1644940050023764992,2022-02-15-15:47:30,10.1.1.4,29,-0.060,-0.060,-0.060,0.000,0.000,0.000
1644940050284591872,2022-02-15-15:47:30,10.1.1.4,30,-0.090,-0.090,-0.090,0.000,0.000,0.000
1644940051044517120,2022-02-15-15:47:31,10.1.1.4,30,0.060,0.060,0.060,0.000,0.000,0.000
1644940051444600064,2022-02-15-15:47:31,10.1.1.4,25,0.060,0.060,0.060,0.000,0.000,0.000
1644940051704515072,2022-02-15-15:47:31,10.1.1.4,30,0.010,0.010,0.010,0.000,0.000,0.000
1644940052363941888,2022-02-15-15:47:32,10.1.1.4,20,-0.080,-0.080,-0.080,0.000,0.000,0.000
1644940052424550912,2022-02-15-15:47:32,10.1.1.4,29,-0.070,-0.070,-0.070,0.000,0.000,0.000
1644940053383853824,2022-02-15-15:47:33,10.1.1.4,29,0.080,0.080,0.080,0.000,0.000,0.000
1644940054143881984,2022-02-15-15:47:34,10.1.1.4,29,-0.070,-0.070,-0.070,0.000,0.000,0.000
1644940054205388032,2022-02-15-15:47:34,10.1.1.4,39,-0.080,-0.080,-0.080,0.000,0.000,0.000
1644940054384217856,2022-02-15-15:47:34,10.1.1.4,16,-0.080,-0.080,-0.080,0.000,0.000,0.000
1644940054805313024,2022-02-15-15:47:34,10.1.1.4,30,0.000,0.000,0.000,0.000,0.000,0.000
1644940054864310016,2022-02-15-15:47:34,10.1.1.4,39,0.010,0.010,0.010,0.000,0.000,0.000
1644940054903703808,2022-02-15-15:47:34,10.1.1.4,29,0.020,0.020,0.020,0.000,0.000,0.000
1644940055703838208,2022-02-15-15:47:35,10.1.1.4,19,0.020,0.020,0.020,0.000,0.000,0.000
1644940055763947008,2022-02-15-15:47:35,10.1.1.4,29,0.010,0.010,0.010,0.000,0.000,0.000
1644940056526654976,2022-02-15-15:47:36,10.1.1.4,30,-0.060,-0.060,-0.060,0.000,0.000,0.000
1644940057204248064,2022-02-15-15:47:37,10.1.1.4,39,0.070,0.070,0.070,0.000,0.000,0.000
1644940057250017792,2022-02-15-15:47:37,10.1.1.4,31,0.080,0.080,0.080,0.000,0.000,0.000
1644940057424428032,2022-02-15-15:47:37,10.1.1.4,6,0.080,0.080,0.080,0.000,0.000,0.000
1644940057724278016,2022-02-15-15:47:37,10.1.1.4,29,0.030,0.030,0.030,0.000,0.000,0.000
1644940057783889152,2022-02-15-15:47:37,10.1.1.4,39,0.020,0.020,0.020,0.000,0.000,0.000
1644940058325937920,2022-02-15-15:47:38,10.1.1.4,20,-0.090,-0.090,-0.090,0.000,0.000,0.000
1644940058423633152,2022-02-15-15:47:38,10.1.1.4,18,-0.090,-0.090,-0.090,0.000,0.000,0.000
1644940059144009216,2022-02-15-15:47:39,10.1.1.4,29,0.050,0.050,0.050,0.000,0.000,0.000
1644940059204083968,2022-02-15-15:47:39,10.1.1.4,38,0.060,0.060,0.060,0.000,0.000,0.000
1644940059584165120,2022-02-15-15:47:39,10.1.1.4,14,0.060,0.060,0.060,0.000,0.000,0.000
1644940059966415872,2022-02-15-15:47:39,10.1.1.4,39,-0.010,-0.010,-0.010,0.000,0.000,0.000
1644940060866853120,2022-02-15-15:47:40,10.1.1.4,21,-0.010,-0.010,-0.010,0.000,0.000,0.000
1644940061064097792,2022-02-15-15:47:41,10.1.1.4,19,0.030,0.030,0.030,0.000,0.000,0.000
1644940061447115008,2022-02-15-15:47:41,10.1.1.4,39,0.100,0.100,0.100,0.000,0.000,0.000
1644940062404148224,2022-02-15-15:47:42,10.1.1.4,39,-0.090,-0.090,-0.090,0.000,0.000,0.000
1644940062483875072,2022-02-15-15:47:42,10.1.1.4,15,-0.090,-0.090,-0.090,0.000,0.000,0.000
1644940062746861056,2022-02-15-15:47:42,10.1.1.4,21,-0.040,-0.040,-0.040,0.000,0.000,0.000
1644940063404443136,2022-02-15-15:47:43,10.1.1.4,19,0.090,0.090,0.090,0.000,0.000,0.000
1644940063504098816,2022-02-15-15:47:43,10.1.1.4,18,0.090,0.090,0.090,0.000,0.000,0.000
1644940064751235840,2022-02-15-15:47:44,10.1.1.4,39,-0.050,-0.050,-0.050,0.000,0.000,0.000
1644940065404664064,2022-02-15-15:47:45,10.1.1.4,39,0.080,0.080,0.080,0.000,0.000,0.000
1644940065585249792,2022-02-15-15:47:45,10.1.1.4,16,0.080,0.080,0.080,0.000,0.000,0.000
1644940067405150976,2022-02-15-15:47:47,10.1.1.4,6,0.080,0.080,0.080,0.000,0.000,0.000
1644940067626429184,2022-02-15-15:47:47,10.1.1.4,23,0.080,0.080,0.080,0.000,0.000,0.000
1644940069444459008,2022-02-15-15:47:49,10.1.1.4,20,0.080,0.080,0.080,0.000,0.000,0.000
1644940069643512064,2022-02-15-15:47:49,10.1.1.4,16,0.080,0.080,0.080,0.000,0.000,0.000
1644940070123691008,2022-02-15-15:47:50,10.1.1.4,40,-0.010,-0.010,-0.010,0.000,0.000,0.000
1644940071004007168,2022-02-15-15:47:51,10.1.1.4,10,-0.010,-0.010,-0.010,0.000,0.000,0.000
1644940071083880960,2022-02-15-15:47:51,10.1.1.4,39,0.000,0.000,0.000,0.000,0.000,0.000
1644940071885473024,2022-02-15-15:47:51,10.1.1.4,30,0.040,0.040,0.040,0.000,0.000,0.000
1644940072448302080,2022-02-15-15:47:52,10.1.1.4,29,-0.070,-0.070,-0.070,0.000,0.000,0.000
1644940072758432000,2022-02-15-15:47:52,10.1.1.4,21,-0.070,-0.070,-0.070,0.000,0.000,0.000
1644940072910660096,2022-02-15-15:47:52,10.1.1.4,30,-0.040,-0.040,-0.040,0.000,0.000,0.000
1644940074331970816,2022-02-15-15:47:54,10.1.1.4,20,-0.040,-0.040,-0.040,0.000,0.000,0.000
1644940074392705792,2022-02-15-15:47:54,10.1.1.4,29,-0.050,-0.050,-0.050,0.000,0.000,0.000
1644940074887892992,2022-02-15-15:47:54,10.1.1.4,20,-0.050,-0.050,-0.050,0.000,0.000,0.000
1644940074945391872,2022-02-15-15:47:54,10.1.1.4,30,-0.040,-0.040,-0.040,0.000,0.000,0.000
1644940076223968000,2022-02-15-15:47:56,10.1.1.4,29,-0.010,-0.010,-0.010,0.000,0.000,0.000
1644940076283715072,2022-02-15-15:47:56,10.1.1.4,38,-0.020,-0.020,-0.020,0.000,0.000,0.000
1644940076723768832,2022-02-15-15:47:56,10.1.1.4,20,-0.090,-0.090,-0.090,0.000,0.000,0.000
1644940076783672064,2022-02-15-15:47:56,10.1.1.4,29,-0.080,-0.080,-0.080,0.000,0.000,0.000
1644940076843727104,2022-02-15-15:47:56,10.1.1.4,39,-0.070,-0.070,-0.070,0.000,0.000,0.000
1644940077345519104,2022-02-15-15:47:57,10.1.1.4,31,0.030,0.030,0.030,0.000,0.000,0.000
1644940078004776960,2022-02-15-15:47:58,10.1.1.4,29,0.040,0.040,0.040,0.000,0.000,0.000
1644940079425716992,2022-02-15-15:47:59,10.1.1.4,16,0.040,0.040,0.040,0.000,0.000,0.000
1644940080072776192,2022-02-15-15:48:00,10.1.1.4,15,0.040,0.040,0.040,0.000,0.000,0.000
1644940081583641088,2022-02-15-15:48:01,10.1.1.4,19,0.040,0.040,0.040,0.000,0.000,0.000
1644940082204054016,2022-02-15-15:48:02,10.1.1.4,14,0.040,0.040,0.040,0.000,0.000,0.000
1644940083664125952,2022-02-15-15:48:03,10.1.1.4,11,0.040,0.040,0.040,0.000,0.000,0.000
1644940084283901952,2022-02-15-15:48:04,10.1.1.4,22,0.040,0.040,0.040,0.000,0.000,0.000
1644940084966112000,2022-02-15-15:48:04,10.1.1.4,40,-0.090,-0.090,-0.090,0.000,0.000,0.000
1644940085044292096,2022-02-15-15:48:05,10.1.1.4,19,-0.090,-0.090,-0.090,0.000,0.000,0.000
1644940086363812864,2022-02-15-15:48:06,10.1.1.4,20,0.030,0.030,0.030,0.000,0.000,0.000
1644940086483675904,2022-02-15-15:48:06,10.1.1.4,39,0.010,0.010,0.010,0.000,0.000,0.000
1644940087126601984,2022-02-15-15:48:07,10.1.1.4,20,-0.080,-0.080,-0.080,0.000,0.000,0.000
1644940087285679104,2022-02-15-15:48:07,10.1.1.4,29,-0.050,-0.050,-0.050,0.000,0.000,0.000
1644940088464454912,2022-02-15-15:48:08,10.1.1.4,40,0.020,0.020,0.020,0.000,0.000,0.000
1644940088506532864,2022-02-15-15:48:08,10.1.1.4,29,0.010,0.010,0.010,0.000,0.000,0.000
1644940089364734976,2022-02-15-15:48:09,10.1.1.4,30,-0.040,-0.040,-0.040,0.000,0.000,0.000
1644940090083677952,2022-02-15-15:48:10,10.1.1.4,40,0.100,0.100,0.100,0.000,0.000,0.000
1644940090124079872,2022-02-15-15:48:10,10.1.1.4,29,0.090,0.090,0.090,0.000,0.000,0.000
1644940090924194048,2022-02-15-15:48:10,10.1.1.4,20,-0.070,-0.070,-0.070,0.000,0.000,0.000
1644940091224044032,2022-02-15-15:48:11,10.1.1.4,16,-0.070,-0.070,-0.070,0.000,0.000,0.000
1644940091843988992,2022-02-15-15:48:11,10.1.1.4,30,0.050,0.050,0.050,0.000,0.000,0.000
1644940092344715008,2022-02-15-15:48:12,10.1.1.4,21,0.050,0.050,0.050,0.000,0.000,0.000
1644940092403800064,2022-02-15-15:48:12,10.1.1.4,30,0.040,0.040,0.040,0.000,0.000,0.000
1644940093064268032,2022-02-15-15:48:13,10.1.1.4,29,-0.090,-0.090,-0.090,0.000,0.000,0.000
1644940093143590912,2022-02-15-15:48:13,10.1.1.4,7,-0.090,-0.090,-0.090,0.000,0.000,0.000
1644940093764229120,2022-02-15-15:48:13,10.1.1.4,21,0.030,0.030,0.030,0.000,0.000,0.000
1644940094385131008,2022-02-15-15:48:14,10.1.1.4,29,0.050,0.050,0.050,0.000,0.000,0.000
1644940094444845824,2022-02-15-15:48:14,10.1.1.4,39,0.040,0.040,0.040,0.000,0.000,0.000
1644940095844093952,2022-02-15-15:48:15,10.1.1.4,22,0.040,0.040,0.040,0.000,0.000,0.000
1644940096004071936,2022-02-15-15:48:16,10.1.1.4,29,0.070,0.070,0.070,0.000,0.000,0.000
1644940096303643904,2022-02-15-15:48:16,10.1.1.4,25,0.070,0.070,0.070,0.000,0.000,0.000
1644940096863620096,2022-02-15-15:48:16,10.1.1.4,29,-0.040,-0.040,-0.040,0.000,0.000,0.000
1644940097365030912,2022-02-15-15:48:17,10.1.1.4,21,-0.060,-0.060,-0.060,0.000,0.000,0.000
1644940097524071936,2022-02-15-15:48:17,10.1.1.4,29,-0.030,-0.030,-0.030,0.000,0.000,0.000
1644940098285481984,2022-02-15-15:48:18,10.1.1.4,30,0.080,0.080,0.080,0.000,0.000,0.000
1644940098347768064,2022-02-15-15:48:18,10.1.1.4,39,0.070,0.070,0.070,0.000,0.000,0.000
1644940099084825088,2022-02-15-15:48:19,10.1.1.4,20,-0.080,-0.080,-0.080,0.000,0.000,0.000
1644940099283799040,2022-02-15-15:48:19,10.1.1.4,17,-0.080,-0.080,-0.080,0.000,0.000,0.000
1644940099744169984,2022-02-15-15:48:19,10.1.1.4,20,0.010,0.010,0.010,0.000,0.000,0.000
1644940100463812096,2022-02-15-15:48:20,10.1.1.4,29,0.050,0.050,0.050,0.000,0.000,0.000
1644940101025364992,2022-02-15-15:48:21,10.1.1.4,29,-0.060,-0.060,-0.060,0.000,0.000,0.000
1644940101424048896,2022-02-15-15:48:21,10.1.1.4,22,-0.060,-0.060,-0.060,0.000,0.000,0.000
1644940102483840000,2022-02-15-15:48:22,10.1.1.4,20,0.050,0.050,0.050,0.000,0.000,0.000
1644940102544121856,2022-02-15-15:48:22,10.1.1.4,29,0.040,0.040,0.040,0.000,0.000,0.000
1644940103263652096,2022-02-15-15:48:23,10.1.1.4,39,-0.100,-0.100,-0.100,0.000,0.000,0.000
1644940104224592896,2022-02-15-15:48:24,10.1.1.4,40,0.090,0.090,0.090,0.000,0.000,0.000
1644940104263766016,2022-02-15-15:48:24,10.1.1.4,29,0.100,0.100,0.100,0.000,0.000,0.000
1644940104984240896,2022-02-15-15:48:24,10.1.1.4,30,-0.040,-0.040,-0.040,0.000,0.000,0.000
1644940105046173952,2022-02-15-15:48:25,10.1.1.4,39,-0.050,-0.050,-0.050,0.000,0.000,0.000
1644940105524240896,2022-02-15-15:48:25,10.1.1.4,13,-0.050,-0.050,-0.050,0.000,0.000,0.000
1644940105804316160,2022-02-15-15:48:25,10.1.1.4,39,0.000,0.000,0.000,0.000,0.000,0.000
1644940105844546048,2022-02-15-15:48:25,10.1.1.4,29,0.010,0.010,0.010,0.000,0.000,0.000
1644940106727493888,2022-02-15-15:48:26,10.1.1.4,39,0.020,0.020,0.020,0.000,0.000,0.000
1644940107324390912,2022-02-15-15:48:27,10.1.1.4,29,-0.100,-0.100,-0.100,0.000,0.000,0.000
1644940107383907072,2022-02-15-15:48:27,10.1.1.4,39,-0.090,-0.090,-0.090,0.000,0.000,0.000
1644940108284584960,2022-02-15-15:48:28,10.1.1.4,29,0.090,0.090,0.090,0.000,0.000,0.000
1644940108344086016,2022-02-15-15:48:28,10.1.1.4,39,0.100,0.100,0.100,0.000,0.000,0.000
1644940109203599104,2022-02-15-15:48:29,10.1.1.4,39,-0.070,-0.070,-0.070,0.000,0.000,0.000
1644940109483724032,2022-02-15-15:48:29,10.1.1.4,15,-0.070,-0.070,-0.070,0.000,0.000,0.000
1644940109904593920,2022-02-15-15:48:29,10.1.1.4,29,0.010,0.010,0.010,0.000,0.000,0.000
1644940110805947136,2022-02-15-15:48:30,10.1.1.4,19,0.010,0.010,0.010,0.000,0.000,0.000
1644940111583535872,2022-02-15-15:48:31,10.1.1.4,39,-0.060,-0.060,-0.060,0.000,0.000,0.000
1644940111623913984,2022-02-15-15:48:31,10.1.1.4,29,-0.050,-0.050,-0.050,0.000,0.000,0.000
1644940112904813056,2022-02-15-15:48:32,10.1.1.4,39,0.000,0.000,0.000,0.000,0.000,0.000
1644940113923881984,2022-02-15-15:48:33,10.1.1.4,19,0.000,0.000,0.000,0.000,0.000,0.000
1644940114765507840,2022-02-15-15:48:34,10.1.1.4,39,0.040,0.040,0.040,0.000,0.000,0.000
1644940116164396032,2022-02-15-15:48:36,10.1.1.4,7,0.040,0.040,0.040,0.000,0.000,0.000
1644940116643883008,2022-02-15-15:48:36,10.1.1.4,29,0.070,0.070,0.070,0.000,0.000,0.000
1644940118363898880,2022-02-15-15:48:38,10.1.1.4,7,0.070,0.070,0.070,0.000,0.000,0.000
