FedericoMungari/DigitalTwin_service/01_WiredScenario/Output/Output_script/script_rosapi_2_output_robots12_freq0_2.txt
timestamp,date,node,latency,joint_1,joint_2,joint_3,joint_4,joint_5,joint_6
1644374600792903936,2022-02-09-02:43:18,10.1.1.3,-35,-0.100,-0.100,-0.100,0.000,0.000,0.000
1644374606090512896,2022-02-09-02:43:23,10.1.1.3,22,-0.050,-0.050,-0.050,0.000,0.000,0.000
1644374610902707200,2022-02-09-02:43:27,10.1.1.3,25,-0.020,-0.020,-0.020,0.000,0.000,0.000
1644374614795294976,2022-02-09-02:43:33,10.1.1.3,33,0.020,0.020,0.020,0.000,0.000,0.000
1644374616779140864,2022-02-09-02:43:35,10.1.1.3,26,0.050,0.050,0.050,0.000,0.000,0.000
1644374619844371200,2022-02-09-02:43:37,10.1.1.3,38,0.060,0.060,0.060,0.000,0.000,0.000
1644374624784768000,2022-02-09-02:43:42,10.1.1.3,36,0.080,0.080,0.080,0.000,0.000,0.000
1644374624815870976,2022-02-09-02:43:44,10.1.1.3,19,0.070,0.070,0.070,0.000,0.000,0.000
1644374624947555072,2022-02-09-02:43:44,10.1.1.3,38,0.060,0.060,0.060,0.000,0.000,0.000
1644374625037112832,2022-02-09-02:43:45,10.1.1.3,32,0.050,0.050,0.050,0.000,0.000,0.000
1644374625136781824,2022-02-09-02:43:45,10.1.1.3,22,0.040,0.040,0.040,0.000,0.000,0.000
1644374625237303040,2022-02-09-02:43:45,10.1.1.3,21,0.030,0.030,0.030,0.000,0.000,0.000
1644374625336335872,2022-02-09-02:43:45,10.1.1.3,21,0.020,0.020,0.020,0.000,0.000,0.000
1644374625464541952,2022-02-09-02:43:45,10.1.1.3,34,0.010,0.010,0.010,0.000,0.000,0.000
1644374625656246784,2022-02-09-02:43:45,10.1.1.3,31,-0.010,-0.010,-0.010,0.000,0.000,0.000
1644374625776485888,2022-02-09-02:43:45,10.1.1.3,33,-0.020,-0.020,-0.020,0.000,0.000,0.000
1644374625876441088,2022-02-09-02:43:45,10.1.1.3,31,-0.030,-0.030,-0.030,0.000,0.000,0.000
1644374626253057024,2022-02-09-02:43:46,10.1.1.3,22,-0.040,-0.040,-0.040,0.000,0.000,0.000
1644374632485584128,2022-02-09-02:43:50,10.1.1.3,-1403,-0.080,-0.080,-0.080,0.000,0.000,0.000
1644374634344046080,2022-02-09-02:43:52,10.1.1.3,23,-0.070,-0.070,-0.070,0.000,0.000,0.000
1644374637988635136,2022-02-09-02:43:56,10.1.1.3,22,0.000,0.000,0.000,0.000,0.000,0.000
1644374638037288960,2022-02-09-02:43:58,10.1.1.3,32,0.010,0.010,0.010,0.000,0.000,0.000
1644374638136594176,2022-02-09-02:43:58,10.1.1.3,32,0.020,0.020,0.020,0.000,0.000,0.000
1644374638235888896,2022-02-09-02:43:58,10.1.1.3,30,0.030,0.030,0.030,0.000,0.000,0.000
1644374638336683008,2022-02-09-02:43:58,10.1.1.3,30,0.040,0.040,0.040,0.000,0.000,0.000
1644374638436332032,2022-02-09-02:43:58,10.1.1.3,29,0.050,0.050,0.050,0.000,0.000,0.000
1644374638535680000,2022-02-09-02:43:58,10.1.1.3,27,0.060,0.060,0.060,0.000,0.000,0.000
1644374638644523008,2022-02-09-02:43:58,10.1.1.3,27,0.070,0.070,0.070,0.000,0.000,0.000
1644374638738993920,2022-02-09-02:43:58,10.1.1.3,27,0.080,0.080,0.080,0.000,0.000,0.000
1644374638837444096,2022-02-09-02:43:58,10.1.1.3,26,0.090,0.090,0.090,0.000,0.000,0.000
1644374641168720896,2022-02-09-02:43:59,10.1.1.3,-50,0.090,0.090,0.090,0.000,0.000,0.000
1644374648661277952,2022-02-09-02:44:08,10.1.1.3,27,-0.070,-0.070,-0.070,0.000,0.000,0.000
1644374654360896000,2022-02-09-02:44:12,10.1.1.3,-18,-0.070,-0.070,-0.070,0.000,0.000,0.000
1644374659776699136,2022-02-09-02:44:17,10.1.1.3,37,0.020,0.020,0.020,0.000,0.000,0.000
1644374662742589952,2022-02-09-02:44:22,10.1.1.3,22,0.090,0.090,0.090,0.000,0.000,0.000
1644374665537190912,2022-02-09-02:44:23,10.1.1.3,22,0.070,0.070,0.070,0.000,0.000,0.000
1644374670478998016,2022-02-09-02:44:28,10.1.1.3,39,0.020,0.020,0.020,0.000,0.000,0.000
1644374670786014976,2022-02-09-02:44:30,10.1.1.3,30,0.010,0.010,0.010,0.000,0.000,0.000
1644374670892641024,2022-02-09-02:44:30,10.1.1.3,29,0.000,0.000,0.000,0.000,0.000,0.000
1644374670976363008,2022-02-09-02:44:30,10.1.1.3,21,-0.010,-0.010,-0.010,0.000,0.000,0.000
1644374671117372160,2022-02-09-02:44:31,10.1.1.3,30,-0.020,-0.020,-0.020,0.000,0.000,0.000
1644374671217760000,2022-02-09-02:44:31,10.1.1.3,19,-0.030,-0.030,-0.030,0.000,0.000,0.000
1644374672530316032,2022-02-09-02:44:31,10.1.1.3,38,-0.040,-0.040,-0.040,0.000,0.000,0.000
1644374678083614208,2022-02-09-02:44:35,10.1.1.3,37,-0.070,-0.070,-0.070,0.000,0.000,0.000
1644374679696254976,2022-02-09-02:44:38,10.1.1.3,22,-0.060,-0.060,-0.060,0.000,0.000,0.000
1644374682469174016,2022-02-09-02:44:40,10.1.1.3,34,-0.040,-0.040,-0.040,0.000,0.000,0.000
1644374685093266944,2022-02-09-02:44:43,10.1.1.3,-3385,-0.040,-0.040,-0.040,0.000,0.000,0.000
1644374694183309056,2022-02-09-02:44:53,10.1.1.3,38,0.090,0.090,0.090,0.000,0.000,0.000
1644374698710915072,2022-02-09-02:44:56,10.1.1.3,21,0.030,0.030,0.030,0.000,0.000,0.000
1644374698796154880,2022-02-09-02:44:58,10.1.1.3,23,0.020,0.020,0.020,0.000,0.000,0.000
1644374698895852032,2022-02-09-02:44:58,10.1.1.3,23,0.010,0.010,0.010,0.000,0.000,0.000
1644374698996512000,2022-02-09-02:44:58,10.1.1.3,22,0.000,0.000,0.000,0.000,0.000,0.000
1644374699102701056,2022-02-09-02:44:59,10.1.1.3,22,-0.010,-0.010,-0.010,0.000,0.000,0.000
1644374699197230080,2022-02-09-02:44:59,10.1.1.3,21,-0.020,-0.020,-0.020,0.000,0.000,0.000
1644374699297702912,2022-02-09-02:44:59,10.1.1.3,21,-0.030,-0.030,-0.030,0.000,0.000,0.000
1644374699416702976,2022-02-09-02:44:59,10.1.1.3,36,-0.040,-0.040,-0.040,0.000,0.000,0.000
1644374699516054016,2022-02-09-02:44:59,10.1.1.3,34,-0.050,-0.050,-0.050,0.000,0.000,0.000
1644374699620406016,2022-02-09-02:44:59,10.1.1.3,34,-0.060,-0.060,-0.060,0.000,0.000,0.000
1644374699716417024,2022-02-09-02:44:59,10.1.1.3,33,-0.070,-0.070,-0.070,0.000,0.000,0.000
1644374699815761152,2022-02-09-02:44:59,10.1.1.3,32,-0.080,-0.080,-0.080,0.000,0.000,0.000
1644374699916548096,2022-02-09-02:44:59,10.1.1.3,20,-0.090,-0.090,-0.090,0.000,0.000,0.000
1644374700016581120,2022-02-09-02:45:00,10.1.1.3,19,-0.100,-0.100,-0.100,0.000,0.000,0.000
1644374701950625024,2022-02-09-02:45:00,10.1.1.3,21,-0.090,-0.090,-0.090,0.000,0.000,0.000
1644374705716721152,2022-02-09-02:45:03,10.1.1.3,25,-0.050,-0.050,-0.050,0.000,0.000,0.000
1644374709397864960,2022-02-09-02:45:05,10.1.1.3,31,-0.040,-0.040,-0.040,0.000,0.000,0.000
1644374717801712896,2022-02-09-02:45:15,10.1.1.3,36,0.020,0.020,0.020,0.000,0.000,0.000
1644374722782752000,2022-02-09-02:45:18,10.1.1.3,28,0.000,0.000,0.000,0.000,0.000,0.000
1644374728146555904,2022-02-09-02:45:25,10.1.1.3,30,-0.070,-0.070,-0.070,0.000,0.000,0.000
1644374736047740928,2022-02-09-02:45:31,10.1.1.3,-94,-0.080,-0.080,-0.080,0.000,0.000,0.000
1644374740227740928,2022-02-09-02:45:38,10.1.1.3,27,-0.030,-0.030,-0.030,0.000,0.000,0.000
1644374740396393984,2022-02-09-02:45:40,10.1.1.3,29,-0.020,-0.020,-0.020,0.000,0.000,0.000
1644374740496457984,2022-02-09-02:45:40,10.1.1.3,28,-0.010,-0.010,-0.010,0.000,0.000,0.000
1644374740596598016,2022-02-09-02:45:40,10.1.1.3,25,0.000,0.000,0.000,0.000,0.000,0.000
1644374740705338112,2022-02-09-02:45:40,10.1.1.3,23,0.010,0.010,0.010,0.000,0.000,0.000
1644374740799143168,2022-02-09-02:45:40,10.1.1.3,22,0.020,0.020,0.020,0.000,0.000,0.000
1644374740896771072,2022-02-09-02:45:40,10.1.1.3,21,0.030,0.030,0.030,0.000,0.000,0.000
1644374741019073024,2022-02-09-02:45:41,10.1.1.3,21,0.040,0.040,0.040,0.000,0.000,0.000
1644374741099821056,2022-02-09-02:45:41,10.1.1.3,20,0.050,0.050,0.050,0.000,0.000,0.000
1644374741216090880,2022-02-09-02:45:41,10.1.1.3,38,0.060,0.060,0.060,0.000,0.000,0.000
1644374741317838080,2022-02-09-02:45:41,10.1.1.3,39,0.070,0.070,0.070,0.000,0.000,0.000
1644374741435531008,2022-02-09-02:45:41,10.1.1.3,37,0.080,0.080,0.080,0.000,0.000,0.000
1644374741518193920,2022-02-09-02:45:41,10.1.1.3,36,0.090,0.090,0.090,0.000,0.000,0.000
1644374741616459008,2022-02-09-02:45:41,10.1.1.3,36,0.100,0.100,0.100,0.000,0.000,0.000
1644374741717497088,2022-02-09-02:45:41,10.1.1.3,35,0.090,0.090,0.090,0.000,0.000,0.000
1644374745371076096,2022-02-09-02:45:41,10.1.1.3,34,0.080,0.080,0.080,0.000,0.000,0.000
1644374749791492096,2022-02-09-02:45:45,10.1.1.3,26,0.070,0.070,0.070,0.000,0.000,0.000
1644374753156613120,2022-02-09-02:45:50,10.1.1.3,32,0.050,0.050,0.050,0.000,0.000,0.000
1644374763376780032,2022-02-09-02:45:59,10.1.1.3,-1128,-0.070,-0.070,-0.070,0.000,0.000,0.000
1644374769613285120,2022-02-09-02:46:07,10.1.1.3,25,0.020,0.020,0.020,0.000,0.000,0.000
1644374775014683904,2022-02-09-02:46:13,10.1.1.3,-1683,0.090,0.090,0.090,0.000,0.000,0.000
1644374805777704960,2022-02-09-02:46:42,10.1.1.3,-395,-0.050,-0.050,-0.050,0.000,0.000,0.000
1644374824529320960,2022-02-09-02:47:02,10.1.1.3,-1257,-0.050,-0.050,-0.050,0.000,0.000,0.000
1644374832305643008,2022-02-09-02:47:09,10.1.1.3,-3051,-0.050,-0.050,-0.050,0.000,0.000,0.000
1644374843330179840,2022-02-09-02:47:22,10.1.1.3,-204,-0.050,-0.050,-0.050,0.000,0.000,0.000
1644374855609549056,2022-02-09-02:47:34,10.1.1.3,-239,-0.050,-0.050,-0.050,0.000,0.000,0.000
1644374859140057088,2022-02-09-02:47:38,10.1.1.3,-114,-0.050,-0.050,-0.050,0.000,0.000,0.000
1644374869527748096,2022-02-09-02:47:46,10.1.1.3,-13,-0.050,-0.050,-0.050,0.000,0.000,0.000
1644374884108486912,2022-02-09-02:48:01,10.1.1.3,-859,-0.050,-0.050,-0.050,0.000,0.000,0.000
1644374889617342976,2022-02-09-02:48:06,10.1.1.3,-2746,-0.050,-0.050,-0.050,0.000,0.000,0.000
1644374905835732992,2022-02-09-02:48:23,10.1.1.3,-50,-0.050,-0.050,-0.050,0.000,0.000,0.000
1644374916962546176,2022-02-09-02:48:34,10.1.1.3,-950,-0.050,-0.050,-0.050,0.000,0.000,0.000
1644374919975478784,2022-02-09-02:48:38,10.1.1.3,-161,-0.050,-0.050,-0.050,0.000,0.000,0.000
1644374933369587968,2022-02-09-02:48:51,10.1.1.3,-141,-0.050,-0.050,-0.050,0.000,0.000,0.000
1644374948184552960,2022-02-09-02:49:07,10.1.1.3,-1640,-0.050,-0.050,-0.050,0.000,0.000,0.000
1644374952744144896,2022-02-09-02:49:10,10.1.1.3,-114,-0.050,-0.050,-0.050,0.000,0.000,0.000
1644374967265120000,2022-02-09-02:49:23,10.1.1.3,-1367,-0.050,-0.050,-0.050,0.000,0.000,0.000
1644374983691019008,2022-02-09-02:49:42,10.1.1.3,-150,-0.050,-0.050,-0.050,0.000,0.000,0.000
1644374989166734080,2022-02-09-02:49:46,10.1.1.3,-35,-0.050,-0.050,-0.050,0.000,0.000,0.000
1644374999860956928,2022-02-09-02:49:57,10.1.1.3,-265,-0.050,-0.050,-0.050,0.000,0.000,0.000
1644375003808326912,2022-02-09-02:50:02,10.1.1.3,-6,-0.050,-0.050,-0.050,0.000,0.000,0.000
1644375012582400000,2022-02-09-02:50:10,10.1.1.3,-62,-0.050,-0.050,-0.050,0.000,0.000,0.000
1644375017108418816,2022-02-09-02:50:15,10.1.1.3,-181,-0.050,-0.050,-0.050,0.000,0.000,0.000
1644375020963678976,2022-02-09-02:50:18,10.1.1.3,-3676,-0.050,-0.050,-0.050,0.000,0.000,0.000
1644375029681572864,2022-02-09-02:50:27,10.1.1.3,-10,-0.050,-0.050,-0.050,0.000,0.000,0.000
1644375034720557056,2022-02-09-02:50:32,10.1.1.3,-931,-0.050,-0.050,-0.050,0.000,0.000,0.000
1644375045773814016,2022-02-09-02:50:42,10.1.1.3,-1108,-0.050,-0.050,-0.050,0.000,0.000,0.000
1644375052259998208,2022-02-09-02:50:49,10.1.1.3,-745,-0.050,-0.050,-0.050,0.000,0.000,0.000
1644375068409001984,2022-02-09-02:51:06,10.1.1.3,-786,-0.050,-0.050,-0.050,0.000,0.000,0.000
1644375078651126016,2022-02-09-02:51:17,10.1.1.3,-8,-0.050,-0.050,-0.050,0.000,0.000,0.000
1644375091997325056,2022-02-09-02:51:28,10.1.1.3,-14,-0.050,-0.050,-0.050,0.000,0.000,0.000
1644375103236196096,2022-02-09-02:51:39,10.1.1.3,-4146,-0.050,-0.050,-0.050,0.000,0.000,0.000
1644375116392573952,2022-02-09-02:51:53,10.1.1.3,-1734,-0.050,-0.050,-0.050,0.000,0.000,0.000
1644375121814702080,2022-02-09-02:51:59,10.1.1.3,-78,-0.050,-0.050,-0.050,0.000,0.000,0.000
1644375147784135168,2022-02-09-02:52:24,10.1.1.3,-122,-0.050,-0.050,-0.050,0.000,0.000,0.000
1644375159022617088,2022-02-09-02:52:38,10.1.1.3,-759,-0.050,-0.050,-0.050,0.000,0.000,0.000
1644375175650075904,2022-02-09-02:52:52,10.1.1.3,-160,-0.050,-0.050,-0.050,0.000,0.000,0.000
1644375183488798976,2022-02-09-02:53:02,10.1.1.3,-36,-0.050,-0.050,-0.050,0.000,0.000,0.000
1644375192914364160,2022-02-09-02:53:11,10.1.1.3,-20,-0.050,-0.050,-0.050,0.000,0.000,0.000
1644375206467516928,2022-02-09-02:53:23,10.1.1.3,-690,-0.050,-0.050,-0.050,0.000,0.000,0.000
1644375212540473088,2022-02-09-02:53:30,10.1.1.3,-3274,-0.050,-0.050,-0.050,0.000,0.000,0.000
1644375227167037952,2022-02-09-02:53:43,10.1.1.3,-15,-0.050,-0.050,-0.050,0.000,0.000,0.000
1644375242542072064,2022-02-09-02:53:58,10.1.1.3,-253,-0.050,-0.050,-0.050,0.000,0.000,0.000
1644375250400013824,2022-02-09-02:54:08,10.1.1.3,-9705,-0.050,-0.050,-0.050,0.000,0.000,0.000
1644375282234333952,2022-02-09-02:54:39,10.1.1.3,-1010,-0.050,-0.050,-0.050,0.000,0.000,0.000
1644375285218750976,2022-02-09-02:54:45,10.1.1.3,-9,-0.050,-0.050,-0.050,0.000,0.000,0.000
1644375286236712960,2022-02-09-02:54:46,10.1.1.3,-4,-0.050,-0.050,-0.050,0.000,0.000,0.000
1644375289620836096,2022-02-09-02:54:49,10.1.1.3,-4,-0.050,-0.050,-0.050,0.000,0.000,0.000
1644375290597827840,2022-02-09-02:54:50,10.1.1.3,6,-0.050,-0.050,-0.050,0.000,0.000,0.000
1644375293994213120,2022-02-09-02:54:53,10.1.1.3,5,-0.050,-0.050,-0.050,0.000,0.000,0.000
1644375294928695040,2022-02-09-02:54:54,10.1.1.3,-58,-0.050,-0.050,-0.050,0.000,0.000,0.000
1644375297977533952,2022-02-09-02:54:57,10.1.1.3,-8,-0.050,-0.050,-0.050,0.000,0.000,0.000
1644375298996818176,2022-02-09-02:54:58,10.1.1.3,2,-0.050,-0.050,-0.050,0.000,0.000,0.000
1644375302016887040,2022-02-09-02:55:02,10.1.1.3,-9,-0.050,-0.050,-0.050,0.000,0.000,0.000
1644375303037342976,2022-02-09-02:55:03,10.1.1.3,-2,-0.050,-0.050,-0.050,0.000,0.000,0.000
1644375306077231872,2022-02-09-02:55:06,10.1.1.3,6,-0.050,-0.050,-0.050,0.000,0.000,0.000
1644375307078323968,2022-02-09-02:55:07,10.1.1.3,-1,-0.050,-0.050,-0.050,0.000,0.000,0.000
1644375310098542848,2022-02-09-02:55:10,10.1.1.3,-13,-0.050,-0.050,-0.050,0.000,0.000,0.000
1644375311116809984,2022-02-09-02:55:11,10.1.1.3,0,-0.050,-0.050,-0.050,0.000,0.000,0.000
1644375314138009088,2022-02-09-02:55:14,10.1.1.3,-7,-0.050,-0.050,-0.050,0.000,0.000,0.000
1644375315157807104,2022-02-09-02:55:15,10.1.1.3,-1,-0.050,-0.050,-0.050,0.000,0.000,0.000
1644375318220186880,2022-02-09-02:55:18,10.1.1.3,-3,-0.050,-0.050,-0.050,0.000,0.000,0.000
1644375319257574912,2022-02-09-02:55:19,10.1.1.3,5,-0.050,-0.050,-0.050,0.000,0.000,0.000
1644375322448434944,2022-02-09-02:55:22,10.1.1.3,-2,-0.050,-0.050,-0.050,0.000,0.000,0.000
1644375323397510144,2022-02-09-02:55:23,10.1.1.3,-1,-0.050,-0.050,-0.050,0.000,0.000,0.000
1644375330277894144,2022-02-09-02:55:27,10.1.1.3,-613,-0.050,-0.050,-0.050,0.000,0.000,0.000
1644375336797112832,2022-02-09-02:55:32,10.1.1.3,-184,-0.050,-0.050,-0.050,0.000,0.000,0.000
1644375347345257984,2022-02-09-02:55:47,10.1.1.3,-10,-0.050,-0.050,-0.050,0.000,0.000,0.000
1644375348257762816,2022-02-09-02:55:48,10.1.1.3,-9,-0.050,-0.050,-0.050,0.000,0.000,0.000
1644375351377989888,2022-02-09-02:55:51,10.1.1.3,7,-0.050,-0.050,-0.050,0.000,0.000,0.000
1644375352377639168,2022-02-09-02:55:52,10.1.1.3,-2,-0.050,-0.050,-0.050,0.000,0.000,0.000
1644375355607047936,2022-02-09-02:55:55,10.1.1.3,-3,-0.050,-0.050,-0.050,0.000,0.000,0.000
1644375356517481984,2022-02-09-02:55:56,10.1.1.3,-8,-0.050,-0.050,-0.050,0.000,0.000,0.000
1644375359598583040,2022-02-09-02:55:59,10.1.1.3,7,-0.050,-0.050,-0.050,0.000,0.000,0.000
1644375360617444096,2022-02-09-02:56:00,10.1.1.3,-3,-0.050,-0.050,-0.050,0.000,0.000,0.000
1644375363657787136,2022-02-09-02:56:03,10.1.1.3,-10,-0.050,-0.050,-0.050,0.000,0.000,0.000
1644375364795896064,2022-02-09-02:56:04,10.1.1.3,-1,-0.050,-0.050,-0.050,0.000,0.000,0.000
1644375367758616064,2022-02-09-02:56:07,10.1.1.3,-6,-0.050,-0.050,-0.050,0.000,0.000,0.000
1644375368758701056,2022-02-09-02:56:08,10.1.1.3,-11,-0.050,-0.050,-0.050,0.000,0.000,0.000
1644375371778424064,2022-02-09-02:56:11,10.1.1.3,-10,-0.050,-0.050,-0.050,0.000,0.000,0.000
1644375372850842112,2022-02-09-02:56:12,10.1.1.3,-4,-0.050,-0.050,-0.050,0.000,0.000,0.000
1644375376289227008,2022-02-09-02:56:15,10.1.1.3,5,-0.050,-0.050,-0.050,0.000,0.000,0.000
1644375377597636096,2022-02-09-02:56:17,10.1.1.3,-3,-0.050,-0.050,-0.050,0.000,0.000,0.000
1644375381524222976,2022-02-09-02:56:20,10.1.1.3,4,-0.050,-0.050,-0.050,0.000,0.000,0.000
1644375382695028992,2022-02-09-02:56:22,10.1.1.3,3,-0.050,-0.050,-0.050,0.000,0.000,0.000
1644375387163915008,2022-02-09-02:56:25,10.1.1.3,-2,-0.050,-0.050,-0.050,0.000,0.000,0.000
1644375389697202944,2022-02-09-02:56:28,10.1.1.3,-39,-0.050,-0.050,-0.050,0.000,0.000,0.000
1644375393168832000,2022-02-09-02:56:33,10.1.1.3,-2,-0.050,-0.050,-0.050,0.000,0.000,0.000
1644375394128002048,2022-02-09-02:56:34,10.1.1.3,-3,-0.050,-0.050,-0.050,0.000,0.000,0.000
1644375398620940032,2022-02-09-02:56:37,10.1.1.3,-5,-0.050,-0.050,-0.050,0.000,0.000,0.000
1644375399832694016,2022-02-09-02:56:39,10.1.1.3,-11,-0.050,-0.050,-0.050,0.000,0.000,0.000
1644375403711743232,2022-02-09-02:56:42,10.1.1.3,3,-0.050,-0.050,-0.050,0.000,0.000,0.000
1644375405978046976,2022-02-09-02:56:44,10.1.1.3,1,-0.050,-0.050,-0.050,0.000,0.000,0.000
1644375409543165952,2022-02-09-02:56:49,10.1.1.3,-11,-0.050,-0.050,-0.050,0.000,0.000,0.000
1644375411084439040,2022-02-09-02:56:50,10.1.1.3,-17,-0.050,-0.050,-0.050,0.000,0.000,0.000
1644375414365452032,2022-02-09-02:56:54,10.1.1.3,3,-0.050,-0.050,-0.050,0.000,0.000,0.000
1644375415478777856,2022-02-09-02:56:55,10.1.1.3,-10,-0.050,-0.050,-0.050,0.000,0.000,0.000
1644375419834189824,2022-02-09-02:56:59,10.1.1.3,-10,-0.050,-0.050,-0.050,0.000,0.000,0.000
1644375420838179072,2022-02-09-02:57:00,10.1.1.3,-11,-0.050,-0.050,-0.050,0.000,0.000,0.000
1644375428094481920,2022-02-09-02:57:04,10.1.1.3,-14,-0.050,-0.050,-0.050,0.000,0.000,0.000
1644375431424495104,2022-02-09-02:57:09,10.1.1.3,1,-0.050,-0.050,-0.050,0.000,0.000,0.000
1644375435051495936,2022-02-09-02:57:14,10.1.1.3,-4,-0.050,-0.050,-0.050,0.000,0.000,0.000
1644375435958617088,2022-02-09-02:57:15,10.1.1.3,-13,-0.050,-0.050,-0.050,0.000,0.000,0.000
1644375438998193152,2022-02-09-02:57:18,10.1.1.3,-4,-0.050,-0.050,-0.050,0.000,0.000,0.000
1644375440037835008,2022-02-09-02:57:20,10.1.1.3,-9,-0.050,-0.050,-0.050,0.000,0.000,0.000
1644375443138316032,2022-02-09-02:57:23,10.1.1.3,-1,-0.050,-0.050,-0.050,0.000,0.000,0.000
1644375444157972992,2022-02-09-02:57:24,10.1.1.3,6,-0.050,-0.050,-0.050,0.000,0.000,0.000
1644375447206872064,2022-02-09-02:57:27,10.1.1.3,-5,-0.050,-0.050,-0.050,0.000,0.000,0.000
1644375448178811904,2022-02-09-02:57:28,10.1.1.3,-10,-0.050,-0.050,-0.050,0.000,0.000,0.000
1644375451219623168,2022-02-09-02:57:31,10.1.1.3,4,-0.050,-0.050,-0.050,0.000,0.000,0.000
1644375452217349888,2022-02-09-02:57:32,10.1.1.3,-11,-0.050,-0.050,-0.050,0.000,0.000,0.000
1644375455318886912,2022-02-09-02:57:35,10.1.1.3,-10,-0.050,-0.050,-0.050,0.000,0.000,0.000
1644375456417711104,2022-02-09-02:57:36,10.1.1.3,-27,-0.050,-0.050,-0.050,0.000,0.000,0.000
1644375459705105152,2022-02-09-02:57:39,10.1.1.3,-5,-0.050,-0.050,-0.050,0.000,0.000,0.000
1644375460966878976,2022-02-09-02:57:40,10.1.1.3,5,-0.050,-0.050,-0.050,0.000,0.000,0.000
1644375464164276992,2022-02-09-02:57:43,10.1.1.3,-5,-0.050,-0.050,-0.050,0.000,0.000,0.000
1644375465490797056,2022-02-09-02:57:45,10.1.1.3,-4,-0.050,-0.050,-0.050,0.000,0.000,0.000
1644375468518894848,2022-02-09-02:57:48,10.1.1.3,-13,-0.050,-0.050,-0.050,0.000,0.000,0.000
1644375469983138048,2022-02-09-02:57:49,10.1.1.3,-4,-0.050,-0.050,-0.050,0.000,0.000,0.000
1644375472977624832,2022-02-09-02:57:52,10.1.1.3,-11,-0.050,-0.050,-0.050,0.000,0.000,0.000
1644375473997607936,2022-02-09-02:57:53,10.1.1.3,-7,-0.050,-0.050,-0.050,0.000,0.000,0.000
1644375478673175040,2022-02-09-02:57:57,10.1.1.3,4,-0.050,-0.050,-0.050,0.000,0.000,0.000
1644375478864741120,2022-02-09-02:57:58,10.1.1.3,-1578,-0.050,-0.050,-0.050,0.000,0.000,0.000
1644375479862409984,2022-02-09-02:57:59,10.1.1.3,-1,-0.050,-0.050,-0.050,0.000,0.000,0.000
1644375484802725120,2022-02-09-02:58:02,10.1.1.3,4,-0.050,-0.050,-0.050,0.000,0.000,0.000
1644375486077649152,2022-02-09-02:58:06,10.1.1.3,-26,-0.050,-0.050,-0.050,0.000,0.000,0.000
1644375492906635008,2022-02-09-02:58:09,10.1.1.3,2,-0.050,-0.050,-0.050,0.000,0.000,0.000
1644375497091660032,2022-02-09-02:58:15,10.1.1.3,-2,-0.050,-0.050,-0.050,0.000,0.000,0.000
1644375503340562176,2022-02-09-02:58:20,10.1.1.3,0,-0.050,-0.050,-0.050,0.000,0.000,0.000
1644375504517963776,2022-02-09-02:58:24,10.1.1.3,-1,-0.050,-0.050,-0.050,0.000,0.000,0.000
1644375509533688064,2022-02-09-02:58:27,10.1.1.3,0,-0.050,-0.050,-0.050,0.000,0.000,0.000
1644375510677475840,2022-02-09-02:58:30,10.1.1.3,-8,-0.050,-0.050,-0.050,0.000,0.000,0.000
1644375516908104960,2022-02-09-02:58:33,10.1.1.3,-12,-0.050,-0.050,-0.050,0.000,0.000,0.000
1644375519129106944,2022-02-09-02:58:38,10.1.1.3,-12,-0.050,-0.050,-0.050,0.000,0.000,0.000
1644375524178447104,2022-02-09-02:58:42,10.1.1.3,-8,-0.050,-0.050,-0.050,0.000,0.000,0.000
1644375530424269824,2022-02-09-02:58:45,10.1.1.3,-6,-0.050,-0.050,-0.050,0.000,0.000,0.000
1644375540034171136,2022-02-09-02:58:55,10.1.1.3,-3,-0.050,-0.050,-0.050,0.000,0.000,0.000
1644375545786170880,2022-02-09-02:59:01,10.1.1.3,-27,-0.050,-0.050,-0.050,0.000,0.000,0.000
1644375557942657024,2022-02-09-02:59:14,10.1.1.3,5,-0.050,-0.050,-0.050,0.000,0.000,0.000
1644375564513094912,2022-02-09-02:59:20,10.1.1.3,-5,-0.050,-0.050,-0.050,0.000,0.000,0.000
1644375570269666048,2022-02-09-02:59:28,10.1.1.3,-31,-0.050,-0.050,-0.050,0.000,0.000,0.000
1644375571778004992,2022-02-09-02:59:31,10.1.1.3,-10,-0.050,-0.050,-0.050,0.000,0.000,0.000
1644375579048907008,2022-02-09-02:59:34,10.1.1.3,6,-0.050,-0.050,-0.050,0.000,0.000,0.000
1644375585138340096,2022-02-09-02:59:40,10.1.1.3,-10,-0.050,-0.050,-0.050,0.000,0.000,0.000
1644375593676111872,2022-02-09-02:59:50,10.1.1.3,-200,-0.050,-0.050,-0.050,0.000,0.000,0.000
1644375601678534912,2022-02-09-02:59:56,10.1.1.3,-12,-0.050,-0.050,-0.050,0.000,0.000,0.000
1644375833920012032,2022-02-09-03:03:53,10.1.1.3,-1,-0.050,-0.050,-0.050,0.000,0.000,0.000
1644375834840559104,2022-02-09-03:03:54,10.1.1.3,-3,-0.050,-0.050,-0.050,0.000,0.000,0.000
1644375837860964096,2022-02-09-03:03:57,10.1.1.3,-3,-0.050,-0.050,-0.050,0.000,0.000,0.000
1644375838860336128,2022-02-09-03:03:58,10.1.1.3,-11,-0.050,-0.050,-0.050,0.000,0.000,0.000
1644375841880513792,2022-02-09-03:04:01,10.1.1.3,-11,-0.050,-0.050,-0.050,0.000,0.000,0.000
1644375842899958016,2022-02-09-03:04:02,10.1.1.3,0,-0.050,-0.050,-0.050,0.000,0.000,0.000
1644375845931777024,2022-02-09-03:04:05,10.1.1.3,-7,-0.050,-0.050,-0.050,0.000,0.000,0.000
1644375846920192000,2022-02-09-03:04:06,10.1.1.3,-12,-0.050,-0.050,-0.050,0.000,0.000,0.000
1644375849961317120,2022-02-09-03:04:09,10.1.1.3,1,-0.050,-0.050,-0.050,0.000,0.000,0.000
1644375850961005056,2022-02-09-03:04:10,10.1.1.3,-7,-0.050,-0.050,-0.050,0.000,0.000,0.000
1644375854000814080,2022-02-09-03:04:14,10.1.1.3,-13,-0.050,-0.050,-0.050,0.000,0.000,0.000
1644375855020881920,2022-02-09-03:04:15,10.1.1.3,-1,-0.050,-0.050,-0.050,0.000,0.000,0.000
1644375858060459008,2022-02-09-03:04:18,10.1.1.3,-11,-0.050,-0.050,-0.050,0.000,0.000,0.000
1644375859080933120,2022-02-09-03:04:19,10.1.1.3,-1,-0.050,-0.050,-0.050,0.000,0.000,0.000
1644375862100434176,2022-02-09-03:04:22,10.1.1.3,-6,-0.050,-0.050,-0.050,0.000,0.000,0.000
1644375863101017088,2022-02-09-03:04:23,10.1.1.3,-12,-0.050,-0.050,-0.050,0.000,0.000,0.000
1644375866140742912,2022-02-09-03:04:26,10.1.1.3,2,-0.050,-0.050,-0.050,0.000,0.000,0.000
1644375867141750016,2022-02-09-03:04:27,10.1.1.3,-12,-0.050,-0.050,-0.050,0.000,0.000,0.000
1644375870180249088,2022-02-09-03:04:30,10.1.1.3,2,-0.050,-0.050,-0.050,0.000,0.000,0.000
1644375871180924928,2022-02-09-03:04:31,10.1.1.3,-4,-0.050,-0.050,-0.050,0.000,0.000,0.000
1644375874203048960,2022-02-09-03:04:34,10.1.1.3,-6,-0.050,-0.050,-0.050,0.000,0.000,0.000
1644375875204056064,2022-02-09-03:04:35,10.1.1.3,-13,-0.050,-0.050,-0.050,0.000,0.000,0.000
1644375878220670976,2022-02-09-03:04:38,10.1.1.3,-11,-0.050,-0.050,-0.050,0.000,0.000,0.000
1644375879240566016,2022-02-09-03:04:39,10.1.1.3,3,-0.050,-0.050,-0.050,0.000,0.000,0.000
1644375882245282816,2022-02-09-03:04:42,10.1.1.3,-11,-0.050,-0.050,-0.050,0.000,0.000,0.000
1644375883280303872,2022-02-09-03:04:43,10.1.1.3,1,-0.050,-0.050,-0.050,0.000,0.000,0.000
1644375886283209984,2022-02-09-03:04:46,10.1.1.3,0,-0.050,-0.050,-0.050,0.000,0.000,0.000
1644375887281277952,2022-02-09-03:04:47,10.1.1.3,-6,-0.050,-0.050,-0.050,0.000,0.000,0.000
1644375890300601856,2022-02-09-03:04:50,10.1.1.3,-5,-0.050,-0.050,-0.050,0.000,0.000,0.000
1644375891301049856,2022-02-09-03:04:51,10.1.1.3,-9,-0.050,-0.050,-0.050,0.000,0.000,0.000
1644375894320818944,2022-02-09-03:04:54,10.1.1.3,-10,-0.050,-0.050,-0.050,0.000,0.000,0.000
1644375895321757952,2022-02-09-03:04:55,10.1.1.3,-14,-0.050,-0.050,-0.050,0.000,0.000,0.000
1644375898340438016,2022-02-09-03:04:58,10.1.1.3,-11,-0.050,-0.050,-0.050,0.000,0.000,0.000
1644375899360666112,2022-02-09-03:04:59,10.1.1.3,3,-0.050,-0.050,-0.050,0.000,0.000,0.000
1644375902381071104,2022-02-09-03:05:02,10.1.1.3,3,-0.050,-0.050,-0.050,0.000,0.000,0.000
1644375903381516032,2022-02-09-03:05:03,10.1.1.3,-5,-0.050,-0.050,-0.050,0.000,0.000,0.000
1644375906420500992,2022-02-09-03:05:06,10.1.1.3,-8,-0.050,-0.050,-0.050,0.000,0.000,0.000
1644375907421103872,2022-02-09-03:05:07,10.1.1.3,-13,-0.050,-0.050,-0.050,0.000,0.000,0.000
1644375910460462080,2022-02-09-03:05:10,10.1.1.3,5,-0.050,-0.050,-0.050,0.000,0.000,0.000
1644375911462157056,2022-02-09-03:05:11,10.1.1.3,-1,-0.050,-0.050,-0.050,0.000,0.000,0.000
1644375914526734080,2022-02-09-03:05:14,10.1.1.3,-3,-0.050,-0.050,-0.050,0.000,0.000,0.000
1644375915521992960,2022-02-09-03:05:15,10.1.1.3,-10,-0.050,-0.050,-0.050,0.000,0.000,0.000
1644375918541341952,2022-02-09-03:05:18,10.1.1.3,-8,-0.050,-0.050,-0.050,0.000,0.000,0.000
1644375919561017088,2022-02-09-03:05:19,10.1.1.3,4,-0.050,-0.050,-0.050,0.000,0.000,0.000
1644375922580717056,2022-02-09-03:05:22,10.1.1.3,2,-0.050,-0.050,-0.050,0.000,0.000,0.000
1644375923581340928,2022-02-09-03:05:23,10.1.1.3,-5,-0.050,-0.050,-0.050,0.000,0.000,0.000
1644375926601236992,2022-02-09-03:05:26,10.1.1.3,-3,-0.050,-0.050,-0.050,0.000,0.000,0.000
1644375927601191168,2022-02-09-03:05:27,10.1.1.3,-13,-0.050,-0.050,-0.050,0.000,0.000,0.000
1644375930643752192,2022-02-09-03:05:30,10.1.1.3,-3,-0.050,-0.050,-0.050,0.000,0.000,0.000
1644375931640369920,2022-02-09-03:05:31,10.1.1.3,-8,-0.050,-0.050,-0.050,0.000,0.000,0.000
1644375934660975872,2022-02-09-03:05:34,10.1.1.3,-12,-0.050,-0.050,-0.050,0.000,0.000,0.000
1644375935681672960,2022-02-09-03:05:35,10.1.1.3,-1,-0.050,-0.050,-0.050,0.000,0.000,0.000
1644375938700903936,2022-02-09-03:05:38,10.1.1.3,-2,-0.050,-0.050,-0.050,0.000,0.000,0.000
1644375939700977920,2022-02-09-03:05:39,10.1.1.3,-6,-0.050,-0.050,-0.050,0.000,0.000,0.000
1644375942724292096,2022-02-09-03:05:42,10.1.1.3,-12,-0.050,-0.050,-0.050,0.000,0.000,0.000
1644375943741553920,2022-02-09-03:05:43,10.1.1.3,0,-0.050,-0.050,-0.050,0.000,0.000,0.000
1644375946761051904,2022-02-09-03:05:46,10.1.1.3,-7,-0.050,-0.050,-0.050,0.000,0.000,0.000
1644375947760307968,2022-02-09-03:05:47,10.1.1.3,-13,-0.050,-0.050,-0.050,0.000,0.000,0.000
1644375950782008832,2022-02-09-03:05:50,10.1.1.3,-8,-0.050,-0.050,-0.050,0.000,0.000,0.000
1644375951801372928,2022-02-09-03:05:51,10.1.1.3,1,-0.050,-0.050,-0.050,0.000,0.000,0.000
1644375954821396224,2022-02-09-03:05:54,10.1.1.3,1,-0.050,-0.050,-0.050,0.000,0.000,0.000
1644375955820615936,2022-02-09-03:05:55,10.1.1.3,-7,-0.050,-0.050,-0.050,0.000,0.000,0.000
1644375958841852928,2022-02-09-03:05:58,10.1.1.3,-5,-0.050,-0.050,-0.050,0.000,0.000,0.000
1644375959842607872,2022-02-09-03:05:59,10.1.1.3,-8,-0.050,-0.050,-0.050,0.000,0.000,0.000
1644375962860688896,2022-02-09-03:06:02,10.1.1.3,-2,-0.050,-0.050,-0.050,0.000,0.000,0.000
1644375963860781824,2022-02-09-03:06:03,10.1.1.3,-7,-0.050,-0.050,-0.050,0.000,0.000,0.000
1644375966881527808,2022-02-09-03:06:06,10.1.1.3,-6,-0.050,-0.050,-0.050,0.000,0.000,0.000
1644375967880481024,2022-02-09-03:06:07,10.1.1.3,-12,-0.050,-0.050,-0.050,0.000,0.000,0.000
1644375970902153984,2022-02-09-03:06:10,10.1.1.3,-14,-0.050,-0.050,-0.050,0.000,0.000,0.000
1644375971920651008,2022-02-09-03:06:11,10.1.1.3,-5,-0.050,-0.050,-0.050,0.000,0.000,0.000
1644375974941248768,2022-02-09-03:06:14,10.1.1.3,-8,-0.050,-0.050,-0.050,0.000,0.000,0.000
1644375975941143040,2022-02-09-03:06:15,10.1.1.3,-14,-0.050,-0.050,-0.050,0.000,0.000,0.000
1644375978981647104,2022-02-09-03:06:18,10.1.1.3,2,-0.050,-0.050,-0.050,0.000,0.000,0.000
1644375979981746944,2022-02-09-03:06:19,10.1.1.3,-5,-0.050,-0.050,-0.050,0.000,0.000,0.000
1644375983003118080,2022-02-09-03:06:23,10.1.1.3,-2,-0.050,-0.050,-0.050,0.000,0.000,0.000
1644375984001773056,2022-02-09-03:06:24,10.1.1.3,-9,-0.050,-0.050,-0.050,0.000,0.000,0.000
1644375987023053824,2022-02-09-03:06:27,10.1.1.3,-12,-0.050,-0.050,-0.050,0.000,0.000,0.000
1644375988041203968,2022-02-09-03:06:28,10.1.1.3,-2,-0.050,-0.050,-0.050,0.000,0.000,0.000
1644375991061104896,2022-02-09-03:06:31,10.1.1.3,-7,-0.050,-0.050,-0.050,0.000,0.000,0.000
1644375992061819136,2022-02-09-03:06:32,10.1.1.3,-13,-0.050,-0.050,-0.050,0.000,0.000,0.000
1644375995102459904,2022-02-09-03:06:35,10.1.1.3,-11,-0.050,-0.050,-0.050,0.000,0.000,0.000
1644375996120738048,2022-02-09-03:06:36,10.1.1.3,4,-0.050,-0.050,-0.050,0.000,0.000,0.000
1644375999121193984,2022-02-09-03:06:39,10.1.1.3,-9,-0.050,-0.050,-0.050,0.000,0.000,0.000
1644376000121296896,2022-02-09-03:06:40,10.1.1.3,-13,-0.050,-0.050,-0.050,0.000,0.000,0.000
1644376003160972032,2022-02-09-03:06:43,10.1.1.3,-5,-0.050,-0.050,-0.050,0.000,0.000,0.000
1644376004163506944,2022-02-09-03:06:44,10.1.1.3,-11,-0.050,-0.050,-0.050,0.000,0.000,0.000
1644376007181133056,2022-02-09-03:06:47,10.1.1.3,-12,-0.050,-0.050,-0.050,0.000,0.000,0.000
1644376008201622016,2022-02-09-03:06:48,10.1.1.3,2,-0.050,-0.050,-0.050,0.000,0.000,0.000
1644376011202505216,2022-02-09-03:06:51,10.1.1.3,-16,-0.050,-0.050,-0.050,0.000,0.000,0.000
1644376012222321152,2022-02-09-03:06:52,10.1.1.3,-7,-0.050,-0.050,-0.050,0.000,0.000,0.000
1644376015260942080,2022-02-09-03:06:55,10.1.1.3,3,-0.050,-0.050,-0.050,0.000,0.000,0.000
1644376016261158912,2022-02-09-03:06:56,10.1.1.3,-6,-0.050,-0.050,-0.050,0.000,0.000,0.000
1644376019281861120,2022-02-09-03:06:59,10.1.1.3,-8,-0.050,-0.050,-0.050,0.000,0.000,0.000
1644376020280802048,2022-02-09-03:07:00,10.1.1.3,-14,-0.050,-0.050,-0.050,0.000,0.000,0.000
1644376023303653120,2022-02-09-03:07:03,10.1.1.3,-16,-0.050,-0.050,-0.050,0.000,0.000,0.000
1644376024321391104,2022-02-09-03:07:04,10.1.1.3,-14,-0.050,-0.050,-0.050,0.000,0.000,0.000
1644376027402076928,2022-02-09-03:07:07,10.1.1.3,-16,-0.050,-0.050,-0.050,0.000,0.000,0.000
1644376028421776896,2022-02-09-03:07:08,10.1.1.3,-5,-0.050,-0.050,-0.050,0.000,0.000,0.000
1644376031441363200,2022-02-09-03:07:11,10.1.1.3,-5,-0.050,-0.050,-0.050,0.000,0.000,0.000
1644376032441390080,2022-02-09-03:07:12,10.1.1.3,-10,-0.050,-0.050,-0.050,0.000,0.000,0.000
1644376035461547008,2022-02-09-03:07:15,10.1.1.3,-12,-0.050,-0.050,-0.050,0.000,0.000,0.000
1644376036481702144,2022-02-09-03:07:16,10.1.1.3,2,-0.050,-0.050,-0.050,0.000,0.000,0.000
1644376039501840128,2022-02-09-03:07:19,10.1.1.3,-1,-0.050,-0.050,-0.050,0.000,0.000,0.000
1644376040501431040,2022-02-09-03:07:20,10.1.1.3,-9,-0.050,-0.050,-0.050,0.000,0.000,0.000
1644376043521654016,2022-02-09-03:07:23,10.1.1.3,-3,-0.050,-0.050,-0.050,0.000,0.000,0.000
1644376044522187008,2022-02-09-03:07:24,10.1.1.3,-8,-0.050,-0.050,-0.050,0.000,0.000,0.000
1644376047541344000,2022-02-09-03:07:27,10.1.1.3,-1,-0.050,-0.050,-0.050,0.000,0.000,0.000
1644376048541591808,2022-02-09-03:07:28,10.1.1.3,-8,-0.050,-0.050,-0.050,0.000,0.000,0.000
1644376051562271232,2022-02-09-03:07:31,10.1.1.3,-4,-0.050,-0.050,-0.050,0.000,0.000,0.000
1644376052562035968,2022-02-09-03:07:32,10.1.1.3,-12,-0.050,-0.050,-0.050,0.000,0.000,0.000
1644376055582202880,2022-02-09-03:07:35,10.1.1.3,-14,-0.050,-0.050,-0.050,0.000,0.000,0.000
1644376056601305088,2022-02-09-03:07:36,10.1.1.3,-4,-0.050,-0.050,-0.050,0.000,0.000,0.000
1644376059621291008,2022-02-09-03:07:39,10.1.1.3,3,-0.050,-0.050,-0.050,0.000,0.000,0.000
1644376060621350144,2022-02-09-03:07:40,10.1.1.3,-2,-0.050,-0.050,-0.050,0.000,0.000,0.000
1644376063641974016,2022-02-09-03:07:43,10.1.1.3,-3,-0.050,-0.050,-0.050,0.000,0.000,0.000
1644376064641596928,2022-02-09-03:07:44,10.1.1.3,-7,-0.050,-0.050,-0.050,0.000,0.000,0.000
1644376067661442048,2022-02-09-03:07:47,10.1.1.3,-7,-0.050,-0.050,-0.050,0.000,0.000,0.000
1644376068661166080,2022-02-09-03:07:48,10.1.1.3,-12,-0.050,-0.050,-0.050,0.000,0.000,0.000
1644376071681971200,2022-02-09-03:07:51,10.1.1.3,-7,-0.050,-0.050,-0.050,0.000,0.000,0.000
1644376072682488064,2022-02-09-03:07:52,10.1.1.3,-11,-0.050,-0.050,-0.050,0.000,0.000,0.000
1644376075701562880,2022-02-09-03:07:55,10.1.1.3,-8,-0.050,-0.050,-0.050,0.000,0.000,0.000
1644376076702016000,2022-02-09-03:07:56,10.1.1.3,-12,-0.050,-0.050,-0.050,0.000,0.000,0.000
1644376079724376064,2022-02-09-03:07:59,10.1.1.3,-11,-0.050,-0.050,-0.050,0.000,0.000,0.000
1644376080741564928,2022-02-09-03:08:00,10.1.1.3,-4,-0.050,-0.050,-0.050,0.000,0.000,0.000
1644376083763441152,2022-02-09-03:08:03,10.1.1.3,-3,-0.050,-0.050,-0.050,0.000,0.000,0.000
1644376084762032128,2022-02-09-03:08:04,10.1.1.3,-10,-0.050,-0.050,-0.050,0.000,0.000,0.000
1644376087801913856,2022-02-09-03:08:07,10.1.1.3,-4,-0.050,-0.050,-0.050,0.000,0.000,0.000
1644376088801603072,2022-02-09-03:08:08,10.1.1.3,-12,-0.050,-0.050,-0.050,0.000,0.000,0.000
1644376091821888000,2022-02-09-03:08:11,10.1.1.3,-10,-0.050,-0.050,-0.050,0.000,0.000,0.000
1644376092821495040,2022-02-09-03:08:12,10.1.1.3,-14,-0.050,-0.050,-0.050,0.000,0.000,0.000
1644376095842010880,2022-02-09-03:08:15,10.1.1.3,-14,-0.050,-0.050,-0.050,0.000,0.000,0.000
1644376096861916928,2022-02-09-03:08:16,10.1.1.3,-5,-0.050,-0.050,-0.050,0.000,0.000,0.000
1644376099882189056,2022-02-09-03:08:19,10.1.1.3,-8,-0.050,-0.050,-0.050,0.000,0.000,0.000
1644376100882051072,2022-02-09-03:08:20,10.1.1.3,-14,-0.050,-0.050,-0.050,0.000,0.000,0.000
1644376103902198016,2022-02-09-03:08:23,10.1.1.3,-14,-0.050,-0.050,-0.050,0.000,0.000,0.000
1644376104921940992,2022-02-09-03:08:24,10.1.1.3,-1,-0.050,-0.050,-0.050,0.000,0.000,0.000
1644376107922117120,2022-02-09-03:08:27,10.1.1.3,-14,-0.050,-0.050,-0.050,0.000,0.000,0.000
1644376108941283072,2022-02-09-03:08:28,10.1.1.3,2,-0.050,-0.050,-0.050,0.000,0.000,0.000
1644376111962585856,2022-02-09-03:08:31,10.1.1.3,-4,-0.050,-0.050,-0.050,0.000,0.000,0.000
1644376112962477824,2022-02-09-03:08:32,10.1.1.3,-12,-0.050,-0.050,-0.050,0.000,0.000,0.000
1644376116002050048,2022-02-09-03:08:36,10.1.1.3,3,-0.050,-0.050,-0.050,0.000,0.000,0.000
1644376117001956864,2022-02-09-03:08:37,10.1.1.3,-7,-0.050,-0.050,-0.050,0.000,0.000,0.000
1644376120041733888,2022-02-09-03:08:40,10.1.1.3,-1,-0.050,-0.050,-0.050,0.000,0.000,0.000
1644376121041431808,2022-02-09-03:08:41,10.1.1.3,-10,-0.050,-0.050,-0.050,0.000,0.000,0.000
1644376124061687040,2022-02-09-03:08:44,10.1.1.3,-3,-0.050,-0.050,-0.050,0.000,0.000,0.000
1644376125062244864,2022-02-09-03:08:45,10.1.1.3,-7,-0.050,-0.050,-0.050,0.000,0.000,0.000
1644376128084877056,2022-02-09-03:08:48,10.1.1.3,1,-0.050,-0.050,-0.050,0.000,0.000,0.000
1644376129081629952,2022-02-09-03:08:49,10.1.1.3,-4,-0.050,-0.050,-0.050,0.000,0.000,0.000
1644376132102045952,2022-02-09-03:08:52,10.1.1.3,1,-0.050,-0.050,-0.050,0.000,0.000,0.000
1644376133102129920,2022-02-09-03:08:53,10.1.1.3,-4,-0.050,-0.050,-0.050,0.000,0.000,0.000
1644376136142491136,2022-02-09-03:08:56,10.1.1.3,-3,-0.050,-0.050,-0.050,0.000,0.000,0.000
1644376137142030848,2022-02-09-03:08:57,10.1.1.3,-8,-0.050,-0.050,-0.050,0.000,0.000,0.000
1644376140161838080,2022-02-09-03:09:00,10.1.1.3,-4,-0.050,-0.050,-0.050,0.000,0.000,0.000
1644376141161929984,2022-02-09-03:09:01,10.1.1.3,-8,-0.050,-0.050,-0.050,0.000,0.000,0.000
1644376144183226112,2022-02-09-03:09:04,10.1.1.3,-6,-0.050,-0.050,-0.050,0.000,0.000,0.000
1644376145183113216,2022-02-09-03:09:05,10.1.1.3,-12,-0.050,-0.050,-0.050,0.000,0.000,0.000
1644376148202078208,2022-02-09-03:09:08,10.1.1.3,-13,-0.050,-0.050,-0.050,0.000,0.000,0.000
1644376149221981952,2022-02-09-03:09:09,10.1.1.3,-5,-0.050,-0.050,-0.050,0.000,0.000,0.000
1644376152261468928,2022-02-09-03:09:12,10.1.1.3,-4,-0.050,-0.050,-0.050,0.000,0.000,0.000
1644376153263980032,2022-02-09-03:09:13,10.1.1.3,-11,-0.050,-0.050,-0.050,0.000,0.000,0.000
1644376156280588032,2022-02-09-03:09:16,10.1.1.3,-6,-0.050,-0.050,-0.050,0.000,0.000,0.000
1644376157281593088,2022-02-09-03:09:17,10.1.1.3,-10,-0.050,-0.050,-0.050,0.000,0.000,0.000
1644376160320998912,2022-02-09-03:09:20,10.1.1.3,-4,-0.050,-0.050,-0.050,0.000,0.000,0.000
1644376161320905984,2022-02-09-03:09:21,10.1.1.3,-9,-0.050,-0.050,-0.050,0.000,0.000,0.000
1644376164346913024,2022-02-09-03:09:24,10.1.1.3,-15,-0.050,-0.050,-0.050,0.000,0.000,0.000
1644376165360569856,2022-02-09-03:09:25,10.1.1.3,-9,-0.050,-0.050,-0.050,0.000,0.000,0.000
1644376168380805888,2022-02-09-03:09:28,10.1.1.3,-10,-0.050,-0.050,-0.050,0.000,0.000,0.000
1644376169400455936,2022-02-09-03:09:29,10.1.1.3,5,-0.050,-0.050,-0.050,0.000,0.000,0.000
1644376172420561152,2022-02-09-03:09:32,10.1.1.3,5,-0.050,-0.050,-0.050,0.000,0.000,0.000
1644376173420804096,2022-02-09-03:09:33,10.1.1.3,-2,-0.050,-0.050,-0.050,0.000,0.000,0.000
1644376176440473088,2022-02-09-03:09:36,10.1.1.3,1,-0.050,-0.050,-0.050,0.000,0.000,0.000
1644376177442876160,2022-02-09-03:09:37,10.1.1.3,-12,-0.050,-0.050,-0.050,0.000,0.000,0.000
1644376180460329984,2022-02-09-03:09:40,10.1.1.3,-13,-0.050,-0.050,-0.050,0.000,0.000,0.000
1644376181479911168,2022-02-09-03:09:41,10.1.1.3,-8,-0.050,-0.050,-0.050,0.000,0.000,0.000
1644376184500036096,2022-02-09-03:09:44,10.1.1.3,-7,-0.050,-0.050,-0.050,0.000,0.000,0.000
1644376185519489024,2022-02-09-03:09:45,10.1.1.3,4,-0.050,-0.050,-0.050,0.000,0.000,0.000
1644376188539540992,2022-02-09-03:09:48,10.1.1.3,4,-0.050,-0.050,-0.050,0.000,0.000,0.000
1644376189557900032,2022-02-09-03:09:49,10.1.1.3,-26,-0.050,-0.050,-0.050,0.000,0.000,0.000
1644376192563403008,2022-02-09-03:09:52,10.1.1.3,-8,-0.050,-0.050,-0.050,0.000,0.000,0.000
1644376193560128000,2022-02-09-03:09:53,10.1.1.3,-13,-0.050,-0.050,-0.050,0.000,0.000,0.000
1644376196579675904,2022-02-09-03:09:56,10.1.1.3,-8,-0.050,-0.050,-0.050,0.000,0.000,0.000
1644376197579066880,2022-02-09-03:09:57,10.1.1.3,-12,-0.050,-0.050,-0.050,0.000,0.000,0.000
1644376200599175936,2022-02-09-03:10:00,10.1.1.3,-6,-0.050,-0.050,-0.050,0.000,0.000,0.000
1644376201599783936,2022-02-09-03:10:01,10.1.1.3,-12,-0.050,-0.050,-0.050,0.000,0.000,0.000
1644376204618938880,2022-02-09-03:10:04,10.1.1.3,-9,-0.050,-0.050,-0.050,0.000,0.000,0.000
1644376205639010048,2022-02-09-03:10:05,10.1.1.3,3,-0.050,-0.050,-0.050,0.000,0.000,0.000
1644376208659758080,2022-02-09-03:10:08,10.1.1.3,-1,-0.050,-0.050,-0.050,0.000,0.000,0.000
1644376209658843904,2022-02-09-03:10:09,10.1.1.3,-8,-0.050,-0.050,-0.050,0.000,0.000,0.000
1644376212679277056,2022-02-09-03:10:12,10.1.1.3,-5,-0.050,-0.050,-0.050,0.000,0.000,0.000
1644376213678961152,2022-02-09-03:10:13,10.1.1.3,-10,-0.050,-0.050,-0.050,0.000,0.000,0.000
1644376216698493952,2022-02-09-03:10:16,10.1.1.3,-7,-0.050,-0.050,-0.050,0.000,0.000,0.000
1644376217719001088,2022-02-09-03:10:17,10.1.1.3,0,-0.050,-0.050,-0.050,0.000,0.000,0.000
1644376220738260992,2022-02-09-03:10:20,10.1.1.3,-2,-0.050,-0.050,-0.050,0.000,0.000,0.000
1644376221738450176,2022-02-09-03:10:21,10.1.1.3,-9,-0.050,-0.050,-0.050,0.000,0.000,0.000
1644376224777904896,2022-02-09-03:10:24,10.1.1.3,7,-0.050,-0.050,-0.050,0.000,0.000,0.000
1644376225778508032,2022-02-09-03:10:25,10.1.1.3,2,-0.050,-0.050,-0.050,0.000,0.000,0.000
1644376228798247168,2022-02-09-03:10:28,10.1.1.3,7,-0.050,-0.050,-0.050,0.000,0.000,0.000
1644376229798341888,2022-02-09-03:10:29,10.1.1.3,0,-0.050,-0.050,-0.050,0.000,0.000,0.000
1644376232817469952,2022-02-09-03:10:32,10.1.1.3,5,-0.050,-0.050,-0.050,0.000,0.000,0.000
1644376233817667072,2022-02-09-03:10:33,10.1.1.3,-2,-0.050,-0.050,-0.050,0.000,0.000,0.000
1644376236837677056,2022-02-09-03:10:36,10.1.1.3,5,-0.050,-0.050,-0.050,0.000,0.000,0.000
1644376237837949952,2022-02-09-03:10:37,10.1.1.3,0,-0.050,-0.050,-0.050,0.000,0.000,0.000
1644376240858210048,2022-02-09-03:10:40,10.1.1.3,3,-0.050,-0.050,-0.050,0.000,0.000,0.000
1644376241857222912,2022-02-09-03:10:41,10.1.1.3,-3,-0.050,-0.050,-0.050,0.000,0.000,0.000
1644376244877635072,2022-02-09-03:10:44,10.1.1.3,-9,-0.050,-0.050,-0.050,0.000,0.000,0.000
1644376245898504960,2022-02-09-03:10:45,10.1.1.3,2,-0.050,-0.050,-0.050,0.000,0.000,0.000
1644376248917408000,2022-02-09-03:10:48,10.1.1.3,1,-0.050,-0.050,-0.050,0.000,0.000,0.000
1644376249917406208,2022-02-09-03:10:49,10.1.1.3,-6,-0.050,-0.050,-0.050,0.000,0.000,0.000
1644376252936901120,2022-02-09-03:10:52,10.1.1.3,-7,-0.050,-0.050,-0.050,0.000,0.000,0.000
1644376253956808960,2022-02-09-03:10:53,10.1.1.3,9,-0.050,-0.050,-0.050,0.000,0.000,0.000
1644376256977788928,2022-02-09-03:10:56,10.1.1.3,6,-0.050,-0.050,-0.050,0.000,0.000,0.000
1644376257977113856,2022-02-09-03:10:57,10.1.1.3,0,-0.050,-0.050,-0.050,0.000,0.000,0.000
1644376260996577024,2022-02-09-03:11:00,10.1.1.3,-3,-0.050,-0.050,-0.050,0.000,0.000,0.000
1644376262017519104,2022-02-09-03:11:02,10.1.1.3,9,-0.050,-0.050,-0.050,0.000,0.000,0.000
1644376265037996032,2022-02-09-03:11:05,10.1.1.3,9,-0.050,-0.050,-0.050,0.000,0.000,0.000
1644376266036790016,2022-02-09-03:11:06,10.1.1.3,3,-0.050,-0.050,-0.050,0.000,0.000,0.000
1644376269056814080,2022-02-09-03:11:09,10.1.1.3,5,-0.050,-0.050,-0.050,0.000,0.000,0.000
1644376270056585984,2022-02-09-03:11:10,10.1.1.3,0,-0.050,-0.050,-0.050,0.000,0.000,0.000
1644376273076647936,2022-02-09-03:11:13,10.1.1.3,3,-0.050,-0.050,-0.050,0.000,0.000,0.000
1644376274076296192,2022-02-09-03:11:14,10.1.1.3,-2,-0.050,-0.050,-0.050,0.000,0.000,0.000
1644376277096879872,2022-02-09-03:11:17,10.1.1.3,5,-0.050,-0.050,-0.050,0.000,0.000,0.000
1644376278096205056,2022-02-09-03:11:18,10.1.1.3,-2,-0.050,-0.050,-0.050,0.000,0.000,0.000
1644376281116061952,2022-02-09-03:11:21,10.1.1.3,0,-0.050,-0.050,-0.050,0.000,0.000,0.000
1644376282116198912,2022-02-09-03:11:22,10.1.1.3,-5,-0.050,-0.050,-0.050,0.000,0.000,0.000
1644376285135827968,2022-02-09-03:11:25,10.1.1.3,1,-0.050,-0.050,-0.050,0.000,0.000,0.000
1644376286135759104,2022-02-09-03:11:26,10.1.1.3,-4,-0.050,-0.050,-0.050,0.000,0.000,0.000
1644376289156125184,2022-02-09-03:11:29,10.1.1.3,-2,-0.050,-0.050,-0.050,0.000,0.000,0.000
1644376290156364800,2022-02-09-03:11:30,10.1.1.3,-9,-0.050,-0.050,-0.050,0.000,0.000,0.000
1644376293175952896,2022-02-09-03:11:33,10.1.1.3,-4,-0.050,-0.050,-0.050,0.000,0.000,0.000
1644376294176280064,2022-02-09-03:11:34,10.1.1.3,-8,-0.050,-0.050,-0.050,0.000,0.000,0.000
1644376297196006912,2022-02-09-03:11:37,10.1.1.3,-5,-0.050,-0.050,-0.050,0.000,0.000,0.000
1644376298215461888,2022-02-09-03:11:38,10.1.1.3,6,-0.050,-0.050,-0.050,0.000,0.000,0.000
1644376301235590912,2022-02-09-03:11:41,10.1.1.3,-6,-0.050,-0.050,-0.050,0.000,0.000,0.000
1644376302255384832,2022-02-09-03:11:42,10.1.1.3,8,-0.050,-0.050,-0.050,0.000,0.000,0.000
1644376305275404032,2022-02-09-03:11:45,10.1.1.3,8,-0.050,-0.050,-0.050,0.000,0.000,0.000
1644376306275654912,2022-02-09-03:11:46,10.1.1.3,0,-0.050,-0.050,-0.050,0.000,0.000,0.000
1644376309316035072,2022-02-09-03:11:49,10.1.1.3,10,-0.050,-0.050,-0.050,0.000,0.000,0.000
1644376310314915840,2022-02-09-03:11:50,10.1.1.3,1,-0.050,-0.050,-0.050,0.000,0.000,0.000
1644376313335469056,2022-02-09-03:11:53,10.1.1.3,-6,-0.050,-0.050,-0.050,0.000,0.000,0.000
1644376314355035136,2022-02-09-03:11:54,10.1.1.3,2,-0.050,-0.050,-0.050,0.000,0.000,0.000
1644376317395577856,2022-02-09-03:11:57,10.1.1.3,-1,-0.050,-0.050,-0.050,0.000,0.000,0.000
1644376318414705152,2022-02-09-03:11:58,10.1.1.3,11,-0.050,-0.050,-0.050,0.000,0.000,0.000
1644376321435153920,2022-02-09-03:12:01,10.1.1.3,2,-0.050,-0.050,-0.050,0.000,0.000,0.000
1644376322435159808,2022-02-09-03:12:02,10.1.1.3,-8,-0.050,-0.050,-0.050,0.000,0.000,0.000
1644376325474423040,2022-02-09-03:12:05,10.1.1.3,9,-0.050,-0.050,-0.050,0.000,0.000,0.000
1644376326475819008,2022-02-09-03:12:06,10.1.1.3,0,-0.050,-0.050,-0.050,0.000,0.000,0.000
1644376329495145984,2022-02-09-03:12:09,10.1.1.3,2,-0.050,-0.050,-0.050,0.000,0.000,0.000
1644376330495037184,2022-02-09-03:12:10,10.1.1.3,-3,-0.050,-0.050,-0.050,0.000,0.000,0.000
1644376333515043072,2022-02-09-03:12:13,10.1.1.3,4,-0.050,-0.050,-0.050,0.000,0.000,0.000
1644376334514728960,2022-02-09-03:12:14,10.1.1.3,-2,-0.050,-0.050,-0.050,0.000,0.000,0.000
1644376337534301952,2022-02-09-03:12:17,10.1.1.3,5,-0.050,-0.050,-0.050,0.000,0.000,0.000
1644376338534568192,2022-02-09-03:12:18,10.1.1.3,2,-0.050,-0.050,-0.050,0.000,0.000,0.000
1644376341554370048,2022-02-09-03:12:21,10.1.1.3,8,-0.050,-0.050,-0.050,0.000,0.000,0.000
1644376342554276096,2022-02-09-03:12:22,10.1.1.3,2,-0.050,-0.050,-0.050,0.000,0.000,0.000
1644376345574237952,2022-02-09-03:12:25,10.1.1.3,0,-0.050,-0.050,-0.050,0.000,0.000,0.000
1644376346574121984,2022-02-09-03:12:26,10.1.1.3,-5,-0.050,-0.050,-0.050,0.000,0.000,0.000
1644376349594216960,2022-02-09-03:12:29,10.1.1.3,-2,-0.050,-0.050,-0.050,0.000,0.000,0.000
1644376350594695168,2022-02-09-03:12:30,10.1.1.3,-8,-0.050,-0.050,-0.050,0.000,0.000,0.000
1644376353615236096,2022-02-09-03:12:33,10.1.1.3,-4,-0.050,-0.050,-0.050,0.000,0.000,0.000
1644376354635575040,2022-02-09-03:12:34,10.1.1.3,11,-0.050,-0.050,-0.050,0.000,0.000,0.000
1644376357653969920,2022-02-09-03:12:37,10.1.1.3,12,-0.050,-0.050,-0.050,0.000,0.000,0.000
1644376358654059776,2022-02-09-03:12:38,10.1.1.3,6,-0.050,-0.050,-0.050,0.000,0.000,0.000
1644376361673526016,2022-02-09-03:12:41,10.1.1.3,2,-0.050,-0.050,-0.050,0.000,0.000,0.000
1644376362673792000,2022-02-09-03:12:42,10.1.1.3,-5,-0.050,-0.050,-0.050,0.000,0.000,0.000
1644376365713939968,2022-02-09-03:12:45,10.1.1.3,4,-0.050,-0.050,-0.050,0.000,0.000,0.000
1644376366713666048,2022-02-09-03:12:46,10.1.1.3,-1,-0.050,-0.050,-0.050,0.000,0.000,0.000
1644376369733666048,2022-02-09-03:12:49,10.1.1.3,-2,-0.050,-0.050,-0.050,0.000,0.000,0.000
1644376370754155008,2022-02-09-03:12:50,10.1.1.3,11,-0.050,-0.050,-0.050,0.000,0.000,0.000
1644376373773828864,2022-02-09-03:12:53,10.1.1.3,7,-0.050,-0.050,-0.050,0.000,0.000,0.000
1644376374774113024,2022-02-09-03:12:54,10.1.1.3,-3,-0.050,-0.050,-0.050,0.000,0.000,0.000
1644376377814073088,2022-02-09-03:12:57,10.1.1.3,12,-0.050,-0.050,-0.050,0.000,0.000,0.000
1644376378814184960,2022-02-09-03:12:58,10.1.1.3,-1,-0.050,-0.050,-0.050,0.000,0.000,0.000
1644376381833841920,2022-02-09-03:13:01,10.1.1.3,-5,-0.050,-0.050,-0.050,0.000,0.000,0.000
1644376382853213184,2022-02-09-03:13:02,10.1.1.3,8,-0.050,-0.050,-0.050,0.000,0.000,0.000
1644376385873231872,2022-02-09-03:13:05,10.1.1.3,5,-0.050,-0.050,-0.050,0.000,0.000,0.000
1644376386874269952,2022-02-09-03:13:06,10.1.1.3,0,-0.050,-0.050,-0.050,0.000,0.000,0.000
1644376389893639936,2022-02-09-03:13:09,10.1.1.3,8,-0.050,-0.050,-0.050,0.000,0.000,0.000
1644376390892838912,2022-02-09-03:13:10,10.1.1.3,1,-0.050,-0.050,-0.050,0.000,0.000,0.000
1644376393913042176,2022-02-09-03:13:13,10.1.1.3,7,-0.050,-0.050,-0.050,0.000,0.000,0.000
1644376394912948992,2022-02-09-03:13:14,10.1.1.3,2,-0.050,-0.050,-0.050,0.000,0.000,0.000
1644376397932785152,2022-02-09-03:13:17,10.1.1.3,5,-0.050,-0.050,-0.050,0.000,0.000,0.000
1644376398932193024,2022-02-09-03:13:18,10.1.1.3,-2,-0.050,-0.050,-0.050,0.000,0.000,0.000
1644376401952764160,2022-02-09-03:13:21,10.1.1.3,-4,-0.050,-0.050,-0.050,0.000,0.000,0.000
1644376402972520192,2022-02-09-03:13:22,10.1.1.3,8,-0.050,-0.050,-0.050,0.000,0.000,0.000
1644376405992367872,2022-02-09-03:13:25,10.1.1.3,5,-0.050,-0.050,-0.050,0.000,0.000,0.000
1644376406992357120,2022-02-09-03:13:26,10.1.1.3,-1,-0.050,-0.050,-0.050,0.000,0.000,0.000
1644376410012878848,2022-02-09-03:13:30,10.1.1.3,3,-0.050,-0.050,-0.050,0.000,0.000,0.000
1644376411012726016,2022-02-09-03:13:31,10.1.1.3,-4,-0.050,-0.050,-0.050,0.000,0.000,0.000
1644376414032188928,2022-02-09-03:13:34,10.1.1.3,-4,-0.050,-0.050,-0.050,0.000,0.000,0.000
1644376415052294912,2022-02-09-03:13:35,10.1.1.3,10,-0.050,-0.050,-0.050,0.000,0.000,0.000
1644376418051917056,2022-02-09-03:13:38,10.1.1.3,-3,-0.050,-0.050,-0.050,0.000,0.000,0.000
1644376419073364992,2022-02-09-03:13:39,10.1.1.3,9,-0.050,-0.050,-0.050,0.000,0.000,0.000
1644376422091736064,2022-02-09-03:13:42,10.1.1.3,14,-0.050,-0.050,-0.050,0.000,0.000,0.000
1644376423092404992,2022-02-09-03:13:43,10.1.1.3,8,-0.050,-0.050,-0.050,0.000,0.000,0.000
1644376426112251136,2022-02-09-03:13:46,10.1.1.3,13,-0.050,-0.050,-0.050,0.000,0.000,0.000
1644376427111488000,2022-02-09-03:13:47,10.1.1.3,8,-0.050,-0.050,-0.050,0.000,0.000,0.000
1644376430112129024,2022-02-09-03:13:50,10.1.1.3,-5,-0.050,-0.050,-0.050,0.000,0.000,0.000
1644376431131863040,2022-02-09-03:13:51,10.1.1.3,8,-0.050,-0.050,-0.050,0.000,0.000,0.000
1644376434171286016,2022-02-09-03:13:54,10.1.1.3,6,-0.050,-0.050,-0.050,0.000,0.000,0.000
1644376435171847936,2022-02-09-03:13:55,10.1.1.3,-2,-0.050,-0.050,-0.050,0.000,0.000,0.000
1644376438191816192,2022-02-09-03:13:58,10.1.1.3,-1,-0.050,-0.050,-0.050,0.000,0.000,0.000
1644376439191534080,2022-02-09-03:13:59,10.1.1.3,-4,-0.050,-0.050,-0.050,0.000,0.000,0.000
1644376442211080960,2022-02-09-03:14:02,10.1.1.3,0,-0.050,-0.050,-0.050,0.000,0.000,0.000
1644376443232651008,2022-02-09-03:14:03,10.1.1.3,13,-0.050,-0.050,-0.050,0.000,0.000,0.000
1644376446251719936,2022-02-09-03:14:06,10.1.1.3,12,-0.050,-0.050,-0.050,0.000,0.000,0.000
1644376447251176192,2022-02-09-03:14:07,10.1.1.3,5,-0.050,-0.050,-0.050,0.000,0.000,0.000
1644376450271395072,2022-02-09-03:14:10,10.1.1.3,4,-0.050,-0.050,-0.050,0.000,0.000,0.000
1644376451271601920,2022-02-09-03:14:11,10.1.1.3,-1,-0.050,-0.050,-0.050,0.000,0.000,0.000
1644376454291817984,2022-02-09-03:14:14,10.1.1.3,4,-0.050,-0.050,-0.050,0.000,0.000,0.000
1644376455291075840,2022-02-09-03:14:15,10.1.1.3,-1,-0.050,-0.050,-0.050,0.000,0.000,0.000
1644376458311168000,2022-02-09-03:14:18,10.1.1.3,6,-0.050,-0.050,-0.050,0.000,0.000,0.000
1644376459310750976,2022-02-09-03:14:19,10.1.1.3,1,-0.050,-0.050,-0.050,0.000,0.000,0.000
1644376462330908160,2022-02-09-03:14:22,10.1.1.3,5,-0.050,-0.050,-0.050,0.000,0.000,0.000
1644376463330761984,2022-02-09-03:14:23,10.1.1.3,1,-0.050,-0.050,-0.050,0.000,0.000,0.000
1644376466351524096,2022-02-09-03:14:26,10.1.1.3,0,-0.050,-0.050,-0.050,0.000,0.000,0.000
1644376467372716032,2022-02-09-03:14:27,10.1.1.3,13,-0.050,-0.050,-0.050,0.000,0.000,0.000
1644376470410594816,2022-02-09-03:14:30,10.1.1.3,13,-0.050,-0.050,-0.050,0.000,0.000,0.000
1644376471410816000,2022-02-09-03:14:31,10.1.1.3,6,-0.050,-0.050,-0.050,0.000,0.000,0.000
1644376474430358016,2022-02-09-03:14:34,10.1.1.3,6,-0.050,-0.050,-0.050,0.000,0.000,0.000
1644376475430216960,2022-02-09-03:14:35,10.1.1.3,1,-0.050,-0.050,-0.050,0.000,0.000,0.000
1644376478449883904,2022-02-09-03:14:38,10.1.1.3,4,-0.050,-0.050,-0.050,0.000,0.000,0.000
1644376479450300928,2022-02-09-03:14:39,10.1.1.3,-3,-0.050,-0.050,-0.050,0.000,0.000,0.000
1644376482470066944,2022-02-09-03:14:42,10.1.1.3,-4,-0.050,-0.050,-0.050,0.000,0.000,0.000
1644376483490874112,2022-02-09-03:14:43,10.1.1.3,8,-0.050,-0.050,-0.050,0.000,0.000,0.000
1644376486510562048,2022-02-09-03:14:46,10.1.1.3,6,-0.050,-0.050,-0.050,0.000,0.000,0.000
1644376487511084032,2022-02-09-03:14:47,10.1.1.3,0,-0.050,-0.050,-0.050,0.000,0.000,0.000
1644376490530129920,2022-02-09-03:14:50,10.1.1.3,1,-0.050,-0.050,-0.050,0.000,0.000,0.000
1644376491551001088,2022-02-09-03:14:51,10.1.1.3,16,-0.050,-0.050,-0.050,0.000,0.000,0.000
1644376494570533888,2022-02-09-03:14:54,10.1.1.3,8,-0.050,-0.050,-0.050,0.000,0.000,0.000
1644376495570648832,2022-02-09-03:14:55,10.1.1.3,3,-0.050,-0.050,-0.050,0.000,0.000,0.000
1644376498590220032,2022-02-09-03:14:58,10.1.1.3,5,-0.050,-0.050,-0.050,0.000,0.000,0.000
1644376499589747968,2022-02-09-03:14:59,10.1.1.3,0,-0.050,-0.050,-0.050,0.000,0.000,0.000
1644376502610213888,2022-02-09-03:15:02,10.1.1.3,-2,-0.050,-0.050,-0.050,0.000,0.000,0.000
1644376503630272000,2022-02-09-03:15:03,10.1.1.3,5,-0.050,-0.050,-0.050,0.000,0.000,0.000
1644376506650018816,2022-02-09-03:15:06,10.1.1.3,10,-0.050,-0.050,-0.050,0.000,0.000,0.000
1644376507650537984,2022-02-09-03:15:07,10.1.1.3,6,-0.050,-0.050,-0.050,0.000,0.000,0.000
1644376510669384960,2022-02-09-03:15:10,10.1.1.3,5,-0.050,-0.050,-0.050,0.000,0.000,0.000
1644376511669577984,2022-02-09-03:15:11,10.1.1.3,-3,-0.050,-0.050,-0.050,0.000,0.000,0.000
1644376514710264832,2022-02-09-03:15:14,10.1.1.3,13,-0.050,-0.050,-0.050,0.000,0.000,0.000
1644376515709990912,2022-02-09-03:15:15,10.1.1.3,7,-0.050,-0.050,-0.050,0.000,0.000,0.000
1644376518729667840,2022-02-09-03:15:18,10.1.1.3,6,-0.050,-0.050,-0.050,0.000,0.000,0.000
1644376519730110976,2022-02-09-03:15:19,10.1.1.3,-1,-0.050,-0.050,-0.050,0.000,0.000,0.000
1644376522749675008,2022-02-09-03:15:22,10.1.1.3,6,-0.050,-0.050,-0.050,0.000,0.000,0.000
1644376523750241024,2022-02-09-03:15:23,10.1.1.3,0,-0.050,-0.050,-0.050,0.000,0.000,0.000