FedericoMungari/DigitalTwin_service/01_WiredScenario/Output/Output_script/script_rosapi_2_output_robots2_freq0_1.txt
timestamp,date,node,latency,joint_1,joint_2,joint_3,joint_4,joint_5,joint_6
1644342094368550144,2022-02-08-17:41:34,10.1.1.2,15,-0.100,-0.100,-0.100,-0.000,0.000,-0.000
1644342094488080128,2022-02-08-17:41:34,10.1.1.2,34,-0.090,-0.090,-0.090,0.000,0.000,0.000
1644342094589483008,2022-02-08-17:41:34,10.1.1.2,31,-0.080,-0.080,-0.080,0.000,0.000,0.000
1644342094688733952,2022-02-08-17:41:34,10.1.1.2,28,-0.070,-0.070,-0.070,0.000,0.000,0.000
1644342094788103936,2022-02-08-17:41:34,10.1.1.2,28,-0.060,-0.060,-0.060,0.000,0.000,0.000
1644342094888439040,2022-02-08-17:41:34,10.1.1.2,27,-0.050,-0.050,-0.050,0.000,0.000,0.000
1644342094988486912,2022-02-08-17:41:34,10.1.1.2,26,-0.040,-0.040,-0.040,0.000,0.000,0.000
1644342095088455936,2022-02-08-17:41:35,10.1.1.2,25,-0.030,-0.030,-0.030,0.000,0.000,0.000
1644342095188429056,2022-02-08-17:41:35,10.1.1.2,24,-0.020,-0.020,-0.020,0.000,0.000,0.000
1644342095288392960,2022-02-08-17:41:35,10.1.1.2,23,-0.010,-0.010,-0.010,0.000,0.000,0.000
1644342095388075008,2022-02-08-17:41:35,10.1.1.2,22,0.000,0.000,0.000,0.000,0.000,0.000
1644342095489018880,2022-02-08-17:41:35,10.1.1.2,21,0.010,0.010,0.010,0.000,0.000,0.000
1644342095608773888,2022-02-08-17:41:35,10.1.1.2,39,0.020,0.020,0.020,0.000,0.000,0.000
1644342095708410880,2022-02-08-17:41:35,10.1.1.2,38,0.030,0.030,0.030,0.000,0.000,0.000
1644342095809148160,2022-02-08-17:41:35,10.1.1.2,37,0.040,0.040,0.040,0.000,0.000,0.000
1644342095908859904,2022-02-08-17:41:35,10.1.1.2,36,0.050,0.050,0.050,0.000,0.000,0.000
1644342096007764224,2022-02-08-17:41:36,10.1.1.2,35,0.060,0.060,0.060,0.000,0.000,0.000
1644342096109201920,2022-02-08-17:41:36,10.1.1.2,34,0.070,0.070,0.070,0.000,0.000,0.000
1644342096208475136,2022-02-08-17:41:36,10.1.1.2,34,0.080,0.080,0.080,0.000,0.000,0.000
1644342096408492032,2022-02-08-17:41:36,10.1.1.2,32,0.100,0.100,0.100,0.000,0.000,0.000
1644342096608943104,2022-02-08-17:41:36,10.1.1.2,28,0.080,0.080,0.080,0.000,0.000,0.000
1644342096709095936,2022-02-08-17:41:36,10.1.1.2,28,0.070,0.070,0.070,0.000,0.000,0.000
1644342096809057024,2022-02-08-17:41:36,10.1.1.2,27,0.060,0.060,0.060,0.000,0.000,0.000
1644342096908922880,2022-02-08-17:41:36,10.1.1.2,26,0.050,0.050,0.050,0.000,0.000,0.000
1644342097008531968,2022-02-08-17:41:37,10.1.1.2,25,0.040,0.040,0.040,0.000,0.000,0.000
1644342097108745984,2022-02-08-17:41:37,10.1.1.2,25,0.030,0.030,0.030,0.000,0.000,0.000
1644342097208713984,2022-02-08-17:41:37,10.1.1.2,24,0.020,0.020,0.020,0.000,0.000,0.000
1644342097307974144,2022-02-08-17:41:37,10.1.1.2,23,0.010,0.010,0.010,0.000,0.000,0.000
1644342097408979968,2022-02-08-17:41:37,10.1.1.2,22,0.000,0.000,0.000,0.000,0.000,0.000
1644342097508588032,2022-02-08-17:41:37,10.1.1.2,21,-0.010,-0.010,-0.010,0.000,0.000,0.000
1644342097609158144,2022-02-08-17:41:37,10.1.1.2,20,-0.020,-0.020,-0.020,0.000,0.000,0.000
1644342097728545792,2022-02-08-17:41:37,10.1.1.2,39,-0.030,-0.030,-0.030,0.000,0.000,0.000
1644342097827732992,2022-02-08-17:41:37,10.1.1.2,38,-0.040,-0.040,-0.040,0.000,0.000,0.000
1644342097928316160,2022-02-08-17:41:37,10.1.1.2,37,-0.050,-0.050,-0.050,0.000,0.000,0.000
1644342098028385024,2022-02-08-17:41:38,10.1.1.2,35,-0.060,-0.060,-0.060,0.000,0.000,0.000
1644342098127931136,2022-02-08-17:41:38,10.1.1.2,34,-0.070,-0.070,-0.070,0.000,0.000,0.000
1644342098229094912,2022-02-08-17:41:38,10.1.1.2,33,-0.080,-0.080,-0.080,0.000,0.000,0.000
1644342098327877120,2022-02-08-17:41:38,10.1.1.2,32,-0.090,-0.090,-0.090,0.000,0.000,0.000
1644342098428556032,2022-02-08-17:41:38,10.1.1.2,32,-0.100,-0.100,-0.100,0.000,0.000,0.000
1644342098628200960,2022-02-08-17:41:38,10.1.1.2,26,-0.080,-0.080,-0.080,0.000,0.000,0.000
1644342098728164864,2022-02-08-17:41:38,10.1.1.2,25,-0.070,-0.070,-0.070,0.000,0.000,0.000
1644342098828465920,2022-02-08-17:41:38,10.1.1.2,24,-0.060,-0.060,-0.060,0.000,0.000,0.000
1644342098928304896,2022-02-08-17:41:38,10.1.1.2,23,-0.050,-0.050,-0.050,0.000,0.000,0.000
1644342099028247040,2022-02-08-17:41:39,10.1.1.2,21,-0.040,-0.040,-0.040,0.000,0.000,0.000
1644342099248187904,2022-02-08-17:41:39,10.1.1.2,38,-0.020,-0.020,-0.020,0.000,0.000,0.000
1644342099348485120,2022-02-08-17:41:39,10.1.1.2,37,-0.010,-0.010,-0.010,0.000,0.000,0.000
1644342099448595968,2022-02-08-17:41:39,10.1.1.2,35,0.000,0.000,0.000,0.000,0.000,0.000
1644342099548509952,2022-02-08-17:41:39,10.1.1.2,34,0.010,0.010,0.010,0.000,0.000,0.000
1644342099648722944,2022-02-08-17:41:39,10.1.1.2,33,0.020,0.020,0.020,0.000,0.000,0.000
1644342099751702016,2022-02-08-17:41:39,10.1.1.2,32,0.030,0.030,0.030,0.000,0.000,0.000
1644342099848099072,2022-02-08-17:41:39,10.1.1.2,28,0.040,0.040,0.040,0.000,0.000,0.000
1644342099948724992,2022-02-08-17:41:39,10.1.1.2,27,0.050,0.050,0.050,0.000,0.000,0.000
1644342100048082176,2022-02-08-17:41:40,10.1.1.2,27,0.060,0.060,0.060,0.000,0.000,0.000
1644342100148654848,2022-02-08-17:41:40,10.1.1.2,26,0.070,0.070,0.070,0.000,0.000,0.000
1644342100248239872,2022-02-08-17:41:40,10.1.1.2,25,0.080,0.080,0.080,0.000,0.000,0.000
1644342100348033792,2022-02-08-17:41:40,10.1.1.2,24,0.090,0.090,0.090,0.000,0.000,0.000
1644342100449863936,2022-02-08-17:41:40,10.1.1.2,23,0.100,0.100,0.100,0.000,0.000,0.000
1644342100548422144,2022-02-08-17:41:40,10.1.1.2,21,0.090,0.090,0.090,0.000,0.000,0.000
1644342100648926976,2022-02-08-17:41:40,10.1.1.2,20,0.080,0.080,0.080,0.000,0.000,0.000
1644342100768893952,2022-02-08-17:41:40,10.1.1.2,39,0.070,0.070,0.070,0.000,0.000,0.000
1644342100868318208,2022-02-08-17:41:40,10.1.1.2,38,0.060,0.060,0.060,0.000,0.000,0.000
1644342100968143872,2022-02-08-17:41:40,10.1.1.2,37,0.050,0.050,0.050,0.000,0.000,0.000
1644342101068175104,2022-02-08-17:41:41,10.1.1.2,35,0.040,0.040,0.040,0.000,0.000,0.000
1644342101168793088,2022-02-08-17:41:41,10.1.1.2,35,0.030,0.030,0.030,0.000,0.000,0.000
1644342101269720064,2022-02-08-17:41:41,10.1.1.2,34,0.020,0.020,0.020,0.000,0.000,0.000
1644342101369536000,2022-02-08-17:41:41,10.1.1.2,33,0.010,0.010,0.010,0.000,0.000,0.000
1644342101467691776,2022-02-08-17:41:41,10.1.1.2,32,0.000,0.000,0.000,0.000,0.000,0.000
1644342101567851008,2022-02-08-17:41:41,10.1.1.2,31,-0.010,-0.010,-0.010,0.000,0.000,0.000
1644342101667675904,2022-02-08-17:41:41,10.1.1.2,30,-0.020,-0.020,-0.020,0.000,0.000,0.000
1644342101868293120,2022-02-08-17:41:41,10.1.1.2,29,-0.040,-0.040,-0.040,0.000,0.000,0.000
1644342101968625920,2022-02-08-17:41:41,10.1.1.2,28,-0.050,-0.050,-0.050,0.000,0.000,0.000
1644342102068322816,2022-02-08-17:41:42,10.1.1.2,27,-0.060,-0.060,-0.060,0.000,0.000,0.000
1644342102168082944,2022-02-08-17:41:42,10.1.1.2,26,-0.070,-0.070,-0.070,0.000,0.000,0.000
1644342102268729088,2022-02-08-17:41:42,10.1.1.2,22,-0.080,-0.080,-0.080,0.000,0.000,0.000
1644342102368748800,2022-02-08-17:41:42,10.1.1.2,21,-0.090,-0.090,-0.090,0.000,0.000,0.000
1644342102468302848,2022-02-08-17:41:42,10.1.1.2,20,-0.100,-0.100,-0.100,0.000,0.000,0.000
1644342102587832832,2022-02-08-17:41:42,10.1.1.2,38,-0.090,-0.090,-0.090,0.000,0.000,0.000
1644342102687320832,2022-02-08-17:41:42,10.1.1.2,36,-0.080,-0.080,-0.080,0.000,0.000,0.000
1644342102787916032,2022-02-08-17:41:42,10.1.1.2,36,-0.070,-0.070,-0.070,0.000,0.000,0.000
1644342102888143104,2022-02-08-17:41:42,10.1.1.2,35,-0.060,-0.060,-0.060,0.000,0.000,0.000
1644342102988333824,2022-02-08-17:41:42,10.1.1.2,34,-0.050,-0.050,-0.050,0.000,0.000,0.000
1644342103087774976,2022-02-08-17:41:43,10.1.1.2,31,-0.040,-0.040,-0.040,0.000,0.000,0.000
1644342103187949824,2022-02-08-17:41:43,10.1.1.2,31,-0.030,-0.030,-0.030,0.000,0.000,0.000
1644342103287991040,2022-02-08-17:41:43,10.1.1.2,30,-0.020,-0.020,-0.020,0.000,0.000,0.000
1644342103388408064,2022-02-08-17:41:43,10.1.1.2,30,-0.010,-0.010,-0.010,0.000,0.000,0.000
1644342103487943936,2022-02-08-17:41:43,10.1.1.2,29,0.000,0.000,0.000,0.000,0.000,0.000
1644342103587642880,2022-02-08-17:41:43,10.1.1.2,29,0.010,0.010,0.010,0.000,0.000,0.000
1644342103688175872,2022-02-08-17:41:43,10.1.1.2,28,0.020,0.020,0.020,0.000,0.000,0.000
1644342103787714048,2022-02-08-17:41:43,10.1.1.2,27,0.030,0.030,0.030,0.000,0.000,0.000
1644342103887666944,2022-02-08-17:41:43,10.1.1.2,27,0.040,0.040,0.040,0.000,0.000,0.000
1644342103988765952,2022-02-08-17:41:43,10.1.1.2,26,0.050,0.050,0.050,0.000,0.000,0.000
1644342104087488000,2022-02-08-17:41:44,10.1.1.2,25,0.060,0.060,0.060,0.000,0.000,0.000
1644342104187636992,2022-02-08-17:41:44,10.1.1.2,25,0.070,0.070,0.070,0.000,0.000,0.000
1644342104288547072,2022-02-08-17:41:44,10.1.1.2,24,0.080,0.080,0.080,0.000,0.000,0.000
1644342104389019136,2022-02-08-17:41:44,10.1.1.2,24,0.090,0.090,0.090,0.000,0.000,0.000
1644342104489541120,2022-02-08-17:41:44,10.1.1.2,22,0.100,0.100,0.100,0.000,0.000,0.000
1644342104588353024,2022-02-08-17:41:44,10.1.1.2,21,0.090,0.090,0.090,0.000,0.000,0.000
1644342104708441856,2022-02-08-17:41:44,10.1.1.2,39,0.080,0.080,0.080,0.000,0.000,0.000
1644342104808950784,2022-02-08-17:41:44,10.1.1.2,38,0.070,0.070,0.070,0.000,0.000,0.000
1644342104908473088,2022-02-08-17:41:44,10.1.1.2,37,0.060,0.060,0.060,0.000,0.000,0.000
1644342105009223936,2022-02-08-17:41:45,10.1.1.2,35,0.050,0.050,0.050,0.000,0.000,0.000
1644342105108366848,2022-02-08-17:41:45,10.1.1.2,34,0.040,0.040,0.040,0.000,0.000,0.000
1644342105195641088,2022-02-08-17:41:45,10.1.1.2,21,0.030,0.030,0.030,0.000,0.000,0.000
1644342105308882944,2022-02-08-17:41:45,10.1.1.2,33,0.020,0.020,0.020,0.000,0.000,0.000
1644342105420502784,2022-02-08-17:41:45,10.1.1.2,44,0.010,0.010,0.010,0.000,0.000,0.000
1644342105508696064,2022-02-08-17:41:45,10.1.1.2,31,0.000,0.000,0.000,0.000,0.000,0.000
1644342105713036032,2022-02-08-17:41:45,10.1.1.2,34,-0.020,-0.020,-0.020,0.000,0.000,0.000
1644342105810720000,2022-02-08-17:41:45,10.1.1.2,30,-0.030,-0.030,-0.030,0.000,0.000,0.000
1644342105907960064,2022-02-08-17:41:45,10.1.1.2,27,-0.040,-0.040,-0.040,0.000,0.000,0.000
1644342106008611840,2022-02-08-17:41:46,10.1.1.2,27,-0.050,-0.050,-0.050,0.000,0.000,0.000
1644342106111846912,2022-02-08-17:41:46,10.1.1.2,29,-0.060,-0.060,-0.060,0.000,0.000,0.000
1644342106208875776,2022-02-08-17:41:46,10.1.1.2,25,-0.070,-0.070,-0.070,0.000,0.000,0.000
1644342106308811008,2022-02-08-17:41:46,10.1.1.2,24,-0.080,-0.080,-0.080,0.000,0.000,0.000
1644342106409507072,2022-02-08-17:41:46,10.1.1.2,23,-0.090,-0.090,-0.090,0.000,0.000,0.000
1644342106508922112,2022-02-08-17:41:46,10.1.1.2,22,-0.100,-0.100,-0.100,0.000,0.000,0.000
1644342106608645888,2022-02-08-17:41:46,10.1.1.2,21,-0.090,-0.090,-0.090,0.000,0.000,0.000
1644342106728532992,2022-02-08-17:41:46,10.1.1.2,37,-0.080,-0.080,-0.080,0.000,0.000,0.000
1644342106828404992,2022-02-08-17:41:46,10.1.1.2,36,-0.070,-0.070,-0.070,0.000,0.000,0.000
1644342106928584192,2022-02-08-17:41:46,10.1.1.2,35,-0.060,-0.060,-0.060,0.000,0.000,0.000
1644342107028268032,2022-02-08-17:41:47,10.1.1.2,34,-0.050,-0.050,-0.050,0.000,0.000,0.000
1644342107128922112,2022-02-08-17:41:47,10.1.1.2,33,-0.040,-0.040,-0.040,0.000,0.000,0.000
1644342107228023040,2022-02-08-17:41:47,10.1.1.2,33,-0.030,-0.030,-0.030,0.000,0.000,0.000
1644342107328073984,2022-02-08-17:41:47,10.1.1.2,32,-0.020,-0.020,-0.020,0.000,0.000,0.000
1644342107428523008,2022-02-08-17:41:47,10.1.1.2,30,-0.010,-0.010,-0.010,0.000,0.000,0.000
1644342107529501952,2022-02-08-17:41:47,10.1.1.2,30,0.000,0.000,0.000,0.000,0.000,0.000
1644342107630116864,2022-02-08-17:41:47,10.1.1.2,30,0.010,0.010,0.010,0.000,0.000,0.000
1644342107728615936,2022-02-08-17:41:47,10.1.1.2,28,0.020,0.020,0.020,0.000,0.000,0.000
1644342107828829952,2022-02-08-17:41:47,10.1.1.2,27,0.030,0.030,0.030,0.000,0.000,0.000
1644342107929073152,2022-02-08-17:41:47,10.1.1.2,26,0.040,0.040,0.040,0.000,0.000,0.000
1644342108029253120,2022-02-08-17:41:48,10.1.1.2,25,0.050,0.050,0.050,0.000,0.000,0.000
1644342108128692992,2022-02-08-17:41:48,10.1.1.2,22,0.060,0.060,0.060,0.000,0.000,0.000
1644342108228154880,2022-02-08-17:41:48,10.1.1.2,20,0.070,0.070,0.070,0.000,0.000,0.000
1644342108348658944,2022-02-08-17:41:48,10.1.1.2,38,0.080,0.080,0.080,0.000,0.000,0.000
1644342108448643840,2022-02-08-17:41:48,10.1.1.2,38,0.090,0.090,0.090,0.000,0.000,0.000
1644342108549829120,2022-02-08-17:41:48,10.1.1.2,37,0.100,0.100,0.100,0.000,0.000,0.000
1644342108648529152,2022-02-08-17:41:48,10.1.1.2,35,0.090,0.090,0.090,0.000,0.000,0.000
1644342108748416000,2022-02-08-17:41:48,10.1.1.2,34,0.080,0.080,0.080,0.000,0.000,0.000
1644342108849069056,2022-02-08-17:41:48,10.1.1.2,33,0.070,0.070,0.070,0.000,0.000,0.000
1644342108948775936,2022-02-08-17:41:48,10.1.1.2,32,0.060,0.060,0.060,0.000,0.000,0.000
1644342109148135936,2022-02-08-17:41:49,10.1.1.2,29,0.040,0.040,0.040,0.000,0.000,0.000
1644342109248670208,2022-02-08-17:41:49,10.1.1.2,27,0.030,0.030,0.030,0.000,0.000,0.000
1644342109349102080,2022-02-08-17:41:49,10.1.1.2,26,0.020,0.020,0.020,0.000,0.000,0.000
1644342109447983104,2022-02-08-17:41:49,10.1.1.2,25,0.010,0.010,0.010,0.000,0.000,0.000
1644342109548825856,2022-02-08-17:41:49,10.1.1.2,23,0.000,0.000,0.000,0.000,0.000,0.000
1644342109668327936,2022-02-08-17:41:49,10.1.1.2,39,-0.010,-0.010,-0.010,0.000,0.000,0.000
1644342109769313024,2022-02-08-17:41:49,10.1.1.2,36,-0.020,-0.020,-0.020,0.000,0.000,0.000
1644342109868444928,2022-02-08-17:41:49,10.1.1.2,35,-0.030,-0.030,-0.030,0.000,0.000,0.000
1644342109968668928,2022-02-08-17:41:49,10.1.1.2,34,-0.040,-0.040,-0.040,0.000,0.000,0.000
1644342110069824000,2022-02-08-17:41:50,10.1.1.2,33,-0.050,-0.050,-0.050,0.000,0.000,0.000
1644342110168471040,2022-02-08-17:41:50,10.1.1.2,31,-0.060,-0.060,-0.060,0.000,0.000,0.000
1644342110369020928,2022-02-08-17:41:50,10.1.1.2,26,-0.080,-0.080,-0.080,0.000,0.000,0.000
1644342110468726016,2022-02-08-17:41:50,10.1.1.2,22,-0.090,-0.090,-0.090,0.000,0.000,0.000
1644342110568645120,2022-02-08-17:41:50,10.1.1.2,21,-0.100,-0.100,-0.100,0.000,0.000,0.000
1644342110670721024,2022-02-08-17:41:50,10.1.1.2,22,-0.090,-0.090,-0.090,0.000,0.000,0.000
1644342110788002048,2022-02-08-17:41:50,10.1.1.2,39,-0.080,-0.080,-0.080,0.000,0.000,0.000
1644342110889039104,2022-02-08-17:41:50,10.1.1.2,34,-0.070,-0.070,-0.070,0.000,0.000,0.000
1644342110988161024,2022-02-08-17:41:50,10.1.1.2,33,-0.060,-0.060,-0.060,0.000,0.000,0.000
1644342111089332224,2022-02-08-17:41:51,10.1.1.2,31,-0.050,-0.050,-0.050,0.000,0.000,0.000
1644342111193691136,2022-02-08-17:41:51,10.1.1.2,31,-0.040,-0.040,-0.040,0.000,0.000,0.000
1644342111288912896,2022-02-08-17:41:51,10.1.1.2,28,-0.030,-0.030,-0.030,0.000,0.000,0.000
1644342111389234944,2022-02-08-17:41:51,10.1.1.2,27,-0.020,-0.020,-0.020,0.000,0.000,0.000
1644342111488392192,2022-02-08-17:41:51,10.1.1.2,26,-0.010,-0.010,-0.010,0.000,0.000,0.000
1644342111587953920,2022-02-08-17:41:51,10.1.1.2,25,0.000,0.000,0.000,0.000,0.000,0.000
1644342111688880896,2022-02-08-17:41:51,10.1.1.2,25,0.010,0.010,0.010,0.000,0.000,0.000
1644342111788929024,2022-02-08-17:41:51,10.1.1.2,23,0.020,0.020,0.020,0.000,0.000,0.000
1644342111888503040,2022-02-08-17:41:51,10.1.1.2,23,0.030,0.030,0.030,0.000,0.000,0.000
1644342111988604928,2022-02-08-17:41:51,10.1.1.2,22,0.040,0.040,0.040,0.000,0.000,0.000
1644342112088259072,2022-02-08-17:41:52,10.1.1.2,20,0.050,0.050,0.050,0.000,0.000,0.000
1644342112209104896,2022-02-08-17:41:52,10.1.1.2,38,0.060,0.060,0.060,0.000,0.000,0.000
1644342112308068864,2022-02-08-17:41:52,10.1.1.2,37,0.070,0.070,0.070,0.000,0.000,0.000
1644342112415149056,2022-02-08-17:41:52,10.1.1.2,36,0.080,0.080,0.080,0.000,0.000,0.000
1644342112508814080,2022-02-08-17:41:52,10.1.1.2,34,0.090,0.090,0.090,0.000,0.000,0.000
1644342112608948992,2022-02-08-17:41:52,10.1.1.2,33,0.100,0.100,0.100,0.000,0.000,0.000
1644342112708743936,2022-02-08-17:41:52,10.1.1.2,32,0.090,0.090,0.090,0.000,0.000,0.000
1644342112808945920,2022-02-08-17:41:52,10.1.1.2,32,0.080,0.080,0.080,0.000,0.000,0.000
1644342112908723968,2022-02-08-17:41:52,10.1.1.2,31,0.070,0.070,0.070,0.000,0.000,0.000
1644342113115322112,2022-02-08-17:41:53,10.1.1.2,29,0.050,0.050,0.050,0.000,0.000,0.000
1644342113208709120,2022-02-08-17:41:53,10.1.1.2,26,0.040,0.040,0.040,0.000,0.000,0.000
1644342113308883968,2022-02-08-17:41:53,10.1.1.2,25,0.030,0.030,0.030,0.000,0.000,0.000
1644342113408634880,2022-02-08-17:41:53,10.1.1.2,21,0.020,0.020,0.020,0.000,0.000,0.000
1644342113508716032,2022-02-08-17:41:53,10.1.1.2,20,0.010,0.010,0.010,0.000,0.000,0.000
1644342113628572928,2022-02-08-17:41:53,10.1.1.2,37,0.000,0.000,0.000,0.000,0.000,0.000
1644342113729577984,2022-02-08-17:41:53,10.1.1.2,35,-0.010,-0.010,-0.010,0.000,0.000,0.000
1644342113827950080,2022-02-08-17:41:53,10.1.1.2,33,-0.020,-0.020,-0.020,0.000,0.000,0.000
1644342113930151936,2022-02-08-17:41:53,10.1.1.2,32,-0.030,-0.030,-0.030,0.000,0.000,0.000
1644342114028429056,2022-02-08-17:41:54,10.1.1.2,29,-0.040,-0.040,-0.040,0.000,0.000,0.000
1644342114127943936,2022-02-08-17:41:54,10.1.1.2,28,-0.050,-0.050,-0.050,0.000,0.000,0.000
1644342114227956992,2022-02-08-17:41:54,10.1.1.2,27,-0.060,-0.060,-0.060,0.000,0.000,0.000
1644342114328360960,2022-02-08-17:41:54,10.1.1.2,26,-0.070,-0.070,-0.070,0.000,0.000,0.000
1644342114427833088,2022-02-08-17:41:54,10.1.1.2,24,-0.080,-0.080,-0.080,0.000,0.000,0.000
1644342114528472832,2022-02-08-17:41:54,10.1.1.2,23,-0.090,-0.090,-0.090,0.000,0.000,0.000
1644342114628140032,2022-02-08-17:41:54,10.1.1.2,22,-0.100,-0.100,-0.100,0.000,0.000,0.000
1644342114728931072,2022-02-08-17:41:54,10.1.1.2,21,-0.090,-0.090,-0.090,0.000,0.000,0.000
1644342114827977984,2022-02-08-17:41:54,10.1.1.2,20,-0.080,-0.080,-0.080,0.000,0.000,0.000
1644342115048540160,2022-02-08-17:41:55,10.1.1.2,38,-0.060,-0.060,-0.060,0.000,0.000,0.000
1644342115148536832,2022-02-08-17:41:55,10.1.1.2,36,-0.050,-0.050,-0.050,0.000,0.000,0.000
1644342115248357120,2022-02-08-17:41:55,10.1.1.2,35,-0.040,-0.040,-0.040,0.000,0.000,0.000
1644342115348915968,2022-02-08-17:41:55,10.1.1.2,34,-0.030,-0.030,-0.030,0.000,0.000,0.000
1644342115448761088,2022-02-08-17:41:55,10.1.1.2,32,-0.020,-0.020,-0.020,0.000,0.000,0.000
1644342115548466944,2022-02-08-17:41:55,10.1.1.2,31,-0.010,-0.010,-0.010,0.000,0.000,0.000
1644342115748423168,2022-02-08-17:41:55,10.1.1.2,28,0.010,0.010,0.010,0.000,0.000,0.000
1644342115848494080,2022-02-08-17:41:55,10.1.1.2,27,0.020,0.020,0.020,0.000,0.000,0.000
1644342115948560896,2022-02-08-17:41:55,10.1.1.2,27,0.030,0.030,0.030,0.000,0.000,0.000
1644342116049120000,2022-02-08-17:41:56,10.1.1.2,26,0.040,0.040,0.040,0.000,0.000,0.000
1644342116148352000,2022-02-08-17:41:56,10.1.1.2,25,0.050,0.050,0.050,0.000,0.000,0.000
1644342116248838912,2022-02-08-17:41:56,10.1.1.2,24,0.060,0.060,0.060,0.000,0.000,0.000
1644342116348072960,2022-02-08-17:41:56,10.1.1.2,23,0.070,0.070,0.070,0.000,0.000,0.000
1644342116448811008,2022-02-08-17:41:56,10.1.1.2,21,0.080,0.080,0.080,0.000,0.000,0.000
1644342116549220096,2022-02-08-17:41:56,10.1.1.2,20,0.090,0.090,0.090,0.000,0.000,0.000
1644342116668489984,2022-02-08-17:41:56,10.1.1.2,38,0.100,0.100,0.100,0.000,0.000,0.000
1644342116768079104,2022-02-08-17:41:56,10.1.1.2,34,0.090,0.090,0.090,0.000,0.000,0.000
1644342116868446208,2022-02-08-17:41:56,10.1.1.2,33,0.080,0.080,0.080,0.000,0.000,0.000
1644342116968267008,2022-02-08-17:41:56,10.1.1.2,29,0.070,0.070,0.070,0.000,0.000,0.000
1644342117068301824,2022-02-08-17:41:57,10.1.1.2,27,0.060,0.060,0.060,0.000,0.000,0.000
1644342117168435200,2022-02-08-17:41:57,10.1.1.2,26,0.050,0.050,0.050,0.000,0.000,0.000
1644342117269797120,2022-02-08-17:41:57,10.1.1.2,25,0.040,0.040,0.040,0.000,0.000,0.000
1644342117368016896,2022-02-08-17:41:57,10.1.1.2,25,0.030,0.030,0.030,0.000,0.000,0.000
1644342117468413184,2022-02-08-17:41:57,10.1.1.2,23,0.020,0.020,0.020,0.000,0.000,0.000
1644342117575094016,2022-02-08-17:41:57,10.1.1.2,23,0.010,0.010,0.010,0.000,0.000,0.000
1644342117668619008,2022-02-08-17:41:57,10.1.1.2,22,0.000,0.000,0.000,0.000,0.000,0.000
1644342117768531200,2022-02-08-17:41:57,10.1.1.2,21,-0.010,-0.010,-0.010,0.000,0.000,0.000
1644342117867845888,2022-02-08-17:41:57,10.1.1.2,20,-0.020,-0.020,-0.020,0.000,0.000,0.000
1644342117988580864,2022-02-08-17:41:57,10.1.1.2,39,-0.030,-0.030,-0.030,0.000,0.000,0.000
1644342118089154048,2022-02-08-17:41:58,10.1.1.2,37,-0.040,-0.040,-0.040,0.000,0.000,0.000
1644342118149153024,2022-02-08-17:41:58,10.1.1.2,-4,-0.040,-0.040,-0.040,0.000,0.000,0.000
1644342118289107968,2022-02-08-17:41:58,10.1.1.2,35,-0.060,-0.060,-0.060,0.000,0.000,0.000
1644342118372392960,2022-02-08-17:41:58,10.1.1.2,19,-0.070,-0.070,-0.070,0.000,0.000,0.000
1644342118488622848,2022-02-08-17:41:58,10.1.1.2,33,-0.080,-0.080,-0.080,0.000,0.000,0.000
1644342118588623104,2022-02-08-17:41:58,10.1.1.2,32,-0.090,-0.090,-0.090,0.000,0.000,0.000
1644342118688381952,2022-02-08-17:41:58,10.1.1.2,30,-0.100,-0.100,-0.100,0.000,0.000,0.000
1644342118788499200,2022-02-08-17:41:58,10.1.1.2,29,-0.090,-0.090,-0.090,0.000,0.000,0.000
1644342118888071168,2022-02-08-17:41:58,10.1.1.2,28,-0.080,-0.080,-0.080,0.000,0.000,0.000
1644342119088761088,2022-02-08-17:41:59,10.1.1.2,26,-0.060,-0.060,-0.060,0.000,0.000,0.000
1644342119188487168,2022-02-08-17:41:59,10.1.1.2,25,-0.050,-0.050,-0.050,0.000,0.000,0.000
1644342119295394048,2022-02-08-17:41:59,10.1.1.2,29,-0.040,-0.040,-0.040,0.000,0.000,0.000
1644342119388572928,2022-02-08-17:41:59,10.1.1.2,20,-0.030,-0.030,-0.030,0.000,0.000,0.000
1644342119508047104,2022-02-08-17:41:59,10.1.1.2,39,-0.020,-0.020,-0.020,0.000,0.000,0.000
1644342119608493056,2022-02-08-17:41:59,10.1.1.2,38,-0.010,-0.010,-0.010,0.000,0.000,0.000
1644342119708775936,2022-02-08-17:41:59,10.1.1.2,36,0.000,0.000,0.000,0.000,0.000,0.000
1644342119808142848,2022-02-08-17:41:59,10.1.1.2,36,0.010,0.010,0.010,0.000,0.000,0.000
1644342119908471040,2022-02-08-17:41:59,10.1.1.2,34,0.020,0.020,0.020,0.000,0.000,0.000
1644342120008603136,2022-02-08-17:42:00,10.1.1.2,33,0.030,0.030,0.030,0.000,0.000,0.000
1644342120108116992,2022-02-08-17:42:00,10.1.1.2,32,0.040,0.040,0.040,0.000,0.000,0.000
1644342120209171968,2022-02-08-17:42:00,10.1.1.2,31,0.050,0.050,0.050,0.000,0.000,0.000
1644342120307872000,2022-02-08-17:42:00,10.1.1.2,30,0.060,0.060,0.060,0.000,0.000,0.000
1644342120408623104,2022-02-08-17:42:00,10.1.1.2,26,0.070,0.070,0.070,0.000,0.000,0.000
1644342120508829184,2022-02-08-17:42:00,10.1.1.2,25,0.080,0.080,0.080,0.000,0.000,0.000
1644342120609422848,2022-02-08-17:42:00,10.1.1.2,25,0.090,0.090,0.090,0.000,0.000,0.000
1644342120708393216,2022-02-08-17:42:00,10.1.1.2,24,0.100,0.100,0.100,0.000,0.000,0.000
1644342120808406016,2022-02-08-17:42:00,10.1.1.2,22,0.090,0.090,0.090,0.000,0.000,0.000
1644342120907919872,2022-02-08-17:42:00,10.1.1.2,21,0.080,0.080,0.080,0.000,0.000,0.000
1644342121008624128,2022-02-08-17:42:01,10.1.1.2,20,0.070,0.070,0.070,0.000,0.000,0.000
1644342121108057088,2022-02-08-17:42:01,10.1.1.2,19,0.060,0.060,0.060,0.000,0.000,0.000
1644342121228475136,2022-02-08-17:42:01,10.1.1.2,38,0.050,0.050,0.050,0.000,0.000,0.000
1644342121328898816,2022-02-08-17:42:01,10.1.1.2,37,0.040,0.040,0.040,0.000,0.000,0.000
1644342121428829952,2022-02-08-17:42:01,10.1.1.2,35,0.030,0.030,0.030,0.000,0.000,0.000
1644342121528756992,2022-02-08-17:42:01,10.1.1.2,34,0.020,0.020,0.020,0.000,0.000,0.000
1644342121628911872,2022-02-08-17:42:01,10.1.1.2,34,0.010,0.010,0.010,0.000,0.000,0.000
1644342121728069120,2022-02-08-17:42:01,10.1.1.2,33,0.000,0.000,0.000,0.000,0.000,0.000
1644342121828270080,2022-02-08-17:42:01,10.1.1.2,31,-0.010,-0.010,-0.010,0.000,0.000,0.000
1644342121928126208,2022-02-08-17:42:01,10.1.1.2,31,-0.020,-0.020,-0.020,0.000,0.000,0.000
1644342122028022016,2022-02-08-17:42:02,10.1.1.2,29,-0.030,-0.030,-0.030,0.000,0.000,0.000
1644342122128151040,2022-02-08-17:42:02,10.1.1.2,28,-0.040,-0.040,-0.040,0.000,0.000,0.000
1644342122227749120,2022-02-08-17:42:02,10.1.1.2,28,-0.050,-0.050,-0.050,0.000,0.000,0.000
1644342122328766976,2022-02-08-17:42:02,10.1.1.2,27,-0.060,-0.060,-0.060,0.000,0.000,0.000
1644342122428744960,2022-02-08-17:42:02,10.1.1.2,26,-0.070,-0.070,-0.070,0.000,0.000,0.000
1644342122528239872,2022-02-08-17:42:02,10.1.1.2,26,-0.080,-0.080,-0.080,0.000,0.000,0.000
1644342122630548992,2022-02-08-17:42:02,10.1.1.2,26,-0.090,-0.090,-0.090,0.000,0.000,0.000
1644342122728256000,2022-02-08-17:42:02,10.1.1.2,24,-0.100,-0.100,-0.100,0.000,0.000,0.000
1644342122828177920,2022-02-08-17:42:02,10.1.1.2,23,-0.090,-0.090,-0.090,0.000,0.000,0.000
1644342122927788032,2022-02-08-17:42:02,10.1.1.2,22,-0.080,-0.080,-0.080,0.000,0.000,0.000
1644342123028721920,2022-02-08-17:42:03,10.1.1.2,21,-0.070,-0.070,-0.070,0.000,0.000,0.000
1644342123127846912,2022-02-08-17:42:03,10.1.1.2,20,-0.060,-0.060,-0.060,0.000,0.000,0.000
1644342123248467968,2022-02-08-17:42:03,10.1.1.2,39,-0.050,-0.050,-0.050,0.000,0.000,0.000
1644342123348252928,2022-02-08-17:42:03,10.1.1.2,38,-0.040,-0.040,-0.040,0.000,0.000,0.000
1644342123548187904,2022-02-08-17:42:03,10.1.1.2,36,-0.020,-0.020,-0.020,0.000,0.000,0.000
1644342123609949952,2022-02-08-17:42:03,10.1.1.2,-5,-0.020,-0.020,-0.020,0.000,0.000,0.000
1644342123748361216,2022-02-08-17:42:03,10.1.1.2,35,0.000,0.000,0.000,0.000,0.000,0.000
1644342123848630016,2022-02-08-17:42:03,10.1.1.2,34,0.010,0.010,0.010,0.000,0.000,0.000
1644342123949452032,2022-02-08-17:42:03,10.1.1.2,33,0.020,0.020,0.020,0.000,0.000,0.000
1644342124048850176,2022-02-08-17:42:04,10.1.1.2,32,0.030,0.030,0.030,0.000,0.000,0.000
1644342124147660032,2022-02-08-17:42:04,10.1.1.2,31,0.040,0.040,0.040,0.000,0.000,0.000
1644342124248583168,2022-02-08-17:42:04,10.1.1.2,30,0.050,0.050,0.050,0.000,0.000,0.000
1644342124348069888,2022-02-08-17:42:04,10.1.1.2,29,0.060,0.060,0.060,0.000,0.000,0.000
1644342124447851776,2022-02-08-17:42:04,10.1.1.2,27,0.070,0.070,0.070,0.000,0.000,0.000
1644342124548140032,2022-02-08-17:42:04,10.1.1.2,26,0.080,0.080,0.080,0.000,0.000,0.000
1644342124648591872,2022-02-08-17:42:04,10.1.1.2,25,0.090,0.090,0.090,0.000,0.000,0.000
1644342124748462848,2022-02-08-17:42:04,10.1.1.2,24,0.100,0.100,0.100,0.000,0.000,0.000
1644342124848113920,2022-02-08-17:42:04,10.1.1.2,23,0.090,0.090,0.090,0.000,0.000,0.000
1644342124948510976,2022-02-08-17:42:04,10.1.1.2,22,0.080,0.080,0.080,0.000,0.000,0.000
1644342125048022016,2022-02-08-17:42:05,10.1.1.2,21,0.070,0.070,0.070,0.000,0.000,0.000
1644342125147890176,2022-02-08-17:42:05,10.1.1.2,20,0.060,0.060,0.060,0.000,0.000,0.000
1644342125267934976,2022-02-08-17:42:05,10.1.1.2,39,0.050,0.050,0.050,0.000,0.000,0.000
1644342125371504896,2022-02-08-17:42:05,10.1.1.2,41,0.040,0.040,0.040,0.000,0.000,0.000
1644342125468249088,2022-02-08-17:42:05,10.1.1.2,37,0.030,0.030,0.030,0.000,0.000,0.000
1644342125568609024,2022-02-08-17:42:05,10.1.1.2,35,0.020,0.020,0.020,0.000,0.000,0.000
1644342125668560128,2022-02-08-17:42:05,10.1.1.2,31,0.010,0.010,0.010,0.000,0.000,0.000
1644342125869020928,2022-02-08-17:42:05,10.1.1.2,28,-0.010,-0.010,-0.010,0.000,0.000,0.000
1644342125968111872,2022-02-08-17:42:05,10.1.1.2,27,-0.020,-0.020,-0.020,0.000,0.000,0.000
1644342126068321024,2022-02-08-17:42:06,10.1.1.2,26,-0.030,-0.030,-0.030,0.000,0.000,0.000
1644342126168435200,2022-02-08-17:42:06,10.1.1.2,25,-0.040,-0.040,-0.040,0.000,0.000,0.000
1644342126268595968,2022-02-08-17:42:06,10.1.1.2,24,-0.050,-0.050,-0.050,0.000,0.000,0.000
1644342126368000000,2022-02-08-17:42:06,10.1.1.2,23,-0.060,-0.060,-0.060,0.000,0.000,0.000
1644342126467762944,2022-02-08-17:42:06,10.1.1.2,22,-0.070,-0.070,-0.070,0.000,0.000,0.000
1644342126567930880,2022-02-08-17:42:06,10.1.1.2,21,-0.080,-0.080,-0.080,0.000,0.000,0.000
1644342126668851968,2022-02-08-17:42:06,10.1.1.2,20,-0.090,-0.090,-0.090,0.000,0.000,0.000
1644342126793762048,2022-02-08-17:42:06,10.1.1.2,38,-0.100,-0.100,-0.100,0.000,0.000,0.000
1644342126888230912,2022-02-08-17:42:06,10.1.1.2,37,-0.090,-0.090,-0.090,0.000,0.000,0.000
1644342126988357120,2022-02-08-17:42:06,10.1.1.2,35,-0.080,-0.080,-0.080,0.000,0.000,0.000
1644342127088211968,2022-02-08-17:42:07,10.1.1.2,35,-0.070,-0.070,-0.070,0.000,0.000,0.000
1644342127188101888,2022-02-08-17:42:07,10.1.1.2,34,-0.060,-0.060,-0.060,0.000,0.000,0.000
1644342127287995136,2022-02-08-17:42:07,10.1.1.2,33,-0.050,-0.050,-0.050,0.000,0.000,0.000
1644342127388175104,2022-02-08-17:42:07,10.1.1.2,32,-0.040,-0.040,-0.040,0.000,0.000,0.000
1644342127488379904,2022-02-08-17:42:07,10.1.1.2,31,-0.030,-0.030,-0.030,0.000,0.000,0.000
1644342127588538880,2022-02-08-17:42:07,10.1.1.2,28,-0.020,-0.020,-0.020,0.000,0.000,0.000
1644342127687884032,2022-02-08-17:42:07,10.1.1.2,26,-0.010,-0.010,-0.010,0.000,0.000,0.000
1644342127788322048,2022-02-08-17:42:07,10.1.1.2,23,0.000,0.000,0.000,0.000,0.000,0.000
1644342127888105984,2022-02-08-17:42:07,10.1.1.2,22,0.010,0.010,0.010,0.000,0.000,0.000
1644342127989084928,2022-02-08-17:42:07,10.1.1.2,21,0.020,0.020,0.020,0.000,0.000,0.000
1644342128087982848,2022-02-08-17:42:08,10.1.1.2,20,0.030,0.030,0.030,0.000,0.000,0.000
1644342128209945856,2022-02-08-17:42:08,10.1.1.2,40,0.040,0.040,0.040,0.000,0.000,0.000
1644342128308503040,2022-02-08-17:42:08,10.1.1.2,38,0.050,0.050,0.050,0.000,0.000,0.000
1644342128408139008,2022-02-08-17:42:08,10.1.1.2,37,0.060,0.060,0.060,0.000,0.000,0.000
1644342128508811008,2022-02-08-17:42:08,10.1.1.2,36,0.070,0.070,0.070,0.000,0.000,0.000
1644342128608561920,2022-02-08-17:42:08,10.1.1.2,35,0.080,0.080,0.080,0.000,0.000,0.000
1644342128708079104,2022-02-08-17:42:08,10.1.1.2,33,0.090,0.090,0.090,0.000,0.000,0.000
1644342128808356096,2022-02-08-17:42:08,10.1.1.2,32,0.100,0.100,0.100,0.000,0.000,0.000
1644342128908457984,2022-02-08-17:42:08,10.1.1.2,31,0.090,0.090,0.090,0.000,0.000,0.000
1644342129108978944,2022-02-08-17:42:09,10.1.1.2,26,0.070,0.070,0.070,0.000,0.000,0.000
1644342129209125888,2022-02-08-17:42:09,10.1.1.2,25,0.060,0.060,0.060,0.000,0.000,0.000
1644342129308376064,2022-02-08-17:42:09,10.1.1.2,23,0.050,0.050,0.050,0.000,0.000,0.000
1644342129409821952,2022-02-08-17:42:09,10.1.1.2,24,0.040,0.040,0.040,0.000,0.000,0.000
1644342129508433152,2022-02-08-17:42:09,10.1.1.2,22,0.030,0.030,0.030,0.000,0.000,0.000
1644342129614880000,2022-02-08-17:42:09,10.1.1.2,22,0.020,0.020,0.020,0.000,0.000,0.000
1644342129728013056,2022-02-08-17:42:09,10.1.1.2,37,0.010,0.010,0.010,0.000,0.000,0.000
1644342129829381888,2022-02-08-17:42:09,10.1.1.2,35,0.000,0.000,0.000,0.000,0.000,0.000
1644342129928291072,2022-02-08-17:42:09,10.1.1.2,34,-0.010,-0.010,-0.010,0.000,0.000,0.000
1644342130028232960,2022-02-08-17:42:10,10.1.1.2,33,-0.020,-0.020,-0.020,0.000,0.000,0.000
1644342130128307200,2022-02-08-17:42:10,10.1.1.2,32,-0.030,-0.030,-0.030,0.000,0.000,0.000
1644342130228368128,2022-02-08-17:42:10,10.1.1.2,31,-0.040,-0.040,-0.040,0.000,0.000,0.000
1644342130328141056,2022-02-08-17:42:10,10.1.1.2,30,-0.050,-0.050,-0.050,0.000,0.000,0.000
1644342130428081920,2022-02-08-17:42:10,10.1.1.2,29,-0.060,-0.060,-0.060,0.000,0.000,0.000
1644342130528464128,2022-02-08-17:42:10,10.1.1.2,28,-0.070,-0.070,-0.070,0.000,0.000,0.000
1644342130628627968,2022-02-08-17:42:10,10.1.1.2,28,-0.080,-0.080,-0.080,0.000,0.000,0.000
1644342130728658944,2022-02-08-17:42:10,10.1.1.2,27,-0.090,-0.090,-0.090,0.000,0.000,0.000
1644342130828028928,2022-02-08-17:42:10,10.1.1.2,26,-0.100,-0.100,-0.100,0.000,0.000,0.000
1644342130928318976,2022-02-08-17:42:10,10.1.1.2,25,-0.090,-0.090,-0.090,0.000,0.000,0.000
1644342131028579840,2022-02-08-17:42:11,10.1.1.2,23,-0.080,-0.080,-0.080,0.000,0.000,0.000
1644342131128233984,2022-02-08-17:42:11,10.1.1.2,22,-0.070,-0.070,-0.070,0.000,0.000,0.000
1644342131228750080,2022-02-08-17:42:11,10.1.1.2,22,-0.060,-0.060,-0.060,0.000,0.000,0.000
1644342131328157952,2022-02-08-17:42:11,10.1.1.2,20,-0.050,-0.050,-0.050,0.000,0.000,0.000
1644342131448672000,2022-02-08-17:42:11,10.1.1.2,39,-0.040,-0.040,-0.040,0.000,0.000,0.000
1644342131549398784,2022-02-08-17:42:11,10.1.1.2,38,-0.030,-0.030,-0.030,0.000,0.000,0.000
1644342131648252928,2022-02-08-17:42:11,10.1.1.2,37,-0.020,-0.020,-0.020,0.000,0.000,0.000
1644342131748833792,2022-02-08-17:42:11,10.1.1.2,36,-0.010,-0.010,-0.010,0.000,0.000,0.000
1644342131848819968,2022-02-08-17:42:11,10.1.1.2,35,0.000,0.000,0.000,0.000,0.000,0.000
1644342131948712192,2022-02-08-17:42:11,10.1.1.2,35,0.010,0.010,0.010,0.000,0.000,0.000
1644342132048509952,2022-02-08-17:42:12,10.1.1.2,34,0.020,0.020,0.020,0.000,0.000,0.000
1644342132148631040,2022-02-08-17:42:12,10.1.1.2,33,0.030,0.030,0.030,0.000,0.000,0.000
1644342132248354816,2022-02-08-17:42:12,10.1.1.2,33,0.040,0.040,0.040,0.000,0.000,0.000
1644342132348211968,2022-02-08-17:42:12,10.1.1.2,31,0.050,0.050,0.050,0.000,0.000,0.000
1644342132448911872,2022-02-08-17:42:12,10.1.1.2,31,0.060,0.060,0.060,0.000,0.000,0.000
1644342132548114176,2022-02-08-17:42:12,10.1.1.2,30,0.070,0.070,0.070,0.000,0.000,0.000
1644342132648535040,2022-02-08-17:42:12,10.1.1.2,29,0.080,0.080,0.080,0.000,0.000,0.000
1644342132748436992,2022-02-08-17:42:12,10.1.1.2,28,0.090,0.090,0.090,0.000,0.000,0.000
1644342132848411136,2022-02-08-17:42:12,10.1.1.2,27,0.100,0.100,0.100,0.000,0.000,0.000
1644342132948728064,2022-02-08-17:42:12,10.1.1.2,26,0.090,0.090,0.090,0.000,0.000,0.000
1644342133049204224,2022-02-08-17:42:13,10.1.1.2,24,0.080,0.080,0.080,0.000,0.000,0.000
1644342133148359936,2022-02-08-17:42:13,10.1.1.2,23,0.070,0.070,0.070,0.000,0.000,0.000
1644342133247124992,2022-02-08-17:42:13,10.1.1.2,22,0.060,0.060,0.060,0.000,0.000,0.000
1644342133348370944,2022-02-08-17:42:13,10.1.1.2,22,0.050,0.050,0.050,0.000,0.000,0.000
1644342133448438016,2022-02-08-17:42:13,10.1.1.2,21,0.040,0.040,0.040,0.000,0.000,0.000
1644342133548595968,2022-02-08-17:42:13,10.1.1.2,20,0.030,0.030,0.030,0.000,0.000,0.000
1644342133648749056,2022-02-08-17:42:13,10.1.1.2,19,0.020,0.020,0.020,0.000,0.000,0.000
1644342133768464128,2022-02-08-17:42:13,10.1.1.2,37,0.010,0.010,0.010,0.000,0.000,0.000
1644342133868680960,2022-02-08-17:42:13,10.1.1.2,36,0.000,0.000,0.000,0.000,0.000,0.000
1644342133968795904,2022-02-08-17:42:13,10.1.1.2,35,-0.010,-0.010,-0.010,0.000,0.000,0.000
1644342134068078080,2022-02-08-17:42:14,10.1.1.2,33,-0.020,-0.020,-0.020,0.000,0.000,0.000
1644342134268054016,2022-02-08-17:42:14,10.1.1.2,27,-0.040,-0.040,-0.040,0.000,0.000,0.000
1644342134368520960,2022-02-08-17:42:14,10.1.1.2,25,-0.050,-0.050,-0.050,0.000,0.000,0.000
1644342134469638144,2022-02-08-17:42:14,10.1.1.2,24,-0.060,-0.060,-0.060,0.000,0.000,0.000
1644342134568424960,2022-02-08-17:42:14,10.1.1.2,23,-0.070,-0.070,-0.070,0.000,0.000,0.000
1644342134668013056,2022-02-08-17:42:14,10.1.1.2,22,-0.080,-0.080,-0.080,0.000,0.000,0.000
1644342134768645888,2022-02-08-17:42:14,10.1.1.2,21,-0.090,-0.090,-0.090,0.000,0.000,0.000
1644342134868290048,2022-02-08-17:42:14,10.1.1.2,20,-0.100,-0.100,-0.100,0.000,0.000,0.000
1644342134987761920,2022-02-08-17:42:14,10.1.1.2,37,-0.090,-0.090,-0.090,0.000,0.000,0.000
1644342135091502848,2022-02-08-17:42:15,10.1.1.2,39,-0.080,-0.080,-0.080,0.000,0.000,0.000
1644342135188542976,2022-02-08-17:42:15,10.1.1.2,35,-0.070,-0.070,-0.070,0.000,0.000,0.000
1644342135287972096,2022-02-08-17:42:15,10.1.1.2,34,-0.060,-0.060,-0.060,0.000,0.000,0.000
1644342135388926976,2022-02-08-17:42:15,10.1.1.2,34,-0.050,-0.050,-0.050,0.000,0.000,0.000
1644342135488337152,2022-02-08-17:42:15,10.1.1.2,33,-0.040,-0.040,-0.040,0.000,0.000,0.000
1644342135589664000,2022-02-08-17:42:15,10.1.1.2,32,-0.030,-0.030,-0.030,0.000,0.000,0.000
1644342135689202944,2022-02-08-17:42:15,10.1.1.2,31,-0.020,-0.020,-0.020,0.000,0.000,0.000
1644342135788285952,2022-02-08-17:42:15,10.1.1.2,30,-0.010,-0.010,-0.010,0.000,0.000,0.000
1644342135889022976,2022-02-08-17:42:15,10.1.1.2,29,0.000,0.000,0.000,0.000,0.000,0.000
1644342135988733952,2022-02-08-17:42:15,10.1.1.2,28,0.010,0.010,0.010,0.000,0.000,0.000
1644342136088679936,2022-02-08-17:42:16,10.1.1.2,26,0.020,0.020,0.020,0.000,0.000,0.000
1644342136189903104,2022-02-08-17:42:16,10.1.1.2,26,0.030,0.030,0.030,0.000,0.000,0.000
1644342136288348928,2022-02-08-17:42:16,10.1.1.2,25,0.040,0.040,0.040,0.000,0.000,0.000
1644342136389157120,2022-02-08-17:42:16,10.1.1.2,24,0.050,0.050,0.050,0.000,0.000,0.000
1644342136488471040,2022-02-08-17:42:16,10.1.1.2,23,0.060,0.060,0.060,0.000,0.000,0.000
1644342136587717120,2022-02-08-17:42:16,10.1.1.2,22,0.070,0.070,0.070,0.000,0.000,0.000
1644342136687900928,2022-02-08-17:42:16,10.1.1.2,22,0.080,0.080,0.080,0.000,0.000,0.000
1644342136788480000,2022-02-08-17:42:16,10.1.1.2,21,0.090,0.090,0.090,0.000,0.000,0.000
1644342136887798016,2022-02-08-17:42:16,10.1.1.2,20,0.100,0.100,0.100,0.000,0.000,0.000
1644342137008802048,2022-02-08-17:42:17,10.1.1.2,39,0.090,0.090,0.090,0.000,0.000,0.000
1644342137108641024,2022-02-08-17:42:17,10.1.1.2,37,0.080,0.080,0.080,0.000,0.000,0.000
1644342137213169152,2022-02-08-17:42:17,10.1.1.2,38,0.070,0.070,0.070,0.000,0.000,0.000
1644342137308478208,2022-02-08-17:42:17,10.1.1.2,35,0.060,0.060,0.060,0.000,0.000,0.000
1644342137409879808,2022-02-08-17:42:17,10.1.1.2,35,0.050,0.050,0.050,0.000,0.000,0.000
1644342137508349952,2022-02-08-17:42:17,10.1.1.2,33,0.040,0.040,0.040,0.000,0.000,0.000
1644342137609005056,2022-02-08-17:42:17,10.1.1.2,32,0.030,0.030,0.030,0.000,0.000,0.000
1644342137707943936,2022-02-08-17:42:17,10.1.1.2,31,0.020,0.020,0.020,0.000,0.000,0.000
1644342137908385024,2022-02-08-17:42:17,10.1.1.2,29,0.000,0.000,0.000,0.000,0.000,0.000
1644342138009236992,2022-02-08-17:42:18,10.1.1.2,28,-0.010,-0.010,-0.010,0.000,0.000,0.000
1644342138108377088,2022-02-08-17:42:18,10.1.1.2,26,-0.020,-0.020,-0.020,0.000,0.000,0.000
1644342138208539136,2022-02-08-17:42:18,10.1.1.2,25,-0.030,-0.030,-0.030,0.000,0.000,0.000
1644342138309155072,2022-02-08-17:42:18,10.1.1.2,24,-0.040,-0.040,-0.040,0.000,0.000,0.000
1644342138409223168,2022-02-08-17:42:18,10.1.1.2,21,-0.050,-0.050,-0.050,0.000,0.000,0.000
1644342138529431040,2022-02-08-17:42:18,10.1.1.2,36,-0.060,-0.060,-0.060,0.000,0.000,0.000
1644342138630036224,2022-02-08-17:42:18,10.1.1.2,35,-0.070,-0.070,-0.070,0.000,0.000,0.000
1644342138729152000,2022-02-08-17:42:18,10.1.1.2,35,-0.080,-0.080,-0.080,0.000,0.000,0.000
1644342138828478208,2022-02-08-17:42:18,10.1.1.2,34,-0.090,-0.090,-0.090,0.000,0.000,0.000
1644342138928345088,2022-02-08-17:42:18,10.1.1.2,33,-0.100,-0.100,-0.100,0.000,0.000,0.000
1644342139028482816,2022-02-08-17:42:19,10.1.1.2,32,-0.090,-0.090,-0.090,0.000,0.000,0.000
1644342139128520960,2022-02-08-17:42:19,10.1.1.2,29,-0.080,-0.080,-0.080,0.000,0.000,0.000
1644342139229007872,2022-02-08-17:42:19,10.1.1.2,28,-0.070,-0.070,-0.070,0.000,0.000,0.000
1644342139328339200,2022-02-08-17:42:19,10.1.1.2,27,-0.060,-0.060,-0.060,0.000,0.000,0.000
1644342139428591872,2022-02-08-17:42:19,10.1.1.2,27,-0.050,-0.050,-0.050,0.000,0.000,0.000
1644342139528302848,2022-02-08-17:42:19,10.1.1.2,26,-0.040,-0.040,-0.040,0.000,0.000,0.000
1644342139629007104,2022-02-08-17:42:19,10.1.1.2,25,-0.030,-0.030,-0.030,0.000,0.000,0.000
1644342139728431872,2022-02-08-17:42:19,10.1.1.2,23,-0.020,-0.020,-0.020,0.000,0.000,0.000
1644342139828915200,2022-02-08-17:42:19,10.1.1.2,22,-0.010,-0.010,-0.010,0.000,0.000,0.000
1644342139928448000,2022-02-08-17:42:19,10.1.1.2,21,0.000,0.000,0.000,0.000,0.000,0.000
1644342140148039168,2022-02-08-17:42:20,10.1.1.2,39,0.020,0.020,0.020,0.000,0.000,0.000
1644342140248111872,2022-02-08-17:42:20,10.1.1.2,38,0.030,0.030,0.030,0.000,0.000,0.000
1644342140347971840,2022-02-08-17:42:20,10.1.1.2,37,0.040,0.040,0.040,0.000,0.000,0.000
1644342140448060928,2022-02-08-17:42:20,10.1.1.2,36,0.050,0.050,0.050,0.000,0.000,0.000
1644342140547944960,2022-02-08-17:42:20,10.1.1.2,35,0.060,0.060,0.060,0.000,0.000,0.000
1644342140648610048,2022-02-08-17:42:20,10.1.1.2,34,0.070,0.070,0.070,0.000,0.000,0.000
1644342140748653824,2022-02-08-17:42:20,10.1.1.2,33,0.080,0.080,0.080,0.000,0.000,0.000
1644342140848066048,2022-02-08-17:42:20,10.1.1.2,29,0.090,0.090,0.090,0.000,0.000,0.000
1644342140948126976,2022-02-08-17:42:20,10.1.1.2,28,0.100,0.100,0.100,0.000,0.000,0.000
1644342141047964160,2022-02-08-17:42:21,10.1.1.2,27,0.090,0.090,0.090,0.000,0.000,0.000
1644342141148355840,2022-02-08-17:42:21,10.1.1.2,26,0.080,0.080,0.080,0.000,0.000,0.000
1644342141248548096,2022-02-08-17:42:21,10.1.1.2,22,0.070,0.070,0.070,0.000,0.000,0.000
1644342141347835136,2022-02-08-17:42:21,10.1.1.2,20,0.060,0.060,0.060,0.000,0.000,0.000
1644342141468251904,2022-02-08-17:42:21,10.1.1.2,39,0.050,0.050,0.050,0.000,0.000,0.000
1644342141568622080,2022-02-08-17:42:21,10.1.1.2,38,0.040,0.040,0.040,0.000,0.000,0.000
1644342141669707008,2022-02-08-17:42:21,10.1.1.2,32,0.030,0.030,0.030,0.000,0.000,0.000
1644342141771721984,2022-02-08-17:42:21,10.1.1.2,23,0.020,0.020,0.020,0.000,0.000,0.000
1644342141988428032,2022-02-08-17:42:21,10.1.1.2,36,0.000,0.000,0.000,0.000,0.000,0.000
1644342142090366976,2022-02-08-17:42:22,10.1.1.2,38,-0.010,-0.010,-0.010,0.000,0.000,0.000
1644342142689687040,2022-02-08-17:42:22,10.1.1.2,29,-0.070,-0.070,-0.070,0.000,0.000,0.000
1644342142787758080,2022-02-08-17:42:22,10.1.1.2,29,-0.080,-0.080,-0.080,0.000,0.000,0.000
1644342142888634880,2022-02-08-17:42:22,10.1.1.2,28,-0.090,-0.090,-0.090,0.000,0.000,0.000
1644342142988564992,2022-02-08-17:42:22,10.1.1.2,27,-0.100,-0.100,-0.100,0.000,0.000,0.000
1644342143088023040,2022-02-08-17:42:23,10.1.1.2,26,-0.090,-0.090,-0.090,0.000,0.000,0.000
1644342143187475968,2022-02-08-17:42:23,10.1.1.2,25,-0.080,-0.080,-0.080,0.000,0.000,0.000
1644342143288263168,2022-02-08-17:42:23,10.1.1.2,22,-0.070,-0.070,-0.070,0.000,0.000,0.000
1644342143387393024,2022-02-08-17:42:23,10.1.1.2,22,-0.060,-0.060,-0.060,0.000,0.000,0.000
1644342143488241920,2022-02-08-17:42:23,10.1.1.2,21,-0.050,-0.050,-0.050,0.000,0.000,0.000
1644342143709616896,2022-02-08-17:42:23,10.1.1.2,40,-0.030,-0.030,-0.030,0.000,0.000,0.000
1644342143807604992,2022-02-08-17:42:23,10.1.1.2,38,-0.020,-0.020,-0.020,0.000,0.000,0.000
1644342143907692800,2022-02-08-17:42:23,10.1.1.2,38,-0.010,-0.010,-0.010,0.000,0.000,0.000
1644342144008472064,2022-02-08-17:42:24,10.1.1.2,37,0.000,0.000,0.000,0.000,0.000,0.000
1644342144108176896,2022-02-08-17:42:24,10.1.1.2,35,0.010,0.010,0.010,0.000,0.000,0.000
1644342144208663040,2022-02-08-17:42:24,10.1.1.2,34,0.020,0.020,0.020,0.000,0.000,0.000
1644342144308294912,2022-02-08-17:42:24,10.1.1.2,33,0.030,0.030,0.030,0.000,0.000,0.000
1644342144409040896,2022-02-08-17:42:24,10.1.1.2,32,0.040,0.040,0.040,0.000,0.000,0.000
1644342144508163072,2022-02-08-17:42:24,10.1.1.2,31,0.050,0.050,0.050,0.000,0.000,0.000
1644342144608390144,2022-02-08-17:42:24,10.1.1.2,30,0.060,0.060,0.060,0.000,0.000,0.000
1644342144707806208,2022-02-08-17:42:24,10.1.1.2,29,0.070,0.070,0.070,0.000,0.000,0.000
1644342144808895232,2022-02-08-17:42:24,10.1.1.2,27,0.080,0.080,0.080,0.000,0.000,0.000
1644342144908571904,2022-02-08-17:42:24,10.1.1.2,26,0.090,0.090,0.090,0.000,0.000,0.000
1644342145007909888,2022-02-08-17:42:25,10.1.1.2,25,0.100,0.100,0.100,0.000,0.000,0.000
1644342145107732992,2022-02-08-17:42:25,10.1.1.2,24,0.090,0.090,0.090,0.000,0.000,0.000
1644342145207798016,2022-02-08-17:42:25,10.1.1.2,23,0.080,0.080,0.080,0.000,0.000,0.000
1644342145307454976,2022-02-08-17:42:25,10.1.1.2,22,0.070,0.070,0.070,0.000,0.000,0.000
1644342145407567104,2022-02-08-17:42:25,10.1.1.2,21,0.060,0.060,0.060,0.000,0.000,0.000
1644342145507556864,2022-02-08-17:42:25,10.1.1.2,20,0.050,0.050,0.050,0.000,0.000,0.000
1644342145627846912,2022-02-08-17:42:25,10.1.1.2,39,0.040,0.040,0.040,0.000,0.000,0.000
1644342145728417024,2022-02-08-17:42:25,10.1.1.2,38,0.030,0.030,0.030,0.000,0.000,0.000
1644342145828197120,2022-02-08-17:42:25,10.1.1.2,36,0.020,0.020,0.020,0.000,0.000,0.000
1644342145927806976,2022-02-08-17:42:25,10.1.1.2,35,0.010,0.010,0.010,0.000,0.000,0.000
1644342146028114176,2022-02-08-17:42:26,10.1.1.2,30,0.000,0.000,0.000,0.000,0.000,0.000
1644342146128241152,2022-02-08-17:42:26,10.1.1.2,29,-0.010,-0.010,-0.010,0.000,0.000,0.000
1644342146228380928,2022-02-08-17:42:26,10.1.1.2,28,-0.020,-0.020,-0.020,0.000,0.000,0.000
1644342146328013824,2022-02-08-17:42:26,10.1.1.2,27,-0.030,-0.030,-0.030,0.000,0.000,0.000
1644342146429146880,2022-02-08-17:42:26,10.1.1.2,26,-0.040,-0.040,-0.040,0.000,0.000,0.000
1644342146528680192,2022-02-08-17:42:26,10.1.1.2,25,-0.050,-0.050,-0.050,0.000,0.000,0.000
1644342146628123136,2022-02-08-17:42:26,10.1.1.2,24,-0.060,-0.060,-0.060,0.000,0.000,0.000
1644342146728388096,2022-02-08-17:42:26,10.1.1.2,22,-0.070,-0.070,-0.070,0.000,0.000,0.000
1644342146828861952,2022-02-08-17:42:26,10.1.1.2,20,-0.080,-0.080,-0.080,0.000,0.000,0.000
1644342146927598848,2022-02-08-17:42:26,10.1.1.2,19,-0.090,-0.090,-0.090,0.000,0.000,0.000
1644342147048717056,2022-02-08-17:42:27,10.1.1.2,38,-0.100,-0.100,-0.100,0.000,0.000,0.000
1644342147148333056,2022-02-08-17:42:27,10.1.1.2,37,-0.090,-0.090,-0.090,0.000,0.000,0.000
1644342147257696000,2022-02-08-17:42:27,10.1.1.2,44,-0.080,-0.080,-0.080,0.000,0.000,0.000
1644342147348579840,2022-02-08-17:42:27,10.1.1.2,34,-0.070,-0.070,-0.070,0.000,0.000,0.000
1644342147449801984,2022-02-08-17:42:27,10.1.1.2,33,-0.060,-0.060,-0.060,0.000,0.000,0.000
1644342147547960064,2022-02-08-17:42:27,10.1.1.2,31,-0.050,-0.050,-0.050,0.000,0.000,0.000
1644342147749361152,2022-02-08-17:42:27,10.1.1.2,29,-0.030,-0.030,-0.030,0.000,0.000,0.000
1644342147849043968,2022-02-08-17:42:27,10.1.1.2,28,-0.020,-0.020,-0.020,0.000,0.000,0.000
1644342147948480000,2022-02-08-17:42:27,10.1.1.2,26,-0.010,-0.010,-0.010,0.000,0.000,0.000
1644342148048995072,2022-02-08-17:42:28,10.1.1.2,24,0.000,0.000,0.000,0.000,0.000,0.000
1644342148148786944,2022-02-08-17:42:28,10.1.1.2,23,0.010,0.010,0.010,0.000,0.000,0.000
1644342148248342016,2022-02-08-17:42:28,10.1.1.2,21,0.020,0.020,0.020,0.000,0.000,0.000
1644342148469218048,2022-02-08-17:42:28,10.1.1.2,39,0.040,0.040,0.040,0.000,0.000,0.000
1644342148568440832,2022-02-08-17:42:28,10.1.1.2,34,0.050,0.050,0.050,0.000,0.000,0.000
1644342148667764992,2022-02-08-17:42:28,10.1.1.2,33,0.060,0.060,0.060,0.000,0.000,0.000
1644342148768368128,2022-02-08-17:42:28,10.1.1.2,32,0.070,0.070,0.070,0.000,0.000,0.000
1644342148868349952,2022-02-08-17:42:28,10.1.1.2,31,0.080,0.080,0.080,0.000,0.000,0.000
1644342148967924992,2022-02-08-17:42:28,10.1.1.2,30,0.090,0.090,0.090,0.000,0.000,0.000
1644342149068201984,2022-02-08-17:42:29,10.1.1.2,29,0.100,0.100,0.100,0.000,0.000,0.000
1644342149168364032,2022-02-08-17:42:29,10.1.1.2,27,0.090,0.090,0.090,0.000,0.000,0.000
1644342149268316928,2022-02-08-17:42:29,10.1.1.2,26,0.080,0.080,0.080,0.000,0.000,0.000
1644342149368931072,2022-02-08-17:42:29,10.1.1.2,25,0.070,0.070,0.070,0.000,0.000,0.000
1644342149468702976,2022-02-08-17:42:29,10.1.1.2,24,0.060,0.060,0.060,0.000,0.000,0.000
1644342149568783872,2022-02-08-17:42:29,10.1.1.2,23,0.050,0.050,0.050,0.000,0.000,0.000
1644342149669204992,2022-02-08-17:42:29,10.1.1.2,23,0.040,0.040,0.040,0.000,0.000,0.000
1644342149768742144,2022-02-08-17:42:29,10.1.1.2,21,0.030,0.030,0.030,0.000,0.000,0.000
1644342149868689920,2022-02-08-17:42:29,10.1.1.2,20,0.020,0.020,0.020,0.000,0.000,0.000
1644342150089081088,2022-02-08-17:42:30,10.1.1.2,36,0.000,0.000,0.000,0.000,0.000,0.000
1644342150188267008,2022-02-08-17:42:30,10.1.1.2,34,-0.010,-0.010,-0.010,0.000,0.000,0.000
1644342150287908096,2022-02-08-17:42:30,10.1.1.2,33,-0.020,-0.020,-0.020,0.000,0.000,0.000
1644342150388715008,2022-02-08-17:42:30,10.1.1.2,33,-0.030,-0.030,-0.030,0.000,0.000,0.000
1644342150489039872,2022-02-08-17:42:30,10.1.1.2,32,-0.040,-0.040,-0.040,0.000,0.000,0.000
1644342150588901120,2022-02-08-17:42:30,10.1.1.2,31,-0.050,-0.050,-0.050,0.000,0.000,0.000
1644342150688321024,2022-02-08-17:42:30,10.1.1.2,31,-0.060,-0.060,-0.060,0.000,0.000,0.000
1644342150788630016,2022-02-08-17:42:30,10.1.1.2,30,-0.070,-0.070,-0.070,0.000,0.000,0.000
1644342150890912000,2022-02-08-17:42:30,10.1.1.2,31,-0.080,-0.080,-0.080,0.000,0.000,0.000
1644342150988612864,2022-02-08-17:42:30,10.1.1.2,28,-0.090,-0.090,-0.090,0.000,0.000,0.000
1644342151087912960,2022-02-08-17:42:31,10.1.1.2,27,-0.100,-0.100,-0.100,0.000,0.000,0.000
1644342151188625152,2022-02-08-17:42:31,10.1.1.2,26,-0.090,-0.090,-0.090,0.000,0.000,0.000
1644342151289668096,2022-02-08-17:42:31,10.1.1.2,25,-0.080,-0.080,-0.080,0.000,0.000,0.000
1644342151388398848,2022-02-08-17:42:31,10.1.1.2,24,-0.070,-0.070,-0.070,0.000,0.000,0.000
1644342151488879872,2022-02-08-17:42:31,10.1.1.2,23,-0.060,-0.060,-0.060,0.000,0.000,0.000
1644342151588269824,2022-02-08-17:42:31,10.1.1.2,22,-0.050,-0.050,-0.050,0.000,0.000,0.000
1644342151688688896,2022-02-08-17:42:31,10.1.1.2,21,-0.040,-0.040,-0.040,0.000,0.000,0.000
1644342151788175104,2022-02-08-17:42:31,10.1.1.2,20,-0.030,-0.030,-0.030,0.000,0.000,0.000
1644342151907944960,2022-02-08-17:42:31,10.1.1.2,39,-0.020,-0.020,-0.020,0.000,0.000,0.000
1644342152009146880,2022-02-08-17:42:32,10.1.1.2,38,-0.010,-0.010,-0.010,0.000,0.000,0.000
1644342152114810112,2022-02-08-17:42:32,10.1.1.2,38,0.000,0.000,0.000,0.000,0.000,0.000
1644342152209952000,2022-02-08-17:42:32,10.1.1.2,37,0.010,0.010,0.010,0.000,0.000,0.000
1644342152307923200,2022-02-08-17:42:32,10.1.1.2,36,0.020,0.020,0.020,0.000,0.000,0.000
1644342152409470208,2022-02-08-17:42:32,10.1.1.2,35,0.030,0.030,0.030,0.000,0.000,0.000
1644342152509064960,2022-02-08-17:42:32,10.1.1.2,36,0.040,0.040,0.040,0.000,0.000,0.000
1644342152612293120,2022-02-08-17:42:32,10.1.1.2,38,0.050,0.050,0.050,0.000,0.000,0.000
1644342152708514816,2022-02-08-17:42:32,10.1.1.2,32,0.060,0.060,0.060,0.000,0.000,0.000
1644342152813747968,2022-02-08-17:42:32,10.1.1.2,34,0.070,0.070,0.070,0.000,0.000,0.000
1644342152908649984,2022-02-08-17:42:32,10.1.1.2,31,0.080,0.080,0.080,0.000,0.000,0.000
1644342153009304064,2022-02-08-17:42:33,10.1.1.2,29,0.090,0.090,0.090,0.000,0.000,0.000
1644342153108102144,2022-02-08-17:42:33,10.1.1.2,28,0.100,0.100,0.100,0.000,0.000,0.000
1644342153208156160,2022-02-08-17:42:33,10.1.1.2,27,0.090,0.090,0.090,0.000,0.000,0.000
1644342153308532992,2022-02-08-17:42:33,10.1.1.2,26,0.080,0.080,0.080,0.000,0.000,0.000
1644342153408416000,2022-02-08-17:42:33,10.1.1.2,26,0.070,0.070,0.070,0.000,0.000,0.000
1644342153510883072,2022-02-08-17:42:33,10.1.1.2,27,0.060,0.060,0.060,0.000,0.000,0.000
1644342153609457920,2022-02-08-17:42:33,10.1.1.2,24,0.050,0.050,0.050,0.000,0.000,0.000
1644342153707969024,2022-02-08-17:42:33,10.1.1.2,23,0.040,0.040,0.040,0.000,0.000,0.000
1644342153814759936,2022-02-08-17:42:33,10.1.1.2,24,0.030,0.030,0.030,0.000,0.000,0.000
1644342153908493056,2022-02-08-17:42:33,10.1.1.2,21,0.020,0.020,0.020,0.000,0.000,0.000
1644342154008462080,2022-02-08-17:42:34,10.1.1.2,20,0.010,0.010,0.010,0.000,0.000,0.000
1644342154128279040,2022-02-08-17:42:34,10.1.1.2,39,0.000,0.000,0.000,0.000,0.000,0.000
1644342154227590144,2022-02-08-17:42:34,10.1.1.2,38,-0.010,-0.010,-0.010,0.000,0.000,0.000
1644342154328078080,2022-02-08-17:42:34,10.1.1.2,37,-0.020,-0.020,-0.020,0.000,0.000,0.000
1644342154427945984,2022-02-08-17:42:34,10.1.1.2,36,-0.030,-0.030,-0.030,0.000,0.000,0.000
1644342154528243968,2022-02-08-17:42:34,10.1.1.2,34,-0.040,-0.040,-0.040,0.000,0.000,0.000
1644342154630513920,2022-02-08-17:42:34,10.1.1.2,35,-0.050,-0.050,-0.050,0.000,0.000,0.000
1644342154728481024,2022-02-08-17:42:34,10.1.1.2,32,-0.060,-0.060,-0.060,0.000,0.000,0.000
1644342154830061056,2022-02-08-17:42:34,10.1.1.2,29,-0.070,-0.070,-0.070,0.000,0.000,0.000
1644342154929029888,2022-02-08-17:42:34,10.1.1.2,28,-0.080,-0.080,-0.080,0.000,0.000,0.000
1644342155027782912,2022-02-08-17:42:35,10.1.1.2,27,-0.090,-0.090,-0.090,0.000,0.000,0.000
1644342155128340992,2022-02-08-17:42:35,10.1.1.2,26,-0.100,-0.100,-0.100,0.000,0.000,0.000
1644342155228017152,2022-02-08-17:42:35,10.1.1.2,25,-0.090,-0.090,-0.090,0.000,0.000,0.000
1644342155328737024,2022-02-08-17:42:35,10.1.1.2,24,-0.080,-0.080,-0.080,0.000,0.000,0.000
1644342155428646144,2022-02-08-17:42:35,10.1.1.2,22,-0.070,-0.070,-0.070,0.000,0.000,0.000
1644342155528743936,2022-02-08-17:42:35,10.1.1.2,20,-0.060,-0.060,-0.060,0.000,0.000,0.000
1644342155648581120,2022-02-08-17:42:35,10.1.1.2,39,-0.050,-0.050,-0.050,0.000,0.000,0.000
1644342155748517120,2022-02-08-17:42:35,10.1.1.2,38,-0.040,-0.040,-0.040,0.000,0.000,0.000
1644342155849518080,2022-02-08-17:42:35,10.1.1.2,37,-0.030,-0.030,-0.030,0.000,0.000,0.000
1644342155948587008,2022-02-08-17:42:35,10.1.1.2,34,-0.020,-0.020,-0.020,0.000,0.000,0.000
1644342156049075968,2022-02-08-17:42:36,10.1.1.2,33,-0.010,-0.010,-0.010,0.000,0.000,0.000
1644342156148758784,2022-02-08-17:42:36,10.1.1.2,32,0.000,0.000,0.000,0.000,0.000,0.000
1644342156248019968,2022-02-08-17:42:36,10.1.1.2,31,0.010,0.010,0.010,0.000,0.000,0.000
1644342156348773888,2022-02-08-17:42:36,10.1.1.2,30,0.020,0.020,0.020,0.000,0.000,0.000
1644342156448987904,2022-02-08-17:42:36,10.1.1.2,29,0.030,0.030,0.030,0.000,0.000,0.000
1644342156548463104,2022-02-08-17:42:36,10.1.1.2,28,0.040,0.040,0.040,0.000,0.000,0.000
1644342156648453120,2022-02-08-17:42:36,10.1.1.2,27,0.050,0.050,0.050,0.000,0.000,0.000
1644342156748532992,2022-02-08-17:42:36,10.1.1.2,26,0.060,0.060,0.060,0.000,0.000,0.000
1644342156849466112,2022-02-08-17:42:36,10.1.1.2,24,0.070,0.070,0.070,0.000,0.000,0.000
1644342156948678912,2022-02-08-17:42:36,10.1.1.2,23,0.080,0.080,0.080,0.000,0.000,0.000
1644342157048155904,2022-02-08-17:42:37,10.1.1.2,22,0.090,0.090,0.090,0.000,0.000,0.000
1644342157148381952,2022-02-08-17:42:37,10.1.1.2,21,0.100,0.100,0.100,0.000,0.000,0.000
1644342157248811008,2022-02-08-17:42:37,10.1.1.2,20,0.090,0.090,0.090,0.000,0.000,0.000
1644342157368779008,2022-02-08-17:42:37,10.1.1.2,39,0.080,0.080,0.080,0.000,0.000,0.000
1644342157468589056,2022-02-08-17:42:37,10.1.1.2,38,0.070,0.070,0.070,0.000,0.000,0.000
1644342157569065216,2022-02-08-17:42:37,10.1.1.2,37,0.060,0.060,0.060,0.000,0.000,0.000
1644342157668430080,2022-02-08-17:42:37,10.1.1.2,36,0.050,0.050,0.050,0.000,0.000,0.000
1644342157767910912,2022-02-08-17:42:37,10.1.1.2,35,0.040,0.040,0.040,0.000,0.000,0.000
1644342157868269056,2022-02-08-17:42:37,10.1.1.2,35,0.030,0.030,0.030,0.000,0.000,0.000
1644342157968825088,2022-02-08-17:42:37,10.1.1.2,34,0.020,0.020,0.020,0.000,0.000,0.000
1644342158068478976,2022-02-08-17:42:38,10.1.1.2,33,0.010,0.010,0.010,0.000,0.000,0.000
1644342158168140800,2022-02-08-17:42:38,10.1.1.2,32,0.000,0.000,0.000,0.000,0.000,0.000
1644342158268711168,2022-02-08-17:42:38,10.1.1.2,31,-0.010,-0.010,-0.010,0.000,0.000,0.000
1644342158368261120,2022-02-08-17:42:38,10.1.1.2,30,-0.020,-0.020,-0.020,0.000,0.000,0.000
1644342158468785920,2022-02-08-17:42:38,10.1.1.2,28,-0.030,-0.030,-0.030,0.000,0.000,0.000
1644342158569113856,2022-02-08-17:42:38,10.1.1.2,28,-0.040,-0.040,-0.040,0.000,0.000,0.000
1644342158668401920,2022-02-08-17:42:38,10.1.1.2,27,-0.050,-0.050,-0.050,0.000,0.000,0.000
1644342158769094912,2022-02-08-17:42:38,10.1.1.2,25,-0.060,-0.060,-0.060,0.000,0.000,0.000
1644342158868449024,2022-02-08-17:42:38,10.1.1.2,24,-0.070,-0.070,-0.070,0.000,0.000,0.000
1644342158968569088,2022-02-08-17:42:38,10.1.1.2,23,-0.080,-0.080,-0.080,0.000,0.000,0.000
1644342159068600832,2022-02-08-17:42:39,10.1.1.2,21,-0.090,-0.090,-0.090,0.000,0.000,0.000
1644342159188205056,2022-02-08-17:42:39,10.1.1.2,39,-0.100,-0.100,-0.100,0.000,0.000,0.000
1644342159387824128,2022-02-08-17:42:39,10.1.1.2,37,-0.080,-0.080,-0.080,0.000,0.000,0.000
1644342159487837184,2022-02-08-17:42:39,10.1.1.2,35,-0.070,-0.070,-0.070,0.000,0.000,0.000
1644342159588514048,2022-02-08-17:42:39,10.1.1.2,35,-0.060,-0.060,-0.060,0.000,0.000,0.000
1644342159688140032,2022-02-08-17:42:39,10.1.1.2,34,-0.050,-0.050,-0.050,0.000,0.000,0.000
1644342159788768000,2022-02-08-17:42:39,10.1.1.2,32,-0.040,-0.040,-0.040,0.000,0.000,0.000
1644342159888536832,2022-02-08-17:42:39,10.1.1.2,32,-0.030,-0.030,-0.030,0.000,0.000,0.000
1644342159987757056,2022-02-08-17:42:39,10.1.1.2,31,-0.020,-0.020,-0.020,0.000,0.000,0.000
1644342160188338944,2022-02-08-17:42:40,10.1.1.2,29,0.000,0.000,0.000,0.000,0.000,0.000
1644342160288948992,2022-02-08-17:42:40,10.1.1.2,28,0.010,0.010,0.010,0.000,0.000,0.000
1644342160388525056,2022-02-08-17:42:40,10.1.1.2,27,0.020,0.020,0.020,0.000,0.000,0.000
1644342160488521984,2022-02-08-17:42:40,10.1.1.2,26,0.030,0.030,0.030,0.000,0.000,0.000
1644342160588785920,2022-02-08-17:42:40,10.1.1.2,25,0.040,0.040,0.040,0.000,0.000,0.000
1644342160687964928,2022-02-08-17:42:40,10.1.1.2,24,0.050,0.050,0.050,0.000,0.000,0.000
1644342160791491072,2022-02-08-17:42:40,10.1.1.2,22,0.060,0.060,0.060,0.000,0.000,0.000
1644342160888549120,2022-02-08-17:42:40,10.1.1.2,20,0.070,0.070,0.070,0.000,0.000,0.000
1644342161009645824,2022-02-08-17:42:41,10.1.1.2,40,0.080,0.080,0.080,0.000,0.000,0.000
1644342161108561920,2022-02-08-17:42:41,10.1.1.2,37,0.090,0.090,0.090,0.000,0.000,0.000
1644342161208209920,2022-02-08-17:42:41,10.1.1.2,35,0.100,0.100,0.100,0.000,0.000,0.000
1644342161308239104,2022-02-08-17:42:41,10.1.1.2,34,0.090,0.090,0.090,0.000,0.000,0.000
1644342161408411136,2022-02-08-17:42:41,10.1.1.2,33,0.080,0.080,0.080,0.000,0.000,0.000
1644342161508194048,2022-02-08-17:42:41,10.1.1.2,32,0.070,0.070,0.070,0.000,0.000,0.000
1644342161608457216,2022-02-08-17:42:41,10.1.1.2,29,0.060,0.060,0.060,0.000,0.000,0.000
1644342161710036992,2022-02-08-17:42:41,10.1.1.2,29,0.050,0.050,0.050,0.000,0.000,0.000
1644342161808656896,2022-02-08-17:42:41,10.1.1.2,24,0.040,0.040,0.040,0.000,0.000,0.000
1644342161909032960,2022-02-08-17:42:41,10.1.1.2,24,0.030,0.030,0.030,0.000,0.000,0.000
1644342162008727040,2022-02-08-17:42:42,10.1.1.2,23,0.020,0.020,0.020,0.000,0.000,0.000
1644342162121648128,2022-02-08-17:42:42,10.1.1.2,27,0.010,0.010,0.010,0.000,0.000,0.000
1644342162228208896,2022-02-08-17:42:42,10.1.1.2,37,0.000,0.000,0.000,0.000,0.000,0.000
1644342162328252928,2022-02-08-17:42:42,10.1.1.2,35,-0.010,-0.010,-0.010,0.000,0.000,0.000
1644342162427896064,2022-02-08-17:42:42,10.1.1.2,34,-0.020,-0.020,-0.020,0.000,0.000,0.000
1644342162528806912,2022-02-08-17:42:42,10.1.1.2,33,-0.030,-0.030,-0.030,0.000,0.000,0.000
1644342162628640768,2022-02-08-17:42:42,10.1.1.2,32,-0.040,-0.040,-0.040,0.000,0.000,0.000
1644342162727920896,2022-02-08-17:42:42,10.1.1.2,29,-0.050,-0.050,-0.050,0.000,0.000,0.000
1644342162827892992,2022-02-08-17:42:42,10.1.1.2,28,-0.060,-0.060,-0.060,0.000,0.000,0.000
1644342162928916992,2022-02-08-17:42:42,10.1.1.2,27,-0.070,-0.070,-0.070,0.000,0.000,0.000
1644342163027810048,2022-02-08-17:42:43,10.1.1.2,26,-0.080,-0.080,-0.080,0.000,0.000,0.000
1644342163128491008,2022-02-08-17:42:43,10.1.1.2,25,-0.090,-0.090,-0.090,0.000,0.000,0.000
1644342163231653888,2022-02-08-17:42:43,10.1.1.2,25,-0.100,-0.100,-0.100,0.000,0.000,0.000
1644342163328141824,2022-02-08-17:42:43,10.1.1.2,22,-0.090,-0.090,-0.090,0.000,0.000,0.000
1644342163428487936,2022-02-08-17:42:43,10.1.1.2,21,-0.080,-0.080,-0.080,0.000,0.000,0.000
1644342163548742912,2022-02-08-17:42:43,10.1.1.2,38,-0.070,-0.070,-0.070,0.000,0.000,0.000
1644342163649204992,2022-02-08-17:42:43,10.1.1.2,36,-0.060,-0.060,-0.060,0.000,0.000,0.000
1644342163748730880,2022-02-08-17:42:43,10.1.1.2,36,-0.050,-0.050,-0.050,0.000,0.000,0.000
1644342163848705024,2022-02-08-17:42:43,10.1.1.2,35,-0.040,-0.040,-0.040,0.000,0.000,0.000
1644342164048907008,2022-02-08-17:42:44,10.1.1.2,33,-0.020,-0.020,-0.020,0.000,0.000,0.000
1644342164148358144,2022-02-08-17:42:44,10.1.1.2,32,-0.010,-0.010,-0.010,0.000,0.000,0.000
1644342164253431040,2022-02-08-17:42:44,10.1.1.2,35,0.000,0.000,0.000,0.000,0.000,0.000
1644342164349363968,2022-02-08-17:42:44,10.1.1.2,30,0.010,0.010,0.010,0.000,0.000,0.000
1644342164448481024,2022-02-08-17:42:44,10.1.1.2,29,0.020,0.020,0.020,0.000,0.000,0.000
1644342164549124864,2022-02-08-17:42:44,10.1.1.2,28,0.030,0.030,0.030,0.000,0.000,0.000
1644342164648161792,2022-02-08-17:42:44,10.1.1.2,26,0.040,0.040,0.040,0.000,0.000,0.000
1644342164748871936,2022-02-08-17:42:44,10.1.1.2,24,0.050,0.050,0.050,0.000,0.000,0.000
1644342164848803072,2022-02-08-17:42:44,10.1.1.2,24,0.060,0.060,0.060,0.000,0.000,0.000
1644342164948573184,2022-02-08-17:42:44,10.1.1.2,23,0.070,0.070,0.070,0.000,0.000,0.000
1644342165048621056,2022-02-08-17:42:45,10.1.1.2,22,0.080,0.080,0.080,0.000,0.000,0.000
1644342165154052096,2022-02-08-17:42:45,10.1.1.2,25,0.090,0.090,0.090,0.000,0.000,0.000
1644342165329670912,2022-02-08-17:42:45,10.1.1.2,-4,0.090,0.090,0.090,0.000,0.000,0.000
1644342165469368064,2022-02-08-17:42:45,10.1.1.2,34,0.080,0.080,0.080,0.000,0.000,0.000
1644342165568334080,2022-02-08-17:42:45,10.1.1.2,29,0.070,0.070,0.070,0.000,0.000,0.000
1644342165668528128,2022-02-08-17:42:45,10.1.1.2,28,0.060,0.060,0.060,0.000,0.000,0.000
1644342165768152064,2022-02-08-17:42:45,10.1.1.2,27,0.050,0.050,0.050,0.000,0.000,0.000
1644342165868925184,2022-02-08-17:42:45,10.1.1.2,26,0.040,0.040,0.040,0.000,0.000,0.000
1644342165969803008,2022-02-08-17:42:45,10.1.1.2,24,0.030,0.030,0.030,0.000,0.000,0.000
1644342166069478144,2022-02-08-17:42:46,10.1.1.2,24,0.020,0.020,0.020,0.000,0.000,0.000
1644342166168350976,2022-02-08-17:42:46,10.1.1.2,23,0.010,0.010,0.010,0.000,0.000,0.000
1644342166268686080,2022-02-08-17:42:46,10.1.1.2,20,0.000,0.000,0.000,0.000,0.000,0.000
1644342166388692992,2022-02-08-17:42:46,10.1.1.2,39,-0.010,-0.010,-0.010,0.000,0.000,0.000
1644342166488776960,2022-02-08-17:42:46,10.1.1.2,39,-0.020,-0.020,-0.020,0.000,0.000,0.000
1644342166589135872,2022-02-08-17:42:46,10.1.1.2,37,-0.030,-0.030,-0.030,0.000,0.000,0.000
1644342166688244992,2022-02-08-17:42:46,10.1.1.2,36,-0.040,-0.040,-0.040,0.000,0.000,0.000
1644342166788225024,2022-02-08-17:42:46,10.1.1.2,35,-0.050,-0.050,-0.050,0.000,0.000,0.000
1644342166888756992,2022-02-08-17:42:46,10.1.1.2,34,-0.060,-0.060,-0.060,0.000,0.000,0.000
1644342166988805120,2022-02-08-17:42:46,10.1.1.2,32,-0.070,-0.070,-0.070,0.000,0.000,0.000
1644342167078610944,2022-02-08-17:42:47,10.1.1.2,21,-0.080,-0.080,-0.080,0.000,0.000,0.000
1644342167288144128,2022-02-08-17:42:47,10.1.1.2,28,-0.100,-0.100,-0.100,0.000,0.000,0.000
1644342167388444928,2022-02-08-17:42:47,10.1.1.2,27,-0.090,-0.090,-0.090,0.000,0.000,0.000
1644342167488454144,2022-02-08-17:42:47,10.1.1.2,26,-0.080,-0.080,-0.080,0.000,0.000,0.000
1644342167587501056,2022-02-08-17:42:47,10.1.1.2,24,-0.070,-0.070,-0.070,0.000,0.000,0.000
1644342167708365056,2022-02-08-17:42:47,10.1.1.2,39,-0.060,-0.060,-0.060,0.000,0.000,0.000
1644342167807971072,2022-02-08-17:42:47,10.1.1.2,35,-0.050,-0.050,-0.050,0.000,0.000,0.000
1644342167909338880,2022-02-08-17:42:47,10.1.1.2,35,-0.040,-0.040,-0.040,0.000,0.000,0.000
1644342168008354048,2022-02-08-17:42:48,10.1.1.2,34,-0.030,-0.030,-0.030,0.000,0.000,0.000
1644342168107894016,2022-02-08-17:42:48,10.1.1.2,33,-0.020,-0.020,-0.020,0.000,0.000,0.000
1644342168309016832,2022-02-08-17:42:48,10.1.1.2,28,0.000,0.000,0.000,0.000,0.000,0.000
1644342168409483008,2022-02-08-17:42:48,10.1.1.2,27,0.010,0.010,0.010,0.000,0.000,0.000
1644342168508725760,2022-02-08-17:42:48,10.1.1.2,26,0.020,0.020,0.020,0.000,0.000,0.000
1644342168617679104,2022-02-08-17:42:48,10.1.1.2,33,0.030,0.030,0.030,0.000,0.000,0.000
1644342168709117952,2022-02-08-17:42:48,10.1.1.2,25,0.040,0.040,0.040,0.000,0.000,0.000
1644342168808495104,2022-02-08-17:42:48,10.1.1.2,24,0.050,0.050,0.050,0.000,0.000,0.000
1644342168909383936,2022-02-08-17:42:48,10.1.1.2,23,0.060,0.060,0.060,0.000,0.000,0.000
1644342169009200128,2022-02-08-17:42:49,10.1.1.2,22,0.070,0.070,0.070,0.000,0.000,0.000
1644342169107886080,2022-02-08-17:42:49,10.1.1.2,21,0.080,0.080,0.080,0.000,0.000,0.000
1644342169208797952,2022-02-08-17:42:49,10.1.1.2,20,0.090,0.090,0.090,0.000,0.000,0.000
1644342169308641024,2022-02-08-17:42:49,10.1.1.2,19,0.100,0.100,0.100,0.000,0.000,0.000
1644342169428217856,2022-02-08-17:42:49,10.1.1.2,38,0.090,0.090,0.090,0.000,0.000,0.000
1644342169528326912,2022-02-08-17:42:49,10.1.1.2,38,0.080,0.080,0.080,0.000,0.000,0.000
1644342169727953920,2022-02-08-17:42:49,10.1.1.2,35,0.060,0.060,0.060,0.000,0.000,0.000
1644342169828749056,2022-02-08-17:42:49,10.1.1.2,34,0.050,0.050,0.050,0.000,0.000,0.000
1644342169928265984,2022-02-08-17:42:49,10.1.1.2,32,0.040,0.040,0.040,0.000,0.000,0.000
1644342170028458240,2022-02-08-17:42:50,10.1.1.2,31,0.030,0.030,0.030,0.000,0.000,0.000
1644342170228346112,2022-02-08-17:42:50,10.1.1.2,28,0.010,0.010,0.010,0.000,0.000,0.000
1644342170328788992,2022-02-08-17:42:50,10.1.1.2,26,0.000,0.000,0.000,0.000,0.000,0.000
1644342170428836096,2022-02-08-17:42:50,10.1.1.2,26,-0.010,-0.010,-0.010,0.000,0.000,0.000
1644342170528229120,2022-02-08-17:42:50,10.1.1.2,24,-0.020,-0.020,-0.020,0.000,0.000,0.000
1644342170630911232,2022-02-08-17:42:50,10.1.1.2,23,-0.030,-0.030,-0.030,0.000,0.000,0.000
1644342170727948800,2022-02-08-17:42:50,10.1.1.2,21,-0.040,-0.040,-0.040,0.000,0.000,0.000
1644342170828301824,2022-02-08-17:42:50,10.1.1.2,20,-0.050,-0.050,-0.050,0.000,0.000,0.000
1644342170948862976,2022-02-08-17:42:50,10.1.1.2,38,-0.060,-0.060,-0.060,0.000,0.000,0.000
1644342171048769024,2022-02-08-17:42:51,10.1.1.2,37,-0.070,-0.070,-0.070,0.000,0.000,0.000
1644342171147749888,2022-02-08-17:42:51,10.1.1.2,36,-0.080,-0.080,-0.080,0.000,0.000,0.000
1644342171248193024,2022-02-08-17:42:51,10.1.1.2,34,-0.090,-0.090,-0.090,0.000,0.000,0.000
1644342171348155904,2022-02-08-17:42:51,10.1.1.2,31,-0.100,-0.100,-0.100,0.000,0.000,0.000
1644342171548300032,2022-02-08-17:42:51,10.1.1.2,29,-0.080,-0.080,-0.080,0.000,0.000,0.000
1644342171648723968,2022-02-08-17:42:51,10.1.1.2,28,-0.070,-0.070,-0.070,0.000,0.000,0.000
1644342171748584960,2022-02-08-17:42:51,10.1.1.2,27,-0.060,-0.060,-0.060,0.000,0.000,0.000
1644342171848856064,2022-02-08-17:42:51,10.1.1.2,26,-0.050,-0.050,-0.050,0.000,0.000,0.000
1644342171948550912,2022-02-08-17:42:51,10.1.1.2,25,-0.040,-0.040,-0.040,0.000,0.000,0.000
1644342172048782080,2022-02-08-17:42:52,10.1.1.2,24,-0.030,-0.030,-0.030,0.000,0.000,0.000
1644342172148017920,2022-02-08-17:42:52,10.1.1.2,23,-0.020,-0.020,-0.020,0.000,0.000,0.000
1644342172249057024,2022-02-08-17:42:52,10.1.1.2,22,-0.010,-0.010,-0.010,0.000,0.000,0.000
1644342172358643968,2022-02-08-17:42:52,10.1.1.2,24,0.000,0.000,0.000,0.000,0.000,0.000
1644342172448730880,2022-02-08-17:42:52,10.1.1.2,20,0.010,0.010,0.010,0.000,0.000,0.000
1644342172568478976,2022-02-08-17:42:52,10.1.1.2,39,0.020,0.020,0.020,0.000,0.000,0.000
1644342172668491008,2022-02-08-17:42:52,10.1.1.2,38,0.030,0.030,0.030,0.000,0.000,0.000
1644342172768528896,2022-02-08-17:42:52,10.1.1.2,36,0.040,0.040,0.040,0.000,0.000,0.000
1644342172868859904,2022-02-08-17:42:52,10.1.1.2,34,0.050,0.050,0.050,0.000,0.000,0.000
1644342172971415040,2022-02-08-17:42:52,10.1.1.2,36,0.060,0.060,0.060,0.000,0.000,0.000
1644342173068407040,2022-02-08-17:42:53,10.1.1.2,31,0.070,0.070,0.070,0.000,0.000,0.000
1644342173168727040,2022-02-08-17:42:53,10.1.1.2,28,0.080,0.080,0.080,0.000,0.000,0.000
1644342173268441088,2022-02-08-17:42:53,10.1.1.2,27,0.090,0.090,0.090,0.000,0.000,0.000
1644342173368990976,2022-02-08-17:42:53,10.1.1.2,26,0.100,0.100,0.100,0.000,0.000,0.000
1644342173468784128,2022-02-08-17:42:53,10.1.1.2,24,0.090,0.090,0.090,0.000,0.000,0.000
1644342173569070080,2022-02-08-17:42:53,10.1.1.2,20,0.080,0.080,0.080,0.000,0.000,0.000
1644342173687702016,2022-02-08-17:42:53,10.1.1.2,39,0.070,0.070,0.070,0.000,0.000,0.000
1644342173788638208,2022-02-08-17:42:53,10.1.1.2,37,0.060,0.060,0.060,0.000,0.000,0.000
1644342173887689216,2022-02-08-17:42:53,10.1.1.2,34,0.050,0.050,0.050,0.000,0.000,0.000
1644342173988478976,2022-02-08-17:42:53,10.1.1.2,32,0.040,0.040,0.040,0.000,0.000,0.000
1644342174087760896,2022-02-08-17:42:54,10.1.1.2,31,0.030,0.030,0.030,0.000,0.000,0.000
1644342174188445184,2022-02-08-17:42:54,10.1.1.2,29,0.020,0.020,0.020,0.000,0.000,0.000
1644342174288657920,2022-02-08-17:42:54,10.1.1.2,26,0.010,0.010,0.010,0.000,0.000,0.000
1644342174388935936,2022-02-08-17:42:54,10.1.1.2,25,0.000,0.000,0.000,0.000,0.000,0.000
1644342174489017088,2022-02-08-17:42:54,10.1.1.2,23,-0.010,-0.010,-0.010,0.000,0.000,0.000
1644342174588026880,2022-02-08-17:42:54,10.1.1.2,22,-0.020,-0.020,-0.020,0.000,0.000,0.000
1644342174688154880,2022-02-08-17:42:54,10.1.1.2,20,-0.030,-0.030,-0.030,0.000,0.000,0.000
1644342174808548096,2022-02-08-17:42:54,10.1.1.2,39,-0.040,-0.040,-0.040,0.000,0.000,0.000
1644342174910511104,2022-02-08-17:42:54,10.1.1.2,38,-0.050,-0.050,-0.050,0.000,0.000,0.000
1644342175008986880,2022-02-08-17:42:55,10.1.1.2,35,-0.060,-0.060,-0.060,0.000,0.000,0.000
1644342175108239872,2022-02-08-17:42:55,10.1.1.2,34,-0.070,-0.070,-0.070,0.000,0.000,0.000
1644342175208120064,2022-02-08-17:42:55,10.1.1.2,34,-0.080,-0.080,-0.080,0.000,0.000,0.000
1644342175307460096,2022-02-08-17:42:55,10.1.1.2,33,-0.090,-0.090,-0.090,0.000,0.000,0.000
1644342175408818944,2022-02-08-17:42:55,10.1.1.2,32,-0.100,-0.100,-0.100,0.000,0.000,0.000
1644342175608123136,2022-02-08-17:42:55,10.1.1.2,29,-0.080,-0.080,-0.080,0.000,0.000,0.000
1644342175708264960,2022-02-08-17:42:55,10.1.1.2,27,-0.070,-0.070,-0.070,0.000,0.000,0.000
1644342175808627968,2022-02-08-17:42:55,10.1.1.2,26,-0.060,-0.060,-0.060,0.000,0.000,0.000
1644342175910716928,2022-02-08-17:42:55,10.1.1.2,24,-0.050,-0.050,-0.050,0.000,0.000,0.000
1644342176008441088,2022-02-08-17:42:56,10.1.1.2,24,-0.040,-0.040,-0.040,0.000,0.000,0.000
1644342176108737024,2022-02-08-17:42:56,10.1.1.2,22,-0.030,-0.030,-0.030,0.000,0.000,0.000
1644342176208515840,2022-02-08-17:42:56,10.1.1.2,20,-0.020,-0.020,-0.020,0.000,0.000,0.000
1644342176328933888,2022-02-08-17:42:56,10.1.1.2,39,-0.010,-0.010,-0.010,0.000,0.000,0.000
1644342176428268032,2022-02-08-17:42:56,10.1.1.2,38,0.000,0.000,0.000,0.000,0.000,0.000
1644342176528027904,2022-02-08-17:42:56,10.1.1.2,36,0.010,0.010,0.010,0.000,0.000,0.000
1644342176629406976,2022-02-08-17:42:56,10.1.1.2,32,0.020,0.020,0.020,0.000,0.000,0.000
1644342176729639168,2022-02-08-17:42:56,10.1.1.2,31,0.030,0.030,0.030,0.000,0.000,0.000
1644342176828651008,2022-02-08-17:42:56,10.1.1.2,29,0.040,0.040,0.040,0.000,0.000,0.000
1644342176929049088,2022-02-08-17:42:56,10.1.1.2,26,0.050,0.050,0.050,0.000,0.000,0.000
1644342177028584960,2022-02-08-17:42:57,10.1.1.2,26,0.060,0.060,0.060,0.000,0.000,0.000
1644342177127929856,2022-02-08-17:42:57,10.1.1.2,24,0.070,0.070,0.070,0.000,0.000,0.000
1644342177228514048,2022-02-08-17:42:57,10.1.1.2,24,0.080,0.080,0.080,0.000,0.000,0.000
1644342177328768000,2022-02-08-17:42:57,10.1.1.2,22,0.090,0.090,0.090,0.000,0.000,0.000
1644342177428452096,2022-02-08-17:42:57,10.1.1.2,21,0.100,0.100,0.100,0.000,0.000,0.000
1644342177528680192,2022-02-08-17:42:57,10.1.1.2,20,0.090,0.090,0.090,0.000,0.000,0.000
1644342177648843008,2022-02-08-17:42:57,10.1.1.2,39,0.080,0.080,0.080,0.000,0.000,0.000
1644342177749014016,2022-02-08-17:42:57,10.1.1.2,36,0.070,0.070,0.070,0.000,0.000,0.000
1644342177848144128,2022-02-08-17:42:57,10.1.1.2,35,0.060,0.060,0.060,0.000,0.000,0.000
1644342177948760064,2022-02-08-17:42:57,10.1.1.2,34,0.050,0.050,0.050,0.000,0.000,0.000
1644342178048834048,2022-02-08-17:42:58,10.1.1.2,32,0.040,0.040,0.040,0.000,0.000,0.000
1644342178148012032,2022-02-08-17:42:58,10.1.1.2,32,0.030,0.030,0.030,0.000,0.000,0.000
1644342178247785984,2022-02-08-17:42:58,10.1.1.2,31,0.020,0.020,0.020,0.000,0.000,0.000
1644342178348276992,2022-02-08-17:42:58,10.1.1.2,30,0.010,0.010,0.010,0.000,0.000,0.000
1644342178448556032,2022-02-08-17:42:58,10.1.1.2,30,0.000,0.000,0.000,0.000,0.000,0.000
1644342178548150016,2022-02-08-17:42:58,10.1.1.2,28,-0.010,-0.010,-0.010,0.000,0.000,0.000
1644342178647661056,2022-02-08-17:42:58,10.1.1.2,28,-0.020,-0.020,-0.020,0.000,0.000,0.000
1644342178748830976,2022-02-08-17:42:58,10.1.1.2,27,-0.030,-0.030,-0.030,0.000,0.000,0.000
1644342178848320000,2022-02-08-17:42:58,10.1.1.2,26,-0.040,-0.040,-0.040,0.000,0.000,0.000
1644342178948854016,2022-02-08-17:42:58,10.1.1.2,25,-0.050,-0.050,-0.050,0.000,0.000,0.000
1644342179048780800,2022-02-08-17:42:59,10.1.1.2,20,-0.060,-0.060,-0.060,0.000,0.000,0.000
1644342179168164864,2022-02-08-17:42:59,10.1.1.2,38,-0.070,-0.070,-0.070,0.000,0.000,0.000
1644342179267934976,2022-02-08-17:42:59,10.1.1.2,38,-0.080,-0.080,-0.080,0.000,0.000,0.000
1644342179369061888,2022-02-08-17:42:59,10.1.1.2,36,-0.090,-0.090,-0.090,0.000,0.000,0.000
1644342179468954112,2022-02-08-17:42:59,10.1.1.2,33,-0.100,-0.100,-0.100,0.000,0.000,0.000
1644342179568624128,2022-02-08-17:42:59,10.1.1.2,32,-0.090,-0.090,-0.090,0.000,0.000,0.000
1644342179670060032,2022-02-08-17:42:59,10.1.1.2,32,-0.080,-0.080,-0.080,0.000,0.000,0.000
1644342179868626176,2022-02-08-17:42:59,10.1.1.2,28,-0.060,-0.060,-0.060,0.000,0.000,0.000
1644342179968931072,2022-02-08-17:42:59,10.1.1.2,26,-0.050,-0.050,-0.050,0.000,0.000,0.000
1644342180068337920,2022-02-08-17:43:00,10.1.1.2,24,-0.040,-0.040,-0.040,0.000,0.000,0.000
1644342180167988992,2022-02-08-17:43:00,10.1.1.2,23,-0.030,-0.030,-0.030,0.000,0.000,0.000
1644342180269104896,2022-02-08-17:43:00,10.1.1.2,22,-0.020,-0.020,-0.020,0.000,0.000,0.000
1644342180369796096,2022-02-08-17:43:00,10.1.1.2,21,-0.010,-0.010,-0.010,0.000,0.000,0.000
1644342180469068032,2022-02-08-17:43:00,10.1.1.2,20,0.000,0.000,0.000,0.000,0.000,0.000
1644342180588517888,2022-02-08-17:43:00,10.1.1.2,36,0.010,0.010,0.010,0.000,0.000,0.000
1644342180688532224,2022-02-08-17:43:00,10.1.1.2,35,0.020,0.020,0.020,0.000,0.000,0.000
1644342180889574144,2022-02-08-17:43:00,10.1.1.2,26,0.040,0.040,0.040,0.000,0.000,0.000
1644342180988609024,2022-02-08-17:43:00,10.1.1.2,24,0.050,0.050,0.050,0.000,0.000,0.000
1644342181089641984,2022-02-08-17:43:01,10.1.1.2,23,0.060,0.060,0.060,0.000,0.000,0.000
1644342181188637952,2022-02-08-17:43:01,10.1.1.2,21,0.070,0.070,0.070,0.000,0.000,0.000
1644342181288811008,2022-02-08-17:43:01,10.1.1.2,20,0.080,0.080,0.080,0.000,0.000,0.000
1644342181408425984,2022-02-08-17:43:01,10.1.1.2,38,0.090,0.090,0.090,0.000,0.000,0.000
1644342181507960064,2022-02-08-17:43:01,10.1.1.2,36,0.100,0.100,0.100,0.000,0.000,0.000
1644342181608900096,2022-02-08-17:43:01,10.1.1.2,34,0.090,0.090,0.090,0.000,0.000,0.000
1644342181708980992,2022-02-08-17:43:01,10.1.1.2,29,0.080,0.080,0.080,0.000,0.000,0.000
1644342181809777920,2022-02-08-17:43:01,10.1.1.2,28,0.070,0.070,0.070,0.000,0.000,0.000
1644342181908893184,2022-02-08-17:43:01,10.1.1.2,26,0.060,0.060,0.060,0.000,0.000,0.000
1644342182008937984,2022-02-08-17:43:02,10.1.1.2,24,0.050,0.050,0.050,0.000,0.000,0.000
1644342182109926912,2022-02-08-17:43:02,10.1.1.2,23,0.040,0.040,0.040,0.000,0.000,0.000
1644342182209408000,2022-02-08-17:43:02,10.1.1.2,21,0.030,0.030,0.030,0.000,0.000,0.000
1644342182428761088,2022-02-08-17:43:02,10.1.1.2,38,0.010,0.010,0.010,0.000,0.000,0.000
1644342182527874048,2022-02-08-17:43:02,10.1.1.2,36,0.000,0.000,0.000,0.000,0.000,0.000
1644342182630016000,2022-02-08-17:43:02,10.1.1.2,35,-0.010,-0.010,-0.010,0.000,0.000,0.000
1644342182728614144,2022-02-08-17:43:02,10.1.1.2,33,-0.020,-0.020,-0.020,0.000,0.000,0.000
1644342182828669952,2022-02-08-17:43:02,10.1.1.2,32,-0.030,-0.030,-0.030,0.000,0.000,0.000
1644342182928651008,2022-02-08-17:43:02,10.1.1.2,31,-0.040,-0.040,-0.040,0.000,0.000,0.000
1644342183028060928,2022-02-08-17:43:03,10.1.1.2,28,-0.050,-0.050,-0.050,0.000,0.000,0.000
1644342183128901888,2022-02-08-17:43:03,10.1.1.2,26,-0.060,-0.060,-0.060,0.000,0.000,0.000
1644342183228524032,2022-02-08-17:43:03,10.1.1.2,24,-0.070,-0.070,-0.070,0.000,0.000,0.000
1644342183329117184,2022-02-08-17:43:03,10.1.1.2,23,-0.080,-0.080,-0.080,0.000,0.000,0.000
1644342183428494080,2022-02-08-17:43:03,10.1.1.2,22,-0.090,-0.090,-0.090,0.000,0.000,0.000
1644342183548532992,2022-02-08-17:43:03,10.1.1.2,37,-0.100,-0.100,-0.100,0.000,0.000,0.000
1644342183649238016,2022-02-08-17:43:03,10.1.1.2,36,-0.090,-0.090,-0.090,0.000,0.000,0.000
1644342183749486080,2022-02-08-17:43:03,10.1.1.2,35,-0.080,-0.080,-0.080,0.000,0.000,0.000
1644342183848550912,2022-02-08-17:43:03,10.1.1.2,34,-0.070,-0.070,-0.070,0.000,0.000,0.000
1644342183948328960,2022-02-08-17:43:03,10.1.1.2,33,-0.060,-0.060,-0.060,0.000,0.000,0.000
1644342184048582144,2022-02-08-17:43:04,10.1.1.2,32,-0.050,-0.050,-0.050,0.000,0.000,0.000
1644342184149679872,2022-02-08-17:43:04,10.1.1.2,32,-0.040,-0.040,-0.040,0.000,0.000,0.000
1644342184249048832,2022-02-08-17:43:04,10.1.1.2,30,-0.030,-0.030,-0.030,0.000,0.000,0.000
1644342184348670976,2022-02-08-17:43:04,10.1.1.2,28,-0.020,-0.020,-0.020,0.000,0.000,0.000
1644342184447900928,2022-02-08-17:43:04,10.1.1.2,27,-0.010,-0.010,-0.010,0.000,0.000,0.000
1644342184548782080,2022-02-08-17:43:04,10.1.1.2,24,0.000,0.000,0.000,0.000,0.000,0.000
1644342184648684032,2022-02-08-17:43:04,10.1.1.2,22,0.010,0.010,0.010,0.000,0.000,0.000
1644342184748739072,2022-02-08-17:43:04,10.1.1.2,21,0.020,0.020,0.020,0.000,0.000,0.000
1644342184868467200,2022-02-08-17:43:04,10.1.1.2,39,0.030,0.030,0.030,0.000,0.000,0.000
1644342184968710912,2022-02-08-17:43:04,10.1.1.2,38,0.040,0.040,0.040,0.000,0.000,0.000
1644342185068290048,2022-02-08-17:43:05,10.1.1.2,37,0.050,0.050,0.050,0.000,0.000,0.000
1644342185168890112,2022-02-08-17:43:05,10.1.1.2,32,0.060,0.060,0.060,0.000,0.000,0.000
1644342185269581056,2022-02-08-17:43:05,10.1.1.2,29,0.070,0.070,0.070,0.000,0.000,0.000
1644342185368165888,2022-02-08-17:43:05,10.1.1.2,27,0.080,0.080,0.080,0.000,0.000,0.000
1644342185468398080,2022-02-08-17:43:05,10.1.1.2,25,0.090,0.090,0.090,0.000,0.000,0.000
1644342185568356864,2022-02-08-17:43:05,10.1.1.2,25,0.100,0.100,0.100,0.000,0.000,0.000
1644342185668176896,2022-02-08-17:43:05,10.1.1.2,24,0.090,0.090,0.090,0.000,0.000,0.000
1644342185768668928,2022-02-08-17:43:05,10.1.1.2,23,0.080,0.080,0.080,0.000,0.000,0.000
1644342185868020992,2022-02-08-17:43:05,10.1.1.2,22,0.070,0.070,0.070,0.000,0.000,0.000
1644342185968570880,2022-02-08-17:43:05,10.1.1.2,21,0.060,0.060,0.060,0.000,0.000,0.000
1644342186068742144,2022-02-08-17:43:06,10.1.1.2,20,0.050,0.050,0.050,0.000,0.000,0.000
1644342186168168960,2022-02-08-17:43:06,10.1.1.2,20,0.040,0.040,0.040,0.000,0.000,0.000
1644342186289154048,2022-02-08-17:43:06,10.1.1.2,39,0.030,0.030,0.030,0.000,0.000,0.000
1644342186389369088,2022-02-08-17:43:06,10.1.1.2,38,0.020,0.020,0.020,0.000,0.000,0.000
1644342186488859904,2022-02-08-17:43:06,10.1.1.2,37,0.010,0.010,0.010,0.000,0.000,0.000
1644342186588468992,2022-02-08-17:43:06,10.1.1.2,35,0.000,0.000,0.000,0.000,0.000,0.000
1644342186690469888,2022-02-08-17:43:06,10.1.1.2,34,-0.010,-0.010,-0.010,0.000,0.000,0.000
1644342186789259008,2022-02-08-17:43:06,10.1.1.2,33,-0.020,-0.020,-0.020,0.000,0.000,0.000
1644342186917645056,2022-02-08-17:43:06,10.1.1.2,60,-0.030,-0.030,-0.030,0.000,0.000,0.000
1644342186987236864,2022-02-08-17:43:06,10.1.1.2,28,-0.040,-0.040,-0.040,0.000,0.000,0.000
1644342187097964032,2022-02-08-17:43:07,10.1.1.2,37,-0.050,-0.050,-0.050,0.000,0.000,0.000
1644342187187403008,2022-02-08-17:43:07,10.1.1.2,26,-0.060,-0.060,-0.060,0.000,0.000,0.000
1644342187287194112,2022-02-08-17:43:07,10.1.1.2,25,-0.070,-0.070,-0.070,0.000,0.000,0.000
1644342187388077056,2022-02-08-17:43:07,10.1.1.2,24,-0.080,-0.080,-0.080,0.000,0.000,0.000
1644342187486519040,2022-02-08-17:43:07,10.1.1.2,23,-0.090,-0.090,-0.090,0.000,0.000,0.000
1644342187595979008,2022-02-08-17:43:07,10.1.1.2,24,-0.100,-0.100,-0.100,0.000,0.000,0.000
1644342187686952960,2022-02-08-17:43:07,10.1.1.2,21,-0.090,-0.090,-0.090,0.000,0.000,0.000
1644342187787333888,2022-02-08-17:43:07,10.1.1.2,20,-0.080,-0.080,-0.080,0.000,0.000,0.000
1644342187899879936,2022-02-08-17:43:07,10.1.1.2,29,-0.070,-0.070,-0.070,0.000,0.000,0.000
1644342188106951936,2022-02-08-17:43:08,10.1.1.2,37,-0.050,-0.050,-0.050,0.000,0.000,0.000
1644342188206161920,2022-02-08-17:43:08,10.1.1.2,37,-0.040,-0.040,-0.040,0.000,0.000,0.000
1644342188306163968,2022-02-08-17:43:08,10.1.1.2,36,-0.030,-0.030,-0.030,0.000,0.000,0.000
1644342188406462976,2022-02-08-17:43:08,10.1.1.2,35,-0.020,-0.020,-0.020,0.000,0.000,0.000
1644342188506776064,2022-02-08-17:43:08,10.1.1.2,35,-0.010,-0.010,-0.010,0.000,0.000,0.000
1644342188616718080,2022-02-08-17:43:08,10.1.1.2,44,0.000,0.000,0.000,0.000,0.000,0.000
1644342188696611840,2022-02-08-17:43:08,10.1.1.2,24,0.010,0.010,0.010,0.000,0.000,0.000
1644342188796551936,2022-02-08-17:43:08,10.1.1.2,23,0.020,0.020,0.020,0.000,0.000,0.000
1644342188907366144,2022-02-08-17:43:08,10.1.1.2,32,0.030,0.030,0.030,0.000,0.000,0.000
1644342188997773824,2022-02-08-17:43:08,10.1.1.2,22,0.040,0.040,0.040,0.000,0.000,0.000
1644342189106881024,2022-02-08-17:43:09,10.1.1.2,31,0.050,0.050,0.050,0.000,0.000,0.000
1644342189206994176,2022-02-08-17:43:09,10.1.1.2,30,0.060,0.060,0.060,0.000,0.000,0.000
1644342189307137024,2022-02-08-17:43:09,10.1.1.2,30,0.070,0.070,0.070,0.000,0.000,0.000
1644342189408567808,2022-02-08-17:43:09,10.1.1.2,29,0.080,0.080,0.080,0.000,0.000,0.000
1644342189506663168,2022-02-08-17:43:09,10.1.1.2,28,0.090,0.090,0.090,0.000,0.000,0.000
1644342189607523840,2022-02-08-17:43:09,10.1.1.2,27,0.100,0.100,0.100,0.000,0.000,0.000
1644342189706247168,2022-02-08-17:43:09,10.1.1.2,26,0.090,0.090,0.090,0.000,0.000,0.000
1644342189817017088,2022-02-08-17:43:09,10.1.1.2,35,0.080,0.080,0.080,0.000,0.000,0.000
1644342189906611968,2022-02-08-17:43:09,10.1.1.2,21,0.070,0.070,0.070,0.000,0.000,0.000
1644342190006420992,2022-02-08-17:43:10,10.1.1.2,21,0.060,0.060,0.060,0.000,0.000,0.000
1644342190126318080,2022-02-08-17:43:10,10.1.1.2,37,0.050,0.050,0.050,0.000,0.000,0.000
1644342190226747136,2022-02-08-17:43:10,10.1.1.2,36,0.040,0.040,0.040,0.000,0.000,0.000
1644342190339092992,2022-02-08-17:43:10,10.1.1.2,45,0.030,0.030,0.030,0.000,0.000,0.000
1644342190427248896,2022-02-08-17:43:10,10.1.1.2,35,0.020,0.020,0.020,0.000,0.000,0.000
1644342190526927104,2022-02-08-17:43:10,10.1.1.2,34,0.010,0.010,0.010,0.000,0.000,0.000
1644342190627360000,2022-02-08-17:43:10,10.1.1.2,32,0.000,0.000,0.000,0.000,0.000,0.000
1644342190727806208,2022-02-08-17:43:10,10.1.1.2,31,-0.010,-0.010,-0.010,0.000,0.000,0.000
1644342190927218944,2022-02-08-17:43:10,10.1.1.2,29,-0.030,-0.030,-0.030,0.000,0.000,0.000
1644342191027662080,2022-02-08-17:43:11,10.1.1.2,28,-0.040,-0.040,-0.040,0.000,0.000,0.000
1644342191127079936,2022-02-08-17:43:11,10.1.1.2,27,-0.050,-0.050,-0.050,0.000,0.000,0.000
1644342191227005952,2022-02-08-17:43:11,10.1.1.2,25,-0.060,-0.060,-0.060,0.000,0.000,0.000
1644342191337516032,2022-02-08-17:43:11,10.1.1.2,35,-0.070,-0.070,-0.070,0.000,0.000,0.000
1644342191437565184,2022-02-08-17:43:11,10.1.1.2,33,-0.080,-0.080,-0.080,0.000,0.000,0.000
1644342191527461888,2022-02-08-17:43:11,10.1.1.2,23,-0.090,-0.090,-0.090,0.000,0.000,0.000
1644342191638597888,2022-02-08-17:43:11,10.1.1.2,32,-0.100,-0.100,-0.100,0.000,0.000,0.000
1644342191727781888,2022-02-08-17:43:11,10.1.1.2,21,-0.090,-0.090,-0.090,0.000,0.000,0.000
1644342191836486144,2022-02-08-17:43:11,10.1.1.2,28,-0.080,-0.080,-0.080,0.000,0.000,0.000
1644342192047052032,2022-02-08-17:43:12,10.1.1.2,38,-0.060,-0.060,-0.060,0.000,0.000,0.000
1644342192147293184,2022-02-08-17:43:12,10.1.1.2,36,-0.050,-0.050,-0.050,0.000,0.000,0.000
1644342192246674944,2022-02-08-17:43:12,10.1.1.2,35,-0.040,-0.040,-0.040,0.000,0.000,0.000
1644342192358356992,2022-02-08-17:43:12,10.1.1.2,44,-0.030,-0.030,-0.030,0.000,0.000,0.000
1644342192437138944,2022-02-08-17:43:12,10.1.1.2,24,-0.020,-0.020,-0.020,0.000,0.000,0.000
1644342192537265920,2022-02-08-17:43:12,10.1.1.2,22,-0.010,-0.010,-0.010,0.000,0.000,0.000
1644342192657228032,2022-02-08-17:43:12,10.1.1.2,41,0.000,0.000,0.000,0.000,0.000,0.000
1644342192746809088,2022-02-08-17:43:12,10.1.1.2,30,0.010,0.010,0.010,0.000,0.000,0.000
1644342192846733056,2022-02-08-17:43:12,10.1.1.2,26,0.020,0.020,0.020,0.000,0.000,0.000
1644342192957257984,2022-02-08-17:43:12,10.1.1.2,35,0.030,0.030,0.030,0.000,0.000,0.000
1644342193047352064,2022-02-08-17:43:13,10.1.1.2,23,0.040,0.040,0.040,0.000,0.000,0.000
1644342193163696128,2022-02-08-17:43:13,10.1.1.2,34,0.050,0.050,0.050,0.000,0.000,0.000
1644342193247016960,2022-02-08-17:43:13,10.1.1.2,22,0.060,0.060,0.060,0.000,0.000,0.000
1644342193347201024,2022-02-08-17:43:13,10.1.1.2,21,0.070,0.070,0.070,0.000,0.000,0.000
1644342193457361920,2022-02-08-17:43:13,10.1.1.2,30,0.080,0.080,0.080,0.000,0.000,0.000
1644342193567028992,2022-02-08-17:43:13,10.1.1.2,39,0.090,0.090,0.090,0.000,0.000,0.000
1644342193668013056,2022-02-08-17:43:13,10.1.1.2,38,0.100,0.100,0.100,0.000,0.000,0.000
1644342193766921984,2022-02-08-17:43:13,10.1.1.2,37,0.090,0.090,0.090,0.000,0.000,0.000
1644342193870479104,2022-02-08-17:43:13,10.1.1.2,38,0.080,0.080,0.080,0.000,0.000,0.000
1644342193967041024,2022-02-08-17:43:13,10.1.1.2,35,0.070,0.070,0.070,0.000,0.000,0.000
1644342194066927872,2022-02-08-17:43:14,10.1.1.2,33,0.060,0.060,0.060,0.000,0.000,0.000
1644342194167495936,2022-02-08-17:43:14,10.1.1.2,31,0.050,0.050,0.050,0.000,0.000,0.000
1644342194277538048,2022-02-08-17:43:14,10.1.1.2,40,0.040,0.040,0.040,0.000,0.000,0.000
1644342194377920000,2022-02-08-17:43:14,10.1.1.2,38,0.030,0.030,0.030,0.000,0.000,0.000
1644342194467226880,2022-02-08-17:43:14,10.1.1.2,27,0.020,0.020,0.020,0.000,0.000,0.000
1644342194567395072,2022-02-08-17:43:14,10.1.1.2,25,0.010,0.010,0.010,0.000,0.000,0.000
1644342194678572800,2022-02-08-17:43:14,10.1.1.2,34,0.000,0.000,0.000,0.000,0.000,0.000
1644342194778299136,2022-02-08-17:43:14,10.1.1.2,33,-0.010,-0.010,-0.010,0.000,0.000,0.000
1644342194867244032,2022-02-08-17:43:14,10.1.1.2,22,-0.020,-0.020,-0.020,0.000,0.000,0.000
1644342194978317056,2022-02-08-17:43:14,10.1.1.2,30,-0.030,-0.030,-0.030,0.000,0.000,0.000
1644342195088133120,2022-02-08-17:43:15,10.1.1.2,39,-0.040,-0.040,-0.040,0.000,0.000,0.000
1644342195188401920,2022-02-08-17:43:15,10.1.1.2,37,-0.050,-0.050,-0.050,0.000,0.000,0.000
1644342195287909120,2022-02-08-17:43:15,10.1.1.2,36,-0.060,-0.060,-0.060,0.000,0.000,0.000
1644342195388321024,2022-02-08-17:43:15,10.1.1.2,35,-0.070,-0.070,-0.070,0.000,0.000,0.000
1644342195497952000,2022-02-08-17:43:15,10.1.1.2,43,-0.080,-0.080,-0.080,0.000,0.000,0.000
1644342195598076160,2022-02-08-17:43:15,10.1.1.2,42,-0.090,-0.090,-0.090,0.000,0.000,0.000
1644342195686921984,2022-02-08-17:43:15,10.1.1.2,28,-0.100,-0.100,-0.100,0.000,0.000,0.000
1644342195798679040,2022-02-08-17:43:15,10.1.1.2,36,-0.090,-0.090,-0.090,0.000,0.000,0.000
1644342195887442176,2022-02-08-17:43:15,10.1.1.2,25,-0.080,-0.080,-0.080,0.000,0.000,0.000
1644342195987615232,2022-02-08-17:43:15,10.1.1.2,24,-0.070,-0.070,-0.070,0.000,0.000,0.000
1644342196087810048,2022-02-08-17:43:16,10.1.1.2,23,-0.060,-0.060,-0.060,0.000,0.000,0.000
1644342196187268096,2022-02-08-17:43:16,10.1.1.2,21,-0.050,-0.050,-0.050,0.000,0.000,0.000
1644342196286597120,2022-02-08-17:43:16,10.1.1.2,21,-0.040,-0.040,-0.040,0.000,0.000,0.000
1644342196396784128,2022-02-08-17:43:16,10.1.1.2,29,-0.030,-0.030,-0.030,0.000,0.000,0.000
1644342196497016064,2022-02-08-17:43:16,10.1.1.2,28,-0.020,-0.020,-0.020,0.000,0.000,0.000
1644342196607183872,2022-02-08-17:43:16,10.1.1.2,36,-0.010,-0.010,-0.010,0.000,0.000,0.000
1644342196707150080,2022-02-08-17:43:16,10.1.1.2,35,0.000,0.000,0.000,0.000,0.000,0.000
1644342196809338112,2022-02-08-17:43:16,10.1.1.2,33,0.010,0.010,0.010,0.000,0.000,0.000
1644342196897361920,2022-02-08-17:43:16,10.1.1.2,22,0.020,0.020,0.020,0.000,0.000,0.000
1644342197018656000,2022-02-08-17:43:17,10.1.1.2,41,0.030,0.030,0.030,0.000,0.000,0.000
1644342197108691968,2022-02-08-17:43:17,10.1.1.2,30,0.040,0.040,0.040,0.000,0.000,0.000
1644342197317726976,2022-02-08-17:43:17,10.1.1.2,38,0.060,0.060,0.060,0.000,0.000,0.000
1644342197417601024,2022-02-08-17:43:17,10.1.1.2,36,0.070,0.070,0.070,0.000,0.000,0.000
1644342197506967040,2022-02-08-17:43:17,10.1.1.2,25,0.080,0.080,0.080,0.000,0.000,0.000
1644342197608262144,2022-02-08-17:43:17,10.1.1.2,23,0.090,0.090,0.090,0.000,0.000,0.000
1644342197707201024,2022-02-08-17:43:17,10.1.1.2,22,0.100,0.100,0.100,0.000,0.000,0.000
1644342197807058944,2022-02-08-17:43:17,10.1.1.2,21,0.090,0.090,0.090,0.000,0.000,0.000
1644342197926958080,2022-02-08-17:43:17,10.1.1.2,36,0.080,0.080,0.080,0.000,0.000,0.000
1644342198027476992,2022-02-08-17:43:18,10.1.1.2,35,0.070,0.070,0.070,0.000,0.000,0.000
1644342198136581888,2022-02-08-17:43:18,10.1.1.2,43,0.060,0.060,0.060,0.000,0.000,0.000
1644342198219355136,2022-02-08-17:43:18,10.1.1.2,22,0.050,0.050,0.050,0.000,0.000,0.000
1644342198337088000,2022-02-08-17:43:18,10.1.1.2,37,0.040,0.040,0.040,0.000,0.000,0.000
1644342198437588992,2022-02-08-17:43:18,10.1.1.2,27,0.030,0.030,0.030,0.000,0.000,0.000
1644342198527184128,2022-02-08-17:43:18,10.1.1.2,25,0.020,0.020,0.020,0.000,0.000,0.000
1644342198636332032,2022-02-08-17:43:18,10.1.1.2,34,0.010,0.010,0.010,0.000,0.000,0.000
1644342198727057920,2022-02-08-17:43:18,10.1.1.2,23,0.000,0.000,0.000,0.000,0.000,0.000
1644342198827533056,2022-02-08-17:43:18,10.1.1.2,22,-0.010,-0.010,-0.010,0.000,0.000,0.000
1644342198947056128,2022-02-08-17:43:18,10.1.1.2,37,-0.020,-0.020,-0.020,0.000,0.000,0.000
1644342199047038976,2022-02-08-17:43:19,10.1.1.2,36,-0.030,-0.030,-0.030,0.000,0.000,0.000
1644342199153881088,2022-02-08-17:43:19,10.1.1.2,37,-0.040,-0.040,-0.040,0.000,0.000,0.000
1644342199246209024,2022-02-08-17:43:19,10.1.1.2,34,-0.050,-0.050,-0.050,0.000,0.000,0.000
1644342199336244224,2022-02-08-17:43:19,10.1.1.2,23,-0.060,-0.060,-0.060,0.000,0.000,0.000
1644342199446695168,2022-02-08-17:43:19,10.1.1.2,31,-0.070,-0.070,-0.070,0.000,0.000,0.000
1644342199547313920,2022-02-08-17:43:19,10.1.1.2,29,-0.080,-0.080,-0.080,0.000,0.000,0.000
1644342199657798144,2022-02-08-17:43:19,10.1.1.2,38,-0.090,-0.090,-0.090,0.000,0.000,0.000
1644342199746486016,2022-02-08-17:43:19,10.1.1.2,28,-0.100,-0.100,-0.100,0.000,0.000,0.000
1644342199846601984,2022-02-08-17:43:19,10.1.1.2,26,-0.090,-0.090,-0.090,0.000,0.000,0.000
1644342199957977088,2022-02-08-17:43:19,10.1.1.2,36,-0.080,-0.080,-0.080,0.000,0.000,0.000
1644342200054806016,2022-02-08-17:43:20,10.1.1.2,21,-0.070,-0.070,-0.070,0.000,0.000,0.000
1644342200167699200,2022-02-08-17:43:20,10.1.1.2,39,-0.060,-0.060,-0.060,0.000,0.000,0.000
1644342200266190080,2022-02-08-17:43:20,10.1.1.2,39,-0.050,-0.050,-0.050,0.000,0.000,0.000
1644342200366628864,2022-02-08-17:43:20,10.1.1.2,37,-0.040,-0.040,-0.040,0.000,0.000,0.000
1644342200477188096,2022-02-08-17:43:20,10.1.1.2,46,-0.030,-0.030,-0.030,0.000,0.000,0.000
1644342200567048960,2022-02-08-17:43:20,10.1.1.2,35,-0.020,-0.020,-0.020,0.000,0.000,0.000
1644342200656409088,2022-02-08-17:43:20,10.1.1.2,23,-0.010,-0.010,-0.010,0.000,0.000,0.000
1644342200756356096,2022-02-08-17:43:20,10.1.1.2,21,0.000,0.000,0.000,0.000,0.000,0.000
1644342200876590080,2022-02-08-17:43:20,10.1.1.2,38,0.010,0.010,0.010,0.000,0.000,0.000
1644342200966413056,2022-02-08-17:43:20,10.1.1.2,27,0.020,0.020,0.020,0.000,0.000,0.000
1644342201076525056,2022-02-08-17:43:21,10.1.1.2,36,0.030,0.030,0.030,0.000,0.000,0.000
1644342201176492032,2022-02-08-17:43:21,10.1.1.2,36,0.040,0.040,0.040,0.000,0.000,0.000
1644342201277210880,2022-02-08-17:43:21,10.1.1.2,35,0.050,0.050,0.050,0.000,0.000,0.000
1644342201367283200,2022-02-08-17:43:21,10.1.1.2,24,0.060,0.060,0.060,0.000,0.000,0.000
1644342201477800960,2022-02-08-17:43:21,10.1.1.2,30,0.070,0.070,0.070,0.000,0.000,0.000
1644342201586968064,2022-02-08-17:43:21,10.1.1.2,39,0.080,0.080,0.080,0.000,0.000,0.000
1644342201697140992,2022-02-08-17:43:21,10.1.1.2,47,0.090,0.090,0.090,0.000,0.000,0.000
1644342201776542976,2022-02-08-17:43:21,10.1.1.2,26,0.100,0.100,0.100,0.000,0.000,0.000
1644342201887209984,2022-02-08-17:43:21,10.1.1.2,33,0.090,0.090,0.090,0.000,0.000,0.000
1644342201997710080,2022-02-08-17:43:21,10.1.1.2,42,0.080,0.080,0.080,0.000,0.000,0.000
1644342202087980032,2022-02-08-17:43:22,10.1.1.2,31,0.070,0.070,0.070,0.000,0.000,0.000
1644342202185920000,2022-02-08-17:43:22,10.1.1.2,31,0.060,0.060,0.060,0.000,0.000,0.000
1644342202296456192,2022-02-08-17:43:22,10.1.1.2,40,0.050,0.050,0.050,0.000,0.000,0.000
1644342202388137216,2022-02-08-17:43:22,10.1.1.2,29,0.040,0.040,0.040,0.000,0.000,0.000
1644342202486782976,2022-02-08-17:43:22,10.1.1.2,28,0.030,0.030,0.030,0.000,0.000,0.000
1644342202587891968,2022-02-08-17:43:22,10.1.1.2,26,0.020,0.020,0.020,0.000,0.000,0.000
1644342202686475008,2022-02-08-17:43:22,10.1.1.2,25,0.010,0.010,0.010,0.000,0.000,0.000
1644342202786598912,2022-02-08-17:43:22,10.1.1.2,25,0.000,0.000,0.000,0.000,0.000,0.000
1644342202887595776,2022-02-08-17:43:22,10.1.1.2,23,-0.010,-0.010,-0.010,0.000,0.000,0.000
1644342202996998912,2022-02-08-17:43:22,10.1.1.2,31,-0.020,-0.020,-0.020,0.000,0.000,0.000
1644342203097025024,2022-02-08-17:43:23,10.1.1.2,30,-0.030,-0.030,-0.030,0.000,0.000,0.000
1644342203297734144,2022-02-08-17:43:23,10.1.1.2,28,-0.050,-0.050,-0.050,0.000,0.000,0.000
1644342203417709056,2022-02-08-17:43:23,10.1.1.2,47,-0.060,-0.060,-0.060,0.000,0.000,0.000
1644342203507062784,2022-02-08-17:43:23,10.1.1.2,36,-0.070,-0.070,-0.070,0.000,0.000,0.000
1644342203617789952,2022-02-08-17:43:23,10.1.1.2,45,-0.080,-0.080,-0.080,0.000,0.000,0.000
1644342203696899840,2022-02-08-17:43:23,10.1.1.2,24,-0.090,-0.090,-0.090,0.000,0.000,0.000
1644342203807493888,2022-02-08-17:43:23,10.1.1.2,31,-0.100,-0.100,-0.100,0.000,0.000,0.000
1644342203917954816,2022-02-08-17:43:23,10.1.1.2,39,-0.090,-0.090,-0.090,0.000,0.000,0.000
1644342204007603968,2022-02-08-17:43:24,10.1.1.2,28,-0.080,-0.080,-0.080,0.000,0.000,0.000
1644342204107633152,2022-02-08-17:43:24,10.1.1.2,25,-0.070,-0.070,-0.070,0.000,0.000,0.000
1644342204206552064,2022-02-08-17:43:24,10.1.1.2,24,-0.060,-0.060,-0.060,0.000,0.000,0.000
1644342204307401984,2022-02-08-17:43:24,10.1.1.2,23,-0.050,-0.050,-0.050,0.000,0.000,0.000
1644342204406910976,2022-02-08-17:43:24,10.1.1.2,23,-0.040,-0.040,-0.040,0.000,0.000,0.000
1644342204507283968,2022-02-08-17:43:24,10.1.1.2,22,-0.030,-0.030,-0.030,0.000,0.000,0.000
1644342204607557120,2022-02-08-17:43:24,10.1.1.2,20,-0.020,-0.020,-0.020,0.000,0.000,0.000
1644342204738120960,2022-02-08-17:43:24,10.1.1.2,49,-0.010,-0.010,-0.010,0.000,0.000,0.000
1644342204827812864,2022-02-08-17:43:24,10.1.1.2,37,0.000,0.000,0.000,0.000,0.000,0.000
1644342204940706048,2022-02-08-17:43:24,10.1.1.2,49,0.010,0.010,0.010,0.000,0.000,0.000
1644342205027806976,2022-02-08-17:43:25,10.1.1.2,35,0.020,0.020,0.020,0.000,0.000,0.000
1644342205127149056,2022-02-08-17:43:25,10.1.1.2,32,0.030,0.030,0.030,0.000,0.000,0.000
1644342205217645824,2022-02-08-17:43:25,10.1.1.2,21,0.040,0.040,0.040,0.000,0.000,0.000
1644342205327259136,2022-02-08-17:43:25,10.1.1.2,30,0.050,0.050,0.050,0.000,0.000,0.000
1644342205427491840,2022-02-08-17:43:25,10.1.1.2,29,0.060,0.060,0.060,0.000,0.000,0.000
1644342205538529024,2022-02-08-17:43:25,10.1.1.2,38,0.070,0.070,0.070,0.000,0.000,0.000
1644342205637408000,2022-02-08-17:43:25,10.1.1.2,37,0.080,0.080,0.080,0.000,0.000,0.000
1644342205727584000,2022-02-08-17:43:25,10.1.1.2,26,0.090,0.090,0.090,0.000,0.000,0.000
1644342205837403136,2022-02-08-17:43:25,10.1.1.2,35,0.100,0.100,0.100,0.000,0.000,0.000
1644342205927803136,2022-02-08-17:43:25,10.1.1.2,24,0.090,0.090,0.090,0.000,0.000,0.000
1644342206027709952,2022-02-08-17:43:26,10.1.1.2,23,0.080,0.080,0.080,0.000,0.000,0.000
1644342206128182784,2022-02-08-17:43:26,10.1.1.2,22,0.070,0.070,0.070,0.000,0.000,0.000
1644342206227118848,2022-02-08-17:43:26,10.1.1.2,22,0.060,0.060,0.060,0.000,0.000,0.000
1644342206337075968,2022-02-08-17:43:26,10.1.1.2,30,0.050,0.050,0.050,0.000,0.000,0.000
1644342206437398016,2022-02-08-17:43:26,10.1.1.2,29,0.040,0.040,0.040,0.000,0.000,0.000
1644342206547755008,2022-02-08-17:43:26,10.1.1.2,38,0.030,0.030,0.030,0.000,0.000,0.000
1644342206637427968,2022-02-08-17:43:26,10.1.1.2,27,0.020,0.020,0.020,0.000,0.000,0.000
1644342206757113088,2022-02-08-17:43:26,10.1.1.2,45,0.010,0.010,0.010,0.000,0.000,0.000
1644342206847138048,2022-02-08-17:43:26,10.1.1.2,33,0.000,0.000,0.000,0.000,0.000,0.000
1644342206946619136,2022-02-08-17:43:26,10.1.1.2,31,-0.010,-0.010,-0.010,0.000,0.000,0.000
1644342207058864128,2022-02-08-17:43:27,10.1.1.2,38,-0.020,-0.020,-0.020,0.000,0.000,0.000
1644342207147159040,2022-02-08-17:43:27,10.1.1.2,26,-0.030,-0.030,-0.030,0.000,0.000,0.000
1644342207257275136,2022-02-08-17:43:27,10.1.1.2,35,-0.040,-0.040,-0.040,0.000,0.000,0.000
1644342207347117056,2022-02-08-17:43:27,10.1.1.2,23,-0.050,-0.050,-0.050,0.000,0.000,0.000
1644342207447990784,2022-02-08-17:43:27,10.1.1.2,23,-0.060,-0.060,-0.060,0.000,0.000,0.000
1644342207548345088,2022-02-08-17:43:27,10.1.1.2,22,-0.070,-0.070,-0.070,0.000,0.000,0.000
1644342207646564096,2022-02-08-17:43:27,10.1.1.2,21,-0.080,-0.080,-0.080,0.000,0.000,0.000
1644342207747378944,2022-02-08-17:43:27,10.1.1.2,20,-0.090,-0.090,-0.090,0.000,0.000,0.000
1644342207856489984,2022-02-08-17:43:27,10.1.1.2,29,-0.100,-0.100,-0.100,0.000,0.000,0.000
1644342207957022976,2022-02-08-17:43:27,10.1.1.2,28,-0.090,-0.090,-0.090,0.000,0.000,0.000
1644342208067346176,2022-02-08-17:43:28,10.1.1.2,37,-0.080,-0.080,-0.080,0.000,0.000,0.000
1644342208177810944,2022-02-08-17:43:28,10.1.1.2,46,-0.070,-0.070,-0.070,0.000,0.000,0.000
1644342208277609984,2022-02-08-17:43:28,10.1.1.2,45,-0.060,-0.060,-0.060,0.000,0.000,0.000
1644342208357597184,2022-02-08-17:43:28,10.1.1.2,25,-0.050,-0.050,-0.050,0.000,0.000,0.000
1644342208467726848,2022-02-08-17:43:28,10.1.1.2,33,-0.040,-0.040,-0.040,0.000,0.000,0.000
1644342208578244864,2022-02-08-17:43:28,10.1.1.2,43,-0.030,-0.030,-0.030,0.000,0.000,0.000
1644342208666910976,2022-02-08-17:43:28,10.1.1.2,32,-0.020,-0.020,-0.020,0.000,0.000,0.000
1644342208765923072,2022-02-08-17:43:28,10.1.1.2,29,-0.010,-0.010,-0.010,0.000,0.000,0.000
1644342208876992000,2022-02-08-17:43:28,10.1.1.2,38,0.000,0.000,0.000,0.000,0.000,0.000
1644342208976923904,2022-02-08-17:43:28,10.1.1.2,38,0.010,0.010,0.010,0.000,0.000,0.000
1644342209076514048,2022-02-08-17:43:29,10.1.1.2,36,0.020,0.020,0.020,0.000,0.000,0.000
1644342209176912896,2022-02-08-17:43:29,10.1.1.2,35,0.030,0.030,0.030,0.000,0.000,0.000
1644342209268527104,2022-02-08-17:43:29,10.1.1.2,25,0.040,0.040,0.040,0.000,0.000,0.000
1644342209366686976,2022-02-08-17:43:29,10.1.1.2,23,0.050,0.050,0.050,0.000,0.000,0.000
1644342209467330816,2022-02-08-17:43:29,10.1.1.2,22,0.060,0.060,0.060,0.000,0.000,0.000
1644342209567528960,2022-02-08-17:43:29,10.1.1.2,22,0.070,0.070,0.070,0.000,0.000,0.000
1644342209668022016,2022-02-08-17:43:29,10.1.1.2,21,0.080,0.080,0.080,0.000,0.000,0.000
1644342209767693056,2022-02-08-17:43:29,10.1.1.2,20,0.090,0.090,0.090,0.000,0.000,0.000
1644342209947539200,2022-02-08-17:43:29,10.1.1.2,-3,0.090,0.090,0.090,0.000,0.000,0.000
1644342210097174784,2022-02-08-17:43:30,10.1.1.2,46,0.080,0.080,0.080,0.000,0.000,0.000
1644342210177346048,2022-02-08-17:43:30,10.1.1.2,25,0.070,0.070,0.070,0.000,0.000,0.000
1644342210298403072,2022-02-08-17:43:30,10.1.1.2,44,0.060,0.060,0.060,0.000,0.000,0.000
1644342210387376896,2022-02-08-17:43:30,10.1.1.2,33,0.050,0.050,0.050,0.000,0.000,0.000
1644342210497596928,2022-02-08-17:43:30,10.1.1.2,42,0.040,0.040,0.040,0.000,0.000,0.000
1644342210589443840,2022-02-08-17:43:30,10.1.1.2,31,0.030,0.030,0.030,0.000,0.000,0.000
1644342210686917120,2022-02-08-17:43:30,10.1.1.2,31,0.020,0.020,0.020,0.000,0.000,0.000
1644342210786727936,2022-02-08-17:43:30,10.1.1.2,30,0.010,0.010,0.010,0.000,0.000,0.000
1644342210877232128,2022-02-08-17:43:30,10.1.1.2,19,0.000,0.000,0.000,0.000,0.000,0.000
1644342210997020928,2022-02-08-17:43:30,10.1.1.2,39,-0.010,-0.010,-0.010,0.000,0.000,0.000
