FedericoMungari/DigitalTwin_service/01_WiredScenario/Output/Output_script/script_rosapi_2_output_robots4_freq0_1.txt
timestamp,date,node,latency,joint_1,joint_2,joint_3,joint_4,joint_5,joint_6
1643266330698429952,2022-01-27-06:52:10,10.1.1.2,29,-0.010,-0.010,-0.010,0.000,0.000,0.000
1643266330895566080,2022-01-27-06:52:10,10.1.1.2,28,-0.020,-0.020,-0.020,0.000,0.000,0.000
1643266331092473088,2022-01-27-06:52:11,10.1.1.2,23,-0.030,-0.030,-0.030,0.000,0.000,0.000
1643266331314046976,2022-01-27-06:52:11,10.1.1.2,44,-0.041,-0.041,-0.041,0.000,0.000,0.000
1643266331494110976,2022-01-27-06:52:11,10.1.1.2,22,-0.050,-0.050,-0.050,0.000,0.000,0.000
1643266331713548032,2022-01-27-06:52:11,10.1.1.2,39,-0.061,-0.061,-0.061,0.000,0.000,0.000
1643266331893356032,2022-01-27-06:52:11,10.1.1.2,16,-0.070,-0.070,-0.070,0.000,0.000,0.000
1643266332113419008,2022-01-27-06:52:12,10.1.1.2,35,-0.081,-0.081,-0.081,0.000,0.000,0.000
1643266332313606144,2022-01-27-06:52:12,10.1.1.2,34,-0.091,-0.091,-0.091,0.000,0.000,0.000
1643266332514362112,2022-01-27-06:52:12,10.1.1.2,34,-0.101,-0.101,-0.101,0.000,0.000,0.000
1643266332712875008,2022-01-27-06:52:12,10.1.1.2,28,-0.110,-0.110,-0.110,0.000,0.000,0.000
1643266332917721088,2022-01-27-06:52:12,10.1.1.2,30,-0.120,-0.120,-0.120,0.000,0.000,0.000
1643266333133373952,2022-01-27-06:52:13,10.1.1.2,43,-0.131,-0.131,-0.131,0.000,0.000,0.000
1643266333333096960,2022-01-27-06:52:13,10.1.1.2,39,-0.141,-0.141,-0.141,0.000,0.000,0.000
1643266333514167040,2022-01-27-06:52:13,10.1.1.2,20,-0.150,-0.150,-0.150,0.000,0.000,0.000
1643266333734672128,2022-01-27-06:52:13,10.1.1.2,37,-0.161,-0.161,-0.161,0.000,0.000,0.000
1643266333932313856,2022-01-27-06:52:13,10.1.1.2,34,-0.171,-0.171,-0.171,0.000,0.000,0.000
1643266334133169920,2022-01-27-06:52:14,10.1.1.2,34,-0.181,-0.181,-0.181,0.000,0.000,0.000
1643266334333453056,2022-01-27-06:52:14,10.1.1.2,32,-0.191,-0.191,-0.191,0.000,0.000,0.000
1643266334532310016,2022-01-27-06:52:14,10.1.1.2,28,-0.201,-0.201,-0.201,0.000,0.000,0.000
1643266334733309952,2022-01-27-06:52:14,10.1.1.2,27,-0.211,-0.211,-0.211,0.000,0.000,0.000
1643266334932503040,2022-01-27-06:52:14,10.1.1.2,23,-0.220,-0.220,-0.220,0.000,0.000,0.000
1643266335153532928,2022-01-27-06:52:15,10.1.1.2,43,-0.231,-0.231,-0.231,0.000,0.000,0.000
1643266335333368064,2022-01-27-06:52:15,10.1.1.2,21,-0.240,-0.240,-0.240,0.000,0.000,0.000
1643266335553255936,2022-01-27-06:52:15,10.1.1.2,36,-0.251,-0.251,-0.251,0.000,0.000,0.000
1643266335751916800,2022-01-27-06:52:15,10.1.1.2,29,-0.261,-0.261,-0.261,0.000,0.000,0.000
1643266335953239808,2022-01-27-06:52:15,10.1.1.2,27,-0.270,-0.270,-0.270,0.000,0.000,0.000
1643266336156993024,2022-01-27-06:52:16,10.1.1.2,28,-0.280,-0.280,-0.280,0.000,0.000,0.000
1643266336353768192,2022-01-27-06:52:16,10.1.1.2,23,-0.290,-0.290,-0.290,0.000,0.000,0.000
1643266336554157056,2022-01-27-06:52:16,10.1.1.2,20,-0.300,-0.300,-0.300,0.000,0.000,0.000
1643266336773658880,2022-01-27-06:52:16,10.1.1.2,36,-0.311,-0.311,-0.311,0.000,0.000,0.000
1643266336973916160,2022-01-27-06:52:16,10.1.1.2,35,-0.321,-0.321,-0.321,0.000,0.000,0.000
1643266337172385024,2022-01-27-06:52:17,10.1.1.2,32,-0.331,-0.331,-0.331,0.000,0.000,0.000
1643266337373552128,2022-01-27-06:52:17,10.1.1.2,32,-0.341,-0.341,-0.341,0.000,0.000,0.000
1643266337573043200,2022-01-27-06:52:17,10.1.1.2,31,-0.351,-0.351,-0.351,0.000,0.000,0.000
1643266337773381888,2022-01-27-06:52:17,10.1.1.2,30,-0.361,-0.361,-0.361,0.000,0.000,0.000
1643266337974984960,2022-01-27-06:52:17,10.1.1.2,29,-0.371,-0.371,-0.371,0.000,0.000,0.000
1643266338174034176,2022-01-27-06:52:18,10.1.1.2,27,-0.380,-0.380,-0.380,0.000,0.000,0.000
1643266338372638976,2022-01-27-06:52:18,10.1.1.2,24,-0.390,-0.390,-0.390,0.000,0.000,0.000
1643266338593692160,2022-01-27-06:52:18,10.1.1.2,44,-0.401,-0.401,-0.401,0.000,0.000,0.000
1643266338773650944,2022-01-27-06:52:18,10.1.1.2,19,-0.410,-0.410,-0.410,0.000,0.000,0.000
1643266338993473024,2022-01-27-06:52:18,10.1.1.2,36,-0.421,-0.421,-0.421,0.000,0.000,0.000
1643266339192986880,2022-01-27-06:52:19,10.1.1.2,34,-0.431,-0.431,-0.431,0.000,0.000,0.000
1643266339397481984,2022-01-27-06:52:19,10.1.1.2,37,-0.441,-0.441,-0.441,0.000,0.000,0.000
1643266339593923072,2022-01-27-06:52:19,10.1.1.2,32,-0.451,-0.451,-0.451,0.000,0.000,0.000
1643266339795278080,2022-01-27-06:52:19,10.1.1.2,33,-0.461,-0.461,-0.461,0.000,0.000,0.000
1643266339995940096,2022-01-27-06:52:19,10.1.1.2,31,-0.471,-0.471,-0.471,0.000,0.000,0.000
1643266340194503936,2022-01-27-06:52:20,10.1.1.2,29,-0.481,-0.481,-0.481,0.000,0.000,0.000
1643266340374553088,2022-01-27-06:52:20,10.1.1.2,7,-0.490,-0.490,-0.490,0.000,0.000,0.000
1643266340593377024,2022-01-27-06:52:20,10.1.1.2,23,-0.480,-0.480,-0.480,0.000,0.000,0.000
1643266340813260032,2022-01-27-06:52:20,10.1.1.2,42,-0.469,-0.469,-0.469,0.000,0.000,0.000
1643266340993044992,2022-01-27-06:52:20,10.1.1.2,19,-0.460,-0.460,-0.460,0.000,0.000,0.000
1643266341192389888,2022-01-27-06:52:21,10.1.1.2,16,-0.450,-0.450,-0.450,0.000,0.000,0.000
1643266341412507904,2022-01-27-06:52:21,10.1.1.2,35,-0.439,-0.439,-0.439,0.000,0.000,0.000
1643266341612692224,2022-01-27-06:52:21,10.1.1.2,34,-0.429,-0.429,-0.429,0.000,0.000,0.000
1643266341813874944,2022-01-27-06:52:21,10.1.1.2,35,-0.419,-0.419,-0.419,0.000,0.000,0.000
1643266342013248000,2022-01-27-06:52:22,10.1.1.2,33,-0.409,-0.409,-0.409,0.000,0.000,0.000
1643266342212897024,2022-01-27-06:52:22,10.1.1.2,32,-0.399,-0.399,-0.399,0.000,0.000,0.000
1643266342413700096,2022-01-27-06:52:22,10.1.1.2,30,-0.389,-0.389,-0.389,0.000,0.000,0.000
1643266342613377024,2022-01-27-06:52:22,10.1.1.2,28,-0.379,-0.379,-0.379,0.000,0.000,0.000
1643266342833121024,2022-01-27-06:52:22,10.1.1.2,42,-0.369,-0.369,-0.369,0.000,0.000,0.000
1643266343033186816,2022-01-27-06:52:23,10.1.1.2,31,-0.359,-0.359,-0.359,0.000,0.000,0.000
1643266343233808128,2022-01-27-06:52:23,10.1.1.2,31,-0.349,-0.349,-0.349,0.000,0.000,0.000
1643266343434220032,2022-01-27-06:52:23,10.1.1.2,28,-0.339,-0.339,-0.339,0.000,0.000,0.000
1643266343632349952,2022-01-27-06:52:23,10.1.1.2,23,-0.330,-0.330,-0.330,0.000,0.000,0.000
1643266343833723136,2022-01-27-06:52:23,10.1.1.2,24,-0.320,-0.320,-0.320,0.000,0.000,0.000
1643266344032731904,2022-01-27-06:52:24,10.1.1.2,21,-0.310,-0.310,-0.310,0.000,0.000,0.000
1643266344254342144,2022-01-27-06:52:24,10.1.1.2,41,-0.299,-0.299,-0.299,0.000,0.000,0.000
1643266344433340928,2022-01-27-06:52:24,10.1.1.2,18,-0.290,-0.290,-0.290,0.000,0.000,0.000
1643266344634397952,2022-01-27-06:52:24,10.1.1.2,19,-0.280,-0.280,-0.280,0.000,0.000,0.000
1643266344853940992,2022-01-27-06:52:24,10.1.1.2,34,-0.269,-0.269,-0.269,0.000,0.000,0.000
1643266345053338880,2022-01-27-06:52:25,10.1.1.2,33,-0.259,-0.259,-0.259,0.000,0.000,0.000
1643266345253434880,2022-01-27-06:52:25,10.1.1.2,32,-0.249,-0.249,-0.249,0.000,0.000,0.000
1643266345452507904,2022-01-27-06:52:25,10.1.1.2,30,-0.239,-0.239,-0.239,0.000,0.000,0.000
1643266345653170944,2022-01-27-06:52:25,10.1.1.2,30,-0.229,-0.229,-0.229,0.000,0.000,0.000
1643266345853337088,2022-01-27-06:52:25,10.1.1.2,29,-0.220,-0.220,-0.220,0.000,0.000,0.000
1643266346052822016,2022-01-27-06:52:26,10.1.1.2,28,-0.210,-0.210,-0.210,0.000,0.000,0.000
1643266346252091904,2022-01-27-06:52:26,10.1.1.2,23,-0.200,-0.200,-0.200,0.000,0.000,0.000
1643266346456627968,2022-01-27-06:52:26,10.1.1.2,25,-0.190,-0.190,-0.190,0.000,0.000,0.000
1643266346652473088,2022-01-27-06:52:26,10.1.1.2,21,-0.180,-0.180,-0.180,0.000,0.000,0.000
1643266346874798080,2022-01-27-06:52:26,10.1.1.2,40,-0.169,-0.169,-0.169,0.000,0.000,0.000
1643266347073549056,2022-01-27-06:52:27,10.1.1.2,36,-0.159,-0.159,-0.159,0.000,0.000,0.000
1643266347272531968,2022-01-27-06:52:27,10.1.1.2,34,-0.149,-0.149,-0.149,0.000,0.000,0.000
1643266347473629952,2022-01-27-06:52:27,10.1.1.2,34,-0.139,-0.139,-0.139,0.000,0.000,0.000
1643266347672183040,2022-01-27-06:52:27,10.1.1.2,32,-0.129,-0.129,-0.129,0.000,0.000,0.000
1643266347873264128,2022-01-27-06:52:27,10.1.1.2,31,-0.119,-0.119,-0.119,0.000,0.000,0.000
1643266348072165888,2022-01-27-06:52:28,10.1.1.2,29,-0.109,-0.109,-0.109,0.000,0.000,0.000
1643266348273176064,2022-01-27-06:52:28,10.1.1.2,29,-0.099,-0.099,-0.099,0.000,0.000,0.000
1643266348473819904,2022-01-27-06:52:28,10.1.1.2,28,-0.089,-0.089,-0.089,0.000,0.000,0.000
1643266348672818944,2022-01-27-06:52:28,10.1.1.2,23,-0.080,-0.080,-0.080,0.000,0.000,0.000
1643266348893239040,2022-01-27-06:52:28,10.1.1.2,40,-0.069,-0.069,-0.069,0.000,0.000,0.000
1643266349073154048,2022-01-27-06:52:29,10.1.1.2,18,-0.060,-0.060,-0.060,0.000,0.000,0.000
1643266349294715904,2022-01-27-06:52:29,10.1.1.2,38,-0.049,-0.049,-0.049,0.000,0.000,0.000
1643266349494051072,2022-01-27-06:52:29,10.1.1.2,36,-0.039,-0.039,-0.039,0.000,0.000,0.000
1643266349693475840,2022-01-27-06:52:29,10.1.1.2,35,-0.029,-0.029,-0.029,0.000,0.000,0.000
1643266349893850112,2022-01-27-06:52:29,10.1.1.2,34,-0.019,-0.019,-0.019,0.000,0.000,0.000
1643266350093084928,2022-01-27-06:52:30,10.1.1.2,32,-0.009,-0.009,-0.009,0.000,0.000,0.000
1643266350274162944,2022-01-27-06:52:30,10.1.1.2,12,-0.000,-0.000,-0.000,0.000,0.000,0.000
1643266350494476032,2022-01-27-06:52:30,10.1.1.2,32,-0.011,-0.011,-0.011,0.000,0.000,0.000
1643266350693677056,2022-01-27-06:52:30,10.1.1.2,30,-0.020,-0.020,-0.020,0.000,0.000,0.000
1643266350894156032,2022-01-27-06:52:30,10.1.1.2,29,-0.031,-0.031,-0.031,0.000,0.000,0.000
1643266351112952064,2022-01-27-06:52:31,10.1.1.2,44,-0.041,-0.041,-0.041,0.000,0.000,0.000
1643266351295442176,2022-01-27-06:52:31,10.1.1.2,25,-0.050,-0.050,-0.050,0.000,0.000,0.000
1643266351513037056,2022-01-27-06:52:31,10.1.1.2,40,-0.061,-0.061,-0.061,0.000,0.000,0.000
1643266351693890048,2022-01-27-06:52:31,10.1.1.2,18,-0.070,-0.070,-0.070,0.000,0.000,0.000
1643266351899090176,2022-01-27-06:52:31,10.1.1.2,21,-0.080,-0.080,-0.080,0.000,0.000,0.000
1643266352113964032,2022-01-27-06:52:32,10.1.1.2,33,-0.091,-0.091,-0.091,0.000,0.000,0.000
1643266352313554944,2022-01-27-06:52:32,10.1.1.2,32,-0.101,-0.101,-0.101,0.000,0.000,0.000
1643266352513336064,2022-01-27-06:52:32,10.1.1.2,30,-0.110,-0.110,-0.110,0.000,0.000,0.000
1643266352713562112,2022-01-27-06:52:32,10.1.1.2,28,-0.120,-0.120,-0.120,0.000,0.000,0.000
1643266352914082048,2022-01-27-06:52:32,10.1.1.2,28,-0.130,-0.130,-0.130,0.000,0.000,0.000
1643266353112055040,2022-01-27-06:52:33,10.1.1.2,25,-0.140,-0.140,-0.140,0.000,0.000,0.000
1643266353312710912,2022-01-27-06:52:33,10.1.1.2,24,-0.150,-0.150,-0.150,0.000,0.000,0.000
1643266353534584064,2022-01-27-06:52:33,10.1.1.2,44,-0.161,-0.161,-0.161,0.000,0.000,0.000
1643266353716903936,2022-01-27-06:52:33,10.1.1.2,24,-0.170,-0.170,-0.170,0.000,0.000,0.000
1643266353933153024,2022-01-27-06:52:33,10.1.1.2,38,-0.181,-0.181,-0.181,0.000,0.000,0.000
1643266354132830976,2022-01-27-06:52:34,10.1.1.2,37,-0.191,-0.191,-0.191,0.000,0.000,0.000
1643266354333204992,2022-01-27-06:52:34,10.1.1.2,36,-0.201,-0.201,-0.201,0.000,0.000,0.000
1643266354533123072,2022-01-27-06:52:34,10.1.1.2,32,-0.211,-0.211,-0.211,0.000,0.000,0.000
1643266354734112000,2022-01-27-06:52:34,10.1.1.2,33,-0.221,-0.221,-0.221,0.000,0.000,0.000
1643266354937745152,2022-01-27-06:52:34,10.1.1.2,34,-0.230,-0.230,-0.230,0.000,0.000,0.000
1643266355134170112,2022-01-27-06:52:35,10.1.1.2,30,-0.241,-0.241,-0.241,0.000,0.000,0.000
1643266355333583104,2022-01-27-06:52:35,10.1.1.2,28,-0.250,-0.250,-0.250,0.000,0.000,0.000
1643266355533931008,2022-01-27-06:52:35,10.1.1.2,26,-0.260,-0.260,-0.260,0.000,0.000,0.000
1643266355753731840,2022-01-27-06:52:35,10.1.1.2,43,-0.271,-0.271,-0.271,0.000,0.000,0.000
1643266355953236992,2022-01-27-06:52:35,10.1.1.2,42,-0.281,-0.281,-0.281,0.000,0.000,0.000
1643266356152051968,2022-01-27-06:52:36,10.1.1.2,38,-0.291,-0.291,-0.291,0.000,0.000,0.000
1643266356354216960,2022-01-27-06:52:36,10.1.1.2,40,-0.301,-0.301,-0.301,0.000,0.000,0.000
1643266356553168128,2022-01-27-06:52:36,10.1.1.2,38,-0.311,-0.311,-0.311,0.000,0.000,0.000
1643266356754236928,2022-01-27-06:52:36,10.1.1.2,36,-0.321,-0.321,-0.321,0.000,0.000,0.000
1643266356954612992,2022-01-27-06:52:36,10.1.1.2,36,-0.331,-0.331,-0.331,0.000,0.000,0.000
1643266357153315072,2022-01-27-06:52:37,10.1.1.2,34,-0.341,-0.341,-0.341,0.000,0.000,0.000
1643266357353761792,2022-01-27-06:52:37,10.1.1.2,34,-0.351,-0.351,-0.351,0.000,0.000,0.000
1643266357553600000,2022-01-27-06:52:37,10.1.1.2,33,-0.361,-0.361,-0.361,0.000,0.000,0.000
1643266357752687872,2022-01-27-06:52:37,10.1.1.2,31,-0.371,-0.371,-0.371,0.000,0.000,0.000
1643266357952260096,2022-01-27-06:52:37,10.1.1.2,28,-0.380,-0.380,-0.380,0.000,0.000,0.000
1643266358152740864,2022-01-27-06:52:38,10.1.1.2,28,-0.391,-0.391,-0.391,0.000,0.000,0.000
1643266358352737792,2022-01-27-06:52:38,10.1.1.2,26,-0.400,-0.400,-0.400,0.000,0.000,0.000
1643266358553491200,2022-01-27-06:52:38,10.1.1.2,25,-0.410,-0.410,-0.410,0.000,0.000,0.000
1643266358755851008,2022-01-27-06:52:38,10.1.1.2,27,-0.420,-0.420,-0.420,0.000,0.000,0.000
1643266358952924928,2022-01-27-06:52:38,10.1.1.2,23,-0.430,-0.430,-0.430,0.000,0.000,0.000
1643266359174038784,2022-01-27-06:52:39,10.1.1.2,43,-0.441,-0.441,-0.441,0.000,0.000,0.000
1643266359378951168,2022-01-27-06:52:39,10.1.1.2,42,-0.451,-0.451,-0.451,0.000,0.000,0.000
1643266359573060864,2022-01-27-06:52:39,10.1.1.2,38,-0.461,-0.461,-0.461,0.000,0.000,0.000
1643266359772471808,2022-01-27-06:52:39,10.1.1.2,36,-0.471,-0.471,-0.471,0.000,0.000,0.000
1643266359973911040,2022-01-27-06:52:39,10.1.1.2,36,-0.481,-0.481,-0.481,0.000,0.000,0.000
1643266360153541120,2022-01-27-06:52:40,10.1.1.2,14,-0.490,-0.490,-0.490,0.000,0.000,0.000
1643266360372450048,2022-01-27-06:52:40,10.1.1.2,32,-0.479,-0.479,-0.479,0.000,0.000,0.000
1643266360572782080,2022-01-27-06:52:40,10.1.1.2,32,-0.469,-0.469,-0.469,0.000,0.000,0.000
1643266360772404992,2022-01-27-06:52:40,10.1.1.2,30,-0.459,-0.459,-0.459,0.000,0.000,0.000
1643266360972456960,2022-01-27-06:52:40,10.1.1.2,30,-0.449,-0.449,-0.449,0.000,0.000,0.000
1643266361174267904,2022-01-27-06:52:41,10.1.1.2,31,-0.439,-0.439,-0.439,0.000,0.000,0.000
1643266361373138944,2022-01-27-06:52:41,10.1.1.2,28,-0.429,-0.429,-0.429,0.000,0.000,0.000
1643266361572995072,2022-01-27-06:52:41,10.1.1.2,25,-0.420,-0.420,-0.420,0.000,0.000,0.000
1643266361772780800,2022-01-27-06:52:41,10.1.1.2,24,-0.410,-0.410,-0.410,0.000,0.000,0.000
1643266361972948992,2022-01-27-06:52:41,10.1.1.2,23,-0.400,-0.400,-0.400,0.000,0.000,0.000
1643266362173460992,2022-01-27-06:52:42,10.1.1.2,23,-0.390,-0.390,-0.390,0.000,0.000,0.000
1643266362391889152,2022-01-27-06:52:42,10.1.1.2,37,-0.379,-0.379,-0.379,0.000,0.000,0.000
1643266362593202944,2022-01-27-06:52:42,10.1.1.2,37,-0.369,-0.369,-0.369,0.000,0.000,0.000
1643266362792110080,2022-01-27-06:52:42,10.1.1.2,35,-0.359,-0.359,-0.359,0.000,0.000,0.000
1643266362993879040,2022-01-27-06:52:42,10.1.1.2,35,-0.349,-0.349,-0.349,0.000,0.000,0.000
1643266363192611840,2022-01-27-06:52:43,10.1.1.2,33,-0.339,-0.339,-0.339,0.000,0.000,0.000
1643266363392431104,2022-01-27-06:52:43,10.1.1.2,32,-0.329,-0.329,-0.329,0.000,0.000,0.000
1643266363593513984,2022-01-27-06:52:43,10.1.1.2,31,-0.319,-0.319,-0.319,0.000,0.000,0.000
1643266363794620928,2022-01-27-06:52:43,10.1.1.2,31,-0.309,-0.309,-0.309,0.000,0.000,0.000
1643266363997089024,2022-01-27-06:52:43,10.1.1.2,31,-0.299,-0.299,-0.299,0.000,0.000,0.000
1643266364192587008,2022-01-27-06:52:44,10.1.1.2,26,-0.290,-0.290,-0.290,0.000,0.000,0.000
1643266364394278912,2022-01-27-06:52:44,10.1.1.2,27,-0.280,-0.280,-0.280,0.000,0.000,0.000
1643266364615385088,2022-01-27-06:52:44,10.1.1.2,46,-0.269,-0.269,-0.269,0.000,0.000,0.000
1643266364794227968,2022-01-27-06:52:44,10.1.1.2,23,-0.260,-0.260,-0.260,0.000,0.000,0.000
1643266365013379072,2022-01-27-06:52:45,10.1.1.2,42,-0.249,-0.249,-0.249,0.000,0.000,0.000
1643266365214898944,2022-01-27-06:52:45,10.1.1.2,42,-0.239,-0.239,-0.239,0.000,0.000,0.000
1643266365416099072,2022-01-27-06:52:45,10.1.1.2,42,-0.229,-0.229,-0.229,0.000,0.000,0.000
1643266365613195776,2022-01-27-06:52:45,10.1.1.2,38,-0.219,-0.219,-0.219,0.000,0.000,0.000
1643266365812602880,2022-01-27-06:52:45,10.1.1.2,36,-0.209,-0.209,-0.209,0.000,0.000,0.000
1643266366013032960,2022-01-27-06:52:46,10.1.1.2,35,-0.199,-0.199,-0.199,0.000,0.000,0.000
1643266366214971904,2022-01-27-06:52:46,10.1.1.2,36,-0.189,-0.189,-0.189,0.000,0.000,0.000
1643266366413296896,2022-01-27-06:52:46,10.1.1.2,33,-0.179,-0.179,-0.179,0.000,0.000,0.000
1643266366614204928,2022-01-27-06:52:46,10.1.1.2,32,-0.170,-0.170,-0.170,0.000,0.000,0.000
1643266366812892928,2022-01-27-06:52:46,10.1.1.2,30,-0.159,-0.159,-0.159,0.000,0.000,0.000
1643266367014040832,2022-01-27-06:52:47,10.1.1.2,30,-0.149,-0.149,-0.149,0.000,0.000,0.000
1643266367213690112,2022-01-27-06:52:47,10.1.1.2,29,-0.139,-0.139,-0.139,0.000,0.000,0.000
1643266367413155072,2022-01-27-06:52:47,10.1.1.2,27,-0.130,-0.130,-0.130,0.000,0.000,0.000
1643266367614842880,2022-01-27-06:52:47,10.1.1.2,27,-0.120,-0.120,-0.120,0.000,0.000,0.000
1643266367815735040,2022-01-27-06:52:47,10.1.1.2,26,-0.110,-0.110,-0.110,0.000,0.000,0.000
1643266368014204928,2022-01-27-06:52:48,10.1.1.2,24,-0.100,-0.100,-0.100,0.000,0.000,0.000
1643266368214521856,2022-01-27-06:52:48,10.1.1.2,22,-0.090,-0.090,-0.090,0.000,0.000,0.000
1643266368414167040,2022-01-27-06:52:48,10.1.1.2,20,-0.080,-0.080,-0.080,0.000,0.000,0.000
1643266368634646784,2022-01-27-06:52:48,10.1.1.2,38,-0.069,-0.069,-0.069,0.000,0.000,0.000
1643266368834723840,2022-01-27-06:52:48,10.1.1.2,37,-0.059,-0.059,-0.059,0.000,0.000,0.000
1643266369034148096,2022-01-27-06:52:49,10.1.1.2,35,-0.049,-0.049,-0.049,0.000,0.000,0.000
1643266369233294080,2022-01-27-06:52:49,10.1.1.2,34,-0.039,-0.039,-0.039,0.000,0.000,0.000
1643266369433800960,2022-01-27-06:52:49,10.1.1.2,31,-0.029,-0.029,-0.029,0.000,0.000,0.000
1643266369634198784,2022-01-27-06:52:49,10.1.1.2,31,-0.019,-0.019,-0.019,0.000,0.000,0.000
1643266369834137856,2022-01-27-06:52:49,10.1.1.2,30,-0.009,-0.009,-0.009,0.000,0.000,0.000
1643266370014456064,2022-01-27-06:52:50,10.1.1.2,9,-0.000,-0.000,-0.000,0.000,0.000,0.000
1643266370233187072,2022-01-27-06:52:50,10.1.1.2,27,-0.010,-0.010,-0.010,0.000,0.000,0.000
1643266370433108992,2022-01-27-06:52:50,10.1.1.2,25,-0.020,-0.020,-0.020,0.000,0.000,0.000
1643266370632908032,2022-01-27-06:52:50,10.1.1.2,24,-0.030,-0.030,-0.030,0.000,0.000,0.000
1643266370832889088,2022-01-27-06:52:50,10.1.1.2,23,-0.040,-0.040,-0.040,0.000,0.000,0.000
1643266371052928000,2022-01-27-06:52:51,10.1.1.2,42,-0.051,-0.051,-0.051,0.000,0.000,0.000
1643266371233043968,2022-01-27-06:52:51,10.1.1.2,21,-0.060,-0.060,-0.060,0.000,0.000,0.000
1643266371432980992,2022-01-27-06:52:51,10.1.1.2,20,-0.070,-0.070,-0.070,0.000,0.000,0.000
1643266371632651008,2022-01-27-06:52:51,10.1.1.2,19,-0.080,-0.080,-0.080,0.000,0.000,0.000
1643266371832186880,2022-01-27-06:52:51,10.1.1.2,16,-0.090,-0.090,-0.090,0.000,0.000,0.000
1643266372032419840,2022-01-27-06:52:52,10.1.1.2,16,-0.100,-0.100,-0.100,0.000,0.000,0.000
1643266372252587008,2022-01-27-06:52:52,10.1.1.2,36,-0.111,-0.111,-0.111,0.000,0.000,0.000
1643266372452750848,2022-01-27-06:52:52,10.1.1.2,35,-0.121,-0.121,-0.121,0.000,0.000,0.000
1643266372653458176,2022-01-27-06:52:52,10.1.1.2,34,-0.131,-0.131,-0.131,0.000,0.000,0.000
1643266372853719040,2022-01-27-06:52:52,10.1.1.2,34,-0.141,-0.141,-0.141,0.000,0.000,0.000
1643266373052719104,2022-01-27-06:52:53,10.1.1.2,32,-0.151,-0.151,-0.151,0.000,0.000,0.000
1643266373252916224,2022-01-27-06:52:53,10.1.1.2,31,-0.161,-0.161,-0.161,0.000,0.000,0.000
1643266373452887040,2022-01-27-06:52:53,10.1.1.2,31,-0.171,-0.171,-0.171,0.000,0.000,0.000
1643266373652539904,2022-01-27-06:52:53,10.1.1.2,30,-0.181,-0.181,-0.181,0.000,0.000,0.000
1643266373853228032,2022-01-27-06:52:53,10.1.1.2,29,-0.191,-0.191,-0.191,0.000,0.000,0.000
1643266374052957952,2022-01-27-06:52:54,10.1.1.2,28,-0.201,-0.201,-0.201,0.000,0.000,0.000
1643266374273016832,2022-01-27-06:52:54,10.1.1.2,47,-0.211,-0.211,-0.211,0.000,0.000,0.000
1643266374474625024,2022-01-27-06:52:54,10.1.1.2,43,-0.221,-0.221,-0.221,0.000,0.000,0.000
1643266374655617024,2022-01-27-06:52:54,10.1.1.2,23,-0.230,-0.230,-0.230,0.000,0.000,0.000
1643266374872384000,2022-01-27-06:52:54,10.1.1.2,38,-0.241,-0.241,-0.241,0.000,0.000,0.000
1643266375054364928,2022-01-27-06:52:55,10.1.1.2,18,-0.250,-0.250,-0.250,0.000,0.000,0.000
1643266375272990976,2022-01-27-06:52:55,10.1.1.2,36,-0.261,-0.261,-0.261,0.000,0.000,0.000
1643266375472502016,2022-01-27-06:52:55,10.1.1.2,35,-0.271,-0.271,-0.271,0.000,0.000,0.000
1643266375673044992,2022-01-27-06:52:55,10.1.1.2,35,-0.281,-0.281,-0.281,0.000,0.000,0.000
1643266375873567232,2022-01-27-06:52:55,10.1.1.2,35,-0.291,-0.291,-0.291,0.000,0.000,0.000
1643266376073741056,2022-01-27-06:52:56,10.1.1.2,33,-0.301,-0.301,-0.301,0.000,0.000,0.000
1643266376273658880,2022-01-27-06:52:56,10.1.1.2,32,-0.311,-0.311,-0.311,0.000,0.000,0.000
1643266376473268992,2022-01-27-06:52:56,10.1.1.2,29,-0.321,-0.321,-0.321,0.000,0.000,0.000
1643266376693377024,2022-01-27-06:52:56,10.1.1.2,43,-0.331,-0.331,-0.331,0.000,0.000,0.000
1643266376873804032,2022-01-27-06:52:56,10.1.1.2,22,-0.340,-0.340,-0.340,0.000,0.000,0.000
1643266377072779776,2022-01-27-06:52:57,10.1.1.2,18,-0.350,-0.350,-0.350,0.000,0.000,0.000
1643266377273432064,2022-01-27-06:52:57,10.1.1.2,17,-0.360,-0.360,-0.360,0.000,0.000,0.000
1643266377492954112,2022-01-27-06:52:57,10.1.1.2,36,-0.371,-0.371,-0.371,0.000,0.000,0.000
1643266377693114880,2022-01-27-06:52:57,10.1.1.2,34,-0.381,-0.381,-0.381,0.000,0.000,0.000
1643266377892378112,2022-01-27-06:52:57,10.1.1.2,33,-0.391,-0.391,-0.391,0.000,0.000,0.000
1643266378092755968,2022-01-27-06:52:58,10.1.1.2,32,-0.401,-0.401,-0.401,0.000,0.000,0.000
1643266378293615104,2022-01-27-06:52:58,10.1.1.2,31,-0.411,-0.411,-0.411,0.000,0.000,0.000
1643266378492947200,2022-01-27-06:52:58,10.1.1.2,30,-0.421,-0.421,-0.421,0.000,0.000,0.000
1643266378693153024,2022-01-27-06:52:58,10.1.1.2,29,-0.431,-0.431,-0.431,0.000,0.000,0.000
1643266378894469888,2022-01-27-06:52:58,10.1.1.2,30,-0.440,-0.440,-0.440,0.000,0.000,0.000
1643266379093748992,2022-01-27-06:52:59,10.1.1.2,28,-0.450,-0.450,-0.450,0.000,0.000,0.000
1643266379297241088,2022-01-27-06:52:59,10.1.1.2,31,-0.461,-0.461,-0.461,0.000,0.000,0.000
1643266379513271040,2022-01-27-06:52:59,10.1.1.2,44,-0.471,-0.471,-0.471,0.000,0.000,0.000
1643266379713747968,2022-01-27-06:52:59,10.1.1.2,43,-0.481,-0.481,-0.481,0.000,0.000,0.000
1643266379874160128,2022-01-27-06:52:59,10.1.1.2,2,-0.489,-0.489,-0.489,0.000,0.000,0.000
1643266380093833984,2022-01-27-06:53:00,10.1.1.2,21,-0.480,-0.480,-0.480,0.000,0.000,0.000
1643266380315484928,2022-01-27-06:53:00,10.1.1.2,41,-0.469,-0.469,-0.469,0.000,0.000,0.000
1643266380514748160,2022-01-27-06:53:00,10.1.1.2,38,-0.459,-0.459,-0.459,0.000,0.000,0.000
1643266380693327872,2022-01-27-06:53:00,10.1.1.2,17,-0.450,-0.450,-0.450,0.000,0.000,0.000
1643266380914684160,2022-01-27-06:53:00,10.1.1.2,35,-0.439,-0.439,-0.439,0.000,0.000,0.000
1643266381113964032,2022-01-27-06:53:01,10.1.1.2,32,-0.429,-0.429,-0.429,0.000,0.000,0.000
1643266381313075968,2022-01-27-06:53:01,10.1.1.2,30,-0.419,-0.419,-0.419,0.000,0.000,0.000
1643266381514223104,2022-01-27-06:53:01,10.1.1.2,30,-0.409,-0.409,-0.409,0.000,0.000,0.000
1643266381714040064,2022-01-27-06:53:01,10.1.1.2,25,-0.400,-0.400,-0.400,0.000,0.000,0.000
1643266381914288128,2022-01-27-06:53:01,10.1.1.2,25,-0.390,-0.390,-0.390,0.000,0.000,0.000
1643266382133506048,2022-01-27-06:53:02,10.1.1.2,43,-0.379,-0.379,-0.379,0.000,0.000,0.000
1643266382313860864,2022-01-27-06:53:02,10.1.1.2,23,-0.370,-0.370,-0.370,0.000,0.000,0.000
1643266382533137920,2022-01-27-06:53:02,10.1.1.2,40,-0.359,-0.359,-0.359,0.000,0.000,0.000
1643266382714298880,2022-01-27-06:53:02,10.1.1.2,19,-0.350,-0.350,-0.350,0.000,0.000,0.000
1643266382933317888,2022-01-27-06:53:02,10.1.1.2,37,-0.339,-0.339,-0.339,0.000,0.000,0.000
1643266383133721088,2022-01-27-06:53:03,10.1.1.2,36,-0.329,-0.329,-0.329,0.000,0.000,0.000
1643266383333171968,2022-01-27-06:53:03,10.1.1.2,34,-0.319,-0.319,-0.319,0.000,0.000,0.000
1643266383532845056,2022-01-27-06:53:03,10.1.1.2,33,-0.309,-0.309,-0.309,0.000,0.000,0.000
1643266383733839104,2022-01-27-06:53:03,10.1.1.2,33,-0.299,-0.299,-0.299,0.000,0.000,0.000
1643266383933804032,2022-01-27-06:53:03,10.1.1.2,32,-0.289,-0.289,-0.289,0.000,0.000,0.000
1643266384132622848,2022-01-27-06:53:04,10.1.1.2,30,-0.279,-0.279,-0.279,0.000,0.000,0.000
1643266384347467008,2022-01-27-06:53:04,10.1.1.2,44,-0.269,-0.269,-0.269,0.000,0.000,0.000
1643266384532987136,2022-01-27-06:53:04,10.1.1.2,29,-0.259,-0.259,-0.259,0.000,0.000,0.000
1643266384733053952,2022-01-27-06:53:04,10.1.1.2,29,-0.250,-0.250,-0.250,0.000,0.000,0.000
1643266384937593088,2022-01-27-06:53:04,10.1.1.2,31,-0.240,-0.240,-0.240,0.000,0.000,0.000
1643266385140965888,2022-01-27-06:53:05,10.1.1.2,32,-0.230,-0.230,-0.230,0.000,0.000,0.000
1643266385336956928,2022-01-27-06:53:05,10.1.1.2,27,-0.219,-0.219,-0.219,0.000,0.000,0.000
1643266385535533056,2022-01-27-06:53:05,10.1.1.2,24,-0.210,-0.210,-0.210,0.000,0.000,0.000
1643266385736084992,2022-01-27-06:53:05,10.1.1.2,20,-0.200,-0.200,-0.200,0.000,0.000,0.000
1643266385954971904,2022-01-27-06:53:05,10.1.1.2,38,-0.190,-0.190,-0.190,0.000,0.000,0.000
1643266386152591104,2022-01-27-06:53:06,10.1.1.2,33,-0.179,-0.179,-0.179,0.000,0.000,0.000
1643266386351691008,2022-01-27-06:53:06,10.1.1.2,31,-0.169,-0.169,-0.169,0.000,0.000,0.000
1643266386552632064,2022-01-27-06:53:06,10.1.1.2,32,-0.159,-0.159,-0.159,0.000,0.000,0.000
1643266386752460032,2022-01-27-06:53:06,10.1.1.2,31,-0.149,-0.149,-0.149,0.000,0.000,0.000
1643266386952097024,2022-01-27-06:53:06,10.1.1.2,30,-0.139,-0.139,-0.139,0.000,0.000,0.000
1643266387151937024,2022-01-27-06:53:07,10.1.1.2,26,-0.129,-0.129,-0.129,0.000,0.000,0.000
1643266387352715008,2022-01-27-06:53:07,10.1.1.2,26,-0.120,-0.120,-0.120,0.000,0.000,0.000
1643266387554400000,2022-01-27-06:53:07,10.1.1.2,27,-0.110,-0.110,-0.110,0.000,0.000,0.000
1643266387760392960,2022-01-27-06:53:07,10.1.1.2,30,-0.100,-0.100,-0.100,0.000,0.000,0.000
1643266387958321152,2022-01-27-06:53:07,10.1.1.2,20,-0.090,-0.090,-0.090,0.000,0.000,0.000
1643266388176305152,2022-01-27-06:53:08,10.1.1.2,37,-0.079,-0.079,-0.079,0.000,0.000,0.000
1643266388374144000,2022-01-27-06:53:08,10.1.1.2,34,-0.070,-0.070,-0.070,0.000,0.000,0.000
1643266388574044928,2022-01-27-06:53:08,10.1.1.2,33,-0.059,-0.059,-0.059,0.000,0.000,0.000
1643266388772339968,2022-01-27-06:53:08,10.1.1.2,30,-0.049,-0.049,-0.049,0.000,0.000,0.000
1643266388972585984,2022-01-27-06:53:08,10.1.1.2,30,-0.039,-0.039,-0.039,0.000,0.000,0.000
1643266389173480960,2022-01-27-06:53:09,10.1.1.2,29,-0.029,-0.029,-0.029,0.000,0.000,0.000
1643266389373289216,2022-01-27-06:53:09,10.1.1.2,27,-0.020,-0.020,-0.020,0.000,0.000,0.000
1643266389579947008,2022-01-27-06:53:09,10.1.1.2,31,-0.010,-0.010,-0.010,0.000,0.000,0.000
1643266389754110208,2022-01-27-06:53:09,10.1.1.2,5,-0.001,-0.001,-0.001,0.000,0.000,0.000
1643266389976158976,2022-01-27-06:53:09,10.1.1.2,26,-0.010,-0.010,-0.010,0.000,0.000,0.000
1643266390196509952,2022-01-27-06:53:10,10.1.1.2,43,-0.021,-0.021,-0.021,0.000,0.000,0.000
1643266390375403008,2022-01-27-06:53:10,10.1.1.2,21,-0.030,-0.030,-0.030,0.000,0.000,0.000
1643266390593349888,2022-01-27-06:53:10,10.1.1.2,29,-0.041,-0.041,-0.041,0.000,0.000,0.000
1643266390792418048,2022-01-27-06:53:10,10.1.1.2,27,-0.051,-0.051,-0.051,0.000,0.000,0.000
1643266390992090880,2022-01-27-06:53:10,10.1.1.2,26,-0.060,-0.060,-0.060,0.000,0.000,0.000
1643266391193137920,2022-01-27-06:53:11,10.1.1.2,27,-0.070,-0.070,-0.070,0.000,0.000,0.000
1643266391393979136,2022-01-27-06:53:11,10.1.1.2,27,-0.080,-0.080,-0.080,0.000,0.000,0.000
1643266391595897856,2022-01-27-06:53:11,10.1.1.2,27,-0.090,-0.090,-0.090,0.000,0.000,0.000
1643266391797390848,2022-01-27-06:53:11,10.1.1.2,28,-0.100,-0.100,-0.100,0.000,0.000,0.000
1643266391992638976,2022-01-27-06:53:11,10.1.1.2,23,-0.110,-0.110,-0.110,0.000,0.000,0.000
1643266392195319808,2022-01-27-06:53:12,10.1.1.2,25,-0.120,-0.120,-0.120,0.000,0.000,0.000
1643266392416850944,2022-01-27-06:53:12,10.1.1.2,44,-0.131,-0.131,-0.131,0.000,0.000,0.000
1643266392592474880,2022-01-27-06:53:12,10.1.1.2,20,-0.140,-0.140,-0.140,0.000,0.000,0.000
1643266392793692160,2022-01-27-06:53:12,10.1.1.2,20,-0.150,-0.150,-0.150,0.000,0.000,0.000
1643266393032773120,2022-01-27-06:53:13,10.1.1.2,38,-0.161,-0.161,-0.161,0.000,0.000,0.000
1643266393214055936,2022-01-27-06:53:13,10.1.1.2,19,-0.170,-0.170,-0.170,0.000,0.000,0.000
1643266393433646848,2022-01-27-06:53:13,10.1.1.2,36,-0.181,-0.181,-0.181,0.000,0.000,0.000
1643266393633698816,2022-01-27-06:53:13,10.1.1.2,35,-0.191,-0.191,-0.191,0.000,0.000,0.000
1643266393834187008,2022-01-27-06:53:13,10.1.1.2,34,-0.201,-0.201,-0.201,0.000,0.000,0.000
1643266394033596928,2022-01-27-06:53:14,10.1.1.2,34,-0.211,-0.211,-0.211,0.000,0.000,0.000
1643266394233702912,2022-01-27-06:53:14,10.1.1.2,33,-0.221,-0.221,-0.221,0.000,0.000,0.000
1643266394433197056,2022-01-27-06:53:14,10.1.1.2,32,-0.231,-0.231,-0.231,0.000,0.000,0.000
1643266394633410048,2022-01-27-06:53:14,10.1.1.2,31,-0.241,-0.241,-0.241,0.000,0.000,0.000
1643266394833659904,2022-01-27-06:53:14,10.1.1.2,30,-0.251,-0.251,-0.251,0.000,0.000,0.000
1643266395032919808,2022-01-27-06:53:15,10.1.1.2,25,-0.260,-0.260,-0.260,0.000,0.000,0.000
1643266395233460992,2022-01-27-06:53:15,10.1.1.2,24,-0.270,-0.270,-0.270,0.000,0.000,0.000
1643266395434022912,2022-01-27-06:53:15,10.1.1.2,23,-0.280,-0.280,-0.280,0.000,0.000,0.000
1643266395634233088,2022-01-27-06:53:15,10.1.1.2,21,-0.290,-0.290,-0.290,0.000,0.000,0.000
1643266395833709056,2022-01-27-06:53:15,10.1.1.2,19,-0.300,-0.300,-0.300,0.000,0.000,0.000
1643266396034398976,2022-01-27-06:53:16,10.1.1.2,19,-0.310,-0.310,-0.310,0.000,0.000,0.000
1643266396254818816,2022-01-27-06:53:16,10.1.1.2,37,-0.321,-0.321,-0.321,0.000,0.000,0.000
1643266396453940992,2022-01-27-06:53:16,10.1.1.2,34,-0.331,-0.331,-0.331,0.000,0.000,0.000
1643266396653528832,2022-01-27-06:53:16,10.1.1.2,32,-0.341,-0.341,-0.341,0.000,0.000,0.000
1643266396852973824,2022-01-27-06:53:16,10.1.1.2,31,-0.350,-0.350,-0.350,0.000,0.000,0.000
1643266397053477120,2022-01-27-06:53:17,10.1.1.2,30,-0.361,-0.361,-0.361,0.000,0.000,0.000
1643266397253262080,2022-01-27-06:53:17,10.1.1.2,28,-0.371,-0.371,-0.371,0.000,0.000,0.000
1643266397453427200,2022-01-27-06:53:17,10.1.1.2,26,-0.380,-0.380,-0.380,0.000,0.000,0.000
1643266397657788928,2022-01-27-06:53:17,10.1.1.2,27,-0.390,-0.390,-0.390,0.000,0.000,0.000
1643266397857594880,2022-01-27-06:53:17,10.1.1.2,25,-0.400,-0.400,-0.400,0.000,0.000,0.000
1643266398076008192,2022-01-27-06:53:18,10.1.1.2,39,-0.411,-0.411,-0.411,0.000,0.000,0.000
1643266398275286016,2022-01-27-06:53:18,10.1.1.2,37,-0.421,-0.421,-0.421,0.000,0.000,0.000
1643266398473859072,2022-01-27-06:53:18,10.1.1.2,31,-0.430,-0.430,-0.430,0.000,0.000,0.000
1643266398674385920,2022-01-27-06:53:18,10.1.1.2,29,-0.440,-0.440,-0.440,0.000,0.000,0.000
1643266398874119936,2022-01-27-06:53:18,10.1.1.2,27,-0.450,-0.450,-0.450,0.000,0.000,0.000
1643266399073720064,2022-01-27-06:53:19,10.1.1.2,24,-0.460,-0.460,-0.460,0.000,0.000,0.000
1643266399272998144,2022-01-27-06:53:19,10.1.1.2,23,-0.470,-0.470,-0.470,0.000,0.000,0.000
1643266399494070016,2022-01-27-06:53:19,10.1.1.2,43,-0.481,-0.481,-0.481,0.000,0.000,0.000
1643266399654082048,2022-01-27-06:53:19,10.1.1.2,2,-0.489,-0.489,-0.489,0.000,0.000,0.000
1643266399893716224,2022-01-27-06:53:19,10.1.1.2,40,-0.479,-0.479,-0.479,0.000,0.000,0.000
1643266400095060224,2022-01-27-06:53:20,10.1.1.2,40,-0.469,-0.469,-0.469,0.000,0.000,0.000
1643266400294351104,2022-01-27-06:53:20,10.1.1.2,39,-0.459,-0.459,-0.459,0.000,0.000,0.000
1643266400495230976,2022-01-27-06:53:20,10.1.1.2,38,-0.449,-0.449,-0.449,0.000,0.000,0.000
1643266400692875008,2022-01-27-06:53:20,10.1.1.2,32,-0.439,-0.439,-0.439,0.000,0.000,0.000
1643266400892489984,2022-01-27-06:53:20,10.1.1.2,31,-0.429,-0.429,-0.429,0.000,0.000,0.000
1643266401093063168,2022-01-27-06:53:21,10.1.1.2,31,-0.419,-0.419,-0.419,0.000,0.000,0.000
1643266401293843968,2022-01-27-06:53:21,10.1.1.2,30,-0.409,-0.409,-0.409,0.000,0.000,0.000
1643266401497410048,2022-01-27-06:53:21,10.1.1.2,32,-0.400,-0.400,-0.400,0.000,0.000,0.000
1643266401715368960,2022-01-27-06:53:21,10.1.1.2,43,-0.389,-0.389,-0.389,0.000,0.000,0.000
1643266401894941184,2022-01-27-06:53:21,10.1.1.2,21,-0.380,-0.380,-0.380,0.000,0.000,0.000
1643266402114176000,2022-01-27-06:53:22,10.1.1.2,39,-0.369,-0.369,-0.369,0.000,0.000,0.000
1643266402312961024,2022-01-27-06:53:22,10.1.1.2,36,-0.359,-0.359,-0.359,0.000,0.000,0.000
1643266402512912896,2022-01-27-06:53:22,10.1.1.2,36,-0.349,-0.349,-0.349,0.000,0.000,0.000
1643266402714011904,2022-01-27-06:53:22,10.1.1.2,36,-0.339,-0.339,-0.339,0.000,0.000,0.000
1643266402913033984,2022-01-27-06:53:22,10.1.1.2,34,-0.329,-0.329,-0.329,0.000,0.000,0.000
1643266403113081088,2022-01-27-06:53:23,10.1.1.2,33,-0.319,-0.319,-0.319,0.000,0.000,0.000
1643266403313216000,2022-01-27-06:53:23,10.1.1.2,33,-0.309,-0.309,-0.309,0.000,0.000,0.000
1643266403516171008,2022-01-27-06:53:23,10.1.1.2,35,-0.299,-0.299,-0.299,0.000,0.000,0.000
1643266403716231936,2022-01-27-06:53:23,10.1.1.2,32,-0.289,-0.289,-0.289,0.000,0.000,0.000
1643266403914630912,2022-01-27-06:53:23,10.1.1.2,31,-0.279,-0.279,-0.279,0.000,0.000,0.000
1643266404114705920,2022-01-27-06:53:24,10.1.1.2,30,-0.270,-0.270,-0.270,0.000,0.000,0.000
1643266404314800128,2022-01-27-06:53:24,10.1.1.2,29,-0.260,-0.260,-0.260,0.000,0.000,0.000
1643266404514328832,2022-01-27-06:53:24,10.1.1.2,27,-0.250,-0.250,-0.250,0.000,0.000,0.000
1643266404714010112,2022-01-27-06:53:24,10.1.1.2,26,-0.240,-0.240,-0.240,0.000,0.000,0.000
1643266404914750976,2022-01-27-06:53:24,10.1.1.2,25,-0.230,-0.230,-0.230,0.000,0.000,0.000
1643266405113758976,2022-01-27-06:53:25,10.1.1.2,24,-0.220,-0.220,-0.220,0.000,0.000,0.000
1643266405314985984,2022-01-27-06:53:25,10.1.1.2,24,-0.210,-0.210,-0.210,0.000,0.000,0.000
1643266405513809920,2022-01-27-06:53:25,10.1.1.2,22,-0.200,-0.200,-0.200,0.000,0.000,0.000
1643266405715037952,2022-01-27-06:53:25,10.1.1.2,21,-0.190,-0.190,-0.190,0.000,0.000,0.000
1643266405895175936,2022-01-27-06:53:25,10.1.1.2,-1,-0.181,-0.181,-0.181,0.000,0.000,0.000
1643266406113348864,2022-01-27-06:53:26,10.1.1.2,17,-0.170,-0.170,-0.170,0.000,0.000,0.000
1643266406335069952,2022-01-27-06:53:26,10.1.1.2,39,-0.159,-0.159,-0.159,0.000,0.000,0.000
1643266406539726848,2022-01-27-06:53:26,10.1.1.2,41,-0.149,-0.149,-0.149,0.000,0.000,0.000
1643266406735560960,2022-01-27-06:53:26,10.1.1.2,37,-0.139,-0.139,-0.139,0.000,0.000,0.000
1643266406939228160,2022-01-27-06:53:26,10.1.1.2,39,-0.129,-0.129,-0.129,0.000,0.000,0.000
1643266407135257856,2022-01-27-06:53:27,10.1.1.2,34,-0.119,-0.119,-0.119,0.000,0.000,0.000
1643266407334789888,2022-01-27-06:53:27,10.1.1.2,33,-0.109,-0.109,-0.109,0.000,0.000,0.000
1643266407534509824,2022-01-27-06:53:27,10.1.1.2,32,-0.099,-0.099,-0.099,0.000,0.000,0.000
1643266407734456064,2022-01-27-06:53:27,10.1.1.2,31,-0.089,-0.089,-0.089,0.000,0.000,0.000
1643266407934237952,2022-01-27-06:53:27,10.1.1.2,30,-0.079,-0.079,-0.079,0.000,0.000,0.000
1643266408134257152,2022-01-27-06:53:28,10.1.1.2,29,-0.070,-0.070,-0.070,0.000,0.000,0.000
1643266408332897024,2022-01-27-06:53:28,10.1.1.2,27,-0.059,-0.059,-0.059,0.000,0.000,0.000
1643266408533152000,2022-01-27-06:53:28,10.1.1.2,26,-0.050,-0.050,-0.050,0.000,0.000,0.000
1643266408733946112,2022-01-27-06:53:28,10.1.1.2,25,-0.040,-0.040,-0.040,0.000,0.000,0.000
1643266408933796864,2022-01-27-06:53:28,10.1.1.2,23,-0.030,-0.030,-0.030,0.000,0.000,0.000
1643266409134159104,2022-01-27-06:53:29,10.1.1.2,22,-0.020,-0.020,-0.020,0.000,0.000,0.000
1643266409352737024,2022-01-27-06:53:29,10.1.1.2,40,-0.009,-0.009,-0.009,0.000,0.000,0.000
1643266409515803136,2022-01-27-06:53:29,10.1.1.2,1,-0.001,-0.001,-0.001,0.000,0.000,0.000
1643266409734235904,2022-01-27-06:53:29,10.1.1.2,19,-0.010,-0.010,-0.010,0.000,0.000,0.000
1643266409953564928,2022-01-27-06:53:29,10.1.1.2,37,-0.021,-0.021,-0.021,0.000,0.000,0.000
1643266410152875776,2022-01-27-06:53:30,10.1.1.2,35,-0.031,-0.031,-0.031,0.000,0.000,0.000
1643266410356785920,2022-01-27-06:53:30,10.1.1.2,38,-0.041,-0.041,-0.041,0.000,0.000,0.000
1643266410553137920,2022-01-27-06:53:30,10.1.1.2,33,-0.051,-0.051,-0.051,0.000,0.000,0.000
1643266410754048000,2022-01-27-06:53:30,10.1.1.2,33,-0.061,-0.061,-0.061,0.000,0.000,0.000
1643266410953232128,2022-01-27-06:53:30,10.1.1.2,32,-0.071,-0.071,-0.071,0.000,0.000,0.000
1643266411154087168,2022-01-27-06:53:31,10.1.1.2,32,-0.081,-0.081,-0.081,0.000,0.000,0.000
1643266411354255872,2022-01-27-06:53:31,10.1.1.2,31,-0.091,-0.091,-0.091,0.000,0.000,0.000
1643266411553184000,2022-01-27-06:53:31,10.1.1.2,30,-0.101,-0.101,-0.101,0.000,0.000,0.000
1643266411753287936,2022-01-27-06:53:31,10.1.1.2,29,-0.110,-0.110,-0.110,0.000,0.000,0.000
1643266411953097216,2022-01-27-06:53:31,10.1.1.2,28,-0.121,-0.121,-0.121,0.000,0.000,0.000
1643266412153278976,2022-01-27-06:53:32,10.1.1.2,27,-0.130,-0.130,-0.130,0.000,0.000,0.000
1643266412353477888,2022-01-27-06:53:32,10.1.1.2,26,-0.140,-0.140,-0.140,0.000,0.000,0.000
1643266412553451008,2022-01-27-06:53:32,10.1.1.2,24,-0.150,-0.150,-0.150,0.000,0.000,0.000
1643266412753803008,2022-01-27-06:53:32,10.1.1.2,24,-0.160,-0.160,-0.160,0.000,0.000,0.000
1643266412953675008,2022-01-27-06:53:32,10.1.1.2,23,-0.170,-0.170,-0.170,0.000,0.000,0.000
1643266413153592064,2022-01-27-06:53:33,10.1.1.2,22,-0.180,-0.180,-0.180,0.000,0.000,0.000
1643266413372545024,2022-01-27-06:53:33,10.1.1.2,39,-0.191,-0.191,-0.191,0.000,0.000,0.000
1643266413573906944,2022-01-27-06:53:33,10.1.1.2,40,-0.201,-0.201,-0.201,0.000,0.000,0.000
1643266413773255168,2022-01-27-06:53:33,10.1.1.2,29,-0.211,-0.211,-0.211,0.000,0.000,0.000
1643266413976381952,2022-01-27-06:53:33,10.1.1.2,29,-0.221,-0.221,-0.221,0.000,0.000,0.000
1643266414175751936,2022-01-27-06:53:34,10.1.1.2,29,-0.230,-0.230,-0.230,0.000,0.000,0.000
1643266414375654912,2022-01-27-06:53:34,10.1.1.2,26,-0.240,-0.240,-0.240,0.000,0.000,0.000
1643266414573808896,2022-01-27-06:53:34,10.1.1.2,23,-0.250,-0.250,-0.250,0.000,0.000,0.000
1643266414773814016,2022-01-27-06:53:34,10.1.1.2,22,-0.260,-0.260,-0.260,0.000,0.000,0.000
1643266414994496000,2022-01-27-06:53:34,10.1.1.2,38,-0.271,-0.271,-0.271,0.000,0.000,0.000
1643266415194142208,2022-01-27-06:53:35,10.1.1.2,37,-0.281,-0.281,-0.281,0.000,0.000,0.000
1643266415393872896,2022-01-27-06:53:35,10.1.1.2,32,-0.291,-0.291,-0.291,0.000,0.000,0.000
1643266415594288128,2022-01-27-06:53:35,10.1.1.2,30,-0.301,-0.301,-0.301,0.000,0.000,0.000
1643266415815031040,2022-01-27-06:53:35,10.1.1.2,43,-0.311,-0.311,-0.311,0.000,0.000,0.000
1643266415995670016,2022-01-27-06:53:35,10.1.1.2,20,-0.320,-0.320,-0.320,0.000,0.000,0.000
1643266416214277120,2022-01-27-06:53:36,10.1.1.2,35,-0.331,-0.331,-0.331,0.000,0.000,0.000
1643266416414258944,2022-01-27-06:53:36,10.1.1.2,31,-0.341,-0.341,-0.341,0.000,0.000,0.000
1643266416614651904,2022-01-27-06:53:36,10.1.1.2,29,-0.351,-0.351,-0.351,0.000,0.000,0.000
1643266416814126080,2022-01-27-06:53:36,10.1.1.2,28,-0.360,-0.360,-0.360,0.000,0.000,0.000
1643266417033633024,2022-01-27-06:53:37,10.1.1.2,42,-0.371,-0.371,-0.371,0.000,0.000,0.000
1643266417233634048,2022-01-27-06:53:37,10.1.1.2,41,-0.381,-0.381,-0.381,0.000,0.000,0.000
1643266417415627008,2022-01-27-06:53:37,10.1.1.2,19,-0.390,-0.390,-0.390,0.000,0.000,0.000
1643266417633856000,2022-01-27-06:53:37,10.1.1.2,37,-0.401,-0.401,-0.401,0.000,0.000,0.000
1643266417833925120,2022-01-27-06:53:37,10.1.1.2,36,-0.411,-0.411,-0.411,0.000,0.000,0.000
1643266418035397120,2022-01-27-06:53:38,10.1.1.2,36,-0.421,-0.421,-0.421,0.000,0.000,0.000
1643266418234810112,2022-01-27-06:53:38,10.1.1.2,34,-0.431,-0.431,-0.431,0.000,0.000,0.000
1643266418434041088,2022-01-27-06:53:38,10.1.1.2,32,-0.441,-0.441,-0.441,0.000,0.000,0.000
1643266418634434816,2022-01-27-06:53:38,10.1.1.2,31,-0.450,-0.450,-0.450,0.000,0.000,0.000
1643266418833612032,2022-01-27-06:53:38,10.1.1.2,25,-0.460,-0.460,-0.460,0.000,0.000,0.000
1643266419035799040,2022-01-27-06:53:39,10.1.1.2,25,-0.470,-0.470,-0.470,0.000,0.000,0.000
1643266419255571968,2022-01-27-06:53:39,10.1.1.2,42,-0.481,-0.481,-0.481,0.000,0.000,0.000
1643266419418018048,2022-01-27-06:53:39,10.1.1.2,1,-0.489,-0.489,-0.489,0.000,0.000,0.000
1643266419653489152,2022-01-27-06:53:39,10.1.1.2,34,-0.479,-0.479,-0.479,0.000,0.000,0.000
1643266419854136832,2022-01-27-06:53:39,10.1.1.2,33,-0.469,-0.469,-0.469,0.000,0.000,0.000
1643266420053746944,2022-01-27-06:53:40,10.1.1.2,31,-0.459,-0.459,-0.459,0.000,0.000,0.000
1643266420253895168,2022-01-27-06:53:40,10.1.1.2,29,-0.449,-0.449,-0.449,0.000,0.000,0.000
1643266420453771008,2022-01-27-06:53:40,10.1.1.2,28,-0.440,-0.440,-0.440,0.000,0.000,0.000
1643266420654046976,2022-01-27-06:53:40,10.1.1.2,27,-0.430,-0.430,-0.430,0.000,0.000,0.000
1643266420874288128,2022-01-27-06:53:40,10.1.1.2,40,-0.419,-0.419,-0.419,0.000,0.000,0.000
1643266421054573056,2022-01-27-06:53:41,10.1.1.2,20,-0.410,-0.410,-0.410,0.000,0.000,0.000
1643266421273197824,2022-01-27-06:53:41,10.1.1.2,37,-0.399,-0.399,-0.399,0.000,0.000,0.000
1643266421473716992,2022-01-27-06:53:41,10.1.1.2,36,-0.389,-0.389,-0.389,0.000,0.000,0.000
1643266421673154048,2022-01-27-06:53:41,10.1.1.2,35,-0.379,-0.379,-0.379,0.000,0.000,0.000
1643266421876517888,2022-01-27-06:53:41,10.1.1.2,37,-0.369,-0.369,-0.369,0.000,0.000,0.000
1643266422073890048,2022-01-27-06:53:42,10.1.1.2,32,-0.360,-0.360,-0.360,0.000,0.000,0.000
1643266422274451968,2022-01-27-06:53:42,10.1.1.2,33,-0.350,-0.350,-0.350,0.000,0.000,0.000
1643266422474080000,2022-01-27-06:53:42,10.1.1.2,32,-0.339,-0.339,-0.339,0.000,0.000,0.000
1643266422672894976,2022-01-27-06:53:42,10.1.1.2,30,-0.329,-0.329,-0.329,0.000,0.000,0.000
1643266422880150016,2022-01-27-06:53:42,10.1.1.2,36,-0.319,-0.319,-0.319,0.000,0.000,0.000
1643266423074161920,2022-01-27-06:53:43,10.1.1.2,29,-0.310,-0.310,-0.310,0.000,0.000,0.000
1643266423273511936,2022-01-27-06:53:43,10.1.1.2,25,-0.300,-0.300,-0.300,0.000,0.000,0.000
1643266423477216000,2022-01-27-06:53:43,10.1.1.2,28,-0.290,-0.290,-0.290,0.000,0.000,0.000
1643266423673562112,2022-01-27-06:53:43,10.1.1.2,24,-0.280,-0.280,-0.280,0.000,0.000,0.000
1643266423893719040,2022-01-27-06:53:43,10.1.1.2,43,-0.269,-0.269,-0.269,0.000,0.000,0.000
1643266424073304064,2022-01-27-06:53:44,10.1.1.2,22,-0.260,-0.260,-0.260,0.000,0.000,0.000
1643266424273392896,2022-01-27-06:53:44,10.1.1.2,21,-0.250,-0.250,-0.250,0.000,0.000,0.000
1643266424472899840,2022-01-27-06:53:44,10.1.1.2,19,-0.240,-0.240,-0.240,0.000,0.000,0.000
1643266424693468928,2022-01-27-06:53:44,10.1.1.2,39,-0.229,-0.229,-0.229,0.000,0.000,0.000
1643266424895176960,2022-01-27-06:53:44,10.1.1.2,39,-0.219,-0.219,-0.219,0.000,0.000,0.000
1643266425094589952,2022-01-27-06:53:45,10.1.1.2,37,-0.209,-0.209,-0.209,0.000,0.000,0.000
1643266425297672960,2022-01-27-06:53:45,10.1.1.2,39,-0.199,-0.199,-0.199,0.000,0.000,0.000
1643266425492662016,2022-01-27-06:53:45,10.1.1.2,33,-0.189,-0.189,-0.189,0.000,0.000,0.000
1643266425693821952,2022-01-27-06:53:45,10.1.1.2,32,-0.179,-0.179,-0.179,0.000,0.000,0.000
1643266425892697088,2022-01-27-06:53:45,10.1.1.2,30,-0.169,-0.169,-0.169,0.000,0.000,0.000
1643266426093797888,2022-01-27-06:53:46,10.1.1.2,29,-0.159,-0.159,-0.159,0.000,0.000,0.000
1643266426293499904,2022-01-27-06:53:46,10.1.1.2,28,-0.150,-0.150,-0.150,0.000,0.000,0.000
1643266426494374144,2022-01-27-06:53:46,10.1.1.2,24,-0.140,-0.140,-0.140,0.000,0.000,0.000
1643266426692982016,2022-01-27-06:53:46,10.1.1.2,23,-0.130,-0.130,-0.130,0.000,0.000,0.000
1643266426893112832,2022-01-27-06:53:46,10.1.1.2,22,-0.120,-0.120,-0.120,0.000,0.000,0.000
1643266427093147904,2022-01-27-06:53:47,10.1.1.2,20,-0.110,-0.110,-0.110,0.000,0.000,0.000
1643266427293773056,2022-01-27-06:53:47,10.1.1.2,19,-0.100,-0.100,-0.100,0.000,0.000,0.000
1643266427492475904,2022-01-27-06:53:47,10.1.1.2,16,-0.090,-0.090,-0.090,0.000,0.000,0.000
1643266427694529024,2022-01-27-06:53:47,10.1.1.2,18,-0.080,-0.080,-0.080,0.000,0.000,0.000
1643266427916423936,2022-01-27-06:53:47,10.1.1.2,37,-0.069,-0.069,-0.069,0.000,0.000,0.000
1643266428117278208,2022-01-27-06:53:48,10.1.1.2,36,-0.059,-0.059,-0.059,0.000,0.000,0.000
1643266428312902912,2022-01-27-06:53:48,10.1.1.2,29,-0.049,-0.049,-0.049,0.000,0.000,0.000
1643266428513202944,2022-01-27-06:53:48,10.1.1.2,29,-0.039,-0.039,-0.039,0.000,0.000,0.000
1643266428713233920,2022-01-27-06:53:48,10.1.1.2,28,-0.029,-0.029,-0.029,0.000,0.000,0.000
1643266428913285888,2022-01-27-06:53:48,10.1.1.2,27,-0.020,-0.020,-0.020,0.000,0.000,0.000
1643266429113251840,2022-01-27-06:53:49,10.1.1.2,27,-0.010,-0.010,-0.010,0.000,0.000,0.000
1643266429293236992,2022-01-27-06:53:49,10.1.1.2,6,-0.001,-0.001,-0.001,0.000,0.000,0.000
1643266429512770816,2022-01-27-06:53:49,10.1.1.2,24,-0.010,-0.010,-0.010,0.000,0.000,0.000
1643266429712739072,2022-01-27-06:53:49,10.1.1.2,23,-0.020,-0.020,-0.020,0.000,0.000,0.000
1643266429912649984,2022-01-27-06:53:49,10.1.1.2,22,-0.030,-0.030,-0.030,0.000,0.000,0.000
1643266430112302080,2022-01-27-06:53:50,10.1.1.2,21,-0.040,-0.040,-0.040,0.000,0.000,0.000
1643266430332984832,2022-01-27-06:53:50,10.1.1.2,41,-0.051,-0.051,-0.051,0.000,0.000,0.000
1643266430532815872,2022-01-27-06:53:50,10.1.1.2,39,-0.061,-0.061,-0.061,0.000,0.000,0.000
1643266430712841984,2022-01-27-06:53:50,10.1.1.2,18,-0.070,-0.070,-0.070,0.000,0.000,0.000
1643266430913244928,2022-01-27-06:53:50,10.1.1.2,18,-0.080,-0.080,-0.080,0.000,0.000,0.000
1643266431115486976,2022-01-27-06:53:51,10.1.1.2,20,-0.090,-0.090,-0.090,0.000,0.000,0.000
1643266431314493952,2022-01-27-06:53:51,10.1.1.2,18,-0.100,-0.100,-0.100,0.000,0.000,0.000
1643266431537494784,2022-01-27-06:53:51,10.1.1.2,37,-0.111,-0.111,-0.111,0.000,0.000,0.000
1643266431734055936,2022-01-27-06:53:51,10.1.1.2,34,-0.121,-0.121,-0.121,0.000,0.000,0.000
1643266431933552128,2022-01-27-06:53:51,10.1.1.2,32,-0.131,-0.131,-0.131,0.000,0.000,0.000
1643266432133389824,2022-01-27-06:53:52,10.1.1.2,32,-0.141,-0.141,-0.141,0.000,0.000,0.000
1643266432334091008,2022-01-27-06:53:52,10.1.1.2,31,-0.151,-0.151,-0.151,0.000,0.000,0.000
1643266432533566976,2022-01-27-06:53:52,10.1.1.2,30,-0.161,-0.161,-0.161,0.000,0.000,0.000
1643266432734347008,2022-01-27-06:53:52,10.1.1.2,29,-0.170,-0.170,-0.170,0.000,0.000,0.000
1643266432936642048,2022-01-27-06:53:52,10.1.1.2,30,-0.180,-0.180,-0.180,0.000,0.000,0.000
1643266433134160128,2022-01-27-06:53:53,10.1.1.2,27,-0.190,-0.190,-0.190,0.000,0.000,0.000
1643266433333314048,2022-01-27-06:53:53,10.1.1.2,24,-0.200,-0.200,-0.200,0.000,0.000,0.000
1643266433534123008,2022-01-27-06:53:53,10.1.1.2,24,-0.210,-0.210,-0.210,0.000,0.000,0.000
1643266433753487104,2022-01-27-06:53:53,10.1.1.2,43,-0.221,-0.221,-0.221,0.000,0.000,0.000
1643266433953892864,2022-01-27-06:53:53,10.1.1.2,42,-0.231,-0.231,-0.231,0.000,0.000,0.000
1643266434133317120,2022-01-27-06:53:54,10.1.1.2,21,-0.240,-0.240,-0.240,0.000,0.000,0.000
1643266434333828096,2022-01-27-06:53:54,10.1.1.2,20,-0.250,-0.250,-0.250,0.000,0.000,0.000
1643266434534207232,2022-01-27-06:53:54,10.1.1.2,18,-0.260,-0.260,-0.260,0.000,0.000,0.000
1643266434754391808,2022-01-27-06:53:54,10.1.1.2,38,-0.271,-0.271,-0.271,0.000,0.000,0.000
1643266434955804160,2022-01-27-06:53:54,10.1.1.2,38,-0.281,-0.281,-0.281,0.000,0.000,0.000
1643266435154870016,2022-01-27-06:53:55,10.1.1.2,36,-0.291,-0.291,-0.291,0.000,0.000,0.000
1643266435354320128,2022-01-27-06:53:55,10.1.1.2,35,-0.301,-0.301,-0.301,0.000,0.000,0.000
1643266435557022208,2022-01-27-06:53:55,10.1.1.2,36,-0.311,-0.311,-0.311,0.000,0.000,0.000
1643266435753686016,2022-01-27-06:53:55,10.1.1.2,32,-0.321,-0.321,-0.321,0.000,0.000,0.000
1643266435953273088,2022-01-27-06:53:55,10.1.1.2,31,-0.330,-0.330,-0.330,0.000,0.000,0.000
1643266436152969984,2022-01-27-06:53:56,10.1.1.2,30,-0.341,-0.341,-0.341,0.000,0.000,0.000
1643266436353270016,2022-01-27-06:53:56,10.1.1.2,29,-0.351,-0.351,-0.351,0.000,0.000,0.000
1643266436553488128,2022-01-27-06:53:56,10.1.1.2,28,-0.360,-0.360,-0.360,0.000,0.000,0.000
1643266436753325056,2022-01-27-06:53:56,10.1.1.2,26,-0.370,-0.370,-0.370,0.000,0.000,0.000
1643266436953481984,2022-01-27-06:53:56,10.1.1.2,25,-0.380,-0.380,-0.380,0.000,0.000,0.000
1643266437154462208,2022-01-27-06:53:57,10.1.1.2,24,-0.390,-0.390,-0.390,0.000,0.000,0.000
1643266437353074176,2022-01-27-06:53:57,10.1.1.2,23,-0.400,-0.400,-0.400,0.000,0.000,0.000
1643266437572305920,2022-01-27-06:53:57,10.1.1.2,41,-0.411,-0.411,-0.411,0.000,0.000,0.000
1643266437752548864,2022-01-27-06:53:57,10.1.1.2,20,-0.420,-0.420,-0.420,0.000,0.000,0.000
1643266437953991936,2022-01-27-06:53:57,10.1.1.2,21,-0.430,-0.430,-0.430,0.000,0.000,0.000
1643266438173082112,2022-01-27-06:53:58,10.1.1.2,39,-0.441,-0.441,-0.441,0.000,0.000,0.000
1643266438373531136,2022-01-27-06:53:58,10.1.1.2,37,-0.451,-0.451,-0.451,0.000,0.000,0.000
1643266438572876032,2022-01-27-06:53:58,10.1.1.2,36,-0.461,-0.461,-0.461,0.000,0.000,0.000
1643266438772721920,2022-01-27-06:53:58,10.1.1.2,35,-0.471,-0.471,-0.471,0.000,0.000,0.000
1643266438973416960,2022-01-27-06:53:58,10.1.1.2,34,-0.481,-0.481,-0.481,0.000,0.000,0.000
1643266439153306112,2022-01-27-06:53:59,10.1.1.2,14,-0.490,-0.490,-0.490,0.000,0.000,0.000
1643266439373651968,2022-01-27-06:53:59,10.1.1.2,33,-0.479,-0.479,-0.479,0.000,0.000,0.000
1643266439574073088,2022-01-27-06:53:59,10.1.1.2,32,-0.469,-0.469,-0.469,0.000,0.000,0.000
1643266439773971968,2022-01-27-06:53:59,10.1.1.2,31,-0.460,-0.460,-0.460,0.000,0.000,0.000
1643266439974780160,2022-01-27-06:53:59,10.1.1.2,30,-0.449,-0.449,-0.449,0.000,0.000,0.000
1643266440173844992,2022-01-27-06:54:00,10.1.1.2,25,-0.440,-0.440,-0.440,0.000,0.000,0.000
1643266440375823872,2022-01-27-06:54:00,10.1.1.2,26,-0.430,-0.430,-0.430,0.000,0.000,0.000
1643266440573550848,2022-01-27-06:54:00,10.1.1.2,23,-0.420,-0.420,-0.420,0.000,0.000,0.000
1643266440773856000,2022-01-27-06:54:00,10.1.1.2,22,-0.410,-0.410,-0.410,0.000,0.000,0.000
1643266440993320960,2022-01-27-06:54:00,10.1.1.2,40,-0.399,-0.399,-0.399,0.000,0.000,0.000
1643266441192754944,2022-01-27-06:54:01,10.1.1.2,39,-0.389,-0.389,-0.389,0.000,0.000,0.000
1643266441392761856,2022-01-27-06:54:01,10.1.1.2,38,-0.379,-0.379,-0.379,0.000,0.000,0.000
1643266441572583936,2022-01-27-06:54:01,10.1.1.2,17,-0.370,-0.370,-0.370,0.000,0.000,0.000
1643266441792809984,2022-01-27-06:54:01,10.1.1.2,36,-0.359,-0.359,-0.359,0.000,0.000,0.000
1643266441993160960,2022-01-27-06:54:01,10.1.1.2,37,-0.349,-0.349,-0.349,0.000,0.000,0.000
1643266442192944896,2022-01-27-06:54:02,10.1.1.2,36,-0.339,-0.339,-0.339,0.000,0.000,0.000
1643266442393297920,2022-01-27-06:54:02,10.1.1.2,36,-0.329,-0.329,-0.329,0.000,0.000,0.000
1643266442593636096,2022-01-27-06:54:02,10.1.1.2,35,-0.319,-0.319,-0.319,0.000,0.000,0.000
1643266442793064192,2022-01-27-06:54:02,10.1.1.2,33,-0.309,-0.309,-0.309,0.000,0.000,0.000
1643266442993266944,2022-01-27-06:54:02,10.1.1.2,33,-0.299,-0.299,-0.299,0.000,0.000,0.000
1643266443192856064,2022-01-27-06:54:03,10.1.1.2,32,-0.289,-0.289,-0.289,0.000,0.000,0.000
1643266443393170176,2022-01-27-06:54:03,10.1.1.2,31,-0.279,-0.279,-0.279,0.000,0.000,0.000
1643266443593883136,2022-01-27-06:54:03,10.1.1.2,31,-0.269,-0.269,-0.269,0.000,0.000,0.000
1643266443797656064,2022-01-27-06:54:03,10.1.1.2,34,-0.259,-0.259,-0.259,0.000,0.000,0.000
1643266443992369920,2022-01-27-06:54:03,10.1.1.2,26,-0.250,-0.250,-0.250,0.000,0.000,0.000
1643266444192421888,2022-01-27-06:54:04,10.1.1.2,25,-0.240,-0.240,-0.240,0.000,0.000,0.000
1643266444392681984,2022-01-27-06:54:04,10.1.1.2,24,-0.230,-0.230,-0.230,0.000,0.000,0.000
1643266444591970048,2022-01-27-06:54:04,10.1.1.2,23,-0.220,-0.220,-0.220,0.000,0.000,0.000
1643266444792130048,2022-01-27-06:54:04,10.1.1.2,22,-0.210,-0.210,-0.210,0.000,0.000,0.000
1643266444993485056,2022-01-27-06:54:04,10.1.1.2,23,-0.200,-0.200,-0.200,0.000,0.000,0.000
1643266445192580096,2022-01-27-06:54:05,10.1.1.2,22,-0.190,-0.190,-0.190,0.000,0.000,0.000
1643266445413219072,2022-01-27-06:54:05,10.1.1.2,42,-0.179,-0.179,-0.179,0.000,0.000,0.000
1643266445615238912,2022-01-27-06:54:05,10.1.1.2,43,-0.169,-0.169,-0.169,0.000,0.000,0.000
1643266445812922880,2022-01-27-06:54:05,10.1.1.2,39,-0.159,-0.159,-0.159,0.000,0.000,0.000
1643266445993200128,2022-01-27-06:54:05,10.1.1.2,19,-0.150,-0.150,-0.150,0.000,0.000,0.000
1643266446213871872,2022-01-27-06:54:06,10.1.1.2,38,-0.139,-0.139,-0.139,0.000,0.000,0.000
1643266446394490880,2022-01-27-06:54:06,10.1.1.2,18,-0.130,-0.130,-0.130,0.000,0.000,0.000
1643266446613058048,2022-01-27-06:54:06,10.1.1.2,36,-0.119,-0.119,-0.119,0.000,0.000,0.000
1643266446813916928,2022-01-27-06:54:06,10.1.1.2,35,-0.109,-0.109,-0.109,0.000,0.000,0.000
1643266447016478976,2022-01-27-06:54:07,10.1.1.2,37,-0.099,-0.099,-0.099,0.000,0.000,0.000
1643266447214263808,2022-01-27-06:54:07,10.1.1.2,34,-0.089,-0.089,-0.089,0.000,0.000,0.000
1643266447415352064,2022-01-27-06:54:07,10.1.1.2,33,-0.079,-0.079,-0.079,0.000,0.000,0.000
1643266447614249984,2022-01-27-06:54:07,10.1.1.2,31,-0.069,-0.069,-0.069,0.000,0.000,0.000
1643266447814793984,2022-01-27-06:54:07,10.1.1.2,30,-0.059,-0.059,-0.059,0.000,0.000,0.000
1643266448013863936,2022-01-27-06:54:08,10.1.1.2,29,-0.049,-0.049,-0.049,0.000,0.000,0.000
1643266448214093056,2022-01-27-06:54:08,10.1.1.2,27,-0.039,-0.039,-0.039,0.000,0.000,0.000
1643266448415649792,2022-01-27-06:54:08,10.1.1.2,29,-0.030,-0.030,-0.030,0.000,0.000,0.000
1643266448614073088,2022-01-27-06:54:08,10.1.1.2,26,-0.020,-0.020,-0.020,0.000,0.000,0.000
1643266448813894912,2022-01-27-06:54:08,10.1.1.2,24,-0.010,-0.010,-0.010,0.000,0.000,0.000
1643266448994985216,2022-01-27-06:54:08,10.1.1.2,4,-0.001,-0.001,-0.001,0.000,0.000,0.000
1643266449234256128,2022-01-27-06:54:09,10.1.1.2,43,-0.011,-0.011,-0.011,0.000,0.000,0.000
1643266449412844032,2022-01-27-06:54:09,10.1.1.2,20,-0.020,-0.020,-0.020,0.000,0.000,0.000
1643266449613952000,2022-01-27-06:54:09,10.1.1.2,19,-0.030,-0.030,-0.030,0.000,0.000,0.000
1643266449834027008,2022-01-27-06:54:09,10.1.1.2,39,-0.041,-0.041,-0.041,0.000,0.000,0.000
1643266450035568896,2022-01-27-06:54:10,10.1.1.2,40,-0.051,-0.051,-0.051,0.000,0.000,0.000
1643266450240421888,2022-01-27-06:54:10,10.1.1.2,39,-0.061,-0.061,-0.061,0.000,0.000,0.000
1643266450434493952,2022-01-27-06:54:10,10.1.1.2,37,-0.071,-0.071,-0.071,0.000,0.000,0.000
1643266450638461952,2022-01-27-06:54:10,10.1.1.2,39,-0.081,-0.081,-0.081,0.000,0.000,0.000
1643266450833411840,2022-01-27-06:54:10,10.1.1.2,34,-0.091,-0.091,-0.091,0.000,0.000,0.000
1643266451034210816,2022-01-27-06:54:11,10.1.1.2,32,-0.101,-0.101,-0.101,0.000,0.000,0.000
1643266451234107904,2022-01-27-06:54:11,10.1.1.2,30,-0.110,-0.110,-0.110,0.000,0.000,0.000
1643266451435225856,2022-01-27-06:54:11,10.1.1.2,28,-0.120,-0.120,-0.120,0.000,0.000,0.000
1643266451634483968,2022-01-27-06:54:11,10.1.1.2,25,-0.130,-0.130,-0.130,0.000,0.000,0.000
1643266451854522880,2022-01-27-06:54:11,10.1.1.2,44,-0.141,-0.141,-0.141,0.000,0.000,0.000
1643266452034034944,2022-01-27-06:54:12,10.1.1.2,22,-0.150,-0.150,-0.150,0.000,0.000,0.000
1643266452233612032,2022-01-27-06:54:12,10.1.1.2,18,-0.160,-0.160,-0.160,0.000,0.000,0.000
1643266452436546048,2022-01-27-06:54:12,10.1.1.2,20,-0.170,-0.170,-0.170,0.000,0.000,0.000
1643266452654580224,2022-01-27-06:54:12,10.1.1.2,38,-0.181,-0.181,-0.181,0.000,0.000,0.000
1643266452852904192,2022-01-27-06:54:12,10.1.1.2,35,-0.191,-0.191,-0.191,0.000,0.000,0.000
1643266453053611008,2022-01-27-06:54:13,10.1.1.2,35,-0.201,-0.201,-0.201,0.000,0.000,0.000
1643266453253218048,2022-01-27-06:54:13,10.1.1.2,33,-0.211,-0.211,-0.211,0.000,0.000,0.000
1643266453453870080,2022-01-27-06:54:13,10.1.1.2,33,-0.221,-0.221,-0.221,0.000,0.000,0.000
1643266453653428992,2022-01-27-06:54:13,10.1.1.2,31,-0.231,-0.231,-0.231,0.000,0.000,0.000
1643266453855710976,2022-01-27-06:54:13,10.1.1.2,33,-0.241,-0.241,-0.241,0.000,0.000,0.000
1643266454053947904,2022-01-27-06:54:14,10.1.1.2,30,-0.251,-0.251,-0.251,0.000,0.000,0.000
1643266454253143040,2022-01-27-06:54:14,10.1.1.2,28,-0.260,-0.260,-0.260,0.000,0.000,0.000
1643266454452855040,2022-01-27-06:54:14,10.1.1.2,25,-0.270,-0.270,-0.270,0.000,0.000,0.000
1643266454653101056,2022-01-27-06:54:14,10.1.1.2,24,-0.280,-0.280,-0.280,0.000,0.000,0.000
1643266454874964992,2022-01-27-06:54:14,10.1.1.2,45,-0.291,-0.291,-0.291,0.000,0.000,0.000
1643266455054304000,2022-01-27-06:54:15,10.1.1.2,23,-0.300,-0.300,-0.300,0.000,0.000,0.000
1643266455277161984,2022-01-27-06:54:15,10.1.1.2,43,-0.311,-0.311,-0.311,0.000,0.000,0.000
1643266455452745984,2022-01-27-06:54:15,10.1.1.2,18,-0.320,-0.320,-0.320,0.000,0.000,0.000
1643266455653664000,2022-01-27-06:54:15,10.1.1.2,18,-0.330,-0.330,-0.330,0.000,0.000,0.000
1643266455872876032,2022-01-27-06:54:15,10.1.1.2,36,-0.341,-0.341,-0.341,0.000,0.000,0.000
1643266456072995840,2022-01-27-06:54:16,10.1.1.2,35,-0.351,-0.351,-0.351,0.000,0.000,0.000
1643266456273528064,2022-01-27-06:54:16,10.1.1.2,34,-0.361,-0.361,-0.361,0.000,0.000,0.000
1643266456473093120,2022-01-27-06:54:16,10.1.1.2,32,-0.371,-0.371,-0.371,0.000,0.000,0.000
1643266456673688832,2022-01-27-06:54:16,10.1.1.2,32,-0.381,-0.381,-0.381,0.000,0.000,0.000
1643266456873532160,2022-01-27-06:54:16,10.1.1.2,30,-0.391,-0.391,-0.391,0.000,0.000,0.000
1643266457073221888,2022-01-27-06:54:17,10.1.1.2,29,-0.401,-0.401,-0.401,0.000,0.000,0.000
1643266457273614848,2022-01-27-06:54:17,10.1.1.2,28,-0.410,-0.410,-0.410,0.000,0.000,0.000
1643266457474004992,2022-01-27-06:54:17,10.1.1.2,28,-0.420,-0.420,-0.420,0.000,0.000,0.000
1643266457672944896,2022-01-27-06:54:17,10.1.1.2,25,-0.430,-0.430,-0.430,0.000,0.000,0.000
1643266457873907968,2022-01-27-06:54:17,10.1.1.2,24,-0.440,-0.440,-0.440,0.000,0.000,0.000
1643266458092974848,2022-01-27-06:54:18,10.1.1.2,41,-0.451,-0.451,-0.451,0.000,0.000,0.000
1643266458294579968,2022-01-27-06:54:18,10.1.1.2,42,-0.461,-0.461,-0.461,0.000,0.000,0.000
1643266458474142976,2022-01-27-06:54:18,10.1.1.2,20,-0.470,-0.470,-0.470,0.000,0.000,0.000
1643266458695409920,2022-01-27-06:54:18,10.1.1.2,39,-0.481,-0.481,-0.481,0.000,0.000,0.000
1643266458892901888,2022-01-27-06:54:18,10.1.1.2,35,-0.489,-0.489,-0.489,0.000,0.000,0.000
1643266459094227200,2022-01-27-06:54:19,10.1.1.2,35,-0.479,-0.479,-0.479,0.000,0.000,0.000
1643266459292610816,2022-01-27-06:54:19,10.1.1.2,32,-0.469,-0.469,-0.469,0.000,0.000,0.000
1643266459493079040,2022-01-27-06:54:19,10.1.1.2,31,-0.459,-0.459,-0.459,0.000,0.000,0.000
1643266459694961152,2022-01-27-06:54:19,10.1.1.2,31,-0.449,-0.449,-0.449,0.000,0.000,0.000
1643266459893861888,2022-01-27-06:54:19,10.1.1.2,28,-0.439,-0.439,-0.439,0.000,0.000,0.000
1643266460093339904,2022-01-27-06:54:20,10.1.1.2,28,-0.429,-0.429,-0.429,0.000,0.000,0.000
1643266460293773824,2022-01-27-06:54:20,10.1.1.2,27,-0.420,-0.420,-0.420,0.000,0.000,0.000
1643266460493540096,2022-01-27-06:54:20,10.1.1.2,26,-0.410,-0.410,-0.410,0.000,0.000,0.000
1643266460693491968,2022-01-27-06:54:20,10.1.1.2,25,-0.400,-0.400,-0.400,0.000,0.000,0.000
1643266460892666112,2022-01-27-06:54:20,10.1.1.2,23,-0.390,-0.390,-0.390,0.000,0.000,0.000
1643266461093827072,2022-01-27-06:54:21,10.1.1.2,24,-0.380,-0.380,-0.380,0.000,0.000,0.000
1643266461294292992,2022-01-27-06:54:21,10.1.1.2,24,-0.370,-0.370,-0.370,0.000,0.000,0.000
1643266461512748032,2022-01-27-06:54:21,10.1.1.2,41,-0.359,-0.359,-0.359,0.000,0.000,0.000
1643266461714859008,2022-01-27-06:54:21,10.1.1.2,42,-0.349,-0.349,-0.349,0.000,0.000,0.000
1643266461914726144,2022-01-27-06:54:21,10.1.1.2,41,-0.339,-0.339,-0.339,0.000,0.000,0.000
1643266462114415872,2022-01-27-06:54:22,10.1.1.2,39,-0.329,-0.329,-0.329,0.000,0.000,0.000
1643266462313956096,2022-01-27-06:54:22,10.1.1.2,37,-0.319,-0.319,-0.319,0.000,0.000,0.000
1643266462514184960,2022-01-27-06:54:22,10.1.1.2,34,-0.309,-0.309,-0.309,0.000,0.000,0.000
1643266462715115008,2022-01-27-06:54:22,10.1.1.2,34,-0.299,-0.299,-0.299,0.000,0.000,0.000
1643266462918256128,2022-01-27-06:54:22,10.1.1.2,36,-0.289,-0.289,-0.289,0.000,0.000,0.000
1643266463114039040,2022-01-27-06:54:23,10.1.1.2,31,-0.279,-0.279,-0.279,0.000,0.000,0.000
1643266463314283008,2022-01-27-06:54:23,10.1.1.2,30,-0.269,-0.269,-0.269,0.000,0.000,0.000
1643266463514141952,2022-01-27-06:54:23,10.1.1.2,29,-0.259,-0.259,-0.259,0.000,0.000,0.000
1643266463714061056,2022-01-27-06:54:23,10.1.1.2,28,-0.250,-0.250,-0.250,0.000,0.000,0.000
1643266463915358976,2022-01-27-06:54:23,10.1.1.2,28,-0.240,-0.240,-0.240,0.000,0.000,0.000
1643266464114074112,2022-01-27-06:54:24,10.1.1.2,25,-0.230,-0.230,-0.230,0.000,0.000,0.000
1643266464314241024,2022-01-27-06:54:24,10.1.1.2,24,-0.220,-0.220,-0.220,0.000,0.000,0.000
1643266464513846016,2022-01-27-06:54:24,10.1.1.2,23,-0.210,-0.210,-0.210,0.000,0.000,0.000
1643266464714171904,2022-01-27-06:54:24,10.1.1.2,22,-0.200,-0.200,-0.200,0.000,0.000,0.000
1643266464936029952,2022-01-27-06:54:24,10.1.1.2,42,-0.189,-0.189,-0.189,0.000,0.000,0.000
1643266465113619200,2022-01-27-06:54:25,10.1.1.2,18,-0.180,-0.180,-0.180,0.000,0.000,0.000
1643266465333569024,2022-01-27-06:54:25,10.1.1.2,37,-0.169,-0.169,-0.169,0.000,0.000,0.000
1643266465534571008,2022-01-27-06:54:25,10.1.1.2,36,-0.159,-0.159,-0.159,0.000,0.000,0.000
1643266465735138048,2022-01-27-06:54:25,10.1.1.2,37,-0.149,-0.149,-0.149,0.000,0.000,0.000
1643266465933830912,2022-01-27-06:54:25,10.1.1.2,34,-0.139,-0.139,-0.139,0.000,0.000,0.000
1643266466132761856,2022-01-27-06:54:26,10.1.1.2,32,-0.129,-0.129,-0.129,0.000,0.000,0.000
1643266466333283072,2022-01-27-06:54:26,10.1.1.2,31,-0.120,-0.120,-0.120,0.000,0.000,0.000
1643266466534849792,2022-01-27-06:54:26,10.1.1.2,31,-0.109,-0.109,-0.109,0.000,0.000,0.000
1643266466735115008,2022-01-27-06:54:26,10.1.1.2,30,-0.099,-0.099,-0.099,0.000,0.000,0.000
1643266466934289920,2022-01-27-06:54:26,10.1.1.2,28,-0.090,-0.090,-0.090,0.000,0.000,0.000
1643266467133496064,2022-01-27-06:54:27,10.1.1.2,26,-0.080,-0.080,-0.080,0.000,0.000,0.000
1643266467333643008,2022-01-27-06:54:27,10.1.1.2,24,-0.070,-0.070,-0.070,0.000,0.000,0.000
1643266467553856000,2022-01-27-06:54:27,10.1.1.2,44,-0.059,-0.059,-0.059,0.000,0.000,0.000
1643266467733562112,2022-01-27-06:54:27,10.1.1.2,22,-0.050,-0.050,-0.050,0.000,0.000,0.000
1643266467934670080,2022-01-27-06:54:27,10.1.1.2,21,-0.040,-0.040,-0.040,0.000,0.000,0.000
1643266468134114048,2022-01-27-06:54:28,10.1.1.2,18,-0.030,-0.030,-0.030,0.000,0.000,0.000
1643266468343286016,2022-01-27-06:54:28,10.1.1.2,25,-0.020,-0.020,-0.020,0.000,0.000,0.000
1643266468553771008,2022-01-27-06:54:28,10.1.1.2,34,-0.009,-0.009,-0.009,0.000,0.000,0.000
1643266468733658112,2022-01-27-06:54:28,10.1.1.2,9,-0.000,-0.000,-0.000,0.000,0.000,0.000
1643266468954035968,2022-01-27-06:54:28,10.1.1.2,29,-0.010,-0.010,-0.010,0.000,0.000,0.000
1643266469153643008,2022-01-27-06:54:29,10.1.1.2,28,-0.021,-0.021,-0.021,0.000,0.000,0.000
1643266469353728000,2022-01-27-06:54:29,10.1.1.2,25,-0.030,-0.030,-0.030,0.000,0.000,0.000
1643266469553693952,2022-01-27-06:54:29,10.1.1.2,24,-0.040,-0.040,-0.040,0.000,0.000,0.000
1643266469753812992,2022-01-27-06:54:29,10.1.1.2,23,-0.050,-0.050,-0.050,0.000,0.000,0.000
1643266469973882880,2022-01-27-06:54:29,10.1.1.2,43,-0.061,-0.061,-0.061,0.000,0.000,0.000
1643266470153714944,2022-01-27-06:54:30,10.1.1.2,21,-0.070,-0.070,-0.070,0.000,0.000,0.000
1643266470355475968,2022-01-27-06:54:30,10.1.1.2,20,-0.080,-0.080,-0.080,0.000,0.000,0.000
1643266470554083072,2022-01-27-06:54:30,10.1.1.2,17,-0.090,-0.090,-0.090,0.000,0.000,0.000
1643266470775860992,2022-01-27-06:54:30,10.1.1.2,37,-0.101,-0.101,-0.101,0.000,0.000,0.000
1643266470972910848,2022-01-27-06:54:30,10.1.1.2,33,-0.111,-0.111,-0.111,0.000,0.000,0.000
1643266471173916928,2022-01-27-06:54:31,10.1.1.2,33,-0.121,-0.121,-0.121,0.000,0.000,0.000
1643266471375320064,2022-01-27-06:54:31,10.1.1.2,33,-0.131,-0.131,-0.131,0.000,0.000,0.000
1643266471572669952,2022-01-27-06:54:31,10.1.1.2,27,-0.141,-0.141,-0.141,0.000,0.000,0.000
1643266471773587968,2022-01-27-06:54:31,10.1.1.2,26,-0.150,-0.150,-0.150,0.000,0.000,0.000
1643266471995923968,2022-01-27-06:54:31,10.1.1.2,45,-0.161,-0.161,-0.161,0.000,0.000,0.000
1643266472174611200,2022-01-27-06:54:32,10.1.1.2,23,-0.170,-0.170,-0.170,0.000,0.000,0.000
1643266472394760960,2022-01-27-06:54:32,10.1.1.2,41,-0.181,-0.181,-0.181,0.000,0.000,0.000
1643266472594834176,2022-01-27-06:54:32,10.1.1.2,40,-0.191,-0.191,-0.191,0.000,0.000,0.000
1643266472774072832,2022-01-27-06:54:32,10.1.1.2,18,-0.200,-0.200,-0.200,0.000,0.000,0.000
1643266472993792000,2022-01-27-06:54:32,10.1.1.2,35,-0.211,-0.211,-0.211,0.000,0.000,0.000
1643266473193288960,2022-01-27-06:54:33,10.1.1.2,34,-0.221,-0.221,-0.221,0.000,0.000,0.000
1643266473393788160,2022-01-27-06:54:33,10.1.1.2,33,-0.230,-0.230,-0.230,0.000,0.000,0.000
1643266473593303808,2022-01-27-06:54:33,10.1.1.2,31,-0.241,-0.241,-0.241,0.000,0.000,0.000
1643266473793863936,2022-01-27-06:54:33,10.1.1.2,29,-0.250,-0.250,-0.250,0.000,0.000,0.000
1643266473993330944,2022-01-27-06:54:33,10.1.1.2,28,-0.260,-0.260,-0.260,0.000,0.000,0.000
1643266474193885184,2022-01-27-06:54:34,10.1.1.2,26,-0.270,-0.270,-0.270,0.000,0.000,0.000
1643266474393743872,2022-01-27-06:54:34,10.1.1.2,25,-0.280,-0.280,-0.280,0.000,0.000,0.000
1643266474593118976,2022-01-27-06:54:34,10.1.1.2,23,-0.290,-0.290,-0.290,0.000,0.000,0.000
1643266474813307136,2022-01-27-06:54:34,10.1.1.2,42,-0.301,-0.301,-0.301,0.000,0.000,0.000
1643266474993344000,2022-01-27-06:54:34,10.1.1.2,20,-0.310,-0.310,-0.310,0.000,0.000,0.000
1643266475194387968,2022-01-27-06:54:35,10.1.1.2,20,-0.320,-0.320,-0.320,0.000,0.000,0.000
1643266475393153024,2022-01-27-06:54:35,10.1.1.2,17,-0.330,-0.330,-0.330,0.000,0.000,0.000
1643266475613352960,2022-01-27-06:54:35,10.1.1.2,36,-0.341,-0.341,-0.341,0.000,0.000,0.000
1643266475813520896,2022-01-27-06:54:35,10.1.1.2,36,-0.351,-0.351,-0.351,0.000,0.000,0.000
1643266476014210048,2022-01-27-06:54:36,10.1.1.2,35,-0.361,-0.361,-0.361,0.000,0.000,0.000
1643266476212742144,2022-01-27-06:54:36,10.1.1.2,32,-0.371,-0.371,-0.371,0.000,0.000,0.000
1643266476415280128,2022-01-27-06:54:36,10.1.1.2,33,-0.381,-0.381,-0.381,0.000,0.000,0.000
1643266476613970944,2022-01-27-06:54:36,10.1.1.2,31,-0.391,-0.391,-0.391,0.000,0.000,0.000
1643266476814764032,2022-01-27-06:54:36,10.1.1.2,30,-0.401,-0.401,-0.401,0.000,0.000,0.000
1643266477013498112,2022-01-27-06:54:37,10.1.1.2,28,-0.411,-0.411,-0.411,0.000,0.000,0.000
1643266477213393920,2022-01-27-06:54:37,10.1.1.2,27,-0.421,-0.421,-0.421,0.000,0.000,0.000
1643266477413882880,2022-01-27-06:54:37,10.1.1.2,26,-0.430,-0.430,-0.430,0.000,0.000,0.000
1643266477613657856,2022-01-27-06:54:37,10.1.1.2,24,-0.440,-0.440,-0.440,0.000,0.000,0.000
1643266477834071040,2022-01-27-06:54:37,10.1.1.2,43,-0.451,-0.451,-0.451,0.000,0.000,0.000
1643266478033106944,2022-01-27-06:54:38,10.1.1.2,41,-0.461,-0.461,-0.461,0.000,0.000,0.000
1643266478235680000,2022-01-27-06:54:38,10.1.1.2,42,-0.471,-0.471,-0.471,0.000,0.000,0.000
1643266478413284096,2022-01-27-06:54:38,10.1.1.2,18,-0.480,-0.480,-0.480,0.000,0.000,0.000
1643266478635863040,2022-01-27-06:54:38,10.1.1.2,39,-0.489,-0.489,-0.489,0.000,0.000,0.000
1643266478834832896,2022-01-27-06:54:38,10.1.1.2,37,-0.479,-0.479,-0.479,0.000,0.000,0.000
1643266479033977088,2022-01-27-06:54:39,10.1.1.2,35,-0.469,-0.469,-0.469,0.000,0.000,0.000
1643266479233942016,2022-01-27-06:54:39,10.1.1.2,34,-0.459,-0.459,-0.459,0.000,0.000,0.000
1643266479433543936,2022-01-27-06:54:39,10.1.1.2,32,-0.449,-0.449,-0.449,0.000,0.000,0.000
1643266479633699840,2022-01-27-06:54:39,10.1.1.2,31,-0.439,-0.439,-0.439,0.000,0.000,0.000
1643266479834001152,2022-01-27-06:54:39,10.1.1.2,31,-0.429,-0.429,-0.429,0.000,0.000,0.000
1643266480033361920,2022-01-27-06:54:40,10.1.1.2,28,-0.419,-0.419,-0.419,0.000,0.000,0.000
1643266480233436160,2022-01-27-06:54:40,10.1.1.2,27,-0.409,-0.409,-0.409,0.000,0.000,0.000
1643266480433346048,2022-01-27-06:54:40,10.1.1.2,25,-0.400,-0.400,-0.400,0.000,0.000,0.000
1643266480654524928,2022-01-27-06:54:40,10.1.1.2,40,-0.389,-0.389,-0.389,0.000,0.000,0.000
1643266480854330112,2022-01-27-06:54:40,10.1.1.2,32,-0.379,-0.379,-0.379,0.000,0.000,0.000
1643266481053563136,2022-01-27-06:54:41,10.1.1.2,29,-0.369,-0.369,-0.369,0.000,0.000,0.000
1643266481253038848,2022-01-27-06:54:41,10.1.1.2,28,-0.359,-0.359,-0.359,0.000,0.000,0.000
1643266481453670144,2022-01-27-06:54:41,10.1.1.2,25,-0.350,-0.350,-0.350,0.000,0.000,0.000
1643266481653583104,2022-01-27-06:54:41,10.1.1.2,24,-0.340,-0.340,-0.340,0.000,0.000,0.000
1643266481854006016,2022-01-27-06:54:41,10.1.1.2,24,-0.330,-0.330,-0.330,0.000,0.000,0.000
1643266482073776128,2022-01-27-06:54:42,10.1.1.2,43,-0.319,-0.319,-0.319,0.000,0.000,0.000
1643266482274055936,2022-01-27-06:54:42,10.1.1.2,42,-0.309,-0.309,-0.309,0.000,0.000,0.000
1643266482473603840,2022-01-27-06:54:42,10.1.1.2,39,-0.299,-0.299,-0.299,0.000,0.000,0.000
1643266482673160960,2022-01-27-06:54:42,10.1.1.2,36,-0.289,-0.289,-0.289,0.000,0.000,0.000
1643266482876369920,2022-01-27-06:54:42,10.1.1.2,36,-0.279,-0.279,-0.279,0.000,0.000,0.000
1643266483073139968,2022-01-27-06:54:43,10.1.1.2,31,-0.269,-0.269,-0.269,0.000,0.000,0.000
1643266483273731840,2022-01-27-06:54:43,10.1.1.2,31,-0.259,-0.259,-0.259,0.000,0.000,0.000
1643266483474970112,2022-01-27-06:54:43,10.1.1.2,32,-0.249,-0.249,-0.249,0.000,0.000,0.000
1643266483673872896,2022-01-27-06:54:43,10.1.1.2,29,-0.239,-0.239,-0.239,0.000,0.000,0.000
1643266483873889024,2022-01-27-06:54:43,10.1.1.2,28,-0.230,-0.230,-0.230,0.000,0.000,0.000
1643266484075288064,2022-01-27-06:54:44,10.1.1.2,26,-0.220,-0.220,-0.220,0.000,0.000,0.000
1643266484294311936,2022-01-27-06:54:44,10.1.1.2,44,-0.209,-0.209,-0.209,0.000,0.000,0.000
1643266484475579904,2022-01-27-06:54:44,10.1.1.2,23,-0.200,-0.200,-0.200,0.000,0.000,0.000
1643266484695408128,2022-01-27-06:54:44,10.1.1.2,43,-0.189,-0.189,-0.189,0.000,0.000,0.000
1643266484873364992,2022-01-27-06:54:44,10.1.1.2,19,-0.180,-0.180,-0.180,0.000,0.000,0.000
1643266485095737088,2022-01-27-06:54:45,10.1.1.2,37,-0.169,-0.169,-0.169,0.000,0.000,0.000
1643266485297036800,2022-01-27-06:54:45,10.1.1.2,37,-0.159,-0.159,-0.159,0.000,0.000,0.000
1643266485493398784,2022-01-27-06:54:45,10.1.1.2,34,-0.149,-0.149,-0.149,0.000,0.000,0.000
1643266485693804032,2022-01-27-06:54:45,10.1.1.2,33,-0.139,-0.139,-0.139,0.000,0.000,0.000
1643266485893496064,2022-01-27-06:54:45,10.1.1.2,32,-0.129,-0.129,-0.129,0.000,0.000,0.000
1643266486094501888,2022-01-27-06:54:46,10.1.1.2,31,-0.119,-0.119,-0.119,0.000,0.000,0.000
1643266486294244096,2022-01-27-06:54:46,10.1.1.2,31,-0.109,-0.109,-0.109,0.000,0.000,0.000
1643266486494396928,2022-01-27-06:54:46,10.1.1.2,30,-0.099,-0.099,-0.099,0.000,0.000,0.000
1643266486693548800,2022-01-27-06:54:46,10.1.1.2,29,-0.089,-0.089,-0.089,0.000,0.000,0.000
1643266486893545984,2022-01-27-06:54:46,10.1.1.2,28,-0.080,-0.080,-0.080,0.000,0.000,0.000
1643266487095310080,2022-01-27-06:54:47,10.1.1.2,28,-0.070,-0.070,-0.070,0.000,0.000,0.000
1643266487293543936,2022-01-27-06:54:47,10.1.1.2,26,-0.060,-0.060,-0.060,0.000,0.000,0.000
1643266487493302016,2022-01-27-06:54:47,10.1.1.2,24,-0.050,-0.050,-0.050,0.000,0.000,0.000
1643266487693434880,2022-01-27-06:54:47,10.1.1.2,23,-0.040,-0.040,-0.040,0.000,0.000,0.000
1643266487914424064,2022-01-27-06:54:47,10.1.1.2,43,-0.029,-0.029,-0.029,0.000,0.000,0.000
1643266488094362880,2022-01-27-06:54:48,10.1.1.2,23,-0.020,-0.020,-0.020,0.000,0.000,0.000
1643266488294540800,2022-01-27-06:54:48,10.1.1.2,21,-0.010,-0.010,-0.010,0.000,0.000,0.000
1643266488493916928,2022-01-27-06:54:48,10.1.1.2,19,-0.000,-0.000,-0.000,0.000,0.000,0.000
1643266488714744064,2022-01-27-06:54:48,10.1.1.2,39,-0.011,-0.011,-0.011,0.000,0.000,0.000
1643266488914252032,2022-01-27-06:54:48,10.1.1.2,37,-0.021,-0.021,-0.021,0.000,0.000,0.000
1643266489113372928,2022-01-27-06:54:49,10.1.1.2,36,-0.031,-0.031,-0.031,0.000,0.000,0.000
1643266489314126848,2022-01-27-06:54:49,10.1.1.2,35,-0.041,-0.041,-0.041,0.000,0.000,0.000
1643266489512748032,2022-01-27-06:54:49,10.1.1.2,32,-0.051,-0.051,-0.051,0.000,0.000,0.000
1643266489713414912,2022-01-27-06:54:49,10.1.1.2,31,-0.061,-0.061,-0.061,0.000,0.000,0.000
1643266489913358080,2022-01-27-06:54:49,10.1.1.2,31,-0.071,-0.071,-0.071,0.000,0.000,0.000
1643266490112886784,2022-01-27-06:54:50,10.1.1.2,29,-0.081,-0.081,-0.081,0.000,0.000,0.000
1643266490314804992,2022-01-27-06:54:50,10.1.1.2,30,-0.091,-0.091,-0.091,0.000,0.000,0.000
1643266490514460928,2022-01-27-06:54:50,10.1.1.2,28,-0.101,-0.101,-0.101,0.000,0.000,0.000
1643266490713886976,2022-01-27-06:54:50,10.1.1.2,27,-0.110,-0.110,-0.110,0.000,0.000,0.000
1643266490912811008,2022-01-27-06:54:50,10.1.1.2,25,-0.120,-0.120,-0.120,0.000,0.000,0.000
1643266491113577984,2022-01-27-06:54:51,10.1.1.2,25,-0.130,-0.130,-0.130,0.000,0.000,0.000
1643266491313939200,2022-01-27-06:54:51,10.1.1.2,24,-0.140,-0.140,-0.140,0.000,0.000,0.000
1643266491534554112,2022-01-27-06:54:51,10.1.1.2,43,-0.151,-0.151,-0.151,0.000,0.000,0.000
1643266491733851904,2022-01-27-06:54:51,10.1.1.2,41,-0.161,-0.161,-0.161,0.000,0.000,0.000
1643266491914267904,2022-01-27-06:54:51,10.1.1.2,18,-0.170,-0.170,-0.170,0.000,0.000,0.000
1643266492134031104,2022-01-27-06:54:52,10.1.1.2,38,-0.181,-0.181,-0.181,0.000,0.000,0.000
1643266492335585024,2022-01-27-06:54:52,10.1.1.2,38,-0.191,-0.191,-0.191,0.000,0.000,0.000
1643266492534845952,2022-01-27-06:54:52,10.1.1.2,36,-0.201,-0.201,-0.201,0.000,0.000,0.000
1643266492734404096,2022-01-27-06:54:52,10.1.1.2,34,-0.211,-0.211,-0.211,0.000,0.000,0.000
1643266492933057024,2022-01-27-06:54:52,10.1.1.2,31,-0.221,-0.221,-0.221,0.000,0.000,0.000
1643266493133126912,2022-01-27-06:54:53,10.1.1.2,30,-0.231,-0.231,-0.231,0.000,0.000,0.000
1643266493334130944,2022-01-27-06:54:53,10.1.1.2,30,-0.241,-0.241,-0.241,0.000,0.000,0.000
1643266493534200064,2022-01-27-06:54:53,10.1.1.2,29,-0.251,-0.251,-0.251,0.000,0.000,0.000
1643266493733696000,2022-01-27-06:54:53,10.1.1.2,27,-0.260,-0.260,-0.260,0.000,0.000,0.000
1643266493934082048,2022-01-27-06:54:53,10.1.1.2,24,-0.270,-0.270,-0.270,0.000,0.000,0.000
1643266494154612992,2022-01-27-06:54:54,10.1.1.2,43,-0.281,-0.281,-0.281,0.000,0.000,0.000
1643266494335444992,2022-01-27-06:54:54,10.1.1.2,22,-0.290,-0.290,-0.290,0.000,0.000,0.000
1643266494533340928,2022-01-27-06:54:54,10.1.1.2,18,-0.300,-0.300,-0.300,0.000,0.000,0.000
1643266494753511936,2022-01-27-06:54:54,10.1.1.2,38,-0.311,-0.311,-0.311,0.000,0.000,0.000
1643266494919051776,2022-01-27-06:54:54,10.1.1.2,-1,-0.319,-0.319,-0.319,0.000,0.000,0.000
1643266495152555008,2022-01-27-06:54:55,10.1.1.2,33,-0.331,-0.331,-0.331,0.000,0.000,0.000
1643266495353745920,2022-01-27-06:54:55,10.1.1.2,33,-0.341,-0.341,-0.341,0.000,0.000,0.000
1643266495553755136,2022-01-27-06:54:55,10.1.1.2,29,-0.351,-0.351,-0.351,0.000,0.000,0.000
1643266495753945088,2022-01-27-06:54:55,10.1.1.2,26,-0.360,-0.360,-0.360,0.000,0.000,0.000
1643266495955251968,2022-01-27-06:54:55,10.1.1.2,26,-0.370,-0.370,-0.370,0.000,0.000,0.000
1643266496154669056,2022-01-27-06:54:56,10.1.1.2,24,-0.380,-0.380,-0.380,0.000,0.000,0.000
1643266496374403840,2022-01-27-06:54:56,10.1.1.2,43,-0.391,-0.391,-0.391,0.000,0.000,0.000
1643266496573901824,2022-01-27-06:54:56,10.1.1.2,42,-0.401,-0.401,-0.401,0.000,0.000,0.000
1643266496754663936,2022-01-27-06:54:56,10.1.1.2,21,-0.410,-0.410,-0.410,0.000,0.000,0.000
1643266496954098944,2022-01-27-06:54:56,10.1.1.2,18,-0.420,-0.420,-0.420,0.000,0.000,0.000
1643266497173139968,2022-01-27-06:54:57,10.1.1.2,36,-0.431,-0.431,-0.431,0.000,0.000,0.000
1643266497373509888,2022-01-27-06:54:57,10.1.1.2,35,-0.441,-0.441,-0.441,0.000,0.000,0.000
1643266497573705984,2022-01-27-06:54:57,10.1.1.2,34,-0.451,-0.451,-0.451,0.000,0.000,0.000
1643266497773760000,2022-01-27-06:54:57,10.1.1.2,32,-0.461,-0.461,-0.461,0.000,0.000,0.000
1643266497974615040,2022-01-27-06:54:57,10.1.1.2,32,-0.471,-0.471,-0.471,0.000,0.000,0.000
1643266498173244928,2022-01-27-06:54:58,10.1.1.2,29,-0.481,-0.481,-0.481,0.000,0.000,0.000
1643266498354515200,2022-01-27-06:54:58,10.1.1.2,8,-0.490,-0.490,-0.490,0.000,0.000,0.000
1643266498573160960,2022-01-27-06:54:58,10.1.1.2,24,-0.480,-0.480,-0.480,0.000,0.000,0.000
1643266498774505984,2022-01-27-06:54:58,10.1.1.2,24,-0.470,-0.470,-0.470,0.000,0.000,0.000
1643266498974358016,2022-01-27-06:54:58,10.1.1.2,24,-0.460,-0.460,-0.460,0.000,0.000,0.000
1643266499173062912,2022-01-27-06:54:59,10.1.1.2,21,-0.450,-0.450,-0.450,0.000,0.000,0.000
1643266499393733120,2022-01-27-06:54:59,10.1.1.2,40,-0.439,-0.439,-0.439,0.000,0.000,0.000
1643266499573719040,2022-01-27-06:54:59,10.1.1.2,19,-0.430,-0.430,-0.430,0.000,0.000,0.000
1643266499795388928,2022-01-27-06:54:59,10.1.1.2,39,-0.419,-0.419,-0.419,0.000,0.000,0.000
1643266499993050112,2022-01-27-06:54:59,10.1.1.2,35,-0.409,-0.409,-0.409,0.000,0.000,0.000
1643266500193113088,2022-01-27-06:55:00,10.1.1.2,34,-0.399,-0.399,-0.399,0.000,0.000,0.000
1643266500392456960,2022-01-27-06:55:00,10.1.1.2,33,-0.389,-0.389,-0.389,0.000,0.000,0.000
1643266500593123072,2022-01-27-06:55:00,10.1.1.2,32,-0.379,-0.379,-0.379,0.000,0.000,0.000
1643266500793723136,2022-01-27-06:55:00,10.1.1.2,32,-0.369,-0.369,-0.369,0.000,0.000,0.000
1643266500994126080,2022-01-27-06:55:00,10.1.1.2,32,-0.359,-0.359,-0.359,0.000,0.000,0.000
1643266501198772992,2022-01-27-06:55:01,10.1.1.2,34,-0.349,-0.349,-0.349,0.000,0.000,0.000
1643266501395898112,2022-01-27-06:55:01,10.1.1.2,30,-0.339,-0.339,-0.339,0.000,0.000,0.000
1643266501593468928,2022-01-27-06:55:01,10.1.1.2,27,-0.330,-0.330,-0.330,0.000,0.000,0.000
1643266501792984064,2022-01-27-06:55:01,10.1.1.2,23,-0.320,-0.320,-0.320,0.000,0.000,0.000
1643266501993547008,2022-01-27-06:55:01,10.1.1.2,23,-0.310,-0.310,-0.310,0.000,0.000,0.000
1643266502193353984,2022-01-27-06:55:02,10.1.1.2,22,-0.300,-0.300,-0.300,0.000,0.000,0.000
1643266502413006080,2022-01-27-06:55:02,10.1.1.2,40,-0.289,-0.289,-0.289,0.000,0.000,0.000
1643266502593724928,2022-01-27-06:55:02,10.1.1.2,19,-0.280,-0.280,-0.280,0.000,0.000,0.000
1643266502813536000,2022-01-27-06:55:02,10.1.1.2,37,-0.269,-0.269,-0.269,0.000,0.000,0.000
1643266503013654016,2022-01-27-06:55:03,10.1.1.2,36,-0.259,-0.259,-0.259,0.000,0.000,0.000
1643266503217396992,2022-01-27-06:55:03,10.1.1.2,37,-0.249,-0.249,-0.249,0.000,0.000,0.000
1643266503414625024,2022-01-27-06:55:03,10.1.1.2,33,-0.239,-0.239,-0.239,0.000,0.000,0.000
1643266503616107008,2022-01-27-06:55:03,10.1.1.2,34,-0.229,-0.229,-0.229,0.000,0.000,0.000
1643266503814769920,2022-01-27-06:55:03,10.1.1.2,30,-0.219,-0.219,-0.219,0.000,0.000,0.000
1643266504013940992,2022-01-27-06:55:04,10.1.1.2,28,-0.210,-0.210,-0.210,0.000,0.000,0.000
1643266504214663936,2022-01-27-06:55:04,10.1.1.2,25,-0.200,-0.200,-0.200,0.000,0.000,0.000
1643266504434059008,2022-01-27-06:55:04,10.1.1.2,43,-0.189,-0.189,-0.189,0.000,0.000,0.000
1643266504615308032,2022-01-27-06:55:04,10.1.1.2,22,-0.180,-0.180,-0.180,0.000,0.000,0.000
1643266504815331840,2022-01-27-06:55:04,10.1.1.2,19,-0.170,-0.170,-0.170,0.000,0.000,0.000
1643266505033818880,2022-01-27-06:55:05,10.1.1.2,36,-0.159,-0.159,-0.159,0.000,0.000,0.000
1643266505233166848,2022-01-27-06:55:05,10.1.1.2,31,-0.149,-0.149,-0.149,0.000,0.000,0.000
1643266505433625856,2022-01-27-06:55:05,10.1.1.2,30,-0.139,-0.139,-0.139,0.000,0.000,0.000
1643266505636781056,2022-01-27-06:55:05,10.1.1.2,26,-0.130,-0.130,-0.130,0.000,0.000,0.000
1643266505835335936,2022-01-27-06:55:05,10.1.1.2,25,-0.120,-0.120,-0.120,0.000,0.000,0.000
1643266506034155008,2022-01-27-06:55:06,10.1.1.2,24,-0.110,-0.110,-0.110,0.000,0.000,0.000
1643266506235023104,2022-01-27-06:55:06,10.1.1.2,23,-0.100,-0.100,-0.100,0.000,0.000,0.000
1643266506436329984,2022-01-27-06:55:06,10.1.1.2,24,-0.090,-0.090,-0.090,0.000,0.000,0.000
1643266506636086016,2022-01-27-06:55:06,10.1.1.2,21,-0.080,-0.080,-0.080,0.000,0.000,0.000
1643266506854814976,2022-01-27-06:55:06,10.1.1.2,38,-0.069,-0.069,-0.069,0.000,0.000,0.000
1643266507053435136,2022-01-27-06:55:07,10.1.1.2,35,-0.059,-0.059,-0.059,0.000,0.000,0.000
1643266507253261056,2022-01-27-06:55:07,10.1.1.2,35,-0.049,-0.049,-0.049,0.000,0.000,0.000
1643266507453089024,2022-01-27-06:55:07,10.1.1.2,33,-0.039,-0.039,-0.039,0.000,0.000,0.000
1643266507652932864,2022-01-27-06:55:07,10.1.1.2,32,-0.029,-0.029,-0.029,0.000,0.000,0.000
1643266507853116928,2022-01-27-06:55:07,10.1.1.2,30,-0.019,-0.019,-0.019,0.000,0.000,0.000
1643266508052834048,2022-01-27-06:55:08,10.1.1.2,29,-0.010,-0.010,-0.010,0.000,0.000,0.000
1643266508233431040,2022-01-27-06:55:08,10.1.1.2,8,-0.000,-0.000,-0.000,0.000,0.000,0.000
1643266508452417024,2022-01-27-06:55:08,10.1.1.2,24,-0.010,-0.010,-0.010,0.000,0.000,0.000
1643266508653660928,2022-01-27-06:55:08,10.1.1.2,24,-0.020,-0.020,-0.020,0.000,0.000,0.000
1643266508853505024,2022-01-27-06:55:08,10.1.1.2,23,-0.030,-0.030,-0.030,0.000,0.000,0.000
1643266509053623808,2022-01-27-06:55:09,10.1.1.2,23,-0.040,-0.040,-0.040,0.000,0.000,0.000
1643266509253114112,2022-01-27-06:55:09,10.1.1.2,20,-0.050,-0.050,-0.050,0.000,0.000,0.000
1643266509473861888,2022-01-27-06:55:09,10.1.1.2,39,-0.061,-0.061,-0.061,0.000,0.000,0.000
1643266509653186048,2022-01-27-06:55:09,10.1.1.2,14,-0.070,-0.070,-0.070,0.000,0.000,0.000
1643266509873637888,2022-01-27-06:55:09,10.1.1.2,33,-0.081,-0.081,-0.081,0.000,0.000,0.000
1643266510073297920,2022-01-27-06:55:10,10.1.1.2,31,-0.091,-0.091,-0.091,0.000,0.000,0.000
1643266510273405952,2022-01-27-06:55:10,10.1.1.2,30,-0.101,-0.101,-0.101,0.000,0.000,0.000
1643266510472871936,2022-01-27-06:55:10,10.1.1.2,28,-0.111,-0.111,-0.111,0.000,0.000,0.000
1643266510676563968,2022-01-27-06:55:10,10.1.1.2,31,-0.121,-0.121,-0.121,0.000,0.000,0.000
1643266510874599936,2022-01-27-06:55:10,10.1.1.2,28,-0.130,-0.130,-0.130,0.000,0.000,0.000
1643266511074185984,2022-01-27-06:55:11,10.1.1.2,26,-0.140,-0.140,-0.140,0.000,0.000,0.000
1643266511293325056,2022-01-27-06:55:11,10.1.1.2,42,-0.151,-0.151,-0.151,0.000,0.000,0.000
1643266511494242816,2022-01-27-06:55:11,10.1.1.2,42,-0.161,-0.161,-0.161,0.000,0.000,0.000
1643266511673640960,2022-01-27-06:55:11,10.1.1.2,20,-0.170,-0.170,-0.170,0.000,0.000,0.000
1643266511897356032,2022-01-27-06:55:11,10.1.1.2,41,-0.181,-0.181,-0.181,0.000,0.000,0.000
1643266512095388928,2022-01-27-06:55:12,10.1.1.2,38,-0.191,-0.191,-0.191,0.000,0.000,0.000
1643266512307225088,2022-01-27-06:55:12,10.1.1.2,48,-0.201,-0.201,-0.201,0.000,0.000,0.000
1643266512496169216,2022-01-27-06:55:12,10.1.1.2,34,-0.211,-0.211,-0.211,0.000,0.000,0.000
1643266512694830848,2022-01-27-06:55:12,10.1.1.2,30,-0.221,-0.221,-0.221,0.000,0.000,0.000
1643266512896730880,2022-01-27-06:55:12,10.1.1.2,30,-0.230,-0.230,-0.230,0.000,0.000,0.000
1643266513093741824,2022-01-27-06:55:13,10.1.1.2,25,-0.240,-0.240,-0.240,0.000,0.000,0.000
1643266513295245056,2022-01-27-06:55:13,10.1.1.2,27,-0.250,-0.250,-0.250,0.000,0.000,0.000
1643266513495165184,2022-01-27-06:55:13,10.1.1.2,25,-0.260,-0.260,-0.260,0.000,0.000,0.000
1643266513693481984,2022-01-27-06:55:13,10.1.1.2,23,-0.270,-0.270,-0.270,0.000,0.000,0.000
1643266513894237952,2022-01-27-06:55:13,10.1.1.2,23,-0.280,-0.280,-0.280,0.000,0.000,0.000
1643266514113670144,2022-01-27-06:55:14,10.1.1.2,42,-0.291,-0.291,-0.291,0.000,0.000,0.000
1643266514296057088,2022-01-27-06:55:14,10.1.1.2,23,-0.300,-0.300,-0.300,0.000,0.000,0.000
1643266514494533888,2022-01-27-06:55:14,10.1.1.2,20,-0.310,-0.310,-0.310,0.000,0.000,0.000
1643266514715275008,2022-01-27-06:55:14,10.1.1.2,39,-0.321,-0.321,-0.321,0.000,0.000,0.000
1643266514914093056,2022-01-27-06:55:14,10.1.1.2,38,-0.331,-0.331,-0.331,0.000,0.000,0.000
1643266515113737216,2022-01-27-06:55:15,10.1.1.2,34,-0.341,-0.341,-0.341,0.000,0.000,0.000
1643266515315883008,2022-01-27-06:55:15,10.1.1.2,35,-0.351,-0.351,-0.351,0.000,0.000,0.000
1643266515514584064,2022-01-27-06:55:15,10.1.1.2,32,-0.361,-0.361,-0.361,0.000,0.000,0.000
1643266515714291968,2022-01-27-06:55:15,10.1.1.2,31,-0.371,-0.371,-0.371,0.000,0.000,0.000
1643266515915278080,2022-01-27-06:55:15,10.1.1.2,31,-0.381,-0.381,-0.381,0.000,0.000,0.000
1643266516114650880,2022-01-27-06:55:16,10.1.1.2,29,-0.391,-0.391,-0.391,0.000,0.000,0.000
1643266516314904832,2022-01-27-06:55:16,10.1.1.2,29,-0.401,-0.401,-0.401,0.000,0.000,0.000
1643266516515307776,2022-01-27-06:55:16,10.1.1.2,27,-0.410,-0.410,-0.410,0.000,0.000,0.000
1643266516714212864,2022-01-27-06:55:16,10.1.1.2,25,-0.420,-0.420,-0.420,0.000,0.000,0.000
1643266516915250944,2022-01-27-06:55:16,10.1.1.2,25,-0.430,-0.430,-0.430,0.000,0.000,0.000
1643266517134183936,2022-01-27-06:55:17,10.1.1.2,44,-0.441,-0.441,-0.441,0.000,0.000,0.000
1643266517334500096,2022-01-27-06:55:17,10.1.1.2,43,-0.451,-0.451,-0.451,0.000,0.000,0.000
1643266517515858944,2022-01-27-06:55:17,10.1.1.2,23,-0.460,-0.460,-0.460,0.000,0.000,0.000
1643266517713732096,2022-01-27-06:55:17,10.1.1.2,20,-0.470,-0.470,-0.470,0.000,0.000,0.000
1643266517914619904,2022-01-27-06:55:17,10.1.1.2,19,-0.480,-0.480,-0.480,0.000,0.000,0.000
1643266518133891072,2022-01-27-06:55:18,10.1.1.2,37,-0.489,-0.489,-0.489,0.000,0.000,0.000
1643266518336123904,2022-01-27-06:55:18,10.1.1.2,38,-0.479,-0.479,-0.479,0.000,0.000,0.000
1643266518536233984,2022-01-27-06:55:18,10.1.1.2,36,-0.469,-0.469,-0.469,0.000,0.000,0.000
1643266518733762048,2022-01-27-06:55:18,10.1.1.2,32,-0.459,-0.459,-0.459,0.000,0.000,0.000
1643266518934137088,2022-01-27-06:55:18,10.1.1.2,32,-0.449,-0.449,-0.449,0.000,0.000,0.000
1643266519134211072,2022-01-27-06:55:19,10.1.1.2,31,-0.439,-0.439,-0.439,0.000,0.000,0.000
1643266519333512192,2022-01-27-06:55:19,10.1.1.2,28,-0.430,-0.430,-0.430,0.000,0.000,0.000
1643266519533211904,2022-01-27-06:55:19,10.1.1.2,27,-0.419,-0.419,-0.419,0.000,0.000,0.000
1643266519733242880,2022-01-27-06:55:19,10.1.1.2,26,-0.410,-0.410,-0.410,0.000,0.000,0.000
1643266519933028864,2022-01-27-06:55:19,10.1.1.2,26,-0.400,-0.400,-0.400,0.000,0.000,0.000
1643266520133313024,2022-01-27-06:55:20,10.1.1.2,24,-0.390,-0.390,-0.390,0.000,0.000,0.000
1643266520335203840,2022-01-27-06:55:20,10.1.1.2,24,-0.380,-0.380,-0.380,0.000,0.000,0.000
1643266520535883008,2022-01-27-06:55:20,10.1.1.2,23,-0.370,-0.370,-0.370,0.000,0.000,0.000
1643266520734477056,2022-01-27-06:55:20,10.1.1.2,18,-0.360,-0.360,-0.360,0.000,0.000,0.000
1643266520953268992,2022-01-27-06:55:20,10.1.1.2,32,-0.349,-0.349,-0.349,0.000,0.000,0.000
1643266521154254848,2022-01-27-06:55:21,10.1.1.2,32,-0.339,-0.339,-0.339,0.000,0.000,0.000
1643266521354011904,2022-01-27-06:55:21,10.1.1.2,31,-0.329,-0.329,-0.329,0.000,0.000,0.000
1643266521554521088,2022-01-27-06:55:21,10.1.1.2,30,-0.319,-0.319,-0.319,0.000,0.000,0.000
1643266521755115008,2022-01-27-06:55:21,10.1.1.2,29,-0.310,-0.310,-0.310,0.000,0.000,0.000
1643266521954364160,2022-01-27-06:55:21,10.1.1.2,27,-0.300,-0.300,-0.300,0.000,0.000,0.000
1643266522154202880,2022-01-27-06:55:22,10.1.1.2,26,-0.290,-0.290,-0.290,0.000,0.000,0.000
1643266522354913024,2022-01-27-06:55:22,10.1.1.2,25,-0.280,-0.280,-0.280,0.000,0.000,0.000
1643266522554328064,2022-01-27-06:55:22,10.1.1.2,23,-0.270,-0.270,-0.270,0.000,0.000,0.000
1643266522753034240,2022-01-27-06:55:22,10.1.1.2,21,-0.260,-0.260,-0.260,0.000,0.000,0.000
1643266522954924032,2022-01-27-06:55:22,10.1.1.2,21,-0.250,-0.250,-0.250,0.000,0.000,0.000
1643266523153436928,2022-01-27-06:55:23,10.1.1.2,19,-0.240,-0.240,-0.240,0.000,0.000,0.000
1643266523373862144,2022-01-27-06:55:23,10.1.1.2,38,-0.229,-0.229,-0.229,0.000,0.000,0.000
1643266523573745920,2022-01-27-06:55:23,10.1.1.2,37,-0.219,-0.219,-0.219,0.000,0.000,0.000
1643266523773987072,2022-01-27-06:55:23,10.1.1.2,34,-0.209,-0.209,-0.209,0.000,0.000,0.000
1643266523973104896,2022-01-27-06:55:23,10.1.1.2,32,-0.199,-0.199,-0.199,0.000,0.000,0.000
1643266524173293056,2022-01-27-06:55:24,10.1.1.2,31,-0.189,-0.189,-0.189,0.000,0.000,0.000
1643266524374718976,2022-01-27-06:55:24,10.1.1.2,32,-0.179,-0.179,-0.179,0.000,0.000,0.000
1643266524574206976,2022-01-27-06:55:24,10.1.1.2,31,-0.169,-0.169,-0.169,0.000,0.000,0.000
1643266524773160960,2022-01-27-06:55:24,10.1.1.2,29,-0.160,-0.160,-0.160,0.000,0.000,0.000
1643266524973423104,2022-01-27-06:55:24,10.1.1.2,29,-0.149,-0.149,-0.149,0.000,0.000,0.000
1643266525174454016,2022-01-27-06:55:25,10.1.1.2,29,-0.139,-0.139,-0.139,0.000,0.000,0.000
1643266525372850944,2022-01-27-06:55:25,10.1.1.2,25,-0.130,-0.130,-0.130,0.000,0.000,0.000
1643266525573158912,2022-01-27-06:55:25,10.1.1.2,24,-0.120,-0.120,-0.120,0.000,0.000,0.000
1643266525773756928,2022-01-27-06:55:25,10.1.1.2,24,-0.110,-0.110,-0.110,0.000,0.000,0.000
1643266525974611968,2022-01-27-06:55:25,10.1.1.2,24,-0.100,-0.100,-0.100,0.000,0.000,0.000
1643266526173825024,2022-01-27-06:55:26,10.1.1.2,20,-0.090,-0.090,-0.090,0.000,0.000,0.000
1643266526376358912,2022-01-27-06:55:26,10.1.1.2,21,-0.080,-0.080,-0.080,0.000,0.000,0.000
1643266526575412992,2022-01-27-06:55:26,10.1.1.2,19,-0.070,-0.070,-0.070,0.000,0.000,0.000
1643266526796036096,2022-01-27-06:55:26,10.1.1.2,37,-0.059,-0.059,-0.059,0.000,0.000,0.000
1643266526998702080,2022-01-27-06:55:26,10.1.1.2,39,-0.049,-0.049,-0.049,0.000,0.000,0.000
1643266527193782016,2022-01-27-06:55:27,10.1.1.2,32,-0.039,-0.039,-0.039,0.000,0.000,0.000
1643266527399236864,2022-01-27-06:55:27,10.1.1.2,37,-0.029,-0.029,-0.029,0.000,0.000,0.000
1643266527595497984,2022-01-27-06:55:27,10.1.1.2,31,-0.019,-0.019,-0.019,0.000,0.000,0.000
1643266527794688000,2022-01-27-06:55:27,10.1.1.2,30,-0.010,-0.010,-0.010,0.000,0.000,0.000
1643266527973714944,2022-01-27-06:55:27,10.1.1.2,8,-0.000,-0.000,-0.000,0.000,0.000,0.000
1643266528197969920,2022-01-27-06:55:28,10.1.1.2,30,-0.010,-0.010,-0.010,0.000,0.000,0.000
1643266528395139072,2022-01-27-06:55:28,10.1.1.2,25,-0.020,-0.020,-0.020,0.000,0.000,0.000
1643266528594543872,2022-01-27-06:55:28,10.1.1.2,24,-0.030,-0.030,-0.030,0.000,0.000,0.000
1643266528796300800,2022-01-27-06:55:28,10.1.1.2,25,-0.040,-0.040,-0.040,0.000,0.000,0.000
1643266528993995008,2022-01-27-06:55:28,10.1.1.2,22,-0.050,-0.050,-0.050,0.000,0.000,0.000
1643266529213829888,2022-01-27-06:55:29,10.1.1.2,41,-0.061,-0.061,-0.061,0.000,0.000,0.000
1643266529393966080,2022-01-27-06:55:29,10.1.1.2,19,-0.070,-0.070,-0.070,0.000,0.000,0.000
1643266529593893120,2022-01-27-06:55:29,10.1.1.2,18,-0.080,-0.080,-0.080,0.000,0.000,0.000
1643266529795404032,2022-01-27-06:55:29,10.1.1.2,18,-0.090,-0.090,-0.090,0.000,0.000,0.000
1643266530014008064,2022-01-27-06:55:30,10.1.1.2,36,-0.101,-0.101,-0.101,0.000,0.000,0.000
1643266530214535936,2022-01-27-06:55:30,10.1.1.2,35,-0.111,-0.111,-0.111,0.000,0.000,0.000
1643266530415191040,2022-01-27-06:55:30,10.1.1.2,35,-0.121,-0.121,-0.121,0.000,0.000,0.000
1643266530615341824,2022-01-27-06:55:30,10.1.1.2,34,-0.131,-0.131,-0.131,0.000,0.000,0.000
1643266530817006080,2022-01-27-06:55:30,10.1.1.2,33,-0.140,-0.140,-0.140,0.000,0.000,0.000
1643266531013676800,2022-01-27-06:55:31,10.1.1.2,27,-0.150,-0.150,-0.150,0.000,0.000,0.000
1643266531215846912,2022-01-27-06:55:31,10.1.1.2,29,-0.160,-0.160,-0.160,0.000,0.000,0.000
1643266531415599104,2022-01-27-06:55:31,10.1.1.2,27,-0.170,-0.170,-0.170,0.000,0.000,0.000
1643266531614369024,2022-01-27-06:55:31,10.1.1.2,24,-0.180,-0.180,-0.180,0.000,0.000,0.000
1643266531834199808,2022-01-27-06:55:31,10.1.1.2,43,-0.191,-0.191,-0.191,0.000,0.000,0.000
1643266532015405056,2022-01-27-06:55:32,10.1.1.2,23,-0.200,-0.200,-0.200,0.000,0.000,0.000
1643266532213255936,2022-01-27-06:55:32,10.1.1.2,20,-0.210,-0.210,-0.210,0.000,0.000,0.000
1643266532436158976,2022-01-27-06:55:32,10.1.1.2,42,-0.221,-0.221,-0.221,0.000,0.000,0.000
1643266532635657984,2022-01-27-06:55:32,10.1.1.2,39,-0.231,-0.231,-0.231,0.000,0.000,0.000
1643266532834088192,2022-01-27-06:55:32,10.1.1.2,37,-0.241,-0.241,-0.241,0.000,0.000,0.000
1643266533037544960,2022-01-27-06:55:33,10.1.1.2,38,-0.251,-0.251,-0.251,0.000,0.000,0.000
1643266533238553088,2022-01-27-06:55:33,10.1.1.2,38,-0.261,-0.261,-0.261,0.000,0.000,0.000
1643266533434146816,2022-01-27-06:55:33,10.1.1.2,33,-0.271,-0.271,-0.271,0.000,0.000,0.000
1643266533634556928,2022-01-27-06:55:33,10.1.1.2,32,-0.281,-0.281,-0.281,0.000,0.000,0.000
1643266533840798976,2022-01-27-06:55:33,10.1.1.2,37,-0.291,-0.291,-0.291,0.000,0.000,0.000
1643266534034476032,2022-01-27-06:55:34,10.1.1.2,30,-0.301,-0.301,-0.301,0.000,0.000,0.000
1643266534236978944,2022-01-27-06:55:34,10.1.1.2,31,-0.310,-0.310,-0.310,0.000,0.000,0.000
1643266534436017920,2022-01-27-06:55:34,10.1.1.2,27,-0.320,-0.320,-0.320,0.000,0.000,0.000
1643266534634313984,2022-01-27-06:55:34,10.1.1.2,24,-0.330,-0.330,-0.330,0.000,0.000,0.000
1643266534854657792,2022-01-27-06:55:34,10.1.1.2,44,-0.341,-0.341,-0.341,0.000,0.000,0.000
1643266535053910016,2022-01-27-06:55:35,10.1.1.2,42,-0.351,-0.351,-0.351,0.000,0.000,0.000
1643266535233668096,2022-01-27-06:55:35,10.1.1.2,21,-0.360,-0.360,-0.360,0.000,0.000,0.000
1643266535434093056,2022-01-27-06:55:35,10.1.1.2,21,-0.370,-0.370,-0.370,0.000,0.000,0.000
1643266535654432000,2022-01-27-06:55:35,10.1.1.2,39,-0.381,-0.381,-0.381,0.000,0.000,0.000
1643266535854362880,2022-01-27-06:55:35,10.1.1.2,38,-0.391,-0.391,-0.391,0.000,0.000,0.000
1643266536053863168,2022-01-27-06:55:36,10.1.1.2,36,-0.401,-0.401,-0.401,0.000,0.000,0.000
1643266536253562880,2022-01-27-06:55:36,10.1.1.2,34,-0.411,-0.411,-0.411,0.000,0.000,0.000
1643266536453378048,2022-01-27-06:55:36,10.1.1.2,34,-0.421,-0.421,-0.421,0.000,0.000,0.000
1643266536653806080,2022-01-27-06:55:36,10.1.1.2,33,-0.431,-0.431,-0.431,0.000,0.000,0.000
1643266536854499072,2022-01-27-06:55:36,10.1.1.2,32,-0.441,-0.441,-0.441,0.000,0.000,0.000
1643266537054050048,2022-01-27-06:55:37,10.1.1.2,31,-0.451,-0.451,-0.451,0.000,0.000,0.000
1643266537253614848,2022-01-27-06:55:37,10.1.1.2,29,-0.461,-0.461,-0.461,0.000,0.000,0.000
1643266537454253056,2022-01-27-06:55:37,10.1.1.2,29,-0.471,-0.471,-0.471,0.000,0.000,0.000
1643266537654180096,2022-01-27-06:55:37,10.1.1.2,29,-0.481,-0.481,-0.481,0.000,0.000,0.000
1643266537834006016,2022-01-27-06:55:37,10.1.1.2,7,-0.490,-0.490,-0.490,0.000,0.000,0.000
1643266538053272064,2022-01-27-06:55:38,10.1.1.2,24,-0.480,-0.480,-0.480,0.000,0.000,0.000
1643266538252950016,2022-01-27-06:55:38,10.1.1.2,22,-0.470,-0.470,-0.470,0.000,0.000,0.000
1643266538453555968,2022-01-27-06:55:38,10.1.1.2,22,-0.460,-0.460,-0.460,0.000,0.000,0.000
1643266538653469184,2022-01-27-06:55:38,10.1.1.2,21,-0.450,-0.450,-0.450,0.000,0.000,0.000
1643266538873773056,2022-01-27-06:55:38,10.1.1.2,40,-0.439,-0.439,-0.439,0.000,0.000,0.000
1643266539074439168,2022-01-27-06:55:39,10.1.1.2,40,-0.429,-0.429,-0.429,0.000,0.000,0.000
1643266539252845056,2022-01-27-06:55:39,10.1.1.2,17,-0.420,-0.420,-0.420,0.000,0.000,0.000
1643266539473330944,2022-01-27-06:55:39,10.1.1.2,36,-0.409,-0.409,-0.409,0.000,0.000,0.000
1643266539674529024,2022-01-27-06:55:39,10.1.1.2,36,-0.399,-0.399,-0.399,0.000,0.000,0.000
1643266539881769984,2022-01-27-06:55:39,10.1.1.2,36,-0.389,-0.389,-0.389,0.000,0.000,0.000
1643266540074156032,2022-01-27-06:55:40,10.1.1.2,33,-0.379,-0.379,-0.379,0.000,0.000,0.000
1643266540269603072,2022-01-27-06:55:40,10.1.1.2,27,-0.370,-0.370,-0.370,0.000,0.000,0.000
1643266540474967040,2022-01-27-06:55:40,10.1.1.2,32,-0.359,-0.359,-0.359,0.000,0.000,0.000
1643266540673472768,2022-01-27-06:55:40,10.1.1.2,29,-0.349,-0.349,-0.349,0.000,0.000,0.000
1643266540874039040,2022-01-27-06:55:40,10.1.1.2,28,-0.339,-0.339,-0.339,0.000,0.000,0.000
1643266541074383104,2022-01-27-06:55:41,10.1.1.2,23,-0.330,-0.330,-0.330,0.000,0.000,0.000
1643266541292612096,2022-01-27-06:55:41,10.1.1.2,40,-0.319,-0.319,-0.319,0.000,0.000,0.000
1643266541476783872,2022-01-27-06:55:41,10.1.1.2,23,-0.310,-0.310,-0.310,0.000,0.000,0.000
1643266541696950016,2022-01-27-06:55:41,10.1.1.2,42,-0.299,-0.299,-0.299,0.000,0.000,0.000
1643266541873216000,2022-01-27-06:55:41,10.1.1.2,18,-0.290,-0.290,-0.290,0.000,0.000,0.000
1643266542072824064,2022-01-27-06:55:42,10.1.1.2,17,-0.280,-0.280,-0.280,0.000,0.000,0.000
1643266542273106176,2022-01-27-06:55:42,10.1.1.2,17,-0.270,-0.270,-0.270,0.000,0.000,0.000
1643266542493467136,2022-01-27-06:55:42,10.1.1.2,36,-0.259,-0.259,-0.259,0.000,0.000,0.000
1643266542693272064,2022-01-27-06:55:42,10.1.1.2,36,-0.249,-0.249,-0.249,0.000,0.000,0.000
1643266542895144960,2022-01-27-06:55:42,10.1.1.2,37,-0.239,-0.239,-0.239,0.000,0.000,0.000
1643266543096261888,2022-01-27-06:55:43,10.1.1.2,37,-0.229,-0.229,-0.229,0.000,0.000,0.000
1643266543296432128,2022-01-27-06:55:43,10.1.1.2,36,-0.219,-0.219,-0.219,0.000,0.000,0.000
1643266543493888000,2022-01-27-06:55:43,10.1.1.2,31,-0.210,-0.210,-0.210,0.000,0.000,0.000
1643266543697773056,2022-01-27-06:55:43,10.1.1.2,30,-0.199,-0.199,-0.199,0.000,0.000,0.000
1643266543893690112,2022-01-27-06:55:43,10.1.1.2,28,-0.190,-0.190,-0.190,0.000,0.000,0.000
1643266544093682176,2022-01-27-06:55:44,10.1.1.2,25,-0.180,-0.180,-0.180,0.000,0.000,0.000
1643266544294106880,2022-01-27-06:55:44,10.1.1.2,25,-0.170,-0.170,-0.170,0.000,0.000,0.000
1643266544497620224,2022-01-27-06:55:44,10.1.1.2,25,-0.160,-0.160,-0.160,0.000,0.000,0.000
1643266544717679104,2022-01-27-06:55:44,10.1.1.2,44,-0.149,-0.149,-0.149,0.000,0.000,0.000
1643266544896857088,2022-01-27-06:55:44,10.1.1.2,20,-0.140,-0.140,-0.140,0.000,0.000,0.000
1643266545093754880,2022-01-27-06:55:45,10.1.1.2,16,-0.130,-0.130,-0.130,0.000,0.000,0.000
1643266545313967872,2022-01-27-06:55:45,10.1.1.2,34,-0.119,-0.119,-0.119,0.000,0.000,0.000
1643266545514300160,2022-01-27-06:55:45,10.1.1.2,34,-0.109,-0.109,-0.109,0.000,0.000,0.000
1643266545713233920,2022-01-27-06:55:45,10.1.1.2,32,-0.100,-0.100,-0.100,0.000,0.000,0.000
1643266545914345984,2022-01-27-06:55:45,10.1.1.2,31,-0.089,-0.089,-0.089,0.000,0.000,0.000
1643266546114115072,2022-01-27-06:55:46,10.1.1.2,30,-0.080,-0.080,-0.080,0.000,0.000,0.000
1643266546313224960,2022-01-27-06:55:46,10.1.1.2,29,-0.069,-0.069,-0.069,0.000,0.000,0.000
1643266546513995008,2022-01-27-06:55:46,10.1.1.2,27,-0.060,-0.060,-0.060,0.000,0.000,0.000
1643266546734177024,2022-01-27-06:55:46,10.1.1.2,42,-0.049,-0.049,-0.049,0.000,0.000,0.000
1643266546913883904,2022-01-27-06:55:46,10.1.1.2,20,-0.040,-0.040,-0.040,0.000,0.000,0.000
1643266547135618048,2022-01-27-06:55:47,10.1.1.2,41,-0.029,-0.029,-0.029,0.000,0.000,0.000
1643266547335400960,2022-01-27-06:55:47,10.1.1.2,39,-0.019,-0.019,-0.019,0.000,0.000,0.000
1643266547518865152,2022-01-27-06:55:47,10.1.1.2,21,-0.010,-0.010,-0.010,0.000,0.000,0.000
1643266547713305856,2022-01-27-06:55:47,10.1.1.2,15,-0.000,-0.000,-0.000,0.000,0.000,0.000
1643266547934786048,2022-01-27-06:55:47,10.1.1.2,35,-0.011,-0.011,-0.011,0.000,0.000,0.000
1643266548133171968,2022-01-27-06:55:48,10.1.1.2,33,-0.021,-0.021,-0.021,0.000,0.000,0.000
1643266548333470976,2022-01-27-06:55:48,10.1.1.2,33,-0.031,-0.031,-0.031,0.000,0.000,0.000
1643266548534760960,2022-01-27-06:55:48,10.1.1.2,33,-0.041,-0.041,-0.041,0.000,0.000,0.000
1643266548735412992,2022-01-27-06:55:48,10.1.1.2,33,-0.050,-0.050,-0.050,0.000,0.000,0.000
1643266548933792000,2022-01-27-06:55:48,10.1.1.2,30,-0.061,-0.061,-0.061,0.000,0.000,0.000
1643266549134358784,2022-01-27-06:55:49,10.1.1.2,29,-0.070,-0.070,-0.070,0.000,0.000,0.000
1643266549335016960,2022-01-27-06:55:49,10.1.1.2,27,-0.080,-0.080,-0.080,0.000,0.000,0.000
