FedericoMungari/DigitalTwin_service/01_WiredScenario/Output/Output_script/script_rosapi_2_output_robots10_freq0_5.txt
timestamp,date,node,latency,joint_1,joint_2,joint_3,joint_4,joint_5,joint_6
1641220953987416064,2022-01-03-14:42:33,10.1.1.6,186,-0.010,-0.010,-0.010,0.000,0.000,0.000
1641220954186984960,2022-01-03-14:42:34,10.1.1.6,185,-0.020,-0.020,-0.020,0.000,0.000,0.000
1641220954387251968,2022-01-03-14:42:34,10.1.1.6,185,-0.030,-0.030,-0.030,0.000,0.000,0.000
1641220954587603200,2022-01-03-14:42:34,10.1.1.6,182,-0.040,-0.040,-0.040,0.000,0.000,0.000
1641220954785530112,2022-01-03-14:42:34,10.1.1.6,179,-0.050,-0.050,-0.050,0.000,0.000,0.000
1641220954985395968,2022-01-03-14:42:34,10.1.1.6,179,-0.060,-0.060,-0.060,0.000,0.000,0.000
1641220955184616192,2022-01-03-14:42:35,10.1.1.6,177,-0.070,-0.070,-0.070,0.000,0.000,0.000
1641220955384929024,2022-01-03-14:42:35,10.1.1.6,177,-0.080,-0.080,-0.080,0.000,0.000,0.000
1641220955584957952,2022-01-03-14:42:35,10.1.1.6,176,-0.090,-0.090,-0.090,0.000,0.000,0.000
1641220955784847872,2022-01-03-14:42:35,10.1.1.6,175,-0.100,-0.100,-0.100,0.000,0.000,0.000
1641220955983812096,2022-01-03-14:42:35,10.1.1.6,174,-0.110,-0.110,-0.110,0.000,0.000,0.000
1641220956183838976,2022-01-03-14:42:36,10.1.1.6,173,-0.120,-0.120,-0.120,0.000,0.000,0.000
1641220956383045888,2022-01-03-14:42:36,10.1.1.6,172,-0.130,-0.130,-0.130,0.000,0.000,0.000
1641220956584605952,2022-01-03-14:42:36,10.1.1.6,173,-0.140,-0.140,-0.140,0.000,0.000,0.000
1641220956782983936,2022-01-03-14:42:36,10.1.1.6,170,-0.150,-0.150,-0.150,0.000,0.000,0.000
1641220956982065920,2022-01-03-14:42:36,10.1.1.6,168,-0.160,-0.160,-0.160,0.000,0.000,0.000
1641220957182146048,2022-01-03-14:42:37,10.1.1.6,168,-0.170,-0.170,-0.170,0.000,0.000,0.000
1641220957381760000,2022-01-03-14:42:37,10.1.1.6,167,-0.180,-0.180,-0.180,0.000,0.000,0.000
1641220957581851904,2022-01-03-14:42:37,10.1.1.6,166,-0.190,-0.190,-0.190,0.000,0.000,0.000
1641220957781004800,2022-01-03-14:42:37,10.1.1.6,164,-0.200,-0.200,-0.200,0.000,0.000,0.000
1641220957980776960,2022-01-03-14:42:37,10.1.1.6,163,-0.210,-0.210,-0.210,0.000,0.000,0.000
1641220958180238848,2022-01-03-14:42:38,10.1.1.6,161,-0.220,-0.220,-0.220,0.000,0.000,0.000
1641220958379842048,2022-01-03-14:42:38,10.1.1.6,160,-0.230,-0.230,-0.230,0.000,0.000,0.000
1641220958579879936,2022-01-03-14:42:38,10.1.1.6,159,-0.240,-0.240,-0.240,0.000,0.000,0.000
1641220958799629056,2022-01-03-14:42:38,10.1.1.6,179,-0.250,-0.250,-0.250,0.000,0.000,0.000
1641220958998727936,2022-01-03-14:42:38,10.1.1.6,177,-0.260,-0.260,-0.260,0.000,0.000,0.000
1641220959199130112,2022-01-03-14:42:39,10.1.1.6,177,-0.270,-0.270,-0.270,0.000,0.000,0.000
1641220959399046912,2022-01-03-14:42:39,10.1.1.6,176,-0.280,-0.280,-0.280,0.000,0.000,0.000
1641220959598149120,2022-01-03-14:42:39,10.1.1.6,175,-0.290,-0.290,-0.290,0.000,0.000,0.000
1641220959797710848,2022-01-03-14:42:39,10.1.1.6,173,-0.300,-0.300,-0.300,0.000,0.000,0.000
1641220959998091008,2022-01-03-14:42:39,10.1.1.6,173,-0.310,-0.310,-0.310,0.000,0.000,0.000
1641220960197092096,2022-01-03-14:42:40,10.1.1.6,171,-0.320,-0.320,-0.320,0.000,0.000,0.000
1641220960397182976,2022-01-03-14:42:40,10.1.1.6,171,-0.330,-0.330,-0.330,0.000,0.000,0.000
1641220960595990016,2022-01-03-14:42:40,10.1.1.6,169,-0.340,-0.340,-0.340,0.000,0.000,0.000
1641220960795689216,2022-01-03-14:42:40,10.1.1.6,168,-0.350,-0.350,-0.350,0.000,0.000,0.000
1641220960996124928,2022-01-03-14:42:40,10.1.1.6,168,-0.360,-0.360,-0.360,0.000,0.000,0.000
1641220961196451072,2022-01-03-14:42:41,10.1.1.6,167,-0.370,-0.370,-0.370,0.000,0.000,0.000
1641220961399090176,2022-01-03-14:42:41,10.1.1.6,169,-0.380,-0.380,-0.380,0.000,0.000,0.000
1641220961599160832,2022-01-03-14:42:41,10.1.1.6,169,-0.390,-0.390,-0.390,0.000,0.000,0.000
1641220961800905984,2022-01-03-14:42:41,10.1.1.6,170,-0.400,-0.400,-0.400,0.000,0.000,0.000
1641220962021074944,2022-01-03-14:42:42,10.1.1.6,169,-0.410,-0.410,-0.410,0.000,0.000,0.000
1641220962248260864,2022-01-03-14:42:42,10.1.1.6,178,-0.420,-0.420,-0.420,0.000,0.000,0.000
1641220962443303936,2022-01-03-14:42:42,10.1.1.6,172,-0.430,-0.430,-0.430,0.000,0.000,0.000
1641220962644232960,2022-01-03-14:42:42,10.1.1.6,173,-0.440,-0.440,-0.440,0.000,0.000,0.000
1641220962845228032,2022-01-03-14:42:42,10.1.1.6,173,-0.450,-0.450,-0.450,0.000,0.000,0.000
1641220963045272064,2022-01-03-14:42:43,10.1.1.6,173,-0.460,-0.460,-0.460,0.000,0.000,0.000
1641220963251606016,2022-01-03-14:42:43,10.1.1.6,178,-0.470,-0.470,-0.470,0.000,0.000,0.000
1641220963447696896,2022-01-03-14:42:43,10.1.1.6,174,-0.480,-0.480,-0.480,0.000,0.000,0.000
1641220963647842816,2022-01-03-14:42:43,10.1.1.6,173,-0.490,-0.490,-0.490,0.000,0.000,0.000
1641220963849022976,2022-01-03-14:42:43,10.1.1.6,173,-0.480,-0.480,-0.480,0.000,0.000,0.000
1641220964048929024,2022-01-03-14:42:44,10.1.1.6,171,-0.470,-0.470,-0.470,0.000,0.000,0.000
1641220964249391104,2022-01-03-14:42:44,10.1.1.6,171,-0.460,-0.460,-0.460,0.000,0.000,0.000
1641220964450225152,2022-01-03-14:42:44,10.1.1.6,171,-0.450,-0.450,-0.450,0.000,0.000,0.000
1641220964650582016,2022-01-03-14:42:44,10.1.1.6,171,-0.440,-0.440,-0.440,0.000,0.000,0.000
1641220964875560960,2022-01-03-14:42:44,10.1.1.6,196,-0.430,-0.430,-0.430,0.000,0.000,0.000
1641220965051741952,2022-01-03-14:42:45,10.1.1.6,171,-0.420,-0.420,-0.420,0.000,0.000,0.000
1641220965272953088,2022-01-03-14:42:45,10.1.1.6,191,-0.410,-0.410,-0.410,0.000,0.000,0.000
1641220965473961216,2022-01-03-14:42:45,10.1.1.6,191,-0.400,-0.400,-0.400,0.000,0.000,0.000
1641220965673677824,2022-01-03-14:42:45,10.1.1.6,190,-0.390,-0.390,-0.390,0.000,0.000,0.000
1641220965874480896,2022-01-03-14:42:45,10.1.1.6,191,-0.380,-0.380,-0.380,0.000,0.000,0.000
1641220966074695936,2022-01-03-14:42:46,10.1.1.6,190,-0.370,-0.370,-0.370,0.000,0.000,0.000
1641220966275074048,2022-01-03-14:42:46,10.1.1.6,190,-0.360,-0.360,-0.360,0.000,0.000,0.000
1641220966475234048,2022-01-03-14:42:46,10.1.1.6,190,-0.350,-0.350,-0.350,0.000,0.000,0.000
1641220966675318016,2022-01-03-14:42:46,10.1.1.6,189,-0.340,-0.340,-0.340,0.000,0.000,0.000
1641220966876262912,2022-01-03-14:42:46,10.1.1.6,190,-0.330,-0.330,-0.330,0.000,0.000,0.000
1641220967075860992,2022-01-03-14:42:47,10.1.1.6,189,-0.320,-0.320,-0.320,0.000,0.000,0.000
1641220967276571136,2022-01-03-14:42:47,10.1.1.6,189,-0.310,-0.310,-0.310,0.000,0.000,0.000
1641220967476815872,2022-01-03-14:42:47,10.1.1.6,189,-0.300,-0.300,-0.300,0.000,0.000,0.000
1641220967677774848,2022-01-03-14:42:47,10.1.1.6,189,-0.290,-0.290,-0.290,0.000,0.000,0.000
1641220967882898944,2022-01-03-14:42:47,10.1.1.6,194,-0.280,-0.280,-0.280,0.000,0.000,0.000
1641220968078396160,2022-01-03-14:42:48,10.1.1.6,189,-0.270,-0.270,-0.270,0.000,0.000,0.000
1641220968278135040,2022-01-03-14:42:48,10.1.1.6,188,-0.260,-0.260,-0.260,0.000,0.000,0.000
1641220968478576896,2022-01-03-14:42:48,10.1.1.6,188,-0.250,-0.250,-0.250,0.000,0.000,0.000
1641220968679378944,2022-01-03-14:42:48,10.1.1.6,187,-0.240,-0.240,-0.240,0.000,0.000,0.000
1641220968879940096,2022-01-03-14:42:48,10.1.1.6,187,-0.230,-0.230,-0.230,0.000,0.000,0.000
1641220969080207104,2022-01-03-14:42:49,10.1.1.6,187,-0.220,-0.220,-0.220,0.000,0.000,0.000
1641220969479406080,2022-01-03-14:42:49,10.1.1.6,184,-0.200,-0.200,-0.200,0.000,0.000,0.000
1641220969679702016,2022-01-03-14:42:49,10.1.1.6,183,-0.190,-0.190,-0.190,0.000,0.000,0.000
1641220969882937856,2022-01-03-14:42:49,10.1.1.6,185,-0.180,-0.180,-0.180,0.000,0.000,0.000
1641220970087951872,2022-01-03-14:42:50,10.1.1.6,190,-0.170,-0.170,-0.170,0.000,0.000,0.000
1641220970279390976,2022-01-03-14:42:50,10.1.1.6,181,-0.160,-0.160,-0.160,0.000,0.000,0.000
1641220970479672064,2022-01-03-14:42:50,10.1.1.6,180,-0.150,-0.150,-0.150,0.000,0.000,0.000
1641220970680196096,2022-01-03-14:42:50,10.1.1.6,181,-0.140,-0.140,-0.140,0.000,0.000,0.000
1641220970881318144,2022-01-03-14:42:50,10.1.1.6,181,-0.130,-0.130,-0.130,0.000,0.000,0.000
1641220971100742144,2022-01-03-14:42:51,10.1.1.6,197,-0.120,-0.120,-0.120,0.000,0.000,0.000
1641220971299617024,2022-01-03-14:42:51,10.1.1.6,195,-0.110,-0.110,-0.110,0.000,0.000,0.000
1641220971499725056,2022-01-03-14:42:51,10.1.1.6,194,-0.100,-0.100,-0.100,0.000,0.000,0.000
1641220971701001984,2022-01-03-14:42:51,10.1.1.6,194,-0.090,-0.090,-0.090,0.000,0.000,0.000
1641220971900496896,2022-01-03-14:42:51,10.1.1.6,193,-0.080,-0.080,-0.080,0.000,0.000,0.000
1641220972101478144,2022-01-03-14:42:52,10.1.1.6,193,-0.070,-0.070,-0.070,0.000,0.000,0.000
1641220972300515840,2022-01-03-14:42:52,10.1.1.6,191,-0.060,-0.060,-0.060,0.000,0.000,0.000
1641220972506240000,2022-01-03-14:42:52,10.1.1.6,197,-0.050,-0.050,-0.050,0.000,0.000,0.000
1641220972700350976,2022-01-03-14:42:52,10.1.1.6,190,-0.040,-0.040,-0.040,0.000,0.000,0.000
1641220972900249856,2022-01-03-14:42:52,10.1.1.6,190,-0.030,-0.030,-0.030,0.000,0.000,0.000
1641220973100199936,2022-01-03-14:42:53,10.1.1.6,187,-0.020,-0.020,-0.020,0.000,0.000,0.000
1641220973300737024,2022-01-03-14:42:53,10.1.1.6,186,-0.010,-0.010,-0.010,0.000,0.000,0.000
1641220973500197888,2022-01-03-14:42:53,10.1.1.6,184,0.000,0.000,0.000,0.000,0.000,0.000
1641220973700187904,2022-01-03-14:42:53,10.1.1.6,184,-0.010,-0.010,-0.010,0.000,0.000,0.000
1641220973899704832,2022-01-03-14:42:53,10.1.1.6,182,-0.020,-0.020,-0.020,0.000,0.000,0.000
1641220974100740864,2022-01-03-14:42:54,10.1.1.6,182,-0.030,-0.030,-0.030,0.000,0.000,0.000
1641220974300673024,2022-01-03-14:42:54,10.1.1.6,181,-0.040,-0.040,-0.040,0.000,0.000,0.000
1641220974500294912,2022-01-03-14:42:54,10.1.1.6,179,-0.050,-0.050,-0.050,0.000,0.000,0.000
1641220974701128960,2022-01-03-14:42:54,10.1.1.6,180,-0.060,-0.060,-0.060,0.000,0.000,0.000
1641220974919886080,2022-01-03-14:42:54,10.1.1.6,198,-0.070,-0.070,-0.070,0.000,0.000,0.000
1641220975119705088,2022-01-03-14:42:55,10.1.1.6,197,-0.080,-0.080,-0.080,0.000,0.000,0.000
1641220975319817984,2022-01-03-14:42:55,10.1.1.6,196,-0.090,-0.090,-0.090,0.000,0.000,0.000
1641220975519450880,2022-01-03-14:42:55,10.1.1.6,195,-0.100,-0.100,-0.100,0.000,0.000,0.000
1641220975718780160,2022-01-03-14:42:55,10.1.1.6,194,-0.110,-0.110,-0.110,0.000,0.000,0.000
1641220975919848960,2022-01-03-14:42:55,10.1.1.6,193,-0.120,-0.120,-0.120,0.000,0.000,0.000
1641220976119468800,2022-01-03-14:42:56,10.1.1.6,192,-0.130,-0.130,-0.130,0.000,0.000,0.000
1641220976319341824,2022-01-03-14:42:56,10.1.1.6,191,-0.140,-0.140,-0.140,0.000,0.000,0.000
1641220976519796992,2022-01-03-14:42:56,10.1.1.6,187,-0.150,-0.150,-0.150,0.000,0.000,0.000
1641220976719059968,2022-01-03-14:42:56,10.1.1.6,185,-0.160,-0.160,-0.160,0.000,0.000,0.000
1641220976918487040,2022-01-03-14:42:56,10.1.1.6,179,-0.170,-0.170,-0.170,0.000,0.000,0.000
1641220977138104832,2022-01-03-14:42:57,10.1.1.6,196,-0.180,-0.180,-0.180,0.000,0.000,0.000
1641220977338587904,2022-01-03-14:42:57,10.1.1.6,195,-0.190,-0.190,-0.190,0.000,0.000,0.000
1641220977537140992,2022-01-03-14:42:57,10.1.1.6,193,-0.200,-0.200,-0.200,0.000,0.000,0.000
1641220977736843008,2022-01-03-14:42:57,10.1.1.6,193,-0.210,-0.210,-0.210,0.000,0.000,0.000
1641220977937464832,2022-01-03-14:42:57,10.1.1.6,193,-0.220,-0.220,-0.220,0.000,0.000,0.000
1641220978137363968,2022-01-03-14:42:58,10.1.1.6,192,-0.230,-0.230,-0.230,0.000,0.000,0.000
1641220978336642048,2022-01-03-14:42:58,10.1.1.6,191,-0.240,-0.240,-0.240,0.000,0.000,0.000
1641220978536796160,2022-01-03-14:42:58,10.1.1.6,190,-0.250,-0.250,-0.250,0.000,0.000,0.000
1641220978736427008,2022-01-03-14:42:58,10.1.1.6,190,-0.260,-0.260,-0.260,0.000,0.000,0.000
1641220978936593920,2022-01-03-14:42:58,10.1.1.6,189,-0.270,-0.270,-0.270,0.000,0.000,0.000
1641220979136128000,2022-01-03-14:42:59,10.1.1.6,188,-0.280,-0.280,-0.280,0.000,0.000,0.000
1641220979337785088,2022-01-03-14:42:59,10.1.1.6,189,-0.290,-0.290,-0.290,0.000,0.000,0.000
1641220979535293184,2022-01-03-14:42:59,10.1.1.6,184,-0.300,-0.300,-0.300,0.000,0.000,0.000
1641220979735022080,2022-01-03-14:42:59,10.1.1.6,182,-0.310,-0.310,-0.310,0.000,0.000,0.000
1641220979934959872,2022-01-03-14:42:59,10.1.1.6,181,-0.320,-0.320,-0.320,0.000,0.000,0.000
1641220980134441984,2022-01-03-14:43:00,10.1.1.6,180,-0.330,-0.330,-0.330,0.000,0.000,0.000
1641220980335776000,2022-01-03-14:43:00,10.1.1.6,176,-0.340,-0.340,-0.340,0.000,0.000,0.000
1641220980534457856,2022-01-03-14:43:00,10.1.1.6,173,-0.350,-0.350,-0.350,0.000,0.000,0.000
1641220980754182144,2022-01-03-14:43:00,10.1.1.6,193,-0.360,-0.360,-0.360,0.000,0.000,0.000
1641220980954406912,2022-01-03-14:43:00,10.1.1.6,192,-0.370,-0.370,-0.370,0.000,0.000,0.000
1641220981153402112,2022-01-03-14:43:01,10.1.1.6,191,-0.380,-0.380,-0.380,0.000,0.000,0.000
1641220981353070080,2022-01-03-14:43:01,10.1.1.6,190,-0.390,-0.390,-0.390,0.000,0.000,0.000
1641220981555488000,2022-01-03-14:43:01,10.1.1.6,191,-0.400,-0.400,-0.400,0.000,0.000,0.000
1641220981752825088,2022-01-03-14:43:01,10.1.1.6,188,-0.410,-0.410,-0.410,0.000,0.000,0.000
1641220981952101888,2022-01-03-14:43:01,10.1.1.6,186,-0.420,-0.420,-0.420,0.000,0.000,0.000
1641220982152216064,2022-01-03-14:43:02,10.1.1.6,185,-0.430,-0.430,-0.430,0.000,0.000,0.000
1641220982352123136,2022-01-03-14:43:02,10.1.1.6,185,-0.440,-0.440,-0.440,0.000,0.000,0.000
1641220982551896064,2022-01-03-14:43:02,10.1.1.6,184,-0.450,-0.450,-0.450,0.000,0.000,0.000
1641220982751430912,2022-01-03-14:43:02,10.1.1.6,183,-0.460,-0.460,-0.460,0.000,0.000,0.000
1641220982944251904,2022-01-03-14:43:02,10.1.1.6,175,-0.470,-0.470,-0.470,0.000,0.000,0.000
1641220983151670016,2022-01-03-14:43:03,10.1.1.6,180,-0.480,-0.480,-0.480,0.000,0.000,0.000
1641220983354386944,2022-01-03-14:43:03,10.1.1.6,182,-0.490,-0.490,-0.490,0.000,0.000,0.000
1641220983550326016,2022-01-03-14:43:03,10.1.1.6,178,-0.480,-0.480,-0.480,0.000,0.000,0.000
1641220983750245120,2022-01-03-14:43:03,10.1.1.6,177,-0.470,-0.470,-0.470,0.000,0.000,0.000
1641220983950414848,2022-01-03-14:43:03,10.1.1.6,176,-0.460,-0.460,-0.460,0.000,0.000,0.000
1641220984149926912,2022-01-03-14:43:04,10.1.1.6,175,-0.450,-0.450,-0.450,0.000,0.000,0.000
1641220984349311232,2022-01-03-14:43:04,10.1.1.6,174,-0.440,-0.440,-0.440,0.000,0.000,0.000
1641220984549261056,2022-01-03-14:43:04,10.1.1.6,174,-0.430,-0.430,-0.430,0.000,0.000,0.000
1641220984750585088,2022-01-03-14:43:04,10.1.1.6,174,-0.420,-0.420,-0.420,0.000,0.000,0.000
1641220984949084160,2022-01-03-14:43:04,10.1.1.6,172,-0.410,-0.410,-0.410,0.000,0.000,0.000
1641220985154979072,2022-01-03-14:43:05,10.1.1.6,175,-0.400,-0.400,-0.400,0.000,0.000,0.000
1641220985348241152,2022-01-03-14:43:05,10.1.1.6,170,-0.390,-0.390,-0.390,0.000,0.000,0.000
1641220985547298048,2022-01-03-14:43:05,10.1.1.6,168,-0.380,-0.380,-0.380,0.000,0.000,0.000
1641220985747358208,2022-01-03-14:43:05,10.1.1.6,168,-0.370,-0.370,-0.370,0.000,0.000,0.000
1641220985947432960,2022-01-03-14:43:05,10.1.1.6,167,-0.360,-0.360,-0.360,0.000,0.000,0.000
1641220986166683904,2022-01-03-14:43:06,10.1.1.6,185,-0.350,-0.350,-0.350,0.000,0.000,0.000
1641220986367312896,2022-01-03-14:43:06,10.1.1.6,186,-0.340,-0.340,-0.340,0.000,0.000,0.000
1641220986566138880,2022-01-03-14:43:06,10.1.1.6,183,-0.330,-0.330,-0.330,0.000,0.000,0.000
1641220986766050048,2022-01-03-14:43:06,10.1.1.6,181,-0.320,-0.320,-0.320,0.000,0.000,0.000
1641220986966033920,2022-01-03-14:43:06,10.1.1.6,181,-0.310,-0.310,-0.310,0.000,0.000,0.000
1641220987165499904,2022-01-03-14:43:07,10.1.1.6,179,-0.300,-0.300,-0.300,0.000,0.000,0.000
1641220987365545984,2022-01-03-14:43:07,10.1.1.6,179,-0.290,-0.290,-0.290,0.000,0.000,0.000
1641220987564769024,2022-01-03-14:43:07,10.1.1.6,177,-0.280,-0.280,-0.280,0.000,0.000,0.000
1641220987764046848,2022-01-03-14:43:07,10.1.1.6,176,-0.270,-0.270,-0.270,0.000,0.000,0.000
1641220987964150016,2022-01-03-14:43:07,10.1.1.6,175,-0.260,-0.260,-0.260,0.000,0.000,0.000
1641220988163429888,2022-01-03-14:43:08,10.1.1.6,174,-0.250,-0.250,-0.250,0.000,0.000,0.000
1641220988363245056,2022-01-03-14:43:08,10.1.1.6,173,-0.240,-0.240,-0.240,0.000,0.000,0.000
1641220988564128000,2022-01-03-14:43:08,10.1.1.6,173,-0.230,-0.230,-0.230,0.000,0.000,0.000
1641220988763511040,2022-01-03-14:43:08,10.1.1.6,172,-0.220,-0.220,-0.220,0.000,0.000,0.000
1641220988963134976,2022-01-03-14:43:08,10.1.1.6,171,-0.210,-0.210,-0.210,0.000,0.000,0.000
1641220989163011072,2022-01-03-14:43:09,10.1.1.6,170,-0.200,-0.200,-0.200,0.000,0.000,0.000
1641220989364259840,2022-01-03-14:43:09,10.1.1.6,171,-0.190,-0.190,-0.190,0.000,0.000,0.000
1641220989562125056,2022-01-03-14:43:09,10.1.1.6,167,-0.180,-0.180,-0.180,0.000,0.000,0.000
1641220989761494016,2022-01-03-14:43:09,10.1.1.6,165,-0.170,-0.170,-0.170,0.000,0.000,0.000
1641220989960625920,2022-01-03-14:43:09,10.1.1.6,163,-0.160,-0.160,-0.160,0.000,0.000,0.000
1641220990161335040,2022-01-03-14:43:10,10.1.1.6,163,-0.150,-0.150,-0.150,0.000,0.000,0.000
1641220990361010944,2022-01-03-14:43:10,10.1.1.6,161,-0.140,-0.140,-0.140,0.000,0.000,0.000
1641220990560947968,2022-01-03-14:43:10,10.1.1.6,161,-0.130,-0.130,-0.130,0.000,0.000,0.000
1641220990780585984,2022-01-03-14:43:10,10.1.1.6,179,-0.120,-0.120,-0.120,0.000,0.000,0.000
1641220990980876032,2022-01-03-14:43:10,10.1.1.6,179,-0.110,-0.110,-0.110,0.000,0.000,0.000
1641220991179182080,2022-01-03-14:43:11,10.1.1.6,176,-0.100,-0.100,-0.100,0.000,0.000,0.000
1641220991379489024,2022-01-03-14:43:11,10.1.1.6,176,-0.090,-0.090,-0.090,0.000,0.000,0.000
1641220991589248000,2022-01-03-14:43:11,10.1.1.6,185,-0.080,-0.080,-0.080,0.000,0.000,0.000
1641220991778359808,2022-01-03-14:43:11,10.1.1.6,173,-0.070,-0.070,-0.070,0.000,0.000,0.000
1641220991979170048,2022-01-03-14:43:11,10.1.1.6,173,-0.060,-0.060,-0.060,0.000,0.000,0.000
1641220992179163904,2022-01-03-14:43:12,10.1.1.6,173,-0.050,-0.050,-0.050,0.000,0.000,0.000
1641220992377229824,2022-01-03-14:43:12,10.1.1.6,170,-0.040,-0.040,-0.040,0.000,0.000,0.000
1641220992579025920,2022-01-03-14:43:12,10.1.1.6,172,-0.030,-0.030,-0.030,0.000,0.000,0.000
1641220992778300928,2022-01-03-14:43:12,10.1.1.6,170,-0.020,-0.020,-0.020,0.000,0.000,0.000
1641220992976411136,2022-01-03-14:43:12,10.1.1.6,166,-0.010,-0.010,-0.010,0.000,0.000,0.000
1641220993178523136,2022-01-03-14:43:13,10.1.1.6,168,0.000,0.000,0.000,0.000,0.000,0.000
1641220993378982144,2022-01-03-14:43:13,10.1.1.6,167,-0.010,-0.010,-0.010,0.000,0.000,0.000
1641220993578784000,2022-01-03-14:43:13,10.1.1.6,167,-0.020,-0.020,-0.020,0.000,0.000,0.000
1641220993782535168,2022-01-03-14:43:13,10.1.1.6,170,-0.030,-0.030,-0.030,0.000,0.000,0.000
1641220993981122048,2022-01-03-14:43:13,10.1.1.6,168,-0.040,-0.040,-0.040,0.000,0.000,0.000
1641220994183203072,2022-01-03-14:43:14,10.1.1.6,169,-0.050,-0.050,-0.050,0.000,0.000,0.000
1641220994383246848,2022-01-03-14:43:14,10.1.1.6,168,-0.060,-0.060,-0.060,0.000,0.000,0.000
1641220994586221824,2022-01-03-14:43:14,10.1.1.6,169,-0.070,-0.070,-0.070,0.000,0.000,0.000
1641220994787176960,2022-01-03-14:43:14,10.1.1.6,170,-0.080,-0.080,-0.080,0.000,0.000,0.000
1641220994985459968,2022-01-03-14:43:14,10.1.1.6,168,-0.090,-0.090,-0.090,0.000,0.000,0.000
1641220995186103040,2022-01-03-14:43:15,10.1.1.6,168,-0.100,-0.100,-0.100,0.000,0.000,0.000
1641220995387411968,2022-01-03-14:43:15,10.1.1.6,169,-0.110,-0.110,-0.110,0.000,0.000,0.000
1641220995587819008,2022-01-03-14:43:15,10.1.1.6,169,-0.120,-0.120,-0.120,0.000,0.000,0.000
1641220995789659136,2022-01-03-14:43:15,10.1.1.6,170,-0.130,-0.130,-0.130,0.000,0.000,0.000
1641220995989864192,2022-01-03-14:43:15,10.1.1.6,169,-0.140,-0.140,-0.140,0.000,0.000,0.000
1641220996210854912,2022-01-03-14:43:16,10.1.1.6,187,-0.150,-0.150,-0.150,0.000,0.000,0.000
1641220996411185152,2022-01-03-14:43:16,10.1.1.6,185,-0.160,-0.160,-0.160,0.000,0.000,0.000
1641220996612029184,2022-01-03-14:43:16,10.1.1.6,185,-0.170,-0.170,-0.170,0.000,0.000,0.000
1641220996812120832,2022-01-03-14:43:16,10.1.1.6,185,-0.180,-0.180,-0.180,0.000,0.000,0.000
1641220997012332032,2022-01-03-14:43:17,10.1.1.6,184,-0.190,-0.190,-0.190,0.000,0.000,0.000
1641220997213690112,2022-01-03-14:43:17,10.1.1.6,184,-0.200,-0.200,-0.200,0.000,0.000,0.000
1641220997423548928,2022-01-03-14:43:17,10.1.1.6,192,-0.210,-0.210,-0.210,0.000,0.000,0.000
1641220997613883904,2022-01-03-14:43:17,10.1.1.6,178,-0.220,-0.220,-0.220,0.000,0.000,0.000
1641220997814366208,2022-01-03-14:43:17,10.1.1.6,176,-0.230,-0.230,-0.230,0.000,0.000,0.000
1641220998015230976,2022-01-03-14:43:18,10.1.1.6,176,-0.240,-0.240,-0.240,0.000,0.000,0.000
1641220998215575040,2022-01-03-14:43:18,10.1.1.6,176,-0.250,-0.250,-0.250,0.000,0.000,0.000
1641220998415645952,2022-01-03-14:43:18,10.1.1.6,175,-0.260,-0.260,-0.260,0.000,0.000,0.000
1641220998636841984,2022-01-03-14:43:18,10.1.1.6,195,-0.270,-0.270,-0.270,0.000,0.000,0.000
1641220998836466176,2022-01-03-14:43:18,10.1.1.6,195,-0.280,-0.280,-0.280,0.000,0.000,0.000
1641220999037095936,2022-01-03-14:43:19,10.1.1.6,195,-0.290,-0.290,-0.290,0.000,0.000,0.000
1641220999238106112,2022-01-03-14:43:19,10.1.1.6,194,-0.300,-0.300,-0.300,0.000,0.000,0.000
1641220999437640960,2022-01-03-14:43:19,10.1.1.6,192,-0.310,-0.310,-0.310,0.000,0.000,0.000
1641220999637928960,2022-01-03-14:43:19,10.1.1.6,192,-0.320,-0.320,-0.320,0.000,0.000,0.000
1641220999839371008,2022-01-03-14:43:19,10.1.1.6,192,-0.330,-0.330,-0.330,0.000,0.000,0.000
1641221000039527936,2022-01-03-14:43:20,10.1.1.6,193,-0.340,-0.340,-0.340,0.000,0.000,0.000
1641221000239727104,2022-01-03-14:43:20,10.1.1.6,192,-0.350,-0.350,-0.350,0.000,0.000,0.000
1641221000440268032,2022-01-03-14:43:20,10.1.1.6,191,-0.360,-0.360,-0.360,0.000,0.000,0.000
1641221000640253184,2022-01-03-14:43:20,10.1.1.6,190,-0.370,-0.370,-0.370,0.000,0.000,0.000
1641221000839854848,2022-01-03-14:43:20,10.1.1.6,188,-0.380,-0.380,-0.380,0.000,0.000,0.000
1641221001040209920,2022-01-03-14:43:21,10.1.1.6,187,-0.390,-0.390,-0.390,0.000,0.000,0.000
1641221001239651840,2022-01-03-14:43:21,10.1.1.6,186,-0.400,-0.400,-0.400,0.000,0.000,0.000
1641221001440390144,2022-01-03-14:43:21,10.1.1.6,185,-0.410,-0.410,-0.410,0.000,0.000,0.000
1641221001641024000,2022-01-03-14:43:21,10.1.1.6,185,-0.420,-0.420,-0.420,0.000,0.000,0.000
1641221001841264896,2022-01-03-14:43:21,10.1.1.6,184,-0.430,-0.430,-0.430,0.000,0.000,0.000
1641221002040469760,2022-01-03-14:43:22,10.1.1.6,181,-0.440,-0.440,-0.440,0.000,0.000,0.000
1641221002240542976,2022-01-03-14:43:22,10.1.1.6,180,-0.450,-0.450,-0.450,0.000,0.000,0.000
1641221002442024960,2022-01-03-14:43:22,10.1.1.6,181,-0.460,-0.460,-0.460,0.000,0.000,0.000
1641221002661686016,2022-01-03-14:43:22,10.1.1.6,200,-0.470,-0.470,-0.470,0.000,0.000,0.000
1641221002860996864,2022-01-03-14:43:22,10.1.1.6,198,-0.480,-0.480,-0.480,0.000,0.000,0.000
1641221003060713984,2022-01-03-14:43:23,10.1.1.6,197,-0.490,-0.490,-0.490,0.000,0.000,0.000
1641221003460840960,2022-01-03-14:43:23,10.1.1.6,194,-0.470,-0.470,-0.470,0.000,0.000,0.000
1641221003660784128,2022-01-03-14:43:23,10.1.1.6,193,-0.460,-0.460,-0.460,0.000,0.000,0.000
1641221003861483008,2022-01-03-14:43:23,10.1.1.6,192,-0.450,-0.450,-0.450,0.000,0.000,0.000
1641221004061191168,2022-01-03-14:43:24,10.1.1.6,191,-0.440,-0.440,-0.440,0.000,0.000,0.000
1641221004265878016,2022-01-03-14:43:24,10.1.1.6,195,-0.430,-0.430,-0.430,0.000,0.000,0.000
1641221004461945088,2022-01-03-14:43:24,10.1.1.6,191,-0.420,-0.420,-0.420,0.000,0.000,0.000
1641221004661579008,2022-01-03-14:43:24,10.1.1.6,188,-0.410,-0.410,-0.410,0.000,0.000,0.000
1641221004862206976,2022-01-03-14:43:24,10.1.1.6,188,-0.400,-0.400,-0.400,0.000,0.000,0.000
1641221005061198080,2022-01-03-14:43:25,10.1.1.6,185,-0.390,-0.390,-0.390,0.000,0.000,0.000
1641221005261298944,2022-01-03-14:43:25,10.1.1.6,184,-0.380,-0.380,-0.380,0.000,0.000,0.000
1641221005462255104,2022-01-03-14:43:25,10.1.1.6,185,-0.370,-0.370,-0.370,0.000,0.000,0.000
1641221005661475840,2022-01-03-14:43:25,10.1.1.6,183,-0.360,-0.360,-0.360,0.000,0.000,0.000
1641221005861715968,2022-01-03-14:43:25,10.1.1.6,181,-0.350,-0.350,-0.350,0.000,0.000,0.000
1641221006080334848,2022-01-03-14:43:26,10.1.1.6,198,-0.340,-0.340,-0.340,0.000,0.000,0.000
1641221006280844032,2022-01-03-14:43:26,10.1.1.6,195,-0.330,-0.330,-0.330,0.000,0.000,0.000
1641221006480564992,2022-01-03-14:43:26,10.1.1.6,194,-0.320,-0.320,-0.320,0.000,0.000,0.000
1641221006680950016,2022-01-03-14:43:26,10.1.1.6,194,-0.310,-0.310,-0.310,0.000,0.000,0.000
1641221006881263872,2022-01-03-14:43:26,10.1.1.6,193,-0.300,-0.300,-0.300,0.000,0.000,0.000
1641221007080274944,2022-01-03-14:43:27,10.1.1.6,192,-0.290,-0.290,-0.290,0.000,0.000,0.000
1641221007279803136,2022-01-03-14:43:27,10.1.1.6,190,-0.280,-0.280,-0.280,0.000,0.000,0.000
1641221007480158976,2022-01-03-14:43:27,10.1.1.6,189,-0.270,-0.270,-0.270,0.000,0.000,0.000
1641221007680346112,2022-01-03-14:43:27,10.1.1.6,188,-0.260,-0.260,-0.260,0.000,0.000,0.000
1641221007880112896,2022-01-03-14:43:27,10.1.1.6,187,-0.250,-0.250,-0.250,0.000,0.000,0.000
1641221008079682048,2022-01-03-14:43:28,10.1.1.6,186,-0.240,-0.240,-0.240,0.000,0.000,0.000
1641221008279897856,2022-01-03-14:43:28,10.1.1.6,185,-0.230,-0.230,-0.230,0.000,0.000,0.000
1641221008479461888,2022-01-03-14:43:28,10.1.1.6,182,-0.220,-0.220,-0.220,0.000,0.000,0.000
1641221008678880000,2022-01-03-14:43:28,10.1.1.6,180,-0.210,-0.210,-0.210,0.000,0.000,0.000
1641221008881227008,2022-01-03-14:43:28,10.1.1.6,182,-0.200,-0.200,-0.200,0.000,0.000,0.000
1641221009078636032,2022-01-03-14:43:29,10.1.1.6,178,-0.190,-0.190,-0.190,0.000,0.000,0.000
1641221009278796032,2022-01-03-14:43:29,10.1.1.6,178,-0.180,-0.180,-0.180,0.000,0.000,0.000
1641221009498286848,2022-01-03-14:43:29,10.1.1.6,197,-0.170,-0.170,-0.170,0.000,0.000,0.000
1641221009698456064,2022-01-03-14:43:29,10.1.1.6,197,-0.160,-0.160,-0.160,0.000,0.000,0.000
1641221009897739008,2022-01-03-14:43:29,10.1.1.6,196,-0.150,-0.150,-0.150,0.000,0.000,0.000
1641221010097346048,2022-01-03-14:43:30,10.1.1.6,194,-0.140,-0.140,-0.140,0.000,0.000,0.000
1641221010298019840,2022-01-03-14:43:30,10.1.1.6,194,-0.130,-0.130,-0.130,0.000,0.000,0.000
1641221010497682176,2022-01-03-14:43:30,10.1.1.6,193,-0.120,-0.120,-0.120,0.000,0.000,0.000
1641221010697305856,2022-01-03-14:43:30,10.1.1.6,192,-0.110,-0.110,-0.110,0.000,0.000,0.000
1641221010896728064,2022-01-03-14:43:30,10.1.1.6,191,-0.100,-0.100,-0.100,0.000,0.000,0.000
1641221011100580864,2022-01-03-14:43:31,10.1.1.6,193,-0.090,-0.090,-0.090,0.000,0.000,0.000
1641221011296397824,2022-01-03-14:43:31,10.1.1.6,189,-0.080,-0.080,-0.080,0.000,0.000,0.000
1641221011495881984,2022-01-03-14:43:31,10.1.1.6,188,-0.070,-0.070,-0.070,0.000,0.000,0.000
1641221011696075008,2022-01-03-14:43:31,10.1.1.6,187,-0.060,-0.060,-0.060,0.000,0.000,0.000
1641221011895372032,2022-01-03-14:43:31,10.1.1.6,186,-0.050,-0.050,-0.050,0.000,0.000,0.000
1641221012099404032,2022-01-03-14:43:32,10.1.1.6,189,-0.040,-0.040,-0.040,0.000,0.000,0.000
1641221012294918144,2022-01-03-14:43:32,10.1.1.6,182,-0.030,-0.030,-0.030,0.000,0.000,0.000
1641221012495880960,2022-01-03-14:43:32,10.1.1.6,181,-0.020,-0.020,-0.020,0.000,0.000,0.000
1641221012716402944,2022-01-03-14:43:32,10.1.1.6,193,-0.010,-0.010,-0.010,0.000,0.000,0.000
1641221012914787072,2022-01-03-14:43:32,10.1.1.6,192,0.000,0.000,0.000,0.000,0.000,0.000
1641221013114546176,2022-01-03-14:43:33,10.1.1.6,190,-0.010,-0.010,-0.010,0.000,0.000,0.000
1641221013317042944,2022-01-03-14:43:33,10.1.1.6,192,-0.020,-0.020,-0.020,0.000,0.000,0.000
1641221013513542912,2022-01-03-14:43:33,10.1.1.6,188,-0.030,-0.030,-0.030,0.000,0.000,0.000
1641221013713612032,2022-01-03-14:43:33,10.1.1.6,187,-0.040,-0.040,-0.040,0.000,0.000,0.000
1641221013913065984,2022-01-03-14:43:33,10.1.1.6,186,-0.050,-0.050,-0.050,0.000,0.000,0.000
1641221014112937984,2022-01-03-14:43:34,10.1.1.6,184,-0.060,-0.060,-0.060,0.000,0.000,0.000
1641221014313010944,2022-01-03-14:43:34,10.1.1.6,184,-0.070,-0.070,-0.070,0.000,0.000,0.000
1641221014512540160,2022-01-03-14:43:34,10.1.1.6,182,-0.080,-0.080,-0.080,0.000,0.000,0.000
1641221014711870976,2022-01-03-14:43:34,10.1.1.6,181,-0.090,-0.090,-0.090,0.000,0.000,0.000
1641221014912451072,2022-01-03-14:43:34,10.1.1.6,181,-0.100,-0.100,-0.100,0.000,0.000,0.000
1641221015111774976,2022-01-03-14:43:35,10.1.1.6,179,-0.110,-0.110,-0.110,0.000,0.000,0.000
1641221015312340992,2022-01-03-14:43:35,10.1.1.6,178,-0.120,-0.120,-0.120,0.000,0.000,0.000
1641221015512691968,2022-01-03-14:43:35,10.1.1.6,177,-0.130,-0.130,-0.130,0.000,0.000,0.000
1641221015711527168,2022-01-03-14:43:35,10.1.1.6,173,-0.140,-0.140,-0.140,0.000,0.000,0.000
1641221015911298048,2022-01-03-14:43:35,10.1.1.6,172,-0.150,-0.150,-0.150,0.000,0.000,0.000
1641221016131058944,2022-01-03-14:43:36,10.1.1.6,189,-0.160,-0.160,-0.160,0.000,0.000,0.000
1641221016530438912,2022-01-03-14:43:36,10.1.1.6,180,-0.180,-0.180,-0.180,0.000,0.000,0.000
1641221016750017792,2022-01-03-14:43:36,10.1.1.6,179,-0.190,-0.190,-0.190,0.000,0.000,0.000
1641221016949729792,2022-01-03-14:43:36,10.1.1.6,179,-0.200,-0.200,-0.200,0.000,0.000,0.000
1641221017149128960,2022-01-03-14:43:37,10.1.1.6,178,-0.210,-0.210,-0.210,0.000,0.000,0.000
1641221017349270016,2022-01-03-14:43:37,10.1.1.6,176,-0.220,-0.220,-0.220,0.000,0.000,0.000
1641221017557584896,2022-01-03-14:43:37,10.1.1.6,184,-0.230,-0.230,-0.230,0.000,0.000,0.000
1641221017748306944,2022-01-03-14:43:37,10.1.1.6,174,-0.240,-0.240,-0.240,0.000,0.000,0.000
1641221017950704128,2022-01-03-14:43:37,10.1.1.6,176,-0.250,-0.250,-0.250,0.000,0.000,0.000
1641221018147512064,2022-01-03-14:43:38,10.1.1.6,171,-0.260,-0.260,-0.260,0.000,0.000,0.000
1641221018347394816,2022-01-03-14:43:38,10.1.1.6,170,-0.270,-0.270,-0.270,0.000,0.000,0.000
1641221018550863872,2022-01-03-14:43:38,10.1.1.6,172,-0.280,-0.280,-0.280,0.000,0.000,0.000
1641221018746788864,2022-01-03-14:43:38,10.1.1.6,168,-0.290,-0.290,-0.290,0.000,0.000,0.000
1641221018946472960,2022-01-03-14:43:38,10.1.1.6,167,-0.300,-0.300,-0.300,0.000,0.000,0.000
1641221019146347008,2022-01-03-14:43:39,10.1.1.6,167,-0.310,-0.310,-0.310,0.000,0.000,0.000
1641221019347116032,2022-01-03-14:43:39,10.1.1.6,166,-0.320,-0.320,-0.320,0.000,0.000,0.000
1641221019546262016,2022-01-03-14:43:39,10.1.1.6,166,-0.330,-0.330,-0.330,0.000,0.000,0.000
1641221019765656832,2022-01-03-14:43:39,10.1.1.6,184,-0.340,-0.340,-0.340,0.000,0.000,0.000
1641221019965239040,2022-01-03-14:43:39,10.1.1.6,182,-0.350,-0.350,-0.350,0.000,0.000,0.000
1641221020165848064,2022-01-03-14:43:40,10.1.1.6,182,-0.360,-0.360,-0.360,0.000,0.000,0.000
1641221020364500992,2022-01-03-14:43:40,10.1.1.6,180,-0.370,-0.370,-0.370,0.000,0.000,0.000
1641221020564306944,2022-01-03-14:43:40,10.1.1.6,179,-0.380,-0.380,-0.380,0.000,0.000,0.000
1641221020771055872,2022-01-03-14:43:40,10.1.1.6,186,-0.390,-0.390,-0.390,0.000,0.000,0.000
1641221020963678976,2022-01-03-14:43:40,10.1.1.6,178,-0.400,-0.400,-0.400,0.000,0.000,0.000
1641221021167692032,2022-01-03-14:43:41,10.1.1.6,181,-0.410,-0.410,-0.410,0.000,0.000,0.000
1641221021363388928,2022-01-03-14:43:41,10.1.1.6,175,-0.420,-0.420,-0.420,0.000,0.000,0.000
1641221021562739968,2022-01-03-14:43:41,10.1.1.6,172,-0.430,-0.430,-0.430,0.000,0.000,0.000
1641221021763051008,2022-01-03-14:43:41,10.1.1.6,172,-0.440,-0.440,-0.440,0.000,0.000,0.000
1641221021965008128,2022-01-03-14:43:41,10.1.1.6,174,-0.450,-0.450,-0.450,0.000,0.000,0.000
1641221022162075136,2022-01-03-14:43:42,10.1.1.6,170,-0.460,-0.460,-0.460,0.000,0.000,0.000
1641221022361265920,2022-01-03-14:43:42,10.1.1.6,169,-0.470,-0.470,-0.470,0.000,0.000,0.000
1641221022561036032,2022-01-03-14:43:42,10.1.1.6,168,-0.480,-0.480,-0.480,0.000,0.000,0.000
1641221022761131008,2022-01-03-14:43:42,10.1.1.6,167,-0.490,-0.490,-0.490,0.000,0.000,0.000
1641221022959988224,2022-01-03-14:43:42,10.1.1.6,165,-0.480,-0.480,-0.480,0.000,0.000,0.000
1641221023160402944,2022-01-03-14:43:43,10.1.1.6,164,-0.470,-0.470,-0.470,0.000,0.000,0.000
1641221023360677888,2022-01-03-14:43:43,10.1.1.6,163,-0.460,-0.460,-0.460,0.000,0.000,0.000
1641221023559475968,2022-01-03-14:43:43,10.1.1.6,159,-0.450,-0.450,-0.450,0.000,0.000,0.000
1641221023780150016,2022-01-03-14:43:43,10.1.1.6,171,-0.440,-0.440,-0.440,0.000,0.000,0.000
1641221023981964032,2022-01-03-14:43:43,10.1.1.6,172,-0.430,-0.430,-0.430,0.000,0.000,0.000
1641221024178750976,2022-01-03-14:43:44,10.1.1.6,167,-0.420,-0.420,-0.420,0.000,0.000,0.000
1641221024384741120,2022-01-03-14:43:44,10.1.1.6,172,-0.410,-0.410,-0.410,0.000,0.000,0.000
1641221024577606912,2022-01-03-14:43:44,10.1.1.6,164,-0.400,-0.400,-0.400,0.000,0.000,0.000
1641221024777785088,2022-01-03-14:43:44,10.1.1.6,158,-0.390,-0.390,-0.390,0.000,0.000,0.000
1641221024997498880,2022-01-03-14:43:44,10.1.1.6,176,-0.380,-0.380,-0.380,0.000,0.000,0.000
1641221025198132992,2022-01-03-14:43:45,10.1.1.6,174,-0.370,-0.370,-0.370,0.000,0.000,0.000
1641221025399256832,2022-01-03-14:43:45,10.1.1.6,174,-0.360,-0.360,-0.360,0.000,0.000,0.000
1641221025605148160,2022-01-03-14:43:45,10.1.1.6,178,-0.350,-0.350,-0.350,0.000,0.000,0.000
1641221025801688064,2022-01-03-14:43:45,10.1.1.6,172,-0.340,-0.340,-0.340,0.000,0.000,0.000
1641221026002338048,2022-01-03-14:43:46,10.1.1.6,172,-0.330,-0.330,-0.330,0.000,0.000,0.000
1641221026204102144,2022-01-03-14:43:46,10.1.1.6,173,-0.320,-0.320,-0.320,0.000,0.000,0.000
1641221026404011008,2022-01-03-14:43:46,10.1.1.6,172,-0.310,-0.310,-0.310,0.000,0.000,0.000
1641221026605135872,2022-01-03-14:43:46,10.1.1.6,173,-0.300,-0.300,-0.300,0.000,0.000,0.000
1641221026810170880,2022-01-03-14:43:46,10.1.1.6,176,-0.290,-0.290,-0.290,0.000,0.000,0.000
1641221027007396864,2022-01-03-14:43:47,10.1.1.6,173,-0.280,-0.280,-0.280,0.000,0.000,0.000
1641221027207671040,2022-01-03-14:43:47,10.1.1.6,173,-0.270,-0.270,-0.270,0.000,0.000,0.000
1641221027408416000,2022-01-03-14:43:47,10.1.1.6,173,-0.260,-0.260,-0.260,0.000,0.000,0.000
1641221027613185024,2022-01-03-14:43:47,10.1.1.6,176,-0.250,-0.250,-0.250,0.000,0.000,0.000
1641221027812532992,2022-01-03-14:43:47,10.1.1.6,172,-0.240,-0.240,-0.240,0.000,0.000,0.000
1641221028010520064,2022-01-03-14:43:48,10.1.1.6,170,-0.230,-0.230,-0.230,0.000,0.000,0.000
1641221028231524864,2022-01-03-14:43:48,10.1.1.6,191,-0.220,-0.220,-0.220,0.000,0.000,0.000
1641221028435857920,2022-01-03-14:43:48,10.1.1.6,193,-0.210,-0.210,-0.210,0.000,0.000,0.000
1641221028634134016,2022-01-03-14:43:48,10.1.1.6,188,-0.200,-0.200,-0.200,0.000,0.000,0.000
1641221028833317120,2022-01-03-14:43:48,10.1.1.6,185,-0.190,-0.190,-0.190,0.000,0.000,0.000
1641221029033241088,2022-01-03-14:43:49,10.1.1.6,183,-0.180,-0.180,-0.180,0.000,0.000,0.000
1641221029233562880,2022-01-03-14:43:49,10.1.1.6,182,-0.170,-0.170,-0.170,0.000,0.000,0.000
1641221029434041088,2022-01-03-14:43:49,10.1.1.6,182,-0.160,-0.160,-0.160,0.000,0.000,0.000
1641221029635976192,2022-01-03-14:43:49,10.1.1.6,183,-0.150,-0.150,-0.150,0.000,0.000,0.000
1641221029834893056,2022-01-03-14:43:49,10.1.1.6,181,-0.140,-0.140,-0.140,0.000,0.000,0.000
1641221030036114944,2022-01-03-14:43:50,10.1.1.6,182,-0.130,-0.130,-0.130,0.000,0.000,0.000
1641221030236086016,2022-01-03-14:43:50,10.1.1.6,181,-0.120,-0.120,-0.120,0.000,0.000,0.000
1641221030436395008,2022-01-03-14:43:50,10.1.1.6,180,-0.110,-0.110,-0.110,0.000,0.000,0.000
1641221030637075968,2022-01-03-14:43:50,10.1.1.6,180,-0.100,-0.100,-0.100,0.000,0.000,0.000
1641221030837320960,2022-01-03-14:43:50,10.1.1.6,179,-0.090,-0.090,-0.090,0.000,0.000,0.000
1641221031037861120,2022-01-03-14:43:51,10.1.1.6,179,-0.080,-0.080,-0.080,0.000,0.000,0.000
1641221031237757952,2022-01-03-14:43:51,10.1.1.6,179,-0.070,-0.070,-0.070,0.000,0.000,0.000
1641221031438568192,2022-01-03-14:43:51,10.1.1.6,179,-0.060,-0.060,-0.060,0.000,0.000,0.000
1641221031638864128,2022-01-03-14:43:51,10.1.1.6,179,-0.050,-0.050,-0.050,0.000,0.000,0.000
1641221031839212032,2022-01-03-14:43:51,10.1.1.6,178,-0.040,-0.040,-0.040,0.000,0.000,0.000
1641221032060260096,2022-01-03-14:43:52,10.1.1.6,198,-0.030,-0.030,-0.030,0.000,0.000,0.000
1641221032260303872,2022-01-03-14:43:52,10.1.1.6,196,-0.020,-0.020,-0.020,0.000,0.000,0.000
1641221032459675904,2022-01-03-14:43:52,10.1.1.6,193,-0.010,-0.010,-0.010,0.000,0.000,0.000
1641221032660657920,2022-01-03-14:43:52,10.1.1.6,193,0.000,0.000,0.000,0.000,0.000,0.000
1641221032862204160,2022-01-03-14:43:52,10.1.1.6,191,-0.010,-0.010,-0.010,0.000,0.000,0.000
1641221033060518144,2022-01-03-14:43:53,10.1.1.6,188,-0.020,-0.020,-0.020,0.000,0.000,0.000
1641221033260139008,2022-01-03-14:43:53,10.1.1.6,187,-0.030,-0.030,-0.030,0.000,0.000,0.000
1641221033461484800,2022-01-03-14:43:53,10.1.1.6,187,-0.040,-0.040,-0.040,0.000,0.000,0.000
1641221033660595968,2022-01-03-14:43:53,10.1.1.6,186,-0.050,-0.050,-0.050,0.000,0.000,0.000
1641221034061068032,2022-01-03-14:43:54,10.1.1.6,184,-0.070,-0.070,-0.070,0.000,0.000,0.000
1641221034269420032,2022-01-03-14:43:54,10.1.1.6,192,-0.080,-0.080,-0.080,0.000,0.000,0.000
1641221034462046976,2022-01-03-14:43:54,10.1.1.6,183,-0.090,-0.090,-0.090,0.000,0.000,0.000
1641221034661984000,2022-01-03-14:43:54,10.1.1.6,182,-0.100,-0.100,-0.100,0.000,0.000,0.000
1641221034867505920,2022-01-03-14:43:54,10.1.1.6,187,-0.110,-0.110,-0.110,0.000,0.000,0.000
1641221035081614080,2022-01-03-14:43:55,10.1.1.6,200,-0.120,-0.120,-0.120,0.000,0.000,0.000
1641221035281606912,2022-01-03-14:43:55,10.1.1.6,199,-0.130,-0.130,-0.130,0.000,0.000,0.000
1641221035481762816,2022-01-03-14:43:55,10.1.1.6,199,-0.140,-0.140,-0.140,0.000,0.000,0.000
1641221035681330944,2022-01-03-14:43:55,10.1.1.6,198,-0.150,-0.150,-0.150,0.000,0.000,0.000
1641221035881867776,2022-01-03-14:43:55,10.1.1.6,197,-0.160,-0.160,-0.160,0.000,0.000,0.000
1641221036081225984,2022-01-03-14:43:56,10.1.1.6,196,-0.170,-0.170,-0.170,0.000,0.000,0.000
1641221036281944064,2022-01-03-14:43:56,10.1.1.6,196,-0.180,-0.180,-0.180,0.000,0.000,0.000
1641221036481387008,2022-01-03-14:43:56,10.1.1.6,194,-0.190,-0.190,-0.190,0.000,0.000,0.000
1641221036680953088,2022-01-03-14:43:56,10.1.1.6,191,-0.200,-0.200,-0.200,0.000,0.000,0.000
1641221036881503232,2022-01-03-14:43:56,10.1.1.6,191,-0.210,-0.210,-0.210,0.000,0.000,0.000
1641221037081385984,2022-01-03-14:43:57,10.1.1.6,190,-0.220,-0.220,-0.220,0.000,0.000,0.000
1641221037280889088,2022-01-03-14:43:57,10.1.1.6,184,-0.230,-0.230,-0.230,0.000,0.000,0.000
1641221037481132032,2022-01-03-14:43:57,10.1.1.6,181,-0.240,-0.240,-0.240,0.000,0.000,0.000
1641221037683506944,2022-01-03-14:43:57,10.1.1.6,183,-0.250,-0.250,-0.250,0.000,0.000,0.000
1641221038101663232,2022-01-03-14:43:58,10.1.1.6,200,-0.270,-0.270,-0.270,0.000,0.000,0.000
1641221038301039872,2022-01-03-14:43:58,10.1.1.6,198,-0.280,-0.280,-0.280,0.000,0.000,0.000
1641221038501108992,2022-01-03-14:43:58,10.1.1.6,197,-0.290,-0.290,-0.290,0.000,0.000,0.000
1641221038700727040,2022-01-03-14:43:58,10.1.1.6,196,-0.300,-0.300,-0.300,0.000,0.000,0.000
1641221038900428032,2022-01-03-14:43:58,10.1.1.6,194,-0.310,-0.310,-0.310,0.000,0.000,0.000
1641221039101123072,2022-01-03-14:43:59,10.1.1.6,193,-0.320,-0.320,-0.320,0.000,0.000,0.000
1641221039301892096,2022-01-03-14:43:59,10.1.1.6,194,-0.330,-0.330,-0.330,0.000,0.000,0.000
1641221039500494080,2022-01-03-14:43:59,10.1.1.6,190,-0.340,-0.340,-0.340,0.000,0.000,0.000
1641221039711950080,2022-01-03-14:43:59,10.1.1.6,191,-0.350,-0.350,-0.350,0.000,0.000,0.000
1641221039902025984,2022-01-03-14:43:59,10.1.1.6,188,-0.360,-0.360,-0.360,0.000,0.000,0.000
1641221040119613952,2022-01-03-14:44:00,10.1.1.6,191,-0.370,-0.370,-0.370,0.000,0.000,0.000
1641221040325550080,2022-01-03-14:44:00,10.1.1.6,195,-0.380,-0.380,-0.380,0.000,0.000,0.000
1641221040519762944,2022-01-03-14:44:00,10.1.1.6,189,-0.390,-0.390,-0.390,0.000,0.000,0.000
1641221040719228928,2022-01-03-14:44:00,10.1.1.6,188,-0.400,-0.400,-0.400,0.000,0.000,0.000
1641221040918732800,2022-01-03-14:44:00,10.1.1.6,186,-0.410,-0.410,-0.410,0.000,0.000,0.000
1641221041119142144,2022-01-03-14:44:01,10.1.1.6,186,-0.420,-0.420,-0.420,0.000,0.000,0.000
1641221041321244928,2022-01-03-14:44:01,10.1.1.6,187,-0.430,-0.430,-0.430,0.000,0.000,0.000
1641221041525110016,2022-01-03-14:44:01,10.1.1.6,187,-0.440,-0.440,-0.440,0.000,0.000,0.000
1641221041718233088,2022-01-03-14:44:01,10.1.1.6,178,-0.450,-0.450,-0.450,0.000,0.000,0.000
1641221041938110976,2022-01-03-14:44:01,10.1.1.6,196,-0.460,-0.460,-0.460,0.000,0.000,0.000
1641221042138159872,2022-01-03-14:44:02,10.1.1.6,196,-0.470,-0.470,-0.470,0.000,0.000,0.000
1641221042337680128,2022-01-03-14:44:02,10.1.1.6,194,-0.480,-0.480,-0.480,0.000,0.000,0.000
1641221042537658880,2022-01-03-14:44:02,10.1.1.6,193,-0.490,-0.490,-0.490,0.000,0.000,0.000
1641221042737012992,2022-01-03-14:44:02,10.1.1.6,192,-0.480,-0.480,-0.480,0.000,0.000,0.000
1641221042938961152,2022-01-03-14:44:02,10.1.1.6,194,-0.470,-0.470,-0.470,0.000,0.000,0.000
1641221043136729856,2022-01-03-14:44:03,10.1.1.6,191,-0.460,-0.460,-0.460,0.000,0.000,0.000
1641221043337615872,2022-01-03-14:44:03,10.1.1.6,191,-0.450,-0.450,-0.450,0.000,0.000,0.000
1641221043536956160,2022-01-03-14:44:03,10.1.1.6,190,-0.440,-0.440,-0.440,0.000,0.000,0.000
1641221043737001984,2022-01-03-14:44:03,10.1.1.6,188,-0.430,-0.430,-0.430,0.000,0.000,0.000
1641221043935437824,2022-01-03-14:44:03,10.1.1.6,185,-0.420,-0.420,-0.420,0.000,0.000,0.000
1641221044135627008,2022-01-03-14:44:04,10.1.1.6,185,-0.410,-0.410,-0.410,0.000,0.000,0.000
1641221044335776000,2022-01-03-14:44:04,10.1.1.6,184,-0.400,-0.400,-0.400,0.000,0.000,0.000
1641221044535398912,2022-01-03-14:44:04,10.1.1.6,183,-0.390,-0.390,-0.390,0.000,0.000,0.000
1641221044738679808,2022-01-03-14:44:04,10.1.1.6,185,-0.380,-0.380,-0.380,0.000,0.000,0.000
1641221044934808064,2022-01-03-14:44:04,10.1.1.6,181,-0.370,-0.370,-0.370,0.000,0.000,0.000
1641221045134278144,2022-01-03-14:44:05,10.1.1.6,180,-0.360,-0.360,-0.360,0.000,0.000,0.000
1641221045334927104,2022-01-03-14:44:05,10.1.1.6,179,-0.350,-0.350,-0.350,0.000,0.000,0.000
1641221045554333952,2022-01-03-14:44:05,10.1.1.6,198,-0.340,-0.340,-0.340,0.000,0.000,0.000
1641221045740354048,2022-01-03-14:44:05,10.1.1.6,183,-0.330,-0.330,-0.330,0.000,0.000,0.000
1641221045935350784,2022-01-03-14:44:05,10.1.1.6,174,-0.320,-0.320,-0.320,0.000,0.000,0.000
1641221046152916992,2022-01-03-14:44:06,10.1.1.6,191,-0.310,-0.310,-0.310,0.000,0.000,0.000
1641221046352977920,2022-01-03-14:44:06,10.1.1.6,190,-0.300,-0.300,-0.300,0.000,0.000,0.000
1641221046552373760,2022-01-03-14:44:06,10.1.1.6,189,-0.290,-0.290,-0.290,0.000,0.000,0.000
1641221046752263168,2022-01-03-14:44:06,10.1.1.6,188,-0.280,-0.280,-0.280,0.000,0.000,0.000
1641221046952524032,2022-01-03-14:44:06,10.1.1.6,187,-0.270,-0.270,-0.270,0.000,0.000,0.000
1641221047152247808,2022-01-03-14:44:07,10.1.1.6,187,-0.260,-0.260,-0.260,0.000,0.000,0.000
1641221047352571136,2022-01-03-14:44:07,10.1.1.6,186,-0.250,-0.250,-0.250,0.000,0.000,0.000
1641221047551651840,2022-01-03-14:44:07,10.1.1.6,185,-0.240,-0.240,-0.240,0.000,0.000,0.000
1641221047751524864,2022-01-03-14:44:07,10.1.1.6,181,-0.230,-0.230,-0.230,0.000,0.000,0.000
1641221047951134976,2022-01-03-14:44:07,10.1.1.6,180,-0.220,-0.220,-0.220,0.000,0.000,0.000
1641221048154280960,2022-01-03-14:44:08,10.1.1.6,182,-0.210,-0.210,-0.210,0.000,0.000,0.000
1641221048350821120,2022-01-03-14:44:08,10.1.1.6,178,-0.200,-0.200,-0.200,0.000,0.000,0.000
1641221048550473984,2022-01-03-14:44:08,10.1.1.6,177,-0.190,-0.190,-0.190,0.000,0.000,0.000
1641221048750513152,2022-01-03-14:44:08,10.1.1.6,177,-0.180,-0.180,-0.180,0.000,0.000,0.000
1641221048950036992,2022-01-03-14:44:08,10.1.1.6,176,-0.170,-0.170,-0.170,0.000,0.000,0.000
1641221049149677056,2022-01-03-14:44:09,10.1.1.6,174,-0.160,-0.160,-0.160,0.000,0.000,0.000
1641221049349644800,2022-01-03-14:44:09,10.1.1.6,174,-0.150,-0.150,-0.150,0.000,0.000,0.000
1641221049559448064,2022-01-03-14:44:09,10.1.1.6,183,-0.140,-0.140,-0.140,0.000,0.000,0.000
1641221049749638912,2022-01-03-14:44:09,10.1.1.6,173,-0.130,-0.130,-0.130,0.000,0.000,0.000
1641221049948452096,2022-01-03-14:44:09,10.1.1.6,171,-0.120,-0.120,-0.120,0.000,0.000,0.000
1641221050149841152,2022-01-03-14:44:10,10.1.1.6,172,-0.110,-0.110,-0.110,0.000,0.000,0.000
1641221050348640000,2022-01-03-14:44:10,10.1.1.6,170,-0.100,-0.100,-0.100,0.000,0.000,0.000
1641221050548239104,2022-01-03-14:44:10,10.1.1.6,169,-0.090,-0.090,-0.090,0.000,0.000,0.000
1641221050767191808,2022-01-03-14:44:10,10.1.1.6,183,-0.080,-0.080,-0.080,0.000,0.000,0.000
1641221050968534016,2022-01-03-14:44:10,10.1.1.6,184,-0.070,-0.070,-0.070,0.000,0.000,0.000
1641221051166040064,2022-01-03-14:44:11,10.1.1.6,181,-0.060,-0.060,-0.060,0.000,0.000,0.000
1641221051366057984,2022-01-03-14:44:11,10.1.1.6,180,-0.050,-0.050,-0.050,0.000,0.000,0.000
1641221051567662080,2022-01-03-14:44:11,10.1.1.6,181,-0.040,-0.040,-0.040,0.000,0.000,0.000
1641221051767209984,2022-01-03-14:44:11,10.1.1.6,180,-0.030,-0.030,-0.030,0.000,0.000,0.000
1641221051965365760,2022-01-03-14:44:11,10.1.1.6,178,-0.020,-0.020,-0.020,0.000,0.000,0.000
1641221052164571904,2022-01-03-14:44:12,10.1.1.6,176,-0.010,-0.010,-0.010,0.000,0.000,0.000
1641221052366035968,2022-01-03-14:44:12,10.1.1.6,177,0.000,0.000,0.000,0.000,0.000,0.000
1641221052564506112,2022-01-03-14:44:12,10.1.1.6,175,-0.010,-0.010,-0.010,0.000,0.000,0.000
1641221052764940032,2022-01-03-14:44:12,10.1.1.6,175,-0.020,-0.020,-0.020,0.000,0.000,0.000
1641221052964143104,2022-01-03-14:44:12,10.1.1.6,173,-0.030,-0.030,-0.030,0.000,0.000,0.000
1641221053164324096,2022-01-03-14:44:13,10.1.1.6,173,-0.040,-0.040,-0.040,0.000,0.000,0.000
1641221053363451904,2022-01-03-14:44:13,10.1.1.6,172,-0.050,-0.050,-0.050,0.000,0.000,0.000
1641221053563186944,2022-01-03-14:44:13,10.1.1.6,171,-0.060,-0.060,-0.060,0.000,0.000,0.000
1641221053763109888,2022-01-03-14:44:13,10.1.1.6,170,-0.070,-0.070,-0.070,0.000,0.000,0.000
1641221053967586048,2022-01-03-14:44:13,10.1.1.6,174,-0.080,-0.080,-0.080,0.000,0.000,0.000
1641221054162050048,2022-01-03-14:44:14,10.1.1.6,168,-0.090,-0.090,-0.090,0.000,0.000,0.000
1641221054361320960,2022-01-03-14:44:14,10.1.1.6,167,-0.100,-0.100,-0.100,0.000,0.000,0.000
1641221054562599936,2022-01-03-14:44:14,10.1.1.6,168,-0.110,-0.110,-0.110,0.000,0.000,0.000
1641221054761464064,2022-01-03-14:44:14,10.1.1.6,165,-0.120,-0.120,-0.120,0.000,0.000,0.000
1641221054960549120,2022-01-03-14:44:14,10.1.1.6,160,-0.130,-0.130,-0.130,0.000,0.000,0.000
1641221055180214784,2022-01-03-14:44:15,10.1.1.6,177,-0.140,-0.140,-0.140,0.000,0.000,0.000
1641221055380060928,2022-01-03-14:44:15,10.1.1.6,176,-0.150,-0.150,-0.150,0.000,0.000,0.000
1641221055580481024,2022-01-03-14:44:15,10.1.1.6,176,-0.160,-0.160,-0.160,0.000,0.000,0.000
1641221055779438848,2022-01-03-14:44:15,10.1.1.6,174,-0.170,-0.170,-0.170,0.000,0.000,0.000
1641221055978959104,2022-01-03-14:44:15,10.1.1.6,173,-0.180,-0.180,-0.180,0.000,0.000,0.000
1641221056179708928,2022-01-03-14:44:16,10.1.1.6,173,-0.190,-0.190,-0.190,0.000,0.000,0.000
1641221056377851904,2022-01-03-14:44:16,10.1.1.6,171,-0.200,-0.200,-0.200,0.000,0.000,0.000
1641221056577897984,2022-01-03-14:44:16,10.1.1.6,169,-0.210,-0.210,-0.210,0.000,0.000,0.000
1641221056778137088,2022-01-03-14:44:16,10.1.1.6,169,-0.220,-0.220,-0.220,0.000,0.000,0.000
1641221056977842176,2022-01-03-14:44:16,10.1.1.6,166,-0.230,-0.230,-0.230,0.000,0.000,0.000
1641221057182409984,2022-01-03-14:44:17,10.1.1.6,170,-0.240,-0.240,-0.240,0.000,0.000,0.000
1641221057379666944,2022-01-03-14:44:17,10.1.1.6,166,-0.250,-0.250,-0.250,0.000,0.000,0.000
1641221057580854784,2022-01-03-14:44:17,10.1.1.6,166,-0.260,-0.260,-0.260,0.000,0.000,0.000
1641221057780900864,2022-01-03-14:44:17,10.1.1.6,166,-0.270,-0.270,-0.270,0.000,0.000,0.000
1641221057982821888,2022-01-03-14:44:17,10.1.1.6,166,-0.280,-0.280,-0.280,0.000,0.000,0.000
1641221058183321088,2022-01-03-14:44:18,10.1.1.6,166,-0.290,-0.290,-0.290,0.000,0.000,0.000
1641221058385044224,2022-01-03-14:44:18,10.1.1.6,167,-0.300,-0.300,-0.300,0.000,0.000,0.000
1641221058584940032,2022-01-03-14:44:18,10.1.1.6,165,-0.310,-0.310,-0.310,0.000,0.000,0.000
1641221058785996032,2022-01-03-14:44:18,10.1.1.6,165,-0.320,-0.320,-0.320,0.000,0.000,0.000
1641221059007311104,2022-01-03-14:44:19,10.1.1.6,184,-0.330,-0.330,-0.330,0.000,0.000,0.000
1641221059207585024,2022-01-03-14:44:19,10.1.1.6,182,-0.340,-0.340,-0.340,0.000,0.000,0.000
1641221059408361984,2022-01-03-14:44:19,10.1.1.6,182,-0.350,-0.350,-0.350,0.000,0.000,0.000
1641221059609147136,2022-01-03-14:44:19,10.1.1.6,182,-0.360,-0.360,-0.360,0.000,0.000,0.000
1641221059810247936,2022-01-03-14:44:19,10.1.1.6,182,-0.370,-0.370,-0.370,0.000,0.000,0.000
1641221060013741056,2022-01-03-14:44:20,10.1.1.6,185,-0.380,-0.380,-0.380,0.000,0.000,0.000
1641221060211901952,2022-01-03-14:44:20,10.1.1.6,183,-0.390,-0.390,-0.390,0.000,0.000,0.000
1641221060412132096,2022-01-03-14:44:20,10.1.1.6,182,-0.400,-0.400,-0.400,0.000,0.000,0.000
1641221060612579072,2022-01-03-14:44:20,10.1.1.6,181,-0.410,-0.410,-0.410,0.000,0.000,0.000
1641221060813540864,2022-01-03-14:44:20,10.1.1.6,181,-0.420,-0.420,-0.420,0.000,0.000,0.000
1641221061013995776,2022-01-03-14:44:21,10.1.1.6,181,-0.430,-0.430,-0.430,0.000,0.000,0.000
1641221061213836800,2022-01-03-14:44:21,10.1.1.6,178,-0.440,-0.440,-0.440,0.000,0.000,0.000
1641221061414956032,2022-01-03-14:44:21,10.1.1.6,179,-0.450,-0.450,-0.450,0.000,0.000,0.000
1641221061618071040,2022-01-03-14:44:21,10.1.1.6,182,-0.460,-0.460,-0.460,0.000,0.000,0.000
1641221061815587072,2022-01-03-14:44:21,10.1.1.6,179,-0.470,-0.470,-0.470,0.000,0.000,0.000
1641221062016894976,2022-01-03-14:44:22,10.1.1.6,179,-0.480,-0.480,-0.480,0.000,0.000,0.000
1641221062216408064,2022-01-03-14:44:22,10.1.1.6,178,-0.490,-0.490,-0.490,0.000,0.000,0.000
1641221062418469888,2022-01-03-14:44:22,10.1.1.6,179,-0.480,-0.480,-0.480,0.000,0.000,0.000
1641221062618184960,2022-01-03-14:44:22,10.1.1.6,178,-0.470,-0.470,-0.470,0.000,0.000,0.000
1641221062819478016,2022-01-03-14:44:22,10.1.1.6,179,-0.460,-0.460,-0.460,0.000,0.000,0.000
1641221063020369152,2022-01-03-14:44:23,10.1.1.6,179,-0.450,-0.450,-0.450,0.000,0.000,0.000
1641221063239909888,2022-01-03-14:44:23,10.1.1.6,198,-0.440,-0.440,-0.440,0.000,0.000,0.000
1641221063439342080,2022-01-03-14:44:23,10.1.1.6,197,-0.430,-0.430,-0.430,0.000,0.000,0.000
1641221063639322112,2022-01-03-14:44:23,10.1.1.6,193,-0.420,-0.420,-0.420,0.000,0.000,0.000
1641221063839852032,2022-01-03-14:44:23,10.1.1.6,193,-0.410,-0.410,-0.410,0.000,0.000,0.000
1641221064040980992,2022-01-03-14:44:24,10.1.1.6,193,-0.400,-0.400,-0.400,0.000,0.000,0.000
1641221064240731904,2022-01-03-14:44:24,10.1.1.6,192,-0.390,-0.390,-0.390,0.000,0.000,0.000
1641221064443677952,2022-01-03-14:44:24,10.1.1.6,195,-0.380,-0.380,-0.380,0.000,0.000,0.000
1641221064640553984,2022-01-03-14:44:24,10.1.1.6,191,-0.370,-0.370,-0.370,0.000,0.000,0.000
1641221064848946176,2022-01-03-14:44:24,10.1.1.6,199,-0.360,-0.360,-0.360,0.000,0.000,0.000
1641221065041325056,2022-01-03-14:44:25,10.1.1.6,190,-0.350,-0.350,-0.350,0.000,0.000,0.000
1641221065241506048,2022-01-03-14:44:25,10.1.1.6,187,-0.340,-0.340,-0.340,0.000,0.000,0.000
1641221065442234112,2022-01-03-14:44:25,10.1.1.6,186,-0.330,-0.330,-0.330,0.000,0.000,0.000
1641221065642344960,2022-01-03-14:44:25,10.1.1.6,186,-0.320,-0.320,-0.320,0.000,0.000,0.000
1641221065841864192,2022-01-03-14:44:25,10.1.1.6,185,-0.310,-0.310,-0.310,0.000,0.000,0.000
1641221066062118912,2022-01-03-14:44:26,10.1.1.6,187,-0.300,-0.300,-0.300,0.000,0.000,0.000
1641221066262236160,2022-01-03-14:44:26,10.1.1.6,185,-0.290,-0.290,-0.290,0.000,0.000,0.000
1641221066462071808,2022-01-03-14:44:26,10.1.1.6,184,-0.280,-0.280,-0.280,0.000,0.000,0.000
1641221066670852864,2022-01-03-14:44:26,10.1.1.6,192,-0.270,-0.270,-0.270,0.000,0.000,0.000
1641221066862597888,2022-01-03-14:44:26,10.1.1.6,183,-0.260,-0.260,-0.260,0.000,0.000,0.000
1641221067062176000,2022-01-03-14:44:27,10.1.1.6,182,-0.250,-0.250,-0.250,0.000,0.000,0.000
1641221067882735872,2022-01-03-14:44:27,10.1.1.6,200,-0.210,-0.210,-0.210,0.000,0.000,0.000
1641221068284034048,2022-01-03-14:44:28,10.1.1.6,193,-0.190,-0.190,-0.190,0.000,0.000,0.000
1641221068482536960,2022-01-03-14:44:28,10.1.1.6,192,-0.180,-0.180,-0.180,0.000,0.000,0.000
1641221068682401024,2022-01-03-14:44:28,10.1.1.6,191,-0.170,-0.170,-0.170,0.000,0.000,0.000
1641221068884089856,2022-01-03-14:44:28,10.1.1.6,192,-0.160,-0.160,-0.160,0.000,0.000,0.000
1641221069082246912,2022-01-03-14:44:29,10.1.1.6,190,-0.150,-0.150,-0.150,0.000,0.000,0.000
1641221069282366976,2022-01-03-14:44:29,10.1.1.6,189,-0.140,-0.140,-0.140,0.000,0.000,0.000
1641221069489559040,2022-01-03-14:44:29,10.1.1.6,194,-0.130,-0.130,-0.130,0.000,0.000,0.000
1641221069682106880,2022-01-03-14:44:29,10.1.1.6,185,-0.120,-0.120,-0.120,0.000,0.000,0.000
1641221069889159936,2022-01-03-14:44:29,10.1.1.6,191,-0.110,-0.110,-0.110,0.000,0.000,0.000
1641221070085202944,2022-01-03-14:44:30,10.1.1.6,185,-0.100,-0.100,-0.100,0.000,0.000,0.000
1641221070702019072,2022-01-03-14:44:30,10.1.1.6,200,-0.070,-0.070,-0.070,0.000,0.000,0.000
1641221070901220096,2022-01-03-14:44:30,10.1.1.6,198,-0.060,-0.060,-0.060,0.000,0.000,0.000
1641221071102423040,2022-01-03-14:44:31,10.1.1.6,198,-0.050,-0.050,-0.050,0.000,0.000,0.000
1641221071501260032,2022-01-03-14:44:31,10.1.1.6,194,-0.030,-0.030,-0.030,0.000,0.000,0.000
1641221071701179904,2022-01-03-14:44:31,10.1.1.6,194,-0.020,-0.020,-0.020,0.000,0.000,0.000
1641221071900517888,2022-01-03-14:44:31,10.1.1.6,193,-0.010,-0.010,-0.010,0.000,0.000,0.000
1641221072111013888,2022-01-03-14:44:32,10.1.1.6,196,0.000,0.000,0.000,0.000,0.000,0.000
1641221072300247808,2022-01-03-14:44:32,10.1.1.6,182,-0.010,-0.010,-0.010,0.000,0.000,0.000
1641221072501127936,2022-01-03-14:44:32,10.1.1.6,183,-0.020,-0.020,-0.020,0.000,0.000,0.000
1641221072700165120,2022-01-03-14:44:32,10.1.1.6,181,-0.030,-0.030,-0.030,0.000,0.000,0.000
1641221072900011008,2022-01-03-14:44:32,10.1.1.6,180,-0.040,-0.040,-0.040,0.000,0.000,0.000
1641221073118190080,2022-01-03-14:44:33,10.1.1.6,198,-0.050,-0.050,-0.050,0.000,0.000,0.000
1641221073300355840,2022-01-03-14:44:33,10.1.1.6,180,-0.060,-0.060,-0.060,0.000,0.000,0.000
1641221073521001984,2022-01-03-14:44:33,10.1.1.6,200,-0.070,-0.070,-0.070,0.000,0.000,0.000
1641221073724939008,2022-01-03-14:44:33,10.1.1.6,202,-0.080,-0.080,-0.080,0.000,0.000,0.000
1641221073919401984,2022-01-03-14:44:33,10.1.1.6,188,-0.090,-0.090,-0.090,0.000,0.000,0.000
1641221074119312896,2022-01-03-14:44:34,10.1.1.6,187,-0.100,-0.100,-0.100,0.000,0.000,0.000
1641221074318691072,2022-01-03-14:44:34,10.1.1.6,186,-0.110,-0.110,-0.110,0.000,0.000,0.000
1641221074521699840,2022-01-03-14:44:34,10.1.1.6,187,-0.120,-0.120,-0.120,0.000,0.000,0.000
1641221074718370816,2022-01-03-14:44:34,10.1.1.6,178,-0.130,-0.130,-0.130,0.000,0.000,0.000
1641221074937922048,2022-01-03-14:44:34,10.1.1.6,197,-0.140,-0.140,-0.140,0.000,0.000,0.000
1641221075138039040,2022-01-03-14:44:35,10.1.1.6,196,-0.150,-0.150,-0.150,0.000,0.000,0.000
1641221075337996032,2022-01-03-14:44:35,10.1.1.6,196,-0.160,-0.160,-0.160,0.000,0.000,0.000
1641221075537473792,2022-01-03-14:44:35,10.1.1.6,195,-0.170,-0.170,-0.170,0.000,0.000,0.000
1641221075745112064,2022-01-03-14:44:35,10.1.1.6,198,-0.180,-0.180,-0.180,0.000,0.000,0.000
1641221075937145856,2022-01-03-14:44:35,10.1.1.6,191,-0.190,-0.190,-0.190,0.000,0.000,0.000
1641221076136796928,2022-01-03-14:44:36,10.1.1.6,190,-0.200,-0.200,-0.200,0.000,0.000,0.000
1641221076538256896,2022-01-03-14:44:36,10.1.1.6,178,-0.220,-0.220,-0.220,0.000,0.000,0.000
1641221076976169216,2022-01-03-14:44:36,10.1.1.6,189,-0.240,-0.240,-0.240,0.000,0.000,0.000
1641221077175930112,2022-01-03-14:44:37,10.1.1.6,189,-0.250,-0.250,-0.250,0.000,0.000,0.000
1641221077371442176,2022-01-03-14:44:37,10.1.1.6,184,-0.260,-0.260,-0.260,0.000,0.000,0.000
1641221077575252992,2022-01-03-14:44:37,10.1.1.6,187,-0.270,-0.270,-0.270,0.000,0.000,0.000
1641221077774436864,2022-01-03-14:44:37,10.1.1.6,185,-0.280,-0.280,-0.280,0.000,0.000,0.000
1641221077974808064,2022-01-03-14:44:37,10.1.1.6,185,-0.290,-0.290,-0.290,0.000,0.000,0.000
1641221078173840128,2022-01-03-14:44:38,10.1.1.6,183,-0.300,-0.300,-0.300,0.000,0.000,0.000
1641221078373935104,2022-01-03-14:44:38,10.1.1.6,182,-0.310,-0.310,-0.310,0.000,0.000,0.000
1641221078577029888,2022-01-03-14:44:38,10.1.1.6,181,-0.320,-0.320,-0.320,0.000,0.000,0.000
1641221078773896960,2022-01-03-14:44:38,10.1.1.6,178,-0.330,-0.330,-0.330,0.000,0.000,0.000
1641221078974312192,2022-01-03-14:44:38,10.1.1.6,178,-0.340,-0.340,-0.340,0.000,0.000,0.000
1641221079173451008,2022-01-03-14:44:39,10.1.1.6,176,-0.350,-0.350,-0.350,0.000,0.000,0.000
1641221079373532928,2022-01-03-14:44:39,10.1.1.6,175,-0.360,-0.360,-0.360,0.000,0.000,0.000
1641221079573817856,2022-01-03-14:44:39,10.1.1.6,175,-0.370,-0.370,-0.370,0.000,0.000,0.000
1641221079773243904,2022-01-03-14:44:39,10.1.1.6,173,-0.380,-0.380,-0.380,0.000,0.000,0.000
1641221079975630080,2022-01-03-14:44:39,10.1.1.6,175,-0.390,-0.390,-0.390,0.000,0.000,0.000
1641221080172611840,2022-01-03-14:44:40,10.1.1.6,172,-0.400,-0.400,-0.400,0.000,0.000,0.000
1641221080392329984,2022-01-03-14:44:40,10.1.1.6,191,-0.410,-0.410,-0.410,0.000,0.000,0.000
1641221080591520000,2022-01-03-14:44:40,10.1.1.6,189,-0.420,-0.420,-0.420,0.000,0.000,0.000
1641221080790976000,2022-01-03-14:44:40,10.1.1.6,188,-0.430,-0.430,-0.430,0.000,0.000,0.000
1641221080990493184,2022-01-03-14:44:40,10.1.1.6,187,-0.440,-0.440,-0.440,0.000,0.000,0.000
1641221081190680064,2022-01-03-14:44:41,10.1.1.6,187,-0.450,-0.450,-0.450,0.000,0.000,0.000
1641221081390340096,2022-01-03-14:44:41,10.1.1.6,184,-0.460,-0.460,-0.460,0.000,0.000,0.000
1641221081600781824,2022-01-03-14:44:41,10.1.1.6,194,-0.470,-0.470,-0.470,0.000,0.000,0.000
1641221081789527808,2022-01-03-14:44:41,10.1.1.6,182,-0.480,-0.480,-0.480,0.000,0.000,0.000
1641221081989347840,2022-01-03-14:44:41,10.1.1.6,181,-0.490,-0.490,-0.490,0.000,0.000,0.000
1641221082389161984,2022-01-03-14:44:42,10.1.1.6,180,-0.470,-0.470,-0.470,0.000,0.000,0.000
1641221082588219904,2022-01-03-14:44:42,10.1.1.6,178,-0.460,-0.460,-0.460,0.000,0.000,0.000
1641221082788212992,2022-01-03-14:44:42,10.1.1.6,178,-0.450,-0.450,-0.450,0.000,0.000,0.000
1641221082987883008,2022-01-03-14:44:42,10.1.1.6,177,-0.440,-0.440,-0.440,0.000,0.000,0.000
1641221083187751936,2022-01-03-14:44:43,10.1.1.6,176,-0.430,-0.430,-0.430,0.000,0.000,0.000
1641221083387566080,2022-01-03-14:44:43,10.1.1.6,175,-0.420,-0.420,-0.420,0.000,0.000,0.000
1641221083586656000,2022-01-03-14:44:43,10.1.1.6,174,-0.410,-0.410,-0.410,0.000,0.000,0.000
1641221083787940864,2022-01-03-14:44:43,10.1.1.6,174,-0.400,-0.400,-0.400,0.000,0.000,0.000
1641221083986584064,2022-01-03-14:44:43,10.1.1.6,172,-0.390,-0.390,-0.390,0.000,0.000,0.000
1641221084186429952,2022-01-03-14:44:44,10.1.1.6,172,-0.380,-0.380,-0.380,0.000,0.000,0.000
1641221084388649984,2022-01-03-14:44:44,10.1.1.6,173,-0.370,-0.370,-0.370,0.000,0.000,0.000
1641221084585059840,2022-01-03-14:44:44,10.1.1.6,169,-0.360,-0.360,-0.360,0.000,0.000,0.000
1641221084785376000,2022-01-03-14:44:44,10.1.1.6,168,-0.350,-0.350,-0.350,0.000,0.000,0.000
1641221084984719872,2022-01-03-14:44:44,10.1.1.6,167,-0.340,-0.340,-0.340,0.000,0.000,0.000
1641221085204436992,2022-01-03-14:44:45,10.1.1.6,183,-0.330,-0.330,-0.330,0.000,0.000,0.000
1641221085407164928,2022-01-03-14:44:45,10.1.1.6,185,-0.320,-0.320,-0.320,0.000,0.000,0.000
1641221085604238080,2022-01-03-14:44:45,10.1.1.6,181,-0.310,-0.310,-0.310,0.000,0.000,0.000
1641221085803945984,2022-01-03-14:44:45,10.1.1.6,180,-0.300,-0.300,-0.300,0.000,0.000,0.000
1641221086003511040,2022-01-03-14:44:46,10.1.1.6,179,-0.290,-0.290,-0.290,0.000,0.000,0.000
1641221086203988992,2022-01-03-14:44:46,10.1.1.6,179,-0.280,-0.280,-0.280,0.000,0.000,0.000
1641221086403686912,2022-01-03-14:44:46,10.1.1.6,178,-0.270,-0.270,-0.270,0.000,0.000,0.000
1641221086606507008,2022-01-03-14:44:46,10.1.1.6,179,-0.260,-0.260,-0.260,0.000,0.000,0.000
1641221086802124032,2022-01-03-14:44:46,10.1.1.6,175,-0.250,-0.250,-0.250,0.000,0.000,0.000
1641221087004480000,2022-01-03-14:44:47,10.1.1.6,177,-0.240,-0.240,-0.240,0.000,0.000,0.000
1641221087202290944,2022-01-03-14:44:47,10.1.1.6,173,-0.230,-0.230,-0.230,0.000,0.000,0.000
1641221087401905152,2022-01-03-14:44:47,10.1.1.6,172,-0.220,-0.220,-0.220,0.000,0.000,0.000
1641221087612472064,2022-01-03-14:44:47,10.1.1.6,182,-0.210,-0.210,-0.210,0.000,0.000,0.000
1641221087800615168,2022-01-03-14:44:47,10.1.1.6,170,-0.200,-0.200,-0.200,0.000,0.000,0.000
1641221088000299008,2022-01-03-14:44:48,10.1.1.6,169,-0.190,-0.190,-0.190,0.000,0.000,0.000
1641221088200294912,2022-01-03-14:44:48,10.1.1.6,168,-0.180,-0.180,-0.180,0.000,0.000,0.000
1641221088399501056,2022-01-03-14:44:48,10.1.1.6,167,-0.170,-0.170,-0.170,0.000,0.000,0.000
1641221088599997952,2022-01-03-14:44:48,10.1.1.6,167,-0.160,-0.160,-0.160,0.000,0.000,0.000
1641221088799136000,2022-01-03-14:44:48,10.1.1.6,166,-0.150,-0.150,-0.150,0.000,0.000,0.000
1641221088998440960,2022-01-03-14:44:48,10.1.1.6,164,-0.140,-0.140,-0.140,0.000,0.000,0.000
1641221089198155008,2022-01-03-14:44:49,10.1.1.6,162,-0.130,-0.130,-0.130,0.000,0.000,0.000
1641221089398345984,2022-01-03-14:44:49,10.1.1.6,161,-0.120,-0.120,-0.120,0.000,0.000,0.000
1641221089597539840,2022-01-03-14:44:49,10.1.1.6,160,-0.110,-0.110,-0.110,0.000,0.000,0.000
1641221089797869824,2022-01-03-14:44:49,10.1.1.6,159,-0.100,-0.100,-0.100,0.000,0.000,0.000
1641221089998612992,2022-01-03-14:44:49,10.1.1.6,159,-0.090,-0.090,-0.090,0.000,0.000,0.000
1641221090198738176,2022-01-03-14:44:50,10.1.1.6,159,-0.080,-0.080,-0.080,0.000,0.000,0.000
1641221090400376064,2022-01-03-14:44:50,10.1.1.6,160,-0.070,-0.070,-0.070,0.000,0.000,0.000
1641221090620855040,2022-01-03-14:44:50,10.1.1.6,179,-0.060,-0.060,-0.060,0.000,0.000,0.000
1641221091021912064,2022-01-03-14:44:51,10.1.1.6,173,-0.040,-0.040,-0.040,0.000,0.000,0.000
1641221091222956032,2022-01-03-14:44:51,10.1.1.6,173,-0.030,-0.030,-0.030,0.000,0.000,0.000
1641221091423897088,2022-01-03-14:44:51,10.1.1.6,173,-0.020,-0.020,-0.020,0.000,0.000,0.000
1641221091626600960,2022-01-03-14:44:51,10.1.1.6,174,-0.010,-0.010,-0.010,0.000,0.000,0.000
1641221091825416192,2022-01-03-14:44:51,10.1.1.6,172,0.000,0.000,0.000,0.000,0.000,0.000
1641221092026242048,2022-01-03-14:44:52,10.1.1.6,172,-0.010,-0.010,-0.010,0.000,0.000,0.000
1641221092226865920,2022-01-03-14:44:52,10.1.1.6,172,-0.020,-0.020,-0.020,0.000,0.000,0.000
1641221092427463936,2022-01-03-14:44:52,10.1.1.6,172,-0.030,-0.030,-0.030,0.000,0.000,0.000
1641221092628467968,2022-01-03-14:44:52,10.1.1.6,173,-0.040,-0.040,-0.040,0.000,0.000,0.000
1641221092829472000,2022-01-03-14:44:52,10.1.1.6,173,-0.050,-0.050,-0.050,0.000,0.000,0.000
1641221093029954816,2022-01-03-14:44:53,10.1.1.6,173,-0.060,-0.060,-0.060,0.000,0.000,0.000
1641221093230281216,2022-01-03-14:44:53,10.1.1.6,172,-0.070,-0.070,-0.070,0.000,0.000,0.000
1641221093431018240,2022-01-03-14:44:53,10.1.1.6,172,-0.080,-0.080,-0.080,0.000,0.000,0.000
1641221093631817216,2022-01-03-14:44:53,10.1.1.6,172,-0.090,-0.090,-0.090,0.000,0.000,0.000
1641221093832269056,2022-01-03-14:44:53,10.1.1.6,172,-0.100,-0.100,-0.100,0.000,0.000,0.000
1641221094032619008,2022-01-03-14:44:54,10.1.1.6,172,-0.110,-0.110,-0.110,0.000,0.000,0.000
1641221094255961856,2022-01-03-14:44:54,10.1.1.6,195,-0.120,-0.120,-0.120,0.000,0.000,0.000
1641221094453888768,2022-01-03-14:44:54,10.1.1.6,192,-0.130,-0.130,-0.130,0.000,0.000,0.000
1641221094654328064,2022-01-03-14:44:54,10.1.1.6,192,-0.140,-0.140,-0.140,0.000,0.000,0.000
1641221094855751936,2022-01-03-14:44:54,10.1.1.6,193,-0.150,-0.150,-0.150,0.000,0.000,0.000
1641221095055964928,2022-01-03-14:44:55,10.1.1.6,193,-0.160,-0.160,-0.160,0.000,0.000,0.000
1641221095255757056,2022-01-03-14:44:55,10.1.1.6,191,-0.170,-0.170,-0.170,0.000,0.000,0.000
1641221095456360192,2022-01-03-14:44:55,10.1.1.6,191,-0.180,-0.180,-0.180,0.000,0.000,0.000
1641221095657010944,2022-01-03-14:44:55,10.1.1.6,191,-0.190,-0.190,-0.190,0.000,0.000,0.000
1641221095857202944,2022-01-03-14:44:55,10.1.1.6,191,-0.200,-0.200,-0.200,0.000,0.000,0.000
1641221096057810944,2022-01-03-14:44:56,10.1.1.6,191,-0.210,-0.210,-0.210,0.000,0.000,0.000
1641221096257373952,2022-01-03-14:44:56,10.1.1.6,190,-0.220,-0.220,-0.220,0.000,0.000,0.000
1641221096458352128,2022-01-03-14:44:56,10.1.1.6,190,-0.230,-0.230,-0.230,0.000,0.000,0.000
1641221096658138880,2022-01-03-14:44:56,10.1.1.6,190,-0.240,-0.240,-0.240,0.000,0.000,0.000
1641221096859005952,2022-01-03-14:44:56,10.1.1.6,190,-0.250,-0.250,-0.250,0.000,0.000,0.000
1641221097059546880,2022-01-03-14:44:57,10.1.1.6,190,-0.260,-0.260,-0.260,0.000,0.000,0.000
1641221097259215104,2022-01-03-14:44:57,10.1.1.6,189,-0.270,-0.270,-0.270,0.000,0.000,0.000
1641221097459602176,2022-01-03-14:44:57,10.1.1.6,189,-0.280,-0.280,-0.280,0.000,0.000,0.000
1641221097659881216,2022-01-03-14:44:57,10.1.1.6,189,-0.290,-0.290,-0.290,0.000,0.000,0.000
1641221097860600832,2022-01-03-14:44:57,10.1.1.6,188,-0.300,-0.300,-0.300,0.000,0.000,0.000
1641221098280098048,2022-01-03-14:44:58,10.1.1.6,195,-0.320,-0.320,-0.320,0.000,0.000,0.000
1641221098481079040,2022-01-03-14:44:58,10.1.1.6,195,-0.330,-0.330,-0.330,0.000,0.000,0.000
1641221098680428032,2022-01-03-14:44:58,10.1.1.6,194,-0.340,-0.340,-0.340,0.000,0.000,0.000
1641221098880086016,2022-01-03-14:44:58,10.1.1.6,193,-0.350,-0.350,-0.350,0.000,0.000,0.000
1641221099080268032,2022-01-03-14:44:59,10.1.1.6,190,-0.360,-0.360,-0.360,0.000,0.000,0.000
1641221099281984000,2022-01-03-14:44:59,10.1.1.6,192,-0.370,-0.370,-0.370,0.000,0.000,0.000
1641221099484812032,2022-01-03-14:44:59,10.1.1.6,194,-0.380,-0.380,-0.380,0.000,0.000,0.000
1641221099681528064,2022-01-03-14:44:59,10.1.1.6,189,-0.390,-0.390,-0.390,0.000,0.000,0.000
1641221099881242112,2022-01-03-14:44:59,10.1.1.6,189,-0.400,-0.400,-0.400,0.000,0.000,0.000
1641221100080996096,2022-01-03-14:45:00,10.1.1.6,188,-0.410,-0.410,-0.410,0.000,0.000,0.000
1641221100281089024,2022-01-03-14:45:00,10.1.1.6,187,-0.420,-0.420,-0.420,0.000,0.000,0.000
1641221100480894976,2022-01-03-14:45:00,10.1.1.6,187,-0.430,-0.430,-0.430,0.000,0.000,0.000
1641221100681353216,2022-01-03-14:45:00,10.1.1.6,187,-0.440,-0.440,-0.440,0.000,0.000,0.000
1641221100880826112,2022-01-03-14:45:00,10.1.1.6,186,-0.450,-0.450,-0.450,0.000,0.000,0.000
1641221101081253888,2022-01-03-14:45:01,10.1.1.6,185,-0.460,-0.460,-0.460,0.000,0.000,0.000
1641221101281060864,2022-01-03-14:45:01,10.1.1.6,185,-0.470,-0.470,-0.470,0.000,0.000,0.000
1641221101481113856,2022-01-03-14:45:01,10.1.1.6,184,-0.480,-0.480,-0.480,0.000,0.000,0.000
1641221101689379840,2022-01-03-14:45:01,10.1.1.6,192,-0.490,-0.490,-0.490,0.000,0.000,0.000
1641221101882469888,2022-01-03-14:45:01,10.1.1.6,184,-0.480,-0.480,-0.480,0.000,0.000,0.000
1641221102081626880,2022-01-03-14:45:02,10.1.1.6,182,-0.470,-0.470,-0.470,0.000,0.000,0.000
1641221102283782912,2022-01-03-14:45:02,10.1.1.6,183,-0.460,-0.460,-0.460,0.000,0.000,0.000
1641221102501796096,2022-01-03-14:45:02,10.1.1.6,195,-0.450,-0.450,-0.450,0.000,0.000,0.000
1641221102700762112,2022-01-03-14:45:02,10.1.1.6,194,-0.440,-0.440,-0.440,0.000,0.000,0.000
1641221102893661952,2022-01-03-14:45:02,10.1.1.6,186,-0.430,-0.430,-0.430,0.000,0.000,0.000
1641221103101195008,2022-01-03-14:45:03,10.1.1.6,193,-0.420,-0.420,-0.420,0.000,0.000,0.000
1641221103300568064,2022-01-03-14:45:03,10.1.1.6,192,-0.410,-0.410,-0.410,0.000,0.000,0.000
1641221103500793088,2022-01-03-14:45:03,10.1.1.6,192,-0.400,-0.400,-0.400,0.000,0.000,0.000
1641221103700421120,2022-01-03-14:45:03,10.1.1.6,191,-0.390,-0.390,-0.390,0.000,0.000,0.000
1641221103900777984,2022-01-03-14:45:03,10.1.1.6,190,-0.380,-0.380,-0.380,0.000,0.000,0.000
1641221104099827968,2022-01-03-14:45:04,10.1.1.6,189,-0.370,-0.370,-0.370,0.000,0.000,0.000
1641221104300506112,2022-01-03-14:45:04,10.1.1.6,189,-0.360,-0.360,-0.360,0.000,0.000,0.000
1641221104500072960,2022-01-03-14:45:04,10.1.1.6,187,-0.350,-0.350,-0.350,0.000,0.000,0.000
1641221104700033024,2022-01-03-14:45:04,10.1.1.6,187,-0.340,-0.340,-0.340,0.000,0.000,0.000
1641221104899796992,2022-01-03-14:45:04,10.1.1.6,186,-0.330,-0.330,-0.330,0.000,0.000,0.000
1641221105099458048,2022-01-03-14:45:05,10.1.1.6,182,-0.320,-0.320,-0.320,0.000,0.000,0.000
1641221105299624960,2022-01-03-14:45:05,10.1.1.6,180,-0.310,-0.310,-0.310,0.000,0.000,0.000
1641221105319982080,2022-01-03-14:45:05,10.1.1.6,-1,-0.310,-0.310,-0.310,0.000,0.000,0.000
1641221105699809024,2022-01-03-14:45:05,10.1.1.6,180,-0.290,-0.290,-0.290,0.000,0.000,0.000
1641221105918284800,2022-01-03-14:45:05,10.1.1.6,197,-0.280,-0.280,-0.280,0.000,0.000,0.000
1641221106317842944,2022-01-03-14:45:06,10.1.1.6,192,-0.260,-0.260,-0.260,0.000,0.000,0.000
1641221106517837056,2022-01-03-14:45:06,10.1.1.6,191,-0.250,-0.250,-0.250,0.000,0.000,0.000
1641221106717591040,2022-01-03-14:45:06,10.1.1.6,191,-0.240,-0.240,-0.240,0.000,0.000,0.000
1641221106918248960,2022-01-03-14:45:06,10.1.1.6,191,-0.230,-0.230,-0.230,0.000,0.000,0.000
1641221107317389056,2022-01-03-14:45:07,10.1.1.6,188,-0.210,-0.210,-0.210,0.000,0.000,0.000
1641221107516704000,2022-01-03-14:45:07,10.1.1.6,186,-0.200,-0.200,-0.200,0.000,0.000,0.000
1641221107719088128,2022-01-03-14:45:07,10.1.1.6,188,-0.190,-0.190,-0.190,0.000,0.000,0.000
1641221107916260864,2022-01-03-14:45:07,10.1.1.6,185,-0.180,-0.180,-0.180,0.000,0.000,0.000
1641221108124710144,2022-01-03-14:45:08,10.1.1.6,193,-0.170,-0.170,-0.170,0.000,0.000,0.000
1641221108315764992,2022-01-03-14:45:08,10.1.1.6,184,-0.160,-0.160,-0.160,0.000,0.000,0.000
1641221108515539968,2022-01-03-14:45:08,10.1.1.6,183,-0.150,-0.150,-0.150,0.000,0.000,0.000
1641221108715718144,2022-01-03-14:45:08,10.1.1.6,183,-0.140,-0.140,-0.140,0.000,0.000,0.000
1641221108916376064,2022-01-03-14:45:08,10.1.1.6,183,-0.130,-0.130,-0.130,0.000,0.000,0.000
1641221109115584000,2022-01-03-14:45:09,10.1.1.6,181,-0.120,-0.120,-0.120,0.000,0.000,0.000
1641221109315563008,2022-01-03-14:45:09,10.1.1.6,180,-0.110,-0.110,-0.110,0.000,0.000,0.000
1641221109518706176,2022-01-03-14:45:09,10.1.1.6,182,-0.100,-0.100,-0.100,0.000,0.000,0.000
1641221109714817024,2022-01-03-14:45:09,10.1.1.6,177,-0.090,-0.090,-0.090,0.000,0.000,0.000
1641221109914552832,2022-01-03-14:45:09,10.1.1.6,176,-0.080,-0.080,-0.080,0.000,0.000,0.000
1641221110119021056,2022-01-03-14:45:10,10.1.1.6,180,-0.070,-0.070,-0.070,0.000,0.000,0.000
1641221110313870080,2022-01-03-14:45:10,10.1.1.6,175,-0.060,-0.060,-0.060,0.000,0.000,0.000
1641221110514204928,2022-01-03-14:45:10,10.1.1.6,175,-0.050,-0.050,-0.050,0.000,0.000,0.000
1641221110714360832,2022-01-03-14:45:10,10.1.1.6,174,-0.040,-0.040,-0.040,0.000,0.000,0.000
1641221110933047040,2022-01-03-14:45:10,10.1.1.6,192,-0.030,-0.030,-0.030,0.000,0.000,0.000
1641221111133606912,2022-01-03-14:45:11,10.1.1.6,192,-0.020,-0.020,-0.020,0.000,0.000,0.000
1641221111333532928,2022-01-03-14:45:11,10.1.1.6,192,-0.010,-0.010,-0.010,0.000,0.000,0.000
1641221111532988160,2022-01-03-14:45:11,10.1.1.6,190,0.000,0.000,0.000,0.000,0.000,0.000
1641221111732768000,2022-01-03-14:45:11,10.1.1.6,190,-0.010,-0.010,-0.010,0.000,0.000,0.000
1641221111932262912,2022-01-03-14:45:11,10.1.1.6,189,-0.020,-0.020,-0.020,0.000,0.000,0.000
1641221112132518912,2022-01-03-14:45:12,10.1.1.6,188,-0.030,-0.030,-0.030,0.000,0.000,0.000
1641221112332165120,2022-01-03-14:45:12,10.1.1.6,187,-0.040,-0.040,-0.040,0.000,0.000,0.000
1641221112533340928,2022-01-03-14:45:12,10.1.1.6,188,-0.050,-0.050,-0.050,0.000,0.000,0.000
1641221112732600064,2022-01-03-14:45:12,10.1.1.6,187,-0.060,-0.060,-0.060,0.000,0.000,0.000
1641221112937138944,2022-01-03-14:45:12,10.1.1.6,191,-0.070,-0.070,-0.070,0.000,0.000,0.000
1641221113131753984,2022-01-03-14:45:13,10.1.1.6,182,-0.080,-0.080,-0.080,0.000,0.000,0.000
1641221113333122048,2022-01-03-14:45:13,10.1.1.6,180,-0.090,-0.090,-0.090,0.000,0.000,0.000
1641221113529616128,2022-01-03-14:45:13,10.1.1.6,178,-0.100,-0.100,-0.100,0.000,0.000,0.000
1641221113730251008,2022-01-03-14:45:13,10.1.1.6,178,-0.110,-0.110,-0.110,0.000,0.000,0.000
1641221113929836032,2022-01-03-14:45:13,10.1.1.6,177,-0.120,-0.120,-0.120,0.000,0.000,0.000
1641221114129297920,2022-01-03-14:45:14,10.1.1.6,176,-0.130,-0.130,-0.130,0.000,0.000,0.000
1641221114328600832,2022-01-03-14:45:14,10.1.1.6,174,-0.140,-0.140,-0.140,0.000,0.000,0.000
1641221114529192960,2022-01-03-14:45:14,10.1.1.6,174,-0.150,-0.150,-0.150,0.000,0.000,0.000
1641221114729191936,2022-01-03-14:45:14,10.1.1.6,174,-0.160,-0.160,-0.160,0.000,0.000,0.000
1641221114928196864,2022-01-03-14:45:14,10.1.1.6,172,-0.170,-0.170,-0.170,0.000,0.000,0.000
1641221115130172928,2022-01-03-14:45:15,10.1.1.6,174,-0.180,-0.180,-0.180,0.000,0.000,0.000
1641221115328268032,2022-01-03-14:45:15,10.1.1.6,171,-0.190,-0.190,-0.190,0.000,0.000,0.000
1641221115547010816,2022-01-03-14:45:15,10.1.1.6,183,-0.200,-0.200,-0.200,0.000,0.000,0.000
1641221115747378944,2022-01-03-14:45:15,10.1.1.6,179,-0.210,-0.210,-0.210,0.000,0.000,0.000
1641221115946744064,2022-01-03-14:45:15,10.1.1.6,177,-0.220,-0.220,-0.220,0.000,0.000,0.000
1641221116148189184,2022-01-03-14:45:16,10.1.1.6,178,-0.230,-0.230,-0.230,0.000,0.000,0.000
1641221116346308864,2022-01-03-14:45:16,10.1.1.6,175,-0.240,-0.240,-0.240,0.000,0.000,0.000
1641221116558043904,2022-01-03-14:45:16,10.1.1.6,185,-0.250,-0.250,-0.250,0.000,0.000,0.000
1641221116744809984,2022-01-03-14:45:16,10.1.1.6,171,-0.260,-0.260,-0.260,0.000,0.000,0.000
1641221116945654016,2022-01-03-14:45:16,10.1.1.6,171,-0.270,-0.270,-0.270,0.000,0.000,0.000
1641221117144691968,2022-01-03-14:45:17,10.1.1.6,169,-0.280,-0.280,-0.280,0.000,0.000,0.000
1641221117345283072,2022-01-03-14:45:17,10.1.1.6,169,-0.290,-0.290,-0.290,0.000,0.000,0.000
1641221117544233984,2022-01-03-14:45:17,10.1.1.6,168,-0.300,-0.300,-0.300,0.000,0.000,0.000
1641221117744292096,2022-01-03-14:45:17,10.1.1.6,167,-0.310,-0.310,-0.310,0.000,0.000,0.000
1641221117943160064,2022-01-03-14:45:17,10.1.1.6,166,-0.320,-0.320,-0.320,0.000,0.000,0.000
1641221118163208960,2022-01-03-14:45:18,10.1.1.6,181,-0.330,-0.330,-0.330,0.000,0.000,0.000
1641221118363226880,2022-01-03-14:45:18,10.1.1.6,181,-0.340,-0.340,-0.340,0.000,0.000,0.000
1641221118563180032,2022-01-03-14:45:18,10.1.1.6,179,-0.350,-0.350,-0.350,0.000,0.000,0.000
1641221118762084096,2022-01-03-14:45:18,10.1.1.6,178,-0.360,-0.360,-0.360,0.000,0.000,0.000
1641221118961688064,2022-01-03-14:45:18,10.1.1.6,177,-0.370,-0.370,-0.370,0.000,0.000,0.000
1641221119161771008,2022-01-03-14:45:19,10.1.1.6,176,-0.380,-0.380,-0.380,0.000,0.000,0.000
1641221119361481984,2022-01-03-14:45:19,10.1.1.6,175,-0.390,-0.390,-0.390,0.000,0.000,0.000
1641221119561914880,2022-01-03-14:45:19,10.1.1.6,175,-0.400,-0.400,-0.400,0.000,0.000,0.000
1641221119762860032,2022-01-03-14:45:19,10.1.1.6,175,-0.410,-0.410,-0.410,0.000,0.000,0.000
1641221119960655872,2022-01-03-14:45:19,10.1.1.6,172,-0.420,-0.420,-0.420,0.000,0.000,0.000
1641221120160775936,2022-01-03-14:45:20,10.1.1.6,172,-0.430,-0.430,-0.430,0.000,0.000,0.000
1641221120360222976,2022-01-03-14:45:20,10.1.1.6,167,-0.440,-0.440,-0.440,0.000,0.000,0.000
1641221120560664064,2022-01-03-14:45:20,10.1.1.6,167,-0.450,-0.450,-0.450,0.000,0.000,0.000
1641221120759661056,2022-01-03-14:45:20,10.1.1.6,165,-0.460,-0.460,-0.460,0.000,0.000,0.000
1641221120959432960,2022-01-03-14:45:20,10.1.1.6,164,-0.470,-0.470,-0.470,0.000,0.000,0.000
1641221121158371840,2022-01-03-14:45:21,10.1.1.6,162,-0.480,-0.480,-0.480,0.000,0.000,0.000
1641221121358233856,2022-01-03-14:45:21,10.1.1.6,158,-0.490,-0.490,-0.490,0.000,0.000,0.000
1641221121578231040,2022-01-03-14:45:21,10.1.1.6,165,-0.480,-0.480,-0.480,0.000,0.000,0.000
1641221121777556992,2022-01-03-14:45:21,10.1.1.6,164,-0.470,-0.470,-0.470,0.000,0.000,0.000
1641221121977046016,2022-01-03-14:45:21,10.1.1.6,163,-0.460,-0.460,-0.460,0.000,0.000,0.000
1641221122177472000,2022-01-03-14:45:22,10.1.1.6,163,-0.450,-0.450,-0.450,0.000,0.000,0.000
1641221122379201792,2022-01-03-14:45:22,10.1.1.6,164,-0.440,-0.440,-0.440,0.000,0.000,0.000
1641221122580296960,2022-01-03-14:45:22,10.1.1.6,164,-0.430,-0.430,-0.430,0.000,0.000,0.000
1641221122780495872,2022-01-03-14:45:22,10.1.1.6,163,-0.420,-0.420,-0.420,0.000,0.000,0.000
1641221122981795072,2022-01-03-14:45:22,10.1.1.6,164,-0.410,-0.410,-0.410,0.000,0.000,0.000
1641221123182892032,2022-01-03-14:45:23,10.1.1.6,165,-0.400,-0.400,-0.400,0.000,0.000,0.000
1641221123384123136,2022-01-03-14:45:23,10.1.1.6,165,-0.390,-0.390,-0.390,0.000,0.000,0.000
1641221123584940800,2022-01-03-14:45:23,10.1.1.6,165,-0.380,-0.380,-0.380,0.000,0.000,0.000
1641221123785771008,2022-01-03-14:45:23,10.1.1.6,166,-0.370,-0.370,-0.370,0.000,0.000,0.000
1641221123986685952,2022-01-03-14:45:23,10.1.1.6,166,-0.360,-0.360,-0.360,0.000,0.000,0.000
1641221124187494144,2022-01-03-14:45:24,10.1.1.6,167,-0.350,-0.350,-0.350,0.000,0.000,0.000
1641221124408476160,2022-01-03-14:45:24,10.1.1.6,187,-0.340,-0.340,-0.340,0.000,0.000,0.000
1641221124608452096,2022-01-03-14:45:24,10.1.1.6,186,-0.330,-0.330,-0.330,0.000,0.000,0.000
1641221124811217920,2022-01-03-14:45:24,10.1.1.6,187,-0.320,-0.320,-0.320,0.000,0.000,0.000
1641221125010539008,2022-01-03-14:45:25,10.1.1.6,185,-0.310,-0.310,-0.310,0.000,0.000,0.000
1641221125210845952,2022-01-03-14:45:25,10.1.1.6,185,-0.300,-0.300,-0.300,0.000,0.000,0.000
1641221125411412992,2022-01-03-14:45:25,10.1.1.6,185,-0.290,-0.290,-0.290,0.000,0.000,0.000
1641221125611808000,2022-01-03-14:45:25,10.1.1.6,185,-0.280,-0.280,-0.280,0.000,0.000,0.000
1641221125812616192,2022-01-03-14:45:25,10.1.1.6,185,-0.270,-0.270,-0.270,0.000,0.000,0.000
1641221126013008128,2022-01-03-14:45:26,10.1.1.6,185,-0.260,-0.260,-0.260,0.000,0.000,0.000
1641221126213897984,2022-01-03-14:45:26,10.1.1.6,185,-0.250,-0.250,-0.250,0.000,0.000,0.000
1641221126414117120,2022-01-03-14:45:26,10.1.1.6,185,-0.240,-0.240,-0.240,0.000,0.000,0.000
1641221126615531008,2022-01-03-14:45:26,10.1.1.6,186,-0.230,-0.230,-0.230,0.000,0.000,0.000
1641221126815303936,2022-01-03-14:45:26,10.1.1.6,185,-0.220,-0.220,-0.220,0.000,0.000,0.000
1641221127015376128,2022-01-03-14:45:27,10.1.1.6,184,-0.210,-0.210,-0.210,0.000,0.000,0.000
1641221127218384896,2022-01-03-14:45:27,10.1.1.6,186,-0.200,-0.200,-0.200,0.000,0.000,0.000
1641221127416344832,2022-01-03-14:45:27,10.1.1.6,182,-0.190,-0.190,-0.190,0.000,0.000,0.000
1641221127616926976,2022-01-03-14:45:27,10.1.1.6,182,-0.180,-0.180,-0.180,0.000,0.000,0.000
1641221127818649088,2022-01-03-14:45:27,10.1.1.6,183,-0.170,-0.170,-0.170,0.000,0.000,0.000
1641221128017739008,2022-01-03-14:45:28,10.1.1.6,181,-0.160,-0.160,-0.160,0.000,0.000,0.000
1641221128218292992,2022-01-03-14:45:28,10.1.1.6,181,-0.150,-0.150,-0.150,0.000,0.000,0.000
1641221128419308032,2022-01-03-14:45:28,10.1.1.6,182,-0.140,-0.140,-0.140,0.000,0.000,0.000
1641221128639257856,2022-01-03-14:45:28,10.1.1.6,197,-0.130,-0.130,-0.130,0.000,0.000,0.000
1641221128840179968,2022-01-03-14:45:28,10.1.1.6,196,-0.120,-0.120,-0.120,0.000,0.000,0.000
1641221129038979072,2022-01-03-14:45:29,10.1.1.6,192,-0.110,-0.110,-0.110,0.000,0.000,0.000
1641221129239713024,2022-01-03-14:45:29,10.1.1.6,192,-0.100,-0.100,-0.100,0.000,0.000,0.000
1641221129439842048,2022-01-03-14:45:29,10.1.1.6,191,-0.090,-0.090,-0.090,0.000,0.000,0.000
1641221129640816896,2022-01-03-14:45:29,10.1.1.6,192,-0.080,-0.080,-0.080,0.000,0.000,0.000
1641221129843590912,2022-01-03-14:45:29,10.1.1.6,194,-0.070,-0.070,-0.070,0.000,0.000,0.000
1641221130039997952,2022-01-03-14:45:30,10.1.1.6,190,-0.060,-0.060,-0.060,0.000,0.000,0.000
1641221130241440000,2022-01-03-14:45:30,10.1.1.6,190,-0.050,-0.050,-0.050,0.000,0.000,0.000
1641221130441294848,2022-01-03-14:45:30,10.1.1.6,189,-0.040,-0.040,-0.040,0.000,0.000,0.000
1641221130641391872,2022-01-03-14:45:30,10.1.1.6,188,-0.030,-0.030,-0.030,0.000,0.000,0.000
1641221130842118144,2022-01-03-14:45:30,10.1.1.6,188,-0.020,-0.020,-0.020,0.000,0.000,0.000
1641221131041129984,2022-01-03-14:45:31,10.1.1.6,187,-0.010,-0.010,-0.010,0.000,0.000,0.000
1641221131241248000,2022-01-03-14:45:31,10.1.1.6,185,0.000,0.000,0.000,0.000,0.000,0.000
1641221131441358080,2022-01-03-14:45:31,10.1.1.6,184,-0.010,-0.010,-0.010,0.000,0.000,0.000
1641221131641581056,2022-01-03-14:45:31,10.1.1.6,183,-0.020,-0.020,-0.020,0.000,0.000,0.000
1641221131841923072,2022-01-03-14:45:31,10.1.1.6,182,-0.030,-0.030,-0.030,0.000,0.000,0.000
1641221132262268928,2022-01-03-14:45:32,10.1.1.6,198,-0.050,-0.050,-0.050,0.000,0.000,0.000
1641221132462155008,2022-01-03-14:45:32,10.1.1.6,198,-0.060,-0.060,-0.060,0.000,0.000,0.000
1641221132662146048,2022-01-03-14:45:32,10.1.1.6,197,-0.070,-0.070,-0.070,0.000,0.000,0.000
1641221132862008064,2022-01-03-14:45:32,10.1.1.6,196,-0.080,-0.080,-0.080,0.000,0.000,0.000
1641221133264452864,2022-01-03-14:45:33,10.1.1.6,197,-0.100,-0.100,-0.100,0.000,0.000,0.000
1641221133461786880,2022-01-03-14:45:33,10.1.1.6,193,-0.110,-0.110,-0.110,0.000,0.000,0.000
1641221133663793920,2022-01-03-14:45:33,10.1.1.6,194,-0.120,-0.120,-0.120,0.000,0.000,0.000
1641221133862085120,2022-01-03-14:45:33,10.1.1.6,191,-0.130,-0.130,-0.130,0.000,0.000,0.000
1641221134061812992,2022-01-03-14:45:34,10.1.1.6,191,-0.140,-0.140,-0.140,0.000,0.000,0.000
1641221134262556160,2022-01-03-14:45:34,10.1.1.6,191,-0.150,-0.150,-0.150,0.000,0.000,0.000
1641221134462465024,2022-01-03-14:45:34,10.1.1.6,190,-0.160,-0.160,-0.160,0.000,0.000,0.000
1641221134661392896,2022-01-03-14:45:34,10.1.1.6,189,-0.170,-0.170,-0.170,0.000,0.000,0.000
1641221134869016832,2022-01-03-14:45:34,10.1.1.6,194,-0.180,-0.180,-0.180,0.000,0.000,0.000
1641221135062187008,2022-01-03-14:45:35,10.1.1.6,188,-0.190,-0.190,-0.190,0.000,0.000,0.000
1641221135261484032,2022-01-03-14:45:35,10.1.1.6,187,-0.200,-0.200,-0.200,0.000,0.000,0.000
1641221135461339904,2022-01-03-14:45:35,10.1.1.6,185,-0.210,-0.210,-0.210,0.000,0.000,0.000
1641221135661417984,2022-01-03-14:45:35,10.1.1.6,185,-0.220,-0.220,-0.220,0.000,0.000,0.000
1641221135861598976,2022-01-03-14:45:35,10.1.1.6,184,-0.230,-0.230,-0.230,0.000,0.000,0.000
1641221136061019904,2022-01-03-14:45:36,10.1.1.6,182,-0.240,-0.240,-0.240,0.000,0.000,0.000
1641221136261137920,2022-01-03-14:45:36,10.1.1.6,182,-0.250,-0.250,-0.250,0.000,0.000,0.000
1641221136460676864,2022-01-03-14:45:36,10.1.1.6,181,-0.260,-0.260,-0.260,0.000,0.000,0.000
1641221136660225024,2022-01-03-14:45:36,10.1.1.6,180,-0.270,-0.270,-0.270,0.000,0.000,0.000
1641221136860833024,2022-01-03-14:45:36,10.1.1.6,180,-0.280,-0.280,-0.280,0.000,0.000,0.000
1641221137081302016,2022-01-03-14:45:37,10.1.1.6,199,-0.290,-0.290,-0.290,0.000,0.000,0.000
1641221137279719168,2022-01-03-14:45:37,10.1.1.6,197,-0.300,-0.300,-0.300,0.000,0.000,0.000
1641221137482300160,2022-01-03-14:45:37,10.1.1.6,194,-0.310,-0.310,-0.310,0.000,0.000,0.000
1641221137679635968,2022-01-03-14:45:37,10.1.1.6,190,-0.320,-0.320,-0.320,0.000,0.000,0.000
1641221137879596032,2022-01-03-14:45:37,10.1.1.6,189,-0.330,-0.330,-0.330,0.000,0.000,0.000
1641221138078921984,2022-01-03-14:45:38,10.1.1.6,187,-0.340,-0.340,-0.340,0.000,0.000,0.000
1641221138279481856,2022-01-03-14:45:38,10.1.1.6,187,-0.350,-0.350,-0.350,0.000,0.000,0.000
1641221138478616832,2022-01-03-14:45:38,10.1.1.6,183,-0.360,-0.360,-0.360,0.000,0.000,0.000
1641221138678405888,2022-01-03-14:45:38,10.1.1.6,181,-0.370,-0.370,-0.370,0.000,0.000,0.000
1641221138878753792,2022-01-03-14:45:38,10.1.1.6,179,-0.380,-0.380,-0.380,0.000,0.000,0.000
1641221139098364160,2022-01-03-14:45:39,10.1.1.6,197,-0.390,-0.390,-0.390,0.000,0.000,0.000
1641221139297921792,2022-01-03-14:45:39,10.1.1.6,194,-0.400,-0.400,-0.400,0.000,0.000,0.000
1641221139497773824,2022-01-03-14:45:39,10.1.1.6,193,-0.410,-0.410,-0.410,0.000,0.000,0.000
1641221139697150976,2022-01-03-14:45:39,10.1.1.6,191,-0.420,-0.420,-0.420,0.000,0.000,0.000
1641221139897212928,2022-01-03-14:45:39,10.1.1.6,190,-0.430,-0.430,-0.430,0.000,0.000,0.000
1641221140099045120,2022-01-03-14:45:40,10.1.1.6,192,-0.440,-0.440,-0.440,0.000,0.000,0.000
1641221140296432896,2022-01-03-14:45:40,10.1.1.6,189,-0.450,-0.450,-0.450,0.000,0.000,0.000
1641221140496165120,2022-01-03-14:45:40,10.1.1.6,188,-0.460,-0.460,-0.460,0.000,0.000,0.000
1641221140707319040,2022-01-03-14:45:40,10.1.1.6,195,-0.470,-0.470,-0.470,0.000,0.000,0.000
1641221140898286080,2022-01-03-14:45:40,10.1.1.6,182,-0.480,-0.480,-0.480,0.000,0.000,0.000
1641221141096952064,2022-01-03-14:45:41,10.1.1.6,181,-0.490,-0.490,-0.490,0.000,0.000,0.000
1641221141296308992,2022-01-03-14:45:41,10.1.1.6,179,-0.480,-0.480,-0.480,0.000,0.000,0.000
1641221141495493888,2022-01-03-14:45:41,10.1.1.6,178,-0.470,-0.470,-0.470,0.000,0.000,0.000
1641221141697451008,2022-01-03-14:45:41,10.1.1.6,179,-0.460,-0.460,-0.460,0.000,0.000,0.000
1641221141915389952,2022-01-03-14:45:41,10.1.1.6,191,-0.450,-0.450,-0.450,0.000,0.000,0.000
1641221142114419968,2022-01-03-14:45:42,10.1.1.6,188,-0.440,-0.440,-0.440,0.000,0.000,0.000
1641221142314562048,2022-01-03-14:45:42,10.1.1.6,188,-0.430,-0.430,-0.430,0.000,0.000,0.000
1641221142514484992,2022-01-03-14:45:42,10.1.1.6,187,-0.420,-0.420,-0.420,0.000,0.000,0.000
1641221142714359040,2022-01-03-14:45:42,10.1.1.6,186,-0.410,-0.410,-0.410,0.000,0.000,0.000
1641221142913469952,2022-01-03-14:45:42,10.1.1.6,185,-0.400,-0.400,-0.400,0.000,0.000,0.000
1641221143114176000,2022-01-03-14:45:43,10.1.1.6,185,-0.390,-0.390,-0.390,0.000,0.000,0.000
1641221143313402880,2022-01-03-14:45:43,10.1.1.6,184,-0.380,-0.380,-0.380,0.000,0.000,0.000
1641221143521251840,2022-01-03-14:45:43,10.1.1.6,191,-0.370,-0.370,-0.370,0.000,0.000,0.000
1641221143713478144,2022-01-03-14:45:43,10.1.1.6,182,-0.360,-0.360,-0.360,0.000,0.000,0.000
1641221143917270784,2022-01-03-14:45:43,10.1.1.6,185,-0.350,-0.350,-0.350,0.000,0.000,0.000
1641221144112539904,2022-01-03-14:45:44,10.1.1.6,178,-0.340,-0.340,-0.340,0.000,0.000,0.000
1641221144312184064,2022-01-03-14:45:44,10.1.1.6,177,-0.330,-0.330,-0.330,0.000,0.000,0.000
1641221144512604928,2022-01-03-14:45:44,10.1.1.6,176,-0.320,-0.320,-0.320,0.000,0.000,0.000
1641221144711229952,2022-01-03-14:45:44,10.1.1.6,174,-0.310,-0.310,-0.310,0.000,0.000,0.000
1641221144911536896,2022-01-03-14:45:44,10.1.1.6,174,-0.300,-0.300,-0.300,0.000,0.000,0.000
1641221145111150080,2022-01-03-14:45:45,10.1.1.6,173,-0.290,-0.290,-0.290,0.000,0.000,0.000
1641221145311283200,2022-01-03-14:45:45,10.1.1.6,172,-0.280,-0.280,-0.280,0.000,0.000,0.000
1641221145510778880,2022-01-03-14:45:45,10.1.1.6,171,-0.270,-0.270,-0.270,0.000,0.000,0.000
1641221145711205888,2022-01-03-14:45:45,10.1.1.6,171,-0.260,-0.260,-0.260,0.000,0.000,0.000
1641221145911382016,2022-01-03-14:45:45,10.1.1.6,170,-0.250,-0.250,-0.250,0.000,0.000,0.000
1641221146110979072,2022-01-03-14:45:46,10.1.1.6,170,-0.240,-0.240,-0.240,0.000,0.000,0.000
1641221146329703168,2022-01-03-14:45:46,10.1.1.6,188,-0.230,-0.230,-0.230,0.000,0.000,0.000
1641221146529797120,2022-01-03-14:45:46,10.1.1.6,188,-0.220,-0.220,-0.220,0.000,0.000,0.000
1641221146729033984,2022-01-03-14:45:46,10.1.1.6,186,-0.210,-0.210,-0.210,0.000,0.000,0.000
1641221146928997888,2022-01-03-14:45:46,10.1.1.6,186,-0.200,-0.200,-0.200,0.000,0.000,0.000
1641221147133961984,2022-01-03-14:45:47,10.1.1.6,190,-0.190,-0.190,-0.190,0.000,0.000,0.000
1641221147329165824,2022-01-03-14:45:47,10.1.1.6,184,-0.180,-0.180,-0.180,0.000,0.000,0.000
1641221147528080896,2022-01-03-14:45:47,10.1.1.6,180,-0.170,-0.170,-0.170,0.000,0.000,0.000
1641221147728153088,2022-01-03-14:45:47,10.1.1.6,179,-0.160,-0.160,-0.160,0.000,0.000,0.000
1641221147942567168,2022-01-03-14:45:47,10.1.1.6,188,-0.150,-0.150,-0.150,0.000,0.000,0.000
1641221148128175104,2022-01-03-14:45:48,10.1.1.6,173,-0.140,-0.140,-0.140,0.000,0.000,0.000
1641221148326852096,2022-01-03-14:45:48,10.1.1.6,171,-0.130,-0.130,-0.130,0.000,0.000,0.000
1641221148526438912,2022-01-03-14:45:48,10.1.1.6,170,-0.120,-0.120,-0.120,0.000,0.000,0.000
1641221148725837824,2022-01-03-14:45:48,10.1.1.6,169,-0.110,-0.110,-0.110,0.000,0.000,0.000
1641221148926227200,2022-01-03-14:45:48,10.1.1.6,169,-0.100,-0.100,-0.100,0.000,0.000,0.000
1641221149125641216,2022-01-03-14:45:49,10.1.1.6,168,-0.090,-0.090,-0.090,0.000,0.000,0.000
1641221149544852992,2022-01-03-14:45:49,10.1.1.6,172,-0.070,-0.070,-0.070,0.000,0.000,0.000
1641221149744532224,2022-01-03-14:45:49,10.1.1.6,169,-0.060,-0.060,-0.060,0.000,0.000,0.000
1641221149945496064,2022-01-03-14:45:49,10.1.1.6,169,-0.050,-0.050,-0.050,0.000,0.000,0.000
1641221150144817152,2022-01-03-14:45:50,10.1.1.6,168,-0.040,-0.040,-0.040,0.000,0.000,0.000
1641221150345664000,2022-01-03-14:45:50,10.1.1.6,168,-0.030,-0.030,-0.030,0.000,0.000,0.000
1641221150555552000,2022-01-03-14:45:50,10.1.1.6,175,-0.020,-0.020,-0.020,0.000,0.000,0.000
1641221150763345920,2022-01-03-14:45:50,10.1.1.6,171,-0.010,-0.010,-0.010,0.000,0.000,0.000
1641221150962081792,2022-01-03-14:45:50,10.1.1.6,169,0.000,0.000,0.000,0.000,0.000,0.000
1641221151165644032,2022-01-03-14:45:51,10.1.1.6,172,-0.010,-0.010,-0.010,0.000,0.000,0.000
1641221151362294016,2022-01-03-14:45:51,10.1.1.6,168,-0.020,-0.020,-0.020,0.000,0.000,0.000
1641221151562036992,2022-01-03-14:45:51,10.1.1.6,166,-0.030,-0.030,-0.030,0.000,0.000,0.000
1641221151760876800,2022-01-03-14:45:51,10.1.1.6,164,-0.040,-0.040,-0.040,0.000,0.000,0.000
1641221151960790016,2022-01-03-14:45:51,10.1.1.6,164,-0.050,-0.050,-0.050,0.000,0.000,0.000
1641221152160342016,2022-01-03-14:45:52,10.1.1.6,163,-0.060,-0.060,-0.060,0.000,0.000,0.000
1641221152360440064,2022-01-03-14:45:52,10.1.1.6,162,-0.070,-0.070,-0.070,0.000,0.000,0.000
1641221152561701888,2022-01-03-14:45:52,10.1.1.6,162,-0.080,-0.080,-0.080,0.000,0.000,0.000
1641221152780587008,2022-01-03-14:45:52,10.1.1.6,179,-0.090,-0.090,-0.090,0.000,0.000,0.000
1641221152981935104,2022-01-03-14:45:52,10.1.1.6,177,-0.100,-0.100,-0.100,0.000,0.000,0.000
1641221153179364864,2022-01-03-14:45:53,10.1.1.6,172,-0.110,-0.110,-0.110,0.000,0.000,0.000
1641221153379075072,2022-01-03-14:45:53,10.1.1.6,170,-0.120,-0.120,-0.120,0.000,0.000,0.000
1641221153581229824,2022-01-03-14:45:53,10.1.1.6,172,-0.130,-0.130,-0.130,0.000,0.000,0.000
1641221153778942208,2022-01-03-14:45:53,10.1.1.6,169,-0.140,-0.140,-0.140,0.000,0.000,0.000
1641221153977609984,2022-01-03-14:45:53,10.1.1.6,167,-0.150,-0.150,-0.150,0.000,0.000,0.000
1641221154181833984,2022-01-03-14:45:54,10.1.1.6,170,-0.160,-0.160,-0.160,0.000,0.000,0.000
1641221154379617024,2022-01-03-14:45:54,10.1.1.6,167,-0.170,-0.170,-0.170,0.000,0.000,0.000
1641221154581528064,2022-01-03-14:45:54,10.1.1.6,168,-0.180,-0.180,-0.180,0.000,0.000,0.000
1641221154782147840,2022-01-03-14:45:54,10.1.1.6,168,-0.190,-0.190,-0.190,0.000,0.000,0.000
1641221154982637056,2022-01-03-14:45:54,10.1.1.6,168,-0.200,-0.200,-0.200,0.000,0.000,0.000
1641221155183311104,2022-01-03-14:45:55,10.1.1.6,167,-0.210,-0.210,-0.210,0.000,0.000,0.000
1641221155384067072,2022-01-03-14:45:55,10.1.1.6,167,-0.220,-0.220,-0.220,0.000,0.000,0.000
1641221155586003968,2022-01-03-14:45:55,10.1.1.6,169,-0.230,-0.230,-0.230,0.000,0.000,0.000
1641221155785861120,2022-01-03-14:45:55,10.1.1.6,167,-0.240,-0.240,-0.240,0.000,0.000,0.000
1641221156007318016,2022-01-03-14:45:56,10.1.1.6,172,-0.250,-0.250,-0.250,0.000,0.000,0.000
1641221156228136960,2022-01-03-14:45:56,10.1.1.6,186,-0.260,-0.260,-0.260,0.000,0.000,0.000
1641221156428438784,2022-01-03-14:45:56,10.1.1.6,185,-0.270,-0.270,-0.270,0.000,0.000,0.000
1641221156629455104,2022-01-03-14:45:56,10.1.1.6,184,-0.280,-0.280,-0.280,0.000,0.000,0.000
1641221156829986048,2022-01-03-14:45:56,10.1.1.6,183,-0.290,-0.290,-0.290,0.000,0.000,0.000
1641221157031245056,2022-01-03-14:45:57,10.1.1.6,184,-0.300,-0.300,-0.300,0.000,0.000,0.000
1641221157231746816,2022-01-03-14:45:57,10.1.1.6,183,-0.310,-0.310,-0.310,0.000,0.000,0.000
1641221157431813888,2022-01-03-14:45:57,10.1.1.6,182,-0.320,-0.320,-0.320,0.000,0.000,0.000
1641221157632584960,2022-01-03-14:45:57,10.1.1.6,182,-0.330,-0.330,-0.330,0.000,0.000,0.000
1641221157833266944,2022-01-03-14:45:57,10.1.1.6,181,-0.340,-0.340,-0.340,0.000,0.000,0.000
1641221158037966080,2022-01-03-14:45:58,10.1.1.6,186,-0.350,-0.350,-0.350,0.000,0.000,0.000
1641221158247642880,2022-01-03-14:45:58,10.1.1.6,195,-0.360,-0.360,-0.360,0.000,0.000,0.000
1641221158436001024,2022-01-03-14:45:58,10.1.1.6,182,-0.370,-0.370,-0.370,0.000,0.000,0.000
1641221158635500800,2022-01-03-14:45:58,10.1.1.6,181,-0.380,-0.380,-0.380,0.000,0.000,0.000
1641221158836136960,2022-01-03-14:45:58,10.1.1.6,180,-0.390,-0.390,-0.390,0.000,0.000,0.000
1641221159036537856,2022-01-03-14:45:59,10.1.1.6,180,-0.400,-0.400,-0.400,0.000,0.000,0.000
1641221159236884992,2022-01-03-14:45:59,10.1.1.6,180,-0.410,-0.410,-0.410,0.000,0.000,0.000
1641221159437274880,2022-01-03-14:45:59,10.1.1.6,179,-0.420,-0.420,-0.420,0.000,0.000,0.000
1641221159649036800,2022-01-03-14:45:59,10.1.1.6,181,-0.430,-0.430,-0.430,0.000,0.000,0.000
1641221159837976832,2022-01-03-14:45:59,10.1.1.6,178,-0.440,-0.440,-0.440,0.000,0.000,0.000
1641221160038028032,2022-01-03-14:46:00,10.1.1.6,177,-0.450,-0.450,-0.450,0.000,0.000,0.000
1641221160258819072,2022-01-03-14:46:00,10.1.1.6,197,-0.460,-0.460,-0.460,0.000,0.000,0.000
1641221160461416960,2022-01-03-14:46:00,10.1.1.6,198,-0.470,-0.470,-0.470,0.000,0.000,0.000
1641221160659383040,2022-01-03-14:46:00,10.1.1.6,193,-0.480,-0.480,-0.480,0.000,0.000,0.000
1641221161059660032,2022-01-03-14:46:01,10.1.1.6,189,-0.480,-0.480,-0.480,0.000,0.000,0.000
1641221161260875008,2022-01-03-14:46:01,10.1.1.6,189,-0.470,-0.470,-0.470,0.000,0.000,0.000
1641221161460685056,2022-01-03-14:46:01,10.1.1.6,188,-0.460,-0.460,-0.460,0.000,0.000,0.000
1641221161681464832,2022-01-03-14:46:01,10.1.1.6,198,-0.450,-0.450,-0.450,0.000,0.000,0.000
1641221162080796928,2022-01-03-14:46:02,10.1.1.6,193,-0.430,-0.430,-0.430,0.000,0.000,0.000
1641221162481494016,2022-01-03-14:46:02,10.1.1.6,191,-0.410,-0.410,-0.410,0.000,0.000,0.000
1641221162681044224,2022-01-03-14:46:02,10.1.1.6,189,-0.400,-0.400,-0.400,0.000,0.000,0.000
1641221162886310144,2022-01-03-14:46:02,10.1.1.6,193,-0.390,-0.390,-0.390,0.000,0.000,0.000
1641221163083112960,2022-01-03-14:46:03,10.1.1.6,189,-0.380,-0.380,-0.380,0.000,0.000,0.000
1641221163281306880,2022-01-03-14:46:03,10.1.1.6,186,-0.370,-0.370,-0.370,0.000,0.000,0.000
1641221163482147072,2022-01-03-14:46:03,10.1.1.6,186,-0.360,-0.360,-0.360,0.000,0.000,0.000
1641221163682313984,2022-01-03-14:46:03,10.1.1.6,186,-0.350,-0.350,-0.350,0.000,0.000,0.000
1641221163881755136,2022-01-03-14:46:03,10.1.1.6,184,-0.340,-0.340,-0.340,0.000,0.000,0.000
1641221164091919872,2022-01-03-14:46:04,10.1.1.6,193,-0.330,-0.330,-0.330,0.000,0.000,0.000
1641221164281856000,2022-01-03-14:46:04,10.1.1.6,183,-0.320,-0.320,-0.320,0.000,0.000,0.000
1641221164490881792,2022-01-03-14:46:04,10.1.1.6,191,-0.310,-0.310,-0.310,0.000,0.000,0.000
1641221164702446080,2022-01-03-14:46:04,10.1.1.6,186,-0.300,-0.300,-0.300,0.000,0.000,0.000
1641221164901780992,2022-01-03-14:46:04,10.1.1.6,183,-0.290,-0.290,-0.290,0.000,0.000,0.000
1641221165102076928,2022-01-03-14:46:05,10.1.1.6,182,-0.280,-0.280,-0.280,0.000,0.000,0.000
1641221165522473984,2022-01-03-14:46:05,10.1.1.6,200,-0.260,-0.260,-0.260,0.000,0.000,0.000
1641221165722109952,2022-01-03-14:46:05,10.1.1.6,199,-0.250,-0.250,-0.250,0.000,0.000,0.000
1641221165922179840,2022-01-03-14:46:05,10.1.1.6,197,-0.240,-0.240,-0.240,0.000,0.000,0.000
1641221166122457088,2022-01-03-14:46:06,10.1.1.6,197,-0.230,-0.230,-0.230,0.000,0.000,0.000
1641221166321701120,2022-01-03-14:46:06,10.1.1.6,195,-0.220,-0.220,-0.220,0.000,0.000,0.000
1641221166521805056,2022-01-03-14:46:06,10.1.1.6,194,-0.210,-0.210,-0.210,0.000,0.000,0.000
1641221166722343936,2022-01-03-14:46:06,10.1.1.6,193,-0.200,-0.200,-0.200,0.000,0.000,0.000
1641221166922126080,2022-01-03-14:46:06,10.1.1.6,192,-0.190,-0.190,-0.190,0.000,0.000,0.000
1641221167121248000,2022-01-03-14:46:07,10.1.1.6,190,-0.180,-0.180,-0.180,0.000,0.000,0.000
1641221167323625984,2022-01-03-14:46:07,10.1.1.6,192,-0.170,-0.170,-0.170,0.000,0.000,0.000
1641221167521612800,2022-01-03-14:46:07,10.1.1.6,189,-0.160,-0.160,-0.160,0.000,0.000,0.000
1641221167721329920,2022-01-03-14:46:07,10.1.1.6,188,-0.150,-0.150,-0.150,0.000,0.000,0.000
1641221167921266176,2022-01-03-14:46:07,10.1.1.6,188,-0.140,-0.140,-0.140,0.000,0.000,0.000
1641221168121332992,2022-01-03-14:46:08,10.1.1.6,187,-0.130,-0.130,-0.130,0.000,0.000,0.000
1641221168320545792,2022-01-03-14:46:08,10.1.1.6,185,-0.120,-0.120,-0.120,0.000,0.000,0.000
1641221168520950016,2022-01-03-14:46:08,10.1.1.6,184,-0.110,-0.110,-0.110,0.000,0.000,0.000
1641221168720300032,2022-01-03-14:46:08,10.1.1.6,183,-0.100,-0.100,-0.100,0.000,0.000,0.000
1641221169120791808,2022-01-03-14:46:09,10.1.1.6,180,-0.080,-0.080,-0.080,0.000,0.000,0.000
1641221169739983104,2022-01-03-14:46:09,10.1.1.6,195,-0.050,-0.050,-0.050,0.000,0.000,0.000
1641221169940217856,2022-01-03-14:46:09,10.1.1.6,191,-0.040,-0.040,-0.040,0.000,0.000,0.000
1641221170140302848,2022-01-03-14:46:10,10.1.1.6,188,-0.030,-0.030,-0.030,0.000,0.000,0.000
1641221170340183040,2022-01-03-14:46:10,10.1.1.6,187,-0.020,-0.020,-0.020,0.000,0.000,0.000
1641221170543003136,2022-01-03-14:46:10,10.1.1.6,188,-0.010,-0.010,-0.010,0.000,0.000,0.000
1641221170739689984,2022-01-03-14:46:10,10.1.1.6,183,0.000,0.000,0.000,0.000,0.000,0.000
1641221170938700032,2022-01-03-14:46:10,10.1.1.6,180,-0.010,-0.010,-0.010,0.000,0.000,0.000
1641221171153268992,2022-01-03-14:46:11,10.1.1.6,194,-0.020,-0.020,-0.020,0.000,0.000,0.000
1641221171340035072,2022-01-03-14:46:11,10.1.1.6,181,-0.030,-0.030,-0.030,0.000,0.000,0.000
1641221171538258176,2022-01-03-14:46:11,10.1.1.6,178,-0.040,-0.040,-0.040,0.000,0.000,0.000
1641221171740812032,2022-01-03-14:46:11,10.1.1.6,178,-0.050,-0.050,-0.050,0.000,0.000,0.000
1641221171958002944,2022-01-03-14:46:11,10.1.1.6,195,-0.060,-0.060,-0.060,0.000,0.000,0.000
1641221172358525952,2022-01-03-14:46:12,10.1.1.6,193,-0.080,-0.080,-0.080,0.000,0.000,0.000
1641221172558073088,2022-01-03-14:46:12,10.1.1.6,192,-0.090,-0.090,-0.090,0.000,0.000,0.000
1641221172760265984,2022-01-03-14:46:12,10.1.1.6,194,-0.100,-0.100,-0.100,0.000,0.000,0.000
1641221172960216064,2022-01-03-14:46:12,10.1.1.6,194,-0.110,-0.110,-0.110,0.000,0.000,0.000
1641221173156704000,2022-01-03-14:46:13,10.1.1.6,189,-0.120,-0.120,-0.120,0.000,0.000,0.000
1641221173357078016,2022-01-03-14:46:13,10.1.1.6,188,-0.130,-0.130,-0.130,0.000,0.000,0.000
1641221173556390912,2022-01-03-14:46:13,10.1.1.6,187,-0.140,-0.140,-0.140,0.000,0.000,0.000
1641221173755717120,2022-01-03-14:46:13,10.1.1.6,185,-0.150,-0.150,-0.150,0.000,0.000,0.000
1641221173956823040,2022-01-03-14:46:13,10.1.1.6,185,-0.160,-0.160,-0.160,0.000,0.000,0.000
1641221174155514880,2022-01-03-14:46:14,10.1.1.6,181,-0.170,-0.170,-0.170,0.000,0.000,0.000
1641221174360972800,2022-01-03-14:46:14,10.1.1.6,185,-0.180,-0.180,-0.180,0.000,0.000,0.000
1641221174555116800,2022-01-03-14:46:14,10.1.1.6,178,-0.190,-0.190,-0.190,0.000,0.000,0.000
1641221174777587968,2022-01-03-14:46:14,10.1.1.6,195,-0.200,-0.200,-0.200,0.000,0.000,0.000
1641221174974468864,2022-01-03-14:46:14,10.1.1.6,192,-0.210,-0.210,-0.210,0.000,0.000,0.000
1641221175173721088,2022-01-03-14:46:15,10.1.1.6,190,-0.220,-0.220,-0.220,0.000,0.000,0.000
1641221175377958912,2022-01-03-14:46:15,10.1.1.6,194,-0.230,-0.230,-0.230,0.000,0.000,0.000
1641221175573633792,2022-01-03-14:46:15,10.1.1.6,189,-0.240,-0.240,-0.240,0.000,0.000,0.000
1641221175773489920,2022-01-03-14:46:15,10.1.1.6,188,-0.250,-0.250,-0.250,0.000,0.000,0.000
1641221175973385216,2022-01-03-14:46:15,10.1.1.6,188,-0.260,-0.260,-0.260,0.000,0.000,0.000
