FedericoMungari/DigitalTwin_service/01_WiredScenario/Output/Output_script/script_rosapi_2_output_robots4_freq0_1.txt
timestamp,date,node,latency,joint_1,joint_2,joint_3,joint_4,joint_5,joint_6
1644895899293395968,2022-02-15-03:31:39,10.1.1.2,5,-0.100,-0.100,-0.100,0.000,0.000,-0.000
1644895899375550976,2022-02-15-03:31:39,10.1.1.2,34,-0.090,-0.090,-0.090,0.000,0.000,0.000
1644895899414153984,2022-02-15-03:31:39,10.1.1.2,23,-0.080,-0.080,-0.080,0.000,0.000,0.000
1644895899574657792,2022-02-15-03:31:39,10.1.1.2,29,-0.050,-0.050,-0.050,0.000,0.000,0.000
1644895899633766912,2022-02-15-03:31:39,10.1.1.2,37,-0.040,-0.040,-0.040,0.000,0.000,0.000
1644895899675342080,2022-02-15-03:31:39,10.1.1.2,25,-0.030,-0.030,-0.030,0.000,0.000,0.000
1644895899773718016,2022-02-15-03:31:39,10.1.1.2,23,-0.010,-0.010,-0.010,0.000,0.000,0.000
1644895899833515008,2022-02-15-03:31:39,10.1.1.2,32,0.000,0.000,0.000,0.000,0.000,0.000
1644895899933618176,2022-02-15-03:31:39,10.1.1.2,29,0.020,0.020,0.020,0.000,0.000,0.000
1644895899993984000,2022-02-15-03:31:39,10.1.1.2,38,0.030,0.030,0.030,0.000,0.000,0.000
1644895900033894144,2022-02-15-03:31:40,10.1.1.2,27,0.040,0.040,0.040,0.000,0.000,0.000
1644895900093838848,2022-02-15-03:31:40,10.1.1.2,35,0.050,0.050,0.050,0.000,0.000,0.000
1644895900134021120,2022-02-15-03:31:40,10.1.1.2,24,0.060,0.060,0.060,0.000,0.000,0.000
1644895900193619968,2022-02-15-03:31:40,10.1.1.2,33,0.070,0.070,0.070,0.000,0.000,0.000
1644895900233562112,2022-02-15-03:31:40,10.1.1.2,22,0.080,0.080,0.080,0.000,0.000,0.000
1644895900394818048,2022-02-15-03:31:40,10.1.1.2,25,0.090,0.090,0.090,0.000,0.000,0.000
1644895900455027200,2022-02-15-03:31:40,10.1.1.2,34,0.080,0.080,0.080,0.000,0.000,0.000
1644895900493711104,2022-02-15-03:31:40,10.1.1.2,23,0.070,0.070,0.070,0.000,0.000,0.000
1644895900714006016,2022-02-15-03:31:40,10.1.1.2,39,0.030,0.030,0.030,0.000,0.000,0.000
1644895900755305984,2022-02-15-03:31:40,10.1.1.2,28,0.020,0.020,0.020,0.000,0.000,0.000
1644895900814697984,2022-02-15-03:31:40,10.1.1.2,36,0.010,0.010,0.010,0.000,0.000,0.000
1644895900853668096,2022-02-15-03:31:40,10.1.1.2,25,0.000,0.000,0.000,0.000,0.000,0.000
1644895900913372160,2022-02-15-03:31:40,10.1.1.2,33,-0.010,-0.010,-0.010,0.000,0.000,0.000
1644895900953794048,2022-02-15-03:31:40,10.1.1.2,23,-0.020,-0.020,-0.020,0.000,0.000,0.000
1644895901173846016,2022-02-15-03:31:41,10.1.1.2,35,-0.060,-0.060,-0.060,0.000,0.000,0.000
1644895901214433792,2022-02-15-03:31:41,10.1.1.2,24,-0.070,-0.070,-0.070,0.000,0.000,0.000
1644895901375469824,2022-02-15-03:31:41,10.1.1.2,29,-0.100,-0.100,-0.100,0.000,0.000,0.000
1644895901433722880,2022-02-15-03:31:41,10.1.1.2,37,-0.090,-0.090,-0.090,0.000,0.000,0.000
1644895901474103040,2022-02-15-03:31:41,10.1.1.2,26,-0.080,-0.080,-0.080,0.000,0.000,0.000
1644895901533744128,2022-02-15-03:31:41,10.1.1.2,34,-0.070,-0.070,-0.070,0.000,0.000,0.000
1644895901573754112,2022-02-15-03:31:41,10.1.1.2,23,-0.060,-0.060,-0.060,0.000,0.000,0.000
1644895901634278144,2022-02-15-03:31:41,10.1.1.2,32,-0.050,-0.050,-0.050,0.000,0.000,0.000
1644895901774401024,2022-02-15-03:31:41,10.1.1.2,19,-0.020,-0.020,-0.020,0.000,0.000,0.000
1644895901833058048,2022-02-15-03:31:41,10.1.1.2,29,-0.010,-0.010,-0.010,0.000,0.000,0.000
1644895901893353984,2022-02-15-03:31:41,10.1.1.2,38,-0.000,-0.000,-0.000,0.000,0.000,0.000
1644895901933592064,2022-02-15-03:31:41,10.1.1.2,26,0.010,0.010,0.010,0.000,0.000,0.000
1644895901993581056,2022-02-15-03:31:41,10.1.1.2,34,0.020,0.020,0.020,0.000,0.000,0.000
1644895902033485824,2022-02-15-03:31:42,10.1.1.2,23,0.030,0.030,0.030,0.000,0.000,0.000
1644895902094254848,2022-02-15-03:31:42,10.1.1.2,32,0.040,0.040,0.040,0.000,0.000,0.000
1644895902133622016,2022-02-15-03:31:42,10.1.1.2,22,0.050,0.050,0.050,0.000,0.000,0.000
1644895902294161920,2022-02-15-03:31:42,10.1.1.2,29,0.080,0.080,0.080,0.000,0.000,0.000
1644895902354317056,2022-02-15-03:31:42,10.1.1.2,38,0.090,0.090,0.090,0.000,0.000,0.000
1644895902394031104,2022-02-15-03:31:42,10.1.1.2,27,0.100,0.100,0.100,0.000,0.000,0.000
1644895902453666048,2022-02-15-03:31:42,10.1.1.2,36,0.090,0.090,0.090,0.000,0.000,0.000
1644895902493664000,2022-02-15-03:31:42,10.1.1.2,25,0.080,0.080,0.080,0.000,0.000,0.000
1644895902555213824,2022-02-15-03:31:42,10.1.1.2,33,0.070,0.070,0.070,0.000,0.000,0.000
1644895902593626112,2022-02-15-03:31:42,10.1.1.2,23,0.060,0.060,0.060,0.000,0.000,0.000
1644895902654371072,2022-02-15-03:31:42,10.1.1.2,31,0.050,0.050,0.050,0.000,0.000,0.000
1644895902813992960,2022-02-15-03:31:42,10.1.1.2,39,0.020,0.020,0.020,0.000,0.000,0.000
1644895902854024960,2022-02-15-03:31:42,10.1.1.2,28,0.010,0.010,0.010,0.000,0.000,0.000
1644895902913827840,2022-02-15-03:31:42,10.1.1.2,37,0.000,0.000,0.000,0.000,0.000,0.000
1644895902954401024,2022-02-15-03:31:42,10.1.1.2,26,-0.010,-0.010,-0.010,0.000,0.000,0.000
1644895903014669824,2022-02-15-03:31:43,10.1.1.2,34,-0.020,-0.020,-0.020,0.000,0.000,0.000
1644895903053452032,2022-02-15-03:31:43,10.1.1.2,22,-0.030,-0.030,-0.030,0.000,0.000,0.000
1644895903214013952,2022-02-15-03:31:43,10.1.1.2,27,-0.060,-0.060,-0.060,0.000,0.000,0.000
1644895903274061056,2022-02-15-03:31:43,10.1.1.2,36,-0.070,-0.070,-0.070,0.000,0.000,0.000
1644895903313368064,2022-02-15-03:31:43,10.1.1.2,25,-0.080,-0.080,-0.080,0.000,0.000,0.000
1644895903373861120,2022-02-15-03:31:43,10.1.1.2,33,-0.090,-0.090,-0.090,0.000,0.000,0.000
1644895903415822080,2022-02-15-03:31:43,10.1.1.2,22,-0.100,-0.100,-0.100,0.000,0.000,0.000
1644895903474193152,2022-02-15-03:31:43,10.1.1.2,32,-0.090,-0.090,-0.090,0.000,0.000,0.000
1644895903573532160,2022-02-15-03:31:43,10.1.1.2,29,-0.070,-0.070,-0.070,0.000,0.000,0.000
1644895903633460992,2022-02-15-03:31:43,10.1.1.2,38,-0.060,-0.060,-0.060,0.000,0.000,0.000
1644895903675868928,2022-02-15-03:31:43,10.1.1.2,27,-0.050,-0.050,-0.050,0.000,0.000,0.000
1644895903733784832,2022-02-15-03:31:43,10.1.1.2,36,-0.040,-0.040,-0.040,0.000,0.000,0.000
1644895903773492224,2022-02-15-03:31:43,10.1.1.2,26,-0.030,-0.030,-0.030,0.000,0.000,0.000
1644895903833803008,2022-02-15-03:31:43,10.1.1.2,35,-0.020,-0.020,-0.020,0.000,0.000,0.000
1644895903873202944,2022-02-15-03:31:43,10.1.1.2,24,-0.010,-0.010,-0.010,0.000,0.000,0.000
1644895903933840896,2022-02-15-03:31:43,10.1.1.2,33,0.000,0.000,0.000,0.000,0.000,0.000
1644895903973204992,2022-02-15-03:31:43,10.1.1.2,22,0.010,0.010,0.010,0.000,0.000,0.000
1644895904193155072,2022-02-15-03:31:44,10.1.1.2,39,0.050,0.050,0.050,0.000,0.000,0.000
1644895904233558784,2022-02-15-03:31:44,10.1.1.2,28,0.060,0.060,0.060,0.000,0.000,0.000
1644895904293297920,2022-02-15-03:31:44,10.1.1.2,37,0.070,0.070,0.070,0.000,0.000,0.000
1644895904334162944,2022-02-15-03:31:44,10.1.1.2,26,0.080,0.080,0.080,0.000,0.000,0.000
1644895904393955840,2022-02-15-03:31:44,10.1.1.2,34,0.090,0.090,0.090,0.000,0.000,0.000
1644895904433330176,2022-02-15-03:31:44,10.1.1.2,24,0.100,0.100,0.100,0.000,0.000,0.000
1644895904493637120,2022-02-15-03:31:44,10.1.1.2,33,0.090,0.090,0.090,0.000,0.000,0.000
1644895904533778944,2022-02-15-03:31:44,10.1.1.2,22,0.080,0.080,0.080,0.000,0.000,0.000
1644895904693053952,2022-02-15-03:31:44,10.1.1.2,29,0.050,0.050,0.050,0.000,0.000,0.000
1644895904752867840,2022-02-15-03:31:44,10.1.1.2,38,0.040,0.040,0.040,0.000,0.000,0.000
1644895904794213120,2022-02-15-03:31:44,10.1.1.2,27,0.030,0.030,0.030,0.000,0.000,0.000
1644895904853571840,2022-02-15-03:31:44,10.1.1.2,36,0.020,0.020,0.020,0.000,0.000,0.000
1644895904894757120,2022-02-15-03:31:44,10.1.1.2,26,0.010,0.010,0.010,0.000,0.000,0.000
1644895904953763072,2022-02-15-03:31:44,10.1.1.2,35,0.000,0.000,0.000,0.000,0.000,0.000
1644895904993736960,2022-02-15-03:31:44,10.1.1.2,24,-0.010,-0.010,-0.010,0.000,0.000,0.000
1644895905053782016,2022-02-15-03:31:45,10.1.1.2,33,-0.020,-0.020,-0.020,0.000,0.000,0.000
1644895905093751040,2022-02-15-03:31:45,10.1.1.2,23,-0.030,-0.030,-0.030,0.000,0.000,0.000
1644895905154006016,2022-02-15-03:31:45,10.1.1.2,32,-0.040,-0.040,-0.040,0.000,0.000,0.000
1644895905314596864,2022-02-15-03:31:45,10.1.1.2,34,-0.070,-0.070,-0.070,0.000,0.000,0.000
1644895905354152960,2022-02-15-03:31:45,10.1.1.2,23,-0.080,-0.080,-0.080,0.000,0.000,0.000
1644895905414511872,2022-02-15-03:31:45,10.1.1.2,32,-0.090,-0.090,-0.090,0.000,0.000,0.000
1644895905455028992,2022-02-15-03:31:45,10.1.1.2,22,-0.100,-0.100,-0.100,0.000,0.000,0.000
1644895905613595904,2022-02-15-03:31:45,10.1.1.2,29,-0.070,-0.070,-0.070,0.000,0.000,0.000
1644895905673601024,2022-02-15-03:31:45,10.1.1.2,38,-0.060,-0.060,-0.060,0.000,0.000,0.000
1644895905713329152,2022-02-15-03:31:45,10.1.1.2,27,-0.050,-0.050,-0.050,0.000,0.000,0.000
1644895905774071040,2022-02-15-03:31:45,10.1.1.2,35,-0.040,-0.040,-0.040,0.000,0.000,0.000
1644895905814909952,2022-02-15-03:31:45,10.1.1.2,25,-0.030,-0.030,-0.030,0.000,0.000,0.000
1644895905873473024,2022-02-15-03:31:45,10.1.1.2,33,-0.020,-0.020,-0.020,0.000,0.000,0.000
1644895905974127104,2022-02-15-03:31:45,10.1.1.2,29,0.000,0.000,0.000,0.000,0.000,0.000
1644895906034321920,2022-02-15-03:31:46,10.1.1.2,38,0.010,0.010,0.010,0.000,0.000,0.000
1644895906073703936,2022-02-15-03:31:46,10.1.1.2,26,0.020,0.020,0.020,0.000,0.000,0.000
1644895906133918976,2022-02-15-03:31:46,10.1.1.2,33,0.030,0.030,0.030,0.000,0.000,0.000
1644895906174215168,2022-02-15-03:31:46,10.1.1.2,23,0.040,0.040,0.040,0.000,0.000,0.000
1644895906233917952,2022-02-15-03:31:46,10.1.1.2,32,0.050,0.050,0.050,0.000,0.000,0.000
1644895906275075840,2022-02-15-03:31:46,10.1.1.2,21,0.060,0.060,0.060,0.000,0.000,0.000
1644895906333980928,2022-02-15-03:31:46,10.1.1.2,31,0.070,0.070,0.070,0.000,0.000,0.000
1644895906433298176,2022-02-15-03:31:46,10.1.1.2,29,0.090,0.090,0.090,0.000,0.000,0.000
1644895906493603072,2022-02-15-03:31:46,10.1.1.2,38,0.100,0.100,0.100,0.000,0.000,0.000
1644895906533783808,2022-02-15-03:31:46,10.1.1.2,27,0.090,0.090,0.090,0.000,0.000,0.000
1644895906593396992,2022-02-15-03:31:46,10.1.1.2,36,0.080,0.080,0.080,0.000,0.000,0.000
1644895906633573120,2022-02-15-03:31:46,10.1.1.2,25,0.070,0.070,0.070,0.000,0.000,0.000
1644895906693609984,2022-02-15-03:31:46,10.1.1.2,35,0.060,0.060,0.060,0.000,0.000,0.000
1644895906733437952,2022-02-15-03:31:46,10.1.1.2,24,0.050,0.050,0.050,0.000,0.000,0.000
1644895906795500032,2022-02-15-03:31:46,10.1.1.2,33,0.040,0.040,0.040,0.000,0.000,0.000
1644895906833635072,2022-02-15-03:31:46,10.1.1.2,22,0.030,0.030,0.030,0.000,0.000,0.000
1644895906893625088,2022-02-15-03:31:46,10.1.1.2,32,0.020,0.020,0.020,0.000,0.000,0.000
1644895906994324992,2022-02-15-03:31:46,10.1.1.2,29,0.000,0.000,0.000,0.000,0.000,0.000
1644895907054088192,2022-02-15-03:31:47,10.1.1.2,38,-0.010,-0.010,-0.010,0.000,0.000,0.000
1644895907093358080,2022-02-15-03:31:47,10.1.1.2,27,-0.020,-0.020,-0.020,0.000,0.000,0.000
1644895907154216960,2022-02-15-03:31:47,10.1.1.2,36,-0.030,-0.030,-0.030,0.000,0.000,0.000
1644895907194725888,2022-02-15-03:31:47,10.1.1.2,25,-0.040,-0.040,-0.040,0.000,0.000,0.000
1644895907253832192,2022-02-15-03:31:47,10.1.1.2,34,-0.050,-0.050,-0.050,0.000,0.000,0.000
1644895907293720064,2022-02-15-03:31:47,10.1.1.2,22,-0.060,-0.060,-0.060,0.000,0.000,0.000
1644895907453649152,2022-02-15-03:31:47,10.1.1.2,29,-0.090,-0.090,-0.090,0.000,0.000,0.000
1644895907513539072,2022-02-15-03:31:47,10.1.1.2,38,-0.100,-0.100,-0.100,0.000,0.000,0.000
1644895907553873152,2022-02-15-03:31:47,10.1.1.2,27,-0.090,-0.090,-0.090,0.000,0.000,0.000
1644895907613771008,2022-02-15-03:31:47,10.1.1.2,35,-0.080,-0.080,-0.080,0.000,0.000,0.000
1644895907653351168,2022-02-15-03:31:47,10.1.1.2,22,-0.070,-0.070,-0.070,0.000,0.000,0.000
1644895907773919232,2022-02-15-03:31:47,10.1.1.2,39,-0.050,-0.050,-0.050,0.000,0.000,0.000
1644895907815426048,2022-02-15-03:31:47,10.1.1.2,27,-0.040,-0.040,-0.040,0.000,0.000,0.000
1644895907873948928,2022-02-15-03:31:47,10.1.1.2,36,-0.030,-0.030,-0.030,0.000,0.000,0.000
1644895907914482944,2022-02-15-03:31:47,10.1.1.2,25,-0.020,-0.020,-0.020,0.000,0.000,0.000
1644895907974211072,2022-02-15-03:31:47,10.1.1.2,34,-0.010,-0.010,-0.010,0.000,0.000,0.000
1644895908013633024,2022-02-15-03:31:48,10.1.1.2,23,0.000,0.000,0.000,0.000,0.000,0.000
1644895908233891840,2022-02-15-03:31:48,10.1.1.2,39,0.040,0.040,0.040,0.000,0.000,0.000
1644895908276832000,2022-02-15-03:31:48,10.1.1.2,27,0.050,0.050,0.050,0.000,0.000,0.000
1644895908333633792,2022-02-15-03:31:48,10.1.1.2,36,0.060,0.060,0.060,0.000,0.000,0.000
1644895908374939904,2022-02-15-03:31:48,10.1.1.2,24,0.070,0.070,0.070,0.000,0.000,0.000
1644895908433620992,2022-02-15-03:31:48,10.1.1.2,33,0.080,0.080,0.080,0.000,0.000,0.000
1644895908474504960,2022-02-15-03:31:48,10.1.1.2,21,0.090,0.090,0.090,0.000,0.000,0.000
1644895908557224960,2022-02-15-03:31:48,10.1.1.2,0,0.090,0.090,0.090,0.000,0.000,0.000
1644895908633935872,2022-02-15-03:31:48,10.1.1.2,28,0.080,0.080,0.080,0.000,0.000,0.000
1644895908695499776,2022-02-15-03:31:48,10.1.1.2,36,0.070,0.070,0.070,0.000,0.000,0.000
1644895908734138880,2022-02-15-03:31:48,10.1.1.2,25,0.060,0.060,0.060,0.000,0.000,0.000
1644895908793512960,2022-02-15-03:31:48,10.1.1.2,33,0.050,0.050,0.050,0.000,0.000,0.000
1644895908834224896,2022-02-15-03:31:48,10.1.1.2,23,0.040,0.040,0.040,0.000,0.000,0.000
1644895908893500160,2022-02-15-03:31:48,10.1.1.2,32,0.030,0.030,0.030,0.000,0.000,0.000
1644895908933514240,2022-02-15-03:31:48,10.1.1.2,21,0.020,0.020,0.020,0.000,0.000,0.000
1644895909053613056,2022-02-15-03:31:49,10.1.1.2,39,0.000,0.000,0.000,0.000,0.000,0.000
1644895909094681856,2022-02-15-03:31:49,10.1.1.2,28,-0.010,-0.010,-0.010,0.000,0.000,0.000
1644895909153350144,2022-02-15-03:31:49,10.1.1.2,37,-0.020,-0.020,-0.020,0.000,0.000,0.000
1644895909193228032,2022-02-15-03:31:49,10.1.1.2,24,-0.030,-0.030,-0.030,0.000,0.000,0.000
1644895909254947840,2022-02-15-03:31:49,10.1.1.2,34,-0.040,-0.040,-0.040,0.000,0.000,0.000
1644895909294786816,2022-02-15-03:31:49,10.1.1.2,23,-0.050,-0.050,-0.050,0.000,0.000,0.000
1644895909393948928,2022-02-15-03:31:49,10.1.1.2,20,-0.070,-0.070,-0.070,0.000,0.000,0.000
1644895909453843200,2022-02-15-03:31:49,10.1.1.2,29,-0.080,-0.080,-0.080,0.000,0.000,0.000
1644895909513808896,2022-02-15-03:31:49,10.1.1.2,37,-0.090,-0.090,-0.090,0.000,0.000,0.000
1644895909553473024,2022-02-15-03:31:49,10.1.1.2,26,-0.100,-0.100,-0.100,0.000,0.000,0.000
1644895909613296896,2022-02-15-03:31:49,10.1.1.2,35,-0.090,-0.090,-0.090,0.000,0.000,0.000
1644895909653220864,2022-02-15-03:31:49,10.1.1.2,24,-0.080,-0.080,-0.080,0.000,0.000,0.000
1644895909713278976,2022-02-15-03:31:49,10.1.1.2,33,-0.070,-0.070,-0.070,0.000,0.000,0.000
1644895909754478848,2022-02-15-03:31:49,10.1.1.2,22,-0.060,-0.060,-0.060,0.000,0.000,0.000
1644895909973615872,2022-02-15-03:31:49,10.1.1.2,39,-0.020,-0.020,-0.020,0.000,0.000,0.000
1644895910014220032,2022-02-15-03:31:50,10.1.1.2,28,-0.010,-0.010,-0.010,0.000,0.000,0.000
1644895910073718016,2022-02-15-03:31:50,10.1.1.2,37,0.000,0.000,0.000,0.000,0.000,0.000
1644895910113221888,2022-02-15-03:31:50,10.1.1.2,26,0.010,0.010,0.010,0.000,0.000,0.000
1644895910173737984,2022-02-15-03:31:50,10.1.1.2,35,0.020,0.020,0.020,0.000,0.000,0.000
1644895910213475072,2022-02-15-03:31:50,10.1.1.2,24,0.030,0.030,0.030,0.000,0.000,0.000
1644895910273471232,2022-02-15-03:31:50,10.1.1.2,34,0.040,0.040,0.040,0.000,0.000,0.000
1644895910313524992,2022-02-15-03:31:50,10.1.1.2,22,0.050,0.050,0.050,0.000,0.000,0.000
1644895910373704960,2022-02-15-03:31:50,10.1.1.2,32,0.060,0.060,0.060,0.000,0.000,0.000
1644895910534018048,2022-02-15-03:31:50,10.1.1.2,37,0.090,0.090,0.090,0.000,0.000,0.000
1644895910573573120,2022-02-15-03:31:50,10.1.1.2,26,0.100,0.100,0.100,0.000,0.000,0.000
1644895910633344768,2022-02-15-03:31:50,10.1.1.2,35,0.090,0.090,0.090,0.000,0.000,0.000
1644895910673455872,2022-02-15-03:31:50,10.1.1.2,23,0.080,0.080,0.080,0.000,0.000,0.000
1644895910832976128,2022-02-15-03:31:50,10.1.1.2,28,0.050,0.050,0.050,0.000,0.000,0.000
1644895910893266944,2022-02-15-03:31:50,10.1.1.2,37,0.040,0.040,0.040,0.000,0.000,0.000
1644895910933926144,2022-02-15-03:31:50,10.1.1.2,26,0.030,0.030,0.030,0.000,0.000,0.000
1644895910993815040,2022-02-15-03:31:50,10.1.1.2,35,0.020,0.020,0.020,0.000,0.000,0.000
1644895911033466112,2022-02-15-03:31:51,10.1.1.2,24,0.010,0.010,0.010,0.000,0.000,0.000
1644895911093432832,2022-02-15-03:31:51,10.1.1.2,32,0.000,0.000,0.000,0.000,0.000,0.000
1644895911134224896,2022-02-15-03:31:51,10.1.1.2,21,-0.010,-0.010,-0.010,0.000,0.000,0.000
1644895911294187008,2022-02-15-03:31:51,10.1.1.2,28,-0.040,-0.040,-0.040,0.000,0.000,0.000
1644895911353751808,2022-02-15-03:31:51,10.1.1.2,37,-0.050,-0.050,-0.050,0.000,0.000,0.000
1644895911392891904,2022-02-15-03:31:51,10.1.1.2,27,-0.060,-0.060,-0.060,0.000,0.000,0.000
1644895911452728064,2022-02-15-03:31:51,10.1.1.2,36,-0.070,-0.070,-0.070,0.000,0.000,0.000
1644895911494401024,2022-02-15-03:31:51,10.1.1.2,26,-0.080,-0.080,-0.080,0.000,0.000,0.000
1644895911554809088,2022-02-15-03:31:51,10.1.1.2,34,-0.090,-0.090,-0.090,0.000,0.000,0.000
1644895911594233088,2022-02-15-03:31:51,10.1.1.2,23,-0.100,-0.100,-0.100,0.000,0.000,0.000
1644895911653579008,2022-02-15-03:31:51,10.1.1.2,33,-0.090,-0.090,-0.090,0.000,0.000,0.000
1644895911695265024,2022-02-15-03:31:51,10.1.1.2,21,-0.080,-0.080,-0.080,0.000,0.000,0.000
1644895911814223104,2022-02-15-03:31:51,10.1.1.2,39,-0.060,-0.060,-0.060,0.000,0.000,0.000
1644895911853753088,2022-02-15-03:31:51,10.1.1.2,26,-0.050,-0.050,-0.050,0.000,0.000,0.000
1644895912014508032,2022-02-15-03:31:52,10.1.1.2,28,-0.020,-0.020,-0.020,0.000,0.000,0.000
1644895912073970176,2022-02-15-03:31:52,10.1.1.2,37,-0.010,-0.010,-0.010,0.000,0.000,0.000
1644895912114067968,2022-02-15-03:31:52,10.1.1.2,26,0.000,0.000,0.000,0.000,0.000,0.000
1644895912175216896,2022-02-15-03:31:52,10.1.1.2,36,0.010,0.010,0.010,0.000,0.000,0.000
1644895912216429824,2022-02-15-03:31:52,10.1.1.2,25,0.020,0.020,0.020,0.000,0.000,0.000
1644895912273968896,2022-02-15-03:31:52,10.1.1.2,34,0.030,0.030,0.030,0.000,0.000,0.000
1644895912313743104,2022-02-15-03:31:52,10.1.1.2,23,0.040,0.040,0.040,0.000,0.000,0.000
1644895912374715136,2022-02-15-03:31:52,10.1.1.2,32,0.050,0.050,0.050,0.000,0.000,0.000
1644895912413796864,2022-02-15-03:31:52,10.1.1.2,21,0.060,0.060,0.060,0.000,0.000,0.000
1644895912533620992,2022-02-15-03:31:52,10.1.1.2,39,0.080,0.080,0.080,0.000,0.000,0.000
1644895912574348032,2022-02-15-03:31:52,10.1.1.2,28,0.090,0.090,0.090,0.000,0.000,0.000
1644895912634252032,2022-02-15-03:31:52,10.1.1.2,37,0.100,0.100,0.100,0.000,0.000,0.000
1644895912673551104,2022-02-15-03:31:52,10.1.1.2,26,0.090,0.090,0.090,0.000,0.000,0.000
1644895912733169920,2022-02-15-03:31:52,10.1.1.2,34,0.080,0.080,0.080,0.000,0.000,0.000
1644895912774358016,2022-02-15-03:31:52,10.1.1.2,24,0.070,0.070,0.070,0.000,0.000,0.000
1644895912833890816,2022-02-15-03:31:52,10.1.1.2,33,0.060,0.060,0.060,0.000,0.000,0.000
1644895912875084032,2022-02-15-03:31:52,10.1.1.2,22,0.050,0.050,0.050,0.000,0.000,0.000
1644895912934357760,2022-02-15-03:31:52,10.1.1.2,31,0.040,0.040,0.040,0.000,0.000,0.000
1644895913038007040,2022-02-15-03:31:53,10.1.1.2,30,0.020,0.020,0.020,0.000,0.000,0.000
1644895913094441984,2022-02-15-03:31:53,10.1.1.2,38,0.010,0.010,0.010,0.000,0.000,0.000
1644895913133321984,2022-02-15-03:31:53,10.1.1.2,27,0.000,0.000,0.000,0.000,0.000,0.000
1644895913194510848,2022-02-15-03:31:53,10.1.1.2,35,-0.010,-0.010,-0.010,0.000,0.000,0.000
1644895913234173952,2022-02-15-03:31:53,10.1.1.2,24,-0.020,-0.020,-0.020,0.000,0.000,0.000
1644895913294039040,2022-02-15-03:31:53,10.1.1.2,33,-0.030,-0.030,-0.030,0.000,0.000,0.000
1644895913333647872,2022-02-15-03:31:53,10.1.1.2,23,-0.040,-0.040,-0.040,0.000,0.000,0.000
1644895913494031872,2022-02-15-03:31:53,10.1.1.2,29,-0.070,-0.070,-0.070,0.000,0.000,0.000
1644895913553829888,2022-02-15-03:31:53,10.1.1.2,37,-0.080,-0.080,-0.080,0.000,0.000,0.000
1644895913593530880,2022-02-15-03:31:53,10.1.1.2,26,-0.090,-0.090,-0.090,0.000,0.000,0.000
1644895913653955072,2022-02-15-03:31:53,10.1.1.2,36,-0.100,-0.100,-0.100,0.000,0.000,0.000
1644895913693003776,2022-02-15-03:31:53,10.1.1.2,25,-0.090,-0.090,-0.090,0.000,0.000,0.000
1644895913753689088,2022-02-15-03:31:53,10.1.1.2,34,-0.080,-0.080,-0.080,0.000,0.000,0.000
1644895913793634816,2022-02-15-03:31:53,10.1.1.2,24,-0.070,-0.070,-0.070,0.000,0.000,0.000
1644895913854042112,2022-02-15-03:31:53,10.1.1.2,32,-0.060,-0.060,-0.060,0.000,0.000,0.000
1644895913953263104,2022-02-15-03:31:53,10.1.1.2,29,-0.040,-0.040,-0.040,0.000,0.000,0.000
1644895914013607936,2022-02-15-03:31:54,10.1.1.2,37,-0.030,-0.030,-0.030,0.000,0.000,0.000
1644895914053390080,2022-02-15-03:31:54,10.1.1.2,27,-0.020,-0.020,-0.020,0.000,0.000,0.000
1644895914114765824,2022-02-15-03:31:54,10.1.1.2,36,-0.010,-0.010,-0.010,0.000,0.000,0.000
1644895914153678848,2022-02-15-03:31:54,10.1.1.2,25,0.000,0.000,0.000,0.000,0.000,0.000
1644895914216862976,2022-02-15-03:31:54,10.1.1.2,34,0.010,0.010,0.010,0.000,0.000,0.000
1644895914254414080,2022-02-15-03:31:54,10.1.1.2,23,0.020,0.020,0.020,0.000,0.000,0.000
1644895914474134016,2022-02-15-03:31:54,10.1.1.2,39,0.060,0.060,0.060,0.000,0.000,0.000
1644895914514087936,2022-02-15-03:31:54,10.1.1.2,27,0.070,0.070,0.070,0.000,0.000,0.000
1644895914574772992,2022-02-15-03:31:54,10.1.1.2,36,0.080,0.080,0.080,0.000,0.000,0.000
1644895914614761216,2022-02-15-03:31:54,10.1.1.2,25,0.090,0.090,0.090,0.000,0.000,0.000
1644895914673537024,2022-02-15-03:31:54,10.1.1.2,34,0.100,0.100,0.100,0.000,0.000,0.000
1644895914714234112,2022-02-15-03:31:54,10.1.1.2,23,0.090,0.090,0.090,0.000,0.000,0.000
1644895914774267904,2022-02-15-03:31:54,10.1.1.2,32,0.080,0.080,0.080,0.000,0.000,0.000
1644895914815470080,2022-02-15-03:31:54,10.1.1.2,22,0.070,0.070,0.070,0.000,0.000,0.000
1644895914934829824,2022-02-15-03:31:54,10.1.1.2,39,0.050,0.050,0.050,0.000,0.000,0.000
1644895914973714944,2022-02-15-03:31:54,10.1.1.2,28,0.040,0.040,0.040,0.000,0.000,0.000
1644895915034373120,2022-02-15-03:31:55,10.1.1.2,36,0.030,0.030,0.030,0.000,0.000,0.000
1644895915074027008,2022-02-15-03:31:55,10.1.1.2,26,0.020,0.020,0.020,0.000,0.000,0.000
1644895915133636096,2022-02-15-03:31:55,10.1.1.2,33,0.010,0.010,0.010,0.000,0.000,0.000
1644895915173304064,2022-02-15-03:31:55,10.1.1.2,23,0.000,0.000,0.000,0.000,0.000,0.000
1644895915233829888,2022-02-15-03:31:55,10.1.1.2,32,-0.010,-0.010,-0.010,0.000,0.000,0.000
1644895915273798912,2022-02-15-03:31:55,10.1.1.2,21,-0.020,-0.020,-0.020,0.000,0.000,0.000
1644895915393924864,2022-02-15-03:31:55,10.1.1.2,39,-0.040,-0.040,-0.040,0.000,0.000,0.000
1644895915433926144,2022-02-15-03:31:55,10.1.1.2,28,-0.050,-0.050,-0.050,0.000,0.000,0.000
1644895915494440192,2022-02-15-03:31:55,10.1.1.2,36,-0.060,-0.060,-0.060,0.000,0.000,0.000
1644895915533741824,2022-02-15-03:31:55,10.1.1.2,25,-0.070,-0.070,-0.070,0.000,0.000,0.000
1644895915593871104,2022-02-15-03:31:55,10.1.1.2,34,-0.080,-0.080,-0.080,0.000,0.000,0.000
1644895915633847040,2022-02-15-03:31:55,10.1.1.2,23,-0.090,-0.090,-0.090,0.000,0.000,0.000
1644895915693462016,2022-02-15-03:31:55,10.1.1.2,32,-0.100,-0.100,-0.100,0.000,0.000,0.000
1644895915853336064,2022-02-15-03:31:55,10.1.1.2,39,-0.070,-0.070,-0.070,0.000,0.000,0.000
1644895915894670848,2022-02-15-03:31:55,10.1.1.2,28,-0.060,-0.060,-0.060,0.000,0.000,0.000
1644895915953888000,2022-02-15-03:31:55,10.1.1.2,37,-0.050,-0.050,-0.050,0.000,0.000,0.000
1644895915994457856,2022-02-15-03:31:55,10.1.1.2,26,-0.040,-0.040,-0.040,0.000,0.000,0.000
1644895916054363136,2022-02-15-03:31:56,10.1.1.2,35,-0.030,-0.030,-0.030,0.000,0.000,0.000
1644895916093337088,2022-02-15-03:31:56,10.1.1.2,24,-0.020,-0.020,-0.020,0.000,0.000,0.000
1644895916153538048,2022-02-15-03:31:56,10.1.1.2,33,-0.010,-0.010,-0.010,0.000,0.000,0.000
1644895916192995072,2022-02-15-03:31:56,10.1.1.2,22,0.000,0.000,0.000,0.000,0.000,0.000
1644895916293762816,2022-02-15-03:31:56,10.1.1.2,20,0.020,0.020,0.020,0.000,0.000,0.000
1644895916354115840,2022-02-15-03:31:56,10.1.1.2,28,0.030,0.030,0.030,0.000,0.000,0.000
1644895916414091008,2022-02-15-03:31:56,10.1.1.2,37,0.040,0.040,0.040,0.000,0.000,0.000
1644895916454361856,2022-02-15-03:31:56,10.1.1.2,26,0.050,0.050,0.050,0.000,0.000,0.000
1644895916514023168,2022-02-15-03:31:56,10.1.1.2,34,0.060,0.060,0.060,0.000,0.000,0.000
1644895916553658112,2022-02-15-03:31:56,10.1.1.2,23,0.070,0.070,0.070,0.000,0.000,0.000
1644895916614553856,2022-02-15-03:31:56,10.1.1.2,32,0.080,0.080,0.080,0.000,0.000,0.000
1644895916773199104,2022-02-15-03:31:56,10.1.1.2,38,0.090,0.090,0.090,0.000,0.000,0.000
1644895916814332928,2022-02-15-03:31:56,10.1.1.2,26,0.080,0.080,0.080,0.000,0.000,0.000
1644895916873445888,2022-02-15-03:31:56,10.1.1.2,35,0.070,0.070,0.070,0.000,0.000,0.000
1644895916915023104,2022-02-15-03:31:56,10.1.1.2,24,0.060,0.060,0.060,0.000,0.000,0.000
1644895916973961984,2022-02-15-03:31:56,10.1.1.2,33,0.050,0.050,0.050,0.000,0.000,0.000
1644895917014579968,2022-02-15-03:31:57,10.1.1.2,23,0.040,0.040,0.040,0.000,0.000,0.000
1644895917133609984,2022-02-15-03:31:57,10.1.1.2,39,0.020,0.020,0.020,0.000,0.000,0.000
1644895917175246848,2022-02-15-03:31:57,10.1.1.2,28,0.010,0.010,0.010,0.000,0.000,0.000
1644895917234081024,2022-02-15-03:31:57,10.1.1.2,37,0.000,0.000,0.000,0.000,0.000,0.000
1644895917273873920,2022-02-15-03:31:57,10.1.1.2,26,-0.010,-0.010,-0.010,0.000,0.000,0.000
1644895917333800960,2022-02-15-03:31:57,10.1.1.2,35,-0.020,-0.020,-0.020,0.000,0.000,0.000
1644895917374744064,2022-02-15-03:31:57,10.1.1.2,25,-0.030,-0.030,-0.030,0.000,0.000,0.000
1644895917434368000,2022-02-15-03:31:57,10.1.1.2,34,-0.040,-0.040,-0.040,0.000,0.000,0.000
1644895917474384896,2022-02-15-03:31:57,10.1.1.2,23,-0.050,-0.050,-0.050,0.000,0.000,0.000
1644895917534267904,2022-02-15-03:31:57,10.1.1.2,32,-0.060,-0.060,-0.060,0.000,0.000,0.000
1644895917574036992,2022-02-15-03:31:57,10.1.1.2,21,-0.070,-0.070,-0.070,0.000,0.000,0.000
1644895917734426880,2022-02-15-03:31:57,10.1.1.2,27,-0.100,-0.100,-0.100,0.000,0.000,0.000
1644895917793606912,2022-02-15-03:31:57,10.1.1.2,36,-0.090,-0.090,-0.090,0.000,0.000,0.000
1644895917833987840,2022-02-15-03:31:57,10.1.1.2,25,-0.080,-0.080,-0.080,0.000,0.000,0.000
1644895917893523968,2022-02-15-03:31:57,10.1.1.2,35,-0.070,-0.070,-0.070,0.000,0.000,0.000
1644895917934892800,2022-02-15-03:31:57,10.1.1.2,24,-0.060,-0.060,-0.060,0.000,0.000,0.000
1644895917993737984,2022-02-15-03:31:57,10.1.1.2,32,-0.050,-0.050,-0.050,0.000,0.000,0.000
1644895918033616128,2022-02-15-03:31:58,10.1.1.2,21,-0.040,-0.040,-0.040,0.000,0.000,0.000
1644895918094333952,2022-02-15-03:31:58,10.1.1.2,28,-0.030,-0.030,-0.030,0.000,0.000,0.000
1644895918153682944,2022-02-15-03:31:58,10.1.1.2,36,-0.020,-0.020,-0.020,0.000,0.000,0.000
1644895918193651968,2022-02-15-03:31:58,10.1.1.2,25,-0.010,-0.010,-0.010,0.000,0.000,0.000
1644895918253297152,2022-02-15-03:31:58,10.1.1.2,34,0.000,0.000,0.000,0.000,0.000,0.000
1644895918294073088,2022-02-15-03:31:58,10.1.1.2,23,0.010,0.010,0.010,0.000,0.000,0.000
1644895918354414848,2022-02-15-03:31:58,10.1.1.2,32,0.020,0.020,0.020,0.000,0.000,0.000
1644895918394383872,2022-02-15-03:31:58,10.1.1.2,21,0.030,0.030,0.030,0.000,0.000,0.000
1644895918454065920,2022-02-15-03:31:58,10.1.1.2,28,0.040,0.040,0.040,0.000,0.000,0.000
1644895918514390016,2022-02-15-03:31:58,10.1.1.2,37,0.050,0.050,0.050,0.000,0.000,0.000
1644895918554585088,2022-02-15-03:31:58,10.1.1.2,25,0.060,0.060,0.060,0.000,0.000,0.000
1644895918614383872,2022-02-15-03:31:58,10.1.1.2,34,0.070,0.070,0.070,0.000,0.000,0.000
1644895918653187072,2022-02-15-03:31:58,10.1.1.2,22,0.080,0.080,0.080,0.000,0.000,0.000
1644895918834305024,2022-02-15-03:31:58,10.1.1.2,-2,0.080,0.080,0.080,0.000,0.000,0.000
1644895918914007040,2022-02-15-03:31:58,10.1.1.2,27,0.070,0.070,0.070,0.000,0.000,0.000
1644895918973762048,2022-02-15-03:31:58,10.1.1.2,36,0.060,0.060,0.060,0.000,0.000,0.000
1644895919014797056,2022-02-15-03:31:59,10.1.1.2,25,0.050,0.050,0.050,0.000,0.000,0.000
1644895919073278976,2022-02-15-03:31:59,10.1.1.2,33,0.040,0.040,0.040,0.000,0.000,0.000
1644895919114692096,2022-02-15-03:31:59,10.1.1.2,22,0.030,0.030,0.030,0.000,0.000,0.000
1644895919175045120,2022-02-15-03:31:59,10.1.1.2,32,0.020,0.020,0.020,0.000,0.000,0.000
1644895919214039040,2022-02-15-03:31:59,10.1.1.2,21,0.010,0.010,0.010,0.000,0.000,0.000
1644895919333780992,2022-02-15-03:31:59,10.1.1.2,39,-0.010,-0.010,-0.010,0.000,0.000,0.000
1644895919373837056,2022-02-15-03:31:59,10.1.1.2,28,-0.020,-0.020,-0.020,0.000,0.000,0.000
1644895919433731072,2022-02-15-03:31:59,10.1.1.2,37,-0.030,-0.030,-0.030,0.000,0.000,0.000
1644895919473659904,2022-02-15-03:31:59,10.1.1.2,27,-0.040,-0.040,-0.040,0.000,0.000,0.000
1644895919533859072,2022-02-15-03:31:59,10.1.1.2,36,-0.050,-0.050,-0.050,0.000,0.000,0.000
1644895919573842176,2022-02-15-03:31:59,10.1.1.2,25,-0.060,-0.060,-0.060,0.000,0.000,0.000
1644895919632963840,2022-02-15-03:31:59,10.1.1.2,35,-0.070,-0.070,-0.070,0.000,0.000,0.000
1644895919673392128,2022-02-15-03:31:59,10.1.1.2,24,-0.080,-0.080,-0.080,0.000,0.000,0.000
1644895919733094912,2022-02-15-03:31:59,10.1.1.2,33,-0.090,-0.090,-0.090,0.000,0.000,0.000
1644895919773849856,2022-02-15-03:31:59,10.1.1.2,22,-0.100,-0.100,-0.100,0.000,0.000,0.000
1644895919995198976,2022-02-15-03:31:59,10.1.1.2,36,-0.060,-0.060,-0.060,0.000,0.000,0.000
1644895920033955072,2022-02-15-03:32:00,10.1.1.2,26,-0.050,-0.050,-0.050,0.000,0.000,0.000
1644895920094916096,2022-02-15-03:32:00,10.1.1.2,34,-0.040,-0.040,-0.040,0.000,0.000,0.000
1644895920135256064,2022-02-15-03:32:00,10.1.1.2,23,-0.030,-0.030,-0.030,0.000,0.000,0.000
1644895920193726976,2022-02-15-03:32:00,10.1.1.2,32,-0.020,-0.020,-0.020,0.000,0.000,0.000
1644895920234025984,2022-02-15-03:32:00,10.1.1.2,22,-0.010,-0.010,-0.010,0.000,0.000,0.000
1644895920294930944,2022-02-15-03:32:00,10.1.1.2,31,0.000,0.000,0.000,0.000,0.000,0.000
1644895920394087936,2022-02-15-03:32:00,10.1.1.2,29,0.020,0.020,0.020,0.000,0.000,0.000
1644895920453421056,2022-02-15-03:32:00,10.1.1.2,37,0.030,0.030,0.030,0.000,0.000,0.000
1644895920493468928,2022-02-15-03:32:00,10.1.1.2,26,0.040,0.040,0.040,0.000,0.000,0.000
1644895920554156032,2022-02-15-03:32:00,10.1.1.2,35,0.050,0.050,0.050,0.000,0.000,0.000
1644895920594678016,2022-02-15-03:32:00,10.1.1.2,24,0.060,0.060,0.060,0.000,0.000,0.000
1644895920655542016,2022-02-15-03:32:00,10.1.1.2,34,0.070,0.070,0.070,0.000,0.000,0.000
1644895920693530112,2022-02-15-03:32:00,10.1.1.2,23,0.080,0.080,0.080,0.000,0.000,0.000
1644895920853591808,2022-02-15-03:32:00,10.1.1.2,27,0.090,0.090,0.090,0.000,0.000,0.000
1644895920913974016,2022-02-15-03:32:00,10.1.1.2,36,0.080,0.080,0.080,0.000,0.000,0.000
1644895920953271040,2022-02-15-03:32:00,10.1.1.2,25,0.070,0.070,0.070,0.000,0.000,0.000
1644895921014285056,2022-02-15-03:32:01,10.1.1.2,34,0.060,0.060,0.060,0.000,0.000,0.000
1644895921053085184,2022-02-15-03:32:01,10.1.1.2,22,0.050,0.050,0.050,0.000,0.000,0.000
1644895921114013952,2022-02-15-03:32:01,10.1.1.2,32,0.040,0.040,0.040,0.000,0.000,0.000
1644895921174194176,2022-02-15-03:32:01,10.1.1.2,38,0.030,0.030,0.030,0.000,0.000,0.000
1644895921213798144,2022-02-15-03:32:01,10.1.1.2,27,0.020,0.020,0.020,0.000,0.000,0.000
1644895921273876992,2022-02-15-03:32:01,10.1.1.2,35,0.010,0.010,0.010,0.000,0.000,0.000
1644895921315548928,2022-02-15-03:32:01,10.1.1.2,22,0.000,0.000,0.000,0.000,0.000,0.000
1644895921374887936,2022-02-15-03:32:01,10.1.1.2,31,-0.010,-0.010,-0.010,0.000,0.000,0.000
1644895921534185984,2022-02-15-03:32:01,10.1.1.2,38,-0.040,-0.040,-0.040,0.000,0.000,0.000
1644895921578013952,2022-02-15-03:32:01,10.1.1.2,27,-0.050,-0.050,-0.050,0.000,0.000,0.000
1644895921634376960,2022-02-15-03:32:01,10.1.1.2,37,-0.060,-0.060,-0.060,0.000,0.000,0.000
1644895921673854208,2022-02-15-03:32:01,10.1.1.2,26,-0.070,-0.070,-0.070,0.000,0.000,0.000
1644895921734247936,2022-02-15-03:32:01,10.1.1.2,34,-0.080,-0.080,-0.080,0.000,0.000,0.000
1644895921778397952,2022-02-15-03:32:01,10.1.1.2,23,-0.090,-0.090,-0.090,0.000,0.000,0.000
1644895921833539072,2022-02-15-03:32:01,10.1.1.2,32,-0.100,-0.100,-0.100,0.000,0.000,0.000
1644895921994137088,2022-02-15-03:32:01,10.1.1.2,39,-0.070,-0.070,-0.070,0.000,0.000,0.000
1644895922033735936,2022-02-15-03:32:02,10.1.1.2,28,-0.060,-0.060,-0.060,0.000,0.000,0.000
1644895922093494016,2022-02-15-03:32:02,10.1.1.2,36,-0.050,-0.050,-0.050,0.000,0.000,0.000
1644895922133987072,2022-02-15-03:32:02,10.1.1.2,26,-0.040,-0.040,-0.040,0.000,0.000,0.000
1644895922193600000,2022-02-15-03:32:02,10.1.1.2,35,-0.030,-0.030,-0.030,0.000,0.000,0.000
1644895922233390080,2022-02-15-03:32:02,10.1.1.2,24,-0.020,-0.020,-0.020,0.000,0.000,0.000
1644895922293719040,2022-02-15-03:32:02,10.1.1.2,33,-0.010,-0.010,-0.010,0.000,0.000,0.000
1644895922454514944,2022-02-15-03:32:02,10.1.1.2,40,0.020,0.020,0.020,0.000,0.000,0.000
1644895922493964032,2022-02-15-03:32:02,10.1.1.2,27,0.030,0.030,0.030,0.000,0.000,0.000
1644895922554089984,2022-02-15-03:32:02,10.1.1.2,36,0.040,0.040,0.040,0.000,0.000,0.000
1644895922593977088,2022-02-15-03:32:02,10.1.1.2,25,0.050,0.050,0.050,0.000,0.000,0.000
1644895922653677056,2022-02-15-03:32:02,10.1.1.2,34,0.060,0.060,0.060,0.000,0.000,0.000
1644895922693728000,2022-02-15-03:32:02,10.1.1.2,22,0.070,0.070,0.070,0.000,0.000,0.000
1644895922813540096,2022-02-15-03:32:02,10.1.1.2,38,0.090,0.090,0.090,0.000,0.000,0.000
1644895922854317056,2022-02-15-03:32:02,10.1.1.2,25,0.100,0.100,0.100,0.000,0.000,0.000
1644895922913913088,2022-02-15-03:32:02,10.1.1.2,32,0.090,0.090,0.090,0.000,0.000,0.000
1644895922954145792,2022-02-15-03:32:02,10.1.1.2,21,0.080,0.080,0.080,0.000,0.000,0.000
1644895923074564096,2022-02-15-03:32:03,10.1.1.2,37,0.060,0.060,0.060,0.000,0.000,0.000
1644895923115081984,2022-02-15-03:32:03,10.1.1.2,26,0.050,0.050,0.050,0.000,0.000,0.000
1644895923174524160,2022-02-15-03:32:03,10.1.1.2,34,0.040,0.040,0.040,0.000,0.000,0.000
1644895923215090944,2022-02-15-03:32:03,10.1.1.2,23,0.030,0.030,0.030,0.000,0.000,0.000
1644895923273720064,2022-02-15-03:32:03,10.1.1.2,32,0.020,0.020,0.020,0.000,0.000,0.000
1644895923313331968,2022-02-15-03:32:03,10.1.1.2,21,0.010,0.010,0.010,0.000,0.000,0.000
1644895923433444864,2022-02-15-03:32:03,10.1.1.2,38,-0.010,-0.010,-0.010,0.000,0.000,0.000
1644895923474201856,2022-02-15-03:32:03,10.1.1.2,28,-0.020,-0.020,-0.020,0.000,0.000,0.000
1644895923534199040,2022-02-15-03:32:03,10.1.1.2,36,-0.030,-0.030,-0.030,0.000,0.000,0.000
1644895923573178112,2022-02-15-03:32:03,10.1.1.2,25,-0.040,-0.040,-0.040,0.000,0.000,0.000
1644895923634196992,2022-02-15-03:32:03,10.1.1.2,34,-0.050,-0.050,-0.050,0.000,0.000,0.000
1644895923672934144,2022-02-15-03:32:03,10.1.1.2,24,-0.060,-0.060,-0.060,0.000,0.000,0.000
1644895923733121024,2022-02-15-03:32:03,10.1.1.2,33,-0.070,-0.070,-0.070,0.000,0.000,0.000
1644895923893657856,2022-02-15-03:32:03,10.1.1.2,39,-0.100,-0.100,-0.100,0.000,0.000,0.000
1644895923933016064,2022-02-15-03:32:03,10.1.1.2,28,-0.090,-0.090,-0.090,0.000,0.000,0.000
1644895923954718976,2022-02-15-03:32:03,10.1.1.2,-3,-0.090,-0.090,-0.090,0.000,0.000,0.000
1644895924033608960,2022-02-15-03:32:04,10.1.1.2,26,-0.070,-0.070,-0.070,0.000,0.000,0.000
1644895924095462912,2022-02-15-03:32:04,10.1.1.2,34,-0.060,-0.060,-0.060,0.000,0.000,0.000
1644895924134980864,2022-02-15-03:32:04,10.1.1.2,23,-0.050,-0.050,-0.050,0.000,0.000,0.000
1644895924193654016,2022-02-15-03:32:04,10.1.1.2,32,-0.040,-0.040,-0.040,0.000,0.000,0.000
1644895924233586176,2022-02-15-03:32:04,10.1.1.2,21,-0.030,-0.030,-0.030,0.000,0.000,0.000
1644895924353569024,2022-02-15-03:32:04,10.1.1.2,40,-0.010,-0.010,-0.010,0.000,0.000,0.000
1644895924393337856,2022-02-15-03:32:04,10.1.1.2,28,0.000,0.000,0.000,0.000,0.000,0.000
1644895924453636864,2022-02-15-03:32:04,10.1.1.2,37,0.010,0.010,0.010,0.000,0.000,0.000
1644895924493385984,2022-02-15-03:32:04,10.1.1.2,26,0.020,0.020,0.020,0.000,0.000,0.000
1644895924553432832,2022-02-15-03:32:04,10.1.1.2,35,0.030,0.030,0.030,0.000,0.000,0.000
1644895924593241088,2022-02-15-03:32:04,10.1.1.2,24,0.040,0.040,0.040,0.000,0.000,0.000
1644895924653672960,2022-02-15-03:32:04,10.1.1.2,33,0.050,0.050,0.050,0.000,0.000,0.000
1644895924693510144,2022-02-15-03:32:04,10.1.1.2,22,0.060,0.060,0.060,0.000,0.000,0.000
1644895924853438976,2022-02-15-03:32:04,10.1.1.2,29,0.090,0.090,0.090,0.000,0.000,0.000
1644895924914272000,2022-02-15-03:32:04,10.1.1.2,38,0.100,0.100,0.100,0.000,0.000,0.000
1644895924953211136,2022-02-15-03:32:04,10.1.1.2,27,0.090,0.090,0.090,0.000,0.000,0.000
1644895925013329920,2022-02-15-03:32:05,10.1.1.2,35,0.080,0.080,0.080,0.000,0.000,0.000
1644895925053881856,2022-02-15-03:32:05,10.1.1.2,25,0.070,0.070,0.070,0.000,0.000,0.000
1644895925113708032,2022-02-15-03:32:05,10.1.1.2,34,0.060,0.060,0.060,0.000,0.000,0.000
1644895925153497088,2022-02-15-03:32:05,10.1.1.2,23,0.050,0.050,0.050,0.000,0.000,0.000
1644895925213395200,2022-02-15-03:32:05,10.1.1.2,32,0.040,0.040,0.040,0.000,0.000,0.000
1644895925413559040,2022-02-15-03:32:05,10.1.1.2,29,0.000,0.000,0.000,0.000,0.000,0.000
1644895925473531904,2022-02-15-03:32:05,10.1.1.2,38,-0.010,-0.010,-0.010,0.000,0.000,0.000
1644895925513420032,2022-02-15-03:32:05,10.1.1.2,27,-0.020,-0.020,-0.020,0.000,0.000,0.000
1644895925578530048,2022-02-15-03:32:05,10.1.1.2,36,-0.030,-0.030,-0.030,0.000,0.000,0.000
1644895925613911040,2022-02-15-03:32:05,10.1.1.2,25,-0.040,-0.040,-0.040,0.000,0.000,0.000
1644895925675024128,2022-02-15-03:32:05,10.1.1.2,34,-0.050,-0.050,-0.050,0.000,0.000,0.000
1644895925775598080,2022-02-15-03:32:05,10.1.1.2,28,-0.070,-0.070,-0.070,0.000,0.000,0.000
1644895925833849856,2022-02-15-03:32:05,10.1.1.2,37,-0.080,-0.080,-0.080,0.000,0.000,0.000
1644895925874014976,2022-02-15-03:32:05,10.1.1.2,26,-0.090,-0.090,-0.090,0.000,0.000,0.000
1644895925934370048,2022-02-15-03:32:05,10.1.1.2,34,-0.100,-0.100,-0.100,0.000,0.000,0.000
1644895925974252032,2022-02-15-03:32:05,10.1.1.2,23,-0.090,-0.090,-0.090,0.000,0.000,0.000
1644895926033912064,2022-02-15-03:32:06,10.1.1.2,32,-0.080,-0.080,-0.080,0.000,0.000,0.000
1644895926193370112,2022-02-15-03:32:06,10.1.1.2,39,-0.050,-0.050,-0.050,0.000,0.000,0.000
1644895926233683200,2022-02-15-03:32:06,10.1.1.2,28,-0.040,-0.040,-0.040,0.000,0.000,0.000
1644895926294673920,2022-02-15-03:32:06,10.1.1.2,36,-0.030,-0.030,-0.030,0.000,0.000,0.000
1644895926333741056,2022-02-15-03:32:06,10.1.1.2,25,-0.020,-0.020,-0.020,0.000,0.000,0.000
1644895926393641984,2022-02-15-03:32:06,10.1.1.2,34,-0.010,-0.010,-0.010,0.000,0.000,0.000
1644895926434878208,2022-02-15-03:32:06,10.1.1.2,23,0.000,0.000,0.000,0.000,0.000,0.000
1644895926494036992,2022-02-15-03:32:06,10.1.1.2,32,0.010,0.010,0.010,0.000,0.000,0.000
1644895926654529024,2022-02-15-03:32:06,10.1.1.2,38,0.040,0.040,0.040,0.000,0.000,0.000
1644895926694694912,2022-02-15-03:32:06,10.1.1.2,26,0.050,0.050,0.050,0.000,0.000,0.000
1644895926753863168,2022-02-15-03:32:06,10.1.1.2,34,0.060,0.060,0.060,0.000,0.000,0.000
1644895926794156032,2022-02-15-03:32:06,10.1.1.2,23,0.070,0.070,0.070,0.000,0.000,0.000
1644895927015068160,2022-02-15-03:32:07,10.1.1.2,38,0.090,0.090,0.090,0.000,0.000,0.000
1644895927054766848,2022-02-15-03:32:07,10.1.1.2,26,0.080,0.080,0.080,0.000,0.000,0.000
1644895927114612992,2022-02-15-03:32:07,10.1.1.2,34,0.070,0.070,0.070,0.000,0.000,0.000
1644895927173938944,2022-02-15-03:32:07,10.1.1.2,37,0.060,0.060,0.060,0.000,0.000,0.000
1644895927214687232,2022-02-15-03:32:07,10.1.1.2,26,0.050,0.050,0.050,0.000,0.000,0.000
1644895927273286144,2022-02-15-03:32:07,10.1.1.2,34,0.040,0.040,0.040,0.000,0.000,0.000
1644895927313876992,2022-02-15-03:32:07,10.1.1.2,22,0.030,0.030,0.030,0.000,0.000,0.000
1644895927473453056,2022-02-15-03:32:07,10.1.1.2,28,0.000,0.000,0.000,0.000,0.000,0.000
1644895927533985024,2022-02-15-03:32:07,10.1.1.2,37,-0.010,-0.010,-0.010,0.000,0.000,0.000
1644895927574238976,2022-02-15-03:32:07,10.1.1.2,26,-0.020,-0.020,-0.020,0.000,0.000,0.000
1644895927633550848,2022-02-15-03:32:07,10.1.1.2,36,-0.030,-0.030,-0.030,0.000,0.000,0.000
1644895927674025984,2022-02-15-03:32:07,10.1.1.2,25,-0.040,-0.040,-0.040,0.000,0.000,0.000
1644895927733140992,2022-02-15-03:32:07,10.1.1.2,33,-0.050,-0.050,-0.050,0.000,0.000,0.000
1644895927774304000,2022-02-15-03:32:07,10.1.1.2,22,-0.060,-0.060,-0.060,0.000,0.000,0.000
1644895927833106944,2022-02-15-03:32:07,10.1.1.2,31,-0.070,-0.070,-0.070,0.000,0.000,0.000
1644895927993752064,2022-02-15-03:32:07,10.1.1.2,38,-0.100,-0.100,-0.100,0.000,0.000,0.000
1644895928033731072,2022-02-15-03:32:08,10.1.1.2,26,-0.090,-0.090,-0.090,0.000,0.000,0.000
1644895928094070016,2022-02-15-03:32:08,10.1.1.2,35,-0.080,-0.080,-0.080,0.000,0.000,0.000
1644895928133518080,2022-02-15-03:32:08,10.1.1.2,23,-0.070,-0.070,-0.070,0.000,0.000,0.000
1644895928194248960,2022-02-15-03:32:08,10.1.1.2,32,-0.060,-0.060,-0.060,0.000,0.000,0.000
1644895928233801984,2022-02-15-03:32:08,10.1.1.2,22,-0.050,-0.050,-0.050,0.000,0.000,0.000
1644895928293575168,2022-02-15-03:32:08,10.1.1.2,31,-0.040,-0.040,-0.040,0.000,0.000,0.000
1644895928393858816,2022-02-15-03:32:08,10.1.1.2,29,-0.020,-0.020,-0.020,0.000,0.000,0.000
1644895928453788928,2022-02-15-03:32:08,10.1.1.2,37,-0.010,-0.010,-0.010,0.000,0.000,0.000
1644895928493426176,2022-02-15-03:32:08,10.1.1.2,25,0.000,0.000,0.000,0.000,0.000,0.000
1644895928554125056,2022-02-15-03:32:08,10.1.1.2,34,0.010,0.010,0.010,0.000,0.000,0.000
1644895928593619968,2022-02-15-03:32:08,10.1.1.2,23,0.020,0.020,0.020,0.000,0.000,0.000
1644895928653247232,2022-02-15-03:32:08,10.1.1.2,32,0.030,0.030,0.030,0.000,0.000,0.000
1644895928699286016,2022-02-15-03:32:08,10.1.1.2,21,0.040,0.040,0.040,0.000,0.000,0.000
1644895928759247104,2022-02-15-03:32:08,10.1.1.2,28,0.050,0.050,0.050,0.000,0.000,0.000
1644895928812748032,2022-02-15-03:32:08,10.1.1.2,37,0.060,0.060,0.060,0.000,0.000,0.000
1644895928852566016,2022-02-15-03:32:08,10.1.1.2,27,0.070,0.070,0.070,0.000,0.000,0.000
1644895928913772032,2022-02-15-03:32:08,10.1.1.2,36,0.080,0.080,0.080,0.000,0.000,0.000
1644895928953686016,2022-02-15-03:32:08,10.1.1.2,25,0.090,0.090,0.090,0.000,0.000,0.000
1644895929013161984,2022-02-15-03:32:09,10.1.1.2,34,0.100,0.100,0.100,0.000,0.000,0.000
1644895929055067904,2022-02-15-03:32:09,10.1.1.2,24,0.090,0.090,0.090,0.000,0.000,0.000
1644895929118796032,2022-02-15-03:32:09,10.1.1.2,36,0.080,0.080,0.080,0.000,0.000,0.000
1644895929153709056,2022-02-15-03:32:09,10.1.1.2,23,0.070,0.070,0.070,0.000,0.000,0.000
1644895929214337024,2022-02-15-03:32:09,10.1.1.2,32,0.060,0.060,0.060,0.000,0.000,0.000
1644895929423540224,2022-02-15-03:32:09,10.1.1.2,39,0.020,0.020,0.020,0.000,0.000,0.000
1644895929473923072,2022-02-15-03:32:09,10.1.1.2,38,0.010,0.010,0.010,0.000,0.000,0.000
1644895929513323008,2022-02-15-03:32:09,10.1.1.2,27,0.000,0.000,0.000,0.000,0.000,0.000
1644895929574623232,2022-02-15-03:32:09,10.1.1.2,36,-0.010,-0.010,-0.010,0.000,0.000,0.000
1644895929613803008,2022-02-15-03:32:09,10.1.1.2,26,-0.020,-0.020,-0.020,0.000,0.000,0.000
1644895929673788928,2022-02-15-03:32:09,10.1.1.2,35,-0.030,-0.030,-0.030,0.000,0.000,0.000
1644895929713732096,2022-02-15-03:32:09,10.1.1.2,24,-0.040,-0.040,-0.040,0.000,0.000,0.000
1644895929774487040,2022-02-15-03:32:09,10.1.1.2,33,-0.050,-0.050,-0.050,0.000,0.000,0.000
1644895929813723136,2022-02-15-03:32:09,10.1.1.2,23,-0.060,-0.060,-0.060,0.000,0.000,0.000
1644895929873411840,2022-02-15-03:32:09,10.1.1.2,32,-0.070,-0.070,-0.070,0.000,0.000,0.000
1644895929913729024,2022-02-15-03:32:09,10.1.1.2,21,-0.080,-0.080,-0.080,0.000,0.000,0.000
1644895930073489920,2022-02-15-03:32:10,10.1.1.2,29,-0.090,-0.090,-0.090,0.000,0.000,0.000
1644895930133660928,2022-02-15-03:32:10,10.1.1.2,38,-0.080,-0.080,-0.080,0.000,0.000,0.000
1644895930174252032,2022-02-15-03:32:10,10.1.1.2,27,-0.070,-0.070,-0.070,0.000,0.000,0.000
1644895930234870784,2022-02-15-03:32:10,10.1.1.2,36,-0.060,-0.060,-0.060,0.000,0.000,0.000
1644895930274300160,2022-02-15-03:32:10,10.1.1.2,25,-0.050,-0.050,-0.050,0.000,0.000,0.000
1644895930333523968,2022-02-15-03:32:10,10.1.1.2,34,-0.040,-0.040,-0.040,0.000,0.000,0.000
1644895930373629184,2022-02-15-03:32:10,10.1.1.2,23,-0.030,-0.030,-0.030,0.000,0.000,0.000
1644895930434766080,2022-02-15-03:32:10,10.1.1.2,32,-0.020,-0.020,-0.020,0.000,0.000,0.000
1644895930473850112,2022-02-15-03:32:10,10.1.1.2,21,-0.010,-0.010,-0.010,0.000,0.000,0.000
1644895930595292928,2022-02-15-03:32:10,10.1.1.2,39,0.010,0.010,0.010,0.000,0.000,0.000
1644895930634313984,2022-02-15-03:32:10,10.1.1.2,27,0.020,0.020,0.020,0.000,0.000,0.000
1644895930694968832,2022-02-15-03:32:10,10.1.1.2,37,0.030,0.030,0.030,0.000,0.000,0.000
1644895930734187008,2022-02-15-03:32:10,10.1.1.2,25,0.040,0.040,0.040,0.000,0.000,0.000
1644895930793433856,2022-02-15-03:32:10,10.1.1.2,34,0.050,0.050,0.050,0.000,0.000,0.000
1644895930833623808,2022-02-15-03:32:10,10.1.1.2,23,0.060,0.060,0.060,0.000,0.000,0.000
1644895930894874112,2022-02-15-03:32:10,10.1.1.2,32,0.070,0.070,0.070,0.000,0.000,0.000
1644895931053165056,2022-02-15-03:32:11,10.1.1.2,38,0.100,0.100,0.100,0.000,0.000,0.000
1644895931094556160,2022-02-15-03:32:11,10.1.1.2,28,0.090,0.090,0.090,0.000,0.000,0.000
1644895931153510144,2022-02-15-03:32:11,10.1.1.2,36,0.080,0.080,0.080,0.000,0.000,0.000
1644895931193530112,2022-02-15-03:32:11,10.1.1.2,25,0.070,0.070,0.070,0.000,0.000,0.000
1644895931254120192,2022-02-15-03:32:11,10.1.1.2,32,0.060,0.060,0.060,0.000,0.000,0.000
1644895931294146048,2022-02-15-03:32:11,10.1.1.2,21,0.050,0.050,0.050,0.000,0.000,0.000
1644895931415225856,2022-02-15-03:32:11,10.1.1.2,38,0.030,0.030,0.030,0.000,0.000,0.000
1644895931453784832,2022-02-15-03:32:11,10.1.1.2,27,0.020,0.020,0.020,0.000,0.000,0.000
1644895931514203904,2022-02-15-03:32:11,10.1.1.2,36,0.010,0.010,0.010,0.000,0.000,0.000
1644895931553165056,2022-02-15-03:32:11,10.1.1.2,25,0.000,0.000,0.000,0.000,0.000,0.000
1644895931614338048,2022-02-15-03:32:11,10.1.1.2,35,-0.010,-0.010,-0.010,0.000,0.000,0.000
1644895931653686016,2022-02-15-03:32:11,10.1.1.2,24,-0.020,-0.020,-0.020,0.000,0.000,0.000
1644895931713232896,2022-02-15-03:32:11,10.1.1.2,32,-0.030,-0.030,-0.030,0.000,0.000,0.000
1644895931753374208,2022-02-15-03:32:11,10.1.1.2,22,-0.040,-0.040,-0.040,0.000,0.000,0.000
1644895931974510080,2022-02-15-03:32:11,10.1.1.2,39,-0.080,-0.080,-0.080,0.000,0.000,0.000
1644895932014759936,2022-02-15-03:32:12,10.1.1.2,28,-0.090,-0.090,-0.090,0.000,0.000,0.000
1644895932074289152,2022-02-15-03:32:12,10.1.1.2,37,-0.100,-0.100,-0.100,0.000,0.000,0.000
1644895932113282816,2022-02-15-03:32:12,10.1.1.2,26,-0.090,-0.090,-0.090,0.000,0.000,0.000
1644895932174594048,2022-02-15-03:32:12,10.1.1.2,35,-0.080,-0.080,-0.080,0.000,0.000,0.000
1644895932214188032,2022-02-15-03:32:12,10.1.1.2,22,-0.070,-0.070,-0.070,0.000,0.000,0.000
1644895932373374976,2022-02-15-03:32:12,10.1.1.2,29,-0.040,-0.040,-0.040,0.000,0.000,0.000
1644895932394253056,2022-02-15-03:32:12,10.1.1.2,-2,-0.040,-0.040,-0.040,0.000,0.000,0.000
1644895932473104896,2022-02-15-03:32:12,10.1.1.2,27,-0.020,-0.020,-0.020,0.000,0.000,0.000
1644895932534086912,2022-02-15-03:32:12,10.1.1.2,35,-0.010,-0.010,-0.010,0.000,0.000,0.000
1644895932573805056,2022-02-15-03:32:12,10.1.1.2,24,0.000,0.000,0.000,0.000,0.000,0.000
1644895932633580032,2022-02-15-03:32:12,10.1.1.2,33,0.010,0.010,0.010,0.000,0.000,0.000
1644895932673480960,2022-02-15-03:32:12,10.1.1.2,22,0.020,0.020,0.020,0.000,0.000,0.000
1644895932774190848,2022-02-15-03:32:12,10.1.1.2,19,0.039,0.039,0.039,0.000,0.000,0.000
1644895932834060032,2022-02-15-03:32:12,10.1.1.2,27,0.050,0.050,0.050,0.000,0.000,0.000
1644895932893677824,2022-02-15-03:32:12,10.1.1.2,36,0.060,0.060,0.060,0.000,0.000,0.000
1644895932934198016,2022-02-15-03:32:12,10.1.1.2,25,0.070,0.070,0.070,0.000,0.000,0.000
1644895932993740032,2022-02-15-03:32:12,10.1.1.2,33,0.080,0.080,0.080,0.000,0.000,0.000
1644895933034388992,2022-02-15-03:32:13,10.1.1.2,22,0.090,0.090,0.090,0.000,0.000,0.000
1644895933093741056,2022-02-15-03:32:13,10.1.1.2,32,0.100,0.100,0.100,0.000,0.000,0.000
1644895933193773056,2022-02-15-03:32:13,10.1.1.2,29,0.080,0.080,0.080,0.000,0.000,0.000
1644895933254157056,2022-02-15-03:32:13,10.1.1.2,37,0.070,0.070,0.070,0.000,0.000,0.000
1644895933293400064,2022-02-15-03:32:13,10.1.1.2,27,0.060,0.060,0.060,0.000,0.000,0.000
1644895933353312000,2022-02-15-03:32:13,10.1.1.2,35,0.050,0.050,0.050,0.000,0.000,0.000
1644895933393971968,2022-02-15-03:32:13,10.1.1.2,24,0.040,0.040,0.040,0.000,0.000,0.000
1644895933454149120,2022-02-15-03:32:13,10.1.1.2,32,0.030,0.030,0.030,0.000,0.000,0.000
1644895933493545984,2022-02-15-03:32:13,10.1.1.2,22,0.020,0.020,0.020,0.000,0.000,0.000
1644895933553724160,2022-02-15-03:32:13,10.1.1.2,31,0.010,0.010,0.010,0.000,0.000,0.000
1644895933713871104,2022-02-15-03:32:13,10.1.1.2,39,-0.020,-0.020,-0.020,0.000,0.000,0.000
1644895933754440192,2022-02-15-03:32:13,10.1.1.2,27,-0.030,-0.030,-0.030,0.000,0.000,0.000
1644895933814480896,2022-02-15-03:32:13,10.1.1.2,36,-0.040,-0.040,-0.040,0.000,0.000,0.000
1644895933853775104,2022-02-15-03:32:13,10.1.1.2,24,-0.050,-0.050,-0.050,0.000,0.000,0.000
1644895933914347776,2022-02-15-03:32:13,10.1.1.2,34,-0.060,-0.060,-0.060,0.000,0.000,0.000
1644895933954065152,2022-02-15-03:32:13,10.1.1.2,22,-0.070,-0.070,-0.070,0.000,0.000,0.000
1644895934013839872,2022-02-15-03:32:14,10.1.1.2,31,-0.080,-0.080,-0.080,0.000,0.000,0.000
1644895934174069760,2022-02-15-03:32:14,10.1.1.2,38,-0.090,-0.090,-0.090,0.000,0.000,0.000
1644895934214471168,2022-02-15-03:32:14,10.1.1.2,26,-0.080,-0.080,-0.080,0.000,0.000,0.000
1644895934274177024,2022-02-15-03:32:14,10.1.1.2,35,-0.070,-0.070,-0.070,0.000,0.000,0.000
1644895934317742080,2022-02-15-03:32:14,10.1.1.2,23,-0.060,-0.060,-0.060,0.000,0.000,0.000
1644895934374543872,2022-02-15-03:32:14,10.1.1.2,32,-0.050,-0.050,-0.050,0.000,0.000,0.000
1644895934473562880,2022-02-15-03:32:14,10.1.1.2,29,-0.030,-0.030,-0.030,0.000,0.000,0.000
1644895934533797120,2022-02-15-03:32:14,10.1.1.2,37,-0.020,-0.020,-0.020,0.000,0.000,0.000
1644895934574328064,2022-02-15-03:32:14,10.1.1.2,26,-0.010,-0.010,-0.010,0.000,0.000,0.000
1644895934633443072,2022-02-15-03:32:14,10.1.1.2,36,0.000,0.000,0.000,0.000,0.000,0.000
1644895934673522944,2022-02-15-03:32:14,10.1.1.2,25,0.010,0.010,0.010,0.000,0.000,0.000
1644895934733293056,2022-02-15-03:32:14,10.1.1.2,33,0.020,0.020,0.020,0.000,0.000,0.000
1644895934777421824,2022-02-15-03:32:14,10.1.1.2,22,0.030,0.030,0.030,0.000,0.000,0.000
1644895934874490112,2022-02-15-03:32:14,10.1.1.2,20,0.050,0.050,0.050,0.000,0.000,0.000
1644895934934294016,2022-02-15-03:32:14,10.1.1.2,28,0.060,0.060,0.060,0.000,0.000,0.000
1644895934993902080,2022-02-15-03:32:14,10.1.1.2,33,0.070,0.070,0.070,0.000,0.000,0.000
1644895935033893120,2022-02-15-03:32:15,10.1.1.2,22,0.080,0.080,0.080,0.000,0.000,0.000
1644895935193465088,2022-02-15-03:32:15,10.1.1.2,28,0.090,0.090,0.090,0.000,0.000,0.000
1644895935253902080,2022-02-15-03:32:15,10.1.1.2,37,0.080,0.080,0.080,0.000,0.000,0.000
1644895935294481920,2022-02-15-03:32:15,10.1.1.2,26,0.070,0.070,0.070,0.000,0.000,0.000
1644895935353307136,2022-02-15-03:32:15,10.1.1.2,35,0.060,0.060,0.060,0.000,0.000,0.000
1644895935396007168,2022-02-15-03:32:15,10.1.1.2,24,0.050,0.050,0.050,0.000,0.000,0.000
1644895935453385984,2022-02-15-03:32:15,10.1.1.2,33,0.040,0.040,0.040,0.000,0.000,0.000
1644895935494672896,2022-02-15-03:32:15,10.1.1.2,22,0.030,0.030,0.030,0.000,0.000,0.000
1644895935554174976,2022-02-15-03:32:15,10.1.1.2,31,0.020,0.020,0.020,0.000,0.000,0.000
1644895935713984000,2022-02-15-03:32:15,10.1.1.2,39,-0.010,-0.010,-0.010,0.000,0.000,0.000
1644895935754018048,2022-02-15-03:32:15,10.1.1.2,27,-0.020,-0.020,-0.020,0.000,0.000,0.000
1644895935815255040,2022-02-15-03:32:15,10.1.1.2,36,-0.030,-0.030,-0.030,0.000,0.000,0.000
1644895935854195968,2022-02-15-03:32:15,10.1.1.2,26,-0.040,-0.040,-0.040,0.000,0.000,0.000
1644895935913697024,2022-02-15-03:32:15,10.1.1.2,35,-0.050,-0.050,-0.050,0.000,0.000,0.000
1644895935954152192,2022-02-15-03:32:15,10.1.1.2,24,-0.060,-0.060,-0.060,0.000,0.000,0.000
1644895936014702080,2022-02-15-03:32:16,10.1.1.2,33,-0.070,-0.070,-0.070,0.000,0.000,0.000
1644895936054717952,2022-02-15-03:32:16,10.1.1.2,23,-0.080,-0.080,-0.080,0.000,0.000,0.000
1644895936114181888,2022-02-15-03:32:16,10.1.1.2,32,-0.090,-0.090,-0.090,0.000,0.000,0.000
1644895936154141952,2022-02-15-03:32:16,10.1.1.2,21,-0.100,-0.100,-0.100,0.000,0.000,0.000
1644895936273725952,2022-02-15-03:32:16,10.1.1.2,39,-0.080,-0.080,-0.080,0.000,0.000,0.000
1644895936313121024,2022-02-15-03:32:16,10.1.1.2,28,-0.070,-0.070,-0.070,0.000,0.000,0.000
1644895936374586112,2022-02-15-03:32:16,10.1.1.2,36,-0.060,-0.060,-0.060,0.000,0.000,0.000
1644895936414820864,2022-02-15-03:32:16,10.1.1.2,25,-0.050,-0.050,-0.050,0.000,0.000,0.000
1644895936474589952,2022-02-15-03:32:16,10.1.1.2,34,-0.040,-0.040,-0.040,0.000,0.000,0.000
1644895936513614848,2022-02-15-03:32:16,10.1.1.2,23,-0.030,-0.030,-0.030,0.000,0.000,0.000
1644895936573704960,2022-02-15-03:32:16,10.1.1.2,32,-0.020,-0.020,-0.020,0.000,0.000,0.000
1644895936613652992,2022-02-15-03:32:16,10.1.1.2,22,-0.010,-0.010,-0.010,0.000,0.000,0.000
1644895936775181056,2022-02-15-03:32:16,10.1.1.2,29,0.020,0.020,0.020,0.000,0.000,0.000
1644895936833585920,2022-02-15-03:32:16,10.1.1.2,38,0.030,0.030,0.030,0.000,0.000,0.000
1644895936873847040,2022-02-15-03:32:16,10.1.1.2,27,0.040,0.040,0.040,0.000,0.000,0.000
1644895936934262016,2022-02-15-03:32:16,10.1.1.2,36,0.050,0.050,0.050,0.000,0.000,0.000
1644895936974452992,2022-02-15-03:32:16,10.1.1.2,25,0.060,0.060,0.060,0.000,0.000,0.000
1644895937034468864,2022-02-15-03:32:17,10.1.1.2,34,0.070,0.070,0.070,0.000,0.000,0.000
1644895937073340928,2022-02-15-03:32:17,10.1.1.2,23,0.080,0.080,0.080,0.000,0.000,0.000
1644895937134533888,2022-02-15-03:32:17,10.1.1.2,32,0.090,0.090,0.090,0.000,0.000,0.000
1644895937213895168,2022-02-15-03:32:17,10.1.1.2,10,0.090,0.090,0.090,0.000,0.000,0.000
1644895937295147008,2022-02-15-03:32:17,10.1.1.2,39,0.080,0.080,0.080,0.000,0.000,0.000
1644895937333349888,2022-02-15-03:32:17,10.1.1.2,28,0.070,0.070,0.070,0.000,0.000,0.000
1644895937393971968,2022-02-15-03:32:17,10.1.1.2,37,0.060,0.060,0.060,0.000,0.000,0.000
1644895937433636864,2022-02-15-03:32:17,10.1.1.2,26,0.050,0.050,0.050,0.000,0.000,0.000
1644895937493259008,2022-02-15-03:32:17,10.1.1.2,35,0.040,0.040,0.040,0.000,0.000,0.000
1644895937533269760,2022-02-15-03:32:17,10.1.1.2,24,0.030,0.030,0.030,0.000,0.000,0.000
1644895937593656064,2022-02-15-03:32:17,10.1.1.2,34,0.020,0.020,0.020,0.000,0.000,0.000
1644895937634462976,2022-02-15-03:32:17,10.1.1.2,23,0.010,0.010,0.010,0.000,0.000,0.000
1644895937694159104,2022-02-15-03:32:17,10.1.1.2,33,0.000,0.000,0.000,0.000,0.000,0.000
1644895937734909952,2022-02-15-03:32:17,10.1.1.2,22,-0.010,-0.010,-0.010,0.000,0.000,0.000
1644895937854372864,2022-02-15-03:32:17,10.1.1.2,39,-0.030,-0.030,-0.030,0.000,0.000,0.000
1644895937893078016,2022-02-15-03:32:17,10.1.1.2,28,-0.040,-0.040,-0.040,0.000,0.000,0.000
1644895937953201152,2022-02-15-03:32:17,10.1.1.2,36,-0.050,-0.050,-0.050,0.000,0.000,0.000
1644895937993929984,2022-02-15-03:32:17,10.1.1.2,25,-0.060,-0.060,-0.060,0.000,0.000,0.000
1644895938053601024,2022-02-15-03:32:18,10.1.1.2,35,-0.070,-0.070,-0.070,0.000,0.000,0.000
1644895938093517056,2022-02-15-03:32:18,10.1.1.2,24,-0.080,-0.080,-0.080,0.000,0.000,0.000
1644895938157680896,2022-02-15-03:32:18,10.1.1.2,33,-0.090,-0.090,-0.090,0.000,0.000,0.000
1644895938193783040,2022-02-15-03:32:18,10.1.1.2,22,-0.100,-0.100,-0.100,0.000,0.000,0.000
1644895938253586944,2022-02-15-03:32:18,10.1.1.2,32,-0.090,-0.090,-0.090,0.000,0.000,0.000
1644895938293620992,2022-02-15-03:32:18,10.1.1.2,21,-0.080,-0.080,-0.080,0.000,0.000,0.000
1644895938416251904,2022-02-15-03:32:18,10.1.1.2,39,-0.060,-0.060,-0.060,0.000,0.000,0.000
1644895938454209024,2022-02-15-03:32:18,10.1.1.2,28,-0.050,-0.050,-0.050,0.000,0.000,0.000
1644895938513540096,2022-02-15-03:32:18,10.1.1.2,37,-0.040,-0.040,-0.040,0.000,0.000,0.000
1644895938553780992,2022-02-15-03:32:18,10.1.1.2,26,-0.030,-0.030,-0.030,0.000,0.000,0.000
1644895938614636800,2022-02-15-03:32:18,10.1.1.2,34,-0.020,-0.020,-0.020,0.000,0.000,0.000
1644895938653900032,2022-02-15-03:32:18,10.1.1.2,23,-0.010,-0.010,-0.010,0.000,0.000,0.000
1644895938814616832,2022-02-15-03:32:18,10.1.1.2,29,0.020,0.020,0.020,0.000,0.000,0.000
1644895938873796096,2022-02-15-03:32:18,10.1.1.2,38,0.030,0.030,0.030,0.000,0.000,0.000
1644895938913986048,2022-02-15-03:32:18,10.1.1.2,28,0.040,0.040,0.040,0.000,0.000,0.000
1644895938974914048,2022-02-15-03:32:18,10.1.1.2,36,0.050,0.050,0.050,0.000,0.000,0.000
1644895939014596096,2022-02-15-03:32:19,10.1.1.2,26,0.060,0.060,0.060,0.000,0.000,0.000
1644895939073647872,2022-02-15-03:32:19,10.1.1.2,35,0.070,0.070,0.070,0.000,0.000,0.000
1644895939113225984,2022-02-15-03:32:19,10.1.1.2,24,0.080,0.080,0.080,0.000,0.000,0.000
1644895939173871104,2022-02-15-03:32:19,10.1.1.2,32,0.090,0.090,0.090,0.000,0.000,0.000
1644895939214191872,2022-02-15-03:32:19,10.1.1.2,21,0.100,0.100,0.100,0.000,0.000,0.000
1644895939334539776,2022-02-15-03:32:19,10.1.1.2,39,0.080,0.080,0.080,0.000,0.000,0.000
1644895939374221056,2022-02-15-03:32:19,10.1.1.2,28,0.070,0.070,0.070,0.000,0.000,0.000
1644895939433401088,2022-02-15-03:32:19,10.1.1.2,38,0.060,0.060,0.060,0.000,0.000,0.000
1644895939473326080,2022-02-15-03:32:19,10.1.1.2,26,0.050,0.050,0.050,0.000,0.000,0.000
1644895939534210048,2022-02-15-03:32:19,10.1.1.2,35,0.040,0.040,0.040,0.000,0.000,0.000
1644895939574265856,2022-02-15-03:32:19,10.1.1.2,24,0.030,0.030,0.030,0.000,0.000,0.000
1644895939634206976,2022-02-15-03:32:19,10.1.1.2,33,0.020,0.020,0.020,0.000,0.000,0.000
1644895939674566144,2022-02-15-03:32:19,10.1.1.2,22,0.010,0.010,0.010,0.000,0.000,0.000
1644895939893393152,2022-02-15-03:32:19,10.1.1.2,38,-0.030,-0.030,-0.030,0.000,0.000,0.000
1644895939933350912,2022-02-15-03:32:19,10.1.1.2,27,-0.040,-0.040,-0.040,0.000,0.000,0.000
1644895939993521920,2022-02-15-03:32:19,10.1.1.2,36,-0.050,-0.050,-0.050,0.000,0.000,0.000
1644895940033910016,2022-02-15-03:32:20,10.1.1.2,25,-0.060,-0.060,-0.060,0.000,0.000,0.000
1644895940093327104,2022-02-15-03:32:20,10.1.1.2,33,-0.070,-0.070,-0.070,0.000,0.000,0.000
1644895940133965056,2022-02-15-03:32:20,10.1.1.2,22,-0.080,-0.080,-0.080,0.000,0.000,0.000
1644895940293179136,2022-02-15-03:32:20,10.1.1.2,29,-0.090,-0.090,-0.090,0.000,0.000,0.000
1644895940353466880,2022-02-15-03:32:20,10.1.1.2,37,-0.080,-0.080,-0.080,0.000,0.000,0.000
1644895940394334976,2022-02-15-03:32:20,10.1.1.2,26,-0.070,-0.070,-0.070,0.000,0.000,0.000
1644895940453649152,2022-02-15-03:32:20,10.1.1.2,35,-0.060,-0.060,-0.060,0.000,0.000,0.000
1644895940493110016,2022-02-15-03:32:20,10.1.1.2,24,-0.050,-0.050,-0.050,0.000,0.000,0.000
1644895940553526016,2022-02-15-03:32:20,10.1.1.2,33,-0.040,-0.040,-0.040,0.000,0.000,0.000
1644895940593430016,2022-02-15-03:32:20,10.1.1.2,22,-0.030,-0.030,-0.030,0.000,0.000,0.000
1644895940713697792,2022-02-15-03:32:20,10.1.1.2,38,-0.010,-0.010,-0.010,0.000,0.000,0.000
1644895940753381120,2022-02-15-03:32:20,10.1.1.2,27,0.000,0.000,0.000,0.000,0.000,0.000
1644895940813626880,2022-02-15-03:32:20,10.1.1.2,36,0.010,0.010,0.010,0.000,0.000,0.000
1644895940853241088,2022-02-15-03:32:20,10.1.1.2,25,0.020,0.020,0.020,0.000,0.000,0.000
1644895940913414912,2022-02-15-03:32:20,10.1.1.2,34,0.030,0.030,0.030,0.000,0.000,0.000
1644895940953731072,2022-02-15-03:32:20,10.1.1.2,23,0.040,0.040,0.040,0.000,0.000,0.000
1644895941014756864,2022-02-15-03:32:21,10.1.1.2,33,0.050,0.050,0.050,0.000,0.000,0.000
1644895941053719040,2022-02-15-03:32:21,10.1.1.2,22,0.060,0.060,0.060,0.000,0.000,0.000
1644895941114006016,2022-02-15-03:32:21,10.1.1.2,31,0.070,0.070,0.070,0.000,0.000,0.000
1644895941214044160,2022-02-15-03:32:21,10.1.1.2,29,0.090,0.090,0.090,0.000,0.000,0.000
1644895941273762816,2022-02-15-03:32:21,10.1.1.2,36,0.100,0.100,0.100,0.000,0.000,0.000
1644895941313381888,2022-02-15-03:32:21,10.1.1.2,25,0.090,0.090,0.090,0.000,0.000,0.000
1644895941373896960,2022-02-15-03:32:21,10.1.1.2,34,0.080,0.080,0.080,0.000,0.000,0.000
1644895941414216960,2022-02-15-03:32:21,10.1.1.2,23,0.070,0.070,0.070,0.000,0.000,0.000
1644895941472513792,2022-02-15-03:32:21,10.1.1.2,31,0.060,0.060,0.060,0.000,0.000,0.000
1644895941574109952,2022-02-15-03:32:21,10.1.1.2,29,0.040,0.040,0.040,0.000,0.000,0.000
1644895941754265088,2022-02-15-03:32:21,10.1.1.2,31,0.010,0.010,0.010,0.000,0.000,0.000
1644895941793221120,2022-02-15-03:32:21,10.1.1.2,21,0.000,0.000,0.000,0.000,0.000,0.000
1644895941894064896,2022-02-15-03:32:21,10.1.1.2,20,-0.020,-0.020,-0.020,0.000,0.000,0.000
1644895941961847040,2022-02-15-03:32:21,10.1.1.2,36,-0.030,-0.030,-0.030,0.000,0.000,0.000
1644895941993606144,2022-02-15-03:32:21,10.1.1.2,18,-0.040,-0.040,-0.040,0.000,0.000,0.000
1644895942118052864,2022-02-15-03:32:22,10.1.1.2,41,-0.060,-0.060,-0.060,0.000,0.000,0.000
1644895942166136064,2022-02-15-03:32:22,10.1.1.2,39,-0.070,-0.070,-0.070,0.000,0.000,0.000
1644895942176590080,2022-02-15-03:32:22,10.1.1.2,-3,-0.070,-0.070,-0.070,0.000,0.000,0.000
1644895942256402944,2022-02-15-03:32:22,10.1.1.2,26,-0.090,-0.090,-0.090,0.000,0.000,0.000
1644895942312985856,2022-02-15-03:32:22,10.1.1.2,34,-0.100,-0.100,-0.100,0.000,0.000,0.000
1644895942414840064,2022-02-15-03:32:22,10.1.1.2,34,-0.080,-0.080,-0.080,0.000,0.000,0.000
1644895942453238016,2022-02-15-03:32:22,10.1.1.2,23,-0.070,-0.070,-0.070,0.000,0.000,0.000
1644895942514398208,2022-02-15-03:32:22,10.1.1.2,31,-0.060,-0.060,-0.060,0.000,0.000,0.000
1644895942558022912,2022-02-15-03:32:22,10.1.1.2,20,-0.050,-0.050,-0.050,0.000,0.000,0.000
1644895942613806080,2022-02-15-03:32:22,10.1.1.2,28,-0.040,-0.040,-0.040,0.000,0.000,0.000
1644895942673608192,2022-02-15-03:32:22,10.1.1.2,38,-0.030,-0.030,-0.030,0.000,0.000,0.000
1644895942713287168,2022-02-15-03:32:22,10.1.1.2,27,-0.020,-0.020,-0.020,0.000,0.000,0.000
1644895942753528064,2022-02-15-03:32:22,10.1.1.2,18,-0.010,-0.010,-0.010,0.000,0.000,0.000
1644895942813862144,2022-02-15-03:32:22,10.1.1.2,27,0.000,0.000,0.000,0.000,0.000,0.000
1644895942912809984,2022-02-15-03:32:22,10.1.1.2,25,0.020,0.020,0.020,0.000,0.000,0.000
1644895942978429952,2022-02-15-03:32:22,10.1.1.2,34,0.030,0.030,0.030,0.000,0.000,0.000
1644895943013833984,2022-02-15-03:32:23,10.1.1.2,22,0.040,0.040,0.040,0.000,0.000,0.000
1644895943173904896,2022-02-15-03:32:23,10.1.1.2,30,0.070,0.070,0.070,0.000,0.000,0.000
1644895943272961024,2022-02-15-03:32:23,10.1.1.2,28,0.090,0.090,0.090,0.000,0.000,0.000
1644895943332551936,2022-02-15-03:32:23,10.1.1.2,38,0.100,0.100,0.100,0.000,0.000,0.000
1644895943372857088,2022-02-15-03:32:23,10.1.1.2,27,0.090,0.090,0.090,0.000,0.000,0.000
1644895943433240064,2022-02-15-03:32:23,10.1.1.2,36,0.080,0.080,0.080,0.000,0.000,0.000
1644895943472805120,2022-02-15-03:32:23,10.1.1.2,26,0.070,0.070,0.070,0.000,0.000,0.000
1644895943533315840,2022-02-15-03:32:23,10.1.1.2,34,0.060,0.060,0.060,0.000,0.000,0.000
1644895943574033920,2022-02-15-03:32:23,10.1.1.2,24,0.050,0.050,0.050,0.000,0.000,0.000
1644895943636420096,2022-02-15-03:32:23,10.1.1.2,33,0.040,0.040,0.040,0.000,0.000,0.000
1644895943832182784,2022-02-15-03:32:23,10.1.1.2,29,0.000,0.000,0.000,0.000,0.000,0.000
1644895943893508864,2022-02-15-03:32:23,10.1.1.2,39,-0.010,-0.010,-0.010,0.000,0.000,0.000
1644895943935450112,2022-02-15-03:32:23,10.1.1.2,28,-0.020,-0.020,-0.020,0.000,0.000,0.000
1644895943993796096,2022-02-15-03:32:23,10.1.1.2,37,-0.030,-0.030,-0.030,0.000,0.000,0.000
1644895944033907968,2022-02-15-03:32:24,10.1.1.2,26,-0.040,-0.040,-0.040,0.000,0.000,0.000
1644895944094387968,2022-02-15-03:32:24,10.1.1.2,35,-0.050,-0.050,-0.050,0.000,0.000,0.000
1644895944194656000,2022-02-15-03:32:24,10.1.1.2,32,-0.070,-0.070,-0.070,0.000,0.000,0.000
1644895944234044160,2022-02-15-03:32:24,10.1.1.2,21,-0.080,-0.080,-0.080,0.000,0.000,0.000
1644895944353921792,2022-02-15-03:32:24,10.1.1.2,36,-0.100,-0.100,-0.100,0.000,0.000,0.000
1644895944394681088,2022-02-15-03:32:24,10.1.1.2,25,-0.090,-0.090,-0.090,0.000,0.000,0.000
1644895944455510016,2022-02-15-03:32:24,10.1.1.2,33,-0.080,-0.080,-0.080,0.000,0.000,0.000
1644895944492762112,2022-02-15-03:32:24,10.1.1.2,22,-0.070,-0.070,-0.070,0.000,0.000,0.000
1644895944553056000,2022-02-15-03:32:24,10.1.1.2,31,-0.060,-0.060,-0.060,0.000,0.000,0.000
1644895944713257984,2022-02-15-03:32:24,10.1.1.2,39,-0.030,-0.030,-0.030,0.000,0.000,0.000
1644895944753911040,2022-02-15-03:32:24,10.1.1.2,28,-0.020,-0.020,-0.020,0.000,0.000,0.000
1644895944813703936,2022-02-15-03:32:24,10.1.1.2,38,-0.010,-0.010,-0.010,0.000,0.000,0.000
1644895944858587904,2022-02-15-03:32:24,10.1.1.2,27,0.000,0.000,0.000,0.000,0.000,0.000
1644895944915013120,2022-02-15-03:32:24,10.1.1.2,36,0.010,0.010,0.010,0.000,0.000,0.000
1644895944953531136,2022-02-15-03:32:24,10.1.1.2,25,0.020,0.020,0.020,0.000,0.000,0.000
1644895945053069056,2022-02-15-03:32:25,10.1.1.2,23,0.040,0.040,0.040,0.000,0.000,0.000
1644895945118534144,2022-02-15-03:32:25,10.1.1.2,35,0.050,0.050,0.050,0.000,0.000,0.000
1644895945272641792,2022-02-15-03:32:25,10.1.1.2,39,0.080,0.080,0.080,0.000,0.000,0.000
1644895945313113088,2022-02-15-03:32:25,10.1.1.2,28,0.090,0.090,0.090,0.000,0.000,0.000
1644895945373699072,2022-02-15-03:32:25,10.1.1.2,37,0.100,0.100,0.100,0.000,0.000,0.000
1644895945413609984,2022-02-15-03:32:25,10.1.1.2,26,0.090,0.090,0.090,0.000,0.000,0.000
1644895945473233920,2022-02-15-03:32:25,10.1.1.2,36,0.080,0.080,0.080,0.000,0.000,0.000
1644895945513228032,2022-02-15-03:32:25,10.1.1.2,26,0.070,0.070,0.070,0.000,0.000,0.000
1644895945573059072,2022-02-15-03:32:25,10.1.1.2,35,0.060,0.060,0.060,0.000,0.000,0.000
1644895945613868032,2022-02-15-03:32:25,10.1.1.2,24,0.050,0.050,0.050,0.000,0.000,0.000
1644895945673178880,2022-02-15-03:32:25,10.1.1.2,34,0.040,0.040,0.040,0.000,0.000,0.000
1644895945712903936,2022-02-15-03:32:25,10.1.1.2,23,0.030,0.030,0.030,0.000,0.000,0.000
1644895945773310976,2022-02-15-03:32:25,10.1.1.2,31,0.020,0.020,0.020,0.000,0.000,0.000
1644895945874542848,2022-02-15-03:32:25,10.1.1.2,29,0.000,0.000,0.000,0.000,0.000,0.000
1644895945934628864,2022-02-15-03:32:25,10.1.1.2,38,-0.010,-0.010,-0.010,0.000,0.000,0.000
1644895945974626048,2022-02-15-03:32:25,10.1.1.2,27,-0.020,-0.020,-0.020,0.000,0.000,0.000
1644895946034384128,2022-02-15-03:32:26,10.1.1.2,36,-0.030,-0.030,-0.030,0.000,0.000,0.000
1644895946074896128,2022-02-15-03:32:26,10.1.1.2,23,-0.040,-0.040,-0.040,0.000,0.000,0.000
1644895946233892864,2022-02-15-03:32:26,10.1.1.2,29,-0.070,-0.070,-0.070,0.000,0.000,0.000
1644895946298355968,2022-02-15-03:32:26,10.1.1.2,38,-0.080,-0.080,-0.080,0.000,0.000,0.000
1644895946332840960,2022-02-15-03:32:26,10.1.1.2,24,-0.090,-0.090,-0.090,0.000,0.000,0.000
1644895946393722112,2022-02-15-03:32:26,10.1.1.2,33,-0.100,-0.100,-0.100,0.000,0.000,0.000
1644895946432688896,2022-02-15-03:32:26,10.1.1.2,23,-0.090,-0.090,-0.090,0.000,0.000,0.000
1644895946492829952,2022-02-15-03:32:26,10.1.1.2,32,-0.080,-0.080,-0.080,0.000,0.000,0.000
1644895946593185792,2022-02-15-03:32:26,10.1.1.2,29,-0.060,-0.060,-0.060,0.000,0.000,0.000
1644895946652484864,2022-02-15-03:32:26,10.1.1.2,38,-0.050,-0.050,-0.050,0.000,0.000,0.000
1644895946694135808,2022-02-15-03:32:26,10.1.1.2,28,-0.040,-0.040,-0.040,0.000,0.000,0.000
1644895946753478144,2022-02-15-03:32:26,10.1.1.2,36,-0.030,-0.030,-0.030,0.000,0.000,0.000
1644895946794020864,2022-02-15-03:32:26,10.1.1.2,25,-0.020,-0.020,-0.020,0.000,0.000,0.000
1644895946853779968,2022-02-15-03:32:26,10.1.1.2,34,-0.010,-0.010,-0.010,0.000,0.000,0.000
1644895946893681920,2022-02-15-03:32:26,10.1.1.2,23,0.000,0.000,0.000,0.000,0.000,0.000
1644895947014248960,2022-02-15-03:32:27,10.1.1.2,38,0.020,0.020,0.020,0.000,0.000,0.000
1644895947054019840,2022-02-15-03:32:27,10.1.1.2,27,0.030,0.030,0.030,0.000,0.000,0.000
1644895947114726144,2022-02-15-03:32:27,10.1.1.2,34,0.040,0.040,0.040,0.000,0.000,0.000
1644895947154334976,2022-02-15-03:32:27,10.1.1.2,23,0.050,0.050,0.050,0.000,0.000,0.000
1644895947213940992,2022-02-15-03:32:27,10.1.1.2,32,0.060,0.060,0.060,0.000,0.000,0.000
1644895947314191104,2022-02-15-03:32:27,10.1.1.2,28,0.080,0.080,0.080,0.000,0.000,0.000
1644895947373897984,2022-02-15-03:32:27,10.1.1.2,35,0.090,0.090,0.090,0.000,0.000,0.000
1644895947418332928,2022-02-15-03:32:27,10.1.1.2,24,0.100,0.100,0.100,0.000,0.000,0.000
1644895947472868864,2022-02-15-03:32:27,10.1.1.2,26,0.090,0.090,0.090,0.000,0.000,0.000
1644895947532540160,2022-02-15-03:32:27,10.1.1.2,33,0.080,0.080,0.080,0.000,0.000,0.000
1644895947572875008,2022-02-15-03:32:27,10.1.1.2,22,0.070,0.070,0.070,0.000,0.000,0.000
1644895947733135104,2022-02-15-03:32:27,10.1.1.2,30,0.040,0.040,0.040,0.000,0.000,0.000
1644895947793061120,2022-02-15-03:32:27,10.1.1.2,39,0.030,0.030,0.030,0.000,0.000,0.000
1644895947832839936,2022-02-15-03:32:27,10.1.1.2,28,0.020,0.020,0.020,0.000,0.000,0.000
1644895947892535040,2022-02-15-03:32:27,10.1.1.2,37,0.010,0.010,0.010,0.000,0.000,0.000
1644895947934448128,2022-02-15-03:32:27,10.1.1.2,27,0.000,0.000,0.000,0.000,0.000,0.000
1644895947992805888,2022-02-15-03:32:27,10.1.1.2,34,-0.010,-0.010,-0.010,0.000,0.000,0.000
1644895948032854016,2022-02-15-03:32:28,10.1.1.2,23,-0.020,-0.020,-0.020,0.000,0.000,0.000
1644895948094893056,2022-02-15-03:32:28,10.1.1.2,32,-0.030,-0.030,-0.030,0.000,0.000,0.000
1644895948252803072,2022-02-15-03:32:28,10.1.1.2,39,-0.060,-0.060,-0.060,0.000,0.000,0.000
1644895948293373952,2022-02-15-03:32:28,10.1.1.2,28,-0.070,-0.070,-0.070,0.000,0.000,0.000
1644895948353786880,2022-02-15-03:32:28,10.1.1.2,37,-0.080,-0.080,-0.080,0.000,0.000,0.000
1644895948394053888,2022-02-15-03:32:28,10.1.1.2,25,-0.090,-0.090,-0.090,0.000,0.000,0.000
1644895948453475840,2022-02-15-03:32:28,10.1.1.2,34,-0.100,-0.100,-0.100,0.000,0.000,0.000
1644895948493981952,2022-02-15-03:32:28,10.1.1.2,23,-0.090,-0.090,-0.090,0.000,0.000,0.000
1644895948613831168,2022-02-15-03:32:28,10.1.1.2,39,-0.070,-0.070,-0.070,0.000,0.000,0.000
1644895948654885120,2022-02-15-03:32:28,10.1.1.2,27,-0.060,-0.060,-0.060,0.000,0.000,0.000
1644895948874227968,2022-02-15-03:32:28,10.1.1.2,38,-0.020,-0.020,-0.020,0.000,0.000,0.000
1644895948914236160,2022-02-15-03:32:28,10.1.1.2,25,-0.010,-0.010,-0.010,0.000,0.000,0.000
1644895948974198016,2022-02-15-03:32:28,10.1.1.2,34,0.000,0.000,0.000,0.000,0.000,0.000
1644895949014462976,2022-02-15-03:32:29,10.1.1.2,23,0.010,0.010,0.010,0.000,0.000,0.000
1644895949173705984,2022-02-15-03:32:29,10.1.1.2,28,0.040,0.040,0.040,0.000,0.000,0.000
1644895949233582848,2022-02-15-03:32:29,10.1.1.2,37,0.050,0.050,0.050,0.000,0.000,0.000
1644895949278119936,2022-02-15-03:32:29,10.1.1.2,27,0.060,0.060,0.060,0.000,0.000,0.000
1644895949393320960,2022-02-15-03:32:29,10.1.1.2,38,0.080,0.080,0.080,0.000,0.000,0.000
1644895949435031040,2022-02-15-03:32:29,10.1.1.2,27,0.090,0.090,0.090,0.000,0.000,0.000
1644895949494872064,2022-02-15-03:32:29,10.1.1.2,34,0.100,0.100,0.100,0.000,0.000,0.000
1644895949534359040,2022-02-15-03:32:29,10.1.1.2,22,0.090,0.090,0.090,0.000,0.000,0.000
1644895949635638016,2022-02-15-03:32:29,10.1.1.2,21,0.070,0.070,0.070,0.000,0.000,0.000
1644895949694518016,2022-02-15-03:32:29,10.1.1.2,28,0.060,0.060,0.060,0.000,0.000,0.000
1644895949754353920,2022-02-15-03:32:29,10.1.1.2,36,0.050,0.050,0.050,0.000,0.000,0.000
1644895949794025984,2022-02-15-03:32:29,10.1.1.2,23,0.040,0.040,0.040,0.000,0.000,0.000
1644895949852737792,2022-02-15-03:32:29,10.1.1.2,32,0.030,0.030,0.030,0.000,0.000,0.000
1644895949893223936,2022-02-15-03:32:29,10.1.1.2,21,0.020,0.020,0.020,0.000,0.000,0.000
1644895950013632000,2022-02-15-03:32:30,10.1.1.2,38,-0.000,-0.000,-0.000,0.000,0.000,0.000
1644895950052993024,2022-02-15-03:32:30,10.1.1.2,28,-0.010,-0.010,-0.010,0.000,0.000,0.000
1644895950112456960,2022-02-15-03:32:30,10.1.1.2,37,-0.020,-0.020,-0.020,0.000,0.000,0.000
1644895950154352896,2022-02-15-03:32:30,10.1.1.2,26,-0.030,-0.030,-0.030,0.000,0.000,0.000
1644895950213612032,2022-02-15-03:32:30,10.1.1.2,36,-0.040,-0.040,-0.040,0.000,0.000,0.000
1644895950252882944,2022-02-15-03:32:30,10.1.1.2,25,-0.050,-0.050,-0.050,0.000,0.000,0.000
1644895950313432064,2022-02-15-03:32:30,10.1.1.2,34,-0.060,-0.060,-0.060,0.000,0.000,0.000
1644895950352775936,2022-02-15-03:32:30,10.1.1.2,24,-0.070,-0.070,-0.070,0.000,0.000,0.000
1644895950412763136,2022-02-15-03:32:30,10.1.1.2,31,-0.080,-0.080,-0.080,0.000,0.000,0.000
1644895950593133824,2022-02-15-03:32:30,10.1.1.2,9,-0.080,-0.080,-0.080,0.000,0.000,0.000
1644895950673172992,2022-02-15-03:32:30,10.1.1.2,38,-0.070,-0.070,-0.070,0.000,0.000,0.000
1644895950713114880,2022-02-15-03:32:30,10.1.1.2,28,-0.060,-0.060,-0.060,0.000,0.000,0.000
1644895950773549056,2022-02-15-03:32:30,10.1.1.2,37,-0.050,-0.050,-0.050,0.000,0.000,0.000
1644895950812814080,2022-02-15-03:32:30,10.1.1.2,27,-0.040,-0.040,-0.040,0.000,0.000,0.000
1644895950873240832,2022-02-15-03:32:30,10.1.1.2,36,-0.030,-0.030,-0.030,0.000,0.000,0.000
1644895950913147904,2022-02-15-03:32:30,10.1.1.2,26,-0.020,-0.020,-0.020,0.000,0.000,0.000
1644895950974585088,2022-02-15-03:32:30,10.1.1.2,35,-0.010,-0.010,-0.010,0.000,0.000,0.000
1644895951013297920,2022-02-15-03:32:31,10.1.1.2,24,0.000,0.000,0.000,0.000,0.000,0.000
1644895951073229056,2022-02-15-03:32:31,10.1.1.2,34,0.010,0.010,0.010,0.000,0.000,0.000
1644895951112942848,2022-02-15-03:32:31,10.1.1.2,23,0.020,0.020,0.020,0.000,0.000,0.000
1644895951173544960,2022-02-15-03:32:31,10.1.1.2,29,0.030,0.030,0.030,0.000,0.000,0.000
1644895951233058816,2022-02-15-03:32:31,10.1.1.2,38,0.040,0.040,0.040,0.000,0.000,0.000
1644895951272992000,2022-02-15-03:32:31,10.1.1.2,28,0.050,0.050,0.050,0.000,0.000,0.000
1644895951333519872,2022-02-15-03:32:31,10.1.1.2,37,0.060,0.060,0.060,0.000,0.000,0.000
1644895951373464064,2022-02-15-03:32:31,10.1.1.2,26,0.070,0.070,0.070,0.000,0.000,0.000
1644895951433399808,2022-02-15-03:32:31,10.1.1.2,35,0.080,0.080,0.080,0.000,0.000,0.000
1644895951472897024,2022-02-15-03:32:31,10.1.1.2,25,0.090,0.090,0.090,0.000,0.000,0.000
1644895951533415936,2022-02-15-03:32:31,10.1.1.2,34,0.100,0.100,0.100,0.000,0.000,0.000
1644895951573911808,2022-02-15-03:32:31,10.1.1.2,24,0.090,0.090,0.090,0.000,0.000,0.000
1644895951632733184,2022-02-15-03:32:31,10.1.1.2,33,0.080,0.080,0.080,0.000,0.000,0.000
1644895951673790976,2022-02-15-03:32:31,10.1.1.2,22,0.070,0.070,0.070,0.000,0.000,0.000
1644895951732950016,2022-02-15-03:32:31,10.1.1.2,32,0.060,0.060,0.060,0.000,0.000,0.000
1644895951893392128,2022-02-15-03:32:31,10.1.1.2,37,0.030,0.030,0.030,0.000,0.000,0.000
1644895951937905152,2022-02-15-03:32:31,10.1.1.2,25,0.020,0.020,0.020,0.000,0.000,0.000
1644895952052913920,2022-02-15-03:32:32,10.1.1.2,39,0.000,0.000,0.000,0.000,0.000,0.000
1644895952093136128,2022-02-15-03:32:32,10.1.1.2,28,-0.010,-0.010,-0.010,0.000,0.000,0.000
1644895952152890880,2022-02-15-03:32:32,10.1.1.2,38,-0.020,-0.020,-0.020,0.000,0.000,0.000
1644895952192705024,2022-02-15-03:32:32,10.1.1.2,27,-0.030,-0.030,-0.030,0.000,0.000,0.000
1644895952252891136,2022-02-15-03:32:32,10.1.1.2,37,-0.040,-0.040,-0.040,0.000,0.000,0.000
1644895952292823040,2022-02-15-03:32:32,10.1.1.2,26,-0.050,-0.050,-0.050,0.000,0.000,0.000
1644895952353513984,2022-02-15-03:32:32,10.1.1.2,35,-0.060,-0.060,-0.060,0.000,0.000,0.000
1644895952392941824,2022-02-15-03:32:32,10.1.1.2,23,-0.070,-0.070,-0.070,0.000,0.000,0.000
1644895952452840960,2022-02-15-03:32:32,10.1.1.2,33,-0.080,-0.080,-0.080,0.000,0.000,0.000
1644895952492888832,2022-02-15-03:32:32,10.1.1.2,22,-0.090,-0.090,-0.090,0.000,0.000,0.000
1644895952552997120,2022-02-15-03:32:32,10.1.1.2,32,-0.100,-0.100,-0.100,0.000,0.000,0.000
1644895952592993024,2022-02-15-03:32:32,10.1.1.2,21,-0.090,-0.090,-0.090,0.000,0.000,0.000
1644895952754454016,2022-02-15-03:32:32,10.1.1.2,29,-0.060,-0.060,-0.060,0.000,0.000,0.000
1644895952813371904,2022-02-15-03:32:32,10.1.1.2,36,-0.050,-0.050,-0.050,0.000,0.000,0.000
1644895952853287936,2022-02-15-03:32:32,10.1.1.2,25,-0.040,-0.040,-0.040,0.000,0.000,0.000
1644895952919822848,2022-02-15-03:32:32,10.1.1.2,34,-0.030,-0.030,-0.030,0.000,0.000,0.000
1644895952954906880,2022-02-15-03:32:32,10.1.1.2,22,-0.020,-0.020,-0.020,0.000,0.000,0.000
1644895953113896960,2022-02-15-03:32:33,10.1.1.2,27,0.010,0.010,0.010,0.000,0.000,0.000
1644895953174765056,2022-02-15-03:32:33,10.1.1.2,35,0.020,0.020,0.020,0.000,0.000,0.000
1644895953213118976,2022-02-15-03:32:33,10.1.1.2,24,0.030,0.030,0.030,0.000,0.000,0.000
1644895953273468928,2022-02-15-03:32:33,10.1.1.2,33,0.040,0.040,0.040,0.000,0.000,0.000
1644895953314050816,2022-02-15-03:32:33,10.1.1.2,23,0.050,0.050,0.050,0.000,0.000,0.000
1644895953373633024,2022-02-15-03:32:33,10.1.1.2,32,0.060,0.060,0.060,0.000,0.000,0.000
1644895953533637120,2022-02-15-03:32:33,10.1.1.2,39,0.090,0.090,0.090,0.000,0.000,0.000
1644895953573991936,2022-02-15-03:32:33,10.1.1.2,28,0.100,0.100,0.100,0.000,0.000,0.000
1644895953634667008,2022-02-15-03:32:33,10.1.1.2,37,0.090,0.090,0.090,0.000,0.000,0.000
1644895953673857024,2022-02-15-03:32:33,10.1.1.2,25,0.080,0.080,0.080,0.000,0.000,0.000
1644895953833853952,2022-02-15-03:32:33,10.1.1.2,29,0.050,0.050,0.050,0.000,0.000,0.000
1644895953893416960,2022-02-15-03:32:33,10.1.1.2,38,0.040,0.040,0.040,0.000,0.000,0.000
1644895953933368832,2022-02-15-03:32:33,10.1.1.2,27,0.030,0.030,0.030,0.000,0.000,0.000
1644895953993267968,2022-02-15-03:32:33,10.1.1.2,36,0.020,0.020,0.020,0.000,0.000,0.000
1644895954033540864,2022-02-15-03:32:34,10.1.1.2,26,0.010,0.010,0.010,0.000,0.000,0.000
1644895954093643776,2022-02-15-03:32:34,10.1.1.2,33,0.000,0.000,0.000,0.000,0.000,0.000
1644895954133725952,2022-02-15-03:32:34,10.1.1.2,23,-0.010,-0.010,-0.010,0.000,0.000,0.000
1644895954254358016,2022-02-15-03:32:34,10.1.1.2,35,-0.030,-0.030,-0.030,0.000,0.000,0.000
1644895954293102080,2022-02-15-03:32:34,10.1.1.2,23,-0.040,-0.040,-0.040,0.000,0.000,0.000
1644895954352928000,2022-02-15-03:32:34,10.1.1.2,32,-0.050,-0.050,-0.050,0.000,0.000,0.000
1644895954392622848,2022-02-15-03:32:34,10.1.1.2,22,-0.060,-0.060,-0.060,0.000,0.000,0.000
1644895954454603008,2022-02-15-03:32:34,10.1.1.2,31,-0.070,-0.070,-0.070,0.000,0.000,0.000
1644895954515748096,2022-02-15-03:32:34,10.1.1.2,38,-0.080,-0.080,-0.080,0.000,0.000,0.000
1644895954555610880,2022-02-15-03:32:34,10.1.1.2,26,-0.090,-0.090,-0.090,0.000,0.000,0.000
1644895954614397952,2022-02-15-03:32:34,10.1.1.2,34,-0.100,-0.100,-0.100,0.000,0.000,0.000
1644895954654053888,2022-02-15-03:32:34,10.1.1.2,24,-0.090,-0.090,-0.090,0.000,0.000,0.000
1644895954714132992,2022-02-15-03:32:34,10.1.1.2,33,-0.080,-0.080,-0.080,0.000,0.000,0.000
1644895954873538048,2022-02-15-03:32:34,10.1.1.2,38,-0.050,-0.050,-0.050,0.000,0.000,0.000
1644895954913844992,2022-02-15-03:32:34,10.1.1.2,27,-0.040,-0.040,-0.040,0.000,0.000,0.000
1644895954973465088,2022-02-15-03:32:34,10.1.1.2,36,-0.030,-0.030,-0.030,0.000,0.000,0.000
1644895955013752064,2022-02-15-03:32:35,10.1.1.2,24,-0.020,-0.020,-0.020,0.000,0.000,0.000
1644895955072946176,2022-02-15-03:32:35,10.1.1.2,34,-0.010,-0.010,-0.010,0.000,0.000,0.000
1644895955112891904,2022-02-15-03:32:35,10.1.1.2,22,0.000,0.000,0.000,0.000,0.000,0.000
1644895955173757952,2022-02-15-03:32:35,10.1.1.2,32,0.010,0.010,0.010,0.000,0.000,0.000
1644895955233490944,2022-02-15-03:32:35,10.1.1.2,38,0.020,0.020,0.020,0.000,0.000,0.000
1644895955273596928,2022-02-15-03:32:35,10.1.1.2,28,0.030,0.030,0.030,0.000,0.000,0.000
1644895955332814080,2022-02-15-03:32:35,10.1.1.2,37,0.040,0.040,0.040,0.000,0.000,0.000
1644895955373549824,2022-02-15-03:32:35,10.1.1.2,26,0.050,0.050,0.050,0.000,0.000,0.000
1644895955433416960,2022-02-15-03:32:35,10.1.1.2,33,0.060,0.060,0.060,0.000,0.000,0.000
1644895955592765952,2022-02-15-03:32:35,10.1.1.2,39,0.090,0.090,0.090,0.000,0.000,0.000
1644895955636130048,2022-02-15-03:32:35,10.1.1.2,28,0.100,0.100,0.100,0.000,0.000,0.000
1644895955693289984,2022-02-15-03:32:35,10.1.1.2,38,0.090,0.090,0.090,0.000,0.000,0.000
1644895955734193920,2022-02-15-03:32:35,10.1.1.2,27,0.080,0.080,0.080,0.000,0.000,0.000
1644895955793551872,2022-02-15-03:32:35,10.1.1.2,35,0.070,0.070,0.070,0.000,0.000,0.000
1644895955833012992,2022-02-15-03:32:35,10.1.1.2,24,0.060,0.060,0.060,0.000,0.000,0.000
1644895955893172992,2022-02-15-03:32:35,10.1.1.2,33,0.050,0.050,0.050,0.000,0.000,0.000
1644895955934062848,2022-02-15-03:32:35,10.1.1.2,22,0.040,0.040,0.040,0.000,0.000,0.000
1644895955993114880,2022-02-15-03:32:35,10.1.1.2,32,0.030,0.030,0.030,0.000,0.000,0.000
1644895956093598976,2022-02-15-03:32:36,10.1.1.2,29,0.010,0.010,0.010,0.000,0.000,0.000
1644895956152790016,2022-02-15-03:32:36,10.1.1.2,37,0.000,0.000,0.000,0.000,0.000,0.000
1644895956193395968,2022-02-15-03:32:36,10.1.1.2,24,-0.010,-0.010,-0.010,0.000,0.000,0.000
1644895956253249792,2022-02-15-03:32:36,10.1.1.2,33,-0.020,-0.020,-0.020,0.000,0.000,0.000
1644895956293175040,2022-02-15-03:32:36,10.1.1.2,23,-0.030,-0.030,-0.030,0.000,0.000,0.000
1644895956353508864,2022-02-15-03:32:36,10.1.1.2,32,-0.040,-0.040,-0.040,0.000,0.000,0.000
1644895956393320960,2022-02-15-03:32:36,10.1.1.2,21,-0.050,-0.050,-0.050,0.000,0.000,0.000
1644895956454171904,2022-02-15-03:32:36,10.1.1.2,29,-0.060,-0.060,-0.060,0.000,0.000,0.000
1644895956513632000,2022-02-15-03:32:36,10.1.1.2,38,-0.070,-0.070,-0.070,0.000,0.000,0.000
1644895956553364992,2022-02-15-03:32:36,10.1.1.2,28,-0.080,-0.080,-0.080,0.000,0.000,0.000
1644895956614036992,2022-02-15-03:32:36,10.1.1.2,37,-0.090,-0.090,-0.090,0.000,0.000,0.000
1644895956653954048,2022-02-15-03:32:36,10.1.1.2,26,-0.100,-0.100,-0.100,0.000,0.000,0.000
1644895956713246976,2022-02-15-03:32:36,10.1.1.2,35,-0.090,-0.090,-0.090,0.000,0.000,0.000
1644895956753384960,2022-02-15-03:32:36,10.1.1.2,25,-0.080,-0.080,-0.080,0.000,0.000,0.000
1644895956813529856,2022-02-15-03:32:36,10.1.1.2,34,-0.070,-0.070,-0.070,0.000,0.000,0.000
1644895956853744128,2022-02-15-03:32:36,10.1.1.2,24,-0.060,-0.060,-0.060,0.000,0.000,0.000
1644895956914051072,2022-02-15-03:32:36,10.1.1.2,34,-0.050,-0.050,-0.050,0.000,0.000,0.000
1644895956953364992,2022-02-15-03:32:36,10.1.1.2,22,-0.040,-0.040,-0.040,0.000,0.000,0.000
1644895957013628928,2022-02-15-03:32:37,10.1.1.2,32,-0.030,-0.030,-0.030,0.000,0.000,0.000
1644895957213784064,2022-02-15-03:32:37,10.1.1.2,29,0.010,0.010,0.010,0.000,0.000,0.000
1644895957273456128,2022-02-15-03:32:37,10.1.1.2,37,0.020,0.020,0.020,0.000,0.000,0.000
1644895957312900096,2022-02-15-03:32:37,10.1.1.2,27,0.030,0.030,0.030,0.000,0.000,0.000
1644895957372673024,2022-02-15-03:32:37,10.1.1.2,36,0.040,0.040,0.040,0.000,0.000,0.000
1644895957412805120,2022-02-15-03:32:37,10.1.1.2,25,0.050,0.050,0.050,0.000,0.000,0.000
1644895957473134080,2022-02-15-03:32:37,10.1.1.2,34,0.060,0.060,0.060,0.000,0.000,0.000
1644895957513180928,2022-02-15-03:32:37,10.1.1.2,23,0.070,0.070,0.070,0.000,0.000,0.000
1644895957573923072,2022-02-15-03:32:37,10.1.1.2,33,0.080,0.080,0.080,0.000,0.000,0.000
1644895957613692160,2022-02-15-03:32:37,10.1.1.2,22,0.090,0.090,0.090,0.000,0.000,0.000
1644895957695539968,2022-02-15-03:32:37,10.1.1.2,0,0.090,0.090,0.090,0.000,0.000,0.000
1644895957774100992,2022-02-15-03:32:37,10.1.1.2,29,0.080,0.080,0.080,0.000,0.000,0.000
1644895957834032128,2022-02-15-03:32:37,10.1.1.2,38,0.070,0.070,0.070,0.000,0.000,0.000
1644895957873435136,2022-02-15-03:32:37,10.1.1.2,27,0.060,0.060,0.060,0.000,0.000,0.000
1644895957934350080,2022-02-15-03:32:37,10.1.1.2,36,0.050,0.050,0.050,0.000,0.000,0.000
1644895957973851904,2022-02-15-03:32:37,10.1.1.2,25,0.040,0.040,0.040,0.000,0.000,0.000
1644895958033920000,2022-02-15-03:32:38,10.1.1.2,34,0.030,0.030,0.030,0.000,0.000,0.000
1644895958074115072,2022-02-15-03:32:38,10.1.1.2,23,0.020,0.020,0.020,0.000,0.000,0.000
1644895958135305984,2022-02-15-03:32:38,10.1.1.2,32,0.010,0.010,0.010,0.000,0.000,0.000
1644895958293686016,2022-02-15-03:32:38,10.1.1.2,39,-0.020,-0.020,-0.020,0.000,0.000,0.000
1644895958335902976,2022-02-15-03:32:38,10.1.1.2,28,-0.030,-0.030,-0.030,0.000,0.000,0.000
1644895958395538176,2022-02-15-03:32:38,10.1.1.2,37,-0.040,-0.040,-0.040,0.000,0.000,0.000
1644895958434604032,2022-02-15-03:32:38,10.1.1.2,26,-0.050,-0.050,-0.050,0.000,0.000,0.000
1644895958493318912,2022-02-15-03:32:38,10.1.1.2,34,-0.060,-0.060,-0.060,0.000,0.000,0.000
1644895958534627840,2022-02-15-03:32:38,10.1.1.2,23,-0.070,-0.070,-0.070,0.000,0.000,0.000
1644895958593539840,2022-02-15-03:32:38,10.1.1.2,32,-0.080,-0.080,-0.080,0.000,0.000,0.000
1644895958633910016,2022-02-15-03:32:38,10.1.1.2,21,-0.090,-0.090,-0.090,0.000,0.000,0.000
1644895958695251968,2022-02-15-03:32:38,10.1.1.2,33,-0.100,-0.100,-0.100,0.000,0.000,0.000
1644895958793870080,2022-02-15-03:32:38,10.1.1.2,29,-0.080,-0.080,-0.080,0.000,0.000,0.000
1644895958853270016,2022-02-15-03:32:38,10.1.1.2,38,-0.070,-0.070,-0.070,0.000,0.000,0.000
1644895958893843968,2022-02-15-03:32:38,10.1.1.2,27,-0.060,-0.060,-0.060,0.000,0.000,0.000
1644895958953605888,2022-02-15-03:32:38,10.1.1.2,36,-0.050,-0.050,-0.050,0.000,0.000,0.000
1644895958993895936,2022-02-15-03:32:38,10.1.1.2,25,-0.040,-0.040,-0.040,0.000,0.000,0.000
1644895959053467136,2022-02-15-03:32:39,10.1.1.2,34,-0.030,-0.030,-0.030,0.000,0.000,0.000
1644895959095149056,2022-02-15-03:32:39,10.1.1.2,23,-0.020,-0.020,-0.020,0.000,0.000,0.000
1644895959313182208,2022-02-15-03:32:39,10.1.1.2,37,0.020,0.020,0.020,0.000,0.000,0.000
1644895959353230080,2022-02-15-03:32:39,10.1.1.2,23,0.030,0.030,0.030,0.000,0.000,0.000
1644895959414625024,2022-02-15-03:32:39,10.1.1.2,32,0.040,0.040,0.040,0.000,0.000,0.000
1644895959453260032,2022-02-15-03:32:39,10.1.1.2,22,0.050,0.050,0.050,0.000,0.000,0.000
1644895959614098944,2022-02-15-03:32:39,10.1.1.2,29,0.080,0.080,0.080,0.000,0.000,0.000
1644895959673651968,2022-02-15-03:32:39,10.1.1.2,38,0.090,0.090,0.090,0.000,0.000,0.000
1644895959714178048,2022-02-15-03:32:39,10.1.1.2,26,0.100,0.100,0.100,0.000,0.000,0.000
1644895959775162880,2022-02-15-03:32:39,10.1.1.2,35,0.090,0.090,0.090,0.000,0.000,0.000
1644895959939287808,2022-02-15-03:32:39,10.1.1.2,37,0.060,0.060,0.060,0.000,0.000,0.000
1644895959975073024,2022-02-15-03:32:39,10.1.1.2,26,0.050,0.050,0.050,0.000,0.000,0.000
1644895960033512960,2022-02-15-03:32:40,10.1.1.2,34,0.040,0.040,0.040,0.000,0.000,0.000
1644895960074852864,2022-02-15-03:32:40,10.1.1.2,23,0.030,0.030,0.030,0.000,0.000,0.000
1644895960234260992,2022-02-15-03:32:40,10.1.1.2,29,0.000,0.000,0.000,0.000,0.000,0.000
1644895960294995968,2022-02-15-03:32:40,10.1.1.2,38,-0.010,-0.010,-0.010,0.000,0.000,0.000
1644895960333852160,2022-02-15-03:32:40,10.1.1.2,24,-0.020,-0.020,-0.020,0.000,0.000,0.000
1644895960394159104,2022-02-15-03:32:40,10.1.1.2,31,-0.030,-0.030,-0.030,0.000,0.000,0.000
1644895960553565952,2022-02-15-03:32:40,10.1.1.2,38,-0.060,-0.060,-0.060,0.000,0.000,0.000
1644895960593700864,2022-02-15-03:32:40,10.1.1.2,27,-0.070,-0.070,-0.070,0.000,0.000,0.000
1644895960655473920,2022-02-15-03:32:40,10.1.1.2,35,-0.080,-0.080,-0.080,0.000,0.000,0.000
1644895960714567936,2022-02-15-03:32:40,10.1.1.2,38,-0.090,-0.090,-0.090,0.000,0.000,0.000
1644895960753638912,2022-02-15-03:32:40,10.1.1.2,25,-0.100,-0.100,-0.100,0.000,0.000,0.000
1644895960813916928,2022-02-15-03:32:40,10.1.1.2,34,-0.090,-0.090,-0.090,0.000,0.000,0.000
1644895960853619200,2022-02-15-03:32:40,10.1.1.2,22,-0.080,-0.080,-0.080,0.000,0.000,0.000
1644895960913445120,2022-02-15-03:32:40,10.1.1.2,31,-0.070,-0.070,-0.070,0.000,0.000,0.000
1644895961013270016,2022-02-15-03:32:41,10.1.1.2,30,-0.050,-0.050,-0.050,0.000,0.000,0.000
1644895961073795072,2022-02-15-03:32:41,10.1.1.2,39,-0.040,-0.040,-0.040,0.000,0.000,0.000
1644895961114653184,2022-02-15-03:32:41,10.1.1.2,26,-0.030,-0.030,-0.030,0.000,0.000,0.000
1644895961174088960,2022-02-15-03:32:41,10.1.1.2,34,-0.020,-0.020,-0.020,0.000,0.000,0.000
1644895961215388160,2022-02-15-03:32:41,10.1.1.2,24,-0.010,-0.010,-0.010,0.000,0.000,0.000
1644895961275949056,2022-02-15-03:32:41,10.1.1.2,33,0.000,0.000,0.000,0.000,0.000,0.000
1644895961314717952,2022-02-15-03:32:41,10.1.1.2,22,0.010,0.010,0.010,0.000,0.000,0.000
1644895961534406912,2022-02-15-03:32:41,10.1.1.2,37,0.050,0.050,0.050,0.000,0.000,0.000
1644895961573472000,2022-02-15-03:32:41,10.1.1.2,26,0.060,0.060,0.060,0.000,0.000,0.000
1644895961633666048,2022-02-15-03:32:41,10.1.1.2,35,0.070,0.070,0.070,0.000,0.000,0.000
1644895961675230976,2022-02-15-03:32:41,10.1.1.2,24,0.080,0.080,0.080,0.000,0.000,0.000
1644895961775226112,2022-02-15-03:32:41,10.1.1.2,20,0.099,0.099,0.099,0.000,0.000,0.000
1644895961834247168,2022-02-15-03:32:41,10.1.1.2,28,0.090,0.090,0.090,0.000,0.000,0.000
1644895961897281792,2022-02-15-03:32:41,10.1.1.2,38,0.080,0.080,0.080,0.000,0.000,0.000
1644895961934274048,2022-02-15-03:32:41,10.1.1.2,23,0.070,0.070,0.070,0.000,0.000,0.000
1644895961994362112,2022-02-15-03:32:41,10.1.1.2,32,0.060,0.060,0.060,0.000,0.000,0.000
1644895962155788800,2022-02-15-03:32:42,10.1.1.2,38,0.030,0.030,0.030,0.000,0.000,0.000
1644895962194351872,2022-02-15-03:32:42,10.1.1.2,26,0.020,0.020,0.020,0.000,0.000,0.000
1644895962296154880,2022-02-15-03:32:42,10.1.1.2,22,0.000,0.000,0.000,0.000,0.000,0.000
1644895962414661888,2022-02-15-03:32:42,10.1.1.2,38,-0.020,-0.020,-0.020,0.000,0.000,0.000
1644895962454444032,2022-02-15-03:32:42,10.1.1.2,27,-0.030,-0.030,-0.030,0.000,0.000,0.000
1644895962514254080,2022-02-15-03:32:42,10.1.1.2,36,-0.040,-0.040,-0.040,0.000,0.000,0.000
1644895962554755072,2022-02-15-03:32:42,10.1.1.2,25,-0.050,-0.050,-0.050,0.000,0.000,0.000
1644895962615287040,2022-02-15-03:32:42,10.1.1.2,34,-0.060,-0.060,-0.060,0.000,0.000,0.000
1644895962654078976,2022-02-15-03:32:42,10.1.1.2,22,-0.070,-0.070,-0.070,0.000,0.000,0.000
1644895962713860864,2022-02-15-03:32:42,10.1.1.2,32,-0.080,-0.080,-0.080,0.000,0.000,0.000
1644895962773602048,2022-02-15-03:32:42,10.1.1.2,39,-0.090,-0.090,-0.090,0.000,0.000,0.000
1644895962813591040,2022-02-15-03:32:42,10.1.1.2,25,-0.100,-0.100,-0.100,0.000,0.000,0.000
1644895962873967872,2022-02-15-03:32:42,10.1.1.2,34,-0.090,-0.090,-0.090,0.000,0.000,0.000
1644895962914799872,2022-02-15-03:32:42,10.1.1.2,23,-0.080,-0.080,-0.080,0.000,0.000,0.000
1644895963073230080,2022-02-15-03:32:43,10.1.1.2,28,-0.050,-0.050,-0.050,0.000,0.000,0.000
1644895963133860096,2022-02-15-03:32:43,10.1.1.2,36,-0.040,-0.040,-0.040,0.000,0.000,0.000
1644895963173726976,2022-02-15-03:32:43,10.1.1.2,25,-0.030,-0.030,-0.030,0.000,0.000,0.000
1644895963233582080,2022-02-15-03:32:43,10.1.1.2,34,-0.020,-0.020,-0.020,0.000,0.000,0.000
1644895963274408960,2022-02-15-03:32:43,10.1.1.2,23,-0.010,-0.010,-0.010,0.000,0.000,0.000
1644895963332943872,2022-02-15-03:32:43,10.1.1.2,32,0.000,0.000,0.000,0.000,0.000,0.000
1644895963373712128,2022-02-15-03:32:43,10.1.1.2,22,0.010,0.010,0.010,0.000,0.000,0.000
1644895963434436096,2022-02-15-03:32:43,10.1.1.2,31,0.020,0.020,0.020,0.000,0.000,0.000
1644895963594661888,2022-02-15-03:32:43,10.1.1.2,38,0.050,0.050,0.050,0.000,0.000,0.000
1644895963635087104,2022-02-15-03:32:43,10.1.1.2,26,0.060,0.060,0.060,0.000,0.000,0.000
1644895963692944896,2022-02-15-03:32:43,10.1.1.2,35,0.070,0.070,0.070,0.000,0.000,0.000
1644895963734736896,2022-02-15-03:32:43,10.1.1.2,22,0.080,0.080,0.080,0.000,0.000,0.000
1644895963893500928,2022-02-15-03:32:43,10.1.1.2,28,0.090,0.090,0.090,0.000,0.000,0.000
1644895963953249024,2022-02-15-03:32:43,10.1.1.2,36,0.080,0.080,0.080,0.000,0.000,0.000
1644895963993478144,2022-02-15-03:32:43,10.1.1.2,25,0.070,0.070,0.070,0.000,0.000,0.000
1644895964054102016,2022-02-15-03:32:44,10.1.1.2,34,0.060,0.060,0.060,0.000,0.000,0.000
1644895964094116096,2022-02-15-03:32:44,10.1.1.2,23,0.050,0.050,0.050,0.000,0.000,0.000
1644895964153528832,2022-02-15-03:32:44,10.1.1.2,33,0.040,0.040,0.040,0.000,0.000,0.000
1644895964193540096,2022-02-15-03:32:44,10.1.1.2,22,0.030,0.030,0.030,0.000,0.000,0.000
1644895964313811968,2022-02-15-03:32:44,10.1.1.2,39,0.010,0.010,0.010,0.000,0.000,0.000
1644895964353961984,2022-02-15-03:32:44,10.1.1.2,28,0.000,0.000,0.000,0.000,0.000,0.000
1644895964453690880,2022-02-15-03:32:44,10.1.1.2,26,-0.020,-0.020,-0.020,0.000,0.000,0.000
1644895964513165824,2022-02-15-03:32:44,10.1.1.2,35,-0.030,-0.030,-0.030,0.000,0.000,0.000
1644895964553720064,2022-02-15-03:32:44,10.1.1.2,23,-0.040,-0.040,-0.040,0.000,0.000,0.000
1644895964614481920,2022-02-15-03:32:44,10.1.1.2,32,-0.050,-0.050,-0.050,0.000,0.000,0.000
1644895964653782016,2022-02-15-03:32:44,10.1.1.2,21,-0.060,-0.060,-0.060,0.000,0.000,0.000
1644895964754116096,2022-02-15-03:32:44,10.1.1.2,20,-0.080,-0.080,-0.080,0.000,0.000,0.000
1644895964813465088,2022-02-15-03:32:44,10.1.1.2,27,-0.090,-0.090,-0.090,0.000,0.000,0.000
1644895964873657856,2022-02-15-03:32:44,10.1.1.2,34,-0.100,-0.100,-0.100,0.000,0.000,0.000
1644895964915244032,2022-02-15-03:32:44,10.1.1.2,23,-0.090,-0.090,-0.090,0.000,0.000,0.000
1644895964973565952,2022-02-15-03:32:44,10.1.1.2,32,-0.080,-0.080,-0.080,0.000,0.000,0.000
1644895965073811968,2022-02-15-03:32:45,10.1.1.2,28,-0.060,-0.060,-0.060,0.000,0.000,0.000
1644895965095397888,2022-02-15-03:32:45,10.1.1.2,-4,-0.060,-0.060,-0.060,0.000,0.000,0.000
1644895965174330112,2022-02-15-03:32:45,10.1.1.2,26,-0.040,-0.040,-0.040,0.000,0.000,0.000
1644895965233614848,2022-02-15-03:32:45,10.1.1.2,34,-0.030,-0.030,-0.030,0.000,0.000,0.000
1644895965273787904,2022-02-15-03:32:45,10.1.1.2,23,-0.020,-0.020,-0.020,0.000,0.000,0.000
1644895965333650944,2022-02-15-03:32:45,10.1.1.2,32,-0.010,-0.010,-0.010,0.000,0.000,0.000
1644895965494276096,2022-02-15-03:32:45,10.1.1.2,39,0.020,0.020,0.020,0.000,0.000,0.000
1644895965533623808,2022-02-15-03:32:45,10.1.1.2,28,0.030,0.030,0.030,0.000,0.000,0.000
1644895965594053888,2022-02-15-03:32:45,10.1.1.2,37,0.040,0.040,0.040,0.000,0.000,0.000
1644895965634042112,2022-02-15-03:32:45,10.1.1.2,26,0.050,0.050,0.050,0.000,0.000,0.000
1644895965693238016,2022-02-15-03:32:45,10.1.1.2,32,0.060,0.060,0.060,0.000,0.000,0.000
1644895965794976000,2022-02-15-03:32:45,10.1.1.2,28,0.080,0.080,0.080,0.000,0.000,0.000
1644895965854120960,2022-02-15-03:32:45,10.1.1.2,37,0.090,0.090,0.090,0.000,0.000,0.000
1644895965893698816,2022-02-15-03:32:45,10.1.1.2,26,0.100,0.100,0.100,0.000,0.000,0.000
1644895965954287104,2022-02-15-03:32:45,10.1.1.2,34,0.090,0.090,0.090,0.000,0.000,0.000
1644895965993447168,2022-02-15-03:32:45,10.1.1.2,23,0.080,0.080,0.080,0.000,0.000,0.000
1644895966053702144,2022-02-15-03:32:46,10.1.1.2,32,0.070,0.070,0.070,0.000,0.000,0.000
1644895966093977088,2022-02-15-03:32:46,10.1.1.2,22,0.060,0.060,0.060,0.000,0.000,0.000
1644895966154366976,2022-02-15-03:32:46,10.1.1.2,31,0.050,0.050,0.050,0.000,0.000,0.000
1644895966313668096,2022-02-15-03:32:46,10.1.1.2,39,0.020,0.020,0.020,0.000,0.000,0.000
1644895966354396160,2022-02-15-03:32:46,10.1.1.2,28,0.010,0.010,0.010,0.000,0.000,0.000
1644895966414393856,2022-02-15-03:32:46,10.1.1.2,37,0.000,0.000,0.000,0.000,0.000,0.000
1644895966454253056,2022-02-15-03:32:46,10.1.1.2,26,-0.010,-0.010,-0.010,0.000,0.000,0.000
1644895966515053056,2022-02-15-03:32:46,10.1.1.2,35,-0.020,-0.020,-0.020,0.000,0.000,0.000
1644895966553590016,2022-02-15-03:32:46,10.1.1.2,25,-0.030,-0.030,-0.030,0.000,0.000,0.000
1644895966613552128,2022-02-15-03:32:46,10.1.1.2,34,-0.040,-0.040,-0.040,0.000,0.000,0.000
1644895966653810944,2022-02-15-03:32:46,10.1.1.2,23,-0.050,-0.050,-0.050,0.000,0.000,0.000
1644895966714156032,2022-02-15-03:32:46,10.1.1.2,32,-0.060,-0.060,-0.060,0.000,0.000,0.000
1644895966754784000,2022-02-15-03:32:46,10.1.1.2,22,-0.070,-0.070,-0.070,0.000,0.000,0.000
1644895966913811968,2022-02-15-03:32:46,10.1.1.2,28,-0.100,-0.100,-0.100,0.000,0.000,0.000
1644895966973678080,2022-02-15-03:32:46,10.1.1.2,37,-0.090,-0.090,-0.090,0.000,0.000,0.000
1644895967013933056,2022-02-15-03:32:47,10.1.1.2,26,-0.080,-0.080,-0.080,0.000,0.000,0.000
1644895967074573056,2022-02-15-03:32:47,10.1.1.2,34,-0.070,-0.070,-0.070,0.000,0.000,0.000
1644895967113547008,2022-02-15-03:32:47,10.1.1.2,23,-0.060,-0.060,-0.060,0.000,0.000,0.000
1644895967173181952,2022-02-15-03:32:47,10.1.1.2,32,-0.050,-0.050,-0.050,0.000,0.000,0.000
1644895967375538176,2022-02-15-03:32:47,10.1.1.2,28,-0.010,-0.010,-0.010,0.000,0.000,0.000
1644895967433581056,2022-02-15-03:32:47,10.1.1.2,37,0.000,0.000,0.000,0.000,0.000,0.000
1644895967473570048,2022-02-15-03:32:47,10.1.1.2,26,0.010,0.010,0.010,0.000,0.000,0.000
1644895967533575936,2022-02-15-03:32:47,10.1.1.2,34,0.020,0.020,0.020,0.000,0.000,0.000
1644895967574146048,2022-02-15-03:32:47,10.1.1.2,23,0.030,0.030,0.030,0.000,0.000,0.000
1644895967634114048,2022-02-15-03:32:47,10.1.1.2,32,0.040,0.040,0.040,0.000,0.000,0.000
1644895967793454848,2022-02-15-03:32:47,10.1.1.2,37,0.070,0.070,0.070,0.000,0.000,0.000
1644895967833405952,2022-02-15-03:32:47,10.1.1.2,25,0.080,0.080,0.080,0.000,0.000,0.000
1644895967894414848,2022-02-15-03:32:47,10.1.1.2,33,0.090,0.090,0.090,0.000,0.000,0.000
1644895967933593088,2022-02-15-03:32:47,10.1.1.2,22,0.100,0.100,0.100,0.000,0.000,0.000
1644895967993371136,2022-02-15-03:32:47,10.1.1.2,28,0.090,0.090,0.090,0.000,0.000,0.000
1644895968053632000,2022-02-15-03:32:48,10.1.1.2,37,0.080,0.080,0.080,0.000,0.000,0.000
1644895968093647104,2022-02-15-03:32:48,10.1.1.2,26,0.070,0.070,0.070,0.000,0.000,0.000
1644895968153283072,2022-02-15-03:32:48,10.1.1.2,34,0.060,0.060,0.060,0.000,0.000,0.000
1644895968193507072,2022-02-15-03:32:48,10.1.1.2,23,0.050,0.050,0.050,0.000,0.000,0.000
1644895968254170880,2022-02-15-03:32:48,10.1.1.2,33,0.040,0.040,0.040,0.000,0.000,0.000
1644895968293469952,2022-02-15-03:32:48,10.1.1.2,22,0.030,0.030,0.030,0.000,0.000,0.000
1644895968353656064,2022-02-15-03:32:48,10.1.1.2,31,0.020,0.020,0.020,0.000,0.000,0.000
1644895968454024960,2022-02-15-03:32:48,10.1.1.2,29,0.000,0.000,0.000,0.000,0.000,0.000
1644895968513540096,2022-02-15-03:32:48,10.1.1.2,38,-0.010,-0.010,-0.010,0.000,0.000,0.000
1644895968553715968,2022-02-15-03:32:48,10.1.1.2,27,-0.020,-0.020,-0.020,0.000,0.000,0.000
1644895968613267968,2022-02-15-03:32:48,10.1.1.2,36,-0.030,-0.030,-0.030,0.000,0.000,0.000
1644895968653965824,2022-02-15-03:32:48,10.1.1.2,25,-0.040,-0.040,-0.040,0.000,0.000,0.000
1644895968713614848,2022-02-15-03:32:48,10.1.1.2,35,-0.050,-0.050,-0.050,0.000,0.000,0.000
1644895968754456064,2022-02-15-03:32:48,10.1.1.2,24,-0.060,-0.060,-0.060,0.000,0.000,0.000
1644895968813564160,2022-02-15-03:32:48,10.1.1.2,33,-0.070,-0.070,-0.070,0.000,0.000,0.000
1644895968881961216,2022-02-15-03:32:48,10.1.1.2,39,-0.080,-0.080,-0.080,0.000,0.000,0.000
1644895968913220864,2022-02-15-03:32:48,10.1.1.2,27,-0.090,-0.090,-0.090,0.000,0.000,0.000
1644895968977315840,2022-02-15-03:32:48,10.1.1.2,36,-0.100,-0.100,-0.100,0.000,0.000,0.000
1644895969014514944,2022-02-15-03:32:49,10.1.1.2,24,-0.090,-0.090,-0.090,0.000,0.000,0.000
1644895969075314944,2022-02-15-03:32:49,10.1.1.2,33,-0.080,-0.080,-0.080,0.000,0.000,0.000
1644895969234062080,2022-02-15-03:32:49,10.1.1.2,39,-0.050,-0.050,-0.050,0.000,0.000,0.000
1644895969274102016,2022-02-15-03:32:49,10.1.1.2,27,-0.040,-0.040,-0.040,0.000,0.000,0.000
1644895969337694976,2022-02-15-03:32:49,10.1.1.2,33,-0.030,-0.030,-0.030,0.000,0.000,0.000
1644895969434115840,2022-02-15-03:32:49,10.1.1.2,30,-0.010,-0.010,-0.010,0.000,0.000,0.000
1644895969497757952,2022-02-15-03:32:49,10.1.1.2,37,0.000,0.000,0.000,0.000,0.000,0.000
1644895969533559040,2022-02-15-03:32:49,10.1.1.2,25,0.010,0.010,0.010,0.000,0.000,0.000
