FedericoMungari/DigitalTwin_service/01_WiredScenario/Output/Output_script/script_rosapi_2_output_robots10_freq0_10.txt
timestamp,date,node,latency,joint_1,joint_2,joint_3,joint_4,joint_5,joint_6
1644926765620590848,2022-02-15-12:06:05,10.1.1.11,15,-0.100,-0.100,-0.100,0.000,-0.000,0.000
1644926765684658944,2022-02-15-12:06:05,10.1.1.11,27,-0.090,-0.090,-0.090,0.000,0.000,0.000
1644926765741348864,2022-02-15-12:06:05,10.1.1.11,33,-0.080,-0.080,-0.080,0.000,0.000,0.000
1644926765781372928,2022-02-15-12:06:05,10.1.1.11,20,-0.070,-0.070,-0.070,0.000,0.000,0.000
1644926765841227008,2022-02-15-12:06:05,10.1.1.11,28,-0.060,-0.060,-0.060,0.000,0.000,0.000
1644926765901207808,2022-02-15-12:06:05,10.1.1.11,37,-0.050,-0.050,-0.050,0.000,0.000,0.000
1644926765940884992,2022-02-15-12:06:05,10.1.1.11,26,-0.040,-0.040,-0.040,0.000,0.000,0.000
1644926766000890112,2022-02-15-12:06:06,10.1.1.11,35,-0.030,-0.030,-0.030,0.000,0.000,0.000
1644926766041498880,2022-02-15-12:06:06,10.1.1.11,24,-0.020,-0.020,-0.020,0.000,0.000,0.000
1644926766101144064,2022-02-15-12:06:06,10.1.1.11,33,-0.010,-0.010,-0.010,0.000,0.000,0.000
1644926766141649920,2022-02-15-12:06:06,10.1.1.11,22,0.000,0.000,0.000,0.000,0.000,0.000
1644926766200578048,2022-02-15-12:06:06,10.1.1.11,29,0.010,0.010,0.010,0.000,0.000,0.000
1644926766240612096,2022-02-15-12:06:06,10.1.1.11,19,0.019,0.019,0.019,0.000,0.000,0.000
1644926766300791040,2022-02-15-12:06:06,10.1.1.11,28,0.030,0.030,0.030,0.000,0.000,0.000
1644926766361061120,2022-02-15-12:06:06,10.1.1.11,37,0.040,0.040,0.040,0.000,0.000,0.000
1644926766401346816,2022-02-15-12:06:06,10.1.1.11,26,0.050,0.050,0.050,0.000,0.000,0.000
1644926766461138944,2022-02-15-12:06:06,10.1.1.11,35,0.060,0.060,0.060,0.000,0.000,0.000
1644926766501522176,2022-02-15-12:06:06,10.1.1.11,24,0.070,0.070,0.070,0.000,0.000,0.000
1644926766561136128,2022-02-15-12:06:06,10.1.1.11,32,0.080,0.080,0.080,0.000,0.000,0.000
1644926766601038080,2022-02-15-12:06:06,10.1.1.11,21,0.090,0.090,0.090,0.000,0.000,0.000
1644926766661576960,2022-02-15-12:06:06,10.1.1.11,28,0.100,0.100,0.100,0.000,0.000,0.000
1644926766721088768,2022-02-15-12:06:06,10.1.1.11,37,0.090,0.090,0.090,0.000,0.000,0.000
1644926766761431808,2022-02-15-12:06:06,10.1.1.11,27,0.080,0.080,0.080,0.000,0.000,0.000
1644926766821464064,2022-02-15-12:06:06,10.1.1.11,36,0.070,0.070,0.070,0.000,0.000,0.000
1644926766860595968,2022-02-15-12:06:06,10.1.1.11,25,0.060,0.060,0.060,0.000,0.000,0.000
1644926766921452032,2022-02-15-12:06:06,10.1.1.11,34,0.050,0.050,0.050,0.000,0.000,0.000
1644926766961029888,2022-02-15-12:06:06,10.1.1.11,23,0.040,0.040,0.040,0.000,0.000,0.000
1644926767021594112,2022-02-15-12:06:07,10.1.1.11,32,0.030,0.030,0.030,0.000,0.000,0.000
1644926767061347840,2022-02-15-12:06:07,10.1.1.11,22,0.020,0.020,0.020,0.000,0.000,0.000
1644926767121028864,2022-02-15-12:06:07,10.1.1.11,30,0.010,0.010,0.010,0.000,0.000,0.000
1644926767160794112,2022-02-15-12:06:07,10.1.1.11,19,0.001,0.001,0.001,0.000,0.000,0.000
1644926767220673024,2022-02-15-12:06:07,10.1.1.11,28,-0.010,-0.010,-0.010,0.000,0.000,0.000
1644926767283629056,2022-02-15-12:06:07,10.1.1.11,35,-0.020,-0.020,-0.020,0.000,0.000,0.000
1644926767344014848,2022-02-15-12:06:07,10.1.1.11,37,-0.030,-0.030,-0.030,0.000,0.000,0.000
1644926767381452032,2022-02-15-12:06:07,10.1.1.11,25,-0.040,-0.040,-0.040,0.000,0.000,0.000
1644926767441865984,2022-02-15-12:06:07,10.1.1.11,33,-0.050,-0.050,-0.050,0.000,0.000,0.000
1644926767481090048,2022-02-15-12:06:07,10.1.1.11,23,-0.060,-0.060,-0.060,0.000,0.000,0.000
1644926767541353984,2022-02-15-12:06:07,10.1.1.11,32,-0.070,-0.070,-0.070,0.000,0.000,0.000
1644926767580743168,2022-02-15-12:06:07,10.1.1.11,21,-0.080,-0.080,-0.080,0.000,0.000,0.000
1644926767640794112,2022-02-15-12:06:07,10.1.1.11,29,-0.090,-0.090,-0.090,0.000,0.000,0.000
1644926767701189888,2022-02-15-12:06:07,10.1.1.11,38,-0.100,-0.100,-0.100,0.000,0.000,0.000
1644926767741140992,2022-02-15-12:06:07,10.1.1.11,27,-0.090,-0.090,-0.090,0.000,0.000,0.000
1644926767800952832,2022-02-15-12:06:07,10.1.1.11,36,-0.080,-0.080,-0.080,0.000,0.000,0.000
1644926767841761024,2022-02-15-12:06:07,10.1.1.11,25,-0.070,-0.070,-0.070,0.000,0.000,0.000
1644926767901228800,2022-02-15-12:06:07,10.1.1.11,34,-0.060,-0.060,-0.060,0.000,0.000,0.000
1644926767941484032,2022-02-15-12:06:07,10.1.1.11,23,-0.050,-0.050,-0.050,0.000,0.000,0.000
1644926768001772032,2022-02-15-12:06:08,10.1.1.11,32,-0.040,-0.040,-0.040,0.000,0.000,0.000
1644926768040958976,2022-02-15-12:06:08,10.1.1.11,21,-0.030,-0.030,-0.030,0.000,0.000,0.000
1644926768101216000,2022-02-15-12:06:08,10.1.1.11,31,-0.020,-0.020,-0.020,0.000,0.000,0.000
1644926768140829184,2022-02-15-12:06:08,10.1.1.11,20,-0.010,-0.010,-0.010,0.000,0.000,0.000
1644926768200932096,2022-02-15-12:06:08,10.1.1.11,29,0.000,0.000,0.000,0.000,0.000,0.000
1644926768240909056,2022-02-15-12:06:08,10.1.1.11,18,0.009,0.009,0.009,0.000,0.000,0.000
1644926768301228032,2022-02-15-12:06:08,10.1.1.11,28,0.020,0.020,0.020,0.000,0.000,0.000
1644926768362543104,2022-02-15-12:06:08,10.1.1.11,37,0.030,0.030,0.030,0.000,0.000,0.000
1644926768400923904,2022-02-15-12:06:08,10.1.1.11,26,0.040,0.040,0.040,0.000,0.000,0.000
1644926768461024000,2022-02-15-12:06:08,10.1.1.11,35,0.050,0.050,0.050,0.000,0.000,0.000
1644926768501097984,2022-02-15-12:06:08,10.1.1.11,25,0.060,0.060,0.060,0.000,0.000,0.000
1644926768561095936,2022-02-15-12:06:08,10.1.1.11,34,0.070,0.070,0.070,0.000,0.000,0.000
1644926768601342976,2022-02-15-12:06:08,10.1.1.11,21,0.080,0.080,0.080,0.000,0.000,0.000
1644926768660666112,2022-02-15-12:06:08,10.1.1.11,30,0.090,0.090,0.090,0.000,0.000,0.000
1644926768701140992,2022-02-15-12:06:08,10.1.1.11,20,0.100,0.100,0.100,0.000,0.000,0.000
1644926768760828928,2022-02-15-12:06:08,10.1.1.11,29,0.090,0.090,0.090,0.000,0.000,0.000
1644926768821646080,2022-02-15-12:06:08,10.1.1.11,38,0.080,0.080,0.080,0.000,0.000,0.000
1644926768862813952,2022-02-15-12:06:08,10.1.1.11,29,0.070,0.070,0.070,0.000,0.000,0.000
1644926768921457920,2022-02-15-12:06:08,10.1.1.11,37,0.060,0.060,0.060,0.000,0.000,0.000
1644926768961252096,2022-02-15-12:06:08,10.1.1.11,27,0.050,0.050,0.050,0.000,0.000,0.000
1644926769021634048,2022-02-15-12:06:09,10.1.1.11,36,0.040,0.040,0.040,0.000,0.000,0.000
1644926769061163776,2022-02-15-12:06:09,10.1.1.11,26,0.030,0.030,0.030,0.000,0.000,0.000
1644926769120687104,2022-02-15-12:06:09,10.1.1.11,35,0.020,0.020,0.020,0.000,0.000,0.000
1644926769160859136,2022-02-15-12:06:09,10.1.1.11,25,0.010,0.010,0.010,0.000,0.000,0.000
1644926769221276928,2022-02-15-12:06:09,10.1.1.11,33,0.000,0.000,0.000,0.000,0.000,0.000
1644926769261166080,2022-02-15-12:06:09,10.1.1.11,23,-0.010,-0.010,-0.010,0.000,0.000,0.000
1644926769321250816,2022-02-15-12:06:09,10.1.1.11,32,-0.020,-0.020,-0.020,0.000,0.000,0.000
1644926769360982784,2022-02-15-12:06:09,10.1.1.11,22,-0.030,-0.030,-0.030,0.000,0.000,0.000
1644926769421332992,2022-02-15-12:06:09,10.1.1.11,30,-0.040,-0.040,-0.040,0.000,0.000,0.000
1644926769460840960,2022-02-15-12:06:09,10.1.1.11,20,-0.050,-0.050,-0.050,0.000,0.000,0.000
1644926769520633088,2022-02-15-12:06:09,10.1.1.11,29,-0.060,-0.060,-0.060,0.000,0.000,0.000
1644926769560961024,2022-02-15-12:06:09,10.1.1.11,19,-0.070,-0.070,-0.070,0.000,0.000,0.000
1644926769620822784,2022-02-15-12:06:09,10.1.1.11,29,-0.080,-0.080,-0.080,0.000,0.000,0.000
1644926769681170944,2022-02-15-12:06:09,10.1.1.11,38,-0.090,-0.090,-0.090,0.000,0.000,0.000
1644926769720960000,2022-02-15-12:06:09,10.1.1.11,28,-0.100,-0.100,-0.100,0.000,0.000,0.000
1644926769780824064,2022-02-15-12:06:09,10.1.1.11,37,-0.090,-0.090,-0.090,0.000,0.000,0.000
1644926769821082112,2022-02-15-12:06:09,10.1.1.11,27,-0.080,-0.080,-0.080,0.000,0.000,0.000
1644926769880830976,2022-02-15-12:06:09,10.1.1.11,36,-0.070,-0.070,-0.070,0.000,0.000,0.000
1644926769920738816,2022-02-15-12:06:09,10.1.1.11,26,-0.060,-0.060,-0.060,0.000,0.000,0.000
1644926769981273856,2022-02-15-12:06:09,10.1.1.11,35,-0.050,-0.050,-0.050,0.000,0.000,0.000
1644926770020931072,2022-02-15-12:06:10,10.1.1.11,25,-0.040,-0.040,-0.040,0.000,0.000,0.000
1644926770081510144,2022-02-15-12:06:10,10.1.1.11,35,-0.030,-0.030,-0.030,0.000,0.000,0.000
1644926770121063936,2022-02-15-12:06:10,10.1.1.11,24,-0.020,-0.020,-0.020,0.000,0.000,0.000
1644926770180888832,2022-02-15-12:06:10,10.1.1.11,33,-0.010,-0.010,-0.010,0.000,0.000,0.000
1644926770220774912,2022-02-15-12:06:10,10.1.1.11,22,0.000,0.000,0.000,0.000,0.000,0.000
1644926770281220864,2022-02-15-12:06:10,10.1.1.11,32,0.010,0.010,0.010,0.000,0.000,0.000
1644926770324916992,2022-02-15-12:06:10,10.1.1.11,21,0.020,0.020,0.020,0.000,0.000,0.000
1644926770381609984,2022-02-15-12:06:10,10.1.1.11,30,0.030,0.030,0.030,0.000,0.000,0.000
1644926770421919232,2022-02-15-12:06:10,10.1.1.11,19,0.040,0.040,0.040,0.000,0.000,0.000
1644926770481415936,2022-02-15-12:06:10,10.1.1.11,29,0.050,0.050,0.050,0.000,0.000,0.000
1644926770541897984,2022-02-15-12:06:10,10.1.1.11,39,0.060,0.060,0.060,0.000,0.000,0.000
1644926770582024960,2022-02-15-12:06:10,10.1.1.11,28,0.070,0.070,0.070,0.000,0.000,0.000
1644926770640923136,2022-02-15-12:06:10,10.1.1.11,37,0.080,0.080,0.080,0.000,0.000,0.000
1644926770680955904,2022-02-15-12:06:10,10.1.1.11,27,0.090,0.090,0.090,0.000,0.000,0.000
1644926770741139968,2022-02-15-12:06:10,10.1.1.11,37,0.100,0.100,0.100,0.000,0.000,0.000
1644926770780989952,2022-02-15-12:06:10,10.1.1.11,26,0.090,0.090,0.090,0.000,0.000,0.000
1644926770840930816,2022-02-15-12:06:10,10.1.1.11,36,0.080,0.080,0.080,0.000,0.000,0.000
1644926770880876032,2022-02-15-12:06:10,10.1.1.11,25,0.070,0.070,0.070,0.000,0.000,0.000
1644926770941603840,2022-02-15-12:06:10,10.1.1.11,35,0.060,0.060,0.060,0.000,0.000,0.000
1644926770981032960,2022-02-15-12:06:10,10.1.1.11,25,0.050,0.050,0.050,0.000,0.000,0.000
1644926771041376000,2022-02-15-12:06:11,10.1.1.11,34,0.040,0.040,0.040,0.000,0.000,0.000
1644926771081356032,2022-02-15-12:06:11,10.1.1.11,24,0.030,0.030,0.030,0.000,0.000,0.000
1644926771140806912,2022-02-15-12:06:11,10.1.1.11,33,0.020,0.020,0.020,0.000,0.000,0.000
1644926771181523968,2022-02-15-12:06:11,10.1.1.11,22,0.010,0.010,0.010,0.000,0.000,0.000
1644926771240722944,2022-02-15-12:06:11,10.1.1.11,32,0.000,0.000,0.000,0.000,0.000,0.000
1644926771280777984,2022-02-15-12:06:11,10.1.1.11,21,-0.010,-0.010,-0.010,0.000,0.000,0.000
1644926771341104128,2022-02-15-12:06:11,10.1.1.11,31,-0.020,-0.020,-0.020,0.000,0.000,0.000
1644926771380836864,2022-02-15-12:06:11,10.1.1.11,20,-0.030,-0.030,-0.030,0.000,0.000,0.000
1644926771440728832,2022-02-15-12:06:11,10.1.1.11,29,-0.040,-0.040,-0.040,0.000,0.000,0.000
1644926771481543168,2022-02-15-12:06:11,10.1.1.11,19,-0.050,-0.050,-0.050,0.000,0.000,0.000
1644926771541042944,2022-02-15-12:06:11,10.1.1.11,28,-0.060,-0.060,-0.060,0.000,0.000,0.000
1644926771601351936,2022-02-15-12:06:11,10.1.1.11,38,-0.070,-0.070,-0.070,0.000,0.000,0.000
1644926771640937984,2022-02-15-12:06:11,10.1.1.11,27,-0.080,-0.080,-0.080,0.000,0.000,0.000
1644926771701446912,2022-02-15-12:06:11,10.1.1.11,37,-0.090,-0.090,-0.090,0.000,0.000,0.000
1644926771741404928,2022-02-15-12:06:11,10.1.1.11,27,-0.100,-0.100,-0.100,0.000,0.000,0.000
1644926771800844800,2022-02-15-12:06:11,10.1.1.11,36,-0.090,-0.090,-0.090,0.000,0.000,0.000
1644926771843499776,2022-02-15-12:06:11,10.1.1.11,25,-0.080,-0.080,-0.080,0.000,0.000,0.000
1644926771907053824,2022-02-15-12:06:11,10.1.1.11,30,-0.070,-0.070,-0.070,0.000,0.000,0.000
1644926771941961984,2022-02-15-12:06:11,10.1.1.11,19,-0.061,-0.061,-0.061,0.000,0.000,0.000
1644926772000866816,2022-02-15-12:06:12,10.1.1.11,28,-0.050,-0.050,-0.050,0.000,0.000,0.000
1644926772061548032,2022-02-15-12:06:12,10.1.1.11,38,-0.040,-0.040,-0.040,0.000,0.000,0.000
1644926772101569792,2022-02-15-12:06:12,10.1.1.11,27,-0.030,-0.030,-0.030,0.000,0.000,0.000
1644926772161561856,2022-02-15-12:06:12,10.1.1.11,36,-0.020,-0.020,-0.020,0.000,0.000,0.000
1644926772201169920,2022-02-15-12:06:12,10.1.1.11,26,-0.010,-0.010,-0.010,0.000,0.000,0.000
1644926772261060864,2022-02-15-12:06:12,10.1.1.11,35,0.000,0.000,0.000,0.000,0.000,0.000
1644926772300697088,2022-02-15-12:06:12,10.1.1.11,25,0.010,0.010,0.010,0.000,0.000,0.000
1644926772360878848,2022-02-15-12:06:12,10.1.1.11,34,0.020,0.020,0.020,0.000,0.000,0.000
1644926772400974080,2022-02-15-12:06:12,10.1.1.11,24,0.030,0.030,0.030,0.000,0.000,0.000
1644926772460928000,2022-02-15-12:06:12,10.1.1.11,33,0.040,0.040,0.040,0.000,0.000,0.000
1644926772500914944,2022-02-15-12:06:12,10.1.1.11,23,0.050,0.050,0.050,0.000,0.000,0.000
1644926772561369856,2022-02-15-12:06:12,10.1.1.11,32,0.060,0.060,0.060,0.000,0.000,0.000
1644926772601089024,2022-02-15-12:06:12,10.1.1.11,22,0.070,0.070,0.070,0.000,0.000,0.000
1644926772660957952,2022-02-15-12:06:12,10.1.1.11,31,0.080,0.080,0.080,0.000,0.000,0.000
1644926772700577024,2022-02-15-12:06:12,10.1.1.11,20,0.090,0.090,0.090,0.000,0.000,0.000
1644926772760786176,2022-02-15-12:06:12,10.1.1.11,30,0.100,0.100,0.100,0.000,0.000,0.000
1644926772801057024,2022-02-15-12:06:12,10.1.1.11,19,0.090,0.090,0.090,0.000,0.000,0.000
1644926772860833792,2022-02-15-12:06:12,10.1.1.11,29,0.080,0.080,0.080,0.000,0.000,0.000
1644926772921001984,2022-02-15-12:06:12,10.1.1.11,38,0.070,0.070,0.070,0.000,0.000,0.000
1644926772960711936,2022-02-15-12:06:12,10.1.1.11,28,0.060,0.060,0.060,0.000,0.000,0.000
1644926773021765888,2022-02-15-12:06:13,10.1.1.11,38,0.050,0.050,0.050,0.000,0.000,0.000
1644926773061025024,2022-02-15-12:06:13,10.1.1.11,27,0.040,0.040,0.040,0.000,0.000,0.000
1644926773120634112,2022-02-15-12:06:13,10.1.1.11,37,0.030,0.030,0.030,0.000,0.000,0.000
1644926773160697088,2022-02-15-12:06:13,10.1.1.11,26,0.020,0.020,0.020,0.000,0.000,0.000
1644926773220840960,2022-02-15-12:06:13,10.1.1.11,36,0.010,0.010,0.010,0.000,0.000,0.000
1644926773261914112,2022-02-15-12:06:13,10.1.1.11,26,0.000,0.000,0.000,0.000,0.000,0.000
1644926773321161984,2022-02-15-12:06:13,10.1.1.11,35,-0.010,-0.010,-0.010,0.000,0.000,0.000
1644926773360729856,2022-02-15-12:06:13,10.1.1.11,25,-0.020,-0.020,-0.020,0.000,0.000,0.000
1644926773421148928,2022-02-15-12:06:13,10.1.1.11,34,-0.030,-0.030,-0.030,0.000,0.000,0.000
1644926773461203968,2022-02-15-12:06:13,10.1.1.11,24,-0.040,-0.040,-0.040,0.000,0.000,0.000
1644926773520801024,2022-02-15-12:06:13,10.1.1.11,33,-0.050,-0.050,-0.050,0.000,0.000,0.000
1644926773561057024,2022-02-15-12:06:13,10.1.1.11,22,-0.060,-0.060,-0.060,0.000,0.000,0.000
1644926773621423104,2022-02-15-12:06:13,10.1.1.11,32,-0.070,-0.070,-0.070,0.000,0.000,0.000
1644926773660548864,2022-02-15-12:06:13,10.1.1.11,21,-0.080,-0.080,-0.080,0.000,0.000,0.000
1644926773720545024,2022-02-15-12:06:13,10.1.1.11,30,-0.090,-0.090,-0.090,0.000,0.000,0.000
1644926773760968960,2022-02-15-12:06:13,10.1.1.11,20,-0.100,-0.100,-0.100,0.000,0.000,0.000
1644926773821476096,2022-02-15-12:06:13,10.1.1.11,29,-0.090,-0.090,-0.090,0.000,0.000,0.000
1644926773860784896,2022-02-15-12:06:13,10.1.1.11,19,-0.081,-0.081,-0.081,0.000,0.000,0.000
1644926773921001984,2022-02-15-12:06:13,10.1.1.11,28,-0.070,-0.070,-0.070,0.000,0.000,0.000
1644926773981384960,2022-02-15-12:06:13,10.1.1.11,38,-0.060,-0.060,-0.060,0.000,0.000,0.000
1644926774021143808,2022-02-15-12:06:14,10.1.1.11,27,-0.050,-0.050,-0.050,0.000,0.000,0.000
1644926774080940032,2022-02-15-12:06:14,10.1.1.11,37,-0.040,-0.040,-0.040,0.000,0.000,0.000
1644926774121182976,2022-02-15-12:06:14,10.1.1.11,26,-0.030,-0.030,-0.030,0.000,0.000,0.000
1644926774180676096,2022-02-15-12:06:14,10.1.1.11,35,-0.020,-0.020,-0.020,0.000,0.000,0.000
1644926774221053952,2022-02-15-12:06:14,10.1.1.11,25,-0.010,-0.010,-0.010,0.000,0.000,0.000
1644926774281238016,2022-02-15-12:06:14,10.1.1.11,34,0.000,0.000,0.000,0.000,0.000,0.000
1644926774321582080,2022-02-15-12:06:14,10.1.1.11,24,0.010,0.010,0.010,0.000,0.000,0.000
1644926774380954880,2022-02-15-12:06:14,10.1.1.11,33,0.020,0.020,0.020,0.000,0.000,0.000
1644926774421027072,2022-02-15-12:06:14,10.1.1.11,23,0.030,0.030,0.030,0.000,0.000,0.000
1644926774481654016,2022-02-15-12:06:14,10.1.1.11,32,0.040,0.040,0.040,0.000,0.000,0.000
1644926774520931072,2022-02-15-12:06:14,10.1.1.11,22,0.050,0.050,0.050,0.000,0.000,0.000
1644926774581306880,2022-02-15-12:06:14,10.1.1.11,31,0.060,0.060,0.060,0.000,0.000,0.000
1644926774621092096,2022-02-15-12:06:14,10.1.1.11,21,0.070,0.070,0.070,0.000,0.000,0.000
1644926774681024000,2022-02-15-12:06:14,10.1.1.11,30,0.080,0.080,0.080,0.000,0.000,0.000
1644926774721057024,2022-02-15-12:06:14,10.1.1.11,20,0.090,0.090,0.090,0.000,0.000,0.000
1644926774781084928,2022-02-15-12:06:14,10.1.1.11,29,0.100,0.100,0.100,0.000,0.000,0.000
1644926774840798976,2022-02-15-12:06:14,10.1.1.11,38,0.090,0.090,0.090,0.000,0.000,0.000
1644926774881125888,2022-02-15-12:06:14,10.1.1.11,28,0.080,0.080,0.080,0.000,0.000,0.000
1644926774941569024,2022-02-15-12:06:14,10.1.1.11,37,0.070,0.070,0.070,0.000,0.000,0.000
1644926774981213184,2022-02-15-12:06:14,10.1.1.11,27,0.060,0.060,0.060,0.000,0.000,0.000
1644926775041110016,2022-02-15-12:06:15,10.1.1.11,36,0.050,0.050,0.050,0.000,0.000,0.000
1644926775081410048,2022-02-15-12:06:15,10.1.1.11,25,0.040,0.040,0.040,0.000,0.000,0.000
1644926775141344000,2022-02-15-12:06:15,10.1.1.11,34,0.030,0.030,0.030,0.000,0.000,0.000
1644926775180788992,2022-02-15-12:06:15,10.1.1.11,24,0.020,0.020,0.020,0.000,0.000,0.000
1644926775240835072,2022-02-15-12:06:15,10.1.1.11,34,0.010,0.010,0.010,0.000,0.000,0.000
1644926775281011200,2022-02-15-12:06:15,10.1.1.11,23,0.000,0.000,0.000,0.000,0.000,0.000
1644926775341321984,2022-02-15-12:06:15,10.1.1.11,33,-0.010,-0.010,-0.010,0.000,0.000,0.000
1644926775380685056,2022-02-15-12:06:15,10.1.1.11,22,-0.020,-0.020,-0.020,0.000,0.000,0.000
1644926775445377024,2022-02-15-12:06:15,10.1.1.11,34,-0.030,-0.030,-0.030,0.000,0.000,0.000
1644926775482714880,2022-02-15-12:06:15,10.1.1.11,22,-0.040,-0.040,-0.040,0.000,0.000,0.000
1644926775541871104,2022-02-15-12:06:15,10.1.1.11,31,-0.050,-0.050,-0.050,0.000,0.000,0.000
1644926775581870080,2022-02-15-12:06:15,10.1.1.11,21,-0.060,-0.060,-0.060,0.000,0.000,0.000
1644926775641128960,2022-02-15-12:06:15,10.1.1.11,30,-0.070,-0.070,-0.070,0.000,0.000,0.000
1644926775700858112,2022-02-15-12:06:15,10.1.1.11,39,-0.080,-0.080,-0.080,0.000,0.000,0.000
1644926775742123008,2022-02-15-12:06:15,10.1.1.11,28,-0.090,-0.090,-0.090,0.000,0.000,0.000
1644926775801573120,2022-02-15-12:06:15,10.1.1.11,37,-0.100,-0.100,-0.100,0.000,0.000,0.000
1644926775841175040,2022-02-15-12:06:15,10.1.1.11,26,-0.090,-0.090,-0.090,0.000,0.000,0.000
1644926775901457152,2022-02-15-12:06:15,10.1.1.11,36,-0.080,-0.080,-0.080,0.000,0.000,0.000
1644926775940668160,2022-02-15-12:06:15,10.1.1.11,25,-0.070,-0.070,-0.070,0.000,0.000,0.000
1644926776000689920,2022-02-15-12:06:16,10.1.1.11,35,-0.060,-0.060,-0.060,0.000,0.000,0.000
1644926776041448192,2022-02-15-12:06:16,10.1.1.11,24,-0.050,-0.050,-0.050,0.000,0.000,0.000
1644926776101182976,2022-02-15-12:06:16,10.1.1.11,34,-0.040,-0.040,-0.040,0.000,0.000,0.000
1644926776141158144,2022-02-15-12:06:16,10.1.1.11,23,-0.030,-0.030,-0.030,0.000,0.000,0.000
1644926776200812032,2022-02-15-12:06:16,10.1.1.11,33,-0.020,-0.020,-0.020,0.000,0.000,0.000
1644926776241022208,2022-02-15-12:06:16,10.1.1.11,22,-0.010,-0.010,-0.010,0.000,0.000,0.000
1644926776301264896,2022-02-15-12:06:16,10.1.1.11,32,0.000,0.000,0.000,0.000,0.000,0.000
1644926776342310912,2022-02-15-12:06:16,10.1.1.11,22,0.010,0.010,0.010,0.000,0.000,0.000
1644926776401534976,2022-02-15-12:06:16,10.1.1.11,30,0.020,0.020,0.020,0.000,0.000,0.000
1644926776440921088,2022-02-15-12:06:16,10.1.1.11,20,0.030,0.030,0.030,0.000,0.000,0.000
1644926776501366016,2022-02-15-12:06:16,10.1.1.11,29,0.040,0.040,0.040,0.000,0.000,0.000
1644926776541886976,2022-02-15-12:06:16,10.1.1.11,19,0.050,0.050,0.050,0.000,0.000,0.000
1644926776601417984,2022-02-15-12:06:16,10.1.1.11,28,0.060,0.060,0.060,0.000,0.000,0.000
1644926776661315072,2022-02-15-12:06:16,10.1.1.11,38,0.070,0.070,0.070,0.000,0.000,0.000
1644926776700964864,2022-02-15-12:06:16,10.1.1.11,28,0.080,0.080,0.080,0.000,0.000,0.000
1644926776761635072,2022-02-15-12:06:16,10.1.1.11,35,0.090,0.090,0.090,0.000,0.000,0.000
1644926776801445888,2022-02-15-12:06:16,10.1.1.11,24,0.100,0.100,0.100,0.000,0.000,0.000
1644926776861282048,2022-02-15-12:06:16,10.1.1.11,34,0.090,0.090,0.090,0.000,0.000,0.000
1644926776901992192,2022-02-15-12:06:16,10.1.1.11,24,0.080,0.080,0.080,0.000,0.000,0.000
1644926776961352960,2022-02-15-12:06:16,10.1.1.11,33,0.070,0.070,0.070,0.000,0.000,0.000
1644926777000818944,2022-02-15-12:06:17,10.1.1.11,23,0.060,0.060,0.060,0.000,0.000,0.000
1644926777061155072,2022-02-15-12:06:17,10.1.1.11,33,0.050,0.050,0.050,0.000,0.000,0.000
1644926777101274880,2022-02-15-12:06:17,10.1.1.11,22,0.040,0.040,0.040,0.000,0.000,0.000
1644926777221560064,2022-02-15-12:06:17,10.1.1.11,38,0.020,0.020,0.020,0.000,0.000,0.000
1644926777260680960,2022-02-15-12:06:17,10.1.1.11,27,0.010,0.010,0.010,0.000,0.000,0.000
1644926777321184000,2022-02-15-12:06:17,10.1.1.11,37,0.000,0.000,0.000,0.000,0.000,0.000
1644926777361342976,2022-02-15-12:06:17,10.1.1.11,26,-0.010,-0.010,-0.010,0.000,0.000,0.000
1644926777421046016,2022-02-15-12:06:17,10.1.1.11,36,-0.020,-0.020,-0.020,0.000,0.000,0.000
1644926777461472000,2022-02-15-12:06:17,10.1.1.11,25,-0.030,-0.030,-0.030,0.000,0.000,0.000
1644926777520992000,2022-02-15-12:06:17,10.1.1.11,35,-0.040,-0.040,-0.040,0.000,0.000,0.000
1644926777560955904,2022-02-15-12:06:17,10.1.1.11,24,-0.050,-0.050,-0.050,0.000,0.000,0.000
1644926777621602048,2022-02-15-12:06:17,10.1.1.11,34,-0.060,-0.060,-0.060,0.000,0.000,0.000
1644926777661912064,2022-02-15-12:06:17,10.1.1.11,24,-0.070,-0.070,-0.070,0.000,0.000,0.000
1644926777722759936,2022-02-15-12:06:17,10.1.1.11,33,-0.080,-0.080,-0.080,0.000,0.000,0.000
1644926777761532160,2022-02-15-12:06:17,10.1.1.11,22,-0.090,-0.090,-0.090,0.000,0.000,0.000
1644926777821044992,2022-02-15-12:06:17,10.1.1.11,32,-0.100,-0.100,-0.100,0.000,0.000,0.000
1644926777860977920,2022-02-15-12:06:17,10.1.1.11,22,-0.090,-0.090,-0.090,0.000,0.000,0.000
1644926777920865024,2022-02-15-12:06:17,10.1.1.11,31,-0.080,-0.080,-0.080,0.000,0.000,0.000
1644926777961160960,2022-02-15-12:06:17,10.1.1.11,21,-0.070,-0.070,-0.070,0.000,0.000,0.000
1644926778022851072,2022-02-15-12:06:18,10.1.1.11,30,-0.060,-0.060,-0.060,0.000,0.000,0.000
1644926778061641984,2022-02-15-12:06:18,10.1.1.11,20,-0.050,-0.050,-0.050,0.000,0.000,0.000
1644926778120805120,2022-02-15-12:06:18,10.1.1.11,29,-0.040,-0.040,-0.040,0.000,0.000,0.000
1644926778161462016,2022-02-15-12:06:18,10.1.1.11,19,-0.030,-0.030,-0.030,0.000,0.000,0.000
1644926778222189056,2022-02-15-12:06:18,10.1.1.11,28,-0.020,-0.020,-0.020,0.000,0.000,0.000
1644926778281532160,2022-02-15-12:06:18,10.1.1.11,38,-0.010,-0.010,-0.010,0.000,0.000,0.000
1644926778321195008,2022-02-15-12:06:18,10.1.1.11,27,0.000,0.000,0.000,0.000,0.000,0.000
1644926778381197056,2022-02-15-12:06:18,10.1.1.11,36,0.010,0.010,0.010,0.000,0.000,0.000
1644926778422244096,2022-02-15-12:06:18,10.1.1.11,26,0.020,0.020,0.020,0.000,0.000,0.000
1644926778481184000,2022-02-15-12:06:18,10.1.1.11,35,0.030,0.030,0.030,0.000,0.000,0.000
1644926778521136896,2022-02-15-12:06:18,10.1.1.11,25,0.040,0.040,0.040,0.000,0.000,0.000
1644926778581008896,2022-02-15-12:06:18,10.1.1.11,34,0.050,0.050,0.050,0.000,0.000,0.000
1644926778622345984,2022-02-15-12:06:18,10.1.1.11,24,0.060,0.060,0.060,0.000,0.000,0.000
1644926778681124864,2022-02-15-12:06:18,10.1.1.11,34,0.070,0.070,0.070,0.000,0.000,0.000
1644926778722238976,2022-02-15-12:06:18,10.1.1.11,23,0.080,0.080,0.080,0.000,0.000,0.000
1644926778781156096,2022-02-15-12:06:18,10.1.1.11,33,0.090,0.090,0.090,0.000,0.000,0.000
1644926778821985024,2022-02-15-12:06:18,10.1.1.11,23,0.100,0.100,0.100,0.000,0.000,0.000
1644926778881232896,2022-02-15-12:06:18,10.1.1.11,32,0.090,0.090,0.090,0.000,0.000,0.000
1644926778921185024,2022-02-15-12:06:18,10.1.1.11,21,0.080,0.080,0.080,0.000,0.000,0.000
1644926778981658880,2022-02-15-12:06:18,10.1.1.11,31,0.070,0.070,0.070,0.000,0.000,0.000
1644926779021245952,2022-02-15-12:06:19,10.1.1.11,20,0.060,0.060,0.060,0.000,0.000,0.000
1644926779081739776,2022-02-15-12:06:19,10.1.1.11,30,0.050,0.050,0.050,0.000,0.000,0.000
1644926779122330880,2022-02-15-12:06:19,10.1.1.11,19,0.040,0.040,0.040,0.000,0.000,0.000
1644926779181387008,2022-02-15-12:06:19,10.1.1.11,28,0.030,0.030,0.030,0.000,0.000,0.000
1644926779241252864,2022-02-15-12:06:19,10.1.1.11,38,0.020,0.020,0.020,0.000,0.000,0.000
1644926779281691904,2022-02-15-12:06:19,10.1.1.11,27,0.010,0.010,0.010,0.000,0.000,0.000
1644926779341268992,2022-02-15-12:06:19,10.1.1.11,37,0.000,0.000,0.000,0.000,0.000,0.000
1644926779381110016,2022-02-15-12:06:19,10.1.1.11,26,-0.010,-0.010,-0.010,0.000,0.000,0.000
1644926779441071872,2022-02-15-12:06:19,10.1.1.11,35,-0.020,-0.020,-0.020,0.000,0.000,0.000
1644926779480817920,2022-02-15-12:06:19,10.1.1.11,25,-0.030,-0.030,-0.030,0.000,0.000,0.000
1644926779541179904,2022-02-15-12:06:19,10.1.1.11,35,-0.040,-0.040,-0.040,0.000,0.000,0.000
1644926779581376000,2022-02-15-12:06:19,10.1.1.11,24,-0.050,-0.050,-0.050,0.000,0.000,0.000
1644926779641005056,2022-02-15-12:06:19,10.1.1.11,33,-0.060,-0.060,-0.060,0.000,0.000,0.000
1644926779681502208,2022-02-15-12:06:19,10.1.1.11,23,-0.070,-0.070,-0.070,0.000,0.000,0.000
1644926779741015040,2022-02-15-12:06:19,10.1.1.11,33,-0.080,-0.080,-0.080,0.000,0.000,0.000
1644926779781459968,2022-02-15-12:06:19,10.1.1.11,22,-0.090,-0.090,-0.090,0.000,0.000,0.000
1644926779841325056,2022-02-15-12:06:19,10.1.1.11,31,-0.100,-0.100,-0.100,0.000,0.000,0.000
1644926779881074944,2022-02-15-12:06:19,10.1.1.11,21,-0.090,-0.090,-0.090,0.000,0.000,0.000
1644926779941340928,2022-02-15-12:06:19,10.1.1.11,30,-0.080,-0.080,-0.080,0.000,0.000,0.000
1644926779981144832,2022-02-15-12:06:19,10.1.1.11,20,-0.070,-0.070,-0.070,0.000,0.000,0.000
1644926780041310976,2022-02-15-12:06:20,10.1.1.11,29,-0.060,-0.060,-0.060,0.000,0.000,0.000
1644926780105398016,2022-02-15-12:06:20,10.1.1.11,34,-0.050,-0.050,-0.050,0.000,0.000,0.000
1644926780141586176,2022-02-15-12:06:20,10.1.1.11,23,-0.040,-0.040,-0.040,0.000,0.000,0.000
1644926780201142016,2022-02-15-12:06:20,10.1.1.11,33,-0.030,-0.030,-0.030,0.000,0.000,0.000
1644926780240868096,2022-02-15-12:06:20,10.1.1.11,22,-0.020,-0.020,-0.020,0.000,0.000,0.000
1644926780301453056,2022-02-15-12:06:20,10.1.1.11,32,-0.010,-0.010,-0.010,0.000,0.000,0.000
1644926780341129984,2022-02-15-12:06:20,10.1.1.11,22,0.000,0.000,0.000,0.000,0.000,0.000
1644926780401160960,2022-02-15-12:06:20,10.1.1.11,31,0.010,0.010,0.010,0.000,0.000,0.000
1644926780446854144,2022-02-15-12:06:20,10.1.1.11,20,0.020,0.020,0.020,0.000,0.000,0.000
1644926780500936960,2022-02-15-12:06:20,10.1.1.11,28,0.030,0.030,0.030,0.000,0.000,0.000
1644926780560660992,2022-02-15-12:06:20,10.1.1.11,37,0.040,0.040,0.040,0.000,0.000,0.000
1644926780600904960,2022-02-15-12:06:20,10.1.1.11,26,0.050,0.050,0.050,0.000,0.000,0.000
1644926780661390080,2022-02-15-12:06:20,10.1.1.11,35,0.060,0.060,0.060,0.000,0.000,0.000
1644926780701175040,2022-02-15-12:06:20,10.1.1.11,25,0.070,0.070,0.070,0.000,0.000,0.000
1644926780760704000,2022-02-15-12:06:20,10.1.1.11,35,0.080,0.080,0.080,0.000,0.000,0.000
1644926780800827136,2022-02-15-12:06:20,10.1.1.11,24,0.090,0.090,0.090,0.000,0.000,0.000
1644926780861114112,2022-02-15-12:06:20,10.1.1.11,34,0.100,0.100,0.100,0.000,0.000,0.000
1644926780900992000,2022-02-15-12:06:20,10.1.1.11,23,0.090,0.090,0.090,0.000,0.000,0.000
1644926780960985856,2022-02-15-12:06:20,10.1.1.11,33,0.080,0.080,0.080,0.000,0.000,0.000
1644926781001352192,2022-02-15-12:06:21,10.1.1.11,22,0.070,0.070,0.070,0.000,0.000,0.000
1644926781061299968,2022-02-15-12:06:21,10.1.1.11,32,0.060,0.060,0.060,0.000,0.000,0.000
1644926781101252096,2022-02-15-12:06:21,10.1.1.11,20,0.050,0.050,0.050,0.000,0.000,0.000
1644926781161547008,2022-02-15-12:06:21,10.1.1.11,30,0.040,0.040,0.040,0.000,0.000,0.000
1644926781201009152,2022-02-15-12:06:21,10.1.1.11,20,0.030,0.030,0.030,0.000,0.000,0.000
1644926781260739072,2022-02-15-12:06:21,10.1.1.11,29,0.020,0.020,0.020,0.000,0.000,0.000
1644926781321458944,2022-02-15-12:06:21,10.1.1.11,39,0.010,0.010,0.010,0.000,0.000,0.000
1644926781366892032,2022-02-15-12:06:21,10.1.1.11,28,0.000,0.000,0.000,0.000,0.000,0.000
1644926781428281088,2022-02-15-12:06:21,10.1.1.11,35,-0.010,-0.010,-0.010,0.000,0.000,0.000
1644926781473556992,2022-02-15-12:06:21,10.1.1.11,25,-0.020,-0.020,-0.020,0.000,0.000,0.000
1644926781520912896,2022-02-15-12:06:21,10.1.1.11,34,-0.030,-0.030,-0.030,0.000,0.000,0.000
1644926781588551168,2022-02-15-12:06:21,10.1.1.11,37,-0.040,-0.040,-0.040,0.000,0.000,0.000
1644926781621072896,2022-02-15-12:06:21,10.1.1.11,26,-0.050,-0.050,-0.050,0.000,0.000,0.000
1644926781685112832,2022-02-15-12:06:21,10.1.1.11,35,-0.060,-0.060,-0.060,0.000,0.000,0.000
1644926781722192128,2022-02-15-12:06:21,10.1.1.11,24,-0.070,-0.070,-0.070,0.000,0.000,0.000
1644926781785059840,2022-02-15-12:06:21,10.1.1.11,33,-0.080,-0.080,-0.080,0.000,0.000,0.000
1644926781828475904,2022-02-15-12:06:21,10.1.1.11,22,-0.090,-0.090,-0.090,0.000,0.000,0.000
1644926781881562112,2022-02-15-12:06:21,10.1.1.11,31,-0.100,-0.100,-0.100,0.000,0.000,0.000
1644926781941831168,2022-02-15-12:06:21,10.1.1.11,27,-0.090,-0.090,-0.090,0.000,0.000,0.000
1644926782001029888,2022-02-15-12:06:22,10.1.1.11,37,-0.080,-0.080,-0.080,0.000,0.000,0.000
1644926782043731968,2022-02-15-12:06:22,10.1.1.11,25,-0.070,-0.070,-0.070,0.000,0.000,0.000
1644926782101356032,2022-02-15-12:06:22,10.1.1.11,35,-0.060,-0.060,-0.060,0.000,0.000,0.000
1644926782141579008,2022-02-15-12:06:22,10.1.1.11,24,-0.050,-0.050,-0.050,0.000,0.000,0.000
1644926782201186816,2022-02-15-12:06:22,10.1.1.11,33,-0.040,-0.040,-0.040,0.000,0.000,0.000
1644926782240904960,2022-02-15-12:06:22,10.1.1.11,23,-0.030,-0.030,-0.030,0.000,0.000,0.000
1644926782301326080,2022-02-15-12:06:22,10.1.1.11,33,-0.020,-0.020,-0.020,0.000,0.000,0.000
1644926782342649856,2022-02-15-12:06:22,10.1.1.11,22,-0.010,-0.010,-0.010,0.000,0.000,0.000
1644926782401384192,2022-02-15-12:06:22,10.1.1.11,32,0.000,0.000,0.000,0.000,0.000,0.000
1644926782440715008,2022-02-15-12:06:22,10.1.1.11,21,0.010,0.010,0.010,0.000,0.000,0.000
1644926782501030912,2022-02-15-12:06:22,10.1.1.11,30,0.020,0.020,0.020,0.000,0.000,0.000
1644926782541131008,2022-02-15-12:06:22,10.1.1.11,19,0.030,0.030,0.030,0.000,0.000,0.000
1644926782601807104,2022-02-15-12:06:22,10.1.1.11,28,0.040,0.040,0.040,0.000,0.000,0.000
1644926782661776896,2022-02-15-12:06:22,10.1.1.11,38,0.050,0.050,0.050,0.000,0.000,0.000
1644926782700972032,2022-02-15-12:06:22,10.1.1.11,27,0.060,0.060,0.060,0.000,0.000,0.000
1644926782762237952,2022-02-15-12:06:22,10.1.1.11,37,0.070,0.070,0.070,0.000,0.000,0.000
1644926782801239040,2022-02-15-12:06:22,10.1.1.11,26,0.080,0.080,0.080,0.000,0.000,0.000
1644926782862236928,2022-02-15-12:06:22,10.1.1.11,36,0.090,0.090,0.090,0.000,0.000,0.000
1644926782901745920,2022-02-15-12:06:22,10.1.1.11,25,0.100,0.100,0.100,0.000,0.000,0.000
1644926782961317120,2022-02-15-12:06:22,10.1.1.11,35,0.090,0.090,0.090,0.000,0.000,0.000
1644926783001338880,2022-02-15-12:06:23,10.1.1.11,24,0.080,0.080,0.080,0.000,0.000,0.000
1644926783061820928,2022-02-15-12:06:23,10.1.1.11,34,0.070,0.070,0.070,0.000,0.000,0.000
1644926783100871936,2022-02-15-12:06:23,10.1.1.11,23,0.060,0.060,0.060,0.000,0.000,0.000
1644926783160964864,2022-02-15-12:06:23,10.1.1.11,33,0.050,0.050,0.050,0.000,0.000,0.000
1644926783201102848,2022-02-15-12:06:23,10.1.1.11,23,0.040,0.040,0.040,0.000,0.000,0.000
1644926783261529088,2022-02-15-12:06:23,10.1.1.11,32,0.030,0.030,0.030,0.000,0.000,0.000
1644926783301309184,2022-02-15-12:06:23,10.1.1.11,22,0.020,0.020,0.020,0.000,0.000,0.000
1644926783360964096,2022-02-15-12:06:23,10.1.1.11,31,0.010,0.010,0.010,0.000,0.000,0.000
1644926783401300992,2022-02-15-12:06:23,10.1.1.11,21,0.000,0.000,0.000,0.000,0.000,0.000
1644926783461308928,2022-02-15-12:06:23,10.1.1.11,30,-0.010,-0.010,-0.010,0.000,0.000,0.000
1644926783503038976,2022-02-15-12:06:23,10.1.1.11,20,-0.020,-0.020,-0.020,0.000,0.000,0.000
1644926783561522944,2022-02-15-12:06:23,10.1.1.11,29,-0.030,-0.030,-0.030,0.000,0.000,0.000
1644926783601552896,2022-02-15-12:06:23,10.1.1.11,19,-0.039,-0.039,-0.039,0.000,0.000,0.000
1644926783661270016,2022-02-15-12:06:23,10.1.1.11,28,-0.050,-0.050,-0.050,0.000,0.000,0.000
1644926783721491968,2022-02-15-12:06:23,10.1.1.11,38,-0.060,-0.060,-0.060,0.000,0.000,0.000
1644926783761447936,2022-02-15-12:06:23,10.1.1.11,28,-0.070,-0.070,-0.070,0.000,0.000,0.000
1644926783822019072,2022-02-15-12:06:23,10.1.1.11,37,-0.080,-0.080,-0.080,0.000,0.000,0.000
1644926783861638912,2022-02-15-12:06:23,10.1.1.11,27,-0.090,-0.090,-0.090,0.000,0.000,0.000
1644926783920766208,2022-02-15-12:06:23,10.1.1.11,36,-0.100,-0.100,-0.100,0.000,0.000,0.000
1644926783961310976,2022-02-15-12:06:23,10.1.1.11,25,-0.090,-0.090,-0.090,0.000,0.000,0.000
1644926784020963072,2022-02-15-12:06:24,10.1.1.11,35,-0.080,-0.080,-0.080,0.000,0.000,0.000
1644926784061072128,2022-02-15-12:06:24,10.1.1.11,24,-0.070,-0.070,-0.070,0.000,0.000,0.000
1644926784121472000,2022-02-15-12:06:24,10.1.1.11,34,-0.060,-0.060,-0.060,0.000,0.000,0.000
1644926784161344000,2022-02-15-12:06:24,10.1.1.11,23,-0.050,-0.050,-0.050,0.000,0.000,0.000
1644926784223187968,2022-02-15-12:06:24,10.1.1.11,33,-0.040,-0.040,-0.040,0.000,0.000,0.000
1644926784261934080,2022-02-15-12:06:24,10.1.1.11,23,-0.030,-0.030,-0.030,0.000,0.000,0.000
1644926784321861888,2022-02-15-12:06:24,10.1.1.11,32,-0.020,-0.020,-0.020,0.000,0.000,0.000
1644926784361499904,2022-02-15-12:06:24,10.1.1.11,21,-0.010,-0.010,-0.010,0.000,0.000,0.000
1644926784421315840,2022-02-15-12:06:24,10.1.1.11,31,0.000,0.000,0.000,0.000,0.000,0.000
1644926784461289984,2022-02-15-12:06:24,10.1.1.11,21,0.010,0.010,0.010,0.000,0.000,0.000
1644926784520734976,2022-02-15-12:06:24,10.1.1.11,30,0.020,0.020,0.020,0.000,0.000,0.000
1644926784561379840,2022-02-15-12:06:24,10.1.1.11,20,0.030,0.030,0.030,0.000,0.000,0.000
1644926784622014976,2022-02-15-12:06:24,10.1.1.11,29,0.040,0.040,0.040,0.000,0.000,0.000
1644926784661078016,2022-02-15-12:06:24,10.1.1.11,19,0.049,0.049,0.049,0.000,0.000,0.000
1644926784722299136,2022-02-15-12:06:24,10.1.1.11,28,0.060,0.060,0.060,0.000,0.000,0.000
1644926784780990976,2022-02-15-12:06:24,10.1.1.11,38,0.070,0.070,0.070,0.000,0.000,0.000
1644926784822753024,2022-02-15-12:06:24,10.1.1.11,28,0.080,0.080,0.080,0.000,0.000,0.000
1644926784880781056,2022-02-15-12:06:24,10.1.1.11,37,0.090,0.090,0.090,0.000,0.000,0.000
1644926784921327104,2022-02-15-12:06:24,10.1.1.11,26,0.100,0.100,0.100,0.000,0.000,0.000
1644926784981140992,2022-02-15-12:06:24,10.1.1.11,36,0.090,0.090,0.090,0.000,0.000,0.000
1644926785022247168,2022-02-15-12:06:25,10.1.1.11,26,0.080,0.080,0.080,0.000,0.000,0.000
1644926785080852992,2022-02-15-12:06:25,10.1.1.11,35,0.070,0.070,0.070,0.000,0.000,0.000
1644926785121853952,2022-02-15-12:06:25,10.1.1.11,24,0.060,0.060,0.060,0.000,0.000,0.000
1644926785181280000,2022-02-15-12:06:25,10.1.1.11,33,0.050,0.050,0.050,0.000,0.000,0.000
1644926785221499904,2022-02-15-12:06:25,10.1.1.11,23,0.040,0.040,0.040,0.000,0.000,0.000
1644926785281513984,2022-02-15-12:06:25,10.1.1.11,32,0.030,0.030,0.030,0.000,0.000,0.000
1644926785321746176,2022-02-15-12:06:25,10.1.1.11,22,0.020,0.020,0.020,0.000,0.000,0.000
1644926785381923840,2022-02-15-12:06:25,10.1.1.11,31,0.010,0.010,0.010,0.000,0.000,0.000
1644926785421170944,2022-02-15-12:06:25,10.1.1.11,20,0.000,0.000,0.000,0.000,0.000,0.000
1644926785481839872,2022-02-15-12:06:25,10.1.1.11,29,-0.010,-0.010,-0.010,0.000,0.000,0.000
1644926785521264128,2022-02-15-12:06:25,10.1.1.11,19,-0.019,-0.019,-0.019,0.000,0.000,0.000
1644926785581509120,2022-02-15-12:06:25,10.1.1.11,28,-0.030,-0.030,-0.030,0.000,0.000,0.000
1644926785641284096,2022-02-15-12:06:25,10.1.1.11,38,-0.040,-0.040,-0.040,0.000,0.000,0.000
1644926785681550080,2022-02-15-12:06:25,10.1.1.11,27,-0.050,-0.050,-0.050,0.000,0.000,0.000
1644926785742033920,2022-02-15-12:06:25,10.1.1.11,37,-0.060,-0.060,-0.060,0.000,0.000,0.000
1644926785781773056,2022-02-15-12:06:25,10.1.1.11,26,-0.070,-0.070,-0.070,0.000,0.000,0.000
1644926785843305216,2022-02-15-12:06:25,10.1.1.11,35,-0.080,-0.080,-0.080,0.000,0.000,0.000
1644926785880966912,2022-02-15-12:06:25,10.1.1.11,25,-0.090,-0.090,-0.090,0.000,0.000,0.000
1644926785941725952,2022-02-15-12:06:25,10.1.1.11,33,-0.100,-0.100,-0.100,0.000,0.000,0.000
1644926785983484928,2022-02-15-12:06:25,10.1.1.11,22,-0.090,-0.090,-0.090,0.000,0.000,0.000
1644926786041138944,2022-02-15-12:06:26,10.1.1.11,32,-0.080,-0.080,-0.080,0.000,0.000,0.000
1644926786081491968,2022-02-15-12:06:26,10.1.1.11,21,-0.070,-0.070,-0.070,0.000,0.000,0.000
1644926786143320064,2022-02-15-12:06:26,10.1.1.11,29,-0.060,-0.060,-0.060,0.000,0.000,0.000
1644926786203095808,2022-02-15-12:06:26,10.1.1.11,38,-0.050,-0.050,-0.050,0.000,0.000,0.000
1644926786246066176,2022-02-15-12:06:26,10.1.1.11,31,-0.040,-0.040,-0.040,0.000,0.000,0.000
1644926786304861952,2022-02-15-12:06:26,10.1.1.11,37,-0.030,-0.030,-0.030,0.000,0.000,0.000
1644926786342070016,2022-02-15-12:06:26,10.1.1.11,27,-0.020,-0.020,-0.020,0.000,0.000,0.000
1644926786401809920,2022-02-15-12:06:26,10.1.1.11,36,-0.010,-0.010,-0.010,0.000,0.000,0.000
1644926786443522816,2022-02-15-12:06:26,10.1.1.11,25,0.000,0.000,0.000,0.000,0.000,0.000
1644926786501492992,2022-02-15-12:06:26,10.1.1.11,35,0.010,0.010,0.010,0.000,0.000,0.000
1644926786541683968,2022-02-15-12:06:26,10.1.1.11,23,0.020,0.020,0.020,0.000,0.000,0.000
1644926786601496832,2022-02-15-12:06:26,10.1.1.11,32,0.030,0.030,0.030,0.000,0.000,0.000
1644926786641242112,2022-02-15-12:06:26,10.1.1.11,22,0.040,0.040,0.040,0.000,0.000,0.000
1644926786702492928,2022-02-15-12:06:26,10.1.1.11,31,0.050,0.050,0.050,0.000,0.000,0.000
1644926786742157824,2022-02-15-12:06:26,10.1.1.11,21,0.060,0.060,0.060,0.000,0.000,0.000
1644926786803021056,2022-02-15-12:06:26,10.1.1.11,30,0.070,0.070,0.070,0.000,0.000,0.000
1644926786843115008,2022-02-15-12:06:26,10.1.1.11,19,0.079,0.079,0.079,0.000,0.000,0.000
1644926786902403072,2022-02-15-12:06:26,10.1.1.11,28,0.090,0.090,0.090,0.000,0.000,0.000
1644926786961108992,2022-02-15-12:06:26,10.1.1.11,36,0.100,0.100,0.100,0.000,0.000,0.000
1644926787001884928,2022-02-15-12:06:27,10.1.1.11,26,0.090,0.090,0.090,0.000,0.000,0.000
1644926787061389056,2022-02-15-12:06:27,10.1.1.11,35,0.080,0.080,0.080,0.000,0.000,0.000
1644926787101399808,2022-02-15-12:06:27,10.1.1.11,24,0.070,0.070,0.070,0.000,0.000,0.000
1644926787161264896,2022-02-15-12:06:27,10.1.1.11,33,0.060,0.060,0.060,0.000,0.000,0.000
1644926787201513984,2022-02-15-12:06:27,10.1.1.11,22,0.050,0.050,0.050,0.000,0.000,0.000
1644926787261573120,2022-02-15-12:06:27,10.1.1.11,31,0.040,0.040,0.040,0.000,0.000,0.000
1644926787301524992,2022-02-15-12:06:27,10.1.1.11,20,0.030,0.030,0.030,0.000,0.000,0.000
1644926787361422080,2022-02-15-12:06:27,10.1.1.11,29,0.020,0.020,0.020,0.000,0.000,0.000
1644926787401508096,2022-02-15-12:06:27,10.1.1.11,19,0.010,0.010,0.010,0.000,0.000,0.000
1644926787462289152,2022-02-15-12:06:27,10.1.1.11,29,0.000,0.000,0.000,0.000,0.000,0.000
1644926787521177088,2022-02-15-12:06:27,10.1.1.11,38,-0.010,-0.010,-0.010,0.000,0.000,0.000
1644926787562984960,2022-02-15-12:06:27,10.1.1.11,28,-0.020,-0.020,-0.020,0.000,0.000,0.000
1644926787621527040,2022-02-15-12:06:27,10.1.1.11,37,-0.030,-0.030,-0.030,0.000,0.000,0.000
1644926787662116096,2022-02-15-12:06:27,10.1.1.11,26,-0.040,-0.040,-0.040,0.000,0.000,0.000
1644926787721352960,2022-02-15-12:06:27,10.1.1.11,36,-0.050,-0.050,-0.050,0.000,0.000,0.000
1644926787761070848,2022-02-15-12:06:27,10.1.1.11,25,-0.060,-0.060,-0.060,0.000,0.000,0.000
1644926787821583104,2022-02-15-12:06:27,10.1.1.11,35,-0.070,-0.070,-0.070,0.000,0.000,0.000
1644926787860873984,2022-02-15-12:06:27,10.1.1.11,24,-0.080,-0.080,-0.080,0.000,0.000,0.000
1644926787921062912,2022-02-15-12:06:27,10.1.1.11,34,-0.090,-0.090,-0.090,0.000,0.000,0.000
1644926787961597952,2022-02-15-12:06:27,10.1.1.11,23,-0.100,-0.100,-0.100,0.000,0.000,0.000
1644926788021054976,2022-02-15-12:06:28,10.1.1.11,33,-0.090,-0.090,-0.090,0.000,0.000,0.000
1644926788061177088,2022-02-15-12:06:28,10.1.1.11,22,-0.080,-0.080,-0.080,0.000,0.000,0.000
1644926788122035968,2022-02-15-12:06:28,10.1.1.11,32,-0.070,-0.070,-0.070,0.000,0.000,0.000
1644926788161756928,2022-02-15-12:06:28,10.1.1.11,21,-0.060,-0.060,-0.060,0.000,0.000,0.000
1644926788221479936,2022-02-15-12:06:28,10.1.1.11,31,-0.050,-0.050,-0.050,0.000,0.000,0.000
1644926788261526016,2022-02-15-12:06:28,10.1.1.11,20,-0.040,-0.040,-0.040,0.000,0.000,0.000
1644926788322995968,2022-02-15-12:06:28,10.1.1.11,30,-0.030,-0.030,-0.030,0.000,0.000,0.000
1644926788361294080,2022-02-15-12:06:28,10.1.1.11,19,-0.020,-0.020,-0.020,0.000,0.000,0.000
1644926788421145088,2022-02-15-12:06:28,10.1.1.11,29,-0.010,-0.010,-0.010,0.000,0.000,0.000
1644926788481300992,2022-02-15-12:06:28,10.1.1.11,38,0.000,0.000,0.000,0.000,0.000,0.000
1644926788521560832,2022-02-15-12:06:28,10.1.1.11,28,0.010,0.010,0.010,0.000,0.000,0.000
1644926788581038080,2022-02-15-12:06:28,10.1.1.11,37,0.020,0.020,0.020,0.000,0.000,0.000
1644926788621169152,2022-02-15-12:06:28,10.1.1.11,27,0.030,0.030,0.030,0.000,0.000,0.000
1644926788680972032,2022-02-15-12:06:28,10.1.1.11,36,0.040,0.040,0.040,0.000,0.000,0.000
1644926788722513920,2022-02-15-12:06:28,10.1.1.11,26,0.050,0.050,0.050,0.000,0.000,0.000
1644926788781019904,2022-02-15-12:06:28,10.1.1.11,35,0.060,0.060,0.060,0.000,0.000,0.000
1644926788821396224,2022-02-15-12:06:28,10.1.1.11,25,0.070,0.070,0.070,0.000,0.000,0.000
1644926788881402112,2022-02-15-12:06:28,10.1.1.11,34,0.080,0.080,0.080,0.000,0.000,0.000
1644926788920973056,2022-02-15-12:06:28,10.1.1.11,24,0.090,0.090,0.090,0.000,0.000,0.000
1644926788981092096,2022-02-15-12:06:28,10.1.1.11,33,0.100,0.100,0.100,0.000,0.000,0.000
1644926789023556864,2022-02-15-12:06:29,10.1.1.11,23,0.090,0.090,0.090,0.000,0.000,0.000
1644926789081244928,2022-02-15-12:06:29,10.1.1.11,33,0.080,0.080,0.080,0.000,0.000,0.000
1644926789121222144,2022-02-15-12:06:29,10.1.1.11,22,0.070,0.070,0.070,0.000,0.000,0.000
1644926789181000960,2022-02-15-12:06:29,10.1.1.11,32,0.060,0.060,0.060,0.000,0.000,0.000
1644926789221458944,2022-02-15-12:06:29,10.1.1.11,21,0.050,0.050,0.050,0.000,0.000,0.000
1644926789280747008,2022-02-15-12:06:29,10.1.1.11,31,0.040,0.040,0.040,0.000,0.000,0.000
1644926789321374976,2022-02-15-12:06:29,10.1.1.11,20,0.030,0.030,0.030,0.000,0.000,0.000
1644926789381041152,2022-02-15-12:06:29,10.1.1.11,30,0.020,0.020,0.020,0.000,0.000,0.000
1644926789422066944,2022-02-15-12:06:29,10.1.1.11,19,0.010,0.010,0.010,0.000,0.000,0.000
1644926789481883904,2022-02-15-12:06:29,10.1.1.11,29,0.000,0.000,0.000,0.000,0.000,0.000
1644926789540916992,2022-02-15-12:06:29,10.1.1.11,38,-0.010,-0.010,-0.010,0.000,0.000,0.000
1644926789581262080,2022-02-15-12:06:29,10.1.1.11,28,-0.020,-0.020,-0.020,0.000,0.000,0.000
1644926789641364992,2022-02-15-12:06:29,10.1.1.11,37,-0.030,-0.030,-0.030,0.000,0.000,0.000
1644926789681169152,2022-02-15-12:06:29,10.1.1.11,27,-0.040,-0.040,-0.040,0.000,0.000,0.000
1644926789741177088,2022-02-15-12:06:29,10.1.1.11,37,-0.050,-0.050,-0.050,0.000,0.000,0.000
1644926789781753088,2022-02-15-12:06:29,10.1.1.11,26,-0.060,-0.060,-0.060,0.000,0.000,0.000
1644926789841416960,2022-02-15-12:06:29,10.1.1.11,36,-0.070,-0.070,-0.070,0.000,0.000,0.000
1644926789881052928,2022-02-15-12:06:29,10.1.1.11,25,-0.080,-0.080,-0.080,0.000,0.000,0.000
1644926789942862080,2022-02-15-12:06:29,10.1.1.11,35,-0.090,-0.090,-0.090,0.000,0.000,0.000
1644926789981425920,2022-02-15-12:06:29,10.1.1.11,24,-0.100,-0.100,-0.100,0.000,0.000,0.000
1644926790041101056,2022-02-15-12:06:30,10.1.1.11,33,-0.090,-0.090,-0.090,0.000,0.000,0.000
1644926790081157888,2022-02-15-12:06:30,10.1.1.11,22,-0.080,-0.080,-0.080,0.000,0.000,0.000
1644926790141134080,2022-02-15-12:06:30,10.1.1.11,32,-0.070,-0.070,-0.070,0.000,0.000,0.000
1644926790182064128,2022-02-15-12:06:30,10.1.1.11,21,-0.060,-0.060,-0.060,0.000,0.000,0.000
1644926790241144832,2022-02-15-12:06:30,10.1.1.11,31,-0.050,-0.050,-0.050,0.000,0.000,0.000
1644926790280916992,2022-02-15-12:06:30,10.1.1.11,21,-0.040,-0.040,-0.040,0.000,0.000,0.000
1644926790341277952,2022-02-15-12:06:30,10.1.1.11,30,-0.030,-0.030,-0.030,0.000,0.000,0.000
1644926790380974080,2022-02-15-12:06:30,10.1.1.11,19,-0.020,-0.020,-0.020,0.000,0.000,0.000
1644926790440974080,2022-02-15-12:06:30,10.1.1.11,29,-0.010,-0.010,-0.010,0.000,0.000,0.000
1644926790501331968,2022-02-15-12:06:30,10.1.1.11,38,0.000,0.000,0.000,0.000,0.000,0.000
1644926790541974016,2022-02-15-12:06:30,10.1.1.11,28,0.010,0.010,0.010,0.000,0.000,0.000
1644926790600856064,2022-02-15-12:06:30,10.1.1.11,37,0.020,0.020,0.020,0.000,0.000,0.000
1644926790641380096,2022-02-15-12:06:30,10.1.1.11,27,0.030,0.030,0.030,0.000,0.000,0.000
1644926790701036032,2022-02-15-12:06:30,10.1.1.11,37,0.040,0.040,0.040,0.000,0.000,0.000
1644926790741564928,2022-02-15-12:06:30,10.1.1.11,26,0.050,0.050,0.050,0.000,0.000,0.000
1644926790802383872,2022-02-15-12:06:30,10.1.1.11,36,0.060,0.060,0.060,0.000,0.000,0.000
1644926790841188864,2022-02-15-12:06:30,10.1.1.11,25,0.070,0.070,0.070,0.000,0.000,0.000
1644926790902406912,2022-02-15-12:06:30,10.1.1.11,35,0.080,0.080,0.080,0.000,0.000,0.000
1644926790941756928,2022-02-15-12:06:30,10.1.1.11,24,0.090,0.090,0.090,0.000,0.000,0.000
1644926791000782080,2022-02-15-12:06:31,10.1.1.11,34,0.100,0.100,0.100,0.000,0.000,0.000
1644926791041166080,2022-02-15-12:06:31,10.1.1.11,24,0.090,0.090,0.090,0.000,0.000,0.000
1644926791101352960,2022-02-15-12:06:31,10.1.1.11,33,0.080,0.080,0.080,0.000,0.000,0.000
1644926791141673216,2022-02-15-12:06:31,10.1.1.11,22,0.070,0.070,0.070,0.000,0.000,0.000
1644926791200755968,2022-02-15-12:06:31,10.1.1.11,32,0.060,0.060,0.060,0.000,0.000,0.000
1644926791241249024,2022-02-15-12:06:31,10.1.1.11,21,0.050,0.050,0.050,0.000,0.000,0.000
1644926791300757760,2022-02-15-12:06:31,10.1.1.11,31,0.040,0.040,0.040,0.000,0.000,0.000
1644926791341444096,2022-02-15-12:06:31,10.1.1.11,20,0.030,0.030,0.030,0.000,0.000,0.000
1644926791400888064,2022-02-15-12:06:31,10.1.1.11,29,0.020,0.020,0.020,0.000,0.000,0.000
1644926791441103104,2022-02-15-12:06:31,10.1.1.11,19,0.011,0.011,0.011,0.000,0.000,0.000
1644926791501187072,2022-02-15-12:06:31,10.1.1.11,28,0.000,0.000,0.000,0.000,0.000,0.000
1644926791561032960,2022-02-15-12:06:31,10.1.1.11,38,-0.010,-0.010,-0.010,0.000,0.000,0.000
1644926791600935936,2022-02-15-12:06:31,10.1.1.11,28,-0.020,-0.020,-0.020,0.000,0.000,0.000
1644926791661348096,2022-02-15-12:06:31,10.1.1.11,37,-0.030,-0.030,-0.030,0.000,0.000,0.000
1644926791701210112,2022-02-15-12:06:31,10.1.1.11,27,-0.040,-0.040,-0.040,0.000,0.000,0.000
1644926791762089984,2022-02-15-12:06:31,10.1.1.11,37,-0.050,-0.050,-0.050,0.000,0.000,0.000
1644926791802040064,2022-02-15-12:06:31,10.1.1.11,22,-0.060,-0.060,-0.060,0.000,0.000,0.000
1644926791889662976,2022-02-15-12:06:31,10.1.1.11,45,-0.070,-0.070,-0.070,0.000,0.000,0.000
1644926791924217856,2022-02-15-12:06:31,10.1.1.11,22,-0.080,-0.080,-0.080,0.000,0.000,0.000
1644926791990086144,2022-02-15-12:06:31,10.1.1.11,32,-0.090,-0.090,-0.090,0.000,0.000,0.000
1644926792037075968,2022-02-15-12:06:32,10.1.1.11,35,-0.100,-0.100,-0.100,0.000,0.000,0.000
1644926792182241792,2022-02-15-12:06:32,10.1.1.11,27,-0.070,-0.070,-0.070,0.000,0.000,0.000
1644926792243041024,2022-02-15-12:06:32,10.1.1.11,36,-0.060,-0.060,-0.060,0.000,0.000,0.000
1644926792344791808,2022-02-15-12:06:32,10.1.1.11,35,-0.040,-0.040,-0.040,0.000,0.000,0.000
1644926792384779008,2022-02-15-12:06:32,10.1.1.11,25,-0.030,-0.030,-0.030,0.000,0.000,0.000
1644926792442425856,2022-02-15-12:06:32,10.1.1.11,32,-0.020,-0.020,-0.020,0.000,0.000,0.000
1644926792481831168,2022-02-15-12:06:32,10.1.1.11,22,-0.010,-0.010,-0.010,0.000,0.000,0.000
1644926792546201856,2022-02-15-12:06:32,10.1.1.11,22,0.000,0.000,0.000,0.000,0.000,0.000
1644926792662288896,2022-02-15-12:06:32,10.1.1.11,38,0.020,0.020,0.020,0.000,0.000,0.000
1644926792706795008,2022-02-15-12:06:32,10.1.1.11,26,0.030,0.030,0.030,0.000,0.000,0.000
1644926792769447936,2022-02-15-12:06:32,10.1.1.11,36,0.040,0.040,0.040,0.000,0.000,0.000
1644926792885585152,2022-02-15-12:06:32,10.1.1.11,37,0.060,0.060,0.060,0.000,0.000,0.000
1644926792923012096,2022-02-15-12:06:32,10.1.1.11,26,0.070,0.070,0.070,0.000,0.000,0.000
1644926792984003072,2022-02-15-12:06:32,10.1.1.11,34,0.080,0.080,0.080,0.000,0.000,0.000
1644926793025769984,2022-02-15-12:06:33,10.1.1.11,24,0.090,0.090,0.090,0.000,0.000,0.000
1644926793082544128,2022-02-15-12:06:33,10.1.1.11,33,0.100,0.100,0.100,0.000,0.000,0.000
1644926793122576896,2022-02-15-12:06:33,10.1.1.11,22,0.090,0.090,0.090,0.000,0.000,0.000
1644926793182054912,2022-02-15-12:06:33,10.1.1.11,31,0.080,0.080,0.080,0.000,0.000,0.000
1644926793221817856,2022-02-15-12:06:33,10.1.1.11,21,0.070,0.070,0.070,0.000,0.000,0.000
1644926793282324992,2022-02-15-12:06:33,10.1.1.11,31,0.060,0.060,0.060,0.000,0.000,0.000
1644926793321880064,2022-02-15-12:06:33,10.1.1.11,20,0.050,0.050,0.050,0.000,0.000,0.000
1644926793382477056,2022-02-15-12:06:33,10.1.1.11,30,0.040,0.040,0.040,0.000,0.000,0.000
1644926793421999872,2022-02-15-12:06:33,10.1.1.11,19,0.031,0.031,0.031,0.000,0.000,0.000
1644926793482109184,2022-02-15-12:06:33,10.1.1.11,28,0.020,0.020,0.020,0.000,0.000,0.000
1644926793542458112,2022-02-15-12:06:33,10.1.1.11,38,0.010,0.010,0.010,0.000,0.000,0.000
1644926793642068992,2022-02-15-12:06:33,10.1.1.11,35,-0.010,-0.010,-0.010,0.000,0.000,0.000
1644926793681524992,2022-02-15-12:06:33,10.1.1.11,24,-0.020,-0.020,-0.020,0.000,0.000,0.000
1644926793741630976,2022-02-15-12:06:33,10.1.1.11,33,-0.030,-0.030,-0.030,0.000,0.000,0.000
1644926793781620992,2022-02-15-12:06:33,10.1.1.11,23,-0.040,-0.040,-0.040,0.000,0.000,0.000
1644926793843838976,2022-02-15-12:06:33,10.1.1.11,32,-0.050,-0.050,-0.050,0.000,0.000,0.000
1644926793881811968,2022-02-15-12:06:33,10.1.1.11,22,-0.060,-0.060,-0.060,0.000,0.000,0.000
1644926793941883136,2022-02-15-12:06:33,10.1.1.11,31,-0.070,-0.070,-0.070,0.000,0.000,0.000
1644926793981767936,2022-02-15-12:06:33,10.1.1.11,20,-0.080,-0.080,-0.080,0.000,0.000,0.000
1644926794042525952,2022-02-15-12:06:34,10.1.1.11,30,-0.090,-0.090,-0.090,0.000,0.000,0.000
1644926794081862912,2022-02-15-12:06:34,10.1.1.11,19,-0.100,-0.100,-0.100,0.000,0.000,0.000
1644926794141811968,2022-02-15-12:06:34,10.1.1.11,29,-0.090,-0.090,-0.090,0.000,0.000,0.000
1644926794201689856,2022-02-15-12:06:34,10.1.1.11,38,-0.080,-0.080,-0.080,0.000,0.000,0.000
1644926794242211072,2022-02-15-12:06:34,10.1.1.11,27,-0.070,-0.070,-0.070,0.000,0.000,0.000
1644926794301630976,2022-02-15-12:06:34,10.1.1.11,37,-0.060,-0.060,-0.060,0.000,0.000,0.000
1644926794341784832,2022-02-15-12:06:34,10.1.1.11,26,-0.050,-0.050,-0.050,0.000,0.000,0.000
1644926794401784832,2022-02-15-12:06:34,10.1.1.11,35,-0.040,-0.040,-0.040,0.000,0.000,0.000
1644926794441665792,2022-02-15-12:06:34,10.1.1.11,25,-0.030,-0.030,-0.030,0.000,0.000,0.000
1644926794501573120,2022-02-15-12:06:34,10.1.1.11,35,-0.020,-0.020,-0.020,0.000,0.000,0.000
1644926794541528832,2022-02-15-12:06:34,10.1.1.11,24,-0.010,-0.010,-0.010,0.000,0.000,0.000
1644926794601964032,2022-02-15-12:06:34,10.1.1.11,33,0.000,0.000,0.000,0.000,0.000,0.000
1644926794641402880,2022-02-15-12:06:34,10.1.1.11,22,0.010,0.010,0.010,0.000,0.000,0.000
1644926794701752064,2022-02-15-12:06:34,10.1.1.11,32,0.020,0.020,0.020,0.000,0.000,0.000
1644926794742054912,2022-02-15-12:06:34,10.1.1.11,22,0.030,0.030,0.030,0.000,0.000,0.000
1644926794801938176,2022-02-15-12:06:34,10.1.1.11,31,0.040,0.040,0.040,0.000,0.000,0.000
1644926794841553920,2022-02-15-12:06:34,10.1.1.11,20,0.050,0.050,0.050,0.000,0.000,0.000
1644926794901637120,2022-02-15-12:06:34,10.1.1.11,30,0.060,0.060,0.060,0.000,0.000,0.000
1644926794947012864,2022-02-15-12:06:34,10.1.1.11,19,0.069,0.069,0.069,0.000,0.000,0.000
1644926795001892096,2022-02-15-12:06:35,10.1.1.11,29,0.080,0.080,0.080,0.000,0.000,0.000
1644926795061732096,2022-02-15-12:06:35,10.1.1.11,38,0.090,0.090,0.090,0.000,0.000,0.000
1644926795101413120,2022-02-15-12:06:35,10.1.1.11,28,0.100,0.100,0.100,0.000,0.000,0.000
1644926795161362944,2022-02-15-12:06:35,10.1.1.11,37,0.090,0.090,0.090,0.000,0.000,0.000
1644926795202243072,2022-02-15-12:06:35,10.1.1.11,27,0.080,0.080,0.080,0.000,0.000,0.000
1644926795261684992,2022-02-15-12:06:35,10.1.1.11,36,0.070,0.070,0.070,0.000,0.000,0.000
1644926795301502976,2022-02-15-12:06:35,10.1.1.11,26,0.060,0.060,0.060,0.000,0.000,0.000
1644926795361725184,2022-02-15-12:06:35,10.1.1.11,35,0.050,0.050,0.050,0.000,0.000,0.000
1644926795401724928,2022-02-15-12:06:35,10.1.1.11,25,0.040,0.040,0.040,0.000,0.000,0.000
1644926795461515776,2022-02-15-12:06:35,10.1.1.11,34,0.030,0.030,0.030,0.000,0.000,0.000
1644926795508687104,2022-02-15-12:06:35,10.1.1.11,24,0.020,0.020,0.020,0.000,0.000,0.000
1644926795561716992,2022-02-15-12:06:35,10.1.1.11,33,0.010,0.010,0.010,0.000,0.000,0.000
1644926795601138944,2022-02-15-12:06:35,10.1.1.11,23,0.000,0.000,0.000,0.000,0.000,0.000
1644926795662091008,2022-02-15-12:06:35,10.1.1.11,32,-0.010,-0.010,-0.010,0.000,0.000,0.000
1644926795701707008,2022-02-15-12:06:35,10.1.1.11,22,-0.020,-0.020,-0.020,0.000,0.000,0.000
1644926795761238016,2022-02-15-12:06:35,10.1.1.11,30,-0.030,-0.030,-0.030,0.000,0.000,0.000
1644926795801677824,2022-02-15-12:06:35,10.1.1.11,19,-0.040,-0.040,-0.040,0.000,0.000,0.000
1644926795861895168,2022-02-15-12:06:35,10.1.1.11,29,-0.050,-0.050,-0.050,0.000,0.000,0.000
1644926795902763008,2022-02-15-12:06:35,10.1.1.11,18,-0.059,-0.059,-0.059,0.000,0.000,0.000
1644926795961515008,2022-02-15-12:06:35,10.1.1.11,27,-0.070,-0.070,-0.070,0.000,0.000,0.000
1644926796021253120,2022-02-15-12:06:36,10.1.1.11,37,-0.080,-0.080,-0.080,0.000,0.000,0.000
1644926796061507072,2022-02-15-12:06:36,10.1.1.11,27,-0.090,-0.090,-0.090,0.000,0.000,0.000
1644926796121399040,2022-02-15-12:06:36,10.1.1.11,36,-0.100,-0.100,-0.100,0.000,0.000,0.000
1644926796161351936,2022-02-15-12:06:36,10.1.1.11,26,-0.090,-0.090,-0.090,0.000,0.000,0.000
1644926796221720832,2022-02-15-12:06:36,10.1.1.11,35,-0.080,-0.080,-0.080,0.000,0.000,0.000
1644926796262434048,2022-02-15-12:06:36,10.1.1.11,24,-0.070,-0.070,-0.070,0.000,0.000,0.000
1644926796321948928,2022-02-15-12:06:36,10.1.1.11,34,-0.060,-0.060,-0.060,0.000,0.000,0.000
1644926796361321984,2022-02-15-12:06:36,10.1.1.11,23,-0.050,-0.050,-0.050,0.000,0.000,0.000
1644926796421363200,2022-02-15-12:06:36,10.1.1.11,33,-0.040,-0.040,-0.040,0.000,0.000,0.000
1644926796463001856,2022-02-15-12:06:36,10.1.1.11,23,-0.030,-0.030,-0.030,0.000,0.000,0.000
1644926796521584896,2022-02-15-12:06:36,10.1.1.11,32,-0.020,-0.020,-0.020,0.000,0.000,0.000
1644926796562041088,2022-02-15-12:06:36,10.1.1.11,21,-0.010,-0.010,-0.010,0.000,0.000,0.000
1644926796621944064,2022-02-15-12:06:36,10.1.1.11,30,0.000,0.000,0.000,0.000,0.000,0.000
1644926796663047936,2022-02-15-12:06:36,10.1.1.11,20,0.010,0.010,0.010,0.000,0.000,0.000
1644926796722589952,2022-02-15-12:06:36,10.1.1.11,29,0.020,0.020,0.020,0.000,0.000,0.000
1644926796761907200,2022-02-15-12:06:36,10.1.1.11,19,0.029,0.029,0.029,0.000,0.000,0.000
1644926796823288064,2022-02-15-12:06:36,10.1.1.11,28,0.040,0.040,0.040,0.000,0.000,0.000
1644926796881501952,2022-02-15-12:06:36,10.1.1.11,37,0.050,0.050,0.050,0.000,0.000,0.000
1644926796921659904,2022-02-15-12:06:36,10.1.1.11,27,0.060,0.060,0.060,0.000,0.000,0.000
1644926796981275136,2022-02-15-12:06:36,10.1.1.11,36,0.070,0.070,0.070,0.000,0.000,0.000
1644926797021413120,2022-02-15-12:06:37,10.1.1.11,25,0.080,0.080,0.080,0.000,0.000,0.000
1644926797081499136,2022-02-15-12:06:37,10.1.1.11,35,0.090,0.090,0.090,0.000,0.000,0.000
1644926797121692928,2022-02-15-12:06:37,10.1.1.11,24,0.100,0.100,0.100,0.000,0.000,0.000
1644926797181297920,2022-02-15-12:06:37,10.1.1.11,34,0.090,0.090,0.090,0.000,0.000,0.000
1644926797221203200,2022-02-15-12:06:37,10.1.1.11,22,0.080,0.080,0.080,0.000,0.000,0.000
1644926797281608960,2022-02-15-12:06:37,10.1.1.11,32,0.070,0.070,0.070,0.000,0.000,0.000
1644926797321356032,2022-02-15-12:06:37,10.1.1.11,22,0.060,0.060,0.060,0.000,0.000,0.000
1644926797381590016,2022-02-15-12:06:37,10.1.1.11,31,0.050,0.050,0.050,0.000,0.000,0.000
1644926797421431040,2022-02-15-12:06:37,10.1.1.11,20,0.040,0.040,0.040,0.000,0.000,0.000
1644926797481175040,2022-02-15-12:06:37,10.1.1.11,30,0.030,0.030,0.030,0.000,0.000,0.000
1644926797521840128,2022-02-15-12:06:37,10.1.1.11,19,0.020,0.020,0.020,0.000,0.000,0.000
1644926797581410048,2022-02-15-12:06:37,10.1.1.11,29,0.010,0.010,0.010,0.000,0.000,0.000
1644926797641422080,2022-02-15-12:06:37,10.1.1.11,38,0.000,0.000,0.000,0.000,0.000,0.000
1644926797681581056,2022-02-15-12:06:37,10.1.1.11,28,-0.010,-0.010,-0.010,0.000,0.000,0.000
1644926797741765120,2022-02-15-12:06:37,10.1.1.11,37,-0.020,-0.020,-0.020,0.000,0.000,0.000
1644926797781542144,2022-02-15-12:06:37,10.1.1.11,27,-0.030,-0.030,-0.030,0.000,0.000,0.000
1644926797841641984,2022-02-15-12:06:37,10.1.1.11,36,-0.040,-0.040,-0.040,0.000,0.000,0.000
1644926797881220096,2022-02-15-12:06:37,10.1.1.11,26,-0.050,-0.050,-0.050,0.000,0.000,0.000
1644926797941283840,2022-02-15-12:06:37,10.1.1.11,35,-0.060,-0.060,-0.060,0.000,0.000,0.000
1644926797981234176,2022-02-15-12:06:37,10.1.1.11,25,-0.070,-0.070,-0.070,0.000,0.000,0.000
1644926798041858048,2022-02-15-12:06:38,10.1.1.11,34,-0.080,-0.080,-0.080,0.000,0.000,0.000
1644926798081615872,2022-02-15-12:06:38,10.1.1.11,23,-0.090,-0.090,-0.090,0.000,0.000,0.000
1644926798142124032,2022-02-15-12:06:38,10.1.1.11,33,-0.100,-0.100,-0.100,0.000,0.000,0.000
1644926798181868032,2022-02-15-12:06:38,10.1.1.11,23,-0.090,-0.090,-0.090,0.000,0.000,0.000
1644926798241906944,2022-02-15-12:06:38,10.1.1.11,32,-0.080,-0.080,-0.080,0.000,0.000,0.000
1644926798281351168,2022-02-15-12:06:38,10.1.1.11,21,-0.070,-0.070,-0.070,0.000,0.000,0.000
1644926798341432064,2022-02-15-12:06:38,10.1.1.11,31,-0.060,-0.060,-0.060,0.000,0.000,0.000
1644926798382021888,2022-02-15-12:06:38,10.1.1.11,20,-0.050,-0.050,-0.050,0.000,0.000,0.000
1644926798442043136,2022-02-15-12:06:38,10.1.1.11,30,-0.040,-0.040,-0.040,0.000,0.000,0.000
1644926798482029824,2022-02-15-12:06:38,10.1.1.11,20,-0.030,-0.030,-0.030,0.000,0.000,0.000
1644926798542013952,2022-02-15-12:06:38,10.1.1.11,29,-0.020,-0.020,-0.020,0.000,0.000,0.000
1644926798601389824,2022-02-15-12:06:38,10.1.1.11,38,-0.010,-0.010,-0.010,0.000,0.000,0.000
1644926798641444864,2022-02-15-12:06:38,10.1.1.11,28,0.000,0.000,0.000,0.000,0.000,0.000
1644926798702322944,2022-02-15-12:06:38,10.1.1.11,36,0.010,0.010,0.010,0.000,0.000,0.000
1644926798741853952,2022-02-15-12:06:38,10.1.1.11,26,0.020,0.020,0.020,0.000,0.000,0.000
1644926798802007808,2022-02-15-12:06:38,10.1.1.11,35,0.030,0.030,0.030,0.000,0.000,0.000
1644926798842763776,2022-02-15-12:06:38,10.1.1.11,25,0.040,0.040,0.040,0.000,0.000,0.000
1644926798902872064,2022-02-15-12:06:38,10.1.1.11,35,0.050,0.050,0.050,0.000,0.000,0.000
1644926799002081024,2022-02-15-12:06:39,10.1.1.11,33,0.070,0.070,0.070,0.000,0.000,0.000
1644926799042190080,2022-02-15-12:06:39,10.1.1.11,22,0.080,0.080,0.080,0.000,0.000,0.000
1644926799102051072,2022-02-15-12:06:39,10.1.1.11,32,0.090,0.090,0.090,0.000,0.000,0.000
1644926799141931008,2022-02-15-12:06:39,10.1.1.11,21,0.100,0.100,0.100,0.000,0.000,0.000
1644926799202738944,2022-02-15-12:06:39,10.1.1.11,30,0.090,0.090,0.090,0.000,0.000,0.000
1644926799242144000,2022-02-15-12:06:39,10.1.1.11,20,0.080,0.080,0.080,0.000,0.000,0.000
1644926799301202176,2022-02-15-12:06:39,10.1.1.11,29,0.070,0.070,0.070,0.000,0.000,0.000
1644926799361274112,2022-02-15-12:06:39,10.1.1.11,38,0.060,0.060,0.060,0.000,0.000,0.000
1644926799401691904,2022-02-15-12:06:39,10.1.1.11,28,0.050,0.050,0.050,0.000,0.000,0.000
1644926799461329920,2022-02-15-12:06:39,10.1.1.11,38,0.040,0.040,0.040,0.000,0.000,0.000
1644926799501091840,2022-02-15-12:06:39,10.1.1.11,27,0.030,0.030,0.030,0.000,0.000,0.000
1644926799561171968,2022-02-15-12:06:39,10.1.1.11,36,0.020,0.020,0.020,0.000,0.000,0.000
1644926799600975872,2022-02-15-12:06:39,10.1.1.11,26,0.010,0.010,0.010,0.000,0.000,0.000
1644926799661442048,2022-02-15-12:06:39,10.1.1.11,35,0.000,0.000,0.000,0.000,0.000,0.000
1644926799701425920,2022-02-15-12:06:39,10.1.1.11,25,-0.010,-0.010,-0.010,0.000,0.000,0.000
1644926799761907968,2022-02-15-12:06:39,10.1.1.11,34,-0.020,-0.020,-0.020,0.000,0.000,0.000
1644926799801513984,2022-02-15-12:06:39,10.1.1.11,24,-0.030,-0.030,-0.030,0.000,0.000,0.000
1644926799861540096,2022-02-15-12:06:39,10.1.1.11,33,-0.040,-0.040,-0.040,0.000,0.000,0.000
1644926799902481920,2022-02-15-12:06:39,10.1.1.11,22,-0.050,-0.050,-0.050,0.000,0.000,0.000
1644926799961936896,2022-02-15-12:06:39,10.1.1.11,32,-0.060,-0.060,-0.060,0.000,0.000,0.000
1644926800022351872,2022-02-15-12:06:40,10.1.1.11,32,-0.070,-0.070,-0.070,0.000,0.000,0.000
1644926800067528960,2022-02-15-12:06:40,10.1.1.11,21,-0.080,-0.080,-0.080,0.000,0.000,0.000
1644926800121543936,2022-02-15-12:06:40,10.1.1.11,31,-0.090,-0.090,-0.090,0.000,0.000,0.000
1644926800162014976,2022-02-15-12:06:40,10.1.1.11,19,-0.100,-0.100,-0.100,0.000,0.000,0.000
1644926800222512128,2022-02-15-12:06:40,10.1.1.11,28,-0.090,-0.090,-0.090,0.000,0.000,0.000
1644926800281178112,2022-02-15-12:06:40,10.1.1.11,37,-0.080,-0.080,-0.080,0.000,0.000,0.000
1644926800321921024,2022-02-15-12:06:40,10.1.1.11,27,-0.070,-0.070,-0.070,0.000,0.000,0.000
1644926800381272064,2022-02-15-12:06:40,10.1.1.11,36,-0.060,-0.060,-0.060,0.000,0.000,0.000
1644926800421652992,2022-02-15-12:06:40,10.1.1.11,25,-0.050,-0.050,-0.050,0.000,0.000,0.000
1644926800481360896,2022-02-15-12:06:40,10.1.1.11,34,-0.040,-0.040,-0.040,0.000,0.000,0.000
1644926800522016000,2022-02-15-12:06:40,10.1.1.11,24,-0.030,-0.030,-0.030,0.000,0.000,0.000
1644926800581587200,2022-02-15-12:06:40,10.1.1.11,33,-0.020,-0.020,-0.020,0.000,0.000,0.000
1644926800622116096,2022-02-15-12:06:40,10.1.1.11,22,-0.010,-0.010,-0.010,0.000,0.000,0.000
1644926800681433856,2022-02-15-12:06:40,10.1.1.11,31,0.000,0.000,0.000,0.000,0.000,0.000
1644926800722181120,2022-02-15-12:06:40,10.1.1.11,21,0.010,0.010,0.010,0.000,0.000,0.000
1644926800781821952,2022-02-15-12:06:40,10.1.1.11,30,0.020,0.020,0.020,0.000,0.000,0.000
1644926800822860032,2022-02-15-12:06:40,10.1.1.11,20,0.030,0.030,0.030,0.000,0.000,0.000
1644926800882147072,2022-02-15-12:06:40,10.1.1.11,29,0.040,0.040,0.040,0.000,0.000,0.000
1644926800944696064,2022-02-15-12:06:40,10.1.1.11,39,0.050,0.050,0.050,0.000,0.000,0.000
1644926800981528064,2022-02-15-12:06:40,10.1.1.11,28,0.060,0.060,0.060,0.000,0.000,0.000
1644926801042105856,2022-02-15-12:06:41,10.1.1.11,38,0.070,0.070,0.070,0.000,0.000,0.000
1644926801081676032,2022-02-15-12:06:41,10.1.1.11,27,0.080,0.080,0.080,0.000,0.000,0.000
1644926801142569984,2022-02-15-12:06:41,10.1.1.11,36,0.090,0.090,0.090,0.000,0.000,0.000
1644926801182179840,2022-02-15-12:06:41,10.1.1.11,25,0.100,0.100,0.100,0.000,0.000,0.000
1644926801245243904,2022-02-15-12:06:41,10.1.1.11,35,0.090,0.090,0.090,0.000,0.000,0.000
1644926801281861120,2022-02-15-12:06:41,10.1.1.11,23,0.080,0.080,0.080,0.000,0.000,0.000
1644926801342427136,2022-02-15-12:06:41,10.1.1.11,33,0.070,0.070,0.070,0.000,0.000,0.000
1644926801403142912,2022-02-15-12:06:41,10.1.1.11,39,0.060,0.060,0.060,0.000,0.000,0.000
1644926801441572864,2022-02-15-12:06:41,10.1.1.11,29,0.050,0.050,0.050,0.000,0.000,0.000
1644926801501233152,2022-02-15-12:06:41,10.1.1.11,39,0.040,0.040,0.040,0.000,0.000,0.000
1644926801560236032,2022-02-15-12:06:41,10.1.1.11,28,0.030,0.030,0.030,0.000,0.000,0.000
1644926801642142976,2022-02-15-12:06:41,10.1.1.11,25,0.010,0.010,0.010,0.000,0.000,0.000
1644926801701299968,2022-02-15-12:06:41,10.1.1.11,35,0.000,0.000,0.000,0.000,0.000,0.000
1644926801742942976,2022-02-15-12:06:41,10.1.1.11,23,-0.010,-0.010,-0.010,0.000,0.000,0.000
1644926801801216000,2022-02-15-12:06:41,10.1.1.11,33,-0.020,-0.020,-0.020,0.000,0.000,0.000
1644926801841761024,2022-02-15-12:06:41,10.1.1.11,22,-0.030,-0.030,-0.030,0.000,0.000,0.000
1644926801903500032,2022-02-15-12:06:41,10.1.1.11,31,-0.040,-0.040,-0.040,0.000,0.000,0.000
1644926801941495808,2022-02-15-12:06:41,10.1.1.11,21,-0.050,-0.050,-0.050,0.000,0.000,0.000
1644926802003159040,2022-02-15-12:06:42,10.1.1.11,29,-0.060,-0.060,-0.060,0.000,0.000,0.000
1644926802061563904,2022-02-15-12:06:42,10.1.1.11,34,-0.070,-0.070,-0.070,0.000,0.000,0.000
1644926802101576960,2022-02-15-12:06:42,10.1.1.11,23,-0.080,-0.080,-0.080,0.000,0.000,0.000
1644926802162308096,2022-02-15-12:06:42,10.1.1.11,33,-0.090,-0.090,-0.090,0.000,0.000,0.000
1644926802201360896,2022-02-15-12:06:42,10.1.1.11,22,-0.100,-0.100,-0.100,0.000,0.000,0.000
1644926802262114048,2022-02-15-12:06:42,10.1.1.11,32,-0.090,-0.090,-0.090,0.000,0.000,0.000
1644926802302347008,2022-02-15-12:06:42,10.1.1.11,21,-0.080,-0.080,-0.080,0.000,0.000,0.000
1644926802361385984,2022-02-15-12:06:42,10.1.1.11,31,-0.070,-0.070,-0.070,0.000,0.000,0.000
1644926802403685120,2022-02-15-12:06:42,10.1.1.11,20,-0.060,-0.060,-0.060,0.000,0.000,0.000
1644926802462522112,2022-02-15-12:06:42,10.1.1.11,30,-0.050,-0.050,-0.050,0.000,0.000,0.000
1644926802501411072,2022-02-15-12:06:42,10.1.1.11,19,-0.040,-0.040,-0.040,0.000,0.000,0.000
1644926802562280960,2022-02-15-12:06:42,10.1.1.11,29,-0.030,-0.030,-0.030,0.000,0.000,0.000
1644926802603816960,2022-02-15-12:06:42,10.1.1.11,19,-0.021,-0.021,-0.021,0.000,0.000,0.000
1644926802661620992,2022-02-15-12:06:42,10.1.1.11,28,-0.010,-0.010,-0.010,0.000,0.000,0.000
1644926802721307904,2022-02-15-12:06:42,10.1.1.11,38,0.000,0.000,0.000,0.000,0.000,0.000
1644926802761362176,2022-02-15-12:06:42,10.1.1.11,27,0.010,0.010,0.010,0.000,0.000,0.000
1644926802822736128,2022-02-15-12:06:42,10.1.1.11,37,0.020,0.020,0.020,0.000,0.000,0.000
1644926802862006784,2022-02-15-12:06:42,10.1.1.11,27,0.030,0.030,0.030,0.000,0.000,0.000
1644926802922071808,2022-02-15-12:06:42,10.1.1.11,36,0.040,0.040,0.040,0.000,0.000,0.000
1644926802961743104,2022-02-15-12:06:42,10.1.1.11,25,0.050,0.050,0.050,0.000,0.000,0.000
1644926803022658048,2022-02-15-12:06:43,10.1.1.11,35,0.060,0.060,0.060,0.000,0.000,0.000
1644926803062511872,2022-02-15-12:06:43,10.1.1.11,24,0.070,0.070,0.070,0.000,0.000,0.000
1644926803125714944,2022-02-15-12:06:43,10.1.1.11,36,0.080,0.080,0.080,0.000,0.000,0.000
1644926803161675008,2022-02-15-12:06:43,10.1.1.11,23,0.090,0.090,0.090,0.000,0.000,0.000
1644926803223161856,2022-02-15-12:06:43,10.1.1.11,33,0.100,0.100,0.100,0.000,0.000,0.000
1644926803262935040,2022-02-15-12:06:43,10.1.1.11,23,0.090,0.090,0.090,0.000,0.000,0.000
1644926803322941184,2022-02-15-12:06:43,10.1.1.11,28,0.080,0.080,0.080,0.000,0.000,0.000
1644926803381876992,2022-02-15-12:06:43,10.1.1.11,38,0.070,0.070,0.070,0.000,0.000,0.000
1644926803423005952,2022-02-15-12:06:43,10.1.1.11,27,0.060,0.060,0.060,0.000,0.000,0.000
1644926803481489920,2022-02-15-12:06:43,10.1.1.11,36,0.050,0.050,0.050,0.000,0.000,0.000
1644926803521955072,2022-02-15-12:06:43,10.1.1.11,26,0.040,0.040,0.040,0.000,0.000,0.000
1644926803581371136,2022-02-15-12:06:43,10.1.1.11,35,0.030,0.030,0.030,0.000,0.000,0.000
1644926803621897984,2022-02-15-12:06:43,10.1.1.11,23,0.020,0.020,0.020,0.000,0.000,0.000
1644926803682184960,2022-02-15-12:06:43,10.1.1.11,33,0.010,0.010,0.010,0.000,0.000,0.000
1644926803722142976,2022-02-15-12:06:43,10.1.1.11,22,0.000,0.000,0.000,0.000,0.000,0.000
1644926803782966016,2022-02-15-12:06:43,10.1.1.11,32,-0.010,-0.010,-0.010,0.000,0.000,0.000
1644926803826704128,2022-02-15-12:06:43,10.1.1.11,21,-0.020,-0.020,-0.020,0.000,0.000,0.000
1644926803882428928,2022-02-15-12:06:43,10.1.1.11,31,-0.030,-0.030,-0.030,0.000,0.000,0.000
1644926803921411072,2022-02-15-12:06:43,10.1.1.11,19,-0.040,-0.040,-0.040,0.000,0.000,0.000
1644926803981255936,2022-02-15-12:06:43,10.1.1.11,29,-0.050,-0.050,-0.050,0.000,0.000,0.000
1644926804041650944,2022-02-15-12:06:44,10.1.1.11,38,-0.060,-0.060,-0.060,0.000,0.000,0.000
1644926804081721088,2022-02-15-12:06:44,10.1.1.11,27,-0.070,-0.070,-0.070,0.000,0.000,0.000
1644926804182213120,2022-02-15-12:06:44,10.1.1.11,26,-0.090,-0.090,-0.090,0.000,0.000,0.000
1644926804242417152,2022-02-15-12:06:44,10.1.1.11,35,-0.100,-0.100,-0.100,0.000,0.000,0.000
1644926804281497856,2022-02-15-12:06:44,10.1.1.11,25,-0.090,-0.090,-0.090,0.000,0.000,0.000
1644926804341367040,2022-02-15-12:06:44,10.1.1.11,34,-0.080,-0.080,-0.080,0.000,0.000,0.000
1644926804384838144,2022-02-15-12:06:44,10.1.1.11,24,-0.070,-0.070,-0.070,0.000,0.000,0.000
1644926804442168064,2022-02-15-12:06:44,10.1.1.11,32,-0.060,-0.060,-0.060,0.000,0.000,0.000
1644926804481953024,2022-02-15-12:06:44,10.1.1.11,22,-0.050,-0.050,-0.050,0.000,0.000,0.000
1644926804541858048,2022-02-15-12:06:44,10.1.1.11,31,-0.040,-0.040,-0.040,0.000,0.000,0.000
1644926804581648128,2022-02-15-12:06:44,10.1.1.11,20,-0.030,-0.030,-0.030,0.000,0.000,0.000
1644926804641592064,2022-02-15-12:06:44,10.1.1.11,30,-0.020,-0.020,-0.020,0.000,0.000,0.000
1644926804681117184,2022-02-15-12:06:44,10.1.1.11,19,-0.010,-0.010,-0.010,0.000,0.000,0.000
1644926804743921152,2022-02-15-12:06:44,10.1.1.11,29,0.000,0.000,0.000,0.000,0.000,0.000
1644926804801376000,2022-02-15-12:06:44,10.1.1.11,38,0.010,0.010,0.010,0.000,0.000,0.000
1644926804842722048,2022-02-15-12:06:44,10.1.1.11,27,0.020,0.020,0.020,0.000,0.000,0.000
1644926804904046080,2022-02-15-12:06:44,10.1.1.11,37,0.030,0.030,0.030,0.000,0.000,0.000
1644926804944644864,2022-02-15-12:06:44,10.1.1.11,26,0.040,0.040,0.040,0.000,0.000,0.000
1644926805001539840,2022-02-15-12:06:45,10.1.1.11,35,0.050,0.050,0.050,0.000,0.000,0.000
1644926805048804096,2022-02-15-12:06:45,10.1.1.11,25,0.060,0.060,0.060,0.000,0.000,0.000
1644926805102117120,2022-02-15-12:06:45,10.1.1.11,34,0.070,0.070,0.070,0.000,0.000,0.000
1644926805141996032,2022-02-15-12:06:45,10.1.1.11,24,0.080,0.080,0.080,0.000,0.000,0.000
1644926805242053888,2022-02-15-12:06:45,10.1.1.11,22,0.100,0.100,0.100,0.000,0.000,0.000
1644926805302105856,2022-02-15-12:06:45,10.1.1.11,32,0.090,0.090,0.090,0.000,0.000,0.000
1644926805343593984,2022-02-15-12:06:45,10.1.1.11,21,0.080,0.080,0.080,0.000,0.000,0.000
1644926805401995008,2022-02-15-12:06:45,10.1.1.11,30,0.070,0.070,0.070,0.000,0.000,0.000
1644926805441894912,2022-02-15-12:06:45,10.1.1.11,20,0.060,0.060,0.060,0.000,0.000,0.000
1644926805501254912,2022-02-15-12:06:45,10.1.1.11,29,0.050,0.050,0.050,0.000,0.000,0.000
1644926805561873920,2022-02-15-12:06:45,10.1.1.11,38,0.040,0.040,0.040,0.000,0.000,0.000
1644926805601730048,2022-02-15-12:06:45,10.1.1.11,28,0.030,0.030,0.030,0.000,0.000,0.000
1644926805661649920,2022-02-15-12:06:45,10.1.1.11,37,0.020,0.020,0.020,0.000,0.000,0.000
1644926805705175040,2022-02-15-12:06:45,10.1.1.11,24,0.010,0.010,0.010,0.000,0.000,0.000
1644926805762043904,2022-02-15-12:06:45,10.1.1.11,33,0.000,0.000,0.000,0.000,0.000,0.000
1644926805806826240,2022-02-15-12:06:45,10.1.1.11,23,-0.010,-0.010,-0.010,0.000,0.000,0.000
1644926805861413888,2022-02-15-12:06:45,10.1.1.11,32,-0.020,-0.020,-0.020,0.000,0.000,0.000
1644926805901489920,2022-02-15-12:06:45,10.1.1.11,21,-0.030,-0.030,-0.030,0.000,0.000,0.000
1644926805962094080,2022-02-15-12:06:45,10.1.1.11,27,-0.040,-0.040,-0.040,0.000,0.000,0.000
1644926806024955136,2022-02-15-12:06:46,10.1.1.11,35,-0.050,-0.050,-0.050,0.000,0.000,0.000
1644926806062689024,2022-02-15-12:06:46,10.1.1.11,24,-0.060,-0.060,-0.060,0.000,0.000,0.000
1644926806121519104,2022-02-15-12:06:46,10.1.1.11,33,-0.070,-0.070,-0.070,0.000,0.000,0.000
1644926806166409984,2022-02-15-12:06:46,10.1.1.11,22,-0.080,-0.080,-0.080,0.000,0.000,0.000
1644926806225521152,2022-02-15-12:06:46,10.1.1.11,32,-0.090,-0.090,-0.090,0.000,0.000,0.000
1644926806261723904,2022-02-15-12:06:46,10.1.1.11,21,-0.100,-0.100,-0.100,0.000,0.000,0.000
1644926806322098944,2022-02-15-12:06:46,10.1.1.11,31,-0.090,-0.090,-0.090,0.000,0.000,0.000
1644926806361362944,2022-02-15-12:06:46,10.1.1.11,20,-0.080,-0.080,-0.080,0.000,0.000,0.000
1644926806421319936,2022-02-15-12:06:46,10.1.1.11,30,-0.070,-0.070,-0.070,0.000,0.000,0.000
1644926806461175040,2022-02-15-12:06:46,10.1.1.11,19,-0.060,-0.060,-0.060,0.000,0.000,0.000
1644926806521251840,2022-02-15-12:06:46,10.1.1.11,29,-0.050,-0.050,-0.050,0.000,0.000,0.000
1644926806581283072,2022-02-15-12:06:46,10.1.1.11,39,-0.040,-0.040,-0.040,0.000,0.000,0.000
1644926806622920960,2022-02-15-12:06:46,10.1.1.11,28,-0.030,-0.030,-0.030,0.000,0.000,0.000
1644926806681155072,2022-02-15-12:06:46,10.1.1.11,37,-0.020,-0.020,-0.020,0.000,0.000,0.000
1644926806721541888,2022-02-15-12:06:46,10.1.1.11,27,-0.010,-0.010,-0.010,0.000,0.000,0.000
1644926806781233920,2022-02-15-12:06:46,10.1.1.11,37,0.000,0.000,0.000,0.000,0.000,0.000
1644926806822336000,2022-02-15-12:06:46,10.1.1.11,26,0.010,0.010,0.010,0.000,0.000,0.000
1644926806881716992,2022-02-15-12:06:46,10.1.1.11,35,0.020,0.020,0.020,0.000,0.000,0.000
1644926806921825792,2022-02-15-12:06:46,10.1.1.11,25,0.030,0.030,0.030,0.000,0.000,0.000
1644926806981445120,2022-02-15-12:06:46,10.1.1.11,35,0.040,0.040,0.040,0.000,0.000,0.000
1644926807021486080,2022-02-15-12:06:47,10.1.1.11,24,0.050,0.050,0.050,0.000,0.000,0.000
1644926807082098944,2022-02-15-12:06:47,10.1.1.11,34,0.060,0.060,0.060,0.000,0.000,0.000
1644926807121691904,2022-02-15-12:06:47,10.1.1.11,23,0.070,0.070,0.070,0.000,0.000,0.000
1644926807181428992,2022-02-15-12:06:47,10.1.1.11,33,0.080,0.080,0.080,0.000,0.000,0.000
1644926807221426944,2022-02-15-12:06:47,10.1.1.11,22,0.090,0.090,0.090,0.000,0.000,0.000
1644926807281400064,2022-02-15-12:06:47,10.1.1.11,31,0.100,0.100,0.100,0.000,0.000,0.000
1644926807323656960,2022-02-15-12:06:47,10.1.1.11,20,0.090,0.090,0.090,0.000,0.000,0.000
1644926807382030848,2022-02-15-12:06:47,10.1.1.11,30,0.080,0.080,0.080,0.000,0.000,0.000
1644926807421617920,2022-02-15-12:06:47,10.1.1.11,19,0.070,0.070,0.070,0.000,0.000,0.000
1644926807482162944,2022-02-15-12:06:47,10.1.1.11,29,0.060,0.060,0.060,0.000,0.000,0.000
1644926807543365120,2022-02-15-12:06:47,10.1.1.11,38,0.050,0.050,0.050,0.000,0.000,0.000
1644926807582017024,2022-02-15-12:06:47,10.1.1.11,28,0.040,0.040,0.040,0.000,0.000,0.000
1644926807644432128,2022-02-15-12:06:47,10.1.1.11,37,0.030,0.030,0.030,0.000,0.000,0.000
1644926807682395904,2022-02-15-12:06:47,10.1.1.11,27,0.020,0.020,0.020,0.000,0.000,0.000
1644926807742189824,2022-02-15-12:06:47,10.1.1.11,36,0.010,0.010,0.010,0.000,0.000,0.000
1644926807781254912,2022-02-15-12:06:47,10.1.1.11,25,0.000,0.000,0.000,0.000,0.000,0.000
1644926807844263936,2022-02-15-12:06:47,10.1.1.11,34,-0.010,-0.010,-0.010,0.000,0.000,0.000
1644926807882057984,2022-02-15-12:06:47,10.1.1.11,23,-0.020,-0.020,-0.020,0.000,0.000,0.000
1644926807943965952,2022-02-15-12:06:47,10.1.1.11,24,-0.030,-0.030,-0.030,0.000,0.000,0.000
1644926808001848832,2022-02-15-12:06:48,10.1.1.11,34,-0.040,-0.040,-0.040,0.000,0.000,0.000
1644926808041421824,2022-02-15-12:06:48,10.1.1.11,23,-0.050,-0.050,-0.050,0.000,0.000,0.000
1644926808101922048,2022-02-15-12:06:48,10.1.1.11,32,-0.060,-0.060,-0.060,0.000,0.000,0.000
1644926808144391168,2022-02-15-12:06:48,10.1.1.11,22,-0.070,-0.070,-0.070,0.000,0.000,0.000
1644926808201244160,2022-02-15-12:06:48,10.1.1.11,32,-0.080,-0.080,-0.080,0.000,0.000,0.000
1644926808241459968,2022-02-15-12:06:48,10.1.1.11,21,-0.090,-0.090,-0.090,0.000,0.000,0.000
1644926808303180032,2022-02-15-12:06:48,10.1.1.11,31,-0.100,-0.100,-0.100,0.000,0.000,0.000
1644926808342395136,2022-02-15-12:06:48,10.1.1.11,20,-0.090,-0.090,-0.090,0.000,0.000,0.000
1644926808401645824,2022-02-15-12:06:48,10.1.1.11,29,-0.080,-0.080,-0.080,0.000,0.000,0.000
1644926808441682944,2022-02-15-12:06:48,10.1.1.11,19,-0.070,-0.070,-0.070,0.000,0.000,0.000
1644926808501231872,2022-02-15-12:06:48,10.1.1.11,29,-0.060,-0.060,-0.060,0.000,0.000,0.000
1644926808563115008,2022-02-15-12:06:48,10.1.1.11,38,-0.050,-0.050,-0.050,0.000,0.000,0.000
1644926808602217984,2022-02-15-12:06:48,10.1.1.11,28,-0.040,-0.040,-0.040,0.000,0.000,0.000
1644926808661832960,2022-02-15-12:06:48,10.1.1.11,37,-0.030,-0.030,-0.030,0.000,0.000,0.000
1644926808703982080,2022-02-15-12:06:48,10.1.1.11,27,-0.020,-0.020,-0.020,0.000,0.000,0.000
1644926808762195200,2022-02-15-12:06:48,10.1.1.11,36,-0.010,-0.010,-0.010,0.000,0.000,0.000
1644926808802757888,2022-02-15-12:06:48,10.1.1.11,26,0.000,0.000,0.000,0.000,0.000,0.000
1644926808863821056,2022-02-15-12:06:48,10.1.1.11,35,0.010,0.010,0.010,0.000,0.000,0.000
1644926808902021888,2022-02-15-12:06:48,10.1.1.11,25,0.020,0.020,0.020,0.000,0.000,0.000
1644926808962164992,2022-02-15-12:06:48,10.1.1.11,34,0.030,0.030,0.030,0.000,0.000,0.000
1644926809002387968,2022-02-15-12:06:49,10.1.1.11,23,0.040,0.040,0.040,0.000,0.000,0.000
1644926809063469824,2022-02-15-12:06:49,10.1.1.11,33,0.050,0.050,0.050,0.000,0.000,0.000
1644926809102404096,2022-02-15-12:06:49,10.1.1.11,22,0.060,0.060,0.060,0.000,0.000,0.000
1644926809161411072,2022-02-15-12:06:49,10.1.1.11,31,0.070,0.070,0.070,0.000,0.000,0.000
1644926809202080000,2022-02-15-12:06:49,10.1.1.11,20,0.080,0.080,0.080,0.000,0.000,0.000
1644926809261985024,2022-02-15-12:06:49,10.1.1.11,30,0.090,0.090,0.090,0.000,0.000,0.000
1644926809302691840,2022-02-15-12:06:49,10.1.1.11,19,0.100,0.100,0.100,0.000,0.000,0.000
1644926809362409216,2022-02-15-12:06:49,10.1.1.11,28,0.090,0.090,0.090,0.000,0.000,0.000
1644926809422354944,2022-02-15-12:06:49,10.1.1.11,37,0.080,0.080,0.080,0.000,0.000,0.000
1644926809462734080,2022-02-15-12:06:49,10.1.1.11,27,0.070,0.070,0.070,0.000,0.000,0.000
1644926809521702144,2022-02-15-12:06:49,10.1.1.11,36,0.060,0.060,0.060,0.000,0.000,0.000
1644926809561587968,2022-02-15-12:06:49,10.1.1.11,25,0.050,0.050,0.050,0.000,0.000,0.000
1644926809623652096,2022-02-15-12:06:49,10.1.1.11,34,0.040,0.040,0.040,0.000,0.000,0.000
1644926809663117824,2022-02-15-12:06:49,10.1.1.11,24,0.030,0.030,0.030,0.000,0.000,0.000
1644926809722078208,2022-02-15-12:06:49,10.1.1.11,33,0.020,0.020,0.020,0.000,0.000,0.000
1644926809763622144,2022-02-15-12:06:49,10.1.1.11,23,0.010,0.010,0.010,0.000,0.000,0.000
1644926809821688064,2022-02-15-12:06:49,10.1.1.11,32,0.000,0.000,0.000,0.000,0.000,0.000
1644926809861416192,2022-02-15-12:06:49,10.1.1.11,21,-0.010,-0.010,-0.010,0.000,0.000,0.000
1644926809922627840,2022-02-15-12:06:49,10.1.1.11,30,-0.020,-0.020,-0.020,0.000,0.000,0.000
1644926809981366016,2022-02-15-12:06:49,10.1.1.11,26,-0.030,-0.030,-0.030,0.000,0.000,0.000
1644926810046836992,2022-02-15-12:06:50,10.1.1.11,35,-0.040,-0.040,-0.040,0.000,0.000,0.000
1644926810083538176,2022-02-15-12:06:50,10.1.1.11,25,-0.050,-0.050,-0.050,0.000,0.000,0.000
1644926810146102016,2022-02-15-12:06:50,10.1.1.11,34,-0.060,-0.060,-0.060,0.000,0.000,0.000
1644926810182115072,2022-02-15-12:06:50,10.1.1.11,23,-0.070,-0.070,-0.070,0.000,0.000,0.000
1644926810244836096,2022-02-15-12:06:50,10.1.1.11,32,-0.080,-0.080,-0.080,0.000,0.000,0.000
1644926810283222016,2022-02-15-12:06:50,10.1.1.11,22,-0.090,-0.090,-0.090,0.000,0.000,0.000
1644926810342216960,2022-02-15-12:06:50,10.1.1.11,32,-0.100,-0.100,-0.100,0.000,0.000,0.000
1644926810381850880,2022-02-15-12:06:50,10.1.1.11,21,-0.090,-0.090,-0.090,0.000,0.000,0.000
1644926810441376000,2022-02-15-12:06:50,10.1.1.11,30,-0.080,-0.080,-0.080,0.000,0.000,0.000
1644926810481768960,2022-02-15-12:06:50,10.1.1.11,20,-0.070,-0.070,-0.070,0.000,0.000,0.000
1644926810541379072,2022-02-15-12:06:50,10.1.1.11,29,-0.060,-0.060,-0.060,0.000,0.000,0.000
1644926810581778176,2022-02-15-12:06:50,10.1.1.11,19,-0.051,-0.051,-0.051,0.000,0.000,0.000
1644926810642497024,2022-02-15-12:06:50,10.1.1.11,29,-0.040,-0.040,-0.040,0.000,0.000,0.000
1644926810703293952,2022-02-15-12:06:50,10.1.1.11,38,-0.030,-0.030,-0.030,0.000,0.000,0.000
1644926810741492992,2022-02-15-12:06:50,10.1.1.11,27,-0.020,-0.020,-0.020,0.000,0.000,0.000
1644926810810658048,2022-02-15-12:06:50,10.1.1.11,29,-0.010,-0.010,-0.010,0.000,0.000,0.000
1644926810861426176,2022-02-15-12:06:50,10.1.1.11,38,0.000,0.000,0.000,0.000,0.000,0.000
1644926810901324032,2022-02-15-12:06:50,10.1.1.11,27,0.010,0.010,0.010,0.000,0.000,0.000
1644926810962241792,2022-02-15-12:06:50,10.1.1.11,37,0.020,0.020,0.020,0.000,0.000,0.000
1644926811002350080,2022-02-15-12:06:51,10.1.1.11,26,0.030,0.030,0.030,0.000,0.000,0.000
1644926811061664000,2022-02-15-12:06:51,10.1.1.11,36,0.040,0.040,0.040,0.000,0.000,0.000
1644926811122017024,2022-02-15-12:06:51,10.1.1.11,39,0.050,0.050,0.050,0.000,0.000,0.000
1644926811162003968,2022-02-15-12:06:51,10.1.1.11,21,0.060,0.060,0.060,0.000,0.000,0.000
1644926811221987840,2022-02-15-12:06:51,10.1.1.11,31,0.070,0.070,0.070,0.000,0.000,0.000
1644926811261220864,2022-02-15-12:06:51,10.1.1.11,20,0.080,0.080,0.080,0.000,0.000,0.000
1644926811321551104,2022-02-15-12:06:51,10.1.1.11,29,0.090,0.090,0.090,0.000,0.000,0.000
1644926811362432000,2022-02-15-12:06:51,10.1.1.11,19,0.099,0.099,0.099,0.000,0.000,0.000
1644926811422312960,2022-02-15-12:06:51,10.1.1.11,28,0.090,0.090,0.090,0.000,0.000,0.000
1644926811481650176,2022-02-15-12:06:51,10.1.1.11,38,0.080,0.080,0.080,0.000,0.000,0.000
1644926811521725952,2022-02-15-12:06:51,10.1.1.11,26,0.070,0.070,0.070,0.000,0.000,0.000
1644926811581697024,2022-02-15-12:06:51,10.1.1.11,36,0.060,0.060,0.060,0.000,0.000,0.000
1644926811625519872,2022-02-15-12:06:51,10.1.1.11,26,0.050,0.050,0.050,0.000,0.000,0.000
1644926811701821184,2022-02-15-12:06:51,10.1.1.11,34,0.040,0.040,0.040,0.000,0.000,0.000
1644926811741426944,2022-02-15-12:06:51,10.1.1.11,23,0.030,0.030,0.030,0.000,0.000,0.000
1644926811801574912,2022-02-15-12:06:51,10.1.1.11,32,0.020,0.020,0.020,0.000,0.000,0.000
1644926811842423040,2022-02-15-12:06:51,10.1.1.11,21,0.010,0.010,0.010,0.000,0.000,0.000
1644926811901264896,2022-02-15-12:06:51,10.1.1.11,30,0.000,0.000,0.000,0.000,0.000,0.000
1644926811942401792,2022-02-15-12:06:51,10.1.1.11,20,-0.010,-0.010,-0.010,0.000,0.000,0.000
1644926812001168128,2022-02-15-12:06:52,10.1.1.11,29,-0.020,-0.020,-0.020,0.000,0.000,0.000
1644926812062827008,2022-02-15-12:06:52,10.1.1.11,38,-0.030,-0.030,-0.030,0.000,0.000,0.000
1644926812101957120,2022-02-15-12:06:52,10.1.1.11,28,-0.040,-0.040,-0.040,0.000,0.000,0.000
1644926812162003968,2022-02-15-12:06:52,10.1.1.11,37,-0.050,-0.050,-0.050,0.000,0.000,0.000
1644926812201236992,2022-02-15-12:06:52,10.1.1.11,26,-0.060,-0.060,-0.060,0.000,0.000,0.000
1644926812261357056,2022-02-15-12:06:52,10.1.1.11,36,-0.070,-0.070,-0.070,0.000,0.000,0.000
1644926812301340160,2022-02-15-12:06:52,10.1.1.11,25,-0.080,-0.080,-0.080,0.000,0.000,0.000
1644926812362360832,2022-02-15-12:06:52,10.1.1.11,35,-0.090,-0.090,-0.090,0.000,0.000,0.000
1644926812401700096,2022-02-15-12:06:52,10.1.1.11,22,-0.100,-0.100,-0.100,0.000,0.000,0.000
1644926812462224896,2022-02-15-12:06:52,10.1.1.11,32,-0.090,-0.090,-0.090,0.000,0.000,0.000
1644926812501257984,2022-02-15-12:06:52,10.1.1.11,20,-0.080,-0.080,-0.080,0.000,0.000,0.000
1644926812561724928,2022-02-15-12:06:52,10.1.1.11,29,-0.070,-0.070,-0.070,0.000,0.000,0.000
1644926812602042880,2022-02-15-12:06:52,10.1.1.11,19,-0.061,-0.061,-0.061,0.000,0.000,0.000
1644926812661572096,2022-02-15-12:06:52,10.1.1.11,28,-0.050,-0.050,-0.050,0.000,0.000,0.000
1644926812721883904,2022-02-15-12:06:52,10.1.1.11,37,-0.040,-0.040,-0.040,0.000,0.000,0.000
1644926812761859840,2022-02-15-12:06:52,10.1.1.11,27,-0.030,-0.030,-0.030,0.000,0.000,0.000
1644926812822084864,2022-02-15-12:06:52,10.1.1.11,36,-0.020,-0.020,-0.020,0.000,0.000,0.000
1644926812861256960,2022-02-15-12:06:52,10.1.1.11,24,-0.010,-0.010,-0.010,0.000,0.000,0.000
1644926812921371904,2022-02-15-12:06:52,10.1.1.11,33,0.000,0.000,0.000,0.000,0.000,0.000
1644926812962164992,2022-02-15-12:06:52,10.1.1.11,22,0.010,0.010,0.010,0.000,0.000,0.000
1644926813021893888,2022-02-15-12:06:53,10.1.1.11,32,0.020,0.020,0.020,0.000,0.000,0.000
1644926813061342976,2022-02-15-12:06:53,10.1.1.11,22,0.030,0.030,0.030,0.000,0.000,0.000
1644926813121982976,2022-02-15-12:06:53,10.1.1.11,30,0.040,0.040,0.040,0.000,0.000,0.000
1644926813162391040,2022-02-15-12:06:53,10.1.1.11,19,0.049,0.049,0.049,0.000,0.000,0.000
1644926813222643968,2022-02-15-12:06:53,10.1.1.11,27,0.060,0.060,0.060,0.000,0.000,0.000
1644926813282476800,2022-02-15-12:06:53,10.1.1.11,37,0.070,0.070,0.070,0.000,0.000,0.000
1644926813325409792,2022-02-15-12:06:53,10.1.1.11,21,0.080,0.080,0.080,0.000,0.000,0.000
1644926813381405952,2022-02-15-12:06:53,10.1.1.11,29,0.090,0.090,0.090,0.000,0.000,0.000
1644926813441384192,2022-02-15-12:06:53,10.1.1.11,36,0.100,0.100,0.100,0.000,0.000,0.000
1644926813486078976,2022-02-15-12:06:53,10.1.1.11,21,0.090,0.090,0.090,0.000,0.000,0.000
1644926813542124032,2022-02-15-12:06:53,10.1.1.11,27,0.080,0.080,0.080,0.000,0.000,0.000
1644926813601854976,2022-02-15-12:06:53,10.1.1.11,36,0.070,0.070,0.070,0.000,0.000,0.000
1644926813642923008,2022-02-15-12:06:53,10.1.1.11,25,0.060,0.060,0.060,0.000,0.000,0.000
1644926813701936128,2022-02-15-12:06:53,10.1.1.11,34,0.050,0.050,0.050,0.000,0.000,0.000
1644926813743681024,2022-02-15-12:06:53,10.1.1.11,22,0.040,0.040,0.040,0.000,0.000,0.000
1644926813801510144,2022-02-15-12:06:53,10.1.1.11,31,0.030,0.030,0.030,0.000,0.000,0.000
1644926813841366016,2022-02-15-12:06:53,10.1.1.11,20,0.020,0.020,0.020,0.000,0.000,0.000
1644926813901700864,2022-02-15-12:06:53,10.1.1.11,28,0.010,0.010,0.010,0.000,0.000,0.000
1644926813961684992,2022-02-15-12:06:53,10.1.1.11,37,0.000,0.000,0.000,0.000,0.000,0.000
1644926814002083072,2022-02-15-12:06:54,10.1.1.11,27,-0.010,-0.010,-0.010,0.000,0.000,0.000
1644926814061660928,2022-02-15-12:06:54,10.1.1.11,36,-0.020,-0.020,-0.020,0.000,0.000,0.000
1644926814103282944,2022-02-15-12:06:54,10.1.1.11,26,-0.030,-0.030,-0.030,0.000,0.000,0.000
1644926814162663936,2022-02-15-12:06:54,10.1.1.11,35,-0.040,-0.040,-0.040,0.000,0.000,0.000
1644926814281630976,2022-02-15-12:06:54,10.1.1.11,23,-0.060,-0.060,-0.060,0.000,0.000,0.000
1644926814342557952,2022-02-15-12:06:54,10.1.1.11,32,-0.070,-0.070,-0.070,0.000,0.000,0.000
1644926814381900032,2022-02-15-12:06:54,10.1.1.11,22,-0.080,-0.080,-0.080,0.000,0.000,0.000
1644926814441818112,2022-02-15-12:06:54,10.1.1.11,31,-0.090,-0.090,-0.090,0.000,0.000,0.000
1644926814483700992,2022-02-15-12:06:54,10.1.1.11,20,-0.100,-0.100,-0.100,0.000,0.000,0.000
1644926814542750976,2022-02-15-12:06:54,10.1.1.11,29,-0.090,-0.090,-0.090,0.000,0.000,0.000
1644926814582894080,2022-02-15-12:06:54,10.1.1.11,19,-0.081,-0.081,-0.081,0.000,0.000,0.000
1644926814641470976,2022-02-15-12:06:54,10.1.1.11,28,-0.070,-0.070,-0.070,0.000,0.000,0.000
1644926814701466112,2022-02-15-12:06:54,10.1.1.11,38,-0.060,-0.060,-0.060,0.000,0.000,0.000
1644926814742877952,2022-02-15-12:06:54,10.1.1.11,27,-0.050,-0.050,-0.050,0.000,0.000,0.000
1644926814801479168,2022-02-15-12:06:54,10.1.1.11,36,-0.040,-0.040,-0.040,0.000,0.000,0.000
1644926814841639936,2022-02-15-12:06:54,10.1.1.11,26,-0.030,-0.030,-0.030,0.000,0.000,0.000
1644926814901707776,2022-02-15-12:06:54,10.1.1.11,35,-0.020,-0.020,-0.020,0.000,0.000,0.000
1644926814943211008,2022-02-15-12:06:54,10.1.1.11,22,-0.010,-0.010,-0.010,0.000,0.000,0.000
1644926815002217984,2022-02-15-12:06:55,10.1.1.11,32,0.000,0.000,0.000,0.000,0.000,0.000
1644926815042016000,2022-02-15-12:06:55,10.1.1.11,21,0.010,0.010,0.010,0.000,0.000,0.000
1644926815101628160,2022-02-15-12:06:55,10.1.1.11,29,0.020,0.020,0.020,0.000,0.000,0.000
1644926815141990912,2022-02-15-12:06:55,10.1.1.11,19,0.029,0.029,0.029,0.000,0.000,0.000
1644926815201864960,2022-02-15-12:06:55,10.1.1.11,28,0.040,0.040,0.040,0.000,0.000,0.000
1644926815262141952,2022-02-15-12:06:55,10.1.1.11,37,0.050,0.050,0.050,0.000,0.000,0.000
1644926815302941952,2022-02-15-12:06:55,10.1.1.11,26,0.060,0.060,0.060,0.000,0.000,0.000
1644926815363883008,2022-02-15-12:06:55,10.1.1.11,35,0.070,0.070,0.070,0.000,0.000,0.000
1644926815406297856,2022-02-15-12:06:55,10.1.1.11,20,0.080,0.080,0.080,0.000,0.000,0.000
1644926815461499904,2022-02-15-12:06:55,10.1.1.11,27,0.090,0.090,0.090,0.000,0.000,0.000
1644926815522108928,2022-02-15-12:06:55,10.1.1.11,36,0.100,0.100,0.100,0.000,0.000,0.000
1644926815562132992,2022-02-15-12:06:55,10.1.1.11,25,0.090,0.090,0.090,0.000,0.000,0.000
1644926815622183936,2022-02-15-12:06:55,10.1.1.11,33,0.080,0.080,0.080,0.000,0.000,0.000
1644926815662256128,2022-02-15-12:06:55,10.1.1.11,22,0.070,0.070,0.070,0.000,0.000,0.000
1644926815722799104,2022-02-15-12:06:55,10.1.1.11,31,0.060,0.060,0.060,0.000,0.000,0.000
1644926815762557952,2022-02-15-12:06:55,10.1.1.11,20,0.050,0.050,0.050,0.000,0.000,0.000
1644926815822156800,2022-02-15-12:06:55,10.1.1.11,29,0.040,0.040,0.040,0.000,0.000,0.000
1644926815862020096,2022-02-15-12:06:55,10.1.1.11,19,0.031,0.031,0.031,0.000,0.000,0.000
1644926815922481152,2022-02-15-12:06:55,10.1.1.11,28,0.020,0.020,0.020,0.000,0.000,0.000
1644926815982383104,2022-02-15-12:06:55,10.1.1.11,37,0.010,0.010,0.010,0.000,0.000,0.000
1644926816022432000,2022-02-15-12:06:56,10.1.1.11,25,0.000,0.000,0.000,0.000,0.000,0.000
1644926816082403840,2022-02-15-12:06:56,10.1.1.11,26,-0.010,-0.010,-0.010,0.000,0.000,0.000
1644926816142808832,2022-02-15-12:06:56,10.1.1.11,35,-0.020,-0.020,-0.020,0.000,0.000,0.000
1644926816181469952,2022-02-15-12:06:56,10.1.1.11,24,-0.030,-0.030,-0.030,0.000,0.000,0.000
1644926816250116096,2022-02-15-12:06:56,10.1.1.11,31,-0.040,-0.040,-0.040,0.000,0.000,0.000
1644926816302426112,2022-02-15-12:06:56,10.1.1.11,27,-0.050,-0.050,-0.050,0.000,0.000,0.000
1644926816363660032,2022-02-15-12:06:56,10.1.1.11,35,-0.060,-0.060,-0.060,0.000,0.000,0.000
1644926816407567104,2022-02-15-12:06:56,10.1.1.11,25,-0.070,-0.070,-0.070,0.000,0.000,0.000
1644926816466927104,2022-02-15-12:06:56,10.1.1.11,32,-0.080,-0.080,-0.080,0.000,0.000,0.000
1644926816501938176,2022-02-15-12:06:56,10.1.1.11,20,-0.090,-0.090,-0.090,0.000,0.000,0.000
1644926816562098944,2022-02-15-12:06:56,10.1.1.11,28,-0.100,-0.100,-0.100,0.000,0.000,0.000
1644926816629959168,2022-02-15-12:06:56,10.1.1.11,28,-0.090,-0.090,-0.090,0.000,0.000,0.000
1644926816693991936,2022-02-15-12:06:56,10.1.1.11,30,-0.080,-0.080,-0.080,0.000,0.000,0.000
1644926816757463040,2022-02-15-12:06:56,10.1.1.11,38,-0.070,-0.070,-0.070,0.000,0.000,0.000
1644926816822513152,2022-02-15-12:06:56,10.1.1.11,29,-0.060,-0.060,-0.060,0.000,0.000,0.000
1644926816882066944,2022-02-15-12:06:56,10.1.1.11,38,-0.050,-0.050,-0.050,0.000,0.000,0.000
1644926816922849792,2022-02-15-12:06:56,10.1.1.11,27,-0.040,-0.040,-0.040,0.000,0.000,0.000
1644926816983202816,2022-02-15-12:06:56,10.1.1.11,36,-0.030,-0.030,-0.030,0.000,0.000,0.000
1644926817022817024,2022-02-15-12:06:57,10.1.1.11,26,-0.020,-0.020,-0.020,0.000,0.000,0.000
1644926817092535040,2022-02-15-12:06:57,10.1.1.11,27,-0.010,-0.010,-0.010,0.000,0.000,0.000
1644926817142072064,2022-02-15-12:06:57,10.1.1.11,37,0.000,0.000,0.000,0.000,0.000,0.000
1644926817182169856,2022-02-15-12:06:57,10.1.1.11,22,0.010,0.010,0.010,0.000,0.000,0.000
1644926817728112896,2022-02-15-12:06:57,10.1.1.11,31,0.020,0.020,0.020,0.000,0.000,0.000
1644926817783566848,2022-02-15-12:06:57,10.1.1.11,37,0.030,0.030,0.030,0.000,0.000,0.000
1644926817830925824,2022-02-15-12:06:57,10.1.1.11,25,0.040,0.040,0.040,0.000,0.000,0.000
1644926817881042944,2022-02-15-12:06:57,10.1.1.11,33,0.050,0.050,0.050,0.000,0.000,0.000
1644926817921298944,2022-02-15-12:06:57,10.1.1.11,22,0.060,0.060,0.060,0.000,0.000,0.000
1644926817981609984,2022-02-15-12:06:57,10.1.1.11,30,0.070,0.070,0.070,0.000,0.000,0.000
1644926818021342976,2022-02-15-12:06:58,10.1.1.11,19,0.079,0.079,0.079,0.000,0.000,0.000
1644926818081612032,2022-02-15-12:06:58,10.1.1.11,29,0.090,0.090,0.090,0.000,0.000,0.000
1644926818141841920,2022-02-15-12:06:58,10.1.1.11,33,0.100,0.100,0.100,0.000,0.000,0.000
1644926818182744064,2022-02-15-12:06:58,10.1.1.11,19,0.090,0.090,0.090,0.000,0.000,0.000
1644926818255131904,2022-02-15-12:06:58,10.1.1.11,29,0.080,0.080,0.080,0.000,0.000,0.000
1644926818342660864,2022-02-15-12:06:58,10.1.1.11,21,0.060,0.060,0.060,0.000,0.000,0.000
1644926818404230144,2022-02-15-12:06:58,10.1.1.11,30,0.050,0.050,0.050,0.000,0.000,0.000
1644926818441473024,2022-02-15-12:06:58,10.1.1.11,20,0.040,0.040,0.040,0.000,0.000,0.000
1644926818503379200,2022-02-15-12:06:58,10.1.1.11,30,0.030,0.030,0.030,0.000,0.000,0.000
1644926818541735936,2022-02-15-12:06:58,10.1.1.11,19,0.021,0.021,0.021,0.000,0.000,0.000
1644926818603440128,2022-02-15-12:06:58,10.1.1.11,28,0.010,0.010,0.010,0.000,0.000,0.000
1644926818664227072,2022-02-15-12:06:58,10.1.1.11,38,0.000,0.000,0.000,0.000,0.000,0.000
1644926818701337088,2022-02-15-12:06:58,10.1.1.11,26,-0.010,-0.010,-0.010,0.000,0.000,0.000
1644926818761299968,2022-02-15-12:06:58,10.1.1.11,36,-0.020,-0.020,-0.020,0.000,0.000,0.000
1644926818801295104,2022-02-15-12:06:58,10.1.1.11,25,-0.030,-0.030,-0.030,0.000,0.000,0.000
1644926818863336192,2022-02-15-12:06:58,10.1.1.11,35,-0.040,-0.040,-0.040,0.000,0.000,0.000
1644926818903553024,2022-02-15-12:06:58,10.1.1.11,25,-0.050,-0.050,-0.050,0.000,0.000,0.000
1644926818963060992,2022-02-15-12:06:58,10.1.1.11,34,-0.060,-0.060,-0.060,0.000,0.000,0.000
1644926819001664000,2022-02-15-12:06:59,10.1.1.11,24,-0.070,-0.070,-0.070,0.000,0.000,0.000
1644926819061618176,2022-02-15-12:06:59,10.1.1.11,32,-0.080,-0.080,-0.080,0.000,0.000,0.000
1644926819102486016,2022-02-15-12:06:59,10.1.1.11,22,-0.090,-0.090,-0.090,0.000,0.000,0.000
1644926819161819904,2022-02-15-12:06:59,10.1.1.11,31,-0.100,-0.100,-0.100,0.000,0.000,0.000
1644926819202022912,2022-02-15-12:06:59,10.1.1.11,20,-0.090,-0.090,-0.090,0.000,0.000,0.000
1644926819261730048,2022-02-15-12:06:59,10.1.1.11,29,-0.080,-0.080,-0.080,0.000,0.000,0.000
1644926819302817024,2022-02-15-12:06:59,10.1.1.11,19,-0.071,-0.071,-0.071,0.000,0.000,0.000
1644926819364876032,2022-02-15-12:06:59,10.1.1.11,27,-0.060,-0.060,-0.060,0.000,0.000,0.000
1644926819422152960,2022-02-15-12:06:59,10.1.1.11,36,-0.050,-0.050,-0.050,0.000,0.000,0.000
1644926819463712000,2022-02-15-12:06:59,10.1.1.11,25,-0.040,-0.040,-0.040,0.000,0.000,0.000
1644926819521460992,2022-02-15-12:06:59,10.1.1.11,35,-0.030,-0.030,-0.030,0.000,0.000,0.000
1644926819561943040,2022-02-15-12:06:59,10.1.1.11,22,-0.020,-0.020,-0.020,0.000,0.000,0.000
1644926819623176960,2022-02-15-12:06:59,10.1.1.11,31,-0.010,-0.010,-0.010,0.000,0.000,0.000
1644926819661772032,2022-02-15-12:06:59,10.1.1.11,20,0.000,0.000,0.000,0.000,0.000,0.000
1644926819724193024,2022-02-15-12:06:59,10.1.1.11,30,0.010,0.010,0.010,0.000,0.000,0.000
1644926819768419072,2022-02-15-12:06:59,10.1.1.11,20,0.020,0.020,0.020,0.000,0.000,0.000
1644926819823685888,2022-02-15-12:06:59,10.1.1.11,26,0.030,0.030,0.030,0.000,0.000,0.000
1644926819882196992,2022-02-15-12:06:59,10.1.1.11,35,0.040,0.040,0.040,0.000,0.000,0.000
1644926819921519872,2022-02-15-12:06:59,10.1.1.11,24,0.050,0.050,0.050,0.000,0.000,0.000
1644926819981775104,2022-02-15-12:06:59,10.1.1.11,34,0.060,0.060,0.060,0.000,0.000,0.000
1644926820021817856,2022-02-15-12:07:00,10.1.1.11,23,0.070,0.070,0.070,0.000,0.000,0.000
1644926820082055168,2022-02-15-12:07:00,10.1.1.11,32,0.080,0.080,0.080,0.000,0.000,0.000
1644926820122625024,2022-02-15-12:07:00,10.1.1.11,22,0.090,0.090,0.090,0.000,0.000,0.000
1644926820182040832,2022-02-15-12:07:00,10.1.1.11,31,0.100,0.100,0.100,0.000,0.000,0.000
1644926820223588096,2022-02-15-12:07:00,10.1.1.11,20,0.090,0.090,0.090,0.000,0.000,0.000
1644926820281681152,2022-02-15-12:07:00,10.1.1.11,30,0.080,0.080,0.080,0.000,0.000,0.000
1644926820324194048,2022-02-15-12:07:00,10.1.1.11,19,0.070,0.070,0.070,0.000,0.000,0.000
1644926820385714944,2022-02-15-12:07:00,10.1.1.11,29,0.060,0.060,0.060,0.000,0.000,0.000
1644926820422457088,2022-02-15-12:07:00,10.1.1.11,18,0.051,0.051,0.051,0.000,0.000,0.000
1644926820482830080,2022-02-15-12:07:00,10.1.1.11,27,0.040,0.040,0.040,0.000,0.000,0.000
1644926820542903040,2022-02-15-12:07:00,10.1.1.11,35,0.030,0.030,0.030,0.000,0.000,0.000
1644926820584301056,2022-02-15-12:07:00,10.1.1.11,24,0.020,0.020,0.020,0.000,0.000,0.000
1644926820641804032,2022-02-15-12:07:00,10.1.1.11,30,0.010,0.010,0.010,0.000,0.000,0.000
1644926820682398208,2022-02-15-12:07:00,10.1.1.11,20,0.000,0.000,0.000,0.000,0.000,0.000
1644926820743622144,2022-02-15-12:07:00,10.1.1.11,29,-0.010,-0.010,-0.010,0.000,0.000,0.000
1644926820802265856,2022-02-15-12:07:00,10.1.1.11,35,-0.020,-0.020,-0.020,0.000,0.000,0.000
1644926820842426112,2022-02-15-12:07:00,10.1.1.11,22,-0.030,-0.030,-0.030,0.000,0.000,0.000
1644926820903020032,2022-02-15-12:07:00,10.1.1.11,32,-0.040,-0.040,-0.040,0.000,0.000,0.000
1644926820943356160,2022-02-15-12:07:00,10.1.1.11,21,-0.050,-0.050,-0.050,0.000,0.000,0.000
1644926821003470848,2022-02-15-12:07:01,10.1.1.11,31,-0.060,-0.060,-0.060,0.000,0.000,0.000
1644926821042982144,2022-02-15-12:07:01,10.1.1.11,19,-0.069,-0.069,-0.069,0.000,0.000,0.000
1644926821103859968,2022-02-15-12:07:01,10.1.1.11,28,-0.080,-0.080,-0.080,0.000,0.000,0.000
1644926821164045056,2022-02-15-12:07:01,10.1.1.11,31,-0.090,-0.090,-0.090,0.000,0.000,0.000
1644926821202137856,2022-02-15-12:07:01,10.1.1.11,20,-0.100,-0.100,-0.100,0.000,0.000,0.000
1644926821261771008,2022-02-15-12:07:01,10.1.1.11,29,-0.090,-0.090,-0.090,0.000,0.000,0.000
1644926821303750144,2022-02-15-12:07:01,10.1.1.11,19,-0.080,-0.080,-0.080,0.000,0.000,0.000
1644926821362076160,2022-02-15-12:07:01,10.1.1.11,28,-0.070,-0.070,-0.070,0.000,0.000,0.000
1644926821422884096,2022-02-15-12:07:01,10.1.1.11,38,-0.060,-0.060,-0.060,0.000,0.000,0.000
1644926821461682176,2022-02-15-12:07:01,10.1.1.11,27,-0.050,-0.050,-0.050,0.000,0.000,0.000
1644926821522014976,2022-02-15-12:07:01,10.1.1.11,36,-0.040,-0.040,-0.040,0.000,0.000,0.000
1644926821562180096,2022-02-15-12:07:01,10.1.1.11,22,-0.030,-0.030,-0.030,0.000,0.000,0.000
1644926821623099136,2022-02-15-12:07:01,10.1.1.11,32,-0.020,-0.020,-0.020,0.000,0.000,0.000
1644926821661992960,2022-02-15-12:07:01,10.1.1.11,21,-0.010,-0.010,-0.010,0.000,0.000,0.000
1644926821722304000,2022-02-15-12:07:01,10.1.1.11,30,0.000,0.000,0.000,0.000,0.000,0.000
1644926821762188032,2022-02-15-12:07:01,10.1.1.11,19,0.010,0.010,0.010,0.000,0.000,0.000
1644926821823205888,2022-02-15-12:07:01,10.1.1.11,26,0.020,0.020,0.020,0.000,0.000,0.000
1644926821881457152,2022-02-15-12:07:01,10.1.1.11,35,0.030,0.030,0.030,0.000,0.000,0.000
1644926821922142976,2022-02-15-12:07:01,10.1.1.11,23,0.040,0.040,0.040,0.000,0.000,0.000
1644926821982755840,2022-02-15-12:07:01,10.1.1.11,32,0.050,0.050,0.050,0.000,0.000,0.000
1644926822021960960,2022-02-15-12:07:02,10.1.1.11,22,0.060,0.060,0.060,0.000,0.000,0.000
1644926822082092032,2022-02-15-12:07:02,10.1.1.11,32,0.070,0.070,0.070,0.000,0.000,0.000
1644926822121586176,2022-02-15-12:07:02,10.1.1.11,21,0.080,0.080,0.080,0.000,0.000,0.000
1644926822181862144,2022-02-15-12:07:02,10.1.1.11,31,0.090,0.090,0.090,0.000,0.000,0.000
1644926822222595840,2022-02-15-12:07:02,10.1.1.11,20,0.100,0.100,0.100,0.000,0.000,0.000
1644926822282191104,2022-02-15-12:07:02,10.1.1.11,30,0.090,0.090,0.090,0.000,0.000,0.000
1644926822322863104,2022-02-15-12:07:02,10.1.1.11,19,0.080,0.080,0.080,0.000,0.000,0.000
1644926822381910016,2022-02-15-12:07:02,10.1.1.11,28,0.070,0.070,0.070,0.000,0.000,0.000
1644926822442109184,2022-02-15-12:07:02,10.1.1.11,37,0.060,0.060,0.060,0.000,0.000,0.000
