FedericoMungari/DigitalTwin_service/01_WiredScenario/Output/Output_script/script_rosapi_2_output_robots8_freq0_2.txt
timestamp,date,node,latency,joint_1,joint_2,joint_3,joint_4,joint_5,joint_6
1644915519051528960,2022-02-15-08:58:39,10.1.1.3,11,-0.100,-0.100,-0.100,-0.000,0.000,0.000
1644915519171452160,2022-02-15-08:58:39,10.1.1.3,28,-0.080,-0.080,-0.080,0.000,0.000,-0.000
1644915519231890944,2022-02-15-08:58:39,10.1.1.3,37,-0.070,-0.070,-0.070,0.000,0.000,0.000
1644915519271471872,2022-02-15-08:58:39,10.1.1.3,27,-0.060,-0.060,-0.060,0.000,0.000,0.000
1644915519331634944,2022-02-15-08:58:39,10.1.1.3,36,-0.050,-0.050,-0.050,0.000,0.000,0.000
1644915519372365824,2022-02-15-08:58:39,10.1.1.3,25,-0.040,-0.040,-0.040,0.000,0.000,0.000
1644915519431976192,2022-02-15-08:58:39,10.1.1.3,34,-0.030,-0.030,-0.030,0.000,0.000,0.000
1644915519471833856,2022-02-15-08:58:39,10.1.1.3,24,-0.020,-0.020,-0.020,0.000,0.000,0.000
1644915519531181056,2022-02-15-08:58:39,10.1.1.3,33,-0.010,-0.010,-0.010,0.000,0.000,0.000
1644915519571496960,2022-02-15-08:58:39,10.1.1.3,23,0.000,0.000,0.000,0.000,0.000,0.000
1644915519791704832,2022-02-15-08:58:39,10.1.1.3,39,0.040,0.040,0.040,0.000,0.000,0.000
1644915519831891968,2022-02-15-08:58:39,10.1.1.3,28,0.050,0.050,0.050,0.000,0.000,0.000
1644915519892108800,2022-02-15-08:58:39,10.1.1.3,38,0.060,0.060,0.060,0.000,0.000,0.000
1644915519931735040,2022-02-15-08:58:39,10.1.1.3,26,0.070,0.070,0.070,0.000,0.000,0.000
1644915519991933952,2022-02-15-08:58:39,10.1.1.3,36,0.080,0.080,0.080,0.000,0.000,0.000
1644915520031675136,2022-02-15-08:58:40,10.1.1.3,25,0.090,0.090,0.090,0.000,0.000,0.000
1644915520093318912,2022-02-15-08:58:40,10.1.1.3,34,0.100,0.100,0.100,0.000,0.000,0.000
1644915520132141056,2022-02-15-08:58:40,10.1.1.3,24,0.090,0.090,0.090,0.000,0.000,0.000
1644915520191905024,2022-02-15-08:58:40,10.1.1.3,33,0.080,0.080,0.080,0.000,0.000,0.000
1644915520366208000,2022-02-15-08:58:40,10.1.1.3,37,0.050,0.050,0.050,0.000,0.000,0.000
1644915520511332096,2022-02-15-08:58:40,10.1.1.3,38,0.020,0.020,0.020,0.000,0.000,0.000
1644915520551410944,2022-02-15-08:58:40,10.1.1.3,28,0.010,0.010,0.010,0.000,0.000,0.000
1644915520611738880,2022-02-15-08:58:40,10.1.1.3,36,0.000,0.000,0.000,0.000,0.000,0.000
1644915520652044032,2022-02-15-08:58:40,10.1.1.3,25,-0.010,-0.010,-0.010,0.000,0.000,0.000
1644915520711427840,2022-02-15-08:58:40,10.1.1.3,35,-0.020,-0.020,-0.020,0.000,0.000,0.000
1644915520752029952,2022-02-15-08:58:40,10.1.1.3,25,-0.030,-0.030,-0.030,0.000,0.000,0.000
1644915520812256000,2022-02-15-08:58:40,10.1.1.3,34,-0.040,-0.040,-0.040,0.000,0.000,0.000
1644915520851666944,2022-02-15-08:58:40,10.1.1.3,23,-0.050,-0.050,-0.050,0.000,0.000,0.000
1644915520911546880,2022-02-15-08:58:40,10.1.1.3,33,-0.060,-0.060,-0.060,0.000,0.000,0.000
1644915521172857088,2022-02-15-08:58:41,10.1.1.3,39,-0.090,-0.090,-0.090,0.000,0.000,0.000
1644915521211769088,2022-02-15-08:58:41,10.1.1.3,28,-0.080,-0.080,-0.080,0.000,0.000,0.000
1644915521272082944,2022-02-15-08:58:41,10.1.1.3,38,-0.070,-0.070,-0.070,0.000,0.000,0.000
1644915521311923968,2022-02-15-08:58:41,10.1.1.3,27,-0.060,-0.060,-0.060,0.000,0.000,0.000
1644915521372041984,2022-02-15-08:58:41,10.1.1.3,36,-0.050,-0.050,-0.050,0.000,0.000,0.000
1644915521411982080,2022-02-15-08:58:41,10.1.1.3,25,-0.040,-0.040,-0.040,0.000,0.000,0.000
1644915521471582976,2022-02-15-08:58:41,10.1.1.3,35,-0.030,-0.030,-0.030,0.000,0.000,0.000
1644915521511976960,2022-02-15-08:58:41,10.1.1.3,25,-0.020,-0.020,-0.020,0.000,0.000,0.000
1644915521571407104,2022-02-15-08:58:41,10.1.1.3,33,-0.010,-0.010,-0.010,0.000,0.000,0.000
1644915521772037888,2022-02-15-08:58:41,10.1.1.3,28,0.030,0.030,0.030,0.000,0.000,0.000
1644915521832428032,2022-02-15-08:58:41,10.1.1.3,38,0.040,0.040,0.040,0.000,0.000,0.000
1644915521872549120,2022-02-15-08:58:41,10.1.1.3,27,0.050,0.050,0.050,0.000,0.000,0.000
1644915521932033024,2022-02-15-08:58:41,10.1.1.3,36,0.060,0.060,0.060,0.000,0.000,0.000
1644915521972724992,2022-02-15-08:58:41,10.1.1.3,26,0.070,0.070,0.070,0.000,0.000,0.000
1644915522032762880,2022-02-15-08:58:42,10.1.1.3,36,0.080,0.080,0.080,0.000,0.000,0.000
1644915522072130816,2022-02-15-08:58:42,10.1.1.3,25,0.090,0.090,0.090,0.000,0.000,0.000
1644915522131511040,2022-02-15-08:58:42,10.1.1.3,35,0.100,0.100,0.100,0.000,0.000,0.000
1644915522172025856,2022-02-15-08:58:42,10.1.1.3,25,0.090,0.090,0.090,0.000,0.000,0.000
1644915522231674880,2022-02-15-08:58:42,10.1.1.3,34,0.080,0.080,0.080,0.000,0.000,0.000
1644915522431078912,2022-02-15-08:58:42,10.1.1.3,28,0.040,0.040,0.040,0.000,0.000,0.000
1644915522495588096,2022-02-15-08:58:42,10.1.1.3,38,0.030,0.030,0.030,0.000,0.000,0.000
1644915522557658880,2022-02-15-08:58:42,10.1.1.3,36,0.020,0.020,0.020,0.000,0.000,0.000
1644915522592536064,2022-02-15-08:58:42,10.1.1.3,25,0.010,0.010,0.010,0.000,0.000,0.000
1644915522651768832,2022-02-15-08:58:42,10.1.1.3,34,0.000,0.000,0.000,0.000,0.000,0.000
1644915522692653824,2022-02-15-08:58:42,10.1.1.3,24,-0.010,-0.010,-0.010,0.000,0.000,0.000
1644915522911650816,2022-02-15-08:58:42,10.1.1.3,37,-0.050,-0.050,-0.050,0.000,0.000,0.000
1644915522951672064,2022-02-15-08:58:42,10.1.1.3,27,-0.060,-0.060,-0.060,0.000,0.000,0.000
1644915523014048000,2022-02-15-08:58:43,10.1.1.3,37,-0.070,-0.070,-0.070,0.000,0.000,0.000
1644915523051301888,2022-02-15-08:58:43,10.1.1.3,26,-0.080,-0.080,-0.080,0.000,0.000,0.000
1644915523112857088,2022-02-15-08:58:43,10.1.1.3,35,-0.090,-0.090,-0.090,0.000,0.000,0.000
1644915523152093952,2022-02-15-08:58:43,10.1.1.3,24,-0.100,-0.100,-0.100,0.000,0.000,0.000
1644915523212177920,2022-02-15-08:58:43,10.1.1.3,33,-0.090,-0.090,-0.090,0.000,0.000,0.000
1644915523371256064,2022-02-15-08:58:43,10.1.1.3,39,-0.060,-0.060,-0.060,0.000,0.000,0.000
1644915523412122112,2022-02-15-08:58:43,10.1.1.3,29,-0.050,-0.050,-0.050,0.000,0.000,0.000
1644915523471260928,2022-02-15-08:58:43,10.1.1.3,37,-0.040,-0.040,-0.040,0.000,0.000,0.000
1644915523512096768,2022-02-15-08:58:43,10.1.1.3,27,-0.030,-0.030,-0.030,0.000,0.000,0.000
1644915523571065856,2022-02-15-08:58:43,10.1.1.3,37,-0.020,-0.020,-0.020,0.000,0.000,0.000
1644915523612329984,2022-02-15-08:58:43,10.1.1.3,26,-0.010,-0.010,-0.010,0.000,0.000,0.000
1644915523671463936,2022-02-15-08:58:43,10.1.1.3,36,0.000,0.000,0.000,0.000,0.000,0.000
1644915523711739136,2022-02-15-08:58:43,10.1.1.3,25,0.010,0.010,0.010,0.000,0.000,0.000
1644915523773739008,2022-02-15-08:58:43,10.1.1.3,35,0.020,0.020,0.020,0.000,0.000,0.000
1644915523812144896,2022-02-15-08:58:43,10.1.1.3,24,0.030,0.030,0.030,0.000,0.000,0.000
1644915523872524032,2022-02-15-08:58:43,10.1.1.3,34,0.040,0.040,0.040,0.000,0.000,0.000
1644915523911660032,2022-02-15-08:58:43,10.1.1.3,23,0.050,0.050,0.050,0.000,0.000,0.000
1644915523970694912,2022-02-15-08:58:43,10.1.1.3,33,0.060,0.060,0.060,0.000,0.000,0.000
1644915524231719936,2022-02-15-08:58:44,10.1.1.3,39,0.090,0.090,0.090,0.000,0.000,0.000
1644915524271568896,2022-02-15-08:58:44,10.1.1.3,27,0.080,0.080,0.080,0.000,0.000,0.000
1644915524332144128,2022-02-15-08:58:44,10.1.1.3,37,0.070,0.070,0.070,0.000,0.000,0.000
1644915524372162048,2022-02-15-08:58:44,10.1.1.3,26,0.060,0.060,0.060,0.000,0.000,0.000
1644915524431859968,2022-02-15-08:58:44,10.1.1.3,36,0.050,0.050,0.050,0.000,0.000,0.000
1644915524471218176,2022-02-15-08:58:44,10.1.1.3,25,0.040,0.040,0.040,0.000,0.000,0.000
1644915524533989888,2022-02-15-08:58:44,10.1.1.3,34,0.030,0.030,0.030,0.000,0.000,0.000
1644915524572087040,2022-02-15-08:58:44,10.1.1.3,24,0.020,0.020,0.020,0.000,0.000,0.000
1644915524634063872,2022-02-15-08:58:44,10.1.1.3,33,0.010,0.010,0.010,0.000,0.000,0.000
1644915524670811904,2022-02-15-08:58:44,10.1.1.3,23,0.000,0.000,0.000,0.000,0.000,0.000
1644915524830950144,2022-02-15-08:58:44,10.1.1.3,29,-0.030,-0.030,-0.030,0.000,0.000,0.000
1644915524891747072,2022-02-15-08:58:44,10.1.1.3,38,-0.040,-0.040,-0.040,0.000,0.000,0.000
1644915524930984960,2022-02-15-08:58:44,10.1.1.3,28,-0.050,-0.050,-0.050,0.000,0.000,0.000
1644915524990979840,2022-02-15-08:58:44,10.1.1.3,38,-0.060,-0.060,-0.060,0.000,0.000,0.000
1644915525031245824,2022-02-15-08:58:45,10.1.1.3,27,-0.070,-0.070,-0.070,0.000,0.000,0.000
1644915525091334144,2022-02-15-08:58:45,10.1.1.3,37,-0.080,-0.080,-0.080,0.000,0.000,0.000
1644915525131380992,2022-02-15-08:58:45,10.1.1.3,26,-0.090,-0.090,-0.090,0.000,0.000,0.000
1644915525191653888,2022-02-15-08:58:45,10.1.1.3,36,-0.100,-0.100,-0.100,0.000,0.000,0.000
1644915525232940800,2022-02-15-08:58:45,10.1.1.3,25,-0.090,-0.090,-0.090,0.000,0.000,0.000
1644915525292104960,2022-02-15-08:58:45,10.1.1.3,35,-0.080,-0.080,-0.080,0.000,0.000,0.000
1644915525331710208,2022-02-15-08:58:45,10.1.1.3,25,-0.070,-0.070,-0.070,0.000,0.000,0.000
1644915525391926016,2022-02-15-08:58:45,10.1.1.3,33,-0.060,-0.060,-0.060,0.000,0.000,0.000
1644915525431297024,2022-02-15-08:58:45,10.1.1.3,23,-0.050,-0.050,-0.050,0.000,0.000,0.000
1644915525751301888,2022-02-15-08:58:45,10.1.1.3,39,0.010,0.010,0.010,0.000,0.000,0.000
1644915525791040000,2022-02-15-08:58:45,10.1.1.3,28,0.020,0.020,0.020,0.000,0.000,0.000
1644915525853202944,2022-02-15-08:58:45,10.1.1.3,37,0.030,0.030,0.030,0.000,0.000,0.000
1644915525891732992,2022-02-15-08:58:45,10.1.1.3,27,0.040,0.040,0.040,0.000,0.000,0.000
1644915525952382976,2022-02-15-08:58:45,10.1.1.3,37,0.050,0.050,0.050,0.000,0.000,0.000
1644915525992232960,2022-02-15-08:58:45,10.1.1.3,26,0.060,0.060,0.060,0.000,0.000,0.000
1644915526053314816,2022-02-15-08:58:46,10.1.1.3,35,0.070,0.070,0.070,0.000,0.000,0.000
1644915526090918912,2022-02-15-08:58:46,10.1.1.3,25,0.080,0.080,0.080,0.000,0.000,0.000
1644915526151132160,2022-02-15-08:58:46,10.1.1.3,34,0.090,0.090,0.090,0.000,0.000,0.000
1644915526191790080,2022-02-15-08:58:46,10.1.1.3,24,0.100,0.100,0.100,0.000,0.000,0.000
1644915526252322816,2022-02-15-08:58:46,10.1.1.3,33,0.090,0.090,0.090,0.000,0.000,0.000
1644915526451764224,2022-02-15-08:58:46,10.1.1.3,29,0.050,0.050,0.050,0.000,0.000,0.000
1644915526510813952,2022-02-15-08:58:46,10.1.1.3,38,0.040,0.040,0.040,0.000,0.000,0.000
1644915526551976960,2022-02-15-08:58:46,10.1.1.3,28,0.030,0.030,0.030,0.000,0.000,0.000
1644915526614214912,2022-02-15-08:58:46,10.1.1.3,36,0.020,0.020,0.020,0.000,0.000,0.000
1644915526653229056,2022-02-15-08:58:46,10.1.1.3,26,0.010,0.010,0.010,0.000,0.000,0.000
1644915526712289024,2022-02-15-08:58:46,10.1.1.3,35,0.000,0.000,0.000,0.000,0.000,0.000
1644915526751867136,2022-02-15-08:58:46,10.1.1.3,24,-0.010,-0.010,-0.010,0.000,0.000,0.000
1644915526812172032,2022-02-15-08:58:46,10.1.1.3,34,-0.020,-0.020,-0.020,0.000,0.000,0.000
1644915526991547136,2022-02-15-08:58:46,10.1.1.3,28,-0.050,-0.050,-0.050,0.000,0.000,0.000
1644915527051377920,2022-02-15-08:58:47,10.1.1.3,38,-0.060,-0.060,-0.060,0.000,0.000,0.000
1644915527093513984,2022-02-15-08:58:47,10.1.1.3,27,-0.070,-0.070,-0.070,0.000,0.000,0.000
1644915527153011200,2022-02-15-08:58:47,10.1.1.3,36,-0.080,-0.080,-0.080,0.000,0.000,0.000
1644915527191127040,2022-02-15-08:58:47,10.1.1.3,26,-0.090,-0.090,-0.090,0.000,0.000,0.000
1644915527253220096,2022-02-15-08:58:47,10.1.1.3,35,-0.100,-0.100,-0.100,0.000,0.000,0.000
1644915527293193216,2022-02-15-08:58:47,10.1.1.3,24,-0.090,-0.090,-0.090,0.000,0.000,0.000
1644915527551367936,2022-02-15-08:58:47,10.1.1.3,29,-0.040,-0.040,-0.040,0.000,0.000,0.000
1644915527611334144,2022-02-15-08:58:47,10.1.1.3,39,-0.030,-0.030,-0.030,0.000,0.000,0.000
1644915527711904000,2022-02-15-08:58:47,10.1.1.3,37,-0.010,-0.010,-0.010,0.000,0.000,0.000
1644915527751773184,2022-02-15-08:58:47,10.1.1.3,27,0.000,0.000,0.000,0.000,0.000,0.000
1644915527812418816,2022-02-15-08:58:47,10.1.1.3,36,0.010,0.010,0.010,0.000,0.000,0.000
1644915527851567104,2022-02-15-08:58:47,10.1.1.3,26,0.020,0.020,0.020,0.000,0.000,0.000
1644915527912760064,2022-02-15-08:58:47,10.1.1.3,35,0.030,0.030,0.030,0.000,0.000,0.000
1644915527952732928,2022-02-15-08:58:47,10.1.1.3,25,0.040,0.040,0.040,0.000,0.000,0.000
1644915528014010880,2022-02-15-08:58:48,10.1.1.3,34,0.050,0.050,0.050,0.000,0.000,0.000
1644915528053740032,2022-02-15-08:58:48,10.1.1.3,24,0.060,0.060,0.060,0.000,0.000,0.000
1644915528111936000,2022-02-15-08:58:48,10.1.1.3,34,0.070,0.070,0.070,0.000,0.000,0.000
1644915528391813120,2022-02-15-08:58:48,10.1.1.3,9,0.070,0.070,0.070,0.000,0.000,0.000
1644915528471697920,2022-02-15-08:58:48,10.1.1.3,38,0.060,0.060,0.060,0.000,0.000,0.000
1644915528511629056,2022-02-15-08:58:48,10.1.1.3,27,0.050,0.050,0.050,0.000,0.000,0.000
1644915528571304192,2022-02-15-08:58:48,10.1.1.3,37,0.040,0.040,0.040,0.000,0.000,0.000
1644915528611931136,2022-02-15-08:58:48,10.1.1.3,26,0.030,0.030,0.030,0.000,0.000,0.000
1644915528673306112,2022-02-15-08:58:48,10.1.1.3,36,0.020,0.020,0.020,0.000,0.000,0.000
1644915528711503104,2022-02-15-08:58:48,10.1.1.3,25,0.010,0.010,0.010,0.000,0.000,0.000
1644915528770934016,2022-02-15-08:58:48,10.1.1.3,35,0.000,0.000,0.000,0.000,0.000,0.000
1644915528812040192,2022-02-15-08:58:48,10.1.1.3,24,-0.010,-0.010,-0.010,0.000,0.000,0.000
1644915528871911936,2022-02-15-08:58:48,10.1.1.3,34,-0.020,-0.020,-0.020,0.000,0.000,0.000
1644915528912024064,2022-02-15-08:58:48,10.1.1.3,23,-0.030,-0.030,-0.030,0.000,0.000,0.000
1644915529373511168,2022-02-15-08:58:49,10.1.1.3,29,-0.080,-0.080,-0.080,0.000,0.000,0.000
1644915529434840832,2022-02-15-08:58:49,10.1.1.3,37,-0.070,-0.070,-0.070,0.000,0.000,0.000
1644915529470988032,2022-02-15-08:58:49,10.1.1.3,25,-0.060,-0.060,-0.060,0.000,0.000,0.000
1644915529531672064,2022-02-15-08:58:49,10.1.1.3,35,-0.050,-0.050,-0.050,0.000,0.000,0.000
1644915529571887104,2022-02-15-08:58:49,10.1.1.3,24,-0.040,-0.040,-0.040,0.000,0.000,0.000
1644915529631846912,2022-02-15-08:58:49,10.1.1.3,33,-0.030,-0.030,-0.030,0.000,0.000,0.000
1644915530033089024,2022-02-15-08:58:50,10.1.1.3,29,0.050,0.050,0.050,0.000,0.000,0.000
1644915530091324160,2022-02-15-08:58:50,10.1.1.3,38,0.060,0.060,0.060,0.000,0.000,0.000
1644915530131695872,2022-02-15-08:58:50,10.1.1.3,28,0.070,0.070,0.070,0.000,0.000,0.000
1644915530191559936,2022-02-15-08:58:50,10.1.1.3,37,0.080,0.080,0.080,0.000,0.000,0.000
1644915530230968064,2022-02-15-08:58:50,10.1.1.3,27,0.090,0.090,0.090,0.000,0.000,0.000
1644915530290930944,2022-02-15-08:58:50,10.1.1.3,36,0.100,0.100,0.100,0.000,0.000,0.000
1644915530331335936,2022-02-15-08:58:50,10.1.1.3,26,0.090,0.090,0.090,0.000,0.000,0.000
1644915530391448064,2022-02-15-08:58:50,10.1.1.3,36,0.080,0.080,0.080,0.000,0.000,0.000
1644915530431853056,2022-02-15-08:58:50,10.1.1.3,25,0.070,0.070,0.070,0.000,0.000,0.000
1644915530493940992,2022-02-15-08:58:50,10.1.1.3,34,0.060,0.060,0.060,0.000,0.000,0.000
1644915530532274944,2022-02-15-08:58:50,10.1.1.3,23,0.050,0.050,0.050,0.000,0.000,0.000
1644915530593344000,2022-02-15-08:58:50,10.1.1.3,33,0.040,0.040,0.040,0.000,0.000,0.000
1644915530930962176,2022-02-15-08:58:50,10.1.1.3,19,-0.030,-0.030,-0.030,0.000,0.000,0.000
1644915530991172096,2022-02-15-08:58:50,10.1.1.3,28,-0.040,-0.040,-0.040,0.000,0.000,0.000
1644915531051832832,2022-02-15-08:58:51,10.1.1.3,37,-0.050,-0.050,-0.050,0.000,0.000,0.000
1644915531092638976,2022-02-15-08:58:51,10.1.1.3,27,-0.060,-0.060,-0.060,0.000,0.000,0.000
1644915531152959232,2022-02-15-08:58:51,10.1.1.3,37,-0.070,-0.070,-0.070,0.000,0.000,0.000
1644915531192549888,2022-02-15-08:58:51,10.1.1.3,26,-0.080,-0.080,-0.080,0.000,0.000,0.000
1644915531252749056,2022-02-15-08:58:51,10.1.1.3,36,-0.090,-0.090,-0.090,0.000,0.000,0.000
1644915531294331904,2022-02-15-08:58:51,10.1.1.3,25,-0.100,-0.100,-0.100,0.000,0.000,0.000
1644915531352680960,2022-02-15-08:58:51,10.1.1.3,34,-0.090,-0.090,-0.090,0.000,0.000,0.000
1644915531392395008,2022-02-15-08:58:51,10.1.1.3,24,-0.080,-0.080,-0.080,0.000,0.000,0.000
1644915531454042880,2022-02-15-08:58:51,10.1.1.3,33,-0.070,-0.070,-0.070,0.000,0.000,0.000
1644915531711883008,2022-02-15-08:58:51,10.1.1.3,38,-0.020,-0.020,-0.020,0.000,0.000,0.000
1644915531751868928,2022-02-15-08:58:51,10.1.1.3,27,-0.010,-0.010,-0.010,0.000,0.000,0.000
1644915531811419136,2022-02-15-08:58:51,10.1.1.3,37,0.000,0.000,0.000,0.000,0.000,0.000
1644915531851756032,2022-02-15-08:58:51,10.1.1.3,26,0.010,0.010,0.010,0.000,0.000,0.000
1644915531913878016,2022-02-15-08:58:51,10.1.1.3,35,0.020,0.020,0.020,0.000,0.000,0.000
1644915531951291136,2022-02-15-08:58:51,10.1.1.3,23,0.030,0.030,0.030,0.000,0.000,0.000
1644915532172729856,2022-02-15-08:58:52,10.1.1.3,39,0.070,0.070,0.070,0.000,0.000,0.000
1644915532211447040,2022-02-15-08:58:52,10.1.1.3,28,0.080,0.080,0.080,0.000,0.000,0.000
1644915532271648768,2022-02-15-08:58:52,10.1.1.3,38,0.090,0.090,0.090,0.000,0.000,0.000
1644915532311450880,2022-02-15-08:58:52,10.1.1.3,27,0.100,0.100,0.100,0.000,0.000,0.000
1644915532371926016,2022-02-15-08:58:52,10.1.1.3,36,0.090,0.090,0.090,0.000,0.000,0.000
1644915532411555072,2022-02-15-08:58:52,10.1.1.3,26,0.080,0.080,0.080,0.000,0.000,0.000
1644915532471898112,2022-02-15-08:58:52,10.1.1.3,35,0.070,0.070,0.070,0.000,0.000,0.000
1644915532511840000,2022-02-15-08:58:52,10.1.1.3,25,0.060,0.060,0.060,0.000,0.000,0.000
1644915532571451904,2022-02-15-08:58:52,10.1.1.3,33,0.050,0.050,0.050,0.000,0.000,0.000
1644915532732870144,2022-02-15-08:58:52,10.1.1.3,40,0.020,0.020,0.020,0.000,0.000,0.000
1644915532772635904,2022-02-15-08:58:52,10.1.1.3,28,0.010,0.010,0.010,0.000,0.000,0.000
1644915532831510016,2022-02-15-08:58:52,10.1.1.3,37,0.000,0.000,0.000,0.000,0.000,0.000
1644915532871852032,2022-02-15-08:58:52,10.1.1.3,25,-0.010,-0.010,-0.010,0.000,0.000,0.000
1644915532931209984,2022-02-15-08:58:52,10.1.1.3,34,-0.020,-0.020,-0.020,0.000,0.000,0.000
1644915532974059008,2022-02-15-08:58:52,10.1.1.3,24,-0.030,-0.030,-0.030,0.000,0.000,0.000
1644915533031410944,2022-02-15-08:58:53,10.1.1.3,33,-0.040,-0.040,-0.040,0.000,0.000,0.000
1644915533235136000,2022-02-15-08:58:53,10.1.1.3,28,-0.080,-0.080,-0.080,0.000,0.000,0.000
1644915533293713920,2022-02-15-08:58:53,10.1.1.3,38,-0.090,-0.090,-0.090,0.000,0.000,0.000
1644915533334286080,2022-02-15-08:58:53,10.1.1.3,27,-0.100,-0.100,-0.100,0.000,0.000,0.000
1644915533392278784,2022-02-15-08:58:53,10.1.1.3,36,-0.090,-0.090,-0.090,0.000,0.000,0.000
1644915533433157888,2022-02-15-08:58:53,10.1.1.3,25,-0.080,-0.080,-0.080,0.000,0.000,0.000
1644915533494326016,2022-02-15-08:58:53,10.1.1.3,35,-0.070,-0.070,-0.070,0.000,0.000,0.000
1644915533722987008,2022-02-15-08:58:53,10.1.1.3,26,-0.030,-0.030,-0.030,0.000,0.000,0.000
1644915533805314048,2022-02-15-08:58:53,10.1.1.3,38,-0.020,-0.020,-0.020,0.000,0.000,0.000
1644915533851126016,2022-02-15-08:58:53,10.1.1.3,29,-0.010,-0.010,-0.010,0.000,0.000,0.000
1644915533951766016,2022-02-15-08:58:53,10.1.1.3,23,0.010,0.010,0.010,0.000,0.000,0.000
1644915534112112896,2022-02-15-08:58:54,10.1.1.3,27,0.040,0.040,0.040,0.000,0.000,0.000
1644915534170993920,2022-02-15-08:58:54,10.1.1.3,36,0.050,0.050,0.050,0.000,0.000,0.000
1644915534211288832,2022-02-15-08:58:54,10.1.1.3,25,0.060,0.060,0.060,0.000,0.000,0.000
1644915534272008960,2022-02-15-08:58:54,10.1.1.3,35,0.070,0.070,0.070,0.000,0.000,0.000
1644915534312084992,2022-02-15-08:58:54,10.1.1.3,24,0.080,0.080,0.080,0.000,0.000,0.000
1644915534370867968,2022-02-15-08:58:54,10.1.1.3,34,0.090,0.090,0.090,0.000,0.000,0.000
1644915534412183040,2022-02-15-08:58:54,10.1.1.3,23,0.100,0.100,0.100,0.000,0.000,0.000
1644915534711929088,2022-02-15-08:58:54,10.1.1.3,20,0.040,0.040,0.040,0.000,0.000,0.000
1644915534771578112,2022-02-15-08:58:54,10.1.1.3,29,0.030,0.030,0.030,0.000,0.000,0.000
1644915534831420928,2022-02-15-08:58:54,10.1.1.3,38,0.020,0.020,0.020,0.000,0.000,0.000
1644915534871800832,2022-02-15-08:58:54,10.1.1.3,28,0.010,0.010,0.010,0.000,0.000,0.000
1644915534931552768,2022-02-15-08:58:54,10.1.1.3,37,0.000,0.000,0.000,0.000,0.000,0.000
1644915534972104192,2022-02-15-08:58:54,10.1.1.3,27,-0.010,-0.010,-0.010,0.000,0.000,0.000
1644915535031980032,2022-02-15-08:58:55,10.1.1.3,37,-0.020,-0.020,-0.020,0.000,0.000,0.000
1644915535072177920,2022-02-15-08:58:55,10.1.1.3,26,-0.030,-0.030,-0.030,0.000,0.000,0.000
1644915535130796032,2022-02-15-08:58:55,10.1.1.3,36,-0.040,-0.040,-0.040,0.000,0.000,0.000
1644915535171256064,2022-02-15-08:58:55,10.1.1.3,25,-0.050,-0.050,-0.050,0.000,0.000,0.000
1644915535232219904,2022-02-15-08:58:55,10.1.1.3,34,-0.060,-0.060,-0.060,0.000,0.000,0.000
1644915535493369088,2022-02-15-08:58:55,10.1.1.3,39,-0.090,-0.090,-0.090,0.000,0.000,0.000
1644915535532156928,2022-02-15-08:58:55,10.1.1.3,29,-0.080,-0.080,-0.080,0.000,0.000,0.000
1644915535592807168,2022-02-15-08:58:55,10.1.1.3,38,-0.070,-0.070,-0.070,0.000,0.000,0.000
1644915535632224000,2022-02-15-08:58:55,10.1.1.3,28,-0.060,-0.060,-0.060,0.000,0.000,0.000
1644915535693178880,2022-02-15-08:58:55,10.1.1.3,37,-0.050,-0.050,-0.050,0.000,0.000,0.000
1644915535732263168,2022-02-15-08:58:55,10.1.1.3,27,-0.040,-0.040,-0.040,0.000,0.000,0.000
1644915535791766784,2022-02-15-08:58:55,10.1.1.3,36,-0.030,-0.030,-0.030,0.000,0.000,0.000
1644915535831915008,2022-02-15-08:58:55,10.1.1.3,25,-0.020,-0.020,-0.020,0.000,0.000,0.000
1644915535893443072,2022-02-15-08:58:55,10.1.1.3,34,-0.010,-0.010,-0.010,0.000,0.000,0.000
1644915536150836992,2022-02-15-08:58:56,10.1.1.3,39,0.040,0.040,0.040,0.000,0.000,0.000
1644915536191019008,2022-02-15-08:58:56,10.1.1.3,28,0.050,0.050,0.050,0.000,0.000,0.000
1644915536250823936,2022-02-15-08:58:56,10.1.1.3,38,0.060,0.060,0.060,0.000,0.000,0.000
1644915536291783168,2022-02-15-08:58:56,10.1.1.3,27,0.070,0.070,0.070,0.000,0.000,0.000
1644915536352215040,2022-02-15-08:58:56,10.1.1.3,36,0.080,0.080,0.080,0.000,0.000,0.000
1644915536391021056,2022-02-15-08:58:56,10.1.1.3,26,0.090,0.090,0.090,0.000,0.000,0.000
1644915536451260928,2022-02-15-08:58:56,10.1.1.3,36,0.100,0.100,0.100,0.000,0.000,0.000
1644915536491625984,2022-02-15-08:58:56,10.1.1.3,25,0.090,0.090,0.090,0.000,0.000,0.000
1644915536553917952,2022-02-15-08:58:56,10.1.1.3,34,0.080,0.080,0.080,0.000,0.000,0.000
1644915536592027904,2022-02-15-08:58:56,10.1.1.3,23,0.070,0.070,0.070,0.000,0.000,0.000
1644915536811752192,2022-02-15-08:58:56,10.1.1.3,39,0.030,0.030,0.030,0.000,0.000,0.000
1644915536851599104,2022-02-15-08:58:56,10.1.1.3,28,0.020,0.020,0.020,0.000,0.000,0.000
1644915536912349952,2022-02-15-08:58:56,10.1.1.3,37,0.010,0.010,0.010,0.000,0.000,0.000
1644915536950962944,2022-02-15-08:58:56,10.1.1.3,27,0.000,0.000,0.000,0.000,0.000,0.000
1644915537011439104,2022-02-15-08:58:57,10.1.1.3,36,-0.010,-0.010,-0.010,0.000,0.000,0.000
1644915537051804928,2022-02-15-08:58:57,10.1.1.3,26,-0.020,-0.020,-0.020,0.000,0.000,0.000
1644915537112795136,2022-02-15-08:58:57,10.1.1.3,35,-0.030,-0.030,-0.030,0.000,0.000,0.000
1644915537151141888,2022-02-15-08:58:57,10.1.1.3,25,-0.040,-0.040,-0.040,0.000,0.000,0.000
1644915537211713024,2022-02-15-08:58:57,10.1.1.3,34,-0.050,-0.050,-0.050,0.000,0.000,0.000
1644915537471432960,2022-02-15-08:58:57,10.1.1.3,39,-0.100,-0.100,-0.100,0.000,0.000,0.000
1644915537511378944,2022-02-15-08:58:57,10.1.1.3,28,-0.090,-0.090,-0.090,0.000,0.000,0.000
1644915537571915008,2022-02-15-08:58:57,10.1.1.3,38,-0.080,-0.080,-0.080,0.000,0.000,0.000
1644915537612015872,2022-02-15-08:58:57,10.1.1.3,27,-0.070,-0.070,-0.070,0.000,0.000,0.000
1644915537672035840,2022-02-15-08:58:57,10.1.1.3,37,-0.060,-0.060,-0.060,0.000,0.000,0.000
1644915537713739008,2022-02-15-08:58:57,10.1.1.3,26,-0.050,-0.050,-0.050,0.000,0.000,0.000
1644915537831958016,2022-02-15-08:58:57,10.1.1.3,29,-0.030,-0.030,-0.030,0.000,0.000,0.000
1644915537891609856,2022-02-15-08:58:57,10.1.1.3,38,-0.020,-0.020,-0.020,0.000,0.000,0.000
1644915537931736832,2022-02-15-08:58:57,10.1.1.3,27,-0.010,-0.010,-0.010,0.000,0.000,0.000
1644915537992140032,2022-02-15-08:58:57,10.1.1.3,37,0.000,0.000,0.000,0.000,0.000,0.000
1644915538031459072,2022-02-15-08:58:58,10.1.1.3,26,0.010,0.010,0.010,0.000,0.000,0.000
1644915538091821824,2022-02-15-08:58:58,10.1.1.3,36,0.020,0.020,0.020,0.000,0.000,0.000
1644915538131592960,2022-02-15-08:58:58,10.1.1.3,25,0.030,0.030,0.030,0.000,0.000,0.000
1644915538191762944,2022-02-15-08:58:58,10.1.1.3,34,0.040,0.040,0.040,0.000,0.000,0.000
1644915538231159040,2022-02-15-08:58:58,10.1.1.3,24,0.050,0.050,0.050,0.000,0.000,0.000
1644915538291980032,2022-02-15-08:58:58,10.1.1.3,34,0.060,0.060,0.060,0.000,0.000,0.000
1644915538452211968,2022-02-15-08:58:58,10.1.1.3,29,0.090,0.090,0.090,0.000,0.000,0.000
1644915538494356992,2022-02-15-08:58:58,10.1.1.3,19,0.100,0.100,0.100,0.000,0.000,0.000
1644915538612103936,2022-02-15-08:58:58,10.1.1.3,37,0.080,0.080,0.080,0.000,0.000,0.000
1644915538651693056,2022-02-15-08:58:58,10.1.1.3,26,0.070,0.070,0.070,0.000,0.000,0.000
1644915538711174912,2022-02-15-08:58:58,10.1.1.3,35,0.060,0.060,0.060,0.000,0.000,0.000
1644915538751315968,2022-02-15-08:58:58,10.1.1.3,25,0.050,0.050,0.050,0.000,0.000,0.000
1644915538812276992,2022-02-15-08:58:58,10.1.1.3,34,0.040,0.040,0.040,0.000,0.000,0.000
1644915538851908096,2022-02-15-08:58:58,10.1.1.3,24,0.030,0.030,0.030,0.000,0.000,0.000
1644915538911011840,2022-02-15-08:58:58,10.1.1.3,33,0.020,0.020,0.020,0.000,0.000,0.000
1644915539074263040,2022-02-15-08:58:59,10.1.1.3,39,-0.010,-0.010,-0.010,0.000,0.000,0.000
1644915539111109120,2022-02-15-08:58:59,10.1.1.3,28,-0.020,-0.020,-0.020,0.000,0.000,0.000
1644915539171330816,2022-02-15-08:58:59,10.1.1.3,37,-0.030,-0.030,-0.030,0.000,0.000,0.000
1644915539211345920,2022-02-15-08:58:59,10.1.1.3,27,-0.040,-0.040,-0.040,0.000,0.000,0.000
1644915539272804864,2022-02-15-08:58:59,10.1.1.3,35,-0.050,-0.050,-0.050,0.000,0.000,0.000
1644915539312130816,2022-02-15-08:58:59,10.1.1.3,25,-0.060,-0.060,-0.060,0.000,0.000,0.000
1644915539371448064,2022-02-15-08:58:59,10.1.1.3,34,-0.070,-0.070,-0.070,0.000,0.000,0.000
1644915539411845888,2022-02-15-08:58:59,10.1.1.3,23,-0.080,-0.080,-0.080,0.000,0.000,0.000
1644915539471809024,2022-02-15-08:58:59,10.1.1.3,33,-0.090,-0.090,-0.090,0.000,0.000,0.000
1644915539551316992,2022-02-15-08:58:59,10.1.1.3,12,-0.090,-0.090,-0.090,0.000,0.000,0.000
1644915539631609088,2022-02-15-08:58:59,10.1.1.3,39,-0.080,-0.080,-0.080,0.000,0.000,0.000
1644915539673069056,2022-02-15-08:58:59,10.1.1.3,28,-0.070,-0.070,-0.070,0.000,0.000,0.000
1644915539731682048,2022-02-15-08:58:59,10.1.1.3,38,-0.060,-0.060,-0.060,0.000,0.000,0.000
1644915539771724032,2022-02-15-08:58:59,10.1.1.3,27,-0.050,-0.050,-0.050,0.000,0.000,0.000
1644915539834390016,2022-02-15-08:58:59,10.1.1.3,37,-0.040,-0.040,-0.040,0.000,0.000,0.000
1644915539871632128,2022-02-15-08:58:59,10.1.1.3,26,-0.030,-0.030,-0.030,0.000,0.000,0.000
1644915539932210944,2022-02-15-08:58:59,10.1.1.3,36,-0.020,-0.020,-0.020,0.000,0.000,0.000
1644915539973465088,2022-02-15-08:58:59,10.1.1.3,25,-0.010,-0.010,-0.010,0.000,0.000,0.000
1644915540031601920,2022-02-15-08:59:00,10.1.1.3,35,0.000,0.000,0.000,0.000,0.000,0.000
1644915540071191040,2022-02-15-08:59:00,10.1.1.3,24,0.010,0.010,0.010,0.000,0.000,0.000
1644915540132690944,2022-02-15-08:59:00,10.1.1.3,33,0.020,0.020,0.020,0.000,0.000,0.000
1644915540342657024,2022-02-15-08:59:00,10.1.1.3,38,0.050,0.050,0.050,0.000,0.000,0.000
1644915540390813952,2022-02-15-08:59:00,10.1.1.3,33,0.060,0.060,0.060,0.000,0.000,0.000
1644915540591043072,2022-02-15-08:59:00,10.1.1.3,29,0.100,0.100,0.100,0.000,0.000,0.000
1644915540651624960,2022-02-15-08:59:00,10.1.1.3,38,0.090,0.090,0.090,0.000,0.000,0.000
1644915540691015936,2022-02-15-08:59:00,10.1.1.3,28,0.080,0.080,0.080,0.000,0.000,0.000
1644915540751126016,2022-02-15-08:59:00,10.1.1.3,37,0.070,0.070,0.070,0.000,0.000,0.000
1644915540794059008,2022-02-15-08:59:00,10.1.1.3,27,0.060,0.060,0.060,0.000,0.000,0.000
1644915540851810048,2022-02-15-08:59:00,10.1.1.3,37,0.050,0.050,0.050,0.000,0.000,0.000
1644915540891015168,2022-02-15-08:59:00,10.1.1.3,26,0.040,0.040,0.040,0.000,0.000,0.000
1644915540951514112,2022-02-15-08:59:00,10.1.1.3,36,0.030,0.030,0.030,0.000,0.000,0.000
1644915540992649984,2022-02-15-08:59:00,10.1.1.3,25,0.020,0.020,0.020,0.000,0.000,0.000
1644915541052871936,2022-02-15-08:59:01,10.1.1.3,35,0.010,0.010,0.010,0.000,0.000,0.000
1644915541092526848,2022-02-15-08:59:01,10.1.1.3,25,0.000,0.000,0.000,0.000,0.000,0.000
1644915541151161856,2022-02-15-08:59:01,10.1.1.3,35,-0.010,-0.010,-0.010,0.000,0.000,0.000
1644915541191443968,2022-02-15-08:59:01,10.1.1.3,24,-0.020,-0.020,-0.020,0.000,0.000,0.000
1644915541251537152,2022-02-15-08:59:01,10.1.1.3,33,-0.030,-0.030,-0.030,0.000,0.000,0.000
1644915541390987008,2022-02-15-08:59:01,10.1.1.3,19,-0.060,-0.060,-0.060,0.000,0.000,0.000
1644915541451852032,2022-02-15-08:59:01,10.1.1.3,28,-0.070,-0.070,-0.070,0.000,0.000,0.000
1644915541512101888,2022-02-15-08:59:01,10.1.1.3,37,-0.080,-0.080,-0.080,0.000,0.000,0.000
1644915541551954944,2022-02-15-08:59:01,10.1.1.3,27,-0.090,-0.090,-0.090,0.000,0.000,0.000
1644915541611825920,2022-02-15-08:59:01,10.1.1.3,36,-0.100,-0.100,-0.100,0.000,0.000,0.000
1644915541652268032,2022-02-15-08:59:01,10.1.1.3,26,-0.090,-0.090,-0.090,0.000,0.000,0.000
1644915541712678912,2022-02-15-08:59:01,10.1.1.3,35,-0.080,-0.080,-0.080,0.000,0.000,0.000
1644915541752250880,2022-02-15-08:59:01,10.1.1.3,24,-0.070,-0.070,-0.070,0.000,0.000,0.000
1644915541812526080,2022-02-15-08:59:01,10.1.1.3,33,-0.060,-0.060,-0.060,0.000,0.000,0.000
1644915542012043008,2022-02-15-08:59:02,10.1.1.3,29,-0.020,-0.020,-0.020,0.000,0.000,0.000
1644915542114129152,2022-02-15-08:59:02,10.1.1.3,35,-0.010,-0.010,-0.010,0.000,0.000,0.000
1644915542172527104,2022-02-15-08:59:02,10.1.1.3,29,0.000,0.000,0.000,0.000,0.000,0.000
1644915542232609024,2022-02-15-08:59:02,10.1.1.3,38,0.010,0.010,0.010,0.000,0.000,0.000
1644915542272496896,2022-02-15-08:59:02,10.1.1.3,28,0.020,0.020,0.020,0.000,0.000,0.000
1644915542332762112,2022-02-15-08:59:02,10.1.1.3,37,0.030,0.030,0.030,0.000,0.000,0.000
1644915542381715968,2022-02-15-08:59:02,10.1.1.3,27,0.040,0.040,0.040,0.000,0.000,0.000
1644915542491784192,2022-02-15-08:59:02,10.1.1.3,23,0.060,0.060,0.060,0.000,0.000,0.000
1644915542552606976,2022-02-15-08:59:02,10.1.1.3,33,0.070,0.070,0.070,0.000,0.000,0.000
1644915542653625088,2022-02-15-08:59:02,10.1.1.3,32,0.090,0.090,0.090,0.000,0.000,0.000
1644915542732018944,2022-02-15-08:59:02,10.1.1.3,11,0.090,0.090,0.090,0.000,0.000,0.000
1644915542852098048,2022-02-15-08:59:02,10.1.1.3,30,0.070,0.070,0.070,0.000,0.000,0.000
1644915542911609856,2022-02-15-08:59:02,10.1.1.3,39,0.060,0.060,0.060,0.000,0.000,0.000
1644915543073378048,2022-02-15-08:59:03,10.1.1.3,27,0.030,0.030,0.030,0.000,0.000,0.000
1644915543132178176,2022-02-15-08:59:03,10.1.1.3,37,0.020,0.020,0.020,0.000,0.000,0.000
1644915543172342016,2022-02-15-08:59:03,10.1.1.3,26,0.010,0.010,0.010,0.000,0.000,0.000
1644915543231764992,2022-02-15-08:59:03,10.1.1.3,36,0.000,0.000,0.000,0.000,0.000,0.000
1644915543272353792,2022-02-15-08:59:03,10.1.1.3,25,-0.010,-0.010,-0.010,0.000,0.000,0.000
1644915543331597056,2022-02-15-08:59:03,10.1.1.3,35,-0.020,-0.020,-0.020,0.000,0.000,0.000
1644915543371602176,2022-02-15-08:59:03,10.1.1.3,24,-0.030,-0.030,-0.030,0.000,0.000,0.000
1644915543432823040,2022-02-15-08:59:03,10.1.1.3,34,-0.040,-0.040,-0.040,0.000,0.000,0.000
1644915543471834880,2022-02-15-08:59:03,10.1.1.3,24,-0.050,-0.050,-0.050,0.000,0.000,0.000
1644915543531849984,2022-02-15-08:59:03,10.1.1.3,33,-0.060,-0.060,-0.060,0.000,0.000,0.000
1644915543931778048,2022-02-15-08:59:03,10.1.1.3,2,-0.060,-0.060,-0.060,0.000,0.000,0.000
1644915544072025088,2022-02-15-08:59:04,10.1.1.3,37,-0.040,-0.040,-0.040,0.000,0.000,0.000
1644915544112101120,2022-02-15-08:59:04,10.1.1.3,26,-0.030,-0.030,-0.030,0.000,0.000,0.000
1644915544172677120,2022-02-15-08:59:04,10.1.1.3,36,-0.020,-0.020,-0.020,0.000,0.000,0.000
1644915544211323136,2022-02-15-08:59:04,10.1.1.3,25,-0.010,-0.010,-0.010,0.000,0.000,0.000
1644915544272120064,2022-02-15-08:59:04,10.1.1.3,35,0.000,0.000,0.000,0.000,0.000,0.000
1644915544312608000,2022-02-15-08:59:04,10.1.1.3,25,0.010,0.010,0.010,0.000,0.000,0.000
1644915544372020992,2022-02-15-08:59:04,10.1.1.3,34,0.020,0.020,0.020,0.000,0.000,0.000
1644915544531912192,2022-02-15-08:59:04,10.1.1.3,38,0.050,0.050,0.050,0.000,0.000,0.000
1644915544571835904,2022-02-15-08:59:04,10.1.1.3,27,0.060,0.060,0.060,0.000,0.000,0.000
1644915544633133824,2022-02-15-08:59:04,10.1.1.3,36,0.070,0.070,0.070,0.000,0.000,0.000
1644915544672545792,2022-02-15-08:59:04,10.1.1.3,25,0.080,0.080,0.080,0.000,0.000,0.000
1644915544731236864,2022-02-15-08:59:04,10.1.1.3,34,0.090,0.090,0.090,0.000,0.000,0.000
1644915544811224832,2022-02-15-08:59:04,10.1.1.3,12,0.090,0.090,0.090,0.000,0.000,0.000
1644915544893278976,2022-02-15-08:59:04,10.1.1.3,39,0.080,0.080,0.080,0.000,0.000,0.000
1644915544930866944,2022-02-15-08:59:04,10.1.1.3,28,0.070,0.070,0.070,0.000,0.000,0.000
1644915544994785024,2022-02-15-08:59:04,10.1.1.3,38,0.060,0.060,0.060,0.000,0.000,0.000
1644915545033942016,2022-02-15-08:59:05,10.1.1.3,27,0.050,0.050,0.050,0.000,0.000,0.000
1644915545094125056,2022-02-15-08:59:05,10.1.1.3,37,0.040,0.040,0.040,0.000,0.000,0.000
1644915545132524032,2022-02-15-08:59:05,10.1.1.3,27,0.030,0.030,0.030,0.000,0.000,0.000
1644915545193185024,2022-02-15-08:59:05,10.1.1.3,36,0.020,0.020,0.020,0.000,0.000,0.000
1644915545231486976,2022-02-15-08:59:05,10.1.1.3,25,0.010,0.010,0.010,0.000,0.000,0.000
1644915545293369088,2022-02-15-08:59:05,10.1.1.3,34,0.000,0.000,0.000,0.000,0.000,0.000
1644915545333714944,2022-02-15-08:59:05,10.1.1.3,24,-0.010,-0.010,-0.010,0.000,0.000,0.000
1644915545392069120,2022-02-15-08:59:05,10.1.1.3,33,-0.020,-0.020,-0.020,0.000,0.000,0.000
1644915545530929920,2022-02-15-08:59:05,10.1.1.3,20,-0.050,-0.050,-0.050,0.000,0.000,0.000
1644915545591585024,2022-02-15-08:59:05,10.1.1.3,29,-0.060,-0.060,-0.060,0.000,0.000,0.000
1644915545652278784,2022-02-15-08:59:05,10.1.1.3,38,-0.070,-0.070,-0.070,0.000,0.000,0.000
1644915545691857152,2022-02-15-08:59:05,10.1.1.3,27,-0.080,-0.080,-0.080,0.000,0.000,0.000
1644915545754803968,2022-02-15-08:59:05,10.1.1.3,37,-0.090,-0.090,-0.090,0.000,0.000,0.000
1644915545794051840,2022-02-15-08:59:05,10.1.1.3,26,-0.100,-0.100,-0.100,0.000,0.000,0.000
1644915545852881920,2022-02-15-08:59:05,10.1.1.3,36,-0.090,-0.090,-0.090,0.000,0.000,0.000
1644915545891344128,2022-02-15-08:59:05,10.1.1.3,25,-0.080,-0.080,-0.080,0.000,0.000,0.000
1644915545951687936,2022-02-15-08:59:05,10.1.1.3,35,-0.070,-0.070,-0.070,0.000,0.000,0.000
1644915545991803904,2022-02-15-08:59:05,10.1.1.3,24,-0.060,-0.060,-0.060,0.000,0.000,0.000
1644915546052067072,2022-02-15-08:59:06,10.1.1.3,33,-0.050,-0.050,-0.050,0.000,0.000,0.000
1644915546251693056,2022-02-15-08:59:06,10.1.1.3,30,-0.010,-0.010,-0.010,0.000,0.000,0.000
1644915546312012032,2022-02-15-08:59:06,10.1.1.3,38,0.000,0.000,0.000,0.000,0.000,0.000
1644915546352359168,2022-02-15-08:59:06,10.1.1.3,27,0.010,0.010,0.010,0.000,0.000,0.000
1644915546412357120,2022-02-15-08:59:06,10.1.1.3,37,0.020,0.020,0.020,0.000,0.000,0.000
1644915546452135936,2022-02-15-08:59:06,10.1.1.3,26,0.030,0.030,0.030,0.000,0.000,0.000
1644915546511363072,2022-02-15-08:59:06,10.1.1.3,34,0.040,0.040,0.040,0.000,0.000,0.000
1644915546671020032,2022-02-15-08:59:06,10.1.1.3,39,0.070,0.070,0.070,0.000,0.000,0.000
1644915546711484928,2022-02-15-08:59:06,10.1.1.3,29,0.080,0.080,0.080,0.000,0.000,0.000
1644915546771346944,2022-02-15-08:59:06,10.1.1.3,39,0.090,0.090,0.090,0.000,0.000,0.000
1644915546811687936,2022-02-15-08:59:06,10.1.1.3,28,0.100,0.100,0.100,0.000,0.000,0.000
1644915546871023872,2022-02-15-08:59:06,10.1.1.3,37,0.090,0.090,0.090,0.000,0.000,0.000
1644915546912736768,2022-02-15-08:59:06,10.1.1.3,27,0.080,0.080,0.080,0.000,0.000,0.000
1644915546972310016,2022-02-15-08:59:06,10.1.1.3,36,0.070,0.070,0.070,0.000,0.000,0.000
1644915547014290944,2022-02-15-08:59:07,10.1.1.3,26,0.060,0.060,0.060,0.000,0.000,0.000
1644915547072663040,2022-02-15-08:59:07,10.1.1.3,35,0.050,0.050,0.050,0.000,0.000,0.000
1644915547113058048,2022-02-15-08:59:07,10.1.1.3,25,0.040,0.040,0.040,0.000,0.000,0.000
1644915547173363968,2022-02-15-08:59:07,10.1.1.3,34,0.030,0.030,0.030,0.000,0.000,0.000
1644915547214014976,2022-02-15-08:59:07,10.1.1.3,24,0.020,0.020,0.020,0.000,0.000,0.000
1644915547270852096,2022-02-15-08:59:07,10.1.1.3,33,0.010,0.010,0.010,0.000,0.000,0.000
1644915547572435968,2022-02-15-08:59:07,10.1.1.3,29,-0.050,-0.050,-0.050,0.000,0.000,0.000
1644915547632110080,2022-02-15-08:59:07,10.1.1.3,38,-0.060,-0.060,-0.060,0.000,0.000,0.000
1644915547672624128,2022-02-15-08:59:07,10.1.1.3,28,-0.070,-0.070,-0.070,0.000,0.000,0.000
1644915547732145152,2022-02-15-08:59:07,10.1.1.3,37,-0.080,-0.080,-0.080,0.000,0.000,0.000
1644915547772658944,2022-02-15-08:59:07,10.1.1.3,27,-0.090,-0.090,-0.090,0.000,0.000,0.000
1644915547833031936,2022-02-15-08:59:07,10.1.1.3,36,-0.100,-0.100,-0.100,0.000,0.000,0.000
1644915547872400128,2022-02-15-08:59:07,10.1.1.3,25,-0.090,-0.090,-0.090,0.000,0.000,0.000
1644915547931281920,2022-02-15-08:59:07,10.1.1.3,34,-0.080,-0.080,-0.080,0.000,0.000,0.000
1644915548132102912,2022-02-15-08:59:08,10.1.1.3,29,-0.040,-0.040,-0.040,0.000,0.000,0.000
1644915548191258880,2022-02-15-08:59:08,10.1.1.3,38,-0.030,-0.030,-0.030,0.000,0.000,0.000
1644915548233572096,2022-02-15-08:59:08,10.1.1.3,28,-0.020,-0.020,-0.020,0.000,0.000,0.000
1644915548291320064,2022-02-15-08:59:08,10.1.1.3,37,-0.010,-0.010,-0.010,0.000,0.000,0.000
1644915548330881024,2022-02-15-08:59:08,10.1.1.3,27,0.000,0.000,0.000,0.000,0.000,0.000
1644915548391532032,2022-02-15-08:59:08,10.1.1.3,36,0.010,0.010,0.010,0.000,0.000,0.000
1644915548431238912,2022-02-15-08:59:08,10.1.1.3,26,0.020,0.020,0.020,0.000,0.000,0.000
1644915548492124160,2022-02-15-08:59:08,10.1.1.3,35,0.030,0.030,0.030,0.000,0.000,0.000
1644915548531315968,2022-02-15-08:59:08,10.1.1.3,23,0.040,0.040,0.040,0.000,0.000,0.000
1644915548851273984,2022-02-15-08:59:08,10.1.1.3,38,0.100,0.100,0.100,0.000,0.000,0.000
1644915548892256000,2022-02-15-08:59:08,10.1.1.3,28,0.090,0.090,0.090,0.000,0.000,0.000
1644915548951272960,2022-02-15-08:59:08,10.1.1.3,37,0.080,0.080,0.080,0.000,0.000,0.000
1644915548991074048,2022-02-15-08:59:08,10.1.1.3,27,0.070,0.070,0.070,0.000,0.000,0.000
1644915549052675072,2022-02-15-08:59:09,10.1.1.3,36,0.060,0.060,0.060,0.000,0.000,0.000
1644915549092342016,2022-02-15-08:59:09,10.1.1.3,25,0.050,0.050,0.050,0.000,0.000,0.000
1644915549151233792,2022-02-15-08:59:09,10.1.1.3,35,0.040,0.040,0.040,0.000,0.000,0.000
1644915549191556864,2022-02-15-08:59:09,10.1.1.3,24,0.030,0.030,0.030,0.000,0.000,0.000
1644915549251380992,2022-02-15-08:59:09,10.1.1.3,34,0.020,0.020,0.020,0.000,0.000,0.000
1644915549453891072,2022-02-15-08:59:09,10.1.1.3,24,-0.020,-0.020,-0.020,0.000,0.000,0.000
1644915549511437056,2022-02-15-08:59:09,10.1.1.3,33,-0.030,-0.030,-0.030,0.000,0.000,0.000
1644915549871813120,2022-02-15-08:59:09,10.1.1.3,38,-0.100,-0.100,-0.100,0.000,0.000,0.000
1644915549911235072,2022-02-15-08:59:09,10.1.1.3,28,-0.090,-0.090,-0.090,0.000,0.000,0.000
1644915549970787072,2022-02-15-08:59:09,10.1.1.3,38,-0.080,-0.080,-0.080,0.000,0.000,0.000
1644915550012177920,2022-02-15-08:59:10,10.1.1.3,27,-0.070,-0.070,-0.070,0.000,0.000,0.000
1644915550078689024,2022-02-15-08:59:10,10.1.1.3,35,-0.060,-0.060,-0.060,0.000,0.000,0.000
1644915550110852096,2022-02-15-08:59:10,10.1.1.3,24,-0.050,-0.050,-0.050,0.000,0.000,0.000
1644915550170957056,2022-02-15-08:59:10,10.1.1.3,33,-0.040,-0.040,-0.040,0.000,0.000,0.000
1644915550211554048,2022-02-15-08:59:10,10.1.1.3,23,-0.030,-0.030,-0.030,0.000,0.000,0.000
1644915550571003904,2022-02-15-08:59:10,10.1.1.3,29,0.040,0.040,0.040,0.000,0.000,0.000
1644915550630949120,2022-02-15-08:59:10,10.1.1.3,38,0.050,0.050,0.050,0.000,0.000,0.000
1644915550673222144,2022-02-15-08:59:10,10.1.1.3,29,0.060,0.060,0.060,0.000,0.000,0.000
1644915550731230976,2022-02-15-08:59:10,10.1.1.3,38,0.070,0.070,0.070,0.000,0.000,0.000
1644915550771971840,2022-02-15-08:59:10,10.1.1.3,27,0.080,0.080,0.080,0.000,0.000,0.000
1644915550831607040,2022-02-15-08:59:10,10.1.1.3,37,0.090,0.090,0.090,0.000,0.000,0.000
1644915550871494912,2022-02-15-08:59:10,10.1.1.3,27,0.100,0.100,0.100,0.000,0.000,0.000
1644915550931653120,2022-02-15-08:59:10,10.1.1.3,36,0.090,0.090,0.090,0.000,0.000,0.000
1644915550970727936,2022-02-15-08:59:10,10.1.1.3,25,0.080,0.080,0.080,0.000,0.000,0.000
1644915551032008960,2022-02-15-08:59:11,10.1.1.3,35,0.070,0.070,0.070,0.000,0.000,0.000
1644915551071542016,2022-02-15-08:59:11,10.1.1.3,25,0.060,0.060,0.060,0.000,0.000,0.000
1644915551131834112,2022-02-15-08:59:11,10.1.1.3,34,0.050,0.050,0.050,0.000,0.000,0.000
1644915551172856064,2022-02-15-08:59:11,10.1.1.3,24,0.040,0.040,0.040,0.000,0.000,0.000
1644915551233027840,2022-02-15-08:59:11,10.1.1.3,34,0.030,0.030,0.030,0.000,0.000,0.000
1644915551592865024,2022-02-15-08:59:11,10.1.1.3,36,-0.040,-0.040,-0.040,0.000,0.000,0.000
1644915551891892992,2022-02-15-08:59:11,10.1.1.3,29,-0.100,-0.100,-0.100,0.000,0.000,0.000
1644915551951749120,2022-02-15-08:59:11,10.1.1.3,39,-0.090,-0.090,-0.090,0.000,0.000,0.000
1644915551992176128,2022-02-15-08:59:11,10.1.1.3,28,-0.080,-0.080,-0.080,0.000,0.000,0.000
1644915552050996992,2022-02-15-08:59:12,10.1.1.3,36,-0.070,-0.070,-0.070,0.000,0.000,0.000
1644915552092269056,2022-02-15-08:59:12,10.1.1.3,26,-0.060,-0.060,-0.060,0.000,0.000,0.000
1644915552151383040,2022-02-15-08:59:12,10.1.1.3,35,-0.050,-0.050,-0.050,0.000,0.000,0.000
1644915552192517888,2022-02-15-08:59:12,10.1.1.3,25,-0.040,-0.040,-0.040,0.000,0.000,0.000
1644915552252572928,2022-02-15-08:59:12,10.1.1.3,35,-0.030,-0.030,-0.030,0.000,0.000,0.000
1644915552292143104,2022-02-15-08:59:12,10.1.1.3,23,-0.020,-0.020,-0.020,0.000,0.000,0.000
1644915552412558080,2022-02-15-08:59:12,10.1.1.3,39,0.000,0.000,0.000,0.000,0.000,0.000
1644915552451668992,2022-02-15-08:59:12,10.1.1.3,29,0.010,0.010,0.010,0.000,0.000,0.000
1644915552513145088,2022-02-15-08:59:12,10.1.1.3,38,0.020,0.020,0.020,0.000,0.000,0.000
1644915552565953024,2022-02-15-08:59:12,10.1.1.3,28,0.030,0.030,0.030,0.000,0.000,0.000
1644915552711444992,2022-02-15-08:59:12,10.1.1.3,29,0.060,0.060,0.060,0.000,0.000,0.000
1644915552771986944,2022-02-15-08:59:12,10.1.1.3,39,0.070,0.070,0.070,0.000,0.000,0.000
1644915552811981056,2022-02-15-08:59:12,10.1.1.3,29,0.080,0.080,0.080,0.000,0.000,0.000
1644915552871056128,2022-02-15-08:59:12,10.1.1.3,38,0.090,0.090,0.090,0.000,0.000,0.000
1644915552913672960,2022-02-15-08:59:12,10.1.1.3,28,0.100,0.100,0.100,0.000,0.000,0.000
1644915553031563008,2022-02-15-08:59:13,10.1.1.3,38,0.080,0.080,0.080,0.000,0.000,0.000
1644915553073932800,2022-02-15-08:59:13,10.1.1.3,27,0.070,0.070,0.070,0.000,0.000,0.000
1644915553191876864,2022-02-15-08:59:13,10.1.1.3,29,0.050,0.050,0.050,0.000,0.000,0.000
1644915553251291136,2022-02-15-08:59:13,10.1.1.3,38,0.040,0.040,0.040,0.000,0.000,0.000
1644915553291408128,2022-02-15-08:59:13,10.1.1.3,28,0.030,0.030,0.030,0.000,0.000,0.000
1644915553351859200,2022-02-15-08:59:13,10.1.1.3,37,0.020,0.020,0.020,0.000,0.000,0.000
1644915553391627008,2022-02-15-08:59:13,10.1.1.3,26,0.010,0.010,0.010,0.000,0.000,0.000
1644915553451203072,2022-02-15-08:59:13,10.1.1.3,36,0.000,0.000,0.000,0.000,0.000,0.000
1644915553491483904,2022-02-15-08:59:13,10.1.1.3,26,-0.010,-0.010,-0.010,0.000,0.000,0.000
1644915553551048960,2022-02-15-08:59:13,10.1.1.3,35,-0.020,-0.020,-0.020,0.000,0.000,0.000
1644915553591468032,2022-02-15-08:59:13,10.1.1.3,23,-0.030,-0.030,-0.030,0.000,0.000,0.000
1644915553650759936,2022-02-15-08:59:13,10.1.1.3,29,-0.040,-0.040,-0.040,0.000,0.000,0.000
1644915553711430144,2022-02-15-08:59:13,10.1.1.3,39,-0.050,-0.050,-0.050,0.000,0.000,0.000
1644915553754426880,2022-02-15-08:59:13,10.1.1.3,25,-0.060,-0.060,-0.060,0.000,0.000,0.000
1644915553891808000,2022-02-15-08:59:13,10.1.1.3,29,-0.080,-0.080,-0.080,0.000,0.000,0.000
1644915553951123968,2022-02-15-08:59:13,10.1.1.3,39,-0.090,-0.090,-0.090,0.000,0.000,0.000
1644915553991590912,2022-02-15-08:59:13,10.1.1.3,28,-0.100,-0.100,-0.100,0.000,0.000,0.000
1644915554051794944,2022-02-15-08:59:14,10.1.1.3,37,-0.090,-0.090,-0.090,0.000,0.000,0.000
1644915554091318016,2022-02-15-08:59:14,10.1.1.3,27,-0.080,-0.080,-0.080,0.000,0.000,0.000
1644915554151723008,2022-02-15-08:59:14,10.1.1.3,35,-0.070,-0.070,-0.070,0.000,0.000,0.000
1644915554191540992,2022-02-15-08:59:14,10.1.1.3,25,-0.060,-0.060,-0.060,0.000,0.000,0.000
1644915554251964160,2022-02-15-08:59:14,10.1.1.3,35,-0.050,-0.050,-0.050,0.000,0.000,0.000
1644915554314608128,2022-02-15-08:59:14,10.1.1.3,39,-0.040,-0.040,-0.040,0.000,0.000,0.000
1644915554351377920,2022-02-15-08:59:14,10.1.1.3,26,-0.030,-0.030,-0.030,0.000,0.000,0.000
1644915554411881984,2022-02-15-08:59:14,10.1.1.3,35,-0.020,-0.020,-0.020,0.000,0.000,0.000
1644915554451816960,2022-02-15-08:59:14,10.1.1.3,24,-0.010,-0.010,-0.010,0.000,0.000,0.000
1644915554514599168,2022-02-15-08:59:14,10.1.1.3,34,0.000,0.000,0.000,0.000,0.000,0.000
1644915554552182016,2022-02-15-08:59:14,10.1.1.3,23,0.010,0.010,0.010,0.000,0.000,0.000
1644915554910789888,2022-02-15-08:59:14,10.1.1.3,29,0.080,0.080,0.080,0.000,0.000,0.000
1644915554970923008,2022-02-15-08:59:14,10.1.1.3,39,0.090,0.090,0.090,0.000,0.000,0.000
1644915555011006976,2022-02-15-08:59:15,10.1.1.3,28,0.100,0.100,0.100,0.000,0.000,0.000
1644915555071415040,2022-02-15-08:59:15,10.1.1.3,38,0.090,0.090,0.090,0.000,0.000,0.000
1644915555117373952,2022-02-15-08:59:15,10.1.1.3,27,0.080,0.080,0.080,0.000,0.000,0.000
1644915555351499008,2022-02-15-08:59:15,10.1.1.3,39,0.040,0.040,0.040,0.000,0.000,0.000
1644915555391719168,2022-02-15-08:59:15,10.1.1.3,28,0.030,0.030,0.030,0.000,0.000,0.000
1644915555451753984,2022-02-15-08:59:15,10.1.1.3,36,0.020,0.020,0.020,0.000,0.000,0.000
1644915555493125888,2022-02-15-08:59:15,10.1.1.3,26,0.010,0.010,0.010,0.000,0.000,0.000
1644915555553118976,2022-02-15-08:59:15,10.1.1.3,35,0.000,0.000,0.000,0.000,0.000,0.000
1644915555593310208,2022-02-15-08:59:15,10.1.1.3,24,-0.010,-0.010,-0.010,0.000,0.000,0.000
1644915555712521984,2022-02-15-08:59:15,10.1.1.3,38,-0.030,-0.030,-0.030,0.000,0.000,0.000
1644915555774755840,2022-02-15-08:59:15,10.1.1.3,46,-0.040,-0.040,-0.040,0.000,0.000,0.000
1644915555931691776,2022-02-15-08:59:15,10.1.1.3,36,-0.070,-0.070,-0.070,0.000,0.000,0.000
1644915556205665024,2022-02-15-08:59:16,10.1.1.3,2,-0.070,-0.070,-0.070,0.000,0.000,0.000
1644915556391815936,2022-02-15-08:59:16,10.1.1.3,26,-0.040,-0.040,-0.040,0.000,0.000,0.000
1644915556452007168,2022-02-15-08:59:16,10.1.1.3,35,-0.030,-0.030,-0.030,0.000,0.000,0.000
1644915556492069120,2022-02-15-08:59:16,10.1.1.3,24,-0.020,-0.020,-0.020,0.000,0.000,0.000
1644915556692862976,2022-02-15-08:59:16,10.1.1.3,20,0.020,0.020,0.020,0.000,0.000,0.000
1644915556751905792,2022-02-15-08:59:16,10.1.1.3,29,0.030,0.030,0.030,0.000,0.000,0.000
1644915556822478080,2022-02-15-08:59:16,10.1.1.3,48,0.040,0.040,0.040,0.000,0.000,0.000
1644915556853862912,2022-02-15-08:59:16,10.1.1.3,28,0.050,0.050,0.050,0.000,0.000,0.000
1644915556911243008,2022-02-15-08:59:16,10.1.1.3,37,0.060,0.060,0.060,0.000,0.000,0.000
1644915556958236928,2022-02-15-08:59:16,10.1.1.3,24,0.070,0.070,0.070,0.000,0.000,0.000
1644915557112878080,2022-02-15-08:59:17,10.1.1.3,23,0.100,0.100,0.100,0.000,0.000,0.000
1644915557271891200,2022-02-15-08:59:17,10.1.1.3,31,0.070,0.070,0.070,0.000,0.000,0.000
1644915557332912896,2022-02-15-08:59:17,10.1.1.3,38,0.060,0.060,0.060,0.000,0.000,0.000
1644915557375015936,2022-02-15-08:59:17,10.1.1.3,29,0.050,0.050,0.050,0.000,0.000,0.000
1644915557431595008,2022-02-15-08:59:17,10.1.1.3,36,0.040,0.040,0.040,0.000,0.000,0.000
1644915557471878912,2022-02-15-08:59:17,10.1.1.3,26,0.030,0.030,0.030,0.000,0.000,0.000
1644915557530982912,2022-02-15-08:59:17,10.1.1.3,35,0.020,0.020,0.020,0.000,0.000,0.000
1644915557572016896,2022-02-15-08:59:17,10.1.1.3,25,0.010,0.010,0.010,0.000,0.000,0.000
1644915557631817216,2022-02-15-08:59:17,10.1.1.3,34,0.000,0.000,0.000,0.000,0.000,0.000
1644915557671572992,2022-02-15-08:59:17,10.1.1.3,22,-0.010,-0.010,-0.010,0.000,0.000,0.000
1644915557895483136,2022-02-15-08:59:17,10.1.1.3,41,-0.050,-0.050,-0.050,0.000,0.000,0.000
1644915557932538880,2022-02-15-08:59:17,10.1.1.3,26,-0.060,-0.060,-0.060,0.000,0.000,0.000
1644915557993504000,2022-02-15-08:59:17,10.1.1.3,36,-0.070,-0.070,-0.070,0.000,0.000,0.000
1644915558033904128,2022-02-15-08:59:18,10.1.1.3,26,-0.080,-0.080,-0.080,0.000,0.000,0.000
1644915558214430208,2022-02-15-08:59:18,10.1.1.3,1,-0.080,-0.080,-0.080,0.000,0.000,0.000
1644915558692214016,2022-02-15-08:59:18,10.1.1.3,39,0.000,0.000,0.000,0.000,0.000,0.000
1644915558732312064,2022-02-15-08:59:18,10.1.1.3,28,0.010,0.010,0.010,0.000,0.000,0.000
1644915558792352000,2022-02-15-08:59:18,10.1.1.3,38,0.020,0.020,0.020,0.000,0.000,0.000
1644915558832057088,2022-02-15-08:59:18,10.1.1.3,27,0.030,0.030,0.030,0.000,0.000,0.000
1644915558893476864,2022-02-15-08:59:18,10.1.1.3,37,0.040,0.040,0.040,0.000,0.000,0.000
1644915558937408000,2022-02-15-08:59:18,10.1.1.3,26,0.050,0.050,0.050,0.000,0.000,0.000
1644915558991770880,2022-02-15-08:59:18,10.1.1.3,36,0.060,0.060,0.060,0.000,0.000,0.000
1644915559032710912,2022-02-15-08:59:19,10.1.1.3,26,0.070,0.070,0.070,0.000,0.000,0.000
1644915559091816960,2022-02-15-08:59:19,10.1.1.3,35,0.080,0.080,0.080,0.000,0.000,0.000
1644915559133004032,2022-02-15-08:59:19,10.1.1.3,24,0.090,0.090,0.090,0.000,0.000,0.000
1644915559191899904,2022-02-15-08:59:19,10.1.1.3,34,0.100,0.100,0.100,0.000,0.000,0.000
1644915559332483072,2022-02-15-08:59:19,10.1.1.3,22,0.070,0.070,0.070,0.000,0.000,0.000
1644915559493245952,2022-02-15-08:59:19,10.1.1.3,30,0.040,0.040,0.040,0.000,0.000,0.000
1644915559552030208,2022-02-15-08:59:19,10.1.1.3,39,0.030,0.030,0.030,0.000,0.000,0.000
1644915559651612928,2022-02-15-08:59:19,10.1.1.3,37,0.010,0.010,0.010,0.000,0.000,0.000
1644915559692146944,2022-02-15-08:59:19,10.1.1.3,27,0.000,0.000,0.000,0.000,0.000,0.000
1644915559754767872,2022-02-15-08:59:19,10.1.1.3,36,-0.010,-0.010,-0.010,0.000,0.000,0.000
1644915559806416128,2022-02-15-08:59:19,10.1.1.3,25,-0.020,-0.020,-0.020,0.000,0.000,0.000
1644915559853149952,2022-02-15-08:59:19,10.1.1.3,28,-0.030,-0.030,-0.030,0.000,0.000,0.000
1644915559912818944,2022-02-15-08:59:19,10.1.1.3,38,-0.040,-0.040,-0.040,0.000,0.000,0.000
1644915559952019968,2022-02-15-08:59:19,10.1.1.3,27,-0.050,-0.050,-0.050,0.000,0.000,0.000
1644915560012295936,2022-02-15-08:59:20,10.1.1.3,36,-0.060,-0.060,-0.060,0.000,0.000,0.000
1644915560051640064,2022-02-15-08:59:20,10.1.1.3,25,-0.070,-0.070,-0.070,0.000,0.000,0.000
1644915560112192000,2022-02-15-08:59:20,10.1.1.3,34,-0.080,-0.080,-0.080,0.000,0.000,0.000
1644915560151956992,2022-02-15-08:59:20,10.1.1.3,23,-0.090,-0.090,-0.090,0.000,0.000,0.000
1644915560234048000,2022-02-15-08:59:20,10.1.1.3,-1,-0.090,-0.090,-0.090,0.000,0.000,0.000
1644915560312576000,2022-02-15-08:59:20,10.1.1.3,28,-0.080,-0.080,-0.080,0.000,0.000,0.000
1644915560371828992,2022-02-15-08:59:20,10.1.1.3,37,-0.070,-0.070,-0.070,0.000,0.000,0.000
1644915560419365888,2022-02-15-08:59:20,10.1.1.3,26,-0.060,-0.060,-0.060,0.000,0.000,0.000
1644915560471960064,2022-02-15-08:59:20,10.1.1.3,34,-0.050,-0.050,-0.050,0.000,0.000,0.000
1644915560511603200,2022-02-15-08:59:20,10.1.1.3,18,-0.041,-0.041,-0.041,0.000,0.000,0.000
1644915560570781952,2022-02-15-08:59:20,10.1.1.3,27,-0.030,-0.030,-0.030,0.000,0.000,0.000
1644915560631136000,2022-02-15-08:59:20,10.1.1.3,36,-0.020,-0.020,-0.020,0.000,0.000,0.000
1644915560670893824,2022-02-15-08:59:20,10.1.1.3,24,-0.010,-0.010,-0.010,0.000,0.000,0.000
1644915560894120960,2022-02-15-08:59:20,10.1.1.3,39,0.030,0.030,0.030,0.000,0.000,0.000
1644915560931265024,2022-02-15-08:59:20,10.1.1.3,28,0.040,0.040,0.040,0.000,0.000,0.000
1644915560992177920,2022-02-15-08:59:20,10.1.1.3,38,0.050,0.050,0.050,0.000,0.000,0.000
1644915561033142016,2022-02-15-08:59:21,10.1.1.3,27,0.060,0.060,0.060,0.000,0.000,0.000
1644915561091582976,2022-02-15-08:59:21,10.1.1.3,36,0.070,0.070,0.070,0.000,0.000,0.000
1644915561132569088,2022-02-15-08:59:21,10.1.1.3,26,0.080,0.080,0.080,0.000,0.000,0.000
1644915561192146944,2022-02-15-08:59:21,10.1.1.3,35,0.090,0.090,0.090,0.000,0.000,0.000
1644915561232381184,2022-02-15-08:59:21,10.1.1.3,24,0.100,0.100,0.100,0.000,0.000,0.000
1644915561291840000,2022-02-15-08:59:21,10.1.1.3,33,0.090,0.090,0.090,0.000,0.000,0.000
1644915561331674112,2022-02-15-08:59:21,10.1.1.3,23,0.080,0.080,0.080,0.000,0.000,0.000
1644915561455558144,2022-02-15-08:59:21,10.1.1.3,39,0.060,0.060,0.060,0.000,0.000,0.000
1644915561494590976,2022-02-15-08:59:21,10.1.1.3,26,0.050,0.050,0.050,0.000,0.000,0.000
1644915561551811840,2022-02-15-08:59:21,10.1.1.3,36,0.040,0.040,0.040,0.000,0.000,0.000
1644915561606962944,2022-02-15-08:59:21,10.1.1.3,24,0.030,0.030,0.030,0.000,0.000,0.000
1644915561711802112,2022-02-15-08:59:21,10.1.1.3,39,0.010,0.010,0.010,0.000,0.000,0.000
1644915561751909120,2022-02-15-08:59:21,10.1.1.3,28,0.000,0.000,0.000,0.000,0.000,0.000
1644915561811141888,2022-02-15-08:59:21,10.1.1.3,38,-0.010,-0.010,-0.010,0.000,0.000,0.000
1644915561851969024,2022-02-15-08:59:21,10.1.1.3,27,-0.020,-0.020,-0.020,0.000,0.000,0.000
1644915561912632832,2022-02-15-08:59:21,10.1.1.3,36,-0.030,-0.030,-0.030,0.000,0.000,0.000
1644915561951239936,2022-02-15-08:59:21,10.1.1.3,25,-0.040,-0.040,-0.040,0.000,0.000,0.000
1644915562011814144,2022-02-15-08:59:22,10.1.1.3,28,-0.050,-0.050,-0.050,0.000,0.000,0.000
1644915562072454912,2022-02-15-08:59:22,10.1.1.3,37,-0.060,-0.060,-0.060,0.000,0.000,0.000
1644915562112066048,2022-02-15-08:59:22,10.1.1.3,25,-0.070,-0.070,-0.070,0.000,0.000,0.000
1644915562272100864,2022-02-15-08:59:22,10.1.1.3,27,-0.100,-0.100,-0.100,0.000,0.000,0.000
1644915562391809024,2022-02-15-08:59:22,10.1.1.3,36,-0.080,-0.080,-0.080,0.000,0.000,0.000
1644915562436263936,2022-02-15-08:59:22,10.1.1.3,25,-0.070,-0.070,-0.070,0.000,0.000,0.000
1644915562654542080,2022-02-15-08:59:22,10.1.1.3,38,-0.030,-0.030,-0.030,0.000,0.000,0.000
1644915562695433984,2022-02-15-08:59:22,10.1.1.3,25,-0.020,-0.020,-0.020,0.000,0.000,0.000
1644915562751019008,2022-02-15-08:59:22,10.1.1.3,34,-0.010,-0.010,-0.010,0.000,0.000,0.000
1644915562855837184,2022-02-15-08:59:22,10.1.1.3,28,0.010,0.010,0.010,0.000,0.000,0.000
1644915562913991936,2022-02-15-08:59:22,10.1.1.3,35,0.020,0.020,0.020,0.000,0.000,0.000
1644915563073880832,2022-02-15-08:59:23,10.1.1.3,38,0.050,0.050,0.050,0.000,0.000,0.000
1644915563121479936,2022-02-15-08:59:23,10.1.1.3,24,0.060,0.060,0.060,0.000,0.000,0.000
1644915563233007872,2022-02-15-08:59:23,10.1.1.3,39,0.080,0.080,0.080,0.000,0.000,0.000
1644915563271291136,2022-02-15-08:59:23,10.1.1.3,29,0.090,0.090,0.090,0.000,0.000,0.000
1644915563339248896,2022-02-15-08:59:23,10.1.1.3,38,0.100,0.100,0.100,0.000,0.000,0.000
1644915563375094016,2022-02-15-08:59:23,10.1.1.3,28,0.090,0.090,0.090,0.000,0.000,0.000
1644915563431843072,2022-02-15-08:59:23,10.1.1.3,37,0.080,0.080,0.080,0.000,0.000,0.000
1644915563471868928,2022-02-15-08:59:23,10.1.1.3,27,0.070,0.070,0.070,0.000,0.000,0.000
1644915563533711872,2022-02-15-08:59:23,10.1.1.3,37,0.060,0.060,0.060,0.000,0.000,0.000
1644915563573415168,2022-02-15-08:59:23,10.1.1.3,26,0.050,0.050,0.050,0.000,0.000,0.000
1644915563633837056,2022-02-15-08:59:23,10.1.1.3,36,0.040,0.040,0.040,0.000,0.000,0.000
1644915563672886016,2022-02-15-08:59:23,10.1.1.3,25,0.030,0.030,0.030,0.000,0.000,0.000
1644915563790721024,2022-02-15-08:59:23,10.1.1.3,20,0.010,0.010,0.010,0.000,0.000,0.000
1644915563873574144,2022-02-15-08:59:23,10.1.1.3,37,0.000,0.000,0.000,0.000,0.000,0.000
1644915563911124992,2022-02-15-08:59:23,10.1.1.3,24,-0.010,-0.010,-0.010,0.000,0.000,0.000
1644915564031001088,2022-02-15-08:59:24,10.1.1.3,38,-0.030,-0.030,-0.030,0.000,0.000,0.000
1644915564071280896,2022-02-15-08:59:24,10.1.1.3,27,-0.040,-0.040,-0.040,0.000,0.000,0.000
1644915564234702080,2022-02-15-08:59:24,10.1.1.3,28,-0.070,-0.070,-0.070,0.000,0.000,0.000
1644915564293627136,2022-02-15-08:59:24,10.1.1.3,38,-0.080,-0.080,-0.080,0.000,0.000,0.000
1644915564333771008,2022-02-15-08:59:24,10.1.1.3,27,-0.090,-0.090,-0.090,0.000,0.000,0.000
1644915564394279936,2022-02-15-08:59:24,10.1.1.3,37,-0.100,-0.100,-0.100,0.000,0.000,0.000
1644915564432764928,2022-02-15-08:59:24,10.1.1.3,26,-0.090,-0.090,-0.090,0.000,0.000,0.000
1644915564493427968,2022-02-15-08:59:24,10.1.1.3,35,-0.080,-0.080,-0.080,0.000,0.000,0.000
1644915564533456128,2022-02-15-08:59:24,10.1.1.3,24,-0.070,-0.070,-0.070,0.000,0.000,0.000
1644915564593581056,2022-02-15-08:59:24,10.1.1.3,33,-0.060,-0.060,-0.060,0.000,0.000,0.000
1644915564753555968,2022-02-15-08:59:24,10.1.1.3,38,-0.030,-0.030,-0.030,0.000,0.000,0.000
1644915564793644800,2022-02-15-08:59:24,10.1.1.3,28,-0.020,-0.020,-0.020,0.000,0.000,0.000
1644915564853459968,2022-02-15-08:59:24,10.1.1.3,37,-0.010,-0.010,-0.010,0.000,0.000,0.000
1644915564917362944,2022-02-15-08:59:24,10.1.1.3,27,0.000,0.000,0.000,0.000,0.000,0.000
1644915565012504064,2022-02-15-08:59:25,10.1.1.3,33,0.020,0.020,0.020,0.000,0.000,0.000
1644915565174868992,2022-02-15-08:59:25,10.1.1.3,39,0.050,0.050,0.050,0.000,0.000,0.000
1644915565211677184,2022-02-15-08:59:25,10.1.1.3,28,0.060,0.060,0.060,0.000,0.000,0.000
1644915565274161152,2022-02-15-08:59:25,10.1.1.3,38,0.070,0.070,0.070,0.000,0.000,0.000
1644915565313072896,2022-02-15-08:59:25,10.1.1.3,27,0.080,0.080,0.080,0.000,0.000,0.000
1644915565372411136,2022-02-15-08:59:25,10.1.1.3,36,0.090,0.090,0.090,0.000,0.000,0.000
1644915565412254976,2022-02-15-08:59:25,10.1.1.3,26,0.100,0.100,0.100,0.000,0.000,0.000
1644915565612463104,2022-02-15-08:59:25,10.1.1.3,27,0.070,0.070,0.070,0.000,0.000,0.000
1644915565833746944,2022-02-15-08:59:25,10.1.1.3,28,0.030,0.030,0.030,0.000,0.000,0.000
1644915565892553216,2022-02-15-08:59:25,10.1.1.3,37,0.020,0.020,0.020,0.000,0.000,0.000
1644915565941672192,2022-02-15-08:59:25,10.1.1.3,29,0.010,0.010,0.010,0.000,0.000,0.000
1644915565991945984,2022-02-15-08:59:25,10.1.1.3,35,0.000,0.000,0.000,0.000,0.000,0.000
1644915566232029952,2022-02-15-08:59:26,10.1.1.3,34,-0.040,-0.040,-0.040,0.000,0.000,0.000
1644915566271975936,2022-02-15-08:59:26,10.1.1.3,24,-0.050,-0.050,-0.050,0.000,0.000,0.000
1644915566431719168,2022-02-15-08:59:26,10.1.1.3,29,-0.080,-0.080,-0.080,0.000,0.000,0.000
1644915566632560128,2022-02-15-08:59:26,10.1.1.3,4,-0.080,-0.080,-0.080,0.000,0.000,0.000
1644915566713229056,2022-02-15-08:59:26,10.1.1.3,33,-0.070,-0.070,-0.070,0.000,0.000,0.000
1644915566768420096,2022-02-15-08:59:26,10.1.1.3,23,-0.060,-0.060,-0.060,0.000,0.000,0.000
1644915566872275968,2022-02-15-08:59:26,10.1.1.3,38,-0.040,-0.040,-0.040,0.000,0.000,0.000
1644915566912653056,2022-02-15-08:59:26,10.1.1.3,28,-0.030,-0.030,-0.030,0.000,0.000,0.000
1644915566972244992,2022-02-15-08:59:26,10.1.1.3,36,-0.020,-0.020,-0.020,0.000,0.000,0.000
1644915567014356992,2022-02-15-08:59:27,10.1.1.3,26,-0.010,-0.010,-0.010,0.000,0.000,0.000
1644915567072722944,2022-02-15-08:59:27,10.1.1.3,36,0.000,0.000,0.000,0.000,0.000,0.000
1644915567111826944,2022-02-15-08:59:27,10.1.1.3,24,0.010,0.010,0.010,0.000,0.000,0.000
1644915567171330816,2022-02-15-08:59:27,10.1.1.3,34,0.020,0.020,0.020,0.000,0.000,0.000
1644915567212014848,2022-02-15-08:59:27,10.1.1.3,23,0.030,0.030,0.030,0.000,0.000,0.000
1644915567433404928,2022-02-15-08:59:27,10.1.1.3,39,0.070,0.070,0.070,0.000,0.000,0.000
1644915567472690944,2022-02-15-08:59:27,10.1.1.3,28,0.080,0.080,0.080,0.000,0.000,0.000
1644915567533044224,2022-02-15-08:59:27,10.1.1.3,38,0.090,0.090,0.090,0.000,0.000,0.000
1644915567572196864,2022-02-15-08:59:27,10.1.1.3,27,0.100,0.100,0.100,0.000,0.000,0.000
1644915567633140992,2022-02-15-08:59:27,10.1.1.3,36,0.090,0.090,0.090,0.000,0.000,0.000
1644915567671941120,2022-02-15-08:59:27,10.1.1.3,26,0.080,0.080,0.080,0.000,0.000,0.000
1644915567734822912,2022-02-15-08:59:27,10.1.1.3,34,0.070,0.070,0.070,0.000,0.000,0.000
1644915567933120000,2022-02-15-08:59:27,10.1.1.3,29,0.030,0.030,0.030,0.000,0.000,0.000
1644915567992486912,2022-02-15-08:59:27,10.1.1.3,38,0.020,0.020,0.020,0.000,0.000,0.000
1644915568032217856,2022-02-15-08:59:28,10.1.1.3,27,0.010,0.010,0.010,0.000,0.000,0.000
1644915568172252928,2022-02-15-08:59:28,10.1.1.3,35,-0.010,-0.010,-0.010,0.000,0.000,0.000
1644915568232001024,2022-02-15-08:59:28,10.1.1.3,38,-0.020,-0.020,-0.020,0.000,0.000,0.000
1644915568272211968,2022-02-15-08:59:28,10.1.1.3,28,-0.030,-0.030,-0.030,0.000,0.000,0.000
1644915568331932928,2022-02-15-08:59:28,10.1.1.3,35,-0.040,-0.040,-0.040,0.000,0.000,0.000
1644915568374882048,2022-02-15-08:59:28,10.1.1.3,24,-0.050,-0.050,-0.050,0.000,0.000,0.000
1644915568493239040,2022-02-15-08:59:28,10.1.1.3,38,-0.070,-0.070,-0.070,0.000,0.000,0.000
1644915568772606976,2022-02-15-08:59:28,10.1.1.3,9,-0.070,-0.070,-0.070,0.000,0.000,0.000
1644915568853570816,2022-02-15-08:59:28,10.1.1.3,39,-0.060,-0.060,-0.060,0.000,0.000,0.000
1644915568892371968,2022-02-15-08:59:28,10.1.1.3,28,-0.050,-0.050,-0.050,0.000,0.000,0.000
1644915568953031168,2022-02-15-08:59:28,10.1.1.3,38,-0.040,-0.040,-0.040,0.000,0.000,0.000
1644915568992655872,2022-02-15-08:59:28,10.1.1.3,27,-0.030,-0.030,-0.030,0.000,0.000,0.000
1644915569053344000,2022-02-15-08:59:29,10.1.1.3,37,-0.020,-0.020,-0.020,0.000,0.000,0.000
1644915569095177984,2022-02-15-08:59:29,10.1.1.3,27,-0.010,-0.010,-0.010,0.000,0.000,0.000
1644915569152755968,2022-02-15-08:59:29,10.1.1.3,36,0.000,0.000,0.000,0.000,0.000,0.000
1644915569193238016,2022-02-15-08:59:29,10.1.1.3,25,0.010,0.010,0.010,0.000,0.000,0.000
1644915569251528960,2022-02-15-08:59:29,10.1.1.3,34,0.020,0.020,0.020,0.000,0.000,0.000
1644915569291794176,2022-02-15-08:59:29,10.1.1.3,24,0.030,0.030,0.030,0.000,0.000,0.000
1644915569390900992,2022-02-15-08:59:29,10.1.1.3,23,0.050,0.050,0.050,0.000,0.000,0.000
1644915569615468032,2022-02-15-08:59:29,10.1.1.3,40,0.090,0.090,0.090,0.000,0.000,0.000
1644915569651194112,2022-02-15-08:59:29,10.1.1.3,29,0.100,0.100,0.100,0.000,0.000,0.000
1644915569710927872,2022-02-15-08:59:29,10.1.1.3,39,0.090,0.090,0.090,0.000,0.000,0.000
1644915569764100096,2022-02-15-08:59:29,10.1.1.3,28,0.080,0.080,0.080,0.000,0.000,0.000
1644915569813306112,2022-02-15-08:59:29,10.1.1.3,38,0.070,0.070,0.070,0.000,0.000,0.000
1644915570111761152,2022-02-15-08:59:30,10.1.1.3,29,0.010,0.010,0.010,0.000,0.000,0.000
1644915570171303936,2022-02-15-08:59:30,10.1.1.3,38,0.000,0.000,0.000,0.000,0.000,0.000
1644915570211471104,2022-02-15-08:59:30,10.1.1.3,28,-0.010,-0.010,-0.010,0.000,0.000,0.000
1644915570271888896,2022-02-15-08:59:30,10.1.1.3,38,-0.020,-0.020,-0.020,0.000,0.000,0.000
1644915570311666944,2022-02-15-08:59:30,10.1.1.3,27,-0.030,-0.030,-0.030,0.000,0.000,0.000
1644915570371892992,2022-02-15-08:59:30,10.1.1.3,36,-0.040,-0.040,-0.040,0.000,0.000,0.000
1644915570472359936,2022-02-15-08:59:30,10.1.1.3,34,-0.060,-0.060,-0.060,0.000,0.000,0.000
1644915570512131072,2022-02-15-08:59:30,10.1.1.3,23,-0.070,-0.070,-0.070,0.000,0.000,0.000
1644915570632982016,2022-02-15-08:59:30,10.1.1.3,39,-0.090,-0.090,-0.090,0.000,0.000,0.000
1644915570721720064,2022-02-15-08:59:30,10.1.1.3,28,-0.100,-0.100,-0.100,0.000,0.000,0.000
1644915570752116992,2022-02-15-08:59:30,10.1.1.3,28,-0.090,-0.090,-0.090,0.000,0.000,0.000
1644915570811312896,2022-02-15-08:59:30,10.1.1.3,37,-0.080,-0.080,-0.080,0.000,0.000,0.000
1644915570853168896,2022-02-15-08:59:30,10.1.1.3,26,-0.070,-0.070,-0.070,0.000,0.000,0.000
1644915570914537984,2022-02-15-08:59:30,10.1.1.3,35,-0.060,-0.060,-0.060,0.000,0.000,0.000
1644915570954839040,2022-02-15-08:59:30,10.1.1.3,24,-0.050,-0.050,-0.050,0.000,0.000,0.000
1644915571015276800,2022-02-15-08:59:31,10.1.1.3,34,-0.040,-0.040,-0.040,0.000,0.000,0.000
1644915571051393024,2022-02-15-08:59:31,10.1.1.3,23,-0.030,-0.030,-0.030,0.000,0.000,0.000
1644915571371806976,2022-02-15-08:59:31,10.1.1.3,38,0.030,0.030,0.030,0.000,0.000,0.000
1644915571411267072,2022-02-15-08:59:31,10.1.1.3,26,0.040,0.040,0.040,0.000,0.000,0.000
1644915571471887104,2022-02-15-08:59:31,10.1.1.3,36,0.050,0.050,0.050,0.000,0.000,0.000
1644915571571440896,2022-02-15-08:59:31,10.1.1.3,33,0.070,0.070,0.070,0.000,0.000,0.000
1644915571773916928,2022-02-15-08:59:31,10.1.1.3,28,0.090,0.090,0.090,0.000,0.000,0.000
1644915571833144064,2022-02-15-08:59:31,10.1.1.3,38,0.080,0.080,0.080,0.000,0.000,0.000
1644915571871862016,2022-02-15-08:59:31,10.1.1.3,26,0.070,0.070,0.070,0.000,0.000,0.000
1644915571933916928,2022-02-15-08:59:31,10.1.1.3,35,0.060,0.060,0.060,0.000,0.000,0.000
1644915571972111104,2022-02-15-08:59:31,10.1.1.3,24,0.050,0.050,0.050,0.000,0.000,0.000
1644915572173772032,2022-02-15-08:59:32,10.1.1.3,20,0.010,0.010,0.010,0.000,0.000,0.000
1644915572232454144,2022-02-15-08:59:32,10.1.1.3,28,0.000,0.000,0.000,0.000,0.000,0.000
1644915572292398848,2022-02-15-08:59:32,10.1.1.3,35,-0.010,-0.010,-0.010,0.000,0.000,0.000
1644915572332611072,2022-02-15-08:59:32,10.1.1.3,24,-0.020,-0.020,-0.020,0.000,0.000,0.000
1644915572552026880,2022-02-15-08:59:32,10.1.1.3,39,-0.060,-0.060,-0.060,0.000,0.000,0.000
1644915572592787968,2022-02-15-08:59:32,10.1.1.3,29,-0.070,-0.070,-0.070,0.000,0.000,0.000
1644915572692136960,2022-02-15-08:59:32,10.1.1.3,27,-0.090,-0.090,-0.090,0.000,0.000,0.000
1644915572751238144,2022-02-15-08:59:32,10.1.1.3,33,-0.100,-0.100,-0.100,0.000,0.000,0.000
1644915572951579136,2022-02-15-08:59:32,10.1.1.3,20,-0.060,-0.060,-0.060,0.000,0.000,0.000
1644915573011310080,2022-02-15-08:59:33,10.1.1.3,29,-0.050,-0.050,-0.050,0.000,0.000,0.000
1644915573271534080,2022-02-15-08:59:33,10.1.1.3,29,0.000,0.000,0.000,0.000,0.000,0.000
1644915573331783168,2022-02-15-08:59:33,10.1.1.3,38,0.010,0.010,0.010,0.000,0.000,0.000
1644915573371449088,2022-02-15-08:59:33,10.1.1.3,28,0.020,0.020,0.020,0.000,0.000,0.000
1644915573432116992,2022-02-15-08:59:33,10.1.1.3,37,0.030,0.030,0.030,0.000,0.000,0.000
1644915573472263168,2022-02-15-08:59:33,10.1.1.3,27,0.040,0.040,0.040,0.000,0.000,0.000
1644915573531181056,2022-02-15-08:59:33,10.1.1.3,36,0.050,0.050,0.050,0.000,0.000,0.000
1644915573572412928,2022-02-15-08:59:33,10.1.1.3,25,0.060,0.060,0.060,0.000,0.000,0.000
1644915573631755008,2022-02-15-08:59:33,10.1.1.3,35,0.070,0.070,0.070,0.000,0.000,0.000
1644915573671201024,2022-02-15-08:59:33,10.1.1.3,24,0.080,0.080,0.080,0.000,0.000,0.000
1644915573791768064,2022-02-15-08:59:33,10.1.1.3,38,0.100,0.100,0.100,0.000,0.000,0.000
1644915573832244992,2022-02-15-08:59:33,10.1.1.3,27,0.090,0.090,0.090,0.000,0.000,0.000
1644915573892062976,2022-02-15-08:59:33,10.1.1.3,36,0.080,0.080,0.080,0.000,0.000,0.000
1644915573932002048,2022-02-15-08:59:33,10.1.1.3,25,0.070,0.070,0.070,0.000,0.000,0.000
1644915573991704064,2022-02-15-08:59:33,10.1.1.3,34,0.060,0.060,0.060,0.000,0.000,0.000
1644915574151947008,2022-02-15-08:59:34,10.1.1.3,38,0.030,0.030,0.030,0.000,0.000,0.000
1644915574196832000,2022-02-15-08:59:34,10.1.1.3,28,0.020,0.020,0.020,0.000,0.000,0.000
1644915574250816000,2022-02-15-08:59:34,10.1.1.3,37,0.010,0.010,0.010,0.000,0.000,0.000
1644915574291134976,2022-02-15-08:59:34,10.1.1.3,26,0.000,0.000,0.000,0.000,0.000,0.000
1644915574351649024,2022-02-15-08:59:34,10.1.1.3,36,-0.010,-0.010,-0.010,0.000,0.000,0.000
1644915574391940096,2022-02-15-08:59:34,10.1.1.3,24,-0.020,-0.020,-0.020,0.000,0.000,0.000
1644915574453716992,2022-02-15-08:59:34,10.1.1.3,33,-0.030,-0.030,-0.030,0.000,0.000,0.000
1644915574513371904,2022-02-15-08:59:34,10.1.1.3,38,-0.040,-0.040,-0.040,0.000,0.000,0.000
1644915574553009920,2022-02-15-08:59:34,10.1.1.3,27,-0.050,-0.050,-0.050,0.000,0.000,0.000
1644915574612552960,2022-02-15-08:59:34,10.1.1.3,37,-0.060,-0.060,-0.060,0.000,0.000,0.000
1644915574653601024,2022-02-15-08:59:34,10.1.1.3,26,-0.070,-0.070,-0.070,0.000,0.000,0.000
1644915574712712960,2022-02-15-08:59:34,10.1.1.3,35,-0.080,-0.080,-0.080,0.000,0.000,0.000
1644915574752194816,2022-02-15-08:59:34,10.1.1.3,24,-0.090,-0.090,-0.090,0.000,0.000,0.000
1644915574813993984,2022-02-15-08:59:34,10.1.1.3,28,-0.100,-0.100,-0.100,0.000,0.000,0.000
1644915574874089984,2022-02-15-08:59:34,10.1.1.3,37,-0.090,-0.090,-0.090,0.000,0.000,0.000
1644915574974412800,2022-02-15-08:59:34,10.1.1.3,28,-0.070,-0.070,-0.070,0.000,0.000,0.000
1644915575093346048,2022-02-15-08:59:35,10.1.1.3,37,-0.050,-0.050,-0.050,0.000,0.000,0.000
1644915575132281088,2022-02-15-08:59:35,10.1.1.3,26,-0.040,-0.040,-0.040,0.000,0.000,0.000
1644915575194438912,2022-02-15-08:59:35,10.1.1.3,35,-0.030,-0.030,-0.030,0.000,0.000,0.000
1644915575331799040,2022-02-15-08:59:35,10.1.1.3,34,-0.010,-0.010,-0.010,0.000,0.000,0.000
1644915575374006016,2022-02-15-08:59:35,10.1.1.3,23,0.000,0.000,0.000,0.000,0.000,0.000
1644915575592220160,2022-02-15-08:59:35,10.1.1.3,37,0.040,0.040,0.040,0.000,0.000,0.000
1644915575632049152,2022-02-15-08:59:35,10.1.1.3,25,0.050,0.050,0.050,0.000,0.000,0.000
1644915575693137920,2022-02-15-08:59:35,10.1.1.3,34,0.060,0.060,0.060,0.000,0.000,0.000
1644915575731635200,2022-02-15-08:59:35,10.1.1.3,23,0.070,0.070,0.070,0.000,0.000,0.000
1644915575993367808,2022-02-15-08:59:35,10.1.1.3,29,0.080,0.080,0.080,0.000,0.000,0.000
1644915576053550848,2022-02-15-08:59:36,10.1.1.3,38,0.070,0.070,0.070,0.000,0.000,0.000
1644915576093473024,2022-02-15-08:59:36,10.1.1.3,28,0.060,0.060,0.060,0.000,0.000,0.000
1644915576153036032,2022-02-15-08:59:36,10.1.1.3,37,0.050,0.050,0.050,0.000,0.000,0.000
1644915576194277120,2022-02-15-08:59:36,10.1.1.3,26,0.040,0.040,0.040,0.000,0.000,0.000
1644915576252419072,2022-02-15-08:59:36,10.1.1.3,28,0.030,0.030,0.030,0.000,0.000,0.000
1644915576315570176,2022-02-15-08:59:36,10.1.1.3,38,0.020,0.020,0.020,0.000,0.000,0.000
1644915576353085952,2022-02-15-08:59:36,10.1.1.3,27,0.010,0.010,0.010,0.000,0.000,0.000
1644915576414813952,2022-02-15-08:59:36,10.1.1.3,35,0.000,0.000,0.000,0.000,0.000,0.000
1644915576453701888,2022-02-15-08:59:36,10.1.1.3,23,-0.010,-0.010,-0.010,0.000,0.000,0.000
1644915576514041856,2022-02-15-08:59:36,10.1.1.3,28,-0.020,-0.020,-0.020,0.000,0.000,0.000
1644915576614437120,2022-02-15-08:59:36,10.1.1.3,25,-0.040,-0.040,-0.040,0.000,0.000,0.000
1644915576672875776,2022-02-15-08:59:36,10.1.1.3,33,-0.050,-0.050,-0.050,0.000,0.000,0.000
1644915576733758976,2022-02-15-08:59:36,10.1.1.3,38,-0.060,-0.060,-0.060,0.000,0.000,0.000
1644915576773644032,2022-02-15-08:59:36,10.1.1.3,26,-0.070,-0.070,-0.070,0.000,0.000,0.000
1644915576834606848,2022-02-15-08:59:36,10.1.1.3,33,-0.080,-0.080,-0.080,0.000,0.000,0.000
1644915576937249792,2022-02-15-08:59:36,10.1.1.3,30,-0.100,-0.100,-0.100,0.000,0.000,0.000
1644915576993697792,2022-02-15-08:59:36,10.1.1.3,38,-0.090,-0.090,-0.090,0.000,0.000,0.000
1644915577034306048,2022-02-15-08:59:37,10.1.1.3,24,-0.080,-0.080,-0.080,0.000,0.000,0.000
1644915577095041024,2022-02-15-08:59:37,10.1.1.3,33,-0.070,-0.070,-0.070,0.000,0.000,0.000
1644915577155237888,2022-02-15-08:59:37,10.1.1.3,39,-0.060,-0.060,-0.060,0.000,0.000,0.000
1644915577193255936,2022-02-15-08:59:37,10.1.1.3,25,-0.050,-0.050,-0.050,0.000,0.000,0.000
1644915577253967104,2022-02-15-08:59:37,10.1.1.3,25,-0.040,-0.040,-0.040,0.000,0.000,0.000
1644915577314234112,2022-02-15-08:59:37,10.1.1.3,33,-0.030,-0.030,-0.030,0.000,0.000,0.000
1644915577512568064,2022-02-15-08:59:37,10.1.1.3,27,0.010,0.010,0.010,0.000,0.000,0.000
1644915577573587968,2022-02-15-08:59:37,10.1.1.3,36,0.020,0.020,0.020,0.000,0.000,0.000
1644915577617336064,2022-02-15-08:59:37,10.1.1.3,26,0.030,0.030,0.030,0.000,0.000,0.000
1644915577671997952,2022-02-15-08:59:37,10.1.1.3,35,0.040,0.040,0.040,0.000,0.000,0.000
1644915577735318016,2022-02-15-08:59:37,10.1.1.3,38,0.050,0.050,0.050,0.000,0.000,0.000
1644915577774217984,2022-02-15-08:59:37,10.1.1.3,27,0.060,0.060,0.060,0.000,0.000,0.000
1644915577839122944,2022-02-15-08:59:37,10.1.1.3,34,0.070,0.070,0.070,0.000,0.000,0.000
1644915577944480768,2022-02-15-08:59:37,10.1.1.3,29,0.090,0.090,0.090,0.000,0.000,0.000
1644915577991260160,2022-02-15-08:59:37,10.1.1.3,27,0.100,0.100,0.100,0.000,0.000,0.000
1644915578051345152,2022-02-15-08:59:38,10.1.1.3,37,0.090,0.090,0.090,0.000,0.000,0.000
1644915578091299072,2022-02-15-08:59:38,10.1.1.3,26,0.080,0.080,0.080,0.000,0.000,0.000
1644915578151115008,2022-02-15-08:59:38,10.1.1.3,35,0.070,0.070,0.070,0.000,0.000,0.000
1644915578192413184,2022-02-15-08:59:38,10.1.1.3,25,0.060,0.060,0.060,0.000,0.000,0.000
1644915578251211008,2022-02-15-08:59:38,10.1.1.3,34,0.050,0.050,0.050,0.000,0.000,0.000
1644915578451577856,2022-02-15-08:59:38,10.1.1.3,29,0.010,0.010,0.010,0.000,0.000,0.000
1644915578511205888,2022-02-15-08:59:38,10.1.1.3,39,0.000,0.000,0.000,0.000,0.000,0.000
1644915578553540096,2022-02-15-08:59:38,10.1.1.3,28,-0.010,-0.010,-0.010,0.000,0.000,0.000
1644915578611046912,2022-02-15-08:59:38,10.1.1.3,35,-0.020,-0.020,-0.020,0.000,0.000,0.000
1644915578651675904,2022-02-15-08:59:38,10.1.1.3,24,-0.030,-0.030,-0.030,0.000,0.000,0.000
1644915578712013056,2022-02-15-08:59:38,10.1.1.3,28,-0.040,-0.040,-0.040,0.000,0.000,0.000
1644915578772193024,2022-02-15-08:59:38,10.1.1.3,37,-0.050,-0.050,-0.050,0.000,0.000,0.000
1644915578815798016,2022-02-15-08:59:38,10.1.1.3,27,-0.060,-0.060,-0.060,0.000,0.000,0.000
1644915578871759872,2022-02-15-08:59:38,10.1.1.3,36,-0.070,-0.070,-0.070,0.000,0.000,0.000
1644915578911020032,2022-02-15-08:59:38,10.1.1.3,26,-0.080,-0.080,-0.080,0.000,0.000,0.000
1644915579091994112,2022-02-15-08:59:39,10.1.1.3,0,-0.080,-0.080,-0.080,0.000,0.000,0.000
1644915579193437184,2022-02-15-08:59:39,10.1.1.3,29,-0.070,-0.070,-0.070,0.000,0.000,0.000
1644915579293540096,2022-02-15-08:59:39,10.1.1.3,30,-0.050,-0.050,-0.050,0.000,0.000,0.000
1644915579353112064,2022-02-15-08:59:39,10.1.1.3,39,-0.040,-0.040,-0.040,0.000,0.000,0.000
1644915579392934144,2022-02-15-08:59:39,10.1.1.3,28,-0.030,-0.030,-0.030,0.000,0.000,0.000
1644915579452878848,2022-02-15-08:59:39,10.1.1.3,36,-0.020,-0.020,-0.020,0.000,0.000,0.000
1644915579492996096,2022-02-15-08:59:39,10.1.1.3,25,-0.010,-0.010,-0.010,0.000,0.000,0.000
1644915579551453952,2022-02-15-08:59:39,10.1.1.3,35,0.000,0.000,0.000,0.000,0.000,0.000
1644915579773544960,2022-02-15-08:59:39,10.1.1.3,29,0.040,0.040,0.040,0.000,0.000,0.000
1644915579833797888,2022-02-15-08:59:39,10.1.1.3,38,0.050,0.050,0.050,0.000,0.000,0.000
1644915579874188800,2022-02-15-08:59:39,10.1.1.3,27,0.060,0.060,0.060,0.000,0.000,0.000
1644915579933048064,2022-02-15-08:59:39,10.1.1.3,35,0.070,0.070,0.070,0.000,0.000,0.000
1644915579976000000,2022-02-15-08:59:39,10.1.1.3,24,0.080,0.080,0.080,0.000,0.000,0.000
1644915580034100992,2022-02-15-08:59:40,10.1.1.3,33,0.090,0.090,0.090,0.000,0.000,0.000
1644915580094678016,2022-02-15-08:59:40,10.1.1.3,38,0.100,0.100,0.100,0.000,0.000,0.000
1644915580132556800,2022-02-15-08:59:40,10.1.1.3,26,0.090,0.090,0.090,0.000,0.000,0.000
1644915580196252160,2022-02-15-08:59:40,10.1.1.3,35,0.080,0.080,0.080,0.000,0.000,0.000
1644915580234657024,2022-02-15-08:59:40,10.1.1.3,24,0.070,0.070,0.070,0.000,0.000,0.000
1644915580394002944,2022-02-15-08:59:40,10.1.1.3,30,0.040,0.040,0.040,0.000,0.000,0.000
1644915580455244032,2022-02-15-08:59:40,10.1.1.3,38,0.030,0.030,0.030,0.000,0.000,0.000
1644915580493830912,2022-02-15-08:59:40,10.1.1.3,27,0.020,0.020,0.020,0.000,0.000,0.000
1644915580556866816,2022-02-15-08:59:40,10.1.1.3,35,0.010,0.010,0.010,0.000,0.000,0.000
1644915580592935168,2022-02-15-08:59:40,10.1.1.3,24,0.000,0.000,0.000,0.000,0.000,0.000
1644915580991513856,2022-02-15-08:59:40,10.1.1.3,28,-0.070,-0.070,-0.070,0.000,0.000,0.000
1644915581052259840,2022-02-15-08:59:41,10.1.1.3,36,-0.080,-0.080,-0.080,0.000,0.000,0.000
1644915581091290880,2022-02-15-08:59:41,10.1.1.3,25,-0.090,-0.090,-0.090,0.000,0.000,0.000
1644915581152087808,2022-02-15-08:59:41,10.1.1.3,34,-0.100,-0.100,-0.100,0.000,0.000,0.000
1644915581311700992,2022-02-15-08:59:41,10.1.1.3,39,-0.070,-0.070,-0.070,0.000,0.000,0.000
1644915581351425792,2022-02-15-08:59:41,10.1.1.3,28,-0.060,-0.060,-0.060,0.000,0.000,0.000
1644915581412056832,2022-02-15-08:59:41,10.1.1.3,37,-0.050,-0.050,-0.050,0.000,0.000,0.000
1644915581452847104,2022-02-15-08:59:41,10.1.1.3,25,-0.040,-0.040,-0.040,0.000,0.000,0.000
1644915581511796992,2022-02-15-08:59:41,10.1.1.3,33,-0.030,-0.030,-0.030,0.000,0.000,0.000
1644915581771837952,2022-02-15-08:59:41,10.1.1.3,38,0.020,0.020,0.020,0.000,0.000,0.000
1644915581812196864,2022-02-15-08:59:41,10.1.1.3,28,0.030,0.030,0.030,0.000,0.000,0.000
1644915581872267008,2022-02-15-08:59:41,10.1.1.3,37,0.040,0.040,0.040,0.000,0.000,0.000
1644915581912625152,2022-02-15-08:59:41,10.1.1.3,26,0.050,0.050,0.050,0.000,0.000,0.000
1644915581970977024,2022-02-15-08:59:41,10.1.1.3,33,0.060,0.060,0.060,0.000,0.000,0.000
1644915582232596992,2022-02-15-08:59:42,10.1.1.3,39,0.090,0.090,0.090,0.000,0.000,0.000
1644915582271990016,2022-02-15-08:59:42,10.1.1.3,29,0.080,0.080,0.080,0.000,0.000,0.000
1644915582333737984,2022-02-15-08:59:42,10.1.1.3,38,0.070,0.070,0.070,0.000,0.000,0.000
1644915582372158976,2022-02-15-08:59:42,10.1.1.3,27,0.060,0.060,0.060,0.000,0.000,0.000
1644915582436105984,2022-02-15-08:59:42,10.1.1.3,36,0.050,0.050,0.050,0.000,0.000,0.000
1644915582483290880,2022-02-15-08:59:42,10.1.1.3,25,0.040,0.040,0.040,0.000,0.000,0.000
1644915582532645888,2022-02-15-08:59:42,10.1.1.3,28,0.030,0.030,0.030,0.000,0.000,0.000
1644915582591387136,2022-02-15-08:59:42,10.1.1.3,37,0.020,0.020,0.020,0.000,0.000,0.000
1644915582632147968,2022-02-15-08:59:42,10.1.1.3,26,0.010,0.010,0.010,0.000,0.000,0.000
1644915582691233024,2022-02-15-08:59:42,10.1.1.3,33,0.000,0.000,0.000,0.000,0.000,0.000
1644915582851751168,2022-02-15-08:59:42,10.1.1.3,37,-0.030,-0.030,-0.030,0.000,0.000,0.000
1644915582891371008,2022-02-15-08:59:42,10.1.1.3,26,-0.040,-0.040,-0.040,0.000,0.000,0.000
1644915582951862016,2022-02-15-08:59:42,10.1.1.3,36,-0.050,-0.050,-0.050,0.000,0.000,0.000
1644915582991645184,2022-02-15-08:59:42,10.1.1.3,25,-0.060,-0.060,-0.060,0.000,0.000,0.000
1644915583051744000,2022-02-15-08:59:43,10.1.1.3,35,-0.070,-0.070,-0.070,0.000,0.000,0.000
1644915583091865088,2022-02-15-08:59:43,10.1.1.3,24,-0.080,-0.080,-0.080,0.000,0.000,0.000
1644915583151346944,2022-02-15-08:59:43,10.1.1.3,34,-0.090,-0.090,-0.090,0.000,0.000,0.000
1644915583232708096,2022-02-15-08:59:43,10.1.1.3,9,-0.090,-0.090,-0.090,0.000,0.000,0.000
1644915583311443200,2022-02-15-08:59:43,10.1.1.3,38,-0.080,-0.080,-0.080,0.000,0.000,0.000
1644915583351921152,2022-02-15-08:59:43,10.1.1.3,26,-0.070,-0.070,-0.070,0.000,0.000,0.000
1644915583411843072,2022-02-15-08:59:43,10.1.1.3,35,-0.060,-0.060,-0.060,0.000,0.000,0.000
1644915583450838016,2022-02-15-08:59:43,10.1.1.3,25,-0.050,-0.050,-0.050,0.000,0.000,0.000
1644915583511193088,2022-02-15-08:59:43,10.1.1.3,28,-0.040,-0.040,-0.040,0.000,0.000,0.000
1644915583571726080,2022-02-15-08:59:43,10.1.1.3,37,-0.030,-0.030,-0.030,0.000,0.000,0.000
1644915583611890176,2022-02-15-08:59:43,10.1.1.3,25,-0.020,-0.020,-0.020,0.000,0.000,0.000
1644915583671791104,2022-02-15-08:59:43,10.1.1.3,34,-0.010,-0.010,-0.010,0.000,0.000,0.000
1644915583711046912,2022-02-15-08:59:43,10.1.1.3,23,0.000,0.000,0.000,0.000,0.000,0.000
1644915583993766144,2022-02-15-08:59:43,10.1.1.3,39,0.050,0.050,0.050,0.000,0.000,0.000
1644915584033317120,2022-02-15-08:59:44,10.1.1.3,28,0.060,0.060,0.060,0.000,0.000,0.000
1644915584232440832,2022-02-15-08:59:44,10.1.1.3,28,0.090,0.090,0.090,0.000,0.000,0.000
1644915584292672000,2022-02-15-08:59:44,10.1.1.3,37,0.100,0.100,0.100,0.000,0.000,0.000
1644915584332272128,2022-02-15-08:59:44,10.1.1.3,26,0.090,0.090,0.090,0.000,0.000,0.000
1644915584391258880,2022-02-15-08:59:44,10.1.1.3,36,0.080,0.080,0.080,0.000,0.000,0.000
1644915584432299008,2022-02-15-08:59:44,10.1.1.3,24,0.070,0.070,0.070,0.000,0.000,0.000
1644915584494951936,2022-02-15-08:59:44,10.1.1.3,33,0.060,0.060,0.060,0.000,0.000,0.000
1644915584562486016,2022-02-15-08:59:44,10.1.1.3,20,0.050,0.050,0.050,0.000,0.000,0.000
1644915584651889152,2022-02-15-08:59:44,10.1.1.3,37,0.030,0.030,0.030,0.000,0.000,0.000
1644915584693072128,2022-02-15-08:59:44,10.1.1.3,26,0.020,0.020,0.020,0.000,0.000,0.000
1644915585130760960,2022-02-15-08:59:45,10.1.1.3,30,-0.060,-0.060,-0.060,0.000,0.000,0.000
1644915585190947072,2022-02-15-08:59:45,10.1.1.3,39,-0.070,-0.070,-0.070,0.000,0.000,0.000
1644915585231726848,2022-02-15-08:59:45,10.1.1.3,29,-0.080,-0.080,-0.080,0.000,0.000,0.000
1644915585292422912,2022-02-15-08:59:45,10.1.1.3,38,-0.090,-0.090,-0.090,0.000,0.000,0.000
1644915585331929856,2022-02-15-08:59:45,10.1.1.3,28,-0.100,-0.100,-0.100,0.000,0.000,0.000
1644915585392032000,2022-02-15-08:59:45,10.1.1.3,37,-0.090,-0.090,-0.090,0.000,0.000,0.000
1644915585432403968,2022-02-15-08:59:45,10.1.1.3,26,-0.080,-0.080,-0.080,0.000,0.000,0.000
1644915585491467008,2022-02-15-08:59:45,10.1.1.3,36,-0.070,-0.070,-0.070,0.000,0.000,0.000
1644915585531042048,2022-02-15-08:59:45,10.1.1.3,25,-0.060,-0.060,-0.060,0.000,0.000,0.000
1644915585592588032,2022-02-15-08:59:45,10.1.1.3,35,-0.050,-0.050,-0.050,0.000,0.000,0.000
1644915585693897984,2022-02-15-08:59:45,10.1.1.3,27,-0.030,-0.030,-0.030,0.000,0.000,0.000
1644915585753719040,2022-02-15-08:59:45,10.1.1.3,37,-0.020,-0.020,-0.020,0.000,0.000,0.000
1644915585792610816,2022-02-15-08:59:45,10.1.1.3,27,-0.010,-0.010,-0.010,0.000,0.000,0.000
1644915585854222080,2022-02-15-08:59:45,10.1.1.3,35,0.000,0.000,0.000,0.000,0.000,0.000
1644915585893295104,2022-02-15-08:59:45,10.1.1.3,24,0.010,0.010,0.010,0.000,0.000,0.000
1644915585952993024,2022-02-15-08:59:45,10.1.1.3,34,0.020,0.020,0.020,0.000,0.000,0.000
1644915586354813184,2022-02-15-08:59:46,10.1.1.3,29,0.100,0.100,0.100,0.000,0.000,0.000
1644915586414368000,2022-02-15-08:59:46,10.1.1.3,38,0.090,0.090,0.090,0.000,0.000,0.000
1644915586454469888,2022-02-15-08:59:46,10.1.1.3,28,0.080,0.080,0.080,0.000,0.000,0.000
1644915586514124032,2022-02-15-08:59:46,10.1.1.3,37,0.070,0.070,0.070,0.000,0.000,0.000
1644915586553229056,2022-02-15-08:59:46,10.1.1.3,26,0.060,0.060,0.060,0.000,0.000,0.000
1644915586616122880,2022-02-15-08:59:46,10.1.1.3,36,0.050,0.050,0.050,0.000,0.000,0.000
1644915586654080000,2022-02-15-08:59:46,10.1.1.3,26,0.040,0.040,0.040,0.000,0.000,0.000
1644915586712676096,2022-02-15-08:59:46,10.1.1.3,35,0.030,0.030,0.030,0.000,0.000,0.000
1644915586754342144,2022-02-15-08:59:46,10.1.1.3,24,0.020,0.020,0.020,0.000,0.000,0.000
1644915587175954176,2022-02-15-08:59:47,10.1.1.3,39,-0.060,-0.060,-0.060,0.000,0.000,0.000
1644915587213447168,2022-02-15-08:59:47,10.1.1.3,28,-0.070,-0.070,-0.070,0.000,0.000,0.000
1644915587273575168,2022-02-15-08:59:47,10.1.1.3,37,-0.080,-0.080,-0.080,0.000,0.000,0.000
1644915587312612096,2022-02-15-08:59:47,10.1.1.3,26,-0.090,-0.090,-0.090,0.000,0.000,0.000
1644915587374908928,2022-02-15-08:59:47,10.1.1.3,36,-0.100,-0.100,-0.100,0.000,0.000,0.000
1644915587672961024,2022-02-15-08:59:47,10.1.1.3,29,-0.040,-0.040,-0.040,0.000,0.000,0.000
1644915587732728064,2022-02-15-08:59:47,10.1.1.3,39,-0.030,-0.030,-0.030,0.000,0.000,0.000
1644915587775333888,2022-02-15-08:59:47,10.1.1.3,28,-0.020,-0.020,-0.020,0.000,0.000,0.000
1644915587833427968,2022-02-15-08:59:47,10.1.1.3,35,-0.010,-0.010,-0.010,0.000,0.000,0.000
1644915587875984896,2022-02-15-08:59:47,10.1.1.3,25,0.000,0.000,0.000,0.000,0.000,0.000
1644915588133440000,2022-02-15-08:59:48,10.1.1.3,29,0.050,0.050,0.050,0.000,0.000,0.000
1644915588193530112,2022-02-15-08:59:48,10.1.1.3,39,0.060,0.060,0.060,0.000,0.000,0.000
1644915588232176128,2022-02-15-08:59:48,10.1.1.3,29,0.070,0.070,0.070,0.000,0.000,0.000
1644915588293508096,2022-02-15-08:59:48,10.1.1.3,38,0.080,0.080,0.080,0.000,0.000,0.000
1644915588336449024,2022-02-15-08:59:48,10.1.1.3,27,0.090,0.090,0.090,0.000,0.000,0.000
1644915588393683968,2022-02-15-08:59:48,10.1.1.3,37,0.100,0.100,0.100,0.000,0.000,0.000
1644915588433901056,2022-02-15-08:59:48,10.1.1.3,26,0.090,0.090,0.090,0.000,0.000,0.000
1644915588493815808,2022-02-15-08:59:48,10.1.1.3,33,0.080,0.080,0.080,0.000,0.000,0.000
1644915588793454848,2022-02-15-08:59:48,10.1.1.3,28,0.020,0.020,0.020,0.000,0.000,0.000
1644915588855487232,2022-02-15-08:59:48,10.1.1.3,38,0.010,0.010,0.010,0.000,0.000,0.000
1644915588894375168,2022-02-15-08:59:48,10.1.1.3,27,0.000,0.000,0.000,0.000,0.000,0.000
1644915588955756032,2022-02-15-08:59:48,10.1.1.3,36,-0.010,-0.010,-0.010,0.000,0.000,0.000
1644915588996356864,2022-02-15-08:59:48,10.1.1.3,23,-0.020,-0.020,-0.020,0.000,0.000,0.000
1644915589112241920,2022-02-15-08:59:49,10.1.1.3,39,-0.040,-0.040,-0.040,0.000,0.000,0.000
1644915589152295168,2022-02-15-08:59:49,10.1.1.3,25,-0.050,-0.050,-0.050,0.000,0.000,0.000
1644915589214092032,2022-02-15-08:59:49,10.1.1.3,33,-0.060,-0.060,-0.060,0.000,0.000,0.000
1644915589372227840,2022-02-15-08:59:49,10.1.1.3,39,-0.090,-0.090,-0.090,0.000,0.000,0.000
1644915589412889856,2022-02-15-08:59:49,10.1.1.3,28,-0.100,-0.100,-0.100,0.000,0.000,0.000
1644915589571145984,2022-02-15-08:59:49,10.1.1.3,23,-0.070,-0.070,-0.070,0.000,0.000,0.000
1644915589831440896,2022-02-15-08:59:49,10.1.1.3,28,-0.020,-0.020,-0.020,0.000,0.000,0.000
1644915589892344064,2022-02-15-08:59:49,10.1.1.3,37,-0.010,-0.010,-0.010,0.000,0.000,0.000
1644915589932044032,2022-02-15-08:59:49,10.1.1.3,27,0.000,0.000,0.000,0.000,0.000,0.000
1644915589992739072,2022-02-15-08:59:49,10.1.1.3,37,0.010,0.010,0.010,0.000,0.000,0.000
1644915590035665152,2022-02-15-08:59:50,10.1.1.3,26,0.020,0.020,0.020,0.000,0.000,0.000
1644915590092335872,2022-02-15-08:59:50,10.1.1.3,36,0.030,0.030,0.030,0.000,0.000,0.000
1644915590133181952,2022-02-15-08:59:50,10.1.1.3,25,0.040,0.040,0.040,0.000,0.000,0.000
1644915590225480960,2022-02-15-08:59:50,10.1.1.3,34,0.050,0.050,0.050,0.000,0.000,0.000
1644915590332168192,2022-02-15-08:59:50,10.1.1.3,26,0.070,0.070,0.070,0.000,0.000,0.000
1644915590392064000,2022-02-15-08:59:50,10.1.1.3,35,0.080,0.080,0.080,0.000,0.000,0.000
1644915590431948800,2022-02-15-08:59:50,10.1.1.3,25,0.090,0.090,0.090,0.000,0.000,0.000
1644915590492219904,2022-02-15-08:59:50,10.1.1.3,34,0.100,0.100,0.100,0.000,0.000,0.000
1644915590531464192,2022-02-15-08:59:50,10.1.1.3,24,0.090,0.090,0.090,0.000,0.000,0.000
1644915590591502848,2022-02-15-08:59:50,10.1.1.3,33,0.080,0.080,0.080,0.000,0.000,0.000
1644915590891567872,2022-02-15-08:59:50,10.1.1.3,29,0.020,0.020,0.020,0.000,0.000,0.000
1644915590951316224,2022-02-15-08:59:50,10.1.1.3,38,0.010,0.010,0.010,0.000,0.000,0.000
1644915590991298048,2022-02-15-08:59:50,10.1.1.3,27,0.000,0.000,0.000,0.000,0.000,0.000
1644915591051558912,2022-02-15-08:59:51,10.1.1.3,37,-0.010,-0.010,-0.010,0.000,0.000,0.000
1644915591091671040,2022-02-15-08:59:51,10.1.1.3,27,-0.020,-0.020,-0.020,0.000,0.000,0.000
1644915591150947072,2022-02-15-08:59:51,10.1.1.3,36,-0.030,-0.030,-0.030,0.000,0.000,0.000
1644915591352336896,2022-02-15-08:59:51,10.1.1.3,29,-0.070,-0.070,-0.070,0.000,0.000,0.000
1644915591411812096,2022-02-15-08:59:51,10.1.1.3,39,-0.080,-0.080,-0.080,0.000,0.000,0.000
1644915591450756096,2022-02-15-08:59:51,10.1.1.3,28,-0.090,-0.090,-0.090,0.000,0.000,0.000
1644915591511674880,2022-02-15-08:59:51,10.1.1.3,38,-0.100,-0.100,-0.100,0.000,0.000,0.000
1644915591551395840,2022-02-15-08:59:51,10.1.1.3,25,-0.090,-0.090,-0.090,0.000,0.000,0.000
1644915591611152896,2022-02-15-08:59:51,10.1.1.3,34,-0.080,-0.080,-0.080,0.000,0.000,0.000
1644915591651625984,2022-02-15-08:59:51,10.1.1.3,24,-0.070,-0.070,-0.070,0.000,0.000,0.000
1644915591912290048,2022-02-15-08:59:51,10.1.1.3,29,-0.020,-0.020,-0.020,0.000,0.000,0.000
1644915591971792896,2022-02-15-08:59:51,10.1.1.3,38,-0.010,-0.010,-0.010,0.000,0.000,0.000
1644915592011365888,2022-02-15-08:59:52,10.1.1.3,26,0.000,0.000,0.000,0.000,0.000,0.000
1644915592071703808,2022-02-15-08:59:52,10.1.1.3,35,0.010,0.010,0.010,0.000,0.000,0.000
1644915592112095232,2022-02-15-08:59:52,10.1.1.3,24,0.020,0.020,0.020,0.000,0.000,0.000
1644915592271934976,2022-02-15-08:59:52,10.1.1.3,29,0.050,0.050,0.050,0.000,0.000,0.000
1644915592330728960,2022-02-15-08:59:52,10.1.1.3,38,0.060,0.060,0.060,0.000,0.000,0.000
1644915592372189952,2022-02-15-08:59:52,10.1.1.3,25,0.070,0.070,0.070,0.000,0.000,0.000
1644915592431555072,2022-02-15-08:59:52,10.1.1.3,33,0.080,0.080,0.080,0.000,0.000,0.000
1644915592471924992,2022-02-15-08:59:52,10.1.1.3,23,0.090,0.090,0.090,0.000,0.000,0.000
1644915592551898880,2022-02-15-08:59:52,10.1.1.3,1,0.090,0.090,0.090,0.000,0.000,0.000
1644915592631529216,2022-02-15-08:59:52,10.1.1.3,29,0.080,0.080,0.080,0.000,0.000,0.000
1644915592691220992,2022-02-15-08:59:52,10.1.1.3,38,0.070,0.070,0.070,0.000,0.000,0.000
1644915592731729152,2022-02-15-08:59:52,10.1.1.3,25,0.060,0.060,0.060,0.000,0.000,0.000
1644915592790873088,2022-02-15-08:59:52,10.1.1.3,34,0.050,0.050,0.050,0.000,0.000,0.000
1644915592991732992,2022-02-15-08:59:52,10.1.1.3,29,0.010,0.010,0.010,0.000,0.000,0.000
1644915593051057152,2022-02-15-08:59:53,10.1.1.3,38,0.000,0.000,0.000,0.000,0.000,0.000
1644915593091891968,2022-02-15-08:59:53,10.1.1.3,27,-0.010,-0.010,-0.010,0.000,0.000,0.000
1644915593151560960,2022-02-15-08:59:53,10.1.1.3,36,-0.020,-0.020,-0.020,0.000,0.000,0.000
1644915593193001984,2022-02-15-08:59:53,10.1.1.3,25,-0.030,-0.030,-0.030,0.000,0.000,0.000
1644915593251938048,2022-02-15-08:59:53,10.1.1.3,28,-0.040,-0.040,-0.040,0.000,0.000,0.000
1644915593313993984,2022-02-15-08:59:53,10.1.1.3,28,-0.050,-0.050,-0.050,0.000,0.000,0.000
1644915593372200960,2022-02-15-08:59:53,10.1.1.3,36,-0.060,-0.060,-0.060,0.000,0.000,0.000
1644915593413949952,2022-02-15-08:59:53,10.1.1.3,24,-0.070,-0.070,-0.070,0.000,0.000,0.000
1644915593536843008,2022-02-15-08:59:53,10.1.1.3,39,-0.090,-0.090,-0.090,0.000,0.000,0.000
1644915593571547904,2022-02-15-08:59:53,10.1.1.3,27,-0.100,-0.100,-0.100,0.000,0.000,0.000
1644915593633004800,2022-02-15-08:59:53,10.1.1.3,35,-0.090,-0.090,-0.090,0.000,0.000,0.000
1644915593672514048,2022-02-15-08:59:53,10.1.1.3,24,-0.080,-0.080,-0.080,0.000,0.000,0.000
1644915593834403072,2022-02-15-08:59:53,10.1.1.3,27,-0.050,-0.050,-0.050,0.000,0.000,0.000
1644915593991048192,2022-02-15-08:59:53,10.1.1.3,29,-0.020,-0.020,-0.020,0.000,0.000,0.000
1644915594050968832,2022-02-15-08:59:54,10.1.1.3,38,-0.010,-0.010,-0.010,0.000,0.000,0.000
1644915594094053120,2022-02-15-08:59:54,10.1.1.3,26,0.000,0.000,0.000,0.000,0.000,0.000
1644915594234825984,2022-02-15-08:59:54,10.1.1.3,23,0.020,0.020,0.020,0.000,0.000,0.000
1644915594351710208,2022-02-15-08:59:54,10.1.1.3,33,0.040,0.040,0.040,0.000,0.000,0.000
1644915594610810880,2022-02-15-08:59:54,10.1.1.3,39,0.090,0.090,0.090,0.000,0.000,0.000
1644915594651890944,2022-02-15-08:59:54,10.1.1.3,28,0.100,0.100,0.100,0.000,0.000,0.000
1644915594710738944,2022-02-15-08:59:54,10.1.1.3,38,0.090,0.090,0.090,0.000,0.000,0.000
1644915594751900928,2022-02-15-08:59:54,10.1.1.3,27,0.080,0.080,0.080,0.000,0.000,0.000
1644915594951783936,2022-02-15-08:59:54,10.1.1.3,23,0.040,0.040,0.040,0.000,0.000,0.000
1644915595112340992,2022-02-15-08:59:55,10.1.1.3,29,0.010,0.010,0.010,0.000,0.000,0.000
1644915595174148096,2022-02-15-08:59:55,10.1.1.3,37,0.000,0.000,0.000,0.000,0.000,0.000
1644915595213561088,2022-02-15-08:59:55,10.1.1.3,25,-0.010,-0.010,-0.010,0.000,0.000,0.000
1644915595334117888,2022-02-15-08:59:55,10.1.1.3,38,-0.030,-0.030,-0.030,0.000,0.000,0.000
1644915595372371968,2022-02-15-08:59:55,10.1.1.3,28,-0.040,-0.040,-0.040,0.000,0.000,0.000
1644915595433875968,2022-02-15-08:59:55,10.1.1.3,33,-0.050,-0.050,-0.050,0.000,0.000,0.000
1644915595951632128,2022-02-15-08:59:55,10.1.1.3,29,-0.060,-0.060,-0.060,0.000,0.000,0.000
1644915596011959040,2022-02-15-08:59:56,10.1.1.3,39,-0.050,-0.050,-0.050,0.000,0.000,0.000
1644915596051995904,2022-02-15-08:59:56,10.1.1.3,29,-0.040,-0.040,-0.040,0.000,0.000,0.000
1644915596111595008,2022-02-15-08:59:56,10.1.1.3,37,-0.030,-0.030,-0.030,0.000,0.000,0.000
1644915596151326976,2022-02-15-08:59:56,10.1.1.3,26,-0.020,-0.020,-0.020,0.000,0.000,0.000
1644915596211753984,2022-02-15-08:59:56,10.1.1.3,36,-0.010,-0.010,-0.010,0.000,0.000,0.000
1644915596250880000,2022-02-15-08:59:56,10.1.1.3,25,0.000,0.000,0.000,0.000,0.000,0.000
1644915596311538944,2022-02-15-08:59:56,10.1.1.3,35,0.010,0.010,0.010,0.000,0.000,0.000
1644915596352262144,2022-02-15-08:59:56,10.1.1.3,25,0.020,0.020,0.020,0.000,0.000,0.000
1644915596412318976,2022-02-15-08:59:56,10.1.1.3,34,0.030,0.030,0.030,0.000,0.000,0.000
1644915596513201920,2022-02-15-08:59:56,10.1.1.3,29,0.050,0.050,0.050,0.000,0.000,0.000
1644915596573786112,2022-02-15-08:59:56,10.1.1.3,38,0.060,0.060,0.060,0.000,0.000,0.000
1644915596611355136,2022-02-15-08:59:56,10.1.1.3,28,0.070,0.070,0.070,0.000,0.000,0.000
1644915596672022016,2022-02-15-08:59:56,10.1.1.3,37,0.080,0.080,0.080,0.000,0.000,0.000
1644915596711378944,2022-02-15-08:59:56,10.1.1.3,27,0.090,0.090,0.090,0.000,0.000,0.000
1644915596771371008,2022-02-15-08:59:56,10.1.1.3,36,0.100,0.100,0.100,0.000,0.000,0.000
1644915596811085824,2022-02-15-08:59:56,10.1.1.3,26,0.090,0.090,0.090,0.000,0.000,0.000
1644915596871293952,2022-02-15-08:59:56,10.1.1.3,35,0.080,0.080,0.080,0.000,0.000,0.000
1644915596911247104,2022-02-15-08:59:56,10.1.1.3,24,0.070,0.070,0.070,0.000,0.000,0.000
1644915597254347008,2022-02-15-08:59:57,10.1.1.3,40,0.010,0.010,0.010,0.000,0.000,0.000
1644915597330832128,2022-02-15-08:59:57,10.1.1.3,24,-0.010,-0.010,-0.010,0.000,0.000,0.000
1644915597391164928,2022-02-15-08:59:57,10.1.1.3,33,-0.020,-0.020,-0.020,0.000,0.000,0.000
1644915597591672832,2022-02-15-08:59:57,10.1.1.3,27,-0.060,-0.060,-0.060,0.000,0.000,0.000
1644915597651864064,2022-02-15-08:59:57,10.1.1.3,35,-0.070,-0.070,-0.070,0.000,0.000,0.000
1644915597692188928,2022-02-15-08:59:57,10.1.1.3,24,-0.080,-0.080,-0.080,0.000,0.000,0.000
1644915597752975872,2022-02-15-08:59:57,10.1.1.3,34,-0.090,-0.090,-0.090,0.000,0.000,0.000
1644915597834449920,2022-02-15-08:59:57,10.1.1.3,12,-0.090,-0.090,-0.090,0.000,0.000,0.000
1644915598053888000,2022-02-15-08:59:58,10.1.1.3,29,-0.050,-0.050,-0.050,0.000,0.000,0.000
1644915598112040960,2022-02-15-08:59:58,10.1.1.3,37,-0.040,-0.040,-0.040,0.000,0.000,0.000
1644915598153000192,2022-02-15-08:59:58,10.1.1.3,25,-0.030,-0.030,-0.030,0.000,0.000,0.000
1644915598273353984,2022-02-15-08:59:58,10.1.1.3,37,-0.010,-0.010,-0.010,0.000,0.000,0.000
1644915598312387840,2022-02-15-08:59:58,10.1.1.3,26,-0.000,-0.000,-0.000,0.000,0.000,0.000
1644915598374216192,2022-02-15-08:59:58,10.1.1.3,35,0.010,0.010,0.010,0.000,0.000,0.000
1644915598413373952,2022-02-15-08:59:58,10.1.1.3,25,0.020,0.020,0.020,0.000,0.000,0.000
1644915598533252096,2022-02-15-08:59:58,10.1.1.3,37,0.040,0.040,0.040,0.000,0.000,0.000
1644915598572120832,2022-02-15-08:59:58,10.1.1.3,24,0.050,0.050,0.050,0.000,0.000,0.000
1644915598634392064,2022-02-15-08:59:58,10.1.1.3,34,0.060,0.060,0.060,0.000,0.000,0.000
1644915598732470016,2022-02-15-08:59:58,10.1.1.3,29,0.080,0.080,0.080,0.000,0.000,0.000
1644915598792453120,2022-02-15-08:59:58,10.1.1.3,36,0.090,0.090,0.090,0.000,0.000,0.000
1644915598835695872,2022-02-15-08:59:58,10.1.1.3,26,0.100,0.100,0.100,0.000,0.000,0.000
1644915598955353856,2022-02-15-08:59:58,10.1.1.3,37,0.080,0.080,0.080,0.000,0.000,0.000
1644915598992700928,2022-02-15-08:59:58,10.1.1.3,26,0.070,0.070,0.070,0.000,0.000,0.000
1644915599052427008,2022-02-15-08:59:59,10.1.1.3,36,0.060,0.060,0.060,0.000,0.000,0.000
1644915599092530944,2022-02-15-08:59:59,10.1.1.3,25,0.050,0.050,0.050,0.000,0.000,0.000
1644915599151659008,2022-02-15-08:59:59,10.1.1.3,29,0.040,0.040,0.040,0.000,0.000,0.000
1644915599213762048,2022-02-15-08:59:59,10.1.1.3,37,0.030,0.030,0.030,0.000,0.000,0.000
1644915599251907072,2022-02-15-08:59:59,10.1.1.3,25,0.020,0.020,0.020,0.000,0.000,0.000
1644915599313481216,2022-02-15-08:59:59,10.1.1.3,33,0.010,0.010,0.010,0.000,0.000,0.000
1644915599412577024,2022-02-15-08:59:59,10.1.1.3,28,-0.010,-0.010,-0.010,0.000,0.000,0.000
1644915599472790016,2022-02-15-08:59:59,10.1.1.3,37,-0.020,-0.020,-0.020,0.000,0.000,0.000
1644915599672924160,2022-02-15-08:59:59,10.1.1.3,24,-0.060,-0.060,-0.060,0.000,0.000,0.000
1644915599732299008,2022-02-15-08:59:59,10.1.1.3,33,-0.070,-0.070,-0.070,0.000,0.000,0.000
1644915599834265088,2022-02-15-08:59:59,10.1.1.3,28,-0.090,-0.090,-0.090,0.000,0.000,0.000
1644915599893646080,2022-02-15-08:59:59,10.1.1.3,35,-0.100,-0.100,-0.100,0.000,0.000,0.000
1644915599951570944,2022-02-15-08:59:59,10.1.1.3,36,-0.090,-0.090,-0.090,0.000,0.000,0.000
1644915599992443136,2022-02-15-08:59:59,10.1.1.3,26,-0.080,-0.080,-0.080,0.000,0.000,0.000
1644915600052131840,2022-02-15-09:00:00,10.1.1.3,35,-0.070,-0.070,-0.070,0.000,0.000,0.000
1644915600091890176,2022-02-15-09:00:00,10.1.1.3,24,-0.060,-0.060,-0.060,0.000,0.000,0.000
1644915600413719808,2022-02-15-09:00:00,10.1.1.3,39,0.000,0.000,0.000,0.000,0.000,0.000
1644915600457051904,2022-02-15-09:00:00,10.1.1.3,27,0.010,0.010,0.010,0.000,0.000,0.000
1644915600512495872,2022-02-15-09:00:00,10.1.1.3,35,0.020,0.020,0.020,0.000,0.000,0.000
1644915600552141056,2022-02-15-09:00:00,10.1.1.3,24,0.030,0.030,0.030,0.000,0.000,0.000
1644915600612741120,2022-02-15-09:00:00,10.1.1.3,33,0.040,0.040,0.040,0.000,0.000,0.000
1644915600812488960,2022-02-15-09:00:00,10.1.1.3,27,0.080,0.080,0.080,0.000,0.000,0.000
1644915600871280896,2022-02-15-09:00:00,10.1.1.3,35,0.090,0.090,0.090,0.000,0.000,0.000
1644915600912060928,2022-02-15-09:00:00,10.1.1.3,25,0.100,0.100,0.100,0.000,0.000,0.000
1644915600972260096,2022-02-15-09:00:00,10.1.1.3,33,0.090,0.090,0.090,0.000,0.000,0.000
1644915601252350208,2022-02-15-09:00:01,10.1.1.3,34,0.040,0.040,0.040,0.000,0.000,0.000
1644915601291929088,2022-02-15-09:00:01,10.1.1.3,23,0.030,0.030,0.030,0.000,0.000,0.000
1644915601512402176,2022-02-15-09:00:01,10.1.1.3,25,-0.010,-0.010,-0.010,0.000,0.000,0.000
1644915601581518848,2022-02-15-09:00:01,10.1.1.3,34,-0.020,-0.020,-0.020,0.000,0.000,0.000
1644915601731224064,2022-02-15-09:00:01,10.1.1.3,39,-0.040,-0.040,-0.040,0.000,0.000,0.000
1644915601771856128,2022-02-15-09:00:01,10.1.1.3,28,-0.050,-0.050,-0.050,0.000,0.000,0.000
1644915601831706880,2022-02-15-09:00:01,10.1.1.3,36,-0.060,-0.060,-0.060,0.000,0.000,0.000
1644915601871644928,2022-02-15-09:00:01,10.1.1.3,26,-0.070,-0.070,-0.070,0.000,0.000,0.000
1644915601931768832,2022-02-15-09:00:01,10.1.1.3,35,-0.080,-0.080,-0.080,0.000,0.000,0.000
1644915601971791872,2022-02-15-09:00:01,10.1.1.3,24,-0.090,-0.090,-0.090,0.000,0.000,0.000
1644915602031932160,2022-02-15-09:00:02,10.1.1.3,34,-0.100,-0.100,-0.100,0.000,0.000,0.000
1644915602291676160,2022-02-15-09:00:02,10.1.1.3,38,-0.050,-0.050,-0.050,0.000,0.000,0.000
1644915602332717056,2022-02-15-09:00:02,10.1.1.3,28,-0.040,-0.040,-0.040,0.000,0.000,0.000
1644915602390695168,2022-02-15-09:00:02,10.1.1.3,38,-0.030,-0.030,-0.030,0.000,0.000,0.000
1644915602431730944,2022-02-15-09:00:02,10.1.1.3,27,-0.020,-0.020,-0.020,0.000,0.000,0.000
1644915602491610112,2022-02-15-09:00:02,10.1.1.3,36,-0.010,-0.010,-0.010,0.000,0.000,0.000
1644915602533746944,2022-02-15-09:00:02,10.1.1.3,25,0.000,0.000,0.000,0.000,0.000,0.000
1644915602593633024,2022-02-15-09:00:02,10.1.1.3,34,0.010,0.010,0.010,0.000,0.000,0.000
1644915602633014016,2022-02-15-09:00:02,10.1.1.3,24,0.020,0.020,0.020,0.000,0.000,0.000
1644915602953293056,2022-02-15-09:00:02,10.1.1.3,39,0.080,0.080,0.080,0.000,0.000,0.000
1644915602993928960,2022-02-15-09:00:02,10.1.1.3,28,0.090,0.090,0.090,0.000,0.000,0.000
1644915603053839872,2022-02-15-09:00:03,10.1.1.3,37,0.100,0.100,0.100,0.000,0.000,0.000
1644915603093169920,2022-02-15-09:00:03,10.1.1.3,26,0.090,0.090,0.090,0.000,0.000,0.000
1644915603154202880,2022-02-15-09:00:03,10.1.1.3,33,0.080,0.080,0.080,0.000,0.000,0.000
