FedericoMungari/DigitalTwin_service/01_WiredScenario/Output/Output_script/script_rosapi_2_output_robots10_freq0_7.txt
timestamp,date,node,latency,joint_1,joint_2,joint_3,joint_4,joint_5,joint_6
1641220953986329088,2022-01-03-14:42:33,10.1.1.8,173,-0.010,-0.010,-0.010,0.000,0.000,0.000
1641220954184505856,2022-01-03-14:42:34,10.1.1.8,170,-0.020,-0.020,-0.020,0.000,0.000,0.000
1641220954383435008,2022-01-03-14:42:34,10.1.1.8,169,-0.030,-0.030,-0.030,0.000,0.000,0.000
1641220954585064960,2022-01-03-14:42:34,10.1.1.8,170,-0.040,-0.040,-0.040,0.000,0.000,0.000
1641220954783369984,2022-01-03-14:42:34,10.1.1.8,168,-0.050,-0.050,-0.050,0.000,0.000,0.000
1641220954984285184,2022-01-03-14:42:34,10.1.1.8,168,-0.060,-0.060,-0.060,0.000,0.000,0.000
1641220955183310080,2022-01-03-14:42:35,10.1.1.8,165,-0.070,-0.070,-0.070,0.000,0.000,0.000
1641220955383086080,2022-01-03-14:42:35,10.1.1.8,166,-0.080,-0.080,-0.080,0.000,0.000,0.000
1641220955603406848,2022-01-03-14:42:35,10.1.1.8,185,-0.090,-0.090,-0.090,0.000,0.000,0.000
1641220955805563904,2022-01-03-14:42:35,10.1.1.8,187,-0.100,-0.100,-0.100,0.000,0.000,0.000
1641220956004577024,2022-01-03-14:42:36,10.1.1.8,184,-0.110,-0.110,-0.110,0.000,0.000,0.000
1641220956203748096,2022-01-03-14:42:36,10.1.1.8,183,-0.120,-0.120,-0.120,0.000,0.000,0.000
1641220956403915008,2022-01-03-14:42:36,10.1.1.8,180,-0.130,-0.130,-0.130,0.000,0.000,0.000
1641220956600580096,2022-01-03-14:42:36,10.1.1.8,177,-0.140,-0.140,-0.140,0.000,0.000,0.000
1641220956801187072,2022-01-03-14:42:36,10.1.1.8,177,-0.150,-0.150,-0.150,0.000,0.000,0.000
1641220957000456192,2022-01-03-14:42:37,10.1.1.8,175,-0.160,-0.160,-0.160,0.000,0.000,0.000
1641220957199558144,2022-01-03-14:42:37,10.1.1.8,172,-0.170,-0.170,-0.170,0.000,0.000,0.000
1641220957400249088,2022-01-03-14:42:37,10.1.1.8,173,-0.180,-0.180,-0.180,0.000,0.000,0.000
1641220957601347840,2022-01-03-14:42:37,10.1.1.8,173,-0.190,-0.190,-0.190,0.000,0.000,0.000
1641220957799758848,2022-01-03-14:42:37,10.1.1.8,171,-0.200,-0.200,-0.200,0.000,0.000,0.000
1641220957999928064,2022-01-03-14:42:37,10.1.1.8,170,-0.210,-0.210,-0.210,0.000,0.000,0.000
1641220958199582976,2022-01-03-14:42:38,10.1.1.8,169,-0.220,-0.220,-0.220,0.000,0.000,0.000
1641220958397967104,2022-01-03-14:42:38,10.1.1.8,166,-0.230,-0.230,-0.230,0.000,0.000,0.000
1641220958598323968,2022-01-03-14:42:38,10.1.1.8,166,-0.240,-0.240,-0.240,0.000,0.000,0.000
1641220958797326080,2022-01-03-14:42:38,10.1.1.8,165,-0.250,-0.250,-0.250,0.000,0.000,0.000
1641220958996989952,2022-01-03-14:42:38,10.1.1.8,164,-0.260,-0.260,-0.260,0.000,0.000,0.000
1641220959197561088,2022-01-03-14:42:39,10.1.1.8,164,-0.270,-0.270,-0.270,0.000,0.000,0.000
1641220959396524032,2022-01-03-14:42:39,10.1.1.8,162,-0.280,-0.280,-0.280,0.000,0.000,0.000
1641220959595518208,2022-01-03-14:42:39,10.1.1.8,161,-0.290,-0.290,-0.290,0.000,0.000,0.000
1641220959796286976,2022-01-03-14:42:39,10.1.1.8,161,-0.300,-0.300,-0.300,0.000,0.000,0.000
1641220959996051200,2022-01-03-14:42:39,10.1.1.8,160,-0.310,-0.310,-0.310,0.000,0.000,0.000
1641220960195425024,2022-01-03-14:42:40,10.1.1.8,158,-0.320,-0.320,-0.320,0.000,0.000,0.000
1641220960394999040,2022-01-03-14:42:40,10.1.1.8,157,-0.330,-0.330,-0.330,0.000,0.000,0.000
1641220960618212864,2022-01-03-14:42:40,10.1.1.8,176,-0.340,-0.340,-0.340,0.000,0.000,0.000
1641220960814034944,2022-01-03-14:42:40,10.1.1.8,175,-0.350,-0.350,-0.350,0.000,0.000,0.000
1641220961013197824,2022-01-03-14:42:41,10.1.1.8,174,-0.360,-0.360,-0.360,0.000,0.000,0.000
1641220961215045888,2022-01-03-14:42:41,10.1.1.8,175,-0.370,-0.370,-0.370,0.000,0.000,0.000
1641220961416232960,2022-01-03-14:42:41,10.1.1.8,176,-0.380,-0.380,-0.380,0.000,0.000,0.000
1641220961617372160,2022-01-03-14:42:41,10.1.1.8,177,-0.390,-0.390,-0.390,0.000,0.000,0.000
1641220961817830144,2022-01-03-14:42:41,10.1.1.8,177,-0.400,-0.400,-0.400,0.000,0.000,0.000
1641220962018605056,2022-01-03-14:42:42,10.1.1.8,161,-0.410,-0.410,-0.410,0.000,0.000,0.000
1641220962239789056,2022-01-03-14:42:42,10.1.1.8,181,-0.420,-0.420,-0.420,0.000,0.000,0.000
1641220962440089088,2022-01-03-14:42:42,10.1.1.8,180,-0.430,-0.430,-0.430,0.000,0.000,0.000
1641220962641489920,2022-01-03-14:42:42,10.1.1.8,181,-0.440,-0.440,-0.440,0.000,0.000,0.000
1641220962841933056,2022-01-03-14:42:42,10.1.1.8,180,-0.450,-0.450,-0.450,0.000,0.000,0.000
1641220963042854144,2022-01-03-14:42:43,10.1.1.8,181,-0.460,-0.460,-0.460,0.000,0.000,0.000
1641220963445750016,2022-01-03-14:42:43,10.1.1.8,180,-0.480,-0.480,-0.480,0.000,0.000,0.000
1641220963647186944,2022-01-03-14:42:43,10.1.1.8,181,-0.490,-0.490,-0.490,0.000,0.000,0.000
1641220963844978176,2022-01-03-14:42:43,10.1.1.8,178,-0.480,-0.480,-0.480,0.000,0.000,0.000
1641220964048005120,2022-01-03-14:42:44,10.1.1.8,181,-0.470,-0.470,-0.470,0.000,0.000,0.000
1641220964246318080,2022-01-03-14:42:44,10.1.1.8,178,-0.460,-0.460,-0.460,0.000,0.000,0.000
1641220964447618048,2022-01-03-14:42:44,10.1.1.8,178,-0.450,-0.450,-0.450,0.000,0.000,0.000
1641220964647883776,2022-01-03-14:42:44,10.1.1.8,178,-0.440,-0.440,-0.440,0.000,0.000,0.000
1641220965049285888,2022-01-03-14:42:45,10.1.1.8,178,-0.420,-0.420,-0.420,0.000,0.000,0.000
1641220965250260224,2022-01-03-14:42:45,10.1.1.8,178,-0.410,-0.410,-0.410,0.000,0.000,0.000
1641220965449788160,2022-01-03-14:42:45,10.1.1.8,177,-0.400,-0.400,-0.400,0.000,0.000,0.000
1641220965651559168,2022-01-03-14:42:45,10.1.1.8,178,-0.390,-0.390,-0.390,0.000,0.000,0.000
1641220965851633920,2022-01-03-14:42:45,10.1.1.8,177,-0.380,-0.380,-0.380,0.000,0.000,0.000
1641220966052109056,2022-01-03-14:42:46,10.1.1.8,176,-0.370,-0.370,-0.370,0.000,0.000,0.000
1641220966252846848,2022-01-03-14:42:46,10.1.1.8,177,-0.360,-0.360,-0.360,0.000,0.000,0.000
1641220966453811968,2022-01-03-14:42:46,10.1.1.8,177,-0.350,-0.350,-0.350,0.000,0.000,0.000
1641220966653692928,2022-01-03-14:42:46,10.1.1.8,177,-0.340,-0.340,-0.340,0.000,0.000,0.000
1641220966853699072,2022-01-03-14:42:46,10.1.1.8,176,-0.330,-0.330,-0.330,0.000,0.000,0.000
1641220967075105024,2022-01-03-14:42:47,10.1.1.8,197,-0.320,-0.320,-0.320,0.000,0.000,0.000
1641220967275515136,2022-01-03-14:42:47,10.1.1.8,197,-0.310,-0.310,-0.310,0.000,0.000,0.000
1641220967475148800,2022-01-03-14:42:47,10.1.1.8,196,-0.300,-0.300,-0.300,0.000,0.000,0.000
1641220967676758016,2022-01-03-14:42:47,10.1.1.8,197,-0.290,-0.290,-0.290,0.000,0.000,0.000
1641220968075470848,2022-01-03-14:42:48,10.1.1.8,194,-0.270,-0.270,-0.270,0.000,0.000,0.000
1641220968276835840,2022-01-03-14:42:48,10.1.1.8,195,-0.260,-0.260,-0.260,0.000,0.000,0.000
1641220968477284864,2022-01-03-14:42:48,10.1.1.8,195,-0.250,-0.250,-0.250,0.000,0.000,0.000
1641220968679670016,2022-01-03-14:42:48,10.1.1.8,197,-0.240,-0.240,-0.240,0.000,0.000,0.000
1641220968877840128,2022-01-03-14:42:48,10.1.1.8,194,-0.230,-0.230,-0.230,0.000,0.000,0.000
1641220969079979776,2022-01-03-14:42:49,10.1.1.8,196,-0.220,-0.220,-0.220,0.000,0.000,0.000
1641220969282710016,2022-01-03-14:42:49,10.1.1.8,197,-0.210,-0.210,-0.210,0.000,0.000,0.000
1641220969476939008,2022-01-03-14:42:49,10.1.1.8,191,-0.200,-0.200,-0.200,0.000,0.000,0.000
1641220969678508032,2022-01-03-14:42:49,10.1.1.8,192,-0.190,-0.190,-0.190,0.000,0.000,0.000
1641220969878031104,2022-01-03-14:42:49,10.1.1.8,191,-0.180,-0.180,-0.180,0.000,0.000,0.000
1641220970083884032,2022-01-03-14:42:50,10.1.1.8,196,-0.170,-0.170,-0.170,0.000,0.000,0.000
1641220970278029056,2022-01-03-14:42:50,10.1.1.8,189,-0.160,-0.160,-0.160,0.000,0.000,0.000
1641220970478658816,2022-01-03-14:42:50,10.1.1.8,187,-0.150,-0.150,-0.150,0.000,0.000,0.000
1641220970678366976,2022-01-03-14:42:50,10.1.1.8,186,-0.140,-0.140,-0.140,0.000,0.000,0.000
1641220970880772096,2022-01-03-14:42:50,10.1.1.8,187,-0.130,-0.130,-0.130,0.000,0.000,0.000
1641220971079105024,2022-01-03-14:42:51,10.1.1.8,185,-0.120,-0.120,-0.120,0.000,0.000,0.000
1641220971277265920,2022-01-03-14:42:51,10.1.1.8,182,-0.110,-0.110,-0.110,0.000,0.000,0.000
1641220971476928000,2022-01-03-14:42:51,10.1.1.8,180,-0.100,-0.100,-0.100,0.000,0.000,0.000
1641220971698157056,2022-01-03-14:42:51,10.1.1.8,200,-0.090,-0.090,-0.090,0.000,0.000,0.000
1641220971897816832,2022-01-03-14:42:51,10.1.1.8,198,-0.080,-0.080,-0.080,0.000,0.000,0.000
1641220972083237888,2022-01-03-14:42:52,10.1.1.8,183,-0.070,-0.070,-0.070,0.000,0.000,0.000
1641220972297579008,2022-01-03-14:42:52,10.1.1.8,192,-0.060,-0.060,-0.060,0.000,0.000,0.000
1641220972500209920,2022-01-03-14:42:52,10.1.1.8,194,-0.050,-0.050,-0.050,0.000,0.000,0.000
1641220972697370880,2022-01-03-14:42:52,10.1.1.8,190,-0.040,-0.040,-0.040,0.000,0.000,0.000
1641220972898701056,2022-01-03-14:42:52,10.1.1.8,191,-0.030,-0.030,-0.030,0.000,0.000,0.000
1641220973097544960,2022-01-03-14:42:53,10.1.1.8,188,-0.020,-0.020,-0.020,0.000,0.000,0.000
1641220973298336000,2022-01-03-14:42:53,10.1.1.8,187,-0.010,-0.010,-0.010,0.000,0.000,0.000
1641220973498224896,2022-01-03-14:42:53,10.1.1.8,187,0.000,0.000,0.000,0.000,0.000,0.000
1641220973698745088,2022-01-03-14:42:53,10.1.1.8,186,-0.010,-0.010,-0.010,0.000,0.000,0.000
1641220973898425088,2022-01-03-14:42:53,10.1.1.8,185,-0.020,-0.020,-0.020,0.000,0.000,0.000
1641220974100598016,2022-01-03-14:42:54,10.1.1.8,187,-0.030,-0.030,-0.030,0.000,0.000,0.000
1641220974297579008,2022-01-03-14:42:54,10.1.1.8,182,-0.040,-0.040,-0.040,0.000,0.000,0.000
1641220974498230016,2022-01-03-14:42:54,10.1.1.8,181,-0.050,-0.050,-0.050,0.000,0.000,0.000
1641220974698106112,2022-01-03-14:42:54,10.1.1.8,179,-0.060,-0.060,-0.060,0.000,0.000,0.000
1641220974919470080,2022-01-03-14:42:54,10.1.1.8,197,-0.070,-0.070,-0.070,0.000,0.000,0.000
1641220975118598912,2022-01-03-14:42:55,10.1.1.8,195,-0.080,-0.080,-0.080,0.000,0.000,0.000
1641220975317841152,2022-01-03-14:42:55,10.1.1.8,194,-0.090,-0.090,-0.090,0.000,0.000,0.000
1641220975517441024,2022-01-03-14:42:55,10.1.1.8,193,-0.100,-0.100,-0.100,0.000,0.000,0.000
1641220975719310080,2022-01-03-14:42:55,10.1.1.8,192,-0.110,-0.110,-0.110,0.000,0.000,0.000
1641220975917104128,2022-01-03-14:42:55,10.1.1.8,186,-0.120,-0.120,-0.120,0.000,0.000,0.000
1641220976116139776,2022-01-03-14:42:56,10.1.1.8,184,-0.130,-0.130,-0.130,0.000,0.000,0.000
1641220976316941056,2022-01-03-14:42:56,10.1.1.8,184,-0.140,-0.140,-0.140,0.000,0.000,0.000
1641220976519211008,2022-01-03-14:42:56,10.1.1.8,183,-0.150,-0.150,-0.150,0.000,0.000,0.000
1641220976716152832,2022-01-03-14:42:56,10.1.1.8,181,-0.160,-0.160,-0.160,0.000,0.000,0.000
1641220976936562944,2022-01-03-14:42:56,10.1.1.8,197,-0.170,-0.170,-0.170,0.000,0.000,0.000
1641220977135610112,2022-01-03-14:42:57,10.1.1.8,195,-0.180,-0.180,-0.180,0.000,0.000,0.000
1641220977334593024,2022-01-03-14:42:57,10.1.1.8,194,-0.190,-0.190,-0.190,0.000,0.000,0.000
1641220977535437056,2022-01-03-14:42:57,10.1.1.8,194,-0.200,-0.200,-0.200,0.000,0.000,0.000
1641220977734902016,2022-01-03-14:42:57,10.1.1.8,192,-0.210,-0.210,-0.210,0.000,0.000,0.000
1641220977935485952,2022-01-03-14:42:57,10.1.1.8,192,-0.220,-0.220,-0.220,0.000,0.000,0.000
1641220978135264000,2022-01-03-14:42:58,10.1.1.8,191,-0.230,-0.230,-0.230,0.000,0.000,0.000
1641220978335400960,2022-01-03-14:42:58,10.1.1.8,190,-0.240,-0.240,-0.240,0.000,0.000,0.000
1641220978534344960,2022-01-03-14:42:58,10.1.1.8,188,-0.250,-0.250,-0.250,0.000,0.000,0.000
1641220978733884928,2022-01-03-14:42:58,10.1.1.8,184,-0.260,-0.260,-0.260,0.000,0.000,0.000
1641220978934253056,2022-01-03-14:42:58,10.1.1.8,183,-0.270,-0.270,-0.270,0.000,0.000,0.000
1641220979133668864,2022-01-03-14:42:59,10.1.1.8,182,-0.280,-0.280,-0.280,0.000,0.000,0.000
1641220979337261056,2022-01-03-14:42:59,10.1.1.8,184,-0.290,-0.290,-0.290,0.000,0.000,0.000
1641220979533495808,2022-01-03-14:42:59,10.1.1.8,179,-0.300,-0.300,-0.300,0.000,0.000,0.000
1641220979733555968,2022-01-03-14:42:59,10.1.1.8,179,-0.310,-0.310,-0.310,0.000,0.000,0.000
1641220979932795136,2022-01-03-14:42:59,10.1.1.8,178,-0.320,-0.320,-0.320,0.000,0.000,0.000
1641220980131858944,2022-01-03-14:43:00,10.1.1.8,176,-0.330,-0.330,-0.330,0.000,0.000,0.000
1641220980354118144,2022-01-03-14:43:00,10.1.1.8,192,-0.340,-0.340,-0.340,0.000,0.000,0.000
1641220980551401984,2022-01-03-14:43:00,10.1.1.8,189,-0.350,-0.350,-0.350,0.000,0.000,0.000
1641220980751051776,2022-01-03-14:43:00,10.1.1.8,188,-0.360,-0.360,-0.360,0.000,0.000,0.000
1641220980951520000,2022-01-03-14:43:00,10.1.1.8,187,-0.370,-0.370,-0.370,0.000,0.000,0.000
1641220981152460032,2022-01-03-14:43:01,10.1.1.8,188,-0.380,-0.380,-0.380,0.000,0.000,0.000
1641220981349893120,2022-01-03-14:43:01,10.1.1.8,185,-0.390,-0.390,-0.390,0.000,0.000,0.000
1641220981561300992,2022-01-03-14:43:01,10.1.1.8,196,-0.400,-0.400,-0.400,0.000,0.000,0.000
1641220981750052096,2022-01-03-14:43:01,10.1.1.8,181,-0.410,-0.410,-0.410,0.000,0.000,0.000
1641220981950520064,2022-01-03-14:43:01,10.1.1.8,180,-0.420,-0.420,-0.420,0.000,0.000,0.000
1641220982150266880,2022-01-03-14:43:02,10.1.1.8,179,-0.430,-0.430,-0.430,0.000,0.000,0.000
1641220982349683968,2022-01-03-14:43:02,10.1.1.8,178,-0.440,-0.440,-0.440,0.000,0.000,0.000
1641220982549121024,2022-01-03-14:43:02,10.1.1.8,177,-0.450,-0.450,-0.450,0.000,0.000,0.000
1641220982748111872,2022-01-03-14:43:02,10.1.1.8,176,-0.460,-0.460,-0.460,0.000,0.000,0.000
1641220982947875072,2022-01-03-14:43:02,10.1.1.8,175,-0.470,-0.470,-0.470,0.000,0.000,0.000
1641220983148646144,2022-01-03-14:43:03,10.1.1.8,175,-0.480,-0.480,-0.480,0.000,0.000,0.000
1641220983350855168,2022-01-03-14:43:03,10.1.1.8,177,-0.490,-0.490,-0.490,0.000,0.000,0.000
1641220983568013056,2022-01-03-14:43:03,10.1.1.8,189,-0.480,-0.480,-0.480,0.000,0.000,0.000
1641220983767590144,2022-01-03-14:43:03,10.1.1.8,188,-0.470,-0.470,-0.470,0.000,0.000,0.000
1641220983967358208,2022-01-03-14:43:03,10.1.1.8,187,-0.460,-0.460,-0.460,0.000,0.000,0.000
1641220984166619904,2022-01-03-14:43:04,10.1.1.8,186,-0.450,-0.450,-0.450,0.000,0.000,0.000
1641220984367044096,2022-01-03-14:43:04,10.1.1.8,185,-0.440,-0.440,-0.440,0.000,0.000,0.000
1641220984566724096,2022-01-03-14:43:04,10.1.1.8,185,-0.430,-0.430,-0.430,0.000,0.000,0.000
1641220984767395072,2022-01-03-14:43:04,10.1.1.8,185,-0.420,-0.420,-0.420,0.000,0.000,0.000
1641220984971256064,2022-01-03-14:43:04,10.1.1.8,188,-0.410,-0.410,-0.410,0.000,0.000,0.000
1641220985169772032,2022-01-03-14:43:05,10.1.1.8,184,-0.400,-0.400,-0.400,0.000,0.000,0.000
1641220985368792064,2022-01-03-14:43:05,10.1.1.8,185,-0.390,-0.390,-0.390,0.000,0.000,0.000
1641220985566441984,2022-01-03-14:43:05,10.1.1.8,181,-0.380,-0.380,-0.380,0.000,0.000,0.000
1641220985767847936,2022-01-03-14:43:05,10.1.1.8,181,-0.370,-0.370,-0.370,0.000,0.000,0.000
1641220985968246016,2022-01-03-14:43:05,10.1.1.8,182,-0.360,-0.360,-0.360,0.000,0.000,0.000
1641220986167126016,2022-01-03-14:43:06,10.1.1.8,178,-0.350,-0.350,-0.350,0.000,0.000,0.000
1641220986365570048,2022-01-03-14:43:06,10.1.1.8,177,-0.340,-0.340,-0.340,0.000,0.000,0.000
1641220986565444864,2022-01-03-14:43:06,10.1.1.8,176,-0.330,-0.330,-0.330,0.000,0.000,0.000
1641220986764148992,2022-01-03-14:43:06,10.1.1.8,174,-0.320,-0.320,-0.320,0.000,0.000,0.000
1641220986963691008,2022-01-03-14:43:06,10.1.1.8,173,-0.310,-0.310,-0.310,0.000,0.000,0.000
1641220987162326016,2022-01-03-14:43:07,10.1.1.8,172,-0.300,-0.300,-0.300,0.000,0.000,0.000
1641220987363643904,2022-01-03-14:43:07,10.1.1.8,172,-0.290,-0.290,-0.290,0.000,0.000,0.000
1641220987563024128,2022-01-03-14:43:07,10.1.1.8,170,-0.280,-0.280,-0.280,0.000,0.000,0.000
1641220987762494208,2022-01-03-14:43:07,10.1.1.8,169,-0.270,-0.270,-0.270,0.000,0.000,0.000
1641220987963288064,2022-01-03-14:43:07,10.1.1.8,169,-0.260,-0.260,-0.260,0.000,0.000,0.000
1641220988163894784,2022-01-03-14:43:08,10.1.1.8,169,-0.250,-0.250,-0.250,0.000,0.000,0.000
1641220988365647104,2022-01-03-14:43:08,10.1.1.8,170,-0.240,-0.240,-0.240,0.000,0.000,0.000
1641220988566137088,2022-01-03-14:43:08,10.1.1.8,170,-0.230,-0.230,-0.230,0.000,0.000,0.000
1641220988764427008,2022-01-03-14:43:08,10.1.1.8,165,-0.220,-0.220,-0.220,0.000,0.000,0.000
1641220988981667072,2022-01-03-14:43:08,10.1.1.8,183,-0.210,-0.210,-0.210,0.000,0.000,0.000
1641220989180737024,2022-01-03-14:43:09,10.1.1.8,182,-0.200,-0.200,-0.200,0.000,0.000,0.000
1641220989386291968,2022-01-03-14:43:09,10.1.1.8,187,-0.190,-0.190,-0.190,0.000,0.000,0.000
1641220989579497216,2022-01-03-14:43:09,10.1.1.8,169,-0.180,-0.180,-0.180,0.000,0.000,0.000
1641220989779687936,2022-01-03-14:43:09,10.1.1.8,168,-0.170,-0.170,-0.170,0.000,0.000,0.000
1641220989979916032,2022-01-03-14:43:09,10.1.1.8,167,-0.160,-0.160,-0.160,0.000,0.000,0.000
1641220990178077952,2022-01-03-14:43:10,10.1.1.8,164,-0.150,-0.150,-0.150,0.000,0.000,0.000
1641220990377859072,2022-01-03-14:43:10,10.1.1.8,163,-0.140,-0.140,-0.140,0.000,0.000,0.000
1641220990577716224,2022-01-03-14:43:10,10.1.1.8,162,-0.130,-0.130,-0.130,0.000,0.000,0.000
1641220990777806080,2022-01-03-14:43:10,10.1.1.8,161,-0.120,-0.120,-0.120,0.000,0.000,0.000
1641220990997150976,2022-01-03-14:43:10,10.1.1.8,173,-0.110,-0.110,-0.110,0.000,0.000,0.000
1641220991206201088,2022-01-03-14:43:11,10.1.1.8,180,-0.100,-0.100,-0.100,0.000,0.000,0.000
1641220991396732160,2022-01-03-14:43:11,10.1.1.8,171,-0.090,-0.090,-0.090,0.000,0.000,0.000
1641220991601506048,2022-01-03-14:43:11,10.1.1.8,175,-0.080,-0.080,-0.080,0.000,0.000,0.000
1641220991795589888,2022-01-03-14:43:11,10.1.1.8,168,-0.070,-0.070,-0.070,0.000,0.000,0.000
1641220991996578816,2022-01-03-14:43:11,10.1.1.8,168,-0.060,-0.060,-0.060,0.000,0.000,0.000
1641220992194857984,2022-01-03-14:43:12,10.1.1.8,166,-0.050,-0.050,-0.050,0.000,0.000,0.000
1641220992395085056,2022-01-03-14:43:12,10.1.1.8,165,-0.040,-0.040,-0.040,0.000,0.000,0.000
1641220992595223040,2022-01-03-14:43:12,10.1.1.8,165,-0.030,-0.030,-0.030,0.000,0.000,0.000
1641220992794509056,2022-01-03-14:43:12,10.1.1.8,164,-0.020,-0.020,-0.020,0.000,0.000,0.000
1641220992993925120,2022-01-03-14:43:12,10.1.1.8,163,-0.010,-0.010,-0.010,0.000,0.000,0.000
1641220993194364928,2022-01-03-14:43:13,10.1.1.8,163,0.000,0.000,0.000,0.000,0.000,0.000
1641220993395291136,2022-01-03-14:43:13,10.1.1.8,162,-0.010,-0.010,-0.010,0.000,0.000,0.000
1641220993596925952,2022-01-03-14:43:13,10.1.1.8,163,-0.020,-0.020,-0.020,0.000,0.000,0.000
1641220993799493120,2022-01-03-14:43:13,10.1.1.8,164,-0.030,-0.030,-0.030,0.000,0.000,0.000
1641220993999214848,2022-01-03-14:43:13,10.1.1.8,163,-0.040,-0.040,-0.040,0.000,0.000,0.000
1641220994202739968,2022-01-03-14:43:14,10.1.1.8,166,-0.050,-0.050,-0.050,0.000,0.000,0.000
1641220994400291072,2022-01-03-14:43:14,10.1.1.8,163,-0.060,-0.060,-0.060,0.000,0.000,0.000
1641220994621517824,2022-01-03-14:43:14,10.1.1.8,183,-0.070,-0.070,-0.070,0.000,0.000,0.000
1641220994822594816,2022-01-03-14:43:14,10.1.1.8,183,-0.080,-0.080,-0.080,0.000,0.000,0.000
1641220995023524096,2022-01-03-14:43:15,10.1.1.8,183,-0.090,-0.090,-0.090,0.000,0.000,0.000
1641220995223924992,2022-01-03-14:43:15,10.1.1.8,182,-0.100,-0.100,-0.100,0.000,0.000,0.000
1641220995424406016,2022-01-03-14:43:15,10.1.1.8,182,-0.110,-0.110,-0.110,0.000,0.000,0.000
1641220995629609216,2022-01-03-14:43:15,10.1.1.8,184,-0.120,-0.120,-0.120,0.000,0.000,0.000
1641220995829068032,2022-01-03-14:43:15,10.1.1.8,182,-0.130,-0.130,-0.130,0.000,0.000,0.000
1641220996047612928,2022-01-03-14:43:16,10.1.1.8,188,-0.140,-0.140,-0.140,0.000,0.000,0.000
1641220996247312896,2022-01-03-14:43:16,10.1.1.8,188,-0.150,-0.150,-0.150,0.000,0.000,0.000
1641220996448134912,2022-01-03-14:43:16,10.1.1.8,188,-0.160,-0.160,-0.160,0.000,0.000,0.000
1641220996648834816,2022-01-03-14:43:16,10.1.1.8,188,-0.170,-0.170,-0.170,0.000,0.000,0.000
1641220996851154176,2022-01-03-14:43:16,10.1.1.8,190,-0.180,-0.180,-0.180,0.000,0.000,0.000
1641220997049609984,2022-01-03-14:43:17,10.1.1.8,187,-0.190,-0.190,-0.190,0.000,0.000,0.000
1641220997249800960,2022-01-03-14:43:17,10.1.1.8,186,-0.200,-0.200,-0.200,0.000,0.000,0.000
1641220997452189952,2022-01-03-14:43:17,10.1.1.8,188,-0.210,-0.210,-0.210,0.000,0.000,0.000
1641220997651182848,2022-01-03-14:43:17,10.1.1.8,186,-0.220,-0.220,-0.220,0.000,0.000,0.000
1641220997851634944,2022-01-03-14:43:17,10.1.1.8,185,-0.230,-0.230,-0.230,0.000,0.000,0.000
1641220998052932096,2022-01-03-14:43:18,10.1.1.8,185,-0.240,-0.240,-0.240,0.000,0.000,0.000
1641220998253622016,2022-01-03-14:43:18,10.1.1.8,182,-0.250,-0.250,-0.250,0.000,0.000,0.000
1641220998452937984,2022-01-03-14:43:18,10.1.1.8,181,-0.260,-0.260,-0.260,0.000,0.000,0.000
1641220998653050880,2022-01-03-14:43:18,10.1.1.8,180,-0.270,-0.270,-0.270,0.000,0.000,0.000
1641220998853946880,2022-01-03-14:43:18,10.1.1.8,177,-0.280,-0.280,-0.280,0.000,0.000,0.000
1641220999054498816,2022-01-03-14:43:19,10.1.1.8,176,-0.290,-0.290,-0.290,0.000,0.000,0.000
1641220999274435072,2022-01-03-14:43:19,10.1.1.8,196,-0.300,-0.300,-0.300,0.000,0.000,0.000
1641220999475464192,2022-01-03-14:43:19,10.1.1.8,196,-0.310,-0.310,-0.310,0.000,0.000,0.000
1641220999675699968,2022-01-03-14:43:19,10.1.1.8,196,-0.320,-0.320,-0.320,0.000,0.000,0.000
1641220999875214080,2022-01-03-14:43:19,10.1.1.8,195,-0.330,-0.330,-0.330,0.000,0.000,0.000
1641221000075643904,2022-01-03-14:43:20,10.1.1.8,194,-0.340,-0.340,-0.340,0.000,0.000,0.000
1641221000278109952,2022-01-03-14:43:20,10.1.1.8,195,-0.350,-0.350,-0.350,0.000,0.000,0.000
1641221000479202048,2022-01-03-14:43:20,10.1.1.8,191,-0.360,-0.360,-0.360,0.000,0.000,0.000
1641221000679697152,2022-01-03-14:43:20,10.1.1.8,191,-0.370,-0.370,-0.370,0.000,0.000,0.000
1641221000878156032,2022-01-03-14:43:20,10.1.1.8,188,-0.380,-0.380,-0.380,0.000,0.000,0.000
1641221001079408896,2022-01-03-14:43:21,10.1.1.8,189,-0.390,-0.390,-0.390,0.000,0.000,0.000
1641221001278227200,2022-01-03-14:43:21,10.1.1.8,187,-0.400,-0.400,-0.400,0.000,0.000,0.000
1641221001478301952,2022-01-03-14:43:21,10.1.1.8,187,-0.410,-0.410,-0.410,0.000,0.000,0.000
1641221001679490048,2022-01-03-14:43:21,10.1.1.8,188,-0.420,-0.420,-0.420,0.000,0.000,0.000
1641221001878736896,2022-01-03-14:43:21,10.1.1.8,185,-0.430,-0.430,-0.430,0.000,0.000,0.000
1641221002085405952,2022-01-03-14:43:22,10.1.1.8,190,-0.440,-0.440,-0.440,0.000,0.000,0.000
1641221002492989952,2022-01-03-14:43:22,10.1.1.8,197,-0.460,-0.460,-0.460,0.000,0.000,0.000
1641221002679591936,2022-01-03-14:43:22,10.1.1.8,182,-0.470,-0.470,-0.470,0.000,0.000,0.000
1641221002879810048,2022-01-03-14:43:22,10.1.1.8,182,-0.480,-0.480,-0.480,0.000,0.000,0.000
1641221003500109056,2022-01-03-14:43:23,10.1.1.8,198,-0.470,-0.470,-0.470,0.000,0.000,0.000
1641221003697938944,2022-01-03-14:43:23,10.1.1.8,196,-0.460,-0.460,-0.460,0.000,0.000,0.000
1641221003901736960,2022-01-03-14:43:23,10.1.1.8,200,-0.450,-0.450,-0.450,0.000,0.000,0.000
1641221004098366976,2022-01-03-14:43:24,10.1.1.8,189,-0.440,-0.440,-0.440,0.000,0.000,0.000
1641221004298157056,2022-01-03-14:43:24,10.1.1.8,189,-0.430,-0.430,-0.430,0.000,0.000,0.000
1641221004499448064,2022-01-03-14:43:24,10.1.1.8,189,-0.420,-0.420,-0.420,0.000,0.000,0.000
1641221004701311232,2022-01-03-14:43:24,10.1.1.8,191,-0.410,-0.410,-0.410,0.000,0.000,0.000
1641221004899756032,2022-01-03-14:43:24,10.1.1.8,189,-0.400,-0.400,-0.400,0.000,0.000,0.000
1641221005099417856,2022-01-03-14:43:25,10.1.1.8,187,-0.390,-0.390,-0.390,0.000,0.000,0.000
1641221005306270976,2022-01-03-14:43:25,10.1.1.8,193,-0.380,-0.380,-0.380,0.000,0.000,0.000
1641221005500974848,2022-01-03-14:43:25,10.1.1.8,188,-0.370,-0.370,-0.370,0.000,0.000,0.000
1641221005698408960,2022-01-03-14:43:25,10.1.1.8,184,-0.360,-0.360,-0.360,0.000,0.000,0.000
1641221006098344192,2022-01-03-14:43:26,10.1.1.8,183,-0.340,-0.340,-0.340,0.000,0.000,0.000
1641221006297320960,2022-01-03-14:43:26,10.1.1.8,181,-0.330,-0.330,-0.330,0.000,0.000,0.000
1641221006498518016,2022-01-03-14:43:26,10.1.1.8,182,-0.320,-0.320,-0.320,0.000,0.000,0.000
1641221006698704128,2022-01-03-14:43:26,10.1.1.8,182,-0.310,-0.310,-0.310,0.000,0.000,0.000
1641221006899419904,2022-01-03-14:43:26,10.1.1.8,182,-0.300,-0.300,-0.300,0.000,0.000,0.000
1641221007098243072,2022-01-03-14:43:27,10.1.1.8,180,-0.290,-0.290,-0.290,0.000,0.000,0.000
1641221007317754112,2022-01-03-14:43:27,10.1.1.8,199,-0.280,-0.280,-0.280,0.000,0.000,0.000
1641221007498434048,2022-01-03-14:43:27,10.1.1.8,179,-0.270,-0.270,-0.270,0.000,0.000,0.000
1641221007717110016,2022-01-03-14:43:27,10.1.1.8,197,-0.260,-0.260,-0.260,0.000,0.000,0.000
1641221007918234112,2022-01-03-14:43:27,10.1.1.8,198,-0.250,-0.250,-0.250,0.000,0.000,0.000
1641221008118073088,2022-01-03-14:43:28,10.1.1.8,197,-0.240,-0.240,-0.240,0.000,0.000,0.000
1641221008317306880,2022-01-03-14:43:28,10.1.1.8,196,-0.230,-0.230,-0.230,0.000,0.000,0.000
1641221008517924096,2022-01-03-14:43:28,10.1.1.8,196,-0.220,-0.220,-0.220,0.000,0.000,0.000
1641221008716175104,2022-01-03-14:43:28,10.1.1.8,193,-0.210,-0.210,-0.210,0.000,0.000,0.000
1641221008917690112,2022-01-03-14:43:28,10.1.1.8,195,-0.200,-0.200,-0.200,0.000,0.000,0.000
1641221009117524992,2022-01-03-14:43:29,10.1.1.8,194,-0.190,-0.190,-0.190,0.000,0.000,0.000
1641221009317074944,2022-01-03-14:43:29,10.1.1.8,193,-0.180,-0.180,-0.180,0.000,0.000,0.000
1641221009518956800,2022-01-03-14:43:29,10.1.1.8,194,-0.170,-0.170,-0.170,0.000,0.000,0.000
1641221009715917056,2022-01-03-14:43:29,10.1.1.8,191,-0.160,-0.160,-0.160,0.000,0.000,0.000
1641221009915015936,2022-01-03-14:43:29,10.1.1.8,189,-0.150,-0.150,-0.150,0.000,0.000,0.000
1641221010119628800,2022-01-03-14:43:30,10.1.1.8,193,-0.140,-0.140,-0.140,0.000,0.000,0.000
1641221010315091968,2022-01-03-14:43:30,10.1.1.8,188,-0.130,-0.130,-0.130,0.000,0.000,0.000
1641221010515523840,2022-01-03-14:43:30,10.1.1.8,188,-0.120,-0.120,-0.120,0.000,0.000,0.000
1641221010716291072,2022-01-03-14:43:30,10.1.1.8,187,-0.110,-0.110,-0.110,0.000,0.000,0.000
1641221010915991040,2022-01-03-14:43:30,10.1.1.8,186,-0.100,-0.100,-0.100,0.000,0.000,0.000
1641221011113954048,2022-01-03-14:43:31,10.1.1.8,184,-0.090,-0.090,-0.090,0.000,0.000,0.000
1641221011316920064,2022-01-03-14:43:31,10.1.1.8,186,-0.080,-0.080,-0.080,0.000,0.000,0.000
1641221011513086976,2022-01-03-14:43:31,10.1.1.8,182,-0.070,-0.070,-0.070,0.000,0.000,0.000
1641221011718057984,2022-01-03-14:43:31,10.1.1.8,186,-0.060,-0.060,-0.060,0.000,0.000,0.000
1641221011913218048,2022-01-03-14:43:31,10.1.1.8,181,-0.050,-0.050,-0.050,0.000,0.000,0.000
1641221012113490944,2022-01-03-14:43:32,10.1.1.8,180,-0.040,-0.040,-0.040,0.000,0.000,0.000
1641221012313325824,2022-01-03-14:43:32,10.1.1.8,179,-0.030,-0.030,-0.030,0.000,0.000,0.000
1641221012512249088,2022-01-03-14:43:32,10.1.1.8,177,-0.020,-0.020,-0.020,0.000,0.000,0.000
1641221012712802816,2022-01-03-14:43:32,10.1.1.8,176,-0.010,-0.010,-0.010,0.000,0.000,0.000
1641221012911932928,2022-01-03-14:43:32,10.1.1.8,175,-0.000,-0.000,-0.000,0.000,0.000,0.000
1641221013111360000,2022-01-03-14:43:33,10.1.1.8,174,-0.010,-0.010,-0.010,0.000,0.000,0.000
1641221013331715072,2022-01-03-14:43:33,10.1.1.8,194,-0.020,-0.020,-0.020,0.000,0.000,0.000
1641221013534153984,2022-01-03-14:43:33,10.1.1.8,196,-0.030,-0.030,-0.030,0.000,0.000,0.000
1641221013734954240,2022-01-03-14:43:33,10.1.1.8,195,-0.040,-0.040,-0.040,0.000,0.000,0.000
1641221013930257152,2022-01-03-14:43:33,10.1.1.8,190,-0.050,-0.050,-0.050,0.000,0.000,0.000
1641221014130612992,2022-01-03-14:43:34,10.1.1.8,190,-0.060,-0.060,-0.060,0.000,0.000,0.000
1641221014333605888,2022-01-03-14:43:34,10.1.1.8,193,-0.070,-0.070,-0.070,0.000,0.000,0.000
1641221014531115008,2022-01-03-14:43:34,10.1.1.8,190,-0.080,-0.080,-0.080,0.000,0.000,0.000
1641221014730729216,2022-01-03-14:43:34,10.1.1.8,189,-0.090,-0.090,-0.090,0.000,0.000,0.000
1641221014929346048,2022-01-03-14:43:34,10.1.1.8,187,-0.100,-0.100,-0.100,0.000,0.000,0.000
1641221015128817920,2022-01-03-14:43:35,10.1.1.8,186,-0.110,-0.110,-0.110,0.000,0.000,0.000
1641221015333647872,2022-01-03-14:43:35,10.1.1.8,190,-0.120,-0.120,-0.120,0.000,0.000,0.000
1641221015530405888,2022-01-03-14:43:35,10.1.1.8,185,-0.130,-0.130,-0.130,0.000,0.000,0.000
1641221015743063808,2022-01-03-14:43:35,10.1.1.8,196,-0.140,-0.140,-0.140,0.000,0.000,0.000
1641221015935924992,2022-01-03-14:43:35,10.1.1.8,189,-0.150,-0.150,-0.150,0.000,0.000,0.000
1641221016129234944,2022-01-03-14:43:36,10.1.1.8,182,-0.160,-0.160,-0.160,0.000,0.000,0.000
1641221016341363968,2022-01-03-14:43:36,10.1.1.8,181,-0.170,-0.170,-0.170,0.000,0.000,0.000
1641221016531308032,2022-01-03-14:43:36,10.1.1.8,181,-0.180,-0.180,-0.180,0.000,0.000,0.000
1641221016727575040,2022-01-03-14:43:36,10.1.1.8,177,-0.190,-0.190,-0.190,0.000,0.000,0.000
1641221016929944064,2022-01-03-14:43:36,10.1.1.8,178,-0.200,-0.200,-0.200,0.000,0.000,0.000
1641221017126766080,2022-01-03-14:43:37,10.1.1.8,175,-0.210,-0.210,-0.210,0.000,0.000,0.000
1641221017327363072,2022-01-03-14:43:37,10.1.1.8,175,-0.220,-0.220,-0.220,0.000,0.000,0.000
1641221017527959040,2022-01-03-14:43:37,10.1.1.8,174,-0.230,-0.230,-0.230,0.000,0.000,0.000
1641221017747361792,2022-01-03-14:43:37,10.1.1.8,187,-0.240,-0.240,-0.240,0.000,0.000,0.000
1641221017959821824,2022-01-03-14:43:37,10.1.1.8,197,-0.250,-0.250,-0.250,0.000,0.000,0.000
1641221018146193152,2022-01-03-14:43:38,10.1.1.8,180,-0.260,-0.260,-0.260,0.000,0.000,0.000
1641221018346148096,2022-01-03-14:43:38,10.1.1.8,177,-0.270,-0.270,-0.270,0.000,0.000,0.000
1641221018544835072,2022-01-03-14:43:38,10.1.1.8,176,-0.280,-0.280,-0.280,0.000,0.000,0.000
1641221018744858112,2022-01-03-14:43:38,10.1.1.8,175,-0.290,-0.290,-0.290,0.000,0.000,0.000
1641221018944134912,2022-01-03-14:43:38,10.1.1.8,173,-0.300,-0.300,-0.300,0.000,0.000,0.000
1641221019144686848,2022-01-03-14:43:39,10.1.1.8,172,-0.310,-0.310,-0.310,0.000,0.000,0.000
1641221019343472896,2022-01-03-14:43:39,10.1.1.8,169,-0.320,-0.320,-0.320,0.000,0.000,0.000
1641221019544931840,2022-01-03-14:43:39,10.1.1.8,169,-0.330,-0.330,-0.330,0.000,0.000,0.000
1641221019748616960,2022-01-03-14:43:39,10.1.1.8,172,-0.340,-0.340,-0.340,0.000,0.000,0.000
1641221019944046848,2022-01-03-14:43:39,10.1.1.8,165,-0.350,-0.350,-0.350,0.000,0.000,0.000
1641221020169498880,2022-01-03-14:43:40,10.1.1.8,191,-0.360,-0.360,-0.360,0.000,0.000,0.000
1641221020361635072,2022-01-03-14:43:40,10.1.1.8,183,-0.370,-0.370,-0.370,0.000,0.000,0.000
1641221020561712896,2022-01-03-14:43:40,10.1.1.8,181,-0.380,-0.380,-0.380,0.000,0.000,0.000
1641221020764584960,2022-01-03-14:43:40,10.1.1.8,183,-0.390,-0.390,-0.390,0.000,0.000,0.000
1641221020961882112,2022-01-03-14:43:40,10.1.1.8,178,-0.400,-0.400,-0.400,0.000,0.000,0.000
1641221021160568064,2022-01-03-14:43:41,10.1.1.8,176,-0.410,-0.410,-0.410,0.000,0.000,0.000
1641221021360680960,2022-01-03-14:43:41,10.1.1.8,170,-0.420,-0.420,-0.420,0.000,0.000,0.000
1641221021560436992,2022-01-03-14:43:41,10.1.1.8,163,-0.430,-0.430,-0.430,0.000,0.000,0.000
1641221021779419904,2022-01-03-14:43:41,10.1.1.8,174,-0.440,-0.440,-0.440,0.000,0.000,0.000
1641221022000315904,2022-01-03-14:43:42,10.1.1.8,164,-0.450,-0.450,-0.450,0.000,0.000,0.000
1641221022199923968,2022-01-03-14:43:42,10.1.1.8,163,-0.460,-0.460,-0.460,0.000,0.000,0.000
1641221022419066880,2022-01-03-14:43:42,10.1.1.8,181,-0.470,-0.470,-0.470,0.000,0.000,0.000
1641221022619996160,2022-01-03-14:43:42,10.1.1.8,180,-0.480,-0.480,-0.480,0.000,0.000,0.000
1641221022817715968,2022-01-03-14:43:42,10.1.1.8,177,-0.490,-0.490,-0.490,0.000,0.000,0.000
1641221023018540032,2022-01-03-14:43:43,10.1.1.8,177,-0.480,-0.480,-0.480,0.000,0.000,0.000
1641221023218022144,2022-01-03-14:43:43,10.1.1.8,176,-0.470,-0.470,-0.470,0.000,0.000,0.000
1641221023434781184,2022-01-03-14:43:43,10.1.1.8,192,-0.460,-0.460,-0.460,0.000,0.000,0.000
1641221023617253120,2022-01-03-14:43:43,10.1.1.8,169,-0.450,-0.450,-0.450,0.000,0.000,0.000
1641221023819339008,2022-01-03-14:43:43,10.1.1.8,170,-0.440,-0.440,-0.440,0.000,0.000,0.000
1641221024016369152,2022-01-03-14:43:44,10.1.1.8,167,-0.430,-0.430,-0.430,0.000,0.000,0.000
1641221024216412160,2022-01-03-14:43:44,10.1.1.8,160,-0.420,-0.420,-0.420,0.000,0.000,0.000
1641221024417361920,2022-01-03-14:43:44,10.1.1.8,160,-0.410,-0.410,-0.410,0.000,0.000,0.000
1641221024646958080,2022-01-03-14:43:44,10.1.1.8,187,-0.400,-0.400,-0.400,0.000,0.000,0.000
1641221024836317184,2022-01-03-14:43:44,10.1.1.8,170,-0.390,-0.390,-0.390,0.000,0.000,0.000
1641221025038071040,2022-01-03-14:43:45,10.1.1.8,170,-0.380,-0.380,-0.380,0.000,0.000,0.000
1641221025235659008,2022-01-03-14:43:45,10.1.1.8,167,-0.370,-0.370,-0.370,0.000,0.000,0.000
1641221025436125952,2022-01-03-14:43:45,10.1.1.8,166,-0.360,-0.360,-0.360,0.000,0.000,0.000
1641221025638663168,2022-01-03-14:43:45,10.1.1.8,168,-0.350,-0.350,-0.350,0.000,0.000,0.000
1641221025838098176,2022-01-03-14:43:45,10.1.1.8,167,-0.340,-0.340,-0.340,0.000,0.000,0.000
1641221026039272192,2022-01-03-14:43:46,10.1.1.8,167,-0.330,-0.330,-0.330,0.000,0.000,0.000
1641221026247814912,2022-01-03-14:43:46,10.1.1.8,175,-0.320,-0.320,-0.320,0.000,0.000,0.000
1641221026442184960,2022-01-03-14:43:46,10.1.1.8,168,-0.310,-0.310,-0.310,0.000,0.000,0.000
1641221026646644224,2022-01-03-14:43:46,10.1.1.8,172,-0.300,-0.300,-0.300,0.000,0.000,0.000
1641221026842833152,2022-01-03-14:43:46,10.1.1.8,166,-0.290,-0.290,-0.290,0.000,0.000,0.000
1641221027064250112,2022-01-03-14:43:47,10.1.1.8,184,-0.280,-0.280,-0.280,0.000,0.000,0.000
1641221027264202240,2022-01-03-14:43:47,10.1.1.8,182,-0.270,-0.270,-0.270,0.000,0.000,0.000
1641221027466097152,2022-01-03-14:43:47,10.1.1.8,183,-0.260,-0.260,-0.260,0.000,0.000,0.000
1641221027665988096,2022-01-03-14:43:47,10.1.1.8,182,-0.250,-0.250,-0.250,0.000,0.000,0.000
1641221027866915840,2022-01-03-14:43:47,10.1.1.8,182,-0.240,-0.240,-0.240,0.000,0.000,0.000
1641221028067894016,2022-01-03-14:43:48,10.1.1.8,180,-0.230,-0.230,-0.230,0.000,0.000,0.000
1641221028272985856,2022-01-03-14:43:48,10.1.1.8,184,-0.220,-0.220,-0.220,0.000,0.000,0.000
1641221028468904960,2022-01-03-14:43:48,10.1.1.8,179,-0.210,-0.210,-0.210,0.000,0.000,0.000
1641221028669851136,2022-01-03-14:43:48,10.1.1.8,178,-0.200,-0.200,-0.200,0.000,0.000,0.000
1641221028870760960,2022-01-03-14:43:48,10.1.1.8,178,-0.190,-0.190,-0.190,0.000,0.000,0.000
1641221029069950208,2022-01-03-14:43:49,10.1.1.8,176,-0.180,-0.180,-0.180,0.000,0.000,0.000
1641221029270973952,2022-01-03-14:43:49,10.1.1.8,175,-0.170,-0.170,-0.170,0.000,0.000,0.000
1641221029472743936,2022-01-03-14:43:49,10.1.1.8,176,-0.160,-0.160,-0.160,0.000,0.000,0.000
1641221029674067968,2022-01-03-14:43:49,10.1.1.8,177,-0.150,-0.150,-0.150,0.000,0.000,0.000
1641221029892680960,2022-01-03-14:43:49,10.1.1.8,195,-0.140,-0.140,-0.140,0.000,0.000,0.000
1641221030093789952,2022-01-03-14:43:50,10.1.1.8,195,-0.130,-0.130,-0.130,0.000,0.000,0.000
1641221030294944000,2022-01-03-14:43:50,10.1.1.8,196,-0.120,-0.120,-0.120,0.000,0.000,0.000
1641221030695709952,2022-01-03-14:43:50,10.1.1.8,178,-0.100,-0.100,-0.100,0.000,0.000,0.000
1641221030917881856,2022-01-03-14:43:50,10.1.1.8,199,-0.090,-0.090,-0.090,0.000,0.000,0.000
1641221031118912000,2022-01-03-14:43:51,10.1.1.8,200,-0.080,-0.080,-0.080,0.000,0.000,0.000
1641221031316281088,2022-01-03-14:43:51,10.1.1.8,196,-0.070,-0.070,-0.070,0.000,0.000,0.000
1641221031517172992,2022-01-03-14:43:51,10.1.1.8,197,-0.060,-0.060,-0.060,0.000,0.000,0.000
1641221031919311104,2022-01-03-14:43:51,10.1.1.8,197,-0.040,-0.040,-0.040,0.000,0.000,0.000
1641221032122760960,2022-01-03-14:43:52,10.1.1.8,199,-0.030,-0.030,-0.030,0.000,0.000,0.000
1641221032321424896,2022-01-03-14:43:52,10.1.1.8,195,-0.020,-0.020,-0.020,0.000,0.000,0.000
1641221032516417024,2022-01-03-14:43:52,10.1.1.8,186,-0.010,-0.010,-0.010,0.000,0.000,0.000
1641221032717916928,2022-01-03-14:43:52,10.1.1.8,186,0.000,0.000,0.000,0.000,0.000,0.000
1641221032917473024,2022-01-03-14:43:52,10.1.1.8,185,-0.010,-0.010,-0.010,0.000,0.000,0.000
1641221033118726912,2022-01-03-14:43:53,10.1.1.8,186,-0.020,-0.020,-0.020,0.000,0.000,0.000
1641221033318521856,2022-01-03-14:43:53,10.1.1.8,184,-0.030,-0.030,-0.030,0.000,0.000,0.000
1641221033520801024,2022-01-03-14:43:53,10.1.1.8,185,-0.040,-0.040,-0.040,0.000,0.000,0.000
1641221033718491904,2022-01-03-14:43:53,10.1.1.8,182,-0.050,-0.050,-0.050,0.000,0.000,0.000
1641221033917718784,2022-01-03-14:43:53,10.1.1.8,181,-0.060,-0.060,-0.060,0.000,0.000,0.000
1641221034138052864,2022-01-03-14:43:54,10.1.1.8,199,-0.070,-0.070,-0.070,0.000,0.000,0.000
1641221034338411008,2022-01-03-14:43:54,10.1.1.8,198,-0.080,-0.080,-0.080,0.000,0.000,0.000
1641221034538458112,2022-01-03-14:43:54,10.1.1.8,197,-0.090,-0.090,-0.090,0.000,0.000,0.000
1641221034739165952,2022-01-03-14:43:54,10.1.1.8,197,-0.100,-0.100,-0.100,0.000,0.000,0.000
1641221034940267008,2022-01-03-14:43:54,10.1.1.8,197,-0.110,-0.110,-0.110,0.000,0.000,0.000
1641221035138368000,2022-01-03-14:43:55,10.1.1.8,187,-0.120,-0.120,-0.120,0.000,0.000,0.000
1641221035338496000,2022-01-03-14:43:55,10.1.1.8,187,-0.130,-0.130,-0.130,0.000,0.000,0.000
1641221035540945920,2022-01-03-14:43:55,10.1.1.8,188,-0.140,-0.140,-0.140,0.000,0.000,0.000
1641221035740361984,2022-01-03-14:43:55,10.1.1.8,186,-0.150,-0.150,-0.150,0.000,0.000,0.000
1641221035940340992,2022-01-03-14:43:55,10.1.1.8,183,-0.160,-0.160,-0.160,0.000,0.000,0.000
1641221036138597120,2022-01-03-14:43:56,10.1.1.8,182,-0.170,-0.170,-0.170,0.000,0.000,0.000
1641221036340883968,2022-01-03-14:43:56,10.1.1.8,184,-0.180,-0.180,-0.180,0.000,0.000,0.000
1641221036539058944,2022-01-03-14:43:56,10.1.1.8,182,-0.190,-0.190,-0.190,0.000,0.000,0.000
1641221036758600960,2022-01-03-14:43:56,10.1.1.8,200,-0.200,-0.200,-0.200,0.000,0.000,0.000
1641221036959321088,2022-01-03-14:43:56,10.1.1.8,200,-0.210,-0.210,-0.210,0.000,0.000,0.000
1641221037160485888,2022-01-03-14:43:57,10.1.1.8,200,-0.220,-0.220,-0.220,0.000,0.000,0.000
1641221037358426112,2022-01-03-14:43:57,10.1.1.8,196,-0.230,-0.230,-0.230,0.000,0.000,0.000
1641221037558649088,2022-01-03-14:43:57,10.1.1.8,196,-0.240,-0.240,-0.240,0.000,0.000,0.000
1641221037759756032,2022-01-03-14:43:57,10.1.1.8,196,-0.250,-0.250,-0.250,0.000,0.000,0.000
1641221037958127104,2022-01-03-14:43:57,10.1.1.8,194,-0.260,-0.260,-0.260,0.000,0.000,0.000
1641221038158326016,2022-01-03-14:43:58,10.1.1.8,193,-0.270,-0.270,-0.270,0.000,0.000,0.000
1641221038358490880,2022-01-03-14:43:58,10.1.1.8,191,-0.280,-0.280,-0.280,0.000,0.000,0.000
1641221038557740032,2022-01-03-14:43:58,10.1.1.8,189,-0.290,-0.290,-0.290,0.000,0.000,0.000
1641221038759383040,2022-01-03-14:43:58,10.1.1.8,190,-0.300,-0.300,-0.300,0.000,0.000,0.000
1641221038958472960,2022-01-03-14:43:58,10.1.1.8,188,-0.310,-0.310,-0.310,0.000,0.000,0.000
1641221039157718016,2022-01-03-14:43:59,10.1.1.8,187,-0.320,-0.320,-0.320,0.000,0.000,0.000
1641221039377639936,2022-01-03-14:43:59,10.1.1.8,197,-0.330,-0.330,-0.330,0.000,0.000,0.000
1641221039577743104,2022-01-03-14:43:59,10.1.1.8,196,-0.340,-0.340,-0.340,0.000,0.000,0.000
1641221039777074944,2022-01-03-14:43:59,10.1.1.8,195,-0.350,-0.350,-0.350,0.000,0.000,0.000
1641221039986392064,2022-01-03-14:43:59,10.1.1.8,195,-0.360,-0.360,-0.360,0.000,0.000,0.000
1641221040177800960,2022-01-03-14:44:00,10.1.1.8,191,-0.370,-0.370,-0.370,0.000,0.000,0.000
1641221040378163968,2022-01-03-14:44:00,10.1.1.8,191,-0.380,-0.380,-0.380,0.000,0.000,0.000
1641221040577274112,2022-01-03-14:44:00,10.1.1.8,190,-0.390,-0.390,-0.390,0.000,0.000,0.000
1641221040780955136,2022-01-03-14:44:00,10.1.1.8,188,-0.400,-0.400,-0.400,0.000,0.000,0.000
1641221040976988928,2022-01-03-14:44:00,10.1.1.8,188,-0.410,-0.410,-0.410,0.000,0.000,0.000
1641221041176532992,2022-01-03-14:44:01,10.1.1.8,187,-0.420,-0.420,-0.420,0.000,0.000,0.000
1641221041382343936,2022-01-03-14:44:01,10.1.1.8,191,-0.430,-0.430,-0.430,0.000,0.000,0.000
1641221041576209920,2022-01-03-14:44:01,10.1.1.8,184,-0.440,-0.440,-0.440,0.000,0.000,0.000
1641221041777251072,2022-01-03-14:44:01,10.1.1.8,185,-0.450,-0.450,-0.450,0.000,0.000,0.000
1641221041977817088,2022-01-03-14:44:01,10.1.1.8,184,-0.460,-0.460,-0.460,0.000,0.000,0.000
1641221042175569152,2022-01-03-14:44:02,10.1.1.8,182,-0.470,-0.470,-0.470,0.000,0.000,0.000
1641221042375462144,2022-01-03-14:44:02,10.1.1.8,181,-0.480,-0.480,-0.480,0.000,0.000,0.000
1641221042576113920,2022-01-03-14:44:02,10.1.1.8,181,-0.490,-0.490,-0.490,0.000,0.000,0.000
1641221042774002944,2022-01-03-14:44:02,10.1.1.8,178,-0.480,-0.480,-0.480,0.000,0.000,0.000
1641221042989613056,2022-01-03-14:44:02,10.1.1.8,193,-0.470,-0.470,-0.470,0.000,0.000,0.000
1641221043194319104,2022-01-03-14:44:03,10.1.1.8,196,-0.460,-0.460,-0.460,0.000,0.000,0.000
1641221043393441792,2022-01-03-14:44:03,10.1.1.8,194,-0.450,-0.450,-0.450,0.000,0.000,0.000
1641221043594181888,2022-01-03-14:44:03,10.1.1.8,195,-0.440,-0.440,-0.440,0.000,0.000,0.000
1641221043794121984,2022-01-03-14:44:03,10.1.1.8,194,-0.430,-0.430,-0.430,0.000,0.000,0.000
1641221043992964096,2022-01-03-14:44:03,10.1.1.8,192,-0.420,-0.420,-0.420,0.000,0.000,0.000
1641221044193362944,2022-01-03-14:44:04,10.1.1.8,192,-0.410,-0.410,-0.410,0.000,0.000,0.000
1641221044392165888,2022-01-03-14:44:04,10.1.1.8,191,-0.400,-0.400,-0.400,0.000,0.000,0.000
1641221044597597952,2022-01-03-14:44:04,10.1.1.8,195,-0.390,-0.390,-0.390,0.000,0.000,0.000
1641221044792502016,2022-01-03-14:44:04,10.1.1.8,190,-0.380,-0.380,-0.380,0.000,0.000,0.000
1641221044995492864,2022-01-03-14:44:04,10.1.1.8,192,-0.370,-0.370,-0.370,0.000,0.000,0.000
1641221045193391104,2022-01-03-14:44:05,10.1.1.8,190,-0.360,-0.360,-0.360,0.000,0.000,0.000
1641221045391289856,2022-01-03-14:44:05,10.1.1.8,187,-0.350,-0.350,-0.350,0.000,0.000,0.000
1641221045592093952,2022-01-03-14:44:05,10.1.1.8,188,-0.340,-0.340,-0.340,0.000,0.000,0.000
1641221045792308992,2022-01-03-14:44:05,10.1.1.8,187,-0.330,-0.330,-0.330,0.000,0.000,0.000
1641221045990456064,2022-01-03-14:44:05,10.1.1.8,183,-0.320,-0.320,-0.320,0.000,0.000,0.000
1641221046193184000,2022-01-03-14:44:06,10.1.1.8,185,-0.310,-0.310,-0.310,0.000,0.000,0.000
1641221046390422016,2022-01-03-14:44:06,10.1.1.8,182,-0.300,-0.300,-0.300,0.000,0.000,0.000
1641221046591104000,2022-01-03-14:44:06,10.1.1.8,181,-0.290,-0.290,-0.290,0.000,0.000,0.000
1641221046791431936,2022-01-03-14:44:06,10.1.1.8,181,-0.280,-0.280,-0.280,0.000,0.000,0.000
1641221046989076992,2022-01-03-14:44:06,10.1.1.8,178,-0.270,-0.270,-0.270,0.000,0.000,0.000
1641221047190052864,2022-01-03-14:44:07,10.1.1.8,178,-0.260,-0.260,-0.260,0.000,0.000,0.000
1641221047389925888,2022-01-03-14:44:07,10.1.1.8,177,-0.250,-0.250,-0.250,0.000,0.000,0.000
1641221047589611008,2022-01-03-14:44:07,10.1.1.8,176,-0.240,-0.240,-0.240,0.000,0.000,0.000
1641221047789236992,2022-01-03-14:44:07,10.1.1.8,175,-0.230,-0.230,-0.230,0.000,0.000,0.000
1641221047990004992,2022-01-03-14:44:07,10.1.1.8,175,-0.220,-0.220,-0.220,0.000,0.000,0.000
1641221048192498944,2022-01-03-14:44:08,10.1.1.8,177,-0.210,-0.210,-0.210,0.000,0.000,0.000
1641221048388838912,2022-01-03-14:44:08,10.1.1.8,171,-0.200,-0.200,-0.200,0.000,0.000,0.000
1641221048608207872,2022-01-03-14:44:08,10.1.1.8,187,-0.190,-0.190,-0.190,0.000,0.000,0.000
1641221048807841024,2022-01-03-14:44:08,10.1.1.8,183,-0.180,-0.180,-0.180,0.000,0.000,0.000
1641221049008711936,2022-01-03-14:44:09,10.1.1.8,183,-0.170,-0.170,-0.170,0.000,0.000,0.000
1641221049207166976,2022-01-03-14:44:09,10.1.1.8,179,-0.160,-0.160,-0.160,0.000,0.000,0.000
1641221049407906048,2022-01-03-14:44:09,10.1.1.8,179,-0.150,-0.150,-0.150,0.000,0.000,0.000
1641221049607137792,2022-01-03-14:44:09,10.1.1.8,178,-0.140,-0.140,-0.140,0.000,0.000,0.000
1641221049806696960,2022-01-03-14:44:09,10.1.1.8,177,-0.130,-0.130,-0.130,0.000,0.000,0.000
1641221050006392064,2022-01-03-14:44:10,10.1.1.8,176,-0.120,-0.120,-0.120,0.000,0.000,0.000
1641221050208528128,2022-01-03-14:44:10,10.1.1.8,178,-0.110,-0.110,-0.110,0.000,0.000,0.000
1641221050408616192,2022-01-03-14:44:10,10.1.1.8,175,-0.100,-0.100,-0.100,0.000,0.000,0.000
1641221050606110976,2022-01-03-14:44:10,10.1.1.8,171,-0.090,-0.090,-0.090,0.000,0.000,0.000
1641221050825161984,2022-01-03-14:44:10,10.1.1.8,183,-0.080,-0.080,-0.080,0.000,0.000,0.000
1641221051024583936,2022-01-03-14:44:11,10.1.1.8,182,-0.070,-0.070,-0.070,0.000,0.000,0.000
1641221051223885056,2022-01-03-14:44:11,10.1.1.8,179,-0.060,-0.060,-0.060,0.000,0.000,0.000
1641221051424590080,2022-01-03-14:44:11,10.1.1.8,177,-0.050,-0.050,-0.050,0.000,0.000,0.000
1641221051623960064,2022-01-03-14:44:11,10.1.1.8,175,-0.040,-0.040,-0.040,0.000,0.000,0.000
1641221051839917824,2022-01-03-14:44:11,10.1.1.8,179,-0.030,-0.030,-0.030,0.000,0.000,0.000
1641221052042917888,2022-01-03-14:44:12,10.1.1.8,175,-0.020,-0.020,-0.020,0.000,0.000,0.000
1641221052241805056,2022-01-03-14:44:12,10.1.1.8,172,-0.010,-0.010,-0.010,0.000,0.000,0.000
1641221052444390912,2022-01-03-14:44:12,10.1.1.8,172,0.000,0.000,0.000,0.000,0.000,0.000
1641221052641133056,2022-01-03-14:44:12,10.1.1.8,168,-0.010,-0.010,-0.010,0.000,0.000,0.000
1641221052841857792,2022-01-03-14:44:12,10.1.1.8,169,-0.020,-0.020,-0.020,0.000,0.000,0.000
1641221053041882880,2022-01-03-14:44:13,10.1.1.8,168,-0.030,-0.030,-0.030,0.000,0.000,0.000
1641221053240443904,2022-01-03-14:44:13,10.1.1.8,166,-0.040,-0.040,-0.040,0.000,0.000,0.000
1641221053440711936,2022-01-03-14:44:13,10.1.1.8,165,-0.050,-0.050,-0.050,0.000,0.000,0.000
1641221053640364800,2022-01-03-14:44:13,10.1.1.8,164,-0.060,-0.060,-0.060,0.000,0.000,0.000
1641221053838828032,2022-01-03-14:44:13,10.1.1.8,161,-0.070,-0.070,-0.070,0.000,0.000,0.000
1641221054060640000,2022-01-03-14:44:14,10.1.1.8,180,-0.080,-0.080,-0.080,0.000,0.000,0.000
1641221054259588864,2022-01-03-14:44:14,10.1.1.8,178,-0.090,-0.090,-0.090,0.000,0.000,0.000
1641221054458740992,2022-01-03-14:44:14,10.1.1.8,177,-0.100,-0.100,-0.100,0.000,0.000,0.000
1641221054658374912,2022-01-03-14:44:14,10.1.1.8,175,-0.110,-0.110,-0.110,0.000,0.000,0.000
1641221054859838976,2022-01-03-14:44:14,10.1.1.8,176,-0.120,-0.120,-0.120,0.000,0.000,0.000
1641221055058217984,2022-01-03-14:44:15,10.1.1.8,173,-0.130,-0.130,-0.130,0.000,0.000,0.000
1641221055257175808,2022-01-03-14:44:15,10.1.1.8,170,-0.140,-0.140,-0.140,0.000,0.000,0.000
1641221055458169088,2022-01-03-14:44:15,10.1.1.8,168,-0.150,-0.150,-0.150,0.000,0.000,0.000
1641221055658556928,2022-01-03-14:44:15,10.1.1.8,168,-0.160,-0.160,-0.160,0.000,0.000,0.000
1641221055857750016,2022-01-03-14:44:15,10.1.1.8,166,-0.170,-0.170,-0.170,0.000,0.000,0.000
1641221056058717952,2022-01-03-14:44:16,10.1.1.8,166,-0.180,-0.180,-0.180,0.000,0.000,0.000
1641221056255963136,2022-01-03-14:44:16,10.1.1.8,162,-0.190,-0.190,-0.190,0.000,0.000,0.000
1641221056455343872,2022-01-03-14:44:16,10.1.1.8,160,-0.200,-0.200,-0.200,0.000,0.000,0.000
1641221056675010048,2022-01-03-14:44:16,10.1.1.8,175,-0.210,-0.210,-0.210,0.000,0.000,0.000
1641221056874796032,2022-01-03-14:44:16,10.1.1.8,174,-0.220,-0.220,-0.220,0.000,0.000,0.000
1641221057075438080,2022-01-03-14:44:17,10.1.1.8,173,-0.230,-0.230,-0.230,0.000,0.000,0.000
1641221057279424000,2022-01-03-14:44:17,10.1.1.8,174,-0.240,-0.240,-0.240,0.000,0.000,0.000
1641221057478471168,2022-01-03-14:44:17,10.1.1.8,172,-0.250,-0.250,-0.250,0.000,0.000,0.000
1641221057678872064,2022-01-03-14:44:17,10.1.1.8,170,-0.260,-0.260,-0.260,0.000,0.000,0.000
1641221057879340800,2022-01-03-14:44:17,10.1.1.8,169,-0.270,-0.270,-0.270,0.000,0.000,0.000
1641221058081597952,2022-01-03-14:44:18,10.1.1.8,171,-0.280,-0.280,-0.280,0.000,0.000,0.000
1641221058282478080,2022-01-03-14:44:18,10.1.1.8,171,-0.290,-0.290,-0.290,0.000,0.000,0.000
1641221058482054912,2022-01-03-14:44:18,10.1.1.8,170,-0.300,-0.300,-0.300,0.000,0.000,0.000
1641221058683692032,2022-01-03-14:44:18,10.1.1.8,170,-0.310,-0.310,-0.310,0.000,0.000,0.000
1641221058886342912,2022-01-03-14:44:18,10.1.1.8,173,-0.320,-0.320,-0.320,0.000,0.000,0.000
1641221059084804096,2022-01-03-14:44:19,10.1.1.8,168,-0.330,-0.330,-0.330,0.000,0.000,0.000
1641221059286307072,2022-01-03-14:44:19,10.1.1.8,169,-0.340,-0.340,-0.340,0.000,0.000,0.000
1641221059506001920,2022-01-03-14:44:19,10.1.1.8,186,-0.350,-0.350,-0.350,0.000,0.000,0.000
1641221059709654016,2022-01-03-14:44:19,10.1.1.8,189,-0.360,-0.360,-0.360,0.000,0.000,0.000
1641221059909581056,2022-01-03-14:44:19,10.1.1.8,188,-0.370,-0.370,-0.370,0.000,0.000,0.000
1641221060110241792,2022-01-03-14:44:20,10.1.1.8,188,-0.380,-0.380,-0.380,0.000,0.000,0.000
1641221060309046016,2022-01-03-14:44:20,10.1.1.8,186,-0.390,-0.390,-0.390,0.000,0.000,0.000
1641221060509331968,2022-01-03-14:44:20,10.1.1.8,185,-0.400,-0.400,-0.400,0.000,0.000,0.000
1641221060711077888,2022-01-03-14:44:20,10.1.1.8,185,-0.410,-0.410,-0.410,0.000,0.000,0.000
1641221060910518784,2022-01-03-14:44:20,10.1.1.8,184,-0.420,-0.420,-0.420,0.000,0.000,0.000
1641221061114393856,2022-01-03-14:44:21,10.1.1.8,187,-0.430,-0.430,-0.430,0.000,0.000,0.000
1641221061332432128,2022-01-03-14:44:21,10.1.1.8,186,-0.440,-0.440,-0.440,0.000,0.000,0.000
1641221061732558080,2022-01-03-14:44:21,10.1.1.8,182,-0.460,-0.460,-0.460,0.000,0.000,0.000
1641221061933378048,2022-01-03-14:44:21,10.1.1.8,182,-0.470,-0.470,-0.470,0.000,0.000,0.000
1641221062135616000,2022-01-03-14:44:22,10.1.1.8,184,-0.480,-0.480,-0.480,0.000,0.000,0.000
1641221062334345216,2022-01-03-14:44:22,10.1.1.8,182,-0.490,-0.490,-0.490,0.000,0.000,0.000
1641221062535026944,2022-01-03-14:44:22,10.1.1.8,182,-0.480,-0.480,-0.480,0.000,0.000,0.000
1641221062735735040,2022-01-03-14:44:22,10.1.1.8,182,-0.470,-0.470,-0.470,0.000,0.000,0.000
1641221062955288832,2022-01-03-14:44:22,10.1.1.8,190,-0.460,-0.460,-0.460,0.000,0.000,0.000
1641221063156544000,2022-01-03-14:44:23,10.1.1.8,191,-0.450,-0.450,-0.450,0.000,0.000,0.000
1641221063356849920,2022-01-03-14:44:23,10.1.1.8,190,-0.440,-0.440,-0.440,0.000,0.000,0.000
1641221063556173056,2022-01-03-14:44:23,10.1.1.8,189,-0.430,-0.430,-0.430,0.000,0.000,0.000
1641221063757157120,2022-01-03-14:44:23,10.1.1.8,190,-0.420,-0.420,-0.420,0.000,0.000,0.000
1641221063956630016,2022-01-03-14:44:23,10.1.1.8,189,-0.410,-0.410,-0.410,0.000,0.000,0.000
1641221064158396928,2022-01-03-14:44:24,10.1.1.8,190,-0.400,-0.400,-0.400,0.000,0.000,0.000
1641221064357513984,2022-01-03-14:44:24,10.1.1.8,189,-0.390,-0.390,-0.390,0.000,0.000,0.000
1641221064558100992,2022-01-03-14:44:24,10.1.1.8,189,-0.380,-0.380,-0.380,0.000,0.000,0.000
1641221064759759872,2022-01-03-14:44:24,10.1.1.8,190,-0.370,-0.370,-0.370,0.000,0.000,0.000
1641221064958636032,2022-01-03-14:44:24,10.1.1.8,188,-0.360,-0.360,-0.360,0.000,0.000,0.000
1641221065160478208,2022-01-03-14:44:25,10.1.1.8,189,-0.350,-0.350,-0.350,0.000,0.000,0.000
1641221065383344896,2022-01-03-14:44:25,10.1.1.8,211,-0.340,-0.340,-0.340,0.000,0.000,0.000
1641221065579464960,2022-01-03-14:44:25,10.1.1.8,192,-0.330,-0.330,-0.330,0.000,0.000,0.000
1641221065779723008,2022-01-03-14:44:25,10.1.1.8,191,-0.320,-0.320,-0.320,0.000,0.000,0.000
1641221065980268032,2022-01-03-14:44:25,10.1.1.8,191,-0.310,-0.310,-0.310,0.000,0.000,0.000
1641221066179499008,2022-01-03-14:44:26,10.1.1.8,190,-0.300,-0.300,-0.300,0.000,0.000,0.000
1641221066380358912,2022-01-03-14:44:26,10.1.1.8,190,-0.290,-0.290,-0.290,0.000,0.000,0.000
1641221066580480000,2022-01-03-14:44:26,10.1.1.8,190,-0.280,-0.280,-0.280,0.000,0.000,0.000
1641221066780244992,2022-01-03-14:44:26,10.1.1.8,189,-0.270,-0.270,-0.270,0.000,0.000,0.000
1641221066982652928,2022-01-03-14:44:26,10.1.1.8,191,-0.260,-0.260,-0.260,0.000,0.000,0.000
1641221067181113088,2022-01-03-14:44:27,10.1.1.8,188,-0.250,-0.250,-0.250,0.000,0.000,0.000
1641221067400770816,2022-01-03-14:44:27,10.1.1.8,198,-0.240,-0.240,-0.240,0.000,0.000,0.000
1641221067600430080,2022-01-03-14:44:27,10.1.1.8,197,-0.230,-0.230,-0.230,0.000,0.000,0.000
1641221067801466880,2022-01-03-14:44:27,10.1.1.8,197,-0.220,-0.220,-0.220,0.000,0.000,0.000
1641221068000345856,2022-01-03-14:44:28,10.1.1.8,195,-0.210,-0.210,-0.210,0.000,0.000,0.000
1641221068201819904,2022-01-03-14:44:28,10.1.1.8,196,-0.200,-0.200,-0.200,0.000,0.000,0.000
1641221068399831040,2022-01-03-14:44:28,10.1.1.8,193,-0.190,-0.190,-0.190,0.000,0.000,0.000
1641221068600327936,2022-01-03-14:44:28,10.1.1.8,193,-0.180,-0.180,-0.180,0.000,0.000,0.000
1641221068800513024,2022-01-03-14:44:28,10.1.1.8,192,-0.170,-0.170,-0.170,0.000,0.000,0.000
1641221068999418112,2022-01-03-14:44:28,10.1.1.8,191,-0.160,-0.160,-0.160,0.000,0.000,0.000
1641221069201387776,2022-01-03-14:44:29,10.1.1.8,192,-0.150,-0.150,-0.150,0.000,0.000,0.000
1641221069401801984,2022-01-03-14:44:29,10.1.1.8,191,-0.140,-0.140,-0.140,0.000,0.000,0.000
1641221069599917056,2022-01-03-14:44:29,10.1.1.8,188,-0.130,-0.130,-0.130,0.000,0.000,0.000
1641221069800875776,2022-01-03-14:44:29,10.1.1.8,189,-0.120,-0.120,-0.120,0.000,0.000,0.000
1641221070000446976,2022-01-03-14:44:30,10.1.1.8,188,-0.110,-0.110,-0.110,0.000,0.000,0.000
1641221070207523072,2022-01-03-14:44:30,10.1.1.8,194,-0.100,-0.100,-0.100,0.000,0.000,0.000
1641221070404336896,2022-01-03-14:44:30,10.1.1.8,190,-0.090,-0.090,-0.090,0.000,0.000,0.000
1641221070600357888,2022-01-03-14:44:30,10.1.1.8,184,-0.080,-0.080,-0.080,0.000,0.000,0.000
1641221070800302080,2022-01-03-14:44:30,10.1.1.8,183,-0.070,-0.070,-0.070,0.000,0.000,0.000
1641221071220067072,2022-01-03-14:44:31,10.1.1.8,199,-0.050,-0.050,-0.050,0.000,0.000,0.000
1641221071420016128,2022-01-03-14:44:31,10.1.1.8,199,-0.040,-0.040,-0.040,0.000,0.000,0.000
1641221071618659072,2022-01-03-14:44:31,10.1.1.8,197,-0.030,-0.030,-0.030,0.000,0.000,0.000
1641221071819066880,2022-01-03-14:44:31,10.1.1.8,196,-0.020,-0.020,-0.020,0.000,0.000,0.000
1641221072021922048,2022-01-03-14:44:32,10.1.1.8,197,-0.010,-0.010,-0.010,0.000,0.000,0.000
1641221072219222016,2022-01-03-14:44:32,10.1.1.8,194,0.000,0.000,0.000,0.000,0.000,0.000
1641221072419095040,2022-01-03-14:44:32,10.1.1.8,193,-0.010,-0.010,-0.010,0.000,0.000,0.000
1641221072620397056,2022-01-03-14:44:32,10.1.1.8,193,-0.020,-0.020,-0.020,0.000,0.000,0.000
1641221072819122944,2022-01-03-14:44:32,10.1.1.8,192,-0.030,-0.030,-0.030,0.000,0.000,0.000
1641221073018099968,2022-01-03-14:44:33,10.1.1.8,190,-0.040,-0.040,-0.040,0.000,0.000,0.000
1641221073217572096,2022-01-03-14:44:33,10.1.1.8,189,-0.050,-0.050,-0.050,0.000,0.000,0.000
1641221073418312960,2022-01-03-14:44:33,10.1.1.8,189,-0.060,-0.060,-0.060,0.000,0.000,0.000
1641221073618066944,2022-01-03-14:44:33,10.1.1.8,188,-0.070,-0.070,-0.070,0.000,0.000,0.000
1641221074017008896,2022-01-03-14:44:34,10.1.1.8,186,-0.090,-0.090,-0.090,0.000,0.000,0.000
1641221074219357952,2022-01-03-14:44:34,10.1.1.8,187,-0.100,-0.100,-0.100,0.000,0.000,0.000
1641221074421142016,2022-01-03-14:44:34,10.1.1.8,186,-0.110,-0.110,-0.110,0.000,0.000,0.000
1641221074620812032,2022-01-03-14:44:34,10.1.1.8,185,-0.120,-0.120,-0.120,0.000,0.000,0.000
1641221074816188928,2022-01-03-14:44:34,10.1.1.8,179,-0.130,-0.130,-0.130,0.000,0.000,0.000
1641221075015182848,2022-01-03-14:44:35,10.1.1.8,177,-0.140,-0.140,-0.140,0.000,0.000,0.000
1641221075236002048,2022-01-03-14:44:35,10.1.1.8,197,-0.150,-0.150,-0.150,0.000,0.000,0.000
1641221075435276032,2022-01-03-14:44:35,10.1.1.8,196,-0.160,-0.160,-0.160,0.000,0.000,0.000
1641221075635721984,2022-01-03-14:44:35,10.1.1.8,196,-0.170,-0.170,-0.170,0.000,0.000,0.000
1641221075837413120,2022-01-03-14:44:35,10.1.1.8,197,-0.180,-0.180,-0.180,0.000,0.000,0.000
1641221076037388032,2022-01-03-14:44:36,10.1.1.8,196,-0.190,-0.190,-0.190,0.000,0.000,0.000
1641221076238279168,2022-01-03-14:44:36,10.1.1.8,197,-0.200,-0.200,-0.200,0.000,0.000,0.000
1641221076438249984,2022-01-03-14:44:36,10.1.1.8,195,-0.210,-0.210,-0.210,0.000,0.000,0.000
1641221076635181824,2022-01-03-14:44:36,10.1.1.8,191,-0.220,-0.220,-0.220,0.000,0.000,0.000
1641221076840398080,2022-01-03-14:44:36,10.1.1.8,194,-0.230,-0.230,-0.230,0.000,0.000,0.000
1641221077033406976,2022-01-03-14:44:37,10.1.1.8,187,-0.240,-0.240,-0.240,0.000,0.000,0.000
1641221077236947968,2022-01-03-14:44:37,10.1.1.8,190,-0.250,-0.250,-0.250,0.000,0.000,0.000
1641221077432396032,2022-01-03-14:44:37,10.1.1.8,185,-0.260,-0.260,-0.260,0.000,0.000,0.000
1641221077632040960,2022-01-03-14:44:37,10.1.1.8,184,-0.270,-0.270,-0.270,0.000,0.000,0.000
1641221077832622080,2022-01-03-14:44:37,10.1.1.8,184,-0.280,-0.280,-0.280,0.000,0.000,0.000
1641221078033040128,2022-01-03-14:44:38,10.1.1.8,184,-0.290,-0.290,-0.290,0.000,0.000,0.000
1641221078232559872,2022-01-03-14:44:38,10.1.1.8,183,-0.300,-0.300,-0.300,0.000,0.000,0.000
1641221078431257856,2022-01-03-14:44:38,10.1.1.8,181,-0.310,-0.310,-0.310,0.000,0.000,0.000
1641221078632456192,2022-01-03-14:44:38,10.1.1.8,178,-0.320,-0.320,-0.320,0.000,0.000,0.000
1641221078831932160,2022-01-03-14:44:38,10.1.1.8,177,-0.330,-0.330,-0.330,0.000,0.000,0.000
1641221079030797056,2022-01-03-14:44:39,10.1.1.8,175,-0.340,-0.340,-0.340,0.000,0.000,0.000
1641221079234407936,2022-01-03-14:44:39,10.1.1.8,178,-0.350,-0.350,-0.350,0.000,0.000,0.000
1641221079432594176,2022-01-03-14:44:39,10.1.1.8,175,-0.360,-0.360,-0.360,0.000,0.000,0.000
1641221079630717952,2022-01-03-14:44:39,10.1.1.8,173,-0.370,-0.370,-0.370,0.000,0.000,0.000
1641221079850078976,2022-01-03-14:44:39,10.1.1.8,191,-0.380,-0.380,-0.380,0.000,0.000,0.000
1641221080056262912,2022-01-03-14:44:40,10.1.1.8,197,-0.390,-0.390,-0.390,0.000,0.000,0.000
1641221080252352000,2022-01-03-14:44:40,10.1.1.8,192,-0.400,-0.400,-0.400,0.000,0.000,0.000
1641221080452737024,2022-01-03-14:44:40,10.1.1.8,192,-0.410,-0.410,-0.410,0.000,0.000,0.000
1641221080648521984,2022-01-03-14:44:40,10.1.1.8,187,-0.420,-0.420,-0.420,0.000,0.000,0.000
1641221080848432128,2022-01-03-14:44:40,10.1.1.8,185,-0.430,-0.430,-0.430,0.000,0.000,0.000
1641221081051924992,2022-01-03-14:44:41,10.1.1.8,188,-0.440,-0.440,-0.440,0.000,0.000,0.000
1641221081249456896,2022-01-03-14:44:41,10.1.1.8,185,-0.450,-0.450,-0.450,0.000,0.000,0.000
1641221081448901888,2022-01-03-14:44:41,10.1.1.8,183,-0.460,-0.460,-0.460,0.000,0.000,0.000
1641221081649214976,2022-01-03-14:44:41,10.1.1.8,182,-0.470,-0.470,-0.470,0.000,0.000,0.000
1641221081846959104,2022-01-03-14:44:41,10.1.1.8,178,-0.480,-0.480,-0.480,0.000,0.000,0.000
1641221082047708928,2022-01-03-14:44:42,10.1.1.8,177,-0.490,-0.490,-0.490,0.000,0.000,0.000
1641221082250909184,2022-01-03-14:44:42,10.1.1.8,179,-0.480,-0.480,-0.480,0.000,0.000,0.000
1641221082448838912,2022-01-03-14:44:42,10.1.1.8,177,-0.470,-0.470,-0.470,0.000,0.000,0.000
1641221082648755968,2022-01-03-14:44:42,10.1.1.8,176,-0.460,-0.460,-0.460,0.000,0.000,0.000
1641221082858475008,2022-01-03-14:44:42,10.1.1.8,185,-0.450,-0.450,-0.450,0.000,0.000,0.000
1641221083045123072,2022-01-03-14:44:43,10.1.1.8,170,-0.440,-0.440,-0.440,0.000,0.000,0.000
1641221083248616960,2022-01-03-14:44:43,10.1.1.8,173,-0.430,-0.430,-0.430,0.000,0.000,0.000
1641221083444968960,2022-01-03-14:44:43,10.1.1.8,168,-0.420,-0.420,-0.420,0.000,0.000,0.000
1641221083668588032,2022-01-03-14:44:43,10.1.1.8,187,-0.410,-0.410,-0.410,0.000,0.000,0.000
1641221083864898048,2022-01-03-14:44:43,10.1.1.8,182,-0.400,-0.400,-0.400,0.000,0.000,0.000
1641221084066930944,2022-01-03-14:44:44,10.1.1.8,182,-0.390,-0.390,-0.390,0.000,0.000,0.000
1641221084264858880,2022-01-03-14:44:44,10.1.1.8,179,-0.380,-0.380,-0.380,0.000,0.000,0.000
1641221084464553984,2022-01-03-14:44:44,10.1.1.8,176,-0.370,-0.370,-0.370,0.000,0.000,0.000
1641221084664377088,2022-01-03-14:44:44,10.1.1.8,176,-0.360,-0.360,-0.360,0.000,0.000,0.000
1641221084864856064,2022-01-03-14:44:44,10.1.1.8,175,-0.350,-0.350,-0.350,0.000,0.000,0.000
1641221085063416832,2022-01-03-14:44:45,10.1.1.8,167,-0.340,-0.340,-0.340,0.000,0.000,0.000
1641221085261549824,2022-01-03-14:44:45,10.1.1.8,164,-0.330,-0.330,-0.330,0.000,0.000,0.000
1641221085460943104,2022-01-03-14:44:45,10.1.1.8,163,-0.320,-0.320,-0.320,0.000,0.000,0.000
1641221085680764928,2022-01-03-14:44:45,10.1.1.8,182,-0.310,-0.310,-0.310,0.000,0.000,0.000
1641221085884798976,2022-01-03-14:44:45,10.1.1.8,185,-0.300,-0.300,-0.300,0.000,0.000,0.000
1641221086080066048,2022-01-03-14:44:46,10.1.1.8,180,-0.290,-0.290,-0.290,0.000,0.000,0.000
1641221086280937984,2022-01-03-14:44:46,10.1.1.8,180,-0.280,-0.280,-0.280,0.000,0.000,0.000
1641221086483982080,2022-01-03-14:44:46,10.1.1.8,181,-0.270,-0.270,-0.270,0.000,0.000,0.000
1641221086681197056,2022-01-03-14:44:46,10.1.1.8,178,-0.260,-0.260,-0.260,0.000,0.000,0.000
1641221086881739008,2022-01-03-14:44:46,10.1.1.8,177,-0.250,-0.250,-0.250,0.000,0.000,0.000
1641221087081520128,2022-01-03-14:44:47,10.1.1.8,177,-0.240,-0.240,-0.240,0.000,0.000,0.000
1641221087280801024,2022-01-03-14:44:47,10.1.1.8,176,-0.230,-0.230,-0.230,0.000,0.000,0.000
1641221087480974848,2022-01-03-14:44:47,10.1.1.8,175,-0.220,-0.220,-0.220,0.000,0.000,0.000
1641221087679126016,2022-01-03-14:44:47,10.1.1.8,173,-0.210,-0.210,-0.210,0.000,0.000,0.000
1641221087880784128,2022-01-03-14:44:47,10.1.1.8,173,-0.200,-0.200,-0.200,0.000,0.000,0.000
1641221088077223936,2022-01-03-14:44:48,10.1.1.8,168,-0.190,-0.190,-0.190,0.000,0.000,0.000
1641221088276976128,2022-01-03-14:44:48,10.1.1.8,168,-0.180,-0.180,-0.180,0.000,0.000,0.000
1641221088478169856,2022-01-03-14:44:48,10.1.1.8,168,-0.170,-0.170,-0.170,0.000,0.000,0.000
1641221088678808832,2022-01-03-14:44:48,10.1.1.8,168,-0.160,-0.160,-0.160,0.000,0.000,0.000
1641221088876875008,2022-01-03-14:44:48,10.1.1.8,160,-0.150,-0.150,-0.150,0.000,0.000,0.000
1641221089096012032,2022-01-03-14:44:49,10.1.1.8,178,-0.140,-0.140,-0.140,0.000,0.000,0.000
1641221089299845888,2022-01-03-14:44:49,10.1.1.8,181,-0.130,-0.130,-0.130,0.000,0.000,0.000
1641221089495579904,2022-01-03-14:44:49,10.1.1.8,176,-0.120,-0.120,-0.120,0.000,0.000,0.000
1641221089694089984,2022-01-03-14:44:49,10.1.1.8,174,-0.110,-0.110,-0.110,0.000,0.000,0.000
1641221089893929984,2022-01-03-14:44:49,10.1.1.8,171,-0.100,-0.100,-0.100,0.000,0.000,0.000
1641221090098256128,2022-01-03-14:44:50,10.1.1.8,175,-0.090,-0.090,-0.090,0.000,0.000,0.000
1641221090295486976,2022-01-03-14:44:50,10.1.1.8,171,-0.080,-0.080,-0.080,0.000,0.000,0.000
1641221090497188096,2022-01-03-14:44:50,10.1.1.8,172,-0.070,-0.070,-0.070,0.000,0.000,0.000
1641221090697716992,2022-01-03-14:44:50,10.1.1.8,171,-0.060,-0.060,-0.060,0.000,0.000,0.000
1641221090898305792,2022-01-03-14:44:50,10.1.1.8,171,-0.050,-0.050,-0.050,0.000,0.000,0.000
1641221091100029952,2022-01-03-14:44:51,10.1.1.8,172,-0.040,-0.040,-0.040,0.000,0.000,0.000
1641221091301027072,2022-01-03-14:44:51,10.1.1.8,172,-0.030,-0.030,-0.030,0.000,0.000,0.000
1641221091500692992,2022-01-03-14:44:51,10.1.1.8,171,-0.020,-0.020,-0.020,0.000,0.000,0.000
1641221091702948096,2022-01-03-14:44:51,10.1.1.8,173,-0.010,-0.010,-0.010,0.000,0.000,0.000
1641221091903996928,2022-01-03-14:44:51,10.1.1.8,172,0.000,0.000,0.000,0.000,0.000,0.000
1641221092103725824,2022-01-03-14:44:52,10.1.1.8,171,-0.010,-0.010,-0.010,0.000,0.000,0.000
1641221092304367104,2022-01-03-14:44:52,10.1.1.8,171,-0.020,-0.020,-0.020,0.000,0.000,0.000
1641221092505026048,2022-01-03-14:44:52,10.1.1.8,171,-0.030,-0.030,-0.030,0.000,0.000,0.000
1641221092705741056,2022-01-03-14:44:52,10.1.1.8,171,-0.040,-0.040,-0.040,0.000,0.000,0.000
1641221092907518976,2022-01-03-14:44:52,10.1.1.8,172,-0.050,-0.050,-0.050,0.000,0.000,0.000
1641221093108210944,2022-01-03-14:44:53,10.1.1.8,172,-0.060,-0.060,-0.060,0.000,0.000,0.000
1641221093308567040,2022-01-03-14:44:53,10.1.1.8,171,-0.070,-0.070,-0.070,0.000,0.000,0.000
1641221093528407040,2022-01-03-14:44:53,10.1.1.8,190,-0.080,-0.080,-0.080,0.000,0.000,0.000
1641221093730840064,2022-01-03-14:44:53,10.1.1.8,192,-0.090,-0.090,-0.090,0.000,0.000,0.000
1641221093931517952,2022-01-03-14:44:53,10.1.1.8,192,-0.100,-0.100,-0.100,0.000,0.000,0.000
1641221094335345152,2022-01-03-14:44:54,10.1.1.8,194,-0.120,-0.120,-0.120,0.000,0.000,0.000
1641221094532850944,2022-01-03-14:44:54,10.1.1.8,191,-0.130,-0.130,-0.130,0.000,0.000,0.000
1641221094731433984,2022-01-03-14:44:54,10.1.1.8,188,-0.140,-0.140,-0.140,0.000,0.000,0.000
1641221094938196992,2022-01-03-14:44:54,10.1.1.8,194,-0.150,-0.150,-0.150,0.000,0.000,0.000
1641221095133059072,2022-01-03-14:44:55,10.1.1.8,188,-0.160,-0.160,-0.160,0.000,0.000,0.000
1641221095334004992,2022-01-03-14:44:55,10.1.1.8,189,-0.170,-0.170,-0.170,0.000,0.000,0.000
1641221095533925888,2022-01-03-14:44:55,10.1.1.8,188,-0.180,-0.180,-0.180,0.000,0.000,0.000
1641221095739371008,2022-01-03-14:44:55,10.1.1.8,193,-0.190,-0.190,-0.190,0.000,0.000,0.000
1641221095938584064,2022-01-03-14:44:55,10.1.1.8,191,-0.200,-0.200,-0.200,0.000,0.000,0.000
1641221096136346112,2022-01-03-14:44:56,10.1.1.8,188,-0.210,-0.210,-0.210,0.000,0.000,0.000
1641221096338813952,2022-01-03-14:44:56,10.1.1.8,190,-0.220,-0.220,-0.220,0.000,0.000,0.000
1641221096536363008,2022-01-03-14:44:56,10.1.1.8,187,-0.230,-0.230,-0.230,0.000,0.000,0.000
1641221096737133056,2022-01-03-14:44:56,10.1.1.8,187,-0.240,-0.240,-0.240,0.000,0.000,0.000
1641221096940212992,2022-01-03-14:44:56,10.1.1.8,189,-0.250,-0.250,-0.250,0.000,0.000,0.000
1641221097344616960,2022-01-03-14:44:57,10.1.1.8,193,-0.270,-0.270,-0.270,0.000,0.000,0.000
1641221097539508224,2022-01-03-14:44:57,10.1.1.8,185,-0.280,-0.280,-0.280,0.000,0.000,0.000
1641221097736809984,2022-01-03-14:44:57,10.1.1.8,182,-0.290,-0.290,-0.290,0.000,0.000,0.000
1641221097937457152,2022-01-03-14:44:57,10.1.1.8,181,-0.300,-0.300,-0.300,0.000,0.000,0.000
1641221098159001088,2022-01-03-14:44:58,10.1.1.8,200,-0.310,-0.310,-0.310,0.000,0.000,0.000
1641221098357188096,2022-01-03-14:44:58,10.1.1.8,196,-0.320,-0.320,-0.320,0.000,0.000,0.000
1641221098556973824,2022-01-03-14:44:58,10.1.1.8,195,-0.330,-0.330,-0.330,0.000,0.000,0.000
1641221098757157120,2022-01-03-14:44:58,10.1.1.8,195,-0.340,-0.340,-0.340,0.000,0.000,0.000
1641221098956960000,2022-01-03-14:44:58,10.1.1.8,194,-0.350,-0.350,-0.350,0.000,0.000,0.000
1641221099159622912,2022-01-03-14:44:59,10.1.1.8,196,-0.360,-0.360,-0.360,0.000,0.000,0.000
1641221099357922048,2022-01-03-14:44:59,10.1.1.8,193,-0.370,-0.370,-0.370,0.000,0.000,0.000
1641221099557265920,2022-01-03-14:44:59,10.1.1.8,192,-0.380,-0.380,-0.380,0.000,0.000,0.000
1641221099758007040,2022-01-03-14:44:59,10.1.1.8,191,-0.390,-0.390,-0.390,0.000,0.000,0.000
1641221099959086848,2022-01-03-14:44:59,10.1.1.8,192,-0.400,-0.400,-0.400,0.000,0.000,0.000
1641221100160065792,2022-01-03-14:45:00,10.1.1.8,192,-0.410,-0.410,-0.410,0.000,0.000,0.000
1641221100359889152,2022-01-03-14:45:00,10.1.1.8,191,-0.420,-0.420,-0.420,0.000,0.000,0.000
1641221100570568960,2022-01-03-14:45:00,10.1.1.8,188,-0.430,-0.430,-0.430,0.000,0.000,0.000
1641221100758339840,2022-01-03-14:45:00,10.1.1.8,187,-0.440,-0.440,-0.440,0.000,0.000,0.000
1641221100959596032,2022-01-03-14:45:00,10.1.1.8,188,-0.450,-0.450,-0.450,0.000,0.000,0.000
1641221101159272960,2022-01-03-14:45:01,10.1.1.8,187,-0.460,-0.460,-0.460,0.000,0.000,0.000
1641221101358438912,2022-01-03-14:45:01,10.1.1.8,185,-0.470,-0.470,-0.470,0.000,0.000,0.000
1641221101559979008,2022-01-03-14:45:01,10.1.1.8,186,-0.480,-0.480,-0.480,0.000,0.000,0.000
1641221101759191040,2022-01-03-14:45:01,10.1.1.8,184,-0.490,-0.490,-0.490,0.000,0.000,0.000
1641221101957710080,2022-01-03-14:45:01,10.1.1.8,180,-0.480,-0.480,-0.480,0.000,0.000,0.000
1641221102381625856,2022-01-03-14:45:02,10.1.1.8,199,-0.460,-0.460,-0.460,0.000,0.000,0.000
1641221102579787008,2022-01-03-14:45:02,10.1.1.8,197,-0.450,-0.450,-0.450,0.000,0.000,0.000
1641221102779145984,2022-01-03-14:45:02,10.1.1.8,195,-0.440,-0.440,-0.440,0.000,0.000,0.000
1641221102979352064,2022-01-03-14:45:02,10.1.1.8,195,-0.430,-0.430,-0.430,0.000,0.000,0.000
1641221103179536128,2022-01-03-14:45:03,10.1.1.8,190,-0.420,-0.420,-0.420,0.000,0.000,0.000
1641221103381225216,2022-01-03-14:45:03,10.1.1.8,191,-0.410,-0.410,-0.410,0.000,0.000,0.000
1641221103580632064,2022-01-03-14:45:03,10.1.1.8,190,-0.400,-0.400,-0.400,0.000,0.000,0.000
1641221103780399104,2022-01-03-14:45:03,10.1.1.8,189,-0.390,-0.390,-0.390,0.000,0.000,0.000
1641221103981004032,2022-01-03-14:45:03,10.1.1.8,189,-0.380,-0.380,-0.380,0.000,0.000,0.000
1641221104181106176,2022-01-03-14:45:04,10.1.1.8,188,-0.370,-0.370,-0.370,0.000,0.000,0.000
1641221104381496832,2022-01-03-14:45:04,10.1.1.8,188,-0.360,-0.360,-0.360,0.000,0.000,0.000
1641221104580321024,2022-01-03-14:45:04,10.1.1.8,186,-0.350,-0.350,-0.350,0.000,0.000,0.000
1641221104778614016,2022-01-03-14:45:04,10.1.1.8,183,-0.340,-0.340,-0.340,0.000,0.000,0.000
1641221104981084160,2022-01-03-14:45:04,10.1.1.8,184,-0.330,-0.330,-0.330,0.000,0.000,0.000
1641221105196485120,2022-01-03-14:45:05,10.1.1.8,197,-0.320,-0.320,-0.320,0.000,0.000,0.000
1641221105396506112,2022-01-03-14:45:05,10.1.1.8,195,-0.310,-0.310,-0.310,0.000,0.000,0.000
1641221105598344960,2022-01-03-14:45:05,10.1.1.8,197,-0.300,-0.300,-0.300,0.000,0.000,0.000
1641221105796926976,2022-01-03-14:45:05,10.1.1.8,194,-0.290,-0.290,-0.290,0.000,0.000,0.000
1641221105996985856,2022-01-03-14:45:05,10.1.1.8,193,-0.280,-0.280,-0.280,0.000,0.000,0.000
1641221106195403008,2022-01-03-14:45:06,10.1.1.8,189,-0.270,-0.270,-0.270,0.000,0.000,0.000
1641221106394861056,2022-01-03-14:45:06,10.1.1.8,188,-0.260,-0.260,-0.260,0.000,0.000,0.000
1641221106596726784,2022-01-03-14:45:06,10.1.1.8,189,-0.250,-0.250,-0.250,0.000,0.000,0.000
1641221106805466880,2022-01-03-14:45:06,10.1.1.8,198,-0.240,-0.240,-0.240,0.000,0.000,0.000
1641221106996196096,2022-01-03-14:45:06,10.1.1.8,188,-0.230,-0.230,-0.230,0.000,0.000,0.000
1641221107196068096,2022-01-03-14:45:07,10.1.1.8,187,-0.220,-0.220,-0.220,0.000,0.000,0.000
1641221107395802112,2022-01-03-14:45:07,10.1.1.8,186,-0.210,-0.210,-0.210,0.000,0.000,0.000
1641221107595337984,2022-01-03-14:45:07,10.1.1.8,185,-0.200,-0.200,-0.200,0.000,0.000,0.000
1641221107793171968,2022-01-03-14:45:07,10.1.1.8,182,-0.190,-0.190,-0.190,0.000,0.000,0.000
1641221107996404992,2022-01-03-14:45:07,10.1.1.8,185,-0.180,-0.180,-0.180,0.000,0.000,0.000
1641221108206594048,2022-01-03-14:45:08,10.1.1.8,194,-0.170,-0.170,-0.170,0.000,0.000,0.000
1641221108413446912,2022-01-03-14:45:08,10.1.1.8,185,-0.160,-0.160,-0.160,0.000,0.000,0.000
1641221108612608000,2022-01-03-14:45:08,10.1.1.8,184,-0.150,-0.150,-0.150,0.000,0.000,0.000
1641221108815159040,2022-01-03-14:45:08,10.1.1.8,186,-0.140,-0.140,-0.140,0.000,0.000,0.000
1641221109013444864,2022-01-03-14:45:09,10.1.1.8,183,-0.130,-0.130,-0.130,0.000,0.000,0.000
1641221109213634048,2022-01-03-14:45:09,10.1.1.8,183,-0.120,-0.120,-0.120,0.000,0.000,0.000
1641221109414376960,2022-01-03-14:45:09,10.1.1.8,182,-0.110,-0.110,-0.110,0.000,0.000,0.000
1641221109613095168,2022-01-03-14:45:09,10.1.1.8,178,-0.100,-0.100,-0.100,0.000,0.000,0.000
1641221109812871936,2022-01-03-14:45:09,10.1.1.8,177,-0.090,-0.090,-0.090,0.000,0.000,0.000
1641221110012643072,2022-01-03-14:45:10,10.1.1.8,175,-0.080,-0.080,-0.080,0.000,0.000,0.000
1641221110211358976,2022-01-03-14:45:10,10.1.1.8,173,-0.070,-0.070,-0.070,0.000,0.000,0.000
1641221110431941120,2022-01-03-14:45:10,10.1.1.8,193,-0.060,-0.060,-0.060,0.000,0.000,0.000
1641221110633285120,2022-01-03-14:45:10,10.1.1.8,194,-0.050,-0.050,-0.050,0.000,0.000,0.000
1641221110832041984,2022-01-03-14:45:10,10.1.1.8,190,-0.040,-0.040,-0.040,0.000,0.000,0.000
1641221111032227072,2022-01-03-14:45:11,10.1.1.8,191,-0.030,-0.030,-0.030,0.000,0.000,0.000
1641221111230021888,2022-01-03-14:45:11,10.1.1.8,187,-0.020,-0.020,-0.020,0.000,0.000,0.000
1641221111431587840,2022-01-03-14:45:11,10.1.1.8,188,-0.010,-0.010,-0.010,0.000,0.000,0.000
1641221111630115072,2022-01-03-14:45:11,10.1.1.8,185,0.000,0.000,0.000,0.000,0.000,0.000
1641221111830616832,2022-01-03-14:45:11,10.1.1.8,185,-0.010,-0.010,-0.010,0.000,0.000,0.000
1641221112029032960,2022-01-03-14:45:12,10.1.1.8,182,-0.020,-0.020,-0.020,0.000,0.000,0.000
1641221112229106944,2022-01-03-14:45:12,10.1.1.8,182,-0.030,-0.030,-0.030,0.000,0.000,0.000
1641221112428311040,2022-01-03-14:45:12,10.1.1.8,180,-0.040,-0.040,-0.040,0.000,0.000,0.000
1641221112628977920,2022-01-03-14:45:12,10.1.1.8,180,-0.050,-0.050,-0.050,0.000,0.000,0.000
1641221112828975872,2022-01-03-14:45:12,10.1.1.8,179,-0.060,-0.060,-0.060,0.000,0.000,0.000
1641221113027559936,2022-01-03-14:45:13,10.1.1.8,176,-0.070,-0.070,-0.070,0.000,0.000,0.000
1641221113237977856,2022-01-03-14:45:13,10.1.1.8,186,-0.080,-0.080,-0.080,0.000,0.000,0.000
1641221113427995904,2022-01-03-14:45:13,10.1.1.8,174,-0.090,-0.090,-0.090,0.000,0.000,0.000
1641221113628142080,2022-01-03-14:45:13,10.1.1.8,174,-0.100,-0.100,-0.100,0.000,0.000,0.000
1641221113827248128,2022-01-03-14:45:13,10.1.1.8,172,-0.110,-0.110,-0.110,0.000,0.000,0.000
1641221114032052992,2022-01-03-14:45:14,10.1.1.8,175,-0.120,-0.120,-0.120,0.000,0.000,0.000
1641221114229273088,2022-01-03-14:45:14,10.1.1.8,172,-0.130,-0.130,-0.130,0.000,0.000,0.000
1641221114426845184,2022-01-03-14:45:14,10.1.1.8,169,-0.140,-0.140,-0.140,0.000,0.000,0.000
1641221114645221888,2022-01-03-14:45:14,10.1.1.8,187,-0.150,-0.150,-0.150,0.000,0.000,0.000
1641221114846179840,2022-01-03-14:45:14,10.1.1.8,187,-0.160,-0.160,-0.160,0.000,0.000,0.000
1641221115049190144,2022-01-03-14:45:15,10.1.1.8,190,-0.170,-0.170,-0.170,0.000,0.000,0.000
1641221115246089984,2022-01-03-14:45:15,10.1.1.8,186,-0.180,-0.180,-0.180,0.000,0.000,0.000
1641221115447763968,2022-01-03-14:45:15,10.1.1.8,187,-0.190,-0.190,-0.190,0.000,0.000,0.000
1641221115643892992,2022-01-03-14:45:15,10.1.1.8,178,-0.200,-0.200,-0.200,0.000,0.000,0.000
1641221115845629952,2022-01-03-14:45:15,10.1.1.8,179,-0.210,-0.210,-0.210,0.000,0.000,0.000
1641221116047524096,2022-01-03-14:45:16,10.1.1.8,179,-0.220,-0.220,-0.220,0.000,0.000,0.000
1641221116244982016,2022-01-03-14:45:16,10.1.1.8,174,-0.230,-0.230,-0.230,0.000,0.000,0.000
1641221116444946944,2022-01-03-14:45:16,10.1.1.8,174,-0.240,-0.240,-0.240,0.000,0.000,0.000
1641221116643026944,2022-01-03-14:45:16,10.1.1.8,170,-0.250,-0.250,-0.250,0.000,0.000,0.000
1641221116841897984,2022-01-03-14:45:16,10.1.1.8,168,-0.260,-0.260,-0.260,0.000,0.000,0.000
1641221117043824896,2022-01-03-14:45:17,10.1.1.8,169,-0.270,-0.270,-0.270,0.000,0.000,0.000
1641221117241421824,2022-01-03-14:45:17,10.1.1.8,166,-0.280,-0.280,-0.280,0.000,0.000,0.000
1641221117442981888,2022-01-03-14:45:17,10.1.1.8,167,-0.290,-0.290,-0.290,0.000,0.000,0.000
1641221117642534912,2022-01-03-14:45:17,10.1.1.8,165,-0.300,-0.300,-0.300,0.000,0.000,0.000
1641221117840965120,2022-01-03-14:45:17,10.1.1.8,163,-0.310,-0.310,-0.310,0.000,0.000,0.000
1641221118040409088,2022-01-03-14:45:18,10.1.1.8,162,-0.320,-0.320,-0.320,0.000,0.000,0.000
1641221118260952832,2022-01-03-14:45:18,10.1.1.8,181,-0.330,-0.330,-0.330,0.000,0.000,0.000
1641221118459944960,2022-01-03-14:45:18,10.1.1.8,179,-0.340,-0.340,-0.340,0.000,0.000,0.000
1641221118659387136,2022-01-03-14:45:18,10.1.1.8,178,-0.350,-0.350,-0.350,0.000,0.000,0.000
1641221118860244992,2022-01-03-14:45:18,10.1.1.8,178,-0.360,-0.360,-0.360,0.000,0.000,0.000
1641221119061068032,2022-01-03-14:45:19,10.1.1.8,178,-0.370,-0.370,-0.370,0.000,0.000,0.000
1641221119260430080,2022-01-03-14:45:19,10.1.1.8,172,-0.380,-0.380,-0.380,0.000,0.000,0.000
1641221119462937088,2022-01-03-14:45:19,10.1.1.8,175,-0.390,-0.390,-0.390,0.000,0.000,0.000
1641221119661084928,2022-01-03-14:45:19,10.1.1.8,173,-0.400,-0.400,-0.400,0.000,0.000,0.000
1641221119860728064,2022-01-03-14:45:19,10.1.1.8,171,-0.410,-0.410,-0.410,0.000,0.000,0.000
1641221120061618176,2022-01-03-14:45:20,10.1.1.8,171,-0.420,-0.420,-0.420,0.000,0.000,0.000
1641221120298342912,2022-01-03-14:45:20,10.1.1.8,172,-0.430,-0.430,-0.430,0.000,0.000,0.000
1641221120479048960,2022-01-03-14:45:20,10.1.1.8,172,-0.440,-0.440,-0.440,0.000,0.000,0.000
1641221120688985088,2022-01-03-14:45:20,10.1.1.8,175,-0.450,-0.450,-0.450,0.000,0.000,0.000
1641221120895500032,2022-01-03-14:45:20,10.1.1.8,178,-0.460,-0.460,-0.460,0.000,0.000,0.000
1641221121096913152,2022-01-03-14:45:21,10.1.1.8,178,-0.470,-0.470,-0.470,0.000,0.000,0.000
1641221121298743040,2022-01-03-14:45:21,10.1.1.8,179,-0.480,-0.480,-0.480,0.000,0.000,0.000
1641221121496516096,2022-01-03-14:45:21,10.1.1.8,175,-0.490,-0.490,-0.490,0.000,0.000,0.000
1641221121696027136,2022-01-03-14:45:21,10.1.1.8,174,-0.480,-0.480,-0.480,0.000,0.000,0.000
1641221121897666048,2022-01-03-14:45:21,10.1.1.8,175,-0.470,-0.470,-0.470,0.000,0.000,0.000
1641221122094595072,2022-01-03-14:45:22,10.1.1.8,168,-0.460,-0.460,-0.460,0.000,0.000,0.000
1641221122308578048,2022-01-03-14:45:22,10.1.1.8,179,-0.450,-0.450,-0.450,0.000,0.000,0.000
1641221122497155072,2022-01-03-14:45:22,10.1.1.8,167,-0.440,-0.440,-0.440,0.000,0.000,0.000
1641221122738676992,2022-01-03-14:45:22,10.1.1.8,174,-0.430,-0.430,-0.430,0.000,0.000,0.000
1641221122939734016,2022-01-03-14:45:22,10.1.1.8,174,-0.420,-0.420,-0.420,0.000,0.000,0.000
1641221123142188032,2022-01-03-14:45:23,10.1.1.8,175,-0.410,-0.410,-0.410,0.000,0.000,0.000
1641221123342201856,2022-01-03-14:45:23,10.1.1.8,175,-0.400,-0.400,-0.400,0.000,0.000,0.000
1641221123582944000,2022-01-03-14:45:23,10.1.1.8,176,-0.390,-0.390,-0.390,0.000,0.000,0.000
1641221123824780032,2022-01-03-14:45:23,10.1.1.8,170,-0.380,-0.380,-0.380,0.000,0.000,0.000
1641221124026021120,2022-01-03-14:45:24,10.1.1.8,171,-0.370,-0.370,-0.370,0.000,0.000,0.000
1641221124226054912,2022-01-03-14:45:24,10.1.1.8,170,-0.360,-0.360,-0.360,0.000,0.000,0.000
1641221124426953984,2022-01-03-14:45:24,10.1.1.8,170,-0.350,-0.350,-0.350,0.000,0.000,0.000
1641221124627234816,2022-01-03-14:45:24,10.1.1.8,170,-0.340,-0.340,-0.340,0.000,0.000,0.000
1641221124848509952,2022-01-03-14:45:24,10.1.1.8,190,-0.330,-0.330,-0.330,0.000,0.000,0.000
1641221125048033024,2022-01-03-14:45:25,10.1.1.8,188,-0.320,-0.320,-0.320,0.000,0.000,0.000
1641221125259140864,2022-01-03-14:45:25,10.1.1.8,198,-0.310,-0.310,-0.310,0.000,0.000,0.000
1641221125450571008,2022-01-03-14:45:25,10.1.1.8,187,-0.300,-0.300,-0.300,0.000,0.000,0.000
1641221125650526976,2022-01-03-14:45:25,10.1.1.8,187,-0.290,-0.290,-0.290,0.000,0.000,0.000
1641221125851854080,2022-01-03-14:45:25,10.1.1.8,186,-0.280,-0.280,-0.280,0.000,0.000,0.000
1641221126051886080,2022-01-03-14:45:26,10.1.1.8,186,-0.270,-0.270,-0.270,0.000,0.000,0.000
1641221126253730048,2022-01-03-14:45:26,10.1.1.8,187,-0.260,-0.260,-0.260,0.000,0.000,0.000
1641221126451571968,2022-01-03-14:45:26,10.1.1.8,183,-0.250,-0.250,-0.250,0.000,0.000,0.000
1641221126657697024,2022-01-03-14:45:26,10.1.1.8,186,-0.240,-0.240,-0.240,0.000,0.000,0.000
1641221126852616960,2022-01-03-14:45:26,10.1.1.8,176,-0.230,-0.230,-0.230,0.000,0.000,0.000
1641221127073091072,2022-01-03-14:45:27,10.1.1.8,187,-0.220,-0.220,-0.220,0.000,0.000,0.000
1641221127273147136,2022-01-03-14:45:27,10.1.1.8,179,-0.210,-0.210,-0.210,0.000,0.000,0.000
1641221127473306880,2022-01-03-14:45:27,10.1.1.8,178,-0.200,-0.200,-0.200,0.000,0.000,0.000
1641221127674179072,2022-01-03-14:45:27,10.1.1.8,178,-0.190,-0.190,-0.190,0.000,0.000,0.000
1641221127875639808,2022-01-03-14:45:27,10.1.1.8,178,-0.180,-0.180,-0.180,0.000,0.000,0.000
1641221128295814912,2022-01-03-14:45:28,10.1.1.8,196,-0.160,-0.160,-0.160,0.000,0.000,0.000
1641221128497509120,2022-01-03-14:45:28,10.1.1.8,197,-0.150,-0.150,-0.150,0.000,0.000,0.000
1641221128697122048,2022-01-03-14:45:28,10.1.1.8,195,-0.140,-0.140,-0.140,0.000,0.000,0.000
1641221128896069888,2022-01-03-14:45:28,10.1.1.8,194,-0.130,-0.130,-0.130,0.000,0.000,0.000
1641221129096504832,2022-01-03-14:45:29,10.1.1.8,194,-0.120,-0.120,-0.120,0.000,0.000,0.000
1641221129297966848,2022-01-03-14:45:29,10.1.1.8,194,-0.110,-0.110,-0.110,0.000,0.000,0.000
1641221129498545920,2022-01-03-14:45:29,10.1.1.8,193,-0.100,-0.100,-0.100,0.000,0.000,0.000
1641221129699496960,2022-01-03-14:45:29,10.1.1.8,193,-0.090,-0.090,-0.090,0.000,0.000,0.000
1641221129900135168,2022-01-03-14:45:29,10.1.1.8,193,-0.080,-0.080,-0.080,0.000,0.000,0.000
1641221130099096064,2022-01-03-14:45:30,10.1.1.8,191,-0.070,-0.070,-0.070,0.000,0.000,0.000
1641221130298731008,2022-01-03-14:45:30,10.1.1.8,190,-0.060,-0.060,-0.060,0.000,0.000,0.000
1641221130503959808,2022-01-03-14:45:30,10.1.1.8,194,-0.050,-0.050,-0.050,0.000,0.000,0.000
1641221130699840000,2022-01-03-14:45:30,10.1.1.8,190,-0.040,-0.040,-0.040,0.000,0.000,0.000
1641221130900893952,2022-01-03-14:45:30,10.1.1.8,190,-0.030,-0.030,-0.030,0.000,0.000,0.000
1641221131101031168,2022-01-03-14:45:31,10.1.1.8,190,-0.020,-0.020,-0.020,0.000,0.000,0.000
1641221131302254080,2022-01-03-14:45:31,10.1.1.8,190,-0.010,-0.010,-0.010,0.000,0.000,0.000
1641221131498482944,2022-01-03-14:45:31,10.1.1.8,186,0.000,0.000,0.000,0.000,0.000,0.000
1641221131700276992,2022-01-03-14:45:31,10.1.1.8,187,-0.010,-0.010,-0.010,0.000,0.000,0.000
1641221131899406080,2022-01-03-14:45:31,10.1.1.8,186,-0.020,-0.020,-0.020,0.000,0.000,0.000
1641221132101033984,2022-01-03-14:45:32,10.1.1.8,186,-0.030,-0.030,-0.030,0.000,0.000,0.000
1641221132299230976,2022-01-03-14:45:32,10.1.1.8,184,-0.040,-0.040,-0.040,0.000,0.000,0.000
1641221132499782144,2022-01-03-14:45:32,10.1.1.8,184,-0.050,-0.050,-0.050,0.000,0.000,0.000
1641221132699965952,2022-01-03-14:45:32,10.1.1.8,183,-0.060,-0.060,-0.060,0.000,0.000,0.000
1641221132900401152,2022-01-03-14:45:32,10.1.1.8,183,-0.070,-0.070,-0.070,0.000,0.000,0.000
1641221133101565952,2022-01-03-14:45:33,10.1.1.8,183,-0.080,-0.080,-0.080,0.000,0.000,0.000
1641221133558767104,2022-01-03-14:45:33,10.1.1.8,193,-0.100,-0.100,-0.100,0.000,0.000,0.000
1641221133759409920,2022-01-03-14:45:33,10.1.1.8,193,-0.110,-0.110,-0.110,0.000,0.000,0.000
1641221133961380864,2022-01-03-14:45:33,10.1.1.8,194,-0.120,-0.120,-0.120,0.000,0.000,0.000
1641221134160041984,2022-01-03-14:45:34,10.1.1.8,192,-0.130,-0.130,-0.130,0.000,0.000,0.000
1641221134360750848,2022-01-03-14:45:34,10.1.1.8,192,-0.140,-0.140,-0.140,0.000,0.000,0.000
1641221134559256064,2022-01-03-14:45:34,10.1.1.8,190,-0.150,-0.150,-0.150,0.000,0.000,0.000
1641221134760019968,2022-01-03-14:45:34,10.1.1.8,189,-0.160,-0.160,-0.160,0.000,0.000,0.000
1641221134958655232,2022-01-03-14:45:34,10.1.1.8,188,-0.170,-0.170,-0.170,0.000,0.000,0.000
1641221135167833088,2022-01-03-14:45:35,10.1.1.8,191,-0.180,-0.180,-0.180,0.000,0.000,0.000
1641221135370050816,2022-01-03-14:45:35,10.1.1.8,193,-0.190,-0.190,-0.190,0.000,0.000,0.000
1641221135977971968,2022-01-03-14:45:35,10.1.1.8,196,-0.220,-0.220,-0.220,0.000,0.000,0.000
1641221136179610112,2022-01-03-14:45:36,10.1.1.8,195,-0.230,-0.230,-0.230,0.000,0.000,0.000
1641221136619627008,2022-01-03-14:45:36,10.1.1.8,195,-0.250,-0.250,-0.250,0.000,0.000,0.000
1641221137038935808,2022-01-03-14:45:37,10.1.1.8,198,-0.270,-0.270,-0.270,0.000,0.000,0.000
1641221137240148992,2022-01-03-14:45:37,10.1.1.8,197,-0.280,-0.280,-0.280,0.000,0.000,0.000
1641221137638479104,2022-01-03-14:45:37,10.1.1.8,190,-0.300,-0.300,-0.300,0.000,0.000,0.000
1641221137837846016,2022-01-03-14:45:37,10.1.1.8,189,-0.310,-0.310,-0.310,0.000,0.000,0.000
1641221138038204928,2022-01-03-14:45:38,10.1.1.8,189,-0.320,-0.320,-0.320,0.000,0.000,0.000
1641221138236964096,2022-01-03-14:45:38,10.1.1.8,187,-0.330,-0.330,-0.330,0.000,0.000,0.000
1641221138435982080,2022-01-03-14:45:38,10.1.1.8,185,-0.340,-0.340,-0.340,0.000,0.000,0.000
1641221138635354112,2022-01-03-14:45:38,10.1.1.8,184,-0.350,-0.350,-0.350,0.000,0.000,0.000
1641221138835988992,2022-01-03-14:45:38,10.1.1.8,184,-0.360,-0.360,-0.360,0.000,0.000,0.000
1641221139035245056,2022-01-03-14:45:39,10.1.1.8,182,-0.370,-0.370,-0.370,0.000,0.000,0.000
1641221139246148096,2022-01-03-14:45:39,10.1.1.8,193,-0.380,-0.380,-0.380,0.000,0.000,0.000
1641221139436057088,2022-01-03-14:45:39,10.1.1.8,179,-0.390,-0.390,-0.390,0.000,0.000,0.000
1641221139655729152,2022-01-03-14:45:39,10.1.1.8,197,-0.400,-0.400,-0.400,0.000,0.000,0.000
1641221139855959808,2022-01-03-14:45:39,10.1.1.8,197,-0.410,-0.410,-0.410,0.000,0.000,0.000
1641221140054328064,2022-01-03-14:45:40,10.1.1.8,195,-0.420,-0.420,-0.420,0.000,0.000,0.000
1641221140263500032,2022-01-03-14:45:40,10.1.1.8,201,-0.430,-0.430,-0.430,0.000,0.000,0.000
1641221140455005952,2022-01-03-14:45:40,10.1.1.8,189,-0.440,-0.440,-0.440,0.000,0.000,0.000
1641221140661436160,2022-01-03-14:45:40,10.1.1.8,195,-0.450,-0.450,-0.450,0.000,0.000,0.000
1641221140853737984,2022-01-03-14:45:40,10.1.1.8,181,-0.460,-0.460,-0.460,0.000,0.000,0.000
1641221141053991936,2022-01-03-14:45:41,10.1.1.8,180,-0.470,-0.470,-0.470,0.000,0.000,0.000
1641221141253127168,2022-01-03-14:45:41,10.1.1.8,179,-0.480,-0.480,-0.480,0.000,0.000,0.000
1641221141452804096,2022-01-03-14:45:41,10.1.1.8,178,-0.490,-0.490,-0.490,0.000,0.000,0.000
1641221141651932928,2022-01-03-14:45:41,10.1.1.8,177,-0.480,-0.480,-0.480,0.000,0.000,0.000
1641221141852416000,2022-01-03-14:45:41,10.1.1.8,177,-0.470,-0.470,-0.470,0.000,0.000,0.000
1641221142052061952,2022-01-03-14:45:42,10.1.1.8,176,-0.460,-0.460,-0.460,0.000,0.000,0.000
1641221142252003072,2022-01-03-14:45:42,10.1.1.8,176,-0.450,-0.450,-0.450,0.000,0.000,0.000
1641221142451097088,2022-01-03-14:45:42,10.1.1.8,174,-0.440,-0.440,-0.440,0.000,0.000,0.000
1641221142650855936,2022-01-03-14:45:42,10.1.1.8,173,-0.430,-0.430,-0.430,0.000,0.000,0.000
1641221142878010880,2022-01-03-14:45:42,10.1.1.8,200,-0.420,-0.420,-0.420,0.000,0.000,0.000
1641221143074188032,2022-01-03-14:45:43,10.1.1.8,195,-0.410,-0.410,-0.410,0.000,0.000,0.000
1641221143271662848,2022-01-03-14:45:43,10.1.1.8,191,-0.400,-0.400,-0.400,0.000,0.000,0.000
1641221143473539072,2022-01-03-14:45:43,10.1.1.8,193,-0.390,-0.390,-0.390,0.000,0.000,0.000
1641221143671671040,2022-01-03-14:45:43,10.1.1.8,190,-0.380,-0.380,-0.380,0.000,0.000,0.000
1641221143872541952,2022-01-03-14:45:43,10.1.1.8,190,-0.370,-0.370,-0.370,0.000,0.000,0.000
1641221144071232000,2022-01-03-14:45:44,10.1.1.8,188,-0.360,-0.360,-0.360,0.000,0.000,0.000
1641221144270898176,2022-01-03-14:45:44,10.1.1.8,187,-0.350,-0.350,-0.350,0.000,0.000,0.000
1641221144470712832,2022-01-03-14:45:44,10.1.1.8,187,-0.340,-0.340,-0.340,0.000,0.000,0.000
1641221144668893184,2022-01-03-14:45:44,10.1.1.8,185,-0.330,-0.330,-0.330,0.000,0.000,0.000
1641221144869833984,2022-01-03-14:45:44,10.1.1.8,184,-0.320,-0.320,-0.320,0.000,0.000,0.000
1641221145068981760,2022-01-03-14:45:45,10.1.1.8,183,-0.310,-0.310,-0.310,0.000,0.000,0.000
1641221145267521024,2022-01-03-14:45:45,10.1.1.8,181,-0.300,-0.300,-0.300,0.000,0.000,0.000
1641221145469128960,2022-01-03-14:45:45,10.1.1.8,182,-0.290,-0.290,-0.290,0.000,0.000,0.000
1641221145669332992,2022-01-03-14:45:45,10.1.1.8,180,-0.280,-0.280,-0.280,0.000,0.000,0.000
1641221145874629120,2022-01-03-14:45:45,10.1.1.8,185,-0.270,-0.270,-0.270,0.000,0.000,0.000
1641221146079582976,2022-01-03-14:45:46,10.1.1.8,189,-0.260,-0.260,-0.260,0.000,0.000,0.000
1641221146267614976,2022-01-03-14:45:46,10.1.1.8,177,-0.250,-0.250,-0.250,0.000,0.000,0.000
1641221146467428096,2022-01-03-14:45:46,10.1.1.8,176,-0.240,-0.240,-0.240,0.000,0.000,0.000
1641221146666834176,2022-01-03-14:45:46,10.1.1.8,175,-0.230,-0.230,-0.230,0.000,0.000,0.000
1641221146866745088,2022-01-03-14:45:46,10.1.1.8,174,-0.220,-0.220,-0.220,0.000,0.000,0.000
1641221147066485760,2022-01-03-14:45:47,10.1.1.8,173,-0.210,-0.210,-0.210,0.000,0.000,0.000
1641221147266823168,2022-01-03-14:45:47,10.1.1.8,173,-0.200,-0.200,-0.200,0.000,0.000,0.000
1641221147465042944,2022-01-03-14:45:47,10.1.1.8,170,-0.190,-0.190,-0.190,0.000,0.000,0.000
1641221147664922880,2022-01-03-14:45:47,10.1.1.8,169,-0.180,-0.180,-0.180,0.000,0.000,0.000
1641221147867398912,2022-01-03-14:45:47,10.1.1.8,171,-0.170,-0.170,-0.170,0.000,0.000,0.000
1641221148065149184,2022-01-03-14:45:48,10.1.1.8,168,-0.160,-0.160,-0.160,0.000,0.000,0.000
1641221148289798912,2022-01-03-14:45:48,10.1.1.8,190,-0.150,-0.150,-0.150,0.000,0.000,0.000
1641221148484283904,2022-01-03-14:45:48,10.1.1.8,182,-0.140,-0.140,-0.140,0.000,0.000,0.000
1641221148684814848,2022-01-03-14:45:48,10.1.1.8,181,-0.130,-0.130,-0.130,0.000,0.000,0.000
1641221148883634176,2022-01-03-14:45:48,10.1.1.8,179,-0.120,-0.120,-0.120,0.000,0.000,0.000
1641221149083756800,2022-01-03-14:45:49,10.1.1.8,179,-0.110,-0.110,-0.110,0.000,0.000,0.000
1641221149284900864,2022-01-03-14:45:49,10.1.1.8,178,-0.100,-0.100,-0.100,0.000,0.000,0.000
1641221149486394880,2022-01-03-14:45:49,10.1.1.8,173,-0.090,-0.090,-0.090,0.000,0.000,0.000
1641221149683713792,2022-01-03-14:45:49,10.1.1.8,167,-0.080,-0.080,-0.080,0.000,0.000,0.000
1641221149882867968,2022-01-03-14:45:49,10.1.1.8,166,-0.070,-0.070,-0.070,0.000,0.000,0.000
1641221150081638144,2022-01-03-14:45:50,10.1.1.8,164,-0.060,-0.060,-0.060,0.000,0.000,0.000
1641221150283490048,2022-01-03-14:45:50,10.1.1.8,165,-0.050,-0.050,-0.050,0.000,0.000,0.000
1641221150501917952,2022-01-03-14:45:50,10.1.1.8,184,-0.040,-0.040,-0.040,0.000,0.000,0.000
1641221150701757952,2022-01-03-14:45:50,10.1.1.8,183,-0.030,-0.030,-0.030,0.000,0.000,0.000
1641221150901235200,2022-01-03-14:45:50,10.1.1.8,182,-0.020,-0.020,-0.020,0.000,0.000,0.000
1641221151100713984,2022-01-03-14:45:51,10.1.1.8,181,-0.010,-0.010,-0.010,0.000,0.000,0.000
1641221151300075008,2022-01-03-14:45:51,10.1.1.8,178,0.000,0.000,0.000,0.000,0.000,0.000
1641221151700915968,2022-01-03-14:45:51,10.1.1.8,169,-0.020,-0.020,-0.020,0.000,0.000,0.000
1641221151899947008,2022-01-03-14:45:51,10.1.1.8,167,-0.030,-0.030,-0.030,0.000,0.000,0.000
1641221152098028032,2022-01-03-14:45:52,10.1.1.8,165,-0.040,-0.040,-0.040,0.000,0.000,0.000
1641221152297486080,2022-01-03-14:45:52,10.1.1.8,163,-0.050,-0.050,-0.050,0.000,0.000,0.000
1641221152497219072,2022-01-03-14:45:52,10.1.1.8,163,-0.060,-0.060,-0.060,0.000,0.000,0.000
1641221152696790016,2022-01-03-14:45:52,10.1.1.8,162,-0.070,-0.070,-0.070,0.000,0.000,0.000
1641221152896414976,2022-01-03-14:45:52,10.1.1.8,161,-0.080,-0.080,-0.080,0.000,0.000,0.000
1641221153096656128,2022-01-03-14:45:53,10.1.1.8,161,-0.090,-0.090,-0.090,0.000,0.000,0.000
1641221153296361984,2022-01-03-14:45:53,10.1.1.8,160,-0.100,-0.100,-0.100,0.000,0.000,0.000
1641221153496350976,2022-01-03-14:45:53,10.1.1.8,159,-0.110,-0.110,-0.110,0.000,0.000,0.000
1641221153696275968,2022-01-03-14:45:53,10.1.1.8,159,-0.120,-0.120,-0.120,0.000,0.000,0.000
1641221153894970880,2022-01-03-14:45:53,10.1.1.8,157,-0.130,-0.130,-0.130,0.000,0.000,0.000
1641221154116215040,2022-01-03-14:45:54,10.1.1.8,178,-0.140,-0.140,-0.140,0.000,0.000,0.000
1641221154318914816,2022-01-03-14:45:54,10.1.1.8,180,-0.150,-0.150,-0.150,0.000,0.000,0.000
1641221154517953024,2022-01-03-14:45:54,10.1.1.8,178,-0.160,-0.160,-0.160,0.000,0.000,0.000
1641221154721455104,2022-01-03-14:45:54,10.1.1.8,181,-0.170,-0.170,-0.170,0.000,0.000,0.000
1641221154919666176,2022-01-03-14:45:54,10.1.1.8,177,-0.180,-0.180,-0.180,0.000,0.000,0.000
1641221155120014848,2022-01-03-14:45:55,10.1.1.8,176,-0.190,-0.190,-0.190,0.000,0.000,0.000
1641221155322094848,2022-01-03-14:45:55,10.1.1.8,178,-0.200,-0.200,-0.200,0.000,0.000,0.000
1641221155521771008,2022-01-03-14:45:55,10.1.1.8,178,-0.210,-0.210,-0.210,0.000,0.000,0.000
1641221155723367936,2022-01-03-14:45:55,10.1.1.8,178,-0.220,-0.220,-0.220,0.000,0.000,0.000
1641221155924930048,2022-01-03-14:45:55,10.1.1.8,179,-0.230,-0.230,-0.230,0.000,0.000,0.000
1641221156125181952,2022-01-03-14:45:56,10.1.1.8,178,-0.240,-0.240,-0.240,0.000,0.000,0.000
1641221156326205952,2022-01-03-14:45:56,10.1.1.8,178,-0.250,-0.250,-0.250,0.000,0.000,0.000
1641221156530309888,2022-01-03-14:45:56,10.1.1.8,179,-0.260,-0.260,-0.260,0.000,0.000,0.000
1641221156727188224,2022-01-03-14:45:56,10.1.1.8,177,-0.270,-0.270,-0.270,0.000,0.000,0.000
1641221156940390144,2022-01-03-14:45:56,10.1.1.8,190,-0.280,-0.280,-0.280,0.000,0.000,0.000
1641221157129980160,2022-01-03-14:45:57,10.1.1.8,178,-0.290,-0.290,-0.290,0.000,0.000,0.000
1641221157329502208,2022-01-03-14:45:57,10.1.1.8,177,-0.300,-0.300,-0.300,0.000,0.000,0.000
1641221157531495168,2022-01-03-14:45:57,10.1.1.8,178,-0.310,-0.310,-0.310,0.000,0.000,0.000
1641221157733426944,2022-01-03-14:45:57,10.1.1.8,177,-0.320,-0.320,-0.320,0.000,0.000,0.000
1641221157931938048,2022-01-03-14:45:57,10.1.1.8,176,-0.330,-0.330,-0.330,0.000,0.000,0.000
1641221158152664832,2022-01-03-14:45:58,10.1.1.8,193,-0.340,-0.340,-0.340,0.000,0.000,0.000
1641221158352186880,2022-01-03-14:45:58,10.1.1.8,192,-0.350,-0.350,-0.350,0.000,0.000,0.000
1641221158552946944,2022-01-03-14:45:58,10.1.1.8,192,-0.360,-0.360,-0.360,0.000,0.000,0.000
1641221158754333952,2022-01-03-14:45:58,10.1.1.8,193,-0.370,-0.370,-0.370,0.000,0.000,0.000
1641221158954461184,2022-01-03-14:45:58,10.1.1.8,192,-0.380,-0.380,-0.380,0.000,0.000,0.000
1641221159156449024,2022-01-03-14:45:59,10.1.1.8,193,-0.390,-0.390,-0.390,0.000,0.000,0.000
1641221159354010112,2022-01-03-14:45:59,10.1.1.8,190,-0.400,-0.400,-0.400,0.000,0.000,0.000
1641221159554163968,2022-01-03-14:45:59,10.1.1.8,190,-0.410,-0.410,-0.410,0.000,0.000,0.000
1641221159755033856,2022-01-03-14:45:59,10.1.1.8,190,-0.420,-0.420,-0.420,0.000,0.000,0.000
1641221159954992896,2022-01-03-14:45:59,10.1.1.8,189,-0.430,-0.430,-0.430,0.000,0.000,0.000
1641221160157694976,2022-01-03-14:46:00,10.1.1.8,192,-0.440,-0.440,-0.440,0.000,0.000,0.000
1641221160357152000,2022-01-03-14:46:00,10.1.1.8,183,-0.450,-0.450,-0.450,0.000,0.000,0.000
1641221160560229120,2022-01-03-14:46:00,10.1.1.8,183,-0.460,-0.460,-0.460,0.000,0.000,0.000
1641221160760282880,2022-01-03-14:46:00,10.1.1.8,184,-0.470,-0.470,-0.470,0.000,0.000,0.000
1641221160979644928,2022-01-03-14:46:00,10.1.1.8,198,-0.480,-0.480,-0.480,0.000,0.000,0.000
1641221161177274880,2022-01-03-14:46:01,10.1.1.8,195,-0.490,-0.490,-0.490,0.000,0.000,0.000
1641221161377940992,2022-01-03-14:46:01,10.1.1.8,195,-0.480,-0.480,-0.480,0.000,0.000,0.000
1641221161577646080,2022-01-03-14:46:01,10.1.1.8,194,-0.470,-0.470,-0.470,0.000,0.000,0.000
1641221161778013952,2022-01-03-14:46:01,10.1.1.8,194,-0.460,-0.460,-0.460,0.000,0.000,0.000
1641221161979255808,2022-01-03-14:46:01,10.1.1.8,195,-0.450,-0.450,-0.450,0.000,0.000,0.000
1641221162178970112,2022-01-03-14:46:02,10.1.1.8,193,-0.440,-0.440,-0.440,0.000,0.000,0.000
1641221162379066112,2022-01-03-14:46:02,10.1.1.8,193,-0.430,-0.430,-0.430,0.000,0.000,0.000
1641221162579634944,2022-01-03-14:46:02,10.1.1.8,193,-0.420,-0.420,-0.420,0.000,0.000,0.000
1641221162777867008,2022-01-03-14:46:02,10.1.1.8,190,-0.410,-0.410,-0.410,0.000,0.000,0.000
1641221162979141120,2022-01-03-14:46:02,10.1.1.8,191,-0.400,-0.400,-0.400,0.000,0.000,0.000
1641221163180349952,2022-01-03-14:46:03,10.1.1.8,191,-0.390,-0.390,-0.390,0.000,0.000,0.000
1641221163388427008,2022-01-03-14:46:03,10.1.1.8,199,-0.380,-0.380,-0.380,0.000,0.000,0.000
1641221163580496128,2022-01-03-14:46:03,10.1.1.8,190,-0.370,-0.370,-0.370,0.000,0.000,0.000
1641221163779421184,2022-01-03-14:46:03,10.1.1.8,188,-0.360,-0.360,-0.360,0.000,0.000,0.000
1641221163979739904,2022-01-03-14:46:03,10.1.1.8,187,-0.350,-0.350,-0.350,0.000,0.000,0.000
1641221164180466944,2022-01-03-14:46:04,10.1.1.8,188,-0.340,-0.340,-0.340,0.000,0.000,0.000
1641221164380086784,2022-01-03-14:46:04,10.1.1.8,187,-0.330,-0.330,-0.330,0.000,0.000,0.000
1641221164779980800,2022-01-03-14:46:04,10.1.1.8,185,-0.310,-0.310,-0.310,0.000,0.000,0.000
1641221164979810048,2022-01-03-14:46:04,10.1.1.8,184,-0.300,-0.300,-0.300,0.000,0.000,0.000
1641221165179728896,2022-01-03-14:46:05,10.1.1.8,183,-0.290,-0.290,-0.290,0.000,0.000,0.000
1641221165379173888,2022-01-03-14:46:05,10.1.1.8,182,-0.280,-0.280,-0.280,0.000,0.000,0.000
1641221165579845888,2022-01-03-14:46:05,10.1.1.8,182,-0.270,-0.270,-0.270,0.000,0.000,0.000
1641221165799670016,2022-01-03-14:46:05,10.1.1.8,201,-0.260,-0.260,-0.260,0.000,0.000,0.000
1641221166398968064,2022-01-03-14:46:06,10.1.1.8,197,-0.230,-0.230,-0.230,0.000,0.000,0.000
1641221166801598976,2022-01-03-14:46:06,10.1.1.8,198,-0.210,-0.210,-0.210,0.000,0.000,0.000
1641221166999713024,2022-01-03-14:46:06,10.1.1.8,196,-0.200,-0.200,-0.200,0.000,0.000,0.000
1641221167199497984,2022-01-03-14:46:07,10.1.1.8,195,-0.190,-0.190,-0.190,0.000,0.000,0.000
1641221167402802944,2022-01-03-14:46:07,10.1.1.8,198,-0.180,-0.180,-0.180,0.000,0.000,0.000
1641221167599201024,2022-01-03-14:46:07,10.1.1.8,189,-0.170,-0.170,-0.170,0.000,0.000,0.000
1641221167800474880,2022-01-03-14:46:07,10.1.1.8,189,-0.160,-0.160,-0.160,0.000,0.000,0.000
1641221168000582912,2022-01-03-14:46:08,10.1.1.8,188,-0.150,-0.150,-0.150,0.000,0.000,0.000
1641221168198292992,2022-01-03-14:46:08,10.1.1.8,184,-0.140,-0.140,-0.140,0.000,0.000,0.000
1641221168397847808,2022-01-03-14:46:08,10.1.1.8,184,-0.130,-0.130,-0.130,0.000,0.000,0.000
1641221168599448064,2022-01-03-14:46:08,10.1.1.8,185,-0.120,-0.120,-0.120,0.000,0.000,0.000
1641221168798497024,2022-01-03-14:46:08,10.1.1.8,182,-0.110,-0.110,-0.110,0.000,0.000,0.000
1641221168999596032,2022-01-03-14:46:08,10.1.1.8,183,-0.100,-0.100,-0.100,0.000,0.000,0.000
1641221169219794944,2022-01-03-14:46:09,10.1.1.8,200,-0.090,-0.090,-0.090,0.000,0.000,0.000
1641221169619491072,2022-01-03-14:46:09,10.1.1.8,197,-0.070,-0.070,-0.070,0.000,0.000,0.000
1641221169818249984,2022-01-03-14:46:09,10.1.1.8,194,-0.060,-0.060,-0.060,0.000,0.000,0.000
1641221170020035072,2022-01-03-14:46:10,10.1.1.8,193,-0.050,-0.050,-0.050,0.000,0.000,0.000
1641221170217848064,2022-01-03-14:46:10,10.1.1.8,192,-0.040,-0.040,-0.040,0.000,0.000,0.000
1641221170417478144,2022-01-03-14:46:10,10.1.1.8,192,-0.030,-0.030,-0.030,0.000,0.000,0.000
1641221170616457984,2022-01-03-14:46:10,10.1.1.8,190,-0.020,-0.020,-0.020,0.000,0.000,0.000
1641221170816282112,2022-01-03-14:46:10,10.1.1.8,189,-0.010,-0.010,-0.010,0.000,0.000,0.000
1641221171015971072,2022-01-03-14:46:11,10.1.1.8,188,0.000,0.000,0.000,0.000,0.000,0.000
1641221171216634880,2022-01-03-14:46:11,10.1.1.8,188,-0.010,-0.010,-0.010,0.000,0.000,0.000
1641221171416102912,2022-01-03-14:46:11,10.1.1.8,187,-0.020,-0.020,-0.020,0.000,0.000,0.000
1641221171616066048,2022-01-03-14:46:11,10.1.1.8,187,-0.030,-0.030,-0.030,0.000,0.000,0.000
1641221171820486144,2022-01-03-14:46:11,10.1.1.8,191,-0.040,-0.040,-0.040,0.000,0.000,0.000
1641221172015631872,2022-01-03-14:46:12,10.1.1.8,185,-0.050,-0.050,-0.050,0.000,0.000,0.000
1641221172220869120,2022-01-03-14:46:12,10.1.1.8,189,-0.060,-0.060,-0.060,0.000,0.000,0.000
1641221172415441152,2022-01-03-14:46:12,10.1.1.8,179,-0.070,-0.070,-0.070,0.000,0.000,0.000
1641221172623656960,2022-01-03-14:46:12,10.1.1.8,187,-0.080,-0.080,-0.080,0.000,0.000,0.000
1641221172814691072,2022-01-03-14:46:12,10.1.1.8,177,-0.090,-0.090,-0.090,0.000,0.000,0.000
1641221173036169984,2022-01-03-14:46:13,10.1.1.8,197,-0.100,-0.100,-0.100,0.000,0.000,0.000
1641221173234318080,2022-01-03-14:46:13,10.1.1.8,195,-0.110,-0.110,-0.110,0.000,0.000,0.000
1641221173434156800,2022-01-03-14:46:13,10.1.1.8,194,-0.120,-0.120,-0.120,0.000,0.000,0.000
1641221173633633024,2022-01-03-14:46:13,10.1.1.8,193,-0.130,-0.130,-0.130,0.000,0.000,0.000
1641221173836077056,2022-01-03-14:46:13,10.1.1.8,193,-0.140,-0.140,-0.140,0.000,0.000,0.000
1641221174034519808,2022-01-03-14:46:14,10.1.1.8,186,-0.150,-0.150,-0.150,0.000,0.000,0.000
1641221174234482944,2022-01-03-14:46:14,10.1.1.8,185,-0.160,-0.160,-0.160,0.000,0.000,0.000
1641221174433388032,2022-01-03-14:46:14,10.1.1.8,184,-0.170,-0.170,-0.170,0.000,0.000,0.000
1641221174632577792,2022-01-03-14:46:14,10.1.1.8,182,-0.180,-0.180,-0.180,0.000,0.000,0.000
1641221174833523968,2022-01-03-14:46:14,10.1.1.8,182,-0.190,-0.190,-0.190,0.000,0.000,0.000
1641221175032360192,2022-01-03-14:46:15,10.1.1.8,180,-0.200,-0.200,-0.200,0.000,0.000,0.000
1641221175232826112,2022-01-03-14:46:15,10.1.1.8,179,-0.210,-0.210,-0.210,0.000,0.000,0.000
1641221175631222016,2022-01-03-14:46:15,10.1.1.8,176,-0.230,-0.230,-0.230,0.000,0.000,0.000
1641221176051248128,2022-01-03-14:46:16,10.1.1.8,190,-0.250,-0.250,-0.250,0.000,0.000,0.000
1641221176249692928,2022-01-03-14:46:16,10.1.1.8,186,-0.260,-0.260,-0.260,0.000,0.000,0.000
