FedericoMungari/DigitalTwin_service/01_WiredScenario/Output/Output_script/script_rosapi_2_output_robots4_freq0_3.txt
timestamp,date,node,latency,joint_1,joint_2,joint_3,joint_4,joint_5,joint_6
1643266332828335104,2022-01-27-06:52:12,10.1.1.4,37,-0.011,-0.011,-0.011,0.000,0.000,0.000
1643266333017406976,2022-01-27-06:52:13,10.1.1.4,19,-0.020,-0.020,-0.020,0.000,0.000,0.000
1643266333226907904,2022-01-27-06:52:13,10.1.1.4,28,-0.030,-0.030,-0.030,0.000,0.000,0.000
1643266333436707072,2022-01-27-06:52:13,10.1.1.4,37,-0.041,-0.041,-0.041,0.000,0.000,0.000
1643266333627096832,2022-01-27-06:52:13,10.1.1.4,26,-0.050,-0.050,-0.050,0.000,0.000,0.000
1643266333827468032,2022-01-27-06:52:13,10.1.1.4,25,-0.060,-0.060,-0.060,0.000,0.000,0.000
1643266334026618880,2022-01-27-06:52:14,10.1.1.4,20,-0.070,-0.070,-0.070,0.000,0.000,0.000
1643266334237368064,2022-01-27-06:52:14,10.1.1.4,29,-0.081,-0.081,-0.081,0.000,0.000,0.000
1643266334428684032,2022-01-27-06:52:14,10.1.1.4,13,-0.090,-0.090,-0.090,0.000,0.000,0.000
1643266334647464960,2022-01-27-06:52:14,10.1.1.4,29,-0.101,-0.101,-0.101,0.000,0.000,0.000
1643266334857504000,2022-01-27-06:52:14,10.1.1.4,38,-0.111,-0.111,-0.111,0.000,0.000,0.000
1643266335048829184,2022-01-27-06:52:15,10.1.1.4,27,-0.120,-0.120,-0.120,0.000,0.000,0.000
1643266335247446016,2022-01-27-06:52:15,10.1.1.4,23,-0.130,-0.130,-0.130,0.000,0.000,0.000
1643266335477464064,2022-01-27-06:52:15,10.1.1.4,49,-0.141,-0.141,-0.141,0.000,0.000,0.000
1643266335667959808,2022-01-27-06:52:15,10.1.1.4,38,-0.151,-0.151,-0.151,0.000,0.000,0.000
1643266335867247104,2022-01-27-06:52:15,10.1.1.4,32,-0.161,-0.161,-0.161,0.000,0.000,0.000
1643266336067441920,2022-01-27-06:52:16,10.1.1.4,31,-0.171,-0.171,-0.171,0.000,0.000,0.000
1643266336276508160,2022-01-27-06:52:16,10.1.1.4,39,-0.181,-0.181,-0.181,0.000,0.000,0.000
1643266336467725056,2022-01-27-06:52:16,10.1.1.4,24,-0.190,-0.190,-0.190,0.000,0.000,0.000
1643266336667360000,2022-01-27-06:52:16,10.1.1.4,23,-0.200,-0.200,-0.200,0.000,0.000,0.000
1643266336888474112,2022-01-27-06:52:16,10.1.1.4,43,-0.211,-0.211,-0.211,0.000,0.000,0.000
1643266337066728960,2022-01-27-06:52:17,10.1.1.4,20,-0.220,-0.220,-0.220,0.000,0.000,0.000
1643266337287849984,2022-01-27-06:52:17,10.1.1.4,39,-0.231,-0.231,-0.231,0.000,0.000,0.000
1643266337467076096,2022-01-27-06:52:17,10.1.1.4,17,-0.240,-0.240,-0.240,0.000,0.000,0.000
1643266337687256064,2022-01-27-06:52:17,10.1.1.4,37,-0.251,-0.251,-0.251,0.000,0.000,0.000
1643266337887993088,2022-01-27-06:52:17,10.1.1.4,36,-0.261,-0.261,-0.261,0.000,0.000,0.000
1643266338076996096,2022-01-27-06:52:18,10.1.1.4,24,-0.270,-0.270,-0.270,0.000,0.000,0.000
1643266338277676032,2022-01-27-06:52:18,10.1.1.4,24,-0.280,-0.280,-0.280,0.000,0.000,0.000
1643266338478813952,2022-01-27-06:52:18,10.1.1.4,22,-0.290,-0.290,-0.290,0.000,0.000,0.000
1643266338687159040,2022-01-27-06:52:18,10.1.1.4,31,-0.301,-0.301,-0.301,0.000,0.000,0.000
1643266338887070976,2022-01-27-06:52:18,10.1.1.4,30,-0.311,-0.311,-0.311,0.000,0.000,0.000
1643266339087433984,2022-01-27-06:52:19,10.1.1.4,30,-0.320,-0.320,-0.320,0.000,0.000,0.000
1643266339287940864,2022-01-27-06:52:19,10.1.1.4,28,-0.331,-0.331,-0.331,0.000,0.000,0.000
1643266339476994048,2022-01-27-06:52:19,10.1.1.4,16,-0.340,-0.340,-0.340,0.000,0.000,0.000
1643266339701430016,2022-01-27-06:52:19,10.1.1.4,40,-0.351,-0.351,-0.351,0.000,0.000,0.000
1643266339896871936,2022-01-27-06:52:19,10.1.1.4,34,-0.361,-0.361,-0.361,0.000,0.000,0.000
1643266340097351168,2022-01-27-06:52:20,10.1.1.4,34,-0.371,-0.371,-0.371,0.000,0.000,0.000
1643266340296983040,2022-01-27-06:52:20,10.1.1.4,33,-0.381,-0.381,-0.381,0.000,0.000,0.000
1643266340485979136,2022-01-27-06:52:20,10.1.1.4,21,-0.390,-0.390,-0.390,0.000,0.000,0.000
1643266340706765824,2022-01-27-06:52:20,10.1.1.4,41,-0.401,-0.401,-0.401,0.000,0.000,0.000
1643266340907911936,2022-01-27-06:52:20,10.1.1.4,40,-0.411,-0.411,-0.411,0.000,0.000,0.000
1643266341097018112,2022-01-27-06:52:21,10.1.1.4,28,-0.421,-0.421,-0.421,0.000,0.000,0.000
1643266341307143936,2022-01-27-06:52:21,10.1.1.4,37,-0.431,-0.431,-0.431,0.000,0.000,0.000
1643266341487377920,2022-01-27-06:52:21,10.1.1.4,16,-0.440,-0.440,-0.440,0.000,0.000,0.000
1643266341696806912,2022-01-27-06:52:21,10.1.1.4,24,-0.450,-0.450,-0.450,0.000,0.000,0.000
1643266341897694208,2022-01-27-06:52:21,10.1.1.4,23,-0.460,-0.460,-0.460,0.000,0.000,0.000
1643266342107074048,2022-01-27-06:52:22,10.1.1.4,32,-0.471,-0.471,-0.471,0.000,0.000,0.000
1643266342298136064,2022-01-27-06:52:22,10.1.1.4,23,-0.480,-0.480,-0.480,0.000,0.000,0.000
1643266342487443968,2022-01-27-06:52:22,10.1.1.4,11,-0.490,-0.490,-0.490,0.000,0.000,0.000
1643266342697071104,2022-01-27-06:52:22,10.1.1.4,19,-0.480,-0.480,-0.480,0.000,0.000,0.000
1643266342917871104,2022-01-27-06:52:22,10.1.1.4,39,-0.469,-0.469,-0.469,0.000,0.000,0.000
1643266343108475904,2022-01-27-06:52:23,10.1.1.4,27,-0.460,-0.460,-0.460,0.000,0.000,0.000
1643266343318118144,2022-01-27-06:52:23,10.1.1.4,36,-0.449,-0.449,-0.449,0.000,0.000,0.000
1643266343517259008,2022-01-27-06:52:23,10.1.1.4,34,-0.439,-0.439,-0.439,0.000,0.000,0.000
1643266343727686912,2022-01-27-06:52:23,10.1.1.4,43,-0.429,-0.429,-0.429,0.000,0.000,0.000
1643266343926626048,2022-01-27-06:52:23,10.1.1.4,41,-0.419,-0.419,-0.419,0.000,0.000,0.000
1643266344107907072,2022-01-27-06:52:24,10.1.1.4,20,-0.410,-0.410,-0.410,0.000,0.000,0.000
1643266344306732800,2022-01-27-06:52:24,10.1.1.4,18,-0.400,-0.400,-0.400,0.000,0.000,0.000
1643266344527520000,2022-01-27-06:52:24,10.1.1.4,38,-0.389,-0.389,-0.389,0.000,0.000,0.000
1643266344719727104,2022-01-27-06:52:24,10.1.1.4,29,-0.380,-0.380,-0.380,0.000,0.000,0.000
1643266344927676928,2022-01-27-06:52:24,10.1.1.4,35,-0.369,-0.369,-0.369,0.000,0.000,0.000
1643266345127613184,2022-01-27-06:52:25,10.1.1.4,34,-0.359,-0.359,-0.359,0.000,0.000,0.000
1643266345337987072,2022-01-27-06:52:25,10.1.1.4,42,-0.349,-0.349,-0.349,0.000,0.000,0.000
1643266345527678976,2022-01-27-06:52:25,10.1.1.4,32,-0.339,-0.339,-0.339,0.000,0.000,0.000
1643266345738285056,2022-01-27-06:52:25,10.1.1.4,42,-0.329,-0.329,-0.329,0.000,0.000,0.000
1643266345927597056,2022-01-27-06:52:25,10.1.1.4,30,-0.319,-0.319,-0.319,0.000,0.000,0.000
1643266346128113920,2022-01-27-06:52:26,10.1.1.4,30,-0.309,-0.309,-0.309,0.000,0.000,0.000
1643266346327614976,2022-01-27-06:52:26,10.1.1.4,28,-0.299,-0.299,-0.299,0.000,0.000,0.000
1643266346517303040,2022-01-27-06:52:26,10.1.1.4,17,-0.290,-0.290,-0.290,0.000,0.000,0.000
1643266346727550976,2022-01-27-06:52:26,10.1.1.4,26,-0.280,-0.280,-0.280,0.000,0.000,0.000
1643266346926754048,2022-01-27-06:52:26,10.1.1.4,24,-0.270,-0.270,-0.270,0.000,0.000,0.000
1643266347127612160,2022-01-27-06:52:27,10.1.1.4,24,-0.260,-0.260,-0.260,0.000,0.000,0.000
1643266347337212928,2022-01-27-06:52:27,10.1.1.4,32,-0.249,-0.249,-0.249,0.000,0.000,0.000
1643266347528047104,2022-01-27-06:52:27,10.1.1.4,23,-0.240,-0.240,-0.240,0.000,0.000,0.000
1643266347739352832,2022-01-27-06:52:27,10.1.1.4,33,-0.229,-0.229,-0.229,0.000,0.000,0.000
1643266347947171840,2022-01-27-06:52:27,10.1.1.4,38,-0.219,-0.219,-0.219,0.000,0.000,0.000
1643266348127463168,2022-01-27-06:52:28,10.1.1.4,17,-0.210,-0.210,-0.210,0.000,0.000,0.000
1643266348347001088,2022-01-27-06:52:28,10.1.1.4,36,-0.199,-0.199,-0.199,0.000,0.000,0.000
1643266348527822080,2022-01-27-06:52:28,10.1.1.4,16,-0.190,-0.190,-0.190,0.000,0.000,0.000
1643266348747078912,2022-01-27-06:52:28,10.1.1.4,33,-0.179,-0.179,-0.179,0.000,0.000,0.000
1643266348947328000,2022-01-27-06:52:28,10.1.1.4,33,-0.169,-0.169,-0.169,0.000,0.000,0.000
1643266349147211008,2022-01-27-06:52:29,10.1.1.4,31,-0.159,-0.159,-0.159,0.000,0.000,0.000
1643266349357073152,2022-01-27-06:52:29,10.1.1.4,40,-0.149,-0.149,-0.149,0.000,0.000,0.000
1643266349556922880,2022-01-27-06:52:29,10.1.1.4,38,-0.139,-0.139,-0.139,0.000,0.000,0.000
1643266349758032128,2022-01-27-06:52:29,10.1.1.4,38,-0.129,-0.129,-0.129,0.000,0.000,0.000
1643266349957956096,2022-01-27-06:52:29,10.1.1.4,37,-0.119,-0.119,-0.119,0.000,0.000,0.000
1643266350137465088,2022-01-27-06:52:30,10.1.1.4,16,-0.110,-0.110,-0.110,0.000,0.000,0.000
1643266350346752000,2022-01-27-06:52:30,10.1.1.4,25,-0.100,-0.100,-0.100,0.000,0.000,0.000
1643266350547566848,2022-01-27-06:52:30,10.1.1.4,25,-0.090,-0.090,-0.090,0.000,0.000,0.000
1643266350758743040,2022-01-27-06:52:30,10.1.1.4,35,-0.079,-0.079,-0.079,0.000,0.000,0.000
1643266350968077056,2022-01-27-06:52:30,10.1.1.4,44,-0.069,-0.069,-0.069,0.000,0.000,0.000
1643266351177697024,2022-01-27-06:52:31,10.1.1.4,51,-0.058,-0.058,-0.058,0.000,0.000,0.000
1643266351358025984,2022-01-27-06:52:31,10.1.1.4,30,-0.050,-0.050,-0.050,0.000,0.000,0.000
1643266351568475136,2022-01-27-06:52:31,10.1.1.4,39,-0.039,-0.039,-0.039,0.000,0.000,0.000
1643266351757798912,2022-01-27-06:52:31,10.1.1.4,27,-0.030,-0.030,-0.030,0.000,0.000,0.000
1643266351947212032,2022-01-27-06:52:31,10.1.1.4,16,-0.020,-0.020,-0.020,0.000,0.000,0.000
1643266352167377920,2022-01-27-06:52:32,10.1.1.4,36,-0.009,-0.009,-0.009,0.000,0.000,0.000
1643266352336937984,2022-01-27-06:52:32,10.1.1.4,4,-0.001,-0.001,-0.001,0.000,0.000,0.000
1643266352568047104,2022-01-27-06:52:32,10.1.1.4,34,-0.011,-0.011,-0.011,0.000,0.000,0.000
1643266352768666880,2022-01-27-06:52:32,10.1.1.4,34,-0.020,-0.020,-0.020,0.000,0.000,0.000
1643266352957700096,2022-01-27-06:52:32,10.1.1.4,22,-0.030,-0.030,-0.030,0.000,0.000,0.000
1643266353167500032,2022-01-27-06:52:33,10.1.1.4,30,-0.041,-0.041,-0.041,0.000,0.000,0.000
1643266353357197056,2022-01-27-06:52:33,10.1.1.4,19,-0.050,-0.050,-0.050,0.000,0.000,0.000
1643266353566994944,2022-01-27-06:52:33,10.1.1.4,28,-0.061,-0.061,-0.061,0.000,0.000,0.000
1643266353777561856,2022-01-27-06:52:33,10.1.1.4,38,-0.071,-0.071,-0.071,0.000,0.000,0.000
1643266353968781056,2022-01-27-06:52:33,10.1.1.4,26,-0.080,-0.080,-0.080,0.000,0.000,0.000
1643266354167661824,2022-01-27-06:52:34,10.1.1.4,22,-0.090,-0.090,-0.090,0.000,0.000,0.000
1643266354367734016,2022-01-27-06:52:34,10.1.1.4,19,-0.100,-0.100,-0.100,0.000,0.000,0.000
1643266354573078016,2022-01-27-06:52:34,10.1.1.4,24,-0.110,-0.110,-0.110,0.000,0.000,0.000
1643266354778387968,2022-01-27-06:52:34,10.1.1.4,27,-0.121,-0.121,-0.121,0.000,0.000,0.000
1643266354988087040,2022-01-27-06:52:34,10.1.1.4,36,-0.131,-0.131,-0.131,0.000,0.000,0.000
1643266355188926976,2022-01-27-06:52:35,10.1.1.4,36,-0.141,-0.141,-0.141,0.000,0.000,0.000
1643266355389399040,2022-01-27-06:52:35,10.1.1.4,35,-0.151,-0.151,-0.151,0.000,0.000,0.000
1643266355588502784,2022-01-27-06:52:35,10.1.1.4,33,-0.161,-0.161,-0.161,0.000,0.000,0.000
1643266355776669952,2022-01-27-06:52:35,10.1.1.4,20,-0.170,-0.170,-0.170,0.000,0.000,0.000
1643266355989592064,2022-01-27-06:52:35,10.1.1.4,29,-0.181,-0.181,-0.181,0.000,0.000,0.000
1643266356188899072,2022-01-27-06:52:36,10.1.1.4,28,-0.190,-0.190,-0.190,0.000,0.000,0.000
1643266356388940032,2022-01-27-06:52:36,10.1.1.4,28,-0.201,-0.201,-0.201,0.000,0.000,0.000
1643266356588109056,2022-01-27-06:52:36,10.1.1.4,27,-0.211,-0.211,-0.211,0.000,0.000,0.000
1643266356790038016,2022-01-27-06:52:36,10.1.1.4,28,-0.220,-0.220,-0.220,0.000,0.000,0.000
1643266356989486080,2022-01-27-06:52:36,10.1.1.4,27,-0.230,-0.230,-0.230,0.000,0.000,0.000
1643266357198220032,2022-01-27-06:52:37,10.1.1.4,34,-0.241,-0.241,-0.241,0.000,0.000,0.000
1643266357397979136,2022-01-27-06:52:37,10.1.1.4,33,-0.251,-0.251,-0.251,0.000,0.000,0.000
1643266357598073856,2022-01-27-06:52:37,10.1.1.4,32,-0.261,-0.261,-0.261,0.000,0.000,0.000
1643266357789163008,2022-01-27-06:52:37,10.1.1.4,22,-0.270,-0.270,-0.270,0.000,0.000,0.000
1643266357988894976,2022-01-27-06:52:37,10.1.1.4,20,-0.280,-0.280,-0.280,0.000,0.000,0.000
1643266358187905024,2022-01-27-06:52:38,10.1.1.4,17,-0.290,-0.290,-0.290,0.000,0.000,0.000
1643266358406673920,2022-01-27-06:52:38,10.1.1.4,36,-0.301,-0.301,-0.301,0.000,0.000,0.000
1643266358606530816,2022-01-27-06:52:38,10.1.1.4,34,-0.311,-0.311,-0.311,0.000,0.000,0.000
1643266358796713216,2022-01-27-06:52:38,10.1.1.4,23,-0.320,-0.320,-0.320,0.000,0.000,0.000
1643266358997790208,2022-01-27-06:52:38,10.1.1.4,23,-0.330,-0.330,-0.330,0.000,0.000,0.000
1643266359207515904,2022-01-27-06:52:39,10.1.1.4,32,-0.341,-0.341,-0.341,0.000,0.000,0.000
1643266359417171968,2022-01-27-06:52:39,10.1.1.4,41,-0.351,-0.351,-0.351,0.000,0.000,0.000
1643266359608710912,2022-01-27-06:52:39,10.1.1.4,30,-0.361,-0.361,-0.361,0.000,0.000,0.000
1643266359817853952,2022-01-27-06:52:39,10.1.1.4,38,-0.371,-0.371,-0.371,0.000,0.000,0.000
1643266360016675072,2022-01-27-06:52:40,10.1.1.4,35,-0.381,-0.381,-0.381,0.000,0.000,0.000
1643266360217266944,2022-01-27-06:52:40,10.1.1.4,34,-0.391,-0.391,-0.391,0.000,0.000,0.000
1643266360409235968,2022-01-27-06:52:40,10.1.1.4,25,-0.400,-0.400,-0.400,0.000,0.000,0.000
1643266360616942848,2022-01-27-06:52:40,10.1.1.4,31,-0.411,-0.411,-0.411,0.000,0.000,0.000
1643266360817872128,2022-01-27-06:52:40,10.1.1.4,31,-0.421,-0.421,-0.421,0.000,0.000,0.000
1643266361006711040,2022-01-27-06:52:41,10.1.1.4,17,-0.430,-0.430,-0.430,0.000,0.000,0.000
1643266361207986944,2022-01-27-06:52:41,10.1.1.4,17,-0.440,-0.440,-0.440,0.000,0.000,0.000
1643266361417601024,2022-01-27-06:52:41,10.1.1.4,26,-0.450,-0.450,-0.450,0.000,0.000,0.000
1643266361626988032,2022-01-27-06:52:41,10.1.1.4,35,-0.461,-0.461,-0.461,0.000,0.000,0.000
1643266361817629184,2022-01-27-06:52:41,10.1.1.4,23,-0.470,-0.470,-0.470,0.000,0.000,0.000
1643266362027933952,2022-01-27-06:52:42,10.1.1.4,33,-0.480,-0.480,-0.480,0.000,0.000,0.000
1643266362199877120,2022-01-27-06:52:42,10.1.1.4,3,-0.489,-0.489,-0.489,0.000,0.000,0.000
1643266362429734912,2022-01-27-06:52:42,10.1.1.4,32,-0.479,-0.479,-0.479,0.000,0.000,0.000
1643266362627115008,2022-01-27-06:52:42,10.1.1.4,29,-0.469,-0.469,-0.469,0.000,0.000,0.000
1643266362826975232,2022-01-27-06:52:42,10.1.1.4,28,-0.459,-0.459,-0.459,0.000,0.000,0.000
1643266363027353088,2022-01-27-06:52:43,10.1.1.4,27,-0.449,-0.449,-0.449,0.000,0.000,0.000
1643266363227377920,2022-01-27-06:52:43,10.1.1.4,26,-0.440,-0.440,-0.440,0.000,0.000,0.000
1643266363437469952,2022-01-27-06:52:43,10.1.1.4,33,-0.429,-0.429,-0.429,0.000,0.000,0.000
1643266363647022080,2022-01-27-06:52:43,10.1.1.4,40,-0.419,-0.419,-0.419,0.000,0.000,0.000
1643266363837146112,2022-01-27-06:52:43,10.1.1.4,28,-0.409,-0.409,-0.409,0.000,0.000,0.000
1643266364037515008,2022-01-27-06:52:44,10.1.1.4,26,-0.400,-0.400,-0.400,0.000,0.000,0.000
1643266364246867968,2022-01-27-06:52:44,10.1.1.4,34,-0.389,-0.389,-0.389,0.000,0.000,0.000
1643266364436583168,2022-01-27-06:52:44,10.1.1.4,23,-0.380,-0.380,-0.380,0.000,0.000,0.000
1643266364647314944,2022-01-27-06:52:44,10.1.1.4,33,-0.369,-0.369,-0.369,0.000,0.000,0.000
1643266364847610112,2022-01-27-06:52:44,10.1.1.4,32,-0.359,-0.359,-0.359,0.000,0.000,0.000
1643266365048698880,2022-01-27-06:52:45,10.1.1.4,32,-0.349,-0.349,-0.349,0.000,0.000,0.000
1643266365247802112,2022-01-27-06:52:45,10.1.1.4,29,-0.339,-0.339,-0.339,0.000,0.000,0.000
1643266365447032832,2022-01-27-06:52:45,10.1.1.4,27,-0.330,-0.330,-0.330,0.000,0.000,0.000
1643266365648660992,2022-01-27-06:52:45,10.1.1.4,27,-0.320,-0.320,-0.320,0.000,0.000,0.000
1643266365847654144,2022-01-27-06:52:45,10.1.1.4,25,-0.310,-0.310,-0.310,0.000,0.000,0.000
1643266366053200896,2022-01-27-06:52:46,10.1.1.4,30,-0.300,-0.300,-0.300,0.000,0.000,0.000
1643266366247598848,2022-01-27-06:52:46,10.1.1.4,24,-0.290,-0.290,-0.290,0.000,0.000,0.000
1643266366447156992,2022-01-27-06:52:46,10.1.1.4,22,-0.280,-0.280,-0.280,0.000,0.000,0.000
1643266366658170880,2022-01-27-06:52:46,10.1.1.4,32,-0.269,-0.269,-0.269,0.000,0.000,0.000
1643266366847749888,2022-01-27-06:52:46,10.1.1.4,21,-0.260,-0.260,-0.260,0.000,0.000,0.000
1643266367047539968,2022-01-27-06:52:47,10.1.1.4,20,-0.250,-0.250,-0.250,0.000,0.000,0.000
1643266367247814912,2022-01-27-06:52:47,10.1.1.4,19,-0.240,-0.240,-0.240,0.000,0.000,0.000
1643266367468267008,2022-01-27-06:52:47,10.1.1.4,37,-0.229,-0.229,-0.229,0.000,0.000,0.000
1643266367668168960,2022-01-27-06:52:47,10.1.1.4,38,-0.219,-0.219,-0.219,0.000,0.000,0.000
1643266367867453184,2022-01-27-06:52:47,10.1.1.4,36,-0.209,-0.209,-0.209,0.000,0.000,0.000
1643266368067496960,2022-01-27-06:52:48,10.1.1.4,36,-0.199,-0.199,-0.199,0.000,0.000,0.000
1643266368257353984,2022-01-27-06:52:48,10.1.1.4,23,-0.190,-0.190,-0.190,0.000,0.000,0.000
1643266368468898048,2022-01-27-06:52:48,10.1.1.4,34,-0.179,-0.179,-0.179,0.000,0.000,0.000
1643266368667654144,2022-01-27-06:52:48,10.1.1.4,32,-0.169,-0.169,-0.169,0.000,0.000,0.000
1643266368867912960,2022-01-27-06:52:48,10.1.1.4,32,-0.159,-0.159,-0.159,0.000,0.000,0.000
1643266369077646848,2022-01-27-06:52:49,10.1.1.4,41,-0.149,-0.149,-0.149,0.000,0.000,0.000
1643266369278960896,2022-01-27-06:52:49,10.1.1.4,41,-0.139,-0.139,-0.139,0.000,0.000,0.000
1643266369467164928,2022-01-27-06:52:49,10.1.1.4,28,-0.130,-0.130,-0.130,0.000,0.000,0.000
1643266369657705984,2022-01-27-06:52:49,10.1.1.4,17,-0.120,-0.120,-0.120,0.000,0.000,0.000
1643266369857198080,2022-01-27-06:52:49,10.1.1.4,16,-0.110,-0.110,-0.110,0.000,0.000,0.000
1643266370067501056,2022-01-27-06:52:50,10.1.1.4,26,-0.100,-0.100,-0.100,0.000,0.000,0.000
1643266370278183936,2022-01-27-06:52:50,10.1.1.4,36,-0.089,-0.089,-0.089,0.000,0.000,0.000
1643266370477433856,2022-01-27-06:52:50,10.1.1.4,34,-0.079,-0.079,-0.079,0.000,0.000,0.000
1643266370666899968,2022-01-27-06:52:50,10.1.1.4,22,-0.070,-0.070,-0.070,0.000,0.000,0.000
1643266370867517952,2022-01-27-06:52:50,10.1.1.4,22,-0.060,-0.060,-0.060,0.000,0.000,0.000
1643266371068224000,2022-01-27-06:52:51,10.1.1.4,22,-0.050,-0.050,-0.050,0.000,0.000,0.000
1643266371287955968,2022-01-27-06:52:51,10.1.1.4,41,-0.039,-0.039,-0.039,0.000,0.000,0.000
1643266371467725056,2022-01-27-06:52:51,10.1.1.4,20,-0.030,-0.030,-0.030,0.000,0.000,0.000
1643266371687788032,2022-01-27-06:52:51,10.1.1.4,39,-0.019,-0.019,-0.019,0.000,0.000,0.000
1643266371867083008,2022-01-27-06:52:51,10.1.1.4,18,-0.010,-0.010,-0.010,0.000,0.000,0.000
1643266372097132800,2022-01-27-06:52:52,10.1.1.4,47,-0.002,-0.002,-0.002,0.000,0.000,0.000
1643266372277053952,2022-01-27-06:52:52,10.1.1.4,27,-0.010,-0.010,-0.010,0.000,0.000,0.000
1643266372497047040,2022-01-27-06:52:52,10.1.1.4,46,-0.021,-0.021,-0.021,0.000,0.000,0.000
1643266372677478144,2022-01-27-06:52:52,10.1.1.4,25,-0.030,-0.030,-0.030,0.000,0.000,0.000
1643266372877753088,2022-01-27-06:52:52,10.1.1.4,24,-0.040,-0.040,-0.040,0.000,0.000,0.000
1643266373076699904,2022-01-27-06:52:53,10.1.1.4,22,-0.050,-0.050,-0.050,0.000,0.000,0.000
1643266373276976128,2022-01-27-06:52:53,10.1.1.4,22,-0.060,-0.060,-0.060,0.000,0.000,0.000
1643266373497179136,2022-01-27-06:52:53,10.1.1.4,41,-0.071,-0.071,-0.071,0.000,0.000,0.000
1643266373699922944,2022-01-27-06:52:53,10.1.1.4,43,-0.081,-0.081,-0.081,0.000,0.000,0.000
1643266373886838016,2022-01-27-06:52:53,10.1.1.4,29,-0.090,-0.090,-0.090,0.000,0.000,0.000
1643266374097529856,2022-01-27-06:52:54,10.1.1.4,38,-0.101,-0.101,-0.101,0.000,0.000,0.000
1643266374296911872,2022-01-27-06:52:54,10.1.1.4,37,-0.111,-0.111,-0.111,0.000,0.000,0.000
1643266374488270080,2022-01-27-06:52:54,10.1.1.4,28,-0.121,-0.121,-0.121,0.000,0.000,0.000
1643266374687879936,2022-01-27-06:52:54,10.1.1.4,26,-0.130,-0.130,-0.130,0.000,0.000,0.000
1643266374888622080,2022-01-27-06:52:54,10.1.1.4,25,-0.140,-0.140,-0.140,0.000,0.000,0.000
1643266375087502848,2022-01-27-06:52:55,10.1.1.4,24,-0.150,-0.150,-0.150,0.000,0.000,0.000
1643266375286838016,2022-01-27-06:52:55,10.1.1.4,22,-0.160,-0.160,-0.160,0.000,0.000,0.000
1643266375497302016,2022-01-27-06:52:55,10.1.1.4,32,-0.171,-0.171,-0.171,0.000,0.000,0.000
1643266375720182016,2022-01-27-06:52:55,10.1.1.4,54,-0.182,-0.182,-0.182,0.000,0.000,0.000
1643266375888956160,2022-01-27-06:52:55,10.1.1.4,21,-0.190,-0.190,-0.190,0.000,0.000,0.000
1643266376088426240,2022-01-27-06:52:56,10.1.1.4,20,-0.200,-0.200,-0.200,0.000,0.000,0.000
1643266376287034880,2022-01-27-06:52:56,10.1.1.4,18,-0.210,-0.210,-0.210,0.000,0.000,0.000
1643266376486952960,2022-01-27-06:52:56,10.1.1.4,17,-0.220,-0.220,-0.220,0.000,0.000,0.000
1643266376710210048,2022-01-27-06:52:56,10.1.1.4,37,-0.231,-0.231,-0.231,0.000,0.000,0.000
1643266376907802112,2022-01-27-06:52:56,10.1.1.4,32,-0.241,-0.241,-0.241,0.000,0.000,0.000
1643266377107444992,2022-01-27-06:52:57,10.1.1.4,30,-0.251,-0.251,-0.251,0.000,0.000,0.000
1643266377307149824,2022-01-27-06:52:57,10.1.1.4,29,-0.260,-0.260,-0.260,0.000,0.000,0.000
1643266377508157952,2022-01-27-06:52:57,10.1.1.4,28,-0.271,-0.271,-0.271,0.000,0.000,0.000
1643266377709137920,2022-01-27-06:52:57,10.1.1.4,27,-0.280,-0.280,-0.280,0.000,0.000,0.000
1643266377916907008,2022-01-27-06:52:57,10.1.1.4,34,-0.291,-0.291,-0.291,0.000,0.000,0.000
1643266378108593920,2022-01-27-06:52:58,10.1.1.4,22,-0.300,-0.300,-0.300,0.000,0.000,0.000
1643266378329070080,2022-01-27-06:52:58,10.1.1.4,42,-0.311,-0.311,-0.311,0.000,0.000,0.000
1643266378527493120,2022-01-27-06:52:58,10.1.1.4,39,-0.321,-0.321,-0.321,0.000,0.000,0.000
1643266378717148928,2022-01-27-06:52:58,10.1.1.4,27,-0.331,-0.331,-0.331,0.000,0.000,0.000
1643266378906586880,2022-01-27-06:52:58,10.1.1.4,16,-0.340,-0.340,-0.340,0.000,0.000,0.000
1643266379127592960,2022-01-27-06:52:59,10.1.1.4,31,-0.351,-0.351,-0.351,0.000,0.000,0.000
1643266379327870976,2022-01-27-06:52:59,10.1.1.4,29,-0.361,-0.361,-0.361,0.000,0.000,0.000
1643266379527639040,2022-01-27-06:52:59,10.1.1.4,27,-0.370,-0.370,-0.370,0.000,0.000,0.000
1643266379727756032,2022-01-27-06:52:59,10.1.1.4,27,-0.380,-0.380,-0.380,0.000,0.000,0.000
1643266379937992192,2022-01-27-06:52:59,10.1.1.4,36,-0.391,-0.391,-0.391,0.000,0.000,0.000
1643266380127404032,2022-01-27-06:53:00,10.1.1.4,25,-0.400,-0.400,-0.400,0.000,0.000,0.000
1643266380327579136,2022-01-27-06:53:00,10.1.1.4,24,-0.410,-0.410,-0.410,0.000,0.000,0.000
1643266380527857152,2022-01-27-06:53:00,10.1.1.4,23,-0.420,-0.420,-0.420,0.000,0.000,0.000
1643266380737307136,2022-01-27-06:53:00,10.1.1.4,32,-0.431,-0.431,-0.431,0.000,0.000,0.000
1643266380937484032,2022-01-27-06:53:00,10.1.1.4,31,-0.440,-0.440,-0.440,0.000,0.000,0.000
1643266381147979008,2022-01-27-06:53:01,10.1.1.4,40,-0.451,-0.451,-0.451,0.000,0.000,0.000
1643266381338395136,2022-01-27-06:53:01,10.1.1.4,28,-0.460,-0.460,-0.460,0.000,0.000,0.000
1643266381548148992,2022-01-27-06:53:01,10.1.1.4,38,-0.471,-0.471,-0.471,0.000,0.000,0.000
1643266381747493120,2022-01-27-06:53:01,10.1.1.4,35,-0.481,-0.481,-0.481,0.000,0.000,0.000
1643266381958286080,2022-01-27-06:53:01,10.1.1.4,44,-0.489,-0.489,-0.489,0.000,0.000,0.000
1643266382147950848,2022-01-27-06:53:02,10.1.1.4,32,-0.479,-0.479,-0.479,0.000,0.000,0.000
1643266382347912192,2022-01-27-06:53:02,10.1.1.4,32,-0.469,-0.469,-0.469,0.000,0.000,0.000
1643266382547331072,2022-01-27-06:53:02,10.1.1.4,30,-0.459,-0.459,-0.459,0.000,0.000,0.000
1643266382747380992,2022-01-27-06:53:02,10.1.1.4,29,-0.449,-0.449,-0.449,0.000,0.000,0.000
1643266382956836864,2022-01-27-06:53:02,10.1.1.4,37,-0.439,-0.439,-0.439,0.000,0.000,0.000
1643266383156867072,2022-01-27-06:53:03,10.1.1.4,36,-0.429,-0.429,-0.429,0.000,0.000,0.000
1643266383347599872,2022-01-27-06:53:03,10.1.1.4,26,-0.420,-0.420,-0.420,0.000,0.000,0.000
1643266383557648896,2022-01-27-06:53:03,10.1.1.4,36,-0.409,-0.409,-0.409,0.000,0.000,0.000
1643266383747577856,2022-01-27-06:53:03,10.1.1.4,25,-0.400,-0.400,-0.400,0.000,0.000,0.000
1643266383947523072,2022-01-27-06:53:03,10.1.1.4,24,-0.390,-0.390,-0.390,0.000,0.000,0.000
1643266384147974912,2022-01-27-06:53:04,10.1.1.4,24,-0.380,-0.380,-0.380,0.000,0.000,0.000
1643266384351352064,2022-01-27-06:53:04,10.1.1.4,24,-0.370,-0.370,-0.370,0.000,0.000,0.000
1643266384547805184,2022-01-27-06:53:04,10.1.1.4,19,-0.360,-0.360,-0.360,0.000,0.000,0.000
1643266384775845120,2022-01-27-06:53:04,10.1.1.4,47,-0.349,-0.349,-0.349,0.000,0.000,0.000
1643266384950637056,2022-01-27-06:53:04,10.1.1.4,19,-0.340,-0.340,-0.340,0.000,0.000,0.000
1643266385166969088,2022-01-27-06:53:05,10.1.1.4,32,-0.329,-0.329,-0.329,0.000,0.000,0.000
1643266385377378048,2022-01-27-06:53:05,10.1.1.4,40,-0.319,-0.319,-0.319,0.000,0.000,0.000
1643266385568265984,2022-01-27-06:53:05,10.1.1.4,29,-0.309,-0.309,-0.309,0.000,0.000,0.000
1643266385773049088,2022-01-27-06:53:05,10.1.1.4,32,-0.300,-0.300,-0.300,0.000,0.000,0.000
1643266385976670976,2022-01-27-06:53:05,10.1.1.4,35,-0.290,-0.290,-0.290,0.000,0.000,0.000
1643266386168386816,2022-01-27-06:53:06,10.1.1.4,26,-0.280,-0.280,-0.280,0.000,0.000,0.000
1643266386366921984,2022-01-27-06:53:06,10.1.1.4,24,-0.270,-0.270,-0.270,0.000,0.000,0.000
1643266386566679040,2022-01-27-06:53:06,10.1.1.4,23,-0.260,-0.260,-0.260,0.000,0.000,0.000
1643266386766434048,2022-01-27-06:53:06,10.1.1.4,22,-0.250,-0.250,-0.250,0.000,0.000,0.000
1643266386987517952,2022-01-27-06:53:06,10.1.1.4,42,-0.239,-0.239,-0.239,0.000,0.000,0.000
1643266387166896128,2022-01-27-06:53:07,10.1.1.4,20,-0.230,-0.230,-0.230,0.000,0.000,0.000
1643266387367590912,2022-01-27-06:53:07,10.1.1.4,20,-0.220,-0.220,-0.220,0.000,0.000,0.000
1643266387597004032,2022-01-27-06:53:07,10.1.1.4,49,-0.208,-0.208,-0.208,0.000,0.000,0.000
1643266387767564032,2022-01-27-06:53:07,10.1.1.4,19,-0.200,-0.200,-0.200,0.000,0.000,0.000
1643266387996625920,2022-01-27-06:53:07,10.1.1.4,45,-0.189,-0.189,-0.189,0.000,0.000,0.000
1643266388197166848,2022-01-27-06:53:08,10.1.1.4,39,-0.179,-0.179,-0.179,0.000,0.000,0.000
1643266388388732928,2022-01-27-06:53:08,10.1.1.4,30,-0.170,-0.170,-0.170,0.000,0.000,0.000
1643266388587929856,2022-01-27-06:53:08,10.1.1.4,24,-0.160,-0.160,-0.160,0.000,0.000,0.000
1643266388817213184,2022-01-27-06:53:08,10.1.1.4,52,-0.148,-0.148,-0.148,0.000,0.000,0.000
1643266389007405056,2022-01-27-06:53:09,10.1.1.4,41,-0.139,-0.139,-0.139,0.000,0.000,0.000
1643266389187700992,2022-01-27-06:53:09,10.1.1.4,20,-0.130,-0.130,-0.130,0.000,0.000,0.000
1643266389387723008,2022-01-27-06:53:09,10.1.1.4,20,-0.120,-0.120,-0.120,0.000,0.000,0.000
1643266389587938048,2022-01-27-06:53:09,10.1.1.4,19,-0.110,-0.110,-0.110,0.000,0.000,0.000
1643266389787813888,2022-01-27-06:53:09,10.1.1.4,18,-0.100,-0.100,-0.100,0.000,0.000,0.000
1643266389988878848,2022-01-27-06:53:09,10.1.1.4,15,-0.090,-0.090,-0.090,0.000,0.000,0.000
1643266390216804096,2022-01-27-06:53:10,10.1.1.4,41,-0.079,-0.079,-0.079,0.000,0.000,0.000
1643266390417143040,2022-01-27-06:53:10,10.1.1.4,40,-0.069,-0.069,-0.069,0.000,0.000,0.000
1643266390606738944,2022-01-27-06:53:10,10.1.1.4,29,-0.059,-0.059,-0.059,0.000,0.000,0.000
1643266390806700032,2022-01-27-06:53:10,10.1.1.4,27,-0.049,-0.049,-0.049,0.000,0.000,0.000
1643266391006469888,2022-01-27-06:53:11,10.1.1.4,27,-0.040,-0.040,-0.040,0.000,0.000,0.000
1643266391206078976,2022-01-27-06:53:11,10.1.1.4,25,-0.029,-0.029,-0.029,0.000,0.000,0.000
1643266391416467968,2022-01-27-06:53:11,10.1.1.4,35,-0.019,-0.019,-0.019,0.000,0.000,0.000
1643266391607389952,2022-01-27-06:53:11,10.1.1.4,26,-0.010,-0.010,-0.010,0.000,0.000,0.000
1643266391796570112,2022-01-27-06:53:11,10.1.1.4,13,-0.000,-0.000,-0.000,0.000,0.000,0.000
1643266392006264832,2022-01-27-06:53:12,10.1.1.4,22,-0.010,-0.010,-0.010,0.000,0.000,0.000
1643266392226650112,2022-01-27-06:53:12,10.1.1.4,41,-0.021,-0.021,-0.021,0.000,0.000,0.000
1643266392416553984,2022-01-27-06:53:12,10.1.1.4,29,-0.031,-0.031,-0.031,0.000,0.000,0.000
1643266392627852032,2022-01-27-06:53:12,10.1.1.4,39,-0.041,-0.041,-0.041,0.000,0.000,0.000
1643266392808772096,2022-01-27-06:53:12,10.1.1.4,19,-0.050,-0.050,-0.050,0.000,0.000,0.000
1643266393026171904,2022-01-27-06:53:13,10.1.1.4,36,-0.061,-0.061,-0.061,0.000,0.000,0.000
1643266393210217984,2022-01-27-06:53:13,10.1.1.4,18,-0.070,-0.070,-0.070,0.000,0.000,0.000
1643266393426836992,2022-01-27-06:53:13,10.1.1.4,34,-0.081,-0.081,-0.081,0.000,0.000,0.000
1643266393627036160,2022-01-27-06:53:13,10.1.1.4,33,-0.091,-0.091,-0.091,0.000,0.000,0.000
1643266393816893952,2022-01-27-06:53:13,10.1.1.4,22,-0.100,-0.100,-0.100,0.000,0.000,0.000
1643266394026691840,2022-01-27-06:53:14,10.1.1.4,30,-0.111,-0.111,-0.111,0.000,0.000,0.000
1643266394227806208,2022-01-27-06:53:14,10.1.1.4,31,-0.121,-0.121,-0.121,0.000,0.000,0.000
1643266394427095808,2022-01-27-06:53:14,10.1.1.4,28,-0.130,-0.130,-0.130,0.000,0.000,0.000
1643266394636985088,2022-01-27-06:53:14,10.1.1.4,37,-0.141,-0.141,-0.141,0.000,0.000,0.000
1643266394836904960,2022-01-27-06:53:14,10.1.1.4,36,-0.151,-0.151,-0.151,0.000,0.000,0.000
1643266395037085952,2022-01-27-06:53:15,10.1.1.4,34,-0.161,-0.161,-0.161,0.000,0.000,0.000
1643266395226949888,2022-01-27-06:53:15,10.1.1.4,23,-0.170,-0.170,-0.170,0.000,0.000,0.000
1643266395429192960,2022-01-27-06:53:15,10.1.1.4,24,-0.180,-0.180,-0.180,0.000,0.000,0.000
1643266395627852800,2022-01-27-06:53:15,10.1.1.4,21,-0.190,-0.190,-0.190,0.000,0.000,0.000
1643266395827435008,2022-01-27-06:53:15,10.1.1.4,18,-0.200,-0.200,-0.200,0.000,0.000,0.000
1643266396047928064,2022-01-27-06:53:16,10.1.1.4,36,-0.211,-0.211,-0.211,0.000,0.000,0.000
1643266396238428160,2022-01-27-06:53:16,10.1.1.4,25,-0.220,-0.220,-0.220,0.000,0.000,0.000
1643266396448673024,2022-01-27-06:53:16,10.1.1.4,31,-0.230,-0.230,-0.230,0.000,0.000,0.000
1643266396647921920,2022-01-27-06:53:16,10.1.1.4,28,-0.241,-0.241,-0.241,0.000,0.000,0.000
1643266396857021952,2022-01-27-06:53:16,10.1.1.4,37,-0.251,-0.251,-0.251,0.000,0.000,0.000
1643266397057104128,2022-01-27-06:53:17,10.1.1.4,35,-0.261,-0.261,-0.261,0.000,0.000,0.000
1643266397247612928,2022-01-27-06:53:17,10.1.1.4,25,-0.270,-0.270,-0.270,0.000,0.000,0.000
1643266397446782976,2022-01-27-06:53:17,10.1.1.4,23,-0.280,-0.280,-0.280,0.000,0.000,0.000
1643266397669234944,2022-01-27-06:53:17,10.1.1.4,44,-0.291,-0.291,-0.291,0.000,0.000,0.000
1643266397868503040,2022-01-27-06:53:17,10.1.1.4,42,-0.301,-0.301,-0.301,0.000,0.000,0.000
1643266398067491072,2022-01-27-06:53:18,10.1.1.4,40,-0.311,-0.311,-0.311,0.000,0.000,0.000
1643266398247970048,2022-01-27-06:53:18,10.1.1.4,18,-0.320,-0.320,-0.320,0.000,0.000,0.000
1643266398457392896,2022-01-27-06:53:18,10.1.1.4,27,-0.330,-0.330,-0.330,0.000,0.000,0.000
1643266398657545216,2022-01-27-06:53:18,10.1.1.4,25,-0.340,-0.340,-0.340,0.000,0.000,0.000
1643266398867307776,2022-01-27-06:53:18,10.1.1.4,32,-0.351,-0.351,-0.351,0.000,0.000,0.000
1643266399070315008,2022-01-27-06:53:19,10.1.1.4,33,-0.361,-0.361,-0.361,0.000,0.000,0.000
1643266399257297920,2022-01-27-06:53:19,10.1.1.4,19,-0.370,-0.370,-0.370,0.000,0.000,0.000
1643266399477618944,2022-01-27-06:53:19,10.1.1.4,38,-0.381,-0.381,-0.381,0.000,0.000,0.000
1643266399677401088,2022-01-27-06:53:19,10.1.1.4,34,-0.391,-0.391,-0.391,0.000,0.000,0.000
1643266399879174912,2022-01-27-06:53:19,10.1.1.4,35,-0.401,-0.401,-0.401,0.000,0.000,0.000
1643266400067795968,2022-01-27-06:53:20,10.1.1.4,22,-0.410,-0.410,-0.410,0.000,0.000,0.000
1643266400277022976,2022-01-27-06:53:20,10.1.1.4,27,-0.421,-0.421,-0.421,0.000,0.000,0.000
1643266400488208128,2022-01-27-06:53:20,10.1.1.4,37,-0.431,-0.431,-0.431,0.000,0.000,0.000
1643266400686571008,2022-01-27-06:53:20,10.1.1.4,33,-0.441,-0.441,-0.441,0.000,0.000,0.000
1643266400877060864,2022-01-27-06:53:20,10.1.1.4,23,-0.450,-0.450,-0.450,0.000,0.000,0.000
1643266401087963136,2022-01-27-06:53:21,10.1.1.4,30,-0.461,-0.461,-0.461,0.000,0.000,0.000
1643266401297014016,2022-01-27-06:53:21,10.1.1.4,38,-0.471,-0.471,-0.471,0.000,0.000,0.000
1643266401487374080,2022-01-27-06:53:21,10.1.1.4,27,-0.481,-0.481,-0.481,0.000,0.000,0.000
1643266401668582912,2022-01-27-06:53:21,10.1.1.4,7,-0.490,-0.490,-0.490,0.000,0.000,0.000
1643266401887526144,2022-01-27-06:53:21,10.1.1.4,25,-0.480,-0.480,-0.480,0.000,0.000,0.000
1643266402088449024,2022-01-27-06:53:22,10.1.1.4,24,-0.470,-0.470,-0.470,0.000,0.000,0.000
1643266402306916864,2022-01-27-06:53:22,10.1.1.4,40,-0.459,-0.459,-0.459,0.000,0.000,0.000
1643266402487660800,2022-01-27-06:53:22,10.1.1.4,19,-0.450,-0.450,-0.450,0.000,0.000,0.000
1643266402697936896,2022-01-27-06:53:22,10.1.1.4,27,-0.440,-0.440,-0.440,0.000,0.000,0.000
1643266402908196864,2022-01-27-06:53:22,10.1.1.4,36,-0.429,-0.429,-0.429,0.000,0.000,0.000
1643266403106961920,2022-01-27-06:53:23,10.1.1.4,33,-0.419,-0.419,-0.419,0.000,0.000,0.000
1643266403316680960,2022-01-27-06:53:23,10.1.1.4,41,-0.409,-0.409,-0.409,0.000,0.000,0.000
1643266403517829888,2022-01-27-06:53:23,10.1.1.4,41,-0.399,-0.399,-0.399,0.000,0.000,0.000
1643266403707542016,2022-01-27-06:53:23,10.1.1.4,30,-0.389,-0.389,-0.389,0.000,0.000,0.000
1643266403909095168,2022-01-27-06:53:23,10.1.1.4,30,-0.380,-0.380,-0.380,0.000,0.000,0.000
1643266404108441088,2022-01-27-06:53:24,10.1.1.4,28,-0.370,-0.370,-0.370,0.000,0.000,0.000
1643266404318230016,2022-01-27-06:53:24,10.1.1.4,36,-0.359,-0.359,-0.359,0.000,0.000,0.000
1643266404518168064,2022-01-27-06:53:24,10.1.1.4,34,-0.349,-0.349,-0.349,0.000,0.000,0.000
1643266404707828992,2022-01-27-06:53:24,10.1.1.4,23,-0.340,-0.340,-0.340,0.000,0.000,0.000
1643266404908776960,2022-01-27-06:53:24,10.1.1.4,22,-0.330,-0.330,-0.330,0.000,0.000,0.000
1643266405128325888,2022-01-27-06:53:25,10.1.1.4,40,-0.319,-0.319,-0.319,0.000,0.000,0.000
1643266405328311808,2022-01-27-06:53:25,10.1.1.4,39,-0.309,-0.309,-0.309,0.000,0.000,0.000
1643266405528145152,2022-01-27-06:53:25,10.1.1.4,37,-0.299,-0.299,-0.299,0.000,0.000,0.000
1643266405738138880,2022-01-27-06:53:25,10.1.1.4,44,-0.289,-0.289,-0.289,0.000,0.000,0.000
1643266405918045952,2022-01-27-06:53:25,10.1.1.4,23,-0.280,-0.280,-0.280,0.000,0.000,0.000
1643266406128312064,2022-01-27-06:53:26,10.1.1.4,32,-0.269,-0.269,-0.269,0.000,0.000,0.000
1643266406337833984,2022-01-27-06:53:26,10.1.1.4,40,-0.259,-0.259,-0.259,0.000,0.000,0.000
1643266406517787904,2022-01-27-06:53:26,10.1.1.4,17,-0.250,-0.250,-0.250,0.000,0.000,0.000
1643266406727198976,2022-01-27-06:53:26,10.1.1.4,26,-0.240,-0.240,-0.240,0.000,0.000,0.000
1643266406937460992,2022-01-27-06:53:26,10.1.1.4,35,-0.229,-0.229,-0.229,0.000,0.000,0.000
1643266407127439104,2022-01-27-06:53:27,10.1.1.4,24,-0.220,-0.220,-0.220,0.000,0.000,0.000
1643266407337532160,2022-01-27-06:53:27,10.1.1.4,33,-0.209,-0.209,-0.209,0.000,0.000,0.000
1643266407547666176,2022-01-27-06:53:27,10.1.1.4,42,-0.199,-0.199,-0.199,0.000,0.000,0.000
1643266407728256000,2022-01-27-06:53:27,10.1.1.4,21,-0.190,-0.190,-0.190,0.000,0.000,0.000
1643266407957349888,2022-01-27-06:53:27,10.1.1.4,49,-0.178,-0.178,-0.178,0.000,0.000,0.000
1643266408136941056,2022-01-27-06:53:28,10.1.1.4,28,-0.169,-0.169,-0.169,0.000,0.000,0.000
1643266408347513088,2022-01-27-06:53:28,10.1.1.4,38,-0.159,-0.159,-0.159,0.000,0.000,0.000
1643266408537179904,2022-01-27-06:53:28,10.1.1.4,26,-0.150,-0.150,-0.150,0.000,0.000,0.000
1643266408750057984,2022-01-27-06:53:28,10.1.1.4,37,-0.139,-0.139,-0.139,0.000,0.000,0.000
1643266408937314048,2022-01-27-06:53:28,10.1.1.4,23,-0.130,-0.130,-0.130,0.000,0.000,0.000
1643266409157489920,2022-01-27-06:53:29,10.1.1.4,42,-0.119,-0.119,-0.119,0.000,0.000,0.000
1643266409336715008,2022-01-27-06:53:29,10.1.1.4,21,-0.110,-0.110,-0.110,0.000,0.000,0.000
1643266409547628032,2022-01-27-06:53:29,10.1.1.4,29,-0.099,-0.099,-0.099,0.000,0.000,0.000
1643266409747723008,2022-01-27-06:53:29,10.1.1.4,28,-0.089,-0.089,-0.089,0.000,0.000,0.000
1643266409947329024,2022-01-27-06:53:29,10.1.1.4,26,-0.080,-0.080,-0.080,0.000,0.000,0.000
1643266410156781056,2022-01-27-06:53:30,10.1.1.4,34,-0.069,-0.069,-0.069,0.000,0.000,0.000
1643266410346537216,2022-01-27-06:53:30,10.1.1.4,22,-0.060,-0.060,-0.060,0.000,0.000,0.000
1643266410556979968,2022-01-27-06:53:30,10.1.1.4,32,-0.049,-0.049,-0.049,0.000,0.000,0.000
1643266410757070080,2022-01-27-06:53:30,10.1.1.4,31,-0.039,-0.039,-0.039,0.000,0.000,0.000
1643266410957039104,2022-01-27-06:53:30,10.1.1.4,29,-0.030,-0.030,-0.030,0.000,0.000,0.000
1643266411146962944,2022-01-27-06:53:31,10.1.1.4,18,-0.020,-0.020,-0.020,0.000,0.000,0.000
1643266411377252096,2022-01-27-06:53:31,10.1.1.4,47,-0.009,-0.009,-0.009,0.000,0.000,0.000
1643266411559048960,2022-01-27-06:53:31,10.1.1.4,28,-0.000,-0.000,-0.000,0.000,0.000,0.000
1643266411767281920,2022-01-27-06:53:31,10.1.1.4,35,-0.011,-0.011,-0.011,0.000,0.000,0.000
1643266411967042816,2022-01-27-06:53:31,10.1.1.4,34,-0.021,-0.021,-0.021,0.000,0.000,0.000
1643266412168574976,2022-01-27-06:53:32,10.1.1.4,34,-0.031,-0.031,-0.031,0.000,0.000,0.000
1643266412376983040,2022-01-27-06:53:32,10.1.1.4,41,-0.041,-0.041,-0.041,0.000,0.000,0.000
1643266412567992832,2022-01-27-06:53:32,10.1.1.4,30,-0.051,-0.051,-0.051,0.000,0.000,0.000
1643266412767944192,2022-01-27-06:53:32,10.1.1.4,29,-0.061,-0.061,-0.061,0.000,0.000,0.000
1643266412967264768,2022-01-27-06:53:32,10.1.1.4,27,-0.071,-0.071,-0.071,0.000,0.000,0.000
1643266413168108032,2022-01-27-06:53:33,10.1.1.4,24,-0.080,-0.080,-0.080,0.000,0.000,0.000
1643266413366735104,2022-01-27-06:53:33,10.1.1.4,22,-0.090,-0.090,-0.090,0.000,0.000,0.000
1643266413567326976,2022-01-27-06:53:33,10.1.1.4,21,-0.100,-0.100,-0.100,0.000,0.000,0.000
1643266413768486912,2022-01-27-06:53:33,10.1.1.4,21,-0.110,-0.110,-0.110,0.000,0.000,0.000
1643266413967725056,2022-01-27-06:53:33,10.1.1.4,18,-0.120,-0.120,-0.120,0.000,0.000,0.000
1643266414197400064,2022-01-27-06:53:34,10.1.1.4,47,-0.131,-0.131,-0.131,0.000,0.000,0.000
1643266414388628992,2022-01-27-06:53:34,10.1.1.4,37,-0.141,-0.141,-0.141,0.000,0.000,0.000
1643266414597835008,2022-01-27-06:53:34,10.1.1.4,43,-0.151,-0.151,-0.151,0.000,0.000,0.000
1643266414788382976,2022-01-27-06:53:34,10.1.1.4,32,-0.161,-0.161,-0.161,0.000,0.000,0.000
1643266414990249984,2022-01-27-06:53:34,10.1.1.4,32,-0.171,-0.171,-0.171,0.000,0.000,0.000
1643266415188632064,2022-01-27-06:53:35,10.1.1.4,30,-0.180,-0.180,-0.180,0.000,0.000,0.000
1643266415388741120,2022-01-27-06:53:35,10.1.1.4,28,-0.190,-0.190,-0.190,0.000,0.000,0.000
1643266415588259072,2022-01-27-06:53:35,10.1.1.4,26,-0.200,-0.200,-0.200,0.000,0.000,0.000
1643266415798120960,2022-01-27-06:53:35,10.1.1.4,35,-0.211,-0.211,-0.211,0.000,0.000,0.000
1643266416007599104,2022-01-27-06:53:36,10.1.1.4,43,-0.221,-0.221,-0.221,0.000,0.000,0.000
1643266416194618112,2022-01-27-06:53:36,10.1.1.4,24,-0.230,-0.230,-0.230,0.000,0.000,0.000
1643266416420100864,2022-01-27-06:53:36,10.1.1.4,52,-0.242,-0.242,-0.242,0.000,0.000,0.000
1643266416608093952,2022-01-27-06:53:36,10.1.1.4,38,-0.251,-0.251,-0.251,0.000,0.000,0.000
1643266416817481984,2022-01-27-06:53:36,10.1.1.4,47,-0.261,-0.261,-0.261,0.000,0.000,0.000
1643266417009466880,2022-01-27-06:53:37,10.1.1.4,38,-0.271,-0.271,-0.271,0.000,0.000,0.000
1643266417207271936,2022-01-27-06:53:37,10.1.1.4,34,-0.281,-0.281,-0.281,0.000,0.000,0.000
1643266417420980992,2022-01-27-06:53:37,10.1.1.4,46,-0.291,-0.291,-0.291,0.000,0.000,0.000
1643266417608242944,2022-01-27-06:53:37,10.1.1.4,32,-0.301,-0.301,-0.301,0.000,0.000,0.000
1643266417809214976,2022-01-27-06:53:37,10.1.1.4,32,-0.311,-0.311,-0.311,0.000,0.000,0.000
1643266418008691200,2022-01-27-06:53:38,10.1.1.4,31,-0.321,-0.321,-0.321,0.000,0.000,0.000
1643266418218449152,2022-01-27-06:53:38,10.1.1.4,39,-0.331,-0.331,-0.331,0.000,0.000,0.000
1643266418407695104,2022-01-27-06:53:38,10.1.1.4,27,-0.340,-0.340,-0.340,0.000,0.000,0.000
1643266418608231936,2022-01-27-06:53:38,10.1.1.4,27,-0.350,-0.350,-0.350,0.000,0.000,0.000
1643266418809711104,2022-01-27-06:53:38,10.1.1.4,27,-0.360,-0.360,-0.360,0.000,0.000,0.000
1643266419007941120,2022-01-27-06:53:39,10.1.1.4,24,-0.370,-0.370,-0.370,0.000,0.000,0.000
1643266419210733824,2022-01-27-06:53:39,10.1.1.4,24,-0.380,-0.380,-0.380,0.000,0.000,0.000
1643266419417853184,2022-01-27-06:53:39,10.1.1.4,29,-0.390,-0.390,-0.390,0.000,0.000,0.000
1643266419628027904,2022-01-27-06:53:39,10.1.1.4,35,-0.401,-0.401,-0.401,0.000,0.000,0.000
1643266419828116992,2022-01-27-06:53:39,10.1.1.4,34,-0.411,-0.411,-0.411,0.000,0.000,0.000
1643266420029033984,2022-01-27-06:53:40,10.1.1.4,31,-0.421,-0.421,-0.421,0.000,0.000,0.000
1643266420229666048,2022-01-27-06:53:40,10.1.1.4,28,-0.430,-0.430,-0.430,0.000,0.000,0.000
1643266420427962112,2022-01-27-06:53:40,10.1.1.4,26,-0.440,-0.440,-0.440,0.000,0.000,0.000
1643266420628410112,2022-01-27-06:53:40,10.1.1.4,26,-0.450,-0.450,-0.450,0.000,0.000,0.000
1643266420838723072,2022-01-27-06:53:40,10.1.1.4,34,-0.461,-0.461,-0.461,0.000,0.000,0.000
1643266421028193024,2022-01-27-06:53:41,10.1.1.4,23,-0.470,-0.470,-0.470,0.000,0.000,0.000
1643266421249313024,2022-01-27-06:53:41,10.1.1.4,43,-0.481,-0.481,-0.481,0.000,0.000,0.000
1643266421447354112,2022-01-27-06:53:41,10.1.1.4,36,-0.489,-0.489,-0.489,0.000,0.000,0.000
1643266421647706880,2022-01-27-06:53:41,10.1.1.4,29,-0.480,-0.480,-0.480,0.000,0.000,0.000
1643266421857785856,2022-01-27-06:53:41,10.1.1.4,37,-0.469,-0.469,-0.469,0.000,0.000,0.000
1643266422047822080,2022-01-27-06:53:42,10.1.1.4,26,-0.460,-0.460,-0.460,0.000,0.000,0.000
1643266422247580160,2022-01-27-06:53:42,10.1.1.4,25,-0.450,-0.450,-0.450,0.000,0.000,0.000
1643266422467142144,2022-01-27-06:53:42,10.1.1.4,42,-0.439,-0.439,-0.439,0.000,0.000,0.000
1643266422647824896,2022-01-27-06:53:42,10.1.1.4,21,-0.430,-0.430,-0.430,0.000,0.000,0.000
1643266422856844800,2022-01-27-06:53:42,10.1.1.4,28,-0.419,-0.419,-0.419,0.000,0.000,0.000
1643266423067342080,2022-01-27-06:53:43,10.1.1.4,33,-0.409,-0.409,-0.409,0.000,0.000,0.000
1643266423257210112,2022-01-27-06:53:43,10.1.1.4,22,-0.400,-0.400,-0.400,0.000,0.000,0.000
1643266423478832128,2022-01-27-06:53:43,10.1.1.4,40,-0.389,-0.389,-0.389,0.000,0.000,0.000
1643266423657881856,2022-01-27-06:53:43,10.1.1.4,17,-0.380,-0.380,-0.380,0.000,0.000,0.000
1643266423867181056,2022-01-27-06:53:43,10.1.1.4,26,-0.369,-0.369,-0.369,0.000,0.000,0.000
1643266424078072064,2022-01-27-06:53:44,10.1.1.4,35,-0.359,-0.359,-0.359,0.000,0.000,0.000
1643266424267878912,2022-01-27-06:53:44,10.1.1.4,24,-0.350,-0.350,-0.350,0.000,0.000,0.000
1643266424487492096,2022-01-27-06:53:44,10.1.1.4,42,-0.339,-0.339,-0.339,0.000,0.000,0.000
1643266424697618944,2022-01-27-06:53:44,10.1.1.4,51,-0.328,-0.328,-0.328,0.000,0.000,0.000
1643266424867505920,2022-01-27-06:53:44,10.1.1.4,18,-0.320,-0.320,-0.320,0.000,0.000,0.000
1643266425067329792,2022-01-27-06:53:45,10.1.1.4,17,-0.310,-0.310,-0.310,0.000,0.000,0.000
1643266425267128832,2022-01-27-06:53:45,10.1.1.4,16,-0.300,-0.300,-0.300,0.000,0.000,0.000
1643266425496859136,2022-01-27-06:53:45,10.1.1.4,45,-0.289,-0.289,-0.289,0.000,0.000,0.000
1643266425677320960,2022-01-27-06:53:45,10.1.1.4,24,-0.280,-0.280,-0.280,0.000,0.000,0.000
1643266425887136000,2022-01-27-06:53:45,10.1.1.4,33,-0.269,-0.269,-0.269,0.000,0.000,0.000
1643266426087394048,2022-01-27-06:53:46,10.1.1.4,32,-0.259,-0.259,-0.259,0.000,0.000,0.000
1643266426296964864,2022-01-27-06:53:46,10.1.1.4,41,-0.249,-0.249,-0.249,0.000,0.000,0.000
1643266426496995840,2022-01-27-06:53:46,10.1.1.4,40,-0.239,-0.239,-0.239,0.000,0.000,0.000
1643266426688240128,2022-01-27-06:53:46,10.1.1.4,30,-0.229,-0.229,-0.229,0.000,0.000,0.000
1643266426887411200,2022-01-27-06:53:46,10.1.1.4,29,-0.219,-0.219,-0.219,0.000,0.000,0.000
1643266427087863040,2022-01-27-06:53:47,10.1.1.4,28,-0.209,-0.209,-0.209,0.000,0.000,0.000
1643266427287815936,2022-01-27-06:53:47,10.1.1.4,27,-0.199,-0.199,-0.199,0.000,0.000,0.000
1643266427497149952,2022-01-27-06:53:47,10.1.1.4,36,-0.189,-0.189,-0.189,0.000,0.000,0.000
1643266427689019904,2022-01-27-06:53:47,10.1.1.4,26,-0.180,-0.180,-0.180,0.000,0.000,0.000
1643266427888102912,2022-01-27-06:53:47,10.1.1.4,24,-0.170,-0.170,-0.170,0.000,0.000,0.000
1643266428087954944,2022-01-27-06:53:48,10.1.1.4,22,-0.160,-0.160,-0.160,0.000,0.000,0.000
1643266428298043904,2022-01-27-06:53:48,10.1.1.4,30,-0.149,-0.149,-0.149,0.000,0.000,0.000
1643266428487237888,2022-01-27-06:53:48,10.1.1.4,18,-0.140,-0.140,-0.140,0.000,0.000,0.000
1643266428697318912,2022-01-27-06:53:48,10.1.1.4,25,-0.130,-0.130,-0.130,0.000,0.000,0.000
1643266428907598080,2022-01-27-06:53:48,10.1.1.4,34,-0.119,-0.119,-0.119,0.000,0.000,0.000
1643266429096466176,2022-01-27-06:53:49,10.1.1.4,22,-0.110,-0.110,-0.110,0.000,0.000,0.000
1643266429296685824,2022-01-27-06:53:49,10.1.1.4,21,-0.100,-0.100,-0.100,0.000,0.000,0.000
1643266429496818944,2022-01-27-06:53:49,10.1.1.4,21,-0.090,-0.090,-0.090,0.000,0.000,0.000
1643266429699438080,2022-01-27-06:53:49,10.1.1.4,23,-0.080,-0.080,-0.080,0.000,0.000,0.000
1643266429906872064,2022-01-27-06:53:49,10.1.1.4,29,-0.069,-0.069,-0.069,0.000,0.000,0.000
1643266430116769024,2022-01-27-06:53:50,10.1.1.4,38,-0.059,-0.059,-0.059,0.000,0.000,0.000
1643266430306982912,2022-01-27-06:53:50,10.1.1.4,27,-0.049,-0.049,-0.049,0.000,0.000,0.000
1643266430516843008,2022-01-27-06:53:50,10.1.1.4,35,-0.039,-0.039,-0.039,0.000,0.000,0.000
1643266430708960000,2022-01-27-06:53:50,10.1.1.4,26,-0.030,-0.030,-0.030,0.000,0.000,0.000
1643266430917820928,2022-01-27-06:53:50,10.1.1.4,34,-0.019,-0.019,-0.019,0.000,0.000,0.000
1643266431109332992,2022-01-27-06:53:51,10.1.1.4,24,-0.010,-0.010,-0.010,0.000,0.000,0.000
1643266431296540928,2022-01-27-06:53:51,10.1.1.4,2,-0.001,-0.001,-0.001,0.000,0.000,0.000
1643266431527918080,2022-01-27-06:53:51,10.1.1.4,38,-0.011,-0.011,-0.011,0.000,0.000,0.000
1643266431728115200,2022-01-27-06:53:51,10.1.1.4,38,-0.021,-0.021,-0.021,0.000,0.000,0.000
1643266431927969024,2022-01-27-06:53:51,10.1.1.4,37,-0.031,-0.031,-0.031,0.000,0.000,0.000
1643266432127890944,2022-01-27-06:53:52,10.1.1.4,32,-0.041,-0.041,-0.041,0.000,0.000,0.000
1643266432328397056,2022-01-27-06:53:52,10.1.1.4,31,-0.051,-0.051,-0.051,0.000,0.000,0.000
1643266432528968960,2022-01-27-06:53:52,10.1.1.4,31,-0.061,-0.061,-0.061,0.000,0.000,0.000
1643266432721587968,2022-01-27-06:53:52,10.1.1.4,22,-0.070,-0.070,-0.070,0.000,0.000,0.000
1643266432929797888,2022-01-27-06:53:52,10.1.1.4,28,-0.080,-0.080,-0.080,0.000,0.000,0.000
1643266433128904192,2022-01-27-06:53:53,10.1.1.4,26,-0.090,-0.090,-0.090,0.000,0.000,0.000
1643266433328947968,2022-01-27-06:53:53,10.1.1.4,24,-0.100,-0.100,-0.100,0.000,0.000,0.000
1643266433538814976,2022-01-27-06:53:53,10.1.1.4,33,-0.111,-0.111,-0.111,0.000,0.000,0.000
1643266433729398016,2022-01-27-06:53:53,10.1.1.4,22,-0.120,-0.120,-0.120,0.000,0.000,0.000
1643266433948174080,2022-01-27-06:53:53,10.1.1.4,40,-0.131,-0.131,-0.131,0.000,0.000,0.000
1643266434128427008,2022-01-27-06:53:54,10.1.1.4,18,-0.140,-0.140,-0.140,0.000,0.000,0.000
1643266434350172928,2022-01-27-06:53:54,10.1.1.4,38,-0.151,-0.151,-0.151,0.000,0.000,0.000
1643266434557998848,2022-01-27-06:53:54,10.1.1.4,43,-0.161,-0.161,-0.161,0.000,0.000,0.000
1643266434749459968,2022-01-27-06:53:54,10.1.1.4,33,-0.171,-0.171,-0.171,0.000,0.000,0.000
1643266434957617920,2022-01-27-06:53:54,10.1.1.4,35,-0.181,-0.181,-0.181,0.000,0.000,0.000
1643266435147814144,2022-01-27-06:53:55,10.1.1.4,25,-0.190,-0.190,-0.190,0.000,0.000,0.000
1643266435357389824,2022-01-27-06:53:55,10.1.1.4,32,-0.201,-0.201,-0.201,0.000,0.000,0.000
1643266435568207104,2022-01-27-06:53:55,10.1.1.4,41,-0.211,-0.211,-0.211,0.000,0.000,0.000
1643266435770163968,2022-01-27-06:53:55,10.1.1.4,39,-0.221,-0.221,-0.221,0.000,0.000,0.000
1643266435969531136,2022-01-27-06:53:55,10.1.1.4,34,-0.231,-0.231,-0.231,0.000,0.000,0.000
1643266436177318144,2022-01-27-06:53:56,10.1.1.4,41,-0.241,-0.241,-0.241,0.000,0.000,0.000
1643266436369841152,2022-01-27-06:53:56,10.1.1.4,31,-0.251,-0.251,-0.251,0.000,0.000,0.000
1643266436578286848,2022-01-27-06:53:56,10.1.1.4,39,-0.261,-0.261,-0.261,0.000,0.000,0.000
1643266436770291200,2022-01-27-06:53:56,10.1.1.4,29,-0.270,-0.270,-0.270,0.000,0.000,0.000
1643266436967514112,2022-01-27-06:53:56,10.1.1.4,25,-0.280,-0.280,-0.280,0.000,0.000,0.000
1643266437170317056,2022-01-27-06:53:57,10.1.1.4,27,-0.290,-0.290,-0.290,0.000,0.000,0.000
1643266437367624960,2022-01-27-06:53:57,10.1.1.4,23,-0.300,-0.300,-0.300,0.000,0.000,0.000
1643266437577424128,2022-01-27-06:53:57,10.1.1.4,32,-0.311,-0.311,-0.311,0.000,0.000,0.000
1643266437767234048,2022-01-27-06:53:57,10.1.1.4,21,-0.320,-0.320,-0.320,0.000,0.000,0.000
1643266437988492032,2022-01-27-06:53:57,10.1.1.4,41,-0.331,-0.331,-0.331,0.000,0.000,0.000
1643266438177510144,2022-01-27-06:53:58,10.1.1.4,29,-0.340,-0.340,-0.340,0.000,0.000,0.000
1643266438387595008,2022-01-27-06:53:58,10.1.1.4,38,-0.351,-0.351,-0.351,0.000,0.000,0.000
1643266438597731072,2022-01-27-06:53:58,10.1.1.4,48,-0.362,-0.362,-0.362,0.000,0.000,0.000
1643266438788259072,2022-01-27-06:53:58,10.1.1.4,37,-0.371,-0.371,-0.371,0.000,0.000,0.000
1643266438987993856,2022-01-27-06:53:58,10.1.1.4,35,-0.381,-0.381,-0.381,0.000,0.000,0.000
1643266439191097088,2022-01-27-06:53:59,10.1.1.4,34,-0.391,-0.391,-0.391,0.000,0.000,0.000
1643266439390198016,2022-01-27-06:53:59,10.1.1.4,32,-0.401,-0.401,-0.401,0.000,0.000,0.000
1643266439591687936,2022-01-27-06:53:59,10.1.1.4,28,-0.411,-0.411,-0.411,0.000,0.000,0.000
1643266439790148096,2022-01-27-06:53:59,10.1.1.4,28,-0.420,-0.420,-0.420,0.000,0.000,0.000
1643266439990451968,2022-01-27-06:53:59,10.1.1.4,26,-0.430,-0.430,-0.430,0.000,0.000,0.000
1643266440197559040,2022-01-27-06:54:00,10.1.1.4,29,-0.441,-0.441,-0.441,0.000,0.000,0.000
1643266440389559040,2022-01-27-06:54:00,10.1.1.4,20,-0.450,-0.450,-0.450,0.000,0.000,0.000
1643266440591273984,2022-01-27-06:54:00,10.1.1.4,20,-0.460,-0.460,-0.460,0.000,0.000,0.000
1643266440807780864,2022-01-27-06:54:00,10.1.1.4,34,-0.471,-0.471,-0.471,0.000,0.000,0.000
1643266441007361024,2022-01-27-06:54:01,10.1.1.4,33,-0.481,-0.481,-0.481,0.000,0.000,0.000
1643266441187520000,2022-01-27-06:54:01,10.1.1.4,12,-0.490,-0.490,-0.490,0.000,0.000,0.000
1643266441406991872,2022-01-27-06:54:01,10.1.1.4,31,-0.479,-0.479,-0.479,0.000,0.000,0.000
1643266441607076864,2022-01-27-06:54:01,10.1.1.4,31,-0.470,-0.470,-0.470,0.000,0.000,0.000
1643266441807770112,2022-01-27-06:54:01,10.1.1.4,30,-0.460,-0.460,-0.460,0.000,0.000,0.000
1643266442007190016,2022-01-27-06:54:02,10.1.1.4,29,-0.449,-0.449,-0.449,0.000,0.000,0.000
1643266442216646912,2022-01-27-06:54:02,10.1.1.4,38,-0.439,-0.439,-0.439,0.000,0.000,0.000
1643266442397082112,2022-01-27-06:54:02,10.1.1.4,18,-0.430,-0.430,-0.430,0.000,0.000,0.000
1643266442606920960,2022-01-27-06:54:02,10.1.1.4,27,-0.420,-0.420,-0.420,0.000,0.000,0.000
1643266442807388928,2022-01-27-06:54:02,10.1.1.4,27,-0.409,-0.409,-0.409,0.000,0.000,0.000
1643266443007417088,2022-01-27-06:54:03,10.1.1.4,26,-0.400,-0.400,-0.400,0.000,0.000,0.000
1643266443207691008,2022-01-27-06:54:03,10.1.1.4,25,-0.390,-0.390,-0.390,0.000,0.000,0.000
1643266443406932992,2022-01-27-06:54:03,10.1.1.4,24,-0.380,-0.380,-0.380,0.000,0.000,0.000
1643266443608290816,2022-01-27-06:54:03,10.1.1.4,25,-0.370,-0.370,-0.370,0.000,0.000,0.000
1643266443807429120,2022-01-27-06:54:03,10.1.1.4,23,-0.360,-0.360,-0.360,0.000,0.000,0.000
1643266444027499008,2022-01-27-06:54:04,10.1.1.4,42,-0.349,-0.349,-0.349,0.000,0.000,0.000
1643266444217051136,2022-01-27-06:54:04,10.1.1.4,30,-0.339,-0.339,-0.339,0.000,0.000,0.000
1643266444427206912,2022-01-27-06:54:04,10.1.1.4,39,-0.329,-0.329,-0.329,0.000,0.000,0.000
1643266444607030016,2022-01-27-06:54:04,10.1.1.4,18,-0.320,-0.320,-0.320,0.000,0.000,0.000
1643266444807948032,2022-01-27-06:54:04,10.1.1.4,18,-0.310,-0.310,-0.310,0.000,0.000,0.000
1643266445007493120,2022-01-27-06:54:05,10.1.1.4,17,-0.300,-0.300,-0.300,0.000,0.000,0.000
1643266445226920960,2022-01-27-06:54:05,10.1.1.4,35,-0.289,-0.289,-0.289,0.000,0.000,0.000
1643266445437598976,2022-01-27-06:54:05,10.1.1.4,43,-0.279,-0.279,-0.279,0.000,0.000,0.000
1643266445637989120,2022-01-27-06:54:05,10.1.1.4,42,-0.269,-0.269,-0.269,0.000,0.000,0.000
1643266445828020992,2022-01-27-06:54:05,10.1.1.4,32,-0.260,-0.260,-0.260,0.000,0.000,0.000
1643266446028585984,2022-01-27-06:54:06,10.1.1.4,31,-0.249,-0.249,-0.249,0.000,0.000,0.000
1643266446238328832,2022-01-27-06:54:06,10.1.1.4,39,-0.239,-0.239,-0.239,0.000,0.000,0.000
1643266446428462080,2022-01-27-06:54:06,10.1.1.4,27,-0.230,-0.230,-0.230,0.000,0.000,0.000
1643266446638710016,2022-01-27-06:54:06,10.1.1.4,37,-0.219,-0.219,-0.219,0.000,0.000,0.000
1643266446830423040,2022-01-27-06:54:06,10.1.1.4,27,-0.210,-0.210,-0.210,0.000,0.000,0.000
1643266447029186048,2022-01-27-06:54:07,10.1.1.4,24,-0.200,-0.200,-0.200,0.000,0.000,0.000
1643266447247878912,2022-01-27-06:54:07,10.1.1.4,40,-0.189,-0.189,-0.189,0.000,0.000,0.000
1643266447428600064,2022-01-27-06:54:07,10.1.1.4,18,-0.180,-0.180,-0.180,0.000,0.000,0.000
1643266447647772928,2022-01-27-06:54:07,10.1.1.4,36,-0.169,-0.169,-0.169,0.000,0.000,0.000
1643266447847984128,2022-01-27-06:54:07,10.1.1.4,34,-0.159,-0.159,-0.159,0.000,0.000,0.000
1643266448047811072,2022-01-27-06:54:08,10.1.1.4,32,-0.150,-0.150,-0.150,0.000,0.000,0.000
1643266448248781056,2022-01-27-06:54:08,10.1.1.4,31,-0.139,-0.139,-0.139,0.000,0.000,0.000
1643266448448000000,2022-01-27-06:54:08,10.1.1.4,29,-0.130,-0.130,-0.130,0.000,0.000,0.000
1643266448648029184,2022-01-27-06:54:08,10.1.1.4,28,-0.119,-0.119,-0.119,0.000,0.000,0.000
1643266448837846016,2022-01-27-06:54:08,10.1.1.4,15,-0.110,-0.110,-0.110,0.000,0.000,0.000
1643266449048509952,2022-01-27-06:54:09,10.1.1.4,24,-0.100,-0.100,-0.100,0.000,0.000,0.000
1643266449247994880,2022-01-27-06:54:09,10.1.1.4,23,-0.090,-0.090,-0.090,0.000,0.000,0.000
1643266449448555008,2022-01-27-06:54:09,10.1.1.4,20,-0.080,-0.080,-0.080,0.000,0.000,0.000
1643266449658073856,2022-01-27-06:54:09,10.1.1.4,29,-0.070,-0.070,-0.070,0.000,0.000,0.000
1643266449868009984,2022-01-27-06:54:09,10.1.1.4,37,-0.059,-0.059,-0.059,0.000,0.000,0.000
1643266450067491072,2022-01-27-06:54:10,10.1.1.4,34,-0.049,-0.049,-0.049,0.000,0.000,0.000
1643266450269669120,2022-01-27-06:54:10,10.1.1.4,35,-0.039,-0.039,-0.039,0.000,0.000,0.000
1643266450467941120,2022-01-27-06:54:10,10.1.1.4,32,-0.029,-0.029,-0.029,0.000,0.000,0.000
1643266450658415104,2022-01-27-06:54:10,10.1.1.4,21,-0.020,-0.020,-0.020,0.000,0.000,0.000
1643266450857667072,2022-01-27-06:54:10,10.1.1.4,19,-0.010,-0.010,-0.010,0.000,0.000,0.000
1643266451049995008,2022-01-27-06:54:11,10.1.1.4,11,-0.000,-0.000,-0.000,0.000,0.000,0.000
1643266451268802816,2022-01-27-06:54:11,10.1.1.4,28,-0.011,-0.011,-0.011,0.000,0.000,0.000
1643266451468299008,2022-01-27-06:54:11,10.1.1.4,27,-0.020,-0.020,-0.020,0.000,0.000,0.000
1643266451678834944,2022-01-27-06:54:11,10.1.1.4,34,-0.031,-0.031,-0.031,0.000,0.000,0.000
1643266451887943936,2022-01-27-06:54:11,10.1.1.4,42,-0.041,-0.041,-0.041,0.000,0.000,0.000
1643266452068326912,2022-01-27-06:54:12,10.1.1.4,20,-0.050,-0.050,-0.050,0.000,0.000,0.000
1643266452268305152,2022-01-27-06:54:12,10.1.1.4,19,-0.060,-0.060,-0.060,0.000,0.000,0.000
1643266452468452096,2022-01-27-06:54:12,10.1.1.4,18,-0.070,-0.070,-0.070,0.000,0.000,0.000
1643266452667962112,2022-01-27-06:54:12,10.1.1.4,17,-0.080,-0.080,-0.080,0.000,0.000,0.000
1643266452868660992,2022-01-27-06:54:12,10.1.1.4,17,-0.090,-0.090,-0.090,0.000,0.000,0.000
1643266453087879936,2022-01-27-06:54:13,10.1.1.4,35,-0.101,-0.101,-0.101,0.000,0.000,0.000
1643266453287748096,2022-01-27-06:54:13,10.1.1.4,33,-0.111,-0.111,-0.111,0.000,0.000,0.000
1643266453490590976,2022-01-27-06:54:13,10.1.1.4,34,-0.121,-0.121,-0.121,0.000,0.000,0.000
1643266453688349952,2022-01-27-06:54:13,10.1.1.4,31,-0.130,-0.130,-0.130,0.000,0.000,0.000
1643266453888465920,2022-01-27-06:54:13,10.1.1.4,30,-0.141,-0.141,-0.141,0.000,0.000,0.000
1643266454087716096,2022-01-27-06:54:14,10.1.1.4,27,-0.150,-0.150,-0.150,0.000,0.000,0.000
1643266454288163072,2022-01-27-06:54:14,10.1.1.4,26,-0.160,-0.160,-0.160,0.000,0.000,0.000
1643266454488243200,2022-01-27-06:54:14,10.1.1.4,25,-0.170,-0.170,-0.170,0.000,0.000,0.000
1643266454707591936,2022-01-27-06:54:14,10.1.1.4,41,-0.181,-0.181,-0.181,0.000,0.000,0.000
1643266454889369088,2022-01-27-06:54:14,10.1.1.4,22,-0.190,-0.190,-0.190,0.000,0.000,0.000
1643266455108568064,2022-01-27-06:54:15,10.1.1.4,37,-0.201,-0.201,-0.201,0.000,0.000,0.000
1643266455308569856,2022-01-27-06:54:15,10.1.1.4,32,-0.211,-0.211,-0.211,0.000,0.000,0.000
1643266455507787008,2022-01-27-06:54:15,10.1.1.4,29,-0.221,-0.221,-0.221,0.000,0.000,0.000
1643266455717678080,2022-01-27-06:54:15,10.1.1.4,38,-0.231,-0.231,-0.231,0.000,0.000,0.000
1643266455908050176,2022-01-27-06:54:15,10.1.1.4,27,-0.240,-0.240,-0.240,0.000,0.000,0.000
1643266456117410816,2022-01-27-06:54:16,10.1.1.4,35,-0.251,-0.251,-0.251,0.000,0.000,0.000
1643266456307476992,2022-01-27-06:54:16,10.1.1.4,24,-0.260,-0.260,-0.260,0.000,0.000,0.000
1643266456528523008,2022-01-27-06:54:16,10.1.1.4,43,-0.271,-0.271,-0.271,0.000,0.000,0.000
1643266456728040960,2022-01-27-06:54:16,10.1.1.4,41,-0.281,-0.281,-0.281,0.000,0.000,0.000
1643266456907483136,2022-01-27-06:54:16,10.1.1.4,19,-0.290,-0.290,-0.290,0.000,0.000,0.000
1643266457137873920,2022-01-27-06:54:17,10.1.1.4,48,-0.302,-0.302,-0.302,0.000,0.000,0.000
1643266457308315904,2022-01-27-06:54:17,10.1.1.4,17,-0.310,-0.310,-0.310,0.000,0.000,0.000
1643266457527631104,2022-01-27-06:54:17,10.1.1.4,35,-0.321,-0.321,-0.321,0.000,0.000,0.000
1643266457737935104,2022-01-27-06:54:17,10.1.1.4,43,-0.331,-0.331,-0.331,0.000,0.000,0.000
1643266457938074112,2022-01-27-06:54:17,10.1.1.4,42,-0.341,-0.341,-0.341,0.000,0.000,0.000
1643266458127585024,2022-01-27-06:54:18,10.1.1.4,30,-0.351,-0.351,-0.351,0.000,0.000,0.000
1643266458337815040,2022-01-27-06:54:18,10.1.1.4,40,-0.361,-0.361,-0.361,0.000,0.000,0.000
1643266458527682048,2022-01-27-06:54:18,10.1.1.4,28,-0.370,-0.370,-0.370,0.000,0.000,0.000
1643266458737943808,2022-01-27-06:54:18,10.1.1.4,37,-0.381,-0.381,-0.381,0.000,0.000,0.000
1643266458937999104,2022-01-27-06:54:18,10.1.1.4,36,-0.391,-0.391,-0.391,0.000,0.000,0.000
1643266459137669120,2022-01-27-06:54:19,10.1.1.4,35,-0.401,-0.401,-0.401,0.000,0.000,0.000
1643266459327802880,2022-01-27-06:54:19,10.1.1.4,24,-0.410,-0.410,-0.410,0.000,0.000,0.000
1643266459537441024,2022-01-27-06:54:19,10.1.1.4,31,-0.421,-0.421,-0.421,0.000,0.000,0.000
1643266459738082816,2022-01-27-06:54:19,10.1.1.4,31,-0.431,-0.431,-0.431,0.000,0.000,0.000
1643266459937933824,2022-01-27-06:54:19,10.1.1.4,29,-0.441,-0.441,-0.441,0.000,0.000,0.000
1643266460138693120,2022-01-27-06:54:20,10.1.1.4,28,-0.450,-0.450,-0.450,0.000,0.000,0.000
1643266460340657920,2022-01-27-06:54:20,10.1.1.4,25,-0.460,-0.460,-0.460,0.000,0.000,0.000
1643266460547257856,2022-01-27-06:54:20,10.1.1.4,30,-0.471,-0.471,-0.471,0.000,0.000,0.000
1643266460747929088,2022-01-27-06:54:20,10.1.1.4,26,-0.480,-0.480,-0.480,0.000,0.000,0.000
1643266460937494016,2022-01-27-06:54:20,10.1.1.4,15,-0.490,-0.490,-0.490,0.000,0.000,0.000
1643266461157200128,2022-01-27-06:54:21,10.1.1.4,34,-0.479,-0.479,-0.479,0.000,0.000,0.000
1643266461347577088,2022-01-27-06:54:21,10.1.1.4,23,-0.470,-0.470,-0.470,0.000,0.000,0.000
1643266461548409856,2022-01-27-06:54:21,10.1.1.4,22,-0.460,-0.460,-0.460,0.000,0.000,0.000
1643266461757779968,2022-01-27-06:54:21,10.1.1.4,30,-0.449,-0.449,-0.449,0.000,0.000,0.000
1643266461949644032,2022-01-27-06:54:21,10.1.1.4,20,-0.440,-0.440,-0.440,0.000,0.000,0.000
1643266462149172992,2022-01-27-06:54:22,10.1.1.4,19,-0.430,-0.430,-0.430,0.000,0.000,0.000
1643266462367863808,2022-01-27-06:54:22,10.1.1.4,37,-0.419,-0.419,-0.419,0.000,0.000,0.000
1643266462569793024,2022-01-27-06:54:22,10.1.1.4,38,-0.409,-0.409,-0.409,0.000,0.000,0.000
1643266462758061824,2022-01-27-06:54:22,10.1.1.4,25,-0.400,-0.400,-0.400,0.000,0.000,0.000
1643266462967973120,2022-01-27-06:54:22,10.1.1.4,33,-0.389,-0.389,-0.389,0.000,0.000,0.000
1643266463168122880,2022-01-27-06:54:23,10.1.1.4,33,-0.379,-0.379,-0.379,0.000,0.000,0.000
1643266463367932928,2022-01-27-06:54:23,10.1.1.4,31,-0.369,-0.369,-0.369,0.000,0.000,0.000
1643266463570036992,2022-01-27-06:54:23,10.1.1.4,32,-0.359,-0.359,-0.359,0.000,0.000,0.000
1643266463770482176,2022-01-27-06:54:23,10.1.1.4,32,-0.350,-0.350,-0.350,0.000,0.000,0.000
1643266463968268032,2022-01-27-06:54:23,10.1.1.4,29,-0.339,-0.339,-0.339,0.000,0.000,0.000
1643266464168082944,2022-01-27-06:54:24,10.1.1.4,28,-0.329,-0.329,-0.329,0.000,0.000,0.000
1643266464377319168,2022-01-27-06:54:24,10.1.1.4,36,-0.319,-0.319,-0.319,0.000,0.000,0.000
1643266464569195008,2022-01-27-06:54:24,10.1.1.4,27,-0.310,-0.310,-0.310,0.000,0.000,0.000
1643266464778188032,2022-01-27-06:54:24,10.1.1.4,34,-0.299,-0.299,-0.299,0.000,0.000,0.000
1643266464997587968,2022-01-27-06:54:24,10.1.1.4,52,-0.288,-0.288,-0.288,0.000,0.000,0.000
1643266465197010944,2022-01-27-06:54:25,10.1.1.4,51,-0.278,-0.278,-0.278,0.000,0.000,0.000
1643266465378258944,2022-01-27-06:54:25,10.1.1.4,30,-0.270,-0.270,-0.270,0.000,0.000,0.000
1643266465577396992,2022-01-27-06:54:25,10.1.1.4,28,-0.259,-0.259,-0.259,0.000,0.000,0.000
1643266465768007168,2022-01-27-06:54:25,10.1.1.4,18,-0.250,-0.250,-0.250,0.000,0.000,0.000
1643266465989202944,2022-01-27-06:54:25,10.1.1.4,38,-0.239,-0.239,-0.239,0.000,0.000,0.000
1643266466189330176,2022-01-27-06:54:26,10.1.1.4,38,-0.229,-0.229,-0.229,0.000,0.000,0.000
1643266466388296960,2022-01-27-06:54:26,10.1.1.4,36,-0.219,-0.219,-0.219,0.000,0.000,0.000
1643266466589701888,2022-01-27-06:54:26,10.1.1.4,36,-0.209,-0.209,-0.209,0.000,0.000,0.000
1643266466788218880,2022-01-27-06:54:26,10.1.1.4,33,-0.199,-0.199,-0.199,0.000,0.000,0.000
1643266466989107968,2022-01-27-06:54:26,10.1.1.4,32,-0.190,-0.190,-0.190,0.000,0.000,0.000
1643266467177961216,2022-01-27-06:54:27,10.1.1.4,20,-0.180,-0.180,-0.180,0.000,0.000,0.000
1643266467398067968,2022-01-27-06:54:27,10.1.1.4,37,-0.169,-0.169,-0.169,0.000,0.000,0.000
1643266467587511040,2022-01-27-06:54:27,10.1.1.4,25,-0.160,-0.160,-0.160,0.000,0.000,0.000
1643266467789309952,2022-01-27-06:54:27,10.1.1.4,25,-0.150,-0.150,-0.150,0.000,0.000,0.000
1643266467989198848,2022-01-27-06:54:27,10.1.1.4,22,-0.140,-0.140,-0.140,0.000,0.000,0.000
1643266468188407808,2022-01-27-06:54:28,10.1.1.4,20,-0.130,-0.130,-0.130,0.000,0.000,0.000
1643266468397937920,2022-01-27-06:54:28,10.1.1.4,28,-0.119,-0.119,-0.119,0.000,0.000,0.000
1643266468598550016,2022-01-27-06:54:28,10.1.1.4,27,-0.110,-0.110,-0.110,0.000,0.000,0.000
1643266468818084096,2022-01-27-06:54:28,10.1.1.4,45,-0.099,-0.099,-0.099,0.000,0.000,0.000
1643266469008595968,2022-01-27-06:54:29,10.1.1.4,27,-0.090,-0.090,-0.090,0.000,0.000,0.000
1643266469208684800,2022-01-27-06:54:29,10.1.1.4,26,-0.080,-0.080,-0.080,0.000,0.000,0.000
1643266469417438976,2022-01-27-06:54:29,10.1.1.4,33,-0.069,-0.069,-0.069,0.000,0.000,0.000
1643266469609302016,2022-01-27-06:54:29,10.1.1.4,24,-0.060,-0.060,-0.060,0.000,0.000,0.000
1643266469828857856,2022-01-27-06:54:29,10.1.1.4,43,-0.049,-0.049,-0.049,0.000,0.000,0.000
1643266470028976896,2022-01-27-06:54:30,10.1.1.4,42,-0.039,-0.039,-0.039,0.000,0.000,0.000
1643266470218072832,2022-01-27-06:54:30,10.1.1.4,30,-0.029,-0.029,-0.029,0.000,0.000,0.000
1643266470407762176,2022-01-27-06:54:30,10.1.1.4,19,-0.020,-0.020,-0.020,0.000,0.000,0.000
1643266470608280064,2022-01-27-06:54:30,10.1.1.4,18,-0.010,-0.010,-0.010,0.000,0.000,0.000
1643266470797741824,2022-01-27-06:54:30,10.1.1.4,7,-0.000,-0.000,-0.000,0.000,0.000,0.000
1643266471017513984,2022-01-27-06:54:31,10.1.1.4,26,-0.010,-0.010,-0.010,0.000,0.000,0.000
1643266471237875968,2022-01-27-06:54:31,10.1.1.4,46,-0.021,-0.021,-0.021,0.000,0.000,0.000
1643266471427988992,2022-01-27-06:54:31,10.1.1.4,35,-0.031,-0.031,-0.031,0.000,0.000,0.000
1643266471628076032,2022-01-27-06:54:31,10.1.1.4,34,-0.041,-0.041,-0.041,0.000,0.000,0.000
1643266471829662976,2022-01-27-06:54:31,10.1.1.4,34,-0.050,-0.050,-0.050,0.000,0.000,0.000
1643266472027661056,2022-01-27-06:54:32,10.1.1.4,30,-0.061,-0.061,-0.061,0.000,0.000,0.000
1643266472217783040,2022-01-27-06:54:32,10.1.1.4,20,-0.070,-0.070,-0.070,0.000,0.000,0.000
1643266472417614848,2022-01-27-06:54:32,10.1.1.4,17,-0.080,-0.080,-0.080,0.000,0.000,0.000
1643266472617448960,2022-01-27-06:54:32,10.1.1.4,16,-0.090,-0.090,-0.090,0.000,0.000,0.000
1643266472828146944,2022-01-27-06:54:32,10.1.1.4,26,-0.100,-0.100,-0.100,0.000,0.000,0.000
1643266473027875072,2022-01-27-06:54:33,10.1.1.4,25,-0.110,-0.110,-0.110,0.000,0.000,0.000
1643266473227998976,2022-01-27-06:54:33,10.1.1.4,24,-0.120,-0.120,-0.120,0.000,0.000,0.000
1643266473437643008,2022-01-27-06:54:33,10.1.1.4,33,-0.131,-0.131,-0.131,0.000,0.000,0.000
1643266473640343040,2022-01-27-06:54:33,10.1.1.4,34,-0.141,-0.141,-0.141,0.000,0.000,0.000
1643266473828284928,2022-01-27-06:54:33,10.1.1.4,22,-0.150,-0.150,-0.150,0.000,0.000,0.000
1643266474028453120,2022-01-27-06:54:34,10.1.1.4,21,-0.160,-0.160,-0.160,0.000,0.000,0.000
1643266474228064000,2022-01-27-06:54:34,10.1.1.4,20,-0.170,-0.170,-0.170,0.000,0.000,0.000
1643266474447721984,2022-01-27-06:54:34,10.1.1.4,39,-0.181,-0.181,-0.181,0.000,0.000,0.000
1643266474628064000,2022-01-27-06:54:34,10.1.1.4,18,-0.190,-0.190,-0.190,0.000,0.000,0.000
1643266474857949952,2022-01-27-06:54:34,10.1.1.4,46,-0.201,-0.201,-0.201,0.000,0.000,0.000
1643266475047684864,2022-01-27-06:54:35,10.1.1.4,33,-0.211,-0.211,-0.211,0.000,0.000,0.000
1643266475248184832,2022-01-27-06:54:35,10.1.1.4,33,-0.221,-0.221,-0.221,0.000,0.000,0.000
1643266475447880960,2022-01-27-06:54:35,10.1.1.4,32,-0.231,-0.231,-0.231,0.000,0.000,0.000
1643266475657532928,2022-01-27-06:54:35,10.1.1.4,41,-0.241,-0.241,-0.241,0.000,0.000,0.000
1643266475847831040,2022-01-27-06:54:35,10.1.1.4,30,-0.251,-0.251,-0.251,0.000,0.000,0.000
1643266476057565952,2022-01-27-06:54:36,10.1.1.4,39,-0.261,-0.261,-0.261,0.000,0.000,0.000
1643266476248678912,2022-01-27-06:54:36,10.1.1.4,29,-0.271,-0.271,-0.271,0.000,0.000,0.000
1643266476447937024,2022-01-27-06:54:36,10.1.1.4,27,-0.280,-0.280,-0.280,0.000,0.000,0.000
1643266476649373952,2022-01-27-06:54:36,10.1.1.4,27,-0.290,-0.290,-0.290,0.000,0.000,0.000
1643266476847332864,2022-01-27-06:54:36,10.1.1.4,25,-0.300,-0.300,-0.300,0.000,0.000,0.000
1643266477048582912,2022-01-27-06:54:37,10.1.1.4,24,-0.310,-0.310,-0.310,0.000,0.000,0.000
1643266477248380928,2022-01-27-06:54:37,10.1.1.4,23,-0.320,-0.320,-0.320,0.000,0.000,0.000
1643266477467310848,2022-01-27-06:54:37,10.1.1.4,40,-0.331,-0.331,-0.331,0.000,0.000,0.000
1643266477668459776,2022-01-27-06:54:37,10.1.1.4,39,-0.341,-0.341,-0.341,0.000,0.000,0.000
1643266477867506944,2022-01-27-06:54:37,10.1.1.4,38,-0.351,-0.351,-0.351,0.000,0.000,0.000
1643266478047429120,2022-01-27-06:54:38,10.1.1.4,17,-0.360,-0.360,-0.360,0.000,0.000,0.000
1643266478278409984,2022-01-27-06:54:38,10.1.1.4,47,-0.371,-0.371,-0.371,0.000,0.000,0.000
1643266478477280000,2022-01-27-06:54:38,10.1.1.4,43,-0.381,-0.381,-0.381,0.000,0.000,0.000
1643266478677888000,2022-01-27-06:54:38,10.1.1.4,42,-0.391,-0.391,-0.391,0.000,0.000,0.000
1643266478878868992,2022-01-27-06:54:38,10.1.1.4,42,-0.401,-0.401,-0.401,0.000,0.000,0.000
1643266479078969856,2022-01-27-06:54:39,10.1.1.4,42,-0.411,-0.411,-0.411,0.000,0.000,0.000
1643266479258317056,2022-01-27-06:54:39,10.1.1.4,20,-0.420,-0.420,-0.420,0.000,0.000,0.000
1643266479470146048,2022-01-27-06:54:39,10.1.1.4,31,-0.431,-0.431,-0.431,0.000,0.000,0.000
1643266479679315968,2022-01-27-06:54:39,10.1.1.4,39,-0.441,-0.441,-0.441,0.000,0.000,0.000
1643266479867809024,2022-01-27-06:54:39,10.1.1.4,27,-0.450,-0.450,-0.450,0.000,0.000,0.000
1643266480067872000,2022-01-27-06:54:40,10.1.1.4,26,-0.460,-0.460,-0.460,0.000,0.000,0.000
1643266480268631808,2022-01-27-06:54:40,10.1.1.4,26,-0.470,-0.470,-0.470,0.000,0.000,0.000
1643266480468017152,2022-01-27-06:54:40,10.1.1.4,25,-0.480,-0.480,-0.480,0.000,0.000,0.000
1643266480657681920,2022-01-27-06:54:40,10.1.1.4,14,-0.490,-0.490,-0.490,0.000,0.000,0.000
1643266480879988992,2022-01-27-06:54:40,10.1.1.4,34,-0.479,-0.479,-0.479,0.000,0.000,0.000
1643266481067888128,2022-01-27-06:54:41,10.1.1.4,22,-0.470,-0.470,-0.470,0.000,0.000,0.000
1643266481278348800,2022-01-27-06:54:41,10.1.1.4,30,-0.459,-0.459,-0.459,0.000,0.000,0.000
1643266481477943040,2022-01-27-06:54:41,10.1.1.4,28,-0.449,-0.449,-0.449,0.000,0.000,0.000
1643266481678131968,2022-01-27-06:54:41,10.1.1.4,27,-0.440,-0.440,-0.440,0.000,0.000,0.000
1643266481888529152,2022-01-27-06:54:41,10.1.1.4,37,-0.429,-0.429,-0.429,0.000,0.000,0.000
1643266482087739904,2022-01-27-06:54:42,10.1.1.4,35,-0.419,-0.419,-0.419,0.000,0.000,0.000
1643266482288978176,2022-01-27-06:54:42,10.1.1.4,35,-0.409,-0.409,-0.409,0.000,0.000,0.000
1643266482479196928,2022-01-27-06:54:42,10.1.1.4,23,-0.400,-0.400,-0.400,0.000,0.000,0.000
1643266482688060928,2022-01-27-06:54:42,10.1.1.4,32,-0.389,-0.389,-0.389,0.000,0.000,0.000
1643266482887967232,2022-01-27-06:54:42,10.1.1.4,31,-0.379,-0.379,-0.379,0.000,0.000,0.000
1643266483098109952,2022-01-27-06:54:43,10.1.1.4,41,-0.369,-0.369,-0.369,0.000,0.000,0.000
1643266483288669184,2022-01-27-06:54:43,10.1.1.4,30,-0.360,-0.360,-0.360,0.000,0.000,0.000
1643266483488570880,2022-01-27-06:54:43,10.1.1.4,30,-0.349,-0.349,-0.349,0.000,0.000,0.000
1643266483689271808,2022-01-27-06:54:43,10.1.1.4,29,-0.339,-0.339,-0.339,0.000,0.000,0.000
1643266483888144128,2022-01-27-06:54:43,10.1.1.4,25,-0.330,-0.330,-0.330,0.000,0.000,0.000
1643266484087798016,2022-01-27-06:54:44,10.1.1.4,24,-0.320,-0.320,-0.320,0.000,0.000,0.000
1643266484288853760,2022-01-27-06:54:44,10.1.1.4,24,-0.310,-0.310,-0.310,0.000,0.000,0.000
1643266484508572160,2022-01-27-06:54:44,10.1.1.4,43,-0.299,-0.299,-0.299,0.000,0.000,0.000
1643266484688612864,2022-01-27-06:54:44,10.1.1.4,21,-0.290,-0.290,-0.290,0.000,0.000,0.000
1643266484889031936,2022-01-27-06:54:44,10.1.1.4,21,-0.280,-0.280,-0.280,0.000,0.000,0.000
1643266485087755008,2022-01-27-06:54:45,10.1.1.4,19,-0.270,-0.270,-0.270,0.000,0.000,0.000
1643266485308969984,2022-01-27-06:54:45,10.1.1.4,39,-0.259,-0.259,-0.259,0.000,0.000,0.000
1643266485490545920,2022-01-27-06:54:45,10.1.1.4,19,-0.250,-0.250,-0.250,0.000,0.000,0.000
1643266485718012928,2022-01-27-06:54:45,10.1.1.4,46,-0.239,-0.239,-0.239,0.000,0.000,0.000
1643266485919580928,2022-01-27-06:54:45,10.1.1.4,45,-0.229,-0.229,-0.229,0.000,0.000,0.000
1643266486108577024,2022-01-27-06:54:46,10.1.1.4,34,-0.219,-0.219,-0.219,0.000,0.000,0.000
1643266486309379072,2022-01-27-06:54:46,10.1.1.4,33,-0.210,-0.210,-0.210,0.000,0.000,0.000
1643266486508924928,2022-01-27-06:54:46,10.1.1.4,32,-0.199,-0.199,-0.199,0.000,0.000,0.000
1643266486707924992,2022-01-27-06:54:46,10.1.1.4,31,-0.189,-0.189,-0.189,0.000,0.000,0.000
1643266486908521984,2022-01-27-06:54:46,10.1.1.4,30,-0.180,-0.180,-0.180,0.000,0.000,0.000
1643266487108616192,2022-01-27-06:54:47,10.1.1.4,29,-0.170,-0.170,-0.170,0.000,0.000,0.000
1643266487308488960,2022-01-27-06:54:47,10.1.1.4,28,-0.160,-0.160,-0.160,0.000,0.000,0.000
1643266487509126912,2022-01-27-06:54:47,10.1.1.4,27,-0.150,-0.150,-0.150,0.000,0.000,0.000
1643266487708462848,2022-01-27-06:54:47,10.1.1.4,25,-0.140,-0.140,-0.140,0.000,0.000,0.000
1643266487918596096,2022-01-27-06:54:47,10.1.1.4,34,-0.129,-0.129,-0.129,0.000,0.000,0.000
1643266488118027008,2022-01-27-06:54:48,10.1.1.4,33,-0.119,-0.119,-0.119,0.000,0.000,0.000
1643266488318816000,2022-01-27-06:54:48,10.1.1.4,33,-0.110,-0.110,-0.110,0.000,0.000,0.000
1643266488508589056,2022-01-27-06:54:48,10.1.1.4,20,-0.100,-0.100,-0.100,0.000,0.000,0.000
1643266488708759040,2022-01-27-06:54:48,10.1.1.4,20,-0.090,-0.090,-0.090,0.000,0.000,0.000
1643266488908499968,2022-01-27-06:54:48,10.1.1.4,19,-0.080,-0.080,-0.080,0.000,0.000,0.000
1643266489107785984,2022-01-27-06:54:49,10.1.1.4,17,-0.070,-0.070,-0.070,0.000,0.000,0.000
1643266489327898112,2022-01-27-06:54:49,10.1.1.4,37,-0.059,-0.059,-0.059,0.000,0.000,0.000
1643266489528584960,2022-01-27-06:54:49,10.1.1.4,37,-0.049,-0.049,-0.049,0.000,0.000,0.000
1643266489728977920,2022-01-27-06:54:49,10.1.1.4,35,-0.039,-0.039,-0.039,0.000,0.000,0.000
1643266489927825920,2022-01-27-06:54:49,10.1.1.4,32,-0.029,-0.029,-0.029,0.000,0.000,0.000
1643266490127546112,2022-01-27-06:54:50,10.1.1.4,31,-0.019,-0.019,-0.019,0.000,0.000,0.000
1643266490327747072,2022-01-27-06:54:50,10.1.1.4,30,-0.010,-0.010,-0.010,0.000,0.000,0.000
1643266490507396096,2022-01-27-06:54:50,10.1.1.4,9,-0.000,-0.000,-0.000,0.000,0.000,0.000
1643266490737988864,2022-01-27-06:54:50,10.1.1.4,38,-0.011,-0.011,-0.011,0.000,0.000,0.000
1643266490937321984,2022-01-27-06:54:50,10.1.1.4,37,-0.021,-0.021,-0.021,0.000,0.000,0.000
1643266491128317952,2022-01-27-06:54:51,10.1.1.4,27,-0.030,-0.030,-0.030,0.000,0.000,0.000
1643266491329083904,2022-01-27-06:54:51,10.1.1.4,27,-0.040,-0.040,-0.040,0.000,0.000,0.000
1643266491530159872,2022-01-27-06:54:51,10.1.1.4,27,-0.050,-0.050,-0.050,0.000,0.000,0.000
1643266491728996096,2022-01-27-06:54:51,10.1.1.4,25,-0.060,-0.060,-0.060,0.000,0.000,0.000
1643266491927778048,2022-01-27-06:54:51,10.1.1.4,22,-0.070,-0.070,-0.070,0.000,0.000,0.000
1643266492129872128,2022-01-27-06:54:52,10.1.1.4,22,-0.080,-0.080,-0.080,0.000,0.000,0.000
1643266492328123136,2022-01-27-06:54:52,10.1.1.4,19,-0.090,-0.090,-0.090,0.000,0.000,0.000
1643266492528611840,2022-01-27-06:54:52,10.1.1.4,19,-0.100,-0.100,-0.100,0.000,0.000,0.000
1643266492738029056,2022-01-27-06:54:52,10.1.1.4,27,-0.111,-0.111,-0.111,0.000,0.000,0.000
1643266492927762944,2022-01-27-06:54:52,10.1.1.4,13,-0.120,-0.120,-0.120,0.000,0.000,0.000
1643266493158426112,2022-01-27-06:54:53,10.1.1.4,43,-0.131,-0.131,-0.131,0.000,0.000,0.000
1643266493358639104,2022-01-27-06:54:53,10.1.1.4,42,-0.141,-0.141,-0.141,0.000,0.000,0.000
1643266493548815872,2022-01-27-06:54:53,10.1.1.4,30,-0.150,-0.150,-0.150,0.000,0.000,0.000
1643266493758321920,2022-01-27-06:54:53,10.1.1.4,37,-0.161,-0.161,-0.161,0.000,0.000,0.000
1643266493948177152,2022-01-27-06:54:53,10.1.1.4,26,-0.170,-0.170,-0.170,0.000,0.000,0.000
1643266494147432960,2022-01-27-06:54:54,10.1.1.4,25,-0.180,-0.180,-0.180,0.000,0.000,0.000
1643266494347856128,2022-01-27-06:54:54,10.1.1.4,23,-0.190,-0.190,-0.190,0.000,0.000,0.000
1643266494577476864,2022-01-27-06:54:54,10.1.1.4,51,-0.202,-0.202,-0.202,0.000,0.000,0.000
1643266494777488896,2022-01-27-06:54:54,10.1.1.4,49,-0.212,-0.212,-0.212,0.000,0.000,0.000
1643266494957989888,2022-01-27-06:54:54,10.1.1.4,29,-0.221,-0.221,-0.221,0.000,0.000,0.000
1643266495169388032,2022-01-27-06:54:55,10.1.1.4,39,-0.231,-0.231,-0.231,0.000,0.000,0.000
1643266495378038016,2022-01-27-06:54:55,10.1.1.4,47,-0.241,-0.241,-0.241,0.000,0.000,0.000
1643266495567464192,2022-01-27-06:54:55,10.1.1.4,36,-0.251,-0.251,-0.251,0.000,0.000,0.000
1643266495758339840,2022-01-27-06:54:55,10.1.1.4,26,-0.260,-0.260,-0.260,0.000,0.000,0.000
1643266495968701952,2022-01-27-06:54:55,10.1.1.4,35,-0.271,-0.271,-0.271,0.000,0.000,0.000
1643266496178308096,2022-01-27-06:54:56,10.1.1.4,44,-0.281,-0.281,-0.281,0.000,0.000,0.000
1643266496368087040,2022-01-27-06:54:56,10.1.1.4,32,-0.291,-0.291,-0.291,0.000,0.000,0.000
1643266496568332800,2022-01-27-06:54:56,10.1.1.4,30,-0.301,-0.301,-0.301,0.000,0.000,0.000
1643266496769134080,2022-01-27-06:54:56,10.1.1.4,30,-0.310,-0.310,-0.310,0.000,0.000,0.000
1643266496968393984,2022-01-27-06:54:56,10.1.1.4,28,-0.321,-0.321,-0.321,0.000,0.000,0.000
1643266497167748864,2022-01-27-06:54:57,10.1.1.4,26,-0.330,-0.330,-0.330,0.000,0.000,0.000
1643266497368244992,2022-01-27-06:54:57,10.1.1.4,25,-0.340,-0.340,-0.340,0.000,0.000,0.000
1643266497589150976,2022-01-27-06:54:57,10.1.1.4,44,-0.351,-0.351,-0.351,0.000,0.000,0.000
1643266497775108096,2022-01-27-06:54:57,10.1.1.4,25,-0.360,-0.360,-0.360,0.000,0.000,0.000
1643266497997800960,2022-01-27-06:54:57,10.1.1.4,49,-0.371,-0.371,-0.371,0.000,0.000,0.000
1643266498188751104,2022-01-27-06:54:58,10.1.1.4,39,-0.381,-0.381,-0.381,0.000,0.000,0.000
1643266498368078080,2022-01-27-06:54:58,10.1.1.4,17,-0.390,-0.390,-0.390,0.000,0.000,0.000
1643266498599047936,2022-01-27-06:54:58,10.1.1.4,47,-0.401,-0.401,-0.401,0.000,0.000,0.000
1643266498789315840,2022-01-27-06:54:58,10.1.1.4,35,-0.411,-0.411,-0.411,0.000,0.000,0.000
1643266498988198144,2022-01-27-06:54:58,10.1.1.4,32,-0.421,-0.421,-0.421,0.000,0.000,0.000
1643266499188541952,2022-01-27-06:54:59,10.1.1.4,32,-0.431,-0.431,-0.431,0.000,0.000,0.000
1643266499398192896,2022-01-27-06:54:59,10.1.1.4,41,-0.441,-0.441,-0.441,0.000,0.000,0.000
1643266499600659968,2022-01-27-06:54:59,10.1.1.4,42,-0.451,-0.451,-0.451,0.000,0.000,0.000
1643266499790429184,2022-01-27-06:54:59,10.1.1.4,28,-0.460,-0.460,-0.460,0.000,0.000,0.000
1643266499989423872,2022-01-27-06:54:59,10.1.1.4,26,-0.470,-0.470,-0.470,0.000,0.000,0.000
1643266500188060160,2022-01-27-06:55:00,10.1.1.4,24,-0.480,-0.480,-0.480,0.000,0.000,0.000
1643266500367305984,2022-01-27-06:55:00,10.1.1.4,2,-0.489,-0.489,-0.489,0.000,0.000,0.000
1643266500607456000,2022-01-27-06:55:00,10.1.1.4,40,-0.479,-0.479,-0.479,0.000,0.000,0.000
1643266500817342976,2022-01-27-06:55:00,10.1.1.4,47,-0.469,-0.469,-0.469,0.000,0.000,0.000
1643266500997747968,2022-01-27-06:55:00,10.1.1.4,27,-0.460,-0.460,-0.460,0.000,0.000,0.000
1643266501189672960,2022-01-27-06:55:01,10.1.1.4,19,-0.450,-0.450,-0.450,0.000,0.000,0.000
1643266501408192000,2022-01-27-06:55:01,10.1.1.4,36,-0.439,-0.439,-0.439,0.000,0.000,0.000
1643266501617712128,2022-01-27-06:55:01,10.1.1.4,41,-0.429,-0.429,-0.429,0.000,0.000,0.000
1643266501808389888,2022-01-27-06:55:01,10.1.1.4,30,-0.419,-0.419,-0.419,0.000,0.000,0.000
1643266502007567872,2022-01-27-06:55:02,10.1.1.4,27,-0.410,-0.410,-0.410,0.000,0.000,0.000
1643266502207720960,2022-01-27-06:55:02,10.1.1.4,26,-0.400,-0.400,-0.400,0.000,0.000,0.000
1643266502407396096,2022-01-27-06:55:02,10.1.1.4,25,-0.390,-0.390,-0.390,0.000,0.000,0.000
1643266502608224000,2022-01-27-06:55:02,10.1.1.4,25,-0.380,-0.380,-0.380,0.000,0.000,0.000
1643266502807238144,2022-01-27-06:55:02,10.1.1.4,24,-0.370,-0.370,-0.370,0.000,0.000,0.000
1643266503008114944,2022-01-27-06:55:03,10.1.1.4,24,-0.360,-0.360,-0.360,0.000,0.000,0.000
1643266503239010048,2022-01-27-06:55:03,10.1.1.4,54,-0.348,-0.348,-0.348,0.000,0.000,0.000
1643266503409758208,2022-01-27-06:55:03,10.1.1.4,23,-0.340,-0.340,-0.340,0.000,0.000,0.000
1643266503609177088,2022-01-27-06:55:03,10.1.1.4,20,-0.330,-0.330,-0.330,0.000,0.000,0.000
1643266503808577024,2022-01-27-06:55:03,10.1.1.4,18,-0.320,-0.320,-0.320,0.000,0.000,0.000
1643266504036338176,2022-01-27-06:55:04,10.1.1.4,42,-0.309,-0.309,-0.309,0.000,0.000,0.000
1643266504229313024,2022-01-27-06:55:04,10.1.1.4,34,-0.299,-0.299,-0.299,0.000,0.000,0.000
1643266504428081920,2022-01-27-06:55:04,10.1.1.4,32,-0.289,-0.289,-0.289,0.000,0.000,0.000
1643266504629869056,2022-01-27-06:55:04,10.1.1.4,33,-0.279,-0.279,-0.279,0.000,0.000,0.000
1643266504828668160,2022-01-27-06:55:04,10.1.1.4,30,-0.269,-0.269,-0.269,0.000,0.000,0.000
1643266505018270976,2022-01-27-06:55:05,10.1.1.4,18,-0.260,-0.260,-0.260,0.000,0.000,0.000
1643266505227858176,2022-01-27-06:55:05,10.1.1.4,27,-0.250,-0.250,-0.250,0.000,0.000,0.000
1643266505427525888,2022-01-27-06:55:05,10.1.1.4,26,-0.240,-0.240,-0.240,0.000,0.000,0.000
1643266505629347072,2022-01-27-06:55:05,10.1.1.4,26,-0.230,-0.230,-0.230,0.000,0.000,0.000
1643266505848449024,2022-01-27-06:55:05,10.1.1.4,44,-0.219,-0.219,-0.219,0.000,0.000,0.000
1643266506029409792,2022-01-27-06:55:06,10.1.1.4,23,-0.210,-0.210,-0.210,0.000,0.000,0.000
1643266506230045952,2022-01-27-06:55:06,10.1.1.4,22,-0.200,-0.200,-0.200,0.000,0.000,0.000
1643266506439235072,2022-01-27-06:55:06,10.1.1.4,29,-0.190,-0.190,-0.190,0.000,0.000,0.000
1643266506639126016,2022-01-27-06:55:06,10.1.1.4,27,-0.179,-0.179,-0.179,0.000,0.000,0.000
1643266506838500096,2022-01-27-06:55:06,10.1.1.4,26,-0.170,-0.170,-0.170,0.000,0.000,0.000
1643266507059129856,2022-01-27-06:55:07,10.1.1.4,46,-0.159,-0.159,-0.159,0.000,0.000,0.000
1643266507248282880,2022-01-27-06:55:07,10.1.1.4,34,-0.149,-0.149,-0.149,0.000,0.000,0.000
1643266507458192128,2022-01-27-06:55:07,10.1.1.4,42,-0.139,-0.139,-0.139,0.000,0.000,0.000
1643266507647552000,2022-01-27-06:55:07,10.1.1.4,29,-0.129,-0.129,-0.129,0.000,0.000,0.000
1643266507847345152,2022-01-27-06:55:07,10.1.1.4,26,-0.120,-0.120,-0.120,0.000,0.000,0.000
1643266508047447808,2022-01-27-06:55:08,10.1.1.4,25,-0.110,-0.110,-0.110,0.000,0.000,0.000
1643266508247302144,2022-01-27-06:55:08,10.1.1.4,24,-0.100,-0.100,-0.100,0.000,0.000,0.000
1643266508447258880,2022-01-27-06:55:08,10.1.1.4,22,-0.090,-0.090,-0.090,0.000,0.000,0.000
1643266508647672064,2022-01-27-06:55:08,10.1.1.4,22,-0.080,-0.080,-0.080,0.000,0.000,0.000
1643266508847252992,2022-01-27-06:55:08,10.1.1.4,20,-0.070,-0.070,-0.070,0.000,0.000,0.000
1643266509048476928,2022-01-27-06:55:09,10.1.1.4,20,-0.060,-0.060,-0.060,0.000,0.000,0.000
1643266509267500032,2022-01-27-06:55:09,10.1.1.4,37,-0.049,-0.049,-0.049,0.000,0.000,0.000
1643266509466846976,2022-01-27-06:55:09,10.1.1.4,36,-0.039,-0.039,-0.039,0.000,0.000,0.000
1643266509667538944,2022-01-27-06:55:09,10.1.1.4,35,-0.029,-0.029,-0.029,0.000,0.000,0.000
1643266509867803136,2022-01-27-06:55:09,10.1.1.4,34,-0.019,-0.019,-0.019,0.000,0.000,0.000
1643266510077867008,2022-01-27-06:55:10,10.1.1.4,41,-0.009,-0.009,-0.009,0.000,0.000,0.000
1643266510247843072,2022-01-27-06:55:10,10.1.1.4,6,-0.000,-0.000,-0.000,0.000,0.000,0.000
1643266510467671040,2022-01-27-06:55:10,10.1.1.4,25,-0.010,-0.010,-0.010,0.000,0.000,0.000
1643266510669358080,2022-01-27-06:55:10,10.1.1.4,25,-0.020,-0.020,-0.020,0.000,0.000,0.000
1643266510882919168,2022-01-27-06:55:10,10.1.1.4,34,-0.031,-0.031,-0.031,0.000,0.000,0.000
1643266511078318080,2022-01-27-06:55:11,10.1.1.4,32,-0.041,-0.041,-0.041,0.000,0.000,0.000
1643266511268325120,2022-01-27-06:55:11,10.1.1.4,20,-0.050,-0.050,-0.050,0.000,0.000,0.000
1643266511468218112,2022-01-27-06:55:11,10.1.1.4,18,-0.060,-0.060,-0.060,0.000,0.000,0.000
1643266511667869952,2022-01-27-06:55:11,10.1.1.4,17,-0.070,-0.070,-0.070,0.000,0.000,0.000
1643266511868942848,2022-01-27-06:55:11,10.1.1.4,17,-0.080,-0.080,-0.080,0.000,0.000,0.000
1643266512089708032,2022-01-27-06:55:12,10.1.1.4,37,-0.091,-0.091,-0.091,0.000,0.000,0.000
1643266512288814080,2022-01-27-06:55:12,10.1.1.4,33,-0.101,-0.101,-0.101,0.000,0.000,0.000
1643266512488180992,2022-01-27-06:55:12,10.1.1.4,31,-0.110,-0.110,-0.110,0.000,0.000,0.000
1643266512689106944,2022-01-27-06:55:12,10.1.1.4,31,-0.120,-0.120,-0.120,0.000,0.000,0.000
1643266512880861952,2022-01-27-06:55:12,10.1.1.4,21,-0.130,-0.130,-0.130,0.000,0.000,0.000
1643266513088339200,2022-01-27-06:55:13,10.1.1.4,29,-0.141,-0.141,-0.141,0.000,0.000,0.000
1643266513289158144,2022-01-27-06:55:13,10.1.1.4,29,-0.150,-0.150,-0.150,0.000,0.000,0.000
1643266513488423168,2022-01-27-06:55:13,10.1.1.4,27,-0.160,-0.160,-0.160,0.000,0.000,0.000
1643266513688024064,2022-01-27-06:55:13,10.1.1.4,25,-0.170,-0.170,-0.170,0.000,0.000,0.000
1643266513887710976,2022-01-27-06:55:13,10.1.1.4,24,-0.180,-0.180,-0.180,0.000,0.000,0.000
1643266514097700096,2022-01-27-06:55:14,10.1.1.4,33,-0.191,-0.191,-0.191,0.000,0.000,0.000
1643266514308165120,2022-01-27-06:55:14,10.1.1.4,42,-0.201,-0.201,-0.201,0.000,0.000,0.000
1643266514518609920,2022-01-27-06:55:14,10.1.1.4,52,-0.212,-0.212,-0.212,0.000,0.000,0.000
1643266514688676096,2022-01-27-06:55:14,10.1.1.4,22,-0.220,-0.220,-0.220,0.000,0.000,0.000
1643266514888524032,2022-01-27-06:55:14,10.1.1.4,21,-0.230,-0.230,-0.230,0.000,0.000,0.000
1643266515108793088,2022-01-27-06:55:15,10.1.1.4,39,-0.241,-0.241,-0.241,0.000,0.000,0.000
1643266515308016128,2022-01-27-06:55:15,10.1.1.4,38,-0.251,-0.251,-0.251,0.000,0.000,0.000
1643266515488531200,2022-01-27-06:55:15,10.1.1.4,18,-0.260,-0.260,-0.260,0.000,0.000,0.000
1643266515709906176,2022-01-27-06:55:15,10.1.1.4,38,-0.271,-0.271,-0.271,0.000,0.000,0.000
1643266515907804928,2022-01-27-06:55:15,10.1.1.4,36,-0.281,-0.281,-0.281,0.000,0.000,0.000
1643266516107891968,2022-01-27-06:55:16,10.1.1.4,35,-0.291,-0.291,-0.291,0.000,0.000,0.000
1643266516318964992,2022-01-27-06:55:16,10.1.1.4,43,-0.301,-0.301,-0.301,0.000,0.000,0.000
1643266516508569088,2022-01-27-06:55:16,10.1.1.4,32,-0.310,-0.310,-0.310,0.000,0.000,0.000
1643266516707942912,2022-01-27-06:55:16,10.1.1.4,31,-0.320,-0.320,-0.320,0.000,0.000,0.000
1643266516909513984,2022-01-27-06:55:16,10.1.1.4,32,-0.331,-0.331,-0.331,0.000,0.000,0.000
1643266517107998976,2022-01-27-06:55:17,10.1.1.4,28,-0.341,-0.341,-0.341,0.000,0.000,0.000
1643266517318715136,2022-01-27-06:55:17,10.1.1.4,38,-0.351,-0.351,-0.351,0.000,0.000,0.000
1643266517517712128,2022-01-27-06:55:17,10.1.1.4,36,-0.361,-0.361,-0.361,0.000,0.000,0.000
1643266517708880896,2022-01-27-06:55:17,10.1.1.4,25,-0.370,-0.370,-0.370,0.000,0.000,0.000
1643266517908839936,2022-01-27-06:55:17,10.1.1.4,24,-0.380,-0.380,-0.380,0.000,0.000,0.000
1643266518108681984,2022-01-27-06:55:18,10.1.1.4,23,-0.390,-0.390,-0.390,0.000,0.000,0.000
1643266518308960000,2022-01-27-06:55:18,10.1.1.4,23,-0.400,-0.400,-0.400,0.000,0.000,0.000
1643266518518984192,2022-01-27-06:55:18,10.1.1.4,30,-0.411,-0.411,-0.411,0.000,0.000,0.000
1643266518728526080,2022-01-27-06:55:18,10.1.1.4,38,-0.421,-0.421,-0.421,0.000,0.000,0.000
1643266518928745984,2022-01-27-06:55:18,10.1.1.4,37,-0.431,-0.431,-0.431,0.000,0.000,0.000
1643266519127977984,2022-01-27-06:55:19,10.1.1.4,35,-0.441,-0.441,-0.441,0.000,0.000,0.000
1643266519317984000,2022-01-27-06:55:19,10.1.1.4,24,-0.450,-0.450,-0.450,0.000,0.000,0.000
1643266519528111104,2022-01-27-06:55:19,10.1.1.4,34,-0.461,-0.461,-0.461,0.000,0.000,0.000
1643266519727916032,2022-01-27-06:55:19,10.1.1.4,33,-0.471,-0.471,-0.471,0.000,0.000,0.000
1643266519927429888,2022-01-27-06:55:19,10.1.1.4,32,-0.480,-0.480,-0.480,0.000,0.000,0.000
1643266520108055040,2022-01-27-06:55:20,10.1.1.4,10,-0.490,-0.490,-0.490,0.000,0.000,0.000
1643266520330157056,2022-01-27-06:55:20,10.1.1.4,29,-0.479,-0.479,-0.479,0.000,0.000,0.000
1643266520528193024,2022-01-27-06:55:20,10.1.1.4,27,-0.470,-0.470,-0.470,0.000,0.000,0.000
1643266520740088832,2022-01-27-06:55:20,10.1.1.4,36,-0.459,-0.459,-0.459,0.000,0.000,0.000
1643266520937558016,2022-01-27-06:55:20,10.1.1.4,34,-0.449,-0.449,-0.449,0.000,0.000,0.000
1643266521128807168,2022-01-27-06:55:21,10.1.1.4,23,-0.440,-0.440,-0.440,0.000,0.000,0.000
1643266521338416128,2022-01-27-06:55:21,10.1.1.4,31,-0.430,-0.430,-0.430,0.000,0.000,0.000
1643266521528990976,2022-01-27-06:55:21,10.1.1.4,18,-0.420,-0.420,-0.420,0.000,0.000,0.000
1643266521750422016,2022-01-27-06:55:21,10.1.1.4,38,-0.409,-0.409,-0.409,0.000,0.000,0.000
1643266521949743104,2022-01-27-06:55:21,10.1.1.4,34,-0.399,-0.399,-0.399,0.000,0.000,0.000
1643266522158662144,2022-01-27-06:55:22,10.1.1.4,42,-0.389,-0.389,-0.389,0.000,0.000,0.000
1643266522359790080,2022-01-27-06:55:22,10.1.1.4,39,-0.379,-0.379,-0.379,0.000,0.000,0.000
1643266522548432128,2022-01-27-06:55:22,10.1.1.4,26,-0.370,-0.370,-0.370,0.000,0.000,0.000
1643266522747875840,2022-01-27-06:55:22,10.1.1.4,25,-0.360,-0.360,-0.360,0.000,0.000,0.000
1643266522948890880,2022-01-27-06:55:22,10.1.1.4,25,-0.350,-0.350,-0.350,0.000,0.000,0.000
1643266523147443968,2022-01-27-06:55:23,10.1.1.4,23,-0.340,-0.340,-0.340,0.000,0.000,0.000
1643266523368376064,2022-01-27-06:55:23,10.1.1.4,43,-0.329,-0.329,-0.329,0.000,0.000,0.000
1643266523558018048,2022-01-27-06:55:23,10.1.1.4,32,-0.319,-0.319,-0.319,0.000,0.000,0.000
1643266523757469952,2022-01-27-06:55:23,10.1.1.4,31,-0.309,-0.309,-0.309,0.000,0.000,0.000
1643266523948911872,2022-01-27-06:55:23,10.1.1.4,20,-0.300,-0.300,-0.300,0.000,0.000,0.000
1643266524159056896,2022-01-27-06:55:24,10.1.1.4,29,-0.290,-0.290,-0.290,0.000,0.000,0.000
1643266524359569920,2022-01-27-06:55:24,10.1.1.4,28,-0.280,-0.280,-0.280,0.000,0.000,0.000
1643266524557944064,2022-01-27-06:55:24,10.1.1.4,25,-0.270,-0.270,-0.270,0.000,0.000,0.000
1643266524769937920,2022-01-27-06:55:24,10.1.1.4,34,-0.259,-0.259,-0.259,0.000,0.000,0.000
1643266524978162944,2022-01-27-06:55:24,10.1.1.4,40,-0.249,-0.249,-0.249,0.000,0.000,0.000
1643266525177711104,2022-01-27-06:55:25,10.1.1.4,36,-0.239,-0.239,-0.239,0.000,0.000,0.000
1643266525377377024,2022-01-27-06:55:25,10.1.1.4,34,-0.229,-0.229,-0.229,0.000,0.000,0.000
1643266525577931776,2022-01-27-06:55:25,10.1.1.4,34,-0.219,-0.219,-0.219,0.000,0.000,0.000
1643266525777762048,2022-01-27-06:55:25,10.1.1.4,32,-0.209,-0.209,-0.209,0.000,0.000,0.000
1643266525978480128,2022-01-27-06:55:25,10.1.1.4,31,-0.199,-0.199,-0.199,0.000,0.000,0.000
1643266526177619968,2022-01-27-06:55:26,10.1.1.4,28,-0.190,-0.190,-0.190,0.000,0.000,0.000
1643266526367809024,2022-01-27-06:55:26,10.1.1.4,18,-0.180,-0.180,-0.180,0.000,0.000,0.000
1643266526599469824,2022-01-27-06:55:26,10.1.1.4,49,-0.169,-0.169,-0.169,0.000,0.000,0.000
1643266526777700864,2022-01-27-06:55:26,10.1.1.4,25,-0.160,-0.160,-0.160,0.000,0.000,0.000
1643266526999119104,2022-01-27-06:55:26,10.1.1.4,45,-0.149,-0.149,-0.149,0.000,0.000,0.000
1643266527201735936,2022-01-27-06:55:27,10.1.1.4,46,-0.139,-0.139,-0.139,0.000,0.000,0.000
1643266527378999040,2022-01-27-06:55:27,10.1.1.4,22,-0.130,-0.130,-0.130,0.000,0.000,0.000
1643266527600016128,2022-01-27-06:55:27,10.1.1.4,42,-0.119,-0.119,-0.119,0.000,0.000,0.000
1643266527777790976,2022-01-27-06:55:27,10.1.1.4,18,-0.110,-0.110,-0.110,0.000,0.000,0.000
1643266527978750976,2022-01-27-06:55:27,10.1.1.4,18,-0.100,-0.100,-0.100,0.000,0.000,0.000
1643266528190104064,2022-01-27-06:55:28,10.1.1.4,28,-0.090,-0.090,-0.090,0.000,0.000,0.000
1643266528397504000,2022-01-27-06:55:28,10.1.1.4,35,-0.079,-0.079,-0.079,0.000,0.000,0.000
1643266528598010112,2022-01-27-06:55:28,10.1.1.4,34,-0.069,-0.069,-0.069,0.000,0.000,0.000
1643266528788478976,2022-01-27-06:55:28,10.1.1.4,24,-0.060,-0.060,-0.060,0.000,0.000,0.000
1643266528988424960,2022-01-27-06:55:28,10.1.1.4,24,-0.050,-0.050,-0.050,0.000,0.000,0.000
1643266529189187072,2022-01-27-06:55:29,10.1.1.4,22,-0.040,-0.040,-0.040,0.000,0.000,0.000
1643266529397731072,2022-01-27-06:55:29,10.1.1.4,31,-0.029,-0.029,-0.029,0.000,0.000,0.000
1643266529617552896,2022-01-27-06:55:29,10.1.1.4,50,-0.018,-0.018,-0.018,0.000,0.000,0.000
1643266529817720832,2022-01-27-06:55:29,10.1.1.4,46,-0.009,-0.009,-0.009,0.000,0.000,0.000
1643266529979988224,2022-01-27-06:55:29,10.1.1.4,8,-0.001,-0.001,-0.001,0.000,0.000,0.000
1643266530208301056,2022-01-27-06:55:30,10.1.1.4,31,-0.011,-0.011,-0.011,0.000,0.000,0.000
1643266530409786112,2022-01-27-06:55:30,10.1.1.4,32,-0.020,-0.020,-0.020,0.000,0.000,0.000
1643266530610694912,2022-01-27-06:55:30,10.1.1.4,30,-0.031,-0.031,-0.031,0.000,0.000,0.000
1643266530813124864,2022-01-27-06:55:30,10.1.1.4,31,-0.040,-0.040,-0.040,0.000,0.000,0.000
1643266531012686080,2022-01-27-06:55:31,10.1.1.4,29,-0.050,-0.050,-0.050,0.000,0.000,0.000
1643266531211664896,2022-01-27-06:55:31,10.1.1.4,27,-0.060,-0.060,-0.060,0.000,0.000,0.000
1643266531408932096,2022-01-27-06:55:31,10.1.1.4,23,-0.070,-0.070,-0.070,0.000,0.000,0.000
1643266531608898048,2022-01-27-06:55:31,10.1.1.4,22,-0.080,-0.080,-0.080,0.000,0.000,0.000
1643266531808166144,2022-01-27-06:55:31,10.1.1.4,19,-0.090,-0.090,-0.090,0.000,0.000,0.000
1643266532008145152,2022-01-27-06:55:32,10.1.1.4,18,-0.100,-0.100,-0.100,0.000,0.000,0.000
1643266532209393152,2022-01-27-06:55:32,10.1.1.4,19,-0.110,-0.110,-0.110,0.000,0.000,0.000
1643266532411282944,2022-01-27-06:55:32,10.1.1.4,20,-0.120,-0.120,-0.120,0.000,0.000,0.000
1643266532628092160,2022-01-27-06:55:32,10.1.1.4,35,-0.131,-0.131,-0.131,0.000,0.000,0.000
1643266532828239872,2022-01-27-06:55:32,10.1.1.4,32,-0.141,-0.141,-0.141,0.000,0.000,0.000
1643266533029891840,2022-01-27-06:55:33,10.1.1.4,32,-0.151,-0.151,-0.151,0.000,0.000,0.000
1643266533233530880,2022-01-27-06:55:33,10.1.1.4,35,-0.160,-0.160,-0.160,0.000,0.000,0.000
1643266533429174016,2022-01-27-06:55:33,10.1.1.4,29,-0.171,-0.171,-0.171,0.000,0.000,0.000
1643266533628560896,2022-01-27-06:55:33,10.1.1.4,27,-0.180,-0.180,-0.180,0.000,0.000,0.000
1643266533838200064,2022-01-27-06:55:33,10.1.1.4,35,-0.190,-0.190,-0.190,0.000,0.000,0.000
1643266534038550016,2022-01-27-06:55:34,10.1.1.4,35,-0.201,-0.201,-0.201,0.000,0.000,0.000
1643266534228961024,2022-01-27-06:55:34,10.1.1.4,25,-0.210,-0.210,-0.210,0.000,0.000,0.000
1643266534448589056,2022-01-27-06:55:34,10.1.1.4,43,-0.221,-0.221,-0.221,0.000,0.000,0.000
1643266534629105152,2022-01-27-06:55:34,10.1.1.4,22,-0.230,-0.230,-0.230,0.000,0.000,0.000
1643266534828387072,2022-01-27-06:55:34,10.1.1.4,21,-0.240,-0.240,-0.240,0.000,0.000,0.000
1643266535028708096,2022-01-27-06:55:35,10.1.1.4,20,-0.250,-0.250,-0.250,0.000,0.000,0.000
1643266535229042944,2022-01-27-06:55:35,10.1.1.4,20,-0.260,-0.260,-0.260,0.000,0.000,0.000
1643266535438568960,2022-01-27-06:55:35,10.1.1.4,28,-0.270,-0.270,-0.270,0.000,0.000,0.000
1643266535649044992,2022-01-27-06:55:35,10.1.1.4,38,-0.281,-0.281,-0.281,0.000,0.000,0.000
1643266535849059072,2022-01-27-06:55:35,10.1.1.4,36,-0.291,-0.291,-0.291,0.000,0.000,0.000
1643266536048615936,2022-01-27-06:55:36,10.1.1.4,35,-0.301,-0.301,-0.301,0.000,0.000,0.000
1643266536258043904,2022-01-27-06:55:36,10.1.1.4,43,-0.311,-0.311,-0.311,0.000,0.000,0.000
1643266536448295168,2022-01-27-06:55:36,10.1.1.4,33,-0.321,-0.321,-0.321,0.000,0.000,0.000
1643266536647468032,2022-01-27-06:55:36,10.1.1.4,31,-0.330,-0.330,-0.330,0.000,0.000,0.000
1643266536847447040,2022-01-27-06:55:36,10.1.1.4,31,-0.341,-0.341,-0.341,0.000,0.000,0.000
1643266537047802880,2022-01-27-06:55:37,10.1.1.4,30,-0.350,-0.350,-0.350,0.000,0.000,0.000
1643266537247464960,2022-01-27-06:55:37,10.1.1.4,29,-0.361,-0.361,-0.361,0.000,0.000,0.000
1643266537447923968,2022-01-27-06:55:37,10.1.1.4,29,-0.370,-0.370,-0.370,0.000,0.000,0.000
1643266537658274048,2022-01-27-06:55:37,10.1.1.4,37,-0.381,-0.381,-0.381,0.000,0.000,0.000
1643266537853245952,2022-01-27-06:55:37,10.1.1.4,32,-0.390,-0.390,-0.390,0.000,0.000,0.000
1643266538059230976,2022-01-27-06:55:38,10.1.1.4,37,-0.401,-0.401,-0.401,0.000,0.000,0.000
1643266538248229888,2022-01-27-06:55:38,10.1.1.4,26,-0.410,-0.410,-0.410,0.000,0.000,0.000
1643266538448428032,2022-01-27-06:55:38,10.1.1.4,26,-0.420,-0.420,-0.420,0.000,0.000,0.000
1643266538657654016,2022-01-27-06:55:38,10.1.1.4,34,-0.431,-0.431,-0.431,0.000,0.000,0.000
1643266538848023040,2022-01-27-06:55:38,10.1.1.4,23,-0.440,-0.440,-0.440,0.000,0.000,0.000
1643266539048305920,2022-01-27-06:55:39,10.1.1.4,22,-0.450,-0.450,-0.450,0.000,0.000,0.000
1643266539268273152,2022-01-27-06:55:39,10.1.1.4,42,-0.461,-0.461,-0.461,0.000,0.000,0.000
1643266539467922944,2022-01-27-06:55:39,10.1.1.4,40,-0.471,-0.471,-0.471,0.000,0.000,0.000
1643266539649214976,2022-01-27-06:55:39,10.1.1.4,21,-0.480,-0.480,-0.480,0.000,0.000,0.000
1643266539858961152,2022-01-27-06:55:39,10.1.1.4,28,-0.490,-0.490,-0.490,0.000,0.000,0.000
1643266540068321024,2022-01-27-06:55:40,10.1.1.4,36,-0.479,-0.479,-0.479,0.000,0.000,0.000
1643266540269268992,2022-01-27-06:55:40,10.1.1.4,36,-0.469,-0.469,-0.469,0.000,0.000,0.000
1643266540469862912,2022-01-27-06:55:40,10.1.1.4,32,-0.459,-0.459,-0.459,0.000,0.000,0.000
1643266540669108992,2022-01-27-06:55:40,10.1.1.4,29,-0.450,-0.450,-0.450,0.000,0.000,0.000
1643266540870567168,2022-01-27-06:55:40,10.1.1.4,29,-0.440,-0.440,-0.440,0.000,0.000,0.000
1643266541069251072,2022-01-27-06:55:41,10.1.1.4,27,-0.430,-0.430,-0.430,0.000,0.000,0.000
1643266541267525888,2022-01-27-06:55:41,10.1.1.4,24,-0.420,-0.420,-0.420,0.000,0.000,0.000
1643266541468157952,2022-01-27-06:55:41,10.1.1.4,24,-0.410,-0.410,-0.410,0.000,0.000,0.000
1643266541688520960,2022-01-27-06:55:41,10.1.1.4,40,-0.399,-0.399,-0.399,0.000,0.000,0.000
1643266541897953024,2022-01-27-06:55:41,10.1.1.4,49,-0.388,-0.388,-0.388,0.000,0.000,0.000
1643266542067764992,2022-01-27-06:55:42,10.1.1.4,18,-0.380,-0.380,-0.380,0.000,0.000,0.000
1643266542288204800,2022-01-27-06:55:42,10.1.1.4,37,-0.369,-0.369,-0.369,0.000,0.000,0.000
1643266542498134016,2022-01-27-06:55:42,10.1.1.4,45,-0.359,-0.359,-0.359,0.000,0.000,0.000
1643266542687586048,2022-01-27-06:55:42,10.1.1.4,33,-0.349,-0.349,-0.349,0.000,0.000,0.000
1643266542878191104,2022-01-27-06:55:42,10.1.1.4,23,-0.340,-0.340,-0.340,0.000,0.000,0.000
1643266543092457984,2022-01-27-06:55:43,10.1.1.4,34,-0.329,-0.329,-0.329,0.000,0.000,0.000
1643266543277925888,2022-01-27-06:55:43,10.1.1.4,19,-0.320,-0.320,-0.320,0.000,0.000,0.000
1643266543489878016,2022-01-27-06:55:43,10.1.1.4,30,-0.309,-0.309,-0.309,0.000,0.000,0.000
1643266543679116032,2022-01-27-06:55:43,10.1.1.4,18,-0.300,-0.300,-0.300,0.000,0.000,0.000
1643266543897787136,2022-01-27-06:55:43,10.1.1.4,34,-0.289,-0.289,-0.289,0.000,0.000,0.000
1643266544088807936,2022-01-27-06:55:44,10.1.1.4,24,-0.280,-0.280,-0.280,0.000,0.000,0.000
1643266544289125888,2022-01-27-06:55:44,10.1.1.4,20,-0.270,-0.270,-0.270,0.000,0.000,0.000
1643266544509360128,2022-01-27-06:55:44,10.1.1.4,40,-0.259,-0.259,-0.259,0.000,0.000,0.000
1643266544698551040,2022-01-27-06:55:44,10.1.1.4,27,-0.250,-0.250,-0.250,0.000,0.000,0.000
1643266544908922880,2022-01-27-06:55:44,10.1.1.4,35,-0.239,-0.239,-0.239,0.000,0.000,0.000
1643266545108450048,2022-01-27-06:55:45,10.1.1.4,33,-0.229,-0.229,-0.229,0.000,0.000,0.000
1643266545310215936,2022-01-27-06:55:45,10.1.1.4,33,-0.219,-0.219,-0.219,0.000,0.000,0.000
1643266545507500032,2022-01-27-06:55:45,10.1.1.4,29,-0.210,-0.210,-0.210,0.000,0.000,0.000
1643266545707275008,2022-01-27-06:55:45,10.1.1.4,28,-0.200,-0.200,-0.200,0.000,0.000,0.000
1643266545908077056,2022-01-27-06:55:45,10.1.1.4,27,-0.190,-0.190,-0.190,0.000,0.000,0.000
1643266546127852800,2022-01-27-06:55:46,10.1.1.4,46,-0.179,-0.179,-0.179,0.000,0.000,0.000
1643266546307632896,2022-01-27-06:55:46,10.1.1.4,25,-0.170,-0.170,-0.170,0.000,0.000,0.000
1643266546508205824,2022-01-27-06:55:46,10.1.1.4,25,-0.160,-0.160,-0.160,0.000,0.000,0.000
1643266546708857088,2022-01-27-06:55:46,10.1.1.4,24,-0.150,-0.150,-0.150,0.000,0.000,0.000
1643266546929248000,2022-01-27-06:55:46,10.1.1.4,44,-0.139,-0.139,-0.139,0.000,0.000,0.000
1643266547108200960,2022-01-27-06:55:47,10.1.1.4,22,-0.130,-0.130,-0.130,0.000,0.000,0.000
1643266547308044800,2022-01-27-06:55:47,10.1.1.4,19,-0.120,-0.120,-0.120,0.000,0.000,0.000
1643266547512728064,2022-01-27-06:55:47,10.1.1.4,21,-0.110,-0.110,-0.110,0.000,0.000,0.000
1643266547727678976,2022-01-27-06:55:47,10.1.1.4,35,-0.099,-0.099,-0.099,0.000,0.000,0.000
1643266547928421888,2022-01-27-06:55:47,10.1.1.4,34,-0.089,-0.089,-0.089,0.000,0.000,0.000
1643266548127662848,2022-01-27-06:55:48,10.1.1.4,32,-0.079,-0.079,-0.079,0.000,0.000,0.000
1643266548328228864,2022-01-27-06:55:48,10.1.1.4,32,-0.069,-0.069,-0.069,0.000,0.000,0.000
1643266548528367872,2022-01-27-06:55:48,10.1.1.4,32,-0.060,-0.060,-0.060,0.000,0.000,0.000
1643266548728827904,2022-01-27-06:55:48,10.1.1.4,29,-0.049,-0.049,-0.049,0.000,0.000,0.000
1643266548928417024,2022-01-27-06:55:48,10.1.1.4,28,-0.039,-0.039,-0.039,0.000,0.000,0.000
1643266549128806144,2022-01-27-06:55:49,10.1.1.4,27,-0.030,-0.030,-0.030,0.000,0.000,0.000
1643266549328504064,2022-01-27-06:55:49,10.1.1.4,24,-0.020,-0.020,-0.020,0.000,0.000,0.000
1643266549539334912,2022-01-27-06:55:49,10.1.1.4,34,-0.009,-0.009,-0.009,0.000,0.000,0.000
1643266549708745984,2022-01-27-06:55:49,10.1.1.4,2,-0.001,-0.001,-0.001,0.000,0.000,0.000
1643266549909445120,2022-01-27-06:55:49,10.1.1.4,-1,-0.009,-0.009,-0.009,0.000,0.000,0.000
1643266550129276928,2022-01-27-06:55:50,10.1.1.4,19,-0.020,-0.020,-0.020,0.000,0.000,0.000
1643266550349209088,2022-01-27-06:55:50,10.1.1.4,38,-0.030,-0.030,-0.030,0.000,0.000,0.000
1643266550548465920,2022-01-27-06:55:50,10.1.1.4,37,-0.041,-0.041,-0.041,0.000,0.000,0.000
1643266550748909056,2022-01-27-06:55:50,10.1.1.4,35,-0.051,-0.051,-0.051,0.000,0.000,0.000
1643266550949476864,2022-01-27-06:55:50,10.1.1.4,35,-0.061,-0.061,-0.061,0.000,0.000,0.000
1643266551148678912,2022-01-27-06:55:51,10.1.1.4,29,-0.071,-0.071,-0.071,0.000,0.000,0.000
1643266551349308928,2022-01-27-06:55:51,10.1.1.4,28,-0.081,-0.081,-0.081,0.000,0.000,0.000
