FedericoMungari/DigitalTwin_service/01_WiredScenario/Output/Output_script/script_rosapi_2_output_robots4_freq0_4.txt
timestamp,date,node,latency,joint_1,joint_2,joint_3,joint_4,joint_5,joint_6
1643266332768064000,2022-01-27-06:52:12,10.1.1.5,39,-0.011,-0.011,-0.011,0.000,0.000,0.000
1643266332950419968,2022-01-27-06:52:12,10.1.1.5,21,-0.020,-0.020,-0.020,0.000,0.000,0.000
1643266333150151936,2022-01-27-06:52:13,10.1.1.5,20,-0.030,-0.030,-0.030,0.000,0.000,0.000
1643266333356240128,2022-01-27-06:52:13,10.1.1.5,23,-0.040,-0.040,-0.040,0.000,0.000,0.000
1643266333555833088,2022-01-27-06:52:13,10.1.1.5,22,-0.050,-0.050,-0.050,0.000,0.000,0.000
1643266333786798080,2022-01-27-06:52:13,10.1.1.5,52,-0.062,-0.062,-0.062,0.000,0.000,0.000
1643266333965893888,2022-01-27-06:52:13,10.1.1.5,31,-0.071,-0.071,-0.071,0.000,0.000,0.000
1643266334157177856,2022-01-27-06:52:14,10.1.1.5,21,-0.080,-0.080,-0.080,0.000,0.000,0.000
1643266334368099072,2022-01-27-06:52:14,10.1.1.5,31,-0.090,-0.090,-0.090,0.000,0.000,0.000
1643266334557051904,2022-01-27-06:52:14,10.1.1.5,19,-0.100,-0.100,-0.100,0.000,0.000,0.000
1643266334770939136,2022-01-27-06:52:14,10.1.1.5,32,-0.110,-0.110,-0.110,0.000,0.000,0.000
1643266334969569024,2022-01-27-06:52:14,10.1.1.5,28,-0.120,-0.120,-0.120,0.000,0.000,0.000
1643266335169833984,2022-01-27-06:52:15,10.1.1.5,26,-0.130,-0.130,-0.130,0.000,0.000,0.000
1643266335368257024,2022-01-27-06:52:15,10.1.1.5,25,-0.140,-0.140,-0.140,0.000,0.000,0.000
1643266335577208064,2022-01-27-06:52:15,10.1.1.5,33,-0.151,-0.151,-0.151,0.000,0.000,0.000
1643266335776942080,2022-01-27-06:52:15,10.1.1.5,31,-0.161,-0.161,-0.161,0.000,0.000,0.000
1643266335967896064,2022-01-27-06:52:15,10.1.1.5,20,-0.170,-0.170,-0.170,0.000,0.000,0.000
1643266336176384000,2022-01-27-06:52:16,10.1.1.5,28,-0.181,-0.181,-0.181,0.000,0.000,0.000
1643266336376244992,2022-01-27-06:52:16,10.1.1.5,26,-0.190,-0.190,-0.190,0.000,0.000,0.000
1643266336586532096,2022-01-27-06:52:16,10.1.1.5,36,-0.201,-0.201,-0.201,0.000,0.000,0.000
1643266336777199104,2022-01-27-06:52:16,10.1.1.5,26,-0.210,-0.210,-0.210,0.000,0.000,0.000
1643266336987698944,2022-01-27-06:52:16,10.1.1.5,33,-0.221,-0.221,-0.221,0.000,0.000,0.000
1643266337186819072,2022-01-27-06:52:17,10.1.1.5,32,-0.231,-0.231,-0.231,0.000,0.000,0.000
1643266337389249024,2022-01-27-06:52:17,10.1.1.5,34,-0.241,-0.241,-0.241,0.000,0.000,0.000
1643266337577581056,2022-01-27-06:52:17,10.1.1.5,21,-0.250,-0.250,-0.250,0.000,0.000,0.000
1643266337788137984,2022-01-27-06:52:17,10.1.1.5,29,-0.261,-0.261,-0.261,0.000,0.000,0.000
1643266337986470912,2022-01-27-06:52:17,10.1.1.5,29,-0.271,-0.271,-0.271,0.000,0.000,0.000
1643266338187699968,2022-01-27-06:52:18,10.1.1.5,29,-0.281,-0.281,-0.281,0.000,0.000,0.000
1643266338386630144,2022-01-27-06:52:18,10.1.1.5,27,-0.291,-0.291,-0.291,0.000,0.000,0.000
1643266338587604992,2022-01-27-06:52:18,10.1.1.5,27,-0.300,-0.300,-0.300,0.000,0.000,0.000
1643266338806423808,2022-01-27-06:52:18,10.1.1.5,43,-0.311,-0.311,-0.311,0.000,0.000,0.000
1643266339005918976,2022-01-27-06:52:19,10.1.1.5,41,-0.321,-0.321,-0.321,0.000,0.000,0.000
1643266339206862848,2022-01-27-06:52:19,10.1.1.5,41,-0.331,-0.331,-0.331,0.000,0.000,0.000
1643266339386167040,2022-01-27-06:52:19,10.1.1.5,17,-0.340,-0.340,-0.340,0.000,0.000,0.000
1643266339605783040,2022-01-27-06:52:19,10.1.1.5,35,-0.351,-0.351,-0.351,0.000,0.000,0.000
1643266339806560000,2022-01-27-06:52:19,10.1.1.5,35,-0.361,-0.361,-0.361,0.000,0.000,0.000
1643266340007059200,2022-01-27-06:52:20,10.1.1.5,35,-0.371,-0.371,-0.371,0.000,0.000,0.000
1643266340197161984,2022-01-27-06:52:20,10.1.1.5,22,-0.380,-0.380,-0.380,0.000,0.000,0.000
1643266340406400000,2022-01-27-06:52:20,10.1.1.5,29,-0.391,-0.391,-0.391,0.000,0.000,0.000
1643266340605815040,2022-01-27-06:52:20,10.1.1.5,28,-0.401,-0.401,-0.401,0.000,0.000,0.000
1643266340805690112,2022-01-27-06:52:20,10.1.1.5,27,-0.411,-0.411,-0.411,0.000,0.000,0.000
1643266341005903104,2022-01-27-06:52:21,10.1.1.5,25,-0.420,-0.420,-0.420,0.000,0.000,0.000
1643266341206609920,2022-01-27-06:52:21,10.1.1.5,25,-0.430,-0.430,-0.430,0.000,0.000,0.000
1643266341407488000,2022-01-27-06:52:21,10.1.1.5,25,-0.440,-0.440,-0.440,0.000,0.000,0.000
1643266341627849216,2022-01-27-06:52:21,10.1.1.5,44,-0.451,-0.451,-0.451,0.000,0.000,0.000
1643266341826572032,2022-01-27-06:52:21,10.1.1.5,39,-0.461,-0.461,-0.461,0.000,0.000,0.000
1643266342029225216,2022-01-27-06:52:22,10.1.1.5,39,-0.471,-0.471,-0.471,0.000,0.000,0.000
1643266342228192000,2022-01-27-06:52:22,10.1.1.5,38,-0.481,-0.481,-0.481,0.000,0.000,0.000
1643266342393600000,2022-01-27-06:52:22,10.1.1.5,2,-0.489,-0.489,-0.489,0.000,0.000,0.000
1643266342630804992,2022-01-27-06:52:22,10.1.1.5,37,-0.479,-0.479,-0.479,0.000,0.000,0.000
1643266342846718976,2022-01-27-06:52:22,10.1.1.5,52,-0.468,-0.468,-0.468,0.000,0.000,0.000
1643266343028180992,2022-01-27-06:52:23,10.1.1.5,32,-0.459,-0.459,-0.459,0.000,0.000,0.000
1643266343236844032,2022-01-27-06:52:23,10.1.1.5,40,-0.449,-0.449,-0.449,0.000,0.000,0.000
1643266343428380928,2022-01-27-06:52:23,10.1.1.5,29,-0.440,-0.440,-0.440,0.000,0.000,0.000
1643266343637612032,2022-01-27-06:52:23,10.1.1.5,36,-0.429,-0.429,-0.429,0.000,0.000,0.000
1643266343836503040,2022-01-27-06:52:23,10.1.1.5,35,-0.419,-0.419,-0.419,0.000,0.000,0.000
1643266344035597056,2022-01-27-06:52:24,10.1.1.5,33,-0.409,-0.409,-0.409,0.000,0.000,0.000
1643266344227467008,2022-01-27-06:52:24,10.1.1.5,23,-0.400,-0.400,-0.400,0.000,0.000,0.000
1643266344446191104,2022-01-27-06:52:24,10.1.1.5,41,-0.389,-0.389,-0.389,0.000,0.000,0.000
1643266344647298048,2022-01-27-06:52:24,10.1.1.5,41,-0.379,-0.379,-0.379,0.000,0.000,0.000
1643266344840432896,2022-01-27-06:52:24,10.1.1.5,33,-0.369,-0.369,-0.369,0.000,0.000,0.000
1643266345047234048,2022-01-27-06:52:25,10.1.1.5,37,-0.359,-0.359,-0.359,0.000,0.000,0.000
1643266345248275968,2022-01-27-06:52:25,10.1.1.5,34,-0.349,-0.349,-0.349,0.000,0.000,0.000
1643266345447323136,2022-01-27-06:52:25,10.1.1.5,32,-0.339,-0.339,-0.339,0.000,0.000,0.000
1643266345647644160,2022-01-27-06:52:25,10.1.1.5,32,-0.329,-0.329,-0.329,0.000,0.000,0.000
1643266345847028992,2022-01-27-06:52:25,10.1.1.5,30,-0.319,-0.319,-0.319,0.000,0.000,0.000
1643266346047180800,2022-01-27-06:52:26,10.1.1.5,29,-0.310,-0.310,-0.310,0.000,0.000,0.000
1643266346248094208,2022-01-27-06:52:26,10.1.1.5,30,-0.299,-0.299,-0.299,0.000,0.000,0.000
1643266346447752960,2022-01-27-06:52:26,10.1.1.5,28,-0.290,-0.290,-0.290,0.000,0.000,0.000
1643266346647881984,2022-01-27-06:52:26,10.1.1.5,27,-0.280,-0.280,-0.280,0.000,0.000,0.000
1643266346846172928,2022-01-27-06:52:26,10.1.1.5,24,-0.270,-0.270,-0.270,0.000,0.000,0.000
1643266347057181952,2022-01-27-06:52:27,10.1.1.5,34,-0.259,-0.259,-0.259,0.000,0.000,0.000
1643266347257575936,2022-01-27-06:52:27,10.1.1.5,34,-0.249,-0.249,-0.249,0.000,0.000,0.000
1643266347466716160,2022-01-27-06:52:27,10.1.1.5,41,-0.239,-0.239,-0.239,0.000,0.000,0.000
1643266347665776128,2022-01-27-06:52:27,10.1.1.5,39,-0.229,-0.229,-0.229,0.000,0.000,0.000
1643266347857604096,2022-01-27-06:52:27,10.1.1.5,29,-0.220,-0.220,-0.220,0.000,0.000,0.000
1643266348068762112,2022-01-27-06:52:28,10.1.1.5,38,-0.209,-0.209,-0.209,0.000,0.000,0.000
1643266348268914944,2022-01-27-06:52:28,10.1.1.5,37,-0.199,-0.199,-0.199,0.000,0.000,0.000
1643266348458128896,2022-01-27-06:52:28,10.1.1.5,27,-0.190,-0.190,-0.190,0.000,0.000,0.000
1643266348656215808,2022-01-27-06:52:28,10.1.1.5,24,-0.180,-0.180,-0.180,0.000,0.000,0.000
1643266348858160128,2022-01-27-06:52:28,10.1.1.5,25,-0.170,-0.170,-0.170,0.000,0.000,0.000
1643266349067816960,2022-01-27-06:52:29,10.1.1.5,33,-0.159,-0.159,-0.159,0.000,0.000,0.000
1643266349287499008,2022-01-27-06:52:29,10.1.1.5,52,-0.148,-0.148,-0.148,0.000,0.000,0.000
1643266349477956096,2022-01-27-06:52:29,10.1.1.5,40,-0.139,-0.139,-0.139,0.000,0.000,0.000
1643266349656625920,2022-01-27-06:52:29,10.1.1.5,19,-0.130,-0.130,-0.130,0.000,0.000,0.000
1643266349856313088,2022-01-27-06:52:29,10.1.1.5,18,-0.120,-0.120,-0.120,0.000,0.000,0.000
1643266350056736000,2022-01-27-06:52:30,10.1.1.5,17,-0.110,-0.110,-0.110,0.000,0.000,0.000
1643266350257186816,2022-01-27-06:52:30,10.1.1.5,17,-0.100,-0.100,-0.100,0.000,0.000,0.000
1643266350469274112,2022-01-27-06:52:30,10.1.1.5,28,-0.090,-0.090,-0.090,0.000,0.000,0.000
1643266350689230848,2022-01-27-06:52:30,10.1.1.5,47,-0.079,-0.079,-0.079,0.000,0.000,0.000
1643266350868153088,2022-01-27-06:52:30,10.1.1.5,24,-0.070,-0.070,-0.070,0.000,0.000,0.000
1643266351077158912,2022-01-27-06:52:31,10.1.1.5,33,-0.059,-0.059,-0.059,0.000,0.000,0.000
1643266351287480064,2022-01-27-06:52:31,10.1.1.5,42,-0.049,-0.049,-0.049,0.000,0.000,0.000
1643266351477950208,2022-01-27-06:52:31,10.1.1.5,31,-0.040,-0.040,-0.040,0.000,0.000,0.000
1643266351686923008,2022-01-27-06:52:31,10.1.1.5,38,-0.029,-0.029,-0.029,0.000,0.000,0.000
1643266351888922880,2022-01-27-06:52:31,10.1.1.5,39,-0.019,-0.019,-0.019,0.000,0.000,0.000
1643266352088291840,2022-01-27-06:52:32,10.1.1.5,36,-0.009,-0.009,-0.009,0.000,0.000,0.000
1643266352267652096,2022-01-27-06:52:32,10.1.1.5,15,-0.000,-0.000,-0.000,0.000,0.000,0.000
1643266352506416128,2022-01-27-06:52:32,10.1.1.5,53,-0.012,-0.012,-0.012,0.000,0.000,0.000
1643266352697740032,2022-01-27-06:52:32,10.1.1.5,42,-0.021,-0.021,-0.021,0.000,0.000,0.000
1643266352880688896,2022-01-27-06:52:32,10.1.1.5,24,-0.030,-0.030,-0.030,0.000,0.000,0.000
1643266353077223936,2022-01-27-06:52:33,10.1.1.5,19,-0.040,-0.040,-0.040,0.000,0.000,0.000
1643266353276417024,2022-01-27-06:52:33,10.1.1.5,18,-0.050,-0.050,-0.050,0.000,0.000,0.000
1643266353490045184,2022-01-27-06:52:33,10.1.1.5,30,-0.061,-0.061,-0.061,0.000,0.000,0.000
1643266353688070144,2022-01-27-06:52:33,10.1.1.5,28,-0.070,-0.070,-0.070,0.000,0.000,0.000
1643266353886866176,2022-01-27-06:52:33,10.1.1.5,24,-0.080,-0.080,-0.080,0.000,0.000,0.000
1643266354088601088,2022-01-27-06:52:34,10.1.1.5,24,-0.090,-0.090,-0.090,0.000,0.000,0.000
1643266354286887936,2022-01-27-06:52:34,10.1.1.5,20,-0.100,-0.100,-0.100,0.000,0.000,0.000
1643266354498289152,2022-01-27-06:52:34,10.1.1.5,31,-0.111,-0.111,-0.111,0.000,0.000,0.000
1643266354696361984,2022-01-27-06:52:34,10.1.1.5,28,-0.121,-0.121,-0.121,0.000,0.000,0.000
1643266354896903936,2022-01-27-06:52:34,10.1.1.5,28,-0.130,-0.130,-0.130,0.000,0.000,0.000
1643266355108103936,2022-01-27-06:52:35,10.1.1.5,38,-0.141,-0.141,-0.141,0.000,0.000,0.000
1643266355296438016,2022-01-27-06:52:35,10.1.1.5,26,-0.150,-0.150,-0.150,0.000,0.000,0.000
1643266355507145984,2022-01-27-06:52:35,10.1.1.5,36,-0.161,-0.161,-0.161,0.000,0.000,0.000
1643266355699049984,2022-01-27-06:52:35,10.1.1.5,26,-0.170,-0.170,-0.170,0.000,0.000,0.000
1643266355926296064,2022-01-27-06:52:35,10.1.1.5,52,-0.182,-0.182,-0.182,0.000,0.000,0.000
1643266356126799104,2022-01-27-06:52:36,10.1.1.5,52,-0.192,-0.192,-0.192,0.000,0.000,0.000
1643266356307763200,2022-01-27-06:52:36,10.1.1.5,32,-0.201,-0.201,-0.201,0.000,0.000,0.000
1643266356506108160,2022-01-27-06:52:36,10.1.1.5,29,-0.211,-0.211,-0.211,0.000,0.000,0.000
1643266356706311936,2022-01-27-06:52:36,10.1.1.5,29,-0.221,-0.221,-0.221,0.000,0.000,0.000
1643266356908046848,2022-01-27-06:52:36,10.1.1.5,29,-0.231,-0.231,-0.231,0.000,0.000,0.000
1643266357109146112,2022-01-27-06:52:37,10.1.1.5,29,-0.240,-0.240,-0.240,0.000,0.000,0.000
1643266357309742848,2022-01-27-06:52:37,10.1.1.5,29,-0.250,-0.250,-0.250,0.000,0.000,0.000
1643266357509207040,2022-01-27-06:52:37,10.1.1.5,27,-0.260,-0.260,-0.260,0.000,0.000,0.000
1643266357709049088,2022-01-27-06:52:37,10.1.1.5,26,-0.270,-0.270,-0.270,0.000,0.000,0.000
1643266357905788928,2022-01-27-06:52:37,10.1.1.5,22,-0.280,-0.280,-0.280,0.000,0.000,0.000
1643266358127140096,2022-01-27-06:52:38,10.1.1.5,42,-0.291,-0.291,-0.291,0.000,0.000,0.000
1643266358309555968,2022-01-27-06:52:38,10.1.1.5,23,-0.300,-0.300,-0.300,0.000,0.000,0.000
1643266358529006848,2022-01-27-06:52:38,10.1.1.5,42,-0.311,-0.311,-0.311,0.000,0.000,0.000
1643266358727334144,2022-01-27-06:52:38,10.1.1.5,39,-0.321,-0.321,-0.321,0.000,0.000,0.000
1643266358928081152,2022-01-27-06:52:38,10.1.1.5,39,-0.331,-0.331,-0.331,0.000,0.000,0.000
1643266359126522112,2022-01-27-06:52:39,10.1.1.5,36,-0.341,-0.341,-0.341,0.000,0.000,0.000
1643266359326462976,2022-01-27-06:52:39,10.1.1.5,30,-0.350,-0.350,-0.350,0.000,0.000,0.000
1643266359526519040,2022-01-27-06:52:39,10.1.1.5,28,-0.361,-0.361,-0.361,0.000,0.000,0.000
1643266359727092992,2022-01-27-06:52:39,10.1.1.5,28,-0.370,-0.370,-0.370,0.000,0.000,0.000
1643266359926575872,2022-01-27-06:52:39,10.1.1.5,26,-0.380,-0.380,-0.380,0.000,0.000,0.000
1643266360127453952,2022-01-27-06:52:40,10.1.1.5,26,-0.390,-0.390,-0.390,0.000,0.000,0.000
1643266360327065088,2022-01-27-06:52:40,10.1.1.5,25,-0.400,-0.400,-0.400,0.000,0.000,0.000
1643266360529478912,2022-01-27-06:52:40,10.1.1.5,26,-0.410,-0.410,-0.410,0.000,0.000,0.000
1643266360747657984,2022-01-27-06:52:40,10.1.1.5,41,-0.421,-0.421,-0.421,0.000,0.000,0.000
1643266360945838848,2022-01-27-06:52:40,10.1.1.5,39,-0.431,-0.431,-0.431,0.000,0.000,0.000
1643266361147599872,2022-01-27-06:52:41,10.1.1.5,40,-0.441,-0.441,-0.441,0.000,0.000,0.000
1643266361347731200,2022-01-27-06:52:41,10.1.1.5,37,-0.451,-0.451,-0.451,0.000,0.000,0.000
1643266361548659200,2022-01-27-06:52:41,10.1.1.5,36,-0.461,-0.461,-0.461,0.000,0.000,0.000
1643266361737191936,2022-01-27-06:52:41,10.1.1.5,26,-0.470,-0.470,-0.470,0.000,0.000,0.000
1643266361949935872,2022-01-27-06:52:41,10.1.1.5,35,-0.481,-0.481,-0.481,0.000,0.000,0.000
1643266362127759104,2022-01-27-06:52:42,10.1.1.5,10,-0.490,-0.490,-0.490,0.000,0.000,0.000
1643266362356216064,2022-01-27-06:52:42,10.1.1.5,40,-0.479,-0.479,-0.479,0.000,0.000,0.000
1643266362546923008,2022-01-27-06:52:42,10.1.1.5,29,-0.469,-0.469,-0.469,0.000,0.000,0.000
1643266362736873984,2022-01-27-06:52:42,10.1.1.5,17,-0.460,-0.460,-0.460,0.000,0.000,0.000
1643266362967286016,2022-01-27-06:52:42,10.1.1.5,47,-0.449,-0.449,-0.449,0.000,0.000,0.000
1643266363148104960,2022-01-27-06:52:43,10.1.1.5,26,-0.440,-0.440,-0.440,0.000,0.000,0.000
1643266363368557056,2022-01-27-06:52:43,10.1.1.5,42,-0.429,-0.429,-0.429,0.000,0.000,0.000
1643266363567298816,2022-01-27-06:52:43,10.1.1.5,40,-0.419,-0.419,-0.419,0.000,0.000,0.000
1643266363766388992,2022-01-27-06:52:43,10.1.1.5,37,-0.409,-0.409,-0.409,0.000,0.000,0.000
1643266363947529984,2022-01-27-06:52:43,10.1.1.5,18,-0.400,-0.400,-0.400,0.000,0.000,0.000
1643266364158280960,2022-01-27-06:52:44,10.1.1.5,26,-0.390,-0.390,-0.390,0.000,0.000,0.000
1643266364374407168,2022-01-27-06:52:44,10.1.1.5,35,-0.379,-0.379,-0.379,0.000,0.000,0.000
1643266364573244928,2022-01-27-06:52:44,10.1.1.5,40,-0.369,-0.369,-0.369,0.000,0.000,0.000
1643266364766680064,2022-01-27-06:52:44,10.1.1.5,33,-0.359,-0.359,-0.359,0.000,0.000,0.000
1643266364969160192,2022-01-27-06:52:44,10.1.1.5,32,-0.349,-0.349,-0.349,0.000,0.000,0.000
1643266365159156992,2022-01-27-06:52:45,10.1.1.5,21,-0.340,-0.340,-0.340,0.000,0.000,0.000
1643266365369959168,2022-01-27-06:52:45,10.1.1.5,27,-0.330,-0.330,-0.330,0.000,0.000,0.000
1643266365567332096,2022-01-27-06:52:45,10.1.1.5,27,-0.320,-0.320,-0.320,0.000,0.000,0.000
1643266365778234880,2022-01-27-06:52:45,10.1.1.5,37,-0.309,-0.309,-0.309,0.000,0.000,0.000
1643266365989927168,2022-01-27-06:52:45,10.1.1.5,44,-0.299,-0.299,-0.299,0.000,0.000,0.000
1643266366186550016,2022-01-27-06:52:46,10.1.1.5,44,-0.289,-0.289,-0.289,0.000,0.000,0.000
1643266366377859072,2022-01-27-06:52:46,10.1.1.5,33,-0.279,-0.279,-0.279,0.000,0.000,0.000
1643266366576625152,2022-01-27-06:52:46,10.1.1.5,30,-0.269,-0.269,-0.269,0.000,0.000,0.000
1643266366777249024,2022-01-27-06:52:46,10.1.1.5,28,-0.259,-0.259,-0.259,0.000,0.000,0.000
1643266366989479936,2022-01-27-06:52:46,10.1.1.5,40,-0.249,-0.249,-0.249,0.000,0.000,0.000
1643266367179495936,2022-01-27-06:52:47,10.1.1.5,28,-0.240,-0.240,-0.240,0.000,0.000,0.000
1643266367387411200,2022-01-27-06:52:47,10.1.1.5,35,-0.229,-0.229,-0.229,0.000,0.000,0.000
1643266367577050880,2022-01-27-06:52:47,10.1.1.5,22,-0.220,-0.220,-0.220,0.000,0.000,0.000
1643266367793276160,2022-01-27-06:52:47,10.1.1.5,36,-0.209,-0.209,-0.209,0.000,0.000,0.000
1643266367989604864,2022-01-27-06:52:47,10.1.1.5,31,-0.199,-0.199,-0.199,0.000,0.000,0.000
1643266368187431936,2022-01-27-06:52:48,10.1.1.5,27,-0.190,-0.190,-0.190,0.000,0.000,0.000
1643266368388602112,2022-01-27-06:52:48,10.1.1.5,26,-0.180,-0.180,-0.180,0.000,0.000,0.000
1643266368596388096,2022-01-27-06:52:48,10.1.1.5,33,-0.169,-0.169,-0.169,0.000,0.000,0.000
1643266368808217088,2022-01-27-06:52:48,10.1.1.5,44,-0.159,-0.159,-0.159,0.000,0.000,0.000
1643266368996748800,2022-01-27-06:52:48,10.1.1.5,31,-0.149,-0.149,-0.149,0.000,0.000,0.000
1643266369188092928,2022-01-27-06:52:49,10.1.1.5,19,-0.140,-0.140,-0.140,0.000,0.000,0.000
1643266369386221824,2022-01-27-06:52:49,10.1.1.5,18,-0.130,-0.130,-0.130,0.000,0.000,0.000
1643266369607702016,2022-01-27-06:52:49,10.1.1.5,37,-0.119,-0.119,-0.119,0.000,0.000,0.000
1643266369797302016,2022-01-27-06:52:49,10.1.1.5,23,-0.110,-0.110,-0.110,0.000,0.000,0.000
1643266370007250944,2022-01-27-06:52:50,10.1.1.5,33,-0.099,-0.099,-0.099,0.000,0.000,0.000
1643266370197928960,2022-01-27-06:52:50,10.1.1.5,21,-0.090,-0.090,-0.090,0.000,0.000,0.000
1643266370397851904,2022-01-27-06:52:50,10.1.1.5,21,-0.080,-0.080,-0.080,0.000,0.000,0.000
1643266370605609984,2022-01-27-06:52:50,10.1.1.5,28,-0.069,-0.069,-0.069,0.000,0.000,0.000
1643266370808549888,2022-01-27-06:52:50,10.1.1.5,30,-0.059,-0.059,-0.059,0.000,0.000,0.000
1643266371005999104,2022-01-27-06:52:51,10.1.1.5,27,-0.050,-0.050,-0.050,0.000,0.000,0.000
1643266371210097152,2022-01-27-06:52:51,10.1.1.5,29,-0.040,-0.040,-0.040,0.000,0.000,0.000
1643266371406748928,2022-01-27-06:52:51,10.1.1.5,26,-0.030,-0.030,-0.030,0.000,0.000,0.000
1643266371606999040,2022-01-27-06:52:51,10.1.1.5,21,-0.020,-0.020,-0.020,0.000,0.000,0.000
1643266371807387136,2022-01-27-06:52:51,10.1.1.5,21,-0.010,-0.010,-0.010,0.000,0.000,0.000
1643266372026503168,2022-01-27-06:52:52,10.1.1.5,39,-0.001,-0.001,-0.001,0.000,0.000,0.000
1643266372225904896,2022-01-27-06:52:52,10.1.1.5,37,-0.011,-0.011,-0.011,0.000,0.000,0.000
1643266372416902144,2022-01-27-06:52:52,10.1.1.5,25,-0.020,-0.020,-0.020,0.000,0.000,0.000
1643266372647270912,2022-01-27-06:52:52,10.1.1.5,54,-0.032,-0.032,-0.032,0.000,0.000,0.000
1643266372827032064,2022-01-27-06:52:52,10.1.1.5,32,-0.041,-0.041,-0.041,0.000,0.000,0.000
1643266373026361856,2022-01-27-06:52:53,10.1.1.5,30,-0.051,-0.051,-0.051,0.000,0.000,0.000
1643266373225837056,2022-01-27-06:52:53,10.1.1.5,29,-0.061,-0.061,-0.061,0.000,0.000,0.000
1643266373426004992,2022-01-27-06:52:53,10.1.1.5,28,-0.071,-0.071,-0.071,0.000,0.000,0.000
1643266373626547200,2022-01-27-06:52:53,10.1.1.5,27,-0.080,-0.080,-0.080,0.000,0.000,0.000
1643266373827322880,2022-01-27-06:52:53,10.1.1.5,28,-0.090,-0.090,-0.090,0.000,0.000,0.000
1643266374017560832,2022-01-27-06:52:54,10.1.1.5,16,-0.100,-0.100,-0.100,0.000,0.000,0.000
1643266374226439936,2022-01-27-06:52:54,10.1.1.5,24,-0.110,-0.110,-0.110,0.000,0.000,0.000
1643266374427595008,2022-01-27-06:52:54,10.1.1.5,23,-0.120,-0.120,-0.120,0.000,0.000,0.000
1643266374627804928,2022-01-27-06:52:54,10.1.1.5,22,-0.130,-0.130,-0.130,0.000,0.000,0.000
1643266374847353856,2022-01-27-06:52:54,10.1.1.5,35,-0.141,-0.141,-0.141,0.000,0.000,0.000
1643266375046493952,2022-01-27-06:52:55,10.1.1.5,34,-0.151,-0.151,-0.151,0.000,0.000,0.000
1643266375247545856,2022-01-27-06:52:55,10.1.1.5,32,-0.161,-0.161,-0.161,0.000,0.000,0.000
1643266375446334976,2022-01-27-06:52:55,10.1.1.5,32,-0.171,-0.171,-0.171,0.000,0.000,0.000
1643266375646523904,2022-01-27-06:52:55,10.1.1.5,31,-0.181,-0.181,-0.181,0.000,0.000,0.000
1643266375849879040,2022-01-27-06:52:55,10.1.1.5,34,-0.191,-0.191,-0.191,0.000,0.000,0.000
1643266376048398080,2022-01-27-06:52:56,10.1.1.5,32,-0.201,-0.201,-0.201,0.000,0.000,0.000
1643266376247744000,2022-01-27-06:52:56,10.1.1.5,31,-0.211,-0.211,-0.211,0.000,0.000,0.000
1643266376446338816,2022-01-27-06:52:56,10.1.1.5,28,-0.221,-0.221,-0.221,0.000,0.000,0.000
1643266376648391936,2022-01-27-06:52:56,10.1.1.5,29,-0.231,-0.231,-0.231,0.000,0.000,0.000
1643266376848086016,2022-01-27-06:52:56,10.1.1.5,28,-0.240,-0.240,-0.240,0.000,0.000,0.000
1643266377047657984,2022-01-27-06:52:57,10.1.1.5,26,-0.250,-0.250,-0.250,0.000,0.000,0.000
1643266377246915072,2022-01-27-06:52:57,10.1.1.5,25,-0.260,-0.260,-0.260,0.000,0.000,0.000
1643266377447815936,2022-01-27-06:52:57,10.1.1.5,25,-0.270,-0.270,-0.270,0.000,0.000,0.000
1643266377666068992,2022-01-27-06:52:57,10.1.1.5,42,-0.281,-0.281,-0.281,0.000,0.000,0.000
1643266377847762176,2022-01-27-06:52:57,10.1.1.5,23,-0.290,-0.290,-0.290,0.000,0.000,0.000
1643266378067056896,2022-01-27-06:52:58,10.1.1.5,41,-0.301,-0.301,-0.301,0.000,0.000,0.000
1643266378268604160,2022-01-27-06:52:58,10.1.1.5,40,-0.311,-0.311,-0.311,0.000,0.000,0.000
1643266378456315904,2022-01-27-06:52:58,10.1.1.5,26,-0.320,-0.320,-0.320,0.000,0.000,0.000
1643266378667614976,2022-01-27-06:52:58,10.1.1.5,36,-0.331,-0.331,-0.331,0.000,0.000,0.000
1643266378866471168,2022-01-27-06:52:58,10.1.1.5,32,-0.341,-0.341,-0.341,0.000,0.000,0.000
1643266379086631936,2022-01-27-06:52:59,10.1.1.5,50,-0.352,-0.352,-0.352,0.000,0.000,0.000
1643266379269048064,2022-01-27-06:52:59,10.1.1.5,32,-0.361,-0.361,-0.361,0.000,0.000,0.000
1643266379467917824,2022-01-27-06:52:59,10.1.1.5,29,-0.371,-0.371,-0.371,0.000,0.000,0.000
1643266379676812032,2022-01-27-06:52:59,10.1.1.5,36,-0.381,-0.381,-0.381,0.000,0.000,0.000
1643266379867102976,2022-01-27-06:52:59,10.1.1.5,25,-0.390,-0.390,-0.390,0.000,0.000,0.000
1643266380067902208,2022-01-27-06:53:00,10.1.1.5,26,-0.400,-0.400,-0.400,0.000,0.000,0.000
1643266380277175040,2022-01-27-06:53:00,10.1.1.5,34,-0.411,-0.411,-0.411,0.000,0.000,0.000
1643266380467761152,2022-01-27-06:53:00,10.1.1.5,24,-0.420,-0.420,-0.420,0.000,0.000,0.000
1643266380676381952,2022-01-27-06:53:00,10.1.1.5,32,-0.431,-0.431,-0.431,0.000,0.000,0.000
1643266380866416896,2022-01-27-06:53:00,10.1.1.5,20,-0.440,-0.440,-0.440,0.000,0.000,0.000
1643266381070382080,2022-01-27-06:53:01,10.1.1.5,23,-0.450,-0.450,-0.450,0.000,0.000,0.000
1643266381287883008,2022-01-27-06:53:01,10.1.1.5,38,-0.461,-0.461,-0.461,0.000,0.000,0.000
1643266381476702976,2022-01-27-06:53:01,10.1.1.5,26,-0.470,-0.470,-0.470,0.000,0.000,0.000
1643266381687305984,2022-01-27-06:53:01,10.1.1.5,35,-0.481,-0.481,-0.481,0.000,0.000,0.000
1643266381857625856,2022-01-27-06:53:01,10.1.1.5,3,-0.489,-0.489,-0.489,0.000,0.000,0.000
1643266382087228928,2022-01-27-06:53:02,10.1.1.5,33,-0.479,-0.479,-0.479,0.000,0.000,0.000
1643266382287787008,2022-01-27-06:53:02,10.1.1.5,32,-0.469,-0.469,-0.469,0.000,0.000,0.000
1643266382487329024,2022-01-27-06:53:02,10.1.1.5,30,-0.459,-0.459,-0.459,0.000,0.000,0.000
1643266382675962880,2022-01-27-06:53:02,10.1.1.5,18,-0.450,-0.450,-0.450,0.000,0.000,0.000
1643266382887352064,2022-01-27-06:53:02,10.1.1.5,28,-0.439,-0.439,-0.439,0.000,0.000,0.000
1643266383087929856,2022-01-27-06:53:03,10.1.1.5,28,-0.430,-0.430,-0.430,0.000,0.000,0.000
1643266383287780096,2022-01-27-06:53:03,10.1.1.5,24,-0.420,-0.420,-0.420,0.000,0.000,0.000
1643266383497530880,2022-01-27-06:53:03,10.1.1.5,33,-0.409,-0.409,-0.409,0.000,0.000,0.000
1643266383708295936,2022-01-27-06:53:03,10.1.1.5,43,-0.399,-0.399,-0.399,0.000,0.000,0.000
1643266383888015104,2022-01-27-06:53:03,10.1.1.5,20,-0.390,-0.390,-0.390,0.000,0.000,0.000
1643266384097032192,2022-01-27-06:53:04,10.1.1.5,28,-0.379,-0.379,-0.379,0.000,0.000,0.000
1643266384323054080,2022-01-27-06:53:04,10.1.1.5,53,-0.369,-0.369,-0.369,0.000,0.000,0.000
1643266384514518016,2022-01-27-06:53:04,10.1.1.5,44,-0.359,-0.359,-0.359,0.000,0.000,0.000
1643266384715962880,2022-01-27-06:53:04,10.1.1.5,37,-0.349,-0.349,-0.349,0.000,0.000,0.000
1643266384929359872,2022-01-27-06:53:04,10.1.1.5,57,-0.339,-0.339,-0.339,0.000,0.000,0.000
1643266385110699008,2022-01-27-06:53:05,10.1.1.5,32,-0.330,-0.330,-0.330,0.000,0.000,0.000
1643266385306894080,2022-01-27-06:53:05,10.1.1.5,32,-0.320,-0.320,-0.320,0.000,0.000,0.000
1643266385518379008,2022-01-27-06:53:05,10.1.1.5,34,-0.309,-0.309,-0.309,0.000,0.000,0.000
1643266385716743936,2022-01-27-06:53:05,10.1.1.5,32,-0.299,-0.299,-0.299,0.000,0.000,0.000
1643266385920572160,2022-01-27-06:53:05,10.1.1.5,31,-0.290,-0.290,-0.290,0.000,0.000,0.000
1643266386122828032,2022-01-27-06:53:06,10.1.1.5,34,-0.280,-0.280,-0.280,0.000,0.000,0.000
1643266386316049152,2022-01-27-06:53:06,10.1.1.5,27,-0.270,-0.270,-0.270,0.000,0.000,0.000
1643266386526382080,2022-01-27-06:53:06,10.1.1.5,34,-0.259,-0.259,-0.259,0.000,0.000,0.000
1643266386715699968,2022-01-27-06:53:06,10.1.1.5,22,-0.250,-0.250,-0.250,0.000,0.000,0.000
1643266386925453056,2022-01-27-06:53:06,10.1.1.5,31,-0.239,-0.239,-0.239,0.000,0.000,0.000
1643266387126172928,2022-01-27-06:53:07,10.1.1.5,31,-0.229,-0.229,-0.229,0.000,0.000,0.000
1643266387336457984,2022-01-27-06:53:07,10.1.1.5,41,-0.219,-0.219,-0.219,0.000,0.000,0.000
1643266387536176896,2022-01-27-06:53:07,10.1.1.5,41,-0.209,-0.209,-0.209,0.000,0.000,0.000
1643266387727588864,2022-01-27-06:53:07,10.1.1.5,30,-0.199,-0.199,-0.199,0.000,0.000,0.000
1643266387927745024,2022-01-27-06:53:07,10.1.1.5,30,-0.190,-0.190,-0.190,0.000,0.000,0.000
1643266388125901824,2022-01-27-06:53:08,10.1.1.5,27,-0.180,-0.180,-0.180,0.000,0.000,0.000
1643266388326117120,2022-01-27-06:53:08,10.1.1.5,27,-0.169,-0.169,-0.169,0.000,0.000,0.000
1643266388526243840,2022-01-27-06:53:08,10.1.1.5,26,-0.160,-0.160,-0.160,0.000,0.000,0.000
1643266388726319104,2022-01-27-06:53:08,10.1.1.5,25,-0.150,-0.150,-0.150,0.000,0.000,0.000
1643266388926129152,2022-01-27-06:53:08,10.1.1.5,21,-0.140,-0.140,-0.140,0.000,0.000,0.000
1643266389126240000,2022-01-27-06:53:09,10.1.1.5,21,-0.130,-0.130,-0.130,0.000,0.000,0.000
1643266389326102016,2022-01-27-06:53:09,10.1.1.5,20,-0.120,-0.120,-0.120,0.000,0.000,0.000
1643266389547087872,2022-01-27-06:53:09,10.1.1.5,41,-0.109,-0.109,-0.109,0.000,0.000,0.000
1643266389709274880,2022-01-27-06:53:09,10.1.1.5,-1,-0.101,-0.101,-0.101,0.000,0.000,0.000
1643266389927377920,2022-01-27-06:53:09,10.1.1.5,17,-0.090,-0.090,-0.090,0.000,0.000,0.000
1643266390136470016,2022-01-27-06:53:10,10.1.1.5,20,-0.080,-0.080,-0.080,0.000,0.000,0.000
1643266390346716928,2022-01-27-06:53:10,10.1.1.5,30,-0.069,-0.069,-0.069,0.000,0.000,0.000
1643266390547939072,2022-01-27-06:53:10,10.1.1.5,29,-0.059,-0.059,-0.059,0.000,0.000,0.000
1643266390746656768,2022-01-27-06:53:10,10.1.1.5,26,-0.050,-0.050,-0.050,0.000,0.000,0.000
1643266390945560832,2022-01-27-06:53:10,10.1.1.5,25,-0.040,-0.040,-0.040,0.000,0.000,0.000
1643266391145428992,2022-01-27-06:53:11,10.1.1.5,24,-0.030,-0.030,-0.030,0.000,0.000,0.000
1643266391345786112,2022-01-27-06:53:11,10.1.1.5,24,-0.020,-0.020,-0.020,0.000,0.000,0.000
1643266391546359040,2022-01-27-06:53:11,10.1.1.5,22,-0.010,-0.010,-0.010,0.000,0.000,0.000
1643266391725209088,2022-01-27-06:53:11,10.1.1.5,0,-0.001,-0.001,-0.001,0.000,0.000,0.000
1643266391965564928,2022-01-27-06:53:11,10.1.1.5,40,-0.011,-0.011,-0.011,0.000,0.000,0.000
1643266392168072960,2022-01-27-06:53:12,10.1.1.5,41,-0.021,-0.021,-0.021,0.000,0.000,0.000
1643266392388315904,2022-01-27-06:53:12,10.1.1.5,33,-0.031,-0.031,-0.031,0.000,0.000,0.000
1643266392585483008,2022-01-27-06:53:12,10.1.1.5,29,-0.041,-0.041,-0.041,0.000,0.000,0.000
1643266392789603840,2022-01-27-06:53:12,10.1.1.5,32,-0.051,-0.051,-0.051,0.000,0.000,0.000
1643266392988760064,2022-01-27-06:53:12,10.1.1.5,29,-0.061,-0.061,-0.061,0.000,0.000,0.000
1643266393185841152,2022-01-27-06:53:13,10.1.1.5,22,-0.070,-0.070,-0.070,0.000,0.000,0.000
1643266393386310144,2022-01-27-06:53:13,10.1.1.5,22,-0.080,-0.080,-0.080,0.000,0.000,0.000
1643266393586008064,2022-01-27-06:53:13,10.1.1.5,21,-0.090,-0.090,-0.090,0.000,0.000,0.000
1643266393796051968,2022-01-27-06:53:13,10.1.1.5,30,-0.101,-0.101,-0.101,0.000,0.000,0.000
1643266393986004224,2022-01-27-06:53:13,10.1.1.5,18,-0.110,-0.110,-0.110,0.000,0.000,0.000
1643266394186121984,2022-01-27-06:53:14,10.1.1.5,18,-0.120,-0.120,-0.120,0.000,0.000,0.000
1643266394386792960,2022-01-27-06:53:14,10.1.1.5,17,-0.130,-0.130,-0.130,0.000,0.000,0.000
1643266394606031872,2022-01-27-06:53:14,10.1.1.5,36,-0.141,-0.141,-0.141,0.000,0.000,0.000
1643266394797588224,2022-01-27-06:53:14,10.1.1.5,27,-0.150,-0.150,-0.150,0.000,0.000,0.000
1643266395006396928,2022-01-27-06:53:15,10.1.1.5,35,-0.161,-0.161,-0.161,0.000,0.000,0.000
1643266395205586944,2022-01-27-06:53:15,10.1.1.5,33,-0.171,-0.171,-0.171,0.000,0.000,0.000
1643266395407535104,2022-01-27-06:53:15,10.1.1.5,34,-0.181,-0.181,-0.181,0.000,0.000,0.000
1643266395607604992,2022-01-27-06:53:15,10.1.1.5,30,-0.191,-0.191,-0.191,0.000,0.000,0.000
1643266395808250880,2022-01-27-06:53:15,10.1.1.5,30,-0.201,-0.201,-0.201,0.000,0.000,0.000
1643266396009426944,2022-01-27-06:53:16,10.1.1.5,28,-0.210,-0.210,-0.210,0.000,0.000,0.000
1643266396207535104,2022-01-27-06:53:16,10.1.1.5,24,-0.220,-0.220,-0.220,0.000,0.000,0.000
1643266396407021056,2022-01-27-06:53:16,10.1.1.5,23,-0.230,-0.230,-0.230,0.000,0.000,0.000
1643266396619884032,2022-01-27-06:53:16,10.1.1.5,33,-0.241,-0.241,-0.241,0.000,0.000,0.000
1643266396826262016,2022-01-27-06:53:16,10.1.1.5,40,-0.251,-0.251,-0.251,0.000,0.000,0.000
1643266397025830912,2022-01-27-06:53:17,10.1.1.5,39,-0.261,-0.261,-0.261,0.000,0.000,0.000
1643266397228104960,2022-01-27-06:53:17,10.1.1.5,39,-0.271,-0.271,-0.271,0.000,0.000,0.000
1643266397428407040,2022-01-27-06:53:17,10.1.1.5,38,-0.281,-0.281,-0.281,0.000,0.000,0.000
1643266397608480000,2022-01-27-06:53:17,10.1.1.5,18,-0.290,-0.290,-0.290,0.000,0.000,0.000
1643266397816091136,2022-01-27-06:53:17,10.1.1.5,24,-0.300,-0.300,-0.300,0.000,0.000,0.000
1643266398029065984,2022-01-27-06:53:18,10.1.1.5,36,-0.311,-0.311,-0.311,0.000,0.000,0.000
1643266398227629056,2022-01-27-06:53:18,10.1.1.5,26,-0.320,-0.320,-0.320,0.000,0.000,0.000
1643266398448157952,2022-01-27-06:53:18,10.1.1.5,45,-0.331,-0.331,-0.331,0.000,0.000,0.000
1643266398629641984,2022-01-27-06:53:18,10.1.1.5,26,-0.340,-0.340,-0.340,0.000,0.000,0.000
1643266398849006848,2022-01-27-06:53:18,10.1.1.5,42,-0.351,-0.351,-0.351,0.000,0.000,0.000
1643266399028867072,2022-01-27-06:53:19,10.1.1.5,23,-0.360,-0.360,-0.360,0.000,0.000,0.000
1643266399226934784,2022-01-27-06:53:19,10.1.1.5,19,-0.370,-0.370,-0.370,0.000,0.000,0.000
1643266399447993088,2022-01-27-06:53:19,10.1.1.5,39,-0.381,-0.381,-0.381,0.000,0.000,0.000
1643266399647556096,2022-01-27-06:53:19,10.1.1.5,38,-0.391,-0.391,-0.391,0.000,0.000,0.000
1643266399855657984,2022-01-27-06:53:19,10.1.1.5,37,-0.401,-0.401,-0.401,0.000,0.000,0.000
1643266400048974080,2022-01-27-06:53:20,10.1.1.5,32,-0.411,-0.411,-0.411,0.000,0.000,0.000
1643266400266630912,2022-01-27-06:53:20,10.1.1.5,49,-0.421,-0.421,-0.421,0.000,0.000,0.000
1643266400448179968,2022-01-27-06:53:20,10.1.1.5,30,-0.430,-0.430,-0.430,0.000,0.000,0.000
1643266400645801984,2022-01-27-06:53:20,10.1.1.5,27,-0.440,-0.440,-0.440,0.000,0.000,0.000
1643266400846487040,2022-01-27-06:53:20,10.1.1.5,27,-0.451,-0.451,-0.451,0.000,0.000,0.000
1643266401046979840,2022-01-27-06:53:21,10.1.1.5,26,-0.460,-0.460,-0.460,0.000,0.000,0.000
1643266401245917184,2022-01-27-06:53:21,10.1.1.5,24,-0.470,-0.470,-0.470,0.000,0.000,0.000
1643266401468236032,2022-01-27-06:53:21,10.1.1.5,43,-0.481,-0.481,-0.481,0.000,0.000,0.000
1643266401626668032,2022-01-27-06:53:21,10.1.1.5,1,-0.489,-0.489,-0.489,0.000,0.000,0.000
1643266401856401920,2022-01-27-06:53:21,10.1.1.5,30,-0.479,-0.479,-0.479,0.000,0.000,0.000
1643266402047110912,2022-01-27-06:53:22,10.1.1.5,18,-0.470,-0.470,-0.470,0.000,0.000,0.000
1643266402268267008,2022-01-27-06:53:22,10.1.1.5,37,-0.459,-0.459,-0.459,0.000,0.000,0.000
1643266402466206976,2022-01-27-06:53:22,10.1.1.5,35,-0.449,-0.449,-0.449,0.000,0.000,0.000
1643266402666121984,2022-01-27-06:53:22,10.1.1.5,34,-0.439,-0.439,-0.439,0.000,0.000,0.000
1643266402865933056,2022-01-27-06:53:22,10.1.1.5,32,-0.429,-0.429,-0.429,0.000,0.000,0.000
1643266403055952128,2022-01-27-06:53:23,10.1.1.5,22,-0.420,-0.420,-0.420,0.000,0.000,0.000
1643266403268805120,2022-01-27-06:53:23,10.1.1.5,34,-0.409,-0.409,-0.409,0.000,0.000,0.000
1643266403468391936,2022-01-27-06:53:23,10.1.1.5,32,-0.400,-0.400,-0.400,0.000,0.000,0.000
1643266403668265216,2022-01-27-06:53:23,10.1.1.5,29,-0.389,-0.389,-0.389,0.000,0.000,0.000
1643266403867016192,2022-01-27-06:53:23,10.1.1.5,27,-0.380,-0.380,-0.380,0.000,0.000,0.000
1643266404088506880,2022-01-27-06:53:24,10.1.1.5,48,-0.369,-0.369,-0.369,0.000,0.000,0.000
1643266404277784064,2022-01-27-06:53:24,10.1.1.5,36,-0.359,-0.359,-0.359,0.000,0.000,0.000
1643266404477741056,2022-01-27-06:53:24,10.1.1.5,35,-0.349,-0.349,-0.349,0.000,0.000,0.000
1643266404668890880,2022-01-27-06:53:24,10.1.1.5,25,-0.340,-0.340,-0.340,0.000,0.000,0.000
1643266404887068928,2022-01-27-06:53:24,10.1.1.5,42,-0.329,-0.329,-0.329,0.000,0.000,0.000
1643266405068803072,2022-01-27-06:53:25,10.1.1.5,22,-0.320,-0.320,-0.320,0.000,0.000,0.000
1643266405276429824,2022-01-27-06:53:25,10.1.1.5,30,-0.309,-0.309,-0.309,0.000,0.000,0.000
1643266405476839168,2022-01-27-06:53:25,10.1.1.5,28,-0.299,-0.299,-0.299,0.000,0.000,0.000
1643266405687406080,2022-01-27-06:53:25,10.1.1.5,38,-0.289,-0.289,-0.289,0.000,0.000,0.000
1643266405876667136,2022-01-27-06:53:25,10.1.1.5,26,-0.280,-0.280,-0.280,0.000,0.000,0.000
1643266406086429952,2022-01-27-06:53:26,10.1.1.5,35,-0.269,-0.269,-0.269,0.000,0.000,0.000
1643266406287616000,2022-01-27-06:53:26,10.1.1.5,35,-0.259,-0.259,-0.259,0.000,0.000,0.000
1643266406487385088,2022-01-27-06:53:26,10.1.1.5,33,-0.249,-0.249,-0.249,0.000,0.000,0.000
1643266406687890944,2022-01-27-06:53:26,10.1.1.5,33,-0.239,-0.239,-0.239,0.000,0.000,0.000
1643266406878515968,2022-01-27-06:53:26,10.1.1.5,22,-0.230,-0.230,-0.230,0.000,0.000,0.000
1643266407097236992,2022-01-27-06:53:27,10.1.1.5,39,-0.219,-0.219,-0.219,0.000,0.000,0.000
1643266407288376064,2022-01-27-06:53:27,10.1.1.5,29,-0.210,-0.210,-0.210,0.000,0.000,0.000
1643266407509900032,2022-01-27-06:53:27,10.1.1.5,49,-0.199,-0.199,-0.199,0.000,0.000,0.000
1643266407687397120,2022-01-27-06:53:27,10.1.1.5,25,-0.190,-0.190,-0.190,0.000,0.000,0.000
1643266407888626176,2022-01-27-06:53:27,10.1.1.5,25,-0.180,-0.180,-0.180,0.000,0.000,0.000
1643266408089351936,2022-01-27-06:53:28,10.1.1.5,25,-0.170,-0.170,-0.170,0.000,0.000,0.000
1643266408310290176,2022-01-27-06:53:28,10.1.1.5,45,-0.159,-0.159,-0.159,0.000,0.000,0.000
1643266408508673792,2022-01-27-06:53:28,10.1.1.5,42,-0.149,-0.149,-0.149,0.000,0.000,0.000
1643266408706963968,2022-01-27-06:53:28,10.1.1.5,39,-0.139,-0.139,-0.139,0.000,0.000,0.000
1643266408888668160,2022-01-27-06:53:28,10.1.1.5,20,-0.130,-0.130,-0.130,0.000,0.000,0.000
1643266409088135936,2022-01-27-06:53:29,10.1.1.5,18,-0.120,-0.120,-0.120,0.000,0.000,0.000
1643266409286149120,2022-01-27-06:53:29,10.1.1.5,16,-0.110,-0.110,-0.110,0.000,0.000,0.000
1643266409506799872,2022-01-27-06:53:29,10.1.1.5,36,-0.099,-0.099,-0.099,0.000,0.000,0.000
1643266409706316032,2022-01-27-06:53:29,10.1.1.5,35,-0.089,-0.089,-0.089,0.000,0.000,0.000
1643266409906446080,2022-01-27-06:53:29,10.1.1.5,33,-0.079,-0.079,-0.079,0.000,0.000,0.000
1643266410106688000,2022-01-27-06:53:30,10.1.1.5,33,-0.069,-0.069,-0.069,0.000,0.000,0.000
1643266410308121088,2022-01-27-06:53:30,10.1.1.5,33,-0.060,-0.060,-0.060,0.000,0.000,0.000
1643266410506663168,2022-01-27-06:53:30,10.1.1.5,31,-0.049,-0.049,-0.049,0.000,0.000,0.000
1643266410708292096,2022-01-27-06:53:30,10.1.1.5,30,-0.039,-0.039,-0.039,0.000,0.000,0.000
1643266410908269056,2022-01-27-06:53:30,10.1.1.5,31,-0.030,-0.030,-0.030,0.000,0.000,0.000
1643266411106501120,2022-01-27-06:53:31,10.1.1.5,28,-0.019,-0.019,-0.019,0.000,0.000,0.000
1643266411308270848,2022-01-27-06:53:31,10.1.1.5,29,-0.009,-0.009,-0.009,0.000,0.000,0.000
1643266411486478080,2022-01-27-06:53:31,10.1.1.5,6,-0.000,-0.000,-0.000,0.000,0.000,0.000
1643266411706935040,2022-01-27-06:53:31,10.1.1.5,25,-0.010,-0.010,-0.010,0.000,0.000,0.000
1643266411908035072,2022-01-27-06:53:31,10.1.1.5,24,-0.020,-0.020,-0.020,0.000,0.000,0.000
1643266412110028032,2022-01-27-06:53:32,10.1.1.5,27,-0.030,-0.030,-0.030,0.000,0.000,0.000
1643266412327698944,2022-01-27-06:53:32,10.1.1.5,43,-0.041,-0.041,-0.041,0.000,0.000,0.000
1643266412527291136,2022-01-27-06:53:32,10.1.1.5,42,-0.051,-0.051,-0.051,0.000,0.000,0.000
1643266412727289856,2022-01-27-06:53:32,10.1.1.5,41,-0.061,-0.061,-0.061,0.000,0.000,0.000
1643266412907614976,2022-01-27-06:53:32,10.1.1.5,20,-0.070,-0.070,-0.070,0.000,0.000,0.000
1643266413107640064,2022-01-27-06:53:33,10.1.1.5,19,-0.080,-0.080,-0.080,0.000,0.000,0.000
1643266413307673856,2022-01-27-06:53:33,10.1.1.5,17,-0.090,-0.090,-0.090,0.000,0.000,0.000
1643266413507208192,2022-01-27-06:53:33,10.1.1.5,11,-0.100,-0.100,-0.100,0.000,0.000,0.000
1643266413727225088,2022-01-27-06:53:33,10.1.1.5,28,-0.110,-0.110,-0.110,0.000,0.000,0.000
1643266413916742144,2022-01-27-06:53:33,10.1.1.5,16,-0.120,-0.120,-0.120,0.000,0.000,0.000
1643266414127026944,2022-01-27-06:53:34,10.1.1.5,25,-0.130,-0.130,-0.130,0.000,0.000,0.000
1643266414330409984,2022-01-27-06:53:34,10.1.1.5,27,-0.140,-0.140,-0.140,0.000,0.000,0.000
1643266414527771904,2022-01-27-06:53:34,10.1.1.5,24,-0.150,-0.150,-0.150,0.000,0.000,0.000
1643266414748980992,2022-01-27-06:53:34,10.1.1.5,44,-0.161,-0.161,-0.161,0.000,0.000,0.000
1643266414948097024,2022-01-27-06:53:34,10.1.1.5,41,-0.171,-0.171,-0.171,0.000,0.000,0.000
1643266415147345920,2022-01-27-06:53:35,10.1.1.5,37,-0.181,-0.181,-0.181,0.000,0.000,0.000
1643266415346992128,2022-01-27-06:53:35,10.1.1.5,36,-0.191,-0.191,-0.191,0.000,0.000,0.000
1643266415547958016,2022-01-27-06:53:35,10.1.1.5,36,-0.200,-0.200,-0.200,0.000,0.000,0.000
1643266415751064064,2022-01-27-06:53:35,10.1.1.5,35,-0.211,-0.211,-0.211,0.000,0.000,0.000
1643266415968104960,2022-01-27-06:53:35,10.1.1.5,50,-0.222,-0.222,-0.222,0.000,0.000,0.000
1643266416138562816,2022-01-27-06:53:36,10.1.1.5,19,-0.230,-0.230,-0.230,0.000,0.000,0.000
1643266416357117952,2022-01-27-06:53:36,10.1.1.5,37,-0.241,-0.241,-0.241,0.000,0.000,0.000
1643266416574413056,2022-01-27-06:53:36,10.1.1.5,53,-0.251,-0.251,-0.251,0.000,0.000,0.000
1643266416747156992,2022-01-27-06:53:36,10.1.1.5,25,-0.260,-0.260,-0.260,0.000,0.000,0.000
1643266416948285952,2022-01-27-06:53:36,10.1.1.5,24,-0.270,-0.270,-0.270,0.000,0.000,0.000
1643266417148414976,2022-01-27-06:53:37,10.1.1.5,21,-0.280,-0.280,-0.280,0.000,0.000,0.000
1643266417348145920,2022-01-27-06:53:37,10.1.1.5,19,-0.290,-0.290,-0.290,0.000,0.000,0.000
1643266417570460928,2022-01-27-06:53:37,10.1.1.5,38,-0.301,-0.301,-0.301,0.000,0.000,0.000
1643266417769556992,2022-01-27-06:53:37,10.1.1.5,40,-0.311,-0.311,-0.311,0.000,0.000,0.000
1643266417958309888,2022-01-27-06:53:37,10.1.1.5,27,-0.320,-0.320,-0.320,0.000,0.000,0.000
1643266418167959040,2022-01-27-06:53:38,10.1.1.5,34,-0.330,-0.330,-0.330,0.000,0.000,0.000
1643266418390240000,2022-01-27-06:53:38,10.1.1.5,55,-0.342,-0.342,-0.342,0.000,0.000,0.000
1643266418557085952,2022-01-27-06:53:38,10.1.1.5,21,-0.350,-0.350,-0.350,0.000,0.000,0.000
1643266418758161920,2022-01-27-06:53:38,10.1.1.5,21,-0.360,-0.360,-0.360,0.000,0.000,0.000
1643266418971163136,2022-01-27-06:53:38,10.1.1.5,31,-0.370,-0.370,-0.370,0.000,0.000,0.000
1643266419169981952,2022-01-27-06:53:39,10.1.1.5,29,-0.380,-0.380,-0.380,0.000,0.000,0.000
1643266419388921088,2022-01-27-06:53:39,10.1.1.5,47,-0.391,-0.391,-0.391,0.000,0.000,0.000
1643266419588453888,2022-01-27-06:53:39,10.1.1.5,42,-0.401,-0.401,-0.401,0.000,0.000,0.000
1643266419768027136,2022-01-27-06:53:39,10.1.1.5,21,-0.410,-0.410,-0.410,0.000,0.000,0.000
1643266419989156096,2022-01-27-06:53:39,10.1.1.5,40,-0.421,-0.421,-0.421,0.000,0.000,0.000
1643266420188762880,2022-01-27-06:53:40,10.1.1.5,38,-0.431,-0.431,-0.431,0.000,0.000,0.000
1643266420378132992,2022-01-27-06:53:40,10.1.1.5,24,-0.440,-0.440,-0.440,0.000,0.000,0.000
1643266420590023168,2022-01-27-06:53:40,10.1.1.5,35,-0.451,-0.451,-0.451,0.000,0.000,0.000
1643266420787048192,2022-01-27-06:53:40,10.1.1.5,31,-0.461,-0.461,-0.461,0.000,0.000,0.000
1643266420978252032,2022-01-27-06:53:40,10.1.1.5,21,-0.470,-0.470,-0.470,0.000,0.000,0.000
1643266421207568896,2022-01-27-06:53:41,10.1.1.5,50,-0.482,-0.482,-0.482,0.000,0.000,0.000
1643266421369874944,2022-01-27-06:53:41,10.1.1.5,8,-0.490,-0.490,-0.490,0.000,0.000,0.000
1643266421589620992,2022-01-27-06:53:41,10.1.1.5,30,-0.479,-0.479,-0.479,0.000,0.000,0.000
1643266421794903040,2022-01-27-06:53:41,10.1.1.5,34,-0.470,-0.470,-0.470,0.000,0.000,0.000
1643266421990222848,2022-01-27-06:53:41,10.1.1.5,27,-0.460,-0.460,-0.460,0.000,0.000,0.000
1643266422189371136,2022-01-27-06:53:42,10.1.1.5,23,-0.450,-0.450,-0.450,0.000,0.000,0.000
1643266422390460928,2022-01-27-06:53:42,10.1.1.5,24,-0.440,-0.440,-0.440,0.000,0.000,0.000
1643266422627366912,2022-01-27-06:53:42,10.1.1.5,57,-0.428,-0.428,-0.428,0.000,0.000,0.000
1643266422806907904,2022-01-27-06:53:42,10.1.1.5,35,-0.419,-0.419,-0.419,0.000,0.000,0.000
1643266423007090176,2022-01-27-06:53:43,10.1.1.5,32,-0.410,-0.410,-0.410,0.000,0.000,0.000
1643266423207998976,2022-01-27-06:53:43,10.1.1.5,30,-0.399,-0.399,-0.399,0.000,0.000,0.000
1643266423407036160,2022-01-27-06:53:43,10.1.1.5,29,-0.390,-0.390,-0.390,0.000,0.000,0.000
1643266423608901888,2022-01-27-06:53:43,10.1.1.5,28,-0.379,-0.379,-0.379,0.000,0.000,0.000
1643266423807120128,2022-01-27-06:53:43,10.1.1.5,27,-0.370,-0.370,-0.370,0.000,0.000,0.000
1643266424016931072,2022-01-27-06:53:44,10.1.1.5,36,-0.359,-0.359,-0.359,0.000,0.000,0.000
1643266424227400192,2022-01-27-06:53:44,10.1.1.5,45,-0.349,-0.349,-0.349,0.000,0.000,0.000
1643266424407848960,2022-01-27-06:53:44,10.1.1.5,25,-0.340,-0.340,-0.340,0.000,0.000,0.000
1643266424609252096,2022-01-27-06:53:44,10.1.1.5,25,-0.330,-0.330,-0.330,0.000,0.000,0.000
1643266424826041856,2022-01-27-06:53:44,10.1.1.5,41,-0.319,-0.319,-0.319,0.000,0.000,0.000
1643266425006028800,2022-01-27-06:53:45,10.1.1.5,20,-0.310,-0.310,-0.310,0.000,0.000,0.000
1643266425227268096,2022-01-27-06:53:45,10.1.1.5,37,-0.299,-0.299,-0.299,0.000,0.000,0.000
1643266425426328832,2022-01-27-06:53:45,10.1.1.5,35,-0.289,-0.289,-0.289,0.000,0.000,0.000
1643266425627693824,2022-01-27-06:53:45,10.1.1.5,35,-0.279,-0.279,-0.279,0.000,0.000,0.000
1643266425829318912,2022-01-27-06:53:45,10.1.1.5,35,-0.269,-0.269,-0.269,0.000,0.000,0.000
1643266426028687872,2022-01-27-06:53:46,10.1.1.5,34,-0.259,-0.259,-0.259,0.000,0.000,0.000
1643266426226369024,2022-01-27-06:53:46,10.1.1.5,31,-0.249,-0.249,-0.249,0.000,0.000,0.000
1643266426426139136,2022-01-27-06:53:46,10.1.1.5,30,-0.239,-0.239,-0.239,0.000,0.000,0.000
1643266426626055936,2022-01-27-06:53:46,10.1.1.5,29,-0.230,-0.230,-0.230,0.000,0.000,0.000
1643266426828051200,2022-01-27-06:53:46,10.1.1.5,30,-0.219,-0.219,-0.219,0.000,0.000,0.000
1643266427028915968,2022-01-27-06:53:47,10.1.1.5,30,-0.209,-0.209,-0.209,0.000,0.000,0.000
1643266427228174080,2022-01-27-06:53:47,10.1.1.5,29,-0.199,-0.199,-0.199,0.000,0.000,0.000
1643266427426835968,2022-01-27-06:53:47,10.1.1.5,25,-0.190,-0.190,-0.190,0.000,0.000,0.000
1643266427626514944,2022-01-27-06:53:47,10.1.1.5,23,-0.180,-0.180,-0.180,0.000,0.000,0.000
1643266427846336000,2022-01-27-06:53:47,10.1.1.5,42,-0.169,-0.169,-0.169,0.000,0.000,0.000
1643266428047365888,2022-01-27-06:53:48,10.1.1.5,40,-0.159,-0.159,-0.159,0.000,0.000,0.000
1643266428247430144,2022-01-27-06:53:48,10.1.1.5,38,-0.149,-0.149,-0.149,0.000,0.000,0.000
1643266428446546176,2022-01-27-06:53:48,10.1.1.5,36,-0.139,-0.139,-0.139,0.000,0.000,0.000
1643266428647536896,2022-01-27-06:53:48,10.1.1.5,36,-0.129,-0.129,-0.129,0.000,0.000,0.000
1643266428848090880,2022-01-27-06:53:48,10.1.1.5,34,-0.119,-0.119,-0.119,0.000,0.000,0.000
1643266429047075072,2022-01-27-06:53:49,10.1.1.5,32,-0.109,-0.109,-0.109,0.000,0.000,0.000
1643266429247292928,2022-01-27-06:53:49,10.1.1.5,32,-0.099,-0.099,-0.099,0.000,0.000,0.000
1643266429446288128,2022-01-27-06:53:49,10.1.1.5,29,-0.089,-0.089,-0.089,0.000,0.000,0.000
1643266429646446080,2022-01-27-06:53:49,10.1.1.5,28,-0.079,-0.079,-0.079,0.000,0.000,0.000
1643266429849188096,2022-01-27-06:53:49,10.1.1.5,30,-0.069,-0.069,-0.069,0.000,0.000,0.000
1643266430047479040,2022-01-27-06:53:50,10.1.1.5,28,-0.059,-0.059,-0.059,0.000,0.000,0.000
1643266430246612992,2022-01-27-06:53:50,10.1.1.5,26,-0.050,-0.050,-0.050,0.000,0.000,0.000
1643266430466188800,2022-01-27-06:53:50,10.1.1.5,45,-0.039,-0.039,-0.039,0.000,0.000,0.000
1643266430666817024,2022-01-27-06:53:50,10.1.1.5,42,-0.029,-0.029,-0.029,0.000,0.000,0.000
1643266430856542976,2022-01-27-06:53:50,10.1.1.5,31,-0.019,-0.019,-0.019,0.000,0.000,0.000
1643266431066643968,2022-01-27-06:53:51,10.1.1.5,40,-0.009,-0.009,-0.009,0.000,0.000,0.000
1643266431267062784,2022-01-27-06:53:51,10.1.1.5,36,-0.001,-0.001,-0.001,0.000,0.000,0.000
1643266431467473152,2022-01-27-06:53:51,10.1.1.5,35,-0.011,-0.011,-0.011,0.000,0.000,0.000
1643266431656972800,2022-01-27-06:53:51,10.1.1.5,24,-0.020,-0.020,-0.020,0.000,0.000,0.000
1643266431868227840,2022-01-27-06:53:51,10.1.1.5,33,-0.031,-0.031,-0.031,0.000,0.000,0.000
1643266432068044032,2022-01-27-06:53:52,10.1.1.5,31,-0.041,-0.041,-0.041,0.000,0.000,0.000
1643266432267881984,2022-01-27-06:53:52,10.1.1.5,29,-0.051,-0.051,-0.051,0.000,0.000,0.000
1643266432466540032,2022-01-27-06:53:52,10.1.1.5,27,-0.060,-0.060,-0.060,0.000,0.000,0.000
1643266432667962112,2022-01-27-06:53:52,10.1.1.5,27,-0.070,-0.070,-0.070,0.000,0.000,0.000
1643266432877051136,2022-01-27-06:53:52,10.1.1.5,36,-0.081,-0.081,-0.081,0.000,0.000,0.000
1643266433087150080,2022-01-27-06:53:53,10.1.1.5,45,-0.091,-0.091,-0.091,0.000,0.000,0.000
1643266433277452032,2022-01-27-06:53:53,10.1.1.5,34,-0.101,-0.101,-0.101,0.000,0.000,0.000
1643266433467161856,2022-01-27-06:53:53,10.1.1.5,23,-0.110,-0.110,-0.110,0.000,0.000,0.000
1643266433687357952,2022-01-27-06:53:53,10.1.1.5,42,-0.121,-0.121,-0.121,0.000,0.000,0.000
1643266433887065856,2022-01-27-06:53:53,10.1.1.5,40,-0.131,-0.131,-0.131,0.000,0.000,0.000
1643266434076383232,2022-01-27-06:53:54,10.1.1.5,28,-0.141,-0.141,-0.141,0.000,0.000,0.000
1643266434286417920,2022-01-27-06:53:54,10.1.1.5,37,-0.151,-0.151,-0.151,0.000,0.000,0.000
1643266434489761024,2022-01-27-06:53:54,10.1.1.5,39,-0.161,-0.161,-0.161,0.000,0.000,0.000
1643266434688343040,2022-01-27-06:53:54,10.1.1.5,35,-0.171,-0.171,-0.171,0.000,0.000,0.000
1643266434888583936,2022-01-27-06:53:54,10.1.1.5,32,-0.181,-0.181,-0.181,0.000,0.000,0.000
1643266435088536064,2022-01-27-06:53:55,10.1.1.5,31,-0.191,-0.191,-0.191,0.000,0.000,0.000
1643266435276572928,2022-01-27-06:53:55,10.1.1.5,18,-0.200,-0.200,-0.200,0.000,0.000,0.000
1643266435488632832,2022-01-27-06:53:55,10.1.1.5,29,-0.211,-0.211,-0.211,0.000,0.000,0.000
1643266435687588864,2022-01-27-06:53:55,10.1.1.5,27,-0.221,-0.221,-0.221,0.000,0.000,0.000
1643266435897948928,2022-01-27-06:53:55,10.1.1.5,37,-0.231,-0.231,-0.231,0.000,0.000,0.000
1643266436087809024,2022-01-27-06:53:56,10.1.1.5,25,-0.240,-0.240,-0.240,0.000,0.000,0.000
1643266436297746944,2022-01-27-06:53:56,10.1.1.5,34,-0.251,-0.251,-0.251,0.000,0.000,0.000
1643266436509305088,2022-01-27-06:53:56,10.1.1.5,44,-0.261,-0.261,-0.261,0.000,0.000,0.000
1643266436699460864,2022-01-27-06:53:56,10.1.1.5,32,-0.271,-0.271,-0.271,0.000,0.000,0.000
1643266436897149184,2022-01-27-06:53:56,10.1.1.5,30,-0.281,-0.281,-0.281,0.000,0.000,0.000
1643266437109651968,2022-01-27-06:53:57,10.1.1.5,41,-0.291,-0.291,-0.291,0.000,0.000,0.000
1643266437305449984,2022-01-27-06:53:57,10.1.1.5,35,-0.301,-0.301,-0.301,0.000,0.000,0.000
1643266437498310144,2022-01-27-06:53:57,10.1.1.5,28,-0.310,-0.310,-0.310,0.000,0.000,0.000
1643266437708457984,2022-01-27-06:53:57,10.1.1.5,38,-0.321,-0.321,-0.321,0.000,0.000,0.000
1643266437898871040,2022-01-27-06:53:57,10.1.1.5,27,-0.330,-0.330,-0.330,0.000,0.000,0.000
1643266438106502144,2022-01-27-06:53:58,10.1.1.5,34,-0.341,-0.341,-0.341,0.000,0.000,0.000
1643266438296466944,2022-01-27-06:53:58,10.1.1.5,23,-0.350,-0.350,-0.350,0.000,0.000,0.000
1643266438507963904,2022-01-27-06:53:58,10.1.1.5,34,-0.361,-0.361,-0.361,0.000,0.000,0.000
1643266438706510080,2022-01-27-06:53:58,10.1.1.5,31,-0.371,-0.371,-0.371,0.000,0.000,0.000
1643266438896656128,2022-01-27-06:53:58,10.1.1.5,20,-0.380,-0.380,-0.380,0.000,0.000,0.000
1643266439118925056,2022-01-27-06:53:59,10.1.1.5,42,-0.391,-0.391,-0.391,0.000,0.000,0.000
1643266439308551168,2022-01-27-06:53:59,10.1.1.5,30,-0.400,-0.400,-0.400,0.000,0.000,0.000
1643266439518959104,2022-01-27-06:53:59,10.1.1.5,40,-0.411,-0.411,-0.411,0.000,0.000,0.000
1643266439708833024,2022-01-27-06:53:59,10.1.1.5,26,-0.420,-0.420,-0.420,0.000,0.000,0.000
1643266439908889088,2022-01-27-06:53:59,10.1.1.5,28,-0.430,-0.430,-0.430,0.000,0.000,0.000
1643266440107232000,2022-01-27-06:54:00,10.1.1.5,25,-0.440,-0.440,-0.440,0.000,0.000,0.000
1643266440308953088,2022-01-27-06:54:00,10.1.1.5,25,-0.450,-0.450,-0.450,0.000,0.000,0.000
1643266440529096960,2022-01-27-06:54:00,10.1.1.5,44,-0.461,-0.461,-0.461,0.000,0.000,0.000
1643266440707494144,2022-01-27-06:54:00,10.1.1.5,20,-0.470,-0.470,-0.470,0.000,0.000,0.000
1643266440926053888,2022-01-27-06:54:00,10.1.1.5,38,-0.481,-0.481,-0.481,0.000,0.000,0.000
1643266441106481152,2022-01-27-06:54:01,10.1.1.5,18,-0.490,-0.490,-0.490,0.000,0.000,0.000
1643266441306112000,2022-01-27-06:54:01,10.1.1.5,17,-0.480,-0.480,-0.480,0.000,0.000,0.000
1643266441528496896,2022-01-27-06:54:01,10.1.1.5,39,-0.469,-0.469,-0.469,0.000,0.000,0.000
1643266441706429952,2022-01-27-06:54:01,10.1.1.5,16,-0.460,-0.460,-0.460,0.000,0.000,0.000
1643266441926860032,2022-01-27-06:54:01,10.1.1.5,36,-0.449,-0.449,-0.449,0.000,0.000,0.000
1643266442127360000,2022-01-27-06:54:02,10.1.1.5,36,-0.439,-0.439,-0.439,0.000,0.000,0.000
1643266442326201856,2022-01-27-06:54:02,10.1.1.5,35,-0.429,-0.429,-0.429,0.000,0.000,0.000
1643266442526515968,2022-01-27-06:54:02,10.1.1.5,35,-0.419,-0.419,-0.419,0.000,0.000,0.000
1643266442726465024,2022-01-27-06:54:02,10.1.1.5,34,-0.409,-0.409,-0.409,0.000,0.000,0.000
1643266442926022912,2022-01-27-06:54:02,10.1.1.5,33,-0.399,-0.399,-0.399,0.000,0.000,0.000
1643266443126075136,2022-01-27-06:54:03,10.1.1.5,32,-0.389,-0.389,-0.389,0.000,0.000,0.000
1643266443326685952,2022-01-27-06:54:03,10.1.1.5,32,-0.379,-0.379,-0.379,0.000,0.000,0.000
1643266443526726912,2022-01-27-06:54:03,10.1.1.5,31,-0.369,-0.369,-0.369,0.000,0.000,0.000
1643266443726339072,2022-01-27-06:54:03,10.1.1.5,30,-0.359,-0.359,-0.359,0.000,0.000,0.000
1643266443916347136,2022-01-27-06:54:03,10.1.1.5,18,-0.350,-0.350,-0.350,0.000,0.000,0.000
1643266444126301952,2022-01-27-06:54:04,10.1.1.5,27,-0.339,-0.339,-0.339,0.000,0.000,0.000
1643266444326695936,2022-01-27-06:54:04,10.1.1.5,27,-0.329,-0.329,-0.329,0.000,0.000,0.000
1643266444527271936,2022-01-27-06:54:04,10.1.1.5,26,-0.320,-0.320,-0.320,0.000,0.000,0.000
1643266444727186944,2022-01-27-06:54:04,10.1.1.5,25,-0.310,-0.310,-0.310,0.000,0.000,0.000
1643266444926234880,2022-01-27-06:54:04,10.1.1.5,23,-0.300,-0.300,-0.300,0.000,0.000,0.000
1643266445147418112,2022-01-27-06:54:05,10.1.1.5,43,-0.289,-0.289,-0.289,0.000,0.000,0.000
1643266445327680000,2022-01-27-06:54:05,10.1.1.5,22,-0.280,-0.280,-0.280,0.000,0.000,0.000
1643266445547363072,2022-01-27-06:54:05,10.1.1.5,41,-0.269,-0.269,-0.269,0.000,0.000,0.000
1643266445748990976,2022-01-27-06:54:05,10.1.1.5,41,-0.259,-0.259,-0.259,0.000,0.000,0.000
1643266445948606976,2022-01-27-06:54:05,10.1.1.5,39,-0.249,-0.249,-0.249,0.000,0.000,0.000
1643266446148261120,2022-01-27-06:54:06,10.1.1.5,38,-0.239,-0.239,-0.239,0.000,0.000,0.000
1643266446338711040,2022-01-27-06:54:06,10.1.1.5,27,-0.230,-0.230,-0.230,0.000,0.000,0.000
1643266446536503040,2022-01-27-06:54:06,10.1.1.5,25,-0.220,-0.220,-0.220,0.000,0.000,0.000
1643266446749510144,2022-01-27-06:54:06,10.1.1.5,37,-0.209,-0.209,-0.209,0.000,0.000,0.000
1643266446947369216,2022-01-27-06:54:06,10.1.1.5,31,-0.199,-0.199,-0.199,0.000,0.000,0.000
1643266447149490944,2022-01-27-06:54:07,10.1.1.5,32,-0.190,-0.190,-0.190,0.000,0.000,0.000
1643266447347575808,2022-01-27-06:54:07,10.1.1.5,28,-0.179,-0.179,-0.179,0.000,0.000,0.000
1643266447568944896,2022-01-27-06:54:07,10.1.1.5,47,-0.169,-0.169,-0.169,0.000,0.000,0.000
1643266447746996992,2022-01-27-06:54:07,10.1.1.5,24,-0.160,-0.160,-0.160,0.000,0.000,0.000
1643266447968770048,2022-01-27-06:54:07,10.1.1.5,43,-0.149,-0.149,-0.149,0.000,0.000,0.000
1643266448157177088,2022-01-27-06:54:08,10.1.1.5,31,-0.140,-0.140,-0.140,0.000,0.000,0.000
1643266448350195968,2022-01-27-06:54:08,10.1.1.5,21,-0.130,-0.130,-0.130,0.000,0.000,0.000
1643266448547437824,2022-01-27-06:54:08,10.1.1.5,18,-0.120,-0.120,-0.120,0.000,0.000,0.000
1643266448748718080,2022-01-27-06:54:08,10.1.1.5,18,-0.110,-0.110,-0.110,0.000,0.000,0.000
1643266448970659072,2022-01-27-06:54:08,10.1.1.5,37,-0.099,-0.099,-0.099,0.000,0.000,0.000
1643266449157989120,2022-01-27-06:54:09,10.1.1.5,21,-0.090,-0.090,-0.090,0.000,0.000,0.000
1643266449358247168,2022-01-27-06:54:09,10.1.1.5,17,-0.080,-0.080,-0.080,0.000,0.000,0.000
1643266449578836992,2022-01-27-06:54:09,10.1.1.5,37,-0.069,-0.069,-0.069,0.000,0.000,0.000
1643266449776868096,2022-01-27-06:54:09,10.1.1.5,34,-0.059,-0.059,-0.059,0.000,0.000,0.000
1643266449966739968,2022-01-27-06:54:09,10.1.1.5,23,-0.050,-0.050,-0.050,0.000,0.000,0.000
1643266450189296128,2022-01-27-06:54:10,10.1.1.5,44,-0.039,-0.039,-0.039,0.000,0.000,0.000
1643266450378285056,2022-01-27-06:54:10,10.1.1.5,32,-0.030,-0.030,-0.030,0.000,0.000,0.000
1643266450588784896,2022-01-27-06:54:10,10.1.1.5,41,-0.019,-0.019,-0.019,0.000,0.000,0.000
1643266450767201792,2022-01-27-06:54:10,10.1.1.5,18,-0.010,-0.010,-0.010,0.000,0.000,0.000
1643266450968653056,2022-01-27-06:54:10,10.1.1.5,19,-0.000,-0.000,-0.000,0.000,0.000,0.000
1643266451187907072,2022-01-27-06:54:11,10.1.1.5,37,-0.011,-0.011,-0.011,0.000,0.000,0.000
1643266451387531008,2022-01-27-06:54:11,10.1.1.5,36,-0.021,-0.021,-0.021,0.000,0.000,0.000
1643266451576538112,2022-01-27-06:54:11,10.1.1.5,24,-0.030,-0.030,-0.030,0.000,0.000,0.000
1643266451787759104,2022-01-27-06:54:11,10.1.1.5,34,-0.040,-0.040,-0.040,0.000,0.000,0.000
1643266451986905088,2022-01-27-06:54:11,10.1.1.5,31,-0.051,-0.051,-0.051,0.000,0.000,0.000
1643266452187045120,2022-01-27-06:54:12,10.1.1.5,30,-0.061,-0.061,-0.061,0.000,0.000,0.000
1643266452391097088,2022-01-27-06:54:12,10.1.1.5,33,-0.071,-0.071,-0.071,0.000,0.000,0.000
1643266452576317952,2022-01-27-06:54:12,10.1.1.5,17,-0.080,-0.080,-0.080,0.000,0.000,0.000
1643266452777157120,2022-01-27-06:54:12,10.1.1.5,17,-0.090,-0.090,-0.090,0.000,0.000,0.000
1643266452980137216,2022-01-27-06:54:12,10.1.1.5,20,-0.100,-0.100,-0.100,0.000,0.000,0.000
1643266453190057984,2022-01-27-06:54:13,10.1.1.5,28,-0.110,-0.110,-0.110,0.000,0.000,0.000
1643266453387795968,2022-01-27-06:54:13,10.1.1.5,25,-0.120,-0.120,-0.120,0.000,0.000,0.000
1643266453607825152,2022-01-27-06:54:13,10.1.1.5,45,-0.131,-0.131,-0.131,0.000,0.000,0.000
1643266453809431040,2022-01-27-06:54:13,10.1.1.5,44,-0.141,-0.141,-0.141,0.000,0.000,0.000
1643266454006982144,2022-01-27-06:54:14,10.1.1.5,41,-0.151,-0.151,-0.151,0.000,0.000,0.000
1643266454208920064,2022-01-27-06:54:14,10.1.1.5,39,-0.161,-0.161,-0.161,0.000,0.000,0.000
1643266454408060160,2022-01-27-06:54:14,10.1.1.5,37,-0.171,-0.171,-0.171,0.000,0.000,0.000
1643266454609161984,2022-01-27-06:54:14,10.1.1.5,37,-0.181,-0.181,-0.181,0.000,0.000,0.000
1643266454807511040,2022-01-27-06:54:14,10.1.1.5,35,-0.191,-0.191,-0.191,0.000,0.000,0.000
1643266454996877056,2022-01-27-06:54:14,10.1.1.5,23,-0.200,-0.200,-0.200,0.000,0.000,0.000
1643266455229428992,2022-01-27-06:54:15,10.1.1.5,55,-0.212,-0.212,-0.212,0.000,0.000,0.000
1643266455409817088,2022-01-27-06:54:15,10.1.1.5,34,-0.221,-0.221,-0.221,0.000,0.000,0.000
1643266455606915840,2022-01-27-06:54:15,10.1.1.5,30,-0.231,-0.231,-0.231,0.000,0.000,0.000
1643266455808944896,2022-01-27-06:54:15,10.1.1.5,31,-0.241,-0.241,-0.241,0.000,0.000,0.000
1643266456006628864,2022-01-27-06:54:16,10.1.1.5,27,-0.251,-0.251,-0.251,0.000,0.000,0.000
1643266456208615168,2022-01-27-06:54:16,10.1.1.5,28,-0.260,-0.260,-0.260,0.000,0.000,0.000
1643266456406227200,2022-01-27-06:54:16,10.1.1.5,25,-0.270,-0.270,-0.270,0.000,0.000,0.000
1643266456607037184,2022-01-27-06:54:16,10.1.1.5,25,-0.280,-0.280,-0.280,0.000,0.000,0.000
1643266456827830016,2022-01-27-06:54:16,10.1.1.5,43,-0.291,-0.291,-0.291,0.000,0.000,0.000
1643266457007069184,2022-01-27-06:54:17,10.1.1.5,20,-0.300,-0.300,-0.300,0.000,0.000,0.000
1643266457228529920,2022-01-27-06:54:17,10.1.1.5,38,-0.311,-0.311,-0.311,0.000,0.000,0.000
1643266457416455936,2022-01-27-06:54:17,10.1.1.5,24,-0.320,-0.320,-0.320,0.000,0.000,0.000
1643266457628372992,2022-01-27-06:54:17,10.1.1.5,34,-0.331,-0.331,-0.331,0.000,0.000,0.000
1643266457828486912,2022-01-27-06:54:17,10.1.1.5,33,-0.341,-0.341,-0.341,0.000,0.000,0.000
1643266458027777792,2022-01-27-06:54:18,10.1.1.5,32,-0.351,-0.351,-0.351,0.000,0.000,0.000
1643266458227385088,2022-01-27-06:54:18,10.1.1.5,30,-0.361,-0.361,-0.361,0.000,0.000,0.000
1643266458429218048,2022-01-27-06:54:18,10.1.1.5,31,-0.371,-0.371,-0.371,0.000,0.000,0.000
1643266458629766912,2022-01-27-06:54:18,10.1.1.5,30,-0.380,-0.380,-0.380,0.000,0.000,0.000
1643266458848763904,2022-01-27-06:54:18,10.1.1.5,47,-0.391,-0.391,-0.391,0.000,0.000,0.000
1643266459029120000,2022-01-27-06:54:19,10.1.1.5,26,-0.400,-0.400,-0.400,0.000,0.000,0.000
1643266459246727936,2022-01-27-06:54:19,10.1.1.5,42,-0.411,-0.411,-0.411,0.000,0.000,0.000
1643266459447094016,2022-01-27-06:54:19,10.1.1.5,39,-0.421,-0.421,-0.421,0.000,0.000,0.000
1643266459649106944,2022-01-27-06:54:19,10.1.1.5,41,-0.431,-0.431,-0.431,0.000,0.000,0.000
1643266459848627968,2022-01-27-06:54:19,10.1.1.5,39,-0.441,-0.441,-0.441,0.000,0.000,0.000
1643266460046350080,2022-01-27-06:54:20,10.1.1.5,35,-0.451,-0.451,-0.451,0.000,0.000,0.000
1643266460247878144,2022-01-27-06:54:20,10.1.1.5,35,-0.461,-0.461,-0.461,0.000,0.000,0.000
1643266460446640896,2022-01-27-06:54:20,10.1.1.5,31,-0.470,-0.470,-0.470,0.000,0.000,0.000
1643266460649477888,2022-01-27-06:54:20,10.1.1.5,32,-0.481,-0.481,-0.481,0.000,0.000,0.000
1643266460827042048,2022-01-27-06:54:20,10.1.1.5,9,-0.490,-0.490,-0.490,0.000,0.000,0.000
1643266461047548928,2022-01-27-06:54:21,10.1.1.5,29,-0.479,-0.479,-0.479,0.000,0.000,0.000
1643266461237366016,2022-01-27-06:54:21,10.1.1.5,17,-0.470,-0.470,-0.470,0.000,0.000,0.000
1643266461448589056,2022-01-27-06:54:21,10.1.1.5,27,-0.460,-0.460,-0.460,0.000,0.000,0.000
1643266461667958016,2022-01-27-06:54:21,10.1.1.5,46,-0.449,-0.449,-0.449,0.000,0.000,0.000
1643266461848526848,2022-01-27-06:54:21,10.1.1.5,26,-0.440,-0.440,-0.440,0.000,0.000,0.000
1643266462057306112,2022-01-27-06:54:22,10.1.1.5,34,-0.429,-0.429,-0.429,0.000,0.000,0.000
1643266462257153024,2022-01-27-06:54:22,10.1.1.5,32,-0.419,-0.419,-0.419,0.000,0.000,0.000
1643266462457929984,2022-01-27-06:54:22,10.1.1.5,32,-0.409,-0.409,-0.409,0.000,0.000,0.000
1643266462649620992,2022-01-27-06:54:22,10.1.1.5,23,-0.400,-0.400,-0.400,0.000,0.000,0.000
1643266462858156032,2022-01-27-06:54:22,10.1.1.5,31,-0.389,-0.389,-0.389,0.000,0.000,0.000
1643266463067634944,2022-01-27-06:54:23,10.1.1.5,40,-0.379,-0.379,-0.379,0.000,0.000,0.000
1643266463258059008,2022-01-27-06:54:23,10.1.1.5,28,-0.369,-0.369,-0.369,0.000,0.000,0.000
1643266463456944896,2022-01-27-06:54:23,10.1.1.5,26,-0.360,-0.360,-0.360,0.000,0.000,0.000
1643266463667840000,2022-01-27-06:54:23,10.1.1.5,36,-0.349,-0.349,-0.349,0.000,0.000,0.000
1643266463867292928,2022-01-27-06:54:23,10.1.1.5,35,-0.339,-0.339,-0.339,0.000,0.000,0.000
1643266464070817024,2022-01-27-06:54:24,10.1.1.5,36,-0.329,-0.329,-0.329,0.000,0.000,0.000
1643266464268317952,2022-01-27-06:54:24,10.1.1.5,33,-0.319,-0.319,-0.319,0.000,0.000,0.000
1643266464487261952,2022-01-27-06:54:24,10.1.1.5,51,-0.308,-0.308,-0.308,0.000,0.000,0.000
1643266464667831040,2022-01-27-06:54:24,10.1.1.5,30,-0.299,-0.299,-0.299,0.000,0.000,0.000
1643266464869040128,2022-01-27-06:54:24,10.1.1.5,30,-0.289,-0.289,-0.289,0.000,0.000,0.000
1643266465067648000,2022-01-27-06:54:25,10.1.1.5,28,-0.279,-0.279,-0.279,0.000,0.000,0.000
1643266465267630080,2022-01-27-06:54:25,10.1.1.5,26,-0.270,-0.270,-0.270,0.000,0.000,0.000
1643266465489840896,2022-01-27-06:54:25,10.1.1.5,47,-0.259,-0.259,-0.259,0.000,0.000,0.000
1643266465677618944,2022-01-27-06:54:25,10.1.1.5,34,-0.249,-0.249,-0.249,0.000,0.000,0.000
1643266465876916992,2022-01-27-06:54:25,10.1.1.5,30,-0.239,-0.239,-0.239,0.000,0.000,0.000
1643266466068577024,2022-01-27-06:54:26,10.1.1.5,20,-0.230,-0.230,-0.230,0.000,0.000,0.000
1643266466288866048,2022-01-27-06:54:26,10.1.1.5,39,-0.219,-0.219,-0.219,0.000,0.000,0.000
1643266466489623040,2022-01-27-06:54:26,10.1.1.5,39,-0.209,-0.209,-0.209,0.000,0.000,0.000
1643266466687772160,2022-01-27-06:54:26,10.1.1.5,36,-0.199,-0.199,-0.199,0.000,0.000,0.000
1643266466894361856,2022-01-27-06:54:26,10.1.1.5,41,-0.189,-0.189,-0.189,0.000,0.000,0.000
1643266467086971136,2022-01-27-06:54:27,10.1.1.5,28,-0.180,-0.180,-0.180,0.000,0.000,0.000
1643266467307457024,2022-01-27-06:54:27,10.1.1.5,48,-0.168,-0.168,-0.168,0.000,0.000,0.000
1643266467488858112,2022-01-27-06:54:27,10.1.1.5,28,-0.160,-0.160,-0.160,0.000,0.000,0.000
1643266467691375872,2022-01-27-06:54:27,10.1.1.5,28,-0.150,-0.150,-0.150,0.000,0.000,0.000
1643266467908634880,2022-01-27-06:54:27,10.1.1.5,45,-0.139,-0.139,-0.139,0.000,0.000,0.000
1643266468088561920,2022-01-27-06:54:28,10.1.1.5,23,-0.130,-0.130,-0.130,0.000,0.000,0.000
1643266468288215040,2022-01-27-06:54:28,10.1.1.5,22,-0.120,-0.120,-0.120,0.000,0.000,0.000
1643266468488457984,2022-01-27-06:54:28,10.1.1.5,22,-0.110,-0.110,-0.110,0.000,0.000,0.000
1643266468688209920,2022-01-27-06:54:28,10.1.1.5,20,-0.100,-0.100,-0.100,0.000,0.000,0.000
1643266468888833024,2022-01-27-06:54:28,10.1.1.5,19,-0.090,-0.090,-0.090,0.000,0.000,0.000
1643266469109283072,2022-01-27-06:54:29,10.1.1.5,37,-0.079,-0.079,-0.079,0.000,0.000,0.000
1643266469307090944,2022-01-27-06:54:29,10.1.1.5,35,-0.069,-0.069,-0.069,0.000,0.000,0.000
1643266469507174912,2022-01-27-06:54:29,10.1.1.5,35,-0.059,-0.059,-0.059,0.000,0.000,0.000
1643266469697312000,2022-01-27-06:54:29,10.1.1.5,23,-0.050,-0.050,-0.050,0.000,0.000,0.000
1643266469908025088,2022-01-27-06:54:29,10.1.1.5,32,-0.039,-0.039,-0.039,0.000,0.000,0.000
1643266470127880192,2022-01-27-06:54:30,10.1.1.5,51,-0.028,-0.028,-0.028,0.000,0.000,0.000
1643266470309416960,2022-01-27-06:54:30,10.1.1.5,32,-0.019,-0.019,-0.019,0.000,0.000,0.000
1643266470510721024,2022-01-27-06:54:30,10.1.1.5,31,-0.009,-0.009,-0.009,0.000,0.000,0.000
1643266470687720960,2022-01-27-06:54:30,10.1.1.5,8,-0.000,-0.000,-0.000,0.000,0.000,0.000
1643266470929039872,2022-01-27-06:54:30,10.1.1.5,49,-0.011,-0.011,-0.011,0.000,0.000,0.000
1643266471109432832,2022-01-27-06:54:31,10.1.1.5,27,-0.020,-0.020,-0.020,0.000,0.000,0.000
1643266471308248064,2022-01-27-06:54:31,10.1.1.5,27,-0.030,-0.030,-0.030,0.000,0.000,0.000
1643266471506799872,2022-01-27-06:54:31,10.1.1.5,24,-0.040,-0.040,-0.040,0.000,0.000,0.000
1643266471707476992,2022-01-27-06:54:31,10.1.1.5,24,-0.050,-0.050,-0.050,0.000,0.000,0.000
1643266471927663104,2022-01-27-06:54:31,10.1.1.5,44,-0.061,-0.061,-0.061,0.000,0.000,0.000
1643266472108663040,2022-01-27-06:54:32,10.1.1.5,23,-0.070,-0.070,-0.070,0.000,0.000,0.000
1643266472309120000,2022-01-27-06:54:32,10.1.1.5,23,-0.080,-0.080,-0.080,0.000,0.000,0.000
1643266472506704128,2022-01-27-06:54:32,10.1.1.5,20,-0.090,-0.090,-0.090,0.000,0.000,0.000
1643266472708205056,2022-01-27-06:54:32,10.1.1.5,20,-0.100,-0.100,-0.100,0.000,0.000,0.000
1643266472907639040,2022-01-27-06:54:32,10.1.1.5,19,-0.110,-0.110,-0.110,0.000,0.000,0.000
1643266473128431104,2022-01-27-06:54:33,10.1.1.5,39,-0.121,-0.121,-0.121,0.000,0.000,0.000
1643266473319209216,2022-01-27-06:54:33,10.1.1.5,29,-0.131,-0.131,-0.131,0.000,0.000,0.000
1643266473527079936,2022-01-27-06:54:33,10.1.1.5,36,-0.141,-0.141,-0.141,0.000,0.000,0.000
1643266473726840064,2022-01-27-06:54:33,10.1.1.5,32,-0.151,-0.151,-0.151,0.000,0.000,0.000
1643266473927427072,2022-01-27-06:54:33,10.1.1.5,31,-0.161,-0.161,-0.161,0.000,0.000,0.000
1643266474126892032,2022-01-27-06:54:34,10.1.1.5,29,-0.170,-0.170,-0.170,0.000,0.000,0.000
1643266474326384128,2022-01-27-06:54:34,10.1.1.5,27,-0.181,-0.181,-0.181,0.000,0.000,0.000
1643266474529261056,2022-01-27-06:54:34,10.1.1.5,29,-0.190,-0.190,-0.190,0.000,0.000,0.000
1643266474728745984,2022-01-27-06:54:34,10.1.1.5,25,-0.200,-0.200,-0.200,0.000,0.000,0.000
1643266474928772864,2022-01-27-06:54:34,10.1.1.5,26,-0.210,-0.210,-0.210,0.000,0.000,0.000
1643266475127219968,2022-01-27-06:54:35,10.1.1.5,24,-0.220,-0.220,-0.220,0.000,0.000,0.000
1643266475348412160,2022-01-27-06:54:35,10.1.1.5,44,-0.231,-0.231,-0.231,0.000,0.000,0.000
1643266475547229952,2022-01-27-06:54:35,10.1.1.5,37,-0.241,-0.241,-0.241,0.000,0.000,0.000
1643266475747795200,2022-01-27-06:54:35,10.1.1.5,37,-0.251,-0.251,-0.251,0.000,0.000,0.000
1643266475949143040,2022-01-27-06:54:35,10.1.1.5,37,-0.261,-0.261,-0.261,0.000,0.000,0.000
1643266476149038080,2022-01-27-06:54:36,10.1.1.5,29,-0.271,-0.271,-0.271,0.000,0.000,0.000
1643266476347299072,2022-01-27-06:54:36,10.1.1.5,27,-0.280,-0.280,-0.280,0.000,0.000,0.000
1643266476548356096,2022-01-27-06:54:36,10.1.1.5,27,-0.290,-0.290,-0.290,0.000,0.000,0.000
1643266476768225792,2022-01-27-06:54:36,10.1.1.5,45,-0.301,-0.301,-0.301,0.000,0.000,0.000
1643266476969652992,2022-01-27-06:54:36,10.1.1.5,43,-0.311,-0.311,-0.311,0.000,0.000,0.000
1643266477168293120,2022-01-27-06:54:37,10.1.1.5,39,-0.321,-0.321,-0.321,0.000,0.000,0.000
1643266477366916864,2022-01-27-06:54:37,10.1.1.5,37,-0.331,-0.331,-0.331,0.000,0.000,0.000
1643266477567389952,2022-01-27-06:54:37,10.1.1.5,37,-0.341,-0.341,-0.341,0.000,0.000,0.000
1643266477769639936,2022-01-27-06:54:37,10.1.1.5,37,-0.351,-0.351,-0.351,0.000,0.000,0.000
1643266477966664960,2022-01-27-06:54:37,10.1.1.5,31,-0.361,-0.361,-0.361,0.000,0.000,0.000
1643266478168359168,2022-01-27-06:54:38,10.1.1.5,31,-0.371,-0.371,-0.371,0.000,0.000,0.000
1643266478369863936,2022-01-27-06:54:38,10.1.1.5,28,-0.381,-0.381,-0.381,0.000,0.000,0.000
1643266478567682048,2022-01-27-06:54:38,10.1.1.5,26,-0.390,-0.390,-0.390,0.000,0.000,0.000
1643266478778537984,2022-01-27-06:54:38,10.1.1.5,37,-0.401,-0.401,-0.401,0.000,0.000,0.000
1643266478977827072,2022-01-27-06:54:38,10.1.1.5,35,-0.411,-0.411,-0.411,0.000,0.000,0.000
1643266479177714944,2022-01-27-06:54:39,10.1.1.5,33,-0.421,-0.421,-0.421,0.000,0.000,0.000
1643266479389227008,2022-01-27-06:54:39,10.1.1.5,41,-0.431,-0.431,-0.431,0.000,0.000,0.000
1643266479590118912,2022-01-27-06:54:39,10.1.1.5,39,-0.441,-0.441,-0.441,0.000,0.000,0.000
1643266479787910912,2022-01-27-06:54:39,10.1.1.5,35,-0.451,-0.451,-0.451,0.000,0.000,0.000
1643266479989524992,2022-01-27-06:54:39,10.1.1.5,33,-0.461,-0.461,-0.461,0.000,0.000,0.000
1643266480187464960,2022-01-27-06:54:40,10.1.1.5,28,-0.470,-0.470,-0.470,0.000,0.000,0.000
1643266480377517056,2022-01-27-06:54:40,10.1.1.5,18,-0.480,-0.480,-0.480,0.000,0.000,0.000
1643266480600599040,2022-01-27-06:54:40,10.1.1.5,40,-0.489,-0.489,-0.489,0.000,0.000,0.000
1643266480797457920,2022-01-27-06:54:40,10.1.1.5,36,-0.479,-0.479,-0.479,0.000,0.000,0.000
1643266480987461120,2022-01-27-06:54:40,10.1.1.5,24,-0.470,-0.470,-0.470,0.000,0.000,0.000
1643266481188931072,2022-01-27-06:54:41,10.1.1.5,26,-0.460,-0.460,-0.460,0.000,0.000,0.000
1643266481407895040,2022-01-27-06:54:41,10.1.1.5,43,-0.449,-0.449,-0.449,0.000,0.000,0.000
1643266481588637184,2022-01-27-06:54:41,10.1.1.5,21,-0.440,-0.440,-0.440,0.000,0.000,0.000
1643266481809284096,2022-01-27-06:54:41,10.1.1.5,42,-0.429,-0.429,-0.429,0.000,0.000,0.000
1643266481996929024,2022-01-27-06:54:41,10.1.1.5,25,-0.420,-0.420,-0.420,0.000,0.000,0.000
1643266482208357120,2022-01-27-06:54:42,10.1.1.5,34,-0.409,-0.409,-0.409,0.000,0.000,0.000
1643266482407546112,2022-01-27-06:54:42,10.1.1.5,29,-0.400,-0.400,-0.400,0.000,0.000,0.000
1643266482607067136,2022-01-27-06:54:42,10.1.1.5,26,-0.390,-0.390,-0.390,0.000,0.000,0.000
1643266482809765120,2022-01-27-06:54:42,10.1.1.5,28,-0.380,-0.380,-0.380,0.000,0.000,0.000
1643266483027531008,2022-01-27-06:54:43,10.1.1.5,45,-0.369,-0.369,-0.369,0.000,0.000,0.000
1643266483217005056,2022-01-27-06:54:43,10.1.1.5,34,-0.359,-0.359,-0.359,0.000,0.000,0.000
1643266483421184000,2022-01-27-06:54:43,10.1.1.5,37,-0.349,-0.349,-0.349,0.000,0.000,0.000
1643266483617799168,2022-01-27-06:54:43,10.1.1.5,32,-0.340,-0.340,-0.340,0.000,0.000,0.000
1643266483809364992,2022-01-27-06:54:43,10.1.1.5,23,-0.330,-0.330,-0.330,0.000,0.000,0.000
1643266484031621888,2022-01-27-06:54:44,10.1.1.5,44,-0.319,-0.319,-0.319,0.000,0.000,0.000
1643266484228512000,2022-01-27-06:54:44,10.1.1.5,38,-0.309,-0.309,-0.309,0.000,0.000,0.000
1643266484420929024,2022-01-27-06:54:44,10.1.1.5,30,-0.300,-0.300,-0.300,0.000,0.000,0.000
1643266484629126912,2022-01-27-06:54:44,10.1.1.5,37,-0.289,-0.289,-0.289,0.000,0.000,0.000
1643266484848695040,2022-01-27-06:54:44,10.1.1.5,52,-0.278,-0.278,-0.278,0.000,0.000,0.000
1643266485028260096,2022-01-27-06:54:45,10.1.1.5,30,-0.270,-0.270,-0.270,0.000,0.000,0.000
1643266485238213120,2022-01-27-06:54:45,10.1.1.5,36,-0.259,-0.259,-0.259,0.000,0.000,0.000
1643266485448136960,2022-01-27-06:54:45,10.1.1.5,44,-0.249,-0.249,-0.249,0.000,0.000,0.000
1643266485637238016,2022-01-27-06:54:45,10.1.1.5,33,-0.239,-0.239,-0.239,0.000,0.000,0.000
1643266485847749888,2022-01-27-06:54:45,10.1.1.5,42,-0.229,-0.229,-0.229,0.000,0.000,0.000
1643266486046798080,2022-01-27-06:54:46,10.1.1.5,40,-0.219,-0.219,-0.219,0.000,0.000,0.000
1643266486237956096,2022-01-27-06:54:46,10.1.1.5,29,-0.209,-0.209,-0.209,0.000,0.000,0.000
1643266486436934912,2022-01-27-06:54:46,10.1.1.5,27,-0.200,-0.200,-0.200,0.000,0.000,0.000
1643266486637368064,2022-01-27-06:54:46,10.1.1.5,26,-0.190,-0.190,-0.190,0.000,0.000,0.000
1643266486837728000,2022-01-27-06:54:46,10.1.1.5,22,-0.180,-0.180,-0.180,0.000,0.000,0.000
1643266487037046016,2022-01-27-06:54:47,10.1.1.5,19,-0.170,-0.170,-0.170,0.000,0.000,0.000
1643266487238171136,2022-01-27-06:54:47,10.1.1.5,19,-0.160,-0.160,-0.160,0.000,0.000,0.000
1643266487447590144,2022-01-27-06:54:47,10.1.1.5,27,-0.150,-0.150,-0.150,0.000,0.000,0.000
1643266487647560960,2022-01-27-06:54:47,10.1.1.5,26,-0.140,-0.140,-0.140,0.000,0.000,0.000
1643266487867383040,2022-01-27-06:54:47,10.1.1.5,45,-0.129,-0.129,-0.129,0.000,0.000,0.000
1643266488048943104,2022-01-27-06:54:48,10.1.1.5,26,-0.120,-0.120,-0.120,0.000,0.000,0.000
1643266488257952000,2022-01-27-06:54:48,10.1.1.5,31,-0.110,-0.110,-0.110,0.000,0.000,0.000
1643266488457221120,2022-01-27-06:54:48,10.1.1.5,27,-0.100,-0.100,-0.100,0.000,0.000,0.000
1643266488657074944,2022-01-27-06:54:48,10.1.1.5,25,-0.090,-0.090,-0.090,0.000,0.000,0.000
1643266488857186048,2022-01-27-06:54:48,10.1.1.5,25,-0.080,-0.080,-0.080,0.000,0.000,0.000
1643266489067756800,2022-01-27-06:54:49,10.1.1.5,32,-0.069,-0.069,-0.069,0.000,0.000,0.000
1643266489267721984,2022-01-27-06:54:49,10.1.1.5,31,-0.059,-0.059,-0.059,0.000,0.000,0.000
1643266489467417088,2022-01-27-06:54:49,10.1.1.5,30,-0.049,-0.049,-0.049,0.000,0.000,0.000
1643266489668898048,2022-01-27-06:54:49,10.1.1.5,30,-0.039,-0.039,-0.039,0.000,0.000,0.000
1643266489867719936,2022-01-27-06:54:49,10.1.1.5,29,-0.029,-0.029,-0.029,0.000,0.000,0.000
1643266490066095104,2022-01-27-06:54:50,10.1.1.5,26,-0.020,-0.020,-0.020,0.000,0.000,0.000
1643266490268680960,2022-01-27-06:54:50,10.1.1.5,26,-0.010,-0.010,-0.010,0.000,0.000,0.000
1643266490449734912,2022-01-27-06:54:50,10.1.1.5,7,-0.001,-0.001,-0.001,0.000,0.000,0.000
1643266490677947136,2022-01-27-06:54:50,10.1.1.5,33,-0.011,-0.011,-0.011,0.000,0.000,0.000
1643266490866316032,2022-01-27-06:54:50,10.1.1.5,20,-0.020,-0.020,-0.020,0.000,0.000,0.000
1643266491083173888,2022-01-27-06:54:51,10.1.1.5,35,-0.030,-0.030,-0.030,0.000,0.000,0.000
1643266491268958976,2022-01-27-06:54:51,10.1.1.5,21,-0.040,-0.040,-0.040,0.000,0.000,0.000
1643266491467792896,2022-01-27-06:54:51,10.1.1.5,19,-0.050,-0.050,-0.050,0.000,0.000,0.000
1643266491689485056,2022-01-27-06:54:51,10.1.1.5,37,-0.061,-0.061,-0.061,0.000,0.000,0.000
1643266491890300160,2022-01-27-06:54:51,10.1.1.5,35,-0.071,-0.071,-0.071,0.000,0.000,0.000
1643266492087863808,2022-01-27-06:54:52,10.1.1.5,33,-0.081,-0.081,-0.081,0.000,0.000,0.000
1643266492287326208,2022-01-27-06:54:52,10.1.1.5,32,-0.090,-0.090,-0.090,0.000,0.000,0.000
1643266492487958784,2022-01-27-06:54:52,10.1.1.5,30,-0.101,-0.101,-0.101,0.000,0.000,0.000
1643266492691063040,2022-01-27-06:54:52,10.1.1.5,31,-0.111,-0.111,-0.111,0.000,0.000,0.000
1643266492877721088,2022-01-27-06:54:52,10.1.1.5,17,-0.120,-0.120,-0.120,0.000,0.000,0.000
1643266493093400832,2022-01-27-06:54:53,10.1.1.5,30,-0.130,-0.130,-0.130,0.000,0.000,0.000
1643266493288412160,2022-01-27-06:54:53,10.1.1.5,24,-0.140,-0.140,-0.140,0.000,0.000,0.000
1643266493506776064,2022-01-27-06:54:53,10.1.1.5,41,-0.151,-0.151,-0.151,0.000,0.000,0.000
1643266493706712064,2022-01-27-06:54:53,10.1.1.5,40,-0.161,-0.161,-0.161,0.000,0.000,0.000
1643266493906868992,2022-01-27-06:54:53,10.1.1.5,38,-0.171,-0.171,-0.171,0.000,0.000,0.000
1643266494107557120,2022-01-27-06:54:54,10.1.1.5,33,-0.181,-0.181,-0.181,0.000,0.000,0.000
1643266494307204864,2022-01-27-06:54:54,10.1.1.5,32,-0.191,-0.191,-0.191,0.000,0.000,0.000
1643266494507975168,2022-01-27-06:54:54,10.1.1.5,31,-0.200,-0.200,-0.200,0.000,0.000,0.000
1643266494707272960,2022-01-27-06:54:54,10.1.1.5,30,-0.211,-0.211,-0.211,0.000,0.000,0.000
1643266494906415104,2022-01-27-06:54:54,10.1.1.5,28,-0.220,-0.220,-0.220,0.000,0.000,0.000
1643266495109265920,2022-01-27-06:54:55,10.1.1.5,28,-0.230,-0.230,-0.230,0.000,0.000,0.000
1643266495326550016,2022-01-27-06:54:55,10.1.1.5,42,-0.241,-0.241,-0.241,0.000,0.000,0.000
1643266495526934016,2022-01-27-06:54:55,10.1.1.5,42,-0.251,-0.251,-0.251,0.000,0.000,0.000
1643266495708024064,2022-01-27-06:54:55,10.1.1.5,22,-0.260,-0.260,-0.260,0.000,0.000,0.000
1643266495907609856,2022-01-27-06:54:55,10.1.1.5,18,-0.270,-0.270,-0.270,0.000,0.000,0.000
1643266496127881984,2022-01-27-06:54:56,10.1.1.5,37,-0.281,-0.281,-0.281,0.000,0.000,0.000
1643266496328155904,2022-01-27-06:54:56,10.1.1.5,33,-0.290,-0.290,-0.290,0.000,0.000,0.000
1643266496527816960,2022-01-27-06:54:56,10.1.1.5,32,-0.301,-0.301,-0.301,0.000,0.000,0.000
1643266496728174848,2022-01-27-06:54:56,10.1.1.5,32,-0.311,-0.311,-0.311,0.000,0.000,0.000
1643266496927475968,2022-01-27-06:54:56,10.1.1.5,31,-0.321,-0.321,-0.321,0.000,0.000,0.000
1643266497128516864,2022-01-27-06:54:57,10.1.1.5,31,-0.331,-0.331,-0.331,0.000,0.000,0.000
1643266497317904896,2022-01-27-06:54:57,10.1.1.5,19,-0.340,-0.340,-0.340,0.000,0.000,0.000
1643266497528638976,2022-01-27-06:54:57,10.1.1.5,29,-0.351,-0.351,-0.351,0.000,0.000,0.000
1643266497728172032,2022-01-27-06:54:57,10.1.1.5,27,-0.360,-0.360,-0.360,0.000,0.000,0.000
1643266497939867136,2022-01-27-06:54:57,10.1.1.5,37,-0.371,-0.371,-0.371,0.000,0.000,0.000
1643266498128606976,2022-01-27-06:54:58,10.1.1.5,25,-0.380,-0.380,-0.380,0.000,0.000,0.000
1643266498328228864,2022-01-27-06:54:58,10.1.1.5,24,-0.390,-0.390,-0.390,0.000,0.000,0.000
1643266498540178176,2022-01-27-06:54:58,10.1.1.5,35,-0.401,-0.401,-0.401,0.000,0.000,0.000
1643266498749145088,2022-01-27-06:54:58,10.1.1.5,43,-0.411,-0.411,-0.411,0.000,0.000,0.000
1643266498949073920,2022-01-27-06:54:58,10.1.1.5,43,-0.421,-0.421,-0.421,0.000,0.000,0.000
1643266499129051904,2022-01-27-06:54:59,10.1.1.5,22,-0.430,-0.430,-0.430,0.000,0.000,0.000
1643266499349408000,2022-01-27-06:54:59,10.1.1.5,41,-0.441,-0.441,-0.441,0.000,0.000,0.000
1643266499549721856,2022-01-27-06:54:59,10.1.1.5,40,-0.451,-0.451,-0.451,0.000,0.000,0.000
1643266499738362112,2022-01-27-06:54:59,10.1.1.5,27,-0.460,-0.460,-0.460,0.000,0.000,0.000
1643266499937107968,2022-01-27-06:54:59,10.1.1.5,24,-0.470,-0.470,-0.470,0.000,0.000,0.000
1643266500146512128,2022-01-27-06:55:00,10.1.1.5,31,-0.481,-0.481,-0.481,0.000,0.000,0.000
1643266500327332864,2022-01-27-06:55:00,10.1.1.5,10,-0.490,-0.490,-0.490,0.000,0.000,0.000
1643266500546798848,2022-01-27-06:55:00,10.1.1.5,29,-0.479,-0.479,-0.479,0.000,0.000,0.000
1643266500747597824,2022-01-27-06:55:00,10.1.1.5,28,-0.470,-0.470,-0.470,0.000,0.000,0.000
1643266500937624832,2022-01-27-06:55:00,10.1.1.5,18,-0.460,-0.460,-0.460,0.000,0.000,0.000
1643266501181740032,2022-01-27-06:55:01,10.1.1.5,60,-0.449,-0.449,-0.449,0.000,0.000,0.000
1643266501369756928,2022-01-27-06:55:01,10.1.1.5,48,-0.439,-0.439,-0.439,0.000,0.000,0.000
1643266501567475968,2022-01-27-06:55:01,10.1.1.5,44,-0.429,-0.429,-0.429,0.000,0.000,0.000
1643266501756858112,2022-01-27-06:55:01,10.1.1.5,32,-0.419,-0.419,-0.419,0.000,0.000,0.000
1643266501967835904,2022-01-27-06:55:01,10.1.1.5,43,-0.409,-0.409,-0.409,0.000,0.000,0.000
1643266502167939072,2022-01-27-06:55:02,10.1.1.5,42,-0.399,-0.399,-0.399,0.000,0.000,0.000
1643266502347608064,2022-01-27-06:55:02,10.1.1.5,21,-0.390,-0.390,-0.390,0.000,0.000,0.000
1643266502548624896,2022-01-27-06:55:02,10.1.1.5,19,-0.380,-0.380,-0.380,0.000,0.000,0.000
1643266502748282880,2022-01-27-06:55:02,10.1.1.5,20,-0.370,-0.370,-0.370,0.000,0.000,0.000
1643266502958082048,2022-01-27-06:55:02,10.1.1.5,28,-0.359,-0.359,-0.359,0.000,0.000,0.000
1643266503148730880,2022-01-27-06:55:03,10.1.1.5,19,-0.350,-0.350,-0.350,0.000,0.000,0.000
1643266503367790848,2022-01-27-06:55:03,10.1.1.5,36,-0.339,-0.339,-0.339,0.000,0.000,0.000
1643266503557668864,2022-01-27-06:55:03,10.1.1.5,24,-0.330,-0.330,-0.330,0.000,0.000,0.000
1643266503777470976,2022-01-27-06:55:03,10.1.1.5,41,-0.319,-0.319,-0.319,0.000,0.000,0.000
1643266503968763136,2022-01-27-06:55:03,10.1.1.5,30,-0.310,-0.310,-0.310,0.000,0.000,0.000
1643266504187272960,2022-01-27-06:55:04,10.1.1.5,43,-0.299,-0.299,-0.299,0.000,0.000,0.000
1643266504373872128,2022-01-27-06:55:04,10.1.1.5,26,-0.290,-0.290,-0.290,0.000,0.000,0.000
1643266504588599808,2022-01-27-06:55:04,10.1.1.5,39,-0.279,-0.279,-0.279,0.000,0.000,0.000
1643266504780955136,2022-01-27-06:55:04,10.1.1.5,31,-0.270,-0.270,-0.270,0.000,0.000,0.000
1643266504991398144,2022-01-27-06:55:04,10.1.1.5,40,-0.259,-0.259,-0.259,0.000,0.000,0.000
1643266505176698880,2022-01-27-06:55:05,10.1.1.5,24,-0.250,-0.250,-0.250,0.000,0.000,0.000
1643266505376858112,2022-01-27-06:55:05,10.1.1.5,22,-0.240,-0.240,-0.240,0.000,0.000,0.000
1643266505590702080,2022-01-27-06:55:05,10.1.1.5,35,-0.229,-0.229,-0.229,0.000,0.000,0.000
1643266505777821952,2022-01-27-06:55:05,10.1.1.5,21,-0.220,-0.220,-0.220,0.000,0.000,0.000
1643266505989389056,2022-01-27-06:55:05,10.1.1.5,31,-0.210,-0.210,-0.210,0.000,0.000,0.000
1643266506187563008,2022-01-27-06:55:06,10.1.1.5,27,-0.199,-0.199,-0.199,0.000,0.000,0.000
1643266506387450880,2022-01-27-06:55:06,10.1.1.5,26,-0.190,-0.190,-0.190,0.000,0.000,0.000
1643266506590087936,2022-01-27-06:55:06,10.1.1.5,24,-0.180,-0.180,-0.180,0.000,0.000,0.000
1643266506808939008,2022-01-27-06:55:06,10.1.1.5,38,-0.169,-0.169,-0.169,0.000,0.000,0.000
1643266507009462016,2022-01-27-06:55:07,10.1.1.5,36,-0.159,-0.159,-0.159,0.000,0.000,0.000
1643266507207371008,2022-01-27-06:55:07,10.1.1.5,33,-0.149,-0.149,-0.149,0.000,0.000,0.000
1643266507408770048,2022-01-27-06:55:07,10.1.1.5,30,-0.139,-0.139,-0.139,0.000,0.000,0.000
1643266507607227136,2022-01-27-06:55:07,10.1.1.5,28,-0.130,-0.130,-0.130,0.000,0.000,0.000
1643266507807066880,2022-01-27-06:55:07,10.1.1.5,27,-0.120,-0.120,-0.120,0.000,0.000,0.000
1643266507997904128,2022-01-27-06:55:07,10.1.1.5,17,-0.110,-0.110,-0.110,0.000,0.000,0.000
1643266508217436928,2022-01-27-06:55:08,10.1.1.5,36,-0.099,-0.099,-0.099,0.000,0.000,0.000
1643266508426676992,2022-01-27-06:55:08,10.1.1.5,43,-0.089,-0.089,-0.089,0.000,0.000,0.000
1643266508607212032,2022-01-27-06:55:08,10.1.1.5,22,-0.080,-0.080,-0.080,0.000,0.000,0.000
1643266508827758080,2022-01-27-06:55:08,10.1.1.5,42,-0.069,-0.069,-0.069,0.000,0.000,0.000
1643266509027945984,2022-01-27-06:55:09,10.1.1.5,40,-0.059,-0.059,-0.059,0.000,0.000,0.000
1643266509227076096,2022-01-27-06:55:09,10.1.1.5,37,-0.049,-0.049,-0.049,0.000,0.000,0.000
1643266509417278976,2022-01-27-06:55:09,10.1.1.5,27,-0.040,-0.040,-0.040,0.000,0.000,0.000
1643266509617160960,2022-01-27-06:55:09,10.1.1.5,25,-0.030,-0.030,-0.030,0.000,0.000,0.000
1643266509827696128,2022-01-27-06:55:09,10.1.1.5,33,-0.019,-0.019,-0.019,0.000,0.000,0.000
1643266510016588032,2022-01-27-06:55:10,10.1.1.5,20,-0.010,-0.010,-0.010,0.000,0.000,0.000
1643266510210483968,2022-01-27-06:55:10,10.1.1.5,13,-0.000,-0.000,-0.000,0.000,0.000,0.000
1643266510446953984,2022-01-27-06:55:10,10.1.1.5,48,-0.011,-0.011,-0.011,0.000,0.000,0.000
1643266510619739136,2022-01-27-06:55:10,10.1.1.5,20,-0.020,-0.020,-0.020,0.000,0.000,0.000
1643266510828131072,2022-01-27-06:55:10,10.1.1.5,25,-0.030,-0.030,-0.030,0.000,0.000,0.000
1643266511028388096,2022-01-27-06:55:11,10.1.1.5,24,-0.040,-0.040,-0.040,0.000,0.000,0.000
1643266511229882112,2022-01-27-06:55:11,10.1.1.5,24,-0.050,-0.050,-0.050,0.000,0.000,0.000
1643266511449088000,2022-01-27-06:55:11,10.1.1.5,42,-0.061,-0.061,-0.061,0.000,0.000,0.000
1643266511637780992,2022-01-27-06:55:11,10.1.1.5,30,-0.070,-0.070,-0.070,0.000,0.000,0.000
1643266511837208064,2022-01-27-06:55:11,10.1.1.5,28,-0.080,-0.080,-0.080,0.000,0.000,0.000
1643266512049202944,2022-01-27-06:55:12,10.1.1.5,40,-0.091,-0.091,-0.091,0.000,0.000,0.000
1643266512227674112,2022-01-27-06:55:12,10.1.1.5,16,-0.100,-0.100,-0.100,0.000,0.000,0.000
1643266512447942912,2022-01-27-06:55:12,10.1.1.5,36,-0.111,-0.111,-0.111,0.000,0.000,0.000
1643266512647550208,2022-01-27-06:55:12,10.1.1.5,34,-0.121,-0.121,-0.121,0.000,0.000,0.000
1643266512857357056,2022-01-27-06:55:12,10.1.1.5,42,-0.131,-0.131,-0.131,0.000,0.000,0.000
1643266513037808896,2022-01-27-06:55:13,10.1.1.5,21,-0.140,-0.140,-0.140,0.000,0.000,0.000
1643266513240744960,2022-01-27-06:55:13,10.1.1.5,23,-0.150,-0.150,-0.150,0.000,0.000,0.000
1643266513458610176,2022-01-27-06:55:13,10.1.1.5,39,-0.161,-0.161,-0.161,0.000,0.000,0.000
1643266513667833088,2022-01-27-06:55:13,10.1.1.5,47,-0.171,-0.171,-0.171,0.000,0.000,0.000
1643266513848610048,2022-01-27-06:55:13,10.1.1.5,27,-0.180,-0.180,-0.180,0.000,0.000,0.000
1643266514048079104,2022-01-27-06:55:14,10.1.1.5,25,-0.190,-0.190,-0.190,0.000,0.000,0.000
1643266514249083136,2022-01-27-06:55:14,10.1.1.5,25,-0.200,-0.200,-0.200,0.000,0.000,0.000
1643266514458620160,2022-01-27-06:55:14,10.1.1.5,33,-0.211,-0.211,-0.211,0.000,0.000,0.000
1643266514668601088,2022-01-27-06:55:14,10.1.1.5,41,-0.221,-0.221,-0.221,0.000,0.000,0.000
1643266514867512064,2022-01-27-06:55:14,10.1.1.5,38,-0.231,-0.231,-0.231,0.000,0.000,0.000
1643266515068231168,2022-01-27-06:55:15,10.1.1.5,37,-0.241,-0.241,-0.241,0.000,0.000,0.000
1643266515258054144,2022-01-27-06:55:15,10.1.1.5,26,-0.250,-0.250,-0.250,0.000,0.000,0.000
1643266515457732864,2022-01-27-06:55:15,10.1.1.5,24,-0.260,-0.260,-0.260,0.000,0.000,0.000
1643266515667289856,2022-01-27-06:55:15,10.1.1.5,31,-0.271,-0.271,-0.271,0.000,0.000,0.000
1643266515858309120,2022-01-27-06:55:15,10.1.1.5,21,-0.280,-0.280,-0.280,0.000,0.000,0.000
1643266516087922944,2022-01-27-06:55:16,10.1.1.5,49,-0.292,-0.292,-0.292,0.000,0.000,0.000
1643266516267156992,2022-01-27-06:55:16,10.1.1.5,28,-0.300,-0.300,-0.300,0.000,0.000,0.000
1643266516469139968,2022-01-27-06:55:16,10.1.1.5,29,-0.310,-0.310,-0.310,0.000,0.000,0.000
1643266516668817152,2022-01-27-06:55:16,10.1.1.5,26,-0.320,-0.320,-0.320,0.000,0.000,0.000
1643266516868119040,2022-01-27-06:55:16,10.1.1.5,25,-0.330,-0.330,-0.330,0.000,0.000,0.000
1643266517087596032,2022-01-27-06:55:17,10.1.1.5,44,-0.341,-0.341,-0.341,0.000,0.000,0.000
1643266517288899072,2022-01-27-06:55:17,10.1.1.5,44,-0.351,-0.351,-0.351,0.000,0.000,0.000
1643266517469275904,2022-01-27-06:55:17,10.1.1.5,23,-0.360,-0.360,-0.360,0.000,0.000,0.000
1643266517688702208,2022-01-27-06:55:17,10.1.1.5,36,-0.371,-0.371,-0.371,0.000,0.000,0.000
1643266517877545984,2022-01-27-06:55:17,10.1.1.5,24,-0.380,-0.380,-0.380,0.000,0.000,0.000
1643266518097924096,2022-01-27-06:55:18,10.1.1.5,43,-0.391,-0.391,-0.391,0.000,0.000,0.000
1643266518277793024,2022-01-27-06:55:18,10.1.1.5,21,-0.400,-0.400,-0.400,0.000,0.000,0.000
1643266518477562880,2022-01-27-06:55:18,10.1.1.5,19,-0.410,-0.410,-0.410,0.000,0.000,0.000
1643266518687575040,2022-01-27-06:55:18,10.1.1.5,28,-0.421,-0.421,-0.421,0.000,0.000,0.000
1643266518886932992,2022-01-27-06:55:18,10.1.1.5,27,-0.430,-0.430,-0.430,0.000,0.000,0.000
1643266519087320064,2022-01-27-06:55:19,10.1.1.5,26,-0.440,-0.440,-0.440,0.000,0.000,0.000
1643266519287233024,2022-01-27-06:55:19,10.1.1.5,25,-0.450,-0.450,-0.450,0.000,0.000,0.000
1643266519487052032,2022-01-27-06:55:19,10.1.1.5,24,-0.460,-0.460,-0.460,0.000,0.000,0.000
1643266519697295872,2022-01-27-06:55:19,10.1.1.5,33,-0.471,-0.471,-0.471,0.000,0.000,0.000
1643266519887604992,2022-01-27-06:55:19,10.1.1.5,22,-0.480,-0.480,-0.480,0.000,0.000,0.000
1643266520068555008,2022-01-27-06:55:20,10.1.1.5,2,-0.489,-0.489,-0.489,0.000,0.000,0.000
1643266520308967168,2022-01-27-06:55:20,10.1.1.5,41,-0.479,-0.479,-0.479,0.000,0.000,0.000
1643266520509998080,2022-01-27-06:55:20,10.1.1.5,41,-0.469,-0.469,-0.469,0.000,0.000,0.000
1643266520701329920,2022-01-27-06:55:20,10.1.1.5,27,-0.460,-0.460,-0.460,0.000,0.000,0.000
1643266520897150976,2022-01-27-06:55:20,10.1.1.5,25,-0.450,-0.450,-0.450,0.000,0.000,0.000
1643266521097809920,2022-01-27-06:55:21,10.1.1.5,20,-0.440,-0.440,-0.440,0.000,0.000,0.000
1643266521310535936,2022-01-27-06:55:21,10.1.1.5,31,-0.430,-0.430,-0.430,0.000,0.000,0.000
1643266521508055040,2022-01-27-06:55:21,10.1.1.5,26,-0.420,-0.420,-0.420,0.000,0.000,0.000
1643266521707778816,2022-01-27-06:55:21,10.1.1.5,25,-0.410,-0.410,-0.410,0.000,0.000,0.000
1643266521928929024,2022-01-27-06:55:21,10.1.1.5,45,-0.399,-0.399,-0.399,0.000,0.000,0.000
1643266522107300096,2022-01-27-06:55:22,10.1.1.5,22,-0.390,-0.390,-0.390,0.000,0.000,0.000
1643266522317095936,2022-01-27-06:55:22,10.1.1.5,31,-0.379,-0.379,-0.379,0.000,0.000,0.000
1643266522528497920,2022-01-27-06:55:22,10.1.1.5,38,-0.369,-0.369,-0.369,0.000,0.000,0.000
1643266522716954880,2022-01-27-06:55:22,10.1.1.5,25,-0.360,-0.360,-0.360,0.000,0.000,0.000
1643266522918382848,2022-01-27-06:55:22,10.1.1.5,25,-0.350,-0.350,-0.350,0.000,0.000,0.000
1643266523117356032,2022-01-27-06:55:23,10.1.1.5,22,-0.340,-0.340,-0.340,0.000,0.000,0.000
1643266523327693824,2022-01-27-06:55:23,10.1.1.5,31,-0.330,-0.330,-0.330,0.000,0.000,0.000
1643266523516763904,2022-01-27-06:55:23,10.1.1.5,18,-0.320,-0.320,-0.320,0.000,0.000,0.000
1643266523747222016,2022-01-27-06:55:23,10.1.1.5,47,-0.308,-0.308,-0.308,0.000,0.000,0.000
1643266523951365888,2022-01-27-06:55:23,10.1.1.5,50,-0.299,-0.299,-0.299,0.000,0.000,0.000
1643266524138484992,2022-01-27-06:55:24,10.1.1.5,35,-0.289,-0.289,-0.289,0.000,0.000,0.000
1643266524328643072,2022-01-27-06:55:24,10.1.1.5,25,-0.280,-0.280,-0.280,0.000,0.000,0.000
1643266524527452928,2022-01-27-06:55:24,10.1.1.5,22,-0.270,-0.270,-0.270,0.000,0.000,0.000
1643266524749332992,2022-01-27-06:55:24,10.1.1.5,42,-0.259,-0.259,-0.259,0.000,0.000,0.000
1643266524948838912,2022-01-27-06:55:24,10.1.1.5,41,-0.249,-0.249,-0.249,0.000,0.000,0.000
1643266525147876096,2022-01-27-06:55:25,10.1.1.5,38,-0.239,-0.239,-0.239,0.000,0.000,0.000
1643266525347968000,2022-01-27-06:55:25,10.1.1.5,38,-0.229,-0.229,-0.229,0.000,0.000,0.000
1643266525546989824,2022-01-27-06:55:25,10.1.1.5,36,-0.219,-0.219,-0.219,0.000,0.000,0.000
1643266525747323904,2022-01-27-06:55:25,10.1.1.5,36,-0.209,-0.209,-0.209,0.000,0.000,0.000
1643266525948097024,2022-01-27-06:55:25,10.1.1.5,36,-0.199,-0.199,-0.199,0.000,0.000,0.000
1643266526147456000,2022-01-27-06:55:26,10.1.1.5,28,-0.189,-0.189,-0.189,0.000,0.000,0.000
1643266526347112960,2022-01-27-06:55:26,10.1.1.5,25,-0.180,-0.180,-0.180,0.000,0.000,0.000
1643266526547362048,2022-01-27-06:55:26,10.1.1.5,24,-0.170,-0.170,-0.170,0.000,0.000,0.000
1643266526769120000,2022-01-27-06:55:26,10.1.1.5,41,-0.159,-0.159,-0.159,0.000,0.000,0.000
1643266526948091904,2022-01-27-06:55:26,10.1.1.5,18,-0.150,-0.150,-0.150,0.000,0.000,0.000
1643266527159591936,2022-01-27-06:55:27,10.1.1.5,29,-0.140,-0.140,-0.140,0.000,0.000,0.000
1643266527369220096,2022-01-27-06:55:27,10.1.1.5,37,-0.129,-0.129,-0.129,0.000,0.000,0.000
1643266527567585024,2022-01-27-06:55:27,10.1.1.5,33,-0.119,-0.119,-0.119,0.000,0.000,0.000
1643266527766472192,2022-01-27-06:55:27,10.1.1.5,28,-0.109,-0.109,-0.109,0.000,0.000,0.000
1643266527968285184,2022-01-27-06:55:27,10.1.1.5,28,-0.099,-0.099,-0.099,0.000,0.000,0.000
1643266528157036032,2022-01-27-06:55:28,10.1.1.5,16,-0.090,-0.090,-0.090,0.000,0.000,0.000
1643266528378152960,2022-01-27-06:55:28,10.1.1.5,37,-0.079,-0.079,-0.079,0.000,0.000,0.000
1643266528581090048,2022-01-27-06:55:28,10.1.1.5,39,-0.069,-0.069,-0.069,0.000,0.000,0.000
1643266528776742912,2022-01-27-06:55:28,10.1.1.5,33,-0.059,-0.059,-0.059,0.000,0.000,0.000
1643266528977216000,2022-01-27-06:55:28,10.1.1.5,33,-0.049,-0.049,-0.049,0.000,0.000,0.000
1643266529190401024,2022-01-27-06:55:29,10.1.1.5,45,-0.039,-0.039,-0.039,0.000,0.000,0.000
1643266529379398144,2022-01-27-06:55:29,10.1.1.5,33,-0.029,-0.029,-0.029,0.000,0.000,0.000
1643266529576901888,2022-01-27-06:55:29,10.1.1.5,30,-0.020,-0.020,-0.020,0.000,0.000,0.000
1643266529778228992,2022-01-27-06:55:29,10.1.1.5,31,-0.010,-0.010,-0.010,0.000,0.000,0.000
1643266529957113856,2022-01-27-06:55:29,10.1.1.5,9,-0.000,-0.000,-0.000,0.000,0.000,0.000
1643266530187661824,2022-01-27-06:55:30,10.1.1.5,38,-0.011,-0.011,-0.011,0.000,0.000,0.000
1643266530389082880,2022-01-27-06:55:30,10.1.1.5,39,-0.021,-0.021,-0.021,0.000,0.000,0.000
1643266530593233152,2022-01-27-06:55:30,10.1.1.5,37,-0.031,-0.031,-0.031,0.000,0.000,0.000
1643266530777633024,2022-01-27-06:55:30,10.1.1.5,25,-0.040,-0.040,-0.040,0.000,0.000,0.000
1643266530979418880,2022-01-27-06:55:30,10.1.1.5,25,-0.050,-0.050,-0.050,0.000,0.000,0.000
1643266531177548032,2022-01-27-06:55:31,10.1.1.5,22,-0.060,-0.060,-0.060,0.000,0.000,0.000
1643266531388468992,2022-01-27-06:55:31,10.1.1.5,32,-0.071,-0.071,-0.071,0.000,0.000,0.000
1643266531589431040,2022-01-27-06:55:31,10.1.1.5,33,-0.081,-0.081,-0.081,0.000,0.000,0.000
1643266531777362944,2022-01-27-06:55:31,10.1.1.5,19,-0.090,-0.090,-0.090,0.000,0.000,0.000
1643266531977113856,2022-01-27-06:55:31,10.1.1.5,18,-0.100,-0.100,-0.100,0.000,0.000,0.000
1643266532187419904,2022-01-27-06:55:32,10.1.1.5,27,-0.111,-0.111,-0.111,0.000,0.000,0.000
1643266532378824960,2022-01-27-06:55:32,10.1.1.5,18,-0.120,-0.120,-0.120,0.000,0.000,0.000
1643266532597505024,2022-01-27-06:55:32,10.1.1.5,34,-0.131,-0.131,-0.131,0.000,0.000,0.000
1643266532797657088,2022-01-27-06:55:32,10.1.1.5,34,-0.141,-0.141,-0.141,0.000,0.000,0.000
1643266532997381888,2022-01-27-06:55:32,10.1.1.5,30,-0.150,-0.150,-0.150,0.000,0.000,0.000
1643266533197551104,2022-01-27-06:55:33,10.1.1.5,29,-0.161,-0.161,-0.161,0.000,0.000,0.000
1643266533397635840,2022-01-27-06:55:33,10.1.1.5,25,-0.170,-0.170,-0.170,0.000,0.000,0.000
1643266533608457216,2022-01-27-06:55:33,10.1.1.5,35,-0.181,-0.181,-0.181,0.000,0.000,0.000
1643266533818332928,2022-01-27-06:55:33,10.1.1.5,44,-0.191,-0.191,-0.191,0.000,0.000,0.000
1643266534008423168,2022-01-27-06:55:34,10.1.1.5,33,-0.201,-0.201,-0.201,0.000,0.000,0.000
1643266534208702208,2022-01-27-06:55:34,10.1.1.5,30,-0.210,-0.210,-0.210,0.000,0.000,0.000
1643266534409143040,2022-01-27-06:55:34,10.1.1.5,30,-0.220,-0.220,-0.220,0.000,0.000,0.000
1643266534619533056,2022-01-27-06:55:34,10.1.1.5,40,-0.231,-0.231,-0.231,0.000,0.000,0.000
1643266534818254080,2022-01-27-06:55:34,10.1.1.5,38,-0.241,-0.241,-0.241,0.000,0.000,0.000
1643266535031180032,2022-01-27-06:55:35,10.1.1.5,50,-0.251,-0.251,-0.251,0.000,0.000,0.000
1643266535227139072,2022-01-27-06:55:35,10.1.1.5,45,-0.261,-0.261,-0.261,0.000,0.000,0.000
1643266535407734016,2022-01-27-06:55:35,10.1.1.5,25,-0.270,-0.270,-0.270,0.000,0.000,0.000
1643266535610044928,2022-01-27-06:55:35,10.1.1.5,26,-0.280,-0.280,-0.280,0.000,0.000,0.000
1643266535818268928,2022-01-27-06:55:35,10.1.1.5,34,-0.291,-0.291,-0.291,0.000,0.000,0.000
1643266536017165824,2022-01-27-06:55:36,10.1.1.5,32,-0.301,-0.301,-0.301,0.000,0.000,0.000
1643266536228549120,2022-01-27-06:55:36,10.1.1.5,39,-0.311,-0.311,-0.311,0.000,0.000,0.000
1643266536428280064,2022-01-27-06:55:36,10.1.1.5,38,-0.321,-0.321,-0.321,0.000,0.000,0.000
1643266536627949056,2022-01-27-06:55:36,10.1.1.5,35,-0.331,-0.331,-0.331,0.000,0.000,0.000
1643266536828942080,2022-01-27-06:55:36,10.1.1.5,34,-0.341,-0.341,-0.341,0.000,0.000,0.000
1643266537028526080,2022-01-27-06:55:37,10.1.1.5,32,-0.351,-0.351,-0.351,0.000,0.000,0.000
1643266537227719168,2022-01-27-06:55:37,10.1.1.5,31,-0.361,-0.361,-0.361,0.000,0.000,0.000
1643266537417774848,2022-01-27-06:55:37,10.1.1.5,19,-0.370,-0.370,-0.370,0.000,0.000,0.000
1643266537617475072,2022-01-27-06:55:37,10.1.1.5,19,-0.380,-0.380,-0.380,0.000,0.000,0.000
1643266537817410048,2022-01-27-06:55:37,10.1.1.5,18,-0.390,-0.390,-0.390,0.000,0.000,0.000
1643266538028201216,2022-01-27-06:55:38,10.1.1.5,27,-0.400,-0.400,-0.400,0.000,0.000,0.000
1643266538247515904,2022-01-27-06:55:38,10.1.1.5,46,-0.411,-0.411,-0.411,0.000,0.000,0.000
1643266538447475968,2022-01-27-06:55:38,10.1.1.5,44,-0.421,-0.421,-0.421,0.000,0.000,0.000
1643266538637414912,2022-01-27-06:55:38,10.1.1.5,34,-0.431,-0.431,-0.431,0.000,0.000,0.000
1643266538827563008,2022-01-27-06:55:38,10.1.1.5,23,-0.440,-0.440,-0.440,0.000,0.000,0.000
1643266539037131008,2022-01-27-06:55:39,10.1.1.5,32,-0.451,-0.451,-0.451,0.000,0.000,0.000
1643266539236888832,2022-01-27-06:55:39,10.1.1.5,32,-0.461,-0.461,-0.461,0.000,0.000,0.000
1643266539436662016,2022-01-27-06:55:39,10.1.1.5,30,-0.470,-0.470,-0.470,0.000,0.000,0.000
1643266539638361856,2022-01-27-06:55:39,10.1.1.5,31,-0.481,-0.481,-0.481,0.000,0.000,0.000
1643266539817431040,2022-01-27-06:55:39,10.1.1.5,9,-0.490,-0.490,-0.490,0.000,0.000,0.000
1643266540037972992,2022-01-27-06:55:40,10.1.1.5,28,-0.479,-0.479,-0.479,0.000,0.000,0.000
1643266540239387904,2022-01-27-06:55:40,10.1.1.5,28,-0.470,-0.470,-0.470,0.000,0.000,0.000
1643266540440179968,2022-01-27-06:55:40,10.1.1.5,27,-0.460,-0.460,-0.460,0.000,0.000,0.000
1643266540638437888,2022-01-27-06:55:40,10.1.1.5,19,-0.450,-0.450,-0.450,0.000,0.000,0.000
1643266540868532992,2022-01-27-06:55:40,10.1.1.5,48,-0.439,-0.439,-0.439,0.000,0.000,0.000
1643266541048417024,2022-01-27-06:55:41,10.1.1.5,26,-0.430,-0.430,-0.430,0.000,0.000,0.000
1643266541246611968,2022-01-27-06:55:41,10.1.1.5,23,-0.420,-0.420,-0.420,0.000,0.000,0.000
1643266541447209984,2022-01-27-06:55:41,10.1.1.5,23,-0.410,-0.410,-0.410,0.000,0.000,0.000
1643266541648099840,2022-01-27-06:55:41,10.1.1.5,23,-0.400,-0.400,-0.400,0.000,0.000,0.000
1643266541866755840,2022-01-27-06:55:41,10.1.1.5,41,-0.389,-0.389,-0.389,0.000,0.000,0.000
1643266542068273152,2022-01-27-06:55:42,10.1.1.5,41,-0.379,-0.379,-0.379,0.000,0.000,0.000
1643266542267226880,2022-01-27-06:55:42,10.1.1.5,40,-0.369,-0.369,-0.369,0.000,0.000,0.000
1643266542466973184,2022-01-27-06:55:42,10.1.1.5,39,-0.359,-0.359,-0.359,0.000,0.000,0.000
1643266542646397952,2022-01-27-06:55:42,10.1.1.5,18,-0.350,-0.350,-0.350,0.000,0.000,0.000
1643266542868478976,2022-01-27-06:55:42,10.1.1.5,38,-0.339,-0.339,-0.339,0.000,0.000,0.000
1643266543067975168,2022-01-27-06:55:43,10.1.1.5,37,-0.329,-0.329,-0.329,0.000,0.000,0.000
1643266543270436096,2022-01-27-06:55:43,10.1.1.5,36,-0.319,-0.319,-0.319,0.000,0.000,0.000
1643266543471255040,2022-01-27-06:55:43,10.1.1.5,35,-0.309,-0.309,-0.309,0.000,0.000,0.000
1643266543668488960,2022-01-27-06:55:43,10.1.1.5,31,-0.299,-0.299,-0.299,0.000,0.000,0.000
1643266543867628032,2022-01-27-06:55:43,10.1.1.5,29,-0.290,-0.290,-0.290,0.000,0.000,0.000
1643266544067555840,2022-01-27-06:55:44,10.1.1.5,28,-0.279,-0.279,-0.279,0.000,0.000,0.000
1643266544267110144,2022-01-27-06:55:44,10.1.1.5,27,-0.270,-0.270,-0.270,0.000,0.000,0.000
1643266544477637888,2022-01-27-06:55:44,10.1.1.5,35,-0.259,-0.259,-0.259,0.000,0.000,0.000
1643266544667745024,2022-01-27-06:55:44,10.1.1.5,23,-0.250,-0.250,-0.250,0.000,0.000,0.000
1643266544869296128,2022-01-27-06:55:44,10.1.1.5,20,-0.240,-0.240,-0.240,0.000,0.000,0.000
1643266545087744000,2022-01-27-06:55:45,10.1.1.5,38,-0.229,-0.229,-0.229,0.000,0.000,0.000
1643266545287826944,2022-01-27-06:55:45,10.1.1.5,36,-0.219,-0.219,-0.219,0.000,0.000,0.000
1643266545486912000,2022-01-27-06:55:45,10.1.1.5,31,-0.209,-0.209,-0.209,0.000,0.000,0.000
1643266545687151872,2022-01-27-06:55:45,10.1.1.5,31,-0.199,-0.199,-0.199,0.000,0.000,0.000
1643266545886380032,2022-01-27-06:55:45,10.1.1.5,26,-0.190,-0.190,-0.190,0.000,0.000,0.000
1643266546094593024,2022-01-27-06:55:46,10.1.1.5,33,-0.180,-0.180,-0.180,0.000,0.000,0.000
1643266546286784000,2022-01-27-06:55:46,10.1.1.5,24,-0.170,-0.170,-0.170,0.000,0.000,0.000
1643266546487845888,2022-01-27-06:55:46,10.1.1.5,24,-0.160,-0.160,-0.160,0.000,0.000,0.000
1643266546699523840,2022-01-27-06:55:46,10.1.1.5,35,-0.149,-0.149,-0.149,0.000,0.000,0.000
1643266546889221888,2022-01-27-06:55:46,10.1.1.5,23,-0.140,-0.140,-0.140,0.000,0.000,0.000
1643266547098073088,2022-01-27-06:55:47,10.1.1.5,31,-0.130,-0.130,-0.130,0.000,0.000,0.000
1643266547288055808,2022-01-27-06:55:47,10.1.1.5,20,-0.120,-0.120,-0.120,0.000,0.000,0.000
1643266547500220928,2022-01-27-06:55:47,10.1.1.5,29,-0.110,-0.110,-0.110,0.000,0.000,0.000
1643266547687561984,2022-01-27-06:55:47,10.1.1.5,16,-0.100,-0.100,-0.100,0.000,0.000,0.000
1643266547907279104,2022-01-27-06:55:47,10.1.1.5,35,-0.089,-0.089,-0.089,0.000,0.000,0.000
1643266548108226048,2022-01-27-06:55:48,10.1.1.5,35,-0.079,-0.079,-0.079,0.000,0.000,0.000
1643266548308219904,2022-01-27-06:55:48,10.1.1.5,34,-0.069,-0.069,-0.069,0.000,0.000,0.000
1643266548506902016,2022-01-27-06:55:48,10.1.1.5,32,-0.059,-0.059,-0.059,0.000,0.000,0.000
1643266548697624064,2022-01-27-06:55:48,10.1.1.5,21,-0.050,-0.050,-0.050,0.000,0.000,0.000
1643266548908737792,2022-01-27-06:55:48,10.1.1.5,28,-0.040,-0.040,-0.040,0.000,0.000,0.000
1643266549117669120,2022-01-27-06:55:49,10.1.1.5,36,-0.029,-0.029,-0.029,0.000,0.000,0.000
1643266549319813120,2022-01-27-06:55:49,10.1.1.5,35,-0.019,-0.019,-0.019,0.000,0.000,0.000
1643266549529583872,2022-01-27-06:55:49,10.1.1.5,44,-0.009,-0.009,-0.009,0.000,0.000,0.000
1643266549698447104,2022-01-27-06:55:49,10.1.1.5,12,-0.000,-0.000,-0.000,0.000,0.000,0.000
1643266549928610048,2022-01-27-06:55:49,10.1.1.5,40,-0.011,-0.011,-0.011,0.000,0.000,0.000
1643266550129286912,2022-01-27-06:55:50,10.1.1.5,40,-0.021,-0.021,-0.021,0.000,0.000,0.000
1643266550317806080,2022-01-27-06:55:50,10.1.1.5,28,-0.031,-0.031,-0.031,0.000,0.000,0.000
1643266550528177920,2022-01-27-06:55:50,10.1.1.5,38,-0.041,-0.041,-0.041,0.000,0.000,0.000
1643266550719010048,2022-01-27-06:55:50,10.1.1.5,26,-0.050,-0.050,-0.050,0.000,0.000,0.000
1643266550920815104,2022-01-27-06:55:50,10.1.1.5,27,-0.060,-0.060,-0.060,0.000,0.000,0.000
1643266551117222912,2022-01-27-06:55:51,10.1.1.5,22,-0.070,-0.070,-0.070,0.000,0.000,0.000
1643266551318120960,2022-01-27-06:55:51,10.1.1.5,22,-0.080,-0.080,-0.080,0.000,0.000,0.000
