FedericoMungari/DigitalTwin_service/01_WiredScenario/Output/Output_script/script_rosapi_2_output_robots6_freq0_6.txt
timestamp,date,node,latency,joint_1,joint_2,joint_3,joint_4,joint_5,joint_6
1641091004095070976,2022-01-02-02:36:44,10.1.1.7,169,-0.010,-0.010,-0.010,0.000,0.000,0.000
1641091004314728960,2022-01-02-02:36:44,10.1.1.7,188,-0.020,-0.020,-0.020,0.000,0.000,0.000
1641091004494411008,2022-01-02-02:36:44,10.1.1.7,167,-0.030,-0.030,-0.030,0.000,0.000,0.000
1641091004694057984,2022-01-02-02:36:44,10.1.1.7,164,-0.040,-0.040,-0.040,0.000,0.000,0.000
1641091004893699840,2022-01-02-02:36:44,10.1.1.7,162,-0.050,-0.050,-0.050,0.000,0.000,0.000
1641091005103864064,2022-01-02-02:36:45,10.1.1.7,170,-0.060,-0.060,-0.060,0.000,0.000,0.000
1641091005304218880,2022-01-02-02:36:45,10.1.1.7,170,-0.070,-0.070,-0.070,0.000,0.000,0.000
1641091005503410176,2022-01-02-02:36:45,10.1.1.7,168,-0.080,-0.080,-0.080,0.000,0.000,0.000
1641091005714546944,2022-01-02-02:36:45,10.1.1.7,178,-0.090,-0.090,-0.090,0.000,0.000,0.000
1641091005901864960,2022-01-02-02:36:45,10.1.1.7,164,-0.100,-0.100,-0.100,0.000,0.000,0.000
1641091006111394816,2022-01-02-02:36:46,10.1.1.7,172,-0.110,-0.110,-0.110,0.000,0.000,0.000
1641091006311564032,2022-01-02-02:36:46,10.1.1.7,172,-0.120,-0.120,-0.120,0.000,0.000,0.000
1641091006500744192,2022-01-02-02:36:46,10.1.1.7,161,-0.130,-0.130,-0.130,0.000,0.000,0.000
1641091006710915072,2022-01-02-02:36:46,10.1.1.7,170,-0.140,-0.140,-0.140,0.000,0.000,0.000
1641091006911417088,2022-01-02-02:36:46,10.1.1.7,169,-0.150,-0.150,-0.150,0.000,0.000,0.000
1641091007110849024,2022-01-02-02:36:47,10.1.1.7,168,-0.160,-0.160,-0.160,0.000,0.000,0.000
1641091007310164992,2022-01-02-02:36:47,10.1.1.7,166,-0.170,-0.170,-0.170,0.000,0.000,0.000
1641091007520175872,2022-01-02-02:36:47,10.1.1.7,173,-0.180,-0.180,-0.180,0.000,0.000,0.000
1641091007719988992,2022-01-02-02:36:47,10.1.1.7,171,-0.190,-0.190,-0.190,0.000,0.000,0.000
1641091007919394048,2022-01-02-02:36:47,10.1.1.7,169,-0.200,-0.200,-0.200,0.000,0.000,0.000
1641091008109488128,2022-01-02-02:36:48,10.1.1.7,159,-0.210,-0.210,-0.210,0.000,0.000,0.000
1641091008318804992,2022-01-02-02:36:48,10.1.1.7,167,-0.220,-0.220,-0.220,0.000,0.000,0.000
1641091008518749952,2022-01-02-02:36:48,10.1.1.7,165,-0.230,-0.230,-0.230,0.000,0.000,0.000
1641091008727776000,2022-01-02-02:36:48,10.1.1.7,173,-0.240,-0.240,-0.240,0.000,0.000,0.000
1641091008929071872,2022-01-02-02:36:48,10.1.1.7,173,-0.250,-0.250,-0.250,0.000,0.000,0.000
1641091009117608192,2022-01-02-02:36:49,10.1.1.7,160,-0.260,-0.260,-0.260,0.000,0.000,0.000
1641091009316704000,2022-01-02-02:36:49,10.1.1.7,157,-0.270,-0.270,-0.270,0.000,0.000,0.000
1641091009526351872,2022-01-02-02:36:49,10.1.1.7,165,-0.280,-0.280,-0.280,0.000,0.000,0.000
1641091009716144128,2022-01-02-02:36:49,10.1.1.7,155,-0.290,-0.290,-0.290,0.000,0.000,0.000
1641091009916065024,2022-01-02-02:36:49,10.1.1.7,154,-0.300,-0.300,-0.300,0.000,0.000,0.000
1641091010116073984,2022-01-02-02:36:50,10.1.1.7,153,-0.310,-0.310,-0.310,0.000,0.000,0.000
1641091010325536000,2022-01-02-02:36:50,10.1.1.7,162,-0.320,-0.320,-0.320,0.000,0.000,0.000
1641091010544844032,2022-01-02-02:36:50,10.1.1.7,180,-0.330,-0.330,-0.330,0.000,0.000,0.000
1641091010745084928,2022-01-02-02:36:50,10.1.1.7,179,-0.340,-0.340,-0.340,0.000,0.000,0.000
1641091010934917888,2022-01-02-02:36:50,10.1.1.7,169,-0.350,-0.350,-0.350,0.000,0.000,0.000
1641091011124158976,2022-01-02-02:36:51,10.1.1.7,158,-0.360,-0.360,-0.360,0.000,0.000,0.000
1641091011344197120,2022-01-02-02:36:51,10.1.1.7,177,-0.370,-0.370,-0.370,0.000,0.000,0.000
1641091011524164864,2022-01-02-02:36:51,10.1.1.7,156,-0.380,-0.380,-0.380,0.000,0.000,0.000
1641091011733662976,2022-01-02-02:36:51,10.1.1.7,165,-0.390,-0.390,-0.390,0.000,0.000,0.000
1641091011944102144,2022-01-02-02:36:51,10.1.1.7,174,-0.400,-0.400,-0.400,0.000,0.000,0.000
1641091012132905984,2022-01-02-02:36:52,10.1.1.7,162,-0.410,-0.410,-0.410,0.000,0.000,0.000
1641091012322628864,2022-01-02-02:36:52,10.1.1.7,151,-0.420,-0.420,-0.420,0.000,0.000,0.000
1641091012542296832,2022-01-02-02:36:52,10.1.1.7,170,-0.430,-0.430,-0.430,0.000,0.000,0.000
1641091012741830144,2022-01-02-02:36:52,10.1.1.7,169,-0.440,-0.440,-0.440,0.000,0.000,0.000
1641091012941828096,2022-01-02-02:36:52,10.1.1.7,168,-0.450,-0.450,-0.450,0.000,0.000,0.000
1641091013132276992,2022-01-02-02:36:53,10.1.1.7,157,-0.460,-0.460,-0.460,0.000,0.000,0.000
1641091013330849024,2022-01-02-02:36:53,10.1.1.7,156,-0.470,-0.470,-0.470,0.000,0.000,0.000
1641091013530682112,2022-01-02-02:36:53,10.1.1.7,154,-0.480,-0.480,-0.480,0.000,0.000,0.000
1641091013730834944,2022-01-02-02:36:53,10.1.1.7,154,-0.490,-0.490,-0.490,0.000,0.000,0.000
1641091013939670016,2022-01-02-02:36:53,10.1.1.7,162,-0.480,-0.480,-0.480,0.000,0.000,0.000
1641091014139687168,2022-01-02-02:36:54,10.1.1.7,161,-0.470,-0.470,-0.470,0.000,0.000,0.000
1641091014330318848,2022-01-02-02:36:54,10.1.1.7,150,-0.460,-0.460,-0.460,0.000,0.000,0.000
1641091014538810112,2022-01-02-02:36:54,10.1.1.7,159,-0.450,-0.450,-0.450,0.000,0.000,0.000
1641091014739927040,2022-01-02-02:36:54,10.1.1.7,159,-0.440,-0.440,-0.440,0.000,0.000,0.000
1641091014928758016,2022-01-02-02:36:54,10.1.1.7,147,-0.430,-0.430,-0.430,0.000,0.000,0.000
1641091015128439808,2022-01-02-02:36:55,10.1.1.7,147,-0.420,-0.420,-0.420,0.000,0.000,0.000
1641091015329191936,2022-01-02-02:36:55,10.1.1.7,147,-0.410,-0.410,-0.410,0.000,0.000,0.000
1641091015527510784,2022-01-02-02:36:55,10.1.1.7,144,-0.400,-0.400,-0.400,0.000,0.000,0.000
1641091015748003840,2022-01-02-02:36:55,10.1.1.7,163,-0.390,-0.390,-0.390,0.000,0.000,0.000
1641091015937283072,2022-01-02-02:36:55,10.1.1.7,152,-0.380,-0.380,-0.380,0.000,0.000,0.000
1641091016147859968,2022-01-02-02:36:56,10.1.1.7,162,-0.370,-0.370,-0.370,0.000,0.000,0.000
1641091016348290816,2022-01-02-02:36:56,10.1.1.7,162,-0.360,-0.360,-0.360,0.000,0.000,0.000
1641091016549843968,2022-01-02-02:36:56,10.1.1.7,163,-0.350,-0.350,-0.350,0.000,0.000,0.000
1641091016772214784,2022-01-02-02:36:56,10.1.1.7,184,-0.340,-0.340,-0.340,0.000,0.000,0.000
1641091016942838784,2022-01-02-02:36:56,10.1.1.7,152,-0.330,-0.330,-0.330,0.000,0.000,0.000
1641091017148253952,2022-01-02-02:36:57,10.1.1.7,156,-0.320,-0.320,-0.320,0.000,0.000,0.000
1641091017354212096,2022-01-02-02:36:57,10.1.1.7,162,-0.310,-0.310,-0.310,0.000,0.000,0.000
1641091017554680064,2022-01-02-02:36:57,10.1.1.7,161,-0.300,-0.300,-0.300,0.000,0.000,0.000
1641091017765088000,2022-01-02-02:36:57,10.1.1.7,169,-0.290,-0.290,-0.290,0.000,0.000,0.000
1641091017966682880,2022-01-02-02:36:57,10.1.1.7,170,-0.280,-0.280,-0.280,0.000,0.000,0.000
1641091018158586880,2022-01-02-02:36:58,10.1.1.7,161,-0.270,-0.270,-0.270,0.000,0.000,0.000
1641091018364456960,2022-01-02-02:36:58,10.1.1.7,161,-0.260,-0.260,-0.260,0.000,0.000,0.000
1641091018558470912,2022-01-02-02:36:58,10.1.1.7,156,-0.250,-0.250,-0.250,0.000,0.000,0.000
1641091018779616000,2022-01-02-02:36:58,10.1.1.7,173,-0.240,-0.240,-0.240,0.000,0.000,0.000
1641091018970760192,2022-01-02-02:36:58,10.1.1.7,163,-0.230,-0.230,-0.230,0.000,0.000,0.000
1641091019170731008,2022-01-02-02:36:59,10.1.1.7,159,-0.220,-0.220,-0.220,0.000,0.000,0.000
1641091019391452928,2022-01-02-02:36:59,10.1.1.7,177,-0.210,-0.210,-0.210,0.000,0.000,0.000
1641091019581777152,2022-01-02-02:36:59,10.1.1.7,166,-0.200,-0.200,-0.200,0.000,0.000,0.000
1641091019782100992,2022-01-02-02:36:59,10.1.1.7,166,-0.190,-0.190,-0.190,0.000,0.000,0.000
1641091019983552000,2022-01-02-02:36:59,10.1.1.7,167,-0.180,-0.180,-0.180,0.000,0.000,0.000
1641091020183974912,2022-01-02-02:37:00,10.1.1.7,167,-0.170,-0.170,-0.170,0.000,0.000,0.000
1641091020393912064,2022-01-02-02:37:00,10.1.1.7,176,-0.160,-0.160,-0.160,0.000,0.000,0.000
1641091020593936896,2022-01-02-02:37:00,10.1.1.7,175,-0.150,-0.150,-0.150,0.000,0.000,0.000
1641091020784683008,2022-01-02-02:37:00,10.1.1.7,166,-0.140,-0.140,-0.140,0.000,0.000,0.000
1641091020986478080,2022-01-02-02:37:00,10.1.1.7,166,-0.130,-0.130,-0.130,0.000,0.000,0.000
1641091021185988864,2022-01-02-02:37:01,10.1.1.7,165,-0.120,-0.120,-0.120,0.000,0.000,0.000
1641091021388264960,2022-01-02-02:37:01,10.1.1.7,166,-0.110,-0.110,-0.110,0.000,0.000,0.000
1641091021597479936,2022-01-02-02:37:01,10.1.1.7,174,-0.100,-0.100,-0.100,0.000,0.000,0.000
1641091021796621056,2022-01-02-02:37:01,10.1.1.7,173,-0.090,-0.090,-0.090,0.000,0.000,0.000
1641091022017540864,2022-01-02-02:37:02,10.1.1.7,193,-0.080,-0.080,-0.080,0.000,0.000,0.000
1641091022207603968,2022-01-02-02:37:02,10.1.1.7,182,-0.070,-0.070,-0.070,0.000,0.000,0.000
1641091022417985024,2022-01-02-02:37:02,10.1.1.7,192,-0.060,-0.060,-0.060,0.000,0.000,0.000
1641091022608252160,2022-01-02-02:37:02,10.1.1.7,182,-0.050,-0.050,-0.050,0.000,0.000,0.000
1641091022818232064,2022-01-02-02:37:02,10.1.1.7,191,-0.040,-0.040,-0.040,0.000,0.000,0.000
1641091023008549888,2022-01-02-02:37:03,10.1.1.7,181,-0.030,-0.030,-0.030,0.000,0.000,0.000
1641091023199881984,2022-01-02-02:37:03,10.1.1.7,172,-0.020,-0.020,-0.020,0.000,0.000,0.000
1641091023419354880,2022-01-02-02:37:03,10.1.1.7,191,-0.010,-0.010,-0.010,0.000,0.000,0.000
1641091023599245056,2022-01-02-02:37:03,10.1.1.7,170,0.000,0.000,0.000,0.000,0.000,0.000
1641091023630532864,2022-01-02-02:37:03,10.1.1.7,-1,0.000,0.000,0.000,0.000,0.000,0.000
1641091024010395904,2022-01-02-02:37:04,10.1.1.7,179,-0.020,-0.020,-0.020,0.000,0.000,0.000
1641091024210124032,2022-01-02-02:37:04,10.1.1.7,177,-0.030,-0.030,-0.030,0.000,0.000,0.000
1641091024400239872,2022-01-02-02:37:04,10.1.1.7,167,-0.040,-0.040,-0.040,0.000,0.000,0.000
1641091024609890816,2022-01-02-02:37:04,10.1.1.7,176,-0.050,-0.050,-0.050,0.000,0.000,0.000
1641091024810796032,2022-01-02-02:37:04,10.1.1.7,175,-0.060,-0.060,-0.060,0.000,0.000,0.000
1641091025012698880,2022-01-02-02:37:05,10.1.1.7,175,-0.070,-0.070,-0.070,0.000,0.000,0.000
1641091025210916096,2022-01-02-02:37:05,10.1.1.7,172,-0.080,-0.080,-0.080,0.000,0.000,0.000
1641091025420046080,2022-01-02-02:37:05,10.1.1.7,181,-0.090,-0.090,-0.090,0.000,0.000,0.000
1641091025610633984,2022-01-02-02:37:05,10.1.1.7,170,-0.100,-0.100,-0.100,0.000,0.000,0.000
1641091025811131904,2022-01-02-02:37:05,10.1.1.7,169,-0.110,-0.110,-0.110,0.000,0.000,0.000
1641091026021086976,2022-01-02-02:37:06,10.1.1.7,179,-0.120,-0.120,-0.120,0.000,0.000,0.000
1641091026211385088,2022-01-02-02:37:06,10.1.1.7,168,-0.130,-0.130,-0.130,0.000,0.000,0.000
1641091026411847168,2022-01-02-02:37:06,10.1.1.7,168,-0.140,-0.140,-0.140,0.000,0.000,0.000
1641091026641457152,2022-01-02-02:37:06,10.1.1.7,197,-0.150,-0.150,-0.150,0.000,0.000,0.000
1641091026821090816,2022-01-02-02:37:06,10.1.1.7,176,-0.160,-0.160,-0.160,0.000,0.000,0.000
1641091027041112064,2022-01-02-02:37:07,10.1.1.7,195,-0.170,-0.170,-0.170,0.000,0.000,0.000
1641091027220809984,2022-01-02-02:37:07,10.1.1.7,174,-0.180,-0.180,-0.180,0.000,0.000,0.000
1641091027431596032,2022-01-02-02:37:07,10.1.1.7,184,-0.190,-0.190,-0.190,0.000,0.000,0.000
1641091027621257984,2022-01-02-02:37:07,10.1.1.7,173,-0.200,-0.200,-0.200,0.000,0.000,0.000
1641091027830732032,2022-01-02-02:37:07,10.1.1.7,181,-0.210,-0.210,-0.210,0.000,0.000,0.000
1641091028020504064,2022-01-02-02:37:08,10.1.1.7,170,-0.220,-0.220,-0.220,0.000,0.000,0.000
1641091028231972864,2022-01-02-02:37:08,10.1.1.7,181,-0.230,-0.230,-0.230,0.000,0.000,0.000
1641091028441299968,2022-01-02-02:37:08,10.1.1.7,189,-0.240,-0.240,-0.240,0.000,0.000,0.000
1641091028621705984,2022-01-02-02:37:08,10.1.1.7,169,-0.250,-0.250,-0.250,0.000,0.000,0.000
1641091028820624128,2022-01-02-02:37:08,10.1.1.7,167,-0.260,-0.260,-0.260,0.000,0.000,0.000
1641091029040790016,2022-01-02-02:37:09,10.1.1.7,186,-0.270,-0.270,-0.270,0.000,0.000,0.000
1641091029242414848,2022-01-02-02:37:09,10.1.1.7,187,-0.280,-0.280,-0.280,0.000,0.000,0.000
1641091029430438144,2022-01-02-02:37:09,10.1.1.7,174,-0.290,-0.290,-0.290,0.000,0.000,0.000
1641091029641542912,2022-01-02-02:37:09,10.1.1.7,184,-0.300,-0.300,-0.300,0.000,0.000,0.000
1641091029840212224,2022-01-02-02:37:09,10.1.1.7,182,-0.310,-0.310,-0.310,0.000,0.000,0.000
1641091030040033024,2022-01-02-02:37:10,10.1.1.7,181,-0.320,-0.320,-0.320,0.000,0.000,0.000
1641091030239602176,2022-01-02-02:37:10,10.1.1.7,179,-0.330,-0.330,-0.330,0.000,0.000,0.000
1641091030430238976,2022-01-02-02:37:10,10.1.1.7,168,-0.340,-0.340,-0.340,0.000,0.000,0.000
1641091030639631104,2022-01-02-02:37:10,10.1.1.7,177,-0.350,-0.350,-0.350,0.000,0.000,0.000
1641091030838934784,2022-01-02-02:37:10,10.1.1.7,173,-0.360,-0.360,-0.360,0.000,0.000,0.000
1641091031049225984,2022-01-02-02:37:11,10.1.1.7,183,-0.370,-0.370,-0.370,0.000,0.000,0.000
1641091031249645056,2022-01-02-02:37:11,10.1.1.7,183,-0.380,-0.380,-0.380,0.000,0.000,0.000
1641091031438765056,2022-01-02-02:37:11,10.1.1.7,171,-0.390,-0.390,-0.390,0.000,0.000,0.000
1641091031659032064,2022-01-02-02:37:11,10.1.1.7,191,-0.400,-0.400,-0.400,0.000,0.000,0.000
1641091031839111936,2022-01-02-02:37:11,10.1.1.7,170,-0.410,-0.410,-0.410,0.000,0.000,0.000
1641091032038626048,2022-01-02-02:37:12,10.1.1.7,169,-0.420,-0.420,-0.420,0.000,0.000,0.000
1641091032238711040,2022-01-02-02:37:12,10.1.1.7,168,-0.430,-0.430,-0.430,0.000,0.000,0.000
1641091032438499072,2022-01-02-02:37:12,10.1.1.7,167,-0.440,-0.440,-0.440,0.000,0.000,0.000
1641091032637937152,2022-01-02-02:37:12,10.1.1.7,166,-0.450,-0.450,-0.450,0.000,0.000,0.000
1641091032837833984,2022-01-02-02:37:12,10.1.1.7,165,-0.460,-0.460,-0.460,0.000,0.000,0.000
1641091033048136960,2022-01-02-02:37:13,10.1.1.7,174,-0.470,-0.470,-0.470,0.000,0.000,0.000
1641091033247908096,2022-01-02-02:37:13,10.1.1.7,173,-0.480,-0.480,-0.480,0.000,0.000,0.000
1641091033457516800,2022-01-02-02:37:13,10.1.1.7,182,-0.490,-0.490,-0.490,0.000,0.000,0.000
1641091033657030144,2022-01-02-02:37:13,10.1.1.7,180,-0.480,-0.480,-0.480,0.000,0.000,0.000
1641091033846569984,2022-01-02-02:37:13,10.1.1.7,169,-0.470,-0.470,-0.470,0.000,0.000,0.000
1641091034047383040,2022-01-02-02:37:14,10.1.1.7,169,-0.460,-0.460,-0.460,0.000,0.000,0.000
1641091034246299904,2022-01-02-02:37:14,10.1.1.7,167,-0.450,-0.450,-0.450,0.000,0.000,0.000
1641091034446552064,2022-01-02-02:37:14,10.1.1.7,167,-0.440,-0.440,-0.440,0.000,0.000,0.000
1641091034645912832,2022-01-02-02:37:14,10.1.1.7,165,-0.430,-0.430,-0.430,0.000,0.000,0.000
1641091034857882112,2022-01-02-02:37:14,10.1.1.7,176,-0.420,-0.420,-0.420,0.000,0.000,0.000
1641091035045779968,2022-01-02-02:37:15,10.1.1.7,163,-0.410,-0.410,-0.410,0.000,0.000,0.000
1641091035265901056,2022-01-02-02:37:15,10.1.1.7,181,-0.400,-0.400,-0.400,0.000,0.000,0.000
1641091035464998912,2022-01-02-02:37:15,10.1.1.7,180,-0.390,-0.390,-0.390,0.000,0.000,0.000
1641091035656069120,2022-01-02-02:37:15,10.1.1.7,170,-0.380,-0.380,-0.380,0.000,0.000,0.000
1641091035865114880,2022-01-02-02:37:15,10.1.1.7,178,-0.370,-0.370,-0.370,0.000,0.000,0.000
1641091036074512128,2022-01-02-02:37:16,10.1.1.7,187,-0.360,-0.360,-0.360,0.000,0.000,0.000
1641091036263865088,2022-01-02-02:37:16,10.1.1.7,175,-0.350,-0.350,-0.350,0.000,0.000,0.000
1641091036454756096,2022-01-02-02:37:16,10.1.1.7,163,-0.340,-0.340,-0.340,0.000,0.000,0.000
1641091036673309184,2022-01-02-02:37:16,10.1.1.7,179,-0.330,-0.330,-0.330,0.000,0.000,0.000
1641091036863715840,2022-01-02-02:37:16,10.1.1.7,168,-0.320,-0.320,-0.320,0.000,0.000,0.000
1641091037065859072,2022-01-02-02:37:17,10.1.1.7,168,-0.310,-0.310,-0.310,0.000,0.000,0.000
1641091037266836992,2022-01-02-02:37:17,10.1.1.7,170,-0.300,-0.300,-0.300,0.000,0.000,0.000
1641091037462412032,2022-01-02-02:37:17,10.1.1.7,165,-0.290,-0.290,-0.290,0.000,0.000,0.000
1641091037662697984,2022-01-02-02:37:17,10.1.1.7,164,-0.280,-0.280,-0.280,0.000,0.000,0.000
1641091037872766976,2022-01-02-02:37:17,10.1.1.7,173,-0.270,-0.270,-0.270,0.000,0.000,0.000
1641091038062354176,2022-01-02-02:37:18,10.1.1.7,161,-0.260,-0.260,-0.260,0.000,0.000,0.000
1641091038261697024,2022-01-02-02:37:18,10.1.1.7,159,-0.250,-0.250,-0.250,0.000,0.000,0.000
1641091038491488000,2022-01-02-02:37:18,10.1.1.7,188,-0.240,-0.240,-0.240,0.000,0.000,0.000
1641091038681593856,2022-01-02-02:37:18,10.1.1.7,177,-0.230,-0.230,-0.230,0.000,0.000,0.000
1641091038882124800,2022-01-02-02:37:18,10.1.1.7,175,-0.220,-0.220,-0.220,0.000,0.000,0.000
1641091039071096832,2022-01-02-02:37:19,10.1.1.7,162,-0.210,-0.210,-0.210,0.000,0.000,0.000
1641091039270374144,2022-01-02-02:37:19,10.1.1.7,160,-0.200,-0.200,-0.200,0.000,0.000,0.000
1641091039480060160,2022-01-02-02:37:19,10.1.1.7,169,-0.190,-0.190,-0.190,0.000,0.000,0.000
1641091039669945088,2022-01-02-02:37:19,10.1.1.7,157,-0.180,-0.180,-0.180,0.000,0.000,0.000
1641091039870170112,2022-01-02-02:37:19,10.1.1.7,157,-0.170,-0.170,-0.170,0.000,0.000,0.000
1641091040089165824,2022-01-02-02:37:20,10.1.1.7,175,-0.160,-0.160,-0.160,0.000,0.000,0.000
1641091040279699968,2022-01-02-02:37:20,10.1.1.7,165,-0.150,-0.150,-0.150,0.000,0.000,0.000
1641091040478665984,2022-01-02-02:37:20,10.1.1.7,163,-0.140,-0.140,-0.140,0.000,0.000,0.000
1641091040686564864,2022-01-02-02:37:20,10.1.1.7,168,-0.130,-0.130,-0.130,0.000,0.000,0.000
1641091040879108864,2022-01-02-02:37:20,10.1.1.7,162,-0.120,-0.120,-0.120,0.000,0.000,0.000
1641091041078150912,2022-01-02-02:37:21,10.1.1.7,160,-0.110,-0.110,-0.110,0.000,0.000,0.000
1641091041277957888,2022-01-02-02:37:21,10.1.1.7,159,-0.100,-0.100,-0.100,0.000,0.000,0.000
1641091041486874112,2022-01-02-02:37:21,10.1.1.7,167,-0.090,-0.090,-0.090,0.000,0.000,0.000
1641091041677033984,2022-01-02-02:37:21,10.1.1.7,156,-0.080,-0.080,-0.080,0.000,0.000,0.000
1641091041886280960,2022-01-02-02:37:21,10.1.1.7,160,-0.070,-0.070,-0.070,0.000,0.000,0.000
1641091042086756096,2022-01-02-02:37:22,10.1.1.7,160,-0.060,-0.060,-0.060,0.000,0.000,0.000
1641091042286571008,2022-01-02-02:37:22,10.1.1.7,158,-0.050,-0.050,-0.050,0.000,0.000,0.000
1641091042506198016,2022-01-02-02:37:22,10.1.1.7,176,-0.040,-0.040,-0.040,0.000,0.000,0.000
1641091042695085056,2022-01-02-02:37:22,10.1.1.7,164,-0.030,-0.030,-0.030,0.000,0.000,0.000
1641091042895076096,2022-01-02-02:37:22,10.1.1.7,164,-0.020,-0.020,-0.020,0.000,0.000,0.000
1641091043104720128,2022-01-02-02:37:23,10.1.1.7,173,-0.010,-0.010,-0.010,0.000,0.000,0.000
1641091043294915072,2022-01-02-02:37:23,10.1.1.7,162,0.000,0.000,0.000,0.000,0.000,0.000
1641091043504363008,2022-01-02-02:37:23,10.1.1.7,170,-0.010,-0.010,-0.010,0.000,0.000,0.000
1641091043534405888,2022-01-02-02:37:23,10.1.1.7,-1,-0.010,-0.010,-0.010,0.000,0.000,0.000
1641091043893606912,2022-01-02-02:37:23,10.1.1.7,159,-0.030,-0.030,-0.030,0.000,0.000,0.000
1641091044093224960,2022-01-02-02:37:24,10.1.1.7,158,-0.040,-0.040,-0.040,0.000,0.000,0.000
1641091044292983040,2022-01-02-02:37:24,10.1.1.7,156,-0.050,-0.050,-0.050,0.000,0.000,0.000
1641091044493207808,2022-01-02-02:37:24,10.1.1.7,156,-0.060,-0.060,-0.060,0.000,0.000,0.000
1641091044692403200,2022-01-02-02:37:24,10.1.1.7,152,-0.070,-0.070,-0.070,0.000,0.000,0.000
1641091044892046080,2022-01-02-02:37:24,10.1.1.7,151,-0.080,-0.080,-0.080,0.000,0.000,0.000
1641091045091653120,2022-01-02-02:37:25,10.1.1.7,150,-0.090,-0.090,-0.090,0.000,0.000,0.000
1641091045291439104,2022-01-02-02:37:25,10.1.1.7,149,-0.100,-0.100,-0.100,0.000,0.000,0.000
1641091045491275008,2022-01-02-02:37:25,10.1.1.7,148,-0.110,-0.110,-0.110,0.000,0.000,0.000
1641091045720463872,2022-01-02-02:37:25,10.1.1.7,177,-0.120,-0.120,-0.120,0.000,0.000,0.000
1641091045900073984,2022-01-02-02:37:25,10.1.1.7,156,-0.130,-0.130,-0.130,0.000,0.000,0.000
1641091046120066048,2022-01-02-02:37:26,10.1.1.7,175,-0.140,-0.140,-0.140,0.000,0.000,0.000
1641091046299591936,2022-01-02-02:37:26,10.1.1.7,153,-0.150,-0.150,-0.150,0.000,0.000,0.000
1641091046501518080,2022-01-02-02:37:26,10.1.1.7,155,-0.160,-0.160,-0.160,0.000,0.000,0.000
1641091046709448192,2022-01-02-02:37:26,10.1.1.7,162,-0.170,-0.170,-0.170,0.000,0.000,0.000
1641091046918950912,2022-01-02-02:37:26,10.1.1.7,171,-0.180,-0.180,-0.180,0.000,0.000,0.000
1641091047099016960,2022-01-02-02:37:27,10.1.1.7,150,-0.190,-0.190,-0.190,0.000,0.000,0.000
1641091047308625920,2022-01-02-02:37:27,10.1.1.7,159,-0.200,-0.200,-0.200,0.000,0.000,0.000
1641091047517211904,2022-01-02-02:37:27,10.1.1.7,167,-0.210,-0.210,-0.210,0.000,0.000,0.000
1641091047697501952,2022-01-02-02:37:27,10.1.1.7,147,-0.220,-0.220,-0.220,0.000,0.000,0.000
1641091047896898048,2022-01-02-02:37:27,10.1.1.7,146,-0.230,-0.230,-0.230,0.000,0.000,0.000
1641091048097508864,2022-01-02-02:37:28,10.1.1.7,145,-0.240,-0.240,-0.240,0.000,0.000,0.000
1641091048318594816,2022-01-02-02:37:28,10.1.1.7,165,-0.250,-0.250,-0.250,0.000,0.000,0.000
1641091048520109056,2022-01-02-02:37:28,10.1.1.7,164,-0.260,-0.260,-0.260,0.000,0.000,0.000
1641091048720488192,2022-01-02-02:37:28,10.1.1.7,164,-0.270,-0.270,-0.270,0.000,0.000,0.000
1641091048922480128,2022-01-02-02:37:28,10.1.1.7,164,-0.280,-0.280,-0.280,0.000,0.000,0.000
1641091049112939008,2022-01-02-02:37:29,10.1.1.7,153,-0.290,-0.290,-0.290,0.000,0.000,0.000
1641091049313489920,2022-01-02-02:37:29,10.1.1.7,153,-0.300,-0.300,-0.300,0.000,0.000,0.000
1641091049515106048,2022-01-02-02:37:29,10.1.1.7,153,-0.310,-0.310,-0.310,0.000,0.000,0.000
1641091049715534848,2022-01-02-02:37:29,10.1.1.7,153,-0.320,-0.320,-0.320,0.000,0.000,0.000
1641091049926220032,2022-01-02-02:37:29,10.1.1.7,163,-0.330,-0.330,-0.330,0.000,0.000,0.000
1641091050137867008,2022-01-02-02:37:30,10.1.1.7,174,-0.340,-0.340,-0.340,0.000,0.000,0.000
1641091050338390016,2022-01-02-02:37:30,10.1.1.7,174,-0.350,-0.350,-0.350,0.000,0.000,0.000
1641091050549261056,2022-01-02-02:37:30,10.1.1.7,184,-0.360,-0.360,-0.360,0.000,0.000,0.000
1641091050741192960,2022-01-02-02:37:30,10.1.1.7,174,-0.370,-0.370,-0.370,0.000,0.000,0.000
1641091050940542976,2022-01-02-02:37:30,10.1.1.7,173,-0.380,-0.380,-0.380,0.000,0.000,0.000
1641091051131720192,2022-01-02-02:37:31,10.1.1.7,163,-0.390,-0.390,-0.390,0.000,0.000,0.000
1641091051351950848,2022-01-02-02:37:31,10.1.1.7,183,-0.400,-0.400,-0.400,0.000,0.000,0.000
1641091051532296960,2022-01-02-02:37:31,10.1.1.7,162,-0.410,-0.410,-0.410,0.000,0.000,0.000
1641091051733305856,2022-01-02-02:37:31,10.1.1.7,162,-0.420,-0.420,-0.420,0.000,0.000,0.000
1641091051933913856,2022-01-02-02:37:31,10.1.1.7,162,-0.430,-0.430,-0.430,0.000,0.000,0.000
1641091052134146816,2022-01-02-02:37:32,10.1.1.7,162,-0.440,-0.440,-0.440,0.000,0.000,0.000
1641091052354341120,2022-01-02-02:37:32,10.1.1.7,181,-0.450,-0.450,-0.450,0.000,0.000,0.000
1641091052547885824,2022-01-02-02:37:32,10.1.1.7,173,-0.460,-0.460,-0.460,0.000,0.000,0.000
1641091052745368832,2022-01-02-02:37:32,10.1.1.7,170,-0.470,-0.470,-0.470,0.000,0.000,0.000
1641091052955516160,2022-01-02-02:37:32,10.1.1.7,179,-0.480,-0.480,-0.480,0.000,0.000,0.000
1641091053146821888,2022-01-02-02:37:33,10.1.1.7,169,-0.490,-0.490,-0.490,0.000,0.000,0.000
1641091053346513920,2022-01-02-02:37:33,10.1.1.7,168,-0.480,-0.480,-0.480,0.000,0.000,0.000
1641091053547520000,2022-01-02-02:37:33,10.1.1.7,168,-0.470,-0.470,-0.470,0.000,0.000,0.000
1641091053757756928,2022-01-02-02:37:33,10.1.1.7,178,-0.460,-0.460,-0.460,0.000,0.000,0.000
1641091053947817984,2022-01-02-02:37:33,10.1.1.7,168,-0.450,-0.450,-0.450,0.000,0.000,0.000
1641091054148331008,2022-01-02-02:37:34,10.1.1.7,168,-0.440,-0.440,-0.440,0.000,0.000,0.000
1641091054348604928,2022-01-02-02:37:34,10.1.1.7,167,-0.430,-0.430,-0.430,0.000,0.000,0.000
1641091054549971200,2022-01-02-02:37:34,10.1.1.7,167,-0.420,-0.420,-0.420,0.000,0.000,0.000
1641091054748601856,2022-01-02-02:37:34,10.1.1.7,166,-0.410,-0.410,-0.410,0.000,0.000,0.000
1641091054954019072,2022-01-02-02:37:34,10.1.1.7,170,-0.400,-0.400,-0.400,0.000,0.000,0.000
1641091055170223872,2022-01-02-02:37:35,10.1.1.7,186,-0.390,-0.390,-0.390,0.000,0.000,0.000
1641091055379719936,2022-01-02-02:37:35,10.1.1.7,194,-0.380,-0.380,-0.380,0.000,0.000,0.000
1641091055569925120,2022-01-02-02:37:35,10.1.1.7,184,-0.370,-0.370,-0.370,0.000,0.000,0.000
1641091055770176768,2022-01-02-02:37:35,10.1.1.7,183,-0.360,-0.360,-0.360,0.000,0.000,0.000
1641091055981609216,2022-01-02-02:37:35,10.1.1.7,193,-0.350,-0.350,-0.350,0.000,0.000,0.000
1641091056160267008,2022-01-02-02:37:36,10.1.1.7,172,-0.340,-0.340,-0.340,0.000,0.000,0.000
1641091056370980864,2022-01-02-02:37:36,10.1.1.7,182,-0.330,-0.330,-0.330,0.000,0.000,0.000
1641091056561012992,2022-01-02-02:37:36,10.1.1.7,171,-0.320,-0.320,-0.320,0.000,0.000,0.000
1641091056761634048,2022-01-02-02:37:36,10.1.1.7,171,-0.310,-0.310,-0.310,0.000,0.000,0.000
1641091056960985856,2022-01-02-02:37:36,10.1.1.7,168,-0.300,-0.300,-0.300,0.000,0.000,0.000
1641091057181435136,2022-01-02-02:37:37,10.1.1.7,187,-0.290,-0.290,-0.290,0.000,0.000,0.000
1641091057198566912,2022-01-02-02:37:37,10.1.1.7,-1,-0.290,-0.290,-0.290,0.000,0.000,0.000
1641091057582019072,2022-01-02-02:37:37,10.1.1.7,183,-0.270,-0.270,-0.270,0.000,0.000,0.000
1641091057782381056,2022-01-02-02:37:37,10.1.1.7,182,-0.260,-0.260,-0.260,0.000,0.000,0.000
1641091057971625216,2022-01-02-02:37:37,10.1.1.7,171,-0.250,-0.250,-0.250,0.000,0.000,0.000
1641091058181939968,2022-01-02-02:37:38,10.1.1.7,181,-0.240,-0.240,-0.240,0.000,0.000,0.000
1641091058381442048,2022-01-02-02:37:38,10.1.1.7,180,-0.230,-0.230,-0.230,0.000,0.000,0.000
1641091058572376064,2022-01-02-02:37:38,10.1.1.7,169,-0.220,-0.220,-0.220,0.000,0.000,0.000
1641091058782392064,2022-01-02-02:37:38,10.1.1.7,178,-0.210,-0.210,-0.210,0.000,0.000,0.000
1641091058981833984,2022-01-02-02:37:38,10.1.1.7,177,-0.200,-0.200,-0.200,0.000,0.000,0.000
1641091059181483008,2022-01-02-02:37:39,10.1.1.7,175,-0.190,-0.190,-0.190,0.000,0.000,0.000
1641091059381423104,2022-01-02-02:37:39,10.1.1.7,174,-0.180,-0.180,-0.180,0.000,0.000,0.000
1641091059581687808,2022-01-02-02:37:39,10.1.1.7,174,-0.170,-0.170,-0.170,0.000,0.000,0.000
1641091059782552832,2022-01-02-02:37:39,10.1.1.7,174,-0.160,-0.160,-0.160,0.000,0.000,0.000
1641091060001276928,2022-01-02-02:37:40,10.1.1.7,192,-0.150,-0.150,-0.150,0.000,0.000,0.000
1641091060181852160,2022-01-02-02:37:40,10.1.1.7,171,-0.140,-0.140,-0.140,0.000,0.000,0.000
1641091060392482048,2022-01-02-02:37:40,10.1.1.7,181,-0.130,-0.130,-0.130,0.000,0.000,0.000
1641091060591182080,2022-01-02-02:37:40,10.1.1.7,179,-0.120,-0.120,-0.120,0.000,0.000,0.000
1641091060781049088,2022-01-02-02:37:40,10.1.1.7,169,-0.110,-0.110,-0.110,0.000,0.000,0.000
1641091061003025920,2022-01-02-02:37:41,10.1.1.7,190,-0.100,-0.100,-0.100,0.000,0.000,0.000
1641091061201488896,2022-01-02-02:37:41,10.1.1.7,187,-0.090,-0.090,-0.090,0.000,0.000,0.000
1641091061391331840,2022-01-02-02:37:41,10.1.1.7,176,-0.080,-0.080,-0.080,0.000,0.000,0.000
1641091061601684992,2022-01-02-02:37:41,10.1.1.7,185,-0.070,-0.070,-0.070,0.000,0.000,0.000
1641091061791054848,2022-01-02-02:37:41,10.1.1.7,174,-0.060,-0.060,-0.060,0.000,0.000,0.000
1641091061991489792,2022-01-02-02:37:41,10.1.1.7,173,-0.050,-0.050,-0.050,0.000,0.000,0.000
1641091062191225088,2022-01-02-02:37:42,10.1.1.7,172,-0.040,-0.040,-0.040,0.000,0.000,0.000
1641091062400573952,2022-01-02-02:37:42,10.1.1.7,180,-0.030,-0.030,-0.030,0.000,0.000,0.000
1641091062590483968,2022-01-02-02:37:42,10.1.1.7,169,-0.020,-0.020,-0.020,0.000,0.000,0.000
1641091062795248128,2022-01-02-02:37:42,10.1.1.7,173,-0.010,-0.010,-0.010,0.000,0.000,0.000
1641091062990839040,2022-01-02-02:37:42,10.1.1.7,168,-0.000,-0.000,-0.000,0.000,0.000,0.000
1641091063189991936,2022-01-02-02:37:43,10.1.1.7,167,-0.010,-0.010,-0.010,0.000,0.000,0.000
1641091063391710976,2022-01-02-02:37:43,10.1.1.7,168,-0.020,-0.020,-0.020,0.000,0.000,0.000
1641091063600285952,2022-01-02-02:37:43,10.1.1.7,176,-0.030,-0.030,-0.030,0.000,0.000,0.000
1641091063800038144,2022-01-02-02:37:43,10.1.1.7,175,-0.040,-0.040,-0.040,0.000,0.000,0.000
1641091064019331840,2022-01-02-02:37:44,10.1.1.7,194,-0.050,-0.050,-0.050,0.000,0.000,0.000
1641091064209309952,2022-01-02-02:37:44,10.1.1.7,183,-0.060,-0.060,-0.060,0.000,0.000,0.000
1641091064398492928,2022-01-02-02:37:44,10.1.1.7,172,-0.070,-0.070,-0.070,0.000,0.000,0.000
1641091064598892800,2022-01-02-02:37:44,10.1.1.7,171,-0.080,-0.080,-0.080,0.000,0.000,0.000
1641091064808770816,2022-01-02-02:37:44,10.1.1.7,181,-0.090,-0.090,-0.090,0.000,0.000,0.000
1641091064999675904,2022-01-02-02:37:44,10.1.1.7,171,-0.100,-0.100,-0.100,0.000,0.000,0.000
1641091065198200064,2022-01-02-02:37:45,10.1.1.7,168,-0.110,-0.110,-0.110,0.000,0.000,0.000
1641091065398104064,2022-01-02-02:37:45,10.1.1.7,167,-0.120,-0.120,-0.120,0.000,0.000,0.000
1641091065597965056,2022-01-02-02:37:45,10.1.1.7,166,-0.130,-0.130,-0.130,0.000,0.000,0.000
1641091065797353984,2022-01-02-02:37:45,10.1.1.7,164,-0.140,-0.140,-0.140,0.000,0.000,0.000
1641091066008331008,2022-01-02-02:37:46,10.1.1.7,174,-0.150,-0.150,-0.150,0.000,0.000,0.000
1641091066207386880,2022-01-02-02:37:46,10.1.1.7,172,-0.160,-0.160,-0.160,0.000,0.000,0.000
1641091066407032064,2022-01-02-02:37:46,10.1.1.7,171,-0.170,-0.170,-0.170,0.000,0.000,0.000
1641091066607117824,2022-01-02-02:37:46,10.1.1.7,170,-0.180,-0.180,-0.180,0.000,0.000,0.000
1641091066807286016,2022-01-02-02:37:46,10.1.1.7,169,-0.190,-0.190,-0.190,0.000,0.000,0.000
1641091067006194176,2022-01-02-02:37:47,10.1.1.7,168,-0.200,-0.200,-0.200,0.000,0.000,0.000
1641091067207190016,2022-01-02-02:37:47,10.1.1.7,168,-0.210,-0.210,-0.210,0.000,0.000,0.000
1641091067415937024,2022-01-02-02:37:47,10.1.1.7,176,-0.220,-0.220,-0.220,0.000,0.000,0.000
1641091067615880960,2022-01-02-02:37:47,10.1.1.7,174,-0.230,-0.230,-0.230,0.000,0.000,0.000
1641091067815709184,2022-01-02-02:37:47,10.1.1.7,174,-0.240,-0.240,-0.240,0.000,0.000,0.000
1641091068015355136,2022-01-02-02:37:48,10.1.1.7,173,-0.250,-0.250,-0.250,0.000,0.000,0.000
1641091068205362944,2022-01-02-02:37:48,10.1.1.7,161,-0.260,-0.260,-0.260,0.000,0.000,0.000
1641091068424679168,2022-01-02-02:37:48,10.1.1.7,180,-0.270,-0.270,-0.270,0.000,0.000,0.000
1641091068624702976,2022-01-02-02:37:48,10.1.1.7,180,-0.280,-0.280,-0.280,0.000,0.000,0.000
1641091068824360960,2022-01-02-02:37:48,10.1.1.7,178,-0.290,-0.290,-0.290,0.000,0.000,0.000
1641091069024334080,2022-01-02-02:37:49,10.1.1.7,178,-0.300,-0.300,-0.300,0.000,0.000,0.000
1641091069225037056,2022-01-02-02:37:49,10.1.1.7,178,-0.310,-0.310,-0.310,0.000,0.000,0.000
1641091069414299904,2022-01-02-02:37:49,10.1.1.7,167,-0.320,-0.320,-0.320,0.000,0.000,0.000
1641091069613841920,2022-01-02-02:37:49,10.1.1.7,165,-0.330,-0.330,-0.330,0.000,0.000,0.000
1641091069813609984,2022-01-02-02:37:49,10.1.1.7,164,-0.340,-0.340,-0.340,0.000,0.000,0.000
1641091070032303104,2022-01-02-02:37:50,10.1.1.7,182,-0.350,-0.350,-0.350,0.000,0.000,0.000
1641091070212392960,2022-01-02-02:37:50,10.1.1.7,161,-0.360,-0.360,-0.360,0.000,0.000,0.000
1641091070418987008,2022-01-02-02:37:50,10.1.1.7,166,-0.370,-0.370,-0.370,0.000,0.000,0.000
1641091070622550016,2022-01-02-02:37:50,10.1.1.7,168,-0.380,-0.380,-0.380,0.000,0.000,0.000
1641091070832288000,2022-01-02-02:37:50,10.1.1.7,177,-0.390,-0.390,-0.390,0.000,0.000,0.000
1641091071021817088,2022-01-02-02:37:51,10.1.1.7,166,-0.400,-0.400,-0.400,0.000,0.000,0.000
1641091071221918208,2022-01-02-02:37:51,10.1.1.7,165,-0.410,-0.410,-0.410,0.000,0.000,0.000
1641091071420943104,2022-01-02-02:37:51,10.1.1.7,164,-0.420,-0.420,-0.420,0.000,0.000,0.000
1641091071620480000,2022-01-02-02:37:51,10.1.1.7,163,-0.430,-0.430,-0.430,0.000,0.000,0.000
1641091071830056960,2022-01-02-02:37:51,10.1.1.7,172,-0.440,-0.440,-0.440,0.000,0.000,0.000
1641091072030527232,2022-01-02-02:37:52,10.1.1.7,172,-0.450,-0.450,-0.450,0.000,0.000,0.000
1641091072230220032,2022-01-02-02:37:52,10.1.1.7,171,-0.460,-0.460,-0.460,0.000,0.000,0.000
1641091072430185984,2022-01-02-02:37:52,10.1.1.7,169,-0.470,-0.470,-0.470,0.000,0.000,0.000
1641091072618913024,2022-01-02-02:37:52,10.1.1.7,156,-0.480,-0.480,-0.480,0.000,0.000,0.000
1641091072838705152,2022-01-02-02:37:52,10.1.1.7,174,-0.490,-0.490,-0.490,0.000,0.000,0.000
1641091073028193024,2022-01-02-02:37:53,10.1.1.7,162,-0.480,-0.480,-0.480,0.000,0.000,0.000
1641091073247983872,2022-01-02-02:37:53,10.1.1.7,182,-0.470,-0.470,-0.470,0.000,0.000,0.000
1641091073448452864,2022-01-02-02:37:53,10.1.1.7,182,-0.460,-0.460,-0.460,0.000,0.000,0.000
1641091073627928064,2022-01-02-02:37:53,10.1.1.7,160,-0.450,-0.450,-0.450,0.000,0.000,0.000
1641091073827960064,2022-01-02-02:37:53,10.1.1.7,159,-0.440,-0.440,-0.440,0.000,0.000,0.000
1641091074047437824,2022-01-02-02:37:54,10.1.1.7,178,-0.430,-0.430,-0.430,0.000,0.000,0.000
1641091074226929920,2022-01-02-02:37:54,10.1.1.7,156,-0.420,-0.420,-0.420,0.000,0.000,0.000
1641091074426211072,2022-01-02-02:37:54,10.1.1.7,155,-0.410,-0.410,-0.410,0.000,0.000,0.000
1641091074646685952,2022-01-02-02:37:54,10.1.1.7,174,-0.400,-0.400,-0.400,0.000,0.000,0.000
1641091074825901056,2022-01-02-02:37:54,10.1.1.7,153,-0.390,-0.390,-0.390,0.000,0.000,0.000
1641091075035706880,2022-01-02-02:37:55,10.1.1.7,162,-0.380,-0.380,-0.380,0.000,0.000,0.000
1641091075245974016,2022-01-02-02:37:55,10.1.1.7,171,-0.370,-0.370,-0.370,0.000,0.000,0.000
1641091075435527168,2022-01-02-02:37:55,10.1.1.7,160,-0.360,-0.360,-0.360,0.000,0.000,0.000
1641091075634919936,2022-01-02-02:37:55,10.1.1.7,158,-0.350,-0.350,-0.350,0.000,0.000,0.000
1641091075835053056,2022-01-02-02:37:55,10.1.1.7,157,-0.340,-0.340,-0.340,0.000,0.000,0.000
1641091076043633920,2022-01-02-02:37:56,10.1.1.7,165,-0.330,-0.330,-0.330,0.000,0.000,0.000
1641091076244268032,2022-01-02-02:37:56,10.1.1.7,163,-0.320,-0.320,-0.320,0.000,0.000,0.000
1641091076433865984,2022-01-02-02:37:56,10.1.1.7,152,-0.310,-0.310,-0.310,0.000,0.000,0.000
1641091076634060032,2022-01-02-02:37:56,10.1.1.7,151,-0.300,-0.300,-0.300,0.000,0.000,0.000
1641091076833111040,2022-01-02-02:37:56,10.1.1.7,150,-0.290,-0.290,-0.290,0.000,0.000,0.000
1641091077043152128,2022-01-02-02:37:57,10.1.1.7,159,-0.280,-0.280,-0.280,0.000,0.000,0.000
1641091077252147968,2022-01-02-02:37:57,10.1.1.7,167,-0.270,-0.270,-0.270,0.000,0.000,0.000
1641091077462727168,2022-01-02-02:37:57,10.1.1.7,177,-0.260,-0.260,-0.260,0.000,0.000,0.000
1641091077651432960,2022-01-02-02:37:57,10.1.1.7,163,-0.250,-0.250,-0.250,0.000,0.000,0.000
1641091077854077184,2022-01-02-02:37:57,10.1.1.7,163,-0.240,-0.240,-0.240,0.000,0.000,0.000
1641091078062565120,2022-01-02-02:37:58,10.1.1.7,172,-0.230,-0.230,-0.230,0.000,0.000,0.000
1641091078240512000,2022-01-02-02:37:58,10.1.1.7,149,-0.220,-0.220,-0.220,0.000,0.000,0.000
1641091078460534016,2022-01-02-02:37:58,10.1.1.7,169,-0.210,-0.210,-0.210,0.000,0.000,0.000
1641091078650084864,2022-01-02-02:37:58,10.1.1.7,156,-0.200,-0.200,-0.200,0.000,0.000,0.000
1641091078849888000,2022-01-02-02:37:58,10.1.1.7,155,-0.190,-0.190,-0.190,0.000,0.000,0.000
1641091079051256064,2022-01-02-02:37:59,10.1.1.7,155,-0.180,-0.180,-0.180,0.000,0.000,0.000
1641091079258675200,2022-01-02-02:37:59,10.1.1.7,161,-0.170,-0.170,-0.170,0.000,0.000,0.000
1641091079458836992,2022-01-02-02:37:59,10.1.1.7,158,-0.160,-0.160,-0.160,0.000,0.000,0.000
1641091079648491008,2022-01-02-02:37:59,10.1.1.7,146,-0.150,-0.150,-0.150,0.000,0.000,0.000
1641091079858267904,2022-01-02-02:37:59,10.1.1.7,155,-0.140,-0.140,-0.140,0.000,0.000,0.000
1641091080078957056,2022-01-02-02:38:00,10.1.1.7,175,-0.130,-0.130,-0.130,0.000,0.000,0.000
1641091080279145984,2022-01-02-02:38:00,10.1.1.7,175,-0.120,-0.120,-0.120,0.000,0.000,0.000
1641091080480300800,2022-01-02-02:38:00,10.1.1.7,175,-0.110,-0.110,-0.110,0.000,0.000,0.000
1641091080672048128,2022-01-02-02:38:00,10.1.1.7,167,-0.100,-0.100,-0.100,0.000,0.000,0.000
1641091080882467072,2022-01-02-02:38:00,10.1.1.7,176,-0.090,-0.090,-0.090,0.000,0.000,0.000
1641091081063680768,2022-01-02-02:38:01,10.1.1.7,157,-0.080,-0.080,-0.080,0.000,0.000,0.000
1641091081274707968,2022-01-02-02:38:01,10.1.1.7,167,-0.070,-0.070,-0.070,0.000,0.000,0.000
1641091081474868992,2022-01-02-02:38:01,10.1.1.7,165,-0.060,-0.060,-0.060,0.000,0.000,0.000
1641091081675934976,2022-01-02-02:38:01,10.1.1.7,165,-0.050,-0.050,-0.050,0.000,0.000,0.000
1641091081877309184,2022-01-02-02:38:01,10.1.1.7,165,-0.040,-0.040,-0.040,0.000,0.000,0.000
1641091082077837824,2022-01-02-02:38:02,10.1.1.7,165,-0.030,-0.030,-0.030,0.000,0.000,0.000
1641091082268524032,2022-01-02-02:38:02,10.1.1.7,155,-0.020,-0.020,-0.020,0.000,0.000,0.000
1641091082479657984,2022-01-02-02:38:02,10.1.1.7,165,-0.010,-0.010,-0.010,0.000,0.000,0.000
1641091082680043008,2022-01-02-02:38:02,10.1.1.7,165,0.000,0.000,0.000,0.000,0.000,0.000
1641091082891159040,2022-01-02-02:38:02,10.1.1.7,175,-0.010,-0.010,-0.010,0.000,0.000,0.000
1641091083091501824,2022-01-02-02:38:03,10.1.1.7,175,-0.020,-0.020,-0.020,0.000,0.000,0.000
1641091083282290944,2022-01-02-02:38:03,10.1.1.7,165,-0.030,-0.030,-0.030,0.000,0.000,0.000
1641091083492697856,2022-01-02-02:38:03,10.1.1.7,175,-0.040,-0.040,-0.040,0.000,0.000,0.000
1641091083684184064,2022-01-02-02:38:03,10.1.1.7,165,-0.050,-0.050,-0.050,0.000,0.000,0.000
1641091083893969920,2022-01-02-02:38:03,10.1.1.7,175,-0.060,-0.060,-0.060,0.000,0.000,0.000
1641091084085979904,2022-01-02-02:38:04,10.1.1.7,166,-0.070,-0.070,-0.070,0.000,0.000,0.000
1641091084284670208,2022-01-02-02:38:04,10.1.1.7,164,-0.080,-0.080,-0.080,0.000,0.000,0.000
1641091084485806080,2022-01-02-02:38:04,10.1.1.7,164,-0.090,-0.090,-0.090,0.000,0.000,0.000
1641091084686338816,2022-01-02-02:38:04,10.1.1.7,164,-0.100,-0.100,-0.100,0.000,0.000,0.000
1641091084886838016,2022-01-02-02:38:04,10.1.1.7,163,-0.110,-0.110,-0.110,0.000,0.000,0.000
1641091085097448960,2022-01-02-02:38:05,10.1.1.7,173,-0.120,-0.120,-0.120,0.000,0.000,0.000
1641091085296992000,2022-01-02-02:38:05,10.1.1.7,172,-0.130,-0.130,-0.130,0.000,0.000,0.000
1641091085517965056,2022-01-02-02:38:05,10.1.1.7,192,-0.140,-0.140,-0.140,0.000,0.000,0.000
1641091085709172992,2022-01-02-02:38:05,10.1.1.7,182,-0.150,-0.150,-0.150,0.000,0.000,0.000
1641091085898742016,2022-01-02-02:38:05,10.1.1.7,172,-0.160,-0.160,-0.160,0.000,0.000,0.000
1641091086108581120,2022-01-02-02:38:06,10.1.1.7,181,-0.170,-0.170,-0.170,0.000,0.000,0.000
1641091086318831872,2022-01-02-02:38:06,10.1.1.7,190,-0.180,-0.180,-0.180,0.000,0.000,0.000
1641091086498823936,2022-01-02-02:38:06,10.1.1.7,169,-0.190,-0.190,-0.190,0.000,0.000,0.000
1641091086698910976,2022-01-02-02:38:06,10.1.1.7,168,-0.200,-0.200,-0.200,0.000,0.000,0.000
1641091086920239872,2022-01-02-02:38:06,10.1.1.7,189,-0.210,-0.210,-0.210,0.000,0.000,0.000
1641091087120235008,2022-01-02-02:38:07,10.1.1.7,188,-0.220,-0.220,-0.220,0.000,0.000,0.000
1641091087320531968,2022-01-02-02:38:07,10.1.1.7,188,-0.230,-0.230,-0.230,0.000,0.000,0.000
1641091087501267968,2022-01-02-02:38:07,10.1.1.7,167,-0.240,-0.240,-0.240,0.000,0.000,0.000
1641091087711726848,2022-01-02-02:38:07,10.1.1.7,177,-0.250,-0.250,-0.250,0.000,0.000,0.000
1641091087921344000,2022-01-02-02:38:07,10.1.1.7,185,-0.260,-0.260,-0.260,0.000,0.000,0.000
1641091088120908032,2022-01-02-02:38:08,10.1.1.7,184,-0.270,-0.270,-0.270,0.000,0.000,0.000
1641091088321603072,2022-01-02-02:38:08,10.1.1.7,184,-0.280,-0.280,-0.280,0.000,0.000,0.000
1641091088511040000,2022-01-02-02:38:08,10.1.1.7,172,-0.290,-0.290,-0.290,0.000,0.000,0.000
1641091088722140928,2022-01-02-02:38:08,10.1.1.7,183,-0.300,-0.300,-0.300,0.000,0.000,0.000
1641091088921554944,2022-01-02-02:38:08,10.1.1.7,182,-0.310,-0.310,-0.310,0.000,0.000,0.000
1641091089116293888,2022-01-02-02:38:09,10.1.1.7,175,-0.320,-0.320,-0.320,0.000,0.000,0.000
1641091089322233088,2022-01-02-02:38:09,10.1.1.7,180,-0.330,-0.330,-0.330,0.000,0.000,0.000
1641091089514565888,2022-01-02-02:38:09,10.1.1.7,172,-0.340,-0.340,-0.340,0.000,0.000,0.000
1641091089712356096,2022-01-02-02:38:09,10.1.1.7,169,-0.350,-0.350,-0.350,0.000,0.000,0.000
1641091089941984000,2022-01-02-02:38:09,10.1.1.7,198,-0.360,-0.360,-0.360,0.000,0.000,0.000
1641091090132164864,2022-01-02-02:38:10,10.1.1.7,187,-0.370,-0.370,-0.370,0.000,0.000,0.000
1641091090332333056,2022-01-02-02:38:10,10.1.1.7,185,-0.380,-0.380,-0.380,0.000,0.000,0.000
1641091090533725952,2022-01-02-02:38:10,10.1.1.7,185,-0.390,-0.390,-0.390,0.000,0.000,0.000
1641091090742669056,2022-01-02-02:38:10,10.1.1.7,194,-0.400,-0.400,-0.400,0.000,0.000,0.000
1641091090922179840,2022-01-02-02:38:10,10.1.1.7,173,-0.410,-0.410,-0.410,0.000,0.000,0.000
1641091091142679040,2022-01-02-02:38:11,10.1.1.7,192,-0.420,-0.420,-0.420,0.000,0.000,0.000
1641091091322361856,2022-01-02-02:38:11,10.1.1.7,171,-0.430,-0.430,-0.430,0.000,0.000,0.000
1641091091532659968,2022-01-02-02:38:11,10.1.1.7,181,-0.440,-0.440,-0.440,0.000,0.000,0.000
1641091091722369024,2022-01-02-02:38:11,10.1.1.7,170,-0.450,-0.450,-0.450,0.000,0.000,0.000
1641091091934266112,2022-01-02-02:38:11,10.1.1.7,181,-0.460,-0.460,-0.460,0.000,0.000,0.000
1641091092132366848,2022-01-02-02:38:12,10.1.1.7,178,-0.470,-0.470,-0.470,0.000,0.000,0.000
1641091092331983104,2022-01-02-02:38:12,10.1.1.7,177,-0.480,-0.480,-0.480,0.000,0.000,0.000
1641091092531766784,2022-01-02-02:38:12,10.1.1.7,175,-0.490,-0.490,-0.490,0.000,0.000,0.000
1641091092741822976,2022-01-02-02:38:12,10.1.1.7,183,-0.480,-0.480,-0.480,0.000,0.000,0.000
1641091092942166016,2022-01-02-02:38:12,10.1.1.7,182,-0.470,-0.470,-0.470,0.000,0.000,0.000
1641091093141527040,2022-01-02-02:38:13,10.1.1.7,181,-0.460,-0.460,-0.460,0.000,0.000,0.000
1641091093331934976,2022-01-02-02:38:13,10.1.1.7,171,-0.450,-0.450,-0.450,0.000,0.000,0.000
1641091093532144896,2022-01-02-02:38:13,10.1.1.7,170,-0.440,-0.440,-0.440,0.000,0.000,0.000
1641091093741874944,2022-01-02-02:38:13,10.1.1.7,179,-0.430,-0.430,-0.430,0.000,0.000,0.000
1641091093941786112,2022-01-02-02:38:13,10.1.1.7,178,-0.420,-0.420,-0.420,0.000,0.000,0.000
1641091094142483968,2022-01-02-02:38:14,10.1.1.7,179,-0.410,-0.410,-0.410,0.000,0.000,0.000
1641091094342008064,2022-01-02-02:38:14,10.1.1.7,175,-0.400,-0.400,-0.400,0.000,0.000,0.000
1641091094541913088,2022-01-02-02:38:14,10.1.1.7,173,-0.390,-0.390,-0.390,0.000,0.000,0.000
1641091094741178112,2022-01-02-02:38:14,10.1.1.7,173,-0.380,-0.380,-0.380,0.000,0.000,0.000
1641091094941857024,2022-01-02-02:38:14,10.1.1.7,171,-0.370,-0.370,-0.370,0.000,0.000,0.000
1641091095140474112,2022-01-02-02:38:15,10.1.1.7,170,-0.360,-0.360,-0.360,0.000,0.000,0.000
1641091095361262080,2022-01-02-02:38:15,10.1.1.7,190,-0.350,-0.350,-0.350,0.000,0.000,0.000
1641091095550363136,2022-01-02-02:38:15,10.1.1.7,178,-0.340,-0.340,-0.340,0.000,0.000,0.000
1641091095760032000,2022-01-02-02:38:15,10.1.1.7,187,-0.330,-0.330,-0.330,0.000,0.000,0.000
1641091095960545024,2022-01-02-02:38:15,10.1.1.7,187,-0.320,-0.320,-0.320,0.000,0.000,0.000
1641091096152286976,2022-01-02-02:38:16,10.1.1.7,177,-0.310,-0.310,-0.310,0.000,0.000,0.000
1641091096350220800,2022-01-02-02:38:16,10.1.1.7,173,-0.300,-0.300,-0.300,0.000,0.000,0.000
1641091096549360896,2022-01-02-02:38:16,10.1.1.7,171,-0.290,-0.290,-0.290,0.000,0.000,0.000
1641091096749202944,2022-01-02-02:38:16,10.1.1.7,170,-0.280,-0.280,-0.280,0.000,0.000,0.000
1641091096959443200,2022-01-02-02:38:16,10.1.1.7,179,-0.270,-0.270,-0.270,0.000,0.000,0.000
1641091097150402048,2022-01-02-02:38:17,10.1.1.7,169,-0.260,-0.260,-0.260,0.000,0.000,0.000
1641091097349167104,2022-01-02-02:38:17,10.1.1.7,167,-0.250,-0.250,-0.250,0.000,0.000,0.000
1641091097558708992,2022-01-02-02:38:17,10.1.1.7,175,-0.240,-0.240,-0.240,0.000,0.000,0.000
1641091097768230912,2022-01-02-02:38:17,10.1.1.7,184,-0.230,-0.230,-0.230,0.000,0.000,0.000
1641091097960488192,2022-01-02-02:38:17,10.1.1.7,174,-0.220,-0.220,-0.220,0.000,0.000,0.000
1641091098159634176,2022-01-02-02:38:18,10.1.1.7,172,-0.210,-0.210,-0.210,0.000,0.000,0.000
1641091098377826048,2022-01-02-02:38:18,10.1.1.7,190,-0.200,-0.200,-0.200,0.000,0.000,0.000
1641091098567607040,2022-01-02-02:38:18,10.1.1.7,179,-0.190,-0.190,-0.190,0.000,0.000,0.000
1641091098758341120,2022-01-02-02:38:18,10.1.1.7,169,-0.180,-0.180,-0.180,0.000,0.000,0.000
1641091098957488128,2022-01-02-02:38:18,10.1.1.7,168,-0.170,-0.170,-0.170,0.000,0.000,0.000
1641091099167809024,2022-01-02-02:38:19,10.1.1.7,177,-0.160,-0.160,-0.160,0.000,0.000,0.000
1641091099366457088,2022-01-02-02:38:19,10.1.1.7,175,-0.150,-0.150,-0.150,0.000,0.000,0.000
1641091099567287808,2022-01-02-02:38:19,10.1.1.7,174,-0.140,-0.140,-0.140,0.000,0.000,0.000
1641091099766632192,2022-01-02-02:38:19,10.1.1.7,172,-0.130,-0.130,-0.130,0.000,0.000,0.000
1641091099967026944,2022-01-02-02:38:19,10.1.1.7,171,-0.120,-0.120,-0.120,0.000,0.000,0.000
1641091100166320128,2022-01-02-02:38:20,10.1.1.7,169,-0.110,-0.110,-0.110,0.000,0.000,0.000
1641091100365452032,2022-01-02-02:38:20,10.1.1.7,168,-0.100,-0.100,-0.100,0.000,0.000,0.000
1641091100574716928,2022-01-02-02:38:20,10.1.1.7,176,-0.090,-0.090,-0.090,0.000,0.000,0.000
1641091100764785152,2022-01-02-02:38:20,10.1.1.7,165,-0.080,-0.080,-0.080,0.000,0.000,0.000
1641091100974952960,2022-01-02-02:38:20,10.1.1.7,174,-0.070,-0.070,-0.070,0.000,0.000,0.000
1641091101164403968,2022-01-02-02:38:21,10.1.1.7,163,-0.060,-0.060,-0.060,0.000,0.000,0.000
1641091101365848064,2022-01-02-02:38:21,10.1.1.7,163,-0.050,-0.050,-0.050,0.000,0.000,0.000
1641091101564979968,2022-01-02-02:38:21,10.1.1.7,162,-0.040,-0.040,-0.040,0.000,0.000,0.000
1641091101784378880,2022-01-02-02:38:21,10.1.1.7,180,-0.030,-0.030,-0.030,0.000,0.000,0.000
1641091101987710976,2022-01-02-02:38:21,10.1.1.7,181,-0.020,-0.020,-0.020,0.000,0.000,0.000
1641091102191215104,2022-01-02-02:38:22,10.1.1.7,177,-0.010,-0.010,-0.010,0.000,0.000,0.000
1641091102383795968,2022-01-02-02:38:22,10.1.1.7,168,0.000,0.000,0.000,0.000,0.000,0.000
1641091102584606976,2022-01-02-02:38:22,10.1.1.7,169,-0.010,-0.010,-0.010,0.000,0.000,0.000
1641091102782427904,2022-01-02-02:38:22,10.1.1.7,165,-0.020,-0.020,-0.020,0.000,0.000,0.000
1641091102992134144,2022-01-02-02:38:22,10.1.1.7,174,-0.030,-0.030,-0.030,0.000,0.000,0.000
1641091103191617024,2022-01-02-02:38:23,10.1.1.7,172,-0.040,-0.040,-0.040,0.000,0.000,0.000
1641091103391707904,2022-01-02-02:38:23,10.1.1.7,172,-0.050,-0.050,-0.050,0.000,0.000,0.000
1641091103592366848,2022-01-02-02:38:23,10.1.1.7,172,-0.060,-0.060,-0.060,0.000,0.000,0.000
1641091103791326976,2022-01-02-02:38:23,10.1.1.7,170,-0.070,-0.070,-0.070,0.000,0.000,0.000
1641091103982022912,2022-01-02-02:38:23,10.1.1.7,160,-0.080,-0.080,-0.080,0.000,0.000,0.000
1641091104190690048,2022-01-02-02:38:24,10.1.1.7,168,-0.090,-0.090,-0.090,0.000,0.000,0.000
1641091104389878016,2022-01-02-02:38:24,10.1.1.7,167,-0.100,-0.100,-0.100,0.000,0.000,0.000
1641091104609581056,2022-01-02-02:38:24,10.1.1.7,185,-0.110,-0.110,-0.110,0.000,0.000,0.000
1641091104789902848,2022-01-02-02:38:24,10.1.1.7,164,-0.120,-0.120,-0.120,0.000,0.000,0.000
1641091105009090816,2022-01-02-02:38:25,10.1.1.7,182,-0.130,-0.130,-0.130,0.000,0.000,0.000
1641091105189650176,2022-01-02-02:38:25,10.1.1.7,161,-0.140,-0.140,-0.140,0.000,0.000,0.000
1641091105408740096,2022-01-02-02:38:25,10.1.1.7,180,-0.150,-0.150,-0.150,0.000,0.000,0.000
1641091105588468992,2022-01-02-02:38:25,10.1.1.7,159,-0.160,-0.160,-0.160,0.000,0.000,0.000
1641091105788080896,2022-01-02-02:38:25,10.1.1.7,157,-0.170,-0.170,-0.170,0.000,0.000,0.000
1641091105999350016,2022-01-02-02:38:25,10.1.1.7,168,-0.180,-0.180,-0.180,0.000,0.000,0.000
1641091106187866880,2022-01-02-02:38:26,10.1.1.7,155,-0.190,-0.190,-0.190,0.000,0.000,0.000
1641091106406932992,2022-01-02-02:38:26,10.1.1.7,169,-0.200,-0.200,-0.200,0.000,0.000,0.000
1641091106606935040,2022-01-02-02:38:26,10.1.1.7,168,-0.210,-0.210,-0.210,0.000,0.000,0.000
1641091106798433024,2022-01-02-02:38:26,10.1.1.7,160,-0.220,-0.220,-0.220,0.000,0.000,0.000
1641091107006266112,2022-01-02-02:38:27,10.1.1.7,167,-0.230,-0.230,-0.230,0.000,0.000,0.000
1641091107196683008,2022-01-02-02:38:27,10.1.1.7,156,-0.240,-0.240,-0.240,0.000,0.000,0.000
1641091107405755136,2022-01-02-02:38:27,10.1.1.7,162,-0.250,-0.250,-0.250,0.000,0.000,0.000
1641091107605462016,2022-01-02-02:38:27,10.1.1.7,161,-0.260,-0.260,-0.260,0.000,0.000,0.000
1641091107804716032,2022-01-02-02:38:27,10.1.1.7,159,-0.270,-0.270,-0.270,0.000,0.000,0.000
1641091108004872192,2022-01-02-02:38:28,10.1.1.7,157,-0.280,-0.280,-0.280,0.000,0.000,0.000
1641091108217597952,2022-01-02-02:38:28,10.1.1.7,163,-0.290,-0.290,-0.290,0.000,0.000,0.000
1641091108424099840,2022-01-02-02:38:28,10.1.1.7,169,-0.300,-0.300,-0.300,0.000,0.000,0.000
1641091108623843840,2022-01-02-02:38:28,10.1.1.7,167,-0.310,-0.310,-0.310,0.000,0.000,0.000
1641091108813358080,2022-01-02-02:38:28,10.1.1.7,156,-0.320,-0.320,-0.320,0.000,0.000,0.000
1641091109023392000,2022-01-02-02:38:29,10.1.1.7,165,-0.330,-0.330,-0.330,0.000,0.000,0.000
1641091109222380032,2022-01-02-02:38:29,10.1.1.7,163,-0.340,-0.340,-0.340,0.000,0.000,0.000
1641091109422221056,2022-01-02-02:38:29,10.1.1.7,162,-0.350,-0.350,-0.350,0.000,0.000,0.000
1641091109621851904,2022-01-02-02:38:29,10.1.1.7,161,-0.360,-0.360,-0.360,0.000,0.000,0.000
1641091109822288128,2022-01-02-02:38:29,10.1.1.7,160,-0.370,-0.370,-0.370,0.000,0.000,0.000
1641091110012082944,2022-01-02-02:38:30,10.1.1.7,149,-0.380,-0.380,-0.380,0.000,0.000,0.000
1641091110221280000,2022-01-02-02:38:30,10.1.1.7,157,-0.390,-0.390,-0.390,0.000,0.000,0.000
1641091110430936064,2022-01-02-02:38:30,10.1.1.7,166,-0.400,-0.400,-0.400,0.000,0.000,0.000
1641091110631094016,2022-01-02-02:38:30,10.1.1.7,165,-0.410,-0.410,-0.410,0.000,0.000,0.000
1641091110820044032,2022-01-02-02:38:30,10.1.1.7,153,-0.420,-0.420,-0.420,0.000,0.000,0.000
1641091111029499136,2022-01-02-02:38:31,10.1.1.7,162,-0.430,-0.430,-0.430,0.000,0.000,0.000
1641091111231553024,2022-01-02-02:38:31,10.1.1.7,163,-0.440,-0.440,-0.440,0.000,0.000,0.000
1641091111419377920,2022-01-02-02:38:31,10.1.1.7,150,-0.450,-0.450,-0.450,0.000,0.000,0.000
1641091111629648896,2022-01-02-02:38:31,10.1.1.7,159,-0.460,-0.460,-0.460,0.000,0.000,0.000
1641091111818681856,2022-01-02-02:38:31,10.1.1.7,148,-0.470,-0.470,-0.470,0.000,0.000,0.000
1641091112028603136,2022-01-02-02:38:32,10.1.1.7,157,-0.480,-0.480,-0.480,0.000,0.000,0.000
1641091112219464960,2022-01-02-02:38:32,10.1.1.7,147,-0.490,-0.490,-0.490,0.000,0.000,0.000
1641091112430963968,2022-01-02-02:38:32,10.1.1.7,158,-0.480,-0.480,-0.480,0.000,0.000,0.000
1641091112632129024,2022-01-02-02:38:32,10.1.1.7,158,-0.470,-0.470,-0.470,0.000,0.000,0.000
1641091112833472000,2022-01-02-02:38:32,10.1.1.7,159,-0.460,-0.460,-0.460,0.000,0.000,0.000
1641091113044410880,2022-01-02-02:38:33,10.1.1.7,170,-0.450,-0.450,-0.450,0.000,0.000,0.000
1641091113235964928,2022-01-02-02:38:33,10.1.1.7,160,-0.440,-0.440,-0.440,0.000,0.000,0.000
1641091113437335040,2022-01-02-02:38:33,10.1.1.7,160,-0.430,-0.430,-0.430,0.000,0.000,0.000
1641091113637805056,2022-01-02-02:38:33,10.1.1.7,160,-0.420,-0.420,-0.420,0.000,0.000,0.000
1641091113838636032,2022-01-02-02:38:33,10.1.1.7,160,-0.410,-0.410,-0.410,0.000,0.000,0.000
1641091114039158016,2022-01-02-02:38:34,10.1.1.7,160,-0.400,-0.400,-0.400,0.000,0.000,0.000
1641091114239862016,2022-01-02-02:38:34,10.1.1.7,160,-0.390,-0.390,-0.390,0.000,0.000,0.000
1641091114441606912,2022-01-02-02:38:34,10.1.1.7,161,-0.380,-0.380,-0.380,0.000,0.000,0.000
1641091114651842048,2022-01-02-02:38:34,10.1.1.7,170,-0.370,-0.370,-0.370,0.000,0.000,0.000
1641091114842555136,2022-01-02-02:38:34,10.1.1.7,160,-0.360,-0.360,-0.360,0.000,0.000,0.000
1641091115073548032,2022-01-02-02:38:35,10.1.1.7,190,-0.350,-0.350,-0.350,0.000,0.000,0.000
1641091115255650048,2022-01-02-02:38:35,10.1.1.7,171,-0.340,-0.340,-0.340,0.000,0.000,0.000
1641091115465086976,2022-01-02-02:38:35,10.1.1.7,180,-0.330,-0.330,-0.330,0.000,0.000,0.000
1641091115675313920,2022-01-02-02:38:35,10.1.1.7,189,-0.320,-0.320,-0.320,0.000,0.000,0.000
1641091115866158080,2022-01-02-02:38:35,10.1.1.7,179,-0.310,-0.310,-0.310,0.000,0.000,0.000
1641091116066812160,2022-01-02-02:38:36,10.1.1.7,179,-0.300,-0.300,-0.300,0.000,0.000,0.000
1641091116256946944,2022-01-02-02:38:36,10.1.1.7,168,-0.290,-0.290,-0.290,0.000,0.000,0.000
1641091116468087040,2022-01-02-02:38:36,10.1.1.7,179,-0.280,-0.280,-0.280,0.000,0.000,0.000
1641091116667912960,2022-01-02-02:38:36,10.1.1.7,178,-0.270,-0.270,-0.270,0.000,0.000,0.000
1641091116859117056,2022-01-02-02:38:36,10.1.1.7,169,-0.260,-0.260,-0.260,0.000,0.000,0.000
1641091117070195968,2022-01-02-02:38:37,10.1.1.7,179,-0.250,-0.250,-0.250,0.000,0.000,0.000
1641091117259666944,2022-01-02-02:38:37,10.1.1.7,168,-0.240,-0.240,-0.240,0.000,0.000,0.000
1641091117480696832,2022-01-02-02:38:37,10.1.1.7,189,-0.230,-0.230,-0.230,0.000,0.000,0.000
1641091117673458944,2022-01-02-02:38:37,10.1.1.7,181,-0.220,-0.220,-0.220,0.000,0.000,0.000
1641091117871354112,2022-01-02-02:38:37,10.1.1.7,178,-0.210,-0.210,-0.210,0.000,0.000,0.000
1641091118082307072,2022-01-02-02:38:38,10.1.1.7,189,-0.200,-0.200,-0.200,0.000,0.000,0.000
1641091118281815040,2022-01-02-02:38:38,10.1.1.7,188,-0.190,-0.190,-0.190,0.000,0.000,0.000
1641091118481986048,2022-01-02-02:38:38,10.1.1.7,187,-0.180,-0.180,-0.180,0.000,0.000,0.000
1641091118675126016,2022-01-02-02:38:38,10.1.1.7,177,-0.170,-0.170,-0.170,0.000,0.000,0.000
1641091118873030912,2022-01-02-02:38:38,10.1.1.7,173,-0.160,-0.160,-0.160,0.000,0.000,0.000
1641091119074440960,2022-01-02-02:38:39,10.1.1.7,174,-0.150,-0.150,-0.150,0.000,0.000,0.000
1641091119273600000,2022-01-02-02:38:39,10.1.1.7,172,-0.140,-0.140,-0.140,0.000,0.000,0.000
1641091119474044160,2022-01-02-02:38:39,10.1.1.7,172,-0.130,-0.130,-0.130,0.000,0.000,0.000
1641091119674063872,2022-01-02-02:38:39,10.1.1.7,172,-0.120,-0.120,-0.120,0.000,0.000,0.000
1641091119883933952,2022-01-02-02:38:39,10.1.1.7,181,-0.110,-0.110,-0.110,0.000,0.000,0.000
1641091120094841088,2022-01-02-02:38:40,10.1.1.7,191,-0.100,-0.100,-0.100,0.000,0.000,0.000
1641091120294856960,2022-01-02-02:38:40,10.1.1.7,190,-0.090,-0.090,-0.090,0.000,0.000,0.000
1641091120494291968,2022-01-02-02:38:40,10.1.1.7,189,-0.080,-0.080,-0.080,0.000,0.000,0.000
1641091120695015936,2022-01-02-02:38:40,10.1.1.7,189,-0.070,-0.070,-0.070,0.000,0.000,0.000
1641091120895510016,2022-01-02-02:38:40,10.1.1.7,189,-0.060,-0.060,-0.060,0.000,0.000,0.000
1641091121104875008,2022-01-02-02:38:41,10.1.1.7,198,-0.050,-0.050,-0.050,0.000,0.000,0.000
1641091121284674048,2022-01-02-02:38:41,10.1.1.7,177,-0.040,-0.040,-0.040,0.000,0.000,0.000
1641091121485284096,2022-01-02-02:38:41,10.1.1.7,177,-0.030,-0.030,-0.030,0.000,0.000,0.000
1641091121695152896,2022-01-02-02:38:41,10.1.1.7,186,-0.020,-0.020,-0.020,0.000,0.000,0.000
1641091121906119936,2022-01-02-02:38:41,10.1.1.7,192,-0.010,-0.010,-0.010,0.000,0.000,0.000
1641091122105655040,2022-01-02-02:38:42,10.1.1.7,191,0.000,0.000,0.000,0.000,0.000,0.000
1641091122305499136,2022-01-02-02:38:42,10.1.1.7,190,-0.010,-0.010,-0.010,0.000,0.000,0.000
1641091122495459072,2022-01-02-02:38:42,10.1.1.7,179,-0.020,-0.020,-0.020,0.000,0.000,0.000
1641091122707101184,2022-01-02-02:38:42,10.1.1.7,190,-0.030,-0.030,-0.030,0.000,0.000,0.000
1641091122905651200,2022-01-02-02:38:42,10.1.1.7,187,-0.040,-0.040,-0.040,0.000,0.000,0.000
1641091123105842944,2022-01-02-02:38:43,10.1.1.7,187,-0.050,-0.050,-0.050,0.000,0.000,0.000
1641091123306803968,2022-01-02-02:38:43,10.1.1.7,187,-0.060,-0.060,-0.060,0.000,0.000,0.000
1641091123495565824,2022-01-02-02:38:43,10.1.1.7,175,-0.070,-0.070,-0.070,0.000,0.000,0.000
1641091123695463936,2022-01-02-02:38:43,10.1.1.7,174,-0.080,-0.080,-0.080,0.000,0.000,0.000
1641091123905888000,2022-01-02-02:38:43,10.1.1.7,183,-0.090,-0.090,-0.090,0.000,0.000,0.000
1641091124095320832,2022-01-02-02:38:44,10.1.1.7,172,-0.100,-0.100,-0.100,0.000,0.000,0.000
1641091124305833984,2022-01-02-02:38:44,10.1.1.7,182,-0.110,-0.110,-0.110,0.000,0.000,0.000
1641091124516290048,2022-01-02-02:38:44,10.1.1.7,192,-0.120,-0.120,-0.120,0.000,0.000,0.000
1641091124916096000,2022-01-02-02:38:44,10.1.1.7,190,-0.140,-0.140,-0.140,0.000,0.000,0.000
1641091125105447936,2022-01-02-02:38:45,10.1.1.7,179,-0.150,-0.150,-0.150,0.000,0.000,0.000
1641091125316087040,2022-01-02-02:38:45,10.1.1.7,189,-0.160,-0.160,-0.160,0.000,0.000,0.000
1641091125515044096,2022-01-02-02:38:45,10.1.1.7,187,-0.170,-0.170,-0.170,0.000,0.000,0.000
1641091125724826112,2022-01-02-02:38:45,10.1.1.7,196,-0.180,-0.180,-0.180,0.000,0.000,0.000
1641091125905100032,2022-01-02-02:38:45,10.1.1.7,176,-0.190,-0.190,-0.190,0.000,0.000,0.000
1641091126105263104,2022-01-02-02:38:46,10.1.1.7,175,-0.200,-0.200,-0.200,0.000,0.000,0.000
1641091126305309952,2022-01-02-02:38:46,10.1.1.7,174,-0.210,-0.210,-0.210,0.000,0.000,0.000
1641091126514957056,2022-01-02-02:38:46,10.1.1.7,184,-0.220,-0.220,-0.220,0.000,0.000,0.000
1641091126714618880,2022-01-02-02:38:46,10.1.1.7,183,-0.230,-0.230,-0.230,0.000,0.000,0.000
1641091126905657088,2022-01-02-02:38:46,10.1.1.7,172,-0.240,-0.240,-0.240,0.000,0.000,0.000
1641091127105363968,2022-01-02-02:38:47,10.1.1.7,172,-0.250,-0.250,-0.250,0.000,0.000,0.000
1641091127324098048,2022-01-02-02:38:47,10.1.1.7,191,-0.260,-0.260,-0.260,0.000,0.000,0.000
1641091127514533120,2022-01-02-02:38:47,10.1.1.7,180,-0.270,-0.270,-0.270,0.000,0.000,0.000
1641091127713641984,2022-01-02-02:38:47,10.1.1.7,179,-0.280,-0.280,-0.280,0.000,0.000,0.000
1641091127923791872,2022-01-02-02:38:47,10.1.1.7,188,-0.290,-0.290,-0.290,0.000,0.000,0.000
1641091128113737984,2022-01-02-02:38:48,10.1.1.7,177,-0.300,-0.300,-0.300,0.000,0.000,0.000
1641091128316268032,2022-01-02-02:38:48,10.1.1.7,179,-0.310,-0.310,-0.310,0.000,0.000,0.000
1641091128524837888,2022-01-02-02:38:48,10.1.1.7,187,-0.320,-0.320,-0.320,0.000,0.000,0.000
1641091128723156992,2022-01-02-02:38:48,10.1.1.7,184,-0.330,-0.330,-0.330,0.000,0.000,0.000
1641091128922856192,2022-01-02-02:38:48,10.1.1.7,183,-0.340,-0.340,-0.340,0.000,0.000,0.000
1641091129113107968,2022-01-02-02:38:49,10.1.1.7,172,-0.350,-0.350,-0.350,0.000,0.000,0.000
1641091129322680064,2022-01-02-02:38:49,10.1.1.7,181,-0.360,-0.360,-0.360,0.000,0.000,0.000
1641091129522228992,2022-01-02-02:38:49,10.1.1.7,179,-0.370,-0.370,-0.370,0.000,0.000,0.000
1641091129712197120,2022-01-02-02:38:49,10.1.1.7,169,-0.380,-0.380,-0.380,0.000,0.000,0.000
1641091129912653056,2022-01-02-02:38:49,10.1.1.7,169,-0.390,-0.390,-0.390,0.000,0.000,0.000
1641091130132103936,2022-01-02-02:38:50,10.1.1.7,187,-0.400,-0.400,-0.400,0.000,0.000,0.000
1641091130331705088,2022-01-02-02:38:50,10.1.1.7,186,-0.410,-0.410,-0.410,0.000,0.000,0.000
1641091130531531008,2022-01-02-02:38:50,10.1.1.7,186,-0.420,-0.420,-0.420,0.000,0.000,0.000
1641091130741460992,2022-01-02-02:38:50,10.1.1.7,194,-0.430,-0.430,-0.430,0.000,0.000,0.000
1641091130920963072,2022-01-02-02:38:50,10.1.1.7,173,-0.440,-0.440,-0.440,0.000,0.000,0.000
1641091131131321856,2022-01-02-02:38:51,10.1.1.7,182,-0.450,-0.450,-0.450,0.000,0.000,0.000
1641091131320792832,2022-01-02-02:38:51,10.1.1.7,172,-0.460,-0.460,-0.460,0.000,0.000,0.000
1641091131540699904,2022-01-02-02:38:51,10.1.1.7,190,-0.470,-0.470,-0.470,0.000,0.000,0.000
1641091131720865024,2022-01-02-02:38:51,10.1.1.7,170,-0.480,-0.480,-0.480,0.000,0.000,0.000
1641091131941095168,2022-01-02-02:38:51,10.1.1.7,189,-0.490,-0.490,-0.490,0.000,0.000,0.000
1641091132130332928,2022-01-02-02:38:52,10.1.1.7,177,-0.480,-0.480,-0.480,0.000,0.000,0.000
1641091132339348992,2022-01-02-02:38:52,10.1.1.7,186,-0.470,-0.470,-0.470,0.000,0.000,0.000
1641091132538952192,2022-01-02-02:38:52,10.1.1.7,182,-0.460,-0.460,-0.460,0.000,0.000,0.000
1641091132729391104,2022-01-02-02:38:52,10.1.1.7,172,-0.450,-0.450,-0.450,0.000,0.000,0.000
1641091132931535104,2022-01-02-02:38:52,10.1.1.7,172,-0.440,-0.440,-0.440,0.000,0.000,0.000
1641091133138288128,2022-01-02-02:38:53,10.1.1.7,178,-0.430,-0.430,-0.430,0.000,0.000,0.000
1641091133328161024,2022-01-02-02:38:53,10.1.1.7,168,-0.420,-0.420,-0.420,0.000,0.000,0.000
1641091133527928064,2022-01-02-02:38:53,10.1.1.7,165,-0.410,-0.410,-0.410,0.000,0.000,0.000
1641091133727886080,2022-01-02-02:38:53,10.1.1.7,164,-0.400,-0.400,-0.400,0.000,0.000,0.000
1641091133937451008,2022-01-02-02:38:53,10.1.1.7,173,-0.390,-0.390,-0.390,0.000,0.000,0.000
1641091134137208064,2022-01-02-02:38:54,10.1.1.7,172,-0.380,-0.380,-0.380,0.000,0.000,0.000
1641091134337500928,2022-01-02-02:38:54,10.1.1.7,172,-0.370,-0.370,-0.370,0.000,0.000,0.000
1641091134536685056,2022-01-02-02:38:54,10.1.1.7,170,-0.360,-0.360,-0.360,0.000,0.000,0.000
1641091134746191104,2022-01-02-02:38:54,10.1.1.7,178,-0.350,-0.350,-0.350,0.000,0.000,0.000
1641091134956132864,2022-01-02-02:38:54,10.1.1.7,188,-0.340,-0.340,-0.340,0.000,0.000,0.000
1641091135146330112,2022-01-02-02:38:55,10.1.1.7,177,-0.330,-0.330,-0.330,0.000,0.000,0.000
1641091135346141952,2022-01-02-02:38:55,10.1.1.7,175,-0.320,-0.320,-0.320,0.000,0.000,0.000
1641091135555237120,2022-01-02-02:38:55,10.1.1.7,182,-0.310,-0.310,-0.310,0.000,0.000,0.000
1641091135745054976,2022-01-02-02:38:55,10.1.1.7,171,-0.300,-0.300,-0.300,0.000,0.000,0.000
1641091135954644992,2022-01-02-02:38:55,10.1.1.7,180,-0.290,-0.290,-0.290,0.000,0.000,0.000
1641091136154519040,2022-01-02-02:38:56,10.1.1.7,179,-0.280,-0.280,-0.280,0.000,0.000,0.000
1641091136344120064,2022-01-02-02:38:56,10.1.1.7,168,-0.270,-0.270,-0.270,0.000,0.000,0.000
1641091136544131072,2022-01-02-02:38:56,10.1.1.7,167,-0.260,-0.260,-0.260,0.000,0.000,0.000
1641091136743503104,2022-01-02-02:38:56,10.1.1.7,165,-0.250,-0.250,-0.250,0.000,0.000,0.000
1641091136946142976,2022-01-02-02:38:56,10.1.1.7,167,-0.240,-0.240,-0.240,0.000,0.000,0.000
1641091137143245824,2022-01-02-02:38:57,10.1.1.7,163,-0.230,-0.230,-0.230,0.000,0.000,0.000
1641091137342488064,2022-01-02-02:38:57,10.1.1.7,162,-0.220,-0.220,-0.220,0.000,0.000,0.000
1641091137553569024,2022-01-02-02:38:57,10.1.1.7,172,-0.210,-0.210,-0.210,0.000,0.000,0.000
1641091137742129152,2022-01-02-02:38:57,10.1.1.7,160,-0.200,-0.200,-0.200,0.000,0.000,0.000
1641091137951612928,2022-01-02-02:38:57,10.1.1.7,169,-0.190,-0.190,-0.190,0.000,0.000,0.000
1641091138141763072,2022-01-02-02:38:58,10.1.1.7,158,-0.180,-0.180,-0.180,0.000,0.000,0.000
1641091138361357056,2022-01-02-02:38:58,10.1.1.7,177,-0.170,-0.170,-0.170,0.000,0.000,0.000
1641091138563400960,2022-01-02-02:38:58,10.1.1.7,177,-0.160,-0.160,-0.160,0.000,0.000,0.000
1641091138760777984,2022-01-02-02:38:58,10.1.1.7,173,-0.150,-0.150,-0.150,0.000,0.000,0.000
1641091138960899072,2022-01-02-02:38:58,10.1.1.7,172,-0.140,-0.140,-0.140,0.000,0.000,0.000
1641091139170291968,2022-01-02-02:38:59,10.1.1.7,179,-0.130,-0.130,-0.130,0.000,0.000,0.000
1641091139349950976,2022-01-02-02:38:59,10.1.1.7,158,-0.120,-0.120,-0.120,0.000,0.000,0.000
1641091139560328960,2022-01-02-02:38:59,10.1.1.7,168,-0.110,-0.110,-0.110,0.000,0.000,0.000
1641091139759383808,2022-01-02-02:38:59,10.1.1.7,166,-0.100,-0.100,-0.100,0.000,0.000,0.000
1641091139959341056,2022-01-02-02:38:59,10.1.1.7,165,-0.090,-0.090,-0.090,0.000,0.000,0.000
1641091140159083008,2022-01-02-02:39:00,10.1.1.7,162,-0.080,-0.080,-0.080,0.000,0.000,0.000
1641091140359013120,2022-01-02-02:39:00,10.1.1.7,161,-0.070,-0.070,-0.070,0.000,0.000,0.000
1641091140557862144,2022-01-02-02:39:00,10.1.1.7,158,-0.060,-0.060,-0.060,0.000,0.000,0.000
1641091140759390208,2022-01-02-02:39:00,10.1.1.7,159,-0.050,-0.050,-0.050,0.000,0.000,0.000
1641091140967271936,2022-01-02-02:39:00,10.1.1.7,166,-0.040,-0.040,-0.040,0.000,0.000,0.000
1641091141158564096,2022-01-02-02:39:01,10.1.1.7,155,-0.030,-0.030,-0.030,0.000,0.000,0.000
1641091141377666048,2022-01-02-02:39:01,10.1.1.7,173,-0.020,-0.020,-0.020,0.000,0.000,0.000
1641091141567013120,2022-01-02-02:39:01,10.1.1.7,161,-0.010,-0.010,-0.010,0.000,0.000,0.000
1641091141775870976,2022-01-02-02:39:01,10.1.1.7,168,0.000,0.000,0.000,0.000,0.000,0.000
1641091141975698944,2022-01-02-02:39:01,10.1.1.7,166,-0.010,-0.010,-0.010,0.000,0.000,0.000
1641091142175214080,2022-01-02-02:39:02,10.1.1.7,165,-0.020,-0.020,-0.020,0.000,0.000,0.000
1641091142365179904,2022-01-02-02:39:02,10.1.1.7,154,-0.030,-0.030,-0.030,0.000,0.000,0.000
1641091142565262080,2022-01-02-02:39:02,10.1.1.7,153,-0.040,-0.040,-0.040,0.000,0.000,0.000
1641091142774359040,2022-01-02-02:39:02,10.1.1.7,160,-0.050,-0.050,-0.050,0.000,0.000,0.000
1641091142974673920,2022-01-02-02:39:02,10.1.1.7,158,-0.060,-0.060,-0.060,0.000,0.000,0.000
1641091143173746176,2022-01-02-02:39:03,10.1.1.7,157,-0.070,-0.070,-0.070,0.000,0.000,0.000
1641091143374638080,2022-01-02-02:39:03,10.1.1.7,156,-0.080,-0.080,-0.080,0.000,0.000,0.000
1641091143576185856,2022-01-02-02:39:03,10.1.1.7,156,-0.090,-0.090,-0.090,0.000,0.000,0.000
1641091143772809984,2022-01-02-02:39:03,10.1.1.7,151,-0.100,-0.100,-0.100,0.000,0.000,0.000
1641091143982996992,2022-01-02-02:39:03,10.1.1.7,159,-0.110,-0.110,-0.110,0.000,0.000,0.000
1641091144183427072,2022-01-02-02:39:04,10.1.1.7,159,-0.120,-0.120,-0.120,0.000,0.000,0.000
1641091144401731072,2022-01-02-02:39:04,10.1.1.7,176,-0.130,-0.130,-0.130,0.000,0.000,0.000
1641091144581937152,2022-01-02-02:39:04,10.1.1.7,155,-0.140,-0.140,-0.140,0.000,0.000,0.000
1641091144783191040,2022-01-02-02:39:04,10.1.1.7,155,-0.150,-0.150,-0.150,0.000,0.000,0.000
1641091144980540160,2022-01-02-02:39:04,10.1.1.7,152,-0.160,-0.160,-0.160,0.000,0.000,0.000
1641091145182034944,2022-01-02-02:39:05,10.1.1.7,151,-0.170,-0.170,-0.170,0.000,0.000,0.000
1641091145382795008,2022-01-02-02:39:05,10.1.1.7,151,-0.180,-0.180,-0.180,0.000,0.000,0.000
1641091145593609984,2022-01-02-02:39:05,10.1.1.7,161,-0.190,-0.190,-0.190,0.000,0.000,0.000
1641091145805248000,2022-01-02-02:39:05,10.1.1.7,171,-0.200,-0.200,-0.200,0.000,0.000,0.000
1641091145996186112,2022-01-02-02:39:05,10.1.1.7,158,-0.210,-0.210,-0.210,0.000,0.000,0.000
1641091146198020864,2022-01-02-02:39:06,10.1.1.7,156,-0.220,-0.220,-0.220,0.000,0.000,0.000
1641091146407128064,2022-01-02-02:39:06,10.1.1.7,163,-0.230,-0.230,-0.230,0.000,0.000,0.000
1641091146628601088,2022-01-02-02:39:06,10.1.1.7,184,-0.240,-0.240,-0.240,0.000,0.000,0.000
1641091146829328896,2022-01-02-02:39:06,10.1.1.7,184,-0.250,-0.250,-0.250,0.000,0.000,0.000
1641091147009860096,2022-01-02-02:39:07,10.1.1.7,164,-0.260,-0.260,-0.260,0.000,0.000,0.000
1641091147220286976,2022-01-02-02:39:07,10.1.1.7,174,-0.270,-0.270,-0.270,0.000,0.000,0.000
1641091147410562048,2022-01-02-02:39:07,10.1.1.7,163,-0.280,-0.280,-0.280,0.000,0.000,0.000
1641091147611355904,2022-01-02-02:39:07,10.1.1.7,163,-0.290,-0.290,-0.290,0.000,0.000,0.000
1641091147813746944,2022-01-02-02:39:07,10.1.1.7,164,-0.300,-0.300,-0.300,0.000,0.000,0.000
1641091148024951040,2022-01-02-02:39:08,10.1.1.7,174,-0.310,-0.310,-0.310,0.000,0.000,0.000
1641091148213826816,2022-01-02-02:39:08,10.1.1.7,162,-0.320,-0.320,-0.320,0.000,0.000,0.000
1641091148414233856,2022-01-02-02:39:08,10.1.1.7,162,-0.330,-0.330,-0.330,0.000,0.000,0.000
1641091148635226112,2022-01-02-02:39:08,10.1.1.7,181,-0.340,-0.340,-0.340,0.000,0.000,0.000
1641091148836088064,2022-01-02-02:39:08,10.1.1.7,180,-0.350,-0.350,-0.350,0.000,0.000,0.000
1641091149027812864,2022-01-02-02:39:09,10.1.1.7,171,-0.360,-0.360,-0.360,0.000,0.000,0.000
1641091149236356864,2022-01-02-02:39:09,10.1.1.7,179,-0.370,-0.370,-0.370,0.000,0.000,0.000
1641091149426737152,2022-01-02-02:39:09,10.1.1.7,169,-0.380,-0.380,-0.380,0.000,0.000,0.000
1641091149626839040,2022-01-02-02:39:09,10.1.1.7,169,-0.390,-0.390,-0.390,0.000,0.000,0.000
1641091149827783936,2022-01-02-02:39:09,10.1.1.7,169,-0.400,-0.400,-0.400,0.000,0.000,0.000
1641091150038364928,2022-01-02-02:39:10,10.1.1.7,179,-0.410,-0.410,-0.410,0.000,0.000,0.000
1641091150238909952,2022-01-02-02:39:10,10.1.1.7,178,-0.420,-0.420,-0.420,0.000,0.000,0.000
1641091150429063168,2022-01-02-02:39:10,10.1.1.7,168,-0.430,-0.430,-0.430,0.000,0.000,0.000
1641091150629126144,2022-01-02-02:39:10,10.1.1.7,167,-0.440,-0.440,-0.440,0.000,0.000,0.000
1641091150829724928,2022-01-02-02:39:10,10.1.1.7,166,-0.450,-0.450,-0.450,0.000,0.000,0.000
1641091151049920000,2022-01-02-02:39:11,10.1.1.7,186,-0.460,-0.460,-0.460,0.000,0.000,0.000
1641091151250036992,2022-01-02-02:39:11,10.1.1.7,185,-0.470,-0.470,-0.470,0.000,0.000,0.000
1641091151440372992,2022-01-02-02:39:11,10.1.1.7,175,-0.480,-0.480,-0.480,0.000,0.000,0.000
1641091151640454144,2022-01-02-02:39:11,10.1.1.7,174,-0.490,-0.490,-0.490,0.000,0.000,0.000
1641091151851193856,2022-01-02-02:39:11,10.1.1.7,184,-0.480,-0.480,-0.480,0.000,0.000,0.000
1641091152051002880,2022-01-02-02:39:12,10.1.1.7,183,-0.470,-0.470,-0.470,0.000,0.000,0.000
1641091152251620096,2022-01-02-02:39:12,10.1.1.7,183,-0.460,-0.460,-0.460,0.000,0.000,0.000
1641091152461236992,2022-01-02-02:39:12,10.1.1.7,192,-0.450,-0.450,-0.450,0.000,0.000,0.000
1641091152651566080,2022-01-02-02:39:12,10.1.1.7,181,-0.440,-0.440,-0.440,0.000,0.000,0.000
1641091152842359040,2022-01-02-02:39:12,10.1.1.7,171,-0.430,-0.430,-0.430,0.000,0.000,0.000
1641091153041584896,2022-01-02-02:39:13,10.1.1.7,170,-0.420,-0.420,-0.420,0.000,0.000,0.000
1641091153252048896,2022-01-02-02:39:13,10.1.1.7,180,-0.410,-0.410,-0.410,0.000,0.000,0.000
1641091153461991168,2022-01-02-02:39:13,10.1.1.7,189,-0.400,-0.400,-0.400,0.000,0.000,0.000
1641091153663840000,2022-01-02-02:39:13,10.1.1.7,190,-0.390,-0.390,-0.390,0.000,0.000,0.000
1641091153852929024,2022-01-02-02:39:13,10.1.1.7,178,-0.380,-0.380,-0.380,0.000,0.000,0.000
1641091154053713920,2022-01-02-02:39:14,10.1.1.7,179,-0.370,-0.370,-0.370,0.000,0.000,0.000
1641091154262648064,2022-01-02-02:39:14,10.1.1.7,185,-0.360,-0.360,-0.360,0.000,0.000,0.000
1641091154452760064,2022-01-02-02:39:14,10.1.1.7,173,-0.350,-0.350,-0.350,0.000,0.000,0.000
1641091154662784000,2022-01-02-02:39:14,10.1.1.7,182,-0.340,-0.340,-0.340,0.000,0.000,0.000
1641091154863138048,2022-01-02-02:39:14,10.1.1.7,181,-0.330,-0.330,-0.330,0.000,0.000,0.000
1641091155062697984,2022-01-02-02:39:15,10.1.1.7,180,-0.320,-0.320,-0.320,0.000,0.000,0.000
1641091155252624896,2022-01-02-02:39:15,10.1.1.7,169,-0.310,-0.310,-0.310,0.000,0.000,0.000
1641091155474203136,2022-01-02-02:39:15,10.1.1.7,189,-0.300,-0.300,-0.300,0.000,0.000,0.000
1641091155673024768,2022-01-02-02:39:15,10.1.1.7,188,-0.290,-0.290,-0.290,0.000,0.000,0.000
1641091155863110912,2022-01-02-02:39:15,10.1.1.7,177,-0.280,-0.280,-0.280,0.000,0.000,0.000
1641091156073040128,2022-01-02-02:39:16,10.1.1.7,186,-0.270,-0.270,-0.270,0.000,0.000,0.000
1641091156263192064,2022-01-02-02:39:16,10.1.1.7,174,-0.260,-0.260,-0.260,0.000,0.000,0.000
1641091156475326976,2022-01-02-02:39:16,10.1.1.7,186,-0.250,-0.250,-0.250,0.000,0.000,0.000
1641091156662972928,2022-01-02-02:39:16,10.1.1.7,173,-0.240,-0.240,-0.240,0.000,0.000,0.000
1641091156872814848,2022-01-02-02:39:16,10.1.1.7,182,-0.230,-0.230,-0.230,0.000,0.000,0.000
1641091157073885952,2022-01-02-02:39:17,10.1.1.7,182,-0.220,-0.220,-0.220,0.000,0.000,0.000
1641091157282969088,2022-01-02-02:39:17,10.1.1.7,184,-0.210,-0.210,-0.210,0.000,0.000,0.000
1641091157473011968,2022-01-02-02:39:17,10.1.1.7,181,-0.200,-0.200,-0.200,0.000,0.000,0.000
1641091157662394880,2022-01-02-02:39:17,10.1.1.7,169,-0.190,-0.190,-0.190,0.000,0.000,0.000
1641091157873121024,2022-01-02-02:39:17,10.1.1.7,179,-0.180,-0.180,-0.180,0.000,0.000,0.000
1641091158082830848,2022-01-02-02:39:18,10.1.1.7,188,-0.170,-0.170,-0.170,0.000,0.000,0.000
1641091158282200064,2022-01-02-02:39:18,10.1.1.7,186,-0.160,-0.160,-0.160,0.000,0.000,0.000
1641091158481961984,2022-01-02-02:39:18,10.1.1.7,185,-0.150,-0.150,-0.150,0.000,0.000,0.000
1641091158672066816,2022-01-02-02:39:18,10.1.1.7,174,-0.140,-0.140,-0.140,0.000,0.000,0.000
1641091158882638080,2022-01-02-02:39:18,10.1.1.7,184,-0.130,-0.130,-0.130,0.000,0.000,0.000
1641091159072529920,2022-01-02-02:39:19,10.1.1.7,172,-0.120,-0.120,-0.120,0.000,0.000,0.000
1641091159281893888,2022-01-02-02:39:19,10.1.1.7,181,-0.110,-0.110,-0.110,0.000,0.000,0.000
1641091159481723904,2022-01-02-02:39:19,10.1.1.7,180,-0.100,-0.100,-0.100,0.000,0.000,0.000
1641091159683013888,2022-01-02-02:39:19,10.1.1.7,181,-0.090,-0.090,-0.090,0.000,0.000,0.000
1641091159871020032,2022-01-02-02:39:19,10.1.1.7,168,-0.080,-0.080,-0.080,0.000,0.000,0.000
1641091160070939904,2022-01-02-02:39:20,10.1.1.7,167,-0.070,-0.070,-0.070,0.000,0.000,0.000
1641091160282014976,2022-01-02-02:39:20,10.1.1.7,178,-0.060,-0.060,-0.060,0.000,0.000,0.000
1641091160500377856,2022-01-02-02:39:20,10.1.1.7,196,-0.050,-0.050,-0.050,0.000,0.000,0.000
1641091160690844160,2022-01-02-02:39:20,10.1.1.7,185,-0.040,-0.040,-0.040,0.000,0.000,0.000
1641091160880076800,2022-01-02-02:39:20,10.1.1.7,174,-0.030,-0.030,-0.030,0.000,0.000,0.000
1641091161080161024,2022-01-02-02:39:21,10.1.1.7,173,-0.020,-0.020,-0.020,0.000,0.000,0.000
1641091161300558080,2022-01-02-02:39:21,10.1.1.7,193,-0.010,-0.010,-0.010,0.000,0.000,0.000
1641091161480560128,2022-01-02-02:39:21,10.1.1.7,172,0.000,0.000,0.000,0.000,0.000,0.000
1641091161679452928,2022-01-02-02:39:21,10.1.1.7,171,-0.010,-0.010,-0.010,0.000,0.000,0.000
1641091161899930880,2022-01-02-02:39:21,10.1.1.7,191,-0.020,-0.020,-0.020,0.000,0.000,0.000
1641091162090200064,2022-01-02-02:39:22,10.1.1.7,180,-0.030,-0.030,-0.030,0.000,0.000,0.000
1641091162289319936,2022-01-02-02:39:22,10.1.1.7,178,-0.040,-0.040,-0.040,0.000,0.000,0.000
1641091162489871104,2022-01-02-02:39:22,10.1.1.7,177,-0.050,-0.050,-0.050,0.000,0.000,0.000
1641091162688633088,2022-01-02-02:39:22,10.1.1.7,175,-0.060,-0.060,-0.060,0.000,0.000,0.000
1641091162898297088,2022-01-02-02:39:22,10.1.1.7,184,-0.070,-0.070,-0.070,0.000,0.000,0.000
1641091163088253952,2022-01-02-02:39:23,10.1.1.7,173,-0.080,-0.080,-0.080,0.000,0.000,0.000
1641091163287974144,2022-01-02-02:39:23,10.1.1.7,172,-0.090,-0.090,-0.090,0.000,0.000,0.000
1641091163489155072,2022-01-02-02:39:23,10.1.1.7,173,-0.100,-0.100,-0.100,0.000,0.000,0.000
1641091163687810048,2022-01-02-02:39:23,10.1.1.7,171,-0.110,-0.110,-0.110,0.000,0.000,0.000
1641091163888613888,2022-01-02-02:39:23,10.1.1.7,170,-0.120,-0.120,-0.120,0.000,0.000,0.000
1641091164087085056,2022-01-02-02:39:24,10.1.1.7,168,-0.130,-0.130,-0.130,0.000,0.000,0.000
1641091164297622016,2022-01-02-02:39:24,10.1.1.7,177,-0.140,-0.140,-0.140,0.000,0.000,0.000
1641091164487531776,2022-01-02-02:39:24,10.1.1.7,166,-0.150,-0.150,-0.150,0.000,0.000,0.000
1641091164687536128,2022-01-02-02:39:24,10.1.1.7,166,-0.160,-0.160,-0.160,0.000,0.000,0.000
1641091164896260864,2022-01-02-02:39:24,10.1.1.7,175,-0.170,-0.170,-0.170,0.000,0.000,0.000
1641091165087936000,2022-01-02-02:39:25,10.1.1.7,165,-0.180,-0.180,-0.180,0.000,0.000,0.000
1641091165286225152,2022-01-02-02:39:25,10.1.1.7,163,-0.190,-0.190,-0.190,0.000,0.000,0.000
1641091165507503104,2022-01-02-02:39:25,10.1.1.7,183,-0.200,-0.200,-0.200,0.000,0.000,0.000
1641091165695560960,2022-01-02-02:39:25,10.1.1.7,171,-0.210,-0.210,-0.210,0.000,0.000,0.000
1641091165905517056,2022-01-02-02:39:25,10.1.1.7,179,-0.220,-0.220,-0.220,0.000,0.000,0.000
1641091166095371008,2022-01-02-02:39:26,10.1.1.7,169,-0.230,-0.230,-0.230,0.000,0.000,0.000
1641091166295876096,2022-01-02-02:39:26,10.1.1.7,169,-0.240,-0.240,-0.240,0.000,0.000,0.000
1641091166494648064,2022-01-02-02:39:26,10.1.1.7,167,-0.250,-0.250,-0.250,0.000,0.000,0.000
1641091166703796992,2022-01-02-02:39:26,10.1.1.7,175,-0.260,-0.260,-0.260,0.000,0.000,0.000
1641091166898753024,2022-01-02-02:39:26,10.1.1.7,169,-0.270,-0.270,-0.270,0.000,0.000,0.000
1641091167113797888,2022-01-02-02:39:27,10.1.1.7,184,-0.280,-0.280,-0.280,0.000,0.000,0.000
1641091167293665792,2022-01-02-02:39:27,10.1.1.7,163,-0.290,-0.290,-0.290,0.000,0.000,0.000
1641091167503268096,2022-01-02-02:39:27,10.1.1.7,172,-0.300,-0.300,-0.300,0.000,0.000,0.000
1641091167712572160,2022-01-02-02:39:27,10.1.1.7,180,-0.310,-0.310,-0.310,0.000,0.000,0.000
1641091167891758080,2022-01-02-02:39:27,10.1.1.7,159,-0.320,-0.320,-0.320,0.000,0.000,0.000
1641091168111747072,2022-01-02-02:39:28,10.1.1.7,178,-0.330,-0.330,-0.330,0.000,0.000,0.000
1641091168303847168,2022-01-02-02:39:28,10.1.1.7,169,-0.340,-0.340,-0.340,0.000,0.000,0.000
1641091168501328896,2022-01-02-02:39:28,10.1.1.7,165,-0.350,-0.350,-0.350,0.000,0.000,0.000
1641091168701042944,2022-01-02-02:39:28,10.1.1.7,164,-0.360,-0.360,-0.360,0.000,0.000,0.000
1641091168900471808,2022-01-02-02:39:28,10.1.1.7,163,-0.370,-0.370,-0.370,0.000,0.000,0.000
1641091169100773120,2022-01-02-02:39:29,10.1.1.7,162,-0.380,-0.380,-0.380,0.000,0.000,0.000
1641091169300731904,2022-01-02-02:39:29,10.1.1.7,161,-0.390,-0.390,-0.390,0.000,0.000,0.000
1641091169500096000,2022-01-02-02:39:29,10.1.1.7,160,-0.400,-0.400,-0.400,0.000,0.000,0.000
1641091169699585024,2022-01-02-02:39:29,10.1.1.7,159,-0.410,-0.410,-0.410,0.000,0.000,0.000
1641091169909657088,2022-01-02-02:39:29,10.1.1.7,168,-0.420,-0.420,-0.420,0.000,0.000,0.000
1641091170098831872,2022-01-02-02:39:30,10.1.1.7,156,-0.430,-0.430,-0.430,0.000,0.000,0.000
1641091170298608896,2022-01-02-02:39:30,10.1.1.7,155,-0.440,-0.440,-0.440,0.000,0.000,0.000
1641091170518493952,2022-01-02-02:39:30,10.1.1.7,174,-0.450,-0.450,-0.450,0.000,0.000,0.000
1641091170719284992,2022-01-02-02:39:30,10.1.1.7,174,-0.460,-0.460,-0.460,0.000,0.000,0.000
1641091170927841792,2022-01-02-02:39:30,10.1.1.7,181,-0.470,-0.470,-0.470,0.000,0.000,0.000
1641091171118444800,2022-01-02-02:39:31,10.1.1.7,171,-0.480,-0.480,-0.480,0.000,0.000,0.000
1641091171327707136,2022-01-02-02:39:31,10.1.1.7,179,-0.490,-0.490,-0.490,0.000,0.000,0.000
1641091171517769984,2022-01-02-02:39:31,10.1.1.7,167,-0.480,-0.480,-0.480,0.000,0.000,0.000
1641091171719124992,2022-01-02-02:39:31,10.1.1.7,168,-0.470,-0.470,-0.470,0.000,0.000,0.000
1641091171916745984,2022-01-02-02:39:31,10.1.1.7,165,-0.460,-0.460,-0.460,0.000,0.000,0.000
1641091172118604032,2022-01-02-02:39:32,10.1.1.7,165,-0.450,-0.450,-0.450,0.000,0.000,0.000
1641091172316338944,2022-01-02-02:39:32,10.1.1.7,163,-0.440,-0.440,-0.440,0.000,0.000,0.000
1641091172515297024,2022-01-02-02:39:32,10.1.1.7,161,-0.430,-0.430,-0.430,0.000,0.000,0.000
1641091172715307008,2022-01-02-02:39:32,10.1.1.7,160,-0.420,-0.420,-0.420,0.000,0.000,0.000
1641091172914972160,2022-01-02-02:39:32,10.1.1.7,159,-0.410,-0.410,-0.410,0.000,0.000,0.000
1641091173124139008,2022-01-02-02:39:33,10.1.1.7,168,-0.400,-0.400,-0.400,0.000,0.000,0.000
1641091173314498048,2022-01-02-02:39:33,10.1.1.7,157,-0.390,-0.390,-0.390,0.000,0.000,0.000
1641091173514108928,2022-01-02-02:39:33,10.1.1.7,155,-0.380,-0.380,-0.380,0.000,0.000,0.000
1641091173723820800,2022-01-02-02:39:33,10.1.1.7,164,-0.370,-0.370,-0.370,0.000,0.000,0.000
1641091173914145024,2022-01-02-02:39:33,10.1.1.7,153,-0.360,-0.360,-0.360,0.000,0.000,0.000
1641091174114022144,2022-01-02-02:39:34,10.1.1.7,151,-0.350,-0.350,-0.350,0.000,0.000,0.000
1641091174164992000,2022-01-02-02:39:34,10.1.1.7,-1,-0.350,-0.350,-0.350,0.000,0.000,0.000
1641091174522726912,2022-01-02-02:39:34,10.1.1.7,157,-0.330,-0.330,-0.330,0.000,0.000,0.000
1641091174732041984,2022-01-02-02:39:34,10.1.1.7,166,-0.320,-0.320,-0.320,0.000,0.000,0.000
1641091174932241920,2022-01-02-02:39:34,10.1.1.7,166,-0.310,-0.310,-0.310,0.000,0.000,0.000
1641091175121416960,2022-01-02-02:39:35,10.1.1.7,155,-0.300,-0.300,-0.300,0.000,0.000,0.000
1641091175331682816,2022-01-02-02:39:35,10.1.1.7,164,-0.290,-0.290,-0.290,0.000,0.000,0.000
1641091175520914176,2022-01-02-02:39:35,10.1.1.7,153,-0.280,-0.280,-0.280,0.000,0.000,0.000
1641091175740729088,2022-01-02-02:39:35,10.1.1.7,171,-0.270,-0.270,-0.270,0.000,0.000,0.000
1641091175930780928,2022-01-02-02:39:35,10.1.1.7,161,-0.260,-0.260,-0.260,0.000,0.000,0.000
1641091176120023040,2022-01-02-02:39:36,10.1.1.7,149,-0.250,-0.250,-0.250,0.000,0.000,0.000
1641091176319256064,2022-01-02-02:39:36,10.1.1.7,148,-0.240,-0.240,-0.240,0.000,0.000,0.000
1641091176519546880,2022-01-02-02:39:36,10.1.1.7,147,-0.230,-0.230,-0.230,0.000,0.000,0.000
1641091176738894080,2022-01-02-02:39:36,10.1.1.7,165,-0.220,-0.220,-0.220,0.000,0.000,0.000
1641091176928702208,2022-01-02-02:39:36,10.1.1.7,153,-0.210,-0.210,-0.210,0.000,0.000,0.000
1641091177128591104,2022-01-02-02:39:37,10.1.1.7,152,-0.200,-0.200,-0.200,0.000,0.000,0.000
1641091177340163072,2022-01-02-02:39:37,10.1.1.7,163,-0.190,-0.190,-0.190,0.000,0.000,0.000
1641091177541060096,2022-01-02-02:39:37,10.1.1.7,163,-0.180,-0.180,-0.180,0.000,0.000,0.000
1641091177742578944,2022-01-02-02:39:37,10.1.1.7,164,-0.170,-0.170,-0.170,0.000,0.000,0.000
1641091177934104064,2022-01-02-02:39:37,10.1.1.7,154,-0.160,-0.160,-0.160,0.000,0.000,0.000
1641091178134493184,2022-01-02-02:39:38,10.1.1.7,153,-0.150,-0.150,-0.150,0.000,0.000,0.000
1641091178345274880,2022-01-02-02:39:38,10.1.1.7,163,-0.140,-0.140,-0.140,0.000,0.000,0.000
1641091178546633984,2022-01-02-02:39:38,10.1.1.7,164,-0.130,-0.130,-0.130,0.000,0.000,0.000
1641091178747930112,2022-01-02-02:39:38,10.1.1.7,164,-0.120,-0.120,-0.120,0.000,0.000,0.000
1641091178947971072,2022-01-02-02:39:38,10.1.1.7,162,-0.110,-0.110,-0.110,0.000,0.000,0.000
1641091179150195968,2022-01-02-02:39:39,10.1.1.7,164,-0.100,-0.100,-0.100,0.000,0.000,0.000
1641091179369793792,2022-01-02-02:39:39,10.1.1.7,182,-0.090,-0.090,-0.090,0.000,0.000,0.000
1641091179560719872,2022-01-02-02:39:39,10.1.1.7,172,-0.080,-0.080,-0.080,0.000,0.000,0.000
1641091179751329792,2022-01-02-02:39:39,10.1.1.7,162,-0.070,-0.070,-0.070,0.000,0.000,0.000
1641091179952357888,2022-01-02-02:39:39,10.1.1.7,161,-0.060,-0.060,-0.060,0.000,0.000,0.000
1641091180173172992,2022-01-02-02:39:40,10.1.1.7,181,-0.050,-0.050,-0.050,0.000,0.000,0.000
1641091180374269952,2022-01-02-02:39:40,10.1.1.7,181,-0.040,-0.040,-0.040,0.000,0.000,0.000
1641091180574317056,2022-01-02-02:39:40,10.1.1.7,180,-0.030,-0.030,-0.030,0.000,0.000,0.000
1641091180774830080,2022-01-02-02:39:40,10.1.1.7,180,-0.020,-0.020,-0.020,0.000,0.000,0.000
1641091180965342976,2022-01-02-02:39:40,10.1.1.7,169,-0.010,-0.010,-0.010,0.000,0.000,0.000
1641091181166268160,2022-01-02-02:39:41,10.1.1.7,168,0.000,0.000,0.000,0.000,0.000,0.000
1641091181377465088,2022-01-02-02:39:41,10.1.1.7,179,-0.010,-0.010,-0.010,0.000,0.000,0.000
1641091181567245056,2022-01-02-02:39:41,10.1.1.7,167,-0.020,-0.020,-0.020,0.000,0.000,0.000
1641091181778383104,2022-01-02-02:39:41,10.1.1.7,177,-0.030,-0.030,-0.030,0.000,0.000,0.000
1641091181968930048,2022-01-02-02:39:41,10.1.1.7,168,-0.040,-0.040,-0.040,0.000,0.000,0.000
1641091182179153920,2022-01-02-02:39:42,10.1.1.7,177,-0.050,-0.050,-0.050,0.000,0.000,0.000
1641091182378718976,2022-01-02-02:39:42,10.1.1.7,176,-0.060,-0.060,-0.060,0.000,0.000,0.000
1641091182583236096,2022-01-02-02:39:42,10.1.1.7,179,-0.070,-0.070,-0.070,0.000,0.000,0.000
1641091182780334848,2022-01-02-02:39:42,10.1.1.7,176,-0.080,-0.080,-0.080,0.000,0.000,0.000
1641091182990038016,2022-01-02-02:39:42,10.1.1.7,183,-0.090,-0.090,-0.090,0.000,0.000,0.000
1641091183181118976,2022-01-02-02:39:43,10.1.1.7,173,-0.100,-0.100,-0.100,0.000,0.000,0.000
1641091183391053824,2022-01-02-02:39:43,10.1.1.7,183,-0.110,-0.110,-0.110,0.000,0.000,0.000
1641091183581293056,2022-01-02-02:39:43,10.1.1.7,172,-0.120,-0.120,-0.120,0.000,0.000,0.000
1641091183782242048,2022-01-02-02:39:43,10.1.1.7,171,-0.130,-0.130,-0.130,0.000,0.000,0.000
1641091184001746944,2022-01-02-02:39:44,10.1.1.7,189,-0.140,-0.140,-0.140,0.000,0.000,0.000
1641091184181938944,2022-01-02-02:39:44,10.1.1.7,169,-0.150,-0.150,-0.150,0.000,0.000,0.000
1641091184394929920,2022-01-02-02:39:44,10.1.1.7,181,-0.160,-0.160,-0.160,0.000,0.000,0.000
1641091184592922880,2022-01-02-02:39:44,10.1.1.7,178,-0.170,-0.170,-0.170,0.000,0.000,0.000
1641091184792474880,2022-01-02-02:39:44,10.1.1.7,177,-0.180,-0.180,-0.180,0.000,0.000,0.000
1641091184992755968,2022-01-02-02:39:44,10.1.1.7,176,-0.190,-0.190,-0.190,0.000,0.000,0.000
1641091185203203072,2022-01-02-02:39:45,10.1.1.7,186,-0.200,-0.200,-0.200,0.000,0.000,0.000
1641091185403192064,2022-01-02-02:39:45,10.1.1.7,184,-0.210,-0.210,-0.210,0.000,0.000,0.000
1641091185603100160,2022-01-02-02:39:45,10.1.1.7,182,-0.220,-0.220,-0.220,0.000,0.000,0.000
1641091185793775104,2022-01-02-02:39:45,10.1.1.7,172,-0.230,-0.230,-0.230,0.000,0.000,0.000
1641091185995766016,2022-01-02-02:39:45,10.1.1.7,173,-0.240,-0.240,-0.240,0.000,0.000,0.000
1641091186203949056,2022-01-02-02:39:46,10.1.1.7,180,-0.250,-0.250,-0.250,0.000,0.000,0.000
1641091186414583808,2022-01-02-02:39:46,10.1.1.7,190,-0.260,-0.260,-0.260,0.000,0.000,0.000
1641091186604171008,2022-01-02-02:39:46,10.1.1.7,178,-0.270,-0.270,-0.270,0.000,0.000,0.000
1641091186813931008,2022-01-02-02:39:46,10.1.1.7,187,-0.280,-0.280,-0.280,0.000,0.000,0.000
1641091186994247936,2022-01-02-02:39:46,10.1.1.7,167,-0.290,-0.290,-0.290,0.000,0.000,0.000
1641091187213746944,2022-01-02-02:39:47,10.1.1.7,185,-0.300,-0.300,-0.300,0.000,0.000,0.000
1641091187424092160,2022-01-02-02:39:47,10.1.1.7,195,-0.310,-0.310,-0.310,0.000,0.000,0.000
1641091187628431104,2022-01-02-02:39:47,10.1.1.7,199,-0.320,-0.320,-0.320,0.000,0.000,0.000
1641091187804465152,2022-01-02-02:39:47,10.1.1.7,174,-0.330,-0.330,-0.330,0.000,0.000,0.000
1641091188004194048,2022-01-02-02:39:48,10.1.1.7,173,-0.340,-0.340,-0.340,0.000,0.000,0.000
1641091188224333056,2022-01-02-02:39:48,10.1.1.7,192,-0.350,-0.350,-0.350,0.000,0.000,0.000
1641091188404700160,2022-01-02-02:39:48,10.1.1.7,171,-0.360,-0.360,-0.360,0.000,0.000,0.000
1641091188604659200,2022-01-02-02:39:48,10.1.1.7,171,-0.370,-0.370,-0.370,0.000,0.000,0.000
1641091188825313024,2022-01-02-02:39:48,10.1.1.7,190,-0.380,-0.380,-0.380,0.000,0.000,0.000
1641091189015008000,2022-01-02-02:39:49,10.1.1.7,178,-0.390,-0.390,-0.390,0.000,0.000,0.000
1641091189224620032,2022-01-02-02:39:49,10.1.1.7,187,-0.400,-0.400,-0.400,0.000,0.000,0.000
1641091189413933056,2022-01-02-02:39:49,10.1.1.7,175,-0.410,-0.410,-0.410,0.000,0.000,0.000
1641091189614319104,2022-01-02-02:39:49,10.1.1.7,174,-0.420,-0.420,-0.420,0.000,0.000,0.000
1641091189813936896,2022-01-02-02:39:49,10.1.1.7,172,-0.430,-0.430,-0.430,0.000,0.000,0.000
1641091190014498048,2022-01-02-02:39:50,10.1.1.7,172,-0.440,-0.440,-0.440,0.000,0.000,0.000
1641091190213760000,2022-01-02-02:39:50,10.1.1.7,170,-0.450,-0.450,-0.450,0.000,0.000,0.000
1641091190424023040,2022-01-02-02:39:50,10.1.1.7,180,-0.460,-0.460,-0.460,0.000,0.000,0.000
1641091190633742080,2022-01-02-02:39:50,10.1.1.7,189,-0.470,-0.470,-0.470,0.000,0.000,0.000
1641091190843756032,2022-01-02-02:39:50,10.1.1.7,198,-0.480,-0.480,-0.480,0.000,0.000,0.000
1641091191033929216,2022-01-02-02:39:51,10.1.1.7,186,-0.490,-0.490,-0.490,0.000,0.000,0.000
1641091191233502976,2022-01-02-02:39:51,10.1.1.7,185,-0.480,-0.480,-0.480,0.000,0.000,0.000
1641091191433374976,2022-01-02-02:39:51,10.1.1.7,184,-0.470,-0.470,-0.470,0.000,0.000,0.000
1641091191633512960,2022-01-02-02:39:51,10.1.1.7,183,-0.460,-0.460,-0.460,0.000,0.000,0.000
1641091191833404160,2022-01-02-02:39:51,10.1.1.7,182,-0.450,-0.450,-0.450,0.000,0.000,0.000
1641091192033509120,2022-01-02-02:39:52,10.1.1.7,182,-0.440,-0.440,-0.440,0.000,0.000,0.000
1641091192223635968,2022-01-02-02:39:52,10.1.1.7,171,-0.430,-0.430,-0.430,0.000,0.000,0.000
1641091192422707968,2022-01-02-02:39:52,10.1.1.7,170,-0.420,-0.420,-0.420,0.000,0.000,0.000
1641091192633048064,2022-01-02-02:39:52,10.1.1.7,178,-0.410,-0.410,-0.410,0.000,0.000,0.000
1641091192834831872,2022-01-02-02:39:52,10.1.1.7,179,-0.400,-0.400,-0.400,0.000,0.000,0.000
1641091193042156032,2022-01-02-02:39:53,10.1.1.7,185,-0.390,-0.390,-0.390,0.000,0.000,0.000
1641091193232168960,2022-01-02-02:39:53,10.1.1.7,173,-0.380,-0.380,-0.380,0.000,0.000,0.000
1641091193434472192,2022-01-02-02:39:53,10.1.1.7,175,-0.370,-0.370,-0.370,0.000,0.000,0.000
1641091193642137088,2022-01-02-02:39:53,10.1.1.7,182,-0.360,-0.360,-0.360,0.000,0.000,0.000
1641091193831693056,2022-01-02-02:39:53,10.1.1.7,171,-0.350,-0.350,-0.350,0.000,0.000,0.000
1641091194042707968,2022-01-02-02:39:54,10.1.1.7,181,-0.340,-0.340,-0.340,0.000,0.000,0.000
1641091194231185920,2022-01-02-02:39:54,10.1.1.7,169,-0.330,-0.330,-0.330,0.000,0.000,0.000
1641091194431426048,2022-01-02-02:39:54,10.1.1.7,169,-0.320,-0.320,-0.320,0.000,0.000,0.000
1641091194631251968,2022-01-02-02:39:54,10.1.1.7,168,-0.310,-0.310,-0.310,0.000,0.000,0.000
1641091194840785152,2022-01-02-02:39:54,10.1.1.7,175,-0.300,-0.300,-0.300,0.000,0.000,0.000
1641091195060668928,2022-01-02-02:39:55,10.1.1.7,194,-0.290,-0.290,-0.290,0.000,0.000,0.000
1641091195250253824,2022-01-02-02:39:55,10.1.1.7,181,-0.280,-0.280,-0.280,0.000,0.000,0.000
1641091195440912128,2022-01-02-02:39:55,10.1.1.7,171,-0.270,-0.270,-0.270,0.000,0.000,0.000
1641091195649735936,2022-01-02-02:39:55,10.1.1.7,179,-0.260,-0.260,-0.260,0.000,0.000,0.000
1641091195859302912,2022-01-02-02:39:55,10.1.1.7,188,-0.250,-0.250,-0.250,0.000,0.000,0.000
1641091196039885056,2022-01-02-02:39:56,10.1.1.7,168,-0.240,-0.240,-0.240,0.000,0.000,0.000
1641091196258917120,2022-01-02-02:39:56,10.1.1.7,186,-0.230,-0.230,-0.230,0.000,0.000,0.000
1641091196449796864,2022-01-02-02:39:56,10.1.1.7,177,-0.220,-0.220,-0.220,0.000,0.000,0.000
1641091196659933184,2022-01-02-02:39:56,10.1.1.7,186,-0.210,-0.210,-0.210,0.000,0.000,0.000
1641091196863020800,2022-01-02-02:39:56,10.1.1.7,188,-0.200,-0.200,-0.200,0.000,0.000,0.000
1641091197048238080,2022-01-02-02:39:57,10.1.1.7,173,-0.190,-0.190,-0.190,0.000,0.000,0.000
1641091197248403200,2022-01-02-02:39:57,10.1.1.7,172,-0.180,-0.180,-0.180,0.000,0.000,0.000
1641091197447904000,2022-01-02-02:39:57,10.1.1.7,170,-0.170,-0.170,-0.170,0.000,0.000,0.000
1641091197657556992,2022-01-02-02:39:57,10.1.1.7,180,-0.160,-0.160,-0.160,0.000,0.000,0.000
1641091197847439104,2022-01-02-02:39:57,10.1.1.7,169,-0.150,-0.150,-0.150,0.000,0.000,0.000
1641091198046818048,2022-01-02-02:39:58,10.1.1.7,168,-0.140,-0.140,-0.140,0.000,0.000,0.000
1641091198247791104,2022-01-02-02:39:58,10.1.1.7,168,-0.130,-0.130,-0.130,0.000,0.000,0.000
1641091198456320000,2022-01-02-02:39:58,10.1.1.7,176,-0.120,-0.120,-0.120,0.000,0.000,0.000
1641091198656323840,2022-01-02-02:39:58,10.1.1.7,176,-0.110,-0.110,-0.110,0.000,0.000,0.000
1641091198856122880,2022-01-02-02:39:58,10.1.1.7,174,-0.100,-0.100,-0.100,0.000,0.000,0.000
1641091199055708928,2022-01-02-02:39:59,10.1.1.7,173,-0.090,-0.090,-0.090,0.000,0.000,0.000
1641091199246095872,2022-01-02-02:39:59,10.1.1.7,163,-0.080,-0.080,-0.080,0.000,0.000,0.000
1641091199445980928,2022-01-02-02:39:59,10.1.1.7,162,-0.070,-0.070,-0.070,0.000,0.000,0.000
1641091199666452992,2022-01-02-02:39:59,10.1.1.7,182,-0.060,-0.060,-0.060,0.000,0.000,0.000
1641091199854676992,2022-01-02-02:39:59,10.1.1.7,169,-0.050,-0.050,-0.050,0.000,0.000,0.000
1641091200064632064,2022-01-02-02:40:00,10.1.1.7,178,-0.040,-0.040,-0.040,0.000,0.000,0.000
1641091200274770944,2022-01-02-02:40:00,10.1.1.7,188,-0.030,-0.030,-0.030,0.000,0.000,0.000
1641091200463876096,2022-01-02-02:40:00,10.1.1.7,177,-0.020,-0.020,-0.020,0.000,0.000,0.000
1641091200653591040,2022-01-02-02:40:00,10.1.1.7,166,-0.010,-0.010,-0.010,0.000,0.000,0.000
1641091200853039872,2022-01-02-02:40:00,10.1.1.7,164,0.000,0.000,0.000,0.000,0.000,0.000
1641091201073442816,2022-01-02-02:40:01,10.1.1.7,183,-0.010,-0.010,-0.010,0.000,0.000,0.000
1641091201262774016,2022-01-02-02:40:01,10.1.1.7,172,-0.020,-0.020,-0.020,0.000,0.000,0.000
1641091201452760832,2022-01-02-02:40:01,10.1.1.7,161,-0.030,-0.030,-0.030,0.000,0.000,0.000
1641091201652171008,2022-01-02-02:40:01,10.1.1.7,160,-0.040,-0.040,-0.040,0.000,0.000,0.000
1641091201862051072,2022-01-02-02:40:01,10.1.1.7,169,-0.050,-0.050,-0.050,0.000,0.000,0.000
1641091202061583872,2022-01-02-02:40:02,10.1.1.7,167,-0.060,-0.060,-0.060,0.000,0.000,0.000
1641091202271447040,2022-01-02-02:40:02,10.1.1.7,176,-0.070,-0.070,-0.070,0.000,0.000,0.000
1641091202461424128,2022-01-02-02:40:02,10.1.1.7,165,-0.080,-0.080,-0.080,0.000,0.000,0.000
1641091202672028160,2022-01-02-02:40:02,10.1.1.7,175,-0.090,-0.090,-0.090,0.000,0.000,0.000
1641091202870124032,2022-01-02-02:40:02,10.1.1.7,172,-0.100,-0.100,-0.100,0.000,0.000,0.000
1641091203070710016,2022-01-02-02:40:03,10.1.1.7,171,-0.110,-0.110,-0.110,0.000,0.000,0.000
1641091203269918976,2022-01-02-02:40:03,10.1.1.7,170,-0.120,-0.120,-0.120,0.000,0.000,0.000
1641091203461081088,2022-01-02-02:40:03,10.1.1.7,160,-0.130,-0.130,-0.130,0.000,0.000,0.000
1641091203664519168,2022-01-02-02:40:03,10.1.1.7,163,-0.140,-0.140,-0.140,0.000,0.000,0.000
1641091203869556992,2022-01-02-02:40:03,10.1.1.7,167,-0.150,-0.150,-0.150,0.000,0.000,0.000
1641091204078514944,2022-01-02-02:40:04,10.1.1.7,174,-0.160,-0.160,-0.160,0.000,0.000,0.000
1641091204268281088,2022-01-02-02:40:04,10.1.1.7,160,-0.170,-0.170,-0.170,0.000,0.000,0.000
1641091204467571968,2022-01-02-02:40:04,10.1.1.7,159,-0.180,-0.180,-0.180,0.000,0.000,0.000
1641091204667494144,2022-01-02-02:40:04,10.1.1.7,158,-0.190,-0.190,-0.190,0.000,0.000,0.000
1641091204887510016,2022-01-02-02:40:04,10.1.1.7,177,-0.200,-0.200,-0.200,0.000,0.000,0.000
1641091205067102976,2022-01-02-02:40:05,10.1.1.7,156,-0.210,-0.210,-0.210,0.000,0.000,0.000
1641091205267451904,2022-01-02-02:40:05,10.1.1.7,155,-0.220,-0.220,-0.220,0.000,0.000,0.000
1641091205466351104,2022-01-02-02:40:05,10.1.1.7,154,-0.230,-0.230,-0.230,0.000,0.000,0.000
1641091205687196928,2022-01-02-02:40:05,10.1.1.7,171,-0.240,-0.240,-0.240,0.000,0.000,0.000
1641091205887767040,2022-01-02-02:40:05,10.1.1.7,170,-0.250,-0.250,-0.250,0.000,0.000,0.000
1641091206077126144,2022-01-02-02:40:06,10.1.1.7,159,-0.260,-0.260,-0.260,0.000,0.000,0.000
1641091206276325888,2022-01-02-02:40:06,10.1.1.7,156,-0.270,-0.270,-0.270,0.000,0.000,0.000
1641091206475532032,2022-01-02-02:40:06,10.1.1.7,154,-0.280,-0.280,-0.280,0.000,0.000,0.000
1641091206675097856,2022-01-02-02:40:06,10.1.1.7,153,-0.290,-0.290,-0.290,0.000,0.000,0.000
1641091206873688832,2022-01-02-02:40:06,10.1.1.7,151,-0.300,-0.300,-0.300,0.000,0.000,0.000
1641091207073980160,2022-01-02-02:40:07,10.1.1.7,151,-0.310,-0.310,-0.310,0.000,0.000,0.000
1641091207285545984,2022-01-02-02:40:07,10.1.1.7,162,-0.320,-0.320,-0.320,0.000,0.000,0.000
1641091207493652224,2022-01-02-02:40:07,10.1.1.7,169,-0.330,-0.330,-0.330,0.000,0.000,0.000
1641091207682894080,2022-01-02-02:40:07,10.1.1.7,157,-0.340,-0.340,-0.340,0.000,0.000,0.000
1641091207893867008,2022-01-02-02:40:07,10.1.1.7,168,-0.350,-0.350,-0.350,0.000,0.000,0.000
1641091208081788160,2022-01-02-02:40:08,10.1.1.7,154,-0.360,-0.360,-0.360,0.000,0.000,0.000
1641091208282230016,2022-01-02-02:40:08,10.1.1.7,154,-0.370,-0.370,-0.370,0.000,0.000,0.000
1641091208481682944,2022-01-02-02:40:08,10.1.1.7,153,-0.380,-0.380,-0.380,0.000,0.000,0.000
1641091208691689984,2022-01-02-02:40:08,10.1.1.7,162,-0.390,-0.390,-0.390,0.000,0.000,0.000
1641091208880894976,2022-01-02-02:40:08,10.1.1.7,151,-0.400,-0.400,-0.400,0.000,0.000,0.000
1641091209101174016,2022-01-02-02:40:09,10.1.1.7,171,-0.410,-0.410,-0.410,0.000,0.000,0.000
1641091209302035968,2022-01-02-02:40:09,10.1.1.7,171,-0.420,-0.420,-0.420,0.000,0.000,0.000
1641091209483335936,2022-01-02-02:40:09,10.1.1.7,152,-0.430,-0.430,-0.430,0.000,0.000,0.000
1641091209694418944,2022-01-02-02:40:09,10.1.1.7,162,-0.440,-0.440,-0.440,0.000,0.000,0.000
1641091209885006848,2022-01-02-02:40:09,10.1.1.7,152,-0.450,-0.450,-0.450,0.000,0.000,0.000
1641091210106515968,2022-01-02-02:40:10,10.1.1.7,172,-0.460,-0.460,-0.460,0.000,0.000,0.000
1641091210307031040,2022-01-02-02:40:10,10.1.1.7,172,-0.470,-0.470,-0.470,0.000,0.000,0.000
1641091210508029952,2022-01-02-02:40:10,10.1.1.7,172,-0.480,-0.480,-0.480,0.000,0.000,0.000
1641091210701486080,2022-01-02-02:40:10,10.1.1.7,165,-0.490,-0.490,-0.490,0.000,0.000,0.000
1641091210900391168,2022-01-02-02:40:10,10.1.1.7,163,-0.480,-0.480,-0.480,0.000,0.000,0.000
1641091211111032064,2022-01-02-02:40:11,10.1.1.7,173,-0.470,-0.470,-0.470,0.000,0.000,0.000
1641091211300962048,2022-01-02-02:40:11,10.1.1.7,162,-0.460,-0.460,-0.460,0.000,0.000,0.000
1641091211502327808,2022-01-02-02:40:11,10.1.1.7,162,-0.450,-0.450,-0.450,0.000,0.000,0.000
1641091211703655936,2022-01-02-02:40:11,10.1.1.7,163,-0.440,-0.440,-0.440,0.000,0.000,0.000
1641091211902950144,2022-01-02-02:40:11,10.1.1.7,162,-0.430,-0.430,-0.430,0.000,0.000,0.000
1641091212114062080,2022-01-02-02:40:12,10.1.1.7,171,-0.420,-0.420,-0.420,0.000,0.000,0.000
1641091212314094080,2022-01-02-02:40:12,10.1.1.7,170,-0.410,-0.410,-0.410,0.000,0.000,0.000
1641091212515324160,2022-01-02-02:40:12,10.1.1.7,171,-0.400,-0.400,-0.400,0.000,0.000,0.000
1641091212727281152,2022-01-02-02:40:12,10.1.1.7,182,-0.390,-0.390,-0.390,0.000,0.000,0.000
1641091212926369024,2022-01-02-02:40:12,10.1.1.7,181,-0.380,-0.380,-0.380,0.000,0.000,0.000
1641091213116504064,2022-01-02-02:40:13,10.1.1.7,170,-0.370,-0.370,-0.370,0.000,0.000,0.000
1641091213317236992,2022-01-02-02:40:13,10.1.1.7,169,-0.360,-0.360,-0.360,0.000,0.000,0.000
1641091213527789056,2022-01-02-02:40:13,10.1.1.7,179,-0.350,-0.350,-0.350,0.000,0.000,0.000
1641091213728005888,2022-01-02-02:40:13,10.1.1.7,179,-0.340,-0.340,-0.340,0.000,0.000,0.000
1641091213929230080,2022-01-02-02:40:13,10.1.1.7,179,-0.330,-0.330,-0.330,0.000,0.000,0.000
1641091214129959168,2022-01-02-02:40:14,10.1.1.7,179,-0.320,-0.320,-0.320,0.000,0.000,0.000
1641091214319283968,2022-01-02-02:40:14,10.1.1.7,168,-0.310,-0.310,-0.310,0.000,0.000,0.000
1641091214520602112,2022-01-02-02:40:14,10.1.1.7,169,-0.300,-0.300,-0.300,0.000,0.000,0.000
1641091214740348928,2022-01-02-02:40:14,10.1.1.7,188,-0.290,-0.290,-0.290,0.000,0.000,0.000
1641091214931436032,2022-01-02-02:40:14,10.1.1.7,177,-0.280,-0.280,-0.280,0.000,0.000,0.000
1641091215130886144,2022-01-02-02:40:15,10.1.1.7,177,-0.270,-0.270,-0.270,0.000,0.000,0.000
1641091215331202048,2022-01-02-02:40:15,10.1.1.7,176,-0.260,-0.260,-0.260,0.000,0.000,0.000
1641091215531227136,2022-01-02-02:40:15,10.1.1.7,175,-0.250,-0.250,-0.250,0.000,0.000,0.000
1641091215736973056,2022-01-02-02:40:15,10.1.1.7,178,-0.240,-0.240,-0.240,0.000,0.000,0.000
1641091215932872960,2022-01-02-02:40:15,10.1.1.7,173,-0.230,-0.230,-0.230,0.000,0.000,0.000
1641091216132014080,2022-01-02-02:40:16,10.1.1.7,172,-0.220,-0.220,-0.220,0.000,0.000,0.000
1641091216332995840,2022-01-02-02:40:16,10.1.1.7,172,-0.210,-0.210,-0.210,0.000,0.000,0.000
1641091216543868160,2022-01-02-02:40:16,10.1.1.7,182,-0.200,-0.200,-0.200,0.000,0.000,0.000
1641091216743719936,2022-01-02-02:40:16,10.1.1.7,180,-0.190,-0.190,-0.190,0.000,0.000,0.000
1641091216942924032,2022-01-02-02:40:16,10.1.1.7,178,-0.180,-0.180,-0.180,0.000,0.000,0.000
1641091217162932992,2022-01-02-02:40:17,10.1.1.7,197,-0.170,-0.170,-0.170,0.000,0.000,0.000
1641091217363132928,2022-01-02-02:40:17,10.1.1.7,197,-0.160,-0.160,-0.160,0.000,0.000,0.000
1641091217554127104,2022-01-02-02:40:17,10.1.1.7,186,-0.150,-0.150,-0.150,0.000,0.000,0.000
1641091217742913024,2022-01-02-02:40:17,10.1.1.7,175,-0.140,-0.140,-0.140,0.000,0.000,0.000
1641091217953753856,2022-01-02-02:40:17,10.1.1.7,185,-0.130,-0.130,-0.130,0.000,0.000,0.000
1641091218143981824,2022-01-02-02:40:18,10.1.1.7,175,-0.120,-0.120,-0.120,0.000,0.000,0.000
1641091218354116864,2022-01-02-02:40:18,10.1.1.7,184,-0.110,-0.110,-0.110,0.000,0.000,0.000
1641091218564011008,2022-01-02-02:40:18,10.1.1.7,193,-0.100,-0.100,-0.100,0.000,0.000,0.000
1641091218754061056,2022-01-02-02:40:18,10.1.1.7,183,-0.090,-0.090,-0.090,0.000,0.000,0.000
1641091218955548160,2022-01-02-02:40:18,10.1.1.7,183,-0.080,-0.080,-0.080,0.000,0.000,0.000
1641091219144153088,2022-01-02-02:40:19,10.1.1.7,172,-0.070,-0.070,-0.070,0.000,0.000,0.000
1641091219343674880,2022-01-02-02:40:19,10.1.1.7,171,-0.060,-0.060,-0.060,0.000,0.000,0.000
1641091219553835008,2022-01-02-02:40:19,10.1.1.7,180,-0.050,-0.050,-0.050,0.000,0.000,0.000
1641091219754676992,2022-01-02-02:40:19,10.1.1.7,180,-0.040,-0.040,-0.040,0.000,0.000,0.000
1641091219954061056,2022-01-02-02:40:19,10.1.1.7,179,-0.030,-0.030,-0.030,0.000,0.000,0.000
