FedericoMungari/DigitalTwin_service/01_WiredScenario/Output/Output_script/script_rosapi_2_output_robots4_freq0_3.txt
timestamp,date,node,latency,joint_1,joint_2,joint_3,joint_4,joint_5,joint_6
1641195349411559936,2022-01-03-07:35:49,10.1.1.4,195,-0.010,-0.010,-0.010,0.000,0.000,0.000
1641195349609970176,2022-01-03-07:35:49,10.1.1.4,193,-0.020,-0.020,-0.020,0.000,0.000,0.000
1641195349811377152,2022-01-03-07:35:49,10.1.1.4,193,-0.030,-0.030,-0.030,0.000,0.000,0.000
1641195350011974144,2022-01-03-07:35:50,10.1.1.4,193,-0.040,-0.040,-0.040,0.000,0.000,0.000
1641195350211976960,2022-01-03-07:35:50,10.1.1.4,192,-0.050,-0.050,-0.050,0.000,0.000,0.000
1641195350412306176,2022-01-03-07:35:50,10.1.1.4,190,-0.060,-0.060,-0.060,0.000,0.000,0.000
1641195350612560128,2022-01-03-07:35:50,10.1.1.4,190,-0.070,-0.070,-0.070,0.000,0.000,0.000
1641195350813498112,2022-01-03-07:35:50,10.1.1.4,190,-0.080,-0.080,-0.080,0.000,0.000,0.000
1641195351013148160,2022-01-03-07:35:51,10.1.1.4,189,-0.090,-0.090,-0.090,0.000,0.000,0.000
1641195351213124096,2022-01-03-07:35:51,10.1.1.4,188,-0.100,-0.100,-0.100,0.000,0.000,0.000
1641195351413559040,2022-01-03-07:35:51,10.1.1.4,187,-0.110,-0.110,-0.110,0.000,0.000,0.000
1641195351617590784,2022-01-03-07:35:51,10.1.1.4,189,-0.120,-0.120,-0.120,0.000,0.000,0.000
1641195351814099968,2022-01-03-07:35:51,10.1.1.4,185,-0.130,-0.130,-0.130,0.000,0.000,0.000
1641195352016820992,2022-01-03-07:35:52,10.1.1.4,186,-0.140,-0.140,-0.140,0.000,0.000,0.000
1641195352215815936,2022-01-03-07:35:52,10.1.1.4,184,-0.150,-0.150,-0.150,0.000,0.000,0.000
1641195352416258048,2022-01-03-07:35:52,10.1.1.4,184,-0.160,-0.160,-0.160,0.000,0.000,0.000
1641195352616619008,2022-01-03-07:35:52,10.1.1.4,182,-0.170,-0.170,-0.170,0.000,0.000,0.000
1641195353037453056,2022-01-03-07:35:53,10.1.1.4,198,-0.190,-0.190,-0.190,0.000,0.000,0.000
1641195353235951872,2022-01-03-07:35:53,10.1.1.4,196,-0.200,-0.200,-0.200,0.000,0.000,0.000
1641195353436764928,2022-01-03-07:35:53,10.1.1.4,196,-0.210,-0.210,-0.210,0.000,0.000,0.000
1641195353636913920,2022-01-03-07:35:53,10.1.1.4,196,-0.220,-0.220,-0.220,0.000,0.000,0.000
1641195353837185024,2022-01-03-07:35:53,10.1.1.4,194,-0.230,-0.230,-0.230,0.000,0.000,0.000
1641195354038036992,2022-01-03-07:35:54,10.1.1.4,194,-0.240,-0.240,-0.240,0.000,0.000,0.000
1641195354237814016,2022-01-03-07:35:54,10.1.1.4,193,-0.250,-0.250,-0.250,0.000,0.000,0.000
1641195354439315200,2022-01-03-07:35:54,10.1.1.4,193,-0.260,-0.260,-0.260,0.000,0.000,0.000
1641195354637916928,2022-01-03-07:35:54,10.1.1.4,191,-0.270,-0.270,-0.270,0.000,0.000,0.000
1641195354837757952,2022-01-03-07:35:54,10.1.1.4,189,-0.280,-0.280,-0.280,0.000,0.000,0.000
1641195355039983872,2022-01-03-07:35:55,10.1.1.4,188,-0.290,-0.290,-0.290,0.000,0.000,0.000
1641195355238940928,2022-01-03-07:35:55,10.1.1.4,185,-0.300,-0.300,-0.300,0.000,0.000,0.000
1641195355458373120,2022-01-03-07:35:55,10.1.1.4,203,-0.310,-0.310,-0.310,0.000,0.000,0.000
1641195355657718784,2022-01-03-07:35:55,10.1.1.4,196,-0.320,-0.320,-0.320,0.000,0.000,0.000
1641195355859217920,2022-01-03-07:35:55,10.1.1.4,197,-0.330,-0.330,-0.330,0.000,0.000,0.000
1641195356059259904,2022-01-03-07:35:56,10.1.1.4,196,-0.340,-0.340,-0.340,0.000,0.000,0.000
1641195356259645952,2022-01-03-07:35:56,10.1.1.4,195,-0.350,-0.350,-0.350,0.000,0.000,0.000
1641195356457662208,2022-01-03-07:35:56,10.1.1.4,192,-0.360,-0.360,-0.360,0.000,0.000,0.000
1641195356660985088,2022-01-03-07:35:56,10.1.1.4,194,-0.370,-0.370,-0.370,0.000,0.000,0.000
1641195356858921984,2022-01-03-07:35:56,10.1.1.4,191,-0.380,-0.380,-0.380,0.000,0.000,0.000
1641195357058264064,2022-01-03-07:35:57,10.1.1.4,189,-0.390,-0.390,-0.390,0.000,0.000,0.000
1641195357258341120,2022-01-03-07:35:57,10.1.1.4,188,-0.400,-0.400,-0.400,0.000,0.000,0.000
1641195357458332928,2022-01-03-07:35:57,10.1.1.4,187,-0.410,-0.410,-0.410,0.000,0.000,0.000
1641195357658843904,2022-01-03-07:35:57,10.1.1.4,187,-0.420,-0.420,-0.420,0.000,0.000,0.000
1641195357859049984,2022-01-03-07:35:57,10.1.1.4,185,-0.430,-0.430,-0.430,0.000,0.000,0.000
1641195358059134976,2022-01-03-07:35:58,10.1.1.4,184,-0.440,-0.440,-0.440,0.000,0.000,0.000
1641195358478974976,2022-01-03-07:35:58,10.1.1.4,200,-0.460,-0.460,-0.460,0.000,0.000,0.000
1641195358680968960,2022-01-03-07:35:58,10.1.1.4,200,-0.470,-0.470,-0.470,0.000,0.000,0.000
1641195358879048960,2022-01-03-07:35:58,10.1.1.4,197,-0.480,-0.480,-0.480,0.000,0.000,0.000
1641195359079047936,2022-01-03-07:35:59,10.1.1.4,196,-0.490,-0.490,-0.490,0.000,0.000,0.000
1641195359279019008,2022-01-03-07:35:59,10.1.1.4,195,-0.480,-0.480,-0.480,0.000,0.000,0.000
1641195359479682048,2022-01-03-07:35:59,10.1.1.4,194,-0.470,-0.470,-0.470,0.000,0.000,0.000
1641195359679357952,2022-01-03-07:35:59,10.1.1.4,193,-0.460,-0.460,-0.460,0.000,0.000,0.000
1641195359879243008,2022-01-03-07:35:59,10.1.1.4,192,-0.450,-0.450,-0.450,0.000,0.000,0.000
1641195360078632960,2022-01-03-07:36:00,10.1.1.4,190,-0.440,-0.440,-0.440,0.000,0.000,0.000
1641195360277005056,2022-01-03-07:36:00,10.1.1.4,188,-0.430,-0.430,-0.430,0.000,0.000,0.000
1641195360478592000,2022-01-03-07:36:00,10.1.1.4,188,-0.420,-0.420,-0.420,0.000,0.000,0.000
1641195360676976896,2022-01-03-07:36:00,10.1.1.4,184,-0.410,-0.410,-0.410,0.000,0.000,0.000
1641195360877285120,2022-01-03-07:36:00,10.1.1.4,183,-0.400,-0.400,-0.400,0.000,0.000,0.000
1641195361077351168,2022-01-03-07:36:01,10.1.1.4,182,-0.390,-0.390,-0.390,0.000,0.000,0.000
1641195361296509952,2022-01-03-07:36:01,10.1.1.4,198,-0.380,-0.380,-0.380,0.000,0.000,0.000
1641195361491241984,2022-01-03-07:36:01,10.1.1.4,191,-0.370,-0.370,-0.370,0.000,0.000,0.000
1641195361696148992,2022-01-03-07:36:01,10.1.1.4,195,-0.360,-0.360,-0.360,0.000,0.000,0.000
1641195361895124992,2022-01-03-07:36:01,10.1.1.4,193,-0.350,-0.350,-0.350,0.000,0.000,0.000
1641195362095480064,2022-01-03-07:36:02,10.1.1.4,192,-0.340,-0.340,-0.340,0.000,0.000,0.000
1641195362295696128,2022-01-03-07:36:02,10.1.1.4,191,-0.330,-0.330,-0.330,0.000,0.000,0.000
1641195362496051968,2022-01-03-07:36:02,10.1.1.4,191,-0.320,-0.320,-0.320,0.000,0.000,0.000
1641195362695367168,2022-01-03-07:36:02,10.1.1.4,189,-0.310,-0.310,-0.310,0.000,0.000,0.000
1641195362895311104,2022-01-03-07:36:02,10.1.1.4,188,-0.300,-0.300,-0.300,0.000,0.000,0.000
1641195363094131968,2022-01-03-07:36:03,10.1.1.4,186,-0.290,-0.290,-0.290,0.000,0.000,0.000
1641195363295088896,2022-01-03-07:36:03,10.1.1.4,186,-0.280,-0.280,-0.280,0.000,0.000,0.000
1641195363493733888,2022-01-03-07:36:03,10.1.1.4,183,-0.270,-0.270,-0.270,0.000,0.000,0.000
1641195363694171904,2022-01-03-07:36:03,10.1.1.4,183,-0.260,-0.260,-0.260,0.000,0.000,0.000
1641195363893862912,2022-01-03-07:36:03,10.1.1.4,182,-0.250,-0.250,-0.250,0.000,0.000,0.000
1641195364093368064,2022-01-03-07:36:04,10.1.1.4,181,-0.240,-0.240,-0.240,0.000,0.000,0.000
1641195364292884224,2022-01-03-07:36:04,10.1.1.4,180,-0.230,-0.230,-0.230,0.000,0.000,0.000
1641195364491764992,2022-01-03-07:36:04,10.1.1.4,178,-0.220,-0.220,-0.220,0.000,0.000,0.000
1641195364713200128,2022-01-03-07:36:04,10.1.1.4,198,-0.210,-0.210,-0.210,0.000,0.000,0.000
1641195364912465152,2022-01-03-07:36:04,10.1.1.4,196,-0.200,-0.200,-0.200,0.000,0.000,0.000
1641195365112761088,2022-01-03-07:36:05,10.1.1.4,195,-0.190,-0.190,-0.190,0.000,0.000,0.000
1641195365312382976,2022-01-03-07:36:05,10.1.1.4,194,-0.180,-0.180,-0.180,0.000,0.000,0.000
1641195365511648000,2022-01-03-07:36:05,10.1.1.4,192,-0.170,-0.170,-0.170,0.000,0.000,0.000
1641195365712523008,2022-01-03-07:36:05,10.1.1.4,192,-0.160,-0.160,-0.160,0.000,0.000,0.000
1641195365911987968,2022-01-03-07:36:05,10.1.1.4,191,-0.150,-0.150,-0.150,0.000,0.000,0.000
1641195366111772928,2022-01-03-07:36:06,10.1.1.4,190,-0.140,-0.140,-0.140,0.000,0.000,0.000
1641195366311024896,2022-01-03-07:36:06,10.1.1.4,189,-0.130,-0.130,-0.130,0.000,0.000,0.000
1641195366510746880,2022-01-03-07:36:06,10.1.1.4,188,-0.120,-0.120,-0.120,0.000,0.000,0.000
1641195366709929984,2022-01-03-07:36:06,10.1.1.4,186,-0.110,-0.110,-0.110,0.000,0.000,0.000
1641195366909959168,2022-01-03-07:36:06,10.1.1.4,186,-0.100,-0.100,-0.100,0.000,0.000,0.000
1641195367110153984,2022-01-03-07:36:07,10.1.1.4,185,-0.090,-0.090,-0.090,0.000,0.000,0.000
1641195367309137152,2022-01-03-07:36:07,10.1.1.4,183,-0.080,-0.080,-0.080,0.000,0.000,0.000
1641195367509234944,2022-01-03-07:36:07,10.1.1.4,182,-0.070,-0.070,-0.070,0.000,0.000,0.000
1641195367708930048,2022-01-03-07:36:07,10.1.1.4,182,-0.060,-0.060,-0.060,0.000,0.000,0.000
1641195367908462080,2022-01-03-07:36:07,10.1.1.4,180,-0.050,-0.050,-0.050,0.000,0.000,0.000
1641195368110941952,2022-01-03-07:36:08,10.1.1.4,182,-0.040,-0.040,-0.040,0.000,0.000,0.000
1641195368308322048,2022-01-03-07:36:08,10.1.1.4,177,-0.030,-0.030,-0.030,0.000,0.000,0.000
1641195368513488896,2022-01-03-07:36:08,10.1.1.4,181,-0.020,-0.020,-0.020,0.000,0.000,0.000
1641195368709139200,2022-01-03-07:36:08,10.1.1.4,176,-0.010,-0.010,-0.010,0.000,0.000,0.000
1641195368927182080,2022-01-03-07:36:08,10.1.1.4,192,0.000,0.000,0.000,0.000,0.000,0.000
1641195369129458944,2022-01-03-07:36:09,10.1.1.4,193,-0.010,-0.010,-0.010,0.000,0.000,0.000
1641195369327802880,2022-01-03-07:36:09,10.1.1.4,190,-0.020,-0.020,-0.020,0.000,0.000,0.000
1641195369527398144,2022-01-03-07:36:09,10.1.1.4,187,-0.030,-0.030,-0.030,0.000,0.000,0.000
1641195369727225088,2022-01-03-07:36:09,10.1.1.4,186,-0.040,-0.040,-0.040,0.000,0.000,0.000
1641195369935798016,2022-01-03-07:36:09,10.1.1.4,194,-0.050,-0.050,-0.050,0.000,0.000,0.000
1641195370124898048,2022-01-03-07:36:10,10.1.1.4,182,-0.060,-0.060,-0.060,0.000,0.000,0.000
1641195370326273792,2022-01-03-07:36:10,10.1.1.4,183,-0.070,-0.070,-0.070,0.000,0.000,0.000
1641195370524854784,2022-01-03-07:36:10,10.1.1.4,181,-0.080,-0.080,-0.080,0.000,0.000,0.000
1641195370725231872,2022-01-03-07:36:10,10.1.1.4,180,-0.090,-0.090,-0.090,0.000,0.000,0.000
1641195370924434944,2022-01-03-07:36:10,10.1.1.4,178,-0.100,-0.100,-0.100,0.000,0.000,0.000
1641195371123387136,2022-01-03-07:36:11,10.1.1.4,176,-0.110,-0.110,-0.110,0.000,0.000,0.000
1641195371323342080,2022-01-03-07:36:11,10.1.1.4,175,-0.120,-0.120,-0.120,0.000,0.000,0.000
1641195371524643072,2022-01-03-07:36:11,10.1.1.4,176,-0.130,-0.130,-0.130,0.000,0.000,0.000
1641195371725426944,2022-01-03-07:36:11,10.1.1.4,176,-0.140,-0.140,-0.140,0.000,0.000,0.000
1641195371922534912,2022-01-03-07:36:11,10.1.1.4,172,-0.150,-0.150,-0.150,0.000,0.000,0.000
1641195372122981120,2022-01-03-07:36:12,10.1.1.4,170,-0.160,-0.160,-0.160,0.000,0.000,0.000
1641195372322921984,2022-01-03-07:36:12,10.1.1.4,169,-0.170,-0.170,-0.170,0.000,0.000,0.000
1641195372521652992,2022-01-03-07:36:12,10.1.1.4,167,-0.180,-0.180,-0.180,0.000,0.000,0.000
1641195372743454976,2022-01-03-07:36:12,10.1.1.4,187,-0.190,-0.190,-0.190,0.000,0.000,0.000
1641195372943352832,2022-01-03-07:36:12,10.1.1.4,187,-0.200,-0.200,-0.200,0.000,0.000,0.000
1641195373142772992,2022-01-03-07:36:13,10.1.1.4,186,-0.210,-0.210,-0.210,0.000,0.000,0.000
1641195373341093120,2022-01-03-07:36:13,10.1.1.4,183,-0.220,-0.220,-0.220,0.000,0.000,0.000
1641195373540860928,2022-01-03-07:36:13,10.1.1.4,181,-0.230,-0.230,-0.230,0.000,0.000,0.000
1641195373739609088,2022-01-03-07:36:13,10.1.1.4,178,-0.240,-0.240,-0.240,0.000,0.000,0.000
1641195373939915008,2022-01-03-07:36:13,10.1.1.4,177,-0.250,-0.250,-0.250,0.000,0.000,0.000
1641195374139972864,2022-01-03-07:36:14,10.1.1.4,176,-0.260,-0.260,-0.260,0.000,0.000,0.000
1641195374338868992,2022-01-03-07:36:14,10.1.1.4,174,-0.270,-0.270,-0.270,0.000,0.000,0.000
1641195374539116032,2022-01-03-07:36:14,10.1.1.4,173,-0.280,-0.280,-0.280,0.000,0.000,0.000
1641195374737612032,2022-01-03-07:36:14,10.1.1.4,170,-0.290,-0.290,-0.290,0.000,0.000,0.000
1641195374938491136,2022-01-03-07:36:14,10.1.1.4,169,-0.300,-0.300,-0.300,0.000,0.000,0.000
1641195375138329856,2022-01-03-07:36:15,10.1.1.4,167,-0.310,-0.310,-0.310,0.000,0.000,0.000
1641195375337536000,2022-01-03-07:36:15,10.1.1.4,164,-0.320,-0.320,-0.320,0.000,0.000,0.000
1641195375540865792,2022-01-03-07:36:15,10.1.1.4,167,-0.330,-0.330,-0.330,0.000,0.000,0.000
1641195375756823040,2022-01-03-07:36:15,10.1.1.4,182,-0.340,-0.340,-0.340,0.000,0.000,0.000
1641195375957915136,2022-01-03-07:36:15,10.1.1.4,182,-0.350,-0.350,-0.350,0.000,0.000,0.000
1641195376160726016,2022-01-03-07:36:16,10.1.1.4,182,-0.360,-0.360,-0.360,0.000,0.000,0.000
1641195376359289856,2022-01-03-07:36:16,10.1.1.4,179,-0.370,-0.370,-0.370,0.000,0.000,0.000
1641195376561315072,2022-01-03-07:36:16,10.1.1.4,181,-0.380,-0.380,-0.380,0.000,0.000,0.000
1641195376756061184,2022-01-03-07:36:16,10.1.1.4,174,-0.390,-0.390,-0.390,0.000,0.000,0.000
1641195376956044800,2022-01-03-07:36:16,10.1.1.4,173,-0.400,-0.400,-0.400,0.000,0.000,0.000
1641195377157769984,2022-01-03-07:36:17,10.1.1.4,174,-0.410,-0.410,-0.410,0.000,0.000,0.000
1641195377355335936,2022-01-03-07:36:17,10.1.1.4,167,-0.420,-0.420,-0.420,0.000,0.000,0.000
1641195377553356800,2022-01-03-07:36:17,10.1.1.4,165,-0.430,-0.430,-0.430,0.000,0.000,0.000
1641195377759036928,2022-01-03-07:36:17,10.1.1.4,169,-0.440,-0.440,-0.440,0.000,0.000,0.000
1641195377953573888,2022-01-03-07:36:17,10.1.1.4,163,-0.450,-0.450,-0.450,0.000,0.000,0.000
1641195378156390912,2022-01-03-07:36:18,10.1.1.4,163,-0.460,-0.460,-0.460,0.000,0.000,0.000
1641195378357643008,2022-01-03-07:36:18,10.1.1.4,164,-0.470,-0.470,-0.470,0.000,0.000,0.000
1641195378582853120,2022-01-03-07:36:18,10.1.1.4,188,-0.480,-0.480,-0.480,0.000,0.000,0.000
1641195378779048960,2022-01-03-07:36:18,10.1.1.4,182,-0.490,-0.490,-0.490,0.000,0.000,0.000
1641195378977564928,2022-01-03-07:36:18,10.1.1.4,180,-0.480,-0.480,-0.480,0.000,0.000,0.000
1641195379181856000,2022-01-03-07:36:19,10.1.1.4,181,-0.470,-0.470,-0.470,0.000,0.000,0.000
1641195379379561984,2022-01-03-07:36:19,10.1.1.4,177,-0.460,-0.460,-0.460,0.000,0.000,0.000
1641195379583440896,2022-01-03-07:36:19,10.1.1.4,178,-0.450,-0.450,-0.450,0.000,0.000,0.000
1641195379782246144,2022-01-03-07:36:19,10.1.1.4,174,-0.440,-0.440,-0.440,0.000,0.000,0.000
1641195379981723136,2022-01-03-07:36:19,10.1.1.4,173,-0.430,-0.430,-0.430,0.000,0.000,0.000
1641195380185671936,2022-01-03-07:36:20,10.1.1.4,175,-0.420,-0.420,-0.420,0.000,0.000,0.000
1641195380385658112,2022-01-03-07:36:20,10.1.1.4,174,-0.410,-0.410,-0.410,0.000,0.000,0.000
1641195380585640960,2022-01-03-07:36:20,10.1.1.4,172,-0.400,-0.400,-0.400,0.000,0.000,0.000
1641195380805170176,2022-01-03-07:36:20,10.1.1.4,189,-0.390,-0.390,-0.390,0.000,0.000,0.000
1641195381006557952,2022-01-03-07:36:21,10.1.1.4,188,-0.380,-0.380,-0.380,0.000,0.000,0.000
1641195381207107072,2022-01-03-07:36:21,10.1.1.4,186,-0.370,-0.370,-0.370,0.000,0.000,0.000
1641195381414160128,2022-01-03-07:36:21,10.1.1.4,187,-0.360,-0.360,-0.360,0.000,0.000,0.000
1641195381607793152,2022-01-03-07:36:21,10.1.1.4,184,-0.350,-0.350,-0.350,0.000,0.000,0.000
1641195381808653056,2022-01-03-07:36:21,10.1.1.4,179,-0.340,-0.340,-0.340,0.000,0.000,0.000
1641195382010232832,2022-01-03-07:36:22,10.1.1.4,179,-0.330,-0.330,-0.330,0.000,0.000,0.000
1641195382230156032,2022-01-03-07:36:22,10.1.1.4,192,-0.320,-0.320,-0.320,0.000,0.000,0.000
1641195382435620096,2022-01-03-07:36:22,10.1.1.4,194,-0.310,-0.310,-0.310,0.000,0.000,0.000
1641195382629585152,2022-01-03-07:36:22,10.1.1.4,186,-0.300,-0.300,-0.300,0.000,0.000,0.000
1641195382830851072,2022-01-03-07:36:22,10.1.1.4,186,-0.290,-0.290,-0.290,0.000,0.000,0.000
1641195383033804800,2022-01-03-07:36:23,10.1.1.4,186,-0.280,-0.280,-0.280,0.000,0.000,0.000
1641195383230045952,2022-01-03-07:36:23,10.1.1.4,179,-0.270,-0.270,-0.270,0.000,0.000,0.000
1641195383432972800,2022-01-03-07:36:23,10.1.1.4,180,-0.260,-0.260,-0.260,0.000,0.000,0.000
1641195383632185088,2022-01-03-07:36:23,10.1.1.4,177,-0.250,-0.250,-0.250,0.000,0.000,0.000
1641195383851508992,2022-01-03-07:36:23,10.1.1.4,195,-0.240,-0.240,-0.240,0.000,0.000,0.000
1641195384052745216,2022-01-03-07:36:24,10.1.1.4,195,-0.230,-0.230,-0.230,0.000,0.000,0.000
1641195384252713984,2022-01-03-07:36:24,10.1.1.4,193,-0.220,-0.220,-0.220,0.000,0.000,0.000
1641195384454249984,2022-01-03-07:36:24,10.1.1.4,193,-0.210,-0.210,-0.210,0.000,0.000,0.000
1641195384656310016,2022-01-03-07:36:24,10.1.1.4,195,-0.200,-0.200,-0.200,0.000,0.000,0.000
1641195384853321984,2022-01-03-07:36:24,10.1.1.4,186,-0.190,-0.190,-0.190,0.000,0.000,0.000
1641195385056489984,2022-01-03-07:36:25,10.1.1.4,188,-0.180,-0.180,-0.180,0.000,0.000,0.000
1641195385255557888,2022-01-03-07:36:25,10.1.1.4,184,-0.170,-0.170,-0.170,0.000,0.000,0.000
1641195385475465984,2022-01-03-07:36:25,10.1.1.4,197,-0.160,-0.160,-0.160,0.000,0.000,0.000
1641195385675663104,2022-01-03-07:36:25,10.1.1.4,197,-0.150,-0.150,-0.150,0.000,0.000,0.000
1641195385873532160,2022-01-03-07:36:25,10.1.1.4,190,-0.140,-0.140,-0.140,0.000,0.000,0.000
1641195386074475008,2022-01-03-07:36:26,10.1.1.4,189,-0.130,-0.130,-0.130,0.000,0.000,0.000
1641195386278390784,2022-01-03-07:36:26,10.1.1.4,192,-0.120,-0.120,-0.120,0.000,0.000,0.000
1641195386474545920,2022-01-03-07:36:26,10.1.1.4,187,-0.110,-0.110,-0.110,0.000,0.000,0.000
1641195386674318080,2022-01-03-07:36:26,10.1.1.4,185,-0.100,-0.100,-0.100,0.000,0.000,0.000
1641195386874500096,2022-01-03-07:36:26,10.1.1.4,185,-0.090,-0.090,-0.090,0.000,0.000,0.000
1641195387075630848,2022-01-03-07:36:27,10.1.1.4,184,-0.080,-0.080,-0.080,0.000,0.000,0.000
1641195387277792000,2022-01-03-07:36:27,10.1.1.4,186,-0.070,-0.070,-0.070,0.000,0.000,0.000
1641195387474384128,2022-01-03-07:36:27,10.1.1.4,181,-0.060,-0.060,-0.060,0.000,0.000,0.000
1641195387696322048,2022-01-03-07:36:27,10.1.1.4,198,-0.050,-0.050,-0.050,0.000,0.000,0.000
1641195387894412032,2022-01-03-07:36:27,10.1.1.4,195,-0.040,-0.040,-0.040,0.000,0.000,0.000
1641195388094324224,2022-01-03-07:36:28,10.1.1.4,193,-0.030,-0.030,-0.030,0.000,0.000,0.000
1641195388296295936,2022-01-03-07:36:28,10.1.1.4,194,-0.020,-0.020,-0.020,0.000,0.000,0.000
1641195388494441984,2022-01-03-07:36:28,10.1.1.4,191,-0.010,-0.010,-0.010,0.000,0.000,0.000
1641195388695614208,2022-01-03-07:36:28,10.1.1.4,191,0.000,0.000,0.000,0.000,0.000,0.000
1641195388895090176,2022-01-03-07:36:28,10.1.1.4,190,-0.010,-0.010,-0.010,0.000,0.000,0.000
1641195389095997952,2022-01-03-07:36:29,10.1.1.4,190,-0.020,-0.020,-0.020,0.000,0.000,0.000
1641195389296314880,2022-01-03-07:36:29,10.1.1.4,188,-0.030,-0.030,-0.030,0.000,0.000,0.000
1641195389495374080,2022-01-03-07:36:29,10.1.1.4,186,-0.040,-0.040,-0.040,0.000,0.000,0.000
1641195389695373056,2022-01-03-07:36:29,10.1.1.4,185,-0.050,-0.050,-0.050,0.000,0.000,0.000
1641195389909164800,2022-01-03-07:36:29,10.1.1.4,196,-0.060,-0.060,-0.060,0.000,0.000,0.000
1641195390116247040,2022-01-03-07:36:30,10.1.1.4,194,-0.070,-0.070,-0.070,0.000,0.000,0.000
1641195390314307840,2022-01-03-07:36:30,10.1.1.4,191,-0.080,-0.080,-0.080,0.000,0.000,0.000
1641195390513998080,2022-01-03-07:36:30,10.1.1.4,190,-0.090,-0.090,-0.090,0.000,0.000,0.000
1641195390717044992,2022-01-03-07:36:30,10.1.1.4,193,-0.100,-0.100,-0.100,0.000,0.000,0.000
1641195390914774784,2022-01-03-07:36:30,10.1.1.4,190,-0.110,-0.110,-0.110,0.000,0.000,0.000
1641195391115316992,2022-01-03-07:36:31,10.1.1.4,189,-0.120,-0.120,-0.120,0.000,0.000,0.000
1641195391315074048,2022-01-03-07:36:31,10.1.1.4,188,-0.130,-0.130,-0.130,0.000,0.000,0.000
1641195391513345024,2022-01-03-07:36:31,10.1.1.4,186,-0.140,-0.140,-0.140,0.000,0.000,0.000
1641195391716471808,2022-01-03-07:36:31,10.1.1.4,187,-0.150,-0.150,-0.150,0.000,0.000,0.000
1641195391913761024,2022-01-03-07:36:31,10.1.1.4,183,-0.160,-0.160,-0.160,0.000,0.000,0.000
1641195392113071872,2022-01-03-07:36:32,10.1.1.4,181,-0.170,-0.170,-0.170,0.000,0.000,0.000
1641195392314328064,2022-01-03-07:36:32,10.1.1.4,181,-0.180,-0.180,-0.180,0.000,0.000,0.000
1641195392513905152,2022-01-03-07:36:32,10.1.1.4,179,-0.190,-0.190,-0.190,0.000,0.000,0.000
1641195392734277888,2022-01-03-07:36:32,10.1.1.4,198,-0.200,-0.200,-0.200,0.000,0.000,0.000
1641195392933339136,2022-01-03-07:36:32,10.1.1.4,196,-0.210,-0.210,-0.210,0.000,0.000,0.000
1641195393134049792,2022-01-03-07:36:33,10.1.1.4,196,-0.220,-0.220,-0.220,0.000,0.000,0.000
1641195393332338944,2022-01-03-07:36:33,10.1.1.4,194,-0.230,-0.230,-0.230,0.000,0.000,0.000
1641195393535398912,2022-01-03-07:36:33,10.1.1.4,197,-0.240,-0.240,-0.240,0.000,0.000,0.000
1641195393731817984,2022-01-03-07:36:33,10.1.1.4,192,-0.250,-0.250,-0.250,0.000,0.000,0.000
1641195393933104128,2022-01-03-07:36:33,10.1.1.4,192,-0.260,-0.260,-0.260,0.000,0.000,0.000
1641195394139013120,2022-01-03-07:36:34,10.1.1.4,193,-0.270,-0.270,-0.270,0.000,0.000,0.000
1641195394332983040,2022-01-03-07:36:34,10.1.1.4,189,-0.280,-0.280,-0.280,0.000,0.000,0.000
1641195394531110144,2022-01-03-07:36:34,10.1.1.4,186,-0.290,-0.290,-0.290,0.000,0.000,0.000
1641195394733731072,2022-01-03-07:36:34,10.1.1.4,188,-0.300,-0.300,-0.300,0.000,0.000,0.000
1641195394930972160,2022-01-03-07:36:34,10.1.1.4,178,-0.310,-0.310,-0.310,0.000,0.000,0.000
1641195395134013952,2022-01-03-07:36:35,10.1.1.4,180,-0.320,-0.320,-0.320,0.000,0.000,0.000
1641195395352602112,2022-01-03-07:36:35,10.1.1.4,193,-0.330,-0.330,-0.330,0.000,0.000,0.000
1641195395554220800,2022-01-03-07:36:35,10.1.1.4,194,-0.340,-0.340,-0.340,0.000,0.000,0.000
1641195395752783104,2022-01-03-07:36:35,10.1.1.4,191,-0.350,-0.350,-0.350,0.000,0.000,0.000
1641195395950030080,2022-01-03-07:36:35,10.1.1.4,186,-0.360,-0.360,-0.360,0.000,0.000,0.000
1641195396151086080,2022-01-03-07:36:36,10.1.1.4,186,-0.370,-0.370,-0.370,0.000,0.000,0.000
1641195396350189056,2022-01-03-07:36:36,10.1.1.4,183,-0.380,-0.380,-0.380,0.000,0.000,0.000
1641195396548342016,2022-01-03-07:36:36,10.1.1.4,179,-0.390,-0.390,-0.390,0.000,0.000,0.000
1641195396749395968,2022-01-03-07:36:36,10.1.1.4,178,-0.400,-0.400,-0.400,0.000,0.000,0.000
1641195396948065024,2022-01-03-07:36:36,10.1.1.4,176,-0.410,-0.410,-0.410,0.000,0.000,0.000
1641195397148484864,2022-01-03-07:36:37,10.1.1.4,176,-0.420,-0.420,-0.420,0.000,0.000,0.000
1641195397348436992,2022-01-03-07:36:37,10.1.1.4,175,-0.430,-0.430,-0.430,0.000,0.000,0.000
1641195397548089088,2022-01-03-07:36:37,10.1.1.4,174,-0.440,-0.440,-0.440,0.000,0.000,0.000
1641195397768510208,2022-01-03-07:36:37,10.1.1.4,193,-0.450,-0.450,-0.450,0.000,0.000,0.000
1641195397967129856,2022-01-03-07:36:37,10.1.1.4,191,-0.460,-0.460,-0.460,0.000,0.000,0.000
1641195398170172928,2022-01-03-07:36:38,10.1.1.4,193,-0.470,-0.470,-0.470,0.000,0.000,0.000
1641195398366574080,2022-01-03-07:36:38,10.1.1.4,189,-0.480,-0.480,-0.480,0.000,0.000,0.000
1641195398571474944,2022-01-03-07:36:38,10.1.1.4,193,-0.490,-0.490,-0.490,0.000,0.000,0.000
1641195398768367104,2022-01-03-07:36:38,10.1.1.4,189,-0.480,-0.480,-0.480,0.000,0.000,0.000
1641195398965419008,2022-01-03-07:36:38,10.1.1.4,186,-0.470,-0.470,-0.470,0.000,0.000,0.000
1641195399168731904,2022-01-03-07:36:39,10.1.1.4,188,-0.460,-0.460,-0.460,0.000,0.000,0.000
1641195399377052160,2022-01-03-07:36:39,10.1.1.4,196,-0.450,-0.450,-0.450,0.000,0.000,0.000
1641195399566194944,2022-01-03-07:36:39,10.1.1.4,184,-0.440,-0.440,-0.440,0.000,0.000,0.000
1641195399766639104,2022-01-03-07:36:39,10.1.1.4,183,-0.430,-0.430,-0.430,0.000,0.000,0.000
1641195399965704960,2022-01-03-07:36:39,10.1.1.4,180,-0.420,-0.420,-0.420,0.000,0.000,0.000
1641195400164604928,2022-01-03-07:36:40,10.1.1.4,179,-0.410,-0.410,-0.410,0.000,0.000,0.000
1641195400365287936,2022-01-03-07:36:40,10.1.1.4,178,-0.400,-0.400,-0.400,0.000,0.000,0.000
1641195400564688896,2022-01-03-07:36:40,10.1.1.4,177,-0.390,-0.390,-0.390,0.000,0.000,0.000
1641195400762938112,2022-01-03-07:36:40,10.1.1.4,174,-0.380,-0.380,-0.380,0.000,0.000,0.000
1641195400966008832,2022-01-03-07:36:40,10.1.1.4,176,-0.370,-0.370,-0.370,0.000,0.000,0.000
1641195401162651136,2022-01-03-07:36:41,10.1.1.4,169,-0.360,-0.360,-0.360,0.000,0.000,0.000
1641195401364707840,2022-01-03-07:36:41,10.1.1.4,170,-0.350,-0.350,-0.350,0.000,0.000,0.000
1641195401582947072,2022-01-03-07:36:41,10.1.1.4,187,-0.340,-0.340,-0.340,0.000,0.000,0.000
1641195401783913984,2022-01-03-07:36:41,10.1.1.4,187,-0.330,-0.330,-0.330,0.000,0.000,0.000
1641195401984532992,2022-01-03-07:36:41,10.1.1.4,187,-0.320,-0.320,-0.320,0.000,0.000,0.000
1641195402181643008,2022-01-03-07:36:42,10.1.1.4,184,-0.310,-0.310,-0.310,0.000,0.000,0.000
1641195402391744000,2022-01-03-07:36:42,10.1.1.4,188,-0.300,-0.300,-0.300,0.000,0.000,0.000
1641195402582705920,2022-01-03-07:36:42,10.1.1.4,178,-0.290,-0.290,-0.290,0.000,0.000,0.000
1641195402781172992,2022-01-03-07:36:42,10.1.1.4,176,-0.280,-0.280,-0.280,0.000,0.000,0.000
1641195402984157952,2022-01-03-07:36:42,10.1.1.4,178,-0.270,-0.270,-0.270,0.000,0.000,0.000
1641195403180475904,2022-01-03-07:36:43,10.1.1.4,174,-0.260,-0.260,-0.260,0.000,0.000,0.000
1641195403387581952,2022-01-03-07:36:43,10.1.1.4,180,-0.250,-0.250,-0.250,0.000,0.000,0.000
1641195403594386176,2022-01-03-07:36:43,10.1.1.4,186,-0.240,-0.240,-0.240,0.000,0.000,0.000
1641195403779506944,2022-01-03-07:36:43,10.1.1.4,167,-0.230,-0.230,-0.230,0.000,0.000,0.000
1641195403981931008,2022-01-03-07:36:43,10.1.1.4,168,-0.220,-0.220,-0.220,0.000,0.000,0.000
1641195404180174080,2022-01-03-07:36:44,10.1.1.4,165,-0.210,-0.210,-0.210,0.000,0.000,0.000
1641195404399617024,2022-01-03-07:36:44,10.1.1.4,184,-0.200,-0.200,-0.200,0.000,0.000,0.000
1641195404599452928,2022-01-03-07:36:44,10.1.1.4,183,-0.190,-0.190,-0.190,0.000,0.000,0.000
1641195404797826048,2022-01-03-07:36:44,10.1.1.4,180,-0.180,-0.180,-0.180,0.000,0.000,0.000
1641195405002160128,2022-01-03-07:36:45,10.1.1.4,183,-0.170,-0.170,-0.170,0.000,0.000,0.000
1641195405199825152,2022-01-03-07:36:45,10.1.1.4,179,-0.160,-0.160,-0.160,0.000,0.000,0.000
1641195405397010944,2022-01-03-07:36:45,10.1.1.4,174,-0.150,-0.150,-0.150,0.000,0.000,0.000
1641195405596506112,2022-01-03-07:36:45,10.1.1.4,173,-0.140,-0.140,-0.140,0.000,0.000,0.000
1641195405796029952,2022-01-03-07:36:45,10.1.1.4,172,-0.130,-0.130,-0.130,0.000,0.000,0.000
1641195405998196992,2022-01-03-07:36:45,10.1.1.4,173,-0.120,-0.120,-0.120,0.000,0.000,0.000
1641195406199917056,2022-01-03-07:36:46,10.1.1.4,175,-0.110,-0.110,-0.110,0.000,0.000,0.000
1641195406395687168,2022-01-03-07:36:46,10.1.1.4,170,-0.100,-0.100,-0.100,0.000,0.000,0.000
1641195406595354112,2022-01-03-07:36:46,10.1.1.4,169,-0.090,-0.090,-0.090,0.000,0.000,0.000
1641195406796226048,2022-01-03-07:36:46,10.1.1.4,169,-0.080,-0.080,-0.080,0.000,0.000,0.000
1641195406995254016,2022-01-03-07:36:46,10.1.1.4,167,-0.070,-0.070,-0.070,0.000,0.000,0.000
1641195407195489024,2022-01-03-07:36:47,10.1.1.4,166,-0.060,-0.060,-0.060,0.000,0.000,0.000
1641195407394287104,2022-01-03-07:36:47,10.1.1.4,165,-0.050,-0.050,-0.050,0.000,0.000,0.000
1641195407595112960,2022-01-03-07:36:47,10.1.1.4,165,-0.040,-0.040,-0.040,0.000,0.000,0.000
1641195407794536192,2022-01-03-07:36:47,10.1.1.4,163,-0.030,-0.030,-0.030,0.000,0.000,0.000
1641195407993690112,2022-01-03-07:36:47,10.1.1.4,162,-0.020,-0.020,-0.020,0.000,0.000,0.000
1641195408193768960,2022-01-03-07:36:48,10.1.1.4,161,-0.010,-0.010,-0.010,0.000,0.000,0.000
1641195408396308992,2022-01-03-07:36:48,10.1.1.4,162,-0.000,-0.000,-0.000,0.000,0.000,0.000
1641195408611951104,2022-01-03-07:36:48,10.1.1.4,177,-0.010,-0.010,-0.010,0.000,0.000,0.000
1641195408816046080,2022-01-03-07:36:48,10.1.1.4,180,-0.020,-0.020,-0.020,0.000,0.000,0.000
1641195409011154944,2022-01-03-07:36:49,10.1.1.4,174,-0.030,-0.030,-0.030,0.000,0.000,0.000
1641195409212376064,2022-01-03-07:36:49,10.1.1.4,175,-0.040,-0.040,-0.040,0.000,0.000,0.000
1641195409415831040,2022-01-03-07:36:49,10.1.1.4,177,-0.050,-0.050,-0.050,0.000,0.000,0.000
1641195409610948096,2022-01-03-07:36:49,10.1.1.4,170,-0.060,-0.060,-0.060,0.000,0.000,0.000
1641195409810298880,2022-01-03-07:36:49,10.1.1.4,169,-0.070,-0.070,-0.070,0.000,0.000,0.000
1641195410010465024,2022-01-03-07:36:50,10.1.1.4,168,-0.080,-0.080,-0.080,0.000,0.000,0.000
1641195410211587072,2022-01-03-07:36:50,10.1.1.4,168,-0.090,-0.090,-0.090,0.000,0.000,0.000
1641195410412985088,2022-01-03-07:36:50,10.1.1.4,169,-0.100,-0.100,-0.100,0.000,0.000,0.000
1641195410614737920,2022-01-03-07:36:50,10.1.1.4,170,-0.110,-0.110,-0.110,0.000,0.000,0.000
1641195410827610112,2022-01-03-07:36:50,10.1.1.4,179,-0.120,-0.120,-0.120,0.000,0.000,0.000
1641195411014657024,2022-01-03-07:36:51,10.1.1.4,166,-0.130,-0.130,-0.130,0.000,0.000,0.000
1641195411216752128,2022-01-03-07:36:51,10.1.1.4,167,-0.140,-0.140,-0.140,0.000,0.000,0.000
1641195411422472960,2022-01-03-07:36:51,10.1.1.4,172,-0.150,-0.150,-0.150,0.000,0.000,0.000
1641195411617332992,2022-01-03-07:36:51,10.1.1.4,166,-0.160,-0.160,-0.160,0.000,0.000,0.000
1641195411820058112,2022-01-03-07:36:51,10.1.1.4,168,-0.170,-0.170,-0.170,0.000,0.000,0.000
1641195412019939840,2022-01-03-07:36:52,10.1.1.4,166,-0.180,-0.180,-0.180,0.000,0.000,0.000
1641195412241466112,2022-01-03-07:36:52,10.1.1.4,186,-0.190,-0.190,-0.190,0.000,0.000,0.000
1641195412444555008,2022-01-03-07:36:52,10.1.1.4,188,-0.200,-0.200,-0.200,0.000,0.000,0.000
1641195412641627136,2022-01-03-07:36:52,10.1.1.4,184,-0.210,-0.210,-0.210,0.000,0.000,0.000
1641195412843173120,2022-01-03-07:36:52,10.1.1.4,177,-0.220,-0.220,-0.220,0.000,0.000,0.000
1641195413046861824,2022-01-03-07:36:53,10.1.1.4,179,-0.230,-0.230,-0.230,0.000,0.000,0.000
1641195413244254976,2022-01-03-07:36:53,10.1.1.4,177,-0.240,-0.240,-0.240,0.000,0.000,0.000
1641195413443403008,2022-01-03-07:36:53,10.1.1.4,174,-0.250,-0.250,-0.250,0.000,0.000,0.000
1641195413651539968,2022-01-03-07:36:53,10.1.1.4,181,-0.260,-0.260,-0.260,0.000,0.000,0.000
1641195413845968128,2022-01-03-07:36:53,10.1.1.4,175,-0.270,-0.270,-0.270,0.000,0.000,0.000
1641195414045537024,2022-01-03-07:36:54,10.1.1.4,174,-0.280,-0.280,-0.280,0.000,0.000,0.000
1641195414248420864,2022-01-03-07:36:54,10.1.1.4,176,-0.290,-0.290,-0.290,0.000,0.000,0.000
1641195414447476992,2022-01-03-07:36:54,10.1.1.4,174,-0.300,-0.300,-0.300,0.000,0.000,0.000
1641195414646702080,2022-01-03-07:36:54,10.1.1.4,172,-0.310,-0.310,-0.310,0.000,0.000,0.000
1641195414870768128,2022-01-03-07:36:54,10.1.1.4,196,-0.320,-0.320,-0.320,0.000,0.000,0.000
1641195415071124992,2022-01-03-07:36:55,10.1.1.4,195,-0.330,-0.330,-0.330,0.000,0.000,0.000
1641195415268035840,2022-01-03-07:36:55,10.1.1.4,192,-0.340,-0.340,-0.340,0.000,0.000,0.000
1641195415470989824,2022-01-03-07:36:55,10.1.1.4,194,-0.350,-0.350,-0.350,0.000,0.000,0.000
1641195415673413888,2022-01-03-07:36:55,10.1.1.4,195,-0.360,-0.360,-0.360,0.000,0.000,0.000
1641195415869752832,2022-01-03-07:36:55,10.1.1.4,188,-0.370,-0.370,-0.370,0.000,0.000,0.000
1641195416073986048,2022-01-03-07:36:56,10.1.1.4,191,-0.380,-0.380,-0.380,0.000,0.000,0.000
1641195416271982080,2022-01-03-07:36:56,10.1.1.4,189,-0.390,-0.390,-0.390,0.000,0.000,0.000
1641195416470038784,2022-01-03-07:36:56,10.1.1.4,187,-0.400,-0.400,-0.400,0.000,0.000,0.000
1641195416674476032,2022-01-03-07:36:56,10.1.1.4,191,-0.410,-0.410,-0.410,0.000,0.000,0.000
1641195416870977024,2022-01-03-07:36:56,10.1.1.4,187,-0.420,-0.420,-0.420,0.000,0.000,0.000
1641195417071592960,2022-01-03-07:36:57,10.1.1.4,186,-0.430,-0.430,-0.430,0.000,0.000,0.000
1641195417272346880,2022-01-03-07:36:57,10.1.1.4,186,-0.440,-0.440,-0.440,0.000,0.000,0.000
1641195417473464064,2022-01-03-07:36:57,10.1.1.4,187,-0.450,-0.450,-0.450,0.000,0.000,0.000
1641195417674266112,2022-01-03-07:36:57,10.1.1.4,186,-0.460,-0.460,-0.460,0.000,0.000,0.000
1641195417871980032,2022-01-03-07:36:57,10.1.1.4,184,-0.470,-0.470,-0.470,0.000,0.000,0.000
1641195418073913088,2022-01-03-07:36:58,10.1.1.4,184,-0.480,-0.480,-0.480,0.000,0.000,0.000
1641195418276572928,2022-01-03-07:36:58,10.1.1.4,186,-0.490,-0.490,-0.490,0.000,0.000,0.000
1641195418473748992,2022-01-03-07:36:58,10.1.1.4,182,-0.480,-0.480,-0.480,0.000,0.000,0.000
1641195418875340032,2022-01-03-07:36:58,10.1.1.4,181,-0.460,-0.460,-0.460,0.000,0.000,0.000
1641195419093154816,2022-01-03-07:36:59,10.1.1.4,195,-0.450,-0.450,-0.450,0.000,0.000,0.000
1641195419295380992,2022-01-03-07:36:59,10.1.1.4,196,-0.440,-0.440,-0.440,0.000,0.000,0.000
1641195419493117952,2022-01-03-07:36:59,10.1.1.4,193,-0.430,-0.430,-0.430,0.000,0.000,0.000
1641195419693988096,2022-01-03-07:36:59,10.1.1.4,193,-0.420,-0.420,-0.420,0.000,0.000,0.000
1641195419893591040,2022-01-03-07:36:59,10.1.1.4,192,-0.410,-0.410,-0.410,0.000,0.000,0.000
1641195420092817920,2022-01-03-07:37:00,10.1.1.4,190,-0.400,-0.400,-0.400,0.000,0.000,0.000
1641195420293700864,2022-01-03-07:37:00,10.1.1.4,191,-0.390,-0.390,-0.390,0.000,0.000,0.000
1641195420494429184,2022-01-03-07:37:00,10.1.1.4,190,-0.380,-0.380,-0.380,0.000,0.000,0.000
1641195420693737984,2022-01-03-07:37:00,10.1.1.4,188,-0.370,-0.370,-0.370,0.000,0.000,0.000
1641195420895440128,2022-01-03-07:37:00,10.1.1.4,189,-0.360,-0.360,-0.360,0.000,0.000,0.000
1641195421093352192,2022-01-03-07:37:01,10.1.1.4,187,-0.350,-0.350,-0.350,0.000,0.000,0.000
1641195421294342912,2022-01-03-07:37:01,10.1.1.4,186,-0.340,-0.340,-0.340,0.000,0.000,0.000
1641195421495096064,2022-01-03-07:37:01,10.1.1.4,186,-0.330,-0.330,-0.330,0.000,0.000,0.000
1641195421693395968,2022-01-03-07:37:01,10.1.1.4,184,-0.320,-0.320,-0.320,0.000,0.000,0.000
1641195421897741056,2022-01-03-07:37:01,10.1.1.4,186,-0.310,-0.310,-0.310,0.000,0.000,0.000
1641195422093477120,2022-01-03-07:37:02,10.1.1.4,182,-0.300,-0.300,-0.300,0.000,0.000,0.000
1641195422294142976,2022-01-03-07:37:02,10.1.1.4,181,-0.290,-0.290,-0.290,0.000,0.000,0.000
1641195422496908800,2022-01-03-07:37:02,10.1.1.4,182,-0.280,-0.280,-0.280,0.000,0.000,0.000
1641195422693995008,2022-01-03-07:37:02,10.1.1.4,179,-0.270,-0.270,-0.270,0.000,0.000,0.000
1641195422918112000,2022-01-03-07:37:02,10.1.1.4,200,-0.260,-0.260,-0.260,0.000,0.000,0.000
1641195423113893888,2022-01-03-07:37:03,10.1.1.4,194,-0.250,-0.250,-0.250,0.000,0.000,0.000
1641195423316963840,2022-01-03-07:37:03,10.1.1.4,196,-0.240,-0.240,-0.240,0.000,0.000,0.000
1641195423516727808,2022-01-03-07:37:03,10.1.1.4,195,-0.230,-0.230,-0.230,0.000,0.000,0.000
1641195423713121024,2022-01-03-07:37:03,10.1.1.4,191,-0.220,-0.220,-0.220,0.000,0.000,0.000
1641195423915064064,2022-01-03-07:37:03,10.1.1.4,188,-0.210,-0.210,-0.210,0.000,0.000,0.000
1641195424114160896,2022-01-03-07:37:04,10.1.1.4,186,-0.200,-0.200,-0.200,0.000,0.000,0.000
1641195424313123840,2022-01-03-07:37:04,10.1.1.4,184,-0.190,-0.190,-0.190,0.000,0.000,0.000
1641195424514183168,2022-01-03-07:37:04,10.1.1.4,185,-0.180,-0.180,-0.180,0.000,0.000,0.000
1641195424711823104,2022-01-03-07:37:04,10.1.1.4,182,-0.170,-0.170,-0.170,0.000,0.000,0.000
1641195424915976960,2022-01-03-07:37:04,10.1.1.4,185,-0.160,-0.160,-0.160,0.000,0.000,0.000
1641195425114098176,2022-01-03-07:37:05,10.1.1.4,183,-0.150,-0.150,-0.150,0.000,0.000,0.000
1641195425334337024,2022-01-03-07:37:05,10.1.1.4,196,-0.140,-0.140,-0.140,0.000,0.000,0.000
1641195425536866048,2022-01-03-07:37:05,10.1.1.4,198,-0.130,-0.130,-0.130,0.000,0.000,0.000
1641195425732190976,2022-01-03-07:37:05,10.1.1.4,193,-0.120,-0.120,-0.120,0.000,0.000,0.000
1641195425931714048,2022-01-03-07:37:05,10.1.1.4,192,-0.110,-0.110,-0.110,0.000,0.000,0.000
1641195426132814848,2022-01-03-07:37:06,10.1.1.4,191,-0.100,-0.100,-0.100,0.000,0.000,0.000
1641195426331357952,2022-01-03-07:37:06,10.1.1.4,189,-0.090,-0.090,-0.090,0.000,0.000,0.000
1641195426533224960,2022-01-03-07:37:06,10.1.1.4,190,-0.080,-0.080,-0.080,0.000,0.000,0.000
1641195426733664000,2022-01-03-07:37:06,10.1.1.4,189,-0.070,-0.070,-0.070,0.000,0.000,0.000
1641195426930596096,2022-01-03-07:37:06,10.1.1.4,185,-0.060,-0.060,-0.060,0.000,0.000,0.000
1641195427134466048,2022-01-03-07:37:07,10.1.1.4,189,-0.050,-0.050,-0.050,0.000,0.000,0.000
1641195427334109952,2022-01-03-07:37:07,10.1.1.4,187,-0.040,-0.040,-0.040,0.000,0.000,0.000
1641195427532721920,2022-01-03-07:37:07,10.1.1.4,185,-0.030,-0.030,-0.030,0.000,0.000,0.000
1641195427731561984,2022-01-03-07:37:07,10.1.1.4,183,-0.020,-0.020,-0.020,0.000,0.000,0.000
1641195427930098944,2022-01-03-07:37:07,10.1.1.4,179,-0.010,-0.010,-0.010,0.000,0.000,0.000
1641195428132110080,2022-01-03-07:37:08,10.1.1.4,179,0.000,0.000,0.000,0.000,0.000,0.000
1641195428340348928,2022-01-03-07:37:08,10.1.1.4,180,-0.010,-0.010,-0.010,0.000,0.000,0.000
1641195428528480000,2022-01-03-07:37:08,10.1.1.4,174,-0.020,-0.020,-0.020,0.000,0.000,0.000
1641195428750287104,2022-01-03-07:37:08,10.1.1.4,194,-0.030,-0.030,-0.030,0.000,0.000,0.000
1641195428951375104,2022-01-03-07:37:08,10.1.1.4,194,-0.040,-0.040,-0.040,0.000,0.000,0.000
1641195429149656064,2022-01-03-07:37:09,10.1.1.4,193,-0.050,-0.050,-0.050,0.000,0.000,0.000
1641195429351898880,2022-01-03-07:37:09,10.1.1.4,193,-0.060,-0.060,-0.060,0.000,0.000,0.000
1641195429549635840,2022-01-03-07:37:09,10.1.1.4,191,-0.070,-0.070,-0.070,0.000,0.000,0.000
1641195429748507136,2022-01-03-07:37:09,10.1.1.4,188,-0.080,-0.080,-0.080,0.000,0.000,0.000
1641195429951761920,2022-01-03-07:37:09,10.1.1.4,191,-0.090,-0.090,-0.090,0.000,0.000,0.000
1641195430152699904,2022-01-03-07:37:10,10.1.1.4,191,-0.100,-0.100,-0.100,0.000,0.000,0.000
1641195430346544128,2022-01-03-07:37:10,10.1.1.4,184,-0.110,-0.110,-0.110,0.000,0.000,0.000
1641195430546806016,2022-01-03-07:37:10,10.1.1.4,183,-0.120,-0.120,-0.120,0.000,0.000,0.000
1641195430748141056,2022-01-03-07:37:10,10.1.1.4,184,-0.130,-0.130,-0.130,0.000,0.000,0.000
1641195430946008064,2022-01-03-07:37:10,10.1.1.4,181,-0.140,-0.140,-0.140,0.000,0.000,0.000
1641195431146576896,2022-01-03-07:37:11,10.1.1.4,181,-0.150,-0.150,-0.150,0.000,0.000,0.000
1641195431545440000,2022-01-03-07:37:11,10.1.1.4,178,-0.170,-0.170,-0.170,0.000,0.000,0.000
1641195431746806016,2022-01-03-07:37:11,10.1.1.4,177,-0.180,-0.180,-0.180,0.000,0.000,0.000
1641195431956915968,2022-01-03-07:37:11,10.1.1.4,187,-0.190,-0.190,-0.190,0.000,0.000,0.000
1641195432144421120,2022-01-03-07:37:12,10.1.1.4,173,-0.200,-0.200,-0.200,0.000,0.000,0.000
1641195432345197056,2022-01-03-07:37:12,10.1.1.4,174,-0.210,-0.210,-0.210,0.000,0.000,0.000
1641195432544413184,2022-01-03-07:37:12,10.1.1.4,173,-0.220,-0.220,-0.220,0.000,0.000,0.000
1641195432745424128,2022-01-03-07:37:12,10.1.1.4,173,-0.230,-0.230,-0.230,0.000,0.000,0.000
1641195432949542912,2022-01-03-07:37:12,10.1.1.4,176,-0.240,-0.240,-0.240,0.000,0.000,0.000
1641195433167218944,2022-01-03-07:37:13,10.1.1.4,192,-0.250,-0.250,-0.250,0.000,0.000,0.000
1641195433365358080,2022-01-03-07:37:13,10.1.1.4,189,-0.260,-0.260,-0.260,0.000,0.000,0.000
1641195433565572096,2022-01-03-07:37:13,10.1.1.4,189,-0.270,-0.270,-0.270,0.000,0.000,0.000
1641195433763325952,2022-01-03-07:37:13,10.1.1.4,185,-0.280,-0.280,-0.280,0.000,0.000,0.000
1641195433963243008,2022-01-03-07:37:13,10.1.1.4,184,-0.290,-0.290,-0.290,0.000,0.000,0.000
1641195434162854912,2022-01-03-07:37:14,10.1.1.4,183,-0.300,-0.300,-0.300,0.000,0.000,0.000
1641195434363957760,2022-01-03-07:37:14,10.1.1.4,184,-0.310,-0.310,-0.310,0.000,0.000,0.000
1641195434563535872,2022-01-03-07:37:14,10.1.1.4,183,-0.320,-0.320,-0.320,0.000,0.000,0.000
1641195434760961024,2022-01-03-07:37:14,10.1.1.4,180,-0.330,-0.330,-0.330,0.000,0.000,0.000
1641195434965393152,2022-01-03-07:37:14,10.1.1.4,184,-0.340,-0.340,-0.340,0.000,0.000,0.000
1641195435159962880,2022-01-03-07:37:15,10.1.1.4,177,-0.350,-0.350,-0.350,0.000,0.000,0.000
1641195435363208960,2022-01-03-07:37:15,10.1.1.4,176,-0.360,-0.360,-0.360,0.000,0.000,0.000
1641195435561510912,2022-01-03-07:37:15,10.1.1.4,174,-0.370,-0.370,-0.370,0.000,0.000,0.000
1641195435759595008,2022-01-03-07:37:15,10.1.1.4,171,-0.380,-0.380,-0.380,0.000,0.000,0.000
1641195435961748992,2022-01-03-07:37:15,10.1.1.4,172,-0.390,-0.390,-0.390,0.000,0.000,0.000
1641195436163297792,2022-01-03-07:37:16,10.1.1.4,173,-0.400,-0.400,-0.400,0.000,0.000,0.000
1641195436359024128,2022-01-03-07:37:16,10.1.1.4,168,-0.410,-0.410,-0.410,0.000,0.000,0.000
1641195436561733888,2022-01-03-07:37:16,10.1.1.4,170,-0.420,-0.420,-0.420,0.000,0.000,0.000
1641195436758027008,2022-01-03-07:37:16,10.1.1.4,166,-0.430,-0.430,-0.430,0.000,0.000,0.000
1641195436958983936,2022-01-03-07:37:16,10.1.1.4,166,-0.440,-0.440,-0.440,0.000,0.000,0.000
1641195437160907008,2022-01-03-07:37:17,10.1.1.4,167,-0.450,-0.450,-0.450,0.000,0.000,0.000
1641195437380713984,2022-01-03-07:37:17,10.1.1.4,183,-0.460,-0.460,-0.460,0.000,0.000,0.000
1641195437579525888,2022-01-03-07:37:17,10.1.1.4,179,-0.470,-0.470,-0.470,0.000,0.000,0.000
1641195437776968960,2022-01-03-07:37:17,10.1.1.4,176,-0.480,-0.480,-0.480,0.000,0.000,0.000
1641195437976591104,2022-01-03-07:37:17,10.1.1.4,172,-0.490,-0.490,-0.490,0.000,0.000,0.000
1641195438180564992,2022-01-03-07:37:18,10.1.1.4,174,-0.480,-0.480,-0.480,0.000,0.000,0.000
1641195438395139072,2022-01-03-07:37:18,10.1.1.4,186,-0.470,-0.470,-0.470,0.000,0.000,0.000
1641195438576992000,2022-01-03-07:37:18,10.1.1.4,167,-0.460,-0.460,-0.460,0.000,0.000,0.000
1641195438779793152,2022-01-03-07:37:18,10.1.1.4,169,-0.450,-0.450,-0.450,0.000,0.000,0.000
1641195438974440960,2022-01-03-07:37:18,10.1.1.4,162,-0.440,-0.440,-0.440,0.000,0.000,0.000
1641195439174205952,2022-01-03-07:37:19,10.1.1.4,161,-0.430,-0.430,-0.430,0.000,0.000,0.000
1641195439396698880,2022-01-03-07:37:19,10.1.1.4,179,-0.420,-0.420,-0.420,0.000,0.000,0.000
1641195439593972992,2022-01-03-07:37:19,10.1.1.4,175,-0.410,-0.410,-0.410,0.000,0.000,0.000
1641195439793081088,2022-01-03-07:37:19,10.1.1.4,171,-0.400,-0.400,-0.400,0.000,0.000,0.000
1641195439994245120,2022-01-03-07:37:19,10.1.1.4,172,-0.390,-0.390,-0.390,0.000,0.000,0.000
1641195440192375808,2022-01-03-07:37:20,10.1.1.4,169,-0.380,-0.380,-0.380,0.000,0.000,0.000
1641195440393665024,2022-01-03-07:37:20,10.1.1.4,170,-0.370,-0.370,-0.370,0.000,0.000,0.000
1641195440592807936,2022-01-03-07:37:20,10.1.1.4,169,-0.360,-0.360,-0.360,0.000,0.000,0.000
1641195440793688064,2022-01-03-07:37:20,10.1.1.4,169,-0.350,-0.350,-0.350,0.000,0.000,0.000
1641195440992402176,2022-01-03-07:37:20,10.1.1.4,167,-0.340,-0.340,-0.340,0.000,0.000,0.000
1641195441193097216,2022-01-03-07:37:21,10.1.1.4,167,-0.330,-0.330,-0.330,0.000,0.000,0.000
1641195441392750080,2022-01-03-07:37:21,10.1.1.4,166,-0.320,-0.320,-0.320,0.000,0.000,0.000
1641195441591576064,2022-01-03-07:37:21,10.1.1.4,164,-0.310,-0.310,-0.310,0.000,0.000,0.000
1641195441795660032,2022-01-03-07:37:21,10.1.1.4,162,-0.300,-0.300,-0.300,0.000,0.000,0.000
1641195441997876992,2022-01-03-07:37:21,10.1.1.4,162,-0.290,-0.290,-0.290,0.000,0.000,0.000
1641195442212137984,2022-01-03-07:37:22,10.1.1.4,175,-0.280,-0.280,-0.280,0.000,0.000,0.000
1641195442413892096,2022-01-03-07:37:22,10.1.1.4,177,-0.270,-0.270,-0.270,0.000,0.000,0.000
1641195442612487936,2022-01-03-07:37:22,10.1.1.4,175,-0.260,-0.260,-0.260,0.000,0.000,0.000
1641195442818842880,2022-01-03-07:37:22,10.1.1.4,180,-0.250,-0.250,-0.250,0.000,0.000,0.000
1641195443030618880,2022-01-03-07:37:23,10.1.1.4,191,-0.240,-0.240,-0.240,0.000,0.000,0.000
1641195443216136960,2022-01-03-07:37:23,10.1.1.4,176,-0.230,-0.230,-0.230,0.000,0.000,0.000
1641195443415450112,2022-01-03-07:37:23,10.1.1.4,174,-0.220,-0.220,-0.220,0.000,0.000,0.000
1641195443621293056,2022-01-03-07:37:23,10.1.1.4,179,-0.210,-0.210,-0.210,0.000,0.000,0.000
1641195443817961984,2022-01-03-07:37:23,10.1.1.4,174,-0.200,-0.200,-0.200,0.000,0.000,0.000
1641195444019799040,2022-01-03-07:37:24,10.1.1.4,174,-0.190,-0.190,-0.190,0.000,0.000,0.000
1641195444221366016,2022-01-03-07:37:24,10.1.1.4,175,-0.180,-0.180,-0.180,0.000,0.000,0.000
1641195444421047040,2022-01-03-07:37:24,10.1.1.4,174,-0.170,-0.170,-0.170,0.000,0.000,0.000
1641195444640018944,2022-01-03-07:37:24,10.1.1.4,175,-0.160,-0.160,-0.160,0.000,0.000,0.000
1641195444823295232,2022-01-03-07:37:24,10.1.1.4,174,-0.150,-0.150,-0.150,0.000,0.000,0.000
1641195445023869952,2022-01-03-07:37:25,10.1.1.4,174,-0.140,-0.140,-0.140,0.000,0.000,0.000
1641195445224250112,2022-01-03-07:37:25,10.1.1.4,173,-0.130,-0.130,-0.130,0.000,0.000,0.000
1641195445425842944,2022-01-03-07:37:25,10.1.1.4,174,-0.120,-0.120,-0.120,0.000,0.000,0.000
1641195445629178880,2022-01-03-07:37:25,10.1.1.4,177,-0.110,-0.110,-0.110,0.000,0.000,0.000
1641195445827835136,2022-01-03-07:37:25,10.1.1.4,174,-0.100,-0.100,-0.100,0.000,0.000,0.000
1641195446051501056,2022-01-03-07:37:26,10.1.1.4,190,-0.090,-0.090,-0.090,0.000,0.000,0.000
1641195446249336832,2022-01-03-07:37:26,10.1.1.4,186,-0.080,-0.080,-0.080,0.000,0.000,0.000
1641195446451115008,2022-01-03-07:37:26,10.1.1.4,186,-0.070,-0.070,-0.070,0.000,0.000,0.000
1641195446651779840,2022-01-03-07:37:26,10.1.1.4,186,-0.060,-0.060,-0.060,0.000,0.000,0.000
1641195446853761024,2022-01-03-07:37:26,10.1.1.4,188,-0.050,-0.050,-0.050,0.000,0.000,0.000
1641195447050693120,2022-01-03-07:37:27,10.1.1.4,184,-0.040,-0.040,-0.040,0.000,0.000,0.000
1641195447249663232,2022-01-03-07:37:27,10.1.1.4,182,-0.030,-0.030,-0.030,0.000,0.000,0.000
1641195447469261824,2022-01-03-07:37:27,10.1.1.4,191,-0.020,-0.020,-0.020,0.000,0.000,0.000
1641195447871193856,2022-01-03-07:37:27,10.1.1.4,190,0.000,0.000,0.000,0.000,0.000,0.000
1641195448071331072,2022-01-03-07:37:28,10.1.1.4,189,-0.010,-0.010,-0.010,0.000,0.000,0.000
1641195448273848064,2022-01-03-07:37:28,10.1.1.4,191,-0.020,-0.020,-0.020,0.000,0.000,0.000
1641195448472704000,2022-01-03-07:37:28,10.1.1.4,188,-0.030,-0.030,-0.030,0.000,0.000,0.000
1641195448672188928,2022-01-03-07:37:28,10.1.1.4,184,-0.040,-0.040,-0.040,0.000,0.000,0.000
1641195448873647872,2022-01-03-07:37:28,10.1.1.4,185,-0.050,-0.050,-0.050,0.000,0.000,0.000
1641195449072962048,2022-01-03-07:37:29,10.1.1.4,180,-0.060,-0.060,-0.060,0.000,0.000,0.000
1641195449273772032,2022-01-03-07:37:29,10.1.1.4,180,-0.070,-0.070,-0.070,0.000,0.000,0.000
1641195449492713984,2022-01-03-07:37:29,10.1.1.4,197,-0.080,-0.080,-0.080,0.000,0.000,0.000
1641195449693521920,2022-01-03-07:37:29,10.1.1.4,197,-0.090,-0.090,-0.090,0.000,0.000,0.000
1641195449893635072,2022-01-03-07:37:29,10.1.1.4,197,-0.100,-0.100,-0.100,0.000,0.000,0.000
1641195450094067200,2022-01-03-07:37:30,10.1.1.4,196,-0.110,-0.110,-0.110,0.000,0.000,0.000
1641195450294761984,2022-01-03-07:37:30,10.1.1.4,195,-0.120,-0.120,-0.120,0.000,0.000,0.000
1641195450495667968,2022-01-03-07:37:30,10.1.1.4,195,-0.130,-0.130,-0.130,0.000,0.000,0.000
1641195450696413952,2022-01-03-07:37:30,10.1.1.4,195,-0.140,-0.140,-0.140,0.000,0.000,0.000
1641195450897659904,2022-01-03-07:37:30,10.1.1.4,196,-0.150,-0.150,-0.150,0.000,0.000,0.000
1641195451093577984,2022-01-03-07:37:31,10.1.1.4,191,-0.160,-0.160,-0.160,0.000,0.000,0.000
1641195451295886080,2022-01-03-07:37:31,10.1.1.4,191,-0.170,-0.170,-0.170,0.000,0.000,0.000
1641195451494983936,2022-01-03-07:37:31,10.1.1.4,190,-0.180,-0.180,-0.180,0.000,0.000,0.000
1641195451693387008,2022-01-03-07:37:31,10.1.1.4,187,-0.190,-0.190,-0.190,0.000,0.000,0.000
1641195451895917056,2022-01-03-07:37:31,10.1.1.4,187,-0.200,-0.200,-0.200,0.000,0.000,0.000
1641195452098498048,2022-01-03-07:37:32,10.1.1.4,191,-0.210,-0.210,-0.210,0.000,0.000,0.000
1641195452299580928,2022-01-03-07:37:32,10.1.1.4,191,-0.220,-0.220,-0.220,0.000,0.000,0.000
1641195452495655936,2022-01-03-07:37:32,10.1.1.4,186,-0.230,-0.230,-0.230,0.000,0.000,0.000
1641195452700015104,2022-01-03-07:37:32,10.1.1.4,189,-0.240,-0.240,-0.240,0.000,0.000,0.000
1641195452898483968,2022-01-03-07:37:32,10.1.1.4,187,-0.250,-0.250,-0.250,0.000,0.000,0.000
1641195453097452032,2022-01-03-07:37:33,10.1.1.4,185,-0.260,-0.260,-0.260,0.000,0.000,0.000
1641195453297438976,2022-01-03-07:37:33,10.1.1.4,179,-0.270,-0.270,-0.270,0.000,0.000,0.000
1641195453716301824,2022-01-03-07:37:33,10.1.1.4,197,-0.290,-0.290,-0.290,0.000,0.000,0.000
1641195453917052928,2022-01-03-07:37:33,10.1.1.4,197,-0.300,-0.300,-0.300,0.000,0.000,0.000
1641195454118885888,2022-01-03-07:37:34,10.1.1.4,193,-0.310,-0.310,-0.310,0.000,0.000,0.000
1641195454315126016,2022-01-03-07:37:34,10.1.1.4,193,-0.320,-0.320,-0.320,0.000,0.000,0.000
1641195454516460800,2022-01-03-07:37:34,10.1.1.4,194,-0.330,-0.330,-0.330,0.000,0.000,0.000
1641195454713985024,2022-01-03-07:37:34,10.1.1.4,191,-0.340,-0.340,-0.340,0.000,0.000,0.000
1641195454916102912,2022-01-03-07:37:34,10.1.1.4,190,-0.350,-0.350,-0.350,0.000,0.000,0.000
1641195455116210944,2022-01-03-07:37:35,10.1.1.4,190,-0.360,-0.360,-0.360,0.000,0.000,0.000
1641195455313721856,2022-01-03-07:37:35,10.1.1.4,186,-0.370,-0.370,-0.370,0.000,0.000,0.000
1641195455515544832,2022-01-03-07:37:35,10.1.1.4,187,-0.380,-0.380,-0.380,0.000,0.000,0.000
1641195455715439104,2022-01-03-07:37:35,10.1.1.4,187,-0.390,-0.390,-0.390,0.000,0.000,0.000
1641195455913026048,2022-01-03-07:37:35,10.1.1.4,183,-0.400,-0.400,-0.400,0.000,0.000,0.000
1641195456114690048,2022-01-03-07:37:36,10.1.1.4,184,-0.410,-0.410,-0.410,0.000,0.000,0.000
1641195456314181120,2022-01-03-07:37:36,10.1.1.4,183,-0.420,-0.420,-0.420,0.000,0.000,0.000
1641195456714211072,2022-01-03-07:37:36,10.1.1.4,181,-0.440,-0.440,-0.440,0.000,0.000,0.000
1641195456915720960,2022-01-03-07:37:36,10.1.1.4,182,-0.450,-0.450,-0.450,0.000,0.000,0.000
1641195457112791040,2022-01-03-07:37:37,10.1.1.4,178,-0.460,-0.460,-0.460,0.000,0.000,0.000
1641195457331956992,2022-01-03-07:37:37,10.1.1.4,196,-0.470,-0.470,-0.470,0.000,0.000,0.000
1641195457536955136,2022-01-03-07:37:37,10.1.1.4,199,-0.480,-0.480,-0.480,0.000,0.000,0.000
1641195457735447808,2022-01-03-07:37:37,10.1.1.4,196,-0.490,-0.490,-0.490,0.000,0.000,0.000
1641195457935187200,2022-01-03-07:37:37,10.1.1.4,196,-0.480,-0.480,-0.480,0.000,0.000,0.000
1641195458136915968,2022-01-03-07:37:38,10.1.1.4,195,-0.470,-0.470,-0.470,0.000,0.000,0.000
1641195458333447936,2022-01-03-07:37:38,10.1.1.4,191,-0.460,-0.460,-0.460,0.000,0.000,0.000
1641195458532596992,2022-01-03-07:37:38,10.1.1.4,190,-0.450,-0.450,-0.450,0.000,0.000,0.000
1641195458733975040,2022-01-03-07:37:38,10.1.1.4,190,-0.440,-0.440,-0.440,0.000,0.000,0.000
1641195458933300992,2022-01-03-07:37:38,10.1.1.4,188,-0.430,-0.430,-0.430,0.000,0.000,0.000
1641195459131515904,2022-01-03-07:37:39,10.1.1.4,186,-0.420,-0.420,-0.420,0.000,0.000,0.000
1641195459333440000,2022-01-03-07:37:39,10.1.1.4,187,-0.410,-0.410,-0.410,0.000,0.000,0.000
1641195459530523136,2022-01-03-07:37:39,10.1.1.4,183,-0.400,-0.400,-0.400,0.000,0.000,0.000
1641195459731972864,2022-01-03-07:37:39,10.1.1.4,184,-0.390,-0.390,-0.390,0.000,0.000,0.000
1641195459931534080,2022-01-03-07:37:39,10.1.1.4,183,-0.380,-0.380,-0.380,0.000,0.000,0.000
1641195460129648896,2022-01-03-07:37:40,10.1.1.4,179,-0.370,-0.370,-0.370,0.000,0.000,0.000
1641195460331127040,2022-01-03-07:37:40,10.1.1.4,180,-0.360,-0.360,-0.360,0.000,0.000,0.000
1641195460530289920,2022-01-03-07:37:40,10.1.1.4,178,-0.350,-0.350,-0.350,0.000,0.000,0.000
1641195460732116992,2022-01-03-07:37:40,10.1.1.4,179,-0.340,-0.340,-0.340,0.000,0.000,0.000
1641195460932215040,2022-01-03-07:37:40,10.1.1.4,178,-0.330,-0.330,-0.330,0.000,0.000,0.000
1641195461153452032,2022-01-03-07:37:41,10.1.1.4,198,-0.320,-0.320,-0.320,0.000,0.000,0.000
1641195461355706880,2022-01-03-07:37:41,10.1.1.4,198,-0.310,-0.310,-0.310,0.000,0.000,0.000
1641195461551749888,2022-01-03-07:37:41,10.1.1.4,192,-0.300,-0.300,-0.300,0.000,0.000,0.000
1641195461769815808,2022-01-03-07:37:41,10.1.1.4,186,-0.290,-0.290,-0.290,0.000,0.000,0.000
1641195461976876032,2022-01-03-07:37:41,10.1.1.4,191,-0.280,-0.280,-0.280,0.000,0.000,0.000
1641195462167570176,2022-01-03-07:37:42,10.1.1.4,181,-0.270,-0.270,-0.270,0.000,0.000,0.000
1641195462369899008,2022-01-03-07:37:42,10.1.1.4,183,-0.260,-0.260,-0.260,0.000,0.000,0.000
1641195462593880064,2022-01-03-07:37:42,10.1.1.4,195,-0.250,-0.250,-0.250,0.000,0.000,0.000
1641195462788047104,2022-01-03-07:37:42,10.1.1.4,188,-0.240,-0.240,-0.240,0.000,0.000,0.000
1641195462987354880,2022-01-03-07:37:42,10.1.1.4,187,-0.230,-0.230,-0.230,0.000,0.000,0.000
1641195463186532864,2022-01-03-07:37:43,10.1.1.4,185,-0.220,-0.220,-0.220,0.000,0.000,0.000
1641195463388773888,2022-01-03-07:37:43,10.1.1.4,186,-0.210,-0.210,-0.210,0.000,0.000,0.000
1641195463588604928,2022-01-03-07:37:43,10.1.1.4,184,-0.200,-0.200,-0.200,0.000,0.000,0.000
1641195463787153920,2022-01-03-07:37:43,10.1.1.4,182,-0.190,-0.190,-0.190,0.000,0.000,0.000
1641195463988548096,2022-01-03-07:37:43,10.1.1.4,181,-0.180,-0.180,-0.180,0.000,0.000,0.000
1641195464185686016,2022-01-03-07:37:44,10.1.1.4,179,-0.170,-0.170,-0.170,0.000,0.000,0.000
1641195464385324032,2022-01-03-07:37:44,10.1.1.4,177,-0.160,-0.160,-0.160,0.000,0.000,0.000
1641195464587211008,2022-01-03-07:37:44,10.1.1.4,178,-0.150,-0.150,-0.150,0.000,0.000,0.000
1641195464784666112,2022-01-03-07:37:44,10.1.1.4,175,-0.140,-0.140,-0.140,0.000,0.000,0.000
1641195464984897024,2022-01-03-07:37:44,10.1.1.4,174,-0.130,-0.130,-0.130,0.000,0.000,0.000
1641195465204323072,2022-01-03-07:37:45,10.1.1.4,193,-0.120,-0.120,-0.120,0.000,0.000,0.000
1641195465385710848,2022-01-03-07:37:45,10.1.1.4,174,-0.110,-0.110,-0.110,0.000,0.000,0.000
1641195465584393984,2022-01-03-07:37:45,10.1.1.4,172,-0.100,-0.100,-0.100,0.000,0.000,0.000
1641195465797190912,2022-01-03-07:37:45,10.1.1.4,184,-0.090,-0.090,-0.090,0.000,0.000,0.000
1641195465983016960,2022-01-03-07:37:45,10.1.1.4,168,-0.080,-0.080,-0.080,0.000,0.000,0.000
1641195466201963008,2022-01-03-07:37:46,10.1.1.4,186,-0.070,-0.070,-0.070,0.000,0.000,0.000
1641195466401926144,2022-01-03-07:37:46,10.1.1.4,186,-0.060,-0.060,-0.060,0.000,0.000,0.000
1641195466603923968,2022-01-03-07:37:46,10.1.1.4,183,-0.050,-0.050,-0.050,0.000,0.000,0.000
1641195466803250944,2022-01-03-07:37:46,10.1.1.4,185,-0.040,-0.040,-0.040,0.000,0.000,0.000
1641195467004183040,2022-01-03-07:37:47,10.1.1.4,177,-0.030,-0.030,-0.030,0.000,0.000,0.000
1641195467204036096,2022-01-03-07:37:47,10.1.1.4,176,-0.020,-0.020,-0.020,0.000,0.000,0.000
1641195467401735936,2022-01-03-07:37:47,10.1.1.4,172,-0.010,-0.010,-0.010,0.000,0.000,0.000
1641195467601083136,2022-01-03-07:37:47,10.1.1.4,170,0.000,0.000,0.000,0.000,0.000,0.000
1641195467800844032,2022-01-03-07:37:47,10.1.1.4,168,-0.010,-0.010,-0.010,0.000,0.000,0.000
1641195468005528064,2022-01-03-07:37:48,10.1.1.4,172,-0.020,-0.020,-0.020,0.000,0.000,0.000
1641195468200254976,2022-01-03-07:37:48,10.1.1.4,166,-0.030,-0.030,-0.030,0.000,0.000,0.000
1641195468402049024,2022-01-03-07:37:48,10.1.1.4,168,-0.040,-0.040,-0.040,0.000,0.000,0.000
1641195468598767104,2022-01-03-07:37:48,10.1.1.4,164,-0.050,-0.050,-0.050,0.000,0.000,0.000
1641195468823059968,2022-01-03-07:37:48,10.1.1.4,187,-0.060,-0.060,-0.060,0.000,0.000,0.000
1641195469021624064,2022-01-03-07:37:49,10.1.1.4,185,-0.070,-0.070,-0.070,0.000,0.000,0.000
1641195469220581120,2022-01-03-07:37:49,10.1.1.4,183,-0.080,-0.080,-0.080,0.000,0.000,0.000
1641195469418791168,2022-01-03-07:37:49,10.1.1.4,179,-0.090,-0.090,-0.090,0.000,0.000,0.000
1641195469616698112,2022-01-03-07:37:49,10.1.1.4,176,-0.100,-0.100,-0.100,0.000,0.000,0.000
1641195469818708992,2022-01-03-07:37:49,10.1.1.4,177,-0.110,-0.110,-0.110,0.000,0.000,0.000
1641195470019206912,2022-01-03-07:37:50,10.1.1.4,177,-0.120,-0.120,-0.120,0.000,0.000,0.000
1641195470217413888,2022-01-03-07:37:50,10.1.1.4,173,-0.130,-0.130,-0.130,0.000,0.000,0.000
1641195470424116992,2022-01-03-07:37:50,10.1.1.4,179,-0.140,-0.140,-0.140,0.000,0.000,0.000
1641195470615941120,2022-01-03-07:37:50,10.1.1.4,170,-0.150,-0.150,-0.150,0.000,0.000,0.000
1641195470816124928,2022-01-03-07:37:50,10.1.1.4,167,-0.160,-0.160,-0.160,0.000,0.000,0.000
1641195471021379840,2022-01-03-07:37:51,10.1.1.4,172,-0.170,-0.170,-0.170,0.000,0.000,0.000
1641195471235579904,2022-01-03-07:37:51,10.1.1.4,174,-0.180,-0.180,-0.180,0.000,0.000,0.000
1641195471436389888,2022-01-03-07:37:51,10.1.1.4,173,-0.190,-0.190,-0.190,0.000,0.000,0.000
1641195471635102976,2022-01-03-07:37:51,10.1.1.4,168,-0.200,-0.200,-0.200,0.000,0.000,0.000
1641195471837257984,2022-01-03-07:37:51,10.1.1.4,169,-0.210,-0.210,-0.210,0.000,0.000,0.000
1641195472036802048,2022-01-03-07:37:52,10.1.1.4,168,-0.220,-0.220,-0.220,0.000,0.000,0.000
1641195472235065856,2022-01-03-07:37:52,10.1.1.4,162,-0.230,-0.230,-0.230,0.000,0.000,0.000
1641195472437412864,2022-01-03-07:37:52,10.1.1.4,166,-0.240,-0.240,-0.240,0.000,0.000,0.000
1641195472652185088,2022-01-03-07:37:52,10.1.1.4,177,-0.250,-0.250,-0.250,0.000,0.000,0.000
1641195472851949824,2022-01-03-07:37:52,10.1.1.4,170,-0.260,-0.260,-0.260,0.000,0.000,0.000
1641195473052974848,2022-01-03-07:37:53,10.1.1.4,171,-0.270,-0.270,-0.270,0.000,0.000,0.000
1641195473253217024,2022-01-03-07:37:53,10.1.1.4,170,-0.280,-0.280,-0.280,0.000,0.000,0.000
1641195473451355904,2022-01-03-07:37:53,10.1.1.4,167,-0.290,-0.290,-0.290,0.000,0.000,0.000
1641195473672283904,2022-01-03-07:37:53,10.1.1.4,187,-0.300,-0.300,-0.300,0.000,0.000,0.000
1641195473850963200,2022-01-03-07:37:53,10.1.1.4,164,-0.310,-0.310,-0.310,0.000,0.000,0.000
1641195474051930880,2022-01-03-07:37:54,10.1.1.4,164,-0.320,-0.320,-0.320,0.000,0.000,0.000
1641195474256923904,2022-01-03-07:37:54,10.1.1.4,168,-0.330,-0.330,-0.330,0.000,0.000,0.000
1641195474455984128,2022-01-03-07:37:54,10.1.1.4,166,-0.340,-0.340,-0.340,0.000,0.000,0.000
1641195474656211968,2022-01-03-07:37:54,10.1.1.4,166,-0.350,-0.350,-0.350,0.000,0.000,0.000
1641195474855793920,2022-01-03-07:37:54,10.1.1.4,164,-0.360,-0.360,-0.360,0.000,0.000,0.000
1641195475062274048,2022-01-03-07:37:55,10.1.1.4,169,-0.370,-0.370,-0.370,0.000,0.000,0.000
1641195475261483008,2022-01-03-07:37:55,10.1.1.4,168,-0.380,-0.380,-0.380,0.000,0.000,0.000
1641195475479057152,2022-01-03-07:37:55,10.1.1.4,183,-0.390,-0.390,-0.390,0.000,0.000,0.000
1641195475679954944,2022-01-03-07:37:55,10.1.1.4,167,-0.400,-0.400,-0.400,0.000,0.000,0.000
1641195475878690048,2022-01-03-07:37:55,10.1.1.4,164,-0.410,-0.410,-0.410,0.000,0.000,0.000
1641195476104546048,2022-01-03-07:37:56,10.1.1.4,189,-0.420,-0.420,-0.420,0.000,0.000,0.000
1641195476303559936,2022-01-03-07:37:56,10.1.1.4,187,-0.430,-0.430,-0.430,0.000,0.000,0.000
1641195476501739008,2022-01-03-07:37:56,10.1.1.4,183,-0.440,-0.440,-0.440,0.000,0.000,0.000
1641195476703337984,2022-01-03-07:37:56,10.1.1.4,183,-0.450,-0.450,-0.450,0.000,0.000,0.000
1641195476904526080,2022-01-03-07:37:56,10.1.1.4,183,-0.460,-0.460,-0.460,0.000,0.000,0.000
1641195477103761920,2022-01-03-07:37:57,10.1.1.4,181,-0.470,-0.470,-0.470,0.000,0.000,0.000
1641195477305864960,2022-01-03-07:37:57,10.1.1.4,181,-0.480,-0.480,-0.480,0.000,0.000,0.000
1641195477508323840,2022-01-03-07:37:57,10.1.1.4,183,-0.490,-0.490,-0.490,0.000,0.000,0.000
1641195477708288000,2022-01-03-07:37:57,10.1.1.4,181,-0.480,-0.480,-0.480,0.000,0.000,0.000
1641195477912048128,2022-01-03-07:37:57,10.1.1.4,184,-0.470,-0.470,-0.470,0.000,0.000,0.000
1641195478109453056,2022-01-03-07:37:58,10.1.1.4,179,-0.460,-0.460,-0.460,0.000,0.000,0.000
1641195478309094912,2022-01-03-07:37:58,10.1.1.4,178,-0.450,-0.450,-0.450,0.000,0.000,0.000
1641195478511058944,2022-01-03-07:37:58,10.1.1.4,179,-0.440,-0.440,-0.440,0.000,0.000,0.000
1641195478711651072,2022-01-03-07:37:58,10.1.1.4,179,-0.430,-0.430,-0.430,0.000,0.000,0.000
1641195478914283008,2022-01-03-07:37:58,10.1.1.4,175,-0.420,-0.420,-0.420,0.000,0.000,0.000
1641195479130355968,2022-01-03-07:37:59,10.1.1.4,194,-0.410,-0.410,-0.410,0.000,0.000,0.000
1641195479333453824,2022-01-03-07:37:59,10.1.1.4,197,-0.400,-0.400,-0.400,0.000,0.000,0.000
1641195479536739072,2022-01-03-07:37:59,10.1.1.4,199,-0.390,-0.390,-0.390,0.000,0.000,0.000
1641195479734510848,2022-01-03-07:37:59,10.1.1.4,189,-0.380,-0.380,-0.380,0.000,0.000,0.000
1641195479932966912,2022-01-03-07:37:59,10.1.1.4,185,-0.370,-0.370,-0.370,0.000,0.000,0.000
1641195480130714880,2022-01-03-07:38:00,10.1.1.4,181,-0.360,-0.360,-0.360,0.000,0.000,0.000
1641195480332988928,2022-01-03-07:38:00,10.1.1.4,179,-0.350,-0.350,-0.350,0.000,0.000,0.000
1641195480552779008,2022-01-03-07:38:00,10.1.1.4,197,-0.340,-0.340,-0.340,0.000,0.000,0.000
1641195480751872000,2022-01-03-07:38:00,10.1.1.4,196,-0.330,-0.330,-0.330,0.000,0.000,0.000
1641195480952708864,2022-01-03-07:38:00,10.1.1.4,195,-0.320,-0.320,-0.320,0.000,0.000,0.000
1641195481154504960,2022-01-03-07:38:01,10.1.1.4,197,-0.310,-0.310,-0.310,0.000,0.000,0.000
1641195481352129024,2022-01-03-07:38:01,10.1.1.4,194,-0.300,-0.300,-0.300,0.000,0.000,0.000
1641195481558245888,2022-01-03-07:38:01,10.1.1.4,199,-0.290,-0.290,-0.290,0.000,0.000,0.000
1641195481753540096,2022-01-03-07:38:01,10.1.1.4,193,-0.280,-0.280,-0.280,0.000,0.000,0.000
1641195481956516864,2022-01-03-07:38:01,10.1.1.4,195,-0.270,-0.270,-0.270,0.000,0.000,0.000
1641195482156151040,2022-01-03-07:38:02,10.1.1.4,191,-0.260,-0.260,-0.260,0.000,0.000,0.000
1641195482355088896,2022-01-03-07:38:02,10.1.1.4,191,-0.250,-0.250,-0.250,0.000,0.000,0.000
1641195482554486016,2022-01-03-07:38:02,10.1.1.4,189,-0.240,-0.240,-0.240,0.000,0.000,0.000
1641195482754915072,2022-01-03-07:38:02,10.1.1.4,188,-0.230,-0.230,-0.230,0.000,0.000,0.000
1641195482957582848,2022-01-03-07:38:02,10.1.1.4,191,-0.220,-0.220,-0.220,0.000,0.000,0.000
1641195483153924096,2022-01-03-07:38:03,10.1.1.4,187,-0.210,-0.210,-0.210,0.000,0.000,0.000
1641195483355032064,2022-01-03-07:38:03,10.1.1.4,187,-0.200,-0.200,-0.200,0.000,0.000,0.000
1641195483556057856,2022-01-03-07:38:03,10.1.1.4,187,-0.190,-0.190,-0.190,0.000,0.000,0.000
1641195483756449024,2022-01-03-07:38:03,10.1.1.4,187,-0.180,-0.180,-0.180,0.000,0.000,0.000
1641195483955937024,2022-01-03-07:38:03,10.1.1.4,185,-0.170,-0.170,-0.170,0.000,0.000,0.000
1641195484156361216,2022-01-03-07:38:04,10.1.1.4,185,-0.160,-0.160,-0.160,0.000,0.000,0.000
1641195484354896128,2022-01-03-07:38:04,10.1.1.4,183,-0.150,-0.150,-0.150,0.000,0.000,0.000
1641195484556003072,2022-01-03-07:38:04,10.1.1.4,183,-0.140,-0.140,-0.140,0.000,0.000,0.000
1641195484756872960,2022-01-03-07:38:04,10.1.1.4,183,-0.130,-0.130,-0.130,0.000,0.000,0.000
1641195484974555904,2022-01-03-07:38:04,10.1.1.4,198,-0.120,-0.120,-0.120,0.000,0.000,0.000
1641195485175208960,2022-01-03-07:38:05,10.1.1.4,197,-0.110,-0.110,-0.110,0.000,0.000,0.000
1641195485374727936,2022-01-03-07:38:05,10.1.1.4,197,-0.100,-0.100,-0.100,0.000,0.000,0.000
1641195485574928896,2022-01-03-07:38:05,10.1.1.4,195,-0.090,-0.090,-0.090,0.000,0.000,0.000
1641195485775410944,2022-01-03-07:38:05,10.1.1.4,195,-0.080,-0.080,-0.080,0.000,0.000,0.000
1641195485975375872,2022-01-03-07:38:05,10.1.1.4,194,-0.070,-0.070,-0.070,0.000,0.000,0.000
1641195486176034048,2022-01-03-07:38:06,10.1.1.4,194,-0.060,-0.060,-0.060,0.000,0.000,0.000
1641195486375544064,2022-01-03-07:38:06,10.1.1.4,193,-0.050,-0.050,-0.050,0.000,0.000,0.000
1641195486576816128,2022-01-03-07:38:06,10.1.1.4,192,-0.040,-0.040,-0.040,0.000,0.000,0.000
1641195486777796864,2022-01-03-07:38:06,10.1.1.4,190,-0.030,-0.030,-0.030,0.000,0.000,0.000
1641195486975649024,2022-01-03-07:38:06,10.1.1.4,188,-0.020,-0.020,-0.020,0.000,0.000,0.000
1641195487176899840,2022-01-03-07:38:07,10.1.1.4,188,-0.010,-0.010,-0.010,0.000,0.000,0.000
1641195487375411968,2022-01-03-07:38:07,10.1.1.4,186,0.000,0.000,0.000,0.000,0.000,0.000
1641195487573987072,2022-01-03-07:38:07,10.1.1.4,184,-0.010,-0.010,-0.010,0.000,0.000,0.000
1641195487774703872,2022-01-03-07:38:07,10.1.1.4,184,-0.020,-0.020,-0.020,0.000,0.000,0.000
1641195487974718976,2022-01-03-07:38:07,10.1.1.4,183,-0.030,-0.030,-0.030,0.000,0.000,0.000
1641195488174766080,2022-01-03-07:38:08,10.1.1.4,182,-0.040,-0.040,-0.040,0.000,0.000,0.000
1641195488373761792,2022-01-03-07:38:08,10.1.1.4,178,-0.050,-0.050,-0.050,0.000,0.000,0.000
1641195488593865984,2022-01-03-07:38:08,10.1.1.4,197,-0.060,-0.060,-0.060,0.000,0.000,0.000
1641195488797404160,2022-01-03-07:38:08,10.1.1.4,199,-0.070,-0.070,-0.070,0.000,0.000,0.000
1641195489192851968,2022-01-03-07:38:09,10.1.1.4,193,-0.090,-0.090,-0.090,0.000,0.000,0.000
1641195489396614144,2022-01-03-07:38:09,10.1.1.4,196,-0.100,-0.100,-0.100,0.000,0.000,0.000
1641195489593036800,2022-01-03-07:38:09,10.1.1.4,192,-0.110,-0.110,-0.110,0.000,0.000,0.000
1641195489792640000,2022-01-03-07:38:09,10.1.1.4,190,-0.120,-0.120,-0.120,0.000,0.000,0.000
1641195489993805056,2022-01-03-07:38:09,10.1.1.4,190,-0.130,-0.130,-0.130,0.000,0.000,0.000
1641195490194086144,2022-01-03-07:38:10,10.1.1.4,190,-0.140,-0.140,-0.140,0.000,0.000,0.000
1641195490394254080,2022-01-03-07:38:10,10.1.1.4,189,-0.150,-0.150,-0.150,0.000,0.000,0.000
1641195490595459072,2022-01-03-07:38:10,10.1.1.4,188,-0.160,-0.160,-0.160,0.000,0.000,0.000
1641195490793159936,2022-01-03-07:38:10,10.1.1.4,186,-0.170,-0.170,-0.170,0.000,0.000,0.000
1641195490992455936,2022-01-03-07:38:10,10.1.1.4,184,-0.180,-0.180,-0.180,0.000,0.000,0.000
1641195491190710016,2022-01-03-07:38:11,10.1.1.4,181,-0.190,-0.190,-0.190,0.000,0.000,0.000
1641195491394927872,2022-01-03-07:38:11,10.1.1.4,184,-0.200,-0.200,-0.200,0.000,0.000,0.000
1641195491592224000,2022-01-03-07:38:11,10.1.1.4,181,-0.210,-0.210,-0.210,0.000,0.000,0.000
1641195491790302976,2022-01-03-07:38:11,10.1.1.4,179,-0.220,-0.220,-0.220,0.000,0.000,0.000
1641195491991881984,2022-01-03-07:38:11,10.1.1.4,179,-0.230,-0.230,-0.230,0.000,0.000,0.000
1641195492189582080,2022-01-03-07:38:12,10.1.1.4,176,-0.240,-0.240,-0.240,0.000,0.000,0.000
1641195492412034048,2022-01-03-07:38:12,10.1.1.4,197,-0.250,-0.250,-0.250,0.000,0.000,0.000
1641195492595280896,2022-01-03-07:38:12,10.1.1.4,179,-0.260,-0.260,-0.260,0.000,0.000,0.000
1641195492809958912,2022-01-03-07:38:12,10.1.1.4,194,-0.270,-0.270,-0.270,0.000,0.000,0.000
1641195493011687936,2022-01-03-07:38:13,10.1.1.4,194,-0.280,-0.280,-0.280,0.000,0.000,0.000
1641195493211994880,2022-01-03-07:38:13,10.1.1.4,194,-0.290,-0.290,-0.290,0.000,0.000,0.000
1641195493408884992,2022-01-03-07:38:13,10.1.1.4,189,-0.300,-0.300,-0.300,0.000,0.000,0.000
1641195493609925120,2022-01-03-07:38:13,10.1.1.4,189,-0.310,-0.310,-0.310,0.000,0.000,0.000
1641195493808475136,2022-01-03-07:38:13,10.1.1.4,186,-0.320,-0.320,-0.320,0.000,0.000,0.000
1641195494009052928,2022-01-03-07:38:14,10.1.1.4,186,-0.330,-0.330,-0.330,0.000,0.000,0.000
1641195494209894912,2022-01-03-07:38:14,10.1.1.4,187,-0.340,-0.340,-0.340,0.000,0.000,0.000
1641195494409011968,2022-01-03-07:38:14,10.1.1.4,185,-0.350,-0.350,-0.350,0.000,0.000,0.000
1641195494608809984,2022-01-03-07:38:14,10.1.1.4,184,-0.360,-0.360,-0.360,0.000,0.000,0.000
1641195494808051968,2022-01-03-07:38:14,10.1.1.4,182,-0.370,-0.370,-0.370,0.000,0.000,0.000
1641195495008379904,2022-01-03-07:38:15,10.1.1.4,179,-0.380,-0.380,-0.380,0.000,0.000,0.000
1641195495211704064,2022-01-03-07:38:15,10.1.1.4,181,-0.390,-0.390,-0.390,0.000,0.000,0.000
1641195495407318016,2022-01-03-07:38:15,10.1.1.4,175,-0.400,-0.400,-0.400,0.000,0.000,0.000
1641195495608954880,2022-01-03-07:38:15,10.1.1.4,176,-0.410,-0.410,-0.410,0.000,0.000,0.000
1641195495810394880,2022-01-03-07:38:15,10.1.1.4,176,-0.420,-0.420,-0.420,0.000,0.000,0.000
1641195496028388096,2022-01-03-07:38:16,10.1.1.4,190,-0.430,-0.430,-0.430,0.000,0.000,0.000
1641195496238770944,2022-01-03-07:38:16,10.1.1.4,198,-0.440,-0.440,-0.440,0.000,0.000,0.000
1641195496426188032,2022-01-03-07:38:16,10.1.1.4,180,-0.450,-0.450,-0.450,0.000,0.000,0.000
1641195496627592192,2022-01-03-07:38:16,10.1.1.4,180,-0.460,-0.460,-0.460,0.000,0.000,0.000
1641195496825687040,2022-01-03-07:38:16,10.1.1.4,177,-0.470,-0.470,-0.470,0.000,0.000,0.000
1641195497024549888,2022-01-03-07:38:17,10.1.1.4,174,-0.480,-0.480,-0.480,0.000,0.000,0.000
1641195497225394944,2022-01-03-07:38:17,10.1.1.4,173,-0.490,-0.490,-0.490,0.000,0.000,0.000
1641195497444637184,2022-01-03-07:38:17,10.1.1.4,191,-0.480,-0.480,-0.480,0.000,0.000,0.000
1641195497623020800,2022-01-03-07:38:17,10.1.1.4,168,-0.470,-0.470,-0.470,0.000,0.000,0.000
1641195497825014016,2022-01-03-07:38:17,10.1.1.4,169,-0.460,-0.460,-0.460,0.000,0.000,0.000
1641195498042288896,2022-01-03-07:38:18,10.1.1.4,186,-0.450,-0.450,-0.450,0.000,0.000,0.000
1641195498244474880,2022-01-03-07:38:18,10.1.1.4,187,-0.440,-0.440,-0.440,0.000,0.000,0.000
1641195498442928128,2022-01-03-07:38:18,10.1.1.4,185,-0.430,-0.430,-0.430,0.000,0.000,0.000
1641195498644113152,2022-01-03-07:38:18,10.1.1.4,185,-0.420,-0.420,-0.420,0.000,0.000,0.000
1641195498843473920,2022-01-03-07:38:18,10.1.1.4,184,-0.410,-0.410,-0.410,0.000,0.000,0.000
1641195499041253120,2022-01-03-07:38:19,10.1.1.4,181,-0.400,-0.400,-0.400,0.000,0.000,0.000
1641195499242109184,2022-01-03-07:38:19,10.1.1.4,181,-0.390,-0.390,-0.390,0.000,0.000,0.000
1641195499453505024,2022-01-03-07:38:19,10.1.1.4,191,-0.380,-0.380,-0.380,0.000,0.000,0.000
1641195499641238016,2022-01-03-07:38:19,10.1.1.4,177,-0.370,-0.370,-0.370,0.000,0.000,0.000
1641195499841373952,2022-01-03-07:38:19,10.1.1.4,176,-0.360,-0.360,-0.360,0.000,0.000,0.000
1641195500040294912,2022-01-03-07:38:20,10.1.1.4,174,-0.350,-0.350,-0.350,0.000,0.000,0.000
1641195500240581888,2022-01-03-07:38:20,10.1.1.4,172,-0.340,-0.340,-0.340,0.000,0.000,0.000
1641195500444204032,2022-01-03-07:38:20,10.1.1.4,174,-0.330,-0.330,-0.330,0.000,0.000,0.000
1641195500639139840,2022-01-03-07:38:20,10.1.1.4,169,-0.320,-0.320,-0.320,0.000,0.000,0.000
1641195500844037120,2022-01-03-07:38:20,10.1.1.4,173,-0.310,-0.310,-0.310,0.000,0.000,0.000
1641195501040817920,2022-01-03-07:38:21,10.1.1.4,169,-0.300,-0.300,-0.300,0.000,0.000,0.000
1641195501244832000,2022-01-03-07:38:21,10.1.1.4,171,-0.290,-0.290,-0.290,0.000,0.000,0.000
1641195501442132992,2022-01-03-07:38:21,10.1.1.4,168,-0.280,-0.280,-0.280,0.000,0.000,0.000
1641195501637253888,2022-01-03-07:38:21,10.1.1.4,162,-0.270,-0.270,-0.270,0.000,0.000,0.000
1641195501861527808,2022-01-03-07:38:21,10.1.1.4,185,-0.260,-0.260,-0.260,0.000,0.000,0.000
1641195502061000960,2022-01-03-07:38:22,10.1.1.4,183,-0.250,-0.250,-0.250,0.000,0.000,0.000
1641195502256393984,2022-01-03-07:38:22,10.1.1.4,177,-0.240,-0.240,-0.240,0.000,0.000,0.000
1641195502458061056,2022-01-03-07:38:22,10.1.1.4,177,-0.230,-0.230,-0.230,0.000,0.000,0.000
1641195502673252096,2022-01-03-07:38:22,10.1.1.4,192,-0.220,-0.220,-0.220,0.000,0.000,0.000
1641195502856872960,2022-01-03-07:38:22,10.1.1.4,175,-0.210,-0.210,-0.210,0.000,0.000,0.000
1641195503057293056,2022-01-03-07:38:23,10.1.1.4,174,-0.200,-0.200,-0.200,0.000,0.000,0.000
1641195503255151104,2022-01-03-07:38:23,10.1.1.4,172,-0.190,-0.190,-0.190,0.000,0.000,0.000
1641195503454846976,2022-01-03-07:38:23,10.1.1.4,170,-0.180,-0.180,-0.180,0.000,0.000,0.000
1641195503656476928,2022-01-03-07:38:23,10.1.1.4,170,-0.170,-0.170,-0.170,0.000,0.000,0.000
1641195503854159104,2022-01-03-07:38:23,10.1.1.4,164,-0.160,-0.160,-0.160,0.000,0.000,0.000
1641195504055643136,2022-01-03-07:38:24,10.1.1.4,161,-0.150,-0.150,-0.150,0.000,0.000,0.000
1641195504255794944,2022-01-03-07:38:24,10.1.1.4,161,-0.140,-0.140,-0.140,0.000,0.000,0.000
1641195504473172992,2022-01-03-07:38:24,10.1.1.4,177,-0.130,-0.130,-0.130,0.000,0.000,0.000
1641195504674181888,2022-01-03-07:38:24,10.1.1.4,177,-0.120,-0.120,-0.120,0.000,0.000,0.000
1641195504872365056,2022-01-03-07:38:24,10.1.1.4,174,-0.110,-0.110,-0.110,0.000,0.000,0.000
1641195505075202816,2022-01-03-07:38:25,10.1.1.4,176,-0.100,-0.100,-0.100,0.000,0.000,0.000
1641195505273016832,2022-01-03-07:38:25,10.1.1.4,172,-0.090,-0.090,-0.090,0.000,0.000,0.000
1641195505472096000,2022-01-03-07:38:25,10.1.1.4,171,-0.080,-0.080,-0.080,0.000,0.000,0.000
1641195505673387008,2022-01-03-07:38:25,10.1.1.4,169,-0.070,-0.070,-0.070,0.000,0.000,0.000
1641195505871958016,2022-01-03-07:38:25,10.1.1.4,166,-0.060,-0.060,-0.060,0.000,0.000,0.000
1641195506070582016,2022-01-03-07:38:26,10.1.1.4,164,-0.050,-0.050,-0.050,0.000,0.000,0.000
1641195506271982848,2022-01-03-07:38:26,10.1.1.4,165,-0.040,-0.040,-0.040,0.000,0.000,0.000
1641195506472194048,2022-01-03-07:38:26,10.1.1.4,165,-0.030,-0.030,-0.030,0.000,0.000,0.000
1641195506672975104,2022-01-03-07:38:26,10.1.1.4,165,-0.020,-0.020,-0.020,0.000,0.000,0.000
1641195506873830912,2022-01-03-07:38:26,10.1.1.4,165,-0.010,-0.010,-0.010,0.000,0.000,0.000
1641195507069758976,2022-01-03-07:38:27,10.1.1.4,159,0.000,0.000,0.000,0.000,0.000,0.000
1641195507272008960,2022-01-03-07:38:27,10.1.1.4,160,-0.010,-0.010,-0.010,0.000,0.000,0.000
1641195507478155008,2022-01-03-07:38:27,10.1.1.4,163,-0.020,-0.020,-0.020,0.000,0.000,0.000
1641195507693455104,2022-01-03-07:38:27,10.1.1.4,177,-0.030,-0.030,-0.030,0.000,0.000,0.000
1641195507898319872,2022-01-03-07:38:27,10.1.1.4,181,-0.040,-0.040,-0.040,0.000,0.000,0.000
1641195508094620928,2022-01-03-07:38:28,10.1.1.4,175,-0.050,-0.050,-0.050,0.000,0.000,0.000
1641195508296232960,2022-01-03-07:38:28,10.1.1.4,176,-0.060,-0.060,-0.060,0.000,0.000,0.000
1641195508501209856,2022-01-03-07:38:28,10.1.1.4,180,-0.070,-0.070,-0.070,0.000,0.000,0.000
1641195508697410048,2022-01-03-07:38:28,10.1.1.4,176,-0.080,-0.080,-0.080,0.000,0.000,0.000
1641195508913944064,2022-01-03-07:38:28,10.1.1.4,187,-0.090,-0.090,-0.090,0.000,0.000,0.000
1641195509099796992,2022-01-03-07:38:29,10.1.1.4,176,-0.100,-0.100,-0.100,0.000,0.000,0.000
1641195509301257984,2022-01-03-07:38:29,10.1.1.4,175,-0.110,-0.110,-0.110,0.000,0.000,0.000
1641195509503783936,2022-01-03-07:38:29,10.1.1.4,177,-0.120,-0.120,-0.120,0.000,0.000,0.000
1641195509701224960,2022-01-03-07:38:29,10.1.1.4,172,-0.130,-0.130,-0.130,0.000,0.000,0.000
1641195509904741888,2022-01-03-07:38:29,10.1.1.4,174,-0.140,-0.140,-0.140,0.000,0.000,0.000
1641195510304023040,2022-01-03-07:38:30,10.1.1.4,172,-0.160,-0.160,-0.160,0.000,0.000,0.000
1641195510528636928,2022-01-03-07:38:30,10.1.1.4,186,-0.170,-0.170,-0.170,0.000,0.000,0.000
1641195510726681088,2022-01-03-07:38:30,10.1.1.4,183,-0.180,-0.180,-0.180,0.000,0.000,0.000
1641195510930187008,2022-01-03-07:38:30,10.1.1.4,179,-0.190,-0.190,-0.190,0.000,0.000,0.000
1641195511129928192,2022-01-03-07:38:31,10.1.1.4,179,-0.200,-0.200,-0.200,0.000,0.000,0.000
1641195511330065920,2022-01-03-07:38:31,10.1.1.4,178,-0.210,-0.210,-0.210,0.000,0.000,0.000
1641195511529083904,2022-01-03-07:38:31,10.1.1.4,175,-0.220,-0.220,-0.220,0.000,0.000,0.000
1641195511728768000,2022-01-03-07:38:31,10.1.1.4,174,-0.230,-0.230,-0.230,0.000,0.000,0.000
1641195511929182976,2022-01-03-07:38:31,10.1.1.4,173,-0.240,-0.240,-0.240,0.000,0.000,0.000
1641195512151276032,2022-01-03-07:38:32,10.1.1.4,193,-0.250,-0.250,-0.250,0.000,0.000,0.000
1641195512348815872,2022-01-03-07:38:32,10.1.1.4,189,-0.260,-0.260,-0.260,0.000,0.000,0.000
1641195512554842880,2022-01-03-07:38:32,10.1.1.4,195,-0.270,-0.270,-0.270,0.000,0.000,0.000
1641195512758024960,2022-01-03-07:38:32,10.1.1.4,197,-0.280,-0.280,-0.280,0.000,0.000,0.000
1641195512950959872,2022-01-03-07:38:32,10.1.1.4,186,-0.290,-0.290,-0.290,0.000,0.000,0.000
1641195513155635200,2022-01-03-07:38:33,10.1.1.4,185,-0.300,-0.300,-0.300,0.000,0.000,0.000
1641195513349911040,2022-01-03-07:38:33,10.1.1.4,182,-0.310,-0.310,-0.310,0.000,0.000,0.000
1641195513551485952,2022-01-03-07:38:33,10.1.1.4,182,-0.320,-0.320,-0.320,0.000,0.000,0.000
1641195513951464960,2022-01-03-07:38:33,10.1.1.4,179,-0.340,-0.340,-0.340,0.000,0.000,0.000
1641195514154438144,2022-01-03-07:38:34,10.1.1.4,180,-0.350,-0.350,-0.350,0.000,0.000,0.000
1641195514351926016,2022-01-03-07:38:34,10.1.1.4,176,-0.360,-0.360,-0.360,0.000,0.000,0.000
1641195514573442816,2022-01-03-07:38:34,10.1.1.4,195,-0.370,-0.370,-0.370,0.000,0.000,0.000
1641195514773533952,2022-01-03-07:38:34,10.1.1.4,195,-0.380,-0.380,-0.380,0.000,0.000,0.000
1641195514972676096,2022-01-03-07:38:34,10.1.1.4,193,-0.390,-0.390,-0.390,0.000,0.000,0.000
1641195515175128832,2022-01-03-07:38:35,10.1.1.4,194,-0.400,-0.400,-0.400,0.000,0.000,0.000
1641195515375803904,2022-01-03-07:38:35,10.1.1.4,194,-0.410,-0.410,-0.410,0.000,0.000,0.000
1641195515573810944,2022-01-03-07:38:35,10.1.1.4,190,-0.420,-0.420,-0.420,0.000,0.000,0.000
1641195515775943936,2022-01-03-07:38:35,10.1.1.4,190,-0.430,-0.430,-0.430,0.000,0.000,0.000
1641195515973948928,2022-01-03-07:38:35,10.1.1.4,189,-0.440,-0.440,-0.440,0.000,0.000,0.000
1641195516174084864,2022-01-03-07:38:36,10.1.1.4,187,-0.450,-0.450,-0.450,0.000,0.000,0.000
1641195516373954048,2022-01-03-07:38:36,10.1.1.4,183,-0.460,-0.460,-0.460,0.000,0.000,0.000
1641195516575282944,2022-01-03-07:38:36,10.1.1.4,183,-0.470,-0.470,-0.470,0.000,0.000,0.000
1641195516774105088,2022-01-03-07:38:36,10.1.1.4,182,-0.480,-0.480,-0.480,0.000,0.000,0.000
1641195516975558144,2022-01-03-07:38:36,10.1.1.4,182,-0.490,-0.490,-0.490,0.000,0.000,0.000
1641195517195137024,2022-01-03-07:38:37,10.1.1.4,197,-0.480,-0.480,-0.480,0.000,0.000,0.000
1641195517395159040,2022-01-03-07:38:37,10.1.1.4,196,-0.470,-0.470,-0.470,0.000,0.000,0.000
1641195517597088000,2022-01-03-07:38:37,10.1.1.4,197,-0.460,-0.460,-0.460,0.000,0.000,0.000
1641195517797457920,2022-01-03-07:38:37,10.1.1.4,197,-0.450,-0.450,-0.450,0.000,0.000,0.000
1641195517995341056,2022-01-03-07:38:37,10.1.1.4,194,-0.440,-0.440,-0.440,0.000,0.000,0.000
1641195518196791040,2022-01-03-07:38:38,10.1.1.4,193,-0.430,-0.430,-0.430,0.000,0.000,0.000
1641195518395736064,2022-01-03-07:38:38,10.1.1.4,192,-0.420,-0.420,-0.420,0.000,0.000,0.000
1641195518595089920,2022-01-03-07:38:38,10.1.1.4,190,-0.410,-0.410,-0.410,0.000,0.000,0.000
1641195518794084096,2022-01-03-07:38:38,10.1.1.4,189,-0.400,-0.400,-0.400,0.000,0.000,0.000
1641195518997281024,2022-01-03-07:38:38,10.1.1.4,191,-0.390,-0.390,-0.390,0.000,0.000,0.000
1641195519194839040,2022-01-03-07:38:39,10.1.1.4,188,-0.380,-0.380,-0.380,0.000,0.000,0.000
1641195519396317952,2022-01-03-07:38:39,10.1.1.4,189,-0.370,-0.370,-0.370,0.000,0.000,0.000
1641195519595577088,2022-01-03-07:38:39,10.1.1.4,187,-0.360,-0.360,-0.360,0.000,0.000,0.000
1641195519794045952,2022-01-03-07:38:39,10.1.1.4,184,-0.350,-0.350,-0.350,0.000,0.000,0.000
1641195519995641856,2022-01-03-07:38:39,10.1.1.4,182,-0.340,-0.340,-0.340,0.000,0.000,0.000
1641195520193852928,2022-01-03-07:38:40,10.1.1.4,179,-0.330,-0.330,-0.330,0.000,0.000,0.000
1641195520393834240,2022-01-03-07:38:40,10.1.1.4,179,-0.320,-0.320,-0.320,0.000,0.000,0.000
1641195520597000960,2022-01-03-07:38:40,10.1.1.4,180,-0.310,-0.310,-0.310,0.000,0.000,0.000
1641195520814433024,2022-01-03-07:38:40,10.1.1.4,184,-0.300,-0.300,-0.300,0.000,0.000,0.000
1641195521036901888,2022-01-03-07:38:41,10.1.1.4,200,-0.290,-0.290,-0.290,0.000,0.000,0.000
1641195521237232896,2022-01-03-07:38:41,10.1.1.4,200,-0.280,-0.280,-0.280,0.000,0.000,0.000
1641195521433111040,2022-01-03-07:38:41,10.1.1.4,195,-0.270,-0.270,-0.270,0.000,0.000,0.000
1641195521633202176,2022-01-03-07:38:41,10.1.1.4,194,-0.260,-0.260,-0.260,0.000,0.000,0.000
1641195521835495936,2022-01-03-07:38:41,10.1.1.4,196,-0.250,-0.250,-0.250,0.000,0.000,0.000
1641195522034073088,2022-01-03-07:38:42,10.1.1.4,194,-0.240,-0.240,-0.240,0.000,0.000,0.000
1641195522227619840,2022-01-03-07:38:42,10.1.1.4,187,-0.230,-0.230,-0.230,0.000,0.000,0.000
1641195522432363008,2022-01-03-07:38:42,10.1.1.4,190,-0.220,-0.220,-0.220,0.000,0.000,0.000
1641195522634670848,2022-01-03-07:38:42,10.1.1.4,191,-0.210,-0.210,-0.210,0.000,0.000,0.000
1641195522831890944,2022-01-03-07:38:42,10.1.1.4,188,-0.200,-0.200,-0.200,0.000,0.000,0.000
1641195523035921152,2022-01-03-07:38:43,10.1.1.4,191,-0.190,-0.190,-0.190,0.000,0.000,0.000
1641195523234884096,2022-01-03-07:38:43,10.1.1.4,189,-0.180,-0.180,-0.180,0.000,0.000,0.000
1641195523431198976,2022-01-03-07:38:43,10.1.1.4,185,-0.170,-0.170,-0.170,0.000,0.000,0.000
1641195523632076032,2022-01-03-07:38:43,10.1.1.4,184,-0.160,-0.160,-0.160,0.000,0.000,0.000
1641195523831373824,2022-01-03-07:38:43,10.1.1.4,183,-0.150,-0.150,-0.150,0.000,0.000,0.000
1641195524031941888,2022-01-03-07:38:44,10.1.1.4,183,-0.140,-0.140,-0.140,0.000,0.000,0.000
1641195524233756928,2022-01-03-07:38:44,10.1.1.4,183,-0.130,-0.130,-0.130,0.000,0.000,0.000
1641195524430985984,2022-01-03-07:38:44,10.1.1.4,179,-0.120,-0.120,-0.120,0.000,0.000,0.000
1641195524632136192,2022-01-03-07:38:44,10.1.1.4,180,-0.110,-0.110,-0.110,0.000,0.000,0.000
1641195524838432000,2022-01-03-07:38:44,10.1.1.4,182,-0.100,-0.100,-0.100,0.000,0.000,0.000
1641195525030989824,2022-01-03-07:38:45,10.1.1.4,175,-0.090,-0.090,-0.090,0.000,0.000,0.000
1641195525251524864,2022-01-03-07:38:45,10.1.1.4,195,-0.080,-0.080,-0.080,0.000,0.000,0.000
1641195525452568064,2022-01-03-07:38:45,10.1.1.4,196,-0.070,-0.070,-0.070,0.000,0.000,0.000
1641195525652598016,2022-01-03-07:38:45,10.1.1.4,195,-0.060,-0.060,-0.060,0.000,0.000,0.000
1641195525850415104,2022-01-03-07:38:45,10.1.1.4,192,-0.050,-0.050,-0.050,0.000,0.000,0.000
1641195526052357888,2022-01-03-07:38:46,10.1.1.4,191,-0.040,-0.040,-0.040,0.000,0.000,0.000
1641195526250246144,2022-01-03-07:38:46,10.1.1.4,189,-0.030,-0.030,-0.030,0.000,0.000,0.000
1641195526448285952,2022-01-03-07:38:46,10.1.1.4,186,-0.020,-0.020,-0.020,0.000,0.000,0.000
1641195526650219008,2022-01-03-07:38:46,10.1.1.4,187,-0.010,-0.010,-0.010,0.000,0.000,0.000
1641195526848515072,2022-01-03-07:38:46,10.1.1.4,184,0.000,0.000,0.000,0.000,0.000,0.000
1641195527047080960,2022-01-03-07:38:47,10.1.1.4,181,-0.010,-0.010,-0.010,0.000,0.000,0.000
1641195527307881216,2022-01-03-07:38:47,10.1.1.4,192,-0.020,-0.020,-0.020,0.000,0.000,0.000
1641195527508625152,2022-01-03-07:38:47,10.1.1.4,191,-0.030,-0.030,-0.030,0.000,0.000,0.000
1641195527707900928,2022-01-03-07:38:47,10.1.1.4,188,-0.040,-0.040,-0.040,0.000,0.000,0.000
1641195527912164864,2022-01-03-07:38:47,10.1.1.4,191,-0.050,-0.050,-0.050,0.000,0.000,0.000
1641195528110840064,2022-01-03-07:38:48,10.1.1.4,185,-0.060,-0.060,-0.060,0.000,0.000,0.000
1641195528311254016,2022-01-03-07:38:48,10.1.1.4,188,-0.070,-0.070,-0.070,0.000,0.000,0.000
1641195528509928960,2022-01-03-07:38:48,10.1.1.4,186,-0.080,-0.080,-0.080,0.000,0.000,0.000
1641195528707351040,2022-01-03-07:38:48,10.1.1.4,181,-0.090,-0.090,-0.090,0.000,0.000,0.000
1641195528909496064,2022-01-03-07:38:48,10.1.1.4,180,-0.100,-0.100,-0.100,0.000,0.000,0.000
1641195529106637056,2022-01-03-07:38:49,10.1.1.4,177,-0.110,-0.110,-0.110,0.000,0.000,0.000
1641195529305627136,2022-01-03-07:38:49,10.1.1.4,176,-0.120,-0.120,-0.120,0.000,0.000,0.000
1641195529528508928,2022-01-03-07:38:49,10.1.1.4,198,-0.130,-0.130,-0.130,0.000,0.000,0.000
1641195529708177920,2022-01-03-07:38:49,10.1.1.4,177,-0.140,-0.140,-0.140,0.000,0.000,0.000
1641195529907636992,2022-01-03-07:38:49,10.1.1.4,174,-0.150,-0.150,-0.150,0.000,0.000,0.000
1641195530123526144,2022-01-03-07:38:50,10.1.1.4,188,-0.160,-0.160,-0.160,0.000,0.000,0.000
1641195530327460096,2022-01-03-07:38:50,10.1.1.4,191,-0.170,-0.170,-0.170,0.000,0.000,0.000
1641195530526784000,2022-01-03-07:38:50,10.1.1.4,188,-0.180,-0.180,-0.180,0.000,0.000,0.000
1641195530723172864,2022-01-03-07:38:50,10.1.1.4,185,-0.190,-0.190,-0.190,0.000,0.000,0.000
1641195530925645056,2022-01-03-07:38:50,10.1.1.4,187,-0.200,-0.200,-0.200,0.000,0.000,0.000
1641195531131109120,2022-01-03-07:38:51,10.1.1.4,191,-0.210,-0.210,-0.210,0.000,0.000,0.000
1641195531322707968,2022-01-03-07:38:51,10.1.1.4,174,-0.220,-0.220,-0.220,0.000,0.000,0.000
1641195531543729152,2022-01-03-07:38:51,10.1.1.4,187,-0.230,-0.230,-0.230,0.000,0.000,0.000
1641195531741436928,2022-01-03-07:38:51,10.1.1.4,184,-0.240,-0.240,-0.240,0.000,0.000,0.000
1641195531942650112,2022-01-03-07:38:51,10.1.1.4,184,-0.250,-0.250,-0.250,0.000,0.000,0.000
1641195532141838080,2022-01-03-07:38:52,10.1.1.4,183,-0.260,-0.260,-0.260,0.000,0.000,0.000
1641195532340558080,2022-01-03-07:38:52,10.1.1.4,181,-0.270,-0.270,-0.270,0.000,0.000,0.000
1641195532539872768,2022-01-03-07:38:52,10.1.1.4,179,-0.280,-0.280,-0.280,0.000,0.000,0.000
1641195532742491904,2022-01-03-07:38:52,10.1.1.4,180,-0.290,-0.290,-0.290,0.000,0.000,0.000
1641195532941734144,2022-01-03-07:38:52,10.1.1.4,178,-0.300,-0.300,-0.300,0.000,0.000,0.000
1641195533138660864,2022-01-03-07:38:53,10.1.1.4,174,-0.310,-0.310,-0.310,0.000,0.000,0.000
1641195533338772992,2022-01-03-07:38:53,10.1.1.4,173,-0.320,-0.320,-0.320,0.000,0.000,0.000
1641195533539289856,2022-01-03-07:38:53,10.1.1.4,173,-0.330,-0.330,-0.330,0.000,0.000,0.000
1641195533741065984,2022-01-03-07:38:53,10.1.1.4,174,-0.340,-0.340,-0.340,0.000,0.000,0.000
1641195533938252032,2022-01-03-07:38:53,10.1.1.4,169,-0.350,-0.350,-0.350,0.000,0.000,0.000
1641195534143656960,2022-01-03-07:38:54,10.1.1.4,166,-0.360,-0.360,-0.360,0.000,0.000,0.000
1641195534338879232,2022-01-03-07:38:54,10.1.1.4,166,-0.370,-0.370,-0.370,0.000,0.000,0.000
1641195534538665984,2022-01-03-07:38:54,10.1.1.4,165,-0.380,-0.380,-0.380,0.000,0.000,0.000
1641195534742619136,2022-01-03-07:38:54,10.1.1.4,168,-0.390,-0.390,-0.390,0.000,0.000,0.000
1641195534936975104,2022-01-03-07:38:54,10.1.1.4,162,-0.400,-0.400,-0.400,0.000,0.000,0.000
1641195535157808896,2022-01-03-07:38:55,10.1.1.4,182,-0.410,-0.410,-0.410,0.000,0.000,0.000
1641195535359463936,2022-01-03-07:38:55,10.1.1.4,182,-0.420,-0.420,-0.420,0.000,0.000,0.000
1641195535556730112,2022-01-03-07:38:55,10.1.1.4,176,-0.430,-0.430,-0.430,0.000,0.000,0.000
1641195535756123904,2022-01-03-07:38:55,10.1.1.4,174,-0.440,-0.440,-0.440,0.000,0.000,0.000
1641195535968718080,2022-01-03-07:38:55,10.1.1.4,186,-0.450,-0.450,-0.450,0.000,0.000,0.000
1641195536154931968,2022-01-03-07:38:56,10.1.1.4,170,-0.460,-0.460,-0.460,0.000,0.000,0.000
1641195536356389120,2022-01-03-07:38:56,10.1.1.4,171,-0.470,-0.470,-0.470,0.000,0.000,0.000
1641195536554040064,2022-01-03-07:38:56,10.1.1.4,168,-0.480,-0.480,-0.480,0.000,0.000,0.000
1641195536755409920,2022-01-03-07:38:56,10.1.1.4,168,-0.490,-0.490,-0.490,0.000,0.000,0.000
1641195536955204096,2022-01-03-07:38:56,10.1.1.4,166,-0.480,-0.480,-0.480,0.000,0.000,0.000
1641195537155606016,2022-01-03-07:38:57,10.1.1.4,166,-0.470,-0.470,-0.470,0.000,0.000,0.000
1641195537352619008,2022-01-03-07:38:57,10.1.1.4,162,-0.460,-0.460,-0.460,0.000,0.000,0.000
1641195537552568832,2022-01-03-07:38:57,10.1.1.4,161,-0.450,-0.450,-0.450,0.000,0.000,0.000
1641195537753050112,2022-01-03-07:38:57,10.1.1.4,161,-0.440,-0.440,-0.440,0.000,0.000,0.000
1641195537952006144,2022-01-03-07:38:57,10.1.1.4,158,-0.430,-0.430,-0.430,0.000,0.000,0.000
1641195538171980032,2022-01-03-07:38:58,10.1.1.4,176,-0.420,-0.420,-0.420,0.000,0.000,0.000
1641195538373303040,2022-01-03-07:38:58,10.1.1.4,177,-0.410,-0.410,-0.410,0.000,0.000,0.000
1641195538570318080,2022-01-03-07:38:58,10.1.1.4,174,-0.400,-0.400,-0.400,0.000,0.000,0.000
1641195538773009920,2022-01-03-07:38:58,10.1.1.4,175,-0.390,-0.390,-0.390,0.000,0.000,0.000
1641195538971081984,2022-01-03-07:38:58,10.1.1.4,169,-0.380,-0.380,-0.380,0.000,0.000,0.000
1641195539170875904,2022-01-03-07:38:59,10.1.1.4,167,-0.370,-0.370,-0.370,0.000,0.000,0.000
1641195539373235968,2022-01-03-07:38:59,10.1.1.4,167,-0.360,-0.360,-0.360,0.000,0.000,0.000
1641195539577807872,2022-01-03-07:38:59,10.1.1.4,170,-0.350,-0.350,-0.350,0.000,0.000,0.000
1641195539776168960,2022-01-03-07:38:59,10.1.1.4,166,-0.340,-0.340,-0.340,0.000,0.000,0.000
1641195539975593984,2022-01-03-07:38:59,10.1.1.4,164,-0.330,-0.330,-0.330,0.000,0.000,0.000
1641195540180090880,2022-01-03-07:39:00,10.1.1.4,168,-0.320,-0.320,-0.320,0.000,0.000,0.000
1641195540377931008,2022-01-03-07:39:00,10.1.1.4,164,-0.310,-0.310,-0.310,0.000,0.000,0.000
1641195540598708992,2022-01-03-07:39:00,10.1.1.4,180,-0.300,-0.300,-0.300,0.000,0.000,0.000
1641195540800664832,2022-01-03-07:39:00,10.1.1.4,181,-0.290,-0.290,-0.290,0.000,0.000,0.000
1641195541001549056,2022-01-03-07:39:01,10.1.1.4,179,-0.280,-0.280,-0.280,0.000,0.000,0.000
1641195541207341824,2022-01-03-07:39:01,10.1.1.4,183,-0.270,-0.270,-0.270,0.000,0.000,0.000
1641195541404041984,2022-01-03-07:39:01,10.1.1.4,176,-0.260,-0.260,-0.260,0.000,0.000,0.000
1641195541603773952,2022-01-03-07:39:01,10.1.1.4,175,-0.250,-0.250,-0.250,0.000,0.000,0.000
1641195541803528192,2022-01-03-07:39:01,10.1.1.4,173,-0.240,-0.240,-0.240,0.000,0.000,0.000
1641195542005620992,2022-01-03-07:39:02,10.1.1.4,175,-0.230,-0.230,-0.230,0.000,0.000,0.000
1641195542206630912,2022-01-03-07:39:02,10.1.1.4,175,-0.220,-0.220,-0.220,0.000,0.000,0.000
1641195542404321024,2022-01-03-07:39:02,10.1.1.4,172,-0.210,-0.210,-0.210,0.000,0.000,0.000
1641195542608846848,2022-01-03-07:39:02,10.1.1.4,174,-0.200,-0.200,-0.200,0.000,0.000,0.000
1641195542825434880,2022-01-03-07:39:02,10.1.1.4,189,-0.190,-0.190,-0.190,0.000,0.000,0.000
1641195543029925120,2022-01-03-07:39:03,10.1.1.4,192,-0.180,-0.180,-0.180,0.000,0.000,0.000
1641195543228921856,2022-01-03-07:39:03,10.1.1.4,192,-0.170,-0.170,-0.170,0.000,0.000,0.000
1641195543426999040,2022-01-03-07:39:03,10.1.1.4,189,-0.160,-0.160,-0.160,0.000,0.000,0.000
1641195543634999040,2022-01-03-07:39:03,10.1.1.4,196,-0.150,-0.150,-0.150,0.000,0.000,0.000
1641195543832015872,2022-01-03-07:39:03,10.1.1.4,192,-0.140,-0.140,-0.140,0.000,0.000,0.000
1641195544030308864,2022-01-03-07:39:04,10.1.1.4,188,-0.130,-0.130,-0.130,0.000,0.000,0.000
1641195544231832064,2022-01-03-07:39:04,10.1.1.4,188,-0.120,-0.120,-0.120,0.000,0.000,0.000
1641195544436569856,2022-01-03-07:39:04,10.1.1.4,192,-0.110,-0.110,-0.110,0.000,0.000,0.000
1641195544630042112,2022-01-03-07:39:04,10.1.1.4,184,-0.100,-0.100,-0.100,0.000,0.000,0.000
1641195544833964032,2022-01-03-07:39:04,10.1.1.4,188,-0.090,-0.090,-0.090,0.000,0.000,0.000
1641195545031311104,2022-01-03-07:39:05,10.1.1.4,185,-0.080,-0.080,-0.080,0.000,0.000,0.000
1641195545232295936,2022-01-03-07:39:05,10.1.1.4,185,-0.070,-0.070,-0.070,0.000,0.000,0.000
1641195545432129024,2022-01-03-07:39:05,10.1.1.4,184,-0.060,-0.060,-0.060,0.000,0.000,0.000
1641195545634018048,2022-01-03-07:39:05,10.1.1.4,185,-0.050,-0.050,-0.050,0.000,0.000,0.000
1641195545831912960,2022-01-03-07:39:05,10.1.1.4,182,-0.040,-0.040,-0.040,0.000,0.000,0.000
1641195546035384832,2022-01-03-07:39:06,10.1.1.4,185,-0.030,-0.030,-0.030,0.000,0.000,0.000
1641195546232811008,2022-01-03-07:39:06,10.1.1.4,181,-0.020,-0.020,-0.020,0.000,0.000,0.000
1641195546431354880,2022-01-03-07:39:06,10.1.1.4,179,-0.010,-0.010,-0.010,0.000,0.000,0.000
1641195546632133120,2022-01-03-07:39:06,10.1.1.4,179,0.000,0.000,0.000,0.000,0.000,0.000
1641195546835983104,2022-01-03-07:39:06,10.1.1.4,182,-0.010,-0.010,-0.010,0.000,0.000,0.000
1641195547035799040,2022-01-03-07:39:07,10.1.1.4,181,-0.020,-0.020,-0.020,0.000,0.000,0.000
1641195547255533824,2022-01-03-07:39:07,10.1.1.4,197,-0.030,-0.030,-0.030,0.000,0.000,0.000
1641195547453728000,2022-01-03-07:39:07,10.1.1.4,194,-0.040,-0.040,-0.040,0.000,0.000,0.000
1641195547653012992,2022-01-03-07:39:07,10.1.1.4,193,-0.050,-0.050,-0.050,0.000,0.000,0.000
1641195547853651968,2022-01-03-07:39:07,10.1.1.4,193,-0.060,-0.060,-0.060,0.000,0.000,0.000
1641195548054994176,2022-01-03-07:39:08,10.1.1.4,193,-0.070,-0.070,-0.070,0.000,0.000,0.000
1641195548253871872,2022-01-03-07:39:08,10.1.1.4,191,-0.080,-0.080,-0.080,0.000,0.000,0.000
1641195548455014912,2022-01-03-07:39:08,10.1.1.4,190,-0.090,-0.090,-0.090,0.000,0.000,0.000
1641195548657624064,2022-01-03-07:39:08,10.1.1.4,192,-0.100,-0.100,-0.100,0.000,0.000,0.000
1641195548853532928,2022-01-03-07:39:08,10.1.1.4,186,-0.110,-0.110,-0.110,0.000,0.000,0.000
1641195549056835840,2022-01-03-07:39:09,10.1.1.4,187,-0.120,-0.120,-0.120,0.000,0.000,0.000
1641195549254276096,2022-01-03-07:39:09,10.1.1.4,184,-0.130,-0.130,-0.130,0.000,0.000,0.000
1641195549456249088,2022-01-03-07:39:09,10.1.1.4,184,-0.140,-0.140,-0.140,0.000,0.000,0.000
1641195549654022912,2022-01-03-07:39:09,10.1.1.4,180,-0.150,-0.150,-0.150,0.000,0.000,0.000
1641195549877507840,2022-01-03-07:39:09,10.1.1.4,201,-0.160,-0.160,-0.160,0.000,0.000,0.000
1641195550074935040,2022-01-03-07:39:10,10.1.1.4,195,-0.170,-0.170,-0.170,0.000,0.000,0.000
1641195550273278976,2022-01-03-07:39:10,10.1.1.4,193,-0.180,-0.180,-0.180,0.000,0.000,0.000
1641195550480968960,2022-01-03-07:39:10,10.1.1.4,198,-0.190,-0.190,-0.190,0.000,0.000,0.000
1641195550676328960,2022-01-03-07:39:10,10.1.1.4,194,-0.200,-0.200,-0.200,0.000,0.000,0.000
1641195550874236160,2022-01-03-07:39:10,10.1.1.4,191,-0.210,-0.210,-0.210,0.000,0.000,0.000
1641195551077775872,2022-01-03-07:39:11,10.1.1.4,193,-0.220,-0.220,-0.220,0.000,0.000,0.000
1641195551278265088,2022-01-03-07:39:11,10.1.1.4,193,-0.230,-0.230,-0.230,0.000,0.000,0.000
1641195551475481088,2022-01-03-07:39:11,10.1.1.4,187,-0.240,-0.240,-0.240,0.000,0.000,0.000
1641195551678958848,2022-01-03-07:39:11,10.1.1.4,190,-0.250,-0.250,-0.250,0.000,0.000,0.000
1641195551873126144,2022-01-03-07:39:11,10.1.1.4,184,-0.260,-0.260,-0.260,0.000,0.000,0.000
1641195552074311936,2022-01-03-07:39:12,10.1.1.4,184,-0.270,-0.270,-0.270,0.000,0.000,0.000
1641195552274436096,2022-01-03-07:39:12,10.1.1.4,184,-0.280,-0.280,-0.280,0.000,0.000,0.000
1641195552473025024,2022-01-03-07:39:12,10.1.1.4,182,-0.290,-0.290,-0.290,0.000,0.000,0.000
1641195552675966976,2022-01-03-07:39:12,10.1.1.4,184,-0.300,-0.300,-0.300,0.000,0.000,0.000
1641195552872720896,2022-01-03-07:39:12,10.1.1.4,179,-0.310,-0.310,-0.310,0.000,0.000,0.000
1641195553076335872,2022-01-03-07:39:13,10.1.1.4,181,-0.320,-0.320,-0.320,0.000,0.000,0.000
1641195553293746944,2022-01-03-07:39:13,10.1.1.4,198,-0.330,-0.330,-0.330,0.000,0.000,0.000
1641195553493648128,2022-01-03-07:39:13,10.1.1.4,197,-0.340,-0.340,-0.340,0.000,0.000,0.000
1641195553694199040,2022-01-03-07:39:13,10.1.1.4,197,-0.350,-0.350,-0.350,0.000,0.000,0.000
1641195553894570240,2022-01-03-07:39:13,10.1.1.4,197,-0.360,-0.360,-0.360,0.000,0.000,0.000
1641195554095972096,2022-01-03-07:39:14,10.1.1.4,197,-0.370,-0.370,-0.370,0.000,0.000,0.000
1641195554292944896,2022-01-03-07:39:14,10.1.1.4,194,-0.380,-0.380,-0.380,0.000,0.000,0.000
1641195554493647104,2022-01-03-07:39:14,10.1.1.4,194,-0.390,-0.390,-0.390,0.000,0.000,0.000
1641195554693240832,2022-01-03-07:39:14,10.1.1.4,192,-0.400,-0.400,-0.400,0.000,0.000,0.000
1641195554891268864,2022-01-03-07:39:14,10.1.1.4,188,-0.410,-0.410,-0.410,0.000,0.000,0.000
1641195555091703040,2022-01-03-07:39:15,10.1.1.4,187,-0.420,-0.420,-0.420,0.000,0.000,0.000
1641195555292096000,2022-01-03-07:39:15,10.1.1.4,182,-0.430,-0.430,-0.430,0.000,0.000,0.000
1641195555490999040,2022-01-03-07:39:15,10.1.1.4,181,-0.440,-0.440,-0.440,0.000,0.000,0.000
1641195555692080896,2022-01-03-07:39:15,10.1.1.4,180,-0.450,-0.450,-0.450,0.000,0.000,0.000
1641195555892400896,2022-01-03-07:39:15,10.1.1.4,180,-0.460,-0.460,-0.460,0.000,0.000,0.000
1641195556097761024,2022-01-03-07:39:16,10.1.1.4,184,-0.470,-0.470,-0.470,0.000,0.000,0.000
1641195556291589120,2022-01-03-07:39:16,10.1.1.4,176,-0.480,-0.480,-0.480,0.000,0.000,0.000
1641195556511132928,2022-01-03-07:39:16,10.1.1.4,195,-0.490,-0.490,-0.490,0.000,0.000,0.000
1641195556710633984,2022-01-03-07:39:16,10.1.1.4,193,-0.480,-0.480,-0.480,0.000,0.000,0.000
1641195556911766016,2022-01-03-07:39:16,10.1.1.4,194,-0.470,-0.470,-0.470,0.000,0.000,0.000
1641195557109446912,2022-01-03-07:39:17,10.1.1.4,191,-0.460,-0.460,-0.460,0.000,0.000,0.000
1641195557311708928,2022-01-03-07:39:17,10.1.1.4,189,-0.450,-0.450,-0.450,0.000,0.000,0.000
1641195557510504960,2022-01-03-07:39:17,10.1.1.4,188,-0.440,-0.440,-0.440,0.000,0.000,0.000
1641195557709225984,2022-01-03-07:39:17,10.1.1.4,183,-0.430,-0.430,-0.430,0.000,0.000,0.000
1641195558108658944,2022-01-03-07:39:18,10.1.1.4,180,-0.410,-0.410,-0.410,0.000,0.000,0.000
1641195558308460032,2022-01-03-07:39:18,10.1.1.4,180,-0.400,-0.400,-0.400,0.000,0.000,0.000
1641195558507869952,2022-01-03-07:39:18,10.1.1.4,178,-0.390,-0.390,-0.390,0.000,0.000,0.000
1641195558707405056,2022-01-03-07:39:18,10.1.1.4,177,-0.380,-0.380,-0.380,0.000,0.000,0.000
1641195558908922880,2022-01-03-07:39:18,10.1.1.4,177,-0.370,-0.370,-0.370,0.000,0.000,0.000
1641195559106718976,2022-01-03-07:39:19,10.1.1.4,175,-0.360,-0.360,-0.360,0.000,0.000,0.000
1641195559306665984,2022-01-03-07:39:19,10.1.1.4,174,-0.350,-0.350,-0.350,0.000,0.000,0.000
1641195559506201088,2022-01-03-07:39:19,10.1.1.4,173,-0.340,-0.340,-0.340,0.000,0.000,0.000
1641195559705785088,2022-01-03-07:39:19,10.1.1.4,172,-0.330,-0.330,-0.330,0.000,0.000,0.000
1641195559907144960,2022-01-03-07:39:19,10.1.1.4,173,-0.320,-0.320,-0.320,0.000,0.000,0.000
1641195560117499136,2022-01-03-07:39:20,10.1.1.4,183,-0.310,-0.310,-0.310,0.000,0.000,0.000
1641195560328476928,2022-01-03-07:39:20,10.1.1.4,191,-0.300,-0.300,-0.300,0.000,0.000,0.000
1641195560527401984,2022-01-03-07:39:20,10.1.1.4,189,-0.290,-0.290,-0.290,0.000,0.000,0.000
1641195560724311040,2022-01-03-07:39:20,10.1.1.4,185,-0.280,-0.280,-0.280,0.000,0.000,0.000
1641195560925111040,2022-01-03-07:39:20,10.1.1.4,185,-0.270,-0.270,-0.270,0.000,0.000,0.000
1641195561128418816,2022-01-03-07:39:21,10.1.1.4,187,-0.260,-0.260,-0.260,0.000,0.000,0.000
1641195561325624832,2022-01-03-07:39:21,10.1.1.4,183,-0.250,-0.250,-0.250,0.000,0.000,0.000
1641195561527928064,2022-01-03-07:39:21,10.1.1.4,184,-0.240,-0.240,-0.240,0.000,0.000,0.000
1641195561724855040,2022-01-03-07:39:21,10.1.1.4,180,-0.230,-0.230,-0.230,0.000,0.000,0.000
1641195561926984960,2022-01-03-07:39:21,10.1.1.4,178,-0.220,-0.220,-0.220,0.000,0.000,0.000
1641195562128068096,2022-01-03-07:39:22,10.1.1.4,178,-0.210,-0.210,-0.210,0.000,0.000,0.000
1641195562323262976,2022-01-03-07:39:22,10.1.1.4,173,-0.200,-0.200,-0.200,0.000,0.000,0.000
1641195562524518912,2022-01-03-07:39:22,10.1.1.4,173,-0.190,-0.190,-0.190,0.000,0.000,0.000
1641195562746036992,2022-01-03-07:39:22,10.1.1.4,195,-0.180,-0.180,-0.180,0.000,0.000,0.000
1641195562921782016,2022-01-03-07:39:22,10.1.1.4,170,-0.170,-0.170,-0.170,0.000,0.000,0.000
1641195563123917056,2022-01-03-07:39:23,10.1.1.4,169,-0.160,-0.160,-0.160,0.000,0.000,0.000
1641195563324027904,2022-01-03-07:39:23,10.1.1.4,170,-0.150,-0.150,-0.150,0.000,0.000,0.000
1641195563523580160,2022-01-03-07:39:23,10.1.1.4,169,-0.140,-0.140,-0.140,0.000,0.000,0.000
1641195563723297024,2022-01-03-07:39:23,10.1.1.4,168,-0.130,-0.130,-0.130,0.000,0.000,0.000
1641195563942769920,2022-01-03-07:39:23,10.1.1.4,185,-0.120,-0.120,-0.120,0.000,0.000,0.000
1641195564144167936,2022-01-03-07:39:24,10.1.1.4,184,-0.110,-0.110,-0.110,0.000,0.000,0.000
1641195564342060032,2022-01-03-07:39:24,10.1.1.4,183,-0.100,-0.100,-0.100,0.000,0.000,0.000
1641195564540039168,2022-01-03-07:39:24,10.1.1.4,175,-0.090,-0.090,-0.090,0.000,0.000,0.000
1641195564744192000,2022-01-03-07:39:24,10.1.1.4,178,-0.080,-0.080,-0.080,0.000,0.000,0.000
1641195564939283968,2022-01-03-07:39:24,10.1.1.4,173,-0.070,-0.070,-0.070,0.000,0.000,0.000
1641195565144815872,2022-01-03-07:39:25,10.1.1.4,178,-0.060,-0.060,-0.060,0.000,0.000,0.000
1641195565341101056,2022-01-03-07:39:25,10.1.1.4,173,-0.050,-0.050,-0.050,0.000,0.000,0.000
1641195565537859072,2022-01-03-07:39:25,10.1.1.4,166,-0.040,-0.040,-0.040,0.000,0.000,0.000
1641195565744704000,2022-01-03-07:39:25,10.1.1.4,172,-0.030,-0.030,-0.030,0.000,0.000,0.000
1641195565937289984,2022-01-03-07:39:25,10.1.1.4,163,-0.020,-0.020,-0.020,0.000,0.000,0.000
1641195566140209920,2022-01-03-07:39:26,10.1.1.4,165,-0.010,-0.010,-0.010,0.000,0.000,0.000
1641195566363291904,2022-01-03-07:39:26,10.1.1.4,184,0.000,0.000,0.000,0.000,0.000,0.000
1641195566556536832,2022-01-03-07:39:26,10.1.1.4,178,-0.010,-0.010,-0.010,0.000,0.000,0.000
1641195566763799040,2022-01-03-07:39:26,10.1.1.4,177,-0.020,-0.020,-0.020,0.000,0.000,0.000
1641195566956818944,2022-01-03-07:39:26,10.1.1.4,175,-0.030,-0.030,-0.030,0.000,0.000,0.000
1641195567155354112,2022-01-03-07:39:27,10.1.1.4,173,-0.040,-0.040,-0.040,0.000,0.000,0.000
1641195567357675008,2022-01-03-07:39:27,10.1.1.4,175,-0.050,-0.050,-0.050,0.000,0.000,0.000
1641195567554828800,2022-01-03-07:39:27,10.1.1.4,171,-0.060,-0.060,-0.060,0.000,0.000,0.000
1641195567756795904,2022-01-03-07:39:27,10.1.1.4,172,-0.070,-0.070,-0.070,0.000,0.000,0.000
