FedericoMungari/DigitalTwin_service/01_WiredScenario/Output/Output_script/script_rosapi_2_output_robots2_freq0_2.txt
timestamp,date,node,latency,joint_1,joint_2,joint_3,joint_4,joint_5,joint_6
1641069091160339200,2022-01-01-20:31:31,10.1.1.3,180,-0.010,-0.010,-0.010,0.000,0.000,0.000
1641069091359767040,2022-01-01-20:31:31,10.1.1.3,179,-0.020,-0.020,-0.020,0.000,0.000,0.000
1641069091559910144,2022-01-01-20:31:31,10.1.1.3,178,-0.030,-0.030,-0.030,0.000,0.000,0.000
1641069091758941952,2022-01-01-20:31:31,10.1.1.3,176,-0.040,-0.040,-0.040,0.000,0.000,0.000
1641069091981357056,2022-01-01-20:31:31,10.1.1.3,197,-0.050,-0.050,-0.050,0.000,0.000,0.000
1641069092177602048,2022-01-01-20:31:32,10.1.1.3,192,-0.060,-0.060,-0.060,0.000,0.000,0.000
1641069092384571904,2022-01-01-20:31:32,10.1.1.3,199,-0.070,-0.070,-0.070,0.000,0.000,0.000
1641069092577644032,2022-01-01-20:31:32,10.1.1.3,191,-0.080,-0.080,-0.080,0.000,0.000,0.000
1641069092777576960,2022-01-01-20:31:32,10.1.1.3,189,-0.090,-0.090,-0.090,0.000,0.000,0.000
1641069092976958976,2022-01-01-20:31:32,10.1.1.3,188,-0.100,-0.100,-0.100,0.000,0.000,0.000
1641069093176894976,2022-01-01-20:31:33,10.1.1.3,187,-0.110,-0.110,-0.110,0.000,0.000,0.000
1641069093376941824,2022-01-01-20:31:33,10.1.1.3,186,-0.120,-0.120,-0.120,0.000,0.000,0.000
1641069093587297792,2022-01-01-20:31:33,10.1.1.3,194,-0.130,-0.130,-0.130,0.000,0.000,0.000
1641069093777026048,2022-01-01-20:31:33,10.1.1.3,183,-0.140,-0.140,-0.140,0.000,0.000,0.000
1641069093976161024,2022-01-01-20:31:33,10.1.1.3,180,-0.150,-0.150,-0.150,0.000,0.000,0.000
1641069094175745024,2022-01-01-20:31:34,10.1.1.3,178,-0.160,-0.160,-0.160,0.000,0.000,0.000
1641069094377079040,2022-01-01-20:31:34,10.1.1.3,178,-0.170,-0.170,-0.170,0.000,0.000,0.000
1641069094575793920,2022-01-01-20:31:34,10.1.1.3,176,-0.180,-0.180,-0.180,0.000,0.000,0.000
1641069094795526912,2022-01-01-20:31:34,10.1.1.3,191,-0.190,-0.190,-0.190,0.000,0.000,0.000
1641069094995496960,2022-01-01-20:31:34,10.1.1.3,189,-0.200,-0.200,-0.200,0.000,0.000,0.000
1641069095194767104,2022-01-01-20:31:35,10.1.1.3,188,-0.210,-0.210,-0.210,0.000,0.000,0.000
1641069095394212864,2022-01-01-20:31:35,10.1.1.3,186,-0.220,-0.220,-0.220,0.000,0.000,0.000
1641069095595084032,2022-01-01-20:31:35,10.1.1.3,186,-0.230,-0.230,-0.230,0.000,0.000,0.000
1641069095793869056,2022-01-01-20:31:35,10.1.1.3,184,-0.240,-0.240,-0.240,0.000,0.000,0.000
1641069095994971904,2022-01-01-20:31:35,10.1.1.3,184,-0.250,-0.250,-0.250,0.000,0.000,0.000
1641069096194281984,2022-01-01-20:31:36,10.1.1.3,179,-0.260,-0.260,-0.260,0.000,0.000,0.000
1641069096392491008,2022-01-01-20:31:36,10.1.1.3,177,-0.270,-0.270,-0.270,0.000,0.000,0.000
1641069096592272128,2022-01-01-20:31:36,10.1.1.3,176,-0.280,-0.280,-0.280,0.000,0.000,0.000
1641069096793144064,2022-01-01-20:31:36,10.1.1.3,176,-0.290,-0.290,-0.290,0.000,0.000,0.000
1641069096992358912,2022-01-01-20:31:36,10.1.1.3,173,-0.300,-0.300,-0.300,0.000,0.000,0.000
1641069097205182976,2022-01-01-20:31:37,10.1.1.3,182,-0.310,-0.310,-0.310,0.000,0.000,0.000
1641069097395589120,2022-01-01-20:31:37,10.1.1.3,169,-0.320,-0.320,-0.320,0.000,0.000,0.000
1641069097615789824,2022-01-01-20:31:37,10.1.1.3,188,-0.330,-0.330,-0.330,0.000,0.000,0.000
1641069097815165952,2022-01-01-20:31:37,10.1.1.3,186,-0.340,-0.340,-0.340,0.000,0.000,0.000
1641069098014043136,2022-01-01-20:31:38,10.1.1.3,184,-0.350,-0.350,-0.350,0.000,0.000,0.000
1641069098214315776,2022-01-01-20:31:38,10.1.1.3,183,-0.360,-0.360,-0.360,0.000,0.000,0.000
1641069098413940992,2022-01-01-20:31:38,10.1.1.3,181,-0.370,-0.370,-0.370,0.000,0.000,0.000
1641069098613810944,2022-01-01-20:31:38,10.1.1.3,180,-0.380,-0.380,-0.380,0.000,0.000,0.000
1641069098813553152,2022-01-01-20:31:38,10.1.1.3,179,-0.390,-0.390,-0.390,0.000,0.000,0.000
1641069099013320960,2022-01-01-20:31:39,10.1.1.3,177,-0.400,-0.400,-0.400,0.000,0.000,0.000
1641069099212061952,2022-01-01-20:31:39,10.1.1.3,176,-0.410,-0.410,-0.410,0.000,0.000,0.000
1641069099412886016,2022-01-01-20:31:39,10.1.1.3,176,-0.420,-0.420,-0.420,0.000,0.000,0.000
1641069099612615168,2022-01-01-20:31:39,10.1.1.3,174,-0.430,-0.430,-0.430,0.000,0.000,0.000
1641069099811926016,2022-01-01-20:31:39,10.1.1.3,173,-0.440,-0.440,-0.440,0.000,0.000,0.000
1641069100011485952,2022-01-01-20:31:40,10.1.1.3,171,-0.450,-0.450,-0.450,0.000,0.000,0.000
1641069100212850944,2022-01-01-20:31:40,10.1.1.3,168,-0.460,-0.460,-0.460,0.000,0.000,0.000
1641069100410907136,2022-01-01-20:31:40,10.1.1.3,166,-0.470,-0.470,-0.470,0.000,0.000,0.000
1641069100610501120,2022-01-01-20:31:40,10.1.1.3,165,-0.480,-0.480,-0.480,0.000,0.000,0.000
1641069100810905088,2022-01-01-20:31:40,10.1.1.3,164,-0.490,-0.490,-0.490,0.000,0.000,0.000
1641069101009753088,2022-01-01-20:31:41,10.1.1.3,163,-0.480,-0.480,-0.480,0.000,0.000,0.000
1641069101230758912,2022-01-01-20:31:41,10.1.1.3,183,-0.470,-0.470,-0.470,0.000,0.000,0.000
1641069101429022976,2022-01-01-20:31:41,10.1.1.3,180,-0.460,-0.460,-0.460,0.000,0.000,0.000
1641069101628966144,2022-01-01-20:31:41,10.1.1.3,178,-0.450,-0.450,-0.450,0.000,0.000,0.000
1641069101828605952,2022-01-01-20:31:41,10.1.1.3,177,-0.440,-0.440,-0.440,0.000,0.000,0.000
1641069102029103872,2022-01-01-20:31:42,10.1.1.3,177,-0.430,-0.430,-0.430,0.000,0.000,0.000
1641069102228774144,2022-01-01-20:31:42,10.1.1.3,176,-0.420,-0.420,-0.420,0.000,0.000,0.000
1641069102429972992,2022-01-01-20:31:42,10.1.1.3,176,-0.410,-0.410,-0.410,0.000,0.000,0.000
1641069102627104000,2022-01-01-20:31:42,10.1.1.3,172,-0.400,-0.400,-0.400,0.000,0.000,0.000
1641069102826808064,2022-01-01-20:31:42,10.1.1.3,171,-0.390,-0.390,-0.390,0.000,0.000,0.000
1641069103026771968,2022-01-01-20:31:43,10.1.1.3,170,-0.380,-0.380,-0.380,0.000,0.000,0.000
1641069103228491008,2022-01-01-20:31:43,10.1.1.3,171,-0.370,-0.370,-0.370,0.000,0.000,0.000
1641069103426105856,2022-01-01-20:31:43,10.1.1.3,167,-0.360,-0.360,-0.360,0.000,0.000,0.000
1641069103626990080,2022-01-01-20:31:43,10.1.1.3,166,-0.350,-0.350,-0.350,0.000,0.000,0.000
1641069103826030848,2022-01-01-20:31:43,10.1.1.3,161,-0.340,-0.340,-0.340,0.000,0.000,0.000
1641069104027049984,2022-01-01-20:31:44,10.1.1.3,160,-0.330,-0.330,-0.330,0.000,0.000,0.000
1641069104226150912,2022-01-01-20:31:44,10.1.1.3,160,-0.320,-0.320,-0.320,0.000,0.000,0.000
1641069104425061888,2022-01-01-20:31:44,10.1.1.3,157,-0.310,-0.310,-0.310,0.000,0.000,0.000
1641069104625560064,2022-01-01-20:31:44,10.1.1.3,156,-0.300,-0.300,-0.300,0.000,0.000,0.000
1641069104845406976,2022-01-01-20:31:44,10.1.1.3,176,-0.290,-0.290,-0.290,0.000,0.000,0.000
1641069105042948864,2022-01-01-20:31:45,10.1.1.3,173,-0.280,-0.280,-0.280,0.000,0.000,0.000
1641069105243390208,2022-01-01-20:31:45,10.1.1.3,173,-0.270,-0.270,-0.270,0.000,0.000,0.000
1641069105443845120,2022-01-01-20:31:45,10.1.1.3,172,-0.260,-0.260,-0.260,0.000,0.000,0.000
1641069105642287872,2022-01-01-20:31:45,10.1.1.3,169,-0.250,-0.250,-0.250,0.000,0.000,0.000
1641069105841646080,2022-01-01-20:31:45,10.1.1.3,168,-0.240,-0.240,-0.240,0.000,0.000,0.000
1641069106040956928,2022-01-01-20:31:46,10.1.1.3,167,-0.230,-0.230,-0.230,0.000,0.000,0.000
1641069106242366976,2022-01-01-20:31:46,10.1.1.3,167,-0.220,-0.220,-0.220,0.000,0.000,0.000
1641069106445202944,2022-01-01-20:31:46,10.1.1.3,169,-0.210,-0.210,-0.210,0.000,0.000,0.000
1641069106644365056,2022-01-01-20:31:46,10.1.1.3,168,-0.200,-0.200,-0.200,0.000,0.000,0.000
1641069106846100992,2022-01-01-20:31:46,10.1.1.3,168,-0.190,-0.190,-0.190,0.000,0.000,0.000
1641069107047241984,2022-01-01-20:31:47,10.1.1.3,168,-0.180,-0.180,-0.180,0.000,0.000,0.000
1641069107248862976,2022-01-01-20:31:47,10.1.1.3,169,-0.170,-0.170,-0.170,0.000,0.000,0.000
1641069107449522944,2022-01-01-20:31:47,10.1.1.3,168,-0.160,-0.160,-0.160,0.000,0.000,0.000
1641069107649511936,2022-01-01-20:31:47,10.1.1.3,168,-0.150,-0.150,-0.150,0.000,0.000,0.000
1641069107850970112,2022-01-01-20:31:47,10.1.1.3,165,-0.140,-0.140,-0.140,0.000,0.000,0.000
1641069108052349952,2022-01-01-20:31:48,10.1.1.3,165,-0.130,-0.130,-0.130,0.000,0.000,0.000
1641069108272638976,2022-01-01-20:31:48,10.1.1.3,185,-0.120,-0.120,-0.120,0.000,0.000,0.000
1641069108472497920,2022-01-01-20:31:48,10.1.1.3,184,-0.110,-0.110,-0.110,0.000,0.000,0.000
1641069108673252096,2022-01-01-20:31:48,10.1.1.3,184,-0.100,-0.100,-0.100,0.000,0.000,0.000
1641069108874490880,2022-01-01-20:31:48,10.1.1.3,182,-0.090,-0.090,-0.090,0.000,0.000,0.000
1641069109075552000,2022-01-01-20:31:49,10.1.1.3,182,-0.080,-0.080,-0.080,0.000,0.000,0.000
1641069109276561920,2022-01-01-20:31:49,10.1.1.3,182,-0.070,-0.070,-0.070,0.000,0.000,0.000
1641069109477179136,2022-01-01-20:31:49,10.1.1.3,181,-0.060,-0.060,-0.060,0.000,0.000,0.000
1641069109677064960,2022-01-01-20:31:49,10.1.1.3,180,-0.050,-0.050,-0.050,0.000,0.000,0.000
1641069109878212096,2022-01-01-20:31:49,10.1.1.3,180,-0.040,-0.040,-0.040,0.000,0.000,0.000
1641069110078778112,2022-01-01-20:31:50,10.1.1.3,179,-0.030,-0.030,-0.030,0.000,0.000,0.000
1641069110279376128,2022-01-01-20:31:50,10.1.1.3,179,-0.020,-0.020,-0.020,0.000,0.000,0.000
1641069110479762176,2022-01-01-20:31:50,10.1.1.3,177,-0.010,-0.010,-0.010,0.000,0.000,0.000
1641069110680504064,2022-01-01-20:31:50,10.1.1.3,177,0.000,0.000,0.000,0.000,0.000,0.000
1641069110880525056,2022-01-01-20:31:50,10.1.1.3,176,-0.010,-0.010,-0.010,0.000,0.000,0.000
1641069111080728064,2022-01-01-20:31:51,10.1.1.3,176,-0.020,-0.020,-0.020,0.000,0.000,0.000
1641069111281070080,2022-01-01-20:31:51,10.1.1.3,175,-0.030,-0.030,-0.030,0.000,0.000,0.000
1641069111481015040,2022-01-01-20:31:51,10.1.1.3,174,-0.040,-0.040,-0.040,0.000,0.000,0.000
1641069111681812992,2022-01-01-20:31:51,10.1.1.3,174,-0.050,-0.050,-0.050,0.000,0.000,0.000
1641069111902488832,2022-01-01-20:31:51,10.1.1.3,193,-0.060,-0.060,-0.060,0.000,0.000,0.000
1641069112102663168,2022-01-01-20:31:52,10.1.1.3,192,-0.070,-0.070,-0.070,0.000,0.000,0.000
1641069112303003904,2022-01-01-20:31:52,10.1.1.3,191,-0.080,-0.080,-0.080,0.000,0.000,0.000
1641069112503346944,2022-01-01-20:31:52,10.1.1.3,191,-0.090,-0.090,-0.090,0.000,0.000,0.000
1641069112703196928,2022-01-01-20:31:52,10.1.1.3,189,-0.100,-0.100,-0.100,0.000,0.000,0.000
1641069112903764992,2022-01-01-20:31:52,10.1.1.3,187,-0.110,-0.110,-0.110,0.000,0.000,0.000
1641069113104144128,2022-01-01-20:31:53,10.1.1.3,186,-0.120,-0.120,-0.120,0.000,0.000,0.000
1641069113305295872,2022-01-01-20:31:53,10.1.1.3,185,-0.130,-0.130,-0.130,0.000,0.000,0.000
1641069113504775168,2022-01-01-20:31:53,10.1.1.3,184,-0.140,-0.140,-0.140,0.000,0.000,0.000
1641069113704545024,2022-01-01-20:31:53,10.1.1.3,183,-0.150,-0.150,-0.150,0.000,0.000,0.000
1641069113905600000,2022-01-01-20:31:53,10.1.1.3,180,-0.160,-0.160,-0.160,0.000,0.000,0.000
1641069114105044992,2022-01-01-20:31:54,10.1.1.3,178,-0.170,-0.170,-0.170,0.000,0.000,0.000
1641069114324954112,2022-01-01-20:31:54,10.1.1.3,196,-0.180,-0.180,-0.180,0.000,0.000,0.000
1641069114525106944,2022-01-01-20:31:54,10.1.1.3,195,-0.190,-0.190,-0.190,0.000,0.000,0.000
1641069114727118080,2022-01-01-20:31:54,10.1.1.3,195,-0.200,-0.200,-0.200,0.000,0.000,0.000
1641069114926046976,2022-01-01-20:31:54,10.1.1.3,193,-0.210,-0.210,-0.210,0.000,0.000,0.000
1641069115126337024,2022-01-01-20:31:55,10.1.1.3,192,-0.220,-0.220,-0.220,0.000,0.000,0.000
1641069115325975808,2022-01-01-20:31:55,10.1.1.3,191,-0.230,-0.230,-0.230,0.000,0.000,0.000
1641069115525340928,2022-01-01-20:31:55,10.1.1.3,188,-0.240,-0.240,-0.240,0.000,0.000,0.000
1641069115725815040,2022-01-01-20:31:55,10.1.1.3,187,-0.250,-0.250,-0.250,0.000,0.000,0.000
1641069115926266880,2022-01-01-20:31:55,10.1.1.3,186,-0.260,-0.260,-0.260,0.000,0.000,0.000
1641069116125987072,2022-01-01-20:31:56,10.1.1.3,185,-0.270,-0.270,-0.270,0.000,0.000,0.000
1641069116326080000,2022-01-01-20:31:56,10.1.1.3,184,-0.280,-0.280,-0.280,0.000,0.000,0.000
1641069116526222848,2022-01-01-20:31:56,10.1.1.3,184,-0.290,-0.290,-0.290,0.000,0.000,0.000
1641069116726864128,2022-01-01-20:31:56,10.1.1.3,183,-0.300,-0.300,-0.300,0.000,0.000,0.000
1641069116926094080,2022-01-01-20:31:56,10.1.1.3,181,-0.310,-0.310,-0.310,0.000,0.000,0.000
1641069117126182144,2022-01-01-20:31:57,10.1.1.3,180,-0.320,-0.320,-0.320,0.000,0.000,0.000
1641069117326503936,2022-01-01-20:31:57,10.1.1.3,180,-0.330,-0.330,-0.330,0.000,0.000,0.000
1641069117546361856,2022-01-01-20:31:57,10.1.1.3,199,-0.340,-0.340,-0.340,0.000,0.000,0.000
1641069117746119936,2022-01-01-20:31:57,10.1.1.3,198,-0.350,-0.350,-0.350,0.000,0.000,0.000
1641069117946706176,2022-01-01-20:31:57,10.1.1.3,197,-0.360,-0.360,-0.360,0.000,0.000,0.000
1641069118146117888,2022-01-01-20:31:58,10.1.1.3,196,-0.370,-0.370,-0.370,0.000,0.000,0.000
1641069118346738176,2022-01-01-20:31:58,10.1.1.3,196,-0.380,-0.380,-0.380,0.000,0.000,0.000
1641069118546048000,2022-01-01-20:31:58,10.1.1.3,194,-0.390,-0.390,-0.390,0.000,0.000,0.000
1641069118746659072,2022-01-01-20:31:58,10.1.1.3,194,-0.400,-0.400,-0.400,0.000,0.000,0.000
1641069118946558976,2022-01-01-20:31:58,10.1.1.3,193,-0.410,-0.410,-0.410,0.000,0.000,0.000
1641069119146380032,2022-01-01-20:31:59,10.1.1.3,191,-0.420,-0.420,-0.420,0.000,0.000,0.000
1641069119345755136,2022-01-01-20:31:59,10.1.1.3,190,-0.430,-0.430,-0.430,0.000,0.000,0.000
1641069119545968896,2022-01-01-20:31:59,10.1.1.3,189,-0.440,-0.440,-0.440,0.000,0.000,0.000
1641069119746445056,2022-01-01-20:31:59,10.1.1.3,188,-0.450,-0.450,-0.450,0.000,0.000,0.000
1641069119945393152,2022-01-01-20:31:59,10.1.1.3,186,-0.460,-0.460,-0.460,0.000,0.000,0.000
1641069120146014976,2022-01-01-20:32:00,10.1.1.3,186,-0.470,-0.470,-0.470,0.000,0.000,0.000
1641069120347075072,2022-01-01-20:32:00,10.1.1.3,184,-0.480,-0.480,-0.480,0.000,0.000,0.000
1641069120544805888,2022-01-01-20:32:00,10.1.1.3,182,-0.490,-0.490,-0.490,0.000,0.000,0.000
1641069120745660160,2022-01-01-20:32:00,10.1.1.3,182,-0.480,-0.480,-0.480,0.000,0.000,0.000
1641069120944983040,2022-01-01-20:32:00,10.1.1.3,180,-0.470,-0.470,-0.470,0.000,0.000,0.000
1641069121144648960,2022-01-01-20:32:01,10.1.1.3,179,-0.460,-0.460,-0.460,0.000,0.000,0.000
1641069121345655808,2022-01-01-20:32:01,10.1.1.3,179,-0.450,-0.450,-0.450,0.000,0.000,0.000
1641069121564711936,2022-01-01-20:32:01,10.1.1.3,197,-0.440,-0.440,-0.440,0.000,0.000,0.000
1641069121764699904,2022-01-01-20:32:01,10.1.1.3,196,-0.430,-0.430,-0.430,0.000,0.000,0.000
1641069121966542848,2022-01-01-20:32:01,10.1.1.3,196,-0.420,-0.420,-0.420,0.000,0.000,0.000
1641069122165999872,2022-01-01-20:32:02,10.1.1.3,192,-0.410,-0.410,-0.410,0.000,0.000,0.000
1641069122365294848,2022-01-01-20:32:02,10.1.1.3,190,-0.400,-0.400,-0.400,0.000,0.000,0.000
1641069122565729024,2022-01-01-20:32:02,10.1.1.3,190,-0.390,-0.390,-0.390,0.000,0.000,0.000
1641069122763823104,2022-01-01-20:32:02,10.1.1.3,187,-0.380,-0.380,-0.380,0.000,0.000,0.000
1641069122963176960,2022-01-01-20:32:02,10.1.1.3,185,-0.370,-0.370,-0.370,0.000,0.000,0.000
1641069123162743040,2022-01-01-20:32:03,10.1.1.3,184,-0.360,-0.360,-0.360,0.000,0.000,0.000
1641069123363563008,2022-01-01-20:32:03,10.1.1.3,184,-0.350,-0.350,-0.350,0.000,0.000,0.000
1641069123563041024,2022-01-01-20:32:03,10.1.1.3,182,-0.340,-0.340,-0.340,0.000,0.000,0.000
1641069123763552000,2022-01-01-20:32:03,10.1.1.3,182,-0.330,-0.330,-0.330,0.000,0.000,0.000
1641069123963255808,2022-01-01-20:32:03,10.1.1.3,180,-0.320,-0.320,-0.320,0.000,0.000,0.000
1641069124162596096,2022-01-01-20:32:04,10.1.1.3,178,-0.310,-0.310,-0.310,0.000,0.000,0.000
1641069124361517056,2022-01-01-20:32:04,10.1.1.3,177,-0.300,-0.300,-0.300,0.000,0.000,0.000
1641069124561300992,2022-01-01-20:32:04,10.1.1.3,176,-0.290,-0.290,-0.290,0.000,0.000,0.000
1641069124761744128,2022-01-01-20:32:04,10.1.1.3,175,-0.280,-0.280,-0.280,0.000,0.000,0.000
1641069124961492992,2022-01-01-20:32:04,10.1.1.3,174,-0.270,-0.270,-0.270,0.000,0.000,0.000
1641069125181312000,2022-01-01-20:32:05,10.1.1.3,193,-0.260,-0.260,-0.260,0.000,0.000,0.000
1641069125381284864,2022-01-01-20:32:05,10.1.1.3,191,-0.250,-0.250,-0.250,0.000,0.000,0.000
1641069125580776960,2022-01-01-20:32:05,10.1.1.3,190,-0.240,-0.240,-0.240,0.000,0.000,0.000
1641069125780443904,2022-01-01-20:32:05,10.1.1.3,189,-0.230,-0.230,-0.230,0.000,0.000,0.000
1641069125979314944,2022-01-01-20:32:05,10.1.1.3,186,-0.220,-0.220,-0.220,0.000,0.000,0.000
1641069126179141120,2022-01-01-20:32:06,10.1.1.3,185,-0.210,-0.210,-0.210,0.000,0.000,0.000
1641069126379513856,2022-01-01-20:32:06,10.1.1.3,185,-0.200,-0.200,-0.200,0.000,0.000,0.000
1641069126579902976,2022-01-01-20:32:06,10.1.1.3,184,-0.190,-0.190,-0.190,0.000,0.000,0.000
1641069126779620864,2022-01-01-20:32:06,10.1.1.3,183,-0.180,-0.180,-0.180,0.000,0.000,0.000
1641069126978106880,2022-01-01-20:32:06,10.1.1.3,180,-0.170,-0.170,-0.170,0.000,0.000,0.000
1641069127178181888,2022-01-01-20:32:07,10.1.1.3,179,-0.160,-0.160,-0.160,0.000,0.000,0.000
1641069127378232064,2022-01-01-20:32:07,10.1.1.3,179,-0.150,-0.150,-0.150,0.000,0.000,0.000
1641069127577958144,2022-01-01-20:32:07,10.1.1.3,177,-0.140,-0.140,-0.140,0.000,0.000,0.000
1641069127778077952,2022-01-01-20:32:07,10.1.1.3,176,-0.130,-0.130,-0.130,0.000,0.000,0.000
1641069127977227008,2022-01-01-20:32:07,10.1.1.3,174,-0.120,-0.120,-0.120,0.000,0.000,0.000
1641069128177319168,2022-01-01-20:32:08,10.1.1.3,174,-0.110,-0.110,-0.110,0.000,0.000,0.000
1641069128376580864,2022-01-01-20:32:08,10.1.1.3,172,-0.100,-0.100,-0.100,0.000,0.000,0.000
1641069128576940032,2022-01-01-20:32:08,10.1.1.3,171,-0.090,-0.090,-0.090,0.000,0.000,0.000
1641069128796668160,2022-01-01-20:32:08,10.1.1.3,188,-0.080,-0.080,-0.080,0.000,0.000,0.000
1641069128996249088,2022-01-01-20:32:08,10.1.1.3,187,-0.070,-0.070,-0.070,0.000,0.000,0.000
1641069129196033024,2022-01-01-20:32:09,10.1.1.3,185,-0.060,-0.060,-0.060,0.000,0.000,0.000
1641069129395427072,2022-01-01-20:32:09,10.1.1.3,184,-0.050,-0.050,-0.050,0.000,0.000,0.000
1641069129594948096,2022-01-01-20:32:09,10.1.1.3,183,-0.040,-0.040,-0.040,0.000,0.000,0.000
1641069129795814144,2022-01-01-20:32:09,10.1.1.3,183,-0.030,-0.030,-0.030,0.000,0.000,0.000
1641069129993822976,2022-01-01-20:32:09,10.1.1.3,180,-0.020,-0.020,-0.020,0.000,0.000,0.000
1641069130194320896,2022-01-01-20:32:10,10.1.1.3,180,-0.010,-0.010,-0.010,0.000,0.000,0.000
1641069130394340864,2022-01-01-20:32:10,10.1.1.3,179,0.000,0.000,0.000,0.000,0.000,0.000
1641069130594657792,2022-01-01-20:32:10,10.1.1.3,177,-0.010,-0.010,-0.010,0.000,0.000,0.000
1641069130793312000,2022-01-01-20:32:10,10.1.1.3,175,-0.020,-0.020,-0.020,0.000,0.000,0.000
1641069130993069056,2022-01-01-20:32:10,10.1.1.3,173,-0.030,-0.030,-0.030,0.000,0.000,0.000
1641069131195131136,2022-01-01-20:32:11,10.1.1.3,174,-0.040,-0.040,-0.040,0.000,0.000,0.000
1641069131392337920,2022-01-01-20:32:11,10.1.1.3,170,-0.050,-0.050,-0.050,0.000,0.000,0.000
1641069131592890880,2022-01-01-20:32:11,10.1.1.3,170,-0.060,-0.060,-0.060,0.000,0.000,0.000
1641069131792377088,2022-01-01-20:32:11,10.1.1.3,168,-0.070,-0.070,-0.070,0.000,0.000,0.000
1641069131992317952,2022-01-01-20:32:11,10.1.1.3,167,-0.080,-0.080,-0.080,0.000,0.000,0.000
1641069132191938048,2022-01-01-20:32:12,10.1.1.3,165,-0.090,-0.090,-0.090,0.000,0.000,0.000
1641069132391294976,2022-01-01-20:32:12,10.1.1.3,164,-0.100,-0.100,-0.100,0.000,0.000,0.000
1641069132612043008,2022-01-01-20:32:12,10.1.1.3,184,-0.110,-0.110,-0.110,0.000,0.000,0.000
1641069132810296064,2022-01-01-20:32:12,10.1.1.3,181,-0.120,-0.120,-0.120,0.000,0.000,0.000
1641069133010448896,2022-01-01-20:32:13,10.1.1.3,180,-0.130,-0.130,-0.130,0.000,0.000,0.000
1641069133211319808,2022-01-01-20:32:13,10.1.1.3,180,-0.140,-0.140,-0.140,0.000,0.000,0.000
1641069133425818880,2022-01-01-20:32:13,10.1.1.3,189,-0.150,-0.150,-0.150,0.000,0.000,0.000
1641069133613841920,2022-01-01-20:32:13,10.1.1.3,175,-0.160,-0.160,-0.160,0.000,0.000,0.000
1641069133814349824,2022-01-01-20:32:13,10.1.1.3,174,-0.170,-0.170,-0.170,0.000,0.000,0.000
1641069134013728000,2022-01-01-20:32:14,10.1.1.3,173,-0.180,-0.180,-0.180,0.000,0.000,0.000
1641069134214821120,2022-01-01-20:32:14,10.1.1.3,171,-0.190,-0.190,-0.190,0.000,0.000,0.000
1641069134432526080,2022-01-01-20:32:14,10.1.1.3,189,-0.200,-0.200,-0.200,0.000,0.000,0.000
1641069134612341760,2022-01-01-20:32:14,10.1.1.3,167,-0.210,-0.210,-0.210,0.000,0.000,0.000
1641069134812552960,2022-01-01-20:32:14,10.1.1.3,166,-0.220,-0.220,-0.220,0.000,0.000,0.000
1641069135012305920,2022-01-01-20:32:15,10.1.1.3,165,-0.230,-0.230,-0.230,0.000,0.000,0.000
1641069135211570944,2022-01-01-20:32:15,10.1.1.3,160,-0.240,-0.240,-0.240,0.000,0.000,0.000
1641069135431038976,2022-01-01-20:32:15,10.1.1.3,178,-0.250,-0.250,-0.250,0.000,0.000,0.000
1641069135631589888,2022-01-01-20:32:15,10.1.1.3,177,-0.260,-0.260,-0.260,0.000,0.000,0.000
1641069135830288896,2022-01-01-20:32:15,10.1.1.3,175,-0.270,-0.270,-0.270,0.000,0.000,0.000
1641069136030013952,2022-01-01-20:32:16,10.1.1.3,173,-0.280,-0.280,-0.280,0.000,0.000,0.000
1641069136229732864,2022-01-01-20:32:16,10.1.1.3,172,-0.290,-0.290,-0.290,0.000,0.000,0.000
1641069136429527040,2022-01-01-20:32:16,10.1.1.3,170,-0.300,-0.300,-0.300,0.000,0.000,0.000
1641069136628993024,2022-01-01-20:32:16,10.1.1.3,168,-0.310,-0.310,-0.310,0.000,0.000,0.000
1641069136828828160,2022-01-01-20:32:16,10.1.1.3,167,-0.320,-0.320,-0.320,0.000,0.000,0.000
1641069137028749056,2022-01-01-20:32:17,10.1.1.3,166,-0.330,-0.330,-0.330,0.000,0.000,0.000
1641069137228797952,2022-01-01-20:32:17,10.1.1.3,165,-0.340,-0.340,-0.340,0.000,0.000,0.000
1641069137428284928,2022-01-01-20:32:17,10.1.1.3,164,-0.350,-0.350,-0.350,0.000,0.000,0.000
1641069137628670976,2022-01-01-20:32:17,10.1.1.3,164,-0.360,-0.360,-0.360,0.000,0.000,0.000
1641069137827510016,2022-01-01-20:32:17,10.1.1.3,160,-0.370,-0.370,-0.370,0.000,0.000,0.000
1641069138027846144,2022-01-01-20:32:18,10.1.1.3,159,-0.380,-0.380,-0.380,0.000,0.000,0.000
1641069138249345024,2022-01-01-20:32:18,10.1.1.3,179,-0.390,-0.390,-0.390,0.000,0.000,0.000
1641069138428881920,2022-01-01-20:32:18,10.1.1.3,158,-0.400,-0.400,-0.400,0.000,0.000,0.000
1641069138630712064,2022-01-01-20:32:18,10.1.1.3,159,-0.410,-0.410,-0.410,0.000,0.000,0.000
1641069138852708096,2022-01-01-20:32:18,10.1.1.3,180,-0.420,-0.420,-0.420,0.000,0.000,0.000
1641069139053338112,2022-01-01-20:32:19,10.1.1.3,179,-0.430,-0.430,-0.430,0.000,0.000,0.000
1641069139254284032,2022-01-01-20:32:19,10.1.1.3,178,-0.440,-0.440,-0.440,0.000,0.000,0.000
1641069139454844928,2022-01-01-20:32:19,10.1.1.3,178,-0.450,-0.450,-0.450,0.000,0.000,0.000
1641069139648431104,2022-01-01-20:32:19,10.1.1.3,170,-0.460,-0.460,-0.460,0.000,0.000,0.000
1641069139856018176,2022-01-01-20:32:19,10.1.1.3,177,-0.470,-0.470,-0.470,0.000,0.000,0.000
1641069140057167104,2022-01-01-20:32:20,10.1.1.3,178,-0.480,-0.480,-0.480,0.000,0.000,0.000
1641069140257643008,2022-01-01-20:32:20,10.1.1.3,177,-0.490,-0.490,-0.490,0.000,0.000,0.000
1641069140458512128,2022-01-01-20:32:20,10.1.1.3,177,-0.480,-0.480,-0.480,0.000,0.000,0.000
1641069140659322880,2022-01-01-20:32:20,10.1.1.3,176,-0.470,-0.470,-0.470,0.000,0.000,0.000
1641069140860862976,2022-01-01-20:32:20,10.1.1.3,177,-0.460,-0.460,-0.460,0.000,0.000,0.000
1641069141061197056,2022-01-01-20:32:21,10.1.1.3,177,-0.450,-0.450,-0.450,0.000,0.000,0.000
1641069141261293824,2022-01-01-20:32:21,10.1.1.3,176,-0.440,-0.440,-0.440,0.000,0.000,0.000
1641069141462971904,2022-01-01-20:32:21,10.1.1.3,177,-0.430,-0.430,-0.430,0.000,0.000,0.000
1641069141662909952,2022-01-01-20:32:21,10.1.1.3,176,-0.420,-0.420,-0.420,0.000,0.000,0.000
1641069141863866112,2022-01-01-20:32:21,10.1.1.3,176,-0.410,-0.410,-0.410,0.000,0.000,0.000
1641069142063911936,2022-01-01-20:32:22,10.1.1.3,175,-0.400,-0.400,-0.400,0.000,0.000,0.000
1641069142264699904,2022-01-01-20:32:22,10.1.1.3,174,-0.390,-0.390,-0.390,0.000,0.000,0.000
1641069142484303872,2022-01-01-20:32:22,10.1.1.3,190,-0.380,-0.380,-0.380,0.000,0.000,0.000
1641069142685349888,2022-01-01-20:32:22,10.1.1.3,190,-0.370,-0.370,-0.370,0.000,0.000,0.000
1641069142889414144,2022-01-01-20:32:22,10.1.1.3,193,-0.360,-0.360,-0.360,0.000,0.000,0.000
1641069143086375936,2022-01-01-20:32:23,10.1.1.3,188,-0.350,-0.350,-0.350,0.000,0.000,0.000
1641069143287051008,2022-01-01-20:32:23,10.1.1.3,187,-0.340,-0.340,-0.340,0.000,0.000,0.000
1641069143486960896,2022-01-01-20:32:23,10.1.1.3,186,-0.330,-0.330,-0.330,0.000,0.000,0.000
1641069143688230912,2022-01-01-20:32:23,10.1.1.3,187,-0.320,-0.320,-0.320,0.000,0.000,0.000
1641069143888165120,2022-01-01-20:32:23,10.1.1.3,186,-0.310,-0.310,-0.310,0.000,0.000,0.000
1641069144088360960,2022-01-01-20:32:24,10.1.1.3,185,-0.300,-0.300,-0.300,0.000,0.000,0.000
1641069144287902208,2022-01-01-20:32:24,10.1.1.3,184,-0.290,-0.290,-0.290,0.000,0.000,0.000
1641069144488563968,2022-01-01-20:32:24,10.1.1.3,184,-0.280,-0.280,-0.280,0.000,0.000,0.000
1641069144689486080,2022-01-01-20:32:24,10.1.1.3,183,-0.270,-0.270,-0.270,0.000,0.000,0.000
1641069144889472000,2022-01-01-20:32:24,10.1.1.3,183,-0.260,-0.260,-0.260,0.000,0.000,0.000
1641069145090051840,2022-01-01-20:32:25,10.1.1.3,181,-0.250,-0.250,-0.250,0.000,0.000,0.000
1641069145290051840,2022-01-01-20:32:25,10.1.1.3,180,-0.240,-0.240,-0.240,0.000,0.000,0.000
1641069145494245120,2022-01-01-20:32:25,10.1.1.3,182,-0.230,-0.230,-0.230,0.000,0.000,0.000
1641069145690071040,2022-01-01-20:32:25,10.1.1.3,178,-0.220,-0.220,-0.220,0.000,0.000,0.000
1641069145912129024,2022-01-01-20:32:25,10.1.1.3,198,-0.210,-0.210,-0.210,0.000,0.000,0.000
1641069146110917120,2022-01-01-20:32:26,10.1.1.3,196,-0.200,-0.200,-0.200,0.000,0.000,0.000
1641069146302260992,2022-01-01-20:32:26,10.1.1.3,186,-0.190,-0.190,-0.190,0.000,0.000,0.000
1641069146512115968,2022-01-01-20:32:26,10.1.1.3,196,-0.180,-0.180,-0.180,0.000,0.000,0.000
1641069146702651136,2022-01-01-20:32:26,10.1.1.3,184,-0.170,-0.170,-0.170,0.000,0.000,0.000
1641069146911216128,2022-01-01-20:32:26,10.1.1.3,192,-0.160,-0.160,-0.160,0.000,0.000,0.000
1641069147112111104,2022-01-01-20:32:27,10.1.1.3,191,-0.150,-0.150,-0.150,0.000,0.000,0.000
1641069147312120064,2022-01-01-20:32:27,10.1.1.3,191,-0.140,-0.140,-0.140,0.000,0.000,0.000
1641069147510884096,2022-01-01-20:32:27,10.1.1.3,187,-0.130,-0.130,-0.130,0.000,0.000,0.000
1641069147923505152,2022-01-01-20:32:27,10.1.1.3,197,-0.110,-0.110,-0.110,0.000,0.000,0.000
1641069148111284992,2022-01-01-20:32:28,10.1.1.3,185,-0.100,-0.100,-0.100,0.000,0.000,0.000
1641069148322087936,2022-01-01-20:32:28,10.1.1.3,192,-0.090,-0.090,-0.090,0.000,0.000,0.000
1641069148522159104,2022-01-01-20:32:28,10.1.1.3,186,-0.080,-0.080,-0.080,0.000,0.000,0.000
1641069148732347904,2022-01-01-20:32:28,10.1.1.3,193,-0.070,-0.070,-0.070,0.000,0.000,0.000
1641069148933219072,2022-01-01-20:32:28,10.1.1.3,193,-0.060,-0.060,-0.060,0.000,0.000,0.000
1641069149131942912,2022-01-01-20:32:29,10.1.1.3,190,-0.050,-0.050,-0.050,0.000,0.000,0.000
1641069149331813120,2022-01-01-20:32:29,10.1.1.3,188,-0.040,-0.040,-0.040,0.000,0.000,0.000
1641069149531763968,2022-01-01-20:32:29,10.1.1.3,187,-0.030,-0.030,-0.030,0.000,0.000,0.000
1641069149731951104,2022-01-01-20:32:29,10.1.1.3,185,-0.020,-0.020,-0.020,0.000,0.000,0.000
1641069149932062976,2022-01-01-20:32:29,10.1.1.3,184,-0.010,-0.010,-0.010,0.000,0.000,0.000
1641069150133960960,2022-01-01-20:32:30,10.1.1.3,185,0.000,0.000,0.000,0.000,0.000,0.000
1641069150332549120,2022-01-01-20:32:30,10.1.1.3,183,-0.010,-0.010,-0.010,0.000,0.000,0.000
1641069150550467840,2022-01-01-20:32:30,10.1.1.3,199,-0.020,-0.020,-0.020,0.000,0.000,0.000
1641069150751648000,2022-01-01-20:32:30,10.1.1.3,199,-0.030,-0.030,-0.030,0.000,0.000,0.000
1641069150951953920,2022-01-01-20:32:30,10.1.1.3,198,-0.040,-0.040,-0.040,0.000,0.000,0.000
1641069151152175872,2022-01-01-20:32:31,10.1.1.3,197,-0.050,-0.050,-0.050,0.000,0.000,0.000
1641069151352713984,2022-01-01-20:32:31,10.1.1.3,197,-0.060,-0.060,-0.060,0.000,0.000,0.000
1641069151550777856,2022-01-01-20:32:31,10.1.1.3,194,-0.070,-0.070,-0.070,0.000,0.000,0.000
1641069151743367936,2022-01-01-20:32:31,10.1.1.3,185,-0.080,-0.080,-0.080,0.000,0.000,0.000
1641069151951212800,2022-01-01-20:32:31,10.1.1.3,192,-0.090,-0.090,-0.090,0.000,0.000,0.000
1641069152151077120,2022-01-01-20:32:32,10.1.1.3,191,-0.100,-0.100,-0.100,0.000,0.000,0.000
1641069152351706880,2022-01-01-20:32:32,10.1.1.3,191,-0.110,-0.110,-0.110,0.000,0.000,0.000
1641069152551165952,2022-01-01-20:32:32,10.1.1.3,189,-0.120,-0.120,-0.120,0.000,0.000,0.000
1641069152761946880,2022-01-01-20:32:32,10.1.1.3,198,-0.130,-0.130,-0.130,0.000,0.000,0.000
1641069152960792064,2022-01-01-20:32:32,10.1.1.3,196,-0.140,-0.140,-0.140,0.000,0.000,0.000
1641069153160756992,2022-01-01-20:32:33,10.1.1.3,195,-0.150,-0.150,-0.150,0.000,0.000,0.000
1641069153350071040,2022-01-01-20:32:33,10.1.1.3,184,-0.160,-0.160,-0.160,0.000,0.000,0.000
1641069153550179072,2022-01-01-20:32:33,10.1.1.3,182,-0.170,-0.170,-0.170,0.000,0.000,0.000
1641069153749645056,2022-01-01-20:32:33,10.1.1.3,180,-0.180,-0.180,-0.180,0.000,0.000,0.000
1641069153771660032,2022-01-01-20:32:33,10.1.1.3,-1,-0.180,-0.180,-0.180,0.000,0.000,0.000
1641069154169814016,2022-01-01-20:32:34,10.1.1.3,196,-0.200,-0.200,-0.200,0.000,0.000,0.000
1641069154369334016,2022-01-01-20:32:34,10.1.1.3,195,-0.210,-0.210,-0.210,0.000,0.000,0.000
1641069154561323776,2022-01-01-20:32:34,10.1.1.3,186,-0.220,-0.220,-0.220,0.000,0.000,0.000
1641069154772730112,2022-01-01-20:32:34,10.1.1.3,197,-0.230,-0.230,-0.230,0.000,0.000,0.000
1641069154968987904,2022-01-01-20:32:34,10.1.1.3,192,-0.240,-0.240,-0.240,0.000,0.000,0.000
1641069155169230080,2022-01-01-20:32:35,10.1.1.3,190,-0.250,-0.250,-0.250,0.000,0.000,0.000
1641069155358694912,2022-01-01-20:32:35,10.1.1.3,177,-0.260,-0.260,-0.260,0.000,0.000,0.000
1641069155568928000,2022-01-01-20:32:35,10.1.1.3,186,-0.270,-0.270,-0.270,0.000,0.000,0.000
1641069155768740864,2022-01-01-20:32:35,10.1.1.3,184,-0.280,-0.280,-0.280,0.000,0.000,0.000
1641069155967702016,2022-01-01-20:32:35,10.1.1.3,182,-0.290,-0.290,-0.290,0.000,0.000,0.000
1641069156168865792,2022-01-01-20:32:36,10.1.1.3,182,-0.300,-0.300,-0.300,0.000,0.000,0.000
1641069156367310080,2022-01-01-20:32:36,10.1.1.3,180,-0.310,-0.310,-0.310,0.000,0.000,0.000
1641069156567133952,2022-01-01-20:32:36,10.1.1.3,179,-0.320,-0.320,-0.320,0.000,0.000,0.000
1641069156766590976,2022-01-01-20:32:36,10.1.1.3,177,-0.330,-0.330,-0.330,0.000,0.000,0.000
1641069156967740160,2022-01-01-20:32:36,10.1.1.3,177,-0.340,-0.340,-0.340,0.000,0.000,0.000
1641069157167057152,2022-01-01-20:32:37,10.1.1.3,176,-0.350,-0.350,-0.350,0.000,0.000,0.000
1641069157366821120,2022-01-01-20:32:37,10.1.1.3,173,-0.360,-0.360,-0.360,0.000,0.000,0.000
1641069157586729984,2022-01-01-20:32:37,10.1.1.3,193,-0.370,-0.370,-0.370,0.000,0.000,0.000
1641069157778338048,2022-01-01-20:32:37,10.1.1.3,184,-0.380,-0.380,-0.380,0.000,0.000,0.000
1641069157984966144,2022-01-01-20:32:37,10.1.1.3,190,-0.390,-0.390,-0.390,0.000,0.000,0.000
1641069158177217024,2022-01-01-20:32:38,10.1.1.3,181,-0.400,-0.400,-0.400,0.000,0.000,0.000
1641069158377656832,2022-01-01-20:32:38,10.1.1.3,181,-0.410,-0.410,-0.410,0.000,0.000,0.000
1641069158575553024,2022-01-01-20:32:38,10.1.1.3,177,-0.420,-0.420,-0.420,0.000,0.000,0.000
1641069158785212160,2022-01-01-20:32:38,10.1.1.3,186,-0.430,-0.430,-0.430,0.000,0.000,0.000
1641069158984129024,2022-01-01-20:32:38,10.1.1.3,184,-0.440,-0.440,-0.440,0.000,0.000,0.000
1641069159183371008,2022-01-01-20:32:39,10.1.1.3,182,-0.450,-0.450,-0.450,0.000,0.000,0.000
1641069159383924992,2022-01-01-20:32:39,10.1.1.3,182,-0.460,-0.460,-0.460,0.000,0.000,0.000
1641069159584683008,2022-01-01-20:32:39,10.1.1.3,180,-0.470,-0.470,-0.470,0.000,0.000,0.000
1641069159783364096,2022-01-01-20:32:39,10.1.1.3,176,-0.480,-0.480,-0.480,0.000,0.000,0.000
1641069159982351104,2022-01-01-20:32:39,10.1.1.3,174,-0.490,-0.490,-0.490,0.000,0.000,0.000
1641069160182461952,2022-01-01-20:32:40,10.1.1.3,173,-0.480,-0.480,-0.480,0.000,0.000,0.000
1641069160395134976,2022-01-01-20:32:40,10.1.1.3,184,-0.470,-0.470,-0.470,0.000,0.000,0.000
1641069160602797056,2022-01-01-20:32:40,10.1.1.3,191,-0.460,-0.460,-0.460,0.000,0.000,0.000
1641069160803008000,2022-01-01-20:32:40,10.1.1.3,189,-0.450,-0.450,-0.450,0.000,0.000,0.000
1641069160994383104,2022-01-01-20:32:40,10.1.1.3,179,-0.440,-0.440,-0.440,0.000,0.000,0.000
1641069161201656064,2022-01-01-20:32:41,10.1.1.3,185,-0.430,-0.430,-0.430,0.000,0.000,0.000
1641069161393946880,2022-01-01-20:32:41,10.1.1.3,175,-0.420,-0.420,-0.420,0.000,0.000,0.000
1641069161600642048,2022-01-01-20:32:41,10.1.1.3,180,-0.410,-0.410,-0.410,0.000,0.000,0.000
1641069161801657856,2022-01-01-20:32:41,10.1.1.3,180,-0.400,-0.400,-0.400,0.000,0.000,0.000
1641069162020344064,2022-01-01-20:32:42,10.1.1.3,198,-0.390,-0.390,-0.390,0.000,0.000,0.000
1641069162200176896,2022-01-01-20:32:42,10.1.1.3,176,-0.380,-0.380,-0.380,0.000,0.000,0.000
1641069162419653888,2022-01-01-20:32:42,10.1.1.3,194,-0.370,-0.370,-0.370,0.000,0.000,0.000
1641069162619527936,2022-01-01-20:32:42,10.1.1.3,192,-0.360,-0.360,-0.360,0.000,0.000,0.000
1641069162819096064,2022-01-01-20:32:42,10.1.1.3,191,-0.350,-0.350,-0.350,0.000,0.000,0.000
1641069162998856960,2022-01-01-20:32:42,10.1.1.3,169,-0.340,-0.340,-0.340,0.000,0.000,0.000
1641069163218029056,2022-01-01-20:32:43,10.1.1.3,184,-0.330,-0.330,-0.330,0.000,0.000,0.000
1641069163418881792,2022-01-01-20:32:43,10.1.1.3,184,-0.320,-0.320,-0.320,0.000,0.000,0.000
1641069163609318912,2022-01-01-20:32:43,10.1.1.3,172,-0.310,-0.310,-0.310,0.000,0.000,0.000
1641069163811530240,2022-01-01-20:32:43,10.1.1.3,174,-0.300,-0.300,-0.300,0.000,0.000,0.000
1641069164017460992,2022-01-01-20:32:44,10.1.1.3,178,-0.290,-0.290,-0.290,0.000,0.000,0.000
1641069164217644032,2022-01-01-20:32:44,10.1.1.3,178,-0.280,-0.280,-0.280,0.000,0.000,0.000
1641069164416410880,2022-01-01-20:32:44,10.1.1.3,175,-0.270,-0.270,-0.270,0.000,0.000,0.000
1641069164616101120,2022-01-01-20:32:44,10.1.1.3,173,-0.260,-0.260,-0.260,0.000,0.000,0.000
1641069164815872000,2022-01-01-20:32:44,10.1.1.3,172,-0.250,-0.250,-0.250,0.000,0.000,0.000
1641069165015822848,2022-01-01-20:32:45,10.1.1.3,171,-0.240,-0.240,-0.240,0.000,0.000,0.000
1641069165215738112,2022-01-01-20:32:45,10.1.1.3,170,-0.230,-0.230,-0.230,0.000,0.000,0.000
1641069165414659072,2022-01-01-20:32:45,10.1.1.3,165,-0.220,-0.220,-0.220,0.000,0.000,0.000
1641069165615041024,2022-01-01-20:32:45,10.1.1.3,164,-0.210,-0.210,-0.210,0.000,0.000,0.000
1641069165835079936,2022-01-01-20:32:45,10.1.1.3,183,-0.200,-0.200,-0.200,0.000,0.000,0.000
1641069166034033152,2022-01-01-20:32:46,10.1.1.3,180,-0.190,-0.190,-0.190,0.000,0.000,0.000
1641069166234285056,2022-01-01-20:32:46,10.1.1.3,179,-0.180,-0.180,-0.180,0.000,0.000,0.000
1641069166434478080,2022-01-01-20:32:46,10.1.1.3,178,-0.170,-0.170,-0.170,0.000,0.000,0.000
1641069166623805952,2022-01-01-20:32:46,10.1.1.3,166,-0.160,-0.160,-0.160,0.000,0.000,0.000
1641069166825088000,2022-01-01-20:32:46,10.1.1.3,165,-0.150,-0.150,-0.150,0.000,0.000,0.000
1641069167032811008,2022-01-01-20:32:47,10.1.1.3,169,-0.140,-0.140,-0.140,0.000,0.000,0.000
1641069167232728064,2022-01-01-20:32:47,10.1.1.3,167,-0.130,-0.130,-0.130,0.000,0.000,0.000
1641069167432517120,2022-01-01-20:32:47,10.1.1.3,166,-0.120,-0.120,-0.120,0.000,0.000,0.000
1641069167631496960,2022-01-01-20:32:47,10.1.1.3,164,-0.110,-0.110,-0.110,0.000,0.000,0.000
1641069167831280896,2022-01-01-20:32:47,10.1.1.3,160,-0.100,-0.100,-0.100,0.000,0.000,0.000
1641069168050766080,2022-01-01-20:32:48,10.1.1.3,178,-0.090,-0.090,-0.090,0.000,0.000,0.000
1641069168250291968,2022-01-01-20:32:48,10.1.1.3,177,-0.080,-0.080,-0.080,0.000,0.000,0.000
1641069168450475008,2022-01-01-20:32:48,10.1.1.3,177,-0.070,-0.070,-0.070,0.000,0.000,0.000
1641069168651109888,2022-01-01-20:32:48,10.1.1.3,176,-0.060,-0.060,-0.060,0.000,0.000,0.000
1641069168849864960,2022-01-01-20:32:48,10.1.1.3,174,-0.050,-0.050,-0.050,0.000,0.000,0.000
1641069169049750016,2022-01-01-20:32:49,10.1.1.3,173,-0.040,-0.040,-0.040,0.000,0.000,0.000
1641069169248798976,2022-01-01-20:32:49,10.1.1.3,171,-0.030,-0.030,-0.030,0.000,0.000,0.000
1641069169448573184,2022-01-01-20:32:49,10.1.1.3,170,-0.020,-0.020,-0.020,0.000,0.000,0.000
1641069169649384960,2022-01-01-20:32:49,10.1.1.3,169,-0.010,-0.010,-0.010,0.000,0.000,0.000
1641069169839542016,2022-01-01-20:32:49,10.1.1.3,157,0.000,0.000,0.000,0.000,0.000,0.000
1641069170049485824,2022-01-01-20:32:50,10.1.1.3,167,-0.010,-0.010,-0.010,0.000,0.000,0.000
1641069170270017024,2022-01-01-20:32:50,10.1.1.3,186,-0.020,-0.020,-0.020,0.000,0.000,0.000
1641069170450360064,2022-01-01-20:32:50,10.1.1.3,166,-0.030,-0.030,-0.030,0.000,0.000,0.000
1641069170651727872,2022-01-01-20:32:50,10.1.1.3,166,-0.040,-0.040,-0.040,0.000,0.000,0.000
1641069170865454848,2022-01-01-20:32:50,10.1.1.3,179,-0.050,-0.050,-0.050,0.000,0.000,0.000
1641069171074542080,2022-01-01-20:32:51,10.1.1.3,187,-0.060,-0.060,-0.060,0.000,0.000,0.000
1641069171274979072,2022-01-01-20:32:51,10.1.1.3,187,-0.070,-0.070,-0.070,0.000,0.000,0.000
1641069171455377152,2022-01-01-20:32:51,10.1.1.3,166,-0.080,-0.080,-0.080,0.000,0.000,0.000
1641069171656029952,2022-01-01-20:32:51,10.1.1.3,166,-0.090,-0.090,-0.090,0.000,0.000,0.000
1641069171877088000,2022-01-01-20:32:51,10.1.1.3,184,-0.100,-0.100,-0.100,0.000,0.000,0.000
1641069172078556160,2022-01-01-20:32:52,10.1.1.3,185,-0.110,-0.110,-0.110,0.000,0.000,0.000
1641069172279063040,2022-01-01-20:32:52,10.1.1.3,184,-0.120,-0.120,-0.120,0.000,0.000,0.000
1641069172479752960,2022-01-01-20:32:52,10.1.1.3,184,-0.130,-0.130,-0.130,0.000,0.000,0.000
1641069172680237056,2022-01-01-20:32:52,10.1.1.3,183,-0.140,-0.140,-0.140,0.000,0.000,0.000
1641069172881635840,2022-01-01-20:32:52,10.1.1.3,183,-0.150,-0.150,-0.150,0.000,0.000,0.000
1641069173081360128,2022-01-01-20:32:53,10.1.1.3,182,-0.160,-0.160,-0.160,0.000,0.000,0.000
1641069173282000896,2022-01-01-20:32:53,10.1.1.3,181,-0.170,-0.170,-0.170,0.000,0.000,0.000
1641069173482682112,2022-01-01-20:32:53,10.1.1.3,181,-0.180,-0.180,-0.180,0.000,0.000,0.000
1641069173683168000,2022-01-01-20:32:53,10.1.1.3,180,-0.190,-0.190,-0.190,0.000,0.000,0.000
1641069173884026112,2022-01-01-20:32:53,10.1.1.3,179,-0.200,-0.200,-0.200,0.000,0.000,0.000
1641069174084712960,2022-01-01-20:32:54,10.1.1.3,179,-0.210,-0.210,-0.210,0.000,0.000,0.000
1641069174285233920,2022-01-01-20:32:54,10.1.1.3,179,-0.220,-0.220,-0.220,0.000,0.000,0.000
1641069174486806016,2022-01-01-20:32:54,10.1.1.3,179,-0.230,-0.230,-0.230,0.000,0.000,0.000
1641069174686404864,2022-01-01-20:32:54,10.1.1.3,177,-0.240,-0.240,-0.240,0.000,0.000,0.000
1641069174887430912,2022-01-01-20:32:54,10.1.1.3,177,-0.250,-0.250,-0.250,0.000,0.000,0.000
1641069175087356928,2022-01-01-20:32:55,10.1.1.3,176,-0.260,-0.260,-0.260,0.000,0.000,0.000
1641069175300174080,2022-01-01-20:32:55,10.1.1.3,188,-0.270,-0.270,-0.270,0.000,0.000,0.000
1641069175509041920,2022-01-01-20:32:55,10.1.1.3,195,-0.280,-0.280,-0.280,0.000,0.000,0.000
1641069175709522944,2022-01-01-20:32:55,10.1.1.3,194,-0.290,-0.290,-0.290,0.000,0.000,0.000
1641069175909011968,2022-01-01-20:32:55,10.1.1.3,193,-0.300,-0.300,-0.300,0.000,0.000,0.000
1641069176100736000,2022-01-01-20:32:56,10.1.1.3,183,-0.310,-0.310,-0.310,0.000,0.000,0.000
1641069176300389888,2022-01-01-20:32:56,10.1.1.3,183,-0.320,-0.320,-0.320,0.000,0.000,0.000
1641069176501797888,2022-01-01-20:32:56,10.1.1.3,183,-0.330,-0.330,-0.330,0.000,0.000,0.000
1641069176709852928,2022-01-01-20:32:56,10.1.1.3,190,-0.340,-0.340,-0.340,0.000,0.000,0.000
1641069176910948096,2022-01-01-20:32:56,10.1.1.3,188,-0.350,-0.350,-0.350,0.000,0.000,0.000
1641069177322913792,2022-01-01-20:32:57,10.1.1.3,193,-0.370,-0.370,-0.370,0.000,0.000,0.000
1641069177523556096,2022-01-01-20:32:57,10.1.1.3,192,-0.380,-0.380,-0.380,0.000,0.000,0.000
1641069177724265984,2022-01-01-20:32:57,10.1.1.3,189,-0.390,-0.390,-0.390,0.000,0.000,0.000
1641069177923996928,2022-01-01-20:32:57,10.1.1.3,187,-0.400,-0.400,-0.400,0.000,0.000,0.000
1641069178123661056,2022-01-01-20:32:58,10.1.1.3,180,-0.410,-0.410,-0.410,0.000,0.000,0.000
1641069178344603136,2022-01-01-20:32:58,10.1.1.3,199,-0.420,-0.420,-0.420,0.000,0.000,0.000
1641069178543662080,2022-01-01-20:32:58,10.1.1.3,198,-0.430,-0.430,-0.430,0.000,0.000,0.000
1641069178745879040,2022-01-01-20:32:58,10.1.1.3,199,-0.440,-0.440,-0.440,0.000,0.000,0.000
1641069178944356864,2022-01-01-20:32:58,10.1.1.3,197,-0.450,-0.450,-0.450,0.000,0.000,0.000
1641069179144402944,2022-01-01-20:32:59,10.1.1.3,196,-0.460,-0.460,-0.460,0.000,0.000,0.000
1641069179346530816,2022-01-01-20:32:59,10.1.1.3,197,-0.470,-0.470,-0.470,0.000,0.000,0.000
1641069179545347072,2022-01-01-20:32:59,10.1.1.3,195,-0.480,-0.480,-0.480,0.000,0.000,0.000
1641069179744316160,2022-01-01-20:32:59,10.1.1.3,193,-0.490,-0.490,-0.490,0.000,0.000,0.000
1641069179946501888,2022-01-01-20:32:59,10.1.1.3,194,-0.480,-0.480,-0.480,0.000,0.000,0.000
1641069180144680960,2022-01-01-20:33:00,10.1.1.3,192,-0.470,-0.470,-0.470,0.000,0.000,0.000
1641069180344183808,2022-01-01-20:33:00,10.1.1.3,188,-0.460,-0.460,-0.460,0.000,0.000,0.000
1641069180543934208,2022-01-01-20:33:00,10.1.1.3,187,-0.450,-0.450,-0.450,0.000,0.000,0.000
1641069180746240000,2022-01-01-20:33:00,10.1.1.3,189,-0.440,-0.440,-0.440,0.000,0.000,0.000
1641069180944994816,2022-01-01-20:33:00,10.1.1.3,186,-0.430,-0.430,-0.430,0.000,0.000,0.000
1641069181165652992,2022-01-01-20:33:01,10.1.1.3,199,-0.420,-0.420,-0.420,0.000,0.000,0.000
1641069181365765120,2022-01-01-20:33:01,10.1.1.3,198,-0.410,-0.410,-0.410,0.000,0.000,0.000
1641069181565819904,2022-01-01-20:33:01,10.1.1.3,197,-0.400,-0.400,-0.400,0.000,0.000,0.000
1641069181766868992,2022-01-01-20:33:01,10.1.1.3,197,-0.390,-0.390,-0.390,0.000,0.000,0.000
1641069181966068992,2022-01-01-20:33:01,10.1.1.3,195,-0.380,-0.380,-0.380,0.000,0.000,0.000
1641069182163943168,2022-01-01-20:33:02,10.1.1.3,193,-0.370,-0.370,-0.370,0.000,0.000,0.000
1641069182364534016,2022-01-01-20:33:02,10.1.1.3,190,-0.360,-0.360,-0.360,0.000,0.000,0.000
1641069182564918016,2022-01-01-20:33:02,10.1.1.3,189,-0.350,-0.350,-0.350,0.000,0.000,0.000
1641069182766173952,2022-01-01-20:33:02,10.1.1.3,187,-0.340,-0.340,-0.340,0.000,0.000,0.000
1641069182965843968,2022-01-01-20:33:02,10.1.1.3,186,-0.330,-0.330,-0.330,0.000,0.000,0.000
1641069183164536064,2022-01-01-20:33:03,10.1.1.3,183,-0.320,-0.320,-0.320,0.000,0.000,0.000
1641069183365658880,2022-01-01-20:33:03,10.1.1.3,183,-0.310,-0.310,-0.310,0.000,0.000,0.000
1641069183563230976,2022-01-01-20:33:03,10.1.1.3,180,-0.300,-0.300,-0.300,0.000,0.000,0.000
1641069183785746944,2022-01-01-20:33:03,10.1.1.3,200,-0.290,-0.290,-0.290,0.000,0.000,0.000
1641069183985420032,2022-01-01-20:33:03,10.1.1.3,198,-0.280,-0.280,-0.280,0.000,0.000,0.000
1641069184186832896,2022-01-01-20:33:04,10.1.1.3,199,-0.270,-0.270,-0.270,0.000,0.000,0.000
1641069184364521984,2022-01-01-20:33:04,10.1.1.3,176,-0.260,-0.260,-0.260,0.000,0.000,0.000
1641069184783689984,2022-01-01-20:33:04,10.1.1.3,192,-0.240,-0.240,-0.240,0.000,0.000,0.000
1641069184990678016,2022-01-01-20:33:04,10.1.1.3,194,-0.230,-0.230,-0.230,0.000,0.000,0.000
1641069185185513984,2022-01-01-20:33:05,10.1.1.3,186,-0.220,-0.220,-0.220,0.000,0.000,0.000
1641069185382679040,2022-01-01-20:33:05,10.1.1.3,181,-0.210,-0.210,-0.210,0.000,0.000,0.000
1641069185586260992,2022-01-01-20:33:05,10.1.1.3,183,-0.200,-0.200,-0.200,0.000,0.000,0.000
1641069185791493888,2022-01-01-20:33:05,10.1.1.3,188,-0.190,-0.190,-0.190,0.000,0.000,0.000
1641069185992012032,2022-01-01-20:33:05,10.1.1.3,187,-0.180,-0.180,-0.180,0.000,0.000,0.000
1641069186202599936,2022-01-01-20:33:06,10.1.1.3,197,-0.170,-0.170,-0.170,0.000,0.000,0.000
1641069186403944960,2022-01-01-20:33:06,10.1.1.3,197,-0.160,-0.160,-0.160,0.000,0.000,0.000
1641069186602616064,2022-01-01-20:33:06,10.1.1.3,194,-0.150,-0.150,-0.150,0.000,0.000,0.000
1641069186801683968,2022-01-01-20:33:06,10.1.1.3,193,-0.140,-0.140,-0.140,0.000,0.000,0.000
1641069187002674944,2022-01-01-20:33:07,10.1.1.3,193,-0.130,-0.130,-0.130,0.000,0.000,0.000
1641069187206286848,2022-01-01-20:33:07,10.1.1.3,196,-0.120,-0.120,-0.120,0.000,0.000,0.000
1641069187401326848,2022-01-01-20:33:07,10.1.1.3,189,-0.110,-0.110,-0.110,0.000,0.000,0.000
1641069187601153024,2022-01-01-20:33:07,10.1.1.3,189,-0.100,-0.100,-0.100,0.000,0.000,0.000
1641069187801889024,2022-01-01-20:33:07,10.1.1.3,188,-0.090,-0.090,-0.090,0.000,0.000,0.000
1641069188001622016,2022-01-01-20:33:08,10.1.1.3,187,-0.080,-0.080,-0.080,0.000,0.000,0.000
1641069188201687040,2022-01-01-20:33:08,10.1.1.3,186,-0.070,-0.070,-0.070,0.000,0.000,0.000
1641069188401995776,2022-01-01-20:33:08,10.1.1.3,186,-0.060,-0.060,-0.060,0.000,0.000,0.000
1641069188598989056,2022-01-01-20:33:08,10.1.1.3,182,-0.050,-0.050,-0.050,0.000,0.000,0.000
1641069188800407040,2022-01-01-20:33:08,10.1.1.3,181,-0.040,-0.040,-0.040,0.000,0.000,0.000
1641069189000428800,2022-01-01-20:33:09,10.1.1.3,180,-0.030,-0.030,-0.030,0.000,0.000,0.000
1641069189200931072,2022-01-01-20:33:09,10.1.1.3,178,-0.020,-0.020,-0.020,0.000,0.000,0.000
1641069189420131072,2022-01-01-20:33:09,10.1.1.3,196,-0.010,-0.010,-0.010,0.000,0.000,0.000
1641069189619926016,2022-01-01-20:33:09,10.1.1.3,195,0.000,0.000,0.000,0.000,0.000,0.000
1641069189820835072,2022-01-01-20:33:09,10.1.1.3,195,-0.010,-0.010,-0.010,0.000,0.000,0.000
1641069190017499904,2022-01-01-20:33:10,10.1.1.3,191,-0.020,-0.020,-0.020,0.000,0.000,0.000
1641069190218210048,2022-01-01-20:33:10,10.1.1.3,191,-0.030,-0.030,-0.030,0.000,0.000,0.000
1641069190417922048,2022-01-01-20:33:10,10.1.1.3,189,-0.040,-0.040,-0.040,0.000,0.000,0.000
1641069190617284096,2022-01-01-20:33:10,10.1.1.3,188,-0.050,-0.050,-0.050,0.000,0.000,0.000
1641069190818056192,2022-01-01-20:33:10,10.1.1.3,186,-0.060,-0.060,-0.060,0.000,0.000,0.000
1641069191017291008,2022-01-01-20:33:11,10.1.1.3,185,-0.070,-0.070,-0.070,0.000,0.000,0.000
1641069191216280064,2022-01-01-20:33:11,10.1.1.3,183,-0.080,-0.080,-0.080,0.000,0.000,0.000
1641069191418124032,2022-01-01-20:33:11,10.1.1.3,184,-0.090,-0.090,-0.090,0.000,0.000,0.000
1641069191617945856,2022-01-01-20:33:11,10.1.1.3,180,-0.100,-0.100,-0.100,0.000,0.000,0.000
1641069191816708096,2022-01-01-20:33:11,10.1.1.3,176,-0.110,-0.110,-0.110,0.000,0.000,0.000
1641069192017950976,2022-01-01-20:33:12,10.1.1.3,177,-0.120,-0.120,-0.120,0.000,0.000,0.000
1641069192216006912,2022-01-01-20:33:12,10.1.1.3,173,-0.130,-0.130,-0.130,0.000,0.000,0.000
1641069192415767040,2022-01-01-20:33:12,10.1.1.3,173,-0.140,-0.140,-0.140,0.000,0.000,0.000
1641069192615646976,2022-01-01-20:33:12,10.1.1.3,172,-0.150,-0.150,-0.150,0.000,0.000,0.000
1641069192835282176,2022-01-01-20:33:12,10.1.1.3,189,-0.160,-0.160,-0.160,0.000,0.000,0.000
1641069193036772096,2022-01-01-20:33:13,10.1.1.3,191,-0.170,-0.170,-0.170,0.000,0.000,0.000
1641069193234902016,2022-01-01-20:33:13,10.1.1.3,188,-0.180,-0.180,-0.180,0.000,0.000,0.000
1641069193435218176,2022-01-01-20:33:13,10.1.1.3,187,-0.190,-0.190,-0.190,0.000,0.000,0.000
1641069193637760000,2022-01-01-20:33:13,10.1.1.3,189,-0.200,-0.200,-0.200,0.000,0.000,0.000
1641069193833935872,2022-01-01-20:33:13,10.1.1.3,185,-0.210,-0.210,-0.210,0.000,0.000,0.000
1641069194033974016,2022-01-01-20:33:14,10.1.1.3,181,-0.220,-0.220,-0.220,0.000,0.000,0.000
1641069194233113088,2022-01-01-20:33:14,10.1.1.3,179,-0.230,-0.230,-0.230,0.000,0.000,0.000
1641069194432395008,2022-01-01-20:33:14,10.1.1.3,177,-0.240,-0.240,-0.240,0.000,0.000,0.000
1641069194632022016,2022-01-01-20:33:14,10.1.1.3,175,-0.250,-0.250,-0.250,0.000,0.000,0.000
1641069194832794880,2022-01-01-20:33:14,10.1.1.3,175,-0.260,-0.260,-0.260,0.000,0.000,0.000
1641069195033010944,2022-01-01-20:33:15,10.1.1.3,175,-0.270,-0.270,-0.270,0.000,0.000,0.000
1641069195231314944,2022-01-01-20:33:15,10.1.1.3,172,-0.280,-0.280,-0.280,0.000,0.000,0.000
1641069195451108096,2022-01-01-20:33:15,10.1.1.3,187,-0.290,-0.290,-0.290,0.000,0.000,0.000
1641069195650754816,2022-01-01-20:33:15,10.1.1.3,185,-0.300,-0.300,-0.300,0.000,0.000,0.000
1641069195849766144,2022-01-01-20:33:15,10.1.1.3,183,-0.310,-0.310,-0.310,0.000,0.000,0.000
1641069196051429888,2022-01-01-20:33:16,10.1.1.3,184,-0.320,-0.320,-0.320,0.000,0.000,0.000
1641069196250387968,2022-01-01-20:33:16,10.1.1.3,182,-0.330,-0.330,-0.330,0.000,0.000,0.000
1641069196451118848,2022-01-01-20:33:16,10.1.1.3,180,-0.340,-0.340,-0.340,0.000,0.000,0.000
1641069196651376128,2022-01-01-20:33:16,10.1.1.3,180,-0.350,-0.350,-0.350,0.000,0.000,0.000
1641069196849835008,2022-01-01-20:33:16,10.1.1.3,178,-0.360,-0.360,-0.360,0.000,0.000,0.000
1641069197049627136,2022-01-01-20:33:17,10.1.1.3,176,-0.370,-0.370,-0.370,0.000,0.000,0.000
1641069197250060032,2022-01-01-20:33:17,10.1.1.3,176,-0.380,-0.380,-0.380,0.000,0.000,0.000
1641069197447904000,2022-01-01-20:33:17,10.1.1.3,173,-0.390,-0.390,-0.390,0.000,0.000,0.000
1641069197649609216,2022-01-01-20:33:17,10.1.1.3,174,-0.400,-0.400,-0.400,0.000,0.000,0.000
1641069197848564992,2022-01-01-20:33:17,10.1.1.3,171,-0.410,-0.410,-0.410,0.000,0.000,0.000
1641069198049261056,2022-01-01-20:33:18,10.1.1.3,169,-0.420,-0.420,-0.420,0.000,0.000,0.000
1641069198247642112,2022-01-01-20:33:18,10.1.1.3,166,-0.430,-0.430,-0.430,0.000,0.000,0.000
1641069198447298048,2022-01-01-20:33:18,10.1.1.3,165,-0.440,-0.440,-0.440,0.000,0.000,0.000
1641069198666498816,2022-01-01-20:33:18,10.1.1.3,183,-0.450,-0.450,-0.450,0.000,0.000,0.000
1641069198866416896,2022-01-01-20:33:18,10.1.1.3,181,-0.460,-0.460,-0.460,0.000,0.000,0.000
1641069199066305024,2022-01-01-20:33:19,10.1.1.3,180,-0.470,-0.470,-0.470,0.000,0.000,0.000
1641069199265795840,2022-01-01-20:33:19,10.1.1.3,178,-0.480,-0.480,-0.480,0.000,0.000,0.000
1641069199469976064,2022-01-01-20:33:19,10.1.1.3,182,-0.490,-0.490,-0.490,0.000,0.000,0.000
1641069199666908928,2022-01-01-20:33:19,10.1.1.3,178,-0.480,-0.480,-0.480,0.000,0.000,0.000
1641069199867884032,2022-01-01-20:33:19,10.1.1.3,178,-0.470,-0.470,-0.470,0.000,0.000,0.000
1641069200071450880,2022-01-01-20:33:20,10.1.1.3,181,-0.460,-0.460,-0.460,0.000,0.000,0.000
1641069200265437952,2022-01-01-20:33:20,10.1.1.3,173,-0.450,-0.450,-0.450,0.000,0.000,0.000
1641069200465202176,2022-01-01-20:33:20,10.1.1.3,171,-0.440,-0.440,-0.440,0.000,0.000,0.000
1641069200664598016,2022-01-01-20:33:20,10.1.1.3,169,-0.430,-0.430,-0.430,0.000,0.000,0.000
1641069200863319040,2022-01-01-20:33:20,10.1.1.3,167,-0.420,-0.420,-0.420,0.000,0.000,0.000
1641069201062251008,2022-01-01-20:33:21,10.1.1.3,165,-0.410,-0.410,-0.410,0.000,0.000,0.000
1641069201262612992,2022-01-01-20:33:21,10.1.1.3,164,-0.400,-0.400,-0.400,0.000,0.000,0.000
1641069201462822912,2022-01-01-20:33:21,10.1.1.3,164,-0.390,-0.390,-0.390,0.000,0.000,0.000
1641069201681287168,2022-01-01-20:33:21,10.1.1.3,176,-0.380,-0.380,-0.380,0.000,0.000,0.000
1641069201881412096,2022-01-01-20:33:21,10.1.1.3,176,-0.370,-0.370,-0.370,0.000,0.000,0.000
1641069202080596992,2022-01-01-20:33:22,10.1.1.3,172,-0.360,-0.360,-0.360,0.000,0.000,0.000
1641069202280477952,2022-01-01-20:33:22,10.1.1.3,171,-0.350,-0.350,-0.350,0.000,0.000,0.000
1641069202480093952,2022-01-01-20:33:22,10.1.1.3,169,-0.340,-0.340,-0.340,0.000,0.000,0.000
1641069202679579904,2022-01-01-20:33:22,10.1.1.3,168,-0.330,-0.330,-0.330,0.000,0.000,0.000
1641069202881566976,2022-01-01-20:33:22,10.1.1.3,170,-0.320,-0.320,-0.320,0.000,0.000,0.000
1641069203081688832,2022-01-01-20:33:23,10.1.1.3,169,-0.310,-0.310,-0.310,0.000,0.000,0.000
1641069203280893184,2022-01-01-20:33:23,10.1.1.3,167,-0.300,-0.300,-0.300,0.000,0.000,0.000
1641069203482533888,2022-01-01-20:33:23,10.1.1.3,168,-0.290,-0.290,-0.290,0.000,0.000,0.000
1641069203682715904,2022-01-01-20:33:23,10.1.1.3,167,-0.280,-0.280,-0.280,0.000,0.000,0.000
1641069203886404864,2022-01-01-20:33:23,10.1.1.3,170,-0.270,-0.270,-0.270,0.000,0.000,0.000
1641069204085948928,2022-01-01-20:33:24,10.1.1.3,168,-0.260,-0.260,-0.260,0.000,0.000,0.000
1641069204286148096,2022-01-01-20:33:24,10.1.1.3,167,-0.250,-0.250,-0.250,0.000,0.000,0.000
1641069204489620992,2022-01-01-20:33:24,10.1.1.3,169,-0.240,-0.240,-0.240,0.000,0.000,0.000
1641069204688785152,2022-01-01-20:33:24,10.1.1.3,167,-0.230,-0.230,-0.230,0.000,0.000,0.000
1641069204890461952,2022-01-01-20:33:24,10.1.1.3,168,-0.220,-0.220,-0.220,0.000,0.000,0.000
1641069205090877952,2022-01-01-20:33:25,10.1.1.3,168,-0.210,-0.210,-0.210,0.000,0.000,0.000
1641069205311577088,2022-01-01-20:33:25,10.1.1.3,187,-0.200,-0.200,-0.200,0.000,0.000,0.000
1641069205511739904,2022-01-01-20:33:25,10.1.1.3,187,-0.190,-0.190,-0.190,0.000,0.000,0.000
1641069205711796992,2022-01-01-20:33:25,10.1.1.3,186,-0.180,-0.180,-0.180,0.000,0.000,0.000
1641069205913681152,2022-01-01-20:33:25,10.1.1.3,186,-0.170,-0.170,-0.170,0.000,0.000,0.000
1641069206114227968,2022-01-01-20:33:26,10.1.1.3,187,-0.160,-0.160,-0.160,0.000,0.000,0.000
1641069206316098816,2022-01-01-20:33:26,10.1.1.3,188,-0.150,-0.150,-0.150,0.000,0.000,0.000
1641069206514919936,2022-01-01-20:33:26,10.1.1.3,186,-0.140,-0.140,-0.140,0.000,0.000,0.000
1641069206716283136,2022-01-01-20:33:26,10.1.1.3,185,-0.130,-0.130,-0.130,0.000,0.000,0.000
1641069206916858880,2022-01-01-20:33:26,10.1.1.3,186,-0.120,-0.120,-0.120,0.000,0.000,0.000
1641069207117580032,2022-01-01-20:33:27,10.1.1.3,186,-0.110,-0.110,-0.110,0.000,0.000,0.000
1641069207318039040,2022-01-01-20:33:27,10.1.1.3,185,-0.100,-0.100,-0.100,0.000,0.000,0.000
1641069207517224960,2022-01-01-20:33:27,10.1.1.3,183,-0.090,-0.090,-0.090,0.000,0.000,0.000
1641069207717933824,2022-01-01-20:33:27,10.1.1.3,183,-0.080,-0.080,-0.080,0.000,0.000,0.000
1641069207921539072,2022-01-01-20:33:27,10.1.1.3,186,-0.070,-0.070,-0.070,0.000,0.000,0.000
1641069208119132160,2022-01-01-20:33:28,10.1.1.3,182,-0.060,-0.060,-0.060,0.000,0.000,0.000
1641069208320717056,2022-01-01-20:33:28,10.1.1.3,183,-0.050,-0.050,-0.050,0.000,0.000,0.000
1641069208519796992,2022-01-01-20:33:28,10.1.1.3,181,-0.040,-0.040,-0.040,0.000,0.000,0.000
1641069208721510912,2022-01-01-20:33:28,10.1.1.3,182,-0.030,-0.030,-0.030,0.000,0.000,0.000
1641069208921065216,2022-01-01-20:33:28,10.1.1.3,179,-0.020,-0.020,-0.020,0.000,0.000,0.000
1641069209121788928,2022-01-01-20:33:29,10.1.1.3,178,-0.010,-0.010,-0.010,0.000,0.000,0.000
1641069209324326144,2022-01-01-20:33:29,10.1.1.3,180,-0.000,-0.000,-0.000,0.000,0.000,0.000
1641069209542893056,2022-01-01-20:33:29,10.1.1.3,197,-0.010,-0.010,-0.010,0.000,0.000,0.000
1641069209742798080,2022-01-01-20:33:29,10.1.1.3,196,-0.020,-0.020,-0.020,0.000,0.000,0.000
1641069209943821824,2022-01-01-20:33:29,10.1.1.3,196,-0.030,-0.030,-0.030,0.000,0.000,0.000
1641069210142117888,2022-01-01-20:33:30,10.1.1.3,193,-0.040,-0.040,-0.040,0.000,0.000,0.000
1641069210343403008,2022-01-01-20:33:30,10.1.1.3,193,-0.050,-0.050,-0.050,0.000,0.000,0.000
1641069210543174144,2022-01-01-20:33:30,10.1.1.3,190,-0.060,-0.060,-0.060,0.000,0.000,0.000
1641069210742670080,2022-01-01-20:33:30,10.1.1.3,189,-0.070,-0.070,-0.070,0.000,0.000,0.000
1641069210944519168,2022-01-01-20:33:30,10.1.1.3,189,-0.080,-0.080,-0.080,0.000,0.000,0.000
1641069211143929088,2022-01-01-20:33:31,10.1.1.3,186,-0.090,-0.090,-0.090,0.000,0.000,0.000
1641069211344547072,2022-01-01-20:33:31,10.1.1.3,186,-0.100,-0.100,-0.100,0.000,0.000,0.000
1641069211544420096,2022-01-01-20:33:31,10.1.1.3,184,-0.110,-0.110,-0.110,0.000,0.000,0.000
1641069211744040960,2022-01-01-20:33:31,10.1.1.3,183,-0.120,-0.120,-0.120,0.000,0.000,0.000
1641069211943985920,2022-01-01-20:33:31,10.1.1.3,182,-0.130,-0.130,-0.130,0.000,0.000,0.000
1641069212145101056,2022-01-01-20:33:32,10.1.1.3,182,-0.140,-0.140,-0.140,0.000,0.000,0.000
1641069212365596160,2022-01-01-20:33:32,10.1.1.3,200,-0.150,-0.150,-0.150,0.000,0.000,0.000
1641069212566342144,2022-01-01-20:33:32,10.1.1.3,199,-0.160,-0.160,-0.160,0.000,0.000,0.000
1641069212765332992,2022-01-01-20:33:32,10.1.1.3,198,-0.170,-0.170,-0.170,0.000,0.000,0.000
1641069212965831168,2022-01-01-20:33:32,10.1.1.3,197,-0.180,-0.180,-0.180,0.000,0.000,0.000
1641069213165613056,2022-01-01-20:33:33,10.1.1.3,196,-0.190,-0.190,-0.190,0.000,0.000,0.000
1641069213365411072,2022-01-01-20:33:33,10.1.1.3,195,-0.200,-0.200,-0.200,0.000,0.000,0.000
1641069213565609984,2022-01-01-20:33:33,10.1.1.3,194,-0.210,-0.210,-0.210,0.000,0.000,0.000
1641069213764987904,2022-01-01-20:33:33,10.1.1.3,193,-0.220,-0.220,-0.220,0.000,0.000,0.000
1641069213966441984,2022-01-01-20:33:33,10.1.1.3,193,-0.230,-0.230,-0.230,0.000,0.000,0.000
1641069214167748864,2022-01-01-20:33:34,10.1.1.3,193,-0.240,-0.240,-0.240,0.000,0.000,0.000
1641069214365540096,2022-01-01-20:33:34,10.1.1.3,190,-0.250,-0.250,-0.250,0.000,0.000,0.000
1641069214565516032,2022-01-01-20:33:34,10.1.1.3,189,-0.260,-0.260,-0.260,0.000,0.000,0.000
1641069214765639936,2022-01-01-20:33:34,10.1.1.3,186,-0.270,-0.270,-0.270,0.000,0.000,0.000
1641069214966629120,2022-01-01-20:33:34,10.1.1.3,184,-0.280,-0.280,-0.280,0.000,0.000,0.000
1641069215165665024,2022-01-01-20:33:35,10.1.1.3,182,-0.290,-0.290,-0.290,0.000,0.000,0.000
1641069215585338112,2022-01-01-20:33:35,10.1.1.3,199,-0.310,-0.310,-0.310,0.000,0.000,0.000
1641069215784601088,2022-01-01-20:33:35,10.1.1.3,197,-0.320,-0.320,-0.320,0.000,0.000,0.000
1641069215985327104,2022-01-01-20:33:35,10.1.1.3,197,-0.330,-0.330,-0.330,0.000,0.000,0.000
1641069216185056000,2022-01-01-20:33:36,10.1.1.3,195,-0.340,-0.340,-0.340,0.000,0.000,0.000
1641069216385996032,2022-01-01-20:33:36,10.1.1.3,196,-0.350,-0.350,-0.350,0.000,0.000,0.000
1641069216584562176,2022-01-01-20:33:36,10.1.1.3,190,-0.360,-0.360,-0.360,0.000,0.000,0.000
1641069216785063936,2022-01-01-20:33:36,10.1.1.3,188,-0.370,-0.370,-0.370,0.000,0.000,0.000
1641069216984329984,2022-01-01-20:33:36,10.1.1.3,188,-0.380,-0.380,-0.380,0.000,0.000,0.000
1641069217184312064,2022-01-01-20:33:37,10.1.1.3,186,-0.390,-0.390,-0.390,0.000,0.000,0.000
1641069217383874048,2022-01-01-20:33:37,10.1.1.3,185,-0.400,-0.400,-0.400,0.000,0.000,0.000
1641069217585257984,2022-01-01-20:33:37,10.1.1.3,186,-0.410,-0.410,-0.410,0.000,0.000,0.000
1641069217785708032,2022-01-01-20:33:37,10.1.1.3,184,-0.420,-0.420,-0.420,0.000,0.000,0.000
1641069217982827008,2022-01-01-20:33:37,10.1.1.3,181,-0.430,-0.430,-0.430,0.000,0.000,0.000
1641069218183542016,2022-01-01-20:33:38,10.1.1.3,180,-0.440,-0.440,-0.440,0.000,0.000,0.000
1641069218404165120,2022-01-01-20:33:38,10.1.1.3,199,-0.450,-0.450,-0.450,0.000,0.000,0.000
1641069218603933952,2022-01-01-20:33:38,10.1.1.3,196,-0.460,-0.460,-0.460,0.000,0.000,0.000
1641069218803888128,2022-01-01-20:33:38,10.1.1.3,196,-0.470,-0.470,-0.470,0.000,0.000,0.000
1641069219203248128,2022-01-01-20:33:39,10.1.1.3,192,-0.490,-0.490,-0.490,0.000,0.000,0.000
1641069219404057088,2022-01-01-20:33:39,10.1.1.3,187,-0.480,-0.480,-0.480,0.000,0.000,0.000
1641069219604052992,2022-01-01-20:33:39,10.1.1.3,185,-0.470,-0.470,-0.470,0.000,0.000,0.000
1641069219803980032,2022-01-01-20:33:39,10.1.1.3,185,-0.460,-0.460,-0.460,0.000,0.000,0.000
1641069220003702016,2022-01-01-20:33:40,10.1.1.3,184,-0.450,-0.450,-0.450,0.000,0.000,0.000
1641069220211663104,2022-01-01-20:33:40,10.1.1.3,190,-0.440,-0.440,-0.440,0.000,0.000,0.000
1641069220402179072,2022-01-01-20:33:40,10.1.1.3,179,-0.430,-0.430,-0.430,0.000,0.000,0.000
1641069220622525952,2022-01-01-20:33:40,10.1.1.3,198,-0.420,-0.420,-0.420,0.000,0.000,0.000
1641069220821142016,2022-01-01-20:33:40,10.1.1.3,196,-0.410,-0.410,-0.410,0.000,0.000,0.000
1641069221020802048,2022-01-01-20:33:41,10.1.1.3,194,-0.400,-0.400,-0.400,0.000,0.000,0.000
1641069221220713984,2022-01-01-20:33:41,10.1.1.3,193,-0.390,-0.390,-0.390,0.000,0.000,0.000
1641069221420324096,2022-01-01-20:33:41,10.1.1.3,192,-0.380,-0.380,-0.380,0.000,0.000,0.000
1641069221621210112,2022-01-01-20:33:41,10.1.1.3,193,-0.370,-0.370,-0.370,0.000,0.000,0.000
1641069221821142784,2022-01-01-20:33:41,10.1.1.3,192,-0.360,-0.360,-0.360,0.000,0.000,0.000
1641069222021608192,2022-01-01-20:33:42,10.1.1.3,191,-0.350,-0.350,-0.350,0.000,0.000,0.000
1641069222221240064,2022-01-01-20:33:42,10.1.1.3,178,-0.340,-0.340,-0.340,0.000,0.000,0.000
1641069222419650048,2022-01-01-20:33:42,10.1.1.3,176,-0.330,-0.330,-0.330,0.000,0.000,0.000
1641069222639721984,2022-01-01-20:33:42,10.1.1.3,195,-0.320,-0.320,-0.320,0.000,0.000,0.000
1641069222841728000,2022-01-01-20:33:42,10.1.1.3,194,-0.310,-0.310,-0.310,0.000,0.000,0.000
1641069223037858048,2022-01-01-20:33:43,10.1.1.3,189,-0.300,-0.300,-0.300,0.000,0.000,0.000
1641069223237891072,2022-01-01-20:33:43,10.1.1.3,186,-0.290,-0.290,-0.290,0.000,0.000,0.000
1641069223437521920,2022-01-01-20:33:43,10.1.1.3,183,-0.280,-0.280,-0.280,0.000,0.000,0.000
1641069223640135936,2022-01-01-20:33:43,10.1.1.3,185,-0.270,-0.270,-0.270,0.000,0.000,0.000
1641069223838051072,2022-01-01-20:33:43,10.1.1.3,183,-0.260,-0.260,-0.260,0.000,0.000,0.000
1641069224038213888,2022-01-01-20:33:44,10.1.1.3,181,-0.250,-0.250,-0.250,0.000,0.000,0.000
1641069224237569024,2022-01-01-20:33:44,10.1.1.3,178,-0.240,-0.240,-0.240,0.000,0.000,0.000
1641069224456648192,2022-01-01-20:33:44,10.1.1.3,193,-0.230,-0.230,-0.230,0.000,0.000,0.000
1641069224658996992,2022-01-01-20:33:44,10.1.1.3,194,-0.220,-0.220,-0.220,0.000,0.000,0.000
1641069224857115136,2022-01-01-20:33:44,10.1.1.3,192,-0.210,-0.210,-0.210,0.000,0.000,0.000
1641069225056860928,2022-01-01-20:33:45,10.1.1.3,190,-0.200,-0.200,-0.200,0.000,0.000,0.000
1641069225257245184,2022-01-01-20:33:45,10.1.1.3,190,-0.190,-0.190,-0.190,0.000,0.000,0.000
1641069225454586880,2022-01-01-20:33:45,10.1.1.3,187,-0.180,-0.180,-0.180,0.000,0.000,0.000
1641069225656750080,2022-01-01-20:33:45,10.1.1.3,188,-0.170,-0.170,-0.170,0.000,0.000,0.000
1641069225856414976,2022-01-01-20:33:45,10.1.1.3,186,-0.160,-0.160,-0.160,0.000,0.000,0.000
1641069226055459072,2022-01-01-20:33:46,10.1.1.3,185,-0.150,-0.150,-0.150,0.000,0.000,0.000
1641069226256091136,2022-01-01-20:33:46,10.1.1.3,183,-0.140,-0.140,-0.140,0.000,0.000,0.000
1641069226455857920,2022-01-01-20:33:46,10.1.1.3,180,-0.130,-0.130,-0.130,0.000,0.000,0.000
1641069226656992000,2022-01-01-20:33:46,10.1.1.3,180,-0.120,-0.120,-0.120,0.000,0.000,0.000
1641069226854866944,2022-01-01-20:33:46,10.1.1.3,177,-0.110,-0.110,-0.110,0.000,0.000,0.000
1641069227054135040,2022-01-01-20:33:47,10.1.1.3,175,-0.100,-0.100,-0.100,0.000,0.000,0.000
1641069227254217984,2022-01-01-20:33:47,10.1.1.3,175,-0.090,-0.090,-0.090,0.000,0.000,0.000
1641069227455923968,2022-01-01-20:33:47,10.1.1.3,172,-0.080,-0.080,-0.080,0.000,0.000,0.000
1641069227674629888,2022-01-01-20:33:47,10.1.1.3,190,-0.070,-0.070,-0.070,0.000,0.000,0.000
1641069227873339904,2022-01-01-20:33:47,10.1.1.3,187,-0.060,-0.060,-0.060,0.000,0.000,0.000
1641069228072366080,2022-01-01-20:33:48,10.1.1.3,179,-0.050,-0.050,-0.050,0.000,0.000,0.000
1641069228272214016,2022-01-01-20:33:48,10.1.1.3,179,-0.040,-0.040,-0.040,0.000,0.000,0.000
1641069228470688000,2022-01-01-20:33:48,10.1.1.3,176,-0.030,-0.030,-0.030,0.000,0.000,0.000
1641069228672209152,2022-01-01-20:33:48,10.1.1.3,177,-0.020,-0.020,-0.020,0.000,0.000,0.000
1641069228871386112,2022-01-01-20:33:48,10.1.1.3,174,-0.010,-0.010,-0.010,0.000,0.000,0.000
1641069229070142976,2022-01-01-20:33:49,10.1.1.3,172,0.000,0.000,0.000,0.000,0.000,0.000
1641069229271183104,2022-01-01-20:33:49,10.1.1.3,171,-0.010,-0.010,-0.010,0.000,0.000,0.000
1641069229471913984,2022-01-01-20:33:49,10.1.1.3,172,-0.020,-0.020,-0.020,0.000,0.000,0.000
1641069229670564864,2022-01-01-20:33:49,10.1.1.3,170,-0.030,-0.030,-0.030,0.000,0.000,0.000
1641069229875750912,2022-01-01-20:33:49,10.1.1.3,174,-0.040,-0.040,-0.040,0.000,0.000,0.000
1641069230075898880,2022-01-01-20:33:50,10.1.1.3,173,-0.050,-0.050,-0.050,0.000,0.000,0.000
1641069230287543040,2022-01-01-20:33:50,10.1.1.3,183,-0.060,-0.060,-0.060,0.000,0.000,0.000
1641069230490081024,2022-01-01-20:33:50,10.1.1.3,184,-0.070,-0.070,-0.070,0.000,0.000,0.000
1641069230687667968,2022-01-01-20:33:50,10.1.1.3,180,-0.080,-0.080,-0.080,0.000,0.000,0.000
1641069230887130112,2022-01-01-20:33:50,10.1.1.3,177,-0.090,-0.090,-0.090,0.000,0.000,0.000
1641069231086977024,2022-01-01-20:33:51,10.1.1.3,176,-0.100,-0.100,-0.100,0.000,0.000,0.000
1641069231286987008,2022-01-01-20:33:51,10.1.1.3,175,-0.110,-0.110,-0.110,0.000,0.000,0.000
1641069231487461120,2022-01-01-20:33:51,10.1.1.3,175,-0.120,-0.120,-0.120,0.000,0.000,0.000
1641069231685862144,2022-01-01-20:33:51,10.1.1.3,172,-0.130,-0.130,-0.130,0.000,0.000,0.000
1641069231885794048,2022-01-01-20:33:51,10.1.1.3,171,-0.140,-0.140,-0.140,0.000,0.000,0.000
1641069232087482880,2022-01-01-20:33:52,10.1.1.3,171,-0.150,-0.150,-0.150,0.000,0.000,0.000
1641069232285679104,2022-01-01-20:33:52,10.1.1.3,169,-0.160,-0.160,-0.160,0.000,0.000,0.000
1641069232486288128,2022-01-01-20:33:52,10.1.1.3,169,-0.170,-0.170,-0.170,0.000,0.000,0.000
1641069232685338880,2022-01-01-20:33:52,10.1.1.3,167,-0.180,-0.180,-0.180,0.000,0.000,0.000
1641069232885083904,2022-01-01-20:33:52,10.1.1.3,165,-0.190,-0.190,-0.190,0.000,0.000,0.000
1641069233085669888,2022-01-01-20:33:53,10.1.1.3,164,-0.200,-0.200,-0.200,0.000,0.000,0.000
1641069233284396800,2022-01-01-20:33:53,10.1.1.3,162,-0.210,-0.210,-0.210,0.000,0.000,0.000
1641069233505268992,2022-01-01-20:33:53,10.1.1.3,180,-0.220,-0.220,-0.220,0.000,0.000,0.000
1641069233703825920,2022-01-01-20:33:53,10.1.1.3,177,-0.230,-0.230,-0.230,0.000,0.000,0.000
1641069233902790912,2022-01-01-20:33:53,10.1.1.3,175,-0.240,-0.240,-0.240,0.000,0.000,0.000
1641069234106967040,2022-01-01-20:33:54,10.1.1.3,178,-0.250,-0.250,-0.250,0.000,0.000,0.000
1641069234301153024,2022-01-01-20:33:54,10.1.1.3,172,-0.260,-0.260,-0.260,0.000,0.000,0.000
1641069234504605952,2022-01-01-20:33:54,10.1.1.3,175,-0.270,-0.270,-0.270,0.000,0.000,0.000
1641069234701981952,2022-01-01-20:33:54,10.1.1.3,170,-0.280,-0.280,-0.280,0.000,0.000,0.000
1641069234902530048,2022-01-01-20:33:54,10.1.1.3,170,-0.290,-0.290,-0.290,0.000,0.000,0.000
1641069235103846912,2022-01-01-20:33:55,10.1.1.3,171,-0.300,-0.300,-0.300,0.000,0.000,0.000
1641069235304545024,2022-01-01-20:33:55,10.1.1.3,170,-0.310,-0.310,-0.310,0.000,0.000,0.000
1641069235505224960,2022-01-01-20:33:55,10.1.1.3,170,-0.320,-0.320,-0.320,0.000,0.000,0.000
1641069235705036032,2022-01-01-20:33:55,10.1.1.3,170,-0.330,-0.330,-0.330,0.000,0.000,0.000
1641069235908752896,2022-01-01-20:33:55,10.1.1.3,172,-0.340,-0.340,-0.340,0.000,0.000,0.000
1641069236107964928,2022-01-01-20:33:56,10.1.1.3,170,-0.350,-0.350,-0.350,0.000,0.000,0.000
1641069236310028032,2022-01-01-20:33:56,10.1.1.3,171,-0.360,-0.360,-0.360,0.000,0.000,0.000
1641069236510044928,2022-01-01-20:33:56,10.1.1.3,171,-0.370,-0.370,-0.370,0.000,0.000,0.000
1641069236730300928,2022-01-01-20:33:56,10.1.1.3,186,-0.380,-0.380,-0.380,0.000,0.000,0.000
1641069236930769920,2022-01-01-20:33:56,10.1.1.3,186,-0.390,-0.390,-0.390,0.000,0.000,0.000
1641069237132750080,2022-01-01-20:33:57,10.1.1.3,186,-0.400,-0.400,-0.400,0.000,0.000,0.000
1641069237333376000,2022-01-01-20:33:57,10.1.1.3,187,-0.410,-0.410,-0.410,0.000,0.000,0.000
1641069237534217984,2022-01-01-20:33:57,10.1.1.3,185,-0.420,-0.420,-0.420,0.000,0.000,0.000
1641069237732711936,2022-01-01-20:33:57,10.1.1.3,183,-0.430,-0.430,-0.430,0.000,0.000,0.000
1641069237935201792,2022-01-01-20:33:57,10.1.1.3,185,-0.440,-0.440,-0.440,0.000,0.000,0.000
1641069238134273024,2022-01-01-20:33:58,10.1.1.3,183,-0.450,-0.450,-0.450,0.000,0.000,0.000
1641069238335470080,2022-01-01-20:33:58,10.1.1.3,182,-0.460,-0.460,-0.460,0.000,0.000,0.000
1641069238536716032,2022-01-01-20:33:58,10.1.1.3,183,-0.470,-0.470,-0.470,0.000,0.000,0.000
1641069238737283072,2022-01-01-20:33:58,10.1.1.3,183,-0.480,-0.480,-0.480,0.000,0.000,0.000
1641069238938342144,2022-01-01-20:33:58,10.1.1.3,183,-0.490,-0.490,-0.490,0.000,0.000,0.000
1641069239137891072,2022-01-01-20:33:59,10.1.1.3,182,-0.480,-0.480,-0.480,0.000,0.000,0.000
1641069239339890944,2022-01-01-20:33:59,10.1.1.3,182,-0.470,-0.470,-0.470,0.000,0.000,0.000
1641069239539820800,2022-01-01-20:33:59,10.1.1.3,179,-0.460,-0.460,-0.460,0.000,0.000,0.000
1641069239758224128,2022-01-01-20:33:59,10.1.1.3,193,-0.450,-0.450,-0.450,0.000,0.000,0.000
1641069239961991168,2022-01-01-20:33:59,10.1.1.3,193,-0.440,-0.440,-0.440,0.000,0.000,0.000
1641069240159392000,2022-01-01-20:34:00,10.1.1.3,185,-0.430,-0.430,-0.430,0.000,0.000,0.000
1641069240361890048,2022-01-01-20:34:00,10.1.1.3,186,-0.420,-0.420,-0.420,0.000,0.000,0.000
1641069240561750016,2022-01-01-20:34:00,10.1.1.3,185,-0.410,-0.410,-0.410,0.000,0.000,0.000
1641069240762469888,2022-01-01-20:34:00,10.1.1.3,185,-0.400,-0.400,-0.400,0.000,0.000,0.000
1641069240961998848,2022-01-01-20:34:00,10.1.1.3,182,-0.390,-0.390,-0.390,0.000,0.000,0.000
1641069241161778944,2022-01-01-20:34:01,10.1.1.3,180,-0.380,-0.380,-0.380,0.000,0.000,0.000
1641069241363496192,2022-01-01-20:34:01,10.1.1.3,180,-0.370,-0.370,-0.370,0.000,0.000,0.000
1641069241582756096,2022-01-01-20:34:01,10.1.1.3,198,-0.360,-0.360,-0.360,0.000,0.000,0.000
1641069241782563072,2022-01-01-20:34:01,10.1.1.3,195,-0.350,-0.350,-0.350,0.000,0.000,0.000
1641069241983191040,2022-01-01-20:34:01,10.1.1.3,195,-0.340,-0.340,-0.340,0.000,0.000,0.000
1641069242184462080,2022-01-01-20:34:02,10.1.1.3,196,-0.330,-0.330,-0.330,0.000,0.000,0.000
1641069242382958848,2022-01-01-20:34:02,10.1.1.3,193,-0.320,-0.320,-0.320,0.000,0.000,0.000
1641069242583002112,2022-01-01-20:34:02,10.1.1.3,193,-0.310,-0.310,-0.310,0.000,0.000,0.000
1641069242783420160,2022-01-01-20:34:02,10.1.1.3,191,-0.300,-0.300,-0.300,0.000,0.000,0.000
1641069242985070080,2022-01-01-20:34:02,10.1.1.3,193,-0.290,-0.290,-0.290,0.000,0.000,0.000
1641069243184751872,2022-01-01-20:34:03,10.1.1.3,191,-0.280,-0.280,-0.280,0.000,0.000,0.000
1641069243385124096,2022-01-01-20:34:03,10.1.1.3,191,-0.270,-0.270,-0.270,0.000,0.000,0.000
1641069243583454976,2022-01-01-20:34:03,10.1.1.3,185,-0.260,-0.260,-0.260,0.000,0.000,0.000
1641069243783675904,2022-01-01-20:34:03,10.1.1.3,183,-0.250,-0.250,-0.250,0.000,0.000,0.000
1641069243986671872,2022-01-01-20:34:03,10.1.1.3,185,-0.240,-0.240,-0.240,0.000,0.000,0.000
1641069244184143104,2022-01-01-20:34:04,10.1.1.3,181,-0.230,-0.230,-0.230,0.000,0.000,0.000
1641069244405507072,2022-01-01-20:34:04,10.1.1.3,199,-0.220,-0.220,-0.220,0.000,0.000,0.000
1641069244603928064,2022-01-01-20:34:04,10.1.1.3,196,-0.210,-0.210,-0.210,0.000,0.000,0.000
1641069244805155072,2022-01-01-20:34:04,10.1.1.3,196,-0.200,-0.200,-0.200,0.000,0.000,0.000
1641069245006412032,2022-01-01-20:34:05,10.1.1.3,195,-0.190,-0.190,-0.190,0.000,0.000,0.000
1641069245205501952,2022-01-01-20:34:05,10.1.1.3,194,-0.180,-0.180,-0.180,0.000,0.000,0.000
1641069245404762112,2022-01-01-20:34:05,10.1.1.3,192,-0.170,-0.170,-0.170,0.000,0.000,0.000
1641069245604948992,2022-01-01-20:34:05,10.1.1.3,192,-0.160,-0.160,-0.160,0.000,0.000,0.000
1641069245806842112,2022-01-01-20:34:05,10.1.1.3,192,-0.150,-0.150,-0.150,0.000,0.000,0.000
1641069246005719808,2022-01-01-20:34:06,10.1.1.3,190,-0.140,-0.140,-0.140,0.000,0.000,0.000
1641069246204643072,2022-01-01-20:34:06,10.1.1.3,188,-0.130,-0.130,-0.130,0.000,0.000,0.000
1641069246405831936,2022-01-01-20:34:06,10.1.1.3,186,-0.120,-0.120,-0.120,0.000,0.000,0.000
1641069246611159040,2022-01-01-20:34:06,10.1.1.3,190,-0.110,-0.110,-0.110,0.000,0.000,0.000
1641069246806193152,2022-01-01-20:34:06,10.1.1.3,185,-0.100,-0.100,-0.100,0.000,0.000,0.000
1641069247227085056,2022-01-01-20:34:07,10.1.1.3,200,-0.080,-0.080,-0.080,0.000,0.000,0.000
1641069247429071872,2022-01-01-20:34:07,10.1.1.3,200,-0.070,-0.070,-0.070,0.000,0.000,0.000
1641069247626571008,2022-01-01-20:34:07,10.1.1.3,196,-0.060,-0.060,-0.060,0.000,0.000,0.000
1641069247825092096,2022-01-01-20:34:07,10.1.1.3,194,-0.050,-0.050,-0.050,0.000,0.000,0.000
1641069248024200960,2022-01-01-20:34:08,10.1.1.3,192,-0.040,-0.040,-0.040,0.000,0.000,0.000
1641069248223112192,2022-01-01-20:34:08,10.1.1.3,189,-0.030,-0.030,-0.030,0.000,0.000,0.000
1641069248424748032,2022-01-01-20:34:08,10.1.1.3,186,-0.020,-0.020,-0.020,0.000,0.000,0.000
1641069248624270080,2022-01-01-20:34:08,10.1.1.3,185,-0.010,-0.010,-0.010,0.000,0.000,0.000
1641069248825793024,2022-01-01-20:34:08,10.1.1.3,185,0.000,0.000,0.000,0.000,0.000,0.000
1641069249023190016,2022-01-01-20:34:09,10.1.1.3,182,-0.010,-0.010,-0.010,0.000,0.000,0.000
1641069249224531968,2022-01-01-20:34:09,10.1.1.3,181,-0.020,-0.020,-0.020,0.000,0.000,0.000
1641069249445067008,2022-01-01-20:34:09,10.1.1.3,198,-0.030,-0.030,-0.030,0.000,0.000,0.000
1641069249646451968,2022-01-01-20:34:09,10.1.1.3,199,-0.040,-0.040,-0.040,0.000,0.000,0.000
1641069249842796032,2022-01-01-20:34:09,10.1.1.3,194,-0.050,-0.050,-0.050,0.000,0.000,0.000
1641069250043805952,2022-01-01-20:34:10,10.1.1.3,194,-0.060,-0.060,-0.060,0.000,0.000,0.000
1641069250243751936,2022-01-01-20:34:10,10.1.1.3,193,-0.070,-0.070,-0.070,0.000,0.000,0.000
1641069250443913984,2022-01-01-20:34:10,10.1.1.3,193,-0.080,-0.080,-0.080,0.000,0.000,0.000
1641069250641532928,2022-01-01-20:34:10,10.1.1.3,187,-0.090,-0.090,-0.090,0.000,0.000,0.000
1641069250841620992,2022-01-01-20:34:10,10.1.1.3,186,-0.100,-0.100,-0.100,0.000,0.000,0.000
1641069251042857984,2022-01-01-20:34:11,10.1.1.3,187,-0.110,-0.110,-0.110,0.000,0.000,0.000
1641069251242217984,2022-01-01-20:34:11,10.1.1.3,186,-0.120,-0.120,-0.120,0.000,0.000,0.000
1641069251441392896,2022-01-01-20:34:11,10.1.1.3,184,-0.130,-0.130,-0.130,0.000,0.000,0.000
1641069251643148032,2022-01-01-20:34:11,10.1.1.3,185,-0.140,-0.140,-0.140,0.000,0.000,0.000
1641069251843607808,2022-01-01-20:34:11,10.1.1.3,184,-0.150,-0.150,-0.150,0.000,0.000,0.000
1641069252041174784,2022-01-01-20:34:12,10.1.1.3,182,-0.160,-0.160,-0.160,0.000,0.000,0.000
1641069252240685824,2022-01-01-20:34:12,10.1.1.3,180,-0.170,-0.170,-0.170,0.000,0.000,0.000
1641069252441200128,2022-01-01-20:34:12,10.1.1.3,179,-0.180,-0.180,-0.180,0.000,0.000,0.000
1641069252642083840,2022-01-01-20:34:12,10.1.1.3,178,-0.190,-0.190,-0.190,0.000,0.000,0.000
1641069252859553024,2022-01-01-20:34:12,10.1.1.3,195,-0.200,-0.200,-0.200,0.000,0.000,0.000
1641069253062257152,2022-01-01-20:34:13,10.1.1.3,197,-0.210,-0.210,-0.210,0.000,0.000,0.000
1641069253259916032,2022-01-01-20:34:13,10.1.1.3,194,-0.220,-0.220,-0.220,0.000,0.000,0.000
1641069253460233984,2022-01-01-20:34:13,10.1.1.3,193,-0.230,-0.230,-0.230,0.000,0.000,0.000
1641069253660105984,2022-01-01-20:34:13,10.1.1.3,192,-0.240,-0.240,-0.240,0.000,0.000,0.000
1641069253861069824,2022-01-01-20:34:13,10.1.1.3,193,-0.250,-0.250,-0.250,0.000,0.000,0.000
1641069254060097024,2022-01-01-20:34:14,10.1.1.3,191,-0.260,-0.260,-0.260,0.000,0.000,0.000
1641069254266108928,2022-01-01-20:34:14,10.1.1.3,196,-0.270,-0.270,-0.270,0.000,0.000,0.000
1641069254460748800,2022-01-01-20:34:14,10.1.1.3,190,-0.280,-0.280,-0.280,0.000,0.000,0.000
1641069254659549952,2022-01-01-20:34:14,10.1.1.3,188,-0.290,-0.290,-0.290,0.000,0.000,0.000
1641069254861288960,2022-01-01-20:34:14,10.1.1.3,189,-0.300,-0.300,-0.300,0.000,0.000,0.000
1641069255058299904,2022-01-01-20:34:15,10.1.1.3,185,-0.310,-0.310,-0.310,0.000,0.000,0.000
1641069255258124032,2022-01-01-20:34:15,10.1.1.3,184,-0.320,-0.320,-0.320,0.000,0.000,0.000
1641069255458221824,2022-01-01-20:34:15,10.1.1.3,183,-0.330,-0.330,-0.330,0.000,0.000,0.000
1641069255657784832,2022-01-01-20:34:15,10.1.1.3,182,-0.340,-0.340,-0.340,0.000,0.000,0.000
1641069255857597184,2022-01-01-20:34:15,10.1.1.3,179,-0.350,-0.350,-0.350,0.000,0.000,0.000
1641069256056081920,2022-01-01-20:34:16,10.1.1.3,175,-0.360,-0.360,-0.360,0.000,0.000,0.000
1641069256256436992,2022-01-01-20:34:16,10.1.1.3,174,-0.370,-0.370,-0.370,0.000,0.000,0.000
1641069256476561920,2022-01-01-20:34:16,10.1.1.3,192,-0.380,-0.380,-0.380,0.000,0.000,0.000
1641069256677249792,2022-01-01-20:34:16,10.1.1.3,190,-0.390,-0.390,-0.390,0.000,0.000,0.000
1641069256877385984,2022-01-01-20:34:16,10.1.1.3,188,-0.400,-0.400,-0.400,0.000,0.000,0.000
1641069257082906112,2022-01-01-20:34:17,10.1.1.3,191,-0.410,-0.410,-0.410,0.000,0.000,0.000
1641069257276324864,2022-01-01-20:34:17,10.1.1.3,180,-0.420,-0.420,-0.420,0.000,0.000,0.000
1641069257475197952,2022-01-01-20:34:17,10.1.1.3,177,-0.430,-0.430,-0.430,0.000,0.000,0.000
1641069257675344896,2022-01-01-20:34:17,10.1.1.3,175,-0.440,-0.440,-0.440,0.000,0.000,0.000
1641069257874351872,2022-01-01-20:34:17,10.1.1.3,173,-0.450,-0.450,-0.450,0.000,0.000,0.000
1641069258074628096,2022-01-01-20:34:18,10.1.1.3,172,-0.460,-0.460,-0.460,0.000,0.000,0.000
1641069258273627904,2022-01-01-20:34:18,10.1.1.3,170,-0.470,-0.470,-0.470,0.000,0.000,0.000
1641069258494456064,2022-01-01-20:34:18,10.1.1.3,190,-0.480,-0.480,-0.480,0.000,0.000,0.000
1641069258693707008,2022-01-01-20:34:18,10.1.1.3,188,-0.490,-0.490,-0.490,0.000,0.000,0.000
1641069258894177024,2022-01-01-20:34:18,10.1.1.3,188,-0.480,-0.480,-0.480,0.000,0.000,0.000
1641069259094665984,2022-01-01-20:34:19,10.1.1.3,188,-0.470,-0.470,-0.470,0.000,0.000,0.000
1641069259293399040,2022-01-01-20:34:19,10.1.1.3,184,-0.460,-0.460,-0.460,0.000,0.000,0.000
1641069259493447168,2022-01-01-20:34:19,10.1.1.3,183,-0.450,-0.450,-0.450,0.000,0.000,0.000
1641069259693839104,2022-01-01-20:34:19,10.1.1.3,181,-0.440,-0.440,-0.440,0.000,0.000,0.000
1641069259892608000,2022-01-01-20:34:19,10.1.1.3,177,-0.430,-0.430,-0.430,0.000,0.000,0.000
1641069260092314880,2022-01-01-20:34:20,10.1.1.3,176,-0.420,-0.420,-0.420,0.000,0.000,0.000
1641069260293623040,2022-01-01-20:34:20,10.1.1.3,176,-0.410,-0.410,-0.410,0.000,0.000,0.000
1641069260491383040,2022-01-01-20:34:20,10.1.1.3,173,-0.400,-0.400,-0.400,0.000,0.000,0.000
1641069260690530048,2022-01-01-20:34:20,10.1.1.3,170,-0.390,-0.390,-0.390,0.000,0.000,0.000
1641069260891904000,2022-01-01-20:34:20,10.1.1.3,170,-0.380,-0.380,-0.380,0.000,0.000,0.000
1641069261090117888,2022-01-01-20:34:21,10.1.1.3,168,-0.370,-0.370,-0.370,0.000,0.000,0.000
1641069261289419008,2022-01-01-20:34:21,10.1.1.3,166,-0.360,-0.360,-0.360,0.000,0.000,0.000
1641069261488953088,2022-01-01-20:34:21,10.1.1.3,164,-0.350,-0.350,-0.350,0.000,0.000,0.000
1641069261709539840,2022-01-01-20:34:21,10.1.1.3,181,-0.340,-0.340,-0.340,0.000,0.000,0.000
1641069261908601088,2022-01-01-20:34:21,10.1.1.3,180,-0.330,-0.330,-0.330,0.000,0.000,0.000
1641069262110199808,2022-01-01-20:34:22,10.1.1.3,180,-0.320,-0.320,-0.320,0.000,0.000,0.000
1641069262310441984,2022-01-01-20:34:22,10.1.1.3,179,-0.310,-0.310,-0.310,0.000,0.000,0.000
1641069262507965952,2022-01-01-20:34:22,10.1.1.3,176,-0.300,-0.300,-0.300,0.000,0.000,0.000
1641069262710066944,2022-01-01-20:34:22,10.1.1.3,177,-0.290,-0.290,-0.290,0.000,0.000,0.000
1641069262906599168,2022-01-01-20:34:22,10.1.1.3,173,-0.280,-0.280,-0.280,0.000,0.000,0.000
1641069263106061056,2022-01-01-20:34:23,10.1.1.3,171,-0.270,-0.270,-0.270,0.000,0.000,0.000
1641069263306652928,2022-01-01-20:34:23,10.1.1.3,171,-0.260,-0.260,-0.260,0.000,0.000,0.000
1641069263505737984,2022-01-01-20:34:23,10.1.1.3,169,-0.250,-0.250,-0.250,0.000,0.000,0.000
1641069263706981888,2022-01-01-20:34:23,10.1.1.3,169,-0.240,-0.240,-0.240,0.000,0.000,0.000
1641069263906114048,2022-01-01-20:34:23,10.1.1.3,166,-0.230,-0.230,-0.230,0.000,0.000,0.000
1641069264105912832,2022-01-01-20:34:24,10.1.1.3,164,-0.220,-0.220,-0.220,0.000,0.000,0.000
1641069264307462912,2022-01-01-20:34:24,10.1.1.3,164,-0.210,-0.210,-0.210,0.000,0.000,0.000
1641069264505497856,2022-01-01-20:34:24,10.1.1.3,162,-0.200,-0.200,-0.200,0.000,0.000,0.000
1641069264724178944,2022-01-01-20:34:24,10.1.1.3,177,-0.190,-0.190,-0.190,0.000,0.000,0.000
1641069264923707136,2022-01-01-20:34:24,10.1.1.3,173,-0.180,-0.180,-0.180,0.000,0.000,0.000
1641069265124665088,2022-01-01-20:34:25,10.1.1.3,172,-0.170,-0.170,-0.170,0.000,0.000,0.000
1641069265323097088,2022-01-01-20:34:25,10.1.1.3,170,-0.160,-0.160,-0.160,0.000,0.000,0.000
1641069265539494912,2022-01-01-20:34:25,10.1.1.3,184,-0.150,-0.150,-0.150,0.000,0.000,0.000
1641069265723532032,2022-01-01-20:34:25,10.1.1.3,168,-0.140,-0.140,-0.140,0.000,0.000,0.000
1641069265924262912,2022-01-01-20:34:25,10.1.1.3,168,-0.130,-0.130,-0.130,0.000,0.000,0.000
1641069266121805056,2022-01-01-20:34:26,10.1.1.3,165,-0.120,-0.120,-0.120,0.000,0.000,0.000
1641069266320766976,2022-01-01-20:34:26,10.1.1.3,162,-0.110,-0.110,-0.110,0.000,0.000,0.000
1641069266520349952,2022-01-01-20:34:26,10.1.1.3,161,-0.100,-0.100,-0.100,0.000,0.000,0.000
1641069266720675840,2022-01-01-20:34:26,10.1.1.3,160,-0.090,-0.090,-0.090,0.000,0.000,0.000
1641069266921473024,2022-01-01-20:34:26,10.1.1.3,160,-0.080,-0.080,-0.080,0.000,0.000,0.000
1641069267119909120,2022-01-01-20:34:27,10.1.1.3,158,-0.070,-0.070,-0.070,0.000,0.000,0.000
1641069267322252032,2022-01-01-20:34:27,10.1.1.3,159,-0.060,-0.060,-0.060,0.000,0.000,0.000
1641069267544358912,2022-01-01-20:34:27,10.1.1.3,180,-0.050,-0.050,-0.050,0.000,0.000,0.000
1641069267745560832,2022-01-01-20:34:27,10.1.1.3,178,-0.040,-0.040,-0.040,0.000,0.000,0.000
1641069267951003136,2022-01-01-20:34:27,10.1.1.3,183,-0.030,-0.030,-0.030,0.000,0.000,0.000
1641069268145945088,2022-01-01-20:34:28,10.1.1.3,177,-0.020,-0.020,-0.020,0.000,0.000,0.000
1641069268348681984,2022-01-01-20:34:28,10.1.1.3,179,-0.010,-0.010,-0.010,0.000,0.000,0.000
1641069268549489920,2022-01-01-20:34:28,10.1.1.3,179,0.000,0.000,0.000,0.000,0.000,0.000
1641069268749835008,2022-01-01-20:34:28,10.1.1.3,179,-0.010,-0.010,-0.010,0.000,0.000,0.000
1641069268954479872,2022-01-01-20:34:28,10.1.1.3,182,-0.020,-0.020,-0.020,0.000,0.000,0.000
1641069269152337920,2022-01-01-20:34:29,10.1.1.3,177,-0.030,-0.030,-0.030,0.000,0.000,0.000
1641069269353101056,2022-01-01-20:34:29,10.1.1.3,178,-0.040,-0.040,-0.040,0.000,0.000,0.000
1641069269556883968,2022-01-01-20:34:29,10.1.1.3,179,-0.050,-0.050,-0.050,0.000,0.000,0.000
1641069269752931072,2022-01-01-20:34:29,10.1.1.3,173,-0.060,-0.060,-0.060,0.000,0.000,0.000
1641069269955259136,2022-01-01-20:34:29,10.1.1.3,172,-0.070,-0.070,-0.070,0.000,0.000,0.000
1641069270153637888,2022-01-01-20:34:30,10.1.1.3,170,-0.080,-0.080,-0.080,0.000,0.000,0.000
1641069270376837120,2022-01-01-20:34:30,10.1.1.3,191,-0.090,-0.090,-0.090,0.000,0.000,0.000
1641069270576343040,2022-01-01-20:34:30,10.1.1.3,190,-0.100,-0.100,-0.100,0.000,0.000,0.000
1641069270778203904,2022-01-01-20:34:30,10.1.1.3,190,-0.110,-0.110,-0.110,0.000,0.000,0.000
1641069270977694976,2022-01-01-20:34:30,10.1.1.3,190,-0.120,-0.120,-0.120,0.000,0.000,0.000
1641069271178181888,2022-01-01-20:34:31,10.1.1.3,188,-0.130,-0.130,-0.130,0.000,0.000,0.000
1641069271378937856,2022-01-01-20:34:31,10.1.1.3,183,-0.140,-0.140,-0.140,0.000,0.000,0.000
1641069271579220992,2022-01-01-20:34:31,10.1.1.3,181,-0.150,-0.150,-0.150,0.000,0.000,0.000
1641069271779216128,2022-01-01-20:34:31,10.1.1.3,178,-0.160,-0.160,-0.160,0.000,0.000,0.000
1641069271979218944,2022-01-01-20:34:31,10.1.1.3,178,-0.170,-0.170,-0.170,0.000,0.000,0.000
1641069272179838976,2022-01-01-20:34:32,10.1.1.3,176,-0.180,-0.180,-0.180,0.000,0.000,0.000
1641069272380825088,2022-01-01-20:34:32,10.1.1.3,177,-0.190,-0.190,-0.190,0.000,0.000,0.000
1641069272601310976,2022-01-01-20:34:32,10.1.1.3,197,-0.200,-0.200,-0.200,0.000,0.000,0.000
1641069272800635136,2022-01-01-20:34:32,10.1.1.3,195,-0.210,-0.210,-0.210,0.000,0.000,0.000
1641069273003771904,2022-01-01-20:34:33,10.1.1.3,197,-0.220,-0.220,-0.220,0.000,0.000,0.000
1641069273200089856,2022-01-01-20:34:33,10.1.1.3,193,-0.230,-0.230,-0.230,0.000,0.000,0.000
1641069273402635008,2022-01-01-20:34:33,10.1.1.3,194,-0.240,-0.240,-0.240,0.000,0.000,0.000
1641069273603127040,2022-01-01-20:34:33,10.1.1.3,194,-0.250,-0.250,-0.250,0.000,0.000,0.000
1641069273801883904,2022-01-01-20:34:33,10.1.1.3,191,-0.260,-0.260,-0.260,0.000,0.000,0.000
1641069274002212096,2022-01-01-20:34:34,10.1.1.3,190,-0.270,-0.270,-0.270,0.000,0.000,0.000
1641069274203229952,2022-01-01-20:34:34,10.1.1.3,189,-0.280,-0.280,-0.280,0.000,0.000,0.000
1641069274405836032,2022-01-01-20:34:34,10.1.1.3,191,-0.290,-0.290,-0.290,0.000,0.000,0.000
1641069274609762048,2022-01-01-20:34:34,10.1.1.3,194,-0.300,-0.300,-0.300,0.000,0.000,0.000
1641069274804013056,2022-01-01-20:34:34,10.1.1.3,187,-0.310,-0.310,-0.310,0.000,0.000,0.000
1641069275004293888,2022-01-01-20:34:35,10.1.1.3,186,-0.320,-0.320,-0.320,0.000,0.000,0.000
1641069275203599104,2022-01-01-20:34:35,10.1.1.3,185,-0.330,-0.330,-0.330,0.000,0.000,0.000
1641069275405561856,2022-01-01-20:34:35,10.1.1.3,185,-0.340,-0.340,-0.340,0.000,0.000,0.000
1641069275605026048,2022-01-01-20:34:35,10.1.1.3,184,-0.350,-0.350,-0.350,0.000,0.000,0.000
1641069275824350208,2022-01-01-20:34:35,10.1.1.3,196,-0.360,-0.360,-0.360,0.000,0.000,0.000
1641069276026398976,2022-01-01-20:34:36,10.1.1.3,198,-0.370,-0.370,-0.370,0.000,0.000,0.000
1641069276227369984,2022-01-01-20:34:36,10.1.1.3,198,-0.380,-0.380,-0.380,0.000,0.000,0.000
1641069276427632128,2022-01-01-20:34:36,10.1.1.3,197,-0.390,-0.390,-0.390,0.000,0.000,0.000
1641069276625298944,2022-01-01-20:34:36,10.1.1.3,194,-0.400,-0.400,-0.400,0.000,0.000,0.000
1641069276825337856,2022-01-01-20:34:36,10.1.1.3,193,-0.410,-0.410,-0.410,0.000,0.000,0.000
1641069277026102016,2022-01-01-20:34:37,10.1.1.3,193,-0.420,-0.420,-0.420,0.000,0.000,0.000
1641069277226823936,2022-01-01-20:34:37,10.1.1.3,193,-0.430,-0.430,-0.430,0.000,0.000,0.000
1641069277425744128,2022-01-01-20:34:37,10.1.1.3,191,-0.440,-0.440,-0.440,0.000,0.000,0.000
1641069277625863936,2022-01-01-20:34:37,10.1.1.3,190,-0.450,-0.450,-0.450,0.000,0.000,0.000
1641069277827030784,2022-01-01-20:34:37,10.1.1.3,191,-0.460,-0.460,-0.460,0.000,0.000,0.000
1641069278026316800,2022-01-01-20:34:38,10.1.1.3,189,-0.470,-0.470,-0.470,0.000,0.000,0.000
1641069278227910144,2022-01-01-20:34:38,10.1.1.3,188,-0.480,-0.480,-0.480,0.000,0.000,0.000
1641069278426310912,2022-01-01-20:34:38,10.1.1.3,184,-0.490,-0.490,-0.490,0.000,0.000,0.000
1641069278625840896,2022-01-01-20:34:38,10.1.1.3,184,-0.480,-0.480,-0.480,0.000,0.000,0.000
1641069278826504960,2022-01-01-20:34:38,10.1.1.3,184,-0.470,-0.470,-0.470,0.000,0.000,0.000
1641069279024539904,2022-01-01-20:34:39,10.1.1.3,180,-0.460,-0.460,-0.460,0.000,0.000,0.000
1641069279229420032,2022-01-01-20:34:39,10.1.1.3,185,-0.450,-0.450,-0.450,0.000,0.000,0.000
1641069279645943040,2022-01-01-20:34:39,10.1.1.3,199,-0.430,-0.430,-0.430,0.000,0.000,0.000
1641069279843657984,2022-01-01-20:34:39,10.1.1.3,196,-0.420,-0.420,-0.420,0.000,0.000,0.000
1641069280044659968,2022-01-01-20:34:40,10.1.1.3,196,-0.410,-0.410,-0.410,0.000,0.000,0.000
1641069280243482112,2022-01-01-20:34:40,10.1.1.3,193,-0.400,-0.400,-0.400,0.000,0.000,0.000
1641069280445184000,2022-01-01-20:34:40,10.1.1.3,194,-0.390,-0.390,-0.390,0.000,0.000,0.000
1641069280644953088,2022-01-01-20:34:40,10.1.1.3,191,-0.380,-0.380,-0.380,0.000,0.000,0.000
1641069280845129984,2022-01-01-20:34:40,10.1.1.3,191,-0.370,-0.370,-0.370,0.000,0.000,0.000
1641069281044182016,2022-01-01-20:34:41,10.1.1.3,188,-0.360,-0.360,-0.360,0.000,0.000,0.000
1641069281244930048,2022-01-01-20:34:41,10.1.1.3,188,-0.350,-0.350,-0.350,0.000,0.000,0.000
1641069281444997120,2022-01-01-20:34:41,10.1.1.3,187,-0.340,-0.340,-0.340,0.000,0.000,0.000
1641069281644921088,2022-01-01-20:34:41,10.1.1.3,184,-0.330,-0.330,-0.330,0.000,0.000,0.000
1641069281844527872,2022-01-01-20:34:41,10.1.1.3,182,-0.320,-0.320,-0.320,0.000,0.000,0.000
1641069282044131072,2022-01-01-20:34:42,10.1.1.3,180,-0.310,-0.310,-0.310,0.000,0.000,0.000
1641069282264316928,2022-01-01-20:34:42,10.1.1.3,198,-0.300,-0.300,-0.300,0.000,0.000,0.000
1641069282462529792,2022-01-01-20:34:42,10.1.1.3,194,-0.290,-0.290,-0.290,0.000,0.000,0.000
1641069282666480896,2022-01-01-20:34:42,10.1.1.3,197,-0.280,-0.280,-0.280,0.000,0.000,0.000
1641069282863634944,2022-01-01-20:34:42,10.1.1.3,193,-0.270,-0.270,-0.270,0.000,0.000,0.000
1641069283062208768,2022-01-01-20:34:43,10.1.1.3,188,-0.260,-0.260,-0.260,0.000,0.000,0.000
1641069283264592896,2022-01-01-20:34:43,10.1.1.3,189,-0.250,-0.250,-0.250,0.000,0.000,0.000
1641069283462738944,2022-01-01-20:34:43,10.1.1.3,187,-0.240,-0.240,-0.240,0.000,0.000,0.000
1641069283663117056,2022-01-01-20:34:43,10.1.1.3,184,-0.230,-0.230,-0.230,0.000,0.000,0.000
1641069283862086912,2022-01-01-20:34:43,10.1.1.3,181,-0.220,-0.220,-0.220,0.000,0.000,0.000
1641069284062344960,2022-01-01-20:34:44,10.1.1.3,179,-0.210,-0.210,-0.210,0.000,0.000,0.000
1641069284281061888,2022-01-01-20:34:44,10.1.1.3,196,-0.200,-0.200,-0.200,0.000,0.000,0.000
1641069284482973184,2022-01-01-20:34:44,10.1.1.3,197,-0.190,-0.190,-0.190,0.000,0.000,0.000
1641069284681637120,2022-01-01-20:34:44,10.1.1.3,195,-0.180,-0.180,-0.180,0.000,0.000,0.000
1641069284880635904,2022-01-01-20:34:44,10.1.1.3,193,-0.170,-0.170,-0.170,0.000,0.000,0.000
1641069285080167936,2022-01-01-20:34:45,10.1.1.3,192,-0.160,-0.160,-0.160,0.000,0.000,0.000
1641069285282577920,2022-01-01-20:34:45,10.1.1.3,193,-0.150,-0.150,-0.150,0.000,0.000,0.000
1641069285481179904,2022-01-01-20:34:45,10.1.1.3,191,-0.140,-0.140,-0.140,0.000,0.000,0.000
1641069285680422144,2022-01-01-20:34:45,10.1.1.3,190,-0.130,-0.130,-0.130,0.000,0.000,0.000
1641069285879384064,2022-01-01-20:34:45,10.1.1.3,188,-0.120,-0.120,-0.120,0.000,0.000,0.000
1641069286082915072,2022-01-01-20:34:46,10.1.1.3,190,-0.110,-0.110,-0.110,0.000,0.000,0.000
1641069286281744128,2022-01-01-20:34:46,10.1.1.3,188,-0.100,-0.100,-0.100,0.000,0.000,0.000
1641069286480067072,2022-01-01-20:34:46,10.1.1.3,185,-0.090,-0.090,-0.090,0.000,0.000,0.000
1641069286682956032,2022-01-01-20:34:46,10.1.1.3,188,-0.080,-0.080,-0.080,0.000,0.000,0.000
1641069286879156224,2022-01-01-20:34:46,10.1.1.3,183,-0.070,-0.070,-0.070,0.000,0.000,0.000
1641069287079298048,2022-01-01-20:34:47,10.1.1.3,183,-0.060,-0.060,-0.060,0.000,0.000,0.000
1641069287279331072,2022-01-01-20:34:47,10.1.1.3,181,-0.050,-0.050,-0.050,0.000,0.000,0.000
1641069287478440960,2022-01-01-20:34:47,10.1.1.3,179,-0.040,-0.040,-0.040,0.000,0.000,0.000
1641069287678193152,2022-01-01-20:34:47,10.1.1.3,177,-0.030,-0.030,-0.030,0.000,0.000,0.000
1641069287878851840,2022-01-01-20:34:47,10.1.1.3,177,-0.020,-0.020,-0.020,0.000,0.000,0.000
1641069288078396160,2022-01-01-20:34:48,10.1.1.3,175,-0.010,-0.010,-0.010,0.000,0.000,0.000
1641069288297932032,2022-01-01-20:34:48,10.1.1.3,193,0.000,0.000,0.000,0.000,0.000,0.000
1641069288497591040,2022-01-01-20:34:48,10.1.1.3,192,-0.010,-0.010,-0.010,0.000,0.000,0.000
1641069288697818880,2022-01-01-20:34:48,10.1.1.3,190,-0.020,-0.020,-0.020,0.000,0.000,0.000
1641069288896968960,2022-01-01-20:34:48,10.1.1.3,188,-0.030,-0.030,-0.030,0.000,0.000,0.000
1641069289101996800,2022-01-01-20:34:49,10.1.1.3,191,-0.040,-0.040,-0.040,0.000,0.000,0.000
1641069289296275968,2022-01-01-20:34:49,10.1.1.3,185,-0.050,-0.050,-0.050,0.000,0.000,0.000
1641069289496547072,2022-01-01-20:34:49,10.1.1.3,184,-0.060,-0.060,-0.060,0.000,0.000,0.000
1641069289695982080,2022-01-01-20:34:49,10.1.1.3,182,-0.070,-0.070,-0.070,0.000,0.000,0.000
1641069289895448064,2022-01-01-20:34:49,10.1.1.3,177,-0.080,-0.080,-0.080,0.000,0.000,0.000
1641069290095328000,2022-01-01-20:34:50,10.1.1.3,176,-0.090,-0.090,-0.090,0.000,0.000,0.000
1641069290295635968,2022-01-01-20:34:50,10.1.1.3,176,-0.100,-0.100,-0.100,0.000,0.000,0.000
1641069290494518016,2022-01-01-20:34:50,10.1.1.3,173,-0.110,-0.110,-0.110,0.000,0.000,0.000
1641069290694850048,2022-01-01-20:34:50,10.1.1.3,172,-0.120,-0.120,-0.120,0.000,0.000,0.000
1641069290894462208,2022-01-01-20:34:50,10.1.1.3,171,-0.130,-0.130,-0.130,0.000,0.000,0.000
1641069291101118208,2022-01-01-20:34:51,10.1.1.3,177,-0.140,-0.140,-0.140,0.000,0.000,0.000
1641069291312093952,2022-01-01-20:34:51,10.1.1.3,187,-0.150,-0.150,-0.150,0.000,0.000,0.000
1641069291512487936,2022-01-01-20:34:51,10.1.1.3,187,-0.160,-0.160,-0.160,0.000,0.000,0.000
1641069291712379904,2022-01-01-20:34:51,10.1.1.3,186,-0.170,-0.170,-0.170,0.000,0.000,0.000
1641069291913217024,2022-01-01-20:34:51,10.1.1.3,186,-0.180,-0.180,-0.180,0.000,0.000,0.000
1641069292112454912,2022-01-01-20:34:52,10.1.1.3,180,-0.190,-0.190,-0.190,0.000,0.000,0.000
1641069292312880128,2022-01-01-20:34:52,10.1.1.3,180,-0.200,-0.200,-0.200,0.000,0.000,0.000
1641069292511805952,2022-01-01-20:34:52,10.1.1.3,178,-0.210,-0.210,-0.210,0.000,0.000,0.000
1641069292710545920,2022-01-01-20:34:52,10.1.1.3,176,-0.220,-0.220,-0.220,0.000,0.000,0.000
1641069292910548992,2022-01-01-20:34:52,10.1.1.3,174,-0.230,-0.230,-0.230,0.000,0.000,0.000
1641069293110902016,2022-01-01-20:34:53,10.1.1.3,173,-0.240,-0.240,-0.240,0.000,0.000,0.000
1641069293311289088,2022-01-01-20:34:53,10.1.1.3,173,-0.250,-0.250,-0.250,0.000,0.000,0.000
1641069293509462016,2022-01-01-20:34:53,10.1.1.3,170,-0.260,-0.260,-0.260,0.000,0.000,0.000
1641069293708872192,2022-01-01-20:34:53,10.1.1.3,169,-0.270,-0.270,-0.270,0.000,0.000,0.000
1641069293911240960,2022-01-01-20:34:53,10.1.1.3,169,-0.280,-0.280,-0.280,0.000,0.000,0.000
1641069294111886080,2022-01-01-20:34:54,10.1.1.3,168,-0.290,-0.290,-0.290,0.000,0.000,0.000
1641069294311070976,2022-01-01-20:34:54,10.1.1.3,168,-0.300,-0.300,-0.300,0.000,0.000,0.000
1641069294528742144,2022-01-01-20:34:54,10.1.1.3,185,-0.310,-0.310,-0.310,0.000,0.000,0.000
1641069294727168000,2022-01-01-20:34:54,10.1.1.3,182,-0.320,-0.320,-0.320,0.000,0.000,0.000
1641069294929469184,2022-01-01-20:34:54,10.1.1.3,183,-0.330,-0.330,-0.330,0.000,0.000,0.000
1641069295127782144,2022-01-01-20:34:55,10.1.1.3,178,-0.340,-0.340,-0.340,0.000,0.000,0.000
1641069295326992896,2022-01-01-20:34:55,10.1.1.3,176,-0.350,-0.350,-0.350,0.000,0.000,0.000
1641069295526920960,2022-01-01-20:34:55,10.1.1.3,174,-0.360,-0.360,-0.360,0.000,0.000,0.000
1641069295726754816,2022-01-01-20:34:55,10.1.1.3,171,-0.370,-0.370,-0.370,0.000,0.000,0.000
1641069295926320128,2022-01-01-20:34:55,10.1.1.3,170,-0.380,-0.380,-0.380,0.000,0.000,0.000
1641069296125777920,2022-01-01-20:34:56,10.1.1.3,168,-0.390,-0.390,-0.390,0.000,0.000,0.000
1641069296328325120,2022-01-01-20:34:56,10.1.1.3,170,-0.400,-0.400,-0.400,0.000,0.000,0.000
1641069296524759040,2022-01-01-20:34:56,10.1.1.3,163,-0.410,-0.410,-0.410,0.000,0.000,0.000
1641069296725716224,2022-01-01-20:34:56,10.1.1.3,161,-0.420,-0.420,-0.420,0.000,0.000,0.000
1641069296924460032,2022-01-01-20:34:56,10.1.1.3,161,-0.430,-0.430,-0.430,0.000,0.000,0.000
1641069297143769088,2022-01-01-20:34:57,10.1.1.3,179,-0.440,-0.440,-0.440,0.000,0.000,0.000
1641069297345263872,2022-01-01-20:34:57,10.1.1.3,179,-0.450,-0.450,-0.450,0.000,0.000,0.000
1641069297544145152,2022-01-01-20:34:57,10.1.1.3,177,-0.460,-0.460,-0.460,0.000,0.000,0.000
1641069297742904832,2022-01-01-20:34:57,10.1.1.3,174,-0.470,-0.470,-0.470,0.000,0.000,0.000
1641069297944657152,2022-01-01-20:34:57,10.1.1.3,176,-0.480,-0.480,-0.480,0.000,0.000,0.000
1641069298142775040,2022-01-01-20:34:58,10.1.1.3,173,-0.490,-0.490,-0.490,0.000,0.000,0.000
1641069298342916864,2022-01-01-20:34:58,10.1.1.3,172,-0.480,-0.480,-0.480,0.000,0.000,0.000
1641069298542788096,2022-01-01-20:34:58,10.1.1.3,171,-0.470,-0.470,-0.470,0.000,0.000,0.000
1641069298742018816,2022-01-01-20:34:58,10.1.1.3,165,-0.460,-0.460,-0.460,0.000,0.000,0.000
1641069298940888832,2022-01-01-20:34:58,10.1.1.3,163,-0.450,-0.450,-0.450,0.000,0.000,0.000
1641069299141424896,2022-01-01-20:34:59,10.1.1.3,158,-0.440,-0.440,-0.440,0.000,0.000,0.000
1641069299362394112,2022-01-01-20:34:59,10.1.1.3,178,-0.430,-0.430,-0.430,0.000,0.000,0.000
1641069299566191872,2022-01-01-20:34:59,10.1.1.3,180,-0.420,-0.420,-0.420,0.000,0.000,0.000
1641069299767442944,2022-01-01-20:34:59,10.1.1.3,180,-0.410,-0.410,-0.410,0.000,0.000,0.000
1641069299966419968,2022-01-01-20:34:59,10.1.1.3,178,-0.400,-0.400,-0.400,0.000,0.000,0.000
1641069300166160128,2022-01-01-20:35:00,10.1.1.3,177,-0.390,-0.390,-0.390,0.000,0.000,0.000
1641069300368745216,2022-01-01-20:35:00,10.1.1.3,179,-0.380,-0.380,-0.380,0.000,0.000,0.000
1641069300569122048,2022-01-01-20:35:00,10.1.1.3,178,-0.370,-0.370,-0.370,0.000,0.000,0.000
1641069300770277888,2022-01-01-20:35:00,10.1.1.3,178,-0.360,-0.360,-0.360,0.000,0.000,0.000
1641069300971131136,2022-01-01-20:35:00,10.1.1.3,178,-0.350,-0.350,-0.350,0.000,0.000,0.000
1641069301174217984,2022-01-01-20:35:01,10.1.1.3,181,-0.340,-0.340,-0.340,0.000,0.000,0.000
1641069301373382144,2022-01-01-20:35:01,10.1.1.3,179,-0.330,-0.330,-0.330,0.000,0.000,0.000
1641069301571835136,2022-01-01-20:35:01,10.1.1.3,177,-0.320,-0.320,-0.320,0.000,0.000,0.000
1641069301773292032,2022-01-01-20:35:01,10.1.1.3,177,-0.310,-0.310,-0.310,0.000,0.000,0.000
1641069301974179072,2022-01-01-20:35:01,10.1.1.3,177,-0.300,-0.300,-0.300,0.000,0.000,0.000
1641069302178488064,2022-01-01-20:35:02,10.1.1.3,180,-0.290,-0.290,-0.290,0.000,0.000,0.000
1641069302377640960,2022-01-01-20:35:02,10.1.1.3,177,-0.280,-0.280,-0.280,0.000,0.000,0.000
1641069302575609088,2022-01-01-20:35:02,10.1.1.3,174,-0.270,-0.270,-0.270,0.000,0.000,0.000
1641069302777355008,2022-01-01-20:35:02,10.1.1.3,174,-0.260,-0.260,-0.260,0.000,0.000,0.000
1641069302977905920,2022-01-01-20:35:02,10.1.1.3,174,-0.250,-0.250,-0.250,0.000,0.000,0.000
1641069303197825792,2022-01-01-20:35:03,10.1.1.3,193,-0.240,-0.240,-0.240,0.000,0.000,0.000
1641069303400881920,2022-01-01-20:35:03,10.1.1.3,195,-0.230,-0.230,-0.230,0.000,0.000,0.000
1641069303600915968,2022-01-01-20:35:03,10.1.1.3,194,-0.220,-0.220,-0.220,0.000,0.000,0.000
1641069303799941120,2022-01-01-20:35:03,10.1.1.3,192,-0.210,-0.210,-0.210,0.000,0.000,0.000
1641069303998533120,2022-01-01-20:35:03,10.1.1.3,189,-0.200,-0.200,-0.200,0.000,0.000,0.000
1641069304201795072,2022-01-01-20:35:04,10.1.1.3,191,-0.190,-0.190,-0.190,0.000,0.000,0.000
1641069304401639936,2022-01-01-20:35:04,10.1.1.3,191,-0.180,-0.180,-0.180,0.000,0.000,0.000
1641069304605645824,2022-01-01-20:35:04,10.1.1.3,194,-0.170,-0.170,-0.170,0.000,0.000,0.000
1641069304801369856,2022-01-01-20:35:04,10.1.1.3,187,-0.160,-0.160,-0.160,0.000,0.000,0.000
1641069305001494784,2022-01-01-20:35:05,10.1.1.3,186,-0.150,-0.150,-0.150,0.000,0.000,0.000
1641069305202067968,2022-01-01-20:35:05,10.1.1.3,186,-0.140,-0.140,-0.140,0.000,0.000,0.000
1641069305402331136,2022-01-01-20:35:05,10.1.1.3,184,-0.130,-0.130,-0.130,0.000,0.000,0.000
1641069305603220992,2022-01-01-20:35:05,10.1.1.3,184,-0.120,-0.120,-0.120,0.000,0.000,0.000
1641069305809314048,2022-01-01-20:35:05,10.1.1.3,189,-0.110,-0.110,-0.110,0.000,0.000,0.000
1641069306004147968,2022-01-01-20:35:06,10.1.1.3,182,-0.100,-0.100,-0.100,0.000,0.000,0.000
1641069306203480832,2022-01-01-20:35:06,10.1.1.3,181,-0.090,-0.090,-0.090,0.000,0.000,0.000
1641069306426473984,2022-01-01-20:35:06,10.1.1.3,197,-0.080,-0.080,-0.080,0.000,0.000,0.000
1641069306622833920,2022-01-01-20:35:06,10.1.1.3,195,-0.070,-0.070,-0.070,0.000,0.000,0.000
1641069306827516160,2022-01-01-20:35:06,10.1.1.3,199,-0.060,-0.060,-0.060,0.000,0.000,0.000
1641069307027407872,2022-01-01-20:35:07,10.1.1.3,198,-0.050,-0.050,-0.050,0.000,0.000,0.000
1641069307224796160,2022-01-01-20:35:07,10.1.1.3,194,-0.040,-0.040,-0.040,0.000,0.000,0.000
1641069307425198080,2022-01-01-20:35:07,10.1.1.3,191,-0.030,-0.030,-0.030,0.000,0.000,0.000
1641069307627216128,2022-01-01-20:35:07,10.1.1.3,193,-0.020,-0.020,-0.020,0.000,0.000,0.000
1641069307828290048,2022-01-01-20:35:07,10.1.1.3,194,-0.010,-0.010,-0.010,0.000,0.000,0.000
1641069308025302784,2022-01-01-20:35:08,10.1.1.3,190,0.000,0.000,0.000,0.000,0.000,0.000
1641069308226520064,2022-01-01-20:35:08,10.1.1.3,188,-0.010,-0.010,-0.010,0.000,0.000,0.000
1641069308425692160,2022-01-01-20:35:08,10.1.1.3,187,-0.020,-0.020,-0.020,0.000,0.000,0.000
1641069308628130048,2022-01-01-20:35:08,10.1.1.3,189,-0.030,-0.030,-0.030,0.000,0.000,0.000
