FedericoMungari/DigitalTwin_service/01_WiredScenario/Output/Output_script/script_ROSAPI_output_robots8_freq0_5.txt
timestamp,date,node,latency,joint_1,joint_2,joint_3,joint_4,joint_5,joint_6
1640670572236238848,2021-12-28-05:49:32,10.1.1.6,1640670572236.0598,-0.000,0.000,-0.000,0.000,-0.000,0.000
1640670576252257024,2021-12-28-05:49:36,10.1.1.6,12,-0.000,0.000,-0.000,0.000,-0.000,0.000
1640670578330988032,2021-12-28-05:49:38,10.1.1.6,18,-0.000,0.000,-0.000,0.000,-0.000,0.000
1640670580368797952,2021-12-28-05:49:40,10.1.1.6,14,-0.000,0.000,-0.000,0.000,-0.000,0.000
1640670582444942848,2021-12-28-05:49:42,10.1.1.6,12,-0.000,0.000,-0.000,0.000,-0.000,0.000
1640670584668880896,2021-12-28-05:49:44,10.1.1.6,0,-0.000,0.000,-0.000,0.000,-0.000,0.000
1640670586797992960,2021-12-28-05:49:46,10.1.1.6,19,-0.000,0.000,-0.000,0.000,-0.000,0.000
1640670588874561024,2021-12-28-05:49:48,10.1.1.6,14,-0.000,0.000,-0.000,0.000,-0.000,0.000
1640670590911094016,2021-12-28-05:49:50,10.1.1.6,4,-0.000,0.000,-0.000,0.000,-0.000,0.000
1640670593067536128,2021-12-28-05:49:53,10.1.1.6,6,-0.000,0.000,-0.000,0.000,-0.000,0.000
1640670595164072960,2021-12-28-05:49:55,10.1.1.6,9,-0.000,0.000,-0.000,0.000,-0.000,0.000
1640670597221414144,2021-12-28-05:49:57,10.1.1.6,2,-0.000,0.000,-0.000,0.000,-0.000,0.000
1640670599316851968,2021-12-28-05:49:59,10.1.1.6,15,-0.000,0.000,-0.000,0.000,-0.000,0.000
1640670601373491968,2021-12-28-05:50:01,10.1.1.6,11,-0.000,0.000,-0.000,0.000,-0.000,0.000
1640670603410000128,2021-12-28-05:50:03,10.1.1.6,14,-0.000,0.000,-0.000,0.000,-0.000,0.000
1640670605506530048,2021-12-28-05:50:05,10.1.1.6,6,-0.000,0.000,-0.000,0.000,-0.000,0.000
1640670607562861056,2021-12-28-05:50:07,10.1.1.6,1,-0.000,0.000,-0.000,0.000,-0.000,0.000
1640670609619611136,2021-12-28-05:50:09,10.1.1.6,15,-0.000,0.000,-0.000,0.000,-0.000,0.000
1640670611696010240,2021-12-28-05:50:11,10.1.1.6,1,-0.000,0.000,-0.000,0.000,-0.000,0.000
1640670613772718848,2021-12-28-05:50:13,10.1.1.6,20,-0.000,0.000,-0.000,0.000,-0.000,0.000
1640670615868953088,2021-12-28-05:50:15,10.1.1.6,18,-0.000,0.000,-0.000,0.000,-0.000,0.000
1640670617885915904,2021-12-28-05:50:17,10.1.1.6,1,-0.000,0.000,-0.000,0.000,-0.000,0.000
1640670619961582848,2021-12-28-05:50:19,10.1.1.6,15,-0.000,0.000,-0.000,0.000,-0.000,0.000
1640670621997591040,2021-12-28-05:50:21,10.1.1.6,13,-0.000,0.000,-0.000,0.000,-0.000,0.000
1640670624163794944,2021-12-28-05:50:24,10.1.1.6,14,-0.000,0.000,-0.000,0.000,-0.000,0.000
1640670626200936192,2021-12-28-05:50:26,10.1.1.6,5,-0.000,0.000,-0.000,0.000,-0.000,0.000
1640670628249268992,2021-12-28-05:50:28,10.1.1.6,9,-0.000,0.000,-0.000,0.000,-0.000,0.000
1640670630317462016,2021-12-28-05:50:30,10.1.1.6,1,-0.000,0.000,-0.000,0.000,-0.000,0.000
1640670632402443776,2021-12-28-05:50:32,10.1.1.6,14,-0.000,0.000,-0.000,0.000,-0.000,0.000
1640670634468720896,2021-12-28-05:50:34,10.1.1.6,14,-0.000,0.000,-0.000,0.000,-0.000,0.000
1640670636546676992,2021-12-28-05:50:36,10.1.1.6,1,-0.000,0.000,-0.000,0.000,-0.000,0.000
1640670638607142912,2021-12-28-05:50:38,10.1.1.6,9,-0.000,0.000,-0.000,0.000,-0.000,0.000
1640670640727683072,2021-12-28-05:50:40,10.1.1.6,11,-0.000,0.000,-0.000,0.000,-0.000,0.000
1640670642745348864,2021-12-28-05:50:42,10.1.1.6,0,-0.000,0.000,-0.000,0.000,-0.000,0.000
1640670644785288192,2021-12-28-05:50:44,10.1.1.6,13,-0.000,0.000,-0.000,0.000,-0.000,0.000
1640670646821708800,2021-12-28-05:50:46,10.1.1.6,9,-0.000,0.000,-0.000,0.000,-0.000,0.000
1640670648938651136,2021-12-28-05:50:48,10.1.1.6,2,-0.000,0.000,-0.000,0.000,-0.000,0.000
1640670651055700992,2021-12-28-05:50:51,10.1.1.6,1,-0.000,0.000,-0.000,0.000,-0.000,0.000
1640670653112377856,2021-12-28-05:50:53,10.1.1.6,4,-0.000,0.000,-0.000,0.000,-0.000,0.000
1640670655157933824,2021-12-28-05:50:55,10.1.1.6,4,-0.000,0.000,-0.000,0.000,-0.000,0.000
1640670657205876224,2021-12-28-05:50:57,10.1.1.6,9,-0.000,0.000,-0.000,0.000,-0.000,0.000
1640670659331934976,2021-12-28-05:50:59,10.1.1.6,13,-0.000,0.000,-0.000,0.000,-0.000,0.000
1640670661397923840,2021-12-28-05:51:01,10.1.1.6,8,-0.000,0.000,-0.000,0.000,-0.000,0.000
1640670663519748096,2021-12-28-05:51:03,10.1.1.6,16,-0.000,0.000,-0.000,0.000,-0.000,0.000
1640670665572052992,2021-12-28-05:51:05,10.1.1.6,8,-0.000,0.000,-0.000,0.000,-0.000,0.000
1640670667657204992,2021-12-28-05:51:07,10.1.1.6,12,-0.000,0.000,-0.000,0.000,-0.000,0.000
1640670669755044864,2021-12-28-05:51:09,10.1.1.6,9,-0.000,0.000,-0.000,0.000,-0.000,0.000
1640670671793675008,2021-12-28-05:51:11,10.1.1.6,18,-0.000,0.000,-0.000,0.000,-0.000,0.000
1640670673867563008,2021-12-28-05:51:13,10.1.1.6,25,-0.000,0.000,-0.000,0.000,-0.000,0.000
1640670675929440000,2021-12-28-05:51:15,10.1.1.6,11,-0.000,0.000,-0.000,0.000,-0.000,0.000
1640670677986694144,2021-12-28-05:51:17,10.1.1.6,17,-0.000,0.000,-0.000,0.000,-0.000,0.000
1640670680043369984,2021-12-28-05:51:20,10.1.1.6,5,-0.000,0.000,-0.000,0.000,-0.000,0.000
1640670682119948032,2021-12-28-05:51:22,10.1.1.6,2,-0.000,0.000,-0.000,0.000,-0.000,0.000
1640670686233349120,2021-12-28-05:51:26,10.1.1.6,11,-0.000,0.000,-0.000,0.000,-0.000,0.000
1640670688259170048,2021-12-28-05:51:28,10.1.1.6,4,-0.000,0.000,-0.000,0.000,-0.000,0.000
1640670690346918144,2021-12-28-05:51:30,10.1.1.6,11,-0.000,0.000,-0.000,0.000,-0.000,0.000
1640670692391885056,2021-12-28-05:51:32,10.1.1.6,11,-0.000,0.000,-0.000,0.000,-0.000,0.000
1640670694475884032,2021-12-28-05:51:34,10.1.1.6,4,-0.000,0.000,-0.000,0.000,-0.000,0.000
1640670696497926912,2021-12-28-05:51:36,10.1.1.6,7,-0.000,0.000,-0.000,0.000,-0.000,0.000
1640670698537012224,2021-12-28-05:51:38,10.1.1.6,7,-0.000,0.000,-0.000,0.000,-0.000,0.000
1640670700576525056,2021-12-28-05:51:40,10.1.1.6,7,-0.000,0.000,-0.000,0.000,-0.000,0.000
1640670702634124032,2021-12-28-05:51:42,10.1.1.6,10,-0.000,0.000,-0.000,0.000,-0.000,0.000
1640670704672455168,2021-12-28-05:51:44,10.1.1.6,2,-0.000,0.000,-0.000,0.000,-0.000,0.000
1640670706710535936,2021-12-28-05:51:46,10.1.1.6,3,-0.000,0.000,-0.000,0.000,-0.000,0.000
1640670708827820032,2021-12-28-05:51:48,10.1.1.6,9,-0.000,0.000,-0.000,0.000,-0.000,0.000
1640670710905505792,2021-12-28-05:51:50,10.1.1.6,2,-0.000,0.000,-0.000,0.000,-0.000,0.000
1640670712982585856,2021-12-28-05:51:52,10.1.1.6,15,-0.000,0.000,-0.000,0.000,-0.000,0.000
1640670715018784000,2021-12-28-05:51:55,10.1.1.6,8,-0.000,0.000,-0.000,0.000,-0.000,0.000
1640670717077267968,2021-12-28-05:51:57,10.1.1.6,19,-0.000,0.000,-0.000,0.000,-0.000,0.000
1640670719112664064,2021-12-28-05:51:59,10.1.1.6,17,-0.000,0.000,-0.000,0.000,-0.000,0.000
1640670723229347072,2021-12-28-05:52:03,10.1.1.6,10,-0.000,0.000,-0.000,0.000,-0.000,0.000
1640670725294060032,2021-12-28-05:52:05,10.1.1.6,15,-0.000,0.000,-0.000,0.000,-0.000,0.000
1640670727416410880,2021-12-28-05:52:07,10.1.1.6,17,-0.000,0.000,-0.000,0.000,-0.000,0.000
1640670729456773888,2021-12-28-05:52:09,10.1.1.6,3,-0.000,0.000,-0.000,0.000,-0.000,0.000
1640670731537256960,2021-12-28-05:52:11,10.1.1.6,1,-0.000,0.000,-0.000,0.000,-0.000,0.000
1640670733616500992,2021-12-28-05:52:13,10.1.1.6,1,-0.000,0.000,-0.000,0.000,-0.000,0.000
1640670735654915072,2021-12-28-05:52:15,10.1.1.6,1,-0.000,0.000,-0.000,0.000,-0.000,0.000
1640670737732834048,2021-12-28-05:52:17,10.1.1.6,19,-0.000,0.000,-0.000,0.000,-0.000,0.000
1640670739830651136,2021-12-28-05:52:19,10.1.1.6,13,-0.000,0.000,-0.000,0.000,-0.000,0.000
1640670741927692032,2021-12-28-05:52:21,10.1.1.6,16,-0.000,0.000,-0.000,0.000,-0.000,0.000
1640670743964652032,2021-12-28-05:52:23,10.1.1.6,13,-0.000,0.000,-0.000,0.000,-0.000,0.000
1640670746061575936,2021-12-28-05:52:26,10.1.1.6,12,-0.000,0.000,-0.000,0.000,-0.000,0.000
1640670748117573120,2021-12-28-05:52:28,10.1.1.6,12,-0.000,0.000,-0.000,0.000,-0.000,0.000
1640670750235308800,2021-12-28-05:52:30,10.1.1.6,12,-0.000,0.000,-0.000,0.000,-0.000,0.000
1640670752299372032,2021-12-28-05:52:32,10.1.1.6,14,-0.000,0.000,-0.000,0.000,-0.000,0.000
1640670754327559936,2021-12-28-05:52:34,10.1.1.6,8,-0.000,0.000,-0.000,0.000,-0.000,0.000
1640670756373997824,2021-12-28-05:52:36,10.1.1.6,13,-0.000,0.000,-0.000,0.000,-0.000,0.000
1640670758496696832,2021-12-28-05:52:38,10.1.1.6,20,-0.000,0.000,-0.000,0.000,-0.000,0.000
1640670760617336064,2021-12-28-05:52:40,10.1.1.6,16,-0.000,0.000,-0.000,0.000,-0.000,0.000
1640670762677593856,2021-12-28-05:52:42,10.1.1.6,1,-0.000,0.000,-0.000,0.000,-0.000,0.000
1640670764797359872,2021-12-28-05:52:44,10.1.1.6,1,-0.000,0.000,-0.000,0.000,-0.000,0.000
1640670766815561984,2021-12-28-05:52:46,10.1.1.6,0,-0.000,0.000,-0.000,0.000,-0.000,0.000
1640670768876386048,2021-12-28-05:52:48,10.1.1.6,9,-0.000,0.000,-0.000,0.000,-0.000,0.000
1640670770992497920,2021-12-28-05:52:50,10.1.1.6,15,-0.000,0.000,-0.000,0.000,-0.000,0.000
1640670773068894976,2021-12-28-05:52:53,10.1.1.6,0,-0.000,0.000,-0.000,0.000,-0.000,0.000
1640670775105523200,2021-12-28-05:52:55,10.1.1.6,3,-0.000,0.000,-0.000,0.000,-0.000,0.000
1640670777142685952,2021-12-28-05:52:57,10.1.1.6,19,-0.000,0.000,-0.000,0.000,-0.000,0.000
1640670779160173056,2021-12-28-05:52:59,10.1.1.6,1,-0.000,0.000,-0.000,0.000,-0.000,0.000
1640670781236550144,2021-12-28-05:53:01,10.1.1.6,3,-0.000,0.000,-0.000,0.000,-0.000,0.000
1640670783436600064,2021-12-28-05:53:03,10.1.1.6,11,-0.000,0.000,-0.000,0.000,-0.000,0.000
1640670785467566848,2021-12-28-05:53:05,10.1.1.6,1,-0.000,0.000,-0.000,0.000,-0.000,0.000
1640670787533881856,2021-12-28-05:53:07,10.1.1.6,4,-0.000,0.000,-0.000,0.000,-0.000,0.000
1640670789639229184,2021-12-28-05:53:09,10.1.1.6,0,-0.000,0.000,-0.000,0.000,-0.000,0.000
1640670791739245056,2021-12-28-05:53:11,10.1.1.6,8,-0.000,0.000,-0.000,0.000,-0.000,0.000
1640670793800343040,2021-12-28-05:53:13,10.1.1.6,14,-0.000,0.000,-0.000,0.000,-0.000,0.000
1640670795841257216,2021-12-28-05:53:15,10.1.1.6,9,-0.000,0.000,-0.000,0.000,-0.000,0.000
1640670797919281920,2021-12-28-05:53:17,10.1.1.6,16,-0.000,0.000,-0.000,0.000,-0.000,0.000
1640670799978319872,2021-12-28-05:53:19,10.1.1.6,8,-0.000,0.000,-0.000,0.000,-0.000,0.000
1640670802077519872,2021-12-28-05:53:22,10.1.1.6,10,-0.000,0.000,-0.000,0.000,-0.000,0.000
1640670804232939008,2021-12-28-05:53:24,10.1.1.6,15,-0.000,0.000,-0.000,0.000,-0.000,0.000
1640670806331790080,2021-12-28-05:53:26,10.1.1.6,15,-0.000,0.000,-0.000,0.000,-0.000,0.000
1640670808407774976,2021-12-28-05:53:28,10.1.1.6,16,-0.000,0.000,-0.000,0.000,-0.000,0.000
1640670810444739072,2021-12-28-05:53:30,10.1.1.6,17,-0.000,0.000,-0.000,0.000,-0.000,0.000
1640670812521359872,2021-12-28-05:53:32,10.1.1.6,9,-0.000,0.000,-0.000,0.000,-0.000,0.000
1640670814577820160,2021-12-28-05:53:34,10.1.1.6,17,-0.000,0.000,-0.000,0.000,-0.000,0.000
1640670816659307008,2021-12-28-05:53:36,10.1.1.6,18,-0.000,0.000,-0.000,0.000,-0.000,0.000
1640670818730124032,2021-12-28-05:53:38,10.1.1.6,19,-0.000,0.000,-0.000,0.000,-0.000,0.000
1640670820752880128,2021-12-28-05:53:40,10.1.1.6,3,-0.000,0.000,-0.000,0.000,-0.000,0.000
1640670822895932928,2021-12-28-05:53:42,10.1.1.6,18,-0.000,0.000,-0.000,0.000,-0.000,0.000
1640670824918562048,2021-12-28-05:53:44,10.1.1.6,4,-0.000,0.000,-0.000,0.000,-0.000,0.000
1640670827000596992,2021-12-28-05:53:47,10.1.1.6,19,-0.000,0.000,-0.000,0.000,-0.000,0.000
1640670829106641152,2021-12-28-05:53:49,10.1.1.6,9,-0.000,0.000,-0.000,0.000,-0.000,0.000
1640670831235984128,2021-12-28-05:53:51,10.1.1.6,14,-0.000,0.000,-0.000,0.000,-0.000,0.000
1640670833273974784,2021-12-28-05:53:53,10.1.1.6,19,-0.000,0.000,-0.000,0.000,-0.000,0.000
1640670835293154048,2021-12-28-05:53:55,10.1.1.6,13,-0.000,0.000,-0.000,0.000,-0.000,0.000
1640670837408839936,2021-12-28-05:53:57,10.1.1.6,13,-0.000,0.000,-0.000,0.000,-0.000,0.000
1640670839508378880,2021-12-28-05:53:59,10.1.1.6,12,-0.000,0.000,-0.000,0.000,-0.000,0.000
1640670841568270848,2021-12-28-05:54:01,10.1.1.6,8,-0.000,0.000,-0.000,0.000,-0.000,0.000
1640670843602864896,2021-12-28-05:54:03,10.1.1.6,5,-0.000,0.000,-0.000,0.000,-0.000,0.000
1640670845737704960,2021-12-28-05:54:05,10.1.1.6,3,-0.000,0.000,-0.000,0.000,-0.000,0.000
1640670847814565888,2021-12-28-05:54:07,10.1.1.6,0,-0.000,0.000,-0.000,0.000,-0.000,0.000
1640670849883968000,2021-12-28-05:54:09,10.1.1.6,18,-0.000,0.000,-0.000,0.000,-0.000,0.000
1640670852010697984,2021-12-28-05:54:12,10.1.1.6,9,-0.000,0.000,-0.000,0.000,-0.000,0.000
1640670854117099008,2021-12-28-05:54:14,10.1.1.6,0,-0.000,0.000,-0.000,0.000,-0.000,0.000
1640670856177851904,2021-12-28-05:54:16,10.1.1.6,4,-0.000,0.000,-0.000,0.000,-0.000,0.000
1640670860419612928,2021-12-28-05:54:20,10.1.1.6,19,-0.000,0.000,-0.000,0.000,-0.000,0.000
1640670862618619904,2021-12-28-05:54:22,10.1.1.6,13,-0.000,0.000,-0.000,0.000,-0.000,0.000
1640670864761923072,2021-12-28-05:54:24,10.1.1.6,12,-0.000,0.000,-0.000,0.000,-0.000,0.000
1640670866793807104,2021-12-28-05:54:26,10.1.1.6,9,-0.000,0.000,-0.000,0.000,-0.000,0.000
1640670868833231872,2021-12-28-05:54:28,10.1.1.6,10,-0.000,0.000,-0.000,0.000,-0.000,0.000
1640670872978592000,2021-12-28-05:54:32,10.1.1.6,0,-0.000,0.000,-0.000,0.000,-0.000,0.000
1640670875085344000,2021-12-28-05:54:35,10.1.1.6,15,-0.000,0.000,-0.000,0.000,-0.000,0.000
1640670877279949824,2021-12-28-05:54:37,10.1.1.6,13,-0.000,0.000,-0.000,0.000,-0.000,0.000
1640670879376461056,2021-12-28-05:54:39,10.1.1.6,18,-0.000,0.000,-0.000,0.000,-0.000,0.000
1640670881402148864,2021-12-28-05:54:41,10.1.1.6,18,-0.000,0.000,-0.000,0.000,-0.000,0.000
1640670883449470976,2021-12-28-05:54:43,10.1.1.6,2,-0.000,0.000,-0.000,0.000,-0.000,0.000
1640670885516186880,2021-12-28-05:54:45,10.1.1.6,20,-0.000,0.000,-0.000,0.000,-0.000,0.000
1640670887617788928,2021-12-28-05:54:47,10.1.1.6,19,-0.000,0.000,-0.000,0.000,-0.000,0.000
1640670889678706944,2021-12-28-05:54:49,10.1.1.6,13,-0.000,0.000,-0.000,0.000,-0.000,0.000
1640670891778456064,2021-12-28-05:54:51,10.1.1.6,1,-0.000,0.000,-0.000,0.000,-0.000,0.000
1640670893878259968,2021-12-28-05:54:53,10.1.1.6,9,-0.000,0.000,-0.000,0.000,-0.000,0.000
1640670896016075008,2021-12-28-05:54:56,10.1.1.6,7,-0.000,0.000,-0.000,0.000,-0.000,0.000
1640670898074487040,2021-12-28-05:54:58,10.1.1.6,8,-0.000,0.000,-0.000,0.000,-0.000,0.000
1640670900113444096,2021-12-28-05:55:00,10.1.1.6,15,-0.000,0.000,-0.000,0.000,-0.000,0.000
1640670902169382144,2021-12-28-05:55:02,10.1.1.6,0,-0.000,0.000,-0.000,0.000,-0.000,0.000
1640670904228226816,2021-12-28-05:55:04,10.1.1.6,17,-0.000,0.000,-0.000,0.000,-0.000,0.000
1640670906243819008,2021-12-28-05:55:06,10.1.1.6,1,-0.000,0.000,-0.000,0.000,-0.000,0.000
1640670908401454848,2021-12-28-05:55:08,10.1.1.6,14,-0.000,0.000,-0.000,0.000,-0.000,0.000
1640670910517040128,2021-12-28-05:55:10,10.1.1.6,18,-0.000,0.000,-0.000,0.000,-0.000,0.000
1640670912618763008,2021-12-28-05:55:12,10.1.1.6,9,-0.000,0.000,-0.000,0.000,-0.000,0.000
1640670914709882880,2021-12-28-05:55:14,10.1.1.6,4,-0.000,0.000,-0.000,0.000,-0.000,0.000
1640670916734985216,2021-12-28-05:55:16,10.1.1.6,2,-0.000,0.000,-0.000,0.000,-0.000,0.000
1640670918758335232,2021-12-28-05:55:18,10.1.1.6,16,-0.000,0.000,-0.000,0.000,-0.000,0.000
1640670920780731904,2021-12-28-05:55:20,10.1.1.6,4,-0.000,0.000,-0.000,0.000,-0.000,0.000
1640670922882688000,2021-12-28-05:55:22,10.1.1.6,14,-0.000,0.000,-0.000,0.000,-0.000,0.000
1640670924901256192,2021-12-28-05:55:24,10.1.1.6,14,-0.000,0.000,-0.000,0.000,-0.000,0.000
1640670927040115200,2021-12-28-05:55:27,10.1.1.6,9,-0.000,0.000,-0.000,0.000,-0.000,0.000
1640670929158659840,2021-12-28-05:55:29,10.1.1.6,2,-0.000,0.000,-0.000,0.000,-0.000,0.000
1640670931278800896,2021-12-28-05:55:31,10.1.1.6,6,-0.000,0.000,-0.000,0.000,-0.000,0.000
1640670933334908928,2021-12-28-05:55:33,10.1.1.6,11,-0.000,0.000,-0.000,0.000,-0.000,0.000
1640670935393865984,2021-12-28-05:55:35,10.1.1.6,4,-0.000,0.000,-0.000,0.000,-0.000,0.000
1640670937548559872,2021-12-28-05:55:37,10.1.1.6,0,-0.000,0.000,-0.000,0.000,-0.000,0.000
1640670939625350912,2021-12-28-05:55:39,10.1.1.6,14,-0.000,0.000,-0.000,0.000,-0.000,0.000
1640670941741591040,2021-12-28-05:55:41,10.1.1.6,14,-0.000,0.000,-0.000,0.000,-0.000,0.000
1640670943878368000,2021-12-28-05:55:43,10.1.1.6,0,-0.000,0.000,-0.000,0.000,-0.000,0.000
1640670945981443840,2021-12-28-05:55:45,10.1.1.6,6,-0.000,0.000,-0.000,0.000,-0.000,0.000
1640670948029448960,2021-12-28-05:55:48,10.1.1.6,13,-0.000,0.000,-0.000,0.000,-0.000,0.000
1640670950074550016,2021-12-28-05:55:50,10.1.1.6,3,-0.000,0.000,-0.000,0.000,-0.000,0.000
1640670952117538816,2021-12-28-05:55:52,10.1.1.6,3,-0.000,0.000,-0.000,0.000,-0.000,0.000
1640670954219443968,2021-12-28-05:55:54,10.1.1.6,20,-0.000,0.000,-0.000,0.000,-0.000,0.000
1640670956280528128,2021-12-28-05:55:56,10.1.1.6,11,-0.000,0.000,-0.000,0.000,-0.000,0.000
1640670958438220032,2021-12-28-05:55:58,10.1.1.6,17,-0.000,0.000,-0.000,0.000,-0.000,0.000
1640670960536880128,2021-12-28-05:56:00,10.1.1.6,2,-0.000,0.000,-0.000,0.000,-0.000,0.000
1640670962615101184,2021-12-28-05:56:02,10.1.1.6,10,-0.000,0.000,-0.000,0.000,-0.000,0.000
1640670964693358848,2021-12-28-05:56:04,10.1.1.6,11,-0.000,0.000,-0.000,0.000,-0.000,0.000
1640670966730448128,2021-12-28-05:56:06,10.1.1.6,11,-0.000,0.000,-0.000,0.000,-0.000,0.000
1640670968787532032,2021-12-28-05:56:08,10.1.1.6,2,-0.000,0.000,-0.000,0.000,-0.000,0.000
1640670970904293120,2021-12-28-05:56:10,10.1.1.6,18,-0.000,0.000,-0.000,0.000,-0.000,0.000
1640670972920763136,2021-12-28-05:56:12,10.1.1.6,8,-0.000,0.000,-0.000,0.000,-0.000,0.000
1640670974998171136,2021-12-28-05:56:14,10.1.1.6,14,-0.000,0.000,-0.000,0.000,-0.000,0.000
1640670977054868992,2021-12-28-05:56:17,10.1.1.6,1,-0.000,0.000,-0.000,0.000,-0.000,0.000
1640670979124395008,2021-12-28-05:56:19,10.1.1.6,8,-0.000,0.000,-0.000,0.000,-0.000,0.000
1640670981213161984,2021-12-28-05:56:21,10.1.1.6,16,-0.000,0.000,-0.000,0.000,-0.000,0.000
1640670983316708096,2021-12-28-05:56:23,10.1.1.6,10,-0.000,0.000,-0.000,0.000,-0.000,0.000
1640670985338905088,2021-12-28-05:56:25,10.1.1.6,19,-0.000,0.000,-0.000,0.000,-0.000,0.000
1640670987359430912,2021-12-28-05:56:27,10.1.1.6,11,-0.000,0.000,-0.000,0.000,-0.000,0.000
1640670989398448896,2021-12-28-05:56:29,10.1.1.6,14,-0.000,0.000,-0.000,0.000,-0.000,0.000
1640670991417978112,2021-12-28-05:56:31,10.1.1.6,16,-0.000,0.000,-0.000,0.000,-0.000,0.000
1640670993497378048,2021-12-28-05:56:33,10.1.1.6,12,-0.000,0.000,-0.000,0.000,-0.000,0.000
1640670995555577088,2021-12-28-05:56:35,10.1.1.6,14,-0.000,0.000,-0.000,0.000,-0.000,0.000
1640670997611942144,2021-12-28-05:56:37,10.1.1.6,10,-0.000,0.000,-0.000,0.000,-0.000,0.000
1640670999649125120,2021-12-28-05:56:39,10.1.1.6,0,-0.000,0.000,-0.000,0.000,-0.000,0.000
1640671001706220032,2021-12-28-05:56:41,10.1.1.6,2,-0.000,0.000,-0.000,0.000,-0.000,0.000
1640671003743191040,2021-12-28-05:56:43,10.1.1.6,2,-0.000,0.000,-0.000,0.000,-0.000,0.000
1640671005820173056,2021-12-28-05:56:45,10.1.1.6,8,-0.000,0.000,-0.000,0.000,-0.000,0.000
1640671007876986112,2021-12-28-05:56:47,10.1.1.6,11,-0.000,0.000,-0.000,0.000,-0.000,0.000
1640671010000348160,2021-12-28-05:56:50,10.1.1.6,4,-0.000,0.000,-0.000,0.000,-0.000,0.000
1640671012090436864,2021-12-28-05:56:52,10.1.1.6,10,-0.000,0.000,-0.000,0.000,-0.000,0.000
1640671014114417920,2021-12-28-05:56:54,10.1.1.6,2,-0.000,0.000,-0.000,0.000,-0.000,0.000
1640671016200144896,2021-12-28-05:56:56,10.1.1.6,13,-0.000,0.000,-0.000,0.000,-0.000,0.000
1640671018280360960,2021-12-28-05:56:58,10.1.1.6,0,-0.000,0.000,-0.000,0.000,-0.000,0.000
1640671020320118016,2021-12-28-05:57:00,10.1.1.6,6,-0.000,0.000,-0.000,0.000,-0.000,0.000
1640671022359489024,2021-12-28-05:57:02,10.1.1.6,11,-0.000,0.000,-0.000,0.000,-0.000,0.000
1640671024400389888,2021-12-28-05:57:04,10.1.1.6,1,-0.000,0.000,-0.000,0.000,-0.000,0.000
1640671026456645120,2021-12-28-05:57:06,10.1.1.6,14,-0.000,0.000,-0.000,0.000,-0.000,0.000
1640671028493778944,2021-12-28-05:57:08,10.1.1.6,3,-0.000,0.000,-0.000,0.000,-0.000,0.000
1640671030591697920,2021-12-28-05:57:10,10.1.1.6,4,-0.000,0.000,-0.000,0.000,-0.000,0.000
1640671032690031104,2021-12-28-05:57:12,10.1.1.6,11,-0.000,0.000,-0.000,0.000,-0.000,0.000
1640671034765232128,2021-12-28-05:57:14,10.1.1.6,3,-0.000,0.000,-0.000,0.000,-0.000,0.000
1640671036861783040,2021-12-28-05:57:16,10.1.1.6,2,-0.000,0.000,-0.000,0.000,-0.000,0.000
1640671038940236032,2021-12-28-05:57:18,10.1.1.6,10,-0.000,0.000,-0.000,0.000,-0.000,0.000
1640671041056027904,2021-12-28-05:57:21,10.1.1.6,15,-0.000,0.000,-0.000,0.000,-0.000,0.000
1640671043146320128,2021-12-28-05:57:23,10.1.1.6,19,-0.000,0.000,-0.000,0.000,-0.000,0.000
1640671045232905984,2021-12-28-05:57:25,10.1.1.6,10,-0.000,0.000,-0.000,0.000,-0.000,0.000
1640671047317154816,2021-12-28-05:57:27,10.1.1.6,11,-0.000,0.000,-0.000,0.000,-0.000,0.000
1640671051400388096,2021-12-28-05:57:31,10.1.1.6,3,-0.000,0.000,-0.000,0.000,-0.000,0.000
1640671053440198912,2021-12-28-05:57:33,10.1.1.6,14,-0.000,0.000,-0.000,0.000,-0.000,0.000
1640671055481062912,2021-12-28-05:57:35,10.1.1.6,5,-0.000,0.000,-0.000,0.000,-0.000,0.000
1640671057518305024,2021-12-28-05:57:37,10.1.1.6,0,-0.000,0.000,-0.000,0.000,-0.000,0.000
1640671059596185856,2021-12-28-05:57:39,10.1.1.6,15,-0.000,0.000,-0.000,0.000,-0.000,0.000
1640671061634072064,2021-12-28-05:57:41,10.1.1.6,6,-0.000,0.000,-0.000,0.000,-0.000,0.000
1640671063751386880,2021-12-28-05:57:43,10.1.1.6,1,-0.000,0.000,-0.000,0.000,-0.000,0.000
1640671065807636992,2021-12-28-05:57:45,10.1.1.6,16,-0.000,0.000,-0.000,0.000,-0.000,0.000
1640671067924572928,2021-12-28-05:57:47,10.1.1.6,16,-0.000,0.000,-0.000,0.000,-0.000,0.000
1640671070021532160,2021-12-28-05:57:50,10.1.1.6,8,-0.000,0.000,-0.000,0.000,-0.000,0.000
1640671072039165952,2021-12-28-05:57:52,10.1.1.6,13,-0.000,0.000,-0.000,0.000,-0.000,0.000
1640671074096091136,2021-12-28-05:57:54,10.1.1.6,5,-0.000,0.000,-0.000,0.000,-0.000,0.000
1640671076205497856,2021-12-28-05:57:56,10.1.1.6,9,-0.000,0.000,-0.000,0.000,-0.000,0.000
1640671078271972864,2021-12-28-05:57:58,10.1.1.6,11,-0.000,0.000,-0.000,0.000,-0.000,0.000
1640671080295901952,2021-12-28-05:58:00,10.1.1.6,0,-0.000,0.000,-0.000,0.000,-0.000,0.000
1640671082421948928,2021-12-28-05:58:02,10.1.1.6,2,-0.000,0.000,-0.000,0.000,-0.000,0.000
1640671084480217088,2021-12-28-05:58:04,10.1.1.6,14,-0.000,0.000,-0.000,0.000,-0.000,0.000
1640671086519612928,2021-12-28-05:58:06,10.1.1.6,7,-0.000,0.000,-0.000,0.000,-0.000,0.000
1640671088561300992,2021-12-28-05:58:08,10.1.1.6,4,-0.000,0.000,-0.000,0.000,-0.000,0.000
1640671090697377024,2021-12-28-05:58:10,10.1.1.6,15,-0.000,0.000,-0.000,0.000,-0.000,0.000
1640671092735878912,2021-12-28-05:58:12,10.1.1.6,2,-0.000,0.000,-0.000,0.000,-0.000,0.000
1640671094794733056,2021-12-28-05:58:14,10.1.1.6,3,-0.000,0.000,-0.000,0.000,-0.000,0.000
1640671096869764096,2021-12-28-05:58:16,10.1.1.6,16,-0.000,0.000,-0.000,0.000,-0.000,0.000
1640671098931951872,2021-12-28-05:58:18,10.1.1.6,5,-0.000,0.000,-0.000,0.000,-0.000,0.000
1640671101083239168,2021-12-28-05:58:21,10.1.1.6,14,-0.000,0.000,-0.000,0.000,-0.000,0.000
1640671103120322816,2021-12-28-05:58:23,10.1.1.6,12,-0.000,0.000,-0.000,0.000,-0.000,0.000
1640671105158704128,2021-12-28-05:58:25,10.1.1.6,12,-0.000,0.000,-0.000,0.000,-0.000,0.000
1640671107243000064,2021-12-28-05:58:27,10.1.1.6,18,-0.000,0.000,-0.000,0.000,-0.000,0.000
1640671109309967104,2021-12-28-05:58:29,10.1.1.6,14,-0.000,0.000,-0.000,0.000,-0.000,0.000
1640671111375123968,2021-12-28-05:58:31,10.1.1.6,10,-0.000,0.000,-0.000,0.000,-0.000,0.000
1640671113578499072,2021-12-28-05:58:33,10.1.1.6,2,-0.000,0.000,-0.000,0.000,-0.000,0.000
1640671115671529984,2021-12-28-05:58:35,10.1.1.6,8,-0.000,0.000,-0.000,0.000,-0.000,0.000
1640671117799823872,2021-12-28-05:58:37,10.1.1.6,14,-0.000,0.000,-0.000,0.000,-0.000,0.000
1640671119839469824,2021-12-28-05:58:39,10.1.1.6,16,-0.000,0.000,-0.000,0.000,-0.000,0.000
1640671121858374144,2021-12-28-05:58:41,10.1.1.6,4,-0.000,0.000,-0.000,0.000,-0.000,0.000
1640671123916250880,2021-12-28-05:58:43,10.1.1.6,14,-0.000,0.000,-0.000,0.000,-0.000,0.000
1640671125994076928,2021-12-28-05:58:45,10.1.1.6,11,-0.000,0.000,-0.000,0.000,-0.000,0.000
1640671128012378880,2021-12-28-05:58:48,10.1.1.6,1,-0.000,0.000,-0.000,0.000,-0.000,0.000
1640671130068256000,2021-12-28-05:58:50,10.1.1.6,8,-0.000,0.000,-0.000,0.000,-0.000,0.000
1640671132186137088,2021-12-28-05:58:52,10.1.1.6,13,-0.000,0.000,-0.000,0.000,-0.000,0.000
1640671134202688000,2021-12-28-05:58:54,10.1.1.6,2,-0.000,0.000,-0.000,0.000,-0.000,0.000
1640671136238317056,2021-12-28-05:58:56,10.1.1.6,0,-0.000,0.000,-0.000,0.000,-0.000,0.000
1640671138359074048,2021-12-28-05:58:58,10.1.1.6,18,-0.000,0.000,-0.000,0.000,-0.000,0.000
1640671140387536128,2021-12-28-05:59:00,10.1.1.6,12,-0.000,0.000,-0.000,0.000,-0.000,0.000
1640671142416574976,2021-12-28-05:59:02,10.1.1.6,3,-0.000,0.000,-0.000,0.000,-0.000,0.000
1640671144460526080,2021-12-28-05:59:04,10.1.1.6,8,-0.000,0.000,-0.000,0.000,-0.000,0.000
1640671146501199104,2021-12-28-05:59:06,10.1.1.6,6,-0.000,0.000,-0.000,0.000,-0.000,0.000
1640671148540702976,2021-12-28-05:59:08,10.1.1.6,19,-0.000,0.000,-0.000,0.000,-0.000,0.000
1640671150660904960,2021-12-28-05:59:10,10.1.1.6,15,-0.000,0.000,-0.000,0.000,-0.000,0.000
1640671152699407104,2021-12-28-05:59:12,10.1.1.6,3,-0.000,0.000,-0.000,0.000,-0.000,0.000
1640671154778259968,2021-12-28-05:59:14,10.1.1.6,18,-0.000,0.000,-0.000,0.000,-0.000,0.000
1640671156796765952,2021-12-28-05:59:16,10.1.1.6,7,-0.000,0.000,-0.000,0.000,-0.000,0.000
1640671158853688832,2021-12-28-05:59:18,10.1.1.6,11,-0.000,0.000,-0.000,0.000,-0.000,0.000
1640671160891182848,2021-12-28-05:59:20,10.1.1.6,13,-0.000,0.000,-0.000,0.000,-0.000,0.000
1640671162909041920,2021-12-28-05:59:22,10.1.1.6,2,-0.000,0.000,-0.000,0.000,-0.000,0.000
1640671164944840960,2021-12-28-05:59:24,10.1.1.6,0,-0.000,0.000,-0.000,0.000,-0.000,0.000
1640671167021570048,2021-12-28-05:59:27,10.1.1.6,0,-0.000,0.000,-0.000,0.000,-0.000,0.000
1640671167041861120,2021-12-28-05:59:27,10.1.1.6,-1,-0.000,0.000,-0.000,0.000,-0.000,0.000
1640671169102347008,2021-12-28-05:59:29,10.1.1.6,5,-0.000,0.000,-0.000,0.000,-0.000,0.000
1640671171225433088,2021-12-28-05:59:31,10.1.1.6,5,-0.000,0.000,-0.000,0.000,-0.000,0.000
1640671173292478976,2021-12-28-05:59:33,10.1.1.6,14,-0.000,0.000,-0.000,0.000,-0.000,0.000
1640671175317744896,2021-12-28-05:59:35,10.1.1.6,18,-0.000,0.000,-0.000,0.000,-0.000,0.000
1640671177401869056,2021-12-28-05:59:37,10.1.1.6,7,-0.000,0.000,-0.000,0.000,-0.000,0.000
1640671179503665920,2021-12-28-05:59:39,10.1.1.6,17,-0.000,0.000,-0.000,0.000,-0.000,0.000
1640671181623918080,2021-12-28-05:59:41,10.1.1.6,0,-0.000,0.000,-0.000,0.000,-0.000,0.000
1640671183723175168,2021-12-28-05:59:43,10.1.1.6,2,-0.000,0.000,-0.000,0.000,-0.000,0.000
1640671185762152960,2021-12-28-05:59:45,10.1.1.6,7,-0.000,0.000,-0.000,0.000,-0.000,0.000
1640671187900567040,2021-12-28-05:59:47,10.1.1.6,1,-0.000,0.000,-0.000,0.000,-0.000,0.000
1640671189940238848,2021-12-28-05:59:49,10.1.1.6,16,-0.000,0.000,-0.000,0.000,-0.000,0.000
1640671191981698048,2021-12-28-05:59:51,10.1.1.6,9,-0.000,0.000,-0.000,0.000,-0.000,0.000
1640671194112695040,2021-12-28-05:59:54,10.1.1.6,13,-0.000,0.000,-0.000,0.000,-0.000,0.000
1640671196163811072,2021-12-28-05:59:56,10.1.1.6,5,-0.000,0.000,-0.000,0.000,-0.000,0.000
1640671198206331904,2021-12-28-05:59:58,10.1.1.6,11,-0.000,0.000,-0.000,0.000,-0.000,0.000
1640671200223099904,2021-12-28-06:00:00,10.1.1.6,1,-0.000,0.000,-0.000,0.000,-0.000,0.000
1640671202259855104,2021-12-28-06:00:02,10.1.1.6,5,-0.000,0.000,-0.000,0.000,-0.000,0.000
1640671204285918976,2021-12-28-06:00:04,10.1.1.6,2,-0.000,0.000,-0.000,0.000,-0.000,0.000
1640671206332534016,2021-12-28-06:00:06,10.1.1.6,2,-0.000,0.000,-0.000,0.000,-0.000,0.000
1640671208438010880,2021-12-28-06:00:08,10.1.1.6,19,-0.000,0.000,-0.000,0.000,-0.000,0.000
1640671210481995008,2021-12-28-06:00:10,10.1.1.6,5,-0.000,0.000,-0.000,0.000,-0.000,0.000
1640671212521819136,2021-12-28-06:00:12,10.1.1.6,4,-0.000,0.000,-0.000,0.000,-0.000,0.000
1640671214601332992,2021-12-28-06:00:14,10.1.1.6,5,-0.000,0.000,-0.000,0.000,-0.000,0.000
1640671216700375040,2021-12-28-06:00:16,10.1.1.6,10,-0.000,0.000,-0.000,0.000,-0.000,0.000
1640671218819185920,2021-12-28-06:00:18,10.1.1.6,8,-0.000,0.000,-0.000,0.000,-0.000,0.000
1640671220877823232,2021-12-28-06:00:20,10.1.1.6,19,-0.000,0.000,-0.000,0.000,-0.000,0.000
1640671222876066816,2021-12-28-06:00:22,10.1.1.6,1,-0.000,0.000,-0.000,0.000,-0.000,0.000
1640671224932024832,2021-12-28-06:00:24,10.1.1.6,7,-0.000,0.000,-0.000,0.000,-0.000,0.000
1640671226970859008,2021-12-28-06:00:26,10.1.1.6,1,-0.000,0.000,-0.000,0.000,-0.000,0.000
1640671229046279936,2021-12-28-06:00:29,10.1.1.6,7,-0.000,0.000,-0.000,0.000,-0.000,0.000
1640671231103222016,2021-12-28-06:00:31,10.1.1.6,2,-0.000,0.000,-0.000,0.000,-0.000,0.000
1640671233182202112,2021-12-28-06:00:33,10.1.1.6,43,-0.000,0.000,-0.000,0.000,-0.000,0.000
1640671235319256064,2021-12-28-06:00:35,10.1.1.6,15,-0.000,0.000,-0.000,0.000,-0.000,0.000
1640671237348239872,2021-12-28-06:00:37,10.1.1.6,14,-0.000,0.000,-0.000,0.000,-0.000,0.000
1640671239354217984,2021-12-28-06:00:39,10.1.1.6,10,-0.000,0.000,-0.000,0.000,-0.000,0.000
1640671241398792960,2021-12-28-06:00:41,10.1.1.6,7,-0.000,0.000,-0.000,0.000,-0.000,0.000
1640671243460736000,2021-12-28-06:00:43,10.1.1.6,18,-0.000,0.000,-0.000,0.000,-0.000,0.000
1640671245481716992,2021-12-28-06:00:45,10.1.1.6,4,-0.000,0.000,-0.000,0.000,-0.000,0.000
1640671247660888064,2021-12-28-06:00:47,10.1.1.6,2,-0.000,0.000,-0.000,0.000,-0.000,0.000
1640671249720654080,2021-12-28-06:00:49,10.1.1.6,13,-0.000,0.000,-0.000,0.000,-0.000,0.000
1640671251739337984,2021-12-28-06:00:51,10.1.1.6,11,-0.000,0.000,-0.000,0.000,-0.000,0.000
1640671253797348096,2021-12-28-06:00:53,10.1.1.6,11,-0.000,0.000,-0.000,0.000,-0.000,0.000
1640671255833852160,2021-12-28-06:00:55,10.1.1.6,15,-0.000,0.000,-0.000,0.000,-0.000,0.000
1640671257891693056,2021-12-28-06:00:57,10.1.1.6,2,-0.000,0.000,-0.000,0.000,-0.000,0.000
1640671259928739072,2021-12-28-06:00:59,10.1.1.6,10,-0.000,0.000,-0.000,0.000,-0.000,0.000
1640671264162125056,2021-12-28-06:01:04,10.1.1.6,11,-0.000,0.000,-0.000,0.000,-0.000,0.000
1640671266261857024,2021-12-28-06:01:06,10.1.1.6,10,-0.000,0.000,-0.000,0.000,-0.000,0.000
1640671268365925120,2021-12-28-06:01:08,10.1.1.6,8,-0.000,0.000,-0.000,0.000,-0.000,0.000
1640671270474198016,2021-12-28-06:01:10,10.1.1.6,8,-0.000,0.000,-0.000,0.000,-0.000,0.000
1640671272478848000,2021-12-28-06:01:12,10.1.1.6,0,-0.000,0.000,-0.000,0.000,-0.000,0.000
1640671274522244864,2021-12-28-06:01:14,10.1.1.6,10,-0.000,0.000,-0.000,0.000,-0.000,0.000
1640671276542827008,2021-12-28-06:01:16,10.1.1.6,4,-0.000,0.000,-0.000,0.000,-0.000,0.000
1640671278604291072,2021-12-28-06:01:18,10.1.1.6,8,-0.000,0.000,-0.000,0.000,-0.000,0.000
1640671280673691136,2021-12-28-06:01:20,10.1.1.6,8,-0.000,0.000,-0.000,0.000,-0.000,0.000
1640671282741115136,2021-12-28-06:01:22,10.1.1.6,10,-0.000,0.000,-0.000,0.000,-0.000,0.000
1640671284780239104,2021-12-28-06:01:24,10.1.1.6,10,-0.000,0.000,-0.000,0.000,-0.000,0.000
1640671286797457920,2021-12-28-06:01:26,10.1.1.6,11,-0.000,0.000,-0.000,0.000,-0.000,0.000
1640671288895531776,2021-12-28-06:01:28,10.1.1.6,18,-0.000,0.000,-0.000,0.000,-0.000,0.000
1640671290972080896,2021-12-28-06:01:30,10.1.1.6,9,-0.000,0.000,-0.000,0.000,-0.000,0.000
1640671293070467072,2021-12-28-06:01:33,10.1.1.6,19,-0.000,0.000,-0.000,0.000,-0.000,0.000
1640671295146040832,2021-12-28-06:01:35,10.1.1.6,3,-0.000,0.000,-0.000,0.000,-0.000,0.000
1640671297163529984,2021-12-28-06:01:37,10.1.1.6,12,-0.000,0.000,-0.000,0.000,-0.000,0.000
1640671299160846848,2021-12-28-06:01:39,10.1.1.6,2,-0.000,0.000,-0.000,0.000,-0.000,0.000
1640671301170157824,2021-12-28-06:01:41,10.1.1.6,3,-0.000,0.000,-0.000,0.000,-0.000,0.000
1640671303177530112,2021-12-28-06:01:43,10.1.1.6,1,-0.000,0.000,-0.000,0.000,-0.000,0.000
1640671305221852928,2021-12-28-06:01:45,10.1.1.6,17,-0.000,0.000,-0.000,0.000,-0.000,0.000
1640671307224442880,2021-12-28-06:01:47,10.1.1.6,8,-0.000,0.000,-0.000,0.000,-0.000,0.000
1640671310424256000,2021-12-28-06:01:50,10.1.1.6,0,-0.480,-0.480,-0.480,0.000,0.000,0.000
1640671311504500992,2021-12-28-06:01:51,10.1.1.6,18,-0.040,-0.040,-0.040,0.000,0.000,0.000
1640671313047334912,2021-12-28-06:01:53,10.1.1.6,6,-0.180,-0.180,-0.180,0.000,0.000,0.000
1640671313786283008,2021-12-28-06:01:53,10.1.1.6,4,-0.180,-0.180,-0.180,0.000,0.000,0.000
1640671315063475968,2021-12-28-06:01:55,10.1.1.6,2,-0.180,-0.180,-0.180,0.000,0.000,0.000
1640671315802684928,2021-12-28-06:01:55,10.1.1.6,0,-0.180,-0.180,-0.180,0.000,0.000,0.000
1640671317081733888,2021-12-28-06:01:57,10.1.1.6,7,-0.180,-0.180,-0.180,0.000,0.000,0.000
1640671317820185856,2021-12-28-06:01:57,10.1.1.6,9,-0.180,-0.180,-0.180,0.000,0.000,0.000
1640671319118868224,2021-12-28-06:01:59,10.1.1.6,1,-0.180,-0.180,-0.180,0.000,0.000,0.000
1640671319917853184,2021-12-28-06:01:59,10.1.1.6,18,-0.180,-0.180,-0.180,0.000,0.000,0.000
1640671321217372928,2021-12-28-06:02:01,10.1.1.6,14,-0.180,-0.180,-0.180,0.000,0.000,0.000
1640671321955766016,2021-12-28-06:02:01,10.1.1.6,2,-0.180,-0.180,-0.180,0.000,0.000,0.000
1640671323254391040,2021-12-28-06:02:03,10.1.1.6,3,-0.180,-0.180,-0.180,0.000,0.000,0.000
1640671324012738816,2021-12-28-06:02:04,10.1.1.6,6,-0.180,-0.180,-0.180,0.000,0.000,0.000
1640671325329757952,2021-12-28-06:02:05,10.1.1.6,16,-0.180,-0.180,-0.180,0.000,0.000,0.000
1640671326068774912,2021-12-28-06:02:06,10.1.1.6,7,-0.180,-0.180,-0.180,0.000,0.000,0.000
1640671327367003904,2021-12-28-06:02:07,10.1.1.6,3,-0.180,-0.180,-0.180,0.000,0.000,0.000
1640671328125467136,2021-12-28-06:02:08,10.1.1.6,8,-0.180,-0.180,-0.180,0.000,0.000,0.000
1640671329405651968,2021-12-28-06:02:09,10.1.1.6,3,-0.180,-0.180,-0.180,0.000,0.000,0.000
1640671330242937088,2021-12-28-06:02:10,10.1.1.6,8,-0.180,-0.180,-0.180,0.000,0.000,0.000
1640671331540669952,2021-12-28-06:02:11,10.1.1.6,2,-0.180,-0.180,-0.180,0.000,0.000,0.000
1640671332301296896,2021-12-28-06:02:12,10.1.1.6,6,-0.180,-0.180,-0.180,0.000,0.000,0.000
1640671333607540992,2021-12-28-06:02:13,10.1.1.6,14,-0.180,-0.180,-0.180,0.000,0.000,0.000
1640671334350071808,2021-12-28-06:02:14,10.1.1.6,14,-0.180,-0.180,-0.180,0.000,0.000,0.000
1640671335714765056,2021-12-28-06:02:15,10.1.1.6,19,-0.180,-0.180,-0.180,0.000,0.000,0.000
1640671336456594944,2021-12-28-06:02:16,10.1.1.6,8,-0.180,-0.180,-0.180,0.000,0.000,0.000
1640671337778882048,2021-12-28-06:02:17,10.1.1.6,3,-0.180,-0.180,-0.180,0.000,0.000,0.000
1640671338539693056,2021-12-28-06:02:18,10.1.1.6,10,-0.180,-0.180,-0.180,0.000,0.000,0.000
1640671339841430784,2021-12-28-06:02:19,10.1.1.6,13,-0.180,-0.180,-0.180,0.000,0.000,0.000
1640671340601373952,2021-12-28-06:02:20,10.1.1.6,10,-0.180,-0.180,-0.180,0.000,0.000,0.000
1640671341881303040,2021-12-28-06:02:21,10.1.1.6,18,-0.180,-0.180,-0.180,0.000,0.000,0.000
1640671342602152192,2021-12-28-06:02:22,10.1.1.6,3,-0.180,-0.180,-0.180,0.000,0.000,0.000
1640671343882448896,2021-12-28-06:02:23,10.1.1.6,10,-0.180,-0.180,-0.180,0.000,0.000,0.000
1640671344621340928,2021-12-28-06:02:24,10.1.1.6,8,-0.180,-0.180,-0.180,0.000,0.000,0.000
1640671345901158144,2021-12-28-06:02:25,10.1.1.6,10,-0.180,-0.180,-0.180,0.000,0.000,0.000
1640671346640315136,2021-12-28-06:02:26,10.1.1.6,3,-0.180,-0.180,-0.180,0.000,0.000,0.000
1640671347959152896,2021-12-28-06:02:27,10.1.1.6,12,-0.180,-0.180,-0.180,0.000,0.000,0.000
1640671348698717184,2021-12-28-06:02:28,10.1.1.6,13,-0.180,-0.180,-0.180,0.000,0.000,0.000
1640671349999150080,2021-12-28-06:02:29,10.1.1.6,19,-0.180,-0.180,-0.180,0.000,0.000,0.000
1640671350737198080,2021-12-28-06:02:30,10.1.1.6,17,-0.180,-0.180,-0.180,0.000,0.000,0.000
1640671352015486976,2021-12-28-06:02:32,10.1.1.6,10,-0.180,-0.180,-0.180,0.000,0.000,0.000
1640671352854608896,2021-12-28-06:02:32,10.1.1.6,19,-0.180,-0.180,-0.180,0.000,0.000,0.000
1640671354132407040,2021-12-28-06:02:34,10.1.1.6,16,-0.180,-0.180,-0.180,0.000,0.000,0.000
1640671354870978048,2021-12-28-06:02:34,10.1.1.6,9,-0.180,-0.180,-0.180,0.000,0.000,0.000
1640671356169565952,2021-12-28-06:02:36,10.1.1.6,18,-0.180,-0.180,-0.180,0.000,0.000,0.000
1640671356969094144,2021-12-28-06:02:36,10.1.1.6,19,-0.180,-0.180,-0.180,0.000,0.000,0.000
1640671358346731776,2021-12-28-06:02:38,10.1.1.6,4,-0.180,-0.180,-0.180,0.000,0.000,0.000
1640671359104895232,2021-12-28-06:02:39,10.1.1.6,14,-0.180,-0.180,-0.180,0.000,0.000,0.000
1640671360483676928,2021-12-28-06:02:40,10.1.1.6,10,-0.180,-0.180,-0.180,0.000,0.000,0.000
1640671361242396160,2021-12-28-06:02:41,10.1.1.6,15,-0.180,-0.180,-0.180,0.000,0.000,0.000
1640671362579905024,2021-12-28-06:02:42,10.1.1.6,10,-0.180,-0.180,-0.180,0.000,0.000,0.000
1640671363320113920,2021-12-28-06:02:43,10.1.1.6,7,-0.180,-0.180,-0.180,0.000,0.000,0.000
1640671364601165056,2021-12-28-06:02:44,10.1.1.6,12,-0.180,-0.180,-0.180,0.000,0.000,0.000
1640671365344857088,2021-12-28-06:02:45,10.1.1.6,14,-0.180,-0.180,-0.180,0.000,0.000,0.000
1640671366730694144,2021-12-28-06:02:46,10.1.1.6,3,-0.180,-0.180,-0.180,0.000,0.000,0.000
1640671367493336064,2021-12-28-06:02:47,10.1.1.6,12,-0.180,-0.180,-0.180,0.000,0.000,0.000
1640671368775970048,2021-12-28-06:02:48,10.1.1.6,11,-0.180,-0.180,-0.180,0.000,0.000,0.000
1640671369538049024,2021-12-28-06:02:49,10.1.1.6,19,-0.180,-0.180,-0.180,0.000,0.000,0.000
1640671370820054016,2021-12-28-06:02:50,10.1.1.6,13,-0.180,-0.180,-0.180,0.000,0.000,0.000
1640671371640655872,2021-12-28-06:02:51,10.1.1.6,8,-0.180,-0.180,-0.180,0.000,0.000,0.000
1640671373001804032,2021-12-28-06:02:53,10.1.1.6,15,-0.180,-0.180,-0.180,0.000,0.000,0.000
1640671373762340096,2021-12-28-06:02:53,10.1.1.6,10,-0.180,-0.180,-0.180,0.000,0.000,0.000
1640671375143846144,2021-12-28-06:02:55,10.1.1.6,15,-0.180,-0.180,-0.180,0.000,0.000,0.000
1640671375882436096,2021-12-28-06:02:55,10.1.1.6,9,-0.180,-0.180,-0.180,0.000,0.000,0.000
1640671377202508800,2021-12-28-06:02:57,10.1.1.6,16,-0.180,-0.180,-0.180,0.000,0.000,0.000
1640671377961449984,2021-12-28-06:02:57,10.1.1.6,13,-0.180,-0.180,-0.180,0.000,0.000,0.000
1640671379281793024,2021-12-28-06:02:59,10.1.1.6,3,-0.180,-0.180,-0.180,0.000,0.000,0.000
1640671380060971008,2021-12-28-06:03:00,10.1.1.6,7,-0.180,-0.180,-0.180,0.000,0.000,0.000
1640671381419843840,2021-12-28-06:03:01,10.1.1.6,12,-0.180,-0.180,-0.180,0.000,0.000,0.000
1640671382158876928,2021-12-28-06:03:02,10.1.1.6,6,-0.180,-0.180,-0.180,0.000,0.000,0.000
1640671383477735936,2021-12-28-06:03:03,10.1.1.6,20,-0.180,-0.180,-0.180,0.000,0.000,0.000
1640671384236358912,2021-12-28-06:03:04,10.1.1.6,11,-0.180,-0.180,-0.180,0.000,0.000,0.000
1640671385574283008,2021-12-28-06:03:05,10.1.1.6,17,-0.180,-0.180,-0.180,0.000,0.000,0.000
1640671386313083904,2021-12-28-06:03:06,10.1.1.6,8,-0.180,-0.180,-0.180,0.000,0.000,0.000
1640671387611371008,2021-12-28-06:03:07,10.1.1.6,13,-0.180,-0.180,-0.180,0.000,0.000,0.000
1640671388370452992,2021-12-28-06:03:08,10.1.1.6,8,-0.180,-0.180,-0.180,0.000,0.000,0.000
1640671389648577024,2021-12-28-06:03:09,10.1.1.6,6,-0.180,-0.180,-0.180,0.000,0.000,0.000
1640671390407980032,2021-12-28-06:03:10,10.1.1.6,16,-0.180,-0.180,-0.180,0.000,0.000,0.000
1640671391705815040,2021-12-28-06:03:11,10.1.1.6,8,-0.180,-0.180,-0.180,0.000,0.000,0.000
1640671392464340992,2021-12-28-06:03:12,10.1.1.6,1,-0.180,-0.180,-0.180,0.000,0.000,0.000
1640671393842369024,2021-12-28-06:03:13,10.1.1.6,1,-0.180,-0.180,-0.180,0.000,0.000,0.000
1640671394622196992,2021-12-28-06:03:14,10.1.1.6,16,-0.180,-0.180,-0.180,0.000,0.000,0.000
1640671396000086016,2021-12-28-06:03:16,10.1.1.6,12,-0.180,-0.180,-0.180,0.000,0.000,0.000
1640671396742690048,2021-12-28-06:03:16,10.1.1.6,6,-0.180,-0.180,-0.180,0.000,0.000,0.000
1640671398068329216,2021-12-28-06:03:18,10.1.1.6,7,-0.180,-0.180,-0.180,0.000,0.000,0.000
1640671398811804928,2021-12-28-06:03:18,10.1.1.6,9,-0.180,-0.180,-0.180,0.000,0.000,0.000
1640671400155713024,2021-12-28-06:03:20,10.1.1.6,27,-0.180,-0.180,-0.180,0.000,0.000,0.000
1640671400917413120,2021-12-28-06:03:20,10.1.1.6,3,-0.180,-0.180,-0.180,0.000,0.000,0.000
1640671402239579904,2021-12-28-06:03:22,10.1.1.6,1,-0.180,-0.180,-0.180,0.000,0.000,0.000
1640671402980689920,2021-12-28-06:03:22,10.1.1.6,1,-0.180,-0.180,-0.180,0.000,0.000,0.000
1640671404263566848,2021-12-28-06:03:24,10.1.1.6,7,-0.180,-0.180,-0.180,0.000,0.000,0.000
1640671405002646016,2021-12-28-06:03:25,10.1.1.6,2,-0.180,-0.180,-0.180,0.000,0.000,0.000
1640671406284267008,2021-12-28-06:03:26,10.1.1.6,3,-0.180,-0.180,-0.180,0.000,0.000,0.000
1640671408384086016,2021-12-28-06:03:28,10.1.1.6,9,-0.180,-0.180,-0.180,0.000,0.000,0.000
1640671409183098112,2021-12-28-06:03:29,10.1.1.6,17,-0.180,-0.180,-0.180,0.000,0.000,0.000
1640671410462167040,2021-12-28-06:03:30,10.1.1.6,6,-0.180,-0.180,-0.180,0.000,0.000,0.000
1640671412500952832,2021-12-28-06:03:32,10.1.1.6,2,-0.180,-0.180,-0.180,0.000,0.000,0.000
1640671413281053184,2021-12-28-06:03:33,10.1.1.6,10,-0.180,-0.180,-0.180,0.000,0.000,0.000
1640671415437592064,2021-12-28-06:03:35,10.1.1.6,8,-0.180,-0.180,-0.180,0.000,0.000,0.000
1640671416738755072,2021-12-28-06:03:36,10.1.1.6,10,-0.180,-0.180,-0.180,0.000,0.000,0.000
1640671417515948032,2021-12-28-06:03:37,10.1.1.6,1,-0.180,-0.180,-0.180,0.000,0.000,0.000
1640671418812516864,2021-12-28-06:03:38,10.1.1.6,6,-0.180,-0.180,-0.180,0.000,0.000,0.000
1640671419652113920,2021-12-28-06:03:39,10.1.1.6,8,-0.180,-0.180,-0.180,0.000,0.000,0.000
1640671420969995008,2021-12-28-06:03:40,10.1.1.6,11,-0.180,-0.180,-0.180,0.000,0.000,0.000
1640671421708361984,2021-12-28-06:03:41,10.1.1.6,2,-0.180,-0.180,-0.180,0.000,0.000,0.000
1640671423067523840,2021-12-28-06:03:43,10.1.1.6,19,-0.180,-0.180,-0.180,0.000,0.000,0.000
1640671423825353984,2021-12-28-06:03:43,10.1.1.6,15,-0.180,-0.180,-0.180,0.000,0.000,0.000
1640671425124733952,2021-12-28-06:03:45,10.1.1.6,18,-0.180,-0.180,-0.180,0.000,0.000,0.000
1640671425882253824,2021-12-28-06:03:45,10.1.1.6,11,-0.180,-0.180,-0.180,0.000,0.000,0.000
1640671427160892928,2021-12-28-06:03:47,10.1.1.6,7,-0.180,-0.180,-0.180,0.000,0.000,0.000
1640671427939941888,2021-12-28-06:03:47,10.1.1.6,3,-0.180,-0.180,-0.180,0.000,0.000,0.000
1640671429305457152,2021-12-28-06:03:49,10.1.1.6,14,-0.180,-0.180,-0.180,0.000,0.000,0.000
1640671430048559872,2021-12-28-06:03:50,10.1.1.6,12,-0.180,-0.180,-0.180,0.000,0.000,0.000
1640671431333659904,2021-12-28-06:03:51,10.1.1.6,8,-0.180,-0.180,-0.180,0.000,0.000,0.000
1640671432095233792,2021-12-28-06:03:52,10.1.1.6,18,-0.180,-0.180,-0.180,0.000,0.000,0.000
1640671433438535936,2021-12-28-06:03:53,10.1.1.6,3,-0.180,-0.180,-0.180,0.000,0.000,0.000
1640671434199620096,2021-12-28-06:03:54,10.1.1.6,14,-0.180,-0.180,-0.180,0.000,0.000,0.000
1640671435582072064,2021-12-28-06:03:55,10.1.1.6,4,-0.180,-0.180,-0.180,0.000,0.000,0.000
1640671436341742080,2021-12-28-06:03:56,10.1.1.6,14,-0.180,-0.180,-0.180,0.000,0.000,0.000
1640671437642563072,2021-12-28-06:03:57,10.1.1.6,9,-0.180,-0.180,-0.180,0.000,0.000,0.000
1640671438383268096,2021-12-28-06:03:58,10.1.1.6,1,-0.180,-0.180,-0.180,0.000,0.000,0.000
1640671439664473088,2021-12-28-06:03:59,10.1.1.6,9,-0.180,-0.180,-0.180,0.000,0.000,0.000
1640671440404221952,2021-12-28-06:04:00,10.1.1.6,3,-0.180,-0.180,-0.180,0.000,0.000,0.000
1640671441804462080,2021-12-28-06:04:01,10.1.1.6,4,-0.180,-0.180,-0.180,0.000,0.000,0.000
1640671442561384960,2021-12-28-06:04:02,10.1.1.6,15,-0.180,-0.180,-0.180,0.000,0.000,0.000
1640671443840487936,2021-12-28-06:04:03,10.1.1.6,11,-0.180,-0.180,-0.180,0.000,0.000,0.000
1640671444591481088,2021-12-28-06:04:04,10.1.1.6,4,-0.180,-0.180,-0.180,0.000,0.000,0.000
1640671445918597888,2021-12-28-06:04:05,10.1.1.6,11,-0.180,-0.180,-0.180,0.000,0.000,0.000
1640671446668363008,2021-12-28-06:04:06,10.1.1.6,18,-0.180,-0.180,-0.180,0.000,0.000,0.000
1640671447936681984,2021-12-28-06:04:07,10.1.1.6,8,-0.180,-0.180,-0.180,0.000,0.000,0.000
1640671448687208960,2021-12-28-06:04:08,10.1.1.6,2,-0.180,-0.180,-0.180,0.000,0.000,0.000
1640671449996272128,2021-12-28-06:04:09,10.1.1.6,19,-0.180,-0.180,-0.180,0.000,0.000,0.000
1640671450752801024,2021-12-28-06:04:10,10.1.1.6,5,-0.180,-0.180,-0.180,0.000,0.000,0.000
1640671452050394112,2021-12-28-06:04:12,10.1.1.6,4,-0.180,-0.180,-0.180,0.000,0.000,0.000
1640671452849245952,2021-12-28-06:04:12,10.1.1.6,14,-0.180,-0.180,-0.180,0.000,0.000,0.000
1640671454127752960,2021-12-28-06:04:14,10.1.1.6,14,-0.180,-0.180,-0.180,0.000,0.000,0.000
1640671454907836928,2021-12-28-06:04:14,10.1.1.6,1,-0.180,-0.180,-0.180,0.000,0.000,0.000
1640671456204322048,2021-12-28-06:04:16,10.1.1.6,11,-0.180,-0.180,-0.180,0.000,0.000,0.000
1640671456943763968,2021-12-28-06:04:16,10.1.1.6,4,-0.180,-0.180,-0.180,0.000,0.000,0.000
1640671458280834048,2021-12-28-06:04:18,10.1.1.6,9,-0.180,-0.180,-0.180,0.000,0.000,0.000
1640671459080220928,2021-12-28-06:04:19,10.1.1.6,6,-0.180,-0.180,-0.180,0.000,0.000,0.000
1640671460378041856,2021-12-28-06:04:20,10.1.1.6,5,-0.180,-0.180,-0.180,0.000,0.000,0.000
1640671461118115072,2021-12-28-06:04:21,10.1.1.6,1,-0.180,-0.180,-0.180,0.000,0.000,0.000
1640671462424603904,2021-12-28-06:04:22,10.1.1.6,13,-0.180,-0.180,-0.180,0.000,0.000,0.000
1640671463168312064,2021-12-28-06:04:23,10.1.1.6,8,-0.180,-0.180,-0.180,0.000,0.000,0.000
1640671464532306944,2021-12-28-06:04:24,10.1.1.6,18,-0.180,-0.180,-0.180,0.000,0.000,0.000
1640671465273499904,2021-12-28-06:04:25,10.1.1.6,17,-0.180,-0.180,-0.180,0.000,0.000,0.000
1640671466556209920,2021-12-28-06:04:26,10.1.1.6,18,-0.180,-0.180,-0.180,0.000,0.000,0.000
1640671467297643776,2021-12-28-06:04:27,10.1.1.6,14,-0.180,-0.180,-0.180,0.000,0.000,0.000
1640671468579823872,2021-12-28-06:04:28,10.1.1.6,11,-0.180,-0.180,-0.180,0.000,0.000,0.000
1640671469320499968,2021-12-28-06:04:29,10.1.1.6,12,-0.180,-0.180,-0.180,0.000,0.000,0.000
1640671470600284928,2021-12-28-06:04:30,10.1.1.6,8,-0.180,-0.180,-0.180,0.000,0.000,0.000
1640671471340421888,2021-12-28-06:04:31,10.1.1.6,4,-0.180,-0.180,-0.180,0.000,0.000,0.000
1640671472621380096,2021-12-28-06:04:32,10.1.1.6,1,-0.180,-0.180,-0.180,0.000,0.000,0.000
1640671473361104896,2021-12-28-06:04:33,10.1.1.6,1,-0.180,-0.180,-0.180,0.000,0.000,0.000
1640671474641911040,2021-12-28-06:04:34,10.1.1.6,1,-0.180,-0.180,-0.180,0.000,0.000,0.000
1640671475400893952,2021-12-28-06:04:35,10.1.1.6,10,-0.180,-0.180,-0.180,0.000,0.000,0.000
1640671476699856896,2021-12-28-06:04:36,10.1.1.6,13,-0.180,-0.180,-0.180,0.000,0.000,0.000
1640671477438651136,2021-12-28-06:04:37,10.1.1.6,3,-0.180,-0.180,-0.180,0.000,0.000,0.000
1640671478716900096,2021-12-28-06:04:38,10.1.1.6,10,-0.180,-0.180,-0.180,0.000,0.000,0.000
1640671480814401024,2021-12-28-06:04:40,10.1.1.6,10,-0.180,-0.180,-0.180,0.000,0.000,0.000
1640671481593684992,2021-12-28-06:04:41,10.1.1.6,13,-0.180,-0.180,-0.180,0.000,0.000,0.000
1640671482952609024,2021-12-28-06:04:42,10.1.1.6,8,-0.180,-0.180,-0.180,0.000,0.000,0.000
1640671483711591936,2021-12-28-06:04:43,10.1.1.6,15,-0.180,-0.180,-0.180,0.000,0.000,0.000
1640671484989890048,2021-12-28-06:04:44,10.1.1.6,1,-0.180,-0.180,-0.180,0.000,0.000,0.000
1640671485748357120,2021-12-28-06:04:45,10.1.1.6,11,-0.180,-0.180,-0.180,0.000,0.000,0.000
1640671487025531136,2021-12-28-06:04:47,10.1.1.6,0,-0.180,-0.180,-0.180,0.000,0.000,0.000
1640671487804916992,2021-12-28-06:04:47,10.1.1.6,6,-0.180,-0.180,-0.180,0.000,0.000,0.000
1640671489082430976,2021-12-28-06:04:49,10.1.1.6,0,-0.180,-0.180,-0.180,0.000,0.000,0.000
1640671489861704960,2021-12-28-06:04:49,10.1.1.6,13,-0.180,-0.180,-0.180,0.000,0.000,0.000
1640671491159986944,2021-12-28-06:04:51,10.1.1.6,17,-0.180,-0.180,-0.180,0.000,0.000,0.000
1640671491938249216,2021-12-28-06:04:51,10.1.1.6,18,-0.180,-0.180,-0.180,0.000,0.000,0.000
1640671493237710080,2021-12-28-06:04:53,10.1.1.6,13,-0.180,-0.180,-0.180,0.000,0.000,0.000
1640671493984004864,2021-12-28-06:04:53,10.1.1.6,20,-0.180,-0.180,-0.180,0.000,0.000,0.000
1640671495269511936,2021-12-28-06:04:55,10.1.1.6,2,-0.180,-0.180,-0.180,0.000,0.000,0.000
1640671496029936128,2021-12-28-06:04:56,10.1.1.6,6,-0.180,-0.180,-0.180,0.000,0.000,0.000
1640671497473798912,2021-12-28-06:04:57,10.1.1.6,4,-0.180,-0.180,-0.180,0.000,0.000,0.000
1640671498215513856,2021-12-28-06:04:58,10.1.1.6,9,-0.180,-0.180,-0.180,0.000,0.000,0.000
1640671499568811008,2021-12-28-06:04:59,10.1.1.6,19,-0.180,-0.180,-0.180,0.000,0.000,0.000
1640671500319287040,2021-12-28-06:05:00,10.1.1.6,2,-0.180,-0.180,-0.180,0.000,0.000,0.000
1640671501619899904,2021-12-28-06:05:01,10.1.1.6,13,-0.180,-0.180,-0.180,0.000,0.000,0.000
1640671502380263168,2021-12-28-06:05:02,10.1.1.6,19,-0.180,-0.180,-0.180,0.000,0.000,0.000
1640671503680851968,2021-12-28-06:05:03,10.1.1.6,15,-0.180,-0.180,-0.180,0.000,0.000,0.000
1640671504420776960,2021-12-28-06:05:04,10.1.1.6,3,-0.180,-0.180,-0.180,0.000,0.000,0.000
1640671505720939008,2021-12-28-06:05:05,10.1.1.6,17,-0.180,-0.180,-0.180,0.000,0.000,0.000
1640671506501313024,2021-12-28-06:05:06,10.1.1.6,9,-0.180,-0.180,-0.180,0.000,0.000,0.000
1640671507819549952,2021-12-28-06:05:07,10.1.1.6,6,-0.180,-0.180,-0.180,0.000,0.000,0.000
1640671508578898944,2021-12-28-06:05:08,10.1.1.6,6,-0.180,-0.180,-0.180,0.000,0.000,0.000
1640671509878362880,2021-12-28-06:05:09,10.1.1.6,15,-0.180,-0.180,-0.180,0.000,0.000,0.000
1640671510637027072,2021-12-28-06:05:10,10.1.1.6,14,-0.180,-0.180,-0.180,0.000,0.000,0.000
1640671512715607808,2021-12-28-06:05:12,10.1.1.6,15,-0.180,-0.180,-0.180,0.000,0.000,0.000
1640671514772530944,2021-12-28-06:05:14,10.1.1.6,16,-0.180,-0.180,-0.180,0.000,0.000,0.000
1640671516070128896,2021-12-28-06:05:16,10.1.1.6,7,-0.180,-0.180,-0.180,0.000,0.000,0.000
1640671516810842880,2021-12-28-06:05:16,10.1.1.6,7,-0.180,-0.180,-0.180,0.000,0.000,0.000
1640671518127790848,2021-12-28-06:05:18,10.1.1.6,11,-0.180,-0.180,-0.180,0.000,0.000,0.000
1640671518865839104,2021-12-28-06:05:18,10.1.1.6,5,-0.180,-0.180,-0.180,0.000,0.000,0.000
1640671520144854016,2021-12-28-06:05:20,10.1.1.6,2,-0.180,-0.180,-0.180,0.000,0.000,0.000
1640671520903479040,2021-12-28-06:05:20,10.1.1.6,11,-0.180,-0.180,-0.180,0.000,0.000,0.000
1640671522182145024,2021-12-28-06:05:22,10.1.1.6,2,-0.180,-0.180,-0.180,0.000,0.000,0.000
1640671522940025088,2021-12-28-06:05:22,10.1.1.6,16,-0.180,-0.180,-0.180,0.000,0.000,0.000
1640671524217869056,2021-12-28-06:05:24,10.1.1.6,11,-0.180,-0.180,-0.180,0.000,0.000,0.000
1640671524958621952,2021-12-28-06:05:24,10.1.1.6,4,-0.180,-0.180,-0.180,0.000,0.000,0.000
1640671526285260800,2021-12-28-06:05:26,10.1.1.6,1,-0.180,-0.180,-0.180,0.000,0.000,0.000
1640671527047271936,2021-12-28-06:05:27,10.1.1.6,10,-0.180,-0.180,-0.180,0.000,0.000,0.000
1640671528352529152,2021-12-28-06:05:28,10.1.1.6,19,-0.180,-0.180,-0.180,0.000,0.000,0.000
1640671529094532096,2021-12-28-06:05:29,10.1.1.6,7,-0.180,-0.180,-0.180,0.000,0.000,0.000
1640671530437400064,2021-12-28-06:05:30,10.1.1.6,2,-0.180,-0.180,-0.180,0.000,0.000,0.000
1640671531260174080,2021-12-28-06:05:31,10.1.1.6,1,-0.180,-0.180,-0.180,0.000,0.000,0.000
1640671532540726784,2021-12-28-06:05:32,10.1.1.6,1,-0.180,-0.180,-0.180,0.000,0.000,0.000
1640671533301763072,2021-12-28-06:05:33,10.1.1.6,17,-0.180,-0.180,-0.180,0.000,0.000,0.000
1640671534604866048,2021-12-28-06:05:34,10.1.1.6,1,-0.180,-0.180,-0.180,0.000,0.000,0.000
1640671535443672064,2021-12-28-06:05:35,10.1.1.6,4,-0.180,-0.180,-0.180,0.000,0.000,0.000
1640671536784090880,2021-12-28-06:05:36,10.1.1.6,3,-0.180,-0.180,-0.180,0.000,0.000,0.000
1640671537644354048,2021-12-28-06:05:37,10.1.1.6,48,-0.180,-0.180,-0.180,0.000,0.000,0.000
1640671538943008000,2021-12-28-06:05:38,10.1.1.6,0,-0.180,-0.180,-0.180,0.000,0.000,0.000
1640671539702413056,2021-12-28-06:05:39,10.1.1.6,7,-0.180,-0.180,-0.180,0.000,0.000,0.000
1640671541003741952,2021-12-28-06:05:41,10.1.1.6,18,-0.180,-0.180,-0.180,0.000,0.000,0.000
1640671541743670016,2021-12-28-06:05:41,10.1.1.6,3,-0.180,-0.180,-0.180,0.000,0.000,0.000
1640671543060697088,2021-12-28-06:05:43,10.1.1.6,15,-0.180,-0.180,-0.180,0.000,0.000,0.000
1640671543801153024,2021-12-28-06:05:43,10.1.1.6,5,-0.180,-0.180,-0.180,0.000,0.000,0.000
1640671545117172992,2021-12-28-06:05:45,10.1.1.6,3,-0.180,-0.180,-0.180,0.000,0.000,0.000
1640671545856427008,2021-12-28-06:05:45,10.1.1.6,0,-0.180,-0.180,-0.180,0.000,0.000,0.000
1640671547156449024,2021-12-28-06:05:47,10.1.1.6,7,-0.180,-0.180,-0.180,0.000,0.000,0.000
1640671547913780992,2021-12-28-06:05:47,10.1.1.6,17,-0.180,-0.180,-0.180,0.000,0.000,0.000
1640671549191750144,2021-12-28-06:05:49,10.1.1.6,13,-0.180,-0.180,-0.180,0.000,0.000,0.000
1640671550010982912,2021-12-28-06:05:50,10.1.1.6,5,-0.180,-0.180,-0.180,0.000,0.000,0.000
1640671551309649920,2021-12-28-06:05:51,10.1.1.6,11,-0.180,-0.180,-0.180,0.000,0.000,0.000
1640671552048608000,2021-12-28-06:05:52,10.1.1.6,2,-0.180,-0.180,-0.180,0.000,0.000,0.000
1640671553365611008,2021-12-28-06:05:53,10.1.1.6,6,-0.180,-0.180,-0.180,0.000,0.000,0.000
1640671554104988160,2021-12-28-06:05:54,10.1.1.6,8,-0.180,-0.180,-0.180,0.000,0.000,0.000
1640671555422856960,2021-12-28-06:05:55,10.1.1.6,19,-0.180,-0.180,-0.180,0.000,0.000,0.000
1640671556161362944,2021-12-28-06:05:56,10.1.1.6,4,-0.180,-0.180,-0.180,0.000,0.000,0.000
1640671557542886144,2021-12-28-06:05:57,10.1.1.6,4,-0.180,-0.180,-0.180,0.000,0.000,0.000
1640671558305655040,2021-12-28-06:05:58,10.1.1.6,13,-0.180,-0.180,-0.180,0.000,0.000,0.000
1640671559571022080,2021-12-28-06:05:59,10.1.1.6,0,-0.180,-0.180,-0.180,0.000,0.000,0.000
1640671560332951040,2021-12-28-06:06:00,10.1.1.6,11,-0.180,-0.180,-0.180,0.000,0.000,0.000
1640671561636935936,2021-12-28-06:06:01,10.1.1.6,7,-0.180,-0.180,-0.180,0.000,0.000,0.000
1640671562397355008,2021-12-28-06:06:02,10.1.1.6,18,-0.180,-0.180,-0.180,0.000,0.000,0.000
1640671563679646976,2021-12-28-06:06:03,10.1.1.6,16,-0.180,-0.180,-0.180,0.000,0.000,0.000
1640671564421040128,2021-12-28-06:06:04,10.1.1.6,18,-0.180,-0.180,-0.180,0.000,0.000,0.000
1640671565682333952,2021-12-28-06:06:05,10.1.1.6,4,-0.180,-0.180,-0.180,0.000,0.000,0.000
1640671566421618944,2021-12-28-06:06:06,10.1.1.6,0,-0.180,-0.180,-0.180,0.000,0.000,0.000
1640671567782479104,2021-12-28-06:06:07,10.1.1.6,17,-0.180,-0.180,-0.180,0.000,0.000,0.000
1640671568523124992,2021-12-28-06:06:08,10.1.1.6,11,-0.180,-0.180,-0.180,0.000,0.000,0.000
1640671569861603072,2021-12-28-06:06:09,10.1.1.6,15,-0.180,-0.180,-0.180,0.000,0.000,0.000
1640671570640881152,2021-12-28-06:06:10,10.1.1.6,4,-0.180,-0.180,-0.180,0.000,0.000,0.000
1640671571940200192,2021-12-28-06:06:11,10.1.1.6,1,-0.180,-0.180,-0.180,0.000,0.000,0.000
1640671572699783168,2021-12-28-06:06:12,10.1.1.6,13,-0.180,-0.180,-0.180,0.000,0.000,0.000
1640671573978380032,2021-12-28-06:06:13,10.1.1.6,6,-0.180,-0.180,-0.180,0.000,0.000,0.000
1640671574756950016,2021-12-28-06:06:14,10.1.1.6,19,-0.180,-0.180,-0.180,0.000,0.000,0.000
1640671576096066048,2021-12-28-06:06:16,10.1.1.6,17,-0.180,-0.180,-0.180,0.000,0.000,0.000
1640671576834809088,2021-12-28-06:06:16,10.1.1.6,2,-0.180,-0.180,-0.180,0.000,0.000,0.000
1640671578114813184,2021-12-28-06:06:18,10.1.1.6,10,-0.180,-0.180,-0.180,0.000,0.000,0.000
1640671578852819968,2021-12-28-06:06:18,10.1.1.6,7,-0.180,-0.180,-0.180,0.000,0.000,0.000
1640671580130953984,2021-12-28-06:06:20,10.1.1.6,1,-0.180,-0.180,-0.180,0.000,0.000,0.000
1640671580889980928,2021-12-28-06:06:20,10.1.1.6,11,-0.180,-0.180,-0.180,0.000,0.000,0.000
1640671582188038144,2021-12-28-06:06:22,10.1.1.6,5,-0.180,-0.180,-0.180,0.000,0.000,0.000
1640671582987699968,2021-12-28-06:06:22,10.1.1.6,3,-0.180,-0.180,-0.180,0.000,0.000,0.000
1640671584265459968,2021-12-28-06:06:24,10.1.1.6,7,-0.180,-0.180,-0.180,0.000,0.000,0.000
1640671585024750848,2021-12-28-06:06:25,10.1.1.6,15,-0.180,-0.180,-0.180,0.000,0.000,0.000
1640671586361764864,2021-12-28-06:06:26,10.1.1.6,19,-0.180,-0.180,-0.180,0.000,0.000,0.000
1640671587100792832,2021-12-28-06:06:27,10.1.1.6,16,-0.180,-0.180,-0.180,0.000,0.000,0.000
1640671588378096128,2021-12-28-06:06:28,10.1.1.6,2,-0.180,-0.180,-0.180,0.000,0.000,0.000
1640671589136529920,2021-12-28-06:06:29,10.1.1.6,0,-0.180,-0.180,-0.180,0.000,0.000,0.000
1640671590480154112,2021-12-28-06:06:30,10.1.1.6,4,-0.180,-0.180,-0.180,0.000,0.000,0.000
1640671591241745920,2021-12-28-06:06:31,10.1.1.6,4,-0.180,-0.180,-0.180,0.000,0.000,0.000
1640671592546849024,2021-12-28-06:06:32,10.1.1.6,15,-0.180,-0.180,-0.180,0.000,0.000,0.000
1640671593312252160,2021-12-28-06:06:33,10.1.1.6,2,-0.180,-0.180,-0.180,0.000,0.000,0.000
1640671594613606912,2021-12-28-06:06:34,10.1.1.6,0,-0.180,-0.180,-0.180,0.000,0.000,0.000
1640671595374983168,2021-12-28-06:06:35,10.1.1.6,16,-0.180,-0.180,-0.180,0.000,0.000,0.000
1640671596656811008,2021-12-28-06:06:36,10.1.1.6,13,-0.180,-0.180,-0.180,0.000,0.000,0.000
1640671597417916160,2021-12-28-06:06:37,10.1.1.6,12,-0.180,-0.180,-0.180,0.000,0.000,0.000
1640671598699851008,2021-12-28-06:06:38,10.1.1.6,9,-0.180,-0.180,-0.180,0.000,0.000,0.000
1640671599440051200,2021-12-28-06:06:39,10.1.1.6,1,-0.180,-0.180,-0.180,0.000,0.000,0.000
1640671600759650048,2021-12-28-06:06:40,10.1.1.6,19,-0.180,-0.180,-0.180,0.000,0.000,0.000
1640671601500160000,2021-12-28-06:06:41,10.1.1.6,17,-0.180,-0.180,-0.180,0.000,0.000,0.000
1640671602801289984,2021-12-28-06:06:42,10.1.1.6,2,-0.180,-0.180,-0.180,0.000,0.000,0.000
1640671603558880000,2021-12-28-06:06:43,10.1.1.6,11,-0.180,-0.180,-0.180,0.000,0.000,0.000
1640671604898273024,2021-12-28-06:06:44,10.1.1.6,4,-0.180,-0.180,-0.180,0.000,0.000,0.000
1640671605657090048,2021-12-28-06:06:45,10.1.1.6,11,-0.180,-0.180,-0.180,0.000,0.000,0.000
1640671606936675072,2021-12-28-06:06:46,10.1.1.6,7,-0.180,-0.180,-0.180,0.000,0.000,0.000
1640671607695857920,2021-12-28-06:06:47,10.1.1.6,19,-0.180,-0.180,-0.180,0.000,0.000,0.000
1640671608974589184,2021-12-28-06:06:48,10.1.1.6,16,-0.180,-0.180,-0.180,0.000,0.000,0.000
1640671609733915136,2021-12-28-06:06:49,10.1.1.6,3,-0.180,-0.180,-0.180,0.000,0.000,0.000
1640671611033046016,2021-12-28-06:06:51,10.1.1.6,9,-0.180,-0.180,-0.180,0.000,0.000,0.000
1640671611850769920,2021-12-28-06:06:51,10.1.1.6,11,-0.180,-0.180,-0.180,0.000,0.000,0.000
1640671613129318912,2021-12-28-06:06:53,10.1.1.6,2,-0.180,-0.180,-0.180,0.000,0.000,0.000
1640671613889029120,2021-12-28-06:06:53,10.1.1.6,8,-0.180,-0.180,-0.180,0.000,0.000,0.000
1640671615186224896,2021-12-28-06:06:55,10.1.1.6,10,-0.180,-0.180,-0.180,0.000,0.000,0.000
1640671615945910016,2021-12-28-06:06:55,10.1.1.6,3,-0.180,-0.180,-0.180,0.000,0.000,0.000
1640671617225331968,2021-12-28-06:06:57,10.1.1.6,3,-0.180,-0.180,-0.180,0.000,0.000,0.000
1640671617985063168,2021-12-28-06:06:57,10.1.1.6,4,-0.180,-0.180,-0.180,0.000,0.000,0.000
1640671619280303104,2021-12-28-06:06:59,10.1.1.6,2,-0.180,-0.180,-0.180,0.000,0.000,0.000
1640671620099822080,2021-12-28-06:07:00,10.1.1.6,8,-0.180,-0.180,-0.180,0.000,0.000,0.000
1640671621436820992,2021-12-28-06:07:01,10.1.1.6,15,-0.180,-0.180,-0.180,0.000,0.000,0.000
1640671623482629888,2021-12-28-06:07:03,10.1.1.6,6,-0.180,-0.180,-0.180,0.000,0.000,0.000
1640671624246028032,2021-12-28-06:07:04,10.1.1.6,12,-0.180,-0.180,-0.180,0.000,0.000,0.000
1640671625532263168,2021-12-28-06:07:05,10.1.1.6,20,-0.180,-0.180,-0.180,0.000,0.000,0.000
1640671626254275072,2021-12-28-06:07:06,10.1.1.6,1,-0.180,-0.180,-0.180,0.000,0.000,0.000
1640671627555970816,2021-12-28-06:07:07,10.1.1.6,15,-0.180,-0.180,-0.180,0.000,0.000,0.000
1640671628317188096,2021-12-28-06:07:08,10.1.1.6,19,-0.180,-0.180,-0.180,0.000,0.000,0.000
1640671629602972928,2021-12-28-06:07:09,10.1.1.6,10,-0.180,-0.180,-0.180,0.000,0.000,0.000
1640671630339611904,2021-12-28-06:07:10,10.1.1.6,5,-0.180,-0.180,-0.180,0.000,0.000,0.000
1640671631662285056,2021-12-28-06:07:11,10.1.1.6,15,-0.180,-0.180,-0.180,0.000,0.000,0.000
1640671632420361984,2021-12-28-06:07:12,10.1.1.6,4,-0.180,-0.180,-0.180,0.000,0.000,0.000
1640671633701677056,2021-12-28-06:07:13,10.1.1.6,2,-0.180,-0.180,-0.180,0.000,0.000,0.000
1640671634439887104,2021-12-28-06:07:14,10.1.1.6,2,-0.180,-0.180,-0.180,0.000,0.000,0.000
1640671635719405824,2021-12-28-06:07:15,10.1.1.6,7,-0.180,-0.180,-0.180,0.000,0.000,0.000
1640671636458679808,2021-12-28-06:07:16,10.1.1.6,7,-0.180,-0.180,-0.180,0.000,0.000,0.000
1640671637741463040,2021-12-28-06:07:17,10.1.1.6,11,-0.180,-0.180,-0.180,0.000,0.000,0.000
1640671638517317888,2021-12-28-06:07:18,10.1.1.6,3,-0.180,-0.180,-0.180,0.000,0.000,0.000
1640671639816318976,2021-12-28-06:07:19,10.1.1.6,9,-0.180,-0.180,-0.180,0.000,0.000,0.000
1640671640557082880,2021-12-28-06:07:20,10.1.1.6,1,-0.180,-0.180,-0.180,0.000,0.000,0.000
1640671641874574848,2021-12-28-06:07:21,10.1.1.6,17,-0.180,-0.180,-0.180,0.000,0.000,0.000
1640671642633413120,2021-12-28-06:07:22,10.1.1.6,4,-0.180,-0.180,-0.180,0.000,0.000,0.000
1640671643911422976,2021-12-28-06:07:23,10.1.1.6,9,-0.180,-0.180,-0.180,0.000,0.000,0.000
1640671644650819072,2021-12-28-06:07:24,10.1.1.6,3,-0.180,-0.180,-0.180,0.000,0.000,0.000
1640671645948461056,2021-12-28-06:07:25,10.1.1.6,1,-0.180,-0.180,-0.180,0.000,0.000,0.000
1640671646727977984,2021-12-28-06:07:26,10.1.1.6,15,-0.180,-0.180,-0.180,0.000,0.000,0.000
1640671648025248000,2021-12-28-06:07:28,10.1.1.6,12,-0.180,-0.180,-0.180,0.000,0.000,0.000
1640671648824771840,2021-12-28-06:07:28,10.1.1.6,13,-0.180,-0.180,-0.180,0.000,0.000,0.000
1640671650127197952,2021-12-28-06:07:30,10.1.1.6,16,-0.180,-0.180,-0.180,0.000,0.000,0.000
1640671650881197056,2021-12-28-06:07:30,10.1.1.6,14,-0.180,-0.180,-0.180,0.000,0.000,0.000
1640671652178772992,2021-12-28-06:07:32,10.1.1.6,14,-0.180,-0.180,-0.180,0.000,0.000,0.000
1640671652937817088,2021-12-28-06:07:32,10.1.1.6,14,-0.180,-0.180,-0.180,0.000,0.000,0.000
1640671654237056000,2021-12-28-06:07:34,10.1.1.6,12,-0.180,-0.180,-0.180,0.000,0.000,0.000
1640671654980941056,2021-12-28-06:07:34,10.1.1.6,16,-0.180,-0.180,-0.180,0.000,0.000,0.000
1640671656247755008,2021-12-28-06:07:36,10.1.1.6,7,-0.180,-0.180,-0.180,0.000,0.000,0.000
1640671657049773824,2021-12-28-06:07:37,10.1.1.6,17,-0.180,-0.180,-0.180,0.000,0.000,0.000
1640671658353435904,2021-12-28-06:07:38,10.1.1.6,14,-0.180,-0.180,-0.180,0.000,0.000,0.000
1640671659115593984,2021-12-28-06:07:39,10.1.1.6,3,-0.180,-0.180,-0.180,0.000,0.000,0.000
1640671660417262080,2021-12-28-06:07:40,10.1.1.6,4,-0.180,-0.180,-0.180,0.000,0.000,0.000
1640671661199145984,2021-12-28-06:07:41,10.1.1.6,2,-0.180,-0.180,-0.180,0.000,0.000,0.000
1640671662519710976,2021-12-28-06:07:42,10.1.1.6,7,-0.180,-0.180,-0.180,0.000,0.000,0.000
1640671663259867904,2021-12-28-06:07:43,10.1.1.6,7,-0.180,-0.180,-0.180,0.000,0.000,0.000
1640671664621814016,2021-12-28-06:07:44,10.1.1.6,20,-0.180,-0.180,-0.180,0.000,0.000,0.000
1640671665360425984,2021-12-28-06:07:45,10.1.1.6,10,-0.180,-0.180,-0.180,0.000,0.000,0.000
1640671666719597056,2021-12-28-06:07:46,10.1.1.6,10,-0.180,-0.180,-0.180,0.000,0.000,0.000
1640671667479734784,2021-12-28-06:07:47,10.1.1.6,10,-0.180,-0.180,-0.180,0.000,0.000,0.000
1640671668859147008,2021-12-28-06:07:48,10.1.1.6,17,-0.180,-0.180,-0.180,0.000,0.000,0.000
1640671669600289024,2021-12-28-06:07:49,10.1.1.6,5,-0.180,-0.180,-0.180,0.000,0.000,0.000
1640671670916569088,2021-12-28-06:07:50,10.1.1.6,9,-0.180,-0.180,-0.180,0.000,0.000,0.000
1640671671656675072,2021-12-28-06:07:51,10.1.1.6,3,-0.180,-0.180,-0.180,0.000,0.000,0.000
1640671672975267840,2021-12-28-06:07:52,10.1.1.6,16,-0.180,-0.180,-0.180,0.000,0.000,0.000
1640671673734285056,2021-12-28-06:07:53,10.1.1.6,20,-0.180,-0.180,-0.180,0.000,0.000,0.000
1640671675013249024,2021-12-28-06:07:55,10.1.1.6,15,-0.180,-0.180,-0.180,0.000,0.000,0.000
1640671675753679104,2021-12-28-06:07:55,10.1.1.6,1,-0.180,-0.180,-0.180,0.000,0.000,0.000
1640671677049756160,2021-12-28-06:07:57,10.1.1.6,0,-0.180,-0.180,-0.180,0.000,0.000,0.000
1640671677828488960,2021-12-28-06:07:57,10.1.1.6,16,-0.180,-0.180,-0.180,0.000,0.000,0.000
1640671679148756992,2021-12-28-06:07:59,10.1.1.6,8,-0.180,-0.180,-0.180,0.000,0.000,0.000
1640671679905841152,2021-12-28-06:07:59,10.1.1.6,8,-0.180,-0.180,-0.180,0.000,0.000,0.000
1640671681186808064,2021-12-28-06:08:01,10.1.1.6,3,-0.180,-0.180,-0.180,0.000,0.000,0.000
1640671681944192000,2021-12-28-06:08:01,10.1.1.6,12,-0.180,-0.180,-0.180,0.000,0.000,0.000
1640671683240286976,2021-12-28-06:08:03,10.1.1.6,18,-0.180,-0.180,-0.180,0.000,0.000,0.000
1640671684035741184,2021-12-28-06:08:04,10.1.1.6,11,-0.180,-0.180,-0.180,0.000,0.000,0.000
1640671685320389888,2021-12-28-06:08:05,10.1.1.6,5,-0.180,-0.180,-0.180,0.000,0.000,0.000
1640671686076403968,2021-12-28-06:08:06,10.1.1.6,16,-0.180,-0.180,-0.180,0.000,0.000,0.000
1640671687383419136,2021-12-28-06:08:07,10.1.1.6,1,-0.180,-0.180,-0.180,0.000,0.000,0.000
1640671688148060160,2021-12-28-06:08:08,10.1.1.6,12,-0.180,-0.180,-0.180,0.000,0.000,0.000
1640671689572263936,2021-12-28-06:08:09,10.1.1.6,2,-0.180,-0.180,-0.180,0.000,0.000,0.000
1640671690355362048,2021-12-28-06:08:10,10.1.1.6,13,-0.180,-0.180,-0.180,0.000,0.000,0.000
1640671691677570048,2021-12-28-06:08:11,10.1.1.6,8,-0.180,-0.180,-0.180,0.000,0.000,0.000
1640671692437936896,2021-12-28-06:08:12,10.1.1.6,18,-0.180,-0.180,-0.180,0.000,0.000,0.000
1640671693740512000,2021-12-28-06:08:13,10.1.1.6,17,-0.180,-0.180,-0.180,0.000,0.000,0.000
1640671694502073088,2021-12-28-06:08:14,10.1.1.6,18,-0.180,-0.180,-0.180,0.000,0.000,0.000
1640671695860097024,2021-12-28-06:08:15,10.1.1.6,11,-0.180,-0.180,-0.180,0.000,0.000,0.000
1640671696600536064,2021-12-28-06:08:16,10.1.1.6,6,-0.180,-0.180,-0.180,0.000,0.000,0.000
1640671697881081088,2021-12-28-06:08:17,10.1.1.6,2,-0.180,-0.180,-0.180,0.000,0.000,0.000
1640671698642600960,2021-12-28-06:08:18,10.1.1.6,7,-0.180,-0.180,-0.180,0.000,0.000,0.000
1640671699940148224,2021-12-28-06:08:19,10.1.1.6,7,-0.180,-0.180,-0.180,0.000,0.000,0.000
1640671700700280064,2021-12-28-06:08:20,10.1.1.6,18,-0.180,-0.180,-0.180,0.000,0.000,0.000
1640671701998476032,2021-12-28-06:08:21,10.1.1.6,6,-0.180,-0.180,-0.180,0.000,0.000,0.000
1640671702757394944,2021-12-28-06:08:22,10.1.1.6,18,-0.180,-0.180,-0.180,0.000,0.000,0.000
1640671704057573120,2021-12-28-06:08:24,10.1.1.6,0,-0.180,-0.180,-0.180,0.000,0.000,0.000
1640671704835650048,2021-12-28-06:08:24,10.1.1.6,16,-0.180,-0.180,-0.180,0.000,0.000,0.000
1640671706114195968,2021-12-28-06:08:26,10.1.1.6,3,-0.180,-0.180,-0.180,0.000,0.000,0.000
1640671706873788160,2021-12-28-06:08:26,10.1.1.6,13,-0.180,-0.180,-0.180,0.000,0.000,0.000
1640671708151916032,2021-12-28-06:08:28,10.1.1.6,8,-0.180,-0.180,-0.180,0.000,0.000,0.000
1640671708896774144,2021-12-28-06:08:28,10.1.1.6,1,-0.180,-0.180,-0.180,0.000,0.000,0.000
1640671710188855040,2021-12-28-06:08:30,10.1.1.6,3,-0.180,-0.180,-0.180,0.000,0.000,0.000
1640671710948014848,2021-12-28-06:08:30,10.1.1.6,7,-0.180,-0.180,-0.180,0.000,0.000,0.000
1640671712285451008,2021-12-28-06:08:32,10.1.1.6,12,-0.180,-0.180,-0.180,0.000,0.000,0.000
1640671713024745984,2021-12-28-06:08:33,10.1.1.6,12,-0.180,-0.180,-0.180,0.000,0.000,0.000
1640671714304160000,2021-12-28-06:08:34,10.1.1.6,3,-0.180,-0.180,-0.180,0.000,0.000,0.000
1640671715061284096,2021-12-28-06:08:35,10.1.1.6,4,-0.180,-0.180,-0.180,0.000,0.000,0.000
1640671716358831872,2021-12-28-06:08:36,10.1.1.6,15,-0.180,-0.180,-0.180,0.000,0.000,0.000
1640671717157896960,2021-12-28-06:08:37,10.1.1.6,12,-0.180,-0.180,-0.180,0.000,0.000,0.000
1640671718436034048,2021-12-28-06:08:38,10.1.1.6,2,-0.180,-0.180,-0.180,0.000,0.000,0.000
1640671719256524032,2021-12-28-06:08:39,10.1.1.6,9,-0.180,-0.180,-0.180,0.000,0.000,0.000
1640671720562864896,2021-12-28-06:08:40,10.1.1.6,16,-0.180,-0.180,-0.180,0.000,0.000,0.000
1640671721328145152,2021-12-28-06:08:41,10.1.1.6,19,-0.180,-0.180,-0.180,0.000,0.000,0.000
1640671722611301888,2021-12-28-06:08:42,10.1.1.6,1,-0.180,-0.180,-0.180,0.000,0.000,0.000
1640671723372773888,2021-12-28-06:08:43,10.1.1.6,6,-0.180,-0.180,-0.180,0.000,0.000,0.000
1640671724675521024,2021-12-28-06:08:44,10.1.1.6,11,-0.180,-0.180,-0.180,0.000,0.000,0.000
1640671725416940800,2021-12-28-06:08:45,10.1.1.6,12,-0.180,-0.180,-0.180,0.000,0.000,0.000
1640671726699202048,2021-12-28-06:08:46,10.1.1.6,6,-0.180,-0.180,-0.180,0.000,0.000,0.000
1640671727460449024,2021-12-28-06:08:47,10.1.1.6,3,-0.180,-0.180,-0.180,0.000,0.000,0.000
1640671728740036864,2021-12-28-06:08:48,10.1.1.6,1,-0.180,-0.180,-0.180,0.000,0.000,0.000
1640671729579916032,2021-12-28-06:08:49,10.1.1.6,14,-0.180,-0.180,-0.180,0.000,0.000,0.000
1640671730861017088,2021-12-28-06:08:50,10.1.1.6,4,-0.180,-0.180,-0.180,0.000,0.000,0.000
1640671731620096000,2021-12-28-06:08:51,10.1.1.6,12,-0.180,-0.180,-0.180,0.000,0.000,0.000
1640671732899983872,2021-12-28-06:08:52,10.1.1.6,7,-0.180,-0.180,-0.180,0.000,0.000,0.000
1640671733641021952,2021-12-28-06:08:53,10.1.1.6,2,-0.180,-0.180,-0.180,0.000,0.000,0.000
1640671734937730048,2021-12-28-06:08:54,10.1.1.6,0,-0.180,-0.180,-0.180,0.000,0.000,0.000
1640671735697164032,2021-12-28-06:08:55,10.1.1.6,2,-0.180,-0.180,-0.180,0.000,0.000,0.000
1640671736996175104,2021-12-28-06:08:56,10.1.1.6,14,-0.180,-0.180,-0.180,0.000,0.000,0.000
1640671737757231104,2021-12-28-06:08:57,10.1.1.6,18,-0.180,-0.180,-0.180,0.000,0.000,0.000
1640671739034311936,2021-12-28-06:08:59,10.1.1.6,0,-0.180,-0.180,-0.180,0.000,0.000,0.000
1640671739793927936,2021-12-28-06:08:59,10.1.1.6,9,-0.180,-0.180,-0.180,0.000,0.000,0.000
1640671741071666944,2021-12-28-06:09:01,10.1.1.6,3,-0.180,-0.180,-0.180,0.000,0.000,0.000
1640671741830210816,2021-12-28-06:09:01,10.1.1.6,14,-0.180,-0.180,-0.180,0.000,0.000,0.000
1640671743108855040,2021-12-28-06:09:03,10.1.1.6,10,-0.180,-0.180,-0.180,0.000,0.000,0.000
1640671743847531008,2021-12-28-06:09:03,10.1.1.6,1,-0.180,-0.180,-0.180,0.000,0.000,0.000
1640671745146286080,2021-12-28-06:09:05,10.1.1.6,19,-0.180,-0.180,-0.180,0.000,0.000,0.000
1640671745924709120,2021-12-28-06:09:05,10.1.1.6,2,-0.180,-0.180,-0.180,0.000,0.000,0.000
1640671747243958016,2021-12-28-06:09:07,10.1.1.6,19,-0.180,-0.180,-0.180,0.000,0.000,0.000
1640671747981792000,2021-12-28-06:09:07,10.1.1.6,15,-0.180,-0.180,-0.180,0.000,0.000,0.000
1640671749339536896,2021-12-28-06:09:09,10.1.1.6,14,-0.180,-0.180,-0.180,0.000,0.000,0.000
1640671750117902080,2021-12-28-06:09:10,10.1.1.6,0,-0.180,-0.180,-0.180,0.000,0.000,0.000
1640671751417900032,2021-12-28-06:09:11,10.1.1.6,6,-0.180,-0.180,-0.180,0.000,0.000,0.000
1640671752161672960,2021-12-28-06:09:12,10.1.1.6,13,-0.180,-0.180,-0.180,0.000,0.000,0.000
1640671754271830016,2021-12-28-06:09:14,10.1.1.6,10,-0.180,-0.180,-0.180,0.000,0.000,0.000
1640671755553026048,2021-12-28-06:09:15,10.1.1.6,12,-0.180,-0.180,-0.180,0.000,0.000,0.000
1640671756316476160,2021-12-28-06:09:16,10.1.1.6,12,-0.180,-0.180,-0.180,0.000,0.000,0.000
1640671757618934016,2021-12-28-06:09:17,10.1.1.6,10,-0.180,-0.180,-0.180,0.000,0.000,0.000
1640671758379808000,2021-12-28-06:09:18,10.1.1.6,10,-0.180,-0.180,-0.180,0.000,0.000,0.000
1640671759658884096,2021-12-28-06:09:19,10.1.1.6,9,-0.180,-0.180,-0.180,0.000,0.000,0.000
1640671760419224064,2021-12-28-06:09:20,10.1.1.6,16,-0.180,-0.180,-0.180,0.000,0.000,0.000
1640671761699752192,2021-12-28-06:09:21,10.1.1.6,6,-0.180,-0.180,-0.180,0.000,0.000,0.000
1640671762459825920,2021-12-28-06:09:22,10.1.1.6,15,-0.180,-0.180,-0.180,0.000,0.000,0.000
1640671763729444864,2021-12-28-06:09:23,10.1.1.6,0,-0.180,-0.180,-0.180,0.000,0.000,0.000
1640671764480442112,2021-12-28-06:09:24,10.1.1.6,3,-0.180,-0.180,-0.180,0.000,0.000,0.000
1640671765777901056,2021-12-28-06:09:25,10.1.1.6,18,-0.180,-0.180,-0.180,0.000,0.000,0.000
1640671766518208000,2021-12-28-06:09:26,10.1.1.6,2,-0.180,-0.180,-0.180,0.000,0.000,0.000
1640671767796758016,2021-12-28-06:09:27,10.1.1.6,3,-0.180,-0.180,-0.180,0.000,0.000,0.000
1640671768555592960,2021-12-28-06:09:28,10.1.1.6,17,-0.180,-0.180,-0.180,0.000,0.000,0.000
1640671769913545984,2021-12-28-06:09:29,10.1.1.6,16,-0.180,-0.180,-0.180,0.000,0.000,0.000
1640671770665479936,2021-12-28-06:09:30,10.1.1.6,12,-0.180,-0.180,-0.180,0.000,0.000,0.000
1640671771992414976,2021-12-28-06:09:31,10.1.1.6,3,-0.180,-0.180,-0.180,0.000,0.000,0.000
1640671772753268992,2021-12-28-06:09:32,10.1.1.6,3,-0.180,-0.180,-0.180,0.000,0.000,0.000
1640671774104187136,2021-12-28-06:09:34,10.1.1.6,39,-0.180,-0.180,-0.180,0.000,0.000,0.000
