FedericoMungari/DigitalTwin_service/01_WiredScenario/Output/Output_script/script_ROSAPI_output_robots2_freq0_2.txt
timestamp,date,node,latency,joint_1,joint_2,joint_3,joint_4,joint_5,joint_6
1640645341708411904,2021-12-27-22:49:01,10.1.1.3,1640645341707.9438,-0.000,-0.000,0.000,0.000,-0.000,0.000
1640645345781963008,2021-12-27-22:49:05,10.1.1.3,3,-0.000,-0.000,0.000,0.000,-0.000,0.000
1640645347958631936,2021-12-27-22:49:07,10.1.1.3,16,-0.000,-0.000,0.000,0.000,-0.000,0.000
1640645350096940032,2021-12-27-22:49:10,10.1.1.3,9,-0.000,-0.000,0.000,0.000,-0.000,0.000
1640645352212934144,2021-12-27-22:49:12,10.1.1.3,15,-0.000,-0.000,0.000,0.000,-0.000,0.000
1640645354352441088,2021-12-27-22:49:14,10.1.1.3,15,-0.000,-0.000,0.000,0.000,-0.000,0.000
1640645356422319872,2021-12-27-22:49:16,10.1.1.3,6,-0.000,-0.000,0.000,0.000,-0.000,0.000
1640645358547235840,2021-12-27-22:49:18,10.1.1.3,5,-0.000,-0.000,0.000,0.000,-0.000,0.000
1640645360693704960,2021-12-27-22:49:20,10.1.1.3,14,-0.000,-0.000,0.000,0.000,-0.000,0.000
1640645362795533824,2021-12-27-22:49:22,10.1.1.3,16,-0.000,-0.000,0.000,0.000,-0.000,0.000
1640645364899286016,2021-12-27-22:49:24,10.1.1.3,2,-0.000,-0.000,0.000,0.000,-0.000,0.000
1640645367075792128,2021-12-27-22:49:27,10.1.1.3,19,-0.000,-0.000,0.000,0.000,-0.000,0.000
1640645369193756160,2021-12-27-22:49:29,10.1.1.3,4,-0.000,-0.000,0.000,0.000,-0.000,0.000
1640645371312782080,2021-12-27-22:49:31,10.1.1.3,13,-0.000,-0.000,0.000,0.000,-0.000,0.000
1640645373429331968,2021-12-27-22:49:33,10.1.1.3,15,-0.000,-0.000,0.000,0.000,-0.000,0.000
1640645375526845952,2021-12-27-22:49:35,10.1.1.3,4,-0.000,-0.000,0.000,0.000,-0.000,0.000
1640645377624433152,2021-12-27-22:49:37,10.1.1.3,12,-0.000,-0.000,0.000,0.000,-0.000,0.000
1640645379720290816,2021-12-27-22:49:39,10.1.1.3,12,-0.000,-0.000,0.000,0.000,-0.000,0.000
1640645381839059968,2021-12-27-22:49:41,10.1.1.3,12,-0.000,-0.000,0.000,0.000,-0.000,0.000
1640645383996203776,2021-12-27-22:49:43,10.1.1.3,16,-0.000,-0.000,0.000,0.000,-0.000,0.000
1640645386112194048,2021-12-27-22:49:46,10.1.1.3,9,-0.000,-0.000,0.000,0.000,-0.000,0.000
1640645388241953024,2021-12-27-22:49:48,10.1.1.3,8,-0.000,-0.000,0.000,0.000,-0.000,0.000
1640645390349730048,2021-12-27-22:49:50,10.1.1.3,20,-0.000,-0.000,0.000,0.000,-0.000,0.000
1640645392450628096,2021-12-27-22:49:52,10.1.1.3,16,-0.000,-0.000,0.000,0.000,-0.000,0.000
1640645394573157120,2021-12-27-22:49:54,10.1.1.3,15,-0.000,-0.000,0.000,0.000,-0.000,0.000
1640645396654036992,2021-12-27-22:49:56,10.1.1.3,7,-0.000,-0.000,0.000,0.000,-0.000,0.000
1640645398773849856,2021-12-27-22:49:58,10.1.1.3,4,-0.000,-0.000,0.000,0.000,-0.000,0.000
1640645400873094144,2021-12-27-22:50:00,10.1.1.3,8,-0.000,-0.000,0.000,0.000,-0.000,0.000
1640645402933626880,2021-12-27-22:50:02,10.1.1.3,7,-0.000,-0.000,0.000,0.000,-0.000,0.000
1640645405069580032,2021-12-27-22:50:05,10.1.1.3,19,-0.000,-0.000,0.000,0.000,-0.000,0.000
1640645407168265216,2021-12-27-22:50:07,10.1.1.3,17,-0.000,-0.000,0.000,0.000,-0.000,0.000
1640645409283132160,2021-12-27-22:50:09,10.1.1.3,11,-0.000,-0.000,0.000,0.000,-0.000,0.000
1640645411441487104,2021-12-27-22:50:11,10.1.1.3,10,-0.000,-0.000,0.000,0.000,-0.000,0.000
1640645413597830912,2021-12-27-22:50:13,10.1.1.3,10,-0.000,-0.000,0.000,0.000,-0.000,0.000
1640645415674789888,2021-12-27-22:50:15,10.1.1.3,0,-0.000,-0.000,0.000,0.000,-0.000,0.000
1640645417770824960,2021-12-27-22:50:17,10.1.1.3,9,-0.000,-0.000,0.000,0.000,-0.000,0.000
1640645419892473088,2021-12-27-22:50:19,10.1.1.3,13,-0.000,-0.000,0.000,0.000,-0.000,0.000
1640645422005297920,2021-12-27-22:50:22,10.1.1.3,3,-0.000,-0.000,0.000,0.000,-0.000,0.000
1640645424147748096,2021-12-27-22:50:24,10.1.1.3,5,-0.000,-0.000,0.000,0.000,-0.000,0.000
1640645426291204096,2021-12-27-22:50:26,10.1.1.3,19,-0.000,-0.000,0.000,0.000,-0.000,0.000
1640645428373150208,2021-12-27-22:50:28,10.1.1.3,7,-0.000,-0.000,0.000,0.000,-0.000,0.000
1640645430532941056,2021-12-27-22:50:30,10.1.1.3,17,-0.000,-0.000,0.000,0.000,-0.000,0.000
1640645432633803008,2021-12-27-22:50:32,10.1.1.3,1,-0.000,-0.000,0.000,0.000,-0.000,0.000
1640645434770091008,2021-12-27-22:50:34,10.1.1.3,11,-0.000,-0.000,0.000,0.000,-0.000,0.000
1640645436868911872,2021-12-27-22:50:36,10.1.1.3,4,-0.000,-0.000,0.000,0.000,-0.000,0.000
1640645438985549824,2021-12-27-22:50:38,10.1.1.3,16,-0.000,-0.000,0.000,0.000,-0.000,0.000
1640645441062849024,2021-12-27-22:50:41,10.1.1.3,15,-0.000,-0.000,0.000,0.000,-0.000,0.000
1640645443219470080,2021-12-27-22:50:43,10.1.1.3,19,-0.000,-0.000,0.000,0.000,-0.000,0.000
1640645445337691904,2021-12-27-22:50:45,10.1.1.3,5,-0.000,-0.000,0.000,0.000,-0.000,0.000
1640645447453732864,2021-12-27-22:50:47,10.1.1.3,3,-0.000,-0.000,0.000,0.000,-0.000,0.000
1640645449570481152,2021-12-27-22:50:49,10.1.1.3,5,-0.000,-0.000,0.000,0.000,-0.000,0.000
1640645451692382208,2021-12-27-22:50:51,10.1.1.3,9,-0.000,-0.000,0.000,0.000,-0.000,0.000
1640645453801511168,2021-12-27-22:50:53,10.1.1.3,4,-0.000,-0.000,0.000,0.000,-0.000,0.000
1640645455907628032,2021-12-27-22:50:55,10.1.1.3,17,-0.000,-0.000,0.000,0.000,-0.000,0.000
1640645458030993920,2021-12-27-22:50:58,10.1.1.3,8,-0.000,-0.000,0.000,0.000,-0.000,0.000
1640645460173981952,2021-12-27-22:51:00,10.1.1.3,12,-0.000,-0.000,0.000,0.000,-0.000,0.000
1640645462312602880,2021-12-27-22:51:02,10.1.1.3,15,-0.000,-0.000,0.000,0.000,-0.000,0.000
1640645464412683008,2021-12-27-22:51:04,10.1.1.3,16,-0.000,-0.000,0.000,0.000,-0.000,0.000
1640645466492505088,2021-12-27-22:51:06,10.1.1.3,19,-0.000,-0.000,0.000,0.000,-0.000,0.000
1640645468588901888,2021-12-27-22:51:08,10.1.1.3,14,-0.000,-0.000,0.000,0.000,-0.000,0.000
1640645470707035136,2021-12-27-22:51:10,10.1.1.3,15,-0.000,-0.000,0.000,0.000,-0.000,0.000
1640645472842486016,2021-12-27-22:51:12,10.1.1.3,14,-0.000,-0.000,0.000,0.000,-0.000,0.000
1640645475000400896,2021-12-27-22:51:15,10.1.1.3,10,-0.000,-0.000,0.000,0.000,-0.000,0.000
1640645477157998080,2021-12-27-22:51:17,10.1.1.3,6,-0.000,-0.000,0.000,0.000,-0.000,0.000
1640645479275784960,2021-12-27-22:51:19,10.1.1.3,2,-0.000,-0.000,0.000,0.000,-0.000,0.000
1640645481392663040,2021-12-27-22:51:21,10.1.1.3,16,-0.000,-0.000,0.000,0.000,-0.000,0.000
1640645483510565888,2021-12-27-22:51:23,10.1.1.3,18,-0.000,-0.000,0.000,0.000,-0.000,0.000
1640645485600637952,2021-12-27-22:51:25,10.1.1.3,7,-0.000,-0.000,0.000,0.000,-0.000,0.000
1640645487708774144,2021-12-27-22:51:27,10.1.1.3,1,-0.000,-0.000,0.000,0.000,-0.000,0.000
1640645489810505984,2021-12-27-22:51:29,10.1.1.3,2,-0.000,-0.000,0.000,0.000,-0.000,0.000
1640645491933996800,2021-12-27-22:51:31,10.1.1.3,8,-0.000,-0.000,0.000,0.000,-0.000,0.000
1640645494095068928,2021-12-27-22:51:34,10.1.1.3,18,-0.000,-0.000,0.000,0.000,-0.000,0.000
1640645496173937152,2021-12-27-22:51:36,10.1.1.3,2,-0.000,-0.000,0.000,0.000,-0.000,0.000
1640645498292120064,2021-12-27-22:51:38,10.1.1.3,16,-0.000,-0.000,0.000,0.000,-0.000,0.000
1640645500370979072,2021-12-27-22:51:40,10.1.1.3,7,-0.000,-0.000,0.000,0.000,-0.000,0.000
1640645502489406976,2021-12-27-22:51:42,10.1.1.3,8,-0.000,-0.000,0.000,0.000,-0.000,0.000
1640645504607478016,2021-12-27-22:51:44,10.1.1.3,3,-0.000,-0.000,0.000,0.000,-0.000,0.000
1640645506722593024,2021-12-27-22:51:46,10.1.1.3,9,-0.000,-0.000,0.000,0.000,-0.000,0.000
1640645508819278848,2021-12-27-22:51:48,10.1.1.3,15,-0.000,-0.000,0.000,0.000,-0.000,0.000
1640645510896909056,2021-12-27-22:51:50,10.1.1.3,7,-0.000,-0.000,0.000,0.000,-0.000,0.000
1640645513013464064,2021-12-27-22:51:53,10.1.1.3,7,-0.000,-0.000,0.000,0.000,-0.000,0.000
1640645515171821056,2021-12-27-22:51:55,10.1.1.3,16,-0.000,-0.000,0.000,0.000,-0.000,0.000
1640645517244952832,2021-12-27-22:51:57,10.1.1.3,12,-0.000,-0.000,0.000,0.000,-0.000,0.000
1640645519326256896,2021-12-27-22:51:59,10.1.1.3,5,-0.000,-0.000,0.000,0.000,-0.000,0.000
1640645521431351040,2021-12-27-22:52:01,10.1.1.3,3,-0.000,-0.000,0.000,0.000,-0.000,0.000
1640645523535739904,2021-12-27-22:52:03,10.1.1.3,8,-0.000,-0.000,0.000,0.000,-0.000,0.000
1640645527774491136,2021-12-27-22:52:07,10.1.1.3,14,-0.000,-0.000,0.000,0.000,-0.000,0.000
1640645529912231936,2021-12-27-22:52:09,10.1.1.3,13,-0.000,-0.000,0.000,0.000,-0.000,0.000
1640645532090626048,2021-12-27-22:52:12,10.1.1.3,17,-0.000,-0.000,0.000,0.000,-0.000,0.000
1640645534187529984,2021-12-27-22:52:14,10.1.1.3,10,-0.000,-0.000,0.000,0.000,-0.000,0.000
1640645536326036992,2021-12-27-22:52:16,10.1.1.3,16,-0.000,-0.000,0.000,0.000,-0.000,0.000
1640645538421654016,2021-12-27-22:52:18,10.1.1.3,7,-0.000,-0.000,0.000,0.000,-0.000,0.000
1640645540540785920,2021-12-27-22:52:20,10.1.1.3,12,-0.000,-0.000,0.000,0.000,-0.000,0.000
1640645542696940032,2021-12-27-22:52:22,10.1.1.3,15,-0.000,-0.000,0.000,0.000,-0.000,0.000
1640645544832703232,2021-12-27-22:52:24,10.1.1.3,8,-0.000,-0.000,0.000,0.000,-0.000,0.000
1640645546929580032,2021-12-27-22:52:26,10.1.1.3,5,-0.000,-0.000,0.000,0.000,-0.000,0.000
1640645549073177088,2021-12-27-22:52:29,10.1.1.3,0,-0.000,-0.000,0.000,0.000,-0.000,0.000
1640645551200697856,2021-12-27-22:52:31,10.1.1.3,2,-0.000,-0.000,0.000,0.000,-0.000,0.000
1640645553307663872,2021-12-27-22:52:33,10.1.1.3,3,-0.000,-0.000,0.000,0.000,-0.000,0.000
1640645555430164992,2021-12-27-22:52:35,10.1.1.3,14,-0.000,-0.000,0.000,0.000,-0.000,0.000
1640645557580775936,2021-12-27-22:52:37,10.1.1.3,2,-0.000,-0.000,0.000,0.000,-0.000,0.000
1640645559712807936,2021-12-27-22:52:39,10.1.1.3,14,-0.000,-0.000,0.000,0.000,-0.000,0.000
1640645561810100992,2021-12-27-22:52:41,10.1.1.3,11,-0.000,-0.000,0.000,0.000,-0.000,0.000
1640645563949701120,2021-12-27-22:52:43,10.1.1.3,6,-0.000,-0.000,0.000,0.000,-0.000,0.000
1640645566067181056,2021-12-27-22:52:46,10.1.1.3,17,-0.000,-0.000,0.000,0.000,-0.000,0.000
1640645568144151808,2021-12-27-22:52:48,10.1.1.3,12,-0.000,-0.000,0.000,0.000,-0.000,0.000
1640645570224199168,2021-12-27-22:52:50,10.1.1.3,5,-0.000,-0.000,0.000,0.000,-0.000,0.000
1640645572359258880,2021-12-27-22:52:52,10.1.1.3,2,-0.000,-0.000,0.000,0.000,-0.000,0.000
1640645574477724160,2021-12-27-22:52:54,10.1.1.3,14,-0.000,-0.000,0.000,0.000,-0.000,0.000
1640645576594393856,2021-12-27-22:52:56,10.1.1.3,6,-0.000,-0.000,0.000,0.000,-0.000,0.000
1640645578749090816,2021-12-27-22:52:58,10.1.1.3,16,-0.000,-0.000,0.000,0.000,-0.000,0.000
1640645580831734784,2021-12-27-22:53:00,10.1.1.3,13,-0.000,-0.000,0.000,0.000,-0.000,0.000
1640645582920135936,2021-12-27-22:53:02,10.1.1.3,10,-0.000,-0.000,0.000,0.000,-0.000,0.000
1640645585027930112,2021-12-27-22:53:05,10.1.1.3,1,-0.000,-0.000,0.000,0.000,-0.000,0.000
1640645589272793088,2021-12-27-22:53:09,10.1.1.3,5,-0.000,-0.000,0.000,0.000,-0.000,0.000
1640645591393079040,2021-12-27-22:53:11,10.1.1.3,1,-0.000,-0.000,0.000,0.000,-0.000,0.000
1640645593512902912,2021-12-27-22:53:13,10.1.1.3,2,-0.000,-0.000,0.000,0.000,-0.000,0.000
1640645595696225024,2021-12-27-22:53:15,10.1.1.3,18,-0.000,-0.000,0.000,0.000,-0.000,0.000
1640645597867578880,2021-12-27-22:53:17,10.1.1.3,17,-0.000,-0.000,0.000,0.000,-0.000,0.000
1640645599966326016,2021-12-27-22:53:19,10.1.1.3,14,-0.000,-0.000,0.000,0.000,-0.000,0.000
1640645602043548160,2021-12-27-22:53:22,10.1.1.3,12,-0.000,-0.000,0.000,0.000,-0.000,0.000
1640645604180660992,2021-12-27-22:53:24,10.1.1.3,11,-0.000,-0.000,0.000,0.000,-0.000,0.000
1640645606336738048,2021-12-27-22:53:26,10.1.1.3,4,-0.000,-0.000,0.000,0.000,-0.000,0.000
1640645608454110976,2021-12-27-22:53:28,10.1.1.3,15,-0.000,-0.000,0.000,0.000,-0.000,0.000
1640645610570599936,2021-12-27-22:53:30,10.1.1.3,12,-0.000,-0.000,0.000,0.000,-0.000,0.000
1640645612666835968,2021-12-27-22:53:32,10.1.1.3,7,-0.000,-0.000,0.000,0.000,-0.000,0.000
1640645614764281088,2021-12-27-22:53:34,10.1.1.3,1,-0.000,-0.000,0.000,0.000,-0.000,0.000
1640645616881334016,2021-12-27-22:53:36,10.1.1.3,16,-0.000,-0.000,0.000,0.000,-0.000,0.000
1640645618985668864,2021-12-27-22:53:38,10.1.1.3,1,-0.000,-0.000,0.000,0.000,-0.000,0.000
1640645621092206848,2021-12-27-22:53:41,10.1.1.3,19,-0.000,-0.000,0.000,0.000,-0.000,0.000
1640645623228933120,2021-12-27-22:53:43,10.1.1.3,14,-0.000,-0.000,0.000,0.000,-0.000,0.000
1640645625364625920,2021-12-27-22:53:45,10.1.1.3,5,-0.000,-0.000,0.000,0.000,-0.000,0.000
1640645627522303232,2021-12-27-22:53:47,10.1.1.3,8,-0.000,-0.000,0.000,0.000,-0.000,0.000
1640645629658636032,2021-12-27-22:53:49,10.1.1.3,15,-0.000,-0.000,0.000,0.000,-0.000,0.000
1640645631755117056,2021-12-27-22:53:51,10.1.1.3,4,-0.000,-0.000,0.000,0.000,-0.000,0.000
1640645633851213824,2021-12-27-22:53:53,10.1.1.3,13,-0.000,-0.000,0.000,0.000,-0.000,0.000
1640645635949278208,2021-12-27-22:53:55,10.1.1.3,13,-0.000,-0.000,0.000,0.000,-0.000,0.000
1640645638084410880,2021-12-27-22:53:58,10.1.1.3,6,-0.000,-0.000,0.000,0.000,-0.000,0.000
1640645640219654144,2021-12-27-22:54:00,10.1.1.3,20,-0.000,-0.000,0.000,0.000,-0.000,0.000
1640645642296505856,2021-12-27-22:54:02,10.1.1.3,5,-0.000,-0.000,0.000,0.000,-0.000,0.000
1640645644418605056,2021-12-27-22:54:04,10.1.1.3,5,-0.000,-0.000,0.000,0.000,-0.000,0.000
1640645646539969024,2021-12-27-22:54:06,10.1.1.3,9,-0.000,-0.000,0.000,0.000,-0.000,0.000
1640645648676188928,2021-12-27-22:54:08,10.1.1.3,12,-0.000,-0.000,0.000,0.000,-0.000,0.000
1640645650807493888,2021-12-27-22:54:10,10.1.1.3,13,-0.000,-0.000,0.000,0.000,-0.000,0.000
1640645652894944000,2021-12-27-22:54:12,10.1.1.3,12,-0.000,-0.000,0.000,0.000,-0.000,0.000
1640645655018150144,2021-12-27-22:54:15,10.1.1.3,12,-0.000,-0.000,0.000,0.000,-0.000,0.000
1640645657143523072,2021-12-27-22:54:17,10.1.1.3,6,-0.000,-0.000,0.000,0.000,-0.000,0.000
1640645659304018944,2021-12-27-22:54:19,10.1.1.3,17,-0.000,-0.000,0.000,0.000,-0.000,0.000
1640645661443321856,2021-12-27-22:54:21,10.1.1.3,9,-0.000,-0.000,0.000,0.000,-0.000,0.000
1640645663562544128,2021-12-27-22:54:23,10.1.1.3,12,-0.000,-0.000,0.000,0.000,-0.000,0.000
1640645665641158144,2021-12-27-22:54:25,10.1.1.3,9,-0.000,-0.000,0.000,0.000,-0.000,0.000
1640645667778850048,2021-12-27-22:54:27,10.1.1.3,12,-0.000,-0.000,0.000,0.000,-0.000,0.000
1640645669916109056,2021-12-27-22:54:29,10.1.1.3,17,-0.000,-0.000,0.000,0.000,-0.000,0.000
1640645672011791104,2021-12-27-22:54:32,10.1.1.3,5,-0.000,-0.000,0.000,0.000,-0.000,0.000
1640645674109410048,2021-12-27-22:54:34,10.1.1.3,4,-0.000,-0.000,0.000,0.000,-0.000,0.000
1640645676249080064,2021-12-27-22:54:36,10.1.1.3,20,-0.000,-0.000,0.000,0.000,-0.000,0.000
1640645678413263104,2021-12-27-22:54:38,10.1.1.3,18,-0.000,-0.000,0.000,0.000,-0.000,0.000
1640645680502640128,2021-12-27-22:54:40,10.1.1.3,8,-0.000,-0.000,0.000,0.000,-0.000,0.000
1640645682631840000,2021-12-27-22:54:42,10.1.1.3,20,-0.000,-0.000,0.000,0.000,-0.000,0.000
1640645684768684032,2021-12-27-22:54:44,10.1.1.3,7,-0.000,-0.000,0.000,0.000,-0.000,0.000
1640645686891817216,2021-12-27-22:54:46,10.1.1.3,13,-0.000,-0.000,0.000,0.000,-0.000,0.000
1640645688991559936,2021-12-27-22:54:48,10.1.1.3,14,-0.000,-0.000,0.000,0.000,-0.000,0.000
1640645691110366976,2021-12-27-22:54:51,10.1.1.3,16,-0.000,-0.000,0.000,0.000,-0.000,0.000
1640645693228865024,2021-12-27-22:54:53,10.1.1.3,16,-0.000,-0.000,0.000,0.000,-0.000,0.000
1640645695346358016,2021-12-27-22:54:55,10.1.1.3,7,-0.000,-0.000,0.000,0.000,-0.000,0.000
1640645697466914048,2021-12-27-22:54:57,10.1.1.3,5,-0.000,-0.000,0.000,0.000,-0.000,0.000
1640645699582184192,2021-12-27-22:54:59,10.1.1.3,10,-0.000,-0.000,0.000,0.000,-0.000,0.000
1640645701698996992,2021-12-27-22:55:01,10.1.1.3,2,-0.000,-0.000,0.000,0.000,-0.000,0.000
1640645703815664128,2021-12-27-22:55:03,10.1.1.3,14,-0.000,-0.000,0.000,0.000,-0.000,0.000
1640645705912421888,2021-12-27-22:55:05,10.1.1.3,4,-0.000,-0.000,0.000,0.000,-0.000,0.000
1640645708068669952,2021-12-27-22:55:08,10.1.1.3,11,-0.000,-0.000,0.000,0.000,-0.000,0.000
1640645710154368000,2021-12-27-22:55:10,10.1.1.3,12,-0.000,-0.000,0.000,0.000,-0.000,0.000
1640645712302354176,2021-12-27-22:55:12,10.1.1.3,10,-0.000,-0.000,0.000,0.000,-0.000,0.000
1640645714410039808,2021-12-27-22:55:14,10.1.1.3,3,-0.000,-0.000,0.000,0.000,-0.000,0.000
1640645716594018048,2021-12-27-22:55:16,10.1.1.3,16,-0.000,-0.000,0.000,0.000,-0.000,0.000
1640645718671531008,2021-12-27-22:55:18,10.1.1.3,14,-0.000,-0.000,0.000,0.000,-0.000,0.000
1640645720732311040,2021-12-27-22:55:20,10.1.1.3,9,-0.000,-0.000,0.000,0.000,-0.000,0.000
1640645722873101056,2021-12-27-22:55:22,10.1.1.3,16,-0.000,-0.000,0.000,0.000,-0.000,0.000
1640645725010096128,2021-12-27-22:55:25,10.1.1.3,19,-0.000,-0.000,0.000,0.000,-0.000,0.000
1640645727087472896,2021-12-27-22:55:27,10.1.1.3,5,-0.000,-0.000,0.000,0.000,-0.000,0.000
1640645729225570816,2021-12-27-22:55:29,10.1.1.3,6,-0.000,-0.000,0.000,0.000,-0.000,0.000
1640645731321904896,2021-12-27-22:55:31,10.1.1.3,12,-0.000,-0.000,0.000,0.000,-0.000,0.000
1640645733441268992,2021-12-27-22:55:33,10.1.1.3,2,-0.000,-0.000,0.000,0.000,-0.000,0.000
1640645735595936000,2021-12-27-22:55:35,10.1.1.3,13,-0.000,-0.000,0.000,0.000,-0.000,0.000
1640645737713044992,2021-12-27-22:55:37,10.1.1.3,8,-0.000,-0.000,0.000,0.000,-0.000,0.000
1640645739830265088,2021-12-27-22:55:39,10.1.1.3,10,-0.000,-0.000,0.000,0.000,-0.000,0.000
1640645741953313024,2021-12-27-22:55:41,10.1.1.3,19,-0.000,-0.000,0.000,0.000,-0.000,0.000
1640645744065246976,2021-12-27-22:55:44,10.1.1.3,19,-0.000,-0.000,0.000,0.000,-0.000,0.000
1640645746127830016,2021-12-27-22:55:46,10.1.1.3,10,-0.000,-0.000,0.000,0.000,-0.000,0.000
1640645748231959040,2021-12-27-22:55:48,10.1.1.3,3,-0.000,-0.000,0.000,0.000,-0.000,0.000
1640645750372994816,2021-12-27-22:55:50,10.1.1.3,15,-0.000,-0.000,0.000,0.000,-0.000,0.000
1640645752495315968,2021-12-27-22:55:52,10.1.1.3,16,-0.000,-0.000,0.000,0.000,-0.000,0.000
1640645754573040896,2021-12-27-22:55:54,10.1.1.3,8,-0.000,-0.000,0.000,0.000,-0.000,0.000
1640645756693902848,2021-12-27-22:55:56,10.1.1.3,17,-0.000,-0.000,0.000,0.000,-0.000,0.000
1640645758830391040,2021-12-27-22:55:58,10.1.1.3,14,-0.000,-0.000,0.000,0.000,-0.000,0.000
1640645760948609024,2021-12-27-22:56:00,10.1.1.3,18,-0.000,-0.000,0.000,0.000,-0.000,0.000
1640645763024131072,2021-12-27-22:56:03,10.1.1.3,15,-0.000,-0.000,0.000,0.000,-0.000,0.000
1640645765151700992,2021-12-27-22:56:05,10.1.1.3,19,-0.000,-0.000,0.000,0.000,-0.000,0.000
1640645767257956096,2021-12-27-22:56:07,10.1.1.3,13,-0.000,-0.000,0.000,0.000,-0.000,0.000
1640645769397474048,2021-12-27-22:56:09,10.1.1.3,7,-0.000,-0.000,0.000,0.000,-0.000,0.000
1640645771511900928,2021-12-27-22:56:11,10.1.1.3,12,-0.000,-0.000,0.000,0.000,-0.000,0.000
1640645773612704000,2021-12-27-22:56:13,10.1.1.3,2,-0.000,-0.000,0.000,0.000,-0.000,0.000
1640645775742089984,2021-12-27-22:56:15,10.1.1.3,5,-0.000,-0.000,0.000,0.000,-0.000,0.000
1640645777847486976,2021-12-27-22:56:17,10.1.1.3,13,-0.000,-0.000,0.000,0.000,-0.000,0.000
1640645779951229952,2021-12-27-22:56:19,10.1.1.3,3,-0.000,-0.000,0.000,0.000,-0.000,0.000
1640645782092708096,2021-12-27-22:56:22,10.1.1.3,2,-0.000,-0.000,0.000,0.000,-0.000,0.000
1640645784192732160,2021-12-27-22:56:24,10.1.1.3,7,-0.000,-0.000,0.000,0.000,-0.000,0.000
1640645786292615936,2021-12-27-22:56:26,10.1.1.3,5,-0.000,-0.000,0.000,0.000,-0.000,0.000
1640645788430629888,2021-12-27-22:56:28,10.1.1.3,11,-0.000,-0.000,0.000,0.000,-0.000,0.000
1640645790568751104,2021-12-27-22:56:30,10.1.1.3,17,-0.000,-0.000,0.000,0.000,-0.000,0.000
1640645792668152064,2021-12-27-22:56:32,10.1.1.3,3,-0.000,-0.000,0.000,0.000,-0.000,0.000
1640645794746702848,2021-12-27-22:56:34,10.1.1.3,17,-0.000,-0.000,0.000,0.000,-0.000,0.000
1640645796840903936,2021-12-27-22:56:36,10.1.1.3,3,-0.000,-0.000,0.000,0.000,-0.000,0.000
1640645798958008064,2021-12-27-22:56:38,10.1.1.3,10,-0.000,-0.000,0.000,0.000,-0.000,0.000
1640645801097773056,2021-12-27-22:56:41,10.1.1.3,9,-0.000,-0.000,0.000,0.000,-0.000,0.000
1640645803212290048,2021-12-27-22:56:43,10.1.1.3,10,-0.000,-0.000,0.000,0.000,-0.000,0.000
1640645805308928000,2021-12-27-22:56:45,10.1.1.3,9,-0.000,-0.000,0.000,0.000,-0.000,0.000
1640645807434510080,2021-12-27-22:56:47,10.1.1.3,5,-0.000,-0.000,0.000,0.000,-0.000,0.000
1640645809581403904,2021-12-27-22:56:49,10.1.1.3,15,-0.000,-0.000,0.000,0.000,-0.000,0.000
1640645811707827968,2021-12-27-22:56:51,10.1.1.3,13,-0.000,-0.000,0.000,0.000,-0.000,0.000
1640645813809096192,2021-12-27-22:56:53,10.1.1.3,19,-0.000,-0.000,0.000,0.000,-0.000,0.000
1640645815911593984,2021-12-27-22:56:55,10.1.1.3,5,-0.000,-0.000,0.000,0.000,-0.000,0.000
1640645818031538944,2021-12-27-22:56:58,10.1.1.3,5,-0.000,-0.000,0.000,0.000,-0.000,0.000
1640645820190233088,2021-12-27-22:57:00,10.1.1.3,7,-0.000,-0.000,0.000,0.000,-0.000,0.000
1640645822287993856,2021-12-27-22:57:02,10.1.1.3,15,-0.000,-0.000,0.000,0.000,-0.000,0.000
1640645824365683200,2021-12-27-22:57:04,10.1.1.3,17,-0.000,-0.000,0.000,0.000,-0.000,0.000
1640645826482863872,2021-12-27-22:57:06,10.1.1.3,3,-0.000,-0.000,0.000,0.000,-0.000,0.000
1640645828600702976,2021-12-27-22:57:08,10.1.1.3,10,-0.000,-0.000,0.000,0.000,-0.000,0.000
1640645830738060032,2021-12-27-22:57:10,10.1.1.3,17,-0.000,-0.000,0.000,0.000,-0.000,0.000
1640645832855118080,2021-12-27-22:57:12,10.1.1.3,4,-0.000,-0.000,0.000,0.000,-0.000,0.000
1640645834972937216,2021-12-27-22:57:14,10.1.1.3,4,-0.000,-0.000,0.000,0.000,-0.000,0.000
1640645837107929088,2021-12-27-22:57:17,10.1.1.3,4,-0.000,-0.000,0.000,0.000,-0.000,0.000
1640645839192702976,2021-12-27-22:57:19,10.1.1.3,9,-0.000,-0.000,0.000,0.000,-0.000,0.000
1640645841283066880,2021-12-27-22:57:21,10.1.1.3,9,-0.000,-0.000,0.000,0.000,-0.000,0.000
1640645843428310016,2021-12-27-22:57:23,10.1.1.3,18,-0.000,-0.000,0.000,0.000,-0.000,0.000
1640645845554308864,2021-12-27-22:57:25,10.1.1.3,26,-0.000,-0.000,0.000,0.000,-0.000,0.000
1640645847671324928,2021-12-27-22:57:27,10.1.1.3,15,-0.000,-0.000,0.000,0.000,-0.000,0.000
1640645849792807936,2021-12-27-22:57:29,10.1.1.3,18,-0.000,-0.000,0.000,0.000,-0.000,0.000
1640645851890102016,2021-12-27-22:57:31,10.1.1.3,13,-0.000,-0.000,0.000,0.000,-0.000,0.000
1640645853984891904,2021-12-27-22:57:33,10.1.1.3,4,-0.000,-0.000,0.000,0.000,-0.000,0.000
1640645856107134976,2021-12-27-22:57:36,10.1.1.3,10,-0.000,-0.000,0.000,0.000,-0.000,0.000
1640645858205246976,2021-12-27-22:57:38,10.1.1.3,3,-0.000,-0.000,0.000,0.000,-0.000,0.000
1640645860343049984,2021-12-27-22:57:40,10.1.1.3,17,-0.000,-0.000,0.000,0.000,-0.000,0.000
1640645862458560000,2021-12-27-22:57:42,10.1.1.3,8,-0.000,-0.000,0.000,0.000,-0.000,0.000
1640645864576161024,2021-12-27-22:57:44,10.1.1.3,11,-0.000,-0.000,0.000,0.000,-0.000,0.000
1640645866672946944,2021-12-27-22:57:46,10.1.1.3,3,-0.000,-0.000,0.000,0.000,-0.000,0.000
1640645868809443840,2021-12-27-22:57:48,10.1.1.3,16,-0.000,-0.000,0.000,0.000,-0.000,0.000
1640645870913853952,2021-12-27-22:57:50,10.1.1.3,13,-0.000,-0.000,0.000,0.000,-0.000,0.000
1640645873041157888,2021-12-27-22:57:53,10.1.1.3,10,-0.000,-0.000,0.000,0.000,-0.000,0.000
1640645875188612096,2021-12-27-22:57:55,10.1.1.3,17,-0.000,-0.000,0.000,0.000,-0.000,0.000
1640645877269676032,2021-12-27-22:57:57,10.1.1.3,9,-0.000,-0.000,0.000,0.000,-0.000,0.000
1640645879358500864,2021-12-27-22:57:59,10.1.1.3,4,-0.000,-0.000,0.000,0.000,-0.000,0.000
1640645881452195840,2021-12-27-22:58:01,10.1.1.3,11,-0.000,-0.000,0.000,0.000,-0.000,0.000
1640645883571610880,2021-12-27-22:58:03,10.1.1.3,6,-0.000,-0.000,0.000,0.000,-0.000,0.000
1640645885690917888,2021-12-27-22:58:05,10.1.1.3,19,-0.000,-0.000,0.000,0.000,-0.000,0.000
1640645887768590848,2021-12-27-22:58:07,10.1.1.3,2,-0.000,-0.000,0.000,0.000,-0.000,0.000
1640645889904752896,2021-12-27-22:58:09,10.1.1.3,14,-0.000,-0.000,0.000,0.000,-0.000,0.000
1640645891982306048,2021-12-27-22:58:11,10.1.1.3,2,-0.000,-0.000,0.000,0.000,-0.000,0.000
1640645894080131072,2021-12-27-22:58:14,10.1.1.3,6,-0.000,-0.000,0.000,0.000,-0.000,0.000
1640645896218533888,2021-12-27-22:58:16,10.1.1.3,1,-0.000,-0.000,0.000,0.000,-0.000,0.000
1640645898313588992,2021-12-27-22:58:18,10.1.1.3,9,-0.000,-0.000,0.000,0.000,-0.000,0.000
1640645900431759104,2021-12-27-22:58:20,10.1.1.3,7,-0.000,-0.000,0.000,0.000,-0.000,0.000
1640645902551378944,2021-12-27-22:58:22,10.1.1.3,15,-0.000,-0.000,0.000,0.000,-0.000,0.000
1640645904661072128,2021-12-27-22:58:24,10.1.1.3,15,-0.000,-0.000,0.000,0.000,-0.000,0.000
1640645906766534144,2021-12-27-22:58:26,10.1.1.3,5,-0.000,-0.000,0.000,0.000,-0.000,0.000
1640645908891581184,2021-12-27-22:58:28,10.1.1.3,8,-0.000,-0.000,0.000,0.000,-0.000,0.000
1640645910994934016,2021-12-27-22:58:30,10.1.1.3,10,-0.000,-0.000,0.000,0.000,-0.000,0.000
1640645913096057856,2021-12-27-22:58:33,10.1.1.3,7,-0.000,-0.000,0.000,0.000,-0.000,0.000
1640645915214068992,2021-12-27-22:58:35,10.1.1.3,5,-0.000,-0.000,0.000,0.000,-0.000,0.000
1640645917352536832,2021-12-27-22:58:37,10.1.1.3,16,-0.000,-0.000,0.000,0.000,-0.000,0.000
1640645919451368192,2021-12-27-22:58:39,10.1.1.3,14,-0.000,-0.000,0.000,0.000,-0.000,0.000
1640645921589827072,2021-12-27-22:58:41,10.1.1.3,3,-0.000,-0.000,0.000,0.000,-0.000,0.000
1640645923726227968,2021-12-27-22:58:43,10.1.1.3,9,-0.000,-0.000,0.000,0.000,-0.000,0.000
1640645925864372992,2021-12-27-22:58:45,10.1.1.3,3,-0.000,-0.000,0.000,0.000,-0.000,0.000
1640645927980828160,2021-12-27-22:58:47,10.1.1.3,7,-0.000,-0.000,0.000,0.000,-0.000,0.000
1640645930137319936,2021-12-27-22:58:50,10.1.1.3,10,-0.000,-0.000,0.000,0.000,-0.000,0.000
1640645932254234112,2021-12-27-22:58:52,10.1.1.3,17,-0.000,-0.000,0.000,0.000,-0.000,0.000
1640645934390251008,2021-12-27-22:58:54,10.1.1.3,17,-0.000,-0.000,0.000,0.000,-0.000,0.000
1640645936536470016,2021-12-27-22:58:56,10.1.1.3,14,-0.000,-0.000,0.000,0.000,-0.000,0.000
1640645938643853056,2021-12-27-22:58:58,10.1.1.3,10,-0.000,-0.000,0.000,0.000,-0.000,0.000
1640645940769978880,2021-12-27-22:59:00,10.1.1.3,18,-0.000,-0.000,0.000,0.000,-0.000,0.000
1640645942871804928,2021-12-27-22:59:02,10.1.1.3,5,-0.000,-0.000,0.000,0.000,-0.000,0.000
1640645944994308864,2021-12-27-22:59:04,10.1.1.3,16,-0.000,-0.000,0.000,0.000,-0.000,0.000
1640645947115578880,2021-12-27-22:59:07,10.1.1.3,7,-0.000,-0.000,0.000,0.000,-0.000,0.000
1640645949214343168,2021-12-27-22:59:09,10.1.1.3,14,-0.000,-0.000,0.000,0.000,-0.000,0.000
1640645951311467776,2021-12-27-22:59:11,10.1.1.3,6,-0.000,-0.000,0.000,0.000,-0.000,0.000
1640645953450313984,2021-12-27-22:59:13,10.1.1.3,17,-0.000,-0.000,0.000,0.000,-0.000,0.000
1640645955546003200,2021-12-27-22:59:15,10.1.1.3,6,-0.000,-0.000,0.000,0.000,-0.000,0.000
1640645957644232960,2021-12-27-22:59:17,10.1.1.3,6,-0.000,-0.000,0.000,0.000,-0.000,0.000
1640645959782048000,2021-12-27-22:59:19,10.1.1.3,16,-0.000,-0.000,0.000,0.000,-0.000,0.000
1640645961918208000,2021-12-27-22:59:21,10.1.1.3,10,-0.000,-0.000,0.000,0.000,-0.000,0.000
1640645964036932096,2021-12-27-22:59:24,10.1.1.3,7,-0.000,-0.000,0.000,0.000,-0.000,0.000
1640645966191729152,2021-12-27-22:59:26,10.1.1.3,8,-0.000,-0.000,0.000,0.000,-0.000,0.000
1640645968295553024,2021-12-27-22:59:28,10.1.1.3,8,-0.000,-0.000,0.000,0.000,-0.000,0.000
1640645970424640768,2021-12-27-22:59:30,10.1.1.3,5,-0.000,-0.000,0.000,0.000,-0.000,0.000
1640645972550066944,2021-12-27-22:59:32,10.1.1.3,4,-0.000,-0.000,0.000,0.000,-0.000,0.000
1640645974633871104,2021-12-27-22:59:34,10.1.1.3,6,-0.000,-0.000,0.000,0.000,-0.000,0.000
1640645976752325120,2021-12-27-22:59:36,10.1.1.3,11,-0.000,-0.000,0.000,0.000,-0.000,0.000
1640645978852427008,2021-12-27-22:59:38,10.1.1.3,4,-0.000,-0.000,0.000,0.000,-0.000,0.000
1640645980973067008,2021-12-27-22:59:40,10.1.1.3,11,-0.000,-0.000,0.000,0.000,-0.000,0.000
1640645983118594816,2021-12-27-22:59:43,10.1.1.3,20,-0.000,-0.000,0.000,0.000,-0.000,0.000
1640645985247792896,2021-12-27-22:59:45,10.1.1.3,1,-0.000,-0.000,0.000,0.000,-0.000,0.000
1640645987372023040,2021-12-27-22:59:47,10.1.1.3,13,-0.000,-0.000,0.000,0.000,-0.000,0.000
1640645989462102784,2021-12-27-22:59:49,10.1.1.3,2,-0.000,-0.000,0.000,0.000,-0.000,0.000
1640645991538980096,2021-12-27-22:59:51,10.1.1.3,10,-0.000,-0.000,0.000,0.000,-0.000,0.000
1640645993656574976,2021-12-27-22:59:53,10.1.1.3,9,-0.000,-0.000,0.000,0.000,-0.000,0.000
1640645995753891072,2021-12-27-22:59:55,10.1.1.3,15,-0.000,-0.000,0.000,0.000,-0.000,0.000
1640645997808860160,2021-12-27-22:59:57,10.1.1.3,6,-0.000,-0.000,0.000,0.000,-0.000,0.000
1640645999934086912,2021-12-27-22:59:59,10.1.1.3,3,-0.000,-0.000,0.000,0.000,-0.000,0.000
1640646002081182976,2021-12-27-23:00:02,10.1.1.3,12,-0.000,-0.000,0.000,0.000,-0.000,0.000
1640646004208998912,2021-12-27-23:00:04,10.1.1.3,3,-0.000,-0.000,0.000,0.000,-0.000,0.000
1640646006334024960,2021-12-27-23:00:06,10.1.1.3,2,-0.000,-0.000,0.000,0.000,-0.000,0.000
1640646008455087872,2021-12-27-23:00:08,10.1.1.3,3,-0.000,-0.000,0.000,0.000,-0.000,0.000
1640646010617613056,2021-12-27-23:00:10,10.1.1.3,6,-0.000,-0.000,0.000,0.000,-0.000,0.000
1640646012752655872,2021-12-27-23:00:12,10.1.1.3,4,-0.000,-0.000,0.000,0.000,-0.000,0.000
1640646014851501824,2021-12-27-23:00:14,10.1.1.3,2,-0.000,-0.000,0.000,0.000,-0.000,0.000
1640646016989451008,2021-12-27-23:00:16,10.1.1.3,19,-0.000,-0.000,0.000,0.000,-0.000,0.000
1640646019086533120,2021-12-27-23:00:19,10.1.1.3,2,-0.000,-0.000,0.000,0.000,-0.000,0.000
1640646021183763968,2021-12-27-23:00:21,10.1.1.3,17,-0.000,-0.000,0.000,0.000,-0.000,0.000
1640646023281696000,2021-12-27-23:00:23,10.1.1.3,7,-0.000,-0.000,0.000,0.000,-0.000,0.000
1640646025439197184,2021-12-27-23:00:25,10.1.1.3,15,-0.000,-0.000,0.000,0.000,-0.000,0.000
1640646027534565888,2021-12-27-23:00:27,10.1.1.3,1,-0.000,-0.000,0.000,0.000,-0.000,0.000
1640646029611257088,2021-12-27-23:00:29,10.1.1.3,1,-0.000,-0.000,0.000,0.000,-0.000,0.000
1640646031734662144,2021-12-27-23:00:31,10.1.1.3,20,-0.000,-0.000,0.000,0.000,-0.000,0.000
1640646033862024192,2021-12-27-23:00:33,10.1.1.3,3,-0.000,-0.000,0.000,0.000,-0.000,0.000
1640646036008131072,2021-12-27-23:00:36,10.1.1.3,16,-0.000,-0.000,0.000,0.000,-0.000,0.000
1640646038152687104,2021-12-27-23:00:38,10.1.1.3,13,-0.000,-0.000,0.000,0.000,-0.000,0.000
1640646040255372032,2021-12-27-23:00:40,10.1.1.3,13,-0.000,-0.000,0.000,0.000,-0.000,0.000
1640646042394604032,2021-12-27-23:00:42,10.1.1.3,3,-0.000,-0.000,0.000,0.000,-0.000,0.000
1640646044518471936,2021-12-27-23:00:44,10.1.1.3,14,-0.000,-0.000,0.000,0.000,-0.000,0.000
1640646046631883008,2021-12-27-23:00:46,10.1.1.3,17,-0.000,-0.000,0.000,0.000,-0.000,0.000
1640646048728090112,2021-12-27-23:00:48,10.1.1.3,17,-0.000,-0.000,0.000,0.000,-0.000,0.000
1640646050826440192,2021-12-27-23:00:50,10.1.1.3,9,-0.000,-0.000,0.000,0.000,-0.000,0.000
1640646052965306112,2021-12-27-23:00:52,10.1.1.3,8,-0.000,-0.000,0.000,0.000,-0.000,0.000
1640646055101501952,2021-12-27-23:00:55,10.1.1.3,12,-0.000,-0.000,0.000,0.000,-0.000,0.000
1640646057179645952,2021-12-27-23:00:57,10.1.1.3,5,-0.000,-0.000,0.000,0.000,-0.000,0.000
1640646059255072000,2021-12-27-23:00:59,10.1.1.3,8,-0.000,-0.000,0.000,0.000,-0.000,0.000
1640646061391921152,2021-12-27-23:01:01,10.1.1.3,19,-0.000,-0.000,0.000,0.000,-0.000,0.000
1640646063507575040,2021-12-27-23:01:03,10.1.1.3,17,-0.000,-0.000,0.000,0.000,-0.000,0.000
1640646065616504832,2021-12-27-23:01:05,10.1.1.3,6,-0.000,-0.000,0.000,0.000,-0.000,0.000
1640646067745939968,2021-12-27-23:01:07,10.1.1.3,4,-0.000,-0.000,0.000,0.000,-0.000,0.000
1640646069867731968,2021-12-27-23:01:09,10.1.1.3,17,-0.000,-0.000,0.000,0.000,-0.000,0.000
1640646072010471168,2021-12-27-23:01:12,10.1.1.3,19,-0.000,-0.000,0.000,0.000,-0.000,0.000
1640646074130640128,2021-12-27-23:01:14,10.1.1.3,12,-0.000,-0.000,0.000,0.000,-0.000,0.000
1640646076231364096,2021-12-27-23:01:16,10.1.1.3,7,-0.000,-0.000,0.000,0.000,-0.000,0.000
1640646078370144000,2021-12-27-23:01:18,10.1.1.3,19,-0.000,-0.000,0.000,0.000,-0.000,0.000
1640646080470194176,2021-12-27-23:01:20,10.1.1.3,20,-0.000,-0.000,0.000,0.000,-0.000,0.000
1640646082585856000,2021-12-27-23:01:22,10.1.1.3,2,-0.000,-0.000,0.000,0.000,-0.000,0.000
1640646084723182848,2021-12-27-23:01:24,10.1.1.3,17,-0.000,-0.000,0.000,0.000,-0.000,0.000
1640646086821230848,2021-12-27-23:01:26,10.1.1.3,8,-0.000,-0.000,0.000,0.000,-0.000,0.000
1640646088978305024,2021-12-27-23:01:28,10.1.1.3,17,-0.000,-0.000,0.000,0.000,-0.000,0.000
1640646091095804928,2021-12-27-23:01:31,10.1.1.3,10,-0.000,-0.000,0.000,0.000,-0.000,0.000
1640646093232353024,2021-12-27-23:01:33,10.1.1.3,13,-0.000,-0.000,0.000,0.000,-0.000,0.000
1640646095389710848,2021-12-27-23:01:35,10.1.1.3,19,-0.000,-0.000,0.000,0.000,-0.000,0.000
1640646097533662976,2021-12-27-23:01:37,10.1.1.3,17,-0.000,-0.000,0.000,0.000,-0.000,0.000
1640646099601725952,2021-12-27-23:01:39,10.1.1.3,8,-0.000,-0.000,0.000,0.000,-0.000,0.000
1640646101727552768,2021-12-27-23:01:41,10.1.1.3,5,-0.000,-0.000,0.000,0.000,-0.000,0.000
1640646103870649088,2021-12-27-23:01:43,10.1.1.3,17,-0.000,-0.000,0.000,0.000,-0.000,0.000
1640646106011217152,2021-12-27-23:01:46,10.1.1.3,13,-0.000,-0.000,0.000,0.000,-0.000,0.000
1640646108151834880,2021-12-27-23:01:48,10.1.1.3,7,-0.000,-0.000,0.000,0.000,-0.000,0.000
1640646110271420928,2021-12-27-23:01:50,10.1.1.3,5,-0.000,-0.000,0.000,0.000,-0.000,0.000
1640646112407348992,2021-12-27-23:01:52,10.1.1.3,16,-0.000,-0.000,0.000,0.000,-0.000,0.000
1640646114509548800,2021-12-27-23:01:54,10.1.1.3,13,-0.000,-0.000,0.000,0.000,-0.000,0.000
1640646116604476928,2021-12-27-23:01:56,10.1.1.3,11,-0.000,-0.000,0.000,0.000,-0.000,0.000
1640646118700620032,2021-12-27-23:01:58,10.1.1.3,17,-0.000,-0.000,0.000,0.000,-0.000,0.000
1640646120818396928,2021-12-27-23:02:00,10.1.1.3,11,-0.000,-0.000,0.000,0.000,-0.000,0.000
1640646122937038848,2021-12-27-23:02:02,10.1.1.3,6,-0.000,-0.000,0.000,0.000,-0.000,0.000
1640646125032144896,2021-12-27-23:02:05,10.1.1.3,10,-0.000,-0.000,0.000,0.000,-0.000,0.000
1640646127130692864,2021-12-27-23:02:07,10.1.1.3,1,-0.000,-0.000,0.000,0.000,-0.000,0.000
1640646129213598976,2021-12-27-23:02:09,10.1.1.3,2,-0.000,-0.000,0.000,0.000,-0.000,0.000
1640646131323229184,2021-12-27-23:02:11,10.1.1.3,19,-0.000,-0.000,0.000,0.000,-0.000,0.000
1640646133425852160,2021-12-27-23:02:13,10.1.1.3,15,-0.000,-0.000,0.000,0.000,-0.000,0.000
1640646135509808128,2021-12-27-23:02:15,10.1.1.3,11,-0.000,-0.000,0.000,0.000,-0.000,0.000
1640646137612313088,2021-12-27-23:02:17,10.1.1.3,8,-0.000,-0.000,0.000,0.000,-0.000,0.000
1640646139712517120,2021-12-27-23:02:19,10.1.1.3,15,-0.000,-0.000,0.000,0.000,-0.000,0.000
1640646141811113984,2021-12-27-23:02:21,10.1.1.3,2,-0.000,-0.000,0.000,0.000,-0.000,0.000
1640646143969660928,2021-12-27-23:02:23,10.1.1.3,14,-0.000,-0.000,0.000,0.000,-0.000,0.000
1640646146049137152,2021-12-27-23:02:26,10.1.1.3,9,-0.000,-0.000,0.000,0.000,-0.000,0.000
1640646148165196800,2021-12-27-23:02:28,10.1.1.3,12,-0.000,-0.000,0.000,0.000,-0.000,0.000
1640646150262629120,2021-12-27-23:02:30,10.1.1.3,18,-0.000,-0.000,0.000,0.000,-0.000,0.000
1640646152381232128,2021-12-27-23:02:32,10.1.1.3,13,-0.000,-0.000,0.000,0.000,-0.000,0.000
1640646154518043904,2021-12-27-23:02:34,10.1.1.3,19,-0.000,-0.000,0.000,0.000,-0.000,0.000
1640646156613178880,2021-12-27-23:02:36,10.1.1.3,9,-0.000,-0.000,0.000,0.000,-0.000,0.000
1640646158729264896,2021-12-27-23:02:38,10.1.1.3,21,-0.000,-0.000,0.000,0.000,-0.000,0.000
1640646160831341056,2021-12-27-23:02:40,10.1.1.3,6,-0.000,-0.000,0.000,0.000,-0.000,0.000
1640646162904166912,2021-12-27-23:02:42,10.1.1.3,0,-0.000,-0.000,0.000,0.000,-0.000,0.000
1640646165047707136,2021-12-27-23:02:45,10.1.1.3,2,-0.000,-0.000,0.000,0.000,-0.000,0.000
1640646167193797120,2021-12-27-23:02:47,10.1.1.3,3,-0.000,-0.000,0.000,0.000,-0.000,0.000
1640646169333689856,2021-12-27-23:02:49,10.1.1.3,15,-0.000,-0.000,0.000,0.000,-0.000,0.000
1640646171495212032,2021-12-27-23:02:51,10.1.1.3,12,-0.000,-0.000,0.000,0.000,-0.000,0.000
1640646173592520960,2021-12-27-23:02:53,10.1.1.3,5,-0.000,-0.000,0.000,0.000,-0.000,0.000
1640646175731517952,2021-12-27-23:02:55,10.1.1.3,16,-0.000,-0.000,0.000,0.000,-0.000,0.000
1640646177868734976,2021-12-27-23:02:57,10.1.1.3,16,-0.000,-0.000,0.000,0.000,-0.000,0.000
1640646179971041792,2021-12-27-23:02:59,10.1.1.3,21,-0.000,-0.000,0.000,0.000,-0.000,0.000
1640646182085024000,2021-12-27-23:03:02,10.1.1.3,6,-0.000,-0.000,0.000,0.000,-0.000,0.000
1640646184200845056,2021-12-27-23:03:04,10.1.1.3,6,-0.000,-0.000,0.000,0.000,-0.000,0.000
1640646186320424960,2021-12-27-23:03:06,10.1.1.3,14,-0.000,-0.000,0.000,0.000,-0.000,0.000
1640646188415774208,2021-12-27-23:03:08,10.1.1.3,2,-0.000,-0.000,0.000,0.000,-0.000,0.000
1640646190512921088,2021-12-27-23:03:10,10.1.1.3,7,-0.000,-0.000,0.000,0.000,-0.000,0.000
1640646192648963840,2021-12-27-23:03:12,10.1.1.3,17,-0.000,-0.000,0.000,0.000,-0.000,0.000
1640646194737134080,2021-12-27-23:03:14,10.1.1.3,6,-0.000,-0.000,0.000,0.000,-0.000,0.000
1640646196844518912,2021-12-27-23:03:16,10.1.1.3,7,-0.000,-0.000,0.000,0.000,-0.000,0.000
1640646198970050048,2021-12-27-23:03:18,10.1.1.3,8,-0.000,-0.000,0.000,0.000,-0.000,0.000
1640646201097091072,2021-12-27-23:03:21,10.1.1.3,20,-0.000,-0.000,0.000,0.000,-0.000,0.000
1640646203212548864,2021-12-27-23:03:23,10.1.1.3,14,-0.000,-0.000,0.000,0.000,-0.000,0.000
1640646205332907008,2021-12-27-23:03:25,10.1.1.3,10,-0.000,-0.000,0.000,0.000,-0.000,0.000
1640646207432295936,2021-12-27-23:03:27,10.1.1.3,3,-0.000,-0.000,0.000,0.000,-0.000,0.000
1640646209550321152,2021-12-27-23:03:29,10.1.1.3,15,-0.000,-0.000,0.000,0.000,-0.000,0.000
1640646213766007808,2021-12-27-23:03:33,10.1.1.3,7,-0.000,-0.000,0.000,0.000,-0.000,0.000
1640646215923974912,2021-12-27-23:03:35,10.1.1.3,2,-0.000,-0.000,0.000,0.000,-0.000,0.000
1640646218040033024,2021-12-27-23:03:38,10.1.1.3,5,-0.000,-0.000,0.000,0.000,-0.000,0.000
1640646220178014976,2021-12-27-23:03:40,10.1.1.3,11,-0.000,-0.000,0.000,0.000,-0.000,0.000
1640646222296206848,2021-12-27-23:03:42,10.1.1.3,5,-0.000,-0.000,0.000,0.000,-0.000,0.000
1640646224390162944,2021-12-27-23:03:44,10.1.1.3,1,-0.000,-0.000,0.000,0.000,-0.000,0.000
1640646226497102080,2021-12-27-23:03:46,10.1.1.3,2,-0.000,-0.000,0.000,0.000,-0.000,0.000
1640646228643936000,2021-12-27-23:03:48,10.1.1.3,11,-0.000,-0.000,0.000,0.000,-0.000,0.000
1640646230750248960,2021-12-27-23:03:50,10.1.1.3,21,-0.000,-0.000,0.000,0.000,-0.000,0.000
1640646232890816000,2021-12-27-23:03:52,10.1.1.3,16,-0.000,-0.000,0.000,0.000,-0.000,0.000
1640646234974944000,2021-12-27-23:03:54,10.1.1.3,10,-0.000,-0.000,0.000,0.000,-0.000,0.000
1640646237092442112,2021-12-27-23:03:57,10.1.1.3,8,-0.000,-0.000,0.000,0.000,-0.000,0.000
1640646239187418112,2021-12-27-23:03:59,10.1.1.3,2,-0.000,-0.000,0.000,0.000,-0.000,0.000
1640646241307867136,2021-12-27-23:04:01,10.1.1.3,6,-0.000,-0.000,0.000,0.000,-0.000,0.000
1640646243385725952,2021-12-27-23:04:03,10.1.1.3,7,-0.000,-0.000,0.000,0.000,-0.000,0.000
1640646245504290048,2021-12-27-23:04:05,10.1.1.3,8,-0.000,-0.000,0.000,0.000,-0.000,0.000
1640646247641405952,2021-12-27-23:04:07,10.1.1.3,3,-0.000,-0.000,0.000,0.000,-0.000,0.000
1640646249758516992,2021-12-27-23:04:09,10.1.1.3,10,-0.000,-0.000,0.000,0.000,-0.000,0.000
1640646251874211072,2021-12-27-23:04:11,10.1.1.3,1,-0.000,-0.000,0.000,0.000,-0.000,0.000
1640646254012150016,2021-12-27-23:04:14,10.1.1.3,4,-0.000,-0.000,0.000,0.000,-0.000,0.000
1640646256169127936,2021-12-27-23:04:16,10.1.1.3,9,-0.000,-0.000,0.000,0.000,-0.000,0.000
1640646258296135936,2021-12-27-23:04:18,10.1.1.3,14,-0.000,-0.000,0.000,0.000,-0.000,0.000
1640646260392657920,2021-12-27-23:04:20,10.1.1.3,2,-0.000,-0.000,0.000,0.000,-0.000,0.000
1640646262526494976,2021-12-27-23:04:22,10.1.1.3,3,-0.000,-0.000,0.000,0.000,-0.000,0.000
1640646264612173056,2021-12-27-23:04:24,10.1.1.3,4,-0.000,-0.000,0.000,0.000,-0.000,0.000
1640646266692385024,2021-12-27-23:04:26,10.1.1.3,7,-0.000,-0.000,0.000,0.000,-0.000,0.000
1640646268812098048,2021-12-27-23:04:28,10.1.1.3,4,-0.000,-0.000,0.000,0.000,-0.000,0.000
1640646270952084992,2021-12-27-23:04:30,10.1.1.3,12,-0.000,-0.000,0.000,0.000,-0.000,0.000
1640646273071162880,2021-12-27-23:04:33,10.1.1.3,3,-0.000,-0.000,0.000,0.000,-0.000,0.000
1640646275228199936,2021-12-27-23:04:35,10.1.1.3,7,-0.000,-0.000,0.000,0.000,-0.000,0.000
1640646277345782016,2021-12-27-23:04:37,10.1.1.3,15,-0.000,-0.000,0.000,0.000,-0.000,0.000
1640646279464779008,2021-12-27-23:04:39,10.1.1.3,19,-0.000,-0.000,0.000,0.000,-0.000,0.000
1640646281542152960,2021-12-27-23:04:41,10.1.1.3,1,-0.000,-0.000,0.000,0.000,-0.000,0.000
1640646283676752128,2021-12-27-23:04:43,10.1.1.3,10,-0.000,-0.000,0.000,0.000,-0.000,0.000
1640646285793670912,2021-12-27-23:04:45,10.1.1.3,16,-0.000,-0.000,0.000,0.000,-0.000,0.000
1640646287911921920,2021-12-27-23:04:47,10.1.1.3,2,-0.000,-0.000,0.000,0.000,-0.000,0.000
1640646290053976064,2021-12-27-23:04:50,10.1.1.3,4,-0.000,-0.000,0.000,0.000,-0.000,0.000
1640646292202224896,2021-12-27-23:04:52,10.1.1.3,17,-0.000,-0.000,0.000,0.000,-0.000,0.000
1640646294347304960,2021-12-27-23:04:54,10.1.1.3,6,-0.000,-0.000,0.000,0.000,-0.000,0.000
1640646296450939904,2021-12-27-23:04:56,10.1.1.3,6,-0.000,-0.000,0.000,0.000,-0.000,0.000
1640646298574184960,2021-12-27-23:04:58,10.1.1.3,14,-0.000,-0.000,0.000,0.000,-0.000,0.000
1640646300712381952,2021-12-27-23:05:00,10.1.1.3,7,-0.000,-0.000,0.000,0.000,-0.000,0.000
1640646302850876160,2021-12-27-23:05:02,10.1.1.3,13,-0.000,-0.000,0.000,0.000,-0.000,0.000
1640646304952356096,2021-12-27-23:05:04,10.1.1.3,1,-0.000,-0.000,0.000,0.000,-0.000,0.000
1640646307030006784,2021-12-27-23:05:07,10.1.1.3,4,-0.000,-0.000,0.000,0.000,-0.000,0.000
1640646309184228864,2021-12-27-23:05:09,10.1.1.3,5,-0.000,-0.000,0.000,0.000,-0.000,0.000
1640646311303590912,2021-12-27-23:05:11,10.1.1.3,9,-0.000,-0.000,0.000,0.000,-0.000,0.000
1640646313380121856,2021-12-27-23:05:13,10.1.1.3,7,-0.000,-0.000,0.000,0.000,-0.000,0.000
1640646315476599808,2021-12-27-23:05:15,10.1.1.3,15,-0.000,-0.000,0.000,0.000,-0.000,0.000
1640646317574605824,2021-12-27-23:05:17,10.1.1.3,8,-0.000,-0.000,0.000,0.000,-0.000,0.000
1640646319710508032,2021-12-27-23:05:19,10.1.1.3,16,-0.000,-0.000,0.000,0.000,-0.000,0.000
1640646321825659904,2021-12-27-23:05:21,10.1.1.3,6,-0.000,-0.000,0.000,0.000,-0.000,0.000
1640646323918191872,2021-12-27-23:05:23,10.1.1.3,3,-0.000,-0.000,0.000,0.000,-0.000,0.000
1640646326024108800,2021-12-27-23:05:26,10.1.1.3,12,-0.000,-0.000,0.000,0.000,-0.000,0.000
1640646328109213952,2021-12-27-23:05:28,10.1.1.3,8,-0.000,-0.000,0.000,0.000,-0.000,0.000
1640646330270199040,2021-12-27-23:05:30,10.1.1.3,13,-0.000,-0.000,0.000,0.000,-0.000,0.000
1640646332394676992,2021-12-27-23:05:32,10.1.1.3,3,-0.000,-0.000,0.000,0.000,-0.000,0.000
1640646334512034816,2021-12-27-23:05:34,10.1.1.3,15,-0.000,-0.000,0.000,0.000,-0.000,0.000
1640646336630886912,2021-12-27-23:05:36,10.1.1.3,12,-0.000,-0.000,0.000,0.000,-0.000,0.000
1640646338751462912,2021-12-27-23:05:38,10.1.1.3,1,-0.000,-0.000,0.000,0.000,-0.000,0.000
1640646340869064192,2021-12-27-23:05:40,10.1.1.3,11,-0.000,-0.000,0.000,0.000,-0.000,0.000
1640646342986542848,2021-12-27-23:05:42,10.1.1.3,0,-0.000,-0.000,0.000,0.000,-0.000,0.000
1640646345104000000,2021-12-27-23:05:45,10.1.1.3,18,-0.000,-0.000,0.000,0.000,-0.000,0.000
1640646347200335872,2021-12-27-23:05:47,10.1.1.3,4,-0.000,-0.000,0.000,0.000,-0.000,0.000
1640646349356617984,2021-12-27-23:05:49,10.1.1.3,18,-0.000,-0.000,0.000,0.000,-0.000,0.000
1640646351453421056,2021-12-27-23:05:51,10.1.1.3,16,-0.000,-0.000,0.000,0.000,-0.000,0.000
1640646353550940928,2021-12-27-23:05:53,10.1.1.3,7,-0.000,-0.000,0.000,0.000,-0.000,0.000
1640646355676364800,2021-12-27-23:05:55,10.1.1.3,11,-0.000,-0.000,0.000,0.000,-0.000,0.000
1640646357783736832,2021-12-27-23:05:57,10.1.1.3,11,-0.000,-0.000,0.000,0.000,-0.000,0.000
1640646359908880896,2021-12-27-23:05:59,10.1.1.3,15,-0.000,-0.000,0.000,0.000,-0.000,0.000
1640646362013900032,2021-12-27-23:06:02,10.1.1.3,19,-0.000,-0.000,0.000,0.000,-0.000,0.000
1640646364113097984,2021-12-27-23:06:04,10.1.1.3,19,-0.000,-0.000,0.000,0.000,-0.000,0.000
1640646366210483968,2021-12-27-23:06:06,10.1.1.3,14,-0.000,-0.000,0.000,0.000,-0.000,0.000
1640646368309374208,2021-12-27-23:06:08,10.1.1.3,14,-0.000,-0.000,0.000,0.000,-0.000,0.000
1640646370468429056,2021-12-27-23:06:10,10.1.1.3,18,-0.000,-0.000,0.000,0.000,-0.000,0.000
1640646372605679872,2021-12-27-23:06:12,10.1.1.3,12,-0.000,-0.000,0.000,0.000,-0.000,0.000
1640646374745300992,2021-12-27-23:06:14,10.1.1.3,11,-0.000,-0.000,0.000,0.000,-0.000,0.000
1640646376879770112,2021-12-27-23:06:16,10.1.1.3,18,-0.000,-0.000,0.000,0.000,-0.000,0.000
1640646378978321152,2021-12-27-23:06:18,10.1.1.3,4,-0.000,-0.000,0.000,0.000,-0.000,0.000
1640646381074050048,2021-12-27-23:06:21,10.1.1.3,6,-0.000,-0.000,0.000,0.000,-0.000,0.000
1640646383233331968,2021-12-27-23:06:23,10.1.1.3,20,-0.000,-0.000,0.000,0.000,-0.000,0.000
1640646385347609088,2021-12-27-23:06:25,10.1.1.3,13,-0.000,-0.000,0.000,0.000,-0.000,0.000
1640646387474822912,2021-12-27-23:06:27,10.1.1.3,9,-0.000,-0.000,0.000,0.000,-0.000,0.000
1640646389602749952,2021-12-27-23:06:29,10.1.1.3,9,-0.000,-0.000,0.000,0.000,-0.000,0.000
1640646391727624960,2021-12-27-23:06:31,10.1.1.3,7,-0.000,-0.000,0.000,0.000,-0.000,0.000
1640646393849168896,2021-12-27-23:06:33,10.1.1.3,13,-0.000,-0.000,0.000,0.000,-0.000,0.000
1640646395970176000,2021-12-27-23:06:35,10.1.1.3,18,-0.000,-0.000,0.000,0.000,-0.000,0.000
1640646398130857984,2021-12-27-23:06:38,10.1.1.3,12,-0.000,-0.000,0.000,0.000,-0.000,0.000
1640646400229356032,2021-12-27-23:06:40,10.1.1.3,15,-0.000,-0.000,0.000,0.000,-0.000,0.000
1640646402310985984,2021-12-27-23:06:42,10.1.1.3,12,-0.000,-0.000,0.000,0.000,-0.000,0.000
1640646404466978048,2021-12-27-23:06:44,10.1.1.3,18,-0.000,-0.000,0.000,0.000,-0.000,0.000
1640646406568263936,2021-12-27-23:06:46,10.1.1.3,20,-0.000,-0.000,0.000,0.000,-0.000,0.000
1640646408681297152,2021-12-27-23:06:48,10.1.1.3,8,-0.000,-0.000,0.000,0.000,-0.000,0.000
1640646410799166976,2021-12-27-23:06:50,10.1.1.3,18,-0.000,-0.000,0.000,0.000,-0.000,0.000
1640646412917256960,2021-12-27-23:06:52,10.1.1.3,8,-0.000,-0.000,0.000,0.000,-0.000,0.000
1640646415033560064,2021-12-27-23:06:55,10.1.1.3,3,-0.000,-0.000,0.000,0.000,-0.000,0.000
1640646417153719040,2021-12-27-23:06:57,10.1.1.3,14,-0.000,-0.000,0.000,0.000,-0.000,0.000
1640646419255076864,2021-12-27-23:06:59,10.1.1.3,4,-0.000,-0.000,0.000,0.000,-0.000,0.000
1640646421402565888,2021-12-27-23:07:01,10.1.1.3,10,-0.000,-0.000,0.000,0.000,-0.000,0.000
1640646423487465984,2021-12-27-23:07:03,10.1.1.3,3,-0.000,-0.000,0.000,0.000,-0.000,0.000
1640646425631678208,2021-12-27-23:07:05,10.1.1.3,5,-0.000,-0.000,0.000,0.000,-0.000,0.000
1640646427752347904,2021-12-27-23:07:07,10.1.1.3,12,-0.000,-0.000,0.000,0.000,-0.000,0.000
1640646429851960064,2021-12-27-23:07:09,10.1.1.3,7,-0.000,-0.000,0.000,0.000,-0.000,0.000
1640646431991547136,2021-12-27-23:07:11,10.1.1.3,2,-0.000,-0.000,0.000,0.000,-0.000,0.000
1640646434129811968,2021-12-27-23:07:14,10.1.1.3,17,-0.000,-0.000,0.000,0.000,-0.000,0.000
1640646436228517888,2021-12-27-23:07:16,10.1.1.3,14,-0.000,-0.000,0.000,0.000,-0.000,0.000
1640646438325536000,2021-12-27-23:07:18,10.1.1.3,12,-0.000,-0.000,0.000,0.000,-0.000,0.000
1640646440443561984,2021-12-27-23:07:20,10.1.1.3,6,-0.000,-0.000,0.000,0.000,-0.000,0.000
1640646442560993792,2021-12-27-23:07:22,10.1.1.3,18,-0.000,-0.000,0.000,0.000,-0.000,0.000
1640646444652196864,2021-12-27-23:07:24,10.1.1.3,3,-0.000,-0.000,0.000,0.000,-0.000,0.000
1640646446793425152,2021-12-27-23:07:26,10.1.1.3,15,-0.000,-0.000,0.000,0.000,-0.000,0.000
1640646448929156096,2021-12-27-23:07:28,10.1.1.3,12,-0.000,-0.000,0.000,0.000,-0.000,0.000
1640646451046034176,2021-12-27-23:07:31,10.1.1.3,18,-0.000,-0.000,0.000,0.000,-0.000,0.000
1640646453157302016,2021-12-27-23:07:33,10.1.1.3,15,-0.000,-0.000,0.000,0.000,-0.000,0.000
1640646455263723008,2021-12-27-23:07:35,10.1.1.3,11,-0.000,-0.000,0.000,0.000,-0.000,0.000
1640646457388438016,2021-12-27-23:07:37,10.1.1.3,4,-0.000,-0.000,0.000,0.000,-0.000,0.000
1640646459510670848,2021-12-27-23:07:39,10.1.1.3,14,-0.000,-0.000,0.000,0.000,-0.000,0.000
1640646461612435200,2021-12-27-23:07:41,10.1.1.3,17,-0.000,-0.000,0.000,0.000,-0.000,0.000
1640646463731694848,2021-12-27-23:07:43,10.1.1.3,14,-0.000,-0.000,0.000,0.000,-0.000,0.000
1640646465829305856,2021-12-27-23:07:45,10.1.1.3,14,-0.000,-0.000,0.000,0.000,-0.000,0.000
1640646467948108800,2021-12-27-23:07:47,10.1.1.3,18,-0.000,-0.000,0.000,0.000,-0.000,0.000
1640646470086572032,2021-12-27-23:07:50,10.1.1.3,12,-0.000,-0.000,0.000,0.000,-0.000,0.000
1640646472222256896,2021-12-27-23:07:52,10.1.1.3,7,-0.000,-0.000,0.000,0.000,-0.000,0.000
1640646474321583872,2021-12-27-23:07:54,10.1.1.3,16,-0.000,-0.000,0.000,0.000,-0.000,0.000
1640646476417545984,2021-12-27-23:07:56,10.1.1.3,18,-0.000,-0.000,0.000,0.000,-0.000,0.000
1640646478476030976,2021-12-27-23:07:58,10.1.1.3,3,-0.000,-0.000,0.000,0.000,-0.000,0.000
1640646480551678976,2021-12-27-23:08:00,10.1.1.3,4,-0.000,-0.000,0.000,0.000,-0.000,0.000
1640646482669213184,2021-12-27-23:08:02,10.1.1.3,8,-0.000,-0.000,0.000,0.000,-0.000,0.000
1640646484795811840,2021-12-27-23:08:04,10.1.1.3,18,-0.000,-0.000,0.000,0.000,-0.000,0.000
1640646486924175872,2021-12-27-23:08:06,10.1.1.3,12,-0.000,-0.000,0.000,0.000,-0.000,0.000
1640646489027592960,2021-12-27-23:08:09,10.1.1.3,12,-0.000,-0.000,0.000,0.000,-0.000,0.000
1640646491150744832,2021-12-27-23:08:11,10.1.1.3,7,-0.000,-0.000,0.000,0.000,-0.000,0.000
1640646493269944064,2021-12-27-23:08:13,10.1.1.3,9,-0.000,-0.000,0.000,0.000,-0.000,0.000
1640646495392528896,2021-12-27-23:08:15,10.1.1.3,6,-0.000,-0.000,0.000,0.000,-0.000,0.000
1640646497529084928,2021-12-27-23:08:17,10.1.1.3,18,-0.000,-0.000,0.000,0.000,-0.000,0.000
1640646499627533824,2021-12-27-23:08:19,10.1.1.3,5,-0.000,-0.000,0.000,0.000,-0.000,0.000
1640646501727028992,2021-12-27-23:08:21,10.1.1.3,13,-0.000,-0.000,0.000,0.000,-0.000,0.000
1640646503864439040,2021-12-27-23:08:23,10.1.1.3,4,-0.000,-0.000,0.000,0.000,-0.000,0.000
1640646505980279040,2021-12-27-23:08:25,10.1.1.3,16,-0.000,-0.000,0.000,0.000,-0.000,0.000
1640646508117552896,2021-12-27-23:08:28,10.1.1.3,11,-0.000,-0.000,0.000,0.000,-0.000,0.000
1640646510219501056,2021-12-27-23:08:30,10.1.1.3,6,-0.000,-0.000,0.000,0.000,-0.000,0.000
1640646512352043008,2021-12-27-23:08:32,10.1.1.3,14,-0.000,-0.000,0.000,0.000,-0.000,0.000
1640646514507800064,2021-12-27-23:08:34,10.1.1.3,16,-0.000,-0.000,0.000,0.000,-0.000,0.000
1640646516614001920,2021-12-27-23:08:36,10.1.1.3,13,-0.000,-0.000,0.000,0.000,-0.000,0.000
1640646518801992960,2021-12-27-23:08:38,10.1.1.3,15,-0.000,-0.000,0.000,0.000,-0.000,0.000
1640646520906873088,2021-12-27-23:08:40,10.1.1.3,6,-0.000,-0.000,0.000,0.000,-0.000,0.000
1640646523031328000,2021-12-27-23:08:43,10.1.1.3,1,-0.000,-0.000,0.000,0.000,-0.000,0.000
1640646525159235840,2021-12-27-23:08:45,10.1.1.3,5,-0.000,-0.000,0.000,0.000,-0.000,0.000
1640646527289871872,2021-12-27-23:08:47,10.1.1.3,15,-0.000,-0.000,0.000,0.000,-0.000,0.000
1640646529408980992,2021-12-27-23:08:49,10.1.1.3,9,-0.000,-0.000,0.000,0.000,-0.000,0.000
1640646531549048832,2021-12-27-23:08:51,10.1.1.3,16,-0.000,-0.000,0.000,0.000,-0.000,0.000
1640646533626016000,2021-12-27-23:08:53,10.1.1.3,5,-0.000,-0.000,0.000,0.000,-0.000,0.000
1640646535745500160,2021-12-27-23:08:55,10.1.1.3,19,-0.000,-0.000,0.000,0.000,-0.000,0.000
1640646537821844224,2021-12-27-23:08:57,10.1.1.3,19,-0.000,-0.000,0.000,0.000,-0.000,0.000
1640646539918209024,2021-12-27-23:08:59,10.1.1.3,12,-0.000,-0.000,0.000,0.000,-0.000,0.000
1640646542015172864,2021-12-27-23:09:02,10.1.1.3,17,-0.000,-0.000,0.000,0.000,-0.000,0.000
