FedericoMungari/DigitalTwin_service/01_WiredScenario/Output/Output_script/script_rosapi_2_output_robots8_freq0_4.txt
timestamp,date,node,latency,joint_1,joint_2,joint_3,joint_4,joint_5,joint_6
1644350894646627840,2022-02-08-20:08:14,10.1.1.5,-7,-0.100,-0.100,-0.100,-0.000,-0.000,-0.000
1644350894787996928,2022-02-08-20:08:14,10.1.1.5,32,-0.090,-0.090,-0.090,0.000,0.000,0.000
1644350894887181056,2022-02-08-20:08:14,10.1.1.5,30,-0.080,-0.080,-0.080,0.000,0.000,0.000
1644350894987155968,2022-02-08-20:08:14,10.1.1.5,28,-0.070,-0.070,-0.070,0.000,0.000,0.000
1644350895086721024,2022-02-08-20:08:15,10.1.1.5,28,-0.060,-0.060,-0.060,0.000,0.000,0.000
1644350895186445056,2022-02-08-20:08:15,10.1.1.5,27,-0.050,-0.050,-0.050,0.000,0.000,0.000
1644350895287267072,2022-02-08-20:08:15,10.1.1.5,27,-0.040,-0.040,-0.040,0.000,0.000,0.000
1644350895387371008,2022-02-08-20:08:15,10.1.1.5,25,-0.030,-0.030,-0.030,0.000,0.000,0.000
1644350895486820864,2022-02-08-20:08:15,10.1.1.5,25,-0.020,-0.020,-0.020,0.000,0.000,0.000
1644350895587444992,2022-02-08-20:08:15,10.1.1.5,24,-0.010,-0.010,-0.010,0.000,0.000,0.000
1644350895686320128,2022-02-08-20:08:15,10.1.1.5,23,0.000,0.000,0.000,0.000,0.000,0.000
1644350895787538176,2022-02-08-20:08:15,10.1.1.5,22,0.010,0.010,0.010,0.000,0.000,0.000
1644350895887054080,2022-02-08-20:08:15,10.1.1.5,22,0.020,0.020,0.020,0.000,0.000,0.000
1644350895986820096,2022-02-08-20:08:15,10.1.1.5,22,0.030,0.030,0.030,0.000,0.000,0.000
1644350896086818048,2022-02-08-20:08:16,10.1.1.5,21,0.040,0.040,0.040,0.000,0.000,0.000
1644350896187150848,2022-02-08-20:08:16,10.1.1.5,21,0.050,0.050,0.050,0.000,0.000,0.000
1644350896287516160,2022-02-08-20:08:16,10.1.1.5,20,0.060,0.060,0.060,0.000,0.000,0.000
1644350896387805952,2022-02-08-20:08:16,10.1.1.5,19,0.069,0.069,0.069,0.000,0.000,0.000
1644350896506849024,2022-02-08-20:08:16,10.1.1.5,38,0.080,0.080,0.080,0.000,0.000,0.000
1644350896607042048,2022-02-08-20:08:16,10.1.1.5,37,0.090,0.090,0.090,0.000,0.000,0.000
1644350896707432960,2022-02-08-20:08:16,10.1.1.5,36,0.100,0.100,0.100,0.000,0.000,0.000
1644350896806649088,2022-02-08-20:08:16,10.1.1.5,36,0.090,0.090,0.090,0.000,0.000,0.000
1644350896906472960,2022-02-08-20:08:16,10.1.1.5,34,0.080,0.080,0.080,0.000,0.000,0.000
1644350897007428864,2022-02-08-20:08:17,10.1.1.5,33,0.070,0.070,0.070,0.000,0.000,0.000
1644350897107200000,2022-02-08-20:08:17,10.1.1.5,33,0.060,0.060,0.060,0.000,0.000,0.000
1644350897207244032,2022-02-08-20:08:17,10.1.1.5,32,0.050,0.050,0.050,0.000,0.000,0.000
1644350897307404032,2022-02-08-20:08:17,10.1.1.5,30,0.040,0.040,0.040,0.000,0.000,0.000
1644350897407131904,2022-02-08-20:08:17,10.1.1.5,29,0.030,0.030,0.030,0.000,0.000,0.000
1644350897506941952,2022-02-08-20:08:17,10.1.1.5,29,0.020,0.020,0.020,0.000,0.000,0.000
1644350897606568192,2022-02-08-20:08:17,10.1.1.5,28,0.010,0.010,0.010,0.000,0.000,0.000
1644350897706938880,2022-02-08-20:08:17,10.1.1.5,28,0.000,0.000,0.000,0.000,0.000,0.000
1644350897806753024,2022-02-08-20:08:17,10.1.1.5,27,-0.010,-0.010,-0.010,0.000,0.000,0.000
1644350897907305984,2022-02-08-20:08:17,10.1.1.5,26,-0.020,-0.020,-0.020,0.000,0.000,0.000
1644350898006913024,2022-02-08-20:08:18,10.1.1.5,22,-0.030,-0.030,-0.030,0.000,0.000,0.000
1644350898107527936,2022-02-08-20:08:18,10.1.1.5,22,-0.040,-0.040,-0.040,0.000,0.000,0.000
1644350898207586048,2022-02-08-20:08:18,10.1.1.5,21,-0.050,-0.050,-0.050,0.000,0.000,0.000
1644350898307287040,2022-02-08-20:08:18,10.1.1.5,19,-0.059,-0.059,-0.059,0.000,0.000,0.000
1644350898427623936,2022-02-08-20:08:18,10.1.1.5,38,-0.070,-0.070,-0.070,0.000,0.000,0.000
1644350898528883968,2022-02-08-20:08:18,10.1.1.5,38,-0.080,-0.080,-0.080,0.000,0.000,0.000
1644350898630388992,2022-02-08-20:08:18,10.1.1.5,37,-0.090,-0.090,-0.090,0.000,0.000,0.000
1644350898727340032,2022-02-08-20:08:18,10.1.1.5,36,-0.100,-0.100,-0.100,0.000,0.000,0.000
1644350898827159808,2022-02-08-20:08:18,10.1.1.5,34,-0.090,-0.090,-0.090,0.000,0.000,0.000
1644350898927328000,2022-02-08-20:08:18,10.1.1.5,33,-0.080,-0.080,-0.080,0.000,0.000,0.000
1644350899027425024,2022-02-08-20:08:19,10.1.1.5,32,-0.070,-0.070,-0.070,0.000,0.000,0.000
1644350899127217152,2022-02-08-20:08:19,10.1.1.5,32,-0.060,-0.060,-0.060,0.000,0.000,0.000
1644350899227535872,2022-02-08-20:08:19,10.1.1.5,31,-0.050,-0.050,-0.050,0.000,0.000,0.000
1644350899327040000,2022-02-08-20:08:19,10.1.1.5,31,-0.040,-0.040,-0.040,0.000,0.000,0.000
1644350899427066112,2022-02-08-20:08:19,10.1.1.5,29,-0.030,-0.030,-0.030,0.000,0.000,0.000
1644350899526698240,2022-02-08-20:08:19,10.1.1.5,28,-0.020,-0.020,-0.020,0.000,0.000,0.000
1644350899626571008,2022-02-08-20:08:19,10.1.1.5,27,-0.010,-0.010,-0.010,0.000,0.000,0.000
1644350899727795968,2022-02-08-20:08:19,10.1.1.5,25,0.000,0.000,0.000,0.000,0.000,0.000
1644350899827286016,2022-02-08-20:08:19,10.1.1.5,24,0.010,0.010,0.010,0.000,0.000,0.000
1644350899927273984,2022-02-08-20:08:19,10.1.1.5,23,0.020,0.020,0.020,0.000,0.000,0.000
1644350900027447040,2022-02-08-20:08:20,10.1.1.5,22,0.030,0.030,0.030,0.000,0.000,0.000
1644350900127801856,2022-02-08-20:08:20,10.1.1.5,22,0.040,0.040,0.040,0.000,0.000,0.000
1644350900227091968,2022-02-08-20:08:20,10.1.1.5,20,0.050,0.050,0.050,0.000,0.000,0.000
1644350900347283968,2022-02-08-20:08:20,10.1.1.5,38,0.060,0.060,0.060,0.000,0.000,0.000
1644350900447161856,2022-02-08-20:08:20,10.1.1.5,37,0.070,0.070,0.070,0.000,0.000,0.000
1644350900547378176,2022-02-08-20:08:20,10.1.1.5,37,0.080,0.080,0.080,0.000,0.000,0.000
1644350900647067136,2022-02-08-20:08:20,10.1.1.5,35,0.090,0.090,0.090,0.000,0.000,0.000
1644350900746583040,2022-02-08-20:08:20,10.1.1.5,34,0.100,0.100,0.100,0.000,0.000,0.000
1644350900847238912,2022-02-08-20:08:20,10.1.1.5,32,0.090,0.090,0.090,0.000,0.000,0.000
1644350900946578944,2022-02-08-20:08:20,10.1.1.5,32,0.080,0.080,0.080,0.000,0.000,0.000
1644350901046914048,2022-02-08-20:08:21,10.1.1.5,31,0.070,0.070,0.070,0.000,0.000,0.000
1644350901147303168,2022-02-08-20:08:21,10.1.1.5,28,0.060,0.060,0.060,0.000,0.000,0.000
1644350901247674880,2022-02-08-20:08:21,10.1.1.5,28,0.050,0.050,0.050,0.000,0.000,0.000
1644350901347049984,2022-02-08-20:08:21,10.1.1.5,27,0.040,0.040,0.040,0.000,0.000,0.000
1644350901447760128,2022-02-08-20:08:21,10.1.1.5,26,0.030,0.030,0.030,0.000,0.000,0.000
1644350901566824960,2022-02-08-20:08:21,10.1.1.5,35,0.020,0.020,0.020,0.000,0.000,0.000
1644350901667301888,2022-02-08-20:08:21,10.1.1.5,35,0.010,0.010,0.010,0.000,0.000,0.000
1644350901767206912,2022-02-08-20:08:21,10.1.1.5,34,0.000,0.000,0.000,0.000,0.000,0.000
1644350901867921152,2022-02-08-20:08:21,10.1.1.5,33,-0.010,-0.010,-0.010,0.000,0.000,0.000
1644350901967217920,2022-02-08-20:08:21,10.1.1.5,29,-0.020,-0.020,-0.020,0.000,0.000,0.000
1644350902080404992,2022-02-08-20:08:22,10.1.1.5,28,-0.030,-0.030,-0.030,0.000,0.000,0.000
1644350902166616064,2022-02-08-20:08:22,10.1.1.5,28,-0.040,-0.040,-0.040,0.000,0.000,0.000
1644350902266889216,2022-02-08-20:08:22,10.1.1.5,27,-0.050,-0.050,-0.050,0.000,0.000,0.000
1644350902367000064,2022-02-08-20:08:22,10.1.1.5,25,-0.060,-0.060,-0.060,0.000,0.000,0.000
1644350902466834944,2022-02-08-20:08:22,10.1.1.5,24,-0.070,-0.070,-0.070,0.000,0.000,0.000
1644350902567101952,2022-02-08-20:08:22,10.1.1.5,23,-0.080,-0.080,-0.080,0.000,0.000,0.000
1644350902666385920,2022-02-08-20:08:22,10.1.1.5,22,-0.090,-0.090,-0.090,0.000,0.000,0.000
1644350902766295808,2022-02-08-20:08:22,10.1.1.5,22,-0.100,-0.100,-0.100,0.000,0.000,0.000
1644350902866369024,2022-02-08-20:08:22,10.1.1.5,21,-0.090,-0.090,-0.090,0.000,0.000,0.000
1644350902967039232,2022-02-08-20:08:22,10.1.1.5,20,-0.080,-0.080,-0.080,0.000,0.000,0.000
1644350903086954240,2022-02-08-20:08:23,10.1.1.5,38,-0.070,-0.070,-0.070,0.000,0.000,0.000
1644350903187032832,2022-02-08-20:08:23,10.1.1.5,37,-0.060,-0.060,-0.060,0.000,0.000,0.000
1644350903287489792,2022-02-08-20:08:23,10.1.1.5,37,-0.050,-0.050,-0.050,0.000,0.000,0.000
1644350903387008000,2022-02-08-20:08:23,10.1.1.5,36,-0.040,-0.040,-0.040,0.000,0.000,0.000
1644350903486806016,2022-02-08-20:08:23,10.1.1.5,35,-0.030,-0.030,-0.030,0.000,0.000,0.000
1644350903586967040,2022-02-08-20:08:23,10.1.1.5,34,-0.020,-0.020,-0.020,0.000,0.000,0.000
1644350903686880000,2022-02-08-20:08:23,10.1.1.5,34,-0.010,-0.010,-0.010,0.000,0.000,0.000
1644350903787024128,2022-02-08-20:08:23,10.1.1.5,33,0.000,0.000,0.000,0.000,0.000,0.000
1644350903886804992,2022-02-08-20:08:23,10.1.1.5,32,0.010,0.010,0.010,0.000,0.000,0.000
1644350903986663168,2022-02-08-20:08:23,10.1.1.5,31,0.020,0.020,0.020,0.000,0.000,0.000
1644350904087013888,2022-02-08-20:08:24,10.1.1.5,30,0.030,0.030,0.030,0.000,0.000,0.000
1644350904186551040,2022-02-08-20:08:24,10.1.1.5,30,0.040,0.040,0.040,0.000,0.000,0.000
1644350904287329024,2022-02-08-20:08:24,10.1.1.5,29,0.050,0.050,0.050,0.000,0.000,0.000
1644350904386867968,2022-02-08-20:08:24,10.1.1.5,29,0.060,0.060,0.060,0.000,0.000,0.000
1644350904487117056,2022-02-08-20:08:24,10.1.1.5,28,0.070,0.070,0.070,0.000,0.000,0.000
1644350904586522112,2022-02-08-20:08:24,10.1.1.5,28,0.080,0.080,0.080,0.000,0.000,0.000
1644350904686935040,2022-02-08-20:08:24,10.1.1.5,27,0.090,0.090,0.090,0.000,0.000,0.000
1644350904786937088,2022-02-08-20:08:24,10.1.1.5,26,0.100,0.100,0.100,0.000,0.000,0.000
1644350904886800128,2022-02-08-20:08:24,10.1.1.5,25,0.090,0.090,0.090,0.000,0.000,0.000
1644350904987150080,2022-02-08-20:08:24,10.1.1.5,25,0.080,0.080,0.080,0.000,0.000,0.000
1644350905088382976,2022-02-08-20:08:25,10.1.1.5,21,0.070,0.070,0.070,0.000,0.000,0.000
1644350905207181824,2022-02-08-20:08:25,10.1.1.5,38,0.060,0.060,0.060,0.000,0.000,0.000
1644350905306610176,2022-02-08-20:08:25,10.1.1.5,37,0.050,0.050,0.050,0.000,0.000,0.000
1644350905388009984,2022-02-08-20:08:25,10.1.1.5,17,0.040,0.040,0.040,0.000,0.000,0.000
1644350905507291136,2022-02-08-20:08:25,10.1.1.5,35,0.030,0.030,0.030,0.000,0.000,0.000
1644350905607456000,2022-02-08-20:08:25,10.1.1.5,33,0.020,0.020,0.020,0.000,0.000,0.000
1644350905708879104,2022-02-08-20:08:25,10.1.1.5,32,0.010,0.010,0.010,0.000,0.000,0.000
1644350905807835136,2022-02-08-20:08:25,10.1.1.5,29,0.000,0.000,0.000,0.000,0.000,0.000
1644350905907376896,2022-02-08-20:08:25,10.1.1.5,28,-0.010,-0.010,-0.010,0.000,0.000,0.000
1644350906006759936,2022-02-08-20:08:26,10.1.1.5,27,-0.020,-0.020,-0.020,0.000,0.000,0.000
1644350906107140096,2022-02-08-20:08:26,10.1.1.5,26,-0.030,-0.030,-0.030,0.000,0.000,0.000
1644350906207468032,2022-02-08-20:08:26,10.1.1.5,25,-0.040,-0.040,-0.040,0.000,0.000,0.000
1644350906307004928,2022-02-08-20:08:26,10.1.1.5,24,-0.050,-0.050,-0.050,0.000,0.000,0.000
1644350906406769152,2022-02-08-20:08:26,10.1.1.5,22,-0.060,-0.060,-0.060,0.000,0.000,0.000
1644350906506859008,2022-02-08-20:08:26,10.1.1.5,22,-0.070,-0.070,-0.070,0.000,0.000,0.000
1644350906606721024,2022-02-08-20:08:26,10.1.1.5,21,-0.080,-0.080,-0.080,0.000,0.000,0.000
1644350906706967040,2022-02-08-20:08:26,10.1.1.5,21,-0.090,-0.090,-0.090,0.000,0.000,0.000
1644350906806967040,2022-02-08-20:08:26,10.1.1.5,20,-0.100,-0.100,-0.100,0.000,0.000,0.000
1644350906907970816,2022-02-08-20:08:26,10.1.1.5,20,-0.090,-0.090,-0.090,0.000,0.000,0.000
1644350907028673024,2022-02-08-20:08:27,10.1.1.5,27,-0.080,-0.080,-0.080,0.000,0.000,0.000
1644350907146970112,2022-02-08-20:08:27,10.1.1.5,24,-0.070,-0.070,-0.070,0.000,0.000,0.000
1644350907247194880,2022-02-08-20:08:27,10.1.1.5,23,-0.060,-0.060,-0.060,0.000,0.000,0.000
1644350907347058176,2022-02-08-20:08:27,10.1.1.5,22,-0.050,-0.050,-0.050,0.000,0.000,0.000
1644350907447062016,2022-02-08-20:08:27,10.1.1.5,21,-0.040,-0.040,-0.040,0.000,0.000,0.000
1644350907547329024,2022-02-08-20:08:27,10.1.1.5,20,-0.030,-0.030,-0.030,0.000,0.000,0.000
1644350907647241984,2022-02-08-20:08:27,10.1.1.5,19,-0.020,-0.020,-0.020,0.000,0.000,0.000
1644350907747059968,2022-02-08-20:08:27,10.1.1.5,19,-0.010,-0.010,-0.010,0.000,0.000,0.000
1644350907867193088,2022-02-08-20:08:27,10.1.1.5,38,0.000,0.000,0.000,0.000,0.000,0.000
1644350907967077888,2022-02-08-20:08:27,10.1.1.5,38,0.010,0.010,0.010,0.000,0.000,0.000
1644350908066912768,2022-02-08-20:08:28,10.1.1.5,37,0.020,0.020,0.020,0.000,0.000,0.000
1644350908166803968,2022-02-08-20:08:28,10.1.1.5,36,0.030,0.030,0.030,0.000,0.000,0.000
1644350908267177984,2022-02-08-20:08:28,10.1.1.5,35,0.040,0.040,0.040,0.000,0.000,0.000
1644350908366942976,2022-02-08-20:08:28,10.1.1.5,34,0.050,0.050,0.050,0.000,0.000,0.000
1644350908466716928,2022-02-08-20:08:28,10.1.1.5,33,0.060,0.060,0.060,0.000,0.000,0.000
1644350908567382016,2022-02-08-20:08:28,10.1.1.5,32,0.070,0.070,0.070,0.000,0.000,0.000
1644350908666759936,2022-02-08-20:08:28,10.1.1.5,32,0.080,0.080,0.080,0.000,0.000,0.000
1644350908766812160,2022-02-08-20:08:28,10.1.1.5,31,0.090,0.090,0.090,0.000,0.000,0.000
1644350908866624000,2022-02-08-20:08:28,10.1.1.5,31,0.100,0.100,0.100,0.000,0.000,0.000
1644350908967464960,2022-02-08-20:08:28,10.1.1.5,30,0.090,0.090,0.090,0.000,0.000,0.000
1644350909067936000,2022-02-08-20:08:29,10.1.1.5,29,0.080,0.080,0.080,0.000,0.000,0.000
1644350909166690048,2022-02-08-20:08:29,10.1.1.5,28,0.070,0.070,0.070,0.000,0.000,0.000
1644350909267270144,2022-02-08-20:08:29,10.1.1.5,28,0.060,0.060,0.060,0.000,0.000,0.000
1644350909367063040,2022-02-08-20:08:29,10.1.1.5,27,0.050,0.050,0.050,0.000,0.000,0.000
1644350909467128064,2022-02-08-20:08:29,10.1.1.5,27,0.040,0.040,0.040,0.000,0.000,0.000
1644350909567117824,2022-02-08-20:08:29,10.1.1.5,26,0.030,0.030,0.030,0.000,0.000,0.000
1644350909666984192,2022-02-08-20:08:29,10.1.1.5,26,0.020,0.020,0.020,0.000,0.000,0.000
1644350909766934016,2022-02-08-20:08:29,10.1.1.5,25,0.010,0.010,0.010,0.000,0.000,0.000
1644350909867182080,2022-02-08-20:08:29,10.1.1.5,24,0.000,0.000,0.000,0.000,0.000,0.000
1644350909966883840,2022-02-08-20:08:29,10.1.1.5,23,-0.010,-0.010,-0.010,0.000,0.000,0.000
1644350910067280128,2022-02-08-20:08:30,10.1.1.5,23,-0.020,-0.020,-0.020,0.000,0.000,0.000
1644350910167182848,2022-02-08-20:08:30,10.1.1.5,22,-0.030,-0.030,-0.030,0.000,0.000,0.000
1644350910266757120,2022-02-08-20:08:30,10.1.1.5,21,-0.040,-0.040,-0.040,0.000,0.000,0.000
1644350910366755840,2022-02-08-20:08:30,10.1.1.5,20,-0.050,-0.050,-0.050,0.000,0.000,0.000
1644350910467618048,2022-02-08-20:08:30,10.1.1.5,19,-0.060,-0.060,-0.060,0.000,0.000,0.000
1644350910566667008,2022-02-08-20:08:30,10.1.1.5,19,-0.069,-0.069,-0.069,0.000,0.000,0.000
1644350910687377920,2022-02-08-20:08:30,10.1.1.5,38,-0.080,-0.080,-0.080,0.000,0.000,0.000
1644350910786909952,2022-02-08-20:08:30,10.1.1.5,38,-0.090,-0.090,-0.090,0.000,0.000,0.000
1644350910887224064,2022-02-08-20:08:30,10.1.1.5,37,-0.100,-0.100,-0.100,0.000,0.000,0.000
1644350910987188992,2022-02-08-20:08:30,10.1.1.5,36,-0.090,-0.090,-0.090,0.000,0.000,0.000
1644350911086836224,2022-02-08-20:08:31,10.1.1.5,36,-0.080,-0.080,-0.080,0.000,0.000,0.000
1644350911187302144,2022-02-08-20:08:31,10.1.1.5,35,-0.070,-0.070,-0.070,0.000,0.000,0.000
1644350911287730944,2022-02-08-20:08:31,10.1.1.5,34,-0.060,-0.060,-0.060,0.000,0.000,0.000
1644350911387533824,2022-02-08-20:08:31,10.1.1.5,33,-0.050,-0.050,-0.050,0.000,0.000,0.000
1644350911487760896,2022-02-08-20:08:31,10.1.1.5,33,-0.040,-0.040,-0.040,0.000,0.000,0.000
1644350911587470080,2022-02-08-20:08:31,10.1.1.5,33,-0.030,-0.030,-0.030,0.000,0.000,0.000
1644350911692760832,2022-02-08-20:08:31,10.1.1.5,30,-0.020,-0.020,-0.020,0.000,0.000,0.000
1644350911786860032,2022-02-08-20:08:31,10.1.1.5,30,-0.010,-0.010,-0.010,0.000,0.000,0.000
1644350911886908928,2022-02-08-20:08:31,10.1.1.5,29,0.000,0.000,0.000,0.000,0.000,0.000
1644350911986490112,2022-02-08-20:08:31,10.1.1.5,28,0.010,0.010,0.010,0.000,0.000,0.000
1644350912087159040,2022-02-08-20:08:32,10.1.1.5,28,0.020,0.020,0.020,0.000,0.000,0.000
1644350912187249920,2022-02-08-20:08:32,10.1.1.5,28,0.030,0.030,0.030,0.000,0.000,0.000
1644350912287431936,2022-02-08-20:08:32,10.1.1.5,28,0.040,0.040,0.040,0.000,0.000,0.000
1644350912387252992,2022-02-08-20:08:32,10.1.1.5,27,0.050,0.050,0.050,0.000,0.000,0.000
1644350912486494976,2022-02-08-20:08:32,10.1.1.5,26,0.060,0.060,0.060,0.000,0.000,0.000
1644350912586586112,2022-02-08-20:08:32,10.1.1.5,26,0.070,0.070,0.070,0.000,0.000,0.000
1644350912687073024,2022-02-08-20:08:32,10.1.1.5,25,0.080,0.080,0.080,0.000,0.000,0.000
1644350912887023872,2022-02-08-20:08:32,10.1.1.5,22,0.100,0.100,0.100,0.000,0.000,0.000
1644350913007448064,2022-02-08-20:08:33,10.1.1.5,37,0.090,0.090,0.090,0.000,0.000,0.000
1644350913107081984,2022-02-08-20:08:33,10.1.1.5,36,0.080,0.080,0.080,0.000,0.000,0.000
1644350913206947072,2022-02-08-20:08:33,10.1.1.5,33,0.070,0.070,0.070,0.000,0.000,0.000
1644350913306845952,2022-02-08-20:08:33,10.1.1.5,32,0.060,0.060,0.060,0.000,0.000,0.000
1644350913406824192,2022-02-08-20:08:33,10.1.1.5,31,0.050,0.050,0.050,0.000,0.000,0.000
1644350913507159040,2022-02-08-20:08:33,10.1.1.5,31,0.040,0.040,0.040,0.000,0.000,0.000
1644350913607371008,2022-02-08-20:08:33,10.1.1.5,31,0.030,0.030,0.030,0.000,0.000,0.000
1644350913707945216,2022-02-08-20:08:33,10.1.1.5,29,0.020,0.020,0.020,0.000,0.000,0.000
1644350913806811136,2022-02-08-20:08:33,10.1.1.5,29,0.010,0.010,0.010,0.000,0.000,0.000
1644350913907398912,2022-02-08-20:08:33,10.1.1.5,29,0.000,0.000,0.000,0.000,0.000,0.000
1644350914008236800,2022-02-08-20:08:34,10.1.1.5,28,-0.010,-0.010,-0.010,0.000,0.000,0.000
1644350914107026944,2022-02-08-20:08:34,10.1.1.5,28,-0.020,-0.020,-0.020,0.000,0.000,0.000
1644350914206974976,2022-02-08-20:08:34,10.1.1.5,21,-0.030,-0.030,-0.030,0.000,0.000,0.000
1644350914306938880,2022-02-08-20:08:34,10.1.1.5,19,-0.039,-0.039,-0.039,0.000,0.000,0.000
1644350914407019008,2022-02-08-20:08:34,10.1.1.5,19,-0.049,-0.049,-0.049,0.000,0.000,0.000
1644350914507163904,2022-02-08-20:08:34,10.1.1.5,18,-0.059,-0.059,-0.059,0.000,0.000,0.000
1644350914626895872,2022-02-08-20:08:34,10.1.1.5,37,-0.070,-0.070,-0.070,0.000,0.000,0.000
1644350914727206912,2022-02-08-20:08:34,10.1.1.5,36,-0.080,-0.080,-0.080,0.000,0.000,0.000
1644350914828016896,2022-02-08-20:08:34,10.1.1.5,36,-0.090,-0.090,-0.090,0.000,0.000,0.000
1644350914927017984,2022-02-08-20:08:34,10.1.1.5,35,-0.100,-0.100,-0.100,0.000,0.000,0.000
1644350915027431936,2022-02-08-20:08:35,10.1.1.5,34,-0.090,-0.090,-0.090,0.000,0.000,0.000
1644350915127139072,2022-02-08-20:08:35,10.1.1.5,34,-0.080,-0.080,-0.080,0.000,0.000,0.000
1644350915226921984,2022-02-08-20:08:35,10.1.1.5,33,-0.070,-0.070,-0.070,0.000,0.000,0.000
1644350915327260928,2022-02-08-20:08:35,10.1.1.5,33,-0.060,-0.060,-0.060,0.000,0.000,0.000
1644350915427140864,2022-02-08-20:08:35,10.1.1.5,31,-0.050,-0.050,-0.050,0.000,0.000,0.000
1644350915527864064,2022-02-08-20:08:35,10.1.1.5,30,-0.040,-0.040,-0.040,0.000,0.000,0.000
1644350915627508992,2022-02-08-20:08:35,10.1.1.5,29,-0.030,-0.030,-0.030,0.000,0.000,0.000
1644350915727448832,2022-02-08-20:08:35,10.1.1.5,29,-0.020,-0.020,-0.020,0.000,0.000,0.000
1644350915858670848,2022-02-08-20:08:35,10.1.1.5,21,-0.010,-0.010,-0.010,0.000,0.000,0.000
1644350915927906048,2022-02-08-20:08:35,10.1.1.5,20,0.000,0.000,0.000,0.000,0.000,0.000
1644350916047147008,2022-02-08-20:08:36,10.1.1.5,39,0.010,0.010,0.010,0.000,0.000,0.000
1644350916147202048,2022-02-08-20:08:36,10.1.1.5,37,0.020,0.020,0.020,0.000,0.000,0.000
1644350916247266048,2022-02-08-20:08:36,10.1.1.5,37,0.030,0.030,0.030,0.000,0.000,0.000
1644350916346964992,2022-02-08-20:08:36,10.1.1.5,36,0.040,0.040,0.040,0.000,0.000,0.000
1644350916446962176,2022-02-08-20:08:36,10.1.1.5,36,0.050,0.050,0.050,0.000,0.000,0.000
1644350916554617856,2022-02-08-20:08:36,10.1.1.5,35,0.060,0.060,0.060,0.000,0.000,0.000
1644350916646893056,2022-02-08-20:08:36,10.1.1.5,34,0.070,0.070,0.070,0.000,0.000,0.000
1644350916747323904,2022-02-08-20:08:36,10.1.1.5,33,0.080,0.080,0.080,0.000,0.000,0.000
1644350916847019008,2022-02-08-20:08:36,10.1.1.5,33,0.090,0.090,0.090,0.000,0.000,0.000
1644350916947150848,2022-02-08-20:08:36,10.1.1.5,33,0.100,0.100,0.100,0.000,0.000,0.000
1644350917047329792,2022-02-08-20:08:37,10.1.1.5,32,0.090,0.090,0.090,0.000,0.000,0.000
1644350917147280896,2022-02-08-20:08:37,10.1.1.5,30,0.080,0.080,0.080,0.000,0.000,0.000
1644350917247138048,2022-02-08-20:08:37,10.1.1.5,29,0.070,0.070,0.070,0.000,0.000,0.000
1644350917347863040,2022-02-08-20:08:37,10.1.1.5,29,0.060,0.060,0.060,0.000,0.000,0.000
1644350917447408896,2022-02-08-20:08:37,10.1.1.5,28,0.050,0.050,0.050,0.000,0.000,0.000
1644350917547357184,2022-02-08-20:08:37,10.1.1.5,28,0.040,0.040,0.040,0.000,0.000,0.000
1644350917647552000,2022-02-08-20:08:37,10.1.1.5,27,0.030,0.030,0.030,0.000,0.000,0.000
1644350917746649856,2022-02-08-20:08:37,10.1.1.5,27,0.020,0.020,0.020,0.000,0.000,0.000
1644350917847731968,2022-02-08-20:08:37,10.1.1.5,27,0.010,0.010,0.010,0.000,0.000,0.000
1644350917947626240,2022-02-08-20:08:37,10.1.1.5,25,0.000,0.000,0.000,0.000,0.000,0.000
1644350918047777792,2022-02-08-20:08:38,10.1.1.5,25,-0.010,-0.010,-0.010,0.000,0.000,0.000
1644350918147665920,2022-02-08-20:08:38,10.1.1.5,25,-0.020,-0.020,-0.020,0.000,0.000,0.000
1644350918247472128,2022-02-08-20:08:38,10.1.1.5,24,-0.030,-0.030,-0.030,0.000,0.000,0.000
1644350918347832064,2022-02-08-20:08:38,10.1.1.5,24,-0.040,-0.040,-0.040,0.000,0.000,0.000
1644350918448370944,2022-02-08-20:08:38,10.1.1.5,23,-0.050,-0.050,-0.050,0.000,0.000,0.000
1644350918546930176,2022-02-08-20:08:38,10.1.1.5,22,-0.060,-0.060,-0.060,0.000,0.000,0.000
1644350918808124160,2022-02-08-20:08:38,10.1.1.5,37,-0.080,-0.080,-0.080,0.000,0.000,0.000
1644350918907507968,2022-02-08-20:08:38,10.1.1.5,34,-0.090,-0.090,-0.090,0.000,0.000,0.000
1644350919007253760,2022-02-08-20:08:39,10.1.1.5,34,-0.100,-0.100,-0.100,0.000,0.000,0.000
1644350919106926080,2022-02-08-20:08:39,10.1.1.5,33,-0.090,-0.090,-0.090,0.000,0.000,0.000
1644350919207269888,2022-02-08-20:08:39,10.1.1.5,33,-0.080,-0.080,-0.080,0.000,0.000,0.000
1644350919307342080,2022-02-08-20:08:39,10.1.1.5,33,-0.070,-0.070,-0.070,0.000,0.000,0.000
1644350919407019008,2022-02-08-20:08:39,10.1.1.5,32,-0.060,-0.060,-0.060,0.000,0.000,0.000
1644350919506980864,2022-02-08-20:08:39,10.1.1.5,31,-0.050,-0.050,-0.050,0.000,0.000,0.000
1644350919607330048,2022-02-08-20:08:39,10.1.1.5,31,-0.040,-0.040,-0.040,0.000,0.000,0.000
1644350919707028992,2022-02-08-20:08:39,10.1.1.5,30,-0.030,-0.030,-0.030,0.000,0.000,0.000
1644350919806940160,2022-02-08-20:08:39,10.1.1.5,30,-0.020,-0.020,-0.020,0.000,0.000,0.000
1644350919907505920,2022-02-08-20:08:39,10.1.1.5,29,-0.010,-0.010,-0.010,0.000,0.000,0.000
1644350920006903040,2022-02-08-20:08:40,10.1.1.5,28,0.000,0.000,0.000,0.000,0.000,0.000
1644350920106931968,2022-02-08-20:08:40,10.1.1.5,28,0.010,0.010,0.010,0.000,0.000,0.000
1644350920206919936,2022-02-08-20:08:40,10.1.1.5,27,0.020,0.020,0.020,0.000,0.000,0.000
1644350920306814976,2022-02-08-20:08:40,10.1.1.5,26,0.030,0.030,0.030,0.000,0.000,0.000
1644350920407267072,2022-02-08-20:08:40,10.1.1.5,26,0.040,0.040,0.040,0.000,0.000,0.000
1644350920507067904,2022-02-08-20:08:40,10.1.1.5,25,0.050,0.050,0.050,0.000,0.000,0.000
1644350920607449088,2022-02-08-20:08:40,10.1.1.5,24,0.060,0.060,0.060,0.000,0.000,0.000
1644350920707246080,2022-02-08-20:08:40,10.1.1.5,24,0.070,0.070,0.070,0.000,0.000,0.000
1644350920806902784,2022-02-08-20:08:40,10.1.1.5,23,0.080,0.080,0.080,0.000,0.000,0.000
1644350920907500032,2022-02-08-20:08:40,10.1.1.5,22,0.090,0.090,0.090,0.000,0.000,0.000
1644350921006973952,2022-02-08-20:08:41,10.1.1.5,21,0.100,0.100,0.100,0.000,0.000,0.000
1644350921107652864,2022-02-08-20:08:41,10.1.1.5,21,0.090,0.090,0.090,0.000,0.000,0.000
1644350921207416064,2022-02-08-20:08:41,10.1.1.5,19,0.080,0.080,0.080,0.000,0.000,0.000
1644350921307116032,2022-02-08-20:08:41,10.1.1.5,19,0.070,0.070,0.070,0.000,0.000,0.000
1644350921427089920,2022-02-08-20:08:41,10.1.1.5,39,0.060,0.060,0.060,0.000,0.000,0.000
1644350921527225856,2022-02-08-20:08:41,10.1.1.5,38,0.050,0.050,0.050,0.000,0.000,0.000
1644350921626964992,2022-02-08-20:08:41,10.1.1.5,37,0.040,0.040,0.040,0.000,0.000,0.000
1644350921727086080,2022-02-08-20:08:41,10.1.1.5,37,0.030,0.030,0.030,0.000,0.000,0.000
1644350921827277824,2022-02-08-20:08:41,10.1.1.5,37,0.020,0.020,0.020,0.000,0.000,0.000
1644350921926950912,2022-02-08-20:08:41,10.1.1.5,36,0.010,0.010,0.010,0.000,0.000,0.000
1644350922026882048,2022-02-08-20:08:42,10.1.1.5,35,0.000,0.000,0.000,0.000,0.000,0.000
1644350922126769920,2022-02-08-20:08:42,10.1.1.5,34,-0.010,-0.010,-0.010,0.000,0.000,0.000
1644350922227148032,2022-02-08-20:08:42,10.1.1.5,33,-0.020,-0.020,-0.020,0.000,0.000,0.000
1644350922326983936,2022-02-08-20:08:42,10.1.1.5,33,-0.030,-0.030,-0.030,0.000,0.000,0.000
1644350922426963200,2022-02-08-20:08:42,10.1.1.5,32,-0.040,-0.040,-0.040,0.000,0.000,0.000
1644350922527250176,2022-02-08-20:08:42,10.1.1.5,32,-0.050,-0.050,-0.050,0.000,0.000,0.000
1644350922626898176,2022-02-08-20:08:42,10.1.1.5,31,-0.060,-0.060,-0.060,0.000,0.000,0.000
1644350922726810880,2022-02-08-20:08:42,10.1.1.5,30,-0.070,-0.070,-0.070,0.000,0.000,0.000
1644350922839878144,2022-02-08-20:08:42,10.1.1.5,29,-0.080,-0.080,-0.080,0.000,0.000,0.000
1644350922927357952,2022-02-08-20:08:42,10.1.1.5,28,-0.090,-0.090,-0.090,0.000,0.000,0.000
1644350923027315968,2022-02-08-20:08:43,10.1.1.5,27,-0.100,-0.100,-0.100,0.000,0.000,0.000
1644350923127773952,2022-02-08-20:08:43,10.1.1.5,26,-0.090,-0.090,-0.090,0.000,0.000,0.000
1644350923227790080,2022-02-08-20:08:43,10.1.1.5,25,-0.080,-0.080,-0.080,0.000,0.000,0.000
1644350923328739840,2022-02-08-20:08:43,10.1.1.5,25,-0.070,-0.070,-0.070,0.000,0.000,0.000
1644350923427209984,2022-02-08-20:08:43,10.1.1.5,24,-0.060,-0.060,-0.060,0.000,0.000,0.000
1644350923527496960,2022-02-08-20:08:43,10.1.1.5,22,-0.050,-0.050,-0.050,0.000,0.000,0.000
1644350923627799040,2022-02-08-20:08:43,10.1.1.5,22,-0.040,-0.040,-0.040,0.000,0.000,0.000
1644350923727194112,2022-02-08-20:08:43,10.1.1.5,21,-0.030,-0.030,-0.030,0.000,0.000,0.000
1644350923826967040,2022-02-08-20:08:43,10.1.1.5,20,-0.020,-0.020,-0.020,0.000,0.000,0.000
1644350923927667968,2022-02-08-20:08:43,10.1.1.5,19,-0.010,-0.010,-0.010,0.000,0.000,0.000
1644350924047503872,2022-02-08-20:08:44,10.1.1.5,38,0.000,0.000,0.000,0.000,0.000,0.000
1644350924147064064,2022-02-08-20:08:44,10.1.1.5,38,0.010,0.010,0.010,0.000,0.000,0.000
1644350924248517120,2022-02-08-20:08:44,10.1.1.5,37,0.020,0.020,0.020,0.000,0.000,0.000
1644350924347588096,2022-02-08-20:08:44,10.1.1.5,36,0.030,0.030,0.030,0.000,0.000,0.000
1644350924447334912,2022-02-08-20:08:44,10.1.1.5,33,0.040,0.040,0.040,0.000,0.000,0.000
1644350924546771968,2022-02-08-20:08:44,10.1.1.5,32,0.050,0.050,0.050,0.000,0.000,0.000
1644350924647814912,2022-02-08-20:08:44,10.1.1.5,30,0.060,0.060,0.060,0.000,0.000,0.000
1644350924747473920,2022-02-08-20:08:44,10.1.1.5,29,0.070,0.070,0.070,0.000,0.000,0.000
1644350924852634880,2022-02-08-20:08:44,10.1.1.5,27,0.080,0.080,0.080,0.000,0.000,0.000
1644350924967518208,2022-02-08-20:08:44,10.1.1.5,31,0.090,0.090,0.090,0.000,0.000,0.000
1644350925067116032,2022-02-08-20:08:45,10.1.1.5,31,0.100,0.100,0.100,0.000,0.000,0.000
1644350925168928000,2022-02-08-20:08:45,10.1.1.5,30,0.090,0.090,0.090,0.000,0.000,0.000
1644350925267560960,2022-02-08-20:08:45,10.1.1.5,29,0.080,0.080,0.080,0.000,0.000,0.000
1644350925367373824,2022-02-08-20:08:45,10.1.1.5,28,0.070,0.070,0.070,0.000,0.000,0.000
1644350925467624960,2022-02-08-20:08:45,10.1.1.5,27,0.060,0.060,0.060,0.000,0.000,0.000
1644350925567527936,2022-02-08-20:08:45,10.1.1.5,27,0.050,0.050,0.050,0.000,0.000,0.000
1644350925666928896,2022-02-08-20:08:45,10.1.1.5,26,0.040,0.040,0.040,0.000,0.000,0.000
1644350925766946048,2022-02-08-20:08:45,10.1.1.5,25,0.030,0.030,0.030,0.000,0.000,0.000
1644350925868609792,2022-02-08-20:08:45,10.1.1.5,24,0.020,0.020,0.020,0.000,0.000,0.000
1644350925967392000,2022-02-08-20:08:45,10.1.1.5,24,0.010,0.010,0.010,0.000,0.000,0.000
1644350926067048960,2022-02-08-20:08:46,10.1.1.5,24,0.000,0.000,0.000,0.000,0.000,0.000
1644350926168045056,2022-02-08-20:08:46,10.1.1.5,24,-0.010,-0.010,-0.010,0.000,0.000,0.000
1644350926266788096,2022-02-08-20:08:46,10.1.1.5,23,-0.020,-0.020,-0.020,0.000,0.000,0.000
1644350926366808832,2022-02-08-20:08:46,10.1.1.5,22,-0.030,-0.030,-0.030,0.000,0.000,0.000
1644350926466945792,2022-02-08-20:08:46,10.1.1.5,22,-0.040,-0.040,-0.040,0.000,0.000,0.000
1644350926567232000,2022-02-08-20:08:46,10.1.1.5,21,-0.050,-0.050,-0.050,0.000,0.000,0.000
1644350926666984960,2022-02-08-20:08:46,10.1.1.5,21,-0.060,-0.060,-0.060,0.000,0.000,0.000
1644350926766961152,2022-02-08-20:08:46,10.1.1.5,20,-0.070,-0.070,-0.070,0.000,0.000,0.000
1644350926867048960,2022-02-08-20:08:46,10.1.1.5,20,-0.080,-0.080,-0.080,0.000,0.000,0.000
1644350926966914048,2022-02-08-20:08:46,10.1.1.5,20,-0.090,-0.090,-0.090,0.000,0.000,0.000
1644350927066723072,2022-02-08-20:08:47,10.1.1.5,19,-0.100,-0.100,-0.100,0.000,0.000,0.000
1644350927167230976,2022-02-08-20:08:47,10.1.1.5,18,-0.091,-0.091,-0.091,0.000,0.000,0.000
1644350927287600128,2022-02-08-20:08:47,10.1.1.5,38,-0.080,-0.080,-0.080,0.000,0.000,0.000
1644350927387367936,2022-02-08-20:08:47,10.1.1.5,37,-0.070,-0.070,-0.070,0.000,0.000,0.000
1644350927487382784,2022-02-08-20:08:47,10.1.1.5,37,-0.060,-0.060,-0.060,0.000,0.000,0.000
1644350927586881024,2022-02-08-20:08:47,10.1.1.5,37,-0.050,-0.050,-0.050,0.000,0.000,0.000
1644350927687131904,2022-02-08-20:08:47,10.1.1.5,36,-0.040,-0.040,-0.040,0.000,0.000,0.000
1644350927786691840,2022-02-08-20:08:47,10.1.1.5,36,-0.030,-0.030,-0.030,0.000,0.000,0.000
1644350927887376896,2022-02-08-20:08:47,10.1.1.5,36,-0.020,-0.020,-0.020,0.000,0.000,0.000
1644350927987020032,2022-02-08-20:08:47,10.1.1.5,35,-0.010,-0.010,-0.010,0.000,0.000,0.000
1644350928086867200,2022-02-08-20:08:48,10.1.1.5,34,0.000,0.000,0.000,0.000,0.000,0.000
1644350928187131904,2022-02-08-20:08:48,10.1.1.5,34,0.010,0.010,0.010,0.000,0.000,0.000
1644350928287262976,2022-02-08-20:08:48,10.1.1.5,33,0.020,0.020,0.020,0.000,0.000,0.000
1644350928396118016,2022-02-08-20:08:48,10.1.1.5,29,0.030,0.030,0.030,0.000,0.000,0.000
1644350928486789888,2022-02-08-20:08:48,10.1.1.5,27,0.040,0.040,0.040,0.000,0.000,0.000
1644350928587069952,2022-02-08-20:08:48,10.1.1.5,27,0.050,0.050,0.050,0.000,0.000,0.000
1644350928687575040,2022-02-08-20:08:48,10.1.1.5,26,0.060,0.060,0.060,0.000,0.000,0.000
1644350928786892800,2022-02-08-20:08:48,10.1.1.5,25,0.070,0.070,0.070,0.000,0.000,0.000
1644350928886795008,2022-02-08-20:08:48,10.1.1.5,22,0.080,0.080,0.080,0.000,0.000,0.000
1644350928987006976,2022-02-08-20:08:48,10.1.1.5,20,0.090,0.090,0.090,0.000,0.000,0.000
1644350929086714880,2022-02-08-20:08:49,10.1.1.5,19,0.099,0.099,0.099,0.000,0.000,0.000
1644350929207104000,2022-02-08-20:08:49,10.1.1.5,38,0.090,0.090,0.090,0.000,0.000,0.000
1644350929306938880,2022-02-08-20:08:49,10.1.1.5,38,0.080,0.080,0.080,0.000,0.000,0.000
1644350929407633152,2022-02-08-20:08:49,10.1.1.5,37,0.070,0.070,0.070,0.000,0.000,0.000
1644350929507110144,2022-02-08-20:08:49,10.1.1.5,37,0.060,0.060,0.060,0.000,0.000,0.000
1644350929607316992,2022-02-08-20:08:49,10.1.1.5,36,0.050,0.050,0.050,0.000,0.000,0.000
1644350929706989056,2022-02-08-20:08:49,10.1.1.5,35,0.040,0.040,0.040,0.000,0.000,0.000
1644350929807457024,2022-02-08-20:08:49,10.1.1.5,35,0.030,0.030,0.030,0.000,0.000,0.000
1644350929906939904,2022-02-08-20:08:49,10.1.1.5,34,0.020,0.020,0.020,0.000,0.000,0.000
1644350930006878976,2022-02-08-20:08:50,10.1.1.5,33,0.010,0.010,0.010,0.000,0.000,0.000
1644350930107158784,2022-02-08-20:08:50,10.1.1.5,33,0.000,0.000,0.000,0.000,0.000,0.000
1644350930207265024,2022-02-08-20:08:50,10.1.1.5,32,-0.010,-0.010,-0.010,0.000,0.000,0.000
1644350930306824960,2022-02-08-20:08:50,10.1.1.5,32,-0.020,-0.020,-0.020,0.000,0.000,0.000
1644350930406585856,2022-02-08-20:08:50,10.1.1.5,31,-0.030,-0.030,-0.030,0.000,0.000,0.000
1644350930515254016,2022-02-08-20:08:50,10.1.1.5,31,-0.040,-0.040,-0.040,0.000,0.000,0.000
1644350930606961920,2022-02-08-20:08:50,10.1.1.5,29,-0.050,-0.050,-0.050,0.000,0.000,0.000
1644350930707076096,2022-02-08-20:08:50,10.1.1.5,28,-0.060,-0.060,-0.060,0.000,0.000,0.000
1644350930806983936,2022-02-08-20:08:50,10.1.1.5,27,-0.070,-0.070,-0.070,0.000,0.000,0.000
1644350930907869952,2022-02-08-20:08:50,10.1.1.5,27,-0.080,-0.080,-0.080,0.000,0.000,0.000
1644350931007211008,2022-02-08-20:08:51,10.1.1.5,27,-0.090,-0.090,-0.090,0.000,0.000,0.000
1644350931107640064,2022-02-08-20:08:51,10.1.1.5,26,-0.100,-0.100,-0.100,0.000,0.000,0.000
1644350931232594944,2022-02-08-20:08:51,10.1.1.5,34,-0.090,-0.090,-0.090,0.000,0.000,0.000
1644350931329946112,2022-02-08-20:08:51,10.1.1.5,33,-0.080,-0.080,-0.080,0.000,0.000,0.000
1644350931439894016,2022-02-08-20:08:51,10.1.1.5,41,-0.070,-0.070,-0.070,0.000,0.000,0.000
1644350931530834944,2022-02-08-20:08:51,10.1.1.5,31,-0.060,-0.060,-0.060,0.000,0.000,0.000
1644350931628130816,2022-02-08-20:08:51,10.1.1.5,28,-0.050,-0.050,-0.050,0.000,0.000,0.000
1644350931727382016,2022-02-08-20:08:51,10.1.1.5,25,-0.040,-0.040,-0.040,0.000,0.000,0.000
1644350931827341056,2022-02-08-20:08:51,10.1.1.5,25,-0.030,-0.030,-0.030,0.000,0.000,0.000
1644350931943262208,2022-02-08-20:08:51,10.1.1.5,37,-0.020,-0.020,-0.020,0.000,0.000,0.000
1644350932039376896,2022-02-08-20:08:52,10.1.1.5,29,-0.010,-0.010,-0.010,0.000,0.000,0.000
1644350932140955904,2022-02-08-20:08:52,10.1.1.5,19,0.000,0.000,0.000,0.000,0.000,0.000
1644350932227650816,2022-02-08-20:08:52,10.1.1.5,19,0.010,0.010,0.010,0.000,0.000,0.000
1644350932348071168,2022-02-08-20:08:52,10.1.1.5,38,0.020,0.020,0.020,0.000,0.000,0.000
1644350932457753856,2022-02-08-20:08:52,10.1.1.5,36,0.030,0.030,0.030,0.000,0.000,0.000
1644350932549700096,2022-02-08-20:08:52,10.1.1.5,27,0.040,0.040,0.040,0.000,0.000,0.000
1644350932647795968,2022-02-08-20:08:52,10.1.1.5,26,0.050,0.050,0.050,0.000,0.000,0.000
1644350932750384128,2022-02-08-20:08:52,10.1.1.5,25,0.060,0.060,0.060,0.000,0.000,0.000
1644350932849849856,2022-02-08-20:08:52,10.1.1.5,26,0.070,0.070,0.070,0.000,0.000,0.000
1644350932951421952,2022-02-08-20:08:52,10.1.1.5,24,0.080,0.080,0.080,0.000,0.000,0.000
1644350933049293056,2022-02-08-20:08:53,10.1.1.5,23,0.090,0.090,0.090,0.000,0.000,0.000
1644350933152535040,2022-02-08-20:08:53,10.1.1.5,25,0.100,0.100,0.100,0.000,0.000,0.000
1644350933247736832,2022-02-08-20:08:53,10.1.1.5,20,0.090,0.090,0.090,0.000,0.000,0.000
1644350933347115008,2022-02-08-20:08:53,10.1.1.5,19,0.080,0.080,0.080,0.000,0.000,0.000
1644350933467915008,2022-02-08-20:08:53,10.1.1.5,38,0.070,0.070,0.070,0.000,0.000,0.000
1644350933567369984,2022-02-08-20:08:53,10.1.1.5,38,0.060,0.060,0.060,0.000,0.000,0.000
1644350933669351168,2022-02-08-20:08:53,10.1.1.5,37,0.050,0.050,0.050,0.000,0.000,0.000
1644350933766693120,2022-02-08-20:08:53,10.1.1.5,30,0.040,0.040,0.040,0.000,0.000,0.000
1644350933867366912,2022-02-08-20:08:53,10.1.1.5,29,0.030,0.030,0.030,0.000,0.000,0.000
1644350933967668992,2022-02-08-20:08:53,10.1.1.5,27,0.020,0.020,0.020,0.000,0.000,0.000
1644350934067122944,2022-02-08-20:08:54,10.1.1.5,25,0.010,0.010,0.010,0.000,0.000,0.000
1644350934167334912,2022-02-08-20:08:54,10.1.1.5,24,0.000,0.000,0.000,0.000,0.000,0.000
1644350934274884096,2022-02-08-20:08:54,10.1.1.5,23,-0.010,-0.010,-0.010,0.000,0.000,0.000
1644350934374080000,2022-02-08-20:08:54,10.1.1.5,23,-0.020,-0.020,-0.020,0.000,0.000,0.000
1644350934467881984,2022-02-08-20:08:54,10.1.1.5,22,-0.030,-0.030,-0.030,0.000,0.000,0.000
1644350934585136896,2022-02-08-20:08:54,10.1.1.5,21,-0.040,-0.040,-0.040,0.000,0.000,0.000
1644350934666999040,2022-02-08-20:08:54,10.1.1.5,19,-0.050,-0.050,-0.050,0.000,0.000,0.000
1644350934767246080,2022-02-08-20:08:54,10.1.1.5,19,-0.059,-0.059,-0.059,0.000,0.000,0.000
1644350934888780032,2022-02-08-20:08:54,10.1.1.5,38,-0.070,-0.070,-0.070,0.000,0.000,0.000
1644350934986900992,2022-02-08-20:08:54,10.1.1.5,38,-0.080,-0.080,-0.080,0.000,0.000,0.000
1644350935086968064,2022-02-08-20:08:55,10.1.1.5,37,-0.090,-0.090,-0.090,0.000,0.000,0.000
1644350935187182848,2022-02-08-20:08:55,10.1.1.5,37,-0.100,-0.100,-0.100,0.000,0.000,0.000
1644350935286840832,2022-02-08-20:08:55,10.1.1.5,36,-0.090,-0.090,-0.090,0.000,0.000,0.000
1644350935387073024,2022-02-08-20:08:55,10.1.1.5,36,-0.080,-0.080,-0.080,0.000,0.000,0.000
1644350935486654976,2022-02-08-20:08:55,10.1.1.5,35,-0.070,-0.070,-0.070,0.000,0.000,0.000
1644350935587368960,2022-02-08-20:08:55,10.1.1.5,35,-0.060,-0.060,-0.060,0.000,0.000,0.000
1644350935686935808,2022-02-08-20:08:55,10.1.1.5,34,-0.050,-0.050,-0.050,0.000,0.000,0.000
1644350935787350016,2022-02-08-20:08:55,10.1.1.5,33,-0.040,-0.040,-0.040,0.000,0.000,0.000
1644350935886866176,2022-02-08-20:08:55,10.1.1.5,33,-0.030,-0.030,-0.030,0.000,0.000,0.000
1644350935986920960,2022-02-08-20:08:55,10.1.1.5,32,-0.020,-0.020,-0.020,0.000,0.000,0.000
1644350936086725120,2022-02-08-20:08:56,10.1.1.5,32,-0.010,-0.010,-0.010,0.000,0.000,0.000
1644350936187128064,2022-02-08-20:08:56,10.1.1.5,31,0.000,0.000,0.000,0.000,0.000,0.000
1644350936287718144,2022-02-08-20:08:56,10.1.1.5,31,0.010,0.010,0.010,0.000,0.000,0.000
1644350936386786816,2022-02-08-20:08:56,10.1.1.5,30,0.020,0.020,0.020,0.000,0.000,0.000
1644350936486823168,2022-02-08-20:08:56,10.1.1.5,29,0.030,0.030,0.030,0.000,0.000,0.000
1644350936587290880,2022-02-08-20:08:56,10.1.1.5,29,0.040,0.040,0.040,0.000,0.000,0.000
1644350936687348992,2022-02-08-20:08:56,10.1.1.5,29,0.050,0.050,0.050,0.000,0.000,0.000
1644350936787475968,2022-02-08-20:08:56,10.1.1.5,28,0.060,0.060,0.060,0.000,0.000,0.000
1644350936887255808,2022-02-08-20:08:56,10.1.1.5,27,0.070,0.070,0.070,0.000,0.000,0.000
1644350936987365120,2022-02-08-20:08:56,10.1.1.5,27,0.080,0.080,0.080,0.000,0.000,0.000
1644350937087579136,2022-02-08-20:08:57,10.1.1.5,27,0.090,0.090,0.090,0.000,0.000,0.000
1644350937187331072,2022-02-08-20:08:57,10.1.1.5,26,0.100,0.100,0.100,0.000,0.000,0.000
1644350937288670976,2022-02-08-20:08:57,10.1.1.5,26,0.090,0.090,0.090,0.000,0.000,0.000
1644350937387532032,2022-02-08-20:08:57,10.1.1.5,21,0.080,0.080,0.080,0.000,0.000,0.000
1644350937487005952,2022-02-08-20:08:57,10.1.1.5,20,0.070,0.070,0.070,0.000,0.000,0.000
1644350937587156992,2022-02-08-20:08:57,10.1.1.5,19,0.060,0.060,0.060,0.000,0.000,0.000
1644350937707878144,2022-02-08-20:08:57,10.1.1.5,38,0.050,0.050,0.050,0.000,0.000,0.000
1644350937807412992,2022-02-08-20:08:57,10.1.1.5,38,0.040,0.040,0.040,0.000,0.000,0.000
1644350937907236096,2022-02-08-20:08:57,10.1.1.5,37,0.030,0.030,0.030,0.000,0.000,0.000
1644350938007363072,2022-02-08-20:08:58,10.1.1.5,36,0.020,0.020,0.020,0.000,0.000,0.000
1644350938107255040,2022-02-08-20:08:58,10.1.1.5,36,0.010,0.010,0.010,0.000,0.000,0.000
1644350938208241920,2022-02-08-20:08:58,10.1.1.5,35,0.000,0.000,0.000,0.000,0.000,0.000
1644350938307060992,2022-02-08-20:08:58,10.1.1.5,34,-0.010,-0.010,-0.010,0.000,0.000,0.000
1644350938407595008,2022-02-08-20:08:58,10.1.1.5,33,-0.020,-0.020,-0.020,0.000,0.000,0.000
1644350938507941888,2022-02-08-20:08:58,10.1.1.5,32,-0.030,-0.030,-0.030,0.000,0.000,0.000
1644350938607036160,2022-02-08-20:08:58,10.1.1.5,31,-0.040,-0.040,-0.040,0.000,0.000,0.000
1644350938707379968,2022-02-08-20:08:58,10.1.1.5,30,-0.050,-0.050,-0.050,0.000,0.000,0.000
1644350938811974144,2022-02-08-20:08:58,10.1.1.5,28,-0.060,-0.060,-0.060,0.000,0.000,0.000
1644350938907470080,2022-02-08-20:08:58,10.1.1.5,26,-0.070,-0.070,-0.070,0.000,0.000,0.000
1644350939012214016,2022-02-08-20:08:59,10.1.1.5,25,-0.080,-0.080,-0.080,0.000,0.000,0.000
1644350939106991104,2022-02-08-20:08:59,10.1.1.5,25,-0.090,-0.090,-0.090,0.000,0.000,0.000
1644350939206875136,2022-02-08-20:08:59,10.1.1.5,21,-0.100,-0.100,-0.100,0.000,0.000,0.000
1644350939307235840,2022-02-08-20:08:59,10.1.1.5,20,-0.090,-0.090,-0.090,0.000,0.000,0.000
1644350939426999040,2022-02-08-20:08:59,10.1.1.5,33,-0.080,-0.080,-0.080,0.000,0.000,0.000
1644350939526850816,2022-02-08-20:08:59,10.1.1.5,33,-0.070,-0.070,-0.070,0.000,0.000,0.000
1644350939627038976,2022-02-08-20:08:59,10.1.1.5,32,-0.060,-0.060,-0.060,0.000,0.000,0.000
1644350939726667008,2022-02-08-20:08:59,10.1.1.5,32,-0.050,-0.050,-0.050,0.000,0.000,0.000
1644350939827873024,2022-02-08-20:08:59,10.1.1.5,30,-0.040,-0.040,-0.040,0.000,0.000,0.000
1644350939927223808,2022-02-08-20:08:59,10.1.1.5,30,-0.030,-0.030,-0.030,0.000,0.000,0.000
1644350940026927872,2022-02-08-20:09:00,10.1.1.5,28,-0.020,-0.020,-0.020,0.000,0.000,0.000
1644350940127059968,2022-02-08-20:09:00,10.1.1.5,26,-0.010,-0.010,-0.010,0.000,0.000,0.000
1644350940226896128,2022-02-08-20:09:00,10.1.1.5,25,0.000,0.000,0.000,0.000,0.000,0.000
1644350940347222016,2022-02-08-20:09:00,10.1.1.5,23,0.010,0.010,0.010,0.000,0.000,0.000
1644350940447086080,2022-02-08-20:09:00,10.1.1.5,21,0.020,0.020,0.020,0.000,0.000,0.000
1644350940546884096,2022-02-08-20:09:00,10.1.1.5,19,0.030,0.030,0.030,0.000,0.000,0.000
1644350940647494144,2022-02-08-20:09:00,10.1.1.5,19,0.039,0.039,0.039,0.000,0.000,0.000
1644350940766725120,2022-02-08-20:09:00,10.1.1.5,38,0.050,0.050,0.050,0.000,0.000,0.000
1644350940866700032,2022-02-08-20:09:00,10.1.1.5,37,0.060,0.060,0.060,0.000,0.000,0.000
1644350940967608832,2022-02-08-20:09:00,10.1.1.5,37,0.070,0.070,0.070,0.000,0.000,0.000
1644350941066850048,2022-02-08-20:09:01,10.1.1.5,36,0.080,0.080,0.080,0.000,0.000,0.000
1644350941167112960,2022-02-08-20:09:01,10.1.1.5,35,0.090,0.090,0.090,0.000,0.000,0.000
1644350941266784000,2022-02-08-20:09:01,10.1.1.5,34,0.100,0.100,0.100,0.000,0.000,0.000
1644350941370882048,2022-02-08-20:09:01,10.1.1.5,32,0.090,0.090,0.090,0.000,0.000,0.000
1644350941467510016,2022-02-08-20:09:01,10.1.1.5,30,0.080,0.080,0.080,0.000,0.000,0.000
1644350941567128064,2022-02-08-20:09:01,10.1.1.5,29,0.070,0.070,0.070,0.000,0.000,0.000
1644350941667656960,2022-02-08-20:09:01,10.1.1.5,28,0.060,0.060,0.060,0.000,0.000,0.000
1644350941768013056,2022-02-08-20:09:01,10.1.1.5,27,0.050,0.050,0.050,0.000,0.000,0.000
1644350941874423040,2022-02-08-20:09:01,10.1.1.5,26,0.040,0.040,0.040,0.000,0.000,0.000
1644350941967386880,2022-02-08-20:09:01,10.1.1.5,24,0.030,0.030,0.030,0.000,0.000,0.000
1644350942066829056,2022-02-08-20:09:02,10.1.1.5,23,0.020,0.020,0.020,0.000,0.000,0.000
1644350942167019008,2022-02-08-20:09:02,10.1.1.5,21,0.010,0.010,0.010,0.000,0.000,0.000
1644350942267354112,2022-02-08-20:09:02,10.1.1.5,20,0.000,0.000,0.000,0.000,0.000,0.000
1644350942367790848,2022-02-08-20:09:02,10.1.1.5,19,-0.010,-0.010,-0.010,0.000,0.000,0.000
1644350942467860992,2022-02-08-20:09:02,10.1.1.5,19,-0.020,-0.020,-0.020,0.000,0.000,0.000
1644350942587304192,2022-02-08-20:09:02,10.1.1.5,37,-0.030,-0.030,-0.030,0.000,0.000,0.000
1644350942687694080,2022-02-08-20:09:02,10.1.1.5,35,-0.040,-0.040,-0.040,0.000,0.000,0.000
1644350943699585792,2022-02-08-20:09:02,10.1.1.5,34,-0.050,-0.050,-0.050,0.000,0.000,0.000
1644350943766972928,2022-02-08-20:09:03,10.1.1.5,37,-0.060,-0.060,-0.060,0.000,0.000,0.000
1644350943867203840,2022-02-08-20:09:03,10.1.1.5,36,-0.070,-0.070,-0.070,0.000,0.000,0.000
1644350943967377920,2022-02-08-20:09:03,10.1.1.5,34,-0.080,-0.080,-0.080,0.000,0.000,0.000
1644350944067276032,2022-02-08-20:09:04,10.1.1.5,34,-0.090,-0.090,-0.090,0.000,0.000,0.000
1644350944167373824,2022-02-08-20:09:04,10.1.1.5,33,-0.100,-0.100,-0.100,0.000,0.000,0.000
1644350944267156992,2022-02-08-20:09:04,10.1.1.5,33,-0.090,-0.090,-0.090,0.000,0.000,0.000
1644350944367212032,2022-02-08-20:09:04,10.1.1.5,32,-0.080,-0.080,-0.080,0.000,0.000,0.000
1644350944467169024,2022-02-08-20:09:04,10.1.1.5,32,-0.070,-0.070,-0.070,0.000,0.000,0.000
1644350944567301888,2022-02-08-20:09:04,10.1.1.5,30,-0.060,-0.060,-0.060,0.000,0.000,0.000
1644350944687865088,2022-02-08-20:09:04,10.1.1.5,29,-0.050,-0.050,-0.050,0.000,0.000,0.000
1644350944806739968,2022-02-08-20:09:04,10.1.1.5,38,-0.040,-0.040,-0.040,0.000,0.000,0.000
1644350944907442176,2022-02-08-20:09:04,10.1.1.5,37,-0.030,-0.030,-0.030,0.000,0.000,0.000
1644350945007347968,2022-02-08-20:09:05,10.1.1.5,35,-0.020,-0.020,-0.020,0.000,0.000,0.000
1644350945106903040,2022-02-08-20:09:05,10.1.1.5,34,-0.010,-0.010,-0.010,0.000,0.000,0.000
1644350945207039232,2022-02-08-20:09:05,10.1.1.5,33,0.000,0.000,0.000,0.000,0.000,0.000
1644350945308006144,2022-02-08-20:09:05,10.1.1.5,33,0.010,0.010,0.010,0.000,0.000,0.000
1644350945408155904,2022-02-08-20:09:05,10.1.1.5,28,0.020,0.020,0.020,0.000,0.000,0.000
1644350945507981056,2022-02-08-20:09:05,10.1.1.5,24,0.030,0.030,0.030,0.000,0.000,0.000
1644350945627884032,2022-02-08-20:09:05,10.1.1.5,32,0.040,0.040,0.040,0.000,0.000,0.000
1644350945729219840,2022-02-08-20:09:05,10.1.1.5,30,0.050,0.050,0.050,0.000,0.000,0.000
1644350945829633024,2022-02-08-20:09:05,10.1.1.5,30,0.060,0.060,0.060,0.000,0.000,0.000
1644350945926951936,2022-02-08-20:09:05,10.1.1.5,28,0.070,0.070,0.070,0.000,0.000,0.000
1644350946027201024,2022-02-08-20:09:06,10.1.1.5,27,0.080,0.080,0.080,0.000,0.000,0.000
1644350946127614976,2022-02-08-20:09:06,10.1.1.5,24,0.090,0.090,0.090,0.000,0.000,0.000
1644350946227260160,2022-02-08-20:09:06,10.1.1.5,23,0.100,0.100,0.100,0.000,0.000,0.000
1644350946327598080,2022-02-08-20:09:06,10.1.1.5,22,0.090,0.090,0.090,0.000,0.000,0.000
1644350946426768896,2022-02-08-20:09:06,10.1.1.5,21,0.080,0.080,0.080,0.000,0.000,0.000
1644350946527152896,2022-02-08-20:09:06,10.1.1.5,21,0.070,0.070,0.070,0.000,0.000,0.000
1644350946626771968,2022-02-08-20:09:06,10.1.1.5,20,0.060,0.060,0.060,0.000,0.000,0.000
1644350946726896128,2022-02-08-20:09:06,10.1.1.5,19,0.051,0.051,0.051,0.000,0.000,0.000
1644350946847341056,2022-02-08-20:09:06,10.1.1.5,39,0.040,0.040,0.040,0.000,0.000,0.000
1644350946947376896,2022-02-08-20:09:06,10.1.1.5,38,0.030,0.030,0.030,0.000,0.000,0.000
1644350947048685056,2022-02-08-20:09:07,10.1.1.5,38,0.020,0.020,0.020,0.000,0.000,0.000
1644350947147303936,2022-02-08-20:09:07,10.1.1.5,37,0.010,0.010,0.010,0.000,0.000,0.000
1644350947247212032,2022-02-08-20:09:07,10.1.1.5,37,0.000,0.000,0.000,0.000,0.000,0.000
1644350947347616000,2022-02-08-20:09:07,10.1.1.5,37,-0.010,-0.010,-0.010,0.000,0.000,0.000
1644350947447537920,2022-02-08-20:09:07,10.1.1.5,36,-0.020,-0.020,-0.020,0.000,0.000,0.000
1644350947547117056,2022-02-08-20:09:07,10.1.1.5,35,-0.030,-0.030,-0.030,0.000,0.000,0.000
1644350947647008000,2022-02-08-20:09:07,10.1.1.5,35,-0.040,-0.040,-0.040,0.000,0.000,0.000
1644350947747076096,2022-02-08-20:09:07,10.1.1.5,34,-0.050,-0.050,-0.050,0.000,0.000,0.000
1644350947847351040,2022-02-08-20:09:07,10.1.1.5,34,-0.060,-0.060,-0.060,0.000,0.000,0.000
1644350947947119104,2022-02-08-20:09:07,10.1.1.5,33,-0.070,-0.070,-0.070,0.000,0.000,0.000
1644350948047337984,2022-02-08-20:09:08,10.1.1.5,33,-0.080,-0.080,-0.080,0.000,0.000,0.000
1644350948147238912,2022-02-08-20:09:08,10.1.1.5,32,-0.090,-0.090,-0.090,0.000,0.000,0.000
1644350948247257088,2022-02-08-20:09:08,10.1.1.5,31,-0.100,-0.100,-0.100,0.000,0.000,0.000
1644350948347047168,2022-02-08-20:09:08,10.1.1.5,31,-0.090,-0.090,-0.090,0.000,0.000,0.000
1644350948447105792,2022-02-08-20:09:08,10.1.1.5,29,-0.080,-0.080,-0.080,0.000,0.000,0.000
1644350948547521024,2022-02-08-20:09:08,10.1.1.5,27,-0.070,-0.070,-0.070,0.000,0.000,0.000
1644350948800915968,2022-02-08-20:09:08,10.1.1.5,25,-0.060,-0.060,-0.060,0.000,0.000,0.000
1644350948848134912,2022-02-08-20:09:08,10.1.1.5,27,-0.050,-0.050,-0.050,0.000,0.000,0.000
1644350948948041984,2022-02-08-20:09:08,10.1.1.5,26,-0.040,-0.040,-0.040,0.000,0.000,0.000
1644350949067645184,2022-02-08-20:09:09,10.1.1.5,32,-0.030,-0.030,-0.030,0.000,0.000,0.000
1644350949167495936,2022-02-08-20:09:09,10.1.1.5,32,-0.020,-0.020,-0.020,0.000,0.000,0.000
1644350949267389952,2022-02-08-20:09:09,10.1.1.5,31,-0.010,-0.010,-0.010,0.000,0.000,0.000
1644350949366967808,2022-02-08-20:09:09,10.1.1.5,30,0.000,0.000,0.000,0.000,0.000,0.000
1644350949467667968,2022-02-08-20:09:09,10.1.1.5,30,0.010,0.010,0.010,0.000,0.000,0.000
1644350949567104000,2022-02-08-20:09:09,10.1.1.5,29,0.020,0.020,0.020,0.000,0.000,0.000
1644350949667609856,2022-02-08-20:09:09,10.1.1.5,28,0.030,0.030,0.030,0.000,0.000,0.000
1644350949770932992,2022-02-08-20:09:09,10.1.1.5,27,0.040,0.040,0.040,0.000,0.000,0.000
1644350949867175936,2022-02-08-20:09:09,10.1.1.5,25,0.050,0.050,0.050,0.000,0.000,0.000
1644350949967742976,2022-02-08-20:09:09,10.1.1.5,24,0.060,0.060,0.060,0.000,0.000,0.000
1644350950067848960,2022-02-08-20:09:10,10.1.1.5,23,0.070,0.070,0.070,0.000,0.000,0.000
1644350950168409088,2022-02-08-20:09:10,10.1.1.5,22,0.080,0.080,0.080,0.000,0.000,0.000
1644350950268152832,2022-02-08-20:09:10,10.1.1.5,21,0.090,0.090,0.090,0.000,0.000,0.000
1644350950367069952,2022-02-08-20:09:10,10.1.1.5,20,0.100,0.100,0.100,0.000,0.000,0.000
1644350950467318016,2022-02-08-20:09:10,10.1.1.5,19,0.090,0.090,0.090,0.000,0.000,0.000
1644350950587383040,2022-02-08-20:09:10,10.1.1.5,38,0.080,0.080,0.080,0.000,0.000,0.000
1644350950687486976,2022-02-08-20:09:10,10.1.1.5,37,0.070,0.070,0.070,0.000,0.000,0.000
1644350950787548160,2022-02-08-20:09:10,10.1.1.5,36,0.060,0.060,0.060,0.000,0.000,0.000
1644350950888057856,2022-02-08-20:09:10,10.1.1.5,35,0.050,0.050,0.050,0.000,0.000,0.000
1644350950987644928,2022-02-08-20:09:10,10.1.1.5,33,0.040,0.040,0.040,0.000,0.000,0.000
1644350951087322880,2022-02-08-20:09:11,10.1.1.5,33,0.030,0.030,0.030,0.000,0.000,0.000
1644350951187419904,2022-02-08-20:09:11,10.1.1.5,32,0.020,0.020,0.020,0.000,0.000,0.000
1644350951289510912,2022-02-08-20:09:11,10.1.1.5,31,0.010,0.010,0.010,0.000,0.000,0.000
1644350951387463168,2022-02-08-20:09:11,10.1.1.5,28,0.000,0.000,0.000,0.000,0.000,0.000
1644350951487153152,2022-02-08-20:09:11,10.1.1.5,28,-0.010,-0.010,-0.010,0.000,0.000,0.000
1644350951587551232,2022-02-08-20:09:11,10.1.1.5,27,-0.020,-0.020,-0.020,0.000,0.000,0.000
1644350951687838976,2022-02-08-20:09:11,10.1.1.5,27,-0.030,-0.030,-0.030,0.000,0.000,0.000
1644350951787250944,2022-02-08-20:09:11,10.1.1.5,26,-0.040,-0.040,-0.040,0.000,0.000,0.000
1644350951887342080,2022-02-08-20:09:11,10.1.1.5,25,-0.050,-0.050,-0.050,0.000,0.000,0.000
1644350951987070976,2022-02-08-20:09:11,10.1.1.5,24,-0.060,-0.060,-0.060,0.000,0.000,0.000
1644350952087256832,2022-02-08-20:09:12,10.1.1.5,24,-0.070,-0.070,-0.070,0.000,0.000,0.000
1644350952187043840,2022-02-08-20:09:12,10.1.1.5,23,-0.080,-0.080,-0.080,0.000,0.000,0.000
1644350952287250944,2022-02-08-20:09:12,10.1.1.5,22,-0.090,-0.090,-0.090,0.000,0.000,0.000
1644350952387480064,2022-02-08-20:09:12,10.1.1.5,21,-0.100,-0.100,-0.100,0.000,0.000,0.000
1644350952487760128,2022-02-08-20:09:12,10.1.1.5,21,-0.090,-0.090,-0.090,0.000,0.000,0.000
1644350952587070976,2022-02-08-20:09:12,10.1.1.5,20,-0.080,-0.080,-0.080,0.000,0.000,0.000
1644350952687252992,2022-02-08-20:09:12,10.1.1.5,19,-0.070,-0.070,-0.070,0.000,0.000,0.000
1644350952807593216,2022-02-08-20:09:12,10.1.1.5,38,-0.060,-0.060,-0.060,0.000,0.000,0.000
1644350952907792128,2022-02-08-20:09:12,10.1.1.5,37,-0.050,-0.050,-0.050,0.000,0.000,0.000
1644350953007611136,2022-02-08-20:09:13,10.1.1.5,36,-0.040,-0.040,-0.040,0.000,0.000,0.000
1644350953107664128,2022-02-08-20:09:13,10.1.1.5,36,-0.030,-0.030,-0.030,0.000,0.000,0.000
1644350953207552000,2022-02-08-20:09:13,10.1.1.5,34,-0.020,-0.020,-0.020,0.000,0.000,0.000
1644350953307468800,2022-02-08-20:09:13,10.1.1.5,33,-0.010,-0.010,-0.010,0.000,0.000,0.000
1644350953407346944,2022-02-08-20:09:13,10.1.1.5,32,0.000,0.000,0.000,0.000,0.000,0.000
1644350953507600128,2022-02-08-20:09:13,10.1.1.5,31,0.010,0.010,0.010,0.000,0.000,0.000
1644350953607187968,2022-02-08-20:09:13,10.1.1.5,30,0.020,0.020,0.020,0.000,0.000,0.000
1644350953707410176,2022-02-08-20:09:13,10.1.1.5,29,0.030,0.030,0.030,0.000,0.000,0.000
1644350953807218944,2022-02-08-20:09:13,10.1.1.5,28,0.040,0.040,0.040,0.000,0.000,0.000
1644350953907757056,2022-02-08-20:09:13,10.1.1.5,27,0.050,0.050,0.050,0.000,0.000,0.000
1644350954006964992,2022-02-08-20:09:14,10.1.1.5,27,0.060,0.060,0.060,0.000,0.000,0.000
1644350954107063040,2022-02-08-20:09:14,10.1.1.5,26,0.070,0.070,0.070,0.000,0.000,0.000
1644350954207411968,2022-02-08-20:09:14,10.1.1.5,25,0.080,0.080,0.080,0.000,0.000,0.000
1644350954307771904,2022-02-08-20:09:14,10.1.1.5,24,0.090,0.090,0.090,0.000,0.000,0.000
1644350954407361024,2022-02-08-20:09:14,10.1.1.5,24,0.100,0.100,0.100,0.000,0.000,0.000
1644350954507164928,2022-02-08-20:09:14,10.1.1.5,23,0.090,0.090,0.090,0.000,0.000,0.000
1644350954607695104,2022-02-08-20:09:14,10.1.1.5,22,0.080,0.080,0.080,0.000,0.000,0.000
1644350954727802112,2022-02-08-20:09:14,10.1.1.5,32,0.070,0.070,0.070,0.000,0.000,0.000
1644350954827058944,2022-02-08-20:09:14,10.1.1.5,30,0.060,0.060,0.060,0.000,0.000,0.000
1644350954927400192,2022-02-08-20:09:14,10.1.1.5,29,0.050,0.050,0.050,0.000,0.000,0.000
1644350955026962944,2022-02-08-20:09:15,10.1.1.5,28,0.040,0.040,0.040,0.000,0.000,0.000
1644350955127379968,2022-02-08-20:09:15,10.1.1.5,28,0.030,0.030,0.030,0.000,0.000,0.000
1644350955227628032,2022-02-08-20:09:15,10.1.1.5,28,0.020,0.020,0.020,0.000,0.000,0.000
1644350955327517952,2022-02-08-20:09:15,10.1.1.5,27,0.010,0.010,0.010,0.000,0.000,0.000
1644350955427048960,2022-02-08-20:09:15,10.1.1.5,27,0.000,0.000,0.000,0.000,0.000,0.000
1644350955527673088,2022-02-08-20:09:15,10.1.1.5,25,-0.010,-0.010,-0.010,0.000,0.000,0.000
1644350955627657984,2022-02-08-20:09:15,10.1.1.5,24,-0.020,-0.020,-0.020,0.000,0.000,0.000
1644350955727459072,2022-02-08-20:09:15,10.1.1.5,23,-0.030,-0.030,-0.030,0.000,0.000,0.000
1644350955827433984,2022-02-08-20:09:15,10.1.1.5,22,-0.040,-0.040,-0.040,0.000,0.000,0.000
1644350955927907840,2022-02-08-20:09:15,10.1.1.5,22,-0.050,-0.050,-0.050,0.000,0.000,0.000
1644350956027795968,2022-02-08-20:09:16,10.1.1.5,21,-0.060,-0.060,-0.060,0.000,0.000,0.000
1644350956127793920,2022-02-08-20:09:16,10.1.1.5,21,-0.070,-0.070,-0.070,0.000,0.000,0.000
1644350956227731968,2022-02-08-20:09:16,10.1.1.5,20,-0.080,-0.080,-0.080,0.000,0.000,0.000
1644350956327363840,2022-02-08-20:09:16,10.1.1.5,19,-0.089,-0.089,-0.089,0.000,0.000,0.000
1644350956447820800,2022-02-08-20:09:16,10.1.1.5,39,-0.100,-0.100,-0.100,0.000,0.000,0.000
1644350956547177984,2022-02-08-20:09:16,10.1.1.5,38,-0.090,-0.090,-0.090,0.000,0.000,0.000
1644350956647397120,2022-02-08-20:09:16,10.1.1.5,37,-0.080,-0.080,-0.080,0.000,0.000,0.000
1644350956747282944,2022-02-08-20:09:16,10.1.1.5,37,-0.070,-0.070,-0.070,0.000,0.000,0.000
1644350956847886080,2022-02-08-20:09:16,10.1.1.5,37,-0.060,-0.060,-0.060,0.000,0.000,0.000
1644350956947282944,2022-02-08-20:09:16,10.1.1.5,36,-0.050,-0.050,-0.050,0.000,0.000,0.000
1644350957052225024,2022-02-08-20:09:17,10.1.1.5,36,-0.040,-0.040,-0.040,0.000,0.000,0.000
1644350957147531008,2022-02-08-20:09:17,10.1.1.5,35,-0.030,-0.030,-0.030,0.000,0.000,0.000
1644350957263854080,2022-02-08-20:09:17,10.1.1.5,33,-0.020,-0.020,-0.020,0.000,0.000,0.000
1644350957360593152,2022-02-08-20:09:17,10.1.1.5,30,-0.010,-0.010,-0.010,0.000,0.000,0.000
1644350957447727872,2022-02-08-20:09:17,10.1.1.5,27,0.000,0.000,0.000,0.000,0.000,0.000
1644350957547406848,2022-02-08-20:09:17,10.1.1.5,26,0.010,0.010,0.010,0.000,0.000,0.000
1644350957649646080,2022-02-08-20:09:17,10.1.1.5,25,0.020,0.020,0.020,0.000,0.000,0.000
1644350957767467008,2022-02-08-20:09:17,10.1.1.5,33,0.030,0.030,0.030,0.000,0.000,0.000
1644350957867237120,2022-02-08-20:09:17,10.1.1.5,32,0.040,0.040,0.040,0.000,0.000,0.000
1644350957968854016,2022-02-08-20:09:17,10.1.1.5,32,0.050,0.050,0.050,0.000,0.000,0.000
1644350958167288064,2022-02-08-20:09:18,10.1.1.5,20,0.070,0.070,0.070,0.000,0.000,0.000
1644350958287497984,2022-02-08-20:09:18,10.1.1.5,28,0.080,0.080,0.080,0.000,0.000,0.000
1644350958387171072,2022-02-08-20:09:18,10.1.1.5,27,0.090,0.090,0.090,0.000,0.000,0.000
1644350958488889856,2022-02-08-20:09:18,10.1.1.5,27,0.100,0.100,0.100,0.000,0.000,0.000
1644350958588592896,2022-02-08-20:09:18,10.1.1.5,26,0.090,0.090,0.090,0.000,0.000,0.000
1644350958690212864,2022-02-08-20:09:18,10.1.1.5,26,0.080,0.080,0.080,0.000,0.000,0.000
1644350958789182976,2022-02-08-20:09:18,10.1.1.5,25,0.070,0.070,0.070,0.000,0.000,0.000
1644350958887814912,2022-02-08-20:09:18,10.1.1.5,23,0.060,0.060,0.060,0.000,0.000,0.000
1644350958989305856,2022-02-08-20:09:18,10.1.1.5,20,0.050,0.050,0.050,0.000,0.000,0.000
1644350959108325888,2022-02-08-20:09:19,10.1.1.5,37,0.040,0.040,0.040,0.000,0.000,0.000
1644350959208292096,2022-02-08-20:09:19,10.1.1.5,36,0.030,0.030,0.030,0.000,0.000,0.000
1644350959309112064,2022-02-08-20:09:19,10.1.1.5,36,0.020,0.020,0.020,0.000,0.000,0.000
1644350959408193024,2022-02-08-20:09:19,10.1.1.5,35,0.010,0.010,0.010,0.000,0.000,0.000
1644350959507801088,2022-02-08-20:09:19,10.1.1.5,32,0.000,0.000,0.000,0.000,0.000,0.000
1644350959607937024,2022-02-08-20:09:19,10.1.1.5,32,-0.010,-0.010,-0.010,0.000,0.000,0.000
1644350959708378112,2022-02-08-20:09:19,10.1.1.5,31,-0.020,-0.020,-0.020,0.000,0.000,0.000
1644350959810174976,2022-02-08-20:09:19,10.1.1.5,30,-0.030,-0.030,-0.030,0.000,0.000,0.000
1644350959908291072,2022-02-08-20:09:19,10.1.1.5,29,-0.040,-0.040,-0.040,0.000,0.000,0.000
1644350960008796928,2022-02-08-20:09:20,10.1.1.5,28,-0.050,-0.050,-0.050,0.000,0.000,0.000
1644350960108380928,2022-02-08-20:09:20,10.1.1.5,28,-0.060,-0.060,-0.060,0.000,0.000,0.000
1644350960208327168,2022-02-08-20:09:20,10.1.1.5,27,-0.070,-0.070,-0.070,0.000,0.000,0.000
1644350960307966976,2022-02-08-20:09:20,10.1.1.5,27,-0.080,-0.080,-0.080,0.000,0.000,0.000
1644350960410371072,2022-02-08-20:09:20,10.1.1.5,26,-0.090,-0.090,-0.090,0.000,0.000,0.000
1644350960508414976,2022-02-08-20:09:20,10.1.1.5,21,-0.100,-0.100,-0.100,0.000,0.000,0.000
1644350960608143104,2022-02-08-20:09:20,10.1.1.5,20,-0.090,-0.090,-0.090,0.000,0.000,0.000
1644350960707645952,2022-02-08-20:09:20,10.1.1.5,19,-0.080,-0.080,-0.080,0.000,0.000,0.000
1644350960807607808,2022-02-08-20:09:20,10.1.1.5,19,-0.071,-0.071,-0.071,0.000,0.000,0.000
1644350960927411968,2022-02-08-20:09:20,10.1.1.5,38,-0.060,-0.060,-0.060,0.000,0.000,0.000
1644350961028160000,2022-02-08-20:09:21,10.1.1.5,37,-0.050,-0.050,-0.050,0.000,0.000,0.000
1644350961127446784,2022-02-08-20:09:21,10.1.1.5,37,-0.040,-0.040,-0.040,0.000,0.000,0.000
1644350961227472128,2022-02-08-20:09:21,10.1.1.5,37,-0.030,-0.030,-0.030,0.000,0.000,0.000
1644350961327435008,2022-02-08-20:09:21,10.1.1.5,36,-0.020,-0.020,-0.020,0.000,0.000,0.000
1644350961427475968,2022-02-08-20:09:21,10.1.1.5,36,-0.010,-0.010,-0.010,0.000,0.000,0.000
1644350961527568128,2022-02-08-20:09:21,10.1.1.5,33,0.000,0.000,0.000,0.000,0.000,0.000
1644350961627866112,2022-02-08-20:09:21,10.1.1.5,32,0.010,0.010,0.010,0.000,0.000,0.000
1644350961727246080,2022-02-08-20:09:21,10.1.1.5,32,0.020,0.020,0.020,0.000,0.000,0.000
1644350961827443968,2022-02-08-20:09:21,10.1.1.5,32,0.030,0.030,0.030,0.000,0.000,0.000
1644350961927301888,2022-02-08-20:09:21,10.1.1.5,31,0.040,0.040,0.040,0.000,0.000,0.000
1644350962028110080,2022-02-08-20:09:22,10.1.1.5,31,0.050,0.050,0.050,0.000,0.000,0.000
1644350962128057856,2022-02-08-20:09:22,10.1.1.5,30,0.060,0.060,0.060,0.000,0.000,0.000
1644350962227379968,2022-02-08-20:09:22,10.1.1.5,30,0.070,0.070,0.070,0.000,0.000,0.000
1644350962328269056,2022-02-08-20:09:22,10.1.1.5,29,0.080,0.080,0.080,0.000,0.000,0.000
1644350962427539200,2022-02-08-20:09:22,10.1.1.5,28,0.090,0.090,0.090,0.000,0.000,0.000
1644350962527182080,2022-02-08-20:09:22,10.1.1.5,27,0.100,0.100,0.100,0.000,0.000,0.000
1644350962627592960,2022-02-08-20:09:22,10.1.1.5,27,0.090,0.090,0.090,0.000,0.000,0.000
1644350962727289856,2022-02-08-20:09:22,10.1.1.5,25,0.080,0.080,0.080,0.000,0.000,0.000
1644350962827756800,2022-02-08-20:09:22,10.1.1.5,24,0.070,0.070,0.070,0.000,0.000,0.000
1644350962927526912,2022-02-08-20:09:22,10.1.1.5,21,0.060,0.060,0.060,0.000,0.000,0.000
1644350963027867136,2022-02-08-20:09:23,10.1.1.5,20,0.050,0.050,0.050,0.000,0.000,0.000
1644350963128130816,2022-02-08-20:09:23,10.1.1.5,20,0.040,0.040,0.040,0.000,0.000,0.000
1644350963247642880,2022-02-08-20:09:23,10.1.1.5,35,0.030,0.030,0.030,0.000,0.000,0.000
1644350963347502080,2022-02-08-20:09:23,10.1.1.5,34,0.020,0.020,0.020,0.000,0.000,0.000
1644350963447316992,2022-02-08-20:09:23,10.1.1.5,34,0.010,0.010,0.010,0.000,0.000,0.000
1644350963547906048,2022-02-08-20:09:23,10.1.1.5,33,0.000,0.000,0.000,0.000,0.000,0.000
1644350963647496960,2022-02-08-20:09:23,10.1.1.5,32,-0.010,-0.010,-0.010,0.000,0.000,0.000
1644350963747361792,2022-02-08-20:09:23,10.1.1.5,32,-0.020,-0.020,-0.020,0.000,0.000,0.000
1644350963847360000,2022-02-08-20:09:23,10.1.1.5,31,-0.030,-0.030,-0.030,0.000,0.000,0.000
1644350963947675904,2022-02-08-20:09:23,10.1.1.5,31,-0.040,-0.040,-0.040,0.000,0.000,0.000
1644350964047665152,2022-02-08-20:09:24,10.1.1.5,30,-0.050,-0.050,-0.050,0.000,0.000,0.000
1644350964147796992,2022-02-08-20:09:24,10.1.1.5,30,-0.060,-0.060,-0.060,0.000,0.000,0.000
1644350964247340800,2022-02-08-20:09:24,10.1.1.5,29,-0.070,-0.070,-0.070,0.000,0.000,0.000
1644350964347237120,2022-02-08-20:09:24,10.1.1.5,29,-0.080,-0.080,-0.080,0.000,0.000,0.000
1644350964447501824,2022-02-08-20:09:24,10.1.1.5,29,-0.090,-0.090,-0.090,0.000,0.000,0.000
1644350964548172032,2022-02-08-20:09:24,10.1.1.5,28,-0.100,-0.100,-0.100,0.000,0.000,0.000
1644350964647617024,2022-02-08-20:09:24,10.1.1.5,28,-0.090,-0.090,-0.090,0.000,0.000,0.000
1644350964747881984,2022-02-08-20:09:24,10.1.1.5,27,-0.080,-0.080,-0.080,0.000,0.000,0.000
1644350964847644928,2022-02-08-20:09:24,10.1.1.5,27,-0.070,-0.070,-0.070,0.000,0.000,0.000
1644350964947752960,2022-02-08-20:09:24,10.1.1.5,26,-0.060,-0.060,-0.060,0.000,0.000,0.000
1644350965047166976,2022-02-08-20:09:25,10.1.1.5,26,-0.050,-0.050,-0.050,0.000,0.000,0.000
1644350965147859200,2022-02-08-20:09:25,10.1.1.5,25,-0.040,-0.040,-0.040,0.000,0.000,0.000
1644350965247303936,2022-02-08-20:09:25,10.1.1.5,24,-0.030,-0.030,-0.030,0.000,0.000,0.000
1644350965347695104,2022-02-08-20:09:25,10.1.1.5,24,-0.020,-0.020,-0.020,0.000,0.000,0.000
1644350965447751936,2022-02-08-20:09:25,10.1.1.5,23,-0.010,-0.010,-0.010,0.000,0.000,0.000
1644350965547662848,2022-02-08-20:09:25,10.1.1.5,22,0.000,0.000,0.000,0.000,0.000,0.000
1644350965647597056,2022-02-08-20:09:25,10.1.1.5,22,0.010,0.010,0.010,0.000,0.000,0.000
1644350965747410176,2022-02-08-20:09:25,10.1.1.5,21,0.020,0.020,0.020,0.000,0.000,0.000
1644350965848547840,2022-02-08-20:09:25,10.1.1.5,21,0.030,0.030,0.030,0.000,0.000,0.000
1644350965948086016,2022-02-08-20:09:25,10.1.1.5,20,0.040,0.040,0.040,0.000,0.000,0.000
1644350966047972864,2022-02-08-20:09:26,10.1.1.5,19,0.049,0.049,0.049,0.000,0.000,0.000
1644350966167463936,2022-02-08-20:09:26,10.1.1.5,38,0.060,0.060,0.060,0.000,0.000,0.000
1644350966268420096,2022-02-08-20:09:26,10.1.1.5,38,0.070,0.070,0.070,0.000,0.000,0.000
1644350966367876096,2022-02-08-20:09:26,10.1.1.5,38,0.080,0.080,0.080,0.000,0.000,0.000
1644350966467709952,2022-02-08-20:09:26,10.1.1.5,37,0.090,0.090,0.090,0.000,0.000,0.000
1644350966567650048,2022-02-08-20:09:26,10.1.1.5,37,0.100,0.100,0.100,0.000,0.000,0.000
1644350966667616000,2022-02-08-20:09:26,10.1.1.5,36,0.090,0.090,0.090,0.000,0.000,0.000
1644350966768783104,2022-02-08-20:09:26,10.1.1.5,36,0.080,0.080,0.080,0.000,0.000,0.000
1644350966867346944,2022-02-08-20:09:26,10.1.1.5,35,0.070,0.070,0.070,0.000,0.000,0.000
1644350966967158016,2022-02-08-20:09:26,10.1.1.5,35,0.060,0.060,0.060,0.000,0.000,0.000
1644350967067656960,2022-02-08-20:09:27,10.1.1.5,33,0.050,0.050,0.050,0.000,0.000,0.000
1644350967167995904,2022-02-08-20:09:27,10.1.1.5,33,0.040,0.040,0.040,0.000,0.000,0.000
1644350967267614976,2022-02-08-20:09:27,10.1.1.5,32,0.030,0.030,0.030,0.000,0.000,0.000
1644350967368606976,2022-02-08-20:09:27,10.1.1.5,32,0.020,0.020,0.020,0.000,0.000,0.000
1644350967468139008,2022-02-08-20:09:27,10.1.1.5,31,0.010,0.010,0.010,0.000,0.000,0.000
1644350967567714816,2022-02-08-20:09:27,10.1.1.5,31,0.000,0.000,0.000,0.000,0.000,0.000
1644350967667953920,2022-02-08-20:09:27,10.1.1.5,31,-0.010,-0.010,-0.010,0.000,0.000,0.000
1644350967767971072,2022-02-08-20:09:27,10.1.1.5,29,-0.020,-0.020,-0.020,0.000,0.000,0.000
1644350967867376128,2022-02-08-20:09:27,10.1.1.5,28,-0.030,-0.030,-0.030,0.000,0.000,0.000
1644350967967995904,2022-02-08-20:09:27,10.1.1.5,28,-0.040,-0.040,-0.040,0.000,0.000,0.000
1644350968067297024,2022-02-08-20:09:28,10.1.1.5,27,-0.050,-0.050,-0.050,0.000,0.000,0.000
1644350968167494912,2022-02-08-20:09:28,10.1.1.5,27,-0.060,-0.060,-0.060,0.000,0.000,0.000
1644350968267932928,2022-02-08-20:09:28,10.1.1.5,26,-0.070,-0.070,-0.070,0.000,0.000,0.000
1644350968367535104,2022-02-08-20:09:28,10.1.1.5,24,-0.080,-0.080,-0.080,0.000,0.000,0.000
1644350968468058112,2022-02-08-20:09:28,10.1.1.5,24,-0.090,-0.090,-0.090,0.000,0.000,0.000
1644350968567837952,2022-02-08-20:09:28,10.1.1.5,23,-0.100,-0.100,-0.100,0.000,0.000,0.000
1644350968667732992,2022-02-08-20:09:28,10.1.1.5,22,-0.090,-0.090,-0.090,0.000,0.000,0.000
1644350968767666944,2022-02-08-20:09:28,10.1.1.5,22,-0.080,-0.080,-0.080,0.000,0.000,0.000
1644350968868092928,2022-02-08-20:09:28,10.1.1.5,21,-0.070,-0.070,-0.070,0.000,0.000,0.000
1644350968968175872,2022-02-08-20:09:28,10.1.1.5,20,-0.060,-0.060,-0.060,0.000,0.000,0.000
1644350969087582976,2022-02-08-20:09:29,10.1.1.5,37,-0.050,-0.050,-0.050,0.000,0.000,0.000
1644350969187782912,2022-02-08-20:09:29,10.1.1.5,36,-0.040,-0.040,-0.040,0.000,0.000,0.000
1644350969287337984,2022-02-08-20:09:29,10.1.1.5,36,-0.030,-0.030,-0.030,0.000,0.000,0.000
1644350969388102912,2022-02-08-20:09:29,10.1.1.5,35,-0.020,-0.020,-0.020,0.000,0.000,0.000
1644350969487456000,2022-02-08-20:09:29,10.1.1.5,32,-0.010,-0.010,-0.010,0.000,0.000,0.000
1644350969587790848,2022-02-08-20:09:29,10.1.1.5,32,0.000,0.000,0.000,0.000,0.000,0.000
1644350969687993088,2022-02-08-20:09:29,10.1.1.5,31,0.010,0.010,0.010,0.000,0.000,0.000
1644350969787331072,2022-02-08-20:09:29,10.1.1.5,30,0.020,0.020,0.020,0.000,0.000,0.000
1644350969887259904,2022-02-08-20:09:29,10.1.1.5,30,0.030,0.030,0.030,0.000,0.000,0.000
1644350969987879936,2022-02-08-20:09:29,10.1.1.5,29,0.040,0.040,0.040,0.000,0.000,0.000
1644350970087599872,2022-02-08-20:09:30,10.1.1.5,29,0.050,0.050,0.050,0.000,0.000,0.000
1644350970187843072,2022-02-08-20:09:30,10.1.1.5,27,0.060,0.060,0.060,0.000,0.000,0.000
1644350970288075008,2022-02-08-20:09:30,10.1.1.5,27,0.070,0.070,0.070,0.000,0.000,0.000
1644350970388014080,2022-02-08-20:09:30,10.1.1.5,26,0.080,0.080,0.080,0.000,0.000,0.000
1644350970487894016,2022-02-08-20:09:30,10.1.1.5,24,0.090,0.090,0.090,0.000,0.000,0.000
1644350970587870976,2022-02-08-20:09:30,10.1.1.5,24,0.100,0.100,0.100,0.000,0.000,0.000
1644350970688672000,2022-02-08-20:09:30,10.1.1.5,23,0.090,0.090,0.090,0.000,0.000,0.000
1644350970787874816,2022-02-08-20:09:30,10.1.1.5,21,0.080,0.080,0.080,0.000,0.000,0.000
1644350970887661056,2022-02-08-20:09:30,10.1.1.5,21,0.070,0.070,0.070,0.000,0.000,0.000
1644350970988128000,2022-02-08-20:09:30,10.1.1.5,20,0.060,0.060,0.060,0.000,0.000,0.000
1644350971107852032,2022-02-08-20:09:31,10.1.1.5,38,0.050,0.050,0.050,0.000,0.000,0.000
1644350971207537920,2022-02-08-20:09:31,10.1.1.5,37,0.040,0.040,0.040,0.000,0.000,0.000
1644350971308300032,2022-02-08-20:09:31,10.1.1.5,37,0.030,0.030,0.030,0.000,0.000,0.000
1644350971407702016,2022-02-08-20:09:31,10.1.1.5,36,0.020,0.020,0.020,0.000,0.000,0.000
1644350971507406848,2022-02-08-20:09:31,10.1.1.5,36,0.010,0.010,0.010,0.000,0.000,0.000
1644350971607444992,2022-02-08-20:09:31,10.1.1.5,34,0.000,0.000,0.000,0.000,0.000,0.000
1644350971707736064,2022-02-08-20:09:31,10.1.1.5,33,-0.010,-0.010,-0.010,0.000,0.000,0.000
1644350971807558912,2022-02-08-20:09:31,10.1.1.5,33,-0.020,-0.020,-0.020,0.000,0.000,0.000
1644350971907663104,2022-02-08-20:09:31,10.1.1.5,32,-0.030,-0.030,-0.030,0.000,0.000,0.000
1644350972007834880,2022-02-08-20:09:32,10.1.1.5,31,-0.040,-0.040,-0.040,0.000,0.000,0.000
1644350972107755008,2022-02-08-20:09:32,10.1.1.5,31,-0.050,-0.050,-0.050,0.000,0.000,0.000
1644350972207777024,2022-02-08-20:09:32,10.1.1.5,29,-0.060,-0.060,-0.060,0.000,0.000,0.000
1644350972307600128,2022-02-08-20:09:32,10.1.1.5,29,-0.070,-0.070,-0.070,0.000,0.000,0.000
1644350972407464960,2022-02-08-20:09:32,10.1.1.5,28,-0.080,-0.080,-0.080,0.000,0.000,0.000
1644350972507680768,2022-02-08-20:09:32,10.1.1.5,28,-0.090,-0.090,-0.090,0.000,0.000,0.000
1644350972608284928,2022-02-08-20:09:32,10.1.1.5,27,-0.100,-0.100,-0.100,0.000,0.000,0.000
1644350972707271936,2022-02-08-20:09:32,10.1.1.5,27,-0.090,-0.090,-0.090,0.000,0.000,0.000
1644350972807100928,2022-02-08-20:09:32,10.1.1.5,26,-0.080,-0.080,-0.080,0.000,0.000,0.000
1644350972907397120,2022-02-08-20:09:32,10.1.1.5,26,-0.070,-0.070,-0.070,0.000,0.000,0.000
1644350973007585024,2022-02-08-20:09:33,10.1.1.5,25,-0.060,-0.060,-0.060,0.000,0.000,0.000
1644350973107644160,2022-02-08-20:09:33,10.1.1.5,24,-0.050,-0.050,-0.050,0.000,0.000,0.000
1644350973207555072,2022-02-08-20:09:33,10.1.1.5,23,-0.040,-0.040,-0.040,0.000,0.000,0.000
1644350973307378944,2022-02-08-20:09:33,10.1.1.5,22,-0.030,-0.030,-0.030,0.000,0.000,0.000
1644350973407508992,2022-02-08-20:09:33,10.1.1.5,21,-0.020,-0.020,-0.020,0.000,0.000,0.000
1644350973507697152,2022-02-08-20:09:33,10.1.1.5,21,-0.010,-0.010,-0.010,0.000,0.000,0.000
1644350973607600896,2022-02-08-20:09:33,10.1.1.5,21,0.000,0.000,0.000,0.000,0.000,0.000
1644350973707742976,2022-02-08-20:09:33,10.1.1.5,20,0.010,0.010,0.010,0.000,0.000,0.000
1644350973807841024,2022-02-08-20:09:33,10.1.1.5,20,0.020,0.020,0.020,0.000,0.000,0.000
1644350973928291072,2022-02-08-20:09:33,10.1.1.5,38,0.030,0.030,0.030,0.000,0.000,0.000
1644350974027683072,2022-02-08-20:09:34,10.1.1.5,37,0.040,0.040,0.040,0.000,0.000,0.000
1644350974127590912,2022-02-08-20:09:34,10.1.1.5,37,0.050,0.050,0.050,0.000,0.000,0.000
1644350974227152128,2022-02-08-20:09:34,10.1.1.5,36,0.060,0.060,0.060,0.000,0.000,0.000
1644350974327352064,2022-02-08-20:09:34,10.1.1.5,36,0.070,0.070,0.070,0.000,0.000,0.000
1644350974427201024,2022-02-08-20:09:34,10.1.1.5,35,0.080,0.080,0.080,0.000,0.000,0.000
1644350974527467008,2022-02-08-20:09:34,10.1.1.5,35,0.090,0.090,0.090,0.000,0.000,0.000
1644350974627485952,2022-02-08-20:09:34,10.1.1.5,34,0.100,0.100,0.100,0.000,0.000,0.000
1644350974728131072,2022-02-08-20:09:34,10.1.1.5,34,0.090,0.090,0.090,0.000,0.000,0.000
1644350974827655168,2022-02-08-20:09:34,10.1.1.5,34,0.080,0.080,0.080,0.000,0.000,0.000
1644350974927393792,2022-02-08-20:09:34,10.1.1.5,33,0.070,0.070,0.070,0.000,0.000,0.000
1644350975027375872,2022-02-08-20:09:35,10.1.1.5,33,0.060,0.060,0.060,0.000,0.000,0.000
1644350975127558912,2022-02-08-20:09:35,10.1.1.5,32,0.050,0.050,0.050,0.000,0.000,0.000
1644350975227511808,2022-02-08-20:09:35,10.1.1.5,32,0.040,0.040,0.040,0.000,0.000,0.000
1644350975327398144,2022-02-08-20:09:35,10.1.1.5,31,0.030,0.030,0.030,0.000,0.000,0.000
1644350975429451008,2022-02-08-20:09:35,10.1.1.5,29,0.020,0.020,0.020,0.000,0.000,0.000
1644350975529030144,2022-02-08-20:09:35,10.1.1.5,28,0.010,0.010,0.010,0.000,0.000,0.000
1644350975627088128,2022-02-08-20:09:35,10.1.1.5,27,0.000,0.000,0.000,0.000,0.000,0.000
1644350975727773952,2022-02-08-20:09:35,10.1.1.5,27,-0.010,-0.010,-0.010,0.000,0.000,0.000
1644350975828928000,2022-02-08-20:09:35,10.1.1.5,26,-0.020,-0.020,-0.020,0.000,0.000,0.000
1644350975932576768,2022-02-08-20:09:35,10.1.1.5,19,-0.030,-0.030,-0.030,0.000,0.000,0.000
1644350976047826944,2022-02-08-20:09:36,10.1.1.5,39,-0.040,-0.040,-0.040,0.000,0.000,0.000
1644350976149214976,2022-02-08-20:09:36,10.1.1.5,38,-0.050,-0.050,-0.050,0.000,0.000,0.000
1644350976248295168,2022-02-08-20:09:36,10.1.1.5,38,-0.060,-0.060,-0.060,0.000,0.000,0.000
1644350976347323904,2022-02-08-20:09:36,10.1.1.5,37,-0.070,-0.070,-0.070,0.000,0.000,0.000
1644350976453673984,2022-02-08-20:09:36,10.1.1.5,36,-0.080,-0.080,-0.080,0.000,0.000,0.000
1644350976547985920,2022-02-08-20:09:36,10.1.1.5,36,-0.090,-0.090,-0.090,0.000,0.000,0.000
1644350976647657984,2022-02-08-20:09:36,10.1.1.5,34,-0.100,-0.100,-0.100,0.000,0.000,0.000
1644350976747403008,2022-02-08-20:09:36,10.1.1.5,34,-0.090,-0.090,-0.090,0.000,0.000,0.000
1644350976847200000,2022-02-08-20:09:36,10.1.1.5,33,-0.080,-0.080,-0.080,0.000,0.000,0.000
1644350976947460864,2022-02-08-20:09:36,10.1.1.5,33,-0.070,-0.070,-0.070,0.000,0.000,0.000
1644350977047371008,2022-02-08-20:09:37,10.1.1.5,32,-0.060,-0.060,-0.060,0.000,0.000,0.000
1644350977165116160,2022-02-08-20:09:37,10.1.1.5,31,-0.050,-0.050,-0.050,0.000,0.000,0.000
1644350977247565056,2022-02-08-20:09:37,10.1.1.5,30,-0.040,-0.040,-0.040,0.000,0.000,0.000
1644350977346960128,2022-02-08-20:09:37,10.1.1.5,30,-0.030,-0.030,-0.030,0.000,0.000,0.000
1644350977447563776,2022-02-08-20:09:37,10.1.1.5,29,-0.020,-0.020,-0.020,0.000,0.000,0.000
1644350977547508992,2022-02-08-20:09:37,10.1.1.5,29,-0.010,-0.010,-0.010,0.000,0.000,0.000
1644350977647368960,2022-02-08-20:09:37,10.1.1.5,27,0.000,0.000,0.000,0.000,0.000,0.000
1644350977747849984,2022-02-08-20:09:37,10.1.1.5,27,0.010,0.010,0.010,0.000,0.000,0.000
1644350977848901120,2022-02-08-20:09:37,10.1.1.5,27,0.020,0.020,0.020,0.000,0.000,0.000
1644350977947846912,2022-02-08-20:09:37,10.1.1.5,26,0.030,0.030,0.030,0.000,0.000,0.000
1644350978047739136,2022-02-08-20:09:38,10.1.1.5,26,0.040,0.040,0.040,0.000,0.000,0.000
1644350978147631872,2022-02-08-20:09:38,10.1.1.5,25,0.050,0.050,0.050,0.000,0.000,0.000
1644350978247164928,2022-02-08-20:09:38,10.1.1.5,25,0.060,0.060,0.060,0.000,0.000,0.000
1644350978347322112,2022-02-08-20:09:38,10.1.1.5,24,0.070,0.070,0.070,0.000,0.000,0.000
1644350978447407872,2022-02-08-20:09:38,10.1.1.5,24,0.080,0.080,0.080,0.000,0.000,0.000
1644350978547437056,2022-02-08-20:09:38,10.1.1.5,23,0.090,0.090,0.090,0.000,0.000,0.000
1644350978647793152,2022-02-08-20:09:38,10.1.1.5,23,0.100,0.100,0.100,0.000,0.000,0.000
1644350978748364032,2022-02-08-20:09:38,10.1.1.5,22,0.090,0.090,0.090,0.000,0.000,0.000
1644350978847860224,2022-02-08-20:09:38,10.1.1.5,21,0.080,0.080,0.080,0.000,0.000,0.000
1644350978947848960,2022-02-08-20:09:38,10.1.1.5,21,0.070,0.070,0.070,0.000,0.000,0.000
1644350979047794944,2022-02-08-20:09:39,10.1.1.5,20,0.060,0.060,0.060,0.000,0.000,0.000
1644350979147645952,2022-02-08-20:09:39,10.1.1.5,20,0.050,0.050,0.050,0.000,0.000,0.000
1644350979248431872,2022-02-08-20:09:39,10.1.1.5,19,0.040,0.040,0.040,0.000,0.000,0.000
1644350979347201024,2022-02-08-20:09:39,10.1.1.5,19,0.031,0.031,0.031,0.000,0.000,0.000
1644350979448544000,2022-02-08-20:09:39,10.1.1.5,18,0.021,0.021,0.021,0.000,0.000,0.000
1644350979567656960,2022-02-08-20:09:39,10.1.1.5,37,0.010,0.010,0.010,0.000,0.000,0.000
1644350979669251840,2022-02-08-20:09:39,10.1.1.5,37,0.000,0.000,0.000,0.000,0.000,0.000
1644350979768028928,2022-02-08-20:09:39,10.1.1.5,35,-0.010,-0.010,-0.010,0.000,0.000,0.000
1644350979867522048,2022-02-08-20:09:39,10.1.1.5,35,-0.020,-0.020,-0.020,0.000,0.000,0.000
1644350979967833088,2022-02-08-20:09:39,10.1.1.5,34,-0.030,-0.030,-0.030,0.000,0.000,0.000
1644350980067684864,2022-02-08-20:09:40,10.1.1.5,33,-0.040,-0.040,-0.040,0.000,0.000,0.000
1644350980168130048,2022-02-08-20:09:40,10.1.1.5,33,-0.050,-0.050,-0.050,0.000,0.000,0.000
1644350980267923968,2022-02-08-20:09:40,10.1.1.5,32,-0.060,-0.060,-0.060,0.000,0.000,0.000
1644350980368199168,2022-02-08-20:09:40,10.1.1.5,31,-0.070,-0.070,-0.070,0.000,0.000,0.000
1644350980468286976,2022-02-08-20:09:40,10.1.1.5,30,-0.080,-0.080,-0.080,0.000,0.000,0.000
1644350980567682048,2022-02-08-20:09:40,10.1.1.5,29,-0.090,-0.090,-0.090,0.000,0.000,0.000
1644350980667437056,2022-02-08-20:09:40,10.1.1.5,24,-0.100,-0.100,-0.100,0.000,0.000,0.000
1644350980767892992,2022-02-08-20:09:40,10.1.1.5,23,-0.090,-0.090,-0.090,0.000,0.000,0.000
1644350980868002048,2022-02-08-20:09:40,10.1.1.5,22,-0.080,-0.080,-0.080,0.000,0.000,0.000
1644350980967796992,2022-02-08-20:09:40,10.1.1.5,22,-0.070,-0.070,-0.070,0.000,0.000,0.000
1644350981067632896,2022-02-08-20:09:41,10.1.1.5,21,-0.060,-0.060,-0.060,0.000,0.000,0.000
1644350981193232128,2022-02-08-20:09:41,10.1.1.5,37,-0.050,-0.050,-0.050,0.000,0.000,0.000
1644350981288026112,2022-02-08-20:09:41,10.1.1.5,28,-0.040,-0.040,-0.040,0.000,0.000,0.000
1644350981388019200,2022-02-08-20:09:41,10.1.1.5,27,-0.030,-0.030,-0.030,0.000,0.000,0.000
1644350981488080128,2022-02-08-20:09:41,10.1.1.5,27,-0.020,-0.020,-0.020,0.000,0.000,0.000
1644350981588254976,2022-02-08-20:09:41,10.1.1.5,26,-0.010,-0.010,-0.010,0.000,0.000,0.000
1644350981807745024,2022-02-08-20:09:41,10.1.1.5,20,0.010,0.010,0.010,0.000,0.000,0.000
1644350981928136192,2022-02-08-20:09:41,10.1.1.5,38,0.020,0.020,0.020,0.000,0.000,0.000
1644350982028189952,2022-02-08-20:09:42,10.1.1.5,37,0.030,0.030,0.030,0.000,0.000,0.000
1644350982127623168,2022-02-08-20:09:42,10.1.1.5,36,0.040,0.040,0.040,0.000,0.000,0.000
1644350982227962112,2022-02-08-20:09:42,10.1.1.5,36,0.050,0.050,0.050,0.000,0.000,0.000
1644350982327895040,2022-02-08-20:09:42,10.1.1.5,35,0.060,0.060,0.060,0.000,0.000,0.000
1644350982427991040,2022-02-08-20:09:42,10.1.1.5,33,0.070,0.070,0.070,0.000,0.000,0.000
1644350982528194816,2022-02-08-20:09:42,10.1.1.5,33,0.080,0.080,0.080,0.000,0.000,0.000
1644350982627915008,2022-02-08-20:09:42,10.1.1.5,32,0.090,0.090,0.090,0.000,0.000,0.000
1644350982728759040,2022-02-08-20:09:42,10.1.1.5,32,0.100,0.100,0.100,0.000,0.000,0.000
1644350982827815168,2022-02-08-20:09:42,10.1.1.5,31,0.090,0.090,0.090,0.000,0.000,0.000
1644350982928142080,2022-02-08-20:09:42,10.1.1.5,31,0.080,0.080,0.080,0.000,0.000,0.000
1644350983028155136,2022-02-08-20:09:43,10.1.1.5,30,0.070,0.070,0.070,0.000,0.000,0.000
1644350983128193024,2022-02-08-20:09:43,10.1.1.5,30,0.060,0.060,0.060,0.000,0.000,0.000
1644350983228766976,2022-02-08-20:09:43,10.1.1.5,29,0.050,0.050,0.050,0.000,0.000,0.000
1644350983328526848,2022-02-08-20:09:43,10.1.1.5,28,0.040,0.040,0.040,0.000,0.000,0.000
1644350983427429888,2022-02-08-20:09:43,10.1.1.5,27,0.030,0.030,0.030,0.000,0.000,0.000
1644350983528335104,2022-02-08-20:09:43,10.1.1.5,27,0.020,0.020,0.020,0.000,0.000,0.000
1644350983627769088,2022-02-08-20:09:43,10.1.1.5,26,0.010,0.010,0.010,0.000,0.000,0.000
1644350983727969792,2022-02-08-20:09:43,10.1.1.5,25,0.000,0.000,0.000,0.000,0.000,0.000
1644350983828075008,2022-02-08-20:09:43,10.1.1.5,24,-0.010,-0.010,-0.010,0.000,0.000,0.000
1644350983927695872,2022-02-08-20:09:43,10.1.1.5,24,-0.020,-0.020,-0.020,0.000,0.000,0.000
1644350984027636992,2022-02-08-20:09:44,10.1.1.5,23,-0.030,-0.030,-0.030,0.000,0.000,0.000
1644350984128180992,2022-02-08-20:09:44,10.1.1.5,23,-0.040,-0.040,-0.040,0.000,0.000,0.000
1644350984227657984,2022-02-08-20:09:44,10.1.1.5,22,-0.050,-0.050,-0.050,0.000,0.000,0.000
1644350984327568128,2022-02-08-20:09:44,10.1.1.5,21,-0.060,-0.060,-0.060,0.000,0.000,0.000
1644350984427910144,2022-02-08-20:09:44,10.1.1.5,21,-0.070,-0.070,-0.070,0.000,0.000,0.000
1644350984527636992,2022-02-08-20:09:44,10.1.1.5,21,-0.080,-0.080,-0.080,0.000,0.000,0.000
1644350984627918848,2022-02-08-20:09:44,10.1.1.5,20,-0.090,-0.090,-0.090,0.000,0.000,0.000
1644350984747489024,2022-02-08-20:09:44,10.1.1.5,39,-0.100,-0.100,-0.100,0.000,0.000,0.000
1644350984847072000,2022-02-08-20:09:44,10.1.1.5,38,-0.090,-0.090,-0.090,0.000,0.000,0.000
1644350984947460864,2022-02-08-20:09:44,10.1.1.5,37,-0.080,-0.080,-0.080,0.000,0.000,0.000
1644350985047362048,2022-02-08-20:09:45,10.1.1.5,37,-0.070,-0.070,-0.070,0.000,0.000,0.000
1644350985148528128,2022-02-08-20:09:45,10.1.1.5,36,-0.060,-0.060,-0.060,0.000,0.000,0.000
1644350985247941888,2022-02-08-20:09:45,10.1.1.5,36,-0.050,-0.050,-0.050,0.000,0.000,0.000
1644350985348004096,2022-02-08-20:09:45,10.1.1.5,35,-0.040,-0.040,-0.040,0.000,0.000,0.000
1644350985448476928,2022-02-08-20:09:45,10.1.1.5,34,-0.030,-0.030,-0.030,0.000,0.000,0.000
1644350985548563968,2022-02-08-20:09:45,10.1.1.5,34,-0.020,-0.020,-0.020,0.000,0.000,0.000
1644350985647257088,2022-02-08-20:09:45,10.1.1.5,33,-0.010,-0.010,-0.010,0.000,0.000,0.000
1644350985747323904,2022-02-08-20:09:45,10.1.1.5,32,0.000,0.000,0.000,0.000,0.000,0.000
1644350985847789056,2022-02-08-20:09:45,10.1.1.5,32,0.010,0.010,0.010,0.000,0.000,0.000
1644350985948220928,2022-02-08-20:09:45,10.1.1.5,32,0.020,0.020,0.020,0.000,0.000,0.000
1644350986047350016,2022-02-08-20:09:46,10.1.1.5,31,0.030,0.030,0.030,0.000,0.000,0.000
1644350986147546112,2022-02-08-20:09:46,10.1.1.5,31,0.040,0.040,0.040,0.000,0.000,0.000
1644350986247885056,2022-02-08-20:09:46,10.1.1.5,31,0.050,0.050,0.050,0.000,0.000,0.000
1644350986367835136,2022-02-08-20:09:46,10.1.1.5,30,0.060,0.060,0.060,0.000,0.000,0.000
1644350986447966208,2022-02-08-20:09:46,10.1.1.5,29,0.070,0.070,0.070,0.000,0.000,0.000
1644350986547208960,2022-02-08-20:09:46,10.1.1.5,28,0.080,0.080,0.080,0.000,0.000,0.000
1644350986647449856,2022-02-08-20:09:46,10.1.1.5,28,0.090,0.090,0.090,0.000,0.000,0.000
1644350986747173120,2022-02-08-20:09:46,10.1.1.5,28,0.100,0.100,0.100,0.000,0.000,0.000
1644350986847909888,2022-02-08-20:09:46,10.1.1.5,27,0.090,0.090,0.090,0.000,0.000,0.000
1644350986947580928,2022-02-08-20:09:46,10.1.1.5,27,0.080,0.080,0.080,0.000,0.000,0.000
1644350987047503104,2022-02-08-20:09:47,10.1.1.5,26,0.070,0.070,0.070,0.000,0.000,0.000
1644350987147347968,2022-02-08-20:09:47,10.1.1.5,25,0.060,0.060,0.060,0.000,0.000,0.000
1644350987247744000,2022-02-08-20:09:47,10.1.1.5,25,0.050,0.050,0.050,0.000,0.000,0.000
1644350987347383040,2022-02-08-20:09:47,10.1.1.5,24,0.040,0.040,0.040,0.000,0.000,0.000
1644350987447782144,2022-02-08-20:09:47,10.1.1.5,24,0.030,0.030,0.030,0.000,0.000,0.000
1644350987547277824,2022-02-08-20:09:47,10.1.1.5,23,0.020,0.020,0.020,0.000,0.000,0.000
1644350987649646080,2022-02-08-20:09:47,10.1.1.5,22,0.010,0.010,0.010,0.000,0.000,0.000
1644350987747756032,2022-02-08-20:09:47,10.1.1.5,20,0.000,0.000,0.000,0.000,0.000,0.000
1644350987867623168,2022-02-08-20:09:47,10.1.1.5,37,-0.010,-0.010,-0.010,0.000,0.000,0.000
1644350987967503104,2022-02-08-20:09:47,10.1.1.5,36,-0.020,-0.020,-0.020,0.000,0.000,0.000
1644350988068068864,2022-02-08-20:09:48,10.1.1.5,36,-0.030,-0.030,-0.030,0.000,0.000,0.000
1644350988167367936,2022-02-08-20:09:48,10.1.1.5,36,-0.040,-0.040,-0.040,0.000,0.000,0.000
1644350988267740928,2022-02-08-20:09:48,10.1.1.5,35,-0.050,-0.050,-0.050,0.000,0.000,0.000
1644350988368224000,2022-02-08-20:09:48,10.1.1.5,34,-0.060,-0.060,-0.060,0.000,0.000,0.000
1644350988467688192,2022-02-08-20:09:48,10.1.1.5,33,-0.070,-0.070,-0.070,0.000,0.000,0.000
1644350988567493888,2022-02-08-20:09:48,10.1.1.5,33,-0.080,-0.080,-0.080,0.000,0.000,0.000
1644350988667891968,2022-02-08-20:09:48,10.1.1.5,33,-0.090,-0.090,-0.090,0.000,0.000,0.000
1644350988767857920,2022-02-08-20:09:48,10.1.1.5,32,-0.100,-0.100,-0.100,0.000,0.000,0.000
1644350988867885056,2022-02-08-20:09:48,10.1.1.5,32,-0.090,-0.090,-0.090,0.000,0.000,0.000
1644350988967323136,2022-02-08-20:09:48,10.1.1.5,31,-0.080,-0.080,-0.080,0.000,0.000,0.000
1644350989067899904,2022-02-08-20:09:49,10.1.1.5,31,-0.070,-0.070,-0.070,0.000,0.000,0.000
1644350989167712000,2022-02-08-20:09:49,10.1.1.5,31,-0.060,-0.060,-0.060,0.000,0.000,0.000
1644350989267916032,2022-02-08-20:09:49,10.1.1.5,30,-0.050,-0.050,-0.050,0.000,0.000,0.000
1644350989367877120,2022-02-08-20:09:49,10.1.1.5,29,-0.040,-0.040,-0.040,0.000,0.000,0.000
1644350989467816960,2022-02-08-20:09:49,10.1.1.5,29,-0.030,-0.030,-0.030,0.000,0.000,0.000
1644350989567589888,2022-02-08-20:09:49,10.1.1.5,28,-0.020,-0.020,-0.020,0.000,0.000,0.000
1644350989667292160,2022-02-08-20:09:49,10.1.1.5,28,-0.010,-0.010,-0.010,0.000,0.000,0.000
1644350989767461888,2022-02-08-20:09:49,10.1.1.5,27,0.000,0.000,0.000,0.000,0.000,0.000
1644350989867339008,2022-02-08-20:09:49,10.1.1.5,26,0.010,0.010,0.010,0.000,0.000,0.000
1644350989967708160,2022-02-08-20:09:49,10.1.1.5,26,0.020,0.020,0.020,0.000,0.000,0.000
1644350990068175104,2022-02-08-20:09:50,10.1.1.5,25,0.030,0.030,0.030,0.000,0.000,0.000
1644350990167156992,2022-02-08-20:09:50,10.1.1.5,25,0.040,0.040,0.040,0.000,0.000,0.000
1644350990267258880,2022-02-08-20:09:50,10.1.1.5,25,0.050,0.050,0.050,0.000,0.000,0.000
1644350990367654144,2022-02-08-20:09:50,10.1.1.5,24,0.060,0.060,0.060,0.000,0.000,0.000
1644350990467691008,2022-02-08-20:09:50,10.1.1.5,24,0.070,0.070,0.070,0.000,0.000,0.000
1644350990567387136,2022-02-08-20:09:50,10.1.1.5,23,0.080,0.080,0.080,0.000,0.000,0.000
1644350990668220928,2022-02-08-20:09:50,10.1.1.5,22,0.090,0.090,0.090,0.000,0.000,0.000
1644350990767932928,2022-02-08-20:09:50,10.1.1.5,22,0.100,0.100,0.100,0.000,0.000,0.000
1644350990867213056,2022-02-08-20:09:50,10.1.1.5,21,0.090,0.090,0.090,0.000,0.000,0.000
1644350990967371008,2022-02-08-20:09:50,10.1.1.5,20,0.080,0.080,0.080,0.000,0.000,0.000
1644350991067640064,2022-02-08-20:09:51,10.1.1.5,20,0.070,0.070,0.070,0.000,0.000,0.000
1644350991167960832,2022-02-08-20:09:51,10.1.1.5,20,0.060,0.060,0.060,0.000,0.000,0.000
1644350991267843072,2022-02-08-20:09:51,10.1.1.5,19,0.051,0.051,0.051,0.000,0.000,0.000
1644350991387976960,2022-02-08-20:09:51,10.1.1.5,38,0.040,0.040,0.040,0.000,0.000,0.000
1644350991487544064,2022-02-08-20:09:51,10.1.1.5,38,0.030,0.030,0.030,0.000,0.000,0.000
1644350991587629056,2022-02-08-20:09:51,10.1.1.5,37,0.020,0.020,0.020,0.000,0.000,0.000
1644350991688462080,2022-02-08-20:09:51,10.1.1.5,37,0.010,0.010,0.010,0.000,0.000,0.000
1644350991787663104,2022-02-08-20:09:51,10.1.1.5,32,0.000,0.000,0.000,0.000,0.000,0.000
1644350991887922944,2022-02-08-20:09:51,10.1.1.5,31,-0.010,-0.010,-0.010,0.000,0.000,0.000
1644350991987857152,2022-02-08-20:09:51,10.1.1.5,31,-0.020,-0.020,-0.020,0.000,0.000,0.000
1644350992087846144,2022-02-08-20:09:52,10.1.1.5,30,-0.030,-0.030,-0.030,0.000,0.000,0.000
1644350992187628032,2022-02-08-20:09:52,10.1.1.5,30,-0.040,-0.040,-0.040,0.000,0.000,0.000
1644350992427465984,2022-02-08-20:09:52,10.1.1.5,30,-0.060,-0.060,-0.060,0.000,0.000,0.000
1644350992527420160,2022-02-08-20:09:52,10.1.1.5,30,-0.070,-0.070,-0.070,0.000,0.000,0.000
1644350992627212032,2022-02-08-20:09:52,10.1.1.5,29,-0.080,-0.080,-0.080,0.000,0.000,0.000
1644350992727719168,2022-02-08-20:09:52,10.1.1.5,29,-0.090,-0.090,-0.090,0.000,0.000,0.000
1644350992827517952,2022-02-08-20:09:52,10.1.1.5,29,-0.100,-0.100,-0.100,0.000,0.000,0.000
1644350992929167104,2022-02-08-20:09:52,10.1.1.5,28,-0.090,-0.090,-0.090,0.000,0.000,0.000
1644350993027992064,2022-02-08-20:09:53,10.1.1.5,28,-0.080,-0.080,-0.080,0.000,0.000,0.000
1644350993128164096,2022-02-08-20:09:53,10.1.1.5,27,-0.070,-0.070,-0.070,0.000,0.000,0.000
1644350993228099072,2022-02-08-20:09:53,10.1.1.5,27,-0.060,-0.060,-0.060,0.000,0.000,0.000
1644350993329217024,2022-02-08-20:09:53,10.1.1.5,26,-0.050,-0.050,-0.050,0.000,0.000,0.000
1644350993427892992,2022-02-08-20:09:53,10.1.1.5,25,-0.040,-0.040,-0.040,0.000,0.000,0.000
1644350993527600896,2022-02-08-20:09:53,10.1.1.5,25,-0.030,-0.030,-0.030,0.000,0.000,0.000
1644350993627645952,2022-02-08-20:09:53,10.1.1.5,24,-0.020,-0.020,-0.020,0.000,0.000,0.000
1644350993727313920,2022-02-08-20:09:53,10.1.1.5,24,-0.010,-0.010,-0.010,0.000,0.000,0.000
1644350993827526144,2022-02-08-20:09:53,10.1.1.5,23,0.000,0.000,0.000,0.000,0.000,0.000
1644350993927240960,2022-02-08-20:09:53,10.1.1.5,23,0.010,0.010,0.010,0.000,0.000,0.000
1644350994027885056,2022-02-08-20:09:54,10.1.1.5,22,0.020,0.020,0.020,0.000,0.000,0.000
1644350994127499008,2022-02-08-20:09:54,10.1.1.5,21,0.030,0.030,0.030,0.000,0.000,0.000
1644350994227682048,2022-02-08-20:09:54,10.1.1.5,21,0.040,0.040,0.040,0.000,0.000,0.000
1644350994327595008,2022-02-08-20:09:54,10.1.1.5,20,0.050,0.050,0.050,0.000,0.000,0.000
1644350994427593984,2022-02-08-20:09:54,10.1.1.5,20,0.060,0.060,0.060,0.000,0.000,0.000
1644350994528999168,2022-02-08-20:09:54,10.1.1.5,19,0.069,0.069,0.069,0.000,0.000,0.000
1644350994647753984,2022-02-08-20:09:54,10.1.1.5,38,0.080,0.080,0.080,0.000,0.000,0.000
1644350994747488000,2022-02-08-20:09:54,10.1.1.5,38,0.090,0.090,0.090,0.000,0.000,0.000
1644350994847284992,2022-02-08-20:09:54,10.1.1.5,37,0.100,0.100,0.100,0.000,0.000,0.000
1644350994948254208,2022-02-08-20:09:54,10.1.1.5,36,0.090,0.090,0.090,0.000,0.000,0.000
1644350995047735040,2022-02-08-20:09:55,10.1.1.5,36,0.080,0.080,0.080,0.000,0.000,0.000
1644350995147569920,2022-02-08-20:09:55,10.1.1.5,36,0.070,0.070,0.070,0.000,0.000,0.000
1644350995247988992,2022-02-08-20:09:55,10.1.1.5,35,0.060,0.060,0.060,0.000,0.000,0.000
1644350995348037888,2022-02-08-20:09:55,10.1.1.5,35,0.050,0.050,0.050,0.000,0.000,0.000
1644350995447796992,2022-02-08-20:09:55,10.1.1.5,34,0.040,0.040,0.040,0.000,0.000,0.000
1644350995543254016,2022-02-08-20:09:55,10.1.1.5,27,0.030,0.030,0.030,0.000,0.000,0.000
1644350995647542016,2022-02-08-20:09:55,10.1.1.5,32,0.020,0.020,0.020,0.000,0.000,0.000
1644350995747250944,2022-02-08-20:09:55,10.1.1.5,32,0.010,0.010,0.010,0.000,0.000,0.000
1644350995847523840,2022-02-08-20:09:55,10.1.1.5,31,0.000,0.000,0.000,0.000,0.000,0.000
1644350995947554048,2022-02-08-20:09:55,10.1.1.5,31,-0.010,-0.010,-0.010,0.000,0.000,0.000
1644350996047424000,2022-02-08-20:09:56,10.1.1.5,30,-0.020,-0.020,-0.020,0.000,0.000,0.000
1644350996147895040,2022-02-08-20:09:56,10.1.1.5,30,-0.030,-0.030,-0.030,0.000,0.000,0.000
1644350996247319040,2022-02-08-20:09:56,10.1.1.5,30,-0.040,-0.040,-0.040,0.000,0.000,0.000
1644350996347595008,2022-02-08-20:09:56,10.1.1.5,29,-0.050,-0.050,-0.050,0.000,0.000,0.000
1644350996448203008,2022-02-08-20:09:56,10.1.1.5,28,-0.060,-0.060,-0.060,0.000,0.000,0.000
1644350996547725824,2022-02-08-20:09:56,10.1.1.5,28,-0.070,-0.070,-0.070,0.000,0.000,0.000
1644350996647748096,2022-02-08-20:09:56,10.1.1.5,27,-0.080,-0.080,-0.080,0.000,0.000,0.000
1644350996747683072,2022-02-08-20:09:56,10.1.1.5,27,-0.090,-0.090,-0.090,0.000,0.000,0.000
1644350996847932160,2022-02-08-20:09:56,10.1.1.5,27,-0.100,-0.100,-0.100,0.000,0.000,0.000
1644350996948023040,2022-02-08-20:09:56,10.1.1.5,25,-0.090,-0.090,-0.090,0.000,0.000,0.000
1644350997047833088,2022-02-08-20:09:57,10.1.1.5,25,-0.080,-0.080,-0.080,0.000,0.000,0.000
1644350997148329984,2022-02-08-20:09:57,10.1.1.5,24,-0.070,-0.070,-0.070,0.000,0.000,0.000
1644350997295358976,2022-02-08-20:09:57,10.1.1.5,36,-0.060,-0.060,-0.060,0.000,0.000,0.000
1644350997368390912,2022-02-08-20:09:57,10.1.1.5,34,-0.050,-0.050,-0.050,0.000,0.000,0.000
1644350997467864064,2022-02-08-20:09:57,10.1.1.5,32,-0.040,-0.040,-0.040,0.000,0.000,0.000
1644350997567675136,2022-02-08-20:09:57,10.1.1.5,32,-0.030,-0.030,-0.030,0.000,0.000,0.000
1644350997667998976,2022-02-08-20:09:57,10.1.1.5,30,-0.020,-0.020,-0.020,0.000,0.000,0.000
1644350997768006144,2022-02-08-20:09:57,10.1.1.5,29,-0.010,-0.010,-0.010,0.000,0.000,0.000
1644350997869250048,2022-02-08-20:09:57,10.1.1.5,28,0.000,0.000,0.000,0.000,0.000,0.000
1644350997968199936,2022-02-08-20:09:57,10.1.1.5,27,0.010,0.010,0.010,0.000,0.000,0.000
1644350998068326912,2022-02-08-20:09:58,10.1.1.5,26,0.020,0.020,0.020,0.000,0.000,0.000
1644350998167682048,2022-02-08-20:09:58,10.1.1.5,26,0.030,0.030,0.030,0.000,0.000,0.000
1644350998267680000,2022-02-08-20:09:58,10.1.1.5,26,0.040,0.040,0.040,0.000,0.000,0.000
1644350998367717120,2022-02-08-20:09:58,10.1.1.5,25,0.050,0.050,0.050,0.000,0.000,0.000
1644350998468153088,2022-02-08-20:09:58,10.1.1.5,25,0.060,0.060,0.060,0.000,0.000,0.000
1644350998567756800,2022-02-08-20:09:58,10.1.1.5,24,0.070,0.070,0.070,0.000,0.000,0.000
1644350998668278016,2022-02-08-20:09:58,10.1.1.5,24,0.080,0.080,0.080,0.000,0.000,0.000
1644350998767465216,2022-02-08-20:09:58,10.1.1.5,23,0.090,0.090,0.090,0.000,0.000,0.000
1644350998887689984,2022-02-08-20:09:58,10.1.1.5,31,0.100,0.100,0.100,0.000,0.000,0.000
1644350998987802112,2022-02-08-20:09:58,10.1.1.5,27,0.090,0.090,0.090,0.000,0.000,0.000
1644350999088679936,2022-02-08-20:09:59,10.1.1.5,26,0.080,0.080,0.080,0.000,0.000,0.000
1644350999187700992,2022-02-08-20:09:59,10.1.1.5,26,0.070,0.070,0.070,0.000,0.000,0.000
1644350999287636992,2022-02-08-20:09:59,10.1.1.5,25,0.060,0.060,0.060,0.000,0.000,0.000
1644350999388199936,2022-02-08-20:09:59,10.1.1.5,25,0.050,0.050,0.050,0.000,0.000,0.000
1644350999489676032,2022-02-08-20:09:59,10.1.1.5,24,0.040,0.040,0.040,0.000,0.000,0.000
1644350999589186048,2022-02-08-20:09:59,10.1.1.5,24,0.030,0.030,0.030,0.000,0.000,0.000
1644350999689860096,2022-02-08-20:09:59,10.1.1.5,24,0.020,0.020,0.020,0.000,0.000,0.000
1644350999787759104,2022-02-08-20:09:59,10.1.1.5,22,0.010,0.010,0.010,0.000,0.000,0.000
1644350999887994112,2022-02-08-20:09:59,10.1.1.5,22,0.000,0.000,0.000,0.000,0.000,0.000
1644350999988441088,2022-02-08-20:09:59,10.1.1.5,22,-0.010,-0.010,-0.010,0.000,0.000,0.000
1644351000088830976,2022-02-08-20:10:00,10.1.1.5,20,-0.020,-0.020,-0.020,0.000,0.000,0.000
1644351000187840000,2022-02-08-20:10:00,10.1.1.5,19,-0.030,-0.030,-0.030,0.000,0.000,0.000
1644351000287646976,2022-02-08-20:10:00,10.1.1.5,19,-0.039,-0.039,-0.039,0.000,0.000,0.000
1644351000407678976,2022-02-08-20:10:00,10.1.1.5,38,-0.050,-0.050,-0.050,0.000,0.000,0.000
1644351000508536064,2022-02-08-20:10:00,10.1.1.5,37,-0.060,-0.060,-0.060,0.000,0.000,0.000
1644351000608001024,2022-02-08-20:10:00,10.1.1.5,37,-0.070,-0.070,-0.070,0.000,0.000,0.000
1644351000707377920,2022-02-08-20:10:00,10.1.1.5,36,-0.080,-0.080,-0.080,0.000,0.000,0.000
1644351000808062976,2022-02-08-20:10:00,10.1.1.5,35,-0.090,-0.090,-0.090,0.000,0.000,0.000
1644351000907485952,2022-02-08-20:10:00,10.1.1.5,33,-0.100,-0.100,-0.100,0.000,0.000,0.000
1644351001007288064,2022-02-08-20:10:01,10.1.1.5,32,-0.090,-0.090,-0.090,0.000,0.000,0.000
1644351001107321856,2022-02-08-20:10:01,10.1.1.5,32,-0.080,-0.080,-0.080,0.000,0.000,0.000
1644351001207664896,2022-02-08-20:10:01,10.1.1.5,31,-0.070,-0.070,-0.070,0.000,0.000,0.000
1644351001308449024,2022-02-08-20:10:01,10.1.1.5,31,-0.060,-0.060,-0.060,0.000,0.000,0.000
1644351001408036096,2022-02-08-20:10:01,10.1.1.5,30,-0.050,-0.050,-0.050,0.000,0.000,0.000
1644351001507917824,2022-02-08-20:10:01,10.1.1.5,29,-0.040,-0.040,-0.040,0.000,0.000,0.000
1644351001607863808,2022-02-08-20:10:01,10.1.1.5,29,-0.030,-0.030,-0.030,0.000,0.000,0.000
1644351001707995904,2022-02-08-20:10:01,10.1.1.5,28,-0.020,-0.020,-0.020,0.000,0.000,0.000
1644351001807881984,2022-02-08-20:10:01,10.1.1.5,28,-0.010,-0.010,-0.010,0.000,0.000,0.000
1644351001907368960,2022-02-08-20:10:01,10.1.1.5,28,0.000,0.000,0.000,0.000,0.000,0.000
1644351002007774208,2022-02-08-20:10:02,10.1.1.5,27,0.010,0.010,0.010,0.000,0.000,0.000
1644351002108050176,2022-02-08-20:10:02,10.1.1.5,26,0.020,0.020,0.020,0.000,0.000,0.000
1644351002208131072,2022-02-08-20:10:02,10.1.1.5,26,0.030,0.030,0.030,0.000,0.000,0.000
1644351002307977984,2022-02-08-20:10:02,10.1.1.5,24,0.040,0.040,0.040,0.000,0.000,0.000
1644351002407833088,2022-02-08-20:10:02,10.1.1.5,24,0.050,0.050,0.050,0.000,0.000,0.000
1644351002510809856,2022-02-08-20:10:02,10.1.1.5,22,0.060,0.060,0.060,0.000,0.000,0.000
1644351002607512064,2022-02-08-20:10:02,10.1.1.5,21,0.070,0.070,0.070,0.000,0.000,0.000
1644351002708059136,2022-02-08-20:10:02,10.1.1.5,21,0.080,0.080,0.080,0.000,0.000,0.000
1644351002807686144,2022-02-08-20:10:02,10.1.1.5,20,0.090,0.090,0.090,0.000,0.000,0.000
1644351002907382016,2022-02-08-20:10:02,10.1.1.5,20,0.100,0.100,0.100,0.000,0.000,0.000
1644351003008040960,2022-02-08-20:10:03,10.1.1.5,19,0.090,0.090,0.090,0.000,0.000,0.000
1644351003107488000,2022-02-08-20:10:03,10.1.1.5,18,0.081,0.081,0.081,0.000,0.000,0.000
1644351003207606016,2022-02-08-20:10:03,10.1.1.5,18,0.071,0.071,0.071,0.000,0.000,0.000
1644351003328217856,2022-02-08-20:10:03,10.1.1.5,38,0.060,0.060,0.060,0.000,0.000,0.000
1644351003427501824,2022-02-08-20:10:03,10.1.1.5,37,0.050,0.050,0.050,0.000,0.000,0.000
1644351003531974912,2022-02-08-20:10:03,10.1.1.5,37,0.040,0.040,0.040,0.000,0.000,0.000
1644351003627399936,2022-02-08-20:10:03,10.1.1.5,34,0.030,0.030,0.030,0.000,0.000,0.000
1644351003727863040,2022-02-08-20:10:03,10.1.1.5,33,0.020,0.020,0.020,0.000,0.000,0.000
1644351003827653888,2022-02-08-20:10:03,10.1.1.5,33,0.010,0.010,0.010,0.000,0.000,0.000
1644351003927730176,2022-02-08-20:10:03,10.1.1.5,31,0.000,0.000,0.000,0.000,0.000,0.000
1644351004027331072,2022-02-08-20:10:04,10.1.1.5,31,-0.010,-0.010,-0.010,0.000,0.000,0.000
1644351004128462080,2022-02-08-20:10:04,10.1.1.5,30,-0.020,-0.020,-0.020,0.000,0.000,0.000
1644351004227672064,2022-02-08-20:10:04,10.1.1.5,30,-0.030,-0.030,-0.030,0.000,0.000,0.000
1644351004327480064,2022-02-08-20:10:04,10.1.1.5,29,-0.040,-0.040,-0.040,0.000,0.000,0.000
1644351004427625984,2022-02-08-20:10:04,10.1.1.5,29,-0.050,-0.050,-0.050,0.000,0.000,0.000
1644351004528068096,2022-02-08-20:10:04,10.1.1.5,29,-0.060,-0.060,-0.060,0.000,0.000,0.000
1644351004628381952,2022-02-08-20:10:04,10.1.1.5,28,-0.070,-0.070,-0.070,0.000,0.000,0.000
1644351004727462144,2022-02-08-20:10:04,10.1.1.5,27,-0.080,-0.080,-0.080,0.000,0.000,0.000
1644351004827362048,2022-02-08-20:10:04,10.1.1.5,27,-0.090,-0.090,-0.090,0.000,0.000,0.000
1644351004927877888,2022-02-08-20:10:04,10.1.1.5,27,-0.100,-0.100,-0.100,0.000,0.000,0.000
1644351005027645184,2022-02-08-20:10:05,10.1.1.5,26,-0.090,-0.090,-0.090,0.000,0.000,0.000
1644351005128852992,2022-02-08-20:10:05,10.1.1.5,25,-0.080,-0.080,-0.080,0.000,0.000,0.000
1644351005247948800,2022-02-08-20:10:05,10.1.1.5,36,-0.070,-0.070,-0.070,0.000,0.000,0.000
1644351005348691968,2022-02-08-20:10:05,10.1.1.5,35,-0.060,-0.060,-0.060,0.000,0.000,0.000
1644351005447443968,2022-02-08-20:10:05,10.1.1.5,33,-0.050,-0.050,-0.050,0.000,0.000,0.000
1644351005548196096,2022-02-08-20:10:05,10.1.1.5,32,-0.040,-0.040,-0.040,0.000,0.000,0.000
1644351005649189120,2022-02-08-20:10:05,10.1.1.5,32,-0.030,-0.030,-0.030,0.000,0.000,0.000
1644351005747767040,2022-02-08-20:10:05,10.1.1.5,31,-0.020,-0.020,-0.020,0.000,0.000,0.000
1644351005847464192,2022-02-08-20:10:05,10.1.1.5,31,-0.010,-0.010,-0.010,0.000,0.000,0.000
1644351005947590144,2022-02-08-20:10:05,10.1.1.5,30,0.000,0.000,0.000,0.000,0.000,0.000
1644351006048284928,2022-02-08-20:10:06,10.1.1.5,30,0.010,0.010,0.010,0.000,0.000,0.000
1644351006147753984,2022-02-08-20:10:06,10.1.1.5,29,0.020,0.020,0.020,0.000,0.000,0.000
1644351006248286976,2022-02-08-20:10:06,10.1.1.5,29,0.030,0.030,0.030,0.000,0.000,0.000
1644351006347517952,2022-02-08-20:10:06,10.1.1.5,28,0.040,0.040,0.040,0.000,0.000,0.000
1644351006447585024,2022-02-08-20:10:06,10.1.1.5,27,0.050,0.050,0.050,0.000,0.000,0.000
1644351006548310016,2022-02-08-20:10:06,10.1.1.5,26,0.060,0.060,0.060,0.000,0.000,0.000
1644351006648248064,2022-02-08-20:10:06,10.1.1.5,25,0.070,0.070,0.070,0.000,0.000,0.000
1644351006748142848,2022-02-08-20:10:06,10.1.1.5,25,0.080,0.080,0.080,0.000,0.000,0.000
1644351006848066048,2022-02-08-20:10:06,10.1.1.5,23,0.090,0.090,0.090,0.000,0.000,0.000
1644351006947761920,2022-02-08-20:10:06,10.1.1.5,23,0.100,0.100,0.100,0.000,0.000,0.000
1644351007061943040,2022-02-08-20:10:07,10.1.1.5,21,0.090,0.090,0.090,0.000,0.000,0.000
1644351007148512000,2022-02-08-20:10:07,10.1.1.5,20,0.080,0.080,0.080,0.000,0.000,0.000
1644351007247945984,2022-02-08-20:10:07,10.1.1.5,20,0.070,0.070,0.070,0.000,0.000,0.000
1644351007347347968,2022-02-08-20:10:07,10.1.1.5,19,0.061,0.061,0.061,0.000,0.000,0.000
1644351007467710976,2022-02-08-20:10:07,10.1.1.5,39,0.050,0.050,0.050,0.000,0.000,0.000
1644351007567621120,2022-02-08-20:10:07,10.1.1.5,38,0.040,0.040,0.040,0.000,0.000,0.000
1644351007667810048,2022-02-08-20:10:07,10.1.1.5,37,0.030,0.030,0.030,0.000,0.000,0.000
1644351007779194112,2022-02-08-20:10:07,10.1.1.5,37,0.020,0.020,0.020,0.000,0.000,0.000
1644351007867543040,2022-02-08-20:10:07,10.1.1.5,36,0.010,0.010,0.010,0.000,0.000,0.000
