FedericoMungari/DigitalTwin_service/01_WiredScenario/Output/Output_script/script_rosapi_2_output_robots6_freq0_1.txt
timestamp,date,node,latency,joint_1,joint_2,joint_3,joint_4,joint_5,joint_6
1644905246604036096,2022-02-15-06:07:26,10.1.1.2,1,-0.100,-0.100,-0.100,0.000,0.000,0.000
1644905246682294016,2022-02-15-06:07:26,10.1.1.2,31,-0.090,-0.090,-0.090,0.000,0.000,0.000
1644905246722935040,2022-02-15-06:07:26,10.1.1.2,20,-0.080,-0.080,-0.080,0.000,0.000,0.000
1644905246782744832,2022-02-15-06:07:26,10.1.1.2,30,-0.070,-0.070,-0.070,0.000,0.000,0.000
1644905246823333120,2022-02-15-06:07:26,10.1.1.2,20,-0.060,-0.060,-0.060,0.000,0.000,0.000
1644905246882838016,2022-02-15-06:07:26,10.1.1.2,30,-0.050,-0.050,-0.050,0.000,0.000,0.000
1644905246922892032,2022-02-15-06:07:26,10.1.1.2,19,-0.041,-0.041,-0.041,0.000,0.000,0.000
1644905246982448128,2022-02-15-06:07:26,10.1.1.2,29,-0.030,-0.030,-0.030,0.000,0.000,0.000
1644905247023571968,2022-02-15-06:07:27,10.1.1.2,18,-0.021,-0.021,-0.021,0.000,0.000,0.000
1644905247083308032,2022-02-15-06:07:27,10.1.1.2,28,-0.010,-0.010,-0.010,0.000,0.000,0.000
1644905247142835968,2022-02-15-06:07:27,10.1.1.2,37,0.000,0.000,0.000,0.000,0.000,0.000
1644905247183522816,2022-02-15-06:07:27,10.1.1.2,26,0.010,0.010,0.010,0.000,0.000,0.000
1644905247242906112,2022-02-15-06:07:27,10.1.1.2,36,0.020,0.020,0.020,0.000,0.000,0.000
1644905247283070976,2022-02-15-06:07:27,10.1.1.2,26,0.030,0.030,0.030,0.000,0.000,0.000
1644905247343195904,2022-02-15-06:07:27,10.1.1.2,35,0.040,0.040,0.040,0.000,0.000,0.000
1644905247382914048,2022-02-15-06:07:27,10.1.1.2,25,0.050,0.050,0.050,0.000,0.000,0.000
1644905247442892032,2022-02-15-06:07:27,10.1.1.2,34,0.060,0.060,0.060,0.000,0.000,0.000
1644905247482835968,2022-02-15-06:07:27,10.1.1.2,24,0.070,0.070,0.070,0.000,0.000,0.000
1644905247543652096,2022-02-15-06:07:27,10.1.1.2,33,0.080,0.080,0.080,0.000,0.000,0.000
1644905247583229952,2022-02-15-06:07:27,10.1.1.2,23,0.090,0.090,0.090,0.000,0.000,0.000
1644905247643040768,2022-02-15-06:07:27,10.1.1.2,32,0.100,0.100,0.100,0.000,0.000,0.000
1644905247682536960,2022-02-15-06:07:27,10.1.1.2,21,0.090,0.090,0.090,0.000,0.000,0.000
1644905247744071936,2022-02-15-06:07:27,10.1.1.2,31,0.080,0.080,0.080,0.000,0.000,0.000
1644905247782757888,2022-02-15-06:07:27,10.1.1.2,20,0.070,0.070,0.070,0.000,0.000,0.000
1644905247842415104,2022-02-15-06:07:27,10.1.1.2,29,0.060,0.060,0.060,0.000,0.000,0.000
1644905247882318080,2022-02-15-06:07:27,10.1.1.2,19,0.050,0.050,0.050,0.000,0.000,0.000
1644905247942902016,2022-02-15-06:07:27,10.1.1.2,28,0.040,0.040,0.040,0.000,0.000,0.000
1644905248002124032,2022-02-15-06:07:28,10.1.1.2,37,0.030,0.030,0.030,0.000,0.000,0.000
1644905248042395136,2022-02-15-06:07:28,10.1.1.2,26,0.020,0.020,0.020,0.000,0.000,0.000
1644905248102322176,2022-02-15-06:07:28,10.1.1.2,35,0.010,0.010,0.010,0.000,0.000,0.000
1644905248142138112,2022-02-15-06:07:28,10.1.1.2,24,0.000,0.000,0.000,0.000,0.000,0.000
1644905248202194944,2022-02-15-06:07:28,10.1.1.2,33,-0.010,-0.010,-0.010,0.000,0.000,0.000
1644905248242803200,2022-02-15-06:07:28,10.1.1.2,23,-0.020,-0.020,-0.020,0.000,0.000,0.000
1644905248302956032,2022-02-15-06:07:28,10.1.1.2,32,-0.030,-0.030,-0.030,0.000,0.000,0.000
1644905248342459904,2022-02-15-06:07:28,10.1.1.2,21,-0.040,-0.040,-0.040,0.000,0.000,0.000
1644905248402249984,2022-02-15-06:07:28,10.1.1.2,31,-0.050,-0.050,-0.050,0.000,0.000,0.000
1644905248462861056,2022-02-15-06:07:28,10.1.1.2,37,-0.060,-0.060,-0.060,0.000,0.000,0.000
1644905248502801920,2022-02-15-06:07:28,10.1.1.2,26,-0.070,-0.070,-0.070,0.000,0.000,0.000
1644905248562795008,2022-02-15-06:07:28,10.1.1.2,36,-0.080,-0.080,-0.080,0.000,0.000,0.000
1644905248602585088,2022-02-15-06:07:28,10.1.1.2,23,-0.090,-0.090,-0.090,0.000,0.000,0.000
1644905248662990080,2022-02-15-06:07:28,10.1.1.2,31,-0.100,-0.100,-0.100,0.000,0.000,0.000
1644905248702918144,2022-02-15-06:07:28,10.1.1.2,20,-0.090,-0.090,-0.090,0.000,0.000,0.000
1644905248762723840,2022-02-15-06:07:28,10.1.1.2,30,-0.080,-0.080,-0.080,0.000,0.000,0.000
1644905248822987008,2022-02-15-06:07:28,10.1.1.2,37,-0.070,-0.070,-0.070,0.000,0.000,0.000
1644905248862705920,2022-02-15-06:07:28,10.1.1.2,25,-0.060,-0.060,-0.060,0.000,0.000,0.000
1644905248922561024,2022-02-15-06:07:28,10.1.1.2,35,-0.050,-0.050,-0.050,0.000,0.000,0.000
1644905248962428928,2022-02-15-06:07:28,10.1.1.2,24,-0.040,-0.040,-0.040,0.000,0.000,0.000
1644905249023143168,2022-02-15-06:07:29,10.1.1.2,33,-0.030,-0.030,-0.030,0.000,0.000,0.000
1644905249062459904,2022-02-15-06:07:29,10.1.1.2,22,-0.020,-0.020,-0.020,0.000,0.000,0.000
1644905249124700928,2022-02-15-06:07:29,10.1.1.2,30,-0.010,-0.010,-0.010,0.000,0.000,0.000
1644905249163209984,2022-02-15-06:07:29,10.1.1.2,20,0.000,0.000,0.000,0.000,0.000,0.000
1644905249223149056,2022-02-15-06:07:29,10.1.1.2,28,0.010,0.010,0.010,0.000,0.000,0.000
1644905249282979072,2022-02-15-06:07:29,10.1.1.2,37,0.020,0.020,0.020,0.000,0.000,0.000
1644905249322720000,2022-02-15-06:07:29,10.1.1.2,26,0.030,0.030,0.030,0.000,0.000,0.000
1644905249383441920,2022-02-15-06:07:29,10.1.1.2,36,0.040,0.040,0.040,0.000,0.000,0.000
1644905249422308096,2022-02-15-06:07:29,10.1.1.2,25,0.050,0.050,0.050,0.000,0.000,0.000
1644905249482839040,2022-02-15-06:07:29,10.1.1.2,34,0.060,0.060,0.060,0.000,0.000,0.000
1644905249522868992,2022-02-15-06:07:29,10.1.1.2,22,0.070,0.070,0.070,0.000,0.000,0.000
1644905249583441920,2022-02-15-06:07:29,10.1.1.2,29,0.080,0.080,0.080,0.000,0.000,0.000
1644905249622452992,2022-02-15-06:07:29,10.1.1.2,19,0.089,0.089,0.089,0.000,0.000,0.000
1644905249682504960,2022-02-15-06:07:29,10.1.1.2,27,0.100,0.100,0.100,0.000,0.000,0.000
1644905249742564864,2022-02-15-06:07:29,10.1.1.2,36,0.090,0.090,0.090,0.000,0.000,0.000
1644905249782198016,2022-02-15-06:07:29,10.1.1.2,25,0.080,0.080,0.080,0.000,0.000,0.000
1644905249842771968,2022-02-15-06:07:29,10.1.1.2,34,0.070,0.070,0.070,0.000,0.000,0.000
1644905249882704896,2022-02-15-06:07:29,10.1.1.2,24,0.060,0.060,0.060,0.000,0.000,0.000
1644905249943156992,2022-02-15-06:07:29,10.1.1.2,34,0.050,0.050,0.050,0.000,0.000,0.000
1644905249982796800,2022-02-15-06:07:29,10.1.1.2,23,0.040,0.040,0.040,0.000,0.000,0.000
1644905250042816000,2022-02-15-06:07:30,10.1.1.2,32,0.030,0.030,0.030,0.000,0.000,0.000
1644905250083043072,2022-02-15-06:07:30,10.1.1.2,21,0.020,0.020,0.020,0.000,0.000,0.000
1644905250142693120,2022-02-15-06:07:30,10.1.1.2,31,0.010,0.010,0.010,0.000,0.000,0.000
1644905250182981120,2022-02-15-06:07:30,10.1.1.2,20,0.000,0.000,0.000,0.000,0.000,0.000
1644905250243186944,2022-02-15-06:07:30,10.1.1.2,29,-0.010,-0.010,-0.010,0.000,0.000,0.000
1644905250282796032,2022-02-15-06:07:30,10.1.1.2,19,-0.020,-0.020,-0.020,0.000,0.000,0.000
1644905250345069824,2022-02-15-06:07:30,10.1.1.2,29,-0.030,-0.030,-0.030,0.000,0.000,0.000
1644905250403429120,2022-02-15-06:07:30,10.1.1.2,38,-0.040,-0.040,-0.040,0.000,0.000,0.000
1644905250442972928,2022-02-15-06:07:30,10.1.1.2,28,-0.050,-0.050,-0.050,0.000,0.000,0.000
1644905250503695872,2022-02-15-06:07:30,10.1.1.2,36,-0.060,-0.060,-0.060,0.000,0.000,0.000
1644905250542905088,2022-02-15-06:07:30,10.1.1.2,24,-0.070,-0.070,-0.070,0.000,0.000,0.000
1644905250602770176,2022-02-15-06:07:30,10.1.1.2,33,-0.080,-0.080,-0.080,0.000,0.000,0.000
1644905250643415040,2022-02-15-06:07:30,10.1.1.2,21,-0.090,-0.090,-0.090,0.000,0.000,0.000
1644905250709384960,2022-02-15-06:07:30,10.1.1.2,30,-0.100,-0.100,-0.100,0.000,0.000,0.000
1644905250743047936,2022-02-15-06:07:30,10.1.1.2,19,-0.090,-0.090,-0.090,0.000,0.000,0.000
1644905250803385856,2022-02-15-06:07:30,10.1.1.2,29,-0.080,-0.080,-0.080,0.000,0.000,0.000
1644905250863054080,2022-02-15-06:07:30,10.1.1.2,37,-0.070,-0.070,-0.070,0.000,0.000,0.000
1644905250903428096,2022-02-15-06:07:30,10.1.1.2,26,-0.060,-0.060,-0.060,0.000,0.000,0.000
1644905250963022080,2022-02-15-06:07:30,10.1.1.2,34,-0.050,-0.050,-0.050,0.000,0.000,0.000
1644905251003493120,2022-02-15-06:07:31,10.1.1.2,24,-0.040,-0.040,-0.040,0.000,0.000,0.000
1644905251062646016,2022-02-15-06:07:31,10.1.1.2,31,-0.030,-0.030,-0.030,0.000,0.000,0.000
1644905251102940160,2022-02-15-06:07:31,10.1.1.2,20,-0.020,-0.020,-0.020,0.000,0.000,0.000
1644905251162769152,2022-02-15-06:07:31,10.1.1.2,29,-0.010,-0.010,-0.010,0.000,0.000,0.000
1644905251222615040,2022-02-15-06:07:31,10.1.1.2,38,0.000,0.000,0.000,0.000,0.000,0.000
1644905251263188992,2022-02-15-06:07:31,10.1.1.2,23,0.010,0.010,0.010,0.000,0.000,0.000
1644905251323131136,2022-02-15-06:07:31,10.1.1.2,32,0.020,0.020,0.020,0.000,0.000,0.000
1644905251363120128,2022-02-15-06:07:31,10.1.1.2,20,0.030,0.030,0.030,0.000,0.000,0.000
1644905251422333952,2022-02-15-06:07:31,10.1.1.2,29,0.040,0.040,0.040,0.000,0.000,0.000
1644905251483352064,2022-02-15-06:07:31,10.1.1.2,38,0.050,0.050,0.050,0.000,0.000,0.000
1644905251522638080,2022-02-15-06:07:31,10.1.1.2,25,0.060,0.060,0.060,0.000,0.000,0.000
1644905251582964992,2022-02-15-06:07:31,10.1.1.2,35,0.070,0.070,0.070,0.000,0.000,0.000
1644905251642673920,2022-02-15-06:07:31,10.1.1.2,44,0.080,0.080,0.080,0.000,0.000,0.000
1644905251684838912,2022-02-15-06:07:31,10.1.1.2,33,0.090,0.090,0.090,0.000,0.000,0.000
1644905251722632960,2022-02-15-06:07:31,10.1.1.2,23,0.100,0.100,0.100,0.000,0.000,0.000
1644905251782983936,2022-02-15-06:07:31,10.1.1.2,32,0.090,0.090,0.090,0.000,0.000,0.000
1644905251823900928,2022-02-15-06:07:31,10.1.1.2,21,0.080,0.080,0.080,0.000,0.000,0.000
1644905251883374080,2022-02-15-06:07:31,10.1.1.2,28,0.070,0.070,0.070,0.000,0.000,0.000
1644905251944432128,2022-02-15-06:07:31,10.1.1.2,37,0.060,0.060,0.060,0.000,0.000,0.000
1644905251983069952,2022-02-15-06:07:31,10.1.1.2,25,0.050,0.050,0.050,0.000,0.000,0.000
1644905252046844928,2022-02-15-06:07:32,10.1.1.2,37,0.040,0.040,0.040,0.000,0.000,0.000
1644905252083053056,2022-02-15-06:07:32,10.1.1.2,21,0.030,0.030,0.030,0.000,0.000,0.000
1644905252142360832,2022-02-15-06:07:32,10.1.1.2,29,0.020,0.020,0.020,0.000,0.000,0.000
1644905252202959104,2022-02-15-06:07:32,10.1.1.2,38,0.010,0.010,0.010,0.000,0.000,0.000
1644905252242963968,2022-02-15-06:07:32,10.1.1.2,27,0.000,0.000,0.000,0.000,0.000,0.000
1644905252303496960,2022-02-15-06:07:32,10.1.1.2,35,-0.010,-0.010,-0.010,0.000,0.000,0.000
1644905252343034112,2022-02-15-06:07:32,10.1.1.2,25,-0.020,-0.020,-0.020,0.000,0.000,0.000
1644905252403068160,2022-02-15-06:07:32,10.1.1.2,34,-0.030,-0.030,-0.030,0.000,0.000,0.000
1644905252442984960,2022-02-15-06:07:32,10.1.1.2,22,-0.040,-0.040,-0.040,0.000,0.000,0.000
1644905252503043840,2022-02-15-06:07:32,10.1.1.2,31,-0.050,-0.050,-0.050,0.000,0.000,0.000
1644905252543173120,2022-02-15-06:07:32,10.1.1.2,20,-0.060,-0.060,-0.060,0.000,0.000,0.000
1644905252603171072,2022-02-15-06:07:32,10.1.1.2,29,-0.070,-0.070,-0.070,0.000,0.000,0.000
1644905252663084032,2022-02-15-06:07:32,10.1.1.2,38,-0.080,-0.080,-0.080,0.000,0.000,0.000
1644905252704161024,2022-02-15-06:07:32,10.1.1.2,28,-0.090,-0.090,-0.090,0.000,0.000,0.000
1644905252762628096,2022-02-15-06:07:32,10.1.1.2,34,-0.100,-0.100,-0.100,0.000,0.000,0.000
1644905252803276032,2022-02-15-06:07:32,10.1.1.2,22,-0.090,-0.090,-0.090,0.000,0.000,0.000
1644905252862700032,2022-02-15-06:07:32,10.1.1.2,20,-0.080,-0.080,-0.080,0.000,0.000,0.000
1644905252923283200,2022-02-15-06:07:32,10.1.1.2,27,-0.070,-0.070,-0.070,0.000,0.000,0.000
1644905252982769920,2022-02-15-06:07:32,10.1.1.2,37,-0.060,-0.060,-0.060,0.000,0.000,0.000
1644905253022708992,2022-02-15-06:07:33,10.1.1.2,25,-0.050,-0.050,-0.050,0.000,0.000,0.000
1644905253082717952,2022-02-15-06:07:33,10.1.1.2,33,-0.040,-0.040,-0.040,0.000,0.000,0.000
1644905253123659008,2022-02-15-06:07:33,10.1.1.2,22,-0.030,-0.030,-0.030,0.000,0.000,0.000
1644905253182845184,2022-02-15-06:07:33,10.1.1.2,30,-0.020,-0.020,-0.020,0.000,0.000,0.000
1644905253222580992,2022-02-15-06:07:33,10.1.1.2,20,-0.010,-0.010,-0.010,0.000,0.000,0.000
1644905253282946048,2022-02-15-06:07:33,10.1.1.2,28,0.000,0.000,0.000,0.000,0.000,0.000
1644905253342930944,2022-02-15-06:07:33,10.1.1.2,37,0.010,0.010,0.010,0.000,0.000,0.000
1644905253382683136,2022-02-15-06:07:33,10.1.1.2,26,0.020,0.020,0.020,0.000,0.000,0.000
1644905253442873856,2022-02-15-06:07:33,10.1.1.2,34,0.030,0.030,0.030,0.000,0.000,0.000
1644905253482564864,2022-02-15-06:07:33,10.1.1.2,23,0.040,0.040,0.040,0.000,0.000,0.000
1644905253543225088,2022-02-15-06:07:33,10.1.1.2,32,0.050,0.050,0.050,0.000,0.000,0.000
1644905253582616064,2022-02-15-06:07:33,10.1.1.2,22,0.060,0.060,0.060,0.000,0.000,0.000
1644905253642642944,2022-02-15-06:07:33,10.1.1.2,30,0.070,0.070,0.070,0.000,0.000,0.000
1644905253684052992,2022-02-15-06:07:33,10.1.1.2,19,0.079,0.079,0.079,0.000,0.000,0.000
1644905253742939904,2022-02-15-06:07:33,10.1.1.2,27,0.090,0.090,0.090,0.000,0.000,0.000
1644905253807244032,2022-02-15-06:07:33,10.1.1.2,38,0.100,0.100,0.100,0.000,0.000,0.000
1644905253842544128,2022-02-15-06:07:33,10.1.1.2,23,0.090,0.090,0.090,0.000,0.000,0.000
1644905253903294976,2022-02-15-06:07:33,10.1.1.2,30,0.080,0.080,0.080,0.000,0.000,0.000
1644905253942796032,2022-02-15-06:07:33,10.1.1.2,19,0.070,0.070,0.070,0.000,0.000,0.000
1644905254002994944,2022-02-15-06:07:34,10.1.1.2,28,0.060,0.060,0.060,0.000,0.000,0.000
1644905254063168000,2022-02-15-06:07:34,10.1.1.2,37,0.050,0.050,0.050,0.000,0.000,0.000
1644905254102574080,2022-02-15-06:07:34,10.1.1.2,25,0.040,0.040,0.040,0.000,0.000,0.000
1644905254163078912,2022-02-15-06:07:34,10.1.1.2,34,0.030,0.030,0.030,0.000,0.000,0.000
1644905254203107072,2022-02-15-06:07:34,10.1.1.2,23,0.020,0.020,0.020,0.000,0.000,0.000
1644905254263219200,2022-02-15-06:07:34,10.1.1.2,32,0.010,0.010,0.010,0.000,0.000,0.000
1644905254302817024,2022-02-15-06:07:34,10.1.1.2,21,0.000,0.000,0.000,0.000,0.000,0.000
1644905254363246848,2022-02-15-06:07:34,10.1.1.2,29,-0.010,-0.010,-0.010,0.000,0.000,0.000
1644905254423217920,2022-02-15-06:07:34,10.1.1.2,38,-0.020,-0.020,-0.020,0.000,0.000,0.000
1644905254463859968,2022-02-15-06:07:34,10.1.1.2,25,-0.030,-0.030,-0.030,0.000,0.000,0.000
1644905254522983168,2022-02-15-06:07:34,10.1.1.2,34,-0.040,-0.040,-0.040,0.000,0.000,0.000
1644905254563014144,2022-02-15-06:07:34,10.1.1.2,22,-0.050,-0.050,-0.050,0.000,0.000,0.000
1644905254623298048,2022-02-15-06:07:34,10.1.1.2,31,-0.060,-0.060,-0.060,0.000,0.000,0.000
1644905254663785984,2022-02-15-06:07:34,10.1.1.2,19,-0.070,-0.070,-0.070,0.000,0.000,0.000
1644905254723769856,2022-02-15-06:07:34,10.1.1.2,22,-0.080,-0.080,-0.080,0.000,0.000,0.000
1644905254782321920,2022-02-15-06:07:34,10.1.1.2,29,-0.090,-0.090,-0.090,0.000,0.000,0.000
1644905254842439936,2022-02-15-06:07:34,10.1.1.2,38,-0.100,-0.100,-0.100,0.000,0.000,0.000
1644905254882756096,2022-02-15-06:07:34,10.1.1.2,26,-0.090,-0.090,-0.090,0.000,0.000,0.000
1644905254943456000,2022-02-15-06:07:34,10.1.1.2,35,-0.080,-0.080,-0.080,0.000,0.000,0.000
1644905254983299072,2022-02-15-06:07:34,10.1.1.2,24,-0.070,-0.070,-0.070,0.000,0.000,0.000
1644905255083315968,2022-02-15-06:07:35,10.1.1.2,19,-0.051,-0.051,-0.051,0.000,0.000,0.000
1644905255142565120,2022-02-15-06:07:35,10.1.1.2,28,-0.040,-0.040,-0.040,0.000,0.000,0.000
1644905255202745088,2022-02-15-06:07:35,10.1.1.2,37,-0.030,-0.030,-0.030,0.000,0.000,0.000
1644905255242692864,2022-02-15-06:07:35,10.1.1.2,25,-0.020,-0.020,-0.020,0.000,0.000,0.000
1644905255303356928,2022-02-15-06:07:35,10.1.1.2,33,-0.010,-0.010,-0.010,0.000,0.000,0.000
1644905255343131136,2022-02-15-06:07:35,10.1.1.2,22,0.000,0.000,0.000,0.000,0.000,0.000
1644905255402435072,2022-02-15-06:07:35,10.1.1.2,32,0.010,0.010,0.010,0.000,0.000,0.000
1644905255463489024,2022-02-15-06:07:35,10.1.1.2,38,0.020,0.020,0.020,0.000,0.000,0.000
1644905255502553856,2022-02-15-06:07:35,10.1.1.2,26,0.030,0.030,0.030,0.000,0.000,0.000
1644905255562963968,2022-02-15-06:07:35,10.1.1.2,35,0.040,0.040,0.040,0.000,0.000,0.000
1644905255603537152,2022-02-15-06:07:35,10.1.1.2,23,0.050,0.050,0.050,0.000,0.000,0.000
1644905255663084032,2022-02-15-06:07:35,10.1.1.2,31,0.060,0.060,0.060,0.000,0.000,0.000
1644905255723180032,2022-02-15-06:07:35,10.1.1.2,36,0.070,0.070,0.070,0.000,0.000,0.000
1644905255762952960,2022-02-15-06:07:35,10.1.1.2,25,0.080,0.080,0.080,0.000,0.000,0.000
1644905255823055104,2022-02-15-06:07:35,10.1.1.2,33,0.090,0.090,0.090,0.000,0.000,0.000
1644905255863032064,2022-02-15-06:07:35,10.1.1.2,22,0.100,0.100,0.100,0.000,0.000,0.000
1644905255923173888,2022-02-15-06:07:35,10.1.1.2,31,0.090,0.090,0.090,0.000,0.000,0.000
1644905255982806016,2022-02-15-06:07:35,10.1.1.2,38,0.080,0.080,0.080,0.000,0.000,0.000
1644905256022650880,2022-02-15-06:07:36,10.1.1.2,24,0.070,0.070,0.070,0.000,0.000,0.000
1644905256082995968,2022-02-15-06:07:36,10.1.1.2,33,0.060,0.060,0.060,0.000,0.000,0.000
1644905256122976000,2022-02-15-06:07:36,10.1.1.2,23,0.050,0.050,0.050,0.000,0.000,0.000
1644905256183233024,2022-02-15-06:07:36,10.1.1.2,31,0.040,0.040,0.040,0.000,0.000,0.000
1644905256222897152,2022-02-15-06:07:36,10.1.1.2,20,0.030,0.030,0.030,0.000,0.000,0.000
1644905256282607104,2022-02-15-06:07:36,10.1.1.2,30,0.020,0.020,0.020,0.000,0.000,0.000
1644905256323196928,2022-02-15-06:07:36,10.1.1.2,19,0.010,0.010,0.010,0.000,0.000,0.000
1644905256383614976,2022-02-15-06:07:36,10.1.1.2,27,0.000,0.000,0.000,0.000,0.000,0.000
1644905256443250944,2022-02-15-06:07:36,10.1.1.2,37,-0.010,-0.010,-0.010,0.000,0.000,0.000
1644905256483257088,2022-02-15-06:07:36,10.1.1.2,26,-0.020,-0.020,-0.020,0.000,0.000,0.000
1644905256543554048,2022-02-15-06:07:36,10.1.1.2,34,-0.030,-0.030,-0.030,0.000,0.000,0.000
1644905256603833088,2022-02-15-06:07:36,10.1.1.2,34,-0.040,-0.040,-0.040,0.000,0.000,0.000
1644905256643193088,2022-02-15-06:07:36,10.1.1.2,22,-0.050,-0.050,-0.050,0.000,0.000,0.000
1644905256702790144,2022-02-15-06:07:36,10.1.1.2,30,-0.060,-0.060,-0.060,0.000,0.000,0.000
1644905256743230976,2022-02-15-06:07:36,10.1.1.2,20,-0.070,-0.070,-0.070,0.000,0.000,0.000
1644905256802697984,2022-02-15-06:07:36,10.1.1.2,29,-0.080,-0.080,-0.080,0.000,0.000,0.000
1644905256862804992,2022-02-15-06:07:36,10.1.1.2,36,-0.090,-0.090,-0.090,0.000,0.000,0.000
1644905256902285056,2022-02-15-06:07:36,10.1.1.2,25,-0.100,-0.100,-0.100,0.000,0.000,0.000
1644905256962356992,2022-02-15-06:07:36,10.1.1.2,35,-0.090,-0.090,-0.090,0.000,0.000,0.000
1644905257002588160,2022-02-15-06:07:37,10.1.1.2,24,-0.080,-0.080,-0.080,0.000,0.000,0.000
1644905257062444032,2022-02-15-06:07:37,10.1.1.2,32,-0.070,-0.070,-0.070,0.000,0.000,0.000
1644905257102745088,2022-02-15-06:07:37,10.1.1.2,22,-0.060,-0.060,-0.060,0.000,0.000,0.000
1644905257162729984,2022-02-15-06:07:37,10.1.1.2,31,-0.050,-0.050,-0.050,0.000,0.000,0.000
1644905257202557184,2022-02-15-06:07:37,10.1.1.2,20,-0.040,-0.040,-0.040,0.000,0.000,0.000
1644905257262895104,2022-02-15-06:07:37,10.1.1.2,30,-0.030,-0.030,-0.030,0.000,0.000,0.000
1644905257322766080,2022-02-15-06:07:37,10.1.1.2,38,-0.020,-0.020,-0.020,0.000,0.000,0.000
1644905257364780032,2022-02-15-06:07:37,10.1.1.2,27,-0.010,-0.010,-0.010,0.000,0.000,0.000
1644905257422894080,2022-02-15-06:07:37,10.1.1.2,36,0.000,0.000,0.000,0.000,0.000,0.000
1644905257463066112,2022-02-15-06:07:37,10.1.1.2,22,0.010,0.010,0.010,0.000,0.000,0.000
1644905257523282176,2022-02-15-06:07:37,10.1.1.2,26,0.020,0.020,0.020,0.000,0.000,0.000
1644905257582906112,2022-02-15-06:07:37,10.1.1.2,34,0.030,0.030,0.030,0.000,0.000,0.000
1644905257623374848,2022-02-15-06:07:37,10.1.1.2,23,0.040,0.040,0.040,0.000,0.000,0.000
1644905257683532032,2022-02-15-06:07:37,10.1.1.2,32,0.050,0.050,0.050,0.000,0.000,0.000
1644905257726865152,2022-02-15-06:07:37,10.1.1.2,25,0.060,0.060,0.060,0.000,0.000,0.000
1644905257783219200,2022-02-15-06:07:37,10.1.1.2,28,0.070,0.070,0.070,0.000,0.000,0.000
1644905257842778880,2022-02-15-06:07:37,10.1.1.2,37,0.080,0.080,0.080,0.000,0.000,0.000
1644905257883470080,2022-02-15-06:07:37,10.1.1.2,24,0.090,0.090,0.090,0.000,0.000,0.000
1644905257944911104,2022-02-15-06:07:37,10.1.1.2,30,0.100,0.100,0.100,0.000,0.000,0.000
1644905258002721024,2022-02-15-06:07:38,10.1.1.2,35,0.090,0.090,0.090,0.000,0.000,0.000
1644905258042582016,2022-02-15-06:07:38,10.1.1.2,24,0.080,0.080,0.080,0.000,0.000,0.000
1644905258102777088,2022-02-15-06:07:38,10.1.1.2,34,0.070,0.070,0.070,0.000,0.000,0.000
1644905258143130112,2022-02-15-06:07:38,10.1.1.2,23,0.060,0.060,0.060,0.000,0.000,0.000
1644905258206499072,2022-02-15-06:07:38,10.1.1.2,36,0.050,0.050,0.050,0.000,0.000,0.000
1644905258242894848,2022-02-15-06:07:38,10.1.1.2,22,0.040,0.040,0.040,0.000,0.000,0.000
1644905258303023104,2022-02-15-06:07:38,10.1.1.2,32,0.030,0.030,0.030,0.000,0.000,0.000
1644905258342889984,2022-02-15-06:07:38,10.1.1.2,21,0.020,0.020,0.020,0.000,0.000,0.000
1644905258402940928,2022-02-15-06:07:38,10.1.1.2,31,0.010,0.010,0.010,0.000,0.000,0.000
1644905258442661120,2022-02-15-06:07:38,10.1.1.2,20,0.000,0.000,0.000,0.000,0.000,0.000
1644905258495211008,2022-02-15-06:07:38,10.1.1.2,21,-0.010,-0.010,-0.010,0.000,0.000,0.000
1644905258563645952,2022-02-15-06:07:38,10.1.1.2,38,-0.020,-0.020,-0.020,0.000,0.000,0.000
1644905258603102976,2022-02-15-06:07:38,10.1.1.2,27,-0.030,-0.030,-0.030,0.000,0.000,0.000
1644905258662582016,2022-02-15-06:07:38,10.1.1.2,36,-0.040,-0.040,-0.040,0.000,0.000,0.000
1644905258702841088,2022-02-15-06:07:38,10.1.1.2,25,-0.050,-0.050,-0.050,0.000,0.000,0.000
1644905258763226880,2022-02-15-06:07:38,10.1.1.2,34,-0.060,-0.060,-0.060,0.000,0.000,0.000
1644905258802656000,2022-02-15-06:07:38,10.1.1.2,23,-0.070,-0.070,-0.070,0.000,0.000,0.000
1644905258862845952,2022-02-15-06:07:38,10.1.1.2,32,-0.080,-0.080,-0.080,0.000,0.000,0.000
1644905258902892032,2022-02-15-06:07:38,10.1.1.2,21,-0.090,-0.090,-0.090,0.000,0.000,0.000
1644905258962713856,2022-02-15-06:07:38,10.1.1.2,30,-0.100,-0.100,-0.100,0.000,0.000,0.000
1644905259023233792,2022-02-15-06:07:39,10.1.1.2,38,-0.090,-0.090,-0.090,0.000,0.000,0.000
1644905259063482112,2022-02-15-06:07:39,10.1.1.2,25,-0.080,-0.080,-0.080,0.000,0.000,0.000
1644905259123009024,2022-02-15-06:07:39,10.1.1.2,34,-0.070,-0.070,-0.070,0.000,0.000,0.000
1644905259163363072,2022-02-15-06:07:39,10.1.1.2,22,-0.060,-0.060,-0.060,0.000,0.000,0.000
1644905259222900992,2022-02-15-06:07:39,10.1.1.2,31,-0.050,-0.050,-0.050,0.000,0.000,0.000
1644905259263678976,2022-02-15-06:07:39,10.1.1.2,20,-0.040,-0.040,-0.040,0.000,0.000,0.000
1644905259322951936,2022-02-15-06:07:39,10.1.1.2,25,-0.030,-0.030,-0.030,0.000,0.000,0.000
1644905259382704128,2022-02-15-06:07:39,10.1.1.2,34,-0.020,-0.020,-0.020,0.000,0.000,0.000
1644905259422924032,2022-02-15-06:07:39,10.1.1.2,24,-0.010,-0.010,-0.010,0.000,0.000,0.000
1644905259483794944,2022-02-15-06:07:39,10.1.1.2,32,0.000,0.000,0.000,0.000,0.000,0.000
1644905259522537984,2022-02-15-06:07:39,10.1.1.2,21,0.010,0.010,0.010,0.000,0.000,0.000
1644905259583578112,2022-02-15-06:07:39,10.1.1.2,30,0.020,0.020,0.020,0.000,0.000,0.000
1644905259643747072,2022-02-15-06:07:39,10.1.1.2,34,0.030,0.030,0.030,0.000,0.000,0.000
1644905259682786816,2022-02-15-06:07:39,10.1.1.2,21,0.040,0.040,0.040,0.000,0.000,0.000
1644905259743427072,2022-02-15-06:07:39,10.1.1.2,31,0.050,0.050,0.050,0.000,0.000,0.000
1644905259803170048,2022-02-15-06:07:39,10.1.1.2,38,0.060,0.060,0.060,0.000,0.000,0.000
1644905259842736128,2022-02-15-06:07:39,10.1.1.2,26,0.070,0.070,0.070,0.000,0.000,0.000
1644905259903060992,2022-02-15-06:07:39,10.1.1.2,34,0.080,0.080,0.080,0.000,0.000,0.000
1644905259943380992,2022-02-15-06:07:39,10.1.1.2,23,0.090,0.090,0.090,0.000,0.000,0.000
1644905260002752000,2022-02-15-06:07:40,10.1.1.2,33,0.100,0.100,0.100,0.000,0.000,0.000
1644905260045491968,2022-02-15-06:07:40,10.1.1.2,22,0.090,0.090,0.090,0.000,0.000,0.000
1644905260104674048,2022-02-15-06:07:40,10.1.1.2,25,0.080,0.080,0.080,0.000,0.000,0.000
1644905260163314944,2022-02-15-06:07:40,10.1.1.2,34,0.070,0.070,0.070,0.000,0.000,0.000
1644905260203383040,2022-02-15-06:07:40,10.1.1.2,24,0.060,0.060,0.060,0.000,0.000,0.000
1644905260263320064,2022-02-15-06:07:40,10.1.1.2,33,0.050,0.050,0.050,0.000,0.000,0.000
1644905260302951168,2022-02-15-06:07:40,10.1.1.2,22,0.040,0.040,0.040,0.000,0.000,0.000
1644905260363341056,2022-02-15-06:07:40,10.1.1.2,32,0.030,0.030,0.030,0.000,0.000,0.000
1644905260403044864,2022-02-15-06:07:40,10.1.1.2,21,0.020,0.020,0.020,0.000,0.000,0.000
1644905260463085824,2022-02-15-06:07:40,10.1.1.2,30,0.010,0.010,0.010,0.000,0.000,0.000
1644905260584184832,2022-02-15-06:07:40,10.1.1.2,37,-0.010,-0.010,-0.010,0.000,0.000,0.000
1644905260643098112,2022-02-15-06:07:40,10.1.1.2,39,-0.020,-0.020,-0.020,0.000,0.000,0.000
1644905260682750976,2022-02-15-06:07:40,10.1.1.2,28,-0.030,-0.030,-0.030,0.000,0.000,0.000
1644905260743097088,2022-02-15-06:07:40,10.1.1.2,37,-0.040,-0.040,-0.040,0.000,0.000,0.000
1644905260783406848,2022-02-15-06:07:40,10.1.1.2,26,-0.050,-0.050,-0.050,0.000,0.000,0.000
1644905260842971136,2022-02-15-06:07:40,10.1.1.2,36,-0.060,-0.060,-0.060,0.000,0.000,0.000
1644905260882721024,2022-02-15-06:07:40,10.1.1.2,26,-0.070,-0.070,-0.070,0.000,0.000,0.000
1644905260943311104,2022-02-15-06:07:40,10.1.1.2,35,-0.080,-0.080,-0.080,0.000,0.000,0.000
1644905260982707968,2022-02-15-06:07:40,10.1.1.2,24,-0.090,-0.090,-0.090,0.000,0.000,0.000
1644905261042749952,2022-02-15-06:07:41,10.1.1.2,34,-0.100,-0.100,-0.100,0.000,0.000,0.000
1644905261082851840,2022-02-15-06:07:41,10.1.1.2,23,-0.090,-0.090,-0.090,0.000,0.000,0.000
1644905261143016192,2022-02-15-06:07:41,10.1.1.2,33,-0.080,-0.080,-0.080,0.000,0.000,0.000
1644905261182992896,2022-02-15-06:07:41,10.1.1.2,23,-0.070,-0.070,-0.070,0.000,0.000,0.000
1644905261243554048,2022-02-15-06:07:41,10.1.1.2,32,-0.060,-0.060,-0.060,0.000,0.000,0.000
1644905261283346944,2022-02-15-06:07:41,10.1.1.2,21,-0.050,-0.050,-0.050,0.000,0.000,0.000
1644905261343676928,2022-02-15-06:07:41,10.1.1.2,31,-0.040,-0.040,-0.040,0.000,0.000,0.000
1644905261382440192,2022-02-15-06:07:41,10.1.1.2,18,-0.031,-0.031,-0.031,0.000,0.000,0.000
1644905261443130880,2022-02-15-06:07:41,10.1.1.2,24,-0.020,-0.020,-0.020,0.000,0.000,0.000
1644905261502897152,2022-02-15-06:07:41,10.1.1.2,30,-0.010,-0.010,-0.010,0.000,0.000,0.000
1644905261543087872,2022-02-15-06:07:41,10.1.1.2,19,-0.000,-0.000,-0.000,0.000,0.000,0.000
1644905261603291136,2022-02-15-06:07:41,10.1.1.2,28,0.010,0.010,0.010,0.000,0.000,0.000
1644905261663141888,2022-02-15-06:07:41,10.1.1.2,37,0.020,0.020,0.020,0.000,0.000,0.000
1644905261703129088,2022-02-15-06:07:41,10.1.1.2,27,0.030,0.030,0.030,0.000,0.000,0.000
1644905261762938112,2022-02-15-06:07:41,10.1.1.2,36,0.040,0.040,0.040,0.000,0.000,0.000
1644905261803344896,2022-02-15-06:07:41,10.1.1.2,24,0.050,0.050,0.050,0.000,0.000,0.000
1644905261862579200,2022-02-15-06:07:41,10.1.1.2,34,0.060,0.060,0.060,0.000,0.000,0.000
1644905261903132928,2022-02-15-06:07:41,10.1.1.2,22,0.070,0.070,0.070,0.000,0.000,0.000
1644905261962924032,2022-02-15-06:07:41,10.1.1.2,32,0.080,0.080,0.080,0.000,0.000,0.000
1644905262002862848,2022-02-15-06:07:42,10.1.1.2,22,0.090,0.090,0.090,0.000,0.000,0.000
1644905262062728960,2022-02-15-06:07:42,10.1.1.2,31,0.100,0.100,0.100,0.000,0.000,0.000
1644905262103581952,2022-02-15-06:07:42,10.1.1.2,20,0.090,0.090,0.090,0.000,0.000,0.000
1644905262162873088,2022-02-15-06:07:42,10.1.1.2,30,0.080,0.080,0.080,0.000,0.000,0.000
1644905262202483968,2022-02-15-06:07:42,10.1.1.2,18,0.071,0.071,0.071,0.000,0.000,0.000
1644905262263112192,2022-02-15-06:07:42,10.1.1.2,27,0.060,0.060,0.060,0.000,0.000,0.000
1644905262322625024,2022-02-15-06:07:42,10.1.1.2,35,0.050,0.050,0.050,0.000,0.000,0.000
1644905262363275008,2022-02-15-06:07:42,10.1.1.2,24,0.040,0.040,0.040,0.000,0.000,0.000
1644905262422984960,2022-02-15-06:07:42,10.1.1.2,34,0.030,0.030,0.030,0.000,0.000,0.000
1644905262462533120,2022-02-15-06:07:42,10.1.1.2,23,0.020,0.020,0.020,0.000,0.000,0.000
1644905262522520064,2022-02-15-06:07:42,10.1.1.2,31,0.010,0.010,0.010,0.000,0.000,0.000
1644905262562923008,2022-02-15-06:07:42,10.1.1.2,20,0.000,0.000,0.000,0.000,0.000,0.000
1644905262622342144,2022-02-15-06:07:42,10.1.1.2,29,-0.010,-0.010,-0.010,0.000,0.000,0.000
1644905262662691072,2022-02-15-06:07:42,10.1.1.2,19,-0.019,-0.019,-0.019,0.000,0.000,0.000
1644905262722841088,2022-02-15-06:07:42,10.1.1.2,28,-0.030,-0.030,-0.030,0.000,0.000,0.000
1644905262783409152,2022-02-15-06:07:42,10.1.1.2,38,-0.040,-0.040,-0.040,0.000,0.000,0.000
1644905262822496768,2022-02-15-06:07:42,10.1.1.2,25,-0.050,-0.050,-0.050,0.000,0.000,0.000
1644905262883214848,2022-02-15-06:07:42,10.1.1.2,35,-0.060,-0.060,-0.060,0.000,0.000,0.000
1644905262922915840,2022-02-15-06:07:42,10.1.1.2,24,-0.070,-0.070,-0.070,0.000,0.000,0.000
1644905262983624960,2022-02-15-06:07:42,10.1.1.2,33,-0.080,-0.080,-0.080,0.000,0.000,0.000
1644905263022617088,2022-02-15-06:07:43,10.1.1.2,22,-0.090,-0.090,-0.090,0.000,0.000,0.000
1644905263082722048,2022-02-15-06:07:43,10.1.1.2,32,-0.100,-0.100,-0.100,0.000,0.000,0.000
1644905263122626048,2022-02-15-06:07:43,10.1.1.2,21,-0.090,-0.090,-0.090,0.000,0.000,0.000
1644905263182637824,2022-02-15-06:07:43,10.1.1.2,30,-0.080,-0.080,-0.080,0.000,0.000,0.000
1644905263222739968,2022-02-15-06:07:43,10.1.1.2,20,-0.070,-0.070,-0.070,0.000,0.000,0.000
1644905263283195136,2022-02-15-06:07:43,10.1.1.2,29,-0.060,-0.060,-0.060,0.000,0.000,0.000
1644905263343128064,2022-02-15-06:07:43,10.1.1.2,38,-0.050,-0.050,-0.050,0.000,0.000,0.000
1644905263382806016,2022-02-15-06:07:43,10.1.1.2,28,-0.040,-0.040,-0.040,0.000,0.000,0.000
1644905263442867968,2022-02-15-06:07:43,10.1.1.2,36,-0.030,-0.030,-0.030,0.000,0.000,0.000
1644905263482460928,2022-02-15-06:07:43,10.1.1.2,25,-0.020,-0.020,-0.020,0.000,0.000,0.000
1644905263542818048,2022-02-15-06:07:43,10.1.1.2,34,-0.010,-0.010,-0.010,0.000,0.000,0.000
1644905263583149824,2022-02-15-06:07:43,10.1.1.2,22,0.000,0.000,0.000,0.000,0.000,0.000
1644905263642716928,2022-02-15-06:07:43,10.1.1.2,32,0.010,0.010,0.010,0.000,0.000,0.000
1644905263684212992,2022-02-15-06:07:43,10.1.1.2,21,0.020,0.020,0.020,0.000,0.000,0.000
1644905263743303168,2022-02-15-06:07:43,10.1.1.2,29,0.030,0.030,0.030,0.000,0.000,0.000
1644905263805169152,2022-02-15-06:07:43,10.1.1.2,38,0.040,0.040,0.040,0.000,0.000,0.000
1644905263843214080,2022-02-15-06:07:43,10.1.1.2,20,0.050,0.050,0.050,0.000,0.000,0.000
1644905263903383040,2022-02-15-06:07:43,10.1.1.2,29,0.060,0.060,0.060,0.000,0.000,0.000
1644905263962708992,2022-02-15-06:07:43,10.1.1.2,37,0.070,0.070,0.070,0.000,0.000,0.000
1644905264003261952,2022-02-15-06:07:44,10.1.1.2,27,0.080,0.080,0.080,0.000,0.000,0.000
1644905264063760128,2022-02-15-06:07:44,10.1.1.2,36,0.090,0.090,0.090,0.000,0.000,0.000
1644905264103579904,2022-02-15-06:07:44,10.1.1.2,25,0.100,0.100,0.100,0.000,0.000,0.000
1644905264162766080,2022-02-15-06:07:44,10.1.1.2,33,0.090,0.090,0.090,0.000,0.000,0.000
1644905264203564800,2022-02-15-06:07:44,10.1.1.2,22,0.080,0.080,0.080,0.000,0.000,0.000
1644905264263628032,2022-02-15-06:07:44,10.1.1.2,28,0.070,0.070,0.070,0.000,0.000,0.000
1644905264322791936,2022-02-15-06:07:44,10.1.1.2,37,0.060,0.060,0.060,0.000,0.000,0.000
1644905264363432960,2022-02-15-06:07:44,10.1.1.2,27,0.050,0.050,0.050,0.000,0.000,0.000
1644905264422830080,2022-02-15-06:07:44,10.1.1.2,35,0.040,0.040,0.040,0.000,0.000,0.000
1644905264464024064,2022-02-15-06:07:44,10.1.1.2,25,0.030,0.030,0.030,0.000,0.000,0.000
1644905264523102976,2022-02-15-06:07:44,10.1.1.2,34,0.020,0.020,0.020,0.000,0.000,0.000
1644905264562854912,2022-02-15-06:07:44,10.1.1.2,22,0.010,0.010,0.010,0.000,0.000,0.000
1644905264623096832,2022-02-15-06:07:44,10.1.1.2,30,0.000,0.000,0.000,0.000,0.000,0.000
1644905264663030016,2022-02-15-06:07:44,10.1.1.2,19,-0.009,-0.009,-0.009,0.000,0.000,0.000
1644905264722845952,2022-02-15-06:07:44,10.1.1.2,28,-0.020,-0.020,-0.020,0.000,0.000,0.000
1644905264782998016,2022-02-15-06:07:44,10.1.1.2,35,-0.030,-0.030,-0.030,0.000,0.000,0.000
1644905264822788096,2022-02-15-06:07:44,10.1.1.2,23,-0.040,-0.040,-0.040,0.000,0.000,0.000
1644905264882405120,2022-02-15-06:07:44,10.1.1.2,32,-0.050,-0.050,-0.050,0.000,0.000,0.000
1644905264923088128,2022-02-15-06:07:44,10.1.1.2,22,-0.060,-0.060,-0.060,0.000,0.000,0.000
1644905264983243008,2022-02-15-06:07:44,10.1.1.2,31,-0.070,-0.070,-0.070,0.000,0.000,0.000
1644905265022636032,2022-02-15-06:07:45,10.1.1.2,21,-0.080,-0.080,-0.080,0.000,0.000,0.000
1644905265082573056,2022-02-15-06:07:45,10.1.1.2,29,-0.090,-0.090,-0.090,0.000,0.000,0.000
1644905265144078080,2022-02-15-06:07:45,10.1.1.2,38,-0.100,-0.100,-0.100,0.000,0.000,0.000
1644905265182661120,2022-02-15-06:07:45,10.1.1.2,26,-0.090,-0.090,-0.090,0.000,0.000,0.000
1644905265243298048,2022-02-15-06:07:45,10.1.1.2,36,-0.080,-0.080,-0.080,0.000,0.000,0.000
1644905265282582016,2022-02-15-06:07:45,10.1.1.2,25,-0.070,-0.070,-0.070,0.000,0.000,0.000
1644905265342905088,2022-02-15-06:07:45,10.1.1.2,35,-0.060,-0.060,-0.060,0.000,0.000,0.000
1644905265383540992,2022-02-15-06:07:45,10.1.1.2,23,-0.050,-0.050,-0.050,0.000,0.000,0.000
1644905265446668032,2022-02-15-06:07:45,10.1.1.2,33,-0.040,-0.040,-0.040,0.000,0.000,0.000
1644905265483346944,2022-02-15-06:07:45,10.1.1.2,21,-0.030,-0.030,-0.030,0.000,0.000,0.000
1644905265542475008,2022-02-15-06:07:45,10.1.1.2,30,-0.020,-0.020,-0.020,0.000,0.000,0.000
1644905265582878976,2022-02-15-06:07:45,10.1.1.2,19,-0.010,-0.010,-0.010,0.000,0.000,0.000
1644905265643134976,2022-02-15-06:07:45,10.1.1.2,29,0.000,0.000,0.000,0.000,0.000,0.000
1644905265702974208,2022-02-15-06:07:45,10.1.1.2,38,0.010,0.010,0.010,0.000,0.000,0.000
1644905265743313152,2022-02-15-06:07:45,10.1.1.2,28,0.020,0.020,0.020,0.000,0.000,0.000
1644905265803296000,2022-02-15-06:07:45,10.1.1.2,36,0.030,0.030,0.030,0.000,0.000,0.000
1644905265842897920,2022-02-15-06:07:45,10.1.1.2,25,0.040,0.040,0.040,0.000,0.000,0.000
1644905265903266816,2022-02-15-06:07:45,10.1.1.2,35,0.050,0.050,0.050,0.000,0.000,0.000
1644905265942998016,2022-02-15-06:07:45,10.1.1.2,25,0.060,0.060,0.060,0.000,0.000,0.000
1644905266003237120,2022-02-15-06:07:46,10.1.1.2,34,0.070,0.070,0.070,0.000,0.000,0.000
1644905266043556864,2022-02-15-06:07:46,10.1.1.2,23,0.080,0.080,0.080,0.000,0.000,0.000
1644905266103187968,2022-02-15-06:07:46,10.1.1.2,31,0.090,0.090,0.090,0.000,0.000,0.000
1644905266143372032,2022-02-15-06:07:46,10.1.1.2,20,0.100,0.100,0.100,0.000,0.000,0.000
1644905266202761984,2022-02-15-06:07:46,10.1.1.2,30,0.090,0.090,0.090,0.000,0.000,0.000
1644905266262407936,2022-02-15-06:07:46,10.1.1.2,38,0.080,0.080,0.080,0.000,0.000,0.000
1644905266302777088,2022-02-15-06:07:46,10.1.1.2,28,0.070,0.070,0.070,0.000,0.000,0.000
1644905266362893056,2022-02-15-06:07:46,10.1.1.2,37,0.060,0.060,0.060,0.000,0.000,0.000
1644905266402968832,2022-02-15-06:07:46,10.1.1.2,26,0.050,0.050,0.050,0.000,0.000,0.000
1644905266463315968,2022-02-15-06:07:46,10.1.1.2,35,0.040,0.040,0.040,0.000,0.000,0.000
1644905266502557952,2022-02-15-06:07:46,10.1.1.2,24,0.030,0.030,0.030,0.000,0.000,0.000
1644905266562701056,2022-02-15-06:07:46,10.1.1.2,32,0.020,0.020,0.020,0.000,0.000,0.000
1644905266603108864,2022-02-15-06:07:46,10.1.1.2,20,0.010,0.010,0.010,0.000,0.000,0.000
1644905266662915840,2022-02-15-06:07:46,10.1.1.2,29,0.000,0.000,0.000,0.000,0.000,0.000
1644905266723369984,2022-02-15-06:07:46,10.1.1.2,38,-0.010,-0.010,-0.010,0.000,0.000,0.000
1644905266764694016,2022-02-15-06:07:46,10.1.1.2,25,-0.020,-0.020,-0.020,0.000,0.000,0.000
1644905266823215872,2022-02-15-06:07:46,10.1.1.2,34,-0.030,-0.030,-0.030,0.000,0.000,0.000
1644905266863298816,2022-02-15-06:07:46,10.1.1.2,22,-0.040,-0.040,-0.040,0.000,0.000,0.000
1644905266923026944,2022-02-15-06:07:46,10.1.1.2,30,-0.050,-0.050,-0.050,0.000,0.000,0.000
1644905266963161856,2022-02-15-06:07:46,10.1.1.2,19,-0.060,-0.060,-0.060,0.000,0.000,0.000
1644905267022747136,2022-02-15-06:07:47,10.1.1.2,29,-0.070,-0.070,-0.070,0.000,0.000,0.000
1644905267083632896,2022-02-15-06:07:47,10.1.1.2,37,-0.080,-0.080,-0.080,0.000,0.000,0.000
1644905267123328000,2022-02-15-06:07:47,10.1.1.2,27,-0.090,-0.090,-0.090,0.000,0.000,0.000
1644905267183645952,2022-02-15-06:07:47,10.1.1.2,35,-0.100,-0.100,-0.100,0.000,0.000,0.000
1644905267223284992,2022-02-15-06:07:47,10.1.1.2,24,-0.090,-0.090,-0.090,0.000,0.000,0.000
1644905267284636928,2022-02-15-06:07:47,10.1.1.2,30,-0.080,-0.080,-0.080,0.000,0.000,0.000
1644905267349640960,2022-02-15-06:07:47,10.1.1.2,37,-0.070,-0.070,-0.070,0.000,0.000,0.000
1644905267383944960,2022-02-15-06:07:47,10.1.1.2,24,-0.060,-0.060,-0.060,0.000,0.000,0.000
1644905267442801920,2022-02-15-06:07:47,10.1.1.2,34,-0.050,-0.050,-0.050,0.000,0.000,0.000
1644905267483171840,2022-02-15-06:07:47,10.1.1.2,23,-0.040,-0.040,-0.040,0.000,0.000,0.000
1644905267543490816,2022-02-15-06:07:47,10.1.1.2,32,-0.030,-0.030,-0.030,0.000,0.000,0.000
1644905267582907904,2022-02-15-06:07:47,10.1.1.2,21,-0.020,-0.020,-0.020,0.000,0.000,0.000
1644905267643116032,2022-02-15-06:07:47,10.1.1.2,29,-0.010,-0.010,-0.010,0.000,0.000,0.000
1644905267702981888,2022-02-15-06:07:47,10.1.1.2,38,0.000,0.000,0.000,0.000,0.000,0.000
1644905267743047936,2022-02-15-06:07:47,10.1.1.2,27,0.010,0.010,0.010,0.000,0.000,0.000
1644905267803186944,2022-02-15-06:07:47,10.1.1.2,36,0.020,0.020,0.020,0.000,0.000,0.000
1644905267843693056,2022-02-15-06:07:47,10.1.1.2,25,0.030,0.030,0.030,0.000,0.000,0.000
1644905267903571968,2022-02-15-06:07:47,10.1.1.2,32,0.040,0.040,0.040,0.000,0.000,0.000
1644905267944406016,2022-02-15-06:07:47,10.1.1.2,21,0.050,0.050,0.050,0.000,0.000,0.000
1644905268004475136,2022-02-15-06:07:48,10.1.1.2,30,0.060,0.060,0.060,0.000,0.000,0.000
1644905268063309824,2022-02-15-06:07:48,10.1.1.2,38,0.070,0.070,0.070,0.000,0.000,0.000
1644905268103676160,2022-02-15-06:07:48,10.1.1.2,26,0.080,0.080,0.080,0.000,0.000,0.000
1644905268162908160,2022-02-15-06:07:48,10.1.1.2,34,0.090,0.090,0.090,0.000,0.000,0.000
1644905268202866176,2022-02-15-06:07:48,10.1.1.2,23,0.100,0.100,0.100,0.000,0.000,0.000
1644905268263087872,2022-02-15-06:07:48,10.1.1.2,28,0.090,0.090,0.090,0.000,0.000,0.000
1644905268323183104,2022-02-15-06:07:48,10.1.1.2,37,0.080,0.080,0.080,0.000,0.000,0.000
1644905268363194880,2022-02-15-06:07:48,10.1.1.2,26,0.070,0.070,0.070,0.000,0.000,0.000
1644905268423001088,2022-02-15-06:07:48,10.1.1.2,34,0.060,0.060,0.060,0.000,0.000,0.000
1644905268463172864,2022-02-15-06:07:48,10.1.1.2,21,0.050,0.050,0.050,0.000,0.000,0.000
1644905268582868224,2022-02-15-06:07:48,10.1.1.2,33,0.030,0.030,0.030,0.000,0.000,0.000
1644905268623339776,2022-02-15-06:07:48,10.1.1.2,22,0.020,0.020,0.020,0.000,0.000,0.000
1644905268683968000,2022-02-15-06:07:48,10.1.1.2,29,0.010,0.010,0.010,0.000,0.000,0.000
1644905268743200000,2022-02-15-06:07:48,10.1.1.2,38,0.000,0.000,0.000,0.000,0.000,0.000
1644905268783511040,2022-02-15-06:07:48,10.1.1.2,27,-0.010,-0.010,-0.010,0.000,0.000,0.000
1644905268843187200,2022-02-15-06:07:48,10.1.1.2,36,-0.020,-0.020,-0.020,0.000,0.000,0.000
1644905268882568960,2022-02-15-06:07:48,10.1.1.2,25,-0.030,-0.030,-0.030,0.000,0.000,0.000
1644905268943094016,2022-02-15-06:07:48,10.1.1.2,34,-0.040,-0.040,-0.040,0.000,0.000,0.000
1644905268983086080,2022-02-15-06:07:48,10.1.1.2,22,-0.050,-0.050,-0.050,0.000,0.000,0.000
1644905269042918912,2022-02-15-06:07:49,10.1.1.2,32,-0.060,-0.060,-0.060,0.000,0.000,0.000
1644905269083512064,2022-02-15-06:07:49,10.1.1.2,21,-0.070,-0.070,-0.070,0.000,0.000,0.000
1644905269143224832,2022-02-15-06:07:49,10.1.1.2,30,-0.080,-0.080,-0.080,0.000,0.000,0.000
1644905269203881984,2022-02-15-06:07:49,10.1.1.2,37,-0.090,-0.090,-0.090,0.000,0.000,0.000
1644905269243398912,2022-02-15-06:07:49,10.1.1.2,26,-0.100,-0.100,-0.100,0.000,0.000,0.000
1644905269303056896,2022-02-15-06:07:49,10.1.1.2,34,-0.090,-0.090,-0.090,0.000,0.000,0.000
1644905269343183872,2022-02-15-06:07:49,10.1.1.2,22,-0.080,-0.080,-0.080,0.000,0.000,0.000
1644905269403333888,2022-02-15-06:07:49,10.1.1.2,32,-0.070,-0.070,-0.070,0.000,0.000,0.000
1644905269443147008,2022-02-15-06:07:49,10.1.1.2,20,-0.060,-0.060,-0.060,0.000,0.000,0.000
1644905269503053824,2022-02-15-06:07:49,10.1.1.2,28,-0.050,-0.050,-0.050,0.000,0.000,0.000
1644905269562712832,2022-02-15-06:07:49,10.1.1.2,34,-0.040,-0.040,-0.040,0.000,0.000,0.000
1644905269603482112,2022-02-15-06:07:49,10.1.1.2,23,-0.030,-0.030,-0.030,0.000,0.000,0.000
1644905269663817984,2022-02-15-06:07:49,10.1.1.2,31,-0.020,-0.020,-0.020,0.000,0.000,0.000
1644905269702718976,2022-02-15-06:07:49,10.1.1.2,20,-0.010,-0.010,-0.010,0.000,0.000,0.000
1644905269763816960,2022-02-15-06:07:49,10.1.1.2,29,0.000,0.000,0.000,0.000,0.000,0.000
1644905269823599104,2022-02-15-06:07:49,10.1.1.2,38,0.010,0.010,0.010,0.000,0.000,0.000
1644905269863457024,2022-02-15-06:07:49,10.1.1.2,27,0.020,0.020,0.020,0.000,0.000,0.000
1644905269922780160,2022-02-15-06:07:49,10.1.1.2,36,0.030,0.030,0.030,0.000,0.000,0.000
1644905269963248896,2022-02-15-06:07:49,10.1.1.2,25,0.040,0.040,0.040,0.000,0.000,0.000
1644905270022912000,2022-02-15-06:07:50,10.1.1.2,35,0.050,0.050,0.050,0.000,0.000,0.000
1644905270063517184,2022-02-15-06:07:50,10.1.1.2,24,0.060,0.060,0.060,0.000,0.000,0.000
1644905270123065856,2022-02-15-06:07:50,10.1.1.2,32,0.070,0.070,0.070,0.000,0.000,0.000
1644905270162691072,2022-02-15-06:07:50,10.1.1.2,22,0.080,0.080,0.080,0.000,0.000,0.000
1644905270223375104,2022-02-15-06:07:50,10.1.1.2,31,0.090,0.090,0.090,0.000,0.000,0.000
1644905270262803200,2022-02-15-06:07:50,10.1.1.2,21,0.100,0.100,0.100,0.000,0.000,0.000
1644905270322830080,2022-02-15-06:07:50,10.1.1.2,30,0.090,0.090,0.090,0.000,0.000,0.000
1644905270363138048,2022-02-15-06:07:50,10.1.1.2,19,0.080,0.080,0.080,0.000,0.000,0.000
1644905270422914048,2022-02-15-06:07:50,10.1.1.2,28,0.070,0.070,0.070,0.000,0.000,0.000
1644905270484261888,2022-02-15-06:07:50,10.1.1.2,36,0.060,0.060,0.060,0.000,0.000,0.000
1644905270523341056,2022-02-15-06:07:50,10.1.1.2,26,0.050,0.050,0.050,0.000,0.000,0.000
1644905270583368960,2022-02-15-06:07:50,10.1.1.2,35,0.040,0.040,0.040,0.000,0.000,0.000
1644905270623873024,2022-02-15-06:07:50,10.1.1.2,25,0.030,0.030,0.030,0.000,0.000,0.000
1644905270683013888,2022-02-15-06:07:50,10.1.1.2,34,0.020,0.020,0.020,0.000,0.000,0.000
1644905270723217920,2022-02-15-06:07:50,10.1.1.2,23,0.010,0.010,0.010,0.000,0.000,0.000
1644905270783708928,2022-02-15-06:07:50,10.1.1.2,33,0.000,0.000,0.000,0.000,0.000,0.000
1644905270824638976,2022-02-15-06:07:50,10.1.1.2,22,-0.010,-0.010,-0.010,0.000,0.000,0.000
1644905270883051008,2022-02-15-06:07:50,10.1.1.2,31,-0.020,-0.020,-0.020,0.000,0.000,0.000
1644905270923409920,2022-02-15-06:07:50,10.1.1.2,20,-0.030,-0.030,-0.030,0.000,0.000,0.000
1644905270982739968,2022-02-15-06:07:50,10.1.1.2,29,-0.040,-0.040,-0.040,0.000,0.000,0.000
1644905271043051008,2022-02-15-06:07:51,10.1.1.2,38,-0.050,-0.050,-0.050,0.000,0.000,0.000
1644905271083172096,2022-02-15-06:07:51,10.1.1.2,27,-0.060,-0.060,-0.060,0.000,0.000,0.000
1644905271144349952,2022-02-15-06:07:51,10.1.1.2,37,-0.070,-0.070,-0.070,0.000,0.000,0.000
1644905271182843904,2022-02-15-06:07:51,10.1.1.2,26,-0.080,-0.080,-0.080,0.000,0.000,0.000
1644905271243769856,2022-02-15-06:07:51,10.1.1.2,35,-0.090,-0.090,-0.090,0.000,0.000,0.000
1644905271282984960,2022-02-15-06:07:51,10.1.1.2,24,-0.100,-0.100,-0.100,0.000,0.000,0.000
1644905271343305216,2022-02-15-06:07:51,10.1.1.2,33,-0.090,-0.090,-0.090,0.000,0.000,0.000
1644905271383148800,2022-02-15-06:07:51,10.1.1.2,22,-0.080,-0.080,-0.080,0.000,0.000,0.000
1644905271443566080,2022-02-15-06:07:51,10.1.1.2,30,-0.070,-0.070,-0.070,0.000,0.000,0.000
1644905271503674112,2022-02-15-06:07:51,10.1.1.2,38,-0.060,-0.060,-0.060,0.000,0.000,0.000
1644905271545227008,2022-02-15-06:07:51,10.1.1.2,28,-0.050,-0.050,-0.050,0.000,0.000,0.000
1644905271603138816,2022-02-15-06:07:51,10.1.1.2,37,-0.040,-0.040,-0.040,0.000,0.000,0.000
1644905271642843136,2022-02-15-06:07:51,10.1.1.2,25,-0.030,-0.030,-0.030,0.000,0.000,0.000
1644905271703725056,2022-02-15-06:07:51,10.1.1.2,34,-0.020,-0.020,-0.020,0.000,0.000,0.000
1644905271743432960,2022-02-15-06:07:51,10.1.1.2,22,-0.010,-0.010,-0.010,0.000,0.000,0.000
1644905271803994880,2022-02-15-06:07:51,10.1.1.2,32,0.000,0.000,0.000,0.000,0.000,0.000
1644905271843290112,2022-02-15-06:07:51,10.1.1.2,21,0.010,0.010,0.010,0.000,0.000,0.000
1644905271904866816,2022-02-15-06:07:51,10.1.1.2,30,0.020,0.020,0.020,0.000,0.000,0.000
1644905271962647040,2022-02-15-06:07:51,10.1.1.2,38,0.030,0.030,0.030,0.000,0.000,0.000
1644905272003488000,2022-02-15-06:07:52,10.1.1.2,27,0.040,0.040,0.040,0.000,0.000,0.000
1644905272062726144,2022-02-15-06:07:52,10.1.1.2,36,0.050,0.050,0.050,0.000,0.000,0.000
1644905272103617024,2022-02-15-06:07:52,10.1.1.2,25,0.060,0.060,0.060,0.000,0.000,0.000
1644905272163051008,2022-02-15-06:07:52,10.1.1.2,34,0.070,0.070,0.070,0.000,0.000,0.000
1644905272203446016,2022-02-15-06:07:52,10.1.1.2,20,0.080,0.080,0.080,0.000,0.000,0.000
1644905272263164928,2022-02-15-06:07:52,10.1.1.2,24,0.090,0.090,0.090,0.000,0.000,0.000
1644905272322755072,2022-02-15-06:07:52,10.1.1.2,34,0.100,0.100,0.100,0.000,0.000,0.000
1644905272364387072,2022-02-15-06:07:52,10.1.1.2,22,0.090,0.090,0.090,0.000,0.000,0.000
1644905272423075072,2022-02-15-06:07:52,10.1.1.2,31,0.080,0.080,0.080,0.000,0.000,0.000
1644905272463404032,2022-02-15-06:07:52,10.1.1.2,20,0.070,0.070,0.070,0.000,0.000,0.000
1644905272523080960,2022-02-15-06:07:52,10.1.1.2,28,0.060,0.060,0.060,0.000,0.000,0.000
1644905272583174912,2022-02-15-06:07:52,10.1.1.2,37,0.050,0.050,0.050,0.000,0.000,0.000
1644905272623369984,2022-02-15-06:07:52,10.1.1.2,27,0.040,0.040,0.040,0.000,0.000,0.000
1644905272684195072,2022-02-15-06:07:52,10.1.1.2,36,0.030,0.030,0.030,0.000,0.000,0.000
1644905272723192832,2022-02-15-06:07:52,10.1.1.2,25,0.020,0.020,0.020,0.000,0.000,0.000
1644905272783602944,2022-02-15-06:07:52,10.1.1.2,34,0.010,0.010,0.010,0.000,0.000,0.000
1644905272823303936,2022-02-15-06:07:52,10.1.1.2,23,0.000,0.000,0.000,0.000,0.000,0.000
1644905272883375872,2022-02-15-06:07:52,10.1.1.2,33,-0.010,-0.010,-0.010,0.000,0.000,0.000
1644905272923012096,2022-02-15-06:07:52,10.1.1.2,22,-0.020,-0.020,-0.020,0.000,0.000,0.000
1644905272983017984,2022-02-15-06:07:52,10.1.1.2,31,-0.030,-0.030,-0.030,0.000,0.000,0.000
1644905273023102976,2022-02-15-06:07:53,10.1.1.2,20,-0.040,-0.040,-0.040,0.000,0.000,0.000
1644905273083364864,2022-02-15-06:07:53,10.1.1.2,29,-0.050,-0.050,-0.050,0.000,0.000,0.000
1644905273144716032,2022-02-15-06:07:53,10.1.1.2,38,-0.060,-0.060,-0.060,0.000,0.000,0.000
1644905273184515840,2022-02-15-06:07:53,10.1.1.2,26,-0.070,-0.070,-0.070,0.000,0.000,0.000
1644905273243473152,2022-02-15-06:07:53,10.1.1.2,33,-0.080,-0.080,-0.080,0.000,0.000,0.000
1644905273283390976,2022-02-15-06:07:53,10.1.1.2,23,-0.090,-0.090,-0.090,0.000,0.000,0.000
1644905273344077056,2022-02-15-06:07:53,10.1.1.2,32,-0.100,-0.100,-0.100,0.000,0.000,0.000
1644905273403624960,2022-02-15-06:07:53,10.1.1.2,37,-0.090,-0.090,-0.090,0.000,0.000,0.000
1644905273443859968,2022-02-15-06:07:53,10.1.1.2,26,-0.080,-0.080,-0.080,0.000,0.000,0.000
1644905273503447040,2022-02-15-06:07:53,10.1.1.2,36,-0.070,-0.070,-0.070,0.000,0.000,0.000
1644905273543889920,2022-02-15-06:07:53,10.1.1.2,25,-0.060,-0.060,-0.060,0.000,0.000,0.000
1644905273602552064,2022-02-15-06:07:53,10.1.1.2,34,-0.050,-0.050,-0.050,0.000,0.000,0.000
1644905273643593984,2022-02-15-06:07:53,10.1.1.2,20,-0.040,-0.040,-0.040,0.000,0.000,0.000
1644905273703675904,2022-02-15-06:07:53,10.1.1.2,29,-0.030,-0.030,-0.030,0.000,0.000,0.000
1644905273762441984,2022-02-15-06:07:53,10.1.1.2,38,-0.020,-0.020,-0.020,0.000,0.000,0.000
1644905273802736896,2022-02-15-06:07:53,10.1.1.2,28,-0.010,-0.010,-0.010,0.000,0.000,0.000
1644905273862878976,2022-02-15-06:07:53,10.1.1.2,37,0.000,0.000,0.000,0.000,0.000,0.000
1644905273903738880,2022-02-15-06:07:53,10.1.1.2,26,0.010,0.010,0.010,0.000,0.000,0.000
1644905273963063040,2022-02-15-06:07:53,10.1.1.2,36,0.020,0.020,0.020,0.000,0.000,0.000
1644905274002963968,2022-02-15-06:07:54,10.1.1.2,25,0.030,0.030,0.030,0.000,0.000,0.000
1644905274063304960,2022-02-15-06:07:54,10.1.1.2,34,0.040,0.040,0.040,0.000,0.000,0.000
1644905274102547968,2022-02-15-06:07:54,10.1.1.2,24,0.050,0.050,0.050,0.000,0.000,0.000
1644905274162946816,2022-02-15-06:07:54,10.1.1.2,33,0.060,0.060,0.060,0.000,0.000,0.000
1644905274203520000,2022-02-15-06:07:54,10.1.1.2,23,0.070,0.070,0.070,0.000,0.000,0.000
1644905274263475968,2022-02-15-06:07:54,10.1.1.2,32,0.080,0.080,0.080,0.000,0.000,0.000
1644905274302989056,2022-02-15-06:07:54,10.1.1.2,22,0.090,0.090,0.090,0.000,0.000,0.000
1644905274362729984,2022-02-15-06:07:54,10.1.1.2,30,0.100,0.100,0.100,0.000,0.000,0.000
1644905274402792960,2022-02-15-06:07:54,10.1.1.2,20,0.090,0.090,0.090,0.000,0.000,0.000
1644905274462721024,2022-02-15-06:07:54,10.1.1.2,29,0.080,0.080,0.080,0.000,0.000,0.000
1644905274502893824,2022-02-15-06:07:54,10.1.1.2,18,0.071,0.071,0.071,0.000,0.000,0.000
1644905274562664960,2022-02-15-06:07:54,10.1.1.2,28,0.060,0.060,0.060,0.000,0.000,0.000
1644905274623593984,2022-02-15-06:07:54,10.1.1.2,37,0.050,0.050,0.050,0.000,0.000,0.000
1644905274677906944,2022-02-15-06:07:54,10.1.1.2,24,0.040,0.040,0.040,0.000,0.000,0.000
1644905274763550976,2022-02-15-06:07:54,10.1.1.2,20,0.020,0.020,0.020,0.000,0.000,0.000
1644905274823015936,2022-02-15-06:07:54,10.1.1.2,30,0.010,0.010,0.010,0.000,0.000,0.000
1644905274883970048,2022-02-15-06:07:54,10.1.1.2,38,0.000,0.000,0.000,0.000,0.000,0.000
1644905274922589952,2022-02-15-06:07:54,10.1.1.2,26,-0.010,-0.010,-0.010,0.000,0.000,0.000
1644905274983244032,2022-02-15-06:07:54,10.1.1.2,34,-0.020,-0.020,-0.020,0.000,0.000,0.000
1644905275023767040,2022-02-15-06:07:55,10.1.1.2,22,-0.030,-0.030,-0.030,0.000,0.000,0.000
1644905275082957056,2022-02-15-06:07:55,10.1.1.2,31,-0.040,-0.040,-0.040,0.000,0.000,0.000
1644905275123524864,2022-02-15-06:07:55,10.1.1.2,20,-0.050,-0.050,-0.050,0.000,0.000,0.000
1644905275183009024,2022-02-15-06:07:55,10.1.1.2,30,-0.060,-0.060,-0.060,0.000,0.000,0.000
1644905275223347968,2022-02-15-06:07:55,10.1.1.2,19,-0.070,-0.070,-0.070,0.000,0.000,0.000
1644905275282598144,2022-02-15-06:07:55,10.1.1.2,29,-0.080,-0.080,-0.080,0.000,0.000,0.000
1644905275342706944,2022-02-15-06:07:55,10.1.1.2,38,-0.090,-0.090,-0.090,0.000,0.000,0.000
1644905275382827008,2022-02-15-06:07:55,10.1.1.2,27,-0.100,-0.100,-0.100,0.000,0.000,0.000
1644905275443265792,2022-02-15-06:07:55,10.1.1.2,37,-0.090,-0.090,-0.090,0.000,0.000,0.000
1644905275482903040,2022-02-15-06:07:55,10.1.1.2,25,-0.080,-0.080,-0.080,0.000,0.000,0.000
1644905275543629056,2022-02-15-06:07:55,10.1.1.2,35,-0.070,-0.070,-0.070,0.000,0.000,0.000
1644905275583013888,2022-02-15-06:07:55,10.1.1.2,22,-0.060,-0.060,-0.060,0.000,0.000,0.000
1644905275643241984,2022-02-15-06:07:55,10.1.1.2,32,-0.050,-0.050,-0.050,0.000,0.000,0.000
1644905275682995200,2022-02-15-06:07:55,10.1.1.2,21,-0.040,-0.040,-0.040,0.000,0.000,0.000
1644905275742585856,2022-02-15-06:07:55,10.1.1.2,30,-0.030,-0.030,-0.030,0.000,0.000,0.000
1644905275782868992,2022-02-15-06:07:55,10.1.1.2,19,-0.021,-0.021,-0.021,0.000,0.000,0.000
1644905275842541824,2022-02-15-06:07:55,10.1.1.2,27,-0.010,-0.010,-0.010,0.000,0.000,0.000
1644905275903058944,2022-02-15-06:07:55,10.1.1.2,35,0.000,0.000,0.000,0.000,0.000,0.000
1644905275943227136,2022-02-15-06:07:55,10.1.1.2,25,0.010,0.010,0.010,0.000,0.000,0.000
1644905276003031040,2022-02-15-06:07:56,10.1.1.2,34,0.020,0.020,0.020,0.000,0.000,0.000
1644905276042955008,2022-02-15-06:07:56,10.1.1.2,24,0.030,0.030,0.030,0.000,0.000,0.000
1644905276103419904,2022-02-15-06:07:56,10.1.1.2,33,0.040,0.040,0.040,0.000,0.000,0.000
1644905276143219968,2022-02-15-06:07:56,10.1.1.2,22,0.050,0.050,0.050,0.000,0.000,0.000
1644905276203012096,2022-02-15-06:07:56,10.1.1.2,31,0.060,0.060,0.060,0.000,0.000,0.000
1644905276242659072,2022-02-15-06:07:56,10.1.1.2,20,0.070,0.070,0.070,0.000,0.000,0.000
1644905276303857920,2022-02-15-06:07:56,10.1.1.2,26,0.080,0.080,0.080,0.000,0.000,0.000
1644905276363582976,2022-02-15-06:07:56,10.1.1.2,24,0.090,0.090,0.090,0.000,0.000,0.000
1644905276422895872,2022-02-15-06:07:56,10.1.1.2,21,0.100,0.100,0.100,0.000,0.000,0.000
1644905276482444032,2022-02-15-06:07:56,10.1.1.2,30,0.090,0.090,0.090,0.000,0.000,0.000
1644905276522804992,2022-02-15-06:07:56,10.1.1.2,19,0.081,0.081,0.081,0.000,0.000,0.000
1644905276583444224,2022-02-15-06:07:56,10.1.1.2,28,0.070,0.070,0.070,0.000,0.000,0.000
1644905276643310080,2022-02-15-06:07:56,10.1.1.2,37,0.060,0.060,0.060,0.000,0.000,0.000
1644905276684128000,2022-02-15-06:07:56,10.1.1.2,25,0.050,0.050,0.050,0.000,0.000,0.000
1644905276742973184,2022-02-15-06:07:56,10.1.1.2,34,0.040,0.040,0.040,0.000,0.000,0.000
1644905276783431936,2022-02-15-06:07:56,10.1.1.2,23,0.030,0.030,0.030,0.000,0.000,0.000
1644905276843296000,2022-02-15-06:07:56,10.1.1.2,33,0.020,0.020,0.020,0.000,0.000,0.000
1644905276882674944,2022-02-15-06:07:56,10.1.1.2,21,0.010,0.010,0.010,0.000,0.000,0.000
1644905276942600960,2022-02-15-06:07:56,10.1.1.2,30,0.000,0.000,0.000,0.000,0.000,0.000
1644905276983192832,2022-02-15-06:07:56,10.1.1.2,19,-0.010,-0.010,-0.010,0.000,0.000,0.000
1644905277043201024,2022-02-15-06:07:57,10.1.1.2,29,-0.020,-0.020,-0.020,0.000,0.000,0.000
1644905277102892032,2022-02-15-06:07:57,10.1.1.2,38,-0.030,-0.030,-0.030,0.000,0.000,0.000
1644905277142957824,2022-02-15-06:07:57,10.1.1.2,27,-0.040,-0.040,-0.040,0.000,0.000,0.000
1644905277202785024,2022-02-15-06:07:57,10.1.1.2,37,-0.050,-0.050,-0.050,0.000,0.000,0.000
1644905277242635008,2022-02-15-06:07:57,10.1.1.2,25,-0.060,-0.060,-0.060,0.000,0.000,0.000
1644905277303080192,2022-02-15-06:07:57,10.1.1.2,34,-0.070,-0.070,-0.070,0.000,0.000,0.000
1644905277342894080,2022-02-15-06:07:57,10.1.1.2,23,-0.080,-0.080,-0.080,0.000,0.000,0.000
1644905277403044864,2022-02-15-06:07:57,10.1.1.2,31,-0.090,-0.090,-0.090,0.000,0.000,0.000
1644905277442942976,2022-02-15-06:07:57,10.1.1.2,19,-0.100,-0.100,-0.100,0.000,0.000,0.000
1644905277503319040,2022-02-15-06:07:57,10.1.1.2,29,-0.090,-0.090,-0.090,0.000,0.000,0.000
1644905277563009024,2022-02-15-06:07:57,10.1.1.2,38,-0.080,-0.080,-0.080,0.000,0.000,0.000
1644905277603153920,2022-02-15-06:07:57,10.1.1.2,27,-0.070,-0.070,-0.070,0.000,0.000,0.000
1644905277662547968,2022-02-15-06:07:57,10.1.1.2,36,-0.060,-0.060,-0.060,0.000,0.000,0.000
1644905277702627840,2022-02-15-06:07:57,10.1.1.2,26,-0.050,-0.050,-0.050,0.000,0.000,0.000
1644905277762966016,2022-02-15-06:07:57,10.1.1.2,35,-0.040,-0.040,-0.040,0.000,0.000,0.000
1644905277802977024,2022-02-15-06:07:57,10.1.1.2,24,-0.030,-0.030,-0.030,0.000,0.000,0.000
1644905277863367168,2022-02-15-06:07:57,10.1.1.2,33,-0.020,-0.020,-0.020,0.000,0.000,0.000
1644905277902683904,2022-02-15-06:07:57,10.1.1.2,22,-0.010,-0.010,-0.010,0.000,0.000,0.000
1644905277963911168,2022-02-15-06:07:57,10.1.1.2,32,0.000,0.000,0.000,0.000,0.000,0.000
1644905278004014080,2022-02-15-06:07:58,10.1.1.2,20,0.010,0.010,0.010,0.000,0.000,0.000
1644905278064249088,2022-02-15-06:07:58,10.1.1.2,27,0.020,0.020,0.020,0.000,0.000,0.000
1644905278116311040,2022-02-15-06:07:58,10.1.1.2,26,0.030,0.030,0.030,0.000,0.000,0.000
1644905278163806976,2022-02-15-06:07:58,10.1.1.2,24,0.040,0.040,0.040,0.000,0.000,0.000
1644905278225179904,2022-02-15-06:07:58,10.1.1.2,33,0.050,0.050,0.050,0.000,0.000,0.000
1644905278314690048,2022-02-15-06:07:58,10.1.1.2,21,0.070,0.070,0.070,0.000,0.000,0.000
1644905278423052032,2022-02-15-06:07:58,10.1.1.2,26,0.090,0.090,0.090,0.000,0.000,0.000
1644905278523087104,2022-02-15-06:07:58,10.1.1.2,25,0.090,0.090,0.090,0.000,0.000,0.000
1644905278583237888,2022-02-15-06:07:58,10.1.1.2,34,0.080,0.080,0.080,0.000,0.000,0.000
1644905278643846912,2022-02-15-06:07:58,10.1.1.2,42,0.070,0.070,0.070,0.000,0.000,0.000
1644905278684072960,2022-02-15-06:07:58,10.1.1.2,30,0.060,0.060,0.060,0.000,0.000,0.000
1644905278729006080,2022-02-15-06:07:58,10.1.1.2,19,0.051,0.051,0.051,0.000,0.000,0.000
1644905278836520960,2022-02-15-06:07:58,10.1.1.2,30,0.030,0.030,0.030,0.000,0.000,0.000
1644905278952900864,2022-02-15-06:07:58,10.1.1.2,44,0.010,0.010,0.010,0.000,0.000,0.000
1644905279003473920,2022-02-15-06:07:59,10.1.1.2,44,0.000,0.000,0.000,0.000,0.000,0.000
1644905279042897920,2022-02-15-06:07:59,10.1.1.2,33,-0.010,-0.010,-0.010,0.000,0.000,0.000
1644905279087339008,2022-02-15-06:07:59,10.1.1.2,24,-0.020,-0.020,-0.020,0.000,0.000,0.000
1644905279144058112,2022-02-15-06:07:59,10.1.1.2,31,-0.030,-0.030,-0.030,0.000,0.000,0.000
1644905279189459200,2022-02-15-06:07:59,10.1.1.2,24,-0.039,-0.039,-0.039,0.000,0.000,0.000
1644905279236982016,2022-02-15-06:07:59,10.1.1.2,21,-0.050,-0.050,-0.050,0.000,0.000,0.000
1644905279310204928,2022-02-15-06:07:59,10.1.1.2,42,-0.060,-0.060,-0.060,0.000,0.000,0.000
1644905279343406080,2022-02-15-06:07:59,10.1.1.2,27,-0.070,-0.070,-0.070,0.000,0.000,0.000
1644905279443841024,2022-02-15-06:07:59,10.1.1.2,26,-0.090,-0.090,-0.090,0.000,0.000,0.000
1644905279544295936,2022-02-15-06:07:59,10.1.1.2,25,-0.090,-0.090,-0.090,0.000,0.000,0.000
1644905279603554048,2022-02-15-06:07:59,10.1.1.2,34,-0.080,-0.080,-0.080,0.000,0.000,0.000
1644905279643599104,2022-02-15-06:07:59,10.1.1.2,23,-0.070,-0.070,-0.070,0.000,0.000,0.000
1644905279702508032,2022-02-15-06:07:59,10.1.1.2,29,-0.060,-0.060,-0.060,0.000,0.000,0.000
1644905279764834816,2022-02-15-06:07:59,10.1.1.2,38,-0.050,-0.050,-0.050,0.000,0.000,0.000
1644905279804923136,2022-02-15-06:07:59,10.1.1.2,26,-0.040,-0.040,-0.040,0.000,0.000,0.000
1644905279864193792,2022-02-15-06:07:59,10.1.1.2,32,-0.030,-0.030,-0.030,0.000,0.000,0.000
1644905279903335936,2022-02-15-06:07:59,10.1.1.2,21,-0.020,-0.020,-0.020,0.000,0.000,0.000
1644905279963635968,2022-02-15-06:07:59,10.1.1.2,27,-0.010,-0.010,-0.010,0.000,0.000,0.000
1644905280023011840,2022-02-15-06:08:00,10.1.1.2,36,0.000,0.000,0.000,0.000,0.000,0.000
1644905280063260160,2022-02-15-06:08:00,10.1.1.2,25,0.010,0.010,0.010,0.000,0.000,0.000
1644905280122961920,2022-02-15-06:08:00,10.1.1.2,34,0.020,0.020,0.020,0.000,0.000,0.000
1644905280163041024,2022-02-15-06:08:00,10.1.1.2,23,0.030,0.030,0.030,0.000,0.000,0.000
1644905280222838016,2022-02-15-06:08:00,10.1.1.2,33,0.040,0.040,0.040,0.000,0.000,0.000
1644905280263549184,2022-02-15-06:08:00,10.1.1.2,23,0.050,0.050,0.050,0.000,0.000,0.000
1644905280323046912,2022-02-15-06:08:00,10.1.1.2,32,0.060,0.060,0.060,0.000,0.000,0.000
1644905280363493888,2022-02-15-06:08:00,10.1.1.2,22,0.070,0.070,0.070,0.000,0.000,0.000
1644905280422969088,2022-02-15-06:08:00,10.1.1.2,30,0.080,0.080,0.080,0.000,0.000,0.000
1644905280462662912,2022-02-15-06:08:00,10.1.1.2,19,0.090,0.090,0.090,0.000,0.000,0.000
1644905280523575040,2022-02-15-06:08:00,10.1.1.2,27,0.100,0.100,0.100,0.000,0.000,0.000
1644905280583153920,2022-02-15-06:08:00,10.1.1.2,35,0.090,0.090,0.090,0.000,0.000,0.000
1644905280622770944,2022-02-15-06:08:00,10.1.1.2,24,0.080,0.080,0.080,0.000,0.000,0.000
1644905280682712064,2022-02-15-06:08:00,10.1.1.2,33,0.070,0.070,0.070,0.000,0.000,0.000
1644905280723304960,2022-02-15-06:08:00,10.1.1.2,22,0.060,0.060,0.060,0.000,0.000,0.000
1644905280783142144,2022-02-15-06:08:00,10.1.1.2,32,0.050,0.050,0.050,0.000,0.000,0.000
1644905280822861056,2022-02-15-06:08:00,10.1.1.2,22,0.040,0.040,0.040,0.000,0.000,0.000
1644905280883397120,2022-02-15-06:08:00,10.1.1.2,31,0.030,0.030,0.030,0.000,0.000,0.000
1644905280924916992,2022-02-15-06:08:00,10.1.1.2,19,0.021,0.021,0.021,0.000,0.000,0.000
1644905280982734848,2022-02-15-06:08:00,10.1.1.2,27,0.010,0.010,0.010,0.000,0.000,0.000
1644905281043642880,2022-02-15-06:08:01,10.1.1.2,36,0.000,0.000,0.000,0.000,0.000,0.000
1644905281083291904,2022-02-15-06:08:01,10.1.1.2,25,-0.010,-0.010,-0.010,0.000,0.000,0.000
1644905281143138048,2022-02-15-06:08:01,10.1.1.2,34,-0.020,-0.020,-0.020,0.000,0.000,0.000
1644905281184163072,2022-02-15-06:08:01,10.1.1.2,23,-0.030,-0.030,-0.030,0.000,0.000,0.000
1644905281242924032,2022-02-15-06:08:01,10.1.1.2,32,-0.040,-0.040,-0.040,0.000,0.000,0.000
1644905281283335936,2022-02-15-06:08:01,10.1.1.2,21,-0.050,-0.050,-0.050,0.000,0.000,0.000
1644905281343043072,2022-02-15-06:08:01,10.1.1.2,31,-0.060,-0.060,-0.060,0.000,0.000,0.000
1644905281383328000,2022-02-15-06:08:01,10.1.1.2,20,-0.070,-0.070,-0.070,0.000,0.000,0.000
1644905281443415040,2022-02-15-06:08:01,10.1.1.2,28,-0.080,-0.080,-0.080,0.000,0.000,0.000
1644905281503025920,2022-02-15-06:08:01,10.1.1.2,38,-0.090,-0.090,-0.090,0.000,0.000,0.000
1644905281543943936,2022-02-15-06:08:01,10.1.1.2,25,-0.100,-0.100,-0.100,0.000,0.000,0.000
1644905281602984960,2022-02-15-06:08:01,10.1.1.2,34,-0.090,-0.090,-0.090,0.000,0.000,0.000
1644905281642853888,2022-02-15-06:08:01,10.1.1.2,24,-0.080,-0.080,-0.080,0.000,0.000,0.000
1644905281703852800,2022-02-15-06:08:01,10.1.1.2,33,-0.070,-0.070,-0.070,0.000,0.000,0.000
1644905281802825984,2022-02-15-06:08:01,10.1.1.2,29,-0.050,-0.050,-0.050,0.000,0.000,0.000
1644905281863751936,2022-02-15-06:08:01,10.1.1.2,38,-0.040,-0.040,-0.040,0.000,0.000,0.000
1644905281903155200,2022-02-15-06:08:01,10.1.1.2,27,-0.030,-0.030,-0.030,0.000,0.000,0.000
1644905281968740096,2022-02-15-06:08:01,10.1.1.2,36,-0.020,-0.020,-0.020,0.000,0.000,0.000
1644905282002594048,2022-02-15-06:08:02,10.1.1.2,26,-0.010,-0.010,-0.010,0.000,0.000,0.000
1644905282063546880,2022-02-15-06:08:02,10.1.1.2,34,0.000,0.000,0.000,0.000,0.000,0.000
1644905282104535040,2022-02-15-06:08:02,10.1.1.2,24,0.010,0.010,0.010,0.000,0.000,0.000
1644905282163937024,2022-02-15-06:08:02,10.1.1.2,33,0.020,0.020,0.020,0.000,0.000,0.000
1644905282204015104,2022-02-15-06:08:02,10.1.1.2,22,0.030,0.030,0.030,0.000,0.000,0.000
1644905282263294976,2022-02-15-06:08:02,10.1.1.2,32,0.040,0.040,0.040,0.000,0.000,0.000
1644905282302644992,2022-02-15-06:08:02,10.1.1.2,21,0.050,0.050,0.050,0.000,0.000,0.000
1644905282362823936,2022-02-15-06:08:02,10.1.1.2,30,0.060,0.060,0.060,0.000,0.000,0.000
1644905282423040000,2022-02-15-06:08:02,10.1.1.2,38,0.070,0.070,0.070,0.000,0.000,0.000
1644905282462392064,2022-02-15-06:08:02,10.1.1.2,27,0.080,0.080,0.080,0.000,0.000,0.000
1644905282522707968,2022-02-15-06:08:02,10.1.1.2,36,0.090,0.090,0.090,0.000,0.000,0.000
1644905282562882048,2022-02-15-06:08:02,10.1.1.2,26,0.100,0.100,0.100,0.000,0.000,0.000
1644905282622821120,2022-02-15-06:08:02,10.1.1.2,35,0.090,0.090,0.090,0.000,0.000,0.000
1644905282662970112,2022-02-15-06:08:02,10.1.1.2,24,0.080,0.080,0.080,0.000,0.000,0.000
1644905282723310080,2022-02-15-06:08:02,10.1.1.2,34,0.070,0.070,0.070,0.000,0.000,0.000
1644905282762851072,2022-02-15-06:08:02,10.1.1.2,24,0.060,0.060,0.060,0.000,0.000,0.000
1644905282824026112,2022-02-15-06:08:02,10.1.1.2,33,0.050,0.050,0.050,0.000,0.000,0.000
1644905282862763776,2022-02-15-06:08:02,10.1.1.2,23,0.040,0.040,0.040,0.000,0.000,0.000
1644905282922483968,2022-02-15-06:08:02,10.1.1.2,31,0.030,0.030,0.030,0.000,0.000,0.000
1644905282962949888,2022-02-15-06:08:02,10.1.1.2,21,0.020,0.020,0.020,0.000,0.000,0.000
1644905283022989056,2022-02-15-06:08:03,10.1.1.2,30,0.010,0.010,0.010,0.000,0.000,0.000
1644905283062817024,2022-02-15-06:08:03,10.1.1.2,20,0.000,0.000,0.000,0.000,0.000,0.000
1644905283123110912,2022-02-15-06:08:03,10.1.1.2,29,-0.010,-0.010,-0.010,0.000,0.000,0.000
1644905283162572032,2022-02-15-06:08:03,10.1.1.2,18,-0.019,-0.019,-0.019,0.000,0.000,0.000
1644905283222710016,2022-02-15-06:08:03,10.1.1.2,28,-0.030,-0.030,-0.030,0.000,0.000,0.000
1644905283282916096,2022-02-15-06:08:03,10.1.1.2,37,-0.040,-0.040,-0.040,0.000,0.000,0.000
1644905283323322112,2022-02-15-06:08:03,10.1.1.2,27,-0.050,-0.050,-0.050,0.000,0.000,0.000
1644905283382455040,2022-02-15-06:08:03,10.1.1.2,36,-0.060,-0.060,-0.060,0.000,0.000,0.000
1644905283422971136,2022-02-15-06:08:03,10.1.1.2,26,-0.070,-0.070,-0.070,0.000,0.000,0.000
1644905283482656000,2022-02-15-06:08:03,10.1.1.2,34,-0.080,-0.080,-0.080,0.000,0.000,0.000
1644905283522944000,2022-02-15-06:08:03,10.1.1.2,23,-0.090,-0.090,-0.090,0.000,0.000,0.000
1644905283582833920,2022-02-15-06:08:03,10.1.1.2,32,-0.100,-0.100,-0.100,0.000,0.000,0.000
1644905283623162880,2022-02-15-06:08:03,10.1.1.2,21,-0.090,-0.090,-0.090,0.000,0.000,0.000
1644905283683137024,2022-02-15-06:08:03,10.1.1.2,30,-0.080,-0.080,-0.080,0.000,0.000,0.000
1644905283722489088,2022-02-15-06:08:03,10.1.1.2,19,-0.070,-0.070,-0.070,0.000,0.000,0.000
1644905283782612992,2022-02-15-06:08:03,10.1.1.2,28,-0.060,-0.060,-0.060,0.000,0.000,0.000
1644905283842737920,2022-02-15-06:08:03,10.1.1.2,38,-0.050,-0.050,-0.050,0.000,0.000,0.000
1644905283883152128,2022-02-15-06:08:03,10.1.1.2,27,-0.040,-0.040,-0.040,0.000,0.000,0.000
1644905283943495936,2022-02-15-06:08:03,10.1.1.2,37,-0.030,-0.030,-0.030,0.000,0.000,0.000
1644905283983179008,2022-02-15-06:08:03,10.1.1.2,26,-0.020,-0.020,-0.020,0.000,0.000,0.000
1644905284042444032,2022-02-15-06:08:04,10.1.1.2,36,-0.010,-0.010,-0.010,0.000,0.000,0.000
1644905284083022080,2022-02-15-06:08:04,10.1.1.2,25,0.000,0.000,0.000,0.000,0.000,0.000
1644905284143214848,2022-02-15-06:08:04,10.1.1.2,34,0.010,0.010,0.010,0.000,0.000,0.000
1644905284183170048,2022-02-15-06:08:04,10.1.1.2,24,0.020,0.020,0.020,0.000,0.000,0.000
1644905284243482112,2022-02-15-06:08:04,10.1.1.2,33,0.030,0.030,0.030,0.000,0.000,0.000
1644905284282824960,2022-02-15-06:08:04,10.1.1.2,22,0.040,0.040,0.040,0.000,0.000,0.000
1644905284343365888,2022-02-15-06:08:04,10.1.1.2,30,0.050,0.050,0.050,0.000,0.000,0.000
1644905284382489856,2022-02-15-06:08:04,10.1.1.2,20,0.060,0.060,0.060,0.000,0.000,0.000
1644905284442612992,2022-02-15-06:08:04,10.1.1.2,29,0.070,0.070,0.070,0.000,0.000,0.000
1644905284502877952,2022-02-15-06:08:04,10.1.1.2,38,0.080,0.080,0.080,0.000,0.000,0.000
1644905284543222784,2022-02-15-06:08:04,10.1.1.2,28,0.090,0.090,0.090,0.000,0.000,0.000
1644905284602818048,2022-02-15-06:08:04,10.1.1.2,37,0.100,0.100,0.100,0.000,0.000,0.000
1644905284642754048,2022-02-15-06:08:04,10.1.1.2,27,0.090,0.090,0.090,0.000,0.000,0.000
1644905284703904000,2022-02-15-06:08:04,10.1.1.2,36,0.080,0.080,0.080,0.000,0.000,0.000
1644905284783981056,2022-02-15-06:08:04,10.1.1.2,33,0.070,0.070,0.070,0.000,0.000,0.000
1644905284862840832,2022-02-15-06:08:04,10.1.1.2,22,0.050,0.050,0.050,0.000,0.000,0.000
1644905284923047168,2022-02-15-06:08:04,10.1.1.2,31,0.040,0.040,0.040,0.000,0.000,0.000
1644905284962841088,2022-02-15-06:08:04,10.1.1.2,20,0.030,0.030,0.030,0.000,0.000,0.000
1644905285023540992,2022-02-15-06:08:05,10.1.1.2,30,0.020,0.020,0.020,0.000,0.000,0.000
1644905285062870016,2022-02-15-06:08:05,10.1.1.2,19,0.010,0.010,0.010,0.000,0.000,0.000
1644905285122678016,2022-02-15-06:08:05,10.1.1.2,28,0.000,0.000,0.000,0.000,0.000,0.000
1644905285185455104,2022-02-15-06:08:05,10.1.1.2,37,-0.010,-0.010,-0.010,0.000,0.000,0.000
1644905285243546112,2022-02-15-06:08:05,10.1.1.2,37,-0.020,-0.020,-0.020,0.000,0.000,0.000
1644905285282782976,2022-02-15-06:08:05,10.1.1.2,25,-0.030,-0.030,-0.030,0.000,0.000,0.000
1644905285343885824,2022-02-15-06:08:05,10.1.1.2,34,-0.040,-0.040,-0.040,0.000,0.000,0.000
1644905285383248128,2022-02-15-06:08:05,10.1.1.2,20,-0.050,-0.050,-0.050,0.000,0.000,0.000
1644905285443408128,2022-02-15-06:08:05,10.1.1.2,28,-0.060,-0.060,-0.060,0.000,0.000,0.000
1644905285503408896,2022-02-15-06:08:05,10.1.1.2,37,-0.070,-0.070,-0.070,0.000,0.000,0.000
1644905285542788096,2022-02-15-06:08:05,10.1.1.2,26,-0.080,-0.080,-0.080,0.000,0.000,0.000
1644905285605061120,2022-02-15-06:08:05,10.1.1.2,35,-0.090,-0.090,-0.090,0.000,0.000,0.000
1644905285643238144,2022-02-15-06:08:05,10.1.1.2,24,-0.100,-0.100,-0.100,0.000,0.000,0.000
1644905285764157184,2022-02-15-06:08:05,10.1.1.2,34,-0.080,-0.080,-0.080,0.000,0.000,0.000
1644905285803081984,2022-02-15-06:08:05,10.1.1.2,23,-0.070,-0.070,-0.070,0.000,0.000,0.000
1644905285862981120,2022-02-15-06:08:05,10.1.1.2,32,-0.060,-0.060,-0.060,0.000,0.000,0.000
1644905285903772160,2022-02-15-06:08:05,10.1.1.2,22,-0.050,-0.050,-0.050,0.000,0.000,0.000
1644905286023499008,2022-02-15-06:08:06,10.1.1.2,33,-0.030,-0.030,-0.030,0.000,0.000,0.000
1644905286063536896,2022-02-15-06:08:06,10.1.1.2,22,-0.020,-0.020,-0.020,0.000,0.000,0.000
1644905286122812928,2022-02-15-06:08:06,10.1.1.2,31,-0.010,-0.010,-0.010,0.000,0.000,0.000
1644905286164072960,2022-02-15-06:08:06,10.1.1.2,20,0.000,0.000,0.000,0.000,0.000,0.000
1644905286222974976,2022-02-15-06:08:06,10.1.1.2,29,0.010,0.010,0.010,0.000,0.000,0.000
1644905286284192000,2022-02-15-06:08:06,10.1.1.2,38,0.020,0.020,0.020,0.000,0.000,0.000
1644905286323504896,2022-02-15-06:08:06,10.1.1.2,25,0.030,0.030,0.030,0.000,0.000,0.000
1644905286382486016,2022-02-15-06:08:06,10.1.1.2,34,0.040,0.040,0.040,0.000,0.000,0.000
1644905286422641152,2022-02-15-06:08:06,10.1.1.2,22,0.050,0.050,0.050,0.000,0.000,0.000
1644905286483144960,2022-02-15-06:08:06,10.1.1.2,32,0.060,0.060,0.060,0.000,0.000,0.000
1644905286522489088,2022-02-15-06:08:06,10.1.1.2,20,0.070,0.070,0.070,0.000,0.000,0.000
1644905286582770176,2022-02-15-06:08:06,10.1.1.2,29,0.080,0.080,0.080,0.000,0.000,0.000
1644905286624094976,2022-02-15-06:08:06,10.1.1.2,19,0.089,0.089,0.089,0.000,0.000,0.000
1644905286682710784,2022-02-15-06:08:06,10.1.1.2,28,0.100,0.100,0.100,0.000,0.000,0.000
1644905286743782912,2022-02-15-06:08:06,10.1.1.2,37,0.090,0.090,0.090,0.000,0.000,0.000
1644905286792613888,2022-02-15-06:08:06,10.1.1.2,22,0.080,0.080,0.080,0.000,0.000,0.000
1644905286842580992,2022-02-15-06:08:06,10.1.1.2,30,0.070,0.070,0.070,0.000,0.000,0.000
1644905286882454016,2022-02-15-06:08:06,10.1.1.2,20,0.060,0.060,0.060,0.000,0.000,0.000
1644905286942696960,2022-02-15-06:08:06,10.1.1.2,26,0.050,0.050,0.050,0.000,0.000,0.000
1644905287003098880,2022-02-15-06:08:07,10.1.1.2,35,0.040,0.040,0.040,0.000,0.000,0.000
1644905287044014848,2022-02-15-06:08:07,10.1.1.2,24,0.030,0.030,0.030,0.000,0.000,0.000
1644905287123188992,2022-02-15-06:08:07,10.1.1.2,38,0.020,0.020,0.020,0.000,0.000,0.000
1644905287162991104,2022-02-15-06:08:07,10.1.1.2,27,0.010,0.010,0.010,0.000,0.000,0.000
1644905287222814976,2022-02-15-06:08:07,10.1.1.2,35,0.000,0.000,0.000,0.000,0.000,0.000
1644905287262957056,2022-02-15-06:08:07,10.1.1.2,25,-0.010,-0.010,-0.010,0.000,0.000,0.000
1644905287322807040,2022-02-15-06:08:07,10.1.1.2,34,-0.020,-0.020,-0.020,0.000,0.000,0.000
1644905287362871040,2022-02-15-06:08:07,10.1.1.2,23,-0.030,-0.030,-0.030,0.000,0.000,0.000
1644905287422864896,2022-02-15-06:08:07,10.1.1.2,32,-0.040,-0.040,-0.040,0.000,0.000,0.000
1644905287462862080,2022-02-15-06:08:07,10.1.1.2,21,-0.050,-0.050,-0.050,0.000,0.000,0.000
1644905287523894016,2022-02-15-06:08:07,10.1.1.2,30,-0.060,-0.060,-0.060,0.000,0.000,0.000
1644905287565382912,2022-02-15-06:08:07,10.1.1.2,19,-0.070,-0.070,-0.070,0.000,0.000,0.000
1644905287624933888,2022-02-15-06:08:07,10.1.1.2,27,-0.080,-0.080,-0.080,0.000,0.000,0.000
1644905287685491968,2022-02-15-06:08:07,10.1.1.2,35,-0.090,-0.090,-0.090,0.000,0.000,0.000
1644905287722973952,2022-02-15-06:08:07,10.1.1.2,22,-0.100,-0.100,-0.100,0.000,0.000,0.000
1644905287783261184,2022-02-15-06:08:07,10.1.1.2,31,-0.090,-0.090,-0.090,0.000,0.000,0.000
1644905287842902016,2022-02-15-06:08:07,10.1.1.2,38,-0.080,-0.080,-0.080,0.000,0.000,0.000
1644905287883341056,2022-02-15-06:08:07,10.1.1.2,25,-0.070,-0.070,-0.070,0.000,0.000,0.000
1644905287942703104,2022-02-15-06:08:07,10.1.1.2,35,-0.060,-0.060,-0.060,0.000,0.000,0.000
1644905287982759936,2022-02-15-06:08:07,10.1.1.2,22,-0.050,-0.050,-0.050,0.000,0.000,0.000
1644905288044029952,2022-02-15-06:08:08,10.1.1.2,31,-0.040,-0.040,-0.040,0.000,0.000,0.000
1644905288084517120,2022-02-15-06:08:08,10.1.1.2,20,-0.030,-0.030,-0.030,0.000,0.000,0.000
1644905288143490048,2022-02-15-06:08:08,10.1.1.2,26,-0.020,-0.020,-0.020,0.000,0.000,0.000
1644905288203243008,2022-02-15-06:08:08,10.1.1.2,35,-0.010,-0.010,-0.010,0.000,0.000,0.000
1644905288244462080,2022-02-15-06:08:08,10.1.1.2,24,-0.000,-0.000,-0.000,0.000,0.000,0.000
1644905288304627968,2022-02-15-06:08:08,10.1.1.2,34,0.010,0.010,0.010,0.000,0.000,0.000
1644905288343209984,2022-02-15-06:08:08,10.1.1.2,23,0.020,0.020,0.020,0.000,0.000,0.000
1644905288403137024,2022-02-15-06:08:08,10.1.1.2,33,0.030,0.030,0.030,0.000,0.000,0.000
1644905288442776832,2022-02-15-06:08:08,10.1.1.2,22,0.040,0.040,0.040,0.000,0.000,0.000
1644905288504173056,2022-02-15-06:08:08,10.1.1.2,30,0.050,0.050,0.050,0.000,0.000,0.000
1644905288543531008,2022-02-15-06:08:08,10.1.1.2,20,0.060,0.060,0.060,0.000,0.000,0.000
1644905288620374016,2022-02-15-06:08:08,10.1.1.2,26,0.070,0.070,0.070,0.000,0.000,0.000
1644905288662936832,2022-02-15-06:08:08,10.1.1.2,35,0.080,0.080,0.080,0.000,0.000,0.000
1644905288702790912,2022-02-15-06:08:08,10.1.1.2,24,0.090,0.090,0.090,0.000,0.000,0.000
1644905288762898944,2022-02-15-06:08:08,10.1.1.2,34,0.100,0.100,0.100,0.000,0.000,0.000
1644905288803316992,2022-02-15-06:08:08,10.1.1.2,23,0.090,0.090,0.090,0.000,0.000,0.000
1644905288862548992,2022-02-15-06:08:08,10.1.1.2,32,0.080,0.080,0.080,0.000,0.000,0.000
1644905288902924032,2022-02-15-06:08:08,10.1.1.2,21,0.070,0.070,0.070,0.000,0.000,0.000
1644905288963179008,2022-02-15-06:08:08,10.1.1.2,27,0.060,0.060,0.060,0.000,0.000,0.000
1644905289024477952,2022-02-15-06:08:09,10.1.1.2,36,0.050,0.050,0.050,0.000,0.000,0.000
1644905289065217024,2022-02-15-06:08:09,10.1.1.2,22,0.040,0.040,0.040,0.000,0.000,0.000
1644905289123214080,2022-02-15-06:08:09,10.1.1.2,28,0.030,0.030,0.030,0.000,0.000,0.000
1644905289182897920,2022-02-15-06:08:09,10.1.1.2,37,0.020,0.020,0.020,0.000,0.000,0.000
1644905289223119104,2022-02-15-06:08:09,10.1.1.2,24,0.010,0.010,0.010,0.000,0.000,0.000
1644905289282419968,2022-02-15-06:08:09,10.1.1.2,32,0.000,0.000,0.000,0.000,0.000,0.000
1644905289343603968,2022-02-15-06:08:09,10.1.1.2,37,-0.010,-0.010,-0.010,0.000,0.000,0.000
1644905289382679040,2022-02-15-06:08:09,10.1.1.2,25,-0.020,-0.020,-0.020,0.000,0.000,0.000
1644905289442725888,2022-02-15-06:08:09,10.1.1.2,34,-0.030,-0.030,-0.030,0.000,0.000,0.000
1644905289482960896,2022-02-15-06:08:09,10.1.1.2,24,-0.040,-0.040,-0.040,0.000,0.000,0.000
1644905289542859008,2022-02-15-06:08:09,10.1.1.2,33,-0.050,-0.050,-0.050,0.000,0.000,0.000
1644905289582791936,2022-02-15-06:08:09,10.1.1.2,23,-0.060,-0.060,-0.060,0.000,0.000,0.000
1644905289643121920,2022-02-15-06:08:09,10.1.1.2,32,-0.070,-0.070,-0.070,0.000,0.000,0.000
1644905289683043840,2022-02-15-06:08:09,10.1.1.2,22,-0.080,-0.080,-0.080,0.000,0.000,0.000
1644905289742831104,2022-02-15-06:08:09,10.1.1.2,31,-0.090,-0.090,-0.090,0.000,0.000,0.000
1644905289783106048,2022-02-15-06:08:09,10.1.1.2,21,-0.100,-0.100,-0.100,0.000,0.000,0.000
1644905289842931968,2022-02-15-06:08:09,10.1.1.2,30,-0.090,-0.090,-0.090,0.000,0.000,0.000
1644905289903441920,2022-02-15-06:08:09,10.1.1.2,39,-0.080,-0.080,-0.080,0.000,0.000,0.000
1644905289942635008,2022-02-15-06:08:09,10.1.1.2,29,-0.070,-0.070,-0.070,0.000,0.000,0.000
1644905290004036864,2022-02-15-06:08:10,10.1.1.2,38,-0.060,-0.060,-0.060,0.000,0.000,0.000
1644905290043788032,2022-02-15-06:08:10,10.1.1.2,27,-0.050,-0.050,-0.050,0.000,0.000,0.000
1644905290110714880,2022-02-15-06:08:10,10.1.1.2,35,-0.040,-0.040,-0.040,0.000,0.000,0.000
1644905290142761984,2022-02-15-06:08:10,10.1.1.2,22,-0.030,-0.030,-0.030,0.000,0.000,0.000
1644905290203202048,2022-02-15-06:08:10,10.1.1.2,28,-0.020,-0.020,-0.020,0.000,0.000,0.000
1644905290262732032,2022-02-15-06:08:10,10.1.1.2,37,-0.010,-0.010,-0.010,0.000,0.000,0.000
1644905290303201792,2022-02-15-06:08:10,10.1.1.2,25,0.000,0.000,0.000,0.000,0.000,0.000
1644905290362909952,2022-02-15-06:08:10,10.1.1.2,34,0.010,0.010,0.010,0.000,0.000,0.000
1644905290403909888,2022-02-15-06:08:10,10.1.1.2,24,0.020,0.020,0.020,0.000,0.000,0.000
1644905290462973184,2022-02-15-06:08:10,10.1.1.2,33,0.030,0.030,0.030,0.000,0.000,0.000
1644905290502955008,2022-02-15-06:08:10,10.1.1.2,23,0.040,0.040,0.040,0.000,0.000,0.000
1644905290563416064,2022-02-15-06:08:10,10.1.1.2,32,0.050,0.050,0.050,0.000,0.000,0.000
1644905290603749120,2022-02-15-06:08:10,10.1.1.2,20,0.060,0.060,0.060,0.000,0.000,0.000
1644905290663360000,2022-02-15-06:08:10,10.1.1.2,28,0.070,0.070,0.070,0.000,0.000,0.000
1644905290722894848,2022-02-15-06:08:10,10.1.1.2,37,0.080,0.080,0.080,0.000,0.000,0.000
1644905290764481024,2022-02-15-06:08:10,10.1.1.2,26,0.090,0.090,0.090,0.000,0.000,0.000
1644905290859260160,2022-02-15-06:08:10,10.1.1.2,34,0.100,0.100,0.100,0.000,0.000,0.000
1644905290903436032,2022-02-15-06:08:10,10.1.1.2,31,0.090,0.090,0.090,0.000,0.000,0.000
1644905290943522048,2022-02-15-06:08:10,10.1.1.2,20,0.080,0.080,0.080,0.000,0.000,0.000
1644905291003283968,2022-02-15-06:08:11,10.1.1.2,29,0.070,0.070,0.070,0.000,0.000,0.000
1644905291062617088,2022-02-15-06:08:11,10.1.1.2,39,0.060,0.060,0.060,0.000,0.000,0.000
1644905291102660864,2022-02-15-06:08:11,10.1.1.2,28,0.050,0.050,0.050,0.000,0.000,0.000
1644905291163141120,2022-02-15-06:08:11,10.1.1.2,37,0.040,0.040,0.040,0.000,0.000,0.000
1644905291202817024,2022-02-15-06:08:11,10.1.1.2,27,0.030,0.030,0.030,0.000,0.000,0.000
1644905291264219904,2022-02-15-06:08:11,10.1.1.2,34,0.020,0.020,0.020,0.000,0.000,0.000
1644905291303119872,2022-02-15-06:08:11,10.1.1.2,23,0.010,0.010,0.010,0.000,0.000,0.000
1644905291363856128,2022-02-15-06:08:11,10.1.1.2,32,0.000,0.000,0.000,0.000,0.000,0.000
1644905291403717888,2022-02-15-06:08:11,10.1.1.2,22,-0.010,-0.010,-0.010,0.000,0.000,0.000
1644905291463277056,2022-02-15-06:08:11,10.1.1.2,31,-0.020,-0.020,-0.020,0.000,0.000,0.000
1644905291522974976,2022-02-15-06:08:11,10.1.1.2,38,-0.030,-0.030,-0.030,0.000,0.000,0.000
1644905291563668992,2022-02-15-06:08:11,10.1.1.2,28,-0.040,-0.040,-0.040,0.000,0.000,0.000
1644905291622872064,2022-02-15-06:08:11,10.1.1.2,37,-0.050,-0.050,-0.050,0.000,0.000,0.000
1644905291664455936,2022-02-15-06:08:11,10.1.1.2,25,-0.060,-0.060,-0.060,0.000,0.000,0.000
1644905291723525120,2022-02-15-06:08:11,10.1.1.2,35,-0.070,-0.070,-0.070,0.000,0.000,0.000
1644905291763106048,2022-02-15-06:08:11,10.1.1.2,24,-0.080,-0.080,-0.080,0.000,0.000,0.000
1644905291823581952,2022-02-15-06:08:11,10.1.1.2,32,-0.090,-0.090,-0.090,0.000,0.000,0.000
1644905291863232000,2022-02-15-06:08:11,10.1.1.2,22,-0.100,-0.100,-0.100,0.000,0.000,0.000
1644905291929584128,2022-02-15-06:08:11,10.1.1.2,30,-0.090,-0.090,-0.090,0.000,0.000,0.000
1644905291982526976,2022-02-15-06:08:11,10.1.1.2,38,-0.080,-0.080,-0.080,0.000,0.000,0.000
1644905292023128064,2022-02-15-06:08:12,10.1.1.2,27,-0.070,-0.070,-0.070,0.000,0.000,0.000
1644905292082798848,2022-02-15-06:08:12,10.1.1.2,37,-0.060,-0.060,-0.060,0.000,0.000,0.000
1644905292123544064,2022-02-15-06:08:12,10.1.1.2,26,-0.050,-0.050,-0.050,0.000,0.000,0.000
1644905292183532032,2022-02-15-06:08:12,10.1.1.2,35,-0.040,-0.040,-0.040,0.000,0.000,0.000
1644905292222690048,2022-02-15-06:08:12,10.1.1.2,25,-0.030,-0.030,-0.030,0.000,0.000,0.000
1644905292282437120,2022-02-15-06:08:12,10.1.1.2,34,-0.020,-0.020,-0.020,0.000,0.000,0.000
1644905292322698240,2022-02-15-06:08:12,10.1.1.2,24,-0.010,-0.010,-0.010,0.000,0.000,0.000
1644905292382356992,2022-02-15-06:08:12,10.1.1.2,32,0.000,0.000,0.000,0.000,0.000,0.000
1644905292422681088,2022-02-15-06:08:12,10.1.1.2,20,0.010,0.010,0.010,0.000,0.000,0.000
1644905292483203840,2022-02-15-06:08:12,10.1.1.2,27,0.020,0.020,0.020,0.000,0.000,0.000
1644905292542799104,2022-02-15-06:08:12,10.1.1.2,35,0.030,0.030,0.030,0.000,0.000,0.000
1644905292582905088,2022-02-15-06:08:12,10.1.1.2,25,0.040,0.040,0.040,0.000,0.000,0.000
1644905292642745088,2022-02-15-06:08:12,10.1.1.2,34,0.050,0.050,0.050,0.000,0.000,0.000
1644905292682462976,2022-02-15-06:08:12,10.1.1.2,22,0.060,0.060,0.060,0.000,0.000,0.000
1644905292743055104,2022-02-15-06:08:12,10.1.1.2,31,0.070,0.070,0.070,0.000,0.000,0.000
1644905292783035904,2022-02-15-06:08:12,10.1.1.2,21,0.080,0.080,0.080,0.000,0.000,0.000
1644905292842820864,2022-02-15-06:08:12,10.1.1.2,29,0.090,0.090,0.090,0.000,0.000,0.000
1644905292902594048,2022-02-15-06:08:12,10.1.1.2,37,0.100,0.100,0.100,0.000,0.000,0.000
1644905292942658816,2022-02-15-06:08:12,10.1.1.2,26,0.090,0.090,0.090,0.000,0.000,0.000
1644905293002913024,2022-02-15-06:08:13,10.1.1.2,36,0.080,0.080,0.080,0.000,0.000,0.000
1644905293042963968,2022-02-15-06:08:13,10.1.1.2,25,0.070,0.070,0.070,0.000,0.000,0.000
1644905293102697984,2022-02-15-06:08:13,10.1.1.2,35,0.060,0.060,0.060,0.000,0.000,0.000
1644905293142624000,2022-02-15-06:08:13,10.1.1.2,24,0.050,0.050,0.050,0.000,0.000,0.000
1644905293204171008,2022-02-15-06:08:13,10.1.1.2,34,0.040,0.040,0.040,0.000,0.000,0.000
1644905293243792128,2022-02-15-06:08:13,10.1.1.2,23,0.030,0.030,0.030,0.000,0.000,0.000
1644905293306691840,2022-02-15-06:08:13,10.1.1.2,27,0.020,0.020,0.020,0.000,0.000,0.000
1644905293363254016,2022-02-15-06:08:13,10.1.1.2,37,0.010,0.010,0.010,0.000,0.000,0.000
1644905293403072000,2022-02-15-06:08:13,10.1.1.2,26,0.000,0.000,0.000,0.000,0.000,0.000
1644905293463417088,2022-02-15-06:08:13,10.1.1.2,35,-0.010,-0.010,-0.010,0.000,0.000,0.000
1644905293503313152,2022-02-15-06:08:13,10.1.1.2,25,-0.020,-0.020,-0.020,0.000,0.000,0.000
1644905293563088896,2022-02-15-06:08:13,10.1.1.2,34,-0.030,-0.030,-0.030,0.000,0.000,0.000
1644905293603201024,2022-02-15-06:08:13,10.1.1.2,24,-0.040,-0.040,-0.040,0.000,0.000,0.000
1644905293663142912,2022-02-15-06:08:13,10.1.1.2,33,-0.050,-0.050,-0.050,0.000,0.000,0.000
1644905293702934016,2022-02-15-06:08:13,10.1.1.2,23,-0.060,-0.060,-0.060,0.000,0.000,0.000
1644905293763042048,2022-02-15-06:08:13,10.1.1.2,32,-0.070,-0.070,-0.070,0.000,0.000,0.000
1644905293802993920,2022-02-15-06:08:13,10.1.1.2,22,-0.080,-0.080,-0.080,0.000,0.000,0.000
1644905293863322112,2022-02-15-06:08:13,10.1.1.2,31,-0.090,-0.090,-0.090,0.000,0.000,0.000
1644905293902604032,2022-02-15-06:08:13,10.1.1.2,21,-0.100,-0.100,-0.100,0.000,0.000,0.000
1644905293964499968,2022-02-15-06:08:13,10.1.1.2,30,-0.090,-0.090,-0.090,0.000,0.000,0.000
1644905294003331840,2022-02-15-06:08:14,10.1.1.2,20,-0.080,-0.080,-0.080,0.000,0.000,0.000
1644905294063128064,2022-02-15-06:08:14,10.1.1.2,29,-0.070,-0.070,-0.070,0.000,0.000,0.000
1644905294130004992,2022-02-15-06:08:14,10.1.1.2,37,-0.060,-0.060,-0.060,0.000,0.000,0.000
1644905294162950912,2022-02-15-06:08:14,10.1.1.2,22,-0.050,-0.050,-0.050,0.000,0.000,0.000
1644905294223362816,2022-02-15-06:08:14,10.1.1.2,32,-0.040,-0.040,-0.040,0.000,0.000,0.000
1644905294263066112,2022-02-15-06:08:14,10.1.1.2,21,-0.030,-0.030,-0.030,0.000,0.000,0.000
1644905294324420864,2022-02-15-06:08:14,10.1.1.2,30,-0.020,-0.020,-0.020,0.000,0.000,0.000
1644905294362955008,2022-02-15-06:08:14,10.1.1.2,19,-0.010,-0.010,-0.010,0.000,0.000,0.000
1644905294422734080,2022-02-15-06:08:14,10.1.1.2,29,0.000,0.000,0.000,0.000,0.000,0.000
1644905294482938112,2022-02-15-06:08:14,10.1.1.2,38,0.010,0.010,0.010,0.000,0.000,0.000
1644905294523629824,2022-02-15-06:08:14,10.1.1.2,27,0.020,0.020,0.020,0.000,0.000,0.000
1644905294587855104,2022-02-15-06:08:14,10.1.1.2,36,0.030,0.030,0.030,0.000,0.000,0.000
1644905294623994112,2022-02-15-06:08:14,10.1.1.2,25,0.040,0.040,0.040,0.000,0.000,0.000
1644905294682907136,2022-02-15-06:08:14,10.1.1.2,34,0.050,0.050,0.050,0.000,0.000,0.000
1644905294722900992,2022-02-15-06:08:14,10.1.1.2,22,0.060,0.060,0.060,0.000,0.000,0.000
1644905294782913024,2022-02-15-06:08:14,10.1.1.2,31,0.070,0.070,0.070,0.000,0.000,0.000
1644905294842804992,2022-02-15-06:08:14,10.1.1.2,37,0.080,0.080,0.080,0.000,0.000,0.000
1644905294883287808,2022-02-15-06:08:14,10.1.1.2,26,0.090,0.090,0.090,0.000,0.000,0.000
1644905294942991872,2022-02-15-06:08:14,10.1.1.2,36,0.100,0.100,0.100,0.000,0.000,0.000
1644905294982925824,2022-02-15-06:08:14,10.1.1.2,26,0.090,0.090,0.090,0.000,0.000,0.000
1644905295042728960,2022-02-15-06:08:15,10.1.1.2,35,0.080,0.080,0.080,0.000,0.000,0.000
1644905295082953984,2022-02-15-06:08:15,10.1.1.2,25,0.070,0.070,0.070,0.000,0.000,0.000
1644905295143249920,2022-02-15-06:08:15,10.1.1.2,34,0.060,0.060,0.060,0.000,0.000,0.000
1644905295182818048,2022-02-15-06:08:15,10.1.1.2,22,0.050,0.050,0.050,0.000,0.000,0.000
1644905295242573056,2022-02-15-06:08:15,10.1.1.2,29,0.040,0.040,0.040,0.000,0.000,0.000
1644905295302952960,2022-02-15-06:08:15,10.1.1.2,38,0.030,0.030,0.030,0.000,0.000,0.000
1644905295342614784,2022-02-15-06:08:15,10.1.1.2,27,0.020,0.020,0.020,0.000,0.000,0.000
1644905295402676224,2022-02-15-06:08:15,10.1.1.2,36,0.010,0.010,0.010,0.000,0.000,0.000
1644905295443947008,2022-02-15-06:08:15,10.1.1.2,26,0.000,0.000,0.000,0.000,0.000,0.000
1644905295503544064,2022-02-15-06:08:15,10.1.1.2,35,-0.010,-0.010,-0.010,0.000,0.000,0.000
1644905295543503104,2022-02-15-06:08:15,10.1.1.2,24,-0.020,-0.020,-0.020,0.000,0.000,0.000
1644905295603543040,2022-02-15-06:08:15,10.1.1.2,32,-0.030,-0.030,-0.030,0.000,0.000,0.000
1644905295643309056,2022-02-15-06:08:15,10.1.1.2,19,-0.040,-0.040,-0.040,0.000,0.000,0.000
1644905295704230912,2022-02-15-06:08:15,10.1.1.2,28,-0.050,-0.050,-0.050,0.000,0.000,0.000
1644905295763451136,2022-02-15-06:08:15,10.1.1.2,38,-0.060,-0.060,-0.060,0.000,0.000,0.000
1644905295803514880,2022-02-15-06:08:15,10.1.1.2,27,-0.070,-0.070,-0.070,0.000,0.000,0.000
1644905295863333888,2022-02-15-06:08:15,10.1.1.2,36,-0.080,-0.080,-0.080,0.000,0.000,0.000
1644905295903706112,2022-02-15-06:08:15,10.1.1.2,25,-0.090,-0.090,-0.090,0.000,0.000,0.000
1644905295963545088,2022-02-15-06:08:15,10.1.1.2,34,-0.100,-0.100,-0.100,0.000,0.000,0.000
1644905296002852864,2022-02-15-06:08:16,10.1.1.2,23,-0.090,-0.090,-0.090,0.000,0.000,0.000
1644905296063102976,2022-02-15-06:08:16,10.1.1.2,32,-0.080,-0.080,-0.080,0.000,0.000,0.000
1644905296103499008,2022-02-15-06:08:16,10.1.1.2,21,-0.070,-0.070,-0.070,0.000,0.000,0.000
1644905296163232000,2022-02-15-06:08:16,10.1.1.2,30,-0.060,-0.060,-0.060,0.000,0.000,0.000
1644905296203109120,2022-02-15-06:08:16,10.1.1.2,19,-0.050,-0.050,-0.050,0.000,0.000,0.000
1644905296263241984,2022-02-15-06:08:16,10.1.1.2,28,-0.040,-0.040,-0.040,0.000,0.000,0.000
1644905296323257856,2022-02-15-06:08:16,10.1.1.2,37,-0.030,-0.030,-0.030,0.000,0.000,0.000
1644905296363058176,2022-02-15-06:08:16,10.1.1.2,26,-0.020,-0.020,-0.020,0.000,0.000,0.000
1644905296423309056,2022-02-15-06:08:16,10.1.1.2,33,-0.010,-0.010,-0.010,0.000,0.000,0.000
1644905296463440896,2022-02-15-06:08:16,10.1.1.2,22,0.000,0.000,0.000,0.000,0.000,0.000
1644905296522978048,2022-02-15-06:08:16,10.1.1.2,30,0.010,0.010,0.010,0.000,0.000,0.000
1644905296563107840,2022-02-15-06:08:16,10.1.1.2,20,0.020,0.020,0.020,0.000,0.000,0.000
1644905296623131136,2022-02-15-06:08:16,10.1.1.2,29,0.030,0.030,0.030,0.000,0.000,0.000
1644905296682952960,2022-02-15-06:08:16,10.1.1.2,37,0.040,0.040,0.040,0.000,0.000,0.000
1644905296723392000,2022-02-15-06:08:16,10.1.1.2,25,0.050,0.050,0.050,0.000,0.000,0.000
1644905296783040000,2022-02-15-06:08:16,10.1.1.2,33,0.060,0.060,0.060,0.000,0.000,0.000
1644905296823159040,2022-02-15-06:08:16,10.1.1.2,21,0.070,0.070,0.070,0.000,0.000,0.000
1644905296882627072,2022-02-15-06:08:16,10.1.1.2,30,0.080,0.080,0.080,0.000,0.000,0.000
1644905296922825984,2022-02-15-06:08:16,10.1.1.2,19,0.090,0.090,0.090,0.000,0.000,0.000
1644905296982940928,2022-02-15-06:08:16,10.1.1.2,29,0.100,0.100,0.100,0.000,0.000,0.000
1644905297046607104,2022-02-15-06:08:17,10.1.1.2,38,0.090,0.090,0.090,0.000,0.000,0.000
1644905297082649088,2022-02-15-06:08:17,10.1.1.2,25,0.080,0.080,0.080,0.000,0.000,0.000
1644905297143072000,2022-02-15-06:08:17,10.1.1.2,35,0.070,0.070,0.070,0.000,0.000,0.000
1644905297184002048,2022-02-15-06:08:17,10.1.1.2,24,0.060,0.060,0.060,0.000,0.000,0.000
1644905297242804992,2022-02-15-06:08:17,10.1.1.2,33,0.050,0.050,0.050,0.000,0.000,0.000
1644905297283670016,2022-02-15-06:08:17,10.1.1.2,22,0.040,0.040,0.040,0.000,0.000,0.000
1644905297343070976,2022-02-15-06:08:17,10.1.1.2,30,0.030,0.030,0.030,0.000,0.000,0.000
1644905297475660032,2022-02-15-06:08:17,10.1.1.2,20,0.020,0.020,0.020,0.000,0.000,0.000
1644905297502386176,2022-02-15-06:08:17,10.1.1.2,21,0.010,0.010,0.010,0.000,0.000,0.000
1644905297566649088,2022-02-15-06:08:17,10.1.1.2,30,0.000,0.000,0.000,0.000,0.000,0.000
1644905297602662144,2022-02-15-06:08:17,10.1.1.2,20,-0.010,-0.010,-0.010,0.000,0.000,0.000
1644905297663635968,2022-02-15-06:08:17,10.1.1.2,28,-0.020,-0.020,-0.020,0.000,0.000,0.000
1644905297722598144,2022-02-15-06:08:17,10.1.1.2,38,-0.030,-0.030,-0.030,0.000,0.000,0.000
1644905297763705856,2022-02-15-06:08:17,10.1.1.2,27,-0.040,-0.040,-0.040,0.000,0.000,0.000
1644905297822700032,2022-02-15-06:08:17,10.1.1.2,32,-0.050,-0.050,-0.050,0.000,0.000,0.000
1644905297879947008,2022-02-15-06:08:17,10.1.1.2,21,-0.060,-0.060,-0.060,0.000,0.000,0.000
1644905297922960128,2022-02-15-06:08:17,10.1.1.2,28,-0.070,-0.070,-0.070,0.000,0.000,0.000
1644905297982883072,2022-02-15-06:08:17,10.1.1.2,34,-0.080,-0.080,-0.080,0.000,0.000,0.000
1644905298022795008,2022-02-15-06:08:18,10.1.1.2,24,-0.090,-0.090,-0.090,0.000,0.000,0.000
1644905298084062976,2022-02-15-06:08:18,10.1.1.2,33,-0.100,-0.100,-0.100,0.000,0.000,0.000
1644905298124883968,2022-02-15-06:08:18,10.1.1.2,22,-0.090,-0.090,-0.090,0.000,0.000,0.000
1644905298183328000,2022-02-15-06:08:18,10.1.1.2,19,-0.080,-0.080,-0.080,0.000,0.000,0.000
1644905298242952960,2022-02-15-06:08:18,10.1.1.2,28,-0.070,-0.070,-0.070,0.000,0.000,0.000
1644905298303257088,2022-02-15-06:08:18,10.1.1.2,38,-0.060,-0.060,-0.060,0.000,0.000,0.000
1644905298343322112,2022-02-15-06:08:18,10.1.1.2,27,-0.050,-0.050,-0.050,0.000,0.000,0.000
1644905298402827008,2022-02-15-06:08:18,10.1.1.2,37,-0.040,-0.040,-0.040,0.000,0.000,0.000
1644905298443661824,2022-02-15-06:08:18,10.1.1.2,25,-0.030,-0.030,-0.030,0.000,0.000,0.000
1644905298502871040,2022-02-15-06:08:18,10.1.1.2,34,-0.020,-0.020,-0.020,0.000,0.000,0.000
1644905298543941888,2022-02-15-06:08:18,10.1.1.2,23,-0.010,-0.010,-0.010,0.000,0.000,0.000
1644905298602624000,2022-02-15-06:08:18,10.1.1.2,32,0.000,0.000,0.000,0.000,0.000,0.000
1644905298642839040,2022-02-15-06:08:18,10.1.1.2,22,0.010,0.010,0.010,0.000,0.000,0.000
1644905298703340032,2022-02-15-06:08:18,10.1.1.2,29,0.020,0.020,0.020,0.000,0.000,0.000
1644905298763410176,2022-02-15-06:08:18,10.1.1.2,37,0.030,0.030,0.030,0.000,0.000,0.000
1644905298804357120,2022-02-15-06:08:18,10.1.1.2,25,0.040,0.040,0.040,0.000,0.000,0.000
1644905298863006976,2022-02-15-06:08:18,10.1.1.2,33,0.050,0.050,0.050,0.000,0.000,0.000
1644905298903718912,2022-02-15-06:08:18,10.1.1.2,22,0.060,0.060,0.060,0.000,0.000,0.000
1644905298962814976,2022-02-15-06:08:18,10.1.1.2,30,0.070,0.070,0.070,0.000,0.000,0.000
1644905299003043840,2022-02-15-06:08:19,10.1.1.2,20,0.080,0.080,0.080,0.000,0.000,0.000
1644905299063031040,2022-02-15-06:08:19,10.1.1.2,29,0.090,0.090,0.090,0.000,0.000,0.000
1644905299123220992,2022-02-15-06:08:19,10.1.1.2,38,0.100,0.100,0.100,0.000,0.000,0.000
1644905299163275008,2022-02-15-06:08:19,10.1.1.2,28,0.090,0.090,0.090,0.000,0.000,0.000
1644905299223622912,2022-02-15-06:08:19,10.1.1.2,37,0.080,0.080,0.080,0.000,0.000,0.000
1644905299263080960,2022-02-15-06:08:19,10.1.1.2,25,0.070,0.070,0.070,0.000,0.000,0.000
1644905299323020032,2022-02-15-06:08:19,10.1.1.2,34,0.060,0.060,0.060,0.000,0.000,0.000
1644905299363301888,2022-02-15-06:08:19,10.1.1.2,22,0.050,0.050,0.050,0.000,0.000,0.000
1644905299424689920,2022-02-15-06:08:19,10.1.1.2,30,0.040,0.040,0.040,0.000,0.000,0.000
1644905299482988032,2022-02-15-06:08:19,10.1.1.2,37,0.030,0.030,0.030,0.000,0.000,0.000
1644905299524602880,2022-02-15-06:08:19,10.1.1.2,26,0.020,0.020,0.020,0.000,0.000,0.000
1644905299582981120,2022-02-15-06:08:19,10.1.1.2,35,0.010,0.010,0.010,0.000,0.000,0.000
1644905299623262976,2022-02-15-06:08:19,10.1.1.2,24,0.000,0.000,0.000,0.000,0.000,0.000
1644905299682728960,2022-02-15-06:08:19,10.1.1.2,33,-0.010,-0.010,-0.010,0.000,0.000,0.000
1644905299723328000,2022-02-15-06:08:19,10.1.1.2,22,-0.020,-0.020,-0.020,0.000,0.000,0.000
1644905299783323904,2022-02-15-06:08:19,10.1.1.2,31,-0.030,-0.030,-0.030,0.000,0.000,0.000
1644905299823920128,2022-02-15-06:08:19,10.1.1.2,19,-0.040,-0.040,-0.040,0.000,0.000,0.000
1644905299882999808,2022-02-15-06:08:19,10.1.1.2,28,-0.050,-0.050,-0.050,0.000,0.000,0.000
1644905299943054848,2022-02-15-06:08:19,10.1.1.2,38,-0.060,-0.060,-0.060,0.000,0.000,0.000
1644905299982714880,2022-02-15-06:08:19,10.1.1.2,27,-0.070,-0.070,-0.070,0.000,0.000,0.000
1644905300042980864,2022-02-15-06:08:20,10.1.1.2,35,-0.080,-0.080,-0.080,0.000,0.000,0.000
1644905300083401984,2022-02-15-06:08:20,10.1.1.2,24,-0.090,-0.090,-0.090,0.000,0.000,0.000
1644905300146609920,2022-02-15-06:08:20,10.1.1.2,34,-0.100,-0.100,-0.100,0.000,0.000,0.000
1644905300202892032,2022-02-15-06:08:20,10.1.1.2,36,-0.090,-0.090,-0.090,0.000,0.000,0.000
1644905300244016896,2022-02-15-06:08:20,10.1.1.2,25,-0.080,-0.080,-0.080,0.000,0.000,0.000
1644905300303430144,2022-02-15-06:08:20,10.1.1.2,34,-0.070,-0.070,-0.070,0.000,0.000,0.000
1644905300343640064,2022-02-15-06:08:20,10.1.1.2,22,-0.060,-0.060,-0.060,0.000,0.000,0.000
1644905300403363840,2022-02-15-06:08:20,10.1.1.2,30,-0.050,-0.050,-0.050,0.000,0.000,0.000
1644905300463841024,2022-02-15-06:08:20,10.1.1.2,37,-0.040,-0.040,-0.040,0.000,0.000,0.000
1644905300503518976,2022-02-15-06:08:20,10.1.1.2,26,-0.030,-0.030,-0.030,0.000,0.000,0.000
1644905300563206912,2022-02-15-06:08:20,10.1.1.2,35,-0.020,-0.020,-0.020,0.000,0.000,0.000
1644905300603260160,2022-02-15-06:08:20,10.1.1.2,24,-0.010,-0.010,-0.010,0.000,0.000,0.000
1644905300663161088,2022-02-15-06:08:20,10.1.1.2,33,0.000,0.000,0.000,0.000,0.000,0.000
1644905300703205120,2022-02-15-06:08:20,10.1.1.2,22,0.010,0.010,0.010,0.000,0.000,0.000
1644905300763698944,2022-02-15-06:08:20,10.1.1.2,28,0.020,0.020,0.020,0.000,0.000,0.000
1644905300823811072,2022-02-15-06:08:20,10.1.1.2,37,0.030,0.030,0.030,0.000,0.000,0.000
1644905300864419072,2022-02-15-06:08:20,10.1.1.2,25,0.040,0.040,0.040,0.000,0.000,0.000
1644905300923273984,2022-02-15-06:08:20,10.1.1.2,33,0.050,0.050,0.050,0.000,0.000,0.000
1644905300963012096,2022-02-15-06:08:20,10.1.1.2,20,0.060,0.060,0.060,0.000,0.000,0.000
1644905301022921984,2022-02-15-06:08:21,10.1.1.2,28,0.070,0.070,0.070,0.000,0.000,0.000
1644905301083400960,2022-02-15-06:08:21,10.1.1.2,37,0.080,0.080,0.080,0.000,0.000,0.000
1644905301123326976,2022-02-15-06:08:21,10.1.1.2,26,0.090,0.090,0.090,0.000,0.000,0.000
1644905301183084032,2022-02-15-06:08:21,10.1.1.2,34,0.100,0.100,0.100,0.000,0.000,0.000
1644905301223848960,2022-02-15-06:08:21,10.1.1.2,22,0.090,0.090,0.090,0.000,0.000,0.000
1644905301283081984,2022-02-15-06:08:21,10.1.1.2,28,0.080,0.080,0.080,0.000,0.000,0.000
1644905301343203072,2022-02-15-06:08:21,10.1.1.2,36,0.070,0.070,0.070,0.000,0.000,0.000
1644905301383086080,2022-02-15-06:08:21,10.1.1.2,25,0.060,0.060,0.060,0.000,0.000,0.000
1644905301442940928,2022-02-15-06:08:21,10.1.1.2,34,0.050,0.050,0.050,0.000,0.000,0.000
1644905301483345152,2022-02-15-06:08:21,10.1.1.2,22,0.040,0.040,0.040,0.000,0.000,0.000
1644905301543055104,2022-02-15-06:08:21,10.1.1.2,25,0.030,0.030,0.030,0.000,0.000,0.000
1644905301602718208,2022-02-15-06:08:21,10.1.1.2,33,0.020,0.020,0.020,0.000,0.000,0.000
1644905301643059968,2022-02-15-06:08:21,10.1.1.2,22,0.010,0.010,0.010,0.000,0.000,0.000
1644905301702747136,2022-02-15-06:08:21,10.1.1.2,31,0.000,0.000,0.000,0.000,0.000,0.000
1644905301743254016,2022-02-15-06:08:21,10.1.1.2,20,-0.010,-0.010,-0.010,0.000,0.000,0.000
1644905301803538944,2022-02-15-06:08:21,10.1.1.2,27,-0.020,-0.020,-0.020,0.000,0.000,0.000
1644905301862982144,2022-02-15-06:08:21,10.1.1.2,34,-0.030,-0.030,-0.030,0.000,0.000,0.000
1644905301902700032,2022-02-15-06:08:21,10.1.1.2,24,-0.040,-0.040,-0.040,0.000,0.000,0.000
1644905301962887936,2022-02-15-06:08:21,10.1.1.2,32,-0.050,-0.050,-0.050,0.000,0.000,0.000
1644905302002823168,2022-02-15-06:08:22,10.1.1.2,21,-0.060,-0.060,-0.060,0.000,0.000,0.000
1644905302062536960,2022-02-15-06:08:22,10.1.1.2,29,-0.070,-0.070,-0.070,0.000,0.000,0.000
1644905302122941952,2022-02-15-06:08:22,10.1.1.2,38,-0.080,-0.080,-0.080,0.000,0.000,0.000
1644905302163067136,2022-02-15-06:08:22,10.1.1.2,28,-0.090,-0.090,-0.090,0.000,0.000,0.000
1644905302222923008,2022-02-15-06:08:22,10.1.1.2,37,-0.100,-0.100,-0.100,0.000,0.000,0.000
1644905302262918912,2022-02-15-06:08:22,10.1.1.2,26,-0.090,-0.090,-0.090,0.000,0.000,0.000
1644905302323633920,2022-02-15-06:08:22,10.1.1.2,34,-0.080,-0.080,-0.080,0.000,0.000,0.000
1644905302363041024,2022-02-15-06:08:22,10.1.1.2,23,-0.070,-0.070,-0.070,0.000,0.000,0.000
1644905302422679808,2022-02-15-06:08:22,10.1.1.2,29,-0.060,-0.060,-0.060,0.000,0.000,0.000
1644905302483429888,2022-02-15-06:08:22,10.1.1.2,38,-0.050,-0.050,-0.050,0.000,0.000,0.000
1644905302522806784,2022-02-15-06:08:22,10.1.1.2,27,-0.040,-0.040,-0.040,0.000,0.000,0.000
1644905302582998016,2022-02-15-06:08:22,10.1.1.2,37,-0.030,-0.030,-0.030,0.000,0.000,0.000
1644905302623629056,2022-02-15-06:08:22,10.1.1.2,26,-0.020,-0.020,-0.020,0.000,0.000,0.000
1644905302682415872,2022-02-15-06:08:22,10.1.1.2,35,-0.010,-0.010,-0.010,0.000,0.000,0.000
1644905302723525120,2022-02-15-06:08:22,10.1.1.2,24,0.000,0.000,0.000,0.000,0.000,0.000
1644905302783117056,2022-02-15-06:08:22,10.1.1.2,34,0.010,0.010,0.010,0.000,0.000,0.000
1644905302822681856,2022-02-15-06:08:22,10.1.1.2,23,0.020,0.020,0.020,0.000,0.000,0.000
1644905302883311872,2022-02-15-06:08:22,10.1.1.2,32,0.030,0.030,0.030,0.000,0.000,0.000
1644905302922769152,2022-02-15-06:08:22,10.1.1.2,22,0.040,0.040,0.040,0.000,0.000,0.000
1644905302982758144,2022-02-15-06:08:22,10.1.1.2,31,0.050,0.050,0.050,0.000,0.000,0.000
1644905303022779904,2022-02-15-06:08:23,10.1.1.2,20,0.060,0.060,0.060,0.000,0.000,0.000
1644905303083118848,2022-02-15-06:08:23,10.1.1.2,30,0.070,0.070,0.070,0.000,0.000,0.000
1644905303122704896,2022-02-15-06:08:23,10.1.1.2,19,0.079,0.079,0.079,0.000,0.000,0.000
1644905303183672064,2022-02-15-06:08:23,10.1.1.2,28,0.090,0.090,0.090,0.000,0.000,0.000
1644905303243513088,2022-02-15-06:08:23,10.1.1.2,37,0.100,0.100,0.100,0.000,0.000,0.000
1644905303283332096,2022-02-15-06:08:23,10.1.1.2,26,0.090,0.090,0.090,0.000,0.000,0.000
1644905303343228160,2022-02-15-06:08:23,10.1.1.2,36,0.080,0.080,0.080,0.000,0.000,0.000
1644905303383606016,2022-02-15-06:08:23,10.1.1.2,25,0.070,0.070,0.070,0.000,0.000,0.000
1644905303443706880,2022-02-15-06:08:23,10.1.1.2,34,0.060,0.060,0.060,0.000,0.000,0.000
1644905303483433984,2022-02-15-06:08:23,10.1.1.2,24,0.050,0.050,0.050,0.000,0.000,0.000
1644905303543668992,2022-02-15-06:08:23,10.1.1.2,33,0.040,0.040,0.040,0.000,0.000,0.000
1644905303583333888,2022-02-15-06:08:23,10.1.1.2,23,0.030,0.030,0.030,0.000,0.000,0.000
1644905303643213056,2022-02-15-06:08:23,10.1.1.2,32,0.020,0.020,0.020,0.000,0.000,0.000
1644905303683821056,2022-02-15-06:08:23,10.1.1.2,21,0.010,0.010,0.010,0.000,0.000,0.000
1644905303743737088,2022-02-15-06:08:23,10.1.1.2,30,0.000,0.000,0.000,0.000,0.000,0.000
1644905303808301824,2022-02-15-06:08:23,10.1.1.2,19,-0.010,-0.010,-0.010,0.000,0.000,0.000
1644905303852312064,2022-02-15-06:08:23,10.1.1.2,28,-0.020,-0.020,-0.020,0.000,0.000,0.000
1644905303903513856,2022-02-15-06:08:23,10.1.1.2,37,-0.030,-0.030,-0.030,0.000,0.000,0.000
1644905304002945024,2022-02-15-06:08:24,10.1.1.2,23,-0.050,-0.050,-0.050,0.000,0.000,0.000
1644905304072480000,2022-02-15-06:08:24,10.1.1.2,31,-0.060,-0.060,-0.060,0.000,0.000,0.000
1644905304103342080,2022-02-15-06:08:24,10.1.1.2,19,-0.069,-0.069,-0.069,0.000,0.000,0.000
1644905304162894080,2022-02-15-06:08:24,10.1.1.2,28,-0.080,-0.080,-0.080,0.000,0.000,0.000
1644905304222828032,2022-02-15-06:08:24,10.1.1.2,37,-0.090,-0.090,-0.090,0.000,0.000,0.000
