FedericoMungari/DigitalTwin_service/01_WiredScenario/Output/Output_script/script_rosapi_2_output_robots4_freq0_2.txt
timestamp,date,node,latency,joint_1,joint_2,joint_3,joint_4,joint_5,joint_6
1643266332693021184,2022-01-27-06:52:12,10.1.1.3,24,-0.010,-0.010,-0.010,0.000,0.000,0.000
1643266332893424128,2022-01-27-06:52:12,10.1.1.3,24,-0.020,-0.020,-0.020,0.000,0.000,0.000
1643266333094761984,2022-01-27-06:52:13,10.1.1.3,25,-0.030,-0.030,-0.030,0.000,0.000,0.000
1643266333292577024,2022-01-27-06:52:13,10.1.1.3,22,-0.040,-0.040,-0.040,0.000,0.000,0.000
1643266333492168960,2022-01-27-06:52:13,10.1.1.3,20,-0.050,-0.050,-0.050,0.000,0.000,0.000
1643266333712635136,2022-01-27-06:52:13,10.1.1.3,40,-0.061,-0.061,-0.061,0.000,0.000,0.000
1643266333894490112,2022-01-27-06:52:13,10.1.1.3,21,-0.070,-0.070,-0.070,0.000,0.000,0.000
1643266334096350976,2022-01-27-06:52:14,10.1.1.3,22,-0.080,-0.080,-0.080,0.000,0.000,0.000
1643266334295442176,2022-01-27-06:52:14,10.1.1.3,19,-0.090,-0.090,-0.090,0.000,0.000,0.000
1643266334497083904,2022-01-27-06:52:14,10.1.1.3,21,-0.100,-0.100,-0.100,0.000,0.000,0.000
1643266334699523072,2022-01-27-06:52:14,10.1.1.3,23,-0.110,-0.110,-0.110,0.000,0.000,0.000
1643266334913198080,2022-01-27-06:52:14,10.1.1.3,36,-0.121,-0.121,-0.121,0.000,0.000,0.000
1643266335113782784,2022-01-27-06:52:15,10.1.1.3,33,-0.131,-0.131,-0.131,0.000,0.000,0.000
1643266335313152000,2022-01-27-06:52:15,10.1.1.3,29,-0.140,-0.140,-0.140,0.000,0.000,0.000
1643266335514167040,2022-01-27-06:52:15,10.1.1.3,28,-0.151,-0.151,-0.151,0.000,0.000,0.000
1643266335713298176,2022-01-27-06:52:15,10.1.1.3,25,-0.160,-0.160,-0.160,0.000,0.000,0.000
1643266335912899072,2022-01-27-06:52:15,10.1.1.3,23,-0.170,-0.170,-0.170,0.000,0.000,0.000
1643266336132684032,2022-01-27-06:52:16,10.1.1.3,42,-0.181,-0.181,-0.181,0.000,0.000,0.000
1643266336313267968,2022-01-27-06:52:16,10.1.1.3,20,-0.190,-0.190,-0.190,0.000,0.000,0.000
1643266336532957952,2022-01-27-06:52:16,10.1.1.3,34,-0.201,-0.201,-0.201,0.000,0.000,0.000
1643266336733003008,2022-01-27-06:52:16,10.1.1.3,32,-0.211,-0.211,-0.211,0.000,0.000,0.000
1643266336932430080,2022-01-27-06:52:16,10.1.1.3,30,-0.221,-0.221,-0.221,0.000,0.000,0.000
1643266337140576000,2022-01-27-06:52:17,10.1.1.3,36,-0.231,-0.231,-0.231,0.000,0.000,0.000
1643266337333515008,2022-01-27-06:52:17,10.1.1.3,29,-0.241,-0.241,-0.241,0.000,0.000,0.000
1643266337533099776,2022-01-27-06:52:17,10.1.1.3,28,-0.250,-0.250,-0.250,0.000,0.000,0.000
1643266337739284992,2022-01-27-06:52:17,10.1.1.3,28,-0.260,-0.260,-0.260,0.000,0.000,0.000
1643266337932425984,2022-01-27-06:52:17,10.1.1.3,24,-0.270,-0.270,-0.270,0.000,0.000,0.000
1643266338132541952,2022-01-27-06:52:18,10.1.1.3,23,-0.280,-0.280,-0.280,0.000,0.000,0.000
1643266338332336896,2022-01-27-06:52:18,10.1.1.3,22,-0.290,-0.290,-0.290,0.000,0.000,0.000
1643266338533576960,2022-01-27-06:52:18,10.1.1.3,21,-0.300,-0.300,-0.300,0.000,0.000,0.000
1643266338733536000,2022-01-27-06:52:18,10.1.1.3,20,-0.310,-0.310,-0.310,0.000,0.000,0.000
1643266338953666048,2022-01-27-06:52:18,10.1.1.3,39,-0.321,-0.321,-0.321,0.000,0.000,0.000
1643266339153390848,2022-01-27-06:52:19,10.1.1.3,35,-0.331,-0.331,-0.331,0.000,0.000,0.000
1643266339353299968,2022-01-27-06:52:19,10.1.1.3,33,-0.341,-0.341,-0.341,0.000,0.000,0.000
1643266339553127936,2022-01-27-06:52:19,10.1.1.3,31,-0.351,-0.351,-0.351,0.000,0.000,0.000
1643266339753997056,2022-01-27-06:52:19,10.1.1.3,31,-0.361,-0.361,-0.361,0.000,0.000,0.000
1643266339953851904,2022-01-27-06:52:19,10.1.1.3,30,-0.371,-0.371,-0.371,0.000,0.000,0.000
1643266340153698816,2022-01-27-06:52:20,10.1.1.3,28,-0.381,-0.381,-0.381,0.000,0.000,0.000
1643266340356041984,2022-01-27-06:52:20,10.1.1.3,29,-0.390,-0.390,-0.390,0.000,0.000,0.000
1643266340551986944,2022-01-27-06:52:20,10.1.1.3,24,-0.400,-0.400,-0.400,0.000,0.000,0.000
1643266340753899008,2022-01-27-06:52:20,10.1.1.3,24,-0.410,-0.410,-0.410,0.000,0.000,0.000
1643266340953399040,2022-01-27-06:52:20,10.1.1.3,22,-0.420,-0.420,-0.420,0.000,0.000,0.000
1643266341174298112,2022-01-27-06:52:21,10.1.1.3,40,-0.431,-0.431,-0.431,0.000,0.000,0.000
1643266341351977984,2022-01-27-06:52:21,10.1.1.3,17,-0.440,-0.440,-0.440,0.000,0.000,0.000
1643266341553505792,2022-01-27-06:52:21,10.1.1.3,18,-0.450,-0.450,-0.450,0.000,0.000,0.000
1643266341772993024,2022-01-27-06:52:21,10.1.1.3,37,-0.461,-0.461,-0.461,0.000,0.000,0.000
1643266341973104128,2022-01-27-06:52:21,10.1.1.3,35,-0.471,-0.471,-0.471,0.000,0.000,0.000
1643266342175802880,2022-01-27-06:52:22,10.1.1.3,38,-0.481,-0.481,-0.481,0.000,0.000,0.000
1643266342352679936,2022-01-27-06:52:22,10.1.1.3,14,-0.490,-0.490,-0.490,0.000,0.000,0.000
1643266342573029888,2022-01-27-06:52:22,10.1.1.3,33,-0.479,-0.479,-0.479,0.000,0.000,0.000
1643266342772585984,2022-01-27-06:52:22,10.1.1.3,31,-0.469,-0.469,-0.469,0.000,0.000,0.000
1643266342975569920,2022-01-27-06:52:22,10.1.1.3,33,-0.459,-0.459,-0.459,0.000,0.000,0.000
1643266343176336896,2022-01-27-06:52:23,10.1.1.3,33,-0.449,-0.449,-0.449,0.000,0.000,0.000
1643266343373120000,2022-01-27-06:52:23,10.1.1.3,28,-0.439,-0.439,-0.439,0.000,0.000,0.000
1643266343571944960,2022-01-27-06:52:23,10.1.1.3,26,-0.430,-0.430,-0.430,0.000,0.000,0.000
1643266343772806912,2022-01-27-06:52:23,10.1.1.3,25,-0.420,-0.420,-0.420,0.000,0.000,0.000
1643266343973065984,2022-01-27-06:52:23,10.1.1.3,24,-0.410,-0.410,-0.410,0.000,0.000,0.000
1643266344193223936,2022-01-27-06:52:24,10.1.1.3,43,-0.399,-0.399,-0.399,0.000,0.000,0.000
1643266344393504000,2022-01-27-06:52:24,10.1.1.3,40,-0.389,-0.389,-0.389,0.000,0.000,0.000
1643266344592935168,2022-01-27-06:52:24,10.1.1.3,38,-0.379,-0.379,-0.379,0.000,0.000,0.000
1643266344793075968,2022-01-27-06:52:24,10.1.1.3,38,-0.369,-0.369,-0.369,0.000,0.000,0.000
1643266344997617920,2022-01-27-06:52:24,10.1.1.3,38,-0.359,-0.359,-0.359,0.000,0.000,0.000
1643266345193603072,2022-01-27-06:52:25,10.1.1.3,33,-0.349,-0.349,-0.349,0.000,0.000,0.000
1643266345392903936,2022-01-27-06:52:25,10.1.1.3,31,-0.339,-0.339,-0.339,0.000,0.000,0.000
1643266345593915904,2022-01-27-06:52:25,10.1.1.3,31,-0.329,-0.329,-0.329,0.000,0.000,0.000
1643266345793447936,2022-01-27-06:52:25,10.1.1.3,28,-0.319,-0.319,-0.319,0.000,0.000,0.000
1643266345993298944,2022-01-27-06:52:25,10.1.1.3,26,-0.310,-0.310,-0.310,0.000,0.000,0.000
1643266346193250048,2022-01-27-06:52:26,10.1.1.3,23,-0.300,-0.300,-0.300,0.000,0.000,0.000
1643266346412817920,2022-01-27-06:52:26,10.1.1.3,39,-0.289,-0.289,-0.289,0.000,0.000,0.000
1643266346612848128,2022-01-27-06:52:26,10.1.1.3,38,-0.279,-0.279,-0.279,0.000,0.000,0.000
1643266346812887040,2022-01-27-06:52:26,10.1.1.3,34,-0.269,-0.269,-0.269,0.000,0.000,0.000
1643266347013292032,2022-01-27-06:52:27,10.1.1.3,34,-0.259,-0.259,-0.259,0.000,0.000,0.000
1643266347213805056,2022-01-27-06:52:27,10.1.1.3,32,-0.249,-0.249,-0.249,0.000,0.000,0.000
1643266347412264960,2022-01-27-06:52:27,10.1.1.3,28,-0.239,-0.239,-0.239,0.000,0.000,0.000
1643266347613172992,2022-01-27-06:52:27,10.1.1.3,28,-0.230,-0.230,-0.230,0.000,0.000,0.000
1643266347813134080,2022-01-27-06:52:27,10.1.1.3,27,-0.219,-0.219,-0.219,0.000,0.000,0.000
1643266348014467840,2022-01-27-06:52:28,10.1.1.3,24,-0.210,-0.210,-0.210,0.000,0.000,0.000
1643266348237533952,2022-01-27-06:52:28,10.1.1.3,47,-0.199,-0.199,-0.199,0.000,0.000,0.000
1643266348413261824,2022-01-27-06:52:28,10.1.1.3,19,-0.190,-0.190,-0.190,0.000,0.000,0.000
1643266348614110976,2022-01-27-06:52:28,10.1.1.3,18,-0.180,-0.180,-0.180,0.000,0.000,0.000
1643266348833204992,2022-01-27-06:52:28,10.1.1.3,36,-0.169,-0.169,-0.169,0.000,0.000,0.000
1643266349034023936,2022-01-27-06:52:29,10.1.1.3,36,-0.159,-0.159,-0.159,0.000,0.000,0.000
1643266349234443008,2022-01-27-06:52:29,10.1.1.3,35,-0.149,-0.149,-0.149,0.000,0.000,0.000
1643266349434060032,2022-01-27-06:52:29,10.1.1.3,35,-0.139,-0.139,-0.139,0.000,0.000,0.000
1643266349633702912,2022-01-27-06:52:29,10.1.1.3,33,-0.129,-0.129,-0.129,0.000,0.000,0.000
1643266349832614912,2022-01-27-06:52:29,10.1.1.3,31,-0.119,-0.119,-0.119,0.000,0.000,0.000
1643266350035148032,2022-01-27-06:52:30,10.1.1.3,33,-0.109,-0.109,-0.109,0.000,0.000,0.000
1643266350234683904,2022-01-27-06:52:30,10.1.1.3,32,-0.099,-0.099,-0.099,0.000,0.000,0.000
1643266350432524800,2022-01-27-06:52:30,10.1.1.3,28,-0.090,-0.090,-0.090,0.000,0.000,0.000
1643266350632684032,2022-01-27-06:52:30,10.1.1.3,25,-0.080,-0.080,-0.080,0.000,0.000,0.000
1643266350833709056,2022-01-27-06:52:30,10.1.1.3,25,-0.070,-0.070,-0.070,0.000,0.000,0.000
1643266351033871872,2022-01-27-06:52:31,10.1.1.3,25,-0.060,-0.060,-0.060,0.000,0.000,0.000
1643266351252471040,2022-01-27-06:52:31,10.1.1.3,42,-0.049,-0.049,-0.049,0.000,0.000,0.000
1643266351433262080,2022-01-27-06:52:31,10.1.1.3,19,-0.040,-0.040,-0.040,0.000,0.000,0.000
1643266351633275904,2022-01-27-06:52:31,10.1.1.3,18,-0.030,-0.030,-0.030,0.000,0.000,0.000
1643266351833245952,2022-01-27-06:52:31,10.1.1.3,17,-0.020,-0.020,-0.020,0.000,0.000,0.000
1643266352052783872,2022-01-27-06:52:32,10.1.1.3,35,-0.009,-0.009,-0.009,0.000,0.000,0.000
1643266352232871936,2022-01-27-06:52:32,10.1.1.3,15,-0.000,-0.000,-0.000,0.000,0.000,0.000
1643266352452677120,2022-01-27-06:52:32,10.1.1.3,33,-0.011,-0.011,-0.011,0.000,0.000,0.000
1643266352652955904,2022-01-27-06:52:32,10.1.1.3,32,-0.021,-0.021,-0.021,0.000,0.000,0.000
1643266352853697024,2022-01-27-06:52:32,10.1.1.3,32,-0.031,-0.031,-0.031,0.000,0.000,0.000
1643266353054441984,2022-01-27-06:52:33,10.1.1.3,32,-0.041,-0.041,-0.041,0.000,0.000,0.000
1643266353254103040,2022-01-27-06:52:33,10.1.1.3,29,-0.051,-0.051,-0.051,0.000,0.000,0.000
1643266353453670144,2022-01-27-06:52:33,10.1.1.3,26,-0.060,-0.060,-0.060,0.000,0.000,0.000
1643266353653032960,2022-01-27-06:52:33,10.1.1.3,24,-0.070,-0.070,-0.070,0.000,0.000,0.000
1643266353852466176,2022-01-27-06:52:33,10.1.1.3,23,-0.080,-0.080,-0.080,0.000,0.000,0.000
1643266354053379072,2022-01-27-06:52:34,10.1.1.3,23,-0.090,-0.090,-0.090,0.000,0.000,0.000
1643266354253189120,2022-01-27-06:52:34,10.1.1.3,21,-0.100,-0.100,-0.100,0.000,0.000,0.000
1643266354452456960,2022-01-27-06:52:34,10.1.1.3,18,-0.110,-0.110,-0.110,0.000,0.000,0.000
1643266354652832000,2022-01-27-06:52:34,10.1.1.3,18,-0.120,-0.120,-0.120,0.000,0.000,0.000
1643266354873199872,2022-01-27-06:52:34,10.1.1.3,37,-0.131,-0.131,-0.131,0.000,0.000,0.000
1643266355072897024,2022-01-27-06:52:35,10.1.1.3,35,-0.141,-0.141,-0.141,0.000,0.000,0.000
1643266355273050112,2022-01-27-06:52:35,10.1.1.3,35,-0.151,-0.151,-0.151,0.000,0.000,0.000
1643266355477340928,2022-01-27-06:52:35,10.1.1.3,35,-0.161,-0.161,-0.161,0.000,0.000,0.000
1643266355674266112,2022-01-27-06:52:35,10.1.1.3,34,-0.171,-0.171,-0.171,0.000,0.000,0.000
1643266355873410816,2022-01-27-06:52:35,10.1.1.3,32,-0.180,-0.180,-0.180,0.000,0.000,0.000
1643266356074213120,2022-01-27-06:52:36,10.1.1.3,30,-0.191,-0.191,-0.191,0.000,0.000,0.000
1643266356273536000,2022-01-27-06:52:36,10.1.1.3,29,-0.200,-0.200,-0.200,0.000,0.000,0.000
1643266356471934208,2022-01-27-06:52:36,10.1.1.3,25,-0.210,-0.210,-0.210,0.000,0.000,0.000
1643266356672434176,2022-01-27-06:52:36,10.1.1.3,25,-0.220,-0.220,-0.220,0.000,0.000,0.000
1643266356872261120,2022-01-27-06:52:36,10.1.1.3,24,-0.230,-0.230,-0.230,0.000,0.000,0.000
1643266357093224960,2022-01-27-06:52:37,10.1.1.3,43,-0.241,-0.241,-0.241,0.000,0.000,0.000
1643266357293988096,2022-01-27-06:52:37,10.1.1.3,43,-0.251,-0.251,-0.251,0.000,0.000,0.000
1643266357491916800,2022-01-27-06:52:37,10.1.1.3,38,-0.261,-0.261,-0.261,0.000,0.000,0.000
1643266357692300032,2022-01-27-06:52:37,10.1.1.3,36,-0.271,-0.271,-0.271,0.000,0.000,0.000
1643266357893904896,2022-01-27-06:52:37,10.1.1.3,36,-0.281,-0.281,-0.281,0.000,0.000,0.000
1643266358093883136,2022-01-27-06:52:38,10.1.1.3,34,-0.291,-0.291,-0.291,0.000,0.000,0.000
1643266358294295040,2022-01-27-06:52:38,10.1.1.3,35,-0.301,-0.301,-0.301,0.000,0.000,0.000
1643266358495749888,2022-01-27-06:52:38,10.1.1.3,35,-0.311,-0.311,-0.311,0.000,0.000,0.000
1643266358693267968,2022-01-27-06:52:38,10.1.1.3,30,-0.321,-0.321,-0.321,0.000,0.000,0.000
1643266358893396992,2022-01-27-06:52:38,10.1.1.3,29,-0.331,-0.331,-0.331,0.000,0.000,0.000
1643266359094100992,2022-01-27-06:52:39,10.1.1.3,29,-0.341,-0.341,-0.341,0.000,0.000,0.000
1643266359293742848,2022-01-27-06:52:39,10.1.1.3,27,-0.350,-0.350,-0.350,0.000,0.000,0.000
1643266359493191936,2022-01-27-06:52:39,10.1.1.3,25,-0.360,-0.360,-0.360,0.000,0.000,0.000
1643266359694940160,2022-01-27-06:52:39,10.1.1.3,26,-0.370,-0.370,-0.370,0.000,0.000,0.000
1643266359892252928,2022-01-27-06:52:39,10.1.1.3,22,-0.380,-0.380,-0.380,0.000,0.000,0.000
1643266360113495040,2022-01-27-06:52:40,10.1.1.3,42,-0.391,-0.391,-0.391,0.000,0.000,0.000
1643266360314011136,2022-01-27-06:52:40,10.1.1.3,41,-0.401,-0.401,-0.401,0.000,0.000,0.000
1643266360517339904,2022-01-27-06:52:40,10.1.1.3,43,-0.411,-0.411,-0.411,0.000,0.000,0.000
1643266360693945856,2022-01-27-06:52:40,10.1.1.3,18,-0.420,-0.420,-0.420,0.000,0.000,0.000
1643266360911757056,2022-01-27-06:52:40,10.1.1.3,35,-0.431,-0.431,-0.431,0.000,0.000,0.000
1643266361113060096,2022-01-27-06:52:41,10.1.1.3,36,-0.441,-0.441,-0.441,0.000,0.000,0.000
1643266361314849024,2022-01-27-06:52:41,10.1.1.3,35,-0.451,-0.451,-0.451,0.000,0.000,0.000
1643266361512164096,2022-01-27-06:52:41,10.1.1.3,33,-0.461,-0.461,-0.461,0.000,0.000,0.000
1643266361712179968,2022-01-27-06:52:41,10.1.1.3,33,-0.471,-0.471,-0.471,0.000,0.000,0.000
1643266361913278208,2022-01-27-06:52:41,10.1.1.3,33,-0.481,-0.481,-0.481,0.000,0.000,0.000
1643266362092470016,2022-01-27-06:52:42,10.1.1.3,11,-0.490,-0.490,-0.490,0.000,0.000,0.000
1643266362313977088,2022-01-27-06:52:42,10.1.1.3,32,-0.480,-0.480,-0.480,0.000,0.000,0.000
1643266362512706048,2022-01-27-06:52:42,10.1.1.3,29,-0.470,-0.470,-0.470,0.000,0.000,0.000
1643266362712762112,2022-01-27-06:52:42,10.1.1.3,29,-0.459,-0.459,-0.459,0.000,0.000,0.000
1643266362913073152,2022-01-27-06:52:42,10.1.1.3,28,-0.449,-0.449,-0.449,0.000,0.000,0.000
1643266363113445120,2022-01-27-06:52:43,10.1.1.3,28,-0.440,-0.440,-0.440,0.000,0.000,0.000
1643266363313608960,2022-01-27-06:52:43,10.1.1.3,25,-0.430,-0.430,-0.430,0.000,0.000,0.000
1643266363513509888,2022-01-27-06:52:43,10.1.1.3,25,-0.420,-0.420,-0.420,0.000,0.000,0.000
1643266363714433792,2022-01-27-06:52:43,10.1.1.3,25,-0.410,-0.410,-0.410,0.000,0.000,0.000
1643266363933798144,2022-01-27-06:52:43,10.1.1.3,43,-0.399,-0.399,-0.399,0.000,0.000,0.000
1643266364114199040,2022-01-27-06:52:44,10.1.1.3,22,-0.390,-0.390,-0.390,0.000,0.000,0.000
1643266364333897216,2022-01-27-06:52:44,10.1.1.3,41,-0.379,-0.379,-0.379,0.000,0.000,0.000
1643266364513221120,2022-01-27-06:52:44,10.1.1.3,19,-0.370,-0.370,-0.370,0.000,0.000,0.000
1643266364712916992,2022-01-27-06:52:44,10.1.1.3,17,-0.360,-0.360,-0.360,0.000,0.000,0.000
1643266364932914944,2022-01-27-06:52:44,10.1.1.3,36,-0.349,-0.349,-0.349,0.000,0.000,0.000
1643266365133865216,2022-01-27-06:52:45,10.1.1.3,35,-0.339,-0.339,-0.339,0.000,0.000,0.000
1643266365332954880,2022-01-27-06:52:45,10.1.1.3,32,-0.329,-0.329,-0.329,0.000,0.000,0.000
1643266365533233920,2022-01-27-06:52:45,10.1.1.3,32,-0.319,-0.319,-0.319,0.000,0.000,0.000
1643266365732323840,2022-01-27-06:52:45,10.1.1.3,29,-0.309,-0.309,-0.309,0.000,0.000,0.000
1643266365932787968,2022-01-27-06:52:45,10.1.1.3,28,-0.299,-0.299,-0.299,0.000,0.000,0.000
1643266366133860096,2022-01-27-06:52:46,10.1.1.3,29,-0.289,-0.289,-0.289,0.000,0.000,0.000
1643266366334116864,2022-01-27-06:52:46,10.1.1.3,28,-0.279,-0.279,-0.279,0.000,0.000,0.000
1643266366532823040,2022-01-27-06:52:46,10.1.1.3,26,-0.270,-0.270,-0.270,0.000,0.000,0.000
1643266366733670912,2022-01-27-06:52:46,10.1.1.3,26,-0.260,-0.260,-0.260,0.000,0.000,0.000
1643266366934416896,2022-01-27-06:52:46,10.1.1.3,26,-0.250,-0.250,-0.250,0.000,0.000,0.000
1643266367136758016,2022-01-27-06:52:47,10.1.1.3,25,-0.240,-0.240,-0.240,0.000,0.000,0.000
1643266367333828864,2022-01-27-06:52:47,10.1.1.3,23,-0.230,-0.230,-0.230,0.000,0.000,0.000
1643266367552967936,2022-01-27-06:52:47,10.1.1.3,39,-0.219,-0.219,-0.219,0.000,0.000,0.000
1643266367732688896,2022-01-27-06:52:47,10.1.1.3,18,-0.210,-0.210,-0.210,0.000,0.000,0.000
1643266367952691200,2022-01-27-06:52:47,10.1.1.3,37,-0.199,-0.199,-0.199,0.000,0.000,0.000
1643266368152779008,2022-01-27-06:52:48,10.1.1.3,37,-0.189,-0.189,-0.189,0.000,0.000,0.000
1643266368353379840,2022-01-27-06:52:48,10.1.1.3,36,-0.179,-0.179,-0.179,0.000,0.000,0.000
1643266368553633024,2022-01-27-06:52:48,10.1.1.3,35,-0.169,-0.169,-0.169,0.000,0.000,0.000
1643266368753240064,2022-01-27-06:52:48,10.1.1.3,35,-0.159,-0.159,-0.159,0.000,0.000,0.000
1643266368953180160,2022-01-27-06:52:48,10.1.1.3,34,-0.149,-0.149,-0.149,0.000,0.000,0.000
1643266369154264832,2022-01-27-06:52:49,10.1.1.3,34,-0.140,-0.140,-0.140,0.000,0.000,0.000
1643266369352569088,2022-01-27-06:52:49,10.1.1.3,30,-0.129,-0.129,-0.129,0.000,0.000,0.000
1643266369553294848,2022-01-27-06:52:49,10.1.1.3,30,-0.119,-0.119,-0.119,0.000,0.000,0.000
1643266369753481984,2022-01-27-06:52:49,10.1.1.3,29,-0.109,-0.109,-0.109,0.000,0.000,0.000
1643266369953349120,2022-01-27-06:52:49,10.1.1.3,28,-0.099,-0.099,-0.099,0.000,0.000,0.000
1643266370154097152,2022-01-27-06:52:50,10.1.1.3,28,-0.090,-0.090,-0.090,0.000,0.000,0.000
1643266370353946880,2022-01-27-06:52:50,10.1.1.3,27,-0.079,-0.079,-0.079,0.000,0.000,0.000
1643266370552283904,2022-01-27-06:52:50,10.1.1.3,26,-0.070,-0.070,-0.070,0.000,0.000,0.000
1643266370753562880,2022-01-27-06:52:50,10.1.1.3,26,-0.060,-0.060,-0.060,0.000,0.000,0.000
1643266370952996864,2022-01-27-06:52:50,10.1.1.3,25,-0.050,-0.050,-0.050,0.000,0.000,0.000
1643266371152203008,2022-01-27-06:52:51,10.1.1.3,23,-0.040,-0.040,-0.040,0.000,0.000,0.000
1643266371352310784,2022-01-27-06:52:51,10.1.1.3,22,-0.030,-0.030,-0.030,0.000,0.000,0.000
1643266371552910080,2022-01-27-06:52:51,10.1.1.3,20,-0.020,-0.020,-0.020,0.000,0.000,0.000
1643266371752940800,2022-01-27-06:52:51,10.1.1.3,19,-0.010,-0.010,-0.010,0.000,0.000,0.000
1643266371953411072,2022-01-27-06:52:51,10.1.1.3,19,-0.000,-0.000,-0.000,0.000,0.000,0.000
1643266372152861184,2022-01-27-06:52:52,10.1.1.3,18,-0.010,-0.010,-0.010,0.000,0.000,0.000
1643266372372836096,2022-01-27-06:52:52,10.1.1.3,34,-0.021,-0.021,-0.021,0.000,0.000,0.000
1643266372573859072,2022-01-27-06:52:52,10.1.1.3,34,-0.031,-0.031,-0.031,0.000,0.000,0.000
1643266372772318976,2022-01-27-06:52:52,10.1.1.3,30,-0.041,-0.041,-0.041,0.000,0.000,0.000
1643266372973189120,2022-01-27-06:52:52,10.1.1.3,29,-0.051,-0.051,-0.051,0.000,0.000,0.000
1643266373172137984,2022-01-27-06:52:53,10.1.1.3,28,-0.060,-0.060,-0.060,0.000,0.000,0.000
1643266373371766016,2022-01-27-06:52:53,10.1.1.3,26,-0.071,-0.071,-0.071,0.000,0.000,0.000
1643266373572340992,2022-01-27-06:52:53,10.1.1.3,24,-0.080,-0.080,-0.080,0.000,0.000,0.000
1643266373772407040,2022-01-27-06:52:53,10.1.1.3,23,-0.090,-0.090,-0.090,0.000,0.000,0.000
1643266373972652800,2022-01-27-06:52:53,10.1.1.3,22,-0.100,-0.100,-0.100,0.000,0.000,0.000
1643266374172065024,2022-01-27-06:52:54,10.1.1.3,20,-0.110,-0.110,-0.110,0.000,0.000,0.000
1643266374372529920,2022-01-27-06:52:54,10.1.1.3,19,-0.120,-0.120,-0.120,0.000,0.000,0.000
1643266374594502912,2022-01-27-06:52:54,10.1.1.3,41,-0.131,-0.131,-0.131,0.000,0.000,0.000
1643266374797512960,2022-01-27-06:52:54,10.1.1.3,42,-0.141,-0.141,-0.141,0.000,0.000,0.000
1643266374992886016,2022-01-27-06:52:54,10.1.1.3,35,-0.151,-0.151,-0.151,0.000,0.000,0.000
1643266375192759040,2022-01-27-06:52:55,10.1.1.3,35,-0.161,-0.161,-0.161,0.000,0.000,0.000
1643266375391921920,2022-01-27-06:52:55,10.1.1.3,32,-0.171,-0.171,-0.171,0.000,0.000,0.000
1643266375592418816,2022-01-27-06:52:55,10.1.1.3,32,-0.181,-0.181,-0.181,0.000,0.000,0.000
1643266375794964992,2022-01-27-06:52:55,10.1.1.3,34,-0.191,-0.191,-0.191,0.000,0.000,0.000
1643266375994266112,2022-01-27-06:52:55,10.1.1.3,32,-0.201,-0.201,-0.201,0.000,0.000,0.000
1643266376194675968,2022-01-27-06:52:56,10.1.1.3,31,-0.211,-0.211,-0.211,0.000,0.000,0.000
1643266376392560896,2022-01-27-06:52:56,10.1.1.3,28,-0.221,-0.221,-0.221,0.000,0.000,0.000
1643266376593868032,2022-01-27-06:52:56,10.1.1.3,28,-0.230,-0.230,-0.230,0.000,0.000,0.000
1643266376813908224,2022-01-27-06:52:56,10.1.1.3,43,-0.241,-0.241,-0.241,0.000,0.000,0.000
1643266376993702912,2022-01-27-06:52:56,10.1.1.3,21,-0.250,-0.250,-0.250,0.000,0.000,0.000
1643266377195035904,2022-01-27-06:52:57,10.1.1.3,21,-0.260,-0.260,-0.260,0.000,0.000,0.000
1643266377413625856,2022-01-27-06:52:57,10.1.1.3,38,-0.271,-0.271,-0.271,0.000,0.000,0.000
1643266377577140992,2022-01-27-06:52:57,10.1.1.3,-1,-0.279,-0.279,-0.279,0.000,0.000,0.000
1643266377813595904,2022-01-27-06:52:57,10.1.1.3,36,-0.291,-0.291,-0.291,0.000,0.000,0.000
1643266378013714944,2022-01-27-06:52:58,10.1.1.3,35,-0.301,-0.301,-0.301,0.000,0.000,0.000
1643266378213721088,2022-01-27-06:52:58,10.1.1.3,34,-0.311,-0.311,-0.311,0.000,0.000,0.000
1643266378412361984,2022-01-27-06:52:58,10.1.1.3,31,-0.321,-0.321,-0.321,0.000,0.000,0.000
1643266378612654848,2022-01-27-06:52:58,10.1.1.3,29,-0.331,-0.331,-0.331,0.000,0.000,0.000
1643266378813113856,2022-01-27-06:52:58,10.1.1.3,28,-0.341,-0.341,-0.341,0.000,0.000,0.000
1643266379012975872,2022-01-27-06:52:59,10.1.1.3,27,-0.350,-0.350,-0.350,0.000,0.000,0.000
1643266379213218816,2022-01-27-06:52:59,10.1.1.3,24,-0.360,-0.360,-0.360,0.000,0.000,0.000
1643266379432672000,2022-01-27-06:52:59,10.1.1.3,42,-0.371,-0.371,-0.371,0.000,0.000,0.000
1643266379612564992,2022-01-27-06:52:59,10.1.1.3,21,-0.380,-0.380,-0.380,0.000,0.000,0.000
1643266379834102016,2022-01-27-06:52:59,10.1.1.3,41,-0.391,-0.391,-0.391,0.000,0.000,0.000
1643266380014141184,2022-01-27-06:53:00,10.1.1.3,20,-0.400,-0.400,-0.400,0.000,0.000,0.000
1643266380213574912,2022-01-27-06:53:00,10.1.1.3,18,-0.410,-0.410,-0.410,0.000,0.000,0.000
1643266380433476096,2022-01-27-06:53:00,10.1.1.3,36,-0.421,-0.421,-0.421,0.000,0.000,0.000
1643266380634294016,2022-01-27-06:53:00,10.1.1.3,36,-0.431,-0.431,-0.431,0.000,0.000,0.000
1643266380832892928,2022-01-27-06:53:00,10.1.1.3,34,-0.441,-0.441,-0.441,0.000,0.000,0.000
1643266381033162240,2022-01-27-06:53:01,10.1.1.3,33,-0.451,-0.451,-0.451,0.000,0.000,0.000
1643266381234461952,2022-01-27-06:53:01,10.1.1.3,32,-0.461,-0.461,-0.461,0.000,0.000,0.000
1643266381433507072,2022-01-27-06:53:01,10.1.1.3,29,-0.471,-0.471,-0.471,0.000,0.000,0.000
1643266381634212864,2022-01-27-06:53:01,10.1.1.3,26,-0.480,-0.480,-0.480,0.000,0.000,0.000
1643266381812148992,2022-01-27-06:53:01,10.1.1.3,3,-0.489,-0.489,-0.489,0.000,0.000,0.000
1643266382033558016,2022-01-27-06:53:02,10.1.1.3,24,-0.480,-0.480,-0.480,0.000,0.000,0.000
1643266382233186048,2022-01-27-06:53:02,10.1.1.3,22,-0.470,-0.470,-0.470,0.000,0.000,0.000
1643266382454798080,2022-01-27-06:53:02,10.1.1.3,41,-0.459,-0.459,-0.459,0.000,0.000,0.000
1643266382652964096,2022-01-27-06:53:02,10.1.1.3,37,-0.449,-0.449,-0.449,0.000,0.000,0.000
1643266382853131008,2022-01-27-06:53:02,10.1.1.3,36,-0.439,-0.439,-0.439,0.000,0.000,0.000
1643266383052676864,2022-01-27-06:53:03,10.1.1.3,35,-0.429,-0.429,-0.429,0.000,0.000,0.000
1643266383253735936,2022-01-27-06:53:03,10.1.1.3,35,-0.419,-0.419,-0.419,0.000,0.000,0.000
1643266383453174016,2022-01-27-06:53:03,10.1.1.3,34,-0.409,-0.409,-0.409,0.000,0.000,0.000
1643266383653563136,2022-01-27-06:53:03,10.1.1.3,33,-0.399,-0.399,-0.399,0.000,0.000,0.000
1643266383852668928,2022-01-27-06:53:03,10.1.1.3,31,-0.389,-0.389,-0.389,0.000,0.000,0.000
1643266384053071104,2022-01-27-06:53:04,10.1.1.3,30,-0.379,-0.379,-0.379,0.000,0.000,0.000
1643266384252985088,2022-01-27-06:53:04,10.1.1.3,29,-0.370,-0.370,-0.370,0.000,0.000,0.000
1643266384457138944,2022-01-27-06:53:04,10.1.1.3,32,-0.360,-0.360,-0.360,0.000,0.000,0.000
1643266384652508928,2022-01-27-06:53:04,10.1.1.3,27,-0.349,-0.349,-0.349,0.000,0.000,0.000
1643266384852268032,2022-01-27-06:53:04,10.1.1.3,24,-0.340,-0.340,-0.340,0.000,0.000,0.000
1643266385053872128,2022-01-27-06:53:05,10.1.1.3,25,-0.329,-0.329,-0.329,0.000,0.000,0.000
1643266385273732864,2022-01-27-06:53:05,10.1.1.3,45,-0.319,-0.319,-0.319,0.000,0.000,0.000
1643266385460495104,2022-01-27-06:53:05,10.1.1.3,30,-0.310,-0.310,-0.310,0.000,0.000,0.000
1643266385676825088,2022-01-27-06:53:05,10.1.1.3,46,-0.299,-0.299,-0.299,0.000,0.000,0.000
1643266385852822016,2022-01-27-06:53:05,10.1.1.3,21,-0.290,-0.290,-0.290,0.000,0.000,0.000
1643266386072900096,2022-01-27-06:53:06,10.1.1.3,39,-0.279,-0.279,-0.279,0.000,0.000,0.000
1643266386252348928,2022-01-27-06:53:06,10.1.1.3,18,-0.270,-0.270,-0.270,0.000,0.000,0.000
1643266386472222976,2022-01-27-06:53:06,10.1.1.3,37,-0.259,-0.259,-0.259,0.000,0.000,0.000
1643266386673049088,2022-01-27-06:53:06,10.1.1.3,36,-0.249,-0.249,-0.249,0.000,0.000,0.000
1643266386872096000,2022-01-27-06:53:06,10.1.1.3,34,-0.239,-0.239,-0.239,0.000,0.000,0.000
1643266387072515840,2022-01-27-06:53:07,10.1.1.3,32,-0.229,-0.229,-0.229,0.000,0.000,0.000
1643266387273163008,2022-01-27-06:53:07,10.1.1.3,32,-0.219,-0.219,-0.219,0.000,0.000,0.000
1643266387472347904,2022-01-27-06:53:07,10.1.1.3,31,-0.209,-0.209,-0.209,0.000,0.000,0.000
1643266387672303872,2022-01-27-06:53:07,10.1.1.3,30,-0.199,-0.199,-0.199,0.000,0.000,0.000
1643266387873307904,2022-01-27-06:53:07,10.1.1.3,30,-0.189,-0.189,-0.189,0.000,0.000,0.000
1643266388072321792,2022-01-27-06:53:08,10.1.1.3,27,-0.179,-0.179,-0.179,0.000,0.000,0.000
1643266388273212928,2022-01-27-06:53:08,10.1.1.3,26,-0.170,-0.170,-0.170,0.000,0.000,0.000
1643266388472204800,2022-01-27-06:53:08,10.1.1.3,23,-0.160,-0.160,-0.160,0.000,0.000,0.000
1643266388693737984,2022-01-27-06:53:08,10.1.1.3,44,-0.149,-0.149,-0.149,0.000,0.000,0.000
1643266388873223936,2022-01-27-06:53:08,10.1.1.3,21,-0.140,-0.140,-0.140,0.000,0.000,0.000
1643266389073338112,2022-01-27-06:53:09,10.1.1.3,20,-0.130,-0.130,-0.130,0.000,0.000,0.000
1643266389273669888,2022-01-27-06:53:09,10.1.1.3,20,-0.120,-0.120,-0.120,0.000,0.000,0.000
1643266389472493824,2022-01-27-06:53:09,10.1.1.3,18,-0.110,-0.110,-0.110,0.000,0.000,0.000
1643266389675282944,2022-01-27-06:53:09,10.1.1.3,20,-0.100,-0.100,-0.100,0.000,0.000,0.000
1643266389873357056,2022-01-27-06:53:09,10.1.1.3,17,-0.090,-0.090,-0.090,0.000,0.000,0.000
1643266390073391872,2022-01-27-06:53:10,10.1.1.3,16,-0.080,-0.080,-0.080,0.000,0.000,0.000
1643266390292916992,2022-01-27-06:53:10,10.1.1.3,35,-0.069,-0.069,-0.069,0.000,0.000,0.000
1643266390493641984,2022-01-27-06:53:10,10.1.1.3,33,-0.059,-0.059,-0.059,0.000,0.000,0.000
1643266390692724992,2022-01-27-06:53:10,10.1.1.3,31,-0.049,-0.049,-0.049,0.000,0.000,0.000
1643266390891951104,2022-01-27-06:53:10,10.1.1.3,30,-0.039,-0.039,-0.039,0.000,0.000,0.000
1643266391093046784,2022-01-27-06:53:11,10.1.1.3,30,-0.029,-0.029,-0.029,0.000,0.000,0.000
1643266391292797184,2022-01-27-06:53:11,10.1.1.3,29,-0.019,-0.019,-0.019,0.000,0.000,0.000
1643266391495714048,2022-01-27-06:53:11,10.1.1.3,31,-0.009,-0.009,-0.009,0.000,0.000,0.000
1643266391672080896,2022-01-27-06:53:11,10.1.1.3,6,-0.000,-0.000,-0.000,0.000,0.000,0.000
1643266391893522944,2022-01-27-06:53:11,10.1.1.3,27,-0.010,-0.010,-0.010,0.000,0.000,0.000
1643266392094075904,2022-01-27-06:53:12,10.1.1.3,26,-0.020,-0.020,-0.020,0.000,0.000,0.000
1643266392293677056,2022-01-27-06:53:12,10.1.1.3,25,-0.030,-0.030,-0.030,0.000,0.000,0.000
1643266392493218048,2022-01-27-06:53:12,10.1.1.3,24,-0.040,-0.040,-0.040,0.000,0.000,0.000
1643266392714839040,2022-01-27-06:53:12,10.1.1.3,44,-0.051,-0.051,-0.051,0.000,0.000,0.000
1643266392913346048,2022-01-27-06:53:12,10.1.1.3,42,-0.061,-0.061,-0.061,0.000,0.000,0.000
1643266393092619008,2022-01-27-06:53:13,10.1.1.3,20,-0.070,-0.070,-0.070,0.000,0.000,0.000
1643266393273427968,2022-01-27-06:53:13,10.1.1.3,-1,-0.079,-0.079,-0.079,0.000,0.000,0.000
1643266393492697088,2022-01-27-06:53:13,10.1.1.3,17,-0.090,-0.090,-0.090,0.000,0.000,0.000
1643266393692025856,2022-01-27-06:53:13,10.1.1.3,15,-0.100,-0.100,-0.100,0.000,0.000,0.000
1643266393911633920,2022-01-27-06:53:13,10.1.1.3,34,-0.111,-0.111,-0.111,0.000,0.000,0.000
1643266394112483072,2022-01-27-06:53:14,10.1.1.3,34,-0.121,-0.121,-0.121,0.000,0.000,0.000
1643266394312231168,2022-01-27-06:53:14,10.1.1.3,33,-0.131,-0.131,-0.131,0.000,0.000,0.000
1643266394512868864,2022-01-27-06:53:14,10.1.1.3,32,-0.141,-0.141,-0.141,0.000,0.000,0.000
1643266394712951808,2022-01-27-06:53:14,10.1.1.3,30,-0.151,-0.151,-0.151,0.000,0.000,0.000
1643266394911862016,2022-01-27-06:53:14,10.1.1.3,29,-0.161,-0.161,-0.161,0.000,0.000,0.000
1643266395112179968,2022-01-27-06:53:15,10.1.1.3,28,-0.171,-0.171,-0.171,0.000,0.000,0.000
1643266395312239872,2022-01-27-06:53:15,10.1.1.3,28,-0.180,-0.180,-0.180,0.000,0.000,0.000
1643266395513426944,2022-01-27-06:53:15,10.1.1.3,27,-0.190,-0.190,-0.190,0.000,0.000,0.000
1643266395732857856,2022-01-27-06:53:15,10.1.1.3,43,-0.201,-0.201,-0.201,0.000,0.000,0.000
1643266395933224960,2022-01-27-06:53:15,10.1.1.3,42,-0.211,-0.211,-0.211,0.000,0.000,0.000
1643266396133191168,2022-01-27-06:53:16,10.1.1.3,39,-0.221,-0.221,-0.221,0.000,0.000,0.000
1643266396313698048,2022-01-27-06:53:16,10.1.1.3,18,-0.230,-0.230,-0.230,0.000,0.000,0.000
1643266396533315840,2022-01-27-06:53:16,10.1.1.3,35,-0.241,-0.241,-0.241,0.000,0.000,0.000
1643266396734145024,2022-01-27-06:53:16,10.1.1.3,35,-0.251,-0.251,-0.251,0.000,0.000,0.000
1643266396932621056,2022-01-27-06:53:16,10.1.1.3,31,-0.260,-0.260,-0.260,0.000,0.000,0.000
1643266397132944128,2022-01-27-06:53:17,10.1.1.3,28,-0.270,-0.270,-0.270,0.000,0.000,0.000
1643266397332456960,2022-01-27-06:53:17,10.1.1.3,27,-0.280,-0.280,-0.280,0.000,0.000,0.000
1643266397533341952,2022-01-27-06:53:17,10.1.1.3,27,-0.290,-0.290,-0.290,0.000,0.000,0.000
1643266397732182016,2022-01-27-06:53:17,10.1.1.3,25,-0.300,-0.300,-0.300,0.000,0.000,0.000
1643266397934171904,2022-01-27-06:53:17,10.1.1.3,26,-0.310,-0.310,-0.310,0.000,0.000,0.000
1643266398134545920,2022-01-27-06:53:18,10.1.1.3,25,-0.320,-0.320,-0.320,0.000,0.000,0.000
1643266398332663040,2022-01-27-06:53:18,10.1.1.3,22,-0.330,-0.330,-0.330,0.000,0.000,0.000
1643266398532989952,2022-01-27-06:53:18,10.1.1.3,22,-0.340,-0.340,-0.340,0.000,0.000,0.000
1643266398753134080,2022-01-27-06:53:18,10.1.1.3,40,-0.351,-0.351,-0.351,0.000,0.000,0.000
1643266398953625088,2022-01-27-06:53:18,10.1.1.3,39,-0.361,-0.361,-0.361,0.000,0.000,0.000
1643266399132865024,2022-01-27-06:53:19,10.1.1.3,17,-0.370,-0.370,-0.370,0.000,0.000,0.000
1643266399352854016,2022-01-27-06:53:19,10.1.1.3,35,-0.381,-0.381,-0.381,0.000,0.000,0.000
1643266399552346112,2022-01-27-06:53:19,10.1.1.3,33,-0.391,-0.391,-0.391,0.000,0.000,0.000
1643266399753350912,2022-01-27-06:53:19,10.1.1.3,33,-0.401,-0.401,-0.401,0.000,0.000,0.000
1643266399953644032,2022-01-27-06:53:19,10.1.1.3,31,-0.410,-0.410,-0.410,0.000,0.000,0.000
1643266400154419968,2022-01-27-06:53:20,10.1.1.3,31,-0.421,-0.421,-0.421,0.000,0.000,0.000
1643266400355273984,2022-01-27-06:53:20,10.1.1.3,31,-0.430,-0.430,-0.430,0.000,0.000,0.000
1643266400553433856,2022-01-27-06:53:20,10.1.1.3,28,-0.440,-0.440,-0.440,0.000,0.000,0.000
1643266400753113088,2022-01-27-06:53:20,10.1.1.3,26,-0.450,-0.450,-0.450,0.000,0.000,0.000
1643266400952313856,2022-01-27-06:53:20,10.1.1.3,24,-0.460,-0.460,-0.460,0.000,0.000,0.000
1643266401152306944,2022-01-27-06:53:21,10.1.1.3,24,-0.470,-0.470,-0.470,0.000,0.000,0.000
1643266401353209856,2022-01-27-06:53:21,10.1.1.3,24,-0.480,-0.480,-0.480,0.000,0.000,0.000
1643266401533380096,2022-01-27-06:53:21,10.1.1.3,3,-0.489,-0.489,-0.489,0.000,0.000,0.000
1643266401753596160,2022-01-27-06:53:21,10.1.1.3,21,-0.480,-0.480,-0.480,0.000,0.000,0.000
1643266401953860096,2022-01-27-06:53:21,10.1.1.3,18,-0.470,-0.470,-0.470,0.000,0.000,0.000
1643266402154999040,2022-01-27-06:53:22,10.1.1.3,19,-0.460,-0.460,-0.460,0.000,0.000,0.000
1643266402373351936,2022-01-27-06:53:22,10.1.1.3,37,-0.449,-0.449,-0.449,0.000,0.000,0.000
1643266402572418048,2022-01-27-06:53:22,10.1.1.3,35,-0.439,-0.439,-0.439,0.000,0.000,0.000
1643266402772867840,2022-01-27-06:53:22,10.1.1.3,34,-0.429,-0.429,-0.429,0.000,0.000,0.000
1643266402972281856,2022-01-27-06:53:22,10.1.1.3,33,-0.419,-0.419,-0.419,0.000,0.000,0.000
1643266403172861184,2022-01-27-06:53:23,10.1.1.3,33,-0.409,-0.409,-0.409,0.000,0.000,0.000
1643266403373719808,2022-01-27-06:53:23,10.1.1.3,32,-0.399,-0.399,-0.399,0.000,0.000,0.000
1643266403574793984,2022-01-27-06:53:23,10.1.1.3,33,-0.389,-0.389,-0.389,0.000,0.000,0.000
1643266403773103872,2022-01-27-06:53:23,10.1.1.3,30,-0.379,-0.379,-0.379,0.000,0.000,0.000
1643266403973814016,2022-01-27-06:53:23,10.1.1.3,30,-0.369,-0.369,-0.369,0.000,0.000,0.000
1643266404173420032,2022-01-27-06:53:24,10.1.1.3,23,-0.360,-0.360,-0.360,0.000,0.000,0.000
1643266404376509952,2022-01-27-06:53:24,10.1.1.3,25,-0.350,-0.350,-0.350,0.000,0.000,0.000
1643266404595570176,2022-01-27-06:53:24,10.1.1.3,40,-0.339,-0.339,-0.339,0.000,0.000,0.000
1643266404794003968,2022-01-27-06:53:24,10.1.1.3,36,-0.329,-0.329,-0.329,0.000,0.000,0.000
1643266404994260992,2022-01-27-06:53:24,10.1.1.3,34,-0.319,-0.319,-0.319,0.000,0.000,0.000
1643266405196645120,2022-01-27-06:53:25,10.1.1.3,34,-0.310,-0.310,-0.310,0.000,0.000,0.000
1643266405393521920,2022-01-27-06:53:25,10.1.1.3,30,-0.299,-0.299,-0.299,0.000,0.000,0.000
1643266405593206016,2022-01-27-06:53:25,10.1.1.3,27,-0.290,-0.290,-0.290,0.000,0.000,0.000
1643266405794585088,2022-01-27-06:53:25,10.1.1.3,26,-0.280,-0.280,-0.280,0.000,0.000,0.000
1643266406014383104,2022-01-27-06:53:26,10.1.1.3,43,-0.269,-0.269,-0.269,0.000,0.000,0.000
1643266406193500928,2022-01-27-06:53:26,10.1.1.3,20,-0.260,-0.260,-0.260,0.000,0.000,0.000
1643266406413491968,2022-01-27-06:53:26,10.1.1.3,37,-0.249,-0.249,-0.249,0.000,0.000,0.000
1643266406614279936,2022-01-27-06:53:26,10.1.1.3,33,-0.239,-0.239,-0.239,0.000,0.000,0.000
1643266406814821888,2022-01-27-06:53:26,10.1.1.3,33,-0.229,-0.229,-0.229,0.000,0.000,0.000
1643266407014561024,2022-01-27-06:53:27,10.1.1.3,30,-0.219,-0.219,-0.219,0.000,0.000,0.000
1643266407214714112,2022-01-27-06:53:27,10.1.1.3,29,-0.210,-0.210,-0.210,0.000,0.000,0.000
1643266407414731008,2022-01-27-06:53:27,10.1.1.3,25,-0.200,-0.200,-0.200,0.000,0.000,0.000
1643266407635236864,2022-01-27-06:53:27,10.1.1.3,43,-0.189,-0.189,-0.189,0.000,0.000,0.000
1643266407834770944,2022-01-27-06:53:27,10.1.1.3,41,-0.179,-0.179,-0.179,0.000,0.000,0.000
1643266408034532096,2022-01-27-06:53:28,10.1.1.3,39,-0.169,-0.169,-0.169,0.000,0.000,0.000
1643266408236605952,2022-01-27-06:53:28,10.1.1.3,37,-0.159,-0.159,-0.159,0.000,0.000,0.000
1643266408435609088,2022-01-27-06:53:28,10.1.1.3,34,-0.149,-0.149,-0.149,0.000,0.000,0.000
1643266408634348032,2022-01-27-06:53:28,10.1.1.3,30,-0.139,-0.139,-0.139,0.000,0.000,0.000
1643266408834768128,2022-01-27-06:53:28,10.1.1.3,28,-0.130,-0.130,-0.130,0.000,0.000,0.000
1643266409032687872,2022-01-27-06:53:29,10.1.1.3,24,-0.120,-0.120,-0.120,0.000,0.000,0.000
1643266409232644096,2022-01-27-06:53:29,10.1.1.3,23,-0.110,-0.110,-0.110,0.000,0.000,0.000
1643266409433342976,2022-01-27-06:53:29,10.1.1.3,23,-0.100,-0.100,-0.100,0.000,0.000,0.000
1643266409653688064,2022-01-27-06:53:29,10.1.1.3,42,-0.089,-0.089,-0.089,0.000,0.000,0.000
1643266409832933888,2022-01-27-06:53:29,10.1.1.3,19,-0.080,-0.080,-0.080,0.000,0.000,0.000
1643266410052270848,2022-01-27-06:53:30,10.1.1.3,33,-0.069,-0.069,-0.069,0.000,0.000,0.000
1643266410253370112,2022-01-27-06:53:30,10.1.1.3,33,-0.059,-0.059,-0.059,0.000,0.000,0.000
1643266410452692992,2022-01-27-06:53:30,10.1.1.3,31,-0.049,-0.049,-0.049,0.000,0.000,0.000
1643266410652987904,2022-01-27-06:53:30,10.1.1.3,31,-0.039,-0.039,-0.039,0.000,0.000,0.000
1643266410854688000,2022-01-27-06:53:30,10.1.1.3,30,-0.029,-0.029,-0.029,0.000,0.000,0.000
1643266411052262912,2022-01-27-06:53:31,10.1.1.3,28,-0.019,-0.019,-0.019,0.000,0.000,0.000
1643266411252992000,2022-01-27-06:53:31,10.1.1.3,27,-0.010,-0.010,-0.010,0.000,0.000,0.000
1643266411431972096,2022-01-27-06:53:31,10.1.1.3,5,-0.000,-0.000,-0.000,0.000,0.000,0.000
1643266411652484864,2022-01-27-06:53:31,10.1.1.3,25,-0.010,-0.010,-0.010,0.000,0.000,0.000
1643266411872688896,2022-01-27-06:53:31,10.1.1.3,40,-0.021,-0.021,-0.021,0.000,0.000,0.000
1643266412052139008,2022-01-27-06:53:32,10.1.1.3,18,-0.030,-0.030,-0.030,0.000,0.000,0.000
1643266412273519104,2022-01-27-06:53:32,10.1.1.3,38,-0.041,-0.041,-0.041,0.000,0.000,0.000
1643266412472791040,2022-01-27-06:53:32,10.1.1.3,34,-0.051,-0.051,-0.051,0.000,0.000,0.000
1643266412672158976,2022-01-27-06:53:32,10.1.1.3,31,-0.061,-0.061,-0.061,0.000,0.000,0.000
1643266412872555008,2022-01-27-06:53:32,10.1.1.3,30,-0.071,-0.071,-0.071,0.000,0.000,0.000
1643266413072943872,2022-01-27-06:53:33,10.1.1.3,30,-0.081,-0.081,-0.081,0.000,0.000,0.000
1643266413272561920,2022-01-27-06:53:33,10.1.1.3,28,-0.091,-0.091,-0.091,0.000,0.000,0.000
1643266413473892096,2022-01-27-06:53:33,10.1.1.3,29,-0.101,-0.101,-0.101,0.000,0.000,0.000
1643266413672993792,2022-01-27-06:53:33,10.1.1.3,26,-0.110,-0.110,-0.110,0.000,0.000,0.000
1643266413873694976,2022-01-27-06:53:33,10.1.1.3,25,-0.120,-0.120,-0.120,0.000,0.000,0.000
1643266414073949952,2022-01-27-06:53:34,10.1.1.3,23,-0.130,-0.130,-0.130,0.000,0.000,0.000
1643266414273492224,2022-01-27-06:53:34,10.1.1.3,20,-0.140,-0.140,-0.140,0.000,0.000,0.000
1643266414473138176,2022-01-27-06:53:34,10.1.1.3,18,-0.150,-0.150,-0.150,0.000,0.000,0.000
1643266414693891072,2022-01-27-06:53:34,10.1.1.3,36,-0.161,-0.161,-0.161,0.000,0.000,0.000
1643266414894151936,2022-01-27-06:53:34,10.1.1.3,35,-0.171,-0.171,-0.171,0.000,0.000,0.000
1643266415093718016,2022-01-27-06:53:35,10.1.1.3,34,-0.181,-0.181,-0.181,0.000,0.000,0.000
1643266415295220992,2022-01-27-06:53:35,10.1.1.3,33,-0.191,-0.191,-0.191,0.000,0.000,0.000
1643266415493766912,2022-01-27-06:53:35,10.1.1.3,32,-0.201,-0.201,-0.201,0.000,0.000,0.000
1643266415694985984,2022-01-27-06:53:35,10.1.1.3,30,-0.211,-0.211,-0.211,0.000,0.000,0.000
1643266415893556224,2022-01-27-06:53:35,10.1.1.3,28,-0.221,-0.221,-0.221,0.000,0.000,0.000
1643266416093271040,2022-01-27-06:53:36,10.1.1.3,25,-0.230,-0.230,-0.230,0.000,0.000,0.000
1643266416293459968,2022-01-27-06:53:36,10.1.1.3,24,-0.240,-0.240,-0.240,0.000,0.000,0.000
1643266416493073920,2022-01-27-06:53:36,10.1.1.3,23,-0.250,-0.250,-0.250,0.000,0.000,0.000
1643266416713623040,2022-01-27-06:53:36,10.1.1.3,42,-0.261,-0.261,-0.261,0.000,0.000,0.000
1643266416892813824,2022-01-27-06:53:36,10.1.1.3,21,-0.270,-0.270,-0.270,0.000,0.000,0.000
1643266417094402048,2022-01-27-06:53:37,10.1.1.3,20,-0.280,-0.280,-0.280,0.000,0.000,0.000
1643266417294936832,2022-01-27-06:53:37,10.1.1.3,18,-0.290,-0.290,-0.290,0.000,0.000,0.000
1643266417513394176,2022-01-27-06:53:37,10.1.1.3,36,-0.301,-0.301,-0.301,0.000,0.000,0.000
1643266417712659968,2022-01-27-06:53:37,10.1.1.3,35,-0.311,-0.311,-0.311,0.000,0.000,0.000
1643266417913050880,2022-01-27-06:53:37,10.1.1.3,32,-0.321,-0.321,-0.321,0.000,0.000,0.000
1643266418113164032,2022-01-27-06:53:38,10.1.1.3,30,-0.331,-0.331,-0.331,0.000,0.000,0.000
1643266418313074176,2022-01-27-06:53:38,10.1.1.3,28,-0.340,-0.340,-0.340,0.000,0.000,0.000
1643266418513783040,2022-01-27-06:53:38,10.1.1.3,28,-0.350,-0.350,-0.350,0.000,0.000,0.000
1643266418712614144,2022-01-27-06:53:38,10.1.1.3,25,-0.360,-0.360,-0.360,0.000,0.000,0.000
1643266418915287040,2022-01-27-06:53:38,10.1.1.3,27,-0.370,-0.370,-0.370,0.000,0.000,0.000
1643266419113961984,2022-01-27-06:53:39,10.1.1.3,24,-0.380,-0.380,-0.380,0.000,0.000,0.000
1643266419333251072,2022-01-27-06:53:39,10.1.1.3,42,-0.391,-0.391,-0.391,0.000,0.000,0.000
1643266419535032064,2022-01-27-06:53:39,10.1.1.3,42,-0.401,-0.401,-0.401,0.000,0.000,0.000
1643266419712992000,2022-01-27-06:53:39,10.1.1.3,21,-0.410,-0.410,-0.410,0.000,0.000,0.000
1643266419912962048,2022-01-27-06:53:39,10.1.1.3,18,-0.420,-0.420,-0.420,0.000,0.000,0.000
1643266420113651968,2022-01-27-06:53:40,10.1.1.3,18,-0.430,-0.430,-0.430,0.000,0.000,0.000
1643266420332980992,2022-01-27-06:53:40,10.1.1.3,37,-0.441,-0.441,-0.441,0.000,0.000,0.000
1643266420533782016,2022-01-27-06:53:40,10.1.1.3,37,-0.451,-0.451,-0.451,0.000,0.000,0.000
1643266420733310976,2022-01-27-06:53:40,10.1.1.3,35,-0.461,-0.461,-0.461,0.000,0.000,0.000
1643266420933856000,2022-01-27-06:53:40,10.1.1.3,34,-0.471,-0.471,-0.471,0.000,0.000,0.000
1643266421133506048,2022-01-27-06:53:41,10.1.1.3,29,-0.481,-0.481,-0.481,0.000,0.000,0.000
1643266421313668096,2022-01-27-06:53:41,10.1.1.3,8,-0.490,-0.490,-0.490,0.000,0.000,0.000
1643266421533832192,2022-01-27-06:53:41,10.1.1.3,27,-0.479,-0.479,-0.479,0.000,0.000,0.000
1643266421733853184,2022-01-27-06:53:41,10.1.1.3,23,-0.470,-0.470,-0.470,0.000,0.000,0.000
1643266421934318080,2022-01-27-06:53:41,10.1.1.3,20,-0.460,-0.460,-0.460,0.000,0.000,0.000
1643266422153100032,2022-01-27-06:53:42,10.1.1.3,37,-0.449,-0.449,-0.449,0.000,0.000,0.000
1643266422352730880,2022-01-27-06:53:42,10.1.1.3,36,-0.439,-0.439,-0.439,0.000,0.000,0.000
1643266422553755904,2022-01-27-06:53:42,10.1.1.3,36,-0.429,-0.429,-0.429,0.000,0.000,0.000
1643266422753329920,2022-01-27-06:53:42,10.1.1.3,35,-0.419,-0.419,-0.419,0.000,0.000,0.000
1643266422953062144,2022-01-27-06:53:42,10.1.1.3,32,-0.409,-0.409,-0.409,0.000,0.000,0.000
1643266423153490176,2022-01-27-06:53:43,10.1.1.3,32,-0.399,-0.399,-0.399,0.000,0.000,0.000
1643266423353288960,2022-01-27-06:53:43,10.1.1.3,30,-0.389,-0.389,-0.389,0.000,0.000,0.000
1643266423553993984,2022-01-27-06:53:43,10.1.1.3,30,-0.380,-0.380,-0.380,0.000,0.000,0.000
1643266423754023936,2022-01-27-06:53:43,10.1.1.3,28,-0.369,-0.369,-0.369,0.000,0.000,0.000
1643266423952974080,2022-01-27-06:53:43,10.1.1.3,24,-0.360,-0.360,-0.360,0.000,0.000,0.000
1643266424153222912,2022-01-27-06:53:44,10.1.1.3,23,-0.350,-0.350,-0.350,0.000,0.000,0.000
1643266424354342912,2022-01-27-06:53:44,10.1.1.3,23,-0.340,-0.340,-0.340,0.000,0.000,0.000
1643266424553648896,2022-01-27-06:53:44,10.1.1.3,21,-0.330,-0.330,-0.330,0.000,0.000,0.000
1643266424773652992,2022-01-27-06:53:44,10.1.1.3,39,-0.319,-0.319,-0.319,0.000,0.000,0.000
1643266424973236992,2022-01-27-06:53:44,10.1.1.3,36,-0.309,-0.309,-0.309,0.000,0.000,0.000
1643266425173932032,2022-01-27-06:53:45,10.1.1.3,35,-0.299,-0.299,-0.299,0.000,0.000,0.000
1643266425372365824,2022-01-27-06:53:45,10.1.1.3,33,-0.289,-0.289,-0.289,0.000,0.000,0.000
1643266425572911872,2022-01-27-06:53:45,10.1.1.3,33,-0.279,-0.279,-0.279,0.000,0.000,0.000
1643266425775672832,2022-01-27-06:53:45,10.1.1.3,35,-0.269,-0.269,-0.269,0.000,0.000,0.000
1643266425973967104,2022-01-27-06:53:45,10.1.1.3,32,-0.259,-0.259,-0.259,0.000,0.000,0.000
1643266426173188864,2022-01-27-06:53:46,10.1.1.3,30,-0.249,-0.249,-0.249,0.000,0.000,0.000
1643266426374157824,2022-01-27-06:53:46,10.1.1.3,30,-0.239,-0.239,-0.239,0.000,0.000,0.000
1643266426573734144,2022-01-27-06:53:46,10.1.1.3,29,-0.229,-0.229,-0.229,0.000,0.000,0.000
1643266426773338112,2022-01-27-06:53:46,10.1.1.3,27,-0.219,-0.219,-0.219,0.000,0.000,0.000
1643266426994187008,2022-01-27-06:53:46,10.1.1.3,47,-0.209,-0.209,-0.209,0.000,0.000,0.000
1643266427193378048,2022-01-27-06:53:47,10.1.1.3,41,-0.199,-0.199,-0.199,0.000,0.000,0.000
1643266427373960960,2022-01-27-06:53:47,10.1.1.3,19,-0.190,-0.190,-0.190,0.000,0.000,0.000
1643266427595862016,2022-01-27-06:53:47,10.1.1.3,38,-0.179,-0.179,-0.179,0.000,0.000,0.000
1643266427795993088,2022-01-27-06:53:47,10.1.1.3,35,-0.169,-0.169,-0.169,0.000,0.000,0.000
1643266427992240896,2022-01-27-06:53:47,10.1.1.3,30,-0.159,-0.159,-0.159,0.000,0.000,0.000
1643266428192915968,2022-01-27-06:53:48,10.1.1.3,29,-0.149,-0.149,-0.149,0.000,0.000,0.000
1643266428392334080,2022-01-27-06:53:48,10.1.1.3,27,-0.139,-0.139,-0.139,0.000,0.000,0.000
1643266428592883968,2022-01-27-06:53:48,10.1.1.3,27,-0.129,-0.129,-0.129,0.000,0.000,0.000
1643266428792444928,2022-01-27-06:53:48,10.1.1.3,26,-0.120,-0.120,-0.120,0.000,0.000,0.000
1643266428991885824,2022-01-27-06:53:48,10.1.1.3,25,-0.110,-0.110,-0.110,0.000,0.000,0.000
1643266429192907008,2022-01-27-06:53:49,10.1.1.3,25,-0.100,-0.100,-0.100,0.000,0.000,0.000
1643266429392846080,2022-01-27-06:53:49,10.1.1.3,24,-0.090,-0.090,-0.090,0.000,0.000,0.000
1643266429592550144,2022-01-27-06:53:49,10.1.1.3,23,-0.080,-0.080,-0.080,0.000,0.000,0.000
1643266429793170944,2022-01-27-06:53:49,10.1.1.3,23,-0.070,-0.070,-0.070,0.000,0.000,0.000
1643266430013776128,2022-01-27-06:53:50,10.1.1.3,43,-0.059,-0.059,-0.059,0.000,0.000,0.000
1643266430212382976,2022-01-27-06:53:50,10.1.1.3,41,-0.049,-0.049,-0.049,0.000,0.000,0.000
1643266430413064960,2022-01-27-06:53:50,10.1.1.3,39,-0.039,-0.039,-0.039,0.000,0.000,0.000
1643266430593244160,2022-01-27-06:53:50,10.1.1.3,18,-0.030,-0.030,-0.030,0.000,0.000,0.000
1643266430793602048,2022-01-27-06:53:50,10.1.1.3,18,-0.020,-0.020,-0.020,0.000,0.000,0.000
1643266431018884864,2022-01-27-06:53:51,10.1.1.3,42,-0.009,-0.009,-0.009,0.000,0.000,0.000
1643266431196010240,2022-01-27-06:53:51,10.1.1.3,16,-0.000,-0.000,-0.000,0.000,0.000,0.000
1643266431412233984,2022-01-27-06:53:51,10.1.1.3,32,-0.010,-0.010,-0.010,0.000,0.000,0.000
1643266431613347072,2022-01-27-06:53:51,10.1.1.3,31,-0.021,-0.021,-0.021,0.000,0.000,0.000
1643266431813225984,2022-01-27-06:53:51,10.1.1.3,30,-0.031,-0.031,-0.031,0.000,0.000,0.000
1643266432012985856,2022-01-27-06:53:52,10.1.1.3,29,-0.041,-0.041,-0.041,0.000,0.000,0.000
1643266432214348032,2022-01-27-06:53:52,10.1.1.3,29,-0.050,-0.050,-0.050,0.000,0.000,0.000
1643266432413485056,2022-01-27-06:53:52,10.1.1.3,24,-0.060,-0.060,-0.060,0.000,0.000,0.000
1643266432613579008,2022-01-27-06:53:52,10.1.1.3,23,-0.070,-0.070,-0.070,0.000,0.000,0.000
1643266432813920000,2022-01-27-06:53:52,10.1.1.3,22,-0.080,-0.080,-0.080,0.000,0.000,0.000
1643266433013575936,2022-01-27-06:53:53,10.1.1.3,18,-0.090,-0.090,-0.090,0.000,0.000,0.000
1643266433214076160,2022-01-27-06:53:53,10.1.1.3,17,-0.100,-0.100,-0.100,0.000,0.000,0.000
1643266433433903872,2022-01-27-06:53:53,10.1.1.3,34,-0.110,-0.110,-0.110,0.000,0.000,0.000
1643266433635246080,2022-01-27-06:53:53,10.1.1.3,33,-0.121,-0.121,-0.121,0.000,0.000,0.000
1643266433833350912,2022-01-27-06:53:53,10.1.1.3,30,-0.131,-0.131,-0.131,0.000,0.000,0.000
1643266434033773056,2022-01-27-06:53:54,10.1.1.3,29,-0.141,-0.141,-0.141,0.000,0.000,0.000
1643266434232763136,2022-01-27-06:53:54,10.1.1.3,24,-0.150,-0.150,-0.150,0.000,0.000,0.000
1643266434456435968,2022-01-27-06:53:54,10.1.1.3,43,-0.161,-0.161,-0.161,0.000,0.000,0.000
1643266434653978112,2022-01-27-06:53:54,10.1.1.3,42,-0.171,-0.171,-0.171,0.000,0.000,0.000
1643266434852660992,2022-01-27-06:53:54,10.1.1.3,37,-0.181,-0.181,-0.181,0.000,0.000,0.000
1643266435052675072,2022-01-27-06:53:55,10.1.1.3,36,-0.191,-0.191,-0.191,0.000,0.000,0.000
1643266435253180928,2022-01-27-06:53:55,10.1.1.3,36,-0.201,-0.201,-0.201,0.000,0.000,0.000
1643266435453509120,2022-01-27-06:53:55,10.1.1.3,35,-0.211,-0.211,-0.211,0.000,0.000,0.000
1643266435653469952,2022-01-27-06:53:55,10.1.1.3,33,-0.221,-0.221,-0.221,0.000,0.000,0.000
1643266435853477888,2022-01-27-06:53:55,10.1.1.3,32,-0.231,-0.231,-0.231,0.000,0.000,0.000
1643266436053797888,2022-01-27-06:53:56,10.1.1.3,31,-0.240,-0.240,-0.240,0.000,0.000,0.000
1643266436253438976,2022-01-27-06:53:56,10.1.1.3,29,-0.251,-0.251,-0.251,0.000,0.000,0.000
1643266436454452992,2022-01-27-06:53:56,10.1.1.3,29,-0.261,-0.261,-0.261,0.000,0.000,0.000
1643266436653850112,2022-01-27-06:53:56,10.1.1.3,26,-0.270,-0.270,-0.270,0.000,0.000,0.000
1643266436855262976,2022-01-27-06:53:56,10.1.1.3,26,-0.280,-0.280,-0.280,0.000,0.000,0.000
1643266437074327040,2022-01-27-06:53:57,10.1.1.3,44,-0.291,-0.291,-0.291,0.000,0.000,0.000
1643266437253936896,2022-01-27-06:53:57,10.1.1.3,23,-0.300,-0.300,-0.300,0.000,0.000,0.000
1643266437454326016,2022-01-27-06:53:57,10.1.1.3,22,-0.310,-0.310,-0.310,0.000,0.000,0.000
1643266437653085952,2022-01-27-06:53:57,10.1.1.3,19,-0.320,-0.320,-0.320,0.000,0.000,0.000
1643266437873056768,2022-01-27-06:53:57,10.1.1.3,38,-0.331,-0.331,-0.331,0.000,0.000,0.000
1643266438073957888,2022-01-27-06:53:58,10.1.1.3,38,-0.341,-0.341,-0.341,0.000,0.000,0.000
1643266438275358976,2022-01-27-06:53:58,10.1.1.3,38,-0.351,-0.351,-0.351,0.000,0.000,0.000
1643266438473202944,2022-01-27-06:53:58,10.1.1.3,33,-0.361,-0.361,-0.361,0.000,0.000,0.000
1643266438673232128,2022-01-27-06:53:58,10.1.1.3,32,-0.371,-0.371,-0.371,0.000,0.000,0.000
1643266438873568000,2022-01-27-06:53:58,10.1.1.3,32,-0.380,-0.380,-0.380,0.000,0.000,0.000
1643266439073862144,2022-01-27-06:53:59,10.1.1.3,30,-0.391,-0.391,-0.391,0.000,0.000,0.000
1643266439273729024,2022-01-27-06:53:59,10.1.1.3,30,-0.401,-0.401,-0.401,0.000,0.000,0.000
1643266439474055168,2022-01-27-06:53:59,10.1.1.3,29,-0.411,-0.411,-0.411,0.000,0.000,0.000
1643266439674029056,2022-01-27-06:53:59,10.1.1.3,28,-0.420,-0.420,-0.420,0.000,0.000,0.000
1643266439875654912,2022-01-27-06:53:59,10.1.1.3,28,-0.430,-0.430,-0.430,0.000,0.000,0.000
1643266440073157120,2022-01-27-06:54:00,10.1.1.3,24,-0.440,-0.440,-0.440,0.000,0.000,0.000
1643266440294908928,2022-01-27-06:54:00,10.1.1.3,44,-0.451,-0.451,-0.451,0.000,0.000,0.000
1643266440494765056,2022-01-27-06:54:00,10.1.1.3,42,-0.461,-0.461,-0.461,0.000,0.000,0.000
1643266440673062144,2022-01-27-06:54:00,10.1.1.3,19,-0.470,-0.470,-0.470,0.000,0.000,0.000
1643266440893115904,2022-01-27-06:54:00,10.1.1.3,38,-0.481,-0.481,-0.481,0.000,0.000,0.000
1643266441092900864,2022-01-27-06:54:01,10.1.1.3,37,-0.489,-0.489,-0.489,0.000,0.000,0.000
1643266441293091072,2022-01-27-06:54:01,10.1.1.3,37,-0.479,-0.479,-0.479,0.000,0.000,0.000
1643266441492638976,2022-01-27-06:54:01,10.1.1.3,35,-0.469,-0.469,-0.469,0.000,0.000,0.000
1643266441692678912,2022-01-27-06:54:01,10.1.1.3,34,-0.459,-0.459,-0.459,0.000,0.000,0.000
1643266441893403136,2022-01-27-06:54:01,10.1.1.3,34,-0.449,-0.449,-0.449,0.000,0.000,0.000
1643266442092782848,2022-01-27-06:54:02,10.1.1.3,33,-0.439,-0.439,-0.439,0.000,0.000,0.000
1643266442292599808,2022-01-27-06:54:02,10.1.1.3,32,-0.429,-0.429,-0.429,0.000,0.000,0.000
1643266442492193024,2022-01-27-06:54:02,10.1.1.3,31,-0.419,-0.419,-0.419,0.000,0.000,0.000
1643266442693114880,2022-01-27-06:54:02,10.1.1.3,30,-0.409,-0.409,-0.409,0.000,0.000,0.000
1643266442893253120,2022-01-27-06:54:02,10.1.1.3,30,-0.399,-0.399,-0.399,0.000,0.000,0.000
1643266443092619008,2022-01-27-06:54:03,10.1.1.3,29,-0.390,-0.390,-0.390,0.000,0.000,0.000
1643266443292962048,2022-01-27-06:54:03,10.1.1.3,28,-0.379,-0.379,-0.379,0.000,0.000,0.000
1643266443493223936,2022-01-27-06:54:03,10.1.1.3,28,-0.369,-0.369,-0.369,0.000,0.000,0.000
1643266443692897024,2022-01-27-06:54:03,10.1.1.3,27,-0.360,-0.360,-0.360,0.000,0.000,0.000
1643266443892560128,2022-01-27-06:54:03,10.1.1.3,26,-0.350,-0.350,-0.350,0.000,0.000,0.000
1643266444092925952,2022-01-27-06:54:04,10.1.1.3,25,-0.340,-0.340,-0.340,0.000,0.000,0.000
1643266444293812992,2022-01-27-06:54:04,10.1.1.3,24,-0.330,-0.330,-0.330,0.000,0.000,0.000
1643266444492430080,2022-01-27-06:54:04,10.1.1.3,22,-0.320,-0.320,-0.320,0.000,0.000,0.000
1643266444692517120,2022-01-27-06:54:04,10.1.1.3,22,-0.310,-0.310,-0.310,0.000,0.000,0.000
1643266444912651008,2022-01-27-06:54:04,10.1.1.3,41,-0.299,-0.299,-0.299,0.000,0.000,0.000
1643266445112759040,2022-01-27-06:54:05,10.1.1.3,41,-0.289,-0.289,-0.289,0.000,0.000,0.000
1643266445292877056,2022-01-27-06:54:05,10.1.1.3,20,-0.280,-0.280,-0.280,0.000,0.000,0.000
1643266445492951040,2022-01-27-06:54:05,10.1.1.3,18,-0.270,-0.270,-0.270,0.000,0.000,0.000
1643266445712718080,2022-01-27-06:54:05,10.1.1.3,35,-0.259,-0.259,-0.259,0.000,0.000,0.000
1643266445913522944,2022-01-27-06:54:05,10.1.1.3,35,-0.249,-0.249,-0.249,0.000,0.000,0.000
1643266446114014976,2022-01-27-06:54:06,10.1.1.3,32,-0.239,-0.239,-0.239,0.000,0.000,0.000
1643266446314057984,2022-01-27-06:54:06,10.1.1.3,31,-0.229,-0.229,-0.229,0.000,0.000,0.000
1643266446514034944,2022-01-27-06:54:06,10.1.1.3,29,-0.220,-0.220,-0.220,0.000,0.000,0.000
1643266446714624768,2022-01-27-06:54:06,10.1.1.3,28,-0.210,-0.210,-0.210,0.000,0.000,0.000
1643266446914249984,2022-01-27-06:54:06,10.1.1.3,22,-0.200,-0.200,-0.200,0.000,0.000,0.000
1643266447134682880,2022-01-27-06:54:07,10.1.1.3,41,-0.189,-0.189,-0.189,0.000,0.000,0.000
1643266447335747840,2022-01-27-06:54:07,10.1.1.3,40,-0.179,-0.179,-0.179,0.000,0.000,0.000
1643266447533911040,2022-01-27-06:54:07,10.1.1.3,37,-0.169,-0.169,-0.169,0.000,0.000,0.000
1643266447732901120,2022-01-27-06:54:07,10.1.1.3,35,-0.159,-0.159,-0.159,0.000,0.000,0.000
1643266447933933056,2022-01-27-06:54:07,10.1.1.3,35,-0.149,-0.149,-0.149,0.000,0.000,0.000
1643266448133953024,2022-01-27-06:54:08,10.1.1.3,33,-0.139,-0.139,-0.139,0.000,0.000,0.000
1643266448334032128,2022-01-27-06:54:08,10.1.1.3,32,-0.130,-0.130,-0.130,0.000,0.000,0.000
1643266448533639936,2022-01-27-06:54:08,10.1.1.3,29,-0.119,-0.119,-0.119,0.000,0.000,0.000
1643266448732815104,2022-01-27-06:54:08,10.1.1.3,27,-0.110,-0.110,-0.110,0.000,0.000,0.000
1643266448933835008,2022-01-27-06:54:08,10.1.1.3,27,-0.100,-0.100,-0.100,0.000,0.000,0.000
1643266449134213888,2022-01-27-06:54:09,10.1.1.3,27,-0.090,-0.090,-0.090,0.000,0.000,0.000
1643266449333672960,2022-01-27-06:54:09,10.1.1.3,25,-0.080,-0.080,-0.080,0.000,0.000,0.000
1643266449533056000,2022-01-27-06:54:09,10.1.1.3,23,-0.070,-0.070,-0.070,0.000,0.000,0.000
1643266449753606144,2022-01-27-06:54:09,10.1.1.3,42,-0.059,-0.059,-0.059,0.000,0.000,0.000
1643266449953970944,2022-01-27-06:54:09,10.1.1.3,41,-0.049,-0.049,-0.049,0.000,0.000,0.000
1643266450153073920,2022-01-27-06:54:10,10.1.1.3,38,-0.039,-0.039,-0.039,0.000,0.000,0.000
1643266450354035968,2022-01-27-06:54:10,10.1.1.3,38,-0.029,-0.029,-0.029,0.000,0.000,0.000
1643266450553987072,2022-01-27-06:54:10,10.1.1.3,38,-0.019,-0.019,-0.019,0.000,0.000,0.000
1643266450753408000,2022-01-27-06:54:10,10.1.1.3,35,-0.009,-0.009,-0.009,0.000,0.000,0.000
1643266450934856960,2022-01-27-06:54:10,10.1.1.3,13,-0.000,-0.000,-0.000,0.000,0.000,0.000
1643266451153417984,2022-01-27-06:54:11,10.1.1.3,31,-0.011,-0.011,-0.011,0.000,0.000,0.000
1643266451358219008,2022-01-27-06:54:11,10.1.1.3,35,-0.021,-0.021,-0.021,0.000,0.000,0.000
1643266451556224000,2022-01-27-06:54:11,10.1.1.3,31,-0.030,-0.030,-0.030,0.000,0.000,0.000
1643266451753025024,2022-01-27-06:54:11,10.1.1.3,27,-0.040,-0.040,-0.040,0.000,0.000,0.000
1643266451953406976,2022-01-27-06:54:11,10.1.1.3,26,-0.050,-0.050,-0.050,0.000,0.000,0.000
1643266452153285120,2022-01-27-06:54:12,10.1.1.3,24,-0.060,-0.060,-0.060,0.000,0.000,0.000
1643266452353913088,2022-01-27-06:54:12,10.1.1.3,24,-0.070,-0.070,-0.070,0.000,0.000,0.000
1643266452554642944,2022-01-27-06:54:12,10.1.1.3,23,-0.080,-0.080,-0.080,0.000,0.000,0.000
1643266452754407936,2022-01-27-06:54:12,10.1.1.3,22,-0.090,-0.090,-0.090,0.000,0.000,0.000
1643266452934961152,2022-01-27-06:54:12,10.1.1.3,-1,-0.099,-0.099,-0.099,0.000,0.000,0.000
1643266453154215168,2022-01-27-06:54:13,10.1.1.3,18,-0.110,-0.110,-0.110,0.000,0.000,0.000
1643266453355959040,2022-01-27-06:54:13,10.1.1.3,16,-0.120,-0.120,-0.120,0.000,0.000,0.000
1643266453574081024,2022-01-27-06:54:13,10.1.1.3,34,-0.131,-0.131,-0.131,0.000,0.000,0.000
1643266453773281024,2022-01-27-06:54:13,10.1.1.3,31,-0.141,-0.141,-0.141,0.000,0.000,0.000
1643266453972590080,2022-01-27-06:54:13,10.1.1.3,30,-0.151,-0.151,-0.151,0.000,0.000,0.000
1643266454172997120,2022-01-27-06:54:14,10.1.1.3,28,-0.160,-0.160,-0.160,0.000,0.000,0.000
1643266454375744000,2022-01-27-06:54:14,10.1.1.3,30,-0.171,-0.171,-0.171,0.000,0.000,0.000
1643266454574907904,2022-01-27-06:54:14,10.1.1.3,28,-0.180,-0.180,-0.180,0.000,0.000,0.000
1643266454774211840,2022-01-27-06:54:14,10.1.1.3,26,-0.190,-0.190,-0.190,0.000,0.000,0.000
1643266454973993984,2022-01-27-06:54:14,10.1.1.3,24,-0.200,-0.200,-0.200,0.000,0.000,0.000
1643266455173382912,2022-01-27-06:54:15,10.1.1.3,23,-0.210,-0.210,-0.210,0.000,0.000,0.000
1643266455393775872,2022-01-27-06:54:15,10.1.1.3,43,-0.221,-0.221,-0.221,0.000,0.000,0.000
1643266455594177024,2022-01-27-06:54:15,10.1.1.3,42,-0.231,-0.231,-0.231,0.000,0.000,0.000
1643266455793280000,2022-01-27-06:54:15,10.1.1.3,40,-0.241,-0.241,-0.241,0.000,0.000,0.000
1643266455993982976,2022-01-27-06:54:15,10.1.1.3,40,-0.251,-0.251,-0.251,0.000,0.000,0.000
1643266456194600960,2022-01-27-06:54:16,10.1.1.3,37,-0.261,-0.261,-0.261,0.000,0.000,0.000
1643266456394959872,2022-01-27-06:54:16,10.1.1.3,37,-0.271,-0.271,-0.271,0.000,0.000,0.000
1643266456593617920,2022-01-27-06:54:16,10.1.1.3,35,-0.281,-0.281,-0.281,0.000,0.000,0.000
1643266456793978880,2022-01-27-06:54:16,10.1.1.3,34,-0.291,-0.291,-0.291,0.000,0.000,0.000
1643266456993462016,2022-01-27-06:54:16,10.1.1.3,33,-0.301,-0.301,-0.301,0.000,0.000,0.000
1643266457193464064,2022-01-27-06:54:17,10.1.1.3,32,-0.311,-0.311,-0.311,0.000,0.000,0.000
1643266457393948160,2022-01-27-06:54:17,10.1.1.3,31,-0.321,-0.321,-0.321,0.000,0.000,0.000
1643266457594529024,2022-01-27-06:54:17,10.1.1.3,31,-0.331,-0.331,-0.331,0.000,0.000,0.000
1643266457793850880,2022-01-27-06:54:17,10.1.1.3,29,-0.340,-0.340,-0.340,0.000,0.000,0.000
1643266457999515904,2022-01-27-06:54:17,10.1.1.3,33,-0.351,-0.351,-0.351,0.000,0.000,0.000
1643266458193475840,2022-01-27-06:54:18,10.1.1.3,25,-0.360,-0.360,-0.360,0.000,0.000,0.000
1643266458393050880,2022-01-27-06:54:18,10.1.1.3,23,-0.370,-0.370,-0.370,0.000,0.000,0.000
1643266458600004864,2022-01-27-06:54:18,10.1.1.3,29,-0.380,-0.380,-0.380,0.000,0.000,0.000
1643266458794405888,2022-01-27-06:54:18,10.1.1.3,24,-0.390,-0.390,-0.390,0.000,0.000,0.000
1643266458994734080,2022-01-27-06:54:18,10.1.1.3,23,-0.400,-0.400,-0.400,0.000,0.000,0.000
1643266459213934848,2022-01-27-06:54:19,10.1.1.3,40,-0.411,-0.411,-0.411,0.000,0.000,0.000
1643266459413321984,2022-01-27-06:54:19,10.1.1.3,37,-0.421,-0.421,-0.421,0.000,0.000,0.000
1643266459614500096,2022-01-27-06:54:19,10.1.1.3,37,-0.431,-0.431,-0.431,0.000,0.000,0.000
1643266459813449984,2022-01-27-06:54:19,10.1.1.3,35,-0.441,-0.441,-0.441,0.000,0.000,0.000
1643266460013419008,2022-01-27-06:54:20,10.1.1.3,34,-0.451,-0.451,-0.451,0.000,0.000,0.000
1643266460213987072,2022-01-27-06:54:20,10.1.1.3,34,-0.461,-0.461,-0.461,0.000,0.000,0.000
1643266460413857024,2022-01-27-06:54:20,10.1.1.3,33,-0.471,-0.471,-0.471,0.000,0.000,0.000
1643266460616115200,2022-01-27-06:54:20,10.1.1.3,34,-0.480,-0.480,-0.480,0.000,0.000,0.000
1643266460792867840,2022-01-27-06:54:20,10.1.1.3,10,-0.490,-0.490,-0.490,0.000,0.000,0.000
1643266461013472000,2022-01-27-06:54:21,10.1.1.3,30,-0.479,-0.479,-0.479,0.000,0.000,0.000
1643266461214502144,2022-01-27-06:54:21,10.1.1.3,30,-0.470,-0.470,-0.470,0.000,0.000,0.000
1643266461412950016,2022-01-27-06:54:21,10.1.1.3,27,-0.459,-0.459,-0.459,0.000,0.000,0.000
1643266461614020096,2022-01-27-06:54:21,10.1.1.3,26,-0.450,-0.450,-0.450,0.000,0.000,0.000
1643266461813889024,2022-01-27-06:54:21,10.1.1.3,25,-0.440,-0.440,-0.440,0.000,0.000,0.000
1643266462013797888,2022-01-27-06:54:22,10.1.1.3,24,-0.430,-0.430,-0.430,0.000,0.000,0.000
1643266462213409024,2022-01-27-06:54:22,10.1.1.3,23,-0.420,-0.420,-0.420,0.000,0.000,0.000
1643266462433223936,2022-01-27-06:54:22,10.1.1.3,42,-0.409,-0.409,-0.409,0.000,0.000,0.000
1643266462614157824,2022-01-27-06:54:22,10.1.1.3,21,-0.400,-0.400,-0.400,0.000,0.000,0.000
1643266462814379008,2022-01-27-06:54:22,10.1.1.3,20,-0.390,-0.390,-0.390,0.000,0.000,0.000
1643266463013263872,2022-01-27-06:54:23,10.1.1.3,18,-0.380,-0.380,-0.380,0.000,0.000,0.000
1643266463213310976,2022-01-27-06:54:23,10.1.1.3,17,-0.370,-0.370,-0.370,0.000,0.000,0.000
1643266463433573120,2022-01-27-06:54:23,10.1.1.3,36,-0.359,-0.359,-0.359,0.000,0.000,0.000
1643266463634151936,2022-01-27-06:54:23,10.1.1.3,36,-0.349,-0.349,-0.349,0.000,0.000,0.000
1643266463834856960,2022-01-27-06:54:23,10.1.1.3,36,-0.339,-0.339,-0.339,0.000,0.000,0.000
1643266464035379968,2022-01-27-06:54:24,10.1.1.3,35,-0.329,-0.329,-0.329,0.000,0.000,0.000
1643266464234675968,2022-01-27-06:54:24,10.1.1.3,32,-0.319,-0.319,-0.319,0.000,0.000,0.000
1643266464434513152,2022-01-27-06:54:24,10.1.1.3,31,-0.309,-0.309,-0.309,0.000,0.000,0.000
1643266464633952000,2022-01-27-06:54:24,10.1.1.3,29,-0.299,-0.299,-0.299,0.000,0.000,0.000
1643266464833652992,2022-01-27-06:54:24,10.1.1.3,28,-0.290,-0.290,-0.290,0.000,0.000,0.000
1643266465036828160,2022-01-27-06:54:25,10.1.1.3,29,-0.280,-0.280,-0.280,0.000,0.000,0.000
1643266465234193920,2022-01-27-06:54:25,10.1.1.3,25,-0.270,-0.270,-0.270,0.000,0.000,0.000
1643266465434436096,2022-01-27-06:54:25,10.1.1.3,25,-0.260,-0.260,-0.260,0.000,0.000,0.000
1643266465654438912,2022-01-27-06:54:25,10.1.1.3,44,-0.249,-0.249,-0.249,0.000,0.000,0.000
1643266465833959936,2022-01-27-06:54:25,10.1.1.3,22,-0.240,-0.240,-0.240,0.000,0.000,0.000
1643266466053734912,2022-01-27-06:54:26,10.1.1.3,42,-0.229,-0.229,-0.229,0.000,0.000,0.000
1643266466254667008,2022-01-27-06:54:26,10.1.1.3,40,-0.219,-0.219,-0.219,0.000,0.000,0.000
1643266466453345024,2022-01-27-06:54:26,10.1.1.3,38,-0.209,-0.209,-0.209,0.000,0.000,0.000
1643266466654903808,2022-01-27-06:54:26,10.1.1.3,38,-0.199,-0.199,-0.199,0.000,0.000,0.000
1643266466853789952,2022-01-27-06:54:26,10.1.1.3,36,-0.189,-0.189,-0.189,0.000,0.000,0.000
1643266467054474240,2022-01-27-06:54:27,10.1.1.3,32,-0.179,-0.179,-0.179,0.000,0.000,0.000
1643266467254429184,2022-01-27-06:54:27,10.1.1.3,32,-0.169,-0.169,-0.169,0.000,0.000,0.000
1643266467453399808,2022-01-27-06:54:27,10.1.1.3,30,-0.159,-0.159,-0.159,0.000,0.000,0.000
1643266467653656832,2022-01-27-06:54:27,10.1.1.3,29,-0.150,-0.150,-0.150,0.000,0.000,0.000
1643266467853920000,2022-01-27-06:54:27,10.1.1.3,25,-0.140,-0.140,-0.140,0.000,0.000,0.000
1643266468054694912,2022-01-27-06:54:28,10.1.1.3,25,-0.130,-0.130,-0.130,0.000,0.000,0.000
1643266468253492224,2022-01-27-06:54:28,10.1.1.3,22,-0.120,-0.120,-0.120,0.000,0.000,0.000
1643266468454176000,2022-01-27-06:54:28,10.1.1.3,21,-0.110,-0.110,-0.110,0.000,0.000,0.000
1643266468654473984,2022-01-27-06:54:28,10.1.1.3,20,-0.100,-0.100,-0.100,0.000,0.000,0.000
1643266468854768896,2022-01-27-06:54:28,10.1.1.3,19,-0.090,-0.090,-0.090,0.000,0.000,0.000
1643266469053826048,2022-01-27-06:54:29,10.1.1.3,17,-0.080,-0.080,-0.080,0.000,0.000,0.000
1643266469273291008,2022-01-27-06:54:29,10.1.1.3,35,-0.069,-0.069,-0.069,0.000,0.000,0.000
1643266469479497984,2022-01-27-06:54:29,10.1.1.3,39,-0.059,-0.059,-0.059,0.000,0.000,0.000
1643266469675725824,2022-01-27-06:54:29,10.1.1.3,35,-0.049,-0.049,-0.049,0.000,0.000,0.000
1643266469873914880,2022-01-27-06:54:29,10.1.1.3,33,-0.039,-0.039,-0.039,0.000,0.000,0.000
1643266470074089984,2022-01-27-06:54:30,10.1.1.3,32,-0.029,-0.029,-0.029,0.000,0.000,0.000
1643266470272577024,2022-01-27-06:54:30,10.1.1.3,29,-0.019,-0.019,-0.019,0.000,0.000,0.000
1643266470473399040,2022-01-27-06:54:30,10.1.1.3,29,-0.009,-0.009,-0.009,0.000,0.000,0.000
1643266470653497856,2022-01-27-06:54:30,10.1.1.3,8,-0.000,-0.000,-0.000,0.000,0.000,0.000
1643266470873801984,2022-01-27-06:54:30,10.1.1.3,26,-0.010,-0.010,-0.010,0.000,0.000,0.000
1643266471073612032,2022-01-27-06:54:31,10.1.1.3,25,-0.020,-0.020,-0.020,0.000,0.000,0.000
1643266471273856000,2022-01-27-06:54:31,10.1.1.3,25,-0.030,-0.030,-0.030,0.000,0.000,0.000
1643266471472892160,2022-01-27-06:54:31,10.1.1.3,23,-0.040,-0.040,-0.040,0.000,0.000,0.000
1643266471673711104,2022-01-27-06:54:31,10.1.1.3,23,-0.050,-0.050,-0.050,0.000,0.000,0.000
1643266471893027072,2022-01-27-06:54:31,10.1.1.3,41,-0.061,-0.061,-0.061,0.000,0.000,0.000
1643266472073537024,2022-01-27-06:54:32,10.1.1.3,20,-0.070,-0.070,-0.070,0.000,0.000,0.000
1643266472274914048,2022-01-27-06:54:32,10.1.1.3,19,-0.080,-0.080,-0.080,0.000,0.000,0.000
1643266472472896000,2022-01-27-06:54:32,10.1.1.3,15,-0.090,-0.090,-0.090,0.000,0.000,0.000
1643266472693293056,2022-01-27-06:54:32,10.1.1.3,35,-0.101,-0.101,-0.101,0.000,0.000,0.000
1643266472893012992,2022-01-27-06:54:32,10.1.1.3,33,-0.111,-0.111,-0.111,0.000,0.000,0.000
1643266473093863936,2022-01-27-06:54:33,10.1.1.3,32,-0.121,-0.121,-0.121,0.000,0.000,0.000
1643266473292520960,2022-01-27-06:54:33,10.1.1.3,30,-0.131,-0.131,-0.131,0.000,0.000,0.000
1643266473494617856,2022-01-27-06:54:33,10.1.1.3,29,-0.141,-0.141,-0.141,0.000,0.000,0.000
1643266473693945856,2022-01-27-06:54:33,10.1.1.3,28,-0.150,-0.150,-0.150,0.000,0.000,0.000
1643266473893820928,2022-01-27-06:54:33,10.1.1.3,26,-0.160,-0.160,-0.160,0.000,0.000,0.000
1643266474094867968,2022-01-27-06:54:34,10.1.1.3,26,-0.170,-0.170,-0.170,0.000,0.000,0.000
1643266474293568000,2022-01-27-06:54:34,10.1.1.3,24,-0.180,-0.180,-0.180,0.000,0.000,0.000
1643266474493431040,2022-01-27-06:54:34,10.1.1.3,22,-0.190,-0.190,-0.190,0.000,0.000,0.000
1643266474713159936,2022-01-27-06:54:34,10.1.1.3,40,-0.201,-0.201,-0.201,0.000,0.000,0.000
1643266474913440000,2022-01-27-06:54:34,10.1.1.3,39,-0.211,-0.211,-0.211,0.000,0.000,0.000
1643266475112827136,2022-01-27-06:54:35,10.1.1.3,37,-0.221,-0.221,-0.221,0.000,0.000,0.000
1643266475314473984,2022-01-27-06:54:35,10.1.1.3,36,-0.231,-0.231,-0.231,0.000,0.000,0.000
1643266475512548864,2022-01-27-06:54:35,10.1.1.3,34,-0.241,-0.241,-0.241,0.000,0.000,0.000
1643266475713805056,2022-01-27-06:54:35,10.1.1.3,33,-0.251,-0.251,-0.251,0.000,0.000,0.000
1643266475913137920,2022-01-27-06:54:35,10.1.1.3,31,-0.261,-0.261,-0.261,0.000,0.000,0.000
1643266476113874944,2022-01-27-06:54:36,10.1.1.3,30,-0.271,-0.271,-0.271,0.000,0.000,0.000
1643266476313304064,2022-01-27-06:54:36,10.1.1.3,29,-0.281,-0.281,-0.281,0.000,0.000,0.000
1643266476517154816,2022-01-27-06:54:36,10.1.1.3,32,-0.290,-0.290,-0.290,0.000,0.000,0.000
1643266476714889984,2022-01-27-06:54:36,10.1.1.3,27,-0.300,-0.300,-0.300,0.000,0.000,0.000
1643266476915330816,2022-01-27-06:54:36,10.1.1.3,26,-0.310,-0.310,-0.310,0.000,0.000,0.000
1643266477113154048,2022-01-27-06:54:37,10.1.1.3,23,-0.320,-0.320,-0.320,0.000,0.000,0.000
1643266477316148992,2022-01-27-06:54:37,10.1.1.3,25,-0.330,-0.330,-0.330,0.000,0.000,0.000
1643266477516043776,2022-01-27-06:54:37,10.1.1.3,24,-0.340,-0.340,-0.340,0.000,0.000,0.000
1643266477733614080,2022-01-27-06:54:37,10.1.1.3,39,-0.351,-0.351,-0.351,0.000,0.000,0.000
1643266477913511936,2022-01-27-06:54:37,10.1.1.3,18,-0.360,-0.360,-0.360,0.000,0.000,0.000
1643266478134257920,2022-01-27-06:54:38,10.1.1.3,37,-0.371,-0.371,-0.371,0.000,0.000,0.000
1643266478333764096,2022-01-27-06:54:38,10.1.1.3,36,-0.381,-0.381,-0.381,0.000,0.000,0.000
1643266478534217984,2022-01-27-06:54:38,10.1.1.3,35,-0.391,-0.391,-0.391,0.000,0.000,0.000
1643266478733808896,2022-01-27-06:54:38,10.1.1.3,33,-0.401,-0.401,-0.401,0.000,0.000,0.000
1643266478934076928,2022-01-27-06:54:38,10.1.1.3,32,-0.411,-0.411,-0.411,0.000,0.000,0.000
1643266479134202880,2022-01-27-06:54:39,10.1.1.3,31,-0.421,-0.421,-0.421,0.000,0.000,0.000
1643266479333435136,2022-01-27-06:54:39,10.1.1.3,29,-0.431,-0.431,-0.431,0.000,0.000,0.000
1643266479532705024,2022-01-27-06:54:39,10.1.1.3,27,-0.441,-0.441,-0.441,0.000,0.000,0.000
1643266479734280960,2022-01-27-06:54:39,10.1.1.3,27,-0.450,-0.450,-0.450,0.000,0.000,0.000
1643266479934236928,2022-01-27-06:54:39,10.1.1.3,26,-0.460,-0.460,-0.460,0.000,0.000,0.000
1643266480134356992,2022-01-27-06:54:40,10.1.1.3,21,-0.470,-0.470,-0.470,0.000,0.000,0.000
1643266480354355200,2022-01-27-06:54:40,10.1.1.3,40,-0.481,-0.481,-0.481,0.000,0.000,0.000
1643266480554328064,2022-01-27-06:54:40,10.1.1.3,39,-0.489,-0.489,-0.489,0.000,0.000,0.000
1643266480754651136,2022-01-27-06:54:40,10.1.1.3,38,-0.479,-0.479,-0.479,0.000,0.000,0.000
1643266480953864192,2022-01-27-06:54:40,10.1.1.3,34,-0.469,-0.469,-0.469,0.000,0.000,0.000
1643266481154913792,2022-01-27-06:54:41,10.1.1.3,33,-0.459,-0.459,-0.459,0.000,0.000,0.000
1643266481354141952,2022-01-27-06:54:41,10.1.1.3,32,-0.449,-0.449,-0.449,0.000,0.000,0.000
1643266481553219072,2022-01-27-06:54:41,10.1.1.3,30,-0.439,-0.439,-0.439,0.000,0.000,0.000
1643266481753153024,2022-01-27-06:54:41,10.1.1.3,29,-0.429,-0.429,-0.429,0.000,0.000,0.000
1643266481954068992,2022-01-27-06:54:41,10.1.1.3,29,-0.419,-0.419,-0.419,0.000,0.000,0.000
1643266482153369856,2022-01-27-06:54:42,10.1.1.3,24,-0.410,-0.410,-0.410,0.000,0.000,0.000
1643266482374375936,2022-01-27-06:54:42,10.1.1.3,44,-0.399,-0.399,-0.399,0.000,0.000,0.000
1643266482553230080,2022-01-27-06:54:42,10.1.1.3,21,-0.390,-0.390,-0.390,0.000,0.000,0.000
1643266482754050048,2022-01-27-06:54:42,10.1.1.3,20,-0.380,-0.380,-0.380,0.000,0.000,0.000
1643266482972590848,2022-01-27-06:54:42,10.1.1.3,38,-0.369,-0.369,-0.369,0.000,0.000,0.000
1643266483173890048,2022-01-27-06:54:43,10.1.1.3,38,-0.359,-0.359,-0.359,0.000,0.000,0.000
1643266483374070784,2022-01-27-06:54:43,10.1.1.3,37,-0.349,-0.349,-0.349,0.000,0.000,0.000
1643266483573092864,2022-01-27-06:54:43,10.1.1.3,33,-0.339,-0.339,-0.339,0.000,0.000,0.000
1643266483773274880,2022-01-27-06:54:43,10.1.1.3,33,-0.329,-0.329,-0.329,0.000,0.000,0.000
1643266483975561984,2022-01-27-06:54:43,10.1.1.3,34,-0.319,-0.319,-0.319,0.000,0.000,0.000
1643266484173648128,2022-01-27-06:54:44,10.1.1.3,31,-0.309,-0.309,-0.309,0.000,0.000,0.000
1643266484373899008,2022-01-27-06:54:44,10.1.1.3,30,-0.299,-0.299,-0.299,0.000,0.000,0.000
1643266484575181056,2022-01-27-06:54:44,10.1.1.3,30,-0.289,-0.289,-0.289,0.000,0.000,0.000
1643266484773839872,2022-01-27-06:54:44,10.1.1.3,27,-0.280,-0.280,-0.280,0.000,0.000,0.000
1643266484993697792,2022-01-27-06:54:44,10.1.1.3,43,-0.269,-0.269,-0.269,0.000,0.000,0.000
1643266485193725184,2022-01-27-06:54:45,10.1.1.3,41,-0.259,-0.259,-0.259,0.000,0.000,0.000
1643266485394490112,2022-01-27-06:54:45,10.1.1.3,38,-0.249,-0.249,-0.249,0.000,0.000,0.000
1643266485593619968,2022-01-27-06:54:45,10.1.1.3,36,-0.239,-0.239,-0.239,0.000,0.000,0.000
1643266485795063040,2022-01-27-06:54:45,10.1.1.3,37,-0.229,-0.229,-0.229,0.000,0.000,0.000
1643266485993992960,2022-01-27-06:54:45,10.1.1.3,35,-0.219,-0.219,-0.219,0.000,0.000,0.000
1643266486193414912,2022-01-27-06:54:46,10.1.1.3,32,-0.209,-0.209,-0.209,0.000,0.000,0.000
1643266486393058048,2022-01-27-06:54:46,10.1.1.3,31,-0.199,-0.199,-0.199,0.000,0.000,0.000
1643266486593579008,2022-01-27-06:54:46,10.1.1.3,31,-0.189,-0.189,-0.189,0.000,0.000,0.000
1643266486794358016,2022-01-27-06:54:46,10.1.1.3,30,-0.179,-0.179,-0.179,0.000,0.000,0.000
1643266486993776128,2022-01-27-06:54:46,10.1.1.3,28,-0.169,-0.169,-0.169,0.000,0.000,0.000
1643266487194701056,2022-01-27-06:54:47,10.1.1.3,29,-0.160,-0.160,-0.160,0.000,0.000,0.000
1643266487395243008,2022-01-27-06:54:47,10.1.1.3,26,-0.150,-0.150,-0.150,0.000,0.000,0.000
1643266487594010112,2022-01-27-06:54:47,10.1.1.3,23,-0.140,-0.140,-0.140,0.000,0.000,0.000
1643266487793448960,2022-01-27-06:54:47,10.1.1.3,22,-0.130,-0.130,-0.130,0.000,0.000,0.000
1643266487994579200,2022-01-27-06:54:47,10.1.1.3,22,-0.120,-0.120,-0.120,0.000,0.000,0.000
1643266488194082048,2022-01-27-06:54:48,10.1.1.3,19,-0.110,-0.110,-0.110,0.000,0.000,0.000
1643266488393184000,2022-01-27-06:54:48,10.1.1.3,17,-0.100,-0.100,-0.100,0.000,0.000,0.000
1643266488596353024,2022-01-27-06:54:48,10.1.1.3,19,-0.090,-0.090,-0.090,0.000,0.000,0.000
1643266488814008832,2022-01-27-06:54:48,10.1.1.3,34,-0.079,-0.079,-0.079,0.000,0.000,0.000
1643266489013801216,2022-01-27-06:54:49,10.1.1.3,32,-0.069,-0.069,-0.069,0.000,0.000,0.000
1643266489213747968,2022-01-27-06:54:49,10.1.1.3,31,-0.059,-0.059,-0.059,0.000,0.000,0.000
1643266489412903168,2022-01-27-06:54:49,10.1.1.3,28,-0.050,-0.050,-0.050,0.000,0.000,0.000
1643266489613526016,2022-01-27-06:54:49,10.1.1.3,27,-0.040,-0.040,-0.040,0.000,0.000,0.000
1643266489832956928,2022-01-27-06:54:49,10.1.1.3,42,-0.029,-0.029,-0.029,0.000,0.000,0.000
1643266490013254912,2022-01-27-06:54:50,10.1.1.3,22,-0.020,-0.020,-0.020,0.000,0.000,0.000
1643266490234482944,2022-01-27-06:54:50,10.1.1.3,42,-0.009,-0.009,-0.009,0.000,0.000,0.000
1643266490434461952,2022-01-27-06:54:50,10.1.1.3,39,-0.001,-0.001,-0.001,0.000,0.000,0.000
1643266490633573888,2022-01-27-06:54:50,10.1.1.3,36,-0.011,-0.011,-0.011,0.000,0.000,0.000
1643266490832144128,2022-01-27-06:54:50,10.1.1.3,33,-0.021,-0.021,-0.021,0.000,0.000,0.000
1643266491033889024,2022-01-27-06:54:51,10.1.1.3,34,-0.031,-0.031,-0.031,0.000,0.000,0.000
1643266491234983936,2022-01-27-06:54:51,10.1.1.3,34,-0.041,-0.041,-0.041,0.000,0.000,0.000
1643266491433199872,2022-01-27-06:54:51,10.1.1.3,32,-0.051,-0.051,-0.051,0.000,0.000,0.000
1643266491633364992,2022-01-27-06:54:51,10.1.1.3,30,-0.061,-0.061,-0.061,0.000,0.000,0.000
1643266491833167104,2022-01-27-06:54:51,10.1.1.3,28,-0.071,-0.071,-0.071,0.000,0.000,0.000
1643266492036755968,2022-01-27-06:54:52,10.1.1.3,29,-0.080,-0.080,-0.080,0.000,0.000,0.000
1643266492233794816,2022-01-27-06:54:52,10.1.1.3,23,-0.090,-0.090,-0.090,0.000,0.000,0.000
1643266492433771008,2022-01-27-06:54:52,10.1.1.3,22,-0.100,-0.100,-0.100,0.000,0.000,0.000
1643266492634021120,2022-01-27-06:54:52,10.1.1.3,22,-0.110,-0.110,-0.110,0.000,0.000,0.000
1643266492833683968,2022-01-27-06:54:52,10.1.1.3,18,-0.120,-0.120,-0.120,0.000,0.000,0.000
1643266493058078976,2022-01-27-06:54:53,10.1.1.3,43,-0.131,-0.131,-0.131,0.000,0.000,0.000
1643266493252772096,2022-01-27-06:54:53,10.1.1.3,37,-0.141,-0.141,-0.141,0.000,0.000,0.000
1643266493452861952,2022-01-27-06:54:53,10.1.1.3,36,-0.151,-0.151,-0.151,0.000,0.000,0.000
1643266493655009024,2022-01-27-06:54:53,10.1.1.3,37,-0.161,-0.161,-0.161,0.000,0.000,0.000
1643266493849456128,2022-01-27-06:54:53,10.1.1.3,31,-0.170,-0.170,-0.170,0.000,0.000,0.000
1643266494053611008,2022-01-27-06:54:54,10.1.1.3,34,-0.181,-0.181,-0.181,0.000,0.000,0.000
1643266494253393920,2022-01-27-06:54:54,10.1.1.3,33,-0.191,-0.191,-0.191,0.000,0.000,0.000
1643266494453416192,2022-01-27-06:54:54,10.1.1.3,31,-0.201,-0.201,-0.201,0.000,0.000,0.000
1643266494653681152,2022-01-27-06:54:54,10.1.1.3,29,-0.211,-0.211,-0.211,0.000,0.000,0.000
1643266494854201088,2022-01-27-06:54:54,10.1.1.3,28,-0.220,-0.220,-0.220,0.000,0.000,0.000
1643266495053613824,2022-01-27-06:54:55,10.1.1.3,26,-0.230,-0.230,-0.230,0.000,0.000,0.000
1643266495253600000,2022-01-27-06:54:55,10.1.1.3,24,-0.240,-0.240,-0.240,0.000,0.000,0.000
1643266495454194176,2022-01-27-06:54:55,10.1.1.3,23,-0.250,-0.250,-0.250,0.000,0.000,0.000
1643266495674426112,2022-01-27-06:54:55,10.1.1.3,42,-0.261,-0.261,-0.261,0.000,0.000,0.000
1643266495874223872,2022-01-27-06:54:55,10.1.1.3,41,-0.271,-0.271,-0.271,0.000,0.000,0.000
1643266496054104064,2022-01-27-06:54:56,10.1.1.3,19,-0.280,-0.280,-0.280,0.000,0.000,0.000
1643266496253176832,2022-01-27-06:54:56,10.1.1.3,18,-0.290,-0.290,-0.290,0.000,0.000,0.000
1643266496473885952,2022-01-27-06:54:56,10.1.1.3,38,-0.301,-0.301,-0.301,0.000,0.000,0.000
1643266496673508864,2022-01-27-06:54:56,10.1.1.3,36,-0.311,-0.311,-0.311,0.000,0.000,0.000
1643266496874170112,2022-01-27-06:54:56,10.1.1.3,36,-0.321,-0.321,-0.321,0.000,0.000,0.000
1643266497074137088,2022-01-27-06:54:57,10.1.1.3,35,-0.331,-0.331,-0.331,0.000,0.000,0.000
1643266497276088832,2022-01-27-06:54:57,10.1.1.3,36,-0.341,-0.341,-0.341,0.000,0.000,0.000
1643266497473995008,2022-01-27-06:54:57,10.1.1.3,34,-0.351,-0.351,-0.351,0.000,0.000,0.000
1643266497676538880,2022-01-27-06:54:57,10.1.1.3,36,-0.361,-0.361,-0.361,0.000,0.000,0.000
1643266497874115840,2022-01-27-06:54:57,10.1.1.3,33,-0.371,-0.371,-0.371,0.000,0.000,0.000
1643266498076087040,2022-01-27-06:54:58,10.1.1.3,30,-0.380,-0.380,-0.380,0.000,0.000,0.000
1643266498273200896,2022-01-27-06:54:58,10.1.1.3,26,-0.390,-0.390,-0.390,0.000,0.000,0.000
1643266498474761984,2022-01-27-06:54:58,10.1.1.3,25,-0.400,-0.400,-0.400,0.000,0.000,0.000
1643266498675456000,2022-01-27-06:54:58,10.1.1.3,26,-0.410,-0.410,-0.410,0.000,0.000,0.000
1643266498873847040,2022-01-27-06:54:58,10.1.1.3,24,-0.420,-0.420,-0.420,0.000,0.000,0.000
1643266499095689984,2022-01-27-06:54:59,10.1.1.3,45,-0.431,-0.431,-0.431,0.000,0.000,0.000
1643266499294629120,2022-01-27-06:54:59,10.1.1.3,42,-0.441,-0.441,-0.441,0.000,0.000,0.000
1643266499474402048,2022-01-27-06:54:59,10.1.1.3,20,-0.450,-0.450,-0.450,0.000,0.000,0.000
1643266499676642816,2022-01-27-06:54:59,10.1.1.3,20,-0.460,-0.460,-0.460,0.000,0.000,0.000
1643266499895351040,2022-01-27-06:54:59,10.1.1.3,38,-0.471,-0.471,-0.471,0.000,0.000,0.000
1643266500093043200,2022-01-27-06:55:00,10.1.1.3,35,-0.481,-0.481,-0.481,0.000,0.000,0.000
1643266500273381120,2022-01-27-06:55:00,10.1.1.3,15,-0.490,-0.490,-0.490,0.000,0.000,0.000
1643266500493515008,2022-01-27-06:55:00,10.1.1.3,35,-0.479,-0.479,-0.479,0.000,0.000,0.000
1643266500693155072,2022-01-27-06:55:00,10.1.1.3,34,-0.469,-0.469,-0.469,0.000,0.000,0.000
1643266500893299200,2022-01-27-06:55:00,10.1.1.3,34,-0.459,-0.459,-0.459,0.000,0.000,0.000
1643266501093758976,2022-01-27-06:55:01,10.1.1.3,32,-0.450,-0.450,-0.450,0.000,0.000,0.000
1643266501295666944,2022-01-27-06:55:01,10.1.1.3,33,-0.439,-0.439,-0.439,0.000,0.000,0.000
1643266501496823040,2022-01-27-06:55:01,10.1.1.3,31,-0.429,-0.429,-0.429,0.000,0.000,0.000
1643266501693137920,2022-01-27-06:55:01,10.1.1.3,29,-0.419,-0.419,-0.419,0.000,0.000,0.000
1643266501893563904,2022-01-27-06:55:01,10.1.1.3,28,-0.409,-0.409,-0.409,0.000,0.000,0.000
1643266502093498880,2022-01-27-06:55:02,10.1.1.3,27,-0.399,-0.399,-0.399,0.000,0.000,0.000
1643266502294251008,2022-01-27-06:55:02,10.1.1.3,25,-0.390,-0.390,-0.390,0.000,0.000,0.000
1643266502512644096,2022-01-27-06:55:02,10.1.1.3,41,-0.379,-0.379,-0.379,0.000,0.000,0.000
1643266502693252096,2022-01-27-06:55:02,10.1.1.3,19,-0.370,-0.370,-0.370,0.000,0.000,0.000
1643266502892719872,2022-01-27-06:55:02,10.1.1.3,18,-0.360,-0.360,-0.360,0.000,0.000,0.000
1643266503093455104,2022-01-27-06:55:03,10.1.1.3,18,-0.350,-0.350,-0.350,0.000,0.000,0.000
1643266503313560064,2022-01-27-06:55:03,10.1.1.3,37,-0.339,-0.339,-0.339,0.000,0.000,0.000
1643266503516526080,2022-01-27-06:55:03,10.1.1.3,37,-0.329,-0.329,-0.329,0.000,0.000,0.000
1643266503715127040,2022-01-27-06:55:03,10.1.1.3,32,-0.319,-0.319,-0.319,0.000,0.000,0.000
1643266503913772032,2022-01-27-06:55:03,10.1.1.3,28,-0.310,-0.310,-0.310,0.000,0.000,0.000
1643266504114383104,2022-01-27-06:55:04,10.1.1.3,28,-0.300,-0.300,-0.300,0.000,0.000,0.000
1643266504315452928,2022-01-27-06:55:04,10.1.1.3,26,-0.290,-0.290,-0.290,0.000,0.000,0.000
1643266504535716096,2022-01-27-06:55:04,10.1.1.3,45,-0.279,-0.279,-0.279,0.000,0.000,0.000
1643266504734313984,2022-01-27-06:55:04,10.1.1.3,40,-0.269,-0.269,-0.269,0.000,0.000,0.000
1643266504913512960,2022-01-27-06:55:04,10.1.1.3,18,-0.260,-0.260,-0.260,0.000,0.000,0.000
1643266505134368000,2022-01-27-06:55:05,10.1.1.3,36,-0.249,-0.249,-0.249,0.000,0.000,0.000
1643266505335116032,2022-01-27-06:55:05,10.1.1.3,35,-0.239,-0.239,-0.239,0.000,0.000,0.000
1643266505534179072,2022-01-27-06:55:05,10.1.1.3,33,-0.229,-0.229,-0.229,0.000,0.000,0.000
1643266505735651072,2022-01-27-06:55:05,10.1.1.3,30,-0.220,-0.220,-0.220,0.000,0.000,0.000
1643266505934166016,2022-01-27-06:55:05,10.1.1.3,30,-0.209,-0.209,-0.209,0.000,0.000,0.000
1643266506133358848,2022-01-27-06:55:06,10.1.1.3,28,-0.199,-0.199,-0.199,0.000,0.000,0.000
1643266506334245888,2022-01-27-06:55:06,10.1.1.3,28,-0.190,-0.190,-0.190,0.000,0.000,0.000
1643266506535129088,2022-01-27-06:55:06,10.1.1.3,26,-0.180,-0.180,-0.180,0.000,0.000,0.000
1643266506734971904,2022-01-27-06:55:06,10.1.1.3,24,-0.170,-0.170,-0.170,0.000,0.000,0.000
1643266506934305792,2022-01-27-06:55:06,10.1.1.3,22,-0.160,-0.160,-0.160,0.000,0.000,0.000
1643266507133670144,2022-01-27-06:55:07,10.1.1.3,19,-0.150,-0.150,-0.150,0.000,0.000,0.000
1643266507353931008,2022-01-27-06:55:07,10.1.1.3,38,-0.139,-0.139,-0.139,0.000,0.000,0.000
1643266507535366912,2022-01-27-06:55:07,10.1.1.3,18,-0.130,-0.130,-0.130,0.000,0.000,0.000
1643266507753524992,2022-01-27-06:55:07,10.1.1.3,36,-0.119,-0.119,-0.119,0.000,0.000,0.000
1643266507953156864,2022-01-27-06:55:07,10.1.1.3,34,-0.109,-0.109,-0.109,0.000,0.000,0.000
1643266508153131008,2022-01-27-06:55:08,10.1.1.3,33,-0.099,-0.099,-0.099,0.000,0.000,0.000
1643266508353089024,2022-01-27-06:55:08,10.1.1.3,32,-0.089,-0.089,-0.089,0.000,0.000,0.000
1643266508552737024,2022-01-27-06:55:08,10.1.1.3,30,-0.079,-0.079,-0.079,0.000,0.000,0.000
1643266508752471808,2022-01-27-06:55:08,10.1.1.3,28,-0.069,-0.069,-0.069,0.000,0.000,0.000
1643266508953160960,2022-01-27-06:55:08,10.1.1.3,27,-0.060,-0.060,-0.060,0.000,0.000,0.000
1643266509155827968,2022-01-27-06:55:09,10.1.1.3,28,-0.050,-0.050,-0.050,0.000,0.000,0.000
1643266509354234880,2022-01-27-06:55:09,10.1.1.3,25,-0.040,-0.040,-0.040,0.000,0.000,0.000
1643266509552706048,2022-01-27-06:55:09,10.1.1.3,22,-0.030,-0.030,-0.030,0.000,0.000,0.000
1643266509769196032,2022-01-27-06:55:09,10.1.1.3,38,-0.019,-0.019,-0.019,0.000,0.000,0.000
1643266509972729856,2022-01-27-06:55:09,10.1.1.3,41,-0.009,-0.009,-0.009,0.000,0.000,0.000
1643266510134136832,2022-01-27-06:55:10,10.1.1.3,1,-0.001,-0.001,-0.001,0.000,0.000,0.000
1643266510373213952,2022-01-27-06:55:10,10.1.1.3,39,-0.011,-0.011,-0.011,0.000,0.000,0.000
1643266510553339904,2022-01-27-06:55:10,10.1.1.3,19,-0.020,-0.020,-0.020,0.000,0.000,0.000
1643266510773778944,2022-01-27-06:55:10,10.1.1.3,38,-0.031,-0.031,-0.031,0.000,0.000,0.000
1643266510973783040,2022-01-27-06:55:10,10.1.1.3,37,-0.041,-0.041,-0.041,0.000,0.000,0.000
1643266511174745088,2022-01-27-06:55:11,10.1.1.3,37,-0.051,-0.051,-0.051,0.000,0.000,0.000
1643266511374329088,2022-01-27-06:55:11,10.1.1.3,36,-0.061,-0.061,-0.061,0.000,0.000,0.000
1643266511576322048,2022-01-27-06:55:11,10.1.1.3,35,-0.071,-0.071,-0.071,0.000,0.000,0.000
1643266511774573056,2022-01-27-06:55:11,10.1.1.3,33,-0.081,-0.081,-0.081,0.000,0.000,0.000
1643266511974806016,2022-01-27-06:55:11,10.1.1.3,32,-0.091,-0.091,-0.091,0.000,0.000,0.000
1643266512177017088,2022-01-27-06:55:12,10.1.1.3,33,-0.101,-0.101,-0.101,0.000,0.000,0.000
1643266512374712064,2022-01-27-06:55:12,10.1.1.3,29,-0.110,-0.110,-0.110,0.000,0.000,0.000
1643266512573539072,2022-01-27-06:55:12,10.1.1.3,27,-0.120,-0.120,-0.120,0.000,0.000,0.000
1643266512774163968,2022-01-27-06:55:12,10.1.1.3,26,-0.130,-0.130,-0.130,0.000,0.000,0.000
1643266512974455040,2022-01-27-06:55:12,10.1.1.3,25,-0.140,-0.140,-0.140,0.000,0.000,0.000
1643266513175539968,2022-01-27-06:55:13,10.1.1.3,26,-0.150,-0.150,-0.150,0.000,0.000,0.000
1643266513393487872,2022-01-27-06:55:13,10.1.1.3,43,-0.161,-0.161,-0.161,0.000,0.000,0.000
1643266513593574144,2022-01-27-06:55:13,10.1.1.3,42,-0.171,-0.171,-0.171,0.000,0.000,0.000
1643266513774265088,2022-01-27-06:55:13,10.1.1.3,22,-0.180,-0.180,-0.180,0.000,0.000,0.000
1643266513974046976,2022-01-27-06:55:13,10.1.1.3,20,-0.190,-0.190,-0.190,0.000,0.000,0.000
1643266514194865920,2022-01-27-06:55:14,10.1.1.3,38,-0.201,-0.201,-0.201,0.000,0.000,0.000
1643266514394164992,2022-01-27-06:55:14,10.1.1.3,36,-0.211,-0.211,-0.211,0.000,0.000,0.000
1643266514593784064,2022-01-27-06:55:14,10.1.1.3,35,-0.221,-0.221,-0.221,0.000,0.000,0.000
1643266514792953088,2022-01-27-06:55:14,10.1.1.3,33,-0.231,-0.231,-0.231,0.000,0.000,0.000
1643266514993853184,2022-01-27-06:55:14,10.1.1.3,33,-0.241,-0.241,-0.241,0.000,0.000,0.000
1643266515195329792,2022-01-27-06:55:15,10.1.1.3,33,-0.250,-0.250,-0.250,0.000,0.000,0.000
1643266515397008896,2022-01-27-06:55:15,10.1.1.3,34,-0.261,-0.261,-0.261,0.000,0.000,0.000
1643266515594438912,2022-01-27-06:55:15,10.1.1.3,30,-0.271,-0.271,-0.271,0.000,0.000,0.000
1643266515794967040,2022-01-27-06:55:15,10.1.1.3,29,-0.281,-0.281,-0.281,0.000,0.000,0.000
1643266516000633856,2022-01-27-06:55:16,10.1.1.3,34,-0.290,-0.290,-0.290,0.000,0.000,0.000
1643266516194295040,2022-01-27-06:55:16,10.1.1.3,25,-0.300,-0.300,-0.300,0.000,0.000,0.000
1643266516394012928,2022-01-27-06:55:16,10.1.1.3,24,-0.310,-0.310,-0.310,0.000,0.000,0.000
1643266516593995008,2022-01-27-06:55:16,10.1.1.3,22,-0.320,-0.320,-0.320,0.000,0.000,0.000
1643266516795627008,2022-01-27-06:55:16,10.1.1.3,21,-0.330,-0.330,-0.330,0.000,0.000,0.000
1643266516994560000,2022-01-27-06:55:16,10.1.1.3,19,-0.340,-0.340,-0.340,0.000,0.000,0.000
1643266517213990912,2022-01-27-06:55:17,10.1.1.3,37,-0.351,-0.351,-0.351,0.000,0.000,0.000
1643266517418298880,2022-01-27-06:55:17,10.1.1.3,37,-0.361,-0.361,-0.361,0.000,0.000,0.000
1643266517615020032,2022-01-27-06:55:17,10.1.1.3,36,-0.371,-0.371,-0.371,0.000,0.000,0.000
1643266517814184960,2022-01-27-06:55:17,10.1.1.3,33,-0.381,-0.381,-0.381,0.000,0.000,0.000
1643266518014276864,2022-01-27-06:55:18,10.1.1.3,32,-0.390,-0.390,-0.390,0.000,0.000,0.000
1643266518213722880,2022-01-27-06:55:18,10.1.1.3,31,-0.400,-0.400,-0.400,0.000,0.000,0.000
1643266518413597952,2022-01-27-06:55:18,10.1.1.3,29,-0.411,-0.411,-0.411,0.000,0.000,0.000
1643266518612869120,2022-01-27-06:55:18,10.1.1.3,27,-0.420,-0.420,-0.420,0.000,0.000,0.000
1643266518812683008,2022-01-27-06:55:18,10.1.1.3,27,-0.431,-0.431,-0.431,0.000,0.000,0.000
1643266519013315072,2022-01-27-06:55:19,10.1.1.3,26,-0.440,-0.440,-0.440,0.000,0.000,0.000
1643266519213433088,2022-01-27-06:55:19,10.1.1.3,25,-0.450,-0.450,-0.450,0.000,0.000,0.000
1643266519412846080,2022-01-27-06:55:19,10.1.1.3,23,-0.460,-0.460,-0.460,0.000,0.000,0.000
1643266519613231872,2022-01-27-06:55:19,10.1.1.3,21,-0.470,-0.470,-0.470,0.000,0.000,0.000
1643266519833317120,2022-01-27-06:55:19,10.1.1.3,40,-0.481,-0.481,-0.481,0.000,0.000,0.000
1643266520013050112,2022-01-27-06:55:20,10.1.1.3,17,-0.490,-0.490,-0.490,0.000,0.000,0.000
1643266520234339840,2022-01-27-06:55:20,10.1.1.3,36,-0.479,-0.479,-0.479,0.000,0.000,0.000
1643266520433701120,2022-01-27-06:55:20,10.1.1.3,35,-0.469,-0.469,-0.469,0.000,0.000,0.000
1643266520635325952,2022-01-27-06:55:20,10.1.1.3,34,-0.459,-0.459,-0.459,0.000,0.000,0.000
1643266520835874048,2022-01-27-06:55:20,10.1.1.3,32,-0.449,-0.449,-0.449,0.000,0.000,0.000
1643266521034113792,2022-01-27-06:55:21,10.1.1.3,29,-0.440,-0.440,-0.440,0.000,0.000,0.000
1643266521234957824,2022-01-27-06:55:21,10.1.1.3,29,-0.429,-0.429,-0.429,0.000,0.000,0.000
1643266521435264000,2022-01-27-06:55:21,10.1.1.3,28,-0.420,-0.420,-0.420,0.000,0.000,0.000
1643266521634417152,2022-01-27-06:55:21,10.1.1.3,25,-0.410,-0.410,-0.410,0.000,0.000,0.000
1643266521853737984,2022-01-27-06:55:21,10.1.1.3,43,-0.399,-0.399,-0.399,0.000,0.000,0.000
1643266522053845760,2022-01-27-06:55:22,10.1.1.3,42,-0.389,-0.389,-0.389,0.000,0.000,0.000
1643266522235503872,2022-01-27-06:55:22,10.1.1.3,22,-0.380,-0.380,-0.380,0.000,0.000,0.000
1643266522454063872,2022-01-27-06:55:22,10.1.1.3,39,-0.369,-0.369,-0.369,0.000,0.000,0.000
1643266522654252032,2022-01-27-06:55:22,10.1.1.3,38,-0.359,-0.359,-0.359,0.000,0.000,0.000
1643266522853985024,2022-01-27-06:55:22,10.1.1.3,37,-0.349,-0.349,-0.349,0.000,0.000,0.000
1643266523057460992,2022-01-27-06:55:23,10.1.1.3,37,-0.339,-0.339,-0.339,0.000,0.000,0.000
1643266523253516032,2022-01-27-06:55:23,10.1.1.3,34,-0.329,-0.329,-0.329,0.000,0.000,0.000
1643266523454318080,2022-01-27-06:55:23,10.1.1.3,34,-0.319,-0.319,-0.319,0.000,0.000,0.000
1643266523653017088,2022-01-27-06:55:23,10.1.1.3,32,-0.309,-0.309,-0.309,0.000,0.000,0.000
1643266523853949184,2022-01-27-06:55:23,10.1.1.3,32,-0.299,-0.299,-0.299,0.000,0.000,0.000
1643266524055700992,2022-01-27-06:55:24,10.1.1.3,32,-0.289,-0.289,-0.289,0.000,0.000,0.000
1643266524254045952,2022-01-27-06:55:24,10.1.1.3,29,-0.279,-0.279,-0.279,0.000,0.000,0.000
1643266524454209024,2022-01-27-06:55:24,10.1.1.3,28,-0.270,-0.270,-0.270,0.000,0.000,0.000
1643266524653188864,2022-01-27-06:55:24,10.1.1.3,26,-0.260,-0.260,-0.260,0.000,0.000,0.000
1643266524854477824,2022-01-27-06:55:24,10.1.1.3,25,-0.250,-0.250,-0.250,0.000,0.000,0.000
1643266525054112000,2022-01-27-06:55:25,10.1.1.3,24,-0.240,-0.240,-0.240,0.000,0.000,0.000
1643266525272846848,2022-01-27-06:55:25,10.1.1.3,42,-0.229,-0.229,-0.229,0.000,0.000,0.000
1643266525473253120,2022-01-27-06:55:25,10.1.1.3,41,-0.219,-0.219,-0.219,0.000,0.000,0.000
1643266525654301952,2022-01-27-06:55:25,10.1.1.3,20,-0.210,-0.210,-0.210,0.000,0.000,0.000
1643266525853196032,2022-01-27-06:55:25,10.1.1.3,18,-0.200,-0.200,-0.200,0.000,0.000,0.000
1643266526053718016,2022-01-27-06:55:26,10.1.1.3,18,-0.190,-0.190,-0.190,0.000,0.000,0.000
1643266526272825088,2022-01-27-06:55:26,10.1.1.3,36,-0.179,-0.179,-0.179,0.000,0.000,0.000
1643266526475681024,2022-01-27-06:55:26,10.1.1.3,37,-0.169,-0.169,-0.169,0.000,0.000,0.000
1643266526677000960,2022-01-27-06:55:26,10.1.1.3,37,-0.159,-0.159,-0.159,0.000,0.000,0.000
1643266526874452224,2022-01-27-06:55:26,10.1.1.3,33,-0.149,-0.149,-0.149,0.000,0.000,0.000
1643266527074212096,2022-01-27-06:55:27,10.1.1.3,32,-0.139,-0.139,-0.139,0.000,0.000,0.000
1643266527274918912,2022-01-27-06:55:27,10.1.1.3,31,-0.129,-0.129,-0.129,0.000,0.000,0.000
1643266527473741056,2022-01-27-06:55:27,10.1.1.3,29,-0.119,-0.119,-0.119,0.000,0.000,0.000
1643266527673711104,2022-01-27-06:55:27,10.1.1.3,27,-0.109,-0.109,-0.109,0.000,0.000,0.000
1643266527873324032,2022-01-27-06:55:27,10.1.1.3,25,-0.100,-0.100,-0.100,0.000,0.000,0.000
1643266528075129088,2022-01-27-06:55:28,10.1.1.3,26,-0.090,-0.090,-0.090,0.000,0.000,0.000
1643266528273575936,2022-01-27-06:55:28,10.1.1.3,24,-0.080,-0.080,-0.080,0.000,0.000,0.000
1643266528473400064,2022-01-27-06:55:28,10.1.1.3,23,-0.070,-0.070,-0.070,0.000,0.000,0.000
1643266528694212864,2022-01-27-06:55:28,10.1.1.3,43,-0.059,-0.059,-0.059,0.000,0.000,0.000
1643266528874811904,2022-01-27-06:55:28,10.1.1.3,20,-0.050,-0.050,-0.050,0.000,0.000,0.000
1643266529073138944,2022-01-27-06:55:29,10.1.1.3,17,-0.040,-0.040,-0.040,0.000,0.000,0.000
1643266529293686016,2022-01-27-06:55:29,10.1.1.3,37,-0.029,-0.029,-0.029,0.000,0.000,0.000
1643266529496133120,2022-01-27-06:55:29,10.1.1.3,35,-0.019,-0.019,-0.019,0.000,0.000,0.000
1643266529695410944,2022-01-27-06:55:29,10.1.1.3,36,-0.009,-0.009,-0.009,0.000,0.000,0.000
1643266529873136896,2022-01-27-06:55:29,10.1.1.3,13,-0.000,-0.000,-0.000,0.000,0.000,0.000
1643266530094011136,2022-01-27-06:55:30,10.1.1.3,32,-0.011,-0.011,-0.011,0.000,0.000,0.000
1643266530295108096,2022-01-27-06:55:30,10.1.1.3,32,-0.021,-0.021,-0.021,0.000,0.000,0.000
1643266530493105920,2022-01-27-06:55:30,10.1.1.3,29,-0.031,-0.031,-0.031,0.000,0.000,0.000
1643266530693057024,2022-01-27-06:55:30,10.1.1.3,28,-0.040,-0.040,-0.040,0.000,0.000,0.000
1643266530895047936,2022-01-27-06:55:30,10.1.1.3,29,-0.050,-0.050,-0.050,0.000,0.000,0.000
1643266531099556864,2022-01-27-06:55:31,10.1.1.3,29,-0.060,-0.060,-0.060,0.000,0.000,0.000
1643266531298720000,2022-01-27-06:55:31,10.1.1.3,30,-0.070,-0.070,-0.070,0.000,0.000,0.000
1643266531493325824,2022-01-27-06:55:31,10.1.1.3,23,-0.080,-0.080,-0.080,0.000,0.000,0.000
1643266531693690112,2022-01-27-06:55:31,10.1.1.3,23,-0.090,-0.090,-0.090,0.000,0.000,0.000
1643266531894379008,2022-01-27-06:55:31,10.1.1.3,23,-0.100,-0.100,-0.100,0.000,0.000,0.000
1643266532095037952,2022-01-27-06:55:32,10.1.1.3,23,-0.110,-0.110,-0.110,0.000,0.000,0.000
1643266532293596928,2022-01-27-06:55:32,10.1.1.3,20,-0.120,-0.120,-0.120,0.000,0.000,0.000
1643266532513942016,2022-01-27-06:55:32,10.1.1.3,39,-0.131,-0.131,-0.131,0.000,0.000,0.000
1643266532713430784,2022-01-27-06:55:32,10.1.1.3,38,-0.141,-0.141,-0.141,0.000,0.000,0.000
1643266532913511936,2022-01-27-06:55:32,10.1.1.3,37,-0.151,-0.151,-0.151,0.000,0.000,0.000
1643266533097083136,2022-01-27-06:55:33,10.1.1.3,18,-0.160,-0.160,-0.160,0.000,0.000,0.000
1643266533314033920,2022-01-27-06:55:33,10.1.1.3,36,-0.171,-0.171,-0.171,0.000,0.000,0.000
1643266533516083968,2022-01-27-06:55:33,10.1.1.3,36,-0.181,-0.181,-0.181,0.000,0.000,0.000
1643266533714217984,2022-01-27-06:55:33,10.1.1.3,31,-0.191,-0.191,-0.191,0.000,0.000,0.000
1643266533913937920,2022-01-27-06:55:33,10.1.1.3,29,-0.201,-0.201,-0.201,0.000,0.000,0.000
1643266534114771968,2022-01-27-06:55:34,10.1.1.3,27,-0.210,-0.210,-0.210,0.000,0.000,0.000
1643266534313255168,2022-01-27-06:55:34,10.1.1.3,25,-0.220,-0.220,-0.220,0.000,0.000,0.000
1643266534513554944,2022-01-27-06:55:34,10.1.1.3,24,-0.230,-0.230,-0.230,0.000,0.000,0.000
1643266534714281984,2022-01-27-06:55:34,10.1.1.3,24,-0.240,-0.240,-0.240,0.000,0.000,0.000
1643266534913250816,2022-01-27-06:55:34,10.1.1.3,22,-0.250,-0.250,-0.250,0.000,0.000,0.000
1643266535114140928,2022-01-27-06:55:35,10.1.1.3,22,-0.260,-0.260,-0.260,0.000,0.000,0.000
1643266535313321984,2022-01-27-06:55:35,10.1.1.3,19,-0.270,-0.270,-0.270,0.000,0.000,0.000
1643266535533870080,2022-01-27-06:55:35,10.1.1.3,39,-0.281,-0.281,-0.281,0.000,0.000,0.000
1643266535734618880,2022-01-27-06:55:35,10.1.1.3,39,-0.291,-0.291,-0.291,0.000,0.000,0.000
1643266535933694976,2022-01-27-06:55:35,10.1.1.3,36,-0.301,-0.301,-0.301,0.000,0.000,0.000
1643266536133475072,2022-01-27-06:55:36,10.1.1.3,35,-0.311,-0.311,-0.311,0.000,0.000,0.000
1643266536332974848,2022-01-27-06:55:36,10.1.1.3,33,-0.321,-0.321,-0.321,0.000,0.000,0.000
1643266536535608064,2022-01-27-06:55:36,10.1.1.3,35,-0.331,-0.331,-0.331,0.000,0.000,0.000
1643266536732933120,2022-01-27-06:55:36,10.1.1.3,31,-0.341,-0.341,-0.341,0.000,0.000,0.000
1643266536933208832,2022-01-27-06:55:36,10.1.1.3,31,-0.351,-0.351,-0.351,0.000,0.000,0.000
1643266537134087936,2022-01-27-06:55:37,10.1.1.3,31,-0.361,-0.361,-0.361,0.000,0.000,0.000
1643266537333281024,2022-01-27-06:55:37,10.1.1.3,29,-0.371,-0.371,-0.371,0.000,0.000,0.000
1643266537533046016,2022-01-27-06:55:37,10.1.1.3,28,-0.380,-0.380,-0.380,0.000,0.000,0.000
1643266537733086976,2022-01-27-06:55:37,10.1.1.3,27,-0.391,-0.391,-0.391,0.000,0.000,0.000
1643266537933305088,2022-01-27-06:55:37,10.1.1.3,27,-0.401,-0.401,-0.401,0.000,0.000,0.000
1643266538134465024,2022-01-27-06:55:38,10.1.1.3,26,-0.410,-0.410,-0.410,0.000,0.000,0.000
1643266538333427968,2022-01-27-06:55:38,10.1.1.3,25,-0.420,-0.420,-0.420,0.000,0.000,0.000
1643266538532792064,2022-01-27-06:55:38,10.1.1.3,23,-0.430,-0.430,-0.430,0.000,0.000,0.000
1643266538738080000,2022-01-27-06:55:38,10.1.1.3,27,-0.440,-0.440,-0.440,0.000,0.000,0.000
1643266538934159872,2022-01-27-06:55:38,10.1.1.3,22,-0.450,-0.450,-0.450,0.000,0.000,0.000
1643266539134089984,2022-01-27-06:55:39,10.1.1.3,22,-0.460,-0.460,-0.460,0.000,0.000,0.000
1643266539333331200,2022-01-27-06:55:39,10.1.1.3,20,-0.470,-0.470,-0.470,0.000,0.000,0.000
1643266539533116160,2022-01-27-06:55:39,10.1.1.3,19,-0.480,-0.480,-0.480,0.000,0.000,0.000
1643266539734096128,2022-01-27-06:55:39,10.1.1.3,19,-0.490,-0.490,-0.490,0.000,0.000,0.000
1643266539955073024,2022-01-27-06:55:39,10.1.1.3,39,-0.479,-0.479,-0.479,0.000,0.000,0.000
1643266540153357056,2022-01-27-06:55:40,10.1.1.3,36,-0.469,-0.469,-0.469,0.000,0.000,0.000
1643266540354126080,2022-01-27-06:55:40,10.1.1.3,36,-0.460,-0.460,-0.460,0.000,0.000,0.000
1643266540557852928,2022-01-27-06:55:40,10.1.1.3,38,-0.449,-0.449,-0.449,0.000,0.000,0.000
1643266540754781952,2022-01-27-06:55:40,10.1.1.3,34,-0.440,-0.440,-0.440,0.000,0.000,0.000
1643266540955003904,2022-01-27-06:55:40,10.1.1.3,33,-0.429,-0.429,-0.429,0.000,0.000,0.000
1643266541153101056,2022-01-27-06:55:41,10.1.1.3,30,-0.420,-0.420,-0.420,0.000,0.000,0.000
1643266541347996928,2022-01-27-06:55:41,10.1.1.3,24,-0.410,-0.410,-0.410,0.000,0.000,0.000
1643266541552713984,2022-01-27-06:55:41,10.1.1.3,28,-0.399,-0.399,-0.399,0.000,0.000,0.000
1643266541753634816,2022-01-27-06:55:41,10.1.1.3,26,-0.389,-0.389,-0.389,0.000,0.000,0.000
1643266541953865984,2022-01-27-06:55:41,10.1.1.3,26,-0.380,-0.380,-0.380,0.000,0.000,0.000
1643266542153508864,2022-01-27-06:55:42,10.1.1.3,24,-0.370,-0.370,-0.370,0.000,0.000,0.000
1643266542353105920,2022-01-27-06:55:42,10.1.1.3,24,-0.360,-0.360,-0.360,0.000,0.000,0.000
1643266542553317120,2022-01-27-06:55:42,10.1.1.3,23,-0.350,-0.350,-0.350,0.000,0.000,0.000
1643266542775491840,2022-01-27-06:55:42,10.1.1.3,43,-0.339,-0.339,-0.339,0.000,0.000,0.000
1643266542974745088,2022-01-27-06:55:42,10.1.1.3,42,-0.329,-0.329,-0.329,0.000,0.000,0.000
1643266543173331968,2022-01-27-06:55:43,10.1.1.3,39,-0.319,-0.319,-0.319,0.000,0.000,0.000
1643266543375476992,2022-01-27-06:55:43,10.1.1.3,39,-0.309,-0.309,-0.309,0.000,0.000,0.000
1643266543573733120,2022-01-27-06:55:43,10.1.1.3,35,-0.299,-0.299,-0.299,0.000,0.000,0.000
1643266543773907968,2022-01-27-06:55:43,10.1.1.3,35,-0.289,-0.289,-0.289,0.000,0.000,0.000
1643266543972645888,2022-01-27-06:55:43,10.1.1.3,32,-0.280,-0.280,-0.280,0.000,0.000,0.000
1643266544173691904,2022-01-27-06:55:44,10.1.1.3,31,-0.269,-0.269,-0.269,0.000,0.000,0.000
1643266544376261888,2022-01-27-06:55:44,10.1.1.3,32,-0.260,-0.260,-0.260,0.000,0.000,0.000
1643266544575032832,2022-01-27-06:55:44,10.1.1.3,30,-0.250,-0.250,-0.250,0.000,0.000,0.000
1643266544774085120,2022-01-27-06:55:44,10.1.1.3,28,-0.240,-0.240,-0.240,0.000,0.000,0.000
1643266544976654080,2022-01-27-06:55:44,10.1.1.3,29,-0.229,-0.229,-0.229,0.000,0.000,0.000
1643266545178054144,2022-01-27-06:55:45,10.1.1.3,25,-0.220,-0.220,-0.220,0.000,0.000,0.000
1643266545377993984,2022-01-27-06:55:45,10.1.1.3,25,-0.210,-0.210,-0.210,0.000,0.000,0.000
1643266545593838080,2022-01-27-06:55:45,10.1.1.3,34,-0.199,-0.199,-0.199,0.000,0.000,0.000
1643266545792896000,2022-01-27-06:55:45,10.1.1.3,32,-0.189,-0.189,-0.189,0.000,0.000,0.000
1643266545993676032,2022-01-27-06:55:45,10.1.1.3,32,-0.179,-0.179,-0.179,0.000,0.000,0.000
1643266546193555968,2022-01-27-06:55:46,10.1.1.3,31,-0.169,-0.169,-0.169,0.000,0.000,0.000
1643266546393831936,2022-01-27-06:55:46,10.1.1.3,29,-0.159,-0.159,-0.159,0.000,0.000,0.000
1643266546613543936,2022-01-27-06:55:46,10.1.1.3,47,-0.149,-0.149,-0.149,0.000,0.000,0.000
1643266546797501184,2022-01-27-06:55:46,10.1.1.3,30,-0.140,-0.140,-0.140,0.000,0.000,0.000
1643266546995138048,2022-01-27-06:55:46,10.1.1.3,25,-0.130,-0.130,-0.130,0.000,0.000,0.000
1643266547194994944,2022-01-27-06:55:47,10.1.1.3,23,-0.120,-0.120,-0.120,0.000,0.000,0.000
1643266547394304000,2022-01-27-06:55:47,10.1.1.3,21,-0.110,-0.110,-0.110,0.000,0.000,0.000
1643266547597632768,2022-01-27-06:55:47,10.1.1.3,23,-0.100,-0.100,-0.100,0.000,0.000,0.000
1643266547793818112,2022-01-27-06:55:47,10.1.1.3,17,-0.090,-0.090,-0.090,0.000,0.000,0.000
1643266548013765120,2022-01-27-06:55:48,10.1.1.3,36,-0.079,-0.079,-0.079,0.000,0.000,0.000
1643266548213530112,2022-01-27-06:55:48,10.1.1.3,35,-0.069,-0.069,-0.069,0.000,0.000,0.000
1643266548413285888,2022-01-27-06:55:48,10.1.1.3,34,-0.059,-0.059,-0.059,0.000,0.000,0.000
1643266548613616896,2022-01-27-06:55:48,10.1.1.3,34,-0.049,-0.049,-0.049,0.000,0.000,0.000
1643266548814310912,2022-01-27-06:55:48,10.1.1.3,34,-0.040,-0.040,-0.040,0.000,0.000,0.000
1643266549015588096,2022-01-27-06:55:49,10.1.1.3,34,-0.029,-0.029,-0.029,0.000,0.000,0.000
1643266549214036992,2022-01-27-06:55:49,10.1.1.3,31,-0.019,-0.019,-0.019,0.000,0.000,0.000
1643266549414055936,2022-01-27-06:55:49,10.1.1.3,30,-0.009,-0.009,-0.009,0.000,0.000,0.000
1643266549594680064,2022-01-27-06:55:49,10.1.1.3,9,-0.000,-0.000,-0.000,0.000,0.000,0.000
1643266549813519872,2022-01-27-06:55:49,10.1.1.3,27,-0.011,-0.011,-0.011,0.000,0.000,0.000
1643266550013840896,2022-01-27-06:55:50,10.1.1.3,26,-0.020,-0.020,-0.020,0.000,0.000,0.000
1643266550233714944,2022-01-27-06:55:50,10.1.1.3,43,-0.031,-0.031,-0.031,0.000,0.000,0.000
1643266550416642048,2022-01-27-06:55:50,10.1.1.3,24,-0.040,-0.040,-0.040,0.000,0.000,0.000
1643266550613595904,2022-01-27-06:55:50,10.1.1.3,19,-0.050,-0.050,-0.050,0.000,0.000,0.000
1643266550815059968,2022-01-27-06:55:50,10.1.1.3,19,-0.060,-0.060,-0.060,0.000,0.000,0.000
1643266551012922880,2022-01-27-06:55:51,10.1.1.3,16,-0.070,-0.070,-0.070,0.000,0.000,0.000
1643266551233783040,2022-01-27-06:55:51,10.1.1.3,36,-0.081,-0.081,-0.081,0.000,0.000,0.000
