FedericoMungari/DigitalTwin_service/01_WiredScenario/Output/Output_script/script_rosapi_2_output_robots12_freq0_6.txt
timestamp,date,node,latency,joint_1,joint_2,joint_3,joint_4,joint_5,joint_6
1641234796194222848,2022-01-03-18:33:16,10.1.1.7,198,-0.010,-0.010,-0.010,0.000,0.000,0.000
1641234796631671808,2022-01-03-18:33:16,10.1.1.7,193,-0.030,-0.030,-0.030,0.000,0.000,0.000
1641234796852025088,2022-01-03-18:33:16,10.1.1.7,200,-0.040,-0.040,-0.040,0.000,0.000,0.000
1641234797054912000,2022-01-03-18:33:17,10.1.1.7,200,-0.050,-0.050,-0.050,0.000,0.000,0.000
1641234797252826880,2022-01-03-18:33:17,10.1.1.7,196,-0.060,-0.060,-0.060,0.000,0.000,0.000
1641234797452860160,2022-01-03-18:33:17,10.1.1.7,188,-0.070,-0.070,-0.070,0.000,0.000,0.000
1641234798274611968,2022-01-03-18:33:18,10.1.1.7,195,-0.110,-0.110,-0.110,0.000,0.000,0.000
1641234798473289984,2022-01-03-18:33:18,10.1.1.7,192,-0.120,-0.120,-0.120,0.000,0.000,0.000
1641234798675265024,2022-01-03-18:33:18,10.1.1.7,193,-0.130,-0.130,-0.130,0.000,0.000,0.000
1641234798873108992,2022-01-03-18:33:18,10.1.1.7,190,-0.140,-0.140,-0.140,0.000,0.000,0.000
1641234799493604864,2022-01-03-18:33:19,10.1.1.7,199,-0.170,-0.170,-0.170,0.000,0.000,0.000
1641234799694520064,2022-01-03-18:33:19,10.1.1.7,197,-0.180,-0.180,-0.180,0.000,0.000,0.000
1641234799895024128,2022-01-03-18:33:19,10.1.1.7,197,-0.190,-0.190,-0.190,0.000,0.000,0.000
1641234800093858048,2022-01-03-18:33:20,10.1.1.7,195,-0.200,-0.200,-0.200,0.000,0.000,0.000
1641234800293764096,2022-01-03-18:33:20,10.1.1.7,193,-0.210,-0.210,-0.210,0.000,0.000,0.000
1641234801514622976,2022-01-03-18:33:21,10.1.1.7,199,-0.270,-0.270,-0.270,0.000,0.000,0.000
1641234801918720000,2022-01-03-18:33:21,10.1.1.7,201,-0.290,-0.290,-0.290,0.000,0.000,0.000
1641234802114958080,2022-01-03-18:33:22,10.1.1.7,191,-0.300,-0.300,-0.300,0.000,0.000,0.000
1641234803533985024,2022-01-03-18:33:23,10.1.1.7,193,-0.370,-0.370,-0.370,0.000,0.000,0.000
1641234803733833984,2022-01-03-18:33:23,10.1.1.7,192,-0.380,-0.380,-0.380,0.000,0.000,0.000
1641234803934174976,2022-01-03-18:33:23,10.1.1.7,192,-0.390,-0.390,-0.390,0.000,0.000,0.000
1641234804344599040,2022-01-03-18:33:24,10.1.1.7,193,-0.410,-0.410,-0.410,0.000,0.000,0.000
1641234804752958976,2022-01-03-18:33:24,10.1.1.7,197,-0.430,-0.430,-0.430,0.000,0.000,0.000
1641234805152865792,2022-01-03-18:33:25,10.1.1.7,193,-0.450,-0.450,-0.450,0.000,0.000,0.000
1641234805355480064,2022-01-03-18:33:25,10.1.1.7,194,-0.460,-0.460,-0.460,0.000,0.000,0.000
1641234805563579136,2022-01-03-18:33:25,10.1.1.7,201,-0.470,-0.470,-0.470,0.000,0.000,0.000
1641234806012239104,2022-01-03-18:33:26,10.1.1.7,189,-0.490,-0.490,-0.490,0.000,0.000,0.000
1641234807031205888,2022-01-03-18:33:27,10.1.1.7,198,-0.440,-0.440,-0.440,0.000,0.000,0.000
1641234807230660864,2022-01-03-18:33:27,10.1.1.7,197,-0.430,-0.430,-0.430,0.000,0.000,0.000
1641234807430487040,2022-01-03-18:33:27,10.1.1.7,196,-0.420,-0.420,-0.420,0.000,0.000,0.000
1641234807630772992,2022-01-03-18:33:27,10.1.1.7,194,-0.410,-0.410,-0.410,0.000,0.000,0.000
1641234807829710848,2022-01-03-18:33:27,10.1.1.7,191,-0.400,-0.400,-0.400,0.000,0.000,0.000
1641234808029666048,2022-01-03-18:33:28,10.1.1.7,190,-0.390,-0.390,-0.390,0.000,0.000,0.000
1641234808230038784,2022-01-03-18:33:28,10.1.1.7,190,-0.380,-0.380,-0.380,0.000,0.000,0.000
1641234808431174144,2022-01-03-18:33:28,10.1.1.7,188,-0.370,-0.370,-0.370,0.000,0.000,0.000
1641234808633690112,2022-01-03-18:33:28,10.1.1.7,191,-0.360,-0.360,-0.360,0.000,0.000,0.000
1641234809044071936,2022-01-03-18:33:29,10.1.1.7,197,-0.340,-0.340,-0.340,0.000,0.000,0.000
1641234809248550912,2022-01-03-18:33:29,10.1.1.7,200,-0.330,-0.330,-0.330,0.000,0.000,0.000
1641234809448251136,2022-01-03-18:33:29,10.1.1.7,197,-0.320,-0.320,-0.320,0.000,0.000,0.000
1641234809648275968,2022-01-03-18:33:29,10.1.1.7,195,-0.310,-0.310,-0.310,0.000,0.000,0.000
1641234809849101056,2022-01-03-18:33:29,10.1.1.7,193,-0.300,-0.300,-0.300,0.000,0.000,0.000
1641234810049096192,2022-01-03-18:33:30,10.1.1.7,191,-0.290,-0.290,-0.290,0.000,0.000,0.000
1641234810247294976,2022-01-03-18:33:30,10.1.1.7,189,-0.280,-0.280,-0.280,0.000,0.000,0.000
1641234810450205184,2022-01-03-18:33:30,10.1.1.7,191,-0.270,-0.270,-0.270,0.000,0.000,0.000
1641234810654637056,2022-01-03-18:33:30,10.1.1.7,195,-0.260,-0.260,-0.260,0.000,0.000,0.000
1641234810847224832,2022-01-03-18:33:30,10.1.1.7,183,-0.250,-0.250,-0.250,0.000,0.000,0.000
1641234811051252992,2022-01-03-18:33:31,10.1.1.7,187,-0.240,-0.240,-0.240,0.000,0.000,0.000
1641234811665361920,2022-01-03-18:33:31,10.1.1.7,198,-0.210,-0.210,-0.210,0.000,0.000,0.000
1641234811866124032,2022-01-03-18:33:31,10.1.1.7,198,-0.200,-0.200,-0.200,0.000,0.000,0.000
1641234812066404096,2022-01-03-18:33:32,10.1.1.7,198,-0.190,-0.190,-0.190,0.000,0.000,0.000
1641234812264483840,2022-01-03-18:33:32,10.1.1.7,195,-0.180,-0.180,-0.180,0.000,0.000,0.000
1641234812464798976,2022-01-03-18:33:32,10.1.1.7,194,-0.170,-0.170,-0.170,0.000,0.000,0.000
1641234812664273920,2022-01-03-18:33:32,10.1.1.7,193,-0.160,-0.160,-0.160,0.000,0.000,0.000
1641234812863787008,2022-01-03-18:33:32,10.1.1.7,190,-0.150,-0.150,-0.150,0.000,0.000,0.000
1641234813063908096,2022-01-03-18:33:33,10.1.1.7,189,-0.140,-0.140,-0.140,0.000,0.000,0.000
1641234813263649024,2022-01-03-18:33:33,10.1.1.7,188,-0.130,-0.130,-0.130,0.000,0.000,0.000
1641234813463185152,2022-01-03-18:33:33,10.1.1.7,186,-0.120,-0.120,-0.120,0.000,0.000,0.000
1641234813663106816,2022-01-03-18:33:33,10.1.1.7,185,-0.110,-0.110,-0.110,0.000,0.000,0.000
1641234813863185920,2022-01-03-18:33:33,10.1.1.7,179,-0.100,-0.100,-0.100,0.000,0.000,0.000
1641234814082850048,2022-01-03-18:33:34,10.1.1.7,198,-0.090,-0.090,-0.090,0.000,0.000,0.000
1641234814282511104,2022-01-03-18:33:34,10.1.1.7,196,-0.080,-0.080,-0.080,0.000,0.000,0.000
1641234814484862976,2022-01-03-18:33:34,10.1.1.7,195,-0.070,-0.070,-0.070,0.000,0.000,0.000
1641234814681121024,2022-01-03-18:33:34,10.1.1.7,191,-0.060,-0.060,-0.060,0.000,0.000,0.000
1641234814881940992,2022-01-03-18:33:34,10.1.1.7,190,-0.050,-0.050,-0.050,0.000,0.000,0.000
1641234815080939008,2022-01-03-18:33:35,10.1.1.7,187,-0.040,-0.040,-0.040,0.000,0.000,0.000
1641234815301958912,2022-01-03-18:33:35,10.1.1.7,194,-0.030,-0.030,-0.030,0.000,0.000,0.000
1641234815500250112,2022-01-03-18:33:35,10.1.1.7,191,-0.020,-0.020,-0.020,0.000,0.000,0.000
1641234815700665856,2022-01-03-18:33:35,10.1.1.7,191,-0.010,-0.010,-0.010,0.000,0.000,0.000
1641234815901374976,2022-01-03-18:33:35,10.1.1.7,189,0.000,0.000,0.000,0.000,0.000,0.000
1641234816101048832,2022-01-03-18:33:36,10.1.1.7,187,-0.010,-0.010,-0.010,0.000,0.000,0.000
1641234816299277056,2022-01-03-18:33:36,10.1.1.7,183,-0.020,-0.020,-0.020,0.000,0.000,0.000
1641234816498512896,2022-01-03-18:33:36,10.1.1.7,182,-0.030,-0.030,-0.030,0.000,0.000,0.000
1641234816698338048,2022-01-03-18:33:36,10.1.1.7,181,-0.040,-0.040,-0.040,0.000,0.000,0.000
1641234816898178048,2022-01-03-18:33:36,10.1.1.7,180,-0.050,-0.050,-0.050,0.000,0.000,0.000
1641234817098201088,2022-01-03-18:33:37,10.1.1.7,180,-0.060,-0.060,-0.060,0.000,0.000,0.000
1641234817298237952,2022-01-03-18:33:37,10.1.1.7,179,-0.070,-0.070,-0.070,0.000,0.000,0.000
1641234817497248768,2022-01-03-18:33:37,10.1.1.7,177,-0.080,-0.080,-0.080,0.000,0.000,0.000
1641234817697156864,2022-01-03-18:33:37,10.1.1.7,176,-0.090,-0.090,-0.090,0.000,0.000,0.000
1641234817900744960,2022-01-03-18:33:37,10.1.1.7,179,-0.100,-0.100,-0.100,0.000,0.000,0.000
1641234818096741888,2022-01-03-18:33:38,10.1.1.7,174,-0.110,-0.110,-0.110,0.000,0.000,0.000
1641234818301124096,2022-01-03-18:33:38,10.1.1.7,178,-0.120,-0.120,-0.120,0.000,0.000,0.000
1641234818496009216,2022-01-03-18:33:38,10.1.1.7,172,-0.130,-0.130,-0.130,0.000,0.000,0.000
1641234818715780096,2022-01-03-18:33:38,10.1.1.7,191,-0.140,-0.140,-0.140,0.000,0.000,0.000
1641234818912726016,2022-01-03-18:33:38,10.1.1.7,187,-0.150,-0.150,-0.150,0.000,0.000,0.000
1641234819114525952,2022-01-03-18:33:39,10.1.1.7,188,-0.160,-0.160,-0.160,0.000,0.000,0.000
1641234819314057216,2022-01-03-18:33:39,10.1.1.7,187,-0.170,-0.170,-0.170,0.000,0.000,0.000
1641234819514006016,2022-01-03-18:33:39,10.1.1.7,187,-0.180,-0.180,-0.180,0.000,0.000,0.000
1641234819713530112,2022-01-03-18:33:39,10.1.1.7,186,-0.190,-0.190,-0.190,0.000,0.000,0.000
1641234819914989056,2022-01-03-18:33:39,10.1.1.7,187,-0.200,-0.200,-0.200,0.000,0.000,0.000
1641234820113148928,2022-01-03-18:33:40,10.1.1.7,184,-0.210,-0.210,-0.210,0.000,0.000,0.000
1641234820313564160,2022-01-03-18:33:40,10.1.1.7,183,-0.220,-0.220,-0.220,0.000,0.000,0.000
1641234820513822976,2022-01-03-18:33:40,10.1.1.7,181,-0.230,-0.230,-0.230,0.000,0.000,0.000
1641234820718103040,2022-01-03-18:33:40,10.1.1.7,181,-0.240,-0.240,-0.240,0.000,0.000,0.000
1641234821114978048,2022-01-03-18:33:41,10.1.1.7,174,-0.260,-0.260,-0.260,0.000,0.000,0.000
1641234821314450944,2022-01-03-18:33:41,10.1.1.7,172,-0.270,-0.270,-0.270,0.000,0.000,0.000
1641234821518088192,2022-01-03-18:33:41,10.1.1.7,175,-0.280,-0.280,-0.280,0.000,0.000,0.000
1641234821714750976,2022-01-03-18:33:41,10.1.1.7,171,-0.290,-0.290,-0.290,0.000,0.000,0.000
1641234821916413952,2022-01-03-18:33:41,10.1.1.7,172,-0.300,-0.300,-0.300,0.000,0.000,0.000
1641234822137053952,2022-01-03-18:33:42,10.1.1.7,189,-0.310,-0.310,-0.310,0.000,0.000,0.000
1641234822344763136,2022-01-03-18:33:42,10.1.1.7,196,-0.320,-0.320,-0.320,0.000,0.000,0.000
1641234822538640128,2022-01-03-18:33:42,10.1.1.7,187,-0.330,-0.330,-0.330,0.000,0.000,0.000
1641234822737411072,2022-01-03-18:33:42,10.1.1.7,186,-0.340,-0.340,-0.340,0.000,0.000,0.000
1641234822944145920,2022-01-03-18:33:42,10.1.1.7,192,-0.350,-0.350,-0.350,0.000,0.000,0.000
1641234823137059072,2022-01-03-18:33:43,10.1.1.7,184,-0.360,-0.360,-0.360,0.000,0.000,0.000
1641234823337943040,2022-01-03-18:33:43,10.1.1.7,184,-0.370,-0.370,-0.370,0.000,0.000,0.000
1641234823543064064,2022-01-03-18:33:43,10.1.1.7,189,-0.380,-0.380,-0.380,0.000,0.000,0.000
1641234823740344064,2022-01-03-18:33:43,10.1.1.7,185,-0.390,-0.390,-0.390,0.000,0.000,0.000
1641234823936599040,2022-01-03-18:33:43,10.1.1.7,177,-0.400,-0.400,-0.400,0.000,0.000,0.000
1641234824197796096,2022-01-03-18:33:44,10.1.1.7,191,-0.410,-0.410,-0.410,0.000,0.000,0.000
1641234824398076928,2022-01-03-18:33:44,10.1.1.7,191,-0.420,-0.420,-0.420,0.000,0.000,0.000
1641234824596681216,2022-01-03-18:33:44,10.1.1.7,189,-0.430,-0.430,-0.430,0.000,0.000,0.000
1641234824799144960,2022-01-03-18:33:44,10.1.1.7,190,-0.440,-0.440,-0.440,0.000,0.000,0.000
1641234824995731200,2022-01-03-18:33:44,10.1.1.7,186,-0.450,-0.450,-0.450,0.000,0.000,0.000
1641234825196047104,2022-01-03-18:33:45,10.1.1.7,185,-0.460,-0.460,-0.460,0.000,0.000,0.000
1641234825395864064,2022-01-03-18:33:45,10.1.1.7,184,-0.470,-0.470,-0.470,0.000,0.000,0.000
1641234825793391872,2022-01-03-18:33:45,10.1.1.7,180,-0.490,-0.490,-0.490,0.000,0.000,0.000
1641234825993943040,2022-01-03-18:33:45,10.1.1.7,180,-0.480,-0.480,-0.480,0.000,0.000,0.000
1641234826193515008,2022-01-03-18:33:46,10.1.1.7,178,-0.470,-0.470,-0.470,0.000,0.000,0.000
1641234826393191168,2022-01-03-18:33:46,10.1.1.7,177,-0.460,-0.460,-0.460,0.000,0.000,0.000
1641234826592978944,2022-01-03-18:33:46,10.1.1.7,176,-0.450,-0.450,-0.450,0.000,0.000,0.000
1641234826793355008,2022-01-03-18:33:46,10.1.1.7,176,-0.440,-0.440,-0.440,0.000,0.000,0.000
1641234826993700864,2022-01-03-18:33:46,10.1.1.7,175,-0.430,-0.430,-0.430,0.000,0.000,0.000
1641234827194009088,2022-01-03-18:33:47,10.1.1.7,176,-0.420,-0.420,-0.420,0.000,0.000,0.000
1641234827393752064,2022-01-03-18:33:47,10.1.1.7,174,-0.410,-0.410,-0.410,0.000,0.000,0.000
1641234827593772800,2022-01-03-18:33:47,10.1.1.7,174,-0.400,-0.400,-0.400,0.000,0.000,0.000
1641234827794487040,2022-01-03-18:33:47,10.1.1.7,173,-0.390,-0.390,-0.390,0.000,0.000,0.000
1641234828013936896,2022-01-03-18:33:48,10.1.1.7,191,-0.380,-0.380,-0.380,0.000,0.000,0.000
1641234828213974016,2022-01-03-18:33:48,10.1.1.7,189,-0.370,-0.370,-0.370,0.000,0.000,0.000
1641234828413307904,2022-01-03-18:33:48,10.1.1.7,187,-0.360,-0.360,-0.360,0.000,0.000,0.000
1641234828613342976,2022-01-03-18:33:48,10.1.1.7,186,-0.350,-0.350,-0.350,0.000,0.000,0.000
1641234828812948992,2022-01-03-18:33:48,10.1.1.7,185,-0.340,-0.340,-0.340,0.000,0.000,0.000
1641234829013787904,2022-01-03-18:33:49,10.1.1.7,185,-0.330,-0.330,-0.330,0.000,0.000,0.000
1641234829212945920,2022-01-03-18:33:49,10.1.1.7,183,-0.320,-0.320,-0.320,0.000,0.000,0.000
1641234829413649152,2022-01-03-18:33:49,10.1.1.7,181,-0.310,-0.310,-0.310,0.000,0.000,0.000
1641234829612848128,2022-01-03-18:33:49,10.1.1.7,180,-0.300,-0.300,-0.300,0.000,0.000,0.000
1641234829814138880,2022-01-03-18:33:49,10.1.1.7,180,-0.290,-0.290,-0.290,0.000,0.000,0.000
1641234830013595136,2022-01-03-18:33:50,10.1.1.7,179,-0.280,-0.280,-0.280,0.000,0.000,0.000
1641234830212905984,2022-01-03-18:33:50,10.1.1.7,178,-0.270,-0.270,-0.270,0.000,0.000,0.000
1641234830414230016,2022-01-03-18:33:50,10.1.1.7,178,-0.260,-0.260,-0.260,0.000,0.000,0.000
1641234830613540864,2022-01-03-18:33:50,10.1.1.7,176,-0.250,-0.250,-0.250,0.000,0.000,0.000
1641234830813779968,2022-01-03-18:33:50,10.1.1.7,175,-0.240,-0.240,-0.240,0.000,0.000,0.000
1641234831012753920,2022-01-03-18:33:51,10.1.1.7,173,-0.230,-0.230,-0.230,0.000,0.000,0.000
1641234831213100032,2022-01-03-18:33:51,10.1.1.7,173,-0.220,-0.220,-0.220,0.000,0.000,0.000
1641234831413101824,2022-01-03-18:33:51,10.1.1.7,172,-0.210,-0.210,-0.210,0.000,0.000,0.000
1641234831634620928,2022-01-03-18:33:51,10.1.1.7,191,-0.200,-0.200,-0.200,0.000,0.000,0.000
1641234831832531968,2022-01-03-18:33:51,10.1.1.7,188,-0.190,-0.190,-0.190,0.000,0.000,0.000
1641234832032244992,2022-01-03-18:33:52,10.1.1.7,186,-0.180,-0.180,-0.180,0.000,0.000,0.000
1641234832232000000,2022-01-03-18:33:52,10.1.1.7,185,-0.170,-0.170,-0.170,0.000,0.000,0.000
1641234832432143872,2022-01-03-18:33:52,10.1.1.7,184,-0.160,-0.160,-0.160,0.000,0.000,0.000
1641234832635757824,2022-01-03-18:33:52,10.1.1.7,182,-0.150,-0.150,-0.150,0.000,0.000,0.000
1641234832832203008,2022-01-03-18:33:52,10.1.1.7,181,-0.140,-0.140,-0.140,0.000,0.000,0.000
1641234833038064896,2022-01-03-18:33:53,10.1.1.7,180,-0.130,-0.130,-0.130,0.000,0.000,0.000
1641234833231545088,2022-01-03-18:33:53,10.1.1.7,179,-0.120,-0.120,-0.120,0.000,0.000,0.000
1641234833435092992,2022-01-03-18:33:53,10.1.1.7,182,-0.110,-0.110,-0.110,0.000,0.000,0.000
1641234833631094016,2022-01-03-18:33:53,10.1.1.7,178,-0.100,-0.100,-0.100,0.000,0.000,0.000
1641234833830746880,2022-01-03-18:33:53,10.1.1.7,177,-0.090,-0.090,-0.090,0.000,0.000,0.000
1641234834030572032,2022-01-03-18:33:54,10.1.1.7,176,-0.080,-0.080,-0.080,0.000,0.000,0.000
1641234834231020032,2022-01-03-18:33:54,10.1.1.7,175,-0.070,-0.070,-0.070,0.000,0.000,0.000
1641234834432496128,2022-01-03-18:33:54,10.1.1.7,176,-0.060,-0.060,-0.060,0.000,0.000,0.000
1641234834630350080,2022-01-03-18:33:54,10.1.1.7,172,-0.050,-0.050,-0.050,0.000,0.000,0.000
1641234834829986048,2022-01-03-18:33:54,10.1.1.7,170,-0.040,-0.040,-0.040,0.000,0.000,0.000
1641234835029617920,2022-01-03-18:33:55,10.1.1.7,169,-0.030,-0.030,-0.030,0.000,0.000,0.000
1641234835236228096,2022-01-03-18:33:55,10.1.1.7,174,-0.020,-0.020,-0.020,0.000,0.000,0.000
1641234835450441984,2022-01-03-18:33:55,10.1.1.7,188,-0.010,-0.010,-0.010,0.000,0.000,0.000
1641234835662132992,2022-01-03-18:33:55,10.1.1.7,199,0.000,0.000,0.000,0.000,0.000,0.000
1641234835849905920,2022-01-03-18:33:55,10.1.1.7,186,-0.010,-0.010,-0.010,0.000,0.000,0.000
1641234836050117120,2022-01-03-18:33:56,10.1.1.7,186,-0.020,-0.020,-0.020,0.000,0.000,0.000
1641234836249940992,2022-01-03-18:33:56,10.1.1.7,185,-0.030,-0.030,-0.030,0.000,0.000,0.000
1641234836453846016,2022-01-03-18:33:56,10.1.1.7,189,-0.040,-0.040,-0.040,0.000,0.000,0.000
1641234836650362880,2022-01-03-18:33:56,10.1.1.7,184,-0.050,-0.050,-0.050,0.000,0.000,0.000
1641234836869067008,2022-01-03-18:33:56,10.1.1.7,185,-0.060,-0.060,-0.060,0.000,0.000,0.000
1641234837069082880,2022-01-03-18:33:57,10.1.1.7,184,-0.070,-0.070,-0.070,0.000,0.000,0.000
1641234837268147968,2022-01-03-18:33:57,10.1.1.7,182,-0.080,-0.080,-0.080,0.000,0.000,0.000
1641234837468209920,2022-01-03-18:33:57,10.1.1.7,182,-0.090,-0.090,-0.090,0.000,0.000,0.000
1641234837667889152,2022-01-03-18:33:57,10.1.1.7,180,-0.100,-0.100,-0.100,0.000,0.000,0.000
1641234837868154880,2022-01-03-18:33:57,10.1.1.7,180,-0.110,-0.110,-0.110,0.000,0.000,0.000
1641234838068412160,2022-01-03-18:33:58,10.1.1.7,179,-0.120,-0.120,-0.120,0.000,0.000,0.000
1641234838268182016,2022-01-03-18:33:58,10.1.1.7,177,-0.130,-0.130,-0.130,0.000,0.000,0.000
1641234838469044992,2022-01-03-18:33:58,10.1.1.7,178,-0.140,-0.140,-0.140,0.000,0.000,0.000
1641234838671021056,2022-01-03-18:33:58,10.1.1.7,177,-0.150,-0.150,-0.150,0.000,0.000,0.000
1641234838890212096,2022-01-03-18:33:58,10.1.1.7,174,-0.160,-0.160,-0.160,0.000,0.000,0.000
1641234839107891200,2022-01-03-18:33:59,10.1.1.7,182,-0.170,-0.170,-0.170,0.000,0.000,0.000
1641234839306648064,2022-01-03-18:33:59,10.1.1.7,173,-0.180,-0.180,-0.180,0.000,0.000,0.000
1641234839506764032,2022-01-03-18:33:59,10.1.1.7,173,-0.190,-0.190,-0.190,0.000,0.000,0.000
1641234839705844992,2022-01-03-18:33:59,10.1.1.7,171,-0.200,-0.200,-0.200,0.000,0.000,0.000
1641234839905827072,2022-01-03-18:33:59,10.1.1.7,171,-0.210,-0.210,-0.210,0.000,0.000,0.000
1641234840128842240,2022-01-03-18:34:00,10.1.1.7,193,-0.220,-0.220,-0.220,0.000,0.000,0.000
1641234840325735936,2022-01-03-18:34:00,10.1.1.7,168,-0.230,-0.230,-0.230,0.000,0.000,0.000
1641234840546008064,2022-01-03-18:34:00,10.1.1.7,171,-0.240,-0.240,-0.240,0.000,0.000,0.000
1641234840746385152,2022-01-03-18:34:00,10.1.1.7,171,-0.250,-0.250,-0.250,0.000,0.000,0.000
1641234840945763072,2022-01-03-18:34:00,10.1.1.7,168,-0.260,-0.260,-0.260,0.000,0.000,0.000
1641234841145373184,2022-01-03-18:34:01,10.1.1.7,166,-0.270,-0.270,-0.270,0.000,0.000,0.000
1641234841350057984,2022-01-03-18:34:01,10.1.1.7,169,-0.280,-0.280,-0.280,0.000,0.000,0.000
1641234841565037056,2022-01-03-18:34:01,10.1.1.7,182,-0.290,-0.290,-0.290,0.000,0.000,0.000
1641234841764604928,2022-01-03-18:34:01,10.1.1.7,180,-0.300,-0.300,-0.300,0.000,0.000,0.000
1641234841964065024,2022-01-03-18:34:01,10.1.1.7,179,-0.310,-0.310,-0.310,0.000,0.000,0.000
1641234842165287936,2022-01-03-18:34:02,10.1.1.7,178,-0.320,-0.320,-0.320,0.000,0.000,0.000
1641234842364336128,2022-01-03-18:34:02,10.1.1.7,177,-0.330,-0.330,-0.330,0.000,0.000,0.000
1641234842763629056,2022-01-03-18:34:02,10.1.1.7,175,-0.350,-0.350,-0.350,0.000,0.000,0.000
1641234842962845952,2022-01-03-18:34:02,10.1.1.7,173,-0.360,-0.360,-0.360,0.000,0.000,0.000
1641234843161992192,2022-01-03-18:34:03,10.1.1.7,171,-0.370,-0.370,-0.370,0.000,0.000,0.000
1641234843362219008,2022-01-03-18:34:03,10.1.1.7,170,-0.380,-0.380,-0.380,0.000,0.000,0.000
1641234843562410240,2022-01-03-18:34:03,10.1.1.7,170,-0.390,-0.390,-0.390,0.000,0.000,0.000
1641234843762508032,2022-01-03-18:34:03,10.1.1.7,169,-0.400,-0.400,-0.400,0.000,0.000,0.000
1641234843961325824,2022-01-03-18:34:03,10.1.1.7,167,-0.410,-0.410,-0.410,0.000,0.000,0.000
1641234844160745984,2022-01-03-18:34:04,10.1.1.7,162,-0.420,-0.420,-0.420,0.000,0.000,0.000
1641234844381208832,2022-01-03-18:34:04,10.1.1.7,173,-0.430,-0.430,-0.430,0.000,0.000,0.000
1641234844583944960,2022-01-03-18:34:04,10.1.1.7,176,-0.440,-0.440,-0.440,0.000,0.000,0.000
1641234844781504000,2022-01-03-18:34:04,10.1.1.7,172,-0.450,-0.450,-0.450,0.000,0.000,0.000
1641234844979729920,2022-01-03-18:34:04,10.1.1.7,169,-0.460,-0.460,-0.460,0.000,0.000,0.000
1641234845182145024,2022-01-03-18:34:05,10.1.1.7,168,-0.470,-0.470,-0.470,0.000,0.000,0.000
1641234845380695040,2022-01-03-18:34:05,10.1.1.7,168,-0.480,-0.480,-0.480,0.000,0.000,0.000
1641234845581765888,2022-01-03-18:34:05,10.1.1.7,169,-0.490,-0.490,-0.490,0.000,0.000,0.000
1641234845779930112,2022-01-03-18:34:05,10.1.1.7,164,-0.480,-0.480,-0.480,0.000,0.000,0.000
1641234846199048960,2022-01-03-18:34:06,10.1.1.7,167,-0.460,-0.460,-0.460,0.000,0.000,0.000
1641234846399714048,2022-01-03-18:34:06,10.1.1.7,168,-0.450,-0.450,-0.450,0.000,0.000,0.000
1641234846607215872,2022-01-03-18:34:06,10.1.1.7,175,-0.440,-0.440,-0.440,0.000,0.000,0.000
1641234846800658944,2022-01-03-18:34:06,10.1.1.7,167,-0.430,-0.430,-0.430,0.000,0.000,0.000
1641234847010888960,2022-01-03-18:34:07,10.1.1.7,176,-0.420,-0.420,-0.420,0.000,0.000,0.000
1641234847198183168,2022-01-03-18:34:07,10.1.1.7,160,-0.410,-0.410,-0.410,0.000,0.000,0.000
1641234847397392896,2022-01-03-18:34:07,10.1.1.7,158,-0.400,-0.400,-0.400,0.000,0.000,0.000
1641234847597217024,2022-01-03-18:34:07,10.1.1.7,157,-0.390,-0.390,-0.390,0.000,0.000,0.000
1641234847796768000,2022-01-03-18:34:07,10.1.1.7,157,-0.380,-0.380,-0.380,0.000,0.000,0.000
1641234847996395008,2022-01-03-18:34:07,10.1.1.7,156,-0.370,-0.370,-0.370,0.000,0.000,0.000
1641234848204984064,2022-01-03-18:34:08,10.1.1.7,160,-0.360,-0.360,-0.360,0.000,0.000,0.000
1641234848396538112,2022-01-03-18:34:08,10.1.1.7,155,-0.350,-0.350,-0.350,0.000,0.000,0.000
1641234848615995904,2022-01-03-18:34:08,10.1.1.7,173,-0.340,-0.340,-0.340,0.000,0.000,0.000
1641234848815741184,2022-01-03-18:34:08,10.1.1.7,169,-0.330,-0.330,-0.330,0.000,0.000,0.000
1641234849022084096,2022-01-03-18:34:09,10.1.1.7,175,-0.320,-0.320,-0.320,0.000,0.000,0.000
1641234849214898176,2022-01-03-18:34:09,10.1.1.7,166,-0.310,-0.310,-0.310,0.000,0.000,0.000
1641234849416846080,2022-01-03-18:34:09,10.1.1.7,167,-0.300,-0.300,-0.300,0.000,0.000,0.000
1641234849614857984,2022-01-03-18:34:09,10.1.1.7,163,-0.290,-0.290,-0.290,0.000,0.000,0.000
1641234849813735936,2022-01-03-18:34:09,10.1.1.7,160,-0.280,-0.280,-0.280,0.000,0.000,0.000
1641234850013840896,2022-01-03-18:34:10,10.1.1.7,159,-0.270,-0.270,-0.270,0.000,0.000,0.000
1641234850214663936,2022-01-03-18:34:10,10.1.1.7,159,-0.260,-0.260,-0.260,0.000,0.000,0.000
1641234850412749056,2022-01-03-18:34:10,10.1.1.7,156,-0.250,-0.250,-0.250,0.000,0.000,0.000
1641234850617484032,2022-01-03-18:34:10,10.1.1.7,160,-0.240,-0.240,-0.240,0.000,0.000,0.000
1641234850812371968,2022-01-03-18:34:10,10.1.1.7,154,-0.230,-0.230,-0.230,0.000,0.000,0.000
1641234851013040128,2022-01-03-18:34:11,10.1.1.7,154,-0.220,-0.220,-0.220,0.000,0.000,0.000
1641234851213954816,2022-01-03-18:34:11,10.1.1.7,155,-0.210,-0.210,-0.210,0.000,0.000,0.000
1641234851436664064,2022-01-03-18:34:11,10.1.1.7,163,-0.200,-0.200,-0.200,0.000,0.000,0.000
1641234851633193984,2022-01-03-18:34:11,10.1.1.7,159,-0.190,-0.190,-0.190,0.000,0.000,0.000
1641234851830987008,2022-01-03-18:34:11,10.1.1.7,154,-0.180,-0.180,-0.180,0.000,0.000,0.000
1641234852031450880,2022-01-03-18:34:12,10.1.1.7,154,-0.170,-0.170,-0.170,0.000,0.000,0.000
1641234852230968832,2022-01-03-18:34:12,10.1.1.7,152,-0.160,-0.160,-0.160,0.000,0.000,0.000
1641234852452039936,2022-01-03-18:34:12,10.1.1.7,170,-0.150,-0.150,-0.150,0.000,0.000,0.000
1641234852650361088,2022-01-03-18:34:12,10.1.1.7,167,-0.140,-0.140,-0.140,0.000,0.000,0.000
1641234852891095040,2022-01-03-18:34:12,10.1.1.7,207,-0.130,-0.130,-0.130,0.000,0.000,0.000
1641234853050226944,2022-01-03-18:34:13,10.1.1.7,154,-0.120,-0.120,-0.120,0.000,0.000,0.000
1641234853251142912,2022-01-03-18:34:13,10.1.1.7,154,-0.110,-0.110,-0.110,0.000,0.000,0.000
1641234853469603072,2022-01-03-18:34:13,10.1.1.7,168,-0.100,-0.100,-0.100,0.000,0.000,0.000
1641234853689553920,2022-01-03-18:34:13,10.1.1.7,158,-0.090,-0.090,-0.090,0.000,0.000,0.000
1641234853889306112,2022-01-03-18:34:13,10.1.1.7,156,-0.080,-0.080,-0.080,0.000,0.000,0.000
1641234854089339136,2022-01-03-18:34:14,10.1.1.7,155,-0.070,-0.070,-0.070,0.000,0.000,0.000
1641234854289324032,2022-01-03-18:34:14,10.1.1.7,154,-0.060,-0.060,-0.060,0.000,0.000,0.000
1641234854488403968,2022-01-03-18:34:14,10.1.1.7,153,-0.050,-0.050,-0.050,0.000,0.000,0.000
1641234854689394944,2022-01-03-18:34:14,10.1.1.7,153,-0.040,-0.040,-0.040,0.000,0.000,0.000
1641234854888695040,2022-01-03-18:34:14,10.1.1.7,152,-0.030,-0.030,-0.030,0.000,0.000,0.000
1641234855094505984,2022-01-03-18:34:15,10.1.1.7,157,-0.020,-0.020,-0.020,0.000,0.000,0.000
1641234855306529024,2022-01-03-18:34:15,10.1.1.7,161,-0.010,-0.010,-0.010,0.000,0.000,0.000
1641234855506010112,2022-01-03-18:34:15,10.1.1.7,159,0.000,0.000,0.000,0.000,0.000,0.000
1641234855705921024,2022-01-03-18:34:15,10.1.1.7,159,-0.010,-0.010,-0.010,0.000,0.000,0.000
1641234855917282048,2022-01-03-18:34:15,10.1.1.7,167,-0.020,-0.020,-0.020,0.000,0.000,0.000
1641234856105763072,2022-01-03-18:34:16,10.1.1.7,147,-0.030,-0.030,-0.030,0.000,0.000,0.000
1641234856353645056,2022-01-03-18:34:16,10.1.1.7,192,-0.040,-0.040,-0.040,0.000,0.000,0.000
1641234856386061824,2022-01-03-18:34:16,10.1.1.7,-32,-0.040,-0.040,-0.040,0.000,0.000,0.000
1641234856743858944,2022-01-03-18:34:16,10.1.1.7,145,-0.060,-0.060,-0.060,0.000,0.000,0.000
1641234856944706816,2022-01-03-18:34:16,10.1.1.7,145,-0.070,-0.070,-0.070,0.000,0.000,0.000
1641234857144644096,2022-01-03-18:34:17,10.1.1.7,143,-0.080,-0.080,-0.080,0.000,0.000,0.000
1641234857346664960,2022-01-03-18:34:17,10.1.1.7,145,-0.090,-0.090,-0.090,0.000,0.000,0.000
1641234857564039936,2022-01-03-18:34:17,10.1.1.7,159,-0.100,-0.100,-0.100,0.000,0.000,0.000
1641234857762671872,2022-01-03-18:34:17,10.1.1.7,157,-0.110,-0.110,-0.110,0.000,0.000,0.000
1641234857962093056,2022-01-03-18:34:17,10.1.1.7,156,-0.120,-0.120,-0.120,0.000,0.000,0.000
1641234858164883968,2022-01-03-18:34:18,10.1.1.7,158,-0.130,-0.130,-0.130,0.000,0.000,0.000
1641234858362966016,2022-01-03-18:34:18,10.1.1.7,144,-0.140,-0.140,-0.140,0.000,0.000,0.000
1641234858597850112,2022-01-03-18:34:18,10.1.1.7,166,-0.150,-0.150,-0.150,0.000,0.000,0.000
1641234858783076096,2022-01-03-18:34:18,10.1.1.7,151,-0.160,-0.160,-0.160,0.000,0.000,0.000
1641234858981659904,2022-01-03-18:34:18,10.1.1.7,146,-0.170,-0.170,-0.170,0.000,0.000,0.000
1641234859182318080,2022-01-03-18:34:19,10.1.1.7,143,-0.180,-0.180,-0.180,0.000,0.000,0.000
1641234859381346048,2022-01-03-18:34:19,10.1.1.7,142,-0.190,-0.190,-0.190,0.000,0.000,0.000
1641234859580040960,2022-01-03-18:34:19,10.1.1.7,139,-0.200,-0.200,-0.200,0.000,0.000,0.000
1641234859799845888,2022-01-03-18:34:19,10.1.1.7,141,-0.210,-0.210,-0.210,0.000,0.000,0.000
1641234860000307200,2022-01-03-18:34:20,10.1.1.7,141,-0.220,-0.220,-0.220,0.000,0.000,0.000
1641234860199472896,2022-01-03-18:34:20,10.1.1.7,140,-0.230,-0.230,-0.230,0.000,0.000,0.000
1641234860401551872,2022-01-03-18:34:20,10.1.1.7,139,-0.240,-0.240,-0.240,0.000,0.000,0.000
1641234860598297088,2022-01-03-18:34:20,10.1.1.7,137,-0.250,-0.250,-0.250,0.000,0.000,0.000
1641234860831469056,2022-01-03-18:34:20,10.1.1.7,170,-0.260,-0.260,-0.260,0.000,0.000,0.000
1641234861018115072,2022-01-03-18:34:21,10.1.1.7,156,-0.270,-0.270,-0.270,0.000,0.000,0.000
1641234861217652992,2022-01-03-18:34:21,10.1.1.7,155,-0.280,-0.280,-0.280,0.000,0.000,0.000
1641234861417367808,2022-01-03-18:34:21,10.1.1.7,154,-0.290,-0.290,-0.290,0.000,0.000,0.000
1641234861617105920,2022-01-03-18:34:21,10.1.1.7,153,-0.300,-0.300,-0.300,0.000,0.000,0.000
1641234861816765184,2022-01-03-18:34:21,10.1.1.7,153,-0.310,-0.310,-0.310,0.000,0.000,0.000
1641234862016225024,2022-01-03-18:34:22,10.1.1.7,151,-0.320,-0.320,-0.320,0.000,0.000,0.000
1641234862215941888,2022-01-03-18:34:22,10.1.1.7,150,-0.330,-0.330,-0.330,0.000,0.000,0.000
1641234862416166912,2022-01-03-18:34:22,10.1.1.7,149,-0.340,-0.340,-0.340,0.000,0.000,0.000
1641234862616339968,2022-01-03-18:34:22,10.1.1.7,149,-0.350,-0.350,-0.350,0.000,0.000,0.000
1641234862815228928,2022-01-03-18:34:22,10.1.1.7,146,-0.360,-0.360,-0.360,0.000,0.000,0.000
1641234863022104064,2022-01-03-18:34:23,10.1.1.7,153,-0.370,-0.370,-0.370,0.000,0.000,0.000
1641234863237719040,2022-01-03-18:34:23,10.1.1.7,152,-0.380,-0.380,-0.380,0.000,0.000,0.000
1641234863434497024,2022-01-03-18:34:23,10.1.1.7,148,-0.390,-0.390,-0.390,0.000,0.000,0.000
1641234863634830080,2022-01-03-18:34:23,10.1.1.7,148,-0.400,-0.400,-0.400,0.000,0.000,0.000
1641234863829005056,2022-01-03-18:34:23,10.1.1.7,142,-0.410,-0.410,-0.410,0.000,0.000,0.000
1641234864036331008,2022-01-03-18:34:24,10.1.1.7,148,-0.420,-0.420,-0.420,0.000,0.000,0.000
1641234864234245888,2022-01-03-18:34:24,10.1.1.7,143,-0.430,-0.430,-0.430,0.000,0.000,0.000
1641234864453489152,2022-01-03-18:34:24,10.1.1.7,141,-0.440,-0.440,-0.440,0.000,0.000,0.000
1641234864652100096,2022-01-03-18:34:24,10.1.1.7,139,-0.450,-0.450,-0.450,0.000,0.000,0.000
1641234864853328896,2022-01-03-18:34:24,10.1.1.7,133,-0.460,-0.460,-0.460,0.000,0.000,0.000
1641234865074455040,2022-01-03-18:34:25,10.1.1.7,145,-0.470,-0.470,-0.470,0.000,0.000,0.000
1641234865276704000,2022-01-03-18:34:25,10.1.1.7,147,-0.480,-0.480,-0.480,0.000,0.000,0.000
1641234865492146944,2022-01-03-18:34:25,10.1.1.7,149,-0.490,-0.490,-0.490,0.000,0.000,0.000
1641234865690681856,2022-01-03-18:34:25,10.1.1.7,147,-0.480,-0.480,-0.480,0.000,0.000,0.000
1641234865890077952,2022-01-03-18:34:25,10.1.1.7,146,-0.470,-0.470,-0.470,0.000,0.000,0.000
1641234866090254080,2022-01-03-18:34:26,10.1.1.7,145,-0.460,-0.460,-0.460,0.000,0.000,0.000
1641234866290196992,2022-01-03-18:34:26,10.1.1.7,144,-0.450,-0.450,-0.450,0.000,0.000,0.000
1641234866489598976,2022-01-03-18:34:26,10.1.1.7,143,-0.440,-0.440,-0.440,0.000,0.000,0.000
1641234866688616960,2022-01-03-18:34:26,10.1.1.7,138,-0.430,-0.430,-0.430,0.000,0.000,0.000
1641234866888817152,2022-01-03-18:34:26,10.1.1.7,128,-0.420,-0.420,-0.420,0.000,0.000,0.000
1641234867088702976,2022-01-03-18:34:27,10.1.1.7,128,-0.410,-0.410,-0.410,0.000,0.000,0.000
1641234867307714048,2022-01-03-18:34:27,10.1.1.7,146,-0.400,-0.400,-0.400,0.000,0.000,0.000
1641234867507344128,2022-01-03-18:34:27,10.1.1.7,145,-0.390,-0.390,-0.390,0.000,0.000,0.000
1641234867707250944,2022-01-03-18:34:27,10.1.1.7,145,-0.380,-0.380,-0.380,0.000,0.000,0.000
1641234867907195136,2022-01-03-18:34:27,10.1.1.7,144,-0.370,-0.370,-0.370,0.000,0.000,0.000
1641234868108477952,2022-01-03-18:34:28,10.1.1.7,144,-0.360,-0.360,-0.360,0.000,0.000,0.000
1641234868305651968,2022-01-03-18:34:28,10.1.1.7,141,-0.350,-0.350,-0.350,0.000,0.000,0.000
1641234868505939968,2022-01-03-18:34:28,10.1.1.7,141,-0.340,-0.340,-0.340,0.000,0.000,0.000
1641234868708578048,2022-01-03-18:34:28,10.1.1.7,143,-0.330,-0.330,-0.330,0.000,0.000,0.000
1641234868904900096,2022-01-03-18:34:28,10.1.1.7,139,-0.320,-0.320,-0.320,0.000,0.000,0.000
1641234869105020160,2022-01-03-18:34:29,10.1.1.7,138,-0.310,-0.310,-0.310,0.000,0.000,0.000
1641234869305134080,2022-01-03-18:34:29,10.1.1.7,137,-0.300,-0.300,-0.300,0.000,0.000,0.000
1641234869505091840,2022-01-03-18:34:29,10.1.1.7,137,-0.290,-0.290,-0.290,0.000,0.000,0.000
1641234869707545088,2022-01-03-18:34:29,10.1.1.7,137,-0.280,-0.280,-0.280,0.000,0.000,0.000
1641234869925611008,2022-01-03-18:34:29,10.1.1.7,135,-0.270,-0.270,-0.270,0.000,0.000,0.000
1641234870125547776,2022-01-03-18:34:30,10.1.1.7,128,-0.260,-0.260,-0.260,0.000,0.000,0.000
1641234870324925952,2022-01-03-18:34:30,10.1.1.7,126,-0.250,-0.250,-0.250,0.000,0.000,0.000
1641234870526927104,2022-01-03-18:34:30,10.1.1.7,128,-0.240,-0.240,-0.240,0.000,0.000,0.000
1641234870727223040,2022-01-03-18:34:30,10.1.1.7,127,-0.230,-0.230,-0.230,0.000,0.000,0.000
1641234870957262080,2022-01-03-18:34:30,10.1.1.7,156,-0.220,-0.220,-0.220,0.000,0.000,0.000
1641234871145800192,2022-01-03-18:34:31,10.1.1.7,127,-0.210,-0.210,-0.210,0.000,0.000,0.000
1641234871361675008,2022-01-03-18:34:31,10.1.1.7,137,-0.200,-0.200,-0.200,0.000,0.000,0.000
1641234871563569152,2022-01-03-18:34:31,10.1.1.7,139,-0.190,-0.190,-0.190,0.000,0.000,0.000
1641234871760487936,2022-01-03-18:34:31,10.1.1.7,134,-0.180,-0.180,-0.180,0.000,0.000,0.000
1641234871982626816,2022-01-03-18:34:31,10.1.1.7,134,-0.170,-0.170,-0.170,0.000,0.000,0.000
1641234872193889024,2022-01-03-18:34:32,10.1.1.7,144,-0.160,-0.160,-0.160,0.000,0.000,0.000
1641234872383511040,2022-01-03-18:34:32,10.1.1.7,132,-0.150,-0.150,-0.150,0.000,0.000,0.000
1641234872580080896,2022-01-03-18:34:32,10.1.1.7,127,-0.140,-0.140,-0.140,0.000,0.000,0.000
1641234872779480064,2022-01-03-18:34:32,10.1.1.7,126,-0.130,-0.130,-0.130,0.000,0.000,0.000
1641234872979648000,2022-01-03-18:34:32,10.1.1.7,125,-0.120,-0.120,-0.120,0.000,0.000,0.000
1641234873225688832,2022-01-03-18:34:33,10.1.1.7,171,-0.110,-0.110,-0.110,0.000,0.000,0.000
1641234873398682112,2022-01-03-18:34:33,10.1.1.7,127,-0.100,-0.100,-0.100,0.000,0.000,0.000
1641234873599088896,2022-01-03-18:34:33,10.1.1.7,126,-0.090,-0.090,-0.090,0.000,0.000,0.000
1641234873797316096,2022-01-03-18:34:33,10.1.1.7,125,-0.080,-0.080,-0.080,0.000,0.000,0.000
1641234873997107968,2022-01-03-18:34:33,10.1.1.7,123,-0.070,-0.070,-0.070,0.000,0.000,0.000
1641234874199060992,2022-01-03-18:34:34,10.1.1.7,123,-0.060,-0.060,-0.060,0.000,0.000,0.000
1641234874408128000,2022-01-03-18:34:34,10.1.1.7,129,-0.050,-0.050,-0.050,0.000,0.000,0.000
1641234874596355072,2022-01-03-18:34:34,10.1.1.7,116,-0.040,-0.040,-0.040,0.000,0.000,0.000
1641234874818553088,2022-01-03-18:34:34,10.1.1.7,127,-0.030,-0.030,-0.030,0.000,0.000,0.000
1641234875017359104,2022-01-03-18:34:35,10.1.1.7,125,-0.020,-0.020,-0.020,0.000,0.000,0.000
1641234875216214016,2022-01-03-18:34:35,10.1.1.7,123,-0.010,-0.010,-0.010,0.000,0.000,0.000
1641234875414851840,2022-01-03-18:34:35,10.1.1.7,121,0.000,0.000,0.000,0.000,0.000,0.000
1641234875639820032,2022-01-03-18:34:35,10.1.1.7,138,-0.010,-0.010,-0.010,0.000,0.000,0.000
1641234875835508992,2022-01-03-18:34:35,10.1.1.7,129,-0.020,-0.020,-0.020,0.000,0.000,0.000
1641234876034264064,2022-01-03-18:34:36,10.1.1.7,119,-0.030,-0.030,-0.030,0.000,0.000,0.000
1641234876263292160,2022-01-03-18:34:36,10.1.1.7,133,-0.040,-0.040,-0.040,0.000,0.000,0.000
1641234876454104832,2022-01-03-18:34:36,10.1.1.7,122,-0.050,-0.050,-0.050,0.000,0.000,0.000
1641234876687549952,2022-01-03-18:34:36,10.1.1.7,154,-0.060,-0.060,-0.060,0.000,0.000,0.000
1641234876872489984,2022-01-03-18:34:36,10.1.1.7,126,-0.070,-0.070,-0.070,0.000,0.000,0.000
1641234877092310016,2022-01-03-18:34:37,10.1.1.7,130,-0.080,-0.080,-0.080,0.000,0.000,0.000
1641234877291335936,2022-01-03-18:34:37,10.1.1.7,129,-0.090,-0.090,-0.090,0.000,0.000,0.000
1641234877493491968,2022-01-03-18:34:37,10.1.1.7,129,-0.100,-0.100,-0.100,0.000,0.000,0.000
1641234877691091968,2022-01-03-18:34:37,10.1.1.7,126,-0.110,-0.110,-0.110,0.000,0.000,0.000
1641234877908684032,2022-01-03-18:34:37,10.1.1.7,127,-0.120,-0.120,-0.120,0.000,0.000,0.000
1641234878090945024,2022-01-03-18:34:38,10.1.1.7,112,-0.130,-0.130,-0.130,0.000,0.000,0.000
1641234878289602048,2022-01-03-18:34:38,10.1.1.7,110,-0.140,-0.140,-0.140,0.000,0.000,0.000
1641234878510107904,2022-01-03-18:34:38,10.1.1.7,128,-0.150,-0.150,-0.150,0.000,0.000,0.000
1641234878709328896,2022-01-03-18:34:38,10.1.1.7,125,-0.160,-0.160,-0.160,0.000,0.000,0.000
1641234878909383168,2022-01-03-18:34:38,10.1.1.7,124,-0.170,-0.170,-0.170,0.000,0.000,0.000
1641234879108659968,2022-01-03-18:34:39,10.1.1.7,107,-0.180,-0.180,-0.180,0.000,0.000,0.000
1641234879328135936,2022-01-03-18:34:39,10.1.1.7,126,-0.190,-0.190,-0.190,0.000,0.000,0.000
1641234879530669824,2022-01-03-18:34:39,10.1.1.7,128,-0.200,-0.200,-0.200,0.000,0.000,0.000
1641234879728101888,2022-01-03-18:34:39,10.1.1.7,125,-0.210,-0.210,-0.210,0.000,0.000,0.000
1641234879927625984,2022-01-03-18:34:39,10.1.1.7,123,-0.220,-0.220,-0.220,0.000,0.000,0.000
1641234880127096064,2022-01-03-18:34:40,10.1.1.7,122,-0.230,-0.230,-0.230,0.000,0.000,0.000
1641234880327141120,2022-01-03-18:34:40,10.1.1.7,120,-0.240,-0.240,-0.240,0.000,0.000,0.000
1641234880525916928,2022-01-03-18:34:40,10.1.1.7,118,-0.250,-0.250,-0.250,0.000,0.000,0.000
1641234880729863936,2022-01-03-18:34:40,10.1.1.7,121,-0.260,-0.260,-0.260,0.000,0.000,0.000
1641234880928771072,2022-01-03-18:34:40,10.1.1.7,116,-0.270,-0.270,-0.270,0.000,0.000,0.000
1641234881125698048,2022-01-03-18:34:41,10.1.1.7,111,-0.280,-0.280,-0.280,0.000,0.000,0.000
1641234881356761856,2022-01-03-18:34:41,10.1.1.7,135,-0.290,-0.290,-0.290,0.000,0.000,0.000
1641234881565860096,2022-01-03-18:34:41,10.1.1.7,118,-0.300,-0.300,-0.300,0.000,0.000,0.000
1641234881765636864,2022-01-03-18:34:41,10.1.1.7,118,-0.310,-0.310,-0.310,0.000,0.000,0.000
1641234881965061888,2022-01-03-18:34:41,10.1.1.7,116,-0.320,-0.320,-0.320,0.000,0.000,0.000
1641234882164730112,2022-01-03-18:34:42,10.1.1.7,116,-0.330,-0.330,-0.330,0.000,0.000,0.000
1641234882417361920,2022-01-03-18:34:42,10.1.1.7,128,-0.340,-0.340,-0.340,0.000,0.000,0.000
1641234882605353216,2022-01-03-18:34:42,10.1.1.7,114,-0.350,-0.350,-0.350,0.000,0.000,0.000
1641234882802907904,2022-01-03-18:34:42,10.1.1.7,108,-0.360,-0.360,-0.360,0.000,0.000,0.000
1641234883005908992,2022-01-03-18:34:43,10.1.1.7,110,-0.370,-0.370,-0.370,0.000,0.000,0.000
1641234883214975232,2022-01-03-18:34:43,10.1.1.7,115,-0.380,-0.380,-0.380,0.000,0.000,0.000
1641234883405165824,2022-01-03-18:34:43,10.1.1.7,104,-0.390,-0.390,-0.390,0.000,0.000,0.000
1641234883627352064,2022-01-03-18:34:43,10.1.1.7,125,-0.400,-0.400,-0.400,0.000,0.000,0.000
1641234883820631040,2022-01-03-18:34:43,10.1.1.7,115,-0.410,-0.410,-0.410,0.000,0.000,0.000
1641234884020360960,2022-01-03-18:34:44,10.1.1.7,113,-0.420,-0.420,-0.420,0.000,0.000,0.000
1641234884221595904,2022-01-03-18:34:44,10.1.1.7,113,-0.430,-0.430,-0.430,0.000,0.000,0.000
1641234884422925056,2022-01-03-18:34:44,10.1.1.7,114,-0.440,-0.440,-0.440,0.000,0.000,0.000
1641234884626356992,2022-01-03-18:34:44,10.1.1.7,117,-0.450,-0.450,-0.450,0.000,0.000,0.000
1641234884827676928,2022-01-03-18:34:44,10.1.1.7,117,-0.460,-0.460,-0.460,0.000,0.000,0.000
1641234885025604096,2022-01-03-18:34:45,10.1.1.7,115,-0.470,-0.470,-0.470,0.000,0.000,0.000
1641234885229698048,2022-01-03-18:34:45,10.1.1.7,118,-0.480,-0.480,-0.480,0.000,0.000,0.000
1641234885428873984,2022-01-03-18:34:45,10.1.1.7,117,-0.490,-0.490,-0.490,0.000,0.000,0.000
1641234885629231104,2022-01-03-18:34:45,10.1.1.7,114,-0.480,-0.480,-0.480,0.000,0.000,0.000
1641234885849612032,2022-01-03-18:34:45,10.1.1.7,117,-0.470,-0.470,-0.470,0.000,0.000,0.000
1641234886050908928,2022-01-03-18:34:46,10.1.1.7,118,-0.460,-0.460,-0.460,0.000,0.000,0.000
1641234886251715840,2022-01-03-18:34:46,10.1.1.7,118,-0.450,-0.450,-0.450,0.000,0.000,0.000
1641234886452392192,2022-01-03-18:34:46,10.1.1.7,118,-0.440,-0.440,-0.440,0.000,0.000,0.000
1641234886653492992,2022-01-03-18:34:46,10.1.1.7,119,-0.430,-0.430,-0.430,0.000,0.000,0.000
1641234886905936128,2022-01-03-18:34:46,10.1.1.7,167,-0.420,-0.420,-0.420,0.000,0.000,0.000
1641234887077060864,2022-01-03-18:34:47,10.1.1.7,133,-0.410,-0.410,-0.410,0.000,0.000,0.000
1641234887276091136,2022-01-03-18:34:47,10.1.1.7,129,-0.400,-0.400,-0.400,0.000,0.000,0.000
1641234887476756992,2022-01-03-18:34:47,10.1.1.7,129,-0.390,-0.390,-0.390,0.000,0.000,0.000
1641234887689603072,2022-01-03-18:34:47,10.1.1.7,141,-0.380,-0.380,-0.380,0.000,0.000,0.000
1641234887878621184,2022-01-03-18:34:47,10.1.1.7,128,-0.370,-0.370,-0.370,0.000,0.000,0.000
1641234888079320064,2022-01-03-18:34:48,10.1.1.7,127,-0.360,-0.360,-0.360,0.000,0.000,0.000
1641234888283622144,2022-01-03-18:34:48,10.1.1.7,130,-0.350,-0.350,-0.350,0.000,0.000,0.000
1641234888480896000,2022-01-03-18:34:48,10.1.1.7,127,-0.340,-0.340,-0.340,0.000,0.000,0.000
1641234888682414080,2022-01-03-18:34:48,10.1.1.7,126,-0.330,-0.330,-0.330,0.000,0.000,0.000
1641234888881902848,2022-01-03-18:34:48,10.1.1.7,122,-0.320,-0.320,-0.320,0.000,0.000,0.000
1641234889082878976,2022-01-03-18:34:49,10.1.1.7,122,-0.310,-0.310,-0.310,0.000,0.000,0.000
1641234889303932928,2022-01-03-18:34:49,10.1.1.7,141,-0.300,-0.300,-0.300,0.000,0.000,0.000
1641234889504396032,2022-01-03-18:34:49,10.1.1.7,134,-0.290,-0.290,-0.290,0.000,0.000,0.000
1641234889705427968,2022-01-03-18:34:49,10.1.1.7,135,-0.280,-0.280,-0.280,0.000,0.000,0.000
1641234889915791104,2022-01-03-18:34:49,10.1.1.7,144,-0.270,-0.270,-0.270,0.000,0.000,0.000
1641234890106925056,2022-01-03-18:34:50,10.1.1.7,134,-0.260,-0.260,-0.260,0.000,0.000,0.000
1641234890307142144,2022-01-03-18:34:50,10.1.1.7,134,-0.250,-0.250,-0.250,0.000,0.000,0.000
1641234890507389952,2022-01-03-18:34:50,10.1.1.7,133,-0.240,-0.240,-0.240,0.000,0.000,0.000
1641234890707901952,2022-01-03-18:34:50,10.1.1.7,133,-0.230,-0.230,-0.230,0.000,0.000,0.000
1641234890908968960,2022-01-03-18:34:50,10.1.1.7,133,-0.220,-0.220,-0.220,0.000,0.000,0.000
1641234891109152000,2022-01-03-18:34:51,10.1.1.7,132,-0.210,-0.210,-0.210,0.000,0.000,0.000
1641234891345964800,2022-01-03-18:34:51,10.1.1.7,169,-0.200,-0.200,-0.200,0.000,0.000,0.000
1641234891510014976,2022-01-03-18:34:51,10.1.1.7,131,-0.190,-0.190,-0.190,0.000,0.000,0.000
1641234891711392000,2022-01-03-18:34:51,10.1.1.7,132,-0.180,-0.180,-0.180,0.000,0.000,0.000
1641234891911354112,2022-01-03-18:34:51,10.1.1.7,131,-0.170,-0.170,-0.170,0.000,0.000,0.000
1641234892143716096,2022-01-03-18:34:52,10.1.1.7,158,-0.160,-0.160,-0.160,0.000,0.000,0.000
1641234892354369024,2022-01-03-18:34:52,10.1.1.7,143,-0.150,-0.150,-0.150,0.000,0.000,0.000
1641234892572794880,2022-01-03-18:34:52,10.1.1.7,159,-0.140,-0.140,-0.140,0.000,0.000,0.000
1641234892753718016,2022-01-03-18:34:52,10.1.1.7,139,-0.130,-0.130,-0.130,0.000,0.000,0.000
1641234892954330880,2022-01-03-18:34:52,10.1.1.7,139,-0.120,-0.120,-0.120,0.000,0.000,0.000
1641234893153839104,2022-01-03-18:34:53,10.1.1.7,138,-0.110,-0.110,-0.110,0.000,0.000,0.000
1641234893354419968,2022-01-03-18:34:53,10.1.1.7,138,-0.100,-0.100,-0.100,0.000,0.000,0.000
1641234893556694016,2022-01-03-18:34:53,10.1.1.7,138,-0.090,-0.090,-0.090,0.000,0.000,0.000
1641234893775979008,2022-01-03-18:34:53,10.1.1.7,146,-0.080,-0.080,-0.080,0.000,0.000,0.000
1641234893976278016,2022-01-03-18:34:53,10.1.1.7,145,-0.070,-0.070,-0.070,0.000,0.000,0.000
1641234894176103168,2022-01-03-18:34:54,10.1.1.7,144,-0.060,-0.060,-0.060,0.000,0.000,0.000
1641234894378804992,2022-01-03-18:34:54,10.1.1.7,145,-0.050,-0.050,-0.050,0.000,0.000,0.000
1641234894577049088,2022-01-03-18:34:54,10.1.1.7,142,-0.040,-0.040,-0.040,0.000,0.000,0.000
1641234894777609984,2022-01-03-18:34:54,10.1.1.7,140,-0.030,-0.030,-0.030,0.000,0.000,0.000
1641234894977580032,2022-01-03-18:34:54,10.1.1.7,138,-0.020,-0.020,-0.020,0.000,0.000,0.000
1641234895192589056,2022-01-03-18:34:55,10.1.1.7,150,-0.010,-0.010,-0.010,0.000,0.000,0.000
1641234895398220032,2022-01-03-18:34:55,10.1.1.7,153,0.000,0.000,0.000,0.000,0.000,0.000
1641234895599005952,2022-01-03-18:34:55,10.1.1.7,153,-0.010,-0.010,-0.010,0.000,0.000,0.000
1641234895799126016,2022-01-03-18:34:55,10.1.1.7,152,-0.020,-0.020,-0.020,0.000,0.000,0.000
1641234896007330048,2022-01-03-18:34:56,10.1.1.7,159,-0.030,-0.030,-0.030,0.000,0.000,0.000
1641234896200779008,2022-01-03-18:34:56,10.1.1.7,149,-0.040,-0.040,-0.040,0.000,0.000,0.000
1641234896401046016,2022-01-03-18:34:56,10.1.1.7,149,-0.050,-0.050,-0.050,0.000,0.000,0.000
1641234896607201024,2022-01-03-18:34:56,10.1.1.7,153,-0.060,-0.060,-0.060,0.000,0.000,0.000
1641234896801174016,2022-01-03-18:34:56,10.1.1.7,146,-0.070,-0.070,-0.070,0.000,0.000,0.000
1641234897000991232,2022-01-03-18:34:57,10.1.1.7,145,-0.080,-0.080,-0.080,0.000,0.000,0.000
1641234897202352128,2022-01-03-18:34:57,10.1.1.7,144,-0.090,-0.090,-0.090,0.000,0.000,0.000
1641234897402086144,2022-01-03-18:34:57,10.1.1.7,142,-0.100,-0.100,-0.100,0.000,0.000,0.000
1641234897602333952,2022-01-03-18:34:57,10.1.1.7,141,-0.110,-0.110,-0.110,0.000,0.000,0.000
1641234897823113984,2022-01-03-18:34:57,10.1.1.7,160,-0.120,-0.120,-0.120,0.000,0.000,0.000
1641234898025289984,2022-01-03-18:34:58,10.1.1.7,161,-0.130,-0.130,-0.130,0.000,0.000,0.000
1641234898422853120,2022-01-03-18:34:58,10.1.1.7,156,-0.150,-0.150,-0.150,0.000,0.000,0.000
1641234898624313088,2022-01-03-18:34:58,10.1.1.7,153,-0.160,-0.160,-0.160,0.000,0.000,0.000
1641234898828759808,2022-01-03-18:34:58,10.1.1.7,158,-0.170,-0.170,-0.170,0.000,0.000,0.000
1641234899067663872,2022-01-03-18:34:59,10.1.1.7,196,-0.180,-0.180,-0.180,0.000,0.000,0.000
1641234899229033984,2022-01-03-18:34:59,10.1.1.7,151,-0.190,-0.190,-0.190,0.000,0.000,0.000
1641234899468193024,2022-01-03-18:34:59,10.1.1.7,165,-0.200,-0.200,-0.200,0.000,0.000,0.000
1641234899645212928,2022-01-03-18:34:59,10.1.1.7,158,-0.210,-0.210,-0.210,0.000,0.000,0.000
1641234899848965888,2022-01-03-18:34:59,10.1.1.7,160,-0.220,-0.220,-0.220,0.000,0.000,0.000
1641234900047190016,2022-01-03-18:35:00,10.1.1.7,157,-0.230,-0.230,-0.230,0.000,0.000,0.000
1641234900247493888,2022-01-03-18:35:00,10.1.1.7,156,-0.240,-0.240,-0.240,0.000,0.000,0.000
1641234900453031168,2022-01-03-18:35:00,10.1.1.7,155,-0.250,-0.250,-0.250,0.000,0.000,0.000
1641234900671976960,2022-01-03-18:35:00,10.1.1.7,179,-0.260,-0.260,-0.260,0.000,0.000,0.000
1641234900846586880,2022-01-03-18:35:00,10.1.1.7,153,-0.270,-0.270,-0.270,0.000,0.000,0.000
1641234901066272000,2022-01-03-18:35:01,10.1.1.7,167,-0.280,-0.280,-0.280,0.000,0.000,0.000
1641234901246689024,2022-01-03-18:35:01,10.1.1.7,146,-0.290,-0.290,-0.290,0.000,0.000,0.000
1641234901465508864,2022-01-03-18:35:01,10.1.1.7,162,-0.300,-0.300,-0.300,0.000,0.000,0.000
1641234901678735872,2022-01-03-18:35:01,10.1.1.7,171,-0.310,-0.310,-0.310,0.000,0.000,0.000
1641234901865968896,2022-01-03-18:35:01,10.1.1.7,156,-0.320,-0.320,-0.320,0.000,0.000,0.000
1641234902065869056,2022-01-03-18:35:02,10.1.1.7,155,-0.330,-0.330,-0.330,0.000,0.000,0.000
1641234902266925056,2022-01-03-18:35:02,10.1.1.7,154,-0.340,-0.340,-0.340,0.000,0.000,0.000
1641234902466753024,2022-01-03-18:35:02,10.1.1.7,153,-0.350,-0.350,-0.350,0.000,0.000,0.000
1641234902666289920,2022-01-03-18:35:02,10.1.1.7,151,-0.360,-0.360,-0.360,0.000,0.000,0.000
1641234902886127104,2022-01-03-18:35:02,10.1.1.7,168,-0.370,-0.370,-0.370,0.000,0.000,0.000
1641234903066409984,2022-01-03-18:35:03,10.1.1.7,147,-0.380,-0.380,-0.380,0.000,0.000,0.000
1641234903267149056,2022-01-03-18:35:03,10.1.1.7,146,-0.390,-0.390,-0.390,0.000,0.000,0.000
1641234903486748928,2022-01-03-18:35:03,10.1.1.7,163,-0.400,-0.400,-0.400,0.000,0.000,0.000
1641234903686491904,2022-01-03-18:35:03,10.1.1.7,160,-0.410,-0.410,-0.410,0.000,0.000,0.000
1641234903886347008,2022-01-03-18:35:03,10.1.1.7,159,-0.420,-0.420,-0.420,0.000,0.000,0.000
1641234904087225088,2022-01-03-18:35:04,10.1.1.7,157,-0.430,-0.430,-0.430,0.000,0.000,0.000
1641234904288424960,2022-01-03-18:35:04,10.1.1.7,157,-0.440,-0.440,-0.440,0.000,0.000,0.000
1641234904487128064,2022-01-03-18:35:04,10.1.1.7,155,-0.450,-0.450,-0.450,0.000,0.000,0.000
1641234904687185920,2022-01-03-18:35:04,10.1.1.7,154,-0.460,-0.460,-0.460,0.000,0.000,0.000
1641234904886615040,2022-01-03-18:35:04,10.1.1.7,153,-0.470,-0.470,-0.470,0.000,0.000,0.000
1641234905288505088,2022-01-03-18:35:05,10.1.1.7,154,-0.490,-0.490,-0.490,0.000,0.000,0.000
1641234905487097856,2022-01-03-18:35:05,10.1.1.7,151,-0.480,-0.480,-0.480,0.000,0.000,0.000
1641234905688108800,2022-01-03-18:35:05,10.1.1.7,148,-0.470,-0.470,-0.470,0.000,0.000,0.000
1641234905888470784,2022-01-03-18:35:05,10.1.1.7,147,-0.460,-0.460,-0.460,0.000,0.000,0.000
1641234906107130880,2022-01-03-18:35:06,10.1.1.7,165,-0.450,-0.450,-0.450,0.000,0.000,0.000
1641234906507021056,2022-01-03-18:35:06,10.1.1.7,154,-0.430,-0.430,-0.430,0.000,0.000,0.000
1641234906707232000,2022-01-03-18:35:06,10.1.1.7,154,-0.420,-0.420,-0.420,0.000,0.000,0.000
1641234906907182080,2022-01-03-18:35:06,10.1.1.7,153,-0.410,-0.410,-0.410,0.000,0.000,0.000
1641234907107654144,2022-01-03-18:35:07,10.1.1.7,153,-0.400,-0.400,-0.400,0.000,0.000,0.000
1641234907306926848,2022-01-03-18:35:07,10.1.1.7,152,-0.390,-0.390,-0.390,0.000,0.000,0.000
1641234907530446080,2022-01-03-18:35:07,10.1.1.7,170,-0.380,-0.380,-0.380,0.000,0.000,0.000
1641234907726713856,2022-01-03-18:35:07,10.1.1.7,160,-0.370,-0.370,-0.370,0.000,0.000,0.000
1641234907927188992,2022-01-03-18:35:07,10.1.1.7,160,-0.360,-0.360,-0.360,0.000,0.000,0.000
1641234908126852096,2022-01-03-18:35:08,10.1.1.7,158,-0.350,-0.350,-0.350,0.000,0.000,0.000
1641234908329174016,2022-01-03-18:35:08,10.1.1.7,160,-0.340,-0.340,-0.340,0.000,0.000,0.000
1641234908529031936,2022-01-03-18:35:08,10.1.1.7,159,-0.330,-0.330,-0.330,0.000,0.000,0.000
1641234908727858944,2022-01-03-18:35:08,10.1.1.7,152,-0.320,-0.320,-0.320,0.000,0.000,0.000
1641234908926536192,2022-01-03-18:35:08,10.1.1.7,150,-0.310,-0.310,-0.310,0.000,0.000,0.000
1641234909127356928,2022-01-03-18:35:09,10.1.1.7,150,-0.300,-0.300,-0.300,0.000,0.000,0.000
1641234909327079168,2022-01-03-18:35:09,10.1.1.7,148,-0.290,-0.290,-0.290,0.000,0.000,0.000
1641234909527591936,2022-01-03-18:35:09,10.1.1.7,148,-0.280,-0.280,-0.280,0.000,0.000,0.000
1641234909769036032,2022-01-03-18:35:09,10.1.1.7,189,-0.270,-0.270,-0.270,0.000,0.000,0.000
1641234909966021120,2022-01-03-18:35:09,10.1.1.7,162,-0.260,-0.260,-0.260,0.000,0.000,0.000
1641234910187139072,2022-01-03-18:35:10,10.1.1.7,156,-0.250,-0.250,-0.250,0.000,0.000,0.000
1641234910393950976,2022-01-03-18:35:10,10.1.1.7,160,-0.240,-0.240,-0.240,0.000,0.000,0.000
1641234910585664000,2022-01-03-18:35:10,10.1.1.7,148,-0.230,-0.230,-0.230,0.000,0.000,0.000
1641234910786223872,2022-01-03-18:35:10,10.1.1.7,148,-0.220,-0.220,-0.220,0.000,0.000,0.000
1641234911046117120,2022-01-03-18:35:11,10.1.1.7,155,-0.210,-0.210,-0.210,0.000,0.000,0.000
1641234911266439936,2022-01-03-18:35:11,10.1.1.7,149,-0.200,-0.200,-0.200,0.000,0.000,0.000
1641234911466153984,2022-01-03-18:35:11,10.1.1.7,148,-0.190,-0.190,-0.190,0.000,0.000,0.000
1641234911665733120,2022-01-03-18:35:11,10.1.1.7,145,-0.180,-0.180,-0.180,0.000,0.000,0.000
1641234911865597952,2022-01-03-18:35:11,10.1.1.7,145,-0.170,-0.170,-0.170,0.000,0.000,0.000
1641234912065305856,2022-01-03-18:35:12,10.1.1.7,144,-0.160,-0.160,-0.160,0.000,0.000,0.000
1641234912285490944,2022-01-03-18:35:12,10.1.1.7,162,-0.150,-0.150,-0.150,0.000,0.000,0.000
1641234912485182976,2022-01-03-18:35:12,10.1.1.7,158,-0.140,-0.140,-0.140,0.000,0.000,0.000
1641234912687800832,2022-01-03-18:35:12,10.1.1.7,158,-0.130,-0.130,-0.130,0.000,0.000,0.000
1641234912889327104,2022-01-03-18:35:12,10.1.1.7,159,-0.120,-0.120,-0.120,0.000,0.000,0.000
1641234913086695936,2022-01-03-18:35:13,10.1.1.7,155,-0.110,-0.110,-0.110,0.000,0.000,0.000
1641234913285387008,2022-01-03-18:35:13,10.1.1.7,150,-0.100,-0.100,-0.100,0.000,0.000,0.000
1641234913488962816,2022-01-03-18:35:13,10.1.1.7,152,-0.090,-0.090,-0.090,0.000,0.000,0.000
1641234913690084096,2022-01-03-18:35:13,10.1.1.7,151,-0.080,-0.080,-0.080,0.000,0.000,0.000
1641234913905873920,2022-01-03-18:35:13,10.1.1.7,163,-0.070,-0.070,-0.070,0.000,0.000,0.000
1641234914115396864,2022-01-03-18:35:14,10.1.1.7,170,-0.060,-0.060,-0.060,0.000,0.000,0.000
1641234914333289984,2022-01-03-18:35:14,10.1.1.7,172,-0.050,-0.050,-0.050,0.000,0.000,0.000
1641234914525208064,2022-01-03-18:35:14,10.1.1.7,154,-0.040,-0.040,-0.040,0.000,0.000,0.000
1641234914724999936,2022-01-03-18:35:14,10.1.1.7,154,-0.030,-0.030,-0.030,0.000,0.000,0.000
1641234914925571840,2022-01-03-18:35:14,10.1.1.7,153,-0.020,-0.020,-0.020,0.000,0.000,0.000
1641234915125422848,2022-01-03-18:35:15,10.1.1.7,151,-0.010,-0.010,-0.010,0.000,0.000,0.000
1641234915329276928,2022-01-03-18:35:15,10.1.1.7,149,0.000,0.000,0.000,0.000,0.000,0.000
1641234915542970880,2022-01-03-18:35:15,10.1.1.7,157,-0.010,-0.010,-0.010,0.000,0.000,0.000
1641234915742803968,2022-01-03-18:35:15,10.1.1.7,154,-0.020,-0.020,-0.020,0.000,0.000,0.000
1641234915943255040,2022-01-03-18:35:15,10.1.1.7,154,-0.030,-0.030,-0.030,0.000,0.000,0.000
1641234916142502144,2022-01-03-18:35:16,10.1.1.7,145,-0.040,-0.040,-0.040,0.000,0.000,0.000
1641234916355158016,2022-01-03-18:35:16,10.1.1.7,157,-0.050,-0.050,-0.050,0.000,0.000,0.000
1641234916545229056,2022-01-03-18:35:16,10.1.1.7,146,-0.060,-0.060,-0.060,0.000,0.000,0.000
1641234916762205952,2022-01-03-18:35:16,10.1.1.7,156,-0.070,-0.070,-0.070,0.000,0.000,0.000
1641234916982331904,2022-01-03-18:35:16,10.1.1.7,146,-0.080,-0.080,-0.080,0.000,0.000,0.000
1641234917186450944,2022-01-03-18:35:17,10.1.1.7,149,-0.090,-0.090,-0.090,0.000,0.000,0.000
1641234917401853184,2022-01-03-18:35:17,10.1.1.7,154,-0.100,-0.100,-0.100,0.000,0.000,0.000
1641234917605799936,2022-01-03-18:35:17,10.1.1.7,150,-0.110,-0.110,-0.110,0.000,0.000,0.000
1641234917802736128,2022-01-03-18:35:17,10.1.1.7,145,-0.120,-0.120,-0.120,0.000,0.000,0.000
1641234918022481920,2022-01-03-18:35:18,10.1.1.7,159,-0.130,-0.130,-0.130,0.000,0.000,0.000
1641234918221371904,2022-01-03-18:35:18,10.1.1.7,157,-0.140,-0.140,-0.140,0.000,0.000,0.000
1641234918421332992,2022-01-03-18:35:18,10.1.1.7,156,-0.150,-0.150,-0.150,0.000,0.000,0.000
1641234918620590848,2022-01-03-18:35:18,10.1.1.7,154,-0.160,-0.160,-0.160,0.000,0.000,0.000
1641234918830126080,2022-01-03-18:35:18,10.1.1.7,163,-0.170,-0.170,-0.170,0.000,0.000,0.000
1641234919030610176,2022-01-03-18:35:19,10.1.1.7,163,-0.180,-0.180,-0.180,0.000,0.000,0.000
1641234919221078016,2022-01-03-18:35:19,10.1.1.7,150,-0.190,-0.190,-0.190,0.000,0.000,0.000
1641234919421530112,2022-01-03-18:35:19,10.1.1.7,150,-0.200,-0.200,-0.200,0.000,0.000,0.000
1641234919645767936,2022-01-03-18:35:19,10.1.1.7,173,-0.210,-0.210,-0.210,0.000,0.000,0.000
1641234919899162112,2022-01-03-18:35:19,10.1.1.7,148,-0.220,-0.220,-0.220,0.000,0.000,0.000
1641234920144764928,2022-01-03-18:35:20,10.1.1.7,162,-0.230,-0.230,-0.230,0.000,0.000,0.000
1641234920338344192,2022-01-03-18:35:20,10.1.1.7,155,-0.240,-0.240,-0.240,0.000,0.000,0.000
1641234920538342912,2022-01-03-18:35:20,10.1.1.7,151,-0.250,-0.250,-0.250,0.000,0.000,0.000
1641234920738521088,2022-01-03-18:35:20,10.1.1.7,149,-0.260,-0.260,-0.260,0.000,0.000,0.000
1641234920937696000,2022-01-03-18:35:20,10.1.1.7,147,-0.270,-0.270,-0.270,0.000,0.000,0.000
1641234921137496832,2022-01-03-18:35:21,10.1.1.7,146,-0.280,-0.280,-0.280,0.000,0.000,0.000
1641234921353998848,2022-01-03-18:35:21,10.1.1.7,160,-0.290,-0.290,-0.290,0.000,0.000,0.000
1641234921537296896,2022-01-03-18:35:21,10.1.1.7,142,-0.300,-0.300,-0.300,0.000,0.000,0.000
1641234921736973056,2022-01-03-18:35:21,10.1.1.7,141,-0.310,-0.310,-0.310,0.000,0.000,0.000
1641234921937572864,2022-01-03-18:35:21,10.1.1.7,139,-0.320,-0.320,-0.320,0.000,0.000,0.000
1641234922158923008,2022-01-03-18:35:22,10.1.1.7,150,-0.330,-0.330,-0.330,0.000,0.000,0.000
1641234922358548992,2022-01-03-18:35:22,10.1.1.7,148,-0.340,-0.340,-0.340,0.000,0.000,0.000
1641234922556807168,2022-01-03-18:35:22,10.1.1.7,140,-0.350,-0.350,-0.350,0.000,0.000,0.000
1641234922756230144,2022-01-03-18:35:22,10.1.1.7,139,-0.360,-0.360,-0.360,0.000,0.000,0.000
1641234922955454208,2022-01-03-18:35:22,10.1.1.7,137,-0.370,-0.370,-0.370,0.000,0.000,0.000
1641234923159350016,2022-01-03-18:35:23,10.1.1.7,140,-0.380,-0.380,-0.380,0.000,0.000,0.000
1641234923356762880,2022-01-03-18:35:23,10.1.1.7,136,-0.390,-0.390,-0.390,0.000,0.000,0.000
1641234923585017088,2022-01-03-18:35:23,10.1.1.7,163,-0.400,-0.400,-0.400,0.000,0.000,0.000
1641234923774828032,2022-01-03-18:35:23,10.1.1.7,151,-0.410,-0.410,-0.410,0.000,0.000,0.000
1641234923974682112,2022-01-03-18:35:23,10.1.1.7,150,-0.420,-0.420,-0.420,0.000,0.000,0.000
1641234924174312960,2022-01-03-18:35:24,10.1.1.7,149,-0.430,-0.430,-0.430,0.000,0.000,0.000
1641234924374774016,2022-01-03-18:35:24,10.1.1.7,142,-0.440,-0.440,-0.440,0.000,0.000,0.000
1641234924573867008,2022-01-03-18:35:24,10.1.1.7,139,-0.450,-0.450,-0.450,0.000,0.000,0.000
1641234924774060032,2022-01-03-18:35:24,10.1.1.7,135,-0.460,-0.460,-0.460,0.000,0.000,0.000
1641234924993184000,2022-01-03-18:35:24,10.1.1.7,150,-0.470,-0.470,-0.470,0.000,0.000,0.000
1641234925193620992,2022-01-03-18:35:25,10.1.1.7,148,-0.480,-0.480,-0.480,0.000,0.000,0.000
1641234925392823808,2022-01-03-18:35:25,10.1.1.7,147,-0.490,-0.490,-0.490,0.000,0.000,0.000
1641234925592592896,2022-01-03-18:35:25,10.1.1.7,146,-0.480,-0.480,-0.480,0.000,0.000,0.000
1641234925834571008,2022-01-03-18:35:25,10.1.1.7,186,-0.470,-0.470,-0.470,0.000,0.000,0.000
1641234926031707904,2022-01-03-18:35:26,10.1.1.7,149,-0.460,-0.460,-0.460,0.000,0.000,0.000
1641234926231939072,2022-01-03-18:35:26,10.1.1.7,141,-0.450,-0.450,-0.450,0.000,0.000,0.000
1641234926435128064,2022-01-03-18:35:26,10.1.1.7,138,-0.440,-0.440,-0.440,0.000,0.000,0.000
1641234926653139968,2022-01-03-18:35:26,10.1.1.7,144,-0.430,-0.430,-0.430,0.000,0.000,0.000
1641234926854924032,2022-01-03-18:35:26,10.1.1.7,144,-0.420,-0.420,-0.420,0.000,0.000,0.000
1641234927113940992,2022-01-03-18:35:27,10.1.1.7,198,-0.410,-0.410,-0.410,0.000,0.000,0.000
1641234927253304832,2022-01-03-18:35:27,10.1.1.7,135,-0.400,-0.400,-0.400,0.000,0.000,0.000
1641234927454240000,2022-01-03-18:35:27,10.1.1.7,136,-0.390,-0.390,-0.390,0.000,0.000,0.000
1641234927650134016,2022-01-03-18:35:27,10.1.1.7,129,-0.380,-0.380,-0.380,0.000,0.000,0.000
1641234927871138048,2022-01-03-18:35:27,10.1.1.7,148,-0.370,-0.370,-0.370,0.000,0.000,0.000
1641234928070621952,2022-01-03-18:35:28,10.1.1.7,143,-0.360,-0.360,-0.360,0.000,0.000,0.000
1641234928310952960,2022-01-03-18:35:28,10.1.1.7,146,-0.350,-0.350,-0.350,0.000,0.000,0.000
1641234928529405184,2022-01-03-18:35:28,10.1.1.7,146,-0.340,-0.340,-0.340,0.000,0.000,0.000
1641234928728956928,2022-01-03-18:35:28,10.1.1.7,144,-0.330,-0.330,-0.330,0.000,0.000,0.000
1641234928965907200,2022-01-03-18:35:28,10.1.1.7,163,-0.320,-0.320,-0.320,0.000,0.000,0.000
1641234929169120000,2022-01-03-18:35:29,10.1.1.7,145,-0.310,-0.310,-0.310,0.000,0.000,0.000
1641234929369213184,2022-01-03-18:35:29,10.1.1.7,143,-0.300,-0.300,-0.300,0.000,0.000,0.000
1641234929568793088,2022-01-03-18:35:29,10.1.1.7,138,-0.290,-0.290,-0.290,0.000,0.000,0.000
1641234929767035904,2022-01-03-18:35:29,10.1.1.7,135,-0.280,-0.280,-0.280,0.000,0.000,0.000
1641234929968360960,2022-01-03-18:35:29,10.1.1.7,134,-0.270,-0.270,-0.270,0.000,0.000,0.000
1641234930166644224,2022-01-03-18:35:30,10.1.1.7,132,-0.260,-0.260,-0.260,0.000,0.000,0.000
1641234930405294848,2022-01-03-18:35:30,10.1.1.7,169,-0.250,-0.250,-0.250,0.000,0.000,0.000
1641234930565805056,2022-01-03-18:35:30,10.1.1.7,128,-0.240,-0.240,-0.240,0.000,0.000,0.000
1641234930765777152,2022-01-03-18:35:30,10.1.1.7,128,-0.230,-0.230,-0.230,0.000,0.000,0.000
1641234930973142016,2022-01-03-18:35:30,10.1.1.7,134,-0.220,-0.220,-0.220,0.000,0.000,0.000
1641234931168706048,2022-01-03-18:35:31,10.1.1.7,129,-0.210,-0.210,-0.210,0.000,0.000,0.000
1641234931365466112,2022-01-03-18:35:31,10.1.1.7,124,-0.200,-0.200,-0.200,0.000,0.000,0.000
1641234931584307968,2022-01-03-18:35:31,10.1.1.7,142,-0.190,-0.190,-0.190,0.000,0.000,0.000
1641234931784286976,2022-01-03-18:35:31,10.1.1.7,141,-0.180,-0.180,-0.180,0.000,0.000,0.000
1641234931983834880,2022-01-03-18:35:31,10.1.1.7,140,-0.170,-0.170,-0.170,0.000,0.000,0.000
1641234932184099840,2022-01-03-18:35:32,10.1.1.7,136,-0.160,-0.160,-0.160,0.000,0.000,0.000
1641234932383354880,2022-01-03-18:35:32,10.1.1.7,134,-0.150,-0.150,-0.150,0.000,0.000,0.000
1641234932584595968,2022-01-03-18:35:32,10.1.1.7,135,-0.140,-0.140,-0.140,0.000,0.000,0.000
1641234932784158976,2022-01-03-18:35:32,10.1.1.7,133,-0.130,-0.130,-0.130,0.000,0.000,0.000
1641234932983091200,2022-01-03-18:35:32,10.1.1.7,125,-0.120,-0.120,-0.120,0.000,0.000,0.000
1641234933184019200,2022-01-03-18:35:33,10.1.1.7,124,-0.110,-0.110,-0.110,0.000,0.000,0.000
1641234933423213056,2022-01-03-18:35:33,10.1.1.7,157,-0.100,-0.100,-0.100,0.000,0.000,0.000
1641234933602243840,2022-01-03-18:35:33,10.1.1.7,135,-0.090,-0.090,-0.090,0.000,0.000,0.000
1641234933872904960,2022-01-03-18:35:33,10.1.1.7,154,-0.080,-0.080,-0.080,0.000,0.000,0.000
1641234934001275136,2022-01-03-18:35:34,10.1.1.7,128,-0.070,-0.070,-0.070,0.000,0.000,0.000
1641234934200990976,2022-01-03-18:35:34,10.1.1.7,126,-0.060,-0.060,-0.060,0.000,0.000,0.000
1641234934400780032,2022-01-03-18:35:34,10.1.1.7,126,-0.050,-0.050,-0.050,0.000,0.000,0.000
1641234934599934208,2022-01-03-18:35:34,10.1.1.7,124,-0.040,-0.040,-0.040,0.000,0.000,0.000
1641234934799808000,2022-01-03-18:35:34,10.1.1.7,121,-0.030,-0.030,-0.030,0.000,0.000,0.000
1641234935054012160,2022-01-03-18:35:35,10.1.1.7,172,-0.020,-0.020,-0.020,0.000,0.000,0.000
1641234935219937024,2022-01-03-18:35:35,10.1.1.7,136,-0.010,-0.010,-0.010,0.000,0.000,0.000
1641234935419020032,2022-01-03-18:35:35,10.1.1.7,133,0.000,0.000,0.000,0.000,0.000,0.000
1641234935619191040,2022-01-03-18:35:35,10.1.1.7,133,-0.010,-0.010,-0.010,0.000,0.000,0.000
1641234935818594048,2022-01-03-18:35:35,10.1.1.7,131,-0.020,-0.020,-0.020,0.000,0.000,0.000
1641234936020124928,2022-01-03-18:35:36,10.1.1.7,131,-0.030,-0.030,-0.030,0.000,0.000,0.000
1641234936218462976,2022-01-03-18:35:36,10.1.1.7,129,-0.040,-0.040,-0.040,0.000,0.000,0.000
1641234936418606080,2022-01-03-18:35:36,10.1.1.7,129,-0.050,-0.050,-0.050,0.000,0.000,0.000
1641234936617469184,2022-01-03-18:35:36,10.1.1.7,127,-0.060,-0.060,-0.060,0.000,0.000,0.000
1641234936817227008,2022-01-03-18:35:36,10.1.1.7,125,-0.070,-0.070,-0.070,0.000,0.000,0.000
1641234937017095168,2022-01-03-18:35:37,10.1.1.7,124,-0.080,-0.080,-0.080,0.000,0.000,0.000
1641234937223608064,2022-01-03-18:35:37,10.1.1.7,129,-0.090,-0.090,-0.090,0.000,0.000,0.000
1641234937436048128,2022-01-03-18:35:37,10.1.1.7,139,-0.100,-0.100,-0.100,0.000,0.000,0.000
1641234937617679104,2022-01-03-18:35:37,10.1.1.7,120,-0.110,-0.110,-0.110,0.000,0.000,0.000
1641234937815821824,2022-01-03-18:35:37,10.1.1.7,117,-0.120,-0.120,-0.120,0.000,0.000,0.000
1641234938020430080,2022-01-03-18:35:38,10.1.1.7,117,-0.130,-0.130,-0.130,0.000,0.000,0.000
1641234938235433984,2022-01-03-18:35:38,10.1.1.7,131,-0.140,-0.140,-0.140,0.000,0.000,0.000
1641234938443033088,2022-01-03-18:35:38,10.1.1.7,137,-0.150,-0.150,-0.150,0.000,0.000,0.000
1641234938634934016,2022-01-03-18:35:38,10.1.1.7,128,-0.160,-0.160,-0.160,0.000,0.000,0.000
1641234938833811968,2022-01-03-18:35:38,10.1.1.7,126,-0.170,-0.170,-0.170,0.000,0.000,0.000
1641234939035495168,2022-01-03-18:35:39,10.1.1.7,127,-0.180,-0.180,-0.180,0.000,0.000,0.000
1641234939235151104,2022-01-03-18:35:39,10.1.1.7,125,-0.190,-0.190,-0.190,0.000,0.000,0.000
1641234939434573056,2022-01-03-18:35:39,10.1.1.7,124,-0.200,-0.200,-0.200,0.000,0.000,0.000
1641234939653124096,2022-01-03-18:35:39,10.1.1.7,129,-0.210,-0.210,-0.210,0.000,0.000,0.000
1641234939852269056,2022-01-03-18:35:39,10.1.1.7,127,-0.220,-0.220,-0.220,0.000,0.000,0.000
1641234940052032000,2022-01-03-18:35:40,10.1.1.7,125,-0.230,-0.230,-0.230,0.000,0.000,0.000
1641234940253844992,2022-01-03-18:35:40,10.1.1.7,124,-0.240,-0.240,-0.240,0.000,0.000,0.000
1641234940454364160,2022-01-03-18:35:40,10.1.1.7,123,-0.250,-0.250,-0.250,0.000,0.000,0.000
1641234940652563200,2022-01-03-18:35:40,10.1.1.7,121,-0.260,-0.260,-0.260,0.000,0.000,0.000
1641234940851860992,2022-01-03-18:35:40,10.1.1.7,119,-0.270,-0.270,-0.270,0.000,0.000,0.000
1641234941050638080,2022-01-03-18:35:41,10.1.1.7,117,-0.280,-0.280,-0.280,0.000,0.000,0.000
1641234941250227968,2022-01-03-18:35:41,10.1.1.7,116,-0.290,-0.290,-0.290,0.000,0.000,0.000
1641234941453291776,2022-01-03-18:35:41,10.1.1.7,118,-0.300,-0.300,-0.300,0.000,0.000,0.000
1641234941670981888,2022-01-03-18:35:41,10.1.1.7,129,-0.310,-0.310,-0.310,0.000,0.000,0.000
1641234941930265856,2022-01-03-18:35:41,10.1.1.7,115,-0.320,-0.320,-0.320,0.000,0.000,0.000
1641234942133393920,2022-01-03-18:35:42,10.1.1.7,117,-0.330,-0.330,-0.330,0.000,0.000,0.000
1641234942335532032,2022-01-03-18:35:42,10.1.1.7,118,-0.340,-0.340,-0.340,0.000,0.000,0.000
1641234942556399104,2022-01-03-18:35:42,10.1.1.7,138,-0.350,-0.350,-0.350,0.000,0.000,0.000
1641234942732526080,2022-01-03-18:35:42,10.1.1.7,113,-0.360,-0.360,-0.360,0.000,0.000,0.000
1641234943014113024,2022-01-03-18:35:43,10.1.1.7,194,-0.370,-0.370,-0.370,0.000,0.000,0.000
1641234943154018048,2022-01-03-18:35:43,10.1.1.7,132,-0.380,-0.380,-0.380,0.000,0.000,0.000
1641234943346893056,2022-01-03-18:35:43,10.1.1.7,125,-0.390,-0.390,-0.390,0.000,0.000,0.000
1641234943547559936,2022-01-03-18:35:43,10.1.1.7,122,-0.400,-0.400,-0.400,0.000,0.000,0.000
1641234943746663936,2022-01-03-18:35:43,10.1.1.7,118,-0.410,-0.410,-0.410,0.000,0.000,0.000
1641234943989865984,2022-01-03-18:35:43,10.1.1.7,160,-0.420,-0.420,-0.420,0.000,0.000,0.000
1641234944166126080,2022-01-03-18:35:44,10.1.1.7,130,-0.430,-0.430,-0.430,0.000,0.000,0.000
1641234944385277952,2022-01-03-18:35:44,10.1.1.7,115,-0.440,-0.440,-0.440,0.000,0.000,0.000
1641234944585392896,2022-01-03-18:35:44,10.1.1.7,115,-0.450,-0.450,-0.450,0.000,0.000,0.000
1641234944785325056,2022-01-03-18:35:44,10.1.1.7,114,-0.460,-0.460,-0.460,0.000,0.000,0.000
1641234944985455104,2022-01-03-18:35:44,10.1.1.7,112,-0.470,-0.470,-0.470,0.000,0.000,0.000
1641234945190176000,2022-01-03-18:35:45,10.1.1.7,116,-0.480,-0.480,-0.480,0.000,0.000,0.000
1641234945383773952,2022-01-03-18:35:45,10.1.1.7,103,-0.490,-0.490,-0.490,0.000,0.000,0.000
1641234945604289024,2022-01-03-18:35:45,10.1.1.7,120,-0.480,-0.480,-0.480,0.000,0.000,0.000
1641234945814169856,2022-01-03-18:35:45,10.1.1.7,129,-0.470,-0.470,-0.470,0.000,0.000,0.000
1641234945888788992,2022-01-03-18:35:45,10.1.1.7,-2,-0.470,-0.470,-0.470,0.000,0.000,0.000
1641234946205445120,2022-01-03-18:35:46,10.1.1.7,117,-0.450,-0.450,-0.450,0.000,0.000,0.000
1641234946519735040,2022-01-03-18:35:46,10.1.1.7,232,-0.440,-0.440,-0.440,0.000,0.000,0.000
1641234946662964224,2022-01-03-18:35:46,10.1.1.7,103,-0.430,-0.430,-0.430,0.000,0.000,0.000
1641234946888356864,2022-01-03-18:35:46,10.1.1.7,121,-0.420,-0.420,-0.420,0.000,0.000,0.000
1641234947108762112,2022-01-03-18:35:47,10.1.1.7,140,-0.410,-0.410,-0.410,0.000,0.000,0.000
1641234947301216000,2022-01-03-18:35:47,10.1.1.7,118,-0.400,-0.400,-0.400,0.000,0.000,0.000
1641234947504664832,2022-01-03-18:35:47,10.1.1.7,119,-0.390,-0.390,-0.390,0.000,0.000,0.000
1641234947749704960,2022-01-03-18:35:47,10.1.1.7,157,-0.380,-0.380,-0.380,0.000,0.000,0.000
1641234947900471040,2022-01-03-18:35:47,10.1.1.7,111,-0.370,-0.370,-0.370,0.000,0.000,0.000
1641234948120563968,2022-01-03-18:35:48,10.1.1.7,113,-0.360,-0.360,-0.360,0.000,0.000,0.000
1641234948321559040,2022-01-03-18:35:48,10.1.1.7,114,-0.350,-0.350,-0.350,0.000,0.000,0.000
1641234948524956928,2022-01-03-18:35:48,10.1.1.7,116,-0.340,-0.340,-0.340,0.000,0.000,0.000
1641234948726907904,2022-01-03-18:35:48,10.1.1.7,117,-0.330,-0.330,-0.330,0.000,0.000,0.000
1641234948966851072,2022-01-03-18:35:48,10.1.1.7,148,-0.320,-0.320,-0.320,0.000,0.000,0.000
1641234949137167872,2022-01-03-18:35:49,10.1.1.7,118,-0.310,-0.310,-0.310,0.000,0.000,0.000
1641234949326926080,2022-01-03-18:35:49,10.1.1.7,107,-0.300,-0.300,-0.300,0.000,0.000,0.000
1641234949529860864,2022-01-03-18:35:49,10.1.1.7,110,-0.290,-0.290,-0.290,0.000,0.000,0.000
1641234949728615936,2022-01-03-18:35:49,10.1.1.7,107,-0.280,-0.280,-0.280,0.000,0.000,0.000
1641234949956267008,2022-01-03-18:35:49,10.1.1.7,133,-0.270,-0.270,-0.270,0.000,0.000,0.000
1641234950193998080,2022-01-03-18:35:50,10.1.1.7,131,-0.260,-0.260,-0.260,0.000,0.000,0.000
1641234950412467968,2022-01-03-18:35:50,10.1.1.7,122,-0.250,-0.250,-0.250,0.000,0.000,0.000
1641234950614810880,2022-01-03-18:35:50,10.1.1.7,123,-0.240,-0.240,-0.240,0.000,0.000,0.000
1641234950820051968,2022-01-03-18:35:50,10.1.1.7,128,-0.230,-0.230,-0.230,0.000,0.000,0.000
1641234951020236032,2022-01-03-18:35:51,10.1.1.7,127,-0.220,-0.220,-0.220,0.000,0.000,0.000
1641234951276174080,2022-01-03-18:35:51,10.1.1.7,123,-0.210,-0.210,-0.210,0.000,0.000,0.000
1641234951497703168,2022-01-03-18:35:51,10.1.1.7,132,-0.200,-0.200,-0.200,0.000,0.000,0.000
1641234951699198976,2022-01-03-18:35:51,10.1.1.7,133,-0.190,-0.190,-0.190,0.000,0.000,0.000
1641234951904129024,2022-01-03-18:35:51,10.1.1.7,138,-0.180,-0.180,-0.180,0.000,0.000,0.000
1641234952108540928,2022-01-03-18:35:52,10.1.1.7,141,-0.170,-0.170,-0.170,0.000,0.000,0.000
1641234952303542016,2022-01-03-18:35:52,10.1.1.7,135,-0.160,-0.160,-0.160,0.000,0.000,0.000
1641234952511403008,2022-01-03-18:35:52,10.1.1.7,141,-0.150,-0.150,-0.150,0.000,0.000,0.000
1641234952705030912,2022-01-03-18:35:52,10.1.1.7,134,-0.140,-0.140,-0.140,0.000,0.000,0.000
1641234952902853120,2022-01-03-18:35:52,10.1.1.7,130,-0.130,-0.130,-0.130,0.000,0.000,0.000
1641234953103369984,2022-01-03-18:35:53,10.1.1.7,130,-0.120,-0.120,-0.120,0.000,0.000,0.000
1641234953304118016,2022-01-03-18:35:53,10.1.1.7,130,-0.110,-0.110,-0.110,0.000,0.000,0.000
1641234953557768192,2022-01-03-18:35:53,10.1.1.7,182,-0.100,-0.100,-0.100,0.000,0.000,0.000
1641234953709728000,2022-01-03-18:35:53,10.1.1.7,133,-0.090,-0.090,-0.090,0.000,0.000,0.000
1641234953909308928,2022-01-03-18:35:53,10.1.1.7,131,-0.080,-0.080,-0.080,0.000,0.000,0.000
1641234954114247936,2022-01-03-18:35:54,10.1.1.7,135,-0.070,-0.070,-0.070,0.000,0.000,0.000
1641234954326888192,2022-01-03-18:35:54,10.1.1.7,144,-0.060,-0.060,-0.060,0.000,0.000,0.000
1641234954528561152,2022-01-03-18:35:54,10.1.1.7,139,-0.050,-0.050,-0.050,0.000,0.000,0.000
1641234954728215808,2022-01-03-18:35:54,10.1.1.7,137,-0.040,-0.040,-0.040,0.000,0.000,0.000
1641234954928406016,2022-01-03-18:35:54,10.1.1.7,136,-0.030,-0.030,-0.030,0.000,0.000,0.000
1641234955130157056,2022-01-03-18:35:55,10.1.1.7,136,-0.020,-0.020,-0.020,0.000,0.000,0.000
1641234955329392896,2022-01-03-18:35:55,10.1.1.7,133,-0.010,-0.010,-0.010,0.000,0.000,0.000
1641234955530168064,2022-01-03-18:35:55,10.1.1.7,133,0.000,0.000,0.000,0.000,0.000,0.000
1641234955737176064,2022-01-03-18:35:55,10.1.1.7,138,-0.010,-0.010,-0.010,0.000,0.000,0.000
1641234955971153920,2022-01-03-18:35:55,10.1.1.7,148,-0.020,-0.020,-0.020,0.000,0.000,0.000
1641234956173475072,2022-01-03-18:35:56,10.1.1.7,150,-0.030,-0.030,-0.030,0.000,0.000,0.000
1641234956373532160,2022-01-03-18:35:56,10.1.1.7,149,-0.040,-0.040,-0.040,0.000,0.000,0.000
1641234956573067008,2022-01-03-18:35:56,10.1.1.7,148,-0.050,-0.050,-0.050,0.000,0.000,0.000
1641234956773310976,2022-01-03-18:35:56,10.1.1.7,147,-0.060,-0.060,-0.060,0.000,0.000,0.000
1641234956974561024,2022-01-03-18:35:56,10.1.1.7,148,-0.070,-0.070,-0.070,0.000,0.000,0.000
1641234957180037120,2022-01-03-18:35:57,10.1.1.7,151,-0.080,-0.080,-0.080,0.000,0.000,0.000
1641234957378065152,2022-01-03-18:35:57,10.1.1.7,149,-0.090,-0.090,-0.090,0.000,0.000,0.000
1641234957605143040,2022-01-03-18:35:57,10.1.1.7,175,-0.100,-0.100,-0.100,0.000,0.000,0.000
1641234957800951040,2022-01-03-18:35:57,10.1.1.7,159,-0.110,-0.110,-0.110,0.000,0.000,0.000
1641234957853438976,2022-01-03-18:35:57,10.1.1.7,-1,-0.110,-0.110,-0.110,0.000,0.000,0.000
1641234958216365056,2022-01-03-18:35:58,10.1.1.7,139,-0.130,-0.130,-0.130,0.000,0.000,0.000
1641234958418211840,2022-01-03-18:35:58,10.1.1.7,139,-0.140,-0.140,-0.140,0.000,0.000,0.000
1641234958618585088,2022-01-03-18:35:58,10.1.1.7,139,-0.150,-0.150,-0.150,0.000,0.000,0.000
1641234958844407040,2022-01-03-18:35:58,10.1.1.7,162,-0.160,-0.160,-0.160,0.000,0.000,0.000
1641234959043256064,2022-01-03-18:35:59,10.1.1.7,161,-0.170,-0.170,-0.170,0.000,0.000,0.000
1641234959239259904,2022-01-03-18:35:59,10.1.1.7,156,-0.180,-0.180,-0.180,0.000,0.000,0.000
1641234959438793984,2022-01-03-18:35:59,10.1.1.7,155,-0.190,-0.190,-0.190,0.000,0.000,0.000
1641234959642816000,2022-01-03-18:35:59,10.1.1.7,157,-0.200,-0.200,-0.200,0.000,0.000,0.000
1641234959840680960,2022-01-03-18:35:59,10.1.1.7,155,-0.210,-0.210,-0.210,0.000,0.000,0.000
1641234960044372992,2022-01-03-18:36:00,10.1.1.7,158,-0.220,-0.220,-0.220,0.000,0.000,0.000
1641234960268385792,2022-01-03-18:36:00,10.1.1.7,182,-0.230,-0.230,-0.230,0.000,0.000,0.000
1641234960447575040,2022-01-03-18:36:00,10.1.1.7,149,-0.240,-0.240,-0.240,0.000,0.000,0.000
1641234960641448960,2022-01-03-18:36:00,10.1.1.7,142,-0.250,-0.250,-0.250,0.000,0.000,0.000
1641234960842488064,2022-01-03-18:36:00,10.1.1.7,142,-0.260,-0.260,-0.260,0.000,0.000,0.000
1641234961105952000,2022-01-03-18:36:01,10.1.1.7,197,-0.270,-0.270,-0.270,0.000,0.000,0.000
1641234961263411968,2022-01-03-18:36:01,10.1.1.7,143,-0.280,-0.280,-0.280,0.000,0.000,0.000
1641234961467001088,2022-01-03-18:36:01,10.1.1.7,146,-0.290,-0.290,-0.290,0.000,0.000,0.000
1641234961680509184,2022-01-03-18:36:01,10.1.1.7,158,-0.300,-0.300,-0.300,0.000,0.000,0.000
1641234961889067776,2022-01-03-18:36:01,10.1.1.7,165,-0.310,-0.310,-0.310,0.000,0.000,0.000
1641234962083810048,2022-01-03-18:36:02,10.1.1.7,157,-0.320,-0.320,-0.320,0.000,0.000,0.000
1641234962283443968,2022-01-03-18:36:02,10.1.1.7,156,-0.330,-0.330,-0.330,0.000,0.000,0.000
1641234962484472064,2022-01-03-18:36:02,10.1.1.7,156,-0.340,-0.340,-0.340,0.000,0.000,0.000
1641234962703640832,2022-01-03-18:36:02,10.1.1.7,158,-0.350,-0.350,-0.350,0.000,0.000,0.000
1641234962905563136,2022-01-03-18:36:02,10.1.1.7,159,-0.360,-0.360,-0.360,0.000,0.000,0.000
1641234963104872960,2022-01-03-18:36:03,10.1.1.7,155,-0.370,-0.370,-0.370,0.000,0.000,0.000
1641234963358323200,2022-01-03-18:36:03,10.1.1.7,192,-0.380,-0.380,-0.380,0.000,0.000,0.000
1641234963524809984,2022-01-03-18:36:03,10.1.1.7,154,-0.390,-0.390,-0.390,0.000,0.000,0.000
1641234963726351104,2022-01-03-18:36:03,10.1.1.7,154,-0.400,-0.400,-0.400,0.000,0.000,0.000
1641234963936887040,2022-01-03-18:36:03,10.1.1.7,158,-0.410,-0.410,-0.410,0.000,0.000,0.000
1641234964130940928,2022-01-03-18:36:04,10.1.1.7,151,-0.420,-0.420,-0.420,0.000,0.000,0.000
1641234964325275904,2022-01-03-18:36:04,10.1.1.7,144,-0.430,-0.430,-0.430,0.000,0.000,0.000
1641234964545752064,2022-01-03-18:36:04,10.1.1.7,164,-0.440,-0.440,-0.440,0.000,0.000,0.000
1641234964746295808,2022-01-03-18:36:04,10.1.1.7,164,-0.450,-0.450,-0.450,0.000,0.000,0.000
1641234964952465920,2022-01-03-18:36:04,10.1.1.7,169,-0.460,-0.460,-0.460,0.000,0.000,0.000
1641234965150350080,2022-01-03-18:36:05,10.1.1.7,166,-0.470,-0.470,-0.470,0.000,0.000,0.000
1641234965353539072,2022-01-03-18:36:05,10.1.1.7,166,-0.480,-0.480,-0.480,0.000,0.000,0.000
1641234965561937152,2022-01-03-18:36:05,10.1.1.7,171,-0.490,-0.490,-0.490,0.000,0.000,0.000
1641234965745788160,2022-01-03-18:36:05,10.1.1.7,152,-0.480,-0.480,-0.480,0.000,0.000,0.000
1641234965949767168,2022-01-03-18:36:05,10.1.1.7,155,-0.470,-0.470,-0.470,0.000,0.000,0.000
1641234966188136192,2022-01-03-18:36:06,10.1.1.7,159,-0.460,-0.460,-0.460,0.000,0.000,0.000
1641234966387692032,2022-01-03-18:36:06,10.1.1.7,147,-0.450,-0.450,-0.450,0.000,0.000,0.000
1641234966586306048,2022-01-03-18:36:06,10.1.1.7,145,-0.440,-0.440,-0.440,0.000,0.000,0.000
1641234966806266112,2022-01-03-18:36:06,10.1.1.7,163,-0.430,-0.430,-0.430,0.000,0.000,0.000
1641234967007062016,2022-01-03-18:36:07,10.1.1.7,163,-0.420,-0.420,-0.420,0.000,0.000,0.000
1641234967233093888,2022-01-03-18:36:07,10.1.1.7,189,-0.410,-0.410,-0.410,0.000,0.000,0.000
1641234967410253056,2022-01-03-18:36:07,10.1.1.7,163,-0.400,-0.400,-0.400,0.000,0.000,0.000
1641234967606806016,2022-01-03-18:36:07,10.1.1.7,158,-0.390,-0.390,-0.390,0.000,0.000,0.000
1641234967811255808,2022-01-03-18:36:07,10.1.1.7,161,-0.380,-0.380,-0.380,0.000,0.000,0.000
1641234968012290048,2022-01-03-18:36:08,10.1.1.7,162,-0.370,-0.370,-0.370,0.000,0.000,0.000
1641234968208493824,2022-01-03-18:36:08,10.1.1.7,156,-0.360,-0.360,-0.360,0.000,0.000,0.000
1641234968409305088,2022-01-03-18:36:08,10.1.1.7,155,-0.350,-0.350,-0.350,0.000,0.000,0.000
1641234968615243008,2022-01-03-18:36:08,10.1.1.7,160,-0.340,-0.340,-0.340,0.000,0.000,0.000
1641234968809686784,2022-01-03-18:36:08,10.1.1.7,151,-0.330,-0.330,-0.330,0.000,0.000,0.000
1641234969027546880,2022-01-03-18:36:09,10.1.1.7,166,-0.320,-0.320,-0.320,0.000,0.000,0.000
1641234969228425984,2022-01-03-18:36:09,10.1.1.7,165,-0.310,-0.310,-0.310,0.000,0.000,0.000
1641234969462295040,2022-01-03-18:36:09,10.1.1.7,199,-0.300,-0.300,-0.300,0.000,0.000,0.000
1641234969627819008,2022-01-03-18:36:09,10.1.1.7,156,-0.290,-0.290,-0.290,0.000,0.000,0.000
1641234969827966976,2022-01-03-18:36:09,10.1.1.7,147,-0.280,-0.280,-0.280,0.000,0.000,0.000
1641234970033241088,2022-01-03-18:36:10,10.1.1.7,152,-0.270,-0.270,-0.270,0.000,0.000,0.000
1641234970260762880,2022-01-03-18:36:10,10.1.1.7,179,-0.260,-0.260,-0.260,0.000,0.000,0.000
1641234970452369920,2022-01-03-18:36:10,10.1.1.7,169,-0.250,-0.250,-0.250,0.000,0.000,0.000
1641234970647226112,2022-01-03-18:36:10,10.1.1.7,162,-0.240,-0.240,-0.240,0.000,0.000,0.000
1641234970847315968,2022-01-03-18:36:10,10.1.1.7,161,-0.230,-0.230,-0.230,0.000,0.000,0.000
1641234971048103936,2022-01-03-18:36:11,10.1.1.7,161,-0.220,-0.220,-0.220,0.000,0.000,0.000
1641234971247319040,2022-01-03-18:36:11,10.1.1.7,160,-0.210,-0.210,-0.210,0.000,0.000,0.000
1641234971447393792,2022-01-03-18:36:11,10.1.1.7,159,-0.200,-0.200,-0.200,0.000,0.000,0.000
1641234971653573888,2022-01-03-18:36:11,10.1.1.7,164,-0.190,-0.190,-0.190,0.000,0.000,0.000
1641234971851640064,2022-01-03-18:36:11,10.1.1.7,152,-0.180,-0.180,-0.180,0.000,0.000,0.000
1641234972049405184,2022-01-03-18:36:12,10.1.1.7,151,-0.170,-0.170,-0.170,0.000,0.000,0.000
1641234972247129088,2022-01-03-18:36:12,10.1.1.7,148,-0.160,-0.160,-0.160,0.000,0.000,0.000
1641234972468133888,2022-01-03-18:36:12,10.1.1.7,159,-0.150,-0.150,-0.150,0.000,0.000,0.000
1641234972670675968,2022-01-03-18:36:12,10.1.1.7,157,-0.140,-0.140,-0.140,0.000,0.000,0.000
1641234972891043840,2022-01-03-18:36:12,10.1.1.7,150,-0.130,-0.130,-0.130,0.000,0.000,0.000
1641234973109478912,2022-01-03-18:36:13,10.1.1.7,167,-0.120,-0.120,-0.120,0.000,0.000,0.000
1641234973307751936,2022-01-03-18:36:13,10.1.1.7,163,-0.110,-0.110,-0.110,0.000,0.000,0.000
1641234973509865984,2022-01-03-18:36:13,10.1.1.7,163,-0.100,-0.100,-0.100,0.000,0.000,0.000
1641234973710659072,2022-01-03-18:36:13,10.1.1.7,164,-0.090,-0.090,-0.090,0.000,0.000,0.000
1641234973938360832,2022-01-03-18:36:13,10.1.1.7,190,-0.080,-0.080,-0.080,0.000,0.000,0.000
1641234974109519104,2022-01-03-18:36:14,10.1.1.7,156,-0.070,-0.070,-0.070,0.000,0.000,0.000
1641234974310537984,2022-01-03-18:36:14,10.1.1.7,155,-0.060,-0.060,-0.060,0.000,0.000,0.000
1641234974507750144,2022-01-03-18:36:14,10.1.1.7,152,-0.050,-0.050,-0.050,0.000,0.000,0.000
1641234974707118080,2022-01-03-18:36:14,10.1.1.7,148,-0.040,-0.040,-0.040,0.000,0.000,0.000
1641234974906961920,2022-01-03-18:36:14,10.1.1.7,147,-0.030,-0.030,-0.030,0.000,0.000,0.000
1641234975110231040,2022-01-03-18:36:15,10.1.1.7,147,-0.020,-0.020,-0.020,0.000,0.000,0.000
1641234975310034944,2022-01-03-18:36:15,10.1.1.7,149,-0.010,-0.010,-0.010,0.000,0.000,0.000
1641234975529244928,2022-01-03-18:36:15,10.1.1.7,166,0.000,0.000,0.000,0.000,0.000,0.000
1641234975733350144,2022-01-03-18:36:15,10.1.1.7,171,-0.010,-0.010,-0.010,0.000,0.000,0.000
1641234975933218048,2022-01-03-18:36:15,10.1.1.7,164,-0.020,-0.020,-0.020,0.000,0.000,0.000
1641234976346611968,2022-01-03-18:36:16,10.1.1.7,157,-0.040,-0.040,-0.040,0.000,0.000,0.000
1641234976544965120,2022-01-03-18:36:16,10.1.1.7,154,-0.050,-0.050,-0.050,0.000,0.000,0.000
1641234976760107008,2022-01-03-18:36:16,10.1.1.7,169,-0.060,-0.060,-0.060,0.000,0.000,0.000
1641234976946607104,2022-01-03-18:36:16,10.1.1.7,153,-0.070,-0.070,-0.070,0.000,0.000,0.000
1641234977145370880,2022-01-03-18:36:17,10.1.1.7,151,-0.080,-0.080,-0.080,0.000,0.000,0.000
1641234977377213952,2022-01-03-18:36:17,10.1.1.7,157,-0.090,-0.090,-0.090,0.000,0.000,0.000
1641234977566929152,2022-01-03-18:36:17,10.1.1.7,150,-0.100,-0.100,-0.100,0.000,0.000,0.000
1641234977767183104,2022-01-03-18:36:17,10.1.1.7,149,-0.110,-0.110,-0.110,0.000,0.000,0.000
1641234977967761920,2022-01-03-18:36:17,10.1.1.7,149,-0.120,-0.120,-0.120,0.000,0.000,0.000
1641234978167355904,2022-01-03-18:36:18,10.1.1.7,148,-0.130,-0.130,-0.130,0.000,0.000,0.000
1641234978391525120,2022-01-03-18:36:18,10.1.1.7,171,-0.140,-0.140,-0.140,0.000,0.000,0.000
1641234978586265088,2022-01-03-18:36:18,10.1.1.7,164,-0.150,-0.150,-0.150,0.000,0.000,0.000
1641234978804184832,2022-01-03-18:36:18,10.1.1.7,158,-0.160,-0.160,-0.160,0.000,0.000,0.000
1641234979005181952,2022-01-03-18:36:19,10.1.1.7,158,-0.170,-0.170,-0.170,0.000,0.000,0.000
1641234979204078848,2022-01-03-18:36:19,10.1.1.7,156,-0.180,-0.180,-0.180,0.000,0.000,0.000
1641234979404516864,2022-01-03-18:36:19,10.1.1.7,153,-0.190,-0.190,-0.190,0.000,0.000,0.000
1641234979652502016,2022-01-03-18:36:19,10.1.1.7,184,-0.200,-0.200,-0.200,0.000,0.000,0.000
1641234979827325184,2022-01-03-18:36:19,10.1.1.7,156,-0.210,-0.210,-0.210,0.000,0.000,0.000
1641234980027086080,2022-01-03-18:36:20,10.1.1.7,155,-0.220,-0.220,-0.220,0.000,0.000,0.000
1641234980223838208,2022-01-03-18:36:20,10.1.1.7,151,-0.230,-0.230,-0.230,0.000,0.000,0.000
1641234980424446976,2022-01-03-18:36:20,10.1.1.7,148,-0.240,-0.240,-0.240,0.000,0.000,0.000
1641234980623934976,2022-01-03-18:36:20,10.1.1.7,148,-0.250,-0.250,-0.250,0.000,0.000,0.000
1641234980843347968,2022-01-03-18:36:20,10.1.1.7,146,-0.260,-0.260,-0.260,0.000,0.000,0.000
1641234981078430976,2022-01-03-18:36:21,10.1.1.7,148,-0.270,-0.270,-0.270,0.000,0.000,0.000
1641234981281927936,2022-01-03-18:36:21,10.1.1.7,150,-0.280,-0.280,-0.280,0.000,0.000,0.000
1641234981508608000,2022-01-03-18:36:21,10.1.1.7,174,-0.290,-0.290,-0.290,0.000,0.000,0.000
1641234981702106880,2022-01-03-18:36:21,10.1.1.7,167,-0.300,-0.300,-0.300,0.000,0.000,0.000
1641234981905790976,2022-01-03-18:36:21,10.1.1.7,170,-0.310,-0.310,-0.310,0.000,0.000,0.000
1641234982083091968,2022-01-03-18:36:22,10.1.1.7,147,-0.320,-0.320,-0.320,0.000,0.000,0.000
1641234982283382016,2022-01-03-18:36:22,10.1.1.7,145,-0.330,-0.330,-0.330,0.000,0.000,0.000
1641234982481916928,2022-01-03-18:36:22,10.1.1.7,141,-0.340,-0.340,-0.340,0.000,0.000,0.000
1641234982710906112,2022-01-03-18:36:22,10.1.1.7,163,-0.350,-0.350,-0.350,0.000,0.000,0.000
1641234982901561088,2022-01-03-18:36:22,10.1.1.7,158,-0.360,-0.360,-0.360,0.000,0.000,0.000
1641234983102392064,2022-01-03-18:36:23,10.1.1.7,144,-0.370,-0.370,-0.370,0.000,0.000,0.000
1641234983300751872,2022-01-03-18:36:23,10.1.1.7,141,-0.380,-0.380,-0.380,0.000,0.000,0.000
1641234983500829952,2022-01-03-18:36:23,10.1.1.7,139,-0.390,-0.390,-0.390,0.000,0.000,0.000
1641234983722266880,2022-01-03-18:36:23,10.1.1.7,158,-0.400,-0.400,-0.400,0.000,0.000,0.000
1641234983921740032,2022-01-03-18:36:23,10.1.1.7,156,-0.410,-0.410,-0.410,0.000,0.000,0.000
1641234984158579200,2022-01-03-18:36:24,10.1.1.7,191,-0.420,-0.420,-0.420,0.000,0.000,0.000
1641234984319416064,2022-01-03-18:36:24,10.1.1.7,147,-0.430,-0.430,-0.430,0.000,0.000,0.000
1641234984520685056,2022-01-03-18:36:24,10.1.1.7,147,-0.440,-0.440,-0.440,0.000,0.000,0.000
1641234984723012864,2022-01-03-18:36:24,10.1.1.7,149,-0.450,-0.450,-0.450,0.000,0.000,0.000
1641234984925018112,2022-01-03-18:36:24,10.1.1.7,149,-0.460,-0.460,-0.460,0.000,0.000,0.000
1641234985119968768,2022-01-03-18:36:25,10.1.1.7,142,-0.470,-0.470,-0.470,0.000,0.000,0.000
1641234985339179008,2022-01-03-18:36:25,10.1.1.7,143,-0.480,-0.480,-0.480,0.000,0.000,0.000
1641234985541591040,2022-01-03-18:36:25,10.1.1.7,142,-0.490,-0.490,-0.490,0.000,0.000,0.000
1641234985738344960,2022-01-03-18:36:25,10.1.1.7,138,-0.480,-0.480,-0.480,0.000,0.000,0.000
1641234985962014976,2022-01-03-18:36:25,10.1.1.7,156,-0.470,-0.470,-0.470,0.000,0.000,0.000
1641234986157788928,2022-01-03-18:36:26,10.1.1.7,145,-0.460,-0.460,-0.460,0.000,0.000,0.000
1641234986558007040,2022-01-03-18:36:26,10.1.1.7,144,-0.440,-0.440,-0.440,0.000,0.000,0.000
1641234986757576960,2022-01-03-18:36:26,10.1.1.7,143,-0.430,-0.430,-0.430,0.000,0.000,0.000
1641234986978313984,2022-01-03-18:36:26,10.1.1.7,162,-0.420,-0.420,-0.420,0.000,0.000,0.000
1641234987156358912,2022-01-03-18:36:27,10.1.1.7,139,-0.410,-0.410,-0.410,0.000,0.000,0.000
1641234987369277952,2022-01-03-18:36:27,10.1.1.7,151,-0.400,-0.400,-0.400,0.000,0.000,0.000
1641234987556890112,2022-01-03-18:36:27,10.1.1.7,138,-0.390,-0.390,-0.390,0.000,0.000,0.000
1641234987756780032,2022-01-03-18:36:27,10.1.1.7,137,-0.380,-0.380,-0.380,0.000,0.000,0.000
1641234987956340992,2022-01-03-18:36:27,10.1.1.7,135,-0.370,-0.370,-0.370,0.000,0.000,0.000
1641234988182977792,2022-01-03-18:36:28,10.1.1.7,161,-0.360,-0.360,-0.360,0.000,0.000,0.000
1641234988375233024,2022-01-03-18:36:28,10.1.1.7,138,-0.350,-0.350,-0.350,0.000,0.000,0.000
1641234988574473984,2022-01-03-18:36:28,10.1.1.7,136,-0.340,-0.340,-0.340,0.000,0.000,0.000
1641234988802252032,2022-01-03-18:36:28,10.1.1.7,160,-0.330,-0.330,-0.330,0.000,0.000,0.000
1641234988997957888,2022-01-03-18:36:28,10.1.1.7,152,-0.320,-0.320,-0.320,0.000,0.000,0.000
1641234989193715968,2022-01-03-18:36:29,10.1.1.7,151,-0.310,-0.310,-0.310,0.000,0.000,0.000
1641234989393382144,2022-01-03-18:36:29,10.1.1.7,150,-0.300,-0.300,-0.300,0.000,0.000,0.000
1641234989594788096,2022-01-03-18:36:29,10.1.1.7,150,-0.290,-0.290,-0.290,0.000,0.000,0.000
1641234989871072000,2022-01-03-18:36:29,10.1.1.7,225,-0.280,-0.280,-0.280,0.000,0.000,0.000
1641234990034754048,2022-01-03-18:36:30,10.1.1.7,141,-0.270,-0.270,-0.270,0.000,0.000,0.000
1641234990252381952,2022-01-03-18:36:30,10.1.1.7,157,-0.260,-0.260,-0.260,0.000,0.000,0.000
1641234990432504832,2022-01-03-18:36:30,10.1.1.7,137,-0.250,-0.250,-0.250,0.000,0.000,0.000
1641234990632244992,2022-01-03-18:36:30,10.1.1.7,135,-0.240,-0.240,-0.240,0.000,0.000,0.000
1641234990835431168,2022-01-03-18:36:30,10.1.1.7,138,-0.230,-0.230,-0.230,0.000,0.000,0.000
1641234991052655872,2022-01-03-18:36:31,10.1.1.7,149,-0.220,-0.220,-0.220,0.000,0.000,0.000
1641234991252295936,2022-01-03-18:36:31,10.1.1.7,148,-0.210,-0.210,-0.210,0.000,0.000,0.000
1641234991451965184,2022-01-03-18:36:31,10.1.1.7,147,-0.200,-0.200,-0.200,0.000,0.000,0.000
1641234991651462912,2022-01-03-18:36:31,10.1.1.7,146,-0.190,-0.190,-0.190,0.000,0.000,0.000
1641234991856598016,2022-01-03-18:36:31,10.1.1.7,148,-0.180,-0.180,-0.180,0.000,0.000,0.000
1641234992099020032,2022-01-03-18:36:32,10.1.1.7,189,-0.170,-0.170,-0.170,0.000,0.000,0.000
1641234992254545920,2022-01-03-18:36:32,10.1.1.7,146,-0.160,-0.160,-0.160,0.000,0.000,0.000
1641234992452653056,2022-01-03-18:36:32,10.1.1.7,144,-0.150,-0.150,-0.150,0.000,0.000,0.000
1641234992649581056,2022-01-03-18:36:32,10.1.1.7,140,-0.140,-0.140,-0.140,0.000,0.000,0.000
1641234992850915840,2022-01-03-18:36:32,10.1.1.7,138,-0.130,-0.130,-0.130,0.000,0.000,0.000
1641234993049641984,2022-01-03-18:36:33,10.1.1.7,135,-0.120,-0.120,-0.120,0.000,0.000,0.000
1641234993329408000,2022-01-03-18:36:33,10.1.1.7,136,-0.110,-0.110,-0.110,0.000,0.000,0.000
1641234993529650944,2022-01-03-18:36:33,10.1.1.7,135,-0.100,-0.100,-0.100,0.000,0.000,0.000
1641234993732407040,2022-01-03-18:36:33,10.1.1.7,137,-0.090,-0.090,-0.090,0.000,0.000,0.000
1641234993927303936,2022-01-03-18:36:33,10.1.1.7,132,-0.080,-0.080,-0.080,0.000,0.000,0.000
1641234994128217856,2022-01-03-18:36:34,10.1.1.7,132,-0.070,-0.070,-0.070,0.000,0.000,0.000
1641234994371848192,2022-01-03-18:36:34,10.1.1.7,151,-0.060,-0.060,-0.060,0.000,0.000,0.000
1641234994546539008,2022-01-03-18:36:34,10.1.1.7,137,-0.050,-0.050,-0.050,0.000,0.000,0.000
1641234994746607104,2022-01-03-18:36:34,10.1.1.7,136,-0.040,-0.040,-0.040,0.000,0.000,0.000
1641234994950377984,2022-01-03-18:36:34,10.1.1.7,140,-0.030,-0.030,-0.030,0.000,0.000,0.000
1641234995146145024,2022-01-03-18:36:35,10.1.1.7,134,-0.020,-0.020,-0.020,0.000,0.000,0.000
1641234995345426944,2022-01-03-18:36:35,10.1.1.7,132,-0.010,-0.010,-0.010,0.000,0.000,0.000
1641234995545464064,2022-01-03-18:36:35,10.1.1.7,131,0.000,0.000,0.000,0.000,0.000,0.000
1641234995745195008,2022-01-03-18:36:35,10.1.1.7,128,-0.010,-0.010,-0.010,0.000,0.000,0.000
1641234995944848896,2022-01-03-18:36:35,10.1.1.7,127,-0.020,-0.020,-0.020,0.000,0.000,0.000
1641234996164624896,2022-01-03-18:36:36,10.1.1.7,146,-0.030,-0.030,-0.030,0.000,0.000,0.000
1641234996344336896,2022-01-03-18:36:36,10.1.1.7,125,-0.040,-0.040,-0.040,0.000,0.000,0.000
1641234996551170048,2022-01-03-18:36:36,10.1.1.7,131,-0.050,-0.050,-0.050,0.000,0.000,0.000
1641234996785157888,2022-01-03-18:36:36,10.1.1.7,131,-0.060,-0.060,-0.060,0.000,0.000,0.000
1641234996985392128,2022-01-03-18:36:36,10.1.1.7,130,-0.070,-0.070,-0.070,0.000,0.000,0.000
1641234997185864960,2022-01-03-18:36:37,10.1.1.7,130,-0.080,-0.080,-0.080,0.000,0.000,0.000
1641234997384288000,2022-01-03-18:36:37,10.1.1.7,125,-0.090,-0.090,-0.090,0.000,0.000,0.000
1641234997582827008,2022-01-03-18:36:37,10.1.1.7,123,-0.100,-0.100,-0.100,0.000,0.000,0.000
1641234997802797056,2022-01-03-18:36:37,10.1.1.7,141,-0.110,-0.110,-0.110,0.000,0.000,0.000
1641234998002227968,2022-01-03-18:36:38,10.1.1.7,140,-0.120,-0.120,-0.120,0.000,0.000,0.000
1641234998202324992,2022-01-03-18:36:38,10.1.1.7,139,-0.130,-0.130,-0.130,0.000,0.000,0.000
1641234998402146048,2022-01-03-18:36:38,10.1.1.7,138,-0.140,-0.140,-0.140,0.000,0.000,0.000
1641234998603224064,2022-01-03-18:36:38,10.1.1.7,137,-0.150,-0.150,-0.150,0.000,0.000,0.000
1641234998814899968,2022-01-03-18:36:38,10.1.1.7,143,-0.160,-0.160,-0.160,0.000,0.000,0.000
1641234999001465088,2022-01-03-18:36:39,10.1.1.7,134,-0.170,-0.170,-0.170,0.000,0.000,0.000
1641234999200727040,2022-01-03-18:36:39,10.1.1.7,132,-0.180,-0.180,-0.180,0.000,0.000,0.000
1641234999400999936,2022-01-03-18:36:39,10.1.1.7,132,-0.190,-0.190,-0.190,0.000,0.000,0.000
1641234999606002176,2022-01-03-18:36:39,10.1.1.7,136,-0.200,-0.200,-0.200,0.000,0.000,0.000
1641234999802867968,2022-01-03-18:36:39,10.1.1.7,132,-0.210,-0.210,-0.210,0.000,0.000,0.000
1641234999999363072,2022-01-03-18:36:39,10.1.1.7,127,-0.220,-0.220,-0.220,0.000,0.000,0.000
1641235000198676992,2022-01-03-18:36:40,10.1.1.7,125,-0.230,-0.230,-0.230,0.000,0.000,0.000
1641235000399746048,2022-01-03-18:36:40,10.1.1.7,126,-0.240,-0.240,-0.240,0.000,0.000,0.000
1641235000598560000,2022-01-03-18:36:40,10.1.1.7,124,-0.250,-0.250,-0.250,0.000,0.000,0.000
1641235000798216960,2022-01-03-18:36:40,10.1.1.7,123,-0.260,-0.260,-0.260,0.000,0.000,0.000
1641235000998449920,2022-01-03-18:36:40,10.1.1.7,123,-0.270,-0.270,-0.270,0.000,0.000,0.000
1641235001198769152,2022-01-03-18:36:41,10.1.1.7,121,-0.280,-0.280,-0.280,0.000,0.000,0.000
1641235001396951808,2022-01-03-18:36:41,10.1.1.7,118,-0.290,-0.290,-0.290,0.000,0.000,0.000
1641235001596620032,2022-01-03-18:36:41,10.1.1.7,117,-0.300,-0.300,-0.300,0.000,0.000,0.000
1641235001797816064,2022-01-03-18:36:41,10.1.1.7,117,-0.310,-0.310,-0.310,0.000,0.000,0.000
1641235001996534016,2022-01-03-18:36:41,10.1.1.7,116,-0.320,-0.320,-0.320,0.000,0.000,0.000
1641235002236707072,2022-01-03-18:36:42,10.1.1.7,134,-0.330,-0.330,-0.330,0.000,0.000,0.000
1641235002436542976,2022-01-03-18:36:42,10.1.1.7,133,-0.340,-0.340,-0.340,0.000,0.000,0.000
1641235002636774912,2022-01-03-18:36:42,10.1.1.7,132,-0.350,-0.350,-0.350,0.000,0.000,0.000
1641235002835372800,2022-01-03-18:36:42,10.1.1.7,130,-0.360,-0.360,-0.360,0.000,0.000,0.000
1641235003034488832,2022-01-03-18:36:43,10.1.1.7,128,-0.370,-0.370,-0.370,0.000,0.000,0.000
1641235003286022912,2022-01-03-18:36:43,10.1.1.7,179,-0.380,-0.380,-0.380,0.000,0.000,0.000
1641235003474291968,2022-01-03-18:36:43,10.1.1.7,131,-0.390,-0.390,-0.390,0.000,0.000,0.000
1641235003674074880,2022-01-03-18:36:43,10.1.1.7,131,-0.400,-0.400,-0.400,0.000,0.000,0.000
1641235003873719808,2022-01-03-18:36:43,10.1.1.7,129,-0.410,-0.410,-0.410,0.000,0.000,0.000
1641235004086713088,2022-01-03-18:36:44,10.1.1.7,137,-0.420,-0.420,-0.420,0.000,0.000,0.000
1641235004272553984,2022-01-03-18:36:44,10.1.1.7,127,-0.430,-0.430,-0.430,0.000,0.000,0.000
1641235004484793856,2022-01-03-18:36:44,10.1.1.7,138,-0.440,-0.440,-0.440,0.000,0.000,0.000
1641235004672392960,2022-01-03-18:36:44,10.1.1.7,125,-0.450,-0.450,-0.450,0.000,0.000,0.000
1641235004873603072,2022-01-03-18:36:44,10.1.1.7,125,-0.460,-0.460,-0.460,0.000,0.000,0.000
1641235005072096000,2022-01-03-18:36:45,10.1.1.7,123,-0.470,-0.470,-0.470,0.000,0.000,0.000
1641235005273936128,2022-01-03-18:36:45,10.1.1.7,124,-0.480,-0.480,-0.480,0.000,0.000,0.000
1641235005471421952,2022-01-03-18:36:45,10.1.1.7,120,-0.490,-0.490,-0.490,0.000,0.000,0.000
1641235005719120896,2022-01-03-18:36:45,10.1.1.7,167,-0.480,-0.480,-0.480,0.000,0.000,0.000
1641235005870446080,2022-01-03-18:36:45,10.1.1.7,115,-0.470,-0.470,-0.470,0.000,0.000,0.000
1641235006070866176,2022-01-03-18:36:46,10.1.1.7,111,-0.460,-0.460,-0.460,0.000,0.000,0.000
1641235006271665152,2022-01-03-18:36:46,10.1.1.7,110,-0.450,-0.450,-0.450,0.000,0.000,0.000
1641235006490514944,2022-01-03-18:36:46,10.1.1.7,123,-0.440,-0.440,-0.440,0.000,0.000,0.000
1641235006690643968,2022-01-03-18:36:46,10.1.1.7,118,-0.430,-0.430,-0.430,0.000,0.000,0.000
1641235006888787968,2022-01-03-18:36:46,10.1.1.7,115,-0.420,-0.420,-0.420,0.000,0.000,0.000
1641235007088734976,2022-01-03-18:36:47,10.1.1.7,115,-0.410,-0.410,-0.410,0.000,0.000,0.000
1641235007287863040,2022-01-03-18:36:47,10.1.1.7,112,-0.400,-0.400,-0.400,0.000,0.000,0.000
1641235007491100928,2022-01-03-18:36:47,10.1.1.7,115,-0.390,-0.390,-0.390,0.000,0.000,0.000
1641235007688249088,2022-01-03-18:36:47,10.1.1.7,111,-0.380,-0.380,-0.380,0.000,0.000,0.000
1641235007911731968,2022-01-03-18:36:47,10.1.1.7,127,-0.370,-0.370,-0.370,0.000,0.000,0.000
1641235008107232000,2022-01-03-18:36:48,10.1.1.7,117,-0.360,-0.360,-0.360,0.000,0.000,0.000
1641235008306364928,2022-01-03-18:36:48,10.1.1.7,115,-0.350,-0.350,-0.350,0.000,0.000,0.000
1641235008506198016,2022-01-03-18:36:48,10.1.1.7,107,-0.340,-0.340,-0.340,0.000,0.000,0.000
1641235008705501184,2022-01-03-18:36:48,10.1.1.7,105,-0.330,-0.330,-0.330,0.000,0.000,0.000
1641235008905588992,2022-01-03-18:36:48,10.1.1.7,104,-0.320,-0.320,-0.320,0.000,0.000,0.000
1641235009125108992,2022-01-03-18:36:49,10.1.1.7,117,-0.310,-0.310,-0.310,0.000,0.000,0.000
1641235009325344000,2022-01-03-18:36:49,10.1.1.7,117,-0.300,-0.300,-0.300,0.000,0.000,0.000
1641235009525230848,2022-01-03-18:36:49,10.1.1.7,116,-0.290,-0.290,-0.290,0.000,0.000,0.000
1641235009724222976,2022-01-03-18:36:49,10.1.1.7,113,-0.280,-0.280,-0.280,0.000,0.000,0.000
1641235009926131968,2022-01-03-18:36:49,10.1.1.7,115,-0.270,-0.270,-0.270,0.000,0.000,0.000
1641235010126306048,2022-01-03-18:36:50,10.1.1.7,114,-0.260,-0.260,-0.260,0.000,0.000,0.000
1641235010323097088,2022-01-03-18:36:50,10.1.1.7,110,-0.250,-0.250,-0.250,0.000,0.000,0.000
1641235010523257088,2022-01-03-18:36:50,10.1.1.7,110,-0.240,-0.240,-0.240,0.000,0.000,0.000
1641235010723028992,2022-01-03-18:36:50,10.1.1.7,109,-0.230,-0.230,-0.230,0.000,0.000,0.000
1641235010923741952,2022-01-03-18:36:50,10.1.1.7,108,-0.220,-0.220,-0.220,0.000,0.000,0.000
1641235011122041088,2022-01-03-18:36:51,10.1.1.7,106,-0.210,-0.210,-0.210,0.000,0.000,0.000
1641235011341947136,2022-01-03-18:36:51,10.1.1.7,118,-0.200,-0.200,-0.200,0.000,0.000,0.000
1641235011562188032,2022-01-03-18:36:51,10.1.1.7,126,-0.190,-0.190,-0.190,0.000,0.000,0.000
1641235011745234944,2022-01-03-18:36:51,10.1.1.7,108,-0.180,-0.180,-0.180,0.000,0.000,0.000
1641235011940896000,2022-01-03-18:36:51,10.1.1.7,103,-0.170,-0.170,-0.170,0.000,0.000,0.000
1641235012161043968,2022-01-03-18:36:52,10.1.1.7,122,-0.160,-0.160,-0.160,0.000,0.000,0.000
1641235012344777984,2022-01-03-18:36:52,10.1.1.7,105,-0.150,-0.150,-0.150,0.000,0.000,0.000
1641235012570710016,2022-01-03-18:36:52,10.1.1.7,116,-0.140,-0.140,-0.140,0.000,0.000,0.000
1641235012759848192,2022-01-03-18:36:52,10.1.1.7,103,-0.130,-0.130,-0.130,0.000,0.000,0.000
1641235012959057152,2022-01-03-18:36:52,10.1.1.7,102,-0.120,-0.120,-0.120,0.000,0.000,0.000
1641235013162043136,2022-01-03-18:36:53,10.1.1.7,104,-0.110,-0.110,-0.110,0.000,0.000,0.000
1641235013381318144,2022-01-03-18:36:53,10.1.1.7,116,-0.100,-0.100,-0.100,0.000,0.000,0.000
1641235013804456960,2022-01-03-18:36:53,10.1.1.7,113,-0.080,-0.080,-0.080,0.000,0.000,0.000
1641235014003900160,2022-01-03-18:36:54,10.1.1.7,110,-0.070,-0.070,-0.070,0.000,0.000,0.000
1641235014205584128,2022-01-03-18:36:54,10.1.1.7,111,-0.060,-0.060,-0.060,0.000,0.000,0.000
1641235014406574080,2022-01-03-18:36:54,10.1.1.7,110,-0.050,-0.050,-0.050,0.000,0.000,0.000
1641235014608303104,2022-01-03-18:36:54,10.1.1.7,112,-0.040,-0.040,-0.040,0.000,0.000,0.000
1641235014850057984,2022-01-03-18:36:54,10.1.1.7,148,-0.030,-0.030,-0.030,0.000,0.000,0.000
1641235015029892864,2022-01-03-18:36:55,10.1.1.7,128,-0.020,-0.020,-0.020,0.000,0.000,0.000
1641235015231235072,2022-01-03-18:36:55,10.1.1.7,128,-0.010,-0.010,-0.010,0.000,0.000,0.000
1641235015431208960,2022-01-03-18:36:55,10.1.1.7,127,0.000,0.000,0.000,0.000,0.000,0.000
1641235015632280064,2022-01-03-18:36:55,10.1.1.7,127,-0.010,-0.010,-0.010,0.000,0.000,0.000
1641235015833015808,2022-01-03-18:36:55,10.1.1.7,120,-0.020,-0.020,-0.020,0.000,0.000,0.000
1641235016033824000,2022-01-03-18:36:56,10.1.1.7,119,-0.030,-0.030,-0.030,0.000,0.000,0.000
1641235016234396928,2022-01-03-18:36:56,10.1.1.7,117,-0.040,-0.040,-0.040,0.000,0.000,0.000
1641235016435458048,2022-01-03-18:36:56,10.1.1.7,116,-0.050,-0.050,-0.050,0.000,0.000,0.000
1641235016636450048,2022-01-03-18:36:56,10.1.1.7,117,-0.060,-0.060,-0.060,0.000,0.000,0.000
1641235016836992000,2022-01-03-18:36:56,10.1.1.7,116,-0.070,-0.070,-0.070,0.000,0.000,0.000
1641235017117675008,2022-01-03-18:36:57,10.1.1.7,196,-0.080,-0.080,-0.080,0.000,0.000,0.000
1641235017278970880,2022-01-03-18:36:57,10.1.1.7,133,-0.090,-0.090,-0.090,0.000,0.000,0.000
1641235017479137792,2022-01-03-18:36:57,10.1.1.7,132,-0.100,-0.100,-0.100,0.000,0.000,0.000
1641235017680944896,2022-01-03-18:36:57,10.1.1.7,133,-0.110,-0.110,-0.110,0.000,0.000,0.000
1641235017881809920,2022-01-03-18:36:57,10.1.1.7,134,-0.120,-0.120,-0.120,0.000,0.000,0.000
1641235018081864192,2022-01-03-18:36:58,10.1.1.7,133,-0.130,-0.130,-0.130,0.000,0.000,0.000
1641235018288443136,2022-01-03-18:36:58,10.1.1.7,130,-0.140,-0.140,-0.140,0.000,0.000,0.000
1641235018483853056,2022-01-03-18:36:58,10.1.1.7,124,-0.150,-0.150,-0.150,0.000,0.000,0.000
1641235018687038976,2022-01-03-18:36:58,10.1.1.7,126,-0.160,-0.160,-0.160,0.000,0.000,0.000
1641235018913739008,2022-01-03-18:36:58,10.1.1.7,151,-0.170,-0.170,-0.170,0.000,0.000,0.000
1641235019104898816,2022-01-03-18:36:59,10.1.1.7,142,-0.180,-0.180,-0.180,0.000,0.000,0.000
1641235019526049024,2022-01-03-18:36:59,10.1.1.7,141,-0.200,-0.200,-0.200,0.000,0.000,0.000
1641235019727128064,2022-01-03-18:36:59,10.1.1.7,141,-0.210,-0.210,-0.210,0.000,0.000,0.000
1641235019927982080,2022-01-03-18:36:59,10.1.1.7,141,-0.220,-0.220,-0.220,0.000,0.000,0.000
1641235020129678848,2022-01-03-18:37:00,10.1.1.7,142,-0.230,-0.230,-0.230,0.000,0.000,0.000
1641235020328685056,2022-01-03-18:37:00,10.1.1.7,136,-0.240,-0.240,-0.240,0.000,0.000,0.000
1641235020529010944,2022-01-03-18:37:00,10.1.1.7,136,-0.250,-0.250,-0.250,0.000,0.000,0.000
1641235020729667072,2022-01-03-18:37:00,10.1.1.7,135,-0.260,-0.260,-0.260,0.000,0.000,0.000
1641235020930063104,2022-01-03-18:37:00,10.1.1.7,135,-0.270,-0.270,-0.270,0.000,0.000,0.000
1641235021130654976,2022-01-03-18:37:01,10.1.1.7,135,-0.280,-0.280,-0.280,0.000,0.000,0.000
1641235021331758848,2022-01-03-18:37:01,10.1.1.7,136,-0.290,-0.290,-0.290,0.000,0.000,0.000
1641235021533460992,2022-01-03-18:37:01,10.1.1.7,137,-0.300,-0.300,-0.300,0.000,0.000,0.000
1641235021753715968,2022-01-03-18:37:01,10.1.1.7,148,-0.310,-0.310,-0.310,0.000,0.000,0.000
1641235021953413120,2022-01-03-18:37:01,10.1.1.7,145,-0.320,-0.320,-0.320,0.000,0.000,0.000
1641235022153438208,2022-01-03-18:37:02,10.1.1.7,144,-0.330,-0.330,-0.330,0.000,0.000,0.000
1641235022358181888,2022-01-03-18:37:02,10.1.1.7,148,-0.340,-0.340,-0.340,0.000,0.000,0.000
1641235022574164992,2022-01-03-18:37:02,10.1.1.7,140,-0.350,-0.350,-0.350,0.000,0.000,0.000
1641235022774594048,2022-01-03-18:37:02,10.1.1.7,140,-0.360,-0.360,-0.360,0.000,0.000,0.000
