FedericoMungari/DigitalTwin_service/01_WiredScenario/Output/Output_script/script_rosapi_2_output_robots8_freq0_5.txt
timestamp,date,node,latency,joint_1,joint_2,joint_3,joint_4,joint_5,joint_6
1641102612552873984,2022-01-02-05:50:12,10.1.1.6,170,-0.010,-0.010,-0.010,0.000,0.000,0.000
1641102612752641024,2022-01-02-05:50:12,10.1.1.6,167,-0.020,-0.020,-0.020,0.000,0.000,0.000
1641102612972507904,2022-01-02-05:50:12,10.1.1.6,185,-0.030,-0.030,-0.030,0.000,0.000,0.000
1641102613174782976,2022-01-02-05:50:13,10.1.1.6,186,-0.040,-0.040,-0.040,0.000,0.000,0.000
1641102613371387904,2022-01-02-05:50:13,10.1.1.6,182,-0.050,-0.050,-0.050,0.000,0.000,0.000
1641102613571393024,2022-01-02-05:50:13,10.1.1.6,181,-0.060,-0.060,-0.060,0.000,0.000,0.000
1641102613774897152,2022-01-02-05:50:13,10.1.1.6,184,-0.070,-0.070,-0.070,0.000,0.000,0.000
1641102613961699072,2022-01-02-05:50:13,10.1.1.6,170,-0.080,-0.080,-0.080,0.000,0.000,0.000
1641102614160729856,2022-01-02-05:50:14,10.1.1.6,169,-0.090,-0.090,-0.090,0.000,0.000,0.000
1641102614369821184,2022-01-02-05:50:14,10.1.1.6,177,-0.100,-0.100,-0.100,0.000,0.000,0.000
1641102614569769984,2022-01-02-05:50:14,10.1.1.6,177,-0.110,-0.110,-0.110,0.000,0.000,0.000
1641102614769284864,2022-01-02-05:50:14,10.1.1.6,176,-0.120,-0.120,-0.120,0.000,0.000,0.000
1641102614969193984,2022-01-02-05:50:14,10.1.1.6,175,-0.130,-0.130,-0.130,0.000,0.000,0.000
1641102615168484096,2022-01-02-05:50:15,10.1.1.6,174,-0.140,-0.140,-0.140,0.000,0.000,0.000
1641102615367934976,2022-01-02-05:50:15,10.1.1.6,173,-0.150,-0.150,-0.150,0.000,0.000,0.000
1641102615568630016,2022-01-02-05:50:15,10.1.1.6,172,-0.160,-0.160,-0.160,0.000,0.000,0.000
1641102615767118848,2022-01-02-05:50:15,10.1.1.6,171,-0.170,-0.170,-0.170,0.000,0.000,0.000
1641102615968038144,2022-01-02-05:50:15,10.1.1.6,171,-0.180,-0.180,-0.180,0.000,0.000,0.000
1641102616166568960,2022-01-02-05:50:16,10.1.1.6,169,-0.190,-0.190,-0.190,0.000,0.000,0.000
1641102616366023936,2022-01-02-05:50:16,10.1.1.6,167,-0.200,-0.200,-0.200,0.000,0.000,0.000
1641102616566739200,2022-01-02-05:50:16,10.1.1.6,167,-0.210,-0.210,-0.210,0.000,0.000,0.000
1641102616765539840,2022-01-02-05:50:16,10.1.1.6,165,-0.220,-0.220,-0.220,0.000,0.000,0.000
1641102616965421056,2022-01-02-05:50:16,10.1.1.6,164,-0.230,-0.230,-0.230,0.000,0.000,0.000
1641102617165259008,2022-01-02-05:50:17,10.1.1.6,163,-0.240,-0.240,-0.240,0.000,0.000,0.000
1641102617364646912,2022-01-02-05:50:17,10.1.1.6,162,-0.250,-0.250,-0.250,0.000,0.000,0.000
1641102617565310976,2022-01-02-05:50:17,10.1.1.6,162,-0.260,-0.260,-0.260,0.000,0.000,0.000
1641102617764663040,2022-01-02-05:50:17,10.1.1.6,161,-0.270,-0.270,-0.270,0.000,0.000,0.000
1641102617964777984,2022-01-02-05:50:17,10.1.1.6,161,-0.280,-0.280,-0.280,0.000,0.000,0.000
1641102618164009216,2022-01-02-05:50:18,10.1.1.6,160,-0.290,-0.290,-0.290,0.000,0.000,0.000
1641102618364049920,2022-01-02-05:50:18,10.1.1.6,159,-0.300,-0.300,-0.300,0.000,0.000,0.000
1641102618562897920,2022-01-02-05:50:18,10.1.1.6,157,-0.310,-0.310,-0.310,0.000,0.000,0.000
1641102618762860032,2022-01-02-05:50:18,10.1.1.6,156,-0.320,-0.320,-0.320,0.000,0.000,0.000
1641102618986460928,2022-01-02-05:50:18,10.1.1.6,179,-0.330,-0.330,-0.330,0.000,0.000,0.000
1641102619183540992,2022-01-02-05:50:19,10.1.1.6,176,-0.340,-0.340,-0.340,0.000,0.000,0.000
1641102619384377856,2022-01-02-05:50:19,10.1.1.6,176,-0.350,-0.350,-0.350,0.000,0.000,0.000
1641102619585458944,2022-01-02-05:50:19,10.1.1.6,176,-0.360,-0.360,-0.360,0.000,0.000,0.000
1641102619786124032,2022-01-02-05:50:19,10.1.1.6,176,-0.370,-0.370,-0.370,0.000,0.000,0.000
1641102619980398848,2022-01-02-05:50:19,10.1.1.6,170,-0.380,-0.380,-0.380,0.000,0.000,0.000
1641102620188750080,2022-01-02-05:50:20,10.1.1.6,178,-0.390,-0.390,-0.390,0.000,0.000,0.000
1641102620389188096,2022-01-02-05:50:20,10.1.1.6,177,-0.400,-0.400,-0.400,0.000,0.000,0.000
1641102620591331840,2022-01-02-05:50:20,10.1.1.6,178,-0.410,-0.410,-0.410,0.000,0.000,0.000
1641102620785871104,2022-01-02-05:50:20,10.1.1.6,172,-0.420,-0.420,-0.420,0.000,0.000,0.000
1641102620991843840,2022-01-02-05:50:20,10.1.1.6,178,-0.430,-0.430,-0.430,0.000,0.000,0.000
1641102621185852928,2022-01-02-05:50:21,10.1.1.6,171,-0.440,-0.440,-0.440,0.000,0.000,0.000
1641102621386408960,2022-01-02-05:50:21,10.1.1.6,171,-0.450,-0.450,-0.450,0.000,0.000,0.000
1641102621584877056,2022-01-02-05:50:21,10.1.1.6,169,-0.460,-0.460,-0.460,0.000,0.000,0.000
1641102621794960896,2022-01-02-05:50:21,10.1.1.6,179,-0.470,-0.470,-0.470,0.000,0.000,0.000
1641102621995450112,2022-01-02-05:50:21,10.1.1.6,178,-0.480,-0.480,-0.480,0.000,0.000,0.000
1641102622196314112,2022-01-02-05:50:22,10.1.1.6,179,-0.490,-0.490,-0.490,0.000,0.000,0.000
1641102622396971008,2022-01-02-05:50:22,10.1.1.6,179,-0.480,-0.480,-0.480,0.000,0.000,0.000
1641102622597809152,2022-01-02-05:50:22,10.1.1.6,180,-0.470,-0.470,-0.470,0.000,0.000,0.000
1641102622797571840,2022-01-02-05:50:22,10.1.1.6,179,-0.460,-0.460,-0.460,0.000,0.000,0.000
1641102622998685952,2022-01-02-05:50:22,10.1.1.6,179,-0.450,-0.450,-0.450,0.000,0.000,0.000
1641102623198893056,2022-01-02-05:50:23,10.1.1.6,179,-0.440,-0.440,-0.440,0.000,0.000,0.000
1641102623399676928,2022-01-02-05:50:23,10.1.1.6,180,-0.430,-0.430,-0.430,0.000,0.000,0.000
1641102623625673984,2022-01-02-05:50:23,10.1.1.6,205,-0.420,-0.420,-0.420,0.000,0.000,0.000
1641102623820342016,2022-01-02-05:50:23,10.1.1.6,191,-0.410,-0.410,-0.410,0.000,0.000,0.000
1641102624020952064,2022-01-02-05:50:24,10.1.1.6,191,-0.400,-0.400,-0.400,0.000,0.000,0.000
1641102624221388032,2022-01-02-05:50:24,10.1.1.6,191,-0.390,-0.390,-0.390,0.000,0.000,0.000
1641102624421600000,2022-01-02-05:50:24,10.1.1.6,191,-0.380,-0.380,-0.380,0.000,0.000,0.000
1641102624621678080,2022-01-02-05:50:24,10.1.1.6,190,-0.370,-0.370,-0.370,0.000,0.000,0.000
1641102624822712832,2022-01-02-05:50:24,10.1.1.6,191,-0.360,-0.360,-0.360,0.000,0.000,0.000
1641102625022736128,2022-01-02-05:50:25,10.1.1.6,190,-0.350,-0.350,-0.350,0.000,0.000,0.000
1641102625223215104,2022-01-02-05:50:25,10.1.1.6,190,-0.340,-0.340,-0.340,0.000,0.000,0.000
1641102625423008000,2022-01-02-05:50:25,10.1.1.6,189,-0.330,-0.330,-0.330,0.000,0.000,0.000
1641102625623812864,2022-01-02-05:50:25,10.1.1.6,190,-0.320,-0.320,-0.320,0.000,0.000,0.000
1641102625840687104,2022-01-02-05:50:25,10.1.1.6,206,-0.310,-0.310,-0.310,0.000,0.000,0.000
1641102626253863936,2022-01-02-05:50:26,10.1.1.6,197,-0.290,-0.290,-0.290,0.000,0.000,0.000
1641102626450541056,2022-01-02-05:50:26,10.1.1.6,190,-0.280,-0.280,-0.280,0.000,0.000,0.000
1641102626673812992,2022-01-02-05:50:26,10.1.1.6,208,-0.270,-0.270,-0.270,0.000,0.000,0.000
1641102626867425024,2022-01-02-05:50:26,10.1.1.6,190,-0.260,-0.260,-0.260,0.000,0.000,0.000
1641102627066160896,2022-01-02-05:50:27,10.1.1.6,179,-0.250,-0.250,-0.250,0.000,0.000,0.000
1641102627286955008,2022-01-02-05:50:27,10.1.1.6,197,-0.240,-0.240,-0.240,0.000,0.000,0.000
1641102627485448960,2022-01-02-05:50:27,10.1.1.6,195,-0.230,-0.230,-0.230,0.000,0.000,0.000
1641102627681325056,2022-01-02-05:50:27,10.1.1.6,190,-0.220,-0.220,-0.220,0.000,0.000,0.000
1641102627885852928,2022-01-02-05:50:27,10.1.1.6,194,-0.210,-0.210,-0.210,0.000,0.000,0.000
1641102628079617024,2022-01-02-05:50:28,10.1.1.6,187,-0.200,-0.200,-0.200,0.000,0.000,0.000
1641102628286400000,2022-01-02-05:50:28,10.1.1.6,192,-0.190,-0.190,-0.190,0.000,0.000,0.000
1641102628486650112,2022-01-02-05:50:28,10.1.1.6,192,-0.180,-0.180,-0.180,0.000,0.000,0.000
1641102628686077184,2022-01-02-05:50:28,10.1.1.6,191,-0.170,-0.170,-0.170,0.000,0.000,0.000
1641102628877155072,2022-01-02-05:50:28,10.1.1.6,182,-0.160,-0.160,-0.160,0.000,0.000,0.000
1641102629086103040,2022-01-02-05:50:29,10.1.1.6,189,-0.150,-0.150,-0.150,0.000,0.000,0.000
1641102629287976960,2022-01-02-05:50:29,10.1.1.6,190,-0.140,-0.140,-0.140,0.000,0.000,0.000
1641102629686356992,2022-01-02-05:50:29,10.1.1.6,186,-0.120,-0.120,-0.120,0.000,0.000,0.000
1641102629886118912,2022-01-02-05:50:29,10.1.1.6,185,-0.110,-0.110,-0.110,0.000,0.000,0.000
1641102630086009088,2022-01-02-05:50:30,10.1.1.6,184,-0.100,-0.100,-0.100,0.000,0.000,0.000
1641102630286729216,2022-01-02-05:50:30,10.1.1.6,185,-0.090,-0.090,-0.090,0.000,0.000,0.000
1641102630485764864,2022-01-02-05:50:30,10.1.1.6,183,-0.080,-0.080,-0.080,0.000,0.000,0.000
1641102630686449920,2022-01-02-05:50:30,10.1.1.6,183,-0.070,-0.070,-0.070,0.000,0.000,0.000
1641102630886087936,2022-01-02-05:50:30,10.1.1.6,182,-0.060,-0.060,-0.060,0.000,0.000,0.000
1641102631086188032,2022-01-02-05:50:31,10.1.1.6,182,-0.050,-0.050,-0.050,0.000,0.000,0.000
1641102631486545920,2022-01-02-05:50:31,10.1.1.6,180,-0.030,-0.030,-0.030,0.000,0.000,0.000
1641102631685671168,2022-01-02-05:50:31,10.1.1.6,179,-0.020,-0.020,-0.020,0.000,0.000,0.000
1641102631906422016,2022-01-02-05:50:31,10.1.1.6,198,-0.010,-0.010,-0.010,0.000,0.000,0.000
1641102632306050048,2022-01-02-05:50:32,10.1.1.6,197,-0.010,-0.010,-0.010,0.000,0.000,0.000
1641102632506094848,2022-01-02-05:50:32,10.1.1.6,195,-0.020,-0.020,-0.020,0.000,0.000,0.000
1641102632705885952,2022-01-02-05:50:32,10.1.1.6,194,-0.030,-0.030,-0.030,0.000,0.000,0.000
1641102632907416064,2022-01-02-05:50:32,10.1.1.6,195,-0.040,-0.040,-0.040,0.000,0.000,0.000
1641102633105704192,2022-01-02-05:50:33,10.1.1.6,192,-0.050,-0.050,-0.050,0.000,0.000,0.000
1641102633305568000,2022-01-02-05:50:33,10.1.1.6,190,-0.060,-0.060,-0.060,0.000,0.000,0.000
1641102633505795840,2022-01-02-05:50:33,10.1.1.6,190,-0.070,-0.070,-0.070,0.000,0.000,0.000
1641102633705302016,2022-01-02-05:50:33,10.1.1.6,189,-0.080,-0.080,-0.080,0.000,0.000,0.000
1641102633905178112,2022-01-02-05:50:33,10.1.1.6,188,-0.090,-0.090,-0.090,0.000,0.000,0.000
1641102634105303040,2022-01-02-05:50:34,10.1.1.6,187,-0.100,-0.100,-0.100,0.000,0.000,0.000
1641102634305520896,2022-01-02-05:50:34,10.1.1.6,186,-0.110,-0.110,-0.110,0.000,0.000,0.000
1641102634504823808,2022-01-02-05:50:34,10.1.1.6,185,-0.120,-0.120,-0.120,0.000,0.000,0.000
1641102634705296128,2022-01-02-05:50:34,10.1.1.6,185,-0.130,-0.130,-0.130,0.000,0.000,0.000
1641102634905818112,2022-01-02-05:50:34,10.1.1.6,184,-0.140,-0.140,-0.140,0.000,0.000,0.000
1641102635104984064,2022-01-02-05:50:35,10.1.1.6,183,-0.150,-0.150,-0.150,0.000,0.000,0.000
1641102635304105984,2022-01-02-05:50:35,10.1.1.6,181,-0.160,-0.160,-0.160,0.000,0.000,0.000
1641102635507952896,2022-01-02-05:50:35,10.1.1.6,184,-0.170,-0.170,-0.170,0.000,0.000,0.000
1641102635703774976,2022-01-02-05:50:35,10.1.1.6,179,-0.180,-0.180,-0.180,0.000,0.000,0.000
1641102635923974912,2022-01-02-05:50:35,10.1.1.6,198,-0.190,-0.190,-0.190,0.000,0.000,0.000
1641102636103162880,2022-01-02-05:50:36,10.1.1.6,176,-0.200,-0.200,-0.200,0.000,0.000,0.000
1641102636302851072,2022-01-02-05:50:36,10.1.1.6,176,-0.210,-0.210,-0.210,0.000,0.000,0.000
1641102636522813952,2022-01-02-05:50:36,10.1.1.6,195,-0.220,-0.220,-0.220,0.000,0.000,0.000
1641102636722328064,2022-01-02-05:50:36,10.1.1.6,194,-0.230,-0.230,-0.230,0.000,0.000,0.000
1641102636922363904,2022-01-02-05:50:36,10.1.1.6,193,-0.240,-0.240,-0.240,0.000,0.000,0.000
1641102637121750016,2022-01-02-05:50:37,10.1.1.6,192,-0.250,-0.250,-0.250,0.000,0.000,0.000
1641102637322590976,2022-01-02-05:50:37,10.1.1.6,193,-0.260,-0.260,-0.260,0.000,0.000,0.000
1641102637518753024,2022-01-02-05:50:37,10.1.1.6,188,-0.270,-0.270,-0.270,0.000,0.000,0.000
1641102637721265152,2022-01-02-05:50:37,10.1.1.6,190,-0.280,-0.280,-0.280,0.000,0.000,0.000
1641102637921551104,2022-01-02-05:50:37,10.1.1.6,190,-0.290,-0.290,-0.290,0.000,0.000,0.000
1641102638121548032,2022-01-02-05:50:38,10.1.1.6,190,-0.300,-0.300,-0.300,0.000,0.000,0.000
1641102638322260992,2022-01-02-05:50:38,10.1.1.6,189,-0.310,-0.310,-0.310,0.000,0.000,0.000
1641102638520442880,2022-01-02-05:50:38,10.1.1.6,183,-0.320,-0.320,-0.320,0.000,0.000,0.000
1641102638720944896,2022-01-02-05:50:38,10.1.1.6,183,-0.330,-0.330,-0.330,0.000,0.000,0.000
1641102638920444928,2022-01-02-05:50:38,10.1.1.6,182,-0.340,-0.340,-0.340,0.000,0.000,0.000
1641102639119812864,2022-01-02-05:50:39,10.1.1.6,181,-0.350,-0.350,-0.350,0.000,0.000,0.000
1641102639320092928,2022-01-02-05:50:39,10.1.1.6,180,-0.360,-0.360,-0.360,0.000,0.000,0.000
1641102639524250880,2022-01-02-05:50:39,10.1.1.6,184,-0.370,-0.370,-0.370,0.000,0.000,0.000
1641102639720217088,2022-01-02-05:50:39,10.1.1.6,179,-0.380,-0.380,-0.380,0.000,0.000,0.000
1641102639918886912,2022-01-02-05:50:39,10.1.1.6,177,-0.390,-0.390,-0.390,0.000,0.000,0.000
1641102640119160064,2022-01-02-05:50:40,10.1.1.6,176,-0.400,-0.400,-0.400,0.000,0.000,0.000
1641102640318950912,2022-01-02-05:50:40,10.1.1.6,175,-0.410,-0.410,-0.410,0.000,0.000,0.000
1641102640517991168,2022-01-02-05:50:40,10.1.1.6,173,-0.420,-0.420,-0.420,0.000,0.000,0.000
1641102640718004992,2022-01-02-05:50:40,10.1.1.6,173,-0.430,-0.430,-0.430,0.000,0.000,0.000
1641102640917912064,2022-01-02-05:50:40,10.1.1.6,172,-0.440,-0.440,-0.440,0.000,0.000,0.000
1641102641137017856,2022-01-02-05:50:41,10.1.1.6,191,-0.450,-0.450,-0.450,0.000,0.000,0.000
1641102641319695104,2022-01-02-05:50:41,10.1.1.6,173,-0.460,-0.460,-0.460,0.000,0.000,0.000
1641102641522990080,2022-01-02-05:50:41,10.1.1.6,176,-0.470,-0.470,-0.470,0.000,0.000,0.000
1641102641745093120,2022-01-02-05:50:41,10.1.1.6,196,-0.480,-0.480,-0.480,0.000,0.000,0.000
1641102641936572928,2022-01-02-05:50:41,10.1.1.6,185,-0.490,-0.490,-0.490,0.000,0.000,0.000
1641102642135896064,2022-01-02-05:50:42,10.1.1.6,181,-0.480,-0.480,-0.480,0.000,0.000,0.000
1641102642336365056,2022-01-02-05:50:42,10.1.1.6,181,-0.470,-0.470,-0.470,0.000,0.000,0.000
1641102642534831104,2022-01-02-05:50:42,10.1.1.6,179,-0.460,-0.460,-0.460,0.000,0.000,0.000
1641102642734592000,2022-01-02-05:50:42,10.1.1.6,178,-0.450,-0.450,-0.450,0.000,0.000,0.000
1641102642934988032,2022-01-02-05:50:42,10.1.1.6,177,-0.440,-0.440,-0.440,0.000,0.000,0.000
1641102643154861056,2022-01-02-05:50:43,10.1.1.6,197,-0.430,-0.430,-0.430,0.000,0.000,0.000
1641102643335249920,2022-01-02-05:50:43,10.1.1.6,177,-0.420,-0.420,-0.420,0.000,0.000,0.000
1641102643534063104,2022-01-02-05:50:43,10.1.1.6,175,-0.410,-0.410,-0.410,0.000,0.000,0.000
1641102643733561088,2022-01-02-05:50:43,10.1.1.6,174,-0.400,-0.400,-0.400,0.000,0.000,0.000
1641102643934545920,2022-01-02-05:50:43,10.1.1.6,174,-0.390,-0.390,-0.390,0.000,0.000,0.000
1641102644135054080,2022-01-02-05:50:44,10.1.1.6,174,-0.380,-0.380,-0.380,0.000,0.000,0.000
1641102644333632000,2022-01-02-05:50:44,10.1.1.6,172,-0.370,-0.370,-0.370,0.000,0.000,0.000
1641102644532592128,2022-01-02-05:50:44,10.1.1.6,170,-0.360,-0.360,-0.360,0.000,0.000,0.000
1641102644732188928,2022-01-02-05:50:44,10.1.1.6,169,-0.350,-0.350,-0.350,0.000,0.000,0.000
1641102644932169984,2022-01-02-05:50:44,10.1.1.6,168,-0.340,-0.340,-0.340,0.000,0.000,0.000
1641102645131421184,2022-01-02-05:50:45,10.1.1.6,167,-0.330,-0.330,-0.330,0.000,0.000,0.000
1641102645331913984,2022-01-02-05:50:45,10.1.1.6,166,-0.320,-0.320,-0.320,0.000,0.000,0.000
1641102645531310080,2022-01-02-05:50:45,10.1.1.6,165,-0.310,-0.310,-0.310,0.000,0.000,0.000
1641102645731329024,2022-01-02-05:50:45,10.1.1.6,165,-0.300,-0.300,-0.300,0.000,0.000,0.000
1641102645950189056,2022-01-02-05:50:45,10.1.1.6,183,-0.290,-0.290,-0.290,0.000,0.000,0.000
1641102646150355200,2022-01-02-05:50:46,10.1.1.6,182,-0.280,-0.280,-0.280,0.000,0.000,0.000
1641102646549940992,2022-01-02-05:50:46,10.1.1.6,180,-0.260,-0.260,-0.260,0.000,0.000,0.000
1641102646750027008,2022-01-02-05:50:46,10.1.1.6,179,-0.250,-0.250,-0.250,0.000,0.000,0.000
1641102646951309056,2022-01-02-05:50:46,10.1.1.6,180,-0.240,-0.240,-0.240,0.000,0.000,0.000
1641102647148359168,2022-01-02-05:50:47,10.1.1.6,177,-0.230,-0.230,-0.230,0.000,0.000,0.000
1641102647348584960,2022-01-02-05:50:47,10.1.1.6,176,-0.220,-0.220,-0.220,0.000,0.000,0.000
1641102647547680000,2022-01-02-05:50:47,10.1.1.6,174,-0.210,-0.210,-0.210,0.000,0.000,0.000
1641102647740868096,2022-01-02-05:50:47,10.1.1.6,166,-0.200,-0.200,-0.200,0.000,0.000,0.000
1641102647948154880,2022-01-02-05:50:47,10.1.1.6,172,-0.190,-0.190,-0.190,0.000,0.000,0.000
1641102648146446848,2022-01-02-05:50:48,10.1.1.6,170,-0.180,-0.180,-0.180,0.000,0.000,0.000
1641102648346429952,2022-01-02-05:50:48,10.1.1.6,169,-0.170,-0.170,-0.170,0.000,0.000,0.000
1641102648545998080,2022-01-02-05:50:48,10.1.1.6,168,-0.160,-0.160,-0.160,0.000,0.000,0.000
1641102648765959936,2022-01-02-05:50:48,10.1.1.6,187,-0.150,-0.150,-0.150,0.000,0.000,0.000
1641102648946536960,2022-01-02-05:50:48,10.1.1.6,167,-0.140,-0.140,-0.140,0.000,0.000,0.000
1641102649144934912,2022-01-02-05:50:49,10.1.1.6,164,-0.130,-0.130,-0.130,0.000,0.000,0.000
1641102649345362944,2022-01-02-05:50:49,10.1.1.6,164,-0.120,-0.120,-0.120,0.000,0.000,0.000
1641102649544413184,2022-01-02-05:50:49,10.1.1.6,162,-0.110,-0.110,-0.110,0.000,0.000,0.000
1641102649743910144,2022-01-02-05:50:49,10.1.1.6,161,-0.100,-0.100,-0.100,0.000,0.000,0.000
1641102649943802112,2022-01-02-05:50:49,10.1.1.6,160,-0.090,-0.090,-0.090,0.000,0.000,0.000
1641102650145783808,2022-01-02-05:50:50,10.1.1.6,161,-0.080,-0.080,-0.080,0.000,0.000,0.000
1641102650344235776,2022-01-02-05:50:50,10.1.1.6,159,-0.070,-0.070,-0.070,0.000,0.000,0.000
1641102650543436032,2022-01-02-05:50:50,10.1.1.6,158,-0.060,-0.060,-0.060,0.000,0.000,0.000
1641102650762660864,2022-01-02-05:50:50,10.1.1.6,176,-0.050,-0.050,-0.050,0.000,0.000,0.000
1641102650945200896,2022-01-02-05:50:50,10.1.1.6,158,-0.040,-0.040,-0.040,0.000,0.000,0.000
1641102651164503040,2022-01-02-05:50:51,10.1.1.6,176,-0.030,-0.030,-0.030,0.000,0.000,0.000
1641102651355056896,2022-01-02-05:50:51,10.1.1.6,166,-0.020,-0.020,-0.020,0.000,0.000,0.000
1641102651557638912,2022-01-02-05:50:51,10.1.1.6,168,-0.010,-0.010,-0.010,0.000,0.000,0.000
1641102651767000832,2022-01-02-05:50:51,10.1.1.6,177,0.000,0.000,0.000,0.000,0.000,0.000
1641102651968691968,2022-01-02-05:50:51,10.1.1.6,178,-0.010,-0.010,-0.010,0.000,0.000,0.000
1641102652163106048,2022-01-02-05:50:52,10.1.1.6,172,-0.020,-0.020,-0.020,0.000,0.000,0.000
1641102652370836992,2022-01-02-05:50:52,10.1.1.6,179,-0.030,-0.030,-0.030,0.000,0.000,0.000
1641102652570585088,2022-01-02-05:50:52,10.1.1.6,178,-0.040,-0.040,-0.040,0.000,0.000,0.000
1641102652771805952,2022-01-02-05:50:52,10.1.1.6,178,-0.050,-0.050,-0.050,0.000,0.000,0.000
1641102652972462848,2022-01-02-05:50:52,10.1.1.6,179,-0.060,-0.060,-0.060,0.000,0.000,0.000
1641102653173149952,2022-01-02-05:50:53,10.1.1.6,179,-0.070,-0.070,-0.070,0.000,0.000,0.000
1641102653373398016,2022-01-02-05:50:53,10.1.1.6,179,-0.080,-0.080,-0.080,0.000,0.000,0.000
1641102653574723072,2022-01-02-05:50:53,10.1.1.6,179,-0.090,-0.090,-0.090,0.000,0.000,0.000
1641102653775068160,2022-01-02-05:50:53,10.1.1.6,179,-0.100,-0.100,-0.100,0.000,0.000,0.000
1641102653976502784,2022-01-02-05:50:53,10.1.1.6,180,-0.110,-0.110,-0.110,0.000,0.000,0.000
1641102654177092096,2022-01-02-05:50:54,10.1.1.6,180,-0.120,-0.120,-0.120,0.000,0.000,0.000
1641102654377072128,2022-01-02-05:50:54,10.1.1.6,179,-0.130,-0.130,-0.130,0.000,0.000,0.000
1641102654588811008,2022-01-02-05:50:54,10.1.1.6,190,-0.140,-0.140,-0.140,0.000,0.000,0.000
1641102654778871040,2022-01-02-05:50:54,10.1.1.6,179,-0.150,-0.150,-0.150,0.000,0.000,0.000
1641102654980022784,2022-01-02-05:50:54,10.1.1.6,180,-0.160,-0.160,-0.160,0.000,0.000,0.000
1641102655180710912,2022-01-02-05:50:55,10.1.1.6,180,-0.170,-0.170,-0.170,0.000,0.000,0.000
1641102655380963072,2022-01-02-05:50:55,10.1.1.6,179,-0.180,-0.180,-0.180,0.000,0.000,0.000
1641102655581585920,2022-01-02-05:50:55,10.1.1.6,179,-0.190,-0.190,-0.190,0.000,0.000,0.000
1641102655781275904,2022-01-02-05:50:55,10.1.1.6,178,-0.200,-0.200,-0.200,0.000,0.000,0.000
1641102655981798912,2022-01-02-05:50:55,10.1.1.6,176,-0.210,-0.210,-0.210,0.000,0.000,0.000
1641102656203581184,2022-01-02-05:50:56,10.1.1.6,195,-0.220,-0.220,-0.220,0.000,0.000,0.000
1641102656403045888,2022-01-02-05:50:56,10.1.1.6,195,-0.230,-0.230,-0.230,0.000,0.000,0.000
1641102656601219840,2022-01-02-05:50:56,10.1.1.6,193,-0.240,-0.240,-0.240,0.000,0.000,0.000
1641102656804097024,2022-01-02-05:50:56,10.1.1.6,195,-0.250,-0.250,-0.250,0.000,0.000,0.000
1641102657004750848,2022-01-02-05:50:57,10.1.1.6,193,-0.260,-0.260,-0.260,0.000,0.000,0.000
1641102657204525056,2022-01-02-05:50:57,10.1.1.6,191,-0.270,-0.270,-0.270,0.000,0.000,0.000
1641102657395219200,2022-01-02-05:50:57,10.1.1.6,181,-0.280,-0.280,-0.280,0.000,0.000,0.000
1641102657605011968,2022-01-02-05:50:57,10.1.1.6,190,-0.290,-0.290,-0.290,0.000,0.000,0.000
1641102657797359104,2022-01-02-05:50:57,10.1.1.6,181,-0.300,-0.300,-0.300,0.000,0.000,0.000
1641102658006434816,2022-01-02-05:50:58,10.1.1.6,190,-0.310,-0.310,-0.310,0.000,0.000,0.000
1641102658206487040,2022-01-02-05:50:58,10.1.1.6,190,-0.320,-0.320,-0.320,0.000,0.000,0.000
1641102658406068992,2022-01-02-05:50:58,10.1.1.6,188,-0.330,-0.330,-0.330,0.000,0.000,0.000
1641102658606025984,2022-01-02-05:50:58,10.1.1.6,187,-0.340,-0.340,-0.340,0.000,0.000,0.000
1641102658805910016,2022-01-02-05:50:58,10.1.1.6,186,-0.350,-0.350,-0.350,0.000,0.000,0.000
1641102659006942976,2022-01-02-05:50:59,10.1.1.6,185,-0.360,-0.360,-0.360,0.000,0.000,0.000
1641102659206914048,2022-01-02-05:50:59,10.1.1.6,184,-0.370,-0.370,-0.370,0.000,0.000,0.000
1641102659407313152,2022-01-02-05:50:59,10.1.1.6,184,-0.380,-0.380,-0.380,0.000,0.000,0.000
1641102659607060992,2022-01-02-05:50:59,10.1.1.6,183,-0.390,-0.390,-0.390,0.000,0.000,0.000
1641102659807305984,2022-01-02-05:50:59,10.1.1.6,182,-0.400,-0.400,-0.400,0.000,0.000,0.000
1641102660008590080,2022-01-02-05:51:00,10.1.1.6,183,-0.410,-0.410,-0.410,0.000,0.000,0.000
1641102660407310848,2022-01-02-05:51:00,10.1.1.6,180,-0.430,-0.430,-0.430,0.000,0.000,0.000
1641102660607311872,2022-01-02-05:51:00,10.1.1.6,180,-0.440,-0.440,-0.440,0.000,0.000,0.000
1641102660827943936,2022-01-02-05:51:00,10.1.1.6,200,-0.450,-0.450,-0.450,0.000,0.000,0.000
1641102661028211968,2022-01-02-05:51:01,10.1.1.6,199,-0.460,-0.460,-0.460,0.000,0.000,0.000
1641102661227948032,2022-01-02-05:51:01,10.1.1.6,198,-0.470,-0.470,-0.470,0.000,0.000,0.000
1641102661427584768,2022-01-02-05:51:01,10.1.1.6,197,-0.480,-0.480,-0.480,0.000,0.000,0.000
1641102661627659008,2022-01-02-05:51:01,10.1.1.6,197,-0.490,-0.490,-0.490,0.000,0.000,0.000
1641102661828664064,2022-01-02-05:51:01,10.1.1.6,197,-0.480,-0.480,-0.480,0.000,0.000,0.000
1641102662027614208,2022-01-02-05:51:02,10.1.1.6,196,-0.470,-0.470,-0.470,0.000,0.000,0.000
1641102662228758016,2022-01-02-05:51:02,10.1.1.6,196,-0.460,-0.460,-0.460,0.000,0.000,0.000
1641102662427911936,2022-01-02-05:51:02,10.1.1.6,195,-0.450,-0.450,-0.450,0.000,0.000,0.000
1641102662628721920,2022-01-02-05:51:02,10.1.1.6,194,-0.440,-0.440,-0.440,0.000,0.000,0.000
1641102662830105088,2022-01-02-05:51:02,10.1.1.6,195,-0.430,-0.430,-0.430,0.000,0.000,0.000
1641102663030181888,2022-01-02-05:51:03,10.1.1.6,193,-0.420,-0.420,-0.420,0.000,0.000,0.000
1641102663227649024,2022-01-02-05:51:03,10.1.1.6,191,-0.410,-0.410,-0.410,0.000,0.000,0.000
1641102663628541952,2022-01-02-05:51:03,10.1.1.6,188,-0.390,-0.390,-0.390,0.000,0.000,0.000
1641102663827898112,2022-01-02-05:51:03,10.1.1.6,186,-0.380,-0.380,-0.380,0.000,0.000,0.000
1641102664027764992,2022-01-02-05:51:04,10.1.1.6,184,-0.370,-0.370,-0.370,0.000,0.000,0.000
1641102664228084992,2022-01-02-05:51:04,10.1.1.6,183,-0.360,-0.360,-0.360,0.000,0.000,0.000
1641102664628534016,2022-01-02-05:51:04,10.1.1.6,182,-0.340,-0.340,-0.340,0.000,0.000,0.000
1641102664847084032,2022-01-02-05:51:04,10.1.1.6,199,-0.330,-0.330,-0.330,0.000,0.000,0.000
1641102665047185920,2022-01-02-05:51:05,10.1.1.6,197,-0.320,-0.320,-0.320,0.000,0.000,0.000
1641102665247095040,2022-01-02-05:51:05,10.1.1.6,197,-0.310,-0.310,-0.310,0.000,0.000,0.000
1641102665456589824,2022-01-02-05:51:05,10.1.1.6,197,-0.300,-0.300,-0.300,0.000,0.000,0.000
1641102665646349824,2022-01-02-05:51:05,10.1.1.6,189,-0.290,-0.290,-0.290,0.000,0.000,0.000
1641102665846062848,2022-01-02-05:51:05,10.1.1.6,188,-0.280,-0.280,-0.280,0.000,0.000,0.000
1641102666047220992,2022-01-02-05:51:06,10.1.1.6,188,-0.270,-0.270,-0.270,0.000,0.000,0.000
1641102666246443008,2022-01-02-05:51:06,10.1.1.6,186,-0.260,-0.260,-0.260,0.000,0.000,0.000
1641102666446091008,2022-01-02-05:51:06,10.1.1.6,185,-0.250,-0.250,-0.250,0.000,0.000,0.000
1641102666646214912,2022-01-02-05:51:06,10.1.1.6,184,-0.240,-0.240,-0.240,0.000,0.000,0.000
1641102667045340928,2022-01-02-05:51:07,10.1.1.6,181,-0.220,-0.220,-0.220,0.000,0.000,0.000
1641102667245353984,2022-01-02-05:51:07,10.1.1.6,180,-0.210,-0.210,-0.210,0.000,0.000,0.000
1641102667445137920,2022-01-02-05:51:07,10.1.1.6,179,-0.200,-0.200,-0.200,0.000,0.000,0.000
1641102667645688064,2022-01-02-05:51:07,10.1.1.6,179,-0.190,-0.190,-0.190,0.000,0.000,0.000
1641102667865123072,2022-01-02-05:51:07,10.1.1.6,197,-0.180,-0.180,-0.180,0.000,0.000,0.000
1641102668055599872,2022-01-02-05:51:08,10.1.1.6,186,-0.170,-0.170,-0.170,0.000,0.000,0.000
1641102668264323072,2022-01-02-05:51:08,10.1.1.6,194,-0.160,-0.160,-0.160,0.000,0.000,0.000
1641102668464359936,2022-01-02-05:51:08,10.1.1.6,193,-0.150,-0.150,-0.150,0.000,0.000,0.000
1641102668664410112,2022-01-02-05:51:08,10.1.1.6,193,-0.140,-0.140,-0.140,0.000,0.000,0.000
1641102668864869120,2022-01-02-05:51:08,10.1.1.6,191,-0.130,-0.130,-0.130,0.000,0.000,0.000
1641102669064208128,2022-01-02-05:51:09,10.1.1.6,190,-0.120,-0.120,-0.120,0.000,0.000,0.000
1641102669265779968,2022-01-02-05:51:09,10.1.1.6,190,-0.110,-0.110,-0.110,0.000,0.000,0.000
1641102669463446016,2022-01-02-05:51:09,10.1.1.6,187,-0.100,-0.100,-0.100,0.000,0.000,0.000
1641102669664161024,2022-01-02-05:51:09,10.1.1.6,187,-0.090,-0.090,-0.090,0.000,0.000,0.000
1641102669864072192,2022-01-02-05:51:09,10.1.1.6,186,-0.080,-0.080,-0.080,0.000,0.000,0.000
1641102670063534080,2022-01-02-05:51:10,10.1.1.6,184,-0.070,-0.070,-0.070,0.000,0.000,0.000
1641102670263190016,2022-01-02-05:51:10,10.1.1.6,181,-0.060,-0.060,-0.060,0.000,0.000,0.000
1641102670462394112,2022-01-02-05:51:10,10.1.1.6,179,-0.050,-0.050,-0.050,0.000,0.000,0.000
1641102670662377984,2022-01-02-05:51:10,10.1.1.6,178,-0.040,-0.040,-0.040,0.000,0.000,0.000
1641102670861521920,2022-01-02-05:51:10,10.1.1.6,177,-0.030,-0.030,-0.030,0.000,0.000,0.000
1641102671061224960,2022-01-02-05:51:11,10.1.1.6,176,-0.020,-0.020,-0.020,0.000,0.000,0.000
1641102671261122048,2022-01-02-05:51:11,10.1.1.6,175,-0.010,-0.010,-0.010,0.000,0.000,0.000
1641102671481336064,2022-01-02-05:51:11,10.1.1.6,192,0.000,0.000,0.000,0.000,0.000,0.000
1641102671680854016,2022-01-02-05:51:11,10.1.1.6,191,-0.010,-0.010,-0.010,0.000,0.000,0.000
1641102671880894976,2022-01-02-05:51:11,10.1.1.6,190,-0.020,-0.020,-0.020,0.000,0.000,0.000
1641102672081016064,2022-01-02-05:51:12,10.1.1.6,189,-0.030,-0.030,-0.030,0.000,0.000,0.000
1641102672280303872,2022-01-02-05:51:12,10.1.1.6,187,-0.040,-0.040,-0.040,0.000,0.000,0.000
1641102672486082048,2022-01-02-05:51:12,10.1.1.6,191,-0.050,-0.050,-0.050,0.000,0.000,0.000
1641102672679631104,2022-01-02-05:51:12,10.1.1.6,181,-0.060,-0.060,-0.060,0.000,0.000,0.000
1641102672900016128,2022-01-02-05:51:12,10.1.1.6,188,-0.070,-0.070,-0.070,0.000,0.000,0.000
1641102673099186944,2022-01-02-05:51:13,10.1.1.6,186,-0.080,-0.080,-0.080,0.000,0.000,0.000
1641102673298573056,2022-01-02-05:51:13,10.1.1.6,185,-0.090,-0.090,-0.090,0.000,0.000,0.000
1641102673498519040,2022-01-02-05:51:13,10.1.1.6,184,-0.100,-0.100,-0.100,0.000,0.000,0.000
1641102673688916992,2022-01-02-05:51:13,10.1.1.6,174,-0.110,-0.110,-0.110,0.000,0.000,0.000
1641102673903012864,2022-01-02-05:51:13,10.1.1.6,185,-0.120,-0.120,-0.120,0.000,0.000,0.000
1641102674097886976,2022-01-02-05:51:14,10.1.1.6,179,-0.130,-0.130,-0.130,0.000,0.000,0.000
1641102674297187072,2022-01-02-05:51:14,10.1.1.6,178,-0.140,-0.140,-0.140,0.000,0.000,0.000
1641102674496944896,2022-01-02-05:51:14,10.1.1.6,177,-0.150,-0.150,-0.150,0.000,0.000,0.000
1641102674696478976,2022-01-02-05:51:14,10.1.1.6,176,-0.160,-0.160,-0.160,0.000,0.000,0.000
1641102674896301056,2022-01-02-05:51:14,10.1.1.6,175,-0.170,-0.170,-0.170,0.000,0.000,0.000
1641102675097261056,2022-01-02-05:51:15,10.1.1.6,175,-0.180,-0.180,-0.180,0.000,0.000,0.000
1641102675296686848,2022-01-02-05:51:15,10.1.1.6,174,-0.190,-0.190,-0.190,0.000,0.000,0.000
1641102675495752960,2022-01-02-05:51:15,10.1.1.6,169,-0.200,-0.200,-0.200,0.000,0.000,0.000
1641102675717261056,2022-01-02-05:51:15,10.1.1.6,172,-0.210,-0.210,-0.210,0.000,0.000,0.000
1641102675930643968,2022-01-02-05:51:15,10.1.1.6,178,-0.220,-0.220,-0.220,0.000,0.000,0.000
1641102676134695936,2022-01-02-05:51:16,10.1.1.6,183,-0.230,-0.230,-0.230,0.000,0.000,0.000
1641102676334400000,2022-01-02-05:51:16,10.1.1.6,183,-0.240,-0.240,-0.240,0.000,0.000,0.000
1641102676534137088,2022-01-02-05:51:16,10.1.1.6,182,-0.250,-0.250,-0.250,0.000,0.000,0.000
1641102676733526016,2022-01-02-05:51:16,10.1.1.6,180,-0.260,-0.260,-0.260,0.000,0.000,0.000
1641102676933451008,2022-01-02-05:51:16,10.1.1.6,179,-0.270,-0.270,-0.270,0.000,0.000,0.000
1641102677133046016,2022-01-02-05:51:17,10.1.1.6,178,-0.280,-0.280,-0.280,0.000,0.000,0.000
1641102677332947968,2022-01-02-05:51:17,10.1.1.6,178,-0.290,-0.290,-0.290,0.000,0.000,0.000
1641102677532450048,2022-01-02-05:51:17,10.1.1.6,176,-0.300,-0.300,-0.300,0.000,0.000,0.000
1641102677732412928,2022-01-02-05:51:17,10.1.1.6,176,-0.310,-0.310,-0.310,0.000,0.000,0.000
1641102677932302848,2022-01-02-05:51:17,10.1.1.6,175,-0.320,-0.320,-0.320,0.000,0.000,0.000
1641102678131438848,2022-01-02-05:51:18,10.1.1.6,174,-0.330,-0.330,-0.330,0.000,0.000,0.000
1641102678330913024,2022-01-02-05:51:18,10.1.1.6,173,-0.340,-0.340,-0.340,0.000,0.000,0.000
1641102678531255040,2022-01-02-05:51:18,10.1.1.6,172,-0.350,-0.350,-0.350,0.000,0.000,0.000
1641102678735870976,2022-01-02-05:51:18,10.1.1.6,176,-0.360,-0.360,-0.360,0.000,0.000,0.000
1641102678930455808,2022-01-02-05:51:18,10.1.1.6,170,-0.370,-0.370,-0.370,0.000,0.000,0.000
1641102679131005952,2022-01-02-05:51:19,10.1.1.6,164,-0.380,-0.380,-0.380,0.000,0.000,0.000
1641102679350927104,2022-01-02-05:51:19,10.1.1.6,182,-0.390,-0.390,-0.390,0.000,0.000,0.000
1641102679549843200,2022-01-02-05:51:19,10.1.1.6,181,-0.400,-0.400,-0.400,0.000,0.000,0.000
1641102679749703936,2022-01-02-05:51:19,10.1.1.6,180,-0.410,-0.410,-0.410,0.000,0.000,0.000
1641102679948550912,2022-01-02-05:51:19,10.1.1.6,178,-0.420,-0.420,-0.420,0.000,0.000,0.000
1641102680152882176,2022-01-02-05:51:20,10.1.1.6,182,-0.430,-0.430,-0.430,0.000,0.000,0.000
1641102680348564992,2022-01-02-05:51:20,10.1.1.6,174,-0.440,-0.440,-0.440,0.000,0.000,0.000
1641102680547727104,2022-01-02-05:51:20,10.1.1.6,172,-0.450,-0.450,-0.450,0.000,0.000,0.000
1641102680747756032,2022-01-02-05:51:20,10.1.1.6,172,-0.460,-0.460,-0.460,0.000,0.000,0.000
1641102680947145984,2022-01-02-05:51:20,10.1.1.6,170,-0.470,-0.470,-0.470,0.000,0.000,0.000
1641102681168313088,2022-01-02-05:51:21,10.1.1.6,179,-0.480,-0.480,-0.480,0.000,0.000,0.000
1641102681357628160,2022-01-02-05:51:21,10.1.1.6,169,-0.490,-0.490,-0.490,0.000,0.000,0.000
1641102681566888960,2022-01-02-05:51:21,10.1.1.6,178,-0.480,-0.480,-0.480,0.000,0.000,0.000
1641102681766045952,2022-01-02-05:51:21,10.1.1.6,176,-0.470,-0.470,-0.470,0.000,0.000,0.000
1641102681973947136,2022-01-02-05:51:21,10.1.1.6,184,-0.460,-0.460,-0.460,0.000,0.000,0.000
1641102682166786816,2022-01-02-05:51:22,10.1.1.6,171,-0.450,-0.450,-0.450,0.000,0.000,0.000
1641102682385054208,2022-01-02-05:51:22,10.1.1.6,171,-0.440,-0.440,-0.440,0.000,0.000,0.000
1641102682584331008,2022-01-02-05:51:22,10.1.1.6,170,-0.430,-0.430,-0.430,0.000,0.000,0.000
1641102682784568064,2022-01-02-05:51:22,10.1.1.6,170,-0.420,-0.420,-0.420,0.000,0.000,0.000
1641102682984044032,2022-01-02-05:51:22,10.1.1.6,169,-0.410,-0.410,-0.410,0.000,0.000,0.000
1641102683183377920,2022-01-02-05:51:23,10.1.1.6,168,-0.400,-0.400,-0.400,0.000,0.000,0.000
1641102683383245056,2022-01-02-05:51:23,10.1.1.6,167,-0.390,-0.390,-0.390,0.000,0.000,0.000
1641102683582932992,2022-01-02-05:51:23,10.1.1.6,166,-0.380,-0.380,-0.380,0.000,0.000,0.000
1641102683782434816,2022-01-02-05:51:23,10.1.1.6,165,-0.370,-0.370,-0.370,0.000,0.000,0.000
1641102683981995008,2022-01-02-05:51:23,10.1.1.6,163,-0.360,-0.360,-0.360,0.000,0.000,0.000
1641102684183341056,2022-01-02-05:51:24,10.1.1.6,164,-0.350,-0.350,-0.350,0.000,0.000,0.000
1641102684404473088,2022-01-02-05:51:24,10.1.1.6,185,-0.340,-0.340,-0.340,0.000,0.000,0.000
1641102684585383936,2022-01-02-05:51:24,10.1.1.6,165,-0.330,-0.330,-0.330,0.000,0.000,0.000
1641102684785989120,2022-01-02-05:51:24,10.1.1.6,165,-0.320,-0.320,-0.320,0.000,0.000,0.000
1641102684987351040,2022-01-02-05:51:24,10.1.1.6,166,-0.310,-0.310,-0.310,0.000,0.000,0.000
1641102685188435200,2022-01-02-05:51:25,10.1.1.6,167,-0.300,-0.300,-0.300,0.000,0.000,0.000
1641102685390533888,2022-01-02-05:51:25,10.1.1.6,168,-0.290,-0.290,-0.290,0.000,0.000,0.000
1641102685589976064,2022-01-02-05:51:25,10.1.1.6,167,-0.280,-0.280,-0.280,0.000,0.000,0.000
1641102685790550016,2022-01-02-05:51:25,10.1.1.6,167,-0.270,-0.270,-0.270,0.000,0.000,0.000
1641102685991888128,2022-01-02-05:51:25,10.1.1.6,166,-0.260,-0.260,-0.260,0.000,0.000,0.000
1641102686192240896,2022-01-02-05:51:26,10.1.1.6,166,-0.250,-0.250,-0.250,0.000,0.000,0.000
1641102686393171200,2022-01-02-05:51:26,10.1.1.6,166,-0.240,-0.240,-0.240,0.000,0.000,0.000
1641102686614013952,2022-01-02-05:51:26,10.1.1.6,186,-0.230,-0.230,-0.230,0.000,0.000,0.000
1641102686814521088,2022-01-02-05:51:26,10.1.1.6,186,-0.220,-0.220,-0.220,0.000,0.000,0.000
1641102687014899968,2022-01-02-05:51:27,10.1.1.6,185,-0.210,-0.210,-0.210,0.000,0.000,0.000
1641102687215749120,2022-01-02-05:51:27,10.1.1.6,186,-0.200,-0.200,-0.200,0.000,0.000,0.000
1641102687416382976,2022-01-02-05:51:27,10.1.1.6,186,-0.190,-0.190,-0.190,0.000,0.000,0.000
1641102687616473856,2022-01-02-05:51:27,10.1.1.6,185,-0.180,-0.180,-0.180,0.000,0.000,0.000
1641102687817431808,2022-01-02-05:51:27,10.1.1.6,185,-0.170,-0.170,-0.170,0.000,0.000,0.000
1641102688018078976,2022-01-02-05:51:28,10.1.1.6,185,-0.160,-0.160,-0.160,0.000,0.000,0.000
1641102688218724864,2022-01-02-05:51:28,10.1.1.6,185,-0.150,-0.150,-0.150,0.000,0.000,0.000
1641102688419255040,2022-01-02-05:51:28,10.1.1.6,185,-0.140,-0.140,-0.140,0.000,0.000,0.000
1641102688621093120,2022-01-02-05:51:28,10.1.1.6,186,-0.130,-0.130,-0.130,0.000,0.000,0.000
1641102688820311040,2022-01-02-05:51:28,10.1.1.6,184,-0.120,-0.120,-0.120,0.000,0.000,0.000
1641102689020636928,2022-01-02-05:51:29,10.1.1.6,184,-0.110,-0.110,-0.110,0.000,0.000,0.000
1641102689220649984,2022-01-02-05:51:29,10.1.1.6,183,-0.100,-0.100,-0.100,0.000,0.000,0.000
1641102689422412032,2022-01-02-05:51:29,10.1.1.6,184,-0.090,-0.090,-0.090,0.000,0.000,0.000
1641102689621985792,2022-01-02-05:51:29,10.1.1.6,183,-0.080,-0.080,-0.080,0.000,0.000,0.000
1641102689821896192,2022-01-02-05:51:29,10.1.1.6,182,-0.070,-0.070,-0.070,0.000,0.000,0.000
1641102690021939968,2022-01-02-05:51:30,10.1.1.6,181,-0.060,-0.060,-0.060,0.000,0.000,0.000
1641102690222779904,2022-01-02-05:51:30,10.1.1.6,181,-0.050,-0.050,-0.050,0.000,0.000,0.000
1641102690422588160,2022-01-02-05:51:30,10.1.1.6,180,-0.040,-0.040,-0.040,0.000,0.000,0.000
1641102690643289088,2022-01-02-05:51:30,10.1.1.6,200,-0.030,-0.030,-0.030,0.000,0.000,0.000
1641102690824443136,2022-01-02-05:51:30,10.1.1.6,180,-0.020,-0.020,-0.020,0.000,0.000,0.000
1641102691024422912,2022-01-02-05:51:31,10.1.1.6,180,-0.010,-0.010,-0.010,0.000,0.000,0.000
1641102691226712832,2022-01-02-05:51:31,10.1.1.6,180,-0.000,-0.000,-0.000,0.000,0.000,0.000
1641102691425043968,2022-01-02-05:51:31,10.1.1.6,178,-0.010,-0.010,-0.010,0.000,0.000,0.000
1641102691644500992,2022-01-02-05:51:31,10.1.1.6,193,-0.020,-0.020,-0.020,0.000,0.000,0.000
1641102691843969024,2022-01-02-05:51:31,10.1.1.6,192,-0.030,-0.030,-0.030,0.000,0.000,0.000
1641102692044841984,2022-01-02-05:51:32,10.1.1.6,192,-0.040,-0.040,-0.040,0.000,0.000,0.000
1641102692244771840,2022-01-02-05:51:32,10.1.1.6,192,-0.050,-0.050,-0.050,0.000,0.000,0.000
1641102692444916992,2022-01-02-05:51:32,10.1.1.6,191,-0.060,-0.060,-0.060,0.000,0.000,0.000
1641102692645657088,2022-01-02-05:51:32,10.1.1.6,191,-0.070,-0.070,-0.070,0.000,0.000,0.000
1641102692845299968,2022-01-02-05:51:32,10.1.1.6,190,-0.080,-0.080,-0.080,0.000,0.000,0.000
1641102693044622848,2022-01-02-05:51:33,10.1.1.6,188,-0.090,-0.090,-0.090,0.000,0.000,0.000
1641102693245597952,2022-01-02-05:51:33,10.1.1.6,188,-0.100,-0.100,-0.100,0.000,0.000,0.000
1641102693446183936,2022-01-02-05:51:33,10.1.1.6,187,-0.110,-0.110,-0.110,0.000,0.000,0.000
1641102693645988864,2022-01-02-05:51:33,10.1.1.6,186,-0.120,-0.120,-0.120,0.000,0.000,0.000
1641102693845408000,2022-01-02-05:51:33,10.1.1.6,184,-0.130,-0.130,-0.130,0.000,0.000,0.000
1641102694045943040,2022-01-02-05:51:34,10.1.1.6,185,-0.140,-0.140,-0.140,0.000,0.000,0.000
1641102694245636864,2022-01-02-05:51:34,10.1.1.6,184,-0.150,-0.150,-0.150,0.000,0.000,0.000
1641102694447313920,2022-01-02-05:51:34,10.1.1.6,185,-0.160,-0.160,-0.160,0.000,0.000,0.000
1641102694645308928,2022-01-02-05:51:34,10.1.1.6,182,-0.170,-0.170,-0.170,0.000,0.000,0.000
1641102694845515008,2022-01-02-05:51:34,10.1.1.6,181,-0.180,-0.180,-0.180,0.000,0.000,0.000
1641102695245609984,2022-01-02-05:51:35,10.1.1.6,180,-0.200,-0.200,-0.200,0.000,0.000,0.000
1641102695465858816,2022-01-02-05:51:35,10.1.1.6,199,-0.210,-0.210,-0.210,0.000,0.000,0.000
1641102695649475072,2022-01-02-05:51:35,10.1.1.6,182,-0.220,-0.220,-0.220,0.000,0.000,0.000
1641102695865475840,2022-01-02-05:51:35,10.1.1.6,198,-0.230,-0.230,-0.230,0.000,0.000,0.000
1641102696066649088,2022-01-02-05:51:36,10.1.1.6,198,-0.240,-0.240,-0.240,0.000,0.000,0.000
1641102696265381120,2022-01-02-05:51:36,10.1.1.6,196,-0.250,-0.250,-0.250,0.000,0.000,0.000
1641102696466017024,2022-01-02-05:51:36,10.1.1.6,195,-0.260,-0.260,-0.260,0.000,0.000,0.000
1641102696665946880,2022-01-02-05:51:36,10.1.1.6,194,-0.270,-0.270,-0.270,0.000,0.000,0.000
1641102696866856192,2022-01-02-05:51:36,10.1.1.6,193,-0.280,-0.280,-0.280,0.000,0.000,0.000
1641102697064875008,2022-01-02-05:51:37,10.1.1.6,192,-0.290,-0.290,-0.290,0.000,0.000,0.000
1641102697265163008,2022-01-02-05:51:37,10.1.1.6,191,-0.300,-0.300,-0.300,0.000,0.000,0.000
1641102697465278976,2022-01-02-05:51:37,10.1.1.6,191,-0.310,-0.310,-0.310,0.000,0.000,0.000
1641102697664733952,2022-01-02-05:51:37,10.1.1.6,190,-0.320,-0.320,-0.320,0.000,0.000,0.000
1641102697865075968,2022-01-02-05:51:37,10.1.1.6,182,-0.330,-0.330,-0.330,0.000,0.000,0.000
1641102698065104128,2022-01-02-05:51:38,10.1.1.6,182,-0.340,-0.340,-0.340,0.000,0.000,0.000
1641102698265142016,2022-01-02-05:51:38,10.1.1.6,181,-0.350,-0.350,-0.350,0.000,0.000,0.000
1641102698484808960,2022-01-02-05:51:38,10.1.1.6,200,-0.360,-0.360,-0.360,0.000,0.000,0.000
1641102698664282112,2022-01-02-05:51:38,10.1.1.6,179,-0.370,-0.370,-0.370,0.000,0.000,0.000
1641102698864698880,2022-01-02-05:51:38,10.1.1.6,179,-0.380,-0.380,-0.380,0.000,0.000,0.000
1641102699064573952,2022-01-02-05:51:39,10.1.1.6,178,-0.390,-0.390,-0.390,0.000,0.000,0.000
1641102699263948032,2022-01-02-05:51:39,10.1.1.6,177,-0.400,-0.400,-0.400,0.000,0.000,0.000
1641102699483758848,2022-01-02-05:51:39,10.1.1.6,195,-0.410,-0.410,-0.410,0.000,0.000,0.000
1641102699684835072,2022-01-02-05:51:39,10.1.1.6,195,-0.420,-0.420,-0.420,0.000,0.000,0.000
1641102699884408064,2022-01-02-05:51:39,10.1.1.6,194,-0.430,-0.430,-0.430,0.000,0.000,0.000
1641102700082990848,2022-01-02-05:51:40,10.1.1.6,192,-0.440,-0.440,-0.440,0.000,0.000,0.000
1641102700282905088,2022-01-02-05:51:40,10.1.1.6,189,-0.450,-0.450,-0.450,0.000,0.000,0.000
1641102700482728960,2022-01-02-05:51:40,10.1.1.6,188,-0.460,-0.460,-0.460,0.000,0.000,0.000
1641102700682262016,2022-01-02-05:51:40,10.1.1.6,187,-0.470,-0.470,-0.470,0.000,0.000,0.000
1641102700882120960,2022-01-02-05:51:40,10.1.1.6,186,-0.480,-0.480,-0.480,0.000,0.000,0.000
1641102701082551040,2022-01-02-05:51:41,10.1.1.6,185,-0.490,-0.490,-0.490,0.000,0.000,0.000
1641102701282532864,2022-01-02-05:51:41,10.1.1.6,185,-0.480,-0.480,-0.480,0.000,0.000,0.000
1641102701481928960,2022-01-02-05:51:41,10.1.1.6,184,-0.470,-0.470,-0.470,0.000,0.000,0.000
1641102701681464064,2022-01-02-05:51:41,10.1.1.6,183,-0.460,-0.460,-0.460,0.000,0.000,0.000
1641102701881131008,2022-01-02-05:51:41,10.1.1.6,182,-0.450,-0.450,-0.450,0.000,0.000,0.000
1641102702081499136,2022-01-02-05:51:42,10.1.1.6,182,-0.440,-0.440,-0.440,0.000,0.000,0.000
1641102702281435904,2022-01-02-05:51:42,10.1.1.6,180,-0.430,-0.430,-0.430,0.000,0.000,0.000
1641102702481417984,2022-01-02-05:51:42,10.1.1.6,179,-0.420,-0.420,-0.420,0.000,0.000,0.000
1641102702683792128,2022-01-02-05:51:42,10.1.1.6,180,-0.410,-0.410,-0.410,0.000,0.000,0.000
1641102702880194816,2022-01-02-05:51:42,10.1.1.6,175,-0.400,-0.400,-0.400,0.000,0.000,0.000
1641102703080105984,2022-01-02-05:51:43,10.1.1.6,175,-0.390,-0.390,-0.390,0.000,0.000,0.000
1641102703279900928,2022-01-02-05:51:43,10.1.1.6,174,-0.380,-0.380,-0.380,0.000,0.000,0.000
1641102703499012096,2022-01-02-05:51:43,10.1.1.6,193,-0.370,-0.370,-0.370,0.000,0.000,0.000
1641102703679821056,2022-01-02-05:51:43,10.1.1.6,173,-0.360,-0.360,-0.360,0.000,0.000,0.000
1641102703899676160,2022-01-02-05:51:43,10.1.1.6,192,-0.350,-0.350,-0.350,0.000,0.000,0.000
1641102704099149056,2022-01-02-05:51:44,10.1.1.6,190,-0.340,-0.340,-0.340,0.000,0.000,0.000
1641102704299303936,2022-01-02-05:51:44,10.1.1.6,190,-0.330,-0.330,-0.330,0.000,0.000,0.000
1641102704498066944,2022-01-02-05:51:44,10.1.1.6,189,-0.320,-0.320,-0.320,0.000,0.000,0.000
1641102704698004992,2022-01-02-05:51:44,10.1.1.6,188,-0.310,-0.310,-0.310,0.000,0.000,0.000
1641102704898046976,2022-01-02-05:51:44,10.1.1.6,187,-0.300,-0.300,-0.300,0.000,0.000,0.000
1641102705097528064,2022-01-02-05:51:45,10.1.1.6,186,-0.290,-0.290,-0.290,0.000,0.000,0.000
1641102705296880896,2022-01-02-05:51:45,10.1.1.6,185,-0.280,-0.280,-0.280,0.000,0.000,0.000
1641102705496781056,2022-01-02-05:51:45,10.1.1.6,184,-0.270,-0.270,-0.270,0.000,0.000,0.000
1641102705697390080,2022-01-02-05:51:45,10.1.1.6,184,-0.260,-0.260,-0.260,0.000,0.000,0.000
1641102705896869888,2022-01-02-05:51:45,10.1.1.6,183,-0.250,-0.250,-0.250,0.000,0.000,0.000
1641102706097008896,2022-01-02-05:51:46,10.1.1.6,183,-0.240,-0.240,-0.240,0.000,0.000,0.000
1641102706288199936,2022-01-02-05:51:46,10.1.1.6,172,-0.230,-0.230,-0.230,0.000,0.000,0.000
1641102706495689984,2022-01-02-05:51:46,10.1.1.6,181,-0.220,-0.220,-0.220,0.000,0.000,0.000
1641102706695424000,2022-01-02-05:51:46,10.1.1.6,180,-0.210,-0.210,-0.210,0.000,0.000,0.000
1641102706895326976,2022-01-02-05:51:46,10.1.1.6,179,-0.200,-0.200,-0.200,0.000,0.000,0.000
1641102706917500928,2022-01-02-05:51:46,10.1.1.6,-1,-0.200,-0.200,-0.200,0.000,0.000,0.000
1641102707294809088,2022-01-02-05:51:47,10.1.1.6,177,-0.180,-0.180,-0.180,0.000,0.000,0.000
1641102707494377984,2022-01-02-05:51:47,10.1.1.6,175,-0.170,-0.170,-0.170,0.000,0.000,0.000
1641102707694030080,2022-01-02-05:51:47,10.1.1.6,174,-0.160,-0.160,-0.160,0.000,0.000,0.000
1641102707893579008,2022-01-02-05:51:47,10.1.1.6,173,-0.150,-0.150,-0.150,0.000,0.000,0.000
1641102708093438976,2022-01-02-05:51:48,10.1.1.6,172,-0.140,-0.140,-0.140,0.000,0.000,0.000
1641102708292946176,2022-01-02-05:51:48,10.1.1.6,170,-0.130,-0.130,-0.130,0.000,0.000,0.000
1641102708492729856,2022-01-02-05:51:48,10.1.1.6,170,-0.120,-0.120,-0.120,0.000,0.000,0.000
1641102708692236800,2022-01-02-05:51:48,10.1.1.6,169,-0.110,-0.110,-0.110,0.000,0.000,0.000
1641102708892199936,2022-01-02-05:51:48,10.1.1.6,168,-0.100,-0.100,-0.100,0.000,0.000,0.000
1641102709092104960,2022-01-02-05:51:49,10.1.1.6,167,-0.090,-0.090,-0.090,0.000,0.000,0.000
1641102709292346880,2022-01-02-05:51:49,10.1.1.6,167,-0.080,-0.080,-0.080,0.000,0.000,0.000
1641102709511290112,2022-01-02-05:51:49,10.1.1.6,185,-0.070,-0.070,-0.070,0.000,0.000,0.000
1641102709691333888,2022-01-02-05:51:49,10.1.1.6,165,-0.060,-0.060,-0.060,0.000,0.000,0.000
1641102709890824960,2022-01-02-05:51:49,10.1.1.6,164,-0.050,-0.050,-0.050,0.000,0.000,0.000
1641102710111758080,2022-01-02-05:51:50,10.1.1.6,184,-0.040,-0.040,-0.040,0.000,0.000,0.000
1641102710310048000,2022-01-02-05:51:50,10.1.1.6,182,-0.030,-0.030,-0.030,0.000,0.000,0.000
1641102710510044160,2022-01-02-05:51:50,10.1.1.6,181,-0.020,-0.020,-0.020,0.000,0.000,0.000
1641102710709541120,2022-01-02-05:51:50,10.1.1.6,180,-0.010,-0.010,-0.010,0.000,0.000,0.000
1641102710909881088,2022-01-02-05:51:50,10.1.1.6,180,0.000,0.000,0.000,0.000,0.000,0.000
1641102711102345984,2022-01-02-05:51:51,10.1.1.6,172,-0.010,-0.010,-0.010,0.000,0.000,0.000
1641102711309922048,2022-01-02-05:51:51,10.1.1.6,179,-0.020,-0.020,-0.020,0.000,0.000,0.000
1641102711508210944,2022-01-02-05:51:51,10.1.1.6,177,-0.030,-0.030,-0.030,0.000,0.000,0.000
1641102711708093952,2022-01-02-05:51:51,10.1.1.6,176,-0.040,-0.040,-0.040,0.000,0.000,0.000
1641102711907752960,2022-01-02-05:51:51,10.1.1.6,175,-0.050,-0.050,-0.050,0.000,0.000,0.000
1641102712107659008,2022-01-02-05:51:52,10.1.1.6,175,-0.060,-0.060,-0.060,0.000,0.000,0.000
1641102712308427008,2022-01-02-05:51:52,10.1.1.6,175,-0.070,-0.070,-0.070,0.000,0.000,0.000
1641102712507194880,2022-01-02-05:51:52,10.1.1.6,173,-0.080,-0.080,-0.080,0.000,0.000,0.000
1641102712707081984,2022-01-02-05:51:52,10.1.1.6,173,-0.090,-0.090,-0.090,0.000,0.000,0.000
1641102712906018048,2022-01-02-05:51:52,10.1.1.6,171,-0.100,-0.100,-0.100,0.000,0.000,0.000
1641102713106099968,2022-01-02-05:51:53,10.1.1.6,171,-0.110,-0.110,-0.110,0.000,0.000,0.000
1641102713305383936,2022-01-02-05:51:53,10.1.1.6,168,-0.120,-0.120,-0.120,0.000,0.000,0.000
1641102713504662016,2022-01-02-05:51:53,10.1.1.6,165,-0.130,-0.130,-0.130,0.000,0.000,0.000
1641102713704702976,2022-01-02-05:51:53,10.1.1.6,164,-0.140,-0.140,-0.140,0.000,0.000,0.000
1641102713904854016,2022-01-02-05:51:53,10.1.1.6,163,-0.150,-0.150,-0.150,0.000,0.000,0.000
1641102714104739072,2022-01-02-05:51:54,10.1.1.6,161,-0.160,-0.160,-0.160,0.000,0.000,0.000
1641102714303931904,2022-01-02-05:51:54,10.1.1.6,160,-0.170,-0.170,-0.170,0.000,0.000,0.000
1641102714524455936,2022-01-02-05:51:54,10.1.1.6,180,-0.180,-0.180,-0.180,0.000,0.000,0.000
1641102714703331840,2022-01-02-05:51:54,10.1.1.6,158,-0.190,-0.190,-0.190,0.000,0.000,0.000
1641102714902992128,2022-01-02-05:51:54,10.1.1.6,157,-0.200,-0.200,-0.200,0.000,0.000,0.000
1641102715102770176,2022-01-02-05:51:55,10.1.1.6,157,-0.210,-0.210,-0.210,0.000,0.000,0.000
1641102715303024896,2022-01-02-05:51:55,10.1.1.6,156,-0.220,-0.220,-0.220,0.000,0.000,0.000
1641102715502841088,2022-01-02-05:51:55,10.1.1.6,156,-0.230,-0.230,-0.230,0.000,0.000,0.000
1641102715721669888,2022-01-02-05:51:55,10.1.1.6,174,-0.240,-0.240,-0.240,0.000,0.000,0.000
1641102715921190912,2022-01-02-05:51:55,10.1.1.6,173,-0.250,-0.250,-0.250,0.000,0.000,0.000
1641102716112282880,2022-01-02-05:51:56,10.1.1.6,164,-0.260,-0.260,-0.260,0.000,0.000,0.000
1641102716323256064,2022-01-02-05:51:56,10.1.1.6,174,-0.270,-0.270,-0.270,0.000,0.000,0.000
1641102716523758848,2022-01-02-05:51:56,10.1.1.6,174,-0.280,-0.280,-0.280,0.000,0.000,0.000
1641102716725112832,2022-01-02-05:51:56,10.1.1.6,175,-0.290,-0.290,-0.290,0.000,0.000,0.000
1641102716926106880,2022-01-02-05:51:56,10.1.1.6,176,-0.300,-0.300,-0.300,0.000,0.000,0.000
1641102717126589184,2022-01-02-05:51:57,10.1.1.6,175,-0.310,-0.310,-0.310,0.000,0.000,0.000
1641102717327963136,2022-01-02-05:51:57,10.1.1.6,176,-0.320,-0.320,-0.320,0.000,0.000,0.000
1641102717528446976,2022-01-02-05:51:57,10.1.1.6,176,-0.330,-0.330,-0.330,0.000,0.000,0.000
1641102717729518848,2022-01-02-05:51:57,10.1.1.6,177,-0.340,-0.340,-0.340,0.000,0.000,0.000
1641102717930619904,2022-01-02-05:51:57,10.1.1.6,177,-0.350,-0.350,-0.350,0.000,0.000,0.000
1641102718131532032,2022-01-02-05:51:58,10.1.1.6,177,-0.360,-0.360,-0.360,0.000,0.000,0.000
1641102718331927040,2022-01-02-05:51:58,10.1.1.6,177,-0.370,-0.370,-0.370,0.000,0.000,0.000
1641102718532459008,2022-01-02-05:51:58,10.1.1.6,177,-0.380,-0.380,-0.380,0.000,0.000,0.000
1641102718734023168,2022-01-02-05:51:58,10.1.1.6,179,-0.390,-0.390,-0.390,0.000,0.000,0.000
1641102718934253056,2022-01-02-05:51:58,10.1.1.6,178,-0.400,-0.400,-0.400,0.000,0.000,0.000
1641102719134934016,2022-01-02-05:51:59,10.1.1.6,178,-0.410,-0.410,-0.410,0.000,0.000,0.000
1641102719335608832,2022-01-02-05:51:59,10.1.1.6,178,-0.420,-0.420,-0.420,0.000,0.000,0.000
1641102719537206784,2022-01-02-05:51:59,10.1.1.6,179,-0.430,-0.430,-0.430,0.000,0.000,0.000
1641102719736488960,2022-01-02-05:51:59,10.1.1.6,178,-0.440,-0.440,-0.440,0.000,0.000,0.000
1641102719937072896,2022-01-02-05:51:59,10.1.1.6,178,-0.450,-0.450,-0.450,0.000,0.000,0.000
1641102720138013952,2022-01-02-05:52:00,10.1.1.6,179,-0.460,-0.460,-0.460,0.000,0.000,0.000
1641102720338327040,2022-01-02-05:52:00,10.1.1.6,179,-0.470,-0.470,-0.470,0.000,0.000,0.000
1641102720539417088,2022-01-02-05:52:00,10.1.1.6,179,-0.480,-0.480,-0.480,0.000,0.000,0.000
1641102720739255040,2022-01-02-05:52:00,10.1.1.6,178,-0.490,-0.490,-0.490,0.000,0.000,0.000
1641102720940208896,2022-01-02-05:52:00,10.1.1.6,179,-0.480,-0.480,-0.480,0.000,0.000,0.000
1641102721139802880,2022-01-02-05:52:01,10.1.1.6,178,-0.470,-0.470,-0.470,0.000,0.000,0.000
1641102721340452864,2022-01-02-05:52:01,10.1.1.6,178,-0.460,-0.460,-0.460,0.000,0.000,0.000
1641102721541250048,2022-01-02-05:52:01,10.1.1.6,178,-0.450,-0.450,-0.450,0.000,0.000,0.000
1641102721741820160,2022-01-02-05:52:01,10.1.1.6,179,-0.440,-0.440,-0.440,0.000,0.000,0.000
1641102721963025920,2022-01-02-05:52:01,10.1.1.6,199,-0.430,-0.430,-0.430,0.000,0.000,0.000
1641102722142179072,2022-01-02-05:52:02,10.1.1.6,178,-0.420,-0.420,-0.420,0.000,0.000,0.000
1641102722343688960,2022-01-02-05:52:02,10.1.1.6,178,-0.410,-0.410,-0.410,0.000,0.000,0.000
1641102722542778112,2022-01-02-05:52:02,10.1.1.6,177,-0.400,-0.400,-0.400,0.000,0.000,0.000
1641102722743074048,2022-01-02-05:52:02,10.1.1.6,176,-0.390,-0.390,-0.390,0.000,0.000,0.000
1641102722963280896,2022-01-02-05:52:02,10.1.1.6,196,-0.380,-0.380,-0.380,0.000,0.000,0.000
1641102723163494144,2022-01-02-05:52:03,10.1.1.6,196,-0.370,-0.370,-0.370,0.000,0.000,0.000
1641102723363908096,2022-01-02-05:52:03,10.1.1.6,195,-0.360,-0.360,-0.360,0.000,0.000,0.000
1641102723564186112,2022-01-02-05:52:03,10.1.1.6,195,-0.350,-0.350,-0.350,0.000,0.000,0.000
1641102723764389120,2022-01-02-05:52:03,10.1.1.6,195,-0.340,-0.340,-0.340,0.000,0.000,0.000
1641102723964942080,2022-01-02-05:52:03,10.1.1.6,195,-0.330,-0.330,-0.330,0.000,0.000,0.000
1641102724164550912,2022-01-02-05:52:04,10.1.1.6,194,-0.320,-0.320,-0.320,0.000,0.000,0.000
1641102724364666880,2022-01-02-05:52:04,10.1.1.6,193,-0.310,-0.310,-0.310,0.000,0.000,0.000
1641102724564652800,2022-01-02-05:52:04,10.1.1.6,193,-0.300,-0.300,-0.300,0.000,0.000,0.000
1641102724764563200,2022-01-02-05:52:04,10.1.1.6,192,-0.290,-0.290,-0.290,0.000,0.000,0.000
1641102724965579008,2022-01-02-05:52:04,10.1.1.6,192,-0.280,-0.280,-0.280,0.000,0.000,0.000
1641102725164913920,2022-01-02-05:52:05,10.1.1.6,191,-0.270,-0.270,-0.270,0.000,0.000,0.000
1641102725365061888,2022-01-02-05:52:05,10.1.1.6,191,-0.260,-0.260,-0.260,0.000,0.000,0.000
1641102725566041856,2022-01-02-05:52:05,10.1.1.6,191,-0.250,-0.250,-0.250,0.000,0.000,0.000
1641102725765145088,2022-01-02-05:52:05,10.1.1.6,188,-0.240,-0.240,-0.240,0.000,0.000,0.000
1641102725965063168,2022-01-02-05:52:05,10.1.1.6,186,-0.230,-0.230,-0.230,0.000,0.000,0.000
1641102726165510912,2022-01-02-05:52:06,10.1.1.6,186,-0.220,-0.220,-0.220,0.000,0.000,0.000
1641102726365155840,2022-01-02-05:52:06,10.1.1.6,184,-0.210,-0.210,-0.210,0.000,0.000,0.000
1641102726564976896,2022-01-02-05:52:06,10.1.1.6,183,-0.200,-0.200,-0.200,0.000,0.000,0.000
1641102726764972800,2022-01-02-05:52:06,10.1.1.6,183,-0.190,-0.190,-0.190,0.000,0.000,0.000
1641102726965490176,2022-01-02-05:52:06,10.1.1.6,183,-0.180,-0.180,-0.180,0.000,0.000,0.000
1641102727166305024,2022-01-02-05:52:07,10.1.1.6,183,-0.170,-0.170,-0.170,0.000,0.000,0.000
1641102727366051840,2022-01-02-05:52:07,10.1.1.6,182,-0.160,-0.160,-0.160,0.000,0.000,0.000
1641102727565825024,2022-01-02-05:52:07,10.1.1.6,180,-0.150,-0.150,-0.150,0.000,0.000,0.000
1641102727765476096,2022-01-02-05:52:07,10.1.1.6,179,-0.140,-0.140,-0.140,0.000,0.000,0.000
1641102727984758016,2022-01-02-05:52:07,10.1.1.6,197,-0.130,-0.130,-0.130,0.000,0.000,0.000
1641102728185067008,2022-01-02-05:52:08,10.1.1.6,196,-0.120,-0.120,-0.120,0.000,0.000,0.000
1641102728385630976,2022-01-02-05:52:08,10.1.1.6,196,-0.110,-0.110,-0.110,0.000,0.000,0.000
1641102728584971008,2022-01-02-05:52:08,10.1.1.6,195,-0.100,-0.100,-0.100,0.000,0.000,0.000
1641102728785860096,2022-01-02-05:52:08,10.1.1.6,195,-0.090,-0.090,-0.090,0.000,0.000,0.000
1641102728984942080,2022-01-02-05:52:08,10.1.1.6,193,-0.080,-0.080,-0.080,0.000,0.000,0.000
1641102729185159936,2022-01-02-05:52:09,10.1.1.6,193,-0.070,-0.070,-0.070,0.000,0.000,0.000
1641102729385360896,2022-01-02-05:52:09,10.1.1.6,193,-0.060,-0.060,-0.060,0.000,0.000,0.000
1641102729584847872,2022-01-02-05:52:09,10.1.1.6,192,-0.050,-0.050,-0.050,0.000,0.000,0.000
1641102729784986880,2022-01-02-05:52:09,10.1.1.6,191,-0.040,-0.040,-0.040,0.000,0.000,0.000
1641102729984581888,2022-01-02-05:52:09,10.1.1.6,190,-0.030,-0.030,-0.030,0.000,0.000,0.000
1641102730184400128,2022-01-02-05:52:10,10.1.1.6,189,-0.020,-0.020,-0.020,0.000,0.000,0.000
1641102730384521984,2022-01-02-05:52:10,10.1.1.6,189,-0.010,-0.010,-0.010,0.000,0.000,0.000
1641102730584312832,2022-01-02-05:52:10,10.1.1.6,188,0.000,0.000,0.000,0.000,0.000,0.000
1641102730785521920,2022-01-02-05:52:10,10.1.1.6,188,-0.010,-0.010,-0.010,0.000,0.000,0.000
1641102730983761920,2022-01-02-05:52:10,10.1.1.6,185,-0.020,-0.020,-0.020,0.000,0.000,0.000
1641102731184303104,2022-01-02-05:52:11,10.1.1.6,185,-0.030,-0.030,-0.030,0.000,0.000,0.000
1641102731384110080,2022-01-02-05:52:11,10.1.1.6,185,-0.040,-0.040,-0.040,0.000,0.000,0.000
1641102731584243968,2022-01-02-05:52:11,10.1.1.6,184,-0.050,-0.050,-0.050,0.000,0.000,0.000
1641102731783316992,2022-01-02-05:52:11,10.1.1.6,182,-0.060,-0.060,-0.060,0.000,0.000,0.000
1641102731983584000,2022-01-02-05:52:11,10.1.1.6,181,-0.070,-0.070,-0.070,0.000,0.000,0.000
1641102732182498048,2022-01-02-05:52:12,10.1.1.6,180,-0.080,-0.080,-0.080,0.000,0.000,0.000
1641102732382787072,2022-01-02-05:52:12,10.1.1.6,180,-0.090,-0.090,-0.090,0.000,0.000,0.000
1641102732582760960,2022-01-02-05:52:12,10.1.1.6,179,-0.100,-0.100,-0.100,0.000,0.000,0.000
1641102732782299904,2022-01-02-05:52:12,10.1.1.6,178,-0.110,-0.110,-0.110,0.000,0.000,0.000
1641102732982595840,2022-01-02-05:52:12,10.1.1.6,177,-0.120,-0.120,-0.120,0.000,0.000,0.000
1641102733182592000,2022-01-02-05:52:13,10.1.1.6,177,-0.130,-0.130,-0.130,0.000,0.000,0.000
1641102733401768960,2022-01-02-05:52:13,10.1.1.6,196,-0.140,-0.140,-0.140,0.000,0.000,0.000
1641102733581914880,2022-01-02-05:52:13,10.1.1.6,175,-0.150,-0.150,-0.150,0.000,0.000,0.000
1641102733781550848,2022-01-02-05:52:13,10.1.1.6,174,-0.160,-0.160,-0.160,0.000,0.000,0.000
1641102734001638912,2022-01-02-05:52:14,10.1.1.6,194,-0.170,-0.170,-0.170,0.000,0.000,0.000
1641102734200877056,2022-01-02-05:52:14,10.1.1.6,193,-0.180,-0.180,-0.180,0.000,0.000,0.000
1641102734400954880,2022-01-02-05:52:14,10.1.1.6,192,-0.190,-0.190,-0.190,0.000,0.000,0.000
1641102734591500032,2022-01-02-05:52:14,10.1.1.6,182,-0.200,-0.200,-0.200,0.000,0.000,0.000
1641102734800406016,2022-01-02-05:52:14,10.1.1.6,191,-0.210,-0.210,-0.210,0.000,0.000,0.000
1641102735000210944,2022-01-02-05:52:15,10.1.1.6,189,-0.220,-0.220,-0.220,0.000,0.000,0.000
1641102735199706112,2022-01-02-05:52:15,10.1.1.6,188,-0.230,-0.230,-0.230,0.000,0.000,0.000
1641102735399657984,2022-01-02-05:52:15,10.1.1.6,187,-0.240,-0.240,-0.240,0.000,0.000,0.000
1641102735599198976,2022-01-02-05:52:15,10.1.1.6,185,-0.250,-0.250,-0.250,0.000,0.000,0.000
1641102735799310848,2022-01-02-05:52:15,10.1.1.6,184,-0.260,-0.260,-0.260,0.000,0.000,0.000
1641102735999886080,2022-01-02-05:52:15,10.1.1.6,184,-0.270,-0.270,-0.270,0.000,0.000,0.000
1641102736199333888,2022-01-02-05:52:16,10.1.1.6,183,-0.280,-0.280,-0.280,0.000,0.000,0.000
1641102736399005952,2022-01-02-05:52:16,10.1.1.6,181,-0.290,-0.290,-0.290,0.000,0.000,0.000
1641102736598362880,2022-01-02-05:52:16,10.1.1.6,179,-0.300,-0.300,-0.300,0.000,0.000,0.000
1641102736798031104,2022-01-02-05:52:16,10.1.1.6,178,-0.310,-0.310,-0.310,0.000,0.000,0.000
1641102736998189824,2022-01-02-05:52:16,10.1.1.6,177,-0.320,-0.320,-0.320,0.000,0.000,0.000
1641102737198002176,2022-01-02-05:52:17,10.1.1.6,176,-0.330,-0.330,-0.330,0.000,0.000,0.000
1641102737397347072,2022-01-02-05:52:17,10.1.1.6,174,-0.340,-0.340,-0.340,0.000,0.000,0.000
1641102737597182976,2022-01-02-05:52:17,10.1.1.6,173,-0.350,-0.350,-0.350,0.000,0.000,0.000
1641102737797280000,2022-01-02-05:52:17,10.1.1.6,173,-0.360,-0.360,-0.360,0.000,0.000,0.000
1641102737996843008,2022-01-02-05:52:17,10.1.1.6,172,-0.370,-0.370,-0.370,0.000,0.000,0.000
1641102738196947200,2022-01-02-05:52:18,10.1.1.6,171,-0.380,-0.380,-0.380,0.000,0.000,0.000
1641102738396078080,2022-01-02-05:52:18,10.1.1.6,170,-0.390,-0.390,-0.390,0.000,0.000,0.000
1641102738616038144,2022-01-02-05:52:18,10.1.1.6,189,-0.400,-0.400,-0.400,0.000,0.000,0.000
1641102738811938048,2022-01-02-05:52:18,10.1.1.6,181,-0.410,-0.410,-0.410,0.000,0.000,0.000
1641102739014839808,2022-01-02-05:52:19,10.1.1.6,182,-0.420,-0.420,-0.420,0.000,0.000,0.000
1641102739214766080,2022-01-02-05:52:19,10.1.1.6,181,-0.430,-0.430,-0.430,0.000,0.000,0.000
1641102739415347968,2022-01-02-05:52:19,10.1.1.6,181,-0.440,-0.440,-0.440,0.000,0.000,0.000
1641102739614150144,2022-01-02-05:52:19,10.1.1.6,179,-0.450,-0.450,-0.450,0.000,0.000,0.000
1641102739813677056,2022-01-02-05:52:19,10.1.1.6,178,-0.460,-0.460,-0.460,0.000,0.000,0.000
1641102740013506816,2022-01-02-05:52:20,10.1.1.6,177,-0.470,-0.470,-0.470,0.000,0.000,0.000
1641102740213645824,2022-01-02-05:52:20,10.1.1.6,176,-0.480,-0.480,-0.480,0.000,0.000,0.000
1641102740413304064,2022-01-02-05:52:20,10.1.1.6,175,-0.490,-0.490,-0.490,0.000,0.000,0.000
1641102740612782848,2022-01-02-05:52:20,10.1.1.6,174,-0.480,-0.480,-0.480,0.000,0.000,0.000
1641102740813095168,2022-01-02-05:52:20,10.1.1.6,174,-0.470,-0.470,-0.470,0.000,0.000,0.000
1641102741012327936,2022-01-02-05:52:21,10.1.1.6,173,-0.460,-0.460,-0.460,0.000,0.000,0.000
1641102741211937024,2022-01-02-05:52:21,10.1.1.6,172,-0.450,-0.450,-0.450,0.000,0.000,0.000
1641102741411518976,2022-01-02-05:52:21,10.1.1.6,171,-0.440,-0.440,-0.440,0.000,0.000,0.000
1641102741612369152,2022-01-02-05:52:21,10.1.1.6,170,-0.430,-0.430,-0.430,0.000,0.000,0.000
1641102741811819008,2022-01-02-05:52:21,10.1.1.6,169,-0.420,-0.420,-0.420,0.000,0.000,0.000
1641102742011369984,2022-01-02-05:52:22,10.1.1.6,168,-0.410,-0.410,-0.410,0.000,0.000,0.000
1641102742210838016,2022-01-02-05:52:22,10.1.1.6,167,-0.400,-0.400,-0.400,0.000,0.000,0.000
1641102742409778176,2022-01-02-05:52:22,10.1.1.6,165,-0.390,-0.390,-0.390,0.000,0.000,0.000
1641102742610560000,2022-01-02-05:52:22,10.1.1.6,166,-0.380,-0.380,-0.380,0.000,0.000,0.000
1641102742809315840,2022-01-02-05:52:22,10.1.1.6,164,-0.370,-0.370,-0.370,0.000,0.000,0.000
1641102743011437056,2022-01-02-05:52:23,10.1.1.6,164,-0.360,-0.360,-0.360,0.000,0.000,0.000
1641102743229698048,2022-01-02-05:52:23,10.1.1.6,182,-0.350,-0.350,-0.350,0.000,0.000,0.000
1641102743428782848,2022-01-02-05:52:23,10.1.1.6,181,-0.340,-0.340,-0.340,0.000,0.000,0.000
1641102743628956928,2022-01-02-05:52:23,10.1.1.6,180,-0.330,-0.330,-0.330,0.000,0.000,0.000
1641102743822050048,2022-01-02-05:52:23,10.1.1.6,172,-0.320,-0.320,-0.320,0.000,0.000,0.000
1641102744028197120,2022-01-02-05:52:24,10.1.1.6,176,-0.310,-0.310,-0.310,0.000,0.000,0.000
1641102744227490048,2022-01-02-05:52:24,10.1.1.6,175,-0.300,-0.300,-0.300,0.000,0.000,0.000
1641102744428008192,2022-01-02-05:52:24,10.1.1.6,174,-0.290,-0.290,-0.290,0.000,0.000,0.000
1641102744626941952,2022-01-02-05:52:24,10.1.1.6,173,-0.280,-0.280,-0.280,0.000,0.000,0.000
1641102744821521920,2022-01-02-05:52:24,10.1.1.6,167,-0.270,-0.270,-0.270,0.000,0.000,0.000
1641102745023070208,2022-01-02-05:52:25,10.1.1.6,167,-0.260,-0.260,-0.260,0.000,0.000,0.000
1641102745225894912,2022-01-02-05:52:25,10.1.1.6,169,-0.250,-0.250,-0.250,0.000,0.000,0.000
1641102745427460864,2022-01-02-05:52:25,10.1.1.6,170,-0.240,-0.240,-0.240,0.000,0.000,0.000
1641102745625172992,2022-01-02-05:52:25,10.1.1.6,167,-0.230,-0.230,-0.230,0.000,0.000,0.000
1641102745824574976,2022-01-02-05:52:25,10.1.1.6,165,-0.220,-0.220,-0.220,0.000,0.000,0.000
1641102746024090880,2022-01-02-05:52:26,10.1.1.6,164,-0.210,-0.210,-0.210,0.000,0.000,0.000
1641102746229673984,2022-01-02-05:52:26,10.1.1.6,169,-0.200,-0.200,-0.200,0.000,0.000,0.000
1641102746424493056,2022-01-02-05:52:26,10.1.1.6,163,-0.190,-0.190,-0.190,0.000,0.000,0.000
1641102746623505152,2022-01-02-05:52:26,10.1.1.6,161,-0.180,-0.180,-0.180,0.000,0.000,0.000
1641102746823414016,2022-01-02-05:52:26,10.1.1.6,161,-0.170,-0.170,-0.170,0.000,0.000,0.000
1641102747024094976,2022-01-02-05:52:27,10.1.1.6,161,-0.160,-0.160,-0.160,0.000,0.000,0.000
1641102747222331136,2022-01-02-05:52:27,10.1.1.6,158,-0.150,-0.150,-0.150,0.000,0.000,0.000
1641102747442614016,2022-01-02-05:52:27,10.1.1.6,178,-0.140,-0.140,-0.140,0.000,0.000,0.000
1641102747622342144,2022-01-02-05:52:27,10.1.1.6,157,-0.130,-0.130,-0.130,0.000,0.000,0.000
1641102747841628160,2022-01-02-05:52:27,10.1.1.6,176,-0.120,-0.120,-0.120,0.000,0.000,0.000
1641102748021657856,2022-01-02-05:52:28,10.1.1.6,155,-0.110,-0.110,-0.110,0.000,0.000,0.000
1641102748242472960,2022-01-02-05:52:28,10.1.1.6,175,-0.100,-0.100,-0.100,0.000,0.000,0.000
1641102748444233984,2022-01-02-05:52:28,10.1.1.6,175,-0.090,-0.090,-0.090,0.000,0.000,0.000
1641102748645838848,2022-01-02-05:52:28,10.1.1.6,176,-0.080,-0.080,-0.080,0.000,0.000,0.000
1641102748845940224,2022-01-02-05:52:28,10.1.1.6,175,-0.070,-0.070,-0.070,0.000,0.000,0.000
1641102749047828992,2022-01-02-05:52:29,10.1.1.6,176,-0.060,-0.060,-0.060,0.000,0.000,0.000
1641102749248179968,2022-01-02-05:52:29,10.1.1.6,176,-0.050,-0.050,-0.050,0.000,0.000,0.000
1641102749449148928,2022-01-02-05:52:29,10.1.1.6,176,-0.040,-0.040,-0.040,0.000,0.000,0.000
1641102749649229056,2022-01-02-05:52:29,10.1.1.6,176,-0.030,-0.030,-0.030,0.000,0.000,0.000
1641102749850102784,2022-01-02-05:52:29,10.1.1.6,176,-0.020,-0.020,-0.020,0.000,0.000,0.000
1641102750051472896,2022-01-02-05:52:30,10.1.1.6,177,-0.010,-0.010,-0.010,0.000,0.000,0.000
1641102750252803072,2022-01-02-05:52:30,10.1.1.6,176,0.000,0.000,0.000,0.000,0.000,0.000
1641102750452742144,2022-01-02-05:52:30,10.1.1.6,176,-0.010,-0.010,-0.010,0.000,0.000,0.000
1641102750653676032,2022-01-02-05:52:30,10.1.1.6,176,-0.020,-0.020,-0.020,0.000,0.000,0.000
1641102750854368000,2022-01-02-05:52:30,10.1.1.6,176,-0.030,-0.030,-0.030,0.000,0.000,0.000
1641102751055995904,2022-01-02-05:52:31,10.1.1.6,178,-0.040,-0.040,-0.040,0.000,0.000,0.000
1641102751255961856,2022-01-02-05:52:31,10.1.1.6,177,-0.050,-0.050,-0.050,0.000,0.000,0.000
1641102751457014016,2022-01-02-05:52:31,10.1.1.6,177,-0.060,-0.060,-0.060,0.000,0.000,0.000
1641102751656854016,2022-01-02-05:52:31,10.1.1.6,176,-0.070,-0.070,-0.070,0.000,0.000,0.000
1641102751857533952,2022-01-02-05:52:31,10.1.1.6,176,-0.080,-0.080,-0.080,0.000,0.000,0.000
1641102752058439936,2022-01-02-05:52:32,10.1.1.6,177,-0.090,-0.090,-0.090,0.000,0.000,0.000
1641102752258738944,2022-01-02-05:52:32,10.1.1.6,176,-0.100,-0.100,-0.100,0.000,0.000,0.000
1641102752458908160,2022-01-02-05:52:32,10.1.1.6,176,-0.110,-0.110,-0.110,0.000,0.000,0.000
1641102752659867136,2022-01-02-05:52:32,10.1.1.6,176,-0.120,-0.120,-0.120,0.000,0.000,0.000
1641102752860041984,2022-01-02-05:52:32,10.1.1.6,175,-0.130,-0.130,-0.130,0.000,0.000,0.000
1641102753061255936,2022-01-02-05:52:33,10.1.1.6,175,-0.140,-0.140,-0.140,0.000,0.000,0.000
1641102753281035008,2022-01-02-05:52:33,10.1.1.6,194,-0.150,-0.150,-0.150,0.000,0.000,0.000
1641102753482223104,2022-01-02-05:52:33,10.1.1.6,194,-0.160,-0.160,-0.160,0.000,0.000,0.000
1641102753681564160,2022-01-02-05:52:33,10.1.1.6,192,-0.170,-0.170,-0.170,0.000,0.000,0.000
1641102753882029056,2022-01-02-05:52:33,10.1.1.6,192,-0.180,-0.180,-0.180,0.000,0.000,0.000
1641102754082338048,2022-01-02-05:52:34,10.1.1.6,191,-0.190,-0.190,-0.190,0.000,0.000,0.000
1641102754285010944,2022-01-02-05:52:34,10.1.1.6,193,-0.200,-0.200,-0.200,0.000,0.000,0.000
1641102754483789056,2022-01-02-05:52:34,10.1.1.6,190,-0.210,-0.210,-0.210,0.000,0.000,0.000
1641102754683433984,2022-01-02-05:52:34,10.1.1.6,189,-0.220,-0.220,-0.220,0.000,0.000,0.000
1641102754884224768,2022-01-02-05:52:34,10.1.1.6,189,-0.230,-0.230,-0.230,0.000,0.000,0.000
1641102755084758016,2022-01-02-05:52:35,10.1.1.6,189,-0.240,-0.240,-0.240,0.000,0.000,0.000
1641102755284001024,2022-01-02-05:52:35,10.1.1.6,187,-0.250,-0.250,-0.250,0.000,0.000,0.000
1641102755484653824,2022-01-02-05:52:35,10.1.1.6,187,-0.260,-0.260,-0.260,0.000,0.000,0.000
1641102755885442048,2022-01-02-05:52:35,10.1.1.6,187,-0.280,-0.280,-0.280,0.000,0.000,0.000
1641102756285521920,2022-01-02-05:52:36,10.1.1.6,186,-0.300,-0.300,-0.300,0.000,0.000,0.000
1641102756485662976,2022-01-02-05:52:36,10.1.1.6,185,-0.310,-0.310,-0.310,0.000,0.000,0.000
1641102756685753088,2022-01-02-05:52:36,10.1.1.6,184,-0.320,-0.320,-0.320,0.000,0.000,0.000
1641102756885818880,2022-01-02-05:52:36,10.1.1.6,184,-0.330,-0.330,-0.330,0.000,0.000,0.000
1641102757086344960,2022-01-02-05:52:37,10.1.1.6,183,-0.340,-0.340,-0.340,0.000,0.000,0.000
1641102757286845952,2022-01-02-05:52:37,10.1.1.6,182,-0.350,-0.350,-0.350,0.000,0.000,0.000
1641102757486823168,2022-01-02-05:52:37,10.1.1.6,182,-0.360,-0.360,-0.360,0.000,0.000,0.000
1641102757686616832,2022-01-02-05:52:37,10.1.1.6,180,-0.370,-0.370,-0.370,0.000,0.000,0.000
1641102757887182848,2022-01-02-05:52:37,10.1.1.6,180,-0.380,-0.380,-0.380,0.000,0.000,0.000
1641102758106105088,2022-01-02-05:52:38,10.1.1.6,198,-0.390,-0.390,-0.390,0.000,0.000,0.000
1641102758306845952,2022-01-02-05:52:38,10.1.1.6,197,-0.400,-0.400,-0.400,0.000,0.000,0.000
1641102758506903040,2022-01-02-05:52:38,10.1.1.6,197,-0.410,-0.410,-0.410,0.000,0.000,0.000
1641102758706267136,2022-01-02-05:52:38,10.1.1.6,195,-0.420,-0.420,-0.420,0.000,0.000,0.000
1641102758906457856,2022-01-02-05:52:38,10.1.1.6,193,-0.430,-0.430,-0.430,0.000,0.000,0.000
1641102759106726912,2022-01-02-05:52:39,10.1.1.6,193,-0.440,-0.440,-0.440,0.000,0.000,0.000
1641102759306967040,2022-01-02-05:52:39,10.1.1.6,192,-0.450,-0.450,-0.450,0.000,0.000,0.000
1641102759506807040,2022-01-02-05:52:39,10.1.1.6,191,-0.460,-0.460,-0.460,0.000,0.000,0.000
1641102759706756096,2022-01-02-05:52:39,10.1.1.6,191,-0.470,-0.470,-0.470,0.000,0.000,0.000
1641102759906481152,2022-01-02-05:52:39,10.1.1.6,189,-0.480,-0.480,-0.480,0.000,0.000,0.000
1641102760107033856,2022-01-02-05:52:40,10.1.1.6,188,-0.490,-0.490,-0.490,0.000,0.000,0.000
1641102760306027008,2022-01-02-05:52:40,10.1.1.6,185,-0.480,-0.480,-0.480,0.000,0.000,0.000
1641102760508375040,2022-01-02-05:52:40,10.1.1.6,186,-0.470,-0.470,-0.470,0.000,0.000,0.000
1641102760706224896,2022-01-02-05:52:40,10.1.1.6,183,-0.460,-0.460,-0.460,0.000,0.000,0.000
1641102760907161856,2022-01-02-05:52:40,10.1.1.6,183,-0.450,-0.450,-0.450,0.000,0.000,0.000
1641102761105874176,2022-01-02-05:52:41,10.1.1.6,180,-0.440,-0.440,-0.440,0.000,0.000,0.000
1641102761305991936,2022-01-02-05:52:41,10.1.1.6,179,-0.430,-0.430,-0.430,0.000,0.000,0.000
1641102761525795840,2022-01-02-05:52:41,10.1.1.6,198,-0.420,-0.420,-0.420,0.000,0.000,0.000
1641102761726371072,2022-01-02-05:52:41,10.1.1.6,198,-0.410,-0.410,-0.410,0.000,0.000,0.000
1641102761925446912,2022-01-02-05:52:41,10.1.1.6,196,-0.400,-0.400,-0.400,0.000,0.000,0.000
1641102762116705792,2022-01-02-05:52:42,10.1.1.6,187,-0.390,-0.390,-0.390,0.000,0.000,0.000
1641102762325479936,2022-01-02-05:52:42,10.1.1.6,195,-0.380,-0.380,-0.380,0.000,0.000,0.000
1641102762526971136,2022-01-02-05:52:42,10.1.1.6,196,-0.370,-0.370,-0.370,0.000,0.000,0.000
1641102762722511104,2022-01-02-05:52:42,10.1.1.6,191,-0.360,-0.360,-0.360,0.000,0.000,0.000
1641102762925280000,2022-01-02-05:52:42,10.1.1.6,192,-0.350,-0.350,-0.350,0.000,0.000,0.000
1641102763124686848,2022-01-02-05:52:43,10.1.1.6,191,-0.340,-0.340,-0.340,0.000,0.000,0.000
1641102763324932096,2022-01-02-05:52:43,10.1.1.6,191,-0.330,-0.330,-0.330,0.000,0.000,0.000
1641102763524529920,2022-01-02-05:52:43,10.1.1.6,190,-0.320,-0.320,-0.320,0.000,0.000,0.000
1641102763744178176,2022-01-02-05:52:43,10.1.1.6,194,-0.310,-0.310,-0.310,0.000,0.000,0.000
1641102763944459008,2022-01-02-05:52:43,10.1.1.6,194,-0.300,-0.300,-0.300,0.000,0.000,0.000
1641102764144582144,2022-01-02-05:52:44,10.1.1.6,193,-0.290,-0.290,-0.290,0.000,0.000,0.000
1641102764343617024,2022-01-02-05:52:44,10.1.1.6,192,-0.280,-0.280,-0.280,0.000,0.000,0.000
1641102764543905024,2022-01-02-05:52:44,10.1.1.6,191,-0.270,-0.270,-0.270,0.000,0.000,0.000
1641102764743525120,2022-01-02-05:52:44,10.1.1.6,191,-0.260,-0.260,-0.260,0.000,0.000,0.000
1641102764943222016,2022-01-02-05:52:44,10.1.1.6,190,-0.250,-0.250,-0.250,0.000,0.000,0.000
1641102765144165120,2022-01-02-05:52:45,10.1.1.6,189,-0.240,-0.240,-0.240,0.000,0.000,0.000
1641102765343729920,2022-01-02-05:52:45,10.1.1.6,188,-0.230,-0.230,-0.230,0.000,0.000,0.000
1641102765542349056,2022-01-02-05:52:45,10.1.1.6,186,-0.220,-0.220,-0.220,0.000,0.000,0.000
1641102765742469120,2022-01-02-05:52:45,10.1.1.6,185,-0.210,-0.210,-0.210,0.000,0.000,0.000
1641102765942432000,2022-01-02-05:52:45,10.1.1.6,183,-0.200,-0.200,-0.200,0.000,0.000,0.000
1641102766142807040,2022-01-02-05:52:46,10.1.1.6,183,-0.190,-0.190,-0.190,0.000,0.000,0.000
1641102766344990976,2022-01-02-05:52:46,10.1.1.6,184,-0.180,-0.180,-0.180,0.000,0.000,0.000
1641102766554665984,2022-01-02-05:52:46,10.1.1.6,194,-0.170,-0.170,-0.170,0.000,0.000,0.000
1641102766741746944,2022-01-02-05:52:46,10.1.1.6,180,-0.160,-0.160,-0.160,0.000,0.000,0.000
1641102766940993024,2022-01-02-05:52:46,10.1.1.6,179,-0.150,-0.150,-0.150,0.000,0.000,0.000
1641102767141287936,2022-01-02-05:52:47,10.1.1.6,178,-0.140,-0.140,-0.140,0.000,0.000,0.000
1641102767341540096,2022-01-02-05:52:47,10.1.1.6,178,-0.130,-0.130,-0.130,0.000,0.000,0.000
1641102767541403136,2022-01-02-05:52:47,10.1.1.6,177,-0.120,-0.120,-0.120,0.000,0.000,0.000
1641102767740385024,2022-01-02-05:52:47,10.1.1.6,175,-0.110,-0.110,-0.110,0.000,0.000,0.000
1641102767940876032,2022-01-02-05:52:47,10.1.1.6,174,-0.100,-0.100,-0.100,0.000,0.000,0.000
1641102768161127936,2022-01-02-05:52:48,10.1.1.6,193,-0.090,-0.090,-0.090,0.000,0.000,0.000
1641102768360997888,2022-01-02-05:52:48,10.1.1.6,192,-0.080,-0.080,-0.080,0.000,0.000,0.000
1641102768559995904,2022-01-02-05:52:48,10.1.1.6,188,-0.070,-0.070,-0.070,0.000,0.000,0.000
1641102768759143168,2022-01-02-05:52:48,10.1.1.6,185,-0.060,-0.060,-0.060,0.000,0.000,0.000
1641102768960474880,2022-01-02-05:52:48,10.1.1.6,186,-0.050,-0.050,-0.050,0.000,0.000,0.000
1641102769159228160,2022-01-02-05:52:49,10.1.1.6,183,-0.040,-0.040,-0.040,0.000,0.000,0.000
1641102769358580992,2022-01-02-05:52:49,10.1.1.6,182,-0.030,-0.030,-0.030,0.000,0.000,0.000
1641102769558547968,2022-01-02-05:52:49,10.1.1.6,181,-0.020,-0.020,-0.020,0.000,0.000,0.000
1641102769758064896,2022-01-02-05:52:49,10.1.1.6,180,-0.010,-0.010,-0.010,0.000,0.000,0.000
1641102769978823936,2022-01-02-05:52:49,10.1.1.6,198,0.000,0.000,0.000,0.000,0.000,0.000
1641102770157883904,2022-01-02-05:52:50,10.1.1.6,178,-0.010,-0.010,-0.010,0.000,0.000,0.000
1641102770357620992,2022-01-02-05:52:50,10.1.1.6,177,-0.020,-0.020,-0.020,0.000,0.000,0.000
1641102770556706816,2022-01-02-05:52:50,10.1.1.6,175,-0.030,-0.030,-0.030,0.000,0.000,0.000
1641102770756764928,2022-01-02-05:52:50,10.1.1.6,175,-0.040,-0.040,-0.040,0.000,0.000,0.000
1641102770972368128,2022-01-02-05:52:50,10.1.1.6,189,-0.050,-0.050,-0.050,0.000,0.000,0.000
1641102771155687936,2022-01-02-05:52:51,10.1.1.6,172,-0.060,-0.060,-0.060,0.000,0.000,0.000
1641102771355771136,2022-01-02-05:52:51,10.1.1.6,172,-0.070,-0.070,-0.070,0.000,0.000,0.000
1641102771555607040,2022-01-02-05:52:51,10.1.1.6,170,-0.080,-0.080,-0.080,0.000,0.000,0.000
1641102771755548928,2022-01-02-05:52:51,10.1.1.6,169,-0.090,-0.090,-0.090,0.000,0.000,0.000
1641102771955367936,2022-01-02-05:52:51,10.1.1.6,169,-0.100,-0.100,-0.100,0.000,0.000,0.000
1641102772175453952,2022-01-02-05:52:52,10.1.1.6,188,-0.110,-0.110,-0.110,0.000,0.000,0.000
1641102772373980160,2022-01-02-05:52:52,10.1.1.6,185,-0.120,-0.120,-0.120,0.000,0.000,0.000
1641102772574661888,2022-01-02-05:52:52,10.1.1.6,184,-0.130,-0.130,-0.130,0.000,0.000,0.000
1641102772773662976,2022-01-02-05:52:52,10.1.1.6,183,-0.140,-0.140,-0.140,0.000,0.000,0.000
1641102772974019072,2022-01-02-05:52:52,10.1.1.6,183,-0.150,-0.150,-0.150,0.000,0.000,0.000
1641102773173922048,2022-01-02-05:52:53,10.1.1.6,182,-0.160,-0.160,-0.160,0.000,0.000,0.000
1641102773372409088,2022-01-02-05:52:53,10.1.1.6,180,-0.170,-0.170,-0.170,0.000,0.000,0.000
1641102773573430016,2022-01-02-05:52:53,10.1.1.6,181,-0.180,-0.180,-0.180,0.000,0.000,0.000
1641102773773001984,2022-01-02-05:52:53,10.1.1.6,179,-0.190,-0.190,-0.190,0.000,0.000,0.000
1641102773962694912,2022-01-02-05:52:53,10.1.1.6,168,-0.200,-0.200,-0.200,0.000,0.000,0.000
1641102774171427072,2022-01-02-05:52:54,10.1.1.6,176,-0.210,-0.210,-0.210,0.000,0.000,0.000
1641102774371636992,2022-01-02-05:52:54,10.1.1.6,175,-0.220,-0.220,-0.220,0.000,0.000,0.000
1641102774571211008,2022-01-02-05:52:54,10.1.1.6,174,-0.230,-0.230,-0.230,0.000,0.000,0.000
1641102774770665984,2022-01-02-05:52:54,10.1.1.6,173,-0.240,-0.240,-0.240,0.000,0.000,0.000
1641102774972032000,2022-01-02-05:52:54,10.1.1.6,173,-0.250,-0.250,-0.250,0.000,0.000,0.000
1641102775170500096,2022-01-02-05:52:55,10.1.1.6,171,-0.260,-0.260,-0.260,0.000,0.000,0.000
1641102775369588992,2022-01-02-05:52:55,10.1.1.6,170,-0.270,-0.270,-0.270,0.000,0.000,0.000
1641102775568975872,2022-01-02-05:52:55,10.1.1.6,168,-0.280,-0.280,-0.280,0.000,0.000,0.000
1641102775769042944,2022-01-02-05:52:55,10.1.1.6,165,-0.290,-0.290,-0.290,0.000,0.000,0.000
1641102775969336064,2022-01-02-05:52:55,10.1.1.6,164,-0.300,-0.300,-0.300,0.000,0.000,0.000
1641102776189147904,2022-01-02-05:52:56,10.1.1.6,183,-0.310,-0.310,-0.310,0.000,0.000,0.000
1641102776367943936,2022-01-02-05:52:56,10.1.1.6,162,-0.320,-0.320,-0.320,0.000,0.000,0.000
1641102776568242176,2022-01-02-05:52:56,10.1.1.6,161,-0.330,-0.330,-0.330,0.000,0.000,0.000
1641102776787939072,2022-01-02-05:52:56,10.1.1.6,180,-0.340,-0.340,-0.340,0.000,0.000,0.000
1641102776988145152,2022-01-02-05:52:56,10.1.1.6,179,-0.350,-0.350,-0.350,0.000,0.000,0.000
1641102777186683904,2022-01-02-05:52:57,10.1.1.6,177,-0.360,-0.360,-0.360,0.000,0.000,0.000
1641102777386995968,2022-01-02-05:52:57,10.1.1.6,176,-0.370,-0.370,-0.370,0.000,0.000,0.000
1641102777581899008,2022-01-02-05:52:57,10.1.1.6,170,-0.380,-0.380,-0.380,0.000,0.000,0.000
1641102777786473984,2022-01-02-05:52:57,10.1.1.6,173,-0.390,-0.390,-0.390,0.000,0.000,0.000
1641102777985580032,2022-01-02-05:52:57,10.1.1.6,173,-0.400,-0.400,-0.400,0.000,0.000,0.000
1641102778185803008,2022-01-02-05:52:58,10.1.1.6,172,-0.410,-0.410,-0.410,0.000,0.000,0.000
1641102778385942016,2022-01-02-05:52:58,10.1.1.6,169,-0.420,-0.420,-0.420,0.000,0.000,0.000
1641102778584904960,2022-01-02-05:52:58,10.1.1.6,168,-0.430,-0.430,-0.430,0.000,0.000,0.000
1641102778785208832,2022-01-02-05:52:58,10.1.1.6,167,-0.440,-0.440,-0.440,0.000,0.000,0.000
1641102778984188160,2022-01-02-05:52:58,10.1.1.6,165,-0.450,-0.450,-0.450,0.000,0.000,0.000
1641102779184339968,2022-01-02-05:52:59,10.1.1.6,164,-0.460,-0.460,-0.460,0.000,0.000,0.000
1641102779386078976,2022-01-02-05:52:59,10.1.1.6,165,-0.470,-0.470,-0.470,0.000,0.000,0.000
1641102779583579136,2022-01-02-05:52:59,10.1.1.6,162,-0.480,-0.480,-0.480,0.000,0.000,0.000
1641102779783173120,2022-01-02-05:52:59,10.1.1.6,159,-0.490,-0.490,-0.490,0.000,0.000,0.000
1641102779982955008,2022-01-02-05:52:59,10.1.1.6,158,-0.480,-0.480,-0.480,0.000,0.000,0.000
1641102780183717120,2022-01-02-05:53:00,10.1.1.6,159,-0.470,-0.470,-0.470,0.000,0.000,0.000
1641102780384774912,2022-01-02-05:53:00,10.1.1.6,159,-0.460,-0.460,-0.460,0.000,0.000,0.000
1641102780585617920,2022-01-02-05:53:00,10.1.1.6,159,-0.450,-0.450,-0.450,0.000,0.000,0.000
1641102780807898112,2022-01-02-05:53:00,10.1.1.6,180,-0.440,-0.440,-0.440,0.000,0.000,0.000
1641102781009020160,2022-01-02-05:53:01,10.1.1.6,180,-0.430,-0.430,-0.430,0.000,0.000,0.000
1641102781209083136,2022-01-02-05:53:01,10.1.1.6,180,-0.420,-0.420,-0.420,0.000,0.000,0.000
1641102781409678080,2022-01-02-05:53:01,10.1.1.6,179,-0.410,-0.410,-0.410,0.000,0.000,0.000
1641102781611558912,2022-01-02-05:53:01,10.1.1.6,180,-0.400,-0.400,-0.400,0.000,0.000,0.000
1641102781812186880,2022-01-02-05:53:01,10.1.1.6,181,-0.390,-0.390,-0.390,0.000,0.000,0.000
1641102782002181888,2022-01-02-05:53:02,10.1.1.6,170,-0.380,-0.380,-0.380,0.000,0.000,0.000
1641102782203483136,2022-01-02-05:53:02,10.1.1.6,171,-0.370,-0.370,-0.370,0.000,0.000,0.000
1641102782414256128,2022-01-02-05:53:02,10.1.1.6,181,-0.360,-0.360,-0.360,0.000,0.000,0.000
1641102782615324928,2022-01-02-05:53:02,10.1.1.6,181,-0.350,-0.350,-0.350,0.000,0.000,0.000
1641102782815581952,2022-01-02-05:53:02,10.1.1.6,181,-0.340,-0.340,-0.340,0.000,0.000,0.000
1641102783016460032,2022-01-02-05:53:03,10.1.1.6,180,-0.330,-0.330,-0.330,0.000,0.000,0.000
1641102783217384192,2022-01-02-05:53:03,10.1.1.6,180,-0.320,-0.320,-0.320,0.000,0.000,0.000
1641102783417241088,2022-01-02-05:53:03,10.1.1.6,179,-0.310,-0.310,-0.310,0.000,0.000,0.000
1641102783618189056,2022-01-02-05:53:03,10.1.1.6,180,-0.300,-0.300,-0.300,0.000,0.000,0.000
1641102783819600128,2022-01-02-05:53:03,10.1.1.6,180,-0.290,-0.290,-0.290,0.000,0.000,0.000
1641102784019640064,2022-01-02-05:53:04,10.1.1.6,180,-0.280,-0.280,-0.280,0.000,0.000,0.000
1641102784220068096,2022-01-02-05:53:04,10.1.1.6,179,-0.270,-0.270,-0.270,0.000,0.000,0.000
1641102784420145920,2022-01-02-05:53:04,10.1.1.6,179,-0.260,-0.260,-0.260,0.000,0.000,0.000
1641102784620678912,2022-01-02-05:53:04,10.1.1.6,178,-0.250,-0.250,-0.250,0.000,0.000,0.000
1641102784821798144,2022-01-02-05:53:04,10.1.1.6,177,-0.240,-0.240,-0.240,0.000,0.000,0.000
1641102785022386944,2022-01-02-05:53:05,10.1.1.6,177,-0.230,-0.230,-0.230,0.000,0.000,0.000
1641102785222227968,2022-01-02-05:53:05,10.1.1.6,176,-0.220,-0.220,-0.220,0.000,0.000,0.000
1641102785422784000,2022-01-02-05:53:05,10.1.1.6,176,-0.210,-0.210,-0.210,0.000,0.000,0.000
1641102785643385856,2022-01-02-05:53:05,10.1.1.6,195,-0.200,-0.200,-0.200,0.000,0.000,0.000
1641102785837053184,2022-01-02-05:53:05,10.1.1.6,189,-0.190,-0.190,-0.190,0.000,0.000,0.000
1641102786044226816,2022-01-02-05:53:06,10.1.1.6,195,-0.180,-0.180,-0.180,0.000,0.000,0.000
1641102786244442880,2022-01-02-05:53:06,10.1.1.6,192,-0.170,-0.170,-0.170,0.000,0.000,0.000
1641102786444487168,2022-01-02-05:53:06,10.1.1.6,192,-0.160,-0.160,-0.160,0.000,0.000,0.000
1641102786644756992,2022-01-02-05:53:06,10.1.1.6,191,-0.150,-0.150,-0.150,0.000,0.000,0.000
1641102786846009856,2022-01-02-05:53:06,10.1.1.6,192,-0.140,-0.140,-0.140,0.000,0.000,0.000
1641102787040728064,2022-01-02-05:53:07,10.1.1.6,185,-0.130,-0.130,-0.130,0.000,0.000,0.000
1641102787245430016,2022-01-02-05:53:07,10.1.1.6,190,-0.120,-0.120,-0.120,0.000,0.000,0.000
1641102787445976064,2022-01-02-05:53:07,10.1.1.6,190,-0.110,-0.110,-0.110,0.000,0.000,0.000
1641102787645746944,2022-01-02-05:53:07,10.1.1.6,189,-0.100,-0.100,-0.100,0.000,0.000,0.000
1641102787845877760,2022-01-02-05:53:07,10.1.1.6,188,-0.090,-0.090,-0.090,0.000,0.000,0.000
1641102788048562944,2022-01-02-05:53:08,10.1.1.6,189,-0.080,-0.080,-0.080,0.000,0.000,0.000
1641102788246491904,2022-01-02-05:53:08,10.1.1.6,186,-0.070,-0.070,-0.070,0.000,0.000,0.000
1641102788646970880,2022-01-02-05:53:08,10.1.1.6,184,-0.050,-0.050,-0.050,0.000,0.000,0.000
1641102788846468864,2022-01-02-05:53:08,10.1.1.6,182,-0.040,-0.040,-0.040,0.000,0.000,0.000
1641102789046845952,2022-01-02-05:53:09,10.1.1.6,182,-0.030,-0.030,-0.030,0.000,0.000,0.000
1641102789249022976,2022-01-02-05:53:09,10.1.1.6,183,-0.020,-0.020,-0.020,0.000,0.000,0.000
1641102789446494208,2022-01-02-05:53:09,10.1.1.6,180,-0.010,-0.010,-0.010,0.000,0.000,0.000
1641102789648250112,2022-01-02-05:53:09,10.1.1.6,181,-0.000,-0.000,-0.000,0.000,0.000,0.000
1641102789667666944,2022-01-02-05:53:09,10.1.1.6,-1,0.000,0.000,0.000,0.000,0.000,0.000
1641102790067378944,2022-01-02-05:53:10,10.1.1.6,198,-0.020,-0.020,-0.020,0.000,0.000,0.000
1641102790268157952,2022-01-02-05:53:10,10.1.1.6,198,-0.030,-0.030,-0.030,0.000,0.000,0.000
1641102790468233984,2022-01-02-05:53:10,10.1.1.6,198,-0.040,-0.040,-0.040,0.000,0.000,0.000
1641102790867619072,2022-01-02-05:53:10,10.1.1.6,195,-0.060,-0.060,-0.060,0.000,0.000,0.000
1641102791098094848,2022-01-02-05:53:11,10.1.1.6,200,-0.070,-0.070,-0.070,0.000,0.000,0.000
1641102791287298816,2022-01-02-05:53:11,10.1.1.6,186,-0.080,-0.080,-0.080,0.000,0.000,0.000
1641102791487864064,2022-01-02-05:53:11,10.1.1.6,186,-0.090,-0.090,-0.090,0.000,0.000,0.000
1641102791687595008,2022-01-02-05:53:11,10.1.1.6,185,-0.100,-0.100,-0.100,0.000,0.000,0.000
1641102791887203840,2022-01-02-05:53:11,10.1.1.6,184,-0.110,-0.110,-0.110,0.000,0.000,0.000
1641102792087165184,2022-01-02-05:53:12,10.1.1.6,184,-0.120,-0.120,-0.120,0.000,0.000,0.000
1641102792487085056,2022-01-02-05:53:12,10.1.1.6,183,-0.140,-0.140,-0.140,0.000,0.000,0.000
1641102792686912000,2022-01-02-05:53:12,10.1.1.6,182,-0.150,-0.150,-0.150,0.000,0.000,0.000
1641102792887109120,2022-01-02-05:53:12,10.1.1.6,182,-0.160,-0.160,-0.160,0.000,0.000,0.000
1641102793086458880,2022-01-02-05:53:13,10.1.1.6,181,-0.170,-0.170,-0.170,0.000,0.000,0.000
1641102793307027968,2022-01-02-05:53:13,10.1.1.6,201,-0.180,-0.180,-0.180,0.000,0.000,0.000
1641102793506653184,2022-01-02-05:53:13,10.1.1.6,199,-0.190,-0.190,-0.190,0.000,0.000,0.000
1641102793696701952,2022-01-02-05:53:13,10.1.1.6,188,-0.200,-0.200,-0.200,0.000,0.000,0.000
1641102793906454016,2022-01-02-05:53:13,10.1.1.6,198,-0.210,-0.210,-0.210,0.000,0.000,0.000
1641102794096322048,2022-01-02-05:53:14,10.1.1.6,187,-0.220,-0.220,-0.220,0.000,0.000,0.000
1641102794306586880,2022-01-02-05:53:14,10.1.1.6,195,-0.230,-0.230,-0.230,0.000,0.000,0.000
1641102794506678016,2022-01-02-05:53:14,10.1.1.6,194,-0.240,-0.240,-0.240,0.000,0.000,0.000
1641102794705988864,2022-01-02-05:53:14,10.1.1.6,193,-0.250,-0.250,-0.250,0.000,0.000,0.000
1641102794906185984,2022-01-02-05:53:14,10.1.1.6,193,-0.260,-0.260,-0.260,0.000,0.000,0.000
1641102795105675008,2022-01-02-05:53:15,10.1.1.6,192,-0.270,-0.270,-0.270,0.000,0.000,0.000
1641102795305649152,2022-01-02-05:53:15,10.1.1.6,192,-0.280,-0.280,-0.280,0.000,0.000,0.000
1641102795505850112,2022-01-02-05:53:15,10.1.1.6,190,-0.290,-0.290,-0.290,0.000,0.000,0.000
1641102795705553920,2022-01-02-05:53:15,10.1.1.6,189,-0.300,-0.300,-0.300,0.000,0.000,0.000
1641102795904908032,2022-01-02-05:53:15,10.1.1.6,188,-0.310,-0.310,-0.310,0.000,0.000,0.000
1641102796104398848,2022-01-02-05:53:16,10.1.1.6,186,-0.320,-0.320,-0.320,0.000,0.000,0.000
1641102796304665088,2022-01-02-05:53:16,10.1.1.6,185,-0.330,-0.330,-0.330,0.000,0.000,0.000
1641102796504560896,2022-01-02-05:53:16,10.1.1.6,184,-0.340,-0.340,-0.340,0.000,0.000,0.000
1641102796704777984,2022-01-02-05:53:16,10.1.1.6,184,-0.350,-0.350,-0.350,0.000,0.000,0.000
1641102796904530176,2022-01-02-05:53:16,10.1.1.6,183,-0.360,-0.360,-0.360,0.000,0.000,0.000
1641102797104188928,2022-01-02-05:53:17,10.1.1.6,182,-0.370,-0.370,-0.370,0.000,0.000,0.000
1641102797304375808,2022-01-02-05:53:17,10.1.1.6,182,-0.380,-0.380,-0.380,0.000,0.000,0.000
1641102797503889920,2022-01-02-05:53:17,10.1.1.6,181,-0.390,-0.390,-0.390,0.000,0.000,0.000
1641102797703555072,2022-01-02-05:53:17,10.1.1.6,180,-0.400,-0.400,-0.400,0.000,0.000,0.000
1641102797903304960,2022-01-02-05:53:17,10.1.1.6,179,-0.410,-0.410,-0.410,0.000,0.000,0.000
1641102798102938880,2022-01-02-05:53:18,10.1.1.6,178,-0.420,-0.420,-0.420,0.000,0.000,0.000
1641102798302810880,2022-01-02-05:53:18,10.1.1.6,178,-0.430,-0.430,-0.430,0.000,0.000,0.000
1641102798502708992,2022-01-02-05:53:18,10.1.1.6,177,-0.440,-0.440,-0.440,0.000,0.000,0.000
1641102798702565888,2022-01-02-05:53:18,10.1.1.6,176,-0.450,-0.450,-0.450,0.000,0.000,0.000
1641102798922051072,2022-01-02-05:53:18,10.1.1.6,195,-0.460,-0.460,-0.460,0.000,0.000,0.000
1641102799123131904,2022-01-02-05:53:19,10.1.1.6,195,-0.470,-0.470,-0.470,0.000,0.000,0.000
1641102799321846016,2022-01-02-05:53:19,10.1.1.6,193,-0.480,-0.480,-0.480,0.000,0.000,0.000
1641102799521928192,2022-01-02-05:53:19,10.1.1.6,191,-0.490,-0.490,-0.490,0.000,0.000,0.000
1641102799721232896,2022-01-02-05:53:19,10.1.1.6,189,-0.480,-0.480,-0.480,0.000,0.000,0.000
1641102799921021952,2022-01-02-05:53:19,10.1.1.6,188,-0.470,-0.470,-0.470,0.000,0.000,0.000
1641102800121769984,2022-01-02-05:53:20,10.1.1.6,187,-0.460,-0.460,-0.460,0.000,0.000,0.000
1641102800320925952,2022-01-02-05:53:20,10.1.1.6,185,-0.450,-0.450,-0.450,0.000,0.000,0.000
1641102800525469184,2022-01-02-05:53:20,10.1.1.6,177,-0.440,-0.440,-0.440,0.000,0.000,0.000
1641102800720252160,2022-01-02-05:53:20,10.1.1.6,182,-0.430,-0.430,-0.430,0.000,0.000,0.000
1641102800920027904,2022-01-02-05:53:20,10.1.1.6,181,-0.420,-0.420,-0.420,0.000,0.000,0.000
1641102800939954944,2022-01-02-05:53:20,10.1.1.6,-1,-0.420,-0.420,-0.420,0.000,0.000,0.000
1641102801318958080,2022-01-02-05:53:21,10.1.1.6,178,-0.400,-0.400,-0.400,0.000,0.000,0.000
1641102801518729984,2022-01-02-05:53:21,10.1.1.6,177,-0.390,-0.390,-0.390,0.000,0.000,0.000
1641102801718754048,2022-01-02-05:53:21,10.1.1.6,177,-0.380,-0.380,-0.380,0.000,0.000,0.000
1641102801918550016,2022-01-02-05:53:21,10.1.1.6,176,-0.370,-0.370,-0.370,0.000,0.000,0.000
1641102802117786880,2022-01-02-05:53:22,10.1.1.6,174,-0.360,-0.360,-0.360,0.000,0.000,0.000
1641102802337921024,2022-01-02-05:53:22,10.1.1.6,194,-0.350,-0.350,-0.350,0.000,0.000,0.000
1641102802518196224,2022-01-02-05:53:22,10.1.1.6,173,-0.340,-0.340,-0.340,0.000,0.000,0.000
1641102802717355008,2022-01-02-05:53:22,10.1.1.6,172,-0.330,-0.330,-0.330,0.000,0.000,0.000
1641102802917152768,2022-01-02-05:53:22,10.1.1.6,171,-0.320,-0.320,-0.320,0.000,0.000,0.000
1641102803137069056,2022-01-02-05:53:23,10.1.1.6,190,-0.310,-0.310,-0.310,0.000,0.000,0.000
1641102803337251840,2022-01-02-05:53:23,10.1.1.6,189,-0.300,-0.300,-0.300,0.000,0.000,0.000
1641102803536400128,2022-01-02-05:53:23,10.1.1.6,186,-0.290,-0.290,-0.290,0.000,0.000,0.000
1641102803736566016,2022-01-02-05:53:23,10.1.1.6,185,-0.280,-0.280,-0.280,0.000,0.000,0.000
1641102803935913984,2022-01-02-05:53:23,10.1.1.6,184,-0.270,-0.270,-0.270,0.000,0.000,0.000
1641102804135670784,2022-01-02-05:53:24,10.1.1.6,183,-0.260,-0.260,-0.260,0.000,0.000,0.000
1641102804335220224,2022-01-02-05:53:24,10.1.1.6,182,-0.250,-0.250,-0.250,0.000,0.000,0.000
1641102804534912000,2022-01-02-05:53:24,10.1.1.6,180,-0.240,-0.240,-0.240,0.000,0.000,0.000
1641102804555138048,2022-01-02-05:53:24,10.1.1.6,-1,-0.240,-0.240,-0.240,0.000,0.000,0.000
1641102804934375936,2022-01-02-05:53:24,10.1.1.6,178,-0.220,-0.220,-0.220,0.000,0.000,0.000
1641102805134580992,2022-01-02-05:53:25,10.1.1.6,178,-0.210,-0.210,-0.210,0.000,0.000,0.000
1641102805334032896,2022-01-02-05:53:25,10.1.1.6,177,-0.200,-0.200,-0.200,0.000,0.000,0.000
1641102805554100992,2022-01-02-05:53:25,10.1.1.6,196,-0.190,-0.190,-0.190,0.000,0.000,0.000
1641102805753176832,2022-01-02-05:53:25,10.1.1.6,194,-0.180,-0.180,-0.180,0.000,0.000,0.000
1641102805953713920,2022-01-02-05:53:25,10.1.1.6,194,-0.170,-0.170,-0.170,0.000,0.000,0.000
1641102806132029184,2022-01-02-05:53:26,10.1.1.6,172,-0.160,-0.160,-0.160,0.000,0.000,0.000
1641102806332834048,2022-01-02-05:53:26,10.1.1.6,172,-0.150,-0.150,-0.150,0.000,0.000,0.000
1641102806531827968,2022-01-02-05:53:26,10.1.1.6,171,-0.140,-0.140,-0.140,0.000,0.000,0.000
1641102806732157952,2022-01-02-05:53:26,10.1.1.6,169,-0.130,-0.130,-0.130,0.000,0.000,0.000
1641102806931557888,2022-01-02-05:53:26,10.1.1.6,167,-0.120,-0.120,-0.120,0.000,0.000,0.000
1641102807130605056,2022-01-02-05:53:27,10.1.1.6,165,-0.110,-0.110,-0.110,0.000,0.000,0.000
1641102807330745088,2022-01-02-05:53:27,10.1.1.6,164,-0.100,-0.100,-0.100,0.000,0.000,0.000
1641102807550529024,2022-01-02-05:53:27,10.1.1.6,183,-0.090,-0.090,-0.090,0.000,0.000,0.000
1641102807750575104,2022-01-02-05:53:27,10.1.1.6,183,-0.080,-0.080,-0.080,0.000,0.000,0.000
1641102807950528000,2022-01-02-05:53:27,10.1.1.6,182,-0.070,-0.070,-0.070,0.000,0.000,0.000
1641102808149509888,2022-01-02-05:53:28,10.1.1.6,180,-0.060,-0.060,-0.060,0.000,0.000,0.000
1641102808349512192,2022-01-02-05:53:28,10.1.1.6,179,-0.050,-0.050,-0.050,0.000,0.000,0.000
1641102808549012992,2022-01-02-05:53:28,10.1.1.6,177,-0.040,-0.040,-0.040,0.000,0.000,0.000
1641102808748167936,2022-01-02-05:53:28,10.1.1.6,174,-0.030,-0.030,-0.030,0.000,0.000,0.000
1641102808948333056,2022-01-02-05:53:28,10.1.1.6,173,-0.020,-0.020,-0.020,0.000,0.000,0.000
1641102809147617024,2022-01-02-05:53:29,10.1.1.6,172,-0.010,-0.010,-0.010,0.000,0.000,0.000
1641102809347613952,2022-01-02-05:53:29,10.1.1.6,171,0.000,0.000,0.000,0.000,0.000,0.000
1641102809547919104,2022-01-02-05:53:29,10.1.1.6,171,-0.010,-0.010,-0.010,0.000,0.000,0.000
1641102809767026944,2022-01-02-05:53:29,10.1.1.6,189,-0.020,-0.020,-0.020,0.000,0.000,0.000
1641102809947367936,2022-01-02-05:53:29,10.1.1.6,169,-0.030,-0.030,-0.030,0.000,0.000,0.000
1641102810146217984,2022-01-02-05:53:30,10.1.1.6,167,-0.040,-0.040,-0.040,0.000,0.000,0.000
1641102810345832960,2022-01-02-05:53:30,10.1.1.6,166,-0.050,-0.050,-0.050,0.000,0.000,0.000
1641102810545316096,2022-01-02-05:53:30,10.1.1.6,165,-0.060,-0.060,-0.060,0.000,0.000,0.000
1641102810745323776,2022-01-02-05:53:30,10.1.1.6,164,-0.070,-0.070,-0.070,0.000,0.000,0.000
1641102810944710912,2022-01-02-05:53:30,10.1.1.6,163,-0.080,-0.080,-0.080,0.000,0.000,0.000
1641102811144614912,2022-01-02-05:53:31,10.1.1.6,162,-0.090,-0.090,-0.090,0.000,0.000,0.000
1641102811344610048,2022-01-02-05:53:31,10.1.1.6,162,-0.100,-0.100,-0.100,0.000,0.000,0.000
1641102811543830016,2022-01-02-05:53:31,10.1.1.6,160,-0.110,-0.110,-0.110,0.000,0.000,0.000
1641102811766905088,2022-01-02-05:53:31,10.1.1.6,183,-0.120,-0.120,-0.120,0.000,0.000,0.000
1641102811943851008,2022-01-02-05:53:31,10.1.1.6,159,-0.130,-0.130,-0.130,0.000,0.000,0.000
1641102812143176192,2022-01-02-05:53:32,10.1.1.6,157,-0.140,-0.140,-0.140,0.000,0.000,0.000
1641102812343350016,2022-01-02-05:53:32,10.1.1.6,157,-0.150,-0.150,-0.150,0.000,0.000,0.000
1641102812562706944,2022-01-02-05:53:32,10.1.1.6,174,-0.160,-0.160,-0.160,0.000,0.000,0.000
1641102812762249984,2022-01-02-05:53:32,10.1.1.6,173,-0.170,-0.170,-0.170,0.000,0.000,0.000
1641102812962096896,2022-01-02-05:53:32,10.1.1.6,172,-0.180,-0.180,-0.180,0.000,0.000,0.000
1641102813162946048,2022-01-02-05:53:33,10.1.1.6,173,-0.190,-0.190,-0.190,0.000,0.000,0.000
1641102813364068864,2022-01-02-05:53:33,10.1.1.6,173,-0.200,-0.200,-0.200,0.000,0.000,0.000
1641102813565576192,2022-01-02-05:53:33,10.1.1.6,174,-0.210,-0.210,-0.210,0.000,0.000,0.000
1641102813765763072,2022-01-02-05:53:33,10.1.1.6,174,-0.220,-0.220,-0.220,0.000,0.000,0.000
1641102813967140864,2022-01-02-05:53:33,10.1.1.6,175,-0.230,-0.230,-0.230,0.000,0.000,0.000
1641102814168272896,2022-01-02-05:53:34,10.1.1.6,175,-0.240,-0.240,-0.240,0.000,0.000,0.000
1641102814368498944,2022-01-02-05:53:34,10.1.1.6,174,-0.250,-0.250,-0.250,0.000,0.000,0.000
1641102814569318144,2022-01-02-05:53:34,10.1.1.6,174,-0.260,-0.260,-0.260,0.000,0.000,0.000
1641102814770262016,2022-01-02-05:53:34,10.1.1.6,174,-0.270,-0.270,-0.270,0.000,0.000,0.000
1641102814972099072,2022-01-02-05:53:34,10.1.1.6,176,-0.280,-0.280,-0.280,0.000,0.000,0.000
1641102815172411904,2022-01-02-05:53:35,10.1.1.6,175,-0.290,-0.290,-0.290,0.000,0.000,0.000
1641102815373376000,2022-01-02-05:53:35,10.1.1.6,175,-0.300,-0.300,-0.300,0.000,0.000,0.000
1641102815574074112,2022-01-02-05:53:35,10.1.1.6,174,-0.310,-0.310,-0.310,0.000,0.000,0.000
1641102815774007040,2022-01-02-05:53:35,10.1.1.6,174,-0.320,-0.320,-0.320,0.000,0.000,0.000
1641102815974437120,2022-01-02-05:53:35,10.1.1.6,174,-0.330,-0.330,-0.330,0.000,0.000,0.000
1641102816175853056,2022-01-02-05:53:36,10.1.1.6,175,-0.340,-0.340,-0.340,0.000,0.000,0.000
1641102816375900928,2022-01-02-05:53:36,10.1.1.6,174,-0.350,-0.350,-0.350,0.000,0.000,0.000
1641102816576785920,2022-01-02-05:53:36,10.1.1.6,175,-0.360,-0.360,-0.360,0.000,0.000,0.000
1641102816777081088,2022-01-02-05:53:36,10.1.1.6,174,-0.370,-0.370,-0.370,0.000,0.000,0.000
1641102816977291008,2022-01-02-05:53:36,10.1.1.6,173,-0.380,-0.380,-0.380,0.000,0.000,0.000
1641102817178395136,2022-01-02-05:53:37,10.1.1.6,174,-0.390,-0.390,-0.390,0.000,0.000,0.000
1641102817378828032,2022-01-02-05:53:37,10.1.1.6,174,-0.400,-0.400,-0.400,0.000,0.000,0.000
1641102817579058944,2022-01-02-05:53:37,10.1.1.6,173,-0.410,-0.410,-0.410,0.000,0.000,0.000
1641102817779540992,2022-01-02-05:53:37,10.1.1.6,173,-0.420,-0.420,-0.420,0.000,0.000,0.000
1641102817979720960,2022-01-02-05:53:37,10.1.1.6,173,-0.430,-0.430,-0.430,0.000,0.000,0.000
1641102818201577984,2022-01-02-05:53:38,10.1.1.6,194,-0.440,-0.440,-0.440,0.000,0.000,0.000
1641102818401554176,2022-01-02-05:53:38,10.1.1.6,192,-0.450,-0.450,-0.450,0.000,0.000,0.000
1641102818600761856,2022-01-02-05:53:38,10.1.1.6,191,-0.460,-0.460,-0.460,0.000,0.000,0.000
1641102818801302016,2022-01-02-05:53:38,10.1.1.6,191,-0.470,-0.470,-0.470,0.000,0.000,0.000
1641102819001824000,2022-01-02-05:53:39,10.1.1.6,192,-0.480,-0.480,-0.480,0.000,0.000,0.000
1641102819201658112,2022-01-02-05:53:39,10.1.1.6,191,-0.490,-0.490,-0.490,0.000,0.000,0.000
1641102819402551040,2022-01-02-05:53:39,10.1.1.6,191,-0.480,-0.480,-0.480,0.000,0.000,0.000
1641102819608696832,2022-01-02-05:53:39,10.1.1.6,196,-0.470,-0.470,-0.470,0.000,0.000,0.000
1641102819804338944,2022-01-02-05:53:39,10.1.1.6,191,-0.460,-0.460,-0.460,0.000,0.000,0.000
1641102820003067904,2022-01-02-05:53:40,10.1.1.6,189,-0.450,-0.450,-0.450,0.000,0.000,0.000
1641102820205022976,2022-01-02-05:53:40,10.1.1.6,189,-0.440,-0.440,-0.440,0.000,0.000,0.000
1641102820403662848,2022-01-02-05:53:40,10.1.1.6,185,-0.430,-0.430,-0.430,0.000,0.000,0.000
1641102820603859968,2022-01-02-05:53:40,10.1.1.6,185,-0.420,-0.420,-0.420,0.000,0.000,0.000
1641102820804532992,2022-01-02-05:53:40,10.1.1.6,185,-0.410,-0.410,-0.410,0.000,0.000,0.000
1641102821004282880,2022-01-02-05:53:41,10.1.1.6,184,-0.400,-0.400,-0.400,0.000,0.000,0.000
1641102821204165888,2022-01-02-05:53:41,10.1.1.6,183,-0.390,-0.390,-0.390,0.000,0.000,0.000
1641102821404371968,2022-01-02-05:53:41,10.1.1.6,183,-0.380,-0.380,-0.380,0.000,0.000,0.000
1641102821604193024,2022-01-02-05:53:41,10.1.1.6,182,-0.370,-0.370,-0.370,0.000,0.000,0.000
1641102821805489152,2022-01-02-05:53:41,10.1.1.6,183,-0.360,-0.360,-0.360,0.000,0.000,0.000
1641102822007250176,2022-01-02-05:53:42,10.1.1.6,183,-0.350,-0.350,-0.350,0.000,0.000,0.000
1641102822205394944,2022-01-02-05:53:42,10.1.1.6,181,-0.340,-0.340,-0.340,0.000,0.000,0.000
1641102822424859136,2022-01-02-05:53:42,10.1.1.6,197,-0.330,-0.330,-0.330,0.000,0.000,0.000
1641102822624937984,2022-01-02-05:53:42,10.1.1.6,196,-0.320,-0.320,-0.320,0.000,0.000,0.000
1641102822825676032,2022-01-02-05:53:42,10.1.1.6,197,-0.310,-0.310,-0.310,0.000,0.000,0.000
1641102823025464064,2022-01-02-05:53:43,10.1.1.6,196,-0.300,-0.300,-0.300,0.000,0.000,0.000
1641102823225018880,2022-01-02-05:53:43,10.1.1.6,195,-0.290,-0.290,-0.290,0.000,0.000,0.000
1641102823425088768,2022-01-02-05:53:43,10.1.1.6,194,-0.280,-0.280,-0.280,0.000,0.000,0.000
1641102823625116160,2022-01-02-05:53:43,10.1.1.6,193,-0.270,-0.270,-0.270,0.000,0.000,0.000
1641102823824854016,2022-01-02-05:53:43,10.1.1.6,193,-0.260,-0.260,-0.260,0.000,0.000,0.000
1641102824025451776,2022-01-02-05:53:44,10.1.1.6,191,-0.250,-0.250,-0.250,0.000,0.000,0.000
1641102824225302016,2022-01-02-05:53:44,10.1.1.6,191,-0.240,-0.240,-0.240,0.000,0.000,0.000
1641102824425265152,2022-01-02-05:53:44,10.1.1.6,190,-0.230,-0.230,-0.230,0.000,0.000,0.000
1641102824625281024,2022-01-02-05:53:44,10.1.1.6,190,-0.220,-0.220,-0.220,0.000,0.000,0.000
1641102824825639936,2022-01-02-05:53:44,10.1.1.6,189,-0.210,-0.210,-0.210,0.000,0.000,0.000
1641102825024828928,2022-01-02-05:53:45,10.1.1.6,188,-0.200,-0.200,-0.200,0.000,0.000,0.000
1641102825225470976,2022-01-02-05:53:45,10.1.1.6,188,-0.190,-0.190,-0.190,0.000,0.000,0.000
1641102825425086976,2022-01-02-05:53:45,10.1.1.6,187,-0.180,-0.180,-0.180,0.000,0.000,0.000
1641102825625630976,2022-01-02-05:53:45,10.1.1.6,187,-0.170,-0.170,-0.170,0.000,0.000,0.000
1641102825824460032,2022-01-02-05:53:45,10.1.1.6,185,-0.160,-0.160,-0.160,0.000,0.000,0.000
1641102826025080064,2022-01-02-05:53:46,10.1.1.6,185,-0.150,-0.150,-0.150,0.000,0.000,0.000
1641102826224453888,2022-01-02-05:53:46,10.1.1.6,183,-0.140,-0.140,-0.140,0.000,0.000,0.000
1641102826424756992,2022-01-02-05:53:46,10.1.1.6,183,-0.130,-0.130,-0.130,0.000,0.000,0.000
1641102826624913920,2022-01-02-05:53:46,10.1.1.6,183,-0.120,-0.120,-0.120,0.000,0.000,0.000
1641102826824574976,2022-01-02-05:53:46,10.1.1.6,182,-0.110,-0.110,-0.110,0.000,0.000,0.000
1641102827025470976,2022-01-02-05:53:47,10.1.1.6,182,-0.100,-0.100,-0.100,0.000,0.000,0.000
1641102827224104960,2022-01-02-05:53:47,10.1.1.6,179,-0.090,-0.090,-0.090,0.000,0.000,0.000
1641102827424446208,2022-01-02-05:53:47,10.1.1.6,178,-0.080,-0.080,-0.080,0.000,0.000,0.000
1641102827624162048,2022-01-02-05:53:47,10.1.1.6,177,-0.070,-0.070,-0.070,0.000,0.000,0.000
1641102827845329152,2022-01-02-05:53:47,10.1.1.6,196,-0.060,-0.060,-0.060,0.000,0.000,0.000
1641102828044013056,2022-01-02-05:53:48,10.1.1.6,194,-0.050,-0.050,-0.050,0.000,0.000,0.000
1641102828244008192,2022-01-02-05:53:48,10.1.1.6,193,-0.040,-0.040,-0.040,0.000,0.000,0.000
1641102828444242944,2022-01-02-05:53:48,10.1.1.6,193,-0.030,-0.030,-0.030,0.000,0.000,0.000
1641102828635556864,2022-01-02-05:53:48,10.1.1.6,183,-0.020,-0.020,-0.020,0.000,0.000,0.000
1641102828843518976,2022-01-02-05:53:48,10.1.1.6,190,-0.010,-0.010,-0.010,0.000,0.000,0.000
1641102829043962880,2022-01-02-05:53:49,10.1.1.6,190,0.000,0.000,0.000,0.000,0.000,0.000
1641102829242398976,2022-01-02-05:53:49,10.1.1.6,188,-0.010,-0.010,-0.010,0.000,0.000,0.000
1641102829442220800,2022-01-02-05:53:49,10.1.1.6,187,-0.020,-0.020,-0.020,0.000,0.000,0.000
1641102829642198016,2022-01-02-05:53:49,10.1.1.6,186,-0.030,-0.030,-0.030,0.000,0.000,0.000
1641102829842249984,2022-01-02-05:53:49,10.1.1.6,185,-0.040,-0.040,-0.040,0.000,0.000,0.000
1641102830242621952,2022-01-02-05:53:50,10.1.1.6,184,-0.060,-0.060,-0.060,0.000,0.000,0.000
1641102830441464832,2022-01-02-05:53:50,10.1.1.6,183,-0.070,-0.070,-0.070,0.000,0.000,0.000
1641102830840916992,2022-01-02-05:53:50,10.1.1.6,181,-0.090,-0.090,-0.090,0.000,0.000,0.000
1641102831060482048,2022-01-02-05:53:51,10.1.1.6,200,-0.100,-0.100,-0.100,0.000,0.000,0.000
1641102831241414912,2022-01-02-05:53:51,10.1.1.6,180,-0.110,-0.110,-0.110,0.000,0.000,0.000
1641102831440823040,2022-01-02-05:53:51,10.1.1.6,179,-0.120,-0.120,-0.120,0.000,0.000,0.000
1641102831640128000,2022-01-02-05:53:51,10.1.1.6,177,-0.130,-0.130,-0.130,0.000,0.000,0.000
