FedericoMungari/DigitalTwin_service/01_WiredScenario/Output/Output_script/script_rosapi_2_output_robots6_freq0_1.txt
timestamp,date,node,latency,joint_1,joint_2,joint_3,joint_4,joint_5,joint_6
1643279371398489856,2022-01-27-10:29:31,10.1.1.2,30,-0.011,-0.011,-0.011,0.000,0.000,0.000
1643279371596550912,2022-01-27-10:29:31,10.1.1.2,28,-0.021,-0.021,-0.021,0.000,0.000,0.000
1643279371798029824,2022-01-27-10:29:31,10.1.1.2,28,-0.031,-0.031,-0.031,0.000,0.000,0.000
1643279371996536064,2022-01-27-10:29:31,10.1.1.2,25,-0.041,-0.041,-0.041,0.000,0.000,0.000
1643279372201097984,2022-01-27-10:29:32,10.1.1.2,29,-0.050,-0.050,-0.050,0.000,0.000,0.000
1643279372395003136,2022-01-27-10:29:32,10.1.1.2,21,-0.060,-0.060,-0.060,0.000,0.000,0.000
1643279372598223872,2022-01-27-10:29:32,10.1.1.2,19,-0.070,-0.070,-0.070,0.000,0.000,0.000
1643279372804665088,2022-01-27-10:29:32,10.1.1.2,23,-0.080,-0.080,-0.080,0.000,0.000,0.000
1643279372996510976,2022-01-27-10:29:32,10.1.1.2,15,-0.090,-0.090,-0.090,0.000,0.000,0.000
1643279373196881920,2022-01-27-10:29:33,10.1.1.2,14,-0.100,-0.100,-0.100,0.000,0.000,0.000
1643279373414980864,2022-01-27-10:29:33,10.1.1.2,31,-0.110,-0.110,-0.110,0.000,0.000,0.000
1643279373615598848,2022-01-27-10:29:33,10.1.1.2,30,-0.121,-0.121,-0.121,0.000,0.000,0.000
1643279373816574976,2022-01-27-10:29:33,10.1.1.2,29,-0.131,-0.131,-0.131,0.000,0.000,0.000
1643279374016457984,2022-01-27-10:29:34,10.1.1.2,29,-0.141,-0.141,-0.141,0.000,0.000,0.000
1643279374215504896,2022-01-27-10:29:34,10.1.1.2,27,-0.151,-0.151,-0.151,0.000,0.000,0.000
1643279374416743168,2022-01-27-10:29:34,10.1.1.2,27,-0.161,-0.161,-0.161,0.000,0.000,0.000
1643279374618383872,2022-01-27-10:29:34,10.1.1.2,28,-0.170,-0.170,-0.170,0.000,0.000,0.000
1643279374817394944,2022-01-27-10:29:34,10.1.1.2,27,-0.181,-0.181,-0.181,0.000,0.000,0.000
1643279375036431104,2022-01-27-10:29:35,10.1.1.2,44,-0.191,-0.191,-0.191,0.000,0.000,0.000
1643279375217451008,2022-01-27-10:29:35,10.1.1.2,24,-0.200,-0.200,-0.200,0.000,0.000,0.000
1643279375416179968,2022-01-27-10:29:35,10.1.1.2,19,-0.210,-0.210,-0.210,0.000,0.000,0.000
1643279375617798144,2022-01-27-10:29:35,10.1.1.2,19,-0.220,-0.220,-0.220,0.000,0.000,0.000
1643279375836384000,2022-01-27-10:29:35,10.1.1.2,37,-0.231,-0.231,-0.231,0.000,0.000,0.000
1643279376017384960,2022-01-27-10:29:36,10.1.1.2,18,-0.240,-0.240,-0.240,0.000,0.000,0.000
1643279376236100864,2022-01-27-10:29:36,10.1.1.2,35,-0.251,-0.251,-0.251,0.000,0.000,0.000
1643279376435472128,2022-01-27-10:29:36,10.1.1.2,33,-0.261,-0.261,-0.261,0.000,0.000,0.000
1643279376634568960,2022-01-27-10:29:36,10.1.1.2,31,-0.271,-0.271,-0.271,0.000,0.000,0.000
1643279376836546048,2022-01-27-10:29:36,10.1.1.2,30,-0.281,-0.281,-0.281,0.000,0.000,0.000
1643279377035653120,2022-01-27-10:29:37,10.1.1.2,29,-0.291,-0.291,-0.291,0.000,0.000,0.000
1643279377239161856,2022-01-27-10:29:37,10.1.1.2,31,-0.301,-0.301,-0.301,0.000,0.000,0.000
1643279377459372032,2022-01-27-10:29:37,10.1.1.2,47,-0.311,-0.311,-0.311,0.000,0.000,0.000
1643279377657440000,2022-01-27-10:29:37,10.1.1.2,42,-0.321,-0.321,-0.321,0.000,0.000,0.000
1643279377856082944,2022-01-27-10:29:37,10.1.1.2,39,-0.331,-0.331,-0.331,0.000,0.000,0.000
1643279378034740992,2022-01-27-10:29:38,10.1.1.2,17,-0.340,-0.340,-0.340,0.000,0.000,0.000
1643279378255963136,2022-01-27-10:29:38,10.1.1.2,37,-0.351,-0.351,-0.351,0.000,0.000,0.000
1643279378454902784,2022-01-27-10:29:38,10.1.1.2,35,-0.361,-0.361,-0.361,0.000,0.000,0.000
1643279378660167936,2022-01-27-10:29:38,10.1.1.2,39,-0.371,-0.371,-0.371,0.000,0.000,0.000
1643279378859663104,2022-01-27-10:29:38,10.1.1.2,36,-0.381,-0.381,-0.381,0.000,0.000,0.000
1643279379058258176,2022-01-27-10:29:39,10.1.1.2,34,-0.391,-0.391,-0.391,0.000,0.000,0.000
1643279379258115072,2022-01-27-10:29:39,10.1.1.2,32,-0.401,-0.401,-0.401,0.000,0.000,0.000
1643279379456291072,2022-01-27-10:29:39,10.1.1.2,29,-0.411,-0.411,-0.411,0.000,0.000,0.000
1643279379657499904,2022-01-27-10:29:39,10.1.1.2,29,-0.421,-0.421,-0.421,0.000,0.000,0.000
1643279379856480000,2022-01-27-10:29:39,10.1.1.2,26,-0.430,-0.430,-0.430,0.000,0.000,0.000
1643279380056001792,2022-01-27-10:29:40,10.1.1.2,25,-0.440,-0.440,-0.440,0.000,0.000,0.000
1643279380276591104,2022-01-27-10:29:40,10.1.1.2,44,-0.451,-0.451,-0.451,0.000,0.000,0.000
1643279380476877056,2022-01-27-10:29:40,10.1.1.2,43,-0.461,-0.461,-0.461,0.000,0.000,0.000
1643279380658340864,2022-01-27-10:29:40,10.1.1.2,23,-0.470,-0.470,-0.470,0.000,0.000,0.000
1643279380876216832,2022-01-27-10:29:40,10.1.1.2,39,-0.481,-0.481,-0.481,0.000,0.000,0.000
1643279381074793216,2022-01-27-10:29:41,10.1.1.2,37,-0.489,-0.489,-0.489,0.000,0.000,0.000
1643279381258508800,2022-01-27-10:29:41,10.1.1.2,18,-0.480,-0.480,-0.480,0.000,0.000,0.000
1643279381455499008,2022-01-27-10:29:41,10.1.1.2,14,-0.470,-0.470,-0.470,0.000,0.000,0.000
1643279381678266880,2022-01-27-10:29:41,10.1.1.2,36,-0.459,-0.459,-0.459,0.000,0.000,0.000
1643279381876753152,2022-01-27-10:29:41,10.1.1.2,33,-0.449,-0.449,-0.449,0.000,0.000,0.000
1643279382076920064,2022-01-27-10:29:42,10.1.1.2,33,-0.439,-0.439,-0.439,0.000,0.000,0.000
1643279382277662976,2022-01-27-10:29:42,10.1.1.2,33,-0.429,-0.429,-0.429,0.000,0.000,0.000
1643279382479944960,2022-01-27-10:29:42,10.1.1.2,32,-0.419,-0.419,-0.419,0.000,0.000,0.000
1643279382675990016,2022-01-27-10:29:42,10.1.1.2,28,-0.409,-0.409,-0.409,0.000,0.000,0.000
1643279382876482048,2022-01-27-10:29:42,10.1.1.2,27,-0.399,-0.399,-0.399,0.000,0.000,0.000
1643279383076536832,2022-01-27-10:29:43,10.1.1.2,25,-0.389,-0.389,-0.389,0.000,0.000,0.000
1643279383276850944,2022-01-27-10:29:43,10.1.1.2,27,-0.379,-0.379,-0.379,0.000,0.000,0.000
1643279383495940096,2022-01-27-10:29:43,10.1.1.2,44,-0.369,-0.369,-0.369,0.000,0.000,0.000
1643279383677100800,2022-01-27-10:29:43,10.1.1.2,22,-0.360,-0.360,-0.360,0.000,0.000,0.000
1643279383896265984,2022-01-27-10:29:43,10.1.1.2,39,-0.349,-0.349,-0.349,0.000,0.000,0.000
1643279384096428032,2022-01-27-10:29:44,10.1.1.2,35,-0.339,-0.339,-0.339,0.000,0.000,0.000
1643279384304912128,2022-01-27-10:29:44,10.1.1.2,43,-0.329,-0.329,-0.329,0.000,0.000,0.000
1643279384503415040,2022-01-27-10:29:44,10.1.1.2,39,-0.319,-0.319,-0.319,0.000,0.000,0.000
1643279384702501120,2022-01-27-10:29:44,10.1.1.2,36,-0.309,-0.309,-0.309,0.000,0.000,0.000
1643279384898960128,2022-01-27-10:29:44,10.1.1.2,32,-0.299,-0.299,-0.299,0.000,0.000,0.000
1643279385095983872,2022-01-27-10:29:45,10.1.1.2,28,-0.289,-0.289,-0.289,0.000,0.000,0.000
1643279385299337984,2022-01-27-10:29:45,10.1.1.2,30,-0.279,-0.279,-0.279,0.000,0.000,0.000
1643279385498778112,2022-01-27-10:29:45,10.1.1.2,29,-0.269,-0.269,-0.269,0.000,0.000,0.000
1643279385695900928,2022-01-27-10:29:45,10.1.1.2,19,-0.260,-0.260,-0.260,0.000,0.000,0.000
1643279385897316864,2022-01-27-10:29:45,10.1.1.2,18,-0.250,-0.250,-0.250,0.000,0.000,0.000
1643279386116030976,2022-01-27-10:29:46,10.1.1.2,36,-0.239,-0.239,-0.239,0.000,0.000,0.000
1643279386294842880,2022-01-27-10:29:46,10.1.1.2,14,-0.230,-0.230,-0.230,0.000,0.000,0.000
1643279386518874880,2022-01-27-10:29:46,10.1.1.2,37,-0.219,-0.219,-0.219,0.000,0.000,0.000
1643279386722814208,2022-01-27-10:29:46,10.1.1.2,39,-0.209,-0.209,-0.209,0.000,0.000,0.000
1643279386920440064,2022-01-27-10:29:46,10.1.1.2,35,-0.199,-0.199,-0.199,0.000,0.000,0.000
1643279387117118976,2022-01-27-10:29:47,10.1.1.2,31,-0.189,-0.189,-0.189,0.000,0.000,0.000
1643279387317476864,2022-01-27-10:29:47,10.1.1.2,30,-0.179,-0.179,-0.179,0.000,0.000,0.000
1643279387516617984,2022-01-27-10:29:47,10.1.1.2,28,-0.170,-0.170,-0.170,0.000,0.000,0.000
1643279387721024000,2022-01-27-10:29:47,10.1.1.2,31,-0.159,-0.159,-0.159,0.000,0.000,0.000
1643279387917593856,2022-01-27-10:29:47,10.1.1.2,27,-0.149,-0.149,-0.149,0.000,0.000,0.000
1643279388137923840,2022-01-27-10:29:48,10.1.1.2,40,-0.139,-0.139,-0.139,0.000,0.000,0.000
1643279388316352000,2022-01-27-10:29:48,10.1.1.2,18,-0.130,-0.130,-0.130,0.000,0.000,0.000
1643279388514725888,2022-01-27-10:29:48,10.1.1.2,15,-0.120,-0.120,-0.120,0.000,0.000,0.000
1643279388718148864,2022-01-27-10:29:48,10.1.1.2,14,-0.110,-0.110,-0.110,0.000,0.000,0.000
1643279388940561920,2022-01-27-10:29:48,10.1.1.2,35,-0.099,-0.099,-0.099,0.000,0.000,0.000
1643279389139138048,2022-01-27-10:29:49,10.1.1.2,32,-0.089,-0.089,-0.089,0.000,0.000,0.000
1643279389344134144,2022-01-27-10:29:49,10.1.1.2,36,-0.080,-0.080,-0.080,0.000,0.000,0.000
1643279389537403136,2022-01-27-10:29:49,10.1.1.2,25,-0.070,-0.070,-0.070,0.000,0.000,0.000
1643279389735832832,2022-01-27-10:29:49,10.1.1.2,20,-0.060,-0.060,-0.060,0.000,0.000,0.000
1643279389936729856,2022-01-27-10:29:49,10.1.1.2,20,-0.050,-0.050,-0.050,0.000,0.000,0.000
1643279390138003200,2022-01-27-10:29:50,10.1.1.2,20,-0.040,-0.040,-0.040,0.000,0.000,0.000
1643279390336653056,2022-01-27-10:29:50,10.1.1.2,18,-0.030,-0.030,-0.030,0.000,0.000,0.000
1643279390556793856,2022-01-27-10:29:50,10.1.1.2,32,-0.019,-0.019,-0.019,0.000,0.000,0.000
1643279390759010048,2022-01-27-10:29:50,10.1.1.2,30,-0.009,-0.009,-0.009,0.000,0.000,0.000
1643279390942486016,2022-01-27-10:29:50,10.1.1.2,9,-0.000,-0.000,-0.000,0.000,0.000,0.000
1643279391177026048,2022-01-27-10:29:51,10.1.1.2,35,-0.011,-0.011,-0.011,0.000,0.000,0.000
1643279391377330944,2022-01-27-10:29:51,10.1.1.2,33,-0.021,-0.021,-0.021,0.000,0.000,0.000
1643279391578424064,2022-01-27-10:29:51,10.1.1.2,33,-0.031,-0.031,-0.031,0.000,0.000,0.000
1643279391779377920,2022-01-27-10:29:51,10.1.1.2,32,-0.041,-0.041,-0.041,0.000,0.000,0.000
1643279391982654208,2022-01-27-10:29:51,10.1.1.2,34,-0.051,-0.051,-0.051,0.000,0.000,0.000
1643279392199415808,2022-01-27-10:29:52,10.1.1.2,46,-0.061,-0.061,-0.061,0.000,0.000,0.000
1643279392380867840,2022-01-27-10:29:52,10.1.1.2,23,-0.070,-0.070,-0.070,0.000,0.000,0.000
1643279392576109824,2022-01-27-10:29:52,10.1.1.2,17,-0.080,-0.080,-0.080,0.000,0.000,0.000
1643279392788188928,2022-01-27-10:29:52,10.1.1.2,28,-0.090,-0.090,-0.090,0.000,0.000,0.000
1643279392987988992,2022-01-27-10:29:52,10.1.1.2,26,-0.100,-0.100,-0.100,0.000,0.000,0.000
1643279393166436864,2022-01-27-10:29:53,10.1.1.2,-1,-0.109,-0.109,-0.109,0.000,0.000,0.000
1643279393400516096,2022-01-27-10:29:53,10.1.1.2,36,-0.121,-0.121,-0.121,0.000,0.000,0.000
1643279393608038912,2022-01-27-10:29:53,10.1.1.2,41,-0.131,-0.131,-0.131,0.000,0.000,0.000
1643279393800195072,2022-01-27-10:29:53,10.1.1.2,31,-0.141,-0.141,-0.141,0.000,0.000,0.000
1643279393996804096,2022-01-27-10:29:53,10.1.1.2,27,-0.151,-0.151,-0.151,0.000,0.000,0.000
1643279394196448000,2022-01-27-10:29:54,10.1.1.2,25,-0.161,-0.161,-0.161,0.000,0.000,0.000
1643279394396387072,2022-01-27-10:29:54,10.1.1.2,21,-0.170,-0.170,-0.170,0.000,0.000,0.000
1643279394620083200,2022-01-27-10:29:54,10.1.1.2,43,-0.181,-0.181,-0.181,0.000,0.000,0.000
1643279394821871872,2022-01-27-10:29:54,10.1.1.2,44,-0.191,-0.191,-0.191,0.000,0.000,0.000
1643279395025944832,2022-01-27-10:29:55,10.1.1.2,43,-0.201,-0.201,-0.201,0.000,0.000,0.000
1643279395198853888,2022-01-27-10:29:55,10.1.1.2,19,-0.210,-0.210,-0.210,0.000,0.000,0.000
1643279395415705088,2022-01-27-10:29:55,10.1.1.2,35,-0.221,-0.221,-0.221,0.000,0.000,0.000
1643279395616493824,2022-01-27-10:29:55,10.1.1.2,32,-0.230,-0.230,-0.230,0.000,0.000,0.000
1643279395817921024,2022-01-27-10:29:55,10.1.1.2,30,-0.241,-0.241,-0.241,0.000,0.000,0.000
1643279396017978880,2022-01-27-10:29:56,10.1.1.2,31,-0.251,-0.251,-0.251,0.000,0.000,0.000
1643279396235919104,2022-01-27-10:29:56,10.1.1.2,44,-0.261,-0.261,-0.261,0.000,0.000,0.000
1643279396437704192,2022-01-27-10:29:56,10.1.1.2,41,-0.271,-0.271,-0.271,0.000,0.000,0.000
1643279396637413888,2022-01-27-10:29:56,10.1.1.2,39,-0.281,-0.281,-0.281,0.000,0.000,0.000
1643279396815728896,2022-01-27-10:29:56,10.1.1.2,15,-0.290,-0.290,-0.290,0.000,0.000,0.000
1643279397036412928,2022-01-27-10:29:57,10.1.1.2,34,-0.301,-0.301,-0.301,0.000,0.000,0.000
1643279397238167040,2022-01-27-10:29:57,10.1.1.2,35,-0.310,-0.310,-0.310,0.000,0.000,0.000
1643279397437433088,2022-01-27-10:29:57,10.1.1.2,33,-0.320,-0.320,-0.320,0.000,0.000,0.000
1643279397635579136,2022-01-27-10:29:57,10.1.1.2,27,-0.331,-0.331,-0.331,0.000,0.000,0.000
1643279397834761984,2022-01-27-10:29:57,10.1.1.2,25,-0.341,-0.341,-0.341,0.000,0.000,0.000
1643279398036029184,2022-01-27-10:29:58,10.1.1.2,24,-0.350,-0.350,-0.350,0.000,0.000,0.000
1643279398242449920,2022-01-27-10:29:58,10.1.1.2,29,-0.360,-0.360,-0.360,0.000,0.000,0.000
1643279398455446016,2022-01-27-10:29:58,10.1.1.2,34,-0.371,-0.371,-0.371,0.000,0.000,0.000
1643279398655534080,2022-01-27-10:29:58,10.1.1.2,30,-0.380,-0.380,-0.380,0.000,0.000,0.000
1643279398856600064,2022-01-27-10:29:58,10.1.1.2,31,-0.391,-0.391,-0.391,0.000,0.000,0.000
1643279399056071936,2022-01-27-10:29:59,10.1.1.2,29,-0.401,-0.401,-0.401,0.000,0.000,0.000
1643279399257381888,2022-01-27-10:29:59,10.1.1.2,27,-0.410,-0.410,-0.410,0.000,0.000,0.000
1643279399455596032,2022-01-27-10:29:59,10.1.1.2,24,-0.421,-0.421,-0.421,0.000,0.000,0.000
1643279399658784000,2022-01-27-10:29:59,10.1.1.2,25,-0.430,-0.430,-0.430,0.000,0.000,0.000
1643279399858097152,2022-01-27-10:29:59,10.1.1.2,22,-0.440,-0.440,-0.440,0.000,0.000,0.000
1643279400056308992,2022-01-27-10:30:00,10.1.1.2,19,-0.450,-0.450,-0.450,0.000,0.000,0.000
1643279400255793152,2022-01-27-10:30:00,10.1.1.2,18,-0.460,-0.460,-0.460,0.000,0.000,0.000
1643279400458116096,2022-01-27-10:30:00,10.1.1.2,19,-0.470,-0.470,-0.470,0.000,0.000,0.000
1643279400679074048,2022-01-27-10:30:00,10.1.1.2,38,-0.481,-0.481,-0.481,0.000,0.000,0.000
1643279400881260032,2022-01-27-10:30:00,10.1.1.2,39,-0.490,-0.490,-0.490,0.000,0.000,0.000
1643279401077487104,2022-01-27-10:30:01,10.1.1.2,31,-0.479,-0.479,-0.479,0.000,0.000,0.000
1643279401276286976,2022-01-27-10:30:01,10.1.1.2,28,-0.469,-0.469,-0.469,0.000,0.000,0.000
1643279401475298816,2022-01-27-10:30:01,10.1.1.2,25,-0.459,-0.459,-0.459,0.000,0.000,0.000
1643279401675382016,2022-01-27-10:30:01,10.1.1.2,25,-0.449,-0.449,-0.449,0.000,0.000,0.000
1643279401877448960,2022-01-27-10:30:01,10.1.1.2,23,-0.440,-0.440,-0.440,0.000,0.000,0.000
1643279402096677120,2022-01-27-10:30:02,10.1.1.2,40,-0.429,-0.429,-0.429,0.000,0.000,0.000
1643279402300834816,2022-01-27-10:30:02,10.1.1.2,39,-0.419,-0.419,-0.419,0.000,0.000,0.000
1643279402495640064,2022-01-27-10:30:02,10.1.1.2,33,-0.409,-0.409,-0.409,0.000,0.000,0.000
1643279402696419072,2022-01-27-10:30:02,10.1.1.2,31,-0.399,-0.399,-0.399,0.000,0.000,0.000
1643279402895682048,2022-01-27-10:30:02,10.1.1.2,30,-0.389,-0.389,-0.389,0.000,0.000,0.000
1643279403096066048,2022-01-27-10:30:03,10.1.1.2,29,-0.379,-0.379,-0.379,0.000,0.000,0.000
1643279403298533888,2022-01-27-10:30:03,10.1.1.2,30,-0.369,-0.369,-0.369,0.000,0.000,0.000
1643279403517292032,2022-01-27-10:30:03,10.1.1.2,43,-0.359,-0.359,-0.359,0.000,0.000,0.000
1643279403696534016,2022-01-27-10:30:03,10.1.1.2,20,-0.350,-0.350,-0.350,0.000,0.000,0.000
1643279403894251008,2022-01-27-10:30:03,10.1.1.2,17,-0.340,-0.340,-0.340,0.000,0.000,0.000
1643279404096116992,2022-01-27-10:30:04,10.1.1.2,17,-0.330,-0.330,-0.330,0.000,0.000,0.000
1643279404323087104,2022-01-27-10:30:04,10.1.1.2,43,-0.319,-0.319,-0.319,0.000,0.000,0.000
1643279404518658048,2022-01-27-10:30:04,10.1.1.2,37,-0.309,-0.309,-0.309,0.000,0.000,0.000
1643279404719134208,2022-01-27-10:30:04,10.1.1.2,34,-0.299,-0.299,-0.299,0.000,0.000,0.000
1643279404915308032,2022-01-27-10:30:04,10.1.1.2,30,-0.289,-0.289,-0.289,0.000,0.000,0.000
1643279405117969152,2022-01-27-10:30:05,10.1.1.2,30,-0.279,-0.279,-0.279,0.000,0.000,0.000
1643279405316796928,2022-01-27-10:30:05,10.1.1.2,27,-0.269,-0.269,-0.269,0.000,0.000,0.000
1643279405514851072,2022-01-27-10:30:05,10.1.1.2,20,-0.260,-0.260,-0.260,0.000,0.000,0.000
1643279405715099136,2022-01-27-10:30:05,10.1.1.2,19,-0.250,-0.250,-0.250,0.000,0.000,0.000
1643279405936451072,2022-01-27-10:30:05,10.1.1.2,37,-0.239,-0.239,-0.239,0.000,0.000,0.000
1643279406136755968,2022-01-27-10:30:06,10.1.1.2,31,-0.230,-0.230,-0.230,0.000,0.000,0.000
1643279406339400960,2022-01-27-10:30:06,10.1.1.2,33,-0.220,-0.220,-0.220,0.000,0.000,0.000
1643279406556217856,2022-01-27-10:30:06,10.1.1.2,43,-0.209,-0.209,-0.209,0.000,0.000,0.000
1643279406757208064,2022-01-27-10:30:06,10.1.1.2,42,-0.199,-0.199,-0.199,0.000,0.000,0.000
1643279406957627904,2022-01-27-10:30:06,10.1.1.2,40,-0.189,-0.189,-0.189,0.000,0.000,0.000
1643279407162070016,2022-01-27-10:30:07,10.1.1.2,40,-0.179,-0.179,-0.179,0.000,0.000,0.000
1643279407354952192,2022-01-27-10:30:07,10.1.1.2,30,-0.170,-0.170,-0.170,0.000,0.000,0.000
1643279407555421184,2022-01-27-10:30:07,10.1.1.2,29,-0.159,-0.159,-0.159,0.000,0.000,0.000
1643279407755932928,2022-01-27-10:30:07,10.1.1.2,28,-0.149,-0.149,-0.149,0.000,0.000,0.000
1643279407957712896,2022-01-27-10:30:07,10.1.1.2,29,-0.140,-0.140,-0.140,0.000,0.000,0.000
1643279408154917120,2022-01-27-10:30:08,10.1.1.2,23,-0.130,-0.130,-0.130,0.000,0.000,0.000
1643279408354345984,2022-01-27-10:30:08,10.1.1.2,17,-0.120,-0.120,-0.120,0.000,0.000,0.000
1643279408558247936,2022-01-27-10:30:08,10.1.1.2,18,-0.110,-0.110,-0.110,0.000,0.000,0.000
1643279408755438080,2022-01-27-10:30:08,10.1.1.2,14,-0.100,-0.100,-0.100,0.000,0.000,0.000
1643279408957624064,2022-01-27-10:30:08,10.1.1.2,16,-0.090,-0.090,-0.090,0.000,0.000,0.000
1643279409176871168,2022-01-27-10:30:09,10.1.1.2,32,-0.079,-0.079,-0.079,0.000,0.000,0.000
1643279409376446976,2022-01-27-10:30:09,10.1.1.2,30,-0.069,-0.069,-0.069,0.000,0.000,0.000
1643279409576477952,2022-01-27-10:30:09,10.1.1.2,29,-0.059,-0.059,-0.059,0.000,0.000,0.000
1643279409775450112,2022-01-27-10:30:09,10.1.1.2,28,-0.049,-0.049,-0.049,0.000,0.000,0.000
1643279409997435136,2022-01-27-10:30:09,10.1.1.2,46,-0.039,-0.039,-0.039,0.000,0.000,0.000
1643279410175251968,2022-01-27-10:30:10,10.1.1.2,22,-0.030,-0.030,-0.030,0.000,0.000,0.000
1643279410395958784,2022-01-27-10:30:10,10.1.1.2,41,-0.019,-0.019,-0.019,0.000,0.000,0.000
1643279410578018816,2022-01-27-10:30:10,10.1.1.2,21,-0.010,-0.010,-0.010,0.000,0.000,0.000
1643279410796304896,2022-01-27-10:30:10,10.1.1.2,31,-0.001,-0.001,-0.001,0.000,0.000,0.000
1643279410998942976,2022-01-27-10:30:10,10.1.1.2,33,-0.011,-0.011,-0.011,0.000,0.000,0.000
1643279411199120896,2022-01-27-10:30:11,10.1.1.2,31,-0.021,-0.021,-0.021,0.000,0.000,0.000
1643279411398199040,2022-01-27-10:30:11,10.1.1.2,29,-0.031,-0.031,-0.031,0.000,0.000,0.000
1643279411594981888,2022-01-27-10:30:11,10.1.1.2,24,-0.041,-0.041,-0.041,0.000,0.000,0.000
1643279411798129152,2022-01-27-10:30:11,10.1.1.2,22,-0.050,-0.050,-0.050,0.000,0.000,0.000
1643279411998291968,2022-01-27-10:30:11,10.1.1.2,19,-0.060,-0.060,-0.060,0.000,0.000,0.000
1643279412195910912,2022-01-27-10:30:12,10.1.1.2,15,-0.070,-0.070,-0.070,0.000,0.000,0.000
1643279412395597056,2022-01-27-10:30:12,10.1.1.2,13,-0.080,-0.080,-0.080,0.000,0.000,0.000
1643279412615621120,2022-01-27-10:30:12,10.1.1.2,32,-0.091,-0.091,-0.091,0.000,0.000,0.000
1643279412814599936,2022-01-27-10:30:12,10.1.1.2,30,-0.101,-0.101,-0.101,0.000,0.000,0.000
1643279413016177920,2022-01-27-10:30:13,10.1.1.2,31,-0.111,-0.111,-0.111,0.000,0.000,0.000
1643279413217798912,2022-01-27-10:30:13,10.1.1.2,30,-0.121,-0.121,-0.121,0.000,0.000,0.000
1643279413418590976,2022-01-27-10:30:13,10.1.1.2,30,-0.131,-0.131,-0.131,0.000,0.000,0.000
1643279413616058112,2022-01-27-10:30:13,10.1.1.2,24,-0.140,-0.140,-0.140,0.000,0.000,0.000
1643279413818081024,2022-01-27-10:30:13,10.1.1.2,25,-0.150,-0.150,-0.150,0.000,0.000,0.000
1643279414019193856,2022-01-27-10:30:14,10.1.1.2,22,-0.160,-0.160,-0.160,0.000,0.000,0.000
1643279414215416832,2022-01-27-10:30:14,10.1.1.2,16,-0.170,-0.170,-0.170,0.000,0.000,0.000
1643279414435432960,2022-01-27-10:30:14,10.1.1.2,34,-0.181,-0.181,-0.181,0.000,0.000,0.000
1643279414635778816,2022-01-27-10:30:14,10.1.1.2,34,-0.191,-0.191,-0.191,0.000,0.000,0.000
1643279414837852928,2022-01-27-10:30:14,10.1.1.2,33,-0.201,-0.201,-0.201,0.000,0.000,0.000
1643279415036508928,2022-01-27-10:30:15,10.1.1.2,30,-0.211,-0.211,-0.211,0.000,0.000,0.000
1643279415235756032,2022-01-27-10:30:15,10.1.1.2,24,-0.220,-0.220,-0.220,0.000,0.000,0.000
1643279415444588800,2022-01-27-10:30:15,10.1.1.2,26,-0.230,-0.230,-0.230,0.000,0.000,0.000
1643279415637594880,2022-01-27-10:30:15,10.1.1.2,19,-0.240,-0.240,-0.240,0.000,0.000,0.000
1643279415856143104,2022-01-27-10:30:15,10.1.1.2,37,-0.251,-0.251,-0.251,0.000,0.000,0.000
1643279416041604096,2022-01-27-10:30:16,10.1.1.2,21,-0.260,-0.260,-0.260,0.000,0.000,0.000
1643279416255181056,2022-01-27-10:30:16,10.1.1.2,33,-0.271,-0.271,-0.271,0.000,0.000,0.000
1643279416458707200,2022-01-27-10:30:16,10.1.1.2,36,-0.281,-0.281,-0.281,0.000,0.000,0.000
1643279416656387072,2022-01-27-10:30:16,10.1.1.2,33,-0.291,-0.291,-0.291,0.000,0.000,0.000
1643279416859941120,2022-01-27-10:30:16,10.1.1.2,35,-0.301,-0.301,-0.301,0.000,0.000,0.000
1643279417060455168,2022-01-27-10:30:17,10.1.1.2,35,-0.311,-0.311,-0.311,0.000,0.000,0.000
1643279417257294848,2022-01-27-10:30:17,10.1.1.2,31,-0.321,-0.321,-0.321,0.000,0.000,0.000
1643279417458540800,2022-01-27-10:30:17,10.1.1.2,30,-0.331,-0.331,-0.331,0.000,0.000,0.000
1643279417655692032,2022-01-27-10:30:17,10.1.1.2,25,-0.341,-0.341,-0.341,0.000,0.000,0.000
1643279417876440064,2022-01-27-10:30:17,10.1.1.2,43,-0.351,-0.351,-0.351,0.000,0.000,0.000
1643279418076498944,2022-01-27-10:30:18,10.1.1.2,41,-0.361,-0.361,-0.361,0.000,0.000,0.000
1643279418256537856,2022-01-27-10:30:18,10.1.1.2,20,-0.370,-0.370,-0.370,0.000,0.000,0.000
1643279418456419072,2022-01-27-10:30:18,10.1.1.2,19,-0.380,-0.380,-0.380,0.000,0.000,0.000
1643279418674249984,2022-01-27-10:30:18,10.1.1.2,34,-0.391,-0.391,-0.391,0.000,0.000,0.000
1643279418876488960,2022-01-27-10:30:18,10.1.1.2,34,-0.401,-0.401,-0.401,0.000,0.000,0.000
1643279419076445184,2022-01-27-10:30:19,10.1.1.2,30,-0.411,-0.411,-0.411,0.000,0.000,0.000
1643279419276344064,2022-01-27-10:30:19,10.1.1.2,27,-0.421,-0.421,-0.421,0.000,0.000,0.000
1643279419499484160,2022-01-27-10:30:19,10.1.1.2,43,-0.431,-0.431,-0.431,0.000,0.000,0.000
1643279419677922048,2022-01-27-10:30:19,10.1.1.2,19,-0.440,-0.440,-0.440,0.000,0.000,0.000
1643279419885370112,2022-01-27-10:30:19,10.1.1.2,24,-0.450,-0.450,-0.450,0.000,0.000,0.000
1643279420096257024,2022-01-27-10:30:20,10.1.1.2,34,-0.461,-0.461,-0.461,0.000,0.000,0.000
1643279420301368832,2022-01-27-10:30:20,10.1.1.2,38,-0.471,-0.471,-0.471,0.000,0.000,0.000
1643279420498724864,2022-01-27-10:30:20,10.1.1.2,34,-0.481,-0.481,-0.481,0.000,0.000,0.000
1643279420677632000,2022-01-27-10:30:20,10.1.1.2,12,-0.490,-0.490,-0.490,0.000,0.000,0.000
1643279420898350080,2022-01-27-10:30:20,10.1.1.2,31,-0.479,-0.479,-0.479,0.000,0.000,0.000
1643279421101512960,2022-01-27-10:30:21,10.1.1.2,34,-0.469,-0.469,-0.469,0.000,0.000,0.000
1643279421299197952,2022-01-27-10:30:21,10.1.1.2,31,-0.459,-0.459,-0.459,0.000,0.000,0.000
1643279421501487104,2022-01-27-10:30:21,10.1.1.2,32,-0.449,-0.449,-0.449,0.000,0.000,0.000
1643279421696268032,2022-01-27-10:30:21,10.1.1.2,26,-0.439,-0.439,-0.439,0.000,0.000,0.000
1643279421896510976,2022-01-27-10:30:21,10.1.1.2,25,-0.430,-0.430,-0.430,0.000,0.000,0.000
1643279422114775040,2022-01-27-10:30:22,10.1.1.2,43,-0.419,-0.419,-0.419,0.000,0.000,0.000
1643279422315316992,2022-01-27-10:30:22,10.1.1.2,42,-0.409,-0.409,-0.409,0.000,0.000,0.000
1643279422515589888,2022-01-27-10:30:22,10.1.1.2,38,-0.399,-0.399,-0.399,0.000,0.000,0.000
1643279422697046016,2022-01-27-10:30:22,10.1.1.2,18,-0.390,-0.390,-0.390,0.000,0.000,0.000
1643279422915278080,2022-01-27-10:30:22,10.1.1.2,36,-0.379,-0.379,-0.379,0.000,0.000,0.000
1643279423099694848,2022-01-27-10:30:23,10.1.1.2,20,-0.370,-0.370,-0.370,0.000,0.000,0.000
1643279423304064000,2022-01-27-10:30:23,10.1.1.2,21,-0.360,-0.360,-0.360,0.000,0.000,0.000
1643279423519425024,2022-01-27-10:30:23,10.1.1.2,38,-0.349,-0.349,-0.349,0.000,0.000,0.000
1643279423715920896,2022-01-27-10:30:23,10.1.1.2,33,-0.340,-0.340,-0.340,0.000,0.000,0.000
1643279423916468992,2022-01-27-10:30:23,10.1.1.2,33,-0.329,-0.329,-0.329,0.000,0.000,0.000
1643279424115255040,2022-01-27-10:30:24,10.1.1.2,30,-0.319,-0.319,-0.319,0.000,0.000,0.000
1643279424318573056,2022-01-27-10:30:24,10.1.1.2,33,-0.310,-0.310,-0.310,0.000,0.000,0.000
1643279424518682112,2022-01-27-10:30:24,10.1.1.2,30,-0.299,-0.299,-0.299,0.000,0.000,0.000
1643279424719188992,2022-01-27-10:30:24,10.1.1.2,31,-0.290,-0.290,-0.290,0.000,0.000,0.000
1643279424916111872,2022-01-27-10:30:24,10.1.1.2,27,-0.279,-0.279,-0.279,0.000,0.000,0.000
1643279425117722880,2022-01-27-10:30:25,10.1.1.2,28,-0.269,-0.269,-0.269,0.000,0.000,0.000
1643279425315080960,2022-01-27-10:30:25,10.1.1.2,25,-0.259,-0.259,-0.259,0.000,0.000,0.000
1643279425517873152,2022-01-27-10:30:25,10.1.1.2,26,-0.250,-0.250,-0.250,0.000,0.000,0.000
1643279425715415040,2022-01-27-10:30:25,10.1.1.2,21,-0.240,-0.240,-0.240,0.000,0.000,0.000
1643279425938016768,2022-01-27-10:30:25,10.1.1.2,42,-0.229,-0.229,-0.229,0.000,0.000,0.000
1643279426134601984,2022-01-27-10:30:26,10.1.1.2,37,-0.219,-0.219,-0.219,0.000,0.000,0.000
1643279426317612032,2022-01-27-10:30:26,10.1.1.2,20,-0.210,-0.210,-0.210,0.000,0.000,0.000
1643279426536397824,2022-01-27-10:30:26,10.1.1.2,37,-0.199,-0.199,-0.199,0.000,0.000,0.000
1643279426716185088,2022-01-27-10:30:26,10.1.1.2,15,-0.190,-0.190,-0.190,0.000,0.000,0.000
1643279426938048000,2022-01-27-10:30:26,10.1.1.2,36,-0.179,-0.179,-0.179,0.000,0.000,0.000
1643279427137017088,2022-01-27-10:30:27,10.1.1.2,32,-0.169,-0.169,-0.169,0.000,0.000,0.000
1643279427336146176,2022-01-27-10:30:27,10.1.1.2,30,-0.159,-0.159,-0.159,0.000,0.000,0.000
1643279427538971904,2022-01-27-10:30:27,10.1.1.2,32,-0.149,-0.149,-0.149,0.000,0.000,0.000
1643279427736219904,2022-01-27-10:30:27,10.1.1.2,26,-0.139,-0.139,-0.139,0.000,0.000,0.000
1643279427934932992,2022-01-27-10:30:27,10.1.1.2,24,-0.129,-0.129,-0.129,0.000,0.000,0.000
1643279428135791104,2022-01-27-10:30:28,10.1.1.2,24,-0.120,-0.120,-0.120,0.000,0.000,0.000
1643279428335262976,2022-01-27-10:30:28,10.1.1.2,22,-0.110,-0.110,-0.110,0.000,0.000,0.000
1643279428536043008,2022-01-27-10:30:28,10.1.1.2,20,-0.100,-0.100,-0.100,0.000,0.000,0.000
1643279428736655104,2022-01-27-10:30:28,10.1.1.2,18,-0.090,-0.090,-0.090,0.000,0.000,0.000
1643279428938054144,2022-01-27-10:30:28,10.1.1.2,19,-0.080,-0.080,-0.080,0.000,0.000,0.000
1643279429155246080,2022-01-27-10:30:29,10.1.1.2,36,-0.069,-0.069,-0.069,0.000,0.000,0.000
1643279429359257856,2022-01-27-10:30:29,10.1.1.2,39,-0.059,-0.059,-0.059,0.000,0.000,0.000
1643279429556283904,2022-01-27-10:30:29,10.1.1.2,35,-0.049,-0.049,-0.049,0.000,0.000,0.000
1643279429755783168,2022-01-27-10:30:29,10.1.1.2,33,-0.039,-0.039,-0.039,0.000,0.000,0.000
1643279429956235008,2022-01-27-10:30:29,10.1.1.2,32,-0.029,-0.029,-0.029,0.000,0.000,0.000
1643279430157790976,2022-01-27-10:30:30,10.1.1.2,33,-0.019,-0.019,-0.019,0.000,0.000,0.000
1643279430355557888,2022-01-27-10:30:30,10.1.1.2,28,-0.010,-0.010,-0.010,0.000,0.000,0.000
1643279430536046080,2022-01-27-10:30:30,10.1.1.2,6,-0.000,-0.000,-0.000,0.000,0.000,0.000
1643279430778230016,2022-01-27-10:30:30,10.1.1.2,47,-0.011,-0.011,-0.011,0.000,0.000,0.000
1643279430959443968,2022-01-27-10:30:30,10.1.1.2,27,-0.020,-0.020,-0.020,0.000,0.000,0.000
1643279431176440832,2022-01-27-10:30:31,10.1.1.2,36,-0.031,-0.031,-0.031,0.000,0.000,0.000
1643279431378232832,2022-01-27-10:30:31,10.1.1.2,36,-0.041,-0.041,-0.041,0.000,0.000,0.000
1643279431577775872,2022-01-27-10:30:31,10.1.1.2,32,-0.051,-0.051,-0.051,0.000,0.000,0.000
1643279431778176000,2022-01-27-10:30:31,10.1.1.2,34,-0.061,-0.061,-0.061,0.000,0.000,0.000
1643279431980391936,2022-01-27-10:30:31,10.1.1.2,35,-0.071,-0.071,-0.071,0.000,0.000,0.000
1643279432175000832,2022-01-27-10:30:32,10.1.1.2,27,-0.081,-0.081,-0.081,0.000,0.000,0.000
1643279432378868992,2022-01-27-10:30:32,10.1.1.2,27,-0.091,-0.091,-0.091,0.000,0.000,0.000
1643279432578188800,2022-01-27-10:30:32,10.1.1.2,27,-0.101,-0.101,-0.101,0.000,0.000,0.000
1643279432775648000,2022-01-27-10:30:32,10.1.1.2,20,-0.110,-0.110,-0.110,0.000,0.000,0.000
1643279432977650944,2022-01-27-10:30:32,10.1.1.2,21,-0.120,-0.120,-0.120,0.000,0.000,0.000
1643279433176183040,2022-01-27-10:30:33,10.1.1.2,17,-0.130,-0.130,-0.130,0.000,0.000,0.000
1643279433377682944,2022-01-27-10:30:33,10.1.1.2,18,-0.140,-0.140,-0.140,0.000,0.000,0.000
1643279433596334080,2022-01-27-10:30:33,10.1.1.2,35,-0.151,-0.151,-0.151,0.000,0.000,0.000
1643279433775273984,2022-01-27-10:30:33,10.1.1.2,14,-0.160,-0.160,-0.160,0.000,0.000,0.000
1643279433999201024,2022-01-27-10:30:33,10.1.1.2,37,-0.171,-0.171,-0.171,0.000,0.000,0.000
1643279434196562176,2022-01-27-10:30:34,10.1.1.2,33,-0.181,-0.181,-0.181,0.000,0.000,0.000
1643279434396486912,2022-01-27-10:30:34,10.1.1.2,28,-0.191,-0.191,-0.191,0.000,0.000,0.000
1643279434596362240,2022-01-27-10:30:34,10.1.1.2,26,-0.201,-0.201,-0.201,0.000,0.000,0.000
1643279434798543104,2022-01-27-10:30:34,10.1.1.2,28,-0.211,-0.211,-0.211,0.000,0.000,0.000
1643279434997605120,2022-01-27-10:30:34,10.1.1.2,23,-0.220,-0.220,-0.220,0.000,0.000,0.000
1643279435195371008,2022-01-27-10:30:35,10.1.1.2,21,-0.230,-0.230,-0.230,0.000,0.000,0.000
1643279435414149120,2022-01-27-10:30:35,10.1.1.2,37,-0.241,-0.241,-0.241,0.000,0.000,0.000
1643279435615539968,2022-01-27-10:30:35,10.1.1.2,38,-0.251,-0.251,-0.251,0.000,0.000,0.000
1643279435815025152,2022-01-27-10:30:35,10.1.1.2,36,-0.261,-0.261,-0.261,0.000,0.000,0.000
1643279436015853824,2022-01-27-10:30:36,10.1.1.2,35,-0.271,-0.271,-0.271,0.000,0.000,0.000
1643279436196881152,2022-01-27-10:30:36,10.1.1.2,15,-0.280,-0.280,-0.280,0.000,0.000,0.000
1643279436418287104,2022-01-27-10:30:36,10.1.1.2,36,-0.291,-0.291,-0.291,0.000,0.000,0.000
1643279436615292928,2022-01-27-10:30:36,10.1.1.2,31,-0.301,-0.301,-0.301,0.000,0.000,0.000
1643279436819046144,2022-01-27-10:30:36,10.1.1.2,34,-0.311,-0.311,-0.311,0.000,0.000,0.000
1643279437015696896,2022-01-27-10:30:37,10.1.1.2,28,-0.321,-0.321,-0.321,0.000,0.000,0.000
1643279437216347904,2022-01-27-10:30:37,10.1.1.2,26,-0.330,-0.330,-0.330,0.000,0.000,0.000
1643279437417203968,2022-01-27-10:30:37,10.1.1.2,25,-0.340,-0.340,-0.340,0.000,0.000,0.000
1643279437615827200,2022-01-27-10:30:37,10.1.1.2,23,-0.350,-0.350,-0.350,0.000,0.000,0.000
1643279437816476160,2022-01-27-10:30:37,10.1.1.2,21,-0.360,-0.360,-0.360,0.000,0.000,0.000
1643279438036547072,2022-01-27-10:30:38,10.1.1.2,37,-0.371,-0.371,-0.371,0.000,0.000,0.000
1643279438234447104,2022-01-27-10:30:38,10.1.1.2,31,-0.381,-0.381,-0.381,0.000,0.000,0.000
1643279438435204864,2022-01-27-10:30:38,10.1.1.2,31,-0.391,-0.391,-0.391,0.000,0.000,0.000
1643279438637507072,2022-01-27-10:30:38,10.1.1.2,32,-0.401,-0.401,-0.401,0.000,0.000,0.000
1643279438835745024,2022-01-27-10:30:38,10.1.1.2,27,-0.410,-0.410,-0.410,0.000,0.000,0.000
1643279439036619008,2022-01-27-10:30:39,10.1.1.2,27,-0.421,-0.421,-0.421,0.000,0.000,0.000
1643279439237744128,2022-01-27-10:30:39,10.1.1.2,26,-0.431,-0.431,-0.431,0.000,0.000,0.000
1643279439455958016,2022-01-27-10:30:39,10.1.1.2,43,-0.441,-0.441,-0.441,0.000,0.000,0.000
1643279439636534016,2022-01-27-10:30:39,10.1.1.2,22,-0.450,-0.450,-0.450,0.000,0.000,0.000
1643279439858076160,2022-01-27-10:30:39,10.1.1.2,41,-0.461,-0.461,-0.461,0.000,0.000,0.000
1643279440057389056,2022-01-27-10:30:40,10.1.1.2,37,-0.471,-0.471,-0.471,0.000,0.000,0.000
1643279440257586944,2022-01-27-10:30:40,10.1.1.2,35,-0.481,-0.481,-0.481,0.000,0.000,0.000
1643279440435508992,2022-01-27-10:30:40,10.1.1.2,12,-0.490,-0.490,-0.490,0.000,0.000,0.000
1643279440656007936,2022-01-27-10:30:40,10.1.1.2,32,-0.479,-0.479,-0.479,0.000,0.000,0.000
1643279440855108864,2022-01-27-10:30:40,10.1.1.2,29,-0.469,-0.469,-0.469,0.000,0.000,0.000
1643279441054554112,2022-01-27-10:30:41,10.1.1.2,26,-0.459,-0.459,-0.459,0.000,0.000,0.000
1643279441274269184,2022-01-27-10:30:41,10.1.1.2,41,-0.449,-0.449,-0.449,0.000,0.000,0.000
1643279441455204864,2022-01-27-10:30:41,10.1.1.2,19,-0.440,-0.440,-0.440,0.000,0.000,0.000
1643279441674590208,2022-01-27-10:30:41,10.1.1.2,37,-0.429,-0.429,-0.429,0.000,0.000,0.000
1643279441877182976,2022-01-27-10:30:41,10.1.1.2,38,-0.419,-0.419,-0.419,0.000,0.000,0.000
1643279442075777024,2022-01-27-10:30:42,10.1.1.2,33,-0.409,-0.409,-0.409,0.000,0.000,0.000
1643279442277143040,2022-01-27-10:30:42,10.1.1.2,33,-0.399,-0.399,-0.399,0.000,0.000,0.000
1643279442475808000,2022-01-27-10:30:42,10.1.1.2,30,-0.390,-0.390,-0.390,0.000,0.000,0.000
1643279442679634944,2022-01-27-10:30:42,10.1.1.2,33,-0.379,-0.379,-0.379,0.000,0.000,0.000
1643279442878103040,2022-01-27-10:30:42,10.1.1.2,29,-0.369,-0.369,-0.369,0.000,0.000,0.000
1643279443076883200,2022-01-27-10:30:43,10.1.1.2,26,-0.359,-0.359,-0.359,0.000,0.000,0.000
1643279443296766976,2022-01-27-10:30:43,10.1.1.2,44,-0.349,-0.349,-0.349,0.000,0.000,0.000
1643279443477242880,2022-01-27-10:30:43,10.1.1.2,24,-0.340,-0.340,-0.340,0.000,0.000,0.000
1643279443694534912,2022-01-27-10:30:43,10.1.1.2,35,-0.329,-0.329,-0.329,0.000,0.000,0.000
1643279443896049920,2022-01-27-10:30:43,10.1.1.2,35,-0.319,-0.319,-0.319,0.000,0.000,0.000
1643279444094650880,2022-01-27-10:30:44,10.1.1.2,31,-0.309,-0.309,-0.309,0.000,0.000,0.000
1643279444295734016,2022-01-27-10:30:44,10.1.1.2,31,-0.299,-0.299,-0.299,0.000,0.000,0.000
1643279444498054912,2022-01-27-10:30:44,10.1.1.2,29,-0.289,-0.289,-0.289,0.000,0.000,0.000
1643279444696187136,2022-01-27-10:30:44,10.1.1.2,26,-0.279,-0.279,-0.279,0.000,0.000,0.000
1643279444896028928,2022-01-27-10:30:44,10.1.1.2,25,-0.270,-0.270,-0.270,0.000,0.000,0.000
1643279445115427072,2022-01-27-10:30:45,10.1.1.2,38,-0.259,-0.259,-0.259,0.000,0.000,0.000
1643279445296510976,2022-01-27-10:30:45,10.1.1.2,18,-0.250,-0.250,-0.250,0.000,0.000,0.000
1643279445514902016,2022-01-27-10:30:45,10.1.1.2,36,-0.239,-0.239,-0.239,0.000,0.000,0.000
1643279445715392000,2022-01-27-10:30:45,10.1.1.2,35,-0.229,-0.229,-0.229,0.000,0.000,0.000
1643279445894934784,2022-01-27-10:30:45,10.1.1.2,14,-0.220,-0.220,-0.220,0.000,0.000,0.000
1643279446117558016,2022-01-27-10:30:46,10.1.1.2,36,-0.209,-0.209,-0.209,0.000,0.000,0.000
1643279446315745024,2022-01-27-10:30:46,10.1.1.2,33,-0.199,-0.199,-0.199,0.000,0.000,0.000
1643279446517453056,2022-01-27-10:30:46,10.1.1.2,33,-0.189,-0.189,-0.189,0.000,0.000,0.000
1643279446715120128,2022-01-27-10:30:46,10.1.1.2,30,-0.179,-0.179,-0.179,0.000,0.000,0.000
1643279446919975168,2022-01-27-10:30:46,10.1.1.2,35,-0.169,-0.169,-0.169,0.000,0.000,0.000
1643279447117440000,2022-01-27-10:30:47,10.1.1.2,31,-0.159,-0.159,-0.159,0.000,0.000,0.000
1643279447317202944,2022-01-27-10:30:47,10.1.1.2,29,-0.149,-0.149,-0.149,0.000,0.000,0.000
1643279447516001024,2022-01-27-10:30:47,10.1.1.2,27,-0.139,-0.139,-0.139,0.000,0.000,0.000
1643279447717772032,2022-01-27-10:30:47,10.1.1.2,25,-0.129,-0.129,-0.129,0.000,0.000,0.000
1643279447919907072,2022-01-27-10:30:47,10.1.1.2,28,-0.120,-0.120,-0.120,0.000,0.000,0.000
1643279448117103104,2022-01-27-10:30:48,10.1.1.2,24,-0.110,-0.110,-0.110,0.000,0.000,0.000
1643279448318075904,2022-01-27-10:30:48,10.1.1.2,22,-0.100,-0.100,-0.100,0.000,0.000,0.000
1643279448517556992,2022-01-27-10:30:48,10.1.1.2,20,-0.090,-0.090,-0.090,0.000,0.000,0.000
1643279448714188032,2022-01-27-10:30:48,10.1.1.2,16,-0.080,-0.080,-0.080,0.000,0.000,0.000
1643279448935426048,2022-01-27-10:30:48,10.1.1.2,36,-0.069,-0.069,-0.069,0.000,0.000,0.000
1643279449136951808,2022-01-27-10:30:49,10.1.1.2,36,-0.059,-0.059,-0.059,0.000,0.000,0.000
1643279449317570816,2022-01-27-10:30:49,10.1.1.2,17,-0.050,-0.050,-0.050,0.000,0.000,0.000
1643279449538646016,2022-01-27-10:30:49,10.1.1.2,35,-0.039,-0.039,-0.039,0.000,0.000,0.000
1643279449740111104,2022-01-27-10:30:49,10.1.1.2,35,-0.029,-0.029,-0.029,0.000,0.000,0.000
1643279449937815808,2022-01-27-10:30:49,10.1.1.2,32,-0.019,-0.019,-0.019,0.000,0.000,0.000
1643279450138443008,2022-01-27-10:30:50,10.1.1.2,29,-0.009,-0.009,-0.009,0.000,0.000,0.000
1643279450315548928,2022-01-27-10:30:50,10.1.1.2,7,-0.000,-0.000,-0.000,0.000,0.000,0.000
1643279450538044928,2022-01-27-10:30:50,10.1.1.2,28,-0.011,-0.011,-0.011,0.000,0.000,0.000
1643279450736115968,2022-01-27-10:30:50,10.1.1.2,25,-0.020,-0.020,-0.020,0.000,0.000,0.000
1643279450956200960,2022-01-27-10:30:50,10.1.1.2,44,-0.031,-0.031,-0.031,0.000,0.000,0.000
1643279451137597184,2022-01-27-10:30:51,10.1.1.2,23,-0.040,-0.040,-0.040,0.000,0.000,0.000
1643279451361965824,2022-01-27-10:30:51,10.1.1.2,44,-0.051,-0.051,-0.051,0.000,0.000,0.000
1643279451556077056,2022-01-27-10:30:51,10.1.1.2,37,-0.061,-0.061,-0.061,0.000,0.000,0.000
1643279451736704000,2022-01-27-10:30:51,10.1.1.2,17,-0.070,-0.070,-0.070,0.000,0.000,0.000
1643279451936664064,2022-01-27-10:30:51,10.1.1.2,15,-0.080,-0.080,-0.080,0.000,0.000,0.000
1643279452136628992,2022-01-27-10:30:52,10.1.1.2,14,-0.090,-0.090,-0.090,0.000,0.000,0.000
1643279452337684992,2022-01-27-10:30:52,10.1.1.2,12,-0.100,-0.100,-0.100,0.000,0.000,0.000
1643279452558242048,2022-01-27-10:30:52,10.1.1.2,27,-0.111,-0.111,-0.111,0.000,0.000,0.000
1643279452754714112,2022-01-27-10:30:52,10.1.1.2,19,-0.120,-0.120,-0.120,0.000,0.000,0.000
1643279452955044096,2022-01-27-10:30:52,10.1.1.2,18,-0.130,-0.130,-0.130,0.000,0.000,0.000
1643279453175817984,2022-01-27-10:30:53,10.1.1.2,38,-0.141,-0.141,-0.141,0.000,0.000,0.000
1643279453374403072,2022-01-27-10:30:53,10.1.1.2,36,-0.151,-0.151,-0.151,0.000,0.000,0.000
1643279453575522816,2022-01-27-10:30:53,10.1.1.2,35,-0.161,-0.161,-0.161,0.000,0.000,0.000
1643279453755618048,2022-01-27-10:30:53,10.1.1.2,14,-0.170,-0.170,-0.170,0.000,0.000,0.000
1643279453975943168,2022-01-27-10:30:53,10.1.1.2,33,-0.181,-0.181,-0.181,0.000,0.000,0.000
1643279454174376960,2022-01-27-10:30:54,10.1.1.2,31,-0.191,-0.191,-0.191,0.000,0.000,0.000
1643279454375742976,2022-01-27-10:30:54,10.1.1.2,30,-0.201,-0.201,-0.201,0.000,0.000,0.000
1643279454575563008,2022-01-27-10:30:54,10.1.1.2,27,-0.211,-0.211,-0.211,0.000,0.000,0.000
1643279454775436032,2022-01-27-10:30:54,10.1.1.2,24,-0.221,-0.221,-0.221,0.000,0.000,0.000
1643279454996953088,2022-01-27-10:30:54,10.1.1.2,44,-0.231,-0.231,-0.231,0.000,0.000,0.000
1643279455194650880,2022-01-27-10:30:55,10.1.1.2,41,-0.241,-0.241,-0.241,0.000,0.000,0.000
1643279455394321920,2022-01-27-10:30:55,10.1.1.2,40,-0.251,-0.251,-0.251,0.000,0.000,0.000
1643279455578950912,2022-01-27-10:30:55,10.1.1.2,23,-0.260,-0.260,-0.260,0.000,0.000,0.000
1643279455795386112,2022-01-27-10:30:55,10.1.1.2,38,-0.271,-0.271,-0.271,0.000,0.000,0.000
1643279455996754944,2022-01-27-10:30:55,10.1.1.2,39,-0.281,-0.281,-0.281,0.000,0.000,0.000
1643279456200887040,2022-01-27-10:30:56,10.1.1.2,39,-0.291,-0.291,-0.291,0.000,0.000,0.000
1643279456397370112,2022-01-27-10:30:56,10.1.1.2,31,-0.301,-0.301,-0.301,0.000,0.000,0.000
1643279456617873920,2022-01-27-10:30:56,10.1.1.2,46,-0.311,-0.311,-0.311,0.000,0.000,0.000
1643279456816254976,2022-01-27-10:30:56,10.1.1.2,38,-0.321,-0.321,-0.321,0.000,0.000,0.000
1643279457024195072,2022-01-27-10:30:57,10.1.1.2,42,-0.330,-0.330,-0.330,0.000,0.000,0.000
1643279457215600896,2022-01-27-10:30:57,10.1.1.2,27,-0.340,-0.340,-0.340,0.000,0.000,0.000
1643279457418308864,2022-01-27-10:30:57,10.1.1.2,29,-0.350,-0.350,-0.350,0.000,0.000,0.000
1643279457618503936,2022-01-27-10:30:57,10.1.1.2,28,-0.360,-0.360,-0.360,0.000,0.000,0.000
1643279457836741888,2022-01-27-10:30:57,10.1.1.2,44,-0.371,-0.371,-0.371,0.000,0.000,0.000
1643279458037908992,2022-01-27-10:30:58,10.1.1.2,38,-0.381,-0.381,-0.381,0.000,0.000,0.000
1643279458216445952,2022-01-27-10:30:58,10.1.1.2,15,-0.390,-0.390,-0.390,0.000,0.000,0.000
1643279458436922112,2022-01-27-10:30:58,10.1.1.2,34,-0.401,-0.401,-0.401,0.000,0.000,0.000
1643279458635783936,2022-01-27-10:30:58,10.1.1.2,31,-0.411,-0.411,-0.411,0.000,0.000,0.000
1643279458841710080,2022-01-27-10:30:58,10.1.1.2,33,-0.421,-0.421,-0.421,0.000,0.000,0.000
1643279459037058048,2022-01-27-10:30:59,10.1.1.2,27,-0.431,-0.431,-0.431,0.000,0.000,0.000
1643279459236320000,2022-01-27-10:30:59,10.1.1.2,26,-0.441,-0.441,-0.441,0.000,0.000,0.000
1643279459436103168,2022-01-27-10:30:59,10.1.1.2,25,-0.451,-0.451,-0.451,0.000,0.000,0.000
1643279459656102912,2022-01-27-10:30:59,10.1.1.2,44,-0.461,-0.461,-0.461,0.000,0.000,0.000
1643279459835622912,2022-01-27-10:30:59,10.1.1.2,22,-0.470,-0.470,-0.470,0.000,0.000,0.000
1643279460055307008,2022-01-27-10:31:00,10.1.1.2,40,-0.481,-0.481,-0.481,0.000,0.000,0.000
1643279460221625088,2022-01-27-10:31:00,10.1.1.2,4,-0.489,-0.489,-0.489,0.000,0.000,0.000
1643279460456888832,2022-01-27-10:31:00,10.1.1.2,36,-0.479,-0.479,-0.479,0.000,0.000,0.000
1643279460661186816,2022-01-27-10:31:00,10.1.1.2,38,-0.469,-0.469,-0.469,0.000,0.000,0.000
1643279460855130880,2022-01-27-10:31:00,10.1.1.2,31,-0.459,-0.459,-0.459,0.000,0.000,0.000
1643279461057576960,2022-01-27-10:31:01,10.1.1.2,32,-0.449,-0.449,-0.449,0.000,0.000,0.000
1643279461255753984,2022-01-27-10:31:01,10.1.1.2,29,-0.439,-0.439,-0.439,0.000,0.000,0.000
1643279461456332800,2022-01-27-10:31:01,10.1.1.2,28,-0.430,-0.430,-0.430,0.000,0.000,0.000
1643279461659444992,2022-01-27-10:31:01,10.1.1.2,30,-0.419,-0.419,-0.419,0.000,0.000,0.000
1643279461854593024,2022-01-27-10:31:01,10.1.1.2,24,-0.409,-0.409,-0.409,0.000,0.000,0.000
1643279462059457024,2022-01-27-10:31:02,10.1.1.2,28,-0.400,-0.400,-0.400,0.000,0.000,0.000
1643279462255853056,2022-01-27-10:31:02,10.1.1.2,22,-0.390,-0.390,-0.390,0.000,0.000,0.000
1643279462479016192,2022-01-27-10:31:02,10.1.1.2,42,-0.379,-0.379,-0.379,0.000,0.000,0.000
1643279462660165120,2022-01-27-10:31:02,10.1.1.2,23,-0.370,-0.370,-0.370,0.000,0.000,0.000
1643279462876463872,2022-01-27-10:31:02,10.1.1.2,36,-0.359,-0.359,-0.359,0.000,0.000,0.000
1643279463076268800,2022-01-27-10:31:03,10.1.1.2,34,-0.349,-0.349,-0.349,0.000,0.000,0.000
1643279463275322880,2022-01-27-10:31:03,10.1.1.2,33,-0.339,-0.339,-0.339,0.000,0.000,0.000
1643279463479264000,2022-01-27-10:31:03,10.1.1.2,35,-0.330,-0.330,-0.330,0.000,0.000,0.000
1643279463677176064,2022-01-27-10:31:03,10.1.1.2,33,-0.319,-0.319,-0.319,0.000,0.000,0.000
1643279463874782976,2022-01-27-10:31:03,10.1.1.2,29,-0.309,-0.309,-0.309,0.000,0.000,0.000
1643279464074955008,2022-01-27-10:31:04,10.1.1.2,28,-0.299,-0.299,-0.299,0.000,0.000,0.000
1643279464276947968,2022-01-27-10:31:04,10.1.1.2,28,-0.289,-0.289,-0.289,0.000,0.000,0.000
1643279464479284992,2022-01-27-10:31:04,10.1.1.2,30,-0.279,-0.279,-0.279,0.000,0.000,0.000
1643279464681664000,2022-01-27-10:31:04,10.1.1.2,31,-0.270,-0.270,-0.270,0.000,0.000,0.000
1643279464875072000,2022-01-27-10:31:04,10.1.1.2,23,-0.260,-0.260,-0.260,0.000,0.000,0.000
1643279465074963968,2022-01-27-10:31:05,10.1.1.2,20,-0.250,-0.250,-0.250,0.000,0.000,0.000
1643279465301924096,2022-01-27-10:31:05,10.1.1.2,46,-0.239,-0.239,-0.239,0.000,0.000,0.000
1643279465514443008,2022-01-27-10:31:05,10.1.1.2,56,-0.228,-0.228,-0.228,0.000,0.000,0.000
1643279465709625088,2022-01-27-10:31:05,10.1.1.2,50,-0.219,-0.219,-0.219,0.000,0.000,0.000
1643279465895670016,2022-01-27-10:31:05,10.1.1.2,30,-0.210,-0.210,-0.210,0.000,0.000,0.000
1643279466097181184,2022-01-27-10:31:06,10.1.1.2,30,-0.200,-0.200,-0.200,0.000,0.000,0.000
1643279466296423936,2022-01-27-10:31:06,10.1.1.2,29,-0.189,-0.189,-0.189,0.000,0.000,0.000
1643279466514182144,2022-01-27-10:31:06,10.1.1.2,43,-0.179,-0.179,-0.179,0.000,0.000,0.000
1643279466715348992,2022-01-27-10:31:06,10.1.1.2,41,-0.169,-0.169,-0.169,0.000,0.000,0.000
1643279466893944064,2022-01-27-10:31:06,10.1.1.2,17,-0.160,-0.160,-0.160,0.000,0.000,0.000
1643279467114368000,2022-01-27-10:31:07,10.1.1.2,37,-0.149,-0.149,-0.149,0.000,0.000,0.000
1643279467294910976,2022-01-27-10:31:07,10.1.1.2,17,-0.140,-0.140,-0.140,0.000,0.000,0.000
1643279467493488128,2022-01-27-10:31:07,10.1.1.2,11,-0.130,-0.130,-0.130,0.000,0.000,0.000
1643279467714537984,2022-01-27-10:31:07,10.1.1.2,28,-0.120,-0.120,-0.120,0.000,0.000,0.000
1643279467914490880,2022-01-27-10:31:07,10.1.1.2,27,-0.110,-0.110,-0.110,0.000,0.000,0.000
1643279468114000128,2022-01-27-10:31:08,10.1.1.2,21,-0.100,-0.100,-0.100,0.000,0.000,0.000
1643279468316157184,2022-01-27-10:31:08,10.1.1.2,21,-0.090,-0.090,-0.090,0.000,0.000,0.000
1643279468516752128,2022-01-27-10:31:08,10.1.1.2,21,-0.080,-0.080,-0.080,0.000,0.000,0.000
1643279468720017920,2022-01-27-10:31:08,10.1.1.2,23,-0.070,-0.070,-0.070,0.000,0.000,0.000
1643279468938851072,2022-01-27-10:31:08,10.1.1.2,40,-0.059,-0.059,-0.059,0.000,0.000,0.000
1643279469141794816,2022-01-27-10:31:09,10.1.1.2,43,-0.049,-0.049,-0.049,0.000,0.000,0.000
1643279469337785088,2022-01-27-10:31:09,10.1.1.2,37,-0.039,-0.039,-0.039,0.000,0.000,0.000
1643279469538151936,2022-01-27-10:31:09,10.1.1.2,36,-0.029,-0.029,-0.029,0.000,0.000,0.000
1643279469739280896,2022-01-27-10:31:09,10.1.1.2,31,-0.019,-0.019,-0.019,0.000,0.000,0.000
1643279469943767040,2022-01-27-10:31:09,10.1.1.2,33,-0.010,-0.010,-0.010,0.000,0.000,0.000
1643279470120502016,2022-01-27-10:31:10,10.1.1.2,6,-0.000,-0.000,-0.000,0.000,0.000,0.000
1643279470339670016,2022-01-27-10:31:10,10.1.1.2,23,-0.010,-0.010,-0.010,0.000,0.000,0.000
1643279470562701824,2022-01-27-10:31:10,10.1.1.2,45,-0.021,-0.021,-0.021,0.000,0.000,0.000
1643279470759032064,2022-01-27-10:31:10,10.1.1.2,40,-0.031,-0.031,-0.031,0.000,0.000,0.000
1643279470957431040,2022-01-27-10:31:10,10.1.1.2,32,-0.041,-0.041,-0.041,0.000,0.000,0.000
1643279471161120000,2022-01-27-10:31:11,10.1.1.2,32,-0.051,-0.051,-0.051,0.000,0.000,0.000
1643279471356865024,2022-01-27-10:31:11,10.1.1.2,23,-0.060,-0.060,-0.060,0.000,0.000,0.000
1643279471557616896,2022-01-27-10:31:11,10.1.1.2,20,-0.070,-0.070,-0.070,0.000,0.000,0.000
1643279471760440064,2022-01-27-10:31:11,10.1.1.2,20,-0.080,-0.080,-0.080,0.000,0.000,0.000
1643279471958831104,2022-01-27-10:31:11,10.1.1.2,11,-0.090,-0.090,-0.090,0.000,0.000,0.000
1643279472178622976,2022-01-27-10:31:12,10.1.1.2,26,-0.101,-0.101,-0.101,0.000,0.000,0.000
1643279472377437952,2022-01-27-10:31:12,10.1.1.2,25,-0.110,-0.110,-0.110,0.000,0.000,0.000
1643279472579693056,2022-01-27-10:31:12,10.1.1.2,24,-0.120,-0.120,-0.120,0.000,0.000,0.000
1643279472775102976,2022-01-27-10:31:12,10.1.1.2,18,-0.130,-0.130,-0.130,0.000,0.000,0.000
1643279472976315904,2022-01-27-10:31:12,10.1.1.2,18,-0.140,-0.140,-0.140,0.000,0.000,0.000
1643279473175213056,2022-01-27-10:31:13,10.1.1.2,16,-0.150,-0.150,-0.150,0.000,0.000,0.000
1643279473395255040,2022-01-27-10:31:13,10.1.1.2,32,-0.161,-0.161,-0.161,0.000,0.000,0.000
1643279473596376832,2022-01-27-10:31:13,10.1.1.2,28,-0.171,-0.171,-0.171,0.000,0.000,0.000
1643279473815424000,2022-01-27-10:31:13,10.1.1.2,43,-0.181,-0.181,-0.181,0.000,0.000,0.000
1643279474017690880,2022-01-27-10:31:14,10.1.1.2,43,-0.191,-0.191,-0.191,0.000,0.000,0.000
1643279474202188032,2022-01-27-10:31:14,10.1.1.2,23,-0.200,-0.200,-0.200,0.000,0.000,0.000
1643279474400620032,2022-01-27-10:31:14,10.1.1.2,20,-0.210,-0.210,-0.210,0.000,0.000,0.000
1643279474624499200,2022-01-27-10:31:14,10.1.1.2,42,-0.221,-0.221,-0.221,0.000,0.000,0.000
1643279474823760896,2022-01-27-10:31:14,10.1.1.2,39,-0.231,-0.231,-0.231,0.000,0.000,0.000
1643279475022174976,2022-01-27-10:31:15,10.1.1.2,33,-0.241,-0.241,-0.241,0.000,0.000,0.000
1643279475223567872,2022-01-27-10:31:15,10.1.1.2,36,-0.251,-0.251,-0.251,0.000,0.000,0.000
1643279475419621888,2022-01-27-10:31:15,10.1.1.2,30,-0.260,-0.260,-0.260,0.000,0.000,0.000
1643279475641739008,2022-01-27-10:31:15,10.1.1.2,50,-0.271,-0.271,-0.271,0.000,0.000,0.000
1643279475836671232,2022-01-27-10:31:15,10.1.1.2,35,-0.281,-0.281,-0.281,0.000,0.000,0.000
1643279476037481984,2022-01-27-10:31:16,10.1.1.2,35,-0.291,-0.291,-0.291,0.000,0.000,0.000
1643279476235971840,2022-01-27-10:31:16,10.1.1.2,28,-0.301,-0.301,-0.301,0.000,0.000,0.000
1643279476436125952,2022-01-27-10:31:16,10.1.1.2,21,-0.310,-0.310,-0.310,0.000,0.000,0.000
1643279476655252992,2022-01-27-10:31:16,10.1.1.2,39,-0.321,-0.321,-0.321,0.000,0.000,0.000
1643279476855400192,2022-01-27-10:31:16,10.1.1.2,37,-0.331,-0.331,-0.331,0.000,0.000,0.000
1643279477061513984,2022-01-27-10:31:17,10.1.1.2,42,-0.341,-0.341,-0.341,0.000,0.000,0.000
1643279477257196032,2022-01-27-10:31:17,10.1.1.2,35,-0.351,-0.351,-0.351,0.000,0.000,0.000
1643279477458251008,2022-01-27-10:31:17,10.1.1.2,34,-0.361,-0.361,-0.361,0.000,0.000,0.000
1643279477666269952,2022-01-27-10:31:17,10.1.1.2,41,-0.371,-0.371,-0.371,0.000,0.000,0.000
1643279477860071936,2022-01-27-10:31:17,10.1.1.2,30,-0.381,-0.381,-0.381,0.000,0.000,0.000
1643279478078793984,2022-01-27-10:31:18,10.1.1.2,42,-0.391,-0.391,-0.391,0.000,0.000,0.000
1643279478279992064,2022-01-27-10:31:18,10.1.1.2,34,-0.401,-0.401,-0.401,0.000,0.000,0.000
1643279478504774144,2022-01-27-10:31:18,10.1.1.2,44,-0.411,-0.411,-0.411,0.000,0.000,0.000
1643279478706914816,2022-01-27-10:31:18,10.1.1.2,43,-0.421,-0.421,-0.421,0.000,0.000,0.000
1643279478919606016,2022-01-27-10:31:18,10.1.1.2,41,-0.431,-0.431,-0.431,0.000,0.000,0.000
1643279479117080064,2022-01-27-10:31:19,10.1.1.2,35,-0.441,-0.441,-0.441,0.000,0.000,0.000
1643279479321688832,2022-01-27-10:31:19,10.1.1.2,32,-0.451,-0.451,-0.451,0.000,0.000,0.000
1643279479540702208,2022-01-27-10:31:19,10.1.1.2,45,-0.461,-0.461,-0.461,0.000,0.000,0.000
1643279479744105984,2022-01-27-10:31:19,10.1.1.2,41,-0.471,-0.471,-0.471,0.000,0.000,0.000
1643279479938930944,2022-01-27-10:31:19,10.1.1.2,35,-0.481,-0.481,-0.481,0.000,0.000,0.000
1643279480120475904,2022-01-27-10:31:20,10.1.1.2,12,-0.490,-0.490,-0.490,0.000,0.000,0.000
1643279480340032000,2022-01-27-10:31:20,10.1.1.2,30,-0.479,-0.479,-0.479,0.000,0.000,0.000
1643279480562086144,2022-01-27-10:31:20,10.1.1.2,42,-0.469,-0.469,-0.469,0.000,0.000,0.000
1643279480761696000,2022-01-27-10:31:20,10.1.1.2,41,-0.459,-0.459,-0.459,0.000,0.000,0.000
1643279480938676992,2022-01-27-10:31:20,10.1.1.2,17,-0.450,-0.450,-0.450,0.000,0.000,0.000
1643279481161410048,2022-01-27-10:31:21,10.1.1.2,37,-0.439,-0.439,-0.439,0.000,0.000,0.000
1643279481359237888,2022-01-27-10:31:21,10.1.1.2,30,-0.429,-0.429,-0.429,0.000,0.000,0.000
1643279481577421056,2022-01-27-10:31:21,10.1.1.2,39,-0.419,-0.419,-0.419,0.000,0.000,0.000
1643279481787729152,2022-01-27-10:31:21,10.1.1.2,44,-0.409,-0.409,-0.409,0.000,0.000,0.000
1643279481977689856,2022-01-27-10:31:21,10.1.1.2,33,-0.399,-0.399,-0.399,0.000,0.000,0.000
1643279482177323008,2022-01-27-10:31:22,10.1.1.2,30,-0.389,-0.389,-0.389,0.000,0.000,0.000
1643279482402901760,2022-01-27-10:31:22,10.1.1.2,46,-0.379,-0.379,-0.379,0.000,0.000,0.000
1643279482597846016,2022-01-27-10:31:22,10.1.1.2,39,-0.369,-0.369,-0.369,0.000,0.000,0.000
1643279482800827904,2022-01-27-10:31:22,10.1.1.2,40,-0.359,-0.359,-0.359,0.000,0.000,0.000
1643279483000296960,2022-01-27-10:31:23,10.1.1.2,29,-0.349,-0.349,-0.349,0.000,0.000,0.000
1643279483198996992,2022-01-27-10:31:23,10.1.1.2,21,-0.340,-0.340,-0.340,0.000,0.000,0.000
1643279483422398976,2022-01-27-10:31:23,10.1.1.2,31,-0.329,-0.329,-0.329,0.000,0.000,0.000
1643279483620678912,2022-01-27-10:31:23,10.1.1.2,28,-0.320,-0.320,-0.320,0.000,0.000,0.000
1643279483837665024,2022-01-27-10:31:23,10.1.1.2,42,-0.309,-0.309,-0.309,0.000,0.000,0.000
1643279484015027968,2022-01-27-10:31:24,10.1.1.2,15,-0.300,-0.300,-0.300,0.000,0.000,0.000
1643279484234955008,2022-01-27-10:31:24,10.1.1.2,34,-0.289,-0.289,-0.289,0.000,0.000,0.000
1643279484435485952,2022-01-27-10:31:24,10.1.1.2,33,-0.279,-0.279,-0.279,0.000,0.000,0.000
1643279484635001856,2022-01-27-10:31:24,10.1.1.2,31,-0.270,-0.270,-0.270,0.000,0.000,0.000
1643279484835486976,2022-01-27-10:31:24,10.1.1.2,31,-0.259,-0.259,-0.259,0.000,0.000,0.000
1643279485035036928,2022-01-27-10:31:25,10.1.1.2,28,-0.249,-0.249,-0.249,0.000,0.000,0.000
1643279485235681024,2022-01-27-10:31:25,10.1.1.2,27,-0.240,-0.240,-0.240,0.000,0.000,0.000
1643279485435173888,2022-01-27-10:31:25,10.1.1.2,17,-0.230,-0.230,-0.230,0.000,0.000,0.000
1643279485655376896,2022-01-27-10:31:25,10.1.1.2,25,-0.220,-0.220,-0.220,0.000,0.000,0.000
1643279485855609856,2022-01-27-10:31:25,10.1.1.2,24,-0.209,-0.209,-0.209,0.000,0.000,0.000
1643279486075438080,2022-01-27-10:31:26,10.1.1.2,44,-0.199,-0.199,-0.199,0.000,0.000,0.000
1643279486275549952,2022-01-27-10:31:26,10.1.1.2,41,-0.189,-0.189,-0.189,0.000,0.000,0.000
1643279486475598080,2022-01-27-10:31:26,10.1.1.2,39,-0.179,-0.179,-0.179,0.000,0.000,0.000
1643279486674675968,2022-01-27-10:31:26,10.1.1.2,36,-0.169,-0.169,-0.169,0.000,0.000,0.000
1643279486854944000,2022-01-27-10:31:26,10.1.1.2,14,-0.160,-0.160,-0.160,0.000,0.000,0.000
1643279487074086912,2022-01-27-10:31:27,10.1.1.2,32,-0.149,-0.149,-0.149,0.000,0.000,0.000
1643279487275481856,2022-01-27-10:31:27,10.1.1.2,28,-0.139,-0.139,-0.139,0.000,0.000,0.000
1643279487475059968,2022-01-27-10:31:27,10.1.1.2,26,-0.129,-0.129,-0.129,0.000,0.000,0.000
1643279487674096128,2022-01-27-10:31:27,10.1.1.2,18,-0.120,-0.120,-0.120,0.000,0.000,0.000
1643279487873763072,2022-01-27-10:31:27,10.1.1.2,16,-0.110,-0.110,-0.110,0.000,0.000,0.000
1643279488074096896,2022-01-27-10:31:28,10.1.1.2,16,-0.100,-0.100,-0.100,0.000,0.000,0.000
1643279488274368000,2022-01-27-10:31:28,10.1.1.2,15,-0.090,-0.090,-0.090,0.000,0.000,0.000
1643279488474812928,2022-01-27-10:31:28,10.1.1.2,14,-0.080,-0.080,-0.080,0.000,0.000,0.000
1643279488694753792,2022-01-27-10:31:28,10.1.1.2,29,-0.069,-0.069,-0.069,0.000,0.000,0.000
1643279488894097920,2022-01-27-10:31:28,10.1.1.2,26,-0.060,-0.060,-0.060,0.000,0.000,0.000
1643279489094433024,2022-01-27-10:31:29,10.1.1.2,25,-0.049,-0.049,-0.049,0.000,0.000,0.000
1643279489294547200,2022-01-27-10:31:29,10.1.1.2,22,-0.040,-0.040,-0.040,0.000,0.000,0.000
1643279489500215040,2022-01-27-10:31:29,10.1.1.2,21,-0.030,-0.030,-0.030,0.000,0.000,0.000
1643279489716142848,2022-01-27-10:31:29,10.1.1.2,27,-0.019,-0.019,-0.019,0.000,0.000,0.000
1643279489917654016,2022-01-27-10:31:29,10.1.1.2,23,-0.010,-0.010,-0.010,0.000,0.000,0.000
1643279490103667968,2022-01-27-10:31:30,10.1.1.2,3,-0.001,-0.001,-0.001,0.000,0.000,0.000
1643279490318617088,2022-01-27-10:31:30,10.1.1.2,17,-0.010,-0.010,-0.010,0.000,0.000,0.000
1643279490538063104,2022-01-27-10:31:30,10.1.1.2,35,-0.021,-0.021,-0.021,0.000,0.000,0.000
1643279490736593920,2022-01-27-10:31:30,10.1.1.2,31,-0.031,-0.031,-0.031,0.000,0.000,0.000
1643279490939560960,2022-01-27-10:31:30,10.1.1.2,30,-0.040,-0.040,-0.040,0.000,0.000,0.000
1643279491157118208,2022-01-27-10:31:31,10.1.1.2,41,-0.051,-0.051,-0.051,0.000,0.000,0.000
1643279491360093952,2022-01-27-10:31:31,10.1.1.2,42,-0.061,-0.061,-0.061,0.000,0.000,0.000
1643279491540743168,2022-01-27-10:31:31,10.1.1.2,21,-0.070,-0.070,-0.070,0.000,0.000,0.000
1643279491735296000,2022-01-27-10:31:31,10.1.1.2,14,-0.080,-0.080,-0.080,0.000,0.000,0.000
1643279491935052032,2022-01-27-10:31:31,10.1.1.2,12,-0.090,-0.090,-0.090,0.000,0.000,0.000
1643279492155881984,2022-01-27-10:31:32,10.1.1.2,29,-0.101,-0.101,-0.101,0.000,0.000,0.000
1643279492354881024,2022-01-27-10:31:32,10.1.1.2,26,-0.111,-0.111,-0.111,0.000,0.000,0.000
1643279492554647040,2022-01-27-10:31:32,10.1.1.2,22,-0.120,-0.120,-0.120,0.000,0.000,0.000
1643279492775296000,2022-01-27-10:31:32,10.1.1.2,38,-0.131,-0.131,-0.131,0.000,0.000,0.000
1643279492976078080,2022-01-27-10:31:32,10.1.1.2,37,-0.141,-0.141,-0.141,0.000,0.000,0.000
1643279493175266048,2022-01-27-10:31:33,10.1.1.2,35,-0.151,-0.151,-0.151,0.000,0.000,0.000
1643279493354829056,2022-01-27-10:31:33,10.1.1.2,14,-0.160,-0.160,-0.160,0.000,0.000,0.000
1643279493575270912,2022-01-27-10:31:33,10.1.1.2,33,-0.171,-0.171,-0.171,0.000,0.000,0.000
1643279493777051904,2022-01-27-10:31:33,10.1.1.2,34,-0.181,-0.181,-0.181,0.000,0.000,0.000
1643279493981758208,2022-01-27-10:31:33,10.1.1.2,37,-0.190,-0.190,-0.190,0.000,0.000,0.000
1643279494176898048,2022-01-27-10:31:34,10.1.1.2,30,-0.201,-0.201,-0.201,0.000,0.000,0.000
1643279494379740928,2022-01-27-10:31:34,10.1.1.2,31,-0.210,-0.210,-0.210,0.000,0.000,0.000
1643279494599941888,2022-01-27-10:31:34,10.1.1.2,49,-0.221,-0.221,-0.221,0.000,0.000,0.000
1643279494776845056,2022-01-27-10:31:34,10.1.1.2,17,-0.230,-0.230,-0.230,0.000,0.000,0.000
1643279495002247936,2022-01-27-10:31:35,10.1.1.2,40,-0.241,-0.241,-0.241,0.000,0.000,0.000
1643279495199091968,2022-01-27-10:31:35,10.1.1.2,36,-0.251,-0.251,-0.251,0.000,0.000,0.000
1643279495396308992,2022-01-27-10:31:35,10.1.1.2,32,-0.261,-0.261,-0.261,0.000,0.000,0.000
1643279495597335040,2022-01-27-10:31:35,10.1.1.2,29,-0.271,-0.271,-0.271,0.000,0.000,0.000
1643279495802081024,2022-01-27-10:31:35,10.1.1.2,29,-0.280,-0.280,-0.280,0.000,0.000,0.000
1643279495995747072,2022-01-27-10:31:35,10.1.1.2,18,-0.290,-0.290,-0.290,0.000,0.000,0.000
1643279496222073088,2022-01-27-10:31:36,10.1.1.2,40,-0.301,-0.301,-0.301,0.000,0.000,0.000
1643279496417346048,2022-01-27-10:31:36,10.1.1.2,31,-0.311,-0.311,-0.311,0.000,0.000,0.000
1643279496615884032,2022-01-27-10:31:36,10.1.1.2,29,-0.320,-0.320,-0.320,0.000,0.000,0.000
1643279496817363968,2022-01-27-10:31:36,10.1.1.2,29,-0.331,-0.331,-0.331,0.000,0.000,0.000
1643279497015377920,2022-01-27-10:31:37,10.1.1.2,24,-0.341,-0.341,-0.341,0.000,0.000,0.000
1643279497234853888,2022-01-27-10:31:37,10.1.1.2,43,-0.351,-0.351,-0.351,0.000,0.000,0.000
1643279497415698176,2022-01-27-10:31:37,10.1.1.2,23,-0.360,-0.360,-0.360,0.000,0.000,0.000
1643279497621977088,2022-01-27-10:31:37,10.1.1.2,23,-0.370,-0.370,-0.370,0.000,0.000,0.000
1643279497815425024,2022-01-27-10:31:37,10.1.1.2,15,-0.380,-0.380,-0.380,0.000,0.000,0.000
1643279498034980096,2022-01-27-10:31:38,10.1.1.2,30,-0.391,-0.391,-0.391,0.000,0.000,0.000
1643279498236828160,2022-01-27-10:31:38,10.1.1.2,27,-0.401,-0.401,-0.401,0.000,0.000,0.000
1643279498439088128,2022-01-27-10:31:38,10.1.1.2,30,-0.411,-0.411,-0.411,0.000,0.000,0.000
1643279498661191936,2022-01-27-10:31:38,10.1.1.2,47,-0.421,-0.421,-0.421,0.000,0.000,0.000
1643279498858467072,2022-01-27-10:31:38,10.1.1.2,41,-0.431,-0.431,-0.431,0.000,0.000,0.000
1643279499037609216,2022-01-27-10:31:39,10.1.1.2,18,-0.440,-0.440,-0.440,0.000,0.000,0.000
1643279499263418880,2022-01-27-10:31:39,10.1.1.2,37,-0.451,-0.451,-0.451,0.000,0.000,0.000
1643279499485107968,2022-01-27-10:31:39,10.1.1.2,55,-0.461,-0.461,-0.461,0.000,0.000,0.000
1643279499678964992,2022-01-27-10:31:39,10.1.1.2,41,-0.470,-0.470,-0.470,0.000,0.000,0.000
1643279499882989056,2022-01-27-10:31:39,10.1.1.2,39,-0.481,-0.481,-0.481,0.000,0.000,0.000
1643279500059483904,2022-01-27-10:31:40,10.1.1.2,11,-0.490,-0.490,-0.490,0.000,0.000,0.000
1643279500277524992,2022-01-27-10:31:40,10.1.1.2,26,-0.479,-0.479,-0.479,0.000,0.000,0.000
1643279500503638016,2022-01-27-10:31:40,10.1.1.2,42,-0.469,-0.469,-0.469,0.000,0.000,0.000
1643279500697853184,2022-01-27-10:31:40,10.1.1.2,34,-0.459,-0.459,-0.459,0.000,0.000,0.000
1643279500904007936,2022-01-27-10:31:40,10.1.1.2,27,-0.449,-0.449,-0.449,0.000,0.000,0.000
1643279501117136896,2022-01-27-10:31:41,10.1.1.2,45,-0.439,-0.439,-0.439,0.000,0.000,0.000
1643279501301278976,2022-01-27-10:31:41,10.1.1.2,28,-0.430,-0.430,-0.430,0.000,0.000,0.000
1643279501497758976,2022-01-27-10:31:41,10.1.1.2,20,-0.420,-0.420,-0.420,0.000,0.000,0.000
1643279501717328128,2022-01-27-10:31:41,10.1.1.2,30,-0.410,-0.410,-0.410,0.000,0.000,0.000
1643279501919172096,2022-01-27-10:31:41,10.1.1.2,28,-0.399,-0.399,-0.399,0.000,0.000,0.000
1643279502119239168,2022-01-27-10:31:42,10.1.1.2,28,-0.389,-0.389,-0.389,0.000,0.000,0.000
1643279502317501184,2022-01-27-10:31:42,10.1.1.2,19,-0.380,-0.380,-0.380,0.000,0.000,0.000
1643279502540303872,2022-01-27-10:31:42,10.1.1.2,38,-0.369,-0.369,-0.369,0.000,0.000,0.000
1643279502739710976,2022-01-27-10:31:42,10.1.1.2,30,-0.359,-0.359,-0.359,0.000,0.000,0.000
1643279502936984064,2022-01-27-10:31:42,10.1.1.2,18,-0.350,-0.350,-0.350,0.000,0.000,0.000
1643279503157047040,2022-01-27-10:31:43,10.1.1.2,37,-0.339,-0.339,-0.339,0.000,0.000,0.000
1643279503336540928,2022-01-27-10:31:43,10.1.1.2,16,-0.330,-0.330,-0.330,0.000,0.000,0.000
1643279503556898048,2022-01-27-10:31:43,10.1.1.2,28,-0.320,-0.320,-0.320,0.000,0.000,0.000
1643279503757769984,2022-01-27-10:31:43,10.1.1.2,28,-0.310,-0.310,-0.310,0.000,0.000,0.000
1643279503975611904,2022-01-27-10:31:43,10.1.1.2,40,-0.299,-0.299,-0.299,0.000,0.000,0.000
1643279504154512896,2022-01-27-10:31:44,10.1.1.2,18,-0.290,-0.290,-0.290,0.000,0.000,0.000
1643279504374680064,2022-01-27-10:31:44,10.1.1.2,32,-0.279,-0.279,-0.279,0.000,0.000,0.000
1643279504574982912,2022-01-27-10:31:44,10.1.1.2,32,-0.269,-0.269,-0.269,0.000,0.000,0.000
1643279504777517056,2022-01-27-10:31:44,10.1.1.2,30,-0.259,-0.259,-0.259,0.000,0.000,0.000
1643279504975110144,2022-01-27-10:31:44,10.1.1.2,24,-0.249,-0.249,-0.249,0.000,0.000,0.000
1643279505194288896,2022-01-27-10:31:45,10.1.1.2,39,-0.239,-0.239,-0.239,0.000,0.000,0.000
1643279505374757120,2022-01-27-10:31:45,10.1.1.2,16,-0.230,-0.230,-0.230,0.000,0.000,0.000
1643279505594685184,2022-01-27-10:31:45,10.1.1.2,33,-0.219,-0.219,-0.219,0.000,0.000,0.000
1643279505796233984,2022-01-27-10:31:45,10.1.1.2,30,-0.209,-0.209,-0.209,0.000,0.000,0.000
1643279505996855040,2022-01-27-10:31:45,10.1.1.2,26,-0.199,-0.199,-0.199,0.000,0.000,0.000
1643279506197061120,2022-01-27-10:31:46,10.1.1.2,25,-0.189,-0.189,-0.189,0.000,0.000,0.000
1643279506398364160,2022-01-27-10:31:46,10.1.1.2,23,-0.180,-0.180,-0.180,0.000,0.000,0.000
1643279506616658944,2022-01-27-10:31:46,10.1.1.2,39,-0.169,-0.169,-0.169,0.000,0.000,0.000
1643279506800290048,2022-01-27-10:31:46,10.1.1.2,21,-0.160,-0.160,-0.160,0.000,0.000,0.000
1643279506997328128,2022-01-27-10:31:46,10.1.1.2,16,-0.150,-0.150,-0.150,0.000,0.000,0.000
1643279507214669056,2022-01-27-10:31:47,10.1.1.2,31,-0.139,-0.139,-0.139,0.000,0.000,0.000
1643279507417196032,2022-01-27-10:31:47,10.1.1.2,31,-0.129,-0.129,-0.129,0.000,0.000,0.000
1643279507621129984,2022-01-27-10:31:47,10.1.1.2,24,-0.119,-0.119,-0.119,0.000,0.000,0.000
1643279507815030016,2022-01-27-10:31:47,10.1.1.2,23,-0.110,-0.110,-0.110,0.000,0.000,0.000
1643279508017993984,2022-01-27-10:31:48,10.1.1.2,25,-0.100,-0.100,-0.100,0.000,0.000,0.000
1643279508220752128,2022-01-27-10:31:48,10.1.1.2,23,-0.090,-0.090,-0.090,0.000,0.000,0.000
1643279508414252032,2022-01-27-10:31:48,10.1.1.2,15,-0.080,-0.080,-0.080,0.000,0.000,0.000
1643279508615752960,2022-01-27-10:31:48,10.1.1.2,15,-0.070,-0.070,-0.070,0.000,0.000,0.000
1643279508833505024,2022-01-27-10:31:48,10.1.1.2,31,-0.059,-0.059,-0.059,0.000,0.000,0.000
1643279509034575872,2022-01-27-10:31:49,10.1.1.2,29,-0.049,-0.049,-0.049,0.000,0.000,0.000
1643279509237370112,2022-01-27-10:31:49,10.1.1.2,31,-0.039,-0.039,-0.039,0.000,0.000,0.000
1643279509434028032,2022-01-27-10:31:49,10.1.1.2,26,-0.029,-0.029,-0.029,0.000,0.000,0.000
1643279509634196992,2022-01-27-10:31:49,10.1.1.2,26,-0.019,-0.019,-0.019,0.000,0.000,0.000
1643279509835473920,2022-01-27-10:31:49,10.1.1.2,25,-0.009,-0.009,-0.009,0.000,0.000,0.000
1643279510014528000,2022-01-27-10:31:50,10.1.1.2,2,-0.000,-0.000,-0.000,0.000,0.000,0.000
1643279510255912960,2022-01-27-10:31:50,10.1.1.2,41,-0.011,-0.011,-0.011,0.000,0.000,0.000
1643279510455620096,2022-01-27-10:31:50,10.1.1.2,39,-0.021,-0.021,-0.021,0.000,0.000,0.000
1643279510655997952,2022-01-27-10:31:50,10.1.1.2,37,-0.031,-0.031,-0.031,0.000,0.000,0.000
1643279510855405056,2022-01-27-10:31:50,10.1.1.2,35,-0.041,-0.041,-0.041,0.000,0.000,0.000
1643279511055630848,2022-01-27-10:31:51,10.1.1.2,35,-0.051,-0.051,-0.051,0.000,0.000,0.000
1643279511234878976,2022-01-27-10:31:51,10.1.1.2,13,-0.060,-0.060,-0.060,0.000,0.000,0.000
1643279511434483968,2022-01-27-10:31:51,10.1.1.2,10,-0.070,-0.070,-0.070,0.000,0.000,0.000
1643279511654140928,2022-01-27-10:31:51,10.1.1.2,27,-0.081,-0.081,-0.081,0.000,0.000,0.000
1643279511854878976,2022-01-27-10:31:51,10.1.1.2,26,-0.090,-0.090,-0.090,0.000,0.000,0.000
1643279512056248064,2022-01-27-10:31:52,10.1.1.2,26,-0.101,-0.101,-0.101,0.000,0.000,0.000
1643279512255651840,2022-01-27-10:31:52,10.1.1.2,25,-0.110,-0.110,-0.110,0.000,0.000,0.000
1643279512455943936,2022-01-27-10:31:52,10.1.1.2,24,-0.120,-0.120,-0.120,0.000,0.000,0.000
1643279512656196096,2022-01-27-10:31:52,10.1.1.2,23,-0.130,-0.130,-0.130,0.000,0.000,0.000
1643279512875107072,2022-01-27-10:31:52,10.1.1.2,41,-0.141,-0.141,-0.141,0.000,0.000,0.000
1643279513054735872,2022-01-27-10:31:53,10.1.1.2,20,-0.150,-0.150,-0.150,0.000,0.000,0.000
1643279513257338880,2022-01-27-10:31:53,10.1.1.2,21,-0.160,-0.160,-0.160,0.000,0.000,0.000
1643279513476516864,2022-01-27-10:31:53,10.1.1.2,39,-0.171,-0.171,-0.171,0.000,0.000,0.000
1643279513675981056,2022-01-27-10:31:53,10.1.1.2,37,-0.181,-0.181,-0.181,0.000,0.000,0.000
1643279513854888960,2022-01-27-10:31:53,10.1.1.2,15,-0.190,-0.190,-0.190,0.000,0.000,0.000
1643279514055106048,2022-01-27-10:31:54,10.1.1.2,14,-0.200,-0.200,-0.200,0.000,0.000,0.000
1643279514275811840,2022-01-27-10:31:54,10.1.1.2,31,-0.211,-0.211,-0.211,0.000,0.000,0.000
1643279514475200768,2022-01-27-10:31:54,10.1.1.2,29,-0.221,-0.221,-0.221,0.000,0.000,0.000
1643279514675857920,2022-01-27-10:31:54,10.1.1.2,28,-0.231,-0.231,-0.231,0.000,0.000,0.000
1643279514875394048,2022-01-27-10:31:54,10.1.1.2,24,-0.240,-0.240,-0.240,0.000,0.000,0.000
1643279515094546944,2022-01-27-10:31:55,10.1.1.2,41,-0.251,-0.251,-0.251,0.000,0.000,0.000
1643279515295234048,2022-01-27-10:31:55,10.1.1.2,34,-0.261,-0.261,-0.261,0.000,0.000,0.000
1643279515495557120,2022-01-27-10:31:55,10.1.1.2,33,-0.270,-0.270,-0.270,0.000,0.000,0.000
1643279515695676928,2022-01-27-10:31:55,10.1.1.2,33,-0.281,-0.281,-0.281,0.000,0.000,0.000
1643279515895247104,2022-01-27-10:31:55,10.1.1.2,28,-0.291,-0.291,-0.291,0.000,0.000,0.000
1643279516095097088,2022-01-27-10:31:56,10.1.1.2,18,-0.300,-0.300,-0.300,0.000,0.000,0.000
1643279516295880192,2022-01-27-10:31:56,10.1.1.2,18,-0.310,-0.310,-0.310,0.000,0.000,0.000
1643279516496603904,2022-01-27-10:31:56,10.1.1.2,17,-0.320,-0.320,-0.320,0.000,0.000,0.000
1643279516717426176,2022-01-27-10:31:56,10.1.1.2,37,-0.331,-0.331,-0.331,0.000,0.000,0.000
1643279516915007232,2022-01-27-10:31:56,10.1.1.2,32,-0.341,-0.341,-0.341,0.000,0.000,0.000
1643279517115503104,2022-01-27-10:31:57,10.1.1.2,32,-0.351,-0.351,-0.351,0.000,0.000,0.000
1643279517315058944,2022-01-27-10:31:57,10.1.1.2,31,-0.361,-0.361,-0.361,0.000,0.000,0.000
1643279517516555008,2022-01-27-10:31:57,10.1.1.2,31,-0.371,-0.371,-0.371,0.000,0.000,0.000
1643279517715922944,2022-01-27-10:31:57,10.1.1.2,28,-0.381,-0.381,-0.381,0.000,0.000,0.000
1643279517918333952,2022-01-27-10:31:57,10.1.1.2,26,-0.390,-0.390,-0.390,0.000,0.000,0.000
1643279518141408000,2022-01-27-10:31:58,10.1.1.2,43,-0.401,-0.401,-0.401,0.000,0.000,0.000
1643279518340187136,2022-01-27-10:31:58,10.1.1.2,39,-0.411,-0.411,-0.411,0.000,0.000,0.000
1643279518537782016,2022-01-27-10:31:58,10.1.1.2,35,-0.421,-0.421,-0.421,0.000,0.000,0.000
1643279518737821952,2022-01-27-10:31:58,10.1.1.2,33,-0.431,-0.431,-0.431,0.000,0.000,0.000
1643279518935234048,2022-01-27-10:31:58,10.1.1.2,29,-0.441,-0.441,-0.441,0.000,0.000,0.000
1643279519135644928,2022-01-27-10:31:59,10.1.1.2,26,-0.451,-0.451,-0.451,0.000,0.000,0.000
1643279519337878016,2022-01-27-10:31:59,10.1.1.2,20,-0.460,-0.460,-0.460,0.000,0.000,0.000
1643279519559740928,2022-01-27-10:31:59,10.1.1.2,38,-0.471,-0.471,-0.471,0.000,0.000,0.000
1643279519763292160,2022-01-27-10:31:59,10.1.1.2,34,-0.481,-0.481,-0.481,0.000,0.000,0.000
1643279519937263104,2022-01-27-10:31:59,10.1.1.2,8,-0.490,-0.490,-0.490,0.000,0.000,0.000
1643279520154951168,2022-01-27-10:32:00,10.1.1.2,24,-0.479,-0.479,-0.479,0.000,0.000,0.000
1643279520377103104,2022-01-27-10:32:00,10.1.1.2,39,-0.469,-0.469,-0.469,0.000,0.000,0.000
1643279520556098048,2022-01-27-10:32:00,10.1.1.2,17,-0.460,-0.460,-0.460,0.000,0.000,0.000
1643279520774693120,2022-01-27-10:32:00,10.1.1.2,32,-0.449,-0.449,-0.449,0.000,0.000,0.000
1643279520977852160,2022-01-27-10:32:00,10.1.1.2,34,-0.440,-0.440,-0.440,0.000,0.000,0.000
1643279521177961984,2022-01-27-10:32:01,10.1.1.2,33,-0.429,-0.429,-0.429,0.000,0.000,0.000
1643279521374448896,2022-01-27-10:32:01,10.1.1.2,29,-0.420,-0.420,-0.420,0.000,0.000,0.000
1643279521573630208,2022-01-27-10:32:01,10.1.1.2,27,-0.410,-0.410,-0.410,0.000,0.000,0.000
1643279521778482944,2022-01-27-10:32:01,10.1.1.2,29,-0.399,-0.399,-0.399,0.000,0.000,0.000
1643279521999095040,2022-01-27-10:32:01,10.1.1.2,45,-0.389,-0.389,-0.389,0.000,0.000,0.000
1643279522201052928,2022-01-27-10:32:02,10.1.1.2,43,-0.379,-0.379,-0.379,0.000,0.000,0.000
1643279522378618880,2022-01-27-10:32:02,10.1.1.2,19,-0.370,-0.370,-0.370,0.000,0.000,0.000
1643279522574959872,2022-01-27-10:32:02,10.1.1.2,13,-0.360,-0.360,-0.360,0.000,0.000,0.000
1643279522794370816,2022-01-27-10:32:02,10.1.1.2,29,-0.349,-0.349,-0.349,0.000,0.000,0.000
1643279522995252992,2022-01-27-10:32:02,10.1.1.2,29,-0.339,-0.339,-0.339,0.000,0.000,0.000
1643279523195158016,2022-01-27-10:32:03,10.1.1.2,27,-0.329,-0.329,-0.329,0.000,0.000,0.000
1643279523415631104,2022-01-27-10:32:03,10.1.1.2,44,-0.319,-0.319,-0.319,0.000,0.000,0.000
1643279523600467968,2022-01-27-10:32:03,10.1.1.2,27,-0.310,-0.310,-0.310,0.000,0.000,0.000
1643279523795744000,2022-01-27-10:32:03,10.1.1.2,19,-0.300,-0.300,-0.300,0.000,0.000,0.000
1643279523995425024,2022-01-27-10:32:03,10.1.1.2,17,-0.290,-0.290,-0.290,0.000,0.000,0.000
1643279524214632960,2022-01-27-10:32:04,10.1.1.2,34,-0.279,-0.279,-0.279,0.000,0.000,0.000
1643279524396923136,2022-01-27-10:32:04,10.1.1.2,15,-0.270,-0.270,-0.270,0.000,0.000,0.000
1643279524615387904,2022-01-27-10:32:04,10.1.1.2,33,-0.259,-0.259,-0.259,0.000,0.000,0.000
1643279524814575872,2022-01-27-10:32:04,10.1.1.2,24,-0.249,-0.249,-0.249,0.000,0.000,0.000
1643279525014388992,2022-01-27-10:32:05,10.1.1.2,23,-0.240,-0.240,-0.240,0.000,0.000,0.000
1643279525214831104,2022-01-27-10:32:05,10.1.1.2,22,-0.230,-0.230,-0.230,0.000,0.000,0.000
1643279525415472896,2022-01-27-10:32:05,10.1.1.2,22,-0.220,-0.220,-0.220,0.000,0.000,0.000
1643279525634998016,2022-01-27-10:32:05,10.1.1.2,41,-0.209,-0.209,-0.209,0.000,0.000,0.000
1643279525835817216,2022-01-27-10:32:05,10.1.1.2,38,-0.199,-0.199,-0.199,0.000,0.000,0.000
1643279526035273984,2022-01-27-10:32:06,10.1.1.2,37,-0.189,-0.189,-0.189,0.000,0.000,0.000
1643279526235521024,2022-01-27-10:32:06,10.1.1.2,36,-0.179,-0.179,-0.179,0.000,0.000,0.000
1643279526434836992,2022-01-27-10:32:06,10.1.1.2,33,-0.169,-0.169,-0.169,0.000,0.000,0.000
1643279526634701056,2022-01-27-10:32:06,10.1.1.2,32,-0.159,-0.159,-0.159,0.000,0.000,0.000
1643279526834844160,2022-01-27-10:32:06,10.1.1.2,29,-0.149,-0.149,-0.149,0.000,0.000,0.000
1643279527036179968,2022-01-27-10:32:07,10.1.1.2,28,-0.139,-0.139,-0.139,0.000,0.000,0.000
1643279527237588992,2022-01-27-10:32:07,10.1.1.2,25,-0.129,-0.129,-0.129,0.000,0.000,0.000
1643279527436460032,2022-01-27-10:32:07,10.1.1.2,21,-0.120,-0.120,-0.120,0.000,0.000,0.000
1643279527637307904,2022-01-27-10:32:07,10.1.1.2,20,-0.110,-0.110,-0.110,0.000,0.000,0.000
1643279527825440000,2022-01-27-10:32:07,10.1.1.2,-1,-0.101,-0.101,-0.101,0.000,0.000,0.000
1643279528040816128,2022-01-27-10:32:08,10.1.1.2,17,-0.090,-0.090,-0.090,0.000,0.000,0.000
1643279528236408064,2022-01-27-10:32:08,10.1.1.2,13,-0.080,-0.080,-0.080,0.000,0.000,0.000
1643279528456850944,2022-01-27-10:32:08,10.1.1.2,28,-0.069,-0.069,-0.069,0.000,0.000,0.000
1643279528659107072,2022-01-27-10:32:08,10.1.1.2,26,-0.060,-0.060,-0.060,0.000,0.000,0.000
1643279528877137920,2022-01-27-10:32:08,10.1.1.2,42,-0.049,-0.049,-0.049,0.000,0.000,0.000
1643279529076950016,2022-01-27-10:32:09,10.1.1.2,34,-0.039,-0.039,-0.039,0.000,0.000,0.000
1643279529276048896,2022-01-27-10:32:09,10.1.1.2,31,-0.029,-0.029,-0.029,0.000,0.000,0.000
1643279529479675136,2022-01-27-10:32:09,10.1.1.2,33,-0.019,-0.019,-0.019,0.000,0.000,0.000
1643279529677884928,2022-01-27-10:32:09,10.1.1.2,31,-0.009,-0.009,-0.009,0.000,0.000,0.000
1643279529858059776,2022-01-27-10:32:09,10.1.1.2,5,-0.000,-0.000,-0.000,0.000,0.000,0.000
1643279530095603968,2022-01-27-10:32:10,10.1.1.2,35,-0.011,-0.011,-0.011,0.000,0.000,0.000
1643279530295005952,2022-01-27-10:32:10,10.1.1.2,33,-0.021,-0.021,-0.021,0.000,0.000,0.000
1643279530494816000,2022-01-27-10:32:10,10.1.1.2,32,-0.031,-0.031,-0.031,0.000,0.000,0.000
1643279530694932992,2022-01-27-10:32:10,10.1.1.2,30,-0.041,-0.041,-0.041,0.000,0.000,0.000
1643279530895441152,2022-01-27-10:32:10,10.1.1.2,27,-0.051,-0.051,-0.051,0.000,0.000,0.000
1643279531095247872,2022-01-27-10:32:11,10.1.1.2,25,-0.060,-0.060,-0.060,0.000,0.000,0.000
1643279531295848960,2022-01-27-10:32:11,10.1.1.2,24,-0.070,-0.070,-0.070,0.000,0.000,0.000
1643279531495950080,2022-01-27-10:32:11,10.1.1.2,21,-0.080,-0.080,-0.080,0.000,0.000,0.000
1643279531694844928,2022-01-27-10:32:11,10.1.1.2,15,-0.090,-0.090,-0.090,0.000,0.000,0.000
1643279531895760896,2022-01-27-10:32:11,10.1.1.2,14,-0.100,-0.100,-0.100,0.000,0.000,0.000
1643279532095000064,2022-01-27-10:32:12,10.1.1.2,10,-0.110,-0.110,-0.110,0.000,0.000,0.000
1643279532316049152,2022-01-27-10:32:12,10.1.1.2,28,-0.121,-0.121,-0.121,0.000,0.000,0.000
1643279532537321216,2022-01-27-10:32:12,10.1.1.2,42,-0.131,-0.131,-0.131,0.000,0.000,0.000
1643279532738128896,2022-01-27-10:32:12,10.1.1.2,34,-0.141,-0.141,-0.141,0.000,0.000,0.000
1643279532937800960,2022-01-27-10:32:12,10.1.1.2,31,-0.151,-0.151,-0.151,0.000,0.000,0.000
1643279533136785152,2022-01-27-10:32:13,10.1.1.2,28,-0.161,-0.161,-0.161,0.000,0.000,0.000
1643279533339292160,2022-01-27-10:32:13,10.1.1.2,26,-0.170,-0.170,-0.170,0.000,0.000,0.000
1643279533555894016,2022-01-27-10:32:13,10.1.1.2,41,-0.181,-0.181,-0.181,0.000,0.000,0.000
1643279533757010944,2022-01-27-10:32:13,10.1.1.2,40,-0.191,-0.191,-0.191,0.000,0.000,0.000
1643279533956207872,2022-01-27-10:32:13,10.1.1.2,35,-0.201,-0.201,-0.201,0.000,0.000,0.000
1643279534161530880,2022-01-27-10:32:14,10.1.1.2,34,-0.211,-0.211,-0.211,0.000,0.000,0.000
1643279534357531136,2022-01-27-10:32:14,10.1.1.2,28,-0.221,-0.221,-0.221,0.000,0.000,0.000
1643279534556744192,2022-01-27-10:32:14,10.1.1.2,26,-0.231,-0.231,-0.231,0.000,0.000,0.000
1643279534776038912,2022-01-27-10:32:14,10.1.1.2,40,-0.241,-0.241,-0.241,0.000,0.000,0.000
1643279534976982016,2022-01-27-10:32:14,10.1.1.2,40,-0.251,-0.251,-0.251,0.000,0.000,0.000
1643279535175451904,2022-01-27-10:32:15,10.1.1.2,35,-0.261,-0.261,-0.261,0.000,0.000,0.000
1643279535376986112,2022-01-27-10:32:15,10.1.1.2,34,-0.271,-0.271,-0.271,0.000,0.000,0.000
1643279535576070144,2022-01-27-10:32:15,10.1.1.2,32,-0.281,-0.281,-0.281,0.000,0.000,0.000
1643279535776380160,2022-01-27-10:32:15,10.1.1.2,31,-0.291,-0.291,-0.291,0.000,0.000,0.000
1643279535978956032,2022-01-27-10:32:15,10.1.1.2,32,-0.301,-0.301,-0.301,0.000,0.000,0.000
1643279536178534912,2022-01-27-10:32:16,10.1.1.2,28,-0.311,-0.311,-0.311,0.000,0.000,0.000
1643279536377634048,2022-01-27-10:32:16,10.1.1.2,26,-0.321,-0.321,-0.321,0.000,0.000,0.000
1643279536578792192,2022-01-27-10:32:16,10.1.1.2,24,-0.330,-0.330,-0.330,0.000,0.000,0.000
1643279536799303936,2022-01-27-10:32:16,10.1.1.2,38,-0.341,-0.341,-0.341,0.000,0.000,0.000
1643279536995174912,2022-01-27-10:32:16,10.1.1.2,30,-0.351,-0.351,-0.351,0.000,0.000,0.000
1643279537196985088,2022-01-27-10:32:17,10.1.1.2,31,-0.360,-0.360,-0.360,0.000,0.000,0.000
1643279537401787904,2022-01-27-10:32:17,10.1.1.2,34,-0.371,-0.371,-0.371,0.000,0.000,0.000
1643279537598377984,2022-01-27-10:32:17,10.1.1.2,30,-0.381,-0.381,-0.381,0.000,0.000,0.000
1643279537796359168,2022-01-27-10:32:17,10.1.1.2,24,-0.390,-0.390,-0.390,0.000,0.000,0.000
1643279538003653120,2022-01-27-10:32:18,10.1.1.2,29,-0.400,-0.400,-0.400,0.000,0.000,0.000
1643279538196107008,2022-01-27-10:32:18,10.1.1.2,20,-0.410,-0.410,-0.410,0.000,0.000,0.000
1643279538394181888,2022-01-27-10:32:18,10.1.1.2,17,-0.420,-0.420,-0.420,0.000,0.000,0.000
1643279538594739968,2022-01-27-10:32:18,10.1.1.2,16,-0.430,-0.430,-0.430,0.000,0.000,0.000
1643279538795149056,2022-01-27-10:32:18,10.1.1.2,15,-0.440,-0.440,-0.440,0.000,0.000,0.000
1643279538994584064,2022-01-27-10:32:18,10.1.1.2,14,-0.450,-0.450,-0.450,0.000,0.000,0.000
1643279539215154944,2022-01-27-10:32:19,10.1.1.2,31,-0.461,-0.461,-0.461,0.000,0.000,0.000
1643279539418277120,2022-01-27-10:32:19,10.1.1.2,30,-0.471,-0.471,-0.471,0.000,0.000,0.000
1643279539615168000,2022-01-27-10:32:19,10.1.1.2,17,-0.480,-0.480,-0.480,0.000,0.000,0.000
1643279539835713024,2022-01-27-10:32:19,10.1.1.2,34,-0.489,-0.489,-0.489,0.000,0.000,0.000
1643279540037015040,2022-01-27-10:32:20,10.1.1.2,34,-0.479,-0.479,-0.479,0.000,0.000,0.000
1643279540235953920,2022-01-27-10:32:20,10.1.1.2,28,-0.469,-0.469,-0.469,0.000,0.000,0.000
1643279540436175104,2022-01-27-10:32:20,10.1.1.2,27,-0.459,-0.459,-0.459,0.000,0.000,0.000
1643279540635642880,2022-01-27-10:32:20,10.1.1.2,25,-0.449,-0.449,-0.449,0.000,0.000,0.000
1643279540835784960,2022-01-27-10:32:20,10.1.1.2,23,-0.440,-0.440,-0.440,0.000,0.000,0.000
1643279541036296960,2022-01-27-10:32:21,10.1.1.2,21,-0.430,-0.430,-0.430,0.000,0.000,0.000
1643279541255116032,2022-01-27-10:32:21,10.1.1.2,34,-0.419,-0.419,-0.419,0.000,0.000,0.000
1643279541455051008,2022-01-27-10:32:21,10.1.1.2,32,-0.409,-0.409,-0.409,0.000,0.000,0.000
1643279541655299840,2022-01-27-10:32:21,10.1.1.2,29,-0.399,-0.399,-0.399,0.000,0.000,0.000
1643279541857475072,2022-01-27-10:32:21,10.1.1.2,31,-0.389,-0.389,-0.389,0.000,0.000,0.000
1643279542055452160,2022-01-27-10:32:22,10.1.1.2,27,-0.379,-0.379,-0.379,0.000,0.000,0.000
1643279542255620864,2022-01-27-10:32:22,10.1.1.2,26,-0.369,-0.369,-0.369,0.000,0.000,0.000
1643279542457863936,2022-01-27-10:32:22,10.1.1.2,27,-0.359,-0.359,-0.359,0.000,0.000,0.000
1643279542675810048,2022-01-27-10:32:22,10.1.1.2,44,-0.349,-0.349,-0.349,0.000,0.000,0.000
1643279542877583872,2022-01-27-10:32:22,10.1.1.2,45,-0.339,-0.339,-0.339,0.000,0.000,0.000
1643279543075081984,2022-01-27-10:32:23,10.1.1.2,41,-0.329,-0.329,-0.329,0.000,0.000,0.000
1643279543276196864,2022-01-27-10:32:23,10.1.1.2,39,-0.319,-0.319,-0.319,0.000,0.000,0.000
1643279543480984832,2022-01-27-10:32:23,10.1.1.2,43,-0.309,-0.309,-0.309,0.000,0.000,0.000
1643279543672089088,2022-01-27-10:32:23,10.1.1.2,34,-0.300,-0.300,-0.300,0.000,0.000,0.000
1643279543856540928,2022-01-27-10:32:23,10.1.1.2,16,-0.290,-0.290,-0.290,0.000,0.000,0.000
1643279544055713792,2022-01-27-10:32:24,10.1.1.2,14,-0.280,-0.280,-0.280,0.000,0.000,0.000
1643279544282375936,2022-01-27-10:32:24,10.1.1.2,33,-0.270,-0.270,-0.270,0.000,0.000,0.000
1643279544478068992,2022-01-27-10:32:24,10.1.1.2,31,-0.260,-0.260,-0.260,0.000,0.000,0.000
1643279544676016128,2022-01-27-10:32:24,10.1.1.2,27,-0.249,-0.249,-0.249,0.000,0.000,0.000
1643279544900497920,2022-01-27-10:32:24,10.1.1.2,47,-0.239,-0.239,-0.239,0.000,0.000,0.000
1643279545104780032,2022-01-27-10:32:25,10.1.1.2,48,-0.229,-0.229,-0.229,0.000,0.000,0.000
1643279545306804992,2022-01-27-10:32:25,10.1.1.2,49,-0.219,-0.219,-0.219,0.000,0.000,0.000
1643279545504888064,2022-01-27-10:32:25,10.1.1.2,45,-0.209,-0.209,-0.209,0.000,0.000,0.000
1643279545696225792,2022-01-27-10:32:25,10.1.1.2,35,-0.199,-0.199,-0.199,0.000,0.000,0.000
1643279545895278080,2022-01-27-10:32:25,10.1.1.2,33,-0.189,-0.189,-0.189,0.000,0.000,0.000
1643279546097196032,2022-01-27-10:32:26,10.1.1.2,34,-0.179,-0.179,-0.179,0.000,0.000,0.000
1643279546295216128,2022-01-27-10:32:26,10.1.1.2,31,-0.169,-0.169,-0.169,0.000,0.000,0.000
1643279546497689856,2022-01-27-10:32:26,10.1.1.2,31,-0.160,-0.160,-0.160,0.000,0.000,0.000
1643279546694673152,2022-01-27-10:32:26,10.1.1.2,27,-0.149,-0.149,-0.149,0.000,0.000,0.000
1643279546916438016,2022-01-27-10:32:26,10.1.1.2,45,-0.139,-0.139,-0.139,0.000,0.000,0.000
1643279547095764992,2022-01-27-10:32:27,10.1.1.2,20,-0.130,-0.130,-0.130,0.000,0.000,0.000
1643279547297229056,2022-01-27-10:32:27,10.1.1.2,18,-0.120,-0.120,-0.120,0.000,0.000,0.000
1643279547501934080,2022-01-27-10:32:27,10.1.1.2,19,-0.110,-0.110,-0.110,0.000,0.000,0.000
1643279547695492864,2022-01-27-10:32:27,10.1.1.2,15,-0.100,-0.100,-0.100,0.000,0.000,0.000
1643279547896461056,2022-01-27-10:32:27,10.1.1.2,15,-0.090,-0.090,-0.090,0.000,0.000,0.000
1643279548097344000,2022-01-27-10:32:28,10.1.1.2,14,-0.080,-0.080,-0.080,0.000,0.000,0.000
1643279548316977920,2022-01-27-10:32:28,10.1.1.2,31,-0.069,-0.069,-0.069,0.000,0.000,0.000
1643279548517282048,2022-01-27-10:32:28,10.1.1.2,31,-0.059,-0.059,-0.059,0.000,0.000,0.000
1643279548721170944,2022-01-27-10:32:28,10.1.1.2,25,-0.050,-0.050,-0.050,0.000,0.000,0.000
1643279548941352960,2022-01-27-10:32:28,10.1.1.2,41,-0.039,-0.039,-0.039,0.000,0.000,0.000
1643279549122759168,2022-01-27-10:32:29,10.1.1.2,21,-0.030,-0.030,-0.030,0.000,0.000,0.000
1643279549341937920,2022-01-27-10:32:29,10.1.1.2,39,-0.019,-0.019,-0.019,0.000,0.000,0.000
1643279549540690944,2022-01-27-10:32:29,10.1.1.2,32,-0.009,-0.009,-0.009,0.000,0.000,0.000
1643279549716954112,2022-01-27-10:32:29,10.1.1.2,9,-0.000,-0.000,-0.000,0.000,0.000,0.000
1643279549936712960,2022-01-27-10:32:29,10.1.1.2,26,-0.011,-0.011,-0.011,0.000,0.000,0.000
1643279550155430144,2022-01-27-10:32:30,10.1.1.2,43,-0.021,-0.021,-0.021,0.000,0.000,0.000
1643279550354553088,2022-01-27-10:32:30,10.1.1.2,41,-0.031,-0.031,-0.031,0.000,0.000,0.000
1643279550535891968,2022-01-27-10:32:30,10.1.1.2,20,-0.040,-0.040,-0.040,0.000,0.000,0.000
1643279550754650112,2022-01-27-10:32:30,10.1.1.2,37,-0.051,-0.051,-0.051,0.000,0.000,0.000
1643279550957999104,2022-01-27-10:32:30,10.1.1.2,38,-0.061,-0.061,-0.061,0.000,0.000,0.000
1643279551135469056,2022-01-27-10:32:31,10.1.1.2,14,-0.070,-0.070,-0.070,0.000,0.000,0.000
1643279551334855168,2022-01-27-10:32:31,10.1.1.2,10,-0.080,-0.080,-0.080,0.000,0.000,0.000
1643279551555481856,2022-01-27-10:32:31,10.1.1.2,30,-0.091,-0.091,-0.091,0.000,0.000,0.000
1643279551755636992,2022-01-27-10:32:31,10.1.1.2,24,-0.100,-0.100,-0.100,0.000,0.000,0.000
1643279551936904960,2022-01-27-10:32:31,10.1.1.2,-1,-0.110,-0.110,-0.110,0.000,0.000,0.000
1643279552156841984,2022-01-27-10:32:32,10.1.1.2,18,-0.120,-0.120,-0.120,0.000,0.000,0.000
1643279552375195136,2022-01-27-10:32:32,10.1.1.2,32,-0.131,-0.131,-0.131,0.000,0.000,0.000
1643279552575854080,2022-01-27-10:32:32,10.1.1.2,31,-0.141,-0.141,-0.141,0.000,0.000,0.000
1643279552775378944,2022-01-27-10:32:32,10.1.1.2,29,-0.151,-0.151,-0.151,0.000,0.000,0.000
1643279552975824128,2022-01-27-10:32:32,10.1.1.2,29,-0.161,-0.161,-0.161,0.000,0.000,0.000
1643279553176753920,2022-01-27-10:32:33,10.1.1.2,28,-0.171,-0.171,-0.171,0.000,0.000,0.000
1643279553375659008,2022-01-27-10:32:33,10.1.1.2,25,-0.181,-0.181,-0.181,0.000,0.000,0.000
1643279553596941824,2022-01-27-10:32:33,10.1.1.2,41,-0.191,-0.191,-0.191,0.000,0.000,0.000
1643279553775075840,2022-01-27-10:32:33,10.1.1.2,16,-0.200,-0.200,-0.200,0.000,0.000,0.000
1643279553995177984,2022-01-27-10:32:33,10.1.1.2,29,-0.211,-0.211,-0.211,0.000,0.000,0.000
1643279554196065024,2022-01-27-10:32:34,10.1.1.2,28,-0.220,-0.220,-0.220,0.000,0.000,0.000
1643279554397097984,2022-01-27-10:32:34,10.1.1.2,29,-0.231,-0.231,-0.231,0.000,0.000,0.000
1643279554597462784,2022-01-27-10:32:34,10.1.1.2,24,-0.240,-0.240,-0.240,0.000,0.000,0.000
1643279554797178880,2022-01-27-10:32:34,10.1.1.2,23,-0.250,-0.250,-0.250,0.000,0.000,0.000
1643279554997952000,2022-01-27-10:32:34,10.1.1.2,20,-0.260,-0.260,-0.260,0.000,0.000,0.000
1643279555215563008,2022-01-27-10:32:35,10.1.1.2,34,-0.271,-0.271,-0.271,0.000,0.000,0.000
1643279555414187008,2022-01-27-10:32:35,10.1.1.2,30,-0.281,-0.281,-0.281,0.000,0.000,0.000
1643279555615483136,2022-01-27-10:32:35,10.1.1.2,29,-0.291,-0.291,-0.291,0.000,0.000,0.000
1643279555817956096,2022-01-27-10:32:35,10.1.1.2,31,-0.301,-0.301,-0.301,0.000,0.000,0.000
1643279556022200064,2022-01-27-10:32:36,10.1.1.2,34,-0.311,-0.311,-0.311,0.000,0.000,0.000
1643279556214515968,2022-01-27-10:32:36,10.1.1.2,23,-0.321,-0.321,-0.321,0.000,0.000,0.000
1643279556415425024,2022-01-27-10:32:36,10.1.1.2,23,-0.330,-0.330,-0.330,0.000,0.000,0.000
1643279556616656896,2022-01-27-10:32:36,10.1.1.2,23,-0.340,-0.340,-0.340,0.000,0.000,0.000
1643279556834749952,2022-01-27-10:32:36,10.1.1.2,36,-0.351,-0.351,-0.351,0.000,0.000,0.000
1643279557035213824,2022-01-27-10:32:37,10.1.1.2,33,-0.361,-0.361,-0.361,0.000,0.000,0.000
1643279557233778944,2022-01-27-10:32:37,10.1.1.2,28,-0.371,-0.371,-0.371,0.000,0.000,0.000
1643279557434190080,2022-01-27-10:32:37,10.1.1.2,27,-0.381,-0.381,-0.381,0.000,0.000,0.000
1643279557635830016,2022-01-27-10:32:37,10.1.1.2,26,-0.390,-0.390,-0.390,0.000,0.000,0.000
1643279557855602944,2022-01-27-10:32:37,10.1.1.2,42,-0.401,-0.401,-0.401,0.000,0.000,0.000
1643279558060054016,2022-01-27-10:32:38,10.1.1.2,45,-0.411,-0.411,-0.411,0.000,0.000,0.000
1643279558235543040,2022-01-27-10:32:38,10.1.1.2,16,-0.420,-0.420,-0.420,0.000,0.000,0.000
1643279558454845952,2022-01-27-10:32:38,10.1.1.2,31,-0.431,-0.431,-0.431,0.000,0.000,0.000
1643279558654927872,2022-01-27-10:32:38,10.1.1.2,28,-0.441,-0.441,-0.441,0.000,0.000,0.000
1643279558855115776,2022-01-27-10:32:38,10.1.1.2,26,-0.451,-0.451,-0.451,0.000,0.000,0.000
1643279559076670976,2022-01-27-10:32:39,10.1.1.2,41,-0.461,-0.461,-0.461,0.000,0.000,0.000
1643279559275264000,2022-01-27-10:32:39,10.1.1.2,34,-0.471,-0.471,-0.471,0.000,0.000,0.000
1643279559476847872,2022-01-27-10:32:39,10.1.1.2,34,-0.481,-0.481,-0.481,0.000,0.000,0.000
1643279559655313920,2022-01-27-10:32:39,10.1.1.2,7,-0.490,-0.490,-0.490,0.000,0.000,0.000
1643279559875336960,2022-01-27-10:32:39,10.1.1.2,24,-0.479,-0.479,-0.479,0.000,0.000,0.000
1643279560076162048,2022-01-27-10:32:40,10.1.1.2,24,-0.470,-0.470,-0.470,0.000,0.000,0.000
1643279560294547968,2022-01-27-10:32:40,10.1.1.2,39,-0.459,-0.459,-0.459,0.000,0.000,0.000
1643279560494658048,2022-01-27-10:32:40,10.1.1.2,36,-0.449,-0.449,-0.449,0.000,0.000,0.000
1643279560676433152,2022-01-27-10:32:40,10.1.1.2,16,-0.440,-0.440,-0.440,0.000,0.000,0.000
1643279560896962816,2022-01-27-10:32:40,10.1.1.2,33,-0.429,-0.429,-0.429,0.000,0.000,0.000
1643279561097198080,2022-01-27-10:32:41,10.1.1.2,31,-0.420,-0.420,-0.420,0.000,0.000,0.000
1643279561295460096,2022-01-27-10:32:41,10.1.1.2,28,-0.409,-0.409,-0.409,0.000,0.000,0.000
1643279561498012160,2022-01-27-10:32:41,10.1.1.2,29,-0.399,-0.399,-0.399,0.000,0.000,0.000
1643279561701229056,2022-01-27-10:32:41,10.1.1.2,31,-0.389,-0.389,-0.389,0.000,0.000,0.000
1643279561916688896,2022-01-27-10:32:41,10.1.1.2,41,-0.379,-0.379,-0.379,0.000,0.000,0.000
1643279562116146176,2022-01-27-10:32:42,10.1.1.2,32,-0.369,-0.369,-0.369,0.000,0.000,0.000
1643279562319431168,2022-01-27-10:32:42,10.1.1.2,31,-0.359,-0.359,-0.359,0.000,0.000,0.000
1643279562515096064,2022-01-27-10:32:42,10.1.1.2,25,-0.350,-0.350,-0.350,0.000,0.000,0.000
1643279562717159936,2022-01-27-10:32:42,10.1.1.2,21,-0.340,-0.340,-0.340,0.000,0.000,0.000
1643279562937148160,2022-01-27-10:32:42,10.1.1.2,39,-0.329,-0.329,-0.329,0.000,0.000,0.000
1643279563135051008,2022-01-27-10:32:43,10.1.1.2,35,-0.319,-0.319,-0.319,0.000,0.000,0.000
1643279563334949120,2022-01-27-10:32:43,10.1.1.2,33,-0.309,-0.309,-0.309,0.000,0.000,0.000
1643279563538075904,2022-01-27-10:32:43,10.1.1.2,36,-0.299,-0.299,-0.299,0.000,0.000,0.000
1643279563734507008,2022-01-27-10:32:43,10.1.1.2,31,-0.289,-0.289,-0.289,0.000,0.000,0.000
1643279563934416896,2022-01-27-10:32:43,10.1.1.2,29,-0.279,-0.279,-0.279,0.000,0.000,0.000
1643279564134289920,2022-01-27-10:32:44,10.1.1.2,27,-0.269,-0.269,-0.269,0.000,0.000,0.000
1643279564334551040,2022-01-27-10:32:44,10.1.1.2,26,-0.259,-0.259,-0.259,0.000,0.000,0.000
1643279564536470016,2022-01-27-10:32:44,10.1.1.2,27,-0.250,-0.250,-0.250,0.000,0.000,0.000
1643279564735881216,2022-01-27-10:32:44,10.1.1.2,26,-0.239,-0.239,-0.239,0.000,0.000,0.000
1643279564955820032,2022-01-27-10:32:44,10.1.1.2,38,-0.229,-0.229,-0.229,0.000,0.000,0.000
1643279565134763008,2022-01-27-10:32:45,10.1.1.2,15,-0.220,-0.220,-0.220,0.000,0.000,0.000
1643279565355384064,2022-01-27-10:32:45,10.1.1.2,33,-0.209,-0.209,-0.209,0.000,0.000,0.000
1643279565555869184,2022-01-27-10:32:45,10.1.1.2,33,-0.199,-0.199,-0.199,0.000,0.000,0.000
1643279565755089152,2022-01-27-10:32:45,10.1.1.2,31,-0.189,-0.189,-0.189,0.000,0.000,0.000
1643279565955636992,2022-01-27-10:32:45,10.1.1.2,30,-0.180,-0.180,-0.180,0.000,0.000,0.000
1643279566159496192,2022-01-27-10:32:46,10.1.1.2,33,-0.169,-0.169,-0.169,0.000,0.000,0.000
1643279566357690112,2022-01-27-10:32:46,10.1.1.2,30,-0.159,-0.159,-0.159,0.000,0.000,0.000
1643279566556397824,2022-01-27-10:32:46,10.1.1.2,28,-0.149,-0.149,-0.149,0.000,0.000,0.000
1643279566755592192,2022-01-27-10:32:46,10.1.1.2,24,-0.139,-0.139,-0.139,0.000,0.000,0.000
1643279566955353088,2022-01-27-10:32:46,10.1.1.2,20,-0.130,-0.130,-0.130,0.000,0.000,0.000
1643279567157458176,2022-01-27-10:32:47,10.1.1.2,20,-0.120,-0.120,-0.120,0.000,0.000,0.000
1643279567354263040,2022-01-27-10:32:47,10.1.1.2,16,-0.110,-0.110,-0.110,0.000,0.000,0.000
1643279567556643072,2022-01-27-10:32:47,10.1.1.2,15,-0.100,-0.100,-0.100,0.000,0.000,0.000
1643279567755084032,2022-01-27-10:32:47,10.1.1.2,12,-0.090,-0.090,-0.090,0.000,0.000,0.000
1643279567975981056,2022-01-27-10:32:47,10.1.1.2,32,-0.079,-0.079,-0.079,0.000,0.000,0.000
1643279568177853952,2022-01-27-10:32:48,10.1.1.2,31,-0.069,-0.069,-0.069,0.000,0.000,0.000
1643279568375432960,2022-01-27-10:32:48,10.1.1.2,27,-0.060,-0.060,-0.060,0.000,0.000,0.000
1643279568576355840,2022-01-27-10:32:48,10.1.1.2,24,-0.050,-0.050,-0.050,0.000,0.000,0.000
1643279568796706816,2022-01-27-10:32:48,10.1.1.2,40,-0.039,-0.039,-0.039,0.000,0.000,0.000
1643279568979668992,2022-01-27-10:32:48,10.1.1.2,22,-0.030,-0.030,-0.030,0.000,0.000,0.000
1643279569176385024,2022-01-27-10:32:49,10.1.1.2,13,-0.020,-0.020,-0.020,0.000,0.000,0.000
1643279569395744000,2022-01-27-10:32:49,10.1.1.2,33,-0.009,-0.009,-0.009,0.000,0.000,0.000
1643279569577522944,2022-01-27-10:32:49,10.1.1.2,8,-0.000,-0.000,-0.000,0.000,0.000,0.000
1643279569798640128,2022-01-27-10:32:49,10.1.1.2,25,-0.010,-0.010,-0.010,0.000,0.000,0.000
1643279569995898880,2022-01-27-10:32:49,10.1.1.2,18,-0.020,-0.020,-0.020,0.000,0.000,0.000
1643279570195890944,2022-01-27-10:32:50,10.1.1.2,16,-0.030,-0.030,-0.030,0.000,0.000,0.000
1643279570415889152,2022-01-27-10:32:50,10.1.1.2,34,-0.041,-0.041,-0.041,0.000,0.000,0.000
1643279570616118784,2022-01-27-10:32:50,10.1.1.2,33,-0.051,-0.051,-0.051,0.000,0.000,0.000
1643279570815596032,2022-01-27-10:32:50,10.1.1.2,26,-0.060,-0.060,-0.060,0.000,0.000,0.000
1643279571014676992,2022-01-27-10:32:51,10.1.1.2,21,-0.070,-0.070,-0.070,0.000,0.000,0.000
1643279571215582976,2022-01-27-10:32:51,10.1.1.2,19,-0.080,-0.080,-0.080,0.000,0.000,0.000
1643279571415431936,2022-01-27-10:32:51,10.1.1.2,17,-0.090,-0.090,-0.090,0.000,0.000,0.000
1643279571618309888,2022-01-27-10:32:51,10.1.1.2,19,-0.100,-0.100,-0.100,0.000,0.000,0.000
1643279571814407168,2022-01-27-10:32:51,10.1.1.2,13,-0.110,-0.110,-0.110,0.000,0.000,0.000
1643279572016054016,2022-01-27-10:32:52,10.1.1.2,14,-0.120,-0.120,-0.120,0.000,0.000,0.000
1643279572238526208,2022-01-27-10:32:52,10.1.1.2,36,-0.131,-0.131,-0.131,0.000,0.000,0.000
1643279572436465152,2022-01-27-10:32:52,10.1.1.2,31,-0.141,-0.141,-0.141,0.000,0.000,0.000
1643279572636384000,2022-01-27-10:32:52,10.1.1.2,28,-0.150,-0.150,-0.150,0.000,0.000,0.000
1643279572855456000,2022-01-27-10:32:52,10.1.1.2,39,-0.161,-0.161,-0.161,0.000,0.000,0.000
1643279573055917056,2022-01-27-10:32:53,10.1.1.2,38,-0.171,-0.171,-0.171,0.000,0.000,0.000
1643279573254205952,2022-01-27-10:32:53,10.1.1.2,35,-0.181,-0.181,-0.181,0.000,0.000,0.000
1643279573454372864,2022-01-27-10:32:53,10.1.1.2,32,-0.191,-0.191,-0.191,0.000,0.000,0.000
1643279573655087104,2022-01-27-10:32:53,10.1.1.2,31,-0.201,-0.201,-0.201,0.000,0.000,0.000
1643279573857600000,2022-01-27-10:32:53,10.1.1.2,33,-0.211,-0.211,-0.211,0.000,0.000,0.000
1643279574060128000,2022-01-27-10:32:54,10.1.1.2,32,-0.221,-0.221,-0.221,0.000,0.000,0.000
1643279574277522944,2022-01-27-10:32:54,10.1.1.2,48,-0.231,-0.231,-0.231,0.000,0.000,0.000
1643279574459685120,2022-01-27-10:32:54,10.1.1.2,29,-0.241,-0.241,-0.241,0.000,0.000,0.000
1643279574657312000,2022-01-27-10:32:54,10.1.1.2,25,-0.250,-0.250,-0.250,0.000,0.000,0.000
1643279574859016960,2022-01-27-10:32:54,10.1.1.2,26,-0.260,-0.260,-0.260,0.000,0.000,0.000
1643279575062771200,2022-01-27-10:32:55,10.1.1.2,27,-0.270,-0.270,-0.270,0.000,0.000,0.000
1643279575255590912,2022-01-27-10:32:55,10.1.1.2,18,-0.280,-0.280,-0.280,0.000,0.000,0.000
1643279575481518080,2022-01-27-10:32:55,10.1.1.2,39,-0.291,-0.291,-0.291,0.000,0.000,0.000
1643279575677552896,2022-01-27-10:32:55,10.1.1.2,37,-0.301,-0.301,-0.301,0.000,0.000,0.000
1643279575877181952,2022-01-27-10:32:55,10.1.1.2,36,-0.311,-0.311,-0.311,0.000,0.000,0.000
1643279576075789824,2022-01-27-10:32:56,10.1.1.2,35,-0.321,-0.321,-0.321,0.000,0.000,0.000
1643279576276983040,2022-01-27-10:32:56,10.1.1.2,33,-0.330,-0.330,-0.330,0.000,0.000,0.000
1643279576480698112,2022-01-27-10:32:56,10.1.1.2,35,-0.341,-0.341,-0.341,0.000,0.000,0.000
1643279576678502912,2022-01-27-10:32:56,10.1.1.2,32,-0.351,-0.351,-0.351,0.000,0.000,0.000
1643279576874555136,2022-01-27-10:32:56,10.1.1.2,24,-0.361,-0.361,-0.361,0.000,0.000,0.000
1643279577075589888,2022-01-27-10:32:57,10.1.1.2,24,-0.371,-0.371,-0.371,0.000,0.000,0.000
1643279577295724032,2022-01-27-10:32:57,10.1.1.2,43,-0.381,-0.381,-0.381,0.000,0.000,0.000
1643279577496864000,2022-01-27-10:32:57,10.1.1.2,42,-0.391,-0.391,-0.391,0.000,0.000,0.000
1643279577695739136,2022-01-27-10:32:57,10.1.1.2,39,-0.401,-0.401,-0.401,0.000,0.000,0.000
1643279577875101184,2022-01-27-10:32:57,10.1.1.2,17,-0.410,-0.410,-0.410,0.000,0.000,0.000
1643279578075865856,2022-01-27-10:32:58,10.1.1.2,16,-0.420,-0.420,-0.420,0.000,0.000,0.000
1643279578295619072,2022-01-27-10:32:58,10.1.1.2,34,-0.431,-0.431,-0.431,0.000,0.000,0.000
1643279578496262912,2022-01-27-10:32:58,10.1.1.2,33,-0.441,-0.441,-0.441,0.000,0.000,0.000
1643279578696232960,2022-01-27-10:32:58,10.1.1.2,32,-0.451,-0.451,-0.451,0.000,0.000,0.000
1643279578896257024,2022-01-27-10:32:58,10.1.1.2,29,-0.461,-0.461,-0.461,0.000,0.000,0.000
1643279579096020992,2022-01-27-10:32:59,10.1.1.2,28,-0.471,-0.471,-0.471,0.000,0.000,0.000
1643279579296237056,2022-01-27-10:32:59,10.1.1.2,23,-0.480,-0.480,-0.480,0.000,0.000,0.000
1643279579476975872,2022-01-27-10:32:59,10.1.1.2,2,-0.489,-0.489,-0.489,0.000,0.000,0.000
1643279579716332800,2022-01-27-10:32:59,10.1.1.2,40,-0.479,-0.479,-0.479,0.000,0.000,0.000
1643279579899479040,2022-01-27-10:32:59,10.1.1.2,18,-0.470,-0.470,-0.470,0.000,0.000,0.000
1643279580115126016,2022-01-27-10:33:00,10.1.1.2,37,-0.459,-0.459,-0.459,0.000,0.000,0.000
1643279580315567872,2022-01-27-10:33:00,10.1.1.2,33,-0.449,-0.449,-0.449,0.000,0.000,0.000
1643279580517352960,2022-01-27-10:33:00,10.1.1.2,34,-0.439,-0.439,-0.439,0.000,0.000,0.000
1643279580719155968,2022-01-27-10:33:00,10.1.1.2,34,-0.429,-0.429,-0.429,0.000,0.000,0.000
1643279580915851008,2022-01-27-10:33:00,10.1.1.2,30,-0.419,-0.419,-0.419,0.000,0.000,0.000
1643279581116624128,2022-01-27-10:33:01,10.1.1.2,30,-0.410,-0.410,-0.410,0.000,0.000,0.000
1643279581338774016,2022-01-27-10:33:01,10.1.1.2,49,-0.399,-0.399,-0.399,0.000,0.000,0.000
1643279581516339968,2022-01-27-10:33:01,10.1.1.2,24,-0.390,-0.390,-0.390,0.000,0.000,0.000
1643279581737416960,2022-01-27-10:33:01,10.1.1.2,44,-0.379,-0.379,-0.379,0.000,0.000,0.000
1643279581917312000,2022-01-27-10:33:01,10.1.1.2,20,-0.370,-0.370,-0.370,0.000,0.000,0.000
1643279582116179968,2022-01-27-10:33:02,10.1.1.2,17,-0.360,-0.360,-0.360,0.000,0.000,0.000
1643279582336588032,2022-01-27-10:33:02,10.1.1.2,36,-0.349,-0.349,-0.349,0.000,0.000,0.000
1643279582535881984,2022-01-27-10:33:02,10.1.1.2,31,-0.339,-0.339,-0.339,0.000,0.000,0.000
1643279582737940992,2022-01-27-10:33:02,10.1.1.2,31,-0.329,-0.329,-0.329,0.000,0.000,0.000
1643279582955585024,2022-01-27-10:33:02,10.1.1.2,41,-0.319,-0.319,-0.319,0.000,0.000,0.000
1643279583137029888,2022-01-27-10:33:03,10.1.1.2,19,-0.310,-0.310,-0.310,0.000,0.000,0.000
1643279583336880896,2022-01-27-10:33:03,10.1.1.2,18,-0.300,-0.300,-0.300,0.000,0.000,0.000
1643279583537623808,2022-01-27-10:33:03,10.1.1.2,18,-0.290,-0.290,-0.290,0.000,0.000,0.000
1643279583758449152,2022-01-27-10:33:03,10.1.1.2,37,-0.279,-0.279,-0.279,0.000,0.000,0.000
1643279583959085824,2022-01-27-10:33:03,10.1.1.2,30,-0.269,-0.269,-0.269,0.000,0.000,0.000
1643279584156878848,2022-01-27-10:33:04,10.1.1.2,29,-0.259,-0.259,-0.259,0.000,0.000,0.000
1643279584376790016,2022-01-27-10:33:04,10.1.1.2,43,-0.249,-0.249,-0.249,0.000,0.000,0.000
1643279584575782144,2022-01-27-10:33:04,10.1.1.2,40,-0.239,-0.239,-0.239,0.000,0.000,0.000
1643279584755949056,2022-01-27-10:33:04,10.1.1.2,19,-0.230,-0.230,-0.230,0.000,0.000,0.000
1643279584954894080,2022-01-27-10:33:04,10.1.1.2,17,-0.220,-0.220,-0.220,0.000,0.000,0.000
1643279585175394048,2022-01-27-10:33:05,10.1.1.2,37,-0.209,-0.209,-0.209,0.000,0.000,0.000
1643279585376039936,2022-01-27-10:33:05,10.1.1.2,36,-0.199,-0.199,-0.199,0.000,0.000,0.000
1643279585555838208,2022-01-27-10:33:05,10.1.1.2,15,-0.190,-0.190,-0.190,0.000,0.000,0.000
1643279585774461952,2022-01-27-10:33:05,10.1.1.2,32,-0.179,-0.179,-0.179,0.000,0.000,0.000
1643279585976502016,2022-01-27-10:33:05,10.1.1.2,33,-0.169,-0.169,-0.169,0.000,0.000,0.000
1643279586175796992,2022-01-27-10:33:06,10.1.1.2,31,-0.159,-0.159,-0.159,0.000,0.000,0.000
1643279586377175040,2022-01-27-10:33:06,10.1.1.2,32,-0.149,-0.149,-0.149,0.000,0.000,0.000
1643279586576598016,2022-01-27-10:33:06,10.1.1.2,30,-0.139,-0.139,-0.139,0.000,0.000,0.000
1643279586776713984,2022-01-27-10:33:06,10.1.1.2,29,-0.129,-0.129,-0.129,0.000,0.000,0.000
1643279586979606016,2022-01-27-10:33:06,10.1.1.2,27,-0.119,-0.119,-0.119,0.000,0.000,0.000
1643279587176009984,2022-01-27-10:33:07,10.1.1.2,25,-0.109,-0.109,-0.109,0.000,0.000,0.000
1643279587374775808,2022-01-27-10:33:07,10.1.1.2,19,-0.100,-0.100,-0.100,0.000,0.000,0.000
1643279587574505216,2022-01-27-10:33:07,10.1.1.2,17,-0.090,-0.090,-0.090,0.000,0.000,0.000
1643279587773919232,2022-01-27-10:33:07,10.1.1.2,15,-0.080,-0.080,-0.080,0.000,0.000,0.000
1643279587974817024,2022-01-27-10:33:07,10.1.1.2,14,-0.070,-0.070,-0.070,0.000,0.000,0.000
1643279588194538240,2022-01-27-10:33:08,10.1.1.2,32,-0.060,-0.060,-0.060,0.000,0.000,0.000
1643279588394836992,2022-01-27-10:33:08,10.1.1.2,31,-0.049,-0.049,-0.049,0.000,0.000,0.000
1643279588597516032,2022-01-27-10:33:08,10.1.1.2,29,-0.040,-0.040,-0.040,0.000,0.000,0.000
1643279588814416896,2022-01-27-10:33:08,10.1.1.2,42,-0.029,-0.029,-0.029,0.000,0.000,0.000
1643279589015616000,2022-01-27-10:33:09,10.1.1.2,41,-0.019,-0.019,-0.019,0.000,0.000,0.000
1643279589217596928,2022-01-27-10:33:09,10.1.1.2,41,-0.009,-0.009,-0.009,0.000,0.000,0.000
1643279589416225024,2022-01-27-10:33:09,10.1.1.2,36,-0.001,-0.001,-0.001,0.000,0.000,0.000
1643279589616276992,2022-01-27-10:33:09,10.1.1.2,37,-0.011,-0.011,-0.011,0.000,0.000,0.000
1643279589798053120,2022-01-27-10:33:09,10.1.1.2,17,-0.020,-0.020,-0.020,0.000,0.000,0.000
1643279590015592960,2022-01-27-10:33:10,10.1.1.2,33,-0.031,-0.031,-0.031,0.000,0.000,0.000
1643279590215751936,2022-01-27-10:33:10,10.1.1.2,32,-0.041,-0.041,-0.041,0.000,0.000,0.000
1643279590419513856,2022-01-27-10:33:10,10.1.1.2,31,-0.051,-0.051,-0.051,0.000,0.000,0.000
1643279590615782912,2022-01-27-10:33:10,10.1.1.2,30,-0.060,-0.060,-0.060,0.000,0.000,0.000
1643279590815067136,2022-01-27-10:33:10,10.1.1.2,28,-0.071,-0.071,-0.071,0.000,0.000,0.000
1643279591015502080,2022-01-27-10:33:11,10.1.1.2,27,-0.081,-0.081,-0.081,0.000,0.000,0.000
