FedericoMungari/DigitalTwin_service/01_WiredScenario/Output/Output_script/script_rosapi_2_output_robots6_freq0_6.txt
timestamp,date,node,latency,joint_1,joint_2,joint_3,joint_4,joint_5,joint_6
1644905246220141056,2022-02-15-06:07:26,10.1.1.7,-11,-0.100,-0.100,-0.100,0.000,0.000,0.000
1644905246313381888,2022-02-15-06:07:26,10.1.1.7,18,-0.091,-0.091,-0.091,0.000,0.000,0.000
1644905246375847168,2022-02-15-06:07:26,10.1.1.7,34,-0.080,-0.080,-0.080,0.000,0.000,0.000
1644905246475009792,2022-02-15-06:07:26,10.1.1.7,31,-0.060,-0.060,-0.060,0.000,0.000,0.000
1644905246514281984,2022-02-15-06:07:26,10.1.1.7,21,-0.050,-0.050,-0.050,0.000,0.000,0.000
1644905246574321152,2022-02-15-06:07:26,10.1.1.7,30,-0.040,-0.040,-0.040,0.000,0.000,0.000
1644905246615036928,2022-02-15-06:07:26,10.1.1.7,20,-0.030,-0.030,-0.030,0.000,0.000,0.000
1644905246674864128,2022-02-15-06:07:26,10.1.1.7,30,-0.020,-0.020,-0.020,0.000,0.000,0.000
1644905246714678016,2022-02-15-06:07:26,10.1.1.7,19,-0.010,-0.010,-0.010,0.000,0.000,0.000
1644905246774236928,2022-02-15-06:07:26,10.1.1.7,29,0.000,0.000,0.000,0.000,0.000,0.000
1644905246814095872,2022-02-15-06:07:26,10.1.1.7,19,0.009,0.009,0.009,0.000,0.000,0.000
1644905246875247872,2022-02-15-06:07:26,10.1.1.7,28,0.020,0.020,0.020,0.000,0.000,0.000
1644905246934659072,2022-02-15-06:07:26,10.1.1.7,38,0.030,0.030,0.030,0.000,0.000,0.000
1644905246975056896,2022-02-15-06:07:26,10.1.1.7,26,0.040,0.040,0.040,0.000,0.000,0.000
1644905247035459072,2022-02-15-06:07:27,10.1.1.7,36,0.050,0.050,0.050,0.000,0.000,0.000
1644905247075244800,2022-02-15-06:07:27,10.1.1.7,25,0.060,0.060,0.060,0.000,0.000,0.000
1644905247135129856,2022-02-15-06:07:27,10.1.1.7,34,0.070,0.070,0.070,0.000,0.000,0.000
1644905247174526976,2022-02-15-06:07:27,10.1.1.7,23,0.080,0.080,0.080,0.000,0.000,0.000
1644905247234630144,2022-02-15-06:07:27,10.1.1.7,31,0.090,0.090,0.090,0.000,0.000,0.000
1644905247274149888,2022-02-15-06:07:27,10.1.1.7,21,0.100,0.100,0.100,0.000,0.000,0.000
1644905247334043136,2022-02-15-06:07:27,10.1.1.7,30,0.090,0.090,0.090,0.000,0.000,0.000
1644905247374157056,2022-02-15-06:07:27,10.1.1.7,19,0.080,0.080,0.080,0.000,0.000,0.000
1644905247433882880,2022-02-15-06:07:27,10.1.1.7,28,0.070,0.070,0.070,0.000,0.000,0.000
1644905247494172160,2022-02-15-06:07:27,10.1.1.7,37,0.060,0.060,0.060,0.000,0.000,0.000
1644905247534221056,2022-02-15-06:07:27,10.1.1.7,27,0.050,0.050,0.050,0.000,0.000,0.000
1644905247594390016,2022-02-15-06:07:27,10.1.1.7,33,0.040,0.040,0.040,0.000,0.000,0.000
1644905247634854144,2022-02-15-06:07:27,10.1.1.7,22,0.030,0.030,0.030,0.000,0.000,0.000
1644905247694771968,2022-02-15-06:07:27,10.1.1.7,31,0.020,0.020,0.020,0.000,0.000,0.000
1644905247734166016,2022-02-15-06:07:27,10.1.1.7,21,0.010,0.010,0.010,0.000,0.000,0.000
1644905247794667008,2022-02-15-06:07:27,10.1.1.7,30,0.000,0.000,0.000,0.000,0.000,0.000
1644905247835115008,2022-02-15-06:07:27,10.1.1.7,20,-0.010,-0.010,-0.010,0.000,0.000,0.000
1644905247894066176,2022-02-15-06:07:27,10.1.1.7,29,-0.020,-0.020,-0.020,0.000,0.000,0.000
1644905247934578944,2022-02-15-06:07:27,10.1.1.7,19,-0.030,-0.030,-0.030,0.000,0.000,0.000
1644905247993840896,2022-02-15-06:07:27,10.1.1.7,28,-0.040,-0.040,-0.040,0.000,0.000,0.000
1644905248054053120,2022-02-15-06:07:28,10.1.1.7,38,-0.050,-0.050,-0.050,0.000,0.000,0.000
1644905248093923072,2022-02-15-06:07:28,10.1.1.7,27,-0.060,-0.060,-0.060,0.000,0.000,0.000
1644905248153983232,2022-02-15-06:07:28,10.1.1.7,37,-0.070,-0.070,-0.070,0.000,0.000,0.000
1644905248194269952,2022-02-15-06:07:28,10.1.1.7,26,-0.080,-0.080,-0.080,0.000,0.000,0.000
1644905248255650048,2022-02-15-06:07:28,10.1.1.7,36,-0.090,-0.090,-0.090,0.000,0.000,0.000
1644905248294665216,2022-02-15-06:07:28,10.1.1.7,25,-0.100,-0.100,-0.100,0.000,0.000,0.000
1644905248355473152,2022-02-15-06:07:28,10.1.1.7,35,-0.090,-0.090,-0.090,0.000,0.000,0.000
1644905248394472960,2022-02-15-06:07:28,10.1.1.7,24,-0.080,-0.080,-0.080,0.000,0.000,0.000
1644905248455461888,2022-02-15-06:07:28,10.1.1.7,33,-0.070,-0.070,-0.070,0.000,0.000,0.000
1644905248495348992,2022-02-15-06:07:28,10.1.1.7,22,-0.060,-0.060,-0.060,0.000,0.000,0.000
1644905248553972992,2022-02-15-06:07:28,10.1.1.7,32,-0.050,-0.050,-0.050,0.000,0.000,0.000
1644905248594353920,2022-02-15-06:07:28,10.1.1.7,21,-0.040,-0.040,-0.040,0.000,0.000,0.000
1644905248654292224,2022-02-15-06:07:28,10.1.1.7,31,-0.030,-0.030,-0.030,0.000,0.000,0.000
1644905248695840000,2022-02-15-06:07:28,10.1.1.7,20,-0.020,-0.020,-0.020,0.000,0.000,0.000
1644905248755067136,2022-02-15-06:07:28,10.1.1.7,30,-0.010,-0.010,-0.010,0.000,0.000,0.000
1644905248796060160,2022-02-15-06:07:28,10.1.1.7,20,-0.000,-0.000,-0.000,0.000,0.000,0.000
1644905248857060864,2022-02-15-06:07:28,10.1.1.7,29,0.010,0.010,0.010,0.000,0.000,0.000
1644905248915162112,2022-02-15-06:07:28,10.1.1.7,37,0.020,0.020,0.020,0.000,0.000,0.000
1644905248956627968,2022-02-15-06:07:28,10.1.1.7,25,0.030,0.030,0.030,0.000,0.000,0.000
1644905249014494976,2022-02-15-06:07:29,10.1.1.7,35,0.040,0.040,0.040,0.000,0.000,0.000
1644905249054043904,2022-02-15-06:07:29,10.1.1.7,24,0.050,0.050,0.050,0.000,0.000,0.000
1644905249123222016,2022-02-15-06:07:29,10.1.1.7,33,0.060,0.060,0.060,0.000,0.000,0.000
1644905249156811008,2022-02-15-06:07:29,10.1.1.7,21,0.070,0.070,0.070,0.000,0.000,0.000
1644905249217437952,2022-02-15-06:07:29,10.1.1.7,30,0.080,0.080,0.080,0.000,0.000,0.000
1644905249254502144,2022-02-15-06:07:29,10.1.1.7,19,0.089,0.089,0.089,0.000,0.000,0.000
1644905249314650112,2022-02-15-06:07:29,10.1.1.7,28,0.100,0.100,0.100,0.000,0.000,0.000
1644905249375770112,2022-02-15-06:07:29,10.1.1.7,38,0.090,0.090,0.090,0.000,0.000,0.000
1644905249414052096,2022-02-15-06:07:29,10.1.1.7,27,0.080,0.080,0.080,0.000,0.000,0.000
1644905249474562816,2022-02-15-06:07:29,10.1.1.7,37,0.070,0.070,0.070,0.000,0.000,0.000
1644905249514134784,2022-02-15-06:07:29,10.1.1.7,26,0.060,0.060,0.060,0.000,0.000,0.000
1644905249573832960,2022-02-15-06:07:29,10.1.1.7,35,0.050,0.050,0.050,0.000,0.000,0.000
1644905249615217920,2022-02-15-06:07:29,10.1.1.7,24,0.040,0.040,0.040,0.000,0.000,0.000
1644905249674834944,2022-02-15-06:07:29,10.1.1.7,34,0.030,0.030,0.030,0.000,0.000,0.000
1644905249714586112,2022-02-15-06:07:29,10.1.1.7,20,0.020,0.020,0.020,0.000,0.000,0.000
1644905249774248960,2022-02-15-06:07:29,10.1.1.7,29,0.010,0.010,0.010,0.000,0.000,0.000
1644905249834563072,2022-02-15-06:07:29,10.1.1.7,37,0.000,0.000,0.000,0.000,0.000,0.000
1644905249873893888,2022-02-15-06:07:29,10.1.1.7,25,-0.010,-0.010,-0.010,0.000,0.000,0.000
1644905249935153920,2022-02-15-06:07:29,10.1.1.7,35,-0.020,-0.020,-0.020,0.000,0.000,0.000
1644905249974235136,2022-02-15-06:07:29,10.1.1.7,23,-0.030,-0.030,-0.030,0.000,0.000,0.000
1644905250034141952,2022-02-15-06:07:30,10.1.1.7,33,-0.040,-0.040,-0.040,0.000,0.000,0.000
1644905250074768128,2022-02-15-06:07:30,10.1.1.7,22,-0.050,-0.050,-0.050,0.000,0.000,0.000
1644905250133712128,2022-02-15-06:07:30,10.1.1.7,30,-0.060,-0.060,-0.060,0.000,0.000,0.000
1644905250174137088,2022-02-15-06:07:30,10.1.1.7,20,-0.070,-0.070,-0.070,0.000,0.000,0.000
1644905250233860864,2022-02-15-06:07:30,10.1.1.7,27,-0.080,-0.080,-0.080,0.000,0.000,0.000
1644905250293904128,2022-02-15-06:07:30,10.1.1.7,34,-0.090,-0.090,-0.090,0.000,0.000,0.000
1644905250335908864,2022-02-15-06:07:30,10.1.1.7,24,-0.100,-0.100,-0.100,0.000,0.000,0.000
1644905250474771968,2022-02-15-06:07:30,10.1.1.7,29,-0.080,-0.080,-0.080,0.000,0.000,0.000
1644905250534924032,2022-02-15-06:07:30,10.1.1.7,36,-0.070,-0.070,-0.070,0.000,0.000,0.000
1644905250574237184,2022-02-15-06:07:30,10.1.1.7,25,-0.060,-0.060,-0.060,0.000,0.000,0.000
1644905250634876928,2022-02-15-06:07:30,10.1.1.7,33,-0.050,-0.050,-0.050,0.000,0.000,0.000
1644905250674603008,2022-02-15-06:07:30,10.1.1.7,22,-0.040,-0.040,-0.040,0.000,0.000,0.000
1644905250734999040,2022-02-15-06:07:30,10.1.1.7,22,-0.030,-0.030,-0.030,0.000,0.000,0.000
1644905250795247104,2022-02-15-06:07:30,10.1.1.7,30,-0.020,-0.020,-0.020,0.000,0.000,0.000
1644905250835174912,2022-02-15-06:07:30,10.1.1.7,19,-0.011,-0.011,-0.011,0.000,0.000,0.000
1644905250894609920,2022-02-15-06:07:30,10.1.1.7,25,0.000,0.000,0.000,0.000,0.000,0.000
1644905250955360768,2022-02-15-06:07:30,10.1.1.7,34,0.010,0.010,0.010,0.000,0.000,0.000
1644905250995356928,2022-02-15-06:07:30,10.1.1.7,19,0.020,0.020,0.020,0.000,0.000,0.000
1644905251054973952,2022-02-15-06:07:31,10.1.1.7,24,0.030,0.030,0.030,0.000,0.000,0.000
1644905251114567936,2022-02-15-06:07:31,10.1.1.7,32,0.040,0.040,0.040,0.000,0.000,0.000
1644905251174415104,2022-02-15-06:07:31,10.1.1.7,37,0.050,0.050,0.050,0.000,0.000,0.000
1644905251214644992,2022-02-15-06:07:31,10.1.1.7,26,0.060,0.060,0.060,0.000,0.000,0.000
1644905251274455040,2022-02-15-06:07:31,10.1.1.7,29,0.070,0.070,0.070,0.000,0.000,0.000
1644905251333934080,2022-02-15-06:07:31,10.1.1.7,31,0.080,0.080,0.080,0.000,0.000,0.000
1644905251394726912,2022-02-15-06:07:31,10.1.1.7,38,0.090,0.090,0.090,0.000,0.000,0.000
1644905251435547136,2022-02-15-06:07:31,10.1.1.7,20,0.100,0.100,0.100,0.000,0.000,0.000
1644905251495110144,2022-02-15-06:07:31,10.1.1.7,29,0.090,0.090,0.090,0.000,0.000,0.000
1644905251554653952,2022-02-15-06:07:31,10.1.1.7,36,0.080,0.080,0.080,0.000,0.000,0.000
1644905251594018048,2022-02-15-06:07:31,10.1.1.7,21,0.070,0.070,0.070,0.000,0.000,0.000
1644905251655712000,2022-02-15-06:07:31,10.1.1.7,31,0.060,0.060,0.060,0.000,0.000,0.000
1644905251694046976,2022-02-15-06:07:31,10.1.1.7,20,0.050,0.050,0.050,0.000,0.000,0.000
1644905251754914048,2022-02-15-06:07:31,10.1.1.7,30,0.040,0.040,0.040,0.000,0.000,0.000
1644905251794565888,2022-02-15-06:07:31,10.1.1.7,19,0.030,0.030,0.030,0.000,0.000,0.000
1644905251854842880,2022-02-15-06:07:31,10.1.1.7,29,0.020,0.020,0.020,0.000,0.000,0.000
1644905251914552064,2022-02-15-06:07:31,10.1.1.7,37,0.010,0.010,0.010,0.000,0.000,0.000
1644905251955426048,2022-02-15-06:07:31,10.1.1.7,26,0.000,0.000,0.000,0.000,0.000,0.000
1644905252015136000,2022-02-15-06:07:32,10.1.1.7,36,-0.010,-0.010,-0.010,0.000,0.000,0.000
1644905252054102784,2022-02-15-06:07:32,10.1.1.7,25,-0.020,-0.020,-0.020,0.000,0.000,0.000
1644905252116958976,2022-02-15-06:07:32,10.1.1.7,34,-0.030,-0.030,-0.030,0.000,0.000,0.000
1644905252155982848,2022-02-15-06:07:32,10.1.1.7,23,-0.040,-0.040,-0.040,0.000,0.000,0.000
1644905252216124928,2022-02-15-06:07:32,10.1.1.7,32,-0.050,-0.050,-0.050,0.000,0.000,0.000
1644905252255409920,2022-02-15-06:07:32,10.1.1.7,22,-0.060,-0.060,-0.060,0.000,0.000,0.000
1644905252316196864,2022-02-15-06:07:32,10.1.1.7,30,-0.070,-0.070,-0.070,0.000,0.000,0.000
1644905252354747136,2022-02-15-06:07:32,10.1.1.7,20,-0.080,-0.080,-0.080,0.000,0.000,0.000
1644905252414330880,2022-02-15-06:07:32,10.1.1.7,29,-0.090,-0.090,-0.090,0.000,0.000,0.000
1644905252475322880,2022-02-15-06:07:32,10.1.1.7,37,-0.100,-0.100,-0.100,0.000,0.000,0.000
1644905252514905856,2022-02-15-06:07:32,10.1.1.7,25,-0.090,-0.090,-0.090,0.000,0.000,0.000
1644905252575213056,2022-02-15-06:07:32,10.1.1.7,34,-0.080,-0.080,-0.080,0.000,0.000,0.000
1644905252615209984,2022-02-15-06:07:32,10.1.1.7,23,-0.070,-0.070,-0.070,0.000,0.000,0.000
1644905252674258944,2022-02-15-06:07:32,10.1.1.7,33,-0.060,-0.060,-0.060,0.000,0.000,0.000
1644905252714326016,2022-02-15-06:07:32,10.1.1.7,22,-0.050,-0.050,-0.050,0.000,0.000,0.000
1644905252775424000,2022-02-15-06:07:32,10.1.1.7,32,-0.040,-0.040,-0.040,0.000,0.000,0.000
1644905252834798080,2022-02-15-06:07:32,10.1.1.7,33,-0.030,-0.030,-0.030,0.000,0.000,0.000
1644905252875884032,2022-02-15-06:07:32,10.1.1.7,20,-0.020,-0.020,-0.020,0.000,0.000,0.000
1644905252934708992,2022-02-15-06:07:32,10.1.1.7,29,-0.010,-0.010,-0.010,0.000,0.000,0.000
1644905252974163968,2022-02-15-06:07:32,10.1.1.7,19,-0.001,-0.001,-0.001,0.000,0.000,0.000
1644905253035080960,2022-02-15-06:07:33,10.1.1.7,27,0.010,0.010,0.010,0.000,0.000,0.000
1644905253093972992,2022-02-15-06:07:33,10.1.1.7,31,0.020,0.020,0.020,0.000,0.000,0.000
1644905253154844928,2022-02-15-06:07:33,10.1.1.7,37,0.030,0.030,0.030,0.000,0.000,0.000
1644905253194642944,2022-02-15-06:07:33,10.1.1.7,25,0.040,0.040,0.040,0.000,0.000,0.000
1644905253254881024,2022-02-15-06:07:33,10.1.1.7,35,0.050,0.050,0.050,0.000,0.000,0.000
1644905253294422016,2022-02-15-06:07:33,10.1.1.7,22,0.060,0.060,0.060,0.000,0.000,0.000
1644905253354412032,2022-02-15-06:07:33,10.1.1.7,32,0.070,0.070,0.070,0.000,0.000,0.000
1644905253394717952,2022-02-15-06:07:33,10.1.1.7,20,0.080,0.080,0.080,0.000,0.000,0.000
1644905253455087872,2022-02-15-06:07:33,10.1.1.7,26,0.090,0.090,0.090,0.000,0.000,0.000
1644905253514766848,2022-02-15-06:07:33,10.1.1.7,32,0.100,0.100,0.100,0.000,0.000,0.000
1644905253554681088,2022-02-15-06:07:33,10.1.1.7,19,0.090,0.090,0.090,0.000,0.000,0.000
1644905253614242048,2022-02-15-06:07:33,10.1.1.7,28,0.080,0.080,0.080,0.000,0.000,0.000
1644905253675195904,2022-02-15-06:07:33,10.1.1.7,36,0.070,0.070,0.070,0.000,0.000,0.000
1644905253714983936,2022-02-15-06:07:33,10.1.1.7,22,0.060,0.060,0.060,0.000,0.000,0.000
1644905253774408192,2022-02-15-06:07:33,10.1.1.7,31,0.050,0.050,0.050,0.000,0.000,0.000
1644905253815629056,2022-02-15-06:07:33,10.1.1.7,20,0.040,0.040,0.040,0.000,0.000,0.000
1644905253876201984,2022-02-15-06:07:33,10.1.1.7,29,0.030,0.030,0.030,0.000,0.000,0.000
1644905253935584000,2022-02-15-06:07:33,10.1.1.7,38,0.020,0.020,0.020,0.000,0.000,0.000
1644905253974437120,2022-02-15-06:07:33,10.1.1.7,27,0.010,0.010,0.010,0.000,0.000,0.000
1644905254035348992,2022-02-15-06:07:34,10.1.1.7,35,0.000,0.000,0.000,0.000,0.000,0.000
1644905254074227968,2022-02-15-06:07:34,10.1.1.7,24,-0.010,-0.010,-0.010,0.000,0.000,0.000
1644905254134705152,2022-02-15-06:07:34,10.1.1.7,33,-0.020,-0.020,-0.020,0.000,0.000,0.000
1644905254234580992,2022-02-15-06:07:34,10.1.1.7,31,-0.040,-0.040,-0.040,0.000,0.000,0.000
1644905254275036160,2022-02-15-06:07:34,10.1.1.7,20,-0.050,-0.050,-0.050,0.000,0.000,0.000
1644905254334961920,2022-02-15-06:07:34,10.1.1.7,28,-0.060,-0.060,-0.060,0.000,0.000,0.000
1644905254394202880,2022-02-15-06:07:34,10.1.1.7,37,-0.070,-0.070,-0.070,0.000,0.000,0.000
1644905254435941888,2022-02-15-06:07:34,10.1.1.7,26,-0.080,-0.080,-0.080,0.000,0.000,0.000
1644905254495196160,2022-02-15-06:07:34,10.1.1.7,33,-0.090,-0.090,-0.090,0.000,0.000,0.000
1644905254574862848,2022-02-15-06:07:34,10.1.1.7,11,-0.090,-0.090,-0.090,0.000,0.000,0.000
1644905254634157824,2022-02-15-06:07:34,10.1.1.7,20,-0.080,-0.080,-0.080,0.000,0.000,0.000
1644905254696496128,2022-02-15-06:07:34,10.1.1.7,29,-0.070,-0.070,-0.070,0.000,0.000,0.000
1644905254754245120,2022-02-15-06:07:34,10.1.1.7,35,-0.060,-0.060,-0.060,0.000,0.000,0.000
1644905254794616064,2022-02-15-06:07:34,10.1.1.7,24,-0.050,-0.050,-0.050,0.000,0.000,0.000
1644905254854521088,2022-02-15-06:07:34,10.1.1.7,33,-0.040,-0.040,-0.040,0.000,0.000,0.000
1644905254894082048,2022-02-15-06:07:34,10.1.1.7,23,-0.030,-0.030,-0.030,0.000,0.000,0.000
1644905254954813952,2022-02-15-06:07:34,10.1.1.7,31,-0.020,-0.020,-0.020,0.000,0.000,0.000
1644905255017489920,2022-02-15-06:07:35,10.1.1.7,38,-0.010,-0.010,-0.010,0.000,0.000,0.000
1644905255056231936,2022-02-15-06:07:35,10.1.1.7,27,0.000,0.000,0.000,0.000,0.000,0.000
1644905255115072000,2022-02-15-06:07:35,10.1.1.7,34,0.010,0.010,0.010,0.000,0.000,0.000
1644905255154968064,2022-02-15-06:07:35,10.1.1.7,24,0.020,0.020,0.020,0.000,0.000,0.000
1644905255215817984,2022-02-15-06:07:35,10.1.1.7,33,0.030,0.030,0.030,0.000,0.000,0.000
1644905255255270912,2022-02-15-06:07:35,10.1.1.7,21,0.040,0.040,0.040,0.000,0.000,0.000
1644905255315572992,2022-02-15-06:07:35,10.1.1.7,30,0.050,0.050,0.050,0.000,0.000,0.000
1644905255355123968,2022-02-15-06:07:35,10.1.1.7,19,0.060,0.060,0.060,0.000,0.000,0.000
1644905255415780096,2022-02-15-06:07:35,10.1.1.7,28,0.070,0.070,0.070,0.000,0.000,0.000
1644905255475230976,2022-02-15-06:07:35,10.1.1.7,38,0.080,0.080,0.080,0.000,0.000,0.000
1644905255514127872,2022-02-15-06:07:35,10.1.1.7,27,0.090,0.090,0.090,0.000,0.000,0.000
1644905255575258880,2022-02-15-06:07:35,10.1.1.7,37,0.100,0.100,0.100,0.000,0.000,0.000
1644905255614651904,2022-02-15-06:07:35,10.1.1.7,26,0.090,0.090,0.090,0.000,0.000,0.000
1644905255674909184,2022-02-15-06:07:35,10.1.1.7,35,0.080,0.080,0.080,0.000,0.000,0.000
1644905255720153088,2022-02-15-06:07:35,10.1.1.7,24,0.070,0.070,0.070,0.000,0.000,0.000
1644905255775979008,2022-02-15-06:07:35,10.1.1.7,33,0.060,0.060,0.060,0.000,0.000,0.000
1644905255814203136,2022-02-15-06:07:35,10.1.1.7,21,0.050,0.050,0.050,0.000,0.000,0.000
1644905255875183104,2022-02-15-06:07:35,10.1.1.7,30,0.040,0.040,0.040,0.000,0.000,0.000
1644905255915090176,2022-02-15-06:07:35,10.1.1.7,19,0.030,0.030,0.030,0.000,0.000,0.000
1644905255975023104,2022-02-15-06:07:35,10.1.1.7,28,0.020,0.020,0.020,0.000,0.000,0.000
1644905256035566080,2022-02-15-06:07:36,10.1.1.7,37,0.010,0.010,0.010,0.000,0.000,0.000
1644905256075053056,2022-02-15-06:07:36,10.1.1.7,26,0.000,0.000,0.000,0.000,0.000,0.000
1644905256134674176,2022-02-15-06:07:36,10.1.1.7,35,-0.010,-0.010,-0.010,0.000,0.000,0.000
1644905256174897920,2022-02-15-06:07:36,10.1.1.7,20,-0.020,-0.020,-0.020,0.000,0.000,0.000
1644905256235570944,2022-02-15-06:07:36,10.1.1.7,27,-0.030,-0.030,-0.030,0.000,0.000,0.000
1644905256294948096,2022-02-15-06:07:36,10.1.1.7,34,-0.040,-0.040,-0.040,0.000,0.000,0.000
1644905256335642112,2022-02-15-06:07:36,10.1.1.7,23,-0.050,-0.050,-0.050,0.000,0.000,0.000
1644905256394046976,2022-02-15-06:07:36,10.1.1.7,32,-0.060,-0.060,-0.060,0.000,0.000,0.000
1644905256437298176,2022-02-15-06:07:36,10.1.1.7,22,-0.070,-0.070,-0.070,0.000,0.000,0.000
1644905256494766080,2022-02-15-06:07:36,10.1.1.7,28,-0.080,-0.080,-0.080,0.000,0.000,0.000
1644905256559796992,2022-02-15-06:07:36,10.1.1.7,36,-0.090,-0.090,-0.090,0.000,0.000,0.000
1644905256618195968,2022-02-15-06:07:36,10.1.1.7,36,-0.100,-0.100,-0.100,0.000,0.000,0.000
1644905256654184960,2022-02-15-06:07:36,10.1.1.7,25,-0.090,-0.090,-0.090,0.000,0.000,0.000
1644905256714274816,2022-02-15-06:07:36,10.1.1.7,33,-0.080,-0.080,-0.080,0.000,0.000,0.000
1644905256754251008,2022-02-15-06:07:36,10.1.1.7,20,-0.070,-0.070,-0.070,0.000,0.000,0.000
1644905256814661888,2022-02-15-06:07:36,10.1.1.7,28,-0.060,-0.060,-0.060,0.000,0.000,0.000
1644905256874850048,2022-02-15-06:07:36,10.1.1.7,37,-0.050,-0.050,-0.050,0.000,0.000,0.000
1644905256914448896,2022-02-15-06:07:36,10.1.1.7,26,-0.040,-0.040,-0.040,0.000,0.000,0.000
1644905256975086848,2022-02-15-06:07:36,10.1.1.7,35,-0.030,-0.030,-0.030,0.000,0.000,0.000
1644905257014193920,2022-02-15-06:07:37,10.1.1.7,24,-0.020,-0.020,-0.020,0.000,0.000,0.000
1644905257077325056,2022-02-15-06:07:37,10.1.1.7,33,-0.010,-0.010,-0.010,0.000,0.000,0.000
1644905257114830080,2022-02-15-06:07:37,10.1.1.7,20,0.000,0.000,0.000,0.000,0.000,0.000
1644905257174263040,2022-02-15-06:07:37,10.1.1.7,29,0.010,0.010,0.010,0.000,0.000,0.000
1644905257235833856,2022-02-15-06:07:37,10.1.1.7,37,0.020,0.020,0.020,0.000,0.000,0.000
1644905257275102976,2022-02-15-06:07:37,10.1.1.7,26,0.030,0.030,0.030,0.000,0.000,0.000
1644905257334168064,2022-02-15-06:07:37,10.1.1.7,35,0.040,0.040,0.040,0.000,0.000,0.000
1644905257417960960,2022-02-15-06:07:37,10.1.1.7,36,0.050,0.050,0.050,0.000,0.000,0.000
1644905257454685952,2022-02-15-06:07:37,10.1.1.7,25,0.060,0.060,0.060,0.000,0.000,0.000
1644905257515422976,2022-02-15-06:07:37,10.1.1.7,32,0.070,0.070,0.070,0.000,0.000,0.000
1644905257575022848,2022-02-15-06:07:37,10.1.1.7,39,0.080,0.080,0.080,0.000,0.000,0.000
1644905257616518912,2022-02-15-06:07:37,10.1.1.7,28,0.090,0.090,0.090,0.000,0.000,0.000
1644905257676749824,2022-02-15-06:07:37,10.1.1.7,37,0.100,0.100,0.100,0.000,0.000,0.000
1644905257736627968,2022-02-15-06:07:37,10.1.1.7,34,0.090,0.090,0.090,0.000,0.000,0.000
1644905257796855808,2022-02-15-06:07:37,10.1.1.7,35,0.080,0.080,0.080,0.000,0.000,0.000
1644905257835339008,2022-02-15-06:07:37,10.1.1.7,20,0.070,0.070,0.070,0.000,0.000,0.000
1644905257896850176,2022-02-15-06:07:37,10.1.1.7,27,0.060,0.060,0.060,0.000,0.000,0.000
1644905257975613184,2022-02-15-06:07:37,10.1.1.7,27,0.050,0.050,0.050,0.000,0.000,0.000
1644905258035866112,2022-02-15-06:07:38,10.1.1.7,36,0.040,0.040,0.040,0.000,0.000,0.000
1644905258080861184,2022-02-15-06:07:38,10.1.1.7,26,0.030,0.030,0.030,0.000,0.000,0.000
1644905258134489088,2022-02-15-06:07:38,10.1.1.7,35,0.020,0.020,0.020,0.000,0.000,0.000
1644905258177684992,2022-02-15-06:07:38,10.1.1.7,25,0.010,0.010,0.010,0.000,0.000,0.000
1644905258235218176,2022-02-15-06:07:38,10.1.1.7,34,0.000,0.000,0.000,0.000,0.000,0.000
1644905258275293184,2022-02-15-06:07:38,10.1.1.7,23,-0.010,-0.010,-0.010,0.000,0.000,0.000
1644905258334449920,2022-02-15-06:07:38,10.1.1.7,29,-0.020,-0.020,-0.020,0.000,0.000,0.000
1644905258394622976,2022-02-15-06:07:38,10.1.1.7,37,-0.030,-0.030,-0.030,0.000,0.000,0.000
1644905258435368960,2022-02-15-06:07:38,10.1.1.7,25,-0.040,-0.040,-0.040,0.000,0.000,0.000
1644905258495717120,2022-02-15-06:07:38,10.1.1.7,34,-0.050,-0.050,-0.050,0.000,0.000,0.000
1644905258534779904,2022-02-15-06:07:38,10.1.1.7,22,-0.060,-0.060,-0.060,0.000,0.000,0.000
1644905258594449152,2022-02-15-06:07:38,10.1.1.7,31,-0.070,-0.070,-0.070,0.000,0.000,0.000
1644905258634886912,2022-02-15-06:07:38,10.1.1.7,20,-0.080,-0.080,-0.080,0.000,0.000,0.000
1644905258694262016,2022-02-15-06:07:38,10.1.1.7,29,-0.090,-0.090,-0.090,0.000,0.000,0.000
1644905258734883072,2022-02-15-06:07:38,10.1.1.7,19,-0.099,-0.099,-0.099,0.000,0.000,0.000
1644905258795898880,2022-02-15-06:07:38,10.1.1.7,29,-0.090,-0.090,-0.090,0.000,0.000,0.000
1644905258854608896,2022-02-15-06:07:38,10.1.1.7,38,-0.080,-0.080,-0.080,0.000,0.000,0.000
1644905258894972160,2022-02-15-06:07:38,10.1.1.7,27,-0.070,-0.070,-0.070,0.000,0.000,0.000
1644905258955211008,2022-02-15-06:07:38,10.1.1.7,37,-0.060,-0.060,-0.060,0.000,0.000,0.000
1644905258994512128,2022-02-15-06:07:38,10.1.1.7,26,-0.050,-0.050,-0.050,0.000,0.000,0.000
1644905259055340032,2022-02-15-06:07:39,10.1.1.7,36,-0.040,-0.040,-0.040,0.000,0.000,0.000
1644905259094464000,2022-02-15-06:07:39,10.1.1.7,25,-0.030,-0.030,-0.030,0.000,0.000,0.000
1644905259154764800,2022-02-15-06:07:39,10.1.1.7,35,-0.020,-0.020,-0.020,0.000,0.000,0.000
1644905259194420224,2022-02-15-06:07:39,10.1.1.7,24,-0.010,-0.010,-0.010,0.000,0.000,0.000
1644905259254393088,2022-02-15-06:07:39,10.1.1.7,34,0.000,0.000,0.000,0.000,0.000,0.000
1644905259294616832,2022-02-15-06:07:39,10.1.1.7,23,0.010,0.010,0.010,0.000,0.000,0.000
1644905259354083072,2022-02-15-06:07:39,10.1.1.7,33,0.020,0.020,0.020,0.000,0.000,0.000
1644905259394440960,2022-02-15-06:07:39,10.1.1.7,22,0.030,0.030,0.030,0.000,0.000,0.000
1644905259454482176,2022-02-15-06:07:39,10.1.1.7,31,0.040,0.040,0.040,0.000,0.000,0.000
1644905259494352128,2022-02-15-06:07:39,10.1.1.7,20,0.050,0.050,0.050,0.000,0.000,0.000
1644905259554981888,2022-02-15-06:07:39,10.1.1.7,29,0.060,0.060,0.060,0.000,0.000,0.000
1644905259615356928,2022-02-15-06:07:39,10.1.1.7,38,0.070,0.070,0.070,0.000,0.000,0.000
1644905259656375808,2022-02-15-06:07:39,10.1.1.7,26,0.080,0.080,0.080,0.000,0.000,0.000
1644905259714966016,2022-02-15-06:07:39,10.1.1.7,35,0.090,0.090,0.090,0.000,0.000,0.000
1644905259754524928,2022-02-15-06:07:39,10.1.1.7,24,0.100,0.100,0.100,0.000,0.000,0.000
1644905259813882112,2022-02-15-06:07:39,10.1.1.7,34,0.090,0.090,0.090,0.000,0.000,0.000
1644905259854208000,2022-02-15-06:07:39,10.1.1.7,23,0.080,0.080,0.080,0.000,0.000,0.000
1644905259914566912,2022-02-15-06:07:39,10.1.1.7,33,0.070,0.070,0.070,0.000,0.000,0.000
1644905259955606016,2022-02-15-06:07:39,10.1.1.7,20,0.060,0.060,0.060,0.000,0.000,0.000
1644905260015517952,2022-02-15-06:07:40,10.1.1.7,29,0.050,0.050,0.050,0.000,0.000,0.000
1644905260076869888,2022-02-15-06:07:40,10.1.1.7,34,0.040,0.040,0.040,0.000,0.000,0.000
1644905260175560960,2022-02-15-06:07:40,10.1.1.7,23,0.020,0.020,0.020,0.000,0.000,0.000
1644905260235235072,2022-02-15-06:07:40,10.1.1.7,31,0.010,0.010,0.010,0.000,0.000,0.000
1644905260274420992,2022-02-15-06:07:40,10.1.1.7,21,0.000,0.000,0.000,0.000,0.000,0.000
1644905260334615040,2022-02-15-06:07:40,10.1.1.7,29,-0.010,-0.010,-0.010,0.000,0.000,0.000
1644905260375403008,2022-02-15-06:07:40,10.1.1.7,19,-0.020,-0.020,-0.020,0.000,0.000,0.000
1644905260434269952,2022-02-15-06:07:40,10.1.1.7,26,-0.030,-0.030,-0.030,0.000,0.000,0.000
1644905260494347008,2022-02-15-06:07:40,10.1.1.7,34,-0.040,-0.040,-0.040,0.000,0.000,0.000
1644905260596090112,2022-02-15-06:07:40,10.1.1.7,31,-0.060,-0.060,-0.060,0.000,0.000,0.000
1644905260634866944,2022-02-15-06:07:40,10.1.1.7,20,-0.070,-0.070,-0.070,0.000,0.000,0.000
1644905260694699008,2022-02-15-06:07:40,10.1.1.7,29,-0.080,-0.080,-0.080,0.000,0.000,0.000
1644905260754394112,2022-02-15-06:07:40,10.1.1.7,39,-0.090,-0.090,-0.090,0.000,0.000,0.000
1644905260794362112,2022-02-15-06:07:40,10.1.1.7,28,-0.100,-0.100,-0.100,0.000,0.000,0.000
1644905260854585856,2022-02-15-06:07:40,10.1.1.7,37,-0.090,-0.090,-0.090,0.000,0.000,0.000
1644905260894575104,2022-02-15-06:07:40,10.1.1.7,26,-0.080,-0.080,-0.080,0.000,0.000,0.000
1644905260954757888,2022-02-15-06:07:40,10.1.1.7,35,-0.070,-0.070,-0.070,0.000,0.000,0.000
1644905260994859008,2022-02-15-06:07:40,10.1.1.7,25,-0.060,-0.060,-0.060,0.000,0.000,0.000
1644905261054331136,2022-02-15-06:07:41,10.1.1.7,34,-0.050,-0.050,-0.050,0.000,0.000,0.000
1644905261094886912,2022-02-15-06:07:41,10.1.1.7,22,-0.040,-0.040,-0.040,0.000,0.000,0.000
1644905261154220032,2022-02-15-06:07:41,10.1.1.7,31,-0.030,-0.030,-0.030,0.000,0.000,0.000
1644905261193846016,2022-02-15-06:07:41,10.1.1.7,20,-0.020,-0.020,-0.020,0.000,0.000,0.000
1644905261254898176,2022-02-15-06:07:41,10.1.1.7,30,-0.010,-0.010,-0.010,0.000,0.000,0.000
1644905261322437120,2022-02-15-06:07:41,10.1.1.7,38,0.000,0.000,0.000,0.000,0.000,0.000
1644905261354959872,2022-02-15-06:07:41,10.1.1.7,20,0.010,0.010,0.010,0.000,0.000,0.000
1644905261414226176,2022-02-15-06:07:41,10.1.1.7,29,0.020,0.020,0.020,0.000,0.000,0.000
1644905261454353920,2022-02-15-06:07:41,10.1.1.7,18,0.029,0.029,0.029,0.000,0.000,0.000
1644905261514600960,2022-02-15-06:07:41,10.1.1.7,28,0.040,0.040,0.040,0.000,0.000,0.000
1644905261574435072,2022-02-15-06:07:41,10.1.1.7,37,0.050,0.050,0.050,0.000,0.000,0.000
1644905261614579968,2022-02-15-06:07:41,10.1.1.7,26,0.060,0.060,0.060,0.000,0.000,0.000
1644905261674073088,2022-02-15-06:07:41,10.1.1.7,34,0.070,0.070,0.070,0.000,0.000,0.000
1644905261714375936,2022-02-15-06:07:41,10.1.1.7,22,0.080,0.080,0.080,0.000,0.000,0.000
1644905261774087936,2022-02-15-06:07:41,10.1.1.7,30,0.090,0.090,0.090,0.000,0.000,0.000
1644905261814521088,2022-02-15-06:07:41,10.1.1.7,19,0.099,0.099,0.099,0.000,0.000,0.000
1644905261875268096,2022-02-15-06:07:41,10.1.1.7,28,0.090,0.090,0.090,0.000,0.000,0.000
1644905261934161920,2022-02-15-06:07:41,10.1.1.7,37,0.080,0.080,0.080,0.000,0.000,0.000
1644905261973913856,2022-02-15-06:07:41,10.1.1.7,27,0.070,0.070,0.070,0.000,0.000,0.000
1644905262034627072,2022-02-15-06:07:42,10.1.1.7,36,0.060,0.060,0.060,0.000,0.000,0.000
1644905262074618112,2022-02-15-06:07:42,10.1.1.7,21,0.050,0.050,0.050,0.000,0.000,0.000
1644905262134664960,2022-02-15-06:07:42,10.1.1.7,31,0.040,0.040,0.040,0.000,0.000,0.000
1644905262174211072,2022-02-15-06:07:42,10.1.1.7,20,0.030,0.030,0.030,0.000,0.000,0.000
1644905262236995072,2022-02-15-06:07:42,10.1.1.7,30,0.020,0.020,0.020,0.000,0.000,0.000
1644905262275090944,2022-02-15-06:07:42,10.1.1.7,19,0.010,0.010,0.010,0.000,0.000,0.000
1644905262334621952,2022-02-15-06:07:42,10.1.1.7,29,0.000,0.000,0.000,0.000,0.000,0.000
1644905262394500096,2022-02-15-06:07:42,10.1.1.7,37,-0.010,-0.010,-0.010,0.000,0.000,0.000
1644905262435087872,2022-02-15-06:07:42,10.1.1.7,26,-0.020,-0.020,-0.020,0.000,0.000,0.000
1644905262494884096,2022-02-15-06:07:42,10.1.1.7,36,-0.030,-0.030,-0.030,0.000,0.000,0.000
1644905262534077952,2022-02-15-06:07:42,10.1.1.7,25,-0.040,-0.040,-0.040,0.000,0.000,0.000
1644905262594449920,2022-02-15-06:07:42,10.1.1.7,34,-0.050,-0.050,-0.050,0.000,0.000,0.000
1644905262634629120,2022-02-15-06:07:42,10.1.1.7,20,-0.060,-0.060,-0.060,0.000,0.000,0.000
1644905262695012096,2022-02-15-06:07:42,10.1.1.7,30,-0.070,-0.070,-0.070,0.000,0.000,0.000
1644905262754612992,2022-02-15-06:07:42,10.1.1.7,37,-0.080,-0.080,-0.080,0.000,0.000,0.000
1644905262794596864,2022-02-15-06:07:42,10.1.1.7,26,-0.090,-0.090,-0.090,0.000,0.000,0.000
1644905262854295040,2022-02-15-06:07:42,10.1.1.7,34,-0.100,-0.100,-0.100,0.000,0.000,0.000
1644905262894466048,2022-02-15-06:07:42,10.1.1.7,24,-0.090,-0.090,-0.090,0.000,0.000,0.000
1644905262954150912,2022-02-15-06:07:42,10.1.1.7,33,-0.080,-0.080,-0.080,0.000,0.000,0.000
1644905262994159872,2022-02-15-06:07:42,10.1.1.7,22,-0.070,-0.070,-0.070,0.000,0.000,0.000
1644905263054474240,2022-02-15-06:07:43,10.1.1.7,29,-0.060,-0.060,-0.060,0.000,0.000,0.000
1644905263114251008,2022-02-15-06:07:43,10.1.1.7,37,-0.050,-0.050,-0.050,0.000,0.000,0.000
1644905263155309056,2022-02-15-06:07:43,10.1.1.7,26,-0.040,-0.040,-0.040,0.000,0.000,0.000
1644905263215013888,2022-02-15-06:07:43,10.1.1.7,35,-0.030,-0.030,-0.030,0.000,0.000,0.000
1644905263254340864,2022-02-15-06:07:43,10.1.1.7,24,-0.020,-0.020,-0.020,0.000,0.000,0.000
1644905263313937920,2022-02-15-06:07:43,10.1.1.7,33,-0.010,-0.010,-0.010,0.000,0.000,0.000
1644905263354578944,2022-02-15-06:07:43,10.1.1.7,22,0.000,0.000,0.000,0.000,0.000,0.000
1644905263414725120,2022-02-15-06:07:43,10.1.1.7,32,0.010,0.010,0.010,0.000,0.000,0.000
1644905263455270912,2022-02-15-06:07:43,10.1.1.7,21,0.020,0.020,0.020,0.000,0.000,0.000
1644905263514905856,2022-02-15-06:07:43,10.1.1.7,27,0.030,0.030,0.030,0.000,0.000,0.000
1644905263574523904,2022-02-15-06:07:43,10.1.1.7,35,0.040,0.040,0.040,0.000,0.000,0.000
1644905263615570176,2022-02-15-06:07:43,10.1.1.7,25,0.050,0.050,0.050,0.000,0.000,0.000
1644905263675468032,2022-02-15-06:07:43,10.1.1.7,33,0.060,0.060,0.060,0.000,0.000,0.000
1644905263715872000,2022-02-15-06:07:43,10.1.1.7,19,0.069,0.069,0.069,0.000,0.000,0.000
1644905263837086976,2022-02-15-06:07:43,10.1.1.7,31,0.090,0.090,0.090,0.000,0.000,0.000
1644905263894702080,2022-02-15-06:07:43,10.1.1.7,37,0.100,0.100,0.100,0.000,0.000,0.000
1644905263936822784,2022-02-15-06:07:43,10.1.1.7,27,0.090,0.090,0.090,0.000,0.000,0.000
1644905263994595072,2022-02-15-06:07:43,10.1.1.7,34,0.080,0.080,0.080,0.000,0.000,0.000
1644905264035151104,2022-02-15-06:07:44,10.1.1.7,20,0.070,0.070,0.070,0.000,0.000,0.000
1644905264094324224,2022-02-15-06:07:44,10.1.1.7,29,0.060,0.060,0.060,0.000,0.000,0.000
1644905264156756992,2022-02-15-06:07:44,10.1.1.7,36,0.050,0.050,0.050,0.000,0.000,0.000
1644905264194732032,2022-02-15-06:07:44,10.1.1.7,25,0.040,0.040,0.040,0.000,0.000,0.000
1644905264257847040,2022-02-15-06:07:44,10.1.1.7,34,0.030,0.030,0.030,0.000,0.000,0.000
1644905264296103936,2022-02-15-06:07:44,10.1.1.7,23,0.020,0.020,0.020,0.000,0.000,0.000
1644905264354300928,2022-02-15-06:07:44,10.1.1.7,30,0.010,0.010,0.010,0.000,0.000,0.000
1644905264394843136,2022-02-15-06:07:44,10.1.1.7,20,0.000,0.000,0.000,0.000,0.000,0.000
1644905264455156992,2022-02-15-06:07:44,10.1.1.7,29,-0.010,-0.010,-0.010,0.000,0.000,0.000
1644905264494823936,2022-02-15-06:07:44,10.1.1.7,18,-0.019,-0.019,-0.019,0.000,0.000,0.000
1644905264554564096,2022-02-15-06:07:44,10.1.1.7,28,-0.030,-0.030,-0.030,0.000,0.000,0.000
1644905264614466048,2022-02-15-06:07:44,10.1.1.7,37,-0.040,-0.040,-0.040,0.000,0.000,0.000
1644905264655230976,2022-02-15-06:07:44,10.1.1.7,27,-0.050,-0.050,-0.050,0.000,0.000,0.000
1644905264715666944,2022-02-15-06:07:44,10.1.1.7,36,-0.060,-0.060,-0.060,0.000,0.000,0.000
1644905264754981120,2022-02-15-06:07:44,10.1.1.7,25,-0.070,-0.070,-0.070,0.000,0.000,0.000
1644905264815073024,2022-02-15-06:07:44,10.1.1.7,34,-0.080,-0.080,-0.080,0.000,0.000,0.000
1644905264855514112,2022-02-15-06:07:44,10.1.1.7,23,-0.090,-0.090,-0.090,0.000,0.000,0.000
1644905264915438848,2022-02-15-06:07:44,10.1.1.7,33,-0.100,-0.100,-0.100,0.000,0.000,0.000
1644905264955987968,2022-02-15-06:07:44,10.1.1.7,22,-0.090,-0.090,-0.090,0.000,0.000,0.000
1644905265019918848,2022-02-15-06:07:45,10.1.1.7,32,-0.080,-0.080,-0.080,0.000,0.000,0.000
1644905265055607040,2022-02-15-06:07:45,10.1.1.7,21,-0.070,-0.070,-0.070,0.000,0.000,0.000
1644905265157165056,2022-02-15-06:07:45,10.1.1.7,19,-0.050,-0.050,-0.050,0.000,0.000,0.000
1644905265214308864,2022-02-15-06:07:45,10.1.1.7,27,-0.040,-0.040,-0.040,0.000,0.000,0.000
1644905265274056960,2022-02-15-06:07:45,10.1.1.7,35,-0.030,-0.030,-0.030,0.000,0.000,0.000
1644905265314317824,2022-02-15-06:07:45,10.1.1.7,24,-0.020,-0.020,-0.020,0.000,0.000,0.000
1644905265375313920,2022-02-15-06:07:45,10.1.1.7,33,-0.010,-0.010,-0.010,0.000,0.000,0.000
1644905265416680192,2022-02-15-06:07:45,10.1.1.7,23,0.000,0.000,0.000,0.000,0.000,0.000
1644905265480078848,2022-02-15-06:07:45,10.1.1.7,29,0.010,0.010,0.010,0.000,0.000,0.000
1644905265534187008,2022-02-15-06:07:45,10.1.1.7,39,0.020,0.020,0.020,0.000,0.000,0.000
1644905265574548992,2022-02-15-06:07:45,10.1.1.7,28,0.030,0.030,0.030,0.000,0.000,0.000
1644905265635140864,2022-02-15-06:07:45,10.1.1.7,37,0.040,0.040,0.040,0.000,0.000,0.000
1644905265674892032,2022-02-15-06:07:45,10.1.1.7,25,0.050,0.050,0.050,0.000,0.000,0.000
1644905265735148032,2022-02-15-06:07:45,10.1.1.7,34,0.060,0.060,0.060,0.000,0.000,0.000
1644905265774755840,2022-02-15-06:07:45,10.1.1.7,23,0.070,0.070,0.070,0.000,0.000,0.000
1644905265836414208,2022-02-15-06:07:45,10.1.1.7,33,0.080,0.080,0.080,0.000,0.000,0.000
1644905265877577984,2022-02-15-06:07:45,10.1.1.7,22,0.090,0.090,0.090,0.000,0.000,0.000
1644905265936445952,2022-02-15-06:07:45,10.1.1.7,32,0.100,0.100,0.100,0.000,0.000,0.000
1644905265975756032,2022-02-15-06:07:45,10.1.1.7,20,0.090,0.090,0.090,0.000,0.000,0.000
1644905266035168768,2022-02-15-06:07:46,10.1.1.7,29,0.080,0.080,0.080,0.000,0.000,0.000
1644905266075054848,2022-02-15-06:07:46,10.1.1.7,19,0.071,0.071,0.071,0.000,0.000,0.000
1644905266135000064,2022-02-15-06:07:46,10.1.1.7,28,0.060,0.060,0.060,0.000,0.000,0.000
1644905266195619072,2022-02-15-06:07:46,10.1.1.7,38,0.050,0.050,0.050,0.000,0.000,0.000
1644905266234816000,2022-02-15-06:07:46,10.1.1.7,27,0.040,0.040,0.040,0.000,0.000,0.000
1644905266295141888,2022-02-15-06:07:46,10.1.1.7,37,0.030,0.030,0.030,0.000,0.000,0.000
1644905266334664192,2022-02-15-06:07:46,10.1.1.7,25,0.020,0.020,0.020,0.000,0.000,0.000
1644905266395500800,2022-02-15-06:07:46,10.1.1.7,34,0.010,0.010,0.010,0.000,0.000,0.000
1644905266435888128,2022-02-15-06:07:46,10.1.1.7,21,0.000,0.000,0.000,0.000,0.000,0.000
1644905266494491136,2022-02-15-06:07:46,10.1.1.7,30,-0.010,-0.010,-0.010,0.000,0.000,0.000
1644905266594343936,2022-02-15-06:07:46,10.1.1.7,26,-0.030,-0.030,-0.030,0.000,0.000,0.000
1644905266654274048,2022-02-15-06:07:46,10.1.1.7,33,-0.040,-0.040,-0.040,0.000,0.000,0.000
1644905266694886912,2022-02-15-06:07:46,10.1.1.7,19,-0.049,-0.049,-0.049,0.000,0.000,0.000
1644905266754285056,2022-02-15-06:07:46,10.1.1.7,27,-0.060,-0.060,-0.060,0.000,0.000,0.000
1644905266814349056,2022-02-15-06:07:46,10.1.1.7,36,-0.070,-0.070,-0.070,0.000,0.000,0.000
1644905266854640896,2022-02-15-06:07:46,10.1.1.7,25,-0.080,-0.080,-0.080,0.000,0.000,0.000
1644905266915132928,2022-02-15-06:07:46,10.1.1.7,33,-0.090,-0.090,-0.090,0.000,0.000,0.000
1644905266954452992,2022-02-15-06:07:46,10.1.1.7,20,-0.100,-0.100,-0.100,0.000,0.000,0.000
1644905267014942976,2022-02-15-06:07:47,10.1.1.7,28,-0.090,-0.090,-0.090,0.000,0.000,0.000
1644905267074831104,2022-02-15-06:07:47,10.1.1.7,36,-0.080,-0.080,-0.080,0.000,0.000,0.000
1644905267114603008,2022-02-15-06:07:47,10.1.1.7,24,-0.070,-0.070,-0.070,0.000,0.000,0.000
1644905267174515968,2022-02-15-06:07:47,10.1.1.7,34,-0.060,-0.060,-0.060,0.000,0.000,0.000
1644905267214575104,2022-02-15-06:07:47,10.1.1.7,20,-0.050,-0.050,-0.050,0.000,0.000,0.000
1644905267275187968,2022-02-15-06:07:47,10.1.1.7,28,-0.040,-0.040,-0.040,0.000,0.000,0.000
1644905267335348992,2022-02-15-06:07:47,10.1.1.7,36,-0.030,-0.030,-0.030,0.000,0.000,0.000
1644905267375190016,2022-02-15-06:07:47,10.1.1.7,25,-0.020,-0.020,-0.020,0.000,0.000,0.000
1644905267434697984,2022-02-15-06:07:47,10.1.1.7,34,-0.010,-0.010,-0.010,0.000,0.000,0.000
1644905267474576896,2022-02-15-06:07:47,10.1.1.7,23,0.000,0.000,0.000,0.000,0.000,0.000
1644905267534408192,2022-02-15-06:07:47,10.1.1.7,32,0.010,0.010,0.010,0.000,0.000,0.000
1644905267574430976,2022-02-15-06:07:47,10.1.1.7,22,0.020,0.020,0.020,0.000,0.000,0.000
1644905267635406848,2022-02-15-06:07:47,10.1.1.7,31,0.030,0.030,0.030,0.000,0.000,0.000
1644905267675441152,2022-02-15-06:07:47,10.1.1.7,20,0.040,0.040,0.040,0.000,0.000,0.000
1644905267734540032,2022-02-15-06:07:47,10.1.1.7,29,0.050,0.050,0.050,0.000,0.000,0.000
1644905267795001088,2022-02-15-06:07:47,10.1.1.7,38,0.060,0.060,0.060,0.000,0.000,0.000
1644905267834999040,2022-02-15-06:07:47,10.1.1.7,26,0.070,0.070,0.070,0.000,0.000,0.000
1644905267894929920,2022-02-15-06:07:47,10.1.1.7,35,0.080,0.080,0.080,0.000,0.000,0.000
1644905267934902016,2022-02-15-06:07:47,10.1.1.7,24,0.090,0.090,0.090,0.000,0.000,0.000
1644905267994554112,2022-02-15-06:07:47,10.1.1.7,33,0.100,0.100,0.100,0.000,0.000,0.000
1644905268034732032,2022-02-15-06:07:48,10.1.1.7,20,0.090,0.090,0.090,0.000,0.000,0.000
1644905268094529024,2022-02-15-06:07:48,10.1.1.7,28,0.080,0.080,0.080,0.000,0.000,0.000
1644905268154767872,2022-02-15-06:07:48,10.1.1.7,37,0.070,0.070,0.070,0.000,0.000,0.000
1644905268195472128,2022-02-15-06:07:48,10.1.1.7,26,0.060,0.060,0.060,0.000,0.000,0.000
1644905268255446016,2022-02-15-06:07:48,10.1.1.7,34,0.050,0.050,0.050,0.000,0.000,0.000
1644905268294430976,2022-02-15-06:07:48,10.1.1.7,19,0.040,0.040,0.040,0.000,0.000,0.000
1644905268354235904,2022-02-15-06:07:48,10.1.1.7,29,0.030,0.030,0.030,0.000,0.000,0.000
1644905268415291136,2022-02-15-06:07:48,10.1.1.7,37,0.020,0.020,0.020,0.000,0.000,0.000
1644905268455111936,2022-02-15-06:07:48,10.1.1.7,25,0.010,0.010,0.010,0.000,0.000,0.000
1644905268514713088,2022-02-15-06:07:48,10.1.1.7,35,0.000,0.000,0.000,0.000,0.000,0.000
1644905268554739968,2022-02-15-06:07:48,10.1.1.7,24,-0.010,-0.010,-0.010,0.000,0.000,0.000
1644905268614387968,2022-02-15-06:07:48,10.1.1.7,33,-0.020,-0.020,-0.020,0.000,0.000,0.000
1644905268654793984,2022-02-15-06:07:48,10.1.1.7,21,-0.030,-0.030,-0.030,0.000,0.000,0.000
1644905268714975232,2022-02-15-06:07:48,10.1.1.7,30,-0.040,-0.040,-0.040,0.000,0.000,0.000
1644905268755486976,2022-02-15-06:07:48,10.1.1.7,19,-0.049,-0.049,-0.049,0.000,0.000,0.000
1644905268816164864,2022-02-15-06:07:48,10.1.1.7,28,-0.060,-0.060,-0.060,0.000,0.000,0.000
1644905268876452864,2022-02-15-06:07:48,10.1.1.7,37,-0.070,-0.070,-0.070,0.000,0.000,0.000
1644905268916214016,2022-02-15-06:07:48,10.1.1.7,26,-0.080,-0.080,-0.080,0.000,0.000,0.000
1644905268975687936,2022-02-15-06:07:48,10.1.1.7,35,-0.090,-0.090,-0.090,0.000,0.000,0.000
1644905269016993024,2022-02-15-06:07:49,10.1.1.7,24,-0.100,-0.100,-0.100,0.000,0.000,0.000
1644905269074950912,2022-02-15-06:07:49,10.1.1.7,34,-0.090,-0.090,-0.090,0.000,0.000,0.000
1644905269115600128,2022-02-15-06:07:49,10.1.1.7,20,-0.080,-0.080,-0.080,0.000,0.000,0.000
1644905269176775936,2022-02-15-06:07:49,10.1.1.7,29,-0.070,-0.070,-0.070,0.000,0.000,0.000
1644905269235280128,2022-02-15-06:07:49,10.1.1.7,36,-0.060,-0.060,-0.060,0.000,0.000,0.000
1644905269275546112,2022-02-15-06:07:49,10.1.1.7,25,-0.050,-0.050,-0.050,0.000,0.000,0.000
1644905269334952960,2022-02-15-06:07:49,10.1.1.7,33,-0.040,-0.040,-0.040,0.000,0.000,0.000
1644905269376326912,2022-02-15-06:07:49,10.1.1.7,22,-0.030,-0.030,-0.030,0.000,0.000,0.000
1644905269435563008,2022-02-15-06:07:49,10.1.1.7,31,-0.020,-0.020,-0.020,0.000,0.000,0.000
1644905269474415104,2022-02-15-06:07:49,10.1.1.7,20,-0.010,-0.010,-0.010,0.000,0.000,0.000
1644905269534821888,2022-02-15-06:07:49,10.1.1.7,30,0.000,0.000,0.000,0.000,0.000,0.000
1644905269577406976,2022-02-15-06:07:49,10.1.1.7,19,0.009,0.009,0.009,0.000,0.000,0.000
1644905269636368128,2022-02-15-06:07:49,10.1.1.7,26,0.020,0.020,0.020,0.000,0.000,0.000
1644905269695357184,2022-02-15-06:07:49,10.1.1.7,32,0.030,0.030,0.030,0.000,0.000,0.000
1644905269734855936,2022-02-15-06:07:49,10.1.1.7,20,0.040,0.040,0.040,0.000,0.000,0.000
1644905269794679040,2022-02-15-06:07:49,10.1.1.7,29,0.050,0.050,0.050,0.000,0.000,0.000
1644905269856420096,2022-02-15-06:07:49,10.1.1.7,36,0.060,0.060,0.060,0.000,0.000,0.000
1644905269894160128,2022-02-15-06:07:49,10.1.1.7,24,0.070,0.070,0.070,0.000,0.000,0.000
1644905269954867968,2022-02-15-06:07:49,10.1.1.7,33,0.080,0.080,0.080,0.000,0.000,0.000
1644905269999159040,2022-02-15-06:07:49,10.1.1.7,21,0.090,0.090,0.090,0.000,0.000,0.000
1644905270055892992,2022-02-15-06:07:50,10.1.1.7,29,0.100,0.100,0.100,0.000,0.000,0.000
1644905270115863040,2022-02-15-06:07:50,10.1.1.7,37,0.090,0.090,0.090,0.000,0.000,0.000
1644905270155949056,2022-02-15-06:07:50,10.1.1.7,25,0.080,0.080,0.080,0.000,0.000,0.000
1644905270215478016,2022-02-15-06:07:50,10.1.1.7,34,0.070,0.070,0.070,0.000,0.000,0.000
1644905270256359936,2022-02-15-06:07:50,10.1.1.7,20,0.060,0.060,0.060,0.000,0.000,0.000
1644905270314838784,2022-02-15-06:07:50,10.1.1.7,29,0.050,0.050,0.050,0.000,0.000,0.000
1644905270355034112,2022-02-15-06:07:50,10.1.1.7,19,0.041,0.041,0.041,0.000,0.000,0.000
1644905270416753920,2022-02-15-06:07:50,10.1.1.7,28,0.030,0.030,0.030,0.000,0.000,0.000
1644905270475737088,2022-02-15-06:07:50,10.1.1.7,37,0.020,0.020,0.020,0.000,0.000,0.000
1644905270514473984,2022-02-15-06:07:50,10.1.1.7,26,0.010,0.010,0.010,0.000,0.000,0.000
1644905270575382016,2022-02-15-06:07:50,10.1.1.7,35,0.000,0.000,0.000,0.000,0.000,0.000
1644905270616463872,2022-02-15-06:07:50,10.1.1.7,24,-0.010,-0.010,-0.010,0.000,0.000,0.000
1644905270675589120,2022-02-15-06:07:50,10.1.1.7,32,-0.020,-0.020,-0.020,0.000,0.000,0.000
1644905270714342144,2022-02-15-06:07:50,10.1.1.7,19,-0.030,-0.030,-0.030,0.000,0.000,0.000
1644905270774818048,2022-02-15-06:07:50,10.1.1.7,29,-0.040,-0.040,-0.040,0.000,0.000,0.000
1644905270837897984,2022-02-15-06:07:50,10.1.1.7,37,-0.050,-0.050,-0.050,0.000,0.000,0.000
1644905270875778048,2022-02-15-06:07:50,10.1.1.7,27,-0.060,-0.060,-0.060,0.000,0.000,0.000
1644905270936142848,2022-02-15-06:07:50,10.1.1.7,36,-0.070,-0.070,-0.070,0.000,0.000,0.000
1644905270974624000,2022-02-15-06:07:50,10.1.1.7,25,-0.080,-0.080,-0.080,0.000,0.000,0.000
1644905271035190016,2022-02-15-06:07:51,10.1.1.7,33,-0.090,-0.090,-0.090,0.000,0.000,0.000
1644905271074733056,2022-02-15-06:07:51,10.1.1.7,22,-0.100,-0.100,-0.100,0.000,0.000,0.000
1644905271135504896,2022-02-15-06:07:51,10.1.1.7,31,-0.090,-0.090,-0.090,0.000,0.000,0.000
1644905271175192064,2022-02-15-06:07:51,10.1.1.7,20,-0.080,-0.080,-0.080,0.000,0.000,0.000
1644905271236336896,2022-02-15-06:07:51,10.1.1.7,29,-0.070,-0.070,-0.070,0.000,0.000,0.000
1644905271275706112,2022-02-15-06:07:51,10.1.1.7,19,-0.061,-0.061,-0.061,0.000,0.000,0.000
1644905271334507008,2022-02-15-06:07:51,10.1.1.7,28,-0.050,-0.050,-0.050,0.000,0.000,0.000
1644905271394450944,2022-02-15-06:07:51,10.1.1.7,37,-0.040,-0.040,-0.040,0.000,0.000,0.000
1644905271434170880,2022-02-15-06:07:51,10.1.1.7,25,-0.030,-0.030,-0.030,0.000,0.000,0.000
1644905271494479872,2022-02-15-06:07:51,10.1.1.7,34,-0.020,-0.020,-0.020,0.000,0.000,0.000
1644905271534624000,2022-02-15-06:07:51,10.1.1.7,23,-0.010,-0.010,-0.010,0.000,0.000,0.000
1644905271594619904,2022-02-15-06:07:51,10.1.1.7,32,0.000,0.000,0.000,0.000,0.000,0.000
1644905271635341056,2022-02-15-06:07:51,10.1.1.7,20,0.010,0.010,0.010,0.000,0.000,0.000
1644905271694524928,2022-02-15-06:07:51,10.1.1.7,25,0.020,0.020,0.020,0.000,0.000,0.000
1644905271754620160,2022-02-15-06:07:51,10.1.1.7,34,0.030,0.030,0.030,0.000,0.000,0.000
1644905271795005184,2022-02-15-06:07:51,10.1.1.7,23,0.040,0.040,0.040,0.000,0.000,0.000
1644905271854567936,2022-02-15-06:07:51,10.1.1.7,32,0.050,0.050,0.050,0.000,0.000,0.000
1644905271895458048,2022-02-15-06:07:51,10.1.1.7,22,0.060,0.060,0.060,0.000,0.000,0.000
1644905271955607040,2022-02-15-06:07:51,10.1.1.7,31,0.070,0.070,0.070,0.000,0.000,0.000
1644905271994455040,2022-02-15-06:07:51,10.1.1.7,20,0.080,0.080,0.080,0.000,0.000,0.000
1644905272055060992,2022-02-15-06:07:52,10.1.1.7,29,0.090,0.090,0.090,0.000,0.000,0.000
1644905272114740992,2022-02-15-06:07:52,10.1.1.7,38,0.100,0.100,0.100,0.000,0.000,0.000
1644905272154712064,2022-02-15-06:07:52,10.1.1.7,26,0.090,0.090,0.090,0.000,0.000,0.000
1644905272214376960,2022-02-15-06:07:52,10.1.1.7,35,0.080,0.080,0.080,0.000,0.000,0.000
1644905272254318080,2022-02-15-06:07:52,10.1.1.7,21,0.070,0.070,0.070,0.000,0.000,0.000
1644905272314481920,2022-02-15-06:07:52,10.1.1.7,30,0.060,0.060,0.060,0.000,0.000,0.000
1644905272354583040,2022-02-15-06:07:52,10.1.1.7,19,0.050,0.050,0.050,0.000,0.000,0.000
1644905272414678016,2022-02-15-06:07:52,10.1.1.7,28,0.040,0.040,0.040,0.000,0.000,0.000
1644905272475054080,2022-02-15-06:07:52,10.1.1.7,37,0.030,0.030,0.030,0.000,0.000,0.000
1644905272514787840,2022-02-15-06:07:52,10.1.1.7,25,0.020,0.020,0.020,0.000,0.000,0.000
1644905272575369984,2022-02-15-06:07:52,10.1.1.7,34,0.010,0.010,0.010,0.000,0.000,0.000
1644905272616272896,2022-02-15-06:07:52,10.1.1.7,24,0.000,0.000,0.000,0.000,0.000,0.000
1644905272674544128,2022-02-15-06:07:52,10.1.1.7,33,-0.010,-0.010,-0.010,0.000,0.000,0.000
1644905272715016960,2022-02-15-06:07:52,10.1.1.7,23,-0.020,-0.020,-0.020,0.000,0.000,0.000
1644905272775417088,2022-02-15-06:07:52,10.1.1.7,32,-0.030,-0.030,-0.030,0.000,0.000,0.000
1644905272815526912,2022-02-15-06:07:52,10.1.1.7,21,-0.040,-0.040,-0.040,0.000,0.000,0.000
1644905272875216128,2022-02-15-06:07:52,10.1.1.7,31,-0.050,-0.050,-0.050,0.000,0.000,0.000
1644905272916615936,2022-02-15-06:07:52,10.1.1.7,20,-0.060,-0.060,-0.060,0.000,0.000,0.000
1644905272974684928,2022-02-15-06:07:52,10.1.1.7,29,-0.070,-0.070,-0.070,0.000,0.000,0.000
1644905273036763904,2022-02-15-06:07:53,10.1.1.7,37,-0.080,-0.080,-0.080,0.000,0.000,0.000
1644905273074448128,2022-02-15-06:07:53,10.1.1.7,26,-0.090,-0.090,-0.090,0.000,0.000,0.000
1644905273134157056,2022-02-15-06:07:53,10.1.1.7,36,-0.100,-0.100,-0.100,0.000,0.000,0.000
1644905273174809088,2022-02-15-06:07:53,10.1.1.7,25,-0.090,-0.090,-0.090,0.000,0.000,0.000
1644905273235657984,2022-02-15-06:07:53,10.1.1.7,34,-0.080,-0.080,-0.080,0.000,0.000,0.000
1644905273275091968,2022-02-15-06:07:53,10.1.1.7,21,-0.070,-0.070,-0.070,0.000,0.000,0.000
1644905273335614976,2022-02-15-06:07:53,10.1.1.7,30,-0.060,-0.060,-0.060,0.000,0.000,0.000
1644905273395695872,2022-02-15-06:07:53,10.1.1.7,39,-0.050,-0.050,-0.050,0.000,0.000,0.000
1644905273435986944,2022-02-15-06:07:53,10.1.1.7,27,-0.040,-0.040,-0.040,0.000,0.000,0.000
1644905273496001024,2022-02-15-06:07:53,10.1.1.7,36,-0.030,-0.030,-0.030,0.000,0.000,0.000
1644905273555272192,2022-02-15-06:07:53,10.1.1.7,37,-0.020,-0.020,-0.020,0.000,0.000,0.000
1644905273600392192,2022-02-15-06:07:53,10.1.1.7,27,-0.010,-0.010,-0.010,0.000,0.000,0.000
1644905273656965120,2022-02-15-06:07:53,10.1.1.7,31,0.000,0.000,0.000,0.000,0.000,0.000
1644905273694983936,2022-02-15-06:07:53,10.1.1.7,20,0.010,0.010,0.010,0.000,0.000,0.000
1644905273754426880,2022-02-15-06:07:53,10.1.1.7,30,0.020,0.020,0.020,0.000,0.000,0.000
1644905273794373888,2022-02-15-06:07:53,10.1.1.7,20,0.030,0.030,0.030,0.000,0.000,0.000
1644905273854455040,2022-02-15-06:07:53,10.1.1.7,29,0.040,0.040,0.040,0.000,0.000,0.000
1644905273895390976,2022-02-15-06:07:53,10.1.1.7,19,0.049,0.049,0.049,0.000,0.000,0.000
1644905273954807040,2022-02-15-06:07:53,10.1.1.7,28,0.060,0.060,0.060,0.000,0.000,0.000
1644905274014535936,2022-02-15-06:07:54,10.1.1.7,38,0.070,0.070,0.070,0.000,0.000,0.000
1644905274054002944,2022-02-15-06:07:54,10.1.1.7,25,0.080,0.080,0.080,0.000,0.000,0.000
1644905274114695168,2022-02-15-06:07:54,10.1.1.7,34,0.090,0.090,0.090,0.000,0.000,0.000
1644905274154573056,2022-02-15-06:07:54,10.1.1.7,24,0.100,0.100,0.100,0.000,0.000,0.000
1644905274215239936,2022-02-15-06:07:54,10.1.1.7,33,0.090,0.090,0.090,0.000,0.000,0.000
1644905274254971136,2022-02-15-06:07:54,10.1.1.7,20,0.080,0.080,0.080,0.000,0.000,0.000
1644905274314460160,2022-02-15-06:07:54,10.1.1.7,30,0.070,0.070,0.070,0.000,0.000,0.000
1644905274354801920,2022-02-15-06:07:54,10.1.1.7,19,0.061,0.061,0.061,0.000,0.000,0.000
1644905274414769920,2022-02-15-06:07:54,10.1.1.7,28,0.050,0.050,0.050,0.000,0.000,0.000
1644905274474771968,2022-02-15-06:07:54,10.1.1.7,37,0.040,0.040,0.040,0.000,0.000,0.000
1644905274515152896,2022-02-15-06:07:54,10.1.1.7,27,0.030,0.030,0.030,0.000,0.000,0.000
1644905274574693888,2022-02-15-06:07:54,10.1.1.7,36,0.020,0.020,0.020,0.000,0.000,0.000
1644905274615390976,2022-02-15-06:07:54,10.1.1.7,26,0.010,0.010,0.010,0.000,0.000,0.000
1644905274675303936,2022-02-15-06:07:54,10.1.1.7,29,0.000,0.000,0.000,0.000,0.000,0.000
1644905274736294912,2022-02-15-06:07:54,10.1.1.7,36,-0.010,-0.010,-0.010,0.000,0.000,0.000
1644905274774557952,2022-02-15-06:07:54,10.1.1.7,25,-0.020,-0.020,-0.020,0.000,0.000,0.000
1644905274834914816,2022-02-15-06:07:54,10.1.1.7,34,-0.030,-0.030,-0.030,0.000,0.000,0.000
1644905274874792192,2022-02-15-06:07:54,10.1.1.7,22,-0.040,-0.040,-0.040,0.000,0.000,0.000
1644905274934781184,2022-02-15-06:07:54,10.1.1.7,31,-0.050,-0.050,-0.050,0.000,0.000,0.000
1644905274974333952,2022-02-15-06:07:54,10.1.1.7,20,-0.060,-0.060,-0.060,0.000,0.000,0.000
1644905275034313984,2022-02-15-06:07:55,10.1.1.7,30,-0.070,-0.070,-0.070,0.000,0.000,0.000
1644905275074599936,2022-02-15-06:07:55,10.1.1.7,19,-0.080,-0.080,-0.080,0.000,0.000,0.000
1644905275134217984,2022-02-15-06:07:55,10.1.1.7,29,-0.090,-0.090,-0.090,0.000,0.000,0.000
1644905275194214144,2022-02-15-06:07:55,10.1.1.7,38,-0.100,-0.100,-0.100,0.000,0.000,0.000
1644905275234546944,2022-02-15-06:07:55,10.1.1.7,27,-0.090,-0.090,-0.090,0.000,0.000,0.000
1644905275294641920,2022-02-15-06:07:55,10.1.1.7,36,-0.080,-0.080,-0.080,0.000,0.000,0.000
1644905275334481920,2022-02-15-06:07:55,10.1.1.7,26,-0.070,-0.070,-0.070,0.000,0.000,0.000
1644905275394352896,2022-02-15-06:07:55,10.1.1.7,35,-0.060,-0.060,-0.060,0.000,0.000,0.000
1644905275434198016,2022-02-15-06:07:55,10.1.1.7,24,-0.050,-0.050,-0.050,0.000,0.000,0.000
1644905275494384128,2022-02-15-06:07:55,10.1.1.7,33,-0.040,-0.040,-0.040,0.000,0.000,0.000
1644905275534347008,2022-02-15-06:07:55,10.1.1.7,22,-0.030,-0.030,-0.030,0.000,0.000,0.000
1644905275594316032,2022-02-15-06:07:55,10.1.1.7,32,-0.020,-0.020,-0.020,0.000,0.000,0.000
1644905275634337792,2022-02-15-06:07:55,10.1.1.7,21,-0.010,-0.010,-0.010,0.000,0.000,0.000
1644905275694699008,2022-02-15-06:07:55,10.1.1.7,28,0.000,0.000,0.000,0.000,0.000,0.000
1644905275754728192,2022-02-15-06:07:55,10.1.1.7,37,0.010,0.010,0.010,0.000,0.000,0.000
1644905275794563072,2022-02-15-06:07:55,10.1.1.7,26,0.020,0.020,0.020,0.000,0.000,0.000
1644905275854247936,2022-02-15-06:07:55,10.1.1.7,35,0.030,0.030,0.030,0.000,0.000,0.000
1644905275895219200,2022-02-15-06:07:55,10.1.1.7,24,0.040,0.040,0.040,0.000,0.000,0.000
1644905275954770944,2022-02-15-06:07:55,10.1.1.7,33,0.050,0.050,0.050,0.000,0.000,0.000
1644905275994477056,2022-02-15-06:07:55,10.1.1.7,21,0.060,0.060,0.060,0.000,0.000,0.000
1644905276054029056,2022-02-15-06:07:56,10.1.1.7,30,0.070,0.070,0.070,0.000,0.000,0.000
1644905276116357120,2022-02-15-06:07:56,10.1.1.7,37,0.080,0.080,0.080,0.000,0.000,0.000
1644905276154896128,2022-02-15-06:07:56,10.1.1.7,26,0.090,0.090,0.090,0.000,0.000,0.000
1644905276214971136,2022-02-15-06:07:56,10.1.1.7,34,0.100,0.100,0.100,0.000,0.000,0.000
1644905276258475008,2022-02-15-06:07:56,10.1.1.7,23,0.090,0.090,0.090,0.000,0.000,0.000
1644905276315237120,2022-02-15-06:07:56,10.1.1.7,27,0.080,0.080,0.080,0.000,0.000,0.000
1644905276376583168,2022-02-15-06:07:56,10.1.1.7,33,0.070,0.070,0.070,0.000,0.000,0.000
1644905276414521088,2022-02-15-06:07:56,10.1.1.7,20,0.060,0.060,0.060,0.000,0.000,0.000
1644905276474270208,2022-02-15-06:07:56,10.1.1.7,19,0.050,0.050,0.050,0.000,0.000,0.000
1644905276534077952,2022-02-15-06:07:56,10.1.1.7,29,0.040,0.040,0.040,0.000,0.000,0.000
1644905276594465024,2022-02-15-06:07:56,10.1.1.7,38,0.030,0.030,0.030,0.000,0.000,0.000
1644905276635042048,2022-02-15-06:07:56,10.1.1.7,28,0.020,0.020,0.020,0.000,0.000,0.000
1644905276695451136,2022-02-15-06:07:56,10.1.1.7,37,0.010,0.010,0.010,0.000,0.000,0.000
1644905276735534080,2022-02-15-06:07:56,10.1.1.7,26,0.000,0.000,0.000,0.000,0.000,0.000
1644905276794554880,2022-02-15-06:07:56,10.1.1.7,35,-0.010,-0.010,-0.010,0.000,0.000,0.000
1644905276835249920,2022-02-15-06:07:56,10.1.1.7,23,-0.020,-0.020,-0.020,0.000,0.000,0.000
1644905276894226176,2022-02-15-06:07:56,10.1.1.7,32,-0.030,-0.030,-0.030,0.000,0.000,0.000
1644905276935273984,2022-02-15-06:07:56,10.1.1.7,22,-0.040,-0.040,-0.040,0.000,0.000,0.000
1644905276994905856,2022-02-15-06:07:56,10.1.1.7,30,-0.050,-0.050,-0.050,0.000,0.000,0.000
1644905277034813952,2022-02-15-06:07:57,10.1.1.7,20,-0.060,-0.060,-0.060,0.000,0.000,0.000
1644905277095043840,2022-02-15-06:07:57,10.1.1.7,29,-0.070,-0.070,-0.070,0.000,0.000,0.000
1644905277156583936,2022-02-15-06:07:57,10.1.1.7,38,-0.080,-0.080,-0.080,0.000,0.000,0.000
1644905277194765056,2022-02-15-06:07:57,10.1.1.7,28,-0.090,-0.090,-0.090,0.000,0.000,0.000
1644905277254853120,2022-02-15-06:07:57,10.1.1.7,37,-0.100,-0.100,-0.100,0.000,0.000,0.000
1644905277294673920,2022-02-15-06:07:57,10.1.1.7,26,-0.090,-0.090,-0.090,0.000,0.000,0.000
1644905277354942976,2022-02-15-06:07:57,10.1.1.7,35,-0.080,-0.080,-0.080,0.000,0.000,0.000
1644905277394726144,2022-02-15-06:07:57,10.1.1.7,24,-0.070,-0.070,-0.070,0.000,0.000,0.000
1644905277455568128,2022-02-15-06:07:57,10.1.1.7,33,-0.060,-0.060,-0.060,0.000,0.000,0.000
1644905277494756864,2022-02-15-06:07:57,10.1.1.7,23,-0.050,-0.050,-0.050,0.000,0.000,0.000
1644905277553960960,2022-02-15-06:07:57,10.1.1.7,32,-0.040,-0.040,-0.040,0.000,0.000,0.000
1644905277598644992,2022-02-15-06:07:57,10.1.1.7,21,-0.030,-0.030,-0.030,0.000,0.000,0.000
1644905277655101184,2022-02-15-06:07:57,10.1.1.7,30,-0.020,-0.020,-0.020,0.000,0.000,0.000
1644905277694331904,2022-02-15-06:07:57,10.1.1.7,20,-0.010,-0.010,-0.010,0.000,0.000,0.000
1644905277754568960,2022-02-15-06:07:57,10.1.1.7,29,0.000,0.000,0.000,0.000,0.000,0.000
1644905277814157056,2022-02-15-06:07:57,10.1.1.7,38,0.010,0.010,0.010,0.000,0.000,0.000
1644905277854841856,2022-02-15-06:07:57,10.1.1.7,27,0.020,0.020,0.020,0.000,0.000,0.000
1644905277915267072,2022-02-15-06:07:57,10.1.1.7,37,0.030,0.030,0.030,0.000,0.000,0.000
1644905277963119104,2022-02-15-06:07:57,10.1.1.7,20,0.040,0.040,0.040,0.000,0.000,0.000
1644905278015924992,2022-02-15-06:07:58,10.1.1.7,30,0.050,0.050,0.050,0.000,0.000,0.000
1644905278079677184,2022-02-15-06:07:58,10.1.1.7,37,0.060,0.060,0.060,0.000,0.000,0.000
1644905278116955904,2022-02-15-06:07:58,10.1.1.7,25,0.070,0.070,0.070,0.000,0.000,0.000
1644905278175493120,2022-02-15-06:07:58,10.1.1.7,34,0.080,0.080,0.080,0.000,0.000,0.000
1644905278219399936,2022-02-15-06:07:58,10.1.1.7,24,0.090,0.090,0.090,0.000,0.000,0.000
1644905278295365120,2022-02-15-06:07:58,10.1.1.7,2,0.090,0.090,0.090,0.000,0.000,0.000
1644905278375188992,2022-02-15-06:07:58,10.1.1.7,31,0.080,0.080,0.080,0.000,0.000,0.000
1644905278475837952,2022-02-15-06:07:58,10.1.1.7,28,0.060,0.060,0.060,0.000,0.000,0.000
1644905278535200000,2022-02-15-06:07:58,10.1.1.7,38,0.050,0.050,0.050,0.000,0.000,0.000
1644905278575243008,2022-02-15-06:07:58,10.1.1.7,26,0.040,0.040,0.040,0.000,0.000,0.000
1644905278634872064,2022-02-15-06:07:58,10.1.1.7,34,0.030,0.030,0.030,0.000,0.000,0.000
1644905278680080896,2022-02-15-06:07:58,10.1.1.7,27,0.020,0.020,0.020,0.000,0.000,0.000
1644905278740536064,2022-02-15-06:07:58,10.1.1.7,37,0.010,0.010,0.010,0.000,0.000,0.000
1644905278785403136,2022-02-15-06:07:58,10.1.1.7,30,0.000,0.000,0.000,0.000,0.000,0.000
1644905278836711936,2022-02-15-06:07:58,10.1.1.7,31,-0.010,-0.010,-0.010,0.000,0.000,0.000
1644905278885003008,2022-02-15-06:07:58,10.1.1.7,28,-0.020,-0.020,-0.020,0.000,0.000,0.000
1644905278978068224,2022-02-15-06:07:58,10.1.1.7,22,-0.040,-0.040,-0.040,0.000,0.000,0.000
1644905279034842112,2022-02-15-06:07:59,10.1.1.7,29,-0.050,-0.050,-0.050,0.000,0.000,0.000
1644905279094580992,2022-02-15-06:07:59,10.1.1.7,38,-0.060,-0.060,-0.060,0.000,0.000,0.000
1644905279135554048,2022-02-15-06:07:59,10.1.1.7,26,-0.070,-0.070,-0.070,0.000,0.000,0.000
1644905279194087936,2022-02-15-06:07:59,10.1.1.7,35,-0.080,-0.080,-0.080,0.000,0.000,0.000
1644905279237190912,2022-02-15-06:07:59,10.1.1.7,25,-0.090,-0.090,-0.090,0.000,0.000,0.000
1644905279295200000,2022-02-15-06:07:59,10.1.1.7,28,-0.100,-0.100,-0.100,0.000,0.000,0.000
1644905279356379904,2022-02-15-06:07:59,10.1.1.7,38,-0.090,-0.090,-0.090,0.000,0.000,0.000
1644905279395844864,2022-02-15-06:07:59,10.1.1.7,27,-0.080,-0.080,-0.080,0.000,0.000,0.000
1644905279455971840,2022-02-15-06:07:59,10.1.1.7,37,-0.070,-0.070,-0.070,0.000,0.000,0.000
1644905279494748160,2022-02-15-06:07:59,10.1.1.7,25,-0.060,-0.060,-0.060,0.000,0.000,0.000
1644905279555290880,2022-02-15-06:07:59,10.1.1.7,35,-0.050,-0.050,-0.050,0.000,0.000,0.000
1644905279594824960,2022-02-15-06:07:59,10.1.1.7,23,-0.040,-0.040,-0.040,0.000,0.000,0.000
1644905279654315008,2022-02-15-06:07:59,10.1.1.7,28,-0.030,-0.030,-0.030,0.000,0.000,0.000
1644905279714509056,2022-02-15-06:07:59,10.1.1.7,37,-0.020,-0.020,-0.020,0.000,0.000,0.000
1644905279755191040,2022-02-15-06:07:59,10.1.1.7,25,-0.010,-0.010,-0.010,0.000,0.000,0.000
1644905279817315072,2022-02-15-06:07:59,10.1.1.7,32,0.000,0.000,0.000,0.000,0.000,0.000
1644905279875042048,2022-02-15-06:07:59,10.1.1.7,30,0.010,0.010,0.010,0.000,0.000,0.000
1644905279914833920,2022-02-15-06:07:59,10.1.1.7,19,0.019,0.019,0.019,0.000,0.000,0.000
1644905279974296064,2022-02-15-06:07:59,10.1.1.7,28,0.030,0.030,0.030,0.000,0.000,0.000
1644905280034418176,2022-02-15-06:08:00,10.1.1.7,37,0.040,0.040,0.040,0.000,0.000,0.000
1644905280075574016,2022-02-15-06:08:00,10.1.1.7,25,0.050,0.050,0.050,0.000,0.000,0.000
1644905280134813184,2022-02-15-06:08:00,10.1.1.7,34,0.060,0.060,0.060,0.000,0.000,0.000
1644905280174566912,2022-02-15-06:08:00,10.1.1.7,23,0.070,0.070,0.070,0.000,0.000,0.000
1644905280235405056,2022-02-15-06:08:00,10.1.1.7,33,0.080,0.080,0.080,0.000,0.000,0.000
1644905280275069952,2022-02-15-06:08:00,10.1.1.7,21,0.090,0.090,0.090,0.000,0.000,0.000
1644905280334577152,2022-02-15-06:08:00,10.1.1.7,31,0.100,0.100,0.100,0.000,0.000,0.000
1644905280374633984,2022-02-15-06:08:00,10.1.1.7,20,0.090,0.090,0.090,0.000,0.000,0.000
1644905280435560960,2022-02-15-06:08:00,10.1.1.7,30,0.080,0.080,0.080,0.000,0.000,0.000
1644905280475279104,2022-02-15-06:08:00,10.1.1.7,20,0.070,0.070,0.070,0.000,0.000,0.000
1644905280536484096,2022-02-15-06:08:00,10.1.1.7,29,0.060,0.060,0.060,0.000,0.000,0.000
1644905280595563008,2022-02-15-06:08:00,10.1.1.7,36,0.050,0.050,0.050,0.000,0.000,0.000
1644905280635028992,2022-02-15-06:08:00,10.1.1.7,25,0.040,0.040,0.040,0.000,0.000,0.000
1644905280694750976,2022-02-15-06:08:00,10.1.1.7,33,0.030,0.030,0.030,0.000,0.000,0.000
1644905280754785024,2022-02-15-06:08:00,10.1.1.7,38,0.020,0.020,0.020,0.000,0.000,0.000
1644905280794836992,2022-02-15-06:08:00,10.1.1.7,28,0.010,0.010,0.010,0.000,0.000,0.000
1644905280854810880,2022-02-15-06:08:00,10.1.1.7,37,0.000,0.000,0.000,0.000,0.000,0.000
1644905280897361920,2022-02-15-06:08:00,10.1.1.7,26,-0.010,-0.010,-0.010,0.000,0.000,0.000
1644905280955245056,2022-02-15-06:08:00,10.1.1.7,33,-0.020,-0.020,-0.020,0.000,0.000,0.000
1644905280994589952,2022-02-15-06:08:00,10.1.1.7,22,-0.030,-0.030,-0.030,0.000,0.000,0.000
1644905281056909056,2022-02-15-06:08:01,10.1.1.7,30,-0.040,-0.040,-0.040,0.000,0.000,0.000
1644905281118654976,2022-02-15-06:08:01,10.1.1.7,37,-0.050,-0.050,-0.050,0.000,0.000,0.000
1644905281155006976,2022-02-15-06:08:01,10.1.1.7,24,-0.060,-0.060,-0.060,0.000,0.000,0.000
1644905281214633984,2022-02-15-06:08:01,10.1.1.7,34,-0.070,-0.070,-0.070,0.000,0.000,0.000
1644905281276578816,2022-02-15-06:08:01,10.1.1.7,36,-0.080,-0.080,-0.080,0.000,0.000,0.000
1644905281315301888,2022-02-15-06:08:01,10.1.1.7,25,-0.090,-0.090,-0.090,0.000,0.000,0.000
1644905281374500096,2022-02-15-06:08:01,10.1.1.7,34,-0.100,-0.100,-0.100,0.000,0.000,0.000
1644905281414697984,2022-02-15-06:08:01,10.1.1.7,23,-0.090,-0.090,-0.090,0.000,0.000,0.000
1644905281476845056,2022-02-15-06:08:01,10.1.1.7,28,-0.080,-0.080,-0.080,0.000,0.000,0.000
1644905281534243072,2022-02-15-06:08:01,10.1.1.7,37,-0.070,-0.070,-0.070,0.000,0.000,0.000
1644905281574667008,2022-02-15-06:08:01,10.1.1.7,27,-0.060,-0.060,-0.060,0.000,0.000,0.000
1644905281634689024,2022-02-15-06:08:01,10.1.1.7,36,-0.050,-0.050,-0.050,0.000,0.000,0.000
1644905281674734080,2022-02-15-06:08:01,10.1.1.7,25,-0.040,-0.040,-0.040,0.000,0.000,0.000
1644905281794684928,2022-02-15-06:08:01,10.1.1.7,30,-0.020,-0.020,-0.020,0.000,0.000,0.000
1644905281834685952,2022-02-15-06:08:01,10.1.1.7,20,-0.010,-0.010,-0.010,0.000,0.000,0.000
1644905281894624000,2022-02-15-06:08:01,10.1.1.7,30,0.000,0.000,0.000,0.000,0.000,0.000
1644905281954370048,2022-02-15-06:08:01,10.1.1.7,38,0.010,0.010,0.010,0.000,0.000,0.000
1644905281994437888,2022-02-15-06:08:01,10.1.1.7,23,0.020,0.020,0.020,0.000,0.000,0.000
1644905282054258176,2022-02-15-06:08:02,10.1.1.7,32,0.030,0.030,0.030,0.000,0.000,0.000
1644905282093821952,2022-02-15-06:08:02,10.1.1.7,21,0.040,0.040,0.040,0.000,0.000,0.000
1644905282153826048,2022-02-15-06:08:02,10.1.1.7,31,0.050,0.050,0.050,0.000,0.000,0.000
1644905282194128128,2022-02-15-06:08:02,10.1.1.7,20,0.060,0.060,0.060,0.000,0.000,0.000
1644905282254339072,2022-02-15-06:08:02,10.1.1.7,30,0.070,0.070,0.070,0.000,0.000,0.000
1644905282294498816,2022-02-15-06:08:02,10.1.1.7,20,0.080,0.080,0.080,0.000,0.000,0.000
1644905282354685184,2022-02-15-06:08:02,10.1.1.7,29,0.090,0.090,0.090,0.000,0.000,0.000
1644905282414525952,2022-02-15-06:08:02,10.1.1.7,38,0.100,0.100,0.100,0.000,0.000,0.000
1644905282454138112,2022-02-15-06:08:02,10.1.1.7,28,0.090,0.090,0.090,0.000,0.000,0.000
1644905282514537984,2022-02-15-06:08:02,10.1.1.7,37,0.080,0.080,0.080,0.000,0.000,0.000
1644905282554646016,2022-02-15-06:08:02,10.1.1.7,26,0.070,0.070,0.070,0.000,0.000,0.000
1644905282614331904,2022-02-15-06:08:02,10.1.1.7,36,0.060,0.060,0.060,0.000,0.000,0.000
1644905282655837952,2022-02-15-06:08:02,10.1.1.7,26,0.050,0.050,0.050,0.000,0.000,0.000
1644905282715635968,2022-02-15-06:08:02,10.1.1.7,34,0.040,0.040,0.040,0.000,0.000,0.000
1644905282754200064,2022-02-15-06:08:02,10.1.1.7,23,0.030,0.030,0.030,0.000,0.000,0.000
1644905282815027968,2022-02-15-06:08:02,10.1.1.7,30,0.020,0.020,0.020,0.000,0.000,0.000
1644905282854924032,2022-02-15-06:08:02,10.1.1.7,19,0.010,0.010,0.010,0.000,0.000,0.000
1644905282914838016,2022-02-15-06:08:02,10.1.1.7,29,0.000,0.000,0.000,0.000,0.000,0.000
1644905282955216896,2022-02-15-06:08:02,10.1.1.7,19,-0.009,-0.009,-0.009,0.000,0.000,0.000
1644905283016012032,2022-02-15-06:08:03,10.1.1.7,28,-0.020,-0.020,-0.020,0.000,0.000,0.000
1644905283075086080,2022-02-15-06:08:03,10.1.1.7,35,-0.030,-0.030,-0.030,0.000,0.000,0.000
1644905283114952960,2022-02-15-06:08:03,10.1.1.7,25,-0.040,-0.040,-0.040,0.000,0.000,0.000
1644905283174611968,2022-02-15-06:08:03,10.1.1.7,34,-0.050,-0.050,-0.050,0.000,0.000,0.000
1644905283216886016,2022-02-15-06:08:03,10.1.1.7,23,-0.060,-0.060,-0.060,0.000,0.000,0.000
1644905283274497024,2022-02-15-06:08:03,10.1.1.7,30,-0.070,-0.070,-0.070,0.000,0.000,0.000
1644905283334750976,2022-02-15-06:08:03,10.1.1.7,37,-0.080,-0.080,-0.080,0.000,0.000,0.000
1644905283374275072,2022-02-15-06:08:03,10.1.1.7,27,-0.090,-0.090,-0.090,0.000,0.000,0.000
1644905283435520000,2022-02-15-06:08:03,10.1.1.7,36,-0.100,-0.100,-0.100,0.000,0.000,0.000
1644905283474874880,2022-02-15-06:08:03,10.1.1.7,26,-0.090,-0.090,-0.090,0.000,0.000,0.000
1644905283534503936,2022-02-15-06:08:03,10.1.1.7,34,-0.080,-0.080,-0.080,0.000,0.000,0.000
1644905283574611968,2022-02-15-06:08:03,10.1.1.7,24,-0.070,-0.070,-0.070,0.000,0.000,0.000
1644905283636534016,2022-02-15-06:08:03,10.1.1.7,34,-0.060,-0.060,-0.060,0.000,0.000,0.000
1644905283674648064,2022-02-15-06:08:03,10.1.1.7,22,-0.050,-0.050,-0.050,0.000,0.000,0.000
1644905283734452992,2022-02-15-06:08:03,10.1.1.7,32,-0.040,-0.040,-0.040,0.000,0.000,0.000
1644905283775201024,2022-02-15-06:08:03,10.1.1.7,22,-0.030,-0.030,-0.030,0.000,0.000,0.000
1644905283835798016,2022-02-15-06:08:03,10.1.1.7,29,-0.020,-0.020,-0.020,0.000,0.000,0.000
1644905283894697984,2022-02-15-06:08:03,10.1.1.7,38,-0.010,-0.010,-0.010,0.000,0.000,0.000
1644905283934809856,2022-02-15-06:08:03,10.1.1.7,28,0.000,0.000,0.000,0.000,0.000,0.000
1644905283994541056,2022-02-15-06:08:03,10.1.1.7,37,0.010,0.010,0.010,0.000,0.000,0.000
1644905284034182912,2022-02-15-06:08:04,10.1.1.7,27,0.020,0.020,0.020,0.000,0.000,0.000
1644905284094750976,2022-02-15-06:08:04,10.1.1.7,37,0.030,0.030,0.030,0.000,0.000,0.000
1644905284134633984,2022-02-15-06:08:04,10.1.1.7,26,0.040,0.040,0.040,0.000,0.000,0.000
1644905284195171072,2022-02-15-06:08:04,10.1.1.7,35,0.050,0.050,0.050,0.000,0.000,0.000
1644905284235685120,2022-02-15-06:08:04,10.1.1.7,25,0.060,0.060,0.060,0.000,0.000,0.000
1644905284294838016,2022-02-15-06:08:04,10.1.1.7,35,0.070,0.070,0.070,0.000,0.000,0.000
1644905284334822912,2022-02-15-06:08:04,10.1.1.7,24,0.080,0.080,0.080,0.000,0.000,0.000
1644905284395250176,2022-02-15-06:08:04,10.1.1.7,34,0.090,0.090,0.090,0.000,0.000,0.000
1644905284435791872,2022-02-15-06:08:04,10.1.1.7,23,0.100,0.100,0.100,0.000,0.000,0.000
1644905284495143936,2022-02-15-06:08:04,10.1.1.7,32,0.090,0.090,0.090,0.000,0.000,0.000
1644905284534807040,2022-02-15-06:08:04,10.1.1.7,22,0.080,0.080,0.080,0.000,0.000,0.000
1644905284595067136,2022-02-15-06:08:04,10.1.1.7,32,0.070,0.070,0.070,0.000,0.000,0.000
1644905284634532864,2022-02-15-06:08:04,10.1.1.7,21,0.060,0.060,0.060,0.000,0.000,0.000
1644905284694996224,2022-02-15-06:08:04,10.1.1.7,29,0.050,0.050,0.050,0.000,0.000,0.000
1644905284735361024,2022-02-15-06:08:04,10.1.1.7,19,0.041,0.041,0.041,0.000,0.000,0.000
1644905284796103936,2022-02-15-06:08:04,10.1.1.7,27,0.030,0.030,0.030,0.000,0.000,0.000
1644905284855990784,2022-02-15-06:08:04,10.1.1.7,36,0.020,0.020,0.020,0.000,0.000,0.000
1644905284895479808,2022-02-15-06:08:04,10.1.1.7,25,0.010,0.010,0.010,0.000,0.000,0.000
1644905284954996224,2022-02-15-06:08:04,10.1.1.7,34,0.000,0.000,0.000,0.000,0.000,0.000
1644905284995072000,2022-02-15-06:08:04,10.1.1.7,24,-0.010,-0.010,-0.010,0.000,0.000,0.000
1644905285055080960,2022-02-15-06:08:05,10.1.1.7,33,-0.020,-0.020,-0.020,0.000,0.000,0.000
1644905285095309056,2022-02-15-06:08:05,10.1.1.7,22,-0.030,-0.030,-0.030,0.000,0.000,0.000
1644905285154938880,2022-02-15-06:08:05,10.1.1.7,32,-0.040,-0.040,-0.040,0.000,0.000,0.000
1644905285224118016,2022-02-15-06:08:05,10.1.1.7,21,-0.050,-0.050,-0.050,0.000,0.000,0.000
1644905285255016960,2022-02-15-06:08:05,10.1.1.7,24,-0.060,-0.060,-0.060,0.000,0.000,0.000
1644905285315613952,2022-02-15-06:08:05,10.1.1.7,30,-0.070,-0.070,-0.070,0.000,0.000,0.000
1644905285356446976,2022-02-15-06:08:05,10.1.1.7,19,-0.080,-0.080,-0.080,0.000,0.000,0.000
1644905285415945984,2022-02-15-06:08:05,10.1.1.7,28,-0.090,-0.090,-0.090,0.000,0.000,0.000
1644905285475815936,2022-02-15-06:08:05,10.1.1.7,37,-0.100,-0.100,-0.100,0.000,0.000,0.000
1644905285515606016,2022-02-15-06:08:05,10.1.1.7,24,-0.090,-0.090,-0.090,0.000,0.000,0.000
1644905285575102976,2022-02-15-06:08:05,10.1.1.7,33,-0.080,-0.080,-0.080,0.000,0.000,0.000
1644905285675542016,2022-02-15-06:08:05,10.1.1.7,23,-0.060,-0.060,-0.060,0.000,0.000,0.000
1644905285736942080,2022-02-15-06:08:05,10.1.1.7,23,-0.050,-0.050,-0.050,0.000,0.000,0.000
1644905285795460864,2022-02-15-06:08:05,10.1.1.7,28,-0.040,-0.040,-0.040,0.000,0.000,0.000
1644905285854885120,2022-02-15-06:08:05,10.1.1.7,37,-0.030,-0.030,-0.030,0.000,0.000,0.000
1644905285895396864,2022-02-15-06:08:05,10.1.1.7,25,-0.020,-0.020,-0.020,0.000,0.000,0.000
1644905285955446016,2022-02-15-06:08:05,10.1.1.7,34,-0.010,-0.010,-0.010,0.000,0.000,0.000
1644905285995697920,2022-02-15-06:08:05,10.1.1.7,23,0.000,0.000,0.000,0.000,0.000,0.000
1644905286055383808,2022-02-15-06:08:06,10.1.1.7,33,0.010,0.010,0.010,0.000,0.000,0.000
1644905286094083072,2022-02-15-06:08:06,10.1.1.7,22,0.020,0.020,0.020,0.000,0.000,0.000
1644905286155260160,2022-02-15-06:08:06,10.1.1.7,32,0.030,0.030,0.030,0.000,0.000,0.000
1644905286194788864,2022-02-15-06:08:06,10.1.1.7,21,0.040,0.040,0.040,0.000,0.000,0.000
1644905286255942144,2022-02-15-06:08:06,10.1.1.7,31,0.050,0.050,0.050,0.000,0.000,0.000
1644905286295005952,2022-02-15-06:08:06,10.1.1.7,21,0.060,0.060,0.060,0.000,0.000,0.000
1644905286356056064,2022-02-15-06:08:06,10.1.1.7,30,0.070,0.070,0.070,0.000,0.000,0.000
1644905286398413056,2022-02-15-06:08:06,10.1.1.7,20,0.080,0.080,0.080,0.000,0.000,0.000
1644905286455215104,2022-02-15-06:08:06,10.1.1.7,29,0.090,0.090,0.090,0.000,0.000,0.000
1644905286514365952,2022-02-15-06:08:06,10.1.1.7,38,0.100,0.100,0.100,0.000,0.000,0.000
1644905286553920000,2022-02-15-06:08:06,10.1.1.7,27,0.090,0.090,0.090,0.000,0.000,0.000
1644905286614208000,2022-02-15-06:08:06,10.1.1.7,37,0.080,0.080,0.080,0.000,0.000,0.000
1644905286654944000,2022-02-15-06:08:06,10.1.1.7,27,0.070,0.070,0.070,0.000,0.000,0.000
1644905286715053056,2022-02-15-06:08:06,10.1.1.7,36,0.060,0.060,0.060,0.000,0.000,0.000
1644905286754592000,2022-02-15-06:08:06,10.1.1.7,26,0.050,0.050,0.050,0.000,0.000,0.000
1644905286815387904,2022-02-15-06:08:06,10.1.1.7,35,0.040,0.040,0.040,0.000,0.000,0.000
1644905286855475968,2022-02-15-06:08:06,10.1.1.7,25,0.030,0.030,0.030,0.000,0.000,0.000
1644905286914697984,2022-02-15-06:08:06,10.1.1.7,34,0.020,0.020,0.020,0.000,0.000,0.000
1644905286955534080,2022-02-15-06:08:06,10.1.1.7,23,0.010,0.010,0.010,0.000,0.000,0.000
1644905287017456128,2022-02-15-06:08:07,10.1.1.7,32,0.000,0.000,0.000,0.000,0.000,0.000
1644905287068808192,2022-02-15-06:08:07,10.1.1.7,22,-0.010,-0.010,-0.010,0.000,0.000,0.000
1644905287115358976,2022-02-15-06:08:07,10.1.1.7,31,-0.020,-0.020,-0.020,0.000,0.000,0.000
1644905287155091968,2022-02-15-06:08:07,10.1.1.7,20,-0.030,-0.030,-0.030,0.000,0.000,0.000
1644905287215243008,2022-02-15-06:08:07,10.1.1.7,30,-0.040,-0.040,-0.040,0.000,0.000,0.000
1644905287254945024,2022-02-15-06:08:07,10.1.1.7,19,-0.050,-0.050,-0.050,0.000,0.000,0.000
1644905287314264064,2022-02-15-06:08:07,10.1.1.7,28,-0.060,-0.060,-0.060,0.000,0.000,0.000
1644905287374945024,2022-02-15-06:08:07,10.1.1.7,37,-0.070,-0.070,-0.070,0.000,0.000,0.000
1644905287414505984,2022-02-15-06:08:07,10.1.1.7,27,-0.080,-0.080,-0.080,0.000,0.000,0.000
1644905287474823936,2022-02-15-06:08:07,10.1.1.7,37,-0.090,-0.090,-0.090,0.000,0.000,0.000
1644905287514657024,2022-02-15-06:08:07,10.1.1.7,26,-0.100,-0.100,-0.100,0.000,0.000,0.000
1644905287575515904,2022-02-15-06:08:07,10.1.1.7,35,-0.090,-0.090,-0.090,0.000,0.000,0.000
1644905287618941184,2022-02-15-06:08:07,10.1.1.7,24,-0.080,-0.080,-0.080,0.000,0.000,0.000
1644905287677197824,2022-02-15-06:08:07,10.1.1.7,34,-0.070,-0.070,-0.070,0.000,0.000,0.000
1644905287717047808,2022-02-15-06:08:07,10.1.1.7,23,-0.060,-0.060,-0.060,0.000,0.000,0.000
1644905287776963072,2022-02-15-06:08:07,10.1.1.7,31,-0.050,-0.050,-0.050,0.000,0.000,0.000
1644905287834469120,2022-02-15-06:08:07,10.1.1.7,38,-0.040,-0.040,-0.040,0.000,0.000,0.000
1644905287875143936,2022-02-15-06:08:07,10.1.1.7,26,-0.030,-0.030,-0.030,0.000,0.000,0.000
1644905287935203072,2022-02-15-06:08:07,10.1.1.7,35,-0.020,-0.020,-0.020,0.000,0.000,0.000
1644905287974967040,2022-02-15-06:08:07,10.1.1.7,24,-0.010,-0.010,-0.010,0.000,0.000,0.000
1644905288034908928,2022-02-15-06:08:08,10.1.1.7,33,0.000,0.000,0.000,0.000,0.000,0.000
1644905288075918848,2022-02-15-06:08:08,10.1.1.7,23,0.010,0.010,0.010,0.000,0.000,0.000
1644905288136004096,2022-02-15-06:08:08,10.1.1.7,31,0.020,0.020,0.020,0.000,0.000,0.000
1644905288176279040,2022-02-15-06:08:08,10.1.1.7,19,0.029,0.029,0.029,0.000,0.000,0.000
1644905288234512128,2022-02-15-06:08:08,10.1.1.7,27,0.040,0.040,0.040,0.000,0.000,0.000
1644905288294331904,2022-02-15-06:08:08,10.1.1.7,35,0.050,0.050,0.050,0.000,0.000,0.000
1644905288335043072,2022-02-15-06:08:08,10.1.1.7,23,0.060,0.060,0.060,0.000,0.000,0.000
1644905288394951936,2022-02-15-06:08:08,10.1.1.7,32,0.070,0.070,0.070,0.000,0.000,0.000
1644905288436045056,2022-02-15-06:08:08,10.1.1.7,20,0.080,0.080,0.080,0.000,0.000,0.000
1644905288494844928,2022-02-15-06:08:08,10.1.1.7,30,0.090,0.090,0.090,0.000,0.000,0.000
1644905288635031040,2022-02-15-06:08:08,10.1.1.7,36,0.090,0.090,0.090,0.000,0.000,0.000
1644905288695118848,2022-02-15-06:08:08,10.1.1.7,35,0.080,0.080,0.080,0.000,0.000,0.000
1644905288734744064,2022-02-15-06:08:08,10.1.1.7,18,0.071,0.071,0.071,0.000,0.000,0.000
1644905288794514944,2022-02-15-06:08:08,10.1.1.7,27,0.060,0.060,0.060,0.000,0.000,0.000
1644905288854545152,2022-02-15-06:08:08,10.1.1.7,37,0.050,0.050,0.050,0.000,0.000,0.000
1644905288894520064,2022-02-15-06:08:08,10.1.1.7,26,0.040,0.040,0.040,0.000,0.000,0.000
1644905288954396928,2022-02-15-06:08:08,10.1.1.7,36,0.030,0.030,0.030,0.000,0.000,0.000
1644905289001671168,2022-02-15-06:08:09,10.1.1.7,25,0.020,0.020,0.020,0.000,0.000,0.000
1644905289054887168,2022-02-15-06:08:09,10.1.1.7,34,0.010,0.010,0.010,0.000,0.000,0.000
1644905289095148032,2022-02-15-06:08:09,10.1.1.7,23,0.000,0.000,0.000,0.000,0.000,0.000
1644905289159482880,2022-02-15-06:08:09,10.1.1.7,32,-0.010,-0.010,-0.010,0.000,0.000,0.000
1644905289201356800,2022-02-15-06:08:09,10.1.1.7,21,-0.020,-0.020,-0.020,0.000,0.000,0.000
1644905289254829056,2022-02-15-06:08:09,10.1.1.7,31,-0.030,-0.030,-0.030,0.000,0.000,0.000
1644905289294536192,2022-02-15-06:08:09,10.1.1.7,21,-0.040,-0.040,-0.040,0.000,0.000,0.000
1644905289354707968,2022-02-15-06:08:09,10.1.1.7,30,-0.050,-0.050,-0.050,0.000,0.000,0.000
1644905289394191872,2022-02-15-06:08:09,10.1.1.7,20,-0.060,-0.060,-0.060,0.000,0.000,0.000
1644905289455230976,2022-02-15-06:08:09,10.1.1.7,30,-0.070,-0.070,-0.070,0.000,0.000,0.000
1644905289495348992,2022-02-15-06:08:09,10.1.1.7,19,-0.079,-0.079,-0.079,0.000,0.000,0.000
1644905289554774016,2022-02-15-06:08:09,10.1.1.7,29,-0.090,-0.090,-0.090,0.000,0.000,0.000
1644905289615593984,2022-02-15-06:08:09,10.1.1.7,38,-0.100,-0.100,-0.100,0.000,0.000,0.000
1644905289661478144,2022-02-15-06:08:09,10.1.1.7,28,-0.090,-0.090,-0.090,0.000,0.000,0.000
1644905289715289088,2022-02-15-06:08:09,10.1.1.7,37,-0.080,-0.080,-0.080,0.000,0.000,0.000
1644905289755096832,2022-02-15-06:08:09,10.1.1.7,26,-0.070,-0.070,-0.070,0.000,0.000,0.000
1644905289814599936,2022-02-15-06:08:09,10.1.1.7,36,-0.060,-0.060,-0.060,0.000,0.000,0.000
1644905289864096000,2022-02-15-06:08:09,10.1.1.7,25,-0.050,-0.050,-0.050,0.000,0.000,0.000
1644905289914500864,2022-02-15-06:08:09,10.1.1.7,34,-0.040,-0.040,-0.040,0.000,0.000,0.000
1644905289955523072,2022-02-15-06:08:09,10.1.1.7,23,-0.030,-0.030,-0.030,0.000,0.000,0.000
1644905290018929920,2022-02-15-06:08:10,10.1.1.7,32,-0.020,-0.020,-0.020,0.000,0.000,0.000
1644905290114976768,2022-02-15-06:08:10,10.1.1.7,29,0.000,0.000,0.000,0.000,0.000,0.000
1644905290174537984,2022-02-15-06:08:10,10.1.1.7,38,0.010,0.010,0.010,0.000,0.000,0.000
1644905290214150912,2022-02-15-06:08:10,10.1.1.7,27,0.020,0.020,0.020,0.000,0.000,0.000
1644905290274821888,2022-02-15-06:08:10,10.1.1.7,36,0.030,0.030,0.030,0.000,0.000,0.000
1644905290314311936,2022-02-15-06:08:10,10.1.1.7,25,0.040,0.040,0.040,0.000,0.000,0.000
1644905290374429952,2022-02-15-06:08:10,10.1.1.7,34,0.050,0.050,0.050,0.000,0.000,0.000
1644905290415261952,2022-02-15-06:08:10,10.1.1.7,23,0.060,0.060,0.060,0.000,0.000,0.000
1644905290476569856,2022-02-15-06:08:10,10.1.1.7,32,0.070,0.070,0.070,0.000,0.000,0.000
1644905290516645888,2022-02-15-06:08:10,10.1.1.7,21,0.080,0.080,0.080,0.000,0.000,0.000
1644905290575921920,2022-02-15-06:08:10,10.1.1.7,31,0.090,0.090,0.090,0.000,0.000,0.000
1644905290615341824,2022-02-15-06:08:10,10.1.1.7,21,0.100,0.100,0.100,0.000,0.000,0.000
1644905290675611904,2022-02-15-06:08:10,10.1.1.7,29,0.090,0.090,0.090,0.000,0.000,0.000
1644905290735188992,2022-02-15-06:08:10,10.1.1.7,38,0.080,0.080,0.080,0.000,0.000,0.000
1644905290777574144,2022-02-15-06:08:10,10.1.1.7,27,0.070,0.070,0.070,0.000,0.000,0.000
1644905290835070976,2022-02-15-06:08:10,10.1.1.7,36,0.060,0.060,0.060,0.000,0.000,0.000
1644905290874330112,2022-02-15-06:08:10,10.1.1.7,25,0.050,0.050,0.050,0.000,0.000,0.000
1644905290935489024,2022-02-15-06:08:10,10.1.1.7,34,0.040,0.040,0.040,0.000,0.000,0.000
1644905290977338112,2022-02-15-06:08:10,10.1.1.7,23,0.030,0.030,0.030,0.000,0.000,0.000
1644905291035171072,2022-02-15-06:08:11,10.1.1.7,33,0.020,0.020,0.020,0.000,0.000,0.000
1644905291074876928,2022-02-15-06:08:11,10.1.1.7,22,0.010,0.010,0.010,0.000,0.000,0.000
1644905291134629888,2022-02-15-06:08:11,10.1.1.7,31,-0.000,-0.000,-0.000,0.000,0.000,0.000
1644905291174132992,2022-02-15-06:08:11,10.1.1.7,19,-0.009,-0.009,-0.009,0.000,0.000,0.000
1644905291234721792,2022-02-15-06:08:11,10.1.1.7,28,-0.020,-0.020,-0.020,0.000,0.000,0.000
1644905291296459008,2022-02-15-06:08:11,10.1.1.7,34,-0.030,-0.030,-0.030,0.000,0.000,0.000
1644905291335052032,2022-02-15-06:08:11,10.1.1.7,23,-0.040,-0.040,-0.040,0.000,0.000,0.000
1644905291394584064,2022-02-15-06:08:11,10.1.1.7,32,-0.050,-0.050,-0.050,0.000,0.000,0.000
1644905291455579136,2022-02-15-06:08:11,10.1.1.7,36,-0.060,-0.060,-0.060,0.000,0.000,0.000
1644905291495161088,2022-02-15-06:08:11,10.1.1.7,25,-0.070,-0.070,-0.070,0.000,0.000,0.000
1644905291556066048,2022-02-15-06:08:11,10.1.1.7,35,-0.080,-0.080,-0.080,0.000,0.000,0.000
1644905291596030976,2022-02-15-06:08:11,10.1.1.7,21,-0.090,-0.090,-0.090,0.000,0.000,0.000
1644905291655227904,2022-02-15-06:08:11,10.1.1.7,31,-0.100,-0.100,-0.100,0.000,0.000,0.000
1644905291695194880,2022-02-15-06:08:11,10.1.1.7,18,-0.091,-0.091,-0.091,0.000,0.000,0.000
1644905291754909952,2022-02-15-06:08:11,10.1.1.7,28,-0.080,-0.080,-0.080,0.000,0.000,0.000
1644905291814534912,2022-02-15-06:08:11,10.1.1.7,38,-0.070,-0.070,-0.070,0.000,0.000,0.000
1644905291854758144,2022-02-15-06:08:11,10.1.1.7,24,-0.060,-0.060,-0.060,0.000,0.000,0.000
1644905291974216960,2022-02-15-06:08:11,10.1.1.7,34,-0.040,-0.040,-0.040,0.000,0.000,0.000
1644905292015012864,2022-02-15-06:08:12,10.1.1.7,21,-0.030,-0.030,-0.030,0.000,0.000,0.000
1644905292075685888,2022-02-15-06:08:12,10.1.1.7,31,-0.020,-0.020,-0.020,0.000,0.000,0.000
1644905292116334080,2022-02-15-06:08:12,10.1.1.7,21,-0.010,-0.010,-0.010,0.000,0.000,0.000
1644905292175566080,2022-02-15-06:08:12,10.1.1.7,30,-0.000,-0.000,-0.000,0.000,0.000,0.000
1644905292214249984,2022-02-15-06:08:12,10.1.1.7,19,0.009,0.009,0.009,0.000,0.000,0.000
1644905292275353856,2022-02-15-06:08:12,10.1.1.7,28,0.020,0.020,0.020,0.000,0.000,0.000
1644905292334925056,2022-02-15-06:08:12,10.1.1.7,36,0.030,0.030,0.030,0.000,0.000,0.000
1644905292379284992,2022-02-15-06:08:12,10.1.1.7,24,0.040,0.040,0.040,0.000,0.000,0.000
1644905292434350848,2022-02-15-06:08:12,10.1.1.7,31,0.050,0.050,0.050,0.000,0.000,0.000
1644905292494617088,2022-02-15-06:08:12,10.1.1.7,37,0.060,0.060,0.060,0.000,0.000,0.000
1644905292534759168,2022-02-15-06:08:12,10.1.1.7,26,0.070,0.070,0.070,0.000,0.000,0.000
1644905292594050048,2022-02-15-06:08:12,10.1.1.7,36,0.080,0.080,0.080,0.000,0.000,0.000
1644905292635712000,2022-02-15-06:08:12,10.1.1.7,25,0.090,0.090,0.090,0.000,0.000,0.000
1644905292694749952,2022-02-15-06:08:12,10.1.1.7,35,0.100,0.100,0.100,0.000,0.000,0.000
1644905292735223040,2022-02-15-06:08:12,10.1.1.7,25,0.090,0.090,0.090,0.000,0.000,0.000
1644905292794609152,2022-02-15-06:08:12,10.1.1.7,34,0.080,0.080,0.080,0.000,0.000,0.000
1644905292834971904,2022-02-15-06:08:12,10.1.1.7,22,0.070,0.070,0.070,0.000,0.000,0.000
1644905292894604800,2022-02-15-06:08:12,10.1.1.7,29,0.060,0.060,0.060,0.000,0.000,0.000
1644905292954749184,2022-02-15-06:08:12,10.1.1.7,39,0.050,0.050,0.050,0.000,0.000,0.000
1644905292994690048,2022-02-15-06:08:12,10.1.1.7,28,0.040,0.040,0.040,0.000,0.000,0.000
1644905293054897152,2022-02-15-06:08:13,10.1.1.7,38,0.030,0.030,0.030,0.000,0.000,0.000
1644905293094461952,2022-02-15-06:08:13,10.1.1.7,27,0.020,0.020,0.020,0.000,0.000,0.000
1644905293154339072,2022-02-15-06:08:13,10.1.1.7,37,0.010,0.010,0.010,0.000,0.000,0.000
1644905293194510848,2022-02-15-06:08:13,10.1.1.7,26,0.000,0.000,0.000,0.000,0.000,0.000
1644905293256136960,2022-02-15-06:08:13,10.1.1.7,36,-0.010,-0.010,-0.010,0.000,0.000,0.000
1644905293295933952,2022-02-15-06:08:13,10.1.1.7,22,-0.020,-0.020,-0.020,0.000,0.000,0.000
1644905293354296064,2022-02-15-06:08:13,10.1.1.7,31,-0.030,-0.030,-0.030,0.000,0.000,0.000
1644905293394563840,2022-02-15-06:08:13,10.1.1.7,21,-0.040,-0.040,-0.040,0.000,0.000,0.000
1644905293454391040,2022-02-15-06:08:13,10.1.1.7,30,-0.050,-0.050,-0.050,0.000,0.000,0.000
1644905293494848000,2022-02-15-06:08:13,10.1.1.7,20,-0.060,-0.060,-0.060,0.000,0.000,0.000
1644905293554374912,2022-02-15-06:08:13,10.1.1.7,29,-0.070,-0.070,-0.070,0.000,0.000,0.000
1644905293614934016,2022-02-15-06:08:13,10.1.1.7,38,-0.080,-0.080,-0.080,0.000,0.000,0.000
1644905293657133056,2022-02-15-06:08:13,10.1.1.7,27,-0.090,-0.090,-0.090,0.000,0.000,0.000
1644905293714378240,2022-02-15-06:08:13,10.1.1.7,36,-0.100,-0.100,-0.100,0.000,0.000,0.000
1644905293754715904,2022-02-15-06:08:13,10.1.1.7,26,-0.090,-0.090,-0.090,0.000,0.000,0.000
1644905293814574080,2022-02-15-06:08:13,10.1.1.7,34,-0.080,-0.080,-0.080,0.000,0.000,0.000
1644905293854669056,2022-02-15-06:08:13,10.1.1.7,24,-0.070,-0.070,-0.070,0.000,0.000,0.000
1644905293914308096,2022-02-15-06:08:13,10.1.1.7,34,-0.060,-0.060,-0.060,0.000,0.000,0.000
1644905293954689024,2022-02-15-06:08:13,10.1.1.7,22,-0.050,-0.050,-0.050,0.000,0.000,0.000
1644905294014669824,2022-02-15-06:08:14,10.1.1.7,31,-0.040,-0.040,-0.040,0.000,0.000,0.000
1644905294054668800,2022-02-15-06:08:14,10.1.1.7,19,-0.031,-0.031,-0.031,0.000,0.000,0.000
1644905294114817024,2022-02-15-06:08:14,10.1.1.7,28,-0.020,-0.020,-0.020,0.000,0.000,0.000
1644905294174690048,2022-02-15-06:08:14,10.1.1.7,34,-0.010,-0.010,-0.010,0.000,0.000,0.000
1644905294214353152,2022-02-15-06:08:14,10.1.1.7,22,0.000,0.000,0.000,0.000,0.000,0.000
1644905294275262208,2022-02-15-06:08:14,10.1.1.7,31,0.010,0.010,0.010,0.000,0.000,0.000
1644905294334708992,2022-02-15-06:08:14,10.1.1.7,35,0.020,0.020,0.020,0.000,0.000,0.000
1644905294374587136,2022-02-15-06:08:14,10.1.1.7,23,0.030,0.030,0.030,0.000,0.000,0.000
1644905294435649024,2022-02-15-06:08:14,10.1.1.7,32,0.040,0.040,0.040,0.000,0.000,0.000
1644905294475228928,2022-02-15-06:08:14,10.1.1.7,21,0.050,0.050,0.050,0.000,0.000,0.000
1644905294534560000,2022-02-15-06:08:14,10.1.1.7,30,0.060,0.060,0.060,0.000,0.000,0.000
1644905294575470080,2022-02-15-06:08:14,10.1.1.7,19,0.069,0.069,0.069,0.000,0.000,0.000
1644905294635031040,2022-02-15-06:08:14,10.1.1.7,28,0.080,0.080,0.080,0.000,0.000,0.000
1644905294694732800,2022-02-15-06:08:14,10.1.1.7,34,0.090,0.090,0.090,0.000,0.000,0.000
1644905294734700800,2022-02-15-06:08:14,10.1.1.7,23,0.100,0.100,0.100,0.000,0.000,0.000
1644905294799837952,2022-02-15-06:08:14,10.1.1.7,32,0.090,0.090,0.090,0.000,0.000,0.000
1644905294834877952,2022-02-15-06:08:14,10.1.1.7,21,0.080,0.080,0.080,0.000,0.000,0.000
1644905294894746112,2022-02-15-06:08:14,10.1.1.7,30,0.070,0.070,0.070,0.000,0.000,0.000
1644905294934070016,2022-02-15-06:08:14,10.1.1.7,20,0.060,0.060,0.060,0.000,0.000,0.000
1644905294994501120,2022-02-15-06:08:14,10.1.1.7,29,0.050,0.050,0.050,0.000,0.000,0.000
1644905295035339008,2022-02-15-06:08:15,10.1.1.7,19,0.041,0.041,0.041,0.000,0.000,0.000
1644905295094531072,2022-02-15-06:08:15,10.1.1.7,28,0.030,0.030,0.030,0.000,0.000,0.000
1644905295155772928,2022-02-15-06:08:15,10.1.1.7,38,0.020,0.020,0.020,0.000,0.000,0.000
1644905295194801920,2022-02-15-06:08:15,10.1.1.7,26,0.010,0.010,0.010,0.000,0.000,0.000
1644905295255321088,2022-02-15-06:08:15,10.1.1.7,36,0.000,0.000,0.000,0.000,0.000,0.000
1644905295294691072,2022-02-15-06:08:15,10.1.1.7,25,-0.010,-0.010,-0.010,0.000,0.000,0.000
1644905295354899968,2022-02-15-06:08:15,10.1.1.7,34,-0.020,-0.020,-0.020,0.000,0.000,0.000
1644905295394706944,2022-02-15-06:08:15,10.1.1.7,24,-0.030,-0.030,-0.030,0.000,0.000,0.000
1644905295455622912,2022-02-15-06:08:15,10.1.1.7,33,-0.040,-0.040,-0.040,0.000,0.000,0.000
1644905295496314112,2022-02-15-06:08:15,10.1.1.7,21,-0.050,-0.050,-0.050,0.000,0.000,0.000
1644905295554907136,2022-02-15-06:08:15,10.1.1.7,29,-0.060,-0.060,-0.060,0.000,0.000,0.000
1644905295614530048,2022-02-15-06:08:15,10.1.1.7,37,-0.070,-0.070,-0.070,0.000,0.000,0.000
1644905295654781184,2022-02-15-06:08:15,10.1.1.7,26,-0.080,-0.080,-0.080,0.000,0.000,0.000
1644905295719026944,2022-02-15-06:08:15,10.1.1.7,34,-0.090,-0.090,-0.090,0.000,0.000,0.000
1644905295754471936,2022-02-15-06:08:15,10.1.1.7,24,-0.100,-0.100,-0.100,0.000,0.000,0.000
1644905295815524096,2022-02-15-06:08:15,10.1.1.7,33,-0.090,-0.090,-0.090,0.000,0.000,0.000
1644905295855237120,2022-02-15-06:08:15,10.1.1.7,22,-0.080,-0.080,-0.080,0.000,0.000,0.000
1644905295914717952,2022-02-15-06:08:15,10.1.1.7,30,-0.070,-0.070,-0.070,0.000,0.000,0.000
1644905295955770112,2022-02-15-06:08:15,10.1.1.7,19,-0.060,-0.060,-0.060,0.000,0.000,0.000
1644905296014374144,2022-02-15-06:08:16,10.1.1.7,29,-0.050,-0.050,-0.050,0.000,0.000,0.000
1644905296076028160,2022-02-15-06:08:16,10.1.1.7,37,-0.040,-0.040,-0.040,0.000,0.000,0.000
1644905296115200000,2022-02-15-06:08:16,10.1.1.7,25,-0.030,-0.030,-0.030,0.000,0.000,0.000
1644905296175051008,2022-02-15-06:08:16,10.1.1.7,34,-0.020,-0.020,-0.020,0.000,0.000,0.000
1644905296214926080,2022-02-15-06:08:16,10.1.1.7,23,-0.010,-0.010,-0.010,0.000,0.000,0.000
1644905296275770880,2022-02-15-06:08:16,10.1.1.7,31,0.000,0.000,0.000,0.000,0.000,0.000
1644905296314971904,2022-02-15-06:08:16,10.1.1.7,20,0.010,0.010,0.010,0.000,0.000,0.000
1644905296374989056,2022-02-15-06:08:16,10.1.1.7,30,0.020,0.020,0.020,0.000,0.000,0.000
1644905296414216960,2022-02-15-06:08:16,10.1.1.7,19,0.029,0.029,0.029,0.000,0.000,0.000
1644905296475503872,2022-02-15-06:08:16,10.1.1.7,28,0.040,0.040,0.040,0.000,0.000,0.000
1644905296537787904,2022-02-15-06:08:16,10.1.1.7,37,0.050,0.050,0.050,0.000,0.000,0.000
1644905296575469056,2022-02-15-06:08:16,10.1.1.7,25,0.060,0.060,0.060,0.000,0.000,0.000
1644905296634695936,2022-02-15-06:08:16,10.1.1.7,35,0.070,0.070,0.070,0.000,0.000,0.000
1644905296676485888,2022-02-15-06:08:16,10.1.1.7,24,0.080,0.080,0.080,0.000,0.000,0.000
1644905296734400000,2022-02-15-06:08:16,10.1.1.7,33,0.090,0.090,0.090,0.000,0.000,0.000
1644905296795576064,2022-02-15-06:08:16,10.1.1.7,36,0.100,0.100,0.100,0.000,0.000,0.000
1644905296836279040,2022-02-15-06:08:16,10.1.1.7,25,0.090,0.090,0.090,0.000,0.000,0.000
1644905296895795968,2022-02-15-06:08:16,10.1.1.7,34,0.080,0.080,0.080,0.000,0.000,0.000
1644905296935822080,2022-02-15-06:08:16,10.1.1.7,23,0.070,0.070,0.070,0.000,0.000,0.000
1644905297001028096,2022-02-15-06:08:17,10.1.1.7,31,0.060,0.060,0.060,0.000,0.000,0.000
1644905297035119104,2022-02-15-06:08:17,10.1.1.7,20,0.050,0.050,0.050,0.000,0.000,0.000
1644905297096184064,2022-02-15-06:08:17,10.1.1.7,28,0.040,0.040,0.040,0.000,0.000,0.000
1644905297154661888,2022-02-15-06:08:17,10.1.1.7,37,0.030,0.030,0.030,0.000,0.000,0.000
1644905297194854144,2022-02-15-06:08:17,10.1.1.7,26,0.020,0.020,0.020,0.000,0.000,0.000
1644905297254529024,2022-02-15-06:08:17,10.1.1.7,36,0.010,0.010,0.010,0.000,0.000,0.000
1644905297298048000,2022-02-15-06:08:17,10.1.1.7,25,0.000,0.000,0.000,0.000,0.000,0.000
1644905297354650880,2022-02-15-06:08:17,10.1.1.7,34,-0.010,-0.010,-0.010,0.000,0.000,0.000
1644905297394380032,2022-02-15-06:08:17,10.1.1.7,22,-0.020,-0.020,-0.020,0.000,0.000,0.000
1644905297454412032,2022-02-15-06:08:17,10.1.1.7,31,-0.030,-0.030,-0.030,0.000,0.000,0.000
1644905297494366976,2022-02-15-06:08:17,10.1.1.7,21,-0.040,-0.040,-0.040,0.000,0.000,0.000
1644905297567152128,2022-02-15-06:08:17,10.1.1.7,30,-0.050,-0.050,-0.050,0.000,0.000,0.000
1644905297598068992,2022-02-15-06:08:17,10.1.1.7,20,-0.060,-0.060,-0.060,0.000,0.000,0.000
1644905297654476800,2022-02-15-06:08:17,10.1.1.7,29,-0.070,-0.070,-0.070,0.000,0.000,0.000
1644905297694330880,2022-02-15-06:08:17,10.1.1.7,19,-0.079,-0.079,-0.079,0.000,0.000,0.000
1644905297754647040,2022-02-15-06:08:17,10.1.1.7,28,-0.090,-0.090,-0.090,0.000,0.000,0.000
1644905297814755840,2022-02-15-06:08:17,10.1.1.7,37,-0.100,-0.100,-0.100,0.000,0.000,0.000
1644905297918405120,2022-02-15-06:08:17,10.1.1.7,28,-0.080,-0.080,-0.080,0.000,0.000,0.000
1644905297974868992,2022-02-15-06:08:17,10.1.1.7,37,-0.070,-0.070,-0.070,0.000,0.000,0.000
1644905298014557952,2022-02-15-06:08:18,10.1.1.7,26,-0.060,-0.060,-0.060,0.000,0.000,0.000
1644905298075115008,2022-02-15-06:08:18,10.1.1.7,35,-0.050,-0.050,-0.050,0.000,0.000,0.000
1644905298119260928,2022-02-15-06:08:18,10.1.1.7,24,-0.040,-0.040,-0.040,0.000,0.000,0.000
1644905298175052032,2022-02-15-06:08:18,10.1.1.7,33,-0.030,-0.030,-0.030,0.000,0.000,0.000
1644905298214531072,2022-02-15-06:08:18,10.1.1.7,21,-0.020,-0.020,-0.020,0.000,0.000,0.000
1644905298275636992,2022-02-15-06:08:18,10.1.1.7,30,-0.010,-0.010,-0.010,0.000,0.000,0.000
1644905298315010048,2022-02-15-06:08:18,10.1.1.7,19,0.000,0.000,0.000,0.000,0.000,0.000
1644905298375106048,2022-02-15-06:08:18,10.1.1.7,28,0.010,0.010,0.010,0.000,0.000,0.000
1644905298435678976,2022-02-15-06:08:18,10.1.1.7,38,0.020,0.020,0.020,0.000,0.000,0.000
1644905298474756864,2022-02-15-06:08:18,10.1.1.7,27,0.030,0.030,0.030,0.000,0.000,0.000
1644905298534936064,2022-02-15-06:08:18,10.1.1.7,37,0.040,0.040,0.040,0.000,0.000,0.000
1644905298576929024,2022-02-15-06:08:18,10.1.1.7,26,0.050,0.050,0.050,0.000,0.000,0.000
1644905298635087872,2022-02-15-06:08:18,10.1.1.7,34,0.060,0.060,0.060,0.000,0.000,0.000
1644905298674652160,2022-02-15-06:08:18,10.1.1.7,24,0.070,0.070,0.070,0.000,0.000,0.000
1644905298738372096,2022-02-15-06:08:18,10.1.1.7,34,0.080,0.080,0.080,0.000,0.000,0.000
1644905298775463936,2022-02-15-06:08:18,10.1.1.7,19,0.089,0.089,0.089,0.000,0.000,0.000
1644905298835216896,2022-02-15-06:08:18,10.1.1.7,28,0.100,0.100,0.100,0.000,0.000,0.000
1644905298894867968,2022-02-15-06:08:18,10.1.1.7,35,0.090,0.090,0.090,0.000,0.000,0.000
1644905298934760192,2022-02-15-06:08:18,10.1.1.7,24,0.080,0.080,0.080,0.000,0.000,0.000
1644905298994318848,2022-02-15-06:08:18,10.1.1.7,34,0.070,0.070,0.070,0.000,0.000,0.000
1644905299034863872,2022-02-15-06:08:19,10.1.1.7,23,0.060,0.060,0.060,0.000,0.000,0.000
1644905299094683904,2022-02-15-06:08:19,10.1.1.7,33,0.050,0.050,0.050,0.000,0.000,0.000
1644905299135015936,2022-02-15-06:08:19,10.1.1.7,22,0.040,0.040,0.040,0.000,0.000,0.000
1644905299195357952,2022-02-15-06:08:19,10.1.1.7,32,0.030,0.030,0.030,0.000,0.000,0.000
1644905299235769088,2022-02-15-06:08:19,10.1.1.7,20,0.020,0.020,0.020,0.000,0.000,0.000
1644905299294923008,2022-02-15-06:08:19,10.1.1.7,29,0.010,0.010,0.010,0.000,0.000,0.000
1644905299354484992,2022-02-15-06:08:19,10.1.1.7,38,0.000,0.000,0.000,0.000,0.000,0.000
1644905299394589952,2022-02-15-06:08:19,10.1.1.7,28,-0.010,-0.010,-0.010,0.000,0.000,0.000
1644905299455270144,2022-02-15-06:08:19,10.1.1.7,37,-0.020,-0.020,-0.020,0.000,0.000,0.000
1644905299495089920,2022-02-15-06:08:19,10.1.1.7,25,-0.030,-0.030,-0.030,0.000,0.000,0.000
1644905299555144960,2022-02-15-06:08:19,10.1.1.7,34,-0.040,-0.040,-0.040,0.000,0.000,0.000
1644905299594676992,2022-02-15-06:08:19,10.1.1.7,22,-0.050,-0.050,-0.050,0.000,0.000,0.000
1644905299655193088,2022-02-15-06:08:19,10.1.1.7,31,-0.060,-0.060,-0.060,0.000,0.000,0.000
1644905299694597888,2022-02-15-06:08:19,10.1.1.7,20,-0.070,-0.070,-0.070,0.000,0.000,0.000
1644905299754456064,2022-02-15-06:08:19,10.1.1.7,30,-0.080,-0.080,-0.080,0.000,0.000,0.000
1644905299794842880,2022-02-15-06:08:19,10.1.1.7,19,-0.090,-0.090,-0.090,0.000,0.000,0.000
1644905299855816960,2022-02-15-06:08:19,10.1.1.7,27,-0.100,-0.100,-0.100,0.000,0.000,0.000
1644905299915991040,2022-02-15-06:08:19,10.1.1.7,36,-0.090,-0.090,-0.090,0.000,0.000,0.000
1644905299955130112,2022-02-15-06:08:19,10.1.1.7,26,-0.080,-0.080,-0.080,0.000,0.000,0.000
1644905300014912000,2022-02-15-06:08:20,10.1.1.7,35,-0.070,-0.070,-0.070,0.000,0.000,0.000
1644905300055707904,2022-02-15-06:08:20,10.1.1.7,23,-0.060,-0.060,-0.060,0.000,0.000,0.000
1644905300115025152,2022-02-15-06:08:20,10.1.1.7,32,-0.050,-0.050,-0.050,0.000,0.000,0.000
1644905300158665984,2022-02-15-06:08:20,10.1.1.7,21,-0.040,-0.040,-0.040,0.000,0.000,0.000
1644905300214878208,2022-02-15-06:08:20,10.1.1.7,30,-0.030,-0.030,-0.030,0.000,0.000,0.000
1644905300254962944,2022-02-15-06:08:20,10.1.1.7,20,-0.020,-0.020,-0.020,0.000,0.000,0.000
1644905300314681088,2022-02-15-06:08:20,10.1.1.7,29,-0.010,-0.010,-0.010,0.000,0.000,0.000
1644905300375241984,2022-02-15-06:08:20,10.1.1.7,38,0.000,0.000,0.000,0.000,0.000,0.000
1644905300414565120,2022-02-15-06:08:20,10.1.1.7,27,0.010,0.010,0.010,0.000,0.000,0.000
1644905300474756864,2022-02-15-06:08:20,10.1.1.7,36,0.020,0.020,0.020,0.000,0.000,0.000
1644905300515192064,2022-02-15-06:08:20,10.1.1.7,26,0.030,0.030,0.030,0.000,0.000,0.000
1644905300574759936,2022-02-15-06:08:20,10.1.1.7,35,0.040,0.040,0.040,0.000,0.000,0.000
1644905300615225088,2022-02-15-06:08:20,10.1.1.7,24,0.050,0.050,0.050,0.000,0.000,0.000
1644905300676839168,2022-02-15-06:08:20,10.1.1.7,33,0.060,0.060,0.060,0.000,0.000,0.000
1644905300715104000,2022-02-15-06:08:20,10.1.1.7,21,0.070,0.070,0.070,0.000,0.000,0.000
1644905300774714880,2022-02-15-06:08:20,10.1.1.7,30,0.080,0.080,0.080,0.000,0.000,0.000
1644905300815346944,2022-02-15-06:08:20,10.1.1.7,19,0.090,0.090,0.090,0.000,0.000,0.000
1644905300874900224,2022-02-15-06:08:20,10.1.1.7,29,0.100,0.100,0.100,0.000,0.000,0.000
1644905300935476992,2022-02-15-06:08:20,10.1.1.7,39,0.090,0.090,0.090,0.000,0.000,0.000
1644905300975011072,2022-02-15-06:08:20,10.1.1.7,28,0.080,0.080,0.080,0.000,0.000,0.000
1644905301035491072,2022-02-15-06:08:21,10.1.1.7,37,0.070,0.070,0.070,0.000,0.000,0.000
1644905301075324928,2022-02-15-06:08:21,10.1.1.7,26,0.060,0.060,0.060,0.000,0.000,0.000
1644905301134651904,2022-02-15-06:08:21,10.1.1.7,36,0.050,0.050,0.050,0.000,0.000,0.000
1644905301174429952,2022-02-15-06:08:21,10.1.1.7,25,0.040,0.040,0.040,0.000,0.000,0.000
1644905301235631104,2022-02-15-06:08:21,10.1.1.7,35,0.030,0.030,0.030,0.000,0.000,0.000
1644905301274651904,2022-02-15-06:08:21,10.1.1.7,23,0.020,0.020,0.020,0.000,0.000,0.000
1644905301335004928,2022-02-15-06:08:21,10.1.1.7,32,0.010,0.010,0.010,0.000,0.000,0.000
1644905301375243776,2022-02-15-06:08:21,10.1.1.7,22,0.000,0.000,0.000,0.000,0.000,0.000
1644905301436487936,2022-02-15-06:08:21,10.1.1.7,31,-0.010,-0.010,-0.010,0.000,0.000,0.000
1644905301474899968,2022-02-15-06:08:21,10.1.1.7,20,-0.020,-0.020,-0.020,0.000,0.000,0.000
1644905301534895872,2022-02-15-06:08:21,10.1.1.7,30,-0.030,-0.030,-0.030,0.000,0.000,0.000
1644905301575284992,2022-02-15-06:08:21,10.1.1.7,19,-0.040,-0.040,-0.040,0.000,0.000,0.000
1644905301636028160,2022-02-15-06:08:21,10.1.1.7,28,-0.050,-0.050,-0.050,0.000,0.000,0.000
1644905301694845952,2022-02-15-06:08:21,10.1.1.7,37,-0.060,-0.060,-0.060,0.000,0.000,0.000
1644905301735051008,2022-02-15-06:08:21,10.1.1.7,27,-0.070,-0.070,-0.070,0.000,0.000,0.000
1644905301795526144,2022-02-15-06:08:21,10.1.1.7,35,-0.080,-0.080,-0.080,0.000,0.000,0.000
1644905301835496960,2022-02-15-06:08:21,10.1.1.7,25,-0.090,-0.090,-0.090,0.000,0.000,0.000
1644905301894598912,2022-02-15-06:08:21,10.1.1.7,33,-0.100,-0.100,-0.100,0.000,0.000,0.000
1644905301936122880,2022-02-15-06:08:21,10.1.1.7,23,-0.090,-0.090,-0.090,0.000,0.000,0.000
1644905301994560000,2022-02-15-06:08:21,10.1.1.7,32,-0.080,-0.080,-0.080,0.000,0.000,0.000
1644905302034857984,2022-02-15-06:08:22,10.1.1.7,21,-0.070,-0.070,-0.070,0.000,0.000,0.000
1644905302095678208,2022-02-15-06:08:22,10.1.1.7,30,-0.060,-0.060,-0.060,0.000,0.000,0.000
1644905302134614016,2022-02-15-06:08:22,10.1.1.7,19,-0.050,-0.050,-0.050,0.000,0.000,0.000
1644905302195246080,2022-02-15-06:08:22,10.1.1.7,28,-0.040,-0.040,-0.040,0.000,0.000,0.000
1644905302254745856,2022-02-15-06:08:22,10.1.1.7,38,-0.030,-0.030,-0.030,0.000,0.000,0.000
1644905302294785024,2022-02-15-06:08:22,10.1.1.7,25,-0.020,-0.020,-0.020,0.000,0.000,0.000
1644905302355262976,2022-02-15-06:08:22,10.1.1.7,34,-0.010,-0.010,-0.010,0.000,0.000,0.000
1644905302395097856,2022-02-15-06:08:22,10.1.1.7,23,0.000,0.000,0.000,0.000,0.000,0.000
1644905302455096064,2022-02-15-06:08:22,10.1.1.7,33,0.010,0.010,0.010,0.000,0.000,0.000
1644905302495265024,2022-02-15-06:08:22,10.1.1.7,22,0.020,0.020,0.020,0.000,0.000,0.000
1644905302555223040,2022-02-15-06:08:22,10.1.1.7,32,0.030,0.030,0.030,0.000,0.000,0.000
1644905302594789120,2022-02-15-06:08:22,10.1.1.7,21,0.040,0.040,0.040,0.000,0.000,0.000
1644905302654819840,2022-02-15-06:08:22,10.1.1.7,30,0.050,0.050,0.050,0.000,0.000,0.000
1644905302695392000,2022-02-15-06:08:22,10.1.1.7,19,0.060,0.060,0.060,0.000,0.000,0.000
1644905302754801152,2022-02-15-06:08:22,10.1.1.7,29,0.070,0.070,0.070,0.000,0.000,0.000
1644905302815105024,2022-02-15-06:08:22,10.1.1.7,38,0.080,0.080,0.080,0.000,0.000,0.000
1644905302855305984,2022-02-15-06:08:22,10.1.1.7,28,0.090,0.090,0.090,0.000,0.000,0.000
1644905302916115968,2022-02-15-06:08:22,10.1.1.7,37,0.100,0.100,0.100,0.000,0.000,0.000
1644905302955645952,2022-02-15-06:08:22,10.1.1.7,25,0.090,0.090,0.090,0.000,0.000,0.000
1644905303016019200,2022-02-15-06:08:23,10.1.1.7,35,0.080,0.080,0.080,0.000,0.000,0.000
1644905303054932224,2022-02-15-06:08:23,10.1.1.7,24,0.070,0.070,0.070,0.000,0.000,0.000
1644905303116892928,2022-02-15-06:08:23,10.1.1.7,33,0.060,0.060,0.060,0.000,0.000,0.000
1644905303155284992,2022-02-15-06:08:23,10.1.1.7,22,0.050,0.050,0.050,0.000,0.000,0.000
1644905303217315840,2022-02-15-06:08:23,10.1.1.7,32,0.040,0.040,0.040,0.000,0.000,0.000
1644905303255637760,2022-02-15-06:08:23,10.1.1.7,21,0.030,0.030,0.030,0.000,0.000,0.000
1644905303315030016,2022-02-15-06:08:23,10.1.1.7,30,0.020,0.020,0.020,0.000,0.000,0.000
1644905303355596032,2022-02-15-06:08:23,10.1.1.7,19,0.011,0.011,0.011,0.000,0.000,0.000
1644905303414656000,2022-02-15-06:08:23,10.1.1.7,28,0.000,0.000,0.000,0.000,0.000,0.000
1644905303475634944,2022-02-15-06:08:23,10.1.1.7,37,-0.010,-0.010,-0.010,0.000,0.000,0.000
1644905303514862080,2022-02-15-06:08:23,10.1.1.7,26,-0.020,-0.020,-0.020,0.000,0.000,0.000
1644905303574775808,2022-02-15-06:08:23,10.1.1.7,36,-0.030,-0.030,-0.030,0.000,0.000,0.000
1644905303614750976,2022-02-15-06:08:23,10.1.1.7,25,-0.040,-0.040,-0.040,0.000,0.000,0.000
1644905303674392832,2022-02-15-06:08:23,10.1.1.7,35,-0.050,-0.050,-0.050,0.000,0.000,0.000
1644905303715151104,2022-02-15-06:08:23,10.1.1.7,24,-0.060,-0.060,-0.060,0.000,0.000,0.000
1644905303775141120,2022-02-15-06:08:23,10.1.1.7,33,-0.070,-0.070,-0.070,0.000,0.000,0.000
1644905303823170048,2022-02-15-06:08:23,10.1.1.7,23,-0.080,-0.080,-0.080,0.000,0.000,0.000
1644905303874490880,2022-02-15-06:08:23,10.1.1.7,32,-0.090,-0.090,-0.090,0.000,0.000,0.000
1644905303914067968,2022-02-15-06:08:23,10.1.1.7,20,-0.100,-0.100,-0.100,0.000,0.000,0.000
1644905303975105024,2022-02-15-06:08:23,10.1.1.7,28,-0.090,-0.090,-0.090,0.000,0.000,0.000
1644905304035603968,2022-02-15-06:08:24,10.1.1.7,35,-0.080,-0.080,-0.080,0.000,0.000,0.000
