FedericoMungari/DigitalTwin_service/01_WiredScenario/Output/Output_script/script_rosapi_2_output_robots8_freq0_3.txt
timestamp,date,node,latency,joint_1,joint_2,joint_3,joint_4,joint_5,joint_6
1641102611126763008,2022-01-02-05:50:11,10.1.1.4,171,-0.010,-0.010,-0.010,0.000,0.000,0.000
1641102611324709888,2022-01-02-05:50:11,10.1.1.4,169,-0.020,-0.020,-0.020,0.000,0.000,0.000
1641102611524820992,2022-01-02-05:50:11,10.1.1.4,168,-0.030,-0.030,-0.030,0.000,0.000,0.000
1641102611725012992,2022-01-02-05:50:11,10.1.1.4,168,-0.040,-0.040,-0.040,0.000,0.000,0.000
1641102611924967936,2022-01-02-05:50:11,10.1.1.4,167,-0.050,-0.050,-0.050,0.000,0.000,0.000
1641102612146075136,2022-01-02-05:50:12,10.1.1.4,188,-0.060,-0.060,-0.060,0.000,0.000,0.000
1641102612343905024,2022-01-02-05:50:12,10.1.1.4,184,-0.070,-0.070,-0.070,0.000,0.000,0.000
1641102612543448064,2022-01-02-05:50:12,10.1.1.4,182,-0.080,-0.080,-0.080,0.000,0.000,0.000
1641102612745719040,2022-01-02-05:50:12,10.1.1.4,183,-0.090,-0.090,-0.090,0.000,0.000,0.000
1641102612946999040,2022-01-02-05:50:12,10.1.1.4,183,-0.100,-0.100,-0.100,0.000,0.000,0.000
1641102613142855936,2022-01-02-05:50:13,10.1.1.4,179,-0.110,-0.110,-0.110,0.000,0.000,0.000
1641102613342649856,2022-01-02-05:50:13,10.1.1.4,177,-0.120,-0.120,-0.120,0.000,0.000,0.000
1641102613543570944,2022-01-02-05:50:13,10.1.1.4,177,-0.130,-0.130,-0.130,0.000,0.000,0.000
1641102613741408000,2022-01-02-05:50:13,10.1.1.4,173,-0.140,-0.140,-0.140,0.000,0.000,0.000
1641102613941024000,2022-01-02-05:50:13,10.1.1.4,172,-0.150,-0.150,-0.150,0.000,0.000,0.000
1641102614141024000,2022-01-02-05:50:14,10.1.1.4,172,-0.160,-0.160,-0.160,0.000,0.000,0.000
1641102614340761856,2022-01-02-05:50:14,10.1.1.4,171,-0.170,-0.170,-0.170,0.000,0.000,0.000
1641102614542289920,2022-01-02-05:50:14,10.1.1.4,172,-0.180,-0.180,-0.180,0.000,0.000,0.000
1641102614740333056,2022-01-02-05:50:14,10.1.1.4,169,-0.190,-0.190,-0.190,0.000,0.000,0.000
1641102614939912192,2022-01-02-05:50:14,10.1.1.4,168,-0.200,-0.200,-0.200,0.000,0.000,0.000
1641102615139372032,2022-01-02-05:50:15,10.1.1.4,167,-0.210,-0.210,-0.210,0.000,0.000,0.000
1641102615338778880,2022-01-02-05:50:15,10.1.1.4,165,-0.220,-0.220,-0.220,0.000,0.000,0.000
1641102615540503040,2022-01-02-05:50:15,10.1.1.4,165,-0.230,-0.230,-0.230,0.000,0.000,0.000
1641102615738290176,2022-01-02-05:50:15,10.1.1.4,163,-0.240,-0.240,-0.240,0.000,0.000,0.000
1641102615939991040,2022-01-02-05:50:15,10.1.1.4,164,-0.250,-0.250,-0.250,0.000,0.000,0.000
1641102616137767168,2022-01-02-05:50:16,10.1.1.4,162,-0.260,-0.260,-0.260,0.000,0.000,0.000
1641102616337257984,2022-01-02-05:50:16,10.1.1.4,161,-0.270,-0.270,-0.270,0.000,0.000,0.000
1641102616537168896,2022-01-02-05:50:16,10.1.1.4,160,-0.280,-0.280,-0.280,0.000,0.000,0.000
1641102616737377024,2022-01-02-05:50:16,10.1.1.4,159,-0.290,-0.290,-0.290,0.000,0.000,0.000
1641102616956855040,2022-01-02-05:50:16,10.1.1.4,176,-0.300,-0.300,-0.300,0.000,0.000,0.000
1641102617156169984,2022-01-02-05:50:17,10.1.1.4,174,-0.310,-0.310,-0.310,0.000,0.000,0.000
1641102617355973120,2022-01-02-05:50:17,10.1.1.4,172,-0.320,-0.320,-0.320,0.000,0.000,0.000
1641102617555458048,2022-01-02-05:50:17,10.1.1.4,171,-0.330,-0.330,-0.330,0.000,0.000,0.000
1641102617755436800,2022-01-02-05:50:17,10.1.1.4,170,-0.340,-0.340,-0.340,0.000,0.000,0.000
1641102617954822912,2022-01-02-05:50:17,10.1.1.4,169,-0.350,-0.350,-0.350,0.000,0.000,0.000
1641102618155227904,2022-01-02-05:50:18,10.1.1.4,169,-0.360,-0.360,-0.360,0.000,0.000,0.000
1641102618364742144,2022-01-02-05:50:18,10.1.1.4,178,-0.370,-0.370,-0.370,0.000,0.000,0.000
1641102618554770944,2022-01-02-05:50:18,10.1.1.4,163,-0.380,-0.380,-0.380,0.000,0.000,0.000
1641102618755032064,2022-01-02-05:50:18,10.1.1.4,162,-0.390,-0.390,-0.390,0.000,0.000,0.000
1641102618957221120,2022-01-02-05:50:18,10.1.1.4,164,-0.400,-0.400,-0.400,0.000,0.000,0.000
1641102619178798848,2022-01-02-05:50:19,10.1.1.4,177,-0.410,-0.410,-0.410,0.000,0.000,0.000
1641102619381171968,2022-01-02-05:50:19,10.1.1.4,179,-0.420,-0.420,-0.420,0.000,0.000,0.000
1641102619581481984,2022-01-02-05:50:19,10.1.1.4,174,-0.430,-0.430,-0.430,0.000,0.000,0.000
1641102619777916928,2022-01-02-05:50:19,10.1.1.4,174,-0.440,-0.440,-0.440,0.000,0.000,0.000
1641102619981452032,2022-01-02-05:50:19,10.1.1.4,177,-0.450,-0.450,-0.450,0.000,0.000,0.000
1641102620179570944,2022-01-02-05:50:20,10.1.1.4,174,-0.460,-0.460,-0.460,0.000,0.000,0.000
1641102620380320000,2022-01-02-05:50:20,10.1.1.4,174,-0.470,-0.470,-0.470,0.000,0.000,0.000
1641102620582225920,2022-01-02-05:50:20,10.1.1.4,175,-0.480,-0.480,-0.480,0.000,0.000,0.000
1641102620786797056,2022-01-02-05:50:20,10.1.1.4,179,-0.490,-0.490,-0.490,0.000,0.000,0.000
1641102620982764032,2022-01-02-05:50:20,10.1.1.4,175,-0.480,-0.480,-0.480,0.000,0.000,0.000
1641102621186731008,2022-01-02-05:50:21,10.1.1.4,178,-0.470,-0.470,-0.470,0.000,0.000,0.000
1641102621384517888,2022-01-02-05:50:21,10.1.1.4,175,-0.460,-0.460,-0.460,0.000,0.000,0.000
1641102621586877952,2022-01-02-05:50:21,10.1.1.4,177,-0.450,-0.450,-0.450,0.000,0.000,0.000
1641102621785715968,2022-01-02-05:50:21,10.1.1.4,176,-0.440,-0.440,-0.440,0.000,0.000,0.000
1641102621986268160,2022-01-02-05:50:21,10.1.1.4,176,-0.430,-0.430,-0.430,0.000,0.000,0.000
1641102622187079936,2022-01-02-05:50:22,10.1.1.4,176,-0.420,-0.420,-0.420,0.000,0.000,0.000
1641102622389372160,2022-01-02-05:50:22,10.1.1.4,178,-0.410,-0.410,-0.410,0.000,0.000,0.000
1641102622590532096,2022-01-02-05:50:22,10.1.1.4,177,-0.400,-0.400,-0.400,0.000,0.000,0.000
1641102622788971776,2022-01-02-05:50:22,10.1.1.4,176,-0.390,-0.390,-0.390,0.000,0.000,0.000
1641102622989577984,2022-01-02-05:50:22,10.1.1.4,175,-0.380,-0.380,-0.380,0.000,0.000,0.000
1641102623189999104,2022-01-02-05:50:23,10.1.1.4,175,-0.370,-0.370,-0.370,0.000,0.000,0.000
1641102623393650176,2022-01-02-05:50:23,10.1.1.4,179,-0.360,-0.360,-0.360,0.000,0.000,0.000
1641102623814809088,2022-01-02-05:50:23,10.1.1.4,187,-0.340,-0.340,-0.340,0.000,0.000,0.000
1641102624012572928,2022-01-02-05:50:24,10.1.1.4,184,-0.330,-0.330,-0.330,0.000,0.000,0.000
1641102624212548864,2022-01-02-05:50:24,10.1.1.4,184,-0.320,-0.320,-0.320,0.000,0.000,0.000
1641102624412552192,2022-01-02-05:50:24,10.1.1.4,183,-0.310,-0.310,-0.310,0.000,0.000,0.000
1641102624612889088,2022-01-02-05:50:24,10.1.1.4,183,-0.300,-0.300,-0.300,0.000,0.000,0.000
1641102624813417984,2022-01-02-05:50:24,10.1.1.4,183,-0.290,-0.290,-0.290,0.000,0.000,0.000
1641102625013870080,2022-01-02-05:50:25,10.1.1.4,183,-0.280,-0.280,-0.280,0.000,0.000,0.000
1641102625214232064,2022-01-02-05:50:25,10.1.1.4,183,-0.270,-0.270,-0.270,0.000,0.000,0.000
1641102625414388992,2022-01-02-05:50:25,10.1.1.4,183,-0.260,-0.260,-0.260,0.000,0.000,0.000
1641102625614289920,2022-01-02-05:50:25,10.1.1.4,182,-0.250,-0.250,-0.250,0.000,0.000,0.000
1641102625818337024,2022-01-02-05:50:25,10.1.1.4,185,-0.240,-0.240,-0.240,0.000,0.000,0.000
1641102626270021888,2022-01-02-05:50:26,10.1.1.4,-6,-0.220,-0.220,-0.220,0.000,0.000,0.000
1641102626655788032,2022-01-02-05:50:26,10.1.1.4,189,-0.200,-0.200,-0.200,0.000,0.000,0.000
1641102626855650048,2022-01-02-05:50:26,10.1.1.4,188,-0.190,-0.190,-0.190,0.000,0.000,0.000
1641102627057067008,2022-01-02-05:50:27,10.1.1.4,187,-0.180,-0.180,-0.180,0.000,0.000,0.000
1641102627256764928,2022-01-02-05:50:27,10.1.1.4,186,-0.170,-0.170,-0.170,0.000,0.000,0.000
1641102627456527872,2022-01-02-05:50:27,10.1.1.4,182,-0.160,-0.160,-0.160,0.000,0.000,0.000
1641102627876628992,2022-01-02-05:50:27,10.1.1.4,193,-0.140,-0.140,-0.140,0.000,0.000,0.000
1641102628083782912,2022-01-02-05:50:28,10.1.1.4,200,-0.130,-0.130,-0.130,0.000,0.000,0.000
1641102628277007104,2022-01-02-05:50:28,10.1.1.4,192,-0.120,-0.120,-0.120,0.000,0.000,0.000
1641102628480523008,2022-01-02-05:50:28,10.1.1.4,195,-0.110,-0.110,-0.110,0.000,0.000,0.000
1641102628677494016,2022-01-02-05:50:28,10.1.1.4,191,-0.100,-0.100,-0.100,0.000,0.000,0.000
1641102628877537024,2022-01-02-05:50:28,10.1.1.4,191,-0.090,-0.090,-0.090,0.000,0.000,0.000
1641102629083038208,2022-01-02-05:50:29,10.1.1.4,196,-0.080,-0.080,-0.080,0.000,0.000,0.000
1641102629283532032,2022-01-02-05:50:29,10.1.1.4,195,-0.070,-0.070,-0.070,0.000,0.000,0.000
1641102629481458944,2022-01-02-05:50:29,10.1.1.4,193,-0.060,-0.060,-0.060,0.000,0.000,0.000
1641102629682224128,2022-01-02-05:50:29,10.1.1.4,193,-0.050,-0.050,-0.050,0.000,0.000,0.000
1641102629876813824,2022-01-02-05:50:29,10.1.1.4,187,-0.040,-0.040,-0.040,0.000,0.000,0.000
1641102630082174976,2022-01-02-05:50:30,10.1.1.4,188,-0.030,-0.030,-0.030,0.000,0.000,0.000
1641102630282255872,2022-01-02-05:50:30,10.1.1.4,191,-0.020,-0.020,-0.020,0.000,0.000,0.000
1641102630477585152,2022-01-02-05:50:30,10.1.1.4,187,-0.010,-0.010,-0.010,0.000,0.000,0.000
1641102630677295872,2022-01-02-05:50:30,10.1.1.4,186,0.000,0.000,0.000,0.000,0.000,0.000
1641102630877708800,2022-01-02-05:50:30,10.1.1.4,185,-0.010,-0.010,-0.010,0.000,0.000,0.000
1641102631077689856,2022-01-02-05:50:31,10.1.1.4,185,-0.020,-0.020,-0.020,0.000,0.000,0.000
1641102631285165056,2022-01-02-05:50:31,10.1.1.4,192,-0.030,-0.030,-0.030,0.000,0.000,0.000
1641102631481287936,2022-01-02-05:50:31,10.1.1.4,187,-0.040,-0.040,-0.040,0.000,0.000,0.000
1641102631680933888,2022-01-02-05:50:31,10.1.1.4,186,-0.050,-0.050,-0.050,0.000,0.000,0.000
1641102631877456896,2022-01-02-05:50:31,10.1.1.4,182,-0.060,-0.060,-0.060,0.000,0.000,0.000
1641102632080406016,2022-01-02-05:50:32,10.1.1.4,185,-0.070,-0.070,-0.070,0.000,0.000,0.000
1641102632500478976,2022-01-02-05:50:32,10.1.1.4,199,-0.090,-0.090,-0.090,0.000,0.000,0.000
1641102632677512960,2022-01-02-05:50:32,10.1.1.4,176,-0.100,-0.100,-0.100,0.000,0.000,0.000
1641102632900003840,2022-01-02-05:50:32,10.1.1.4,196,-0.110,-0.110,-0.110,0.000,0.000,0.000
1641102633099705856,2022-01-02-05:50:33,10.1.1.4,194,-0.120,-0.120,-0.120,0.000,0.000,0.000
1641102633301945088,2022-01-02-05:50:33,10.1.1.4,195,-0.130,-0.130,-0.130,0.000,0.000,0.000
1641102633497508096,2022-01-02-05:50:33,10.1.1.4,189,-0.140,-0.140,-0.140,0.000,0.000,0.000
1641102633699113984,2022-01-02-05:50:33,10.1.1.4,187,-0.150,-0.150,-0.150,0.000,0.000,0.000
1641102633900425984,2022-01-02-05:50:33,10.1.1.4,186,-0.160,-0.160,-0.160,0.000,0.000,0.000
1641102634095767040,2022-01-02-05:50:34,10.1.1.4,185,-0.170,-0.170,-0.170,0.000,0.000,0.000
1641102634299446016,2022-01-02-05:50:34,10.1.1.4,188,-0.180,-0.180,-0.180,0.000,0.000,0.000
1641102634498398976,2022-01-02-05:50:34,10.1.1.4,186,-0.190,-0.190,-0.190,0.000,0.000,0.000
1641102634695354112,2022-01-02-05:50:34,10.1.1.4,182,-0.200,-0.200,-0.200,0.000,0.000,0.000
1641102634895056896,2022-01-02-05:50:34,10.1.1.4,181,-0.210,-0.210,-0.210,0.000,0.000,0.000
1641102635099187968,2022-01-02-05:50:35,10.1.1.4,184,-0.220,-0.220,-0.220,0.000,0.000,0.000
1641102635299015936,2022-01-02-05:50:35,10.1.1.4,183,-0.230,-0.230,-0.230,0.000,0.000,0.000
1641102635521588992,2022-01-02-05:50:35,10.1.1.4,200,-0.240,-0.240,-0.240,0.000,0.000,0.000
1641102635714558976,2022-01-02-05:50:35,10.1.1.4,188,-0.250,-0.250,-0.250,0.000,0.000,0.000
1641102635914597120,2022-01-02-05:50:35,10.1.1.4,186,-0.260,-0.260,-0.260,0.000,0.000,0.000
1641102636114192128,2022-01-02-05:50:36,10.1.1.4,186,-0.270,-0.270,-0.270,0.000,0.000,0.000
1641102636313658112,2022-01-02-05:50:36,10.1.1.4,185,-0.280,-0.280,-0.280,0.000,0.000,0.000
1641102636514178048,2022-01-02-05:50:36,10.1.1.4,185,-0.290,-0.290,-0.290,0.000,0.000,0.000
1641102636714365952,2022-01-02-05:50:36,10.1.1.4,184,-0.300,-0.300,-0.300,0.000,0.000,0.000
1641102636913712128,2022-01-02-05:50:36,10.1.1.4,183,-0.310,-0.310,-0.310,0.000,0.000,0.000
1641102637113673984,2022-01-02-05:50:37,10.1.1.4,182,-0.320,-0.320,-0.320,0.000,0.000,0.000
1641102637314240000,2022-01-02-05:50:37,10.1.1.4,182,-0.330,-0.330,-0.330,0.000,0.000,0.000
1641102637517056000,2022-01-02-05:50:37,10.1.1.4,185,-0.340,-0.340,-0.340,0.000,0.000,0.000
1641102637717633024,2022-01-02-05:50:37,10.1.1.4,185,-0.350,-0.350,-0.350,0.000,0.000,0.000
1641102637917491968,2022-01-02-05:50:37,10.1.1.4,184,-0.360,-0.360,-0.360,0.000,0.000,0.000
1641102638116559104,2022-01-02-05:50:38,10.1.1.4,182,-0.370,-0.370,-0.370,0.000,0.000,0.000
1641102638137587968,2022-01-02-05:50:38,10.1.1.4,-1,-0.370,-0.370,-0.370,0.000,0.000,0.000
1641102638531490048,2022-01-02-05:50:38,10.1.1.4,193,-0.390,-0.390,-0.390,0.000,0.000,0.000
1641102638732129024,2022-01-02-05:50:38,10.1.1.4,193,-0.400,-0.400,-0.400,0.000,0.000,0.000
1641102638936271872,2022-01-02-05:50:38,10.1.1.4,197,-0.410,-0.410,-0.410,0.000,0.000,0.000
1641102639135823872,2022-01-02-05:50:39,10.1.1.4,196,-0.420,-0.420,-0.420,0.000,0.000,0.000
1641102639330472960,2022-01-02-05:50:39,10.1.1.4,190,-0.430,-0.430,-0.430,0.000,0.000,0.000
1641102639539875072,2022-01-02-05:50:39,10.1.1.4,198,-0.440,-0.440,-0.440,0.000,0.000,0.000
1641102639729692928,2022-01-02-05:50:39,10.1.1.4,187,-0.450,-0.450,-0.450,0.000,0.000,0.000
1641102639943798016,2022-01-02-05:50:39,10.1.1.4,199,-0.460,-0.460,-0.460,0.000,0.000,0.000
1641102640129172992,2022-01-02-05:50:40,10.1.1.4,185,-0.470,-0.470,-0.470,0.000,0.000,0.000
1641102640328521984,2022-01-02-05:50:40,10.1.1.4,183,-0.480,-0.480,-0.480,0.000,0.000,0.000
1641102640529154048,2022-01-02-05:50:40,10.1.1.4,183,-0.490,-0.490,-0.490,0.000,0.000,0.000
1641102640728701184,2022-01-02-05:50:40,10.1.1.4,182,-0.480,-0.480,-0.480,0.000,0.000,0.000
1641102640928932864,2022-01-02-05:50:40,10.1.1.4,182,-0.470,-0.470,-0.470,0.000,0.000,0.000
1641102641128169984,2022-01-02-05:50:41,10.1.1.4,181,-0.460,-0.460,-0.460,0.000,0.000,0.000
1641102641327704064,2022-01-02-05:50:41,10.1.1.4,179,-0.450,-0.450,-0.450,0.000,0.000,0.000
1641102641528552960,2022-01-02-05:50:41,10.1.1.4,179,-0.440,-0.440,-0.440,0.000,0.000,0.000
1641102641733502976,2022-01-02-05:50:41,10.1.1.4,181,-0.430,-0.430,-0.430,0.000,0.000,0.000
1641102641961289984,2022-01-02-05:50:41,10.1.1.4,194,-0.420,-0.420,-0.420,0.000,0.000,0.000
1641102642150897920,2022-01-02-05:50:42,10.1.1.4,189,-0.410,-0.410,-0.410,0.000,0.000,0.000
1641102642350171136,2022-01-02-05:50:42,10.1.1.4,184,-0.400,-0.400,-0.400,0.000,0.000,0.000
1641102642550194944,2022-01-02-05:50:42,10.1.1.4,183,-0.390,-0.390,-0.390,0.000,0.000,0.000
1641102642746373888,2022-01-02-05:50:42,10.1.1.4,182,-0.380,-0.380,-0.380,0.000,0.000,0.000
1641102642948376064,2022-01-02-05:50:42,10.1.1.4,183,-0.370,-0.370,-0.370,0.000,0.000,0.000
1641102643149585920,2022-01-02-05:50:43,10.1.1.4,183,-0.360,-0.360,-0.360,0.000,0.000,0.000
1641102643345141760,2022-01-02-05:50:43,10.1.1.4,178,-0.350,-0.350,-0.350,0.000,0.000,0.000
1641102643550349056,2022-01-02-05:50:43,10.1.1.4,177,-0.340,-0.340,-0.340,0.000,0.000,0.000
1641102643746840064,2022-01-02-05:50:43,10.1.1.4,171,-0.330,-0.330,-0.330,0.000,0.000,0.000
1641102643945913088,2022-01-02-05:50:43,10.1.1.4,172,-0.320,-0.320,-0.320,0.000,0.000,0.000
1641102644149827840,2022-01-02-05:50:44,10.1.1.4,175,-0.310,-0.310,-0.310,0.000,0.000,0.000
1641102644348089088,2022-01-02-05:50:44,10.1.1.4,173,-0.300,-0.300,-0.300,0.000,0.000,0.000
1641102644547329024,2022-01-02-05:50:44,10.1.1.4,172,-0.290,-0.290,-0.290,0.000,0.000,0.000
1641102644747462144,2022-01-02-05:50:44,10.1.1.4,171,-0.280,-0.280,-0.280,0.000,0.000,0.000
1641102644946604032,2022-01-02-05:50:44,10.1.1.4,170,-0.270,-0.270,-0.270,0.000,0.000,0.000
1641102645147175936,2022-01-02-05:50:45,10.1.1.4,170,-0.260,-0.260,-0.260,0.000,0.000,0.000
1641102645346502912,2022-01-02-05:50:45,10.1.1.4,169,-0.250,-0.250,-0.250,0.000,0.000,0.000
1641102645542012928,2022-01-02-05:50:45,10.1.1.4,164,-0.240,-0.240,-0.240,0.000,0.000,0.000
1641102645765166080,2022-01-02-05:50:45,10.1.1.4,183,-0.230,-0.230,-0.230,0.000,0.000,0.000
1641102645967207936,2022-01-02-05:50:45,10.1.1.4,187,-0.220,-0.220,-0.220,0.000,0.000,0.000
1641102646166167040,2022-01-02-05:50:46,10.1.1.4,186,-0.210,-0.210,-0.210,0.000,0.000,0.000
1641102646564268032,2022-01-02-05:50:46,10.1.1.4,166,-0.190,-0.190,-0.190,0.000,0.000,0.000
1641102646786546944,2022-01-02-05:50:46,10.1.1.4,188,-0.180,-0.180,-0.180,0.000,0.000,0.000
1641102646984536832,2022-01-02-05:50:46,10.1.1.4,185,-0.170,-0.170,-0.170,0.000,0.000,0.000
1641102647182486016,2022-01-02-05:50:47,10.1.1.4,182,-0.160,-0.160,-0.160,0.000,0.000,0.000
1641102647387782144,2022-01-02-05:50:47,10.1.1.4,186,-0.150,-0.150,-0.150,0.000,0.000,0.000
1641102647585912832,2022-01-02-05:50:47,10.1.1.4,177,-0.140,-0.140,-0.140,0.000,0.000,0.000
1641102647800218112,2022-01-02-05:50:47,10.1.1.4,180,-0.130,-0.130,-0.130,0.000,0.000,0.000
1641102647998088960,2022-01-02-05:50:47,10.1.1.4,179,-0.120,-0.120,-0.120,0.000,0.000,0.000
1641102648198350080,2022-01-02-05:50:48,10.1.1.4,175,-0.110,-0.110,-0.110,0.000,0.000,0.000
1641102648401088000,2022-01-02-05:50:48,10.1.1.4,174,-0.100,-0.100,-0.100,0.000,0.000,0.000
1641102648597050880,2022-01-02-05:50:48,10.1.1.4,173,-0.090,-0.090,-0.090,0.000,0.000,0.000
1641102648800382976,2022-01-02-05:50:48,10.1.1.4,173,-0.080,-0.080,-0.080,0.000,0.000,0.000
1641102649000070144,2022-01-02-05:50:48,10.1.1.4,172,-0.070,-0.070,-0.070,0.000,0.000,0.000
1641102649198870016,2022-01-02-05:50:49,10.1.1.4,173,-0.060,-0.060,-0.060,0.000,0.000,0.000
1641102649396162048,2022-01-02-05:50:49,10.1.1.4,170,-0.050,-0.050,-0.050,0.000,0.000,0.000
1641102649595838976,2022-01-02-05:50:49,10.1.1.4,169,-0.040,-0.040,-0.040,0.000,0.000,0.000
1641102649795918848,2022-01-02-05:50:49,10.1.1.4,168,-0.030,-0.030,-0.030,0.000,0.000,0.000
1641102649995239936,2022-01-02-05:50:49,10.1.1.4,163,-0.020,-0.020,-0.020,0.000,0.000,0.000
1641102650210359040,2022-01-02-05:50:50,10.1.1.4,177,-0.010,-0.010,-0.010,0.000,0.000,0.000
1641102650394642176,2022-01-02-05:50:50,10.1.1.4,161,0.000,0.000,0.000,0.000,0.000,0.000
1641102650594317824,2022-01-02-05:50:50,10.1.1.4,159,-0.010,-0.010,-0.010,0.000,0.000,0.000
1641102650793793792,2022-01-02-05:50:50,10.1.1.4,157,-0.020,-0.020,-0.020,0.000,0.000,0.000
1641102651005428992,2022-01-02-05:50:51,10.1.1.4,168,-0.030,-0.030,-0.030,0.000,0.000,0.000
1641102651221314048,2022-01-02-05:50:51,10.1.1.4,182,-0.040,-0.040,-0.040,0.000,0.000,0.000
1641102651421636096,2022-01-02-05:50:51,10.1.1.4,182,-0.050,-0.050,-0.050,0.000,0.000,0.000
1641102651623043072,2022-01-02-05:50:51,10.1.1.4,183,-0.060,-0.060,-0.060,0.000,0.000,0.000
1641102651823496960,2022-01-02-05:50:51,10.1.1.4,180,-0.070,-0.070,-0.070,0.000,0.000,0.000
1641102652028284160,2022-01-02-05:50:52,10.1.1.4,185,-0.080,-0.080,-0.080,0.000,0.000,0.000
1641102652220172032,2022-01-02-05:50:52,10.1.1.4,176,-0.090,-0.090,-0.090,0.000,0.000,0.000
1641102652424932864,2022-01-02-05:50:52,10.1.1.4,178,-0.100,-0.100,-0.100,0.000,0.000,0.000
1641102652625171968,2022-01-02-05:50:52,10.1.1.4,178,-0.110,-0.110,-0.110,0.000,0.000,0.000
1641102652828133120,2022-01-02-05:50:52,10.1.1.4,180,-0.120,-0.120,-0.120,0.000,0.000,0.000
1641102653028815104,2022-01-02-05:50:53,10.1.1.4,180,-0.130,-0.130,-0.130,0.000,0.000,0.000
1641102653224206848,2022-01-02-05:50:53,10.1.1.4,174,-0.140,-0.140,-0.140,0.000,0.000,0.000
1641102653430313984,2022-01-02-05:50:53,10.1.1.4,176,-0.150,-0.150,-0.150,0.000,0.000,0.000
1641102653629283072,2022-01-02-05:50:53,10.1.1.4,171,-0.160,-0.160,-0.160,0.000,0.000,0.000
1641102653827052032,2022-01-02-05:50:53,10.1.1.4,170,-0.170,-0.170,-0.170,0.000,0.000,0.000
1641102654050416896,2022-01-02-05:50:54,10.1.1.4,192,-0.180,-0.180,-0.180,0.000,0.000,0.000
1641102654253586944,2022-01-02-05:50:54,10.1.1.4,194,-0.190,-0.190,-0.190,0.000,0.000,0.000
1641102654449309184,2022-01-02-05:50:54,10.1.1.4,190,-0.200,-0.200,-0.200,0.000,0.000,0.000
1641102654649636864,2022-01-02-05:50:54,10.1.1.4,189,-0.210,-0.210,-0.210,0.000,0.000,0.000
1641102654853196032,2022-01-02-05:50:54,10.1.1.4,189,-0.220,-0.220,-0.220,0.000,0.000,0.000
1641102655055515136,2022-01-02-05:50:55,10.1.1.4,189,-0.230,-0.230,-0.230,0.000,0.000,0.000
1641102655255072000,2022-01-02-05:50:55,10.1.1.4,192,-0.240,-0.240,-0.240,0.000,0.000,0.000
1641102655451941120,2022-01-02-05:50:55,10.1.1.4,188,-0.250,-0.250,-0.250,0.000,0.000,0.000
1641102655656393984,2022-01-02-05:50:55,10.1.1.4,192,-0.260,-0.260,-0.260,0.000,0.000,0.000
1641102655852551936,2022-01-02-05:50:55,10.1.1.4,187,-0.270,-0.270,-0.270,0.000,0.000,0.000
1641102656054023936,2022-01-02-05:50:56,10.1.1.4,188,-0.280,-0.280,-0.280,0.000,0.000,0.000
1641102656260754176,2022-01-02-05:50:56,10.1.1.4,193,-0.290,-0.290,-0.290,0.000,0.000,0.000
1641102656460946944,2022-01-02-05:50:56,10.1.1.4,192,-0.300,-0.300,-0.300,0.000,0.000,0.000
1641102656664172800,2022-01-02-05:50:56,10.1.1.4,195,-0.310,-0.310,-0.310,0.000,0.000,0.000
1641102656859097088,2022-01-02-05:50:56,10.1.1.4,189,-0.320,-0.320,-0.320,0.000,0.000,0.000
1641102657054956032,2022-01-02-05:50:57,10.1.1.4,184,-0.330,-0.330,-0.330,0.000,0.000,0.000
1641102657266123008,2022-01-02-05:50:57,10.1.1.4,193,-0.340,-0.340,-0.340,0.000,0.000,0.000
1641102657463920128,2022-01-02-05:50:57,10.1.1.4,191,-0.350,-0.350,-0.350,0.000,0.000,0.000
1641102657662388992,2022-01-02-05:50:57,10.1.1.4,182,-0.360,-0.360,-0.360,0.000,0.000,0.000
1641102657865840896,2022-01-02-05:50:57,10.1.1.4,191,-0.370,-0.370,-0.370,0.000,0.000,0.000
1641102658060488960,2022-01-02-05:50:58,10.1.1.4,184,-0.380,-0.380,-0.380,0.000,0.000,0.000
1641102658262848000,2022-01-02-05:50:58,10.1.1.4,185,-0.390,-0.390,-0.390,0.000,0.000,0.000
1641102658684711936,2022-01-02-05:50:58,10.1.1.4,199,-0.410,-0.410,-0.410,0.000,0.000,0.000
1641102659082860032,2022-01-02-05:50:59,10.1.1.4,196,-0.430,-0.430,-0.430,0.000,0.000,0.000
1641102659283354880,2022-01-02-05:50:59,10.1.1.4,191,-0.440,-0.440,-0.440,0.000,0.000,0.000
1641102659482829056,2022-01-02-05:50:59,10.1.1.4,190,-0.450,-0.450,-0.450,0.000,0.000,0.000
1641102659685435136,2022-01-02-05:50:59,10.1.1.4,192,-0.460,-0.460,-0.460,0.000,0.000,0.000
1641102659885489920,2022-01-02-05:50:59,10.1.1.4,192,-0.470,-0.470,-0.470,0.000,0.000,0.000
1641102660082561024,2022-01-02-05:51:00,10.1.1.4,188,-0.480,-0.480,-0.480,0.000,0.000,0.000
1641102660284208128,2022-01-02-05:51:00,10.1.1.4,189,-0.490,-0.490,-0.490,0.000,0.000,0.000
1641102660485872128,2022-01-02-05:51:00,10.1.1.4,189,-0.480,-0.480,-0.480,0.000,0.000,0.000
1641102660682002176,2022-01-02-05:51:00,10.1.1.4,183,-0.470,-0.470,-0.470,0.000,0.000,0.000
1641102660898464000,2022-01-02-05:51:00,10.1.1.4,199,-0.460,-0.460,-0.460,0.000,0.000,0.000
1641102661101417984,2022-01-02-05:51:01,10.1.1.4,202,-0.450,-0.450,-0.450,0.000,0.000,0.000
1641102661298353920,2022-01-02-05:51:01,10.1.1.4,193,-0.440,-0.440,-0.440,0.000,0.000,0.000
1641102661498671104,2022-01-02-05:51:01,10.1.1.4,192,-0.430,-0.430,-0.430,0.000,0.000,0.000
1641102661698792960,2022-01-02-05:51:01,10.1.1.4,191,-0.420,-0.420,-0.420,0.000,0.000,0.000
1641102661899759104,2022-01-02-05:51:01,10.1.1.4,192,-0.410,-0.410,-0.410,0.000,0.000,0.000
1641102662098702080,2022-01-02-05:51:02,10.1.1.4,190,-0.400,-0.400,-0.400,0.000,0.000,0.000
1641102662299540992,2022-01-02-05:51:02,10.1.1.4,190,-0.390,-0.390,-0.390,0.000,0.000,0.000
1641102662498783232,2022-01-02-05:51:02,10.1.1.4,189,-0.380,-0.380,-0.380,0.000,0.000,0.000
1641102662702734848,2022-01-02-05:51:02,10.1.1.4,192,-0.370,-0.370,-0.370,0.000,0.000,0.000
1641102662902694912,2022-01-02-05:51:02,10.1.1.4,191,-0.360,-0.360,-0.360,0.000,0.000,0.000
1641102663099386880,2022-01-02-05:51:03,10.1.1.4,184,-0.350,-0.350,-0.350,0.000,0.000,0.000
1641102663298885120,2022-01-02-05:51:03,10.1.1.4,182,-0.340,-0.340,-0.340,0.000,0.000,0.000
1641102663498210048,2022-01-02-05:51:03,10.1.1.4,181,-0.330,-0.330,-0.330,0.000,0.000,0.000
1641102663719554816,2022-01-02-05:51:03,10.1.1.4,201,-0.320,-0.320,-0.320,0.000,0.000,0.000
1641102663919047168,2022-01-02-05:51:03,10.1.1.4,198,-0.310,-0.310,-0.310,0.000,0.000,0.000
1641102664118684928,2022-01-02-05:51:04,10.1.1.4,197,-0.300,-0.300,-0.300,0.000,0.000,0.000
1641102664318217984,2022-01-02-05:51:04,10.1.1.4,196,-0.290,-0.290,-0.290,0.000,0.000,0.000
1641102664519564032,2022-01-02-05:51:04,10.1.1.4,196,-0.280,-0.280,-0.280,0.000,0.000,0.000
1641102664718360064,2022-01-02-05:51:04,10.1.1.4,193,-0.270,-0.270,-0.270,0.000,0.000,0.000
1641102664918364160,2022-01-02-05:51:04,10.1.1.4,192,-0.260,-0.260,-0.260,0.000,0.000,0.000
1641102665122464768,2022-01-02-05:51:05,10.1.1.4,196,-0.250,-0.250,-0.250,0.000,0.000,0.000
1641102665321746944,2022-01-02-05:51:05,10.1.1.4,190,-0.240,-0.240,-0.240,0.000,0.000,0.000
1641102665525184000,2022-01-02-05:51:05,10.1.1.4,196,-0.230,-0.230,-0.230,0.000,0.000,0.000
1641102665718417920,2022-01-02-05:51:05,10.1.1.4,185,-0.220,-0.220,-0.220,0.000,0.000,0.000
1641102665917798912,2022-01-02-05:51:05,10.1.1.4,184,-0.210,-0.210,-0.210,0.000,0.000,0.000
1641102666117885184,2022-01-02-05:51:06,10.1.1.4,183,-0.200,-0.200,-0.200,0.000,0.000,0.000
1641102666321274880,2022-01-02-05:51:06,10.1.1.4,186,-0.190,-0.190,-0.190,0.000,0.000,0.000
1641102666520532992,2022-01-02-05:51:06,10.1.1.4,184,-0.180,-0.180,-0.180,0.000,0.000,0.000
1641102666941255168,2022-01-02-05:51:06,10.1.1.4,195,-0.160,-0.160,-0.160,0.000,0.000,0.000
1641102667137253888,2022-01-02-05:51:07,10.1.1.4,194,-0.150,-0.150,-0.150,0.000,0.000,0.000
1641102667336633856,2022-01-02-05:51:07,10.1.1.4,191,-0.140,-0.140,-0.140,0.000,0.000,0.000
1641102667536690944,2022-01-02-05:51:07,10.1.1.4,190,-0.130,-0.130,-0.130,0.000,0.000,0.000
1641102667735877888,2022-01-02-05:51:07,10.1.1.4,189,-0.120,-0.120,-0.120,0.000,0.000,0.000
1641102667936060928,2022-01-02-05:51:07,10.1.1.4,188,-0.110,-0.110,-0.110,0.000,0.000,0.000
1641102668135942912,2022-01-02-05:51:08,10.1.1.4,187,-0.100,-0.100,-0.100,0.000,0.000,0.000
1641102668336155904,2022-01-02-05:51:08,10.1.1.4,186,-0.090,-0.090,-0.090,0.000,0.000,0.000
1641102668534929152,2022-01-02-05:51:08,10.1.1.4,184,-0.080,-0.080,-0.080,0.000,0.000,0.000
1641102668736957952,2022-01-02-05:51:08,10.1.1.4,185,-0.070,-0.070,-0.070,0.000,0.000,0.000
1641102668938294016,2022-01-02-05:51:08,10.1.1.4,185,-0.060,-0.060,-0.060,0.000,0.000,0.000
1641102669134472960,2022-01-02-05:51:09,10.1.1.4,181,-0.050,-0.050,-0.050,0.000,0.000,0.000
1641102669357681920,2022-01-02-05:51:09,10.1.1.4,183,-0.040,-0.040,-0.040,0.000,0.000,0.000
1641102669817338880,2022-01-02-05:51:09,10.1.1.4,195,-0.020,-0.020,-0.020,0.000,0.000,0.000
1641102670217539072,2022-01-02-05:51:10,10.1.1.4,191,0.000,0.000,0.000,0.000,0.000,0.000
1641102670416131072,2022-01-02-05:51:10,10.1.1.4,186,-0.010,-0.010,-0.010,0.000,0.000,0.000
1641102670613121024,2022-01-02-05:51:10,10.1.1.4,185,-0.020,-0.020,-0.020,0.000,0.000,0.000
1641102670812900096,2022-01-02-05:51:10,10.1.1.4,184,-0.030,-0.030,-0.030,0.000,0.000,0.000
1641102671012459008,2022-01-02-05:51:11,10.1.1.4,182,-0.040,-0.040,-0.040,0.000,0.000,0.000
1641102671212635904,2022-01-02-05:51:11,10.1.1.4,182,-0.050,-0.050,-0.050,0.000,0.000,0.000
1641102671414688000,2022-01-02-05:51:11,10.1.1.4,183,-0.060,-0.060,-0.060,0.000,0.000,0.000
1641102671614415872,2022-01-02-05:51:11,10.1.1.4,183,-0.070,-0.070,-0.070,0.000,0.000,0.000
1641102671811515136,2022-01-02-05:51:11,10.1.1.4,179,-0.080,-0.080,-0.080,0.000,0.000,0.000
1641102672011371008,2022-01-02-05:51:12,10.1.1.4,178,-0.090,-0.090,-0.090,0.000,0.000,0.000
1641102672231339008,2022-01-02-05:51:12,10.1.1.4,189,-0.100,-0.100,-0.100,0.000,0.000,0.000
1641102672430691072,2022-01-02-05:51:12,10.1.1.4,176,-0.110,-0.110,-0.110,0.000,0.000,0.000
1641102672653876992,2022-01-02-05:51:12,10.1.1.4,191,-0.120,-0.120,-0.120,0.000,0.000,0.000
1641102672849728000,2022-01-02-05:51:12,10.1.1.4,185,-0.130,-0.130,-0.130,0.000,0.000,0.000
1641102673050117888,2022-01-02-05:51:13,10.1.1.4,183,-0.140,-0.140,-0.140,0.000,0.000,0.000
1641102673249889024,2022-01-02-05:51:13,10.1.1.4,182,-0.150,-0.150,-0.150,0.000,0.000,0.000
1641102673449681920,2022-01-02-05:51:13,10.1.1.4,181,-0.160,-0.160,-0.160,0.000,0.000,0.000
1641102673648726016,2022-01-02-05:51:13,10.1.1.4,179,-0.170,-0.170,-0.170,0.000,0.000,0.000
1641102673859038976,2022-01-02-05:51:13,10.1.1.4,186,-0.180,-0.180,-0.180,0.000,0.000,0.000
1641102674068296960,2022-01-02-05:51:14,10.1.1.4,184,-0.190,-0.190,-0.190,0.000,0.000,0.000
1641102674273412864,2022-01-02-05:51:14,10.1.1.4,186,-0.200,-0.200,-0.200,0.000,0.000,0.000
1641102674474158080,2022-01-02-05:51:14,10.1.1.4,189,-0.210,-0.210,-0.210,0.000,0.000,0.000
1641102674669394944,2022-01-02-05:51:14,10.1.1.4,183,-0.220,-0.220,-0.220,0.000,0.000,0.000
1641102674868231168,2022-01-02-05:51:14,10.1.1.4,180,-0.230,-0.230,-0.230,0.000,0.000,0.000
1641102675068214784,2022-01-02-05:51:15,10.1.1.4,174,-0.240,-0.240,-0.240,0.000,0.000,0.000
1641102675267796992,2022-01-02-05:51:15,10.1.1.4,173,-0.250,-0.250,-0.250,0.000,0.000,0.000
1641102675466532864,2022-01-02-05:51:15,10.1.1.4,169,-0.260,-0.260,-0.260,0.000,0.000,0.000
1641102675685947904,2022-01-02-05:51:15,10.1.1.4,186,-0.270,-0.270,-0.270,0.000,0.000,0.000
1641102675885998848,2022-01-02-05:51:15,10.1.1.4,186,-0.280,-0.280,-0.280,0.000,0.000,0.000
1641102676085633024,2022-01-02-05:51:16,10.1.1.4,185,-0.290,-0.290,-0.290,0.000,0.000,0.000
1641102676297221888,2022-01-02-05:51:16,10.1.1.4,196,-0.300,-0.300,-0.300,0.000,0.000,0.000
1641102676484952832,2022-01-02-05:51:16,10.1.1.4,183,-0.310,-0.310,-0.310,0.000,0.000,0.000
1641102676684314880,2022-01-02-05:51:16,10.1.1.4,181,-0.320,-0.320,-0.320,0.000,0.000,0.000
1641102676888616960,2022-01-02-05:51:16,10.1.1.4,180,-0.330,-0.330,-0.330,0.000,0.000,0.000
1641102677084189952,2022-01-02-05:51:17,10.1.1.4,175,-0.340,-0.340,-0.340,0.000,0.000,0.000
1641102677284770048,2022-01-02-05:51:17,10.1.1.4,175,-0.350,-0.350,-0.350,0.000,0.000,0.000
1641102677486896128,2022-01-02-05:51:17,10.1.1.4,177,-0.360,-0.360,-0.360,0.000,0.000,0.000
1641102677684464896,2022-01-02-05:51:17,10.1.1.4,173,-0.370,-0.370,-0.370,0.000,0.000,0.000
1641102677882912000,2022-01-02-05:51:17,10.1.1.4,172,-0.380,-0.380,-0.380,0.000,0.000,0.000
1641102678082742016,2022-01-02-05:51:18,10.1.1.4,170,-0.390,-0.390,-0.390,0.000,0.000,0.000
1641102678283025152,2022-01-02-05:51:18,10.1.1.4,170,-0.400,-0.400,-0.400,0.000,0.000,0.000
1641102678481688064,2022-01-02-05:51:18,10.1.1.4,168,-0.410,-0.410,-0.410,0.000,0.000,0.000
1641102678681870080,2022-01-02-05:51:18,10.1.1.4,167,-0.420,-0.420,-0.420,0.000,0.000,0.000
1641102678881401088,2022-01-02-05:51:18,10.1.1.4,167,-0.430,-0.430,-0.430,0.000,0.000,0.000
1641102679081056000,2022-01-02-05:51:19,10.1.1.4,166,-0.440,-0.440,-0.440,0.000,0.000,0.000
1641102679281219840,2022-01-02-05:51:19,10.1.1.4,165,-0.450,-0.450,-0.450,0.000,0.000,0.000
1641102679480680960,2022-01-02-05:51:19,10.1.1.4,164,-0.460,-0.460,-0.460,0.000,0.000,0.000
1641102679680531968,2022-01-02-05:51:19,10.1.1.4,163,-0.470,-0.470,-0.470,0.000,0.000,0.000
1641102679880687872,2022-01-02-05:51:19,10.1.1.4,163,-0.480,-0.480,-0.480,0.000,0.000,0.000
1641102680100176128,2022-01-02-05:51:20,10.1.1.4,182,-0.490,-0.490,-0.490,0.000,0.000,0.000
1641102680302690048,2022-01-02-05:51:20,10.1.1.4,183,-0.480,-0.480,-0.480,0.000,0.000,0.000
1641102680499331840,2022-01-02-05:51:20,10.1.1.4,175,-0.470,-0.470,-0.470,0.000,0.000,0.000
1641102680698822912,2022-01-02-05:51:20,10.1.1.4,173,-0.460,-0.460,-0.460,0.000,0.000,0.000
1641102680897756160,2022-01-02-05:51:20,10.1.1.4,171,-0.450,-0.450,-0.450,0.000,0.000,0.000
1641102681097414144,2022-01-02-05:51:21,10.1.1.4,170,-0.440,-0.440,-0.440,0.000,0.000,0.000
1641102681298571008,2022-01-02-05:51:21,10.1.1.4,170,-0.430,-0.430,-0.430,0.000,0.000,0.000
1641102681503315968,2022-01-02-05:51:21,10.1.1.4,175,-0.420,-0.420,-0.420,0.000,0.000,0.000
1641102681697426176,2022-01-02-05:51:21,10.1.1.4,168,-0.410,-0.410,-0.410,0.000,0.000,0.000
1641102681896663808,2022-01-02-05:51:21,10.1.1.4,166,-0.400,-0.400,-0.400,0.000,0.000,0.000
1641102682096146176,2022-01-02-05:51:22,10.1.1.4,165,-0.390,-0.390,-0.390,0.000,0.000,0.000
1641102682296061952,2022-01-02-05:51:22,10.1.1.4,164,-0.380,-0.380,-0.380,0.000,0.000,0.000
1641102682495675136,2022-01-02-05:51:22,10.1.1.4,163,-0.370,-0.370,-0.370,0.000,0.000,0.000
1641102682695555072,2022-01-02-05:51:22,10.1.1.4,162,-0.360,-0.360,-0.360,0.000,0.000,0.000
1641102682896364800,2022-01-02-05:51:22,10.1.1.4,161,-0.350,-0.350,-0.350,0.000,0.000,0.000
1641102683098819072,2022-01-02-05:51:23,10.1.1.4,162,-0.340,-0.340,-0.340,0.000,0.000,0.000
1641102683314208000,2022-01-02-05:51:23,10.1.1.4,176,-0.330,-0.330,-0.330,0.000,0.000,0.000
1641102683513793024,2022-01-02-05:51:23,10.1.1.4,175,-0.320,-0.320,-0.320,0.000,0.000,0.000
1641102683713257984,2022-01-02-05:51:23,10.1.1.4,173,-0.310,-0.310,-0.310,0.000,0.000,0.000
1641102683916352000,2022-01-02-05:51:23,10.1.1.4,173,-0.300,-0.300,-0.300,0.000,0.000,0.000
1641102684116677888,2022-01-02-05:51:24,10.1.1.4,173,-0.290,-0.290,-0.290,0.000,0.000,0.000
1641102684315079936,2022-01-02-05:51:24,10.1.1.4,171,-0.280,-0.280,-0.280,0.000,0.000,0.000
1641102684516464896,2022-01-02-05:51:24,10.1.1.4,171,-0.270,-0.270,-0.270,0.000,0.000,0.000
1641102684717004032,2022-01-02-05:51:24,10.1.1.4,171,-0.260,-0.260,-0.260,0.000,0.000,0.000
1641102684917690880,2022-01-02-05:51:24,10.1.1.4,171,-0.250,-0.250,-0.250,0.000,0.000,0.000
1641102685118379008,2022-01-02-05:51:25,10.1.1.4,172,-0.240,-0.240,-0.240,0.000,0.000,0.000
1641102685319497216,2022-01-02-05:51:25,10.1.1.4,172,-0.230,-0.230,-0.230,0.000,0.000,0.000
1641102685530118912,2022-01-02-05:51:25,10.1.1.4,181,-0.220,-0.220,-0.220,0.000,0.000,0.000
1641102685721095168,2022-01-02-05:51:25,10.1.1.4,171,-0.210,-0.210,-0.210,0.000,0.000,0.000
1641102685923248128,2022-01-02-05:51:25,10.1.1.4,172,-0.200,-0.200,-0.200,0.000,0.000,0.000
1641102686123128064,2022-01-02-05:51:26,10.1.1.4,171,-0.190,-0.190,-0.190,0.000,0.000,0.000
1641102686323892224,2022-01-02-05:51:26,10.1.1.4,171,-0.180,-0.180,-0.180,0.000,0.000,0.000
1641102686524743936,2022-01-02-05:51:26,10.1.1.4,171,-0.170,-0.170,-0.170,0.000,0.000,0.000
1641102686726782208,2022-01-02-05:51:26,10.1.1.4,172,-0.160,-0.160,-0.160,0.000,0.000,0.000
1641102686925957888,2022-01-02-05:51:26,10.1.1.4,171,-0.150,-0.150,-0.150,0.000,0.000,0.000
1641102687126606080,2022-01-02-05:51:27,10.1.1.4,171,-0.140,-0.140,-0.140,0.000,0.000,0.000
1641102687527877120,2022-01-02-05:51:27,10.1.1.4,170,-0.120,-0.120,-0.120,0.000,0.000,0.000
1641102687754875904,2022-01-02-05:51:27,10.1.1.4,197,-0.110,-0.110,-0.110,0.000,0.000,0.000
1641102687950035968,2022-01-02-05:51:27,10.1.1.4,191,-0.100,-0.100,-0.100,0.000,0.000,0.000
1641102688154102016,2022-01-02-05:51:28,10.1.1.4,195,-0.090,-0.090,-0.090,0.000,0.000,0.000
1641102688349711872,2022-01-02-05:51:28,10.1.1.4,190,-0.080,-0.080,-0.080,0.000,0.000,0.000
1641102688551804160,2022-01-02-05:51:28,10.1.1.4,191,-0.070,-0.070,-0.070,0.000,0.000,0.000
1641102688751036928,2022-01-02-05:51:28,10.1.1.4,187,-0.060,-0.060,-0.060,0.000,0.000,0.000
1641102688955537152,2022-01-02-05:51:28,10.1.1.4,186,-0.050,-0.050,-0.050,0.000,0.000,0.000
1641102689151483904,2022-01-02-05:51:29,10.1.1.4,185,-0.040,-0.040,-0.040,0.000,0.000,0.000
1641102689352142080,2022-01-02-05:51:29,10.1.1.4,185,-0.030,-0.030,-0.030,0.000,0.000,0.000
1641102689554106112,2022-01-02-05:51:29,10.1.1.4,186,-0.020,-0.020,-0.020,0.000,0.000,0.000
1641102689752982016,2022-01-02-05:51:29,10.1.1.4,184,-0.010,-0.010,-0.010,0.000,0.000,0.000
1641102689953090048,2022-01-02-05:51:29,10.1.1.4,184,0.000,0.000,0.000,0.000,0.000,0.000
1641102690153575936,2022-01-02-05:51:30,10.1.1.4,183,-0.010,-0.010,-0.010,0.000,0.000,0.000
1641102690353854976,2022-01-02-05:51:30,10.1.1.4,182,-0.020,-0.020,-0.020,0.000,0.000,0.000
1641102690554061056,2022-01-02-05:51:30,10.1.1.4,182,-0.030,-0.030,-0.030,0.000,0.000,0.000
1641102690754304768,2022-01-02-05:51:30,10.1.1.4,181,-0.040,-0.040,-0.040,0.000,0.000,0.000
1641102690954617856,2022-01-02-05:51:30,10.1.1.4,181,-0.050,-0.050,-0.050,0.000,0.000,0.000
1641102691154868992,2022-01-02-05:51:31,10.1.1.4,181,-0.060,-0.060,-0.060,0.000,0.000,0.000
1641102691356271104,2022-01-02-05:51:31,10.1.1.4,182,-0.070,-0.070,-0.070,0.000,0.000,0.000
1641102691558008064,2022-01-02-05:51:31,10.1.1.4,182,-0.080,-0.080,-0.080,0.000,0.000,0.000
1641102691758973952,2022-01-02-05:51:31,10.1.1.4,182,-0.090,-0.090,-0.090,0.000,0.000,0.000
1641102691956299008,2022-01-02-05:51:31,10.1.1.4,179,-0.100,-0.100,-0.100,0.000,0.000,0.000
1641102692175948032,2022-01-02-05:51:32,10.1.1.4,197,-0.110,-0.110,-0.110,0.000,0.000,0.000
1641102692376769024,2022-01-02-05:51:32,10.1.1.4,197,-0.120,-0.120,-0.120,0.000,0.000,0.000
1641102692576397056,2022-01-02-05:51:32,10.1.1.4,197,-0.130,-0.130,-0.130,0.000,0.000,0.000
1641102692775929856,2022-01-02-05:51:32,10.1.1.4,196,-0.140,-0.140,-0.140,0.000,0.000,0.000
1641102692976561152,2022-01-02-05:51:32,10.1.1.4,196,-0.150,-0.150,-0.150,0.000,0.000,0.000
1641102693176169984,2022-01-02-05:51:33,10.1.1.4,195,-0.160,-0.160,-0.160,0.000,0.000,0.000
1641102693381491968,2022-01-02-05:51:33,10.1.1.4,199,-0.170,-0.170,-0.170,0.000,0.000,0.000
1641102693576333056,2022-01-02-05:51:33,10.1.1.4,194,-0.180,-0.180,-0.180,0.000,0.000,0.000
1641102693776609024,2022-01-02-05:51:33,10.1.1.4,194,-0.190,-0.190,-0.190,0.000,0.000,0.000
1641102693980562944,2022-01-02-05:51:33,10.1.1.4,197,-0.200,-0.200,-0.200,0.000,0.000,0.000
1641102694176878080,2022-01-02-05:51:34,10.1.1.4,193,-0.210,-0.210,-0.210,0.000,0.000,0.000
1641102694376813824,2022-01-02-05:51:34,10.1.1.4,191,-0.220,-0.220,-0.220,0.000,0.000,0.000
1641102694577351936,2022-01-02-05:51:34,10.1.1.4,191,-0.230,-0.230,-0.230,0.000,0.000,0.000
1641102694778006016,2022-01-02-05:51:34,10.1.1.4,190,-0.240,-0.240,-0.240,0.000,0.000,0.000
1641102694977641984,2022-01-02-05:51:34,10.1.1.4,190,-0.250,-0.250,-0.250,0.000,0.000,0.000
1641102695177676800,2022-01-02-05:51:35,10.1.1.4,189,-0.260,-0.260,-0.260,0.000,0.000,0.000
1641102695376583168,2022-01-02-05:51:35,10.1.1.4,187,-0.270,-0.270,-0.270,0.000,0.000,0.000
1641102695577644032,2022-01-02-05:51:35,10.1.1.4,188,-0.280,-0.280,-0.280,0.000,0.000,0.000
1641102695776993024,2022-01-02-05:51:35,10.1.1.4,186,-0.290,-0.290,-0.290,0.000,0.000,0.000
1641102695976859136,2022-01-02-05:51:35,10.1.1.4,185,-0.300,-0.300,-0.300,0.000,0.000,0.000
1641102696188133120,2022-01-02-05:51:36,10.1.1.4,196,-0.310,-0.310,-0.310,0.000,0.000,0.000
1641102696379815168,2022-01-02-05:51:36,10.1.1.4,187,-0.320,-0.320,-0.320,0.000,0.000,0.000
1641102696576476160,2022-01-02-05:51:36,10.1.1.4,183,-0.330,-0.330,-0.330,0.000,0.000,0.000
1641102696787215872,2022-01-02-05:51:36,10.1.1.4,193,-0.340,-0.340,-0.340,0.000,0.000,0.000
1641102696976088064,2022-01-02-05:51:36,10.1.1.4,181,-0.350,-0.350,-0.350,0.000,0.000,0.000
1641102697176420864,2022-01-02-05:51:37,10.1.1.4,180,-0.360,-0.360,-0.360,0.000,0.000,0.000
1641102697399794176,2022-01-02-05:51:37,10.1.1.4,198,-0.370,-0.370,-0.370,0.000,0.000,0.000
1641102697596571904,2022-01-02-05:51:37,10.1.1.4,194,-0.380,-0.380,-0.380,0.000,0.000,0.000
1641102697796015872,2022-01-02-05:51:37,10.1.1.4,193,-0.390,-0.390,-0.390,0.000,0.000,0.000
1641102697995707904,2022-01-02-05:51:37,10.1.1.4,192,-0.400,-0.400,-0.400,0.000,0.000,0.000
1641102698201881856,2022-01-02-05:51:38,10.1.1.4,193,-0.410,-0.410,-0.410,0.000,0.000,0.000
1641102698402496000,2022-01-02-05:51:38,10.1.1.4,196,-0.420,-0.420,-0.420,0.000,0.000,0.000
1641102698601402880,2022-01-02-05:51:38,10.1.1.4,195,-0.430,-0.430,-0.430,0.000,0.000,0.000
1641102698797838848,2022-01-02-05:51:38,10.1.1.4,189,-0.440,-0.440,-0.440,0.000,0.000,0.000
1641102699001496064,2022-01-02-05:51:39,10.1.1.4,188,-0.450,-0.450,-0.450,0.000,0.000,0.000
1641102699195825152,2022-01-02-05:51:39,10.1.1.4,185,-0.460,-0.460,-0.460,0.000,0.000,0.000
1641102699399232000,2022-01-02-05:51:39,10.1.1.4,187,-0.470,-0.470,-0.470,0.000,0.000,0.000
1641102699601545216,2022-01-02-05:51:39,10.1.1.4,188,-0.480,-0.480,-0.480,0.000,0.000,0.000
1641102699800288000,2022-01-02-05:51:39,10.1.1.4,186,-0.490,-0.490,-0.490,0.000,0.000,0.000
1641102700018665984,2022-01-02-05:51:40,10.1.1.4,198,-0.480,-0.480,-0.480,0.000,0.000,0.000
1641102700214754048,2022-01-02-05:51:40,10.1.1.4,193,-0.470,-0.470,-0.470,0.000,0.000,0.000
1641102700414556928,2022-01-02-05:51:40,10.1.1.4,192,-0.460,-0.460,-0.460,0.000,0.000,0.000
1641102700616950016,2022-01-02-05:51:40,10.1.1.4,194,-0.450,-0.450,-0.450,0.000,0.000,0.000
1641102700815566080,2022-01-02-05:51:40,10.1.1.4,192,-0.440,-0.440,-0.440,0.000,0.000,0.000
1641102701013047040,2022-01-02-05:51:41,10.1.1.4,188,-0.430,-0.430,-0.430,0.000,0.000,0.000
1641102701212779008,2022-01-02-05:51:41,10.1.1.4,187,-0.420,-0.420,-0.420,0.000,0.000,0.000
1641102701412779008,2022-01-02-05:51:41,10.1.1.4,186,-0.410,-0.410,-0.410,0.000,0.000,0.000
1641102701612468992,2022-01-02-05:51:41,10.1.1.4,185,-0.400,-0.400,-0.400,0.000,0.000,0.000
1641102701813442048,2022-01-02-05:51:41,10.1.1.4,185,-0.390,-0.390,-0.390,0.000,0.000,0.000
1641102702013156864,2022-01-02-05:51:42,10.1.1.4,184,-0.380,-0.380,-0.380,0.000,0.000,0.000
1641102702211981056,2022-01-02-05:51:42,10.1.1.4,182,-0.370,-0.370,-0.370,0.000,0.000,0.000
1641102702412151040,2022-01-02-05:51:42,10.1.1.4,182,-0.360,-0.360,-0.360,0.000,0.000,0.000
1641102702612240128,2022-01-02-05:51:42,10.1.1.4,181,-0.350,-0.350,-0.350,0.000,0.000,0.000
1641102702811252992,2022-01-02-05:51:42,10.1.1.4,180,-0.340,-0.340,-0.340,0.000,0.000,0.000
1641102703013158144,2022-01-02-05:51:43,10.1.1.4,181,-0.330,-0.330,-0.330,0.000,0.000,0.000
1641102703210508032,2022-01-02-05:51:43,10.1.1.4,178,-0.320,-0.320,-0.320,0.000,0.000,0.000
1641102703410784000,2022-01-02-05:51:43,10.1.1.4,176,-0.310,-0.310,-0.310,0.000,0.000,0.000
1641102703618576896,2022-01-02-05:51:43,10.1.1.4,182,-0.300,-0.300,-0.300,0.000,0.000,0.000
1641102703833064192,2022-01-02-05:51:43,10.1.1.4,194,-0.290,-0.290,-0.290,0.000,0.000,0.000
1641102704030503936,2022-01-02-05:51:44,10.1.1.4,191,-0.280,-0.280,-0.280,0.000,0.000,0.000
1641102704233114112,2022-01-02-05:51:44,10.1.1.4,193,-0.270,-0.270,-0.270,0.000,0.000,0.000
1641102704429724928,2022-01-02-05:51:44,10.1.1.4,189,-0.260,-0.260,-0.260,0.000,0.000,0.000
1641102704633096960,2022-01-02-05:51:44,10.1.1.4,188,-0.250,-0.250,-0.250,0.000,0.000,0.000
1641102704829491968,2022-01-02-05:51:44,10.1.1.4,187,-0.240,-0.240,-0.240,0.000,0.000,0.000
1641102705028870144,2022-01-02-05:51:45,10.1.1.4,186,-0.230,-0.230,-0.230,0.000,0.000,0.000
1641102705229229056,2022-01-02-05:51:45,10.1.1.4,186,-0.220,-0.220,-0.220,0.000,0.000,0.000
1641102705432436992,2022-01-02-05:51:45,10.1.1.4,189,-0.210,-0.210,-0.210,0.000,0.000,0.000
1641102705628537856,2022-01-02-05:51:45,10.1.1.4,184,-0.200,-0.200,-0.200,0.000,0.000,0.000
1641102705829485824,2022-01-02-05:51:45,10.1.1.4,185,-0.190,-0.190,-0.190,0.000,0.000,0.000
1641102706027362048,2022-01-02-05:51:46,10.1.1.4,182,-0.180,-0.180,-0.180,0.000,0.000,0.000
1641102706226872064,2022-01-02-05:51:46,10.1.1.4,182,-0.170,-0.170,-0.170,0.000,0.000,0.000
1641102706426786816,2022-01-02-05:51:46,10.1.1.4,181,-0.160,-0.160,-0.160,0.000,0.000,0.000
1641102706626283008,2022-01-02-05:51:46,10.1.1.4,180,-0.150,-0.150,-0.150,0.000,0.000,0.000
1641102706825902080,2022-01-02-05:51:46,10.1.1.4,179,-0.140,-0.140,-0.140,0.000,0.000,0.000
1641102707026180864,2022-01-02-05:51:47,10.1.1.4,178,-0.130,-0.130,-0.130,0.000,0.000,0.000
1641102707225893888,2022-01-02-05:51:47,10.1.1.4,174,-0.120,-0.120,-0.120,0.000,0.000,0.000
1641102707425257984,2022-01-02-05:51:47,10.1.1.4,173,-0.110,-0.110,-0.110,0.000,0.000,0.000
1641102707626418944,2022-01-02-05:51:47,10.1.1.4,172,-0.100,-0.100,-0.100,0.000,0.000,0.000
1641102707824888064,2022-01-02-05:51:47,10.1.1.4,170,-0.090,-0.090,-0.090,0.000,0.000,0.000
1641102708024432896,2022-01-02-05:51:48,10.1.1.4,169,-0.080,-0.080,-0.080,0.000,0.000,0.000
1641102708224296192,2022-01-02-05:51:48,10.1.1.4,168,-0.070,-0.070,-0.070,0.000,0.000,0.000
1641102708424829952,2022-01-02-05:51:48,10.1.1.4,168,-0.060,-0.060,-0.060,0.000,0.000,0.000
1641102708624113152,2022-01-02-05:51:48,10.1.1.4,166,-0.050,-0.050,-0.050,0.000,0.000,0.000
1641102708843260928,2022-01-02-05:51:48,10.1.1.4,185,-0.040,-0.040,-0.040,0.000,0.000,0.000
1641102709043677952,2022-01-02-05:51:49,10.1.1.4,184,-0.030,-0.030,-0.030,0.000,0.000,0.000
1641102709242609152,2022-01-02-05:51:49,10.1.1.4,183,-0.020,-0.020,-0.020,0.000,0.000,0.000
1641102709442935040,2022-01-02-05:51:49,10.1.1.4,183,-0.010,-0.010,-0.010,0.000,0.000,0.000
1641102709642525952,2022-01-02-05:51:49,10.1.1.4,182,0.000,0.000,0.000,0.000,0.000,0.000
1641102709842827008,2022-01-02-05:51:49,10.1.1.4,180,-0.010,-0.010,-0.010,0.000,0.000,0.000
1641102710041763072,2022-01-02-05:51:50,10.1.1.4,179,-0.020,-0.020,-0.020,0.000,0.000,0.000
1641102710241282048,2022-01-02-05:51:50,10.1.1.4,178,-0.030,-0.030,-0.030,0.000,0.000,0.000
1641102710441754112,2022-01-02-05:51:50,10.1.1.4,177,-0.040,-0.040,-0.040,0.000,0.000,0.000
1641102710640548864,2022-01-02-05:51:50,10.1.1.4,175,-0.050,-0.050,-0.050,0.000,0.000,0.000
1641102710840722176,2022-01-02-05:51:50,10.1.1.4,175,-0.060,-0.060,-0.060,0.000,0.000,0.000
1641102711040129792,2022-01-02-05:51:51,10.1.1.4,174,-0.070,-0.070,-0.070,0.000,0.000,0.000
1641102711239403008,2022-01-02-05:51:51,10.1.1.4,172,-0.080,-0.080,-0.080,0.000,0.000,0.000
1641102711439852032,2022-01-02-05:51:51,10.1.1.4,172,-0.090,-0.090,-0.090,0.000,0.000,0.000
1641102711640837888,2022-01-02-05:51:51,10.1.1.4,171,-0.100,-0.100,-0.100,0.000,0.000,0.000
1641102711838639104,2022-01-02-05:51:51,10.1.1.4,168,-0.110,-0.110,-0.110,0.000,0.000,0.000
1641102712038695936,2022-01-02-05:51:52,10.1.1.4,167,-0.120,-0.120,-0.120,0.000,0.000,0.000
1641102712238429184,2022-01-02-05:51:52,10.1.1.4,165,-0.130,-0.130,-0.130,0.000,0.000,0.000
1641102712438508032,2022-01-02-05:51:52,10.1.1.4,165,-0.140,-0.140,-0.140,0.000,0.000,0.000
1641102712637110016,2022-01-02-05:51:52,10.1.1.4,162,-0.150,-0.150,-0.150,0.000,0.000,0.000
1641102712837414912,2022-01-02-05:51:52,10.1.1.4,162,-0.160,-0.160,-0.160,0.000,0.000,0.000
1641102713037794048,2022-01-02-05:51:53,10.1.1.4,161,-0.170,-0.170,-0.170,0.000,0.000,0.000
1641102713236242944,2022-01-02-05:51:53,10.1.1.4,159,-0.180,-0.180,-0.180,0.000,0.000,0.000
1641102713456140032,2022-01-02-05:51:53,10.1.1.4,178,-0.190,-0.190,-0.190,0.000,0.000,0.000
1641102713656097792,2022-01-02-05:51:53,10.1.1.4,176,-0.200,-0.200,-0.200,0.000,0.000,0.000
1641102713856194048,2022-01-02-05:51:53,10.1.1.4,176,-0.210,-0.210,-0.210,0.000,0.000,0.000
1641102714056940032,2022-01-02-05:51:54,10.1.1.4,176,-0.220,-0.220,-0.220,0.000,0.000,0.000
1641102714256217856,2022-01-02-05:51:54,10.1.1.4,175,-0.230,-0.230,-0.230,0.000,0.000,0.000
1641102714454742016,2022-01-02-05:51:54,10.1.1.4,173,-0.240,-0.240,-0.240,0.000,0.000,0.000
1641102714654903808,2022-01-02-05:51:54,10.1.1.4,173,-0.250,-0.250,-0.250,0.000,0.000,0.000
1641102714854330112,2022-01-02-05:51:54,10.1.1.4,172,-0.260,-0.260,-0.260,0.000,0.000,0.000
1641102715053477888,2022-01-02-05:51:55,10.1.1.4,170,-0.270,-0.270,-0.270,0.000,0.000,0.000
1641102715256617984,2022-01-02-05:51:55,10.1.1.4,172,-0.280,-0.280,-0.280,0.000,0.000,0.000
1641102715453330944,2022-01-02-05:51:55,10.1.1.4,168,-0.290,-0.290,-0.290,0.000,0.000,0.000
1641102715653248000,2022-01-02-05:51:55,10.1.1.4,168,-0.300,-0.300,-0.300,0.000,0.000,0.000
1641102715852583936,2022-01-02-05:51:55,10.1.1.4,165,-0.310,-0.310,-0.310,0.000,0.000,0.000
1641102716052386048,2022-01-02-05:51:56,10.1.1.4,162,-0.320,-0.320,-0.320,0.000,0.000,0.000
1641102716254362112,2022-01-02-05:51:56,10.1.1.4,164,-0.330,-0.330,-0.330,0.000,0.000,0.000
1641102716454750976,2022-01-02-05:51:56,10.1.1.4,164,-0.340,-0.340,-0.340,0.000,0.000,0.000
1641102716655792896,2022-01-02-05:51:56,10.1.1.4,163,-0.350,-0.350,-0.350,0.000,0.000,0.000
1641102716856689920,2022-01-02-05:51:56,10.1.1.4,163,-0.360,-0.360,-0.360,0.000,0.000,0.000
1641102717057432832,2022-01-02-05:51:57,10.1.1.4,161,-0.370,-0.370,-0.370,0.000,0.000,0.000
1641102717258692096,2022-01-02-05:51:57,10.1.1.4,162,-0.380,-0.380,-0.380,0.000,0.000,0.000
1641102717459793152,2022-01-02-05:51:57,10.1.1.4,162,-0.390,-0.390,-0.390,0.000,0.000,0.000
1641102717660239872,2022-01-02-05:51:57,10.1.1.4,162,-0.400,-0.400,-0.400,0.000,0.000,0.000
1641102717881249024,2022-01-02-05:51:57,10.1.1.4,183,-0.410,-0.410,-0.410,0.000,0.000,0.000
1641102718082245120,2022-01-02-05:51:58,10.1.1.4,183,-0.420,-0.420,-0.420,0.000,0.000,0.000
1641102718282924800,2022-01-02-05:51:58,10.1.1.4,183,-0.430,-0.430,-0.430,0.000,0.000,0.000
1641102718483938816,2022-01-02-05:51:58,10.1.1.4,183,-0.440,-0.440,-0.440,0.000,0.000,0.000
1641102718684736000,2022-01-02-05:51:58,10.1.1.4,183,-0.450,-0.450,-0.450,0.000,0.000,0.000
1641102718885353984,2022-01-02-05:51:58,10.1.1.4,183,-0.460,-0.460,-0.460,0.000,0.000,0.000
1641102719087661056,2022-01-02-05:51:59,10.1.1.4,184,-0.470,-0.470,-0.470,0.000,0.000,0.000
1641102719286686976,2022-01-02-05:51:59,10.1.1.4,182,-0.480,-0.480,-0.480,0.000,0.000,0.000
1641102719486974976,2022-01-02-05:51:59,10.1.1.4,181,-0.490,-0.490,-0.490,0.000,0.000,0.000
1641102719688391936,2022-01-02-05:51:59,10.1.1.4,182,-0.480,-0.480,-0.480,0.000,0.000,0.000
1641102719888272896,2022-01-02-05:51:59,10.1.1.4,182,-0.470,-0.470,-0.470,0.000,0.000,0.000
1641102720088956160,2022-01-02-05:52:00,10.1.1.4,182,-0.460,-0.460,-0.460,0.000,0.000,0.000
1641102720289833984,2022-01-02-05:52:00,10.1.1.4,182,-0.450,-0.450,-0.450,0.000,0.000,0.000
1641102720490521856,2022-01-02-05:52:00,10.1.1.4,182,-0.440,-0.440,-0.440,0.000,0.000,0.000
1641102720690455808,2022-01-02-05:52:00,10.1.1.4,181,-0.430,-0.430,-0.430,0.000,0.000,0.000
1641102720890387968,2022-01-02-05:52:00,10.1.1.4,181,-0.420,-0.420,-0.420,0.000,0.000,0.000
1641102721090929152,2022-01-02-05:52:01,10.1.1.4,181,-0.410,-0.410,-0.410,0.000,0.000,0.000
1641102721291929856,2022-01-02-05:52:01,10.1.1.4,181,-0.400,-0.400,-0.400,0.000,0.000,0.000
1641102721491846144,2022-01-02-05:52:01,10.1.1.4,181,-0.390,-0.390,-0.390,0.000,0.000,0.000
1641102721691879936,2022-01-02-05:52:01,10.1.1.4,179,-0.380,-0.380,-0.380,0.000,0.000,0.000
1641102721892929024,2022-01-02-05:52:01,10.1.1.4,180,-0.370,-0.370,-0.370,0.000,0.000,0.000
1641102722092880896,2022-01-02-05:52:02,10.1.1.4,179,-0.360,-0.360,-0.360,0.000,0.000,0.000
1641102722293812992,2022-01-02-05:52:02,10.1.1.4,179,-0.350,-0.350,-0.350,0.000,0.000,0.000
1641102722496856064,2022-01-02-05:52:02,10.1.1.4,176,-0.340,-0.340,-0.340,0.000,0.000,0.000
1641102722714238976,2022-01-02-05:52:02,10.1.1.4,196,-0.330,-0.330,-0.330,0.000,0.000,0.000
1641102722914167040,2022-01-02-05:52:02,10.1.1.4,195,-0.320,-0.320,-0.320,0.000,0.000,0.000
1641102723114268928,2022-01-02-05:52:03,10.1.1.4,195,-0.310,-0.310,-0.310,0.000,0.000,0.000
1641102723314388992,2022-01-02-05:52:03,10.1.1.4,195,-0.300,-0.300,-0.300,0.000,0.000,0.000
1641102723514733056,2022-01-02-05:52:03,10.1.1.4,194,-0.290,-0.290,-0.290,0.000,0.000,0.000
1641102723714786048,2022-01-02-05:52:03,10.1.1.4,194,-0.280,-0.280,-0.280,0.000,0.000,0.000
1641102723915932928,2022-01-02-05:52:03,10.1.1.4,195,-0.270,-0.270,-0.270,0.000,0.000,0.000
1641102724115720960,2022-01-02-05:52:04,10.1.1.4,194,-0.260,-0.260,-0.260,0.000,0.000,0.000
1641102724315901952,2022-01-02-05:52:04,10.1.1.4,193,-0.250,-0.250,-0.250,0.000,0.000,0.000
1641102724517549056,2022-01-02-05:52:04,10.1.1.4,194,-0.240,-0.240,-0.240,0.000,0.000,0.000
1641102724715578112,2022-01-02-05:52:04,10.1.1.4,192,-0.230,-0.230,-0.230,0.000,0.000,0.000
1641102724915714048,2022-01-02-05:52:04,10.1.1.4,192,-0.220,-0.220,-0.220,0.000,0.000,0.000
1641102725117115904,2022-01-02-05:52:05,10.1.1.4,192,-0.210,-0.210,-0.210,0.000,0.000,0.000
1641102725315962112,2022-01-02-05:52:05,10.1.1.4,190,-0.200,-0.200,-0.200,0.000,0.000,0.000
1641102725516168960,2022-01-02-05:52:05,10.1.1.4,190,-0.190,-0.190,-0.190,0.000,0.000,0.000
1641102725717763072,2022-01-02-05:52:05,10.1.1.4,190,-0.180,-0.180,-0.180,0.000,0.000,0.000
1641102725920037888,2022-01-02-05:52:05,10.1.1.4,193,-0.170,-0.170,-0.170,0.000,0.000,0.000
1641102726116205056,2022-01-02-05:52:06,10.1.1.4,188,-0.160,-0.160,-0.160,0.000,0.000,0.000
1641102726321176064,2022-01-02-05:52:06,10.1.1.4,193,-0.150,-0.150,-0.150,0.000,0.000,0.000
1641102726516204032,2022-01-02-05:52:06,10.1.1.4,187,-0.140,-0.140,-0.140,0.000,0.000,0.000
1641102726718080000,2022-01-02-05:52:06,10.1.1.4,189,-0.130,-0.130,-0.130,0.000,0.000,0.000
1641102726916454144,2022-01-02-05:52:06,10.1.1.4,187,-0.120,-0.120,-0.120,0.000,0.000,0.000
1641102727116869888,2022-01-02-05:52:07,10.1.1.4,186,-0.110,-0.110,-0.110,0.000,0.000,0.000
1641102727317902080,2022-01-02-05:52:07,10.1.1.4,186,-0.100,-0.100,-0.100,0.000,0.000,0.000
1641102727516125952,2022-01-02-05:52:07,10.1.1.4,184,-0.090,-0.090,-0.090,0.000,0.000,0.000
1641102727716214784,2022-01-02-05:52:07,10.1.1.4,183,-0.080,-0.080,-0.080,0.000,0.000,0.000
1641102727918683136,2022-01-02-05:52:07,10.1.1.4,185,-0.070,-0.070,-0.070,0.000,0.000,0.000
1641102728116046848,2022-01-02-05:52:08,10.1.1.4,182,-0.060,-0.060,-0.060,0.000,0.000,0.000
1641102728316128000,2022-01-02-05:52:08,10.1.1.4,182,-0.050,-0.050,-0.050,0.000,0.000,0.000
1641102728517505792,2022-01-02-05:52:08,10.1.1.4,182,-0.040,-0.040,-0.040,0.000,0.000,0.000
1641102728716193024,2022-01-02-05:52:08,10.1.1.4,181,-0.030,-0.030,-0.030,0.000,0.000,0.000
1641102728917758976,2022-01-02-05:52:08,10.1.1.4,180,-0.020,-0.020,-0.020,0.000,0.000,0.000
1641102729136081920,2022-01-02-05:52:09,10.1.1.4,196,-0.010,-0.010,-0.010,0.000,0.000,0.000
1641102729335618048,2022-01-02-05:52:09,10.1.1.4,195,0.000,0.000,0.000,0.000,0.000,0.000
1641102729535158016,2022-01-02-05:52:09,10.1.1.4,194,-0.010,-0.010,-0.010,0.000,0.000,0.000
1641102729735441920,2022-01-02-05:52:09,10.1.1.4,192,-0.020,-0.020,-0.020,0.000,0.000,0.000
1641102729935655168,2022-01-02-05:52:09,10.1.1.4,192,-0.030,-0.030,-0.030,0.000,0.000,0.000
1641102730135796992,2022-01-02-05:52:10,10.1.1.4,190,-0.040,-0.040,-0.040,0.000,0.000,0.000
1641102730335385088,2022-01-02-05:52:10,10.1.1.4,190,-0.050,-0.050,-0.050,0.000,0.000,0.000
1641102730535430912,2022-01-02-05:52:10,10.1.1.4,189,-0.060,-0.060,-0.060,0.000,0.000,0.000
1641102730734743040,2022-01-02-05:52:10,10.1.1.4,188,-0.070,-0.070,-0.070,0.000,0.000,0.000
1641102730935298048,2022-01-02-05:52:10,10.1.1.4,188,-0.080,-0.080,-0.080,0.000,0.000,0.000
1641102731134804992,2022-01-02-05:52:11,10.1.1.4,187,-0.090,-0.090,-0.090,0.000,0.000,0.000
1641102731334723840,2022-01-02-05:52:11,10.1.1.4,187,-0.100,-0.100,-0.100,0.000,0.000,0.000
1641102731538789888,2022-01-02-05:52:11,10.1.1.4,190,-0.110,-0.110,-0.110,0.000,0.000,0.000
1641102731734489856,2022-01-02-05:52:11,10.1.1.4,186,-0.120,-0.120,-0.120,0.000,0.000,0.000
1641102731934642944,2022-01-02-05:52:11,10.1.1.4,185,-0.130,-0.130,-0.130,0.000,0.000,0.000
1641102732134242048,2022-01-02-05:52:12,10.1.1.4,184,-0.140,-0.140,-0.140,0.000,0.000,0.000
1641102732336206080,2022-01-02-05:52:12,10.1.1.4,186,-0.150,-0.150,-0.150,0.000,0.000,0.000
1641102732542983936,2022-01-02-05:52:12,10.1.1.4,189,-0.160,-0.160,-0.160,0.000,0.000,0.000
1641102732753516800,2022-01-02-05:52:12,10.1.1.4,189,-0.170,-0.170,-0.170,0.000,0.000,0.000
1641102732953552128,2022-01-02-05:52:12,10.1.1.4,188,-0.180,-0.180,-0.180,0.000,0.000,0.000
1641102733153481984,2022-01-02-05:52:13,10.1.1.4,187,-0.190,-0.190,-0.190,0.000,0.000,0.000
1641102733352897792,2022-01-02-05:52:13,10.1.1.4,185,-0.200,-0.200,-0.200,0.000,0.000,0.000
1641102733552610048,2022-01-02-05:52:13,10.1.1.4,184,-0.210,-0.210,-0.210,0.000,0.000,0.000
1641102733755264000,2022-01-02-05:52:13,10.1.1.4,183,-0.220,-0.220,-0.220,0.000,0.000,0.000
1641102733952288000,2022-01-02-05:52:13,10.1.1.4,182,-0.230,-0.230,-0.230,0.000,0.000,0.000
1641102734151955968,2022-01-02-05:52:14,10.1.1.4,181,-0.240,-0.240,-0.240,0.000,0.000,0.000
1641102734351458048,2022-01-02-05:52:14,10.1.1.4,180,-0.250,-0.250,-0.250,0.000,0.000,0.000
1641102734556869888,2022-01-02-05:52:14,10.1.1.4,183,-0.260,-0.260,-0.260,0.000,0.000,0.000
1641102734751555072,2022-01-02-05:52:14,10.1.1.4,178,-0.270,-0.270,-0.270,0.000,0.000,0.000
1641102734951217920,2022-01-02-05:52:14,10.1.1.4,177,-0.280,-0.280,-0.280,0.000,0.000,0.000
1641102735151097088,2022-01-02-05:52:15,10.1.1.4,175,-0.290,-0.290,-0.290,0.000,0.000,0.000
1641102735350443008,2022-01-02-05:52:15,10.1.1.4,173,-0.300,-0.300,-0.300,0.000,0.000,0.000
1641102735553003008,2022-01-02-05:52:15,10.1.1.4,175,-0.310,-0.310,-0.310,0.000,0.000,0.000
1641102735770428928,2022-01-02-05:52:15,10.1.1.4,191,-0.320,-0.320,-0.320,0.000,0.000,0.000
1641102735978609920,2022-01-02-05:52:15,10.1.1.4,197,-0.330,-0.330,-0.330,0.000,0.000,0.000
1641102736173976064,2022-01-02-05:52:16,10.1.1.4,181,-0.340,-0.340,-0.340,0.000,0.000,0.000
1641102736379715840,2022-01-02-05:52:16,10.1.1.4,180,-0.350,-0.350,-0.350,0.000,0.000,0.000
1641102736576410112,2022-01-02-05:52:16,10.1.1.4,183,-0.360,-0.360,-0.360,0.000,0.000,0.000
1641102736769376000,2022-01-02-05:52:16,10.1.1.4,173,-0.370,-0.370,-0.370,0.000,0.000,0.000
1641102736994846208,2022-01-02-05:52:16,10.1.1.4,196,-0.380,-0.380,-0.380,0.000,0.000,0.000
1641102737188913152,2022-01-02-05:52:17,10.1.1.4,189,-0.390,-0.390,-0.390,0.000,0.000,0.000
1641102737389014016,2022-01-02-05:52:17,10.1.1.4,188,-0.400,-0.400,-0.400,0.000,0.000,0.000
1641102737595204096,2022-01-02-05:52:17,10.1.1.4,193,-0.410,-0.410,-0.410,0.000,0.000,0.000
1641102737788762112,2022-01-02-05:52:17,10.1.1.4,186,-0.420,-0.420,-0.420,0.000,0.000,0.000
1641102737995461888,2022-01-02-05:52:17,10.1.1.4,189,-0.430,-0.430,-0.430,0.000,0.000,0.000
1641102738192647936,2022-01-02-05:52:18,10.1.1.4,189,-0.440,-0.440,-0.440,0.000,0.000,0.000
1641102738386984960,2022-01-02-05:52:18,10.1.1.4,183,-0.450,-0.450,-0.450,0.000,0.000,0.000
1641102738591776000,2022-01-02-05:52:18,10.1.1.4,187,-0.460,-0.460,-0.460,0.000,0.000,0.000
1641102738791259136,2022-01-02-05:52:18,10.1.1.4,183,-0.470,-0.470,-0.470,0.000,0.000,0.000
1641102738986501888,2022-01-02-05:52:18,10.1.1.4,180,-0.480,-0.480,-0.480,0.000,0.000,0.000
1641102739185971968,2022-01-02-05:52:19,10.1.1.4,180,-0.490,-0.490,-0.490,0.000,0.000,0.000
1641102739385627904,2022-01-02-05:52:19,10.1.1.4,176,-0.480,-0.480,-0.480,0.000,0.000,0.000
1641102739585838080,2022-01-02-05:52:19,10.1.1.4,176,-0.470,-0.470,-0.470,0.000,0.000,0.000
1641102739792120064,2022-01-02-05:52:19,10.1.1.4,180,-0.460,-0.460,-0.460,0.000,0.000,0.000
1641102739990600960,2022-01-02-05:52:19,10.1.1.4,177,-0.450,-0.450,-0.450,0.000,0.000,0.000
1641102740184792064,2022-01-02-05:52:20,10.1.1.4,171,-0.440,-0.440,-0.440,0.000,0.000,0.000
1641102740385889024,2022-01-02-05:52:20,10.1.1.4,169,-0.430,-0.430,-0.430,0.000,0.000,0.000
1641102740586061056,2022-01-02-05:52:20,10.1.1.4,168,-0.420,-0.420,-0.420,0.000,0.000,0.000
1641102740803497984,2022-01-02-05:52:20,10.1.1.4,183,-0.410,-0.410,-0.410,0.000,0.000,0.000
1641102741003500032,2022-01-02-05:52:21,10.1.1.4,182,-0.400,-0.400,-0.400,0.000,0.000,0.000
1641102741203724032,2022-01-02-05:52:21,10.1.1.4,181,-0.390,-0.390,-0.390,0.000,0.000,0.000
1641102741402693120,2022-01-02-05:52:21,10.1.1.4,180,-0.380,-0.380,-0.380,0.000,0.000,0.000
1641102741602742784,2022-01-02-05:52:21,10.1.1.4,179,-0.370,-0.370,-0.370,0.000,0.000,0.000
1641102741802073088,2022-01-02-05:52:21,10.1.1.4,176,-0.360,-0.360,-0.360,0.000,0.000,0.000
1641102742001534976,2022-01-02-05:52:22,10.1.1.4,174,-0.350,-0.350,-0.350,0.000,0.000,0.000
1641102742201637888,2022-01-02-05:52:22,10.1.1.4,172,-0.340,-0.340,-0.340,0.000,0.000,0.000
1641102742403116032,2022-01-02-05:52:22,10.1.1.4,172,-0.330,-0.330,-0.330,0.000,0.000,0.000
1641102742606131968,2022-01-02-05:52:22,10.1.1.4,175,-0.320,-0.320,-0.320,0.000,0.000,0.000
1641102742800461056,2022-01-02-05:52:22,10.1.1.4,167,-0.310,-0.310,-0.310,0.000,0.000,0.000
1641102743003142144,2022-01-02-05:52:23,10.1.1.4,165,-0.300,-0.300,-0.300,0.000,0.000,0.000
1641102743220196096,2022-01-02-05:52:23,10.1.1.4,182,-0.290,-0.290,-0.290,0.000,0.000,0.000
1641102743421356032,2022-01-02-05:52:23,10.1.1.4,181,-0.280,-0.280,-0.280,0.000,0.000,0.000
1641102743624254976,2022-01-02-05:52:23,10.1.1.4,184,-0.270,-0.270,-0.270,0.000,0.000,0.000
1641102743827332096,2022-01-02-05:52:23,10.1.1.4,185,-0.260,-0.260,-0.260,0.000,0.000,0.000
1641102744018614016,2022-01-02-05:52:24,10.1.1.4,168,-0.250,-0.250,-0.250,0.000,0.000,0.000
1641102744223166976,2022-01-02-05:52:24,10.1.1.4,166,-0.240,-0.240,-0.240,0.000,0.000,0.000
1641102744418409216,2022-01-02-05:52:24,10.1.1.4,164,-0.230,-0.230,-0.230,0.000,0.000,0.000
1641102744621414912,2022-01-02-05:52:24,10.1.1.4,163,-0.220,-0.220,-0.220,0.000,0.000,0.000
1641102744821969920,2022-01-02-05:52:24,10.1.1.4,166,-0.210,-0.210,-0.210,0.000,0.000,0.000
1641102745024382208,2022-01-02-05:52:25,10.1.1.4,167,-0.200,-0.200,-0.200,0.000,0.000,0.000
1641102745236801024,2022-01-02-05:52:25,10.1.1.4,174,-0.190,-0.190,-0.190,0.000,0.000,0.000
1641102745264503040,2022-01-02-05:52:25,10.1.1.4,-1,-0.190,-0.190,-0.190,0.000,0.000,0.000
1641102745636399104,2022-01-02-05:52:25,10.1.1.4,169,-0.170,-0.170,-0.170,0.000,0.000,0.000
1641102745836224000,2022-01-02-05:52:25,10.1.1.4,168,-0.160,-0.160,-0.160,0.000,0.000,0.000
1641102746036099840,2022-01-02-05:52:26,10.1.1.4,166,-0.150,-0.150,-0.150,0.000,0.000,0.000
1641102746238085888,2022-01-02-05:52:26,10.1.1.4,167,-0.140,-0.140,-0.140,0.000,0.000,0.000
1641102746435314944,2022-01-02-05:52:26,10.1.1.4,163,-0.130,-0.130,-0.130,0.000,0.000,0.000
1641102746635377920,2022-01-02-05:52:26,10.1.1.4,162,-0.120,-0.120,-0.120,0.000,0.000,0.000
1641102746833900032,2022-01-02-05:52:26,10.1.1.4,161,-0.110,-0.110,-0.110,0.000,0.000,0.000
1641102747033922816,2022-01-02-05:52:27,10.1.1.4,160,-0.100,-0.100,-0.100,0.000,0.000,0.000
1641102747234200832,2022-01-02-05:52:27,10.1.1.4,159,-0.090,-0.090,-0.090,0.000,0.000,0.000
1641102747433736960,2022-01-02-05:52:27,10.1.1.4,157,-0.080,-0.080,-0.080,0.000,0.000,0.000
1641102747632846080,2022-01-02-05:52:27,10.1.1.4,155,-0.070,-0.070,-0.070,0.000,0.000,0.000
1641102747860187904,2022-01-02-05:52:27,10.1.1.4,182,-0.060,-0.060,-0.060,0.000,0.000,0.000
1641102748058144000,2022-01-02-05:52:28,10.1.1.4,179,-0.050,-0.050,-0.050,0.000,0.000,0.000
1641102748253146880,2022-01-02-05:52:28,10.1.1.4,172,-0.040,-0.040,-0.040,0.000,0.000,0.000
1641102748458408960,2022-01-02-05:52:28,10.1.1.4,175,-0.030,-0.030,-0.030,0.000,0.000,0.000
1641102748666776832,2022-01-02-05:52:28,10.1.1.4,172,-0.020,-0.020,-0.020,0.000,0.000,0.000
1641102748858127104,2022-01-02-05:52:28,10.1.1.4,171,-0.010,-0.010,-0.010,0.000,0.000,0.000
1641102749057996032,2022-01-02-05:52:29,10.1.1.4,171,0.000,0.000,0.000,0.000,0.000,0.000
1641102749258376960,2022-01-02-05:52:29,10.1.1.4,171,-0.010,-0.010,-0.010,0.000,0.000,0.000
1641102749459943936,2022-01-02-05:52:29,10.1.1.4,171,-0.020,-0.020,-0.020,0.000,0.000,0.000
1641102749660551168,2022-01-02-05:52:29,10.1.1.4,171,-0.030,-0.030,-0.030,0.000,0.000,0.000
1641102749861421056,2022-01-02-05:52:29,10.1.1.4,171,-0.040,-0.040,-0.040,0.000,0.000,0.000
1641102750062099968,2022-01-02-05:52:30,10.1.1.4,171,-0.050,-0.050,-0.050,0.000,0.000,0.000
1641102750263761152,2022-01-02-05:52:30,10.1.1.4,171,-0.060,-0.060,-0.060,0.000,0.000,0.000
1641102750464012032,2022-01-02-05:52:30,10.1.1.4,171,-0.070,-0.070,-0.070,0.000,0.000,0.000
1641102750664762112,2022-01-02-05:52:30,10.1.1.4,171,-0.080,-0.080,-0.080,0.000,0.000,0.000
1641102750865433856,2022-01-02-05:52:30,10.1.1.4,171,-0.090,-0.090,-0.090,0.000,0.000,0.000
1641102751065760000,2022-01-02-05:52:31,10.1.1.4,170,-0.100,-0.100,-0.100,0.000,0.000,0.000
1641102751267264000,2022-01-02-05:52:31,10.1.1.4,171,-0.110,-0.110,-0.110,0.000,0.000,0.000
1641102751467567872,2022-01-02-05:52:31,10.1.1.4,170,-0.120,-0.120,-0.120,0.000,0.000,0.000
1641102751668772864,2022-01-02-05:52:31,10.1.1.4,170,-0.130,-0.130,-0.130,0.000,0.000,0.000
1641102751888560896,2022-01-02-05:52:31,10.1.1.4,190,-0.140,-0.140,-0.140,0.000,0.000,0.000
1641102752089410048,2022-01-02-05:52:32,10.1.1.4,190,-0.150,-0.150,-0.150,0.000,0.000,0.000
1641102752289486848,2022-01-02-05:52:32,10.1.1.4,189,-0.160,-0.160,-0.160,0.000,0.000,0.000
1641102752489892096,2022-01-02-05:52:32,10.1.1.4,189,-0.170,-0.170,-0.170,0.000,0.000,0.000
1641102752690535936,2022-01-02-05:52:32,10.1.1.4,189,-0.180,-0.180,-0.180,0.000,0.000,0.000
1641102752890820096,2022-01-02-05:52:32,10.1.1.4,189,-0.190,-0.190,-0.190,0.000,0.000,0.000
1641102753094185984,2022-01-02-05:52:33,10.1.1.4,192,-0.200,-0.200,-0.200,0.000,0.000,0.000
1641102753292509952,2022-01-02-05:52:33,10.1.1.4,188,-0.210,-0.210,-0.210,0.000,0.000,0.000
1641102753492753152,2022-01-02-05:52:33,10.1.1.4,188,-0.220,-0.220,-0.220,0.000,0.000,0.000
1641102753693110016,2022-01-02-05:52:33,10.1.1.4,188,-0.230,-0.230,-0.230,0.000,0.000,0.000
1641102753894983936,2022-01-02-05:52:33,10.1.1.4,186,-0.240,-0.240,-0.240,0.000,0.000,0.000
1641102754093740032,2022-01-02-05:52:34,10.1.1.4,186,-0.250,-0.250,-0.250,0.000,0.000,0.000
1641102754300918016,2022-01-02-05:52:34,10.1.1.4,192,-0.260,-0.260,-0.260,0.000,0.000,0.000
1641102754497068032,2022-01-02-05:52:34,10.1.1.4,188,-0.270,-0.270,-0.270,0.000,0.000,0.000
1641102754694312960,2022-01-02-05:52:34,10.1.1.4,185,-0.280,-0.280,-0.280,0.000,0.000,0.000
1641102754895126016,2022-01-02-05:52:34,10.1.1.4,184,-0.290,-0.290,-0.290,0.000,0.000,0.000
1641102755095736064,2022-01-02-05:52:35,10.1.1.4,184,-0.300,-0.300,-0.300,0.000,0.000,0.000
1641102755296864000,2022-01-02-05:52:35,10.1.1.4,183,-0.310,-0.310,-0.310,0.000,0.000,0.000
1641102755495329024,2022-01-02-05:52:35,10.1.1.4,182,-0.320,-0.320,-0.320,0.000,0.000,0.000
1641102755697590016,2022-01-02-05:52:35,10.1.1.4,183,-0.330,-0.330,-0.330,0.000,0.000,0.000
1641102755895634944,2022-01-02-05:52:35,10.1.1.4,181,-0.340,-0.340,-0.340,0.000,0.000,0.000
1641102756119919104,2022-01-02-05:52:36,10.1.1.4,200,-0.350,-0.350,-0.350,0.000,0.000,0.000
1641102756316324864,2022-01-02-05:52:36,10.1.1.4,195,-0.360,-0.360,-0.360,0.000,0.000,0.000
1641102756516226048,2022-01-02-05:52:36,10.1.1.4,194,-0.370,-0.370,-0.370,0.000,0.000,0.000
1641102756721556992,2022-01-02-05:52:36,10.1.1.4,199,-0.380,-0.380,-0.380,0.000,0.000,0.000
1641102756921419008,2022-01-02-05:52:36,10.1.1.4,197,-0.390,-0.390,-0.390,0.000,0.000,0.000
1641102757325097984,2022-01-02-05:52:37,10.1.1.4,198,-0.410,-0.410,-0.410,0.000,0.000,0.000
1641102757523802112,2022-01-02-05:52:37,10.1.1.4,197,-0.420,-0.420,-0.420,0.000,0.000,0.000
1641102757724406016,2022-01-02-05:52:37,10.1.1.4,196,-0.430,-0.430,-0.430,0.000,0.000,0.000
1641102757923568896,2022-01-02-05:52:37,10.1.1.4,194,-0.440,-0.440,-0.440,0.000,0.000,0.000
1641102758121721088,2022-01-02-05:52:38,10.1.1.4,191,-0.450,-0.450,-0.450,0.000,0.000,0.000
1641102758322040064,2022-01-02-05:52:38,10.1.1.4,190,-0.460,-0.460,-0.460,0.000,0.000,0.000
1641102758521850112,2022-01-02-05:52:38,10.1.1.4,187,-0.470,-0.470,-0.470,0.000,0.000,0.000
1641102758722750976,2022-01-02-05:52:38,10.1.1.4,186,-0.480,-0.480,-0.480,0.000,0.000,0.000
1641102758937917952,2022-01-02-05:52:38,10.1.1.4,199,-0.490,-0.490,-0.490,0.000,0.000,0.000
1641102759137324032,2022-01-02-05:52:39,10.1.1.4,193,-0.480,-0.480,-0.480,0.000,0.000,0.000
1641102759345102080,2022-01-02-05:52:39,10.1.1.4,197,-0.470,-0.470,-0.470,0.000,0.000,0.000
1641102759537934080,2022-01-02-05:52:39,10.1.1.4,190,-0.460,-0.460,-0.460,0.000,0.000,0.000
1641102759741377024,2022-01-02-05:52:39,10.1.1.4,192,-0.450,-0.450,-0.450,0.000,0.000,0.000
1641102759937283072,2022-01-02-05:52:39,10.1.1.4,187,-0.440,-0.440,-0.440,0.000,0.000,0.000
1641102760143151104,2022-01-02-05:52:40,10.1.1.4,188,-0.430,-0.430,-0.430,0.000,0.000,0.000
1641102760338567936,2022-01-02-05:52:40,10.1.1.4,187,-0.420,-0.420,-0.420,0.000,0.000,0.000
1641102760543206912,2022-01-02-05:52:40,10.1.1.4,185,-0.410,-0.410,-0.410,0.000,0.000,0.000
1641102760742679040,2022-01-02-05:52:40,10.1.1.4,189,-0.400,-0.400,-0.400,0.000,0.000,0.000
1641102760943022080,2022-01-02-05:52:40,10.1.1.4,189,-0.390,-0.390,-0.390,0.000,0.000,0.000
1641102761141176832,2022-01-02-05:52:41,10.1.1.4,186,-0.380,-0.380,-0.380,0.000,0.000,0.000
1641102761340327936,2022-01-02-05:52:41,10.1.1.4,185,-0.370,-0.370,-0.370,0.000,0.000,0.000
1641102761537079040,2022-01-02-05:52:41,10.1.1.4,180,-0.360,-0.360,-0.360,0.000,0.000,0.000
1641102761737015040,2022-01-02-05:52:41,10.1.1.4,179,-0.350,-0.350,-0.350,0.000,0.000,0.000
1641102761956173056,2022-01-02-05:52:41,10.1.1.4,194,-0.340,-0.340,-0.340,0.000,0.000,0.000
1641102762155830016,2022-01-02-05:52:42,10.1.1.4,194,-0.330,-0.330,-0.330,0.000,0.000,0.000
1641102762356403200,2022-01-02-05:52:42,10.1.1.4,194,-0.320,-0.320,-0.320,0.000,0.000,0.000
1641102762556286976,2022-01-02-05:52:42,10.1.1.4,193,-0.310,-0.310,-0.310,0.000,0.000,0.000
1641102762755799040,2022-01-02-05:52:42,10.1.1.4,192,-0.300,-0.300,-0.300,0.000,0.000,0.000
1641102762955958016,2022-01-02-05:52:42,10.1.1.4,191,-0.290,-0.290,-0.290,0.000,0.000,0.000
1641102763155800064,2022-01-02-05:52:43,10.1.1.4,190,-0.280,-0.280,-0.280,0.000,0.000,0.000
1641102763362263808,2022-01-02-05:52:43,10.1.1.4,196,-0.270,-0.270,-0.270,0.000,0.000,0.000
1641102763567277056,2022-01-02-05:52:43,10.1.1.4,197,-0.260,-0.260,-0.260,0.000,0.000,0.000
1641102763758862080,2022-01-02-05:52:43,10.1.1.4,187,-0.250,-0.250,-0.250,0.000,0.000,0.000
1641102763960713984,2022-01-02-05:52:43,10.1.1.4,186,-0.240,-0.240,-0.240,0.000,0.000,0.000
1641102764167368960,2022-01-02-05:52:44,10.1.1.4,196,-0.230,-0.230,-0.230,0.000,0.000,0.000
1641102764362977024,2022-01-02-05:52:44,10.1.1.4,191,-0.220,-0.220,-0.220,0.000,0.000,0.000
1641102764563632128,2022-01-02-05:52:44,10.1.1.4,191,-0.210,-0.210,-0.210,0.000,0.000,0.000
1641102764764614144,2022-01-02-05:52:44,10.1.1.4,192,-0.200,-0.200,-0.200,0.000,0.000,0.000
1641102764960856832,2022-01-02-05:52:44,10.1.1.4,187,-0.190,-0.190,-0.190,0.000,0.000,0.000
1641102765180187904,2022-01-02-05:52:45,10.1.1.4,194,-0.180,-0.180,-0.180,0.000,0.000,0.000
1641102765381676800,2022-01-02-05:52:45,10.1.1.4,199,-0.170,-0.170,-0.170,0.000,0.000,0.000
1641102765574388992,2022-01-02-05:52:45,10.1.1.4,191,-0.160,-0.160,-0.160,0.000,0.000,0.000
1641102765781358080,2022-01-02-05:52:45,10.1.1.4,196,-0.150,-0.150,-0.150,0.000,0.000,0.000
1641102765973412864,2022-01-02-05:52:45,10.1.1.4,186,-0.140,-0.140,-0.140,0.000,0.000,0.000
1641102766181462016,2022-01-02-05:52:46,10.1.1.4,192,-0.130,-0.130,-0.130,0.000,0.000,0.000
1641102766372994048,2022-01-02-05:52:46,10.1.1.4,182,-0.120,-0.120,-0.120,0.000,0.000,0.000
1641102766573504000,2022-01-02-05:52:46,10.1.1.4,182,-0.110,-0.110,-0.110,0.000,0.000,0.000
1641102766772896000,2022-01-02-05:52:46,10.1.1.4,180,-0.100,-0.100,-0.100,0.000,0.000,0.000
1641102766972470016,2022-01-02-05:52:46,10.1.1.4,179,-0.090,-0.090,-0.090,0.000,0.000,0.000
1641102767171880960,2022-01-02-05:52:47,10.1.1.4,175,-0.080,-0.080,-0.080,0.000,0.000,0.000
1641102767372180992,2022-01-02-05:52:47,10.1.1.4,174,-0.070,-0.070,-0.070,0.000,0.000,0.000
1641102767595143168,2022-01-02-05:52:47,10.1.1.4,196,-0.060,-0.060,-0.060,0.000,0.000,0.000
1641102767797159936,2022-01-02-05:52:47,10.1.1.4,196,-0.050,-0.050,-0.050,0.000,0.000,0.000
1641102767996445952,2022-01-02-05:52:47,10.1.1.4,194,-0.040,-0.040,-0.040,0.000,0.000,0.000
1641102768193687808,2022-01-02-05:52:48,10.1.1.4,188,-0.030,-0.030,-0.030,0.000,0.000,0.000
1641102768396822016,2022-01-02-05:52:48,10.1.1.4,191,-0.020,-0.020,-0.020,0.000,0.000,0.000
1641102768596498944,2022-01-02-05:52:48,10.1.1.4,188,-0.010,-0.010,-0.010,0.000,0.000,0.000
1641102768790457856,2022-01-02-05:52:48,10.1.1.4,182,0.000,0.000,0.000,0.000,0.000,0.000
1641102768996242944,2022-01-02-05:52:48,10.1.1.4,185,-0.010,-0.010,-0.010,0.000,0.000,0.000
1641102769193214976,2022-01-02-05:52:49,10.1.1.4,172,-0.020,-0.020,-0.020,0.000,0.000,0.000
1641102769412945920,2022-01-02-05:52:49,10.1.1.4,192,-0.030,-0.030,-0.030,0.000,0.000,0.000
1641102769616241920,2022-01-02-05:52:49,10.1.1.4,189,-0.040,-0.040,-0.040,0.000,0.000,0.000
1641102769813955072,2022-01-02-05:52:49,10.1.1.4,193,-0.050,-0.050,-0.050,0.000,0.000,0.000
1641102770013672960,2022-01-02-05:52:50,10.1.1.4,191,-0.060,-0.060,-0.060,0.000,0.000,0.000
1641102770213617920,2022-01-02-05:52:50,10.1.1.4,190,-0.070,-0.070,-0.070,0.000,0.000,0.000
1641102770415361792,2022-01-02-05:52:50,10.1.1.4,191,-0.080,-0.080,-0.080,0.000,0.000,0.000
1641102770607881984,2022-01-02-05:52:50,10.1.1.4,182,-0.090,-0.090,-0.090,0.000,0.000,0.000
1641102770807640064,2022-01-02-05:52:50,10.1.1.4,180,-0.100,-0.100,-0.100,0.000,0.000,0.000
1641102771026669056,2022-01-02-05:52:51,10.1.1.4,188,-0.110,-0.110,-0.110,0.000,0.000,0.000
1641102771232546048,2022-01-02-05:52:51,10.1.1.4,187,-0.120,-0.120,-0.120,0.000,0.000,0.000
1641102771433878784,2022-01-02-05:52:51,10.1.1.4,192,-0.130,-0.130,-0.130,0.000,0.000,0.000
1641102771627429888,2022-01-02-05:52:51,10.1.1.4,185,-0.140,-0.140,-0.140,0.000,0.000,0.000
1641102771833939200,2022-01-02-05:52:51,10.1.1.4,191,-0.150,-0.150,-0.150,0.000,0.000,0.000
1641102772033271040,2022-01-02-05:52:52,10.1.1.4,190,-0.160,-0.160,-0.160,0.000,0.000,0.000
1641102772225483008,2022-01-02-05:52:52,10.1.1.4,181,-0.170,-0.170,-0.170,0.000,0.000,0.000
1641102772425443840,2022-01-02-05:52:52,10.1.1.4,180,-0.180,-0.180,-0.180,0.000,0.000,0.000
1641102772624901888,2022-01-02-05:52:52,10.1.1.4,179,-0.190,-0.190,-0.190,0.000,0.000,0.000
1641102772824594944,2022-01-02-05:52:52,10.1.1.4,175,-0.200,-0.200,-0.200,0.000,0.000,0.000
1641102773025861120,2022-01-02-05:52:53,10.1.1.4,175,-0.210,-0.210,-0.210,0.000,0.000,0.000
1641102773224198144,2022-01-02-05:52:53,10.1.1.4,173,-0.220,-0.220,-0.220,0.000,0.000,0.000
1641102773427175936,2022-01-02-05:52:53,10.1.1.4,175,-0.230,-0.230,-0.230,0.000,0.000,0.000
1641102773623752960,2022-01-02-05:52:53,10.1.1.4,171,-0.240,-0.240,-0.240,0.000,0.000,0.000
1641102773828622080,2022-01-02-05:52:53,10.1.1.4,175,-0.250,-0.250,-0.250,0.000,0.000,0.000
1641102774026263040,2022-01-02-05:52:54,10.1.1.4,171,-0.260,-0.260,-0.260,0.000,0.000,0.000
1641102774227841024,2022-01-02-05:52:54,10.1.1.4,173,-0.270,-0.270,-0.270,0.000,0.000,0.000
1641102774422679040,2022-01-02-05:52:54,10.1.1.4,166,-0.280,-0.280,-0.280,0.000,0.000,0.000
1641102774626813952,2022-01-02-05:52:54,10.1.1.4,168,-0.290,-0.290,-0.290,0.000,0.000,0.000
1641102774825906944,2022-01-02-05:52:54,10.1.1.4,164,-0.300,-0.300,-0.300,0.000,0.000,0.000
1641102775045021952,2022-01-02-05:52:55,10.1.1.4,185,-0.310,-0.310,-0.310,0.000,0.000,0.000
1641102775240876800,2022-01-02-05:52:55,10.1.1.4,180,-0.320,-0.320,-0.320,0.000,0.000,0.000
1641102775443734016,2022-01-02-05:52:55,10.1.1.4,174,-0.330,-0.330,-0.330,0.000,0.000,0.000
1641102775641858048,2022-01-02-05:52:55,10.1.1.4,174,-0.340,-0.340,-0.340,0.000,0.000,0.000
1641102775843591936,2022-01-02-05:52:55,10.1.1.4,174,-0.350,-0.350,-0.350,0.000,0.000,0.000
1641102776045656832,2022-01-02-05:52:56,10.1.1.4,173,-0.360,-0.360,-0.360,0.000,0.000,0.000
1641102776245915904,2022-01-02-05:52:56,10.1.1.4,173,-0.370,-0.370,-0.370,0.000,0.000,0.000
1641102776442465024,2022-01-02-05:52:56,10.1.1.4,168,-0.380,-0.380,-0.380,0.000,0.000,0.000
1641102776643970048,2022-01-02-05:52:56,10.1.1.4,168,-0.390,-0.390,-0.390,0.000,0.000,0.000
1641102776841302016,2022-01-02-05:52:56,10.1.1.4,164,-0.400,-0.400,-0.400,0.000,0.000,0.000
1641102777042283008,2022-01-02-05:52:57,10.1.1.4,161,-0.410,-0.410,-0.410,0.000,0.000,0.000
1641102777261681152,2022-01-02-05:52:57,10.1.1.4,177,-0.420,-0.420,-0.420,0.000,0.000,0.000
1641102777457860864,2022-01-02-05:52:57,10.1.1.4,173,-0.430,-0.430,-0.430,0.000,0.000,0.000
1641102777657367040,2022-01-02-05:52:57,10.1.1.4,170,-0.440,-0.440,-0.440,0.000,0.000,0.000
1641102777857008896,2022-01-02-05:52:57,10.1.1.4,169,-0.450,-0.450,-0.450,0.000,0.000,0.000
1641102778056535040,2022-01-02-05:52:58,10.1.1.4,168,-0.460,-0.460,-0.460,0.000,0.000,0.000
1641102778257968896,2022-01-02-05:52:58,10.1.1.4,168,-0.470,-0.470,-0.470,0.000,0.000,0.000
1641102778456209920,2022-01-02-05:52:58,10.1.1.4,166,-0.480,-0.480,-0.480,0.000,0.000,0.000
1641102778656409856,2022-01-02-05:52:58,10.1.1.4,166,-0.490,-0.490,-0.490,0.000,0.000,0.000
1641102778855591168,2022-01-02-05:52:58,10.1.1.4,164,-0.480,-0.480,-0.480,0.000,0.000,0.000
1641102779054397184,2022-01-02-05:52:59,10.1.1.4,162,-0.470,-0.470,-0.470,0.000,0.000,0.000
1641102779254447872,2022-01-02-05:52:59,10.1.1.4,162,-0.460,-0.460,-0.460,0.000,0.000,0.000
1641102779454257920,2022-01-02-05:52:59,10.1.1.4,161,-0.450,-0.450,-0.450,0.000,0.000,0.000
1641102779654140928,2022-01-02-05:52:59,10.1.1.4,160,-0.440,-0.440,-0.440,0.000,0.000,0.000
1641102779853167104,2022-01-02-05:52:59,10.1.1.4,159,-0.430,-0.430,-0.430,0.000,0.000,0.000
1641102780061016064,2022-01-02-05:53:00,10.1.1.4,161,-0.420,-0.420,-0.420,0.000,0.000,0.000
1641102780278574848,2022-01-02-05:53:00,10.1.1.4,180,-0.410,-0.410,-0.410,0.000,0.000,0.000
1641102780475922176,2022-01-02-05:53:00,10.1.1.4,177,-0.400,-0.400,-0.400,0.000,0.000,0.000
1641102780681370880,2022-01-02-05:53:00,10.1.1.4,177,-0.390,-0.390,-0.390,0.000,0.000,0.000
1641102780878259968,2022-01-02-05:53:00,10.1.1.4,176,-0.380,-0.380,-0.380,0.000,0.000,0.000
1641102781080982016,2022-01-02-05:53:01,10.1.1.4,175,-0.370,-0.370,-0.370,0.000,0.000,0.000
1641102781282191104,2022-01-02-05:53:01,10.1.1.4,175,-0.360,-0.360,-0.360,0.000,0.000,0.000
1641102781491159808,2022-01-02-05:53:01,10.1.1.4,175,-0.350,-0.350,-0.350,0.000,0.000,0.000
1641102781682048000,2022-01-02-05:53:01,10.1.1.4,173,-0.340,-0.340,-0.340,0.000,0.000,0.000
1641102781883804160,2022-01-02-05:53:01,10.1.1.4,174,-0.330,-0.330,-0.330,0.000,0.000,0.000
1641102782085571072,2022-01-02-05:53:02,10.1.1.4,175,-0.320,-0.320,-0.320,0.000,0.000,0.000
1641102782284499968,2022-01-02-05:53:02,10.1.1.4,173,-0.310,-0.310,-0.310,0.000,0.000,0.000
1641102782485729024,2022-01-02-05:53:02,10.1.1.4,170,-0.300,-0.300,-0.300,0.000,0.000,0.000
1641102782690938880,2022-01-02-05:53:02,10.1.1.4,169,-0.290,-0.290,-0.290,0.000,0.000,0.000
1641102782912623872,2022-01-02-05:53:02,10.1.1.4,195,-0.280,-0.280,-0.280,0.000,0.000,0.000
1641102783114273024,2022-01-02-05:53:03,10.1.1.4,196,-0.270,-0.270,-0.270,0.000,0.000,0.000
1641102783313342208,2022-01-02-05:53:03,10.1.1.4,194,-0.260,-0.260,-0.260,0.000,0.000,0.000
1641102783518560000,2022-01-02-05:53:03,10.1.1.4,198,-0.250,-0.250,-0.250,0.000,0.000,0.000
1641102783714690816,2022-01-02-05:53:03,10.1.1.4,193,-0.240,-0.240,-0.240,0.000,0.000,0.000
1641102783920641792,2022-01-02-05:53:03,10.1.1.4,196,-0.230,-0.230,-0.230,0.000,0.000,0.000
1641102784110801920,2022-01-02-05:53:04,10.1.1.4,186,-0.220,-0.220,-0.220,0.000,0.000,0.000
1641102784315970816,2022-01-02-05:53:04,10.1.1.4,190,-0.210,-0.210,-0.210,0.000,0.000,0.000
1641102784516868096,2022-01-02-05:53:04,10.1.1.4,185,-0.200,-0.200,-0.200,0.000,0.000,0.000
1641102784721139968,2022-01-02-05:53:04,10.1.1.4,194,-0.190,-0.190,-0.190,0.000,0.000,0.000
1641102784913506048,2022-01-02-05:53:04,10.1.1.4,184,-0.180,-0.180,-0.180,0.000,0.000,0.000
1641102785112678144,2022-01-02-05:53:05,10.1.1.4,183,-0.170,-0.170,-0.170,0.000,0.000,0.000
1641102785319289088,2022-01-02-05:53:05,10.1.1.4,189,-0.160,-0.160,-0.160,0.000,0.000,0.000
1641102785518002944,2022-01-02-05:53:05,10.1.1.4,187,-0.150,-0.150,-0.150,0.000,0.000,0.000
1641102785721352192,2022-01-02-05:53:05,10.1.1.4,183,-0.140,-0.140,-0.140,0.000,0.000,0.000
1641102785914742016,2022-01-02-05:53:05,10.1.1.4,183,-0.130,-0.130,-0.130,0.000,0.000,0.000
1641102786120760064,2022-01-02-05:53:06,10.1.1.4,182,-0.120,-0.120,-0.120,0.000,0.000,0.000
1641102786319696896,2022-01-02-05:53:06,10.1.1.4,182,-0.110,-0.110,-0.110,0.000,0.000,0.000
1641102786519331072,2022-01-02-05:53:06,10.1.1.4,185,-0.100,-0.100,-0.100,0.000,0.000,0.000
1641102786715662848,2022-01-02-05:53:06,10.1.1.4,180,-0.090,-0.090,-0.090,0.000,0.000,0.000
1641102786920941056,2022-01-02-05:53:06,10.1.1.4,180,-0.080,-0.080,-0.080,0.000,0.000,0.000
1641102787140024064,2022-01-02-05:53:07,10.1.1.4,197,-0.070,-0.070,-0.070,0.000,0.000,0.000
1641102787338947072,2022-01-02-05:53:07,10.1.1.4,196,-0.060,-0.060,-0.060,0.000,0.000,0.000
1641102787542628096,2022-01-02-05:53:07,10.1.1.4,198,-0.050,-0.050,-0.050,0.000,0.000,0.000
1641102787741373952,2022-01-02-05:53:07,10.1.1.4,193,-0.040,-0.040,-0.040,0.000,0.000,0.000
1641102787940470016,2022-01-02-05:53:07,10.1.1.4,193,-0.030,-0.030,-0.030,0.000,0.000,0.000
1641102788142679808,2022-01-02-05:53:08,10.1.1.4,190,-0.020,-0.020,-0.020,0.000,0.000,0.000
1641102788340902144,2022-01-02-05:53:08,10.1.1.4,192,-0.010,-0.010,-0.010,0.000,0.000,0.000
1641102788537997056,2022-01-02-05:53:08,10.1.1.4,188,0.000,0.000,0.000,0.000,0.000,0.000
1641102788741955072,2022-01-02-05:53:08,10.1.1.4,187,-0.010,-0.010,-0.010,0.000,0.000,0.000
1641102788943265792,2022-01-02-05:53:08,10.1.1.4,191,-0.020,-0.020,-0.020,0.000,0.000,0.000
1641102789141947136,2022-01-02-05:53:09,10.1.1.4,189,-0.030,-0.030,-0.030,0.000,0.000,0.000
1641102789344209920,2022-01-02-05:53:09,10.1.1.4,190,-0.040,-0.040,-0.040,0.000,0.000,0.000
1641102789538201088,2022-01-02-05:53:09,10.1.1.4,185,-0.050,-0.050,-0.050,0.000,0.000,0.000
1641102789738316032,2022-01-02-05:53:09,10.1.1.4,184,-0.060,-0.060,-0.060,0.000,0.000,0.000
1641102789942382080,2022-01-02-05:53:09,10.1.1.4,188,-0.070,-0.070,-0.070,0.000,0.000,0.000
1641102790138849024,2022-01-02-05:53:10,10.1.1.4,184,-0.080,-0.080,-0.080,0.000,0.000,0.000
1641102790338584064,2022-01-02-05:53:10,10.1.1.4,182,-0.090,-0.090,-0.090,0.000,0.000,0.000
1641102790544423936,2022-01-02-05:53:10,10.1.1.4,182,-0.100,-0.100,-0.100,0.000,0.000,0.000
1641102790961231872,2022-01-02-05:53:10,10.1.1.4,202,-0.120,-0.120,-0.120,0.000,0.000,0.000
1641102791158319104,2022-01-02-05:53:11,10.1.1.4,195,-0.130,-0.130,-0.130,0.000,0.000,0.000
1641102791357959936,2022-01-02-05:53:11,10.1.1.4,194,-0.140,-0.140,-0.140,0.000,0.000,0.000
1641102791558703872,2022-01-02-05:53:11,10.1.1.4,194,-0.150,-0.150,-0.150,0.000,0.000,0.000
1641102791758644992,2022-01-02-05:53:11,10.1.1.4,193,-0.160,-0.160,-0.160,0.000,0.000,0.000
1641102791958249216,2022-01-02-05:53:11,10.1.1.4,192,-0.170,-0.170,-0.170,0.000,0.000,0.000
1641102792157920000,2022-01-02-05:53:12,10.1.1.4,192,-0.180,-0.180,-0.180,0.000,0.000,0.000
1641102792358120960,2022-01-02-05:53:12,10.1.1.4,191,-0.190,-0.190,-0.190,0.000,0.000,0.000
1641102792558322944,2022-01-02-05:53:12,10.1.1.4,190,-0.200,-0.200,-0.200,0.000,0.000,0.000
1641102792757757952,2022-01-02-05:53:12,10.1.1.4,189,-0.210,-0.210,-0.210,0.000,0.000,0.000
1641102792958050048,2022-01-02-05:53:12,10.1.1.4,189,-0.220,-0.220,-0.220,0.000,0.000,0.000
1641102793158054144,2022-01-02-05:53:13,10.1.1.4,188,-0.230,-0.230,-0.230,0.000,0.000,0.000
1641102793357424128,2022-01-02-05:53:13,10.1.1.4,186,-0.240,-0.240,-0.240,0.000,0.000,0.000
1641102793557403136,2022-01-02-05:53:13,10.1.1.4,185,-0.250,-0.250,-0.250,0.000,0.000,0.000
1641102793757488896,2022-01-02-05:53:13,10.1.1.4,184,-0.260,-0.260,-0.260,0.000,0.000,0.000
1641102793957680896,2022-01-02-05:53:13,10.1.1.4,184,-0.270,-0.270,-0.270,0.000,0.000,0.000
1641102794157267200,2022-01-02-05:53:14,10.1.1.4,183,-0.280,-0.280,-0.280,0.000,0.000,0.000
1641102794357040896,2022-01-02-05:53:14,10.1.1.4,181,-0.290,-0.290,-0.290,0.000,0.000,0.000
1641102794557327872,2022-01-02-05:53:14,10.1.1.4,181,-0.300,-0.300,-0.300,0.000,0.000,0.000
1641102794757522176,2022-01-02-05:53:14,10.1.1.4,180,-0.310,-0.310,-0.310,0.000,0.000,0.000
1641102794976881920,2022-01-02-05:53:14,10.1.1.4,198,-0.320,-0.320,-0.320,0.000,0.000,0.000
1641102795177402112,2022-01-02-05:53:15,10.1.1.4,198,-0.330,-0.330,-0.330,0.000,0.000,0.000
1641102795377632000,2022-01-02-05:53:15,10.1.1.4,196,-0.340,-0.340,-0.340,0.000,0.000,0.000
1641102795577032192,2022-01-02-05:53:15,10.1.1.4,194,-0.350,-0.350,-0.350,0.000,0.000,0.000
1641102795776176896,2022-01-02-05:53:15,10.1.1.4,192,-0.360,-0.360,-0.360,0.000,0.000,0.000
1641102795975863808,2022-01-02-05:53:15,10.1.1.4,191,-0.370,-0.370,-0.370,0.000,0.000,0.000
1641102796176048128,2022-01-02-05:53:16,10.1.1.4,190,-0.380,-0.380,-0.380,0.000,0.000,0.000
1641102796376007168,2022-01-02-05:53:16,10.1.1.4,189,-0.390,-0.390,-0.390,0.000,0.000,0.000
1641102796575834112,2022-01-02-05:53:16,10.1.1.4,188,-0.400,-0.400,-0.400,0.000,0.000,0.000
1641102796775358976,2022-01-02-05:53:16,10.1.1.4,187,-0.410,-0.410,-0.410,0.000,0.000,0.000
1641102796976697088,2022-01-02-05:53:16,10.1.1.4,188,-0.420,-0.420,-0.420,0.000,0.000,0.000
1641102797177684992,2022-01-02-05:53:17,10.1.1.4,188,-0.430,-0.430,-0.430,0.000,0.000,0.000
1641102797378370048,2022-01-02-05:53:17,10.1.1.4,188,-0.440,-0.440,-0.440,0.000,0.000,0.000
1641102797578902016,2022-01-02-05:53:17,10.1.1.4,189,-0.450,-0.450,-0.450,0.000,0.000,0.000
1641102797774120960,2022-01-02-05:53:17,10.1.1.4,183,-0.460,-0.460,-0.460,0.000,0.000,0.000
1641102797974155008,2022-01-02-05:53:17,10.1.1.4,183,-0.470,-0.470,-0.470,0.000,0.000,0.000
1641102798174479104,2022-01-02-05:53:18,10.1.1.4,182,-0.480,-0.480,-0.480,0.000,0.000,0.000
1641102798373117952,2022-01-02-05:53:18,10.1.1.4,181,-0.490,-0.490,-0.490,0.000,0.000,0.000
1641102798573672960,2022-01-02-05:53:18,10.1.1.4,180,-0.480,-0.480,-0.480,0.000,0.000,0.000
1641102798773334016,2022-01-02-05:53:18,10.1.1.4,180,-0.470,-0.470,-0.470,0.000,0.000,0.000
1641102798972896000,2022-01-02-05:53:18,10.1.1.4,178,-0.460,-0.460,-0.460,0.000,0.000,0.000
1641102799173910016,2022-01-02-05:53:19,10.1.1.4,179,-0.450,-0.450,-0.450,0.000,0.000,0.000
1641102799372567808,2022-01-02-05:53:19,10.1.1.4,177,-0.440,-0.440,-0.440,0.000,0.000,0.000
1641102799572698112,2022-01-02-05:53:19,10.1.1.4,176,-0.430,-0.430,-0.430,0.000,0.000,0.000
1641102799773433856,2022-01-02-05:53:19,10.1.1.4,176,-0.420,-0.420,-0.420,0.000,0.000,0.000
1641102799991558912,2022-01-02-05:53:19,10.1.1.4,193,-0.410,-0.410,-0.410,0.000,0.000,0.000
1641102800192097792,2022-01-02-05:53:20,10.1.1.4,193,-0.400,-0.400,-0.400,0.000,0.000,0.000
1641102800391962112,2022-01-02-05:53:20,10.1.1.4,193,-0.390,-0.390,-0.390,0.000,0.000,0.000
1641102800595475968,2022-01-02-05:53:20,10.1.1.4,195,-0.380,-0.380,-0.380,0.000,0.000,0.000
1641102800791515136,2022-01-02-05:53:20,10.1.1.4,190,-0.370,-0.370,-0.370,0.000,0.000,0.000
1641102800990593024,2022-01-02-05:53:20,10.1.1.4,188,-0.360,-0.360,-0.360,0.000,0.000,0.000
1641102801194952960,2022-01-02-05:53:21,10.1.1.4,191,-0.350,-0.350,-0.350,0.000,0.000,0.000
1641102801393790976,2022-01-02-05:53:21,10.1.1.4,189,-0.340,-0.340,-0.340,0.000,0.000,0.000
1641102801594957056,2022-01-02-05:53:21,10.1.1.4,190,-0.330,-0.330,-0.330,0.000,0.000,0.000
1641102801790353152,2022-01-02-05:53:21,10.1.1.4,184,-0.320,-0.320,-0.320,0.000,0.000,0.000
1641102801989191168,2022-01-02-05:53:21,10.1.1.4,183,-0.310,-0.310,-0.310,0.000,0.000,0.000
1641102802189476096,2022-01-02-05:53:22,10.1.1.4,182,-0.300,-0.300,-0.300,0.000,0.000,0.000
1641102802389157120,2022-01-02-05:53:22,10.1.1.4,181,-0.290,-0.290,-0.290,0.000,0.000,0.000
1641102802588183040,2022-01-02-05:53:22,10.1.1.4,180,-0.280,-0.280,-0.280,0.000,0.000,0.000
1641102802792406016,2022-01-02-05:53:22,10.1.1.4,183,-0.270,-0.270,-0.270,0.000,0.000,0.000
1641102802988210944,2022-01-02-05:53:22,10.1.1.4,178,-0.260,-0.260,-0.260,0.000,0.000,0.000
1641102803207927040,2022-01-02-05:53:23,10.1.1.4,184,-0.250,-0.250,-0.250,0.000,0.000,0.000
1641102803408166912,2022-01-02-05:53:23,10.1.1.4,184,-0.240,-0.240,-0.240,0.000,0.000,0.000
1641102803607484160,2022-01-02-05:53:23,10.1.1.4,182,-0.230,-0.230,-0.230,0.000,0.000,0.000
1641102803809575168,2022-01-02-05:53:23,10.1.1.4,184,-0.220,-0.220,-0.220,0.000,0.000,0.000
1641102804010392064,2022-01-02-05:53:24,10.1.1.4,181,-0.210,-0.210,-0.210,0.000,0.000,0.000
1641102804206693888,2022-01-02-05:53:24,10.1.1.4,179,-0.200,-0.200,-0.200,0.000,0.000,0.000
1641102804405975040,2022-01-02-05:53:24,10.1.1.4,174,-0.190,-0.190,-0.190,0.000,0.000,0.000
1641102804606110976,2022-01-02-05:53:24,10.1.1.4,172,-0.180,-0.180,-0.180,0.000,0.000,0.000
1641102804805756928,2022-01-02-05:53:24,10.1.1.4,171,-0.170,-0.170,-0.170,0.000,0.000,0.000
1641102805012218112,2022-01-02-05:53:25,10.1.1.4,177,-0.160,-0.160,-0.160,0.000,0.000,0.000
1641102805206720000,2022-01-02-05:53:25,10.1.1.4,170,-0.150,-0.150,-0.150,0.000,0.000,0.000
1641102805404356864,2022-01-02-05:53:25,10.1.1.4,167,-0.140,-0.140,-0.140,0.000,0.000,0.000
1641102805625332992,2022-01-02-05:53:25,10.1.1.4,187,-0.130,-0.130,-0.130,0.000,0.000,0.000
1641102805835927040,2022-01-02-05:53:25,10.1.1.4,197,-0.120,-0.120,-0.120,0.000,0.000,0.000
1641102806024811008,2022-01-02-05:53:26,10.1.1.4,185,-0.110,-0.110,-0.110,0.000,0.000,0.000
1641102806225321984,2022-01-02-05:53:26,10.1.1.4,183,-0.100,-0.100,-0.100,0.000,0.000,0.000
1641102806423485952,2022-01-02-05:53:26,10.1.1.4,181,-0.090,-0.090,-0.090,0.000,0.000,0.000
1641102806622912000,2022-01-02-05:53:26,10.1.1.4,180,-0.080,-0.080,-0.080,0.000,0.000,0.000
1641102806822611968,2022-01-02-05:53:26,10.1.1.4,179,-0.070,-0.070,-0.070,0.000,0.000,0.000
1641102807026520064,2022-01-02-05:53:27,10.1.1.4,181,-0.060,-0.060,-0.060,0.000,0.000,0.000
1641102807222352128,2022-01-02-05:53:27,10.1.1.4,176,-0.050,-0.050,-0.050,0.000,0.000,0.000
1641102807425342208,2022-01-02-05:53:27,10.1.1.4,178,-0.040,-0.040,-0.040,0.000,0.000,0.000
1641102807621084928,2022-01-02-05:53:27,10.1.1.4,174,-0.030,-0.030,-0.030,0.000,0.000,0.000
1641102807823651072,2022-01-02-05:53:27,10.1.1.4,175,-0.020,-0.020,-0.020,0.000,0.000,0.000
1641102808021025024,2022-01-02-05:53:28,10.1.1.4,172,-0.010,-0.010,-0.010,0.000,0.000,0.000
1641102808220297984,2022-01-02-05:53:28,10.1.1.4,170,0.000,0.000,0.000,0.000,0.000,0.000
1641102808420417024,2022-01-02-05:53:28,10.1.1.4,170,-0.010,-0.010,-0.010,0.000,0.000,0.000
1641102808620212992,2022-01-02-05:53:28,10.1.1.4,169,-0.020,-0.020,-0.020,0.000,0.000,0.000
1641102808819622912,2022-01-02-05:53:28,10.1.1.4,168,-0.030,-0.030,-0.030,0.000,0.000,0.000
1641102809018755840,2022-01-02-05:53:29,10.1.1.4,166,-0.040,-0.040,-0.040,0.000,0.000,0.000
1641102809218880000,2022-01-02-05:53:29,10.1.1.4,166,-0.050,-0.050,-0.050,0.000,0.000,0.000
1641102809418621952,2022-01-02-05:53:29,10.1.1.4,165,-0.060,-0.060,-0.060,0.000,0.000,0.000
1641102809618952960,2022-01-02-05:53:29,10.1.1.4,164,-0.070,-0.070,-0.070,0.000,0.000,0.000
1641102809817864960,2022-01-02-05:53:29,10.1.1.4,162,-0.080,-0.080,-0.080,0.000,0.000,0.000
1641102810017884928,2022-01-02-05:53:30,10.1.1.4,162,-0.090,-0.090,-0.090,0.000,0.000,0.000
1641102810217313024,2022-01-02-05:53:30,10.1.1.4,160,-0.100,-0.100,-0.100,0.000,0.000,0.000
1641102810417138176,2022-01-02-05:53:30,10.1.1.4,159,-0.110,-0.110,-0.110,0.000,0.000,0.000
1641102810636903936,2022-01-02-05:53:30,10.1.1.4,176,-0.120,-0.120,-0.120,0.000,0.000,0.000
1641102810816452864,2022-01-02-05:53:30,10.1.1.4,155,-0.130,-0.130,-0.130,0.000,0.000,0.000
1641102811035689216,2022-01-02-05:53:31,10.1.1.4,174,-0.140,-0.140,-0.140,0.000,0.000,0.000
1641102811235742976,2022-01-02-05:53:31,10.1.1.4,173,-0.150,-0.150,-0.150,0.000,0.000,0.000
1641102811437304064,2022-01-02-05:53:31,10.1.1.4,174,-0.160,-0.160,-0.160,0.000,0.000,0.000
1641102811634579968,2022-01-02-05:53:31,10.1.1.4,170,-0.170,-0.170,-0.170,0.000,0.000,0.000
1641102811840610048,2022-01-02-05:53:31,10.1.1.4,173,-0.180,-0.180,-0.180,0.000,0.000,0.000
1641102812034484992,2022-01-02-05:53:32,10.1.1.4,165,-0.190,-0.190,-0.190,0.000,0.000,0.000
1641102812233628160,2022-01-02-05:53:32,10.1.1.4,164,-0.200,-0.200,-0.200,0.000,0.000,0.000
1641102812436141056,2022-01-02-05:53:32,10.1.1.4,166,-0.210,-0.210,-0.210,0.000,0.000,0.000
1641102812635971072,2022-01-02-05:53:32,10.1.1.4,163,-0.220,-0.220,-0.220,0.000,0.000,0.000
1641102812836741888,2022-01-02-05:53:32,10.1.1.4,165,-0.230,-0.230,-0.230,0.000,0.000,0.000
1641102813033179136,2022-01-02-05:53:33,10.1.1.4,161,-0.240,-0.240,-0.240,0.000,0.000,0.000
1641102813233801984,2022-01-02-05:53:33,10.1.1.4,161,-0.250,-0.250,-0.250,0.000,0.000,0.000
1641102813439162880,2022-01-02-05:53:33,10.1.1.4,164,-0.260,-0.260,-0.260,0.000,0.000,0.000
1641102813640361984,2022-01-02-05:53:33,10.1.1.4,164,-0.270,-0.270,-0.270,0.000,0.000,0.000
1641102813856931072,2022-01-02-05:53:33,10.1.1.4,178,-0.280,-0.280,-0.280,0.000,0.000,0.000
1641102814062339072,2022-01-02-05:53:34,10.1.1.4,182,-0.290,-0.290,-0.290,0.000,0.000,0.000
1641102814259382016,2022-01-02-05:53:34,10.1.1.4,177,-0.300,-0.300,-0.300,0.000,0.000,0.000
1641102814465114112,2022-01-02-05:53:34,10.1.1.4,181,-0.310,-0.310,-0.310,0.000,0.000,0.000
1641102814660541952,2022-01-02-05:53:34,10.1.1.4,175,-0.320,-0.320,-0.320,0.000,0.000,0.000
1641102814866429952,2022-01-02-05:53:34,10.1.1.4,181,-0.330,-0.330,-0.330,0.000,0.000,0.000
1641102815068438016,2022-01-02-05:53:35,10.1.1.4,177,-0.340,-0.340,-0.340,0.000,0.000,0.000
1641102815263068928,2022-01-02-05:53:35,10.1.1.4,175,-0.350,-0.350,-0.350,0.000,0.000,0.000
1641102815464112896,2022-01-02-05:53:35,10.1.1.4,175,-0.360,-0.360,-0.360,0.000,0.000,0.000
1641102815664998144,2022-01-02-05:53:35,10.1.1.4,175,-0.370,-0.370,-0.370,0.000,0.000,0.000
1641102815865849088,2022-01-02-05:53:35,10.1.1.4,175,-0.380,-0.380,-0.380,0.000,0.000,0.000
1641102816065753088,2022-01-02-05:53:36,10.1.1.4,175,-0.390,-0.390,-0.390,0.000,0.000,0.000
1641102816267632896,2022-01-02-05:53:36,10.1.1.4,176,-0.400,-0.400,-0.400,0.000,0.000,0.000
1641102816466942976,2022-01-02-05:53:36,10.1.1.4,175,-0.410,-0.410,-0.410,0.000,0.000,0.000
1641102816668494080,2022-01-02-05:53:36,10.1.1.4,176,-0.420,-0.420,-0.420,0.000,0.000,0.000
1641102816869928960,2022-01-02-05:53:36,10.1.1.4,176,-0.430,-0.430,-0.430,0.000,0.000,0.000
1641102817069526784,2022-01-02-05:53:37,10.1.1.4,175,-0.440,-0.440,-0.440,0.000,0.000,0.000
1641102817269331968,2022-01-02-05:53:37,10.1.1.4,175,-0.450,-0.450,-0.450,0.000,0.000,0.000
1641102817471313920,2022-01-02-05:53:37,10.1.1.4,176,-0.460,-0.460,-0.460,0.000,0.000,0.000
1641102817670605824,2022-01-02-05:53:37,10.1.1.4,175,-0.470,-0.470,-0.470,0.000,0.000,0.000
1641102817870748928,2022-01-02-05:53:37,10.1.1.4,175,-0.480,-0.480,-0.480,0.000,0.000,0.000
1641102818071245824,2022-01-02-05:53:38,10.1.1.4,175,-0.490,-0.490,-0.490,0.000,0.000,0.000
1641102818271389952,2022-01-02-05:53:38,10.1.1.4,174,-0.480,-0.480,-0.480,0.000,0.000,0.000
1641102818471949056,2022-01-02-05:53:38,10.1.1.4,174,-0.470,-0.470,-0.470,0.000,0.000,0.000
1641102818692601856,2022-01-02-05:53:38,10.1.1.4,193,-0.460,-0.460,-0.460,0.000,0.000,0.000
1641102818893227008,2022-01-02-05:53:38,10.1.1.4,193,-0.450,-0.450,-0.450,0.000,0.000,0.000
1641102819093067008,2022-01-02-05:53:39,10.1.1.4,192,-0.440,-0.440,-0.440,0.000,0.000,0.000
1641102819293384192,2022-01-02-05:53:39,10.1.1.4,192,-0.430,-0.430,-0.430,0.000,0.000,0.000
1641102819493335040,2022-01-02-05:53:39,10.1.1.4,192,-0.420,-0.420,-0.420,0.000,0.000,0.000
1641102819694437888,2022-01-02-05:53:39,10.1.1.4,192,-0.410,-0.410,-0.410,0.000,0.000,0.000
1641102819894104832,2022-01-02-05:53:39,10.1.1.4,191,-0.400,-0.400,-0.400,0.000,0.000,0.000
1641102820094304000,2022-01-02-05:53:40,10.1.1.4,190,-0.390,-0.390,-0.390,0.000,0.000,0.000
1641102820296364032,2022-01-02-05:53:40,10.1.1.4,192,-0.380,-0.380,-0.380,0.000,0.000,0.000
1641102820495325184,2022-01-02-05:53:40,10.1.1.4,190,-0.370,-0.370,-0.370,0.000,0.000,0.000
1641102820694892032,2022-01-02-05:53:40,10.1.1.4,189,-0.360,-0.360,-0.360,0.000,0.000,0.000
1641102820898283008,2022-01-02-05:53:40,10.1.1.4,191,-0.350,-0.350,-0.350,0.000,0.000,0.000
1641102821095894016,2022-01-02-05:53:41,10.1.1.4,188,-0.340,-0.340,-0.340,0.000,0.000,0.000
1641102821295703040,2022-01-02-05:53:41,10.1.1.4,187,-0.330,-0.330,-0.330,0.000,0.000,0.000
1641102821497915136,2022-01-02-05:53:41,10.1.1.4,189,-0.320,-0.320,-0.320,0.000,0.000,0.000
1641102821696388864,2022-01-02-05:53:41,10.1.1.4,187,-0.310,-0.310,-0.310,0.000,0.000,0.000
1641102821897576192,2022-01-02-05:53:41,10.1.1.4,187,-0.300,-0.300,-0.300,0.000,0.000,0.000
1641102822096116992,2022-01-02-05:53:42,10.1.1.4,185,-0.290,-0.290,-0.290,0.000,0.000,0.000
1641102822297177088,2022-01-02-05:53:42,10.1.1.4,186,-0.280,-0.280,-0.280,0.000,0.000,0.000
1641102822496009216,2022-01-02-05:53:42,10.1.1.4,184,-0.270,-0.270,-0.270,0.000,0.000,0.000
1641102822697103872,2022-01-02-05:53:42,10.1.1.4,185,-0.260,-0.260,-0.260,0.000,0.000,0.000
1641102822896086016,2022-01-02-05:53:42,10.1.1.4,183,-0.250,-0.250,-0.250,0.000,0.000,0.000
1641102823096381952,2022-01-02-05:53:43,10.1.1.4,183,-0.240,-0.240,-0.240,0.000,0.000,0.000
1641102823295921152,2022-01-02-05:53:43,10.1.1.4,182,-0.230,-0.230,-0.230,0.000,0.000,0.000
1641102823496547072,2022-01-02-05:53:43,10.1.1.4,182,-0.220,-0.220,-0.220,0.000,0.000,0.000
1641102823696438016,2022-01-02-05:53:43,10.1.1.4,181,-0.210,-0.210,-0.210,0.000,0.000,0.000
1641102823897079040,2022-01-02-05:53:43,10.1.1.4,181,-0.200,-0.200,-0.200,0.000,0.000,0.000
1641102824096412928,2022-01-02-05:53:44,10.1.1.4,179,-0.190,-0.190,-0.190,0.000,0.000,0.000
1641102824317022976,2022-01-02-05:53:44,10.1.1.4,199,-0.180,-0.180,-0.180,0.000,0.000,0.000
1641102824516275968,2022-01-02-05:53:44,10.1.1.4,197,-0.170,-0.170,-0.170,0.000,0.000,0.000
1641102824718420992,2022-01-02-05:53:44,10.1.1.4,198,-0.160,-0.160,-0.160,0.000,0.000,0.000
1641102824916591872,2022-01-02-05:53:44,10.1.1.4,195,-0.150,-0.150,-0.150,0.000,0.000,0.000
1641102825116000768,2022-01-02-05:53:45,10.1.1.4,194,-0.140,-0.140,-0.140,0.000,0.000,0.000
1641102825316348160,2022-01-02-05:53:45,10.1.1.4,194,-0.130,-0.130,-0.130,0.000,0.000,0.000
1641102825515968000,2022-01-02-05:53:45,10.1.1.4,193,-0.120,-0.120,-0.120,0.000,0.000,0.000
1641102825716221952,2022-01-02-05:53:45,10.1.1.4,192,-0.110,-0.110,-0.110,0.000,0.000,0.000
1641102825920058880,2022-01-02-05:53:45,10.1.1.4,194,-0.100,-0.100,-0.100,0.000,0.000,0.000
1641102826115938816,2022-01-02-05:53:46,10.1.1.4,189,-0.090,-0.090,-0.090,0.000,0.000,0.000
1641102826317080064,2022-01-02-05:53:46,10.1.1.4,190,-0.080,-0.080,-0.080,0.000,0.000,0.000
1641102826515520000,2022-01-02-05:53:46,10.1.1.4,188,-0.070,-0.070,-0.070,0.000,0.000,0.000
1641102826715750912,2022-01-02-05:53:46,10.1.1.4,186,-0.060,-0.060,-0.060,0.000,0.000,0.000
1641102826915680000,2022-01-02-05:53:46,10.1.1.4,185,-0.050,-0.050,-0.050,0.000,0.000,0.000
1641102827119267840,2022-01-02-05:53:47,10.1.1.4,188,-0.040,-0.040,-0.040,0.000,0.000,0.000
1641102827317465088,2022-01-02-05:53:47,10.1.1.4,183,-0.030,-0.030,-0.030,0.000,0.000,0.000
1641102827514537984,2022-01-02-05:53:47,10.1.1.4,182,-0.020,-0.020,-0.020,0.000,0.000,0.000
1641102827714315008,2022-01-02-05:53:47,10.1.1.4,181,-0.010,-0.010,-0.010,0.000,0.000,0.000
1641102827914798848,2022-01-02-05:53:47,10.1.1.4,181,0.000,0.000,0.000,0.000,0.000,0.000
1641102828114661888,2022-01-02-05:53:48,10.1.1.4,180,-0.010,-0.010,-0.010,0.000,0.000,0.000
1641102828321352960,2022-01-02-05:53:48,10.1.1.4,185,-0.020,-0.020,-0.020,0.000,0.000,0.000
1641102828517925120,2022-01-02-05:53:48,10.1.1.4,180,-0.030,-0.030,-0.030,0.000,0.000,0.000
1641102828736210944,2022-01-02-05:53:48,10.1.1.4,198,-0.040,-0.040,-0.040,0.000,0.000,0.000
1641102828933819136,2022-01-02-05:53:48,10.1.1.4,195,-0.050,-0.050,-0.050,0.000,0.000,0.000
1641102829133776896,2022-01-02-05:53:49,10.1.1.4,194,-0.060,-0.060,-0.060,0.000,0.000,0.000
1641102829333609984,2022-01-02-05:53:49,10.1.1.4,193,-0.070,-0.070,-0.070,0.000,0.000,0.000
1641102829534214144,2022-01-02-05:53:49,10.1.1.4,192,-0.080,-0.080,-0.080,0.000,0.000,0.000
1641102829733355008,2022-01-02-05:53:49,10.1.1.4,187,-0.090,-0.090,-0.090,0.000,0.000,0.000
1641102829932924160,2022-01-02-05:53:49,10.1.1.4,185,-0.100,-0.100,-0.100,0.000,0.000,0.000
