FedericoMungari/DigitalTwin_service/01_WiredScenario/Output/Output_script/script_rosapi_2_output_robots12_freq0_4.txt
timestamp,date,node,latency,joint_1,joint_2,joint_3,joint_4,joint_5,joint_6
1644939380135633920,2022-02-15-15:36:20,10.1.1.5,10,-0.100,-0.100,-0.100,0.000,0.000,0.000
1644939380477019136,2022-02-15-15:36:20,10.1.1.5,39,-0.040,-0.040,-0.040,0.000,0.000,0.000
1644939380938204160,2022-02-15-15:36:20,10.1.1.5,39,0.050,0.050,0.050,0.000,0.000,0.000
1644939381195794176,2022-02-15-15:36:21,10.1.1.5,39,0.100,0.100,0.100,0.000,0.000,0.000
1644939381255412992,2022-02-15-15:36:21,10.1.1.5,48,0.090,0.090,0.090,0.000,0.000,0.000
1644939381616944128,2022-02-15-15:36:21,10.1.1.5,49,0.020,0.020,0.020,0.000,0.000,0.000
1644939381655656192,2022-02-15-15:36:21,10.1.1.5,38,0.010,0.010,0.010,0.000,0.000,0.000
1644939382017222912,2022-02-15-15:36:22,10.1.1.5,39,-0.060,-0.060,-0.060,0.000,0.000,0.000
1644939382061252096,2022-02-15-15:36:22,10.1.1.5,28,-0.070,-0.070,-0.070,0.000,0.000,0.000
1644939382357479168,2022-02-15-15:36:22,10.1.1.5,18,-0.070,-0.070,-0.070,0.000,0.000,0.000
1644939382875570176,2022-02-15-15:36:22,10.1.1.5,29,0.030,0.030,0.030,0.000,0.000,0.000
1644939383386550016,2022-02-15-15:36:23,10.1.1.5,29,0.070,0.070,0.070,0.000,0.000,0.000
1644939383455228160,2022-02-15-15:36:23,10.1.1.5,48,0.060,0.060,0.060,0.000,0.000,0.000
1644939383994680832,2022-02-15-15:36:23,10.1.1.5,29,-0.050,-0.050,-0.050,0.000,0.000,0.000
1644939384056134912,2022-02-15-15:36:24,10.1.1.5,39,-0.060,-0.060,-0.060,0.000,0.000,0.000
1644939384435518976,2022-02-15-15:36:24,10.1.1.5,12,-0.060,-0.060,-0.060,0.000,0.000,0.000
1644939384815040000,2022-02-15-15:36:24,10.1.1.5,39,0.010,0.010,0.010,0.000,0.000,0.000
1644939384905961984,2022-02-15-15:36:24,10.1.1.5,29,0.030,0.030,0.030,0.000,0.000,0.000
1644939385465879040,2022-02-15-15:36:25,10.1.1.5,30,0.060,0.060,0.060,0.000,0.000,0.000
1644939385525476864,2022-02-15-15:36:25,10.1.1.5,39,0.050,0.050,0.050,0.000,0.000,0.000
1644939385565238016,2022-02-15-15:36:25,10.1.1.5,29,0.040,0.040,0.040,0.000,0.000,0.000
1644939385615677184,2022-02-15-15:36:25,10.1.1.5,28,0.030,0.030,0.030,0.000,0.000,0.000
1644939386226493952,2022-02-15-15:36:26,10.1.1.5,30,-0.090,-0.090,-0.090,0.000,0.000,0.000
1644939386274738176,2022-02-15-15:36:26,10.1.1.5,28,-0.100,-0.100,-0.100,0.000,0.000,0.000
1644939387196627968,2022-02-15-15:36:27,10.1.1.5,19,0.080,0.080,0.080,0.000,0.000,0.000
1644939387394615040,2022-02-15-15:36:27,10.1.1.5,12,0.080,0.080,0.080,0.000,0.000,0.000
1644939387575942912,2022-02-15-15:36:27,10.1.1.5,40,0.050,0.050,0.050,0.000,0.000,0.000
1644939387616036864,2022-02-15-15:36:27,10.1.1.5,28,0.040,0.040,0.040,0.000,0.000,0.000
1644939388076678144,2022-02-15-15:36:28,10.1.1.5,29,-0.050,-0.050,-0.050,0.000,0.000,0.000
1644939388176199936,2022-02-15-15:36:28,10.1.1.5,28,-0.070,-0.070,-0.070,0.000,0.000,0.000
1644939388236686848,2022-02-15-15:36:28,10.1.1.5,37,-0.080,-0.080,-0.080,0.000,0.000,0.000
1644939388416532992,2022-02-15-15:36:28,10.1.1.5,11,-0.080,-0.080,-0.080,0.000,0.000,0.000
1644939388594657024,2022-02-15-15:36:28,10.1.1.5,39,-0.050,-0.050,-0.050,0.000,0.000,0.000
1644939388645260032,2022-02-15-15:36:28,10.1.1.5,39,-0.040,-0.040,-0.040,0.000,0.000,0.000
1644939389197259008,2022-02-15-15:36:29,10.1.1.5,29,0.070,0.070,0.070,0.000,0.000,0.000
1644939389478991872,2022-02-15-15:36:29,10.1.1.5,5,0.070,0.070,0.070,0.000,0.000,0.000
1644939389857063936,2022-02-15-15:36:29,10.1.1.5,29,0.000,0.000,0.000,0.000,0.000,0.000
1644939390897250816,2022-02-15-15:36:30,10.1.1.5,12,0.000,0.000,0.000,0.000,0.000,0.000
1644939391083426048,2022-02-15-15:36:31,10.1.1.5,39,0.030,0.030,0.030,0.000,0.000,0.000
1644939391201797888,2022-02-15-15:36:31,10.1.1.5,29,0.050,0.050,0.050,0.000,0.000,0.000
1644939393010520832,2022-02-15-15:36:31,10.1.1.5,40,0.090,0.090,0.090,0.000,0.000,0.000
1644939393078206976,2022-02-15-15:36:33,10.1.1.5,13,0.090,0.090,0.090,0.000,0.000,0.000
1644939393677249792,2022-02-15-15:36:33,10.1.1.5,41,-0.020,-0.020,-0.020,0.000,0.000,0.000
1644939393776556032,2022-02-15-15:36:33,10.1.1.5,39,-0.040,-0.040,-0.040,0.000,0.000,0.000
1644939394180326912,2022-02-15-15:36:34,10.1.1.5,29,-0.080,-0.080,-0.080,0.000,0.000,0.000
1644939395079802112,2022-02-15-15:36:34,10.1.1.5,49,0.030,0.030,0.030,0.000,0.000,0.000
1644939395116643840,2022-02-15-15:36:35,10.1.1.5,39,0.040,0.040,0.040,0.000,0.000,0.000
1644939395415047936,2022-02-15-15:36:35,10.1.1.5,29,0.100,0.100,0.100,0.000,0.000,0.000
1644939395478657024,2022-02-15-15:36:35,10.1.1.5,39,0.090,0.090,0.090,0.000,0.000,0.000
1644939395897989888,2022-02-15-15:36:35,10.1.1.5,39,0.010,0.010,0.010,0.000,0.000,0.000
1644939395955881216,2022-02-15-15:36:35,10.1.1.5,29,0.000,0.000,0.000,0.000,0.000,0.000
1644939395998950912,2022-02-15-15:36:35,10.1.1.5,38,-0.010,-0.010,-0.010,0.000,0.000,0.000
1644939396456743936,2022-02-15-15:36:36,10.1.1.5,39,-0.100,-0.100,-0.100,0.000,0.000,0.000
1644939396808444928,2022-02-15-15:36:36,10.1.1.5,29,-0.030,-0.030,-0.030,0.000,0.000,0.000
1644939397335115008,2022-02-15-15:36:37,10.1.1.5,29,0.070,0.070,0.070,0.000,0.000,0.000
1644939397397527040,2022-02-15-15:36:37,10.1.1.5,38,0.080,0.080,0.080,0.000,0.000,0.000
1644939397555574784,2022-02-15-15:36:37,10.1.1.5,40,0.090,0.090,0.090,0.000,0.000,0.000
1644939398157147904,2022-02-15-15:36:38,10.1.1.5,29,-0.030,-0.030,-0.030,0.000,0.000,0.000
1644939398207223040,2022-02-15-15:36:38,10.1.1.5,29,-0.040,-0.040,-0.040,0.000,0.000,0.000
1644939398964925952,2022-02-15-15:36:38,10.1.1.5,10,-0.040,-0.040,-0.040,0.000,0.000,0.000
1644939399555873024,2022-02-15-15:36:39,10.1.1.5,39,0.080,0.080,0.080,0.000,0.000,0.000
1644939399595041024,2022-02-15-15:36:39,10.1.1.5,28,0.090,0.090,0.090,0.000,0.000,0.000
1644939399680428032,2022-02-15-15:36:39,10.1.1.5,7,0.090,0.090,0.090,0.000,0.000,0.000
1644939403606992128,2022-02-15-15:36:41,10.1.1.5,40,-0.020,-0.020,-0.020,0.000,0.000,0.000
1644939404856748032,2022-02-15-15:36:44,10.1.1.5,17,-0.020,-0.020,-0.020,0.000,0.000,0.000
1644939406488444160,2022-02-15-15:36:46,10.1.1.5,-21,-0.020,-0.020,-0.020,0.000,0.000,0.000
1644939409582546944,2022-02-15-15:36:46,10.1.1.5,-364,-0.020,-0.020,-0.020,0.000,0.000,0.000
1644939410090665984,2022-02-15-15:36:50,10.1.1.5,29,0.070,0.070,0.070,0.000,0.000,0.000
1644939410137767936,2022-02-15-15:36:50,10.1.1.5,39,0.080,0.080,0.080,0.000,0.000,0.000
1644939410314759936,2022-02-15-15:36:50,10.1.1.5,8,0.080,0.080,0.080,0.000,0.000,0.000
1644939412065821952,2022-02-15-15:36:51,10.1.1.5,29,0.020,0.020,0.020,0.000,0.000,0.000
1644939412194520832,2022-02-15-15:36:52,10.1.1.5,28,0.050,0.050,0.050,0.000,0.000,0.000
1644939412696728064,2022-02-15-15:36:52,10.1.1.5,11,0.050,0.050,0.050,0.000,0.000,0.000
1644939412915097856,2022-02-15-15:36:52,10.1.1.5,29,0.010,0.010,0.010,0.000,0.000,0.000
1644939413465148928,2022-02-15-15:36:53,10.1.1.5,29,-0.040,-0.040,-0.040,0.000,0.000,0.000
1644939413575063040,2022-02-15-15:36:53,10.1.1.5,39,-0.060,-0.060,-0.060,0.000,0.000,0.000
1644939413740422912,2022-02-15-15:36:53,10.1.1.5,29,-0.090,-0.090,-0.090,0.000,0.000,0.000
1644939413816267008,2022-02-15-15:36:53,10.1.1.5,6,-0.090,-0.090,-0.090,0.000,0.000,0.000
1644939414154756096,2022-02-15-15:36:54,10.1.1.5,39,-0.030,-0.030,-0.030,0.000,0.000,0.000
1644939414195348992,2022-02-15-15:36:54,10.1.1.5,28,-0.020,-0.020,-0.020,0.000,0.000,0.000
1644939414414802944,2022-02-15-15:36:54,10.1.1.5,39,0.020,0.020,0.020,0.000,0.000,0.000
1644939415278809088,2022-02-15-15:36:55,10.1.1.5,40,0.030,0.030,0.030,0.000,0.000,0.000
1644939416295429888,2022-02-15-15:36:56,10.1.1.5,30,-0.040,-0.040,-0.040,0.000,0.000,0.000
1644939416356720896,2022-02-15-15:36:56,10.1.1.5,39,-0.030,-0.030,-0.030,0.000,0.000,0.000
1644939416396698112,2022-02-15-15:36:56,10.1.1.5,29,-0.020,-0.020,-0.020,0.000,0.000,0.000
1644939416456666112,2022-02-15-15:36:56,10.1.1.5,38,-0.010,-0.010,-0.010,0.000,0.000,0.000
1644939417797538048,2022-02-15-15:36:57,10.1.1.5,4,-0.010,-0.010,-0.010,0.000,0.000,0.000
1644939418035116800,2022-02-15-15:36:58,10.1.1.5,39,-0.060,-0.060,-0.060,0.000,0.000,0.000
1644939418136687104,2022-02-15-15:36:58,10.1.1.5,38,-0.080,-0.080,-0.080,0.000,0.000,0.000
1644939418345740032,2022-02-15-15:36:58,10.1.1.5,12,-0.080,-0.080,-0.080,0.000,0.000,0.000
1644939418438469888,2022-02-15-15:36:58,10.1.1.5,29,-0.060,-0.060,-0.060,0.000,0.000,0.000
1644939419097569024,2022-02-15-15:36:59,10.1.1.5,29,0.060,0.060,0.060,0.000,0.000,0.000
1644939419197561856,2022-02-15-15:36:59,10.1.1.5,28,0.080,0.080,0.080,0.000,0.000,0.000
1644939419397593088,2022-02-15-15:36:59,10.1.1.5,3,0.080,0.080,0.080,0.000,0.000,0.000
1644939421297152000,2022-02-15-15:37:01,10.1.1.5,13,0.080,0.080,0.080,0.000,0.000,0.000
1644939421495533824,2022-02-15-15:37:01,10.1.1.5,10,0.080,0.080,0.080,0.000,0.000,0.000
1644939421875851008,2022-02-15-15:37:01,10.1.1.5,29,0.010,0.010,0.010,0.000,0.000,0.000
1644939421934823936,2022-02-15-15:37:01,10.1.1.5,38,0.000,0.000,0.000,0.000,0.000,0.000
1644939421975259136,2022-02-15-15:37:01,10.1.1.5,28,-0.010,-0.010,-0.010,0.000,0.000,0.000
1644939422195312128,2022-02-15-15:37:02,10.1.1.5,39,-0.050,-0.050,-0.050,0.000,0.000,0.000
1644939423186539008,2022-02-15-15:37:02,10.1.1.5,12,-0.050,-0.050,-0.050,0.000,0.000,0.000
1644939423255712000,2022-02-15-15:37:03,10.1.1.5,21,-0.030,-0.030,-0.030,0.000,0.000,0.000
1644939424416871168,2022-02-15-15:37:04,10.1.1.5,28,0.010,0.010,0.010,0.000,0.000,0.000
1644939425391789824,2022-02-15-15:37:05,10.1.1.5,30,-0.030,-0.030,-0.030,0.000,0.000,0.000
1644939425444520960,2022-02-15-15:37:05,10.1.1.5,39,-0.020,-0.020,-0.020,0.000,0.000,0.000
1644939425958475008,2022-02-15-15:37:05,10.1.1.5,39,0.060,0.060,0.060,0.000,0.000,0.000
1644939426320774144,2022-02-15-15:37:06,10.1.1.5,4,0.060,0.060,0.060,0.000,0.000,0.000
1644939426436007936,2022-02-15-15:37:06,10.1.1.5,20,0.040,0.040,0.040,0.000,0.000,0.000
1644939426498712064,2022-02-15-15:37:06,10.1.1.5,29,0.030,0.030,0.030,0.000,0.000,0.000
1644939426557400064,2022-02-15-15:37:06,10.1.1.5,38,0.020,0.020,0.020,0.000,0.000,0.000
1644939427281292800,2022-02-15-15:37:07,10.1.1.5,30,-0.080,-0.080,-0.080,0.000,0.000,0.000
1644939427375911936,2022-02-15-15:37:07,10.1.1.5,28,-0.060,-0.060,-0.060,0.000,0.000,0.000
1644939429485253120,2022-02-15-15:37:07,10.1.1.5,39,0.050,0.050,0.050,0.000,0.000,0.000
1644939430233808896,2022-02-15-15:37:09,10.1.1.5,38,0.090,0.090,0.090,0.000,0.000,0.000
1644939430834646016,2022-02-15-15:37:10,10.1.1.5,29,-0.030,-0.030,-0.030,0.000,0.000,0.000
1644939431257363968,2022-02-15-15:37:11,10.1.1.5,38,-0.100,-0.100,-0.100,0.000,0.000,0.000
1644939431423938048,2022-02-15-15:37:11,10.1.1.5,28,-0.080,-0.080,-0.080,0.000,0.000,0.000
1644939431534792960,2022-02-15-15:37:11,10.1.1.5,38,-0.060,-0.060,-0.060,0.000,0.000,0.000
1644939431795581184,2022-02-15-15:37:11,10.1.1.5,39,-0.010,-0.010,-0.010,0.000,0.000,0.000
1644939431835735040,2022-02-15-15:37:11,10.1.1.5,28,0.000,0.000,0.000,0.000,0.000,0.000
1644939431897574912,2022-02-15-15:37:11,10.1.1.5,38,0.010,0.010,0.010,0.000,0.000,0.000
1644939432561729792,2022-02-15-15:37:12,10.1.1.5,39,0.060,0.060,0.060,0.000,0.000,0.000
1644939433288919040,2022-02-15-15:37:13,10.1.1.5,39,-0.080,-0.080,-0.080,0.000,0.000,0.000
1644939433686191104,2022-02-15-15:37:13,10.1.1.5,2,-0.080,-0.080,-0.080,0.000,0.000,0.000
1644939433917875968,2022-02-15-15:37:13,10.1.1.5,30,-0.030,-0.030,-0.030,0.000,0.000,0.000
1644939433976237056,2022-02-15-15:37:13,10.1.1.5,40,-0.020,-0.020,-0.020,0.000,0.000,0.000
1644939434015017984,2022-02-15-15:37:14,10.1.1.5,29,-0.010,-0.010,-0.010,0.000,0.000,0.000
1644939434068412160,2022-02-15-15:37:14,10.1.1.5,29,0.000,0.000,0.000,0.000,0.000,0.000
1644939434746511104,2022-02-15-15:37:14,10.1.1.5,31,0.070,0.070,0.070,0.000,0.000,0.000
1644939434855514880,2022-02-15-15:37:14,10.1.1.5,38,0.050,0.050,0.050,0.000,0.000,0.000
1644939435114451968,2022-02-15-15:37:15,10.1.1.5,39,0.000,0.000,0.000,0.000,0.000,0.000
1644939435579535872,2022-02-15-15:37:15,10.1.1.5,38,-0.040,-0.040,-0.040,0.000,0.000,0.000
1644939436339536896,2022-02-15-15:37:16,10.1.1.5,39,-0.050,-0.050,-0.050,0.000,0.000,0.000
1644939436536111104,2022-02-15-15:37:16,10.1.1.5,29,-0.010,-0.010,-0.010,0.000,0.000,0.000
1644939436770875904,2022-02-15-15:37:16,10.1.1.5,39,0.030,0.030,0.030,0.000,0.000,0.000
1644939437418791168,2022-02-15-15:37:16,10.1.1.5,39,0.060,0.060,0.060,0.000,0.000,0.000
1644939437674552832,2022-02-15-15:37:17,10.1.1.5,39,0.100,0.100,0.100,0.000,0.000,0.000
1644939437714845952,2022-02-15-15:37:17,10.1.1.5,29,0.090,0.090,0.090,0.000,0.000,0.000
1644939437774859008,2022-02-15-15:37:17,10.1.1.5,38,0.080,0.080,0.080,0.000,0.000,0.000
1644939438639244032,2022-02-15-15:37:18,10.1.1.5,29,-0.090,-0.090,-0.090,0.000,0.000,0.000
1644939438717558016,2022-02-15-15:37:18,10.1.1.5,8,-0.090,-0.090,-0.090,0.000,0.000,0.000
1644939439097220864,2022-02-15-15:37:19,10.1.1.5,29,-0.020,-0.020,-0.020,0.000,0.000,0.000
1644939439258496000,2022-02-15-15:37:19,10.1.1.5,29,0.010,0.010,0.010,0.000,0.000,0.000
1644939439832516864,2022-02-15-15:37:19,10.1.1.5,38,0.100,0.100,0.100,0.000,0.000,0.000
1644939440160046080,2022-02-15-15:37:20,10.1.1.5,49,0.040,0.040,0.040,0.000,0.000,0.000
1644939440715013120,2022-02-15-15:37:20,10.1.1.5,39,-0.070,-0.070,-0.070,0.000,0.000,0.000
1644939440755961856,2022-02-15-15:37:20,10.1.1.5,28,-0.080,-0.080,-0.080,0.000,0.000,0.000
1644939440955766016,2022-02-15-15:37:20,10.1.1.5,22,-0.080,-0.080,-0.080,0.000,0.000,0.000
1644939441237206016,2022-02-15-15:37:21,10.1.1.5,29,-0.030,-0.030,-0.030,0.000,0.000,0.000
1644939442776057088,2022-02-15-15:37:22,10.1.1.5,24,-0.030,-0.030,-0.030,0.000,0.000,0.000
1644939446062483200,2022-02-15-15:37:23,10.1.1.5,-8,-0.030,-0.030,-0.030,0.000,0.000,0.000
1644939453008408064,2022-02-15-15:37:30,10.1.1.5,12,-0.030,-0.030,-0.030,0.000,0.000,0.000
1644939456961602048,2022-02-15-15:37:33,10.1.1.5,39,-0.100,-0.100,-0.100,0.000,0.000,0.000
1644939463010806016,2022-02-15-15:37:42,10.1.1.5,39,0.030,0.030,0.030,0.000,0.000,0.000
1644939467726129152,2022-02-15-15:37:44,10.1.1.5,21,0.030,0.030,0.030,0.000,0.000,0.000
1644939476218553088,2022-02-15-15:37:50,10.1.1.5,-1535,0.030,0.030,0.030,0.000,0.000,0.000
1644939498946360064,2022-02-15-15:38:12,10.1.1.5,14,0.030,0.030,0.030,0.000,0.000,0.000
1644939499184497152,2022-02-15-15:38:19,10.1.1.5,39,0.060,0.060,0.060,0.000,0.000,0.000
1644939499558183936,2022-02-15-15:38:19,10.1.1.5,29,0.070,0.070,0.070,0.000,0.000,0.000
1644939499614862848,2022-02-15-15:38:19,10.1.1.5,39,0.060,0.060,0.060,0.000,0.000,0.000
1644939500117794048,2022-02-15-15:38:20,10.1.1.5,29,-0.040,-0.040,-0.040,0.000,0.000,0.000
1644939500717832960,2022-02-15-15:38:20,10.1.1.5,18,-0.040,-0.040,-0.040,0.000,0.000,0.000
1644939501136112896,2022-02-15-15:38:21,10.1.1.5,29,0.040,0.040,0.040,0.000,0.000,0.000
1644939501196755968,2022-02-15-15:38:21,10.1.1.5,38,0.050,0.050,0.050,0.000,0.000,0.000
1644939501675748096,2022-02-15-15:38:21,10.1.1.5,11,0.050,0.050,0.050,0.000,0.000,0.000
1644939501858007808,2022-02-15-15:38:21,10.1.1.5,39,0.020,0.020,0.020,0.000,0.000,0.000
1644939501905968896,2022-02-15-15:38:21,10.1.1.5,29,0.010,0.010,0.010,0.000,0.000,0.000
1644939502576103936,2022-02-15-15:38:22,10.1.1.5,30,-0.080,-0.080,-0.080,0.000,0.000,0.000
1644939502635790080,2022-02-15-15:38:22,10.1.1.5,39,-0.070,-0.070,-0.070,0.000,0.000,0.000
1644939502677189120,2022-02-15-15:38:22,10.1.1.5,29,-0.060,-0.060,-0.060,0.000,0.000,0.000
1644939502734589184,2022-02-15-15:38:22,10.1.1.5,38,-0.050,-0.050,-0.050,0.000,0.000,0.000
1644939503236207104,2022-02-15-15:38:23,10.1.1.5,28,0.050,0.050,0.050,0.000,0.000,0.000
1644939503755103232,2022-02-15-15:38:23,10.1.1.5,20,0.050,0.050,0.050,0.000,0.000,0.000
1644939503878784000,2022-02-15-15:38:23,10.1.1.5,39,0.030,0.030,0.030,0.000,0.000,0.000
1644939503916775936,2022-02-15-15:38:23,10.1.1.5,28,0.020,0.020,0.020,0.000,0.000,0.000
1644939504399968000,2022-02-15-15:38:24,10.1.1.5,39,-0.070,-0.070,-0.070,0.000,0.000,0.000
1644939504438584064,2022-02-15-15:38:24,10.1.1.5,28,-0.080,-0.080,-0.080,0.000,0.000,0.000
1644939504496260864,2022-02-15-15:38:24,10.1.1.5,38,-0.090,-0.090,-0.090,0.000,0.000,0.000
1644939504576860928,2022-02-15-15:38:24,10.1.1.5,16,-0.090,-0.090,-0.090,0.000,0.000,0.000
1644939504905956096,2022-02-15-15:38:24,10.1.1.5,29,-0.030,-0.030,-0.030,0.000,0.000,0.000
1644939504955223040,2022-02-15-15:38:24,10.1.1.5,28,-0.020,-0.020,-0.020,0.000,0.000,0.000
1644939505515296000,2022-02-15-15:38:25,10.1.1.5,30,0.090,0.090,0.090,0.000,0.000,0.000
1644939505576926976,2022-02-15-15:38:25,10.1.1.5,39,0.100,0.100,0.100,0.000,0.000,0.000
1644939505615065088,2022-02-15-15:38:25,10.1.1.5,29,0.090,0.090,0.090,0.000,0.000,0.000
1644939505675182080,2022-02-15-15:38:25,10.1.1.5,38,0.080,0.080,0.080,0.000,0.000,0.000
1644939506075934976,2022-02-15-15:38:26,10.1.1.5,29,0.000,0.000,0.000,0.000,0.000,0.000
1644939506136429056,2022-02-15-15:38:26,10.1.1.5,39,-0.010,-0.010,-0.010,0.000,0.000,0.000
1644939506174900992,2022-02-15-15:38:26,10.1.1.5,28,-0.020,-0.020,-0.020,0.000,0.000,0.000
1644939506836805120,2022-02-15-15:38:26,10.1.1.5,31,-0.050,-0.050,-0.050,0.000,0.000,0.000
1644939506941970944,2022-02-15-15:38:26,10.1.1.5,28,-0.030,-0.030,-0.030,0.000,0.000,0.000
1644939507158014976,2022-02-15-15:38:27,10.1.1.5,30,0.010,0.010,0.010,0.000,0.000,0.000
1644939507255206144,2022-02-15-15:38:27,10.1.1.5,29,0.030,0.030,0.030,0.000,0.000,0.000
1644939507316113920,2022-02-15-15:38:27,10.1.1.5,38,0.040,0.040,0.040,0.000,0.000,0.000
1644939507931493120,2022-02-15-15:38:27,10.1.1.5,1,0.040,0.040,0.040,0.000,0.000,0.000
1644939508096025088,2022-02-15-15:38:28,10.1.1.5,30,0.010,0.010,0.010,0.000,0.000,0.000
1644939508198002176,2022-02-15-15:38:28,10.1.1.5,28,-0.010,-0.010,-0.010,0.000,0.000,0.000
1644939508759054848,2022-02-15-15:38:28,10.1.1.5,29,-0.080,-0.080,-0.080,0.000,0.000,0.000
1644939509436175104,2022-02-15-15:38:29,10.1.1.5,39,0.050,0.050,0.050,0.000,0.000,0.000
1644939509996471040,2022-02-15-15:38:29,10.1.1.5,18,0.050,0.050,0.050,0.000,0.000,0.000
1644939511476301056,2022-02-15-15:38:31,10.1.1.5,38,0.020,0.020,0.020,0.000,0.000,0.000
1644939512261275136,2022-02-15-15:38:32,10.1.1.5,1,0.020,0.020,0.020,0.000,0.000,0.000
1644939512846683904,2022-02-15-15:38:32,10.1.1.5,29,-0.090,-0.090,-0.090,0.000,0.000,0.000
1644939512935145984,2022-02-15-15:38:32,10.1.1.5,13,-0.090,-0.090,-0.090,0.000,0.000,0.000
1644939513617248000,2022-02-15-15:38:33,10.1.1.5,41,0.040,0.040,0.040,0.000,0.000,0.000
1644939513657150976,2022-02-15-15:38:33,10.1.1.5,30,0.050,0.050,0.050,0.000,0.000,0.000
1644939514157470976,2022-02-15-15:38:34,10.1.1.5,23,0.050,0.050,0.050,0.000,0.000,0.000
1644939516531068160,2022-02-15-15:38:35,10.1.1.5,39,0.040,0.040,0.040,0.000,0.000,0.000
1644939516555640832,2022-02-15-15:38:36,10.1.1.5,28,0.050,0.050,0.050,0.000,0.000,0.000
1644939517057432832,2022-02-15-15:38:37,10.1.1.5,12,0.050,0.050,0.050,0.000,0.000,0.000
1644939517236446976,2022-02-15-15:38:37,10.1.1.5,39,0.020,0.020,0.020,0.000,0.000,0.000
1644939517536685824,2022-02-15-15:38:37,10.1.1.5,28,-0.040,-0.040,-0.040,0.000,0.000,0.000
1644939517856806144,2022-02-15-15:38:37,10.1.1.5,39,-0.100,-0.100,-0.100,0.000,0.000,0.000
1644939517895170048,2022-02-15-15:38:37,10.1.1.5,29,-0.090,-0.090,-0.090,0.000,0.000,0.000
1644939518254797824,2022-02-15-15:38:38,10.1.1.5,30,-0.020,-0.020,-0.020,0.000,0.000,0.000
1644939518776717824,2022-02-15-15:38:38,10.1.1.5,28,0.080,0.080,0.080,0.000,0.000,0.000
1644939518956676864,2022-02-15-15:38:38,10.1.1.5,6,0.080,0.080,0.080,0.000,0.000,0.000
1644939519436055808,2022-02-15-15:38:39,10.1.1.5,29,-0.010,-0.010,-0.010,0.000,0.000,0.000
1644939519496421120,2022-02-15-15:38:39,10.1.1.5,39,-0.020,-0.020,-0.020,0.000,0.000,0.000
1644939519694328064,2022-02-15-15:38:39,10.1.1.5,30,-0.060,-0.060,-0.060,0.000,0.000,0.000
1644939520099191808,2022-02-15-15:38:40,10.1.1.5,11,-0.060,-0.060,-0.060,0.000,0.000,0.000
1644939520215527168,2022-02-15-15:38:40,10.1.1.5,29,-0.040,-0.040,-0.040,0.000,0.000,0.000
1644939520836318976,2022-02-15-15:38:40,10.1.1.5,39,0.080,0.080,0.080,0.000,0.000,0.000
1644939520997175808,2022-02-15-15:38:40,10.1.1.5,32,0.090,0.090,0.090,0.000,0.000,0.000
1644939522446598144,2022-02-15-15:38:42,10.1.1.5,39,-0.010,-0.010,-0.010,0.000,0.000,0.000
1644939523096402944,2022-02-15-15:38:43,10.1.1.5,29,0.080,0.080,0.080,0.000,0.000,0.000
1644939524076368128,2022-02-15-15:38:44,10.1.1.5,39,-0.090,-0.090,-0.090,0.000,0.000,0.000
1644939526035481856,2022-02-15-15:38:46,10.1.1.5,13,-0.090,-0.090,-0.090,0.000,0.000,0.000
1644939526158739968,2022-02-15-15:38:46,10.1.1.5,30,-0.090,-0.090,-0.090,0.000,0.000,0.000
1644939526415661056,2022-02-15-15:38:46,10.1.1.5,30,-0.040,-0.040,-0.040,0.000,0.000,0.000
1644939526677291008,2022-02-15-15:38:46,10.1.1.5,30,0.010,0.010,0.010,0.000,0.000,0.000
1644939526737711872,2022-02-15-15:38:46,10.1.1.5,39,0.020,0.020,0.020,0.000,0.000,0.000
1644939526775571200,2022-02-15-15:38:46,10.1.1.5,28,0.030,0.030,0.030,0.000,0.000,0.000
1644939527382365952,2022-02-15-15:38:47,10.1.1.5,20,0.050,0.050,0.050,0.000,0.000,0.000
1644939527437868032,2022-02-15-15:38:47,10.1.1.5,29,0.040,0.040,0.040,0.000,0.000,0.000
1644939527502347008,2022-02-15-15:38:47,10.1.1.5,39,0.030,0.030,0.030,0.000,0.000,0.000
1644939527539203840,2022-02-15-15:38:47,10.1.1.5,29,0.020,0.020,0.020,0.000,0.000,0.000
1644939527857332992,2022-02-15-15:38:47,10.1.1.5,40,-0.030,-0.030,-0.030,0.000,0.000,0.000
1644939528195538944,2022-02-15-15:38:48,10.1.1.5,20,-0.100,-0.100,-0.100,0.000,0.000,0.000
1644939529356658944,2022-02-15-15:38:49,10.1.1.5,39,0.080,0.080,0.080,0.000,0.000,0.000
1644939529666114048,2022-02-15-15:38:49,10.1.1.5,30,0.020,0.020,0.020,0.000,0.000,0.000
1644939529956061952,2022-02-15-15:38:49,10.1.1.5,29,-0.030,-0.030,-0.030,0.000,0.000,0.000
1644939530156812800,2022-02-15-15:38:50,10.1.1.5,20,-0.070,-0.070,-0.070,0.000,0.000,0.000
1644939530461127936,2022-02-15-15:38:50,10.1.1.5,11,-0.070,-0.070,-0.070,0.000,0.000,0.000
1644939530538279936,2022-02-15-15:38:50,10.1.1.5,38,-0.060,-0.060,-0.060,0.000,0.000,0.000
1644939530816909056,2022-02-15-15:38:50,10.1.1.5,49,-0.010,-0.010,-0.010,0.000,0.000,0.000
1644939530858668032,2022-02-15-15:38:50,10.1.1.5,38,0.000,0.000,0.000,0.000,0.000,0.000
1644939531497334016,2022-02-15-15:38:51,10.1.1.5,20,0.090,0.090,0.090,0.000,0.000,0.000
1644939531557591040,2022-02-15-15:38:51,10.1.1.5,12,0.090,0.090,0.090,0.000,0.000,0.000
1644939531765042176,2022-02-15-15:38:51,10.1.1.5,20,0.050,0.050,0.050,0.000,0.000,0.000
1644939531837671936,2022-02-15-15:38:51,10.1.1.5,39,0.040,0.040,0.040,0.000,0.000,0.000
1644939532384911104,2022-02-15-15:38:52,10.1.1.5,20,-0.070,-0.070,-0.070,0.000,0.000,0.000
1644939532446880000,2022-02-15-15:38:52,10.1.1.5,29,-0.080,-0.080,-0.080,0.000,0.000,0.000
1644939532659211008,2022-02-15-15:38:52,10.1.1.5,21,-0.080,-0.080,-0.080,0.000,0.000,0.000
1644939532975995904,2022-02-15-15:38:52,10.1.1.5,28,-0.020,-0.020,-0.020,0.000,0.000,0.000
1644939533238405888,2022-02-15-15:38:53,10.1.1.5,29,0.030,0.030,0.030,0.000,0.000,0.000
1644939533894752000,2022-02-15-15:38:53,10.1.1.5,30,0.040,0.040,0.040,0.000,0.000,0.000
1644939533995693824,2022-02-15-15:38:53,10.1.1.5,29,0.020,0.020,0.020,0.000,0.000,0.000
1644939534056763904,2022-02-15-15:38:54,10.1.1.5,38,0.010,0.010,0.010,0.000,0.000,0.000
1644939534095109888,2022-02-15-15:38:54,10.1.1.5,28,0.000,0.000,0.000,0.000,0.000,0.000
1644939535116070144,2022-02-15-15:38:55,10.1.1.5,19,0.000,0.000,0.000,0.000,0.000,0.000
1644939535175948032,2022-02-15-15:38:55,10.1.1.5,28,0.010,0.010,0.010,0.000,0.000,0.000
1644939536075377920,2022-02-15-15:38:56,10.1.1.5,13,0.010,0.010,0.010,0.000,0.000,0.000
1644939536338121984,2022-02-15-15:38:56,10.1.1.5,20,-0.040,-0.040,-0.040,0.000,0.000,0.000
1644939536397725952,2022-02-15-15:38:56,10.1.1.5,29,-0.050,-0.050,-0.050,0.000,0.000,0.000
1644939536456994048,2022-02-15-15:38:56,10.1.1.5,39,-0.060,-0.060,-0.060,0.000,0.000,0.000
1644939536495598080,2022-02-15-15:38:56,10.1.1.5,29,-0.070,-0.070,-0.070,0.000,0.000,0.000
1644939536796225024,2022-02-15-15:38:56,10.1.1.5,25,-0.070,-0.070,-0.070,0.000,0.000,0.000
1644939537255884800,2022-02-15-15:38:57,10.1.1.5,28,0.020,0.020,0.020,0.000,0.000,0.000
1644939537977732864,2022-02-15-15:38:57,10.1.1.5,39,0.040,0.040,0.040,0.000,0.000,0.000
1644939538576208128,2022-02-15-15:38:58,10.1.1.5,29,-0.080,-0.080,-0.080,0.000,0.000,0.000
1644939538675278848,2022-02-15-15:38:58,10.1.1.5,28,-0.100,-0.100,-0.100,0.000,0.000,0.000
1644939539255208960,2022-02-15-15:38:59,10.1.1.5,39,0.010,0.010,0.010,0.000,0.000,0.000
1644939539295604992,2022-02-15-15:38:59,10.1.1.5,28,0.020,0.020,0.020,0.000,0.000,0.000
1644939539656302080,2022-02-15-15:38:59,10.1.1.5,29,0.090,0.090,0.090,0.000,0.000,0.000
1644939539715555072,2022-02-15-15:38:59,10.1.1.5,39,0.100,0.100,0.100,0.000,0.000,0.000
1644939539754460160,2022-02-15-15:38:59,10.1.1.5,28,0.090,0.090,0.090,0.000,0.000,0.000
1644939540016114944,2022-02-15-15:39:00,10.1.1.5,28,0.040,0.040,0.040,0.000,0.000,0.000
1644939540235801856,2022-02-15-15:39:00,10.1.1.5,30,0.000,0.000,0.000,0.000,0.000,0.000
1644939540295238144,2022-02-15-15:39:00,10.1.1.5,39,-0.010,-0.010,-0.010,0.000,0.000,0.000
1644939541075748864,2022-02-15-15:39:01,10.1.1.5,30,-0.040,-0.040,-0.040,0.000,0.000,0.000
1644939541135226112,2022-02-15-15:39:01,10.1.1.5,40,-0.030,-0.030,-0.030,0.000,0.000,0.000
1644939541176448000,2022-02-15-15:39:01,10.1.1.5,29,-0.020,-0.020,-0.020,0.000,0.000,0.000
1644939542157306880,2022-02-15-15:39:02,10.1.1.5,29,0.030,0.030,0.030,0.000,0.000,0.000
1644939542218689792,2022-02-15-15:39:02,10.1.1.5,39,0.020,0.020,0.020,0.000,0.000,0.000
1644939542246644992,2022-02-15-15:39:02,10.1.1.5,20,0.010,0.010,0.010,0.000,0.000,0.000
1644939542675364864,2022-02-15-15:39:02,10.1.1.5,28,-0.070,-0.070,-0.070,0.000,0.000,0.000
1644939542957218816,2022-02-15-15:39:02,10.1.1.5,4,-0.070,-0.070,-0.070,0.000,0.000,0.000
1644939543137496832,2022-02-15-15:39:03,10.1.1.5,28,-0.040,-0.040,-0.040,0.000,0.000,0.000
1644939544507828992,2022-02-15-15:39:04,10.1.1.5,20,-0.020,-0.020,-0.020,0.000,0.000,0.000
1644939545248788992,2022-02-15-15:39:05,10.1.1.5,42,-0.040,-0.040,-0.040,0.000,0.000,0.000
1644939545302032896,2022-02-15-15:39:05,10.1.1.5,39,-0.030,-0.030,-0.030,0.000,0.000,0.000
1644939545819241984,2022-02-15-15:39:05,10.1.1.5,39,0.030,0.030,0.030,0.000,0.000,0.000
1644939546566391040,2022-02-15-15:39:06,10.1.1.5,12,0.030,0.030,0.030,0.000,0.000,0.000
1644939547726721024,2022-02-15-15:39:07,10.1.1.5,29,-0.010,-0.010,-0.010,0.000,0.000,0.000
1644939548200561920,2022-02-15-15:39:08,10.1.1.5,39,0.080,0.080,0.080,0.000,0.000,0.000
1644939548377111040,2022-02-15-15:39:08,10.1.1.5,16,0.080,0.080,0.080,0.000,0.000,0.000
1644939548727598848,2022-02-15-15:39:08,10.1.1.5,20,0.020,0.020,0.020,0.000,0.000,0.000
1644939548765614080,2022-02-15-15:39:08,10.1.1.5,20,0.010,0.010,0.010,0.000,0.000,0.000
1644939548976391936,2022-02-15-15:39:08,10.1.1.5,20,-0.030,-0.030,-0.030,0.000,0.000,0.000
1644939549045562112,2022-02-15-15:39:09,10.1.1.5,29,-0.040,-0.040,-0.040,0.000,0.000,0.000
1644939549085395200,2022-02-15-15:39:09,10.1.1.5,29,-0.050,-0.050,-0.050,0.000,0.000,0.000
1644939549495554048,2022-02-15-15:39:09,10.1.1.5,29,-0.070,-0.070,-0.070,0.000,0.000,0.000
1644939549706537984,2022-02-15-15:39:09,10.1.1.5,30,-0.030,-0.030,-0.030,0.000,0.000,0.000
1644939550126380800,2022-02-15-15:39:10,10.1.1.5,38,0.040,0.040,0.040,0.000,0.000,0.000
1644939550777475072,2022-02-15-15:39:10,10.1.1.5,18,0.040,0.040,0.040,0.000,0.000,0.000
1644939551207204096,2022-02-15-15:39:11,10.1.1.5,39,-0.040,-0.040,-0.040,0.000,0.000,0.000
1644939551236295936,2022-02-15-15:39:11,10.1.1.5,28,-0.050,-0.050,-0.050,0.000,0.000,0.000
1644939551658565888,2022-02-15-15:39:11,10.1.1.5,22,-0.070,-0.070,-0.070,0.000,0.000,0.000
1644939551775791872,2022-02-15-15:39:11,10.1.1.5,40,-0.050,-0.050,-0.050,0.000,0.000,0.000
1644939552362919168,2022-02-15-15:39:12,10.1.1.5,29,0.060,0.060,0.060,0.000,0.000,0.000
1644939552779723776,2022-02-15-15:39:12,10.1.1.5,31,0.060,0.060,0.060,0.000,0.000,0.000
1644939552825647104,2022-02-15-15:39:12,10.1.1.5,29,0.050,0.050,0.050,0.000,0.000,0.000
1644939554016962048,2022-02-15-15:39:14,10.1.1.5,38,-0.020,-0.020,-0.020,0.000,0.000,0.000
1644939555274554880,2022-02-15-15:39:15,10.1.1.5,21,-0.020,-0.020,-0.020,0.000,0.000,0.000
1644939555765611008,2022-02-15-15:39:15,10.1.1.5,39,-0.090,-0.090,-0.090,0.000,0.000,0.000
1644939555837991936,2022-02-15-15:39:15,10.1.1.5,23,-0.090,-0.090,-0.090,0.000,0.000,0.000
1644939556056838144,2022-02-15-15:39:16,10.1.1.5,39,-0.050,-0.050,-0.050,0.000,0.000,0.000
1644939556102251008,2022-02-15-15:39:16,10.1.1.5,29,-0.040,-0.040,-0.040,0.000,0.000,0.000
1644939557456151040,2022-02-15-15:39:17,10.1.1.5,19,-0.020,-0.020,-0.020,0.000,0.000,0.000
1644939557634663936,2022-02-15-15:39:17,10.1.1.5,39,-0.050,-0.050,-0.050,0.000,0.000,0.000
1644939557674601984,2022-02-15-15:39:17,10.1.1.5,28,-0.060,-0.060,-0.060,0.000,0.000,0.000
1644939557976860928,2022-02-15-15:39:17,10.1.1.5,49,-0.090,-0.090,-0.090,0.000,0.000,0.000
1644939558474989056,2022-02-15-15:39:18,10.1.1.5,39,0.010,0.010,0.010,0.000,0.000,0.000
1644939558875031040,2022-02-15-15:39:18,10.1.1.5,28,0.090,0.090,0.090,0.000,0.000,0.000
1644939558955548160,2022-02-15-15:39:18,10.1.1.5,6,0.090,0.090,0.090,0.000,0.000,0.000
1644939559496083968,2022-02-15-15:39:19,10.1.1.5,40,-0.010,-0.010,-0.010,0.000,0.000,0.000
1644939559799884032,2022-02-15-15:39:19,10.1.1.5,29,-0.070,-0.070,-0.070,0.000,0.000,0.000
1644939560118413824,2022-02-15-15:39:20,10.1.1.5,23,-0.070,-0.070,-0.070,0.000,0.000,0.000
1644939560287179008,2022-02-15-15:39:20,10.1.1.5,30,-0.040,-0.040,-0.040,0.000,0.000,0.000
1644939560336864000,2022-02-15-15:39:20,10.1.1.5,39,-0.030,-0.030,-0.030,0.000,0.000,0.000
1644939560897500928,2022-02-15-15:39:20,10.1.1.5,29,0.080,0.080,0.080,0.000,0.000,0.000
1644939560959770880,2022-02-15-15:39:20,10.1.1.5,39,0.090,0.090,0.090,0.000,0.000,0.000
1644939561039549952,2022-02-15-15:39:21,10.1.1.5,5,0.090,0.090,0.090,0.000,0.000,0.000
1644939561515243008,2022-02-15-15:39:21,10.1.1.5,29,0.000,0.000,0.000,0.000,0.000,0.000
1644939562477750016,2022-02-15-15:39:22,10.1.1.5,39,-0.020,-0.020,-0.020,0.000,0.000,0.000
1644939562515523840,2022-02-15-15:39:22,10.1.1.5,28,-0.010,-0.010,-0.010,0.000,0.000,0.000
1644939562575377920,2022-02-15-15:39:22,10.1.1.5,38,0.000,0.000,0.000,0.000,0.000,0.000
1644939563357719040,2022-02-15-15:39:23,10.1.1.5,39,0.050,0.050,0.050,0.000,0.000,0.000
1644939564917015040,2022-02-15-15:39:24,10.1.1.5,11,0.050,0.050,0.050,0.000,0.000,0.000
1644939564975204864,2022-02-15-15:39:24,10.1.1.5,21,0.060,0.060,0.060,0.000,0.000,0.000
1644939565076343040,2022-02-15-15:39:25,10.1.1.5,19,0.080,0.080,0.080,0.000,0.000,0.000
1644939565277746944,2022-02-15-15:39:25,10.1.1.5,16,0.080,0.080,0.080,0.000,0.000,0.000
1644939565656644096,2022-02-15-15:39:25,10.1.1.5,41,0.010,0.010,0.010,0.000,0.000,0.000
1644939565695496192,2022-02-15-15:39:25,10.1.1.5,28,0.000,0.000,0.000,0.000,0.000,0.000
1644939566378395136,2022-02-15-15:39:26,10.1.1.5,48,-0.070,-0.070,-0.070,0.000,0.000,0.000
1644939566674689024,2022-02-15-15:39:26,10.1.1.5,39,-0.010,-0.010,-0.010,0.000,0.000,0.000
1644939567237970176,2022-02-15-15:39:27,10.1.1.5,39,0.100,0.100,0.100,0.000,0.000,0.000
1644939567276398848,2022-02-15-15:39:27,10.1.1.5,28,0.090,0.090,0.090,0.000,0.000,0.000
1644939567537359104,2022-02-15-15:39:27,10.1.1.5,29,0.040,0.040,0.040,0.000,0.000,0.000
1644939567835721984,2022-02-15-15:39:27,10.1.1.5,20,-0.020,-0.020,-0.020,0.000,0.000,0.000
1644939567897437952,2022-02-15-15:39:27,10.1.1.5,30,-0.030,-0.030,-0.030,0.000,0.000,0.000
1644939567948986880,2022-02-15-15:39:27,10.1.1.5,29,-0.040,-0.040,-0.040,0.000,0.000,0.000
1644939568530968064,2022-02-15-15:39:28,10.1.1.5,39,-0.060,-0.060,-0.060,0.000,0.000,0.000
1644939568777852928,2022-02-15-15:39:28,10.1.1.5,39,-0.010,-0.010,-0.010,0.000,0.000,0.000
1644939569195014912,2022-02-15-15:39:29,10.1.1.5,39,0.070,0.070,0.070,0.000,0.000,0.000
1644939569477700096,2022-02-15-15:39:29,10.1.1.5,8,0.070,0.070,0.070,0.000,0.000,0.000
1644939570016413952,2022-02-15-15:39:30,10.1.1.5,20,-0.030,-0.030,-0.030,0.000,0.000,0.000
1644939570077643008,2022-02-15-15:39:30,10.1.1.5,29,-0.040,-0.040,-0.040,0.000,0.000,0.000
1644939570700786176,2022-02-15-15:39:30,10.1.1.5,14,-0.040,-0.040,-0.040,0.000,0.000,0.000
1644939570916140032,2022-02-15-15:39:30,10.1.1.5,29,0.000,0.000,0.000,0.000,0.000,0.000
1644939571415965952,2022-02-15-15:39:31,10.1.1.5,20,0.100,0.100,0.100,0.000,0.000,0.000
1644939571475250944,2022-02-15-15:39:31,10.1.1.5,29,0.090,0.090,0.090,0.000,0.000,0.000
1644939571998368000,2022-02-15-15:39:31,10.1.1.5,39,-0.010,-0.010,-0.010,0.000,0.000,0.000
1644939572034750976,2022-02-15-15:39:32,10.1.1.5,28,-0.020,-0.020,-0.020,0.000,0.000,0.000
1644939572517644032,2022-02-15-15:39:32,10.1.1.5,28,-0.090,-0.090,-0.090,0.000,0.000,0.000
1644939573295636992,2022-02-15-15:39:33,10.1.1.5,40,0.060,0.060,0.060,0.000,0.000,0.000
1644939573338371072,2022-02-15-15:39:33,10.1.1.5,29,0.070,0.070,0.070,0.000,0.000,0.000
1644939573639780096,2022-02-15-15:39:33,10.1.1.5,-6,0.070,0.070,0.070,0.000,0.000,0.000
1644939573916438016,2022-02-15-15:39:33,10.1.1.5,39,0.020,0.020,0.020,0.000,0.000,0.000
1644939573974955008,2022-02-15-15:39:33,10.1.1.5,49,0.010,0.010,0.010,0.000,0.000,0.000
1644939574015330048,2022-02-15-15:39:34,10.1.1.5,38,0.000,0.000,0.000,0.000,0.000,0.000
1644939574477914112,2022-02-15-15:39:34,10.1.1.5,39,-0.090,-0.090,-0.090,0.000,0.000,0.000
1644939574555689216,2022-02-15-15:39:34,10.1.1.5,17,-0.090,-0.090,-0.090,0.000,0.000,0.000
1644939574755892992,2022-02-15-15:39:34,10.1.1.5,30,-0.060,-0.060,-0.060,0.000,0.000,0.000
1644939574815119104,2022-02-15-15:39:34,10.1.1.5,39,-0.050,-0.050,-0.050,0.000,0.000,0.000
1644939574856393216,2022-02-15-15:39:34,10.1.1.5,29,-0.040,-0.040,-0.040,0.000,0.000,0.000
1644939575465748992,2022-02-15-15:39:35,10.1.1.5,30,0.070,0.070,0.070,0.000,0.000,0.000
1644939575736187904,2022-02-15-15:39:35,10.1.1.5,14,0.070,0.070,0.070,0.000,0.000,0.000
1644939576355570176,2022-02-15-15:39:36,10.1.1.5,30,-0.030,-0.030,-0.030,0.000,0.000,0.000
1644939576475888128,2022-02-15-15:39:36,10.1.1.5,49,-0.050,-0.050,-0.050,0.000,0.000,0.000
1644939576955843840,2022-02-15-15:39:36,10.1.1.5,13,-0.050,-0.050,-0.050,0.000,0.000,0.000
1644939578175276032,2022-02-15-15:39:38,10.1.1.5,29,0.040,0.040,0.040,0.000,0.000,0.000
1644939579311362048,2022-02-15-15:39:39,10.1.1.5,39,-0.060,-0.060,-0.060,0.000,0.000,0.000
1644939579358680064,2022-02-15-15:39:39,10.1.1.5,48,-0.050,-0.050,-0.050,0.000,0.000,0.000
1644939579445579008,2022-02-15-15:39:39,10.1.1.5,29,-0.030,-0.030,-0.030,0.000,0.000,0.000
1644939579975277056,2022-02-15-15:39:39,10.1.1.5,29,0.070,0.070,0.070,0.000,0.000,0.000
1644939580048974080,2022-02-15-15:39:40,10.1.1.5,38,0.080,0.080,0.080,0.000,0.000,0.000
1644939580243107072,2022-02-15-15:39:40,10.1.1.5,14,0.080,0.080,0.080,0.000,0.000,0.000
1644939580937006848,2022-02-15-15:39:40,10.1.1.5,21,-0.050,-0.050,-0.050,0.000,0.000,0.000
1644939581015628032,2022-02-15-15:39:41,10.1.1.5,47,-0.060,-0.060,-0.060,0.000,0.000,0.000
1644939581296178944,2022-02-15-15:39:41,10.1.1.5,28,-0.090,-0.090,-0.090,0.000,0.000,0.000
1644939581754957056,2022-02-15-15:39:41,10.1.1.5,29,0.000,0.000,0.000,0.000,0.000,0.000
1644939581816809984,2022-02-15-15:39:41,10.1.1.5,39,0.010,0.010,0.010,0.000,0.000,0.000
1644939581858269952,2022-02-15-15:39:41,10.1.1.5,28,0.020,0.020,0.020,0.000,0.000,0.000
1644939582216006144,2022-02-15-15:39:42,10.1.1.5,29,0.090,0.090,0.090,0.000,0.000,0.000
1644939582316640000,2022-02-15-15:39:42,10.1.1.5,26,0.090,0.090,0.090,0.000,0.000,0.000
1644939582972395776,2022-02-15-15:39:42,10.1.1.5,39,0.010,0.010,0.010,0.000,0.000,0.000
1644939584645148160,2022-02-15-15:39:44,10.1.1.5,2,0.010,0.010,0.010,0.000,0.000,0.000
1644939584814594048,2022-02-15-15:39:44,10.1.1.5,40,0.040,0.040,0.040,0.000,0.000,0.000
1644939585543534080,2022-02-15-15:39:45,10.1.1.5,-2,0.040,0.040,0.040,0.000,0.000,0.000
1644939585772381184,2022-02-15-15:39:45,10.1.1.5,38,0.010,0.010,0.010,0.000,0.000,0.000
1644939586254582016,2022-02-15-15:39:46,10.1.1.5,29,-0.080,-0.080,-0.080,0.000,0.000,0.000
1644939586446185984,2022-02-15-15:39:46,10.1.1.5,15,-0.080,-0.080,-0.080,0.000,0.000,0.000
1644939586978981120,2022-02-15-15:39:46,10.1.1.5,38,0.020,0.020,0.020,0.000,0.000,0.000
1644939587776769024,2022-02-15-15:39:47,10.1.1.5,14,0.020,0.020,0.020,0.000,0.000,0.000
1644939588097282816,2022-02-15-15:39:48,10.1.1.5,29,-0.040,-0.040,-0.040,0.000,0.000,0.000
1644939588149239040,2022-02-15-15:39:48,10.1.1.5,29,-0.050,-0.050,-0.050,0.000,0.000,0.000
1644939588736641024,2022-02-15-15:39:48,10.1.1.5,13,-0.050,-0.050,-0.050,0.000,0.000,0.000
1644939589275286016,2022-02-15-15:39:49,10.1.1.5,39,0.050,0.050,0.050,0.000,0.000,0.000
1644939589326322944,2022-02-15-15:39:49,10.1.1.5,39,0.060,0.060,0.060,0.000,0.000,0.000
1644939589375439872,2022-02-15-15:39:49,10.1.1.5,38,0.070,0.070,0.070,0.000,0.000,0.000
1644939589655814912,2022-02-15-15:39:49,10.1.1.5,14,0.070,0.070,0.070,0.000,0.000,0.000
1644939589825390080,2022-02-15-15:39:49,10.1.1.5,29,0.040,0.040,0.040,0.000,0.000,0.000
1644939589874872064,2022-02-15-15:39:49,10.1.1.5,28,0.030,0.030,0.030,0.000,0.000,0.000
1644939589926103040,2022-02-15-15:39:49,10.1.1.5,29,0.020,0.020,0.020,0.000,0.000,0.000
1644939590395236864,2022-02-15-15:39:50,10.1.1.5,29,-0.070,-0.070,-0.070,0.000,0.000,0.000
1644939590460960000,2022-02-15-15:39:50,10.1.1.5,29,-0.080,-0.080,-0.080,0.000,0.000,0.000
1644939590659111936,2022-02-15-15:39:50,10.1.1.5,13,-0.080,-0.080,-0.080,0.000,0.000,0.000
1644939590801506048,2022-02-15-15:39:50,10.1.1.5,29,-0.060,-0.060,-0.060,0.000,0.000,0.000
1644939592515401984,2022-02-15-15:39:52,10.1.1.5,29,0.010,0.010,0.010,0.000,0.000,0.000
1644939593174797056,2022-02-15-15:39:53,10.1.1.5,39,-0.100,-0.100,-0.100,0.000,0.000,0.000
1644939593535235840,2022-02-15-15:39:53,10.1.1.5,39,-0.030,-0.030,-0.030,0.000,0.000,0.000
1644939593574460928,2022-02-15-15:39:53,10.1.1.5,28,-0.020,-0.020,-0.020,0.000,0.000,0.000
1644939594232777984,2022-02-15-15:39:54,10.1.1.5,39,0.100,0.100,0.100,0.000,0.000,0.000
1644939595098481920,2022-02-15-15:39:55,10.1.1.5,29,-0.070,-0.070,-0.070,0.000,0.000,0.000
1644939595406845184,2022-02-15-15:39:55,10.1.1.5,-6,-0.070,-0.070,-0.070,0.000,0.000,0.000
1644939595795478016,2022-02-15-15:39:55,10.1.1.5,39,0.000,0.000,0.000,0.000,0.000,0.000
1644939595835176960,2022-02-15-15:39:55,10.1.1.5,28,0.010,0.010,0.010,0.000,0.000,0.000
1644939596735984128,2022-02-15-15:39:56,10.1.1.5,11,0.010,0.010,0.010,0.000,0.000,0.000
1644939596955398144,2022-02-15-15:39:56,10.1.1.5,29,-0.030,-0.030,-0.030,0.000,0.000,0.000
1644939597005542912,2022-02-15-15:39:57,10.1.1.5,29,-0.040,-0.040,-0.040,0.000,0.000,0.000
1644939597594838016,2022-02-15-15:39:57,10.1.1.5,11,-0.040,-0.040,-0.040,0.000,0.000,0.000
1644939597835997184,2022-02-15-15:39:57,10.1.1.5,49,0.000,0.000,0.000,0.000,0.000,0.000
1644939597915646976,2022-02-15-15:39:57,10.1.1.5,28,0.020,0.020,0.020,0.000,0.000,0.000
1644939598074668032,2022-02-15-15:39:58,10.1.1.5,29,0.050,0.050,0.050,0.000,0.000,0.000
1644939598574966784,2022-02-15-15:39:58,10.1.1.5,20,0.050,0.050,0.050,0.000,0.000,0.000
1644939598695324928,2022-02-15-15:39:58,10.1.1.5,39,0.030,0.030,0.030,0.000,0.000,0.000
1644939598755634944,2022-02-15-15:39:58,10.1.1.5,49,0.020,0.020,0.020,0.000,0.000,0.000
1644939598795175936,2022-02-15-15:39:58,10.1.1.5,38,0.010,0.010,0.010,0.000,0.000,0.000
1644939599295160064,2022-02-15-15:39:59,10.1.1.5,29,-0.090,-0.090,-0.090,0.000,0.000,0.000
1644939599388551936,2022-02-15-15:39:59,10.1.1.5,18,-0.090,-0.090,-0.090,0.000,0.000,0.000
1644939600287580928,2022-02-15-15:40:00,10.1.1.5,29,0.080,0.080,0.080,0.000,0.000,0.000
1644939600337000960,2022-02-15-15:40:00,10.1.1.5,28,0.090,0.090,0.090,0.000,0.000,0.000
1644939600438785024,2022-02-15-15:40:00,10.1.1.5,26,0.090,0.090,0.090,0.000,0.000,0.000
1644939600806215168,2022-02-15-15:40:00,10.1.1.5,32,0.020,0.020,0.020,0.000,0.000,0.000
1644939600975243008,2022-02-15-15:40:00,10.1.1.5,48,-0.010,-0.010,-0.010,0.000,0.000,0.000
1644939601895049984,2022-02-15-15:40:01,10.1.1.5,24,-0.010,-0.010,-0.010,0.000,0.000,0.000
1644939602195374848,2022-02-15-15:40:02,10.1.1.5,20,0.050,0.050,0.050,0.000,0.000,0.000
1644939602255614976,2022-02-15-15:40:02,10.1.1.5,29,0.060,0.060,0.060,0.000,0.000,0.000
1644939602656672000,2022-02-15-15:40:02,10.1.1.5,20,0.060,0.060,0.060,0.000,0.000,0.000
1644939602715794176,2022-02-15-15:40:02,10.1.1.5,29,0.050,0.050,0.050,0.000,0.000,0.000
1644939602776272896,2022-02-15-15:40:02,10.1.1.5,39,0.040,0.040,0.040,0.000,0.000,0.000
1644939603639645952,2022-02-15-15:40:03,10.1.1.5,29,-0.070,-0.070,-0.070,0.000,0.000,0.000
1644939604275432960,2022-02-15-15:40:04,10.1.1.5,39,0.050,0.050,0.050,0.000,0.000,0.000
1644939604315484160,2022-02-15-15:40:04,10.1.1.5,28,0.060,0.060,0.060,0.000,0.000,0.000
1644939604717761024,2022-02-15-15:40:04,10.1.1.5,19,0.060,0.060,0.060,0.000,0.000,0.000
1644939604775460864,2022-02-15-15:40:04,10.1.1.5,28,0.050,0.050,0.050,0.000,0.000,0.000
1644939604839495936,2022-02-15-15:40:04,10.1.1.5,29,0.040,0.040,0.040,0.000,0.000,0.000
1644939605158159104,2022-02-15-15:40:05,10.1.1.5,29,-0.020,-0.020,-0.020,0.000,0.000,0.000
1644939605354618112,2022-02-15-15:40:05,10.1.1.5,21,-0.060,-0.060,-0.060,0.000,0.000,0.000
1644939605456749824,2022-02-15-15:40:05,10.1.1.5,20,-0.080,-0.080,-0.080,0.000,0.000,0.000
1644939605654896896,2022-02-15-15:40:05,10.1.1.5,14,-0.080,-0.080,-0.080,0.000,0.000,0.000
1644939605815639040,2022-02-15-15:40:05,10.1.1.5,20,-0.050,-0.050,-0.050,0.000,0.000,0.000
1644939606136087808,2022-02-15-15:40:06,10.1.1.5,29,0.010,0.010,0.010,0.000,0.000,0.000
1644939606495031040,2022-02-15-15:40:06,10.1.1.5,29,0.080,0.080,0.080,0.000,0.000,0.000
1644939606694649088,2022-02-15-15:40:06,10.1.1.5,23,0.080,0.080,0.080,0.000,0.000,0.000
1644939606914889984,2022-02-15-15:40:06,10.1.1.5,39,0.040,0.040,0.040,0.000,0.000,0.000
1644939607414478080,2022-02-15-15:40:07,10.1.1.5,30,-0.060,-0.060,-0.060,0.000,0.000,0.000
1644939607815269888,2022-02-15-15:40:07,10.1.1.5,11,-0.060,-0.060,-0.060,0.000,0.000,0.000
1644939607935080960,2022-02-15-15:40:07,10.1.1.5,28,-0.040,-0.040,-0.040,0.000,0.000,0.000
1644939607997188096,2022-02-15-15:40:07,10.1.1.5,38,-0.030,-0.030,-0.030,0.000,0.000,0.000
1644939608255526144,2022-02-15-15:40:08,10.1.1.5,39,0.020,0.020,0.020,0.000,0.000,0.000
1644939609057254912,2022-02-15-15:40:09,10.1.1.5,13,0.020,0.020,0.020,0.000,0.000,0.000
1644939609174828032,2022-02-15-15:40:09,10.1.1.5,30,0.000,0.000,0.000,0.000,0.000,0.000
1644939609235387136,2022-02-15-15:40:09,10.1.1.5,39,-0.010,-0.010,-0.010,0.000,0.000,0.000
1644939609274832896,2022-02-15-15:40:09,10.1.1.5,28,-0.020,-0.020,-0.020,0.000,0.000,0.000
1644939610034915840,2022-02-15-15:40:10,10.1.1.5,30,-0.030,-0.030,-0.030,0.000,0.000,0.000
1644939610095259904,2022-02-15-15:40:10,10.1.1.5,39,-0.020,-0.020,-0.020,0.000,0.000,0.000
1644939610755101952,2022-02-15-15:40:10,10.1.1.5,39,0.090,0.090,0.090,0.000,0.000,0.000
1644939611056248064,2022-02-15-15:40:11,10.1.1.5,30,0.030,0.030,0.030,0.000,0.000,0.000
1644939611516343040,2022-02-15-15:40:11,10.1.1.5,29,-0.060,-0.060,-0.060,0.000,0.000,0.000
1644939611567176192,2022-02-15-15:40:11,10.1.1.5,29,-0.070,-0.070,-0.070,0.000,0.000,0.000
1644939611854827776,2022-02-15-15:40:11,10.1.1.5,14,-0.070,-0.070,-0.070,0.000,0.000,0.000
1644939612275078912,2022-02-15-15:40:12,10.1.1.5,29,0.010,0.010,0.010,0.000,0.000,0.000
1644939613034575872,2022-02-15-15:40:13,10.1.1.5,29,0.040,0.040,0.040,0.000,0.000,0.000
1644939613695173120,2022-02-15-15:40:13,10.1.1.5,29,-0.090,-0.090,-0.090,0.000,0.000,0.000
1644939613754385920,2022-02-15-15:40:13,10.1.1.5,39,-0.100,-0.100,-0.100,0.000,0.000,0.000
1644939613794886144,2022-02-15-15:40:13,10.1.1.5,29,-0.090,-0.090,-0.090,0.000,0.000,0.000
1644939613855484928,2022-02-15-15:40:13,10.1.1.5,38,-0.080,-0.080,-0.080,0.000,0.000,0.000
1644939618051772160,2022-02-15-15:40:15,10.1.1.5,20,-0.080,-0.080,-0.080,0.000,0.000,0.000
1644939618217714176,2022-02-15-15:40:18,10.1.1.5,12,-0.080,-0.080,-0.080,0.000,0.000,0.000
1644939618435142144,2022-02-15-15:40:18,10.1.1.5,29,-0.040,-0.040,-0.040,0.000,0.000,0.000
1644939618494661120,2022-02-15-15:40:18,10.1.1.5,39,-0.030,-0.030,-0.030,0.000,0.000,0.000
1644939618535342848,2022-02-15-15:40:18,10.1.1.5,28,-0.020,-0.020,-0.020,0.000,0.000,0.000
1644939619295126016,2022-02-15-15:40:19,10.1.1.5,30,0.070,0.070,0.070,0.000,0.000,0.000
1644939619514339072,2022-02-15-15:40:19,10.1.1.5,39,0.030,0.030,0.030,0.000,0.000,0.000
1644939619555356928,2022-02-15-15:40:19,10.1.1.5,29,0.020,0.020,0.020,0.000,0.000,0.000
1644939619614578944,2022-02-15-15:40:19,10.1.1.5,39,0.010,0.010,0.010,0.000,0.000,0.000
1644939619654787072,2022-02-15-15:40:19,10.1.1.5,28,0.000,0.000,0.000,0.000,0.000,0.000
1644939619714600192,2022-02-15-15:40:19,10.1.1.5,38,-0.010,-0.010,-0.010,0.000,0.000,0.000
1644939620275234048,2022-02-15-15:40:20,10.1.1.5,38,-0.080,-0.080,-0.080,0.000,0.000,0.000
1644939620635360000,2022-02-15-15:40:20,10.1.1.5,38,-0.010,-0.010,-0.010,0.000,0.000,0.000
1644939620897579008,2022-02-15-15:40:20,10.1.1.5,38,0.040,0.040,0.040,0.000,0.000,0.000
1644939621161266944,2022-02-15-15:40:21,10.1.1.5,39,0.090,0.090,0.090,0.000,0.000,0.000
1644939621237358080,2022-02-15-15:40:21,10.1.1.5,17,0.090,0.090,0.090,0.000,0.000,0.000
1644939621955440896,2022-02-15-15:40:21,10.1.1.5,29,-0.050,-0.050,-0.050,0.000,0.000,0.000
1644939622015495168,2022-02-15-15:40:22,10.1.1.5,39,-0.060,-0.060,-0.060,0.000,0.000,0.000
1644939622394663168,2022-02-15-15:40:22,10.1.1.5,11,-0.060,-0.060,-0.060,0.000,0.000,0.000
1644939622517574912,2022-02-15-15:40:22,10.1.1.5,29,-0.040,-0.040,-0.040,0.000,0.000,0.000
1644939622895931904,2022-02-15-15:40:22,10.1.1.5,39,0.030,0.030,0.030,0.000,0.000,0.000
1644939623585829888,2022-02-15-15:40:23,10.1.1.5,13,0.030,0.030,0.030,0.000,0.000,0.000
1644939623854618112,2022-02-15-15:40:23,10.1.1.5,29,-0.020,-0.020,-0.020,0.000,0.000,0.000
1644939624415870976,2022-02-15-15:40:24,10.1.1.5,30,-0.070,-0.070,-0.070,0.000,0.000,0.000
1644939624477644032,2022-02-15-15:40:24,10.1.1.5,39,-0.060,-0.060,-0.060,0.000,0.000,0.000
1644939624515866112,2022-02-15-15:40:24,10.1.1.5,29,-0.050,-0.050,-0.050,0.000,0.000,0.000
1644939625595526912,2022-02-15-15:40:25,10.1.1.5,20,0.040,0.040,0.040,0.000,0.000,0.000
1644939625654597888,2022-02-15-15:40:25,10.1.1.5,29,0.030,0.030,0.030,0.000,0.000,0.000
1644939625714780160,2022-02-15-15:40:25,10.1.1.5,38,0.020,0.020,0.020,0.000,0.000,0.000
1644939626575351040,2022-02-15-15:40:26,10.1.1.5,29,-0.050,-0.050,-0.050,0.000,0.000,0.000
1644939626937874176,2022-02-15-15:40:26,10.1.1.5,29,0.020,0.020,0.020,0.000,0.000,0.000
1644939627257981184,2022-02-15-15:40:27,10.1.1.5,39,0.080,0.080,0.080,0.000,0.000,0.000
1644939627436028928,2022-02-15-15:40:27,10.1.1.5,9,0.080,0.080,0.080,0.000,0.000,0.000
1644939628395283968,2022-02-15-15:40:28,10.1.1.5,29,-0.100,-0.100,-0.100,0.000,0.000,0.000
1644939630096270080,2022-02-15-15:40:30,10.1.1.5,30,-0.030,-0.030,-0.030,0.000,0.000,0.000
1644939630157488128,2022-02-15-15:40:30,10.1.1.5,39,-0.040,-0.040,-0.040,0.000,0.000,0.000
1644939630730964992,2022-02-15-15:40:30,10.1.1.5,39,-0.050,-0.050,-0.050,0.000,0.000,0.000
1644939630758080000,2022-02-15-15:40:30,10.1.1.5,28,-0.040,-0.040,-0.040,0.000,0.000,0.000
1644939631895396096,2022-02-15-15:40:31,10.1.1.5,30,0.020,0.020,0.020,0.000,0.000,0.000
1644939632976094976,2022-02-15-15:40:32,10.1.1.5,39,-0.020,-0.020,-0.020,0.000,0.000,0.000
1644939633046652160,2022-02-15-15:40:33,10.1.1.5,28,-0.010,-0.010,-0.010,0.000,0.000,0.000
1644939633384818944,2022-02-15-15:40:33,10.1.1.5,38,0.040,0.040,0.040,0.000,0.000,0.000
1644939633574407168,2022-02-15-15:40:33,10.1.1.5,29,0.080,0.080,0.080,0.000,0.000,0.000
1644939633755513856,2022-02-15-15:40:33,10.1.1.5,6,0.080,0.080,0.080,0.000,0.000,0.000
1644939634234852096,2022-02-15-15:40:34,10.1.1.5,30,-0.010,-0.010,-0.010,0.000,0.000,0.000
1644939634655041024,2022-02-15-15:40:34,10.1.1.5,39,-0.090,-0.090,-0.090,0.000,0.000,0.000
1644939634694758912,2022-02-15-15:40:34,10.1.1.5,28,-0.100,-0.100,-0.100,0.000,0.000,0.000
1644939635115073792,2022-02-15-15:40:35,10.1.1.5,29,-0.020,-0.020,-0.020,0.000,0.000,0.000
1644939635174298112,2022-02-15-15:40:35,10.1.1.5,39,-0.010,-0.010,-0.010,0.000,0.000,0.000
1644939635215769088,2022-02-15-15:40:35,10.1.1.5,29,0.000,0.000,0.000,0.000,0.000,0.000
1644939635274885888,2022-02-15-15:40:35,10.1.1.5,38,0.010,0.010,0.010,0.000,0.000,0.000
1644939635875166976,2022-02-15-15:40:35,10.1.1.5,29,0.070,0.070,0.070,0.000,0.000,0.000
1644939636635740160,2022-02-15-15:40:36,10.1.1.5,39,-0.060,-0.060,-0.060,0.000,0.000,0.000
1644939637034942976,2022-02-15-15:40:37,10.1.1.5,22,-0.060,-0.060,-0.060,0.000,0.000,0.000
1644939638555762176,2022-02-15-15:40:38,10.1.1.5,29,-0.020,-0.020,-0.020,0.000,0.000,0.000
1644939639275851008,2022-02-15-15:40:39,10.1.1.5,29,-0.060,-0.060,-0.060,0.000,0.000,0.000
1644939640435430912,2022-02-15-15:40:40,10.1.1.5,29,0.040,0.040,0.040,0.000,0.000,0.000
1644939640936573952,2022-02-15-15:40:40,10.1.1.5,29,-0.050,-0.050,-0.050,0.000,0.000,0.000
1644939641209700096,2022-02-15-15:40:41,10.1.1.5,29,-0.100,-0.100,-0.100,0.000,0.000,0.000
1644939641415747840,2022-02-15-15:40:41,10.1.1.5,39,-0.060,-0.060,-0.060,0.000,0.000,0.000
1644939641676352000,2022-02-15-15:40:41,10.1.1.5,29,-0.010,-0.010,-0.010,0.000,0.000,0.000
1644939641735307008,2022-02-15-15:40:41,10.1.1.5,39,0.000,0.000,0.000,0.000,0.000,0.000
1644939641874553088,2022-02-15-15:40:41,10.1.1.5,19,0.030,0.030,0.030,0.000,0.000,0.000
1644939642215538944,2022-02-15-15:40:42,10.1.1.5,49,0.090,0.090,0.090,0.000,0.000,0.000
1644939642309270016,2022-02-15-15:40:42,10.1.1.5,10,0.090,0.090,0.090,0.000,0.000,0.000
1644939642377438976,2022-02-15-15:40:42,10.1.1.5,39,0.080,0.080,0.080,0.000,0.000,0.000
1644939642595202816,2022-02-15-15:40:42,10.1.1.5,39,0.040,0.040,0.040,0.000,0.000,0.000
1644939642954973952,2022-02-15-15:40:42,10.1.1.5,40,-0.030,-0.030,-0.030,0.000,0.000,0.000
1644939643014821888,2022-02-15-15:40:43,10.1.1.5,39,-0.040,-0.040,-0.040,0.000,0.000,0.000
1644939643622765056,2022-02-15-15:40:43,10.1.1.5,2,-0.040,-0.040,-0.040,0.000,0.000,0.000
1644939643955503104,2022-02-15-15:40:43,10.1.1.5,29,0.020,0.020,0.020,0.000,0.000,0.000
1644939644016701952,2022-02-15-15:40:44,10.1.1.5,39,0.030,0.030,0.030,0.000,0.000,0.000
1644939644115689984,2022-02-15-15:40:44,10.1.1.5,38,0.050,0.050,0.050,0.000,0.000,0.000
1644939645260730112,2022-02-15-15:40:44,10.1.1.5,20,0.080,0.080,0.080,0.000,0.000,0.000
1644939645514530816,2022-02-15-15:40:45,10.1.1.5,39,0.030,0.030,0.030,0.000,0.000,0.000
1644939645554637056,2022-02-15-15:40:45,10.1.1.5,28,0.020,0.020,0.020,0.000,0.000,0.000
1644939645854609920,2022-02-15-15:40:45,10.1.1.5,20,-0.040,-0.040,-0.040,0.000,0.000,0.000
1644939645915954944,2022-02-15-15:40:45,10.1.1.5,29,-0.050,-0.050,-0.050,0.000,0.000,0.000
1644939646275134208,2022-02-15-15:40:46,10.1.1.5,29,-0.080,-0.080,-0.080,0.000,0.000,0.000
1644939646569252864,2022-02-15-15:40:46,10.1.1.5,17,-0.020,-0.020,-0.020,0.000,0.000,0.000
1644939646789948928,2022-02-15-15:40:46,10.1.1.5,35,0.020,0.020,0.020,0.000,0.000,0.000
1644939646994877184,2022-02-15-15:40:46,10.1.1.5,39,0.060,0.060,0.060,0.000,0.000,0.000
1644939647038989056,2022-02-15-15:40:47,10.1.1.5,29,0.070,0.070,0.070,0.000,0.000,0.000
1644939647355726080,2022-02-15-15:40:47,10.1.1.5,13,0.070,0.070,0.070,0.000,0.000,0.000
1644939647576090112,2022-02-15-15:40:47,10.1.1.5,29,0.030,0.030,0.030,0.000,0.000,0.000
1644939648152018176,2022-02-15-15:40:48,10.1.1.5,33,-0.060,-0.060,-0.060,0.000,0.000,0.000
1644939648194407936,2022-02-15-15:40:48,10.1.1.5,30,-0.070,-0.070,-0.070,0.000,0.000,0.000
1644939648495756032,2022-02-15-15:40:48,10.1.1.5,18,-0.070,-0.070,-0.070,0.000,0.000,0.000
1644939648735446016,2022-02-15-15:40:48,10.1.1.5,39,-0.030,-0.030,-0.030,0.000,0.000,0.000
1644939648781826048,2022-02-15-15:40:48,10.1.1.5,29,-0.020,-0.020,-0.020,0.000,0.000,0.000
1644939649794882048,2022-02-15-15:40:49,10.1.1.5,10,0.020,0.020,0.020,0.000,0.000,0.000
1644939650034342144,2022-02-15-15:40:50,10.1.1.5,32,-0.020,-0.020,-0.020,0.000,0.000,0.000
1644939650495006208,2022-02-15-15:40:50,10.1.1.5,39,-0.090,-0.090,-0.090,0.000,0.000,0.000
1644939650595768832,2022-02-15-15:40:50,10.1.1.5,38,-0.070,-0.070,-0.070,0.000,0.000,0.000
1644939651894588928,2022-02-15-15:40:51,10.1.1.5,39,0.020,0.020,0.020,0.000,0.000,0.000
1644939652255459072,2022-02-15-15:40:52,10.1.1.5,39,-0.050,-0.050,-0.050,0.000,0.000,0.000
1644939652296657152,2022-02-15-15:40:52,10.1.1.5,29,-0.060,-0.060,-0.060,0.000,0.000,0.000
1644939652694268928,2022-02-15-15:40:52,10.1.1.5,14,-0.060,-0.060,-0.060,0.000,0.000,0.000
1644939652974221056,2022-02-15-15:40:52,10.1.1.5,39,-0.010,-0.010,-0.010,0.000,0.000,0.000
1644939653495065088,2022-02-15-15:40:53,10.1.1.5,38,0.090,0.090,0.090,0.000,0.000,0.000
1644939653577547008,2022-02-15-15:40:53,10.1.1.5,16,0.090,0.090,0.090,0.000,0.000,0.000
1644939654214600960,2022-02-15-15:40:54,10.1.1.5,20,-0.030,-0.030,-0.030,0.000,0.000,0.000
1644939654760567808,2022-02-15-15:40:54,10.1.1.5,39,-0.070,-0.070,-0.070,0.000,0.000,0.000
1644939654978280192,2022-02-15-15:40:54,10.1.1.5,38,-0.030,-0.030,-0.030,0.000,0.000,0.000
1644939655834278144,2022-02-15-15:40:55,10.1.1.5,29,0.060,0.060,0.060,0.000,0.000,0.000
1644939655895504896,2022-02-15-15:40:55,10.1.1.5,39,0.050,0.050,0.050,0.000,0.000,0.000
1644939655934878208,2022-02-15-15:40:55,10.1.1.5,28,0.040,0.040,0.040,0.000,0.000,0.000
1644939655994950144,2022-02-15-15:40:55,10.1.1.5,38,0.030,0.030,0.030,0.000,0.000,0.000
1644939657297523968,2022-02-15-15:40:57,10.1.1.5,4,0.030,0.030,0.030,0.000,0.000,0.000
1644939658056376064,2022-02-15-15:40:58,10.1.1.5,11,0.030,0.030,0.030,0.000,0.000,0.000
1644939659156001024,2022-02-15-15:40:59,10.1.1.5,19,-0.040,-0.040,-0.040,0.000,0.000,0.000
1644939660236797184,2022-02-15-15:41:00,10.1.1.5,29,0.040,0.040,0.040,0.000,0.000,0.000
1644939660295787008,2022-02-15-15:41:00,10.1.1.5,39,0.030,0.030,0.030,0.000,0.000,0.000
1644939660447296000,2022-02-15-15:41:00,10.1.1.5,30,0.000,0.000,0.000,0.000,0.000,0.000
1644939660715320064,2022-02-15-15:41:00,10.1.1.5,39,-0.050,-0.050,-0.050,0.000,0.000,0.000
1644939661015908096,2022-02-15-15:41:01,10.1.1.5,30,-0.090,-0.090,-0.090,0.000,0.000,0.000
1644939661075616000,2022-02-15-15:41:01,10.1.1.5,39,-0.080,-0.080,-0.080,0.000,0.000,0.000
1644939661895226112,2022-02-15-15:41:01,10.1.1.5,39,0.080,0.080,0.080,0.000,0.000,0.000
1644939662074987008,2022-02-15-15:41:02,10.1.1.5,16,0.080,0.080,0.080,0.000,0.000,0.000
1644939662635361024,2022-02-15-15:41:02,10.1.1.5,20,-0.030,-0.030,-0.030,0.000,0.000,0.000
1644939662697029120,2022-02-15-15:41:02,10.1.1.5,29,-0.040,-0.040,-0.040,0.000,0.000,0.000
1644939662757558016,2022-02-15-15:41:02,10.1.1.5,39,-0.050,-0.050,-0.050,0.000,0.000,0.000
1644939662796931072,2022-02-15-15:41:02,10.1.1.5,29,-0.060,-0.060,-0.060,0.000,0.000,0.000
1644939663918274048,2022-02-15-15:41:03,10.1.1.5,10,-0.060,-0.060,-0.060,0.000,0.000,0.000
1644939663928518912,2022-02-15-15:41:03,10.1.1.5,-367,-0.060,-0.060,-0.060,0.000,0.000,0.000
1644939664194749952,2022-02-15-15:41:04,10.1.1.5,19,0.000,0.000,0.000,0.000,0.000,0.000
1644939664254798848,2022-02-15-15:41:04,10.1.1.5,28,0.010,0.010,0.010,0.000,0.000,0.000
1644939664305785856,2022-02-15-15:41:04,10.1.1.5,28,0.020,0.020,0.020,0.000,0.000,0.000
1644939664615032832,2022-02-15-15:41:04,10.1.1.5,29,0.080,0.080,0.080,0.000,0.000,0.000
1644939664675079936,2022-02-15-15:41:04,10.1.1.5,39,0.090,0.090,0.090,0.000,0.000,0.000
1644939664714760192,2022-02-15-15:41:04,10.1.1.5,28,0.100,0.100,0.100,0.000,0.000,0.000
1644939665757718016,2022-02-15-15:41:05,10.1.1.5,29,-0.100,-0.100,-0.100,0.000,0.000,0.000
1644939666242355968,2022-02-15-15:41:06,10.1.1.5,29,-0.010,-0.010,-0.010,0.000,0.000,0.000
1644939666734405888,2022-02-15-15:41:06,10.1.1.5,30,0.080,0.080,0.080,0.000,0.000,0.000
1644939666935079936,2022-02-15-15:41:06,10.1.1.5,25,0.080,0.080,0.080,0.000,0.000,0.000
1644939667395080192,2022-02-15-15:41:07,10.1.1.5,29,-0.010,-0.010,-0.010,0.000,0.000,0.000
1644939667894761984,2022-02-15-15:41:07,10.1.1.5,39,-0.100,-0.100,-0.100,0.000,0.000,0.000
1644939667954565888,2022-02-15-15:41:07,10.1.1.5,49,-0.090,-0.090,-0.090,0.000,0.000,0.000
1644939667995120128,2022-02-15-15:41:07,10.1.1.5,38,-0.080,-0.080,-0.080,0.000,0.000,0.000
1644939668034579968,2022-02-15-15:41:08,10.1.1.5,28,-0.070,-0.070,-0.070,0.000,0.000,0.000
1644939668096337920,2022-02-15-15:41:08,10.1.1.5,38,-0.060,-0.060,-0.060,0.000,0.000,0.000
1644939668513602048,2022-02-15-15:41:08,10.1.1.5,28,0.020,0.020,0.020,0.000,0.000,0.000
1644939669283973888,2022-02-15-15:41:09,10.1.1.5,33,0.030,0.030,0.030,0.000,0.000,0.000
1644939669834999040,2022-02-15-15:41:09,10.1.1.5,49,-0.070,-0.070,-0.070,0.000,0.000,0.000
1644939670147579904,2022-02-15-15:41:10,10.1.1.5,22,-0.070,-0.070,-0.070,0.000,0.000,0.000
1644939671036760064,2022-02-15-15:41:11,10.1.1.5,39,0.090,0.090,0.090,0.000,0.000,0.000
1644939671124070912,2022-02-15-15:41:11,10.1.1.5,17,0.090,0.090,0.090,0.000,0.000,0.000
1644939671335747072,2022-02-15-15:41:11,10.1.1.5,29,0.050,0.050,0.050,0.000,0.000,0.000
1644939671717803008,2022-02-15-15:41:11,10.1.1.5,40,-0.020,-0.020,-0.020,0.000,0.000,0.000
1644939671755006976,2022-02-15-15:41:11,10.1.1.5,29,-0.030,-0.030,-0.030,0.000,0.000,0.000
1644939672448216064,2022-02-15-15:41:12,10.1.1.5,6,-0.030,-0.030,-0.030,0.000,0.000,0.000
1644939672634557952,2022-02-15-15:41:12,10.1.1.5,39,0.000,0.000,0.000,0.000,0.000,0.000
1644939672676729856,2022-02-15-15:41:12,10.1.1.5,29,0.010,0.010,0.010,0.000,0.000,0.000
1644939672735016960,2022-02-15-15:41:12,10.1.1.5,39,0.020,0.020,0.020,0.000,0.000,0.000
1644939673194249984,2022-02-15-15:41:13,10.1.1.5,39,0.090,0.090,0.090,0.000,0.000,0.000
1644939673236072960,2022-02-15-15:41:13,10.1.1.5,28,0.080,0.080,0.080,0.000,0.000,0.000
1644939673515057920,2022-02-15-15:41:13,10.1.1.5,39,0.030,0.030,0.030,0.000,0.000,0.000
1644939674537664768,2022-02-15-15:41:14,10.1.1.5,39,-0.030,-0.030,-0.030,0.000,0.000,0.000
1644939674581087232,2022-02-15-15:41:14,10.1.1.5,28,-0.020,-0.020,-0.020,0.000,0.000,0.000
1644939674835730944,2022-02-15-15:41:14,10.1.1.5,30,0.030,0.030,0.030,0.000,0.000,0.000
1644939674900096000,2022-02-15-15:41:14,10.1.1.5,39,0.040,0.040,0.040,0.000,0.000,0.000
1644939674989080064,2022-02-15-15:41:14,10.1.1.5,29,0.060,0.060,0.060,0.000,0.000,0.000
1644939675394982144,2022-02-15-15:41:15,10.1.1.5,21,0.060,0.060,0.060,0.000,0.000,0.000
1644939675569788928,2022-02-15-15:41:15,10.1.1.5,29,0.030,0.030,0.030,0.000,0.000,0.000
1644939675926567936,2022-02-15-15:41:15,10.1.1.5,40,-0.040,-0.040,-0.040,0.000,0.000,0.000
1644939676177666048,2022-02-15-15:41:16,10.1.1.5,29,-0.090,-0.090,-0.090,0.000,0.000,0.000
1644939676258533120,2022-02-15-15:41:16,10.1.1.5,10,-0.090,-0.090,-0.090,0.000,0.000,0.000
1644939677574772992,2022-02-15-15:41:17,10.1.1.5,38,0.040,0.040,0.040,0.000,0.000,0.000
1644939678315522816,2022-02-15-15:41:18,10.1.1.5,20,-0.090,-0.090,-0.090,0.000,0.000,0.000
1644939678375780096,2022-02-15-15:41:18,10.1.1.5,29,-0.080,-0.080,-0.080,0.000,0.000,0.000
1644939679326166016,2022-02-15-15:41:19,10.1.1.5,20,0.090,0.090,0.090,0.000,0.000,0.000
1644939679395366912,2022-02-15-15:41:19,10.1.1.5,39,0.080,0.080,0.080,0.000,0.000,0.000
1644939679435012096,2022-02-15-15:41:19,10.1.1.5,28,0.070,0.070,0.070,0.000,0.000,0.000
1644939680094746112,2022-02-15-15:41:20,10.1.1.5,29,-0.060,-0.060,-0.060,0.000,0.000,0.000
1644939680155611136,2022-02-15-15:41:20,10.1.1.5,39,-0.070,-0.070,-0.070,0.000,0.000,0.000
1644939680435345920,2022-02-15-15:41:20,10.1.1.5,15,-0.070,-0.070,-0.070,0.000,0.000,0.000
1644939681034985984,2022-02-15-15:41:21,10.1.1.5,38,0.040,0.040,0.040,0.000,0.000,0.000
1644939681635617024,2022-02-15-15:41:21,10.1.1.5,13,0.040,0.040,0.040,0.000,0.000,0.000
1644939681814352128,2022-02-15-15:41:21,10.1.1.5,39,0.010,0.010,0.010,0.000,0.000,0.000
1644939681855005952,2022-02-15-15:41:21,10.1.1.5,28,0.000,0.000,0.000,0.000,0.000,0.000
1644939682615712000,2022-02-15-15:41:22,10.1.1.5,40,-0.060,-0.060,-0.060,0.000,0.000,0.000
1644939682715048960,2022-02-15-15:41:22,10.1.1.5,38,-0.040,-0.040,-0.040,0.000,0.000,0.000
1644939683375345920,2022-02-15-15:41:23,10.1.1.5,20,0.090,0.090,0.090,0.000,0.000,0.000
1644939683435219968,2022-02-15-15:41:23,10.1.1.5,29,0.100,0.100,0.100,0.000,0.000,0.000
1644939683494983936,2022-02-15-15:41:23,10.1.1.5,39,0.090,0.090,0.090,0.000,0.000,0.000
1644939683536402944,2022-02-15-15:41:23,10.1.1.5,30,0.080,0.080,0.080,0.000,0.000,0.000
1644939684514813952,2022-02-15-15:41:24,10.1.1.5,39,-0.090,-0.090,-0.090,0.000,0.000,0.000
1644939684559057920,2022-02-15-15:41:24,10.1.1.5,28,-0.080,-0.080,-0.080,0.000,0.000,0.000
1644939685765504000,2022-02-15-15:41:25,10.1.1.5,29,0.070,0.070,0.070,0.000,0.000,0.000
1644939686034624000,2022-02-15-15:41:26,10.1.1.5,21,0.070,0.070,0.070,0.000,0.000,0.000
1644939686194711040,2022-02-15-15:41:26,10.1.1.5,29,0.040,0.040,0.040,0.000,0.000,0.000
1644939686258081024,2022-02-15-15:41:26,10.1.1.5,39,0.030,0.030,0.030,0.000,0.000,0.000
1644939686295481088,2022-02-15-15:41:26,10.1.1.5,28,0.020,0.020,0.020,0.000,0.000,0.000
1644939687314550016,2022-02-15-15:41:27,10.1.1.5,29,-0.020,-0.020,-0.020,0.000,0.000,0.000
1644939687376090880,2022-02-15-15:41:27,10.1.1.5,39,-0.010,-0.010,-0.010,0.000,0.000,0.000
1644939688475382016,2022-02-15-15:41:28,10.1.1.5,22,-0.010,-0.010,-0.010,0.000,0.000,0.000
1644939688594536192,2022-02-15-15:41:28,10.1.1.5,39,-0.030,-0.030,-0.030,0.000,0.000,0.000
1644939688634429952,2022-02-15-15:41:28,10.1.1.5,29,-0.040,-0.040,-0.040,0.000,0.000,0.000
1644939688697881088,2022-02-15-15:41:28,10.1.1.5,38,-0.050,-0.050,-0.050,0.000,0.000,0.000
1644939688734707200,2022-02-15-15:41:28,10.1.1.5,28,-0.060,-0.060,-0.060,0.000,0.000,0.000
1644939689135107072,2022-02-15-15:41:29,10.1.1.5,22,-0.060,-0.060,-0.060,0.000,0.000,0.000
1644939689336822016,2022-02-15-15:41:29,10.1.1.5,20,-0.020,-0.020,-0.020,0.000,0.000,0.000
1644939690237448960,2022-02-15-15:41:30,10.1.1.5,39,0.050,0.050,0.050,0.000,0.000,0.000
1644939690735640064,2022-02-15-15:41:30,10.1.1.5,29,-0.040,-0.040,-0.040,0.000,0.000,0.000
1644939691056623872,2022-02-15-15:41:31,10.1.1.5,38,-0.100,-0.100,-0.100,0.000,0.000,0.000
1644939693279324928,2022-02-15-15:41:33,10.1.1.5,4,-0.100,-0.100,-0.100,0.000,0.000,0.000
1644939693574484992,2022-02-15-15:41:33,10.1.1.5,39,-0.050,-0.050,-0.050,0.000,0.000,0.000
1644939694035936000,2022-02-15-15:41:34,10.1.1.5,29,0.040,0.040,0.040,0.000,0.000,0.000
1644939694555191040,2022-02-15-15:41:34,10.1.1.5,39,0.060,0.060,0.060,0.000,0.000,0.000
1644939694594480896,2022-02-15-15:41:34,10.1.1.5,28,0.050,0.050,0.050,0.000,0.000,0.000
1644939695154810880,2022-02-15-15:41:35,10.1.1.5,29,-0.060,-0.060,-0.060,0.000,0.000,0.000
1644939695214808064,2022-02-15-15:41:35,10.1.1.5,39,-0.070,-0.070,-0.070,0.000,0.000,0.000
1644939695494607872,2022-02-15-15:41:35,10.1.1.5,13,-0.070,-0.070,-0.070,0.000,0.000,0.000
1644939695614497792,2022-02-15-15:41:35,10.1.1.5,29,-0.050,-0.050,-0.050,0.000,0.000,0.000
1644939696318597120,2022-02-15-15:41:36,10.1.1.5,32,0.080,0.080,0.080,0.000,0.000,0.000
1644939696516741888,2022-02-15-15:41:36,10.1.1.5,23,0.080,0.080,0.080,0.000,0.000,0.000
1644939696896806912,2022-02-15-15:41:36,10.1.1.5,38,0.010,0.010,0.010,0.000,0.000,0.000
1644939697155543040,2022-02-15-15:41:37,10.1.1.5,39,-0.040,-0.040,-0.040,0.000,0.000,0.000
1644939697276793088,2022-02-15-15:41:37,10.1.1.5,29,-0.060,-0.060,-0.060,0.000,0.000,0.000
1644939697385029120,2022-02-15-15:41:37,10.1.1.5,29,-0.080,-0.080,-0.080,0.000,0.000,0.000
1644939697596878080,2022-02-15-15:41:37,10.1.1.5,29,-0.080,-0.080,-0.080,0.000,0.000,0.000
1644939697657901056,2022-02-15-15:41:37,10.1.1.5,38,-0.070,-0.070,-0.070,0.000,0.000,0.000
1644939698436574976,2022-02-15-15:41:38,10.1.1.5,39,0.050,0.050,0.050,0.000,0.000,0.000
1644939698895923968,2022-02-15-15:41:38,10.1.1.5,29,0.060,0.060,0.060,0.000,0.000,0.000
1644939698957413888,2022-02-15-15:41:38,10.1.1.5,39,0.050,0.050,0.050,0.000,0.000,0.000
1644939699615358208,2022-02-15-15:41:39,10.1.1.5,39,-0.080,-0.080,-0.080,0.000,0.000,0.000
1644939699665200896,2022-02-15-15:41:39,10.1.1.5,39,-0.090,-0.090,-0.090,0.000,0.000,0.000
1644939699714555904,2022-02-15-15:41:39,10.1.1.5,38,-0.100,-0.100,-0.100,0.000,0.000,0.000
1644939700872247040,2022-02-15-15:41:40,10.1.1.5,38,-0.040,-0.040,-0.040,0.000,0.000,0.000
1644939701214628096,2022-02-15-15:41:41,10.1.1.5,39,0.030,0.030,0.030,0.000,0.000,0.000
1644939701914128896,2022-02-15-15:41:41,10.1.1.5,9,0.030,0.030,0.030,0.000,0.000,0.000
1644939702288940800,2022-02-15-15:41:42,10.1.1.5,20,-0.030,-0.030,-0.030,0.000,0.000,0.000
1644939702995214080,2022-02-15-15:41:42,10.1.1.5,11,-0.030,-0.030,-0.030,0.000,0.000,0.000
1644939703221238016,2022-02-15-15:41:43,10.1.1.5,29,0.010,0.010,0.010,0.000,0.000,0.000
1644939704435137024,2022-02-15-15:41:43,10.1.1.5,36,0.060,0.060,0.060,0.000,0.000,0.000
1644939704775795968,2022-02-15-15:41:44,10.1.1.5,39,-0.010,-0.010,-0.010,0.000,0.000,0.000
1644939704814744832,2022-02-15-15:41:44,10.1.1.5,28,-0.020,-0.020,-0.020,0.000,0.000,0.000
1644939705534675968,2022-02-15-15:41:45,10.1.1.5,29,-0.040,-0.040,-0.040,0.000,0.000,0.000
1644939706181679104,2022-02-15-15:41:46,10.1.1.5,39,0.080,0.080,0.080,0.000,0.000,0.000
1644939706883522048,2022-02-15-15:41:46,10.1.1.5,39,0.090,0.090,0.090,0.000,0.000,0.000
1644939707394013952,2022-02-15-15:41:47,10.1.1.5,38,-0.010,-0.010,-0.010,0.000,0.000,0.000
1644939708296761088,2022-02-15-15:41:48,10.1.1.5,6,-0.010,-0.010,-0.010,0.000,0.000,0.000
1644939708576812032,2022-02-15-15:41:48,10.1.1.5,28,0.040,0.040,0.040,0.000,0.000,0.000
1644939708794725888,2022-02-15-15:41:48,10.1.1.5,39,0.080,0.080,0.080,0.000,0.000,0.000
1644939708834692096,2022-02-15-15:41:48,10.1.1.5,29,0.090,0.090,0.090,0.000,0.000,0.000
1644939708896158976,2022-02-15-15:41:48,10.1.1.5,38,0.100,0.100,0.100,0.000,0.000,0.000
1644939714622258944,2022-02-15-15:41:50,10.1.1.5,29,0.020,0.020,0.020,0.000,0.000,0.000
1644939720051635968,2022-02-15-15:41:55,10.1.1.5,39,0.090,0.090,0.090,0.000,0.000,0.000
1644939724929712128,2022-02-15-15:42:00,10.1.1.5,-5364,0.090,0.090,0.090,0.000,0.000,0.000
1644939730440013824,2022-02-15-15:42:06,10.1.1.5,29,-0.030,-0.030,-0.030,0.000,0.000,0.000
1644939736075352832,2022-02-15-15:42:11,10.1.1.5,1,-0.060,-0.060,-0.060,0.000,0.000,0.000
1644939740394284032,2022-02-15-15:42:16,10.1.1.5,29,0.040,0.040,0.040,0.000,0.000,0.000
1644939741752325888,2022-02-15-15:42:20,10.1.1.5,28,0.060,0.060,0.060,0.000,0.000,0.000
1644939742670934016,2022-02-15-15:42:21,10.1.1.5,29,0.100,0.100,0.100,0.000,0.000,0.000
1644939742857320960,2022-02-15-15:42:22,10.1.1.5,38,0.090,0.090,0.090,0.000,0.000,0.000
1644939743197462016,2022-02-15-15:42:23,10.1.1.5,20,0.020,0.020,0.020,0.000,0.000,0.000
1644939746841274112,2022-02-15-15:42:24,10.1.1.5,29,-0.040,-0.040,-0.040,0.000,0.000,0.000
1644939750016113152,2022-02-15-15:42:27,10.1.1.5,39,-0.010,-0.010,-0.010,0.000,0.000,0.000
1644939750731508992,2022-02-15-15:42:30,10.1.1.5,29,0.080,0.080,0.080,0.000,0.000,0.000
1644939750788826880,2022-02-15-15:42:30,10.1.1.5,28,0.090,0.090,0.090,0.000,0.000,0.000
1644939750878844928,2022-02-15-15:42:30,10.1.1.5,19,0.090,0.090,0.090,0.000,0.000,0.000
1644939757260081920,2022-02-15-15:42:34,10.1.1.5,12,0.090,0.090,0.090,0.000,0.000,0.000
1644939757347876096,2022-02-15-15:42:37,10.1.1.5,-42,0.090,0.090,0.090,0.000,0.000,0.000
1644939757705084928,2022-02-15-15:42:37,10.1.1.5,39,0.030,0.030,0.030,0.000,0.000,0.000
1644939758120572160,2022-02-15-15:42:38,10.1.1.5,39,-0.050,-0.050,-0.050,0.000,0.000,0.000
1644939758501313024,2022-02-15-15:42:38,10.1.1.5,39,-0.080,-0.080,-0.080,0.000,0.000,0.000
1644939761011424000,2022-02-15-15:42:38,10.1.1.5,29,-0.070,-0.070,-0.070,0.000,0.000,0.000
1644939762948698880,2022-02-15-15:42:42,10.1.1.5,38,0.070,0.070,0.070,0.000,0.000,0.000
1644939763163650048,2022-02-15-15:42:43,10.1.1.5,26,0.040,0.040,0.040,0.000,0.000,0.000
1644939766043467008,2022-02-15-15:42:43,10.1.1.5,39,0.000,0.000,0.000,0.000,0.000,0.000
1644939766241475072,2022-02-15-15:42:46,10.1.1.5,39,-0.020,-0.020,-0.020,0.000,0.000,0.000
1644939769327527936,2022-02-15-15:42:47,10.1.1.5,-710,-0.020,-0.020,-0.020,0.000,0.000,0.000
1644939772082124032,2022-02-15-15:42:49,10.1.1.5,29,0.030,0.030,0.030,0.000,0.000,0.000
1644939775836358912,2022-02-15-15:42:53,10.1.1.5,-3477,0.030,0.030,0.030,0.000,0.000,0.000
1644939776602641152,2022-02-15-15:42:56,10.1.1.5,29,0.080,0.080,0.080,0.000,0.000,0.000
1644939776776457984,2022-02-15-15:42:56,10.1.1.5,23,0.080,0.080,0.080,0.000,0.000,0.000
1644939777134406144,2022-02-15-15:42:57,10.1.1.5,29,0.010,0.010,0.010,0.000,0.000,0.000
1644939777635500032,2022-02-15-15:42:57,10.1.1.5,20,-0.090,-0.090,-0.090,0.000,0.000,0.000
1644939777694961920,2022-02-15-15:42:57,10.1.1.5,28,-0.100,-0.100,-0.100,0.000,0.000,0.000
1644939778435144960,2022-02-15-15:42:58,10.1.1.5,20,0.040,0.040,0.040,0.000,0.000,0.000
1644939778494510848,2022-02-15-15:42:58,10.1.1.5,29,0.050,0.050,0.050,0.000,0.000,0.000
1644939778934531072,2022-02-15-15:42:58,10.1.1.5,12,0.060,0.060,0.060,0.000,0.000,0.000
1644939779094523904,2022-02-15-15:42:59,10.1.1.5,19,0.030,0.030,0.030,0.000,0.000,0.000
1644939779156587008,2022-02-15-15:42:59,10.1.1.5,29,0.020,0.020,0.020,0.000,0.000,0.000
1644939780355480832,2022-02-15-15:43:00,10.1.1.5,29,0.010,0.010,0.010,0.000,0.000,0.000
1644939780575782912,2022-02-15-15:43:00,10.1.1.5,29,0.050,0.050,0.050,0.000,0.000,0.000
1644939780855654912,2022-02-15-15:43:00,10.1.1.5,39,0.100,0.100,0.100,0.000,0.000,0.000
1644939780910445056,2022-02-15-15:43:00,10.1.1.5,28,0.090,0.090,0.090,0.000,0.000,0.000
1644939781058253056,2022-02-15-15:43:01,10.1.1.5,29,0.060,0.060,0.060,0.000,0.000,0.000
1644939781475522048,2022-02-15-15:43:01,10.1.1.5,39,-0.020,-0.020,-0.020,0.000,0.000,0.000
1644939782561458944,2022-02-15-15:43:02,10.1.1.5,29,0.000,0.000,0.000,0.000,0.000,0.000
1644939782659791872,2022-02-15-15:43:02,10.1.1.5,39,0.020,0.020,0.020,0.000,0.000,0.000
1644939783596296192,2022-02-15-15:43:03,10.1.1.5,22,0.020,0.020,0.020,0.000,0.000,0.000
1644939783757281024,2022-02-15-15:43:03,10.1.1.5,30,-0.010,-0.010,-0.010,0.000,0.000,0.000
1644939783819427840,2022-02-15-15:43:03,10.1.1.5,38,-0.020,-0.020,-0.020,0.000,0.000,0.000
1644939784730167040,2022-02-15-15:43:04,10.1.1.5,20,-0.050,-0.050,-0.050,0.000,0.000,0.000
1644939785076345856,2022-02-15-15:43:05,10.1.1.5,20,0.000,0.000,0.000,0.000,0.000,0.000
1644939785155288064,2022-02-15-15:43:05,10.1.1.5,49,0.010,0.010,0.010,0.000,0.000,0.000
1644939786095489024,2022-02-15-15:43:06,10.1.1.5,11,0.010,0.010,0.010,0.000,0.000,0.000
1644939786160151040,2022-02-15-15:43:06,10.1.1.5,40,0.000,0.000,0.000,0.000,0.000,0.000
1644939786615966208,2022-02-15-15:43:06,10.1.1.5,40,-0.090,-0.090,-0.090,0.000,0.000,0.000
1644939786661730048,2022-02-15-15:43:06,10.1.1.5,29,-0.100,-0.100,-0.100,0.000,0.000,0.000
1644939786715766784,2022-02-15-15:43:06,10.1.1.5,38,-0.090,-0.090,-0.090,0.000,0.000,0.000
1644939787880065024,2022-02-15-15:43:07,10.1.1.5,39,0.090,0.090,0.090,0.000,0.000,0.000
1644939789930416128,2022-02-15-15:43:09,10.1.1.5,30,0.080,0.080,0.080,0.000,0.000,0.000
1644939790154521856,2022-02-15-15:43:10,10.1.1.5,16,0.080,0.080,0.080,0.000,0.000,0.000
1644939790990600192,2022-02-15-15:43:10,10.1.1.5,40,-0.020,-0.020,-0.020,0.000,0.000,0.000
1644939791097400832,2022-02-15-15:43:11,10.1.1.5,29,-0.030,-0.030,-0.030,0.000,0.000,0.000
1644939791599483136,2022-02-15-15:43:11,10.1.1.5,39,-0.060,-0.060,-0.060,0.000,0.000,0.000
1644939791974526976,2022-02-15-15:43:11,10.1.1.5,7,-0.060,-0.060,-0.060,0.000,0.000,0.000
1644939795821736960,2022-02-15-15:43:13,10.1.1.5,29,0.070,0.070,0.070,0.000,0.000,0.000
1644939798240775936,2022-02-15-15:43:16,10.1.1.5,29,0.000,0.000,0.000,0.000,0.000,0.000
1644939799366228224,2022-02-15-15:43:19,10.1.1.5,5,0.000,0.000,0.000,0.000,0.000,0.000
1644939800485928960,2022-02-15-15:43:20,10.1.1.5,13,0.060,0.060,0.060,0.000,0.000,0.000
1644939800995251968,2022-02-15-15:43:20,10.1.1.5,29,-0.020,-0.020,-0.020,0.000,0.000,0.000
1644939801174910976,2022-02-15-15:43:21,10.1.1.5,29,-0.050,-0.050,-0.050,0.000,0.000,0.000
1644939801758333952,2022-02-15-15:43:21,10.1.1.5,-37,-0.050,-0.050,-0.050,0.000,0.000,0.000
1644939802274853888,2022-02-15-15:43:22,10.1.1.5,39,0.040,0.040,0.040,0.000,0.000,0.000
1644939802774830080,2022-02-15-15:43:22,10.1.1.5,30,0.060,0.060,0.060,0.000,0.000,0.000
1644939802835987968,2022-02-15-15:43:22,10.1.1.5,39,0.050,0.050,0.050,0.000,0.000,0.000
1644939803655479040,2022-02-15-15:43:23,10.1.1.5,29,-0.090,-0.090,-0.090,0.000,0.000,0.000
1644939807030200832,2022-02-15-15:43:25,10.1.1.5,29,-0.010,-0.010,-0.010,0.000,0.000,0.000
1644939807374756096,2022-02-15-15:43:27,10.1.1.5,30,-0.080,-0.080,-0.080,0.000,0.000,0.000
1644939808973553920,2022-02-15-15:43:27,10.1.1.5,14,-0.080,-0.080,-0.080,0.000,0.000,0.000
1644939809434194944,2022-02-15-15:43:29,10.1.1.5,29,0.000,0.000,0.000,0.000,0.000,0.000
1644939810528471040,2022-02-15-15:43:30,10.1.1.5,17,0.000,0.000,0.000,0.000,0.000,0.000
1644939811172136192,2022-02-15-15:43:31,10.1.1.5,25,-0.090,-0.090,-0.090,0.000,0.000,0.000
1644939811379709952,2022-02-15-15:43:31,10.1.1.5,40,-0.050,-0.050,-0.050,0.000,0.000,0.000
1644939812697168128,2022-02-15-15:43:32,10.1.1.5,39,0.060,0.060,0.060,0.000,0.000,0.000
1644939813415365888,2022-02-15-15:43:33,10.1.1.5,29,-0.050,-0.050,-0.050,0.000,0.000,0.000
1644939813874653952,2022-02-15-15:43:33,10.1.1.5,29,-0.060,-0.060,-0.060,0.000,0.000,0.000
1644939814234572800,2022-02-15-15:43:34,10.1.1.5,29,0.010,0.010,0.010,0.000,0.000,0.000
1644939814465830144,2022-02-15-15:43:34,10.1.1.5,29,0.050,0.050,0.050,0.000,0.000,0.000
1644939815066525952,2022-02-15-15:43:35,10.1.1.5,-8,0.050,0.050,0.050,0.000,0.000,0.000
1644939815288230912,2022-02-15-15:43:35,10.1.1.5,30,0.010,0.010,0.010,0.000,0.000,0.000
1644939815337986048,2022-02-15-15:43:35,10.1.1.5,29,0.000,0.000,0.000,0.000,0.000,0.000
1644939815405817088,2022-02-15-15:43:35,10.1.1.5,38,-0.010,-0.010,-0.010,0.000,0.000,0.000
1644939816559698176,2022-02-15-15:43:36,10.1.1.5,29,-0.050,-0.050,-0.050,0.000,0.000,0.000
1644939817075783936,2022-02-15-15:43:37,10.1.1.5,39,0.050,0.050,0.050,0.000,0.000,0.000
1644939817115653120,2022-02-15-15:43:37,10.1.1.5,29,0.060,0.060,0.060,0.000,0.000,0.000
1644939817515068928,2022-02-15-15:43:37,10.1.1.5,15,0.060,0.060,0.060,0.000,0.000,0.000
1644939817754224896,2022-02-15-15:43:37,10.1.1.5,49,0.020,0.020,0.020,0.000,0.000,0.000
1644939817821705216,2022-02-15-15:43:37,10.1.1.5,39,0.010,0.010,0.010,0.000,0.000,0.000
1644939818365408000,2022-02-15-15:43:38,10.1.1.5,45,-0.080,-0.080,-0.080,0.000,0.000,0.000
1644939818530580992,2022-02-15-15:43:38,10.1.1.5,0,-0.080,-0.080,-0.080,0.000,0.000,0.000
1644939818654528000,2022-02-15-15:43:38,10.1.1.5,40,-0.060,-0.060,-0.060,0.000,0.000,0.000
1644939819255835904,2022-02-15-15:43:39,10.1.1.5,29,0.060,0.060,0.060,0.000,0.000,0.000
1644939819314842112,2022-02-15-15:43:39,10.1.1.5,38,0.070,0.070,0.070,0.000,0.000,0.000
1644939819599435008,2022-02-15-15:43:39,10.1.1.5,4,0.070,0.070,0.070,0.000,0.000,0.000
1644939821309870080,2022-02-15-15:43:41,10.1.1.5,11,-0.050,-0.050,-0.050,0.000,0.000,0.000
1644939821628251136,2022-02-15-15:43:41,10.1.1.5,29,0.010,0.010,0.010,0.000,0.000,0.000
1644939823066256896,2022-02-15-15:43:42,10.1.1.5,12,0.010,0.010,0.010,0.000,0.000,0.000
1644939823241413120,2022-02-15-15:43:43,10.1.1.5,39,-0.020,-0.020,-0.020,0.000,0.000,0.000
1644939823754569984,2022-02-15-15:43:43,10.1.1.5,39,-0.100,-0.100,-0.100,0.000,0.000,0.000
1644939823814328064,2022-02-15-15:43:43,10.1.1.5,29,-0.090,-0.090,-0.090,0.000,0.000,0.000
1644939824255062016,2022-02-15-15:43:44,10.1.1.5,29,0.000,0.000,0.000,0.000,0.000,0.000
1644939824895926016,2022-02-15-15:43:44,10.1.1.5,39,0.080,0.080,0.080,0.000,0.000,0.000
1644939825897810944,2022-02-15-15:43:45,10.1.1.5,29,-0.060,-0.060,-0.060,0.000,0.000,0.000
1644939826521830144,2022-02-15-15:43:46,10.1.1.5,30,-0.080,-0.080,-0.080,0.000,0.000,0.000
1644939826794234112,2022-02-15-15:43:46,10.1.1.5,19,-0.020,-0.020,-0.020,0.000,0.000,0.000
1644939831055052032,2022-02-15-15:43:48,10.1.1.5,20,-0.020,-0.020,-0.020,0.000,0.000,0.000
1644939833047965952,2022-02-15-15:43:51,10.1.1.5,29,-0.090,-0.090,-0.090,0.000,0.000,0.000
1644939833123521024,2022-02-15-15:43:53,10.1.1.5,-55,-0.090,-0.090,-0.090,0.000,0.000,0.000
1644939833445669888,2022-02-15-15:43:53,10.1.1.5,30,-0.030,-0.030,-0.030,0.000,0.000,0.000
1644939834657753088,2022-02-15-15:43:54,10.1.1.5,29,0.040,0.040,0.040,0.000,0.000,0.000
1644939836139139840,2022-02-15-15:43:56,10.1.1.5,6,0.040,0.040,0.040,0.000,0.000,0.000
1644939836798554880,2022-02-15-15:43:56,10.1.1.5,29,0.060,0.060,0.060,0.000,0.000,0.000
1644939839142319872,2022-02-15-15:43:59,10.1.1.5,32,0.050,0.050,0.050,0.000,0.000,0.000
1644939839455993856,2022-02-15-15:43:59,10.1.1.5,40,-0.010,-0.010,-0.010,0.000,0.000,0.000
1644939839509320960,2022-02-15-15:43:59,10.1.1.5,39,-0.020,-0.020,-0.020,0.000,0.000,0.000
1644939839776967936,2022-02-15-15:43:59,10.1.1.5,48,-0.070,-0.070,-0.070,0.000,0.000,0.000
1644939839818592000,2022-02-15-15:43:59,10.1.1.5,29,-0.080,-0.080,-0.080,0.000,0.000,0.000
1644939840017991936,2022-02-15-15:44:00,10.1.1.5,6,-0.080,-0.080,-0.080,0.000,0.000,0.000
1644939840489417984,2022-02-15-15:44:00,10.1.1.5,29,-0.030,-0.030,-0.030,0.000,0.000,0.000
1644939841637219072,2022-02-15-15:44:01,10.1.1.5,29,0.010,0.010,0.010,0.000,0.000,0.000
1644939842034249984,2022-02-15-15:44:02,10.1.1.5,29,-0.060,-0.060,-0.060,0.000,0.000,0.000
1644939842642757888,2022-02-15-15:44:02,10.1.1.5,6,-0.060,-0.060,-0.060,0.000,0.000,0.000
1644939843335603968,2022-02-15-15:44:03,10.1.1.5,20,0.050,0.050,0.050,0.000,0.000,0.000
1644939845749820928,2022-02-15-15:44:03,10.1.1.5,25,0.050,0.050,0.050,0.000,0.000,0.000
1644939847261054976,2022-02-15-15:44:06,10.1.1.5,28,0.010,0.010,0.010,0.000,0.000,0.000
1644939848392407040,2022-02-15-15:44:07,10.1.1.5,29,-0.100,-0.100,-0.100,0.000,0.000,0.000
1644939850215752960,2022-02-15-15:44:10,10.1.1.5,-9,-0.030,-0.030,-0.030,0.000,0.000,0.000
1644939852884449024,2022-02-15-15:44:11,10.1.1.5,-40,-0.030,-0.030,-0.030,0.000,0.000,0.000
1644939860042285824,2022-02-15-15:44:18,10.1.1.5,29,-0.090,-0.090,-0.090,0.000,0.000,0.000
1644939867172079104,2022-02-15-15:44:25,10.1.1.5,-510,-0.090,-0.090,-0.090,0.000,0.000,0.000
1644939875719005952,2022-02-15-15:44:34,10.1.1.5,-1307,-0.100,-0.100,-0.100,0.000,0.000,0.000
1644939877860868864,2022-02-15-15:44:36,10.1.1.5,29,-0.040,-0.040,-0.040,0.000,0.000,0.000
1644939878115286016,2022-02-15-15:44:38,10.1.1.5,39,0.010,0.010,0.010,0.000,0.000,0.000
1644939885669270016,2022-02-15-15:44:45,10.1.1.5,39,-0.010,-0.010,-0.010,0.000,0.000,0.000
1644939889069720064,2022-02-15-15:44:46,10.1.1.5,30,0.050,0.050,0.050,0.000,0.000,0.000
1644939892523490048,2022-02-15-15:44:50,10.1.1.5,6,0.050,0.050,0.050,0.000,0.000,0.000
1644939915056289792,2022-02-15-15:45:13,10.1.1.5,-1101,0.080,0.080,0.080,0.000,0.000,0.000
1644939944438391808,2022-02-15-15:45:31,10.1.1.5,11,0.000,0.000,0.000,0.000,0.000,0.000
1644939947374234880,2022-02-15-15:45:47,10.1.1.5,25,0.000,0.000,0.000,0.000,0.000,0.000
1644939947594508800,2022-02-15-15:45:47,10.1.1.5,39,-0.040,-0.040,-0.040,0.000,0.000,0.000
1644939948254422016,2022-02-15-15:45:48,10.1.1.5,25,-0.040,-0.040,-0.040,0.000,0.000,0.000
1644939948626435072,2022-02-15-15:45:48,10.1.1.5,30,0.030,0.030,0.030,0.000,0.000,0.000
1644939948795017984,2022-02-15-15:45:48,10.1.1.5,39,0.060,0.060,0.060,0.000,0.000,0.000
1644939949175139840,2022-02-15-15:45:49,10.1.1.5,13,0.060,0.060,0.060,0.000,0.000,0.000
1644939950775049984,2022-02-15-15:45:50,10.1.1.5,20,0.050,0.050,0.050,0.000,0.000,0.000
1644939950836168960,2022-02-15-15:45:50,10.1.1.5,29,0.060,0.060,0.060,0.000,0.000,0.000
1644939951234838016,2022-02-15-15:45:51,10.1.1.5,19,0.060,0.060,0.060,0.000,0.000,0.000
1644939951556838912,2022-02-15-15:45:51,10.1.1.5,29,0.000,0.000,0.000,0.000,0.000,0.000
1644939951974586112,2022-02-15-15:45:51,10.1.1.5,39,-0.080,-0.080,-0.080,0.000,0.000,0.000
1644939952175115008,2022-02-15-15:45:52,10.1.1.5,20,-0.080,-0.080,-0.080,0.000,0.000,0.000
1644939953356966912,2022-02-15-15:45:53,10.1.1.5,19,0.050,0.050,0.050,0.000,0.000,0.000
1644939953414524160,2022-02-15-15:45:53,10.1.1.5,29,0.040,0.040,0.040,0.000,0.000,0.000
1644939954025090048,2022-02-15-15:45:54,10.1.1.5,29,-0.080,-0.080,-0.080,0.000,0.000,0.000
1644939954216141056,2022-02-15-15:45:54,10.1.1.5,5,-0.080,-0.080,-0.080,0.000,0.000,0.000
1644939954435798016,2022-02-15-15:45:54,10.1.1.5,29,-0.050,-0.050,-0.050,0.000,0.000,0.000
1644939955355092992,2022-02-15-15:45:55,10.1.1.5,39,0.090,0.090,0.090,0.000,0.000,0.000
1644939956271529984,2022-02-15-15:45:56,10.1.1.5,40,-0.080,-0.080,-0.080,0.000,0.000,0.000
1644939956434182912,2022-02-15-15:45:56,10.1.1.5,16,-0.080,-0.080,-0.080,0.000,0.000,0.000
1644939956613550848,2022-02-15-15:45:56,10.1.1.5,29,-0.050,-0.050,-0.050,0.000,0.000,0.000
1644939957415182080,2022-02-15-15:45:57,10.1.1.5,28,0.100,0.100,0.100,0.000,0.000,0.000
1644939958534137088,2022-02-15-15:45:58,10.1.1.5,29,-0.100,-0.100,-0.100,0.000,0.000,0.000
1644939958699208960,2022-02-15-15:45:58,10.1.1.5,29,-0.070,-0.070,-0.070,0.000,0.000,0.000
1644939960416975872,2022-02-15-15:46:00,10.1.1.5,12,-0.070,-0.070,-0.070,0.000,0.000,0.000
1644939960715569920,2022-02-15-15:46:00,10.1.1.5,5,-0.070,-0.070,-0.070,0.000,0.000,0.000
1644939961774585856,2022-02-15-15:46:01,10.1.1.5,29,0.070,0.070,0.070,0.000,0.000,0.000
1644939962534651904,2022-02-15-15:46:02,10.1.1.5,39,-0.070,-0.070,-0.070,0.000,0.000,0.000
1644939962816762880,2022-02-15-15:46:02,10.1.1.5,13,-0.070,-0.070,-0.070,0.000,0.000,0.000
1644939963496764928,2022-02-15-15:46:03,10.1.1.5,30,0.060,0.060,0.060,0.000,0.000,0.000
1644939963918627072,2022-02-15-15:46:03,10.1.1.5,18,0.060,0.060,0.060,0.000,0.000,0.000
1644939964636183040,2022-02-15-15:46:04,10.1.1.5,39,-0.070,-0.070,-0.070,0.000,0.000,0.000
1644939964931969024,2022-02-15-15:46:04,10.1.1.5,21,-0.070,-0.070,-0.070,0.000,0.000,0.000
1644939966193448192,2022-02-15-15:46:06,10.1.1.5,29,0.030,0.030,0.030,0.000,0.000,0.000
1644939967394136064,2022-02-15-15:46:07,10.1.1.5,39,0.000,0.000,0.000,0.000,0.000,0.000
1644939967694216960,2022-02-15-15:46:07,10.1.1.5,29,0.060,0.060,0.060,0.000,0.000,0.000
1644939968094679040,2022-02-15-15:46:08,10.1.1.5,21,0.060,0.060,0.060,0.000,0.000,0.000
1644939968153871104,2022-02-15-15:46:08,10.1.1.5,29,0.050,0.050,0.050,0.000,0.000,0.000
1644939968614959872,2022-02-15-15:46:08,10.1.1.5,29,-0.040,-0.040,-0.040,0.000,0.000,0.000
1644939969035717120,2022-02-15-15:46:09,10.1.1.5,39,-0.080,-0.080,-0.080,0.000,0.000,0.000
1644939969793797120,2022-02-15-15:46:09,10.1.1.5,30,0.070,0.070,0.070,0.000,0.000,0.000
1644939970054371072,2022-02-15-15:46:10,10.1.1.5,29,0.080,0.080,0.080,0.000,0.000,0.000
1644939971133785088,2022-02-15-15:46:11,10.1.1.5,39,-0.070,-0.070,-0.070,0.000,0.000,0.000
1644939971544114944,2022-02-15-15:46:11,10.1.1.5,29,0.010,0.010,0.010,0.000,0.000,0.000
1644939971782100992,2022-02-15-15:46:11,10.1.1.5,29,0.050,0.050,0.050,0.000,0.000,0.000
1644939972274632960,2022-02-15-15:46:12,10.1.1.5,19,0.050,0.050,0.050,0.000,0.000,0.000
1644939973815128064,2022-02-15-15:46:13,10.1.1.5,7,0.050,0.050,0.050,0.000,0.000,0.000
1644939974295036928,2022-02-15-15:46:14,10.1.1.5,29,0.060,0.060,0.060,0.000,0.000,0.000
1644939974660016128,2022-02-15-15:46:14,10.1.1.5,29,-0.010,-0.010,-0.010,0.000,0.000,0.000
1644939974715086848,2022-02-15-15:46:14,10.1.1.5,39,-0.020,-0.020,-0.020,0.000,0.000,0.000
1644939974755593984,2022-02-15-15:46:14,10.1.1.5,29,-0.030,-0.030,-0.030,0.000,0.000,0.000
1644939975276285952,2022-02-15-15:46:15,10.1.1.5,39,-0.070,-0.070,-0.070,0.000,0.000,0.000
1644939976193957120,2022-02-15-15:46:16,10.1.1.5,39,0.090,0.090,0.090,0.000,0.000,0.000
1644939976914715136,2022-02-15-15:46:16,10.1.1.5,39,-0.050,-0.050,-0.050,0.000,0.000,0.000
1644939976979646976,2022-02-15-15:46:16,10.1.1.5,49,-0.060,-0.060,-0.060,0.000,0.000,0.000
1644939977358609920,2022-02-15-15:46:17,10.1.1.5,23,-0.060,-0.060,-0.060,0.000,0.000,0.000
1644939977715475200,2022-02-15-15:46:17,10.1.1.5,29,0.010,0.010,0.010,0.000,0.000,0.000
1644939978076018944,2022-02-15-15:46:18,10.1.1.5,29,0.080,0.080,0.080,0.000,0.000,0.000
1644939978275901184,2022-02-15-15:46:18,10.1.1.5,21,0.080,0.080,0.080,0.000,0.000,0.000
1644939980134702080,2022-02-15-15:46:20,10.1.1.5,17,0.080,0.080,0.080,0.000,0.000,0.000
1644939980336734976,2022-02-15-15:46:20,10.1.1.5,12,0.080,0.080,0.080,0.000,0.000,0.000
1644939980514295040,2022-02-15-15:46:20,10.1.1.5,39,0.050,0.050,0.050,0.000,0.000,0.000
1644939980555557120,2022-02-15-15:46:20,10.1.1.5,29,0.040,0.040,0.040,0.000,0.000,0.000
1644939981157284096,2022-02-15-15:46:21,10.1.1.5,19,-0.080,-0.080,-0.080,0.000,0.000,0.000
1644939981215337984,2022-02-15-15:46:21,10.1.1.5,29,-0.090,-0.090,-0.090,0.000,0.000,0.000
1644939981294725888,2022-02-15-15:46:21,10.1.1.5,8,-0.090,-0.090,-0.090,0.000,0.000,0.000
1644939982454711040,2022-02-15-15:46:22,10.1.1.5,39,0.070,0.070,0.070,0.000,0.000,0.000
1644939983513901056,2022-02-15-15:46:23,10.1.1.5,29,-0.060,-0.060,-0.060,0.000,0.000,0.000
1644939984134140928,2022-02-15-15:46:24,10.1.1.5,39,0.060,0.060,0.060,0.000,0.000,0.000
1644939984513707008,2022-02-15-15:46:24,10.1.1.5,12,0.060,0.060,0.060,0.000,0.000,0.000
1644939984694565120,2022-02-15-15:46:24,10.1.1.5,39,0.030,0.030,0.030,0.000,0.000,0.000
1644939985094360064,2022-02-15-15:46:25,10.1.1.5,29,-0.050,-0.050,-0.050,0.000,0.000,0.000
1644939985594681856,2022-02-15-15:46:25,10.1.1.5,11,-0.050,-0.050,-0.050,0.000,0.000,0.000
1644939986174448128,2022-02-15-15:46:26,10.1.1.5,29,0.060,0.060,0.060,0.000,0.000,0.000
1644939986534776832,2022-02-15-15:46:26,10.1.1.5,29,0.070,0.070,0.070,0.000,0.000,0.000
1644939987354376192,2022-02-15-15:46:27,10.1.1.5,29,-0.090,-0.090,-0.090,0.000,0.000,0.000
1644939987433886976,2022-02-15-15:46:27,10.1.1.5,7,-0.090,-0.090,-0.090,0.000,0.000,0.000
1644939989387765760,2022-02-15-15:46:29,10.1.1.5,17,-0.090,-0.090,-0.090,0.000,0.000,0.000
1644939989495064064,2022-02-15-15:46:29,10.1.1.5,23,-0.090,-0.090,-0.090,0.000,0.000,0.000
1644939990894434816,2022-02-15-15:46:30,10.1.1.5,39,0.020,0.020,0.020,0.000,0.000,0.000
1644939992095393024,2022-02-15-15:46:32,10.1.1.5,10,0.020,0.020,0.020,0.000,0.000,0.000
1644939992573901824,2022-02-15-15:46:32,10.1.1.5,29,0.090,0.090,0.090,0.000,0.000,0.000
1644939992934593024,2022-02-15-15:46:32,10.1.1.5,29,0.020,0.020,0.020,0.000,0.000,0.000
1644939993394969088,2022-02-15-15:46:33,10.1.1.5,29,-0.070,-0.070,-0.070,0.000,0.000,0.000
1644939993691759104,2022-02-15-15:46:33,10.1.1.5,11,-0.070,-0.070,-0.070,0.000,0.000,0.000
1644939993754352128,2022-02-15-15:46:33,10.1.1.5,29,-0.060,-0.060,-0.060,0.000,0.000,0.000
1644939994214888960,2022-02-15-15:46:34,10.1.1.5,29,0.030,0.030,0.030,0.000,0.000,0.000
1644939994567156992,2022-02-15-15:46:34,10.1.1.5,20,0.100,0.100,0.100,0.000,0.000,0.000
1644939994934041088,2022-02-15-15:46:34,10.1.1.5,29,0.030,0.030,0.030,0.000,0.000,0.000
1644939995856143104,2022-02-15-15:46:35,10.1.1.5,29,-0.050,-0.050,-0.050,0.000,0.000,0.000
1644939996734921984,2022-02-15-15:46:36,10.1.1.5,39,0.080,0.080,0.080,0.000,0.000,0.000
1644939997137132032,2022-02-15-15:46:37,10.1.1.5,29,0.000,0.000,0.000,0.000,0.000,0.000
1644939998154541056,2022-02-15-15:46:38,10.1.1.5,20,0.000,0.000,0.000,0.000,0.000,0.000
1644939998214962944,2022-02-15-15:46:38,10.1.1.5,29,0.010,0.010,0.010,0.000,0.000,0.000
1644939999054152960,2022-02-15-15:46:39,10.1.1.5,39,0.030,0.030,0.030,0.000,0.000,0.000
1644939999879206912,2022-02-15-15:46:39,10.1.1.5,29,-0.070,-0.070,-0.070,0.000,0.000,0.000
1644940000715781888,2022-02-15-15:46:40,10.1.1.5,29,0.090,0.090,0.090,0.000,0.000,0.000
1644940000795294976,2022-02-15-15:46:40,10.1.1.5,7,0.090,0.090,0.090,0.000,0.000,0.000
1644940001198807040,2022-02-15-15:46:41,10.1.1.5,49,0.020,0.020,0.020,0.000,0.000,0.000
1644940001494277888,2022-02-15-15:46:41,10.1.1.5,39,-0.040,-0.040,-0.040,0.000,0.000,0.000
1644940001894018048,2022-02-15-15:46:41,10.1.1.5,29,-0.080,-0.080,-0.080,0.000,0.000,0.000
1644940002114873856,2022-02-15-15:46:42,10.1.1.5,39,-0.040,-0.040,-0.040,0.000,0.000,0.000
1644940002414524160,2022-02-15-15:46:42,10.1.1.5,29,0.020,0.020,0.020,0.000,0.000,0.000
1644940002734380032,2022-02-15-15:46:42,10.1.1.5,39,0.080,0.080,0.080,0.000,0.000,0.000
1644940002894785792,2022-02-15-15:46:42,10.1.1.5,39,0.090,0.090,0.090,0.000,0.000,0.000
1644940003413886976,2022-02-15-15:46:43,10.1.1.5,39,-0.010,-0.010,-0.010,0.000,0.000,0.000
1644940003454292992,2022-02-15-15:46:43,10.1.1.5,29,-0.020,-0.020,-0.020,0.000,0.000,0.000
1644940003874960896,2022-02-15-15:46:43,10.1.1.5,39,-0.100,-0.100,-0.100,0.000,0.000,0.000
1644940004174631168,2022-02-15-15:46:44,10.1.1.5,29,-0.040,-0.040,-0.040,0.000,0.000,0.000
1644940004534862080,2022-02-15-15:46:44,10.1.1.5,30,0.030,0.030,0.030,0.000,0.000,0.000
1644940004594775040,2022-02-15-15:46:44,10.1.1.5,39,0.040,0.040,0.040,0.000,0.000,0.000
1644940004993761024,2022-02-15-15:46:44,10.1.1.5,29,0.080,0.080,0.080,0.000,0.000,0.000
1644940005414004992,2022-02-15-15:46:45,10.1.1.5,39,0.000,0.000,0.000,0.000,0.000,0.000
1644940005454874880,2022-02-15-15:46:45,10.1.1.5,29,-0.010,-0.010,-0.010,0.000,0.000,0.000
1644940006114702848,2022-02-15-15:46:46,10.1.1.5,19,-0.060,-0.060,-0.060,0.000,0.000,0.000
1644940006594326016,2022-02-15-15:46:46,10.1.1.5,39,0.030,0.030,0.030,0.000,0.000,0.000
1644940006953739776,2022-02-15-15:46:46,10.1.1.5,39,0.100,0.100,0.100,0.000,0.000,0.000
1644940007265108992,2022-02-15-15:46:47,10.1.1.5,39,0.040,0.040,0.040,0.000,0.000,0.000
1644940008694508032,2022-02-15-15:46:48,10.1.1.5,20,0.040,0.040,0.040,0.000,0.000,0.000
1644940008753933056,2022-02-15-15:46:48,10.1.1.5,30,0.050,0.050,0.050,0.000,0.000,0.000
1644940008814205952,2022-02-15-15:46:48,10.1.1.5,39,0.060,0.060,0.060,0.000,0.000,0.000
1644940008854921984,2022-02-15-15:46:48,10.1.1.5,29,0.070,0.070,0.070,0.000,0.000,0.000
1644940009155585024,2022-02-15-15:46:49,10.1.1.5,22,0.070,0.070,0.070,0.000,0.000,0.000
1644940010894740224,2022-02-15-15:46:50,10.1.1.5,15,0.070,0.070,0.070,0.000,0.000,0.000
1644940011155076864,2022-02-15-15:46:51,10.1.1.5,20,0.080,0.080,0.080,0.000,0.000,0.000
1644940011214732800,2022-02-15-15:46:51,10.1.1.5,29,0.070,0.070,0.070,0.000,0.000,0.000
1644940011713590016,2022-02-15-15:46:51,10.1.1.5,19,-0.030,-0.030,-0.030,0.000,0.000,0.000
1644940011993870080,2022-02-15-15:46:51,10.1.1.5,40,-0.080,-0.080,-0.080,0.000,0.000,0.000
1644940012033592832,2022-02-15-15:46:52,10.1.1.5,29,-0.090,-0.090,-0.090,0.000,0.000,0.000
1644940012114501120,2022-02-15-15:46:52,10.1.1.5,6,-0.090,-0.090,-0.090,0.000,0.000,0.000
1644940012164741888,2022-02-15-15:46:52,10.1.1.5,6,-0.090,-0.090,-0.090,0.000,0.000,0.000
1644940013729043968,2022-02-15-15:46:53,10.1.1.5,31,-0.020,-0.020,-0.020,0.000,0.000,0.000
1644940014528163840,2022-02-15-15:46:54,10.1.1.5,11,-0.020,-0.020,-0.020,0.000,0.000,0.000
1644940015754925056,2022-02-15-15:46:55,10.1.1.5,6,-0.020,-0.020,-0.020,0.000,0.000,0.000
1644940016575004928,2022-02-15-15:46:56,10.1.1.5,11,-0.020,-0.020,-0.020,0.000,0.000,0.000
1644940016694396928,2022-02-15-15:46:56,10.1.1.5,30,0.000,0.000,0.000,0.000,0.000,0.000
1644940017196197120,2022-02-15-15:46:57,10.1.1.5,29,0.090,0.090,0.090,0.000,0.000,0.000
1644940017273715968,2022-02-15-15:46:57,10.1.1.5,8,0.090,0.090,0.090,0.000,0.000,0.000
1644940019233891840,2022-02-15-15:46:59,10.1.1.5,15,0.090,0.090,0.090,0.000,0.000,0.000
1644940019347475968,2022-02-15-15:46:59,10.1.1.5,22,0.090,0.090,0.090,0.000,0.000,0.000
1644940019393636096,2022-02-15-15:46:59,10.1.1.5,20,0.080,0.080,0.080,0.000,0.000,0.000
1644940020974624000,2022-02-15-15:47:00,10.1.1.5,20,0.030,0.030,0.030,0.000,0.000,0.000
1644940021684494848,2022-02-15-15:47:01,10.1.1.5,16,0.030,0.030,0.030,0.000,0.000,0.000
1644940022055151872,2022-02-15-15:47:02,10.1.1.5,30,-0.040,-0.040,-0.040,0.000,0.000,0.000
1644940022114777088,2022-02-15-15:47:02,10.1.1.5,40,-0.050,-0.050,-0.050,0.000,0.000,0.000
1644940022593806080,2022-02-15-15:47:02,10.1.1.5,12,-0.050,-0.050,-0.050,0.000,0.000,0.000
1644940023234489088,2022-02-15-15:47:03,10.1.1.5,40,0.070,0.070,0.070,0.000,0.000,0.000
1644940023514043136,2022-02-15-15:47:03,10.1.1.5,15,0.070,0.070,0.070,0.000,0.000,0.000
1644940024515288064,2022-02-15-15:47:04,10.1.1.5,39,-0.080,-0.080,-0.080,0.000,0.000,0.000
1644940024556451072,2022-02-15-15:47:04,10.1.1.5,29,-0.070,-0.070,-0.070,0.000,0.000,0.000
1644940025154370048,2022-02-15-15:47:05,10.1.1.5,21,0.050,0.050,0.050,0.000,0.000,0.000
1644940025674040064,2022-02-15-15:47:05,10.1.1.5,32,0.050,0.050,0.050,0.000,0.000,0.000
1644940027194377984,2022-02-15-15:47:07,10.1.1.5,32,0.050,0.050,0.050,0.000,0.000,0.000
1644940027454519040,2022-02-15-15:47:07,10.1.1.5,39,0.100,0.100,0.100,0.000,0.000,0.000
1644940028055078144,2022-02-15-15:47:08,10.1.1.5,29,-0.020,-0.020,-0.020,0.000,0.000,0.000
1644940028853720064,2022-02-15-15:47:08,10.1.1.5,18,-0.020,-0.020,-0.020,0.000,0.000,0.000
1644940029574206208,2022-02-15-15:47:09,10.1.1.5,29,0.080,0.080,0.080,0.000,0.000,0.000
1644940029633876992,2022-02-15-15:47:09,10.1.1.5,39,0.070,0.070,0.070,0.000,0.000,0.000
1644940030294012928,2022-02-15-15:47:10,10.1.1.5,39,-0.060,-0.060,-0.060,0.000,0.000,0.000
1644940030673989120,2022-02-15-15:47:10,10.1.1.5,13,-0.060,-0.060,-0.060,0.000,0.000,0.000
1644940030994081024,2022-02-15-15:47:10,10.1.1.5,29,0.000,0.000,0.000,0.000,0.000,0.000
1644940031994788864,2022-02-15-15:47:11,10.1.1.5,18,0.000,0.000,0.000,0.000,0.000,0.000
1644940032714649088,2022-02-15-15:47:12,10.1.1.5,29,-0.060,-0.060,-0.060,0.000,0.000,0.000
1644940032774786048,2022-02-15-15:47:12,10.1.1.5,38,-0.050,-0.050,-0.050,0.000,0.000,0.000
1644940033233900032,2022-02-15-15:47:13,10.1.1.5,39,0.040,0.040,0.040,0.000,0.000,0.000
1644940033814438144,2022-02-15-15:47:13,10.1.1.5,9,0.040,0.040,0.040,0.000,0.000,0.000
1644940034454468864,2022-02-15-15:47:14,10.1.1.5,39,-0.080,-0.080,-0.080,0.000,0.000,0.000
1644940034494273024,2022-02-15-15:47:14,10.1.1.5,29,-0.090,-0.090,-0.090,0.000,0.000,0.000
1644940034573899008,2022-02-15-15:47:14,10.1.1.5,8,-0.090,-0.090,-0.090,0.000,0.000,0.000
1644940034913840896,2022-02-15-15:47:14,10.1.1.5,39,-0.030,-0.030,-0.030,0.000,0.000,0.000
1644940036214392064,2022-02-15-15:47:16,10.1.1.5,11,-0.030,-0.030,-0.030,0.000,0.000,0.000
1644940036933965824,2022-02-15-15:47:16,10.1.1.5,17,-0.030,-0.030,-0.030,0.000,0.000,0.000
1644940037413556992,2022-02-15-15:47:17,10.1.1.5,39,0.060,0.060,0.060,0.000,0.000,0.000
1644940037469816832,2022-02-15-15:47:17,10.1.1.5,29,0.070,0.070,0.070,0.000,0.000,0.000
1644940037514223104,2022-02-15-15:47:17,10.1.1.5,38,0.080,0.080,0.080,0.000,0.000,0.000
1644940037714479872,2022-02-15-15:47:17,10.1.1.5,33,0.080,0.080,0.080,0.000,0.000,0.000
1644940038374213888,2022-02-15-15:47:18,10.1.1.5,30,-0.050,-0.050,-0.050,0.000,0.000,0.000
1644940038877021952,2022-02-15-15:47:18,10.1.1.5,12,-0.050,-0.050,-0.050,0.000,0.000,0.000
1644940039355226112,2022-02-15-15:47:19,10.1.1.5,29,0.040,0.040,0.040,0.000,0.000,0.000
1644940039820875776,2022-02-15-15:47:19,10.1.1.5,29,0.070,0.070,0.070,0.000,0.000,0.000
1644940040177709056,2022-02-15-15:47:20,10.1.1.5,29,0.000,0.000,0.000,0.000,0.000,0.000
1644940041193551104,2022-02-15-15:47:21,10.1.1.5,17,0.000,0.000,0.000,0.000,0.000,0.000
1644940041625256960,2022-02-15-15:47:21,10.1.1.5,39,0.080,0.080,0.080,0.000,0.000,0.000
1644940041817490176,2022-02-15-15:47:21,10.1.1.5,21,0.080,0.080,0.080,0.000,0.000,0.000
1644940042194765056,2022-02-15-15:47:22,10.1.1.5,40,0.010,0.010,0.010,0.000,0.000,0.000
1644940042254558208,2022-02-15-15:47:22,10.1.1.5,49,-0.000,-0.000,-0.000,0.000,0.000,0.000
1644940043241292032,2022-02-15-15:47:23,10.1.1.5,7,-0.000,-0.000,-0.000,0.000,0.000,0.000
1644940044254158848,2022-02-15-15:47:24,10.1.1.5,7,-0.000,-0.000,-0.000,0.000,0.000,0.000
1644940045277664000,2022-02-15-15:47:25,10.1.1.5,10,-0.000,-0.000,-0.000,0.000,0.000,0.000
1644940045914663168,2022-02-15-15:47:25,10.1.1.5,39,0.080,0.080,0.080,0.000,0.000,0.000
1644940046475714816,2022-02-15-15:47:26,10.1.1.5,39,-0.030,-0.030,-0.030,0.000,0.000,0.000
1644940047034670080,2022-02-15-15:47:27,10.1.1.5,39,-0.060,-0.060,-0.060,0.000,0.000,0.000
1644940047374934016,2022-02-15-15:47:27,10.1.1.5,19,0.010,0.010,0.010,0.000,0.000,0.000
1644940047434264064,2022-02-15-15:47:27,10.1.1.5,29,0.020,0.020,0.020,0.000,0.000,0.000
1644940047895574016,2022-02-15-15:47:27,10.1.1.5,30,0.090,0.090,0.090,0.000,0.000,0.000
1644940047954194176,2022-02-15-15:47:27,10.1.1.5,39,0.080,0.080,0.080,0.000,0.000,0.000
1644940048394251008,2022-02-15-15:47:28,10.1.1.5,20,-0.010,-0.010,-0.010,0.000,0.000,0.000
1644940048454401024,2022-02-15-15:47:28,10.1.1.5,29,-0.020,-0.020,-0.020,0.000,0.000,0.000
1644940049256141056,2022-02-15-15:47:29,10.1.1.5,12,-0.020,-0.020,-0.020,0.000,0.000,0.000
1644940049334440960,2022-02-15-15:47:29,10.1.1.5,39,-0.010,-0.010,-0.010,0.000,0.000,0.000
1644940049833971968,2022-02-15-15:47:29,10.1.1.5,29,0.090,0.090,0.090,0.000,0.000,0.000
1644940049917613056,2022-02-15-15:47:29,10.1.1.5,7,0.090,0.090,0.090,0.000,0.000,0.000
1644940050354252032,2022-02-15-15:47:30,10.1.1.5,39,0.010,0.010,0.010,0.000,0.000,0.000
1644940051006300928,2022-02-15-15:47:31,10.1.1.5,30,-0.080,-0.080,-0.080,0.000,0.000,0.000
1644940051554727168,2022-02-15-15:47:31,10.1.1.5,19,0.030,0.030,0.030,0.000,0.000,0.000
1644940051614123008,2022-02-15-15:47:31,10.1.1.5,29,0.040,0.040,0.040,0.000,0.000,0.000
1644940052214874880,2022-02-15-15:47:32,10.1.1.5,17,0.040,0.040,0.040,0.000,0.000,0.000
1644940053594312960,2022-02-15-15:47:33,10.1.1.5,21,0.030,0.030,0.030,0.000,0.000,0.000
1644940054337029888,2022-02-15-15:47:34,10.1.1.5,22,0.030,0.030,0.030,0.000,0.000,0.000
1644940055654102016,2022-02-15-15:47:35,10.1.1.5,23,0.030,0.030,0.030,0.000,0.000,0.000
1644940056347271936,2022-02-15-15:47:36,10.1.1.5,4,0.030,0.030,0.030,0.000,0.000,0.000
1644940057694255104,2022-02-15-15:47:37,10.1.1.5,7,0.030,0.030,0.030,0.000,0.000,0.000
1644940057975174912,2022-02-15-15:47:37,10.1.1.5,29,0.080,0.080,0.080,0.000,0.000,0.000
1644940058175168000,2022-02-15-15:47:38,10.1.1.5,22,0.080,0.080,0.080,0.000,0.000,0.000
1644940059665993984,2022-02-15-15:47:39,10.1.1.5,29,0.010,0.010,0.010,0.000,0.000,0.000
1644940059715614976,2022-02-15-15:47:39,10.1.1.5,29,0.020,0.020,0.020,0.000,0.000,0.000
1644940060534447872,2022-02-15-15:47:40,10.1.1.5,32,0.020,0.020,0.020,0.000,0.000,0.000
1644940060694192896,2022-02-15-15:47:40,10.1.1.5,39,-0.010,-0.010,-0.010,0.000,0.000,0.000
1644940061494503936,2022-02-15-15:47:41,10.1.1.5,19,-0.030,-0.030,-0.030,0.000,0.000,0.000
1644940062074284032,2022-02-15-15:47:42,10.1.1.5,39,0.080,0.080,0.080,0.000,0.000,0.000
1644940062254349824,2022-02-15-15:47:42,10.1.1.5,14,0.080,0.080,0.080,0.000,0.000,0.000
1644940063233801984,2022-02-15-15:47:43,10.1.1.5,29,-0.090,-0.090,-0.090,0.000,0.000,0.000
1644940064154156800,2022-02-15-15:47:44,10.1.1.5,39,0.090,0.090,0.090,0.000,0.000,0.000
