FedericoMungari/DigitalTwin_service/01_WiredScenario/Output/Output_script/script_rosapi_2_output_robots10_freq0_7.txt
timestamp,date,node,latency,joint_1,joint_2,joint_3,joint_4,joint_5,joint_6
1644362088548578048,2022-02-08-23:14:48,10.1.1.8,9,-0.100,-0.100,-0.100,-0.000,-0.000,-0.000
1644362089484101120,2022-02-08-23:14:49,10.1.1.8,39,-0.010,-0.010,-0.010,0.000,0.000,0.000
1644362089584784896,2022-02-08-23:14:49,10.1.1.8,39,0.000,0.000,0.000,0.000,0.000,0.000
1644362089684026880,2022-02-08-23:14:49,10.1.1.8,37,0.010,0.010,0.010,0.000,0.000,0.000
1644362089784611072,2022-02-08-23:14:49,10.1.1.8,37,0.020,0.020,0.020,0.000,0.000,0.000
1644362089884082176,2022-02-08-23:14:49,10.1.1.8,35,0.030,0.030,0.030,0.000,0.000,0.000
1644362089984096000,2022-02-08-23:14:49,10.1.1.8,35,0.040,0.040,0.040,0.000,0.000,0.000
1644362090685103872,2022-02-08-23:14:50,10.1.1.8,29,0.090,0.090,0.090,0.000,0.000,0.000
1644362090783639808,2022-02-08-23:14:50,10.1.1.8,28,0.080,0.080,0.080,0.000,0.000,0.000
1644362090884350976,2022-02-08-23:14:50,10.1.1.8,27,0.070,0.070,0.070,0.000,0.000,0.000
1644362090983736064,2022-02-08-23:14:50,10.1.1.8,26,0.060,0.060,0.060,0.000,0.000,0.000
1644362091089116928,2022-02-08-23:14:51,10.1.1.8,25,0.050,0.050,0.050,0.000,0.000,0.000
1644362092003997184,2022-02-08-23:14:52,10.1.1.8,39,-0.040,-0.040,-0.040,0.000,0.000,0.000
1644362092104823040,2022-02-08-23:14:52,10.1.1.8,39,-0.050,-0.050,-0.050,0.000,0.000,0.000
1644362092204456192,2022-02-08-23:14:52,10.1.1.8,38,-0.060,-0.060,-0.060,0.000,0.000,0.000
1644362092304178944,2022-02-08-23:14:52,10.1.1.8,38,-0.070,-0.070,-0.070,0.000,0.000,0.000
1644362092404221952,2022-02-08-23:14:52,10.1.1.8,38,-0.080,-0.080,-0.080,0.000,0.000,0.000
1644362092504143104,2022-02-08-23:14:52,10.1.1.8,37,-0.090,-0.090,-0.090,0.000,0.000,0.000
1644362092603820032,2022-02-08-23:14:52,10.1.1.8,37,-0.100,-0.100,-0.100,0.000,0.000,0.000
1644362092704056064,2022-02-08-23:14:52,10.1.1.8,36,-0.090,-0.090,-0.090,0.000,0.000,0.000
1644362092803913216,2022-02-08-23:14:52,10.1.1.8,36,-0.080,-0.080,-0.080,0.000,0.000,0.000
1644362092904238080,2022-02-08-23:14:52,10.1.1.8,35,-0.070,-0.070,-0.070,0.000,0.000,0.000
1644362093004658944,2022-02-08-23:14:53,10.1.1.8,35,-0.060,-0.060,-0.060,0.000,0.000,0.000
1644362093103767040,2022-02-08-23:14:53,10.1.1.8,35,-0.050,-0.050,-0.050,0.000,0.000,0.000
1644362094104047104,2022-02-08-23:14:54,10.1.1.8,29,0.050,0.050,0.050,0.000,0.000,0.000
1644362094205331968,2022-02-08-23:14:54,10.1.1.8,29,0.060,0.060,0.060,0.000,0.000,0.000
1644362094303745024,2022-02-08-23:14:54,10.1.1.8,28,0.070,0.070,0.070,0.000,0.000,0.000
1644362094403847936,2022-02-08-23:14:54,10.1.1.8,27,0.080,0.080,0.080,0.000,0.000,0.000
1644362094504428032,2022-02-08-23:14:54,10.1.1.8,26,0.090,0.090,0.090,0.000,0.000,0.000
1644362094603831040,2022-02-08-23:14:54,10.1.1.8,26,0.100,0.100,0.100,0.000,0.000,0.000
1644362094704015872,2022-02-08-23:14:54,10.1.1.8,25,0.090,0.090,0.090,0.000,0.000,0.000
1644362094804824064,2022-02-08-23:14:54,10.1.1.8,25,0.080,0.080,0.080,0.000,0.000,0.000
1644362095624211968,2022-02-08-23:14:55,10.1.1.8,39,0.000,0.000,0.000,0.000,0.000,0.000
1644362095724185088,2022-02-08-23:14:55,10.1.1.8,38,-0.010,-0.010,-0.010,0.000,0.000,0.000
1644362095824184064,2022-02-08-23:14:55,10.1.1.8,38,-0.020,-0.020,-0.020,0.000,0.000,0.000
1644362095923958016,2022-02-08-23:14:55,10.1.1.8,37,-0.030,-0.030,-0.030,0.000,0.000,0.000
1644362096024274944,2022-02-08-23:14:56,10.1.1.8,37,-0.040,-0.040,-0.040,0.000,0.000,0.000
1644362096123945984,2022-02-08-23:14:56,10.1.1.8,36,-0.050,-0.050,-0.050,0.000,0.000,0.000
1644362096223956224,2022-02-08-23:14:56,10.1.1.8,35,-0.060,-0.060,-0.060,0.000,0.000,0.000
1644362096323949056,2022-02-08-23:14:56,10.1.1.8,35,-0.070,-0.070,-0.070,0.000,0.000,0.000
1644362096904372992,2022-02-08-23:14:56,10.1.1.8,10,-0.070,-0.070,-0.070,0.000,0.000,0.000
1644362097124041984,2022-02-08-23:14:57,10.1.1.8,29,-0.050,-0.050,-0.050,0.000,0.000,0.000
1644362097223750144,2022-02-08-23:14:57,10.1.1.8,28,-0.040,-0.040,-0.040,0.000,0.000,0.000
1644362097324343808,2022-02-08-23:14:57,10.1.1.8,27,-0.030,-0.030,-0.030,0.000,0.000,0.000
1644362097423692032,2022-02-08-23:14:57,10.1.1.8,27,-0.020,-0.020,-0.020,0.000,0.000,0.000
1644362097524357120,2022-02-08-23:14:57,10.1.1.8,26,-0.010,-0.010,-0.010,0.000,0.000,0.000
1644362097623931904,2022-02-08-23:14:57,10.1.1.8,25,-0.000,-0.000,-0.000,0.000,0.000,0.000
1644362097724590080,2022-02-08-23:14:57,10.1.1.8,25,0.010,0.010,0.010,0.000,0.000,0.000
1644362098144110848,2022-02-08-23:14:58,10.1.1.8,39,0.050,0.050,0.050,0.000,0.000,0.000
1644362098244409088,2022-02-08-23:14:58,10.1.1.8,38,0.060,0.060,0.060,0.000,0.000,0.000
1644362098344003072,2022-02-08-23:14:58,10.1.1.8,37,0.070,0.070,0.070,0.000,0.000,0.000
1644362098444404992,2022-02-08-23:14:58,10.1.1.8,37,0.080,0.080,0.080,0.000,0.000,0.000
1644362098544611072,2022-02-08-23:14:58,10.1.1.8,36,0.090,0.090,0.090,0.000,0.000,0.000
1644362098724569088,2022-02-08-23:14:58,10.1.1.8,14,0.090,0.090,0.090,0.000,0.000,0.000
1644362099044003840,2022-02-08-23:14:59,10.1.1.8,30,0.060,0.060,0.060,0.000,0.000,0.000
1644362099243863040,2022-02-08-23:14:59,10.1.1.8,29,0.040,0.040,0.040,0.000,0.000,0.000
1644362099343941888,2022-02-08-23:14:59,10.1.1.8,28,0.030,0.030,0.030,0.000,0.000,0.000
1644362099443923968,2022-02-08-23:14:59,10.1.1.8,27,0.020,0.020,0.020,0.000,0.000,0.000
1644362099543662080,2022-02-08-23:14:59,10.1.1.8,25,0.010,0.010,0.010,0.000,0.000,0.000
1644362099644347904,2022-02-08-23:14:59,10.1.1.8,25,-0.000,-0.000,-0.000,0.000,0.000,0.000
1644362100164105984,2022-02-08-23:15:00,10.1.1.8,40,-0.050,-0.050,-0.050,0.000,0.000,0.000
1644362100263883008,2022-02-08-23:15:00,10.1.1.8,39,-0.060,-0.060,-0.060,0.000,0.000,0.000
1644362100363962880,2022-02-08-23:15:00,10.1.1.8,38,-0.070,-0.070,-0.070,0.000,0.000,0.000
1644362100464088832,2022-02-08-23:15:00,10.1.1.8,38,-0.080,-0.080,-0.080,0.000,0.000,0.000
1644362100564205056,2022-02-08-23:15:00,10.1.1.8,38,-0.090,-0.090,-0.090,0.000,0.000,0.000
1644362100664375040,2022-02-08-23:15:00,10.1.1.8,37,-0.100,-0.100,-0.100,0.000,0.000,0.000
1644362100764094208,2022-02-08-23:15:00,10.1.1.8,37,-0.090,-0.090,-0.090,0.000,0.000,0.000
1644362100875927808,2022-02-08-23:15:00,10.1.1.8,39,-0.080,-0.080,-0.080,0.000,0.000,0.000
1644362101193491968,2022-02-08-23:15:01,10.1.1.8,32,-0.050,-0.050,-0.050,0.000,0.000,0.000
1644362101264190976,2022-02-08-23:15:01,10.1.1.8,32,-0.040,-0.040,-0.040,0.000,0.000,0.000
1644362101864846080,2022-02-08-23:15:01,10.1.1.8,27,0.020,0.020,0.020,0.000,0.000,0.000
1644362101967990016,2022-02-08-23:15:01,10.1.1.8,30,0.030,0.030,0.030,0.000,0.000,0.000
1644362102184561920,2022-02-08-23:15:02,10.1.1.8,38,0.050,0.050,0.050,0.000,0.000,0.000
1644362102283982080,2022-02-08-23:15:02,10.1.1.8,35,0.060,0.060,0.060,0.000,0.000,0.000
1644362102684372992,2022-02-08-23:15:02,10.1.1.8,29,0.100,0.100,0.100,0.000,0.000,0.000
1644362103604161024,2022-02-08-23:15:03,10.1.1.8,39,0.010,0.010,0.010,0.000,0.000,0.000
1644362103704067072,2022-02-08-23:15:03,10.1.1.8,38,0.000,0.000,0.000,0.000,0.000,0.000
1644362103804054016,2022-02-08-23:15:03,10.1.1.8,37,-0.010,-0.010,-0.010,0.000,0.000,0.000
1644362103904356096,2022-02-08-23:15:03,10.1.1.8,36,-0.020,-0.020,-0.020,0.000,0.000,0.000
1644362104003994880,2022-02-08-23:15:04,10.1.1.8,35,-0.030,-0.030,-0.030,0.000,0.000,0.000
1644362105405711872,2022-02-08-23:15:05,10.1.1.8,22,-0.030,-0.030,-0.030,0.000,0.000,0.000
1644362105925306112,2022-02-08-23:15:05,10.1.1.8,38,0.020,0.020,0.020,0.000,0.000,0.000
1644362106026284032,2022-02-08-23:15:06,10.1.1.8,36,0.030,0.030,0.030,0.000,0.000,0.000
1644362106124598016,2022-02-08-23:15:06,10.1.1.8,35,0.040,0.040,0.040,0.000,0.000,0.000
1644362106223980032,2022-02-08-23:15:06,10.1.1.8,35,0.050,0.050,0.050,0.000,0.000,0.000
1644362106324443136,2022-02-08-23:15:06,10.1.1.8,35,0.060,0.060,0.060,0.000,0.000,0.000
1644362107104157952,2022-02-08-23:15:07,10.1.1.8,10,0.060,0.060,0.060,0.000,0.000,0.000
1644362107223988992,2022-02-08-23:15:07,10.1.1.8,29,0.050,0.050,0.050,0.000,0.000,0.000
1644362107323923200,2022-02-08-23:15:07,10.1.1.8,28,0.040,0.040,0.040,0.000,0.000,0.000
1644362107424158976,2022-02-08-23:15:07,10.1.1.8,27,0.030,0.030,0.030,0.000,0.000,0.000
1644362107524694016,2022-02-08-23:15:07,10.1.1.8,26,0.020,0.020,0.020,0.000,0.000,0.000
1644362107623908096,2022-02-08-23:15:07,10.1.1.8,26,0.010,0.010,0.010,0.000,0.000,0.000
1644362107724299008,2022-02-08-23:15:07,10.1.1.8,25,0.000,0.000,0.000,0.000,0.000,0.000
1644362108544723968,2022-02-08-23:15:08,10.1.1.8,37,-0.080,-0.080,-0.080,0.000,0.000,0.000
1644362108644326912,2022-02-08-23:15:08,10.1.1.8,37,-0.090,-0.090,-0.090,0.000,0.000,0.000
1644362108744396800,2022-02-08-23:15:08,10.1.1.8,36,-0.100,-0.100,-0.100,0.000,0.000,0.000
1644362108844598016,2022-02-08-23:15:08,10.1.1.8,36,-0.090,-0.090,-0.090,0.000,0.000,0.000
1644362108944628992,2022-02-08-23:15:08,10.1.1.8,35,-0.080,-0.080,-0.080,0.000,0.000,0.000
1644362109044724992,2022-02-08-23:15:09,10.1.1.8,35,-0.070,-0.070,-0.070,0.000,0.000,0.000
1644362109145398016,2022-02-08-23:15:09,10.1.1.8,34,-0.060,-0.060,-0.060,0.000,0.000,0.000
1644362109944664064,2022-02-08-23:15:09,10.1.1.8,30,0.020,0.020,0.020,0.000,0.000,0.000
1644362110216675072,2022-02-08-23:15:10,10.1.1.8,29,0.040,0.040,0.040,0.000,0.000,0.000
1644362110243928064,2022-02-08-23:15:10,10.1.1.8,28,0.050,0.050,0.050,0.000,0.000,0.000
1644362110344353792,2022-02-08-23:15:10,10.1.1.8,27,0.060,0.060,0.060,0.000,0.000,0.000
1644362110444675072,2022-02-08-23:15:10,10.1.1.8,26,0.070,0.070,0.070,0.000,0.000,0.000
1644362110544580096,2022-02-08-23:15:10,10.1.1.8,25,0.080,0.080,0.080,0.000,0.000,0.000
1644362110644359168,2022-02-08-23:15:10,10.1.1.8,25,0.090,0.090,0.090,0.000,0.000,0.000
1644362110744784128,2022-02-08-23:15:10,10.1.1.8,24,0.100,0.100,0.100,0.000,0.000,0.000
1644362111463904000,2022-02-08-23:15:11,10.1.1.8,39,0.030,0.030,0.030,0.000,0.000,0.000
1644362111564552960,2022-02-08-23:15:11,10.1.1.8,38,0.020,0.020,0.020,0.000,0.000,0.000
1644362111664026880,2022-02-08-23:15:11,10.1.1.8,38,0.010,0.010,0.010,0.000,0.000,0.000
1644362111764060928,2022-02-08-23:15:11,10.1.1.8,37,0.000,0.000,0.000,0.000,0.000,0.000
1644362112565735936,2022-02-08-23:15:12,10.1.1.8,28,-0.080,-0.080,-0.080,0.000,0.000,0.000
1644362112664410112,2022-02-08-23:15:12,10.1.1.8,26,-0.090,-0.090,-0.090,0.000,0.000,0.000
1644362112764942848,2022-02-08-23:15:12,10.1.1.8,25,-0.100,-0.100,-0.100,0.000,0.000,0.000
1644362112864001024,2022-02-08-23:15:12,10.1.1.8,25,-0.090,-0.090,-0.090,0.000,0.000,0.000
1644362113983776000,2022-02-08-23:15:13,10.1.1.8,39,0.020,0.020,0.020,0.000,0.000,0.000
1644362114084248064,2022-02-08-23:15:14,10.1.1.8,38,0.030,0.030,0.030,0.000,0.000,0.000
1644362114184534016,2022-02-08-23:15:14,10.1.1.8,37,0.040,0.040,0.040,0.000,0.000,0.000
1644362114284097792,2022-02-08-23:15:14,10.1.1.8,37,0.050,0.050,0.050,0.000,0.000,0.000
1644362114383787008,2022-02-08-23:15:14,10.1.1.8,36,0.060,0.060,0.060,0.000,0.000,0.000
1644362114483557888,2022-02-08-23:15:14,10.1.1.8,36,0.070,0.070,0.070,0.000,0.000,0.000
1644362114584116992,2022-02-08-23:15:14,10.1.1.8,35,0.080,0.080,0.080,0.000,0.000,0.000
1644362114684557824,2022-02-08-23:15:14,10.1.1.8,35,0.090,0.090,0.090,0.000,0.000,0.000
1644362114784051968,2022-02-08-23:15:14,10.1.1.8,34,0.100,0.100,0.100,0.000,0.000,0.000
1644362115684838912,2022-02-08-23:15:15,10.1.1.8,29,0.010,0.010,0.010,0.000,0.000,0.000
1644362115784101120,2022-02-08-23:15:15,10.1.1.8,29,0.000,0.000,0.000,0.000,0.000,0.000
1644362115884569856,2022-02-08-23:15:15,10.1.1.8,28,-0.010,-0.010,-0.010,0.000,0.000,0.000
1644362115984718080,2022-02-08-23:15:15,10.1.1.8,27,-0.020,-0.020,-0.020,0.000,0.000,0.000
1644362116084508928,2022-02-08-23:15:16,10.1.1.8,25,-0.030,-0.030,-0.030,0.000,0.000,0.000
1644362116188823040,2022-02-08-23:15:16,10.1.1.8,25,-0.040,-0.040,-0.040,0.000,0.000,0.000
1644362116285646080,2022-02-08-23:15:16,10.1.1.8,24,-0.050,-0.050,-0.050,0.000,0.000,0.000
1644362117104852992,2022-02-08-23:15:17,10.1.1.8,38,-0.070,-0.070,-0.070,0.000,0.000,0.000
1644362117204140800,2022-02-08-23:15:17,10.1.1.8,36,-0.060,-0.060,-0.060,0.000,0.000,0.000
1644362117503688960,2022-02-08-23:15:17,10.1.1.8,26,-0.030,-0.030,-0.030,0.000,0.000,0.000
1644362117604195072,2022-02-08-23:15:17,10.1.1.8,25,-0.020,-0.020,-0.020,0.000,0.000,0.000
1644362117704370944,2022-02-08-23:15:17,10.1.1.8,25,-0.010,-0.010,-0.010,0.000,0.000,0.000
1644362117804014848,2022-02-08-23:15:17,10.1.1.8,24,0.000,0.000,0.000,0.000,0.000,0.000
1644362118104564992,2022-02-08-23:15:18,10.1.1.8,20,0.030,0.030,0.030,0.000,0.000,0.000
1644362118225043968,2022-02-08-23:15:18,10.1.1.8,39,0.040,0.040,0.040,0.000,0.000,0.000
1644362118324253184,2022-02-08-23:15:18,10.1.1.8,38,0.050,0.050,0.050,0.000,0.000,0.000
1644362118424887040,2022-02-08-23:15:18,10.1.1.8,36,0.060,0.060,0.060,0.000,0.000,0.000
1644362118524456960,2022-02-08-23:15:18,10.1.1.8,35,0.070,0.070,0.070,0.000,0.000,0.000
1644362118623980032,2022-02-08-23:15:18,10.1.1.8,35,0.080,0.080,0.080,0.000,0.000,0.000
1644362118724976896,2022-02-08-23:15:18,10.1.1.8,35,0.090,0.090,0.090,0.000,0.000,0.000
1644362118825048832,2022-02-08-23:15:18,10.1.1.8,34,0.100,0.100,0.100,0.000,0.000,0.000
1644362119224347136,2022-02-08-23:15:19,10.1.1.8,29,0.060,0.060,0.060,0.000,0.000,0.000
1644362119324444160,2022-02-08-23:15:19,10.1.1.8,29,0.050,0.050,0.050,0.000,0.000,0.000
1644362119424012032,2022-02-08-23:15:19,10.1.1.8,28,0.040,0.040,0.040,0.000,0.000,0.000
1644362119524292096,2022-02-08-23:15:19,10.1.1.8,28,0.030,0.030,0.030,0.000,0.000,0.000
1644362119624964864,2022-02-08-23:15:19,10.1.1.8,27,0.020,0.020,0.020,0.000,0.000,0.000
1644362119724289792,2022-02-08-23:15:19,10.1.1.8,25,0.010,0.010,0.010,0.000,0.000,0.000
1644362120444658944,2022-02-08-23:15:20,10.1.1.8,29,-0.060,-0.060,-0.060,0.000,0.000,0.000
1644362120544096000,2022-02-08-23:15:20,10.1.1.8,29,-0.070,-0.070,-0.070,0.000,0.000,0.000
1644362120643742976,2022-02-08-23:15:20,10.1.1.8,28,-0.080,-0.080,-0.080,0.000,0.000,0.000
1644362120744198144,2022-02-08-23:15:20,10.1.1.8,28,-0.090,-0.090,-0.090,0.000,0.000,0.000
1644362120845363968,2022-02-08-23:15:20,10.1.1.8,28,-0.100,-0.100,-0.100,0.000,0.000,0.000
1644362120945180928,2022-02-08-23:15:20,10.1.1.8,26,-0.090,-0.090,-0.090,0.000,0.000,0.000
1644362121045083136,2022-02-08-23:15:21,10.1.1.8,25,-0.080,-0.080,-0.080,0.000,0.000,0.000
1644362121663942144,2022-02-08-23:15:21,10.1.1.8,37,-0.020,-0.020,-0.020,0.000,0.000,0.000
1644362121763916032,2022-02-08-23:15:21,10.1.1.8,29,-0.010,-0.010,-0.010,0.000,0.000,0.000
1644362121895546880,2022-02-08-23:15:21,10.1.1.8,28,0.000,0.000,0.000,0.000,0.000,0.000
1644362121964071936,2022-02-08-23:15:21,10.1.1.8,27,0.010,0.010,0.010,0.000,0.000,0.000
1644362122064371200,2022-02-08-23:15:22,10.1.1.8,26,0.020,0.020,0.020,0.000,0.000,0.000
1644362122164068096,2022-02-08-23:15:22,10.1.1.8,25,0.030,0.030,0.030,0.000,0.000,0.000
1644362122264772864,2022-02-08-23:15:22,10.1.1.8,25,0.040,0.040,0.040,0.000,0.000,0.000
1644362122364207104,2022-02-08-23:15:22,10.1.1.8,24,0.050,0.050,0.050,0.000,0.000,0.000
1644362123363995904,2022-02-08-23:15:23,10.1.1.8,19,0.050,0.050,0.050,0.000,0.000,0.000
1644362123483840000,2022-02-08-23:15:23,10.1.1.8,39,0.040,0.040,0.040,0.000,0.000,0.000
1644362123584498944,2022-02-08-23:15:23,10.1.1.8,38,0.030,0.030,0.030,0.000,0.000,0.000
1644362123683767040,2022-02-08-23:15:23,10.1.1.8,38,0.020,0.020,0.020,0.000,0.000,0.000
1644362123783889920,2022-02-08-23:15:23,10.1.1.8,37,0.010,0.010,0.010,0.000,0.000,0.000
1644362123884030208,2022-02-08-23:15:23,10.1.1.8,37,0.000,0.000,0.000,0.000,0.000,0.000
1644362123984431104,2022-02-08-23:15:23,10.1.1.8,35,-0.010,-0.010,-0.010,0.000,0.000,0.000
1644362125084190976,2022-02-08-23:15:25,10.1.1.8,29,-0.080,-0.080,-0.080,0.000,0.000,0.000
1644362125183724032,2022-02-08-23:15:25,10.1.1.8,25,-0.070,-0.070,-0.070,0.000,0.000,0.000
1644362125604197888,2022-02-08-23:15:25,10.1.1.8,39,-0.030,-0.030,-0.030,0.000,0.000,0.000
1644362125703566080,2022-02-08-23:15:25,10.1.1.8,39,-0.020,-0.020,-0.020,0.000,0.000,0.000
1644362125803788800,2022-02-08-23:15:25,10.1.1.8,38,-0.010,-0.010,-0.010,0.000,0.000,0.000
1644362125905613056,2022-02-08-23:15:25,10.1.1.8,38,0.000,0.000,0.000,0.000,0.000,0.000
1644362126003783936,2022-02-08-23:15:26,10.1.1.8,37,0.010,0.010,0.010,0.000,0.000,0.000
1644362126104016128,2022-02-08-23:15:26,10.1.1.8,28,0.020,0.020,0.020,0.000,0.000,0.000
1644362126203845888,2022-02-08-23:15:26,10.1.1.8,28,0.030,0.030,0.030,0.000,0.000,0.000
1644362126303985152,2022-02-08-23:15:26,10.1.1.8,27,0.040,0.040,0.040,0.000,0.000,0.000
1644362126405118976,2022-02-08-23:15:26,10.1.1.8,26,0.050,0.050,0.050,0.000,0.000,0.000
1644362126504456960,2022-02-08-23:15:26,10.1.1.8,25,0.060,0.060,0.060,0.000,0.000,0.000
1644362126604364032,2022-02-08-23:15:26,10.1.1.8,25,0.070,0.070,0.070,0.000,0.000,0.000
1644362127204921088,2022-02-08-23:15:27,10.1.1.8,21,0.070,0.070,0.070,0.000,0.000,0.000
1644362127623994112,2022-02-08-23:15:27,10.1.1.8,39,0.030,0.030,0.030,0.000,0.000,0.000
1644362127725533952,2022-02-08-23:15:27,10.1.1.8,40,0.020,0.020,0.020,0.000,0.000,0.000
1644362127824372992,2022-02-08-23:15:27,10.1.1.8,38,0.010,0.010,0.010,0.000,0.000,0.000
1644362127924233984,2022-02-08-23:15:27,10.1.1.8,38,0.000,0.000,0.000,0.000,0.000,0.000
1644362128424233984,2022-02-08-23:15:28,10.1.1.8,29,-0.050,-0.050,-0.050,0.000,0.000,0.000
1644362128524830976,2022-02-08-23:15:28,10.1.1.8,29,-0.060,-0.060,-0.060,0.000,0.000,0.000
1644362128624478976,2022-02-08-23:15:28,10.1.1.8,28,-0.070,-0.070,-0.070,0.000,0.000,0.000
1644362128724973056,2022-02-08-23:15:28,10.1.1.8,28,-0.080,-0.080,-0.080,0.000,0.000,0.000
1644362129123852032,2022-02-08-23:15:29,10.1.1.8,22,-0.080,-0.080,-0.080,0.000,0.000,0.000
1644362129544684032,2022-02-08-23:15:29,10.1.1.8,39,-0.040,-0.040,-0.040,0.000,0.000,0.000
1644362129644044032,2022-02-08-23:15:29,10.1.1.8,38,-0.030,-0.030,-0.030,0.000,0.000,0.000
1644362129744615168,2022-02-08-23:15:29,10.1.1.8,37,-0.020,-0.020,-0.020,0.000,0.000,0.000
1644362129843751936,2022-02-08-23:15:29,10.1.1.8,35,-0.010,-0.010,-0.010,0.000,0.000,0.000
1644362129944376832,2022-02-08-23:15:29,10.1.1.8,35,0.000,0.000,0.000,0.000,0.000,0.000
1644362130743984896,2022-02-08-23:15:30,10.1.1.8,29,0.080,0.080,0.080,0.000,0.000,0.000
1644362130844115968,2022-02-08-23:15:30,10.1.1.8,29,0.090,0.090,0.090,0.000,0.000,0.000
1644362130944331776,2022-02-08-23:15:30,10.1.1.8,28,0.100,0.100,0.100,0.000,0.000,0.000
1644362131043762944,2022-02-08-23:15:31,10.1.1.8,27,0.090,0.090,0.090,0.000,0.000,0.000
1644362131144203008,2022-02-08-23:15:31,10.1.1.8,26,0.080,0.080,0.080,0.000,0.000,0.000
1644362131244139008,2022-02-08-23:15:31,10.1.1.8,26,0.070,0.070,0.070,0.000,0.000,0.000
1644362131344764928,2022-02-08-23:15:31,10.1.1.8,25,0.060,0.060,0.060,0.000,0.000,0.000
1644362131444582912,2022-02-08-23:15:31,10.1.1.8,25,0.050,0.050,0.050,0.000,0.000,0.000
1644362131544423168,2022-02-08-23:15:31,10.1.1.8,24,0.040,0.040,0.040,0.000,0.000,0.000
1644362132164002816,2022-02-08-23:15:32,10.1.1.8,29,-0.020,-0.020,-0.020,0.000,0.000,0.000
1644362132263611136,2022-02-08-23:15:32,10.1.1.8,28,-0.030,-0.030,-0.030,0.000,0.000,0.000
1644362132364386048,2022-02-08-23:15:32,10.1.1.8,28,-0.040,-0.040,-0.040,0.000,0.000,0.000
1644362132463865088,2022-02-08-23:15:32,10.1.1.8,27,-0.050,-0.050,-0.050,0.000,0.000,0.000
1644362132564295936,2022-02-08-23:15:32,10.1.1.8,26,-0.060,-0.060,-0.060,0.000,0.000,0.000
1644362132664407040,2022-02-08-23:15:32,10.1.1.8,26,-0.070,-0.070,-0.070,0.000,0.000,0.000
1644362132764132864,2022-02-08-23:15:32,10.1.1.8,25,-0.080,-0.080,-0.080,0.000,0.000,0.000
1644362132864353024,2022-02-08-23:15:32,10.1.1.8,25,-0.090,-0.090,-0.090,0.000,0.000,0.000
1644362133043973888,2022-02-08-23:15:33,10.1.1.8,3,-0.090,-0.090,-0.090,0.000,0.000,0.000
1644362133785336064,2022-02-08-23:15:33,10.1.1.8,37,-0.020,-0.020,-0.020,0.000,0.000,0.000
1644362133883901952,2022-02-08-23:15:33,10.1.1.8,35,-0.010,-0.010,-0.010,0.000,0.000,0.000
1644362133983820800,2022-02-08-23:15:33,10.1.1.8,34,0.000,0.000,0.000,0.000,0.000,0.000
1644362134584354048,2022-02-08-23:15:34,10.1.1.8,29,0.060,0.060,0.060,0.000,0.000,0.000
1644362134684019968,2022-02-08-23:15:34,10.1.1.8,29,0.070,0.070,0.070,0.000,0.000,0.000
1644362134784244992,2022-02-08-23:15:34,10.1.1.8,28,0.080,0.080,0.080,0.000,0.000,0.000
1644362134883974144,2022-02-08-23:15:34,10.1.1.8,26,0.090,0.090,0.090,0.000,0.000,0.000
1644362135013372928,2022-02-08-23:15:35,10.1.1.8,25,0.100,0.100,0.100,0.000,0.000,0.000
1644362135704130048,2022-02-08-23:15:35,10.1.1.8,39,0.030,0.030,0.030,0.000,0.000,0.000
1644362135803890944,2022-02-08-23:15:35,10.1.1.8,38,0.020,0.020,0.020,0.000,0.000,0.000
1644362135903793152,2022-02-08-23:15:35,10.1.1.8,38,0.010,0.010,0.010,0.000,0.000,0.000
1644362136003980032,2022-02-08-23:15:36,10.1.1.8,36,0.000,0.000,0.000,0.000,0.000,0.000
1644362136104172032,2022-02-08-23:15:36,10.1.1.8,36,-0.010,-0.010,-0.010,0.000,0.000,0.000
1644362136203723008,2022-02-08-23:15:36,10.1.1.8,36,-0.020,-0.020,-0.020,0.000,0.000,0.000
1644362136303852032,2022-02-08-23:15:36,10.1.1.8,34,-0.030,-0.030,-0.030,0.000,0.000,0.000
1644362136803969024,2022-02-08-23:15:36,10.1.1.8,27,-0.080,-0.080,-0.080,0.000,0.000,0.000
1644362136903783936,2022-02-08-23:15:36,10.1.1.8,27,-0.090,-0.090,-0.090,0.000,0.000,0.000
1644362137003709952,2022-02-08-23:15:37,10.1.1.8,26,-0.100,-0.100,-0.100,0.000,0.000,0.000
1644362137104391936,2022-02-08-23:15:37,10.1.1.8,25,-0.090,-0.090,-0.090,0.000,0.000,0.000
1644362137204448000,2022-02-08-23:15:37,10.1.1.8,24,-0.080,-0.080,-0.080,0.000,0.000,0.000
1644362138024148992,2022-02-08-23:15:38,10.1.1.8,37,0.000,0.000,0.000,0.000,0.000,0.000
1644362138124280832,2022-02-08-23:15:38,10.1.1.8,35,0.010,0.010,0.010,0.000,0.000,0.000
1644362138224647936,2022-02-08-23:15:38,10.1.1.8,35,0.020,0.020,0.020,0.000,0.000,0.000
1644362138324158976,2022-02-08-23:15:38,10.1.1.8,34,0.030,0.030,0.030,0.000,0.000,0.000
1644362138924372992,2022-02-08-23:15:38,10.1.1.8,29,0.090,0.090,0.090,0.000,0.000,0.000
1644362139023860992,2022-02-08-23:15:39,10.1.1.8,29,0.100,0.100,0.100,0.000,0.000,0.000
1644362139123944960,2022-02-08-23:15:39,10.1.1.8,28,0.090,0.090,0.090,0.000,0.000,0.000
1644362139223845120,2022-02-08-23:15:39,10.1.1.8,27,0.080,0.080,0.080,0.000,0.000,0.000
1644362139324400896,2022-02-08-23:15:39,10.1.1.8,26,0.070,0.070,0.070,0.000,0.000,0.000
1644362139423798016,2022-02-08-23:15:39,10.1.1.8,26,0.060,0.060,0.060,0.000,0.000,0.000
1644362139525428992,2022-02-08-23:15:39,10.1.1.8,25,0.050,0.050,0.050,0.000,0.000,0.000
1644362139624232960,2022-02-08-23:15:39,10.1.1.8,25,0.040,0.040,0.040,0.000,0.000,0.000
1644362140243995904,2022-02-08-23:15:40,10.1.1.8,39,-0.020,-0.020,-0.020,0.000,0.000,0.000
1644362140345176064,2022-02-08-23:15:40,10.1.1.8,38,-0.030,-0.030,-0.030,0.000,0.000,0.000
1644362140443949824,2022-02-08-23:15:40,10.1.1.8,36,-0.040,-0.040,-0.040,0.000,0.000,0.000
1644362140543901952,2022-02-08-23:15:40,10.1.1.8,35,-0.050,-0.050,-0.050,0.000,0.000,0.000
1644362140983973120,2022-02-08-23:15:40,10.1.1.8,39,-0.090,-0.090,-0.090,0.000,0.000,0.000
1644362141083937024,2022-02-08-23:15:41,10.1.1.8,38,-0.100,-0.100,-0.100,0.000,0.000,0.000
1644362141183835136,2022-02-08-23:15:41,10.1.1.8,37,-0.090,-0.090,-0.090,0.000,0.000,0.000
1644362141283812096,2022-02-08-23:15:41,10.1.1.8,35,-0.080,-0.080,-0.080,0.000,0.000,0.000
1644362141384500992,2022-02-08-23:15:41,10.1.1.8,35,-0.070,-0.070,-0.070,0.000,0.000,0.000
1644362141483654912,2022-02-08-23:15:41,10.1.1.8,35,-0.060,-0.060,-0.060,0.000,0.000,0.000
1644362142284164864,2022-02-08-23:15:42,10.1.1.8,29,0.020,0.020,0.020,0.000,0.000,0.000
1644362142385062912,2022-02-08-23:15:42,10.1.1.8,28,0.030,0.030,0.030,0.000,0.000,0.000
1644362142483696896,2022-02-08-23:15:42,10.1.1.8,27,0.040,0.040,0.040,0.000,0.000,0.000
1644362142583979008,2022-02-08-23:15:42,10.1.1.8,27,0.050,0.050,0.050,0.000,0.000,0.000
1644362142684814080,2022-02-08-23:15:42,10.1.1.8,26,0.060,0.060,0.060,0.000,0.000,0.000
1644362142783848960,2022-02-08-23:15:42,10.1.1.8,26,0.070,0.070,0.070,0.000,0.000,0.000
1644362142884566016,2022-02-08-23:15:42,10.1.1.8,25,0.080,0.080,0.080,0.000,0.000,0.000
1644362142984513024,2022-02-08-23:15:42,10.1.1.8,25,0.090,0.090,0.090,0.000,0.000,0.000
1644362143164882944,2022-02-08-23:15:43,10.1.1.8,4,0.090,0.090,0.090,0.000,0.000,0.000
1644362143804523008,2022-02-08-23:15:43,10.1.1.8,39,0.030,0.030,0.030,0.000,0.000,0.000
1644362143904925952,2022-02-08-23:15:43,10.1.1.8,37,0.020,0.020,0.020,0.000,0.000,0.000
1644362144005889024,2022-02-08-23:15:44,10.1.1.8,35,0.010,0.010,0.010,0.000,0.000,0.000
1644362144503820800,2022-02-08-23:15:44,10.1.1.8,27,-0.040,-0.040,-0.040,0.000,0.000,0.000
1644362144604154112,2022-02-08-23:15:44,10.1.1.8,26,-0.050,-0.050,-0.050,0.000,0.000,0.000
1644362144704769024,2022-02-08-23:15:44,10.1.1.8,26,-0.060,-0.060,-0.060,0.000,0.000,0.000
1644362144804488960,2022-02-08-23:15:44,10.1.1.8,25,-0.070,-0.070,-0.070,0.000,0.000,0.000
1644362145124944896,2022-02-08-23:15:45,10.1.1.8,38,-0.100,-0.100,-0.100,0.000,0.000,0.000
1644362145223803904,2022-02-08-23:15:45,10.1.1.8,36,-0.090,-0.090,-0.090,0.000,0.000,0.000
1644362145324517120,2022-02-08-23:15:45,10.1.1.8,35,-0.080,-0.080,-0.080,0.000,0.000,0.000
1644362145423762176,2022-02-08-23:15:45,10.1.1.8,34,-0.070,-0.070,-0.070,0.000,0.000,0.000
1644362146123752960,2022-02-08-23:15:46,10.1.1.8,29,0.000,0.000,0.000,0.000,0.000,0.000
1644362146223998976,2022-02-08-23:15:46,10.1.1.8,29,0.010,0.010,0.010,0.000,0.000,0.000
1644362146444789760,2022-02-08-23:15:46,10.1.1.8,37,0.030,0.030,0.030,0.000,0.000,0.000
1644362146544404992,2022-02-08-23:15:46,10.1.1.8,36,0.040,0.040,0.040,0.000,0.000,0.000
1644362146944104960,2022-02-08-23:15:46,10.1.1.8,29,0.080,0.080,0.080,0.000,0.000,0.000
1644362147043749120,2022-02-08-23:15:47,10.1.1.8,29,0.090,0.090,0.090,0.000,0.000,0.000
1644362147144169984,2022-02-08-23:15:47,10.1.1.8,28,0.100,0.100,0.100,0.000,0.000,0.000
1644362147464540928,2022-02-08-23:15:47,10.1.1.8,24,0.070,0.070,0.070,0.000,0.000,0.000
1644362147691302144,2022-02-08-23:15:47,10.1.1.8,38,0.050,0.050,0.050,0.000,0.000,0.000
1644362148011136000,2022-02-08-23:15:48,10.1.1.8,38,0.020,0.020,0.020,0.000,0.000,0.000
1644362148104669952,2022-02-08-23:15:48,10.1.1.8,37,0.010,0.010,0.010,0.000,0.000,0.000
1644362148204523008,2022-02-08-23:15:48,10.1.1.8,36,0.000,0.000,0.000,0.000,0.000,0.000
1644362148824329984,2022-02-08-23:15:48,10.1.1.8,35,-0.060,-0.060,-0.060,0.000,0.000,0.000
1644362149324312832,2022-02-08-23:15:49,10.1.1.8,30,-0.090,-0.090,-0.090,0.000,0.000,0.000
1644362149424173056,2022-02-08-23:15:49,10.1.1.8,29,-0.080,-0.080,-0.080,0.000,0.000,0.000
1644362149524431872,2022-02-08-23:15:49,10.1.1.8,28,-0.070,-0.070,-0.070,0.000,0.000,0.000
1644362149623974144,2022-02-08-23:15:49,10.1.1.8,25,-0.060,-0.060,-0.060,0.000,0.000,0.000
1644362149844073984,2022-02-08-23:15:49,10.1.1.8,35,-0.040,-0.040,-0.040,0.000,0.000,0.000
1644362150443856896,2022-02-08-23:15:50,10.1.1.8,29,0.020,0.020,0.020,0.000,0.000,0.000
1644362150544321024,2022-02-08-23:15:50,10.1.1.8,29,0.030,0.030,0.030,0.000,0.000,0.000
1644362150644169216,2022-02-08-23:15:50,10.1.1.8,27,0.040,0.040,0.040,0.000,0.000,0.000
1644362151264276992,2022-02-08-23:15:51,10.1.1.8,38,0.100,0.100,0.100,0.000,0.000,0.000
1644362151363734016,2022-02-08-23:15:51,10.1.1.8,36,0.090,0.090,0.090,0.000,0.000,0.000
1644362151464427008,2022-02-08-23:15:51,10.1.1.8,35,0.080,0.080,0.080,0.000,0.000,0.000
1644362151704175104,2022-02-08-23:15:51,10.1.1.8,39,0.060,0.060,0.060,0.000,0.000,0.000
1644362151803833856,2022-02-08-23:15:51,10.1.1.8,39,0.050,0.050,0.050,0.000,0.000,0.000
1644362151904248832,2022-02-08-23:15:51,10.1.1.8,38,0.040,0.040,0.040,0.000,0.000,0.000
1644362152004132864,2022-02-08-23:15:52,10.1.1.8,36,0.030,0.030,0.030,0.000,0.000,0.000
1644362152104182016,2022-02-08-23:15:52,10.1.1.8,35,0.020,0.020,0.020,0.000,0.000,0.000
1644362152204217856,2022-02-08-23:15:52,10.1.1.8,35,0.010,0.010,0.010,0.000,0.000,0.000
1644362152803757056,2022-02-08-23:15:52,10.1.1.8,29,-0.050,-0.050,-0.050,0.000,0.000,0.000
1644362152904342016,2022-02-08-23:15:52,10.1.1.8,29,-0.060,-0.060,-0.060,0.000,0.000,0.000
1644362153004584960,2022-02-08-23:15:53,10.1.1.8,28,-0.070,-0.070,-0.070,0.000,0.000,0.000
1644362153608196864,2022-02-08-23:15:53,10.1.1.8,10,-0.070,-0.070,-0.070,0.000,0.000,0.000
1644362153725882880,2022-02-08-23:15:53,10.1.1.8,30,-0.060,-0.060,-0.060,0.000,0.000,0.000
1644362153824297984,2022-02-08-23:15:53,10.1.1.8,24,-0.050,-0.050,-0.050,0.000,0.000,0.000
1644362154644164096,2022-02-08-23:15:54,10.1.1.8,39,0.030,0.030,0.030,0.000,0.000,0.000
1644362154743858176,2022-02-08-23:15:54,10.1.1.8,39,0.040,0.040,0.040,0.000,0.000,0.000
1644362154844286976,2022-02-08-23:15:54,10.1.1.8,38,0.050,0.050,0.050,0.000,0.000,0.000
1644362154944241920,2022-02-08-23:15:54,10.1.1.8,37,0.060,0.060,0.060,0.000,0.000,0.000
1644362155444119040,2022-02-08-23:15:55,10.1.1.8,30,0.090,0.090,0.090,0.000,0.000,0.000
1644362155544193024,2022-02-08-23:15:55,10.1.1.8,29,0.080,0.080,0.080,0.000,0.000,0.000
1644362155643848960,2022-02-08-23:15:55,10.1.1.8,29,0.070,0.070,0.070,0.000,0.000,0.000
1644362155744487168,2022-02-08-23:15:55,10.1.1.8,28,0.060,0.060,0.060,0.000,0.000,0.000
1644362155843982848,2022-02-08-23:15:55,10.1.1.8,27,0.050,0.050,0.050,0.000,0.000,0.000
1644362155945074944,2022-02-08-23:15:55,10.1.1.8,27,0.040,0.040,0.040,0.000,0.000,0.000
1644362156043945984,2022-02-08-23:15:56,10.1.1.8,26,0.030,0.030,0.030,0.000,0.000,0.000
1644362156144514048,2022-02-08-23:15:56,10.1.1.8,25,0.020,0.020,0.020,0.000,0.000,0.000
1644362156244625152,2022-02-08-23:15:56,10.1.1.8,24,0.010,0.010,0.010,0.000,0.000,0.000
1644362156864311808,2022-02-08-23:15:56,10.1.1.8,39,-0.050,-0.050,-0.050,0.000,0.000,0.000
1644362156964780032,2022-02-08-23:15:56,10.1.1.8,38,-0.060,-0.060,-0.060,0.000,0.000,0.000
1644362157064450048,2022-02-08-23:15:57,10.1.1.8,38,-0.070,-0.070,-0.070,0.000,0.000,0.000
1644362157284336128,2022-02-08-23:15:57,10.1.1.8,37,-0.090,-0.090,-0.090,0.000,0.000,0.000
1644362157385108992,2022-02-08-23:15:57,10.1.1.8,37,-0.100,-0.100,-0.100,0.000,0.000,0.000
1644362157484822016,2022-02-08-23:15:57,10.1.1.8,36,-0.090,-0.090,-0.090,0.000,0.000,0.000
1644362158484662016,2022-02-08-23:15:58,10.1.1.8,29,0.010,0.010,0.010,0.000,0.000,0.000
1644362158584472064,2022-02-08-23:15:58,10.1.1.8,28,0.020,0.020,0.020,0.000,0.000,0.000
1644362158684818944,2022-02-08-23:15:58,10.1.1.8,26,0.030,0.030,0.030,0.000,0.000,0.000
1644362158785921024,2022-02-08-23:15:58,10.1.1.8,25,0.040,0.040,0.040,0.000,0.000,0.000
1644362159604512000,2022-02-08-23:15:59,10.1.1.8,39,0.080,0.080,0.080,0.000,0.000,0.000
1644362159704164864,2022-02-08-23:15:59,10.1.1.8,39,0.070,0.070,0.070,0.000,0.000,0.000
1644362159804344064,2022-02-08-23:15:59,10.1.1.8,38,0.060,0.060,0.060,0.000,0.000,0.000
1644362159905004032,2022-02-08-23:15:59,10.1.1.8,38,0.050,0.050,0.050,0.000,0.000,0.000
1644362160004651008,2022-02-08-23:16:00,10.1.1.8,36,0.040,0.040,0.040,0.000,0.000,0.000
1644362160104784896,2022-02-08-23:16:00,10.1.1.8,35,0.030,0.030,0.030,0.000,0.000,0.000
1644362160803803904,2022-02-08-23:16:00,10.1.1.8,29,-0.040,-0.040,-0.040,0.000,0.000,0.000
1644362160905443072,2022-02-08-23:16:00,10.1.1.8,29,-0.050,-0.050,-0.050,0.000,0.000,0.000
1644362161003928064,2022-02-08-23:16:01,10.1.1.8,28,-0.060,-0.060,-0.060,0.000,0.000,0.000
1644362161224566016,2022-02-08-23:16:01,10.1.1.8,37,-0.080,-0.080,-0.080,0.000,0.000,0.000
1644362161324776960,2022-02-08-23:16:01,10.1.1.8,36,-0.090,-0.090,-0.090,0.000,0.000,0.000
1644362161424207872,2022-02-08-23:16:01,10.1.1.8,35,-0.100,-0.100,-0.100,0.000,0.000,0.000
1644362161525008896,2022-02-08-23:16:01,10.1.1.8,35,-0.090,-0.090,-0.090,0.000,0.000,0.000
1644362162225336064,2022-02-08-23:16:02,10.1.1.8,29,-0.020,-0.020,-0.020,0.000,0.000,0.000
1644362162325403904,2022-02-08-23:16:02,10.1.1.8,28,-0.010,-0.010,-0.010,0.000,0.000,0.000
1644362162424781056,2022-02-08-23:16:02,10.1.1.8,27,0.000,0.000,0.000,0.000,0.000,0.000
1644362162525067008,2022-02-08-23:16:02,10.1.1.8,26,0.010,0.010,0.010,0.000,0.000,0.000
1644362162625349888,2022-02-08-23:16:02,10.1.1.8,25,0.020,0.020,0.020,0.000,0.000,0.000
1644362163244185088,2022-02-08-23:16:03,10.1.1.8,38,0.080,0.080,0.080,0.000,0.000,0.000
1644362163344225024,2022-02-08-23:16:03,10.1.1.8,37,0.090,0.090,0.090,0.000,0.000,0.000
1644362163443949056,2022-02-08-23:16:03,10.1.1.8,36,0.100,0.100,0.100,0.000,0.000,0.000
1644362163544621824,2022-02-08-23:16:03,10.1.1.8,35,0.090,0.090,0.090,0.000,0.000,0.000
1644362163644519168,2022-02-08-23:16:03,10.1.1.8,35,0.080,0.080,0.080,0.000,0.000,0.000
1644362164345436928,2022-02-08-23:16:04,10.1.1.8,29,0.010,0.010,0.010,0.000,0.000,0.000
1644362164444321024,2022-02-08-23:16:04,10.1.1.8,29,0.000,0.000,0.000,0.000,0.000,0.000
1644362164544805120,2022-02-08-23:16:04,10.1.1.8,28,-0.010,-0.010,-0.010,0.000,0.000,0.000
1644362164644112128,2022-02-08-23:16:04,10.1.1.8,27,-0.020,-0.020,-0.020,0.000,0.000,0.000
1644362164744124928,2022-02-08-23:16:04,10.1.1.8,26,-0.030,-0.030,-0.030,0.000,0.000,0.000
1644362164844406016,2022-02-08-23:16:04,10.1.1.8,25,-0.040,-0.040,-0.040,0.000,0.000,0.000
1644362165463923968,2022-02-08-23:16:05,10.1.1.8,38,-0.100,-0.100,-0.100,0.000,0.000,0.000
1644362165564327936,2022-02-08-23:16:05,10.1.1.8,38,-0.090,-0.090,-0.090,0.000,0.000,0.000
1644362165663858944,2022-02-08-23:16:05,10.1.1.8,37,-0.080,-0.080,-0.080,0.000,0.000,0.000
1644362165763964928,2022-02-08-23:16:05,10.1.1.8,36,-0.070,-0.070,-0.070,0.000,0.000,0.000
1644362165863763200,2022-02-08-23:16:05,10.1.1.8,36,-0.060,-0.060,-0.060,0.000,0.000,0.000
1644362165964520960,2022-02-08-23:16:05,10.1.1.8,35,-0.050,-0.050,-0.050,0.000,0.000,0.000
1644362166064177920,2022-02-08-23:16:06,10.1.1.8,35,-0.040,-0.040,-0.040,0.000,0.000,0.000
1644362166663968000,2022-02-08-23:16:06,10.1.1.8,29,0.020,0.020,0.020,0.000,0.000,0.000
1644362166763900928,2022-02-08-23:16:06,10.1.1.8,29,0.030,0.030,0.030,0.000,0.000,0.000
1644362166864011008,2022-02-08-23:16:06,10.1.1.8,28,0.040,0.040,0.040,0.000,0.000,0.000
1644362166963887104,2022-02-08-23:16:06,10.1.1.8,27,0.050,0.050,0.050,0.000,0.000,0.000
1644362167064531968,2022-02-08-23:16:07,10.1.1.8,26,0.060,0.060,0.060,0.000,0.000,0.000
1644362167164001024,2022-02-08-23:16:07,10.1.1.8,25,0.070,0.070,0.070,0.000,0.000,0.000
1644362167264017152,2022-02-08-23:16:07,10.1.1.8,25,0.080,0.080,0.080,0.000,0.000,0.000
1644362167644707072,2022-02-08-23:16:07,10.1.1.8,2,0.080,0.080,0.080,0.000,0.000,0.000
1644362168183831808,2022-02-08-23:16:08,10.1.1.8,37,0.030,0.030,0.030,0.000,0.000,0.000
1644362168284161024,2022-02-08-23:16:08,10.1.1.8,36,0.020,0.020,0.020,0.000,0.000,0.000
1644362168383945984,2022-02-08-23:16:08,10.1.1.8,36,0.010,0.010,0.010,0.000,0.000,0.000
1644362168483761152,2022-02-08-23:16:08,10.1.1.8,35,0.000,0.000,0.000,0.000,0.000,0.000
1644362168584043008,2022-02-08-23:16:08,10.1.1.8,34,-0.010,-0.010,-0.010,0.000,0.000,0.000
1644362169284450048,2022-02-08-23:16:09,10.1.1.8,29,-0.080,-0.080,-0.080,0.000,0.000,0.000
1644362169384856064,2022-02-08-23:16:09,10.1.1.8,29,-0.090,-0.090,-0.090,0.000,0.000,0.000
1644362169484210944,2022-02-08-23:16:09,10.1.1.8,28,-0.100,-0.100,-0.100,0.000,0.000,0.000
1644362169585117184,2022-02-08-23:16:09,10.1.1.8,27,-0.090,-0.090,-0.090,0.000,0.000,0.000
1644362169684016896,2022-02-08-23:16:09,10.1.1.8,25,-0.080,-0.080,-0.080,0.000,0.000,0.000
1644362169784278016,2022-02-08-23:16:09,10.1.1.8,25,-0.070,-0.070,-0.070,0.000,0.000,0.000
1644362170604146944,2022-02-08-23:16:10,10.1.1.8,39,0.010,0.010,0.010,0.000,0.000,0.000
1644362170704289024,2022-02-08-23:16:10,10.1.1.8,39,0.020,0.020,0.020,0.000,0.000,0.000
1644362170803813888,2022-02-08-23:16:10,10.1.1.8,38,0.030,0.030,0.030,0.000,0.000,0.000
1644362170904741120,2022-02-08-23:16:10,10.1.1.8,38,0.040,0.040,0.040,0.000,0.000,0.000
1644362171004183040,2022-02-08-23:16:11,10.1.1.8,37,0.050,0.050,0.050,0.000,0.000,0.000
1644362171104398080,2022-02-08-23:16:11,10.1.1.8,36,0.060,0.060,0.060,0.000,0.000,0.000
1644362171204348928,2022-02-08-23:16:11,10.1.1.8,35,0.070,0.070,0.070,0.000,0.000,0.000
1644362171304133888,2022-02-08-23:16:11,10.1.1.8,35,0.080,0.080,0.080,0.000,0.000,0.000
1644362171684421120,2022-02-08-23:16:11,10.1.1.8,11,0.080,0.080,0.080,0.000,0.000,0.000
1644362172103916032,2022-02-08-23:16:12,10.1.1.8,29,0.040,0.040,0.040,0.000,0.000,0.000
1644362172204070144,2022-02-08-23:16:12,10.1.1.8,29,0.030,0.030,0.030,0.000,0.000,0.000
1644362172304526080,2022-02-08-23:16:12,10.1.1.8,27,0.020,0.020,0.020,0.000,0.000,0.000
1644362172403938048,2022-02-08-23:16:12,10.1.1.8,27,0.010,0.010,0.010,0.000,0.000,0.000
1644362172504020992,2022-02-08-23:16:12,10.1.1.8,26,0.000,0.000,0.000,0.000,0.000,0.000
1644362172603931904,2022-02-08-23:16:12,10.1.1.8,26,-0.010,-0.010,-0.010,0.000,0.000,0.000
1644362172704397824,2022-02-08-23:16:12,10.1.1.8,25,-0.020,-0.020,-0.020,0.000,0.000,0.000
1644362173524924160,2022-02-08-23:16:13,10.1.1.8,39,-0.100,-0.100,-0.100,0.000,0.000,0.000
1644362173624077056,2022-02-08-23:16:13,10.1.1.8,38,-0.090,-0.090,-0.090,0.000,0.000,0.000
1644362173724839936,2022-02-08-23:16:13,10.1.1.8,37,-0.080,-0.080,-0.080,0.000,0.000,0.000
1644362173824232960,2022-02-08-23:16:13,10.1.1.8,36,-0.070,-0.070,-0.070,0.000,0.000,0.000
1644362173924438016,2022-02-08-23:16:13,10.1.1.8,35,-0.060,-0.060,-0.060,0.000,0.000,0.000
1644362174024361984,2022-02-08-23:16:14,10.1.1.8,34,-0.050,-0.050,-0.050,0.000,0.000,0.000
1644362174824239872,2022-02-08-23:16:14,10.1.1.8,29,0.030,0.030,0.030,0.000,0.000,0.000
1644362174924786944,2022-02-08-23:16:14,10.1.1.8,29,0.040,0.040,0.040,0.000,0.000,0.000
1644362175025150976,2022-02-08-23:16:15,10.1.1.8,28,0.050,0.050,0.050,0.000,0.000,0.000
1644362175124161024,2022-02-08-23:16:15,10.1.1.8,28,0.060,0.060,0.060,0.000,0.000,0.000
1644362175224140800,2022-02-08-23:16:15,10.1.1.8,27,0.070,0.070,0.070,0.000,0.000,0.000
1644362175324744960,2022-02-08-23:16:15,10.1.1.8,26,0.080,0.080,0.080,0.000,0.000,0.000
1644362175424124928,2022-02-08-23:16:15,10.1.1.8,26,0.090,0.090,0.090,0.000,0.000,0.000
1644362175604516096,2022-02-08-23:16:15,10.1.1.8,5,0.090,0.090,0.090,0.000,0.000,0.000
1644362176345009152,2022-02-08-23:16:16,10.1.1.8,39,0.020,0.020,0.020,0.000,0.000,0.000
1644362176444328192,2022-02-08-23:16:16,10.1.1.8,38,0.010,0.010,0.010,0.000,0.000,0.000
1644362176545361920,2022-02-08-23:16:16,10.1.1.8,36,0.000,0.000,0.000,0.000,0.000,0.000
1644362176643826944,2022-02-08-23:16:16,10.1.1.8,35,-0.010,-0.010,-0.010,0.000,0.000,0.000
1644362177545382144,2022-02-08-23:16:17,10.1.1.8,29,-0.100,-0.100,-0.100,0.000,0.000,0.000
1644362177644596992,2022-02-08-23:16:17,10.1.1.8,27,-0.090,-0.090,-0.090,0.000,0.000,0.000
1644362177744879872,2022-02-08-23:16:17,10.1.1.8,26,-0.080,-0.080,-0.080,0.000,0.000,0.000
1644362177844696064,2022-02-08-23:16:17,10.1.1.8,25,-0.070,-0.070,-0.070,0.000,0.000,0.000
1644362177947655936,2022-02-08-23:16:17,10.1.1.8,25,-0.060,-0.060,-0.060,0.000,0.000,0.000
1644362178044451072,2022-02-08-23:16:18,10.1.1.8,25,-0.050,-0.050,-0.050,0.000,0.000,0.000
1644362178544809216,2022-02-08-23:16:18,10.1.1.8,20,0.000,0.000,0.000,0.000,0.000,0.000
1644362178664380928,2022-02-08-23:16:18,10.1.1.8,39,0.010,0.010,0.010,0.000,0.000,0.000
1644362178764816128,2022-02-08-23:16:18,10.1.1.8,39,0.020,0.020,0.020,0.000,0.000,0.000
1644362178863588096,2022-02-08-23:16:18,10.1.1.8,38,0.030,0.030,0.030,0.000,0.000,0.000
1644362178964025856,2022-02-08-23:16:18,10.1.1.8,37,0.040,0.040,0.040,0.000,0.000,0.000
1644362179064187904,2022-02-08-23:16:19,10.1.1.8,35,0.050,0.050,0.050,0.000,0.000,0.000
1644362179163971840,2022-02-08-23:16:19,10.1.1.8,35,0.060,0.060,0.060,0.000,0.000,0.000
1644362179764087808,2022-02-08-23:16:19,10.1.1.8,30,0.080,0.080,0.080,0.000,0.000,0.000
1644362179864610048,2022-02-08-23:16:19,10.1.1.8,29,0.070,0.070,0.070,0.000,0.000,0.000
1644362179964749056,2022-02-08-23:16:19,10.1.1.8,27,0.060,0.060,0.060,0.000,0.000,0.000
1644362180064663040,2022-02-08-23:16:20,10.1.1.8,26,0.050,0.050,0.050,0.000,0.000,0.000
1644362180165231872,2022-02-08-23:16:20,10.1.1.8,26,0.040,0.040,0.040,0.000,0.000,0.000
1644362180264091904,2022-02-08-23:16:20,10.1.1.8,25,0.030,0.030,0.030,0.000,0.000,0.000
1644362180364361984,2022-02-08-23:16:20,10.1.1.8,25,0.020,0.020,0.020,0.000,0.000,0.000
1644362181083730944,2022-02-08-23:16:21,10.1.1.8,39,-0.050,-0.050,-0.050,0.000,0.000,0.000
1644362181184108032,2022-02-08-23:16:21,10.1.1.8,37,-0.060,-0.060,-0.060,0.000,0.000,0.000
1644362181284585984,2022-02-08-23:16:21,10.1.1.8,36,-0.070,-0.070,-0.070,0.000,0.000,0.000
1644362181684155904,2022-02-08-23:16:21,10.1.1.8,29,-0.090,-0.090,-0.090,0.000,0.000,0.000
1644362181783976960,2022-02-08-23:16:21,10.1.1.8,28,-0.080,-0.080,-0.080,0.000,0.000,0.000
1644362181884368896,2022-02-08-23:16:21,10.1.1.8,28,-0.070,-0.070,-0.070,0.000,0.000,0.000
1644362181984112896,2022-02-08-23:16:21,10.1.1.8,27,-0.060,-0.060,-0.060,0.000,0.000,0.000
1644362182084750848,2022-02-08-23:16:22,10.1.1.8,27,-0.050,-0.050,-0.050,0.000,0.000,0.000
1644362182184557824,2022-02-08-23:16:22,10.1.1.8,26,-0.040,-0.040,-0.040,0.000,0.000,0.000
1644362182284176128,2022-02-08-23:16:22,10.1.1.8,25,-0.030,-0.030,-0.030,0.000,0.000,0.000
1644362182384579840,2022-02-08-23:16:22,10.1.1.8,25,-0.020,-0.020,-0.020,0.000,0.000,0.000
1644362183204224000,2022-02-08-23:16:23,10.1.1.8,38,0.060,0.060,0.060,0.000,0.000,0.000
1644362183304577024,2022-02-08-23:16:23,10.1.1.8,37,0.070,0.070,0.070,0.000,0.000,0.000
1644362183404726016,2022-02-08-23:16:23,10.1.1.8,37,0.080,0.080,0.080,0.000,0.000,0.000
1644362183525363968,2022-02-08-23:16:23,10.1.1.8,36,0.090,0.090,0.090,0.000,0.000,0.000
1644362183603823872,2022-02-08-23:16:23,10.1.1.8,36,0.100,0.100,0.100,0.000,0.000,0.000
1644362183704730112,2022-02-08-23:16:23,10.1.1.8,36,0.090,0.090,0.090,0.000,0.000,0.000
1644362183803913984,2022-02-08-23:16:23,10.1.1.8,35,0.080,0.080,0.080,0.000,0.000,0.000
1644362184503987200,2022-02-08-23:16:24,10.1.1.8,29,0.010,0.010,0.010,0.000,0.000,0.000
1644362184604100096,2022-02-08-23:16:24,10.1.1.8,29,0.000,0.000,0.000,0.000,0.000,0.000
1644362184703866880,2022-02-08-23:16:24,10.1.1.8,26,-0.010,-0.010,-0.010,0.000,0.000,0.000
1644362184804380928,2022-02-08-23:16:24,10.1.1.8,26,-0.020,-0.020,-0.020,0.000,0.000,0.000
1644362184904711936,2022-02-08-23:16:24,10.1.1.8,25,-0.030,-0.030,-0.030,0.000,0.000,0.000
1644362185003956992,2022-02-08-23:16:25,10.1.1.8,24,-0.040,-0.040,-0.040,0.000,0.000,0.000
1644362185723952896,2022-02-08-23:16:25,10.1.1.8,40,-0.090,-0.090,-0.090,0.000,0.000,0.000
1644362185824527872,2022-02-08-23:16:25,10.1.1.8,39,-0.080,-0.080,-0.080,0.000,0.000,0.000
1644362185924930048,2022-02-08-23:16:25,10.1.1.8,38,-0.070,-0.070,-0.070,0.000,0.000,0.000
1644362186024547072,2022-02-08-23:16:26,10.1.1.8,37,-0.060,-0.060,-0.060,0.000,0.000,0.000
1644362186124385024,2022-02-08-23:16:26,10.1.1.8,36,-0.050,-0.050,-0.050,0.000,0.000,0.000
1644362186224198144,2022-02-08-23:16:26,10.1.1.8,35,-0.040,-0.040,-0.040,0.000,0.000,0.000
1644362186624027904,2022-02-08-23:16:26,10.1.1.8,29,0.000,0.000,0.000,0.000,0.000,0.000
1644362186944211968,2022-02-08-23:16:26,10.1.1.8,29,0.030,0.030,0.030,0.000,0.000,0.000
1644362187044006144,2022-02-08-23:16:27,10.1.1.8,29,0.040,0.040,0.040,0.000,0.000,0.000
1644362187144666880,2022-02-08-23:16:27,10.1.1.8,27,0.050,0.050,0.050,0.000,0.000,0.000
1644362187243984896,2022-02-08-23:16:27,10.1.1.8,27,0.060,0.060,0.060,0.000,0.000,0.000
1644362187344333056,2022-02-08-23:16:27,10.1.1.8,26,0.070,0.070,0.070,0.000,0.000,0.000
1644362187444411136,2022-02-08-23:16:27,10.1.1.8,26,0.080,0.080,0.080,0.000,0.000,0.000
1644362187545193984,2022-02-08-23:16:27,10.1.1.8,25,0.090,0.090,0.090,0.000,0.000,0.000
1644362187724797952,2022-02-08-23:16:27,10.1.1.8,4,0.090,0.090,0.090,0.000,0.000,0.000
1644362188244050944,2022-02-08-23:16:28,10.1.1.8,20,0.040,0.040,0.040,0.000,0.000,0.000
1644362188364263168,2022-02-08-23:16:28,10.1.1.8,39,0.030,0.030,0.030,0.000,0.000,0.000
1644362188464284928,2022-02-08-23:16:28,10.1.1.8,39,0.020,0.020,0.020,0.000,0.000,0.000
1644362188564364032,2022-02-08-23:16:28,10.1.1.8,37,0.010,0.010,0.010,0.000,0.000,0.000
1644362188663770880,2022-02-08-23:16:28,10.1.1.8,36,0.000,0.000,0.000,0.000,0.000,0.000
1644362188764508928,2022-02-08-23:16:28,10.1.1.8,35,-0.010,-0.010,-0.010,0.000,0.000,0.000
1644362188864788992,2022-02-08-23:16:28,10.1.1.8,35,-0.020,-0.020,-0.020,0.000,0.000,0.000
1644362189463639040,2022-02-08-23:16:29,10.1.1.8,30,-0.080,-0.080,-0.080,0.000,0.000,0.000
1644362189564804096,2022-02-08-23:16:29,10.1.1.8,29,-0.090,-0.090,-0.090,0.000,0.000,0.000
1644362189663904000,2022-02-08-23:16:29,10.1.1.8,29,-0.100,-0.100,-0.100,0.000,0.000,0.000
1644362189763987968,2022-02-08-23:16:29,10.1.1.8,28,-0.090,-0.090,-0.090,0.000,0.000,0.000
1644362189864051200,2022-02-08-23:16:29,10.1.1.8,27,-0.080,-0.080,-0.080,0.000,0.000,0.000
1644362189964457984,2022-02-08-23:16:29,10.1.1.8,26,-0.070,-0.070,-0.070,0.000,0.000,0.000
1644362190064387072,2022-02-08-23:16:30,10.1.1.8,25,-0.060,-0.060,-0.060,0.000,0.000,0.000
1644362190884496896,2022-02-08-23:16:30,10.1.1.8,39,0.020,0.020,0.020,0.000,0.000,0.000
1644362190983686912,2022-02-08-23:16:30,10.1.1.8,39,0.030,0.030,0.030,0.000,0.000,0.000
1644362191084408064,2022-02-08-23:16:31,10.1.1.8,38,0.040,0.040,0.040,0.000,0.000,0.000
1644362191183942144,2022-02-08-23:16:31,10.1.1.8,37,0.050,0.050,0.050,0.000,0.000,0.000
1644362191284163840,2022-02-08-23:16:31,10.1.1.8,36,0.060,0.060,0.060,0.000,0.000,0.000
1644362191383837952,2022-02-08-23:16:31,10.1.1.8,35,0.070,0.070,0.070,0.000,0.000,0.000
1644362191484046848,2022-02-08-23:16:31,10.1.1.8,35,0.080,0.080,0.080,0.000,0.000,0.000
1644362191584020992,2022-02-08-23:16:31,10.1.1.8,34,0.090,0.090,0.090,0.000,0.000,0.000
1644362191764844032,2022-02-08-23:16:31,10.1.1.8,7,0.090,0.090,0.090,0.000,0.000,0.000
1644362192304160000,2022-02-08-23:16:32,10.1.1.8,39,0.040,0.040,0.040,0.000,0.000,0.000
1644362192404148224,2022-02-08-23:16:32,10.1.1.8,38,0.030,0.030,0.030,0.000,0.000,0.000
1644362192504218112,2022-02-08-23:16:32,10.1.1.8,38,0.020,0.020,0.020,0.000,0.000,0.000
1644362192604983040,2022-02-08-23:16:32,10.1.1.8,37,0.010,0.010,0.010,0.000,0.000,0.000
1644362192703970816,2022-02-08-23:16:32,10.1.1.8,36,0.000,0.000,0.000,0.000,0.000,0.000
1644362192804486912,2022-02-08-23:16:32,10.1.1.8,36,-0.010,-0.010,-0.010,0.000,0.000,0.000
1644362192904797952,2022-02-08-23:16:32,10.1.1.8,35,-0.020,-0.020,-0.020,0.000,0.000,0.000
1644362193004591104,2022-02-08-23:16:33,10.1.1.8,35,-0.030,-0.030,-0.030,0.000,0.000,0.000
1644362193105281024,2022-02-08-23:16:33,10.1.1.8,35,-0.040,-0.040,-0.040,0.000,0.000,0.000
1644362193805538816,2022-02-08-23:16:33,10.1.1.8,29,-0.090,-0.090,-0.090,0.000,0.000,0.000
1644362193906714880,2022-02-08-23:16:33,10.1.1.8,27,-0.080,-0.080,-0.080,0.000,0.000,0.000
1644362194004556032,2022-02-08-23:16:34,10.1.1.8,27,-0.070,-0.070,-0.070,0.000,0.000,0.000
1644362194104747008,2022-02-08-23:16:34,10.1.1.8,26,-0.060,-0.060,-0.060,0.000,0.000,0.000
1644362194204540928,2022-02-08-23:16:34,10.1.1.8,25,-0.050,-0.050,-0.050,0.000,0.000,0.000
1644362194304429056,2022-02-08-23:16:34,10.1.1.8,24,-0.040,-0.040,-0.040,0.000,0.000,0.000
1644362194824595968,2022-02-08-23:16:34,10.1.1.8,37,0.010,0.010,0.010,0.000,0.000,0.000
1644362194925137920,2022-02-08-23:16:34,10.1.1.8,35,0.020,0.020,0.020,0.000,0.000,0.000
1644362195024050944,2022-02-08-23:16:35,10.1.1.8,34,0.030,0.030,0.030,0.000,0.000,0.000
1644362195624728064,2022-02-08-23:16:35,10.1.1.8,29,0.090,0.090,0.090,0.000,0.000,0.000
1644362195724049920,2022-02-08-23:16:35,10.1.1.8,28,0.100,0.100,0.100,0.000,0.000,0.000
1644362195824157952,2022-02-08-23:16:35,10.1.1.8,28,0.090,0.090,0.090,0.000,0.000,0.000
1644362195924837120,2022-02-08-23:16:35,10.1.1.8,27,0.080,0.080,0.080,0.000,0.000,0.000
1644362196124072960,2022-02-08-23:16:36,10.1.1.8,26,0.060,0.060,0.060,0.000,0.000,0.000
1644362196224915968,2022-02-08-23:16:36,10.1.1.8,25,0.050,0.050,0.050,0.000,0.000,0.000
1644362196324503808,2022-02-08-23:16:36,10.1.1.8,25,0.040,0.040,0.040,0.000,0.000,0.000
1644362196425254144,2022-02-08-23:16:36,10.1.1.8,24,0.030,0.030,0.030,0.000,0.000,0.000
1644362197224150784,2022-02-08-23:16:37,10.1.1.8,19,-0.050,-0.050,-0.050,0.000,0.000,0.000
1644362197344141056,2022-02-08-23:16:37,10.1.1.8,39,-0.060,-0.060,-0.060,0.000,0.000,0.000
1644362197444367872,2022-02-08-23:16:37,10.1.1.8,38,-0.070,-0.070,-0.070,0.000,0.000,0.000
1644362197544730880,2022-02-08-23:16:37,10.1.1.8,37,-0.080,-0.080,-0.080,0.000,0.000,0.000
1644362197643812864,2022-02-08-23:16:37,10.1.1.8,36,-0.090,-0.090,-0.090,0.000,0.000,0.000
1644362197744944128,2022-02-08-23:16:37,10.1.1.8,36,-0.100,-0.100,-0.100,0.000,0.000,0.000
1644362197844468224,2022-02-08-23:16:37,10.1.1.8,35,-0.090,-0.090,-0.090,0.000,0.000,0.000
1644362197944744960,2022-02-08-23:16:37,10.1.1.8,35,-0.080,-0.080,-0.080,0.000,0.000,0.000
1644362198644323072,2022-02-08-23:16:38,10.1.1.8,29,-0.010,-0.010,-0.010,0.000,0.000,0.000
1644362198744015104,2022-02-08-23:16:38,10.1.1.8,29,0.000,0.000,0.000,0.000,0.000,0.000
1644362198844131840,2022-02-08-23:16:38,10.1.1.8,28,0.010,0.010,0.010,0.000,0.000,0.000
1644362198944775936,2022-02-08-23:16:38,10.1.1.8,28,0.020,0.020,0.020,0.000,0.000,0.000
1644362199043740928,2022-02-08-23:16:39,10.1.1.8,27,0.030,0.030,0.030,0.000,0.000,0.000
1644362199144172032,2022-02-08-23:16:39,10.1.1.8,26,0.040,0.040,0.040,0.000,0.000,0.000
1644362199245827072,2022-02-08-23:16:39,10.1.1.8,27,0.050,0.050,0.050,0.000,0.000,0.000
1644362199344497920,2022-02-08-23:16:39,10.1.1.8,25,0.060,0.060,0.060,0.000,0.000,0.000
1644362199864281856,2022-02-08-23:16:39,10.1.1.8,39,0.090,0.090,0.090,0.000,0.000,0.000
1644362199964132096,2022-02-08-23:16:39,10.1.1.8,38,0.080,0.080,0.080,0.000,0.000,0.000
1644362200064059136,2022-02-08-23:16:40,10.1.1.8,37,0.070,0.070,0.070,0.000,0.000,0.000
1644362200164345088,2022-02-08-23:16:40,10.1.1.8,35,0.060,0.060,0.060,0.000,0.000,0.000
1644362200663778048,2022-02-08-23:16:40,10.1.1.8,29,0.010,0.010,0.010,0.000,0.000,0.000
1644362200764596992,2022-02-08-23:16:40,10.1.1.8,29,0.000,0.000,0.000,0.000,0.000,0.000
1644362200864327936,2022-02-08-23:16:40,10.1.1.8,29,-0.010,-0.010,-0.010,0.000,0.000,0.000
1644362200966653184,2022-02-08-23:16:40,10.1.1.8,28,-0.020,-0.020,-0.020,0.000,0.000,0.000
1644362201065325056,2022-02-08-23:16:41,10.1.1.8,27,-0.030,-0.030,-0.030,0.000,0.000,0.000
1644362201164414976,2022-02-08-23:16:41,10.1.1.8,26,-0.040,-0.040,-0.040,0.000,0.000,0.000
1644362201264034048,2022-02-08-23:16:41,10.1.1.8,25,-0.050,-0.050,-0.050,0.000,0.000,0.000
1644362201363988992,2022-02-08-23:16:41,10.1.1.8,25,-0.060,-0.060,-0.060,0.000,0.000,0.000
1644362201884421120,2022-02-08-23:16:41,10.1.1.8,39,-0.090,-0.090,-0.090,0.000,0.000,0.000
1644362202284264960,2022-02-08-23:16:42,10.1.1.8,29,-0.050,-0.050,-0.050,0.000,0.000,0.000
1644362202387389952,2022-02-08-23:16:42,10.1.1.8,28,-0.040,-0.040,-0.040,0.000,0.000,0.000
1644362202484755968,2022-02-08-23:16:42,10.1.1.8,27,-0.030,-0.030,-0.030,0.000,0.000,0.000
1644362202584659968,2022-02-08-23:16:42,10.1.1.8,26,-0.020,-0.020,-0.020,0.000,0.000,0.000
1644362202684595200,2022-02-08-23:16:42,10.1.1.8,25,-0.010,-0.010,-0.010,0.000,0.000,0.000
1644362203704033024,2022-02-08-23:16:43,10.1.1.8,39,0.090,0.090,0.090,0.000,0.000,0.000
1644362203803913216,2022-02-08-23:16:43,10.1.1.8,38,0.100,0.100,0.100,0.000,0.000,0.000
1644362203904556032,2022-02-08-23:16:43,10.1.1.8,35,0.090,0.090,0.090,0.000,0.000,0.000
1644362204803983872,2022-02-08-23:16:44,10.1.1.8,29,0.000,0.000,0.000,0.000,0.000,0.000
1644362204904425984,2022-02-08-23:16:44,10.1.1.8,29,-0.010,-0.010,-0.010,0.000,0.000,0.000
1644362205004718080,2022-02-08-23:16:45,10.1.1.8,28,-0.020,-0.020,-0.020,0.000,0.000,0.000
1644362205104197120,2022-02-08-23:16:45,10.1.1.8,27,-0.030,-0.030,-0.030,0.000,0.000,0.000
1644362205204473088,2022-02-08-23:16:45,10.1.1.8,27,-0.040,-0.040,-0.040,0.000,0.000,0.000
1644362205304733952,2022-02-08-23:16:45,10.1.1.8,26,-0.050,-0.050,-0.050,0.000,0.000,0.000
1644362205404273152,2022-02-08-23:16:45,10.1.1.8,26,-0.060,-0.060,-0.060,0.000,0.000,0.000
1644362205505619968,2022-02-08-23:16:45,10.1.1.8,25,-0.070,-0.070,-0.070,0.000,0.000,0.000
1644362205605020160,2022-02-08-23:16:45,10.1.1.8,24,-0.080,-0.080,-0.080,0.000,0.000,0.000
1644362205984313856,2022-02-08-23:16:45,10.1.1.8,3,-0.080,-0.080,-0.080,0.000,0.000,0.000
1644362206403752192,2022-02-08-23:16:46,10.1.1.8,19,-0.040,-0.040,-0.040,0.000,0.000,0.000
1644362206525410048,2022-02-08-23:16:46,10.1.1.8,38,-0.030,-0.030,-0.030,0.000,0.000,0.000
1644362206624419840,2022-02-08-23:16:46,10.1.1.8,35,-0.020,-0.020,-0.020,0.000,0.000,0.000
1644362207323975168,2022-02-08-23:16:47,10.1.1.8,29,0.050,0.050,0.050,0.000,0.000,0.000
1644362207423884032,2022-02-08-23:16:47,10.1.1.8,28,0.060,0.060,0.060,0.000,0.000,0.000
1644362207524438016,2022-02-08-23:16:47,10.1.1.8,27,0.070,0.070,0.070,0.000,0.000,0.000
1644362207623801088,2022-02-08-23:16:47,10.1.1.8,26,0.080,0.080,0.080,0.000,0.000,0.000
1644362207724047872,2022-02-08-23:16:47,10.1.1.8,24,0.090,0.090,0.090,0.000,0.000,0.000
1644362207904547072,2022-02-08-23:16:47,10.1.1.8,2,0.090,0.090,0.090,0.000,0.000,0.000
1644362208243992064,2022-02-08-23:16:48,10.1.1.8,36,0.060,0.060,0.060,0.000,0.000,0.000
1644362208345161984,2022-02-08-23:16:48,10.1.1.8,35,0.050,0.050,0.050,0.000,0.000,0.000
1644362208947778816,2022-02-08-23:16:48,10.1.1.8,27,-0.010,-0.010,-0.010,0.000,0.000,0.000
1644362209044280064,2022-02-08-23:16:49,10.1.1.8,25,-0.020,-0.020,-0.020,0.000,0.000,0.000
1644362209144423936,2022-02-08-23:16:49,10.1.1.8,25,-0.030,-0.030,-0.030,0.000,0.000,0.000
1644362209844830976,2022-02-08-23:16:49,10.1.1.8,20,-0.100,-0.100,-0.100,0.000,0.000,0.000
1644362209964300032,2022-02-08-23:16:49,10.1.1.8,39,-0.090,-0.090,-0.090,0.000,0.000,0.000
1644362210064455936,2022-02-08-23:16:50,10.1.1.8,38,-0.080,-0.080,-0.080,0.000,0.000,0.000
1644362210164619008,2022-02-08-23:16:50,10.1.1.8,37,-0.070,-0.070,-0.070,0.000,0.000,0.000
1644362210264902144,2022-02-08-23:16:50,10.1.1.8,36,-0.060,-0.060,-0.060,0.000,0.000,0.000
1644362210364161024,2022-02-08-23:16:50,10.1.1.8,35,-0.050,-0.050,-0.050,0.000,0.000,0.000
1644362210463886080,2022-02-08-23:16:50,10.1.1.8,35,-0.040,-0.040,-0.040,0.000,0.000,0.000
1644362211263644928,2022-02-08-23:16:51,10.1.1.8,29,0.040,0.040,0.040,0.000,0.000,0.000
1644362211363910912,2022-02-08-23:16:51,10.1.1.8,28,0.050,0.050,0.050,0.000,0.000,0.000
1644362211464456960,2022-02-08-23:16:51,10.1.1.8,27,0.060,0.060,0.060,0.000,0.000,0.000
1644362211563885056,2022-02-08-23:16:51,10.1.1.8,26,0.070,0.070,0.070,0.000,0.000,0.000
1644362211664753920,2022-02-08-23:16:51,10.1.1.8,25,0.080,0.080,0.080,0.000,0.000,0.000
1644362211764027136,2022-02-08-23:16:51,10.1.1.8,25,0.090,0.090,0.090,0.000,0.000,0.000
1644362211944623104,2022-02-08-23:16:51,10.1.1.8,2,0.090,0.090,0.090,0.000,0.000,0.000
1644362212264420864,2022-02-08-23:16:52,10.1.1.8,20,0.060,0.060,0.060,0.000,0.000,0.000
1644362212384137984,2022-02-08-23:16:52,10.1.1.8,38,0.050,0.050,0.050,0.000,0.000,0.000
1644362212483983872,2022-02-08-23:16:52,10.1.1.8,37,0.040,0.040,0.040,0.000,0.000,0.000
1644362212584047104,2022-02-08-23:16:52,10.1.1.8,36,0.030,0.030,0.030,0.000,0.000,0.000
1644362212684195072,2022-02-08-23:16:52,10.1.1.8,36,0.020,0.020,0.020,0.000,0.000,0.000
1644362212984086016,2022-02-08-23:16:52,10.1.1.8,29,-0.010,-0.010,-0.010,0.000,0.000,0.000
1644362213083760128,2022-02-08-23:16:53,10.1.1.8,27,-0.020,-0.020,-0.020,0.000,0.000,0.000
1644362213183880192,2022-02-08-23:16:53,10.1.1.8,26,-0.030,-0.030,-0.030,0.000,0.000,0.000
1644362213284147968,2022-02-08-23:16:53,10.1.1.8,25,-0.040,-0.040,-0.040,0.000,0.000,0.000
1644362213384147968,2022-02-08-23:16:53,10.1.1.8,25,-0.050,-0.050,-0.050,0.000,0.000,0.000
1644362213704058880,2022-02-08-23:16:53,10.1.1.8,37,-0.080,-0.080,-0.080,0.000,0.000,0.000
1644362213804193024,2022-02-08-23:16:53,10.1.1.8,37,-0.090,-0.090,-0.090,0.000,0.000,0.000
1644362213903862016,2022-02-08-23:16:53,10.1.1.8,36,-0.100,-0.100,-0.100,0.000,0.000,0.000
1644362214004446976,2022-02-08-23:16:54,10.1.1.8,36,-0.090,-0.090,-0.090,0.000,0.000,0.000
1644362214104523776,2022-02-08-23:16:54,10.1.1.8,35,-0.080,-0.080,-0.080,0.000,0.000,0.000
1644362214803805184,2022-02-08-23:16:54,10.1.1.8,28,-0.010,-0.010,-0.010,0.000,0.000,0.000
1644362214904332032,2022-02-08-23:16:54,10.1.1.8,26,0.000,0.000,0.000,0.000,0.000,0.000
1644362215004280064,2022-02-08-23:16:55,10.1.1.8,26,0.010,0.010,0.010,0.000,0.000,0.000
1644362215104239872,2022-02-08-23:16:55,10.1.1.8,25,0.020,0.020,0.020,0.000,0.000,0.000
1644362215624429824,2022-02-08-23:16:55,10.1.1.8,39,0.070,0.070,0.070,0.000,0.000,0.000
1644362215724584192,2022-02-08-23:16:55,10.1.1.8,37,0.080,0.080,0.080,0.000,0.000,0.000
1644362215824259072,2022-02-08-23:16:55,10.1.1.8,37,0.090,0.090,0.090,0.000,0.000,0.000
1644362215924081152,2022-02-08-23:16:55,10.1.1.8,34,0.100,0.100,0.100,0.000,0.000,0.000
1644362216824883968,2022-02-08-23:16:56,10.1.1.8,30,0.010,0.010,0.010,0.000,0.000,0.000
1644362216923892992,2022-02-08-23:16:56,10.1.1.8,29,0.000,0.000,0.000,0.000,0.000,0.000
1644362217025307904,2022-02-08-23:16:57,10.1.1.8,28,-0.010,-0.010,-0.010,0.000,0.000,0.000
1644362217125067008,2022-02-08-23:16:57,10.1.1.8,27,-0.020,-0.020,-0.020,0.000,0.000,0.000
1644362217224144896,2022-02-08-23:16:57,10.1.1.8,26,-0.030,-0.030,-0.030,0.000,0.000,0.000
1644362217324471040,2022-02-08-23:16:57,10.1.1.8,25,-0.040,-0.040,-0.040,0.000,0.000,0.000
1644362217624770048,2022-02-08-23:16:57,10.1.1.8,22,-0.070,-0.070,-0.070,0.000,0.000,0.000
1644362218143954944,2022-02-08-23:16:58,10.1.1.8,38,-0.080,-0.080,-0.080,0.000,0.000,0.000
1644362218244368128,2022-02-08-23:16:58,10.1.1.8,37,-0.070,-0.070,-0.070,0.000,0.000,0.000
1644362218344055808,2022-02-08-23:16:58,10.1.1.8,36,-0.060,-0.060,-0.060,0.000,0.000,0.000
1644362218944449024,2022-02-08-23:16:58,10.1.1.8,30,0.000,0.000,0.000,0.000,0.000,0.000
1644362219043958016,2022-02-08-23:16:59,10.1.1.8,29,0.010,0.010,0.010,0.000,0.000,0.000
1644362219143913984,2022-02-08-23:16:59,10.1.1.8,28,0.020,0.020,0.020,0.000,0.000,0.000
1644362219244314880,2022-02-08-23:16:59,10.1.1.8,28,0.030,0.030,0.030,0.000,0.000,0.000
1644362219343962880,2022-02-08-23:16:59,10.1.1.8,27,0.040,0.040,0.040,0.000,0.000,0.000
1644362219443886080,2022-02-08-23:16:59,10.1.1.8,26,0.050,0.050,0.050,0.000,0.000,0.000
1644362219544464128,2022-02-08-23:16:59,10.1.1.8,26,0.060,0.060,0.060,0.000,0.000,0.000
1644362219644867840,2022-02-08-23:16:59,10.1.1.8,25,0.070,0.070,0.070,0.000,0.000,0.000
1644362220244563200,2022-02-08-23:17:00,10.1.1.8,20,0.070,0.070,0.070,0.000,0.000,0.000
1644362220364325120,2022-02-08-23:17:00,10.1.1.8,39,0.060,0.060,0.060,0.000,0.000,0.000
1644362220464692224,2022-02-08-23:17:00,10.1.1.8,38,0.050,0.050,0.050,0.000,0.000,0.000
1644362220564388096,2022-02-08-23:17:00,10.1.1.8,37,0.040,0.040,0.040,0.000,0.000,0.000
1644362220664840960,2022-02-08-23:17:00,10.1.1.8,37,0.030,0.030,0.030,0.000,0.000,0.000
1644362220764688896,2022-02-08-23:17:00,10.1.1.8,36,0.020,0.020,0.020,0.000,0.000,0.000
1644362220864296960,2022-02-08-23:17:00,10.1.1.8,35,0.010,0.010,0.010,0.000,0.000,0.000
1644362220964344064,2022-02-08-23:17:00,10.1.1.8,35,0.000,0.000,0.000,0.000,0.000,0.000
1644362221564531200,2022-02-08-23:17:01,10.1.1.8,29,-0.060,-0.060,-0.060,0.000,0.000,0.000
1644362221664061952,2022-02-08-23:17:01,10.1.1.8,28,-0.070,-0.070,-0.070,0.000,0.000,0.000
1644362221764171008,2022-02-08-23:17:01,10.1.1.8,27,-0.080,-0.080,-0.080,0.000,0.000,0.000
1644362221863905792,2022-02-08-23:17:01,10.1.1.8,27,-0.090,-0.090,-0.090,0.000,0.000,0.000
1644362221964494848,2022-02-08-23:17:01,10.1.1.8,26,-0.100,-0.100,-0.100,0.000,0.000,0.000
1644362222064562944,2022-02-08-23:17:02,10.1.1.8,25,-0.090,-0.090,-0.090,0.000,0.000,0.000
1644362222164300800,2022-02-08-23:17:02,10.1.1.8,25,-0.080,-0.080,-0.080,0.000,0.000,0.000
1644362222784612864,2022-02-08-23:17:02,10.1.1.8,39,-0.020,-0.020,-0.020,0.000,0.000,0.000
1644362222884798976,2022-02-08-23:17:02,10.1.1.8,39,-0.010,-0.010,-0.010,0.000,0.000,0.000
1644362222985748992,2022-02-08-23:17:02,10.1.1.8,37,0.000,0.000,0.000,0.000,0.000,0.000
1644362223084590848,2022-02-08-23:17:03,10.1.1.8,36,0.010,0.010,0.010,0.000,0.000,0.000
1644362223184359936,2022-02-08-23:17:03,10.1.1.8,35,0.020,0.020,0.020,0.000,0.000,0.000
1644362223284642048,2022-02-08-23:17:03,10.1.1.8,34,0.030,0.030,0.030,0.000,0.000,0.000
1644362223385971968,2022-02-08-23:17:03,10.1.1.8,35,0.040,0.040,0.040,0.000,0.000,0.000
1644362223585031936,2022-02-08-23:17:03,10.1.1.8,29,0.060,0.060,0.060,0.000,0.000,0.000
1644362223685116160,2022-02-08-23:17:03,10.1.1.8,28,0.070,0.070,0.070,0.000,0.000,0.000
1644362224324299008,2022-02-08-23:17:04,10.1.1.8,11,0.070,0.070,0.070,0.000,0.000,0.000
1644362224545260032,2022-02-08-23:17:04,10.1.1.8,29,0.050,0.050,0.050,0.000,0.000,0.000
1644362224645059072,2022-02-08-23:17:04,10.1.1.8,29,0.040,0.040,0.040,0.000,0.000,0.000
1644362224744947968,2022-02-08-23:17:04,10.1.1.8,28,0.030,0.030,0.030,0.000,0.000,0.000
1644362224844978176,2022-02-08-23:17:04,10.1.1.8,27,0.020,0.020,0.020,0.000,0.000,0.000
1644362224944658944,2022-02-08-23:17:04,10.1.1.8,26,0.010,0.010,0.010,0.000,0.000,0.000
1644362225044790016,2022-02-08-23:17:05,10.1.1.8,25,0.000,0.000,0.000,0.000,0.000,0.000
1644362225144787968,2022-02-08-23:17:05,10.1.1.8,25,-0.010,-0.010,-0.010,0.000,0.000,0.000
1644362225864773120,2022-02-08-23:17:05,10.1.1.8,39,-0.080,-0.080,-0.080,0.000,0.000,0.000
1644362225964421888,2022-02-08-23:17:05,10.1.1.8,39,-0.090,-0.090,-0.090,0.000,0.000,0.000
1644362226064933120,2022-02-08-23:17:06,10.1.1.8,38,-0.100,-0.100,-0.100,0.000,0.000,0.000
1644362226164401920,2022-02-08-23:17:06,10.1.1.8,37,-0.090,-0.090,-0.090,0.000,0.000,0.000
1644362226264951040,2022-02-08-23:17:06,10.1.1.8,36,-0.080,-0.080,-0.080,0.000,0.000,0.000
1644362226364840960,2022-02-08-23:17:06,10.1.1.8,34,-0.070,-0.070,-0.070,0.000,0.000,0.000
1644362226964119040,2022-02-08-23:17:06,10.1.1.8,29,-0.010,-0.010,-0.010,0.000,0.000,0.000
1644362227064464128,2022-02-08-23:17:07,10.1.1.8,27,0.000,0.000,0.000,0.000,0.000,0.000
1644362227164973056,2022-02-08-23:17:07,10.1.1.8,27,0.010,0.010,0.010,0.000,0.000,0.000
1644362227265330944,2022-02-08-23:17:07,10.1.1.8,26,0.020,0.020,0.020,0.000,0.000,0.000
1644362227364732928,2022-02-08-23:17:07,10.1.1.8,25,0.030,0.030,0.030,0.000,0.000,0.000
1644362227464677120,2022-02-08-23:17:07,10.1.1.8,24,0.040,0.040,0.040,0.000,0.000,0.000
1644362228064868864,2022-02-08-23:17:08,10.1.1.8,20,0.100,0.100,0.100,0.000,0.000,0.000
1644362228185814016,2022-02-08-23:17:08,10.1.1.8,38,0.090,0.090,0.090,0.000,0.000,0.000
1644362228284948224,2022-02-08-23:17:08,10.1.1.8,38,0.080,0.080,0.080,0.000,0.000,0.000
1644362228384973056,2022-02-08-23:17:08,10.1.1.8,37,0.070,0.070,0.070,0.000,0.000,0.000
1644362228484932864,2022-02-08-23:17:08,10.1.1.8,35,0.060,0.060,0.060,0.000,0.000,0.000
1644362229085220096,2022-02-08-23:17:09,10.1.1.8,29,0.000,0.000,0.000,0.000,0.000,0.000
1644362229185655040,2022-02-08-23:17:09,10.1.1.8,29,-0.010,-0.010,-0.010,0.000,0.000,0.000
1644362229284705024,2022-02-08-23:17:09,10.1.1.8,28,-0.020,-0.020,-0.020,0.000,0.000,0.000
1644362229385448960,2022-02-08-23:17:09,10.1.1.8,28,-0.030,-0.030,-0.030,0.000,0.000,0.000
1644362229485811968,2022-02-08-23:17:09,10.1.1.8,27,-0.040,-0.040,-0.040,0.000,0.000,0.000
1644362229585015040,2022-02-08-23:17:09,10.1.1.8,26,-0.050,-0.050,-0.050,0.000,0.000,0.000
1644362229685128960,2022-02-08-23:17:09,10.1.1.8,25,-0.060,-0.060,-0.060,0.000,0.000,0.000
1644362229785762048,2022-02-08-23:17:09,10.1.1.8,24,-0.070,-0.070,-0.070,0.000,0.000,0.000
1644362230387172096,2022-02-08-23:17:10,10.1.1.8,20,-0.070,-0.070,-0.070,0.000,0.000,0.000
1644362230504659968,2022-02-08-23:17:10,10.1.1.8,39,-0.060,-0.060,-0.060,0.000,0.000,0.000
1644362230604695040,2022-02-08-23:17:10,10.1.1.8,38,-0.050,-0.050,-0.050,0.000,0.000,0.000
1644362230705126912,2022-02-08-23:17:10,10.1.1.8,37,-0.040,-0.040,-0.040,0.000,0.000,0.000
1644362230806461952,2022-02-08-23:17:10,10.1.1.8,37,-0.030,-0.030,-0.030,0.000,0.000,0.000
1644362230904936192,2022-02-08-23:17:10,10.1.1.8,35,-0.020,-0.020,-0.020,0.000,0.000,0.000
1644362231005788160,2022-02-08-23:17:11,10.1.1.8,35,-0.010,-0.010,-0.010,0.000,0.000,0.000
1644362231104590848,2022-02-08-23:17:11,10.1.1.8,34,0.000,0.000,0.000,0.000,0.000,0.000
1644362231904695040,2022-02-08-23:17:11,10.1.1.8,29,0.080,0.080,0.080,0.000,0.000,0.000
1644362232004883968,2022-02-08-23:17:12,10.1.1.8,28,0.090,0.090,0.090,0.000,0.000,0.000
1644362232104864000,2022-02-08-23:17:12,10.1.1.8,27,0.100,0.100,0.100,0.000,0.000,0.000
1644362232204761088,2022-02-08-23:17:12,10.1.1.8,27,0.090,0.090,0.090,0.000,0.000,0.000
1644362232305057024,2022-02-08-23:17:12,10.1.1.8,26,0.080,0.080,0.080,0.000,0.000,0.000
1644362232405042944,2022-02-08-23:17:12,10.1.1.8,26,0.070,0.070,0.070,0.000,0.000,0.000
1644362232504692992,2022-02-08-23:17:12,10.1.1.8,25,0.060,0.060,0.060,0.000,0.000,0.000
1644362233124564992,2022-02-08-23:17:13,10.1.1.8,39,0.000,0.000,0.000,0.000,0.000,0.000
1644362233224751104,2022-02-08-23:17:13,10.1.1.8,38,-0.010,-0.010,-0.010,0.000,0.000,0.000
1644362233325586944,2022-02-08-23:17:13,10.1.1.8,38,-0.020,-0.020,-0.020,0.000,0.000,0.000
1644362233425210112,2022-02-08-23:17:13,10.1.1.8,36,-0.030,-0.030,-0.030,0.000,0.000,0.000
1644362233524957952,2022-02-08-23:17:13,10.1.1.8,34,-0.040,-0.040,-0.040,0.000,0.000,0.000
1644362233625353984,2022-02-08-23:17:13,10.1.1.8,34,-0.050,-0.050,-0.050,0.000,0.000,0.000
1644362234524781824,2022-02-08-23:17:14,10.1.1.8,27,-0.060,-0.060,-0.060,0.000,0.000,0.000
1644362234624756224,2022-02-08-23:17:14,10.1.1.8,26,-0.050,-0.050,-0.050,0.000,0.000,0.000
1644362234724819968,2022-02-08-23:17:14,10.1.1.8,26,-0.040,-0.040,-0.040,0.000,0.000,0.000
1644362234925836032,2022-02-08-23:17:14,10.1.1.8,25,-0.020,-0.020,-0.020,0.000,0.000,0.000
1644362235025747968,2022-02-08-23:17:15,10.1.1.8,24,-0.010,-0.010,-0.010,0.000,0.000,0.000
1644362235624806912,2022-02-08-23:17:15,10.1.1.8,20,0.050,0.050,0.050,0.000,0.000,0.000
1644362235745604864,2022-02-08-23:17:15,10.1.1.8,38,0.060,0.060,0.060,0.000,0.000,0.000
1644362235845037056,2022-02-08-23:17:15,10.1.1.8,36,0.070,0.070,0.070,0.000,0.000,0.000
1644362235945753088,2022-02-08-23:17:15,10.1.1.8,35,0.080,0.080,0.080,0.000,0.000,0.000
1644362236045414912,2022-02-08-23:17:16,10.1.1.8,34,0.090,0.090,0.090,0.000,0.000,0.000
1644362236225960960,2022-02-08-23:17:16,10.1.1.8,14,0.090,0.090,0.090,0.000,0.000,0.000
1644362236587644160,2022-02-08-23:17:16,10.1.1.8,39,0.060,0.060,0.060,0.000,0.000,0.000
1644362236684737024,2022-02-08-23:17:16,10.1.1.8,39,0.050,0.050,0.050,0.000,0.000,0.000
1644362236785703936,2022-02-08-23:17:16,10.1.1.8,38,0.040,0.040,0.040,0.000,0.000,0.000
1644362236884794112,2022-02-08-23:17:16,10.1.1.8,36,0.030,0.030,0.030,0.000,0.000,0.000
1644362236985905920,2022-02-08-23:17:16,10.1.1.8,35,0.020,0.020,0.020,0.000,0.000,0.000
1644362237085086976,2022-02-08-23:17:17,10.1.1.8,35,0.010,0.010,0.010,0.000,0.000,0.000
1644362237185487872,2022-02-08-23:17:17,10.1.1.8,34,0.000,0.000,0.000,0.000,0.000,0.000
1644362237285691904,2022-02-08-23:17:17,10.1.1.8,34,-0.010,-0.010,-0.010,0.000,0.000,0.000
1644362237385092096,2022-02-08-23:17:17,10.1.1.8,33,-0.020,-0.020,-0.020,0.000,0.000,0.000
1644362238325690880,2022-02-08-23:17:18,10.1.1.8,39,-0.090,-0.090,-0.090,0.000,0.000,0.000
1644362238425965056,2022-02-08-23:17:18,10.1.1.8,38,-0.080,-0.080,-0.080,0.000,0.000,0.000
1644362238531554048,2022-02-08-23:17:18,10.1.1.8,35,-0.070,-0.070,-0.070,0.000,0.000,0.000
1644362238625433088,2022-02-08-23:17:18,10.1.1.8,35,-0.060,-0.060,-0.060,0.000,0.000,0.000
1644362238726376960,2022-02-08-23:17:18,10.1.1.8,34,-0.050,-0.050,-0.050,0.000,0.000,0.000
1644362239026006016,2022-02-08-23:17:19,10.1.1.8,30,-0.020,-0.020,-0.020,0.000,0.000,0.000
1644362239126688000,2022-02-08-23:17:19,10.1.1.8,29,-0.010,-0.010,-0.010,0.000,0.000,0.000
1644362239225456896,2022-02-08-23:17:19,10.1.1.8,29,0.000,0.000,0.000,0.000,0.000,0.000
1644362239324809984,2022-02-08-23:17:19,10.1.1.8,27,0.010,0.010,0.010,0.000,0.000,0.000
1644362239425538048,2022-02-08-23:17:19,10.1.1.8,27,0.020,0.020,0.020,0.000,0.000,0.000
1644362239525757184,2022-02-08-23:17:19,10.1.1.8,26,0.030,0.030,0.030,0.000,0.000,0.000
1644362239625398016,2022-02-08-23:17:19,10.1.1.8,24,0.040,0.040,0.040,0.000,0.000,0.000
1644362240145680896,2022-02-08-23:17:20,10.1.1.8,40,0.090,0.090,0.090,0.000,0.000,0.000
1644362240246597120,2022-02-08-23:17:20,10.1.1.8,39,0.100,0.100,0.100,0.000,0.000,0.000
1644362240345412864,2022-02-08-23:17:20,10.1.1.8,35,0.090,0.090,0.090,0.000,0.000,0.000
1644362240445605888,2022-02-08-23:17:20,10.1.1.8,35,0.080,0.080,0.080,0.000,0.000,0.000
1644362240545995008,2022-02-08-23:17:20,10.1.1.8,34,0.070,0.070,0.070,0.000,0.000,0.000
1644362240645864960,2022-02-08-23:17:20,10.1.1.8,34,0.060,0.060,0.060,0.000,0.000,0.000
1644362241245675008,2022-02-08-23:17:21,10.1.1.8,29,0.000,0.000,0.000,0.000,0.000,0.000
1644362241351378944,2022-02-08-23:17:21,10.1.1.8,28,-0.010,-0.010,-0.010,0.000,0.000,0.000
1644362241445147904,2022-02-08-23:17:21,10.1.1.8,27,-0.020,-0.020,-0.020,0.000,0.000,0.000
1644362241545722112,2022-02-08-23:17:21,10.1.1.8,26,-0.030,-0.030,-0.030,0.000,0.000,0.000
1644362241645822976,2022-02-08-23:17:21,10.1.1.8,25,-0.040,-0.040,-0.040,0.000,0.000,0.000
1644362242149765120,2022-02-08-23:17:22,10.1.1.8,20,-0.090,-0.090,-0.090,0.000,0.000,0.000
1644362242265683968,2022-02-08-23:17:22,10.1.1.8,36,-0.100,-0.100,-0.100,0.000,0.000,0.000
1644362242366373120,2022-02-08-23:17:22,10.1.1.8,36,-0.090,-0.090,-0.090,0.000,0.000,0.000
1644362242465940992,2022-02-08-23:17:22,10.1.1.8,35,-0.080,-0.080,-0.080,0.000,0.000,0.000
1644362242566425088,2022-02-08-23:17:22,10.1.1.8,33,-0.070,-0.070,-0.070,0.000,0.000,0.000
1644362242968712960,2022-02-08-23:17:22,10.1.1.8,29,-0.030,-0.030,-0.030,0.000,0.000,0.000
1644362243065537024,2022-02-08-23:17:23,10.1.1.8,28,-0.020,-0.020,-0.020,0.000,0.000,0.000
1644362243167657984,2022-02-08-23:17:23,10.1.1.8,26,-0.010,-0.010,-0.010,0.000,0.000,0.000
1644362243265556992,2022-02-08-23:17:23,10.1.1.8,25,0.000,0.000,0.000,0.000,0.000,0.000
1644362243371671808,2022-02-08-23:17:23,10.1.1.8,24,0.010,0.010,0.010,0.000,0.000,0.000
1644362243986032128,2022-02-08-23:17:23,10.1.1.8,38,0.070,0.070,0.070,0.000,0.000,0.000
1644362244086550016,2022-02-08-23:17:24,10.1.1.8,37,0.080,0.080,0.080,0.000,0.000,0.000
1644362244185737984,2022-02-08-23:17:24,10.1.1.8,36,0.090,0.090,0.090,0.000,0.000,0.000
1644362244285555968,2022-02-08-23:17:24,10.1.1.8,35,0.100,0.100,0.100,0.000,0.000,0.000
1644362244421648128,2022-02-08-23:17:24,10.1.1.8,34,0.090,0.090,0.090,0.000,0.000,0.000
1644362244487044096,2022-02-08-23:17:24,10.1.1.8,33,0.080,0.080,0.080,0.000,0.000,0.000
1644362245186937088,2022-02-08-23:17:25,10.1.1.8,29,0.010,0.010,0.010,0.000,0.000,0.000
1644362245350113024,2022-02-08-23:17:25,10.1.1.8,29,0.000,0.000,0.000,0.000,0.000,0.000
1644362245385693184,2022-02-08-23:17:25,10.1.1.8,28,-0.010,-0.010,-0.010,0.000,0.000,0.000
1644362245485353984,2022-02-08-23:17:25,10.1.1.8,27,-0.020,-0.020,-0.020,0.000,0.000,0.000
1644362245586464768,2022-02-08-23:17:25,10.1.1.8,27,-0.030,-0.030,-0.030,0.000,0.000,0.000
1644362245685292032,2022-02-08-23:17:25,10.1.1.8,26,-0.040,-0.040,-0.040,0.000,0.000,0.000
1644362245786915072,2022-02-08-23:17:25,10.1.1.8,25,-0.050,-0.050,-0.050,0.000,0.000,0.000
1644362245885646080,2022-02-08-23:17:25,10.1.1.8,25,-0.060,-0.060,-0.060,0.000,0.000,0.000
1644362245985833984,2022-02-08-23:17:25,10.1.1.8,24,-0.070,-0.070,-0.070,0.000,0.000,0.000
1644362246085628928,2022-02-08-23:17:26,10.1.1.8,24,-0.080,-0.080,-0.080,0.000,0.000,0.000
1644362246186553856,2022-02-08-23:17:26,10.1.1.8,23,-0.090,-0.090,-0.090,0.000,0.000,0.000
1644362246366789120,2022-02-08-23:17:26,10.1.1.8,0,-0.090,-0.090,-0.090,0.000,0.000,0.000
1644362246506059008,2022-02-08-23:17:26,10.1.1.8,39,-0.080,-0.080,-0.080,0.000,0.000,0.000
1644362246606075136,2022-02-08-23:17:26,10.1.1.8,39,-0.070,-0.070,-0.070,0.000,0.000,0.000
1644362246705113856,2022-02-08-23:17:26,10.1.1.8,38,-0.060,-0.060,-0.060,0.000,0.000,0.000
1644362246806021888,2022-02-08-23:17:26,10.1.1.8,37,-0.050,-0.050,-0.050,0.000,0.000,0.000
1644362246905821952,2022-02-08-23:17:26,10.1.1.8,36,-0.040,-0.040,-0.040,0.000,0.000,0.000
1644362247005779968,2022-02-08-23:17:27,10.1.1.8,36,-0.030,-0.030,-0.030,0.000,0.000,0.000
1644362247105773824,2022-02-08-23:17:27,10.1.1.8,35,-0.020,-0.020,-0.020,0.000,0.000,0.000
1644362247205907968,2022-02-08-23:17:27,10.1.1.8,35,-0.010,-0.010,-0.010,0.000,0.000,0.000
1644362247306647040,2022-02-08-23:17:27,10.1.1.8,34,0.000,0.000,0.000,0.000,0.000,0.000
1644362247905600000,2022-02-08-23:17:27,10.1.1.8,30,0.060,0.060,0.060,0.000,0.000,0.000
1644362248005594880,2022-02-08-23:17:28,10.1.1.8,29,0.070,0.070,0.070,0.000,0.000,0.000
1644362248105469952,2022-02-08-23:17:28,10.1.1.8,28,0.080,0.080,0.080,0.000,0.000,0.000
1644362248205291008,2022-02-08-23:17:28,10.1.1.8,28,0.090,0.090,0.090,0.000,0.000,0.000
1644362248306176000,2022-02-08-23:17:28,10.1.1.8,27,0.100,0.100,0.100,0.000,0.000,0.000
1644362248405734912,2022-02-08-23:17:28,10.1.1.8,25,0.090,0.090,0.090,0.000,0.000,0.000
1644362248505924864,2022-02-08-23:17:28,10.1.1.8,24,0.080,0.080,0.080,0.000,0.000,0.000
1644362248605769984,2022-02-08-23:17:28,10.1.1.8,24,0.070,0.070,0.070,0.000,0.000,0.000
1644362249225966080,2022-02-08-23:17:29,10.1.1.8,40,0.010,0.010,0.010,0.000,0.000,0.000
1644362249325949952,2022-02-08-23:17:29,10.1.1.8,38,0.000,0.000,0.000,0.000,0.000,0.000
1644362249425487872,2022-02-08-23:17:29,10.1.1.8,37,-0.010,-0.010,-0.010,0.000,0.000,0.000
1644362249525917952,2022-02-08-23:17:29,10.1.1.8,37,-0.020,-0.020,-0.020,0.000,0.000,0.000
1644362249625814016,2022-02-08-23:17:29,10.1.1.8,36,-0.030,-0.030,-0.030,0.000,0.000,0.000
1644362249725893888,2022-02-08-23:17:29,10.1.1.8,35,-0.040,-0.040,-0.040,0.000,0.000,0.000
1644362249826818048,2022-02-08-23:17:29,10.1.1.8,35,-0.050,-0.050,-0.050,0.000,0.000,0.000
1644362249926297856,2022-02-08-23:17:29,10.1.1.8,34,-0.060,-0.060,-0.060,0.000,0.000,0.000
1644362250026637056,2022-02-08-23:17:30,10.1.1.8,34,-0.070,-0.070,-0.070,0.000,0.000,0.000
1644362250127484928,2022-02-08-23:17:30,10.1.1.8,33,-0.080,-0.080,-0.080,0.000,0.000,0.000
1644362250505989120,2022-02-08-23:17:30,10.1.1.8,10,-0.080,-0.080,-0.080,0.000,0.000,0.000
1644362250726597120,2022-02-08-23:17:30,10.1.1.8,29,-0.060,-0.060,-0.060,0.000,0.000,0.000
1644362250825798912,2022-02-08-23:17:30,10.1.1.8,29,-0.050,-0.050,-0.050,0.000,0.000,0.000
1644362250926157824,2022-02-08-23:17:30,10.1.1.8,28,-0.040,-0.040,-0.040,0.000,0.000,0.000
1644362251346054912,2022-02-08-23:17:31,10.1.1.8,39,0.000,0.000,0.000,0.000,0.000,0.000
1644362251446476032,2022-02-08-23:17:31,10.1.1.8,37,0.010,0.010,0.010,0.000,0.000,0.000
1644362251545649920,2022-02-08-23:17:31,10.1.1.8,34,0.020,0.020,0.020,0.000,0.000,0.000
1644362251645518080,2022-02-08-23:17:31,10.1.1.8,33,0.030,0.030,0.030,0.000,0.000,0.000
1644362251945872128,2022-02-08-23:17:31,10.1.1.8,29,0.060,0.060,0.060,0.000,0.000,0.000
1644362252045921024,2022-02-08-23:17:32,10.1.1.8,27,0.070,0.070,0.070,0.000,0.000,0.000
1644362252146931968,2022-02-08-23:17:32,10.1.1.8,27,0.080,0.080,0.080,0.000,0.000,0.000
1644362252245532160,2022-02-08-23:17:32,10.1.1.8,26,0.090,0.090,0.090,0.000,0.000,0.000
1644362252346049024,2022-02-08-23:17:32,10.1.1.8,26,0.100,0.100,0.100,0.000,0.000,0.000
1644362252445744128,2022-02-08-23:17:32,10.1.1.8,25,0.090,0.090,0.090,0.000,0.000,0.000
1644362252612279808,2022-02-08-23:17:32,10.1.1.8,25,0.080,0.080,0.080,0.000,0.000,0.000
1644362252646686976,2022-02-08-23:17:32,10.1.1.8,23,0.070,0.070,0.070,0.000,0.000,0.000
1644362253567002112,2022-02-08-23:17:33,10.1.1.8,39,-0.020,-0.020,-0.020,0.000,0.000,0.000
1644362253665533184,2022-02-08-23:17:33,10.1.1.8,38,-0.030,-0.030,-0.030,0.000,0.000,0.000
1644362253766052864,2022-02-08-23:17:33,10.1.1.8,38,-0.040,-0.040,-0.040,0.000,0.000,0.000
1644362253865550080,2022-02-08-23:17:33,10.1.1.8,37,-0.050,-0.050,-0.050,0.000,0.000,0.000
1644362253966094080,2022-02-08-23:17:33,10.1.1.8,37,-0.060,-0.060,-0.060,0.000,0.000,0.000
1644362254066777856,2022-02-08-23:17:34,10.1.1.8,36,-0.070,-0.070,-0.070,0.000,0.000,0.000
1644362254165481216,2022-02-08-23:17:34,10.1.1.8,35,-0.080,-0.080,-0.080,0.000,0.000,0.000
1644362254266243840,2022-02-08-23:17:34,10.1.1.8,35,-0.090,-0.090,-0.090,0.000,0.000,0.000
1644362254445729024,2022-02-08-23:17:34,10.1.1.8,11,-0.090,-0.090,-0.090,0.000,0.000,0.000
1644362254766215936,2022-02-08-23:17:34,10.1.1.8,29,-0.060,-0.060,-0.060,0.000,0.000,0.000
1644362254865561088,2022-02-08-23:17:34,10.1.1.8,28,-0.050,-0.050,-0.050,0.000,0.000,0.000
1644362254965801984,2022-02-08-23:17:34,10.1.1.8,28,-0.040,-0.040,-0.040,0.000,0.000,0.000
1644362255066204928,2022-02-08-23:17:35,10.1.1.8,27,-0.030,-0.030,-0.030,0.000,0.000,0.000
1644362255165857024,2022-02-08-23:17:35,10.1.1.8,26,-0.020,-0.020,-0.020,0.000,0.000,0.000
1644362255265765888,2022-02-08-23:17:35,10.1.1.8,25,-0.010,-0.010,-0.010,0.000,0.000,0.000
1644362255365920000,2022-02-08-23:17:35,10.1.1.8,24,0.000,0.000,0.000,0.000,0.000,0.000
1644362255465665024,2022-02-08-23:17:35,10.1.1.8,24,0.010,0.010,0.010,0.000,0.000,0.000
1644362255566514944,2022-02-08-23:17:35,10.1.1.8,23,0.020,0.020,0.020,0.000,0.000,0.000
1644362256086077952,2022-02-08-23:17:36,10.1.1.8,39,0.070,0.070,0.070,0.000,0.000,0.000
1644362256185972992,2022-02-08-23:17:36,10.1.1.8,38,0.080,0.080,0.080,0.000,0.000,0.000
1644362256285526016,2022-02-08-23:17:36,10.1.1.8,37,0.090,0.090,0.090,0.000,0.000,0.000
1644362256385659904,2022-02-08-23:17:36,10.1.1.8,35,0.100,0.100,0.100,0.000,0.000,0.000
1644362256486994944,2022-02-08-23:17:36,10.1.1.8,34,0.090,0.090,0.090,0.000,0.000,0.000
1644362256586832896,2022-02-08-23:17:36,10.1.1.8,33,0.080,0.080,0.080,0.000,0.000,0.000
1644362257186368000,2022-02-08-23:17:37,10.1.1.8,29,0.020,0.020,0.020,0.000,0.000,0.000
1644362257286324992,2022-02-08-23:17:37,10.1.1.8,28,0.010,0.010,0.010,0.000,0.000,0.000
1644362257406126080,2022-02-08-23:17:37,10.1.1.8,28,0.000,0.000,0.000,0.000,0.000,0.000
1644362257526198016,2022-02-08-23:17:37,10.1.1.8,39,-0.010,-0.010,-0.010,0.000,0.000,0.000
1644362257627766016,2022-02-08-23:17:37,10.1.1.8,38,-0.020,-0.020,-0.020,0.000,0.000,0.000
1644362257725341952,2022-02-08-23:17:37,10.1.1.8,37,-0.030,-0.030,-0.030,0.000,0.000,0.000
1644362257826235136,2022-02-08-23:17:37,10.1.1.8,36,-0.040,-0.040,-0.040,0.000,0.000,0.000
1644362257926146048,2022-02-08-23:17:37,10.1.1.8,35,-0.050,-0.050,-0.050,0.000,0.000,0.000
1644362258025676032,2022-02-08-23:17:38,10.1.1.8,35,-0.060,-0.060,-0.060,0.000,0.000,0.000
1644362258125605120,2022-02-08-23:17:38,10.1.1.8,34,-0.070,-0.070,-0.070,0.000,0.000,0.000
1644362258326235136,2022-02-08-23:17:38,10.1.1.8,33,-0.090,-0.090,-0.090,0.000,0.000,0.000
1644362258505379072,2022-02-08-23:17:38,10.1.1.8,12,-0.090,-0.090,-0.090,0.000,0.000,0.000
1644362259225413120,2022-02-08-23:17:39,10.1.1.8,29,-0.020,-0.020,-0.020,0.000,0.000,0.000
1644362259325839872,2022-02-08-23:17:39,10.1.1.8,28,-0.010,-0.010,-0.010,0.000,0.000,0.000
1644362259425643008,2022-02-08-23:17:39,10.1.1.8,28,0.000,0.000,0.000,0.000,0.000,0.000
1644362259525815040,2022-02-08-23:17:39,10.1.1.8,27,0.010,0.010,0.010,0.000,0.000,0.000
1644362259626022144,2022-02-08-23:17:39,10.1.1.8,27,0.020,0.020,0.020,0.000,0.000,0.000
1644362259725413120,2022-02-08-23:17:39,10.1.1.8,26,0.030,0.030,0.030,0.000,0.000,0.000
1644362259826284032,2022-02-08-23:17:39,10.1.1.8,26,0.040,0.040,0.040,0.000,0.000,0.000
1644362259925831936,2022-02-08-23:17:39,10.1.1.8,25,0.050,0.050,0.050,0.000,0.000,0.000
1644362260025861888,2022-02-08-23:17:40,10.1.1.8,25,0.060,0.060,0.060,0.000,0.000,0.000
1644362260125662976,2022-02-08-23:17:40,10.1.1.8,24,0.070,0.070,0.070,0.000,0.000,0.000
1644362260226180096,2022-02-08-23:17:40,10.1.1.8,24,0.080,0.080,0.080,0.000,0.000,0.000
1644362260325817088,2022-02-08-23:17:40,10.1.1.8,23,0.090,0.090,0.090,0.000,0.000,0.000
1644362260425795072,2022-02-08-23:17:40,10.1.1.8,23,0.100,0.100,0.100,0.000,0.000,0.000
1644362260526541824,2022-02-08-23:17:40,10.1.1.8,23,0.090,0.090,0.090,0.000,0.000,0.000
1644362261146683904,2022-02-08-23:17:41,10.1.1.8,39,0.030,0.030,0.030,0.000,0.000,0.000
1644362261246022912,2022-02-08-23:17:41,10.1.1.8,38,0.020,0.020,0.020,0.000,0.000,0.000
1644362261346460160,2022-02-08-23:17:41,10.1.1.8,38,0.010,0.010,0.010,0.000,0.000,0.000
1644362261447081216,2022-02-08-23:17:41,10.1.1.8,37,0.000,0.000,0.000,0.000,0.000,0.000
1644362261546269952,2022-02-08-23:17:41,10.1.1.8,36,-0.010,-0.010,-0.010,0.000,0.000,0.000
1644362261646803968,2022-02-08-23:17:41,10.1.1.8,36,-0.020,-0.020,-0.020,0.000,0.000,0.000
1644362261748707072,2022-02-08-23:17:41,10.1.1.8,35,-0.030,-0.030,-0.030,0.000,0.000,0.000
1644362261846728960,2022-02-08-23:17:41,10.1.1.8,35,-0.040,-0.040,-0.040,0.000,0.000,0.000
1644362261946513920,2022-02-08-23:17:41,10.1.1.8,34,-0.050,-0.050,-0.050,0.000,0.000,0.000
1644362262046961920,2022-02-08-23:17:42,10.1.1.8,33,-0.060,-0.060,-0.060,0.000,0.000,0.000
1644362262547184896,2022-02-08-23:17:42,10.1.1.8,29,-0.090,-0.090,-0.090,0.000,0.000,0.000
1644362262646490112,2022-02-08-23:17:42,10.1.1.8,29,-0.080,-0.080,-0.080,0.000,0.000,0.000
1644362262746136064,2022-02-08-23:17:42,10.1.1.8,26,-0.070,-0.070,-0.070,0.000,0.000,0.000
1644362262846644992,2022-02-08-23:17:42,10.1.1.8,26,-0.060,-0.060,-0.060,0.000,0.000,0.000
1644362262946907904,2022-02-08-23:17:42,10.1.1.8,25,-0.050,-0.050,-0.050,0.000,0.000,0.000
1644362263046756096,2022-02-08-23:17:43,10.1.1.8,24,-0.040,-0.040,-0.040,0.000,0.000,0.000
1644362263146679040,2022-02-08-23:17:43,10.1.1.8,23,-0.030,-0.030,-0.030,0.000,0.000,0.000
1644362263246705152,2022-02-08-23:17:43,10.1.1.8,22,-0.020,-0.020,-0.020,0.000,0.000,0.000
1644362263566819840,2022-02-08-23:17:43,10.1.1.8,38,0.010,0.010,0.010,0.000,0.000,0.000
1644362263666546944,2022-02-08-23:17:43,10.1.1.8,37,0.020,0.020,0.020,0.000,0.000,0.000
1644362263766996992,2022-02-08-23:17:43,10.1.1.8,36,0.030,0.030,0.030,0.000,0.000,0.000
1644362263866872064,2022-02-08-23:17:43,10.1.1.8,36,0.040,0.040,0.040,0.000,0.000,0.000
1644362263965935872,2022-02-08-23:17:43,10.1.1.8,35,0.050,0.050,0.050,0.000,0.000,0.000
1644362264066649856,2022-02-08-23:17:44,10.1.1.8,34,0.060,0.060,0.060,0.000,0.000,0.000
1644362264166816000,2022-02-08-23:17:44,10.1.1.8,33,0.070,0.070,0.070,0.000,0.000,0.000
1644362264266855936,2022-02-08-23:17:44,10.1.1.8,33,0.080,0.080,0.080,0.000,0.000,0.000
1644362264646393088,2022-02-08-23:17:44,10.1.1.8,10,0.080,0.080,0.080,0.000,0.000,0.000
1644362264766551040,2022-02-08-23:17:44,10.1.1.8,30,0.070,0.070,0.070,0.000,0.000,0.000
1644362264866183936,2022-02-08-23:17:44,10.1.1.8,29,0.060,0.060,0.060,0.000,0.000,0.000
1644362264966137856,2022-02-08-23:17:44,10.1.1.8,28,0.050,0.050,0.050,0.000,0.000,0.000
1644362265066595072,2022-02-08-23:17:45,10.1.1.8,28,0.040,0.040,0.040,0.000,0.000,0.000
1644362265166340096,2022-02-08-23:17:45,10.1.1.8,27,0.030,0.030,0.030,0.000,0.000,0.000
1644362265266475008,2022-02-08-23:17:45,10.1.1.8,27,0.020,0.020,0.020,0.000,0.000,0.000
1644362265366178048,2022-02-08-23:17:45,10.1.1.8,26,0.010,0.010,0.010,0.000,0.000,0.000
1644362265466908928,2022-02-08-23:17:45,10.1.1.8,25,0.000,0.000,0.000,0.000,0.000,0.000
1644362265566024960,2022-02-08-23:17:45,10.1.1.8,25,-0.010,-0.010,-0.010,0.000,0.000,0.000
1644362265666098176,2022-02-08-23:17:45,10.1.1.8,24,-0.020,-0.020,-0.020,0.000,0.000,0.000
1644362265766138112,2022-02-08-23:17:45,10.1.1.8,24,-0.030,-0.030,-0.030,0.000,0.000,0.000
1644362265866578176,2022-02-08-23:17:45,10.1.1.8,23,-0.040,-0.040,-0.040,0.000,0.000,0.000
1644362266586733056,2022-02-08-23:17:46,10.1.1.8,39,-0.090,-0.090,-0.090,0.000,0.000,0.000
1644362266686012928,2022-02-08-23:17:46,10.1.1.8,39,-0.080,-0.080,-0.080,0.000,0.000,0.000
1644362266786642944,2022-02-08-23:17:46,10.1.1.8,38,-0.070,-0.070,-0.070,0.000,0.000,0.000
1644362266886311168,2022-02-08-23:17:46,10.1.1.8,38,-0.060,-0.060,-0.060,0.000,0.000,0.000
1644362266985622784,2022-02-08-23:17:46,10.1.1.8,37,-0.050,-0.050,-0.050,0.000,0.000,0.000
1644362267086179072,2022-02-08-23:17:47,10.1.1.8,37,-0.040,-0.040,-0.040,0.000,0.000,0.000
1644362267186068992,2022-02-08-23:17:47,10.1.1.8,36,-0.030,-0.030,-0.030,0.000,0.000,0.000
1644362267286104064,2022-02-08-23:17:47,10.1.1.8,35,-0.020,-0.020,-0.020,0.000,0.000,0.000
1644362267387540224,2022-02-08-23:17:47,10.1.1.8,35,-0.010,-0.010,-0.010,0.000,0.000,0.000
1644362267486283008,2022-02-08-23:17:47,10.1.1.8,33,0.000,0.000,0.000,0.000,0.000,0.000
1644362267585913856,2022-02-08-23:17:47,10.1.1.8,33,0.010,0.010,0.010,0.000,0.000,0.000
1644362268386257920,2022-02-08-23:17:48,10.1.1.8,29,0.090,0.090,0.090,0.000,0.000,0.000
1644362268486834176,2022-02-08-23:17:48,10.1.1.8,29,0.100,0.100,0.100,0.000,0.000,0.000
1644362268586435072,2022-02-08-23:17:48,10.1.1.8,28,0.090,0.090,0.090,0.000,0.000,0.000
1644362268686473984,2022-02-08-23:17:48,10.1.1.8,27,0.080,0.080,0.080,0.000,0.000,0.000
1644362268786028032,2022-02-08-23:17:48,10.1.1.8,27,0.070,0.070,0.070,0.000,0.000,0.000
1644362268905967104,2022-02-08-23:17:48,10.1.1.8,46,0.060,0.060,0.060,0.000,0.000,0.000
1644362268985780992,2022-02-08-23:17:48,10.1.1.8,26,0.050,0.050,0.050,0.000,0.000,0.000
1644362269085861888,2022-02-08-23:17:49,10.1.1.8,26,0.040,0.040,0.040,0.000,0.000,0.000
1644362269186211072,2022-02-08-23:17:49,10.1.1.8,25,0.030,0.030,0.030,0.000,0.000,0.000
1644362269287070976,2022-02-08-23:17:49,10.1.1.8,24,0.020,0.020,0.020,0.000,0.000,0.000
1644362269386776832,2022-02-08-23:17:49,10.1.1.8,24,0.010,0.010,0.010,0.000,0.000,0.000
1644362269486302976,2022-02-08-23:17:49,10.1.1.8,24,0.000,0.000,0.000,0.000,0.000,0.000
1644362269586875904,2022-02-08-23:17:49,10.1.1.8,23,-0.010,-0.010,-0.010,0.000,0.000,0.000
1644362269686272000,2022-02-08-23:17:49,10.1.1.8,23,-0.020,-0.020,-0.020,0.000,0.000,0.000
1644362269806618880,2022-02-08-23:17:49,10.1.1.8,42,-0.030,-0.030,-0.030,0.000,0.000,0.000
1644362270387373056,2022-02-08-23:17:50,10.1.1.8,20,-0.090,-0.090,-0.090,0.000,0.000,0.000
1644362270507041024,2022-02-08-23:17:50,10.1.1.8,39,-0.100,-0.100,-0.100,0.000,0.000,0.000
1644362270666755072,2022-02-08-23:17:50,10.1.1.8,37,-0.090,-0.090,-0.090,0.000,0.000,0.000
1644362270765687040,2022-02-08-23:17:50,10.1.1.8,36,-0.080,-0.080,-0.080,0.000,0.000,0.000
1644362270866715904,2022-02-08-23:17:50,10.1.1.8,35,-0.070,-0.070,-0.070,0.000,0.000,0.000
1644362270966212864,2022-02-08-23:17:50,10.1.1.8,35,-0.060,-0.060,-0.060,0.000,0.000,0.000
1644362271066187008,2022-02-08-23:17:51,10.1.1.8,34,-0.050,-0.050,-0.050,0.000,0.000,0.000
1644362271166001152,2022-02-08-23:17:51,10.1.1.8,33,-0.040,-0.040,-0.040,0.000,0.000,0.000
1644362271266392832,2022-02-08-23:17:51,10.1.1.8,33,-0.030,-0.030,-0.030,0.000,0.000,0.000
1644362271367467008,2022-02-08-23:17:51,10.1.1.8,33,-0.020,-0.020,-0.020,0.000,0.000,0.000
1644362271865997056,2022-02-08-23:17:51,10.1.1.8,29,0.030,0.030,0.030,0.000,0.000,0.000
1644362271967089920,2022-02-08-23:17:51,10.1.1.8,29,0.040,0.040,0.040,0.000,0.000,0.000
1644362272066562048,2022-02-08-23:17:52,10.1.1.8,29,0.050,0.050,0.050,0.000,0.000,0.000
1644362272167512064,2022-02-08-23:17:52,10.1.1.8,28,0.060,0.060,0.060,0.000,0.000,0.000
1644362272266288128,2022-02-08-23:17:52,10.1.1.8,27,0.070,0.070,0.070,0.000,0.000,0.000
1644362272366360064,2022-02-08-23:17:52,10.1.1.8,27,0.080,0.080,0.080,0.000,0.000,0.000
1644362272467139072,2022-02-08-23:17:52,10.1.1.8,26,0.090,0.090,0.090,0.000,0.000,0.000
1644362272566450176,2022-02-08-23:17:52,10.1.1.8,24,0.100,0.100,0.100,0.000,0.000,0.000
1644362272666380800,2022-02-08-23:17:52,10.1.1.8,22,0.090,0.090,0.090,0.000,0.000,0.000
1644362272766769920,2022-02-08-23:17:52,10.1.1.8,22,0.080,0.080,0.080,0.000,0.000,0.000
1644362273387897088,2022-02-08-23:17:53,10.1.1.8,39,0.020,0.020,0.020,0.000,0.000,0.000
1644362273486711040,2022-02-08-23:17:53,10.1.1.8,39,0.010,0.010,0.010,0.000,0.000,0.000
1644362273606782976,2022-02-08-23:17:53,10.1.1.8,38,0.000,0.000,0.000,0.000,0.000,0.000
1644362273706705920,2022-02-08-23:17:53,10.1.1.8,35,-0.010,-0.010,-0.010,0.000,0.000,0.000
1644362273806857216,2022-02-08-23:17:53,10.1.1.8,35,-0.020,-0.020,-0.020,0.000,0.000,0.000
1644362273906464000,2022-02-08-23:17:53,10.1.1.8,34,-0.030,-0.030,-0.030,0.000,0.000,0.000
1644362274006956032,2022-02-08-23:17:54,10.1.1.8,33,-0.040,-0.040,-0.040,0.000,0.000,0.000
1644362274106647040,2022-02-08-23:17:54,10.1.1.8,33,-0.050,-0.050,-0.050,0.000,0.000,0.000
1644362274206203904,2022-02-08-23:17:54,10.1.1.8,33,-0.060,-0.060,-0.060,0.000,0.000,0.000
1644362274307363072,2022-02-08-23:17:54,10.1.1.8,33,-0.070,-0.070,-0.070,0.000,0.000,0.000
1644362274706007040,2022-02-08-23:17:54,10.1.1.8,29,-0.090,-0.090,-0.090,0.000,0.000,0.000
1644362274806173184,2022-02-08-23:17:54,10.1.1.8,29,-0.080,-0.080,-0.080,0.000,0.000,0.000
1644362274906258944,2022-02-08-23:17:54,10.1.1.8,28,-0.070,-0.070,-0.070,0.000,0.000,0.000
1644362275006288896,2022-02-08-23:17:55,10.1.1.8,27,-0.060,-0.060,-0.060,0.000,0.000,0.000
1644362275106530048,2022-02-08-23:17:55,10.1.1.8,26,-0.050,-0.050,-0.050,0.000,0.000,0.000
1644362275206404096,2022-02-08-23:17:55,10.1.1.8,26,-0.040,-0.040,-0.040,0.000,0.000,0.000
1644362275306473984,2022-02-08-23:17:55,10.1.1.8,25,-0.030,-0.030,-0.030,0.000,0.000,0.000
1644362275406852864,2022-02-08-23:17:55,10.1.1.8,25,-0.020,-0.020,-0.020,0.000,0.000,0.000
1644362275506856960,2022-02-08-23:17:55,10.1.1.8,23,-0.010,-0.010,-0.010,0.000,0.000,0.000
1644362275606329856,2022-02-08-23:17:55,10.1.1.8,23,0.000,0.000,0.000,0.000,0.000,0.000
1644362275707364096,2022-02-08-23:17:55,10.1.1.8,22,0.010,0.010,0.010,0.000,0.000,0.000
1644362276226369024,2022-02-08-23:17:56,10.1.1.8,39,0.060,0.060,0.060,0.000,0.000,0.000
1644362276327030016,2022-02-08-23:17:56,10.1.1.8,39,0.070,0.070,0.070,0.000,0.000,0.000
1644362276426673920,2022-02-08-23:17:56,10.1.1.8,38,0.080,0.080,0.080,0.000,0.000,0.000
1644362276526177024,2022-02-08-23:17:56,10.1.1.8,36,0.090,0.090,0.090,0.000,0.000,0.000
1644362276626321152,2022-02-08-23:17:56,10.1.1.8,36,0.100,0.100,0.100,0.000,0.000,0.000
1644362276726584832,2022-02-08-23:17:56,10.1.1.8,35,0.090,0.090,0.090,0.000,0.000,0.000
1644362276826850816,2022-02-08-23:17:56,10.1.1.8,34,0.080,0.080,0.080,0.000,0.000,0.000
1644362277326909184,2022-02-08-23:17:57,10.1.1.8,29,0.030,0.030,0.030,0.000,0.000,0.000
1644362277426542080,2022-02-08-23:17:57,10.1.1.8,27,0.020,0.020,0.020,0.000,0.000,0.000
1644362277526588928,2022-02-08-23:17:57,10.1.1.8,26,0.010,0.010,0.010,0.000,0.000,0.000
1644362277626412032,2022-02-08-23:17:57,10.1.1.8,25,0.000,0.000,0.000,0.000,0.000,0.000
1644362277727026944,2022-02-08-23:17:57,10.1.1.8,25,-0.010,-0.010,-0.010,0.000,0.000,0.000
1644362277826853120,2022-02-08-23:17:57,10.1.1.8,24,-0.020,-0.020,-0.020,0.000,0.000,0.000
1644362277926407168,2022-02-08-23:17:57,10.1.1.8,23,-0.030,-0.030,-0.030,0.000,0.000,0.000
1644362278027014144,2022-02-08-23:17:58,10.1.1.8,22,-0.040,-0.040,-0.040,0.000,0.000,0.000
1644362278646754048,2022-02-08-23:17:58,10.1.1.8,39,-0.100,-0.100,-0.100,0.000,0.000,0.000
1644362278746514176,2022-02-08-23:17:58,10.1.1.8,39,-0.090,-0.090,-0.090,0.000,0.000,0.000
1644362278846617088,2022-02-08-23:17:58,10.1.1.8,38,-0.080,-0.080,-0.080,0.000,0.000,0.000
1644362278946846976,2022-02-08-23:17:58,10.1.1.8,38,-0.070,-0.070,-0.070,0.000,0.000,0.000
1644362279046830848,2022-02-08-23:17:59,10.1.1.8,37,-0.060,-0.060,-0.060,0.000,0.000,0.000
1644362279146961920,2022-02-08-23:17:59,10.1.1.8,37,-0.050,-0.050,-0.050,0.000,0.000,0.000
1644362279246432000,2022-02-08-23:17:59,10.1.1.8,36,-0.040,-0.040,-0.040,0.000,0.000,0.000
1644362279347100928,2022-02-08-23:17:59,10.1.1.8,35,-0.030,-0.030,-0.030,0.000,0.000,0.000
1644362279446959872,2022-02-08-23:17:59,10.1.1.8,35,-0.020,-0.020,-0.020,0.000,0.000,0.000
1644362279547164928,2022-02-08-23:17:59,10.1.1.8,34,-0.010,-0.010,-0.010,0.000,0.000,0.000
1644362279646800128,2022-02-08-23:17:59,10.1.1.8,34,0.000,0.000,0.000,0.000,0.000,0.000
1644362279746686976,2022-02-08-23:17:59,10.1.1.8,33,0.010,0.010,0.010,0.000,0.000,0.000
1644362279846448896,2022-02-08-23:17:59,10.1.1.8,33,0.020,0.020,0.020,0.000,0.000,0.000
1644362280046926080,2022-02-08-23:18:00,10.1.1.8,32,0.040,0.040,0.040,0.000,0.000,0.000
1644362280447240960,2022-02-08-23:18:00,10.1.1.8,29,0.080,0.080,0.080,0.000,0.000,0.000
1644362280546614784,2022-02-08-23:18:00,10.1.1.8,29,0.090,0.090,0.090,0.000,0.000,0.000
1644362280646913024,2022-02-08-23:18:00,10.1.1.8,28,0.100,0.100,0.100,0.000,0.000,0.000
1644362280747080960,2022-02-08-23:18:00,10.1.1.8,28,0.090,0.090,0.090,0.000,0.000,0.000
1644362280847011072,2022-02-08-23:18:00,10.1.1.8,27,0.080,0.080,0.080,0.000,0.000,0.000
1644362280946994944,2022-02-08-23:18:00,10.1.1.8,27,0.070,0.070,0.070,0.000,0.000,0.000
1644362281046874112,2022-02-08-23:18:01,10.1.1.8,26,0.060,0.060,0.060,0.000,0.000,0.000
1644362281146992896,2022-02-08-23:18:01,10.1.1.8,26,0.050,0.050,0.050,0.000,0.000,0.000
1644362281247080960,2022-02-08-23:18:01,10.1.1.8,25,0.040,0.040,0.040,0.000,0.000,0.000
1644362281347297792,2022-02-08-23:18:01,10.1.1.8,25,0.030,0.030,0.030,0.000,0.000,0.000
1644362281447014144,2022-02-08-23:18:01,10.1.1.8,25,0.020,0.020,0.020,0.000,0.000,0.000
1644362281547143936,2022-02-08-23:18:01,10.1.1.8,24,0.010,0.010,0.010,0.000,0.000,0.000
1644362281646543872,2022-02-08-23:18:01,10.1.1.8,24,0.000,0.000,0.000,0.000,0.000,0.000
1644362281746501888,2022-02-08-23:18:01,10.1.1.8,23,-0.010,-0.010,-0.010,0.000,0.000,0.000
1644362281847067136,2022-02-08-23:18:01,10.1.1.8,23,-0.020,-0.020,-0.020,0.000,0.000,0.000
1644362281947235072,2022-02-08-23:18:01,10.1.1.8,22,-0.030,-0.030,-0.030,0.000,0.000,0.000
1644362282067568896,2022-02-08-23:18:02,10.1.1.8,25,-0.040,-0.040,-0.040,0.000,0.000,0.000
1644362282167340032,2022-02-08-23:18:02,10.1.1.8,24,-0.050,-0.050,-0.050,0.000,0.000,0.000
1644362282267225088,2022-02-08-23:18:02,10.1.1.8,23,-0.060,-0.060,-0.060,0.000,0.000,0.000
1644362282367451904,2022-02-08-23:18:02,10.1.1.8,22,-0.070,-0.070,-0.070,0.000,0.000,0.000
1644362282466948096,2022-02-08-23:18:02,10.1.1.8,22,-0.080,-0.080,-0.080,0.000,0.000,0.000
1644362282847051008,2022-02-08-23:18:02,10.1.1.8,0,-0.080,-0.080,-0.080,0.000,0.000,0.000
1644362283186718976,2022-02-08-23:18:03,10.1.1.8,39,-0.050,-0.050,-0.050,0.000,0.000,0.000
1644362283286525952,2022-02-08-23:18:03,10.1.1.8,39,-0.040,-0.040,-0.040,0.000,0.000,0.000
1644362283386995968,2022-02-08-23:18:03,10.1.1.8,38,-0.030,-0.030,-0.030,0.000,0.000,0.000
1644362283486862848,2022-02-08-23:18:03,10.1.1.8,38,-0.020,-0.020,-0.020,0.000,0.000,0.000
1644362283587204864,2022-02-08-23:18:03,10.1.1.8,36,-0.010,-0.010,-0.010,0.000,0.000,0.000
1644362283686723840,2022-02-08-23:18:03,10.1.1.8,35,0.000,0.000,0.000,0.000,0.000,0.000
1644362283786644992,2022-02-08-23:18:03,10.1.1.8,35,0.010,0.010,0.010,0.000,0.000,0.000
1644362283886776832,2022-02-08-23:18:03,10.1.1.8,35,0.020,0.020,0.020,0.000,0.000,0.000
1644362283987298048,2022-02-08-23:18:03,10.1.1.8,34,0.030,0.030,0.030,0.000,0.000,0.000
1644362284086561024,2022-02-08-23:18:04,10.1.1.8,33,0.040,0.040,0.040,0.000,0.000,0.000
1644362284186676992,2022-02-08-23:18:04,10.1.1.8,32,0.050,0.050,0.050,0.000,0.000,0.000
1644362284286678016,2022-02-08-23:18:04,10.1.1.8,32,0.060,0.060,0.060,0.000,0.000,0.000
1644362284887010048,2022-02-08-23:18:04,10.1.1.8,29,0.080,0.080,0.080,0.000,0.000,0.000
1644362284987222016,2022-02-08-23:18:04,10.1.1.8,29,0.070,0.070,0.070,0.000,0.000,0.000
1644362285087791872,2022-02-08-23:18:05,10.1.1.8,27,0.060,0.060,0.060,0.000,0.000,0.000
1644362285187068928,2022-02-08-23:18:05,10.1.1.8,27,0.050,0.050,0.050,0.000,0.000,0.000
1644362285287036928,2022-02-08-23:18:05,10.1.1.8,27,0.040,0.040,0.040,0.000,0.000,0.000
1644362285387627008,2022-02-08-23:18:05,10.1.1.8,26,0.030,0.030,0.030,0.000,0.000,0.000
1644362285527489792,2022-02-08-23:18:05,10.1.1.8,27,0.020,0.020,0.020,0.000,0.000,0.000
1644362285626943232,2022-02-08-23:18:05,10.1.1.8,26,0.010,0.010,0.010,0.000,0.000,0.000
1644362285727004928,2022-02-08-23:18:05,10.1.1.8,25,0.000,0.000,0.000,0.000,0.000,0.000
1644362285827004928,2022-02-08-23:18:05,10.1.1.8,25,-0.010,-0.010,-0.010,0.000,0.000,0.000
1644362285927416064,2022-02-08-23:18:05,10.1.1.8,24,-0.020,-0.020,-0.020,0.000,0.000,0.000
1644362286027118848,2022-02-08-23:18:06,10.1.1.8,24,-0.030,-0.030,-0.030,0.000,0.000,0.000
1644362286126935040,2022-02-08-23:18:06,10.1.1.8,23,-0.040,-0.040,-0.040,0.000,0.000,0.000
1644362286226816000,2022-02-08-23:18:06,10.1.1.8,23,-0.050,-0.050,-0.050,0.000,0.000,0.000
1644362286326948864,2022-02-08-23:18:06,10.1.1.8,22,-0.060,-0.060,-0.060,0.000,0.000,0.000
1644362286426727936,2022-02-08-23:18:06,10.1.1.8,22,-0.070,-0.070,-0.070,0.000,0.000,0.000
1644362287027166976,2022-02-08-23:18:07,10.1.1.8,19,-0.070,-0.070,-0.070,0.000,0.000,0.000
1644362287147172864,2022-02-08-23:18:07,10.1.1.8,38,-0.060,-0.060,-0.060,0.000,0.000,0.000
1644362287246936064,2022-02-08-23:18:07,10.1.1.8,38,-0.050,-0.050,-0.050,0.000,0.000,0.000
1644362287347271936,2022-02-08-23:18:07,10.1.1.8,38,-0.040,-0.040,-0.040,0.000,0.000,0.000
1644362287447247104,2022-02-08-23:18:07,10.1.1.8,37,-0.030,-0.030,-0.030,0.000,0.000,0.000
1644362287547482112,2022-02-08-23:18:07,10.1.1.8,37,-0.020,-0.020,-0.020,0.000,0.000,0.000
1644362287647446016,2022-02-08-23:18:07,10.1.1.8,36,-0.010,-0.010,-0.010,0.000,0.000,0.000
1644362287747034112,2022-02-08-23:18:07,10.1.1.8,36,0.000,0.000,0.000,0.000,0.000,0.000
1644362287847037184,2022-02-08-23:18:07,10.1.1.8,34,0.010,0.010,0.010,0.000,0.000,0.000
1644362287948080128,2022-02-08-23:18:07,10.1.1.8,33,0.020,0.020,0.020,0.000,0.000,0.000
1644362288047666176,2022-02-08-23:18:08,10.1.1.8,33,0.030,0.030,0.030,0.000,0.000,0.000
1644362288146945024,2022-02-08-23:18:08,10.1.1.8,32,0.040,0.040,0.040,0.000,0.000,0.000
1644362288246702080,2022-02-08-23:18:08,10.1.1.8,32,0.050,0.050,0.050,0.000,0.000,0.000
1644362288646620928,2022-02-08-23:18:08,10.1.1.8,29,0.090,0.090,0.090,0.000,0.000,0.000
1644362288747344128,2022-02-08-23:18:08,10.1.1.8,29,0.100,0.100,0.100,0.000,0.000,0.000
1644362288846385920,2022-02-08-23:18:08,10.1.1.8,28,0.090,0.090,0.090,0.000,0.000,0.000
1644362288946897920,2022-02-08-23:18:08,10.1.1.8,27,0.080,0.080,0.080,0.000,0.000,0.000
1644362289046984960,2022-02-08-23:18:09,10.1.1.8,26,0.070,0.070,0.070,0.000,0.000,0.000
1644362289147369984,2022-02-08-23:18:09,10.1.1.8,25,0.060,0.060,0.060,0.000,0.000,0.000
1644362289246771968,2022-02-08-23:18:09,10.1.1.8,25,0.050,0.050,0.050,0.000,0.000,0.000
1644362289346785024,2022-02-08-23:18:09,10.1.1.8,24,0.040,0.040,0.040,0.000,0.000,0.000
1644362289446727936,2022-02-08-23:18:09,10.1.1.8,24,0.030,0.030,0.030,0.000,0.000,0.000
1644362289547034112,2022-02-08-23:18:09,10.1.1.8,23,0.020,0.020,0.020,0.000,0.000,0.000
1644362289647401216,2022-02-08-23:18:09,10.1.1.8,22,0.010,0.010,0.010,0.000,0.000,0.000
