FedericoMungari/DigitalTwin_service/01_WiredScenario/Output/Output_script/script_rosapi_2_output_robots12_freq0_2.txt
timestamp,date,node,latency,joint_1,joint_2,joint_3,joint_4,joint_5,joint_6
1641234781074825984,2022-01-03-18:33:01,10.1.1.3,165,-0.010,-0.010,-0.010,0.000,0.000,0.000
1641234781273554176,2022-01-03-18:33:01,10.1.1.3,164,-0.020,-0.020,-0.020,0.000,0.000,0.000
1641234781473201152,2022-01-03-18:33:01,10.1.1.3,163,-0.030,-0.030,-0.030,0.000,0.000,0.000
1641234781692611840,2022-01-03-18:33:01,10.1.1.3,181,-0.040,-0.040,-0.040,0.000,0.000,0.000
1641234781892124928,2022-01-03-18:33:01,10.1.1.3,180,-0.050,-0.050,-0.050,0.000,0.000,0.000
1641234782092921856,2022-01-03-18:33:02,10.1.1.3,180,-0.060,-0.060,-0.060,0.000,0.000,0.000
1641234782292673024,2022-01-03-18:33:02,10.1.1.3,179,-0.070,-0.070,-0.070,0.000,0.000,0.000
1641234782491517184,2022-01-03-18:33:02,10.1.1.3,178,-0.080,-0.080,-0.080,0.000,0.000,0.000
1641234782691873024,2022-01-03-18:33:02,10.1.1.3,178,-0.090,-0.090,-0.090,0.000,0.000,0.000
1641234782890782208,2022-01-03-18:33:02,10.1.1.3,176,-0.100,-0.100,-0.100,0.000,0.000,0.000
1641234783090800896,2022-01-03-18:33:03,10.1.1.3,176,-0.110,-0.110,-0.110,0.000,0.000,0.000
1641234783290100224,2022-01-03-18:33:03,10.1.1.3,175,-0.120,-0.120,-0.120,0.000,0.000,0.000
1641234783490078976,2022-01-03-18:33:03,10.1.1.3,174,-0.130,-0.130,-0.130,0.000,0.000,0.000
1641234783689372160,2022-01-03-18:33:03,10.1.1.3,172,-0.140,-0.140,-0.140,0.000,0.000,0.000
1641234783890032896,2022-01-03-18:33:03,10.1.1.3,172,-0.150,-0.150,-0.150,0.000,0.000,0.000
1641234784089262080,2022-01-03-18:33:04,10.1.1.3,171,-0.160,-0.160,-0.160,0.000,0.000,0.000
1641234784288609024,2022-01-03-18:33:04,10.1.1.3,170,-0.170,-0.170,-0.170,0.000,0.000,0.000
1641234784488625152,2022-01-03-18:33:04,10.1.1.3,169,-0.180,-0.180,-0.180,0.000,0.000,0.000
1641234784688344064,2022-01-03-18:33:04,10.1.1.3,168,-0.190,-0.190,-0.190,0.000,0.000,0.000
1641234784888387072,2022-01-03-18:33:04,10.1.1.3,167,-0.200,-0.200,-0.200,0.000,0.000,0.000
1641234785088964864,2022-01-03-18:33:05,10.1.1.3,167,-0.210,-0.210,-0.210,0.000,0.000,0.000
1641234785288151040,2022-01-03-18:33:05,10.1.1.3,166,-0.220,-0.220,-0.220,0.000,0.000,0.000
1641234785492412160,2022-01-03-18:33:05,10.1.1.3,169,-0.230,-0.230,-0.230,0.000,0.000,0.000
1641234785686990080,2022-01-03-18:33:05,10.1.1.3,162,-0.240,-0.240,-0.240,0.000,0.000,0.000
1641234785886352128,2022-01-03-18:33:05,10.1.1.3,160,-0.250,-0.250,-0.250,0.000,0.000,0.000
1641234786086667008,2022-01-03-18:33:06,10.1.1.3,159,-0.260,-0.260,-0.260,0.000,0.000,0.000
1641234786288944896,2022-01-03-18:33:06,10.1.1.3,161,-0.270,-0.270,-0.270,0.000,0.000,0.000
1641234786485789952,2022-01-03-18:33:06,10.1.1.3,157,-0.280,-0.280,-0.280,0.000,0.000,0.000
1641234786685595904,2022-01-03-18:33:06,10.1.1.3,155,-0.290,-0.290,-0.290,0.000,0.000,0.000
1641234786904734976,2022-01-03-18:33:06,10.1.1.3,174,-0.300,-0.300,-0.300,0.000,0.000,0.000
1641234787104427008,2022-01-03-18:33:07,10.1.1.3,173,-0.310,-0.310,-0.310,0.000,0.000,0.000
1641234787303778816,2022-01-03-18:33:07,10.1.1.3,171,-0.320,-0.320,-0.320,0.000,0.000,0.000
1641234787503623936,2022-01-03-18:33:07,10.1.1.3,170,-0.330,-0.330,-0.330,0.000,0.000,0.000
1641234787704449024,2022-01-03-18:33:07,10.1.1.3,170,-0.340,-0.340,-0.340,0.000,0.000,0.000
1641234787903950848,2022-01-03-18:33:07,10.1.1.3,168,-0.350,-0.350,-0.350,0.000,0.000,0.000
1641234788103293952,2022-01-03-18:33:08,10.1.1.3,167,-0.360,-0.360,-0.360,0.000,0.000,0.000
1641234788305608960,2022-01-03-18:33:08,10.1.1.3,168,-0.370,-0.370,-0.370,0.000,0.000,0.000
1641234788506676992,2022-01-03-18:33:08,10.1.1.3,168,-0.380,-0.380,-0.380,0.000,0.000,0.000
1641234788708428032,2022-01-03-18:33:08,10.1.1.3,169,-0.390,-0.390,-0.390,0.000,0.000,0.000
1641234788910437120,2022-01-03-18:33:08,10.1.1.3,171,-0.400,-0.400,-0.400,0.000,0.000,0.000
1641234789112175104,2022-01-03-18:33:09,10.1.1.3,172,-0.410,-0.410,-0.410,0.000,0.000,0.000
1641234789312208896,2022-01-03-18:33:09,10.1.1.3,171,-0.420,-0.420,-0.420,0.000,0.000,0.000
1641234789513808128,2022-01-03-18:33:09,10.1.1.3,172,-0.430,-0.430,-0.430,0.000,0.000,0.000
1641234789714777088,2022-01-03-18:33:09,10.1.1.3,171,-0.440,-0.440,-0.440,0.000,0.000,0.000
1641234789916430080,2022-01-03-18:33:09,10.1.1.3,172,-0.450,-0.450,-0.450,0.000,0.000,0.000
1641234790117283072,2022-01-03-18:33:10,10.1.1.3,172,-0.460,-0.460,-0.460,0.000,0.000,0.000
1641234790318945024,2022-01-03-18:33:10,10.1.1.3,173,-0.470,-0.470,-0.470,0.000,0.000,0.000
1641234790519452160,2022-01-03-18:33:10,10.1.1.3,173,-0.480,-0.480,-0.480,0.000,0.000,0.000
1641234790720620032,2022-01-03-18:33:10,10.1.1.3,171,-0.490,-0.490,-0.490,0.000,0.000,0.000
1641234790920813056,2022-01-03-18:33:10,10.1.1.3,171,-0.480,-0.480,-0.480,0.000,0.000,0.000
1641234791122728192,2022-01-03-18:33:11,10.1.1.3,173,-0.470,-0.470,-0.470,0.000,0.000,0.000
1641234791343020032,2022-01-03-18:33:11,10.1.1.3,192,-0.460,-0.460,-0.460,0.000,0.000,0.000
1641234791544893952,2022-01-03-18:33:11,10.1.1.3,192,-0.450,-0.450,-0.450,0.000,0.000,0.000
1641234791744643840,2022-01-03-18:33:11,10.1.1.3,191,-0.440,-0.440,-0.440,0.000,0.000,0.000
1641234791945911808,2022-01-03-18:33:11,10.1.1.3,191,-0.430,-0.430,-0.430,0.000,0.000,0.000
1641234792147056128,2022-01-03-18:33:12,10.1.1.3,192,-0.420,-0.420,-0.420,0.000,0.000,0.000
1641234792347132928,2022-01-03-18:33:12,10.1.1.3,191,-0.410,-0.410,-0.410,0.000,0.000,0.000
1641234792548494080,2022-01-03-18:33:12,10.1.1.3,191,-0.400,-0.400,-0.400,0.000,0.000,0.000
1641234792748701952,2022-01-03-18:33:12,10.1.1.3,191,-0.390,-0.390,-0.390,0.000,0.000,0.000
1641234792950021888,2022-01-03-18:33:12,10.1.1.3,192,-0.380,-0.380,-0.380,0.000,0.000,0.000
1641234793149843968,2022-01-03-18:33:13,10.1.1.3,191,-0.370,-0.370,-0.370,0.000,0.000,0.000
1641234793352529152,2022-01-03-18:33:13,10.1.1.3,194,-0.360,-0.360,-0.360,0.000,0.000,0.000
1641234793550766080,2022-01-03-18:33:13,10.1.1.3,191,-0.350,-0.350,-0.350,0.000,0.000,0.000
1641234793752073984,2022-01-03-18:33:13,10.1.1.3,191,-0.340,-0.340,-0.340,0.000,0.000,0.000
1641234793952389120,2022-01-03-18:33:13,10.1.1.3,191,-0.330,-0.330,-0.330,0.000,0.000,0.000
1641234794152350976,2022-01-03-18:33:14,10.1.1.3,191,-0.320,-0.320,-0.320,0.000,0.000,0.000
1641234794354119168,2022-01-03-18:33:14,10.1.1.3,192,-0.310,-0.310,-0.310,0.000,0.000,0.000
1641234794554420992,2022-01-03-18:33:14,10.1.1.3,191,-0.300,-0.300,-0.300,0.000,0.000,0.000
1641234794754311168,2022-01-03-18:33:14,10.1.1.3,191,-0.290,-0.290,-0.290,0.000,0.000,0.000
1641234794954263040,2022-01-03-18:33:14,10.1.1.3,190,-0.280,-0.280,-0.280,0.000,0.000,0.000
1641234795155096064,2022-01-03-18:33:15,10.1.1.3,190,-0.270,-0.270,-0.270,0.000,0.000,0.000
1641234795356247808,2022-01-03-18:33:15,10.1.1.3,188,-0.260,-0.260,-0.260,0.000,0.000,0.000
1641234795560380928,2022-01-03-18:33:15,10.1.1.3,192,-0.250,-0.250,-0.250,0.000,0.000,0.000
1641234795759979008,2022-01-03-18:33:15,10.1.1.3,190,-0.240,-0.240,-0.240,0.000,0.000,0.000
1641234796978647040,2022-01-03-18:33:16,10.1.1.3,193,-0.180,-0.180,-0.180,0.000,0.000,0.000
1641234797179660032,2022-01-03-18:33:17,10.1.1.3,193,-0.170,-0.170,-0.170,0.000,0.000,0.000
1641234797385216000,2022-01-03-18:33:17,10.1.1.3,196,-0.160,-0.160,-0.160,0.000,0.000,0.000
1641234798600069120,2022-01-03-18:33:18,10.1.1.3,200,-0.100,-0.100,-0.100,0.000,0.000,0.000
1641234798799443968,2022-01-03-18:33:18,10.1.1.3,198,-0.090,-0.090,-0.090,0.000,0.000,0.000
1641234799000907776,2022-01-03-18:33:19,10.1.1.3,199,-0.080,-0.080,-0.080,0.000,0.000,0.000
1641234799204168960,2022-01-03-18:33:19,10.1.1.3,198,-0.070,-0.070,-0.070,0.000,0.000,0.000
1641234799400294144,2022-01-03-18:33:19,10.1.1.3,191,-0.060,-0.060,-0.060,0.000,0.000,0.000
1641234799600882944,2022-01-03-18:33:19,10.1.1.3,191,-0.050,-0.050,-0.050,0.000,0.000,0.000
1641234800621103104,2022-01-03-18:33:20,10.1.1.3,201,0.000,0.000,0.000,0.000,0.000,0.000
1641234800820271872,2022-01-03-18:33:20,10.1.1.3,198,-0.010,-0.010,-0.010,0.000,0.000,0.000
1641234801020168960,2022-01-03-18:33:21,10.1.1.3,198,-0.020,-0.020,-0.020,0.000,0.000,0.000
1641234801220580096,2022-01-03-18:33:21,10.1.1.3,198,-0.030,-0.030,-0.030,0.000,0.000,0.000
1641234801420592128,2022-01-03-18:33:21,10.1.1.3,196,-0.040,-0.040,-0.040,0.000,0.000,0.000
1641234801623156992,2022-01-03-18:33:21,10.1.1.3,194,-0.050,-0.050,-0.050,0.000,0.000,0.000
1641234801820323072,2022-01-03-18:33:21,10.1.1.3,193,-0.060,-0.060,-0.060,0.000,0.000,0.000
1641234802026499072,2022-01-03-18:33:22,10.1.1.3,198,-0.070,-0.070,-0.070,0.000,0.000,0.000
1641234802242404864,2022-01-03-18:33:22,10.1.1.3,203,-0.080,-0.080,-0.080,0.000,0.000,0.000
1641234802441862144,2022-01-03-18:33:22,10.1.1.3,191,-0.090,-0.090,-0.090,0.000,0.000,0.000
1641234803466178048,2022-01-03-18:33:23,10.1.1.3,196,-0.140,-0.140,-0.140,0.000,0.000,0.000
1641234803880267008,2022-01-03-18:33:23,10.1.1.3,198,-0.160,-0.160,-0.160,0.000,0.000,0.000
1641234804081687808,2022-01-03-18:33:24,10.1.1.3,199,-0.170,-0.170,-0.170,0.000,0.000,0.000
1641234804281257984,2022-01-03-18:33:24,10.1.1.3,196,-0.180,-0.180,-0.180,0.000,0.000,0.000
1641234804480307968,2022-01-03-18:33:24,10.1.1.3,195,-0.190,-0.190,-0.190,0.000,0.000,0.000
1641234804681633024,2022-01-03-18:33:24,10.1.1.3,193,-0.200,-0.200,-0.200,0.000,0.000,0.000
1641234804880999936,2022-01-03-18:33:24,10.1.1.3,193,-0.210,-0.210,-0.210,0.000,0.000,0.000
1641234805081910016,2022-01-03-18:33:25,10.1.1.3,193,-0.220,-0.220,-0.220,0.000,0.000,0.000
1641234805278650880,2022-01-03-18:33:25,10.1.1.3,188,-0.230,-0.230,-0.230,0.000,0.000,0.000
1641234805898000128,2022-01-03-18:33:25,10.1.1.3,195,-0.260,-0.260,-0.260,0.000,0.000,0.000
1641234806099653888,2022-01-03-18:33:26,10.1.1.3,196,-0.270,-0.270,-0.270,0.000,0.000,0.000
1641234806301670144,2022-01-03-18:33:26,10.1.1.3,198,-0.280,-0.280,-0.280,0.000,0.000,0.000
1641234806498569984,2022-01-03-18:33:26,10.1.1.3,194,-0.290,-0.290,-0.290,0.000,0.000,0.000
1641234806916950016,2022-01-03-18:33:26,10.1.1.3,200,-0.310,-0.310,-0.310,0.000,0.000,0.000
1641234807117449984,2022-01-03-18:33:27,10.1.1.3,200,-0.320,-0.320,-0.320,0.000,0.000,0.000
1641234807316786176,2022-01-03-18:33:27,10.1.1.3,198,-0.330,-0.330,-0.330,0.000,0.000,0.000
1641234807516570112,2022-01-03-18:33:27,10.1.1.3,197,-0.340,-0.340,-0.340,0.000,0.000,0.000
1641234807718359040,2022-01-03-18:33:27,10.1.1.3,197,-0.350,-0.350,-0.350,0.000,0.000,0.000
1641234808335983872,2022-01-03-18:33:28,10.1.1.3,200,-0.380,-0.380,-0.380,0.000,0.000,0.000
1641234808737158912,2022-01-03-18:33:28,10.1.1.3,200,-0.400,-0.400,-0.400,0.000,0.000,0.000
1641234808934683136,2022-01-03-18:33:28,10.1.1.3,196,-0.410,-0.410,-0.410,0.000,0.000,0.000
1641234809134776064,2022-01-03-18:33:29,10.1.1.3,196,-0.420,-0.420,-0.420,0.000,0.000,0.000
1641234809336431872,2022-01-03-18:33:29,10.1.1.3,197,-0.430,-0.430,-0.430,0.000,0.000,0.000
1641234809534123008,2022-01-03-18:33:29,10.1.1.3,193,-0.440,-0.440,-0.440,0.000,0.000,0.000
1641234809733787136,2022-01-03-18:33:29,10.1.1.3,192,-0.450,-0.450,-0.450,0.000,0.000,0.000
1641234809934777856,2022-01-03-18:33:29,10.1.1.3,189,-0.460,-0.460,-0.460,0.000,0.000,0.000
1641234810134830848,2022-01-03-18:33:30,10.1.1.3,188,-0.470,-0.470,-0.470,0.000,0.000,0.000
1641234810334148864,2022-01-03-18:33:30,10.1.1.3,187,-0.480,-0.480,-0.480,0.000,0.000,0.000
1641234810533245184,2022-01-03-18:33:30,10.1.1.3,185,-0.490,-0.490,-0.490,0.000,0.000,0.000
1641234810733762048,2022-01-03-18:33:30,10.1.1.3,185,-0.480,-0.480,-0.480,0.000,0.000,0.000
1641234810932552192,2022-01-03-18:33:30,10.1.1.3,183,-0.470,-0.470,-0.470,0.000,0.000,0.000
1641234811352255232,2022-01-03-18:33:31,10.1.1.3,200,-0.450,-0.450,-0.450,0.000,0.000,0.000
1641234811551436032,2022-01-03-18:33:31,10.1.1.3,198,-0.440,-0.440,-0.440,0.000,0.000,0.000
1641234811755502080,2022-01-03-18:33:31,10.1.1.3,201,-0.430,-0.430,-0.430,0.000,0.000,0.000
1641234811952128768,2022-01-03-18:33:31,10.1.1.3,195,-0.420,-0.420,-0.420,0.000,0.000,0.000
1641234812151433984,2022-01-03-18:33:32,10.1.1.3,193,-0.410,-0.410,-0.410,0.000,0.000,0.000
1641234812352633088,2022-01-03-18:33:32,10.1.1.3,194,-0.400,-0.400,-0.400,0.000,0.000,0.000
1641234812550370048,2022-01-03-18:33:32,10.1.1.3,190,-0.390,-0.390,-0.390,0.000,0.000,0.000
1641234812749932032,2022-01-03-18:33:32,10.1.1.3,189,-0.380,-0.380,-0.380,0.000,0.000,0.000
1641234812950974976,2022-01-03-18:33:32,10.1.1.3,189,-0.370,-0.370,-0.370,0.000,0.000,0.000
1641234813151049984,2022-01-03-18:33:33,10.1.1.3,188,-0.360,-0.360,-0.360,0.000,0.000,0.000
1641234813350996992,2022-01-03-18:33:33,10.1.1.3,187,-0.350,-0.350,-0.350,0.000,0.000,0.000
1641234813550260992,2022-01-03-18:33:33,10.1.1.3,185,-0.340,-0.340,-0.340,0.000,0.000,0.000
1641234813749330944,2022-01-03-18:33:33,10.1.1.3,183,-0.330,-0.330,-0.330,0.000,0.000,0.000
1641234813948263936,2022-01-03-18:33:33,10.1.1.3,180,-0.320,-0.320,-0.320,0.000,0.000,0.000
1641234814148838144,2022-01-03-18:33:34,10.1.1.3,180,-0.310,-0.310,-0.310,0.000,0.000,0.000
1641234814347625984,2022-01-03-18:33:34,10.1.1.3,178,-0.300,-0.300,-0.300,0.000,0.000,0.000
1641234814549779968,2022-01-03-18:33:34,10.1.1.3,177,-0.290,-0.290,-0.290,0.000,0.000,0.000
1641234814766665984,2022-01-03-18:33:34,10.1.1.3,195,-0.280,-0.280,-0.280,0.000,0.000,0.000
1641234814968012032,2022-01-03-18:33:34,10.1.1.3,195,-0.270,-0.270,-0.270,0.000,0.000,0.000
1641234815170535936,2022-01-03-18:33:35,10.1.1.3,195,-0.260,-0.260,-0.260,0.000,0.000,0.000
1641234815367292928,2022-01-03-18:33:35,10.1.1.3,189,-0.250,-0.250,-0.250,0.000,0.000,0.000
1641234815566876928,2022-01-03-18:33:35,10.1.1.3,188,-0.240,-0.240,-0.240,0.000,0.000,0.000
1641234815766196992,2022-01-03-18:33:35,10.1.1.3,187,-0.230,-0.230,-0.230,0.000,0.000,0.000
1641234815965956096,2022-01-03-18:33:35,10.1.1.3,184,-0.220,-0.220,-0.220,0.000,0.000,0.000
1641234816165481216,2022-01-03-18:33:36,10.1.1.3,183,-0.210,-0.210,-0.210,0.000,0.000,0.000
1641234816365339904,2022-01-03-18:33:36,10.1.1.3,182,-0.200,-0.200,-0.200,0.000,0.000,0.000
1641234816564451840,2022-01-03-18:33:36,10.1.1.3,181,-0.190,-0.190,-0.190,0.000,0.000,0.000
1641234816764806144,2022-01-03-18:33:36,10.1.1.3,180,-0.180,-0.180,-0.180,0.000,0.000,0.000
1641234816964407040,2022-01-03-18:33:36,10.1.1.3,177,-0.170,-0.170,-0.170,0.000,0.000,0.000
1641234817183581952,2022-01-03-18:33:37,10.1.1.3,192,-0.160,-0.160,-0.160,0.000,0.000,0.000
1641234817384769792,2022-01-03-18:33:37,10.1.1.3,189,-0.150,-0.150,-0.150,0.000,0.000,0.000
1641234817585647104,2022-01-03-18:33:37,10.1.1.3,189,-0.140,-0.140,-0.140,0.000,0.000,0.000
1641234817783014144,2022-01-03-18:33:37,10.1.1.3,186,-0.130,-0.130,-0.130,0.000,0.000,0.000
1641234817983426048,2022-01-03-18:33:37,10.1.1.3,185,-0.120,-0.120,-0.120,0.000,0.000,0.000
1641234818183152896,2022-01-03-18:33:38,10.1.1.3,184,-0.110,-0.110,-0.110,0.000,0.000,0.000
1641234818382898944,2022-01-03-18:33:38,10.1.1.3,183,-0.100,-0.100,-0.100,0.000,0.000,0.000
1641234818582680064,2022-01-03-18:33:38,10.1.1.3,182,-0.090,-0.090,-0.090,0.000,0.000,0.000
1641234818782102016,2022-01-03-18:33:38,10.1.1.3,180,-0.080,-0.080,-0.080,0.000,0.000,0.000
1641234818992446976,2022-01-03-18:33:38,10.1.1.3,190,-0.070,-0.070,-0.070,0.000,0.000,0.000
1641234819183166976,2022-01-03-18:33:39,10.1.1.3,179,-0.060,-0.060,-0.060,0.000,0.000,0.000
1641234819380858880,2022-01-03-18:33:39,10.1.1.3,177,-0.050,-0.050,-0.050,0.000,0.000,0.000
1641234819580632832,2022-01-03-18:33:39,10.1.1.3,174,-0.040,-0.040,-0.040,0.000,0.000,0.000
1641234819779894016,2022-01-03-18:33:39,10.1.1.3,173,-0.030,-0.030,-0.030,0.000,0.000,0.000
1641234819981355008,2022-01-03-18:33:39,10.1.1.3,173,-0.020,-0.020,-0.020,0.000,0.000,0.000
1641234820180663040,2022-01-03-18:33:40,10.1.1.3,171,-0.010,-0.010,-0.010,0.000,0.000,0.000
1641234820382440192,2022-01-03-18:33:40,10.1.1.3,173,-0.000,-0.000,-0.000,0.000,0.000,0.000
1641234820581007872,2022-01-03-18:33:40,10.1.1.3,170,-0.010,-0.010,-0.010,0.000,0.000,0.000
1641234820800257024,2022-01-03-18:33:40,10.1.1.3,188,-0.020,-0.020,-0.020,0.000,0.000,0.000
1641234821001799168,2022-01-03-18:33:41,10.1.1.3,189,-0.030,-0.030,-0.030,0.000,0.000,0.000
1641234821200377088,2022-01-03-18:33:41,10.1.1.3,187,-0.040,-0.040,-0.040,0.000,0.000,0.000
1641234821402697984,2022-01-03-18:33:41,10.1.1.3,187,-0.050,-0.050,-0.050,0.000,0.000,0.000
1641234821600611072,2022-01-03-18:33:41,10.1.1.3,184,-0.060,-0.060,-0.060,0.000,0.000,0.000
1641234821800355840,2022-01-03-18:33:41,10.1.1.3,182,-0.070,-0.070,-0.070,0.000,0.000,0.000
1641234822000675840,2022-01-03-18:33:42,10.1.1.3,181,-0.080,-0.080,-0.080,0.000,0.000,0.000
1641234822200753920,2022-01-03-18:33:42,10.1.1.3,181,-0.090,-0.090,-0.090,0.000,0.000,0.000
1641234822401068800,2022-01-03-18:33:42,10.1.1.3,177,-0.100,-0.100,-0.100,0.000,0.000,0.000
1641234822602964992,2022-01-03-18:33:42,10.1.1.3,178,-0.110,-0.110,-0.110,0.000,0.000,0.000
1641234822801054976,2022-01-03-18:33:42,10.1.1.3,176,-0.120,-0.120,-0.120,0.000,0.000,0.000
1641234823004802048,2022-01-03-18:33:43,10.1.1.3,178,-0.130,-0.130,-0.130,0.000,0.000,0.000
1641234823201661184,2022-01-03-18:33:43,10.1.1.3,174,-0.140,-0.140,-0.140,0.000,0.000,0.000
1641234823401210112,2022-01-03-18:33:43,10.1.1.3,171,-0.150,-0.150,-0.150,0.000,0.000,0.000
1641234823621129984,2022-01-03-18:33:43,10.1.1.3,190,-0.160,-0.160,-0.160,0.000,0.000,0.000
1641234823877555968,2022-01-03-18:33:43,10.1.1.3,190,-0.170,-0.170,-0.170,0.000,0.000,0.000
1641234824062851840,2022-01-03-18:33:44,10.1.1.3,185,-0.180,-0.180,-0.180,0.000,0.000,0.000
1641234824262659072,2022-01-03-18:33:44,10.1.1.3,183,-0.190,-0.190,-0.190,0.000,0.000,0.000
1641234824461724160,2022-01-03-18:33:44,10.1.1.3,178,-0.200,-0.200,-0.200,0.000,0.000,0.000
1641234824663130880,2022-01-03-18:33:44,10.1.1.3,178,-0.210,-0.210,-0.210,0.000,0.000,0.000
1641234824863243008,2022-01-03-18:33:44,10.1.1.3,176,-0.220,-0.220,-0.220,0.000,0.000,0.000
1641234825083048192,2022-01-03-18:33:45,10.1.1.3,188,-0.230,-0.230,-0.230,0.000,0.000,0.000
1641234825281914112,2022-01-03-18:33:45,10.1.1.3,183,-0.240,-0.240,-0.240,0.000,0.000,0.000
1641234825482096896,2022-01-03-18:33:45,10.1.1.3,183,-0.250,-0.250,-0.250,0.000,0.000,0.000
1641234825681704960,2022-01-03-18:33:45,10.1.1.3,179,-0.260,-0.260,-0.260,0.000,0.000,0.000
1641234825883197952,2022-01-03-18:33:45,10.1.1.3,179,-0.270,-0.270,-0.270,0.000,0.000,0.000
1641234826081989120,2022-01-03-18:33:46,10.1.1.3,176,-0.280,-0.280,-0.280,0.000,0.000,0.000
1641234826289650944,2022-01-03-18:33:46,10.1.1.3,182,-0.290,-0.290,-0.290,0.000,0.000,0.000
1641234826502840064,2022-01-03-18:33:46,10.1.1.3,190,-0.300,-0.300,-0.300,0.000,0.000,0.000
1641234826702291968,2022-01-03-18:33:46,10.1.1.3,183,-0.310,-0.310,-0.310,0.000,0.000,0.000
1641234826925203968,2022-01-03-18:33:46,10.1.1.3,205,-0.320,-0.320,-0.320,0.000,0.000,0.000
1641234827144082944,2022-01-03-18:33:47,10.1.1.3,190,-0.330,-0.330,-0.330,0.000,0.000,0.000
1641234827362190080,2022-01-03-18:33:47,10.1.1.3,182,-0.340,-0.340,-0.340,0.000,0.000,0.000
1641234827564229120,2022-01-03-18:33:47,10.1.1.3,181,-0.350,-0.350,-0.350,0.000,0.000,0.000
1641234827762532864,2022-01-03-18:33:47,10.1.1.3,177,-0.360,-0.360,-0.360,0.000,0.000,0.000
1641234827983732992,2022-01-03-18:33:47,10.1.1.3,187,-0.370,-0.370,-0.370,0.000,0.000,0.000
1641234828182846976,2022-01-03-18:33:48,10.1.1.3,185,-0.380,-0.380,-0.380,0.000,0.000,0.000
1641234828383488768,2022-01-03-18:33:48,10.1.1.3,185,-0.390,-0.390,-0.390,0.000,0.000,0.000
1641234828583232000,2022-01-03-18:33:48,10.1.1.3,184,-0.400,-0.400,-0.400,0.000,0.000,0.000
1641234828783926016,2022-01-03-18:33:48,10.1.1.3,184,-0.410,-0.410,-0.410,0.000,0.000,0.000
1641234828982274048,2022-01-03-18:33:48,10.1.1.3,182,-0.420,-0.420,-0.420,0.000,0.000,0.000
1641234829182419968,2022-01-03-18:33:49,10.1.1.3,181,-0.430,-0.430,-0.430,0.000,0.000,0.000
1641234829382347008,2022-01-03-18:33:49,10.1.1.3,178,-0.440,-0.440,-0.440,0.000,0.000,0.000
1641234829584621824,2022-01-03-18:33:49,10.1.1.3,179,-0.450,-0.450,-0.450,0.000,0.000,0.000
1641234829782688000,2022-01-03-18:33:49,10.1.1.3,177,-0.460,-0.460,-0.460,0.000,0.000,0.000
1641234829982775808,2022-01-03-18:33:49,10.1.1.3,176,-0.470,-0.470,-0.470,0.000,0.000,0.000
1641234830181832192,2022-01-03-18:33:50,10.1.1.3,174,-0.480,-0.480,-0.480,0.000,0.000,0.000
1641234830381360896,2022-01-03-18:33:50,10.1.1.3,171,-0.490,-0.490,-0.490,0.000,0.000,0.000
1641234830604291840,2022-01-03-18:33:50,10.1.1.3,193,-0.480,-0.480,-0.480,0.000,0.000,0.000
1641234830803767808,2022-01-03-18:33:50,10.1.1.3,192,-0.470,-0.470,-0.470,0.000,0.000,0.000
1641234831001876992,2022-01-03-18:33:51,10.1.1.3,184,-0.460,-0.460,-0.460,0.000,0.000,0.000
1641234831203706880,2022-01-03-18:33:51,10.1.1.3,183,-0.450,-0.450,-0.450,0.000,0.000,0.000
1641234831414341888,2022-01-03-18:33:51,10.1.1.3,193,-0.440,-0.440,-0.440,0.000,0.000,0.000
1641234831604100864,2022-01-03-18:33:51,10.1.1.3,181,-0.430,-0.430,-0.430,0.000,0.000,0.000
1641234831800813824,2022-01-03-18:33:51,10.1.1.3,178,-0.420,-0.420,-0.420,0.000,0.000,0.000
1641234832027749888,2022-01-03-18:33:52,10.1.1.3,200,-0.410,-0.410,-0.410,0.000,0.000,0.000
1641234832220526080,2022-01-03-18:33:52,10.1.1.3,185,-0.400,-0.400,-0.400,0.000,0.000,0.000
1641234832421163008,2022-01-03-18:33:52,10.1.1.3,184,-0.390,-0.390,-0.390,0.000,0.000,0.000
1641234832620256000,2022-01-03-18:33:52,10.1.1.3,182,-0.380,-0.380,-0.380,0.000,0.000,0.000
1641234832820050944,2022-01-03-18:33:52,10.1.1.3,180,-0.370,-0.370,-0.370,0.000,0.000,0.000
1641234833020370944,2022-01-03-18:33:53,10.1.1.3,180,-0.360,-0.360,-0.360,0.000,0.000,0.000
1641234833220451072,2022-01-03-18:33:53,10.1.1.3,179,-0.350,-0.350,-0.350,0.000,0.000,0.000
1641234833423896064,2022-01-03-18:33:53,10.1.1.3,181,-0.340,-0.340,-0.340,0.000,0.000,0.000
1641234833619843840,2022-01-03-18:33:53,10.1.1.3,177,-0.330,-0.330,-0.330,0.000,0.000,0.000
1641234833819328000,2022-01-03-18:33:53,10.1.1.3,176,-0.320,-0.320,-0.320,0.000,0.000,0.000
1641234834019870976,2022-01-03-18:33:54,10.1.1.3,176,-0.310,-0.310,-0.310,0.000,0.000,0.000
1641234834220519936,2022-01-03-18:33:54,10.1.1.3,176,-0.300,-0.300,-0.300,0.000,0.000,0.000
1641234834424923904,2022-01-03-18:33:54,10.1.1.3,177,-0.290,-0.290,-0.290,0.000,0.000,0.000
1641234834618941952,2022-01-03-18:33:54,10.1.1.3,171,-0.280,-0.280,-0.280,0.000,0.000,0.000
1641234834818629120,2022-01-03-18:33:54,10.1.1.3,170,-0.270,-0.270,-0.270,0.000,0.000,0.000
1641234835043036928,2022-01-03-18:33:55,10.1.1.3,193,-0.260,-0.260,-0.260,0.000,0.000,0.000
1641234835243496960,2022-01-03-18:33:55,10.1.1.3,182,-0.250,-0.250,-0.250,0.000,0.000,0.000
1641234835438929152,2022-01-03-18:33:55,10.1.1.3,176,-0.240,-0.240,-0.240,0.000,0.000,0.000
1641234835638552064,2022-01-03-18:33:55,10.1.1.3,175,-0.230,-0.230,-0.230,0.000,0.000,0.000
1641234835837667840,2022-01-03-18:33:55,10.1.1.3,174,-0.220,-0.220,-0.220,0.000,0.000,0.000
1641234836038362112,2022-01-03-18:33:56,10.1.1.3,174,-0.210,-0.210,-0.210,0.000,0.000,0.000
1641234836237778944,2022-01-03-18:33:56,10.1.1.3,172,-0.200,-0.200,-0.200,0.000,0.000,0.000
1641234836437762048,2022-01-03-18:33:56,10.1.1.3,170,-0.190,-0.190,-0.190,0.000,0.000,0.000
1641234836642764032,2022-01-03-18:33:56,10.1.1.3,172,-0.180,-0.180,-0.180,0.000,0.000,0.000
1641234836857675008,2022-01-03-18:33:56,10.1.1.3,185,-0.170,-0.170,-0.170,0.000,0.000,0.000
1641234837058414848,2022-01-03-18:33:57,10.1.1.3,185,-0.160,-0.160,-0.160,0.000,0.000,0.000
1641234837256783872,2022-01-03-18:33:57,10.1.1.3,183,-0.150,-0.150,-0.150,0.000,0.000,0.000
1641234837457472000,2022-01-03-18:33:57,10.1.1.3,183,-0.140,-0.140,-0.140,0.000,0.000,0.000
1641234837657282048,2022-01-03-18:33:57,10.1.1.3,183,-0.130,-0.130,-0.130,0.000,0.000,0.000
1641234837857794048,2022-01-03-18:33:57,10.1.1.3,182,-0.120,-0.120,-0.120,0.000,0.000,0.000
1641234838056015872,2022-01-03-18:33:58,10.1.1.3,180,-0.110,-0.110,-0.110,0.000,0.000,0.000
1641234838256792064,2022-01-03-18:33:58,10.1.1.3,179,-0.100,-0.100,-0.100,0.000,0.000,0.000
1641234838456596992,2022-01-03-18:33:58,10.1.1.3,178,-0.090,-0.090,-0.090,0.000,0.000,0.000
1641234838671889152,2022-01-03-18:33:58,10.1.1.3,193,-0.080,-0.080,-0.080,0.000,0.000,0.000
1641234839095971072,2022-01-03-18:33:59,10.1.1.3,182,-0.060,-0.060,-0.060,0.000,0.000,0.000
1641234839301456896,2022-01-03-18:33:59,10.1.1.3,187,-0.050,-0.050,-0.050,0.000,0.000,0.000
1641234839496366080,2022-01-03-18:33:59,10.1.1.3,180,-0.040,-0.040,-0.040,0.000,0.000,0.000
1641234839697187072,2022-01-03-18:33:59,10.1.1.3,179,-0.030,-0.030,-0.030,0.000,0.000,0.000
1641234839898582016,2022-01-03-18:33:59,10.1.1.3,180,-0.020,-0.020,-0.020,0.000,0.000,0.000
1641234840316182016,2022-01-03-18:34:00,10.1.1.3,180,0.000,0.000,0.000,0.000,0.000,0.000
1641234840533776896,2022-01-03-18:34:00,10.1.1.3,181,-0.010,-0.010,-0.010,0.000,0.000,0.000
1641234840733860096,2022-01-03-18:34:00,10.1.1.3,180,-0.020,-0.020,-0.020,0.000,0.000,0.000
1641234840934626048,2022-01-03-18:34:00,10.1.1.3,180,-0.030,-0.030,-0.030,0.000,0.000,0.000
1641234841133400064,2022-01-03-18:34:01,10.1.1.3,170,-0.040,-0.040,-0.040,0.000,0.000,0.000
1641234841335366912,2022-01-03-18:34:01,10.1.1.3,170,-0.050,-0.050,-0.050,0.000,0.000,0.000
1641234841533035008,2022-01-03-18:34:01,10.1.1.3,166,-0.060,-0.060,-0.060,0.000,0.000,0.000
1641234841732808192,2022-01-03-18:34:01,10.1.1.3,163,-0.070,-0.070,-0.070,0.000,0.000,0.000
1641234841933867008,2022-01-03-18:34:01,10.1.1.3,163,-0.080,-0.080,-0.080,0.000,0.000,0.000
1641234842153395968,2022-01-03-18:34:02,10.1.1.3,180,-0.090,-0.090,-0.090,0.000,0.000,0.000
1641234842352036864,2022-01-03-18:34:02,10.1.1.3,178,-0.100,-0.100,-0.100,0.000,0.000,0.000
1641234842552396032,2022-01-03-18:34:02,10.1.1.3,177,-0.110,-0.110,-0.110,0.000,0.000,0.000
1641234842752998144,2022-01-03-18:34:02,10.1.1.3,170,-0.120,-0.120,-0.120,0.000,0.000,0.000
1641234842953161984,2022-01-03-18:34:02,10.1.1.3,171,-0.130,-0.130,-0.130,0.000,0.000,0.000
1641234843154109952,2022-01-03-18:34:03,10.1.1.3,171,-0.140,-0.140,-0.140,0.000,0.000,0.000
1641234843374001152,2022-01-03-18:34:03,10.1.1.3,180,-0.150,-0.150,-0.150,0.000,0.000,0.000
1641234843576990976,2022-01-03-18:34:03,10.1.1.3,182,-0.160,-0.160,-0.160,0.000,0.000,0.000
1641234843771186176,2022-01-03-18:34:03,10.1.1.3,176,-0.170,-0.170,-0.170,0.000,0.000,0.000
1641234843970190080,2022-01-03-18:34:03,10.1.1.3,173,-0.180,-0.180,-0.180,0.000,0.000,0.000
1641234844170077184,2022-01-03-18:34:04,10.1.1.3,171,-0.190,-0.190,-0.190,0.000,0.000,0.000
1641234844369867008,2022-01-03-18:34:04,10.1.1.3,168,-0.200,-0.200,-0.200,0.000,0.000,0.000
1641234844570346240,2022-01-03-18:34:04,10.1.1.3,167,-0.210,-0.210,-0.210,0.000,0.000,0.000
1641234844772720128,2022-01-03-18:34:04,10.1.1.3,168,-0.220,-0.220,-0.220,0.000,0.000,0.000
1641234844969784064,2022-01-03-18:34:04,10.1.1.3,163,-0.230,-0.230,-0.230,0.000,0.000,0.000
1641234845191131136,2022-01-03-18:34:05,10.1.1.3,176,-0.240,-0.240,-0.240,0.000,0.000,0.000
1641234845391604992,2022-01-03-18:34:05,10.1.1.3,173,-0.250,-0.250,-0.250,0.000,0.000,0.000
1641234845593007104,2022-01-03-18:34:05,10.1.1.3,174,-0.260,-0.260,-0.260,0.000,0.000,0.000
1641234845791088128,2022-01-03-18:34:05,10.1.1.3,172,-0.270,-0.270,-0.270,0.000,0.000,0.000
1641234846033821184,2022-01-03-18:34:06,10.1.1.3,210,-0.280,-0.280,-0.280,0.000,0.000,0.000
1641234846209858816,2022-01-03-18:34:06,10.1.1.3,163,-0.290,-0.290,-0.290,0.000,0.000,0.000
1641234846410213120,2022-01-03-18:34:06,10.1.1.3,162,-0.300,-0.300,-0.300,0.000,0.000,0.000
1641234846627345152,2022-01-03-18:34:06,10.1.1.3,176,-0.310,-0.310,-0.310,0.000,0.000,0.000
1641234846810103040,2022-01-03-18:34:06,10.1.1.3,157,-0.320,-0.320,-0.320,0.000,0.000,0.000
1641234847235153920,2022-01-03-18:34:07,10.1.1.3,171,-0.340,-0.340,-0.340,0.000,0.000,0.000
1641234847450812160,2022-01-03-18:34:07,10.1.1.3,177,-0.350,-0.350,-0.350,0.000,0.000,0.000
1641234847651851008,2022-01-03-18:34:07,10.1.1.3,172,-0.360,-0.360,-0.360,0.000,0.000,0.000
1641234847848481792,2022-01-03-18:34:07,10.1.1.3,169,-0.370,-0.370,-0.370,0.000,0.000,0.000
1641234848045507840,2022-01-03-18:34:08,10.1.1.3,165,-0.380,-0.380,-0.380,0.000,0.000,0.000
1641234848245474048,2022-01-03-18:34:08,10.1.1.3,164,-0.390,-0.390,-0.390,0.000,0.000,0.000
1641234848448064000,2022-01-03-18:34:08,10.1.1.3,164,-0.400,-0.400,-0.400,0.000,0.000,0.000
1641234848645280000,2022-01-03-18:34:08,10.1.1.3,160,-0.410,-0.410,-0.410,0.000,0.000,0.000
1641234848847345152,2022-01-03-18:34:08,10.1.1.3,161,-0.420,-0.420,-0.420,0.000,0.000,0.000
1641234849048610048,2022-01-03-18:34:09,10.1.1.3,160,-0.430,-0.430,-0.430,0.000,0.000,0.000
1641234849243244800,2022-01-03-18:34:09,10.1.1.3,154,-0.440,-0.440,-0.440,0.000,0.000,0.000
1641234849444925952,2022-01-03-18:34:09,10.1.1.3,154,-0.450,-0.450,-0.450,0.000,0.000,0.000
1641234849664771072,2022-01-03-18:34:09,10.1.1.3,173,-0.460,-0.460,-0.460,0.000,0.000,0.000
1641234849862567936,2022-01-03-18:34:09,10.1.1.3,171,-0.470,-0.470,-0.470,0.000,0.000,0.000
1641234850062135808,2022-01-03-18:34:10,10.1.1.3,170,-0.480,-0.480,-0.480,0.000,0.000,0.000
1641234850265366016,2022-01-03-18:34:10,10.1.1.3,172,-0.490,-0.490,-0.490,0.000,0.000,0.000
1641234850463949824,2022-01-03-18:34:10,10.1.1.3,169,-0.480,-0.480,-0.480,0.000,0.000,0.000
1641234850661783808,2022-01-03-18:34:10,10.1.1.3,162,-0.470,-0.470,-0.470,0.000,0.000,0.000
1641234850863723008,2022-01-03-18:34:10,10.1.1.3,160,-0.460,-0.460,-0.460,0.000,0.000,0.000
1641234851063713024,2022-01-03-18:34:11,10.1.1.3,159,-0.450,-0.450,-0.450,0.000,0.000,0.000
1641234851284684032,2022-01-03-18:34:11,10.1.1.3,174,-0.440,-0.440,-0.440,0.000,0.000,0.000
1641234851484432896,2022-01-03-18:34:11,10.1.1.3,167,-0.430,-0.430,-0.430,0.000,0.000,0.000
1641234851757893120,2022-01-03-18:34:11,10.1.1.3,232,-0.420,-0.420,-0.420,0.000,0.000,0.000
1641234851941889024,2022-01-03-18:34:11,10.1.1.3,158,-0.410,-0.410,-0.410,0.000,0.000,0.000
1641234852144148224,2022-01-03-18:34:12,10.1.1.3,158,-0.400,-0.400,-0.400,0.000,0.000,0.000
1641234852347148800,2022-01-03-18:34:12,10.1.1.3,161,-0.390,-0.390,-0.390,0.000,0.000,0.000
1641234852540203008,2022-01-03-18:34:12,10.1.1.3,151,-0.380,-0.380,-0.380,0.000,0.000,0.000
1641234852771032064,2022-01-03-18:34:12,10.1.1.3,174,-0.370,-0.370,-0.370,0.000,0.000,0.000
1641234853004776960,2022-01-03-18:34:13,10.1.1.3,165,-0.360,-0.360,-0.360,0.000,0.000,0.000
1641234853222511104,2022-01-03-18:34:13,10.1.1.3,170,-0.350,-0.350,-0.350,0.000,0.000,0.000
1641234853420454912,2022-01-03-18:34:13,10.1.1.3,166,-0.340,-0.340,-0.340,0.000,0.000,0.000
1641234853617713920,2022-01-03-18:34:13,10.1.1.3,163,-0.330,-0.330,-0.330,0.000,0.000,0.000
1641234853817423104,2022-01-03-18:34:13,10.1.1.3,162,-0.320,-0.320,-0.320,0.000,0.000,0.000
1641234854029792000,2022-01-03-18:34:14,10.1.1.3,174,-0.310,-0.310,-0.310,0.000,0.000,0.000
1641234854217612032,2022-01-03-18:34:14,10.1.1.3,160,-0.300,-0.300,-0.300,0.000,0.000,0.000
1641234854416158976,2022-01-03-18:34:14,10.1.1.3,159,-0.290,-0.290,-0.290,0.000,0.000,0.000
1641234854620323840,2022-01-03-18:34:14,10.1.1.3,163,-0.280,-0.280,-0.280,0.000,0.000,0.000
1641234854816395008,2022-01-03-18:34:14,10.1.1.3,158,-0.270,-0.270,-0.270,0.000,0.000,0.000
1641234855017805056,2022-01-03-18:34:15,10.1.1.3,159,-0.260,-0.260,-0.260,0.000,0.000,0.000
1641234855235141888,2022-01-03-18:34:15,10.1.1.3,153,-0.250,-0.250,-0.250,0.000,0.000,0.000
1641234855435569152,2022-01-03-18:34:15,10.1.1.3,150,-0.240,-0.240,-0.240,0.000,0.000,0.000
1641234855636004096,2022-01-03-18:34:15,10.1.1.3,150,-0.230,-0.230,-0.230,0.000,0.000,0.000
1641234855834932992,2022-01-03-18:34:15,10.1.1.3,148,-0.220,-0.220,-0.220,0.000,0.000,0.000
1641234856036710144,2022-01-03-18:34:16,10.1.1.3,149,-0.210,-0.210,-0.210,0.000,0.000,0.000
1641234856277679872,2022-01-03-18:34:16,10.1.1.3,188,-0.200,-0.200,-0.200,0.000,0.000,0.000
1641234856434562816,2022-01-03-18:34:16,10.1.1.3,144,-0.190,-0.190,-0.190,0.000,0.000,0.000
1641234856653431808,2022-01-03-18:34:16,10.1.1.3,162,-0.180,-0.180,-0.180,0.000,0.000,0.000
1641234856852578048,2022-01-03-18:34:16,10.1.1.3,161,-0.170,-0.170,-0.170,0.000,0.000,0.000
1641234857052793856,2022-01-03-18:34:17,10.1.1.3,159,-0.160,-0.160,-0.160,0.000,0.000,0.000
1641234857251683840,2022-01-03-18:34:17,10.1.1.3,158,-0.150,-0.150,-0.150,0.000,0.000,0.000
1641234857474680064,2022-01-03-18:34:17,10.1.1.3,180,-0.140,-0.140,-0.140,0.000,0.000,0.000
1641234857651686912,2022-01-03-18:34:17,10.1.1.3,156,-0.130,-0.130,-0.130,0.000,0.000,0.000
1641234857851979008,2022-01-03-18:34:17,10.1.1.3,155,-0.120,-0.120,-0.120,0.000,0.000,0.000
1641234858051062016,2022-01-03-18:34:18,10.1.1.3,153,-0.110,-0.110,-0.110,0.000,0.000,0.000
1641234858252268032,2022-01-03-18:34:18,10.1.1.3,152,-0.100,-0.100,-0.100,0.000,0.000,0.000
1641234858450892800,2022-01-03-18:34:18,10.1.1.3,150,-0.090,-0.090,-0.090,0.000,0.000,0.000
1641234858649987840,2022-01-03-18:34:18,10.1.1.3,147,-0.080,-0.080,-0.080,0.000,0.000,0.000
1641234858850078976,2022-01-03-18:34:18,10.1.1.3,145,-0.070,-0.070,-0.070,0.000,0.000,0.000
1641234859050822144,2022-01-03-18:34:19,10.1.1.3,145,-0.060,-0.060,-0.060,0.000,0.000,0.000
1641234859251450112,2022-01-03-18:34:19,10.1.1.3,145,-0.050,-0.050,-0.050,0.000,0.000,0.000
1641234859449234944,2022-01-03-18:34:19,10.1.1.3,142,-0.040,-0.040,-0.040,0.000,0.000,0.000
1641234859682358016,2022-01-03-18:34:19,10.1.1.3,174,-0.030,-0.030,-0.030,0.000,0.000,0.000
1641234859869613056,2022-01-03-18:34:19,10.1.1.3,153,-0.020,-0.020,-0.020,0.000,0.000,0.000
1641234860068208896,2022-01-03-18:34:20,10.1.1.3,150,-0.010,-0.010,-0.010,0.000,0.000,0.000
1641234860268204800,2022-01-03-18:34:20,10.1.1.3,148,0.000,0.000,0.000,0.000,0.000,0.000
1641234860475305984,2022-01-03-18:34:20,10.1.1.3,154,-0.010,-0.010,-0.010,0.000,0.000,0.000
1641234860667273984,2022-01-03-18:34:20,10.1.1.3,145,-0.020,-0.020,-0.020,0.000,0.000,0.000
1641234860877352960,2022-01-03-18:34:20,10.1.1.3,153,-0.030,-0.030,-0.030,0.000,0.000,0.000
1641234861070477056,2022-01-03-18:34:21,10.1.1.3,143,-0.040,-0.040,-0.040,0.000,0.000,0.000
1641234861268566016,2022-01-03-18:34:21,10.1.1.3,139,-0.050,-0.050,-0.050,0.000,0.000,0.000
1641234861469153024,2022-01-03-18:34:21,10.1.1.3,139,-0.060,-0.060,-0.060,0.000,0.000,0.000
1641234861688357120,2022-01-03-18:34:21,10.1.1.3,157,-0.070,-0.070,-0.070,0.000,0.000,0.000
1641234861907804928,2022-01-03-18:34:21,10.1.1.3,176,-0.080,-0.080,-0.080,0.000,0.000,0.000
1641234862126460928,2022-01-03-18:34:22,10.1.1.3,142,-0.090,-0.090,-0.090,0.000,0.000,0.000
1641234862344933888,2022-01-03-18:34:22,10.1.1.3,146,-0.100,-0.100,-0.100,0.000,0.000,0.000
1641234862547735808,2022-01-03-18:34:22,10.1.1.3,147,-0.110,-0.110,-0.110,0.000,0.000,0.000
1641234862744584192,2022-01-03-18:34:22,10.1.1.3,140,-0.120,-0.120,-0.120,0.000,0.000,0.000
1641234862945362944,2022-01-03-18:34:22,10.1.1.3,139,-0.130,-0.130,-0.130,0.000,0.000,0.000
1641234863144886016,2022-01-03-18:34:23,10.1.1.3,137,-0.140,-0.140,-0.140,0.000,0.000,0.000
1641234863402792960,2022-01-03-18:34:23,10.1.1.3,150,-0.150,-0.150,-0.150,0.000,0.000,0.000
1641234863603124992,2022-01-03-18:34:23,10.1.1.3,150,-0.160,-0.160,-0.160,0.000,0.000,0.000
1641234863802696960,2022-01-03-18:34:23,10.1.1.3,148,-0.170,-0.170,-0.170,0.000,0.000,0.000
1641234864004275200,2022-01-03-18:34:24,10.1.1.3,149,-0.180,-0.180,-0.180,0.000,0.000,0.000
1641234864232323840,2022-01-03-18:34:24,10.1.1.3,177,-0.190,-0.190,-0.190,0.000,0.000,0.000
1641234864401536000,2022-01-03-18:34:24,10.1.1.3,144,-0.200,-0.200,-0.200,0.000,0.000,0.000
1641234864600809216,2022-01-03-18:34:24,10.1.1.3,143,-0.210,-0.210,-0.210,0.000,0.000,0.000
1641234864837185024,2022-01-03-18:34:24,10.1.1.3,179,-0.220,-0.220,-0.220,0.000,0.000,0.000
1641234865013277952,2022-01-03-18:34:25,10.1.1.3,153,-0.230,-0.230,-0.230,0.000,0.000,0.000
1641234865200531968,2022-01-03-18:34:25,10.1.1.3,136,-0.240,-0.240,-0.240,0.000,0.000,0.000
1641234865347190016,2022-01-03-18:34:25,10.1.1.3,-14,-0.240,-0.240,-0.240,0.000,0.000,0.000
1641234865681426176,2022-01-03-18:34:25,10.1.1.3,133,-0.260,-0.260,-0.260,0.000,0.000,0.000
1641234865880848896,2022-01-03-18:34:25,10.1.1.3,132,-0.270,-0.270,-0.270,0.000,0.000,0.000
1641234866081545216,2022-01-03-18:34:26,10.1.1.3,132,-0.280,-0.280,-0.280,0.000,0.000,0.000
1641234866301238016,2022-01-03-18:34:26,10.1.1.3,148,-0.290,-0.290,-0.290,0.000,0.000,0.000
1641234866738071040,2022-01-03-18:34:26,10.1.1.3,142,-0.310,-0.310,-0.310,0.000,0.000,0.000
1641234866959788032,2022-01-03-18:34:26,10.1.1.3,130,-0.320,-0.320,-0.320,0.000,0.000,0.000
1641234867159034880,2022-01-03-18:34:27,10.1.1.3,128,-0.330,-0.330,-0.330,0.000,0.000,0.000
1641234867378052864,2022-01-03-18:34:27,10.1.1.3,131,-0.340,-0.340,-0.340,0.000,0.000,0.000
1641234867638766080,2022-01-03-18:34:27,10.1.1.3,190,-0.350,-0.350,-0.350,0.000,0.000,0.000
1641234867779667968,2022-01-03-18:34:27,10.1.1.3,130,-0.360,-0.360,-0.360,0.000,0.000,0.000
1641234867999269888,2022-01-03-18:34:27,10.1.1.3,149,-0.370,-0.370,-0.370,0.000,0.000,0.000
1641234868198280192,2022-01-03-18:34:28,10.1.1.3,147,-0.380,-0.380,-0.380,0.000,0.000,0.000
1641234868396229888,2022-01-03-18:34:28,10.1.1.3,144,-0.390,-0.390,-0.390,0.000,0.000,0.000
1641234868594516992,2022-01-03-18:34:28,10.1.1.3,142,-0.400,-0.400,-0.400,0.000,0.000,0.000
1641234868795342080,2022-01-03-18:34:28,10.1.1.3,141,-0.410,-0.410,-0.410,0.000,0.000,0.000
1641234868999721984,2022-01-03-18:34:28,10.1.1.3,133,-0.420,-0.420,-0.420,0.000,0.000,0.000
1641234869193931008,2022-01-03-18:34:29,10.1.1.3,124,-0.430,-0.430,-0.430,0.000,0.000,0.000
1641234869413552896,2022-01-03-18:34:29,10.1.1.3,142,-0.440,-0.440,-0.440,0.000,0.000,0.000
1641234869614959104,2022-01-03-18:34:29,10.1.1.3,140,-0.450,-0.450,-0.450,0.000,0.000,0.000
1641234869837868032,2022-01-03-18:34:29,10.1.1.3,141,-0.460,-0.460,-0.460,0.000,0.000,0.000
1641234870033268992,2022-01-03-18:34:30,10.1.1.3,131,-0.470,-0.470,-0.470,0.000,0.000,0.000
1641234870233558784,2022-01-03-18:34:30,10.1.1.3,129,-0.480,-0.480,-0.480,0.000,0.000,0.000
1641234870431258880,2022-01-03-18:34:30,10.1.1.3,128,-0.490,-0.490,-0.490,0.000,0.000,0.000
1641234870634253056,2022-01-03-18:34:30,10.1.1.3,130,-0.480,-0.480,-0.480,0.000,0.000,0.000
1641234870830688000,2022-01-03-18:34:30,10.1.1.3,126,-0.470,-0.470,-0.470,0.000,0.000,0.000
1641234871031061760,2022-01-03-18:34:31,10.1.1.3,125,-0.460,-0.460,-0.460,0.000,0.000,0.000
1641234871233146880,2022-01-03-18:34:31,10.1.1.3,126,-0.450,-0.450,-0.450,0.000,0.000,0.000
1641234871431250944,2022-01-03-18:34:31,10.1.1.3,124,-0.440,-0.440,-0.440,0.000,0.000,0.000
1641234871634685952,2022-01-03-18:34:31,10.1.1.3,127,-0.430,-0.430,-0.430,0.000,0.000,0.000
1641234871832772864,2022-01-03-18:34:31,10.1.1.3,124,-0.420,-0.420,-0.420,0.000,0.000,0.000
1641234872030863104,2022-01-03-18:34:32,10.1.1.3,121,-0.410,-0.410,-0.410,0.000,0.000,0.000
1641234872249208064,2022-01-03-18:34:32,10.1.1.3,139,-0.400,-0.400,-0.400,0.000,0.000,0.000
1641234872448726784,2022-01-03-18:34:32,10.1.1.3,138,-0.390,-0.390,-0.390,0.000,0.000,0.000
1641234872649630976,2022-01-03-18:34:32,10.1.1.3,138,-0.380,-0.380,-0.380,0.000,0.000,0.000
1641234872847974912,2022-01-03-18:34:32,10.1.1.3,136,-0.370,-0.370,-0.370,0.000,0.000,0.000
1641234873047891968,2022-01-03-18:34:33,10.1.1.3,135,-0.360,-0.360,-0.360,0.000,0.000,0.000
1641234873265299200,2022-01-03-18:34:33,10.1.1.3,152,-0.350,-0.350,-0.350,0.000,0.000,0.000
1641234873446583040,2022-01-03-18:34:33,10.1.1.3,133,-0.340,-0.340,-0.340,0.000,0.000,0.000
1641234873646888960,2022-01-03-18:34:33,10.1.1.3,131,-0.330,-0.330,-0.330,0.000,0.000,0.000
1641234873846499072,2022-01-03-18:34:33,10.1.1.3,130,-0.320,-0.320,-0.320,0.000,0.000,0.000
1641234874048124928,2022-01-03-18:34:34,10.1.1.3,131,-0.310,-0.310,-0.310,0.000,0.000,0.000
1641234874263627008,2022-01-03-18:34:34,10.1.1.3,145,-0.300,-0.300,-0.300,0.000,0.000,0.000
1641234874498280960,2022-01-03-18:34:34,10.1.1.3,179,-0.290,-0.290,-0.290,0.000,0.000,0.000
1641234874645433856,2022-01-03-18:34:34,10.1.1.3,121,-0.280,-0.280,-0.280,0.000,0.000,0.000
1641234874845325056,2022-01-03-18:34:34,10.1.1.3,117,-0.270,-0.270,-0.270,0.000,0.000,0.000
1641234875044557056,2022-01-03-18:34:35,10.1.1.3,116,-0.260,-0.260,-0.260,0.000,0.000,0.000
1641234875244582912,2022-01-03-18:34:35,10.1.1.3,115,-0.250,-0.250,-0.250,0.000,0.000,0.000
1641234875516838144,2022-01-03-18:34:35,10.1.1.3,184,-0.240,-0.240,-0.240,0.000,0.000,0.000
1641234875683248128,2022-01-03-18:34:35,10.1.1.3,116,-0.230,-0.230,-0.230,0.000,0.000,0.000
1641234875883117056,2022-01-03-18:34:35,10.1.1.3,115,-0.220,-0.220,-0.220,0.000,0.000,0.000
1641234876104374784,2022-01-03-18:34:36,10.1.1.3,130,-0.210,-0.210,-0.210,0.000,0.000,0.000
1641234876311549952,2022-01-03-18:34:36,10.1.1.3,134,-0.200,-0.200,-0.200,0.000,0.000,0.000
1641234876502381056,2022-01-03-18:34:36,10.1.1.3,127,-0.190,-0.190,-0.190,0.000,0.000,0.000
1641234876788839168,2022-01-03-18:34:36,10.1.1.3,172,-0.180,-0.180,-0.180,0.000,0.000,0.000
1641234876920922880,2022-01-03-18:34:36,10.1.1.3,116,-0.170,-0.170,-0.170,0.000,0.000,0.000
1641234877140494080,2022-01-03-18:34:37,10.1.1.3,123,-0.160,-0.160,-0.160,0.000,0.000,0.000
1641234877339699968,2022-01-03-18:34:37,10.1.1.3,122,-0.150,-0.150,-0.150,0.000,0.000,0.000
1641234877539635968,2022-01-03-18:34:37,10.1.1.3,121,-0.140,-0.140,-0.140,0.000,0.000,0.000
1641234877739706112,2022-01-03-18:34:37,10.1.1.3,120,-0.130,-0.130,-0.130,0.000,0.000,0.000
1641234877939100928,2022-01-03-18:34:37,10.1.1.3,116,-0.120,-0.120,-0.120,0.000,0.000,0.000
1641234878138744064,2022-01-03-18:34:38,10.1.1.3,113,-0.110,-0.110,-0.110,0.000,0.000,0.000
1641234878338675968,2022-01-03-18:34:38,10.1.1.3,112,-0.100,-0.100,-0.100,0.000,0.000,0.000
1641234878561858816,2022-01-03-18:34:38,10.1.1.3,132,-0.090,-0.090,-0.090,0.000,0.000,0.000
1641234878757939200,2022-01-03-18:34:38,10.1.1.3,127,-0.080,-0.080,-0.080,0.000,0.000,0.000
1641234878965969152,2022-01-03-18:34:38,10.1.1.3,134,-0.070,-0.070,-0.070,0.000,0.000,0.000
1641234879177617152,2022-01-03-18:34:39,10.1.1.3,117,-0.060,-0.060,-0.060,0.000,0.000,0.000
1641234879377684224,2022-01-03-18:34:39,10.1.1.3,117,-0.050,-0.050,-0.050,0.000,0.000,0.000
1641234879576395008,2022-01-03-18:34:39,10.1.1.3,115,-0.040,-0.040,-0.040,0.000,0.000,0.000
1641234879779344128,2022-01-03-18:34:39,10.1.1.3,118,-0.030,-0.030,-0.030,0.000,0.000,0.000
1641234879979949056,2022-01-03-18:34:39,10.1.1.3,118,-0.020,-0.020,-0.020,0.000,0.000,0.000
1641234880260919040,2022-01-03-18:34:40,10.1.1.3,109,-0.010,-0.010,-0.010,0.000,0.000,0.000
1641234880475220992,2022-01-03-18:34:40,10.1.1.3,107,0.000,0.000,0.000,0.000,0.000,0.000
1641234880678002176,2022-01-03-18:34:40,10.1.1.3,109,-0.010,-0.010,-0.010,0.000,0.000,0.000
1641234880895163136,2022-01-03-18:34:40,10.1.1.3,122,-0.020,-0.020,-0.020,0.000,0.000,0.000
1641234881094497024,2022-01-03-18:34:41,10.1.1.3,120,-0.030,-0.030,-0.030,0.000,0.000,0.000
1641234881294241024,2022-01-03-18:34:41,10.1.1.3,118,-0.040,-0.040,-0.040,0.000,0.000,0.000
1641234881494221824,2022-01-03-18:34:41,10.1.1.3,115,-0.050,-0.050,-0.050,0.000,0.000,0.000
1641234881693062912,2022-01-03-18:34:41,10.1.1.3,113,-0.060,-0.060,-0.060,0.000,0.000,0.000
1641234881894302976,2022-01-03-18:34:41,10.1.1.3,111,-0.070,-0.070,-0.070,0.000,0.000,0.000
1641234882093262080,2022-01-03-18:34:42,10.1.1.3,110,-0.080,-0.080,-0.080,0.000,0.000,0.000
1641234882345860096,2022-01-03-18:34:42,10.1.1.3,163,-0.090,-0.090,-0.090,0.000,0.000,0.000
1641234882493752064,2022-01-03-18:34:42,10.1.1.3,109,-0.100,-0.100,-0.100,0.000,0.000,0.000
1641234882710889984,2022-01-03-18:34:42,10.1.1.3,117,-0.110,-0.110,-0.110,0.000,0.000,0.000
1641234882966796032,2022-01-03-18:34:42,10.1.1.3,172,-0.120,-0.120,-0.120,0.000,0.000,0.000
1641234883137725184,2022-01-03-18:34:43,10.1.1.3,137,-0.130,-0.130,-0.130,0.000,0.000,0.000
1641234883330284032,2022-01-03-18:34:43,10.1.1.3,114,-0.140,-0.140,-0.140,0.000,0.000,0.000
1641234883558949120,2022-01-03-18:34:43,10.1.1.3,120,-0.150,-0.150,-0.150,0.000,0.000,0.000
1641234883751406848,2022-01-03-18:34:43,10.1.1.3,112,-0.160,-0.160,-0.160,0.000,0.000,0.000
1641234883949392128,2022-01-03-18:34:43,10.1.1.3,109,-0.170,-0.170,-0.170,0.000,0.000,0.000
1641234884150872832,2022-01-03-18:34:44,10.1.1.3,108,-0.180,-0.180,-0.180,0.000,0.000,0.000
1641234884350451968,2022-01-03-18:34:44,10.1.1.3,107,-0.190,-0.190,-0.190,0.000,0.000,0.000
1641234884554179840,2022-01-03-18:34:44,10.1.1.3,107,-0.200,-0.200,-0.200,0.000,0.000,0.000
1641234884752999168,2022-01-03-18:34:44,10.1.1.3,106,-0.210,-0.210,-0.210,0.000,0.000,0.000
1641234884954027008,2022-01-03-18:34:44,10.1.1.3,106,-0.220,-0.220,-0.220,0.000,0.000,0.000
1641234885184892928,2022-01-03-18:34:45,10.1.1.3,135,-0.230,-0.230,-0.230,0.000,0.000,0.000
1641234885380342016,2022-01-03-18:34:45,10.1.1.3,129,-0.240,-0.240,-0.240,0.000,0.000,0.000
1641234885578816000,2022-01-03-18:34:45,10.1.1.3,126,-0.250,-0.250,-0.250,0.000,0.000,0.000
1641234885778716160,2022-01-03-18:34:45,10.1.1.3,125,-0.260,-0.260,-0.260,0.000,0.000,0.000
1641234885980868096,2022-01-03-18:34:45,10.1.1.3,126,-0.270,-0.270,-0.270,0.000,0.000,0.000
1641234886180294912,2022-01-03-18:34:46,10.1.1.3,125,-0.280,-0.280,-0.280,0.000,0.000,0.000
1641234886381192960,2022-01-03-18:34:46,10.1.1.3,125,-0.290,-0.290,-0.290,0.000,0.000,0.000
1641234886581830144,2022-01-03-18:34:46,10.1.1.3,124,-0.300,-0.300,-0.300,0.000,0.000,0.000
1641234886783505920,2022-01-03-18:34:46,10.1.1.3,125,-0.310,-0.310,-0.310,0.000,0.000,0.000
1641234887003823104,2022-01-03-18:34:47,10.1.1.3,130,-0.320,-0.320,-0.320,0.000,0.000,0.000
1641234887208374016,2022-01-03-18:34:47,10.1.1.3,128,-0.330,-0.330,-0.330,0.000,0.000,0.000
1641234887404892928,2022-01-03-18:34:47,10.1.1.3,124,-0.340,-0.340,-0.340,0.000,0.000,0.000
1641234887607012864,2022-01-03-18:34:47,10.1.1.3,126,-0.350,-0.350,-0.350,0.000,0.000,0.000
1641234887807744000,2022-01-03-18:34:47,10.1.1.3,119,-0.360,-0.360,-0.360,0.000,0.000,0.000
1641234888055308032,2022-01-03-18:34:48,10.1.1.3,165,-0.370,-0.370,-0.370,0.000,0.000,0.000
1641234888228368896,2022-01-03-18:34:48,10.1.1.3,137,-0.380,-0.380,-0.380,0.000,0.000,0.000
1641234888429673984,2022-01-03-18:34:48,10.1.1.3,137,-0.390,-0.390,-0.390,0.000,0.000,0.000
1641234888629796096,2022-01-03-18:34:48,10.1.1.3,136,-0.400,-0.400,-0.400,0.000,0.000,0.000
1641234888831182848,2022-01-03-18:34:48,10.1.1.3,136,-0.410,-0.410,-0.410,0.000,0.000,0.000
1641234889043080960,2022-01-03-18:34:49,10.1.1.3,145,-0.420,-0.420,-0.420,0.000,0.000,0.000
1641234889231813888,2022-01-03-18:34:49,10.1.1.3,123,-0.430,-0.430,-0.430,0.000,0.000,0.000
1641234889452670208,2022-01-03-18:34:49,10.1.1.3,135,-0.440,-0.440,-0.440,0.000,0.000,0.000
1641234889653335040,2022-01-03-18:34:49,10.1.1.3,135,-0.450,-0.450,-0.450,0.000,0.000,0.000
1641234889874644992,2022-01-03-18:34:49,10.1.1.3,148,-0.460,-0.460,-0.460,0.000,0.000,0.000
1641234890054758144,2022-01-03-18:34:50,10.1.1.3,133,-0.470,-0.470,-0.470,0.000,0.000,0.000
1641234890274040064,2022-01-03-18:34:50,10.1.1.3,151,-0.480,-0.480,-0.480,0.000,0.000,0.000
1641234890458395904,2022-01-03-18:34:50,10.1.1.3,134,-0.490,-0.490,-0.490,0.000,0.000,0.000
1641234890659116032,2022-01-03-18:34:50,10.1.1.3,134,-0.480,-0.480,-0.480,0.000,0.000,0.000
1641234890861197824,2022-01-03-18:34:50,10.1.1.3,133,-0.470,-0.470,-0.470,0.000,0.000,0.000
1641234891057723904,2022-01-03-18:34:51,10.1.1.3,129,-0.460,-0.460,-0.460,0.000,0.000,0.000
1641234891259469056,2022-01-03-18:34:51,10.1.1.3,129,-0.450,-0.450,-0.450,0.000,0.000,0.000
1641234891478761984,2022-01-03-18:34:51,10.1.1.3,148,-0.440,-0.440,-0.440,0.000,0.000,0.000
1641234891680398080,2022-01-03-18:34:51,10.1.1.3,148,-0.430,-0.430,-0.430,0.000,0.000,0.000
1641234891880284160,2022-01-03-18:34:51,10.1.1.3,147,-0.420,-0.420,-0.420,0.000,0.000,0.000
1641234892081895168,2022-01-03-18:34:52,10.1.1.3,145,-0.410,-0.410,-0.410,0.000,0.000,0.000
1641234892281361152,2022-01-03-18:34:52,10.1.1.3,141,-0.400,-0.400,-0.400,0.000,0.000,0.000
1641234892491373056,2022-01-03-18:34:52,10.1.1.3,150,-0.390,-0.390,-0.390,0.000,0.000,0.000
1641234892682243072,2022-01-03-18:34:52,10.1.1.3,139,-0.380,-0.380,-0.380,0.000,0.000,0.000
1641234892882237952,2022-01-03-18:34:52,10.1.1.3,135,-0.370,-0.370,-0.370,0.000,0.000,0.000
1641234893082724096,2022-01-03-18:34:53,10.1.1.3,135,-0.360,-0.360,-0.360,0.000,0.000,0.000
1641234893283526912,2022-01-03-18:34:53,10.1.1.3,135,-0.350,-0.350,-0.350,0.000,0.000,0.000
1641234893486663168,2022-01-03-18:34:53,10.1.1.3,138,-0.340,-0.340,-0.340,0.000,0.000,0.000
1641234893706976768,2022-01-03-18:34:53,10.1.1.3,144,-0.330,-0.330,-0.330,0.000,0.000,0.000
1641234893904827136,2022-01-03-18:34:53,10.1.1.3,151,-0.320,-0.320,-0.320,0.000,0.000,0.000
1641234894105027840,2022-01-03-18:34:54,10.1.1.3,150,-0.310,-0.310,-0.310,0.000,0.000,0.000
1641234894307874816,2022-01-03-18:34:54,10.1.1.3,145,-0.300,-0.300,-0.300,0.000,0.000,0.000
1641234894506635008,2022-01-03-18:34:54,10.1.1.3,138,-0.290,-0.290,-0.290,0.000,0.000,0.000
1641234894761862144,2022-01-03-18:34:54,10.1.1.3,192,-0.280,-0.280,-0.280,0.000,0.000,0.000
1641234894926713856,2022-01-03-18:34:54,10.1.1.3,155,-0.270,-0.270,-0.270,0.000,0.000,0.000
1641234895128487936,2022-01-03-18:34:55,10.1.1.3,156,-0.260,-0.260,-0.260,0.000,0.000,0.000
1641234895327718912,2022-01-03-18:34:55,10.1.1.3,155,-0.250,-0.250,-0.250,0.000,0.000,0.000
1641234895529357056,2022-01-03-18:34:55,10.1.1.3,157,-0.240,-0.240,-0.240,0.000,0.000,0.000
1641234895729753088,2022-01-03-18:34:55,10.1.1.3,155,-0.230,-0.230,-0.230,0.000,0.000,0.000
1641234895942939904,2022-01-03-18:34:55,10.1.1.3,169,-0.220,-0.220,-0.220,0.000,0.000,0.000
1641234896129448960,2022-01-03-18:34:56,10.1.1.3,150,-0.210,-0.210,-0.210,0.000,0.000,0.000
1641234896340878848,2022-01-03-18:34:56,10.1.1.3,161,-0.200,-0.200,-0.200,0.000,0.000,0.000
1641234896732148992,2022-01-03-18:34:56,10.1.1.3,148,-0.180,-0.180,-0.180,0.000,0.000,0.000
1641234896930810880,2022-01-03-18:34:56,10.1.1.3,146,-0.170,-0.170,-0.170,0.000,0.000,0.000
1641234897146459136,2022-01-03-18:34:57,10.1.1.3,148,-0.160,-0.160,-0.160,0.000,0.000,0.000
1641234897330836992,2022-01-03-18:34:57,10.1.1.3,144,-0.150,-0.150,-0.150,0.000,0.000,0.000
1641234897530136064,2022-01-03-18:34:57,10.1.1.3,142,-0.140,-0.140,-0.140,0.000,0.000,0.000
1641234897730243072,2022-01-03-18:34:57,10.1.1.3,142,-0.130,-0.130,-0.130,0.000,0.000,0.000
1641234897931194112,2022-01-03-18:34:57,10.1.1.3,141,-0.120,-0.120,-0.120,0.000,0.000,0.000
1641234898139486976,2022-01-03-18:34:58,10.1.1.3,149,-0.110,-0.110,-0.110,0.000,0.000,0.000
1641234898357479936,2022-01-03-18:34:58,10.1.1.3,160,-0.100,-0.100,-0.100,0.000,0.000,0.000
1641234898554462976,2022-01-03-18:34:58,10.1.1.3,163,-0.090,-0.090,-0.090,0.000,0.000,0.000
1641234898752301824,2022-01-03-18:34:58,10.1.1.3,160,-0.080,-0.080,-0.080,0.000,0.000,0.000
1641234898958400000,2022-01-03-18:34:58,10.1.1.3,165,-0.070,-0.070,-0.070,0.000,0.000,0.000
1641234899152352000,2022-01-03-18:34:59,10.1.1.3,155,-0.060,-0.060,-0.060,0.000,0.000,0.000
1641234899388935168,2022-01-03-18:34:59,10.1.1.3,191,-0.050,-0.050,-0.050,0.000,0.000,0.000
1641234899577982976,2022-01-03-18:34:59,10.1.1.3,151,-0.040,-0.040,-0.040,0.000,0.000,0.000
1641234899773148928,2022-01-03-18:34:59,10.1.1.3,147,-0.030,-0.030,-0.030,0.000,0.000,0.000
1641234899973804032,2022-01-03-18:34:59,10.1.1.3,147,-0.020,-0.020,-0.020,0.000,0.000,0.000
1641234900173299200,2022-01-03-18:35:00,10.1.1.3,145,-0.010,-0.010,-0.010,0.000,0.000,0.000
1641234900374778880,2022-01-03-18:35:00,10.1.1.3,145,-0.000,-0.000,-0.000,0.000,0.000,0.000
1641234900610671872,2022-01-03-18:35:00,10.1.1.3,150,-0.010,-0.010,-0.010,0.000,0.000,0.000
1641234900793946880,2022-01-03-18:35:00,10.1.1.3,144,-0.020,-0.020,-0.020,0.000,0.000,0.000
1641234901014523904,2022-01-03-18:35:01,10.1.1.3,150,-0.030,-0.030,-0.030,0.000,0.000,0.000
1641234901215322112,2022-01-03-18:35:01,10.1.1.3,149,-0.040,-0.040,-0.040,0.000,0.000,0.000
1641234901430104064,2022-01-03-18:35:01,10.1.1.3,162,-0.050,-0.050,-0.050,0.000,0.000,0.000
1641234901614417920,2022-01-03-18:35:01,10.1.1.3,144,-0.060,-0.060,-0.060,0.000,0.000,0.000
1641234901834970880,2022-01-03-18:35:01,10.1.1.3,164,-0.070,-0.070,-0.070,0.000,0.000,0.000
1641234902037234176,2022-01-03-18:35:02,10.1.1.3,163,-0.080,-0.080,-0.080,0.000,0.000,0.000
1641234902236884224,2022-01-03-18:35:02,10.1.1.3,158,-0.090,-0.090,-0.090,0.000,0.000,0.000
1641234902435277056,2022-01-03-18:35:02,10.1.1.3,154,-0.100,-0.100,-0.100,0.000,0.000,0.000
1641234902637435904,2022-01-03-18:35:02,10.1.1.3,154,-0.110,-0.110,-0.110,0.000,0.000,0.000
1641234903037175040,2022-01-03-18:35:03,10.1.1.3,148,-0.130,-0.130,-0.130,0.000,0.000,0.000
1641234903238178048,2022-01-03-18:35:03,10.1.1.3,148,-0.140,-0.140,-0.140,0.000,0.000,0.000
1641234903472331008,2022-01-03-18:35:03,10.1.1.3,174,-0.150,-0.150,-0.150,0.000,0.000,0.000
1641234903682300160,2022-01-03-18:35:03,10.1.1.3,181,-0.160,-0.160,-0.160,0.000,0.000,0.000
1641234903856353024,2022-01-03-18:35:03,10.1.1.3,154,-0.170,-0.170,-0.170,0.000,0.000,0.000
1641234904056737024,2022-01-03-18:35:04,10.1.1.3,153,-0.180,-0.180,-0.180,0.000,0.000,0.000
1641234904256164096,2022-01-03-18:35:04,10.1.1.3,151,-0.190,-0.190,-0.190,0.000,0.000,0.000
1641234904456412928,2022-01-03-18:35:04,10.1.1.3,150,-0.200,-0.200,-0.200,0.000,0.000,0.000
1641234904655894016,2022-01-03-18:35:04,10.1.1.3,148,-0.210,-0.210,-0.210,0.000,0.000,0.000
1641234904876004096,2022-01-03-18:35:04,10.1.1.3,164,-0.220,-0.220,-0.220,0.000,0.000,0.000
1641234905085285888,2022-01-03-18:35:05,10.1.1.3,172,-0.230,-0.230,-0.230,0.000,0.000,0.000
1641234905277182976,2022-01-03-18:35:05,10.1.1.3,163,-0.240,-0.240,-0.240,0.000,0.000,0.000
1641234905477938944,2022-01-03-18:35:05,10.1.1.3,163,-0.250,-0.250,-0.250,0.000,0.000,0.000
1641234905678477056,2022-01-03-18:35:05,10.1.1.3,163,-0.260,-0.260,-0.260,0.000,0.000,0.000
1641234905878190080,2022-01-03-18:35:05,10.1.1.3,155,-0.270,-0.270,-0.270,0.000,0.000,0.000
1641234906097153024,2022-01-03-18:35:06,10.1.1.3,161,-0.280,-0.280,-0.280,0.000,0.000,0.000
1641234906317913088,2022-01-03-18:35:06,10.1.1.3,181,-0.290,-0.290,-0.290,0.000,0.000,0.000
1641234906497253888,2022-01-03-18:35:06,10.1.1.3,159,-0.300,-0.300,-0.300,0.000,0.000,0.000
1641234906697583872,2022-01-03-18:35:06,10.1.1.3,159,-0.310,-0.310,-0.310,0.000,0.000,0.000
1641234906895651072,2022-01-03-18:35:06,10.1.1.3,156,-0.320,-0.320,-0.320,0.000,0.000,0.000
1641234907096599040,2022-01-03-18:35:07,10.1.1.3,156,-0.330,-0.330,-0.330,0.000,0.000,0.000
1641234907295630080,2022-01-03-18:35:07,10.1.1.3,154,-0.340,-0.340,-0.340,0.000,0.000,0.000
1641234907533221888,2022-01-03-18:35:07,10.1.1.3,190,-0.350,-0.350,-0.350,0.000,0.000,0.000
1641234907695399936,2022-01-03-18:35:07,10.1.1.3,151,-0.360,-0.360,-0.360,0.000,0.000,0.000
1641234907897864192,2022-01-03-18:35:07,10.1.1.3,153,-0.370,-0.370,-0.370,0.000,0.000,0.000
1641234908109837056,2022-01-03-18:35:08,10.1.1.3,164,-0.380,-0.380,-0.380,0.000,0.000,0.000
1641234908295840000,2022-01-03-18:35:08,10.1.1.3,147,-0.390,-0.390,-0.390,0.000,0.000,0.000
1641234908498287872,2022-01-03-18:35:08,10.1.1.3,149,-0.400,-0.400,-0.400,0.000,0.000,0.000
1641234908715953152,2022-01-03-18:35:08,10.1.1.3,163,-0.410,-0.410,-0.410,0.000,0.000,0.000
1641234908915843840,2022-01-03-18:35:08,10.1.1.3,162,-0.420,-0.420,-0.420,0.000,0.000,0.000
1641234909116358912,2022-01-03-18:35:09,10.1.1.3,161,-0.430,-0.430,-0.430,0.000,0.000,0.000
1641234909315494144,2022-01-03-18:35:09,10.1.1.3,158,-0.440,-0.440,-0.440,0.000,0.000,0.000
1641234909515304192,2022-01-03-18:35:09,10.1.1.3,157,-0.450,-0.450,-0.450,0.000,0.000,0.000
1641234909916485120,2022-01-03-18:35:09,10.1.1.3,153,-0.470,-0.470,-0.470,0.000,0.000,0.000
1641234910136948992,2022-01-03-18:35:10,10.1.1.3,147,-0.480,-0.480,-0.480,0.000,0.000,0.000
1641234910354734848,2022-01-03-18:35:10,10.1.1.3,164,-0.490,-0.490,-0.490,0.000,0.000,0.000
1641234910556988928,2022-01-03-18:35:10,10.1.1.3,166,-0.480,-0.480,-0.480,0.000,0.000,0.000
1641234910755589120,2022-01-03-18:35:10,10.1.1.3,159,-0.470,-0.470,-0.470,0.000,0.000,0.000
1641234910955214080,2022-01-03-18:35:10,10.1.1.3,156,-0.460,-0.460,-0.460,0.000,0.000,0.000
1641234911166074112,2022-01-03-18:35:11,10.1.1.3,166,-0.450,-0.450,-0.450,0.000,0.000,0.000
1641234911354466048,2022-01-03-18:35:11,10.1.1.3,154,-0.440,-0.440,-0.440,0.000,0.000,0.000
1641234911556019968,2022-01-03-18:35:11,10.1.1.3,155,-0.430,-0.430,-0.430,0.000,0.000,0.000
1641234911754672128,2022-01-03-18:35:11,10.1.1.3,153,-0.420,-0.420,-0.420,0.000,0.000,0.000
1641234911954266112,2022-01-03-18:35:11,10.1.1.3,151,-0.410,-0.410,-0.410,0.000,0.000,0.000
1641234912153485056,2022-01-03-18:35:12,10.1.1.3,150,-0.400,-0.400,-0.400,0.000,0.000,0.000
1641234912353316096,2022-01-03-18:35:12,10.1.1.3,149,-0.390,-0.390,-0.390,0.000,0.000,0.000
1641234912554167040,2022-01-03-18:35:12,10.1.1.3,149,-0.380,-0.380,-0.380,0.000,0.000,0.000
1641234912760716800,2022-01-03-18:35:12,10.1.1.3,155,-0.370,-0.370,-0.370,0.000,0.000,0.000
1641234912974457856,2022-01-03-18:35:12,10.1.1.3,162,-0.360,-0.360,-0.360,0.000,0.000,0.000
1641234913173718016,2022-01-03-18:35:13,10.1.1.3,154,-0.350,-0.350,-0.350,0.000,0.000,0.000
1641234913377543936,2022-01-03-18:35:13,10.1.1.3,156,-0.340,-0.340,-0.340,0.000,0.000,0.000
1641234913573304064,2022-01-03-18:35:13,10.1.1.3,151,-0.330,-0.330,-0.330,0.000,0.000,0.000
1641234913773137152,2022-01-03-18:35:13,10.1.1.3,148,-0.320,-0.320,-0.320,0.000,0.000,0.000
1641234913975107072,2022-01-03-18:35:13,10.1.1.3,149,-0.310,-0.310,-0.310,0.000,0.000,0.000
1641234914188973056,2022-01-03-18:35:14,10.1.1.3,162,-0.300,-0.300,-0.300,0.000,0.000,0.000
1641234914408284928,2022-01-03-18:35:14,10.1.1.3,180,-0.290,-0.290,-0.290,0.000,0.000,0.000
1641234914576045056,2022-01-03-18:35:14,10.1.1.3,147,-0.280,-0.280,-0.280,0.000,0.000,0.000
1641234914774807040,2022-01-03-18:35:14,10.1.1.3,143,-0.270,-0.270,-0.270,0.000,0.000,0.000
1641234914992624128,2022-01-03-18:35:14,10.1.1.3,161,-0.260,-0.260,-0.260,0.000,0.000,0.000
1641234915192184064,2022-01-03-18:35:15,10.1.1.3,160,-0.250,-0.250,-0.250,0.000,0.000,0.000
1641234915392220928,2022-01-03-18:35:15,10.1.1.3,157,-0.240,-0.240,-0.240,0.000,0.000,0.000
1641234915594286080,2022-01-03-18:35:15,10.1.1.3,149,-0.230,-0.230,-0.230,0.000,0.000,0.000
1641234915810825216,2022-01-03-18:35:15,10.1.1.3,155,-0.220,-0.220,-0.220,0.000,0.000,0.000
1641234916010946048,2022-01-03-18:35:16,10.1.1.3,155,-0.210,-0.210,-0.210,0.000,0.000,0.000
1641234916210764800,2022-01-03-18:35:16,10.1.1.3,154,-0.200,-0.200,-0.200,0.000,0.000,0.000
1641234916411250176,2022-01-03-18:35:16,10.1.1.3,153,-0.190,-0.190,-0.190,0.000,0.000,0.000
1641234916627332864,2022-01-03-18:35:16,10.1.1.3,168,-0.180,-0.180,-0.180,0.000,0.000,0.000
1641234916813430016,2022-01-03-18:35:16,10.1.1.3,153,-0.170,-0.170,-0.170,0.000,0.000,0.000
1641234917011250944,2022-01-03-18:35:17,10.1.1.3,150,-0.160,-0.160,-0.160,0.000,0.000,0.000
1641234917211852032,2022-01-03-18:35:17,10.1.1.3,149,-0.150,-0.150,-0.150,0.000,0.000,0.000
1641234917410739968,2022-01-03-18:35:17,10.1.1.3,148,-0.140,-0.140,-0.140,0.000,0.000,0.000
1641234917612418816,2022-01-03-18:35:17,10.1.1.3,149,-0.130,-0.130,-0.130,0.000,0.000,0.000
1641234917811619072,2022-01-03-18:35:17,10.1.1.3,147,-0.120,-0.120,-0.120,0.000,0.000,0.000
1641234918010395136,2022-01-03-18:35:18,10.1.1.3,145,-0.110,-0.110,-0.110,0.000,0.000,0.000
1641234918210059776,2022-01-03-18:35:18,10.1.1.3,143,-0.100,-0.100,-0.100,0.000,0.000,0.000
1641234918409733888,2022-01-03-18:35:18,10.1.1.3,143,-0.090,-0.090,-0.090,0.000,0.000,0.000
1641234918609974016,2022-01-03-18:35:18,10.1.1.3,143,-0.080,-0.080,-0.080,0.000,0.000,0.000
1641234918810419200,2022-01-03-18:35:18,10.1.1.3,142,-0.070,-0.070,-0.070,0.000,0.000,0.000
1641234919009830912,2022-01-03-18:35:19,10.1.1.3,141,-0.060,-0.060,-0.060,0.000,0.000,0.000
1641234919227936000,2022-01-03-18:35:19,10.1.1.3,156,-0.050,-0.050,-0.050,0.000,0.000,0.000
1641234919409965056,2022-01-03-18:35:19,10.1.1.3,137,-0.040,-0.040,-0.040,0.000,0.000,0.000
1641234919634447104,2022-01-03-18:35:19,10.1.1.3,161,-0.030,-0.030,-0.030,0.000,0.000,0.000
1641234919828957184,2022-01-03-18:35:19,10.1.1.3,150,-0.020,-0.020,-0.020,0.000,0.000,0.000
1641234920033456128,2022-01-03-18:35:20,10.1.1.3,153,-0.010,-0.010,-0.010,0.000,0.000,0.000
1641234920244596992,2022-01-03-18:35:20,10.1.1.3,162,0.000,0.000,0.000,0.000,0.000,0.000
1641234920426876160,2022-01-03-18:35:20,10.1.1.3,143,-0.010,-0.010,-0.010,0.000,0.000,0.000
1641234920627276800,2022-01-03-18:35:20,10.1.1.3,143,-0.020,-0.020,-0.020,0.000,0.000,0.000
1641234920828297984,2022-01-03-18:35:20,10.1.1.3,143,-0.030,-0.030,-0.030,0.000,0.000,0.000
1641234921026380032,2022-01-03-18:35:21,10.1.1.3,141,-0.040,-0.040,-0.040,0.000,0.000,0.000
1641234921251147008,2022-01-03-18:35:21,10.1.1.3,165,-0.050,-0.050,-0.050,0.000,0.000,0.000
1641234921447105792,2022-01-03-18:35:21,10.1.1.3,144,-0.060,-0.060,-0.060,0.000,0.000,0.000
1641234921666126848,2022-01-03-18:35:21,10.1.1.3,154,-0.070,-0.070,-0.070,0.000,0.000,0.000
1641234921868340992,2022-01-03-18:35:21,10.1.1.3,154,-0.080,-0.080,-0.080,0.000,0.000,0.000
1641234922070422784,2022-01-03-18:35:22,10.1.1.3,155,-0.090,-0.090,-0.090,0.000,0.000,0.000
1641234922265381120,2022-01-03-18:35:22,10.1.1.3,149,-0.100,-0.100,-0.100,0.000,0.000,0.000
1641234922484894976,2022-01-03-18:35:22,10.1.1.3,154,-0.110,-0.110,-0.110,0.000,0.000,0.000
1641234922685630208,2022-01-03-18:35:22,10.1.1.3,150,-0.120,-0.120,-0.120,0.000,0.000,0.000
1641234922884288000,2022-01-03-18:35:22,10.1.1.3,147,-0.130,-0.130,-0.130,0.000,0.000,0.000
1641234923084206080,2022-01-03-18:35:23,10.1.1.3,147,-0.140,-0.140,-0.140,0.000,0.000,0.000
1641234923291501056,2022-01-03-18:35:23,10.1.1.3,153,-0.150,-0.150,-0.150,0.000,0.000,0.000
1641234923488944128,2022-01-03-18:35:23,10.1.1.3,150,-0.160,-0.160,-0.160,0.000,0.000,0.000
1641234923685800192,2022-01-03-18:35:23,10.1.1.3,145,-0.170,-0.170,-0.170,0.000,0.000,0.000
1641234923884090880,2022-01-03-18:35:23,10.1.1.3,142,-0.180,-0.180,-0.180,0.000,0.000,0.000
1641234924084329984,2022-01-03-18:35:24,10.1.1.3,142,-0.190,-0.190,-0.190,0.000,0.000,0.000
1641234924285563904,2022-01-03-18:35:24,10.1.1.3,143,-0.200,-0.200,-0.200,0.000,0.000,0.000
1641234924485562112,2022-01-03-18:35:24,10.1.1.3,142,-0.210,-0.210,-0.210,0.000,0.000,0.000
1641234924682790144,2022-01-03-18:35:24,10.1.1.3,138,-0.220,-0.220,-0.220,0.000,0.000,0.000
1641234924882128896,2022-01-03-18:35:24,10.1.1.3,135,-0.230,-0.230,-0.230,0.000,0.000,0.000
1641234925081867008,2022-01-03-18:35:25,10.1.1.3,134,-0.240,-0.240,-0.240,0.000,0.000,0.000
1641234925282248960,2022-01-03-18:35:25,10.1.1.3,133,-0.250,-0.250,-0.250,0.000,0.000,0.000
1641234925503222016,2022-01-03-18:35:25,10.1.1.3,151,-0.260,-0.260,-0.260,0.000,0.000,0.000
1641234925701411072,2022-01-03-18:35:25,10.1.1.3,149,-0.270,-0.270,-0.270,0.000,0.000,0.000
1641234925907448064,2022-01-03-18:35:25,10.1.1.3,153,-0.280,-0.280,-0.280,0.000,0.000,0.000
1641234926100712960,2022-01-03-18:35:26,10.1.1.3,146,-0.290,-0.290,-0.290,0.000,0.000,0.000
1641234926300756992,2022-01-03-18:35:26,10.1.1.3,145,-0.300,-0.300,-0.300,0.000,0.000,0.000
1641234926500033024,2022-01-03-18:35:26,10.1.1.3,143,-0.310,-0.310,-0.310,0.000,0.000,0.000
1641234926700575232,2022-01-03-18:35:26,10.1.1.3,143,-0.320,-0.320,-0.320,0.000,0.000,0.000
1641234926900749056,2022-01-03-18:35:26,10.1.1.3,143,-0.330,-0.330,-0.330,0.000,0.000,0.000
1641234927104641024,2022-01-03-18:35:27,10.1.1.3,141,-0.340,-0.340,-0.340,0.000,0.000,0.000
1641234927298953984,2022-01-03-18:35:27,10.1.1.3,135,-0.350,-0.350,-0.350,0.000,0.000,0.000
1641234927500329984,2022-01-03-18:35:27,10.1.1.3,135,-0.360,-0.360,-0.360,0.000,0.000,0.000
1641234927699428096,2022-01-03-18:35:27,10.1.1.3,134,-0.370,-0.370,-0.370,0.000,0.000,0.000
1641234927900604928,2022-01-03-18:35:27,10.1.1.3,134,-0.380,-0.380,-0.380,0.000,0.000,0.000
1641234928154640896,2022-01-03-18:35:28,10.1.1.3,187,-0.390,-0.390,-0.390,0.000,0.000,0.000
1641234928397584896,2022-01-03-18:35:28,10.1.1.3,147,-0.400,-0.400,-0.400,0.000,0.000,0.000
1641234928597914880,2022-01-03-18:35:28,10.1.1.3,146,-0.410,-0.410,-0.410,0.000,0.000,0.000
1641234928798848000,2022-01-03-18:35:28,10.1.1.3,145,-0.420,-0.420,-0.420,0.000,0.000,0.000
1641234929003101184,2022-01-03-18:35:29,10.1.1.3,149,-0.430,-0.430,-0.430,0.000,0.000,0.000
1641234929196510976,2022-01-03-18:35:29,10.1.1.3,141,-0.440,-0.440,-0.440,0.000,0.000,0.000
1641234929399095040,2022-01-03-18:35:29,10.1.1.3,143,-0.450,-0.450,-0.450,0.000,0.000,0.000
1641234929597516032,2022-01-03-18:35:29,10.1.1.3,140,-0.460,-0.460,-0.460,0.000,0.000,0.000
1641234929797003008,2022-01-03-18:35:29,10.1.1.3,139,-0.470,-0.470,-0.470,0.000,0.000,0.000
1641234929996584960,2022-01-03-18:35:29,10.1.1.3,137,-0.480,-0.480,-0.480,0.000,0.000,0.000
1641234930195547136,2022-01-03-18:35:30,10.1.1.3,137,-0.490,-0.490,-0.490,0.000,0.000,0.000
1641234930594348800,2022-01-03-18:35:30,10.1.1.3,133,-0.470,-0.470,-0.470,0.000,0.000,0.000
1641234930794738176,2022-01-03-18:35:30,10.1.1.3,132,-0.460,-0.460,-0.460,0.000,0.000,0.000
1641234930994877952,2022-01-03-18:35:30,10.1.1.3,131,-0.450,-0.450,-0.450,0.000,0.000,0.000
1641234931214358016,2022-01-03-18:35:31,10.1.1.3,142,-0.440,-0.440,-0.440,0.000,0.000,0.000
1641234931413722880,2022-01-03-18:35:31,10.1.1.3,140,-0.430,-0.430,-0.430,0.000,0.000,0.000
1641234931613154048,2022-01-03-18:35:31,10.1.1.3,140,-0.420,-0.420,-0.420,0.000,0.000,0.000
1641234931814860032,2022-01-03-18:35:31,10.1.1.3,139,-0.410,-0.410,-0.410,0.000,0.000,0.000
1641234932013978880,2022-01-03-18:35:32,10.1.1.3,137,-0.400,-0.400,-0.400,0.000,0.000,0.000
1641234932213190912,2022-01-03-18:35:32,10.1.1.3,135,-0.390,-0.390,-0.390,0.000,0.000,0.000
1641234932414428928,2022-01-03-18:35:32,10.1.1.3,137,-0.380,-0.380,-0.380,0.000,0.000,0.000
1641234932668229120,2022-01-03-18:35:32,10.1.1.3,186,-0.370,-0.370,-0.370,0.000,0.000,0.000
1641234932831817984,2022-01-03-18:35:32,10.1.1.3,137,-0.360,-0.360,-0.360,0.000,0.000,0.000
1641234933031140096,2022-01-03-18:35:33,10.1.1.3,135,-0.350,-0.350,-0.350,0.000,0.000,0.000
1641234933238823936,2022-01-03-18:35:33,10.1.1.3,141,-0.340,-0.340,-0.340,0.000,0.000,0.000
1641234933454301184,2022-01-03-18:35:33,10.1.1.3,147,-0.330,-0.330,-0.330,0.000,0.000,0.000
1641234933630987776,2022-01-03-18:35:33,10.1.1.3,123,-0.320,-0.320,-0.320,0.000,0.000,0.000
1641234933876094208,2022-01-03-18:35:33,10.1.1.3,162,-0.310,-0.310,-0.310,0.000,0.000,0.000
1641234934049515008,2022-01-03-18:35:34,10.1.1.3,135,-0.300,-0.300,-0.300,0.000,0.000,0.000
1641234934249100032,2022-01-03-18:35:34,10.1.1.3,130,-0.290,-0.290,-0.290,0.000,0.000,0.000
1641234934449212928,2022-01-03-18:35:34,10.1.1.3,125,-0.280,-0.280,-0.280,0.000,0.000,0.000
1641234934648692992,2022-01-03-18:35:34,10.1.1.3,124,-0.270,-0.270,-0.270,0.000,0.000,0.000
1641234934851181056,2022-01-03-18:35:34,10.1.1.3,126,-0.260,-0.260,-0.260,0.000,0.000,0.000
1641234935069394944,2022-01-03-18:35:35,10.1.1.3,142,-0.250,-0.250,-0.250,0.000,0.000,0.000
1641234935267885056,2022-01-03-18:35:35,10.1.1.3,136,-0.240,-0.240,-0.240,0.000,0.000,0.000
1641234935470520064,2022-01-03-18:35:35,10.1.1.3,137,-0.230,-0.230,-0.230,0.000,0.000,0.000
1641234935668797952,2022-01-03-18:35:35,10.1.1.3,133,-0.220,-0.220,-0.220,0.000,0.000,0.000
1641234935906968064,2022-01-03-18:35:35,10.1.1.3,135,-0.210,-0.210,-0.210,0.000,0.000,0.000
1641234936108963072,2022-01-03-18:35:36,10.1.1.3,135,-0.200,-0.200,-0.200,0.000,0.000,0.000
1641234936306852096,2022-01-03-18:35:36,10.1.1.3,131,-0.190,-0.190,-0.190,0.000,0.000,0.000
1641234936506481920,2022-01-03-18:35:36,10.1.1.3,129,-0.180,-0.180,-0.180,0.000,0.000,0.000
1641234936705761024,2022-01-03-18:35:36,10.1.1.3,127,-0.170,-0.170,-0.170,0.000,0.000,0.000
1641234936905827072,2022-01-03-18:35:36,10.1.1.3,126,-0.160,-0.160,-0.160,0.000,0.000,0.000
1641234937125518080,2022-01-03-18:35:37,10.1.1.3,133,-0.150,-0.150,-0.150,0.000,0.000,0.000
1641234937332977152,2022-01-03-18:35:37,10.1.1.3,140,-0.140,-0.140,-0.140,0.000,0.000,0.000
1641234937544645120,2022-01-03-18:35:37,10.1.1.3,126,-0.130,-0.130,-0.130,0.000,0.000,0.000
1641234937744167936,2022-01-03-18:35:37,10.1.1.3,125,-0.120,-0.120,-0.120,0.000,0.000,0.000
1641234937945178880,2022-01-03-18:35:37,10.1.1.3,124,-0.110,-0.110,-0.110,0.000,0.000,0.000
1641234938166657024,2022-01-03-18:35:38,10.1.1.3,132,-0.100,-0.100,-0.100,0.000,0.000,0.000
1641234938375065088,2022-01-03-18:35:38,10.1.1.3,138,-0.090,-0.090,-0.090,0.000,0.000,0.000
1641234938563450112,2022-01-03-18:35:38,10.1.1.3,116,-0.080,-0.080,-0.080,0.000,0.000,0.000
1641234938762927104,2022-01-03-18:35:38,10.1.1.3,115,-0.070,-0.070,-0.070,0.000,0.000,0.000
1641234938963335936,2022-01-03-18:35:38,10.1.1.3,114,-0.060,-0.060,-0.060,0.000,0.000,0.000
1641234939182706944,2022-01-03-18:35:39,10.1.1.3,131,-0.050,-0.050,-0.050,0.000,0.000,0.000
1641234939381900032,2022-01-03-18:35:39,10.1.1.3,129,-0.040,-0.040,-0.040,0.000,0.000,0.000
1641234939582956032,2022-01-03-18:35:39,10.1.1.3,123,-0.030,-0.030,-0.030,0.000,0.000,0.000
1641234939801466112,2022-01-03-18:35:39,10.1.1.3,126,-0.020,-0.020,-0.020,0.000,0.000,0.000
1641234940001171200,2022-01-03-18:35:40,10.1.1.3,125,-0.010,-0.010,-0.010,0.000,0.000,0.000
1641234940233810944,2022-01-03-18:35:40,10.1.1.3,146,0.000,0.000,0.000,0.000,0.000,0.000
1641234940423429888,2022-01-03-18:35:40,10.1.1.3,123,-0.010,-0.010,-0.010,0.000,0.000,0.000
1641234940820089088,2022-01-03-18:35:40,10.1.1.3,120,-0.030,-0.030,-0.030,0.000,0.000,0.000
1641234941020143104,2022-01-03-18:35:41,10.1.1.3,119,-0.040,-0.040,-0.040,0.000,0.000,0.000
1641234941219069952,2022-01-03-18:35:41,10.1.1.3,117,-0.050,-0.050,-0.050,0.000,0.000,0.000
1641234941420919808,2022-01-03-18:35:41,10.1.1.3,116,-0.060,-0.060,-0.060,0.000,0.000,0.000
1641234941641796096,2022-01-03-18:35:41,10.1.1.3,113,-0.070,-0.070,-0.070,0.000,0.000,0.000
1641234941861862912,2022-01-03-18:35:41,10.1.1.3,121,-0.080,-0.080,-0.080,0.000,0.000,0.000
1641234942078028032,2022-01-03-18:35:42,10.1.1.3,127,-0.090,-0.090,-0.090,0.000,0.000,0.000
1641234942281157888,2022-01-03-18:35:42,10.1.1.3,128,-0.100,-0.100,-0.100,0.000,0.000,0.000
1641234942481403136,2022-01-03-18:35:42,10.1.1.3,119,-0.110,-0.110,-0.110,0.000,0.000,0.000
1641234942676913920,2022-01-03-18:35:42,10.1.1.3,114,-0.120,-0.120,-0.120,0.000,0.000,0.000
1641234942908411136,2022-01-03-18:35:42,10.1.1.3,144,-0.130,-0.130,-0.130,0.000,0.000,0.000
1641234943076896000,2022-01-03-18:35:43,10.1.1.3,109,-0.140,-0.140,-0.140,0.000,0.000,0.000
1641234943296380160,2022-01-03-18:35:43,10.1.1.3,111,-0.150,-0.150,-0.150,0.000,0.000,0.000
1641234943495950080,2022-01-03-18:35:43,10.1.1.3,109,-0.160,-0.160,-0.160,0.000,0.000,0.000
1641234943694691840,2022-01-03-18:35:43,10.1.1.3,107,-0.170,-0.170,-0.170,0.000,0.000,0.000
1641234943914364928,2022-01-03-18:35:43,10.1.1.3,124,-0.180,-0.180,-0.180,0.000,0.000,0.000
1641234944117331968,2022-01-03-18:35:44,10.1.1.3,121,-0.190,-0.190,-0.190,0.000,0.000,0.000
1641234944314158080,2022-01-03-18:35:44,10.1.1.3,116,-0.200,-0.200,-0.200,0.000,0.000,0.000
1641234944514016000,2022-01-03-18:35:44,10.1.1.3,115,-0.210,-0.210,-0.210,0.000,0.000,0.000
1641234944713985792,2022-01-03-18:35:44,10.1.1.3,114,-0.220,-0.220,-0.220,0.000,0.000,0.000
1641234944913728000,2022-01-03-18:35:44,10.1.1.3,113,-0.230,-0.230,-0.230,0.000,0.000,0.000
1641234945113293824,2022-01-03-18:35:45,10.1.1.3,111,-0.240,-0.240,-0.240,0.000,0.000,0.000
1641234945313736960,2022-01-03-18:35:45,10.1.1.3,111,-0.250,-0.250,-0.250,0.000,0.000,0.000
1641234945512239872,2022-01-03-18:35:45,10.1.1.3,108,-0.260,-0.260,-0.260,0.000,0.000,0.000
1641234945712114176,2022-01-03-18:35:45,10.1.1.3,106,-0.270,-0.270,-0.270,0.000,0.000,0.000
1641234945911764992,2022-01-03-18:35:45,10.1.1.3,104,-0.280,-0.280,-0.280,0.000,0.000,0.000
1641234946113105920,2022-01-03-18:35:46,10.1.1.3,105,-0.290,-0.290,-0.290,0.000,0.000,0.000
1641234946311155200,2022-01-03-18:35:46,10.1.1.3,101,-0.300,-0.300,-0.300,0.000,0.000,0.000
1641234946544449024,2022-01-03-18:35:46,10.1.1.3,127,-0.310,-0.310,-0.310,0.000,0.000,0.000
1641234946754888960,2022-01-03-18:35:46,10.1.1.3,120,-0.320,-0.320,-0.320,0.000,0.000,0.000
1641234946987916032,2022-01-03-18:35:46,10.1.1.3,125,-0.330,-0.330,-0.330,0.000,0.000,0.000
1641234947176254976,2022-01-03-18:35:47,10.1.1.3,112,-0.340,-0.340,-0.340,0.000,0.000,0.000
1641234947389980160,2022-01-03-18:35:47,10.1.1.3,118,-0.350,-0.350,-0.350,0.000,0.000,0.000
1641234947594692864,2022-01-03-18:35:47,10.1.1.3,123,-0.360,-0.360,-0.360,0.000,0.000,0.000
1641234947806696960,2022-01-03-18:35:47,10.1.1.3,133,-0.370,-0.370,-0.370,0.000,0.000,0.000
1641234947990714112,2022-01-03-18:35:47,10.1.1.3,115,-0.380,-0.380,-0.380,0.000,0.000,0.000
1641234948189605888,2022-01-03-18:35:48,10.1.1.3,112,-0.390,-0.390,-0.390,0.000,0.000,0.000
1641234948392910080,2022-01-03-18:35:48,10.1.1.3,115,-0.400,-0.400,-0.400,0.000,0.000,0.000
1641234948592889088,2022-01-03-18:35:48,10.1.1.3,112,-0.410,-0.410,-0.410,0.000,0.000,0.000
1641234948792805888,2022-01-03-18:35:48,10.1.1.3,108,-0.420,-0.420,-0.420,0.000,0.000,0.000
1641234949014589184,2022-01-03-18:35:49,10.1.1.3,112,-0.430,-0.430,-0.430,0.000,0.000,0.000
1641234949217575936,2022-01-03-18:35:49,10.1.1.3,115,-0.440,-0.440,-0.440,0.000,0.000,0.000
1641234949419304960,2022-01-03-18:35:49,10.1.1.3,116,-0.450,-0.450,-0.450,0.000,0.000,0.000
1641234949630445056,2022-01-03-18:35:49,10.1.1.3,126,-0.460,-0.460,-0.460,0.000,0.000,0.000
1641234949817907968,2022-01-03-18:35:49,10.1.1.3,110,-0.470,-0.470,-0.470,0.000,0.000,0.000
1641234950086075136,2022-01-03-18:35:50,10.1.1.3,174,-0.480,-0.480,-0.480,0.000,0.000,0.000
1641234950241421056,2022-01-03-18:35:50,10.1.1.3,127,-0.490,-0.490,-0.490,0.000,0.000,0.000
1641234950440943872,2022-01-03-18:35:50,10.1.1.3,125,-0.480,-0.480,-0.480,0.000,0.000,0.000
1641234950641597952,2022-01-03-18:35:50,10.1.1.3,125,-0.470,-0.470,-0.470,0.000,0.000,0.000
1641234950847136000,2022-01-03-18:35:50,10.1.1.3,129,-0.460,-0.460,-0.460,0.000,0.000,0.000
1641234951043117056,2022-01-03-18:35:51,10.1.1.3,124,-0.450,-0.450,-0.450,0.000,0.000,0.000
1641234951246035968,2022-01-03-18:35:51,10.1.1.3,126,-0.440,-0.440,-0.440,0.000,0.000,0.000
1641234951445316096,2022-01-03-18:35:51,10.1.1.3,124,-0.430,-0.430,-0.430,0.000,0.000,0.000
1641234951645792000,2022-01-03-18:35:51,10.1.1.3,124,-0.420,-0.420,-0.420,0.000,0.000,0.000
1641234951846769152,2022-01-03-18:35:51,10.1.1.3,124,-0.410,-0.410,-0.410,0.000,0.000,0.000
1641234952048723968,2022-01-03-18:35:52,10.1.1.3,122,-0.400,-0.400,-0.400,0.000,0.000,0.000
1641234952248624128,2022-01-03-18:35:52,10.1.1.3,121,-0.390,-0.390,-0.390,0.000,0.000,0.000
1641234952470468096,2022-01-03-18:35:52,10.1.1.3,140,-0.380,-0.380,-0.380,0.000,0.000,0.000
1641234952669413120,2022-01-03-18:35:52,10.1.1.3,138,-0.370,-0.370,-0.370,0.000,0.000,0.000
1641234952870321920,2022-01-03-18:35:52,10.1.1.3,138,-0.360,-0.360,-0.360,0.000,0.000,0.000
1641234953072887808,2022-01-03-18:35:53,10.1.1.3,139,-0.350,-0.350,-0.350,0.000,0.000,0.000
1641234953272025088,2022-01-03-18:35:53,10.1.1.3,138,-0.340,-0.340,-0.340,0.000,0.000,0.000
1641234953674544128,2022-01-03-18:35:53,10.1.1.3,131,-0.320,-0.320,-0.320,0.000,0.000,0.000
1641234953895051008,2022-01-03-18:35:53,10.1.1.3,139,-0.310,-0.310,-0.310,0.000,0.000,0.000
1641234954113094144,2022-01-03-18:35:54,10.1.1.3,155,-0.300,-0.300,-0.300,0.000,0.000,0.000
1641234954316473856,2022-01-03-18:35:54,10.1.1.3,140,-0.290,-0.290,-0.290,0.000,0.000,0.000
1641234954516314880,2022-01-03-18:35:54,10.1.1.3,130,-0.280,-0.280,-0.280,0.000,0.000,0.000
1641234954716804864,2022-01-03-18:35:54,10.1.1.3,130,-0.270,-0.270,-0.270,0.000,0.000,0.000
1641234954919329024,2022-01-03-18:35:54,10.1.1.3,130,-0.260,-0.260,-0.260,0.000,0.000,0.000
1641234955126004992,2022-01-03-18:35:55,10.1.1.3,131,-0.250,-0.250,-0.250,0.000,0.000,0.000
1641234955343421952,2022-01-03-18:35:55,10.1.1.3,149,-0.240,-0.240,-0.240,0.000,0.000,0.000
1641234955539503104,2022-01-03-18:35:55,10.1.1.3,143,-0.230,-0.230,-0.230,0.000,0.000,0.000
1641234955749069056,2022-01-03-18:35:55,10.1.1.3,146,-0.220,-0.220,-0.220,0.000,0.000,0.000
1641234955961849088,2022-01-03-18:35:55,10.1.1.3,146,-0.210,-0.210,-0.210,0.000,0.000,0.000
1641234956181740032,2022-01-03-18:35:56,10.1.1.3,148,-0.200,-0.200,-0.200,0.000,0.000,0.000
1641234956396825088,2022-01-03-18:35:56,10.1.1.3,156,-0.190,-0.190,-0.190,0.000,0.000,0.000
1641234956582251008,2022-01-03-18:35:56,10.1.1.3,135,-0.180,-0.180,-0.180,0.000,0.000,0.000
1641234956863657984,2022-01-03-18:35:56,10.1.1.3,184,-0.170,-0.170,-0.170,0.000,0.000,0.000
1641234957023872000,2022-01-03-18:35:57,10.1.1.3,136,-0.160,-0.160,-0.160,0.000,0.000,0.000
1641234957224742912,2022-01-03-18:35:57,10.1.1.3,136,-0.150,-0.150,-0.150,0.000,0.000,0.000
1641234957424224000,2022-01-03-18:35:57,10.1.1.3,134,-0.140,-0.140,-0.140,0.000,0.000,0.000
1641234957644606976,2022-01-03-18:35:57,10.1.1.3,153,-0.130,-0.130,-0.130,0.000,0.000,0.000
1641234957845881088,2022-01-03-18:35:57,10.1.1.3,153,-0.120,-0.120,-0.120,0.000,0.000,0.000
1641234958094412032,2022-01-03-18:35:58,10.1.1.3,200,-0.110,-0.110,-0.110,0.000,0.000,0.000
1641234958268004864,2022-01-03-18:35:58,10.1.1.3,138,-0.100,-0.100,-0.100,0.000,0.000,0.000
1641234958485366016,2022-01-03-18:35:58,10.1.1.3,154,-0.090,-0.090,-0.090,0.000,0.000,0.000
1641234958687305984,2022-01-03-18:35:58,10.1.1.3,155,-0.080,-0.080,-0.080,0.000,0.000,0.000
1641234958886689024,2022-01-03-18:35:58,10.1.1.3,153,-0.070,-0.070,-0.070,0.000,0.000,0.000
1641234959087248128,2022-01-03-18:35:59,10.1.1.3,153,-0.060,-0.060,-0.060,0.000,0.000,0.000
1641234959288156928,2022-01-03-18:35:59,10.1.1.3,141,-0.050,-0.050,-0.050,0.000,0.000,0.000
1641234959508854016,2022-01-03-18:35:59,10.1.1.3,157,-0.040,-0.040,-0.040,0.000,0.000,0.000
1641234959708686080,2022-01-03-18:35:59,10.1.1.3,157,-0.030,-0.030,-0.030,0.000,0.000,0.000
1641234959908945920,2022-01-03-18:35:59,10.1.1.3,157,-0.020,-0.020,-0.020,0.000,0.000,0.000
1641234960109932032,2022-01-03-18:36:00,10.1.1.3,156,-0.010,-0.010,-0.010,0.000,0.000,0.000
1641234960341837056,2022-01-03-18:36:00,10.1.1.3,188,0.000,0.000,0.000,0.000,0.000,0.000
1641234960512787200,2022-01-03-18:36:00,10.1.1.3,154,-0.010,-0.010,-0.010,0.000,0.000,0.000
1641234960710057984,2022-01-03-18:36:00,10.1.1.3,153,-0.020,-0.020,-0.020,0.000,0.000,0.000
1641234960911524096,2022-01-03-18:36:00,10.1.1.3,153,-0.030,-0.030,-0.030,0.000,0.000,0.000
1641234961111222016,2022-01-03-18:36:01,10.1.1.3,151,-0.040,-0.040,-0.040,0.000,0.000,0.000
1641234961313797888,2022-01-03-18:36:01,10.1.1.3,145,-0.050,-0.050,-0.050,0.000,0.000,0.000
1641234961532069888,2022-01-03-18:36:01,10.1.1.3,160,-0.060,-0.060,-0.060,0.000,0.000,0.000
1641234961731127040,2022-01-03-18:36:01,10.1.1.3,158,-0.070,-0.070,-0.070,0.000,0.000,0.000
1641234961932444160,2022-01-03-18:36:01,10.1.1.3,159,-0.080,-0.080,-0.080,0.000,0.000,0.000
1641234962132391936,2022-01-03-18:36:02,10.1.1.3,158,-0.090,-0.090,-0.090,0.000,0.000,0.000
1641234962331849216,2022-01-03-18:36:02,10.1.1.3,156,-0.100,-0.100,-0.100,0.000,0.000,0.000
1641234962532201984,2022-01-03-18:36:02,10.1.1.3,156,-0.110,-0.110,-0.110,0.000,0.000,0.000
1641234962732897024,2022-01-03-18:36:02,10.1.1.3,154,-0.120,-0.120,-0.120,0.000,0.000,0.000
1641234962932871936,2022-01-03-18:36:02,10.1.1.3,151,-0.130,-0.130,-0.130,0.000,0.000,0.000
1641234963135081984,2022-01-03-18:36:03,10.1.1.3,151,-0.140,-0.140,-0.140,0.000,0.000,0.000
1641234963362315008,2022-01-03-18:36:03,10.1.1.3,160,-0.150,-0.150,-0.150,0.000,0.000,0.000
1641234963553210880,2022-01-03-18:36:03,10.1.1.3,149,-0.160,-0.160,-0.160,0.000,0.000,0.000
1641234963754457856,2022-01-03-18:36:03,10.1.1.3,150,-0.170,-0.170,-0.170,0.000,0.000,0.000
1641234963973417984,2022-01-03-18:36:03,10.1.1.3,163,-0.180,-0.180,-0.180,0.000,0.000,0.000
1641234964173253120,2022-01-03-18:36:04,10.1.1.3,148,-0.190,-0.190,-0.190,0.000,0.000,0.000
1641234964374085888,2022-01-03-18:36:04,10.1.1.3,144,-0.200,-0.200,-0.200,0.000,0.000,0.000
1641234964573998848,2022-01-03-18:36:04,10.1.1.3,143,-0.210,-0.210,-0.210,0.000,0.000,0.000
1641234964795099136,2022-01-03-18:36:04,10.1.1.3,163,-0.220,-0.220,-0.220,0.000,0.000,0.000
1641234964994471936,2022-01-03-18:36:04,10.1.1.3,160,-0.230,-0.230,-0.230,0.000,0.000,0.000
1641234965194329856,2022-01-03-18:36:05,10.1.1.3,160,-0.240,-0.240,-0.240,0.000,0.000,0.000
1641234965394775040,2022-01-03-18:36:05,10.1.1.3,160,-0.250,-0.250,-0.250,0.000,0.000,0.000
1641234965595226880,2022-01-03-18:36:05,10.1.1.3,159,-0.260,-0.260,-0.260,0.000,0.000,0.000
1641234965795015168,2022-01-03-18:36:05,10.1.1.3,148,-0.270,-0.270,-0.270,0.000,0.000,0.000
1641234966035160064,2022-01-03-18:36:06,10.1.1.3,187,-0.280,-0.280,-0.280,0.000,0.000,0.000
1641234966235537152,2022-01-03-18:36:06,10.1.1.3,161,-0.290,-0.290,-0.290,0.000,0.000,0.000
1641234966437548032,2022-01-03-18:36:06,10.1.1.3,163,-0.300,-0.300,-0.300,0.000,0.000,0.000
1641234966638836992,2022-01-03-18:36:06,10.1.1.3,160,-0.310,-0.310,-0.310,0.000,0.000,0.000
1641234966837987072,2022-01-03-18:36:06,10.1.1.3,160,-0.320,-0.320,-0.320,0.000,0.000,0.000
1641234967036174080,2022-01-03-18:36:07,10.1.1.3,157,-0.330,-0.330,-0.330,0.000,0.000,0.000
1641234967296274944,2022-01-03-18:36:07,10.1.1.3,161,-0.340,-0.340,-0.340,0.000,0.000,0.000
1641234967497344000,2022-01-03-18:36:07,10.1.1.3,153,-0.350,-0.350,-0.350,0.000,0.000,0.000
1641234967696562176,2022-01-03-18:36:07,10.1.1.3,151,-0.360,-0.360,-0.360,0.000,0.000,0.000
1641234967937426176,2022-01-03-18:36:07,10.1.1.3,162,-0.370,-0.370,-0.370,0.000,0.000,0.000
1641234968156160000,2022-01-03-18:36:08,10.1.1.3,161,-0.380,-0.380,-0.380,0.000,0.000,0.000
1641234968355735040,2022-01-03-18:36:08,10.1.1.3,160,-0.390,-0.390,-0.390,0.000,0.000,0.000
1641234968558491904,2022-01-03-18:36:08,10.1.1.3,162,-0.400,-0.400,-0.400,0.000,0.000,0.000
1641234968761755904,2022-01-03-18:36:08,10.1.1.3,157,-0.410,-0.410,-0.410,0.000,0.000,0.000
1641234968966532864,2022-01-03-18:36:08,10.1.1.3,163,-0.420,-0.420,-0.420,0.000,0.000,0.000
1641234969155944960,2022-01-03-18:36:09,10.1.1.3,149,-0.430,-0.430,-0.430,0.000,0.000,0.000
1641234969391187968,2022-01-03-18:36:09,10.1.1.3,178,-0.440,-0.440,-0.440,0.000,0.000,0.000
1641234969578848000,2022-01-03-18:36:09,10.1.1.3,163,-0.450,-0.450,-0.450,0.000,0.000,0.000
1641234969796288000,2022-01-03-18:36:09,10.1.1.3,163,-0.460,-0.460,-0.460,0.000,0.000,0.000
1641234969996717824,2022-01-03-18:36:09,10.1.1.3,163,-0.470,-0.470,-0.470,0.000,0.000,0.000
1641234970203085824,2022-01-03-18:36:10,10.1.1.3,164,-0.480,-0.480,-0.480,0.000,0.000,0.000
1641234970397427968,2022-01-03-18:36:10,10.1.1.3,162,-0.490,-0.490,-0.490,0.000,0.000,0.000
1641234970597870080,2022-01-03-18:36:10,10.1.1.3,162,-0.480,-0.480,-0.480,0.000,0.000,0.000
1641234970796244992,2022-01-03-18:36:10,10.1.1.3,158,-0.470,-0.470,-0.470,0.000,0.000,0.000
1641234970997751040,2022-01-03-18:36:10,10.1.1.3,158,-0.460,-0.460,-0.460,0.000,0.000,0.000
1641234971198067968,2022-01-03-18:36:11,10.1.1.3,158,-0.450,-0.450,-0.450,0.000,0.000,0.000
1641234971398102016,2022-01-03-18:36:11,10.1.1.3,158,-0.440,-0.440,-0.440,0.000,0.000,0.000
1641234971837974016,2022-01-03-18:36:11,10.1.1.3,154,-0.420,-0.420,-0.420,0.000,0.000,0.000
1641234972056381952,2022-01-03-18:36:12,10.1.1.3,161,-0.410,-0.410,-0.410,0.000,0.000,0.000
1641234972260806912,2022-01-03-18:36:12,10.1.1.3,164,-0.400,-0.400,-0.400,0.000,0.000,0.000
1641234972464418048,2022-01-03-18:36:12,10.1.1.3,167,-0.390,-0.390,-0.390,0.000,0.000,0.000
1641234972656194048,2022-01-03-18:36:12,10.1.1.3,157,-0.380,-0.380,-0.380,0.000,0.000,0.000
1641234972857124096,2022-01-03-18:36:12,10.1.1.3,157,-0.370,-0.370,-0.370,0.000,0.000,0.000
1641234973056770048,2022-01-03-18:36:13,10.1.1.3,155,-0.360,-0.360,-0.360,0.000,0.000,0.000
1641234973256797184,2022-01-03-18:36:13,10.1.1.3,154,-0.350,-0.350,-0.350,0.000,0.000,0.000
1641234973456322048,2022-01-03-18:36:13,10.1.1.3,153,-0.340,-0.340,-0.340,0.000,0.000,0.000
1641234973655787008,2022-01-03-18:36:13,10.1.1.3,152,-0.330,-0.330,-0.330,0.000,0.000,0.000
1641234973898881024,2022-01-03-18:36:13,10.1.1.3,194,-0.320,-0.320,-0.320,0.000,0.000,0.000
1641234974078275840,2022-01-03-18:36:14,10.1.1.3,156,-0.310,-0.310,-0.310,0.000,0.000,0.000
1641234974279137024,2022-01-03-18:36:14,10.1.1.3,156,-0.300,-0.300,-0.300,0.000,0.000,0.000
1641234974477323008,2022-01-03-18:36:14,10.1.1.3,152,-0.290,-0.290,-0.290,0.000,0.000,0.000
1641234974678251008,2022-01-03-18:36:14,10.1.1.3,149,-0.280,-0.280,-0.280,0.000,0.000,0.000
1641234974896567040,2022-01-03-18:36:14,10.1.1.3,160,-0.270,-0.270,-0.270,0.000,0.000,0.000
1641234975095891968,2022-01-03-18:36:15,10.1.1.3,159,-0.260,-0.260,-0.260,0.000,0.000,0.000
1641234975295320064,2022-01-03-18:36:15,10.1.1.3,158,-0.250,-0.250,-0.250,0.000,0.000,0.000
1641234975494796032,2022-01-03-18:36:15,10.1.1.3,156,-0.240,-0.240,-0.240,0.000,0.000,0.000
1641234975694720000,2022-01-03-18:36:15,10.1.1.3,155,-0.230,-0.230,-0.230,0.000,0.000,0.000
1641234975894875904,2022-01-03-18:36:15,10.1.1.3,154,-0.220,-0.220,-0.220,0.000,0.000,0.000
1641234976111700992,2022-01-03-18:36:16,10.1.1.3,170,-0.210,-0.210,-0.210,0.000,0.000,0.000
1641234976374317824,2022-01-03-18:36:16,10.1.1.3,161,-0.200,-0.200,-0.200,0.000,0.000,0.000
1641234976576456192,2022-01-03-18:36:16,10.1.1.3,162,-0.190,-0.190,-0.190,0.000,0.000,0.000
1641234976775235840,2022-01-03-18:36:16,10.1.1.3,158,-0.180,-0.180,-0.180,0.000,0.000,0.000
1641234976973748992,2022-01-03-18:36:16,10.1.1.3,156,-0.170,-0.170,-0.170,0.000,0.000,0.000
1641234977173954048,2022-01-03-18:36:17,10.1.1.3,156,-0.160,-0.160,-0.160,0.000,0.000,0.000
1641234977374440960,2022-01-03-18:36:17,10.1.1.3,155,-0.150,-0.150,-0.150,0.000,0.000,0.000
1641234977576994816,2022-01-03-18:36:17,10.1.1.3,157,-0.140,-0.140,-0.140,0.000,0.000,0.000
1641234977774905088,2022-01-03-18:36:17,10.1.1.3,146,-0.130,-0.130,-0.130,0.000,0.000,0.000
1641234977973920000,2022-01-03-18:36:17,10.1.1.3,143,-0.120,-0.120,-0.120,0.000,0.000,0.000
1641234978194999808,2022-01-03-18:36:18,10.1.1.3,163,-0.110,-0.110,-0.110,0.000,0.000,0.000
1641234978619859968,2022-01-03-18:36:18,10.1.1.3,168,-0.090,-0.090,-0.090,0.000,0.000,0.000
1641234978832878080,2022-01-03-18:36:18,10.1.1.3,154,-0.080,-0.080,-0.080,0.000,0.000,0.000
1641234979033669120,2022-01-03-18:36:19,10.1.1.3,154,-0.070,-0.070,-0.070,0.000,0.000,0.000
1641234979252934912,2022-01-03-18:36:19,10.1.1.3,171,-0.060,-0.060,-0.060,0.000,0.000,0.000
1641234979454039040,2022-01-03-18:36:19,10.1.1.3,151,-0.050,-0.050,-0.050,0.000,0.000,0.000
1641234979664120064,2022-01-03-18:36:19,10.1.1.3,161,-0.040,-0.040,-0.040,0.000,0.000,0.000
1641234979863051008,2022-01-03-18:36:19,10.1.1.3,157,-0.030,-0.030,-0.030,0.000,0.000,0.000
1641234980054001152,2022-01-03-18:36:20,10.1.1.3,148,-0.020,-0.020,-0.020,0.000,0.000,0.000
1641234980253731840,2022-01-03-18:36:20,10.1.1.3,146,-0.010,-0.010,-0.010,0.000,0.000,0.000
1641234980454138112,2022-01-03-18:36:20,10.1.1.3,145,0.000,0.000,0.000,0.000,0.000,0.000
1641234980667123968,2022-01-03-18:36:20,10.1.1.3,160,-0.010,-0.010,-0.010,0.000,0.000,0.000
1641234980891678976,2022-01-03-18:36:20,10.1.1.3,159,-0.020,-0.020,-0.020,0.000,0.000,0.000
1641234981093387008,2022-01-03-18:36:21,10.1.1.3,153,-0.030,-0.030,-0.030,0.000,0.000,0.000
1641234981299228928,2022-01-03-18:36:21,10.1.1.3,155,-0.040,-0.040,-0.040,0.000,0.000,0.000
1641234981528244992,2022-01-03-18:36:21,10.1.1.3,178,-0.050,-0.050,-0.050,0.000,0.000,0.000
1641234981713303040,2022-01-03-18:36:21,10.1.1.3,160,-0.060,-0.060,-0.060,0.000,0.000,0.000
1641234981910620928,2022-01-03-18:36:21,10.1.1.3,157,-0.070,-0.070,-0.070,0.000,0.000,0.000
1641234982127888896,2022-01-03-18:36:22,10.1.1.3,174,-0.080,-0.080,-0.080,0.000,0.000,0.000
1641234982309648128,2022-01-03-18:36:22,10.1.1.3,155,-0.090,-0.090,-0.090,0.000,0.000,0.000
1641234982509871104,2022-01-03-18:36:22,10.1.1.3,155,-0.100,-0.100,-0.100,0.000,0.000,0.000
1641234982712357120,2022-01-03-18:36:22,10.1.1.3,156,-0.110,-0.110,-0.110,0.000,0.000,0.000
1641234982912710912,2022-01-03-18:36:22,10.1.1.3,155,-0.120,-0.120,-0.120,0.000,0.000,0.000
1641234983112359168,2022-01-03-18:36:23,10.1.1.3,152,-0.130,-0.130,-0.130,0.000,0.000,0.000
1641234983311696896,2022-01-03-18:36:23,10.1.1.3,151,-0.140,-0.140,-0.140,0.000,0.000,0.000
1641234983508894976,2022-01-03-18:36:23,10.1.1.3,147,-0.150,-0.150,-0.150,0.000,0.000,0.000
1641234983711014912,2022-01-03-18:36:23,10.1.1.3,149,-0.160,-0.160,-0.160,0.000,0.000,0.000
1641234983928546048,2022-01-03-18:36:23,10.1.1.3,158,-0.170,-0.170,-0.170,0.000,0.000,0.000
1641234984133907200,2022-01-03-18:36:24,10.1.1.3,157,-0.180,-0.180,-0.180,0.000,0.000,0.000
1641234984328264960,2022-01-03-18:36:24,10.1.1.3,156,-0.190,-0.190,-0.190,0.000,0.000,0.000
1641234984528268032,2022-01-03-18:36:24,10.1.1.3,156,-0.200,-0.200,-0.200,0.000,0.000,0.000
1641234984728418048,2022-01-03-18:36:24,10.1.1.3,154,-0.210,-0.210,-0.210,0.000,0.000,0.000
1641234984928591104,2022-01-03-18:36:24,10.1.1.3,154,-0.220,-0.220,-0.220,0.000,0.000,0.000
1641234985127543808,2022-01-03-18:36:25,10.1.1.3,153,-0.230,-0.230,-0.230,0.000,0.000,0.000
1641234985329672960,2022-01-03-18:36:25,10.1.1.3,152,-0.240,-0.240,-0.240,0.000,0.000,0.000
1641234985549895936,2022-01-03-18:36:25,10.1.1.3,149,-0.250,-0.250,-0.250,0.000,0.000,0.000
1641234985746722048,2022-01-03-18:36:25,10.1.1.3,145,-0.260,-0.260,-0.260,0.000,0.000,0.000
1641234985947168000,2022-01-03-18:36:25,10.1.1.3,145,-0.270,-0.270,-0.270,0.000,0.000,0.000
1641234986146321920,2022-01-03-18:36:26,10.1.1.3,138,-0.280,-0.280,-0.280,0.000,0.000,0.000
1641234986354098176,2022-01-03-18:36:26,10.1.1.3,145,-0.290,-0.290,-0.290,0.000,0.000,0.000
1641234986567713024,2022-01-03-18:36:26,10.1.1.3,157,-0.300,-0.300,-0.300,0.000,0.000,0.000
1641234986786268928,2022-01-03-18:36:26,10.1.1.3,141,-0.310,-0.310,-0.310,0.000,0.000,0.000
1641234986987268864,2022-01-03-18:36:26,10.1.1.3,140,-0.320,-0.320,-0.320,0.000,0.000,0.000
1641234987189475072,2022-01-03-18:36:27,10.1.1.3,141,-0.330,-0.330,-0.330,0.000,0.000,0.000
1641234987391364096,2022-01-03-18:36:27,10.1.1.3,142,-0.340,-0.340,-0.340,0.000,0.000,0.000
1641234987604705024,2022-01-03-18:36:27,10.1.1.3,144,-0.350,-0.350,-0.350,0.000,0.000,0.000
1641234987846375936,2022-01-03-18:36:27,10.1.1.3,153,-0.360,-0.360,-0.360,0.000,0.000,0.000
1641234988046705920,2022-01-03-18:36:28,10.1.1.3,153,-0.370,-0.370,-0.370,0.000,0.000,0.000
1641234988250870016,2022-01-03-18:36:28,10.1.1.3,153,-0.380,-0.380,-0.380,0.000,0.000,0.000
1641234988442982912,2022-01-03-18:36:28,10.1.1.3,146,-0.390,-0.390,-0.390,0.000,0.000,0.000
1641234988683128064,2022-01-03-18:36:28,10.1.1.3,179,-0.400,-0.400,-0.400,0.000,0.000,0.000
1641234988865763840,2022-01-03-18:36:28,10.1.1.3,137,-0.410,-0.410,-0.410,0.000,0.000,0.000
1641234989082664960,2022-01-03-18:36:29,10.1.1.3,143,-0.420,-0.420,-0.420,0.000,0.000,0.000
1641234989282727936,2022-01-03-18:36:29,10.1.1.3,142,-0.430,-0.430,-0.430,0.000,0.000,0.000
1641234989482290944,2022-01-03-18:36:29,10.1.1.3,141,-0.440,-0.440,-0.440,0.000,0.000,0.000
1641234989682398208,2022-01-03-18:36:29,10.1.1.3,139,-0.450,-0.450,-0.450,0.000,0.000,0.000
1641234989890088192,2022-01-03-18:36:29,10.1.1.3,143,-0.460,-0.460,-0.460,0.000,0.000,0.000
1641234990101725952,2022-01-03-18:36:30,10.1.1.3,151,-0.470,-0.470,-0.470,0.000,0.000,0.000
1641234990301618944,2022-01-03-18:36:30,10.1.1.3,143,-0.480,-0.480,-0.480,0.000,0.000,0.000
1641234990515265024,2022-01-03-18:36:30,10.1.1.3,154,-0.490,-0.490,-0.490,0.000,0.000,0.000
1641234990700876032,2022-01-03-18:36:30,10.1.1.3,139,-0.480,-0.480,-0.480,0.000,0.000,0.000
1641234990928318976,2022-01-03-18:36:30,10.1.1.3,165,-0.470,-0.470,-0.470,0.000,0.000,0.000
1641234991099675904,2022-01-03-18:36:31,10.1.1.3,136,-0.460,-0.460,-0.460,0.000,0.000,0.000
1641234991300193024,2022-01-03-18:36:31,10.1.1.3,130,-0.450,-0.450,-0.450,0.000,0.000,0.000
1641234991519844096,2022-01-03-18:36:31,10.1.1.3,149,-0.440,-0.440,-0.440,0.000,0.000,0.000
1641234991718941952,2022-01-03-18:36:31,10.1.1.3,147,-0.430,-0.430,-0.430,0.000,0.000,0.000
1641234991919902208,2022-01-03-18:36:31,10.1.1.3,146,-0.420,-0.420,-0.420,0.000,0.000,0.000
1641234992119309056,2022-01-03-18:36:32,10.1.1.3,138,-0.410,-0.410,-0.410,0.000,0.000,0.000
1641234992318682880,2022-01-03-18:36:32,10.1.1.3,137,-0.400,-0.400,-0.400,0.000,0.000,0.000
1641234992518747136,2022-01-03-18:36:32,10.1.1.3,137,-0.390,-0.390,-0.390,0.000,0.000,0.000
1641234992718130944,2022-01-03-18:36:32,10.1.1.3,136,-0.380,-0.380,-0.380,0.000,0.000,0.000
1641234992918249984,2022-01-03-18:36:32,10.1.1.3,135,-0.370,-0.370,-0.370,0.000,0.000,0.000
1641234993124048896,2022-01-03-18:36:33,10.1.1.3,140,-0.360,-0.360,-0.360,0.000,0.000,0.000
1641234993336848128,2022-01-03-18:36:33,10.1.1.3,146,-0.350,-0.350,-0.350,0.000,0.000,0.000
1641234993538882048,2022-01-03-18:36:33,10.1.1.3,146,-0.340,-0.340,-0.340,0.000,0.000,0.000
1641234993737760000,2022-01-03-18:36:33,10.1.1.3,145,-0.330,-0.330,-0.330,0.000,0.000,0.000
1641234993937164032,2022-01-03-18:36:33,10.1.1.3,143,-0.320,-0.320,-0.320,0.000,0.000,0.000
1641234994136306944,2022-01-03-18:36:34,10.1.1.3,142,-0.310,-0.310,-0.310,0.000,0.000,0.000
1641234994373275904,2022-01-03-18:36:34,10.1.1.3,169,-0.300,-0.300,-0.300,0.000,0.000,0.000
1641234994536050944,2022-01-03-18:36:34,10.1.1.3,131,-0.290,-0.290,-0.290,0.000,0.000,0.000
1641234994734891008,2022-01-03-18:36:34,10.1.1.3,128,-0.280,-0.280,-0.280,0.000,0.000,0.000
1641234994940475904,2022-01-03-18:36:34,10.1.1.3,133,-0.270,-0.270,-0.270,0.000,0.000,0.000
1641234995155243008,2022-01-03-18:36:35,10.1.1.3,145,-0.260,-0.260,-0.260,0.000,0.000,0.000
1641234995355154944,2022-01-03-18:36:35,10.1.1.3,144,-0.250,-0.250,-0.250,0.000,0.000,0.000
1641234995577285120,2022-01-03-18:36:35,10.1.1.3,144,-0.240,-0.240,-0.240,0.000,0.000,0.000
1641234995773895936,2022-01-03-18:36:35,10.1.1.3,139,-0.230,-0.230,-0.230,0.000,0.000,0.000
1641234995975304960,2022-01-03-18:36:35,10.1.1.3,140,-0.220,-0.220,-0.220,0.000,0.000,0.000
1641234996173673984,2022-01-03-18:36:36,10.1.1.3,137,-0.210,-0.210,-0.210,0.000,0.000,0.000
1641234996374528000,2022-01-03-18:36:36,10.1.1.3,136,-0.200,-0.200,-0.200,0.000,0.000,0.000
1641234996774898944,2022-01-03-18:36:36,10.1.1.3,132,-0.180,-0.180,-0.180,0.000,0.000,0.000
1641234996973931008,2022-01-03-18:36:36,10.1.1.3,130,-0.170,-0.170,-0.170,0.000,0.000,0.000
1641234997193927936,2022-01-03-18:36:37,10.1.1.3,141,-0.160,-0.160,-0.160,0.000,0.000,0.000
1641234997402089984,2022-01-03-18:36:37,10.1.1.3,134,-0.150,-0.150,-0.150,0.000,0.000,0.000
1641234997594167040,2022-01-03-18:36:37,10.1.1.3,125,-0.140,-0.140,-0.140,0.000,0.000,0.000
1641234997858949888,2022-01-03-18:36:37,10.1.1.3,128,-0.130,-0.130,-0.130,0.000,0.000,0.000
1641234998052894208,2022-01-03-18:36:38,10.1.1.3,126,-0.120,-0.120,-0.120,0.000,0.000,0.000
1641234998251272960,2022-01-03-18:36:38,10.1.1.3,124,-0.110,-0.110,-0.110,0.000,0.000,0.000
1641234998450692864,2022-01-03-18:36:38,10.1.1.3,123,-0.100,-0.100,-0.100,0.000,0.000,0.000
1641234998651726848,2022-01-03-18:36:38,10.1.1.3,122,-0.090,-0.090,-0.090,0.000,0.000,0.000
1641234998869939968,2022-01-03-18:36:38,10.1.1.3,137,-0.080,-0.080,-0.080,0.000,0.000,0.000
1641234999069547008,2022-01-03-18:36:39,10.1.1.3,135,-0.070,-0.070,-0.070,0.000,0.000,0.000
1641234999269714944,2022-01-03-18:36:39,10.1.1.3,134,-0.060,-0.060,-0.060,0.000,0.000,0.000
1641234999472926976,2022-01-03-18:36:39,10.1.1.3,128,-0.050,-0.050,-0.050,0.000,0.000,0.000
1641234999669014016,2022-01-03-18:36:39,10.1.1.3,123,-0.040,-0.040,-0.040,0.000,0.000,0.000
1641234999929552128,2022-01-03-18:36:39,10.1.1.3,122,-0.030,-0.030,-0.030,0.000,0.000,0.000
1641235000128147968,2022-01-03-18:36:40,10.1.1.3,119,-0.020,-0.020,-0.020,0.000,0.000,0.000
1641235000348804096,2022-01-03-18:36:40,10.1.1.3,138,-0.010,-0.010,-0.010,0.000,0.000,0.000
1641235000550179072,2022-01-03-18:36:40,10.1.1.3,139,0.000,0.000,0.000,0.000,0.000,0.000
1641235000747282944,2022-01-03-18:36:40,10.1.1.3,135,-0.010,-0.010,-0.010,0.000,0.000,0.000
1641235000947813120,2022-01-03-18:36:40,10.1.1.3,134,-0.020,-0.020,-0.020,0.000,0.000,0.000
1641235001147831040,2022-01-03-18:36:41,10.1.1.3,133,-0.030,-0.030,-0.030,0.000,0.000,0.000
1641235001350352128,2022-01-03-18:36:41,10.1.1.3,131,-0.040,-0.040,-0.040,0.000,0.000,0.000
1641235001545959936,2022-01-03-18:36:41,10.1.1.3,123,-0.050,-0.050,-0.050,0.000,0.000,0.000
1641235001767364864,2022-01-03-18:36:41,10.1.1.3,127,-0.060,-0.060,-0.060,0.000,0.000,0.000
1641235001986644992,2022-01-03-18:36:41,10.1.1.3,126,-0.070,-0.070,-0.070,0.000,0.000,0.000
1641235002184727040,2022-01-03-18:36:42,10.1.1.3,123,-0.080,-0.080,-0.080,0.000,0.000,0.000
1641235002384900096,2022-01-03-18:36:42,10.1.1.3,122,-0.090,-0.090,-0.090,0.000,0.000,0.000
1641235002583492096,2022-01-03-18:36:42,10.1.1.3,120,-0.100,-0.100,-0.100,0.000,0.000,0.000
1641235002790579968,2022-01-03-18:36:42,10.1.1.3,125,-0.110,-0.110,-0.110,0.000,0.000,0.000
1641235002983864064,2022-01-03-18:36:42,10.1.1.3,118,-0.120,-0.120,-0.120,0.000,0.000,0.000
1641235003193526016,2022-01-03-18:36:43,10.1.1.3,127,-0.130,-0.130,-0.130,0.000,0.000,0.000
1641235003404999936,2022-01-03-18:36:43,10.1.1.3,129,-0.140,-0.140,-0.140,0.000,0.000,0.000
1641235003623676160,2022-01-03-18:36:43,10.1.1.3,147,-0.150,-0.150,-0.150,0.000,0.000,0.000
1641235003802747904,2022-01-03-18:36:43,10.1.1.3,125,-0.160,-0.160,-0.160,0.000,0.000,0.000
1641235004002001152,2022-01-03-18:36:44,10.1.1.3,124,-0.170,-0.170,-0.170,0.000,0.000,0.000
1641235004201595136,2022-01-03-18:36:44,10.1.1.3,120,-0.180,-0.180,-0.180,0.000,0.000,0.000
1641235004405648896,2022-01-03-18:36:44,10.1.1.3,124,-0.190,-0.190,-0.190,0.000,0.000,0.000
1641235004601294080,2022-01-03-18:36:44,10.1.1.3,118,-0.200,-0.200,-0.200,0.000,0.000,0.000
1641235004800625920,2022-01-03-18:36:44,10.1.1.3,117,-0.210,-0.210,-0.210,0.000,0.000,0.000
1641235005000940032,2022-01-03-18:36:45,10.1.1.3,117,-0.220,-0.220,-0.220,0.000,0.000,0.000
1641235005199966976,2022-01-03-18:36:45,10.1.1.3,114,-0.230,-0.230,-0.230,0.000,0.000,0.000
1641235005400193024,2022-01-03-18:36:45,10.1.1.3,114,-0.240,-0.240,-0.240,0.000,0.000,0.000
1641235005649168128,2022-01-03-18:36:45,10.1.1.3,161,-0.250,-0.250,-0.250,0.000,0.000,0.000
1641235005820620032,2022-01-03-18:36:45,10.1.1.3,118,-0.260,-0.260,-0.260,0.000,0.000,0.000
1641235006019248896,2022-01-03-18:36:46,10.1.1.3,109,-0.270,-0.270,-0.270,0.000,0.000,0.000
1641235006247343104,2022-01-03-18:36:46,10.1.1.3,134,-0.280,-0.280,-0.280,0.000,0.000,0.000
1641235006442342144,2022-01-03-18:36:46,10.1.1.3,125,-0.290,-0.290,-0.290,0.000,0.000,0.000
1641235006639138048,2022-01-03-18:36:46,10.1.1.3,119,-0.300,-0.300,-0.300,0.000,0.000,0.000
1641235006838141952,2022-01-03-18:36:46,10.1.1.3,113,-0.310,-0.310,-0.310,0.000,0.000,0.000
1641235007037904896,2022-01-03-18:36:47,10.1.1.3,110,-0.320,-0.320,-0.320,0.000,0.000,0.000
1641235007237360896,2022-01-03-18:36:47,10.1.1.3,109,-0.330,-0.330,-0.330,0.000,0.000,0.000
1641235007438633984,2022-01-03-18:36:47,10.1.1.3,109,-0.340,-0.340,-0.340,0.000,0.000,0.000
1641235007662287872,2022-01-03-18:36:47,10.1.1.3,132,-0.350,-0.350,-0.350,0.000,0.000,0.000
