FedericoMungari/DigitalTwin_service/01_WiredScenario/Output/Output_script/script_rosapi_2_output_robots6_freq0_2.txt
timestamp,date,node,latency,joint_1,joint_2,joint_3,joint_4,joint_5,joint_6
1641091002771246848,2022-01-02-02:36:42,10.1.1.3,179,-0.010,-0.010,-0.010,0.000,0.000,0.000
1641091002971959040,2022-01-02-02:36:42,10.1.1.3,178,-0.020,-0.020,-0.020,0.000,0.000,0.000
1641091003172040960,2022-01-02-02:36:43,10.1.1.3,176,-0.030,-0.030,-0.030,0.000,0.000,0.000
1641091003371243008,2022-01-02-02:36:43,10.1.1.3,173,-0.040,-0.040,-0.040,0.000,0.000,0.000
1641091003571670016,2022-01-02-02:36:43,10.1.1.3,170,-0.050,-0.050,-0.050,0.000,0.000,0.000
1641091003770279936,2022-01-02-02:36:43,10.1.1.3,167,-0.060,-0.060,-0.060,0.000,0.000,0.000
1641091003970285056,2022-01-02-02:36:43,10.1.1.3,166,-0.070,-0.070,-0.070,0.000,0.000,0.000
1641091004171497216,2022-01-02-02:36:44,10.1.1.3,165,-0.080,-0.080,-0.080,0.000,0.000,0.000
1641091004371129088,2022-01-02-02:36:44,10.1.1.3,164,-0.090,-0.090,-0.090,0.000,0.000,0.000
1641091004569214976,2022-01-02-02:36:44,10.1.1.3,161,-0.100,-0.100,-0.100,0.000,0.000,0.000
1641091004790345984,2022-01-02-02:36:44,10.1.1.3,179,-0.110,-0.110,-0.110,0.000,0.000,0.000
1641091004988455168,2022-01-02-02:36:44,10.1.1.3,177,-0.120,-0.120,-0.120,0.000,0.000,0.000
1641091005189105920,2022-01-02-02:36:45,10.1.1.3,176,-0.130,-0.130,-0.130,0.000,0.000,0.000
1641091005388571904,2022-01-02-02:36:45,10.1.1.3,175,-0.140,-0.140,-0.140,0.000,0.000,0.000
1641091005588006144,2022-01-02-02:36:45,10.1.1.3,173,-0.150,-0.150,-0.150,0.000,0.000,0.000
1641091005792613120,2022-01-02-02:36:45,10.1.1.3,173,-0.160,-0.160,-0.160,0.000,0.000,0.000
1641091005987773952,2022-01-02-02:36:45,10.1.1.3,171,-0.170,-0.170,-0.170,0.000,0.000,0.000
1641091006186541056,2022-01-02-02:36:46,10.1.1.3,166,-0.180,-0.180,-0.180,0.000,0.000,0.000
1641091006386633984,2022-01-02-02:36:46,10.1.1.3,166,-0.190,-0.190,-0.190,0.000,0.000,0.000
1641091006586419200,2022-01-02-02:36:46,10.1.1.3,165,-0.200,-0.200,-0.200,0.000,0.000,0.000
1641091006786055936,2022-01-02-02:36:46,10.1.1.3,163,-0.210,-0.210,-0.210,0.000,0.000,0.000
1641091006986632960,2022-01-02-02:36:46,10.1.1.3,163,-0.220,-0.220,-0.220,0.000,0.000,0.000
1641091007187501824,2022-01-02-02:36:47,10.1.1.3,161,-0.230,-0.230,-0.230,0.000,0.000,0.000
1641091007385575936,2022-01-02-02:36:47,10.1.1.3,160,-0.240,-0.240,-0.240,0.000,0.000,0.000
1641091007586152192,2022-01-02-02:36:47,10.1.1.3,159,-0.250,-0.250,-0.250,0.000,0.000,0.000
1641091007805435904,2022-01-02-02:36:47,10.1.1.3,176,-0.260,-0.260,-0.260,0.000,0.000,0.000
1641091008004715008,2022-01-02-02:36:48,10.1.1.3,174,-0.270,-0.270,-0.270,0.000,0.000,0.000
1641091008207236096,2022-01-02-02:36:48,10.1.1.3,176,-0.280,-0.280,-0.280,0.000,0.000,0.000
1641091008404620800,2022-01-02-02:36:48,10.1.1.3,172,-0.290,-0.290,-0.290,0.000,0.000,0.000
1641091008604198912,2022-01-02-02:36:48,10.1.1.3,171,-0.300,-0.300,-0.300,0.000,0.000,0.000
1641091008806694144,2022-01-02-02:36:48,10.1.1.3,172,-0.310,-0.310,-0.310,0.000,0.000,0.000
1641091009006397952,2022-01-02-02:36:49,10.1.1.3,171,-0.320,-0.320,-0.320,0.000,0.000,0.000
1641091009208739072,2022-01-02-02:36:49,10.1.1.3,172,-0.330,-0.330,-0.330,0.000,0.000,0.000
1641091009403055872,2022-01-02-02:36:49,10.1.1.3,164,-0.340,-0.340,-0.340,0.000,0.000,0.000
1641091009605000960,2022-01-02-02:36:49,10.1.1.3,165,-0.350,-0.350,-0.350,0.000,0.000,0.000
1641091009805847808,2022-01-02-02:36:49,10.1.1.3,165,-0.360,-0.360,-0.360,0.000,0.000,0.000
1641091010002796032,2022-01-02-02:36:50,10.1.1.3,160,-0.370,-0.370,-0.370,0.000,0.000,0.000
1641091010203279104,2022-01-02-02:36:50,10.1.1.3,160,-0.380,-0.380,-0.380,0.000,0.000,0.000
1641091010400412928,2022-01-02-02:36:50,10.1.1.3,156,-0.390,-0.390,-0.390,0.000,0.000,0.000
1641091010600666880,2022-01-02-02:36:50,10.1.1.3,155,-0.400,-0.400,-0.400,0.000,0.000,0.000
1641091010799668992,2022-01-02-02:36:50,10.1.1.3,152,-0.410,-0.410,-0.410,0.000,0.000,0.000
1641091010999952128,2022-01-02-02:36:50,10.1.1.3,152,-0.420,-0.420,-0.420,0.000,0.000,0.000
1641091011220036096,2022-01-02-02:36:51,10.1.1.3,171,-0.430,-0.430,-0.430,0.000,0.000,0.000
1641091011418379008,2022-01-02-02:36:51,10.1.1.3,169,-0.440,-0.440,-0.440,0.000,0.000,0.000
1641091011622127104,2022-01-02-02:36:51,10.1.1.3,172,-0.450,-0.450,-0.450,0.000,0.000,0.000
1641091011818160128,2022-01-02-02:36:51,10.1.1.3,167,-0.460,-0.460,-0.460,0.000,0.000,0.000
1641091012018866176,2022-01-02-02:36:52,10.1.1.3,167,-0.470,-0.470,-0.470,0.000,0.000,0.000
1641091012219440896,2022-01-02-02:36:52,10.1.1.3,167,-0.480,-0.480,-0.480,0.000,0.000,0.000
1641091012418116096,2022-01-02-02:36:52,10.1.1.3,165,-0.490,-0.490,-0.490,0.000,0.000,0.000
1641091012618236928,2022-01-02-02:36:52,10.1.1.3,164,-0.480,-0.480,-0.480,0.000,0.000,0.000
1641091012818104064,2022-01-02-02:36:52,10.1.1.3,163,-0.470,-0.470,-0.470,0.000,0.000,0.000
1641091013016673024,2022-01-02-02:36:53,10.1.1.3,161,-0.460,-0.460,-0.460,0.000,0.000,0.000
1641091013215919872,2022-01-02-02:36:53,10.1.1.3,159,-0.450,-0.450,-0.450,0.000,0.000,0.000
1641091013416420096,2022-01-02-02:36:53,10.1.1.3,158,-0.440,-0.440,-0.440,0.000,0.000,0.000
1641091013617399808,2022-01-02-02:36:53,10.1.1.3,158,-0.430,-0.430,-0.430,0.000,0.000,0.000
1641091013816674048,2022-01-02-02:36:53,10.1.1.3,157,-0.420,-0.420,-0.420,0.000,0.000,0.000
1641091014017105152,2022-01-02-02:36:54,10.1.1.3,155,-0.410,-0.410,-0.410,0.000,0.000,0.000
1641091014215428096,2022-01-02-02:36:54,10.1.1.3,153,-0.400,-0.400,-0.400,0.000,0.000,0.000
1641091014415177984,2022-01-02-02:36:54,10.1.1.3,152,-0.390,-0.390,-0.390,0.000,0.000,0.000
1641091014615587840,2022-01-02-02:36:54,10.1.1.3,151,-0.380,-0.380,-0.380,0.000,0.000,0.000
1641091014814536192,2022-01-02-02:36:54,10.1.1.3,149,-0.370,-0.370,-0.370,0.000,0.000,0.000
1641091015013772032,2022-01-02-02:36:55,10.1.1.3,148,-0.360,-0.360,-0.360,0.000,0.000,0.000
1641091015214003968,2022-01-02-02:36:55,10.1.1.3,147,-0.350,-0.350,-0.350,0.000,0.000,0.000
1641091015412864000,2022-01-02-02:36:55,10.1.1.3,145,-0.340,-0.340,-0.340,0.000,0.000,0.000
1641091015635730944,2022-01-02-02:36:55,10.1.1.3,165,-0.330,-0.330,-0.330,0.000,0.000,0.000
1641091015835185152,2022-01-02-02:36:55,10.1.1.3,164,-0.320,-0.320,-0.320,0.000,0.000,0.000
1641091016033651200,2022-01-02-02:36:56,10.1.1.3,162,-0.310,-0.310,-0.310,0.000,0.000,0.000
1641091016235784960,2022-01-02-02:36:56,10.1.1.3,162,-0.300,-0.300,-0.300,0.000,0.000,0.000
1641091016438422016,2022-01-02-02:36:56,10.1.1.3,164,-0.290,-0.290,-0.290,0.000,0.000,0.000
1641091016635514112,2022-01-02-02:36:56,10.1.1.3,159,-0.280,-0.280,-0.280,0.000,0.000,0.000
1641091016841882112,2022-01-02-02:36:56,10.1.1.3,164,-0.270,-0.270,-0.270,0.000,0.000,0.000
1641091017042639104,2022-01-02-02:36:57,10.1.1.3,160,-0.260,-0.260,-0.260,0.000,0.000,0.000
1641091017237884160,2022-01-02-02:36:57,10.1.1.3,154,-0.250,-0.250,-0.250,0.000,0.000,0.000
1641091017440376064,2022-01-02-02:36:57,10.1.1.3,155,-0.240,-0.240,-0.240,0.000,0.000,0.000
1641091017652018176,2022-01-02-02:36:57,10.1.1.3,166,-0.230,-0.230,-0.230,0.000,0.000,0.000
1641091017848114944,2022-01-02-02:36:57,10.1.1.3,161,-0.220,-0.220,-0.220,0.000,0.000,0.000
1641091018042579968,2022-01-02-02:36:58,10.1.1.3,155,-0.210,-0.210,-0.210,0.000,0.000,0.000
1641091018263348992,2022-01-02-02:36:58,10.1.1.3,174,-0.200,-0.200,-0.200,0.000,0.000,0.000
1641091018462743040,2022-01-02-02:36:58,10.1.1.3,173,-0.190,-0.190,-0.190,0.000,0.000,0.000
1641091018662971904,2022-01-02-02:36:58,10.1.1.3,173,-0.180,-0.180,-0.180,0.000,0.000,0.000
1641091018864372992,2022-01-02-02:36:58,10.1.1.3,174,-0.170,-0.170,-0.170,0.000,0.000,0.000
1641091019065432064,2022-01-02-02:36:59,10.1.1.3,174,-0.160,-0.160,-0.160,0.000,0.000,0.000
1641091019266726912,2022-01-02-02:36:59,10.1.1.3,175,-0.150,-0.150,-0.150,0.000,0.000,0.000
1641091019466018816,2022-01-02-02:36:59,10.1.1.3,174,-0.140,-0.140,-0.140,0.000,0.000,0.000
1641091019667011072,2022-01-02-02:36:59,10.1.1.3,169,-0.130,-0.130,-0.130,0.000,0.000,0.000
1641091019868199936,2022-01-02-02:36:59,10.1.1.3,169,-0.120,-0.120,-0.120,0.000,0.000,0.000
1641091020070054144,2022-01-02-02:37:00,10.1.1.3,171,-0.110,-0.110,-0.110,0.000,0.000,0.000
1641091020269176832,2022-01-02-02:37:00,10.1.1.3,168,-0.100,-0.100,-0.100,0.000,0.000,0.000
1641091020472070912,2022-01-02-02:37:00,10.1.1.3,170,-0.090,-0.090,-0.090,0.000,0.000,0.000
1641091020669658880,2022-01-02-02:37:00,10.1.1.3,166,-0.080,-0.080,-0.080,0.000,0.000,0.000
1641091020870204928,2022-01-02-02:37:00,10.1.1.3,166,-0.070,-0.070,-0.070,0.000,0.000,0.000
1641091021076275200,2022-01-02-02:37:01,10.1.1.3,170,-0.060,-0.060,-0.060,0.000,0.000,0.000
1641091021274372096,2022-01-02-02:37:01,10.1.1.3,167,-0.050,-0.050,-0.050,0.000,0.000,0.000
1641091021497462016,2022-01-02-02:37:01,10.1.1.3,188,-0.040,-0.040,-0.040,0.000,0.000,0.000
1641091021692334848,2022-01-02-02:37:01,10.1.1.3,178,-0.030,-0.030,-0.030,0.000,0.000,0.000
1641091021891886080,2022-01-02-02:37:01,10.1.1.3,176,-0.020,-0.020,-0.020,0.000,0.000,0.000
1641091022095069952,2022-01-02-02:37:02,10.1.1.3,178,-0.010,-0.010,-0.010,0.000,0.000,0.000
1641091022293922048,2022-01-02-02:37:02,10.1.1.3,176,0.000,0.000,0.000,0.000,0.000,0.000
1641091022495224832,2022-01-02-02:37:02,10.1.1.3,175,-0.010,-0.010,-0.010,0.000,0.000,0.000
1641091022694757888,2022-01-02-02:37:02,10.1.1.3,174,-0.020,-0.020,-0.020,0.000,0.000,0.000
1641091022893335040,2022-01-02-02:37:02,10.1.1.3,172,-0.030,-0.030,-0.030,0.000,0.000,0.000
1641091023098653952,2022-01-02-02:37:03,10.1.1.3,176,-0.040,-0.040,-0.040,0.000,0.000,0.000
1641091023294094080,2022-01-02-02:37:03,10.1.1.3,170,-0.050,-0.050,-0.050,0.000,0.000,0.000
1641091023498315008,2022-01-02-02:37:03,10.1.1.3,174,-0.060,-0.060,-0.060,0.000,0.000,0.000
1641091023697148160,2022-01-02-02:37:03,10.1.1.3,172,-0.070,-0.070,-0.070,0.000,0.000,0.000
1641091023896246784,2022-01-02-02:37:03,10.1.1.3,171,-0.080,-0.080,-0.080,0.000,0.000,0.000
1641091024096124928,2022-01-02-02:37:04,10.1.1.3,170,-0.090,-0.090,-0.090,0.000,0.000,0.000
1641091024295942144,2022-01-02-02:37:04,10.1.1.3,169,-0.100,-0.100,-0.100,0.000,0.000,0.000
1641091024495290112,2022-01-02-02:37:04,10.1.1.3,168,-0.110,-0.110,-0.110,0.000,0.000,0.000
1641091024697992960,2022-01-02-02:37:04,10.1.1.3,170,-0.120,-0.120,-0.120,0.000,0.000,0.000
1641091024915752960,2022-01-02-02:37:04,10.1.1.3,187,-0.130,-0.130,-0.130,0.000,0.000,0.000
1641091025115360000,2022-01-02-02:37:05,10.1.1.3,185,-0.140,-0.140,-0.140,0.000,0.000,0.000
1641091025315188992,2022-01-02-02:37:05,10.1.1.3,184,-0.150,-0.150,-0.150,0.000,0.000,0.000
1641091025515305984,2022-01-02-02:37:05,10.1.1.3,184,-0.160,-0.160,-0.160,0.000,0.000,0.000
1641091025715837952,2022-01-02-02:37:05,10.1.1.3,183,-0.170,-0.170,-0.170,0.000,0.000,0.000
1641091025916361216,2022-01-02-02:37:05,10.1.1.3,183,-0.180,-0.180,-0.180,0.000,0.000,0.000
1641091026115827200,2022-01-02-02:37:06,10.1.1.3,181,-0.190,-0.190,-0.190,0.000,0.000,0.000
1641091026316216064,2022-01-02-02:37:06,10.1.1.3,178,-0.200,-0.200,-0.200,0.000,0.000,0.000
1641091026516297984,2022-01-02-02:37:06,10.1.1.3,178,-0.210,-0.210,-0.210,0.000,0.000,0.000
1641091026716403968,2022-01-02-02:37:06,10.1.1.3,178,-0.220,-0.220,-0.220,0.000,0.000,0.000
1641091026918989056,2022-01-02-02:37:06,10.1.1.3,180,-0.230,-0.230,-0.230,0.000,0.000,0.000
1641091027117806080,2022-01-02-02:37:07,10.1.1.3,178,-0.240,-0.240,-0.240,0.000,0.000,0.000
1641091027316435200,2022-01-02-02:37:07,10.1.1.3,176,-0.250,-0.250,-0.250,0.000,0.000,0.000
1641091027516701952,2022-01-02-02:37:07,10.1.1.3,175,-0.260,-0.260,-0.260,0.000,0.000,0.000
1641091027716322816,2022-01-02-02:37:07,10.1.1.3,173,-0.270,-0.270,-0.270,0.000,0.000,0.000
1641091027917747968,2022-01-02-02:37:07,10.1.1.3,172,-0.280,-0.280,-0.280,0.000,0.000,0.000
1641091028115689984,2022-01-02-02:37:08,10.1.1.3,170,-0.290,-0.290,-0.290,0.000,0.000,0.000
1641091028317210880,2022-01-02-02:37:08,10.1.1.3,169,-0.300,-0.300,-0.300,0.000,0.000,0.000
1641091028517857024,2022-01-02-02:37:08,10.1.1.3,170,-0.310,-0.310,-0.310,0.000,0.000,0.000
1641091028736787200,2022-01-02-02:37:08,10.1.1.3,188,-0.320,-0.320,-0.320,0.000,0.000,0.000
1641091028937701888,2022-01-02-02:37:08,10.1.1.3,188,-0.330,-0.330,-0.330,0.000,0.000,0.000
1641091029136132096,2022-01-02-02:37:09,10.1.1.3,185,-0.340,-0.340,-0.340,0.000,0.000,0.000
1641091029342222848,2022-01-02-02:37:09,10.1.1.3,189,-0.350,-0.350,-0.350,0.000,0.000,0.000
1641091029545310976,2022-01-02-02:37:09,10.1.1.3,189,-0.360,-0.360,-0.360,0.000,0.000,0.000
1641091029737214208,2022-01-02-02:37:09,10.1.1.3,182,-0.370,-0.370,-0.370,0.000,0.000,0.000
1641091029934766080,2022-01-02-02:37:09,10.1.1.3,178,-0.380,-0.380,-0.380,0.000,0.000,0.000
1641091030134664960,2022-01-02-02:37:10,10.1.1.3,177,-0.390,-0.390,-0.390,0.000,0.000,0.000
1641091030335143168,2022-01-02-02:37:10,10.1.1.3,175,-0.400,-0.400,-0.400,0.000,0.000,0.000
1641091030535408896,2022-01-02-02:37:10,10.1.1.3,174,-0.410,-0.410,-0.410,0.000,0.000,0.000
1641091030734930944,2022-01-02-02:37:10,10.1.1.3,173,-0.420,-0.420,-0.420,0.000,0.000,0.000
1641091030934027008,2022-01-02-02:37:10,10.1.1.3,172,-0.430,-0.430,-0.430,0.000,0.000,0.000
1641091031133997056,2022-01-02-02:37:11,10.1.1.3,171,-0.440,-0.440,-0.440,0.000,0.000,0.000
1641091031334171904,2022-01-02-02:37:11,10.1.1.3,170,-0.450,-0.450,-0.450,0.000,0.000,0.000
1641091031535051008,2022-01-02-02:37:11,10.1.1.3,171,-0.460,-0.460,-0.460,0.000,0.000,0.000
1641091031734865920,2022-01-02-02:37:11,10.1.1.3,169,-0.470,-0.470,-0.470,0.000,0.000,0.000
1641091031933628160,2022-01-02-02:37:11,10.1.1.3,168,-0.480,-0.480,-0.480,0.000,0.000,0.000
1641091032133948928,2022-01-02-02:37:12,10.1.1.3,168,-0.490,-0.490,-0.490,0.000,0.000,0.000
1641091032334507008,2022-01-02-02:37:12,10.1.1.3,168,-0.480,-0.480,-0.480,0.000,0.000,0.000
1641091032533082880,2022-01-02-02:37:12,10.1.1.3,166,-0.470,-0.470,-0.470,0.000,0.000,0.000
1641091032734051072,2022-01-02-02:37:12,10.1.1.3,166,-0.460,-0.460,-0.460,0.000,0.000,0.000
1641091032932487936,2022-01-02-02:37:12,10.1.1.3,164,-0.450,-0.450,-0.450,0.000,0.000,0.000
1641091033152048128,2022-01-02-02:37:13,10.1.1.3,183,-0.440,-0.440,-0.440,0.000,0.000,0.000
1641091033354650880,2022-01-02-02:37:13,10.1.1.3,185,-0.430,-0.430,-0.430,0.000,0.000,0.000
1641091033552807936,2022-01-02-02:37:13,10.1.1.3,182,-0.420,-0.420,-0.420,0.000,0.000,0.000
1641091033753475840,2022-01-02-02:37:13,10.1.1.3,181,-0.410,-0.410,-0.410,0.000,0.000,0.000
1641091033952523008,2022-01-02-02:37:13,10.1.1.3,180,-0.400,-0.400,-0.400,0.000,0.000,0.000
1641091034152529920,2022-01-02-02:37:14,10.1.1.3,178,-0.390,-0.390,-0.390,0.000,0.000,0.000
1641091034353892096,2022-01-02-02:37:14,10.1.1.3,177,-0.380,-0.380,-0.380,0.000,0.000,0.000
1641091034552436992,2022-01-02-02:37:14,10.1.1.3,174,-0.370,-0.370,-0.370,0.000,0.000,0.000
1641091034753671936,2022-01-02-02:37:14,10.1.1.3,175,-0.360,-0.360,-0.360,0.000,0.000,0.000
1641091034955388160,2022-01-02-02:37:14,10.1.1.3,176,-0.350,-0.350,-0.350,0.000,0.000,0.000
1641091035151084800,2022-01-02-02:37:15,10.1.1.3,171,-0.340,-0.340,-0.340,0.000,0.000,0.000
1641091035352412928,2022-01-02-02:37:15,10.1.1.3,171,-0.330,-0.330,-0.330,0.000,0.000,0.000
1641091035550748160,2022-01-02-02:37:15,10.1.1.3,167,-0.320,-0.320,-0.320,0.000,0.000,0.000
1641091035750324992,2022-01-02-02:37:15,10.1.1.3,166,-0.310,-0.310,-0.310,0.000,0.000,0.000
1641091035949508864,2022-01-02-02:37:15,10.1.1.3,165,-0.300,-0.300,-0.300,0.000,0.000,0.000
1641091036148817152,2022-01-02-02:37:16,10.1.1.3,163,-0.290,-0.290,-0.290,0.000,0.000,0.000
1641091036351977984,2022-01-02-02:37:16,10.1.1.3,166,-0.280,-0.280,-0.280,0.000,0.000,0.000
1641091036549267968,2022-01-02-02:37:16,10.1.1.3,162,-0.270,-0.270,-0.270,0.000,0.000,0.000
1641091036769287168,2022-01-02-02:37:16,10.1.1.3,181,-0.260,-0.260,-0.260,0.000,0.000,0.000
1641091036968653056,2022-01-02-02:37:16,10.1.1.3,178,-0.250,-0.250,-0.250,0.000,0.000,0.000
1641091037168642048,2022-01-02-02:37:17,10.1.1.3,177,-0.240,-0.240,-0.240,0.000,0.000,0.000
1641091037367738112,2022-01-02-02:37:17,10.1.1.3,174,-0.230,-0.230,-0.230,0.000,0.000,0.000
1641091037567032064,2022-01-02-02:37:17,10.1.1.3,173,-0.220,-0.220,-0.220,0.000,0.000,0.000
1641091037770296064,2022-01-02-02:37:17,10.1.1.3,176,-0.210,-0.210,-0.210,0.000,0.000,0.000
1641091037970937856,2022-01-02-02:37:17,10.1.1.3,176,-0.200,-0.200,-0.200,0.000,0.000,0.000
1641091038167709184,2022-01-02-02:37:18,10.1.1.3,172,-0.190,-0.190,-0.190,0.000,0.000,0.000
1641091038367503872,2022-01-02-02:37:18,10.1.1.3,171,-0.180,-0.180,-0.180,0.000,0.000,0.000
1641091038567811072,2022-01-02-02:37:18,10.1.1.3,170,-0.170,-0.170,-0.170,0.000,0.000,0.000
1641091038765979136,2022-01-02-02:37:18,10.1.1.3,168,-0.160,-0.160,-0.160,0.000,0.000,0.000
1641091038966502912,2022-01-02-02:37:18,10.1.1.3,167,-0.150,-0.150,-0.150,0.000,0.000,0.000
1641091039168155904,2022-01-02-02:37:19,10.1.1.3,168,-0.140,-0.140,-0.140,0.000,0.000,0.000
1641091039367692032,2022-01-02-02:37:19,10.1.1.3,166,-0.130,-0.130,-0.130,0.000,0.000,0.000
1641091039565341952,2022-01-02-02:37:19,10.1.1.3,163,-0.120,-0.120,-0.120,0.000,0.000,0.000
1641091039765969152,2022-01-02-02:37:19,10.1.1.3,163,-0.110,-0.110,-0.110,0.000,0.000,0.000
1641091039967348224,2022-01-02-02:37:19,10.1.1.3,164,-0.100,-0.100,-0.100,0.000,0.000,0.000
1641091040165047808,2022-01-02-02:37:20,10.1.1.3,160,-0.090,-0.090,-0.090,0.000,0.000,0.000
1641091040364221952,2022-01-02-02:37:20,10.1.1.3,157,-0.080,-0.080,-0.080,0.000,0.000,0.000
1641091040564126976,2022-01-02-02:37:20,10.1.1.3,156,-0.070,-0.070,-0.070,0.000,0.000,0.000
1641091040786369024,2022-01-02-02:37:20,10.1.1.3,178,-0.060,-0.060,-0.060,0.000,0.000,0.000
1641091040986677760,2022-01-02-02:37:20,10.1.1.3,176,-0.050,-0.050,-0.050,0.000,0.000,0.000
1641091041184595968,2022-01-02-02:37:21,10.1.1.3,173,-0.040,-0.040,-0.040,0.000,0.000,0.000
1641091041384075008,2022-01-02-02:37:21,10.1.1.3,172,-0.030,-0.030,-0.030,0.000,0.000,0.000
1641091041582961920,2022-01-02-02:37:21,10.1.1.3,170,-0.020,-0.020,-0.020,0.000,0.000,0.000
1641091041783941888,2022-01-02-02:37:21,10.1.1.3,170,-0.010,-0.010,-0.010,0.000,0.000,0.000
1641091041983049984,2022-01-02-02:37:21,10.1.1.3,168,0.000,0.000,0.000,0.000,0.000,0.000
1641091042184688128,2022-01-02-02:37:22,10.1.1.3,167,-0.010,-0.010,-0.010,0.000,0.000,0.000
1641091042383467008,2022-01-02-02:37:22,10.1.1.3,167,-0.020,-0.020,-0.020,0.000,0.000,0.000
1641091042583627008,2022-01-02-02:37:22,10.1.1.3,167,-0.030,-0.030,-0.030,0.000,0.000,0.000
1641091042781527040,2022-01-02-02:37:22,10.1.1.3,164,-0.040,-0.040,-0.040,0.000,0.000,0.000
1641091042980921856,2022-01-02-02:37:22,10.1.1.3,162,-0.050,-0.050,-0.050,0.000,0.000,0.000
1641091043181634048,2022-01-02-02:37:23,10.1.1.3,160,-0.060,-0.060,-0.060,0.000,0.000,0.000
1641091043380604928,2022-01-02-02:37:23,10.1.1.3,161,-0.070,-0.070,-0.070,0.000,0.000,0.000
1641091043580274176,2022-01-02-02:37:23,10.1.1.3,159,-0.080,-0.080,-0.080,0.000,0.000,0.000
1641091043778021120,2022-01-02-02:37:23,10.1.1.3,156,-0.090,-0.090,-0.090,0.000,0.000,0.000
1641091043978343936,2022-01-02-02:37:23,10.1.1.3,155,-0.100,-0.100,-0.100,0.000,0.000,0.000
1641091044178260992,2022-01-02-02:37:24,10.1.1.3,154,-0.110,-0.110,-0.110,0.000,0.000,0.000
1641091044380018944,2022-01-02-02:37:24,10.1.1.3,155,-0.120,-0.120,-0.120,0.000,0.000,0.000
1641091044577955840,2022-01-02-02:37:24,10.1.1.3,152,-0.130,-0.130,-0.130,0.000,0.000,0.000
1641091044779238912,2022-01-02-02:37:24,10.1.1.3,153,-0.140,-0.140,-0.140,0.000,0.000,0.000
1641091044979680000,2022-01-02-02:37:24,10.1.1.3,152,-0.150,-0.150,-0.150,0.000,0.000,0.000
1641091045180054784,2022-01-02-02:37:25,10.1.1.3,149,-0.160,-0.160,-0.160,0.000,0.000,0.000
1641091045399246848,2022-01-02-02:37:25,10.1.1.3,170,-0.170,-0.170,-0.170,0.000,0.000,0.000
1641091045598277120,2022-01-02-02:37:25,10.1.1.3,167,-0.180,-0.180,-0.180,0.000,0.000,0.000
1641091045795732992,2022-01-02-02:37:25,10.1.1.3,165,-0.190,-0.190,-0.190,0.000,0.000,0.000
1641091045998004992,2022-01-02-02:37:25,10.1.1.3,167,-0.200,-0.200,-0.200,0.000,0.000,0.000
1641091046196244992,2022-01-02-02:37:26,10.1.1.3,164,-0.210,-0.210,-0.210,0.000,0.000,0.000
1641091046395597824,2022-01-02-02:37:26,10.1.1.3,163,-0.220,-0.220,-0.220,0.000,0.000,0.000
1641091046595616000,2022-01-02-02:37:26,10.1.1.3,162,-0.230,-0.230,-0.230,0.000,0.000,0.000
1641091046796217088,2022-01-02-02:37:26,10.1.1.3,162,-0.240,-0.240,-0.240,0.000,0.000,0.000
1641091046994214144,2022-01-02-02:37:26,10.1.1.3,159,-0.250,-0.250,-0.250,0.000,0.000,0.000
1641091047195898112,2022-01-02-02:37:27,10.1.1.3,158,-0.260,-0.260,-0.260,0.000,0.000,0.000
1641091047393466112,2022-01-02-02:37:27,10.1.1.3,153,-0.270,-0.270,-0.270,0.000,0.000,0.000
1641091047594821888,2022-01-02-02:37:27,10.1.1.3,153,-0.280,-0.280,-0.280,0.000,0.000,0.000
1641091047794554880,2022-01-02-02:37:27,10.1.1.3,153,-0.290,-0.290,-0.290,0.000,0.000,0.000
1641091047994322176,2022-01-02-02:37:27,10.1.1.3,151,-0.300,-0.300,-0.300,0.000,0.000,0.000
1641091048193682944,2022-01-02-02:37:28,10.1.1.3,150,-0.310,-0.310,-0.310,0.000,0.000,0.000
1641091048395642112,2022-01-02-02:37:28,10.1.1.3,150,-0.320,-0.320,-0.320,0.000,0.000,0.000
1641091048597019904,2022-01-02-02:37:28,10.1.1.3,151,-0.330,-0.330,-0.330,0.000,0.000,0.000
1641091048796336896,2022-01-02-02:37:28,10.1.1.3,150,-0.340,-0.340,-0.340,0.000,0.000,0.000
1641091049004796928,2022-01-02-02:37:29,10.1.1.3,157,-0.350,-0.350,-0.350,0.000,0.000,0.000
1641091049197742080,2022-01-02-02:37:29,10.1.1.3,150,-0.360,-0.360,-0.360,0.000,0.000,0.000
1641091049420154112,2022-01-02-02:37:29,10.1.1.3,172,-0.370,-0.370,-0.370,0.000,0.000,0.000
1641091049620184832,2022-01-02-02:37:29,10.1.1.3,171,-0.380,-0.380,-0.380,0.000,0.000,0.000
1641091049823333888,2022-01-02-02:37:29,10.1.1.3,174,-0.390,-0.390,-0.390,0.000,0.000,0.000
1641091050021757952,2022-01-02-02:37:30,10.1.1.3,171,-0.400,-0.400,-0.400,0.000,0.000,0.000
1641091050223408896,2022-01-02-02:37:30,10.1.1.3,171,-0.410,-0.410,-0.410,0.000,0.000,0.000
1641091050424248064,2022-01-02-02:37:30,10.1.1.3,172,-0.420,-0.420,-0.420,0.000,0.000,0.000
1641091050624871936,2022-01-02-02:37:30,10.1.1.3,169,-0.430,-0.430,-0.430,0.000,0.000,0.000
1641091050827133952,2022-01-02-02:37:30,10.1.1.3,171,-0.440,-0.440,-0.440,0.000,0.000,0.000
1641091051026644992,2022-01-02-02:37:31,10.1.1.3,170,-0.450,-0.450,-0.450,0.000,0.000,0.000
1641091051229785856,2022-01-02-02:37:31,10.1.1.3,173,-0.460,-0.460,-0.460,0.000,0.000,0.000
1641091051426405888,2022-01-02-02:37:31,10.1.1.3,169,-0.470,-0.470,-0.470,0.000,0.000,0.000
1641091051627405824,2022-01-02-02:37:31,10.1.1.3,166,-0.480,-0.480,-0.480,0.000,0.000,0.000
1641091051829435136,2022-01-02-02:37:31,10.1.1.3,167,-0.490,-0.490,-0.490,0.000,0.000,0.000
1641091052031246848,2022-01-02-02:37:32,10.1.1.3,168,-0.480,-0.480,-0.480,0.000,0.000,0.000
1641091052230264832,2022-01-02-02:37:32,10.1.1.3,166,-0.470,-0.470,-0.470,0.000,0.000,0.000
1641091052429478912,2022-01-02-02:37:32,10.1.1.3,165,-0.460,-0.460,-0.460,0.000,0.000,0.000
1641091052631144960,2022-01-02-02:37:32,10.1.1.3,166,-0.450,-0.450,-0.450,0.000,0.000,0.000
1641091052830327040,2022-01-02-02:37:32,10.1.1.3,164,-0.440,-0.440,-0.440,0.000,0.000,0.000
1641091053032318208,2022-01-02-02:37:33,10.1.1.3,165,-0.430,-0.430,-0.430,0.000,0.000,0.000
1641091053232075008,2022-01-02-02:37:33,10.1.1.3,164,-0.420,-0.420,-0.420,0.000,0.000,0.000
1641091053431642112,2022-01-02-02:37:33,10.1.1.3,163,-0.410,-0.410,-0.410,0.000,0.000,0.000
1641091053653044992,2022-01-02-02:37:33,10.1.1.3,184,-0.400,-0.400,-0.400,0.000,0.000,0.000
1641091053854528000,2022-01-02-02:37:33,10.1.1.3,183,-0.390,-0.390,-0.390,0.000,0.000,0.000
1641091054053270016,2022-01-02-02:37:34,10.1.1.3,183,-0.380,-0.380,-0.380,0.000,0.000,0.000
1641091054254179840,2022-01-02-02:37:34,10.1.1.3,183,-0.370,-0.370,-0.370,0.000,0.000,0.000
1641091054453521920,2022-01-02-02:37:34,10.1.1.3,180,-0.360,-0.360,-0.360,0.000,0.000,0.000
1641091054653821952,2022-01-02-02:37:34,10.1.1.3,180,-0.350,-0.350,-0.350,0.000,0.000,0.000
1641091054854193920,2022-01-02-02:37:34,10.1.1.3,179,-0.340,-0.340,-0.340,0.000,0.000,0.000
1641091055054769152,2022-01-02-02:37:35,10.1.1.3,179,-0.330,-0.330,-0.330,0.000,0.000,0.000
1641091055255785984,2022-01-02-02:37:35,10.1.1.3,179,-0.320,-0.320,-0.320,0.000,0.000,0.000
1641091055454689024,2022-01-02-02:37:35,10.1.1.3,177,-0.310,-0.310,-0.310,0.000,0.000,0.000
1641091055662842880,2022-01-02-02:37:35,10.1.1.3,185,-0.300,-0.300,-0.300,0.000,0.000,0.000
1641091055855726848,2022-01-02-02:37:35,10.1.1.3,176,-0.290,-0.290,-0.290,0.000,0.000,0.000
1641091056055191040,2022-01-02-02:37:36,10.1.1.3,175,-0.280,-0.280,-0.280,0.000,0.000,0.000
1641091056255542016,2022-01-02-02:37:36,10.1.1.3,174,-0.270,-0.270,-0.270,0.000,0.000,0.000
1641091056459297792,2022-01-02-02:37:36,10.1.1.3,177,-0.260,-0.260,-0.260,0.000,0.000,0.000
1641091056660177920,2022-01-02-02:37:36,10.1.1.3,177,-0.250,-0.250,-0.250,0.000,0.000,0.000
1641091056858169088,2022-01-02-02:37:36,10.1.1.3,174,-0.240,-0.240,-0.240,0.000,0.000,0.000
1641091057056986112,2022-01-02-02:37:37,10.1.1.3,172,-0.230,-0.230,-0.230,0.000,0.000,0.000
1641091057256300032,2022-01-02-02:37:37,10.1.1.3,170,-0.220,-0.220,-0.220,0.000,0.000,0.000
1641091057455576832,2022-01-02-02:37:37,10.1.1.3,169,-0.210,-0.210,-0.210,0.000,0.000,0.000
1641091057656244992,2022-01-02-02:37:37,10.1.1.3,169,-0.200,-0.200,-0.200,0.000,0.000,0.000
1641091057859333120,2022-01-02-02:37:37,10.1.1.3,171,-0.190,-0.190,-0.190,0.000,0.000,0.000
1641091058077795072,2022-01-02-02:37:38,10.1.1.3,187,-0.180,-0.180,-0.180,0.000,0.000,0.000
1641091058278168832,2022-01-02-02:37:38,10.1.1.3,188,-0.170,-0.170,-0.170,0.000,0.000,0.000
1641091058477164032,2022-01-02-02:37:38,10.1.1.3,187,-0.160,-0.160,-0.160,0.000,0.000,0.000
1641091058677206016,2022-01-02-02:37:38,10.1.1.3,186,-0.150,-0.150,-0.150,0.000,0.000,0.000
1641091058878168064,2022-01-02-02:37:38,10.1.1.3,186,-0.140,-0.140,-0.140,0.000,0.000,0.000
1641091059076282880,2022-01-02-02:37:39,10.1.1.3,184,-0.130,-0.130,-0.130,0.000,0.000,0.000
1641091059278292992,2022-01-02-02:37:39,10.1.1.3,185,-0.120,-0.120,-0.120,0.000,0.000,0.000
1641091059476717824,2022-01-02-02:37:39,10.1.1.3,183,-0.110,-0.110,-0.110,0.000,0.000,0.000
1641091059675998976,2022-01-02-02:37:39,10.1.1.3,181,-0.100,-0.100,-0.100,0.000,0.000,0.000
1641091059879566848,2022-01-02-02:37:39,10.1.1.3,184,-0.090,-0.090,-0.090,0.000,0.000,0.000
1641091060077703936,2022-01-02-02:37:40,10.1.1.3,177,-0.080,-0.080,-0.080,0.000,0.000,0.000
1641091060278800896,2022-01-02-02:37:40,10.1.1.3,178,-0.070,-0.070,-0.070,0.000,0.000,0.000
1641091060477987072,2022-01-02-02:37:40,10.1.1.3,177,-0.060,-0.060,-0.060,0.000,0.000,0.000
1641091060677758976,2022-01-02-02:37:40,10.1.1.3,176,-0.050,-0.050,-0.050,0.000,0.000,0.000
1641091060878504960,2022-01-02-02:37:40,10.1.1.3,176,-0.040,-0.040,-0.040,0.000,0.000,0.000
1641091061077560832,2022-01-02-02:37:41,10.1.1.3,175,-0.030,-0.030,-0.030,0.000,0.000,0.000
1641091061277422848,2022-01-02-02:37:41,10.1.1.3,173,-0.020,-0.020,-0.020,0.000,0.000,0.000
1641091061476674048,2022-01-02-02:37:41,10.1.1.3,173,-0.010,-0.010,-0.010,0.000,0.000,0.000
1641091061676055808,2022-01-02-02:37:41,10.1.1.3,171,0.000,0.000,0.000,0.000,0.000,0.000
1641091061876210944,2022-01-02-02:37:41,10.1.1.3,170,-0.010,-0.010,-0.010,0.000,0.000,0.000
1641091062076921856,2022-01-02-02:37:42,10.1.1.3,170,-0.020,-0.020,-0.020,0.000,0.000,0.000
1641091062277268992,2022-01-02-02:37:42,10.1.1.3,169,-0.030,-0.030,-0.030,0.000,0.000,0.000
1641091062496890112,2022-01-02-02:37:42,10.1.1.3,188,-0.040,-0.040,-0.040,0.000,0.000,0.000
1641091062701251072,2022-01-02-02:37:42,10.1.1.3,191,-0.050,-0.050,-0.050,0.000,0.000,0.000
1641091062896611840,2022-01-02-02:37:42,10.1.1.3,185,-0.060,-0.060,-0.060,0.000,0.000,0.000
1641091063095902976,2022-01-02-02:37:43,10.1.1.3,184,-0.070,-0.070,-0.070,0.000,0.000,0.000
1641091063295247104,2022-01-02-02:37:43,10.1.1.3,182,-0.080,-0.080,-0.080,0.000,0.000,0.000
1641091063495553024,2022-01-02-02:37:43,10.1.1.3,182,-0.090,-0.090,-0.090,0.000,0.000,0.000
1641091063695113984,2022-01-02-02:37:43,10.1.1.3,181,-0.100,-0.100,-0.100,0.000,0.000,0.000
1641091063896814080,2022-01-02-02:37:43,10.1.1.3,181,-0.110,-0.110,-0.110,0.000,0.000,0.000
1641091064095971072,2022-01-02-02:37:44,10.1.1.3,179,-0.120,-0.120,-0.120,0.000,0.000,0.000
1641091064118844928,2022-01-02-02:37:44,10.1.1.3,-2,-0.120,-0.120,-0.120,0.000,0.000,0.000
1641091064495033856,2022-01-02-02:37:44,10.1.1.3,176,-0.140,-0.140,-0.140,0.000,0.000,0.000
1641091064694206976,2022-01-02-02:37:44,10.1.1.3,174,-0.150,-0.150,-0.150,0.000,0.000,0.000
1641091064893703936,2022-01-02-02:37:44,10.1.1.3,172,-0.160,-0.160,-0.160,0.000,0.000,0.000
1641091065094244864,2022-01-02-02:37:45,10.1.1.3,172,-0.170,-0.170,-0.170,0.000,0.000,0.000
1641091065293297920,2022-01-02-02:37:45,10.1.1.3,170,-0.180,-0.180,-0.180,0.000,0.000,0.000
1641091065498053120,2022-01-02-02:37:45,10.1.1.3,174,-0.190,-0.190,-0.190,0.000,0.000,0.000
1641091065694348032,2022-01-02-02:37:45,10.1.1.3,169,-0.200,-0.200,-0.200,0.000,0.000,0.000
1641091065892737024,2022-01-02-02:37:45,10.1.1.3,167,-0.210,-0.210,-0.210,0.000,0.000,0.000
1641091066092973824,2022-01-02-02:37:46,10.1.1.3,167,-0.220,-0.220,-0.220,0.000,0.000,0.000
1641091066292177920,2022-01-02-02:37:46,10.1.1.3,165,-0.230,-0.230,-0.230,0.000,0.000,0.000
1641091066493437952,2022-01-02-02:37:46,10.1.1.3,165,-0.240,-0.240,-0.240,0.000,0.000,0.000
1641091066694443008,2022-01-02-02:37:46,10.1.1.3,166,-0.250,-0.250,-0.250,0.000,0.000,0.000
1641091066918391040,2022-01-02-02:37:46,10.1.1.3,189,-0.260,-0.260,-0.260,0.000,0.000,0.000
1641091067111525888,2022-01-02-02:37:47,10.1.1.3,181,-0.270,-0.270,-0.270,0.000,0.000,0.000
1641091067312478976,2022-01-02-02:37:47,10.1.1.3,181,-0.280,-0.280,-0.280,0.000,0.000,0.000
1641091067512366080,2022-01-02-02:37:47,10.1.1.3,180,-0.290,-0.290,-0.290,0.000,0.000,0.000
1641091067712626944,2022-01-02-02:37:47,10.1.1.3,176,-0.300,-0.300,-0.300,0.000,0.000,0.000
1641091067911214080,2022-01-02-02:37:47,10.1.1.3,174,-0.310,-0.310,-0.310,0.000,0.000,0.000
1641091068114605824,2022-01-02-02:37:48,10.1.1.3,176,-0.320,-0.320,-0.320,0.000,0.000,0.000
1641091068312328192,2022-01-02-02:37:48,10.1.1.3,171,-0.330,-0.330,-0.330,0.000,0.000,0.000
1641091068512564992,2022-01-02-02:37:48,10.1.1.3,170,-0.340,-0.340,-0.340,0.000,0.000,0.000
1641091068709558016,2022-01-02-02:37:48,10.1.1.3,167,-0.350,-0.350,-0.350,0.000,0.000,0.000
1641091068909816064,2022-01-02-02:37:48,10.1.1.3,166,-0.360,-0.360,-0.360,0.000,0.000,0.000
1641091069110114048,2022-01-02-02:37:49,10.1.1.3,166,-0.370,-0.370,-0.370,0.000,0.000,0.000
1641091069310103808,2022-01-02-02:37:49,10.1.1.3,164,-0.380,-0.380,-0.380,0.000,0.000,0.000
1641091069508009984,2022-01-02-02:37:49,10.1.1.3,161,-0.390,-0.390,-0.390,0.000,0.000,0.000
1641091069709646848,2022-01-02-02:37:49,10.1.1.3,162,-0.400,-0.400,-0.400,0.000,0.000,0.000
1641091069908928000,2022-01-02-02:37:49,10.1.1.3,161,-0.410,-0.410,-0.410,0.000,0.000,0.000
1641091070127222016,2022-01-02-02:37:50,10.1.1.3,178,-0.420,-0.420,-0.420,0.000,0.000,0.000
1641091070329369088,2022-01-02-02:37:50,10.1.1.3,180,-0.430,-0.430,-0.430,0.000,0.000,0.000
1641091070526938880,2022-01-02-02:37:50,10.1.1.3,177,-0.440,-0.440,-0.440,0.000,0.000,0.000
1641091070727296000,2022-01-02-02:37:50,10.1.1.3,176,-0.450,-0.450,-0.450,0.000,0.000,0.000
1641091070926494976,2022-01-02-02:37:50,10.1.1.3,175,-0.460,-0.460,-0.460,0.000,0.000,0.000
1641091071127024896,2022-01-02-02:37:51,10.1.1.3,174,-0.470,-0.470,-0.470,0.000,0.000,0.000
1641091071325975808,2022-01-02-02:37:51,10.1.1.3,172,-0.480,-0.480,-0.480,0.000,0.000,0.000
1641091071525420032,2022-01-02-02:37:51,10.1.1.3,171,-0.490,-0.490,-0.490,0.000,0.000,0.000
1641091071726145024,2022-01-02-02:37:51,10.1.1.3,170,-0.480,-0.480,-0.480,0.000,0.000,0.000
1641091071925828864,2022-01-02-02:37:51,10.1.1.3,169,-0.470,-0.470,-0.470,0.000,0.000,0.000
1641091072126697984,2022-01-02-02:37:52,10.1.1.3,170,-0.460,-0.460,-0.460,0.000,0.000,0.000
1641091072327128832,2022-01-02-02:37:52,10.1.1.3,169,-0.450,-0.450,-0.450,0.000,0.000,0.000
1641091072524049920,2022-01-02-02:37:52,10.1.1.3,165,-0.440,-0.440,-0.440,0.000,0.000,0.000
1641091072725168896,2022-01-02-02:37:52,10.1.1.3,165,-0.430,-0.430,-0.430,0.000,0.000,0.000
1641091072924591104,2022-01-02-02:37:52,10.1.1.3,164,-0.420,-0.420,-0.420,0.000,0.000,0.000
1641091073124449024,2022-01-02-02:37:53,10.1.1.3,163,-0.410,-0.410,-0.410,0.000,0.000,0.000
1641091073326456064,2022-01-02-02:37:53,10.1.1.3,163,-0.400,-0.400,-0.400,0.000,0.000,0.000
1641091073523344896,2022-01-02-02:37:53,10.1.1.3,161,-0.390,-0.390,-0.390,0.000,0.000,0.000
1641091073724838144,2022-01-02-02:37:53,10.1.1.3,161,-0.380,-0.380,-0.380,0.000,0.000,0.000
1641091073922235904,2022-01-02-02:37:53,10.1.1.3,157,-0.370,-0.370,-0.370,0.000,0.000,0.000
1641091074123603968,2022-01-02-02:37:54,10.1.1.3,155,-0.360,-0.360,-0.360,0.000,0.000,0.000
1641091074323618816,2022-01-02-02:37:54,10.1.1.3,156,-0.350,-0.350,-0.350,0.000,0.000,0.000
1641091074541650944,2022-01-02-02:37:54,10.1.1.3,173,-0.340,-0.340,-0.340,0.000,0.000,0.000
1641091074742670080,2022-01-02-02:37:54,10.1.1.3,174,-0.330,-0.330,-0.330,0.000,0.000,0.000
1641091074942668800,2022-01-02-02:37:54,10.1.1.3,173,-0.320,-0.320,-0.320,0.000,0.000,0.000
1641091075142339840,2022-01-02-02:37:55,10.1.1.3,170,-0.310,-0.310,-0.310,0.000,0.000,0.000
1641091075342763008,2022-01-02-02:37:55,10.1.1.3,170,-0.300,-0.300,-0.300,0.000,0.000,0.000
1641091075540579072,2022-01-02-02:37:55,10.1.1.3,167,-0.290,-0.290,-0.290,0.000,0.000,0.000
1641091075739137024,2022-01-02-02:37:55,10.1.1.3,165,-0.280,-0.280,-0.280,0.000,0.000,0.000
1641091075938955008,2022-01-02-02:37:55,10.1.1.3,163,-0.270,-0.270,-0.270,0.000,0.000,0.000
1641091076138673920,2022-01-02-02:37:56,10.1.1.3,162,-0.260,-0.260,-0.260,0.000,0.000,0.000
1641091076340046848,2022-01-02-02:37:56,10.1.1.3,162,-0.250,-0.250,-0.250,0.000,0.000,0.000
1641091076539896064,2022-01-02-02:37:56,10.1.1.3,160,-0.240,-0.240,-0.240,0.000,0.000,0.000
1641091076738939904,2022-01-02-02:37:56,10.1.1.3,159,-0.230,-0.230,-0.230,0.000,0.000,0.000
1641091076937612032,2022-01-02-02:37:56,10.1.1.3,157,-0.220,-0.220,-0.220,0.000,0.000,0.000
1641091077137804032,2022-01-02-02:37:57,10.1.1.3,156,-0.210,-0.210,-0.210,0.000,0.000,0.000
1641091077337584128,2022-01-02-02:37:57,10.1.1.3,155,-0.200,-0.200,-0.200,0.000,0.000,0.000
1641091077535964928,2022-01-02-02:37:57,10.1.1.3,153,-0.190,-0.190,-0.190,0.000,0.000,0.000
1641091077736871936,2022-01-02-02:37:57,10.1.1.3,153,-0.180,-0.180,-0.180,0.000,0.000,0.000
1641091077938088960,2022-01-02-02:37:57,10.1.1.3,154,-0.170,-0.170,-0.170,0.000,0.000,0.000
1641091078138183168,2022-01-02-02:37:58,10.1.1.3,154,-0.160,-0.160,-0.160,0.000,0.000,0.000
1641091078335650048,2022-01-02-02:37:58,10.1.1.3,149,-0.150,-0.150,-0.150,0.000,0.000,0.000
1641091078535612160,2022-01-02-02:37:58,10.1.1.3,148,-0.140,-0.140,-0.140,0.000,0.000,0.000
1641091078735969024,2022-01-02-02:37:58,10.1.1.3,148,-0.130,-0.130,-0.130,0.000,0.000,0.000
1641091078934555904,2022-01-02-02:37:58,10.1.1.3,146,-0.120,-0.120,-0.120,0.000,0.000,0.000
1641091079155988992,2022-01-02-02:37:59,10.1.1.3,166,-0.110,-0.110,-0.110,0.000,0.000,0.000
1641091079353494784,2022-01-02-02:37:59,10.1.1.3,162,-0.100,-0.100,-0.100,0.000,0.000,0.000
1641091079554057984,2022-01-02-02:37:59,10.1.1.3,162,-0.090,-0.090,-0.090,0.000,0.000,0.000
1641091079752820992,2022-01-02-02:37:59,10.1.1.3,158,-0.080,-0.080,-0.080,0.000,0.000,0.000
1641091079953198848,2022-01-02-02:37:59,10.1.1.3,158,-0.070,-0.070,-0.070,0.000,0.000,0.000
1641091080155264000,2022-01-02-02:38:00,10.1.1.3,157,-0.060,-0.060,-0.060,0.000,0.000,0.000
1641091080354998016,2022-01-02-02:38:00,10.1.1.3,158,-0.050,-0.050,-0.050,0.000,0.000,0.000
1641091080556189952,2022-01-02-02:38:00,10.1.1.3,158,-0.040,-0.040,-0.040,0.000,0.000,0.000
1641091080759286016,2022-01-02-02:38:00,10.1.1.3,160,-0.030,-0.030,-0.030,0.000,0.000,0.000
1641091080959163904,2022-01-02-02:38:00,10.1.1.3,159,-0.020,-0.020,-0.020,0.000,0.000,0.000
1641091081158992896,2022-01-02-02:38:01,10.1.1.3,158,-0.010,-0.010,-0.010,0.000,0.000,0.000
1641091081362583040,2022-01-02-02:38:01,10.1.1.3,161,0.000,0.000,0.000,0.000,0.000,0.000
1641091081561528832,2022-01-02-02:38:01,10.1.1.3,158,-0.010,-0.010,-0.010,0.000,0.000,0.000
1641091081762541056,2022-01-02-02:38:01,10.1.1.3,157,-0.020,-0.020,-0.020,0.000,0.000,0.000
1641091081966177024,2022-01-02-02:38:01,10.1.1.3,160,-0.030,-0.030,-0.030,0.000,0.000,0.000
1641091082163485952,2022-01-02-02:38:02,10.1.1.3,157,-0.040,-0.040,-0.040,0.000,0.000,0.000
1641091082365974784,2022-01-02-02:38:02,10.1.1.3,159,-0.050,-0.050,-0.050,0.000,0.000,0.000
1641091082566078976,2022-01-02-02:38:02,10.1.1.3,158,-0.060,-0.060,-0.060,0.000,0.000,0.000
1641091082766115840,2022-01-02-02:38:02,10.1.1.3,158,-0.070,-0.070,-0.070,0.000,0.000,0.000
1641091082986707968,2022-01-02-02:38:02,10.1.1.3,177,-0.080,-0.080,-0.080,0.000,0.000,0.000
1641091083187396096,2022-01-02-02:38:03,10.1.1.3,177,-0.090,-0.090,-0.090,0.000,0.000,0.000
1641091083387330048,2022-01-02-02:38:03,10.1.1.3,175,-0.100,-0.100,-0.100,0.000,0.000,0.000
1641091083587407104,2022-01-02-02:38:03,10.1.1.3,174,-0.110,-0.110,-0.110,0.000,0.000,0.000
1641091083790734080,2022-01-02-02:38:03,10.1.1.3,174,-0.120,-0.120,-0.120,0.000,0.000,0.000
1641091083990266112,2022-01-02-02:38:03,10.1.1.3,172,-0.130,-0.130,-0.130,0.000,0.000,0.000
1641091084192107008,2022-01-02-02:38:04,10.1.1.3,173,-0.140,-0.140,-0.140,0.000,0.000,0.000
1641091084393393920,2022-01-02-02:38:04,10.1.1.3,173,-0.150,-0.150,-0.150,0.000,0.000,0.000
1641091084593310976,2022-01-02-02:38:04,10.1.1.3,172,-0.160,-0.160,-0.160,0.000,0.000,0.000
1641091084790547968,2022-01-02-02:38:04,10.1.1.3,169,-0.170,-0.170,-0.170,0.000,0.000,0.000
1641091084990891008,2022-01-02-02:38:04,10.1.1.3,168,-0.180,-0.180,-0.180,0.000,0.000,0.000
1641091085193182976,2022-01-02-02:38:05,10.1.1.3,168,-0.190,-0.190,-0.190,0.000,0.000,0.000
1641091085394692864,2022-01-02-02:38:05,10.1.1.3,171,-0.200,-0.200,-0.200,0.000,0.000,0.000
1641091085595294976,2022-01-02-02:38:05,10.1.1.3,170,-0.210,-0.210,-0.210,0.000,0.000,0.000
1641091085795012096,2022-01-02-02:38:05,10.1.1.3,169,-0.220,-0.220,-0.220,0.000,0.000,0.000
1641091085993332992,2022-01-02-02:38:05,10.1.1.3,167,-0.230,-0.230,-0.230,0.000,0.000,0.000
1641091086193805056,2022-01-02-02:38:06,10.1.1.3,166,-0.240,-0.240,-0.240,0.000,0.000,0.000
1641091086396091904,2022-01-02-02:38:06,10.1.1.3,168,-0.250,-0.250,-0.250,0.000,0.000,0.000
1641091086615488000,2022-01-02-02:38:06,10.1.1.3,184,-0.260,-0.260,-0.260,0.000,0.000,0.000
1641091086815164160,2022-01-02-02:38:06,10.1.1.3,181,-0.270,-0.270,-0.270,0.000,0.000,0.000
1641091087015835136,2022-01-02-02:38:07,10.1.1.3,179,-0.280,-0.280,-0.280,0.000,0.000,0.000
1641091087214885120,2022-01-02-02:38:07,10.1.1.3,177,-0.290,-0.290,-0.290,0.000,0.000,0.000
1641091087418370048,2022-01-02-02:38:07,10.1.1.3,179,-0.300,-0.300,-0.300,0.000,0.000,0.000
1641091087616019968,2022-01-02-02:38:07,10.1.1.3,176,-0.310,-0.310,-0.310,0.000,0.000,0.000
1641091087815386112,2022-01-02-02:38:07,10.1.1.3,174,-0.320,-0.320,-0.320,0.000,0.000,0.000
1641091088015598080,2022-01-02-02:38:08,10.1.1.3,173,-0.330,-0.330,-0.330,0.000,0.000,0.000
1641091088218800896,2022-01-02-02:38:08,10.1.1.3,174,-0.340,-0.340,-0.340,0.000,0.000,0.000
1641091088416972032,2022-01-02-02:38:08,10.1.1.3,173,-0.350,-0.350,-0.350,0.000,0.000,0.000
1641091088615941888,2022-01-02-02:38:08,10.1.1.3,171,-0.360,-0.360,-0.360,0.000,0.000,0.000
1641091088819015936,2022-01-02-02:38:08,10.1.1.3,173,-0.370,-0.370,-0.370,0.000,0.000,0.000
1641091089017551872,2022-01-02-02:38:09,10.1.1.3,171,-0.380,-0.380,-0.380,0.000,0.000,0.000
1641091089217808896,2022-01-02-02:38:09,10.1.1.3,171,-0.390,-0.390,-0.390,0.000,0.000,0.000
1641091089419493888,2022-01-02-02:38:09,10.1.1.3,172,-0.400,-0.400,-0.400,0.000,0.000,0.000
1641091089619534848,2022-01-02-02:38:09,10.1.1.3,171,-0.410,-0.410,-0.410,0.000,0.000,0.000
1641091089838447104,2022-01-02-02:38:09,10.1.1.3,190,-0.420,-0.420,-0.420,0.000,0.000,0.000
1641091090038654976,2022-01-02-02:38:10,10.1.1.3,189,-0.430,-0.430,-0.430,0.000,0.000,0.000
1641091090237979904,2022-01-02-02:38:10,10.1.1.3,187,-0.440,-0.440,-0.440,0.000,0.000,0.000
1641091090437382912,2022-01-02-02:38:10,10.1.1.3,186,-0.450,-0.450,-0.450,0.000,0.000,0.000
1641091090639424000,2022-01-02-02:38:10,10.1.1.3,187,-0.460,-0.460,-0.460,0.000,0.000,0.000
1641091090838650112,2022-01-02-02:38:10,10.1.1.3,185,-0.470,-0.470,-0.470,0.000,0.000,0.000
1641091091038642944,2022-01-02-02:38:11,10.1.1.3,184,-0.480,-0.480,-0.480,0.000,0.000,0.000
1641091091239820032,2022-01-02-02:38:11,10.1.1.3,184,-0.490,-0.490,-0.490,0.000,0.000,0.000
1641091091439415040,2022-01-02-02:38:11,10.1.1.3,182,-0.480,-0.480,-0.480,0.000,0.000,0.000
1641091091638882048,2022-01-02-02:38:11,10.1.1.3,180,-0.470,-0.470,-0.470,0.000,0.000,0.000
1641091091837568000,2022-01-02-02:38:11,10.1.1.3,178,-0.460,-0.460,-0.460,0.000,0.000,0.000
1641091092039047936,2022-01-02-02:38:12,10.1.1.3,179,-0.450,-0.450,-0.450,0.000,0.000,0.000
1641091092238982912,2022-01-02-02:38:12,10.1.1.3,177,-0.440,-0.440,-0.440,0.000,0.000,0.000
1641091092437530880,2022-01-02-02:38:12,10.1.1.3,174,-0.430,-0.430,-0.430,0.000,0.000,0.000
1641091092639680000,2022-01-02-02:38:12,10.1.1.3,175,-0.420,-0.420,-0.420,0.000,0.000,0.000
1641091092840043008,2022-01-02-02:38:12,10.1.1.3,175,-0.410,-0.410,-0.410,0.000,0.000,0.000
1641091093037092864,2022-01-02-02:38:13,10.1.1.3,171,-0.400,-0.400,-0.400,0.000,0.000,0.000
1641091093237778944,2022-01-02-02:38:13,10.1.1.3,170,-0.390,-0.390,-0.390,0.000,0.000,0.000
1641091093437202944,2022-01-02-02:38:13,10.1.1.3,169,-0.380,-0.380,-0.380,0.000,0.000,0.000
1641091093658627072,2022-01-02-02:38:13,10.1.1.3,189,-0.370,-0.370,-0.370,0.000,0.000,0.000
1641091093858418944,2022-01-02-02:38:13,10.1.1.3,188,-0.360,-0.360,-0.360,0.000,0.000,0.000
1641091094058156032,2022-01-02-02:38:14,10.1.1.3,187,-0.350,-0.350,-0.350,0.000,0.000,0.000
1641091094265227008,2022-01-02-02:38:14,10.1.1.3,191,-0.340,-0.340,-0.340,0.000,0.000,0.000
1641091094458099968,2022-01-02-02:38:14,10.1.1.3,184,-0.330,-0.330,-0.330,0.000,0.000,0.000
1641091094657354240,2022-01-02-02:38:14,10.1.1.3,176,-0.320,-0.320,-0.320,0.000,0.000,0.000
1641091094856801024,2022-01-02-02:38:14,10.1.1.3,175,-0.310,-0.310,-0.310,0.000,0.000,0.000
1641091095056658944,2022-01-02-02:38:15,10.1.1.3,174,-0.300,-0.300,-0.300,0.000,0.000,0.000
1641091095255750912,2022-01-02-02:38:15,10.1.1.3,171,-0.290,-0.290,-0.290,0.000,0.000,0.000
1641091095458190848,2022-01-02-02:38:15,10.1.1.3,173,-0.280,-0.280,-0.280,0.000,0.000,0.000
1641091095657767168,2022-01-02-02:38:15,10.1.1.3,171,-0.270,-0.270,-0.270,0.000,0.000,0.000
1641091095857893888,2022-01-02-02:38:15,10.1.1.3,171,-0.260,-0.260,-0.260,0.000,0.000,0.000
1641091096054603008,2022-01-02-02:38:16,10.1.1.3,167,-0.250,-0.250,-0.250,0.000,0.000,0.000
1641091096255804928,2022-01-02-02:38:16,10.1.1.3,168,-0.240,-0.240,-0.240,0.000,0.000,0.000
1641091096475567104,2022-01-02-02:38:16,10.1.1.3,186,-0.230,-0.230,-0.230,0.000,0.000,0.000
1641091096675260160,2022-01-02-02:38:16,10.1.1.3,185,-0.220,-0.220,-0.220,0.000,0.000,0.000
1641091096874334208,2022-01-02-02:38:16,10.1.1.3,183,-0.210,-0.210,-0.210,0.000,0.000,0.000
1641091097076390144,2022-01-02-02:38:17,10.1.1.3,185,-0.200,-0.200,-0.200,0.000,0.000,0.000
1641091097274113024,2022-01-02-02:38:17,10.1.1.3,182,-0.190,-0.190,-0.190,0.000,0.000,0.000
1641091097474350848,2022-01-02-02:38:17,10.1.1.3,181,-0.180,-0.180,-0.180,0.000,0.000,0.000
1641091097673665024,2022-01-02-02:38:17,10.1.1.3,179,-0.170,-0.170,-0.170,0.000,0.000,0.000
1641091097874926080,2022-01-02-02:38:17,10.1.1.3,179,-0.160,-0.160,-0.160,0.000,0.000,0.000
1641091098073268992,2022-01-02-02:38:18,10.1.1.3,177,-0.150,-0.150,-0.150,0.000,0.000,0.000
1641091098273474816,2022-01-02-02:38:18,10.1.1.3,176,-0.140,-0.140,-0.140,0.000,0.000,0.000
1641091098473515008,2022-01-02-02:38:18,10.1.1.3,176,-0.130,-0.130,-0.130,0.000,0.000,0.000
1641091098672233216,2022-01-02-02:38:18,10.1.1.3,174,-0.120,-0.120,-0.120,0.000,0.000,0.000
1641091098872299008,2022-01-02-02:38:18,10.1.1.3,173,-0.110,-0.110,-0.110,0.000,0.000,0.000
1641091099078643968,2022-01-02-02:38:19,10.1.1.3,175,-0.100,-0.100,-0.100,0.000,0.000,0.000
1641091099272550144,2022-01-02-02:38:19,10.1.1.3,172,-0.090,-0.090,-0.090,0.000,0.000,0.000
1641091099472323840,2022-01-02-02:38:19,10.1.1.3,171,-0.080,-0.080,-0.080,0.000,0.000,0.000
1641091099672389888,2022-01-02-02:38:19,10.1.1.3,170,-0.070,-0.070,-0.070,0.000,0.000,0.000
1641091099872657152,2022-01-02-02:38:19,10.1.1.3,169,-0.060,-0.060,-0.060,0.000,0.000,0.000
1641091100072057088,2022-01-02-02:38:20,10.1.1.3,167,-0.050,-0.050,-0.050,0.000,0.000,0.000
1641091100272375040,2022-01-02-02:38:20,10.1.1.3,166,-0.040,-0.040,-0.040,0.000,0.000,0.000
1641091100471270912,2022-01-02-02:38:20,10.1.1.3,164,-0.030,-0.030,-0.030,0.000,0.000,0.000
1641091100670932992,2022-01-02-02:38:20,10.1.1.3,164,-0.020,-0.020,-0.020,0.000,0.000,0.000
1641091100871128064,2022-01-02-02:38:20,10.1.1.3,163,-0.010,-0.010,-0.010,0.000,0.000,0.000
1641091101089575168,2022-01-02-02:38:21,10.1.1.3,181,0.000,0.000,0.000,0.000,0.000,0.000
1641091101289079040,2022-01-02-02:38:21,10.1.1.3,177,-0.010,-0.010,-0.010,0.000,0.000,0.000
1641091101492579840,2022-01-02-02:38:21,10.1.1.3,180,-0.020,-0.020,-0.020,0.000,0.000,0.000
1641091101690150144,2022-01-02-02:38:21,10.1.1.3,177,-0.030,-0.030,-0.030,0.000,0.000,0.000
1641091101890971904,2022-01-02-02:38:21,10.1.1.3,177,-0.040,-0.040,-0.040,0.000,0.000,0.000
1641091102090194944,2022-01-02-02:38:22,10.1.1.3,174,-0.050,-0.050,-0.050,0.000,0.000,0.000
1641091102292200960,2022-01-02-02:38:22,10.1.1.3,175,-0.060,-0.060,-0.060,0.000,0.000,0.000
1641091102489810944,2022-01-02-02:38:22,10.1.1.3,167,-0.070,-0.070,-0.070,0.000,0.000,0.000
1641091102691277056,2022-01-02-02:38:22,10.1.1.3,167,-0.080,-0.080,-0.080,0.000,0.000,0.000
1641091102888592896,2022-01-02-02:38:22,10.1.1.3,162,-0.090,-0.090,-0.090,0.000,0.000,0.000
1641091103088769792,2022-01-02-02:38:23,10.1.1.3,161,-0.100,-0.100,-0.100,0.000,0.000,0.000
1641091103308283136,2022-01-02-02:38:23,10.1.1.3,178,-0.110,-0.110,-0.110,0.000,0.000,0.000
1641091103506702848,2022-01-02-02:38:23,10.1.1.3,176,-0.120,-0.120,-0.120,0.000,0.000,0.000
1641091103709167104,2022-01-02-02:38:23,10.1.1.3,177,-0.130,-0.130,-0.130,0.000,0.000,0.000
1641091103910629888,2022-01-02-02:38:23,10.1.1.3,178,-0.140,-0.140,-0.140,0.000,0.000,0.000
1641091104108217088,2022-01-02-02:38:24,10.1.1.3,174,-0.150,-0.150,-0.150,0.000,0.000,0.000
1641091104306941952,2022-01-02-02:38:24,10.1.1.3,173,-0.160,-0.160,-0.160,0.000,0.000,0.000
1641091104506134016,2022-01-02-02:38:24,10.1.1.3,172,-0.170,-0.170,-0.170,0.000,0.000,0.000
1641091104705261056,2022-01-02-02:38:24,10.1.1.3,170,-0.180,-0.180,-0.180,0.000,0.000,0.000
1641091104904460800,2022-01-02-02:38:24,10.1.1.3,169,-0.190,-0.190,-0.190,0.000,0.000,0.000
1641091105104445952,2022-01-02-02:38:25,10.1.1.3,166,-0.200,-0.200,-0.200,0.000,0.000,0.000
1641091105305722880,2022-01-02-02:38:25,10.1.1.3,166,-0.210,-0.210,-0.210,0.000,0.000,0.000
1641091105503720960,2022-01-02-02:38:25,10.1.1.3,163,-0.220,-0.220,-0.220,0.000,0.000,0.000
1641091105703758848,2022-01-02-02:38:25,10.1.1.3,162,-0.230,-0.230,-0.230,0.000,0.000,0.000
1641091105905009152,2022-01-02-02:38:25,10.1.1.3,162,-0.240,-0.240,-0.240,0.000,0.000,0.000
1641091106103659008,2022-01-02-02:38:26,10.1.1.3,159,-0.250,-0.250,-0.250,0.000,0.000,0.000
1641091106303653120,2022-01-02-02:38:26,10.1.1.3,158,-0.260,-0.260,-0.260,0.000,0.000,0.000
1641091106503070208,2022-01-02-02:38:26,10.1.1.3,156,-0.270,-0.270,-0.270,0.000,0.000,0.000
1641091106701929984,2022-01-02-02:38:26,10.1.1.3,155,-0.280,-0.280,-0.280,0.000,0.000,0.000
1641091106921526784,2022-01-02-02:38:26,10.1.1.3,172,-0.290,-0.290,-0.290,0.000,0.000,0.000
1641091107120739072,2022-01-02-02:38:27,10.1.1.3,171,-0.300,-0.300,-0.300,0.000,0.000,0.000
1641091107320308992,2022-01-02-02:38:27,10.1.1.3,169,-0.310,-0.310,-0.310,0.000,0.000,0.000
1641091107520322048,2022-01-02-02:38:27,10.1.1.3,168,-0.320,-0.320,-0.320,0.000,0.000,0.000
1641091107719872000,2022-01-02-02:38:27,10.1.1.3,167,-0.330,-0.330,-0.330,0.000,0.000,0.000
1641091107919886080,2022-01-02-02:38:27,10.1.1.3,165,-0.340,-0.340,-0.340,0.000,0.000,0.000
1641091108122531840,2022-01-02-02:38:28,10.1.1.3,167,-0.350,-0.350,-0.350,0.000,0.000,0.000
1641091108319086080,2022-01-02-02:38:28,10.1.1.3,163,-0.360,-0.360,-0.360,0.000,0.000,0.000
1641091108518861056,2022-01-02-02:38:28,10.1.1.3,162,-0.370,-0.370,-0.370,0.000,0.000,0.000
1641091108719113984,2022-01-02-02:38:28,10.1.1.3,161,-0.380,-0.380,-0.380,0.000,0.000,0.000
1641091108920142848,2022-01-02-02:38:28,10.1.1.3,158,-0.390,-0.390,-0.390,0.000,0.000,0.000
1641091109118747904,2022-01-02-02:38:29,10.1.1.3,155,-0.400,-0.400,-0.400,0.000,0.000,0.000
1641091109318217984,2022-01-02-02:38:29,10.1.1.3,153,-0.410,-0.410,-0.410,0.000,0.000,0.000
1641091109518904064,2022-01-02-02:38:29,10.1.1.3,153,-0.420,-0.420,-0.420,0.000,0.000,0.000
1641091109716988928,2022-01-02-02:38:29,10.1.1.3,151,-0.430,-0.430,-0.430,0.000,0.000,0.000
1641091109917829888,2022-01-02-02:38:29,10.1.1.3,151,-0.440,-0.440,-0.440,0.000,0.000,0.000
1641091110117980928,2022-01-02-02:38:30,10.1.1.3,150,-0.450,-0.450,-0.450,0.000,0.000,0.000
1641091110318126080,2022-01-02-02:38:30,10.1.1.3,149,-0.460,-0.460,-0.460,0.000,0.000,0.000
1641091110537646080,2022-01-02-02:38:30,10.1.1.3,169,-0.470,-0.470,-0.470,0.000,0.000,0.000
1641091110735691008,2022-01-02-02:38:30,10.1.1.3,165,-0.480,-0.480,-0.480,0.000,0.000,0.000
1641091110934986240,2022-01-02-02:38:30,10.1.1.3,164,-0.490,-0.490,-0.490,0.000,0.000,0.000
1641091111134880000,2022-01-02-02:38:31,10.1.1.3,163,-0.480,-0.480,-0.480,0.000,0.000,0.000
1641091111342304000,2022-01-02-02:38:31,10.1.1.3,170,-0.470,-0.470,-0.470,0.000,0.000,0.000
1641091111534307840,2022-01-02-02:38:31,10.1.1.3,161,-0.460,-0.460,-0.460,0.000,0.000,0.000
1641091111735028992,2022-01-02-02:38:31,10.1.1.3,161,-0.450,-0.450,-0.450,0.000,0.000,0.000
1641091111933235968,2022-01-02-02:38:31,10.1.1.3,157,-0.440,-0.440,-0.440,0.000,0.000,0.000
1641091112134438912,2022-01-02-02:38:32,10.1.1.3,158,-0.430,-0.430,-0.430,0.000,0.000,0.000
1641091112337289984,2022-01-02-02:38:32,10.1.1.3,160,-0.420,-0.420,-0.420,0.000,0.000,0.000
1641091112538813184,2022-01-02-02:38:32,10.1.1.3,160,-0.410,-0.410,-0.410,0.000,0.000,0.000
1641091112737560064,2022-01-02-02:38:32,10.1.1.3,158,-0.400,-0.400,-0.400,0.000,0.000,0.000
1641091112940274944,2022-01-02-02:38:32,10.1.1.3,160,-0.390,-0.390,-0.390,0.000,0.000,0.000
1641091113142214912,2022-01-02-02:38:33,10.1.1.3,158,-0.380,-0.380,-0.380,0.000,0.000,0.000
1641091113342535936,2022-01-02-02:38:33,10.1.1.3,160,-0.370,-0.370,-0.370,0.000,0.000,0.000
1641091113543049984,2022-01-02-02:38:33,10.1.1.3,159,-0.360,-0.360,-0.360,0.000,0.000,0.000
1641091113746028032,2022-01-02-02:38:33,10.1.1.3,161,-0.350,-0.350,-0.350,0.000,0.000,0.000
1641091113944755968,2022-01-02-02:38:33,10.1.1.3,159,-0.340,-0.340,-0.340,0.000,0.000,0.000
1641091114146373120,2022-01-02-02:38:34,10.1.1.3,159,-0.330,-0.330,-0.330,0.000,0.000,0.000
1641091114346484992,2022-01-02-02:38:34,10.1.1.3,158,-0.320,-0.320,-0.320,0.000,0.000,0.000
1641091114567013120,2022-01-02-02:38:34,10.1.1.3,178,-0.310,-0.310,-0.310,0.000,0.000,0.000
1641091114768331008,2022-01-02-02:38:34,10.1.1.3,179,-0.300,-0.300,-0.300,0.000,0.000,0.000
1641091114969971968,2022-01-02-02:38:34,10.1.1.3,180,-0.290,-0.290,-0.290,0.000,0.000,0.000
1641091115170185984,2022-01-02-02:38:35,10.1.1.3,179,-0.280,-0.280,-0.280,0.000,0.000,0.000
1641091115369824768,2022-01-02-02:38:35,10.1.1.3,178,-0.270,-0.270,-0.270,0.000,0.000,0.000
1641091115572900096,2022-01-02-02:38:35,10.1.1.3,177,-0.260,-0.260,-0.260,0.000,0.000,0.000
1641091115771837952,2022-01-02-02:38:35,10.1.1.3,175,-0.250,-0.250,-0.250,0.000,0.000,0.000
1641091115970853120,2022-01-02-02:38:35,10.1.1.3,174,-0.240,-0.240,-0.240,0.000,0.000,0.000
1641091116172328960,2022-01-02-02:38:36,10.1.1.3,175,-0.230,-0.230,-0.230,0.000,0.000,0.000
1641091116373980928,2022-01-02-02:38:36,10.1.1.3,176,-0.220,-0.220,-0.220,0.000,0.000,0.000
1641091116574438144,2022-01-02-02:38:36,10.1.1.3,175,-0.210,-0.210,-0.210,0.000,0.000,0.000
1641091116775042048,2022-01-02-02:38:36,10.1.1.3,174,-0.200,-0.200,-0.200,0.000,0.000,0.000
1641091116975294976,2022-01-02-02:38:36,10.1.1.3,171,-0.190,-0.190,-0.190,0.000,0.000,0.000
1641091117177153024,2022-01-02-02:38:37,10.1.1.3,174,-0.180,-0.180,-0.180,0.000,0.000,0.000
1641091117376192000,2022-01-02-02:38:37,10.1.1.3,172,-0.170,-0.170,-0.170,0.000,0.000,0.000
1641091117578183936,2022-01-02-02:38:37,10.1.1.3,173,-0.160,-0.160,-0.160,0.000,0.000,0.000
1641091117779174144,2022-01-02-02:38:37,10.1.1.3,169,-0.150,-0.150,-0.150,0.000,0.000,0.000
1641091117979904000,2022-01-02-02:38:37,10.1.1.3,172,-0.140,-0.140,-0.140,0.000,0.000,0.000
1641091118196305152,2022-01-02-02:38:38,10.1.1.3,188,-0.130,-0.130,-0.130,0.000,0.000,0.000
1641091118396986112,2022-01-02-02:38:38,10.1.1.3,188,-0.120,-0.120,-0.120,0.000,0.000,0.000
1641091118599215104,2022-01-02-02:38:38,10.1.1.3,187,-0.110,-0.110,-0.110,0.000,0.000,0.000
1641091118798004992,2022-01-02-02:38:38,10.1.1.3,187,-0.100,-0.100,-0.100,0.000,0.000,0.000
1641091118997338112,2022-01-02-02:38:38,10.1.1.3,186,-0.090,-0.090,-0.090,0.000,0.000,0.000
1641091119198596096,2022-01-02-02:38:39,10.1.1.3,186,-0.080,-0.080,-0.080,0.000,0.000,0.000
1641091119397826816,2022-01-02-02:38:39,10.1.1.3,184,-0.070,-0.070,-0.070,0.000,0.000,0.000
1641091119597854976,2022-01-02-02:38:39,10.1.1.3,183,-0.060,-0.060,-0.060,0.000,0.000,0.000
1641091119798497024,2022-01-02-02:38:39,10.1.1.3,183,-0.050,-0.050,-0.050,0.000,0.000,0.000
1641091119999259904,2022-01-02-02:38:39,10.1.1.3,183,-0.040,-0.040,-0.040,0.000,0.000,0.000
1641091120201054976,2022-01-02-02:38:40,10.1.1.3,184,-0.030,-0.030,-0.030,0.000,0.000,0.000
1641091120401555968,2022-01-02-02:38:40,10.1.1.3,184,-0.020,-0.020,-0.020,0.000,0.000,0.000
1641091120600013056,2022-01-02-02:38:40,10.1.1.3,178,-0.010,-0.010,-0.010,0.000,0.000,0.000
1641091120806534144,2022-01-02-02:38:40,10.1.1.3,180,0.000,0.000,0.000,0.000,0.000,0.000
1641091121002629120,2022-01-02-02:38:41,10.1.1.3,178,-0.010,-0.010,-0.010,0.000,0.000,0.000
1641091121202701056,2022-01-02-02:38:41,10.1.1.3,177,-0.020,-0.020,-0.020,0.000,0.000,0.000
1641091121400887040,2022-01-02-02:38:41,10.1.1.3,174,-0.030,-0.030,-0.030,0.000,0.000,0.000
1641091121600625920,2022-01-02-02:38:41,10.1.1.3,173,-0.040,-0.040,-0.040,0.000,0.000,0.000
1641091121803401984,2022-01-02-02:38:41,10.1.1.3,175,-0.050,-0.050,-0.050,0.000,0.000,0.000
1641091122019805952,2022-01-02-02:38:42,10.1.1.3,191,-0.060,-0.060,-0.060,0.000,0.000,0.000
1641091122223067136,2022-01-02-02:38:42,10.1.1.3,194,-0.070,-0.070,-0.070,0.000,0.000,0.000
1641091122421425152,2022-01-02-02:38:42,10.1.1.3,190,-0.080,-0.080,-0.080,0.000,0.000,0.000
1641091122621798144,2022-01-02-02:38:42,10.1.1.3,189,-0.090,-0.090,-0.090,0.000,0.000,0.000
1641091122824451072,2022-01-02-02:38:42,10.1.1.3,191,-0.100,-0.100,-0.100,0.000,0.000,0.000
1641091123023443968,2022-01-02-02:38:43,10.1.1.3,190,-0.110,-0.110,-0.110,0.000,0.000,0.000
1641091123222843904,2022-01-02-02:38:43,10.1.1.3,185,-0.120,-0.120,-0.120,0.000,0.000,0.000
1641091123426123008,2022-01-02-02:38:43,10.1.1.3,186,-0.130,-0.130,-0.130,0.000,0.000,0.000
1641091123621492992,2022-01-02-02:38:43,10.1.1.3,180,-0.140,-0.140,-0.140,0.000,0.000,0.000
1641091123821042176,2022-01-02-02:38:43,10.1.1.3,177,-0.150,-0.150,-0.150,0.000,0.000,0.000
1641091124021369088,2022-01-02-02:38:44,10.1.1.3,177,-0.160,-0.160,-0.160,0.000,0.000,0.000
1641091124222138880,2022-01-02-02:38:44,10.1.1.3,176,-0.170,-0.170,-0.170,0.000,0.000,0.000
1641091124422102016,2022-01-02-02:38:44,10.1.1.3,175,-0.180,-0.180,-0.180,0.000,0.000,0.000
1641091124621953024,2022-01-02-02:38:44,10.1.1.3,173,-0.190,-0.190,-0.190,0.000,0.000,0.000
1641091124823052032,2022-01-02-02:38:44,10.1.1.3,175,-0.200,-0.200,-0.200,0.000,0.000,0.000
1641091125039940096,2022-01-02-02:38:45,10.1.1.3,190,-0.210,-0.210,-0.210,0.000,0.000,0.000
1641091125240232960,2022-01-02-02:38:45,10.1.1.3,189,-0.220,-0.220,-0.220,0.000,0.000,0.000
1641091125442074112,2022-01-02-02:38:45,10.1.1.3,190,-0.230,-0.230,-0.230,0.000,0.000,0.000
1641091125640030976,2022-01-02-02:38:45,10.1.1.3,187,-0.240,-0.240,-0.240,0.000,0.000,0.000
1641091125839843072,2022-01-02-02:38:45,10.1.1.3,186,-0.250,-0.250,-0.250,0.000,0.000,0.000
1641091126041195008,2022-01-02-02:38:46,10.1.1.3,185,-0.260,-0.260,-0.260,0.000,0.000,0.000
1641091126239492864,2022-01-02-02:38:46,10.1.1.3,182,-0.270,-0.270,-0.270,0.000,0.000,0.000
1641091126441545984,2022-01-02-02:38:46,10.1.1.3,179,-0.280,-0.280,-0.280,0.000,0.000,0.000
1641091126641160960,2022-01-02-02:38:46,10.1.1.3,177,-0.290,-0.290,-0.290,0.000,0.000,0.000
1641091126841382912,2022-01-02-02:38:46,10.1.1.3,177,-0.300,-0.300,-0.300,0.000,0.000,0.000
1641091127042342912,2022-01-02-02:38:47,10.1.1.3,176,-0.310,-0.310,-0.310,0.000,0.000,0.000
1641091127240022016,2022-01-02-02:38:47,10.1.1.3,174,-0.320,-0.320,-0.320,0.000,0.000,0.000
1641091127440663040,2022-01-02-02:38:47,10.1.1.3,174,-0.330,-0.330,-0.330,0.000,0.000,0.000
1641091127640461056,2022-01-02-02:38:47,10.1.1.3,172,-0.340,-0.340,-0.340,0.000,0.000,0.000
1641091127862128896,2022-01-02-02:38:47,10.1.1.3,193,-0.350,-0.350,-0.350,0.000,0.000,0.000
1641091128060403968,2022-01-02-02:38:48,10.1.1.3,189,-0.360,-0.360,-0.360,0.000,0.000,0.000
1641091128259769856,2022-01-02-02:38:48,10.1.1.3,187,-0.370,-0.370,-0.370,0.000,0.000,0.000
1641091128458116096,2022-01-02-02:38:48,10.1.1.3,185,-0.380,-0.380,-0.380,0.000,0.000,0.000
1641091128658092032,2022-01-02-02:38:48,10.1.1.3,184,-0.390,-0.390,-0.390,0.000,0.000,0.000
1641091128857676032,2022-01-02-02:38:48,10.1.1.3,182,-0.400,-0.400,-0.400,0.000,0.000,0.000
1641091129060566016,2022-01-02-02:38:49,10.1.1.3,184,-0.410,-0.410,-0.410,0.000,0.000,0.000
1641091129264113920,2022-01-02-02:38:49,10.1.1.3,182,-0.420,-0.420,-0.420,0.000,0.000,0.000
1641091129458316032,2022-01-02-02:38:49,10.1.1.3,180,-0.430,-0.430,-0.430,0.000,0.000,0.000
1641091129658598912,2022-01-02-02:38:49,10.1.1.3,179,-0.440,-0.440,-0.440,0.000,0.000,0.000
1641091129857785856,2022-01-02-02:38:49,10.1.1.3,178,-0.450,-0.450,-0.450,0.000,0.000,0.000
1641091130057869056,2022-01-02-02:38:50,10.1.1.3,177,-0.460,-0.460,-0.460,0.000,0.000,0.000
1641091130257980160,2022-01-02-02:38:50,10.1.1.3,177,-0.470,-0.470,-0.470,0.000,0.000,0.000
1641091130456583936,2022-01-02-02:38:50,10.1.1.3,174,-0.480,-0.480,-0.480,0.000,0.000,0.000
1641091130656965120,2022-01-02-02:38:50,10.1.1.3,171,-0.490,-0.490,-0.490,0.000,0.000,0.000
1641091130859382016,2022-01-02-02:38:50,10.1.1.3,172,-0.480,-0.480,-0.480,0.000,0.000,0.000
1641091131056389120,2022-01-02-02:38:51,10.1.1.3,168,-0.470,-0.470,-0.470,0.000,0.000,0.000
1641091131276375040,2022-01-02-02:38:51,10.1.1.3,188,-0.460,-0.460,-0.460,0.000,0.000,0.000
1641091131475689984,2022-01-02-02:38:51,10.1.1.3,186,-0.450,-0.450,-0.450,0.000,0.000,0.000
1641091131675628800,2022-01-02-02:38:51,10.1.1.3,184,-0.440,-0.440,-0.440,0.000,0.000,0.000
1641091131874937088,2022-01-02-02:38:51,10.1.1.3,183,-0.430,-0.430,-0.430,0.000,0.000,0.000
1641091132075400960,2022-01-02-02:38:52,10.1.1.3,183,-0.420,-0.420,-0.420,0.000,0.000,0.000
1641091132277682176,2022-01-02-02:38:52,10.1.1.3,184,-0.410,-0.410,-0.410,0.000,0.000,0.000
1641091132476017920,2022-01-02-02:38:52,10.1.1.3,182,-0.400,-0.400,-0.400,0.000,0.000,0.000
1641091132675256064,2022-01-02-02:38:52,10.1.1.3,180,-0.390,-0.390,-0.390,0.000,0.000,0.000
1641091132873782016,2022-01-02-02:38:52,10.1.1.3,178,-0.380,-0.380,-0.380,0.000,0.000,0.000
1641091133074142976,2022-01-02-02:38:53,10.1.1.3,178,-0.370,-0.370,-0.370,0.000,0.000,0.000
1641091133273849856,2022-01-02-02:38:53,10.1.1.3,177,-0.360,-0.360,-0.360,0.000,0.000,0.000
1641091133472770048,2022-01-02-02:38:53,10.1.1.3,175,-0.350,-0.350,-0.350,0.000,0.000,0.000
1641091133674555904,2022-01-02-02:38:53,10.1.1.3,176,-0.340,-0.340,-0.340,0.000,0.000,0.000
1641091133874754816,2022-01-02-02:38:53,10.1.1.3,173,-0.330,-0.330,-0.330,0.000,0.000,0.000
1641091134072715008,2022-01-02-02:38:54,10.1.1.3,173,-0.320,-0.320,-0.320,0.000,0.000,0.000
1641091134273462016,2022-01-02-02:38:54,10.1.1.3,172,-0.310,-0.310,-0.310,0.000,0.000,0.000
1641091134471944192,2022-01-02-02:38:54,10.1.1.3,170,-0.300,-0.300,-0.300,0.000,0.000,0.000
1641091134673680896,2022-01-02-02:38:54,10.1.1.3,171,-0.290,-0.290,-0.290,0.000,0.000,0.000
1641091134871820800,2022-01-02-02:38:54,10.1.1.3,169,-0.280,-0.280,-0.280,0.000,0.000,0.000
1641091135071139072,2022-01-02-02:38:55,10.1.1.3,167,-0.270,-0.270,-0.270,0.000,0.000,0.000
1641091135272602112,2022-01-02-02:38:55,10.1.1.3,168,-0.260,-0.260,-0.260,0.000,0.000,0.000
1641091135471793920,2022-01-02-02:38:55,10.1.1.3,166,-0.250,-0.250,-0.250,0.000,0.000,0.000
1641091135672950016,2022-01-02-02:38:55,10.1.1.3,167,-0.240,-0.240,-0.240,0.000,0.000,0.000
1641091135869633024,2022-01-02-02:38:55,10.1.1.3,163,-0.230,-0.230,-0.230,0.000,0.000,0.000
1641091136071234048,2022-01-02-02:38:56,10.1.1.3,163,-0.220,-0.220,-0.220,0.000,0.000,0.000
1641091136291129088,2022-01-02-02:38:56,10.1.1.3,182,-0.210,-0.210,-0.210,0.000,0.000,0.000
1641091136491239168,2022-01-02-02:38:56,10.1.1.3,177,-0.200,-0.200,-0.200,0.000,0.000,0.000
1641091136688640000,2022-01-02-02:38:56,10.1.1.3,175,-0.190,-0.190,-0.190,0.000,0.000,0.000
1641091136888603904,2022-01-02-02:38:56,10.1.1.3,174,-0.180,-0.180,-0.180,0.000,0.000,0.000
1641091137088092928,2022-01-02-02:38:57,10.1.1.3,173,-0.170,-0.170,-0.170,0.000,0.000,0.000
1641091137290395136,2022-01-02-02:38:57,10.1.1.3,173,-0.160,-0.160,-0.160,0.000,0.000,0.000
1641091137487693056,2022-01-02-02:38:57,10.1.1.3,170,-0.150,-0.150,-0.150,0.000,0.000,0.000
1641091137687813120,2022-01-02-02:38:57,10.1.1.3,169,-0.140,-0.140,-0.140,0.000,0.000,0.000
1641091137886754048,2022-01-02-02:38:57,10.1.1.3,167,-0.130,-0.130,-0.130,0.000,0.000,0.000
1641091138088670976,2022-01-02-02:38:58,10.1.1.3,168,-0.120,-0.120,-0.120,0.000,0.000,0.000
1641091138288851968,2022-01-02-02:38:58,10.1.1.3,168,-0.110,-0.110,-0.110,0.000,0.000,0.000
1641091138485972992,2022-01-02-02:38:58,10.1.1.3,162,-0.100,-0.100,-0.100,0.000,0.000,0.000
1641091138686158848,2022-01-02-02:38:58,10.1.1.3,162,-0.090,-0.090,-0.090,0.000,0.000,0.000
1641091138886723072,2022-01-02-02:38:58,10.1.1.3,158,-0.080,-0.080,-0.080,0.000,0.000,0.000
1641091139106201856,2022-01-02-02:38:59,10.1.1.3,177,-0.070,-0.070,-0.070,0.000,0.000,0.000
1641091139307823872,2022-01-02-02:38:59,10.1.1.3,178,-0.060,-0.060,-0.060,0.000,0.000,0.000
1641091139504749056,2022-01-02-02:38:59,10.1.1.3,175,-0.050,-0.050,-0.050,0.000,0.000,0.000
1641091139705319936,2022-01-02-02:38:59,10.1.1.3,174,-0.040,-0.040,-0.040,0.000,0.000,0.000
1641091139904416000,2022-01-02-02:38:59,10.1.1.3,173,-0.030,-0.030,-0.030,0.000,0.000,0.000
1641091140104516096,2022-01-02-02:39:00,10.1.1.3,172,-0.020,-0.020,-0.020,0.000,0.000,0.000
1641091140303659008,2022-01-02-02:39:00,10.1.1.3,171,-0.010,-0.010,-0.010,0.000,0.000,0.000
1641091140502844928,2022-01-02-02:39:00,10.1.1.3,168,0.000,0.000,0.000,0.000,0.000,0.000
1641091140704157952,2022-01-02-02:39:00,10.1.1.3,168,-0.010,-0.010,-0.010,0.000,0.000,0.000
1641091140902324992,2022-01-02-02:39:00,10.1.1.3,166,-0.020,-0.020,-0.020,0.000,0.000,0.000
1641091141103624192,2022-01-02-02:39:01,10.1.1.3,166,-0.030,-0.030,-0.030,0.000,0.000,0.000
1641091141303908096,2022-01-02-02:39:01,10.1.1.3,165,-0.040,-0.040,-0.040,0.000,0.000,0.000
1641091141501969152,2022-01-02-02:39:01,10.1.1.3,163,-0.050,-0.050,-0.050,0.000,0.000,0.000
1641091141703106048,2022-01-02-02:39:01,10.1.1.3,163,-0.060,-0.060,-0.060,0.000,0.000,0.000
1641091141902172160,2022-01-02-02:39:01,10.1.1.3,161,-0.070,-0.070,-0.070,0.000,0.000,0.000
1641091142102999808,2022-01-02-02:39:02,10.1.1.3,160,-0.080,-0.080,-0.080,0.000,0.000,0.000
1641091142301664000,2022-01-02-02:39:02,10.1.1.3,159,-0.090,-0.090,-0.090,0.000,0.000,0.000
1641091142500130816,2022-01-02-02:39:02,10.1.1.3,155,-0.100,-0.100,-0.100,0.000,0.000,0.000
1641091142700589824,2022-01-02-02:39:02,10.1.1.3,154,-0.110,-0.110,-0.110,0.000,0.000,0.000
1641091142902039040,2022-01-02-02:39:02,10.1.1.3,155,-0.120,-0.120,-0.120,0.000,0.000,0.000
1641091143098902016,2022-01-02-02:39:03,10.1.1.3,151,-0.130,-0.130,-0.130,0.000,0.000,0.000
1641091143299927040,2022-01-02-02:39:03,10.1.1.3,151,-0.140,-0.140,-0.140,0.000,0.000,0.000
1641091143519630080,2022-01-02-02:39:03,10.1.1.3,169,-0.150,-0.150,-0.150,0.000,0.000,0.000
1641091143719119104,2022-01-02-02:39:03,10.1.1.3,168,-0.160,-0.160,-0.160,0.000,0.000,0.000
1641091143918016000,2022-01-02-02:39:03,10.1.1.3,166,-0.170,-0.170,-0.170,0.000,0.000,0.000
1641091144118263040,2022-01-02-02:39:04,10.1.1.3,165,-0.180,-0.180,-0.180,0.000,0.000,0.000
1641091144319129856,2022-01-02-02:39:04,10.1.1.3,165,-0.190,-0.190,-0.190,0.000,0.000,0.000
1641091144516926976,2022-01-02-02:39:04,10.1.1.3,162,-0.200,-0.200,-0.200,0.000,0.000,0.000
1641091144716883968,2022-01-02-02:39:04,10.1.1.3,160,-0.210,-0.210,-0.210,0.000,0.000,0.000
1641091144915613952,2022-01-02-02:39:04,10.1.1.3,154,-0.220,-0.220,-0.220,0.000,0.000,0.000
1641091145118097152,2022-01-02-02:39:05,10.1.1.3,155,-0.230,-0.230,-0.230,0.000,0.000,0.000
1641091145320063232,2022-01-02-02:39:05,10.1.1.3,157,-0.240,-0.240,-0.240,0.000,0.000,0.000
1641091145521626880,2022-01-02-02:39:05,10.1.1.3,158,-0.250,-0.250,-0.250,0.000,0.000,0.000
1641091145719309056,2022-01-02-02:39:05,10.1.1.3,155,-0.260,-0.260,-0.260,0.000,0.000,0.000
1641091145920376064,2022-01-02-02:39:05,10.1.1.3,154,-0.270,-0.270,-0.270,0.000,0.000,0.000
1641091146120840192,2022-01-02-02:39:06,10.1.1.3,154,-0.280,-0.280,-0.280,0.000,0.000,0.000
1641091146324009984,2022-01-02-02:39:06,10.1.1.3,156,-0.290,-0.290,-0.290,0.000,0.000,0.000
1641091146543705856,2022-01-02-02:39:06,10.1.1.3,175,-0.300,-0.300,-0.300,0.000,0.000,0.000
1641091146743747072,2022-01-02-02:39:06,10.1.1.3,174,-0.310,-0.310,-0.310,0.000,0.000,0.000
1641091146945419008,2022-01-02-02:39:06,10.1.1.3,175,-0.320,-0.320,-0.320,0.000,0.000,0.000
1641091147146946816,2022-01-02-02:39:07,10.1.1.3,176,-0.330,-0.330,-0.330,0.000,0.000,0.000
1641091147345478144,2022-01-02-02:39:07,10.1.1.3,174,-0.340,-0.340,-0.340,0.000,0.000,0.000
1641091147547072000,2022-01-02-02:39:07,10.1.1.3,175,-0.350,-0.350,-0.350,0.000,0.000,0.000
1641091147749959936,2022-01-02-02:39:07,10.1.1.3,177,-0.360,-0.360,-0.360,0.000,0.000,0.000
1641091147948805120,2022-01-02-02:39:07,10.1.1.3,174,-0.370,-0.370,-0.370,0.000,0.000,0.000
1641091148154287104,2022-01-02-02:39:08,10.1.1.3,178,-0.380,-0.380,-0.380,0.000,0.000,0.000
1641091148350192896,2022-01-02-02:39:08,10.1.1.3,174,-0.390,-0.390,-0.390,0.000,0.000,0.000
1641091148549987072,2022-01-02-02:39:08,10.1.1.3,173,-0.400,-0.400,-0.400,0.000,0.000,0.000
1641091148762396928,2022-01-02-02:39:08,10.1.1.3,185,-0.410,-0.410,-0.410,0.000,0.000,0.000
1641091148957442048,2022-01-02-02:39:08,10.1.1.3,179,-0.420,-0.420,-0.420,0.000,0.000,0.000
1641091149153320192,2022-01-02-02:39:09,10.1.1.3,175,-0.430,-0.430,-0.430,0.000,0.000,0.000
1641091149353884928,2022-01-02-02:39:09,10.1.1.3,174,-0.440,-0.440,-0.440,0.000,0.000,0.000
1641091149553474816,2022-01-02-02:39:09,10.1.1.3,174,-0.450,-0.450,-0.450,0.000,0.000,0.000
1641091149754797056,2022-01-02-02:39:09,10.1.1.3,174,-0.460,-0.460,-0.460,0.000,0.000,0.000
1641091149953274112,2022-01-02-02:39:09,10.1.1.3,172,-0.470,-0.470,-0.470,0.000,0.000,0.000
1641091150155355904,2022-01-02-02:39:10,10.1.1.3,174,-0.480,-0.480,-0.480,0.000,0.000,0.000
1641091150355047936,2022-01-02-02:39:10,10.1.1.3,172,-0.490,-0.490,-0.490,0.000,0.000,0.000
1641091150553477120,2022-01-02-02:39:10,10.1.1.3,170,-0.480,-0.480,-0.480,0.000,0.000,0.000
1641091150754433024,2022-01-02-02:39:10,10.1.1.3,170,-0.470,-0.470,-0.470,0.000,0.000,0.000
1641091150954322176,2022-01-02-02:39:10,10.1.1.3,170,-0.460,-0.460,-0.460,0.000,0.000,0.000
1641091151156701184,2022-01-02-02:39:11,10.1.1.3,172,-0.450,-0.450,-0.450,0.000,0.000,0.000
1641091151356993792,2022-01-02-02:39:11,10.1.1.3,171,-0.440,-0.440,-0.440,0.000,0.000,0.000
1641091151555772160,2022-01-02-02:39:11,10.1.1.3,169,-0.430,-0.430,-0.430,0.000,0.000,0.000
1641091151755379968,2022-01-02-02:39:11,10.1.1.3,167,-0.420,-0.420,-0.420,0.000,0.000,0.000
1641091151977478144,2022-01-02-02:39:11,10.1.1.3,189,-0.410,-0.410,-0.410,0.000,0.000,0.000
1641091152175793920,2022-01-02-02:39:12,10.1.1.3,187,-0.400,-0.400,-0.400,0.000,0.000,0.000
1641091152376229120,2022-01-02-02:39:12,10.1.1.3,186,-0.390,-0.390,-0.390,0.000,0.000,0.000
1641091152576489984,2022-01-02-02:39:12,10.1.1.3,185,-0.380,-0.380,-0.380,0.000,0.000,0.000
1641091152776384000,2022-01-02-02:39:12,10.1.1.3,184,-0.370,-0.370,-0.370,0.000,0.000,0.000
1641091152979196928,2022-01-02-02:39:12,10.1.1.3,186,-0.360,-0.360,-0.360,0.000,0.000,0.000
1641091153178939136,2022-01-02-02:39:13,10.1.1.3,183,-0.350,-0.350,-0.350,0.000,0.000,0.000
1641091153378426112,2022-01-02-02:39:13,10.1.1.3,181,-0.340,-0.340,-0.340,0.000,0.000,0.000
1641091153579153152,2022-01-02-02:39:13,10.1.1.3,179,-0.330,-0.330,-0.330,0.000,0.000,0.000
1641091153778619904,2022-01-02-02:39:13,10.1.1.3,178,-0.320,-0.320,-0.320,0.000,0.000,0.000
1641091153979470080,2022-01-02-02:39:13,10.1.1.3,178,-0.310,-0.310,-0.310,0.000,0.000,0.000
1641091154181122048,2022-01-02-02:39:14,10.1.1.3,176,-0.300,-0.300,-0.300,0.000,0.000,0.000
1641091154378705920,2022-01-02-02:39:14,10.1.1.3,176,-0.290,-0.290,-0.290,0.000,0.000,0.000
1641091154579117056,2022-01-02-02:39:14,10.1.1.3,175,-0.280,-0.280,-0.280,0.000,0.000,0.000
1641091154779979008,2022-01-02-02:39:14,10.1.1.3,175,-0.270,-0.270,-0.270,0.000,0.000,0.000
1641091154978064128,2022-01-02-02:39:14,10.1.1.3,172,-0.260,-0.260,-0.260,0.000,0.000,0.000
1641091155181408768,2022-01-02-02:39:15,10.1.1.3,175,-0.250,-0.250,-0.250,0.000,0.000,0.000
1641091155379484928,2022-01-02-02:39:15,10.1.1.3,172,-0.240,-0.240,-0.240,0.000,0.000,0.000
1641091155579603968,2022-01-02-02:39:15,10.1.1.3,172,-0.230,-0.230,-0.230,0.000,0.000,0.000
1641091155798209792,2022-01-02-02:39:15,10.1.1.3,189,-0.220,-0.220,-0.220,0.000,0.000,0.000
1641091155998217216,2022-01-02-02:39:15,10.1.1.3,189,-0.210,-0.210,-0.210,0.000,0.000,0.000
1641091156201428992,2022-01-02-02:39:16,10.1.1.3,191,-0.200,-0.200,-0.200,0.000,0.000,0.000
1641091156401524992,2022-01-02-02:39:16,10.1.1.3,190,-0.190,-0.190,-0.190,0.000,0.000,0.000
1641091156601437952,2022-01-02-02:39:16,10.1.1.3,188,-0.180,-0.180,-0.180,0.000,0.000,0.000
1641091156800865024,2022-01-02-02:39:16,10.1.1.3,187,-0.170,-0.170,-0.170,0.000,0.000,0.000
1641091157003400960,2022-01-02-02:39:17,10.1.1.3,188,-0.160,-0.160,-0.160,0.000,0.000,0.000
1641091157198995968,2022-01-02-02:39:17,10.1.1.3,182,-0.150,-0.150,-0.150,0.000,0.000,0.000
1641091157398034176,2022-01-02-02:39:17,10.1.1.3,181,-0.140,-0.140,-0.140,0.000,0.000,0.000
1641091157597613056,2022-01-02-02:39:17,10.1.1.3,178,-0.130,-0.130,-0.130,0.000,0.000,0.000
1641091157798465024,2022-01-02-02:39:17,10.1.1.3,178,-0.120,-0.120,-0.120,0.000,0.000,0.000
1641091157998491136,2022-01-02-02:39:17,10.1.1.3,177,-0.110,-0.110,-0.110,0.000,0.000,0.000
1641091158197416960,2022-01-02-02:39:18,10.1.1.3,175,-0.100,-0.100,-0.100,0.000,0.000,0.000
1641091158398411008,2022-01-02-02:39:18,10.1.1.3,175,-0.090,-0.090,-0.090,0.000,0.000,0.000
1641091158598721024,2022-01-02-02:39:18,10.1.1.3,175,-0.080,-0.080,-0.080,0.000,0.000,0.000
1641091158796689152,2022-01-02-02:39:18,10.1.1.3,172,-0.070,-0.070,-0.070,0.000,0.000,0.000
1641091158997942016,2022-01-02-02:39:18,10.1.1.3,171,-0.060,-0.060,-0.060,0.000,0.000,0.000
1641091159197078016,2022-01-02-02:39:19,10.1.1.3,169,-0.050,-0.050,-0.050,0.000,0.000,0.000
1641091159397295872,2022-01-02-02:39:19,10.1.1.3,169,-0.040,-0.040,-0.040,0.000,0.000,0.000
1641091159620982016,2022-01-02-02:39:19,10.1.1.3,192,-0.030,-0.030,-0.030,0.000,0.000,0.000
1641091159818323968,2022-01-02-02:39:19,10.1.1.3,188,-0.020,-0.020,-0.020,0.000,0.000,0.000
1641091160016166912,2022-01-02-02:39:20,10.1.1.3,184,-0.010,-0.010,-0.010,0.000,0.000,0.000
1641091160216995072,2022-01-02-02:39:20,10.1.1.3,184,0.000,0.000,0.000,0.000,0.000,0.000
1641091160417193984,2022-01-02-02:39:20,10.1.1.3,183,-0.010,-0.010,-0.010,0.000,0.000,0.000
1641091160616014080,2022-01-02-02:39:20,10.1.1.3,181,-0.020,-0.020,-0.020,0.000,0.000,0.000
1641091160817807872,2022-01-02-02:39:20,10.1.1.3,180,-0.030,-0.030,-0.030,0.000,0.000,0.000
1641091161019098880,2022-01-02-02:39:21,10.1.1.3,180,-0.040,-0.040,-0.040,0.000,0.000,0.000
1641091161217185024,2022-01-02-02:39:21,10.1.1.3,176,-0.050,-0.050,-0.050,0.000,0.000,0.000
1641091161418263040,2022-01-02-02:39:21,10.1.1.3,177,-0.060,-0.060,-0.060,0.000,0.000,0.000
1641091161616400128,2022-01-02-02:39:21,10.1.1.3,173,-0.070,-0.070,-0.070,0.000,0.000,0.000
1641091161814949888,2022-01-02-02:39:21,10.1.1.3,172,-0.080,-0.080,-0.080,0.000,0.000,0.000
1641091162014475008,2022-01-02-02:39:22,10.1.1.3,170,-0.090,-0.090,-0.090,0.000,0.000,0.000
1641091162220146944,2022-01-02-02:39:22,10.1.1.3,175,-0.100,-0.100,-0.100,0.000,0.000,0.000
1641091162414699008,2022-01-02-02:39:22,10.1.1.3,168,-0.110,-0.110,-0.110,0.000,0.000,0.000
1641091162615277056,2022-01-02-02:39:22,10.1.1.3,168,-0.120,-0.120,-0.120,0.000,0.000,0.000
1641091162833100032,2022-01-02-02:39:22,10.1.1.3,184,-0.130,-0.130,-0.130,0.000,0.000,0.000
1641091163034473984,2022-01-02-02:39:23,10.1.1.3,185,-0.140,-0.140,-0.140,0.000,0.000,0.000
1641091163233939968,2022-01-02-02:39:23,10.1.1.3,184,-0.150,-0.150,-0.150,0.000,0.000,0.000
1641091163435940864,2022-01-02-02:39:23,10.1.1.3,184,-0.160,-0.160,-0.160,0.000,0.000,0.000
1641091163633317888,2022-01-02-02:39:23,10.1.1.3,178,-0.170,-0.170,-0.170,0.000,0.000,0.000
1641091163834203904,2022-01-02-02:39:23,10.1.1.3,178,-0.180,-0.180,-0.180,0.000,0.000,0.000
1641091164033927936,2022-01-02-02:39:24,10.1.1.3,177,-0.190,-0.190,-0.190,0.000,0.000,0.000
1641091164233622016,2022-01-02-02:39:24,10.1.1.3,176,-0.200,-0.200,-0.200,0.000,0.000,0.000
1641091164432867072,2022-01-02-02:39:24,10.1.1.3,175,-0.210,-0.210,-0.210,0.000,0.000,0.000
1641091164632251136,2022-01-02-02:39:24,10.1.1.3,173,-0.220,-0.220,-0.220,0.000,0.000,0.000
1641091164832012032,2022-01-02-02:39:24,10.1.1.3,173,-0.230,-0.230,-0.230,0.000,0.000,0.000
1641091165040491008,2022-01-02-02:39:25,10.1.1.3,173,-0.240,-0.240,-0.240,0.000,0.000,0.000
1641091165235100928,2022-01-02-02:39:25,10.1.1.3,172,-0.250,-0.250,-0.250,0.000,0.000,0.000
1641091165431108864,2022-01-02-02:39:25,10.1.1.3,168,-0.260,-0.260,-0.260,0.000,0.000,0.000
1641091165630676992,2022-01-02-02:39:25,10.1.1.3,165,-0.270,-0.270,-0.270,0.000,0.000,0.000
1641091165829797888,2022-01-02-02:39:25,10.1.1.3,164,-0.280,-0.280,-0.280,0.000,0.000,0.000
1641091166029050112,2022-01-02-02:39:26,10.1.1.3,162,-0.290,-0.290,-0.290,0.000,0.000,0.000
1641091166234426880,2022-01-02-02:39:26,10.1.1.3,167,-0.300,-0.300,-0.300,0.000,0.000,0.000
1641091166431602944,2022-01-02-02:39:26,10.1.1.3,163,-0.310,-0.310,-0.310,0.000,0.000,0.000
1641091166650929920,2022-01-02-02:39:26,10.1.1.3,176,-0.320,-0.320,-0.320,0.000,0.000,0.000
1641091166851092992,2022-01-02-02:39:26,10.1.1.3,176,-0.330,-0.330,-0.330,0.000,0.000,0.000
1641091167048748032,2022-01-02-02:39:27,10.1.1.3,173,-0.340,-0.340,-0.340,0.000,0.000,0.000
1641091167250457088,2022-01-02-02:39:27,10.1.1.3,174,-0.350,-0.350,-0.350,0.000,0.000,0.000
1641091167448282112,2022-01-02-02:39:27,10.1.1.3,171,-0.360,-0.360,-0.360,0.000,0.000,0.000
1641091167649521152,2022-01-02-02:39:27,10.1.1.3,171,-0.370,-0.370,-0.370,0.000,0.000,0.000
1641091167849915136,2022-01-02-02:39:27,10.1.1.3,171,-0.380,-0.380,-0.380,0.000,0.000,0.000
1641091168047727104,2022-01-02-02:39:28,10.1.1.3,168,-0.390,-0.390,-0.390,0.000,0.000,0.000
1641091168246388992,2022-01-02-02:39:28,10.1.1.3,166,-0.400,-0.400,-0.400,0.000,0.000,0.000
1641091168446835968,2022-01-02-02:39:28,10.1.1.3,166,-0.410,-0.410,-0.410,0.000,0.000,0.000
1641091168646147072,2022-01-02-02:39:28,10.1.1.3,164,-0.420,-0.420,-0.420,0.000,0.000,0.000
1641091168845995008,2022-01-02-02:39:28,10.1.1.3,164,-0.430,-0.430,-0.430,0.000,0.000,0.000
1641091169045104128,2022-01-02-02:39:29,10.1.1.3,162,-0.440,-0.440,-0.440,0.000,0.000,0.000
1641091169246264064,2022-01-02-02:39:29,10.1.1.3,163,-0.450,-0.450,-0.450,0.000,0.000,0.000
1641091169445878016,2022-01-02-02:39:29,10.1.1.3,162,-0.460,-0.460,-0.460,0.000,0.000,0.000
1641091169665590016,2022-01-02-02:39:29,10.1.1.3,176,-0.470,-0.470,-0.470,0.000,0.000,0.000
1641091169864427008,2022-01-02-02:39:29,10.1.1.3,175,-0.480,-0.480,-0.480,0.000,0.000,0.000
1641091170064177920,2022-01-02-02:39:30,10.1.1.3,175,-0.490,-0.490,-0.490,0.000,0.000,0.000
1641091170263310848,2022-01-02-02:39:30,10.1.1.3,173,-0.480,-0.480,-0.480,0.000,0.000,0.000
1641091170464000000,2022-01-02-02:39:30,10.1.1.3,172,-0.470,-0.470,-0.470,0.000,0.000,0.000
1641091170668966912,2022-01-02-02:39:30,10.1.1.3,177,-0.460,-0.460,-0.460,0.000,0.000,0.000
1641091170862845952,2022-01-02-02:39:30,10.1.1.3,171,-0.450,-0.450,-0.450,0.000,0.000,0.000
1641091171062752000,2022-01-02-02:39:31,10.1.1.3,170,-0.440,-0.440,-0.440,0.000,0.000,0.000
1641091171263247872,2022-01-02-02:39:31,10.1.1.3,170,-0.430,-0.430,-0.430,0.000,0.000,0.000
1641091171464161024,2022-01-02-02:39:31,10.1.1.3,170,-0.420,-0.420,-0.420,0.000,0.000,0.000
1641091171663577088,2022-01-02-02:39:31,10.1.1.3,169,-0.410,-0.410,-0.410,0.000,0.000,0.000
1641091171863387136,2022-01-02-02:39:31,10.1.1.3,168,-0.400,-0.400,-0.400,0.000,0.000,0.000
1641091172071034880,2022-01-02-02:39:32,10.1.1.3,166,-0.390,-0.390,-0.390,0.000,0.000,0.000
1641091172262068992,2022-01-02-02:39:32,10.1.1.3,164,-0.380,-0.380,-0.380,0.000,0.000,0.000
1641091172462673920,2022-01-02-02:39:32,10.1.1.3,164,-0.370,-0.370,-0.370,0.000,0.000,0.000
1641091172660670976,2022-01-02-02:39:32,10.1.1.3,161,-0.360,-0.360,-0.360,0.000,0.000,0.000
1641091172860472064,2022-01-02-02:39:32,10.1.1.3,160,-0.350,-0.350,-0.350,0.000,0.000,0.000
1641091173059952896,2022-01-02-02:39:33,10.1.1.3,159,-0.340,-0.340,-0.340,0.000,0.000,0.000
1641091173259314176,2022-01-02-02:39:33,10.1.1.3,158,-0.330,-0.330,-0.330,0.000,0.000,0.000
1641091173459634944,2022-01-02-02:39:33,10.1.1.3,157,-0.320,-0.320,-0.320,0.000,0.000,0.000
1641091173658598912,2022-01-02-02:39:33,10.1.1.3,155,-0.310,-0.310,-0.310,0.000,0.000,0.000
1641091173862312192,2022-01-02-02:39:33,10.1.1.3,158,-0.300,-0.300,-0.300,0.000,0.000,0.000
1641091174059758848,2022-01-02-02:39:34,10.1.1.3,155,-0.290,-0.290,-0.290,0.000,0.000,0.000
1641091174257850880,2022-01-02-02:39:34,10.1.1.3,152,-0.280,-0.280,-0.280,0.000,0.000,0.000
1641091174458228224,2022-01-02-02:39:34,10.1.1.3,152,-0.270,-0.270,-0.270,0.000,0.000,0.000
1641091174659539968,2022-01-02-02:39:34,10.1.1.3,152,-0.260,-0.260,-0.260,0.000,0.000,0.000
1641091174857609984,2022-01-02-02:39:34,10.1.1.3,149,-0.250,-0.250,-0.250,0.000,0.000,0.000
1641091175076674816,2022-01-02-02:39:35,10.1.1.3,168,-0.240,-0.240,-0.240,0.000,0.000,0.000
1641091175276057856,2022-01-02-02:39:35,10.1.1.3,166,-0.230,-0.230,-0.230,0.000,0.000,0.000
1641091175475251968,2022-01-02-02:39:35,10.1.1.3,165,-0.220,-0.220,-0.220,0.000,0.000,0.000
1641091175675595008,2022-01-02-02:39:35,10.1.1.3,164,-0.210,-0.210,-0.210,0.000,0.000,0.000
1641091175875646208,2022-01-02-02:39:35,10.1.1.3,164,-0.200,-0.200,-0.200,0.000,0.000,0.000
1641091176075885056,2022-01-02-02:39:36,10.1.1.3,164,-0.190,-0.190,-0.190,0.000,0.000,0.000
1641091176274446080,2022-01-02-02:39:36,10.1.1.3,161,-0.180,-0.180,-0.180,0.000,0.000,0.000
1641091176475620864,2022-01-02-02:39:36,10.1.1.3,162,-0.170,-0.170,-0.170,0.000,0.000,0.000
1641091176673672960,2022-01-02-02:39:36,10.1.1.3,155,-0.160,-0.160,-0.160,0.000,0.000,0.000
1641091176873251072,2022-01-02-02:39:36,10.1.1.3,153,-0.150,-0.150,-0.150,0.000,0.000,0.000
1641091177074798080,2022-01-02-02:39:37,10.1.1.3,154,-0.140,-0.140,-0.140,0.000,0.000,0.000
1641091177278106880,2022-01-02-02:39:37,10.1.1.3,156,-0.130,-0.130,-0.130,0.000,0.000,0.000
1641091177478227968,2022-01-02-02:39:37,10.1.1.3,156,-0.120,-0.120,-0.120,0.000,0.000,0.000
1641091177677225216,2022-01-02-02:39:37,10.1.1.3,153,-0.110,-0.110,-0.110,0.000,0.000,0.000
1641091177878240000,2022-01-02-02:39:37,10.1.1.3,153,-0.100,-0.100,-0.100,0.000,0.000,0.000
1641091178079480832,2022-01-02-02:39:38,10.1.1.3,153,-0.090,-0.090,-0.090,0.000,0.000,0.000
1641091178280407040,2022-01-02-02:39:38,10.1.1.3,153,-0.080,-0.080,-0.080,0.000,0.000,0.000
1641091178481275136,2022-01-02-02:39:38,10.1.1.3,154,-0.070,-0.070,-0.070,0.000,0.000,0.000
1641091178683118080,2022-01-02-02:39:38,10.1.1.3,154,-0.060,-0.060,-0.060,0.000,0.000,0.000
1641091178902631168,2022-01-02-02:39:38,10.1.1.3,173,-0.050,-0.050,-0.050,0.000,0.000,0.000
1641091179104835072,2022-01-02-02:39:39,10.1.1.3,174,-0.040,-0.040,-0.040,0.000,0.000,0.000
1641091179305839104,2022-01-02-02:39:39,10.1.1.3,175,-0.030,-0.030,-0.030,0.000,0.000,0.000
1641091179508218880,2022-01-02-02:39:39,10.1.1.3,176,-0.020,-0.020,-0.020,0.000,0.000,0.000
1641091179708033024,2022-01-02-02:39:39,10.1.1.3,175,-0.010,-0.010,-0.010,0.000,0.000,0.000
1641091179907237888,2022-01-02-02:39:39,10.1.1.3,174,0.000,0.000,0.000,0.000,0.000,0.000
1641091180111443968,2022-01-02-02:39:40,10.1.1.3,178,-0.010,-0.010,-0.010,0.000,0.000,0.000
1641091180310551040,2022-01-02-02:39:40,10.1.1.3,176,-0.020,-0.020,-0.020,0.000,0.000,0.000
1641091180509114112,2022-01-02-02:39:40,10.1.1.3,174,-0.030,-0.030,-0.030,0.000,0.000,0.000
1641091180711308032,2022-01-02-02:39:40,10.1.1.3,174,-0.040,-0.040,-0.040,0.000,0.000,0.000
1641091180914413824,2022-01-02-02:39:40,10.1.1.3,178,-0.050,-0.050,-0.050,0.000,0.000,0.000
1641091181114577920,2022-01-02-02:39:41,10.1.1.3,177,-0.060,-0.060,-0.060,0.000,0.000,0.000
1641091181313234944,2022-01-02-02:39:41,10.1.1.3,175,-0.070,-0.070,-0.070,0.000,0.000,0.000
1641091181512887040,2022-01-02-02:39:41,10.1.1.3,174,-0.080,-0.080,-0.080,0.000,0.000,0.000
1641091181715127040,2022-01-02-02:39:41,10.1.1.3,172,-0.090,-0.090,-0.090,0.000,0.000,0.000
1641091181915243008,2022-01-02-02:39:41,10.1.1.3,174,-0.100,-0.100,-0.100,0.000,0.000,0.000
1641091182113861120,2022-01-02-02:39:42,10.1.1.3,169,-0.110,-0.110,-0.110,0.000,0.000,0.000
1641091182315098112,2022-01-02-02:39:42,10.1.1.3,169,-0.120,-0.120,-0.120,0.000,0.000,0.000
1641091182514467072,2022-01-02-02:39:42,10.1.1.3,167,-0.130,-0.130,-0.130,0.000,0.000,0.000
1641091182714656000,2022-01-02-02:39:42,10.1.1.3,167,-0.140,-0.140,-0.140,0.000,0.000,0.000
1641091182916316160,2022-01-02-02:39:42,10.1.1.3,168,-0.150,-0.150,-0.150,0.000,0.000,0.000
1641091183135567872,2022-01-02-02:39:43,10.1.1.3,185,-0.160,-0.160,-0.160,0.000,0.000,0.000
1641091183336369152,2022-01-02-02:39:43,10.1.1.3,184,-0.170,-0.170,-0.170,0.000,0.000,0.000
1641091183537906944,2022-01-02-02:39:43,10.1.1.3,184,-0.180,-0.180,-0.180,0.000,0.000,0.000
1641091183737991936,2022-01-02-02:39:43,10.1.1.3,184,-0.190,-0.190,-0.190,0.000,0.000,0.000
1641091183937719040,2022-01-02-02:39:43,10.1.1.3,183,-0.200,-0.200,-0.200,0.000,0.000,0.000
1641091184139446016,2022-01-02-02:39:44,10.1.1.3,183,-0.210,-0.210,-0.210,0.000,0.000,0.000
1641091184341142784,2022-01-02-02:39:44,10.1.1.3,181,-0.220,-0.220,-0.220,0.000,0.000,0.000
1641091184536461056,2022-01-02-02:39:44,10.1.1.3,176,-0.230,-0.230,-0.230,0.000,0.000,0.000
1641091184739231232,2022-01-02-02:39:44,10.1.1.3,177,-0.240,-0.240,-0.240,0.000,0.000,0.000
1641091184940530944,2022-01-02-02:39:44,10.1.1.3,176,-0.250,-0.250,-0.250,0.000,0.000,0.000
1641091185140208896,2022-01-02-02:39:45,10.1.1.3,175,-0.260,-0.260,-0.260,0.000,0.000,0.000
1641091185342006016,2022-01-02-02:39:45,10.1.1.3,175,-0.270,-0.270,-0.270,0.000,0.000,0.000
1641091185559427072,2022-01-02-02:39:45,10.1.1.3,191,-0.280,-0.280,-0.280,0.000,0.000,0.000
1641091185759896064,2022-01-02-02:39:45,10.1.1.3,190,-0.290,-0.290,-0.290,0.000,0.000,0.000
1641091185961310976,2022-01-02-02:39:45,10.1.1.3,190,-0.300,-0.300,-0.300,0.000,0.000,0.000
1641091186158729984,2022-01-02-02:39:46,10.1.1.3,187,-0.310,-0.310,-0.310,0.000,0.000,0.000
1641091186360542976,2022-01-02-02:39:46,10.1.1.3,188,-0.320,-0.320,-0.320,0.000,0.000,0.000
1641091186559859968,2022-01-02-02:39:46,10.1.1.3,187,-0.330,-0.330,-0.330,0.000,0.000,0.000
1641091186760602880,2022-01-02-02:39:46,10.1.1.3,186,-0.340,-0.340,-0.340,0.000,0.000,0.000
1641091186959705088,2022-01-02-02:39:46,10.1.1.3,184,-0.350,-0.350,-0.350,0.000,0.000,0.000
1641091187162024960,2022-01-02-02:39:47,10.1.1.3,185,-0.360,-0.360,-0.360,0.000,0.000,0.000
1641091187359988992,2022-01-02-02:39:47,10.1.1.3,182,-0.370,-0.370,-0.370,0.000,0.000,0.000
1641091187559129856,2022-01-02-02:39:47,10.1.1.3,181,-0.380,-0.380,-0.380,0.000,0.000,0.000
1641091187760123136,2022-01-02-02:39:47,10.1.1.3,180,-0.390,-0.390,-0.390,0.000,0.000,0.000
1641091187961772032,2022-01-02-02:39:47,10.1.1.3,180,-0.400,-0.400,-0.400,0.000,0.000,0.000
1641091188160785920,2022-01-02-02:39:48,10.1.1.3,176,-0.410,-0.410,-0.410,0.000,0.000,0.000
1641091188360368128,2022-01-02-02:39:48,10.1.1.3,175,-0.420,-0.420,-0.420,0.000,0.000,0.000
1641091188559143936,2022-01-02-02:39:48,10.1.1.3,173,-0.430,-0.430,-0.430,0.000,0.000,0.000
1641091188760215040,2022-01-02-02:39:48,10.1.1.3,172,-0.440,-0.440,-0.440,0.000,0.000,0.000
1641091188980510976,2022-01-02-02:39:48,10.1.1.3,190,-0.450,-0.450,-0.450,0.000,0.000,0.000
1641091189184815872,2022-01-02-02:39:49,10.1.1.3,193,-0.460,-0.460,-0.460,0.000,0.000,0.000
1641091189381005056,2022-01-02-02:39:49,10.1.1.3,188,-0.470,-0.470,-0.470,0.000,0.000,0.000
1641091189582894080,2022-01-02-02:39:49,10.1.1.3,189,-0.480,-0.480,-0.480,0.000,0.000,0.000
1641091189779902976,2022-01-02-02:39:49,10.1.1.3,185,-0.490,-0.490,-0.490,0.000,0.000,0.000
1641091189981228032,2022-01-02-02:39:49,10.1.1.3,185,-0.480,-0.480,-0.480,0.000,0.000,0.000
1641091190179672064,2022-01-02-02:39:50,10.1.1.3,183,-0.470,-0.470,-0.470,0.000,0.000,0.000
1641091190379364864,2022-01-02-02:39:50,10.1.1.3,182,-0.460,-0.460,-0.460,0.000,0.000,0.000
1641091190579142144,2022-01-02-02:39:50,10.1.1.3,181,-0.450,-0.450,-0.450,0.000,0.000,0.000
1641091190778984192,2022-01-02-02:39:50,10.1.1.3,179,-0.440,-0.440,-0.440,0.000,0.000,0.000
1641091190979798016,2022-01-02-02:39:50,10.1.1.3,178,-0.430,-0.430,-0.430,0.000,0.000,0.000
1641091191179916032,2022-01-02-02:39:51,10.1.1.3,177,-0.420,-0.420,-0.420,0.000,0.000,0.000
1641091191380546048,2022-01-02-02:39:51,10.1.1.3,177,-0.410,-0.410,-0.410,0.000,0.000,0.000
1641091191583586048,2022-01-02-02:39:51,10.1.1.3,180,-0.400,-0.400,-0.400,0.000,0.000,0.000
1641091191779515136,2022-01-02-02:39:51,10.1.1.3,175,-0.390,-0.390,-0.390,0.000,0.000,0.000
1641091191980855040,2022-01-02-02:39:51,10.1.1.3,175,-0.380,-0.380,-0.380,0.000,0.000,0.000
1641091192179001088,2022-01-02-02:39:52,10.1.1.3,173,-0.370,-0.370,-0.370,0.000,0.000,0.000
1641091192377911040,2022-01-02-02:39:52,10.1.1.3,170,-0.360,-0.360,-0.360,0.000,0.000,0.000
1641091192599816960,2022-01-02-02:39:52,10.1.1.3,191,-0.350,-0.350,-0.350,0.000,0.000,0.000
1641091192800225024,2022-01-02-02:39:52,10.1.1.3,191,-0.340,-0.340,-0.340,0.000,0.000,0.000
1641091192998114048,2022-01-02-02:39:52,10.1.1.3,188,-0.330,-0.330,-0.330,0.000,0.000,0.000
1641091193198497024,2022-01-02-02:39:53,10.1.1.3,188,-0.320,-0.320,-0.320,0.000,0.000,0.000
1641091193398086144,2022-01-02-02:39:53,10.1.1.3,186,-0.310,-0.310,-0.310,0.000,0.000,0.000
1641091193598868992,2022-01-02-02:39:53,10.1.1.3,186,-0.300,-0.300,-0.300,0.000,0.000,0.000
1641091193797691136,2022-01-02-02:39:53,10.1.1.3,184,-0.290,-0.290,-0.290,0.000,0.000,0.000
1641091193997870080,2022-01-02-02:39:53,10.1.1.3,184,-0.280,-0.280,-0.280,0.000,0.000,0.000
1641091194198068992,2022-01-02-02:39:54,10.1.1.3,183,-0.270,-0.270,-0.270,0.000,0.000,0.000
1641091194396527104,2022-01-02-02:39:54,10.1.1.3,181,-0.260,-0.260,-0.260,0.000,0.000,0.000
1641091194596940032,2022-01-02-02:39:54,10.1.1.3,181,-0.250,-0.250,-0.250,0.000,0.000,0.000
1641091194797824000,2022-01-02-02:39:54,10.1.1.3,181,-0.240,-0.240,-0.240,0.000,0.000,0.000
1641091194999073024,2022-01-02-02:39:54,10.1.1.3,178,-0.230,-0.230,-0.230,0.000,0.000,0.000
1641091195196465920,2022-01-02-02:39:55,10.1.1.3,175,-0.220,-0.220,-0.220,0.000,0.000,0.000
1641091195395187968,2022-01-02-02:39:55,10.1.1.3,173,-0.210,-0.210,-0.210,0.000,0.000,0.000
1641091195594336000,2022-01-02-02:39:55,10.1.1.3,171,-0.200,-0.200,-0.200,0.000,0.000,0.000
1641091195796451072,2022-01-02-02:39:55,10.1.1.3,172,-0.190,-0.190,-0.190,0.000,0.000,0.000
1641091195996078080,2022-01-02-02:39:55,10.1.1.3,171,-0.180,-0.180,-0.180,0.000,0.000,0.000
1641091196198108928,2022-01-02-02:39:56,10.1.1.3,171,-0.170,-0.170,-0.170,0.000,0.000,0.000
1641091196393465088,2022-01-02-02:39:56,10.1.1.3,167,-0.160,-0.160,-0.160,0.000,0.000,0.000
1641091196594153984,2022-01-02-02:39:56,10.1.1.3,167,-0.150,-0.150,-0.150,0.000,0.000,0.000
1641091196796268032,2022-01-02-02:39:56,10.1.1.3,168,-0.140,-0.140,-0.140,0.000,0.000,0.000
1641091197012516096,2022-01-02-02:39:57,10.1.1.3,184,-0.130,-0.130,-0.130,0.000,0.000,0.000
1641091197214116096,2022-01-02-02:39:57,10.1.1.3,185,-0.120,-0.120,-0.120,0.000,0.000,0.000
1641091197414640896,2022-01-02-02:39:57,10.1.1.3,184,-0.110,-0.110,-0.110,0.000,0.000,0.000
1641091197613105152,2022-01-02-02:39:57,10.1.1.3,181,-0.100,-0.100,-0.100,0.000,0.000,0.000
1641091197814407168,2022-01-02-02:39:57,10.1.1.3,180,-0.090,-0.090,-0.090,0.000,0.000,0.000
1641091198013786112,2022-01-02-02:39:58,10.1.1.3,178,-0.080,-0.080,-0.080,0.000,0.000,0.000
1641091198213573888,2022-01-02-02:39:58,10.1.1.3,177,-0.070,-0.070,-0.070,0.000,0.000,0.000
1641091198415092992,2022-01-02-02:39:58,10.1.1.3,178,-0.060,-0.060,-0.060,0.000,0.000,0.000
1641091198612108032,2022-01-02-02:39:58,10.1.1.3,174,-0.050,-0.050,-0.050,0.000,0.000,0.000
1641091198814439168,2022-01-02-02:39:58,10.1.1.3,176,-0.040,-0.040,-0.040,0.000,0.000,0.000
1641091199011336960,2022-01-02-02:39:59,10.1.1.3,172,-0.030,-0.030,-0.030,0.000,0.000,0.000
1641091199212748032,2022-01-02-02:39:59,10.1.1.3,173,-0.020,-0.020,-0.020,0.000,0.000,0.000
1641091199411046912,2022-01-02-02:39:59,10.1.1.3,170,-0.010,-0.010,-0.010,0.000,0.000,0.000
1641091199611860992,2022-01-02-02:39:59,10.1.1.3,170,0.000,0.000,0.000,0.000,0.000,0.000
1641091199812526080,2022-01-02-02:39:59,10.1.1.3,170,-0.010,-0.010,-0.010,0.000,0.000,0.000
1641091200009190912,2022-01-02-02:40:00,10.1.1.3,167,-0.020,-0.020,-0.020,0.000,0.000,0.000
1641091200211566080,2022-01-02-02:40:00,10.1.1.3,168,-0.030,-0.030,-0.030,0.000,0.000,0.000
1641091200410185216,2022-01-02-02:40:00,10.1.1.3,165,-0.040,-0.040,-0.040,0.000,0.000,0.000
1641091200608977920,2022-01-02-02:40:00,10.1.1.3,163,-0.050,-0.050,-0.050,0.000,0.000,0.000
1641091200811544064,2022-01-02-02:40:00,10.1.1.3,162,-0.060,-0.060,-0.060,0.000,0.000,0.000
1641091201009239040,2022-01-02-02:40:01,10.1.1.3,160,-0.070,-0.070,-0.070,0.000,0.000,0.000
1641091201229083904,2022-01-02-02:40:01,10.1.1.3,178,-0.080,-0.080,-0.080,0.000,0.000,0.000
1641091201427928064,2022-01-02-02:40:01,10.1.1.3,178,-0.090,-0.090,-0.090,0.000,0.000,0.000
1641091201627399936,2022-01-02-02:40:01,10.1.1.3,176,-0.100,-0.100,-0.100,0.000,0.000,0.000
1641091201828461824,2022-01-02-02:40:01,10.1.1.3,177,-0.110,-0.110,-0.110,0.000,0.000,0.000
1641091202029711104,2022-01-02-02:40:02,10.1.1.3,177,-0.120,-0.120,-0.120,0.000,0.000,0.000
1641091202230267904,2022-01-02-02:40:02,10.1.1.3,175,-0.130,-0.130,-0.130,0.000,0.000,0.000
1641091202427273984,2022-01-02-02:40:02,10.1.1.3,172,-0.140,-0.140,-0.140,0.000,0.000,0.000
1641091202627603968,2022-01-02-02:40:02,10.1.1.3,173,-0.150,-0.150,-0.150,0.000,0.000,0.000
1641091202826198016,2022-01-02-02:40:02,10.1.1.3,170,-0.160,-0.160,-0.160,0.000,0.000,0.000
1641091203026024192,2022-01-02-02:40:03,10.1.1.3,168,-0.170,-0.170,-0.170,0.000,0.000,0.000
1641091203227087104,2022-01-02-02:40:03,10.1.1.3,169,-0.180,-0.180,-0.180,0.000,0.000,0.000
1641091203425715968,2022-01-02-02:40:03,10.1.1.3,165,-0.190,-0.190,-0.190,0.000,0.000,0.000
1641091203624839168,2022-01-02-02:40:03,10.1.1.3,163,-0.200,-0.200,-0.200,0.000,0.000,0.000
1641091203846188032,2022-01-02-02:40:03,10.1.1.3,176,-0.210,-0.210,-0.210,0.000,0.000,0.000
1641091204045239040,2022-01-02-02:40:04,10.1.1.3,173,-0.220,-0.220,-0.220,0.000,0.000,0.000
1641091204244144896,2022-01-02-02:40:04,10.1.1.3,171,-0.230,-0.230,-0.230,0.000,0.000,0.000
1641091204442929152,2022-01-02-02:40:04,10.1.1.3,169,-0.240,-0.240,-0.240,0.000,0.000,0.000
1641091204643315200,2022-01-02-02:40:04,10.1.1.3,168,-0.250,-0.250,-0.250,0.000,0.000,0.000
1641091204843244032,2022-01-02-02:40:04,10.1.1.3,167,-0.260,-0.260,-0.260,0.000,0.000,0.000
1641091205043081984,2022-01-02-02:40:05,10.1.1.3,166,-0.270,-0.270,-0.270,0.000,0.000,0.000
1641091205249677056,2022-01-02-02:40:05,10.1.1.3,171,-0.280,-0.280,-0.280,0.000,0.000,0.000
1641091205442194944,2022-01-02-02:40:05,10.1.1.3,162,-0.290,-0.290,-0.290,0.000,0.000,0.000
1641091205663886080,2022-01-02-02:40:05,10.1.1.3,172,-0.300,-0.300,-0.300,0.000,0.000,0.000
1641091205869852928,2022-01-02-02:40:05,10.1.1.3,176,-0.310,-0.310,-0.310,0.000,0.000,0.000
1641091206063302144,2022-01-02-02:40:06,10.1.1.3,168,-0.320,-0.320,-0.320,0.000,0.000,0.000
1641091206264199936,2022-01-02-02:40:06,10.1.1.3,167,-0.330,-0.330,-0.330,0.000,0.000,0.000
1641091206459652864,2022-01-02-02:40:06,10.1.1.3,162,-0.340,-0.340,-0.340,0.000,0.000,0.000
1641091206663738112,2022-01-02-02:40:06,10.1.1.3,166,-0.350,-0.350,-0.350,0.000,0.000,0.000
1641091206861984000,2022-01-02-02:40:06,10.1.1.3,163,-0.360,-0.360,-0.360,0.000,0.000,0.000
1641091207059106048,2022-01-02-02:40:07,10.1.1.3,158,-0.370,-0.370,-0.370,0.000,0.000,0.000
1641091207259741952,2022-01-02-02:40:07,10.1.1.3,156,-0.380,-0.380,-0.380,0.000,0.000,0.000
1641091207459561984,2022-01-02-02:40:07,10.1.1.3,155,-0.390,-0.390,-0.390,0.000,0.000,0.000
1641091207658238976,2022-01-02-02:40:07,10.1.1.3,153,-0.400,-0.400,-0.400,0.000,0.000,0.000
1641091207859864832,2022-01-02-02:40:07,10.1.1.3,151,-0.410,-0.410,-0.410,0.000,0.000,0.000
1641091208058957056,2022-01-02-02:40:08,10.1.1.3,152,-0.420,-0.420,-0.420,0.000,0.000,0.000
1641091208277676032,2022-01-02-02:40:08,10.1.1.3,169,-0.430,-0.430,-0.430,0.000,0.000,0.000
1641091208477332992,2022-01-02-02:40:08,10.1.1.3,168,-0.440,-0.440,-0.440,0.000,0.000,0.000
1641091208677294848,2022-01-02-02:40:08,10.1.1.3,168,-0.450,-0.450,-0.450,0.000,0.000,0.000
1641091208875767040,2022-01-02-02:40:08,10.1.1.3,166,-0.460,-0.460,-0.460,0.000,0.000,0.000
1641091209075576064,2022-01-02-02:40:09,10.1.1.3,164,-0.470,-0.470,-0.470,0.000,0.000,0.000
1641091209279129088,2022-01-02-02:40:09,10.1.1.3,167,-0.480,-0.480,-0.480,0.000,0.000,0.000
1641091209480505088,2022-01-02-02:40:09,10.1.1.3,167,-0.490,-0.490,-0.490,0.000,0.000,0.000
1641091209682008064,2022-01-02-02:40:09,10.1.1.3,168,-0.480,-0.480,-0.480,0.000,0.000,0.000
1641091209880422144,2022-01-02-02:40:09,10.1.1.3,165,-0.470,-0.470,-0.470,0.000,0.000,0.000
1641091210082590976,2022-01-02-02:40:10,10.1.1.3,166,-0.460,-0.460,-0.460,0.000,0.000,0.000
1641091210282479104,2022-01-02-02:40:10,10.1.1.3,165,-0.450,-0.450,-0.450,0.000,0.000,0.000
1641091210483598080,2022-01-02-02:40:10,10.1.1.3,165,-0.440,-0.440,-0.440,0.000,0.000,0.000
1641091210693921024,2022-01-02-02:40:10,10.1.1.3,166,-0.430,-0.430,-0.430,0.000,0.000,0.000
1641091210886208000,2022-01-02-02:40:10,10.1.1.3,165,-0.420,-0.420,-0.420,0.000,0.000,0.000
1641091211086009856,2022-01-02-02:40:11,10.1.1.3,164,-0.410,-0.410,-0.410,0.000,0.000,0.000
1641091211286551040,2022-01-02-02:40:11,10.1.1.3,161,-0.400,-0.400,-0.400,0.000,0.000,0.000
1641091211509416960,2022-01-02-02:40:11,10.1.1.3,180,-0.390,-0.390,-0.390,0.000,0.000,0.000
1641091211711227904,2022-01-02-02:40:11,10.1.1.3,178,-0.380,-0.380,-0.380,0.000,0.000,0.000
1641091211911313152,2022-01-02-02:40:11,10.1.1.3,178,-0.370,-0.370,-0.370,0.000,0.000,0.000
1641091212110054912,2022-01-02-02:40:12,10.1.1.3,175,-0.360,-0.360,-0.360,0.000,0.000,0.000
1641091212311484160,2022-01-02-02:40:12,10.1.1.3,176,-0.350,-0.350,-0.350,0.000,0.000,0.000
1641091212510011904,2022-01-02-02:40:12,10.1.1.3,173,-0.340,-0.340,-0.340,0.000,0.000,0.000
1641091212712854016,2022-01-02-02:40:12,10.1.1.3,175,-0.330,-0.330,-0.330,0.000,0.000,0.000
1641091212913291008,2022-01-02-02:40:12,10.1.1.3,175,-0.320,-0.320,-0.320,0.000,0.000,0.000
1641091213114419968,2022-01-02-02:40:13,10.1.1.3,175,-0.310,-0.310,-0.310,0.000,0.000,0.000
1641091213313772800,2022-01-02-02:40:13,10.1.1.3,174,-0.300,-0.300,-0.300,0.000,0.000,0.000
1641091213513312000,2022-01-02-02:40:13,10.1.1.3,171,-0.290,-0.290,-0.290,0.000,0.000,0.000
1641091213715452928,2022-01-02-02:40:13,10.1.1.3,173,-0.280,-0.280,-0.280,0.000,0.000,0.000
1641091213916104192,2022-01-02-02:40:13,10.1.1.3,172,-0.270,-0.270,-0.270,0.000,0.000,0.000
1641091214115011840,2022-01-02-02:40:14,10.1.1.3,170,-0.260,-0.260,-0.260,0.000,0.000,0.000
1641091214313795072,2022-01-02-02:40:14,10.1.1.3,168,-0.250,-0.250,-0.250,0.000,0.000,0.000
1641091214516133120,2022-01-02-02:40:14,10.1.1.3,170,-0.240,-0.240,-0.240,0.000,0.000,0.000
1641091214717169920,2022-01-02-02:40:14,10.1.1.3,170,-0.230,-0.230,-0.230,0.000,0.000,0.000
1641091214915654912,2022-01-02-02:40:14,10.1.1.3,167,-0.220,-0.220,-0.220,0.000,0.000,0.000
1641091215135700992,2022-01-02-02:40:15,10.1.1.3,186,-0.210,-0.210,-0.210,0.000,0.000,0.000
1641091215338039040,2022-01-02-02:40:15,10.1.1.3,185,-0.200,-0.200,-0.200,0.000,0.000,0.000
1641091215536384000,2022-01-02-02:40:15,10.1.1.3,181,-0.190,-0.190,-0.190,0.000,0.000,0.000
1641091215739286784,2022-01-02-02:40:15,10.1.1.3,179,-0.180,-0.180,-0.180,0.000,0.000,0.000
1641091215936709888,2022-01-02-02:40:15,10.1.1.3,173,-0.170,-0.170,-0.170,0.000,0.000,0.000
1641091216138819072,2022-01-02-02:40:16,10.1.1.3,173,-0.160,-0.160,-0.160,0.000,0.000,0.000
1641091216338306816,2022-01-02-02:40:16,10.1.1.3,171,-0.150,-0.150,-0.150,0.000,0.000,0.000
1641091216540625152,2022-01-02-02:40:16,10.1.1.3,172,-0.140,-0.140,-0.140,0.000,0.000,0.000
1641091216761004032,2022-01-02-02:40:16,10.1.1.3,190,-0.130,-0.130,-0.130,0.000,0.000,0.000
1641091216959546112,2022-01-02-02:40:16,10.1.1.3,188,-0.120,-0.120,-0.120,0.000,0.000,0.000
1641091217158894080,2022-01-02-02:40:17,10.1.1.3,186,-0.110,-0.110,-0.110,0.000,0.000,0.000
1641091217359121152,2022-01-02-02:40:17,10.1.1.3,186,-0.100,-0.100,-0.100,0.000,0.000,0.000
1641091217558844928,2022-01-02-02:40:17,10.1.1.3,185,-0.090,-0.090,-0.090,0.000,0.000,0.000
1641091217758936832,2022-01-02-02:40:17,10.1.1.3,184,-0.080,-0.080,-0.080,0.000,0.000,0.000
1641091217959866880,2022-01-02-02:40:17,10.1.1.3,184,-0.070,-0.070,-0.070,0.000,0.000,0.000
1641091218158737920,2022-01-02-02:40:18,10.1.1.3,183,-0.060,-0.060,-0.060,0.000,0.000,0.000
1641091218360225024,2022-01-02-02:40:18,10.1.1.3,183,-0.050,-0.050,-0.050,0.000,0.000,0.000
1641091218560192000,2022-01-02-02:40:18,10.1.1.3,181,-0.040,-0.040,-0.040,0.000,0.000,0.000
