FedericoMungari/DigitalTwin_service/01_WiredScenario/Output/Output_script/script_rosapi_2_output_robots4_freq0_4.txt
timestamp,date,node,latency,joint_1,joint_2,joint_3,joint_4,joint_5,joint_6
1641195349705734912,2022-01-03-07:35:49,10.1.1.5,188,-0.010,-0.010,-0.010,0.000,0.000,0.000
1641195349897650944,2022-01-03-07:35:49,10.1.1.5,180,-0.020,-0.020,-0.020,0.000,0.000,0.000
1641195350107117824,2022-01-03-07:35:50,10.1.1.5,188,-0.030,-0.030,-0.030,0.000,0.000,0.000
1641195350298721024,2022-01-03-07:35:50,10.1.1.5,179,-0.040,-0.040,-0.040,0.000,0.000,0.000
1641195350707934976,2022-01-03-07:35:50,10.1.1.5,185,-0.060,-0.060,-0.060,0.000,0.000,0.000
1641195350909612032,2022-01-03-07:35:50,10.1.1.5,185,-0.070,-0.070,-0.070,0.000,0.000,0.000
1641195351310023936,2022-01-03-07:35:51,10.1.1.5,184,-0.090,-0.090,-0.090,0.000,0.000,0.000
1641195351509999872,2022-01-03-07:35:51,10.1.1.5,183,-0.100,-0.100,-0.100,0.000,0.000,0.000
1641195351713451008,2022-01-03-07:35:51,10.1.1.5,185,-0.110,-0.110,-0.110,0.000,0.000,0.000
1641195352111866112,2022-01-03-07:35:52,10.1.1.5,182,-0.130,-0.130,-0.130,0.000,0.000,0.000
1641195352311523840,2022-01-03-07:35:52,10.1.1.5,181,-0.140,-0.140,-0.140,0.000,0.000,0.000
1641195352732006144,2022-01-03-07:35:52,10.1.1.5,199,-0.160,-0.160,-0.160,0.000,0.000,0.000
1641195352931948800,2022-01-03-07:35:52,10.1.1.5,195,-0.170,-0.170,-0.170,0.000,0.000,0.000
1641195353132594176,2022-01-03-07:35:53,10.1.1.5,195,-0.180,-0.180,-0.180,0.000,0.000,0.000
1641195353358799104,2022-01-03-07:35:53,10.1.1.5,193,-0.190,-0.190,-0.190,0.000,0.000,0.000
1641195353552344064,2022-01-03-07:35:53,10.1.1.5,191,-0.200,-0.200,-0.200,0.000,0.000,0.000
1641195353753338112,2022-01-03-07:35:53,10.1.1.5,189,-0.210,-0.210,-0.210,0.000,0.000,0.000
1641195354154049024,2022-01-03-07:35:54,10.1.1.5,188,-0.230,-0.230,-0.230,0.000,0.000,0.000
1641195354354788096,2022-01-03-07:35:54,10.1.1.5,187,-0.240,-0.240,-0.240,0.000,0.000,0.000
1641195354553319936,2022-01-03-07:35:54,10.1.1.5,184,-0.250,-0.250,-0.250,0.000,0.000,0.000
1641195355173933056,2022-01-03-07:35:55,10.1.1.5,199,-0.280,-0.280,-0.280,0.000,0.000,0.000
1641195355374397952,2022-01-03-07:35:55,10.1.1.5,197,-0.290,-0.290,-0.290,0.000,0.000,0.000
1641195355574007040,2022-01-03-07:35:55,10.1.1.5,195,-0.300,-0.300,-0.300,0.000,0.000,0.000
1641195355773929216,2022-01-03-07:35:55,10.1.1.5,194,-0.310,-0.310,-0.310,0.000,0.000,0.000
1641195355973870080,2022-01-03-07:35:55,10.1.1.5,193,-0.320,-0.320,-0.320,0.000,0.000,0.000
1641195356174223872,2022-01-03-07:35:56,10.1.1.5,192,-0.330,-0.330,-0.330,0.000,0.000,0.000
1641195356374615808,2022-01-03-07:35:56,10.1.1.5,191,-0.340,-0.340,-0.340,0.000,0.000,0.000
1641195356575174144,2022-01-03-07:35:56,10.1.1.5,191,-0.350,-0.350,-0.350,0.000,0.000,0.000
1641195356779923968,2022-01-03-07:35:56,10.1.1.5,193,-0.360,-0.360,-0.360,0.000,0.000,0.000
1641195356974072064,2022-01-03-07:35:56,10.1.1.5,188,-0.370,-0.370,-0.370,0.000,0.000,0.000
1641195357174291968,2022-01-03-07:35:57,10.1.1.5,187,-0.380,-0.380,-0.380,0.000,0.000,0.000
1641195357376156928,2022-01-03-07:35:57,10.1.1.5,187,-0.390,-0.390,-0.390,0.000,0.000,0.000
1641195357573390848,2022-01-03-07:35:57,10.1.1.5,183,-0.400,-0.400,-0.400,0.000,0.000,0.000
1641195358184994048,2022-01-03-07:35:58,10.1.1.5,192,-0.430,-0.430,-0.430,0.000,0.000,0.000
1641195358393512960,2022-01-03-07:35:58,10.1.1.5,197,-0.440,-0.440,-0.440,0.000,0.000,0.000
1641195358594098944,2022-01-03-07:35:58,10.1.1.5,196,-0.450,-0.450,-0.450,0.000,0.000,0.000
1641195358796574976,2022-01-03-07:35:58,10.1.1.5,195,-0.460,-0.460,-0.460,0.000,0.000,0.000
1641195358993566976,2022-01-03-07:35:58,10.1.1.5,193,-0.470,-0.470,-0.470,0.000,0.000,0.000
1641195359393320192,2022-01-03-07:35:59,10.1.1.5,190,-0.490,-0.490,-0.490,0.000,0.000,0.000
1641195359593029120,2022-01-03-07:35:59,10.1.1.5,188,-0.480,-0.480,-0.480,0.000,0.000,0.000
1641195359793544960,2022-01-03-07:35:59,10.1.1.5,188,-0.470,-0.470,-0.470,0.000,0.000,0.000
1641195359994298880,2022-01-03-07:35:59,10.1.1.5,188,-0.460,-0.460,-0.460,0.000,0.000,0.000
1641195360192679936,2022-01-03-07:36:00,10.1.1.5,185,-0.450,-0.450,-0.450,0.000,0.000,0.000
1641195360393668864,2022-01-03-07:36:00,10.1.1.5,184,-0.440,-0.440,-0.440,0.000,0.000,0.000
1641195360592495872,2022-01-03-07:36:00,10.1.1.5,182,-0.430,-0.430,-0.430,0.000,0.000,0.000
1641195360812856064,2022-01-03-07:36:00,10.1.1.5,201,-0.420,-0.420,-0.420,0.000,0.000,0.000
1641195361012108032,2022-01-03-07:36:01,10.1.1.5,198,-0.410,-0.410,-0.410,0.000,0.000,0.000
1641195361212090112,2022-01-03-07:36:01,10.1.1.5,196,-0.400,-0.400,-0.400,0.000,0.000,0.000
1641195361411348224,2022-01-03-07:36:01,10.1.1.5,193,-0.390,-0.390,-0.390,0.000,0.000,0.000
1641195361612192000,2022-01-03-07:36:01,10.1.1.5,193,-0.380,-0.380,-0.380,0.000,0.000,0.000
1641195361801722880,2022-01-03-07:36:01,10.1.1.5,181,-0.370,-0.370,-0.370,0.000,0.000,0.000
1641195362213708032,2022-01-03-07:36:02,10.1.1.5,192,-0.350,-0.350,-0.350,0.000,0.000,0.000
1641195362809967104,2022-01-03-07:36:02,10.1.1.5,183,-0.320,-0.320,-0.320,0.000,0.000,0.000
1641195363209414912,2022-01-03-07:36:03,10.1.1.5,180,-0.300,-0.300,-0.300,0.000,0.000,0.000
1641195363409841920,2022-01-03-07:36:03,10.1.1.5,179,-0.290,-0.290,-0.290,0.000,0.000,0.000
1641195363619961088,2022-01-03-07:36:03,10.1.1.5,189,-0.280,-0.280,-0.280,0.000,0.000,0.000
1641195363829540096,2022-01-03-07:36:03,10.1.1.5,197,-0.270,-0.270,-0.270,0.000,0.000,0.000
1641195364019273984,2022-01-03-07:36:04,10.1.1.5,186,-0.260,-0.260,-0.260,0.000,0.000,0.000
1641195364228532992,2022-01-03-07:36:04,10.1.1.5,195,-0.250,-0.250,-0.250,0.000,0.000,0.000
1641195364428448000,2022-01-03-07:36:04,10.1.1.5,194,-0.240,-0.240,-0.240,0.000,0.000,0.000
1641195364628402944,2022-01-03-07:36:04,10.1.1.5,191,-0.230,-0.230,-0.230,0.000,0.000,0.000
1641195364828327936,2022-01-03-07:36:04,10.1.1.5,188,-0.220,-0.220,-0.220,0.000,0.000,0.000
1641195365034435072,2022-01-03-07:36:05,10.1.1.5,194,-0.210,-0.210,-0.210,0.000,0.000,0.000
1641195365227420160,2022-01-03-07:36:05,10.1.1.5,185,-0.200,-0.200,-0.200,0.000,0.000,0.000
1641195365427803136,2022-01-03-07:36:05,10.1.1.5,183,-0.190,-0.190,-0.190,0.000,0.000,0.000
1641195365627502080,2022-01-03-07:36:05,10.1.1.5,182,-0.180,-0.180,-0.180,0.000,0.000,0.000
1641195365829554944,2022-01-03-07:36:05,10.1.1.5,182,-0.170,-0.170,-0.170,0.000,0.000,0.000
1641195366026590208,2022-01-03-07:36:06,10.1.1.5,178,-0.160,-0.160,-0.160,0.000,0.000,0.000
1641195366054641920,2022-01-03-07:36:06,10.1.1.5,-3,-0.160,-0.160,-0.160,0.000,0.000,0.000
1641195366445884928,2022-01-03-07:36:06,10.1.1.5,191,-0.140,-0.140,-0.140,0.000,0.000,0.000
1641195366647109888,2022-01-03-07:36:06,10.1.1.5,191,-0.130,-0.130,-0.130,0.000,0.000,0.000
1641195366846328064,2022-01-03-07:36:06,10.1.1.5,189,-0.120,-0.120,-0.120,0.000,0.000,0.000
1641195367046237952,2022-01-03-07:36:07,10.1.1.5,188,-0.110,-0.110,-0.110,0.000,0.000,0.000
1641195367247486976,2022-01-03-07:36:07,10.1.1.5,189,-0.100,-0.100,-0.100,0.000,0.000,0.000
1641195367445227008,2022-01-03-07:36:07,10.1.1.5,185,-0.090,-0.090,-0.090,0.000,0.000,0.000
1641195367657416960,2022-01-03-07:36:07,10.1.1.5,196,-0.080,-0.080,-0.080,0.000,0.000,0.000
1641195367845792000,2022-01-03-07:36:07,10.1.1.5,181,-0.070,-0.070,-0.070,0.000,0.000,0.000
1641195368243522048,2022-01-03-07:36:08,10.1.1.5,178,-0.050,-0.050,-0.050,0.000,0.000,0.000
1641195368443595008,2022-01-03-07:36:08,10.1.1.5,177,-0.040,-0.040,-0.040,0.000,0.000,0.000
1641195368651211008,2022-01-03-07:36:08,10.1.1.5,177,-0.030,-0.030,-0.030,0.000,0.000,0.000
1641195368843968000,2022-01-03-07:36:08,10.1.1.5,174,-0.020,-0.020,-0.020,0.000,0.000,0.000
1641195369042974976,2022-01-03-07:36:09,10.1.1.5,172,-0.010,-0.010,-0.010,0.000,0.000,0.000
1641195369253555968,2022-01-03-07:36:09,10.1.1.5,182,0.000,0.000,0.000,0.000,0.000,0.000
1641195369462151168,2022-01-03-07:36:09,10.1.1.5,188,-0.010,-0.010,-0.010,0.000,0.000,0.000
1641195369653274112,2022-01-03-07:36:09,10.1.1.5,179,-0.020,-0.020,-0.020,0.000,0.000,0.000
1641195369863426048,2022-01-03-07:36:09,10.1.1.5,188,-0.030,-0.030,-0.030,0.000,0.000,0.000
1641195370061244928,2022-01-03-07:36:10,10.1.1.5,185,-0.040,-0.040,-0.040,0.000,0.000,0.000
1641195370260772864,2022-01-03-07:36:10,10.1.1.5,183,-0.050,-0.050,-0.050,0.000,0.000,0.000
1641195370460939008,2022-01-03-07:36:10,10.1.1.5,183,-0.060,-0.060,-0.060,0.000,0.000,0.000
1641195370662959104,2022-01-03-07:36:10,10.1.1.5,183,-0.070,-0.070,-0.070,0.000,0.000,0.000
1641195370868241152,2022-01-03-07:36:10,10.1.1.5,182,-0.080,-0.080,-0.080,0.000,0.000,0.000
1641195371059014912,2022-01-03-07:36:11,10.1.1.5,177,-0.090,-0.090,-0.090,0.000,0.000,0.000
1641195371259963904,2022-01-03-07:36:11,10.1.1.5,173,-0.100,-0.100,-0.100,0.000,0.000,0.000
1641195371461731840,2022-01-03-07:36:11,10.1.1.5,174,-0.110,-0.110,-0.110,0.000,0.000,0.000
1641195371679585024,2022-01-03-07:36:11,10.1.1.5,191,-0.120,-0.120,-0.120,0.000,0.000,0.000
1641195371863506944,2022-01-03-07:36:11,10.1.1.5,174,-0.130,-0.130,-0.130,0.000,0.000,0.000
1641195372059760128,2022-01-03-07:36:12,10.1.1.5,169,-0.140,-0.140,-0.140,0.000,0.000,0.000
1641195372279326976,2022-01-03-07:36:12,10.1.1.5,188,-0.150,-0.150,-0.150,0.000,0.000,0.000
1641195372479436032,2022-01-03-07:36:12,10.1.1.5,187,-0.160,-0.160,-0.160,0.000,0.000,0.000
1641195372677459968,2022-01-03-07:36:12,10.1.1.5,184,-0.170,-0.170,-0.170,0.000,0.000,0.000
1641195372878021888,2022-01-03-07:36:12,10.1.1.5,184,-0.180,-0.180,-0.180,0.000,0.000,0.000
1641195373086825984,2022-01-03-07:36:13,10.1.1.5,192,-0.190,-0.190,-0.190,0.000,0.000,0.000
1641195373277182976,2022-01-03-07:36:13,10.1.1.5,181,-0.200,-0.200,-0.200,0.000,0.000,0.000
1641195373476510976,2022-01-03-07:36:13,10.1.1.5,178,-0.210,-0.210,-0.210,0.000,0.000,0.000
1641195373676006912,2022-01-03-07:36:13,10.1.1.5,175,-0.220,-0.220,-0.220,0.000,0.000,0.000
1641195373876851968,2022-01-03-07:36:13,10.1.1.5,174,-0.230,-0.230,-0.230,0.000,0.000,0.000
1641195374076710912,2022-01-03-07:36:14,10.1.1.5,171,-0.240,-0.240,-0.240,0.000,0.000,0.000
1641195374295375104,2022-01-03-07:36:14,10.1.1.5,190,-0.250,-0.250,-0.250,0.000,0.000,0.000
1641195374495953920,2022-01-03-07:36:14,10.1.1.5,189,-0.260,-0.260,-0.260,0.000,0.000,0.000
1641195374673774848,2022-01-03-07:36:14,10.1.1.5,166,-0.270,-0.270,-0.270,0.000,0.000,0.000
1641195374874120960,2022-01-03-07:36:14,10.1.1.5,165,-0.280,-0.280,-0.280,0.000,0.000,0.000
1641195375073491200,2022-01-03-07:36:15,10.1.1.5,164,-0.290,-0.290,-0.290,0.000,0.000,0.000
1641195375293238016,2022-01-03-07:36:15,10.1.1.5,182,-0.300,-0.300,-0.300,0.000,0.000,0.000
1641195375493658112,2022-01-03-07:36:15,10.1.1.5,182,-0.310,-0.310,-0.310,0.000,0.000,0.000
1641195375692658944,2022-01-03-07:36:15,10.1.1.5,180,-0.320,-0.320,-0.320,0.000,0.000,0.000
1641195375898483968,2022-01-03-07:36:15,10.1.1.5,178,-0.330,-0.330,-0.330,0.000,0.000,0.000
1641195376093303808,2022-01-03-07:36:16,10.1.1.5,175,-0.340,-0.340,-0.340,0.000,0.000,0.000
1641195376292032000,2022-01-03-07:36:16,10.1.1.5,167,-0.350,-0.350,-0.350,0.000,0.000,0.000
1641195376502626048,2022-01-03-07:36:16,10.1.1.5,175,-0.360,-0.360,-0.360,0.000,0.000,0.000
1641195376713509120,2022-01-03-07:36:16,10.1.1.5,184,-0.370,-0.370,-0.370,0.000,0.000,0.000
1641195376902337024,2022-01-03-07:36:16,10.1.1.5,172,-0.380,-0.380,-0.380,0.000,0.000,0.000
1641195377101603072,2022-01-03-07:36:17,10.1.1.5,170,-0.390,-0.390,-0.390,0.000,0.000,0.000
1641195377314449152,2022-01-03-07:36:17,10.1.1.5,182,-0.400,-0.400,-0.400,0.000,0.000,0.000
1641195377499675904,2022-01-03-07:36:17,10.1.1.5,167,-0.410,-0.410,-0.410,0.000,0.000,0.000
1641195377710587136,2022-01-03-07:36:17,10.1.1.5,176,-0.420,-0.420,-0.420,0.000,0.000,0.000
1641195377909096960,2022-01-03-07:36:17,10.1.1.5,171,-0.430,-0.430,-0.430,0.000,0.000,0.000
1641195378121346048,2022-01-03-07:36:18,10.1.1.5,178,-0.440,-0.440,-0.440,0.000,0.000,0.000
1641195378311582208,2022-01-03-07:36:18,10.1.1.5,164,-0.450,-0.450,-0.450,0.000,0.000,0.000
1641195378522358016,2022-01-03-07:36:18,10.1.1.5,169,-0.460,-0.460,-0.460,0.000,0.000,0.000
1641195378723728896,2022-01-03-07:36:18,10.1.1.5,169,-0.470,-0.470,-0.470,0.000,0.000,0.000
1641195378923540224,2022-01-03-07:36:18,10.1.1.5,167,-0.480,-0.480,-0.480,0.000,0.000,0.000
1641195379136431104,2022-01-03-07:36:19,10.1.1.5,178,-0.490,-0.490,-0.490,0.000,0.000,0.000
1641195379355153920,2022-01-03-07:36:19,10.1.1.5,194,-0.480,-0.480,-0.480,0.000,0.000,0.000
1641195379546205952,2022-01-03-07:36:19,10.1.1.5,184,-0.470,-0.470,-0.470,0.000,0.000,0.000
1641195379737207808,2022-01-03-07:36:19,10.1.1.5,174,-0.460,-0.460,-0.460,0.000,0.000,0.000
1641195379937294848,2022-01-03-07:36:19,10.1.1.5,172,-0.450,-0.450,-0.450,0.000,0.000,0.000
1641195380144519168,2022-01-03-07:36:20,10.1.1.5,178,-0.440,-0.440,-0.440,0.000,0.000,0.000
1641195380340441856,2022-01-03-07:36:20,10.1.1.5,172,-0.430,-0.430,-0.430,0.000,0.000,0.000
1641195380538987008,2022-01-03-07:36:20,10.1.1.5,170,-0.420,-0.420,-0.420,0.000,0.000,0.000
1641195380740777984,2022-01-03-07:36:20,10.1.1.5,170,-0.410,-0.410,-0.410,0.000,0.000,0.000
1641195380961321216,2022-01-03-07:36:20,10.1.1.5,190,-0.400,-0.400,-0.400,0.000,0.000,0.000
1641195381161552896,2022-01-03-07:36:21,10.1.1.5,189,-0.390,-0.390,-0.390,0.000,0.000,0.000
1641195381353080064,2022-01-03-07:36:21,10.1.1.5,180,-0.380,-0.380,-0.380,0.000,0.000,0.000
1641195381563057920,2022-01-03-07:36:21,10.1.1.5,189,-0.370,-0.370,-0.370,0.000,0.000,0.000
1641195381763111168,2022-01-03-07:36:21,10.1.1.5,189,-0.360,-0.360,-0.360,0.000,0.000,0.000
1641195381964494080,2022-01-03-07:36:21,10.1.1.5,189,-0.350,-0.350,-0.350,0.000,0.000,0.000
1641195382165038080,2022-01-03-07:36:22,10.1.1.5,189,-0.340,-0.340,-0.340,0.000,0.000,0.000
1641195382364276992,2022-01-03-07:36:22,10.1.1.5,188,-0.330,-0.330,-0.330,0.000,0.000,0.000
1641195382565165056,2022-01-03-07:36:22,10.1.1.5,188,-0.320,-0.320,-0.320,0.000,0.000,0.000
1641195382766052864,2022-01-03-07:36:22,10.1.1.5,188,-0.310,-0.310,-0.310,0.000,0.000,0.000
1641195382965547008,2022-01-03-07:36:22,10.1.1.5,186,-0.300,-0.300,-0.300,0.000,0.000,0.000
1641195383168056064,2022-01-03-07:36:23,10.1.1.5,187,-0.290,-0.290,-0.290,0.000,0.000,0.000
1641195383567572224,2022-01-03-07:36:23,10.1.1.5,185,-0.270,-0.270,-0.270,0.000,0.000,0.000
1641195383766935040,2022-01-03-07:36:23,10.1.1.5,184,-0.260,-0.260,-0.260,0.000,0.000,0.000
1641195384169300992,2022-01-03-07:36:24,10.1.1.5,185,-0.240,-0.240,-0.240,0.000,0.000,0.000
1641195384372222976,2022-01-03-07:36:24,10.1.1.5,187,-0.230,-0.230,-0.230,0.000,0.000,0.000
1641195384569519104,2022-01-03-07:36:24,10.1.1.5,183,-0.220,-0.220,-0.220,0.000,0.000,0.000
1641195384768407040,2022-01-03-07:36:24,10.1.1.5,181,-0.210,-0.210,-0.210,0.000,0.000,0.000
1641195384969240064,2022-01-03-07:36:24,10.1.1.5,180,-0.200,-0.200,-0.200,0.000,0.000,0.000
1641195385170643200,2022-01-03-07:36:25,10.1.1.5,180,-0.190,-0.190,-0.190,0.000,0.000,0.000
1641195385389210112,2022-01-03-07:36:25,10.1.1.5,197,-0.180,-0.180,-0.180,0.000,0.000,0.000
1641195385590145024,2022-01-03-07:36:25,10.1.1.5,196,-0.170,-0.170,-0.170,0.000,0.000,0.000
1641195385791230976,2022-01-03-07:36:25,10.1.1.5,197,-0.160,-0.160,-0.160,0.000,0.000,0.000
1641195385990196992,2022-01-03-07:36:25,10.1.1.5,194,-0.150,-0.150,-0.150,0.000,0.000,0.000
1641195386191063040,2022-01-03-07:36:26,10.1.1.5,194,-0.140,-0.140,-0.140,0.000,0.000,0.000
1641195386389883136,2022-01-03-07:36:26,10.1.1.5,193,-0.130,-0.130,-0.130,0.000,0.000,0.000
1641195386580340992,2022-01-03-07:36:26,10.1.1.5,182,-0.120,-0.120,-0.120,0.000,0.000,0.000
1641195386782778112,2022-01-03-07:36:26,10.1.1.5,184,-0.110,-0.110,-0.110,0.000,0.000,0.000
1641195386991430912,2022-01-03-07:36:26,10.1.1.5,192,-0.100,-0.100,-0.100,0.000,0.000,0.000
1641195387190010112,2022-01-03-07:36:27,10.1.1.5,189,-0.090,-0.090,-0.090,0.000,0.000,0.000
1641195387391819008,2022-01-03-07:36:27,10.1.1.5,190,-0.080,-0.080,-0.080,0.000,0.000,0.000
1641195387591222016,2022-01-03-07:36:27,10.1.1.5,188,-0.070,-0.070,-0.070,0.000,0.000,0.000
1641195387793196032,2022-01-03-07:36:27,10.1.1.5,189,-0.060,-0.060,-0.060,0.000,0.000,0.000
1641195387990909184,2022-01-03-07:36:27,10.1.1.5,186,-0.050,-0.050,-0.050,0.000,0.000,0.000
1641195388191635968,2022-01-03-07:36:28,10.1.1.5,186,-0.040,-0.040,-0.040,0.000,0.000,0.000
1641195388390532864,2022-01-03-07:36:28,10.1.1.5,184,-0.030,-0.030,-0.030,0.000,0.000,0.000
1641195388601931008,2022-01-03-07:36:28,10.1.1.5,194,-0.020,-0.020,-0.020,0.000,0.000,0.000
1641195388791348992,2022-01-03-07:36:28,10.1.1.5,182,-0.010,-0.010,-0.010,0.000,0.000,0.000
1641195389412094208,2022-01-03-07:36:29,10.1.1.5,198,-0.020,-0.020,-0.020,0.000,0.000,0.000
1641195389610177024,2022-01-03-07:36:29,10.1.1.5,193,-0.030,-0.030,-0.030,0.000,0.000,0.000
1641195389801505024,2022-01-03-07:36:29,10.1.1.5,183,-0.040,-0.040,-0.040,0.000,0.000,0.000
1641195390010808832,2022-01-03-07:36:30,10.1.1.5,191,-0.050,-0.050,-0.050,0.000,0.000,0.000
1641195390200620032,2022-01-03-07:36:30,10.1.1.5,181,-0.060,-0.060,-0.060,0.000,0.000,0.000
1641195390411528192,2022-01-03-07:36:30,10.1.1.5,190,-0.070,-0.070,-0.070,0.000,0.000,0.000
1641195391210500864,2022-01-03-07:36:31,10.1.1.5,184,-0.110,-0.110,-0.110,0.000,0.000,0.000
1641195391414680832,2022-01-03-07:36:31,10.1.1.5,184,-0.120,-0.120,-0.120,0.000,0.000,0.000
1641195391812408832,2022-01-03-07:36:31,10.1.1.5,182,-0.140,-0.140,-0.140,0.000,0.000,0.000
1641195392031895040,2022-01-03-07:36:32,10.1.1.5,200,-0.150,-0.150,-0.150,0.000,0.000,0.000
1641195392229645056,2022-01-03-07:36:32,10.1.1.5,194,-0.160,-0.160,-0.160,0.000,0.000,0.000
1641195392437312000,2022-01-03-07:36:32,10.1.1.5,195,-0.170,-0.170,-0.170,0.000,0.000,0.000
1641195392620773120,2022-01-03-07:36:32,10.1.1.5,182,-0.180,-0.180,-0.180,0.000,0.000,0.000
1641195392830464000,2022-01-03-07:36:32,10.1.1.5,190,-0.190,-0.190,-0.190,0.000,0.000,0.000
1641195393029395968,2022-01-03-07:36:33,10.1.1.5,189,-0.200,-0.200,-0.200,0.000,0.000,0.000
1641195393229810944,2022-01-03-07:36:33,10.1.1.5,189,-0.210,-0.210,-0.210,0.000,0.000,0.000
1641195393629203968,2022-01-03-07:36:33,10.1.1.5,186,-0.230,-0.230,-0.230,0.000,0.000,0.000
1641195394034562048,2022-01-03-07:36:34,10.1.1.5,183,-0.250,-0.250,-0.250,0.000,0.000,0.000
1641195394228509952,2022-01-03-07:36:34,10.1.1.5,181,-0.260,-0.260,-0.260,0.000,0.000,0.000
1641195394437211136,2022-01-03-07:36:34,10.1.1.5,181,-0.270,-0.270,-0.270,0.000,0.000,0.000
1641195394648156928,2022-01-03-07:36:34,10.1.1.5,186,-0.280,-0.280,-0.280,0.000,0.000,0.000
1641195394859563008,2022-01-03-07:36:34,10.1.1.5,197,-0.290,-0.290,-0.290,0.000,0.000,0.000
1641195395048039936,2022-01-03-07:36:35,10.1.1.5,184,-0.300,-0.300,-0.300,0.000,0.000,0.000
1641195395452843008,2022-01-03-07:36:35,10.1.1.5,186,-0.320,-0.320,-0.320,0.000,0.000,0.000
1641195395647630080,2022-01-03-07:36:35,10.1.1.5,180,-0.330,-0.330,-0.330,0.000,0.000,0.000
1641195395865377024,2022-01-03-07:36:35,10.1.1.5,193,-0.340,-0.340,-0.340,0.000,0.000,0.000
1641195396056583936,2022-01-03-07:36:36,10.1.1.5,183,-0.350,-0.350,-0.350,0.000,0.000,0.000
1641195396260379136,2022-01-03-07:36:36,10.1.1.5,186,-0.360,-0.360,-0.360,0.000,0.000,0.000
1641195396465527040,2022-01-03-07:36:36,10.1.1.5,191,-0.370,-0.370,-0.370,0.000,0.000,0.000
1641195396656271872,2022-01-03-07:36:36,10.1.1.5,181,-0.380,-0.380,-0.380,0.000,0.000,0.000
1641195396864826880,2022-01-03-07:36:36,10.1.1.5,188,-0.390,-0.390,-0.390,0.000,0.000,0.000
1641195397064402176,2022-01-03-07:36:37,10.1.1.5,187,-0.400,-0.400,-0.400,0.000,0.000,0.000
1641195397266940160,2022-01-03-07:36:37,10.1.1.5,188,-0.410,-0.410,-0.410,0.000,0.000,0.000
1641195397464876800,2022-01-03-07:36:37,10.1.1.5,186,-0.420,-0.420,-0.420,0.000,0.000,0.000
1641195397665286912,2022-01-03-07:36:37,10.1.1.5,186,-0.430,-0.430,-0.430,0.000,0.000,0.000
1641195397855238912,2022-01-03-07:36:37,10.1.1.5,175,-0.440,-0.440,-0.440,0.000,0.000,0.000
1641195398063383040,2022-01-03-07:36:38,10.1.1.5,182,-0.450,-0.450,-0.450,0.000,0.000,0.000
1641195398275439872,2022-01-03-07:36:38,10.1.1.5,193,-0.460,-0.460,-0.460,0.000,0.000,0.000
1641195398463156992,2022-01-03-07:36:38,10.1.1.5,177,-0.470,-0.470,-0.470,0.000,0.000,0.000
1641195398662806016,2022-01-03-07:36:38,10.1.1.5,175,-0.480,-0.480,-0.480,0.000,0.000,0.000
1641195398862696960,2022-01-03-07:36:38,10.1.1.5,173,-0.490,-0.490,-0.490,0.000,0.000,0.000
1641195399083013888,2022-01-03-07:36:39,10.1.1.5,192,-0.480,-0.480,-0.480,0.000,0.000,0.000
1641195399284471040,2022-01-03-07:36:39,10.1.1.5,192,-0.470,-0.470,-0.470,0.000,0.000,0.000
1641195399475136000,2022-01-03-07:36:39,10.1.1.5,182,-0.460,-0.460,-0.460,0.000,0.000,0.000
1641195399682071808,2022-01-03-07:36:39,10.1.1.5,186,-0.450,-0.450,-0.450,0.000,0.000,0.000
1641195399882781952,2022-01-03-07:36:39,10.1.1.5,186,-0.440,-0.440,-0.440,0.000,0.000,0.000
1641195400071096832,2022-01-03-07:36:40,10.1.1.5,174,-0.430,-0.430,-0.430,0.000,0.000,0.000
1641195400281687040,2022-01-03-07:36:40,10.1.1.5,184,-0.420,-0.420,-0.420,0.000,0.000,0.000
1641195400480537856,2022-01-03-07:36:40,10.1.1.5,180,-0.410,-0.410,-0.410,0.000,0.000,0.000
1641195400682814976,2022-01-03-07:36:40,10.1.1.5,180,-0.400,-0.400,-0.400,0.000,0.000,0.000
1641195400881551872,2022-01-03-07:36:40,10.1.1.5,177,-0.390,-0.390,-0.390,0.000,0.000,0.000
1641195401099951872,2022-01-03-07:36:41,10.1.1.5,194,-0.380,-0.380,-0.380,0.000,0.000,0.000
1641195401291824128,2022-01-03-07:36:41,10.1.1.5,184,-0.370,-0.370,-0.370,0.000,0.000,0.000
1641195401492409088,2022-01-03-07:36:41,10.1.1.5,182,-0.360,-0.360,-0.360,0.000,0.000,0.000
1641195401679388160,2022-01-03-07:36:41,10.1.1.5,170,-0.350,-0.350,-0.350,0.000,0.000,0.000
1641195401901488128,2022-01-03-07:36:41,10.1.1.5,190,-0.340,-0.340,-0.340,0.000,0.000,0.000
1641195402099862016,2022-01-03-07:36:42,10.1.1.5,188,-0.330,-0.330,-0.330,0.000,0.000,0.000
1641195402298909952,2022-01-03-07:36:42,10.1.1.5,185,-0.320,-0.320,-0.320,0.000,0.000,0.000
1641195402491846912,2022-01-03-07:36:42,10.1.1.5,177,-0.310,-0.310,-0.310,0.000,0.000,0.000
1641195402687800832,2022-01-03-07:36:42,10.1.1.5,172,-0.300,-0.300,-0.300,0.000,0.000,0.000
1641195402896910080,2022-01-03-07:36:42,10.1.1.5,179,-0.290,-0.290,-0.290,0.000,0.000,0.000
1641195403104619008,2022-01-03-07:36:43,10.1.1.5,185,-0.280,-0.280,-0.280,0.000,0.000,0.000
1641195403297421824,2022-01-03-07:36:43,10.1.1.5,176,-0.270,-0.270,-0.270,0.000,0.000,0.000
1641195403503752960,2022-01-03-07:36:43,10.1.1.5,182,-0.260,-0.260,-0.260,0.000,0.000,0.000
1641195403697469952,2022-01-03-07:36:43,10.1.1.5,174,-0.250,-0.250,-0.250,0.000,0.000,0.000
1641195403904889088,2022-01-03-07:36:43,10.1.1.5,179,-0.240,-0.240,-0.240,0.000,0.000,0.000
1641195404096101120,2022-01-03-07:36:44,10.1.1.5,170,-0.230,-0.230,-0.230,0.000,0.000,0.000
1641195404295166976,2022-01-03-07:36:44,10.1.1.5,168,-0.220,-0.220,-0.220,0.000,0.000,0.000
1641195404503525888,2022-01-03-07:36:44,10.1.1.5,169,-0.210,-0.210,-0.210,0.000,0.000,0.000
1641195404693955072,2022-01-03-07:36:44,10.1.1.5,166,-0.200,-0.200,-0.200,0.000,0.000,0.000
1641195404913562112,2022-01-03-07:36:44,10.1.1.5,185,-0.190,-0.190,-0.190,0.000,0.000,0.000
1641195405101120000,2022-01-03-07:36:45,10.1.1.5,172,-0.180,-0.180,-0.180,0.000,0.000,0.000
1641195405294284032,2022-01-03-07:36:45,10.1.1.5,164,-0.170,-0.170,-0.170,0.000,0.000,0.000
1641195405512339200,2022-01-03-07:36:45,10.1.1.5,181,-0.160,-0.160,-0.160,0.000,0.000,0.000
1641195405705411840,2022-01-03-07:36:45,10.1.1.5,173,-0.150,-0.150,-0.150,0.000,0.000,0.000
1641195405912754176,2022-01-03-07:36:45,10.1.1.5,180,-0.140,-0.140,-0.140,0.000,0.000,0.000
1641195406111515904,2022-01-03-07:36:46,10.1.1.5,178,-0.130,-0.130,-0.130,0.000,0.000,0.000
1641195406303656960,2022-01-03-07:36:46,10.1.1.5,169,-0.120,-0.120,-0.120,0.000,0.000,0.000
1641195406502787072,2022-01-03-07:36:46,10.1.1.5,166,-0.110,-0.110,-0.110,0.000,0.000,0.000
1641195406713308160,2022-01-03-07:36:46,10.1.1.5,176,-0.100,-0.100,-0.100,0.000,0.000,0.000
1641195406910792960,2022-01-03-07:36:46,10.1.1.5,172,-0.090,-0.090,-0.090,0.000,0.000,0.000
1641195407111102208,2022-01-03-07:36:47,10.1.1.5,171,-0.080,-0.080,-0.080,0.000,0.000,0.000
1641195407315727104,2022-01-03-07:36:47,10.1.1.5,174,-0.070,-0.070,-0.070,0.000,0.000,0.000
1641195407530017024,2022-01-03-07:36:47,10.1.1.5,186,-0.060,-0.060,-0.060,0.000,0.000,0.000
1641195407710513152,2022-01-03-07:36:47,10.1.1.5,166,-0.050,-0.050,-0.050,0.000,0.000,0.000
1641195407909754112,2022-01-03-07:36:47,10.1.1.5,165,-0.040,-0.040,-0.040,0.000,0.000,0.000
1641195408109385984,2022-01-03-07:36:48,10.1.1.5,163,-0.030,-0.030,-0.030,0.000,0.000,0.000
1641195408308252928,2022-01-03-07:36:48,10.1.1.5,162,-0.020,-0.020,-0.020,0.000,0.000,0.000
1641195408528561152,2022-01-03-07:36:48,10.1.1.5,181,-0.010,-0.010,-0.010,0.000,0.000,0.000
1641195408708247808,2022-01-03-07:36:48,10.1.1.5,160,0.000,0.000,0.000,0.000,0.000,0.000
1641195408919430912,2022-01-03-07:36:48,10.1.1.5,167,-0.010,-0.010,-0.010,0.000,0.000,0.000
1641195409118757120,2022-01-03-07:36:49,10.1.1.5,165,-0.020,-0.020,-0.020,0.000,0.000,0.000
1641195409327418112,2022-01-03-07:36:49,10.1.1.5,172,-0.030,-0.030,-0.030,0.000,0.000,0.000
1641195409525590784,2022-01-03-07:36:49,10.1.1.5,170,-0.040,-0.040,-0.040,0.000,0.000,0.000
1641195409727345920,2022-01-03-07:36:49,10.1.1.5,170,-0.050,-0.050,-0.050,0.000,0.000,0.000
1641195409925803776,2022-01-03-07:36:49,10.1.1.5,168,-0.060,-0.060,-0.060,0.000,0.000,0.000
1641195410126784000,2022-01-03-07:36:50,10.1.1.5,168,-0.070,-0.070,-0.070,0.000,0.000,0.000
1641195410328092928,2022-01-03-07:36:50,10.1.1.5,168,-0.080,-0.080,-0.080,0.000,0.000,0.000
1641195410528458240,2022-01-03-07:36:50,10.1.1.5,168,-0.090,-0.090,-0.090,0.000,0.000,0.000
1641195410731461120,2022-01-03-07:36:50,10.1.1.5,170,-0.100,-0.100,-0.100,0.000,0.000,0.000
1641195410932599040,2022-01-03-07:36:50,10.1.1.5,170,-0.110,-0.110,-0.110,0.000,0.000,0.000
1641195411131144960,2022-01-03-07:36:51,10.1.1.5,168,-0.120,-0.120,-0.120,0.000,0.000,0.000
1641195411339941888,2022-01-03-07:36:51,10.1.1.5,176,-0.130,-0.130,-0.130,0.000,0.000,0.000
1641195411533293056,2022-01-03-07:36:51,10.1.1.5,168,-0.140,-0.140,-0.140,0.000,0.000,0.000
1641195411742810880,2022-01-03-07:36:51,10.1.1.5,177,-0.150,-0.150,-0.150,0.000,0.000,0.000
1641195411970038784,2022-01-03-07:36:51,10.1.1.5,185,-0.160,-0.160,-0.160,0.000,0.000,0.000
1641195412155083776,2022-01-03-07:36:52,10.1.1.5,184,-0.170,-0.170,-0.170,0.000,0.000,0.000
1641195412347610112,2022-01-03-07:36:52,10.1.1.5,176,-0.180,-0.180,-0.180,0.000,0.000,0.000
1641195412564210944,2022-01-03-07:36:52,10.1.1.5,191,-0.190,-0.190,-0.190,0.000,0.000,0.000
1641195412758970880,2022-01-03-07:36:52,10.1.1.5,185,-0.200,-0.200,-0.200,0.000,0.000,0.000
1641195412958497024,2022-01-03-07:36:52,10.1.1.5,183,-0.210,-0.210,-0.210,0.000,0.000,0.000
1641195413160377088,2022-01-03-07:36:53,10.1.1.5,184,-0.220,-0.220,-0.220,0.000,0.000,0.000
1641195413361850880,2022-01-03-07:36:53,10.1.1.5,184,-0.230,-0.230,-0.230,0.000,0.000,0.000
1641195413581496064,2022-01-03-07:36:53,10.1.1.5,203,-0.240,-0.240,-0.240,0.000,0.000,0.000
1641195413780664832,2022-01-03-07:36:53,10.1.1.5,184,-0.250,-0.250,-0.250,0.000,0.000,0.000
1641195413983062016,2022-01-03-07:36:53,10.1.1.5,184,-0.260,-0.260,-0.260,0.000,0.000,0.000
1641195414173600000,2022-01-03-07:36:54,10.1.1.5,175,-0.270,-0.270,-0.270,0.000,0.000,0.000
1641195414384259072,2022-01-03-07:36:54,10.1.1.5,185,-0.280,-0.280,-0.280,0.000,0.000,0.000
1641195414584796928,2022-01-03-07:36:54,10.1.1.5,185,-0.290,-0.290,-0.290,0.000,0.000,0.000
1641195414783150080,2022-01-03-07:36:54,10.1.1.5,182,-0.300,-0.300,-0.300,0.000,0.000,0.000
1641195414994151168,2022-01-03-07:36:54,10.1.1.5,192,-0.310,-0.310,-0.310,0.000,0.000,0.000
1641195415184375040,2022-01-03-07:36:55,10.1.1.5,182,-0.320,-0.320,-0.320,0.000,0.000,0.000
1641195415385329920,2022-01-03-07:36:55,10.1.1.5,182,-0.330,-0.330,-0.330,0.000,0.000,0.000
1641195415585658112,2022-01-03-07:36:55,10.1.1.5,182,-0.340,-0.340,-0.340,0.000,0.000,0.000
1641195415784892160,2022-01-03-07:36:55,10.1.1.5,179,-0.350,-0.350,-0.350,0.000,0.000,0.000
1641195415986622976,2022-01-03-07:36:55,10.1.1.5,180,-0.360,-0.360,-0.360,0.000,0.000,0.000
1641195416188932864,2022-01-03-07:36:56,10.1.1.5,180,-0.370,-0.370,-0.370,0.000,0.000,0.000
1641195416386704896,2022-01-03-07:36:56,10.1.1.5,178,-0.380,-0.380,-0.380,0.000,0.000,0.000
1641195416597199872,2022-01-03-07:36:56,10.1.1.5,186,-0.390,-0.390,-0.390,0.000,0.000,0.000
1641195416809143040,2022-01-03-07:36:56,10.1.1.5,196,-0.400,-0.400,-0.400,0.000,0.000,0.000
1641195416987991040,2022-01-03-07:36:56,10.1.1.5,175,-0.410,-0.410,-0.410,0.000,0.000,0.000
1641195417209593088,2022-01-03-07:36:57,10.1.1.5,195,-0.420,-0.420,-0.420,0.000,0.000,0.000
1641195417408086016,2022-01-03-07:36:57,10.1.1.5,193,-0.430,-0.430,-0.430,0.000,0.000,0.000
1641195417609008128,2022-01-03-07:36:57,10.1.1.5,193,-0.440,-0.440,-0.440,0.000,0.000,0.000
1641195417808073984,2022-01-03-07:36:57,10.1.1.5,192,-0.450,-0.450,-0.450,0.000,0.000,0.000
1641195418008187904,2022-01-03-07:36:58,10.1.1.5,191,-0.460,-0.460,-0.460,0.000,0.000,0.000
1641195418209172992,2022-01-03-07:36:58,10.1.1.5,191,-0.470,-0.470,-0.470,0.000,0.000,0.000
1641195418399569920,2022-01-03-07:36:58,10.1.1.5,181,-0.480,-0.480,-0.480,0.000,0.000,0.000
1641195418600194816,2022-01-03-07:36:58,10.1.1.5,181,-0.490,-0.490,-0.490,0.000,0.000,0.000
1641195418810291968,2022-01-03-07:36:58,10.1.1.5,190,-0.480,-0.480,-0.480,0.000,0.000,0.000
1641195419009659904,2022-01-03-07:36:59,10.1.1.5,187,-0.470,-0.470,-0.470,0.000,0.000,0.000
1641195419215877888,2022-01-03-07:36:59,10.1.1.5,192,-0.460,-0.460,-0.460,0.000,0.000,0.000
1641195419419843072,2022-01-03-07:36:59,10.1.1.5,196,-0.450,-0.450,-0.450,0.000,0.000,0.000
1641195419619348992,2022-01-03-07:36:59,10.1.1.5,194,-0.440,-0.440,-0.440,0.000,0.000,0.000
1641195419810987008,2022-01-03-07:36:59,10.1.1.5,184,-0.430,-0.430,-0.430,0.000,0.000,0.000
1641195420009541888,2022-01-03-07:37:00,10.1.1.5,182,-0.420,-0.420,-0.420,0.000,0.000,0.000
1641195420209229824,2022-01-03-07:37:00,10.1.1.5,181,-0.410,-0.410,-0.410,0.000,0.000,0.000
1641195420629786880,2022-01-03-07:37:00,10.1.1.5,188,-0.390,-0.390,-0.390,0.000,0.000,0.000
1641195420839385088,2022-01-03-07:37:00,10.1.1.5,195,-0.380,-0.380,-0.380,0.000,0.000,0.000
1641195421043927040,2022-01-03-07:37:01,10.1.1.5,199,-0.370,-0.370,-0.370,0.000,0.000,0.000
1641195421244999936,2022-01-03-07:37:01,10.1.1.5,199,-0.360,-0.360,-0.360,0.000,0.000,0.000
1641195421443347968,2022-01-03-07:37:01,10.1.1.5,197,-0.350,-0.350,-0.350,0.000,0.000,0.000
1641195421644051200,2022-01-03-07:37:01,10.1.1.5,196,-0.340,-0.340,-0.340,0.000,0.000,0.000
1641195421847060992,2022-01-03-07:37:01,10.1.1.5,198,-0.330,-0.330,-0.330,0.000,0.000,0.000
1641195422042974976,2022-01-03-07:37:02,10.1.1.5,194,-0.320,-0.320,-0.320,0.000,0.000,0.000
1641195422244333056,2022-01-03-07:37:02,10.1.1.5,194,-0.310,-0.310,-0.310,0.000,0.000,0.000
1641195422443686912,2022-01-03-07:37:02,10.1.1.5,193,-0.300,-0.300,-0.300,0.000,0.000,0.000
1641195422643066880,2022-01-03-07:37:02,10.1.1.5,191,-0.290,-0.290,-0.290,0.000,0.000,0.000
1641195422844198912,2022-01-03-07:37:02,10.1.1.5,191,-0.280,-0.280,-0.280,0.000,0.000,0.000
1641195423045249024,2022-01-03-07:37:03,10.1.1.5,188,-0.270,-0.270,-0.270,0.000,0.000,0.000
1641195423242605056,2022-01-03-07:37:03,10.1.1.5,184,-0.260,-0.260,-0.260,0.000,0.000,0.000
1641195423444142080,2022-01-03-07:37:03,10.1.1.5,185,-0.250,-0.250,-0.250,0.000,0.000,0.000
1641195423641863936,2022-01-03-07:37:03,10.1.1.5,182,-0.240,-0.240,-0.240,0.000,0.000,0.000
1641195423843574016,2022-01-03-07:37:03,10.1.1.5,183,-0.230,-0.230,-0.230,0.000,0.000,0.000
1641195424043584000,2022-01-03-07:37:04,10.1.1.5,182,-0.220,-0.220,-0.220,0.000,0.000,0.000
1641195424242014976,2022-01-03-07:37:04,10.1.1.5,180,-0.210,-0.210,-0.210,0.000,0.000,0.000
1641195424444175872,2022-01-03-07:37:04,10.1.1.5,182,-0.200,-0.200,-0.200,0.000,0.000,0.000
1641195424645790208,2022-01-03-07:37:04,10.1.1.5,183,-0.190,-0.190,-0.190,0.000,0.000,0.000
1641195424843245056,2022-01-03-07:37:04,10.1.1.5,179,-0.180,-0.180,-0.180,0.000,0.000,0.000
1641195425041939968,2022-01-03-07:37:05,10.1.1.5,177,-0.170,-0.170,-0.170,0.000,0.000,0.000
1641195425262765056,2022-01-03-07:37:05,10.1.1.5,197,-0.160,-0.160,-0.160,0.000,0.000,0.000
1641195425462362880,2022-01-03-07:37:05,10.1.1.5,196,-0.150,-0.150,-0.150,0.000,0.000,0.000
1641195425665052928,2022-01-03-07:37:05,10.1.1.5,198,-0.140,-0.140,-0.140,0.000,0.000,0.000
1641195425860780032,2022-01-03-07:37:05,10.1.1.5,193,-0.130,-0.130,-0.130,0.000,0.000,0.000
1641195426060570880,2022-01-03-07:37:06,10.1.1.5,192,-0.120,-0.120,-0.120,0.000,0.000,0.000
1641195426260422912,2022-01-03-07:37:06,10.1.1.5,192,-0.110,-0.110,-0.110,0.000,0.000,0.000
1641195426461842944,2022-01-03-07:37:06,10.1.1.5,193,-0.100,-0.100,-0.100,0.000,0.000,0.000
1641195426660912896,2022-01-03-07:37:06,10.1.1.5,191,-0.090,-0.090,-0.090,0.000,0.000,0.000
1641195426859958016,2022-01-03-07:37:06,10.1.1.5,190,-0.080,-0.080,-0.080,0.000,0.000,0.000
1641195427060228096,2022-01-03-07:37:07,10.1.1.5,189,-0.070,-0.070,-0.070,0.000,0.000,0.000
1641195427260305920,2022-01-03-07:37:07,10.1.1.5,187,-0.060,-0.060,-0.060,0.000,0.000,0.000
1641195427459481088,2022-01-03-07:37:07,10.1.1.5,185,-0.050,-0.050,-0.050,0.000,0.000,0.000
1641195427659813888,2022-01-03-07:37:07,10.1.1.5,184,-0.040,-0.040,-0.040,0.000,0.000,0.000
1641195427860990976,2022-01-03-07:37:07,10.1.1.5,185,-0.030,-0.030,-0.030,0.000,0.000,0.000
1641195428059387904,2022-01-03-07:37:08,10.1.1.5,182,-0.020,-0.020,-0.020,0.000,0.000,0.000
1641195428258800896,2022-01-03-07:37:08,10.1.1.5,181,-0.010,-0.010,-0.010,0.000,0.000,0.000
1641195428458436096,2022-01-03-07:37:08,10.1.1.5,179,0.000,0.000,0.000,0.000,0.000,0.000
1641195428659398144,2022-01-03-07:37:08,10.1.1.5,179,-0.010,-0.010,-0.010,0.000,0.000,0.000
1641195428858184960,2022-01-03-07:37:08,10.1.1.5,177,-0.020,-0.020,-0.020,0.000,0.000,0.000
1641195429058835968,2022-01-03-07:37:09,10.1.1.5,177,-0.030,-0.030,-0.030,0.000,0.000,0.000
1641195429258921984,2022-01-03-07:37:09,10.1.1.5,176,-0.040,-0.040,-0.040,0.000,0.000,0.000
1641195429459840000,2022-01-03-07:37:09,10.1.1.5,176,-0.050,-0.050,-0.050,0.000,0.000,0.000
1641195429659270144,2022-01-03-07:37:09,10.1.1.5,175,-0.060,-0.060,-0.060,0.000,0.000,0.000
1641195429878227968,2022-01-03-07:37:09,10.1.1.5,193,-0.070,-0.070,-0.070,0.000,0.000,0.000
1641195430076348928,2022-01-03-07:37:10,10.1.1.5,188,-0.080,-0.080,-0.080,0.000,0.000,0.000
1641195430278621952,2022-01-03-07:37:10,10.1.1.5,189,-0.090,-0.090,-0.090,0.000,0.000,0.000
1641195430476079872,2022-01-03-07:37:10,10.1.1.5,186,-0.100,-0.100,-0.100,0.000,0.000,0.000
1641195430676284160,2022-01-03-07:37:10,10.1.1.5,186,-0.110,-0.110,-0.110,0.000,0.000,0.000
1641195430876059136,2022-01-03-07:37:10,10.1.1.5,185,-0.120,-0.120,-0.120,0.000,0.000,0.000
1641195431078660096,2022-01-03-07:37:11,10.1.1.5,186,-0.130,-0.130,-0.130,0.000,0.000,0.000
1641195431277149952,2022-01-03-07:37:11,10.1.1.5,184,-0.140,-0.140,-0.140,0.000,0.000,0.000
1641195431478995200,2022-01-03-07:37:11,10.1.1.5,185,-0.150,-0.150,-0.150,0.000,0.000,0.000
1641195431675645952,2022-01-03-07:37:11,10.1.1.5,181,-0.160,-0.160,-0.160,0.000,0.000,0.000
1641195431874865152,2022-01-03-07:37:11,10.1.1.5,179,-0.170,-0.170,-0.170,0.000,0.000,0.000
1641195432074995968,2022-01-03-07:37:12,10.1.1.5,178,-0.180,-0.180,-0.180,0.000,0.000,0.000
1641195432275222016,2022-01-03-07:37:12,10.1.1.5,178,-0.190,-0.190,-0.190,0.000,0.000,0.000
1641195432475462912,2022-01-03-07:37:12,10.1.1.5,177,-0.200,-0.200,-0.200,0.000,0.000,0.000
1641195432673316096,2022-01-03-07:37:12,10.1.1.5,174,-0.210,-0.210,-0.210,0.000,0.000,0.000
1641195432875407872,2022-01-03-07:37:12,10.1.1.5,175,-0.220,-0.220,-0.220,0.000,0.000,0.000
1641195433072352768,2022-01-03-07:37:13,10.1.1.5,172,-0.230,-0.230,-0.230,0.000,0.000,0.000
1641195433273287168,2022-01-03-07:37:13,10.1.1.5,172,-0.240,-0.240,-0.240,0.000,0.000,0.000
1641195433493372928,2022-01-03-07:37:13,10.1.1.5,187,-0.250,-0.250,-0.250,0.000,0.000,0.000
1641195433692642816,2022-01-03-07:37:13,10.1.1.5,185,-0.260,-0.260,-0.260,0.000,0.000,0.000
1641195433892318976,2022-01-03-07:37:13,10.1.1.5,184,-0.270,-0.270,-0.270,0.000,0.000,0.000
1641195434090887168,2022-01-03-07:37:14,10.1.1.5,182,-0.280,-0.280,-0.280,0.000,0.000,0.000
1641195434291069952,2022-01-03-07:37:14,10.1.1.5,181,-0.290,-0.290,-0.290,0.000,0.000,0.000
1641195434497689856,2022-01-03-07:37:14,10.1.1.5,187,-0.300,-0.300,-0.300,0.000,0.000,0.000
1641195434690797056,2022-01-03-07:37:14,10.1.1.5,180,-0.310,-0.310,-0.310,0.000,0.000,0.000
1641195434890313984,2022-01-03-07:37:14,10.1.1.5,178,-0.320,-0.320,-0.320,0.000,0.000,0.000
1641195435096057856,2022-01-03-07:37:15,10.1.1.5,184,-0.330,-0.330,-0.330,0.000,0.000,0.000
1641195435289668096,2022-01-03-07:37:15,10.1.1.5,177,-0.340,-0.340,-0.340,0.000,0.000,0.000
1641195435492539904,2022-01-03-07:37:15,10.1.1.5,179,-0.350,-0.350,-0.350,0.000,0.000,0.000
1641195435689708032,2022-01-03-07:37:15,10.1.1.5,175,-0.360,-0.360,-0.360,0.000,0.000,0.000
1641195435889125120,2022-01-03-07:37:15,10.1.1.5,174,-0.370,-0.370,-0.370,0.000,0.000,0.000
1641195436089083904,2022-01-03-07:37:16,10.1.1.5,173,-0.380,-0.380,-0.380,0.000,0.000,0.000
1641195436287708160,2022-01-03-07:37:16,10.1.1.5,170,-0.390,-0.390,-0.390,0.000,0.000,0.000
1641195436489859072,2022-01-03-07:37:16,10.1.1.5,171,-0.400,-0.400,-0.400,0.000,0.000,0.000
1641195436696654080,2022-01-03-07:37:16,10.1.1.5,176,-0.410,-0.410,-0.410,0.000,0.000,0.000
1641195436887105024,2022-01-03-07:37:16,10.1.1.5,165,-0.420,-0.420,-0.420,0.000,0.000,0.000
1641195437087853824,2022-01-03-07:37:17,10.1.1.5,164,-0.430,-0.430,-0.430,0.000,0.000,0.000
1641195437286657024,2022-01-03-07:37:17,10.1.1.5,163,-0.440,-0.440,-0.440,0.000,0.000,0.000
1641195437509609984,2022-01-03-07:37:17,10.1.1.5,181,-0.450,-0.450,-0.450,0.000,0.000,0.000
1641195437706424064,2022-01-03-07:37:17,10.1.1.5,179,-0.460,-0.460,-0.460,0.000,0.000,0.000
1641195437906474240,2022-01-03-07:37:17,10.1.1.5,178,-0.470,-0.470,-0.470,0.000,0.000,0.000
1641195438108046080,2022-01-03-07:37:18,10.1.1.5,179,-0.480,-0.480,-0.480,0.000,0.000,0.000
1641195438305547008,2022-01-03-07:37:18,10.1.1.5,176,-0.490,-0.490,-0.490,0.000,0.000,0.000
1641195438507361024,2022-01-03-07:37:18,10.1.1.5,173,-0.480,-0.480,-0.480,0.000,0.000,0.000
1641195438707702016,2022-01-03-07:37:18,10.1.1.5,167,-0.470,-0.470,-0.470,0.000,0.000,0.000
1641195438903876096,2022-01-03-07:37:18,10.1.1.5,162,-0.460,-0.460,-0.460,0.000,0.000,0.000
1641195439105133056,2022-01-03-07:37:19,10.1.1.5,162,-0.450,-0.450,-0.450,0.000,0.000,0.000
1641195439307373056,2022-01-03-07:37:19,10.1.1.5,164,-0.440,-0.440,-0.440,0.000,0.000,0.000
1641195439504200960,2022-01-03-07:37:19,10.1.1.5,160,-0.430,-0.430,-0.430,0.000,0.000,0.000
1641195439705754112,2022-01-03-07:37:19,10.1.1.5,161,-0.420,-0.420,-0.420,0.000,0.000,0.000
1641195439925203968,2022-01-03-07:37:19,10.1.1.5,178,-0.410,-0.410,-0.410,0.000,0.000,0.000
1641195440122894080,2022-01-03-07:37:20,10.1.1.5,176,-0.400,-0.400,-0.400,0.000,0.000,0.000
1641195440322187776,2022-01-03-07:37:20,10.1.1.5,175,-0.390,-0.390,-0.390,0.000,0.000,0.000
1641195440520931840,2022-01-03-07:37:20,10.1.1.5,171,-0.380,-0.380,-0.380,0.000,0.000,0.000
1641195440721394176,2022-01-03-07:37:20,10.1.1.5,161,-0.370,-0.370,-0.370,0.000,0.000,0.000
1641195440934094848,2022-01-03-07:37:20,10.1.1.5,169,-0.360,-0.360,-0.360,0.000,0.000,0.000
1641195441140726016,2022-01-03-07:37:21,10.1.1.5,176,-0.350,-0.350,-0.350,0.000,0.000,0.000
1641195441342150912,2022-01-03-07:37:21,10.1.1.5,176,-0.340,-0.340,-0.340,0.000,0.000,0.000
1641195441541284096,2022-01-03-07:37:21,10.1.1.5,174,-0.330,-0.330,-0.330,0.000,0.000,0.000
1641195441740323072,2022-01-03-07:37:21,10.1.1.5,172,-0.320,-0.320,-0.320,0.000,0.000,0.000
1641195441944144128,2022-01-03-07:37:21,10.1.1.5,172,-0.310,-0.310,-0.310,0.000,0.000,0.000
1641195442140873984,2022-01-03-07:37:22,10.1.1.5,170,-0.300,-0.300,-0.300,0.000,0.000,0.000
1641195442344399872,2022-01-03-07:37:22,10.1.1.5,170,-0.290,-0.290,-0.290,0.000,0.000,0.000
1641195442543313920,2022-01-03-07:37:22,10.1.1.5,168,-0.280,-0.280,-0.280,0.000,0.000,0.000
1641195442744306176,2022-01-03-07:37:22,10.1.1.5,168,-0.270,-0.270,-0.270,0.000,0.000,0.000
1641195442944936960,2022-01-03-07:37:22,10.1.1.5,167,-0.260,-0.260,-0.260,0.000,0.000,0.000
1641195443145011968,2022-01-03-07:37:23,10.1.1.5,167,-0.250,-0.250,-0.250,0.000,0.000,0.000
1641195443346231040,2022-01-03-07:37:23,10.1.1.5,167,-0.240,-0.240,-0.240,0.000,0.000,0.000
1641195443555473152,2022-01-03-07:37:23,10.1.1.5,175,-0.230,-0.230,-0.230,0.000,0.000,0.000
1641195443748135168,2022-01-03-07:37:23,10.1.1.5,167,-0.220,-0.220,-0.220,0.000,0.000,0.000
1641195443949690112,2022-01-03-07:37:23,10.1.1.5,168,-0.210,-0.210,-0.210,0.000,0.000,0.000
1641195444151371008,2022-01-03-07:37:24,10.1.1.5,167,-0.200,-0.200,-0.200,0.000,0.000,0.000
1641195444350800128,2022-01-03-07:37:24,10.1.1.5,167,-0.190,-0.190,-0.190,0.000,0.000,0.000
1641195444584943104,2022-01-03-07:37:24,10.1.1.5,200,-0.180,-0.180,-0.180,0.000,0.000,0.000
1641195444771595008,2022-01-03-07:37:24,10.1.1.5,184,-0.170,-0.170,-0.170,0.000,0.000,0.000
1641195444973370112,2022-01-03-07:37:24,10.1.1.5,177,-0.160,-0.160,-0.160,0.000,0.000,0.000
1641195445174814976,2022-01-03-07:37:25,10.1.1.5,178,-0.150,-0.150,-0.150,0.000,0.000,0.000
1641195445373518080,2022-01-03-07:37:25,10.1.1.5,176,-0.140,-0.140,-0.140,0.000,0.000,0.000
1641195445576518144,2022-01-03-07:37:25,10.1.1.5,178,-0.130,-0.130,-0.130,0.000,0.000,0.000
1641195445776963840,2022-01-03-07:37:25,10.1.1.5,178,-0.120,-0.120,-0.120,0.000,0.000,0.000
1641195445977188096,2022-01-03-07:37:25,10.1.1.5,177,-0.110,-0.110,-0.110,0.000,0.000,0.000
1641195446177184000,2022-01-03-07:37:26,10.1.1.5,176,-0.100,-0.100,-0.100,0.000,0.000,0.000
1641195446376828928,2022-01-03-07:37:26,10.1.1.5,175,-0.090,-0.090,-0.090,0.000,0.000,0.000
1641195446578380032,2022-01-03-07:37:26,10.1.1.5,175,-0.080,-0.080,-0.080,0.000,0.000,0.000
1641195446781532928,2022-01-03-07:37:26,10.1.1.5,177,-0.070,-0.070,-0.070,0.000,0.000,0.000
1641195447000098816,2022-01-03-07:37:26,10.1.1.5,195,-0.060,-0.060,-0.060,0.000,0.000,0.000
1641195447198586112,2022-01-03-07:37:27,10.1.1.5,192,-0.050,-0.050,-0.050,0.000,0.000,0.000
1641195447398035968,2022-01-03-07:37:27,10.1.1.5,191,-0.040,-0.040,-0.040,0.000,0.000,0.000
1641195447600336128,2022-01-03-07:37:27,10.1.1.5,192,-0.030,-0.030,-0.030,0.000,0.000,0.000
1641195447800163072,2022-01-03-07:37:27,10.1.1.5,191,-0.020,-0.020,-0.020,0.000,0.000,0.000
1641195448000269056,2022-01-03-07:37:28,10.1.1.5,188,-0.010,-0.010,-0.010,0.000,0.000,0.000
1641195448200572928,2022-01-03-07:37:28,10.1.1.5,182,0.000,0.000,0.000,0.000,0.000,0.000
1641195448401206016,2022-01-03-07:37:28,10.1.1.5,182,-0.010,-0.010,-0.010,0.000,0.000,0.000
1641195448601521920,2022-01-03-07:37:28,10.1.1.5,181,-0.020,-0.020,-0.020,0.000,0.000,0.000
1641195448801778176,2022-01-03-07:37:28,10.1.1.5,180,-0.030,-0.030,-0.030,0.000,0.000,0.000
1641195449001678848,2022-01-03-07:37:29,10.1.1.5,180,-0.040,-0.040,-0.040,0.000,0.000,0.000
1641195449203140864,2022-01-03-07:37:29,10.1.1.5,180,-0.050,-0.050,-0.050,0.000,0.000,0.000
1641195449401899008,2022-01-03-07:37:29,10.1.1.5,177,-0.060,-0.060,-0.060,0.000,0.000,0.000
1641195449625391104,2022-01-03-07:37:29,10.1.1.5,199,-0.070,-0.070,-0.070,0.000,0.000,0.000
1641195449822257920,2022-01-03-07:37:29,10.1.1.5,195,-0.080,-0.080,-0.080,0.000,0.000,0.000
1641195450022214912,2022-01-03-07:37:30,10.1.1.5,194,-0.090,-0.090,-0.090,0.000,0.000,0.000
1641195450223020032,2022-01-03-07:37:30,10.1.1.5,194,-0.100,-0.100,-0.100,0.000,0.000,0.000
1641195450423862016,2022-01-03-07:37:30,10.1.1.5,194,-0.110,-0.110,-0.110,0.000,0.000,0.000
1641195450622781952,2022-01-03-07:37:30,10.1.1.5,192,-0.120,-0.120,-0.120,0.000,0.000,0.000
1641195450823243008,2022-01-03-07:37:30,10.1.1.5,192,-0.130,-0.130,-0.130,0.000,0.000,0.000
1641195451023225088,2022-01-03-07:37:31,10.1.1.5,191,-0.140,-0.140,-0.140,0.000,0.000,0.000
1641195451223134976,2022-01-03-07:37:31,10.1.1.5,188,-0.150,-0.150,-0.150,0.000,0.000,0.000
1641195451426018048,2022-01-03-07:37:31,10.1.1.5,190,-0.160,-0.160,-0.160,0.000,0.000,0.000
1641195451623156992,2022-01-03-07:37:31,10.1.1.5,186,-0.170,-0.170,-0.170,0.000,0.000,0.000
1641195451823908096,2022-01-03-07:37:31,10.1.1.5,186,-0.180,-0.180,-0.180,0.000,0.000,0.000
1641195452024321024,2022-01-03-07:37:32,10.1.1.5,185,-0.190,-0.190,-0.190,0.000,0.000,0.000
1641195452223718912,2022-01-03-07:37:32,10.1.1.5,184,-0.200,-0.200,-0.200,0.000,0.000,0.000
1641195452423881984,2022-01-03-07:37:32,10.1.1.5,183,-0.210,-0.210,-0.210,0.000,0.000,0.000
1641195452627831808,2022-01-03-07:37:32,10.1.1.5,186,-0.220,-0.220,-0.220,0.000,0.000,0.000
1641195452824325120,2022-01-03-07:37:32,10.1.1.5,182,-0.230,-0.230,-0.230,0.000,0.000,0.000
1641195453023824896,2022-01-03-07:37:33,10.1.1.5,181,-0.240,-0.240,-0.240,0.000,0.000,0.000
1641195453223184128,2022-01-03-07:37:33,10.1.1.5,180,-0.250,-0.250,-0.250,0.000,0.000,0.000
1641195453424101120,2022-01-03-07:37:33,10.1.1.5,180,-0.260,-0.260,-0.260,0.000,0.000,0.000
1641195453643201024,2022-01-03-07:37:33,10.1.1.5,198,-0.270,-0.270,-0.270,0.000,0.000,0.000
1641195453823857920,2022-01-03-07:37:33,10.1.1.5,178,-0.280,-0.280,-0.280,0.000,0.000,0.000
1641195454044331008,2022-01-03-07:37:34,10.1.1.5,197,-0.290,-0.290,-0.290,0.000,0.000,0.000
1641195454243225088,2022-01-03-07:37:34,10.1.1.5,195,-0.300,-0.300,-0.300,0.000,0.000,0.000
1641195454445231872,2022-01-03-07:37:34,10.1.1.5,196,-0.310,-0.310,-0.310,0.000,0.000,0.000
1641195454645300992,2022-01-03-07:37:34,10.1.1.5,196,-0.320,-0.320,-0.320,0.000,0.000,0.000
1641195454843538944,2022-01-03-07:37:34,10.1.1.5,193,-0.330,-0.330,-0.330,0.000,0.000,0.000
1641195455043876864,2022-01-03-07:37:35,10.1.1.5,193,-0.340,-0.340,-0.340,0.000,0.000,0.000
1641195455442565888,2022-01-03-07:37:35,10.1.1.5,184,-0.360,-0.360,-0.360,0.000,0.000,0.000
1641195455643354880,2022-01-03-07:37:35,10.1.1.5,178,-0.370,-0.370,-0.370,0.000,0.000,0.000
1641195455843080960,2022-01-03-07:37:35,10.1.1.5,178,-0.380,-0.380,-0.380,0.000,0.000,0.000
1641195456062080000,2022-01-03-07:37:36,10.1.1.5,196,-0.390,-0.390,-0.390,0.000,0.000,0.000
1641195456262824960,2022-01-03-07:37:36,10.1.1.5,196,-0.400,-0.400,-0.400,0.000,0.000,0.000
1641195456462199808,2022-01-03-07:37:36,10.1.1.5,194,-0.410,-0.410,-0.410,0.000,0.000,0.000
1641195456663137024,2022-01-03-07:37:36,10.1.1.5,194,-0.420,-0.420,-0.420,0.000,0.000,0.000
1641195456863683072,2022-01-03-07:37:36,10.1.1.5,194,-0.430,-0.430,-0.430,0.000,0.000,0.000
1641195457062585088,2022-01-03-07:37:37,10.1.1.5,192,-0.440,-0.440,-0.440,0.000,0.000,0.000
1641195457261573120,2022-01-03-07:37:37,10.1.1.5,191,-0.450,-0.450,-0.450,0.000,0.000,0.000
1641195457461478912,2022-01-03-07:37:37,10.1.1.5,190,-0.460,-0.460,-0.460,0.000,0.000,0.000
1641195457662853888,2022-01-03-07:37:37,10.1.1.5,190,-0.470,-0.470,-0.470,0.000,0.000,0.000
1641195457860785920,2022-01-03-07:37:37,10.1.1.5,187,-0.480,-0.480,-0.480,0.000,0.000,0.000
1641195458061143040,2022-01-03-07:37:38,10.1.1.5,187,-0.490,-0.490,-0.490,0.000,0.000,0.000
1641195458261089024,2022-01-03-07:37:38,10.1.1.5,186,-0.480,-0.480,-0.480,0.000,0.000,0.000
1641195458460453888,2022-01-03-07:37:38,10.1.1.5,184,-0.470,-0.470,-0.470,0.000,0.000,0.000
1641195458660770048,2022-01-03-07:37:38,10.1.1.5,184,-0.460,-0.460,-0.460,0.000,0.000,0.000
1641195458861767936,2022-01-03-07:37:38,10.1.1.5,184,-0.450,-0.450,-0.450,0.000,0.000,0.000
1641195459059973888,2022-01-03-07:37:39,10.1.1.5,182,-0.440,-0.440,-0.440,0.000,0.000,0.000
1641195459261336064,2022-01-03-07:37:39,10.1.1.5,182,-0.430,-0.430,-0.430,0.000,0.000,0.000
1641195459460166912,2022-01-03-07:37:39,10.1.1.5,181,-0.420,-0.420,-0.420,0.000,0.000,0.000
1641195459660300032,2022-01-03-07:37:39,10.1.1.5,180,-0.410,-0.410,-0.410,0.000,0.000,0.000
1641195459859800064,2022-01-03-07:37:39,10.1.1.5,178,-0.400,-0.400,-0.400,0.000,0.000,0.000
1641195460058976768,2022-01-03-07:37:40,10.1.1.5,177,-0.390,-0.390,-0.390,0.000,0.000,0.000
1641195460259543808,2022-01-03-07:37:40,10.1.1.5,177,-0.380,-0.380,-0.380,0.000,0.000,0.000
1641195460459256832,2022-01-03-07:37:40,10.1.1.5,176,-0.370,-0.370,-0.370,0.000,0.000,0.000
1641195460679964160,2022-01-03-07:37:40,10.1.1.5,195,-0.360,-0.360,-0.360,0.000,0.000,0.000
1641195460880220928,2022-01-03-07:37:40,10.1.1.5,194,-0.350,-0.350,-0.350,0.000,0.000,0.000
1641195461077948928,2022-01-03-07:37:41,10.1.1.5,191,-0.340,-0.340,-0.340,0.000,0.000,0.000
1641195461280091904,2022-01-03-07:37:41,10.1.1.5,192,-0.330,-0.330,-0.330,0.000,0.000,0.000
1641195461477474048,2022-01-03-07:37:41,10.1.1.5,188,-0.320,-0.320,-0.320,0.000,0.000,0.000
1641195461677650944,2022-01-03-07:37:41,10.1.1.5,187,-0.310,-0.310,-0.310,0.000,0.000,0.000
1641195461879621120,2022-01-03-07:37:41,10.1.1.5,188,-0.300,-0.300,-0.300,0.000,0.000,0.000
1641195462077239040,2022-01-03-07:37:42,10.1.1.5,185,-0.290,-0.290,-0.290,0.000,0.000,0.000
1641195462276595968,2022-01-03-07:37:42,10.1.1.5,183,-0.280,-0.280,-0.280,0.000,0.000,0.000
1641195462477330944,2022-01-03-07:37:42,10.1.1.5,183,-0.270,-0.270,-0.270,0.000,0.000,0.000
1641195462675977984,2022-01-03-07:37:42,10.1.1.5,182,-0.260,-0.260,-0.260,0.000,0.000,0.000
1641195462878070016,2022-01-03-07:37:42,10.1.1.5,182,-0.250,-0.250,-0.250,0.000,0.000,0.000
1641195463081844992,2022-01-03-07:37:43,10.1.1.5,186,-0.240,-0.240,-0.240,0.000,0.000,0.000
1641195463276772096,2022-01-03-07:37:43,10.1.1.5,179,-0.230,-0.230,-0.230,0.000,0.000,0.000
1641195463483086080,2022-01-03-07:37:43,10.1.1.5,184,-0.220,-0.220,-0.220,0.000,0.000,0.000
1641195463676038912,2022-01-03-07:37:43,10.1.1.5,177,-0.210,-0.210,-0.210,0.000,0.000,0.000
1641195463875490816,2022-01-03-07:37:43,10.1.1.5,175,-0.200,-0.200,-0.200,0.000,0.000,0.000
1641195464076037888,2022-01-03-07:37:44,10.1.1.5,175,-0.190,-0.190,-0.190,0.000,0.000,0.000
1641195464274110976,2022-01-03-07:37:44,10.1.1.5,172,-0.180,-0.180,-0.180,0.000,0.000,0.000
1641195464477317120,2022-01-03-07:37:44,10.1.1.5,173,-0.170,-0.170,-0.170,0.000,0.000,0.000
1641195464674865920,2022-01-03-07:37:44,10.1.1.5,171,-0.160,-0.160,-0.160,0.000,0.000,0.000
1641195464894998016,2022-01-03-07:37:44,10.1.1.5,183,-0.150,-0.150,-0.150,0.000,0.000,0.000
1641195465095799040,2022-01-03-07:37:45,10.1.1.5,177,-0.140,-0.140,-0.140,0.000,0.000,0.000
1641195465294002176,2022-01-03-07:37:45,10.1.1.5,173,-0.130,-0.130,-0.130,0.000,0.000,0.000
1641195465493239040,2022-01-03-07:37:45,10.1.1.5,172,-0.120,-0.120,-0.120,0.000,0.000,0.000
1641195465692815104,2022-01-03-07:37:45,10.1.1.5,171,-0.110,-0.110,-0.110,0.000,0.000,0.000
1641195465896323840,2022-01-03-07:37:45,10.1.1.5,173,-0.100,-0.100,-0.100,0.000,0.000,0.000
1641195466092129024,2022-01-03-07:37:46,10.1.1.5,168,-0.090,-0.090,-0.090,0.000,0.000,0.000
1641195466311505152,2022-01-03-07:37:46,10.1.1.5,185,-0.080,-0.080,-0.080,0.000,0.000,0.000
1641195466511399936,2022-01-03-07:37:46,10.1.1.5,184,-0.070,-0.070,-0.070,0.000,0.000,0.000
1641195466712924928,2022-01-03-07:37:46,10.1.1.5,185,-0.060,-0.060,-0.060,0.000,0.000,0.000
1641195466910525184,2022-01-03-07:37:46,10.1.1.5,182,-0.050,-0.050,-0.050,0.000,0.000,0.000
1641195467111234816,2022-01-03-07:37:47,10.1.1.5,182,-0.040,-0.040,-0.040,0.000,0.000,0.000
1641195467311165952,2022-01-03-07:37:47,10.1.1.5,181,-0.030,-0.030,-0.030,0.000,0.000,0.000
1641195467510973952,2022-01-03-07:37:47,10.1.1.5,180,-0.020,-0.020,-0.020,0.000,0.000,0.000
1641195467710735104,2022-01-03-07:37:47,10.1.1.5,178,-0.010,-0.010,-0.010,0.000,0.000,0.000
1641195467908508160,2022-01-03-07:37:47,10.1.1.5,175,0.000,0.000,0.000,0.000,0.000,0.000
1641195468113043968,2022-01-03-07:37:48,10.1.1.5,179,-0.010,-0.010,-0.010,0.000,0.000,0.000
1641195468313428992,2022-01-03-07:37:48,10.1.1.5,179,-0.020,-0.020,-0.020,0.000,0.000,0.000
1641195468508434944,2022-01-03-07:37:48,10.1.1.5,173,-0.030,-0.030,-0.030,0.000,0.000,0.000
1641195468708069120,2022-01-03-07:37:48,10.1.1.5,170,-0.040,-0.040,-0.040,0.000,0.000,0.000
1641195468911062016,2022-01-03-07:37:48,10.1.1.5,171,-0.050,-0.050,-0.050,0.000,0.000,0.000
1641195469107311872,2022-01-03-07:37:49,10.1.1.5,168,-0.060,-0.060,-0.060,0.000,0.000,0.000
1641195469308087040,2022-01-03-07:37:49,10.1.1.5,168,-0.070,-0.070,-0.070,0.000,0.000,0.000
1641195469507203072,2022-01-03-07:37:49,10.1.1.5,165,-0.080,-0.080,-0.080,0.000,0.000,0.000
1641195469707768832,2022-01-03-07:37:49,10.1.1.5,165,-0.090,-0.090,-0.090,0.000,0.000,0.000
1641195469907091968,2022-01-03-07:37:49,10.1.1.5,163,-0.100,-0.100,-0.100,0.000,0.000,0.000
1641195470115337984,2022-01-03-07:37:50,10.1.1.5,171,-0.110,-0.110,-0.110,0.000,0.000,0.000
1641195470326596096,2022-01-03-07:37:50,10.1.1.5,181,-0.120,-0.120,-0.120,0.000,0.000,0.000
1641195470543382784,2022-01-03-07:37:50,10.1.1.5,197,-0.130,-0.130,-0.130,0.000,0.000,0.000
1641195470726447104,2022-01-03-07:37:50,10.1.1.5,178,-0.140,-0.140,-0.140,0.000,0.000,0.000
1641195470925725952,2022-01-03-07:37:50,10.1.1.5,177,-0.150,-0.150,-0.150,0.000,0.000,0.000
1641195471123629056,2022-01-03-07:37:51,10.1.1.5,174,-0.160,-0.160,-0.160,0.000,0.000,0.000
1641195471324649216,2022-01-03-07:37:51,10.1.1.5,174,-0.170,-0.170,-0.170,0.000,0.000,0.000
1641195471524770048,2022-01-03-07:37:51,10.1.1.5,173,-0.180,-0.180,-0.180,0.000,0.000,0.000
1641195471722937088,2022-01-03-07:37:51,10.1.1.5,170,-0.190,-0.190,-0.190,0.000,0.000,0.000
1641195471923405056,2022-01-03-07:37:51,10.1.1.5,169,-0.200,-0.200,-0.200,0.000,0.000,0.000
1641195472123095040,2022-01-03-07:37:52,10.1.1.5,166,-0.210,-0.210,-0.210,0.000,0.000,0.000
1641195472322246144,2022-01-03-07:37:52,10.1.1.5,164,-0.220,-0.220,-0.220,0.000,0.000,0.000
1641195472521917184,2022-01-03-07:37:52,10.1.1.5,163,-0.230,-0.230,-0.230,0.000,0.000,0.000
1641195472723650048,2022-01-03-07:37:52,10.1.1.5,164,-0.240,-0.240,-0.240,0.000,0.000,0.000
1641195472921879040,2022-01-03-07:37:52,10.1.1.5,161,-0.250,-0.250,-0.250,0.000,0.000,0.000
1641195473121027840,2022-01-03-07:37:53,10.1.1.5,160,-0.260,-0.260,-0.260,0.000,0.000,0.000
1641195473322140928,2022-01-03-07:37:53,10.1.1.5,159,-0.270,-0.270,-0.270,0.000,0.000,0.000
1641195473520139008,2022-01-03-07:37:53,10.1.1.5,156,-0.280,-0.280,-0.280,0.000,0.000,0.000
1641195473739755008,2022-01-03-07:37:53,10.1.1.5,175,-0.290,-0.290,-0.290,0.000,0.000,0.000
1641195473940339200,2022-01-03-07:37:53,10.1.1.5,175,-0.300,-0.300,-0.300,0.000,0.000,0.000
1641195474140954880,2022-01-03-07:37:54,10.1.1.5,175,-0.310,-0.310,-0.310,0.000,0.000,0.000
1641195474341232128,2022-01-03-07:37:54,10.1.1.5,174,-0.320,-0.320,-0.320,0.000,0.000,0.000
1641195474543490048,2022-01-03-07:37:54,10.1.1.5,176,-0.330,-0.330,-0.330,0.000,0.000,0.000
1641195474743697920,2022-01-03-07:37:54,10.1.1.5,175,-0.340,-0.340,-0.340,0.000,0.000,0.000
1641195474944590080,2022-01-03-07:37:54,10.1.1.5,174,-0.350,-0.350,-0.350,0.000,0.000,0.000
1641195475145957120,2022-01-03-07:37:55,10.1.1.5,174,-0.360,-0.360,-0.360,0.000,0.000,0.000
1641195475346238976,2022-01-03-07:37:55,10.1.1.5,174,-0.370,-0.370,-0.370,0.000,0.000,0.000
1641195475548579072,2022-01-03-07:37:55,10.1.1.5,175,-0.380,-0.380,-0.380,0.000,0.000,0.000
1641195475750796032,2022-01-03-07:37:55,10.1.1.5,176,-0.390,-0.390,-0.390,0.000,0.000,0.000
1641195475948948992,2022-01-03-07:37:55,10.1.1.5,173,-0.400,-0.400,-0.400,0.000,0.000,0.000
1641195476152421888,2022-01-03-07:37:56,10.1.1.5,175,-0.410,-0.410,-0.410,0.000,0.000,0.000
1641195476353213952,2022-01-03-07:37:56,10.1.1.5,173,-0.420,-0.420,-0.420,0.000,0.000,0.000
1641195476550970112,2022-01-03-07:37:56,10.1.1.5,171,-0.430,-0.430,-0.430,0.000,0.000,0.000
1641195476753061888,2022-01-03-07:37:56,10.1.1.5,172,-0.440,-0.440,-0.440,0.000,0.000,0.000
1641195476953090816,2022-01-03-07:37:56,10.1.1.5,171,-0.450,-0.450,-0.450,0.000,0.000,0.000
1641195477153206016,2022-01-03-07:37:57,10.1.1.5,171,-0.460,-0.460,-0.460,0.000,0.000,0.000
1641195477354439936,2022-01-03-07:37:57,10.1.1.5,171,-0.470,-0.470,-0.470,0.000,0.000,0.000
1641195477555094016,2022-01-03-07:37:57,10.1.1.5,170,-0.480,-0.480,-0.480,0.000,0.000,0.000
1641195477775110912,2022-01-03-07:37:57,10.1.1.5,190,-0.490,-0.490,-0.490,0.000,0.000,0.000
1641195477976811776,2022-01-03-07:37:57,10.1.1.5,189,-0.480,-0.480,-0.480,0.000,0.000,0.000
1641195478177326080,2022-01-03-07:37:58,10.1.1.5,189,-0.470,-0.470,-0.470,0.000,0.000,0.000
1641195478374653184,2022-01-03-07:37:58,10.1.1.5,185,-0.460,-0.460,-0.460,0.000,0.000,0.000
1641195478577191168,2022-01-03-07:37:58,10.1.1.5,187,-0.450,-0.450,-0.450,0.000,0.000,0.000
1641195478784028928,2022-01-03-07:37:58,10.1.1.5,193,-0.440,-0.440,-0.440,0.000,0.000,0.000
1641195478978339072,2022-01-03-07:37:58,10.1.1.5,187,-0.430,-0.430,-0.430,0.000,0.000,0.000
1641195479179958016,2022-01-03-07:37:59,10.1.1.5,187,-0.420,-0.420,-0.420,0.000,0.000,0.000
1641195479380137984,2022-01-03-07:37:59,10.1.1.5,187,-0.410,-0.410,-0.410,0.000,0.000,0.000
1641195479579382784,2022-01-03-07:37:59,10.1.1.5,184,-0.400,-0.400,-0.400,0.000,0.000,0.000
1641195479780271104,2022-01-03-07:37:59,10.1.1.5,184,-0.390,-0.390,-0.390,0.000,0.000,0.000
1641195479984304896,2022-01-03-07:37:59,10.1.1.5,188,-0.380,-0.380,-0.380,0.000,0.000,0.000
1641195480180550144,2022-01-03-07:38:00,10.1.1.5,183,-0.370,-0.370,-0.370,0.000,0.000,0.000
1641195480382100224,2022-01-03-07:38:00,10.1.1.5,184,-0.360,-0.360,-0.360,0.000,0.000,0.000
1641195480591156992,2022-01-03-07:38:00,10.1.1.5,192,-0.350,-0.350,-0.350,0.000,0.000,0.000
1641195480781670144,2022-01-03-07:38:00,10.1.1.5,182,-0.340,-0.340,-0.340,0.000,0.000,0.000
1641195480982435840,2022-01-03-07:38:00,10.1.1.5,181,-0.330,-0.330,-0.330,0.000,0.000,0.000
1641195481181798912,2022-01-03-07:38:01,10.1.1.5,180,-0.320,-0.320,-0.320,0.000,0.000,0.000
1641195481381532928,2022-01-03-07:38:01,10.1.1.5,178,-0.310,-0.310,-0.310,0.000,0.000,0.000
1641195481603585024,2022-01-03-07:38:01,10.1.1.5,197,-0.300,-0.300,-0.300,0.000,0.000,0.000
1641195481803761920,2022-01-03-07:38:01,10.1.1.5,196,-0.290,-0.290,-0.290,0.000,0.000,0.000
1641195482003563776,2022-01-03-07:38:02,10.1.1.5,195,-0.280,-0.280,-0.280,0.000,0.000,0.000
1641195482203651840,2022-01-03-07:38:02,10.1.1.5,194,-0.270,-0.270,-0.270,0.000,0.000,0.000
1641195482404176896,2022-01-03-07:38:02,10.1.1.5,194,-0.260,-0.260,-0.260,0.000,0.000,0.000
1641195482603964928,2022-01-03-07:38:02,10.1.1.5,193,-0.250,-0.250,-0.250,0.000,0.000,0.000
1641195482803163136,2022-01-03-07:38:02,10.1.1.5,191,-0.240,-0.240,-0.240,0.000,0.000,0.000
1641195483004179968,2022-01-03-07:38:03,10.1.1.5,191,-0.230,-0.230,-0.230,0.000,0.000,0.000
1641195483203201024,2022-01-03-07:38:03,10.1.1.5,189,-0.220,-0.220,-0.220,0.000,0.000,0.000
1641195483403609088,2022-01-03-07:38:03,10.1.1.5,188,-0.210,-0.210,-0.210,0.000,0.000,0.000
1641195483604060928,2022-01-03-07:38:03,10.1.1.5,187,-0.200,-0.200,-0.200,0.000,0.000,0.000
1641195483804672000,2022-01-03-07:38:03,10.1.1.5,186,-0.190,-0.190,-0.190,0.000,0.000,0.000
1641195484004367104,2022-01-03-07:38:04,10.1.1.5,185,-0.180,-0.180,-0.180,0.000,0.000,0.000
1641195484204595968,2022-01-03-07:38:04,10.1.1.5,183,-0.170,-0.170,-0.170,0.000,0.000,0.000
1641195484404112128,2022-01-03-07:38:04,10.1.1.5,182,-0.160,-0.160,-0.160,0.000,0.000,0.000
1641195484603836928,2022-01-03-07:38:04,10.1.1.5,181,-0.150,-0.150,-0.150,0.000,0.000,0.000
1641195484804753152,2022-01-03-07:38:04,10.1.1.5,181,-0.140,-0.140,-0.140,0.000,0.000,0.000
1641195485004878080,2022-01-03-07:38:05,10.1.1.5,180,-0.130,-0.130,-0.130,0.000,0.000,0.000
1641195485224711936,2022-01-03-07:38:05,10.1.1.5,198,-0.120,-0.120,-0.120,0.000,0.000,0.000
1641195485424058880,2022-01-03-07:38:05,10.1.1.5,197,-0.110,-0.110,-0.110,0.000,0.000,0.000
1641195485624865024,2022-01-03-07:38:05,10.1.1.5,196,-0.100,-0.100,-0.100,0.000,0.000,0.000
1641195485825015040,2022-01-03-07:38:05,10.1.1.5,196,-0.090,-0.090,-0.090,0.000,0.000,0.000
1641195486024547072,2022-01-03-07:38:06,10.1.1.5,194,-0.080,-0.080,-0.080,0.000,0.000,0.000
1641195486224003072,2022-01-03-07:38:06,10.1.1.5,190,-0.070,-0.070,-0.070,0.000,0.000,0.000
1641195486424918016,2022-01-03-07:38:06,10.1.1.5,190,-0.060,-0.060,-0.060,0.000,0.000,0.000
1641195486623975936,2022-01-03-07:38:06,10.1.1.5,186,-0.050,-0.050,-0.050,0.000,0.000,0.000
1641195486826612992,2022-01-03-07:38:06,10.1.1.5,188,-0.040,-0.040,-0.040,0.000,0.000,0.000
1641195487023910912,2022-01-03-07:38:07,10.1.1.5,184,-0.030,-0.030,-0.030,0.000,0.000,0.000
1641195487226802176,2022-01-03-07:38:07,10.1.1.5,186,-0.020,-0.020,-0.020,0.000,0.000,0.000
1641195487424078848,2022-01-03-07:38:07,10.1.1.5,182,-0.010,-0.010,-0.010,0.000,0.000,0.000
1641195487622948864,2022-01-03-07:38:07,10.1.1.5,180,0.000,0.000,0.000,0.000,0.000,0.000
1641195487823715840,2022-01-03-07:38:07,10.1.1.5,180,-0.010,-0.010,-0.010,0.000,0.000,0.000
1641195488043267072,2022-01-03-07:38:08,10.1.1.5,198,-0.020,-0.020,-0.020,0.000,0.000,0.000
1641195488244610048,2022-01-03-07:38:08,10.1.1.5,199,-0.030,-0.030,-0.030,0.000,0.000,0.000
1641195488444345856,2022-01-03-07:38:08,10.1.1.5,198,-0.040,-0.040,-0.040,0.000,0.000,0.000
1641195488642631936,2022-01-03-07:38:08,10.1.1.5,194,-0.050,-0.050,-0.050,0.000,0.000,0.000
1641195488823332096,2022-01-03-07:38:08,10.1.1.5,174,-0.060,-0.060,-0.060,0.000,0.000,0.000
1641195489042856960,2022-01-03-07:38:09,10.1.1.5,193,-0.070,-0.070,-0.070,0.000,0.000,0.000
1641195489242115072,2022-01-03-07:38:09,10.1.1.5,192,-0.080,-0.080,-0.080,0.000,0.000,0.000
1641195489443483136,2022-01-03-07:38:09,10.1.1.5,192,-0.090,-0.090,-0.090,0.000,0.000,0.000
1641195489642255104,2022-01-03-07:38:09,10.1.1.5,190,-0.100,-0.100,-0.100,0.000,0.000,0.000
1641195489842595072,2022-01-03-07:38:09,10.1.1.5,188,-0.110,-0.110,-0.110,0.000,0.000,0.000
1641195490047660032,2022-01-03-07:38:10,10.1.1.5,192,-0.120,-0.120,-0.120,0.000,0.000,0.000
1641195490242018048,2022-01-03-07:38:10,10.1.1.5,186,-0.130,-0.130,-0.130,0.000,0.000,0.000
1641195490440732928,2022-01-03-07:38:10,10.1.1.5,184,-0.140,-0.140,-0.140,0.000,0.000,0.000
1641195490661113088,2022-01-03-07:38:10,10.1.1.5,200,-0.150,-0.150,-0.150,0.000,0.000,0.000
1641195490841062912,2022-01-03-07:38:10,10.1.1.5,179,-0.160,-0.160,-0.160,0.000,0.000,0.000
1641195491041146112,2022-01-03-07:38:11,10.1.1.5,178,-0.170,-0.170,-0.170,0.000,0.000,0.000
1641195491240577024,2022-01-03-07:38:11,10.1.1.5,177,-0.180,-0.180,-0.180,0.000,0.000,0.000
1641195491440967168,2022-01-03-07:38:11,10.1.1.5,176,-0.190,-0.190,-0.190,0.000,0.000,0.000
1641195491659956992,2022-01-03-07:38:11,10.1.1.5,195,-0.200,-0.200,-0.200,0.000,0.000,0.000
1641195491861156864,2022-01-03-07:38:11,10.1.1.5,195,-0.210,-0.210,-0.210,0.000,0.000,0.000
1641195492060393984,2022-01-03-07:38:12,10.1.1.5,193,-0.220,-0.220,-0.220,0.000,0.000,0.000
1641195492259269888,2022-01-03-07:38:12,10.1.1.5,191,-0.230,-0.230,-0.230,0.000,0.000,0.000
1641195492465836032,2022-01-03-07:38:12,10.1.1.5,197,-0.240,-0.240,-0.240,0.000,0.000,0.000
1641195492659862016,2022-01-03-07:38:12,10.1.1.5,191,-0.250,-0.250,-0.250,0.000,0.000,0.000
1641195492859571968,2022-01-03-07:38:12,10.1.1.5,189,-0.260,-0.260,-0.260,0.000,0.000,0.000
1641195493059526912,2022-01-03-07:38:13,10.1.1.5,188,-0.270,-0.270,-0.270,0.000,0.000,0.000
1641195493258162944,2022-01-03-07:38:13,10.1.1.5,186,-0.280,-0.280,-0.280,0.000,0.000,0.000
1641195493459161088,2022-01-03-07:38:13,10.1.1.5,186,-0.290,-0.290,-0.290,0.000,0.000,0.000
1641195493660377088,2022-01-03-07:38:13,10.1.1.5,187,-0.300,-0.300,-0.300,0.000,0.000,0.000
1641195493858288896,2022-01-03-07:38:13,10.1.1.5,184,-0.310,-0.310,-0.310,0.000,0.000,0.000
1641195494057872128,2022-01-03-07:38:14,10.1.1.5,182,-0.320,-0.320,-0.320,0.000,0.000,0.000
1641195494261591808,2022-01-03-07:38:14,10.1.1.5,185,-0.330,-0.330,-0.330,0.000,0.000,0.000
1641195494458700800,2022-01-03-07:38:14,10.1.1.5,181,-0.340,-0.340,-0.340,0.000,0.000,0.000
1641195494481818880,2022-01-03-07:38:14,10.1.1.5,-1,-0.340,-0.340,-0.340,0.000,0.000,0.000
1641195494856477952,2022-01-03-07:38:14,10.1.1.5,175,-0.360,-0.360,-0.360,0.000,0.000,0.000
1641195495057074176,2022-01-03-07:38:15,10.1.1.5,175,-0.370,-0.370,-0.370,0.000,0.000,0.000
1641195495255876096,2022-01-03-07:38:15,10.1.1.5,173,-0.380,-0.380,-0.380,0.000,0.000,0.000
1641195495455312128,2022-01-03-07:38:15,10.1.1.5,172,-0.390,-0.390,-0.390,0.000,0.000,0.000
1641195495655889920,2022-01-03-07:38:15,10.1.1.5,172,-0.400,-0.400,-0.400,0.000,0.000,0.000
1641195495855844864,2022-01-03-07:38:15,10.1.1.5,171,-0.410,-0.410,-0.410,0.000,0.000,0.000
1641195496076180992,2022-01-03-07:38:16,10.1.1.5,191,-0.420,-0.420,-0.420,0.000,0.000,0.000
1641195496276608000,2022-01-03-07:38:16,10.1.1.5,190,-0.430,-0.430,-0.430,0.000,0.000,0.000
1641195496476972032,2022-01-03-07:38:16,10.1.1.5,189,-0.440,-0.440,-0.440,0.000,0.000,0.000
1641195496675115008,2022-01-03-07:38:16,10.1.1.5,186,-0.450,-0.450,-0.450,0.000,0.000,0.000
1641195496874962944,2022-01-03-07:38:16,10.1.1.5,185,-0.460,-0.460,-0.460,0.000,0.000,0.000
1641195497077735936,2022-01-03-07:38:17,10.1.1.5,183,-0.470,-0.470,-0.470,0.000,0.000,0.000
1641195497274109952,2022-01-03-07:38:17,10.1.1.5,181,-0.480,-0.480,-0.480,0.000,0.000,0.000
1641195497473387008,2022-01-03-07:38:17,10.1.1.5,179,-0.490,-0.490,-0.490,0.000,0.000,0.000
1641195497674514176,2022-01-03-07:38:17,10.1.1.5,179,-0.480,-0.480,-0.480,0.000,0.000,0.000
1641195497873387008,2022-01-03-07:38:17,10.1.1.5,177,-0.470,-0.470,-0.470,0.000,0.000,0.000
1641195498072481024,2022-01-03-07:38:18,10.1.1.5,175,-0.460,-0.460,-0.460,0.000,0.000,0.000
1641195498275009024,2022-01-03-07:38:18,10.1.1.5,177,-0.450,-0.450,-0.450,0.000,0.000,0.000
1641195498472364800,2022-01-03-07:38:18,10.1.1.5,173,-0.440,-0.440,-0.440,0.000,0.000,0.000
1641195498673903872,2022-01-03-07:38:18,10.1.1.5,174,-0.430,-0.430,-0.430,0.000,0.000,0.000
1641195498872659968,2022-01-03-07:38:18,10.1.1.5,172,-0.420,-0.420,-0.420,0.000,0.000,0.000
1641195499090884096,2022-01-03-07:38:19,10.1.1.5,185,-0.410,-0.410,-0.410,0.000,0.000,0.000
1641195499293207040,2022-01-03-07:38:19,10.1.1.5,186,-0.400,-0.400,-0.400,0.000,0.000,0.000
1641195499492024832,2022-01-03-07:38:19,10.1.1.5,184,-0.390,-0.390,-0.390,0.000,0.000,0.000
1641195499690388992,2022-01-03-07:38:19,10.1.1.5,182,-0.380,-0.380,-0.380,0.000,0.000,0.000
1641195499890928896,2022-01-03-07:38:19,10.1.1.5,182,-0.370,-0.370,-0.370,0.000,0.000,0.000
1641195500089390080,2022-01-03-07:38:20,10.1.1.5,180,-0.360,-0.360,-0.360,0.000,0.000,0.000
1641195500289997056,2022-01-03-07:38:20,10.1.1.5,174,-0.350,-0.350,-0.350,0.000,0.000,0.000
1641195500490732032,2022-01-03-07:38:20,10.1.1.5,175,-0.340,-0.340,-0.340,0.000,0.000,0.000
1641195500687951104,2022-01-03-07:38:20,10.1.1.5,169,-0.330,-0.330,-0.330,0.000,0.000,0.000
1641195500888747008,2022-01-03-07:38:20,10.1.1.5,168,-0.320,-0.320,-0.320,0.000,0.000,0.000
1641195501088547840,2022-01-03-07:38:21,10.1.1.5,167,-0.310,-0.310,-0.310,0.000,0.000,0.000
1641195501288674048,2022-01-03-07:38:21,10.1.1.5,166,-0.300,-0.300,-0.300,0.000,0.000,0.000
1641195501488278016,2022-01-03-07:38:21,10.1.1.5,164,-0.290,-0.290,-0.290,0.000,0.000,0.000
1641195501706587136,2022-01-03-07:38:21,10.1.1.5,180,-0.280,-0.280,-0.280,0.000,0.000,0.000
1641195501906976000,2022-01-03-07:38:21,10.1.1.5,180,-0.270,-0.270,-0.270,0.000,0.000,0.000
1641195502108332032,2022-01-03-07:38:22,10.1.1.5,179,-0.260,-0.260,-0.260,0.000,0.000,0.000
1641195502306208000,2022-01-03-07:38:22,10.1.1.5,177,-0.250,-0.250,-0.250,0.000,0.000,0.000
1641195502506768896,2022-01-03-07:38:22,10.1.1.5,176,-0.240,-0.240,-0.240,0.000,0.000,0.000
1641195502705569024,2022-01-03-07:38:22,10.1.1.5,174,-0.230,-0.230,-0.230,0.000,0.000,0.000
1641195502907810048,2022-01-03-07:38:22,10.1.1.5,176,-0.220,-0.220,-0.220,0.000,0.000,0.000
1641195503106315008,2022-01-03-07:38:23,10.1.1.5,173,-0.210,-0.210,-0.210,0.000,0.000,0.000
1641195503304177152,2022-01-03-07:38:23,10.1.1.5,171,-0.200,-0.200,-0.200,0.000,0.000,0.000
1641195503505978112,2022-01-03-07:38:23,10.1.1.5,171,-0.190,-0.190,-0.190,0.000,0.000,0.000
1641195503704179968,2022-01-03-07:38:23,10.1.1.5,167,-0.180,-0.180,-0.180,0.000,0.000,0.000
1641195503903835904,2022-01-03-07:38:23,10.1.1.5,166,-0.170,-0.170,-0.170,0.000,0.000,0.000
1641195504103444992,2022-01-03-07:38:24,10.1.1.5,165,-0.160,-0.160,-0.160,0.000,0.000,0.000
1641195504303741952,2022-01-03-07:38:24,10.1.1.5,165,-0.150,-0.150,-0.150,0.000,0.000,0.000
1641195504504035840,2022-01-03-07:38:24,10.1.1.5,162,-0.140,-0.140,-0.140,0.000,0.000,0.000
1641195504703650048,2022-01-03-07:38:24,10.1.1.5,161,-0.130,-0.130,-0.130,0.000,0.000,0.000
1641195504901539072,2022-01-03-07:38:24,10.1.1.5,157,-0.120,-0.120,-0.120,0.000,0.000,0.000
1641195505122994944,2022-01-03-07:38:25,10.1.1.5,172,-0.110,-0.110,-0.110,0.000,0.000,0.000
1641195505322531840,2022-01-03-07:38:25,10.1.1.5,171,-0.100,-0.100,-0.100,0.000,0.000,0.000
1641195505521512960,2022-01-03-07:38:25,10.1.1.5,168,-0.090,-0.090,-0.090,0.000,0.000,0.000
1641195505720269824,2022-01-03-07:38:25,10.1.1.5,166,-0.080,-0.080,-0.080,0.000,0.000,0.000
1641195505920073984,2022-01-03-07:38:25,10.1.1.5,166,-0.070,-0.070,-0.070,0.000,0.000,0.000
1641195506119556864,2022-01-03-07:38:26,10.1.1.5,165,-0.060,-0.060,-0.060,0.000,0.000,0.000
1641195506320472832,2022-01-03-07:38:26,10.1.1.5,164,-0.050,-0.050,-0.050,0.000,0.000,0.000
1641195506518939136,2022-01-03-07:38:26,10.1.1.5,159,-0.040,-0.040,-0.040,0.000,0.000,0.000
1641195506719150080,2022-01-03-07:38:26,10.1.1.5,158,-0.030,-0.030,-0.030,0.000,0.000,0.000
1641195506918347008,2022-01-03-07:38:26,10.1.1.5,156,-0.020,-0.020,-0.020,0.000,0.000,0.000
1641195507120313856,2022-01-03-07:38:27,10.1.1.5,157,-0.010,-0.010,-0.010,0.000,0.000,0.000
1641195507320962816,2022-01-03-07:38:27,10.1.1.5,157,-0.000,-0.000,-0.000,0.000,0.000,0.000
1641195507541580032,2022-01-03-07:38:27,10.1.1.5,176,-0.010,-0.010,-0.010,0.000,0.000,0.000
1641195507743686912,2022-01-03-07:38:27,10.1.1.5,178,-0.020,-0.020,-0.020,0.000,0.000,0.000
1641195507966048000,2022-01-03-07:38:27,10.1.1.5,199,-0.030,-0.030,-0.030,0.000,0.000,0.000
1641195508145153024,2022-01-03-07:38:28,10.1.1.5,170,-0.040,-0.040,-0.040,0.000,0.000,0.000
1641195508345443072,2022-01-03-07:38:28,10.1.1.5,168,-0.050,-0.050,-0.050,0.000,0.000,0.000
1641195508548288000,2022-01-03-07:38:28,10.1.1.5,170,-0.060,-0.060,-0.060,0.000,0.000,0.000
1641195508747847936,2022-01-03-07:38:28,10.1.1.5,168,-0.070,-0.070,-0.070,0.000,0.000,0.000
1641195508949136128,2022-01-03-07:38:28,10.1.1.5,168,-0.080,-0.080,-0.080,0.000,0.000,0.000
1641195509148660992,2022-01-03-07:38:29,10.1.1.5,167,-0.090,-0.090,-0.090,0.000,0.000,0.000
1641195509351047936,2022-01-03-07:38:29,10.1.1.5,168,-0.100,-0.100,-0.100,0.000,0.000,0.000
1641195509551847936,2022-01-03-07:38:29,10.1.1.5,169,-0.110,-0.110,-0.110,0.000,0.000,0.000
1641195509751343872,2022-01-03-07:38:29,10.1.1.5,167,-0.120,-0.120,-0.120,0.000,0.000,0.000
1641195509971919104,2022-01-03-07:38:29,10.1.1.5,187,-0.130,-0.130,-0.130,0.000,0.000,0.000
1641195510172337152,2022-01-03-07:38:30,10.1.1.5,187,-0.140,-0.140,-0.140,0.000,0.000,0.000
1641195510373658880,2022-01-03-07:38:30,10.1.1.5,188,-0.150,-0.150,-0.150,0.000,0.000,0.000
1641195510574825984,2022-01-03-07:38:30,10.1.1.5,188,-0.160,-0.160,-0.160,0.000,0.000,0.000
1641195510774621952,2022-01-03-07:38:30,10.1.1.5,187,-0.170,-0.170,-0.170,0.000,0.000,0.000
1641195510975815936,2022-01-03-07:38:30,10.1.1.5,187,-0.180,-0.180,-0.180,0.000,0.000,0.000
1641195511175687936,2022-01-03-07:38:31,10.1.1.5,186,-0.190,-0.190,-0.190,0.000,0.000,0.000
1641195511376563200,2022-01-03-07:38:31,10.1.1.5,185,-0.200,-0.200,-0.200,0.000,0.000,0.000
1641195511577620992,2022-01-03-07:38:31,10.1.1.5,185,-0.210,-0.210,-0.210,0.000,0.000,0.000
1641195511777594112,2022-01-03-07:38:31,10.1.1.5,184,-0.220,-0.220,-0.220,0.000,0.000,0.000
1641195511979751936,2022-01-03-07:38:31,10.1.1.5,185,-0.230,-0.230,-0.230,0.000,0.000,0.000
1641195512178796032,2022-01-03-07:38:32,10.1.1.5,184,-0.240,-0.240,-0.240,0.000,0.000,0.000
1641195512378476032,2022-01-03-07:38:32,10.1.1.5,183,-0.250,-0.250,-0.250,0.000,0.000,0.000
1641195512580774144,2022-01-03-07:38:32,10.1.1.5,184,-0.260,-0.260,-0.260,0.000,0.000,0.000
1641195512780428800,2022-01-03-07:38:32,10.1.1.5,183,-0.270,-0.270,-0.270,0.000,0.000,0.000
1641195512979784960,2022-01-03-07:38:32,10.1.1.5,182,-0.280,-0.280,-0.280,0.000,0.000,0.000
1641195513186629888,2022-01-03-07:38:33,10.1.1.5,188,-0.290,-0.290,-0.290,0.000,0.000,0.000
1641195513380847872,2022-01-03-07:38:33,10.1.1.5,182,-0.300,-0.300,-0.300,0.000,0.000,0.000
1641195513581264896,2022-01-03-07:38:33,10.1.1.5,182,-0.310,-0.310,-0.310,0.000,0.000,0.000
1641195513782926080,2022-01-03-07:38:33,10.1.1.5,181,-0.320,-0.320,-0.320,0.000,0.000,0.000
1641195513981213952,2022-01-03-07:38:33,10.1.1.5,177,-0.330,-0.330,-0.330,0.000,0.000,0.000
1641195514201484800,2022-01-03-07:38:34,10.1.1.5,193,-0.340,-0.340,-0.340,0.000,0.000,0.000
1641195514401812992,2022-01-03-07:38:34,10.1.1.5,192,-0.350,-0.350,-0.350,0.000,0.000,0.000
1641195514603044864,2022-01-03-07:38:34,10.1.1.5,190,-0.360,-0.360,-0.360,0.000,0.000,0.000
1641195514804204032,2022-01-03-07:38:34,10.1.1.5,190,-0.370,-0.370,-0.370,0.000,0.000,0.000
1641195515003794944,2022-01-03-07:38:35,10.1.1.5,187,-0.380,-0.380,-0.380,0.000,0.000,0.000
1641195515402714880,2022-01-03-07:38:35,10.1.1.5,185,-0.400,-0.400,-0.400,0.000,0.000,0.000
1641195515603296000,2022-01-03-07:38:35,10.1.1.5,185,-0.410,-0.410,-0.410,0.000,0.000,0.000
1641195515803635968,2022-01-03-07:38:35,10.1.1.5,185,-0.420,-0.420,-0.420,0.000,0.000,0.000
1641195516003372800,2022-01-03-07:38:36,10.1.1.5,183,-0.430,-0.430,-0.430,0.000,0.000,0.000
1641195516204225024,2022-01-03-07:38:36,10.1.1.5,183,-0.440,-0.440,-0.440,0.000,0.000,0.000
1641195516408209920,2022-01-03-07:38:36,10.1.1.5,187,-0.450,-0.450,-0.450,0.000,0.000,0.000
1641195516603596800,2022-01-03-07:38:36,10.1.1.5,181,-0.460,-0.460,-0.460,0.000,0.000,0.000
1641195516803651072,2022-01-03-07:38:36,10.1.1.5,180,-0.470,-0.470,-0.470,0.000,0.000,0.000
1641195517004870912,2022-01-03-07:38:37,10.1.1.5,181,-0.480,-0.480,-0.480,0.000,0.000,0.000
1641195517424161792,2022-01-03-07:38:37,10.1.1.5,198,-0.480,-0.480,-0.480,0.000,0.000,0.000
1641195517624239872,2022-01-03-07:38:37,10.1.1.5,197,-0.470,-0.470,-0.470,0.000,0.000,0.000
1641195517824754944,2022-01-03-07:38:37,10.1.1.5,196,-0.460,-0.460,-0.460,0.000,0.000,0.000
1641195518023293952,2022-01-03-07:38:38,10.1.1.5,194,-0.450,-0.450,-0.450,0.000,0.000,0.000
1641195518229551104,2022-01-03-07:38:38,10.1.1.5,200,-0.440,-0.440,-0.440,0.000,0.000,0.000
1641195518423862016,2022-01-03-07:38:38,10.1.1.5,193,-0.430,-0.430,-0.430,0.000,0.000,0.000
1641195518624720128,2022-01-03-07:38:38,10.1.1.5,187,-0.420,-0.420,-0.420,0.000,0.000,0.000
1641195518823906048,2022-01-03-07:38:38,10.1.1.5,185,-0.410,-0.410,-0.410,0.000,0.000,0.000
1641195519024653824,2022-01-03-07:38:39,10.1.1.5,186,-0.400,-0.400,-0.400,0.000,0.000,0.000
1641195519223595008,2022-01-03-07:38:39,10.1.1.5,181,-0.390,-0.390,-0.390,0.000,0.000,0.000
1641195519429292800,2022-01-03-07:38:39,10.1.1.5,186,-0.380,-0.380,-0.380,0.000,0.000,0.000
1641195519623542016,2022-01-03-07:38:39,10.1.1.5,180,-0.370,-0.370,-0.370,0.000,0.000,0.000
1641195519843290112,2022-01-03-07:38:39,10.1.1.5,198,-0.360,-0.360,-0.360,0.000,0.000,0.000
1641195520043667200,2022-01-03-07:38:40,10.1.1.5,198,-0.350,-0.350,-0.350,0.000,0.000,0.000
1641195520243150080,2022-01-03-07:38:40,10.1.1.5,197,-0.340,-0.340,-0.340,0.000,0.000,0.000
1641195520443772160,2022-01-03-07:38:40,10.1.1.5,197,-0.330,-0.330,-0.330,0.000,0.000,0.000
1641195520645056000,2022-01-03-07:38:40,10.1.1.5,198,-0.320,-0.320,-0.320,0.000,0.000,0.000
1641195520842768896,2022-01-03-07:38:40,10.1.1.5,194,-0.310,-0.310,-0.310,0.000,0.000,0.000
1641195521043972096,2022-01-03-07:38:41,10.1.1.5,195,-0.300,-0.300,-0.300,0.000,0.000,0.000
1641195521244126976,2022-01-03-07:38:41,10.1.1.5,195,-0.290,-0.290,-0.290,0.000,0.000,0.000
1641195521443154944,2022-01-03-07:38:41,10.1.1.5,193,-0.280,-0.280,-0.280,0.000,0.000,0.000
1641195521642867968,2022-01-03-07:38:41,10.1.1.5,192,-0.270,-0.270,-0.270,0.000,0.000,0.000
1641195521842725120,2022-01-03-07:38:41,10.1.1.5,190,-0.260,-0.260,-0.260,0.000,0.000,0.000
1641195522042601984,2022-01-03-07:38:42,10.1.1.5,183,-0.250,-0.250,-0.250,0.000,0.000,0.000
1641195522242799104,2022-01-03-07:38:42,10.1.1.5,180,-0.240,-0.240,-0.240,0.000,0.000,0.000
1641195522441982976,2022-01-03-07:38:42,10.1.1.5,178,-0.230,-0.230,-0.230,0.000,0.000,0.000
1641195522662080000,2022-01-03-07:38:42,10.1.1.5,196,-0.220,-0.220,-0.220,0.000,0.000,0.000
1641195522861356032,2022-01-03-07:38:42,10.1.1.5,195,-0.210,-0.210,-0.210,0.000,0.000,0.000
1641195523061811968,2022-01-03-07:38:43,10.1.1.5,195,-0.200,-0.200,-0.200,0.000,0.000,0.000
1641195523262429952,2022-01-03-07:38:43,10.1.1.5,195,-0.190,-0.190,-0.190,0.000,0.000,0.000
1641195523462035968,2022-01-03-07:38:43,10.1.1.5,194,-0.180,-0.180,-0.180,0.000,0.000,0.000
1641195523661061120,2022-01-03-07:38:43,10.1.1.5,192,-0.170,-0.170,-0.170,0.000,0.000,0.000
1641195523861628160,2022-01-03-07:38:43,10.1.1.5,192,-0.160,-0.160,-0.160,0.000,0.000,0.000
1641195524060662016,2022-01-03-07:38:44,10.1.1.5,190,-0.150,-0.150,-0.150,0.000,0.000,0.000
1641195524262074880,2022-01-03-07:38:44,10.1.1.5,189,-0.140,-0.140,-0.140,0.000,0.000,0.000
1641195524460555008,2022-01-03-07:38:44,10.1.1.5,187,-0.130,-0.130,-0.130,0.000,0.000,0.000
1641195524660496896,2022-01-03-07:38:44,10.1.1.5,186,-0.120,-0.120,-0.120,0.000,0.000,0.000
1641195524858763008,2022-01-03-07:38:44,10.1.1.5,184,-0.110,-0.110,-0.110,0.000,0.000,0.000
1641195525059518976,2022-01-03-07:38:45,10.1.1.5,184,-0.100,-0.100,-0.100,0.000,0.000,0.000
1641195525263533056,2022-01-03-07:38:45,10.1.1.5,187,-0.090,-0.090,-0.090,0.000,0.000,0.000
1641195525459193856,2022-01-03-07:38:45,10.1.1.5,181,-0.080,-0.080,-0.080,0.000,0.000,0.000
1641195525658735104,2022-01-03-07:38:45,10.1.1.5,180,-0.070,-0.070,-0.070,0.000,0.000,0.000
1641195525858828032,2022-01-03-07:38:45,10.1.1.5,179,-0.060,-0.060,-0.060,0.000,0.000,0.000
1641195526059576064,2022-01-03-07:38:46,10.1.1.5,178,-0.050,-0.050,-0.050,0.000,0.000,0.000
1641195526258445056,2022-01-03-07:38:46,10.1.1.5,176,-0.040,-0.040,-0.040,0.000,0.000,0.000
1641195526457214976,2022-01-03-07:38:46,10.1.1.5,174,-0.030,-0.030,-0.030,0.000,0.000,0.000
1641195526659528960,2022-01-03-07:38:46,10.1.1.5,175,-0.020,-0.020,-0.020,0.000,0.000,0.000
1641195526878628864,2022-01-03-07:38:46,10.1.1.5,193,-0.010,-0.010,-0.010,0.000,0.000,0.000
1641195527076894976,2022-01-03-07:38:47,10.1.1.5,188,0.000,0.000,0.000,0.000,0.000,0.000
1641195527277405952,2022-01-03-07:38:47,10.1.1.5,184,-0.010,-0.010,-0.010,0.000,0.000,0.000
1641195527480544000,2022-01-03-07:38:47,10.1.1.5,187,-0.020,-0.020,-0.020,0.000,0.000,0.000
1641195527676179968,2022-01-03-07:38:47,10.1.1.5,182,-0.030,-0.030,-0.030,0.000,0.000,0.000
1641195527877495040,2022-01-03-07:38:47,10.1.1.5,181,-0.040,-0.040,-0.040,0.000,0.000,0.000
1641195528075685888,2022-01-03-07:38:48,10.1.1.5,178,-0.050,-0.050,-0.050,0.000,0.000,0.000
1641195528276662016,2022-01-03-07:38:48,10.1.1.5,177,-0.060,-0.060,-0.060,0.000,0.000,0.000
1641195528476313088,2022-01-03-07:38:48,10.1.1.5,172,-0.070,-0.070,-0.070,0.000,0.000,0.000
1641195528696409088,2022-01-03-07:38:48,10.1.1.5,191,-0.080,-0.080,-0.080,0.000,0.000,0.000
1641195528897173760,2022-01-03-07:38:48,10.1.1.5,186,-0.090,-0.090,-0.090,0.000,0.000,0.000
1641195529094720000,2022-01-03-07:38:49,10.1.1.5,182,-0.100,-0.100,-0.100,0.000,0.000,0.000
1641195529294493952,2022-01-03-07:38:49,10.1.1.5,181,-0.110,-0.110,-0.110,0.000,0.000,0.000
1641195529494021888,2022-01-03-07:38:49,10.1.1.5,180,-0.120,-0.120,-0.120,0.000,0.000,0.000
1641195529693676032,2022-01-03-07:38:49,10.1.1.5,179,-0.130,-0.130,-0.130,0.000,0.000,0.000
1641195529894077952,2022-01-03-07:38:49,10.1.1.5,178,-0.140,-0.140,-0.140,0.000,0.000,0.000
1641195530093869824,2022-01-03-07:38:50,10.1.1.5,177,-0.150,-0.150,-0.150,0.000,0.000,0.000
1641195530293690880,2022-01-03-07:38:50,10.1.1.5,176,-0.160,-0.160,-0.160,0.000,0.000,0.000
1641195530494373120,2022-01-03-07:38:50,10.1.1.5,176,-0.170,-0.170,-0.170,0.000,0.000,0.000
1641195530692399104,2022-01-03-07:38:50,10.1.1.5,174,-0.180,-0.180,-0.180,0.000,0.000,0.000
1641195530893202944,2022-01-03-07:38:50,10.1.1.5,173,-0.190,-0.190,-0.190,0.000,0.000,0.000
1641195531092477184,2022-01-03-07:38:51,10.1.1.5,171,-0.200,-0.200,-0.200,0.000,0.000,0.000
1641195531291806976,2022-01-03-07:38:51,10.1.1.5,167,-0.210,-0.210,-0.210,0.000,0.000,0.000
1641195531513183232,2022-01-03-07:38:51,10.1.1.5,185,-0.220,-0.220,-0.220,0.000,0.000,0.000
1641195531711347968,2022-01-03-07:38:51,10.1.1.5,183,-0.230,-0.230,-0.230,0.000,0.000,0.000
1641195531910322944,2022-01-03-07:38:51,10.1.1.5,179,-0.240,-0.240,-0.240,0.000,0.000,0.000
1641195532110511104,2022-01-03-07:38:52,10.1.1.5,178,-0.250,-0.250,-0.250,0.000,0.000,0.000
1641195532309777920,2022-01-03-07:38:52,10.1.1.5,177,-0.260,-0.260,-0.260,0.000,0.000,0.000
1641195532509409024,2022-01-03-07:38:52,10.1.1.5,176,-0.270,-0.270,-0.270,0.000,0.000,0.000
1641195532710028032,2022-01-03-07:38:52,10.1.1.5,175,-0.280,-0.280,-0.280,0.000,0.000,0.000
1641195532909478912,2022-01-03-07:38:52,10.1.1.5,174,-0.290,-0.290,-0.290,0.000,0.000,0.000
1641195533108514048,2022-01-03-07:38:53,10.1.1.5,172,-0.300,-0.300,-0.300,0.000,0.000,0.000
1641195533308527104,2022-01-03-07:38:53,10.1.1.5,172,-0.310,-0.310,-0.310,0.000,0.000,0.000
1641195533510118912,2022-01-03-07:38:53,10.1.1.5,173,-0.320,-0.320,-0.320,0.000,0.000,0.000
1641195533708879872,2022-01-03-07:38:53,10.1.1.5,171,-0.330,-0.330,-0.330,0.000,0.000,0.000
1641195533907922944,2022-01-03-07:38:53,10.1.1.5,166,-0.340,-0.340,-0.340,0.000,0.000,0.000
1641195534116770048,2022-01-03-07:38:54,10.1.1.5,175,-0.350,-0.350,-0.350,0.000,0.000,0.000
1641195534311023104,2022-01-03-07:38:54,10.1.1.5,169,-0.360,-0.360,-0.360,0.000,0.000,0.000
1641195534527913984,2022-01-03-07:38:54,10.1.1.5,180,-0.370,-0.370,-0.370,0.000,0.000,0.000
1641195534727175936,2022-01-03-07:38:54,10.1.1.5,179,-0.380,-0.380,-0.380,0.000,0.000,0.000
1641195534926027008,2022-01-03-07:38:54,10.1.1.5,177,-0.390,-0.390,-0.390,0.000,0.000,0.000
1641195535128361984,2022-01-03-07:38:55,10.1.1.5,178,-0.400,-0.400,-0.400,0.000,0.000,0.000
1641195535327058176,2022-01-03-07:38:55,10.1.1.5,175,-0.410,-0.410,-0.410,0.000,0.000,0.000
1641195535524997120,2022-01-03-07:38:55,10.1.1.5,172,-0.420,-0.420,-0.420,0.000,0.000,0.000
1641195535726278144,2022-01-03-07:38:55,10.1.1.5,172,-0.430,-0.430,-0.430,0.000,0.000,0.000
1641195535925144064,2022-01-03-07:38:55,10.1.1.5,170,-0.440,-0.440,-0.440,0.000,0.000,0.000
1641195536123742976,2022-01-03-07:38:56,10.1.1.5,161,-0.450,-0.450,-0.450,0.000,0.000,0.000
1641195536324462848,2022-01-03-07:38:56,10.1.1.5,160,-0.460,-0.460,-0.460,0.000,0.000,0.000
1641195536544116992,2022-01-03-07:38:56,10.1.1.5,179,-0.470,-0.470,-0.470,0.000,0.000,0.000
1641195536743886080,2022-01-03-07:38:56,10.1.1.5,178,-0.480,-0.480,-0.480,0.000,0.000,0.000
1641195536943558912,2022-01-03-07:38:56,10.1.1.5,177,-0.490,-0.490,-0.490,0.000,0.000,0.000
1641195537144185088,2022-01-03-07:38:57,10.1.1.5,177,-0.480,-0.480,-0.480,0.000,0.000,0.000
1641195537342479872,2022-01-03-07:38:57,10.1.1.5,172,-0.470,-0.470,-0.470,0.000,0.000,0.000
1641195537545965056,2022-01-03-07:38:57,10.1.1.5,176,-0.460,-0.460,-0.460,0.000,0.000,0.000
1641195537741722112,2022-01-03-07:38:57,10.1.1.5,171,-0.450,-0.450,-0.450,0.000,0.000,0.000
1641195537941797120,2022-01-03-07:38:57,10.1.1.5,167,-0.440,-0.440,-0.440,0.000,0.000,0.000
1641195538141447168,2022-01-03-07:38:58,10.1.1.5,165,-0.430,-0.430,-0.430,0.000,0.000,0.000
1641195538341134080,2022-01-03-07:38:58,10.1.1.5,164,-0.420,-0.420,-0.420,0.000,0.000,0.000
1641195538540103936,2022-01-03-07:38:58,10.1.1.5,162,-0.410,-0.410,-0.410,0.000,0.000,0.000
1641195538739849216,2022-01-03-07:38:58,10.1.1.5,161,-0.400,-0.400,-0.400,0.000,0.000,0.000
1641195538940931072,2022-01-03-07:38:58,10.1.1.5,158,-0.390,-0.390,-0.390,0.000,0.000,0.000
1641195539139597056,2022-01-03-07:38:59,10.1.1.5,158,-0.380,-0.380,-0.380,0.000,0.000,0.000
1641195539342959872,2022-01-03-07:38:59,10.1.1.5,160,-0.370,-0.370,-0.370,0.000,0.000,0.000
1641195539544371968,2022-01-03-07:38:59,10.1.1.5,159,-0.360,-0.360,-0.360,0.000,0.000,0.000
1641195539763841024,2022-01-03-07:38:59,10.1.1.5,174,-0.350,-0.350,-0.350,0.000,0.000,0.000
1641195539966713856,2022-01-03-07:38:59,10.1.1.5,174,-0.340,-0.340,-0.340,0.000,0.000,0.000
1641195540168968960,2022-01-03-07:39:00,10.1.1.5,175,-0.330,-0.330,-0.330,0.000,0.000,0.000
1641195540366620160,2022-01-03-07:39:00,10.1.1.5,174,-0.320,-0.320,-0.320,0.000,0.000,0.000
1641195540568548864,2022-01-03-07:39:00,10.1.1.5,175,-0.310,-0.310,-0.310,0.000,0.000,0.000
1641195540768871936,2022-01-03-07:39:00,10.1.1.5,174,-0.300,-0.300,-0.300,0.000,0.000,0.000
1641195540969239040,2022-01-03-07:39:00,10.1.1.5,173,-0.290,-0.290,-0.290,0.000,0.000,0.000
1641195541171420928,2022-01-03-07:39:01,10.1.1.5,174,-0.280,-0.280,-0.280,0.000,0.000,0.000
1641195541372030976,2022-01-03-07:39:01,10.1.1.5,174,-0.270,-0.270,-0.270,0.000,0.000,0.000
1641195541573000960,2022-01-03-07:39:01,10.1.1.5,173,-0.260,-0.260,-0.260,0.000,0.000,0.000
1641195541778199808,2022-01-03-07:39:01,10.1.1.5,176,-0.250,-0.250,-0.250,0.000,0.000,0.000
1641195541993504000,2022-01-03-07:39:01,10.1.1.5,188,-0.240,-0.240,-0.240,0.000,0.000,0.000
1641195542193294080,2022-01-03-07:39:02,10.1.1.5,186,-0.230,-0.230,-0.230,0.000,0.000,0.000
1641195542394181888,2022-01-03-07:39:02,10.1.1.5,186,-0.220,-0.220,-0.220,0.000,0.000,0.000
1641195542595298048,2022-01-03-07:39:02,10.1.1.5,185,-0.210,-0.210,-0.210,0.000,0.000,0.000
1641195542795047936,2022-01-03-07:39:02,10.1.1.5,184,-0.200,-0.200,-0.200,0.000,0.000,0.000
1641195542996587008,2022-01-03-07:39:02,10.1.1.5,184,-0.190,-0.190,-0.190,0.000,0.000,0.000
1641195543197046016,2022-01-03-07:39:03,10.1.1.5,184,-0.180,-0.180,-0.180,0.000,0.000,0.000
1641195543395993088,2022-01-03-07:39:03,10.1.1.5,183,-0.170,-0.170,-0.170,0.000,0.000,0.000
1641195543597712896,2022-01-03-07:39:03,10.1.1.5,183,-0.160,-0.160,-0.160,0.000,0.000,0.000
1641195543797626112,2022-01-03-07:39:03,10.1.1.5,182,-0.150,-0.150,-0.150,0.000,0.000,0.000
1641195543998045952,2022-01-03-07:39:03,10.1.1.5,181,-0.140,-0.140,-0.140,0.000,0.000,0.000
1641195544200412160,2022-01-03-07:39:04,10.1.1.5,182,-0.130,-0.130,-0.130,0.000,0.000,0.000
1641195544399406080,2022-01-03-07:39:04,10.1.1.5,180,-0.120,-0.120,-0.120,0.000,0.000,0.000
1641195544599003904,2022-01-03-07:39:04,10.1.1.5,178,-0.110,-0.110,-0.110,0.000,0.000,0.000
1641195544800691968,2022-01-03-07:39:04,10.1.1.5,178,-0.100,-0.100,-0.100,0.000,0.000,0.000
1641195544999547904,2022-01-03-07:39:04,10.1.1.5,177,-0.090,-0.090,-0.090,0.000,0.000,0.000
1641195545200203008,2022-01-03-07:39:05,10.1.1.5,177,-0.080,-0.080,-0.080,0.000,0.000,0.000
1641195545400717056,2022-01-03-07:39:05,10.1.1.5,176,-0.070,-0.070,-0.070,0.000,0.000,0.000
1641195545623138816,2022-01-03-07:39:05,10.1.1.5,198,-0.060,-0.060,-0.060,0.000,0.000,0.000
1641195545820755968,2022-01-03-07:39:05,10.1.1.5,194,-0.050,-0.050,-0.050,0.000,0.000,0.000
1641195546028425984,2022-01-03-07:39:06,10.1.1.5,198,-0.040,-0.040,-0.040,0.000,0.000,0.000
1641195546223300096,2022-01-03-07:39:06,10.1.1.5,190,-0.030,-0.030,-0.030,0.000,0.000,0.000
1641195546420860160,2022-01-03-07:39:06,10.1.1.5,186,-0.020,-0.020,-0.020,0.000,0.000,0.000
1641195546621448960,2022-01-03-07:39:06,10.1.1.5,185,-0.010,-0.010,-0.010,0.000,0.000,0.000
1641195546822330880,2022-01-03-07:39:06,10.1.1.5,185,0.000,0.000,0.000,0.000,0.000,0.000
1641195547022305024,2022-01-03-07:39:07,10.1.1.5,183,-0.010,-0.010,-0.010,0.000,0.000,0.000
1641195547222780928,2022-01-03-07:39:07,10.1.1.5,181,-0.020,-0.020,-0.020,0.000,0.000,0.000
1641195547423244032,2022-01-03-07:39:07,10.1.1.5,179,-0.030,-0.030,-0.030,0.000,0.000,0.000
1641195547642417920,2022-01-03-07:39:07,10.1.1.5,197,-0.040,-0.040,-0.040,0.000,0.000,0.000
1641195547843923200,2022-01-03-07:39:07,10.1.1.5,198,-0.050,-0.050,-0.050,0.000,0.000,0.000
1641195548043164928,2022-01-03-07:39:08,10.1.1.5,196,-0.060,-0.060,-0.060,0.000,0.000,0.000
1641195548242939904,2022-01-03-07:39:08,10.1.1.5,195,-0.070,-0.070,-0.070,0.000,0.000,0.000
1641195548443922944,2022-01-03-07:39:08,10.1.1.5,195,-0.080,-0.080,-0.080,0.000,0.000,0.000
1641195548646112000,2022-01-03-07:39:08,10.1.1.5,197,-0.090,-0.090,-0.090,0.000,0.000,0.000
1641195548843142144,2022-01-03-07:39:08,10.1.1.5,190,-0.100,-0.100,-0.100,0.000,0.000,0.000
1641195549044909056,2022-01-03-07:39:09,10.1.1.5,191,-0.110,-0.110,-0.110,0.000,0.000,0.000
1641195549243215104,2022-01-03-07:39:09,10.1.1.5,187,-0.120,-0.120,-0.120,0.000,0.000,0.000
1641195549445067776,2022-01-03-07:39:09,10.1.1.5,188,-0.130,-0.130,-0.130,0.000,0.000,0.000
1641195549643106816,2022-01-03-07:39:09,10.1.1.5,185,-0.140,-0.140,-0.140,0.000,0.000,0.000
1641195549843013888,2022-01-03-07:39:09,10.1.1.5,184,-0.150,-0.150,-0.150,0.000,0.000,0.000
1641195550043462144,2022-01-03-07:39:10,10.1.1.5,183,-0.160,-0.160,-0.160,0.000,0.000,0.000
1641195550244365824,2022-01-03-07:39:10,10.1.1.5,184,-0.170,-0.170,-0.170,0.000,0.000,0.000
1641195550444694016,2022-01-03-07:39:10,10.1.1.5,183,-0.180,-0.180,-0.180,0.000,0.000,0.000
1641195550644828160,2022-01-03-07:39:10,10.1.1.5,182,-0.190,-0.190,-0.190,0.000,0.000,0.000
1641195550843040000,2022-01-03-07:39:10,10.1.1.5,180,-0.200,-0.200,-0.200,0.000,0.000,0.000
1641195551044760064,2022-01-03-07:39:11,10.1.1.5,180,-0.210,-0.210,-0.210,0.000,0.000,0.000
1641195551244029952,2022-01-03-07:39:11,10.1.1.5,179,-0.220,-0.220,-0.220,0.000,0.000,0.000
1641195551443470848,2022-01-03-07:39:11,10.1.1.5,178,-0.230,-0.230,-0.230,0.000,0.000,0.000
1641195551664135936,2022-01-03-07:39:11,10.1.1.5,197,-0.240,-0.240,-0.240,0.000,0.000,0.000
1641195551862268928,2022-01-03-07:39:11,10.1.1.5,195,-0.250,-0.250,-0.250,0.000,0.000,0.000
1641195552066710016,2022-01-03-07:39:12,10.1.1.5,198,-0.260,-0.260,-0.260,0.000,0.000,0.000
1641195552263129088,2022-01-03-07:39:12,10.1.1.5,194,-0.270,-0.270,-0.270,0.000,0.000,0.000
1641195552463205120,2022-01-03-07:39:12,10.1.1.5,193,-0.280,-0.280,-0.280,0.000,0.000,0.000
1641195552664644864,2022-01-03-07:39:12,10.1.1.5,192,-0.290,-0.290,-0.290,0.000,0.000,0.000
1641195552862381824,2022-01-03-07:39:12,10.1.1.5,189,-0.300,-0.300,-0.300,0.000,0.000,0.000
1641195553063154944,2022-01-03-07:39:13,10.1.1.5,189,-0.310,-0.310,-0.310,0.000,0.000,0.000
1641195553262372864,2022-01-03-07:39:13,10.1.1.5,187,-0.320,-0.320,-0.320,0.000,0.000,0.000
1641195553463314176,2022-01-03-07:39:13,10.1.1.5,188,-0.330,-0.330,-0.330,0.000,0.000,0.000
1641195553662172928,2022-01-03-07:39:13,10.1.1.5,186,-0.340,-0.340,-0.340,0.000,0.000,0.000
1641195553863201024,2022-01-03-07:39:13,10.1.1.5,186,-0.350,-0.350,-0.350,0.000,0.000,0.000
1641195554062577920,2022-01-03-07:39:14,10.1.1.5,184,-0.360,-0.360,-0.360,0.000,0.000,0.000
1641195554261782016,2022-01-03-07:39:14,10.1.1.5,183,-0.370,-0.370,-0.370,0.000,0.000,0.000
1641195554460964864,2022-01-03-07:39:14,10.1.1.5,182,-0.380,-0.380,-0.380,0.000,0.000,0.000
1641195554661947136,2022-01-03-07:39:14,10.1.1.5,182,-0.390,-0.390,-0.390,0.000,0.000,0.000
1641195554860829952,2022-01-03-07:39:14,10.1.1.5,180,-0.400,-0.400,-0.400,0.000,0.000,0.000
1641195555061413120,2022-01-03-07:39:15,10.1.1.5,179,-0.410,-0.410,-0.410,0.000,0.000,0.000
1641195555261518848,2022-01-03-07:39:15,10.1.1.5,179,-0.420,-0.420,-0.420,0.000,0.000,0.000
1641195555460755200,2022-01-03-07:39:15,10.1.1.5,178,-0.430,-0.430,-0.430,0.000,0.000,0.000
1641195555661551104,2022-01-03-07:39:15,10.1.1.5,178,-0.440,-0.440,-0.440,0.000,0.000,0.000
1641195555860805888,2022-01-03-07:39:15,10.1.1.5,176,-0.450,-0.450,-0.450,0.000,0.000,0.000
1641195556080374016,2022-01-03-07:39:16,10.1.1.5,195,-0.460,-0.460,-0.460,0.000,0.000,0.000
1641195556281250048,2022-01-03-07:39:16,10.1.1.5,195,-0.470,-0.470,-0.470,0.000,0.000,0.000
1641195556481074944,2022-01-03-07:39:16,10.1.1.5,194,-0.480,-0.480,-0.480,0.000,0.000,0.000
1641195556679438080,2022-01-03-07:39:16,10.1.1.5,192,-0.490,-0.490,-0.490,0.000,0.000,0.000
1641195556881598976,2022-01-03-07:39:16,10.1.1.5,193,-0.480,-0.480,-0.480,0.000,0.000,0.000
1641195557059037952,2022-01-03-07:39:17,10.1.1.5,170,-0.470,-0.470,-0.470,0.000,0.000,0.000
1641195557279032832,2022-01-03-07:39:17,10.1.1.5,189,-0.460,-0.460,-0.460,0.000,0.000,0.000
1641195557491472128,2022-01-03-07:39:17,10.1.1.5,200,-0.450,-0.450,-0.450,0.000,0.000,0.000
1641195557678715904,2022-01-03-07:39:17,10.1.1.5,180,-0.440,-0.440,-0.440,0.000,0.000,0.000
1641195557878795008,2022-01-03-07:39:17,10.1.1.5,179,-0.430,-0.430,-0.430,0.000,0.000,0.000
1641195558078016000,2022-01-03-07:39:18,10.1.1.5,178,-0.420,-0.420,-0.420,0.000,0.000,0.000
1641195558279064832,2022-01-03-07:39:18,10.1.1.5,178,-0.410,-0.410,-0.410,0.000,0.000,0.000
1641195558477678080,2022-01-03-07:39:18,10.1.1.5,176,-0.400,-0.400,-0.400,0.000,0.000,0.000
1641195558677390080,2022-01-03-07:39:18,10.1.1.5,175,-0.390,-0.390,-0.390,0.000,0.000,0.000
1641195558877572096,2022-01-03-07:39:18,10.1.1.5,174,-0.380,-0.380,-0.380,0.000,0.000,0.000
1641195559096507136,2022-01-03-07:39:19,10.1.1.5,192,-0.370,-0.370,-0.370,0.000,0.000,0.000
1641195559296552960,2022-01-03-07:39:19,10.1.1.5,189,-0.360,-0.360,-0.360,0.000,0.000,0.000
1641195559495773184,2022-01-03-07:39:19,10.1.1.5,187,-0.350,-0.350,-0.350,0.000,0.000,0.000
1641195559695627008,2022-01-03-07:39:19,10.1.1.5,187,-0.340,-0.340,-0.340,0.000,0.000,0.000
1641195559895859968,2022-01-03-07:39:19,10.1.1.5,186,-0.330,-0.330,-0.330,0.000,0.000,0.000
1641195560096004864,2022-01-03-07:39:20,10.1.1.5,186,-0.320,-0.320,-0.320,0.000,0.000,0.000
1641195560295206144,2022-01-03-07:39:20,10.1.1.5,183,-0.310,-0.310,-0.310,0.000,0.000,0.000
1641195560497206016,2022-01-03-07:39:20,10.1.1.5,181,-0.300,-0.300,-0.300,0.000,0.000,0.000
1641195560694430976,2022-01-03-07:39:20,10.1.1.5,180,-0.290,-0.290,-0.290,0.000,0.000,0.000
1641195560894889984,2022-01-03-07:39:20,10.1.1.5,179,-0.280,-0.280,-0.280,0.000,0.000,0.000
1641195561094381056,2022-01-03-07:39:21,10.1.1.5,177,-0.270,-0.270,-0.270,0.000,0.000,0.000
1641195561294255104,2022-01-03-07:39:21,10.1.1.5,176,-0.260,-0.260,-0.260,0.000,0.000,0.000
1641195561495006208,2022-01-03-07:39:21,10.1.1.5,176,-0.250,-0.250,-0.250,0.000,0.000,0.000
1641195561701456128,2022-01-03-07:39:21,10.1.1.5,182,-0.240,-0.240,-0.240,0.000,0.000,0.000
1641195561894064896,2022-01-03-07:39:21,10.1.1.5,174,-0.230,-0.230,-0.230,0.000,0.000,0.000
1641195562092963840,2022-01-03-07:39:22,10.1.1.5,172,-0.220,-0.220,-0.220,0.000,0.000,0.000
1641195562292398848,2022-01-03-07:39:22,10.1.1.5,171,-0.210,-0.210,-0.210,0.000,0.000,0.000
1641195562512851968,2022-01-03-07:39:22,10.1.1.5,183,-0.200,-0.200,-0.200,0.000,0.000,0.000
1641195562712004864,2022-01-03-07:39:22,10.1.1.5,182,-0.190,-0.190,-0.190,0.000,0.000,0.000
1641195562911573760,2022-01-03-07:39:22,10.1.1.5,179,-0.180,-0.180,-0.180,0.000,0.000,0.000
1641195563111529984,2022-01-03-07:39:23,10.1.1.5,174,-0.170,-0.170,-0.170,0.000,0.000,0.000
1641195563311089152,2022-01-03-07:39:23,10.1.1.5,173,-0.160,-0.160,-0.160,0.000,0.000,0.000
1641195563511940864,2022-01-03-07:39:23,10.1.1.5,171,-0.150,-0.150,-0.150,0.000,0.000,0.000
1641195563711663104,2022-01-03-07:39:23,10.1.1.5,170,-0.140,-0.140,-0.140,0.000,0.000,0.000
1641195563931208960,2022-01-03-07:39:23,10.1.1.5,185,-0.130,-0.130,-0.130,0.000,0.000,0.000
1641195564131138048,2022-01-03-07:39:24,10.1.1.5,184,-0.120,-0.120,-0.120,0.000,0.000,0.000
1641195564332251136,2022-01-03-07:39:24,10.1.1.5,183,-0.110,-0.110,-0.110,0.000,0.000,0.000
1641195564529339136,2022-01-03-07:39:24,10.1.1.5,179,-0.100,-0.100,-0.100,0.000,0.000,0.000
1641195564729414912,2022-01-03-07:39:24,10.1.1.5,178,-0.090,-0.090,-0.090,0.000,0.000,0.000
1641195564927896064,2022-01-03-07:39:24,10.1.1.5,176,-0.080,-0.080,-0.080,0.000,0.000,0.000
1641195565130413056,2022-01-03-07:39:25,10.1.1.5,177,-0.070,-0.070,-0.070,0.000,0.000,0.000
1641195565328545024,2022-01-03-07:39:25,10.1.1.5,174,-0.060,-0.060,-0.060,0.000,0.000,0.000
1641195565527916800,2022-01-03-07:39:25,10.1.1.5,173,-0.050,-0.050,-0.050,0.000,0.000,0.000
1641195565727785984,2022-01-03-07:39:25,10.1.1.5,172,-0.040,-0.040,-0.040,0.000,0.000,0.000
1641195565926628096,2022-01-03-07:39:25,10.1.1.5,170,-0.030,-0.030,-0.030,0.000,0.000,0.000
1641195566127357952,2022-01-03-07:39:26,10.1.1.5,167,-0.020,-0.020,-0.020,0.000,0.000,0.000
1641195566335529984,2022-01-03-07:39:26,10.1.1.5,175,-0.010,-0.010,-0.010,0.000,0.000,0.000
1641195566525459968,2022-01-03-07:39:26,10.1.1.5,164,0.000,0.000,0.000,0.000,0.000,0.000
1641195566727621120,2022-01-03-07:39:26,10.1.1.5,164,-0.010,-0.010,-0.010,0.000,0.000,0.000
1641195566946249984,2022-01-03-07:39:26,10.1.1.5,182,-0.020,-0.020,-0.020,0.000,0.000,0.000
1641195567124877824,2022-01-03-07:39:27,10.1.1.5,160,-0.030,-0.030,-0.030,0.000,0.000,0.000
1641195567346036992,2022-01-03-07:39:27,10.1.1.5,180,-0.040,-0.040,-0.040,0.000,0.000,0.000
1641195567544154880,2022-01-03-07:39:27,10.1.1.5,178,-0.050,-0.050,-0.050,0.000,0.000,0.000
1641195567745052160,2022-01-03-07:39:27,10.1.1.5,177,-0.060,-0.060,-0.060,0.000,0.000,0.000
1641195567943898880,2022-01-03-07:39:27,10.1.1.5,175,-0.070,-0.070,-0.070,0.000,0.000,0.000
1641195568144540160,2022-01-03-07:39:28,10.1.1.5,175,-0.080,-0.080,-0.080,0.000,0.000,0.000
1641195568344034048,2022-01-03-07:39:28,10.1.1.5,173,-0.090,-0.090,-0.090,0.000,0.000,0.000
1641195568545350144,2022-01-03-07:39:28,10.1.1.5,172,-0.100,-0.100,-0.100,0.000,0.000,0.000
1641195568743393024,2022-01-03-07:39:28,10.1.1.5,170,-0.110,-0.110,-0.110,0.000,0.000,0.000
1641195568942455040,2022-01-03-07:39:28,10.1.1.5,169,-0.120,-0.120,-0.120,0.000,0.000,0.000
1641195569142422016,2022-01-03-07:39:29,10.1.1.5,168,-0.130,-0.130,-0.130,0.000,0.000,0.000
1641195569342432000,2022-01-03-07:39:29,10.1.1.5,167,-0.140,-0.140,-0.140,0.000,0.000,0.000
1641195569541448960,2022-01-03-07:39:29,10.1.1.5,166,-0.150,-0.150,-0.150,0.000,0.000,0.000
1641195569741171968,2022-01-03-07:39:29,10.1.1.5,165,-0.160,-0.160,-0.160,0.000,0.000,0.000
1641195569941417984,2022-01-03-07:39:29,10.1.1.5,164,-0.170,-0.170,-0.170,0.000,0.000,0.000
1641195570143657984,2022-01-03-07:39:30,10.1.1.5,164,-0.180,-0.180,-0.180,0.000,0.000,0.000
1641195570341500160,2022-01-03-07:39:30,10.1.1.5,162,-0.190,-0.190,-0.190,0.000,0.000,0.000
1641195570540397824,2022-01-03-07:39:30,10.1.1.5,160,-0.200,-0.200,-0.200,0.000,0.000,0.000
1641195570739571200,2022-01-03-07:39:30,10.1.1.5,158,-0.210,-0.210,-0.210,0.000,0.000,0.000
1641195570939478016,2022-01-03-07:39:30,10.1.1.5,157,-0.220,-0.220,-0.220,0.000,0.000,0.000
1641195571139872000,2022-01-03-07:39:31,10.1.1.5,157,-0.230,-0.230,-0.230,0.000,0.000,0.000
1641195571340158976,2022-01-03-07:39:31,10.1.1.5,156,-0.240,-0.240,-0.240,0.000,0.000,0.000
1641195571563270144,2022-01-03-07:39:31,10.1.1.5,178,-0.250,-0.250,-0.250,0.000,0.000,0.000
1641195571764488960,2022-01-03-07:39:31,10.1.1.5,179,-0.260,-0.260,-0.260,0.000,0.000,0.000
