FedericoMungari/DigitalTwin_service/01_WiredScenario/Output/Output_script/script_rosapi_2_output_robots12_freq0_7.txt
timestamp,date,node,latency,joint_1,joint_2,joint_3,joint_4,joint_5,joint_6
1641234796483067904,2022-01-03-18:33:16,10.1.1.8,193,-0.020,-0.020,-0.020,0.000,0.000,0.000
1641234796693302016,2022-01-03-18:33:16,10.1.1.8,201,-0.030,-0.030,-0.030,0.000,0.000,0.000
1641234796893590016,2022-01-03-18:33:16,10.1.1.8,199,-0.040,-0.040,-0.040,0.000,0.000,0.000
1641234797295571968,2022-01-03-18:33:17,10.1.1.8,195,-0.060,-0.060,-0.060,0.000,0.000,0.000
1641234797493449984,2022-01-03-18:33:17,10.1.1.8,193,-0.070,-0.070,-0.070,0.000,0.000,0.000
1641234797694159104,2022-01-03-18:33:17,10.1.1.8,193,-0.080,-0.080,-0.080,0.000,0.000,0.000
1641234797895582976,2022-01-03-18:33:17,10.1.1.8,193,-0.090,-0.090,-0.090,0.000,0.000,0.000
1641234798096579072,2022-01-03-18:33:18,10.1.1.8,193,-0.100,-0.100,-0.100,0.000,0.000,0.000
1641234798296956160,2022-01-03-18:33:18,10.1.1.8,192,-0.110,-0.110,-0.110,0.000,0.000,0.000
1641234798905075968,2022-01-03-18:33:18,10.1.1.8,195,-0.140,-0.140,-0.140,0.000,0.000,0.000
1641234800316296192,2022-01-03-18:33:20,10.1.1.8,200,-0.210,-0.210,-0.210,0.000,0.000,0.000
1641234800514920960,2022-01-03-18:33:20,10.1.1.8,196,-0.220,-0.220,-0.220,0.000,0.000,0.000
1641234800715087872,2022-01-03-18:33:20,10.1.1.8,192,-0.230,-0.230,-0.230,0.000,0.000,0.000
1641234800915278080,2022-01-03-18:33:20,10.1.1.8,192,-0.240,-0.240,-0.240,0.000,0.000,0.000
1641234801116688896,2022-01-03-18:33:21,10.1.1.8,192,-0.250,-0.250,-0.250,0.000,0.000,0.000
1641234801328485120,2022-01-03-18:33:21,10.1.1.8,198,-0.260,-0.260,-0.260,0.000,0.000,0.000
1641234801935437056,2022-01-03-18:33:21,10.1.1.8,200,-0.290,-0.290,-0.290,0.000,0.000,0.000
1641234802135531008,2022-01-03-18:33:22,10.1.1.8,196,-0.300,-0.300,-0.300,0.000,0.000,0.000
1641234802335633920,2022-01-03-18:33:22,10.1.1.8,194,-0.310,-0.310,-0.310,0.000,0.000,0.000
1641234802534823936,2022-01-03-18:33:22,10.1.1.8,192,-0.320,-0.320,-0.320,0.000,0.000,0.000
1641234802734841088,2022-01-03-18:33:22,10.1.1.8,192,-0.330,-0.330,-0.330,0.000,0.000,0.000
1641234802935137024,2022-01-03-18:33:22,10.1.1.8,190,-0.340,-0.340,-0.340,0.000,0.000,0.000
1641234804553952000,2022-01-03-18:33:24,10.1.1.8,199,-0.420,-0.420,-0.420,0.000,0.000,0.000
1641234804753494016,2022-01-03-18:33:24,10.1.1.8,197,-0.430,-0.430,-0.430,0.000,0.000,0.000
1641234804955985920,2022-01-03-18:33:24,10.1.1.8,198,-0.440,-0.440,-0.440,0.000,0.000,0.000
1641234805153563904,2022-01-03-18:33:25,10.1.1.8,193,-0.450,-0.450,-0.450,0.000,0.000,0.000
1641234805354039040,2022-01-03-18:33:25,10.1.1.8,192,-0.460,-0.460,-0.460,0.000,0.000,0.000
1641234805973017088,2022-01-03-18:33:25,10.1.1.8,196,-0.490,-0.490,-0.490,0.000,0.000,0.000
1641234806181314048,2022-01-03-18:33:26,10.1.1.8,204,-0.480,-0.480,-0.480,0.000,0.000,0.000
1641234806573029888,2022-01-03-18:33:26,10.1.1.8,187,-0.460,-0.460,-0.460,0.000,0.000,0.000
1641234806792296960,2022-01-03-18:33:26,10.1.1.8,204,-0.450,-0.450,-0.450,0.000,0.000,0.000
1641234806991956992,2022-01-03-18:33:26,10.1.1.8,197,-0.440,-0.440,-0.440,0.000,0.000,0.000
1641234807192128000,2022-01-03-18:33:27,10.1.1.8,196,-0.430,-0.430,-0.430,0.000,0.000,0.000
1641234807391675904,2022-01-03-18:33:27,10.1.1.8,194,-0.420,-0.420,-0.420,0.000,0.000,0.000
1641234807591155968,2022-01-03-18:33:27,10.1.1.8,193,-0.410,-0.410,-0.410,0.000,0.000,0.000
1641234807791124992,2022-01-03-18:33:27,10.1.1.8,191,-0.400,-0.400,-0.400,0.000,0.000,0.000
1641234807991374080,2022-01-03-18:33:27,10.1.1.8,190,-0.390,-0.390,-0.390,0.000,0.000,0.000
1641234808191720960,2022-01-03-18:33:28,10.1.1.8,190,-0.380,-0.380,-0.380,0.000,0.000,0.000
1641234809400154112,2022-01-03-18:33:29,10.1.1.8,191,-0.320,-0.320,-0.320,0.000,0.000,0.000
1641234809609370880,2022-01-03-18:33:29,10.1.1.8,200,-0.310,-0.310,-0.310,0.000,0.000,0.000
1641234809809274880,2022-01-03-18:33:29,10.1.1.8,199,-0.300,-0.300,-0.300,0.000,0.000,0.000
1641234810009420032,2022-01-03-18:33:30,10.1.1.8,199,-0.290,-0.290,-0.290,0.000,0.000,0.000
1641234810210041088,2022-01-03-18:33:30,10.1.1.8,199,-0.280,-0.280,-0.280,0.000,0.000,0.000
1641234810408402944,2022-01-03-18:33:30,10.1.1.8,197,-0.270,-0.270,-0.270,0.000,0.000,0.000
1641234810610310912,2022-01-03-18:33:30,10.1.1.8,196,-0.260,-0.260,-0.260,0.000,0.000,0.000
1641234810808926976,2022-01-03-18:33:30,10.1.1.8,193,-0.250,-0.250,-0.250,0.000,0.000,0.000
1641234811008337920,2022-01-03-18:33:31,10.1.1.8,191,-0.240,-0.240,-0.240,0.000,0.000,0.000
1641234811207123968,2022-01-03-18:33:31,10.1.1.8,190,-0.230,-0.230,-0.230,0.000,0.000,0.000
1641234811407005952,2022-01-03-18:33:31,10.1.1.8,190,-0.220,-0.220,-0.220,0.000,0.000,0.000
1641234811610279936,2022-01-03-18:33:31,10.1.1.8,192,-0.210,-0.210,-0.210,0.000,0.000,0.000
1641234811806565888,2022-01-03-18:33:31,10.1.1.8,188,-0.200,-0.200,-0.200,0.000,0.000,0.000
1641234812006697984,2022-01-03-18:33:32,10.1.1.8,188,-0.190,-0.190,-0.190,0.000,0.000,0.000
1641234812206185984,2022-01-03-18:33:32,10.1.1.8,186,-0.180,-0.180,-0.180,0.000,0.000,0.000
1641234812405846016,2022-01-03-18:33:32,10.1.1.8,186,-0.170,-0.170,-0.170,0.000,0.000,0.000
1641234812605870080,2022-01-03-18:33:32,10.1.1.8,185,-0.160,-0.160,-0.160,0.000,0.000,0.000
1641234812805807104,2022-01-03-18:33:32,10.1.1.8,183,-0.150,-0.150,-0.150,0.000,0.000,0.000
1641234813005052160,2022-01-03-18:33:33,10.1.1.8,182,-0.140,-0.140,-0.140,0.000,0.000,0.000
1641234813204327168,2022-01-03-18:33:33,10.1.1.8,179,-0.130,-0.130,-0.130,0.000,0.000,0.000
1641234813628442880,2022-01-03-18:33:33,10.1.1.8,198,-0.110,-0.110,-0.110,0.000,0.000,0.000
1641234813825405952,2022-01-03-18:33:33,10.1.1.8,194,-0.100,-0.100,-0.100,0.000,0.000,0.000
1641234814026544128,2022-01-03-18:33:34,10.1.1.8,194,-0.090,-0.090,-0.090,0.000,0.000,0.000
1641234814226246144,2022-01-03-18:33:34,10.1.1.8,194,-0.080,-0.080,-0.080,0.000,0.000,0.000
1641234814640312064,2022-01-03-18:33:34,10.1.1.8,202,-0.060,-0.060,-0.060,0.000,0.000,0.000
1641234814822366976,2022-01-03-18:33:34,10.1.1.8,181,-0.050,-0.050,-0.050,0.000,0.000,0.000
1641234815043606016,2022-01-03-18:33:35,10.1.1.8,197,-0.040,-0.040,-0.040,0.000,0.000,0.000
1641234815241654016,2022-01-03-18:33:35,10.1.1.8,194,-0.030,-0.030,-0.030,0.000,0.000,0.000
1641234815442731008,2022-01-03-18:33:35,10.1.1.8,195,-0.020,-0.020,-0.020,0.000,0.000,0.000
1641234815640996096,2022-01-03-18:33:35,10.1.1.8,191,-0.010,-0.010,-0.010,0.000,0.000,0.000
1641234815841545216,2022-01-03-18:33:35,10.1.1.8,191,0.000,0.000,0.000,0.000,0.000,0.000
1641234816040205056,2022-01-03-18:33:36,10.1.1.8,189,-0.010,-0.010,-0.010,0.000,0.000,0.000
1641234816240380928,2022-01-03-18:33:36,10.1.1.8,188,-0.020,-0.020,-0.020,0.000,0.000,0.000
1641234816441628928,2022-01-03-18:33:36,10.1.1.8,186,-0.030,-0.030,-0.030,0.000,0.000,0.000
1641234816641104896,2022-01-03-18:33:36,10.1.1.8,186,-0.040,-0.040,-0.040,0.000,0.000,0.000
1641234816840527104,2022-01-03-18:33:36,10.1.1.8,184,-0.050,-0.050,-0.050,0.000,0.000,0.000
1641234817046743040,2022-01-03-18:33:37,10.1.1.8,189,-0.060,-0.060,-0.060,0.000,0.000,0.000
1641234817241234944,2022-01-03-18:33:37,10.1.1.8,181,-0.070,-0.070,-0.070,0.000,0.000,0.000
1641234817438240000,2022-01-03-18:33:37,10.1.1.8,179,-0.080,-0.080,-0.080,0.000,0.000,0.000
1641234817638202880,2022-01-03-18:33:37,10.1.1.8,179,-0.090,-0.090,-0.090,0.000,0.000,0.000
1641234817838476800,2022-01-03-18:33:37,10.1.1.8,178,-0.100,-0.100,-0.100,0.000,0.000,0.000
1641234818038070016,2022-01-03-18:33:38,10.1.1.8,176,-0.110,-0.110,-0.110,0.000,0.000,0.000
1641234818237332224,2022-01-03-18:33:38,10.1.1.8,175,-0.120,-0.120,-0.120,0.000,0.000,0.000
1641234818438859008,2022-01-03-18:33:38,10.1.1.8,176,-0.130,-0.130,-0.130,0.000,0.000,0.000
1641234818637254912,2022-01-03-18:33:38,10.1.1.8,173,-0.140,-0.140,-0.140,0.000,0.000,0.000
1641234818863251968,2022-01-03-18:33:38,10.1.1.8,199,-0.150,-0.150,-0.150,0.000,0.000,0.000
1641234819036487168,2022-01-03-18:33:39,10.1.1.8,171,-0.160,-0.160,-0.160,0.000,0.000,0.000
1641234819257004032,2022-01-03-18:33:39,10.1.1.8,191,-0.170,-0.170,-0.170,0.000,0.000,0.000
1641234819454718976,2022-01-03-18:33:39,10.1.1.8,188,-0.180,-0.180,-0.180,0.000,0.000,0.000
1641234819655462912,2022-01-03-18:33:39,10.1.1.8,188,-0.190,-0.190,-0.190,0.000,0.000,0.000
1641234819856452096,2022-01-03-18:33:39,10.1.1.8,188,-0.200,-0.200,-0.200,0.000,0.000,0.000
1641234820054635008,2022-01-03-18:33:40,10.1.1.8,186,-0.210,-0.210,-0.210,0.000,0.000,0.000
1641234820257792000,2022-01-03-18:33:40,10.1.1.8,188,-0.220,-0.220,-0.220,0.000,0.000,0.000
1641234820455107072,2022-01-03-18:33:40,10.1.1.8,183,-0.230,-0.230,-0.230,0.000,0.000,0.000
1641234820857165056,2022-01-03-18:33:40,10.1.1.8,184,-0.250,-0.250,-0.250,0.000,0.000,0.000
1641234821056980992,2022-01-03-18:33:41,10.1.1.8,180,-0.260,-0.260,-0.260,0.000,0.000,0.000
1641234821261778176,2022-01-03-18:33:41,10.1.1.8,184,-0.270,-0.270,-0.270,0.000,0.000,0.000
1641234821473275904,2022-01-03-18:33:41,10.1.1.8,195,-0.280,-0.280,-0.280,0.000,0.000,0.000
1641234821677534208,2022-01-03-18:33:41,10.1.1.8,188,-0.290,-0.290,-0.290,0.000,0.000,0.000
1641234821876691968,2022-01-03-18:33:41,10.1.1.8,187,-0.300,-0.300,-0.300,0.000,0.000,0.000
1641234822078843136,2022-01-03-18:33:42,10.1.1.8,187,-0.310,-0.310,-0.310,0.000,0.000,0.000
1641234822278465024,2022-01-03-18:33:42,10.1.1.8,186,-0.320,-0.320,-0.320,0.000,0.000,0.000
1641234822477818880,2022-01-03-18:33:42,10.1.1.8,183,-0.330,-0.330,-0.330,0.000,0.000,0.000
1641234822676295168,2022-01-03-18:33:42,10.1.1.8,181,-0.340,-0.340,-0.340,0.000,0.000,0.000
1641234822876099072,2022-01-03-18:33:42,10.1.1.8,179,-0.350,-0.350,-0.350,0.000,0.000,0.000
1641234823076294912,2022-01-03-18:33:43,10.1.1.8,178,-0.360,-0.360,-0.360,0.000,0.000,0.000
1641234823276432128,2022-01-03-18:33:43,10.1.1.8,178,-0.370,-0.370,-0.370,0.000,0.000,0.000
1641234823479860992,2022-01-03-18:33:43,10.1.1.8,176,-0.380,-0.380,-0.380,0.000,0.000,0.000
1641234823698067968,2022-01-03-18:33:43,10.1.1.8,194,-0.390,-0.390,-0.390,0.000,0.000,0.000
1641234823896483840,2022-01-03-18:33:43,10.1.1.8,192,-0.400,-0.400,-0.400,0.000,0.000,0.000
1641234824076807936,2022-01-03-18:33:44,10.1.1.8,172,-0.410,-0.410,-0.410,0.000,0.000,0.000
1641234824276659968,2022-01-03-18:33:44,10.1.1.8,171,-0.420,-0.420,-0.420,0.000,0.000,0.000
1641234824498253056,2022-01-03-18:33:44,10.1.1.8,192,-0.430,-0.430,-0.430,0.000,0.000,0.000
1641234824696681984,2022-01-03-18:33:44,10.1.1.8,189,-0.440,-0.440,-0.440,0.000,0.000,0.000
1641234824896924928,2022-01-03-18:33:44,10.1.1.8,189,-0.450,-0.450,-0.450,0.000,0.000,0.000
1641234825097164032,2022-01-03-18:33:45,10.1.1.8,189,-0.460,-0.460,-0.460,0.000,0.000,0.000
1641234825297536000,2022-01-03-18:33:45,10.1.1.8,188,-0.470,-0.470,-0.470,0.000,0.000,0.000
1641234825497139968,2022-01-03-18:33:45,10.1.1.8,187,-0.480,-0.480,-0.480,0.000,0.000,0.000
1641234825697659904,2022-01-03-18:33:45,10.1.1.8,187,-0.490,-0.490,-0.490,0.000,0.000,0.000
1641234825901134848,2022-01-03-18:33:45,10.1.1.8,189,-0.480,-0.480,-0.480,0.000,0.000,0.000
1641234826098910208,2022-01-03-18:33:46,10.1.1.8,186,-0.470,-0.470,-0.470,0.000,0.000,0.000
1641234826305952000,2022-01-03-18:33:46,10.1.1.8,193,-0.460,-0.460,-0.460,0.000,0.000,0.000
1641234826496953088,2022-01-03-18:33:46,10.1.1.8,183,-0.450,-0.450,-0.450,0.000,0.000,0.000
1641234826697252864,2022-01-03-18:33:46,10.1.1.8,180,-0.440,-0.440,-0.440,0.000,0.000,0.000
1641234826898131968,2022-01-03-18:33:46,10.1.1.8,180,-0.430,-0.430,-0.430,0.000,0.000,0.000
1641234827099611904,2022-01-03-18:33:47,10.1.1.8,181,-0.420,-0.420,-0.420,0.000,0.000,0.000
1641234827297202944,2022-01-03-18:33:47,10.1.1.8,178,-0.410,-0.410,-0.410,0.000,0.000,0.000
1641234827502507008,2022-01-03-18:33:47,10.1.1.8,183,-0.400,-0.400,-0.400,0.000,0.000,0.000
1641234827707644928,2022-01-03-18:33:47,10.1.1.8,187,-0.390,-0.390,-0.390,0.000,0.000,0.000
1641234827898204928,2022-01-03-18:33:47,10.1.1.8,177,-0.380,-0.380,-0.380,0.000,0.000,0.000
1641234828096573184,2022-01-03-18:33:48,10.1.1.8,175,-0.370,-0.370,-0.370,0.000,0.000,0.000
1641234828296690944,2022-01-03-18:33:48,10.1.1.8,174,-0.360,-0.360,-0.360,0.000,0.000,0.000
1641234828498704896,2022-01-03-18:33:48,10.1.1.8,175,-0.350,-0.350,-0.350,0.000,0.000,0.000
1641234828696923904,2022-01-03-18:33:48,10.1.1.8,173,-0.340,-0.340,-0.340,0.000,0.000,0.000
1641234828896226816,2022-01-03-18:33:48,10.1.1.8,171,-0.330,-0.330,-0.330,0.000,0.000,0.000
1641234829116528896,2022-01-03-18:33:49,10.1.1.8,189,-0.320,-0.320,-0.320,0.000,0.000,0.000
1641234829317491968,2022-01-03-18:33:49,10.1.1.8,189,-0.310,-0.310,-0.310,0.000,0.000,0.000
1641234829516858112,2022-01-03-18:33:49,10.1.1.8,187,-0.300,-0.300,-0.300,0.000,0.000,0.000
1641234829717096960,2022-01-03-18:33:49,10.1.1.8,187,-0.290,-0.290,-0.290,0.000,0.000,0.000
1641234829916827904,2022-01-03-18:33:49,10.1.1.8,186,-0.280,-0.280,-0.280,0.000,0.000,0.000
1641234830117362944,2022-01-03-18:33:50,10.1.1.8,186,-0.270,-0.270,-0.270,0.000,0.000,0.000
1641234830316782080,2022-01-03-18:33:50,10.1.1.8,185,-0.260,-0.260,-0.260,0.000,0.000,0.000
1641234830517054208,2022-01-03-18:33:50,10.1.1.8,184,-0.250,-0.250,-0.250,0.000,0.000,0.000
1641234830716950016,2022-01-03-18:33:50,10.1.1.8,183,-0.240,-0.240,-0.240,0.000,0.000,0.000
1641234830908852992,2022-01-03-18:33:50,10.1.1.8,175,-0.230,-0.230,-0.230,0.000,0.000,0.000
1641234831116386048,2022-01-03-18:33:51,10.1.1.8,181,-0.220,-0.220,-0.220,0.000,0.000,0.000
1641234831308895232,2022-01-03-18:33:51,10.1.1.8,172,-0.210,-0.210,-0.210,0.000,0.000,0.000
1641234831516238080,2022-01-03-18:33:51,10.1.1.8,179,-0.200,-0.200,-0.200,0.000,0.000,0.000
1641234831716571136,2022-01-03-18:33:51,10.1.1.8,178,-0.190,-0.190,-0.190,0.000,0.000,0.000
1641234831942269184,2022-01-03-18:33:51,10.1.1.8,202,-0.180,-0.180,-0.180,0.000,0.000,0.000
1641234832136670976,2022-01-03-18:33:52,10.1.1.8,193,-0.170,-0.170,-0.170,0.000,0.000,0.000
1641234832317528064,2022-01-03-18:33:52,10.1.1.8,173,-0.160,-0.160,-0.160,0.000,0.000,0.000
1641234832515269120,2022-01-03-18:33:52,10.1.1.8,171,-0.150,-0.150,-0.150,0.000,0.000,0.000
1641234832714713088,2022-01-03-18:33:52,10.1.1.8,170,-0.140,-0.140,-0.140,0.000,0.000,0.000
1641234832934583808,2022-01-03-18:33:52,10.1.1.8,189,-0.130,-0.130,-0.130,0.000,0.000,0.000
1641234833338136832,2022-01-03-18:33:53,10.1.1.8,190,-0.110,-0.110,-0.110,0.000,0.000,0.000
1641234833536676864,2022-01-03-18:33:53,10.1.1.8,187,-0.100,-0.100,-0.100,0.000,0.000,0.000
1641234833737880064,2022-01-03-18:33:53,10.1.1.8,188,-0.090,-0.090,-0.090,0.000,0.000,0.000
1641234833925121024,2022-01-03-18:33:53,10.1.1.8,172,-0.080,-0.080,-0.080,0.000,0.000,0.000
1641234834134712832,2022-01-03-18:33:54,10.1.1.8,181,-0.070,-0.070,-0.070,0.000,0.000,0.000
1641234834334286080,2022-01-03-18:33:54,10.1.1.8,180,-0.060,-0.060,-0.060,0.000,0.000,0.000
1641234834534522112,2022-01-03-18:33:54,10.1.1.8,180,-0.050,-0.050,-0.050,0.000,0.000,0.000
1641234834734516992,2022-01-03-18:33:54,10.1.1.8,179,-0.040,-0.040,-0.040,0.000,0.000,0.000
1641234834933942016,2022-01-03-18:33:54,10.1.1.8,177,-0.030,-0.030,-0.030,0.000,0.000,0.000
1641234835133199104,2022-01-03-18:33:55,10.1.1.8,175,-0.020,-0.020,-0.020,0.000,0.000,0.000
1641234835333826048,2022-01-03-18:33:55,10.1.1.8,171,-0.010,-0.010,-0.010,0.000,0.000,0.000
1641234835540465152,2022-01-03-18:33:55,10.1.1.8,178,0.000,0.000,0.000,0.000,0.000,0.000
1641234835752715008,2022-01-03-18:33:55,10.1.1.8,184,-0.010,-0.010,-0.010,0.000,0.000,0.000
1641234835961626112,2022-01-03-18:33:55,10.1.1.8,177,-0.020,-0.020,-0.020,0.000,0.000,0.000
1641234836173431040,2022-01-03-18:33:56,10.1.1.8,188,-0.030,-0.030,-0.030,0.000,0.000,0.000
1641234836372797952,2022-01-03-18:33:56,10.1.1.8,185,-0.040,-0.040,-0.040,0.000,0.000,0.000
1641234836586355968,2022-01-03-18:33:56,10.1.1.8,197,-0.050,-0.050,-0.050,0.000,0.000,0.000
1641234836772401152,2022-01-03-18:33:56,10.1.1.8,173,-0.060,-0.060,-0.060,0.000,0.000,0.000
1641234836972628992,2022-01-03-18:33:56,10.1.1.8,172,-0.070,-0.070,-0.070,0.000,0.000,0.000
1641234837175927040,2022-01-03-18:33:57,10.1.1.8,175,-0.080,-0.080,-0.080,0.000,0.000,0.000
1641234837372616960,2022-01-03-18:33:57,10.1.1.8,170,-0.090,-0.090,-0.090,0.000,0.000,0.000
1641234837571827968,2022-01-03-18:33:57,10.1.1.8,169,-0.100,-0.100,-0.100,0.000,0.000,0.000
1641234837823226880,2022-01-03-18:33:57,10.1.1.8,220,-0.110,-0.110,-0.110,0.000,0.000,0.000
1641234838011267072,2022-01-03-18:33:58,10.1.1.8,183,-0.120,-0.120,-0.120,0.000,0.000,0.000
1641234838210832128,2022-01-03-18:33:58,10.1.1.8,181,-0.130,-0.130,-0.130,0.000,0.000,0.000
1641234838410953984,2022-01-03-18:33:58,10.1.1.8,181,-0.140,-0.140,-0.140,0.000,0.000,0.000
1641234838615150848,2022-01-03-18:33:58,10.1.1.8,185,-0.150,-0.150,-0.150,0.000,0.000,0.000
1641234838825203968,2022-01-03-18:33:58,10.1.1.8,181,-0.160,-0.160,-0.160,0.000,0.000,0.000
1641234839210753792,2022-01-03-18:33:59,10.1.1.8,176,-0.180,-0.180,-0.180,0.000,0.000,0.000
1641234839410936064,2022-01-03-18:33:59,10.1.1.8,172,-0.190,-0.190,-0.190,0.000,0.000,0.000
1641234839610447872,2022-01-03-18:33:59,10.1.1.8,171,-0.200,-0.200,-0.200,0.000,0.000,0.000
1641234839810937856,2022-01-03-18:33:59,10.1.1.8,167,-0.210,-0.210,-0.210,0.000,0.000,0.000
1641234840042994944,2022-01-03-18:34:00,10.1.1.8,198,-0.220,-0.220,-0.220,0.000,0.000,0.000
1641234840251919104,2022-01-03-18:34:00,10.1.1.8,175,-0.230,-0.230,-0.230,0.000,0.000,0.000
1641234840454508032,2022-01-03-18:34:00,10.1.1.8,178,-0.240,-0.240,-0.240,0.000,0.000,0.000
1641234840650300928,2022-01-03-18:34:00,10.1.1.8,173,-0.250,-0.250,-0.250,0.000,0.000,0.000
1641234840849035008,2022-01-03-18:34:00,10.1.1.8,164,-0.260,-0.260,-0.260,0.000,0.000,0.000
1641234841069022976,2022-01-03-18:34:01,10.1.1.8,183,-0.270,-0.270,-0.270,0.000,0.000,0.000
1641234841272222976,2022-01-03-18:34:01,10.1.1.8,185,-0.280,-0.280,-0.280,0.000,0.000,0.000
1641234841468838912,2022-01-03-18:34:01,10.1.1.8,181,-0.290,-0.290,-0.290,0.000,0.000,0.000
1641234841667608064,2022-01-03-18:34:01,10.1.1.8,178,-0.300,-0.300,-0.300,0.000,0.000,0.000
1641234841876292096,2022-01-03-18:34:01,10.1.1.8,178,-0.310,-0.310,-0.310,0.000,0.000,0.000
1641234842068291072,2022-01-03-18:34:02,10.1.1.8,170,-0.320,-0.320,-0.320,0.000,0.000,0.000
1641234842287015936,2022-01-03-18:34:02,10.1.1.8,187,-0.330,-0.330,-0.330,0.000,0.000,0.000
1641234842477658880,2022-01-03-18:34:02,10.1.1.8,177,-0.340,-0.340,-0.340,0.000,0.000,0.000
1641234842686605056,2022-01-03-18:34:02,10.1.1.8,180,-0.350,-0.350,-0.350,0.000,0.000,0.000
1641234842886359808,2022-01-03-18:34:02,10.1.1.8,178,-0.360,-0.360,-0.360,0.000,0.000,0.000
1641234843093650176,2022-01-03-18:34:03,10.1.1.8,185,-0.370,-0.370,-0.370,0.000,0.000,0.000
1641234843286048000,2022-01-03-18:34:03,10.1.1.8,174,-0.380,-0.380,-0.380,0.000,0.000,0.000
1641234843485837824,2022-01-03-18:34:03,10.1.1.8,171,-0.390,-0.390,-0.390,0.000,0.000,0.000
1641234843692193024,2022-01-03-18:34:03,10.1.1.8,176,-0.400,-0.400,-0.400,0.000,0.000,0.000
1641234843886360832,2022-01-03-18:34:03,10.1.1.8,162,-0.410,-0.410,-0.410,0.000,0.000,0.000
1641234844085128960,2022-01-03-18:34:04,10.1.1.8,160,-0.420,-0.420,-0.420,0.000,0.000,0.000
1641234844305401088,2022-01-03-18:34:04,10.1.1.8,179,-0.430,-0.430,-0.430,0.000,0.000,0.000
1641234844504723968,2022-01-03-18:34:04,10.1.1.8,178,-0.440,-0.440,-0.440,0.000,0.000,0.000
1641234844705202944,2022-01-03-18:34:04,10.1.1.8,177,-0.450,-0.450,-0.450,0.000,0.000,0.000
1641234844897799936,2022-01-03-18:34:04,10.1.1.8,164,-0.460,-0.460,-0.460,0.000,0.000,0.000
1641234845103817984,2022-01-03-18:34:05,10.1.1.8,172,-0.470,-0.470,-0.470,0.000,0.000,0.000
1641234845303800064,2022-01-03-18:34:05,10.1.1.8,172,-0.480,-0.480,-0.480,0.000,0.000,0.000
1641234845503113984,2022-01-03-18:34:05,10.1.1.8,165,-0.490,-0.490,-0.490,0.000,0.000,0.000
1641234845706286080,2022-01-03-18:34:05,10.1.1.8,167,-0.480,-0.480,-0.480,0.000,0.000,0.000
1641234845933479936,2022-01-03-18:34:05,10.1.1.8,193,-0.470,-0.470,-0.470,0.000,0.000,0.000
1641234846102361856,2022-01-03-18:34:06,10.1.1.8,162,-0.460,-0.460,-0.460,0.000,0.000,0.000
1641234846311106048,2022-01-03-18:34:06,10.1.1.8,170,-0.450,-0.450,-0.450,0.000,0.000,0.000
1641234846521111040,2022-01-03-18:34:06,10.1.1.8,179,-0.440,-0.440,-0.440,0.000,0.000,0.000
1641234846706459136,2022-01-03-18:34:06,10.1.1.8,162,-0.430,-0.430,-0.430,0.000,0.000,0.000
1641234846927675904,2022-01-03-18:34:06,10.1.1.8,174,-0.420,-0.420,-0.420,0.000,0.000,0.000
1641234847141175040,2022-01-03-18:34:07,10.1.1.8,166,-0.410,-0.410,-0.410,0.000,0.000,0.000
1641234847344367104,2022-01-03-18:34:07,10.1.1.8,168,-0.400,-0.400,-0.400,0.000,0.000,0.000
1641234847541222144,2022-01-03-18:34:07,10.1.1.8,165,-0.390,-0.390,-0.390,0.000,0.000,0.000
1641234847744743936,2022-01-03-18:34:07,10.1.1.8,166,-0.380,-0.380,-0.380,0.000,0.000,0.000
1641234847961812992,2022-01-03-18:34:07,10.1.1.8,182,-0.370,-0.370,-0.370,0.000,0.000,0.000
1641234848168461056,2022-01-03-18:34:08,10.1.1.8,188,-0.360,-0.360,-0.360,0.000,0.000,0.000
1641234848340122880,2022-01-03-18:34:08,10.1.1.8,158,-0.350,-0.350,-0.350,0.000,0.000,0.000
1641234848540488960,2022-01-03-18:34:08,10.1.1.8,156,-0.340,-0.340,-0.340,0.000,0.000,0.000
1641234848759567872,2022-01-03-18:34:08,10.1.1.8,173,-0.330,-0.330,-0.330,0.000,0.000,0.000
1641234848959512064,2022-01-03-18:34:08,10.1.1.8,172,-0.320,-0.320,-0.320,0.000,0.000,0.000
1641234849173011968,2022-01-03-18:34:09,10.1.1.8,185,-0.310,-0.310,-0.310,0.000,0.000,0.000
1641234849558214912,2022-01-03-18:34:09,10.1.1.8,166,-0.290,-0.290,-0.290,0.000,0.000,0.000
1641234849778072064,2022-01-03-18:34:09,10.1.1.8,164,-0.280,-0.280,-0.280,0.000,0.000,0.000
1641234849978359040,2022-01-03-18:34:09,10.1.1.8,162,-0.270,-0.270,-0.270,0.000,0.000,0.000
1641234850178041856,2022-01-03-18:34:10,10.1.1.8,161,-0.260,-0.260,-0.260,0.000,0.000,0.000
1641234850377648128,2022-01-03-18:34:10,10.1.1.8,159,-0.250,-0.250,-0.250,0.000,0.000,0.000
1641234850578052096,2022-01-03-18:34:10,10.1.1.8,158,-0.240,-0.240,-0.240,0.000,0.000,0.000
1641234850780011776,2022-01-03-18:34:10,10.1.1.8,157,-0.230,-0.230,-0.230,0.000,0.000,0.000
1641234850977894912,2022-01-03-18:34:10,10.1.1.8,156,-0.220,-0.220,-0.220,0.000,0.000,0.000
1641234851177298944,2022-01-03-18:34:11,10.1.1.8,154,-0.210,-0.210,-0.210,0.000,0.000,0.000
1641234851395740928,2022-01-03-18:34:11,10.1.1.8,170,-0.200,-0.200,-0.200,0.000,0.000,0.000
1641234851624583936,2022-01-03-18:34:11,10.1.1.8,198,-0.190,-0.190,-0.190,0.000,0.000,0.000
1641234851797796864,2022-01-03-18:34:11,10.1.1.8,152,-0.180,-0.180,-0.180,0.000,0.000,0.000
1641234852037682944,2022-01-03-18:34:12,10.1.1.8,161,-0.170,-0.170,-0.170,0.000,0.000,0.000
1641234852237152000,2022-01-03-18:34:12,10.1.1.8,159,-0.160,-0.160,-0.160,0.000,0.000,0.000
1641234852434330880,2022-01-03-18:34:12,10.1.1.8,155,-0.150,-0.150,-0.150,0.000,0.000,0.000
1641234852634044928,2022-01-03-18:34:12,10.1.1.8,151,-0.140,-0.140,-0.140,0.000,0.000,0.000
1641234852834761984,2022-01-03-18:34:12,10.1.1.8,151,-0.130,-0.130,-0.130,0.000,0.000,0.000
1641234853053140992,2022-01-03-18:34:13,10.1.1.8,161,-0.120,-0.120,-0.120,0.000,0.000,0.000
1641234853253062912,2022-01-03-18:34:13,10.1.1.8,159,-0.110,-0.110,-0.110,0.000,0.000,0.000
1641234853452357120,2022-01-03-18:34:13,10.1.1.8,158,-0.100,-0.100,-0.100,0.000,0.000,0.000
1641234853653711104,2022-01-03-18:34:13,10.1.1.8,157,-0.090,-0.090,-0.090,0.000,0.000,0.000
1641234853852395008,2022-01-03-18:34:13,10.1.1.8,156,-0.080,-0.080,-0.080,0.000,0.000,0.000
1641234854053380096,2022-01-03-18:34:14,10.1.1.8,155,-0.070,-0.070,-0.070,0.000,0.000,0.000
1641234854251990016,2022-01-03-18:34:14,10.1.1.8,154,-0.060,-0.060,-0.060,0.000,0.000,0.000
1641234854450812160,2022-01-03-18:34:14,10.1.1.8,150,-0.050,-0.050,-0.050,0.000,0.000,0.000
1641234854651559168,2022-01-03-18:34:14,10.1.1.8,150,-0.040,-0.040,-0.040,0.000,0.000,0.000
1641234854851161088,2022-01-03-18:34:14,10.1.1.8,150,-0.030,-0.030,-0.030,0.000,0.000,0.000
1641234855100719872,2022-01-03-18:34:15,10.1.1.8,198,-0.020,-0.020,-0.020,0.000,0.000,0.000
1641234855329971968,2022-01-03-18:34:15,10.1.1.8,158,-0.010,-0.010,-0.010,0.000,0.000,0.000
1641234855529876992,2022-01-03-18:34:15,10.1.1.8,157,0.000,0.000,0.000,0.000,0.000,0.000
1641234855764208128,2022-01-03-18:34:15,10.1.1.8,190,-0.010,-0.010,-0.010,0.000,0.000,0.000
1641234855932493824,2022-01-03-18:34:15,10.1.1.8,158,-0.020,-0.020,-0.020,0.000,0.000,0.000
1641234856129170944,2022-01-03-18:34:16,10.1.1.8,151,-0.030,-0.030,-0.030,0.000,0.000,0.000
1641234856395038976,2022-01-03-18:34:16,10.1.1.8,150,-0.040,-0.040,-0.040,0.000,0.000,0.000
1641234856608719104,2022-01-03-18:34:16,10.1.1.8,162,-0.050,-0.050,-0.050,0.000,0.000,0.000
1641234856812979968,2022-01-03-18:34:16,10.1.1.8,166,-0.060,-0.060,-0.060,0.000,0.000,0.000
1641234857007913984,2022-01-03-18:34:17,10.1.1.8,160,-0.070,-0.070,-0.070,0.000,0.000,0.000
1641234857208101120,2022-01-03-18:34:17,10.1.1.8,160,-0.080,-0.080,-0.080,0.000,0.000,0.000
1641234857626969088,2022-01-03-18:34:17,10.1.1.8,147,-0.100,-0.100,-0.100,0.000,0.000,0.000
1641234857826926848,2022-01-03-18:34:17,10.1.1.8,144,-0.110,-0.110,-0.110,0.000,0.000,0.000
1641234858025758976,2022-01-03-18:34:18,10.1.1.8,142,-0.120,-0.120,-0.120,0.000,0.000,0.000
1641234858247035136,2022-01-03-18:34:18,10.1.1.8,162,-0.130,-0.130,-0.130,0.000,0.000,0.000
1641234858445255168,2022-01-03-18:34:18,10.1.1.8,159,-0.140,-0.140,-0.140,0.000,0.000,0.000
1641234858646034944,2022-01-03-18:34:18,10.1.1.8,158,-0.150,-0.150,-0.150,0.000,0.000,0.000
1641234858844742912,2022-01-03-18:34:18,10.1.1.8,156,-0.160,-0.160,-0.160,0.000,0.000,0.000
1641234859044420864,2022-01-03-18:34:19,10.1.1.8,154,-0.170,-0.170,-0.170,0.000,0.000,0.000
1641234859249670912,2022-01-03-18:34:19,10.1.1.8,156,-0.180,-0.180,-0.180,0.000,0.000,0.000
1641234859437422080,2022-01-03-18:34:19,10.1.1.8,143,-0.190,-0.190,-0.190,0.000,0.000,0.000
1641234859863549952,2022-01-03-18:34:19,10.1.1.8,158,-0.210,-0.210,-0.210,0.000,0.000,0.000
1641234860063149824,2022-01-03-18:34:20,10.1.1.8,157,-0.220,-0.220,-0.220,0.000,0.000,0.000
1641234860273582848,2022-01-03-18:34:20,10.1.1.8,165,-0.230,-0.230,-0.230,0.000,0.000,0.000
1641234860464432128,2022-01-03-18:34:20,10.1.1.8,150,-0.240,-0.240,-0.240,0.000,0.000,0.000
1641234860664123904,2022-01-03-18:34:20,10.1.1.8,149,-0.250,-0.250,-0.250,0.000,0.000,0.000
1641234860864502784,2022-01-03-18:34:20,10.1.1.8,143,-0.260,-0.260,-0.260,0.000,0.000,0.000
1641234861061374976,2022-01-03-18:34:21,10.1.1.8,139,-0.270,-0.270,-0.270,0.000,0.000,0.000
1641234861261341952,2022-01-03-18:34:21,10.1.1.8,139,-0.280,-0.280,-0.280,0.000,0.000,0.000
1641234861460802048,2022-01-03-18:34:21,10.1.1.8,137,-0.290,-0.290,-0.290,0.000,0.000,0.000
1641234861680771072,2022-01-03-18:34:21,10.1.1.8,153,-0.300,-0.300,-0.300,0.000,0.000,0.000
1641234861890150144,2022-01-03-18:34:21,10.1.1.8,162,-0.310,-0.310,-0.310,0.000,0.000,0.000
1641234862079938048,2022-01-03-18:34:22,10.1.1.8,150,-0.320,-0.320,-0.320,0.000,0.000,0.000
1641234862283983872,2022-01-03-18:34:22,10.1.1.8,153,-0.330,-0.330,-0.330,0.000,0.000,0.000
1641234862483421952,2022-01-03-18:34:22,10.1.1.8,146,-0.340,-0.340,-0.340,0.000,0.000,0.000
1641234862680452096,2022-01-03-18:34:22,10.1.1.8,138,-0.350,-0.350,-0.350,0.000,0.000,0.000
1641234862878462976,2022-01-03-18:34:22,10.1.1.8,135,-0.360,-0.360,-0.360,0.000,0.000,0.000
1641234863085985024,2022-01-03-18:34:23,10.1.1.8,135,-0.370,-0.370,-0.370,0.000,0.000,0.000
1641234863298844928,2022-01-03-18:34:23,10.1.1.8,153,-0.380,-0.380,-0.380,0.000,0.000,0.000
1641234863498199040,2022-01-03-18:34:23,10.1.1.8,151,-0.390,-0.390,-0.390,0.000,0.000,0.000
1641234863697516800,2022-01-03-18:34:23,10.1.1.8,148,-0.400,-0.400,-0.400,0.000,0.000,0.000
1641234863896801024,2022-01-03-18:34:23,10.1.1.8,147,-0.410,-0.410,-0.410,0.000,0.000,0.000
1641234864113529856,2022-01-03-18:34:24,10.1.1.8,148,-0.420,-0.420,-0.420,0.000,0.000,0.000
1641234864297254912,2022-01-03-18:34:24,10.1.1.8,142,-0.430,-0.430,-0.430,0.000,0.000,0.000
1641234864499486976,2022-01-03-18:34:24,10.1.1.8,143,-0.440,-0.440,-0.440,0.000,0.000,0.000
1641234864695707136,2022-01-03-18:34:24,10.1.1.8,139,-0.450,-0.450,-0.450,0.000,0.000,0.000
1641234864897142016,2022-01-03-18:34:24,10.1.1.8,135,-0.460,-0.460,-0.460,0.000,0.000,0.000
1641234865094917120,2022-01-03-18:34:25,10.1.1.8,132,-0.470,-0.470,-0.470,0.000,0.000,0.000
1641234865294765056,2022-01-03-18:34:25,10.1.1.8,131,-0.480,-0.480,-0.480,0.000,0.000,0.000
1641234865501890048,2022-01-03-18:34:25,10.1.1.8,138,-0.490,-0.490,-0.490,0.000,0.000,0.000
1641234865713932032,2022-01-03-18:34:25,10.1.1.8,148,-0.480,-0.480,-0.480,0.000,0.000,0.000
1641234865913743872,2022-01-03-18:34:25,10.1.1.8,146,-0.470,-0.470,-0.470,0.000,0.000,0.000
1641234866113195008,2022-01-03-18:34:26,10.1.1.8,144,-0.460,-0.460,-0.460,0.000,0.000,0.000
1641234866314073088,2022-01-03-18:34:26,10.1.1.8,143,-0.450,-0.450,-0.450,0.000,0.000,0.000
1641234866534045952,2022-01-03-18:34:26,10.1.1.8,162,-0.440,-0.440,-0.440,0.000,0.000,0.000
1641234866732657920,2022-01-03-18:34:26,10.1.1.8,141,-0.430,-0.430,-0.430,0.000,0.000,0.000
1641234866932198144,2022-01-03-18:34:26,10.1.1.8,134,-0.420,-0.420,-0.420,0.000,0.000,0.000
1641234867152948992,2022-01-03-18:34:27,10.1.1.8,154,-0.410,-0.410,-0.410,0.000,0.000,0.000
1641234867331653120,2022-01-03-18:34:27,10.1.1.8,131,-0.400,-0.400,-0.400,0.000,0.000,0.000
1641234867531330048,2022-01-03-18:34:27,10.1.1.8,129,-0.390,-0.390,-0.390,0.000,0.000,0.000
1641234867750969856,2022-01-03-18:34:27,10.1.1.8,145,-0.380,-0.380,-0.380,0.000,0.000,0.000
1641234867951262976,2022-01-03-18:34:27,10.1.1.8,145,-0.370,-0.370,-0.370,0.000,0.000,0.000
1641234868150338048,2022-01-03-18:34:28,10.1.1.8,141,-0.360,-0.360,-0.360,0.000,0.000,0.000
1641234868349659904,2022-01-03-18:34:28,10.1.1.8,140,-0.350,-0.350,-0.350,0.000,0.000,0.000
1641234868549329920,2022-01-03-18:34:28,10.1.1.8,137,-0.340,-0.340,-0.340,0.000,0.000,0.000
1641234868755096064,2022-01-03-18:34:28,10.1.1.8,141,-0.330,-0.330,-0.330,0.000,0.000,0.000
1641234868948733184,2022-01-03-18:34:28,10.1.1.8,134,-0.320,-0.320,-0.320,0.000,0.000,0.000
1641234869155618816,2022-01-03-18:34:29,10.1.1.8,137,-0.310,-0.310,-0.310,0.000,0.000,0.000
1641234869350492928,2022-01-03-18:34:29,10.1.1.8,134,-0.300,-0.300,-0.300,0.000,0.000,0.000
1641234869548364032,2022-01-03-18:34:29,10.1.1.8,131,-0.290,-0.290,-0.290,0.000,0.000,0.000
1641234869747586048,2022-01-03-18:34:29,10.1.1.8,129,-0.280,-0.280,-0.280,0.000,0.000,0.000
1641234869967570176,2022-01-03-18:34:29,10.1.1.8,137,-0.270,-0.270,-0.270,0.000,0.000,0.000
1641234870167393024,2022-01-03-18:34:30,10.1.1.8,136,-0.260,-0.260,-0.260,0.000,0.000,0.000
1641234870367078144,2022-01-03-18:34:30,10.1.1.8,135,-0.250,-0.250,-0.250,0.000,0.000,0.000
1641234870572807168,2022-01-03-18:34:30,10.1.1.8,139,-0.240,-0.240,-0.240,0.000,0.000,0.000
1641234870768871168,2022-01-03-18:34:30,10.1.1.8,132,-0.230,-0.230,-0.230,0.000,0.000,0.000
1641234870977582080,2022-01-03-18:34:30,10.1.1.8,142,-0.220,-0.220,-0.220,0.000,0.000,0.000
1641234871165630208,2022-01-03-18:34:31,10.1.1.8,130,-0.210,-0.210,-0.210,0.000,0.000,0.000
1641234871385106944,2022-01-03-18:34:31,10.1.1.8,143,-0.200,-0.200,-0.200,0.000,0.000,0.000
1641234871565356032,2022-01-03-18:34:31,10.1.1.8,122,-0.190,-0.190,-0.190,0.000,0.000,0.000
1641234871787226880,2022-01-03-18:34:31,10.1.1.8,133,-0.180,-0.180,-0.180,0.000,0.000,0.000
1641234872004836096,2022-01-03-18:34:32,10.1.1.8,122,-0.170,-0.170,-0.170,0.000,0.000,0.000
1641234872204076032,2022-01-03-18:34:32,10.1.1.8,120,-0.160,-0.160,-0.160,0.000,0.000,0.000
1641234872404129024,2022-01-03-18:34:32,10.1.1.8,119,-0.150,-0.150,-0.150,0.000,0.000,0.000
1641234872623332864,2022-01-03-18:34:32,10.1.1.8,137,-0.140,-0.140,-0.140,0.000,0.000,0.000
1641234872822876928,2022-01-03-18:34:32,10.1.1.8,136,-0.130,-0.130,-0.130,0.000,0.000,0.000
1641234873024446976,2022-01-03-18:34:33,10.1.1.8,137,-0.120,-0.120,-0.120,0.000,0.000,0.000
1641234873225687040,2022-01-03-18:34:33,10.1.1.8,134,-0.110,-0.110,-0.110,0.000,0.000,0.000
1641234873421417984,2022-01-03-18:34:33,10.1.1.8,128,-0.100,-0.100,-0.100,0.000,0.000,0.000
1641234873641474048,2022-01-03-18:34:33,10.1.1.8,135,-0.090,-0.090,-0.090,0.000,0.000,0.000
1641234873843020032,2022-01-03-18:34:33,10.1.1.8,134,-0.080,-0.080,-0.080,0.000,0.000,0.000
1641234874042471936,2022-01-03-18:34:34,10.1.1.8,133,-0.070,-0.070,-0.070,0.000,0.000,0.000
1641234874250782976,2022-01-03-18:34:34,10.1.1.8,141,-0.060,-0.060,-0.060,0.000,0.000,0.000
1641234874461479936,2022-01-03-18:34:34,10.1.1.8,148,-0.050,-0.050,-0.050,0.000,0.000,0.000
1641234874640050944,2022-01-03-18:34:34,10.1.1.8,125,-0.040,-0.040,-0.040,0.000,0.000,0.000
1641234874840646144,2022-01-03-18:34:34,10.1.1.8,123,-0.030,-0.030,-0.030,0.000,0.000,0.000
1641234875038743040,2022-01-03-18:34:35,10.1.1.8,121,-0.020,-0.020,-0.020,0.000,0.000,0.000
1641234875238604032,2022-01-03-18:34:35,10.1.1.8,120,-0.010,-0.010,-0.010,0.000,0.000,0.000
1641234875438263040,2022-01-03-18:34:35,10.1.1.8,119,0.000,0.000,0.000,0.000,0.000,0.000
1641234875637949952,2022-01-03-18:34:35,10.1.1.8,118,-0.010,-0.010,-0.010,0.000,0.000,0.000
1641234875837455104,2022-01-03-18:34:35,10.1.1.8,117,-0.020,-0.020,-0.020,0.000,0.000,0.000
1641234876036879104,2022-01-03-18:34:36,10.1.1.8,116,-0.030,-0.030,-0.030,0.000,0.000,0.000
1641234876261487104,2022-01-03-18:34:36,10.1.1.8,138,-0.040,-0.040,-0.040,0.000,0.000,0.000
1641234876457681920,2022-01-03-18:34:36,10.1.1.8,129,-0.050,-0.050,-0.050,0.000,0.000,0.000
1641234876716775936,2022-01-03-18:34:36,10.1.1.8,181,-0.060,-0.060,-0.060,0.000,0.000,0.000
1641234876856252928,2022-01-03-18:34:36,10.1.1.8,120,-0.070,-0.070,-0.070,0.000,0.000,0.000
1641234877056107008,2022-01-03-18:34:37,10.1.1.8,119,-0.080,-0.080,-0.080,0.000,0.000,0.000
1641234877255460864,2022-01-03-18:34:37,10.1.1.8,117,-0.090,-0.090,-0.090,0.000,0.000,0.000
1641234877454787072,2022-01-03-18:34:37,10.1.1.8,116,-0.100,-0.100,-0.100,0.000,0.000,0.000
1641234877655034112,2022-01-03-18:34:37,10.1.1.8,115,-0.110,-0.110,-0.110,0.000,0.000,0.000
1641234877856779008,2022-01-03-18:34:37,10.1.1.8,116,-0.120,-0.120,-0.120,0.000,0.000,0.000
1641234878054153984,2022-01-03-18:34:38,10.1.1.8,113,-0.130,-0.130,-0.130,0.000,0.000,0.000
1641234878254454016,2022-01-03-18:34:38,10.1.1.8,112,-0.140,-0.140,-0.140,0.000,0.000,0.000
1641234878453270016,2022-01-03-18:34:38,10.1.1.8,111,-0.150,-0.150,-0.150,0.000,0.000,0.000
1641234878653889024,2022-01-03-18:34:38,10.1.1.8,109,-0.160,-0.160,-0.160,0.000,0.000,0.000
1641234878875909120,2022-01-03-18:34:38,10.1.1.8,130,-0.170,-0.170,-0.170,0.000,0.000,0.000
1641234879079979008,2022-01-03-18:34:39,10.1.1.8,126,-0.180,-0.180,-0.180,0.000,0.000,0.000
1641234879272374016,2022-01-03-18:34:39,10.1.1.8,124,-0.190,-0.190,-0.190,0.000,0.000,0.000
1641234879472531200,2022-01-03-18:34:39,10.1.1.8,123,-0.200,-0.200,-0.200,0.000,0.000,0.000
1641234879671514880,2022-01-03-18:34:39,10.1.1.8,121,-0.210,-0.210,-0.210,0.000,0.000,0.000
1641234879871473920,2022-01-03-18:34:39,10.1.1.8,120,-0.220,-0.220,-0.220,0.000,0.000,0.000
1641234880073217024,2022-01-03-18:34:40,10.1.1.8,121,-0.230,-0.230,-0.230,0.000,0.000,0.000
1641234880271272960,2022-01-03-18:34:40,10.1.1.8,116,-0.240,-0.240,-0.240,0.000,0.000,0.000
1641234880471007232,2022-01-03-18:34:40,10.1.1.8,114,-0.250,-0.250,-0.250,0.000,0.000,0.000
1641234880679343104,2022-01-03-18:34:40,10.1.1.8,114,-0.260,-0.260,-0.260,0.000,0.000,0.000
1641234880873198080,2022-01-03-18:34:40,10.1.1.8,113,-0.270,-0.270,-0.270,0.000,0.000,0.000
1641234881069131008,2022-01-03-18:34:41,10.1.1.8,108,-0.280,-0.280,-0.280,0.000,0.000,0.000
1641234881269382912,2022-01-03-18:34:41,10.1.1.8,105,-0.290,-0.290,-0.290,0.000,0.000,0.000
1641234881488672000,2022-01-03-18:34:41,10.1.1.8,124,-0.300,-0.300,-0.300,0.000,0.000,0.000
1641234881687853056,2022-01-03-18:34:41,10.1.1.8,122,-0.310,-0.310,-0.310,0.000,0.000,0.000
1641234881887932928,2022-01-03-18:34:41,10.1.1.8,121,-0.320,-0.320,-0.320,0.000,0.000,0.000
1641234882078519040,2022-01-03-18:34:42,10.1.1.8,112,-0.330,-0.330,-0.330,0.000,0.000,0.000
1641234882288151040,2022-01-03-18:34:42,10.1.1.8,121,-0.340,-0.340,-0.340,0.000,0.000,0.000
1641234882486960896,2022-01-03-18:34:42,10.1.1.8,118,-0.350,-0.350,-0.350,0.000,0.000,0.000
1641234882686230784,2022-01-03-18:34:42,10.1.1.8,117,-0.360,-0.360,-0.360,0.000,0.000,0.000
1641234882886323968,2022-01-03-18:34:42,10.1.1.8,116,-0.370,-0.370,-0.370,0.000,0.000,0.000
1641234883124852992,2022-01-03-18:34:43,10.1.1.8,139,-0.380,-0.380,-0.380,0.000,0.000,0.000
1641234883333153024,2022-01-03-18:34:43,10.1.1.8,115,-0.390,-0.390,-0.390,0.000,0.000,0.000
1641234883572137216,2022-01-03-18:34:43,10.1.1.8,153,-0.400,-0.400,-0.400,0.000,0.000,0.000
1641234883744570112,2022-01-03-18:34:43,10.1.1.8,125,-0.410,-0.410,-0.410,0.000,0.000,0.000
1641234883943845120,2022-01-03-18:34:43,10.1.1.8,123,-0.420,-0.420,-0.420,0.000,0.000,0.000
1641234884142014976,2022-01-03-18:34:44,10.1.1.8,120,-0.430,-0.430,-0.430,0.000,0.000,0.000
1641234884344898048,2022-01-03-18:34:44,10.1.1.8,120,-0.440,-0.440,-0.440,0.000,0.000,0.000
1641234884785785856,2022-01-03-18:34:44,10.1.1.8,122,-0.460,-0.460,-0.460,0.000,0.000,0.000
1641234884984097024,2022-01-03-18:34:44,10.1.1.8,118,-0.470,-0.470,-0.470,0.000,0.000,0.000
1641234885221561856,2022-01-03-18:34:45,10.1.1.8,155,-0.480,-0.480,-0.480,0.000,0.000,0.000
1641234885409558016,2022-01-03-18:34:45,10.1.1.8,115,-0.490,-0.490,-0.490,0.000,0.000,0.000
1641234885606635008,2022-01-03-18:34:45,10.1.1.8,111,-0.480,-0.480,-0.480,0.000,0.000,0.000
1641234885828034048,2022-01-03-18:34:45,10.1.1.8,121,-0.470,-0.470,-0.470,0.000,0.000,0.000
1641234886033870080,2022-01-03-18:34:46,10.1.1.8,118,-0.460,-0.460,-0.460,0.000,0.000,0.000
1641234886230045952,2022-01-03-18:34:46,10.1.1.8,114,-0.450,-0.450,-0.450,0.000,0.000,0.000
1641234886436773888,2022-01-03-18:34:46,10.1.1.8,115,-0.440,-0.440,-0.440,0.000,0.000,0.000
1641234886631012864,2022-01-03-18:34:46,10.1.1.8,114,-0.430,-0.430,-0.430,0.000,0.000,0.000
1641234887058844160,2022-01-03-18:34:47,10.1.1.8,128,-0.410,-0.410,-0.410,0.000,0.000,0.000
1641234887254151168,2022-01-03-18:34:47,10.1.1.8,115,-0.400,-0.400,-0.400,0.000,0.000,0.000
1641234887474672128,2022-01-03-18:34:47,10.1.1.8,135,-0.390,-0.390,-0.390,0.000,0.000,0.000
1641234887691337216,2022-01-03-18:34:47,10.1.1.8,150,-0.380,-0.380,-0.380,0.000,0.000,0.000
1641234887877227008,2022-01-03-18:34:47,10.1.1.8,136,-0.370,-0.370,-0.370,0.000,0.000,0.000
1641234888077357056,2022-01-03-18:34:48,10.1.1.8,132,-0.360,-0.360,-0.360,0.000,0.000,0.000
1641234888283027968,2022-01-03-18:34:48,10.1.1.8,134,-0.350,-0.350,-0.350,0.000,0.000,0.000
1641234888478944000,2022-01-03-18:34:48,10.1.1.8,127,-0.340,-0.340,-0.340,0.000,0.000,0.000
1641234888680129024,2022-01-03-18:34:48,10.1.1.8,127,-0.330,-0.330,-0.330,0.000,0.000,0.000
1641234888882725888,2022-01-03-18:34:48,10.1.1.8,129,-0.320,-0.320,-0.320,0.000,0.000,0.000
1641234889115112192,2022-01-03-18:34:49,10.1.1.8,160,-0.310,-0.310,-0.310,0.000,0.000,0.000
1641234889281618176,2022-01-03-18:34:49,10.1.1.8,124,-0.300,-0.300,-0.300,0.000,0.000,0.000
1641234889482876160,2022-01-03-18:34:49,10.1.1.8,123,-0.290,-0.290,-0.290,0.000,0.000,0.000
1641234889711385856,2022-01-03-18:34:49,10.1.1.8,148,-0.280,-0.280,-0.280,0.000,0.000,0.000
1641234889904999936,2022-01-03-18:34:49,10.1.1.8,135,-0.270,-0.270,-0.270,0.000,0.000,0.000
1641234890104850176,2022-01-03-18:34:50,10.1.1.8,127,-0.260,-0.260,-0.260,0.000,0.000,0.000
1641234890326228992,2022-01-03-18:34:50,10.1.1.8,139,-0.250,-0.250,-0.250,0.000,0.000,0.000
1641234890565581056,2022-01-03-18:34:50,10.1.1.8,140,-0.240,-0.240,-0.240,0.000,0.000,0.000
1641234890766194176,2022-01-03-18:34:50,10.1.1.8,140,-0.230,-0.230,-0.230,0.000,0.000,0.000
1641234890967885056,2022-01-03-18:34:50,10.1.1.8,140,-0.220,-0.220,-0.220,0.000,0.000,0.000
1641234891167290880,2022-01-03-18:34:51,10.1.1.8,140,-0.210,-0.210,-0.210,0.000,0.000,0.000
1641234891371550976,2022-01-03-18:34:51,10.1.1.8,142,-0.200,-0.200,-0.200,0.000,0.000,0.000
1641234891597466112,2022-01-03-18:34:51,10.1.1.8,154,-0.190,-0.190,-0.190,0.000,0.000,0.000
1641234891796762880,2022-01-03-18:34:51,10.1.1.8,154,-0.180,-0.180,-0.180,0.000,0.000,0.000
1641234891989785856,2022-01-03-18:34:51,10.1.1.8,147,-0.170,-0.170,-0.170,0.000,0.000,0.000
1641234892195208192,2022-01-03-18:34:52,10.1.1.8,142,-0.160,-0.160,-0.160,0.000,0.000,0.000
1641234892391424768,2022-01-03-18:34:52,10.1.1.8,135,-0.150,-0.150,-0.150,0.000,0.000,0.000
1641234892597152000,2022-01-03-18:34:52,10.1.1.8,140,-0.140,-0.140,-0.140,0.000,0.000,0.000
1641234892811145984,2022-01-03-18:34:52,10.1.1.8,151,-0.130,-0.130,-0.130,0.000,0.000,0.000
1641234893012530944,2022-01-03-18:34:53,10.1.1.8,151,-0.120,-0.120,-0.120,0.000,0.000,0.000
1641234893212551168,2022-01-03-18:34:53,10.1.1.8,150,-0.110,-0.110,-0.110,0.000,0.000,0.000
1641234893419478784,2022-01-03-18:34:53,10.1.1.8,156,-0.100,-0.100,-0.100,0.000,0.000,0.000
1641234893642977024,2022-01-03-18:34:53,10.1.1.8,178,-0.090,-0.090,-0.090,0.000,0.000,0.000
1641234893814464000,2022-01-03-18:34:53,10.1.1.8,145,-0.080,-0.080,-0.080,0.000,0.000,0.000
1641234894021272064,2022-01-03-18:34:54,10.1.1.8,152,-0.070,-0.070,-0.070,0.000,0.000,0.000
1641234894218327040,2022-01-03-18:34:54,10.1.1.8,147,-0.060,-0.060,-0.060,0.000,0.000,0.000
1641234894415469824,2022-01-03-18:34:54,10.1.1.8,144,-0.050,-0.050,-0.050,0.000,0.000,0.000
1641234894640333824,2022-01-03-18:34:54,10.1.1.8,160,-0.040,-0.040,-0.040,0.000,0.000,0.000
1641234894816366080,2022-01-03-18:34:54,10.1.1.8,135,-0.030,-0.030,-0.030,0.000,0.000,0.000
1641234895036922880,2022-01-03-18:34:55,10.1.1.8,155,-0.020,-0.020,-0.020,0.000,0.000,0.000
1641234895238842880,2022-01-03-18:34:55,10.1.1.8,156,-0.010,-0.010,-0.010,0.000,0.000,0.000
1641234895436752128,2022-01-03-18:34:55,10.1.1.8,153,0.000,0.000,0.000,0.000,0.000,0.000
1641234895637427200,2022-01-03-18:34:55,10.1.1.8,152,-0.010,-0.010,-0.010,0.000,0.000,0.000
1641234895838082048,2022-01-03-18:34:55,10.1.1.8,152,-0.020,-0.020,-0.020,0.000,0.000,0.000
1641234896058580992,2022-01-03-18:34:56,10.1.1.8,156,-0.030,-0.030,-0.030,0.000,0.000,0.000
1641234896258040832,2022-01-03-18:34:56,10.1.1.8,145,-0.040,-0.040,-0.040,0.000,0.000,0.000
1641234896459172096,2022-01-03-18:34:56,10.1.1.8,145,-0.050,-0.050,-0.050,0.000,0.000,0.000
1641234896674276096,2022-01-03-18:34:56,10.1.1.8,159,-0.060,-0.060,-0.060,0.000,0.000,0.000
1641234896879997952,2022-01-03-18:34:56,10.1.1.8,157,-0.070,-0.070,-0.070,0.000,0.000,0.000
1641234897279428864,2022-01-03-18:34:57,10.1.1.8,153,-0.090,-0.090,-0.090,0.000,0.000,0.000
1641234897481251072,2022-01-03-18:34:57,10.1.1.8,153,-0.100,-0.100,-0.100,0.000,0.000,0.000
1641234897683110912,2022-01-03-18:34:57,10.1.1.8,150,-0.110,-0.110,-0.110,0.000,0.000,0.000
1641234897886987008,2022-01-03-18:34:57,10.1.1.8,155,-0.120,-0.120,-0.120,0.000,0.000,0.000
1641234898080877056,2022-01-03-18:34:58,10.1.1.8,148,-0.130,-0.130,-0.130,0.000,0.000,0.000
1641234898323471104,2022-01-03-18:34:58,10.1.1.8,189,-0.140,-0.140,-0.140,0.000,0.000,0.000
1641234898504021760,2022-01-03-18:34:58,10.1.1.8,158,-0.150,-0.150,-0.150,0.000,0.000,0.000
1641234898705881088,2022-01-03-18:34:58,10.1.1.8,158,-0.160,-0.160,-0.160,0.000,0.000,0.000
1641234898901905152,2022-01-03-18:34:58,10.1.1.8,153,-0.170,-0.170,-0.170,0.000,0.000,0.000
1641234899105246976,2022-01-03-18:34:59,10.1.1.8,156,-0.180,-0.180,-0.180,0.000,0.000,0.000
1641234899301565952,2022-01-03-18:34:59,10.1.1.8,152,-0.190,-0.190,-0.190,0.000,0.000,0.000
1641234899502804992,2022-01-03-18:34:59,10.1.1.8,152,-0.200,-0.200,-0.200,0.000,0.000,0.000
1641234899705664000,2022-01-03-18:34:59,10.1.1.8,154,-0.210,-0.210,-0.210,0.000,0.000,0.000
1641234899919377920,2022-01-03-18:34:59,10.1.1.8,166,-0.220,-0.220,-0.220,0.000,0.000,0.000
1641234900102372864,2022-01-03-18:35:00,10.1.1.8,149,-0.230,-0.230,-0.230,0.000,0.000,0.000
1641234900303552000,2022-01-03-18:35:00,10.1.1.8,149,-0.240,-0.240,-0.240,0.000,0.000,0.000
1641234900503213824,2022-01-03-18:35:00,10.1.1.8,146,-0.250,-0.250,-0.250,0.000,0.000,0.000
1641234900704444928,2022-01-03-18:35:00,10.1.1.8,147,-0.260,-0.260,-0.260,0.000,0.000,0.000
1641234900903542016,2022-01-03-18:35:00,10.1.1.8,145,-0.270,-0.270,-0.270,0.000,0.000,0.000
1641234901104175104,2022-01-03-18:35:01,10.1.1.8,145,-0.280,-0.280,-0.280,0.000,0.000,0.000
1641234901324288000,2022-01-03-18:35:01,10.1.1.8,161,-0.290,-0.290,-0.290,0.000,0.000,0.000
1641234901563729920,2022-01-03-18:35:01,10.1.1.8,158,-0.300,-0.300,-0.300,0.000,0.000,0.000
1641234901763896064,2022-01-03-18:35:01,10.1.1.8,157,-0.310,-0.310,-0.310,0.000,0.000,0.000
1641234901963938048,2022-01-03-18:35:01,10.1.1.8,157,-0.320,-0.320,-0.320,0.000,0.000,0.000
1641234902163640064,2022-01-03-18:35:02,10.1.1.8,155,-0.330,-0.330,-0.330,0.000,0.000,0.000
1641234902363895040,2022-01-03-18:35:02,10.1.1.8,155,-0.340,-0.340,-0.340,0.000,0.000,0.000
1641234902564075008,2022-01-03-18:35:02,10.1.1.8,154,-0.350,-0.350,-0.350,0.000,0.000,0.000
1641234902767587072,2022-01-03-18:35:02,10.1.1.8,157,-0.360,-0.360,-0.360,0.000,0.000,0.000
1641234902984803072,2022-01-03-18:35:02,10.1.1.8,146,-0.370,-0.370,-0.370,0.000,0.000,0.000
1641234903204328960,2022-01-03-18:35:03,10.1.1.8,154,-0.380,-0.380,-0.380,0.000,0.000,0.000
1641234903404578816,2022-01-03-18:35:03,10.1.1.8,153,-0.390,-0.390,-0.390,0.000,0.000,0.000
1641234903640235776,2022-01-03-18:35:03,10.1.1.8,188,-0.400,-0.400,-0.400,0.000,0.000,0.000
1641234903805057024,2022-01-03-18:35:03,10.1.1.8,151,-0.410,-0.410,-0.410,0.000,0.000,0.000
1641234904005417216,2022-01-03-18:35:04,10.1.1.8,151,-0.420,-0.420,-0.420,0.000,0.000,0.000
1641234904205310976,2022-01-03-18:35:04,10.1.1.8,145,-0.430,-0.430,-0.430,0.000,0.000,0.000
1641234904428064000,2022-01-03-18:35:04,10.1.1.8,161,-0.440,-0.440,-0.440,0.000,0.000,0.000
1641234904625766144,2022-01-03-18:35:04,10.1.1.8,157,-0.450,-0.450,-0.450,0.000,0.000,0.000
1641234904825154048,2022-01-03-18:35:04,10.1.1.8,154,-0.460,-0.460,-0.460,0.000,0.000,0.000
1641234905025039872,2022-01-03-18:35:05,10.1.1.8,154,-0.470,-0.470,-0.470,0.000,0.000,0.000
1641234905232203008,2022-01-03-18:35:05,10.1.1.8,159,-0.480,-0.480,-0.480,0.000,0.000,0.000
1641234905425088768,2022-01-03-18:35:05,10.1.1.8,152,-0.490,-0.490,-0.490,0.000,0.000,0.000
1641234905625107968,2022-01-03-18:35:05,10.1.1.8,152,-0.480,-0.480,-0.480,0.000,0.000,0.000
1641234905847949056,2022-01-03-18:35:05,10.1.1.8,158,-0.470,-0.470,-0.470,0.000,0.000,0.000
1641234906031111936,2022-01-03-18:35:06,10.1.1.8,157,-0.460,-0.460,-0.460,0.000,0.000,0.000
1641234906229636864,2022-01-03-18:35:06,10.1.1.8,154,-0.450,-0.450,-0.450,0.000,0.000,0.000
1641234906425420032,2022-01-03-18:35:06,10.1.1.8,150,-0.440,-0.440,-0.440,0.000,0.000,0.000
1641234906645313024,2022-01-03-18:35:06,10.1.1.8,164,-0.430,-0.430,-0.430,0.000,0.000,0.000
1641234906846013952,2022-01-03-18:35:06,10.1.1.8,163,-0.420,-0.420,-0.420,0.000,0.000,0.000
1641234907046083840,2022-01-03-18:35:07,10.1.1.8,162,-0.410,-0.410,-0.410,0.000,0.000,0.000
1641234907246754816,2022-01-03-18:35:07,10.1.1.8,161,-0.400,-0.400,-0.400,0.000,0.000,0.000
1641234907490246144,2022-01-03-18:35:07,10.1.1.8,170,-0.390,-0.390,-0.390,0.000,0.000,0.000
1641234907645398016,2022-01-03-18:35:07,10.1.1.8,155,-0.380,-0.380,-0.380,0.000,0.000,0.000
1641234907846506240,2022-01-03-18:35:07,10.1.1.8,156,-0.370,-0.370,-0.370,0.000,0.000,0.000
1641234908052536064,2022-01-03-18:35:08,10.1.1.8,161,-0.360,-0.360,-0.360,0.000,0.000,0.000
1641234908249277184,2022-01-03-18:35:08,10.1.1.8,151,-0.350,-0.350,-0.350,0.000,0.000,0.000
1641234908446105856,2022-01-03-18:35:08,10.1.1.8,147,-0.340,-0.340,-0.340,0.000,0.000,0.000
1641234908725167104,2022-01-03-18:35:08,10.1.1.8,165,-0.330,-0.330,-0.330,0.000,0.000,0.000
1641234908965529856,2022-01-03-18:35:08,10.1.1.8,156,-0.320,-0.320,-0.320,0.000,0.000,0.000
1641234909164588032,2022-01-03-18:35:09,10.1.1.8,154,-0.310,-0.310,-0.310,0.000,0.000,0.000
1641234909364940032,2022-01-03-18:35:09,10.1.1.8,154,-0.300,-0.300,-0.300,0.000,0.000,0.000
1641234909564889856,2022-01-03-18:35:09,10.1.1.8,153,-0.290,-0.290,-0.290,0.000,0.000,0.000
1641234909800324864,2022-01-03-18:35:09,10.1.1.8,188,-0.280,-0.280,-0.280,0.000,0.000,0.000
1641234909965181184,2022-01-03-18:35:09,10.1.1.8,146,-0.270,-0.270,-0.270,0.000,0.000,0.000
1641234910164110848,2022-01-03-18:35:10,10.1.1.8,145,-0.260,-0.260,-0.260,0.000,0.000,0.000
1641234910387702016,2022-01-03-18:35:10,10.1.1.8,166,-0.250,-0.250,-0.250,0.000,0.000,0.000
1641234910588563968,2022-01-03-18:35:10,10.1.1.8,168,-0.240,-0.240,-0.240,0.000,0.000,0.000
1641234910784229888,2022-01-03-18:35:10,10.1.1.8,161,-0.230,-0.230,-0.230,0.000,0.000,0.000
1641234910984534016,2022-01-03-18:35:10,10.1.1.8,152,-0.220,-0.220,-0.220,0.000,0.000,0.000
1641234911244060928,2022-01-03-18:35:11,10.1.1.8,164,-0.210,-0.210,-0.210,0.000,0.000,0.000
1641234911443458048,2022-01-03-18:35:11,10.1.1.8,162,-0.200,-0.200,-0.200,0.000,0.000,0.000
1641234911649143808,2022-01-03-18:35:11,10.1.1.8,167,-0.190,-0.190,-0.190,0.000,0.000,0.000
1641234911843683072,2022-01-03-18:35:11,10.1.1.8,161,-0.180,-0.180,-0.180,0.000,0.000,0.000
1641234912047580928,2022-01-03-18:35:12,10.1.1.8,165,-0.170,-0.170,-0.170,0.000,0.000,0.000
1641234912243244032,2022-01-03-18:35:12,10.1.1.8,149,-0.160,-0.160,-0.160,0.000,0.000,0.000
1641234912443311872,2022-01-03-18:35:12,10.1.1.8,148,-0.150,-0.150,-0.150,0.000,0.000,0.000
1641234912642988800,2022-01-03-18:35:12,10.1.1.8,147,-0.140,-0.140,-0.140,0.000,0.000,0.000
1641234912847281920,2022-01-03-18:35:12,10.1.1.8,151,-0.130,-0.130,-0.130,0.000,0.000,0.000
1641234913042951936,2022-01-03-18:35:13,10.1.1.8,146,-0.120,-0.120,-0.120,0.000,0.000,0.000
1641234913249132032,2022-01-03-18:35:13,10.1.1.8,151,-0.110,-0.110,-0.110,0.000,0.000,0.000
1641234913444865024,2022-01-03-18:35:13,10.1.1.8,145,-0.100,-0.100,-0.100,0.000,0.000,0.000
1641234913648519936,2022-01-03-18:35:13,10.1.1.8,149,-0.090,-0.090,-0.090,0.000,0.000,0.000
1641234913863990016,2022-01-03-18:35:13,10.1.1.8,161,-0.080,-0.080,-0.080,0.000,0.000,0.000
1641234914062441216,2022-01-03-18:35:14,10.1.1.8,159,-0.070,-0.070,-0.070,0.000,0.000,0.000
1641234914261872896,2022-01-03-18:35:14,10.1.1.8,158,-0.060,-0.060,-0.060,0.000,0.000,0.000
1641234914465009920,2022-01-03-18:35:14,10.1.1.8,150,-0.050,-0.050,-0.050,0.000,0.000,0.000
1641234914662193920,2022-01-03-18:35:14,10.1.1.8,146,-0.040,-0.040,-0.040,0.000,0.000,0.000
1641234914861320960,2022-01-03-18:35:14,10.1.1.8,144,-0.030,-0.030,-0.030,0.000,0.000,0.000
1641234915061320960,2022-01-03-18:35:15,10.1.1.8,142,-0.020,-0.020,-0.020,0.000,0.000,0.000
1641234915282926080,2022-01-03-18:35:15,10.1.1.8,162,-0.010,-0.010,-0.010,0.000,0.000,0.000
1641234915483992064,2022-01-03-18:35:15,10.1.1.8,159,0.000,0.000,0.000,0.000,0.000,0.000
1641234915681588992,2022-01-03-18:35:15,10.1.1.8,157,-0.010,-0.010,-0.010,0.000,0.000,0.000
1641234915880875008,2022-01-03-18:35:15,10.1.1.8,155,-0.020,-0.020,-0.020,0.000,0.000,0.000
1641234916080302848,2022-01-03-18:35:16,10.1.1.8,153,-0.030,-0.030,-0.030,0.000,0.000,0.000
1641234916280296960,2022-01-03-18:35:16,10.1.1.8,153,-0.040,-0.040,-0.040,0.000,0.000,0.000
1641234916479880192,2022-01-03-18:35:16,10.1.1.8,151,-0.050,-0.050,-0.050,0.000,0.000,0.000
1641234916685421824,2022-01-03-18:35:16,10.1.1.8,153,-0.060,-0.060,-0.060,0.000,0.000,0.000
1641234916923373056,2022-01-03-18:35:16,10.1.1.8,150,-0.070,-0.070,-0.070,0.000,0.000,0.000
1641234917120614144,2022-01-03-18:35:17,10.1.1.8,146,-0.080,-0.080,-0.080,0.000,0.000,0.000
1641234917320060928,2022-01-03-18:35:17,10.1.1.8,144,-0.090,-0.090,-0.090,0.000,0.000,0.000
1641234917538938880,2022-01-03-18:35:17,10.1.1.8,156,-0.100,-0.100,-0.100,0.000,0.000,0.000
1641234917739767040,2022-01-03-18:35:17,10.1.1.8,156,-0.110,-0.110,-0.110,0.000,0.000,0.000
1641234917938658048,2022-01-03-18:35:17,10.1.1.8,153,-0.120,-0.120,-0.120,0.000,0.000,0.000
1641234918139437824,2022-01-03-18:35:18,10.1.1.8,151,-0.130,-0.130,-0.130,0.000,0.000,0.000
1641234918339035136,2022-01-03-18:35:18,10.1.1.8,150,-0.140,-0.140,-0.140,0.000,0.000,0.000
1641234918538484992,2022-01-03-18:35:18,10.1.1.8,149,-0.150,-0.150,-0.150,0.000,0.000,0.000
1641234918759390976,2022-01-03-18:35:18,10.1.1.8,169,-0.160,-0.160,-0.160,0.000,0.000,0.000
1641234918938019072,2022-01-03-18:35:18,10.1.1.8,144,-0.170,-0.170,-0.170,0.000,0.000,0.000
1641234919157788928,2022-01-03-18:35:19,10.1.1.8,153,-0.180,-0.180,-0.180,0.000,0.000,0.000
1641234919357377024,2022-01-03-18:35:19,10.1.1.8,152,-0.190,-0.190,-0.190,0.000,0.000,0.000
1641234919557516032,2022-01-03-18:35:19,10.1.1.8,152,-0.200,-0.200,-0.200,0.000,0.000,0.000
1641234919762693888,2022-01-03-18:35:19,10.1.1.8,147,-0.210,-0.210,-0.210,0.000,0.000,0.000
1641234919971321088,2022-01-03-18:35:19,10.1.1.8,154,-0.220,-0.220,-0.220,0.000,0.000,0.000
1641234920219304960,2022-01-03-18:35:20,10.1.1.8,177,-0.230,-0.230,-0.230,0.000,0.000,0.000
1641234920377090048,2022-01-03-18:35:20,10.1.1.8,145,-0.240,-0.240,-0.240,0.000,0.000,0.000
1641234920580288000,2022-01-03-18:35:20,10.1.1.8,147,-0.250,-0.250,-0.250,0.000,0.000,0.000
1641234920777167104,2022-01-03-18:35:20,10.1.1.8,143,-0.260,-0.260,-0.260,0.000,0.000,0.000
1641234920981398016,2022-01-03-18:35:20,10.1.1.8,146,-0.270,-0.270,-0.270,0.000,0.000,0.000
1641234921179742976,2022-01-03-18:35:21,10.1.1.8,144,-0.280,-0.280,-0.280,0.000,0.000,0.000
1641234921422662144,2022-01-03-18:35:21,10.1.1.8,156,-0.290,-0.290,-0.290,0.000,0.000,0.000
1641234921620425984,2022-01-03-18:35:21,10.1.1.8,157,-0.300,-0.300,-0.300,0.000,0.000,0.000
1641234921830425088,2022-01-03-18:35:21,10.1.1.8,167,-0.310,-0.310,-0.310,0.000,0.000,0.000
1641234922030345984,2022-01-03-18:35:22,10.1.1.8,163,-0.320,-0.320,-0.320,0.000,0.000,0.000
1641234922215006976,2022-01-03-18:35:22,10.1.1.8,146,-0.330,-0.330,-0.330,0.000,0.000,0.000
1641234922439950080,2022-01-03-18:35:22,10.1.1.8,168,-0.340,-0.340,-0.340,0.000,0.000,0.000
1641234922614347008,2022-01-03-18:35:22,10.1.1.8,144,-0.350,-0.350,-0.350,0.000,0.000,0.000
1641234922814821120,2022-01-03-18:35:22,10.1.1.8,144,-0.360,-0.360,-0.360,0.000,0.000,0.000
1641234923014360064,2022-01-03-18:35:23,10.1.1.8,142,-0.370,-0.370,-0.370,0.000,0.000,0.000
1641234923213964032,2022-01-03-18:35:23,10.1.1.8,141,-0.380,-0.380,-0.380,0.000,0.000,0.000
1641234923416209920,2022-01-03-18:35:23,10.1.1.8,141,-0.390,-0.390,-0.390,0.000,0.000,0.000
1641234923653698048,2022-01-03-18:35:23,10.1.1.8,137,-0.400,-0.400,-0.400,0.000,0.000,0.000
1641234923852288000,2022-01-03-18:35:23,10.1.1.8,135,-0.410,-0.410,-0.410,0.000,0.000,0.000
1641234924053008128,2022-01-03-18:35:24,10.1.1.8,135,-0.420,-0.420,-0.420,0.000,0.000,0.000
1641234924270657024,2022-01-03-18:35:24,10.1.1.8,137,-0.430,-0.430,-0.430,0.000,0.000,0.000
1641234924455147008,2022-01-03-18:35:24,10.1.1.8,135,-0.440,-0.440,-0.440,0.000,0.000,0.000
1641234924674480896,2022-01-03-18:35:24,10.1.1.8,154,-0.450,-0.450,-0.450,0.000,0.000,0.000
1641234924871254016,2022-01-03-18:35:24,10.1.1.8,147,-0.460,-0.460,-0.460,0.000,0.000,0.000
1641234925071095040,2022-01-03-18:35:25,10.1.1.8,145,-0.470,-0.470,-0.470,0.000,0.000,0.000
1641234925270601984,2022-01-03-18:35:25,10.1.1.8,143,-0.480,-0.480,-0.480,0.000,0.000,0.000
1641234925471100928,2022-01-03-18:35:25,10.1.1.8,143,-0.490,-0.490,-0.490,0.000,0.000,0.000
1641234925670806784,2022-01-03-18:35:25,10.1.1.8,143,-0.480,-0.480,-0.480,0.000,0.000,0.000
1641234925896816128,2022-01-03-18:35:25,10.1.1.8,168,-0.470,-0.470,-0.470,0.000,0.000,0.000
1641234926070226944,2022-01-03-18:35:26,10.1.1.8,140,-0.460,-0.460,-0.460,0.000,0.000,0.000
1641234926272945920,2022-01-03-18:35:26,10.1.1.8,142,-0.450,-0.450,-0.450,0.000,0.000,0.000
1641234926480126976,2022-01-03-18:35:26,10.1.1.8,148,-0.440,-0.440,-0.440,0.000,0.000,0.000
1641234926687979008,2022-01-03-18:35:26,10.1.1.8,145,-0.430,-0.430,-0.430,0.000,0.000,0.000
1641234926869449984,2022-01-03-18:35:26,10.1.1.8,134,-0.420,-0.420,-0.420,0.000,0.000,0.000
1641234927098665984,2022-01-03-18:35:27,10.1.1.8,146,-0.410,-0.410,-0.410,0.000,0.000,0.000
1641234927290388224,2022-01-03-18:35:27,10.1.1.8,136,-0.400,-0.400,-0.400,0.000,0.000,0.000
1641234927490880000,2022-01-03-18:35:27,10.1.1.8,136,-0.390,-0.390,-0.390,0.000,0.000,0.000
1641234927688379904,2022-01-03-18:35:27,10.1.1.8,132,-0.380,-0.380,-0.380,0.000,0.000,0.000
1641234927887937024,2022-01-03-18:35:27,10.1.1.8,130,-0.370,-0.370,-0.370,0.000,0.000,0.000
1641234928131727104,2022-01-03-18:35:28,10.1.1.8,173,-0.360,-0.360,-0.360,0.000,0.000,0.000
1641234928347776768,2022-01-03-18:35:28,10.1.1.8,146,-0.350,-0.350,-0.350,0.000,0.000,0.000
1641234928550117888,2022-01-03-18:35:28,10.1.1.8,147,-0.340,-0.340,-0.340,0.000,0.000,0.000
1641234928747680000,2022-01-03-18:35:28,10.1.1.8,139,-0.330,-0.330,-0.330,0.000,0.000,0.000
1641234928947528960,2022-01-03-18:35:28,10.1.1.8,138,-0.320,-0.320,-0.320,0.000,0.000,0.000
1641234929146183936,2022-01-03-18:35:29,10.1.1.8,135,-0.310,-0.310,-0.310,0.000,0.000,0.000
1641234929347106048,2022-01-03-18:35:29,10.1.1.8,135,-0.300,-0.300,-0.300,0.000,0.000,0.000
1641234929548036096,2022-01-03-18:35:29,10.1.1.8,134,-0.290,-0.290,-0.290,0.000,0.000,0.000
1641234929745373952,2022-01-03-18:35:29,10.1.1.8,132,-0.280,-0.280,-0.280,0.000,0.000,0.000
1641234929948560896,2022-01-03-18:35:29,10.1.1.8,135,-0.270,-0.270,-0.270,0.000,0.000,0.000
1641234930148598784,2022-01-03-18:35:30,10.1.1.8,129,-0.260,-0.260,-0.260,0.000,0.000,0.000
1641234930394035968,2022-01-03-18:35:30,10.1.1.8,173,-0.250,-0.250,-0.250,0.000,0.000,0.000
1641234930584368896,2022-01-03-18:35:30,10.1.1.8,141,-0.240,-0.240,-0.240,0.000,0.000,0.000
1641234930806673920,2022-01-03-18:35:30,10.1.1.8,132,-0.230,-0.230,-0.230,0.000,0.000,0.000
1641234931008971008,2022-01-03-18:35:31,10.1.1.8,132,-0.220,-0.220,-0.220,0.000,0.000,0.000
1641234931203564800,2022-01-03-18:35:31,10.1.1.8,124,-0.210,-0.210,-0.210,0.000,0.000,0.000
1641234931423461888,2022-01-03-18:35:31,10.1.1.8,140,-0.200,-0.200,-0.200,0.000,0.000,0.000
1641234931623229952,2022-01-03-18:35:31,10.1.1.8,133,-0.190,-0.190,-0.190,0.000,0.000,0.000
1641234931822782976,2022-01-03-18:35:31,10.1.1.8,131,-0.180,-0.180,-0.180,0.000,0.000,0.000
1641234932026153984,2022-01-03-18:35:32,10.1.1.8,133,-0.170,-0.170,-0.170,0.000,0.000,0.000
1641234932225585920,2022-01-03-18:35:32,10.1.1.8,132,-0.160,-0.160,-0.160,0.000,0.000,0.000
1641234932422681088,2022-01-03-18:35:32,10.1.1.8,127,-0.150,-0.150,-0.150,0.000,0.000,0.000
1641234932712413184,2022-01-03-18:35:32,10.1.1.8,195,-0.140,-0.140,-0.140,0.000,0.000,0.000
1641234932869422848,2022-01-03-18:35:32,10.1.1.8,145,-0.130,-0.130,-0.130,0.000,0.000,0.000
1641234933069278976,2022-01-03-18:35:33,10.1.1.8,142,-0.120,-0.120,-0.120,0.000,0.000,0.000
1641234933275350016,2022-01-03-18:35:33,10.1.1.8,147,-0.110,-0.110,-0.110,0.000,0.000,0.000
1641234933467212800,2022-01-03-18:35:33,10.1.1.8,134,-0.100,-0.100,-0.100,0.000,0.000,0.000
1641234933660594944,2022-01-03-18:35:33,10.1.1.8,126,-0.090,-0.090,-0.090,0.000,0.000,0.000
1641234933859975168,2022-01-03-18:35:33,10.1.1.8,123,-0.080,-0.080,-0.080,0.000,0.000,0.000
1641234934059824896,2022-01-03-18:35:34,10.1.1.8,122,-0.070,-0.070,-0.070,0.000,0.000,0.000
1641234934260914944,2022-01-03-18:35:34,10.1.1.8,120,-0.060,-0.060,-0.060,0.000,0.000,0.000
1641234934481324800,2022-01-03-18:35:34,10.1.1.8,141,-0.050,-0.050,-0.050,0.000,0.000,0.000
1641234934679040000,2022-01-03-18:35:34,10.1.1.8,137,-0.040,-0.040,-0.040,0.000,0.000,0.000
1641234935080434176,2022-01-03-18:35:35,10.1.1.8,124,-0.020,-0.020,-0.020,0.000,0.000,0.000
1641234935278465024,2022-01-03-18:35:35,10.1.1.8,120,-0.010,-0.010,-0.010,0.000,0.000,0.000
1641234935478137088,2022-01-03-18:35:35,10.1.1.8,120,0.000,0.000,0.000,0.000,0.000,0.000
1641234935704876032,2022-01-03-18:35:35,10.1.1.8,145,-0.010,-0.010,-0.010,0.000,0.000,0.000
1641234935919120128,2022-01-03-18:35:35,10.1.1.8,121,-0.020,-0.020,-0.020,0.000,0.000,0.000
1641234936153189888,2022-01-03-18:35:36,10.1.1.8,140,-0.030,-0.030,-0.030,0.000,0.000,0.000
1641234936335814912,2022-01-03-18:35:36,10.1.1.8,132,-0.040,-0.040,-0.040,0.000,0.000,0.000
1641234936535744000,2022-01-03-18:35:36,10.1.1.8,131,-0.050,-0.050,-0.050,0.000,0.000,0.000
1641234936735127040,2022-01-03-18:35:36,10.1.1.8,128,-0.060,-0.060,-0.060,0.000,0.000,0.000
1641234936934770176,2022-01-03-18:35:36,10.1.1.8,127,-0.070,-0.070,-0.070,0.000,0.000,0.000
1641234937134818048,2022-01-03-18:35:37,10.1.1.8,125,-0.080,-0.080,-0.080,0.000,0.000,0.000
1641234937354331904,2022-01-03-18:35:37,10.1.1.8,121,-0.090,-0.090,-0.090,0.000,0.000,0.000
1641234937596183040,2022-01-03-18:35:37,10.1.1.8,133,-0.100,-0.100,-0.100,0.000,0.000,0.000
1641234937793864960,2022-01-03-18:35:37,10.1.1.8,130,-0.110,-0.110,-0.110,0.000,0.000,0.000
1641234937997651968,2022-01-03-18:35:37,10.1.1.8,131,-0.120,-0.120,-0.120,0.000,0.000,0.000
1641234938200723968,2022-01-03-18:35:38,10.1.1.8,132,-0.130,-0.130,-0.130,0.000,0.000,0.000
1641234938445575936,2022-01-03-18:35:38,10.1.1.8,176,-0.140,-0.140,-0.140,0.000,0.000,0.000
1641234938594331136,2022-01-03-18:35:38,10.1.1.8,122,-0.150,-0.150,-0.150,0.000,0.000,0.000
1641234938797785088,2022-01-03-18:35:38,10.1.1.8,126,-0.160,-0.160,-0.160,0.000,0.000,0.000
1641234938995843840,2022-01-03-18:35:38,10.1.1.8,124,-0.170,-0.170,-0.170,0.000,0.000,0.000
1641234939193371904,2022-01-03-18:35:39,10.1.1.8,119,-0.180,-0.180,-0.180,0.000,0.000,0.000
1641234939391148032,2022-01-03-18:35:39,10.1.1.8,116,-0.190,-0.190,-0.190,0.000,0.000,0.000
1641234939596754944,2022-01-03-18:35:39,10.1.1.8,119,-0.200,-0.200,-0.200,0.000,0.000,0.000
1641234939791023104,2022-01-03-18:35:39,10.1.1.8,113,-0.210,-0.210,-0.210,0.000,0.000,0.000
1641234940016082176,2022-01-03-18:35:40,10.1.1.8,136,-0.220,-0.220,-0.220,0.000,0.000,0.000
1641234940235778048,2022-01-03-18:35:40,10.1.1.8,132,-0.230,-0.230,-0.230,0.000,0.000,0.000
1641234940430401024,2022-01-03-18:35:40,10.1.1.8,125,-0.240,-0.240,-0.240,0.000,0.000,0.000
1641234940665160960,2022-01-03-18:35:40,10.1.1.8,159,-0.250,-0.250,-0.250,0.000,0.000,0.000
1641234940829392896,2022-01-03-18:35:40,10.1.1.8,123,-0.260,-0.260,-0.260,0.000,0.000,0.000
1641234941028878080,2022-01-03-18:35:41,10.1.1.8,121,-0.270,-0.270,-0.270,0.000,0.000,0.000
1641234941229094144,2022-01-03-18:35:41,10.1.1.8,121,-0.280,-0.280,-0.280,0.000,0.000,0.000
1641234941428436992,2022-01-03-18:35:41,10.1.1.8,119,-0.290,-0.290,-0.290,0.000,0.000,0.000
1641234941627649024,2022-01-03-18:35:41,10.1.1.8,118,-0.300,-0.300,-0.300,0.000,0.000,0.000
1641234941831994112,2022-01-03-18:35:41,10.1.1.8,122,-0.310,-0.310,-0.310,0.000,0.000,0.000
1641234942027085056,2022-01-03-18:35:42,10.1.1.8,116,-0.320,-0.320,-0.320,0.000,0.000,0.000
1641234942227216128,2022-01-03-18:35:42,10.1.1.8,115,-0.330,-0.330,-0.330,0.000,0.000,0.000
1641234942430394880,2022-01-03-18:35:42,10.1.1.8,118,-0.340,-0.340,-0.340,0.000,0.000,0.000
1641234942626460160,2022-01-03-18:35:42,10.1.1.8,113,-0.350,-0.350,-0.350,0.000,0.000,0.000
1641234942878583808,2022-01-03-18:35:42,10.1.1.8,132,-0.360,-0.360,-0.360,0.000,0.000,0.000
1641234943025993984,2022-01-03-18:35:43,10.1.1.8,112,-0.370,-0.370,-0.370,0.000,0.000,0.000
1641234943226807040,2022-01-03-18:35:43,10.1.1.8,112,-0.380,-0.380,-0.380,0.000,0.000,0.000
1641234943425242880,2022-01-03-18:35:43,10.1.1.8,109,-0.390,-0.390,-0.390,0.000,0.000,0.000
1641234943624705024,2022-01-03-18:35:43,10.1.1.8,108,-0.400,-0.400,-0.400,0.000,0.000,0.000
1641234943824760832,2022-01-03-18:35:43,10.1.1.8,107,-0.410,-0.410,-0.410,0.000,0.000,0.000
1641234944029294848,2022-01-03-18:35:44,10.1.1.8,111,-0.420,-0.420,-0.420,0.000,0.000,0.000
1641234944252322816,2022-01-03-18:35:44,10.1.1.8,130,-0.430,-0.430,-0.430,0.000,0.000,0.000
1641234944464109056,2022-01-03-18:35:44,10.1.1.8,124,-0.440,-0.440,-0.440,0.000,0.000,0.000
1641234944663433984,2022-01-03-18:35:44,10.1.1.8,123,-0.450,-0.450,-0.450,0.000,0.000,0.000
1641234944864201984,2022-01-03-18:35:44,10.1.1.8,123,-0.460,-0.460,-0.460,0.000,0.000,0.000
1641234945062707968,2022-01-03-18:35:45,10.1.1.8,121,-0.470,-0.470,-0.470,0.000,0.000,0.000
1641234945274471936,2022-01-03-18:35:45,10.1.1.8,132,-0.480,-0.480,-0.480,0.000,0.000,0.000
1641234945462007040,2022-01-03-18:35:45,10.1.1.8,119,-0.490,-0.490,-0.490,0.000,0.000,0.000
1641234945662266112,2022-01-03-18:35:45,10.1.1.8,117,-0.480,-0.480,-0.480,0.000,0.000,0.000
1641234945864402176,2022-01-03-18:35:45,10.1.1.8,118,-0.470,-0.470,-0.470,0.000,0.000,0.000
1641234946061337856,2022-01-03-18:35:46,10.1.1.8,115,-0.460,-0.460,-0.460,0.000,0.000,0.000
1641234946260848128,2022-01-03-18:35:46,10.1.1.8,114,-0.450,-0.450,-0.450,0.000,0.000,0.000
1641234946463254016,2022-01-03-18:35:46,10.1.1.8,115,-0.440,-0.440,-0.440,0.000,0.000,0.000
1641234946669404928,2022-01-03-18:35:46,10.1.1.8,111,-0.430,-0.430,-0.430,0.000,0.000,0.000
1641234946879826176,2022-01-03-18:35:46,10.1.1.8,111,-0.420,-0.420,-0.420,0.000,0.000,0.000
1641234947079670784,2022-01-03-18:35:47,10.1.1.8,108,-0.410,-0.410,-0.410,0.000,0.000,0.000
1641234947304593920,2022-01-03-18:35:47,10.1.1.8,123,-0.400,-0.400,-0.400,0.000,0.000,0.000
1641234947498838016,2022-01-03-18:35:47,10.1.1.8,115,-0.390,-0.390,-0.390,0.000,0.000,0.000
1641234947742844160,2022-01-03-18:35:47,10.1.1.8,154,-0.380,-0.380,-0.380,0.000,0.000,0.000
1641234947897920000,2022-01-03-18:35:47,10.1.1.8,109,-0.370,-0.370,-0.370,0.000,0.000,0.000
1641234948106991104,2022-01-03-18:35:48,10.1.1.8,117,-0.360,-0.360,-0.360,0.000,0.000,0.000
1641234948299290880,2022-01-03-18:35:48,10.1.1.8,109,-0.350,-0.350,-0.350,0.000,0.000,0.000
1641234948500786944,2022-01-03-18:35:48,10.1.1.8,109,-0.340,-0.340,-0.340,0.000,0.000,0.000
1641234948701513984,2022-01-03-18:35:48,10.1.1.8,109,-0.330,-0.330,-0.330,0.000,0.000,0.000
1641234948953991936,2022-01-03-18:35:48,10.1.1.8,158,-0.320,-0.320,-0.320,0.000,0.000,0.000
1641234949107301888,2022-01-03-18:35:49,10.1.1.8,112,-0.310,-0.310,-0.310,0.000,0.000,0.000
1641234949314649088,2022-01-03-18:35:49,10.1.1.8,119,-0.300,-0.300,-0.300,0.000,0.000,0.000
1641234949508531968,2022-01-03-18:35:49,10.1.1.8,111,-0.290,-0.290,-0.290,0.000,0.000,0.000
1641234949706268160,2022-01-03-18:35:49,10.1.1.8,107,-0.280,-0.280,-0.280,0.000,0.000,0.000
1641234949908334080,2022-01-03-18:35:49,10.1.1.8,108,-0.270,-0.270,-0.270,0.000,0.000,0.000
1641234950128824064,2022-01-03-18:35:50,10.1.1.8,128,-0.260,-0.260,-0.260,0.000,0.000,0.000
1641234950333213952,2022-01-03-18:35:50,10.1.1.8,130,-0.250,-0.250,-0.250,0.000,0.000,0.000
1641234950532980992,2022-01-03-18:35:50,10.1.1.8,129,-0.240,-0.240,-0.240,0.000,0.000,0.000
1641234950731470080,2022-01-03-18:35:50,10.1.1.8,127,-0.230,-0.230,-0.230,0.000,0.000,0.000
1641234950932316160,2022-01-03-18:35:50,10.1.1.8,127,-0.220,-0.220,-0.220,0.000,0.000,0.000
1641234951205351168,2022-01-03-18:35:51,10.1.1.8,149,-0.210,-0.210,-0.210,0.000,0.000,0.000
1641234951333604096,2022-01-03-18:35:51,10.1.1.8,127,-0.200,-0.200,-0.200,0.000,0.000,0.000
1641234951534514944,2022-01-03-18:35:51,10.1.1.8,127,-0.190,-0.190,-0.190,0.000,0.000,0.000
1641234951749861888,2022-01-03-18:35:51,10.1.1.8,142,-0.180,-0.180,-0.180,0.000,0.000,0.000
1641234951936905984,2022-01-03-18:35:51,10.1.1.8,128,-0.170,-0.170,-0.170,0.000,0.000,0.000
1641234952137224960,2022-01-03-18:35:52,10.1.1.8,127,-0.160,-0.160,-0.160,0.000,0.000,0.000
1641234952341427200,2022-01-03-18:35:52,10.1.1.8,125,-0.150,-0.150,-0.150,0.000,0.000,0.000
1641234952539511040,2022-01-03-18:35:52,10.1.1.8,123,-0.140,-0.140,-0.140,0.000,0.000,0.000
1641234952739227136,2022-01-03-18:35:52,10.1.1.8,122,-0.130,-0.130,-0.130,0.000,0.000,0.000
1641234952949278976,2022-01-03-18:35:52,10.1.1.8,131,-0.120,-0.120,-0.120,0.000,0.000,0.000
1641234953149171200,2022-01-03-18:35:53,10.1.1.8,130,-0.110,-0.110,-0.110,0.000,0.000,0.000
1641234953364509952,2022-01-03-18:35:53,10.1.1.8,144,-0.100,-0.100,-0.100,0.000,0.000,0.000
1641234953563250944,2022-01-03-18:35:53,10.1.1.8,134,-0.090,-0.090,-0.090,0.000,0.000,0.000
1641234953763123968,2022-01-03-18:35:53,10.1.1.8,132,-0.080,-0.080,-0.080,0.000,0.000,0.000
1641234953963205120,2022-01-03-18:35:53,10.1.1.8,132,-0.070,-0.070,-0.070,0.000,0.000,0.000
1641234954167013888,2022-01-03-18:35:54,10.1.1.8,135,-0.060,-0.060,-0.060,0.000,0.000,0.000
1641234954365138176,2022-01-03-18:35:54,10.1.1.8,132,-0.050,-0.050,-0.050,0.000,0.000,0.000
1641234954590328832,2022-01-03-18:35:54,10.1.1.8,156,-0.040,-0.040,-0.040,0.000,0.000,0.000
1641234954786277120,2022-01-03-18:35:54,10.1.1.8,142,-0.030,-0.030,-0.030,0.000,0.000,0.000
1641234954990403840,2022-01-03-18:35:54,10.1.1.8,145,-0.020,-0.020,-0.020,0.000,0.000,0.000
1641234955187555072,2022-01-03-18:35:55,10.1.1.8,141,-0.010,-0.010,-0.010,0.000,0.000,0.000
1641234955388492032,2022-01-03-18:35:55,10.1.1.8,141,0.000,0.000,0.000,0.000,0.000,0.000
1641234955588798976,2022-01-03-18:35:55,10.1.1.8,141,-0.010,-0.010,-0.010,0.000,0.000,0.000
1641234955837423104,2022-01-03-18:35:55,10.1.1.8,188,-0.020,-0.020,-0.020,0.000,0.000,0.000
1641234955989772032,2022-01-03-18:35:55,10.1.1.8,139,-0.030,-0.030,-0.030,0.000,0.000,0.000
1641234956190498048,2022-01-03-18:35:56,10.1.1.8,139,-0.040,-0.040,-0.040,0.000,0.000,0.000
1641234956390720000,2022-01-03-18:35:56,10.1.1.8,139,-0.050,-0.050,-0.050,0.000,0.000,0.000
1641234956590836992,2022-01-03-18:35:56,10.1.1.8,136,-0.060,-0.060,-0.060,0.000,0.000,0.000
1641234956792233984,2022-01-03-18:35:56,10.1.1.8,136,-0.070,-0.070,-0.070,0.000,0.000,0.000
1641234957012784128,2022-01-03-18:35:57,10.1.1.8,142,-0.080,-0.080,-0.080,0.000,0.000,0.000
1641234957212713984,2022-01-03-18:35:57,10.1.1.8,141,-0.090,-0.090,-0.090,0.000,0.000,0.000
1641234957413323008,2022-01-03-18:35:57,10.1.1.8,141,-0.100,-0.100,-0.100,0.000,0.000,0.000
1641234957613753088,2022-01-03-18:35:57,10.1.1.8,141,-0.110,-0.110,-0.110,0.000,0.000,0.000
1641234957814263040,2022-01-03-18:35:57,10.1.1.8,141,-0.120,-0.120,-0.120,0.000,0.000,0.000
1641234958262514176,2022-01-03-18:35:58,10.1.1.8,162,-0.140,-0.140,-0.140,0.000,0.000,0.000
1641234958455951872,2022-01-03-18:35:58,10.1.1.8,148,-0.150,-0.150,-0.150,0.000,0.000,0.000
1641234958656928000,2022-01-03-18:35:58,10.1.1.8,148,-0.160,-0.160,-0.160,0.000,0.000,0.000
1641234958876558080,2022-01-03-18:35:58,10.1.1.8,155,-0.170,-0.170,-0.170,0.000,0.000,0.000
1641234959076473088,2022-01-03-18:35:59,10.1.1.8,153,-0.180,-0.180,-0.180,0.000,0.000,0.000
1641234959278814976,2022-01-03-18:35:59,10.1.1.8,147,-0.190,-0.190,-0.190,0.000,0.000,0.000
1641234959477772032,2022-01-03-18:35:59,10.1.1.8,146,-0.200,-0.200,-0.200,0.000,0.000,0.000
1641234959676951808,2022-01-03-18:35:59,10.1.1.8,145,-0.210,-0.210,-0.210,0.000,0.000,0.000
1641234959877443072,2022-01-03-18:35:59,10.1.1.8,145,-0.220,-0.220,-0.220,0.000,0.000,0.000
1641234960079077888,2022-01-03-18:36:00,10.1.1.8,146,-0.230,-0.230,-0.230,0.000,0.000,0.000
1641234960281417984,2022-01-03-18:36:00,10.1.1.8,147,-0.240,-0.240,-0.240,0.000,0.000,0.000
1641234960499972096,2022-01-03-18:36:00,10.1.1.8,159,-0.250,-0.250,-0.250,0.000,0.000,0.000
1641234960699433216,2022-01-03-18:36:00,10.1.1.8,157,-0.260,-0.260,-0.260,0.000,0.000,0.000
1641234960904818944,2022-01-03-18:36:00,10.1.1.8,162,-0.270,-0.270,-0.270,0.000,0.000,0.000
1641234961102833152,2022-01-03-18:36:01,10.1.1.8,159,-0.280,-0.280,-0.280,0.000,0.000,0.000
1641234961306147072,2022-01-03-18:36:01,10.1.1.8,162,-0.290,-0.290,-0.290,0.000,0.000,0.000
1641234961520487936,2022-01-03-18:36:01,10.1.1.8,157,-0.300,-0.300,-0.300,0.000,0.000,0.000
1641234961727580928,2022-01-03-18:36:01,10.1.1.8,163,-0.310,-0.310,-0.310,0.000,0.000,0.000
1641234961921792000,2022-01-03-18:36:01,10.1.1.8,156,-0.320,-0.320,-0.320,0.000,0.000,0.000
1641234962121024000,2022-01-03-18:36:02,10.1.1.8,155,-0.330,-0.330,-0.330,0.000,0.000,0.000
1641234962321337856,2022-01-03-18:36:02,10.1.1.8,155,-0.340,-0.340,-0.340,0.000,0.000,0.000
1641234962533377024,2022-01-03-18:36:02,10.1.1.8,166,-0.350,-0.350,-0.350,0.000,0.000,0.000
1641234962721688064,2022-01-03-18:36:02,10.1.1.8,152,-0.360,-0.360,-0.360,0.000,0.000,0.000
1641234962921623040,2022-01-03-18:36:02,10.1.1.8,152,-0.370,-0.370,-0.370,0.000,0.000,0.000
1641234963121707008,2022-01-03-18:36:03,10.1.1.8,151,-0.380,-0.380,-0.380,0.000,0.000,0.000
1641234963340332032,2022-01-03-18:36:03,10.1.1.8,162,-0.390,-0.390,-0.390,0.000,0.000,0.000
1641234963522841856,2022-01-03-18:36:03,10.1.1.8,145,-0.400,-0.400,-0.400,0.000,0.000,0.000
1641234963729027072,2022-01-03-18:36:03,10.1.1.8,151,-0.410,-0.410,-0.410,0.000,0.000,0.000
1641234963946147072,2022-01-03-18:36:03,10.1.1.8,166,-0.420,-0.420,-0.420,0.000,0.000,0.000
1641234964143499008,2022-01-03-18:36:04,10.1.1.8,155,-0.430,-0.430,-0.430,0.000,0.000,0.000
1641234964343312896,2022-01-03-18:36:04,10.1.1.8,155,-0.440,-0.440,-0.440,0.000,0.000,0.000
1641234964543422976,2022-01-03-18:36:04,10.1.1.8,154,-0.450,-0.450,-0.450,0.000,0.000,0.000
1641234964743244800,2022-01-03-18:36:04,10.1.1.8,152,-0.460,-0.460,-0.460,0.000,0.000,0.000
1641234964949236992,2022-01-03-18:36:04,10.1.1.8,158,-0.470,-0.470,-0.470,0.000,0.000,0.000
1641234965143492096,2022-01-03-18:36:05,10.1.1.8,151,-0.480,-0.480,-0.480,0.000,0.000,0.000
1641234965343635968,2022-01-03-18:36:05,10.1.1.8,151,-0.490,-0.490,-0.490,0.000,0.000,0.000
1641234965555769088,2022-01-03-18:36:05,10.1.1.8,162,-0.480,-0.480,-0.480,0.000,0.000,0.000
1641234965765545984,2022-01-03-18:36:05,10.1.1.8,149,-0.470,-0.470,-0.470,0.000,0.000,0.000
1641234966041805056,2022-01-03-18:36:06,10.1.1.8,224,-0.460,-0.460,-0.460,0.000,0.000,0.000
1641234966205446912,2022-01-03-18:36:06,10.1.1.8,147,-0.450,-0.450,-0.450,0.000,0.000,0.000
1641234966404359936,2022-01-03-18:36:06,10.1.1.8,145,-0.440,-0.440,-0.440,0.000,0.000,0.000
1641234966604888064,2022-01-03-18:36:06,10.1.1.8,146,-0.430,-0.430,-0.430,0.000,0.000,0.000
1641234966804925952,2022-01-03-18:36:06,10.1.1.8,145,-0.420,-0.420,-0.420,0.000,0.000,0.000
1641234967025060864,2022-01-03-18:36:07,10.1.1.8,164,-0.410,-0.410,-0.410,0.000,0.000,0.000
1641234967242755840,2022-01-03-18:36:07,10.1.1.8,181,-0.400,-0.400,-0.400,0.000,0.000,0.000
1641234967425373952,2022-01-03-18:36:07,10.1.1.8,163,-0.390,-0.390,-0.390,0.000,0.000,0.000
1641234967626108928,2022-01-03-18:36:07,10.1.1.8,163,-0.380,-0.380,-0.380,0.000,0.000,0.000
1641234967825867776,2022-01-03-18:36:07,10.1.1.8,162,-0.370,-0.370,-0.370,0.000,0.000,0.000
1641234968025296896,2022-01-03-18:36:08,10.1.1.8,160,-0.360,-0.360,-0.360,0.000,0.000,0.000
1641234968465138944,2022-01-03-18:36:08,10.1.1.8,152,-0.340,-0.340,-0.340,0.000,0.000,0.000
1641234968665978880,2022-01-03-18:36:08,10.1.1.8,147,-0.330,-0.330,-0.330,0.000,0.000,0.000
1641234968885632000,2022-01-03-18:36:08,10.1.1.8,164,-0.320,-0.320,-0.320,0.000,0.000,0.000
1641234969085690880,2022-01-03-18:36:09,10.1.1.8,163,-0.310,-0.310,-0.310,0.000,0.000,0.000
1641234969285512960,2022-01-03-18:36:09,10.1.1.8,162,-0.300,-0.300,-0.300,0.000,0.000,0.000
1641234969485809152,2022-01-03-18:36:09,10.1.1.8,160,-0.290,-0.290,-0.290,0.000,0.000,0.000
1641234969685265920,2022-01-03-18:36:09,10.1.1.8,159,-0.280,-0.280,-0.280,0.000,0.000,0.000
1641234969885616896,2022-01-03-18:36:09,10.1.1.8,159,-0.270,-0.270,-0.270,0.000,0.000,0.000
1641234970086237952,2022-01-03-18:36:10,10.1.1.8,159,-0.260,-0.260,-0.260,0.000,0.000,0.000
1641234970285309952,2022-01-03-18:36:10,10.1.1.8,152,-0.250,-0.250,-0.250,0.000,0.000,0.000
1641234970486155008,2022-01-03-18:36:10,10.1.1.8,149,-0.240,-0.240,-0.240,0.000,0.000,0.000
1641234970686734080,2022-01-03-18:36:10,10.1.1.8,148,-0.230,-0.230,-0.230,0.000,0.000,0.000
1641234970905605120,2022-01-03-18:36:10,10.1.1.8,164,-0.220,-0.220,-0.220,0.000,0.000,0.000
1641234971107955968,2022-01-03-18:36:11,10.1.1.8,166,-0.210,-0.210,-0.210,0.000,0.000,0.000
1641234971305336832,2022-01-03-18:36:11,10.1.1.8,163,-0.200,-0.200,-0.200,0.000,0.000,0.000
1641234971505307904,2022-01-03-18:36:11,10.1.1.8,153,-0.190,-0.190,-0.190,0.000,0.000,0.000
1641234971705478912,2022-01-03-18:36:11,10.1.1.8,152,-0.180,-0.180,-0.180,0.000,0.000,0.000
1641234971917893888,2022-01-03-18:36:11,10.1.1.8,152,-0.170,-0.170,-0.170,0.000,0.000,0.000
1641234972107958016,2022-01-03-18:36:12,10.1.1.8,151,-0.160,-0.160,-0.160,0.000,0.000,0.000
1641234972306035968,2022-01-03-18:36:12,10.1.1.8,150,-0.150,-0.150,-0.150,0.000,0.000,0.000
1641234972526653952,2022-01-03-18:36:12,10.1.1.8,162,-0.140,-0.140,-0.140,0.000,0.000,0.000
1641234972730978048,2022-01-03-18:36:12,10.1.1.8,166,-0.130,-0.130,-0.130,0.000,0.000,0.000
1641234972925601024,2022-01-03-18:36:12,10.1.1.8,160,-0.120,-0.120,-0.120,0.000,0.000,0.000
1641234973125721088,2022-01-03-18:36:13,10.1.1.8,159,-0.110,-0.110,-0.110,0.000,0.000,0.000
1641234973334700032,2022-01-03-18:36:13,10.1.1.8,167,-0.100,-0.100,-0.100,0.000,0.000,0.000
1641234973526028032,2022-01-03-18:36:13,10.1.1.8,158,-0.090,-0.090,-0.090,0.000,0.000,0.000
1641234973724747008,2022-01-03-18:36:13,10.1.1.8,156,-0.080,-0.080,-0.080,0.000,0.000,0.000
1641234974148998912,2022-01-03-18:36:14,10.1.1.8,162,-0.060,-0.060,-0.060,0.000,0.000,0.000
1641234974344621824,2022-01-03-18:36:14,10.1.1.8,153,-0.050,-0.050,-0.050,0.000,0.000,0.000
1641234974544838912,2022-01-03-18:36:14,10.1.1.8,152,-0.040,-0.040,-0.040,0.000,0.000,0.000
1641234974744164864,2022-01-03-18:36:14,10.1.1.8,151,-0.030,-0.030,-0.030,0.000,0.000,0.000
1641234974945180928,2022-01-03-18:36:14,10.1.1.8,151,-0.020,-0.020,-0.020,0.000,0.000,0.000
1641234975164738048,2022-01-03-18:36:15,10.1.1.8,163,-0.010,-0.010,-0.010,0.000,0.000,0.000
1641234975364412160,2022-01-03-18:36:15,10.1.1.8,162,0.000,0.000,0.000,0.000,0.000,0.000
1641234975566777856,2022-01-03-18:36:15,10.1.1.8,163,-0.010,-0.010,-0.010,0.000,0.000,0.000
1641234975764712960,2022-01-03-18:36:15,10.1.1.8,160,-0.020,-0.020,-0.020,0.000,0.000,0.000
1641234975964518912,2022-01-03-18:36:15,10.1.1.8,159,-0.030,-0.030,-0.030,0.000,0.000,0.000
1641234976165474816,2022-01-03-18:36:16,10.1.1.8,160,-0.040,-0.040,-0.040,0.000,0.000,0.000
1641234976370132992,2022-01-03-18:36:16,10.1.1.8,163,-0.050,-0.050,-0.050,0.000,0.000,0.000
1641234976566660864,2022-01-03-18:36:16,10.1.1.8,154,-0.060,-0.060,-0.060,0.000,0.000,0.000
1641234976791683072,2022-01-03-18:36:16,10.1.1.8,181,-0.070,-0.070,-0.070,0.000,0.000,0.000
1641234976967084800,2022-01-03-18:36:16,10.1.1.8,150,-0.080,-0.080,-0.080,0.000,0.000,0.000
1641234977164699136,2022-01-03-18:36:17,10.1.1.8,145,-0.090,-0.090,-0.090,0.000,0.000,0.000
1641234977486493952,2022-01-03-18:36:17,10.1.1.8,155,-0.100,-0.100,-0.100,0.000,0.000,0.000
1641234977686472960,2022-01-03-18:36:17,10.1.1.8,152,-0.110,-0.110,-0.110,0.000,0.000,0.000
1641234977882759168,2022-01-03-18:36:17,10.1.1.8,150,-0.120,-0.120,-0.120,0.000,0.000,0.000
1641234978083398144,2022-01-03-18:36:18,10.1.1.8,150,-0.130,-0.130,-0.130,0.000,0.000,0.000
1641234978282536960,2022-01-03-18:36:18,10.1.1.8,148,-0.140,-0.140,-0.140,0.000,0.000,0.000
1641234978702886144,2022-01-03-18:36:18,10.1.1.8,156,-0.160,-0.160,-0.160,0.000,0.000,0.000
1641234978902064128,2022-01-03-18:36:18,10.1.1.8,153,-0.170,-0.170,-0.170,0.000,0.000,0.000
1641234979102749184,2022-01-03-18:36:19,10.1.1.8,153,-0.180,-0.180,-0.180,0.000,0.000,0.000
1641234979305404928,2022-01-03-18:36:19,10.1.1.8,151,-0.190,-0.190,-0.190,0.000,0.000,0.000
1641234979501457920,2022-01-03-18:36:19,10.1.1.8,150,-0.200,-0.200,-0.200,0.000,0.000,0.000
1641234979707446016,2022-01-03-18:36:19,10.1.1.8,152,-0.210,-0.210,-0.210,0.000,0.000,0.000
1641234979902956032,2022-01-03-18:36:19,10.1.1.8,146,-0.220,-0.220,-0.220,0.000,0.000,0.000
1641234980101859072,2022-01-03-18:36:20,10.1.1.8,145,-0.230,-0.230,-0.230,0.000,0.000,0.000
1641234980302051072,2022-01-03-18:36:20,10.1.1.8,144,-0.240,-0.240,-0.240,0.000,0.000,0.000
1641234980502592000,2022-01-03-18:36:20,10.1.1.8,143,-0.250,-0.250,-0.250,0.000,0.000,0.000
1641234980724212992,2022-01-03-18:36:20,10.1.1.8,160,-0.260,-0.260,-0.260,0.000,0.000,0.000
1641234980920852992,2022-01-03-18:36:20,10.1.1.8,160,-0.270,-0.270,-0.270,0.000,0.000,0.000
1641234981120812032,2022-01-03-18:36:21,10.1.1.8,158,-0.280,-0.280,-0.280,0.000,0.000,0.000
1641234981320837120,2022-01-03-18:36:21,10.1.1.8,157,-0.290,-0.290,-0.290,0.000,0.000,0.000
1641234981523063040,2022-01-03-18:36:21,10.1.1.8,158,-0.300,-0.300,-0.300,0.000,0.000,0.000
1641234981721669888,2022-01-03-18:36:21,10.1.1.8,156,-0.310,-0.310,-0.310,0.000,0.000,0.000
1641234981919713024,2022-01-03-18:36:21,10.1.1.8,153,-0.320,-0.320,-0.320,0.000,0.000,0.000
1641234982120982784,2022-01-03-18:36:22,10.1.1.8,153,-0.330,-0.330,-0.330,0.000,0.000,0.000
1641234982321428992,2022-01-03-18:36:22,10.1.1.8,153,-0.340,-0.340,-0.340,0.000,0.000,0.000
1641234982519248896,2022-01-03-18:36:22,10.1.1.8,150,-0.350,-0.350,-0.350,0.000,0.000,0.000
1641234982719794944,2022-01-03-18:36:22,10.1.1.8,150,-0.360,-0.360,-0.360,0.000,0.000,0.000
1641234982918948864,2022-01-03-18:36:22,10.1.1.8,149,-0.370,-0.370,-0.370,0.000,0.000,0.000
1641234983124370944,2022-01-03-18:36:23,10.1.1.8,151,-0.380,-0.380,-0.380,0.000,0.000,0.000
1641234983325510912,2022-01-03-18:36:23,10.1.1.8,151,-0.390,-0.390,-0.390,0.000,0.000,0.000
1641234983519005952,2022-01-03-18:36:23,10.1.1.8,144,-0.400,-0.400,-0.400,0.000,0.000,0.000
1641234983771849984,2022-01-03-18:36:23,10.1.1.8,197,-0.410,-0.410,-0.410,0.000,0.000,0.000
1641234983921096192,2022-01-03-18:36:23,10.1.1.8,145,-0.420,-0.420,-0.420,0.000,0.000,0.000
1641234984145632000,2022-01-03-18:36:24,10.1.1.8,168,-0.430,-0.430,-0.430,0.000,0.000,0.000
1641234984319292160,2022-01-03-18:36:24,10.1.1.8,141,-0.440,-0.440,-0.440,0.000,0.000,0.000
1641234984537272832,2022-01-03-18:36:24,10.1.1.8,157,-0.450,-0.450,-0.450,0.000,0.000,0.000
1641234984738074112,2022-01-03-18:36:24,10.1.1.8,157,-0.460,-0.460,-0.460,0.000,0.000,0.000
1641234984941167104,2022-01-03-18:36:24,10.1.1.8,159,-0.470,-0.470,-0.470,0.000,0.000,0.000
1641234985144844032,2022-01-03-18:36:25,10.1.1.8,163,-0.480,-0.480,-0.480,0.000,0.000,0.000
1641234985340177920,2022-01-03-18:36:25,10.1.1.8,149,-0.490,-0.490,-0.490,0.000,0.000,0.000
1641234985537144064,2022-01-03-18:36:25,10.1.1.8,146,-0.480,-0.480,-0.480,0.000,0.000,0.000
1641234985739151104,2022-01-03-18:36:25,10.1.1.8,147,-0.470,-0.470,-0.470,0.000,0.000,0.000
1641234985935867904,2022-01-03-18:36:25,10.1.1.8,140,-0.460,-0.460,-0.460,0.000,0.000,0.000
1641234986155920128,2022-01-03-18:36:26,10.1.1.8,145,-0.450,-0.450,-0.450,0.000,0.000,0.000
1641234986357469184,2022-01-03-18:36:26,10.1.1.8,146,-0.440,-0.440,-0.440,0.000,0.000,0.000
1641234986574949888,2022-01-03-18:36:26,10.1.1.8,141,-0.430,-0.430,-0.430,0.000,0.000,0.000
1641234986776103936,2022-01-03-18:36:26,10.1.1.8,141,-0.420,-0.420,-0.420,0.000,0.000,0.000
1641234986997004032,2022-01-03-18:36:26,10.1.1.8,156,-0.410,-0.410,-0.410,0.000,0.000,0.000
1641234987197537792,2022-01-03-18:36:27,10.1.1.8,156,-0.400,-0.400,-0.400,0.000,0.000,0.000
1641234987395243776,2022-01-03-18:36:27,10.1.1.8,151,-0.390,-0.390,-0.390,0.000,0.000,0.000
1641234987594039040,2022-01-03-18:36:27,10.1.1.8,143,-0.380,-0.380,-0.380,0.000,0.000,0.000
1641234987794195968,2022-01-03-18:36:27,10.1.1.8,142,-0.370,-0.370,-0.370,0.000,0.000,0.000
1641234987993660928,2022-01-03-18:36:27,10.1.1.8,139,-0.360,-0.360,-0.360,0.000,0.000,0.000
1641234988200867840,2022-01-03-18:36:28,10.1.1.8,145,-0.350,-0.350,-0.350,0.000,0.000,0.000
1641234988413052928,2022-01-03-18:36:28,10.1.1.8,151,-0.340,-0.340,-0.340,0.000,0.000,0.000
1641234988618226944,2022-01-03-18:36:28,10.1.1.8,143,-0.330,-0.330,-0.330,0.000,0.000,0.000
1641234988853193984,2022-01-03-18:36:28,10.1.1.8,150,-0.320,-0.320,-0.320,0.000,0.000,0.000
1641234989073016832,2022-01-03-18:36:29,10.1.1.8,141,-0.310,-0.310,-0.310,0.000,0.000,0.000
1641234989272263936,2022-01-03-18:36:29,10.1.1.8,136,-0.300,-0.300,-0.300,0.000,0.000,0.000
1641234989471668992,2022-01-03-18:36:29,10.1.1.8,135,-0.290,-0.290,-0.290,0.000,0.000,0.000
1641234989672818944,2022-01-03-18:36:29,10.1.1.8,134,-0.280,-0.280,-0.280,0.000,0.000,0.000
1641234989891273984,2022-01-03-18:36:29,10.1.1.8,152,-0.270,-0.270,-0.270,0.000,0.000,0.000
1641234990112779008,2022-01-03-18:36:30,10.1.1.8,148,-0.260,-0.260,-0.260,0.000,0.000,0.000
1641234990310544896,2022-01-03-18:36:30,10.1.1.8,145,-0.250,-0.250,-0.250,0.000,0.000,0.000
1641234990510978816,2022-01-03-18:36:30,10.1.1.8,142,-0.240,-0.240,-0.240,0.000,0.000,0.000
1641234990713581056,2022-01-03-18:36:30,10.1.1.8,143,-0.230,-0.230,-0.230,0.000,0.000,0.000
1641234990961700864,2022-01-03-18:36:30,10.1.1.8,191,-0.220,-0.220,-0.220,0.000,0.000,0.000
1641234991109581824,2022-01-03-18:36:31,10.1.1.8,137,-0.210,-0.210,-0.210,0.000,0.000,0.000
1641234991309690880,2022-01-03-18:36:31,10.1.1.8,133,-0.200,-0.200,-0.200,0.000,0.000,0.000
1641234991509843968,2022-01-03-18:36:31,10.1.1.8,133,-0.190,-0.190,-0.190,0.000,0.000,0.000
1641234991710050048,2022-01-03-18:36:31,10.1.1.8,132,-0.180,-0.180,-0.180,0.000,0.000,0.000
1641234991909373952,2022-01-03-18:36:31,10.1.1.8,130,-0.170,-0.170,-0.170,0.000,0.000,0.000
1641234992132046080,2022-01-03-18:36:32,10.1.1.8,152,-0.160,-0.160,-0.160,0.000,0.000,0.000
1641234992329040128,2022-01-03-18:36:32,10.1.1.8,148,-0.150,-0.150,-0.150,0.000,0.000,0.000
1641234992528930048,2022-01-03-18:36:32,10.1.1.8,147,-0.140,-0.140,-0.140,0.000,0.000,0.000
1641234992762703872,2022-01-03-18:36:32,10.1.1.8,167,-0.130,-0.130,-0.130,0.000,0.000,0.000
1641234992993967104,2022-01-03-18:36:32,10.1.1.8,152,-0.120,-0.120,-0.120,0.000,0.000,0.000
1641234993217447936,2022-01-03-18:36:33,10.1.1.8,175,-0.110,-0.110,-0.110,0.000,0.000,0.000
1641234993387330048,2022-01-03-18:36:33,10.1.1.8,134,-0.100,-0.100,-0.100,0.000,0.000,0.000
1641234993590811136,2022-01-03-18:36:33,10.1.1.8,131,-0.090,-0.090,-0.090,0.000,0.000,0.000
1641234993813169920,2022-01-03-18:36:33,10.1.1.8,147,-0.080,-0.080,-0.080,0.000,0.000,0.000
1641234994008667904,2022-01-03-18:36:34,10.1.1.8,138,-0.070,-0.070,-0.070,0.000,0.000,0.000
1641234994219616768,2022-01-03-18:36:34,10.1.1.8,147,-0.060,-0.060,-0.060,0.000,0.000,0.000
1641234994406315008,2022-01-03-18:36:34,10.1.1.8,131,-0.050,-0.050,-0.050,0.000,0.000,0.000
1641234994608007936,2022-01-03-18:36:34,10.1.1.8,132,-0.040,-0.040,-0.040,0.000,0.000,0.000
1641234994811148032,2022-01-03-18:36:34,10.1.1.8,133,-0.030,-0.030,-0.030,0.000,0.000,0.000
1641234995026288896,2022-01-03-18:36:35,10.1.1.8,146,-0.020,-0.020,-0.020,0.000,0.000,0.000
1641234995228372224,2022-01-03-18:36:35,10.1.1.8,130,-0.010,-0.010,-0.010,0.000,0.000,0.000
1641234995427341824,2022-01-03-18:36:35,10.1.1.8,128,-0.000,-0.000,-0.000,0.000,0.000,0.000
1641234995650465024,2022-01-03-18:36:35,10.1.1.8,139,-0.010,-0.010,-0.010,0.000,0.000,0.000
1641234995864409088,2022-01-03-18:36:35,10.1.1.8,138,-0.020,-0.020,-0.020,0.000,0.000,0.000
1641234996064424960,2022-01-03-18:36:36,10.1.1.8,136,-0.030,-0.030,-0.030,0.000,0.000,0.000
1641234996264600064,2022-01-03-18:36:36,10.1.1.8,136,-0.040,-0.040,-0.040,0.000,0.000,0.000
1641234996465792768,2022-01-03-18:36:36,10.1.1.8,137,-0.050,-0.050,-0.050,0.000,0.000,0.000
1641234996662200832,2022-01-03-18:36:36,10.1.1.8,131,-0.060,-0.060,-0.060,0.000,0.000,0.000
1641234996862051840,2022-01-03-18:36:36,10.1.1.8,130,-0.070,-0.070,-0.070,0.000,0.000,0.000
1641234997062688000,2022-01-03-18:36:37,10.1.1.8,130,-0.080,-0.080,-0.080,0.000,0.000,0.000
1641234997282125824,2022-01-03-18:36:37,10.1.1.8,137,-0.090,-0.090,-0.090,0.000,0.000,0.000
1641234997482290944,2022-01-03-18:36:37,10.1.1.8,128,-0.100,-0.100,-0.100,0.000,0.000,0.000
1641234997729483008,2022-01-03-18:36:37,10.1.1.8,175,-0.110,-0.110,-0.110,0.000,0.000,0.000
1641234997881879040,2022-01-03-18:36:37,10.1.1.8,126,-0.120,-0.120,-0.120,0.000,0.000,0.000
1641234998080064000,2022-01-03-18:36:38,10.1.1.8,124,-0.130,-0.130,-0.130,0.000,0.000,0.000
1641234998280500992,2022-01-03-18:36:38,10.1.1.8,123,-0.140,-0.140,-0.140,0.000,0.000,0.000
1641234998480526848,2022-01-03-18:36:38,10.1.1.8,123,-0.150,-0.150,-0.150,0.000,0.000,0.000
1641234998699491072,2022-01-03-18:36:38,10.1.1.8,132,-0.160,-0.160,-0.160,0.000,0.000,0.000
1641234998905133056,2022-01-03-18:36:38,10.1.1.8,127,-0.170,-0.170,-0.170,0.000,0.000,0.000
1641234999098969856,2022-01-03-18:36:39,10.1.1.8,120,-0.180,-0.180,-0.180,0.000,0.000,0.000
1641234999298136064,2022-01-03-18:36:39,10.1.1.8,118,-0.190,-0.190,-0.190,0.000,0.000,0.000
1641234999529447168,2022-01-03-18:36:39,10.1.1.8,149,-0.200,-0.200,-0.200,0.000,0.000,0.000
1641234999718251008,2022-01-03-18:36:39,10.1.1.8,122,-0.210,-0.210,-0.210,0.000,0.000,0.000
1641234999922084096,2022-01-03-18:36:39,10.1.1.8,125,-0.220,-0.220,-0.220,0.000,0.000,0.000
1641235000117646080,2022-01-03-18:36:40,10.1.1.8,120,-0.230,-0.230,-0.230,0.000,0.000,0.000
1641235000317572096,2022-01-03-18:36:40,10.1.1.8,118,-0.240,-0.240,-0.240,0.000,0.000,0.000
1641235000519070976,2022-01-03-18:36:40,10.1.1.8,119,-0.250,-0.250,-0.250,0.000,0.000,0.000
1641235000736417024,2022-01-03-18:36:40,10.1.1.8,136,-0.260,-0.260,-0.260,0.000,0.000,0.000
1641235000938760960,2022-01-03-18:36:40,10.1.1.8,138,-0.270,-0.270,-0.270,0.000,0.000,0.000
1641235001136468992,2022-01-03-18:36:41,10.1.1.8,131,-0.280,-0.280,-0.280,0.000,0.000,0.000
1641235001338283008,2022-01-03-18:36:41,10.1.1.8,131,-0.290,-0.290,-0.290,0.000,0.000,0.000
1641235001538185984,2022-01-03-18:36:41,10.1.1.8,131,-0.300,-0.300,-0.300,0.000,0.000,0.000
1641235001737723136,2022-01-03-18:36:41,10.1.1.8,129,-0.310,-0.310,-0.310,0.000,0.000,0.000
1641235001934112000,2022-01-03-18:36:41,10.1.1.8,125,-0.320,-0.320,-0.320,0.000,0.000,0.000
1641235002136641024,2022-01-03-18:36:42,10.1.1.8,126,-0.330,-0.330,-0.330,0.000,0.000,0.000
1641235002334779136,2022-01-03-18:36:42,10.1.1.8,124,-0.340,-0.340,-0.340,0.000,0.000,0.000
1641235002534138880,2022-01-03-18:36:42,10.1.1.8,122,-0.350,-0.350,-0.350,0.000,0.000,0.000
1641235002734482176,2022-01-03-18:36:42,10.1.1.8,122,-0.360,-0.360,-0.360,0.000,0.000,0.000
1641235002935537152,2022-01-03-18:36:42,10.1.1.8,123,-0.370,-0.370,-0.370,0.000,0.000,0.000
1641235003135405056,2022-01-03-18:36:43,10.1.1.8,121,-0.380,-0.380,-0.380,0.000,0.000,0.000
1641235003366516992,2022-01-03-18:36:43,10.1.1.8,143,-0.390,-0.390,-0.390,0.000,0.000,0.000
1641235003553220864,2022-01-03-18:36:43,10.1.1.8,129,-0.400,-0.400,-0.400,0.000,0.000,0.000
1641235003752852992,2022-01-03-18:36:43,10.1.1.8,123,-0.410,-0.410,-0.410,0.000,0.000,0.000
1641235003952572160,2022-01-03-18:36:43,10.1.1.8,122,-0.420,-0.420,-0.420,0.000,0.000,0.000
1641235004151645952,2022-01-03-18:36:44,10.1.1.8,119,-0.430,-0.430,-0.430,0.000,0.000,0.000
1641235004352269056,2022-01-03-18:36:44,10.1.1.8,119,-0.440,-0.440,-0.440,0.000,0.000,0.000
1641235004571811840,2022-01-03-18:36:44,10.1.1.8,126,-0.450,-0.450,-0.450,0.000,0.000,0.000
1641235004770723072,2022-01-03-18:36:44,10.1.1.8,124,-0.460,-0.460,-0.460,0.000,0.000,0.000
1641235004970163968,2022-01-03-18:36:44,10.1.1.8,122,-0.470,-0.470,-0.470,0.000,0.000,0.000
1641235005169572096,2022-01-03-18:36:45,10.1.1.8,121,-0.480,-0.480,-0.480,0.000,0.000,0.000
1641235005373262848,2022-01-03-18:36:45,10.1.1.8,124,-0.490,-0.490,-0.490,0.000,0.000,0.000
1641235005571985920,2022-01-03-18:36:45,10.1.1.8,121,-0.480,-0.480,-0.480,0.000,0.000,0.000
1641235005789047040,2022-01-03-18:36:45,10.1.1.8,119,-0.470,-0.470,-0.470,0.000,0.000,0.000
1641235006009624064,2022-01-03-18:36:46,10.1.1.8,127,-0.460,-0.460,-0.460,0.000,0.000,0.000
1641235006213742080,2022-01-03-18:36:46,10.1.1.8,130,-0.450,-0.450,-0.450,0.000,0.000,0.000
1641235006420290048,2022-01-03-18:36:46,10.1.1.8,136,-0.440,-0.440,-0.440,0.000,0.000,0.000
1641235006610953984,2022-01-03-18:36:46,10.1.1.8,126,-0.430,-0.430,-0.430,0.000,0.000,0.000
1641235006867773952,2022-01-03-18:36:46,10.1.1.8,123,-0.420,-0.420,-0.420,0.000,0.000,0.000
1641235007067657984,2022-01-03-18:36:47,10.1.1.8,123,-0.410,-0.410,-0.410,0.000,0.000,0.000
1641235007268424960,2022-01-03-18:36:47,10.1.1.8,120,-0.400,-0.400,-0.400,0.000,0.000,0.000
1641235007487271936,2022-01-03-18:36:47,10.1.1.8,124,-0.390,-0.390,-0.390,0.000,0.000,0.000
1641235007686507008,2022-01-03-18:36:47,10.1.1.8,123,-0.380,-0.380,-0.380,0.000,0.000,0.000
1641235007925139968,2022-01-03-18:36:47,10.1.1.8,122,-0.370,-0.370,-0.370,0.000,0.000,0.000
1641235008127058944,2022-01-03-18:36:48,10.1.1.8,118,-0.360,-0.360,-0.360,0.000,0.000,0.000
1641235008326412800,2022-01-03-18:36:48,10.1.1.8,117,-0.350,-0.350,-0.350,0.000,0.000,0.000
1641235008527098880,2022-01-03-18:36:48,10.1.1.8,115,-0.340,-0.340,-0.340,0.000,0.000,0.000
1641235008745018112,2022-01-03-18:36:48,10.1.1.8,118,-0.330,-0.330,-0.330,0.000,0.000,0.000
1641235008945995008,2022-01-03-18:36:48,10.1.1.8,118,-0.320,-0.320,-0.320,0.000,0.000,0.000
1641235009145533184,2022-01-03-18:36:49,10.1.1.8,114,-0.310,-0.310,-0.310,0.000,0.000,0.000
1641235009345428992,2022-01-03-18:36:49,10.1.1.8,109,-0.300,-0.300,-0.300,0.000,0.000,0.000
1641235009544900864,2022-01-03-18:36:49,10.1.1.8,108,-0.290,-0.290,-0.290,0.000,0.000,0.000
1641235009743150080,2022-01-03-18:36:49,10.1.1.8,107,-0.280,-0.280,-0.280,0.000,0.000,0.000
1641235009945751040,2022-01-03-18:36:49,10.1.1.8,106,-0.270,-0.270,-0.270,0.000,0.000,0.000
1641235010142054912,2022-01-03-18:36:50,10.1.1.8,105,-0.260,-0.260,-0.260,0.000,0.000,0.000
1641235010341763072,2022-01-03-18:36:50,10.1.1.8,103,-0.250,-0.250,-0.250,0.000,0.000,0.000
1641235010561934080,2022-01-03-18:36:50,10.1.1.8,122,-0.240,-0.240,-0.240,0.000,0.000,0.000
1641235010761722112,2022-01-03-18:36:50,10.1.1.8,121,-0.230,-0.230,-0.230,0.000,0.000,0.000
1641235010960807936,2022-01-03-18:36:50,10.1.1.8,119,-0.220,-0.220,-0.220,0.000,0.000,0.000
1641235011160337920,2022-01-03-18:36:51,10.1.1.8,113,-0.210,-0.210,-0.210,0.000,0.000,0.000
1641235011586448896,2022-01-03-18:36:51,10.1.1.8,110,-0.190,-0.190,-0.190,0.000,0.000,0.000
1641235011786304000,2022-01-03-18:36:51,10.1.1.8,111,-0.180,-0.180,-0.180,0.000,0.000,0.000
1641235011982301952,2022-01-03-18:36:51,10.1.1.8,106,-0.170,-0.170,-0.170,0.000,0.000,0.000
1641235012178360064,2022-01-03-18:36:52,10.1.1.8,100,-0.160,-0.160,-0.160,0.000,0.000,0.000
1641235012378148096,2022-01-03-18:36:52,10.1.1.8,100,-0.150,-0.150,-0.150,0.000,0.000,0.000
1641235012599432960,2022-01-03-18:36:52,10.1.1.8,114,-0.140,-0.140,-0.140,0.000,0.000,0.000
1641235012820728064,2022-01-03-18:36:52,10.1.1.8,114,-0.130,-0.130,-0.130,0.000,0.000,0.000
1641235013020262912,2022-01-03-18:36:53,10.1.1.8,113,-0.120,-0.120,-0.120,0.000,0.000,0.000
1641235013225388032,2022-01-03-18:36:53,10.1.1.8,118,-0.110,-0.110,-0.110,0.000,0.000,0.000
1641235013421399040,2022-01-03-18:36:53,10.1.1.8,108,-0.100,-0.100,-0.100,0.000,0.000,0.000
1641235013704174080,2022-01-03-18:36:53,10.1.1.8,191,-0.090,-0.090,-0.090,0.000,0.000,0.000
1641235013825197824,2022-01-03-18:36:53,10.1.1.8,105,-0.080,-0.080,-0.080,0.000,0.000,0.000
1641235014029388800,2022-01-03-18:36:54,10.1.1.8,112,-0.070,-0.070,-0.070,0.000,0.000,0.000
1641235014247698944,2022-01-03-18:36:54,10.1.1.8,125,-0.060,-0.060,-0.060,0.000,0.000,0.000
1641235014444977152,2022-01-03-18:36:54,10.1.1.8,122,-0.050,-0.050,-0.050,0.000,0.000,0.000
1641235014647154176,2022-01-03-18:36:54,10.1.1.8,123,-0.040,-0.040,-0.040,0.000,0.000,0.000
1641235014930629888,2022-01-03-18:36:54,10.1.1.8,115,-0.030,-0.030,-0.030,0.000,0.000,0.000
1641235015131633920,2022-01-03-18:36:55,10.1.1.8,118,-0.020,-0.020,-0.020,0.000,0.000,0.000
1641235015332147968,2022-01-03-18:36:55,10.1.1.8,117,-0.010,-0.010,-0.010,0.000,0.000,0.000
1641235015570373120,2022-01-03-18:36:55,10.1.1.8,151,0.000,0.000,0.000,0.000,0.000,0.000
1641235015736995840,2022-01-03-18:36:55,10.1.1.8,120,-0.010,-0.010,-0.010,0.000,0.000,0.000
1641235015972364800,2022-01-03-18:36:55,10.1.1.8,119,-0.020,-0.020,-0.020,0.000,0.000,0.000
1641235016175937792,2022-01-03-18:36:56,10.1.1.8,121,-0.030,-0.030,-0.030,0.000,0.000,0.000
1641235016374011904,2022-01-03-18:36:56,10.1.1.8,118,-0.040,-0.040,-0.040,0.000,0.000,0.000
1641235016576542976,2022-01-03-18:36:56,10.1.1.8,120,-0.050,-0.050,-0.050,0.000,0.000,0.000
1641235016774967808,2022-01-03-18:36:56,10.1.1.8,117,-0.060,-0.060,-0.060,0.000,0.000,0.000
1641235016979081984,2022-01-03-18:36:56,10.1.1.8,121,-0.070,-0.070,-0.070,0.000,0.000,0.000
1641235017216197888,2022-01-03-18:36:57,10.1.1.8,123,-0.080,-0.080,-0.080,0.000,0.000,0.000
1641235017438829056,2022-01-03-18:36:57,10.1.1.8,125,-0.090,-0.090,-0.090,0.000,0.000,0.000
1641235017646066944,2022-01-03-18:36:57,10.1.1.8,133,-0.100,-0.100,-0.100,0.000,0.000,0.000
1641235017848431104,2022-01-03-18:36:57,10.1.1.8,133,-0.110,-0.110,-0.110,0.000,0.000,0.000
1641235018040551936,2022-01-03-18:36:58,10.1.1.8,124,-0.120,-0.120,-0.120,0.000,0.000,0.000
1641235018276553984,2022-01-03-18:36:58,10.1.1.8,159,-0.130,-0.130,-0.130,0.000,0.000,0.000
1641235018441793024,2022-01-03-18:36:58,10.1.1.8,123,-0.140,-0.140,-0.140,0.000,0.000,0.000
1641235018662926848,2022-01-03-18:36:58,10.1.1.8,138,-0.150,-0.150,-0.150,0.000,0.000,0.000
1641235018862534912,2022-01-03-18:36:58,10.1.1.8,137,-0.160,-0.160,-0.160,0.000,0.000,0.000
1641235019063060992,2022-01-03-18:36:59,10.1.1.8,136,-0.170,-0.170,-0.170,0.000,0.000,0.000
1641235019266083072,2022-01-03-18:36:59,10.1.1.8,139,-0.180,-0.180,-0.180,0.000,0.000,0.000
1641235019473565184,2022-01-03-18:36:59,10.1.1.8,138,-0.190,-0.190,-0.190,0.000,0.000,0.000
1641235019665068032,2022-01-03-18:36:59,10.1.1.8,129,-0.200,-0.200,-0.200,0.000,0.000,0.000
1641235019866403072,2022-01-03-18:36:59,10.1.1.8,130,-0.210,-0.210,-0.210,0.000,0.000,0.000
1641235020089721856,2022-01-03-18:37:00,10.1.1.8,143,-0.220,-0.220,-0.220,0.000,0.000,0.000
1641235020307881216,2022-01-03-18:37:00,10.1.1.8,145,-0.230,-0.230,-0.230,0.000,0.000,0.000
1641235020533922816,2022-01-03-18:37:00,10.1.1.8,170,-0.240,-0.240,-0.240,0.000,0.000,0.000
1641235020708000000,2022-01-03-18:37:00,10.1.1.8,140,-0.250,-0.250,-0.250,0.000,0.000,0.000
1641235020909382144,2022-01-03-18:37:00,10.1.1.8,140,-0.260,-0.260,-0.260,0.000,0.000,0.000
1641235021109217024,2022-01-03-18:37:01,10.1.1.8,132,-0.270,-0.270,-0.270,0.000,0.000,0.000
1641235021310514944,2022-01-03-18:37:01,10.1.1.8,132,-0.280,-0.280,-0.280,0.000,0.000,0.000
1641235021509870080,2022-01-03-18:37:01,10.1.1.8,131,-0.290,-0.290,-0.290,0.000,0.000,0.000
1641235021733378048,2022-01-03-18:37:01,10.1.1.8,151,-0.300,-0.300,-0.300,0.000,0.000,0.000
1641235021934708224,2022-01-03-18:37:01,10.1.1.8,153,-0.310,-0.310,-0.310,0.000,0.000,0.000
1641235022132615168,2022-01-03-18:37:02,10.1.1.8,142,-0.320,-0.320,-0.320,0.000,0.000,0.000
1641235022342486016,2022-01-03-18:37:02,10.1.1.8,144,-0.330,-0.330,-0.330,0.000,0.000,0.000
1641235022534852864,2022-01-03-18:37:02,10.1.1.8,136,-0.340,-0.340,-0.340,0.000,0.000,0.000
1641235022769728000,2022-01-03-18:37:02,10.1.1.8,170,-0.350,-0.350,-0.350,0.000,0.000,0.000
1641235022958173952,2022-01-03-18:37:02,10.1.1.8,154,-0.360,-0.360,-0.360,0.000,0.000,0.000
1641235023155465984,2022-01-03-18:37:03,10.1.1.8,136,-0.370,-0.370,-0.370,0.000,0.000,0.000
1641235023374098176,2022-01-03-18:37:03,10.1.1.8,154,-0.380,-0.380,-0.380,0.000,0.000,0.000
1641235023575203840,2022-01-03-18:37:03,10.1.1.8,155,-0.390,-0.390,-0.390,0.000,0.000,0.000
1641235023777786112,2022-01-03-18:37:03,10.1.1.8,156,-0.400,-0.400,-0.400,0.000,0.000,0.000
