FedericoMungari/DigitalTwin_service/01_WiredScenario/Output/Output_script/script_rosapi_2_output_robots10_freq0_3.txt
timestamp,date,node,latency,joint_1,joint_2,joint_3,joint_4,joint_5,joint_6
1644926732967606016,2022-02-15-12:05:32,10.1.1.4,-5,-0.100,-0.100,-0.100,0.000,0.000,0.000
1644926733168963840,2022-02-15-12:05:33,10.1.1.4,34,-0.070,-0.070,-0.070,0.000,0.000,0.000
1644926733206702080,2022-02-15-12:05:33,10.1.1.4,23,-0.060,-0.060,-0.060,0.000,0.000,0.000
1644926733266031104,2022-02-15-12:05:33,10.1.1.4,33,-0.050,-0.050,-0.050,0.000,0.000,0.000
1644926733306423808,2022-02-15-12:05:33,10.1.1.4,22,-0.040,-0.040,-0.040,0.000,0.000,0.000
1644926733366183168,2022-02-15-12:05:33,10.1.1.4,32,-0.030,-0.030,-0.030,0.000,0.000,0.000
1644926733407109120,2022-02-15-12:05:33,10.1.1.4,21,-0.020,-0.020,-0.020,0.000,0.000,0.000
1644926733466244864,2022-02-15-12:05:33,10.1.1.4,30,-0.010,-0.010,-0.010,0.000,0.000,0.000
1644926733506288896,2022-02-15-12:05:33,10.1.1.4,20,0.000,0.000,0.000,0.000,0.000,0.000
1644926733567076864,2022-02-15-12:05:33,10.1.1.4,29,0.010,0.010,0.010,0.000,0.000,0.000
1644926733627218944,2022-02-15-12:05:33,10.1.1.4,39,0.020,0.020,0.020,0.000,0.000,0.000
1644926733666390016,2022-02-15-12:05:33,10.1.1.4,28,0.030,0.030,0.030,0.000,0.000,0.000
1644926733726749952,2022-02-15-12:05:33,10.1.1.4,38,0.040,0.040,0.040,0.000,0.000,0.000
1644926733766565120,2022-02-15-12:05:33,10.1.1.4,23,0.050,0.050,0.050,0.000,0.000,0.000
1644926733826221824,2022-02-15-12:05:33,10.1.1.4,33,0.060,0.060,0.060,0.000,0.000,0.000
1644926733866720000,2022-02-15-12:05:33,10.1.1.4,23,0.070,0.070,0.070,0.000,0.000,0.000
1644926733926096896,2022-02-15-12:05:33,10.1.1.4,32,0.080,0.080,0.080,0.000,0.000,0.000
1644926733965976064,2022-02-15-12:05:33,10.1.1.4,21,0.090,0.090,0.090,0.000,0.000,0.000
1644926734026117120,2022-02-15-12:05:34,10.1.1.4,30,0.100,0.100,0.100,0.000,0.000,0.000
1644926734126502144,2022-02-15-12:05:34,10.1.1.4,27,0.080,0.080,0.080,0.000,0.000,0.000
1644926734186135040,2022-02-15-12:05:34,10.1.1.4,35,0.070,0.070,0.070,0.000,0.000,0.000
1644926734226548992,2022-02-15-12:05:34,10.1.1.4,25,0.060,0.060,0.060,0.000,0.000,0.000
1644926734286345984,2022-02-15-12:05:34,10.1.1.4,34,0.050,0.050,0.050,0.000,0.000,0.000
1644926734328378880,2022-02-15-12:05:34,10.1.1.4,24,0.040,0.040,0.040,0.000,0.000,0.000
1644926734386395904,2022-02-15-12:05:34,10.1.1.4,34,0.030,0.030,0.030,0.000,0.000,0.000
1644926734425991936,2022-02-15-12:05:34,10.1.1.4,23,0.020,0.020,0.020,0.000,0.000,0.000
1644926734486428928,2022-02-15-12:05:34,10.1.1.4,32,0.010,0.010,0.010,0.000,0.000,0.000
1644926734526477056,2022-02-15-12:05:34,10.1.1.4,22,0.000,0.000,0.000,0.000,0.000,0.000
1644926734586433024,2022-02-15-12:05:34,10.1.1.4,31,-0.010,-0.010,-0.010,0.000,0.000,0.000
1644926734626946816,2022-02-15-12:05:34,10.1.1.4,21,-0.020,-0.020,-0.020,0.000,0.000,0.000
1644926734686994176,2022-02-15-12:05:34,10.1.1.4,30,-0.030,-0.030,-0.030,0.000,0.000,0.000
1644926734746192896,2022-02-15-12:05:34,10.1.1.4,38,-0.040,-0.040,-0.040,0.000,0.000,0.000
1644926734786011904,2022-02-15-12:05:34,10.1.1.4,27,-0.050,-0.050,-0.050,0.000,0.000,0.000
1644926734845881856,2022-02-15-12:05:34,10.1.1.4,37,-0.060,-0.060,-0.060,0.000,0.000,0.000
1644926734886440960,2022-02-15-12:05:34,10.1.1.4,27,-0.070,-0.070,-0.070,0.000,0.000,0.000
1644926734946574848,2022-02-15-12:05:34,10.1.1.4,36,-0.080,-0.080,-0.080,0.000,0.000,0.000
1644926734985865216,2022-02-15-12:05:34,10.1.1.4,18,-0.089,-0.089,-0.089,0.000,0.000,0.000
1644926735045767168,2022-02-15-12:05:35,10.1.1.4,27,-0.100,-0.100,-0.100,0.000,0.000,0.000
1644926735106189056,2022-02-15-12:05:35,10.1.1.4,37,-0.090,-0.090,-0.090,0.000,0.000,0.000
1644926735161284864,2022-02-15-12:05:35,10.1.1.4,26,-0.080,-0.080,-0.080,0.000,0.000,0.000
1644926735207980032,2022-02-15-12:05:35,10.1.1.4,32,-0.070,-0.070,-0.070,0.000,0.000,0.000
1644926735259491072,2022-02-15-12:05:35,10.1.1.4,21,-0.060,-0.060,-0.060,0.000,0.000,0.000
1644926735326419200,2022-02-15-12:05:35,10.1.1.4,29,-0.050,-0.050,-0.050,0.000,0.000,0.000
1644926735366099968,2022-02-15-12:05:35,10.1.1.4,19,-0.041,-0.041,-0.041,0.000,0.000,0.000
1644926735425981952,2022-02-15-12:05:35,10.1.1.4,28,-0.030,-0.030,-0.030,0.000,0.000,0.000
1644926735486300928,2022-02-15-12:05:35,10.1.1.4,37,-0.020,-0.020,-0.020,0.000,0.000,0.000
1644926735526930176,2022-02-15-12:05:35,10.1.1.4,27,-0.010,-0.010,-0.010,0.000,0.000,0.000
1644926735588097024,2022-02-15-12:05:35,10.1.1.4,25,0.000,0.000,0.000,0.000,0.000,0.000
1644926735646192128,2022-02-15-12:05:35,10.1.1.4,35,0.010,0.010,0.010,0.000,0.000,0.000
1644926735686467840,2022-02-15-12:05:35,10.1.1.4,24,0.020,0.020,0.020,0.000,0.000,0.000
1644926735746738944,2022-02-15-12:05:35,10.1.1.4,32,0.030,0.030,0.030,0.000,0.000,0.000
1644926735785896960,2022-02-15-12:05:35,10.1.1.4,21,0.040,0.040,0.040,0.000,0.000,0.000
1644926735845837056,2022-02-15-12:05:35,10.1.1.4,30,0.050,0.050,0.050,0.000,0.000,0.000
1644926735886260992,2022-02-15-12:05:35,10.1.1.4,20,0.060,0.060,0.060,0.000,0.000,0.000
1644926735946692864,2022-02-15-12:05:35,10.1.1.4,29,0.070,0.070,0.070,0.000,0.000,0.000
1644926736005932032,2022-02-15-12:05:36,10.1.1.4,38,0.080,0.080,0.080,0.000,0.000,0.000
1644926736046564096,2022-02-15-12:05:36,10.1.1.4,28,0.090,0.090,0.090,0.000,0.000,0.000
1644926736106712064,2022-02-15-12:05:36,10.1.1.4,37,0.100,0.100,0.100,0.000,0.000,0.000
1644926736146796032,2022-02-15-12:05:36,10.1.1.4,27,0.090,0.090,0.090,0.000,0.000,0.000
1644926736206984960,2022-02-15-12:05:36,10.1.1.4,36,0.080,0.080,0.080,0.000,0.000,0.000
1644926736245928960,2022-02-15-12:05:36,10.1.1.4,26,0.070,0.070,0.070,0.000,0.000,0.000
1644926736306580992,2022-02-15-12:05:36,10.1.1.4,34,0.060,0.060,0.060,0.000,0.000,0.000
1644926736346767872,2022-02-15-12:05:36,10.1.1.4,24,0.050,0.050,0.050,0.000,0.000,0.000
1644926736406286848,2022-02-15-12:05:36,10.1.1.4,33,0.040,0.040,0.040,0.000,0.000,0.000
1644926736446650880,2022-02-15-12:05:36,10.1.1.4,23,0.030,0.030,0.030,0.000,0.000,0.000
1644926736507760896,2022-02-15-12:05:36,10.1.1.4,32,0.020,0.020,0.020,0.000,0.000,0.000
1644926736547099136,2022-02-15-12:05:36,10.1.1.4,21,0.010,0.010,0.010,0.000,0.000,0.000
1644926736606362112,2022-02-15-12:05:36,10.1.1.4,30,0.000,0.000,0.000,0.000,0.000,0.000
1644926736706098176,2022-02-15-12:05:36,10.1.1.4,28,-0.020,-0.020,-0.020,0.000,0.000,0.000
1644926736766668032,2022-02-15-12:05:36,10.1.1.4,36,-0.030,-0.030,-0.030,0.000,0.000,0.000
1644926736806400000,2022-02-15-12:05:36,10.1.1.4,26,-0.040,-0.040,-0.040,0.000,0.000,0.000
1644926736866216960,2022-02-15-12:05:36,10.1.1.4,36,-0.050,-0.050,-0.050,0.000,0.000,0.000
1644926736906609152,2022-02-15-12:05:36,10.1.1.4,25,-0.060,-0.060,-0.060,0.000,0.000,0.000
1644926736966583040,2022-02-15-12:05:36,10.1.1.4,34,-0.070,-0.070,-0.070,0.000,0.000,0.000
1644926737006220032,2022-02-15-12:05:37,10.1.1.4,24,-0.080,-0.080,-0.080,0.000,0.000,0.000
1644926737066600192,2022-02-15-12:05:37,10.1.1.4,34,-0.090,-0.090,-0.090,0.000,0.000,0.000
1644926737106332928,2022-02-15-12:05:37,10.1.1.4,23,-0.100,-0.100,-0.100,0.000,0.000,0.000
1644926737168059136,2022-02-15-12:05:37,10.1.1.4,32,-0.090,-0.090,-0.090,0.000,0.000,0.000
1644926737207937024,2022-02-15-12:05:37,10.1.1.4,22,-0.080,-0.080,-0.080,0.000,0.000,0.000
1644926737266489856,2022-02-15-12:05:37,10.1.1.4,32,-0.070,-0.070,-0.070,0.000,0.000,0.000
1644926737305198080,2022-02-15-12:05:37,10.1.1.4,21,-0.060,-0.060,-0.060,0.000,0.000,0.000
1644926737366787840,2022-02-15-12:05:37,10.1.1.4,31,-0.050,-0.050,-0.050,0.000,0.000,0.000
1644926737406934016,2022-02-15-12:05:37,10.1.1.4,20,-0.040,-0.040,-0.040,0.000,0.000,0.000
1644926737466214912,2022-02-15-12:05:37,10.1.1.4,30,-0.030,-0.030,-0.030,0.000,0.000,0.000
1644926737506391040,2022-02-15-12:05:37,10.1.1.4,20,-0.021,-0.021,-0.021,0.000,0.000,0.000
1644926737566886912,2022-02-15-12:05:37,10.1.1.4,29,-0.010,-0.010,-0.010,0.000,0.000,0.000
1644926737626569984,2022-02-15-12:05:37,10.1.1.4,39,0.000,0.000,0.000,0.000,0.000,0.000
1644926737667459840,2022-02-15-12:05:37,10.1.1.4,28,0.010,0.010,0.010,0.000,0.000,0.000
1644926737726653952,2022-02-15-12:05:37,10.1.1.4,38,0.020,0.020,0.020,0.000,0.000,0.000
1644926737766082048,2022-02-15-12:05:37,10.1.1.4,27,0.030,0.030,0.030,0.000,0.000,0.000
1644926737826853888,2022-02-15-12:05:37,10.1.1.4,36,0.040,0.040,0.040,0.000,0.000,0.000
1644926737866492160,2022-02-15-12:05:37,10.1.1.4,25,0.050,0.050,0.050,0.000,0.000,0.000
1644926737926712064,2022-02-15-12:05:37,10.1.1.4,34,0.060,0.060,0.060,0.000,0.000,0.000
1644926737966844160,2022-02-15-12:05:37,10.1.1.4,23,0.070,0.070,0.070,0.000,0.000,0.000
1644926738026408960,2022-02-15-12:05:38,10.1.1.4,33,0.080,0.080,0.080,0.000,0.000,0.000
1644926738066829056,2022-02-15-12:05:38,10.1.1.4,22,0.090,0.090,0.090,0.000,0.000,0.000
1644926738126488832,2022-02-15-12:05:38,10.1.1.4,30,0.100,0.100,0.100,0.000,0.000,0.000
1644926738167012096,2022-02-15-12:05:38,10.1.1.4,19,0.091,0.091,0.091,0.000,0.000,0.000
1644926738226574848,2022-02-15-12:05:38,10.1.1.4,29,0.080,0.080,0.080,0.000,0.000,0.000
1644926738286989824,2022-02-15-12:05:38,10.1.1.4,37,0.070,0.070,0.070,0.000,0.000,0.000
1644926738326766848,2022-02-15-12:05:38,10.1.1.4,26,0.060,0.060,0.060,0.000,0.000,0.000
1644926738386283008,2022-02-15-12:05:38,10.1.1.4,36,0.050,0.050,0.050,0.000,0.000,0.000
1644926738426785024,2022-02-15-12:05:38,10.1.1.4,25,0.040,0.040,0.040,0.000,0.000,0.000
1644926738486281984,2022-02-15-12:05:38,10.1.1.4,35,0.030,0.030,0.030,0.000,0.000,0.000
1644926738526982144,2022-02-15-12:05:38,10.1.1.4,24,0.020,0.020,0.020,0.000,0.000,0.000
1644926738586377984,2022-02-15-12:05:38,10.1.1.4,33,0.010,0.010,0.010,0.000,0.000,0.000
1644926738626458880,2022-02-15-12:05:38,10.1.1.4,23,0.000,0.000,0.000,0.000,0.000,0.000
1644926738685753088,2022-02-15-12:05:38,10.1.1.4,32,-0.010,-0.010,-0.010,0.000,0.000,0.000
1644926738727025152,2022-02-15-12:05:38,10.1.1.4,22,-0.020,-0.020,-0.020,0.000,0.000,0.000
1644926738787985152,2022-02-15-12:05:38,10.1.1.4,31,-0.030,-0.030,-0.030,0.000,0.000,0.000
1644926738827714816,2022-02-15-12:05:38,10.1.1.4,22,-0.040,-0.040,-0.040,0.000,0.000,0.000
1644926738886437888,2022-02-15-12:05:38,10.1.1.4,31,-0.050,-0.050,-0.050,0.000,0.000,0.000
1644926738926682880,2022-02-15-12:05:38,10.1.1.4,20,-0.060,-0.060,-0.060,0.000,0.000,0.000
1644926738986903040,2022-02-15-12:05:38,10.1.1.4,28,-0.070,-0.070,-0.070,0.000,0.000,0.000
1644926739046050048,2022-02-15-12:05:39,10.1.1.4,38,-0.080,-0.080,-0.080,0.000,0.000,0.000
1644926739087177984,2022-02-15-12:05:39,10.1.1.4,27,-0.090,-0.090,-0.090,0.000,0.000,0.000
1644926739146269952,2022-02-15-12:05:39,10.1.1.4,37,-0.100,-0.100,-0.100,0.000,0.000,0.000
1644926739186921984,2022-02-15-12:05:39,10.1.1.4,28,-0.090,-0.090,-0.090,0.000,0.000,0.000
1644926739246754048,2022-02-15-12:05:39,10.1.1.4,37,-0.080,-0.080,-0.080,0.000,0.000,0.000
1644926739286289920,2022-02-15-12:05:39,10.1.1.4,26,-0.070,-0.070,-0.070,0.000,0.000,0.000
1644926739346193920,2022-02-15-12:05:39,10.1.1.4,35,-0.060,-0.060,-0.060,0.000,0.000,0.000
1644926739386338048,2022-02-15-12:05:39,10.1.1.4,25,-0.050,-0.050,-0.050,0.000,0.000,0.000
1644926739446307840,2022-02-15-12:05:39,10.1.1.4,33,-0.040,-0.040,-0.040,0.000,0.000,0.000
1644926739486813952,2022-02-15-12:05:39,10.1.1.4,22,-0.030,-0.030,-0.030,0.000,0.000,0.000
1644926739546544128,2022-02-15-12:05:39,10.1.1.4,32,-0.020,-0.020,-0.020,0.000,0.000,0.000
1644926739587198976,2022-02-15-12:05:39,10.1.1.4,21,-0.010,-0.010,-0.010,0.000,0.000,0.000
1644926739646275072,2022-02-15-12:05:39,10.1.1.4,30,0.000,0.000,0.000,0.000,0.000,0.000
1644926739686682880,2022-02-15-12:05:39,10.1.1.4,20,0.010,0.010,0.010,0.000,0.000,0.000
1644926739746126848,2022-02-15-12:05:39,10.1.1.4,29,0.020,0.020,0.020,0.000,0.000,0.000
1644926739807735808,2022-02-15-12:05:39,10.1.1.4,39,0.030,0.030,0.030,0.000,0.000,0.000
1644926739846034944,2022-02-15-12:05:39,10.1.1.4,28,0.040,0.040,0.040,0.000,0.000,0.000
1644926739906183936,2022-02-15-12:05:39,10.1.1.4,38,0.050,0.050,0.050,0.000,0.000,0.000
1644926739946034944,2022-02-15-12:05:39,10.1.1.4,28,0.060,0.060,0.060,0.000,0.000,0.000
1644926740007407872,2022-02-15-12:05:40,10.1.1.4,37,0.070,0.070,0.070,0.000,0.000,0.000
1644926740046171904,2022-02-15-12:05:40,10.1.1.4,27,0.080,0.080,0.080,0.000,0.000,0.000
1644926740106825216,2022-02-15-12:05:40,10.1.1.4,36,0.090,0.090,0.090,0.000,0.000,0.000
1644926740146388992,2022-02-15-12:05:40,10.1.1.4,26,0.100,0.100,0.100,0.000,0.000,0.000
1644926740206480128,2022-02-15-12:05:40,10.1.1.4,34,0.090,0.090,0.090,0.000,0.000,0.000
1644926740246515968,2022-02-15-12:05:40,10.1.1.4,23,0.080,0.080,0.080,0.000,0.000,0.000
1644926740306628096,2022-02-15-12:05:40,10.1.1.4,33,0.070,0.070,0.070,0.000,0.000,0.000
1644926740346476032,2022-02-15-12:05:40,10.1.1.4,23,0.060,0.060,0.060,0.000,0.000,0.000
1644926740406054912,2022-02-15-12:05:40,10.1.1.4,33,0.050,0.050,0.050,0.000,0.000,0.000
1644926740446877952,2022-02-15-12:05:40,10.1.1.4,22,0.040,0.040,0.040,0.000,0.000,0.000
1644926740506622976,2022-02-15-12:05:40,10.1.1.4,31,0.030,0.030,0.030,0.000,0.000,0.000
1644926740546920960,2022-02-15-12:05:40,10.1.1.4,21,0.020,0.020,0.020,0.000,0.000,0.000
1644926740607356160,2022-02-15-12:05:40,10.1.1.4,30,0.010,0.010,0.010,0.000,0.000,0.000
1644926740647757056,2022-02-15-12:05:40,10.1.1.4,20,0.000,0.000,0.000,0.000,0.000,0.000
1644926740706806016,2022-02-15-12:05:40,10.1.1.4,30,-0.010,-0.010,-0.010,0.000,0.000,0.000
1644926740746535936,2022-02-15-12:05:40,10.1.1.4,19,-0.019,-0.019,-0.019,0.000,0.000,0.000
1644926740806441984,2022-02-15-12:05:40,10.1.1.4,28,-0.030,-0.030,-0.030,0.000,0.000,0.000
1644926740867153920,2022-02-15-12:05:40,10.1.1.4,38,-0.040,-0.040,-0.040,0.000,0.000,0.000
1644926740907628032,2022-02-15-12:05:40,10.1.1.4,27,-0.050,-0.050,-0.050,0.000,0.000,0.000
1644926740966656000,2022-02-15-12:05:40,10.1.1.4,37,-0.060,-0.060,-0.060,0.000,0.000,0.000
1644926741006639872,2022-02-15-12:05:41,10.1.1.4,26,-0.070,-0.070,-0.070,0.000,0.000,0.000
1644926741068447232,2022-02-15-12:05:41,10.1.1.4,35,-0.080,-0.080,-0.080,0.000,0.000,0.000
1644926741106790144,2022-02-15-12:05:41,10.1.1.4,23,-0.090,-0.090,-0.090,0.000,0.000,0.000
1644926741166382080,2022-02-15-12:05:41,10.1.1.4,33,-0.100,-0.100,-0.100,0.000,0.000,0.000
1644926741226914816,2022-02-15-12:05:41,10.1.1.4,38,-0.090,-0.090,-0.090,0.000,0.000,0.000
1644926741266736896,2022-02-15-12:05:41,10.1.1.4,27,-0.080,-0.080,-0.080,0.000,0.000,0.000
1644926741327725056,2022-02-15-12:05:41,10.1.1.4,35,-0.070,-0.070,-0.070,0.000,0.000,0.000
1644926741367252224,2022-02-15-12:05:41,10.1.1.4,24,-0.060,-0.060,-0.060,0.000,0.000,0.000
1644926741426253056,2022-02-15-12:05:41,10.1.1.4,33,-0.050,-0.050,-0.050,0.000,0.000,0.000
1644926741466383104,2022-02-15-12:05:41,10.1.1.4,22,-0.040,-0.040,-0.040,0.000,0.000,0.000
1644926741526503936,2022-02-15-12:05:41,10.1.1.4,31,-0.030,-0.030,-0.030,0.000,0.000,0.000
1644926741566426880,2022-02-15-12:05:41,10.1.1.4,20,-0.020,-0.020,-0.020,0.000,0.000,0.000
1644926741626575872,2022-02-15-12:05:41,10.1.1.4,29,-0.010,-0.010,-0.010,0.000,0.000,0.000
1644926741666758912,2022-02-15-12:05:41,10.1.1.4,19,-0.001,-0.001,-0.001,0.000,0.000,0.000
1644926741726937088,2022-02-15-12:05:41,10.1.1.4,29,0.010,0.010,0.010,0.000,0.000,0.000
1644926741786267136,2022-02-15-12:05:41,10.1.1.4,37,0.020,0.020,0.020,0.000,0.000,0.000
1644926741828551936,2022-02-15-12:05:41,10.1.1.4,27,0.030,0.030,0.030,0.000,0.000,0.000
1644926741887640832,2022-02-15-12:05:41,10.1.1.4,36,0.040,0.040,0.040,0.000,0.000,0.000
1644926741926157056,2022-02-15-12:05:41,10.1.1.4,24,0.050,0.050,0.050,0.000,0.000,0.000
1644926741986258944,2022-02-15-12:05:41,10.1.1.4,33,0.060,0.060,0.060,0.000,0.000,0.000
1644926742026961920,2022-02-15-12:05:42,10.1.1.4,23,0.070,0.070,0.070,0.000,0.000,0.000
1644926742087111936,2022-02-15-12:05:42,10.1.1.4,32,0.080,0.080,0.080,0.000,0.000,0.000
1644926742126333952,2022-02-15-12:05:42,10.1.1.4,21,0.090,0.090,0.090,0.000,0.000,0.000
1644926742186213120,2022-02-15-12:05:42,10.1.1.4,30,0.100,0.100,0.100,0.000,0.000,0.000
1644926742226607104,2022-02-15-12:05:42,10.1.1.4,19,0.091,0.091,0.091,0.000,0.000,0.000
1644926742286405120,2022-02-15-12:05:42,10.1.1.4,28,0.080,0.080,0.080,0.000,0.000,0.000
1644926742346756864,2022-02-15-12:05:42,10.1.1.4,38,0.070,0.070,0.070,0.000,0.000,0.000
1644926742386264064,2022-02-15-12:05:42,10.1.1.4,27,0.060,0.060,0.060,0.000,0.000,0.000
1644926742446877952,2022-02-15-12:05:42,10.1.1.4,36,0.050,0.050,0.050,0.000,0.000,0.000
1644926742486605824,2022-02-15-12:05:42,10.1.1.4,25,0.040,0.040,0.040,0.000,0.000,0.000
1644926742547040000,2022-02-15-12:05:42,10.1.1.4,33,0.030,0.030,0.030,0.000,0.000,0.000
1644926742586827008,2022-02-15-12:05:42,10.1.1.4,22,0.020,0.020,0.020,0.000,0.000,0.000
1644926742646542080,2022-02-15-12:05:42,10.1.1.4,30,0.010,0.010,0.010,0.000,0.000,0.000
1644926742686731008,2022-02-15-12:05:42,10.1.1.4,19,0.000,0.000,0.000,0.000,0.000,0.000
1644926742746211072,2022-02-15-12:05:42,10.1.1.4,29,-0.010,-0.010,-0.010,0.000,0.000,0.000
1644926742807142144,2022-02-15-12:05:42,10.1.1.4,38,-0.020,-0.020,-0.020,0.000,0.000,0.000
1644926742846697216,2022-02-15-12:05:42,10.1.1.4,27,-0.030,-0.030,-0.030,0.000,0.000,0.000
1644926742906163968,2022-02-15-12:05:42,10.1.1.4,36,-0.040,-0.040,-0.040,0.000,0.000,0.000
1644926742947549184,2022-02-15-12:05:42,10.1.1.4,26,-0.050,-0.050,-0.050,0.000,0.000,0.000
1644926743006998016,2022-02-15-12:05:43,10.1.1.4,35,-0.060,-0.060,-0.060,0.000,0.000,0.000
1644926743048506112,2022-02-15-12:05:43,10.1.1.4,24,-0.070,-0.070,-0.070,0.000,0.000,0.000
1644926743107026944,2022-02-15-12:05:43,10.1.1.4,33,-0.080,-0.080,-0.080,0.000,0.000,0.000
1644926743147028992,2022-02-15-12:05:43,10.1.1.4,23,-0.090,-0.090,-0.090,0.000,0.000,0.000
1644926743208295168,2022-02-15-12:05:43,10.1.1.4,32,-0.100,-0.100,-0.100,0.000,0.000,0.000
1644926743306715136,2022-02-15-12:05:43,10.1.1.4,21,-0.080,-0.080,-0.080,0.000,0.000,0.000
1644926743367436032,2022-02-15-12:05:43,10.1.1.4,29,-0.070,-0.070,-0.070,0.000,0.000,0.000
1644926743426222080,2022-02-15-12:05:43,10.1.1.4,37,-0.060,-0.060,-0.060,0.000,0.000,0.000
1644926743466278912,2022-02-15-12:05:43,10.1.1.4,23,-0.050,-0.050,-0.050,0.000,0.000,0.000
1644926743528292864,2022-02-15-12:05:43,10.1.1.4,29,-0.040,-0.040,-0.040,0.000,0.000,0.000
1644926743586534144,2022-02-15-12:05:43,10.1.1.4,38,-0.030,-0.030,-0.030,0.000,0.000,0.000
1644926743627154944,2022-02-15-12:05:43,10.1.1.4,26,-0.020,-0.020,-0.020,0.000,0.000,0.000
1644926743687143936,2022-02-15-12:05:43,10.1.1.4,36,-0.010,-0.010,-0.010,0.000,0.000,0.000
1644926743725985024,2022-02-15-12:05:43,10.1.1.4,24,0.000,0.000,0.000,0.000,0.000,0.000
1644926743786711040,2022-02-15-12:05:43,10.1.1.4,34,0.010,0.010,0.010,0.000,0.000,0.000
1644926743826745088,2022-02-15-12:05:43,10.1.1.4,23,0.020,0.020,0.020,0.000,0.000,0.000
1644926743887341056,2022-02-15-12:05:43,10.1.1.4,32,0.030,0.030,0.030,0.000,0.000,0.000
1644926743927969024,2022-02-15-12:05:43,10.1.1.4,21,0.040,0.040,0.040,0.000,0.000,0.000
1644926743986705152,2022-02-15-12:05:43,10.1.1.4,32,0.050,0.050,0.050,0.000,0.000,0.000
1644926744028031232,2022-02-15-12:05:44,10.1.1.4,21,0.060,0.060,0.060,0.000,0.000,0.000
1644926744086777088,2022-02-15-12:05:44,10.1.1.4,30,0.070,0.070,0.070,0.000,0.000,0.000
1644926744126300928,2022-02-15-12:05:44,10.1.1.4,19,0.079,0.079,0.079,0.000,0.000,0.000
1644926744187172864,2022-02-15-12:05:44,10.1.1.4,28,0.090,0.090,0.090,0.000,0.000,0.000
1644926744246356992,2022-02-15-12:05:44,10.1.1.4,37,0.100,0.100,0.100,0.000,0.000,0.000
1644926744286642176,2022-02-15-12:05:44,10.1.1.4,27,0.090,0.090,0.090,0.000,0.000,0.000
1644926744347207936,2022-02-15-12:05:44,10.1.1.4,37,0.080,0.080,0.080,0.000,0.000,0.000
1644926744386328832,2022-02-15-12:05:44,10.1.1.4,25,0.070,0.070,0.070,0.000,0.000,0.000
1644926744446131968,2022-02-15-12:05:44,10.1.1.4,33,0.060,0.060,0.060,0.000,0.000,0.000
1644926744485671936,2022-02-15-12:05:44,10.1.1.4,23,0.050,0.050,0.050,0.000,0.000,0.000
1644926744547097088,2022-02-15-12:05:44,10.1.1.4,31,0.040,0.040,0.040,0.000,0.000,0.000
1644926744586767872,2022-02-15-12:05:44,10.1.1.4,20,0.030,0.030,0.030,0.000,0.000,0.000
1644926744646179840,2022-02-15-12:05:44,10.1.1.4,30,0.020,0.020,0.020,0.000,0.000,0.000
1644926744687105792,2022-02-15-12:05:44,10.1.1.4,19,0.010,0.010,0.010,0.000,0.000,0.000
1644926744746328064,2022-02-15-12:05:44,10.1.1.4,29,0.000,0.000,0.000,0.000,0.000,0.000
1644926744786501888,2022-02-15-12:05:44,10.1.1.4,19,-0.009,-0.009,-0.009,0.000,0.000,0.000
1644926744846679040,2022-02-15-12:05:44,10.1.1.4,28,-0.020,-0.020,-0.020,0.000,0.000,0.000
1644926744906716160,2022-02-15-12:05:44,10.1.1.4,38,-0.030,-0.030,-0.030,0.000,0.000,0.000
1644926744946576128,2022-02-15-12:05:44,10.1.1.4,28,-0.040,-0.040,-0.040,0.000,0.000,0.000
1644926745006316800,2022-02-15-12:05:45,10.1.1.4,37,-0.050,-0.050,-0.050,0.000,0.000,0.000
1644926745046425088,2022-02-15-12:05:45,10.1.1.4,26,-0.060,-0.060,-0.060,0.000,0.000,0.000
1644926745106915840,2022-02-15-12:05:45,10.1.1.4,36,-0.070,-0.070,-0.070,0.000,0.000,0.000
1644926745146904832,2022-02-15-12:05:45,10.1.1.4,25,-0.080,-0.080,-0.080,0.000,0.000,0.000
1644926745207483136,2022-02-15-12:05:45,10.1.1.4,35,-0.090,-0.090,-0.090,0.000,0.000,0.000
1644926745246240000,2022-02-15-12:05:45,10.1.1.4,25,-0.100,-0.100,-0.100,0.000,0.000,0.000
1644926745305743104,2022-02-15-12:05:45,10.1.1.4,34,-0.090,-0.090,-0.090,0.000,0.000,0.000
1644926745346284032,2022-02-15-12:05:45,10.1.1.4,24,-0.080,-0.080,-0.080,0.000,0.000,0.000
1644926745405330944,2022-02-15-12:05:45,10.1.1.4,33,-0.070,-0.070,-0.070,0.000,0.000,0.000
1644926745446244096,2022-02-15-12:05:45,10.1.1.4,23,-0.060,-0.060,-0.060,0.000,0.000,0.000
1644926745510010880,2022-02-15-12:05:45,10.1.1.4,32,-0.050,-0.050,-0.050,0.000,0.000,0.000
1644926745547182080,2022-02-15-12:05:45,10.1.1.4,21,-0.040,-0.040,-0.040,0.000,0.000,0.000
1644926745606492160,2022-02-15-12:05:45,10.1.1.4,31,-0.030,-0.030,-0.030,0.000,0.000,0.000
1644926745646576896,2022-02-15-12:05:45,10.1.1.4,19,-0.020,-0.020,-0.020,0.000,0.000,0.000
1644926745714013952,2022-02-15-12:05:45,10.1.1.4,29,-0.010,-0.010,-0.010,0.000,0.000,0.000
1644926745765882880,2022-02-15-12:05:45,10.1.1.4,38,0.000,0.000,0.000,0.000,0.000,0.000
1644926745806596096,2022-02-15-12:05:45,10.1.1.4,28,0.010,0.010,0.010,0.000,0.000,0.000
1644926745866635008,2022-02-15-12:05:45,10.1.1.4,35,0.020,0.020,0.020,0.000,0.000,0.000
1644926745906126080,2022-02-15-12:05:45,10.1.1.4,25,0.030,0.030,0.030,0.000,0.000,0.000
1644926745967247872,2022-02-15-12:05:45,10.1.1.4,34,0.040,0.040,0.040,0.000,0.000,0.000
1644926746006612992,2022-02-15-12:05:46,10.1.1.4,23,0.050,0.050,0.050,0.000,0.000,0.000
1644926746066747904,2022-02-15-12:05:46,10.1.1.4,32,0.060,0.060,0.060,0.000,0.000,0.000
1644926746105617152,2022-02-15-12:05:46,10.1.1.4,21,0.070,0.070,0.070,0.000,0.000,0.000
1644926746165693952,2022-02-15-12:05:46,10.1.1.4,30,0.080,0.080,0.080,0.000,0.000,0.000
1644926746207417088,2022-02-15-12:05:46,10.1.1.4,19,0.089,0.089,0.089,0.000,0.000,0.000
1644926746266139136,2022-02-15-12:05:46,10.1.1.4,28,0.100,0.100,0.100,0.000,0.000,0.000
1644926746326273024,2022-02-15-12:05:46,10.1.1.4,37,0.090,0.090,0.090,0.000,0.000,0.000
1644926746366348032,2022-02-15-12:05:46,10.1.1.4,27,0.080,0.080,0.080,0.000,0.000,0.000
1644926746427128064,2022-02-15-12:05:46,10.1.1.4,35,0.070,0.070,0.070,0.000,0.000,0.000
1644926746466725120,2022-02-15-12:05:46,10.1.1.4,24,0.060,0.060,0.060,0.000,0.000,0.000
1644926746527216896,2022-02-15-12:05:46,10.1.1.4,34,0.050,0.050,0.050,0.000,0.000,0.000
1644926746565746176,2022-02-15-12:05:46,10.1.1.4,23,0.040,0.040,0.040,0.000,0.000,0.000
1644926746626507008,2022-02-15-12:05:46,10.1.1.4,32,0.030,0.030,0.030,0.000,0.000,0.000
1644926746668195072,2022-02-15-12:05:46,10.1.1.4,21,0.020,0.020,0.020,0.000,0.000,0.000
1644926746726984960,2022-02-15-12:05:46,10.1.1.4,31,0.010,0.010,0.010,0.000,0.000,0.000
1644926746766438912,2022-02-15-12:05:46,10.1.1.4,20,0.000,0.000,0.000,0.000,0.000,0.000
1644926746826975232,2022-02-15-12:05:46,10.1.1.4,29,-0.010,-0.010,-0.010,0.000,0.000,0.000
1644926746866503936,2022-02-15-12:05:46,10.1.1.4,19,-0.019,-0.019,-0.019,0.000,0.000,0.000
1644926746927459840,2022-02-15-12:05:46,10.1.1.4,29,-0.030,-0.030,-0.030,0.000,0.000,0.000
1644926746987324928,2022-02-15-12:05:46,10.1.1.4,38,-0.040,-0.040,-0.040,0.000,0.000,0.000
1644926747026391040,2022-02-15-12:05:47,10.1.1.4,27,-0.050,-0.050,-0.050,0.000,0.000,0.000
1644926747086787072,2022-02-15-12:05:47,10.1.1.4,37,-0.060,-0.060,-0.060,0.000,0.000,0.000
1644926747126660096,2022-02-15-12:05:47,10.1.1.4,26,-0.070,-0.070,-0.070,0.000,0.000,0.000
1644926747188809984,2022-02-15-12:05:47,10.1.1.4,38,-0.080,-0.080,-0.080,0.000,0.000,0.000
1644926747226301952,2022-02-15-12:05:47,10.1.1.4,24,-0.090,-0.090,-0.090,0.000,0.000,0.000
1644926747287003904,2022-02-15-12:05:47,10.1.1.4,32,-0.100,-0.100,-0.100,0.000,0.000,0.000
1644926747326299904,2022-02-15-12:05:47,10.1.1.4,21,-0.090,-0.090,-0.090,0.000,0.000,0.000
1644926747446361088,2022-02-15-12:05:47,10.1.1.4,39,-0.070,-0.070,-0.070,0.000,0.000,0.000
1644926747486092032,2022-02-15-12:05:47,10.1.1.4,28,-0.060,-0.060,-0.060,0.000,0.000,0.000
1644926747546288896,2022-02-15-12:05:47,10.1.1.4,38,-0.050,-0.050,-0.050,0.000,0.000,0.000
1644926747587501056,2022-02-15-12:05:47,10.1.1.4,28,-0.040,-0.040,-0.040,0.000,0.000,0.000
1644926747646831104,2022-02-15-12:05:47,10.1.1.4,37,-0.030,-0.030,-0.030,0.000,0.000,0.000
1644926747688339968,2022-02-15-12:05:47,10.1.1.4,26,-0.020,-0.020,-0.020,0.000,0.000,0.000
1644926747746571008,2022-02-15-12:05:47,10.1.1.4,34,-0.010,-0.010,-0.010,0.000,0.000,0.000
1644926747786180864,2022-02-15-12:05:47,10.1.1.4,24,0.000,0.000,0.000,0.000,0.000,0.000
1644926747847120128,2022-02-15-12:05:47,10.1.1.4,34,0.010,0.010,0.010,0.000,0.000,0.000
1644926747885451008,2022-02-15-12:05:47,10.1.1.4,22,0.020,0.020,0.020,0.000,0.000,0.000
1644926747946883840,2022-02-15-12:05:47,10.1.1.4,31,0.030,0.030,0.030,0.000,0.000,0.000
1644926747986031104,2022-02-15-12:05:47,10.1.1.4,19,0.040,0.040,0.040,0.000,0.000,0.000
1644926748046610944,2022-02-15-12:05:48,10.1.1.4,28,0.050,0.050,0.050,0.000,0.000,0.000
1644926748105817088,2022-02-15-12:05:48,10.1.1.4,37,0.060,0.060,0.060,0.000,0.000,0.000
1644926748146189056,2022-02-15-12:05:48,10.1.1.4,26,0.070,0.070,0.070,0.000,0.000,0.000
1644926748206927104,2022-02-15-12:05:48,10.1.1.4,36,0.080,0.080,0.080,0.000,0.000,0.000
1644926748246611968,2022-02-15-12:05:48,10.1.1.4,25,0.090,0.090,0.090,0.000,0.000,0.000
1644926748306209024,2022-02-15-12:05:48,10.1.1.4,35,0.100,0.100,0.100,0.000,0.000,0.000
1644926748346492928,2022-02-15-12:05:48,10.1.1.4,24,0.090,0.090,0.090,0.000,0.000,0.000
1644926748406191104,2022-02-15-12:05:48,10.1.1.4,34,0.080,0.080,0.080,0.000,0.000,0.000
1644926748447296000,2022-02-15-12:05:48,10.1.1.4,22,0.070,0.070,0.070,0.000,0.000,0.000
1644926748523623936,2022-02-15-12:05:48,10.1.1.4,23,0.060,0.060,0.060,0.000,0.000,0.000
1644926748566843904,2022-02-15-12:05:48,10.1.1.4,30,0.050,0.050,0.050,0.000,0.000,0.000
1644926748606225920,2022-02-15-12:05:48,10.1.1.4,20,0.040,0.040,0.040,0.000,0.000,0.000
1644926748666309120,2022-02-15-12:05:48,10.1.1.4,30,0.030,0.030,0.030,0.000,0.000,0.000
1644926748706635008,2022-02-15-12:05:48,10.1.1.4,18,0.021,0.021,0.021,0.000,0.000,0.000
1644926748766618880,2022-02-15-12:05:48,10.1.1.4,28,0.010,0.010,0.010,0.000,0.000,0.000
1644926748928904960,2022-02-15-12:05:48,10.1.1.4,23,-0.020,-0.020,-0.020,0.000,0.000,0.000
1644926748987097088,2022-02-15-12:05:48,10.1.1.4,33,-0.030,-0.030,-0.030,0.000,0.000,0.000
1644926749026646016,2022-02-15-12:05:49,10.1.1.4,22,-0.040,-0.040,-0.040,0.000,0.000,0.000
1644926749086170880,2022-02-15-12:05:49,10.1.1.4,31,-0.050,-0.050,-0.050,0.000,0.000,0.000
1644926749126718976,2022-02-15-12:05:49,10.1.1.4,21,-0.060,-0.060,-0.060,0.000,0.000,0.000
1644926749185553920,2022-02-15-12:05:49,10.1.1.4,27,-0.070,-0.070,-0.070,0.000,0.000,0.000
1644926749248614144,2022-02-15-12:05:49,10.1.1.4,37,-0.080,-0.080,-0.080,0.000,0.000,0.000
1644926749286289920,2022-02-15-12:05:49,10.1.1.4,26,-0.090,-0.090,-0.090,0.000,0.000,0.000
1644926749347213056,2022-02-15-12:05:49,10.1.1.4,36,-0.100,-0.100,-0.100,0.000,0.000,0.000
1644926749387597056,2022-02-15-12:05:49,10.1.1.4,25,-0.090,-0.090,-0.090,0.000,0.000,0.000
1644926749451740928,2022-02-15-12:05:49,10.1.1.4,35,-0.080,-0.080,-0.080,0.000,0.000,0.000
1644926749496346880,2022-02-15-12:05:49,10.1.1.4,24,-0.070,-0.070,-0.070,0.000,0.000,0.000
1644926749546824960,2022-02-15-12:05:49,10.1.1.4,34,-0.060,-0.060,-0.060,0.000,0.000,0.000
1644926749588212992,2022-02-15-12:05:49,10.1.1.4,24,-0.050,-0.050,-0.050,0.000,0.000,0.000
1644926749646781952,2022-02-15-12:05:49,10.1.1.4,33,-0.040,-0.040,-0.040,0.000,0.000,0.000
1644926749686361088,2022-02-15-12:05:49,10.1.1.4,23,-0.030,-0.030,-0.030,0.000,0.000,0.000
1644926749747685888,2022-02-15-12:05:49,10.1.1.4,32,-0.020,-0.020,-0.020,0.000,0.000,0.000
1644926749807179008,2022-02-15-12:05:49,10.1.1.4,37,-0.010,-0.010,-0.010,0.000,0.000,0.000
1644926749846956032,2022-02-15-12:05:49,10.1.1.4,27,0.000,0.000,0.000,0.000,0.000,0.000
1644926749966064896,2022-02-15-12:05:49,10.1.1.4,37,0.020,0.020,0.020,0.000,0.000,0.000
1644926750007036928,2022-02-15-12:05:50,10.1.1.4,27,0.030,0.030,0.030,0.000,0.000,0.000
1644926750070816000,2022-02-15-12:05:50,10.1.1.4,37,0.040,0.040,0.040,0.000,0.000,0.000
1644926750106375936,2022-02-15-12:05:50,10.1.1.4,26,0.050,0.050,0.050,0.000,0.000,0.000
1644926750166178048,2022-02-15-12:05:50,10.1.1.4,36,0.060,0.060,0.060,0.000,0.000,0.000
1644926750206087168,2022-02-15-12:05:50,10.1.1.4,25,0.070,0.070,0.070,0.000,0.000,0.000
1644926750266333184,2022-02-15-12:05:50,10.1.1.4,35,0.080,0.080,0.080,0.000,0.000,0.000
1644926750315456000,2022-02-15-12:05:50,10.1.1.4,24,0.090,0.090,0.090,0.000,0.000,0.000
1644926750366743040,2022-02-15-12:05:50,10.1.1.4,34,0.100,0.100,0.100,0.000,0.000,0.000
1644926750406341120,2022-02-15-12:05:50,10.1.1.4,23,0.090,0.090,0.090,0.000,0.000,0.000
1644926750466274048,2022-02-15-12:05:50,10.1.1.4,33,0.080,0.080,0.080,0.000,0.000,0.000
1644926750513622016,2022-02-15-12:05:50,10.1.1.4,23,0.070,0.070,0.070,0.000,0.000,0.000
1644926750727292160,2022-02-15-12:05:50,10.1.1.4,37,0.050,0.050,0.050,0.000,0.000,0.000
1644926750768300032,2022-02-15-12:05:50,10.1.1.4,24,0.040,0.040,0.040,0.000,0.000,0.000
1644926750827063040,2022-02-15-12:05:50,10.1.1.4,28,0.030,0.030,0.030,0.000,0.000,0.000
1644926750928163072,2022-02-15-12:05:50,10.1.1.4,21,0.010,0.010,0.010,0.000,0.000,0.000
1644926750987898112,2022-02-15-12:05:50,10.1.1.4,30,0.000,0.000,0.000,0.000,0.000,0.000
1644926751051790848,2022-02-15-12:05:51,10.1.1.4,39,-0.010,-0.010,-0.010,0.000,0.000,0.000
1644926751147234816,2022-02-15-12:05:51,10.1.1.4,37,-0.030,-0.030,-0.030,0.000,0.000,0.000
1644926751186526976,2022-02-15-12:05:51,10.1.1.4,26,-0.040,-0.040,-0.040,0.000,0.000,0.000
1644926751247230976,2022-02-15-12:05:51,10.1.1.4,36,-0.050,-0.050,-0.050,0.000,0.000,0.000
1644926751286966016,2022-02-15-12:05:51,10.1.1.4,23,-0.060,-0.060,-0.060,0.000,0.000,0.000
1644926751346349056,2022-02-15-12:05:51,10.1.1.4,33,-0.070,-0.070,-0.070,0.000,0.000,0.000
1644926751386276096,2022-02-15-12:05:51,10.1.1.4,21,-0.080,-0.080,-0.080,0.000,0.000,0.000
1644926751446027008,2022-02-15-12:05:51,10.1.1.4,30,-0.090,-0.090,-0.090,0.000,0.000,0.000
1644926751486382848,2022-02-15-12:05:51,10.1.1.4,20,-0.100,-0.100,-0.100,0.000,0.000,0.000
1644926751546270976,2022-02-15-12:05:51,10.1.1.4,29,-0.090,-0.090,-0.090,0.000,0.000,0.000
1644926751586537984,2022-02-15-12:05:51,10.1.1.4,19,-0.081,-0.081,-0.081,0.000,0.000,0.000
1644926751646304000,2022-02-15-12:05:51,10.1.1.4,28,-0.070,-0.070,-0.070,0.000,0.000,0.000
1644926751706665984,2022-02-15-12:05:51,10.1.1.4,38,-0.060,-0.060,-0.060,0.000,0.000,0.000
1644926751746934784,2022-02-15-12:05:51,10.1.1.4,26,-0.050,-0.050,-0.050,0.000,0.000,0.000
1644926751806541824,2022-02-15-12:05:51,10.1.1.4,36,-0.040,-0.040,-0.040,0.000,0.000,0.000
1644926751846672896,2022-02-15-12:05:51,10.1.1.4,25,-0.030,-0.030,-0.030,0.000,0.000,0.000
1644926751906619136,2022-02-15-12:05:51,10.1.1.4,34,-0.020,-0.020,-0.020,0.000,0.000,0.000
1644926751946402048,2022-02-15-12:05:51,10.1.1.4,24,-0.010,-0.010,-0.010,0.000,0.000,0.000
1644926752006153216,2022-02-15-12:05:52,10.1.1.4,33,0.000,0.000,0.000,0.000,0.000,0.000
1644926752047681024,2022-02-15-12:05:52,10.1.1.4,21,0.010,0.010,0.010,0.000,0.000,0.000
1644926752106553088,2022-02-15-12:05:52,10.1.1.4,27,0.020,0.020,0.020,0.000,0.000,0.000
1644926752166460160,2022-02-15-12:05:52,10.1.1.4,35,0.030,0.030,0.030,0.000,0.000,0.000
1644926752206792960,2022-02-15-12:05:52,10.1.1.4,24,0.040,0.040,0.040,0.000,0.000,0.000
1644926752266114048,2022-02-15-12:05:52,10.1.1.4,34,0.050,0.050,0.050,0.000,0.000,0.000
1644926752306339072,2022-02-15-12:05:52,10.1.1.4,23,0.060,0.060,0.060,0.000,0.000,0.000
1644926752366219008,2022-02-15-12:05:52,10.1.1.4,31,0.070,0.070,0.070,0.000,0.000,0.000
1644926752406708992,2022-02-15-12:05:52,10.1.1.4,20,0.080,0.080,0.080,0.000,0.000,0.000
1644926752467150848,2022-02-15-12:05:52,10.1.1.4,29,0.090,0.090,0.090,0.000,0.000,0.000
1644926752526405120,2022-02-15-12:05:52,10.1.1.4,37,0.100,0.100,0.100,0.000,0.000,0.000
1644926752566776064,2022-02-15-12:05:52,10.1.1.4,26,0.090,0.090,0.090,0.000,0.000,0.000
1644926752628142080,2022-02-15-12:05:52,10.1.1.4,36,0.080,0.080,0.080,0.000,0.000,0.000
1644926752670455040,2022-02-15-12:05:52,10.1.1.4,24,0.070,0.070,0.070,0.000,0.000,0.000
1644926752726424832,2022-02-15-12:05:52,10.1.1.4,34,0.060,0.060,0.060,0.000,0.000,0.000
1644926752765922048,2022-02-15-12:05:52,10.1.1.4,22,0.050,0.050,0.050,0.000,0.000,0.000
1644926752826216960,2022-02-15-12:05:52,10.1.1.4,32,0.040,0.040,0.040,0.000,0.000,0.000
1644926752866343936,2022-02-15-12:05:52,10.1.1.4,21,0.030,0.030,0.030,0.000,0.000,0.000
1644926752926768896,2022-02-15-12:05:52,10.1.1.4,31,0.020,0.020,0.020,0.000,0.000,0.000
1644926752967030016,2022-02-15-12:05:52,10.1.1.4,20,0.011,0.011,0.011,0.000,0.000,0.000
1644926753026405120,2022-02-15-12:05:53,10.1.1.4,28,0.000,0.000,0.000,0.000,0.000,0.000
1644926753087169792,2022-02-15-12:05:53,10.1.1.4,37,-0.010,-0.010,-0.010,0.000,0.000,0.000
1644926753146176000,2022-02-15-12:05:53,10.1.1.4,36,-0.020,-0.020,-0.020,0.000,0.000,0.000
1644926753186872064,2022-02-15-12:05:53,10.1.1.4,25,-0.030,-0.030,-0.030,0.000,0.000,0.000
1644926753247113984,2022-02-15-12:05:53,10.1.1.4,34,-0.040,-0.040,-0.040,0.000,0.000,0.000
1644926753286361088,2022-02-15-12:05:53,10.1.1.4,24,-0.050,-0.050,-0.050,0.000,0.000,0.000
1644926753346811904,2022-02-15-12:05:53,10.1.1.4,34,-0.060,-0.060,-0.060,0.000,0.000,0.000
1644926753386233088,2022-02-15-12:05:53,10.1.1.4,22,-0.070,-0.070,-0.070,0.000,0.000,0.000
1644926753446808064,2022-02-15-12:05:53,10.1.1.4,33,-0.080,-0.080,-0.080,0.000,0.000,0.000
1644926753486643200,2022-02-15-12:05:53,10.1.1.4,22,-0.090,-0.090,-0.090,0.000,0.000,0.000
1644926753547694848,2022-02-15-12:05:53,10.1.1.4,32,-0.100,-0.100,-0.100,0.000,0.000,0.000
1644926753586668032,2022-02-15-12:05:53,10.1.1.4,21,-0.090,-0.090,-0.090,0.000,0.000,0.000
1644926753646814976,2022-02-15-12:05:53,10.1.1.4,30,-0.080,-0.080,-0.080,0.000,0.000,0.000
1644926753686479104,2022-02-15-12:05:53,10.1.1.4,20,-0.070,-0.070,-0.070,0.000,0.000,0.000
1644926753746348032,2022-02-15-12:05:53,10.1.1.4,29,-0.060,-0.060,-0.060,0.000,0.000,0.000
1644926753786350080,2022-02-15-12:05:53,10.1.1.4,19,-0.051,-0.051,-0.051,0.000,0.000,0.000
1644926753847105024,2022-02-15-12:05:53,10.1.1.4,28,-0.040,-0.040,-0.040,0.000,0.000,0.000
1644926753906846976,2022-02-15-12:05:53,10.1.1.4,38,-0.030,-0.030,-0.030,0.000,0.000,0.000
1644926753947199232,2022-02-15-12:05:53,10.1.1.4,27,-0.020,-0.020,-0.020,0.000,0.000,0.000
1644926754005889024,2022-02-15-12:05:54,10.1.1.4,35,-0.010,-0.010,-0.010,0.000,0.000,0.000
1644926754046315008,2022-02-15-12:05:54,10.1.1.4,25,0.000,0.000,0.000,0.000,0.000,0.000
1644926754106406912,2022-02-15-12:05:54,10.1.1.4,34,0.010,0.010,0.010,0.000,0.000,0.000
1644926754145912832,2022-02-15-12:05:54,10.1.1.4,22,0.020,0.020,0.020,0.000,0.000,0.000
1644926754205581824,2022-02-15-12:05:54,10.1.1.4,32,0.030,0.030,0.030,0.000,0.000,0.000
1644926754245997056,2022-02-15-12:05:54,10.1.1.4,21,0.040,0.040,0.040,0.000,0.000,0.000
1644926754306044160,2022-02-15-12:05:54,10.1.1.4,31,0.050,0.050,0.050,0.000,0.000,0.000
1644926754346571008,2022-02-15-12:05:54,10.1.1.4,20,0.060,0.060,0.060,0.000,0.000,0.000
1644926754405963008,2022-02-15-12:05:54,10.1.1.4,29,0.070,0.070,0.070,0.000,0.000,0.000
1644926754446018048,2022-02-15-12:05:54,10.1.1.4,19,0.079,0.079,0.079,0.000,0.000,0.000
1644926754506156800,2022-02-15-12:05:54,10.1.1.4,28,0.090,0.090,0.090,0.000,0.000,0.000
1644926754566097920,2022-02-15-12:05:54,10.1.1.4,37,0.100,0.100,0.100,0.000,0.000,0.000
1644926754605669888,2022-02-15-12:05:54,10.1.1.4,27,0.090,0.090,0.090,0.000,0.000,0.000
1644926754666428928,2022-02-15-12:05:54,10.1.1.4,37,0.080,0.080,0.080,0.000,0.000,0.000
1644926754706382080,2022-02-15-12:05:54,10.1.1.4,26,0.070,0.070,0.070,0.000,0.000,0.000
1644926754765896960,2022-02-15-12:05:54,10.1.1.4,34,0.060,0.060,0.060,0.000,0.000,0.000
1644926754806466048,2022-02-15-12:05:54,10.1.1.4,25,0.050,0.050,0.050,0.000,0.000,0.000
1644926754866857984,2022-02-15-12:05:54,10.1.1.4,34,0.040,0.040,0.040,0.000,0.000,0.000
1644926754906043136,2022-02-15-12:05:54,10.1.1.4,23,0.030,0.030,0.030,0.000,0.000,0.000
1644926754965857024,2022-02-15-12:05:54,10.1.1.4,32,0.020,0.020,0.020,0.000,0.000,0.000
1644926755006695936,2022-02-15-12:05:55,10.1.1.4,22,0.010,0.010,0.010,0.000,0.000,0.000
1644926755066167040,2022-02-15-12:05:55,10.1.1.4,30,0.000,0.000,0.000,0.000,0.000,0.000
1644926755106152960,2022-02-15-12:05:55,10.1.1.4,19,-0.009,-0.009,-0.009,0.000,0.000,0.000
1644926755166273024,2022-02-15-12:05:55,10.1.1.4,28,-0.020,-0.020,-0.020,0.000,0.000,0.000
1644926755228022016,2022-02-15-12:05:55,10.1.1.4,38,-0.030,-0.030,-0.030,0.000,0.000,0.000
1644926755265885952,2022-02-15-12:05:55,10.1.1.4,26,-0.040,-0.040,-0.040,0.000,0.000,0.000
1644926755326259968,2022-02-15-12:05:55,10.1.1.4,35,-0.050,-0.050,-0.050,0.000,0.000,0.000
1644926755367665152,2022-02-15-12:05:55,10.1.1.4,24,-0.060,-0.060,-0.060,0.000,0.000,0.000
1644926755427761152,2022-02-15-12:05:55,10.1.1.4,34,-0.070,-0.070,-0.070,0.000,0.000,0.000
1644926755466906112,2022-02-15-12:05:55,10.1.1.4,23,-0.080,-0.080,-0.080,0.000,0.000,0.000
1644926755526503936,2022-02-15-12:05:55,10.1.1.4,32,-0.090,-0.090,-0.090,0.000,0.000,0.000
1644926755566458880,2022-02-15-12:05:55,10.1.1.4,22,-0.100,-0.100,-0.100,0.000,0.000,0.000
1644926755627113984,2022-02-15-12:05:55,10.1.1.4,32,-0.090,-0.090,-0.090,0.000,0.000,0.000
1644926755667753984,2022-02-15-12:05:55,10.1.1.4,19,-0.080,-0.080,-0.080,0.000,0.000,0.000
1644926755786173184,2022-02-15-12:05:55,10.1.1.4,33,-0.060,-0.060,-0.060,0.000,0.000,0.000
1644926755826734080,2022-02-15-12:05:55,10.1.1.4,23,-0.050,-0.050,-0.050,0.000,0.000,0.000
1644926755887166976,2022-02-15-12:05:55,10.1.1.4,32,-0.040,-0.040,-0.040,0.000,0.000,0.000
1644926755927131904,2022-02-15-12:05:55,10.1.1.4,22,-0.030,-0.030,-0.030,0.000,0.000,0.000
1644926755988466944,2022-02-15-12:05:55,10.1.1.4,31,-0.020,-0.020,-0.020,0.000,0.000,0.000
1644926756026091008,2022-02-15-12:05:56,10.1.1.4,21,-0.010,-0.010,-0.010,0.000,0.000,0.000
1644926756086145024,2022-02-15-12:05:56,10.1.1.4,30,0.000,0.000,0.000,0.000,0.000,0.000
1644926756127270912,2022-02-15-12:05:56,10.1.1.4,20,0.010,0.010,0.010,0.000,0.000,0.000
1644926756186386176,2022-02-15-12:05:56,10.1.1.4,29,0.020,0.020,0.020,0.000,0.000,0.000
1644926756226702080,2022-02-15-12:05:56,10.1.1.4,19,0.029,0.029,0.029,0.000,0.000,0.000
1644926756287133952,2022-02-15-12:05:56,10.1.1.4,27,0.040,0.040,0.040,0.000,0.000,0.000
1644926756348284928,2022-02-15-12:05:56,10.1.1.4,37,0.050,0.050,0.050,0.000,0.000,0.000
1644926756386356992,2022-02-15-12:05:56,10.1.1.4,26,0.060,0.060,0.060,0.000,0.000,0.000
1644926756445928960,2022-02-15-12:05:56,10.1.1.4,36,0.070,0.070,0.070,0.000,0.000,0.000
1644926756486365184,2022-02-15-12:05:56,10.1.1.4,25,0.080,0.080,0.080,0.000,0.000,0.000
1644926756546202880,2022-02-15-12:05:56,10.1.1.4,35,0.090,0.090,0.090,0.000,0.000,0.000
1644926756587241984,2022-02-15-12:05:56,10.1.1.4,24,0.100,0.100,0.100,0.000,0.000,0.000
1644926756647717888,2022-02-15-12:05:56,10.1.1.4,34,0.090,0.090,0.090,0.000,0.000,0.000
1644926756688199936,2022-02-15-12:05:56,10.1.1.4,23,0.080,0.080,0.080,0.000,0.000,0.000
1644926756746785024,2022-02-15-12:05:56,10.1.1.4,31,0.070,0.070,0.070,0.000,0.000,0.000
1644926756786520832,2022-02-15-12:05:56,10.1.1.4,20,0.060,0.060,0.060,0.000,0.000,0.000
1644926756846774016,2022-02-15-12:05:56,10.1.1.4,30,0.050,0.050,0.050,0.000,0.000,0.000
1644926756886852864,2022-02-15-12:05:56,10.1.1.4,19,0.040,0.040,0.040,0.000,0.000,0.000
1644926756947035136,2022-02-15-12:05:56,10.1.1.4,30,0.030,0.030,0.030,0.000,0.000,0.000
1644926757006531072,2022-02-15-12:05:57,10.1.1.4,38,0.020,0.020,0.020,0.000,0.000,0.000
1644926757046907904,2022-02-15-12:05:57,10.1.1.4,29,0.010,0.010,0.010,0.000,0.000,0.000
1644926757106035968,2022-02-15-12:05:57,10.1.1.4,37,0.000,0.000,0.000,0.000,0.000,0.000
1644926757146196992,2022-02-15-12:05:57,10.1.1.4,26,-0.010,-0.010,-0.010,0.000,0.000,0.000
1644926757207400192,2022-02-15-12:05:57,10.1.1.4,35,-0.020,-0.020,-0.020,0.000,0.000,0.000
1644926757247233024,2022-02-15-12:05:57,10.1.1.4,24,-0.030,-0.030,-0.030,0.000,0.000,0.000
1644926757306456064,2022-02-15-12:05:57,10.1.1.4,33,-0.040,-0.040,-0.040,0.000,0.000,0.000
1644926757346912000,2022-02-15-12:05:57,10.1.1.4,23,-0.050,-0.050,-0.050,0.000,0.000,0.000
1644926757407022848,2022-02-15-12:05:57,10.1.1.4,33,-0.060,-0.060,-0.060,0.000,0.000,0.000
1644926757446676992,2022-02-15-12:05:57,10.1.1.4,22,-0.070,-0.070,-0.070,0.000,0.000,0.000
1644926757507062016,2022-02-15-12:05:57,10.1.1.4,31,-0.080,-0.080,-0.080,0.000,0.000,0.000
1644926757546542848,2022-02-15-12:05:57,10.1.1.4,21,-0.090,-0.090,-0.090,0.000,0.000,0.000
1644926757606931968,2022-02-15-12:05:57,10.1.1.4,30,-0.100,-0.100,-0.100,0.000,0.000,0.000
1644926757646580992,2022-02-15-12:05:57,10.1.1.4,19,-0.091,-0.091,-0.091,0.000,0.000,0.000
1644926757706751232,2022-02-15-12:05:57,10.1.1.4,26,-0.080,-0.080,-0.080,0.000,0.000,0.000
1644926757767107840,2022-02-15-12:05:57,10.1.1.4,36,-0.070,-0.070,-0.070,0.000,0.000,0.000
1644926757806885888,2022-02-15-12:05:57,10.1.1.4,24,-0.060,-0.060,-0.060,0.000,0.000,0.000
1644926757867218944,2022-02-15-12:05:57,10.1.1.4,34,-0.050,-0.050,-0.050,0.000,0.000,0.000
1644926757906672896,2022-02-15-12:05:57,10.1.1.4,23,-0.040,-0.040,-0.040,0.000,0.000,0.000
1644926757966412032,2022-02-15-12:05:57,10.1.1.4,32,-0.030,-0.030,-0.030,0.000,0.000,0.000
1644926758006548992,2022-02-15-12:05:58,10.1.1.4,21,-0.020,-0.020,-0.020,0.000,0.000,0.000
1644926758066845952,2022-02-15-12:05:58,10.1.1.4,30,-0.010,-0.010,-0.010,0.000,0.000,0.000
1644926758126483968,2022-02-15-12:05:58,10.1.1.4,39,0.000,0.000,0.000,0.000,0.000,0.000
1644926758166322944,2022-02-15-12:05:58,10.1.1.4,28,0.010,0.010,0.010,0.000,0.000,0.000
1644926758226764032,2022-02-15-12:05:58,10.1.1.4,37,0.020,0.020,0.020,0.000,0.000,0.000
1644926758268052992,2022-02-15-12:05:58,10.1.1.4,26,0.030,0.030,0.030,0.000,0.000,0.000
1644926758326183168,2022-02-15-12:05:58,10.1.1.4,34,0.040,0.040,0.040,0.000,0.000,0.000
1644926758367096832,2022-02-15-12:05:58,10.1.1.4,23,0.050,0.050,0.050,0.000,0.000,0.000
1644926758426345216,2022-02-15-12:05:58,10.1.1.4,32,0.060,0.060,0.060,0.000,0.000,0.000
1644926758466592000,2022-02-15-12:05:58,10.1.1.4,21,0.070,0.070,0.070,0.000,0.000,0.000
1644926758526639104,2022-02-15-12:05:58,10.1.1.4,30,0.080,0.080,0.080,0.000,0.000,0.000
1644926758568795904,2022-02-15-12:05:58,10.1.1.4,19,0.089,0.089,0.089,0.000,0.000,0.000
1644926758626382080,2022-02-15-12:05:58,10.1.1.4,28,0.100,0.100,0.100,0.000,0.000,0.000
1644926758686232064,2022-02-15-12:05:58,10.1.1.4,38,0.090,0.090,0.090,0.000,0.000,0.000
1644926758727163904,2022-02-15-12:05:58,10.1.1.4,28,0.080,0.080,0.080,0.000,0.000,0.000
1644926758788043008,2022-02-15-12:05:58,10.1.1.4,36,0.070,0.070,0.070,0.000,0.000,0.000
1644926758827305984,2022-02-15-12:05:58,10.1.1.4,25,0.060,0.060,0.060,0.000,0.000,0.000
1644926758886337024,2022-02-15-12:05:58,10.1.1.4,34,0.050,0.050,0.050,0.000,0.000,0.000
1644926758927556864,2022-02-15-12:05:58,10.1.1.4,23,0.040,0.040,0.040,0.000,0.000,0.000
1644926758986543872,2022-02-15-12:05:58,10.1.1.4,33,0.030,0.030,0.030,0.000,0.000,0.000
1644926759026881024,2022-02-15-12:05:59,10.1.1.4,22,0.020,0.020,0.020,0.000,0.000,0.000
1644926759086716928,2022-02-15-12:05:59,10.1.1.4,29,0.010,0.010,0.010,0.000,0.000,0.000
1644926759147494144,2022-02-15-12:05:59,10.1.1.4,38,0.000,0.000,0.000,0.000,0.000,0.000
1644926759187401984,2022-02-15-12:05:59,10.1.1.4,27,-0.010,-0.010,-0.010,0.000,0.000,0.000
1644926759246774016,2022-02-15-12:05:59,10.1.1.4,36,-0.020,-0.020,-0.020,0.000,0.000,0.000
1644926759286824960,2022-02-15-12:05:59,10.1.1.4,24,-0.030,-0.030,-0.030,0.000,0.000,0.000
1644926759346296064,2022-02-15-12:05:59,10.1.1.4,34,-0.040,-0.040,-0.040,0.000,0.000,0.000
1644926759386404864,2022-02-15-12:05:59,10.1.1.4,23,-0.050,-0.050,-0.050,0.000,0.000,0.000
1644926759446595072,2022-02-15-12:05:59,10.1.1.4,33,-0.060,-0.060,-0.060,0.000,0.000,0.000
1644926759488038144,2022-02-15-12:05:59,10.1.1.4,22,-0.070,-0.070,-0.070,0.000,0.000,0.000
1644926759546731008,2022-02-15-12:05:59,10.1.1.4,31,-0.080,-0.080,-0.080,0.000,0.000,0.000
1644926759586458880,2022-02-15-12:05:59,10.1.1.4,20,-0.090,-0.090,-0.090,0.000,0.000,0.000
1644926759648464896,2022-02-15-12:05:59,10.1.1.4,30,-0.100,-0.100,-0.100,0.000,0.000,0.000
1644926759766242048,2022-02-15-12:05:59,10.1.1.4,22,-0.080,-0.080,-0.080,0.000,0.000,0.000
1644926759826811904,2022-02-15-12:05:59,10.1.1.4,31,-0.070,-0.070,-0.070,0.000,0.000,0.000
1644926759866072832,2022-02-15-12:05:59,10.1.1.4,21,-0.060,-0.060,-0.060,0.000,0.000,0.000
1644926759926796800,2022-02-15-12:05:59,10.1.1.4,30,-0.050,-0.050,-0.050,0.000,0.000,0.000
1644926759967325952,2022-02-15-12:05:59,10.1.1.4,19,-0.040,-0.040,-0.040,0.000,0.000,0.000
1644926760026878976,2022-02-15-12:06:00,10.1.1.4,28,-0.030,-0.030,-0.030,0.000,0.000,0.000
1644926760087470080,2022-02-15-12:06:00,10.1.1.4,38,-0.020,-0.020,-0.020,0.000,0.000,0.000
1644926760127409920,2022-02-15-12:06:00,10.1.1.4,26,-0.010,-0.010,-0.010,0.000,0.000,0.000
1644926760186626048,2022-02-15-12:06:00,10.1.1.4,34,0.000,0.000,0.000,0.000,0.000,0.000
1644926760226774016,2022-02-15-12:06:00,10.1.1.4,24,0.010,0.010,0.010,0.000,0.000,0.000
1644926760286572032,2022-02-15-12:06:00,10.1.1.4,34,0.020,0.020,0.020,0.000,0.000,0.000
1644926760328155904,2022-02-15-12:06:00,10.1.1.4,23,0.030,0.030,0.030,0.000,0.000,0.000
1644926760386003968,2022-02-15-12:06:00,10.1.1.4,32,0.040,0.040,0.040,0.000,0.000,0.000
1644926760426445056,2022-02-15-12:06:00,10.1.1.4,22,0.050,0.050,0.050,0.000,0.000,0.000
1644926760486089984,2022-02-15-12:06:00,10.1.1.4,32,0.060,0.060,0.060,0.000,0.000,0.000
1644926760526298880,2022-02-15-12:06:00,10.1.1.4,21,0.070,0.070,0.070,0.000,0.000,0.000
1644926760587219968,2022-02-15-12:06:00,10.1.1.4,30,0.080,0.080,0.080,0.000,0.000,0.000
1644926760625585152,2022-02-15-12:06:00,10.1.1.4,19,0.090,0.090,0.090,0.000,0.000,0.000
1644926760686708992,2022-02-15-12:06:00,10.1.1.4,30,0.100,0.100,0.100,0.000,0.000,0.000
1644926760726845952,2022-02-15-12:06:00,10.1.1.4,19,0.091,0.091,0.091,0.000,0.000,0.000
1644926760786579968,2022-02-15-12:06:00,10.1.1.4,28,0.080,0.080,0.080,0.000,0.000,0.000
1644926760846873088,2022-02-15-12:06:00,10.1.1.4,38,0.070,0.070,0.070,0.000,0.000,0.000
1644926760886358016,2022-02-15-12:06:00,10.1.1.4,28,0.060,0.060,0.060,0.000,0.000,0.000
1644926760946091008,2022-02-15-12:06:00,10.1.1.4,37,0.050,0.050,0.050,0.000,0.000,0.000
1644926760986278912,2022-02-15-12:06:00,10.1.1.4,27,0.040,0.040,0.040,0.000,0.000,0.000
1644926761046235136,2022-02-15-12:06:01,10.1.1.4,36,0.030,0.030,0.030,0.000,0.000,0.000
1644926761087352064,2022-02-15-12:06:01,10.1.1.4,27,0.020,0.020,0.020,0.000,0.000,0.000
1644926761145587968,2022-02-15-12:06:01,10.1.1.4,35,0.010,0.010,0.010,0.000,0.000,0.000
1644926761186595072,2022-02-15-12:06:01,10.1.1.4,25,0.000,0.000,0.000,0.000,0.000,0.000
1644926761245997824,2022-02-15-12:06:01,10.1.1.4,35,-0.010,-0.010,-0.010,0.000,0.000,0.000
1644926761286211840,2022-02-15-12:06:01,10.1.1.4,24,-0.020,-0.020,-0.020,0.000,0.000,0.000
1644926761346339840,2022-02-15-12:06:01,10.1.1.4,34,-0.030,-0.030,-0.030,0.000,0.000,0.000
1644926761386049024,2022-02-15-12:06:01,10.1.1.4,23,-0.040,-0.040,-0.040,0.000,0.000,0.000
1644926761446096896,2022-02-15-12:06:01,10.1.1.4,33,-0.050,-0.050,-0.050,0.000,0.000,0.000
1644926761487073792,2022-02-15-12:06:01,10.1.1.4,22,-0.060,-0.060,-0.060,0.000,0.000,0.000
1644926761546545920,2022-02-15-12:06:01,10.1.1.4,32,-0.070,-0.070,-0.070,0.000,0.000,0.000
1644926761585916928,2022-02-15-12:06:01,10.1.1.4,21,-0.080,-0.080,-0.080,0.000,0.000,0.000
1644926761646042112,2022-02-15-12:06:01,10.1.1.4,30,-0.090,-0.090,-0.090,0.000,0.000,0.000
1644926761686855936,2022-02-15-12:06:01,10.1.1.4,18,-0.099,-0.099,-0.099,0.000,0.000,0.000
1644926761746584832,2022-02-15-12:06:01,10.1.1.4,27,-0.090,-0.090,-0.090,0.000,0.000,0.000
1644926761805979136,2022-02-15-12:06:01,10.1.1.4,34,-0.080,-0.080,-0.080,0.000,0.000,0.000
1644926761845763072,2022-02-15-12:06:01,10.1.1.4,24,-0.070,-0.070,-0.070,0.000,0.000,0.000
1644926761906727936,2022-02-15-12:06:01,10.1.1.4,33,-0.060,-0.060,-0.060,0.000,0.000,0.000
1644926761946589952,2022-02-15-12:06:01,10.1.1.4,22,-0.050,-0.050,-0.050,0.000,0.000,0.000
1644926762008336128,2022-02-15-12:06:02,10.1.1.4,31,-0.040,-0.040,-0.040,0.000,0.000,0.000
1644926762046187008,2022-02-15-12:06:02,10.1.1.4,20,-0.030,-0.030,-0.030,0.000,0.000,0.000
1644926762105952000,2022-02-15-12:06:02,10.1.1.4,29,-0.020,-0.020,-0.020,0.000,0.000,0.000
1644926762146172160,2022-02-15-12:06:02,10.1.1.4,19,-0.011,-0.011,-0.011,0.000,0.000,0.000
1644926762206470912,2022-02-15-12:06:02,10.1.1.4,28,0.000,0.000,0.000,0.000,0.000,0.000
1644926762266535936,2022-02-15-12:06:02,10.1.1.4,37,0.010,0.010,0.010,0.000,0.000,0.000
1644926762305708800,2022-02-15-12:06:02,10.1.1.4,27,0.020,0.020,0.020,0.000,0.000,0.000
1644926762366915072,2022-02-15-12:06:02,10.1.1.4,36,0.030,0.030,0.030,0.000,0.000,0.000
1644926762405814016,2022-02-15-12:06:02,10.1.1.4,25,0.040,0.040,0.040,0.000,0.000,0.000
1644926762465907968,2022-02-15-12:06:02,10.1.1.4,34,0.050,0.050,0.050,0.000,0.000,0.000
1644926762506393856,2022-02-15-12:06:02,10.1.1.4,23,0.060,0.060,0.060,0.000,0.000,0.000
1644926762567213056,2022-02-15-12:06:02,10.1.1.4,32,0.070,0.070,0.070,0.000,0.000,0.000
1644926762605978880,2022-02-15-12:06:02,10.1.1.4,19,0.079,0.079,0.079,0.000,0.000,0.000
1644926762665862912,2022-02-15-12:06:02,10.1.1.4,28,0.090,0.090,0.090,0.000,0.000,0.000
1644926762726959104,2022-02-15-12:06:02,10.1.1.4,33,0.100,0.100,0.100,0.000,0.000,0.000
1644926762771377920,2022-02-15-12:06:02,10.1.1.4,22,0.090,0.090,0.090,0.000,0.000,0.000
1644926762886161152,2022-02-15-12:06:02,10.1.1.4,35,0.080,0.080,0.080,0.000,0.000,0.000
1644926762926039040,2022-02-15-12:06:02,10.1.1.4,24,0.070,0.070,0.070,0.000,0.000,0.000
1644926762987601152,2022-02-15-12:06:02,10.1.1.4,33,0.060,0.060,0.060,0.000,0.000,0.000
1644926763025998080,2022-02-15-12:06:03,10.1.1.4,22,0.050,0.050,0.050,0.000,0.000,0.000
1644926763086486016,2022-02-15-12:06:03,10.1.1.4,31,0.040,0.040,0.040,0.000,0.000,0.000
1644926763127058944,2022-02-15-12:06:03,10.1.1.4,20,0.030,0.030,0.030,0.000,0.000,0.000
1644926763186279936,2022-02-15-12:06:03,10.1.1.4,29,0.020,0.020,0.020,0.000,0.000,0.000
1644926763249246976,2022-02-15-12:06:03,10.1.1.4,38,0.010,0.010,0.010,0.000,0.000,0.000
1644926763287183104,2022-02-15-12:06:03,10.1.1.4,27,0.000,0.000,0.000,0.000,0.000,0.000
1644926763348172032,2022-02-15-12:06:03,10.1.1.4,37,-0.010,-0.010,-0.010,0.000,0.000,0.000
1644926763388509952,2022-02-15-12:06:03,10.1.1.4,26,-0.020,-0.020,-0.020,0.000,0.000,0.000
1644926763446917888,2022-02-15-12:06:03,10.1.1.4,35,-0.030,-0.030,-0.030,0.000,0.000,0.000
1644926763488229120,2022-02-15-12:06:03,10.1.1.4,24,-0.040,-0.040,-0.040,0.000,0.000,0.000
1644926763548098048,2022-02-15-12:06:03,10.1.1.4,33,-0.050,-0.050,-0.050,0.000,0.000,0.000
1644926763586621952,2022-02-15-12:06:03,10.1.1.4,22,-0.060,-0.060,-0.060,0.000,0.000,0.000
1644926763647387904,2022-02-15-12:06:03,10.1.1.4,30,-0.070,-0.070,-0.070,0.000,0.000,0.000
1644926763686633216,2022-02-15-12:06:03,10.1.1.4,20,-0.080,-0.080,-0.080,0.000,0.000,0.000
1644926763746661888,2022-02-15-12:06:03,10.1.1.4,29,-0.090,-0.090,-0.090,0.000,0.000,0.000
1644926763807346944,2022-02-15-12:06:03,10.1.1.4,38,-0.100,-0.100,-0.100,0.000,0.000,0.000
1644926763846470144,2022-02-15-12:06:03,10.1.1.4,26,-0.090,-0.090,-0.090,0.000,0.000,0.000
1644926763906786816,2022-02-15-12:06:03,10.1.1.4,36,-0.080,-0.080,-0.080,0.000,0.000,0.000
1644926763946248960,2022-02-15-12:06:03,10.1.1.4,24,-0.070,-0.070,-0.070,0.000,0.000,0.000
1644926764006412032,2022-02-15-12:06:04,10.1.1.4,34,-0.060,-0.060,-0.060,0.000,0.000,0.000
1644926764046068992,2022-02-15-12:06:04,10.1.1.4,23,-0.050,-0.050,-0.050,0.000,0.000,0.000
1644926764106839808,2022-02-15-12:06:04,10.1.1.4,30,-0.040,-0.040,-0.040,0.000,0.000,0.000
1644926764147151872,2022-02-15-12:06:04,10.1.1.4,19,-0.031,-0.031,-0.031,0.000,0.000,0.000
1644926764206872832,2022-02-15-12:06:04,10.1.1.4,28,-0.020,-0.020,-0.020,0.000,0.000,0.000
1644926764266206976,2022-02-15-12:06:04,10.1.1.4,37,-0.010,-0.010,-0.010,0.000,0.000,0.000
1644926764307063040,2022-02-15-12:06:04,10.1.1.4,26,0.000,0.000,0.000,0.000,0.000,0.000
1644926764366715904,2022-02-15-12:06:04,10.1.1.4,34,0.010,0.010,0.010,0.000,0.000,0.000
1644926764406361088,2022-02-15-12:06:04,10.1.1.4,24,0.020,0.020,0.020,0.000,0.000,0.000
1644926764466941952,2022-02-15-12:06:04,10.1.1.4,33,0.030,0.030,0.030,0.000,0.000,0.000
1644926764506953984,2022-02-15-12:06:04,10.1.1.4,22,0.040,0.040,0.040,0.000,0.000,0.000
1644926764566222848,2022-02-15-12:06:04,10.1.1.4,31,0.050,0.050,0.050,0.000,0.000,0.000
1644926764606458880,2022-02-15-12:06:04,10.1.1.4,20,0.060,0.060,0.060,0.000,0.000,0.000
1644926764667857920,2022-02-15-12:06:04,10.1.1.4,29,0.070,0.070,0.070,0.000,0.000,0.000
1644926764726358016,2022-02-15-12:06:04,10.1.1.4,38,0.080,0.080,0.080,0.000,0.000,0.000
1644926764766364160,2022-02-15-12:06:04,10.1.1.4,27,0.090,0.090,0.090,0.000,0.000,0.000
1644926764826989824,2022-02-15-12:06:04,10.1.1.4,37,0.100,0.100,0.100,0.000,0.000,0.000
1644926764866422784,2022-02-15-12:06:04,10.1.1.4,25,0.090,0.090,0.090,0.000,0.000,0.000
1644926764926534912,2022-02-15-12:06:04,10.1.1.4,34,0.080,0.080,0.080,0.000,0.000,0.000
1644926764966211072,2022-02-15-12:06:04,10.1.1.4,23,0.070,0.070,0.070,0.000,0.000,0.000
1644926765026475008,2022-02-15-12:06:05,10.1.1.4,32,0.060,0.060,0.060,0.000,0.000,0.000
1644926765066917888,2022-02-15-12:06:05,10.1.1.4,22,0.050,0.050,0.050,0.000,0.000,0.000
1644926765125927936,2022-02-15-12:06:05,10.1.1.4,30,0.040,0.040,0.040,0.000,0.000,0.000
1644926765166852096,2022-02-15-12:06:05,10.1.1.4,20,0.030,0.030,0.030,0.000,0.000,0.000
1644926765227266048,2022-02-15-12:06:05,10.1.1.4,29,0.020,0.020,0.020,0.000,0.000,0.000
1644926765287661056,2022-02-15-12:06:05,10.1.1.4,38,0.010,0.010,0.010,0.000,0.000,0.000
1644926765327482880,2022-02-15-12:06:05,10.1.1.4,27,0.000,0.000,0.000,0.000,0.000,0.000
1644926765387101952,2022-02-15-12:06:05,10.1.1.4,36,-0.010,-0.010,-0.010,0.000,0.000,0.000
1644926765427494144,2022-02-15-12:06:05,10.1.1.4,25,-0.020,-0.020,-0.020,0.000,0.000,0.000
1644926765487696896,2022-02-15-12:06:05,10.1.1.4,34,-0.030,-0.030,-0.030,0.000,0.000,0.000
1644926765528105984,2022-02-15-12:06:05,10.1.1.4,22,-0.040,-0.040,-0.040,0.000,0.000,0.000
1644926765586475008,2022-02-15-12:06:05,10.1.1.4,31,-0.050,-0.050,-0.050,0.000,0.000,0.000
1644926765626818816,2022-02-15-12:06:05,10.1.1.4,21,-0.060,-0.060,-0.060,0.000,0.000,0.000
1644926765686311936,2022-02-15-12:06:05,10.1.1.4,30,-0.070,-0.070,-0.070,0.000,0.000,0.000
1644926765746330112,2022-02-15-12:06:05,10.1.1.4,39,-0.080,-0.080,-0.080,0.000,0.000,0.000
1644926765786633984,2022-02-15-12:06:05,10.1.1.4,27,-0.090,-0.090,-0.090,0.000,0.000,0.000
1644926765846708992,2022-02-15-12:06:05,10.1.1.4,36,-0.100,-0.100,-0.100,0.000,0.000,0.000
1644926765887068160,2022-02-15-12:06:05,10.1.1.4,24,-0.090,-0.090,-0.090,0.000,0.000,0.000
1644926765947089920,2022-02-15-12:06:05,10.1.1.4,34,-0.080,-0.080,-0.080,0.000,0.000,0.000
1644926765986980864,2022-02-15-12:06:05,10.1.1.4,22,-0.070,-0.070,-0.070,0.000,0.000,0.000
1644926766047319808,2022-02-15-12:06:06,10.1.1.4,32,-0.060,-0.060,-0.060,0.000,0.000,0.000
1644926766087200000,2022-02-15-12:06:06,10.1.1.4,20,-0.050,-0.050,-0.050,0.000,0.000,0.000
1644926766146637824,2022-02-15-12:06:06,10.1.1.4,29,-0.040,-0.040,-0.040,0.000,0.000,0.000
1644926766207835904,2022-02-15-12:06:06,10.1.1.4,38,-0.030,-0.030,-0.030,0.000,0.000,0.000
1644926766247496960,2022-02-15-12:06:06,10.1.1.4,27,-0.020,-0.020,-0.020,0.000,0.000,0.000
1644926766306333184,2022-02-15-12:06:06,10.1.1.4,36,-0.010,-0.010,-0.010,0.000,0.000,0.000
1644926766346662144,2022-02-15-12:06:06,10.1.1.4,25,0.000,0.000,0.000,0.000,0.000,0.000
1644926766407660032,2022-02-15-12:06:06,10.1.1.4,34,0.010,0.010,0.010,0.000,0.000,0.000
1644926766446553856,2022-02-15-12:06:06,10.1.1.4,22,0.020,0.020,0.020,0.000,0.000,0.000
1644926766506743808,2022-02-15-12:06:06,10.1.1.4,30,0.030,0.030,0.030,0.000,0.000,0.000
1644926766566256896,2022-02-15-12:06:06,10.1.1.4,38,0.040,0.040,0.040,0.000,0.000,0.000
1644926766605929984,2022-02-15-12:06:06,10.1.1.4,27,0.050,0.050,0.050,0.000,0.000,0.000
1644926766666008064,2022-02-15-12:06:06,10.1.1.4,35,0.060,0.060,0.060,0.000,0.000,0.000
1644926766706516992,2022-02-15-12:06:06,10.1.1.4,24,0.070,0.070,0.070,0.000,0.000,0.000
1644926766766206976,2022-02-15-12:06:06,10.1.1.4,33,0.080,0.080,0.080,0.000,0.000,0.000
1644926766806296064,2022-02-15-12:06:06,10.1.1.4,22,0.090,0.090,0.090,0.000,0.000,0.000
1644926766867078144,2022-02-15-12:06:06,10.1.1.4,31,0.100,0.100,0.100,0.000,0.000,0.000
1644926766906134016,2022-02-15-12:06:06,10.1.1.4,20,0.090,0.090,0.090,0.000,0.000,0.000
1644926766967305984,2022-02-15-12:06:06,10.1.1.4,29,0.080,0.080,0.080,0.000,0.000,0.000
1644926767026707968,2022-02-15-12:06:07,10.1.1.4,38,0.070,0.070,0.070,0.000,0.000,0.000
1644926767066544128,2022-02-15-12:06:07,10.1.1.4,28,0.060,0.060,0.060,0.000,0.000,0.000
1644926767126298880,2022-02-15-12:06:07,10.1.1.4,37,0.050,0.050,0.050,0.000,0.000,0.000
1644926767166189056,2022-02-15-12:06:07,10.1.1.4,24,0.040,0.040,0.040,0.000,0.000,0.000
1644926767226263040,2022-02-15-12:06:07,10.1.1.4,34,0.030,0.030,0.030,0.000,0.000,0.000
1644926767291773184,2022-02-15-12:06:07,10.1.1.4,24,0.020,0.020,0.020,0.000,0.000,0.000
1644926767338345984,2022-02-15-12:06:07,10.1.1.4,29,0.010,0.010,0.010,0.000,0.000,0.000
1644926767386543872,2022-02-15-12:06:07,10.1.1.4,37,0.000,0.000,0.000,0.000,0.000,0.000
1644926767425946112,2022-02-15-12:06:07,10.1.1.4,27,-0.010,-0.010,-0.010,0.000,0.000,0.000
1644926767487493888,2022-02-15-12:06:07,10.1.1.4,36,-0.020,-0.020,-0.020,0.000,0.000,0.000
1644926767529004032,2022-02-15-12:06:07,10.1.1.4,24,-0.030,-0.030,-0.030,0.000,0.000,0.000
1644926767586874880,2022-02-15-12:06:07,10.1.1.4,33,-0.040,-0.040,-0.040,0.000,0.000,0.000
1644926767626475008,2022-02-15-12:06:07,10.1.1.4,23,-0.050,-0.050,-0.050,0.000,0.000,0.000
1644926767687619840,2022-02-15-12:06:07,10.1.1.4,32,-0.060,-0.060,-0.060,0.000,0.000,0.000
1644926767727385088,2022-02-15-12:06:07,10.1.1.4,21,-0.070,-0.070,-0.070,0.000,0.000,0.000
1644926767785990912,2022-02-15-12:06:07,10.1.1.4,30,-0.080,-0.080,-0.080,0.000,0.000,0.000
1644926767827565824,2022-02-15-12:06:07,10.1.1.4,19,-0.090,-0.090,-0.090,0.000,0.000,0.000
1644926767885794048,2022-02-15-12:06:07,10.1.1.4,28,-0.100,-0.100,-0.100,0.000,0.000,0.000
1644926767946091776,2022-02-15-12:06:07,10.1.1.4,38,-0.090,-0.090,-0.090,0.000,0.000,0.000
1644926767986366976,2022-02-15-12:06:07,10.1.1.4,27,-0.080,-0.080,-0.080,0.000,0.000,0.000
1644926768046996992,2022-02-15-12:06:08,10.1.1.4,36,-0.070,-0.070,-0.070,0.000,0.000,0.000
1644926768086273024,2022-02-15-12:06:08,10.1.1.4,24,-0.060,-0.060,-0.060,0.000,0.000,0.000
1644926768146795008,2022-02-15-12:06:08,10.1.1.4,33,-0.050,-0.050,-0.050,0.000,0.000,0.000
1644926768186256896,2022-02-15-12:06:08,10.1.1.4,22,-0.040,-0.040,-0.040,0.000,0.000,0.000
1644926768246007808,2022-02-15-12:06:08,10.1.1.4,31,-0.030,-0.030,-0.030,0.000,0.000,0.000
1644926768287127040,2022-02-15-12:06:08,10.1.1.4,20,-0.020,-0.020,-0.020,0.000,0.000,0.000
1644926768346978048,2022-02-15-12:06:08,10.1.1.4,30,-0.010,-0.010,-0.010,0.000,0.000,0.000
1644926768406491136,2022-02-15-12:06:08,10.1.1.4,38,0.000,0.000,0.000,0.000,0.000,0.000
1644926768446414080,2022-02-15-12:06:08,10.1.1.4,28,0.010,0.010,0.010,0.000,0.000,0.000
1644926768506254080,2022-02-15-12:06:08,10.1.1.4,36,0.020,0.020,0.020,0.000,0.000,0.000
1644926768546674944,2022-02-15-12:06:08,10.1.1.4,26,0.030,0.030,0.030,0.000,0.000,0.000
1644926768606287872,2022-02-15-12:06:08,10.1.1.4,35,0.040,0.040,0.040,0.000,0.000,0.000
1644926768646151168,2022-02-15-12:06:08,10.1.1.4,24,0.050,0.050,0.050,0.000,0.000,0.000
1644926768706976768,2022-02-15-12:06:08,10.1.1.4,33,0.060,0.060,0.060,0.000,0.000,0.000
1644926768745801984,2022-02-15-12:06:08,10.1.1.4,22,0.070,0.070,0.070,0.000,0.000,0.000
1644926768806085120,2022-02-15-12:06:08,10.1.1.4,31,0.080,0.080,0.080,0.000,0.000,0.000
1644926768846383104,2022-02-15-12:06:08,10.1.1.4,19,0.090,0.090,0.090,0.000,0.000,0.000
1644926768906501120,2022-02-15-12:06:08,10.1.1.4,29,0.100,0.100,0.100,0.000,0.000,0.000
1644926768967016960,2022-02-15-12:06:08,10.1.1.4,37,0.090,0.090,0.090,0.000,0.000,0.000
1644926769006700032,2022-02-15-12:06:09,10.1.1.4,26,0.080,0.080,0.080,0.000,0.000,0.000
1644926769066935040,2022-02-15-12:06:09,10.1.1.4,35,0.070,0.070,0.070,0.000,0.000,0.000
1644926769106749184,2022-02-15-12:06:09,10.1.1.4,24,0.060,0.060,0.060,0.000,0.000,0.000
1644926769166290944,2022-02-15-12:06:09,10.1.1.4,33,0.050,0.050,0.050,0.000,0.000,0.000
1644926769207020032,2022-02-15-12:06:09,10.1.1.4,22,0.040,0.040,0.040,0.000,0.000,0.000
1644926769266683136,2022-02-15-12:06:09,10.1.1.4,31,0.030,0.030,0.030,0.000,0.000,0.000
1644926769306361856,2022-02-15-12:06:09,10.1.1.4,19,0.020,0.020,0.020,0.000,0.000,0.000
1644926769366055936,2022-02-15-12:06:09,10.1.1.4,28,0.010,0.010,0.010,0.000,0.000,0.000
1644926769426387968,2022-02-15-12:06:09,10.1.1.4,37,0.000,0.000,0.000,0.000,0.000,0.000
1644926769466192896,2022-02-15-12:06:09,10.1.1.4,25,-0.010,-0.010,-0.010,0.000,0.000,0.000
1644926769526354176,2022-02-15-12:06:09,10.1.1.4,34,-0.020,-0.020,-0.020,0.000,0.000,0.000
1644926769566375936,2022-02-15-12:06:09,10.1.1.4,23,-0.030,-0.030,-0.030,0.000,0.000,0.000
1644926769626891008,2022-02-15-12:06:09,10.1.1.4,32,-0.040,-0.040,-0.040,0.000,0.000,0.000
1644926769666215936,2022-02-15-12:06:09,10.1.1.4,21,-0.050,-0.050,-0.050,0.000,0.000,0.000
1644926769726403072,2022-02-15-12:06:09,10.1.1.4,30,-0.060,-0.060,-0.060,0.000,0.000,0.000
1644926769765913856,2022-02-15-12:06:09,10.1.1.4,19,-0.070,-0.070,-0.070,0.000,0.000,0.000
1644926769826169856,2022-02-15-12:06:09,10.1.1.4,28,-0.080,-0.080,-0.080,0.000,0.000,0.000
1644926769886524928,2022-02-15-12:06:09,10.1.1.4,38,-0.090,-0.090,-0.090,0.000,0.000,0.000
1644926769926860032,2022-02-15-12:06:09,10.1.1.4,27,-0.100,-0.100,-0.100,0.000,0.000,0.000
1644926769986254080,2022-02-15-12:06:09,10.1.1.4,36,-0.090,-0.090,-0.090,0.000,0.000,0.000
1644926770025899776,2022-02-15-12:06:10,10.1.1.4,24,-0.080,-0.080,-0.080,0.000,0.000,0.000
1644926770086247936,2022-02-15-12:06:10,10.1.1.4,33,-0.070,-0.070,-0.070,0.000,0.000,0.000
1644926770126476032,2022-02-15-12:06:10,10.1.1.4,23,-0.060,-0.060,-0.060,0.000,0.000,0.000
1644926770186060800,2022-02-15-12:06:10,10.1.1.4,32,-0.050,-0.050,-0.050,0.000,0.000,0.000
1644926770226876928,2022-02-15-12:06:10,10.1.1.4,20,-0.040,-0.040,-0.040,0.000,0.000,0.000
1644926770316464896,2022-02-15-12:06:10,10.1.1.4,25,-0.030,-0.030,-0.030,0.000,0.000,0.000
1644926770406194944,2022-02-15-12:06:10,10.1.1.4,33,-0.020,-0.020,-0.020,0.000,0.000,0.000
1644926770446866944,2022-02-15-12:06:10,10.1.1.4,23,-0.010,-0.010,-0.010,0.000,0.000,0.000
1644926770507045888,2022-02-15-12:06:10,10.1.1.4,33,0.000,0.000,0.000,0.000,0.000,0.000
1644926770547539968,2022-02-15-12:06:10,10.1.1.4,22,0.010,0.010,0.010,0.000,0.000,0.000
1644926770609198080,2022-02-15-12:06:10,10.1.1.4,31,0.020,0.020,0.020,0.000,0.000,0.000
1644926770646989056,2022-02-15-12:06:10,10.1.1.4,19,0.030,0.030,0.030,0.000,0.000,0.000
1644926770706896128,2022-02-15-12:06:10,10.1.1.4,29,0.040,0.040,0.040,0.000,0.000,0.000
1644926770767059200,2022-02-15-12:06:10,10.1.1.4,39,0.050,0.050,0.050,0.000,0.000,0.000
1644926770806556928,2022-02-15-12:06:10,10.1.1.4,28,0.060,0.060,0.060,0.000,0.000,0.000
1644926770867489024,2022-02-15-12:06:10,10.1.1.4,38,0.070,0.070,0.070,0.000,0.000,0.000
1644926770907143168,2022-02-15-12:06:10,10.1.1.4,27,0.080,0.080,0.080,0.000,0.000,0.000
1644926770968080896,2022-02-15-12:06:10,10.1.1.4,37,0.090,0.090,0.090,0.000,0.000,0.000
1644926771007482880,2022-02-15-12:06:11,10.1.1.4,27,0.100,0.100,0.100,0.000,0.000,0.000
1644926771067027968,2022-02-15-12:06:11,10.1.1.4,36,0.090,0.090,0.090,0.000,0.000,0.000
1644926771107307008,2022-02-15-12:06:11,10.1.1.4,26,0.080,0.080,0.080,0.000,0.000,0.000
1644926771167503104,2022-02-15-12:06:11,10.1.1.4,34,0.070,0.070,0.070,0.000,0.000,0.000
1644926771207188992,2022-02-15-12:06:11,10.1.1.4,24,0.060,0.060,0.060,0.000,0.000,0.000
1644926771266813952,2022-02-15-12:06:11,10.1.1.4,33,0.050,0.050,0.050,0.000,0.000,0.000
1644926771307395840,2022-02-15-12:06:11,10.1.1.4,23,0.040,0.040,0.040,0.000,0.000,0.000
1644926771367121920,2022-02-15-12:06:11,10.1.1.4,32,0.030,0.030,0.030,0.000,0.000,0.000
1644926771407439104,2022-02-15-12:06:11,10.1.1.4,20,0.020,0.020,0.020,0.000,0.000,0.000
1644926771467032064,2022-02-15-12:06:11,10.1.1.4,30,0.010,0.010,0.010,0.000,0.000,0.000
1644926771507267072,2022-02-15-12:06:11,10.1.1.4,19,0.001,0.001,0.001,0.000,0.000,0.000
1644926771567134976,2022-02-15-12:06:11,10.1.1.4,28,-0.010,-0.010,-0.010,0.000,0.000,0.000
1644926771627698944,2022-02-15-12:06:11,10.1.1.4,38,-0.020,-0.020,-0.020,0.000,0.000,0.000
1644926771666801920,2022-02-15-12:06:11,10.1.1.4,27,-0.030,-0.030,-0.030,0.000,0.000,0.000
1644926771726774016,2022-02-15-12:06:11,10.1.1.4,37,-0.040,-0.040,-0.040,0.000,0.000,0.000
1644926771767507968,2022-02-15-12:06:11,10.1.1.4,26,-0.050,-0.050,-0.050,0.000,0.000,0.000
1644926771831099136,2022-02-15-12:06:11,10.1.1.4,35,-0.060,-0.060,-0.060,0.000,0.000,0.000
1644926771967070976,2022-02-15-12:06:11,10.1.1.4,20,-0.090,-0.090,-0.090,0.000,0.000,0.000
1644926772027307008,2022-02-15-12:06:12,10.1.1.4,29,-0.100,-0.100,-0.100,0.000,0.000,0.000
1644926772066884096,2022-02-15-12:06:12,10.1.1.4,19,-0.091,-0.091,-0.091,0.000,0.000,0.000
1644926772127811072,2022-02-15-12:06:12,10.1.1.4,29,-0.080,-0.080,-0.080,0.000,0.000,0.000
1644926772166696192,2022-02-15-12:06:12,10.1.1.4,18,-0.071,-0.071,-0.071,0.000,0.000,0.000
1644926772226900992,2022-02-15-12:06:12,10.1.1.4,28,-0.060,-0.060,-0.060,0.000,0.000,0.000
1644926772286777856,2022-02-15-12:06:12,10.1.1.4,37,-0.050,-0.050,-0.050,0.000,0.000,0.000
1644926772327886080,2022-02-15-12:06:12,10.1.1.4,26,-0.040,-0.040,-0.040,0.000,0.000,0.000
1644926772387470080,2022-02-15-12:06:12,10.1.1.4,35,-0.030,-0.030,-0.030,0.000,0.000,0.000
1644926772426121984,2022-02-15-12:06:12,10.1.1.4,24,-0.020,-0.020,-0.020,0.000,0.000,0.000
1644926772486977024,2022-02-15-12:06:12,10.1.1.4,34,-0.010,-0.010,-0.010,0.000,0.000,0.000
1644926772526736896,2022-02-15-12:06:12,10.1.1.4,23,0.000,0.000,0.000,0.000,0.000,0.000
1644926772587537152,2022-02-15-12:06:12,10.1.1.4,33,0.010,0.010,0.010,0.000,0.000,0.000
1644926772628073984,2022-02-15-12:06:12,10.1.1.4,22,0.020,0.020,0.020,0.000,0.000,0.000
1644926772686945024,2022-02-15-12:06:12,10.1.1.4,32,0.030,0.030,0.030,0.000,0.000,0.000
1644926772727365120,2022-02-15-12:06:12,10.1.1.4,22,0.040,0.040,0.040,0.000,0.000,0.000
1644926772787619072,2022-02-15-12:06:12,10.1.1.4,31,0.050,0.050,0.050,0.000,0.000,0.000
1644926772827312896,2022-02-15-12:06:12,10.1.1.4,20,0.060,0.060,0.060,0.000,0.000,0.000
1644926772889338112,2022-02-15-12:06:12,10.1.1.4,30,0.070,0.070,0.070,0.000,0.000,0.000
1644926772927028992,2022-02-15-12:06:12,10.1.1.4,19,0.079,0.079,0.079,0.000,0.000,0.000
1644926772986636032,2022-02-15-12:06:12,10.1.1.4,28,0.090,0.090,0.090,0.000,0.000,0.000
1644926773047410944,2022-02-15-12:06:13,10.1.1.4,38,0.100,0.100,0.100,0.000,0.000,0.000
1644926773086523904,2022-02-15-12:06:13,10.1.1.4,27,0.090,0.090,0.090,0.000,0.000,0.000
1644926773147602944,2022-02-15-12:06:13,10.1.1.4,37,0.080,0.080,0.080,0.000,0.000,0.000
1644926773186657024,2022-02-15-12:06:13,10.1.1.4,26,0.070,0.070,0.070,0.000,0.000,0.000
1644926773249079040,2022-02-15-12:06:13,10.1.1.4,36,0.060,0.060,0.060,0.000,0.000,0.000
1644926773286708992,2022-02-15-12:06:13,10.1.1.4,25,0.050,0.050,0.050,0.000,0.000,0.000
1644926773347243008,2022-02-15-12:06:13,10.1.1.4,34,0.040,0.040,0.040,0.000,0.000,0.000
1644926773386703104,2022-02-15-12:06:13,10.1.1.4,23,0.030,0.030,0.030,0.000,0.000,0.000
1644926773447997184,2022-02-15-12:06:13,10.1.1.4,33,0.020,0.020,0.020,0.000,0.000,0.000
1644926773487004160,2022-02-15-12:06:13,10.1.1.4,23,0.010,0.010,0.010,0.000,0.000,0.000
1644926773548937984,2022-02-15-12:06:13,10.1.1.4,32,0.000,0.000,0.000,0.000,0.000,0.000
1644926773588004096,2022-02-15-12:06:13,10.1.1.4,22,-0.010,-0.010,-0.010,0.000,0.000,0.000
1644926773647933952,2022-02-15-12:06:13,10.1.1.4,31,-0.020,-0.020,-0.020,0.000,0.000,0.000
1644926773687500032,2022-02-15-12:06:13,10.1.1.4,21,-0.030,-0.030,-0.030,0.000,0.000,0.000
1644926773748029952,2022-02-15-12:06:13,10.1.1.4,30,-0.040,-0.040,-0.040,0.000,0.000,0.000
1644926773787575040,2022-02-15-12:06:13,10.1.1.4,20,-0.050,-0.050,-0.050,0.000,0.000,0.000
1644926773846267904,2022-02-15-12:06:13,10.1.1.4,29,-0.060,-0.060,-0.060,0.000,0.000,0.000
1644926773886812928,2022-02-15-12:06:13,10.1.1.4,19,-0.070,-0.070,-0.070,0.000,0.000,0.000
1644926773946521088,2022-02-15-12:06:13,10.1.1.4,29,-0.080,-0.080,-0.080,0.000,0.000,0.000
1644926774007720960,2022-02-15-12:06:14,10.1.1.4,38,-0.090,-0.090,-0.090,0.000,0.000,0.000
1644926774048443136,2022-02-15-12:06:14,10.1.1.4,28,-0.100,-0.100,-0.100,0.000,0.000,0.000
1644926774107171072,2022-02-15-12:06:14,10.1.1.4,37,-0.090,-0.090,-0.090,0.000,0.000,0.000
1644926774147081984,2022-02-15-12:06:14,10.1.1.4,27,-0.080,-0.080,-0.080,0.000,0.000,0.000
1644926774206734848,2022-02-15-12:06:14,10.1.1.4,36,-0.070,-0.070,-0.070,0.000,0.000,0.000
1644926774247038976,2022-02-15-12:06:14,10.1.1.4,26,-0.060,-0.060,-0.060,0.000,0.000,0.000
1644926774306669056,2022-02-15-12:06:14,10.1.1.4,35,-0.050,-0.050,-0.050,0.000,0.000,0.000
1644926774347606784,2022-02-15-12:06:14,10.1.1.4,25,-0.040,-0.040,-0.040,0.000,0.000,0.000
1644926774406630912,2022-02-15-12:06:14,10.1.1.4,34,-0.030,-0.030,-0.030,0.000,0.000,0.000
1644926774446292992,2022-02-15-12:06:14,10.1.1.4,24,-0.020,-0.020,-0.020,0.000,0.000,0.000
1644926774506920192,2022-02-15-12:06:14,10.1.1.4,33,-0.010,-0.010,-0.010,0.000,0.000,0.000
1644926774547024896,2022-02-15-12:06:14,10.1.1.4,23,0.000,0.000,0.000,0.000,0.000,0.000
1644926774606617856,2022-02-15-12:06:14,10.1.1.4,32,0.010,0.010,0.010,0.000,0.000,0.000
1644926774647366912,2022-02-15-12:06:14,10.1.1.4,21,0.020,0.020,0.020,0.000,0.000,0.000
1644926774706556928,2022-02-15-12:06:14,10.1.1.4,31,0.030,0.030,0.030,0.000,0.000,0.000
1644926774745987840,2022-02-15-12:06:14,10.1.1.4,20,0.040,0.040,0.040,0.000,0.000,0.000
1644926774806610944,2022-02-15-12:06:14,10.1.1.4,29,0.050,0.050,0.050,0.000,0.000,0.000
1644926774846872064,2022-02-15-12:06:14,10.1.1.4,19,0.059,0.059,0.059,0.000,0.000,0.000
1644926774906923008,2022-02-15-12:06:14,10.1.1.4,28,0.070,0.070,0.070,0.000,0.000,0.000
1644926774967294976,2022-02-15-12:06:14,10.1.1.4,38,0.080,0.080,0.080,0.000,0.000,0.000
1644926775007662080,2022-02-15-12:06:15,10.1.1.4,27,0.090,0.090,0.090,0.000,0.000,0.000
1644926775066507008,2022-02-15-12:06:15,10.1.1.4,37,0.100,0.100,0.100,0.000,0.000,0.000
1644926775106537984,2022-02-15-12:06:15,10.1.1.4,26,0.090,0.090,0.090,0.000,0.000,0.000
1644926775166039040,2022-02-15-12:06:15,10.1.1.4,36,0.080,0.080,0.080,0.000,0.000,0.000
1644926775206540032,2022-02-15-12:06:15,10.1.1.4,25,0.070,0.070,0.070,0.000,0.000,0.000
1644926775266736896,2022-02-15-12:06:15,10.1.1.4,35,0.060,0.060,0.060,0.000,0.000,0.000
1644926775307847936,2022-02-15-12:06:15,10.1.1.4,24,0.050,0.050,0.050,0.000,0.000,0.000
1644926775366767872,2022-02-15-12:06:15,10.1.1.4,33,0.040,0.040,0.040,0.000,0.000,0.000
1644926775406619136,2022-02-15-12:06:15,10.1.1.4,23,0.030,0.030,0.030,0.000,0.000,0.000
1644926775466980096,2022-02-15-12:06:15,10.1.1.4,32,0.020,0.020,0.020,0.000,0.000,0.000
1644926775507484928,2022-02-15-12:06:15,10.1.1.4,22,0.010,0.010,0.010,0.000,0.000,0.000
1644926775566471168,2022-02-15-12:06:15,10.1.1.4,31,0.000,0.000,0.000,0.000,0.000,0.000
1644926775607286016,2022-02-15-12:06:15,10.1.1.4,21,-0.010,-0.010,-0.010,0.000,0.000,0.000
1644926775669249024,2022-02-15-12:06:15,10.1.1.4,30,-0.020,-0.020,-0.020,0.000,0.000,0.000
1644926775708012032,2022-02-15-12:06:15,10.1.1.4,20,-0.030,-0.030,-0.030,0.000,0.000,0.000
1644926775767680768,2022-02-15-12:06:15,10.1.1.4,29,-0.040,-0.040,-0.040,0.000,0.000,0.000
1644926775827694848,2022-02-15-12:06:15,10.1.1.4,38,-0.050,-0.050,-0.050,0.000,0.000,0.000
1644926775866899968,2022-02-15-12:06:15,10.1.1.4,27,-0.060,-0.060,-0.060,0.000,0.000,0.000
1644926775927898880,2022-02-15-12:06:15,10.1.1.4,37,-0.070,-0.070,-0.070,0.000,0.000,0.000
1644926775966880000,2022-02-15-12:06:15,10.1.1.4,27,-0.080,-0.080,-0.080,0.000,0.000,0.000
1644926776027389952,2022-02-15-12:06:16,10.1.1.4,36,-0.090,-0.090,-0.090,0.000,0.000,0.000
1644926776067673088,2022-02-15-12:06:16,10.1.1.4,26,-0.100,-0.100,-0.100,0.000,0.000,0.000
1644926776127543808,2022-02-15-12:06:16,10.1.1.4,35,-0.090,-0.090,-0.090,0.000,0.000,0.000
1644926776166723840,2022-02-15-12:06:16,10.1.1.4,25,-0.080,-0.080,-0.080,0.000,0.000,0.000
1644926776227183104,2022-02-15-12:06:16,10.1.1.4,34,-0.070,-0.070,-0.070,0.000,0.000,0.000
1644926776266956032,2022-02-15-12:06:16,10.1.1.4,23,-0.060,-0.060,-0.060,0.000,0.000,0.000
1644926776327572992,2022-02-15-12:06:16,10.1.1.4,33,-0.050,-0.050,-0.050,0.000,0.000,0.000
1644926776366718976,2022-02-15-12:06:16,10.1.1.4,23,-0.040,-0.040,-0.040,0.000,0.000,0.000
1644926776426714880,2022-02-15-12:06:16,10.1.1.4,32,-0.030,-0.030,-0.030,0.000,0.000,0.000
1644926776466766080,2022-02-15-12:06:16,10.1.1.4,21,-0.020,-0.020,-0.020,0.000,0.000,0.000
1644926776528179968,2022-02-15-12:06:16,10.1.1.4,31,-0.010,-0.010,-0.010,0.000,0.000,0.000
1644926776567357952,2022-02-15-12:06:16,10.1.1.4,20,0.000,0.000,0.000,0.000,0.000,0.000
1644926776626627072,2022-02-15-12:06:16,10.1.1.4,29,0.010,0.010,0.010,0.000,0.000,0.000
1644926776667452928,2022-02-15-12:06:16,10.1.1.4,19,0.020,0.020,0.020,0.000,0.000,0.000
1644926776727180032,2022-02-15-12:06:16,10.1.1.4,29,0.030,0.030,0.030,0.000,0.000,0.000
1644926776786748928,2022-02-15-12:06:16,10.1.1.4,38,0.040,0.040,0.040,0.000,0.000,0.000
1644926776828396032,2022-02-15-12:06:16,10.1.1.4,28,0.050,0.050,0.050,0.000,0.000,0.000
1644926776887708928,2022-02-15-12:06:16,10.1.1.4,37,0.060,0.060,0.060,0.000,0.000,0.000
1644926776926564096,2022-02-15-12:06:16,10.1.1.4,27,0.070,0.070,0.070,0.000,0.000,0.000
1644926776987170048,2022-02-15-12:06:16,10.1.1.4,35,0.080,0.080,0.080,0.000,0.000,0.000
1644926777027899904,2022-02-15-12:06:17,10.1.1.4,25,0.090,0.090,0.090,0.000,0.000,0.000
1644926777087982848,2022-02-15-12:06:17,10.1.1.4,34,0.100,0.100,0.100,0.000,0.000,0.000
1644926777127329024,2022-02-15-12:06:17,10.1.1.4,23,0.090,0.090,0.090,0.000,0.000,0.000
1644926777286475008,2022-02-15-12:06:17,10.1.1.4,30,0.060,0.060,0.060,0.000,0.000,0.000
1644926777327717120,2022-02-15-12:06:17,10.1.1.4,20,0.050,0.050,0.050,0.000,0.000,0.000
1644926777386328832,2022-02-15-12:06:17,10.1.1.4,29,0.040,0.040,0.040,0.000,0.000,0.000
1644926777447313920,2022-02-15-12:06:17,10.1.1.4,39,0.030,0.030,0.030,0.000,0.000,0.000
1644926777486813184,2022-02-15-12:06:17,10.1.1.4,28,0.020,0.020,0.020,0.000,0.000,0.000
1644926777546896896,2022-02-15-12:06:17,10.1.1.4,38,0.010,0.010,0.010,0.000,0.000,0.000
1644926777587742976,2022-02-15-12:06:17,10.1.1.4,27,0.000,0.000,0.000,0.000,0.000,0.000
1644926777646963968,2022-02-15-12:06:17,10.1.1.4,37,-0.010,-0.010,-0.010,0.000,0.000,0.000
1644926777687286016,2022-02-15-12:06:17,10.1.1.4,26,-0.020,-0.020,-0.020,0.000,0.000,0.000
1644926777746733824,2022-02-15-12:06:17,10.1.1.4,36,-0.030,-0.030,-0.030,0.000,0.000,0.000
1644926777787008000,2022-02-15-12:06:17,10.1.1.4,25,-0.040,-0.040,-0.040,0.000,0.000,0.000
1644926777846716928,2022-02-15-12:06:17,10.1.1.4,35,-0.050,-0.050,-0.050,0.000,0.000,0.000
1644926777886831872,2022-02-15-12:06:17,10.1.1.4,24,-0.060,-0.060,-0.060,0.000,0.000,0.000
1644926777947496960,2022-02-15-12:06:17,10.1.1.4,33,-0.070,-0.070,-0.070,0.000,0.000,0.000
1644926777987642112,2022-02-15-12:06:17,10.1.1.4,23,-0.080,-0.080,-0.080,0.000,0.000,0.000
1644926778046467072,2022-02-15-12:06:18,10.1.1.4,33,-0.090,-0.090,-0.090,0.000,0.000,0.000
1644926778086848000,2022-02-15-12:06:18,10.1.1.4,22,-0.100,-0.100,-0.100,0.000,0.000,0.000
1644926778151504896,2022-02-15-12:06:18,10.1.1.4,34,-0.090,-0.090,-0.090,0.000,0.000,0.000
1644926778187558912,2022-02-15-12:06:18,10.1.1.4,21,-0.080,-0.080,-0.080,0.000,0.000,0.000
1644926778246878976,2022-02-15-12:06:18,10.1.1.4,30,-0.070,-0.070,-0.070,0.000,0.000,0.000
1644926778287763200,2022-02-15-12:06:18,10.1.1.4,20,-0.060,-0.060,-0.060,0.000,0.000,0.000
1644926778346168064,2022-02-15-12:06:18,10.1.1.4,30,-0.050,-0.050,-0.050,0.000,0.000,0.000
1644926778387939072,2022-02-15-12:06:18,10.1.1.4,19,-0.040,-0.040,-0.040,0.000,0.000,0.000
1644926778446041088,2022-02-15-12:06:18,10.1.1.4,29,-0.030,-0.030,-0.030,0.000,0.000,0.000
1644926778507205120,2022-02-15-12:06:18,10.1.1.4,38,-0.020,-0.020,-0.020,0.000,0.000,0.000
1644926778546628864,2022-02-15-12:06:18,10.1.1.4,28,-0.010,-0.010,-0.010,0.000,0.000,0.000
1644926778607682816,2022-02-15-12:06:18,10.1.1.4,38,0.000,0.000,0.000,0.000,0.000,0.000
1644926778646224128,2022-02-15-12:06:18,10.1.1.4,27,0.010,0.010,0.010,0.000,0.000,0.000
1644926778706199040,2022-02-15-12:06:18,10.1.1.4,36,0.020,0.020,0.020,0.000,0.000,0.000
1644926778747649024,2022-02-15-12:06:18,10.1.1.4,26,0.030,0.030,0.030,0.000,0.000,0.000
1644926778807697920,2022-02-15-12:06:18,10.1.1.4,35,0.040,0.040,0.040,0.000,0.000,0.000
1644926778846630144,2022-02-15-12:06:18,10.1.1.4,25,0.050,0.050,0.050,0.000,0.000,0.000
1644926778907358976,2022-02-15-12:06:18,10.1.1.4,34,0.060,0.060,0.060,0.000,0.000,0.000
1644926778946985984,2022-02-15-12:06:18,10.1.1.4,23,0.070,0.070,0.070,0.000,0.000,0.000
1644926779007704064,2022-02-15-12:06:19,10.1.1.4,33,0.080,0.080,0.080,0.000,0.000,0.000
1644926779045664000,2022-02-15-12:06:19,10.1.1.4,22,0.090,0.090,0.090,0.000,0.000,0.000
1644926779106626048,2022-02-15-12:06:19,10.1.1.4,32,0.100,0.100,0.100,0.000,0.000,0.000
1644926779146493952,2022-02-15-12:06:19,10.1.1.4,22,0.090,0.090,0.090,0.000,0.000,0.000
1644926779206563072,2022-02-15-12:06:19,10.1.1.4,31,0.080,0.080,0.080,0.000,0.000,0.000
1644926779248267776,2022-02-15-12:06:19,10.1.1.4,21,0.070,0.070,0.070,0.000,0.000,0.000
1644926779306448896,2022-02-15-12:06:19,10.1.1.4,30,0.060,0.060,0.060,0.000,0.000,0.000
1644926779347072000,2022-02-15-12:06:19,10.1.1.4,19,0.050,0.050,0.050,0.000,0.000,0.000
1644926779407545088,2022-02-15-12:06:19,10.1.1.4,29,0.040,0.040,0.040,0.000,0.000,0.000
1644926779467127040,2022-02-15-12:06:19,10.1.1.4,38,0.030,0.030,0.030,0.000,0.000,0.000
1644926779507042816,2022-02-15-12:06:19,10.1.1.4,28,0.020,0.020,0.020,0.000,0.000,0.000
1644926779566317056,2022-02-15-12:06:19,10.1.1.4,37,0.010,0.010,0.010,0.000,0.000,0.000
1644926779607544064,2022-02-15-12:06:19,10.1.1.4,27,0.000,0.000,0.000,0.000,0.000,0.000
1644926779667373824,2022-02-15-12:06:19,10.1.1.4,36,-0.010,-0.010,-0.010,0.000,0.000,0.000
1644926779705974016,2022-02-15-12:06:19,10.1.1.4,25,-0.020,-0.020,-0.020,0.000,0.000,0.000
1644926779767179008,2022-02-15-12:06:19,10.1.1.4,33,-0.030,-0.030,-0.030,0.000,0.000,0.000
1644926779805985024,2022-02-15-12:06:19,10.1.1.4,23,-0.040,-0.040,-0.040,0.000,0.000,0.000
1644926779867288064,2022-02-15-12:06:19,10.1.1.4,32,-0.050,-0.050,-0.050,0.000,0.000,0.000
1644926779906884864,2022-02-15-12:06:19,10.1.1.4,22,-0.060,-0.060,-0.060,0.000,0.000,0.000
1644926779966993920,2022-02-15-12:06:19,10.1.1.4,31,-0.070,-0.070,-0.070,0.000,0.000,0.000
1644926780006754048,2022-02-15-12:06:20,10.1.1.4,21,-0.080,-0.080,-0.080,0.000,0.000,0.000
1644926780066675968,2022-02-15-12:06:20,10.1.1.4,31,-0.090,-0.090,-0.090,0.000,0.000,0.000
1644926780108252160,2022-02-15-12:06:20,10.1.1.4,19,-0.100,-0.100,-0.100,0.000,0.000,0.000
1644926780168412928,2022-02-15-12:06:20,10.1.1.4,29,-0.090,-0.090,-0.090,0.000,0.000,0.000
1644926780211510016,2022-02-15-12:06:20,10.1.1.4,19,-0.081,-0.081,-0.081,0.000,0.000,0.000
1644926780266856960,2022-02-15-12:06:20,10.1.1.4,28,-0.070,-0.070,-0.070,0.000,0.000,0.000
1644926780327465984,2022-02-15-12:06:20,10.1.1.4,38,-0.060,-0.060,-0.060,0.000,0.000,0.000
1644926780368133120,2022-02-15-12:06:20,10.1.1.4,27,-0.050,-0.050,-0.050,0.000,0.000,0.000
1644926780467866880,2022-02-15-12:06:20,10.1.1.4,20,-0.030,-0.030,-0.030,0.000,0.000,0.000
1644926780527012096,2022-02-15-12:06:20,10.1.1.4,28,-0.020,-0.020,-0.020,0.000,0.000,0.000
1644926780586085120,2022-02-15-12:06:20,10.1.1.4,38,-0.010,-0.010,-0.010,0.000,0.000,0.000
1644926780627357952,2022-02-15-12:06:20,10.1.1.4,27,0.000,0.000,0.000,0.000,0.000,0.000
1644926780686237952,2022-02-15-12:06:20,10.1.1.4,35,0.010,0.010,0.010,0.000,0.000,0.000
1644926780727243776,2022-02-15-12:06:20,10.1.1.4,24,0.020,0.020,0.020,0.000,0.000,0.000
1644926780785885184,2022-02-15-12:06:20,10.1.1.4,33,0.030,0.030,0.030,0.000,0.000,0.000
1644926780826444032,2022-02-15-12:06:20,10.1.1.4,23,0.040,0.040,0.040,0.000,0.000,0.000
1644926780885724928,2022-02-15-12:06:20,10.1.1.4,32,0.050,0.050,0.050,0.000,0.000,0.000
1644926780926925824,2022-02-15-12:06:20,10.1.1.4,21,0.060,0.060,0.060,0.000,0.000,0.000
1644926780986649088,2022-02-15-12:06:20,10.1.1.4,31,0.070,0.070,0.070,0.000,0.000,0.000
1644926781027802880,2022-02-15-12:06:21,10.1.1.4,20,0.080,0.080,0.080,0.000,0.000,0.000
1644926781086679040,2022-02-15-12:06:21,10.1.1.4,31,0.090,0.090,0.090,0.000,0.000,0.000
1644926781126692096,2022-02-15-12:06:21,10.1.1.4,20,0.100,0.100,0.100,0.000,0.000,0.000
1644926781186334976,2022-02-15-12:06:21,10.1.1.4,29,0.090,0.090,0.090,0.000,0.000,0.000
1644926781245792000,2022-02-15-12:06:21,10.1.1.4,39,0.080,0.080,0.080,0.000,0.000,0.000
1644926781285831936,2022-02-15-12:06:21,10.1.1.4,28,0.070,0.070,0.070,0.000,0.000,0.000
1644926781346299904,2022-02-15-12:06:21,10.1.1.4,38,0.060,0.060,0.060,0.000,0.000,0.000
1644926781385558016,2022-02-15-12:06:21,10.1.1.4,27,0.050,0.050,0.050,0.000,0.000,0.000
1644926781445645056,2022-02-15-12:06:21,10.1.1.4,36,0.040,0.040,0.040,0.000,0.000,0.000
1644926781486252032,2022-02-15-12:06:21,10.1.1.4,23,0.030,0.030,0.030,0.000,0.000,0.000
1644926781546425088,2022-02-15-12:06:21,10.1.1.4,33,0.020,0.020,0.020,0.000,0.000,0.000
1644926781586711808,2022-02-15-12:06:21,10.1.1.4,22,0.010,0.010,0.010,0.000,0.000,0.000
1644926781651205120,2022-02-15-12:06:21,10.1.1.4,32,0.000,0.000,0.000,0.000,0.000,0.000
1644926781691272960,2022-02-15-12:06:21,10.1.1.4,22,-0.010,-0.010,-0.010,0.000,0.000,0.000
1644926781748997888,2022-02-15-12:06:21,10.1.1.4,31,-0.020,-0.020,-0.020,0.000,0.000,0.000
1644926781791672832,2022-02-15-12:06:21,10.1.1.4,20,-0.030,-0.030,-0.030,0.000,0.000,0.000
1644926781846715904,2022-02-15-12:06:21,10.1.1.4,30,-0.040,-0.040,-0.040,0.000,0.000,0.000
1644926781887278080,2022-02-15-12:06:21,10.1.1.4,19,-0.050,-0.050,-0.050,0.000,0.000,0.000
1644926781946374912,2022-02-15-12:06:21,10.1.1.4,29,-0.060,-0.060,-0.060,0.000,0.000,0.000
1644926782010177024,2022-02-15-12:06:22,10.1.1.4,38,-0.070,-0.070,-0.070,0.000,0.000,0.000
1644926782049483008,2022-02-15-12:06:22,10.1.1.4,28,-0.080,-0.080,-0.080,0.000,0.000,0.000
1644926782106131968,2022-02-15-12:06:22,10.1.1.4,37,-0.090,-0.090,-0.090,0.000,0.000,0.000
1644926782145978880,2022-02-15-12:06:22,10.1.1.4,26,-0.100,-0.100,-0.100,0.000,0.000,0.000
1644926782206795008,2022-02-15-12:06:22,10.1.1.4,36,-0.090,-0.090,-0.090,0.000,0.000,0.000
1644926782245832960,2022-02-15-12:06:22,10.1.1.4,25,-0.080,-0.080,-0.080,0.000,0.000,0.000
1644926782306548992,2022-02-15-12:06:22,10.1.1.4,35,-0.070,-0.070,-0.070,0.000,0.000,0.000
1644926782346915840,2022-02-15-12:06:22,10.1.1.4,24,-0.060,-0.060,-0.060,0.000,0.000,0.000
1644926782406553088,2022-02-15-12:06:22,10.1.1.4,34,-0.050,-0.050,-0.050,0.000,0.000,0.000
1644926782447010048,2022-02-15-12:06:22,10.1.1.4,23,-0.040,-0.040,-0.040,0.000,0.000,0.000
1644926782507165952,2022-02-15-12:06:22,10.1.1.4,33,-0.030,-0.030,-0.030,0.000,0.000,0.000
1644926782546343936,2022-02-15-12:06:22,10.1.1.4,22,-0.020,-0.020,-0.020,0.000,0.000,0.000
1644926782607991808,2022-02-15-12:06:22,10.1.1.4,32,-0.010,-0.010,-0.010,0.000,0.000,0.000
1644926782648968960,2022-02-15-12:06:22,10.1.1.4,21,0.000,0.000,0.000,0.000,0.000,0.000
1644926782707150848,2022-02-15-12:06:22,10.1.1.4,30,0.010,0.010,0.010,0.000,0.000,0.000
1644926782746409984,2022-02-15-12:06:22,10.1.1.4,19,0.020,0.020,0.020,0.000,0.000,0.000
1644926782806888192,2022-02-15-12:06:22,10.1.1.4,29,0.030,0.030,0.030,0.000,0.000,0.000
1644926782872220928,2022-02-15-12:06:22,10.1.1.4,38,0.040,0.040,0.040,0.000,0.000,0.000
1644926782906114048,2022-02-15-12:06:22,10.1.1.4,28,0.050,0.050,0.050,0.000,0.000,0.000
1644926782966600960,2022-02-15-12:06:22,10.1.1.4,37,0.060,0.060,0.060,0.000,0.000,0.000
1644926783006823168,2022-02-15-12:06:23,10.1.1.4,26,0.070,0.070,0.070,0.000,0.000,0.000
1644926783067070976,2022-02-15-12:06:23,10.1.1.4,35,0.080,0.080,0.080,0.000,0.000,0.000
1644926783111060992,2022-02-15-12:06:23,10.1.1.4,26,0.090,0.090,0.090,0.000,0.000,0.000
1644926783166650112,2022-02-15-12:06:23,10.1.1.4,33,0.100,0.100,0.100,0.000,0.000,0.000
1644926783206723840,2022-02-15-12:06:23,10.1.1.4,23,0.090,0.090,0.090,0.000,0.000,0.000
1644926783267052032,2022-02-15-12:06:23,10.1.1.4,32,0.080,0.080,0.080,0.000,0.000,0.000
1644926783307800064,2022-02-15-12:06:23,10.1.1.4,21,0.070,0.070,0.070,0.000,0.000,0.000
1644926783366731008,2022-02-15-12:06:23,10.1.1.4,30,0.060,0.060,0.060,0.000,0.000,0.000
1644926783406095104,2022-02-15-12:06:23,10.1.1.4,20,0.050,0.050,0.050,0.000,0.000,0.000
1644926783466149120,2022-02-15-12:06:23,10.1.1.4,29,0.040,0.040,0.040,0.000,0.000,0.000
1644926783506227968,2022-02-15-12:06:23,10.1.1.4,19,0.031,0.031,0.031,0.000,0.000,0.000
1644926783566109952,2022-02-15-12:06:23,10.1.1.4,29,0.020,0.020,0.020,0.000,0.000,0.000
1644926783626461952,2022-02-15-12:06:23,10.1.1.4,37,0.010,0.010,0.010,0.000,0.000,0.000
1644926783665865984,2022-02-15-12:06:23,10.1.1.4,27,0.000,0.000,0.000,0.000,0.000,0.000
1644926783726244864,2022-02-15-12:06:23,10.1.1.4,36,-0.010,-0.010,-0.010,0.000,0.000,0.000
1644926783766497024,2022-02-15-12:06:23,10.1.1.4,25,-0.020,-0.020,-0.020,0.000,0.000,0.000
1644926783826225920,2022-02-15-12:06:23,10.1.1.4,34,-0.030,-0.030,-0.030,0.000,0.000,0.000
1644926783866843904,2022-02-15-12:06:23,10.1.1.4,21,-0.040,-0.040,-0.040,0.000,0.000,0.000
1644926783926678784,2022-02-15-12:06:23,10.1.1.4,30,-0.050,-0.050,-0.050,0.000,0.000,0.000
1644926783967384064,2022-02-15-12:06:23,10.1.1.4,19,-0.060,-0.060,-0.060,0.000,0.000,0.000
1644926784026809856,2022-02-15-12:06:24,10.1.1.4,29,-0.070,-0.070,-0.070,0.000,0.000,0.000
1644926784067404032,2022-02-15-12:06:24,10.1.1.4,19,-0.079,-0.079,-0.079,0.000,0.000,0.000
1644926784125735168,2022-02-15-12:06:24,10.1.1.4,27,-0.090,-0.090,-0.090,0.000,0.000,0.000
1644926784185940992,2022-02-15-12:06:24,10.1.1.4,36,-0.100,-0.100,-0.100,0.000,0.000,0.000
1644926784227289088,2022-02-15-12:06:24,10.1.1.4,26,-0.090,-0.090,-0.090,0.000,0.000,0.000
1644926784286777856,2022-02-15-12:06:24,10.1.1.4,35,-0.080,-0.080,-0.080,0.000,0.000,0.000
1644926784327799040,2022-02-15-12:06:24,10.1.1.4,25,-0.070,-0.070,-0.070,0.000,0.000,0.000
1644926784386950912,2022-02-15-12:06:24,10.1.1.4,34,-0.060,-0.060,-0.060,0.000,0.000,0.000
1644926784427036160,2022-02-15-12:06:24,10.1.1.4,23,-0.050,-0.050,-0.050,0.000,0.000,0.000
1644926784487028992,2022-02-15-12:06:24,10.1.1.4,33,-0.040,-0.040,-0.040,0.000,0.000,0.000
1644926784526912000,2022-02-15-12:06:24,10.1.1.4,22,-0.030,-0.030,-0.030,0.000,0.000,0.000
1644926784586697984,2022-02-15-12:06:24,10.1.1.4,32,-0.020,-0.020,-0.020,0.000,0.000,0.000
1644926784626669824,2022-02-15-12:06:24,10.1.1.4,22,-0.010,-0.010,-0.010,0.000,0.000,0.000
1644926784686595072,2022-02-15-12:06:24,10.1.1.4,31,0.000,0.000,0.000,0.000,0.000,0.000
1644926784746651904,2022-02-15-12:06:24,10.1.1.4,38,0.010,0.010,0.010,0.000,0.000,0.000
1644926784786455040,2022-02-15-12:06:24,10.1.1.4,28,0.020,0.020,0.020,0.000,0.000,0.000
1644926784846029056,2022-02-15-12:06:24,10.1.1.4,38,0.030,0.030,0.030,0.000,0.000,0.000
1644926784886807808,2022-02-15-12:06:24,10.1.1.4,27,0.040,0.040,0.040,0.000,0.000,0.000
1644926784946306816,2022-02-15-12:06:24,10.1.1.4,36,0.050,0.050,0.050,0.000,0.000,0.000
1644926784987346944,2022-02-15-12:06:24,10.1.1.4,26,0.060,0.060,0.060,0.000,0.000,0.000
1644926785046861056,2022-02-15-12:06:25,10.1.1.4,35,0.070,0.070,0.070,0.000,0.000,0.000
1644926785086932992,2022-02-15-12:06:25,10.1.1.4,25,0.080,0.080,0.080,0.000,0.000,0.000
1644926785147083008,2022-02-15-12:06:25,10.1.1.4,34,0.090,0.090,0.090,0.000,0.000,0.000
1644926785186521088,2022-02-15-12:06:25,10.1.1.4,24,0.100,0.100,0.100,0.000,0.000,0.000
1644926785247606016,2022-02-15-12:06:25,10.1.1.4,33,0.090,0.090,0.090,0.000,0.000,0.000
1644926785286860032,2022-02-15-12:06:25,10.1.1.4,23,0.080,0.080,0.080,0.000,0.000,0.000
1644926785347204864,2022-02-15-12:06:25,10.1.1.4,32,0.070,0.070,0.070,0.000,0.000,0.000
1644926785386496000,2022-02-15-12:06:25,10.1.1.4,21,0.060,0.060,0.060,0.000,0.000,0.000
1644926785446758912,2022-02-15-12:06:25,10.1.1.4,31,0.050,0.050,0.050,0.000,0.000,0.000
1644926785487090176,2022-02-15-12:06:25,10.1.1.4,21,0.040,0.040,0.040,0.000,0.000,0.000
1644926785546178048,2022-02-15-12:06:25,10.1.1.4,30,0.030,0.030,0.030,0.000,0.000,0.000
1644926785586813952,2022-02-15-12:06:25,10.1.1.4,19,0.020,0.020,0.020,0.000,0.000,0.000
1644926785647339008,2022-02-15-12:06:25,10.1.1.4,29,0.010,0.010,0.010,0.000,0.000,0.000
1644926785711452928,2022-02-15-12:06:25,10.1.1.4,38,0.000,0.000,0.000,0.000,0.000,0.000
1644926785746455808,2022-02-15-12:06:25,10.1.1.4,27,-0.010,-0.010,-0.010,0.000,0.000,0.000
1644926785807234048,2022-02-15-12:06:25,10.1.1.4,35,-0.020,-0.020,-0.020,0.000,0.000,0.000
1644926785846904064,2022-02-15-12:06:25,10.1.1.4,24,-0.030,-0.030,-0.030,0.000,0.000,0.000
1644926785908999936,2022-02-15-12:06:25,10.1.1.4,35,-0.040,-0.040,-0.040,0.000,0.000,0.000
1644926785946682880,2022-02-15-12:06:25,10.1.1.4,23,-0.050,-0.050,-0.050,0.000,0.000,0.000
1644926786006339072,2022-02-15-12:06:26,10.1.1.4,32,-0.060,-0.060,-0.060,0.000,0.000,0.000
1644926786046618112,2022-02-15-12:06:26,10.1.1.4,22,-0.070,-0.070,-0.070,0.000,0.000,0.000
1644926786106829824,2022-02-15-12:06:26,10.1.1.4,31,-0.080,-0.080,-0.080,0.000,0.000,0.000
1644926786146425856,2022-02-15-12:06:26,10.1.1.4,20,-0.090,-0.090,-0.090,0.000,0.000,0.000
1644926786206631936,2022-02-15-12:06:26,10.1.1.4,29,-0.100,-0.100,-0.100,0.000,0.000,0.000
1644926786267215104,2022-02-15-12:06:26,10.1.1.4,39,-0.090,-0.090,-0.090,0.000,0.000,0.000
1644926786306798080,2022-02-15-12:06:26,10.1.1.4,28,-0.080,-0.080,-0.080,0.000,0.000,0.000
1644926786367417088,2022-02-15-12:06:26,10.1.1.4,38,-0.070,-0.070,-0.070,0.000,0.000,0.000
1644926786407192064,2022-02-15-12:06:26,10.1.1.4,27,-0.060,-0.060,-0.060,0.000,0.000,0.000
1644926786466983936,2022-02-15-12:06:26,10.1.1.4,35,-0.050,-0.050,-0.050,0.000,0.000,0.000
1644926786507339008,2022-02-15-12:06:26,10.1.1.4,25,-0.040,-0.040,-0.040,0.000,0.000,0.000
1644926786568867072,2022-02-15-12:06:26,10.1.1.4,34,-0.030,-0.030,-0.030,0.000,0.000,0.000
1644926786606828032,2022-02-15-12:06:26,10.1.1.4,21,-0.020,-0.020,-0.020,0.000,0.000,0.000
1644926786667449088,2022-02-15-12:06:26,10.1.1.4,30,-0.010,-0.010,-0.010,0.000,0.000,0.000
1644926786707916032,2022-02-15-12:06:26,10.1.1.4,19,-0.000,-0.000,-0.000,0.000,0.000,0.000
1644926786768190976,2022-02-15-12:06:26,10.1.1.4,28,0.010,0.010,0.010,0.000,0.000,0.000
1644926786827197184,2022-02-15-12:06:26,10.1.1.4,38,0.020,0.020,0.020,0.000,0.000,0.000
1644926786868314112,2022-02-15-12:06:26,10.1.1.4,27,0.030,0.030,0.030,0.000,0.000,0.000
1644926786929396992,2022-02-15-12:06:26,10.1.1.4,36,0.040,0.040,0.040,0.000,0.000,0.000
1644926786967063808,2022-02-15-12:06:26,10.1.1.4,24,0.050,0.050,0.050,0.000,0.000,0.000
1644926787027527168,2022-02-15-12:06:27,10.1.1.4,33,0.060,0.060,0.060,0.000,0.000,0.000
1644926787067034112,2022-02-15-12:06:27,10.1.1.4,23,0.070,0.070,0.070,0.000,0.000,0.000
1644926787127085824,2022-02-15-12:06:27,10.1.1.4,32,0.080,0.080,0.080,0.000,0.000,0.000
1644926787167268864,2022-02-15-12:06:27,10.1.1.4,21,0.090,0.090,0.090,0.000,0.000,0.000
1644926787228354816,2022-02-15-12:06:27,10.1.1.4,30,0.100,0.100,0.100,0.000,0.000,0.000
1644926787286987008,2022-02-15-12:06:27,10.1.1.4,39,0.090,0.090,0.090,0.000,0.000,0.000
1644926787326843136,2022-02-15-12:06:27,10.1.1.4,27,0.080,0.080,0.080,0.000,0.000,0.000
1644926787386481920,2022-02-15-12:06:27,10.1.1.4,37,0.070,0.070,0.070,0.000,0.000,0.000
1644926787426835968,2022-02-15-12:06:27,10.1.1.4,25,0.060,0.060,0.060,0.000,0.000,0.000
1644926787488014848,2022-02-15-12:06:27,10.1.1.4,35,0.050,0.050,0.050,0.000,0.000,0.000
1644926787526382848,2022-02-15-12:06:27,10.1.1.4,23,0.040,0.040,0.040,0.000,0.000,0.000
1644926787587006976,2022-02-15-12:06:27,10.1.1.4,32,0.030,0.030,0.030,0.000,0.000,0.000
1644926787627144192,2022-02-15-12:06:27,10.1.1.4,22,0.020,0.020,0.020,0.000,0.000,0.000
1644926787687171072,2022-02-15-12:06:27,10.1.1.4,31,0.010,0.010,0.010,0.000,0.000,0.000
1644926787726579968,2022-02-15-12:06:27,10.1.1.4,19,0.001,0.001,0.001,0.000,0.000,0.000
1644926787786642176,2022-02-15-12:06:27,10.1.1.4,28,-0.010,-0.010,-0.010,0.000,0.000,0.000
1644926787846707200,2022-02-15-12:06:27,10.1.1.4,38,-0.020,-0.020,-0.020,0.000,0.000,0.000
1644926787886183936,2022-02-15-12:06:27,10.1.1.4,27,-0.030,-0.030,-0.030,0.000,0.000,0.000
1644926787946621952,2022-02-15-12:06:27,10.1.1.4,37,-0.040,-0.040,-0.040,0.000,0.000,0.000
1644926787987015936,2022-02-15-12:06:27,10.1.1.4,27,-0.050,-0.050,-0.050,0.000,0.000,0.000
1644926788047591936,2022-02-15-12:06:28,10.1.1.4,36,-0.060,-0.060,-0.060,0.000,0.000,0.000
1644926788087238912,2022-02-15-12:06:28,10.1.1.4,25,-0.070,-0.070,-0.070,0.000,0.000,0.000
1644926788147067136,2022-02-15-12:06:28,10.1.1.4,33,-0.080,-0.080,-0.080,0.000,0.000,0.000
1644926788186614016,2022-02-15-12:06:28,10.1.1.4,22,-0.090,-0.090,-0.090,0.000,0.000,0.000
1644926788246757888,2022-02-15-12:06:28,10.1.1.4,32,-0.100,-0.100,-0.100,0.000,0.000,0.000
1644926788286214144,2022-02-15-12:06:28,10.1.1.4,19,-0.090,-0.090,-0.090,0.000,0.000,0.000
1644926788346906880,2022-02-15-12:06:28,10.1.1.4,29,-0.080,-0.080,-0.080,0.000,0.000,0.000
1644926788406754048,2022-02-15-12:06:28,10.1.1.4,38,-0.070,-0.070,-0.070,0.000,0.000,0.000
1644926788446636032,2022-02-15-12:06:28,10.1.1.4,27,-0.060,-0.060,-0.060,0.000,0.000,0.000
1644926788506321920,2022-02-15-12:06:28,10.1.1.4,36,-0.050,-0.050,-0.050,0.000,0.000,0.000
1644926788547454976,2022-02-15-12:06:28,10.1.1.4,25,-0.040,-0.040,-0.040,0.000,0.000,0.000
1644926788606312960,2022-02-15-12:06:28,10.1.1.4,34,-0.030,-0.030,-0.030,0.000,0.000,0.000
1644926788646446848,2022-02-15-12:06:28,10.1.1.4,23,-0.020,-0.020,-0.020,0.000,0.000,0.000
1644926788706838016,2022-02-15-12:06:28,10.1.1.4,33,-0.010,-0.010,-0.010,0.000,0.000,0.000
1644926788750663168,2022-02-15-12:06:28,10.1.1.4,22,0.000,0.000,0.000,0.000,0.000,0.000
1644926788805913088,2022-02-15-12:06:28,10.1.1.4,30,0.010,0.010,0.010,0.000,0.000,0.000
1644926788867084032,2022-02-15-12:06:28,10.1.1.4,40,0.020,0.020,0.020,0.000,0.000,0.000
1644926788906658048,2022-02-15-12:06:28,10.1.1.4,29,0.030,0.030,0.030,0.000,0.000,0.000
1644926788966238976,2022-02-15-12:06:28,10.1.1.4,37,0.040,0.040,0.040,0.000,0.000,0.000
1644926789006653952,2022-02-15-12:06:29,10.1.1.4,27,0.050,0.050,0.050,0.000,0.000,0.000
1644926789066626048,2022-02-15-12:06:29,10.1.1.4,36,0.060,0.060,0.060,0.000,0.000,0.000
1644926789106702080,2022-02-15-12:06:29,10.1.1.4,26,0.070,0.070,0.070,0.000,0.000,0.000
1644926789166245888,2022-02-15-12:06:29,10.1.1.4,35,0.080,0.080,0.080,0.000,0.000,0.000
1644926789205936896,2022-02-15-12:06:29,10.1.1.4,24,0.090,0.090,0.090,0.000,0.000,0.000
1644926789267059200,2022-02-15-12:06:29,10.1.1.4,34,0.100,0.100,0.100,0.000,0.000,0.000
1644926789306458112,2022-02-15-12:06:29,10.1.1.4,23,0.090,0.090,0.090,0.000,0.000,0.000
1644926789365843968,2022-02-15-12:06:29,10.1.1.4,33,0.080,0.080,0.080,0.000,0.000,0.000
1644926789406644224,2022-02-15-12:06:29,10.1.1.4,22,0.070,0.070,0.070,0.000,0.000,0.000
1644926789466363904,2022-02-15-12:06:29,10.1.1.4,32,0.060,0.060,0.060,0.000,0.000,0.000
1644926789506170880,2022-02-15-12:06:29,10.1.1.4,21,0.050,0.050,0.050,0.000,0.000,0.000
1644926789566509056,2022-02-15-12:06:29,10.1.1.4,31,0.040,0.040,0.040,0.000,0.000,0.000
1644926789606445056,2022-02-15-12:06:29,10.1.1.4,20,0.030,0.030,0.030,0.000,0.000,0.000
1644926789666161152,2022-02-15-12:06:29,10.1.1.4,29,0.020,0.020,0.020,0.000,0.000,0.000
1644926789726615040,2022-02-15-12:06:29,10.1.1.4,38,0.010,0.010,0.010,0.000,0.000,0.000
1644926789768760832,2022-02-15-12:06:29,10.1.1.4,28,0.000,0.000,0.000,0.000,0.000,0.000
1644926789826226944,2022-02-15-12:06:29,10.1.1.4,37,-0.010,-0.010,-0.010,0.000,0.000,0.000
1644926789866242816,2022-02-15-12:06:29,10.1.1.4,27,-0.020,-0.020,-0.020,0.000,0.000,0.000
1644926789926291968,2022-02-15-12:06:29,10.1.1.4,36,-0.030,-0.030,-0.030,0.000,0.000,0.000
1644926789966497792,2022-02-15-12:06:29,10.1.1.4,25,-0.040,-0.040,-0.040,0.000,0.000,0.000
1644926790027657984,2022-02-15-12:06:30,10.1.1.4,34,-0.050,-0.050,-0.050,0.000,0.000,0.000
1644926790067475968,2022-02-15-12:06:30,10.1.1.4,23,-0.060,-0.060,-0.060,0.000,0.000,0.000
1644926790126141952,2022-02-15-12:06:30,10.1.1.4,33,-0.070,-0.070,-0.070,0.000,0.000,0.000
1644926790166043904,2022-02-15-12:06:30,10.1.1.4,22,-0.080,-0.080,-0.080,0.000,0.000,0.000
1644926790226205952,2022-02-15-12:06:30,10.1.1.4,30,-0.090,-0.090,-0.090,0.000,0.000,0.000
1644926790267151104,2022-02-15-12:06:30,10.1.1.4,19,-0.100,-0.100,-0.100,0.000,0.000,0.000
1644926790326672128,2022-02-15-12:06:30,10.1.1.4,28,-0.090,-0.090,-0.090,0.000,0.000,0.000
1644926790386471936,2022-02-15-12:06:30,10.1.1.4,38,-0.080,-0.080,-0.080,0.000,0.000,0.000
1644926790426265856,2022-02-15-12:06:30,10.1.1.4,27,-0.070,-0.070,-0.070,0.000,0.000,0.000
