FedericoMungari/DigitalTwin_service/01_WiredScenario/Output/Output_script/script_rosapi_2_output_robots10_freq0_7.txt
timestamp,date,node,latency,joint_1,joint_2,joint_3,joint_4,joint_5,joint_6
1644926756759421952,2022-02-15-12:05:56,10.1.1.8,0,-0.100,-0.100,-0.100,-0.000,-0.000,0.000
1644926756840065024,2022-02-15-12:05:56,10.1.1.8,28,-0.090,-0.090,-0.090,0.000,0.000,0.000
1644926756900078080,2022-02-15-12:05:56,10.1.1.8,37,-0.080,-0.080,-0.080,0.000,0.000,0.000
1644926756940233984,2022-02-15-12:05:56,10.1.1.8,27,-0.070,-0.070,-0.070,0.000,0.000,0.000
1644926756999654144,2022-02-15-12:05:56,10.1.1.8,36,-0.060,-0.060,-0.060,0.000,0.000,0.000
1644926757039545088,2022-02-15-12:05:57,10.1.1.8,26,-0.050,-0.050,-0.050,0.000,0.000,0.000
1644926757099590144,2022-02-15-12:05:57,10.1.1.8,35,-0.040,-0.040,-0.040,0.000,0.000,0.000
1644926757140060928,2022-02-15-12:05:57,10.1.1.8,24,-0.030,-0.030,-0.030,0.000,0.000,0.000
1644926757200084992,2022-02-15-12:05:57,10.1.1.8,33,-0.020,-0.020,-0.020,0.000,0.000,0.000
1644926757240080128,2022-02-15-12:05:57,10.1.1.8,23,-0.010,-0.010,-0.010,0.000,0.000,0.000
1644926757299868160,2022-02-15-12:05:57,10.1.1.8,33,0.000,0.000,0.000,0.000,0.000,0.000
1644926757340524032,2022-02-15-12:05:57,10.1.1.8,22,0.010,0.010,0.010,0.000,0.000,0.000
1644926757400290048,2022-02-15-12:05:57,10.1.1.8,31,0.020,0.020,0.020,0.000,0.000,0.000
1644926757439625984,2022-02-15-12:05:57,10.1.1.8,21,0.030,0.030,0.030,0.000,0.000,0.000
1644926757499876864,2022-02-15-12:05:57,10.1.1.8,30,0.040,0.040,0.040,0.000,0.000,0.000
1644926757559719936,2022-02-15-12:05:57,10.1.1.8,38,0.050,0.050,0.050,0.000,0.000,0.000
1644926757599712000,2022-02-15-12:05:57,10.1.1.8,28,0.060,0.060,0.060,0.000,0.000,0.000
1644926757659473920,2022-02-15-12:05:57,10.1.1.8,37,0.070,0.070,0.070,0.000,0.000,0.000
1644926757699672832,2022-02-15-12:05:57,10.1.1.8,27,0.080,0.080,0.080,0.000,0.000,0.000
1644926757759691008,2022-02-15-12:05:57,10.1.1.8,36,0.090,0.090,0.090,0.000,0.000,0.000
1644926757799516928,2022-02-15-12:05:57,10.1.1.8,24,0.100,0.100,0.100,0.000,0.000,0.000
1644926757859533056,2022-02-15-12:05:57,10.1.1.8,33,0.090,0.090,0.090,0.000,0.000,0.000
1644926757899697152,2022-02-15-12:05:57,10.1.1.8,21,0.080,0.080,0.080,0.000,0.000,0.000
1644926757959613952,2022-02-15-12:05:57,10.1.1.8,31,0.070,0.070,0.070,0.000,0.000,0.000
1644926757999553024,2022-02-15-12:05:57,10.1.1.8,20,0.060,0.060,0.060,0.000,0.000,0.000
1644926758059634944,2022-02-15-12:05:58,10.1.1.8,28,0.050,0.050,0.050,0.000,0.000,0.000
1644926758119190016,2022-02-15-12:05:58,10.1.1.8,37,0.040,0.040,0.040,0.000,0.000,0.000
1644926758159857920,2022-02-15-12:05:58,10.1.1.8,26,0.030,0.030,0.030,0.000,0.000,0.000
1644926758219983104,2022-02-15-12:05:58,10.1.1.8,35,0.020,0.020,0.020,0.000,0.000,0.000
1644926758259046912,2022-02-15-12:05:58,10.1.1.8,24,0.010,0.010,0.010,0.000,0.000,0.000
1644926758320247040,2022-02-15-12:05:58,10.1.1.8,33,0.000,0.000,0.000,0.000,0.000,0.000
1644926758359909888,2022-02-15-12:05:58,10.1.1.8,23,-0.010,-0.010,-0.010,0.000,0.000,0.000
1644926758419250944,2022-02-15-12:05:58,10.1.1.8,32,-0.020,-0.020,-0.020,0.000,0.000,0.000
1644926758459671040,2022-02-15-12:05:58,10.1.1.8,21,-0.030,-0.030,-0.030,0.000,0.000,0.000
1644926758520463872,2022-02-15-12:05:58,10.1.1.8,30,-0.040,-0.040,-0.040,0.000,0.000,0.000
1644926758559555072,2022-02-15-12:05:58,10.1.1.8,20,-0.050,-0.050,-0.050,0.000,0.000,0.000
1644926758619406848,2022-02-15-12:05:58,10.1.1.8,28,-0.060,-0.060,-0.060,0.000,0.000,0.000
1644926758679512064,2022-02-15-12:05:58,10.1.1.8,37,-0.070,-0.070,-0.070,0.000,0.000,0.000
1644926758719714048,2022-02-15-12:05:58,10.1.1.8,27,-0.080,-0.080,-0.080,0.000,0.000,0.000
1644926758779931904,2022-02-15-12:05:58,10.1.1.8,36,-0.090,-0.090,-0.090,0.000,0.000,0.000
1644926758819305984,2022-02-15-12:05:58,10.1.1.8,25,-0.100,-0.100,-0.100,0.000,0.000,0.000
1644926758879699968,2022-02-15-12:05:58,10.1.1.8,35,-0.090,-0.090,-0.090,0.000,0.000,0.000
1644926758919596800,2022-02-15-12:05:58,10.1.1.8,24,-0.080,-0.080,-0.080,0.000,0.000,0.000
1644926758980776960,2022-02-15-12:05:58,10.1.1.8,34,-0.070,-0.070,-0.070,0.000,0.000,0.000
1644926759021028096,2022-02-15-12:05:59,10.1.1.8,23,-0.060,-0.060,-0.060,0.000,0.000,0.000
1644926759079894016,2022-02-15-12:05:59,10.1.1.8,33,-0.050,-0.050,-0.050,0.000,0.000,0.000
1644926759119538176,2022-02-15-12:05:59,10.1.1.8,22,-0.040,-0.040,-0.040,0.000,0.000,0.000
1644926759179693056,2022-02-15-12:05:59,10.1.1.8,31,-0.030,-0.030,-0.030,0.000,0.000,0.000
1644926759219846912,2022-02-15-12:05:59,10.1.1.8,21,-0.020,-0.020,-0.020,0.000,0.000,0.000
1644926759279186944,2022-02-15-12:05:59,10.1.1.8,29,-0.010,-0.010,-0.010,0.000,0.000,0.000
1644926759339593984,2022-02-15-12:05:59,10.1.1.8,38,0.000,0.000,0.000,0.000,0.000,0.000
1644926759379177216,2022-02-15-12:05:59,10.1.1.8,28,0.010,0.010,0.010,0.000,0.000,0.000
1644926759440167936,2022-02-15-12:05:59,10.1.1.8,37,0.020,0.020,0.020,0.000,0.000,0.000
1644926759480320000,2022-02-15-12:05:59,10.1.1.8,26,0.030,0.030,0.030,0.000,0.000,0.000
1644926759539733760,2022-02-15-12:05:59,10.1.1.8,36,0.040,0.040,0.040,0.000,0.000,0.000
1644926759579486976,2022-02-15-12:05:59,10.1.1.8,25,0.050,0.050,0.050,0.000,0.000,0.000
1644926759644603904,2022-02-15-12:05:59,10.1.1.8,34,0.060,0.060,0.060,0.000,0.000,0.000
1644926759706967040,2022-02-15-12:05:59,10.1.1.8,36,0.070,0.070,0.070,0.000,0.000,0.000
1644926759740660992,2022-02-15-12:05:59,10.1.1.8,23,0.080,0.080,0.080,0.000,0.000,0.000
1644926759799513088,2022-02-15-12:05:59,10.1.1.8,32,0.090,0.090,0.090,0.000,0.000,0.000
1644926759840233984,2022-02-15-12:05:59,10.1.1.8,21,0.100,0.100,0.100,0.000,0.000,0.000
1644926759901197824,2022-02-15-12:05:59,10.1.1.8,30,0.090,0.090,0.090,0.000,0.000,0.000
1644926759940880128,2022-02-15-12:05:59,10.1.1.8,20,0.080,0.080,0.080,0.000,0.000,0.000
1644926760000348928,2022-02-15-12:06:00,10.1.1.8,29,0.070,0.070,0.070,0.000,0.000,0.000
1644926760040188928,2022-02-15-12:06:00,10.1.1.8,18,0.061,0.061,0.061,0.000,0.000,0.000
1644926760100173824,2022-02-15-12:06:00,10.1.1.8,28,0.050,0.050,0.050,0.000,0.000,0.000
1644926760160162048,2022-02-15-12:06:00,10.1.1.8,32,0.040,0.040,0.040,0.000,0.000,0.000
1644926760199718912,2022-02-15-12:06:00,10.1.1.8,20,0.030,0.030,0.030,0.000,0.000,0.000
1644926760259922944,2022-02-15-12:06:00,10.1.1.8,29,0.020,0.020,0.020,0.000,0.000,0.000
1644926760321945856,2022-02-15-12:06:00,10.1.1.8,38,0.010,0.010,0.010,0.000,0.000,0.000
1644926760359354880,2022-02-15-12:06:00,10.1.1.8,28,0.000,0.000,0.000,0.000,0.000,0.000
1644926760419923968,2022-02-15-12:06:00,10.1.1.8,37,-0.010,-0.010,-0.010,0.000,0.000,0.000
1644926760459311872,2022-02-15-12:06:00,10.1.1.8,26,-0.020,-0.020,-0.020,0.000,0.000,0.000
1644926760519603968,2022-02-15-12:06:00,10.1.1.8,35,-0.030,-0.030,-0.030,0.000,0.000,0.000
1644926760559844864,2022-02-15-12:06:00,10.1.1.8,24,-0.040,-0.040,-0.040,0.000,0.000,0.000
1644926760619486208,2022-02-15-12:06:00,10.1.1.8,34,-0.050,-0.050,-0.050,0.000,0.000,0.000
1644926760660229888,2022-02-15-12:06:00,10.1.1.8,23,-0.060,-0.060,-0.060,0.000,0.000,0.000
1644926760719703040,2022-02-15-12:06:00,10.1.1.8,32,-0.070,-0.070,-0.070,0.000,0.000,0.000
1644926760759310848,2022-02-15-12:06:00,10.1.1.8,21,-0.080,-0.080,-0.080,0.000,0.000,0.000
1644926760820329984,2022-02-15-12:06:00,10.1.1.8,30,-0.090,-0.090,-0.090,0.000,0.000,0.000
1644926760859088896,2022-02-15-12:06:00,10.1.1.8,19,-0.100,-0.100,-0.100,0.000,0.000,0.000
1644926760919789056,2022-02-15-12:06:00,10.1.1.8,29,-0.090,-0.090,-0.090,0.000,0.000,0.000
1644926760979410944,2022-02-15-12:06:00,10.1.1.8,38,-0.080,-0.080,-0.080,0.000,0.000,0.000
1644926761019351040,2022-02-15-12:06:01,10.1.1.8,28,-0.070,-0.070,-0.070,0.000,0.000,0.000
1644926761079768064,2022-02-15-12:06:01,10.1.1.8,37,-0.060,-0.060,-0.060,0.000,0.000,0.000
1644926761119715840,2022-02-15-12:06:01,10.1.1.8,27,-0.050,-0.050,-0.050,0.000,0.000,0.000
1644926761179908864,2022-02-15-12:06:01,10.1.1.8,37,-0.040,-0.040,-0.040,0.000,0.000,0.000
1644926761219299072,2022-02-15-12:06:01,10.1.1.8,26,-0.030,-0.030,-0.030,0.000,0.000,0.000
1644926761279068928,2022-02-15-12:06:01,10.1.1.8,35,-0.020,-0.020,-0.020,0.000,0.000,0.000
1644926761320131072,2022-02-15-12:06:01,10.1.1.8,25,-0.010,-0.010,-0.010,0.000,0.000,0.000
1644926761379213056,2022-02-15-12:06:01,10.1.1.8,34,0.000,0.000,0.000,0.000,0.000,0.000
1644926761419277056,2022-02-15-12:06:01,10.1.1.8,24,0.010,0.010,0.010,0.000,0.000,0.000
1644926761479432960,2022-02-15-12:06:01,10.1.1.8,33,0.020,0.020,0.020,0.000,0.000,0.000
1644926761519686912,2022-02-15-12:06:01,10.1.1.8,23,0.030,0.030,0.030,0.000,0.000,0.000
1644926761579854080,2022-02-15-12:06:01,10.1.1.8,32,0.040,0.040,0.040,0.000,0.000,0.000
1644926761619529984,2022-02-15-12:06:01,10.1.1.8,20,0.050,0.050,0.050,0.000,0.000,0.000
1644926761680019968,2022-02-15-12:06:01,10.1.1.8,30,0.060,0.060,0.060,0.000,0.000,0.000
1644926761720041984,2022-02-15-12:06:01,10.1.1.8,20,0.070,0.070,0.070,0.000,0.000,0.000
1644926761779414016,2022-02-15-12:06:01,10.1.1.8,29,0.080,0.080,0.080,0.000,0.000,0.000
1644926761820481024,2022-02-15-12:06:01,10.1.1.8,19,0.089,0.089,0.089,0.000,0.000,0.000
1644926761879527936,2022-02-15-12:06:01,10.1.1.8,28,0.100,0.100,0.100,0.000,0.000,0.000
1644926761940110080,2022-02-15-12:06:01,10.1.1.8,37,0.090,0.090,0.090,0.000,0.000,0.000
1644926761979969024,2022-02-15-12:06:01,10.1.1.8,26,0.080,0.080,0.080,0.000,0.000,0.000
1644926762039335936,2022-02-15-12:06:02,10.1.1.8,35,0.070,0.070,0.070,0.000,0.000,0.000
1644926762079641088,2022-02-15-12:06:02,10.1.1.8,24,0.060,0.060,0.060,0.000,0.000,0.000
1644926762140414976,2022-02-15-12:06:02,10.1.1.8,34,0.050,0.050,0.050,0.000,0.000,0.000
1644926762180015104,2022-02-15-12:06:02,10.1.1.8,24,0.040,0.040,0.040,0.000,0.000,0.000
1644926762240497152,2022-02-15-12:06:02,10.1.1.8,32,0.030,0.030,0.030,0.000,0.000,0.000
1644926762279512832,2022-02-15-12:06:02,10.1.1.8,21,0.020,0.020,0.020,0.000,0.000,0.000
1644926762339553024,2022-02-15-12:06:02,10.1.1.8,30,0.010,0.010,0.010,0.000,0.000,0.000
1644926762379973888,2022-02-15-12:06:02,10.1.1.8,20,0.000,0.000,0.000,0.000,0.000,0.000
1644926762439665152,2022-02-15-12:06:02,10.1.1.8,28,-0.010,-0.010,-0.010,0.000,0.000,0.000
1644926762499078144,2022-02-15-12:06:02,10.1.1.8,38,-0.020,-0.020,-0.020,0.000,0.000,0.000
1644926762539820800,2022-02-15-12:06:02,10.1.1.8,27,-0.030,-0.030,-0.030,0.000,0.000,0.000
1644926762599843072,2022-02-15-12:06:02,10.1.1.8,37,-0.040,-0.040,-0.040,0.000,0.000,0.000
1644926762639524864,2022-02-15-12:06:02,10.1.1.8,26,-0.050,-0.050,-0.050,0.000,0.000,0.000
1644926762700332032,2022-02-15-12:06:02,10.1.1.8,35,-0.060,-0.060,-0.060,0.000,0.000,0.000
1644926762741586944,2022-02-15-12:06:02,10.1.1.8,25,-0.070,-0.070,-0.070,0.000,0.000,0.000
1644926762801968128,2022-02-15-12:06:02,10.1.1.8,34,-0.080,-0.080,-0.080,0.000,0.000,0.000
1644926762880366080,2022-02-15-12:06:02,10.1.1.8,36,-0.090,-0.090,-0.090,0.000,0.000,0.000
1644926762920349952,2022-02-15-12:06:02,10.1.1.8,25,-0.100,-0.100,-0.100,0.000,0.000,0.000
1644926762980037888,2022-02-15-12:06:02,10.1.1.8,34,-0.090,-0.090,-0.090,0.000,0.000,0.000
1644926763019692032,2022-02-15-12:06:03,10.1.1.8,23,-0.080,-0.080,-0.080,0.000,0.000,0.000
1644926763080250112,2022-02-15-12:06:03,10.1.1.8,32,-0.070,-0.070,-0.070,0.000,0.000,0.000
1644926763119465984,2022-02-15-12:06:03,10.1.1.8,22,-0.060,-0.060,-0.060,0.000,0.000,0.000
1644926763180030208,2022-02-15-12:06:03,10.1.1.8,29,-0.050,-0.050,-0.050,0.000,0.000,0.000
1644926763239238912,2022-02-15-12:06:03,10.1.1.8,37,-0.040,-0.040,-0.040,0.000,0.000,0.000
1644926763279578880,2022-02-15-12:06:03,10.1.1.8,26,-0.030,-0.030,-0.030,0.000,0.000,0.000
1644926763339976960,2022-02-15-12:06:03,10.1.1.8,35,-0.020,-0.020,-0.020,0.000,0.000,0.000
1644926763379809024,2022-02-15-12:06:03,10.1.1.8,24,-0.010,-0.010,-0.010,0.000,0.000,0.000
1644926763439776000,2022-02-15-12:06:03,10.1.1.8,34,0.000,0.000,0.000,0.000,0.000,0.000
1644926763479451904,2022-02-15-12:06:03,10.1.1.8,22,0.010,0.010,0.010,0.000,0.000,0.000
1644926763539422976,2022-02-15-12:06:03,10.1.1.8,32,0.020,0.020,0.020,0.000,0.000,0.000
1644926763579305984,2022-02-15-12:06:03,10.1.1.8,21,0.030,0.030,0.030,0.000,0.000,0.000
1644926763640357888,2022-02-15-12:06:03,10.1.1.8,31,0.040,0.040,0.040,0.000,0.000,0.000
1644926763698953984,2022-02-15-12:06:03,10.1.1.8,38,0.050,0.050,0.050,0.000,0.000,0.000
1644926763740003072,2022-02-15-12:06:03,10.1.1.8,27,0.060,0.060,0.060,0.000,0.000,0.000
1644926763799671040,2022-02-15-12:06:03,10.1.1.8,36,0.070,0.070,0.070,0.000,0.000,0.000
1644926763839747072,2022-02-15-12:06:03,10.1.1.8,26,0.080,0.080,0.080,0.000,0.000,0.000
1644926763900180992,2022-02-15-12:06:03,10.1.1.8,36,0.090,0.090,0.090,0.000,0.000,0.000
1644926763940390144,2022-02-15-12:06:03,10.1.1.8,25,0.100,0.100,0.100,0.000,0.000,0.000
1644926763999258112,2022-02-15-12:06:03,10.1.1.8,34,0.090,0.090,0.090,0.000,0.000,0.000
1644926764039664896,2022-02-15-12:06:04,10.1.1.8,24,0.080,0.080,0.080,0.000,0.000,0.000
1644926764100126976,2022-02-15-12:06:04,10.1.1.8,33,0.070,0.070,0.070,0.000,0.000,0.000
1644926764140227072,2022-02-15-12:06:04,10.1.1.8,23,0.060,0.060,0.060,0.000,0.000,0.000
1644926764199821824,2022-02-15-12:06:04,10.1.1.8,32,0.050,0.050,0.050,0.000,0.000,0.000
1644926764239804928,2022-02-15-12:06:04,10.1.1.8,21,0.040,0.040,0.040,0.000,0.000,0.000
1644926764299433984,2022-02-15-12:06:04,10.1.1.8,30,0.030,0.030,0.030,0.000,0.000,0.000
1644926764342505984,2022-02-15-12:06:04,10.1.1.8,20,0.020,0.020,0.020,0.000,0.000,0.000
1644926764400027904,2022-02-15-12:06:04,10.1.1.8,28,0.010,0.010,0.010,0.000,0.000,0.000
1644926764459824128,2022-02-15-12:06:04,10.1.1.8,38,0.000,0.000,0.000,0.000,0.000,0.000
1644926764499352832,2022-02-15-12:06:04,10.1.1.8,27,-0.010,-0.010,-0.010,0.000,0.000,0.000
1644926764559035904,2022-02-15-12:06:04,10.1.1.8,36,-0.020,-0.020,-0.020,0.000,0.000,0.000
1644926764599837952,2022-02-15-12:06:04,10.1.1.8,26,-0.030,-0.030,-0.030,0.000,0.000,0.000
1644926764659075072,2022-02-15-12:06:04,10.1.1.8,35,-0.040,-0.040,-0.040,0.000,0.000,0.000
1644926764699517952,2022-02-15-12:06:04,10.1.1.8,25,-0.050,-0.050,-0.050,0.000,0.000,0.000
1644926764759894016,2022-02-15-12:06:04,10.1.1.8,34,-0.060,-0.060,-0.060,0.000,0.000,0.000
1644926764800442880,2022-02-15-12:06:04,10.1.1.8,24,-0.070,-0.070,-0.070,0.000,0.000,0.000
1644926764859563008,2022-02-15-12:06:04,10.1.1.8,31,-0.080,-0.080,-0.080,0.000,0.000,0.000
1644926764899714048,2022-02-15-12:06:04,10.1.1.8,21,-0.090,-0.090,-0.090,0.000,0.000,0.000
1644926764959752192,2022-02-15-12:06:04,10.1.1.8,30,-0.100,-0.100,-0.100,0.000,0.000,0.000
1644926764999810048,2022-02-15-12:06:04,10.1.1.8,19,-0.090,-0.090,-0.090,0.000,0.000,0.000
1644926765059933952,2022-02-15-12:06:05,10.1.1.8,29,-0.080,-0.080,-0.080,0.000,0.000,0.000
1644926765119678976,2022-02-15-12:06:05,10.1.1.8,38,-0.070,-0.070,-0.070,0.000,0.000,0.000
1644926765159169792,2022-02-15-12:06:05,10.1.1.8,28,-0.060,-0.060,-0.060,0.000,0.000,0.000
1644926765220147968,2022-02-15-12:06:05,10.1.1.8,37,-0.050,-0.050,-0.050,0.000,0.000,0.000
1644926765259366144,2022-02-15-12:06:05,10.1.1.8,27,-0.040,-0.040,-0.040,0.000,0.000,0.000
1644926765320048128,2022-02-15-12:06:05,10.1.1.8,36,-0.030,-0.030,-0.030,0.000,0.000,0.000
1644926765360214016,2022-02-15-12:06:05,10.1.1.8,25,-0.020,-0.020,-0.020,0.000,0.000,0.000
1644926765419686144,2022-02-15-12:06:05,10.1.1.8,34,-0.010,-0.010,-0.010,0.000,0.000,0.000
1644926765461101056,2022-02-15-12:06:05,10.1.1.8,23,0.000,0.000,0.000,0.000,0.000,0.000
1644926765519453952,2022-02-15-12:06:05,10.1.1.8,33,0.010,0.010,0.010,0.000,0.000,0.000
1644926765559745024,2022-02-15-12:06:05,10.1.1.8,22,0.020,0.020,0.020,0.000,0.000,0.000
1644926765619809024,2022-02-15-12:06:05,10.1.1.8,31,0.030,0.030,0.030,0.000,0.000,0.000
1644926765659545856,2022-02-15-12:06:05,10.1.1.8,20,0.040,0.040,0.040,0.000,0.000,0.000
1644926765719153920,2022-02-15-12:06:05,10.1.1.8,29,0.050,0.050,0.050,0.000,0.000,0.000
1644926765779057920,2022-02-15-12:06:05,10.1.1.8,38,0.060,0.060,0.060,0.000,0.000,0.000
1644926765819930112,2022-02-15-12:06:05,10.1.1.8,27,0.070,0.070,0.070,0.000,0.000,0.000
1644926765879450112,2022-02-15-12:06:05,10.1.1.8,36,0.080,0.080,0.080,0.000,0.000,0.000
1644926765919837952,2022-02-15-12:06:05,10.1.1.8,26,0.090,0.090,0.090,0.000,0.000,0.000
1644926765980418048,2022-02-15-12:06:05,10.1.1.8,35,0.100,0.100,0.100,0.000,0.000,0.000
1644926766019704064,2022-02-15-12:06:06,10.1.1.8,24,0.090,0.090,0.090,0.000,0.000,0.000
1644926766079764992,2022-02-15-12:06:06,10.1.1.8,33,0.080,0.080,0.080,0.000,0.000,0.000
1644926766119699968,2022-02-15-12:06:06,10.1.1.8,23,0.070,0.070,0.070,0.000,0.000,0.000
1644926766179469056,2022-02-15-12:06:06,10.1.1.8,32,0.060,0.060,0.060,0.000,0.000,0.000
1644926766219649024,2022-02-15-12:06:06,10.1.1.8,21,0.050,0.050,0.050,0.000,0.000,0.000
1644926766279652096,2022-02-15-12:06:06,10.1.1.8,30,0.040,0.040,0.040,0.000,0.000,0.000
1644926766319714048,2022-02-15-12:06:06,10.1.1.8,19,0.030,0.030,0.030,0.000,0.000,0.000
1644926766379832064,2022-02-15-12:06:06,10.1.1.8,28,0.020,0.020,0.020,0.000,0.000,0.000
1644926766439868928,2022-02-15-12:06:06,10.1.1.8,38,0.010,0.010,0.010,0.000,0.000,0.000
1644926766479271936,2022-02-15-12:06:06,10.1.1.8,27,0.000,0.000,0.000,0.000,0.000,0.000
1644926766539820800,2022-02-15-12:06:06,10.1.1.8,36,-0.010,-0.010,-0.010,0.000,0.000,0.000
1644926766579261184,2022-02-15-12:06:06,10.1.1.8,26,-0.020,-0.020,-0.020,0.000,0.000,0.000
1644926766640008960,2022-02-15-12:06:06,10.1.1.8,35,-0.030,-0.030,-0.030,0.000,0.000,0.000
1644926766679685120,2022-02-15-12:06:06,10.1.1.8,25,-0.040,-0.040,-0.040,0.000,0.000,0.000
1644926766740001792,2022-02-15-12:06:06,10.1.1.8,34,-0.050,-0.050,-0.050,0.000,0.000,0.000
1644926766779763968,2022-02-15-12:06:06,10.1.1.8,24,-0.060,-0.060,-0.060,0.000,0.000,0.000
1644926766839368960,2022-02-15-12:06:06,10.1.1.8,32,-0.070,-0.070,-0.070,0.000,0.000,0.000
1644926766879988992,2022-02-15-12:06:06,10.1.1.8,22,-0.080,-0.080,-0.080,0.000,0.000,0.000
1644926766940257024,2022-02-15-12:06:06,10.1.1.8,32,-0.090,-0.090,-0.090,0.000,0.000,0.000
1644926766979291904,2022-02-15-12:06:06,10.1.1.8,21,-0.100,-0.100,-0.100,0.000,0.000,0.000
1644926767040785920,2022-02-15-12:06:07,10.1.1.8,30,-0.090,-0.090,-0.090,0.000,0.000,0.000
1644926767080226048,2022-02-15-12:06:07,10.1.1.8,19,-0.081,-0.081,-0.081,0.000,0.000,0.000
1644926767139792896,2022-02-15-12:06:07,10.1.1.8,28,-0.070,-0.070,-0.070,0.000,0.000,0.000
1644926767199536128,2022-02-15-12:06:07,10.1.1.8,37,-0.060,-0.060,-0.060,0.000,0.000,0.000
1644926767240444928,2022-02-15-12:06:07,10.1.1.8,26,-0.050,-0.050,-0.050,0.000,0.000,0.000
1644926767359325952,2022-02-15-12:06:07,10.1.1.8,26,-0.030,-0.030,-0.030,0.000,0.000,0.000
1644926767421613824,2022-02-15-12:06:07,10.1.1.8,35,-0.020,-0.020,-0.020,0.000,0.000,0.000
1644926767460093952,2022-02-15-12:06:07,10.1.1.8,24,-0.010,-0.010,-0.010,0.000,0.000,0.000
1644926767519143936,2022-02-15-12:06:07,10.1.1.8,33,0.000,0.000,0.000,0.000,0.000,0.000
1644926767559484928,2022-02-15-12:06:07,10.1.1.8,23,0.010,0.010,0.010,0.000,0.000,0.000
1644926767619326208,2022-02-15-12:06:07,10.1.1.8,32,0.020,0.020,0.020,0.000,0.000,0.000
1644926767659600896,2022-02-15-12:06:07,10.1.1.8,21,0.030,0.030,0.030,0.000,0.000,0.000
1644926767719217920,2022-02-15-12:06:07,10.1.1.8,31,0.040,0.040,0.040,0.000,0.000,0.000
1644926767759623936,2022-02-15-12:06:07,10.1.1.8,20,0.050,0.050,0.050,0.000,0.000,0.000
1644926767819873024,2022-02-15-12:06:07,10.1.1.8,28,0.060,0.060,0.060,0.000,0.000,0.000
1644926767879781888,2022-02-15-12:06:07,10.1.1.8,38,0.070,0.070,0.070,0.000,0.000,0.000
1644926767919738112,2022-02-15-12:06:07,10.1.1.8,27,0.080,0.080,0.080,0.000,0.000,0.000
1644926767979798016,2022-02-15-12:06:07,10.1.1.8,36,0.090,0.090,0.090,0.000,0.000,0.000
1644926768019117056,2022-02-15-12:06:08,10.1.1.8,26,0.100,0.100,0.100,0.000,0.000,0.000
1644926768079938816,2022-02-15-12:06:08,10.1.1.8,35,0.090,0.090,0.090,0.000,0.000,0.000
1644926768119401984,2022-02-15-12:06:08,10.1.1.8,24,0.080,0.080,0.080,0.000,0.000,0.000
1644926768179719936,2022-02-15-12:06:08,10.1.1.8,33,0.070,0.070,0.070,0.000,0.000,0.000
1644926768220254976,2022-02-15-12:06:08,10.1.1.8,22,0.060,0.060,0.060,0.000,0.000,0.000
1644926768279449088,2022-02-15-12:06:08,10.1.1.8,32,0.050,0.050,0.050,0.000,0.000,0.000
1644926768320455168,2022-02-15-12:06:08,10.1.1.8,21,0.040,0.040,0.040,0.000,0.000,0.000
1644926768379368960,2022-02-15-12:06:08,10.1.1.8,30,0.030,0.030,0.030,0.000,0.000,0.000
1644926768420218880,2022-02-15-12:06:08,10.1.1.8,19,0.020,0.020,0.020,0.000,0.000,0.000
1644926768479728896,2022-02-15-12:06:08,10.1.1.8,29,0.010,0.010,0.010,0.000,0.000,0.000
1644926768540084992,2022-02-15-12:06:08,10.1.1.8,38,0.000,0.000,0.000,0.000,0.000,0.000
1644926768579642112,2022-02-15-12:06:08,10.1.1.8,27,-0.010,-0.010,-0.010,0.000,0.000,0.000
1644926768639640064,2022-02-15-12:06:08,10.1.1.8,37,-0.020,-0.020,-0.020,0.000,0.000,0.000
1644926768679406848,2022-02-15-12:06:08,10.1.1.8,26,-0.030,-0.030,-0.030,0.000,0.000,0.000
1644926768740641024,2022-02-15-12:06:08,10.1.1.8,35,-0.040,-0.040,-0.040,0.000,0.000,0.000
1644926768779373824,2022-02-15-12:06:08,10.1.1.8,25,-0.050,-0.050,-0.050,0.000,0.000,0.000
1644926768839994880,2022-02-15-12:06:08,10.1.1.8,34,-0.060,-0.060,-0.060,0.000,0.000,0.000
1644926768879563008,2022-02-15-12:06:08,10.1.1.8,23,-0.070,-0.070,-0.070,0.000,0.000,0.000
1644926768939428096,2022-02-15-12:06:08,10.1.1.8,33,-0.080,-0.080,-0.080,0.000,0.000,0.000
1644926768979955968,2022-02-15-12:06:08,10.1.1.8,22,-0.090,-0.090,-0.090,0.000,0.000,0.000
1644926769039983104,2022-02-15-12:06:09,10.1.1.8,32,-0.100,-0.100,-0.100,0.000,0.000,0.000
1644926769080268032,2022-02-15-12:06:09,10.1.1.8,21,-0.090,-0.090,-0.090,0.000,0.000,0.000
1644926769142721792,2022-02-15-12:06:09,10.1.1.8,30,-0.080,-0.080,-0.080,0.000,0.000,0.000
1644926769181307904,2022-02-15-12:06:09,10.1.1.8,19,-0.071,-0.071,-0.071,0.000,0.000,0.000
1644926769240210176,2022-02-15-12:06:09,10.1.1.8,28,-0.060,-0.060,-0.060,0.000,0.000,0.000
1644926769299664128,2022-02-15-12:06:09,10.1.1.8,36,-0.050,-0.050,-0.050,0.000,0.000,0.000
1644926769340296960,2022-02-15-12:06:09,10.1.1.8,26,-0.040,-0.040,-0.040,0.000,0.000,0.000
1644926769399280128,2022-02-15-12:06:09,10.1.1.8,35,-0.030,-0.030,-0.030,0.000,0.000,0.000
1644926769439565824,2022-02-15-12:06:09,10.1.1.8,24,-0.020,-0.020,-0.020,0.000,0.000,0.000
1644926769499725056,2022-02-15-12:06:09,10.1.1.8,33,-0.010,-0.010,-0.010,0.000,0.000,0.000
1644926769542630912,2022-02-15-12:06:09,10.1.1.8,23,0.000,0.000,0.000,0.000,0.000,0.000
1644926769599567872,2022-02-15-12:06:09,10.1.1.8,33,0.010,0.010,0.010,0.000,0.000,0.000
1644926769641835008,2022-02-15-12:06:09,10.1.1.8,22,0.020,0.020,0.020,0.000,0.000,0.000
1644926769699630080,2022-02-15-12:06:09,10.1.1.8,31,0.030,0.030,0.030,0.000,0.000,0.000
1644926769739603968,2022-02-15-12:06:09,10.1.1.8,20,0.040,0.040,0.040,0.000,0.000,0.000
1644926769799746048,2022-02-15-12:06:09,10.1.1.8,29,0.050,0.050,0.050,0.000,0.000,0.000
1644926769840135168,2022-02-15-12:06:09,10.1.1.8,19,0.059,0.059,0.059,0.000,0.000,0.000
1644926769899385088,2022-02-15-12:06:09,10.1.1.8,28,0.070,0.070,0.070,0.000,0.000,0.000
1644926769959368960,2022-02-15-12:06:09,10.1.1.8,38,0.080,0.080,0.080,0.000,0.000,0.000
1644926769999876096,2022-02-15-12:06:09,10.1.1.8,27,0.090,0.090,0.090,0.000,0.000,0.000
1644926770059494144,2022-02-15-12:06:10,10.1.1.8,35,0.100,0.100,0.100,0.000,0.000,0.000
1644926770099950080,2022-02-15-12:06:10,10.1.1.8,25,0.090,0.090,0.090,0.000,0.000,0.000
1644926770160391168,2022-02-15-12:06:10,10.1.1.8,32,0.080,0.080,0.080,0.000,0.000,0.000
1644926770199809024,2022-02-15-12:06:10,10.1.1.8,20,0.070,0.070,0.070,0.000,0.000,0.000
1644926770339616000,2022-02-15-12:06:10,10.1.1.8,23,0.050,0.050,0.050,0.000,0.000,0.000
1644926770380527872,2022-02-15-12:06:10,10.1.1.8,32,0.040,0.040,0.040,0.000,0.000,0.000
1644926770420681984,2022-02-15-12:06:10,10.1.1.8,21,0.030,0.030,0.030,0.000,0.000,0.000
1644926770479535104,2022-02-15-12:06:10,10.1.1.8,31,0.020,0.020,0.020,0.000,0.000,0.000
1644926770520209152,2022-02-15-12:06:10,10.1.1.8,20,0.010,0.010,0.010,0.000,0.000,0.000
1644926770579740928,2022-02-15-12:06:10,10.1.1.8,29,0.000,0.000,0.000,0.000,0.000,0.000
1644926770620248064,2022-02-15-12:06:10,10.1.1.8,19,-0.009,-0.009,-0.009,0.000,0.000,0.000
1644926770679503872,2022-02-15-12:06:10,10.1.1.8,28,-0.020,-0.020,-0.020,0.000,0.000,0.000
1644926770741144832,2022-02-15-12:06:10,10.1.1.8,38,-0.030,-0.030,-0.030,0.000,0.000,0.000
1644926770779869184,2022-02-15-12:06:10,10.1.1.8,27,-0.040,-0.040,-0.040,0.000,0.000,0.000
1644926770841154048,2022-02-15-12:06:10,10.1.1.8,37,-0.050,-0.050,-0.050,0.000,0.000,0.000
1644926770881242880,2022-02-15-12:06:10,10.1.1.8,27,-0.060,-0.060,-0.060,0.000,0.000,0.000
1644926770940258048,2022-02-15-12:06:10,10.1.1.8,36,-0.070,-0.070,-0.070,0.000,0.000,0.000
1644926770979665152,2022-02-15-12:06:10,10.1.1.8,25,-0.080,-0.080,-0.080,0.000,0.000,0.000
1644926771039659008,2022-02-15-12:06:11,10.1.1.8,35,-0.090,-0.090,-0.090,0.000,0.000,0.000
1644926771079216128,2022-02-15-12:06:11,10.1.1.8,24,-0.100,-0.100,-0.100,0.000,0.000,0.000
1644926771139354880,2022-02-15-12:06:11,10.1.1.8,34,-0.090,-0.090,-0.090,0.000,0.000,0.000
1644926771180224768,2022-02-15-12:06:11,10.1.1.8,24,-0.080,-0.080,-0.080,0.000,0.000,0.000
1644926771239678976,2022-02-15-12:06:11,10.1.1.8,33,-0.070,-0.070,-0.070,0.000,0.000,0.000
1644926771279395072,2022-02-15-12:06:11,10.1.1.8,23,-0.060,-0.060,-0.060,0.000,0.000,0.000
1644926771339660032,2022-02-15-12:06:11,10.1.1.8,33,-0.050,-0.050,-0.050,0.000,0.000,0.000
1644926771379450112,2022-02-15-12:06:11,10.1.1.8,22,-0.040,-0.040,-0.040,0.000,0.000,0.000
1644926771439472896,2022-02-15-12:06:11,10.1.1.8,32,-0.030,-0.030,-0.030,0.000,0.000,0.000
1644926771480062976,2022-02-15-12:06:11,10.1.1.8,21,-0.020,-0.020,-0.020,0.000,0.000,0.000
1644926771538978048,2022-02-15-12:06:11,10.1.1.8,31,-0.010,-0.010,-0.010,0.000,0.000,0.000
1644926771578918912,2022-02-15-12:06:11,10.1.1.8,20,0.000,0.000,0.000,0.000,0.000,0.000
1644926771639486976,2022-02-15-12:06:11,10.1.1.8,30,0.010,0.010,0.010,0.000,0.000,0.000
1644926771679433216,2022-02-15-12:06:11,10.1.1.8,19,0.020,0.020,0.020,0.000,0.000,0.000
1644926771740044032,2022-02-15-12:06:11,10.1.1.8,29,0.030,0.030,0.030,0.000,0.000,0.000
1644926771799540992,2022-02-15-12:06:11,10.1.1.8,38,0.040,0.040,0.040,0.000,0.000,0.000
1644926771851890176,2022-02-15-12:06:11,10.1.1.8,28,0.050,0.050,0.050,0.000,0.000,0.000
1644926771959561984,2022-02-15-12:06:11,10.1.1.8,31,0.070,0.070,0.070,0.000,0.000,0.000
1644926771999207936,2022-02-15-12:06:11,10.1.1.8,20,0.080,0.080,0.080,0.000,0.000,0.000
1644926772059420160,2022-02-15-12:06:12,10.1.1.8,30,0.090,0.090,0.090,0.000,0.000,0.000
1644926772099340800,2022-02-15-12:06:12,10.1.1.8,19,0.100,0.100,0.100,0.000,0.000,0.000
1644926772159499008,2022-02-15-12:06:12,10.1.1.8,28,0.090,0.090,0.090,0.000,0.000,0.000
1644926772220017920,2022-02-15-12:06:12,10.1.1.8,37,0.080,0.080,0.080,0.000,0.000,0.000
1644926772259866112,2022-02-15-12:06:12,10.1.1.8,26,0.070,0.070,0.070,0.000,0.000,0.000
1644926772320049152,2022-02-15-12:06:12,10.1.1.8,36,0.060,0.060,0.060,0.000,0.000,0.000
1644926772359630080,2022-02-15-12:06:12,10.1.1.8,25,0.050,0.050,0.050,0.000,0.000,0.000
1644926772419236864,2022-02-15-12:06:12,10.1.1.8,34,0.040,0.040,0.040,0.000,0.000,0.000
1644926772459644928,2022-02-15-12:06:12,10.1.1.8,23,0.030,0.030,0.030,0.000,0.000,0.000
1644926772519984128,2022-02-15-12:06:12,10.1.1.8,32,0.020,0.020,0.020,0.000,0.000,0.000
1644926772559896832,2022-02-15-12:06:12,10.1.1.8,22,0.010,0.010,0.010,0.000,0.000,0.000
1644926772619208192,2022-02-15-12:06:12,10.1.1.8,31,0.000,0.000,0.000,0.000,0.000,0.000
1644926772659714048,2022-02-15-12:06:12,10.1.1.8,21,-0.010,-0.010,-0.010,0.000,0.000,0.000
1644926772719643136,2022-02-15-12:06:12,10.1.1.8,30,-0.020,-0.020,-0.020,0.000,0.000,0.000
1644926772759399936,2022-02-15-12:06:12,10.1.1.8,20,-0.030,-0.030,-0.030,0.000,0.000,0.000
1644926772820060928,2022-02-15-12:06:12,10.1.1.8,29,-0.040,-0.040,-0.040,0.000,0.000,0.000
1644926772880466944,2022-02-15-12:06:12,10.1.1.8,39,-0.050,-0.050,-0.050,0.000,0.000,0.000
1644926772919863040,2022-02-15-12:06:12,10.1.1.8,27,-0.060,-0.060,-0.060,0.000,0.000,0.000
1644926772979264000,2022-02-15-12:06:12,10.1.1.8,37,-0.070,-0.070,-0.070,0.000,0.000,0.000
1644926773019161856,2022-02-15-12:06:13,10.1.1.8,26,-0.080,-0.080,-0.080,0.000,0.000,0.000
1644926773079809024,2022-02-15-12:06:13,10.1.1.8,35,-0.090,-0.090,-0.090,0.000,0.000,0.000
1644926773120089088,2022-02-15-12:06:13,10.1.1.8,25,-0.100,-0.100,-0.100,0.000,0.000,0.000
1644926773179534848,2022-02-15-12:06:13,10.1.1.8,34,-0.090,-0.090,-0.090,0.000,0.000,0.000
1644926773219451904,2022-02-15-12:06:13,10.1.1.8,24,-0.080,-0.080,-0.080,0.000,0.000,0.000
1644926773279162880,2022-02-15-12:06:13,10.1.1.8,33,-0.070,-0.070,-0.070,0.000,0.000,0.000
1644926773319951104,2022-02-15-12:06:13,10.1.1.8,23,-0.060,-0.060,-0.060,0.000,0.000,0.000
1644926773379625984,2022-02-15-12:06:13,10.1.1.8,32,-0.050,-0.050,-0.050,0.000,0.000,0.000
1644926773420800000,2022-02-15-12:06:13,10.1.1.8,22,-0.040,-0.040,-0.040,0.000,0.000,0.000
1644926773479132928,2022-02-15-12:06:13,10.1.1.8,31,-0.030,-0.030,-0.030,0.000,0.000,0.000
1644926773520057088,2022-02-15-12:06:13,10.1.1.8,21,-0.020,-0.020,-0.020,0.000,0.000,0.000
1644926773579904000,2022-02-15-12:06:13,10.1.1.8,30,-0.010,-0.010,-0.010,0.000,0.000,0.000
1644926773619819008,2022-02-15-12:06:13,10.1.1.8,19,-0.000,-0.000,-0.000,0.000,0.000,0.000
1644926773679997952,2022-02-15-12:06:13,10.1.1.8,28,0.010,0.010,0.010,0.000,0.000,0.000
1644926773740172032,2022-02-15-12:06:13,10.1.1.8,38,0.020,0.020,0.020,0.000,0.000,0.000
1644926773779942144,2022-02-15-12:06:13,10.1.1.8,27,0.030,0.030,0.030,0.000,0.000,0.000
1644926773839622144,2022-02-15-12:06:13,10.1.1.8,37,0.040,0.040,0.040,0.000,0.000,0.000
1644926773879347968,2022-02-15-12:06:13,10.1.1.8,27,0.050,0.050,0.050,0.000,0.000,0.000
1644926773939699968,2022-02-15-12:06:13,10.1.1.8,36,0.060,0.060,0.060,0.000,0.000,0.000
1644926773979561216,2022-02-15-12:06:13,10.1.1.8,26,0.070,0.070,0.070,0.000,0.000,0.000
1644926774039830016,2022-02-15-12:06:14,10.1.1.8,35,0.080,0.080,0.080,0.000,0.000,0.000
1644926774079196928,2022-02-15-12:06:14,10.1.1.8,25,0.090,0.090,0.090,0.000,0.000,0.000
1644926774140705024,2022-02-15-12:06:14,10.1.1.8,34,0.100,0.100,0.100,0.000,0.000,0.000
1644926774179558912,2022-02-15-12:06:14,10.1.1.8,24,0.090,0.090,0.090,0.000,0.000,0.000
1644926774239834112,2022-02-15-12:06:14,10.1.1.8,33,0.080,0.080,0.080,0.000,0.000,0.000
1644926774279270912,2022-02-15-12:06:14,10.1.1.8,23,0.070,0.070,0.070,0.000,0.000,0.000
1644926774339628032,2022-02-15-12:06:14,10.1.1.8,32,0.060,0.060,0.060,0.000,0.000,0.000
1644926774379858944,2022-02-15-12:06:14,10.1.1.8,21,0.050,0.050,0.050,0.000,0.000,0.000
1644926774440016896,2022-02-15-12:06:14,10.1.1.8,31,0.040,0.040,0.040,0.000,0.000,0.000
1644926774479409920,2022-02-15-12:06:14,10.1.1.8,20,0.030,0.030,0.030,0.000,0.000,0.000
1644926774541203968,2022-02-15-12:06:14,10.1.1.8,29,0.020,0.020,0.020,0.000,0.000,0.000
1644926774599446016,2022-02-15-12:06:14,10.1.1.8,38,0.010,0.010,0.010,0.000,0.000,0.000
1644926774640230912,2022-02-15-12:06:14,10.1.1.8,28,0.000,0.000,0.000,0.000,0.000,0.000
1644926774699682048,2022-02-15-12:06:14,10.1.1.8,38,-0.010,-0.010,-0.010,0.000,0.000,0.000
1644926774741039872,2022-02-15-12:06:14,10.1.1.8,27,-0.020,-0.020,-0.020,0.000,0.000,0.000
1644926774800087040,2022-02-15-12:06:14,10.1.1.8,37,-0.030,-0.030,-0.030,0.000,0.000,0.000
1644926774839900928,2022-02-15-12:06:14,10.1.1.8,27,-0.040,-0.040,-0.040,0.000,0.000,0.000
1644926774899812096,2022-02-15-12:06:14,10.1.1.8,36,-0.050,-0.050,-0.050,0.000,0.000,0.000
1644926774940061184,2022-02-15-12:06:14,10.1.1.8,26,-0.060,-0.060,-0.060,0.000,0.000,0.000
1644926774999453952,2022-02-15-12:06:14,10.1.1.8,35,-0.070,-0.070,-0.070,0.000,0.000,0.000
1644926775039098112,2022-02-15-12:06:15,10.1.1.8,25,-0.080,-0.080,-0.080,0.000,0.000,0.000
1644926775099656960,2022-02-15-12:06:15,10.1.1.8,34,-0.090,-0.090,-0.090,0.000,0.000,0.000
1644926775139399168,2022-02-15-12:06:15,10.1.1.8,23,-0.100,-0.100,-0.100,0.000,0.000,0.000
1644926775199358976,2022-02-15-12:06:15,10.1.1.8,33,-0.090,-0.090,-0.090,0.000,0.000,0.000
1644926775239751168,2022-02-15-12:06:15,10.1.1.8,23,-0.080,-0.080,-0.080,0.000,0.000,0.000
1644926775299528960,2022-02-15-12:06:15,10.1.1.8,32,-0.070,-0.070,-0.070,0.000,0.000,0.000
1644926775339148032,2022-02-15-12:06:15,10.1.1.8,21,-0.060,-0.060,-0.060,0.000,0.000,0.000
1644926775399427840,2022-02-15-12:06:15,10.1.1.8,31,-0.050,-0.050,-0.050,0.000,0.000,0.000
1644926775443820032,2022-02-15-12:06:15,10.1.1.8,21,-0.040,-0.040,-0.040,0.000,0.000,0.000
1644926775499461888,2022-02-15-12:06:15,10.1.1.8,30,-0.030,-0.030,-0.030,0.000,0.000,0.000
1644926775540476928,2022-02-15-12:06:15,10.1.1.8,19,-0.020,-0.020,-0.020,0.000,0.000,0.000
1644926775599776000,2022-02-15-12:06:15,10.1.1.8,28,-0.010,-0.010,-0.010,0.000,0.000,0.000
1644926775660541952,2022-02-15-12:06:15,10.1.1.8,37,0.000,0.000,0.000,0.000,0.000,0.000
1644926775699554816,2022-02-15-12:06:15,10.1.1.8,25,0.010,0.010,0.010,0.000,0.000,0.000
1644926775760178944,2022-02-15-12:06:15,10.1.1.8,35,0.020,0.020,0.020,0.000,0.000,0.000
1644926775800129024,2022-02-15-12:06:15,10.1.1.8,24,0.030,0.030,0.030,0.000,0.000,0.000
1644926775859177216,2022-02-15-12:06:15,10.1.1.8,34,0.040,0.040,0.040,0.000,0.000,0.000
1644926775900552960,2022-02-15-12:06:15,10.1.1.8,23,0.050,0.050,0.050,0.000,0.000,0.000
1644926775959363072,2022-02-15-12:06:15,10.1.1.8,32,0.060,0.060,0.060,0.000,0.000,0.000
1644926775999342848,2022-02-15-12:06:15,10.1.1.8,22,0.070,0.070,0.070,0.000,0.000,0.000
1644926776059854080,2022-02-15-12:06:16,10.1.1.8,32,0.080,0.080,0.080,0.000,0.000,0.000
1644926776099240960,2022-02-15-12:06:16,10.1.1.8,21,0.090,0.090,0.090,0.000,0.000,0.000
1644926776160089088,2022-02-15-12:06:16,10.1.1.8,30,0.100,0.100,0.100,0.000,0.000,0.000
1644926776199202048,2022-02-15-12:06:16,10.1.1.8,20,0.090,0.090,0.090,0.000,0.000,0.000
1644926776259622144,2022-02-15-12:06:16,10.1.1.8,29,0.080,0.080,0.080,0.000,0.000,0.000
1644926776299192064,2022-02-15-12:06:16,10.1.1.8,19,0.070,0.070,0.070,0.000,0.000,0.000
1644926776360429056,2022-02-15-12:06:16,10.1.1.8,29,0.060,0.060,0.060,0.000,0.000,0.000
1644926776419766784,2022-02-15-12:06:16,10.1.1.8,37,0.050,0.050,0.050,0.000,0.000,0.000
1644926776459419136,2022-02-15-12:06:16,10.1.1.8,27,0.040,0.040,0.040,0.000,0.000,0.000
1644926776519977216,2022-02-15-12:06:16,10.1.1.8,37,0.030,0.030,0.030,0.000,0.000,0.000
1644926776560173056,2022-02-15-12:06:16,10.1.1.8,26,0.020,0.020,0.020,0.000,0.000,0.000
1644926776619896832,2022-02-15-12:06:16,10.1.1.8,36,0.010,0.010,0.010,0.000,0.000,0.000
1644926776659486976,2022-02-15-12:06:16,10.1.1.8,25,0.000,0.000,0.000,0.000,0.000,0.000
1644926776720711936,2022-02-15-12:06:16,10.1.1.8,35,-0.010,-0.010,-0.010,0.000,0.000,0.000
1644926776759908864,2022-02-15-12:06:16,10.1.1.8,24,-0.020,-0.020,-0.020,0.000,0.000,0.000
1644926776819565056,2022-02-15-12:06:16,10.1.1.8,34,-0.030,-0.030,-0.030,0.000,0.000,0.000
1644926776859729920,2022-02-15-12:06:16,10.1.1.8,23,-0.040,-0.040,-0.040,0.000,0.000,0.000
1644926776920046080,2022-02-15-12:06:16,10.1.1.8,33,-0.050,-0.050,-0.050,0.000,0.000,0.000
1644926776959974144,2022-02-15-12:06:16,10.1.1.8,22,-0.060,-0.060,-0.060,0.000,0.000,0.000
1644926777020560896,2022-02-15-12:06:17,10.1.1.8,31,-0.070,-0.070,-0.070,0.000,0.000,0.000
1644926777059542016,2022-02-15-12:06:17,10.1.1.8,21,-0.080,-0.080,-0.080,0.000,0.000,0.000
1644926777119819008,2022-02-15-12:06:17,10.1.1.8,30,-0.090,-0.090,-0.090,0.000,0.000,0.000
1644926777160169984,2022-02-15-12:06:17,10.1.1.8,20,-0.100,-0.100,-0.100,0.000,0.000,0.000
1644926777220249856,2022-02-15-12:06:17,10.1.1.8,28,-0.090,-0.090,-0.090,0.000,0.000,0.000
1644926777280657920,2022-02-15-12:06:17,10.1.1.8,37,-0.080,-0.080,-0.080,0.000,0.000,0.000
1644926777319488000,2022-02-15-12:06:17,10.1.1.8,27,-0.070,-0.070,-0.070,0.000,0.000,0.000
1644926777379429120,2022-02-15-12:06:17,10.1.1.8,36,-0.060,-0.060,-0.060,0.000,0.000,0.000
1644926777419486976,2022-02-15-12:06:17,10.1.1.8,26,-0.050,-0.050,-0.050,0.000,0.000,0.000
1644926777479481088,2022-02-15-12:06:17,10.1.1.8,36,-0.040,-0.040,-0.040,0.000,0.000,0.000
1644926777519367936,2022-02-15-12:06:17,10.1.1.8,25,-0.030,-0.030,-0.030,0.000,0.000,0.000
1644926777579752960,2022-02-15-12:06:17,10.1.1.8,34,-0.020,-0.020,-0.020,0.000,0.000,0.000
1644926777619541760,2022-02-15-12:06:17,10.1.1.8,24,-0.010,-0.010,-0.010,0.000,0.000,0.000
1644926777679886080,2022-02-15-12:06:17,10.1.1.8,32,0.000,0.000,0.000,0.000,0.000,0.000
1644926777722338816,2022-02-15-12:06:17,10.1.1.8,22,0.010,0.010,0.010,0.000,0.000,0.000
1644926777780033024,2022-02-15-12:06:17,10.1.1.8,31,0.020,0.020,0.020,0.000,0.000,0.000
1644926777819308032,2022-02-15-12:06:17,10.1.1.8,21,0.030,0.030,0.030,0.000,0.000,0.000
1644926777879842048,2022-02-15-12:06:17,10.1.1.8,30,0.040,0.040,0.040,0.000,0.000,0.000
1644926777919820032,2022-02-15-12:06:17,10.1.1.8,20,0.050,0.050,0.050,0.000,0.000,0.000
1644926777979697920,2022-02-15-12:06:17,10.1.1.8,29,0.060,0.060,0.060,0.000,0.000,0.000
1644926778019713024,2022-02-15-12:06:18,10.1.1.8,18,0.069,0.069,0.069,0.000,0.000,0.000
1644926778079346944,2022-02-15-12:06:18,10.1.1.8,28,0.080,0.080,0.080,0.000,0.000,0.000
1644926778139719936,2022-02-15-12:06:18,10.1.1.8,37,0.090,0.090,0.090,0.000,0.000,0.000
1644926778179739904,2022-02-15-12:06:18,10.1.1.8,27,0.100,0.100,0.100,0.000,0.000,0.000
1644926778239486976,2022-02-15-12:06:18,10.1.1.8,36,0.090,0.090,0.090,0.000,0.000,0.000
1644926778279319040,2022-02-15-12:06:18,10.1.1.8,26,0.080,0.080,0.080,0.000,0.000,0.000
1644926778340601856,2022-02-15-12:06:18,10.1.1.8,35,0.070,0.070,0.070,0.000,0.000,0.000
1644926778379368960,2022-02-15-12:06:18,10.1.1.8,25,0.060,0.060,0.060,0.000,0.000,0.000
1644926778439377152,2022-02-15-12:06:18,10.1.1.8,34,0.050,0.050,0.050,0.000,0.000,0.000
1644926778479860992,2022-02-15-12:06:18,10.1.1.8,24,0.040,0.040,0.040,0.000,0.000,0.000
1644926778540155904,2022-02-15-12:06:18,10.1.1.8,33,0.030,0.030,0.030,0.000,0.000,0.000
1644926778579880960,2022-02-15-12:06:18,10.1.1.8,23,0.020,0.020,0.020,0.000,0.000,0.000
1644926778639852032,2022-02-15-12:06:18,10.1.1.8,32,0.010,0.010,0.010,0.000,0.000,0.000
1644926778679680000,2022-02-15-12:06:18,10.1.1.8,22,0.000,0.000,0.000,0.000,0.000,0.000
1644926778739751168,2022-02-15-12:06:18,10.1.1.8,31,-0.010,-0.010,-0.010,0.000,0.000,0.000
1644926778779622144,2022-02-15-12:06:18,10.1.1.8,21,-0.020,-0.020,-0.020,0.000,0.000,0.000
1644926778839365120,2022-02-15-12:06:18,10.1.1.8,30,-0.030,-0.030,-0.030,0.000,0.000,0.000
1644926778879931904,2022-02-15-12:06:18,10.1.1.8,20,-0.040,-0.040,-0.040,0.000,0.000,0.000
1644926778939801856,2022-02-15-12:06:18,10.1.1.8,29,-0.050,-0.050,-0.050,0.000,0.000,0.000
1644926778999175168,2022-02-15-12:06:18,10.1.1.8,38,-0.060,-0.060,-0.060,0.000,0.000,0.000
1644926779039206912,2022-02-15-12:06:19,10.1.1.8,27,-0.070,-0.070,-0.070,0.000,0.000,0.000
1644926779100197120,2022-02-15-12:06:19,10.1.1.8,37,-0.080,-0.080,-0.080,0.000,0.000,0.000
1644926779140239872,2022-02-15-12:06:19,10.1.1.8,27,-0.090,-0.090,-0.090,0.000,0.000,0.000
1644926779200384000,2022-02-15-12:06:19,10.1.1.8,36,-0.100,-0.100,-0.100,0.000,0.000,0.000
1644926779239481088,2022-02-15-12:06:19,10.1.1.8,26,-0.090,-0.090,-0.090,0.000,0.000,0.000
1644926779300142080,2022-02-15-12:06:19,10.1.1.8,35,-0.080,-0.080,-0.080,0.000,0.000,0.000
1644926779339183104,2022-02-15-12:06:19,10.1.1.8,25,-0.070,-0.070,-0.070,0.000,0.000,0.000
1644926779399566848,2022-02-15-12:06:19,10.1.1.8,35,-0.060,-0.060,-0.060,0.000,0.000,0.000
1644926779439419136,2022-02-15-12:06:19,10.1.1.8,24,-0.050,-0.050,-0.050,0.000,0.000,0.000
1644926779499820032,2022-02-15-12:06:19,10.1.1.8,33,-0.040,-0.040,-0.040,0.000,0.000,0.000
1644926779539784960,2022-02-15-12:06:19,10.1.1.8,23,-0.030,-0.030,-0.030,0.000,0.000,0.000
1644926779599623936,2022-02-15-12:06:19,10.1.1.8,33,-0.020,-0.020,-0.020,0.000,0.000,0.000
1644926779639736832,2022-02-15-12:06:19,10.1.1.8,22,-0.010,-0.010,-0.010,0.000,0.000,0.000
1644926779699569920,2022-02-15-12:06:19,10.1.1.8,32,0.000,0.000,0.000,0.000,0.000,0.000
1644926779739918080,2022-02-15-12:06:19,10.1.1.8,21,0.010,0.010,0.010,0.000,0.000,0.000
1644926779799644928,2022-02-15-12:06:19,10.1.1.8,30,0.020,0.020,0.020,0.000,0.000,0.000
1644926779839899904,2022-02-15-12:06:19,10.1.1.8,20,0.030,0.030,0.030,0.000,0.000,0.000
1644926779899937024,2022-02-15-12:06:19,10.1.1.8,29,0.040,0.040,0.040,0.000,0.000,0.000
1644926779959044864,2022-02-15-12:06:19,10.1.1.8,38,0.050,0.050,0.050,0.000,0.000,0.000
1644926779999689216,2022-02-15-12:06:19,10.1.1.8,27,0.060,0.060,0.060,0.000,0.000,0.000
1644926780063507968,2022-02-15-12:06:20,10.1.1.8,37,0.070,0.070,0.070,0.000,0.000,0.000
1644926780100442880,2022-02-15-12:06:20,10.1.1.8,26,0.080,0.080,0.080,0.000,0.000,0.000
1644926780199887872,2022-02-15-12:06:20,10.1.1.8,24,0.100,0.100,0.100,0.000,0.000,0.000
1644926780259932160,2022-02-15-12:06:20,10.1.1.8,34,0.090,0.090,0.090,0.000,0.000,0.000
1644926780299482112,2022-02-15-12:06:20,10.1.1.8,23,0.080,0.080,0.080,0.000,0.000,0.000
1644926780359867136,2022-02-15-12:06:20,10.1.1.8,32,0.070,0.070,0.070,0.000,0.000,0.000
1644926780399424000,2022-02-15-12:06:20,10.1.1.8,22,0.060,0.060,0.060,0.000,0.000,0.000
1644926780471343104,2022-02-15-12:06:20,10.1.1.8,29,0.050,0.050,0.050,0.000,0.000,0.000
1644926780519664128,2022-02-15-12:06:20,10.1.1.8,37,0.040,0.040,0.040,0.000,0.000,0.000
1644926780559668992,2022-02-15-12:06:20,10.1.1.8,27,0.030,0.030,0.030,0.000,0.000,0.000
1644926780619714048,2022-02-15-12:06:20,10.1.1.8,36,0.020,0.020,0.020,0.000,0.000,0.000
1644926780659953152,2022-02-15-12:06:20,10.1.1.8,26,0.010,0.010,0.010,0.000,0.000,0.000
1644926780720093952,2022-02-15-12:06:20,10.1.1.8,35,0.000,0.000,0.000,0.000,0.000,0.000
1644926780760039168,2022-02-15-12:06:20,10.1.1.8,25,-0.010,-0.010,-0.010,0.000,0.000,0.000
1644926780820700928,2022-02-15-12:06:20,10.1.1.8,34,-0.020,-0.020,-0.020,0.000,0.000,0.000
1644926780859622912,2022-02-15-12:06:20,10.1.1.8,24,-0.030,-0.030,-0.030,0.000,0.000,0.000
1644926780920093184,2022-02-15-12:06:20,10.1.1.8,33,-0.040,-0.040,-0.040,0.000,0.000,0.000
1644926780960267008,2022-02-15-12:06:20,10.1.1.8,22,-0.050,-0.050,-0.050,0.000,0.000,0.000
1644926781019969024,2022-02-15-12:06:21,10.1.1.8,31,-0.060,-0.060,-0.060,0.000,0.000,0.000
1644926781060908032,2022-02-15-12:06:21,10.1.1.8,20,-0.070,-0.070,-0.070,0.000,0.000,0.000
1644926781121483008,2022-02-15-12:06:21,10.1.1.8,29,-0.080,-0.080,-0.080,0.000,0.000,0.000
1644926781159544832,2022-02-15-12:06:21,10.1.1.8,19,-0.089,-0.089,-0.089,0.000,0.000,0.000
1644926781219307776,2022-02-15-12:06:21,10.1.1.8,28,-0.100,-0.100,-0.100,0.000,0.000,0.000
1644926781279650816,2022-02-15-12:06:21,10.1.1.8,37,-0.090,-0.090,-0.090,0.000,0.000,0.000
1644926781320276992,2022-02-15-12:06:21,10.1.1.8,27,-0.080,-0.080,-0.080,0.000,0.000,0.000
1644926781380470016,2022-02-15-12:06:21,10.1.1.8,37,-0.070,-0.070,-0.070,0.000,0.000,0.000
1644926781420051968,2022-02-15-12:06:21,10.1.1.8,26,-0.060,-0.060,-0.060,0.000,0.000,0.000
1644926781481175808,2022-02-15-12:06:21,10.1.1.8,35,-0.050,-0.050,-0.050,0.000,0.000,0.000
1644926781520051968,2022-02-15-12:06:21,10.1.1.8,24,-0.040,-0.040,-0.040,0.000,0.000,0.000
1644926781683245824,2022-02-15-12:06:21,10.1.1.8,28,-0.010,-0.010,-0.010,0.000,0.000,0.000
1644926781741425152,2022-02-15-12:06:21,10.1.1.8,38,0.000,0.000,0.000,0.000,0.000,0.000
1644926781783994880,2022-02-15-12:06:21,10.1.1.8,26,0.010,0.010,0.010,0.000,0.000,0.000
1644926781839500032,2022-02-15-12:06:21,10.1.1.8,36,0.020,0.020,0.020,0.000,0.000,0.000
1644926781879864064,2022-02-15-12:06:21,10.1.1.8,25,0.030,0.030,0.030,0.000,0.000,0.000
1644926781940056064,2022-02-15-12:06:21,10.1.1.8,35,0.040,0.040,0.040,0.000,0.000,0.000
1644926781979588864,2022-02-15-12:06:21,10.1.1.8,24,0.050,0.050,0.050,0.000,0.000,0.000
1644926782044625920,2022-02-15-12:06:22,10.1.1.8,33,0.060,0.060,0.060,0.000,0.000,0.000
1644926782079351808,2022-02-15-12:06:22,10.1.1.8,22,0.070,0.070,0.070,0.000,0.000,0.000
1644926782140371968,2022-02-15-12:06:22,10.1.1.8,32,0.080,0.080,0.080,0.000,0.000,0.000
1644926782180396032,2022-02-15-12:06:22,10.1.1.8,21,0.090,0.090,0.090,0.000,0.000,0.000
1644926782240048896,2022-02-15-12:06:22,10.1.1.8,30,0.100,0.100,0.100,0.000,0.000,0.000
1644926782280695040,2022-02-15-12:06:22,10.1.1.8,20,0.090,0.090,0.090,0.000,0.000,0.000
1644926782339472128,2022-02-15-12:06:22,10.1.1.8,29,0.080,0.080,0.080,0.000,0.000,0.000
1644926782400082176,2022-02-15-12:06:22,10.1.1.8,37,0.070,0.070,0.070,0.000,0.000,0.000
1644926782439532032,2022-02-15-12:06:22,10.1.1.8,26,0.060,0.060,0.060,0.000,0.000,0.000
1644926782499424000,2022-02-15-12:06:22,10.1.1.8,35,0.050,0.050,0.050,0.000,0.000,0.000
1644926782539849984,2022-02-15-12:06:22,10.1.1.8,24,0.040,0.040,0.040,0.000,0.000,0.000
1644926782599917056,2022-02-15-12:06:22,10.1.1.8,32,0.030,0.030,0.030,0.000,0.000,0.000
1644926782639838976,2022-02-15-12:06:22,10.1.1.8,21,0.020,0.020,0.020,0.000,0.000,0.000
1644926782699585792,2022-02-15-12:06:22,10.1.1.8,31,0.010,0.010,0.010,0.000,0.000,0.000
1644926782739553024,2022-02-15-12:06:22,10.1.1.8,20,0.000,0.000,0.000,0.000,0.000,0.000
1644926782800344832,2022-02-15-12:06:22,10.1.1.8,29,-0.010,-0.010,-0.010,0.000,0.000,0.000
1644926782839625984,2022-02-15-12:06:22,10.1.1.8,19,-0.019,-0.019,-0.019,0.000,0.000,0.000
1644926782900037120,2022-02-15-12:06:22,10.1.1.8,23,-0.030,-0.030,-0.030,0.000,0.000,0.000
1644926782960274944,2022-02-15-12:06:22,10.1.1.8,32,-0.040,-0.040,-0.040,0.000,0.000,0.000
1644926783000082944,2022-02-15-12:06:23,10.1.1.8,22,-0.050,-0.050,-0.050,0.000,0.000,0.000
1644926783059525120,2022-02-15-12:06:23,10.1.1.8,31,-0.060,-0.060,-0.060,0.000,0.000,0.000
1644926783099892992,2022-02-15-12:06:23,10.1.1.8,20,-0.070,-0.070,-0.070,0.000,0.000,0.000
1644926783159819008,2022-02-15-12:06:23,10.1.1.8,30,-0.080,-0.080,-0.080,0.000,0.000,0.000
1644926783200196096,2022-02-15-12:06:23,10.1.1.8,19,-0.089,-0.089,-0.089,0.000,0.000,0.000
1644926783259966976,2022-02-15-12:06:23,10.1.1.8,29,-0.100,-0.100,-0.100,0.000,0.000,0.000
1644926783320160000,2022-02-15-12:06:23,10.1.1.8,38,-0.090,-0.090,-0.090,0.000,0.000,0.000
1644926783359954176,2022-02-15-12:06:23,10.1.1.8,27,-0.080,-0.080,-0.080,0.000,0.000,0.000
1644926783419864064,2022-02-15-12:06:23,10.1.1.8,36,-0.070,-0.070,-0.070,0.000,0.000,0.000
1644926783460158208,2022-02-15-12:06:23,10.1.1.8,25,-0.060,-0.060,-0.060,0.000,0.000,0.000
1644926783521017088,2022-02-15-12:06:23,10.1.1.8,35,-0.050,-0.050,-0.050,0.000,0.000,0.000
1644926783560374016,2022-02-15-12:06:23,10.1.1.8,23,-0.040,-0.040,-0.040,0.000,0.000,0.000
1644926783619939072,2022-02-15-12:06:23,10.1.1.8,32,-0.030,-0.030,-0.030,0.000,0.000,0.000
1644926783661459968,2022-02-15-12:06:23,10.1.1.8,22,-0.020,-0.020,-0.020,0.000,0.000,0.000
1644926783720436992,2022-02-15-12:06:23,10.1.1.8,30,-0.010,-0.010,-0.010,0.000,0.000,0.000
1644926783760045056,2022-02-15-12:06:23,10.1.1.8,19,-0.000,-0.000,-0.000,0.000,0.000,0.000
1644926783819969024,2022-02-15-12:06:23,10.1.1.8,29,0.010,0.010,0.010,0.000,0.000,0.000
1644926783879600128,2022-02-15-12:06:23,10.1.1.8,38,0.020,0.020,0.020,0.000,0.000,0.000
1644926783920043008,2022-02-15-12:06:23,10.1.1.8,27,0.030,0.030,0.030,0.000,0.000,0.000
1644926783979495168,2022-02-15-12:06:23,10.1.1.8,36,0.040,0.040,0.040,0.000,0.000,0.000
1644926784019643904,2022-02-15-12:06:24,10.1.1.8,25,0.050,0.050,0.050,0.000,0.000,0.000
1644926784079921920,2022-02-15-12:06:24,10.1.1.8,34,0.060,0.060,0.060,0.000,0.000,0.000
1644926784119971072,2022-02-15-12:06:24,10.1.1.8,22,0.070,0.070,0.070,0.000,0.000,0.000
1644926784180761088,2022-02-15-12:06:24,10.1.1.8,31,0.080,0.080,0.080,0.000,0.000,0.000
1644926784220288000,2022-02-15-12:06:24,10.1.1.8,21,0.090,0.090,0.090,0.000,0.000,0.000
1644926784279529216,2022-02-15-12:06:24,10.1.1.8,29,0.100,0.100,0.100,0.000,0.000,0.000
1644926784340465920,2022-02-15-12:06:24,10.1.1.8,38,0.090,0.090,0.090,0.000,0.000,0.000
1644926784379589120,2022-02-15-12:06:24,10.1.1.8,27,0.080,0.080,0.080,0.000,0.000,0.000
1644926784439759872,2022-02-15-12:06:24,10.1.1.8,36,0.070,0.070,0.070,0.000,0.000,0.000
1644926784479289088,2022-02-15-12:06:24,10.1.1.8,26,0.060,0.060,0.060,0.000,0.000,0.000
1644926784541819136,2022-02-15-12:06:24,10.1.1.8,34,0.050,0.050,0.050,0.000,0.000,0.000
1644926784579341056,2022-02-15-12:06:24,10.1.1.8,23,0.040,0.040,0.040,0.000,0.000,0.000
1644926784639381760,2022-02-15-12:06:24,10.1.1.8,32,0.030,0.030,0.030,0.000,0.000,0.000
1644926784680337920,2022-02-15-12:06:24,10.1.1.8,20,0.020,0.020,0.020,0.000,0.000,0.000
1644926784741234176,2022-02-15-12:06:24,10.1.1.8,28,0.010,0.010,0.010,0.000,0.000,0.000
1644926784800077056,2022-02-15-12:06:24,10.1.1.8,36,0.000,0.000,0.000,0.000,0.000,0.000
1644926784839670784,2022-02-15-12:06:24,10.1.1.8,25,-0.010,-0.010,-0.010,0.000,0.000,0.000
1644926784899576832,2022-02-15-12:06:24,10.1.1.8,33,-0.020,-0.020,-0.020,0.000,0.000,0.000
1644926784940994048,2022-02-15-12:06:24,10.1.1.8,23,-0.030,-0.030,-0.030,0.000,0.000,0.000
1644926784999461888,2022-02-15-12:06:24,10.1.1.8,32,-0.040,-0.040,-0.040,0.000,0.000,0.000
1644926785040998912,2022-02-15-12:06:25,10.1.1.8,21,-0.050,-0.050,-0.050,0.000,0.000,0.000
1644926785099522048,2022-02-15-12:06:25,10.1.1.8,31,-0.060,-0.060,-0.060,0.000,0.000,0.000
1644926785142849024,2022-02-15-12:06:25,10.1.1.8,21,-0.070,-0.070,-0.070,0.000,0.000,0.000
1644926785200072960,2022-02-15-12:06:25,10.1.1.8,28,-0.080,-0.080,-0.080,0.000,0.000,0.000
1644926785260019968,2022-02-15-12:06:25,10.1.1.8,37,-0.090,-0.090,-0.090,0.000,0.000,0.000
1644926785299447040,2022-02-15-12:06:25,10.1.1.8,25,-0.100,-0.100,-0.100,0.000,0.000,0.000
1644926785359750912,2022-02-15-12:06:25,10.1.1.8,35,-0.090,-0.090,-0.090,0.000,0.000,0.000
1644926785399990016,2022-02-15-12:06:25,10.1.1.8,24,-0.080,-0.080,-0.080,0.000,0.000,0.000
1644926785460122112,2022-02-15-12:06:25,10.1.1.8,33,-0.070,-0.070,-0.070,0.000,0.000,0.000
1644926785500296960,2022-02-15-12:06:25,10.1.1.8,22,-0.060,-0.060,-0.060,0.000,0.000,0.000
1644926785560079104,2022-02-15-12:06:25,10.1.1.8,32,-0.050,-0.050,-0.050,0.000,0.000,0.000
1644926785600199936,2022-02-15-12:06:25,10.1.1.8,21,-0.040,-0.040,-0.040,0.000,0.000,0.000
1644926785659862016,2022-02-15-12:06:25,10.1.1.8,31,-0.030,-0.030,-0.030,0.000,0.000,0.000
1644926785699960064,2022-02-15-12:06:25,10.1.1.8,20,-0.020,-0.020,-0.020,0.000,0.000,0.000
1644926785759407104,2022-02-15-12:06:25,10.1.1.8,28,-0.010,-0.010,-0.010,0.000,0.000,0.000
1644926785819650048,2022-02-15-12:06:25,10.1.1.8,37,0.000,0.000,0.000,0.000,0.000,0.000
1644926785859337216,2022-02-15-12:06:25,10.1.1.8,26,0.010,0.010,0.010,0.000,0.000,0.000
1644926785919308800,2022-02-15-12:06:25,10.1.1.8,36,0.020,0.020,0.020,0.000,0.000,0.000
1644926785959558912,2022-02-15-12:06:25,10.1.1.8,25,0.030,0.030,0.030,0.000,0.000,0.000
1644926786020632064,2022-02-15-12:06:26,10.1.1.8,35,0.040,0.040,0.040,0.000,0.000,0.000
1644926786059521024,2022-02-15-12:06:26,10.1.1.8,23,0.050,0.050,0.050,0.000,0.000,0.000
1644926786119705856,2022-02-15-12:06:26,10.1.1.8,32,0.060,0.060,0.060,0.000,0.000,0.000
1644926786159319040,2022-02-15-12:06:26,10.1.1.8,22,0.070,0.070,0.070,0.000,0.000,0.000
1644926786219635968,2022-02-15-12:06:26,10.1.1.8,31,0.080,0.080,0.080,0.000,0.000,0.000
1644926786260859136,2022-02-15-12:06:26,10.1.1.8,21,0.090,0.090,0.090,0.000,0.000,0.000
1644926786322496768,2022-02-15-12:06:26,10.1.1.8,29,0.100,0.100,0.100,0.000,0.000,0.000
1644926786380163072,2022-02-15-12:06:26,10.1.1.8,38,0.090,0.090,0.090,0.000,0.000,0.000
1644926786420162048,2022-02-15-12:06:26,10.1.1.8,26,0.080,0.080,0.080,0.000,0.000,0.000
1644926786480153088,2022-02-15-12:06:26,10.1.1.8,34,0.070,0.070,0.070,0.000,0.000,0.000
1644926786519979008,2022-02-15-12:06:26,10.1.1.8,24,0.060,0.060,0.060,0.000,0.000,0.000
1644926786579971072,2022-02-15-12:06:26,10.1.1.8,33,0.050,0.050,0.050,0.000,0.000,0.000
1644926786621114112,2022-02-15-12:06:26,10.1.1.8,22,0.040,0.040,0.040,0.000,0.000,0.000
1644926786679546112,2022-02-15-12:06:26,10.1.1.8,32,0.030,0.030,0.030,0.000,0.000,0.000
1644926786719878912,2022-02-15-12:06:26,10.1.1.8,21,0.020,0.020,0.020,0.000,0.000,0.000
1644926786779270912,2022-02-15-12:06:26,10.1.1.8,30,0.010,0.010,0.010,0.000,0.000,0.000
1644926786820268032,2022-02-15-12:06:26,10.1.1.8,19,0.001,0.001,0.001,0.000,0.000,0.000
1644926786880506880,2022-02-15-12:06:26,10.1.1.8,28,-0.010,-0.010,-0.010,0.000,0.000,0.000
1644926786940087040,2022-02-15-12:06:26,10.1.1.8,37,-0.020,-0.020,-0.020,0.000,0.000,0.000
1644926786979716096,2022-02-15-12:06:26,10.1.1.8,26,-0.030,-0.030,-0.030,0.000,0.000,0.000
1644926787039625984,2022-02-15-12:06:27,10.1.1.8,36,-0.040,-0.040,-0.040,0.000,0.000,0.000
1644926787079864064,2022-02-15-12:06:27,10.1.1.8,25,-0.050,-0.050,-0.050,0.000,0.000,0.000
1644926787139921920,2022-02-15-12:06:27,10.1.1.8,34,-0.060,-0.060,-0.060,0.000,0.000,0.000
1644926787179447808,2022-02-15-12:06:27,10.1.1.8,23,-0.070,-0.070,-0.070,0.000,0.000,0.000
1644926787239442944,2022-02-15-12:06:27,10.1.1.8,32,-0.080,-0.080,-0.080,0.000,0.000,0.000
1644926787280174848,2022-02-15-12:06:27,10.1.1.8,22,-0.090,-0.090,-0.090,0.000,0.000,0.000
1644926787339045120,2022-02-15-12:06:27,10.1.1.8,31,-0.100,-0.100,-0.100,0.000,0.000,0.000
1644926787379709952,2022-02-15-12:06:27,10.1.1.8,21,-0.090,-0.090,-0.090,0.000,0.000,0.000
1644926787439755008,2022-02-15-12:06:27,10.1.1.8,28,-0.080,-0.080,-0.080,0.000,0.000,0.000
1644926787499608064,2022-02-15-12:06:27,10.1.1.8,37,-0.070,-0.070,-0.070,0.000,0.000,0.000
1644926787539105024,2022-02-15-12:06:27,10.1.1.8,27,-0.060,-0.060,-0.060,0.000,0.000,0.000
1644926787599448832,2022-02-15-12:06:27,10.1.1.8,36,-0.050,-0.050,-0.050,0.000,0.000,0.000
1644926787640336896,2022-02-15-12:06:27,10.1.1.8,25,-0.040,-0.040,-0.040,0.000,0.000,0.000
1644926787699106816,2022-02-15-12:06:27,10.1.1.8,34,-0.030,-0.030,-0.030,0.000,0.000,0.000
1644926787739689984,2022-02-15-12:06:27,10.1.1.8,23,-0.020,-0.020,-0.020,0.000,0.000,0.000
1644926787800050944,2022-02-15-12:06:27,10.1.1.8,32,-0.010,-0.010,-0.010,0.000,0.000,0.000
1644926787839587840,2022-02-15-12:06:27,10.1.1.8,21,-0.000,-0.000,-0.000,0.000,0.000,0.000
1644926787900155136,2022-02-15-12:06:27,10.1.1.8,30,0.010,0.010,0.010,0.000,0.000,0.000
1644926787939970048,2022-02-15-12:06:27,10.1.1.8,19,0.020,0.020,0.020,0.000,0.000,0.000
1644926787999404032,2022-02-15-12:06:27,10.1.1.8,28,0.030,0.030,0.030,0.000,0.000,0.000
1644926788059953920,2022-02-15-12:06:28,10.1.1.8,38,0.040,0.040,0.040,0.000,0.000,0.000
1644926788099534080,2022-02-15-12:06:28,10.1.1.8,27,0.050,0.050,0.050,0.000,0.000,0.000
1644926788160221952,2022-02-15-12:06:28,10.1.1.8,36,0.060,0.060,0.060,0.000,0.000,0.000
1644926788199343872,2022-02-15-12:06:28,10.1.1.8,25,0.070,0.070,0.070,0.000,0.000,0.000
1644926788259294976,2022-02-15-12:06:28,10.1.1.8,35,0.080,0.080,0.080,0.000,0.000,0.000
1644926788299598848,2022-02-15-12:06:28,10.1.1.8,24,0.090,0.090,0.090,0.000,0.000,0.000
1644926788359832064,2022-02-15-12:06:28,10.1.1.8,33,0.100,0.100,0.100,0.000,0.000,0.000
1644926788399172096,2022-02-15-12:06:28,10.1.1.8,23,0.090,0.090,0.090,0.000,0.000,0.000
1644926788459281920,2022-02-15-12:06:28,10.1.1.8,32,0.080,0.080,0.080,0.000,0.000,0.000
1644926788499731968,2022-02-15-12:06:28,10.1.1.8,22,0.070,0.070,0.070,0.000,0.000,0.000
1644926788559456000,2022-02-15-12:06:28,10.1.1.8,31,0.060,0.060,0.060,0.000,0.000,0.000
1644926788599816192,2022-02-15-12:06:28,10.1.1.8,20,0.050,0.050,0.050,0.000,0.000,0.000
1644926788659470080,2022-02-15-12:06:28,10.1.1.8,29,0.040,0.040,0.040,0.000,0.000,0.000
1644926788719367936,2022-02-15-12:06:28,10.1.1.8,38,0.030,0.030,0.030,0.000,0.000,0.000
1644926788759175936,2022-02-15-12:06:28,10.1.1.8,27,0.020,0.020,0.020,0.000,0.000,0.000
1644926788820137984,2022-02-15-12:06:28,10.1.1.8,36,0.010,0.010,0.010,0.000,0.000,0.000
1644926788859237888,2022-02-15-12:06:28,10.1.1.8,25,0.000,0.000,0.000,0.000,0.000,0.000
1644926788919641088,2022-02-15-12:06:28,10.1.1.8,34,-0.010,-0.010,-0.010,0.000,0.000,0.000
1644926788959731968,2022-02-15-12:06:28,10.1.1.8,23,-0.020,-0.020,-0.020,0.000,0.000,0.000
1644926789019139072,2022-02-15-12:06:29,10.1.1.8,32,-0.030,-0.030,-0.030,0.000,0.000,0.000
1644926789059889152,2022-02-15-12:06:29,10.1.1.8,22,-0.040,-0.040,-0.040,0.000,0.000,0.000
1644926789119513088,2022-02-15-12:06:29,10.1.1.8,31,-0.050,-0.050,-0.050,0.000,0.000,0.000
1644926789159312896,2022-02-15-12:06:29,10.1.1.8,20,-0.060,-0.060,-0.060,0.000,0.000,0.000
1644926789219228928,2022-02-15-12:06:29,10.1.1.8,28,-0.070,-0.070,-0.070,0.000,0.000,0.000
1644926789279337984,2022-02-15-12:06:29,10.1.1.8,37,-0.080,-0.080,-0.080,0.000,0.000,0.000
1644926789319672064,2022-02-15-12:06:29,10.1.1.8,27,-0.090,-0.090,-0.090,0.000,0.000,0.000
1644926789379810048,2022-02-15-12:06:29,10.1.1.8,36,-0.100,-0.100,-0.100,0.000,0.000,0.000
1644926789419280128,2022-02-15-12:06:29,10.1.1.8,25,-0.090,-0.090,-0.090,0.000,0.000,0.000
1644926789479436032,2022-02-15-12:06:29,10.1.1.8,34,-0.080,-0.080,-0.080,0.000,0.000,0.000
1644926789519941120,2022-02-15-12:06:29,10.1.1.8,24,-0.070,-0.070,-0.070,0.000,0.000,0.000
1644926789579848960,2022-02-15-12:06:29,10.1.1.8,34,-0.060,-0.060,-0.060,0.000,0.000,0.000
1644926789620088064,2022-02-15-12:06:29,10.1.1.8,23,-0.050,-0.050,-0.050,0.000,0.000,0.000
1644926789679328000,2022-02-15-12:06:29,10.1.1.8,32,-0.040,-0.040,-0.040,0.000,0.000,0.000
1644926789719515136,2022-02-15-12:06:29,10.1.1.8,20,-0.030,-0.030,-0.030,0.000,0.000,0.000
1644926789780092928,2022-02-15-12:06:29,10.1.1.8,29,-0.020,-0.020,-0.020,0.000,0.000,0.000
1644926789839545088,2022-02-15-12:06:29,10.1.1.8,38,-0.010,-0.010,-0.010,0.000,0.000,0.000
1644926789879357184,2022-02-15-12:06:29,10.1.1.8,27,0.000,0.000,0.000,0.000,0.000,0.000
1644926789939162880,2022-02-15-12:06:29,10.1.1.8,36,0.010,0.010,0.010,0.000,0.000,0.000
1644926789980436992,2022-02-15-12:06:29,10.1.1.8,26,0.020,0.020,0.020,0.000,0.000,0.000
1644926790040064000,2022-02-15-12:06:30,10.1.1.8,36,0.030,0.030,0.030,0.000,0.000,0.000
1644926790079715840,2022-02-15-12:06:30,10.1.1.8,25,0.040,0.040,0.040,0.000,0.000,0.000
1644926790141616128,2022-02-15-12:06:30,10.1.1.8,34,0.050,0.050,0.050,0.000,0.000,0.000
1644926790179348992,2022-02-15-12:06:30,10.1.1.8,24,0.060,0.060,0.060,0.000,0.000,0.000
1644926790240016896,2022-02-15-12:06:30,10.1.1.8,33,0.070,0.070,0.070,0.000,0.000,0.000
1644926790279377920,2022-02-15-12:06:30,10.1.1.8,22,0.080,0.080,0.080,0.000,0.000,0.000
1644926790339346944,2022-02-15-12:06:30,10.1.1.8,31,0.090,0.090,0.090,0.000,0.000,0.000
1644926790379800064,2022-02-15-12:06:30,10.1.1.8,21,0.100,0.100,0.100,0.000,0.000,0.000
1644926790439849984,2022-02-15-12:06:30,10.1.1.8,30,0.090,0.090,0.090,0.000,0.000,0.000
1644926790479182080,2022-02-15-12:06:30,10.1.1.8,19,0.081,0.081,0.081,0.000,0.000,0.000
1644926790539362816,2022-02-15-12:06:30,10.1.1.8,28,0.070,0.070,0.070,0.000,0.000,0.000
1644926790599840000,2022-02-15-12:06:30,10.1.1.8,37,0.060,0.060,0.060,0.000,0.000,0.000
1644926790640933120,2022-02-15-12:06:30,10.1.1.8,26,0.050,0.050,0.050,0.000,0.000,0.000
1644926790700279040,2022-02-15-12:06:30,10.1.1.8,35,0.040,0.040,0.040,0.000,0.000,0.000
1644926790739803136,2022-02-15-12:06:30,10.1.1.8,25,0.030,0.030,0.030,0.000,0.000,0.000
1644926790799411968,2022-02-15-12:06:30,10.1.1.8,34,0.020,0.020,0.020,0.000,0.000,0.000
1644926790839586048,2022-02-15-12:06:30,10.1.1.8,23,0.010,0.010,0.010,0.000,0.000,0.000
1644926790900046080,2022-02-15-12:06:30,10.1.1.8,32,0.000,0.000,0.000,0.000,0.000,0.000
1644926790939360000,2022-02-15-12:06:30,10.1.1.8,21,-0.010,-0.010,-0.010,0.000,0.000,0.000
1644926790999574016,2022-02-15-12:06:30,10.1.1.8,31,-0.020,-0.020,-0.020,0.000,0.000,0.000
1644926791039354112,2022-02-15-12:06:31,10.1.1.8,20,-0.030,-0.030,-0.030,0.000,0.000,0.000
1644926791099335936,2022-02-15-12:06:31,10.1.1.8,27,-0.040,-0.040,-0.040,0.000,0.000,0.000
1644926791159332096,2022-02-15-12:06:31,10.1.1.8,37,-0.050,-0.050,-0.050,0.000,0.000,0.000
1644926791199332096,2022-02-15-12:06:31,10.1.1.8,26,-0.060,-0.060,-0.060,0.000,0.000,0.000
1644926791259728896,2022-02-15-12:06:31,10.1.1.8,36,-0.070,-0.070,-0.070,0.000,0.000,0.000
1644926791299627008,2022-02-15-12:06:31,10.1.1.8,24,-0.080,-0.080,-0.080,0.000,0.000,0.000
1644926791360125952,2022-02-15-12:06:31,10.1.1.8,33,-0.090,-0.090,-0.090,0.000,0.000,0.000
1644926791399470080,2022-02-15-12:06:31,10.1.1.8,22,-0.100,-0.100,-0.100,0.000,0.000,0.000
1644926791460073984,2022-02-15-12:06:31,10.1.1.8,31,-0.090,-0.090,-0.090,0.000,0.000,0.000
1644926791499983104,2022-02-15-12:06:31,10.1.1.8,21,-0.080,-0.080,-0.080,0.000,0.000,0.000
1644926791559490048,2022-02-15-12:06:31,10.1.1.8,29,-0.070,-0.070,-0.070,0.000,0.000,0.000
1644926791620984064,2022-02-15-12:06:31,10.1.1.8,38,-0.060,-0.060,-0.060,0.000,0.000,0.000
1644926791660839168,2022-02-15-12:06:31,10.1.1.8,27,-0.050,-0.050,-0.050,0.000,0.000,0.000
1644926791826627072,2022-02-15-12:06:31,10.1.1.8,22,-0.020,-0.020,-0.020,0.000,0.000,0.000
1644926791880183040,2022-02-15-12:06:31,10.1.1.8,31,-0.010,-0.010,-0.010,0.000,0.000,0.000
1644926792106856192,2022-02-15-12:06:32,10.1.1.8,29,0.030,0.030,0.030,0.000,0.000,0.000
1644926792149136896,2022-02-15-12:06:32,10.1.1.8,23,0.040,0.040,0.040,0.000,0.000,0.000
1644926792205286144,2022-02-15-12:06:32,10.1.1.8,31,0.050,0.050,0.050,0.000,0.000,0.000
1644926792300741888,2022-02-15-12:06:32,10.1.1.8,20,0.070,0.070,0.070,0.000,0.000,0.000
1644926792369085184,2022-02-15-12:06:32,10.1.1.8,30,0.080,0.080,0.080,0.000,0.000,0.000
1644926792426400000,2022-02-15-12:06:32,10.1.1.8,39,0.090,0.090,0.090,0.000,0.000,0.000
1644926792461179136,2022-02-15-12:06:32,10.1.1.8,28,0.100,0.100,0.100,0.000,0.000,0.000
1644926792523803904,2022-02-15-12:06:32,10.1.1.8,37,0.090,0.090,0.090,0.000,0.000,0.000
1644926792685627904,2022-02-15-12:06:32,10.1.1.8,32,0.060,0.060,0.060,0.000,0.000,0.000
1644926792746802944,2022-02-15-12:06:32,10.1.1.8,38,0.050,0.050,0.050,0.000,0.000,0.000
1644926792840419072,2022-02-15-12:06:32,10.1.1.8,33,0.030,0.030,0.030,0.000,0.000,0.000
1644926792881620992,2022-02-15-12:06:32,10.1.1.8,23,0.020,0.020,0.020,0.000,0.000,0.000
1644926792941534976,2022-02-15-12:06:32,10.1.1.8,32,0.010,0.010,0.010,0.000,0.000,0.000
1644926793084659200,2022-02-15-12:06:33,10.1.1.8,20,-0.020,-0.020,-0.020,0.000,0.000,0.000
1644926793142652928,2022-02-15-12:06:33,10.1.1.8,29,-0.030,-0.030,-0.030,0.000,0.000,0.000
1644926793200738048,2022-02-15-12:06:33,10.1.1.8,38,-0.040,-0.040,-0.040,0.000,0.000,0.000
1644926793240299008,2022-02-15-12:06:33,10.1.1.8,27,-0.050,-0.050,-0.050,0.000,0.000,0.000
1644926793300070912,2022-02-15-12:06:33,10.1.1.8,37,-0.060,-0.060,-0.060,0.000,0.000,0.000
1644926793341222912,2022-02-15-12:06:33,10.1.1.8,25,-0.070,-0.070,-0.070,0.000,0.000,0.000
1644926793399732992,2022-02-15-12:06:33,10.1.1.8,34,-0.080,-0.080,-0.080,0.000,0.000,0.000
1644926793444559104,2022-02-15-12:06:33,10.1.1.8,24,-0.090,-0.090,-0.090,0.000,0.000,0.000
1644926793503884032,2022-02-15-12:06:33,10.1.1.8,33,-0.100,-0.100,-0.100,0.000,0.000,0.000
1644926793599744000,2022-02-15-12:06:33,10.1.1.8,27,-0.080,-0.080,-0.080,0.000,0.000,0.000
1644926793660200192,2022-02-15-12:06:33,10.1.1.8,37,-0.070,-0.070,-0.070,0.000,0.000,0.000
1644926793699939072,2022-02-15-12:06:33,10.1.1.8,26,-0.060,-0.060,-0.060,0.000,0.000,0.000
1644926793759747072,2022-02-15-12:06:33,10.1.1.8,36,-0.050,-0.050,-0.050,0.000,0.000,0.000
1644926793799737088,2022-02-15-12:06:33,10.1.1.8,25,-0.040,-0.040,-0.040,0.000,0.000,0.000
1644926793859611904,2022-02-15-12:06:33,10.1.1.8,35,-0.030,-0.030,-0.030,0.000,0.000,0.000
1644926793899718912,2022-02-15-12:06:33,10.1.1.8,24,-0.020,-0.020,-0.020,0.000,0.000,0.000
1644926793959988992,2022-02-15-12:06:33,10.1.1.8,33,-0.010,-0.010,-0.010,0.000,0.000,0.000
1644926794000345856,2022-02-15-12:06:34,10.1.1.8,22,0.000,0.000,0.000,0.000,0.000,0.000
1644926794059535872,2022-02-15-12:06:34,10.1.1.8,31,0.010,0.010,0.010,0.000,0.000,0.000
1644926794099858944,2022-02-15-12:06:34,10.1.1.8,21,0.020,0.020,0.020,0.000,0.000,0.000
1644926794159320064,2022-02-15-12:06:34,10.1.1.8,30,0.030,0.030,0.030,0.000,0.000,0.000
1644926794199839232,2022-02-15-12:06:34,10.1.1.8,20,0.040,0.040,0.040,0.000,0.000,0.000
1644926794262292992,2022-02-15-12:06:34,10.1.1.8,28,0.050,0.050,0.050,0.000,0.000,0.000
1644926794320864000,2022-02-15-12:06:34,10.1.1.8,36,0.060,0.060,0.060,0.000,0.000,0.000
1644926794360157952,2022-02-15-12:06:34,10.1.1.8,25,0.070,0.070,0.070,0.000,0.000,0.000
1644926794420520960,2022-02-15-12:06:34,10.1.1.8,35,0.080,0.080,0.080,0.000,0.000,0.000
1644926794459675904,2022-02-15-12:06:34,10.1.1.8,24,0.090,0.090,0.090,0.000,0.000,0.000
1644926794519721984,2022-02-15-12:06:34,10.1.1.8,33,0.100,0.100,0.100,0.000,0.000,0.000
1644926794561868800,2022-02-15-12:06:34,10.1.1.8,22,0.090,0.090,0.090,0.000,0.000,0.000
1644926794620120064,2022-02-15-12:06:34,10.1.1.8,31,0.080,0.080,0.080,0.000,0.000,0.000
1644926794659555840,2022-02-15-12:06:34,10.1.1.8,20,0.070,0.070,0.070,0.000,0.000,0.000
1644926794720678144,2022-02-15-12:06:34,10.1.1.8,30,0.060,0.060,0.060,0.000,0.000,0.000
1644926794783766016,2022-02-15-12:06:34,10.1.1.8,39,0.050,0.050,0.050,0.000,0.000,0.000
1644926794820940032,2022-02-15-12:06:34,10.1.1.8,27,0.040,0.040,0.040,0.000,0.000,0.000
1644926794881552896,2022-02-15-12:06:34,10.1.1.8,35,0.030,0.030,0.030,0.000,0.000,0.000
1644926794919796992,2022-02-15-12:06:34,10.1.1.8,24,0.020,0.020,0.020,0.000,0.000,0.000
1644926794999939072,2022-02-15-12:06:34,10.1.1.8,37,0.010,0.010,0.010,0.000,0.000,0.000
1644926795041924864,2022-02-15-12:06:35,10.1.1.8,27,0.000,0.000,0.000,0.000,0.000,0.000
1644926795104048896,2022-02-15-12:06:35,10.1.1.8,36,-0.010,-0.010,-0.010,0.000,0.000,0.000
1644926795142672128,2022-02-15-12:06:35,10.1.1.8,25,-0.020,-0.020,-0.020,0.000,0.000,0.000
1644926795204854016,2022-02-15-12:06:35,10.1.1.8,33,-0.030,-0.030,-0.030,0.000,0.000,0.000
1644926795239887104,2022-02-15-12:06:35,10.1.1.8,23,-0.040,-0.040,-0.040,0.000,0.000,0.000
1644926795299585024,2022-02-15-12:06:35,10.1.1.8,32,-0.050,-0.050,-0.050,0.000,0.000,0.000
1644926795340631040,2022-02-15-12:06:35,10.1.1.8,21,-0.060,-0.060,-0.060,0.000,0.000,0.000
1644926795399472896,2022-02-15-12:06:35,10.1.1.8,31,-0.070,-0.070,-0.070,0.000,0.000,0.000
1644926795442158848,2022-02-15-12:06:35,10.1.1.8,20,-0.080,-0.080,-0.080,0.000,0.000,0.000
1644926795500188160,2022-02-15-12:06:35,10.1.1.8,30,-0.090,-0.090,-0.090,0.000,0.000,0.000
1644926795540733952,2022-02-15-12:06:35,10.1.1.8,20,-0.100,-0.100,-0.100,0.000,0.000,0.000
1644926795599549952,2022-02-15-12:06:35,10.1.1.8,28,-0.090,-0.090,-0.090,0.000,0.000,0.000
1644926795661207808,2022-02-15-12:06:35,10.1.1.8,37,-0.080,-0.080,-0.080,0.000,0.000,0.000
1644926795700422144,2022-02-15-12:06:35,10.1.1.8,27,-0.070,-0.070,-0.070,0.000,0.000,0.000
1644926795759706112,2022-02-15-12:06:35,10.1.1.8,36,-0.060,-0.060,-0.060,0.000,0.000,0.000
1644926795800190976,2022-02-15-12:06:35,10.1.1.8,26,-0.050,-0.050,-0.050,0.000,0.000,0.000
1644926795860246016,2022-02-15-12:06:35,10.1.1.8,35,-0.040,-0.040,-0.040,0.000,0.000,0.000
1644926795899596032,2022-02-15-12:06:35,10.1.1.8,24,-0.030,-0.030,-0.030,0.000,0.000,0.000
1644926795959523072,2022-02-15-12:06:35,10.1.1.8,34,-0.020,-0.020,-0.020,0.000,0.000,0.000
1644926796060769024,2022-02-15-12:06:36,10.1.1.8,33,0.000,0.000,0.000,0.000,0.000,0.000
1644926796100076032,2022-02-15-12:06:36,10.1.1.8,23,0.010,0.010,0.010,0.000,0.000,0.000
1644926796159975168,2022-02-15-12:06:36,10.1.1.8,32,0.020,0.020,0.020,0.000,0.000,0.000
1644926796199853824,2022-02-15-12:06:36,10.1.1.8,22,0.030,0.030,0.030,0.000,0.000,0.000
1644926796259747072,2022-02-15-12:06:36,10.1.1.8,31,0.040,0.040,0.040,0.000,0.000,0.000
1644926796299428096,2022-02-15-12:06:36,10.1.1.8,21,0.050,0.050,0.050,0.000,0.000,0.000
1644926796359836928,2022-02-15-12:06:36,10.1.1.8,30,0.060,0.060,0.060,0.000,0.000,0.000
1644926796420002816,2022-02-15-12:06:36,10.1.1.8,39,0.070,0.070,0.070,0.000,0.000,0.000
1644926796459842816,2022-02-15-12:06:36,10.1.1.8,29,0.080,0.080,0.080,0.000,0.000,0.000
1644926796519599872,2022-02-15-12:06:36,10.1.1.8,38,0.090,0.090,0.090,0.000,0.000,0.000
1644926796559719168,2022-02-15-12:06:36,10.1.1.8,28,0.100,0.100,0.100,0.000,0.000,0.000
1644926796619635200,2022-02-15-12:06:36,10.1.1.8,37,0.090,0.090,0.090,0.000,0.000,0.000
1644926796660157952,2022-02-15-12:06:36,10.1.1.8,27,0.080,0.080,0.080,0.000,0.000,0.000
1644926796719643136,2022-02-15-12:06:36,10.1.1.8,35,0.070,0.070,0.070,0.000,0.000,0.000
1644926796761355008,2022-02-15-12:06:36,10.1.1.8,25,0.060,0.060,0.060,0.000,0.000,0.000
1644926796819627008,2022-02-15-12:06:36,10.1.1.8,34,0.050,0.050,0.050,0.000,0.000,0.000
1644926796859824896,2022-02-15-12:06:36,10.1.1.8,24,0.040,0.040,0.040,0.000,0.000,0.000
1644926796919748096,2022-02-15-12:06:36,10.1.1.8,34,0.030,0.030,0.030,0.000,0.000,0.000
1644926796960297216,2022-02-15-12:06:36,10.1.1.8,23,0.020,0.020,0.020,0.000,0.000,0.000
1644926797019321856,2022-02-15-12:06:37,10.1.1.8,32,0.010,0.010,0.010,0.000,0.000,0.000
1644926797061944064,2022-02-15-12:06:37,10.1.1.8,22,0.000,0.000,0.000,0.000,0.000,0.000
1644926797119330816,2022-02-15-12:06:37,10.1.1.8,31,-0.010,-0.010,-0.010,0.000,0.000,0.000
1644926797159486976,2022-02-15-12:06:37,10.1.1.8,20,-0.020,-0.020,-0.020,0.000,0.000,0.000
1644926797219943168,2022-02-15-12:06:37,10.1.1.8,30,-0.030,-0.030,-0.030,0.000,0.000,0.000
1644926797259459072,2022-02-15-12:06:37,10.1.1.8,20,-0.040,-0.040,-0.040,0.000,0.000,0.000
1644926797320013056,2022-02-15-12:06:37,10.1.1.8,29,-0.050,-0.050,-0.050,0.000,0.000,0.000
1644926797379295232,2022-02-15-12:06:37,10.1.1.8,38,-0.060,-0.060,-0.060,0.000,0.000,0.000
1644926797419640064,2022-02-15-12:06:37,10.1.1.8,27,-0.070,-0.070,-0.070,0.000,0.000,0.000
1644926797480130816,2022-02-15-12:06:37,10.1.1.8,37,-0.080,-0.080,-0.080,0.000,0.000,0.000
1644926797520119808,2022-02-15-12:06:37,10.1.1.8,27,-0.090,-0.090,-0.090,0.000,0.000,0.000
1644926797579585024,2022-02-15-12:06:37,10.1.1.8,36,-0.100,-0.100,-0.100,0.000,0.000,0.000
1644926797619364864,2022-02-15-12:06:37,10.1.1.8,26,-0.090,-0.090,-0.090,0.000,0.000,0.000
1644926797679552000,2022-02-15-12:06:37,10.1.1.8,35,-0.080,-0.080,-0.080,0.000,0.000,0.000
1644926797721420032,2022-02-15-12:06:37,10.1.1.8,25,-0.070,-0.070,-0.070,0.000,0.000,0.000
1644926797780247040,2022-02-15-12:06:37,10.1.1.8,34,-0.060,-0.060,-0.060,0.000,0.000,0.000
1644926797819664128,2022-02-15-12:06:37,10.1.1.8,23,-0.050,-0.050,-0.050,0.000,0.000,0.000
1644926797879475968,2022-02-15-12:06:37,10.1.1.8,32,-0.040,-0.040,-0.040,0.000,0.000,0.000
1644926797920034048,2022-02-15-12:06:37,10.1.1.8,22,-0.030,-0.030,-0.030,0.000,0.000,0.000
1644926797979536896,2022-02-15-12:06:37,10.1.1.8,31,-0.020,-0.020,-0.020,0.000,0.000,0.000
1644926798019494144,2022-02-15-12:06:38,10.1.1.8,21,-0.010,-0.010,-0.010,0.000,0.000,0.000
1644926798079764992,2022-02-15-12:06:38,10.1.1.8,31,0.000,0.000,0.000,0.000,0.000,0.000
1644926798119973888,2022-02-15-12:06:38,10.1.1.8,20,0.010,0.010,0.010,0.000,0.000,0.000
1644926798180582144,2022-02-15-12:06:38,10.1.1.8,29,0.020,0.020,0.020,0.000,0.000,0.000
1644926798220002048,2022-02-15-12:06:38,10.1.1.8,19,0.029,0.029,0.029,0.000,0.000,0.000
1644926798279766016,2022-02-15-12:06:38,10.1.1.8,27,0.040,0.040,0.040,0.000,0.000,0.000
1644926798341031168,2022-02-15-12:06:38,10.1.1.8,37,0.050,0.050,0.050,0.000,0.000,0.000
1644926798380049920,2022-02-15-12:06:38,10.1.1.8,26,0.060,0.060,0.060,0.000,0.000,0.000
1644926798442995968,2022-02-15-12:06:38,10.1.1.8,36,0.070,0.070,0.070,0.000,0.000,0.000
1644926798480238080,2022-02-15-12:06:38,10.1.1.8,25,0.080,0.080,0.080,0.000,0.000,0.000
1644926798542584064,2022-02-15-12:06:38,10.1.1.8,35,0.090,0.090,0.090,0.000,0.000,0.000
1644926798579636992,2022-02-15-12:06:38,10.1.1.8,25,0.100,0.100,0.100,0.000,0.000,0.000
1644926798639759104,2022-02-15-12:06:38,10.1.1.8,34,0.090,0.090,0.090,0.000,0.000,0.000
1644926798679505152,2022-02-15-12:06:38,10.1.1.8,24,0.080,0.080,0.080,0.000,0.000,0.000
1644926798739574016,2022-02-15-12:06:38,10.1.1.8,33,0.070,0.070,0.070,0.000,0.000,0.000
1644926798779617024,2022-02-15-12:06:38,10.1.1.8,23,0.060,0.060,0.060,0.000,0.000,0.000
1644926798840105984,2022-02-15-12:06:38,10.1.1.8,32,0.050,0.050,0.050,0.000,0.000,0.000
1644926798882528000,2022-02-15-12:06:38,10.1.1.8,21,0.040,0.040,0.040,0.000,0.000,0.000
1644926798941113856,2022-02-15-12:06:38,10.1.1.8,25,0.030,0.030,0.030,0.000,0.000,0.000
1644926799003150080,2022-02-15-12:06:39,10.1.1.8,36,0.020,0.020,0.020,0.000,0.000,0.000
1644926799039812096,2022-02-15-12:06:39,10.1.1.8,23,0.010,0.010,0.010,0.000,0.000,0.000
1644926799099923968,2022-02-15-12:06:39,10.1.1.8,33,0.000,0.000,0.000,0.000,0.000,0.000
1644926799139583232,2022-02-15-12:06:39,10.1.1.8,23,-0.010,-0.010,-0.010,0.000,0.000,0.000
1644926799201803008,2022-02-15-12:06:39,10.1.1.8,32,-0.020,-0.020,-0.020,0.000,0.000,0.000
1644926799257185024,2022-02-15-12:06:39,10.1.1.8,21,-0.030,-0.030,-0.030,0.000,0.000,0.000
1644926799299853056,2022-02-15-12:06:39,10.1.1.8,28,-0.040,-0.040,-0.040,0.000,0.000,0.000
1644926799362183936,2022-02-15-12:06:39,10.1.1.8,38,-0.050,-0.050,-0.050,0.000,0.000,0.000
1644926799400046080,2022-02-15-12:06:39,10.1.1.8,27,-0.060,-0.060,-0.060,0.000,0.000,0.000
1644926799459803136,2022-02-15-12:06:39,10.1.1.8,37,-0.070,-0.070,-0.070,0.000,0.000,0.000
1644926799499504128,2022-02-15-12:06:39,10.1.1.8,26,-0.080,-0.080,-0.080,0.000,0.000,0.000
1644926799559917056,2022-02-15-12:06:39,10.1.1.8,36,-0.090,-0.090,-0.090,0.000,0.000,0.000
1644926799599801088,2022-02-15-12:06:39,10.1.1.8,25,-0.100,-0.100,-0.100,0.000,0.000,0.000
1644926799660605952,2022-02-15-12:06:39,10.1.1.8,35,-0.090,-0.090,-0.090,0.000,0.000,0.000
1644926799699868928,2022-02-15-12:06:39,10.1.1.8,24,-0.080,-0.080,-0.080,0.000,0.000,0.000
1644926799760333056,2022-02-15-12:06:39,10.1.1.8,33,-0.070,-0.070,-0.070,0.000,0.000,0.000
1644926799800035840,2022-02-15-12:06:39,10.1.1.8,23,-0.060,-0.060,-0.060,0.000,0.000,0.000
1644926799860770816,2022-02-15-12:06:39,10.1.1.8,32,-0.050,-0.050,-0.050,0.000,0.000,0.000
1644926799900124160,2022-02-15-12:06:39,10.1.1.8,22,-0.040,-0.040,-0.040,0.000,0.000,0.000
1644926799959476992,2022-02-15-12:06:39,10.1.1.8,31,-0.030,-0.030,-0.030,0.000,0.000,0.000
1644926800079646208,2022-02-15-12:06:40,10.1.1.8,25,-0.010,-0.010,-0.010,0.000,0.000,0.000
1644926800140829184,2022-02-15-12:06:40,10.1.1.8,35,0.000,0.000,0.000,0.000,0.000,0.000
1644926800180293120,2022-02-15-12:06:40,10.1.1.8,24,0.010,0.010,0.010,0.000,0.000,0.000
1644926800240451072,2022-02-15-12:06:40,10.1.1.8,34,0.020,0.020,0.020,0.000,0.000,0.000
1644926800279351040,2022-02-15-12:06:40,10.1.1.8,22,0.030,0.030,0.030,0.000,0.000,0.000
1644926800339365120,2022-02-15-12:06:40,10.1.1.8,30,0.040,0.040,0.040,0.000,0.000,0.000
1644926800379740928,2022-02-15-12:06:40,10.1.1.8,20,0.050,0.050,0.050,0.000,0.000,0.000
1644926800440867840,2022-02-15-12:06:40,10.1.1.8,30,0.060,0.060,0.060,0.000,0.000,0.000
1644926800479322880,2022-02-15-12:06:40,10.1.1.8,19,0.070,0.070,0.070,0.000,0.000,0.000
1644926800540873984,2022-02-15-12:06:40,10.1.1.8,28,0.080,0.080,0.080,0.000,0.000,0.000
1644926800599802880,2022-02-15-12:06:40,10.1.1.8,37,0.090,0.090,0.090,0.000,0.000,0.000
1644926800639238144,2022-02-15-12:06:40,10.1.1.8,26,0.100,0.100,0.100,0.000,0.000,0.000
1644926800699546112,2022-02-15-12:06:40,10.1.1.8,36,0.090,0.090,0.090,0.000,0.000,0.000
1644926800740769024,2022-02-15-12:06:40,10.1.1.8,25,0.080,0.080,0.080,0.000,0.000,0.000
1644926800800167936,2022-02-15-12:06:40,10.1.1.8,35,0.070,0.070,0.070,0.000,0.000,0.000
1644926800843983872,2022-02-15-12:06:40,10.1.1.8,24,0.060,0.060,0.060,0.000,0.000,0.000
1644926800917511936,2022-02-15-12:06:40,10.1.1.8,34,0.050,0.050,0.050,0.000,0.000,0.000
1644926800979712000,2022-02-15-12:06:40,10.1.1.8,39,0.040,0.040,0.040,0.000,0.000,0.000
1644926801019668224,2022-02-15-12:06:41,10.1.1.8,29,0.030,0.030,0.030,0.000,0.000,0.000
1644926801080578048,2022-02-15-12:06:41,10.1.1.8,37,0.020,0.020,0.020,0.000,0.000,0.000
1644926801120973056,2022-02-15-12:06:41,10.1.1.8,26,0.010,0.010,0.010,0.000,0.000,0.000
1644926801179824128,2022-02-15-12:06:41,10.1.1.8,35,0.000,0.000,0.000,0.000,0.000,0.000
1644926801221338880,2022-02-15-12:06:41,10.1.1.8,24,-0.010,-0.010,-0.010,0.000,0.000,0.000
1644926801279828992,2022-02-15-12:06:41,10.1.1.8,28,-0.020,-0.020,-0.020,0.000,0.000,0.000
1644926801380948992,2022-02-15-12:06:41,10.1.1.8,24,-0.040,-0.040,-0.040,0.000,0.000,0.000
1644926801440287232,2022-02-15-12:06:41,10.1.1.8,33,-0.050,-0.050,-0.050,0.000,0.000,0.000
1644926801480273920,2022-02-15-12:06:41,10.1.1.8,23,-0.060,-0.060,-0.060,0.000,0.000,0.000
1644926801619840000,2022-02-15-12:06:41,10.1.1.8,35,-0.080,-0.080,-0.080,0.000,0.000,0.000
1644926801663113216,2022-02-15-12:06:41,10.1.1.8,24,-0.090,-0.090,-0.090,0.000,0.000,0.000
1644926801720145920,2022-02-15-12:06:41,10.1.1.8,34,-0.100,-0.100,-0.100,0.000,0.000,0.000
1644926801759881984,2022-02-15-12:06:41,10.1.1.8,23,-0.090,-0.090,-0.090,0.000,0.000,0.000
1644926801821444864,2022-02-15-12:06:41,10.1.1.8,32,-0.080,-0.080,-0.080,0.000,0.000,0.000
1644926801863846912,2022-02-15-12:06:41,10.1.1.8,21,-0.070,-0.070,-0.070,0.000,0.000,0.000
1644926801919681024,2022-02-15-12:06:41,10.1.1.8,30,-0.060,-0.060,-0.060,0.000,0.000,0.000
1644926801979314176,2022-02-15-12:06:41,10.1.1.8,38,-0.050,-0.050,-0.050,0.000,0.000,0.000
1644926802024771840,2022-02-15-12:06:42,10.1.1.8,27,-0.040,-0.040,-0.040,0.000,0.000,0.000
1644926802080878848,2022-02-15-12:06:42,10.1.1.8,37,-0.030,-0.030,-0.030,0.000,0.000,0.000
1644926802120613120,2022-02-15-12:06:42,10.1.1.8,25,-0.020,-0.020,-0.020,0.000,0.000,0.000
1644926802179666944,2022-02-15-12:06:42,10.1.1.8,31,-0.010,-0.010,-0.010,0.000,0.000,0.000
1644926802221081088,2022-02-15-12:06:42,10.1.1.8,20,0.000,0.000,0.000,0.000,0.000,0.000
1644926802280702976,2022-02-15-12:06:42,10.1.1.8,29,0.010,0.010,0.010,0.000,0.000,0.000
1644926802346863872,2022-02-15-12:06:42,10.1.1.8,34,0.020,0.020,0.020,0.000,0.000,0.000
1644926802379757824,2022-02-15-12:06:42,10.1.1.8,23,0.030,0.030,0.030,0.000,0.000,0.000
1644926802450045952,2022-02-15-12:06:42,10.1.1.8,33,0.040,0.040,0.040,0.000,0.000,0.000
1644926802500075008,2022-02-15-12:06:42,10.1.1.8,38,0.050,0.050,0.050,0.000,0.000,0.000
1644926802540445952,2022-02-15-12:06:42,10.1.1.8,27,0.060,0.060,0.060,0.000,0.000,0.000
1644926802601010944,2022-02-15-12:06:42,10.1.1.8,37,0.070,0.070,0.070,0.000,0.000,0.000
1644926802640047104,2022-02-15-12:06:42,10.1.1.8,25,0.080,0.080,0.080,0.000,0.000,0.000
1644926802701103872,2022-02-15-12:06:42,10.1.1.8,35,0.090,0.090,0.090,0.000,0.000,0.000
1644926802742512896,2022-02-15-12:06:42,10.1.1.8,22,0.100,0.100,0.100,0.000,0.000,0.000
1644926802800250880,2022-02-15-12:06:42,10.1.1.8,29,0.090,0.090,0.090,0.000,0.000,0.000
1644926802859960064,2022-02-15-12:06:42,10.1.1.8,38,0.080,0.080,0.080,0.000,0.000,0.000
1644926802899468800,2022-02-15-12:06:42,10.1.1.8,27,0.070,0.070,0.070,0.000,0.000,0.000
1644926802963651840,2022-02-15-12:06:42,10.1.1.8,33,0.060,0.060,0.060,0.000,0.000,0.000
1644926803000870912,2022-02-15-12:06:43,10.1.1.8,20,0.050,0.050,0.050,0.000,0.000,0.000
1644926803060532992,2022-02-15-12:06:43,10.1.1.8,29,0.040,0.040,0.040,0.000,0.000,0.000
1644926803126852096,2022-02-15-12:06:43,10.1.1.8,38,0.030,0.030,0.030,0.000,0.000,0.000
1644926803160857088,2022-02-15-12:06:43,10.1.1.8,27,0.020,0.020,0.020,0.000,0.000,0.000
1644926803221152000,2022-02-15-12:06:43,10.1.1.8,35,0.010,0.010,0.010,0.000,0.000,0.000
1644926803263573760,2022-02-15-12:06:43,10.1.1.8,24,0.000,0.000,0.000,0.000,0.000,0.000
1644926803342978048,2022-02-15-12:06:43,10.1.1.8,29,-0.010,-0.010,-0.010,0.000,0.000,0.000
1644926803399538944,2022-02-15-12:06:43,10.1.1.8,38,-0.020,-0.020,-0.020,0.000,0.000,0.000
1644926803440221952,2022-02-15-12:06:43,10.1.1.8,28,-0.030,-0.030,-0.030,0.000,0.000,0.000
1644926803500603904,2022-02-15-12:06:43,10.1.1.8,37,-0.040,-0.040,-0.040,0.000,0.000,0.000
1644926803544925952,2022-02-15-12:06:43,10.1.1.8,27,-0.050,-0.050,-0.050,0.000,0.000,0.000
1644926803599653888,2022-02-15-12:06:43,10.1.1.8,36,-0.060,-0.060,-0.060,0.000,0.000,0.000
1644926803640898048,2022-02-15-12:06:43,10.1.1.8,26,-0.070,-0.070,-0.070,0.000,0.000,0.000
1644926803699805952,2022-02-15-12:06:43,10.1.1.8,34,-0.080,-0.080,-0.080,0.000,0.000,0.000
1644926803743424000,2022-02-15-12:06:43,10.1.1.8,23,-0.090,-0.090,-0.090,0.000,0.000,0.000
1644926803801650944,2022-02-15-12:06:43,10.1.1.8,31,-0.100,-0.100,-0.100,0.000,0.000,0.000
1644926803839992064,2022-02-15-12:06:43,10.1.1.8,20,-0.090,-0.090,-0.090,0.000,0.000,0.000
1644926803902172160,2022-02-15-12:06:43,10.1.1.8,29,-0.080,-0.080,-0.080,0.000,0.000,0.000
1644926803944205056,2022-02-15-12:06:43,10.1.1.8,19,-0.071,-0.071,-0.071,0.000,0.000,0.000
1644926804000782848,2022-02-15-12:06:44,10.1.1.8,28,-0.060,-0.060,-0.060,0.000,0.000,0.000
1644926804061284096,2022-02-15-12:06:44,10.1.1.8,38,-0.050,-0.050,-0.050,0.000,0.000,0.000
1644926804099913984,2022-02-15-12:06:44,10.1.1.8,26,-0.040,-0.040,-0.040,0.000,0.000,0.000
1644926804161853952,2022-02-15-12:06:44,10.1.1.8,35,-0.030,-0.030,-0.030,0.000,0.000,0.000
1644926804203897856,2022-02-15-12:06:44,10.1.1.8,24,-0.020,-0.020,-0.020,0.000,0.000,0.000
1644926804275064832,2022-02-15-12:06:44,10.1.1.8,28,-0.010,-0.010,-0.010,0.000,0.000,0.000
1644926804321711104,2022-02-15-12:06:44,10.1.1.8,36,0.000,0.000,0.000,0.000,0.000,0.000
1644926804360680960,2022-02-15-12:06:44,10.1.1.8,26,0.010,0.010,0.010,0.000,0.000,0.000
1644926804421256192,2022-02-15-12:06:44,10.1.1.8,35,0.020,0.020,0.020,0.000,0.000,0.000
1644926804462668032,2022-02-15-12:06:44,10.1.1.8,24,0.030,0.030,0.030,0.000,0.000,0.000
1644926804521629952,2022-02-15-12:06:44,10.1.1.8,34,0.040,0.040,0.040,0.000,0.000,0.000
1644926804559511040,2022-02-15-12:06:44,10.1.1.8,23,0.050,0.050,0.050,0.000,0.000,0.000
1644926804624512000,2022-02-15-12:06:44,10.1.1.8,33,0.060,0.060,0.060,0.000,0.000,0.000
1644926804673219840,2022-02-15-12:06:44,10.1.1.8,22,0.070,0.070,0.070,0.000,0.000,0.000
1644926804731627008,2022-02-15-12:06:44,10.1.1.8,28,0.080,0.080,0.080,0.000,0.000,0.000
1644926804779710976,2022-02-15-12:06:44,10.1.1.8,37,0.090,0.090,0.090,0.000,0.000,0.000
1644926804819927040,2022-02-15-12:06:44,10.1.1.8,26,0.100,0.100,0.100,0.000,0.000,0.000
1644926804882126080,2022-02-15-12:06:44,10.1.1.8,34,0.090,0.090,0.090,0.000,0.000,0.000
1644926804920593920,2022-02-15-12:06:44,10.1.1.8,24,0.080,0.080,0.080,0.000,0.000,0.000
1644926804980815872,2022-02-15-12:06:44,10.1.1.8,31,0.070,0.070,0.070,0.000,0.000,0.000
1644926805021411840,2022-02-15-12:06:45,10.1.1.8,21,0.060,0.060,0.060,0.000,0.000,0.000
1644926805080014080,2022-02-15-12:06:45,10.1.1.8,31,0.050,0.050,0.050,0.000,0.000,0.000
1644926805120273152,2022-02-15-12:06:45,10.1.1.8,20,0.040,0.040,0.040,0.000,0.000,0.000
1644926805180608000,2022-02-15-12:06:45,10.1.1.8,30,0.030,0.030,0.030,0.000,0.000,0.000
1644926805222052096,2022-02-15-12:06:45,10.1.1.8,19,0.021,0.021,0.021,0.000,0.000,0.000
1644926805280952064,2022-02-15-12:06:45,10.1.1.8,28,0.010,0.010,0.010,0.000,0.000,0.000
1644926805340739072,2022-02-15-12:06:45,10.1.1.8,33,0.000,0.000,0.000,0.000,0.000,0.000
1644926805381660928,2022-02-15-12:06:45,10.1.1.8,19,-0.010,-0.010,-0.010,0.000,0.000,0.000
1644926805440702976,2022-02-15-12:06:45,10.1.1.8,28,-0.020,-0.020,-0.020,0.000,0.000,0.000
1644926805499717120,2022-02-15-12:06:45,10.1.1.8,37,-0.030,-0.030,-0.030,0.000,0.000,0.000
1644926805543898112,2022-02-15-12:06:45,10.1.1.8,25,-0.040,-0.040,-0.040,0.000,0.000,0.000
1644926805642534912,2022-02-15-12:06:45,10.1.1.8,23,-0.060,-0.060,-0.060,0.000,0.000,0.000
1644926805699712000,2022-02-15-12:06:45,10.1.1.8,32,-0.070,-0.070,-0.070,0.000,0.000,0.000
1644926805739691008,2022-02-15-12:06:45,10.1.1.8,20,-0.080,-0.080,-0.080,0.000,0.000,0.000
1644926805806881792,2022-02-15-12:06:45,10.1.1.8,30,-0.090,-0.090,-0.090,0.000,0.000,0.000
1644926805860715008,2022-02-15-12:06:45,10.1.1.8,38,-0.100,-0.100,-0.100,0.000,0.000,0.000
1644926805907518976,2022-02-15-12:06:45,10.1.1.8,28,-0.090,-0.090,-0.090,0.000,0.000,0.000
1644926805960732928,2022-02-15-12:06:45,10.1.1.8,36,-0.080,-0.080,-0.080,0.000,0.000,0.000
1644926805999133952,2022-02-15-12:06:45,10.1.1.8,26,-0.070,-0.070,-0.070,0.000,0.000,0.000
1644926806060045056,2022-02-15-12:06:46,10.1.1.8,35,-0.060,-0.060,-0.060,0.000,0.000,0.000
1644926806100990976,2022-02-15-12:06:46,10.1.1.8,24,-0.050,-0.050,-0.050,0.000,0.000,0.000
1644926806161648896,2022-02-15-12:06:46,10.1.1.8,33,-0.040,-0.040,-0.040,0.000,0.000,0.000
1644926806199296000,2022-02-15-12:06:46,10.1.1.8,22,-0.030,-0.030,-0.030,0.000,0.000,0.000
1644926806260182016,2022-02-15-12:06:46,10.1.1.8,31,-0.020,-0.020,-0.020,0.000,0.000,0.000
1644926806299278080,2022-02-15-12:06:46,10.1.1.8,20,-0.010,-0.010,-0.010,0.000,0.000,0.000
1644926806360860160,2022-02-15-12:06:46,10.1.1.8,29,0.000,0.000,0.000,0.000,0.000,0.000
1644926806419388160,2022-02-15-12:06:46,10.1.1.8,38,0.010,0.010,0.010,0.000,0.000,0.000
1644926806459530240,2022-02-15-12:06:46,10.1.1.8,27,0.020,0.020,0.020,0.000,0.000,0.000
1644926806520184064,2022-02-15-12:06:46,10.1.1.8,37,0.030,0.030,0.030,0.000,0.000,0.000
1644926806559091968,2022-02-15-12:06:46,10.1.1.8,26,0.040,0.040,0.040,0.000,0.000,0.000
1644926806619493120,2022-02-15-12:06:46,10.1.1.8,36,0.050,0.050,0.050,0.000,0.000,0.000
1644926806659746048,2022-02-15-12:06:46,10.1.1.8,26,0.060,0.060,0.060,0.000,0.000,0.000
1644926806719815936,2022-02-15-12:06:46,10.1.1.8,35,0.070,0.070,0.070,0.000,0.000,0.000
1644926806759119872,2022-02-15-12:06:46,10.1.1.8,25,0.080,0.080,0.080,0.000,0.000,0.000
1644926806819760128,2022-02-15-12:06:46,10.1.1.8,34,0.090,0.090,0.090,0.000,0.000,0.000
1644926806859375872,2022-02-15-12:06:46,10.1.1.8,24,0.100,0.100,0.100,0.000,0.000,0.000
1644926806919166976,2022-02-15-12:06:46,10.1.1.8,33,0.090,0.090,0.090,0.000,0.000,0.000
1644926806959404032,2022-02-15-12:06:46,10.1.1.8,23,0.080,0.080,0.080,0.000,0.000,0.000
1644926807019613952,2022-02-15-12:06:47,10.1.1.8,33,0.070,0.070,0.070,0.000,0.000,0.000
1644926807059791104,2022-02-15-12:06:47,10.1.1.8,22,0.060,0.060,0.060,0.000,0.000,0.000
1644926807119751936,2022-02-15-12:06:47,10.1.1.8,31,0.050,0.050,0.050,0.000,0.000,0.000
1644926807159218944,2022-02-15-12:06:47,10.1.1.8,21,0.040,0.040,0.040,0.000,0.000,0.000
1644926807219467008,2022-02-15-12:06:47,10.1.1.8,30,0.030,0.030,0.030,0.000,0.000,0.000
1644926807259552000,2022-02-15-12:06:47,10.1.1.8,19,0.020,0.020,0.020,0.000,0.000,0.000
1644926807320561920,2022-02-15-12:06:47,10.1.1.8,29,0.010,0.010,0.010,0.000,0.000,0.000
1644926807379854848,2022-02-15-12:06:47,10.1.1.8,38,0.000,0.000,0.000,0.000,0.000,0.000
1644926807419405056,2022-02-15-12:06:47,10.1.1.8,28,-0.010,-0.010,-0.010,0.000,0.000,0.000
1644926807480079872,2022-02-15-12:06:47,10.1.1.8,37,-0.020,-0.020,-0.020,0.000,0.000,0.000
1644926807520015872,2022-02-15-12:06:47,10.1.1.8,27,-0.030,-0.030,-0.030,0.000,0.000,0.000
1644926807579611904,2022-02-15-12:06:47,10.1.1.8,36,-0.040,-0.040,-0.040,0.000,0.000,0.000
1644926807619250944,2022-02-15-12:06:47,10.1.1.8,26,-0.050,-0.050,-0.050,0.000,0.000,0.000
1644926807679339008,2022-02-15-12:06:47,10.1.1.8,35,-0.060,-0.060,-0.060,0.000,0.000,0.000
1644926807720058880,2022-02-15-12:06:47,10.1.1.8,25,-0.070,-0.070,-0.070,0.000,0.000,0.000
1644926807779352064,2022-02-15-12:06:47,10.1.1.8,34,-0.080,-0.080,-0.080,0.000,0.000,0.000
1644926807819516928,2022-02-15-12:06:47,10.1.1.8,24,-0.090,-0.090,-0.090,0.000,0.000,0.000
1644926807920891136,2022-02-15-12:06:47,10.1.1.8,22,-0.090,-0.090,-0.090,0.000,0.000,0.000
1644926807983095808,2022-02-15-12:06:47,10.1.1.8,31,-0.080,-0.080,-0.080,0.000,0.000,0.000
1644926808025979136,2022-02-15-12:06:48,10.1.1.8,20,-0.070,-0.070,-0.070,0.000,0.000,0.000
1644926808080007936,2022-02-15-12:06:48,10.1.1.8,30,-0.060,-0.060,-0.060,0.000,0.000,0.000
1644926808120071936,2022-02-15-12:06:48,10.1.1.8,19,-0.050,-0.050,-0.050,0.000,0.000,0.000
1644926808183508992,2022-02-15-12:06:48,10.1.1.8,28,-0.040,-0.040,-0.040,0.000,0.000,0.000
1644926808239588864,2022-02-15-12:06:48,10.1.1.8,38,-0.030,-0.030,-0.030,0.000,0.000,0.000
1644926808280632064,2022-02-15-12:06:48,10.1.1.8,28,-0.020,-0.020,-0.020,0.000,0.000,0.000
1644926808339556864,2022-02-15-12:06:48,10.1.1.8,37,-0.010,-0.010,-0.010,0.000,0.000,0.000
1644926808381588992,2022-02-15-12:06:48,10.1.1.8,26,0.000,0.000,0.000,0.000,0.000,0.000
1644926808440196096,2022-02-15-12:06:48,10.1.1.8,36,0.010,0.010,0.010,0.000,0.000,0.000
1644926808479950848,2022-02-15-12:06:48,10.1.1.8,25,0.020,0.020,0.020,0.000,0.000,0.000
1644926808539961088,2022-02-15-12:06:48,10.1.1.8,34,0.030,0.030,0.030,0.000,0.000,0.000
1644926808579792896,2022-02-15-12:06:48,10.1.1.8,24,0.040,0.040,0.040,0.000,0.000,0.000
1644926808639600128,2022-02-15-12:06:48,10.1.1.8,34,0.050,0.050,0.050,0.000,0.000,0.000
1644926808679682048,2022-02-15-12:06:48,10.1.1.8,23,0.060,0.060,0.060,0.000,0.000,0.000
1644926808740185088,2022-02-15-12:06:48,10.1.1.8,32,0.070,0.070,0.070,0.000,0.000,0.000
1644926808780548096,2022-02-15-12:06:48,10.1.1.8,21,0.080,0.080,0.080,0.000,0.000,0.000
1644926808839790080,2022-02-15-12:06:48,10.1.1.8,30,0.090,0.090,0.090,0.000,0.000,0.000
1644926808880958208,2022-02-15-12:06:48,10.1.1.8,20,0.100,0.100,0.100,0.000,0.000,0.000
1644926808942635008,2022-02-15-12:06:48,10.1.1.8,29,0.090,0.090,0.090,0.000,0.000,0.000
1644926809003622144,2022-02-15-12:06:49,10.1.1.8,38,0.080,0.080,0.080,0.000,0.000,0.000
1644926809041665024,2022-02-15-12:06:49,10.1.1.8,27,0.070,0.070,0.070,0.000,0.000,0.000
1644926809104183040,2022-02-15-12:06:49,10.1.1.8,36,0.060,0.060,0.060,0.000,0.000,0.000
1644926809144632064,2022-02-15-12:06:49,10.1.1.8,25,0.050,0.050,0.050,0.000,0.000,0.000
1644926809201010944,2022-02-15-12:06:49,10.1.1.8,35,0.040,0.040,0.040,0.000,0.000,0.000
1644926809240457984,2022-02-15-12:06:49,10.1.1.8,24,0.030,0.030,0.030,0.000,0.000,0.000
1644926809304263168,2022-02-15-12:06:49,10.1.1.8,34,0.020,0.020,0.020,0.000,0.000,0.000
1644926809346041856,2022-02-15-12:06:49,10.1.1.8,23,0.010,0.010,0.010,0.000,0.000,0.000
1644926809399166208,2022-02-15-12:06:49,10.1.1.8,32,0.000,0.000,0.000,0.000,0.000,0.000
1644926809440099072,2022-02-15-12:06:49,10.1.1.8,22,-0.010,-0.010,-0.010,0.000,0.000,0.000
1644926809499779840,2022-02-15-12:06:49,10.1.1.8,31,-0.020,-0.020,-0.020,0.000,0.000,0.000
1644926809540240128,2022-02-15-12:06:49,10.1.1.8,20,-0.030,-0.030,-0.030,0.000,0.000,0.000
1644926809599324928,2022-02-15-12:06:49,10.1.1.8,30,-0.040,-0.040,-0.040,0.000,0.000,0.000
1644926809642036992,2022-02-15-12:06:49,10.1.1.8,19,-0.050,-0.050,-0.050,0.000,0.000,0.000
1644926809699330048,2022-02-15-12:06:49,10.1.1.8,29,-0.060,-0.060,-0.060,0.000,0.000,0.000
1644926809740052992,2022-02-15-12:06:49,10.1.1.8,19,-0.069,-0.069,-0.069,0.000,0.000,0.000
1644926809799324928,2022-02-15-12:06:49,10.1.1.8,28,-0.080,-0.080,-0.080,0.000,0.000,0.000
1644926809861933824,2022-02-15-12:06:49,10.1.1.8,37,-0.090,-0.090,-0.090,0.000,0.000,0.000
1644926809907593984,2022-02-15-12:06:49,10.1.1.8,27,-0.100,-0.100,-0.100,0.000,0.000,0.000
1644926809959706112,2022-02-15-12:06:49,10.1.1.8,35,-0.090,-0.090,-0.090,0.000,0.000,0.000
1644926809999854080,2022-02-15-12:06:49,10.1.1.8,24,-0.080,-0.080,-0.080,0.000,0.000,0.000
1644926810059403776,2022-02-15-12:06:50,10.1.1.8,34,-0.070,-0.070,-0.070,0.000,0.000,0.000
1644926810099771136,2022-02-15-12:06:50,10.1.1.8,23,-0.060,-0.060,-0.060,0.000,0.000,0.000
1644926810159275008,2022-02-15-12:06:50,10.1.1.8,33,-0.050,-0.050,-0.050,0.000,0.000,0.000
1644926810199141888,2022-02-15-12:06:50,10.1.1.8,22,-0.040,-0.040,-0.040,0.000,0.000,0.000
1644926810258992896,2022-02-15-12:06:50,10.1.1.8,31,-0.030,-0.030,-0.030,0.000,0.000,0.000
1644926810299627008,2022-02-15-12:06:50,10.1.1.8,21,-0.020,-0.020,-0.020,0.000,0.000,0.000
1644926810359927808,2022-02-15-12:06:50,10.1.1.8,30,-0.010,-0.010,-0.010,0.000,0.000,0.000
1644926810399619072,2022-02-15-12:06:50,10.1.1.8,20,0.000,0.000,0.000,0.000,0.000,0.000
1644926810460134912,2022-02-15-12:06:50,10.1.1.8,30,0.010,0.010,0.010,0.000,0.000,0.000
1644926810520070144,2022-02-15-12:06:50,10.1.1.8,39,0.020,0.020,0.020,0.000,0.000,0.000
1644926810559838976,2022-02-15-12:06:50,10.1.1.8,29,0.030,0.030,0.030,0.000,0.000,0.000
1644926810619980032,2022-02-15-12:06:50,10.1.1.8,38,0.040,0.040,0.040,0.000,0.000,0.000
1644926810661063936,2022-02-15-12:06:50,10.1.1.8,27,0.050,0.050,0.050,0.000,0.000,0.000
1644926810719631872,2022-02-15-12:06:50,10.1.1.8,37,0.060,0.060,0.060,0.000,0.000,0.000
1644926810763863040,2022-02-15-12:06:50,10.1.1.8,26,0.070,0.070,0.070,0.000,0.000,0.000
1644926810819798016,2022-02-15-12:06:50,10.1.1.8,35,0.080,0.080,0.080,0.000,0.000,0.000
1644926810859094016,2022-02-15-12:06:50,10.1.1.8,25,0.090,0.090,0.090,0.000,0.000,0.000
1644926810926623232,2022-02-15-12:06:50,10.1.1.8,34,0.100,0.100,0.100,0.000,0.000,0.000
1644926810960446976,2022-02-15-12:06:50,10.1.1.8,24,0.090,0.090,0.090,0.000,0.000,0.000
1644926811019553024,2022-02-15-12:06:51,10.1.1.8,33,0.080,0.080,0.080,0.000,0.000,0.000
1644926811059480832,2022-02-15-12:06:51,10.1.1.8,22,0.070,0.070,0.070,0.000,0.000,0.000
1644926811119715072,2022-02-15-12:06:51,10.1.1.8,29,0.060,0.060,0.060,0.000,0.000,0.000
1644926811160870912,2022-02-15-12:06:51,10.1.1.8,19,0.050,0.050,0.050,0.000,0.000,0.000
1644926811220109824,2022-02-15-12:06:51,10.1.1.8,28,0.040,0.040,0.040,0.000,0.000,0.000
1644926811278973184,2022-02-15-12:06:51,10.1.1.8,38,0.030,0.030,0.030,0.000,0.000,0.000
1644926811319531008,2022-02-15-12:06:51,10.1.1.8,28,0.020,0.020,0.020,0.000,0.000,0.000
1644926811381359104,2022-02-15-12:06:51,10.1.1.8,37,0.010,0.010,0.010,0.000,0.000,0.000
1644926811419430144,2022-02-15-12:06:51,10.1.1.8,27,0.000,0.000,0.000,0.000,0.000,0.000
1644926811479672832,2022-02-15-12:06:51,10.1.1.8,36,-0.010,-0.010,-0.010,0.000,0.000,0.000
1644926811519568896,2022-02-15-12:06:51,10.1.1.8,25,-0.020,-0.020,-0.020,0.000,0.000,0.000
1644926811580171008,2022-02-15-12:06:51,10.1.1.8,35,-0.030,-0.030,-0.030,0.000,0.000,0.000
1644926811624412160,2022-02-15-12:06:51,10.1.1.8,24,-0.040,-0.040,-0.040,0.000,0.000,0.000
1644926811688577024,2022-02-15-12:06:51,10.1.1.8,23,-0.050,-0.050,-0.050,0.000,0.000,0.000
1644926811739564800,2022-02-15-12:06:51,10.1.1.8,31,-0.060,-0.060,-0.060,0.000,0.000,0.000
1644926811781869056,2022-02-15-12:06:51,10.1.1.8,20,-0.070,-0.070,-0.070,0.000,0.000,0.000
1644926811840285184,2022-02-15-12:06:51,10.1.1.8,29,-0.080,-0.080,-0.080,0.000,0.000,0.000
1644926811891947008,2022-02-15-12:06:51,10.1.1.8,19,-0.089,-0.089,-0.089,0.000,0.000,0.000
1644926811941585152,2022-02-15-12:06:51,10.1.1.8,28,-0.100,-0.100,-0.100,0.000,0.000,0.000
1644926811999561984,2022-02-15-12:06:51,10.1.1.8,38,-0.090,-0.090,-0.090,0.000,0.000,0.000
1644926812039275776,2022-02-15-12:06:52,10.1.1.8,28,-0.080,-0.080,-0.080,0.000,0.000,0.000
1644926812100403968,2022-02-15-12:06:52,10.1.1.8,37,-0.070,-0.070,-0.070,0.000,0.000,0.000
1644926812141129984,2022-02-15-12:06:52,10.1.1.8,26,-0.060,-0.060,-0.060,0.000,0.000,0.000
1644926812201466112,2022-02-15-12:06:52,10.1.1.8,35,-0.050,-0.050,-0.050,0.000,0.000,0.000
1644926812239300096,2022-02-15-12:06:52,10.1.1.8,24,-0.040,-0.040,-0.040,0.000,0.000,0.000
1644926812302507008,2022-02-15-12:06:52,10.1.1.8,33,-0.030,-0.030,-0.030,0.000,0.000,0.000
1644926812341584896,2022-02-15-12:06:52,10.1.1.8,22,-0.020,-0.020,-0.020,0.000,0.000,0.000
1644926812399385856,2022-02-15-12:06:52,10.1.1.8,31,-0.010,-0.010,-0.010,0.000,0.000,0.000
1644926812439801856,2022-02-15-12:06:52,10.1.1.8,20,0.000,0.000,0.000,0.000,0.000,0.000
1644926812500214016,2022-02-15-12:06:52,10.1.1.8,29,0.010,0.010,0.010,0.000,0.000,0.000
1644926812541217024,2022-02-15-12:06:52,10.1.1.8,19,0.019,0.019,0.019,0.000,0.000,0.000
1644926812600869888,2022-02-15-12:06:52,10.1.1.8,28,0.030,0.030,0.030,0.000,0.000,0.000
1644926812662599936,2022-02-15-12:06:52,10.1.1.8,37,0.040,0.040,0.040,0.000,0.000,0.000
1644926812700244992,2022-02-15-12:06:52,10.1.1.8,26,0.050,0.050,0.050,0.000,0.000,0.000
1644926812760061952,2022-02-15-12:06:52,10.1.1.8,35,0.060,0.060,0.060,0.000,0.000,0.000
1644926812799981056,2022-02-15-12:06:52,10.1.1.8,24,0.070,0.070,0.070,0.000,0.000,0.000
1644926812862126080,2022-02-15-12:06:52,10.1.1.8,33,0.080,0.080,0.080,0.000,0.000,0.000
1644926812899813888,2022-02-15-12:06:52,10.1.1.8,22,0.090,0.090,0.090,0.000,0.000,0.000
1644926812963643904,2022-02-15-12:06:52,10.1.1.8,31,0.100,0.100,0.100,0.000,0.000,0.000
1644926812999311872,2022-02-15-12:06:52,10.1.1.8,20,0.090,0.090,0.090,0.000,0.000,0.000
1644926813061731072,2022-02-15-12:06:53,10.1.1.8,30,0.080,0.080,0.080,0.000,0.000,0.000
1644926813100856064,2022-02-15-12:06:53,10.1.1.8,18,0.071,0.071,0.071,0.000,0.000,0.000
1644926813160016896,2022-02-15-12:06:53,10.1.1.8,28,0.060,0.060,0.060,0.000,0.000,0.000
1644926813220236032,2022-02-15-12:06:53,10.1.1.8,37,0.050,0.050,0.050,0.000,0.000,0.000
1644926813262632960,2022-02-15-12:06:53,10.1.1.8,26,0.040,0.040,0.040,0.000,0.000,0.000
1644926813320157952,2022-02-15-12:06:53,10.1.1.8,36,0.030,0.030,0.030,0.000,0.000,0.000
1644926813420884992,2022-02-15-12:06:53,10.1.1.8,34,0.010,0.010,0.010,0.000,0.000,0.000
1644926813463033856,2022-02-15-12:06:53,10.1.1.8,23,0.000,0.000,0.000,0.000,0.000,0.000
1644926813522339072,2022-02-15-12:06:53,10.1.1.8,32,-0.010,-0.010,-0.010,0.000,0.000,0.000
1644926813560235008,2022-02-15-12:06:53,10.1.1.8,20,-0.020,-0.020,-0.020,0.000,0.000,0.000
1644926813619559168,2022-02-15-12:06:53,10.1.1.8,29,-0.030,-0.030,-0.030,0.000,0.000,0.000
1644926813679451904,2022-02-15-12:06:53,10.1.1.8,37,-0.040,-0.040,-0.040,0.000,0.000,0.000
1644926813722738944,2022-02-15-12:06:53,10.1.1.8,27,-0.050,-0.050,-0.050,0.000,0.000,0.000
1644926813779572992,2022-02-15-12:06:53,10.1.1.8,35,-0.060,-0.060,-0.060,0.000,0.000,0.000
1644926813824174848,2022-02-15-12:06:53,10.1.1.8,24,-0.070,-0.070,-0.070,0.000,0.000,0.000
1644926813879600896,2022-02-15-12:06:53,10.1.1.8,34,-0.080,-0.080,-0.080,0.000,0.000,0.000
1644926813921149952,2022-02-15-12:06:53,10.1.1.8,23,-0.090,-0.090,-0.090,0.000,0.000,0.000
1644926813979741952,2022-02-15-12:06:53,10.1.1.8,32,-0.100,-0.100,-0.100,0.000,0.000,0.000
1644926814019939072,2022-02-15-12:06:54,10.1.1.8,21,-0.090,-0.090,-0.090,0.000,0.000,0.000
1644926814080835072,2022-02-15-12:06:54,10.1.1.8,30,-0.080,-0.080,-0.080,0.000,0.000,0.000
1644926814120923904,2022-02-15-12:06:54,10.1.1.8,20,-0.070,-0.070,-0.070,0.000,0.000,0.000
1644926814200753920,2022-02-15-12:06:54,10.1.1.8,19,-0.060,-0.060,-0.060,0.000,0.000,0.000
1644926814299864064,2022-02-15-12:06:54,10.1.1.8,37,-0.050,-0.050,-0.050,0.000,0.000,0.000
1644926814339746048,2022-02-15-12:06:54,10.1.1.8,25,-0.040,-0.040,-0.040,0.000,0.000,0.000
1644926814400556032,2022-02-15-12:06:54,10.1.1.8,34,-0.030,-0.030,-0.030,0.000,0.000,0.000
1644926814440247040,2022-02-15-12:06:54,10.1.1.8,24,-0.020,-0.020,-0.020,0.000,0.000,0.000
