FedericoMungari/DigitalTwin_service/01_WiredScenario/Output/Output_script/script_rosapi_2_output_robots4_freq0_2.txt
timestamp,date,node,latency,joint_1,joint_2,joint_3,joint_4,joint_5,joint_6
1641079829532964096,2022-01-01-23:30:29,10.1.1.3,151,-0.010,-0.010,-0.010,0.000,0.000,0.000
1641079829734337024,2022-01-01-23:30:29,10.1.1.3,154,-0.020,-0.020,-0.020,0.000,0.000,0.000
1641079829929570048,2022-01-01-23:30:29,10.1.1.3,149,-0.030,-0.030,-0.030,0.000,0.000,0.000
1641079830130292992,2022-01-01-23:30:30,10.1.1.3,149,-0.040,-0.040,-0.040,0.000,0.000,0.000
1641079830332325888,2022-01-01-23:30:30,10.1.1.3,148,-0.050,-0.050,-0.050,0.000,0.000,0.000
1641079830531580928,2022-01-01-23:30:30,10.1.1.3,148,-0.060,-0.060,-0.060,0.000,0.000,0.000
1641079830730964992,2022-01-01-23:30:30,10.1.1.3,144,-0.070,-0.070,-0.070,0.000,0.000,0.000
1641079830932847104,2022-01-01-23:30:30,10.1.1.3,145,-0.080,-0.080,-0.080,0.000,0.000,0.000
1641079831132519936,2022-01-01-23:30:31,10.1.1.3,143,-0.090,-0.090,-0.090,0.000,0.000,0.000
1641079831334556160,2022-01-01-23:30:31,10.1.1.3,143,-0.100,-0.100,-0.100,0.000,0.000,0.000
1641079831536048896,2022-01-01-23:30:31,10.1.1.3,140,-0.110,-0.110,-0.110,0.000,0.000,0.000
1641079831756128000,2022-01-01-23:30:31,10.1.1.3,158,-0.120,-0.120,-0.120,0.000,0.000,0.000
1641079831953972992,2022-01-01-23:30:31,10.1.1.3,156,-0.130,-0.130,-0.130,0.000,0.000,0.000
1641079832155958016,2022-01-01-23:30:32,10.1.1.3,157,-0.140,-0.140,-0.140,0.000,0.000,0.000
1641079832353832960,2022-01-01-23:30:32,10.1.1.3,154,-0.150,-0.150,-0.150,0.000,0.000,0.000
1641079832556518912,2022-01-01-23:30:32,10.1.1.3,153,-0.160,-0.160,-0.160,0.000,0.000,0.000
1641079832754785024,2022-01-01-23:30:32,10.1.1.3,153,-0.170,-0.170,-0.170,0.000,0.000,0.000
1641079832953635840,2022-01-01-23:30:32,10.1.1.3,150,-0.180,-0.180,-0.180,0.000,0.000,0.000
1641079833158395904,2022-01-01-23:30:33,10.1.1.3,151,-0.190,-0.190,-0.190,0.000,0.000,0.000
1641079833355026944,2022-01-01-23:30:33,10.1.1.3,149,-0.200,-0.200,-0.200,0.000,0.000,0.000
1641079833554440960,2022-01-01-23:30:33,10.1.1.3,148,-0.210,-0.210,-0.210,0.000,0.000,0.000
1641079833756539136,2022-01-01-23:30:33,10.1.1.3,149,-0.220,-0.220,-0.220,0.000,0.000,0.000
1641079833954587904,2022-01-01-23:30:33,10.1.1.3,144,-0.230,-0.230,-0.230,0.000,0.000,0.000
1641079834178340864,2022-01-01-23:30:34,10.1.1.3,166,-0.240,-0.240,-0.240,0.000,0.000,0.000
1641079834356482048,2022-01-01-23:30:34,10.1.1.3,142,-0.250,-0.250,-0.250,0.000,0.000,0.000
1641079834575294976,2022-01-01-23:30:34,10.1.1.3,160,-0.260,-0.260,-0.260,0.000,0.000,0.000
1641079834775429120,2022-01-01-23:30:34,10.1.1.3,157,-0.270,-0.270,-0.270,0.000,0.000,0.000
1641079834975897088,2022-01-01-23:30:34,10.1.1.3,156,-0.280,-0.280,-0.280,0.000,0.000,0.000
1641079835176014848,2022-01-01-23:30:35,10.1.1.3,155,-0.290,-0.290,-0.290,0.000,0.000,0.000
1641079835379460096,2022-01-01-23:30:35,10.1.1.3,154,-0.300,-0.300,-0.300,0.000,0.000,0.000
1641079835576186880,2022-01-01-23:30:35,10.1.1.3,153,-0.310,-0.310,-0.310,0.000,0.000,0.000
1641079835775844096,2022-01-01-23:30:35,10.1.1.3,151,-0.320,-0.320,-0.320,0.000,0.000,0.000
1641079835982228992,2022-01-01-23:30:35,10.1.1.3,157,-0.330,-0.330,-0.330,0.000,0.000,0.000
1641079836175673856,2022-01-01-23:30:36,10.1.1.3,149,-0.340,-0.340,-0.340,0.000,0.000,0.000
1641079836376965120,2022-01-01-23:30:36,10.1.1.3,149,-0.350,-0.350,-0.350,0.000,0.000,0.000
1641079836598540032,2022-01-01-23:30:36,10.1.1.3,165,-0.360,-0.360,-0.360,0.000,0.000,0.000
1641079836799845888,2022-01-01-23:30:36,10.1.1.3,167,-0.370,-0.370,-0.370,0.000,0.000,0.000
1641079836999357952,2022-01-01-23:30:36,10.1.1.3,165,-0.380,-0.380,-0.380,0.000,0.000,0.000
1641079837197169152,2022-01-01-23:30:37,10.1.1.3,162,-0.390,-0.390,-0.390,0.000,0.000,0.000
1641079837396186112,2022-01-01-23:30:37,10.1.1.3,158,-0.400,-0.400,-0.400,0.000,0.000,0.000
1641079837600925952,2022-01-01-23:30:37,10.1.1.3,157,-0.410,-0.410,-0.410,0.000,0.000,0.000
1641079837798141952,2022-01-01-23:30:37,10.1.1.3,153,-0.420,-0.420,-0.420,0.000,0.000,0.000
1641079837996943104,2022-01-01-23:30:37,10.1.1.3,150,-0.430,-0.430,-0.430,0.000,0.000,0.000
1641079838197372928,2022-01-01-23:30:38,10.1.1.3,150,-0.440,-0.440,-0.440,0.000,0.000,0.000
1641079838398511872,2022-01-01-23:30:38,10.1.1.3,150,-0.450,-0.450,-0.450,0.000,0.000,0.000
1641079838597126912,2022-01-01-23:30:38,10.1.1.3,147,-0.460,-0.460,-0.460,0.000,0.000,0.000
1641079838799823872,2022-01-01-23:30:38,10.1.1.3,149,-0.470,-0.470,-0.470,0.000,0.000,0.000
1641079839020090112,2022-01-01-23:30:39,10.1.1.3,164,-0.480,-0.480,-0.480,0.000,0.000,0.000
1641079839222466048,2022-01-01-23:30:39,10.1.1.3,163,-0.490,-0.490,-0.490,0.000,0.000,0.000
1641079839417323008,2022-01-01-23:30:39,10.1.1.3,162,-0.480,-0.480,-0.480,0.000,0.000,0.000
1641079839622228992,2022-01-01-23:30:39,10.1.1.3,166,-0.470,-0.470,-0.470,0.000,0.000,0.000
1641079839818608896,2022-01-01-23:30:39,10.1.1.3,160,-0.460,-0.460,-0.460,0.000,0.000,0.000
1641079840021660928,2022-01-01-23:30:40,10.1.1.3,162,-0.450,-0.450,-0.450,0.000,0.000,0.000
1641079840218669824,2022-01-01-23:30:40,10.1.1.3,157,-0.440,-0.440,-0.440,0.000,0.000,0.000
1641079840417442048,2022-01-01-23:30:40,10.1.1.3,155,-0.430,-0.430,-0.430,0.000,0.000,0.000
1641079840620513792,2022-01-01-23:30:40,10.1.1.3,156,-0.420,-0.420,-0.420,0.000,0.000,0.000
1641079840817913088,2022-01-01-23:30:40,10.1.1.3,154,-0.410,-0.410,-0.410,0.000,0.000,0.000
1641079841016825088,2022-01-01-23:30:41,10.1.1.3,152,-0.400,-0.400,-0.400,0.000,0.000,0.000
1641079841220166912,2022-01-01-23:30:41,10.1.1.3,151,-0.390,-0.390,-0.390,0.000,0.000,0.000
1641079841420414976,2022-01-01-23:30:41,10.1.1.3,150,-0.380,-0.380,-0.380,0.000,0.000,0.000
1641079841636941056,2022-01-01-23:30:41,10.1.1.3,164,-0.370,-0.370,-0.370,0.000,0.000,0.000
1641079841836749056,2022-01-01-23:30:41,10.1.1.3,160,-0.360,-0.360,-0.360,0.000,0.000,0.000
1641079842036408832,2022-01-01-23:30:42,10.1.1.3,148,-0.350,-0.350,-0.350,0.000,0.000,0.000
1641079842236742912,2022-01-01-23:30:42,10.1.1.3,147,-0.340,-0.340,-0.340,0.000,0.000,0.000
1641079842456356096,2022-01-01-23:30:42,10.1.1.3,163,-0.330,-0.330,-0.330,0.000,0.000,0.000
1641079842659881216,2022-01-01-23:30:42,10.1.1.3,165,-0.320,-0.320,-0.320,0.000,0.000,0.000
1641079842856710912,2022-01-01-23:30:42,10.1.1.3,162,-0.310,-0.310,-0.310,0.000,0.000,0.000
1641079843060013056,2022-01-01-23:30:43,10.1.1.3,163,-0.300,-0.300,-0.300,0.000,0.000,0.000
1641079843256751104,2022-01-01-23:30:43,10.1.1.3,159,-0.290,-0.290,-0.290,0.000,0.000,0.000
1641079843462935808,2022-01-01-23:30:43,10.1.1.3,161,-0.280,-0.280,-0.280,0.000,0.000,0.000
1641079843686786048,2022-01-01-23:30:43,10.1.1.3,184,-0.270,-0.270,-0.270,0.000,0.000,0.000
1641079843856218112,2022-01-01-23:30:43,10.1.1.3,151,-0.260,-0.260,-0.260,0.000,0.000,0.000
1641079844056013056,2022-01-01-23:30:44,10.1.1.3,150,-0.250,-0.250,-0.250,0.000,0.000,0.000
1641079844256283136,2022-01-01-23:30:44,10.1.1.3,149,-0.240,-0.240,-0.240,0.000,0.000,0.000
1641079844455988992,2022-01-01-23:30:44,10.1.1.3,147,-0.230,-0.230,-0.230,0.000,0.000,0.000
1641079844655428864,2022-01-01-23:30:44,10.1.1.3,146,-0.220,-0.220,-0.220,0.000,0.000,0.000
1641079844855042048,2022-01-01-23:30:44,10.1.1.3,145,-0.210,-0.210,-0.210,0.000,0.000,0.000
1641079845055560192,2022-01-01-23:30:45,10.1.1.3,145,-0.200,-0.200,-0.200,0.000,0.000,0.000
1641079845255980032,2022-01-01-23:30:45,10.1.1.3,145,-0.190,-0.190,-0.190,0.000,0.000,0.000
1641079845455068160,2022-01-01-23:30:45,10.1.1.3,143,-0.180,-0.180,-0.180,0.000,0.000,0.000
1641079845675396864,2022-01-01-23:30:45,10.1.1.3,163,-0.170,-0.170,-0.170,0.000,0.000,0.000
1641079845876928000,2022-01-01-23:30:45,10.1.1.3,162,-0.160,-0.160,-0.160,0.000,0.000,0.000
1641079846076358912,2022-01-01-23:30:46,10.1.1.3,161,-0.150,-0.150,-0.150,0.000,0.000,0.000
1641079846275099136,2022-01-01-23:30:46,10.1.1.3,159,-0.140,-0.140,-0.140,0.000,0.000,0.000
1641079846474600192,2022-01-01-23:30:46,10.1.1.3,158,-0.130,-0.130,-0.130,0.000,0.000,0.000
1641079846675504896,2022-01-01-23:30:46,10.1.1.3,158,-0.120,-0.120,-0.120,0.000,0.000,0.000
1641079846875736832,2022-01-01-23:30:46,10.1.1.3,154,-0.110,-0.110,-0.110,0.000,0.000,0.000
1641079847074683904,2022-01-01-23:30:47,10.1.1.3,152,-0.100,-0.100,-0.100,0.000,0.000,0.000
1641079847274457856,2022-01-01-23:30:47,10.1.1.3,151,-0.090,-0.090,-0.090,0.000,0.000,0.000
1641079847474728192,2022-01-01-23:30:47,10.1.1.3,150,-0.080,-0.080,-0.080,0.000,0.000,0.000
1641079847677527040,2022-01-01-23:30:47,10.1.1.3,152,-0.070,-0.070,-0.070,0.000,0.000,0.000
1641079847874910976,2022-01-01-23:30:47,10.1.1.3,148,-0.060,-0.060,-0.060,0.000,0.000,0.000
1641079848074238976,2022-01-01-23:30:48,10.1.1.3,147,-0.050,-0.050,-0.050,0.000,0.000,0.000
1641079848274642944,2022-01-01-23:30:48,10.1.1.3,147,-0.040,-0.040,-0.040,0.000,0.000,0.000
1641079848474080000,2022-01-01-23:30:48,10.1.1.3,146,-0.030,-0.030,-0.030,0.000,0.000,0.000
1641079848675581952,2022-01-01-23:30:48,10.1.1.3,146,-0.020,-0.020,-0.020,0.000,0.000,0.000
1641079848875185920,2022-01-01-23:30:48,10.1.1.3,143,-0.010,-0.010,-0.010,0.000,0.000,0.000
1641079849084322048,2022-01-01-23:30:49,10.1.1.3,152,0.000,0.000,0.000,0.000,0.000,0.000
1641079849294179072,2022-01-01-23:30:49,10.1.1.3,161,-0.010,-0.010,-0.010,0.000,0.000,0.000
1641079849495708928,2022-01-01-23:30:49,10.1.1.3,159,-0.020,-0.020,-0.020,0.000,0.000,0.000
1641079849694299904,2022-01-01-23:30:49,10.1.1.3,156,-0.030,-0.030,-0.030,0.000,0.000,0.000
1641079849896583168,2022-01-01-23:30:49,10.1.1.3,157,-0.040,-0.040,-0.040,0.000,0.000,0.000
1641079850093816064,2022-01-01-23:30:50,10.1.1.3,153,-0.050,-0.050,-0.050,0.000,0.000,0.000
1641079850298252032,2022-01-01-23:30:50,10.1.1.3,158,-0.060,-0.060,-0.060,0.000,0.000,0.000
1641079850493189120,2022-01-01-23:30:50,10.1.1.3,151,-0.070,-0.070,-0.070,0.000,0.000,0.000
1641079850692552192,2022-01-01-23:30:50,10.1.1.3,150,-0.080,-0.080,-0.080,0.000,0.000,0.000
1641079850898098944,2022-01-01-23:30:50,10.1.1.3,155,-0.090,-0.090,-0.090,0.000,0.000,0.000
1641079851091880960,2022-01-01-23:30:51,10.1.1.3,148,-0.100,-0.100,-0.100,0.000,0.000,0.000
1641079851292766976,2022-01-01-23:30:51,10.1.1.3,148,-0.110,-0.110,-0.110,0.000,0.000,0.000
1641079851491447808,2022-01-01-23:30:51,10.1.1.3,144,-0.120,-0.120,-0.120,0.000,0.000,0.000
1641079851691424000,2022-01-01-23:30:51,10.1.1.3,143,-0.130,-0.130,-0.130,0.000,0.000,0.000
1641079851891575040,2022-01-01-23:30:51,10.1.1.3,142,-0.140,-0.140,-0.140,0.000,0.000,0.000
1641079852112343040,2022-01-01-23:30:52,10.1.1.3,159,-0.150,-0.150,-0.150,0.000,0.000,0.000
1641079852314768128,2022-01-01-23:30:52,10.1.1.3,156,-0.160,-0.160,-0.160,0.000,0.000,0.000
1641079852512052992,2022-01-01-23:30:52,10.1.1.3,156,-0.170,-0.170,-0.170,0.000,0.000,0.000
1641079852710311936,2022-01-01-23:30:52,10.1.1.3,153,-0.180,-0.180,-0.180,0.000,0.000,0.000
1641079852910947072,2022-01-01-23:30:52,10.1.1.3,153,-0.190,-0.190,-0.190,0.000,0.000,0.000
1641079853111902976,2022-01-01-23:30:53,10.1.1.3,152,-0.200,-0.200,-0.200,0.000,0.000,0.000
1641079853310753024,2022-01-01-23:30:53,10.1.1.3,149,-0.210,-0.210,-0.210,0.000,0.000,0.000
1641079853509319936,2022-01-01-23:30:53,10.1.1.3,147,-0.220,-0.220,-0.220,0.000,0.000,0.000
1641079853710070016,2022-01-01-23:30:53,10.1.1.3,147,-0.230,-0.230,-0.230,0.000,0.000,0.000
1641079853909071872,2022-01-01-23:30:53,10.1.1.3,145,-0.240,-0.240,-0.240,0.000,0.000,0.000
1641079854112276992,2022-01-01-23:30:54,10.1.1.3,147,-0.250,-0.250,-0.250,0.000,0.000,0.000
1641079854311068928,2022-01-01-23:30:54,10.1.1.3,143,-0.260,-0.260,-0.260,0.000,0.000,0.000
1641079854512249088,2022-01-01-23:30:54,10.1.1.3,143,-0.270,-0.270,-0.270,0.000,0.000,0.000
1641079854711165952,2022-01-01-23:30:54,10.1.1.3,140,-0.280,-0.280,-0.280,0.000,0.000,0.000
1641079854932667904,2022-01-01-23:30:54,10.1.1.3,159,-0.290,-0.290,-0.290,0.000,0.000,0.000
1641079855129453824,2022-01-01-23:30:55,10.1.1.3,155,-0.300,-0.300,-0.300,0.000,0.000,0.000
1641079855327685120,2022-01-01-23:30:55,10.1.1.3,152,-0.310,-0.310,-0.310,0.000,0.000,0.000
1641079855527772928,2022-01-01-23:30:55,10.1.1.3,150,-0.320,-0.320,-0.320,0.000,0.000,0.000
1641079855727377920,2022-01-01-23:30:55,10.1.1.3,147,-0.330,-0.330,-0.330,0.000,0.000,0.000
1641079855926952960,2022-01-01-23:30:55,10.1.1.3,144,-0.340,-0.340,-0.340,0.000,0.000,0.000
1641079856127322880,2022-01-01-23:30:56,10.1.1.3,143,-0.350,-0.350,-0.350,0.000,0.000,0.000
1641079856331048960,2022-01-01-23:30:56,10.1.1.3,141,-0.360,-0.360,-0.360,0.000,0.000,0.000
1641079856527422976,2022-01-01-23:30:56,10.1.1.3,140,-0.370,-0.370,-0.370,0.000,0.000,0.000
1641079856726627072,2022-01-01-23:30:56,10.1.1.3,138,-0.380,-0.380,-0.380,0.000,0.000,0.000
1641079856928865792,2022-01-01-23:30:56,10.1.1.3,137,-0.390,-0.390,-0.390,0.000,0.000,0.000
1641079857146252032,2022-01-01-23:30:57,10.1.1.3,153,-0.400,-0.400,-0.400,0.000,0.000,0.000
1641079857346707968,2022-01-01-23:30:57,10.1.1.3,152,-0.410,-0.410,-0.410,0.000,0.000,0.000
1641079857545298944,2022-01-01-23:30:57,10.1.1.3,150,-0.420,-0.420,-0.420,0.000,0.000,0.000
1641079857747822080,2022-01-01-23:30:57,10.1.1.3,152,-0.430,-0.430,-0.430,0.000,0.000,0.000
1641079857945005824,2022-01-01-23:30:57,10.1.1.3,147,-0.440,-0.440,-0.440,0.000,0.000,0.000
1641079858149606912,2022-01-01-23:30:58,10.1.1.3,151,-0.450,-0.450,-0.450,0.000,0.000,0.000
1641079858345182976,2022-01-01-23:30:58,10.1.1.3,143,-0.460,-0.460,-0.460,0.000,0.000,0.000
1641079858546475008,2022-01-01-23:30:58,10.1.1.3,141,-0.470,-0.470,-0.470,0.000,0.000,0.000
1641079858745548032,2022-01-01-23:30:58,10.1.1.3,137,-0.480,-0.480,-0.480,0.000,0.000,0.000
1641079858944705024,2022-01-01-23:30:58,10.1.1.3,134,-0.490,-0.490,-0.490,0.000,0.000,0.000
1641079859147656960,2022-01-01-23:30:59,10.1.1.3,131,-0.480,-0.480,-0.480,0.000,0.000,0.000
1641079859363408128,2022-01-01-23:30:59,10.1.1.3,149,-0.470,-0.470,-0.470,0.000,0.000,0.000
1641079859566786048,2022-01-01-23:30:59,10.1.1.3,150,-0.460,-0.460,-0.460,0.000,0.000,0.000
1641079859764983808,2022-01-01-23:30:59,10.1.1.3,146,-0.450,-0.450,-0.450,0.000,0.000,0.000
1641079859962945024,2022-01-01-23:30:59,10.1.1.3,141,-0.440,-0.440,-0.440,0.000,0.000,0.000
1641079860164127232,2022-01-01-23:31:00,10.1.1.3,141,-0.430,-0.430,-0.430,0.000,0.000,0.000
1641079860362621952,2022-01-01-23:31:00,10.1.1.3,134,-0.420,-0.420,-0.420,0.000,0.000,0.000
1641079860566732800,2022-01-01-23:31:00,10.1.1.3,137,-0.410,-0.410,-0.410,0.000,0.000,0.000
1641079860762619904,2022-01-01-23:31:00,10.1.1.3,131,-0.400,-0.400,-0.400,0.000,0.000,0.000
1641079860982109184,2022-01-01-23:31:00,10.1.1.3,142,-0.390,-0.390,-0.390,0.000,0.000,0.000
1641079861183686912,2022-01-01-23:31:01,10.1.1.3,143,-0.380,-0.380,-0.380,0.000,0.000,0.000
1641079861380003072,2022-01-01-23:31:01,10.1.1.3,139,-0.370,-0.370,-0.370,0.000,0.000,0.000
1641079861581455104,2022-01-01-23:31:01,10.1.1.3,136,-0.360,-0.360,-0.360,0.000,0.000,0.000
1641079861781793024,2022-01-01-23:31:01,10.1.1.3,134,-0.350,-0.350,-0.350,0.000,0.000,0.000
1641079861984785152,2022-01-01-23:31:01,10.1.1.3,137,-0.340,-0.340,-0.340,0.000,0.000,0.000
1641079862180816896,2022-01-01-23:31:02,10.1.1.3,131,-0.330,-0.330,-0.330,0.000,0.000,0.000
1641079862400131072,2022-01-01-23:31:02,10.1.1.3,146,-0.320,-0.320,-0.320,0.000,0.000,0.000
1641079862599667200,2022-01-01-23:31:02,10.1.1.3,144,-0.310,-0.310,-0.310,0.000,0.000,0.000
1641079862798544896,2022-01-01-23:31:02,10.1.1.3,142,-0.300,-0.300,-0.300,0.000,0.000,0.000
1641079863001998848,2022-01-01-23:31:02,10.1.1.3,141,-0.290,-0.290,-0.290,0.000,0.000,0.000
1641079863200019968,2022-01-01-23:31:03,10.1.1.3,141,-0.280,-0.280,-0.280,0.000,0.000,0.000
1641079863400579840,2022-01-01-23:31:03,10.1.1.3,137,-0.270,-0.270,-0.270,0.000,0.000,0.000
1641079863600811008,2022-01-01-23:31:03,10.1.1.3,134,-0.260,-0.260,-0.260,0.000,0.000,0.000
1641079863799432960,2022-01-01-23:31:03,10.1.1.3,134,-0.250,-0.250,-0.250,0.000,0.000,0.000
1641079864001101056,2022-01-01-23:31:03,10.1.1.3,132,-0.240,-0.240,-0.240,0.000,0.000,0.000
1641079864199976960,2022-01-01-23:31:04,10.1.1.3,130,-0.230,-0.230,-0.230,0.000,0.000,0.000
1641079864400125952,2022-01-01-23:31:04,10.1.1.3,130,-0.220,-0.220,-0.220,0.000,0.000,0.000
1641079864620992000,2022-01-01-23:31:04,10.1.1.3,147,-0.210,-0.210,-0.210,0.000,0.000,0.000
1641079864819366912,2022-01-01-23:31:04,10.1.1.3,142,-0.200,-0.200,-0.200,0.000,0.000,0.000
1641079865016006912,2022-01-01-23:31:05,10.1.1.3,141,-0.190,-0.190,-0.190,0.000,0.000,0.000
1641079865220247040,2022-01-01-23:31:05,10.1.1.3,143,-0.180,-0.180,-0.180,0.000,0.000,0.000
1641079865420852992,2022-01-01-23:31:05,10.1.1.3,138,-0.170,-0.170,-0.170,0.000,0.000,0.000
1641079865616368896,2022-01-01-23:31:05,10.1.1.3,133,-0.160,-0.160,-0.160,0.000,0.000,0.000
1641079865817115904,2022-01-01-23:31:05,10.1.1.3,132,-0.150,-0.150,-0.150,0.000,0.000,0.000
1641079866015304960,2022-01-01-23:31:06,10.1.1.3,129,-0.140,-0.140,-0.140,0.000,0.000,0.000
1641079866214444032,2022-01-01-23:31:06,10.1.1.3,127,-0.130,-0.130,-0.130,0.000,0.000,0.000
1641079866413955072,2022-01-01-23:31:06,10.1.1.3,125,-0.120,-0.120,-0.120,0.000,0.000,0.000
1641079866614029824,2022-01-01-23:31:06,10.1.1.3,124,-0.110,-0.110,-0.110,0.000,0.000,0.000
1641079866833672960,2022-01-01-23:31:06,10.1.1.3,142,-0.100,-0.100,-0.100,0.000,0.000,0.000
1641079867037123072,2022-01-01-23:31:07,10.1.1.3,143,-0.090,-0.090,-0.090,0.000,0.000,0.000
1641079867237381888,2022-01-01-23:31:07,10.1.1.3,139,-0.080,-0.080,-0.080,0.000,0.000,0.000
1641079867431677952,2022-01-01-23:31:07,10.1.1.3,132,-0.070,-0.070,-0.070,0.000,0.000,0.000
1641079867632541952,2022-01-01-23:31:07,10.1.1.3,132,-0.060,-0.060,-0.060,0.000,0.000,0.000
1641079867833143040,2022-01-01-23:31:07,10.1.1.3,132,-0.050,-0.050,-0.050,0.000,0.000,0.000
1641079868033912064,2022-01-01-23:31:08,10.1.1.3,132,-0.040,-0.040,-0.040,0.000,0.000,0.000
1641079868231555072,2022-01-01-23:31:08,10.1.1.3,128,-0.030,-0.030,-0.030,0.000,0.000,0.000
1641079868430691840,2022-01-01-23:31:08,10.1.1.3,127,-0.020,-0.020,-0.020,0.000,0.000,0.000
1641079868631220992,2022-01-01-23:31:08,10.1.1.3,127,-0.010,-0.010,-0.010,0.000,0.000,0.000
1641079868831190016,2022-01-01-23:31:08,10.1.1.3,125,0.000,0.000,0.000,0.000,0.000,0.000
1641079869030906880,2022-01-01-23:31:09,10.1.1.3,123,-0.010,-0.010,-0.010,0.000,0.000,0.000
1641079869229979136,2022-01-01-23:31:09,10.1.1.3,121,-0.020,-0.020,-0.020,0.000,0.000,0.000
1641079869432340992,2022-01-01-23:31:09,10.1.1.3,120,-0.030,-0.030,-0.030,0.000,0.000,0.000
1641079869649848832,2022-01-01-23:31:09,10.1.1.3,137,-0.040,-0.040,-0.040,0.000,0.000,0.000
1641079869848988160,2022-01-01-23:31:09,10.1.1.3,135,-0.050,-0.050,-0.050,0.000,0.000,0.000
1641079870048440064,2022-01-01-23:31:10,10.1.1.3,134,-0.060,-0.060,-0.060,0.000,0.000,0.000
1641079870253169920,2022-01-01-23:31:10,10.1.1.3,137,-0.070,-0.070,-0.070,0.000,0.000,0.000
1641079870448216064,2022-01-01-23:31:10,10.1.1.3,131,-0.080,-0.080,-0.080,0.000,0.000,0.000
1641079870651649024,2022-01-01-23:31:10,10.1.1.3,133,-0.090,-0.090,-0.090,0.000,0.000,0.000
1641079870848649984,2022-01-01-23:31:10,10.1.1.3,128,-0.100,-0.100,-0.100,0.000,0.000,0.000
1641079871047473920,2022-01-01-23:31:11,10.1.1.3,125,-0.110,-0.110,-0.110,0.000,0.000,0.000
1641079871250114048,2022-01-01-23:31:11,10.1.1.3,125,-0.120,-0.120,-0.120,0.000,0.000,0.000
1641079871447792896,2022-01-01-23:31:11,10.1.1.3,123,-0.130,-0.130,-0.130,0.000,0.000,0.000
1641079871646491904,2022-01-01-23:31:11,10.1.1.3,120,-0.140,-0.140,-0.140,0.000,0.000,0.000
1641079871850670080,2022-01-01-23:31:11,10.1.1.3,117,-0.150,-0.150,-0.150,0.000,0.000,0.000
1641079872047367936,2022-01-01-23:31:12,10.1.1.3,117,-0.160,-0.160,-0.160,0.000,0.000,0.000
1641079872248048128,2022-01-01-23:31:12,10.1.1.3,117,-0.170,-0.170,-0.170,0.000,0.000,0.000
1641079872469818112,2022-01-01-23:31:12,10.1.1.3,137,-0.180,-0.180,-0.180,0.000,0.000,0.000
1641079872665592832,2022-01-01-23:31:12,10.1.1.3,129,-0.190,-0.190,-0.190,0.000,0.000,0.000
1641079872864343808,2022-01-01-23:31:12,10.1.1.3,127,-0.200,-0.200,-0.200,0.000,0.000,0.000
1641079873064274944,2022-01-01-23:31:13,10.1.1.3,125,-0.210,-0.210,-0.210,0.000,0.000,0.000
1641079873265347072,2022-01-01-23:31:13,10.1.1.3,125,-0.220,-0.220,-0.220,0.000,0.000,0.000
1641079873467817984,2022-01-01-23:31:13,10.1.1.3,126,-0.230,-0.230,-0.230,0.000,0.000,0.000
1641079873663584000,2022-01-01-23:31:13,10.1.1.3,121,-0.240,-0.240,-0.240,0.000,0.000,0.000
1641079873866130944,2022-01-01-23:31:13,10.1.1.3,120,-0.250,-0.250,-0.250,0.000,0.000,0.000
1641079874067905024,2022-01-01-23:31:14,10.1.1.3,123,-0.260,-0.260,-0.260,0.000,0.000,0.000
1641079874263233792,2022-01-01-23:31:14,10.1.1.3,116,-0.270,-0.270,-0.270,0.000,0.000,0.000
1641079874465712128,2022-01-01-23:31:14,10.1.1.3,115,-0.280,-0.280,-0.280,0.000,0.000,0.000
1641079874662244096,2022-01-01-23:31:14,10.1.1.3,114,-0.290,-0.290,-0.290,0.000,0.000,0.000
1641079874862376960,2022-01-01-23:31:14,10.1.1.3,113,-0.300,-0.300,-0.300,0.000,0.000,0.000
1641079875065163008,2022-01-01-23:31:15,10.1.1.3,113,-0.310,-0.310,-0.310,0.000,0.000,0.000
1641079875260926976,2022-01-01-23:31:15,10.1.1.3,110,-0.320,-0.320,-0.320,0.000,0.000,0.000
1641079875484510976,2022-01-01-23:31:15,10.1.1.3,130,-0.330,-0.330,-0.330,0.000,0.000,0.000
1641079875680445952,2022-01-01-23:31:15,10.1.1.3,127,-0.340,-0.340,-0.340,0.000,0.000,0.000
1641079875882944000,2022-01-01-23:31:15,10.1.1.3,127,-0.350,-0.350,-0.350,0.000,0.000,0.000
1641079876083501056,2022-01-01-23:31:16,10.1.1.3,125,-0.360,-0.360,-0.360,0.000,0.000,0.000
1641079876280011008,2022-01-01-23:31:16,10.1.1.3,120,-0.370,-0.370,-0.370,0.000,0.000,0.000
1641079876479922944,2022-01-01-23:31:16,10.1.1.3,118,-0.380,-0.380,-0.380,0.000,0.000,0.000
1641079876678747904,2022-01-01-23:31:16,10.1.1.3,116,-0.390,-0.390,-0.390,0.000,0.000,0.000
1641079876879419136,2022-01-01-23:31:16,10.1.1.3,115,-0.400,-0.400,-0.400,0.000,0.000,0.000
1641079877079833088,2022-01-01-23:31:17,10.1.1.3,113,-0.410,-0.410,-0.410,0.000,0.000,0.000
1641079877279602944,2022-01-01-23:31:17,10.1.1.3,112,-0.420,-0.420,-0.420,0.000,0.000,0.000
1641079877478741760,2022-01-01-23:31:17,10.1.1.3,111,-0.430,-0.430,-0.430,0.000,0.000,0.000
1641079877678398976,2022-01-01-23:31:17,10.1.1.3,109,-0.440,-0.440,-0.440,0.000,0.000,0.000
1641079877876547072,2022-01-01-23:31:17,10.1.1.3,106,-0.450,-0.450,-0.450,0.000,0.000,0.000
1641079878100225024,2022-01-01-23:31:18,10.1.1.3,124,-0.460,-0.460,-0.460,0.000,0.000,0.000
1641079878297219072,2022-01-01-23:31:18,10.1.1.3,121,-0.470,-0.470,-0.470,0.000,0.000,0.000
1641079878497150976,2022-01-01-23:31:18,10.1.1.3,115,-0.480,-0.480,-0.480,0.000,0.000,0.000
1641079878695928064,2022-01-01-23:31:18,10.1.1.3,113,-0.490,-0.490,-0.490,0.000,0.000,0.000
1641079878896339968,2022-01-01-23:31:18,10.1.1.3,112,-0.480,-0.480,-0.480,0.000,0.000,0.000
1641079879096024064,2022-01-01-23:31:19,10.1.1.3,110,-0.470,-0.470,-0.470,0.000,0.000,0.000
1641079879296035072,2022-01-01-23:31:19,10.1.1.3,109,-0.460,-0.460,-0.460,0.000,0.000,0.000
1641079879495106048,2022-01-01-23:31:19,10.1.1.3,106,-0.450,-0.450,-0.450,0.000,0.000,0.000
1641079879695414016,2022-01-01-23:31:19,10.1.1.3,104,-0.440,-0.440,-0.440,0.000,0.000,0.000
1641079879893863936,2022-01-01-23:31:19,10.1.1.3,103,-0.430,-0.430,-0.430,0.000,0.000,0.000
1641079880116044032,2022-01-01-23:31:20,10.1.1.3,124,-0.420,-0.420,-0.420,0.000,0.000,0.000
1641079880313755904,2022-01-01-23:31:20,10.1.1.3,121,-0.410,-0.410,-0.410,0.000,0.000,0.000
1641079880513753856,2022-01-01-23:31:20,10.1.1.3,120,-0.400,-0.400,-0.400,0.000,0.000,0.000
1641079880713416960,2022-01-01-23:31:20,10.1.1.3,118,-0.390,-0.390,-0.390,0.000,0.000,0.000
1641079880913993984,2022-01-01-23:31:20,10.1.1.3,117,-0.380,-0.380,-0.380,0.000,0.000,0.000
1641079881111633152,2022-01-01-23:31:21,10.1.1.3,113,-0.370,-0.370,-0.370,0.000,0.000,0.000
1641079881311520000,2022-01-01-23:31:21,10.1.1.3,111,-0.360,-0.360,-0.360,0.000,0.000,0.000
1641079881515262976,2022-01-01-23:31:21,10.1.1.3,107,-0.350,-0.350,-0.350,0.000,0.000,0.000
1641079881711939072,2022-01-01-23:31:21,10.1.1.3,102,-0.340,-0.340,-0.340,0.000,0.000,0.000
1641079881929986048,2022-01-01-23:31:21,10.1.1.3,116,-0.330,-0.330,-0.330,0.000,0.000,0.000
1641079882132348160,2022-01-01-23:31:22,10.1.1.3,117,-0.320,-0.320,-0.320,0.000,0.000,0.000
1641079882332244992,2022-01-01-23:31:22,10.1.1.3,116,-0.310,-0.310,-0.310,0.000,0.000,0.000
1641079882533654016,2022-01-01-23:31:22,10.1.1.3,117,-0.300,-0.300,-0.300,0.000,0.000,0.000
1641079882734419968,2022-01-01-23:31:22,10.1.1.3,117,-0.290,-0.290,-0.290,0.000,0.000,0.000
1641079882935667968,2022-01-01-23:31:22,10.1.1.3,117,-0.280,-0.280,-0.280,0.000,0.000,0.000
1641079883137387008,2022-01-01-23:31:23,10.1.1.3,117,-0.270,-0.270,-0.270,0.000,0.000,0.000
1641079883337394944,2022-01-01-23:31:23,10.1.1.3,117,-0.260,-0.260,-0.260,0.000,0.000,0.000
1641079883542567936,2022-01-01-23:31:23,10.1.1.3,115,-0.250,-0.250,-0.250,0.000,0.000,0.000
1641079883742275840,2022-01-01-23:31:23,10.1.1.3,117,-0.240,-0.240,-0.240,0.000,0.000,0.000
1641079883942220800,2022-01-01-23:31:23,10.1.1.3,117,-0.230,-0.230,-0.230,0.000,0.000,0.000
1641079884144798976,2022-01-01-23:31:24,10.1.1.3,114,-0.220,-0.220,-0.220,0.000,0.000,0.000
1641079884342749952,2022-01-01-23:31:24,10.1.1.3,113,-0.210,-0.210,-0.210,0.000,0.000,0.000
1641079884545291008,2022-01-01-23:31:24,10.1.1.3,113,-0.200,-0.200,-0.200,0.000,0.000,0.000
1641079884766635008,2022-01-01-23:31:24,10.1.1.3,134,-0.190,-0.190,-0.190,0.000,0.000,0.000
1641079884965821952,2022-01-01-23:31:24,10.1.1.3,132,-0.180,-0.180,-0.180,0.000,0.000,0.000
1641079885166552064,2022-01-01-23:31:25,10.1.1.3,131,-0.170,-0.170,-0.170,0.000,0.000,0.000
1641079885369894144,2022-01-01-23:31:25,10.1.1.3,134,-0.160,-0.160,-0.160,0.000,0.000,0.000
1641079885573337088,2022-01-01-23:31:25,10.1.1.3,136,-0.150,-0.150,-0.150,0.000,0.000,0.000
1641079885769723904,2022-01-01-23:31:25,10.1.1.3,132,-0.140,-0.140,-0.140,0.000,0.000,0.000
1641079885970368000,2022-01-01-23:31:25,10.1.1.3,131,-0.130,-0.130,-0.130,0.000,0.000,0.000
1641079886173067008,2022-01-01-23:31:26,10.1.1.3,132,-0.120,-0.120,-0.120,0.000,0.000,0.000
1641079886372006912,2022-01-01-23:31:26,10.1.1.3,128,-0.110,-0.110,-0.110,0.000,0.000,0.000
1641079886574510080,2022-01-01-23:31:26,10.1.1.3,129,-0.100,-0.100,-0.100,0.000,0.000,0.000
1641079886775059968,2022-01-01-23:31:26,10.1.1.3,126,-0.090,-0.090,-0.090,0.000,0.000,0.000
1641079886974598912,2022-01-01-23:31:26,10.1.1.3,125,-0.080,-0.080,-0.080,0.000,0.000,0.000
1641079887174514176,2022-01-01-23:31:27,10.1.1.3,124,-0.070,-0.070,-0.070,0.000,0.000,0.000
1641079887375299840,2022-01-01-23:31:27,10.1.1.3,124,-0.060,-0.060,-0.060,0.000,0.000,0.000
1641079887601341952,2022-01-01-23:31:27,10.1.1.3,145,-0.050,-0.050,-0.050,0.000,0.000,0.000
1641079887798755840,2022-01-01-23:31:27,10.1.1.3,146,-0.040,-0.040,-0.040,0.000,0.000,0.000
1641079887998259968,2022-01-01-23:31:27,10.1.1.3,144,-0.030,-0.030,-0.030,0.000,0.000,0.000
1641079888201144832,2022-01-01-23:31:28,10.1.1.3,145,-0.020,-0.020,-0.020,0.000,0.000,0.000
1641079888402460928,2022-01-01-23:31:28,10.1.1.3,146,-0.010,-0.010,-0.010,0.000,0.000,0.000
1641079888603286016,2022-01-01-23:31:28,10.1.1.3,143,0.000,0.000,0.000,0.000,0.000,0.000
1641079888804902912,2022-01-01-23:31:28,10.1.1.3,145,-0.010,-0.010,-0.010,0.000,0.000,0.000
1641079889001796096,2022-01-01-23:31:29,10.1.1.3,135,-0.020,-0.020,-0.020,0.000,0.000,0.000
1641079889201464832,2022-01-01-23:31:29,10.1.1.3,134,-0.030,-0.030,-0.030,0.000,0.000,0.000
1641079889406830080,2022-01-01-23:31:29,10.1.1.3,138,-0.040,-0.040,-0.040,0.000,0.000,0.000
1641079889629080064,2022-01-01-23:31:29,10.1.1.3,155,-0.050,-0.050,-0.050,0.000,0.000,0.000
1641079889824631040,2022-01-01-23:31:29,10.1.1.3,149,-0.060,-0.060,-0.060,0.000,0.000,0.000
1641079890024948992,2022-01-01-23:31:30,10.1.1.3,148,-0.070,-0.070,-0.070,0.000,0.000,0.000
1641079890229403136,2022-01-01-23:31:30,10.1.1.3,151,-0.080,-0.080,-0.080,0.000,0.000,0.000
1641079890425807872,2022-01-01-23:31:30,10.1.1.3,145,-0.090,-0.090,-0.090,0.000,0.000,0.000
1641079890626516224,2022-01-01-23:31:30,10.1.1.3,144,-0.100,-0.100,-0.100,0.000,0.000,0.000
1641079890831011072,2022-01-01-23:31:30,10.1.1.3,145,-0.110,-0.110,-0.110,0.000,0.000,0.000
1641079891028206080,2022-01-01-23:31:31,10.1.1.3,144,-0.120,-0.120,-0.120,0.000,0.000,0.000
1641079891227499008,2022-01-01-23:31:31,10.1.1.3,142,-0.130,-0.130,-0.130,0.000,0.000,0.000
1641079891427534080,2022-01-01-23:31:31,10.1.1.3,141,-0.140,-0.140,-0.140,0.000,0.000,0.000
1641079891631608064,2022-01-01-23:31:31,10.1.1.3,143,-0.150,-0.150,-0.150,0.000,0.000,0.000
1641079891831835136,2022-01-01-23:31:31,10.1.1.3,144,-0.160,-0.160,-0.160,0.000,0.000,0.000
1641079892034329856,2022-01-01-23:31:32,10.1.1.3,145,-0.170,-0.170,-0.170,0.000,0.000,0.000
1641079892231614208,2022-01-01-23:31:32,10.1.1.3,141,-0.180,-0.180,-0.180,0.000,0.000,0.000
1641079892451421952,2022-01-01-23:31:32,10.1.1.3,159,-0.190,-0.190,-0.190,0.000,0.000,0.000
1641079892651133952,2022-01-01-23:31:32,10.1.1.3,157,-0.200,-0.200,-0.200,0.000,0.000,0.000
1641079892852209152,2022-01-01-23:31:32,10.1.1.3,156,-0.210,-0.210,-0.210,0.000,0.000,0.000
1641079893052332032,2022-01-01-23:31:33,10.1.1.3,156,-0.220,-0.220,-0.220,0.000,0.000,0.000
1641079893253891072,2022-01-01-23:31:33,10.1.1.3,155,-0.230,-0.230,-0.230,0.000,0.000,0.000
1641079893452527104,2022-01-01-23:31:33,10.1.1.3,154,-0.240,-0.240,-0.240,0.000,0.000,0.000
1641079893653104128,2022-01-01-23:31:33,10.1.1.3,154,-0.250,-0.250,-0.250,0.000,0.000,0.000
1641079893856264192,2022-01-01-23:31:33,10.1.1.3,156,-0.260,-0.260,-0.260,0.000,0.000,0.000
1641079894053777920,2022-01-01-23:31:34,10.1.1.3,153,-0.270,-0.270,-0.270,0.000,0.000,0.000
1641079894257193216,2022-01-01-23:31:34,10.1.1.3,155,-0.280,-0.280,-0.280,0.000,0.000,0.000
1641079894458249984,2022-01-01-23:31:34,10.1.1.3,153,-0.290,-0.290,-0.290,0.000,0.000,0.000
1641079894656220928,2022-01-01-23:31:34,10.1.1.3,152,-0.300,-0.300,-0.300,0.000,0.000,0.000
1641079894858379008,2022-01-01-23:31:34,10.1.1.3,151,-0.310,-0.310,-0.310,0.000,0.000,0.000
1641079895055803904,2022-01-01-23:31:35,10.1.1.3,150,-0.320,-0.320,-0.320,0.000,0.000,0.000
1641079895257783040,2022-01-01-23:31:35,10.1.1.3,150,-0.330,-0.330,-0.330,0.000,0.000,0.000
1641079895455987968,2022-01-01-23:31:35,10.1.1.3,147,-0.340,-0.340,-0.340,0.000,0.000,0.000
1641079895677587968,2022-01-01-23:31:35,10.1.1.3,165,-0.350,-0.350,-0.350,0.000,0.000,0.000
1641079895876340992,2022-01-01-23:31:35,10.1.1.3,162,-0.360,-0.360,-0.360,0.000,0.000,0.000
1641079896077317120,2022-01-01-23:31:36,10.1.1.3,162,-0.370,-0.370,-0.370,0.000,0.000,0.000
1641079896277821952,2022-01-01-23:31:36,10.1.1.3,161,-0.380,-0.380,-0.380,0.000,0.000,0.000
1641079896479134208,2022-01-01-23:31:36,10.1.1.3,155,-0.390,-0.390,-0.390,0.000,0.000,0.000
1641079896677835008,2022-01-01-23:31:36,10.1.1.3,154,-0.400,-0.400,-0.400,0.000,0.000,0.000
1641079896881872896,2022-01-01-23:31:36,10.1.1.3,156,-0.410,-0.410,-0.410,0.000,0.000,0.000
1641079897078042880,2022-01-01-23:31:37,10.1.1.3,151,-0.420,-0.420,-0.420,0.000,0.000,0.000
1641079897278477056,2022-01-01-23:31:37,10.1.1.3,148,-0.430,-0.430,-0.430,0.000,0.000,0.000
1641079897478564864,2022-01-01-23:31:37,10.1.1.3,147,-0.440,-0.440,-0.440,0.000,0.000,0.000
1641079897700158976,2022-01-01-23:31:37,10.1.1.3,168,-0.450,-0.450,-0.450,0.000,0.000,0.000
1641079897879340032,2022-01-01-23:31:37,10.1.1.3,146,-0.460,-0.460,-0.460,0.000,0.000,0.000
1641079898100963072,2022-01-01-23:31:38,10.1.1.3,166,-0.470,-0.470,-0.470,0.000,0.000,0.000
1641079898300153088,2022-01-01-23:31:38,10.1.1.3,164,-0.480,-0.480,-0.480,0.000,0.000,0.000
1641079898500536064,2022-01-01-23:31:38,10.1.1.3,163,-0.490,-0.490,-0.490,0.000,0.000,0.000
1641079898699853824,2022-01-01-23:31:38,10.1.1.3,162,-0.480,-0.480,-0.480,0.000,0.000,0.000
1641079898899987968,2022-01-01-23:31:38,10.1.1.3,161,-0.470,-0.470,-0.470,0.000,0.000,0.000
1641079899103300096,2022-01-01-23:31:39,10.1.1.3,160,-0.460,-0.460,-0.460,0.000,0.000,0.000
1641079899300962048,2022-01-01-23:31:39,10.1.1.3,156,-0.450,-0.450,-0.450,0.000,0.000,0.000
1641079899500564992,2022-01-01-23:31:39,10.1.1.3,155,-0.440,-0.440,-0.440,0.000,0.000,0.000
1641079899703134976,2022-01-01-23:31:39,10.1.1.3,155,-0.430,-0.430,-0.430,0.000,0.000,0.000
1641079899900613120,2022-01-01-23:31:39,10.1.1.3,153,-0.420,-0.420,-0.420,0.000,0.000,0.000
1641079900104979968,2022-01-01-23:31:40,10.1.1.3,155,-0.410,-0.410,-0.410,0.000,0.000,0.000
1641079900302016000,2022-01-01-23:31:40,10.1.1.3,153,-0.400,-0.400,-0.400,0.000,0.000,0.000
1641079900502801920,2022-01-01-23:31:40,10.1.1.3,153,-0.390,-0.390,-0.390,0.000,0.000,0.000
1641079900702040832,2022-01-01-23:31:40,10.1.1.3,150,-0.380,-0.380,-0.380,0.000,0.000,0.000
1641079900924679936,2022-01-01-23:31:40,10.1.1.3,172,-0.370,-0.370,-0.370,0.000,0.000,0.000
1641079901124865024,2022-01-01-23:31:41,10.1.1.3,168,-0.360,-0.360,-0.360,0.000,0.000,0.000
1641079901325660928,2022-01-01-23:31:41,10.1.1.3,168,-0.350,-0.350,-0.350,0.000,0.000,0.000
1641079901521819136,2022-01-01-23:31:41,10.1.1.3,167,-0.340,-0.340,-0.340,0.000,0.000,0.000
1641079901721812992,2022-01-01-23:31:41,10.1.1.3,165,-0.330,-0.330,-0.330,0.000,0.000,0.000
1641079901926822912,2022-01-01-23:31:41,10.1.1.3,168,-0.320,-0.320,-0.320,0.000,0.000,0.000
1641079902127363072,2022-01-01-23:31:42,10.1.1.3,164,-0.310,-0.310,-0.310,0.000,0.000,0.000
1641079902322068992,2022-01-01-23:31:42,10.1.1.3,163,-0.300,-0.300,-0.300,0.000,0.000,0.000
1641079902522553856,2022-01-01-23:31:42,10.1.1.3,162,-0.290,-0.290,-0.290,0.000,0.000,0.000
1641079902721798912,2022-01-01-23:31:42,10.1.1.3,160,-0.280,-0.280,-0.280,0.000,0.000,0.000
1641079902924879104,2022-01-01-23:31:42,10.1.1.3,160,-0.270,-0.270,-0.270,0.000,0.000,0.000
1641079903123709952,2022-01-01-23:31:43,10.1.1.3,159,-0.260,-0.260,-0.260,0.000,0.000,0.000
1641079903322994944,2022-01-01-23:31:43,10.1.1.3,158,-0.250,-0.250,-0.250,0.000,0.000,0.000
1641079903522372096,2022-01-01-23:31:43,10.1.1.3,156,-0.240,-0.240,-0.240,0.000,0.000,0.000
1641079903722441984,2022-01-01-23:31:43,10.1.1.3,155,-0.230,-0.230,-0.230,0.000,0.000,0.000
1641079903928452096,2022-01-01-23:31:43,10.1.1.3,161,-0.220,-0.220,-0.220,0.000,0.000,0.000
1641079904122198016,2022-01-01-23:31:44,10.1.1.3,153,-0.210,-0.210,-0.210,0.000,0.000,0.000
1641079904325499904,2022-01-01-23:31:44,10.1.1.3,155,-0.200,-0.200,-0.200,0.000,0.000,0.000
1641079904523632128,2022-01-01-23:31:44,10.1.1.3,152,-0.190,-0.190,-0.190,0.000,0.000,0.000
1641079904742717952,2022-01-01-23:31:44,10.1.1.3,169,-0.180,-0.180,-0.180,0.000,0.000,0.000
1641079904943649024,2022-01-01-23:31:44,10.1.1.3,168,-0.170,-0.170,-0.170,0.000,0.000,0.000
1641079905143084032,2022-01-01-23:31:45,10.1.1.3,165,-0.160,-0.160,-0.160,0.000,0.000,0.000
1641079905343628032,2022-01-01-23:31:45,10.1.1.3,164,-0.150,-0.150,-0.150,0.000,0.000,0.000
1641079905543571968,2022-01-01-23:31:45,10.1.1.3,162,-0.140,-0.140,-0.140,0.000,0.000,0.000
1641079905743362816,2022-01-01-23:31:45,10.1.1.3,162,-0.130,-0.130,-0.130,0.000,0.000,0.000
1641079905946065920,2022-01-01-23:31:45,10.1.1.3,162,-0.120,-0.120,-0.120,0.000,0.000,0.000
1641079906142507008,2022-01-01-23:31:46,10.1.1.3,158,-0.110,-0.110,-0.110,0.000,0.000,0.000
1641079906342365952,2022-01-01-23:31:46,10.1.1.3,156,-0.100,-0.100,-0.100,0.000,0.000,0.000
1641079906543552000,2022-01-01-23:31:46,10.1.1.3,156,-0.090,-0.090,-0.090,0.000,0.000,0.000
1641079906742803200,2022-01-01-23:31:46,10.1.1.3,154,-0.080,-0.080,-0.080,0.000,0.000,0.000
1641079906943000064,2022-01-01-23:31:46,10.1.1.3,153,-0.070,-0.070,-0.070,0.000,0.000,0.000
1641079907162404096,2022-01-01-23:31:47,10.1.1.3,169,-0.060,-0.060,-0.060,0.000,0.000,0.000
1641079907362932992,2022-01-01-23:31:47,10.1.1.3,168,-0.050,-0.050,-0.050,0.000,0.000,0.000
1641079907562355968,2022-01-01-23:31:47,10.1.1.3,166,-0.040,-0.040,-0.040,0.000,0.000,0.000
1641079907762397952,2022-01-01-23:31:47,10.1.1.3,165,-0.030,-0.030,-0.030,0.000,0.000,0.000
1641079907963159040,2022-01-01-23:31:47,10.1.1.3,164,-0.020,-0.020,-0.020,0.000,0.000,0.000
1641079908167558912,2022-01-01-23:31:48,10.1.1.3,167,-0.010,-0.010,-0.010,0.000,0.000,0.000
1641079908364809984,2022-01-01-23:31:48,10.1.1.3,162,0.000,0.000,0.000,0.000,0.000,0.000
1641079908568061952,2022-01-01-23:31:48,10.1.1.3,166,-0.010,-0.010,-0.010,0.000,0.000,0.000
1641079908763681024,2022-01-01-23:31:48,10.1.1.3,156,-0.020,-0.020,-0.020,0.000,0.000,0.000
1641079908962074112,2022-01-01-23:31:48,10.1.1.3,155,-0.030,-0.030,-0.030,0.000,0.000,0.000
1641079909166206976,2022-01-01-23:31:49,10.1.1.3,158,-0.040,-0.040,-0.040,0.000,0.000,0.000
1641079909384485888,2022-01-01-23:31:49,10.1.1.3,170,-0.050,-0.050,-0.050,0.000,0.000,0.000
1641079909561822976,2022-01-01-23:31:49,10.1.1.3,151,-0.060,-0.060,-0.060,0.000,0.000,0.000
1641079909782184960,2022-01-01-23:31:49,10.1.1.3,170,-0.070,-0.070,-0.070,0.000,0.000,0.000
1641079909986584832,2022-01-01-23:31:49,10.1.1.3,173,-0.080,-0.080,-0.080,0.000,0.000,0.000
1641079910184765952,2022-01-01-23:31:50,10.1.1.3,170,-0.090,-0.090,-0.090,0.000,0.000,0.000
1641079910383204864,2022-01-01-23:31:50,10.1.1.3,167,-0.100,-0.100,-0.100,0.000,0.000,0.000
1641079910581232128,2022-01-01-23:31:50,10.1.1.3,164,-0.110,-0.110,-0.110,0.000,0.000,0.000
1641079910781178112,2022-01-01-23:31:50,10.1.1.3,163,-0.120,-0.120,-0.120,0.000,0.000,0.000
1641079910982067200,2022-01-01-23:31:50,10.1.1.3,163,-0.130,-0.130,-0.130,0.000,0.000,0.000
1641079911181606144,2022-01-01-23:31:51,10.1.1.3,161,-0.140,-0.140,-0.140,0.000,0.000,0.000
1641079911381777152,2022-01-01-23:31:51,10.1.1.3,161,-0.150,-0.150,-0.150,0.000,0.000,0.000
1641079911580231936,2022-01-01-23:31:51,10.1.1.3,157,-0.160,-0.160,-0.160,0.000,0.000,0.000
1641079911781332992,2022-01-01-23:31:51,10.1.1.3,156,-0.170,-0.170,-0.170,0.000,0.000,0.000
1641079911986723072,2022-01-01-23:31:51,10.1.1.3,160,-0.180,-0.180,-0.180,0.000,0.000,0.000
1641079912181651968,2022-01-01-23:31:52,10.1.1.3,153,-0.190,-0.190,-0.190,0.000,0.000,0.000
1641079912386700032,2022-01-01-23:31:52,10.1.1.3,158,-0.200,-0.200,-0.200,0.000,0.000,0.000
1641079912581084928,2022-01-01-23:31:52,10.1.1.3,150,-0.210,-0.210,-0.210,0.000,0.000,0.000
1641079912780111104,2022-01-01-23:31:52,10.1.1.3,148,-0.220,-0.220,-0.220,0.000,0.000,0.000
1641079913003158016,2022-01-01-23:31:52,10.1.1.3,164,-0.230,-0.230,-0.230,0.000,0.000,0.000
1641079913201908224,2022-01-01-23:31:53,10.1.1.3,165,-0.240,-0.240,-0.240,0.000,0.000,0.000
1641079913399565056,2022-01-01-23:31:53,10.1.1.3,162,-0.250,-0.250,-0.250,0.000,0.000,0.000
1641079913600743936,2022-01-01-23:31:53,10.1.1.3,161,-0.260,-0.260,-0.260,0.000,0.000,0.000
1641079913798959872,2022-01-01-23:31:53,10.1.1.3,159,-0.270,-0.270,-0.270,0.000,0.000,0.000
1641079913999604992,2022-01-01-23:31:53,10.1.1.3,159,-0.280,-0.280,-0.280,0.000,0.000,0.000
1641079914199471872,2022-01-01-23:31:54,10.1.1.3,156,-0.290,-0.290,-0.290,0.000,0.000,0.000
1641079914401067008,2022-01-01-23:31:54,10.1.1.3,155,-0.300,-0.300,-0.300,0.000,0.000,0.000
1641079914598182912,2022-01-01-23:31:54,10.1.1.3,153,-0.310,-0.310,-0.310,0.000,0.000,0.000
1641079914799280896,2022-01-01-23:31:54,10.1.1.3,153,-0.320,-0.320,-0.320,0.000,0.000,0.000
1641079914999959040,2022-01-01-23:31:54,10.1.1.3,153,-0.330,-0.330,-0.330,0.000,0.000,0.000
1641079915202028032,2022-01-01-23:31:55,10.1.1.3,154,-0.340,-0.340,-0.340,0.000,0.000,0.000
1641079915398670080,2022-01-01-23:31:55,10.1.1.3,150,-0.350,-0.350,-0.350,0.000,0.000,0.000
1641079915598604800,2022-01-01-23:31:55,10.1.1.3,149,-0.360,-0.360,-0.360,0.000,0.000,0.000
1641079915798108160,2022-01-01-23:31:55,10.1.1.3,148,-0.370,-0.370,-0.370,0.000,0.000,0.000
1641079915998235904,2022-01-01-23:31:55,10.1.1.3,147,-0.380,-0.380,-0.380,0.000,0.000,0.000
1641079916221185024,2022-01-01-23:31:56,10.1.1.3,167,-0.390,-0.390,-0.390,0.000,0.000,0.000
1641079916418371840,2022-01-01-23:31:56,10.1.1.3,163,-0.400,-0.400,-0.400,0.000,0.000,0.000
1641079916621457152,2022-01-01-23:31:56,10.1.1.3,162,-0.410,-0.410,-0.410,0.000,0.000,0.000
1641079916817516032,2022-01-01-23:31:56,10.1.1.3,156,-0.420,-0.420,-0.420,0.000,0.000,0.000
1641079917018621952,2022-01-01-23:31:57,10.1.1.3,156,-0.430,-0.430,-0.430,0.000,0.000,0.000
1641079917217842176,2022-01-01-23:31:57,10.1.1.3,154,-0.440,-0.440,-0.440,0.000,0.000,0.000
1641079917419151104,2022-01-01-23:31:57,10.1.1.3,153,-0.450,-0.450,-0.450,0.000,0.000,0.000
1641079917620305152,2022-01-01-23:31:57,10.1.1.3,154,-0.460,-0.460,-0.460,0.000,0.000,0.000
1641079917816960000,2022-01-01-23:31:57,10.1.1.3,149,-0.470,-0.470,-0.470,0.000,0.000,0.000
1641079918015796992,2022-01-01-23:31:58,10.1.1.3,148,-0.480,-0.480,-0.480,0.000,0.000,0.000
1641079918238370816,2022-01-01-23:31:58,10.1.1.3,163,-0.490,-0.490,-0.490,0.000,0.000,0.000
1641079918442374912,2022-01-01-23:31:58,10.1.1.3,166,-0.480,-0.480,-0.480,0.000,0.000,0.000
1641079918638534912,2022-01-01-23:31:58,10.1.1.3,156,-0.470,-0.470,-0.470,0.000,0.000,0.000
1641079918838356992,2022-01-01-23:31:58,10.1.1.3,155,-0.460,-0.460,-0.460,0.000,0.000,0.000
1641079919039877888,2022-01-01-23:31:59,10.1.1.3,159,-0.450,-0.450,-0.450,0.000,0.000,0.000
1641079919234086912,2022-01-01-23:31:59,10.1.1.3,152,-0.440,-0.440,-0.440,0.000,0.000,0.000
1641079919435321088,2022-01-01-23:31:59,10.1.1.3,152,-0.430,-0.430,-0.430,0.000,0.000,0.000
1641079919637577984,2022-01-01-23:31:59,10.1.1.3,151,-0.420,-0.420,-0.420,0.000,0.000,0.000
1641079919833449984,2022-01-01-23:31:59,10.1.1.3,148,-0.410,-0.410,-0.410,0.000,0.000,0.000
1641079920038161152,2022-01-01-23:32:00,10.1.1.3,151,-0.400,-0.400,-0.400,0.000,0.000,0.000
1641079920233252096,2022-01-01-23:32:00,10.1.1.3,145,-0.390,-0.390,-0.390,0.000,0.000,0.000
1641079920433554944,2022-01-01-23:32:00,10.1.1.3,145,-0.380,-0.380,-0.380,0.000,0.000,0.000
1641079920634807040,2022-01-01-23:32:00,10.1.1.3,145,-0.370,-0.370,-0.370,0.000,0.000,0.000
1641079920833641984,2022-01-01-23:32:00,10.1.1.3,143,-0.360,-0.360,-0.360,0.000,0.000,0.000
1641079921052459008,2022-01-01-23:32:01,10.1.1.3,159,-0.350,-0.350,-0.350,0.000,0.000,0.000
1641079921253218816,2022-01-01-23:32:01,10.1.1.3,156,-0.340,-0.340,-0.340,0.000,0.000,0.000
1641079921456108032,2022-01-01-23:32:01,10.1.1.3,153,-0.330,-0.330,-0.330,0.000,0.000,0.000
1641079921652674048,2022-01-01-23:32:01,10.1.1.3,153,-0.320,-0.320,-0.320,0.000,0.000,0.000
1641079921851537920,2022-01-01-23:32:01,10.1.1.3,151,-0.310,-0.310,-0.310,0.000,0.000,0.000
1641079922052357888,2022-01-01-23:32:02,10.1.1.3,151,-0.300,-0.300,-0.300,0.000,0.000,0.000
1641079922251121152,2022-01-01-23:32:02,10.1.1.3,149,-0.290,-0.290,-0.290,0.000,0.000,0.000
1641079922451771904,2022-01-01-23:32:02,10.1.1.3,149,-0.280,-0.280,-0.280,0.000,0.000,0.000
1641079922653882112,2022-01-01-23:32:02,10.1.1.3,150,-0.270,-0.270,-0.270,0.000,0.000,0.000
1641079922850379008,2022-01-01-23:32:02,10.1.1.3,144,-0.260,-0.260,-0.260,0.000,0.000,0.000
1641079923051894016,2022-01-01-23:32:03,10.1.1.3,144,-0.250,-0.250,-0.250,0.000,0.000,0.000
1641079923250631936,2022-01-01-23:32:03,10.1.1.3,142,-0.240,-0.240,-0.240,0.000,0.000,0.000
1641079923453666048,2022-01-01-23:32:03,10.1.1.3,143,-0.230,-0.230,-0.230,0.000,0.000,0.000
1641079923658163968,2022-01-01-23:32:03,10.1.1.3,148,-0.220,-0.220,-0.220,0.000,0.000,0.000
1641079923869696000,2022-01-01-23:32:03,10.1.1.3,156,-0.210,-0.210,-0.210,0.000,0.000,0.000
1641079924068905216,2022-01-01-23:32:04,10.1.1.3,155,-0.200,-0.200,-0.200,0.000,0.000,0.000
1641079924268737024,2022-01-01-23:32:04,10.1.1.3,154,-0.190,-0.190,-0.190,0.000,0.000,0.000
1641079924469196032,2022-01-01-23:32:04,10.1.1.3,153,-0.180,-0.180,-0.180,0.000,0.000,0.000
1641079924670285824,2022-01-01-23:32:04,10.1.1.3,152,-0.170,-0.170,-0.170,0.000,0.000,0.000
1641079924871365120,2022-01-01-23:32:04,10.1.1.3,152,-0.160,-0.160,-0.160,0.000,0.000,0.000
1641079925073106944,2022-01-01-23:32:05,10.1.1.3,153,-0.150,-0.150,-0.150,0.000,0.000,0.000
1641079925268711936,2022-01-01-23:32:05,10.1.1.3,146,-0.140,-0.140,-0.140,0.000,0.000,0.000
1641079925467380992,2022-01-01-23:32:05,10.1.1.3,143,-0.130,-0.130,-0.130,0.000,0.000,0.000
1641079925666801920,2022-01-01-23:32:05,10.1.1.3,142,-0.120,-0.120,-0.120,0.000,0.000,0.000
1641079925867429888,2022-01-01-23:32:05,10.1.1.3,141,-0.110,-0.110,-0.110,0.000,0.000,0.000
1641079926068754944,2022-01-01-23:32:06,10.1.1.3,138,-0.100,-0.100,-0.100,0.000,0.000,0.000
1641079926269892096,2022-01-01-23:32:06,10.1.1.3,139,-0.090,-0.090,-0.090,0.000,0.000,0.000
1641079926486246144,2022-01-01-23:32:06,10.1.1.3,154,-0.080,-0.080,-0.080,0.000,0.000,0.000
1641079926685874944,2022-01-01-23:32:06,10.1.1.3,152,-0.070,-0.070,-0.070,0.000,0.000,0.000
1641079926886835200,2022-01-01-23:32:06,10.1.1.3,152,-0.060,-0.060,-0.060,0.000,0.000,0.000
1641079927086245120,2022-01-01-23:32:07,10.1.1.3,151,-0.050,-0.050,-0.050,0.000,0.000,0.000
1641079927285648128,2022-01-01-23:32:07,10.1.1.3,149,-0.040,-0.040,-0.040,0.000,0.000,0.000
1641079927493901056,2022-01-01-23:32:07,10.1.1.3,156,-0.030,-0.030,-0.030,0.000,0.000,0.000
1641079927685288960,2022-01-01-23:32:07,10.1.1.3,145,-0.020,-0.020,-0.020,0.000,0.000,0.000
1641079927884582144,2022-01-01-23:32:07,10.1.1.3,145,-0.010,-0.010,-0.010,0.000,0.000,0.000
1641079928088542976,2022-01-01-23:32:08,10.1.1.3,143,0.000,0.000,0.000,0.000,0.000,0.000
1641079928286340864,2022-01-01-23:32:08,10.1.1.3,143,-0.010,-0.010,-0.010,0.000,0.000,0.000
1641079928484441088,2022-01-01-23:32:08,10.1.1.3,140,-0.020,-0.020,-0.020,0.000,0.000,0.000
1641079928682960896,2022-01-01-23:32:08,10.1.1.3,136,-0.030,-0.030,-0.030,0.000,0.000,0.000
1641079928884387072,2022-01-01-23:32:08,10.1.1.3,135,-0.040,-0.040,-0.040,0.000,0.000,0.000
1641079929086216960,2022-01-01-23:32:09,10.1.1.3,137,-0.050,-0.050,-0.050,0.000,0.000,0.000
1641079929287106048,2022-01-01-23:32:09,10.1.1.3,137,-0.060,-0.060,-0.060,0.000,0.000,0.000
1641079929481910016,2022-01-01-23:32:09,10.1.1.3,131,-0.070,-0.070,-0.070,0.000,0.000,0.000
1641079929701256960,2022-01-01-23:32:09,10.1.1.3,149,-0.080,-0.080,-0.080,0.000,0.000,0.000
1641079929902160896,2022-01-01-23:32:09,10.1.1.3,149,-0.090,-0.090,-0.090,0.000,0.000,0.000
1641079930100898048,2022-01-01-23:32:10,10.1.1.3,147,-0.100,-0.100,-0.100,0.000,0.000,0.000
1641079930302162944,2022-01-01-23:32:10,10.1.1.3,146,-0.110,-0.110,-0.110,0.000,0.000,0.000
1641079930500760064,2022-01-01-23:32:10,10.1.1.3,144,-0.120,-0.120,-0.120,0.000,0.000,0.000
1641079930699821824,2022-01-01-23:32:10,10.1.1.3,142,-0.130,-0.130,-0.130,0.000,0.000,0.000
1641079930902417920,2022-01-01-23:32:10,10.1.1.3,142,-0.140,-0.140,-0.140,0.000,0.000,0.000
1641079931101362944,2022-01-01-23:32:11,10.1.1.3,140,-0.150,-0.150,-0.150,0.000,0.000,0.000
1641079931299236096,2022-01-01-23:32:11,10.1.1.3,136,-0.160,-0.160,-0.160,0.000,0.000,0.000
1641079931499492864,2022-01-01-23:32:11,10.1.1.3,135,-0.170,-0.170,-0.170,0.000,0.000,0.000
1641079931701581056,2022-01-01-23:32:11,10.1.1.3,136,-0.180,-0.180,-0.180,0.000,0.000,0.000
1641079931898951936,2022-01-01-23:32:11,10.1.1.3,133,-0.190,-0.190,-0.190,0.000,0.000,0.000
1641079932101383936,2022-01-01-23:32:12,10.1.1.3,134,-0.200,-0.200,-0.200,0.000,0.000,0.000
1641079932298024960,2022-01-01-23:32:12,10.1.1.3,130,-0.210,-0.210,-0.210,0.000,0.000,0.000
1641079932498366208,2022-01-01-23:32:12,10.1.1.3,130,-0.220,-0.220,-0.220,0.000,0.000,0.000
1641079932698137088,2022-01-01-23:32:12,10.1.1.3,127,-0.230,-0.230,-0.230,0.000,0.000,0.000
1641079932917316864,2022-01-01-23:32:12,10.1.1.3,144,-0.240,-0.240,-0.240,0.000,0.000,0.000
1641079933120250880,2022-01-01-23:32:13,10.1.1.3,143,-0.250,-0.250,-0.250,0.000,0.000,0.000
1641079933316381952,2022-01-01-23:32:13,10.1.1.3,141,-0.260,-0.260,-0.260,0.000,0.000,0.000
1641079933495948032,2022-01-01-23:32:13,10.1.1.3,120,-0.270,-0.270,-0.270,0.000,0.000,0.000
1641079933715954944,2022-01-01-23:32:13,10.1.1.3,134,-0.280,-0.280,-0.280,0.000,0.000,0.000
1641079933919298048,2022-01-01-23:32:13,10.1.1.3,133,-0.290,-0.290,-0.290,0.000,0.000,0.000
1641079934119683072,2022-01-01-23:32:14,10.1.1.3,136,-0.300,-0.300,-0.300,0.000,0.000,0.000
1641079934319289088,2022-01-01-23:32:14,10.1.1.3,130,-0.310,-0.310,-0.310,0.000,0.000,0.000
1641079934514885888,2022-01-01-23:32:14,10.1.1.3,128,-0.320,-0.320,-0.320,0.000,0.000,0.000
1641079934718530816,2022-01-01-23:32:14,10.1.1.3,129,-0.330,-0.330,-0.330,0.000,0.000,0.000
1641079934935243008,2022-01-01-23:32:14,10.1.1.3,142,-0.340,-0.340,-0.340,0.000,0.000,0.000
1641079935137106944,2022-01-01-23:32:15,10.1.1.3,140,-0.350,-0.350,-0.350,0.000,0.000,0.000
1641079935334110976,2022-01-01-23:32:15,10.1.1.3,136,-0.360,-0.360,-0.360,0.000,0.000,0.000
1641079935533385984,2022-01-01-23:32:15,10.1.1.3,135,-0.370,-0.370,-0.370,0.000,0.000,0.000
1641079935734601984,2022-01-01-23:32:15,10.1.1.3,134,-0.380,-0.380,-0.380,0.000,0.000,0.000
1641079935934663168,2022-01-01-23:32:15,10.1.1.3,132,-0.390,-0.390,-0.390,0.000,0.000,0.000
1641079936132141056,2022-01-01-23:32:16,10.1.1.3,129,-0.400,-0.400,-0.400,0.000,0.000,0.000
1641079936335900160,2022-01-01-23:32:16,10.1.1.3,132,-0.410,-0.410,-0.410,0.000,0.000,0.000
1641079936532444928,2022-01-01-23:32:16,10.1.1.3,127,-0.420,-0.420,-0.420,0.000,0.000,0.000
1641079936737696768,2022-01-01-23:32:16,10.1.1.3,132,-0.430,-0.430,-0.430,0.000,0.000,0.000
1641079936933389056,2022-01-01-23:32:16,10.1.1.3,125,-0.440,-0.440,-0.440,0.000,0.000,0.000
1641079937134420992,2022-01-01-23:32:17,10.1.1.3,126,-0.450,-0.450,-0.450,0.000,0.000,0.000
1641079937331075072,2022-01-01-23:32:17,10.1.1.3,122,-0.460,-0.460,-0.460,0.000,0.000,0.000
1641079937529586944,2022-01-01-23:32:17,10.1.1.3,119,-0.470,-0.470,-0.470,0.000,0.000,0.000
1641079937730622976,2022-01-01-23:32:17,10.1.1.3,119,-0.480,-0.480,-0.480,0.000,0.000,0.000
1641079937950221056,2022-01-01-23:32:17,10.1.1.3,136,-0.490,-0.490,-0.490,0.000,0.000,0.000
1641079938149196032,2022-01-01-23:32:18,10.1.1.3,134,-0.480,-0.480,-0.480,0.000,0.000,0.000
1641079938350416896,2022-01-01-23:32:18,10.1.1.3,134,-0.470,-0.470,-0.470,0.000,0.000,0.000
1641079938552336896,2022-01-01-23:32:18,10.1.1.3,136,-0.460,-0.460,-0.460,0.000,0.000,0.000
1641079938750475776,2022-01-01-23:32:18,10.1.1.3,133,-0.450,-0.450,-0.450,0.000,0.000,0.000
1641079938947951104,2022-01-01-23:32:18,10.1.1.3,129,-0.440,-0.440,-0.440,0.000,0.000,0.000
1641079939149331200,2022-01-01-23:32:19,10.1.1.3,129,-0.430,-0.430,-0.430,0.000,0.000,0.000
1641079939348196864,2022-01-01-23:32:19,10.1.1.3,127,-0.420,-0.420,-0.420,0.000,0.000,0.000
1641079939547358976,2022-01-01-23:32:19,10.1.1.3,123,-0.410,-0.410,-0.410,0.000,0.000,0.000
1641079939747160064,2022-01-01-23:32:19,10.1.1.3,122,-0.400,-0.400,-0.400,0.000,0.000,0.000
1641079939946685952,2022-01-01-23:32:19,10.1.1.3,121,-0.390,-0.390,-0.390,0.000,0.000,0.000
1641079940149178880,2022-01-01-23:32:20,10.1.1.3,122,-0.380,-0.380,-0.380,0.000,0.000,0.000
1641079940346371840,2022-01-01-23:32:20,10.1.1.3,114,-0.370,-0.370,-0.370,0.000,0.000,0.000
1641079940567958016,2022-01-01-23:32:20,10.1.1.3,135,-0.360,-0.360,-0.360,0.000,0.000,0.000
1641079940765004032,2022-01-01-23:32:20,10.1.1.3,131,-0.350,-0.350,-0.350,0.000,0.000,0.000
1641079940964633856,2022-01-01-23:32:20,10.1.1.3,131,-0.340,-0.340,-0.340,0.000,0.000,0.000
1641079941164833024,2022-01-01-23:32:21,10.1.1.3,130,-0.330,-0.330,-0.330,0.000,0.000,0.000
1641079941368880128,2022-01-01-23:32:21,10.1.1.3,132,-0.320,-0.320,-0.320,0.000,0.000,0.000
1641079941567032064,2022-01-01-23:32:21,10.1.1.3,128,-0.310,-0.310,-0.310,0.000,0.000,0.000
1641079941768589056,2022-01-01-23:32:21,10.1.1.3,131,-0.300,-0.300,-0.300,0.000,0.000,0.000
1641079941968417024,2022-01-01-23:32:21,10.1.1.3,129,-0.290,-0.290,-0.290,0.000,0.000,0.000
1641079942167176960,2022-01-01-23:32:22,10.1.1.3,127,-0.280,-0.280,-0.280,0.000,0.000,0.000
1641079942364114944,2022-01-01-23:32:22,10.1.1.3,123,-0.270,-0.270,-0.270,0.000,0.000,0.000
1641079942562406144,2022-01-01-23:32:22,10.1.1.3,120,-0.260,-0.260,-0.260,0.000,0.000,0.000
1641079942765016064,2022-01-01-23:32:22,10.1.1.3,118,-0.250,-0.250,-0.250,0.000,0.000,0.000
1641079942964366848,2022-01-01-23:32:22,10.1.1.3,117,-0.240,-0.240,-0.240,0.000,0.000,0.000
1641079943162870016,2022-01-01-23:32:23,10.1.1.3,116,-0.230,-0.230,-0.230,0.000,0.000,0.000
1641079943363418112,2022-01-01-23:32:23,10.1.1.3,115,-0.220,-0.220,-0.220,0.000,0.000,0.000
1641079943561062144,2022-01-01-23:32:23,10.1.1.3,112,-0.210,-0.210,-0.210,0.000,0.000,0.000
1641079943763308032,2022-01-01-23:32:23,10.1.1.3,112,-0.200,-0.200,-0.200,0.000,0.000,0.000
1641079943961054976,2022-01-01-23:32:23,10.1.1.3,109,-0.190,-0.190,-0.190,0.000,0.000,0.000
1641079944183183872,2022-01-01-23:32:24,10.1.1.3,129,-0.180,-0.180,-0.180,0.000,0.000,0.000
1641079944381691904,2022-01-01-23:32:24,10.1.1.3,127,-0.170,-0.170,-0.170,0.000,0.000,0.000
1641079944581846016,2022-01-01-23:32:24,10.1.1.3,127,-0.160,-0.160,-0.160,0.000,0.000,0.000
1641079944778841856,2022-01-01-23:32:24,10.1.1.3,123,-0.150,-0.150,-0.150,0.000,0.000,0.000
1641079944978207232,2022-01-01-23:32:24,10.1.1.3,122,-0.140,-0.140,-0.140,0.000,0.000,0.000
1641079945179520000,2022-01-01-23:32:25,10.1.1.3,121,-0.130,-0.130,-0.130,0.000,0.000,0.000
1641079945378173952,2022-01-01-23:32:25,10.1.1.3,117,-0.120,-0.120,-0.120,0.000,0.000,0.000
1641079945578190080,2022-01-01-23:32:25,10.1.1.3,115,-0.110,-0.110,-0.110,0.000,0.000,0.000
1641079945777443840,2022-01-01-23:32:25,10.1.1.3,113,-0.100,-0.100,-0.100,0.000,0.000,0.000
1641079945977675008,2022-01-01-23:32:25,10.1.1.3,113,-0.090,-0.090,-0.090,0.000,0.000,0.000
1641079946181946112,2022-01-01-23:32:26,10.1.1.3,112,-0.080,-0.080,-0.080,0.000,0.000,0.000
1641079946383200000,2022-01-01-23:32:26,10.1.1.3,116,-0.070,-0.070,-0.070,0.000,0.000,0.000
1641079946580115200,2022-01-01-23:32:26,10.1.1.3,112,-0.060,-0.060,-0.060,0.000,0.000,0.000
1641079946783715840,2022-01-01-23:32:26,10.1.1.3,114,-0.050,-0.050,-0.050,0.000,0.000,0.000
1641079946983483904,2022-01-01-23:32:26,10.1.1.3,113,-0.040,-0.040,-0.040,0.000,0.000,0.000
1641079947203901952,2022-01-01-23:32:27,10.1.1.3,132,-0.030,-0.030,-0.030,0.000,0.000,0.000
1641079947407622144,2022-01-01-23:32:27,10.1.1.3,131,-0.020,-0.020,-0.020,0.000,0.000,0.000
1641079947605797888,2022-01-01-23:32:27,10.1.1.3,132,-0.010,-0.010,-0.010,0.000,0.000,0.000
1641079947806464000,2022-01-01-23:32:27,10.1.1.3,132,0.000,0.000,0.000,0.000,0.000,0.000
1641079948006217984,2022-01-01-23:32:28,10.1.1.3,129,-0.010,-0.010,-0.010,0.000,0.000,0.000
1641079948209423104,2022-01-01-23:32:28,10.1.1.3,130,-0.020,-0.020,-0.020,0.000,0.000,0.000
1641079948407939072,2022-01-01-23:32:28,10.1.1.3,128,-0.030,-0.030,-0.030,0.000,0.000,0.000
1641079948609383936,2022-01-01-23:32:28,10.1.1.3,127,-0.040,-0.040,-0.040,0.000,0.000,0.000
1641079948813154816,2022-01-01-23:32:28,10.1.1.3,129,-0.050,-0.050,-0.050,0.000,0.000,0.000
1641079949012418048,2022-01-01-23:32:29,10.1.1.3,126,-0.060,-0.060,-0.060,0.000,0.000,0.000
1641079949212218880,2022-01-01-23:32:29,10.1.1.3,125,-0.070,-0.070,-0.070,0.000,0.000,0.000
1641079949412007936,2022-01-01-23:32:29,10.1.1.3,124,-0.080,-0.080,-0.080,0.000,0.000,0.000
1641079949613392128,2022-01-01-23:32:29,10.1.1.3,124,-0.090,-0.090,-0.090,0.000,0.000,0.000
1641079949833607936,2022-01-01-23:32:29,10.1.1.3,140,-0.100,-0.100,-0.100,0.000,0.000,0.000
1641079950037730816,2022-01-01-23:32:30,10.1.1.3,143,-0.110,-0.110,-0.110,0.000,0.000,0.000
1641079950237318144,2022-01-01-23:32:30,10.1.1.3,141,-0.120,-0.120,-0.120,0.000,0.000,0.000
1641079950435874816,2022-01-01-23:32:30,10.1.1.3,136,-0.130,-0.130,-0.130,0.000,0.000,0.000
1641079950640594944,2022-01-01-23:32:30,10.1.1.3,140,-0.140,-0.140,-0.140,0.000,0.000,0.000
1641079950837344000,2022-01-01-23:32:30,10.1.1.3,136,-0.150,-0.150,-0.150,0.000,0.000,0.000
1641079951038786048,2022-01-01-23:32:31,10.1.1.3,136,-0.160,-0.160,-0.160,0.000,0.000,0.000
1641079951238793984,2022-01-01-23:32:31,10.1.1.3,135,-0.170,-0.170,-0.170,0.000,0.000,0.000
1641079951439518976,2022-01-01-23:32:31,10.1.1.3,135,-0.180,-0.180,-0.180,0.000,0.000,0.000
1641079951639480064,2022-01-01-23:32:31,10.1.1.3,133,-0.190,-0.190,-0.190,0.000,0.000,0.000
1641079951843961856,2022-01-01-23:32:31,10.1.1.3,134,-0.200,-0.200,-0.200,0.000,0.000,0.000
1641079952041280000,2022-01-01-23:32:32,10.1.1.3,133,-0.210,-0.210,-0.210,0.000,0.000,0.000
1641079952243110912,2022-01-01-23:32:32,10.1.1.3,133,-0.220,-0.220,-0.220,0.000,0.000,0.000
1641079952442404864,2022-01-01-23:32:32,10.1.1.3,132,-0.230,-0.230,-0.230,0.000,0.000,0.000
1641079952642540032,2022-01-01-23:32:32,10.1.1.3,132,-0.240,-0.240,-0.240,0.000,0.000,0.000
1641079952865804800,2022-01-01-23:32:32,10.1.1.3,153,-0.250,-0.250,-0.250,0.000,0.000,0.000
1641079953067084032,2022-01-01-23:32:33,10.1.1.3,154,-0.260,-0.260,-0.260,0.000,0.000,0.000
1641079953265508864,2022-01-01-23:32:33,10.1.1.3,149,-0.270,-0.270,-0.270,0.000,0.000,0.000
1641079953467591936,2022-01-01-23:32:33,10.1.1.3,151,-0.280,-0.280,-0.280,0.000,0.000,0.000
1641079953667943936,2022-01-01-23:32:33,10.1.1.3,148,-0.290,-0.290,-0.290,0.000,0.000,0.000
1641079953867156992,2022-01-01-23:32:33,10.1.1.3,148,-0.300,-0.300,-0.300,0.000,0.000,0.000
1641079954067766784,2022-01-01-23:32:34,10.1.1.3,147,-0.310,-0.310,-0.310,0.000,0.000,0.000
1641079954268886016,2022-01-01-23:32:34,10.1.1.3,147,-0.320,-0.320,-0.320,0.000,0.000,0.000
1641079954467123968,2022-01-01-23:32:34,10.1.1.3,144,-0.330,-0.330,-0.330,0.000,0.000,0.000
1641079954670712832,2022-01-01-23:32:34,10.1.1.3,147,-0.340,-0.340,-0.340,0.000,0.000,0.000
1641079954872420096,2022-01-01-23:32:34,10.1.1.3,146,-0.350,-0.350,-0.350,0.000,0.000,0.000
1641079955068999168,2022-01-01-23:32:35,10.1.1.3,143,-0.360,-0.360,-0.360,0.000,0.000,0.000
1641079955269649920,2022-01-01-23:32:35,10.1.1.3,143,-0.370,-0.370,-0.370,0.000,0.000,0.000
1641079955470067968,2022-01-01-23:32:35,10.1.1.3,142,-0.380,-0.380,-0.380,0.000,0.000,0.000
1641079955670095872,2022-01-01-23:32:35,10.1.1.3,140,-0.390,-0.390,-0.390,0.000,0.000,0.000
1641079955891239936,2022-01-01-23:32:35,10.1.1.3,159,-0.400,-0.400,-0.400,0.000,0.000,0.000
1641079956092556032,2022-01-01-23:32:36,10.1.1.3,155,-0.410,-0.410,-0.410,0.000,0.000,0.000
1641079956291332864,2022-01-01-23:32:36,10.1.1.3,152,-0.420,-0.420,-0.420,0.000,0.000,0.000
1641079956492804096,2022-01-01-23:32:36,10.1.1.3,145,-0.430,-0.430,-0.430,0.000,0.000,0.000
1641079956697496832,2022-01-01-23:32:36,10.1.1.3,149,-0.440,-0.440,-0.440,0.000,0.000,0.000
1641079956892344064,2022-01-01-23:32:36,10.1.1.3,142,-0.450,-0.450,-0.450,0.000,0.000,0.000
1641079957092852224,2022-01-01-23:32:37,10.1.1.3,141,-0.460,-0.460,-0.460,0.000,0.000,0.000
1641079957313440000,2022-01-01-23:32:37,10.1.1.3,161,-0.470,-0.470,-0.470,0.000,0.000,0.000
1641079957517411072,2022-01-01-23:32:37,10.1.1.3,164,-0.480,-0.480,-0.480,0.000,0.000,0.000
1641079957717263104,2022-01-01-23:32:37,10.1.1.3,157,-0.490,-0.490,-0.490,0.000,0.000,0.000
1641079957914700032,2022-01-01-23:32:37,10.1.1.3,155,-0.480,-0.480,-0.480,0.000,0.000,0.000
1641079958120148992,2022-01-01-23:32:38,10.1.1.3,154,-0.470,-0.470,-0.470,0.000,0.000,0.000
1641079958319302144,2022-01-01-23:32:38,10.1.1.3,153,-0.460,-0.460,-0.460,0.000,0.000,0.000
1641079958514604032,2022-01-01-23:32:38,10.1.1.3,151,-0.450,-0.450,-0.450,0.000,0.000,0.000
1641079958720057088,2022-01-01-23:32:38,10.1.1.3,155,-0.440,-0.440,-0.440,0.000,0.000,0.000
1641079958918589184,2022-01-01-23:32:38,10.1.1.3,150,-0.430,-0.430,-0.430,0.000,0.000,0.000
1641079959120924928,2022-01-01-23:32:39,10.1.1.3,153,-0.420,-0.420,-0.420,0.000,0.000,0.000
1641079959321012992,2022-01-01-23:32:39,10.1.1.3,149,-0.410,-0.410,-0.410,0.000,0.000,0.000
1641079959539414784,2022-01-01-23:32:39,10.1.1.3,167,-0.400,-0.400,-0.400,0.000,0.000,0.000
1641079959719547904,2022-01-01-23:32:39,10.1.1.3,144,-0.390,-0.390,-0.390,0.000,0.000,0.000
1641079959937144064,2022-01-01-23:32:39,10.1.1.3,163,-0.380,-0.380,-0.380,0.000,0.000,0.000
1641079960139116032,2022-01-01-23:32:40,10.1.1.3,162,-0.370,-0.370,-0.370,0.000,0.000,0.000
1641079960345179136,2022-01-01-23:32:40,10.1.1.3,169,-0.360,-0.360,-0.360,0.000,0.000,0.000
1641079960536761088,2022-01-01-23:32:40,10.1.1.3,159,-0.350,-0.350,-0.350,0.000,0.000,0.000
1641079960737967104,2022-01-01-23:32:40,10.1.1.3,158,-0.340,-0.340,-0.340,0.000,0.000,0.000
1641079960941554176,2022-01-01-23:32:40,10.1.1.3,160,-0.330,-0.330,-0.330,0.000,0.000,0.000
1641079961138758912,2022-01-01-23:32:41,10.1.1.3,156,-0.320,-0.320,-0.320,0.000,0.000,0.000
1641079961337600000,2022-01-01-23:32:41,10.1.1.3,154,-0.310,-0.310,-0.310,0.000,0.000,0.000
1641079961539546112,2022-01-01-23:32:41,10.1.1.3,155,-0.300,-0.300,-0.300,0.000,0.000,0.000
1641079961746348032,2022-01-01-23:32:41,10.1.1.3,161,-0.290,-0.290,-0.290,0.000,0.000,0.000
1641079961939599104,2022-01-01-23:32:41,10.1.1.3,149,-0.280,-0.280,-0.280,0.000,0.000,0.000
1641079962161789952,2022-01-01-23:32:42,10.1.1.3,164,-0.270,-0.270,-0.270,0.000,0.000,0.000
1641079962358563072,2022-01-01-23:32:42,10.1.1.3,162,-0.260,-0.260,-0.260,0.000,0.000,0.000
1641079962559108864,2022-01-01-23:32:42,10.1.1.3,162,-0.250,-0.250,-0.250,0.000,0.000,0.000
1641079962758387968,2022-01-01-23:32:42,10.1.1.3,160,-0.240,-0.240,-0.240,0.000,0.000,0.000
1641079962959384064,2022-01-01-23:32:42,10.1.1.3,158,-0.230,-0.230,-0.230,0.000,0.000,0.000
1641079963159659008,2022-01-01-23:32:43,10.1.1.3,156,-0.220,-0.220,-0.220,0.000,0.000,0.000
1641079963359448832,2022-01-01-23:32:43,10.1.1.3,155,-0.210,-0.210,-0.210,0.000,0.000,0.000
1641079963560096000,2022-01-01-23:32:43,10.1.1.3,154,-0.200,-0.200,-0.200,0.000,0.000,0.000
1641079963759508992,2022-01-01-23:32:43,10.1.1.3,152,-0.190,-0.190,-0.190,0.000,0.000,0.000
1641079963959884032,2022-01-01-23:32:43,10.1.1.3,152,-0.180,-0.180,-0.180,0.000,0.000,0.000
1641079964163100928,2022-01-01-23:32:44,10.1.1.3,151,-0.170,-0.170,-0.170,0.000,0.000,0.000
1641079964367009024,2022-01-01-23:32:44,10.1.1.3,157,-0.160,-0.160,-0.160,0.000,0.000,0.000
1641079964560892160,2022-01-01-23:32:44,10.1.1.3,150,-0.150,-0.150,-0.150,0.000,0.000,0.000
1641079964761511168,2022-01-01-23:32:44,10.1.1.3,150,-0.140,-0.140,-0.140,0.000,0.000,0.000
1641079964979667968,2022-01-01-23:32:44,10.1.1.3,167,-0.130,-0.130,-0.130,0.000,0.000,0.000
1641079965160738048,2022-01-01-23:32:45,10.1.1.3,147,-0.120,-0.120,-0.120,0.000,0.000,0.000
1641079965382759168,2022-01-01-23:32:45,10.1.1.3,167,-0.110,-0.110,-0.110,0.000,0.000,0.000
1641079965582640896,2022-01-01-23:32:45,10.1.1.3,164,-0.100,-0.100,-0.100,0.000,0.000,0.000
1641079965781989120,2022-01-01-23:32:45,10.1.1.3,165,-0.090,-0.090,-0.090,0.000,0.000,0.000
1641079965980583936,2022-01-01-23:32:45,10.1.1.3,160,-0.080,-0.080,-0.080,0.000,0.000,0.000
1641079966181238784,2022-01-01-23:32:46,10.1.1.3,159,-0.070,-0.070,-0.070,0.000,0.000,0.000
1641079966382062848,2022-01-01-23:32:46,10.1.1.3,157,-0.060,-0.060,-0.060,0.000,0.000,0.000
1641079966581601024,2022-01-01-23:32:46,10.1.1.3,156,-0.050,-0.050,-0.050,0.000,0.000,0.000
1641079966780600064,2022-01-01-23:32:46,10.1.1.3,156,-0.040,-0.040,-0.040,0.000,0.000,0.000
1641079966980942848,2022-01-01-23:32:46,10.1.1.3,155,-0.030,-0.030,-0.030,0.000,0.000,0.000
1641079967181126144,2022-01-01-23:32:47,10.1.1.3,154,-0.020,-0.020,-0.020,0.000,0.000,0.000
1641079967381911040,2022-01-01-23:32:47,10.1.1.3,154,-0.010,-0.010,-0.010,0.000,0.000,0.000
1641079967584104960,2022-01-01-23:32:47,10.1.1.3,156,0.000,0.000,0.000,0.000,0.000,0.000
1641079967780184064,2022-01-01-23:32:47,10.1.1.3,152,-0.010,-0.010,-0.010,0.000,0.000,0.000
1641079967980508160,2022-01-01-23:32:47,10.1.1.3,151,-0.020,-0.020,-0.020,0.000,0.000,0.000
1641079968181843968,2022-01-01-23:32:48,10.1.1.3,152,-0.030,-0.030,-0.030,0.000,0.000,0.000
1641079968383100928,2022-01-01-23:32:48,10.1.1.3,150,-0.040,-0.040,-0.040,0.000,0.000,0.000
1641079968582830848,2022-01-01-23:32:48,10.1.1.3,150,-0.050,-0.050,-0.050,0.000,0.000,0.000
1641079968803348992,2022-01-01-23:32:48,10.1.1.3,167,-0.060,-0.060,-0.060,0.000,0.000,0.000
1641079969000616960,2022-01-01-23:32:49,10.1.1.3,166,-0.070,-0.070,-0.070,0.000,0.000,0.000
1641079969200894976,2022-01-01-23:32:49,10.1.1.3,165,-0.080,-0.080,-0.080,0.000,0.000,0.000
1641079969401292032,2022-01-01-23:32:49,10.1.1.3,164,-0.090,-0.090,-0.090,0.000,0.000,0.000
1641079969600217088,2022-01-01-23:32:49,10.1.1.3,163,-0.100,-0.100,-0.100,0.000,0.000,0.000
1641079969800236032,2022-01-01-23:32:49,10.1.1.3,159,-0.110,-0.110,-0.110,0.000,0.000,0.000
1641079970000055040,2022-01-01-23:32:49,10.1.1.3,155,-0.120,-0.120,-0.120,0.000,0.000,0.000
1641079970205090048,2022-01-01-23:32:50,10.1.1.3,158,-0.130,-0.130,-0.130,0.000,0.000,0.000
1641079970399403008,2022-01-01-23:32:50,10.1.1.3,151,-0.140,-0.140,-0.140,0.000,0.000,0.000
1641079970602566912,2022-01-01-23:32:50,10.1.1.3,152,-0.150,-0.150,-0.150,0.000,0.000,0.000
1641079970800625920,2022-01-01-23:32:50,10.1.1.3,150,-0.160,-0.160,-0.160,0.000,0.000,0.000
1641079970999622144,2022-01-01-23:32:50,10.1.1.3,148,-0.170,-0.170,-0.170,0.000,0.000,0.000
1641079971219623168,2022-01-01-23:32:51,10.1.1.3,168,-0.180,-0.180,-0.180,0.000,0.000,0.000
1641079971420944896,2022-01-01-23:32:51,10.1.1.3,163,-0.190,-0.190,-0.190,0.000,0.000,0.000
1641079971621961216,2022-01-01-23:32:51,10.1.1.3,164,-0.200,-0.200,-0.200,0.000,0.000,0.000
1641079971821276928,2022-01-01-23:32:51,10.1.1.3,162,-0.210,-0.210,-0.210,0.000,0.000,0.000
1641079972019529216,2022-01-01-23:32:52,10.1.1.3,154,-0.220,-0.220,-0.220,0.000,0.000,0.000
1641079972220115968,2022-01-01-23:32:52,10.1.1.3,154,-0.230,-0.230,-0.230,0.000,0.000,0.000
1641079972421523200,2022-01-01-23:32:52,10.1.1.3,153,-0.240,-0.240,-0.240,0.000,0.000,0.000
1641079972620777984,2022-01-01-23:32:52,10.1.1.3,153,-0.250,-0.250,-0.250,0.000,0.000,0.000
1641079972818935040,2022-01-01-23:32:52,10.1.1.3,150,-0.260,-0.260,-0.260,0.000,0.000,0.000
1641079973022350080,2022-01-01-23:32:53,10.1.1.3,152,-0.270,-0.270,-0.270,0.000,0.000,0.000
1641079973240098048,2022-01-01-23:32:53,10.1.1.3,167,-0.280,-0.280,-0.280,0.000,0.000,0.000
1641079973438813952,2022-01-01-23:32:53,10.1.1.3,162,-0.290,-0.290,-0.290,0.000,0.000,0.000
1641079973642832896,2022-01-01-23:32:53,10.1.1.3,166,-0.300,-0.300,-0.300,0.000,0.000,0.000
1641079973840416000,2022-01-01-23:32:53,10.1.1.3,161,-0.310,-0.310,-0.310,0.000,0.000,0.000
1641079974039318016,2022-01-01-23:32:54,10.1.1.3,158,-0.320,-0.320,-0.320,0.000,0.000,0.000
1641079974238511104,2022-01-01-23:32:54,10.1.1.3,155,-0.330,-0.330,-0.330,0.000,0.000,0.000
1641079974439037952,2022-01-01-23:32:54,10.1.1.3,155,-0.340,-0.340,-0.340,0.000,0.000,0.000
1641079974639224064,2022-01-01-23:32:54,10.1.1.3,153,-0.350,-0.350,-0.350,0.000,0.000,0.000
1641079974837764864,2022-01-01-23:32:54,10.1.1.3,151,-0.360,-0.360,-0.360,0.000,0.000,0.000
1641079975037442816,2022-01-01-23:32:55,10.1.1.3,149,-0.370,-0.370,-0.370,0.000,0.000,0.000
1641079975238981120,2022-01-01-23:32:55,10.1.1.3,148,-0.380,-0.380,-0.380,0.000,0.000,0.000
1641079975437620992,2022-01-01-23:32:55,10.1.1.3,146,-0.390,-0.390,-0.390,0.000,0.000,0.000
1641079975657594880,2022-01-01-23:32:55,10.1.1.3,163,-0.400,-0.400,-0.400,0.000,0.000,0.000
1641079975857805056,2022-01-01-23:32:55,10.1.1.3,163,-0.410,-0.410,-0.410,0.000,0.000,0.000
1641079976057419008,2022-01-01-23:32:56,10.1.1.3,161,-0.420,-0.420,-0.420,0.000,0.000,0.000
1641079976260515840,2022-01-01-23:32:56,10.1.1.3,163,-0.430,-0.430,-0.430,0.000,0.000,0.000
1641079976458457088,2022-01-01-23:32:56,10.1.1.3,157,-0.440,-0.440,-0.440,0.000,0.000,0.000
1641079976659787776,2022-01-01-23:32:56,10.1.1.3,158,-0.450,-0.450,-0.450,0.000,0.000,0.000
1641079976858968064,2022-01-01-23:32:56,10.1.1.3,155,-0.460,-0.460,-0.460,0.000,0.000,0.000
1641079977056427008,2022-01-01-23:32:57,10.1.1.3,153,-0.470,-0.470,-0.470,0.000,0.000,0.000
1641079977260195072,2022-01-01-23:32:57,10.1.1.3,157,-0.480,-0.480,-0.480,0.000,0.000,0.000
1641079977456267008,2022-01-01-23:32:57,10.1.1.3,152,-0.490,-0.490,-0.490,0.000,0.000,0.000
1641079977656059136,2022-01-01-23:32:57,10.1.1.3,150,-0.480,-0.480,-0.480,0.000,0.000,0.000
1641079977859616000,2022-01-01-23:32:57,10.1.1.3,153,-0.470,-0.470,-0.470,0.000,0.000,0.000
1641079978055254016,2022-01-01-23:32:58,10.1.1.3,147,-0.460,-0.460,-0.460,0.000,0.000,0.000
1641079978256877824,2022-01-01-23:32:58,10.1.1.3,146,-0.450,-0.450,-0.450,0.000,0.000,0.000
1641079978456134912,2022-01-01-23:32:58,10.1.1.3,145,-0.440,-0.440,-0.440,0.000,0.000,0.000
1641079978677367040,2022-01-01-23:32:58,10.1.1.3,164,-0.430,-0.430,-0.430,0.000,0.000,0.000
1641079978875529984,2022-01-01-23:32:58,10.1.1.3,162,-0.420,-0.420,-0.420,0.000,0.000,0.000
1641079979077889024,2022-01-01-23:32:59,10.1.1.3,162,-0.410,-0.410,-0.410,0.000,0.000,0.000
1641079979274425856,2022-01-01-23:32:59,10.1.1.3,159,-0.400,-0.400,-0.400,0.000,0.000,0.000
1641079979478923008,2022-01-01-23:32:59,10.1.1.3,161,-0.390,-0.390,-0.390,0.000,0.000,0.000
1641079979677189120,2022-01-01-23:32:59,10.1.1.3,157,-0.380,-0.380,-0.380,0.000,0.000,0.000
1641079979874185984,2022-01-01-23:32:59,10.1.1.3,154,-0.370,-0.370,-0.370,0.000,0.000,0.000
1641079980074258944,2022-01-01-23:33:00,10.1.1.3,152,-0.360,-0.360,-0.360,0.000,0.000,0.000
1641079980273360896,2022-01-01-23:33:00,10.1.1.3,151,-0.350,-0.350,-0.350,0.000,0.000,0.000
1641079980477384960,2022-01-01-23:33:00,10.1.1.3,154,-0.340,-0.340,-0.340,0.000,0.000,0.000
1641079980677073920,2022-01-01-23:33:00,10.1.1.3,149,-0.330,-0.330,-0.330,0.000,0.000,0.000
1641079980876129024,2022-01-01-23:33:00,10.1.1.3,150,-0.320,-0.320,-0.320,0.000,0.000,0.000
1641079981073182976,2022-01-01-23:33:01,10.1.1.3,145,-0.310,-0.310,-0.310,0.000,0.000,0.000
1641079981272082176,2022-01-01-23:33:01,10.1.1.3,143,-0.300,-0.300,-0.300,0.000,0.000,0.000
1641079981472032000,2022-01-01-23:33:01,10.1.1.3,142,-0.290,-0.290,-0.290,0.000,0.000,0.000
1641079981671789824,2022-01-01-23:33:01,10.1.1.3,140,-0.280,-0.280,-0.280,0.000,0.000,0.000
1641079981893118976,2022-01-01-23:33:01,10.1.1.3,160,-0.270,-0.270,-0.270,0.000,0.000,0.000
1641079982092577024,2022-01-01-23:33:02,10.1.1.3,157,-0.260,-0.260,-0.260,0.000,0.000,0.000
1641079982291234048,2022-01-01-23:33:02,10.1.1.3,154,-0.250,-0.250,-0.250,0.000,0.000,0.000
1641079982491645952,2022-01-01-23:33:02,10.1.1.3,152,-0.240,-0.240,-0.240,0.000,0.000,0.000
1641079982692434944,2022-01-01-23:33:02,10.1.1.3,152,-0.230,-0.230,-0.230,0.000,0.000,0.000
1641079982890955008,2022-01-01-23:33:02,10.1.1.3,149,-0.220,-0.220,-0.220,0.000,0.000,0.000
1641079983094094080,2022-01-01-23:33:03,10.1.1.3,148,-0.210,-0.210,-0.210,0.000,0.000,0.000
1641079983293502976,2022-01-01-23:33:03,10.1.1.3,148,-0.200,-0.200,-0.200,0.000,0.000,0.000
1641079983490253824,2022-01-01-23:33:03,10.1.1.3,143,-0.190,-0.190,-0.190,0.000,0.000,0.000
1641079983694873088,2022-01-01-23:33:03,10.1.1.3,147,-0.180,-0.180,-0.180,0.000,0.000,0.000
1641079983893524992,2022-01-01-23:33:03,10.1.1.3,143,-0.170,-0.170,-0.170,0.000,0.000,0.000
1641079984089867008,2022-01-01-23:33:04,10.1.1.3,140,-0.160,-0.160,-0.160,0.000,0.000,0.000
1641079984288934912,2022-01-01-23:33:04,10.1.1.3,137,-0.150,-0.150,-0.150,0.000,0.000,0.000
1641079984508999936,2022-01-01-23:33:04,10.1.1.3,156,-0.140,-0.140,-0.140,0.000,0.000,0.000
1641079984708832000,2022-01-01-23:33:04,10.1.1.3,155,-0.130,-0.130,-0.130,0.000,0.000,0.000
1641079984908068864,2022-01-01-23:33:04,10.1.1.3,153,-0.120,-0.120,-0.120,0.000,0.000,0.000
1641079985113235968,2022-01-01-23:33:05,10.1.1.3,157,-0.110,-0.110,-0.110,0.000,0.000,0.000
1641079985307820032,2022-01-01-23:33:05,10.1.1.3,152,-0.100,-0.100,-0.100,0.000,0.000,0.000
1641079985508281088,2022-01-01-23:33:05,10.1.1.3,151,-0.090,-0.090,-0.090,0.000,0.000,0.000
1641079985711940096,2022-01-01-23:33:05,10.1.1.3,150,-0.080,-0.080,-0.080,0.000,0.000,0.000
1641079985908493056,2022-01-01-23:33:05,10.1.1.3,150,-0.070,-0.070,-0.070,0.000,0.000,0.000
1641079986109458944,2022-01-01-23:33:06,10.1.1.3,150,-0.060,-0.060,-0.060,0.000,0.000,0.000
1641079986307646976,2022-01-01-23:33:06,10.1.1.3,147,-0.050,-0.050,-0.050,0.000,0.000,0.000
1641079986507305984,2022-01-01-23:33:06,10.1.1.3,145,-0.040,-0.040,-0.040,0.000,0.000,0.000
1641079986706202880,2022-01-01-23:33:06,10.1.1.3,141,-0.030,-0.030,-0.030,0.000,0.000,0.000
1641079986906759936,2022-01-01-23:33:06,10.1.1.3,140,-0.020,-0.020,-0.020,0.000,0.000,0.000
1641079987106300160,2022-01-01-23:33:07,10.1.1.3,138,-0.010,-0.010,-0.010,0.000,0.000,0.000
1641079987305656064,2022-01-01-23:33:07,10.1.1.3,136,0.000,0.000,0.000,0.000,0.000,0.000
1641079987507049984,2022-01-01-23:33:07,10.1.1.3,135,-0.010,-0.010,-0.010,0.000,0.000,0.000
1641079987706305024,2022-01-01-23:33:07,10.1.1.3,134,-0.020,-0.020,-0.020,0.000,0.000,0.000
1641079987930635008,2022-01-01-23:33:07,10.1.1.3,158,-0.030,-0.030,-0.030,0.000,0.000,0.000
1641079988107960064,2022-01-01-23:33:08,10.1.1.3,134,-0.040,-0.040,-0.040,0.000,0.000,0.000
1641079988325864192,2022-01-01-23:33:08,10.1.1.3,151,-0.050,-0.050,-0.050,0.000,0.000,0.000
1641079988526182912,2022-01-01-23:33:08,10.1.1.3,149,-0.060,-0.060,-0.060,0.000,0.000,0.000
1641079988725678080,2022-01-01-23:33:08,10.1.1.3,149,-0.070,-0.070,-0.070,0.000,0.000,0.000
1641079988927862784,2022-01-01-23:33:08,10.1.1.3,149,-0.080,-0.080,-0.080,0.000,0.000,0.000
1641079989126669824,2022-01-01-23:33:09,10.1.1.3,145,-0.090,-0.090,-0.090,0.000,0.000,0.000
1641079989324282880,2022-01-01-23:33:09,10.1.1.3,142,-0.100,-0.100,-0.100,0.000,0.000,0.000
1641079989528100096,2022-01-01-23:33:09,10.1.1.3,146,-0.110,-0.110,-0.110,0.000,0.000,0.000
1641079989726414080,2022-01-01-23:33:09,10.1.1.3,143,-0.120,-0.120,-0.120,0.000,0.000,0.000
1641079989921675008,2022-01-01-23:33:09,10.1.1.3,135,-0.130,-0.130,-0.130,0.000,0.000,0.000
1641079990126019840,2022-01-01-23:33:10,10.1.1.3,134,-0.140,-0.140,-0.140,0.000,0.000,0.000
1641079990325167872,2022-01-01-23:33:10,10.1.1.3,133,-0.150,-0.150,-0.150,0.000,0.000,0.000
1641079990524766976,2022-01-01-23:33:10,10.1.1.3,132,-0.160,-0.160,-0.160,0.000,0.000,0.000
1641079990745719040,2022-01-01-23:33:10,10.1.1.3,153,-0.170,-0.170,-0.170,0.000,0.000,0.000
1641079990945432064,2022-01-01-23:33:10,10.1.1.3,149,-0.180,-0.180,-0.180,0.000,0.000,0.000
1641079991142550016,2022-01-01-23:33:11,10.1.1.3,144,-0.190,-0.190,-0.190,0.000,0.000,0.000
1641079991343138816,2022-01-01-23:33:11,10.1.1.3,143,-0.200,-0.200,-0.200,0.000,0.000,0.000
1641079991541011200,2022-01-01-23:33:11,10.1.1.3,135,-0.210,-0.210,-0.210,0.000,0.000,0.000
1641079991739342848,2022-01-01-23:33:11,10.1.1.3,134,-0.220,-0.220,-0.220,0.000,0.000,0.000
1641079991939671040,2022-01-01-23:33:11,10.1.1.3,133,-0.230,-0.230,-0.230,0.000,0.000,0.000
1641079992139137024,2022-01-01-23:33:12,10.1.1.3,130,-0.240,-0.240,-0.240,0.000,0.000,0.000
1641079992339353088,2022-01-01-23:33:12,10.1.1.3,129,-0.250,-0.250,-0.250,0.000,0.000,0.000
1641079992539513088,2022-01-01-23:33:12,10.1.1.3,128,-0.260,-0.260,-0.260,0.000,0.000,0.000
1641079992759109888,2022-01-01-23:33:12,10.1.1.3,147,-0.270,-0.270,-0.270,0.000,0.000,0.000
1641079992961074176,2022-01-01-23:33:12,10.1.1.3,144,-0.280,-0.280,-0.280,0.000,0.000,0.000
1641079993157507840,2022-01-01-23:33:13,10.1.1.3,143,-0.290,-0.290,-0.290,0.000,0.000,0.000
1641079993358118912,2022-01-01-23:33:13,10.1.1.3,142,-0.300,-0.300,-0.300,0.000,0.000,0.000
1641079993558255872,2022-01-01-23:33:13,10.1.1.3,142,-0.310,-0.310,-0.310,0.000,0.000,0.000
1641079993758246912,2022-01-01-23:33:13,10.1.1.3,141,-0.320,-0.320,-0.320,0.000,0.000,0.000
1641079993957161984,2022-01-01-23:33:13,10.1.1.3,135,-0.330,-0.330,-0.330,0.000,0.000,0.000
1641079994159926016,2022-01-01-23:33:14,10.1.1.3,137,-0.340,-0.340,-0.340,0.000,0.000,0.000
1641079994356164096,2022-01-01-23:33:14,10.1.1.3,132,-0.350,-0.350,-0.350,0.000,0.000,0.000
1641079994556837120,2022-01-01-23:33:14,10.1.1.3,132,-0.360,-0.360,-0.360,0.000,0.000,0.000
1641079994756612096,2022-01-01-23:33:14,10.1.1.3,131,-0.370,-0.370,-0.370,0.000,0.000,0.000
1641079994956818944,2022-01-01-23:33:14,10.1.1.3,131,-0.380,-0.380,-0.380,0.000,0.000,0.000
1641079995155073792,2022-01-01-23:33:15,10.1.1.3,129,-0.390,-0.390,-0.390,0.000,0.000,0.000
1641079995355212032,2022-01-01-23:33:15,10.1.1.3,128,-0.400,-0.400,-0.400,0.000,0.000,0.000
1641079995554363904,2022-01-01-23:33:15,10.1.1.3,126,-0.410,-0.410,-0.410,0.000,0.000,0.000
1641079995755183872,2022-01-01-23:33:15,10.1.1.3,124,-0.420,-0.420,-0.420,0.000,0.000,0.000
1641079995975166976,2022-01-01-23:33:15,10.1.1.3,141,-0.430,-0.430,-0.430,0.000,0.000,0.000
1641079996174600960,2022-01-01-23:33:16,10.1.1.3,137,-0.440,-0.440,-0.440,0.000,0.000,0.000
1641079996373658880,2022-01-01-23:33:16,10.1.1.3,135,-0.450,-0.450,-0.450,0.000,0.000,0.000
1641079996573440000,2022-01-01-23:33:16,10.1.1.3,133,-0.460,-0.460,-0.460,0.000,0.000,0.000
1641079996772301824,2022-01-01-23:33:16,10.1.1.3,131,-0.470,-0.470,-0.470,0.000,0.000,0.000
1641079996972499968,2022-01-01-23:33:16,10.1.1.3,130,-0.480,-0.480,-0.480,0.000,0.000,0.000
1641079997171998976,2022-01-01-23:33:17,10.1.1.3,128,-0.490,-0.490,-0.490,0.000,0.000,0.000
1641079997375897856,2022-01-01-23:33:17,10.1.1.3,127,-0.480,-0.480,-0.480,0.000,0.000,0.000
1641079997571408896,2022-01-01-23:33:17,10.1.1.3,124,-0.470,-0.470,-0.470,0.000,0.000,0.000
1641079997775995904,2022-01-01-23:33:17,10.1.1.3,124,-0.460,-0.460,-0.460,0.000,0.000,0.000
1641079997994000896,2022-01-01-23:33:17,10.1.1.3,139,-0.450,-0.450,-0.450,0.000,0.000,0.000
1641079998193677824,2022-01-01-23:33:18,10.1.1.3,138,-0.440,-0.440,-0.440,0.000,0.000,0.000
1641079998390393856,2022-01-01-23:33:18,10.1.1.3,133,-0.430,-0.430,-0.430,0.000,0.000,0.000
1641079998592124928,2022-01-01-23:33:18,10.1.1.3,133,-0.420,-0.420,-0.420,0.000,0.000,0.000
1641079998790507008,2022-01-01-23:33:18,10.1.1.3,130,-0.410,-0.410,-0.410,0.000,0.000,0.000
1641079998989676032,2022-01-01-23:33:18,10.1.1.3,129,-0.400,-0.400,-0.400,0.000,0.000,0.000
1641079999190604800,2022-01-01-23:33:19,10.1.1.3,129,-0.390,-0.390,-0.390,0.000,0.000,0.000
1641079999389626112,2022-01-01-23:33:19,10.1.1.3,126,-0.380,-0.380,-0.380,0.000,0.000,0.000
1641079999593767936,2022-01-01-23:33:19,10.1.1.3,127,-0.370,-0.370,-0.370,0.000,0.000,0.000
1641079999789437952,2022-01-01-23:33:19,10.1.1.3,122,-0.360,-0.360,-0.360,0.000,0.000,0.000
1641079999987740160,2022-01-01-23:33:19,10.1.1.3,118,-0.350,-0.350,-0.350,0.000,0.000,0.000
1641080000207943936,2022-01-01-23:33:20,10.1.1.3,136,-0.340,-0.340,-0.340,0.000,0.000,0.000
1641080000409266944,2022-01-01-23:33:20,10.1.1.3,134,-0.330,-0.330,-0.330,0.000,0.000,0.000
1641080000607089152,2022-01-01-23:33:20,10.1.1.3,132,-0.320,-0.320,-0.320,0.000,0.000,0.000
1641080000807554048,2022-01-01-23:33:20,10.1.1.3,131,-0.310,-0.310,-0.310,0.000,0.000,0.000
1641080001006083840,2022-01-01-23:33:21,10.1.1.3,129,-0.300,-0.300,-0.300,0.000,0.000,0.000
1641080001208299008,2022-01-01-23:33:21,10.1.1.3,128,-0.290,-0.290,-0.290,0.000,0.000,0.000
1641080001407320064,2022-01-01-23:33:21,10.1.1.3,127,-0.280,-0.280,-0.280,0.000,0.000,0.000
1641080001605318144,2022-01-01-23:33:21,10.1.1.3,122,-0.270,-0.270,-0.270,0.000,0.000,0.000
1641080001806976000,2022-01-01-23:33:21,10.1.1.3,123,-0.260,-0.260,-0.260,0.000,0.000,0.000
1641080002006135040,2022-01-01-23:33:22,10.1.1.3,120,-0.250,-0.250,-0.250,0.000,0.000,0.000
1641080002208292864,2022-01-01-23:33:22,10.1.1.3,119,-0.240,-0.240,-0.240,0.000,0.000,0.000
1641080002408160000,2022-01-01-23:33:22,10.1.1.3,115,-0.230,-0.230,-0.230,0.000,0.000,0.000
1641080002607686144,2022-01-01-23:33:22,10.1.1.3,113,-0.220,-0.220,-0.220,0.000,0.000,0.000
1641080002826821120,2022-01-01-23:33:22,10.1.1.3,133,-0.210,-0.210,-0.210,0.000,0.000,0.000
1641080003024781056,2022-01-01-23:33:23,10.1.1.3,132,-0.200,-0.200,-0.200,0.000,0.000,0.000
1641080003223892992,2022-01-01-23:33:23,10.1.1.3,130,-0.190,-0.190,-0.190,0.000,0.000,0.000
1641080003424364032,2022-01-01-23:33:23,10.1.1.3,129,-0.180,-0.180,-0.180,0.000,0.000,0.000
1641080003622159104,2022-01-01-23:33:23,10.1.1.3,126,-0.170,-0.170,-0.170,0.000,0.000,0.000
1641080003823309824,2022-01-01-23:33:23,10.1.1.3,126,-0.160,-0.160,-0.160,0.000,0.000,0.000
1641080004023581952,2022-01-01-23:33:24,10.1.1.3,123,-0.150,-0.150,-0.150,0.000,0.000,0.000
1641080004225496064,2022-01-01-23:33:24,10.1.1.3,124,-0.140,-0.140,-0.140,0.000,0.000,0.000
1641080004425019904,2022-01-01-23:33:24,10.1.1.3,120,-0.130,-0.130,-0.130,0.000,0.000,0.000
1641080004622777088,2022-01-01-23:33:24,10.1.1.3,114,-0.120,-0.120,-0.120,0.000,0.000,0.000
1641080004822798080,2022-01-01-23:33:24,10.1.1.3,110,-0.110,-0.110,-0.110,0.000,0.000,0.000
1641080005041554944,2022-01-01-23:33:25,10.1.1.3,127,-0.100,-0.100,-0.100,0.000,0.000,0.000
1641080005242152960,2022-01-01-23:33:25,10.1.1.3,123,-0.090,-0.090,-0.090,0.000,0.000,0.000
1641080005444638976,2022-01-01-23:33:25,10.1.1.3,126,-0.080,-0.080,-0.080,0.000,0.000,0.000
1641080005640360192,2022-01-01-23:33:25,10.1.1.3,120,-0.070,-0.070,-0.070,0.000,0.000,0.000
1641080005841496832,2022-01-01-23:33:25,10.1.1.3,119,-0.060,-0.060,-0.060,0.000,0.000,0.000
1641080006040563200,2022-01-01-23:33:26,10.1.1.3,116,-0.050,-0.050,-0.050,0.000,0.000,0.000
1641080006241072896,2022-01-01-23:33:26,10.1.1.3,116,-0.040,-0.040,-0.040,0.000,0.000,0.000
1641080006440866048,2022-01-01-23:33:26,10.1.1.3,115,-0.030,-0.030,-0.030,0.000,0.000,0.000
1641080006641105920,2022-01-01-23:33:26,10.1.1.3,114,-0.020,-0.020,-0.020,0.000,0.000,0.000
1641080006840045824,2022-01-01-23:33:26,10.1.1.3,111,-0.010,-0.010,-0.010,0.000,0.000,0.000
1641080007037103872,2022-01-01-23:33:27,10.1.1.3,109,0.000,0.000,0.000,0.000,0.000,0.000
1641080007240178176,2022-01-01-23:33:27,10.1.1.3,109,-0.010,-0.010,-0.010,0.000,0.000,0.000
1641080007439985152,2022-01-01-23:33:27,10.1.1.3,109,-0.020,-0.020,-0.020,0.000,0.000,0.000
1641080007656833792,2022-01-01-23:33:27,10.1.1.3,124,-0.030,-0.030,-0.030,0.000,0.000,0.000
1641080007856177152,2022-01-01-23:33:27,10.1.1.3,122,-0.040,-0.040,-0.040,0.000,0.000,0.000
1641080008055675904,2022-01-01-23:33:28,10.1.1.3,122,-0.050,-0.050,-0.050,0.000,0.000,0.000
1641080008254978816,2022-01-01-23:33:28,10.1.1.3,120,-0.060,-0.060,-0.060,0.000,0.000,0.000
1641080008458059008,2022-01-01-23:33:28,10.1.1.3,122,-0.070,-0.070,-0.070,0.000,0.000,0.000
1641080008655962880,2022-01-01-23:33:28,10.1.1.3,119,-0.080,-0.080,-0.080,0.000,0.000,0.000
1641080008855020032,2022-01-01-23:33:28,10.1.1.3,116,-0.090,-0.090,-0.090,0.000,0.000,0.000
1641080009053580032,2022-01-01-23:33:29,10.1.1.3,114,-0.100,-0.100,-0.100,0.000,0.000,0.000
1641080009255676928,2022-01-01-23:33:29,10.1.1.3,113,-0.110,-0.110,-0.110,0.000,0.000,0.000
1641080009453731072,2022-01-01-23:33:29,10.1.1.3,112,-0.120,-0.120,-0.120,0.000,0.000,0.000
1641080009656580096,2022-01-01-23:33:29,10.1.1.3,110,-0.130,-0.130,-0.130,0.000,0.000,0.000
1641080009854994176,2022-01-01-23:33:29,10.1.1.3,110,-0.140,-0.140,-0.140,0.000,0.000,0.000
1641080010051719936,2022-01-01-23:33:30,10.1.1.3,107,-0.150,-0.150,-0.150,0.000,0.000,0.000
1641080010253235968,2022-01-01-23:33:30,10.1.1.3,107,-0.160,-0.160,-0.160,0.000,0.000,0.000
1641080010454396928,2022-01-01-23:33:30,10.1.1.3,107,-0.170,-0.170,-0.170,0.000,0.000,0.000
1641080010658051840,2022-01-01-23:33:30,10.1.1.3,110,-0.180,-0.180,-0.180,0.000,0.000,0.000
1641080010856931072,2022-01-01-23:33:30,10.1.1.3,108,-0.190,-0.190,-0.190,0.000,0.000,0.000
1641080011079773952,2022-01-01-23:33:31,10.1.1.3,127,-0.200,-0.200,-0.200,0.000,0.000,0.000
1641080011283046912,2022-01-01-23:33:31,10.1.1.3,126,-0.210,-0.210,-0.210,0.000,0.000,0.000
1641080011483303936,2022-01-01-23:33:31,10.1.1.3,126,-0.220,-0.220,-0.220,0.000,0.000,0.000
1641080011681819904,2022-01-01-23:33:31,10.1.1.3,126,-0.230,-0.230,-0.230,0.000,0.000,0.000
1641080011881860864,2022-01-01-23:33:31,10.1.1.3,125,-0.240,-0.240,-0.240,0.000,0.000,0.000
1641080012083583232,2022-01-01-23:33:32,10.1.1.3,126,-0.250,-0.250,-0.250,0.000,0.000,0.000
1641080012286379008,2022-01-01-23:33:32,10.1.1.3,125,-0.260,-0.260,-0.260,0.000,0.000,0.000
1641080012486831872,2022-01-01-23:33:32,10.1.1.3,127,-0.270,-0.270,-0.270,0.000,0.000,0.000
1641080012687505920,2022-01-01-23:33:32,10.1.1.3,125,-0.280,-0.280,-0.280,0.000,0.000,0.000
1641080012890647808,2022-01-01-23:33:32,10.1.1.3,128,-0.290,-0.290,-0.290,0.000,0.000,0.000
1641080013089859840,2022-01-01-23:33:33,10.1.1.3,125,-0.300,-0.300,-0.300,0.000,0.000,0.000
1641080013289154048,2022-01-01-23:33:33,10.1.1.3,125,-0.310,-0.310,-0.310,0.000,0.000,0.000
1641080013492312064,2022-01-01-23:33:33,10.1.1.3,125,-0.320,-0.320,-0.320,0.000,0.000,0.000
1641080013694360064,2022-01-01-23:33:33,10.1.1.3,127,-0.330,-0.330,-0.330,0.000,0.000,0.000
1641080013890974976,2022-01-01-23:33:33,10.1.1.3,123,-0.340,-0.340,-0.340,0.000,0.000,0.000
1641080014091599872,2022-01-01-23:33:34,10.1.1.3,123,-0.350,-0.350,-0.350,0.000,0.000,0.000
1641080014292326912,2022-01-01-23:33:34,10.1.1.3,122,-0.360,-0.360,-0.360,0.000,0.000,0.000
1641080014492749824,2022-01-01-23:33:34,10.1.1.3,122,-0.370,-0.370,-0.370,0.000,0.000,0.000
1641080014715068160,2022-01-01-23:33:34,10.1.1.3,143,-0.380,-0.380,-0.380,0.000,0.000,0.000
1641080014916276992,2022-01-01-23:33:34,10.1.1.3,143,-0.390,-0.390,-0.390,0.000,0.000,0.000
1641080015116570880,2022-01-01-23:33:35,10.1.1.3,143,-0.400,-0.400,-0.400,0.000,0.000,0.000
1641080015316497920,2022-01-01-23:33:35,10.1.1.3,142,-0.410,-0.410,-0.410,0.000,0.000,0.000
1641080015525190144,2022-01-01-23:33:35,10.1.1.3,143,-0.420,-0.420,-0.420,0.000,0.000,0.000
1641080015718384128,2022-01-01-23:33:35,10.1.1.3,142,-0.430,-0.430,-0.430,0.000,0.000,0.000
1641080015918571008,2022-01-01-23:33:35,10.1.1.3,142,-0.440,-0.440,-0.440,0.000,0.000,0.000
1641080016120071936,2022-01-01-23:33:36,10.1.1.3,142,-0.450,-0.450,-0.450,0.000,0.000,0.000
1641080016321062144,2022-01-01-23:33:36,10.1.1.3,141,-0.460,-0.460,-0.460,0.000,0.000,0.000
1641080016522594816,2022-01-01-23:33:36,10.1.1.3,142,-0.470,-0.470,-0.470,0.000,0.000,0.000
1641080016725299968,2022-01-01-23:33:36,10.1.1.3,139,-0.480,-0.480,-0.480,0.000,0.000,0.000
1641080016925772800,2022-01-01-23:33:36,10.1.1.3,137,-0.490,-0.490,-0.490,0.000,0.000,0.000
1641080017125189120,2022-01-01-23:33:37,10.1.1.3,138,-0.480,-0.480,-0.480,0.000,0.000,0.000
1641080017325145856,2022-01-01-23:33:37,10.1.1.3,136,-0.470,-0.470,-0.470,0.000,0.000,0.000
1641080017524219136,2022-01-01-23:33:37,10.1.1.3,134,-0.460,-0.460,-0.460,0.000,0.000,0.000
1641080017727785216,2022-01-01-23:33:37,10.1.1.3,134,-0.450,-0.450,-0.450,0.000,0.000,0.000
1641080017925411072,2022-01-01-23:33:37,10.1.1.3,134,-0.440,-0.440,-0.440,0.000,0.000,0.000
1641080018148829952,2022-01-01-23:33:38,10.1.1.3,154,-0.430,-0.430,-0.430,0.000,0.000,0.000
1641080018349145856,2022-01-01-23:33:38,10.1.1.3,152,-0.420,-0.420,-0.420,0.000,0.000,0.000
1641080018546437888,2022-01-01-23:33:38,10.1.1.3,151,-0.410,-0.410,-0.410,0.000,0.000,0.000
1641080018747809792,2022-01-01-23:33:38,10.1.1.3,152,-0.400,-0.400,-0.400,0.000,0.000,0.000
1641080018948195840,2022-01-01-23:33:38,10.1.1.3,150,-0.390,-0.390,-0.390,0.000,0.000,0.000
1641080019148859904,2022-01-01-23:33:39,10.1.1.3,149,-0.380,-0.380,-0.380,0.000,0.000,0.000
1641080019349451008,2022-01-01-23:33:39,10.1.1.3,145,-0.370,-0.370,-0.370,0.000,0.000,0.000
1641080019550622976,2022-01-01-23:33:39,10.1.1.3,145,-0.360,-0.360,-0.360,0.000,0.000,0.000
1641080019750668032,2022-01-01-23:33:39,10.1.1.3,144,-0.350,-0.350,-0.350,0.000,0.000,0.000
1641080019953655040,2022-01-01-23:33:39,10.1.1.3,145,-0.340,-0.340,-0.340,0.000,0.000,0.000
1641080020152834816,2022-01-01-23:33:40,10.1.1.3,143,-0.330,-0.330,-0.330,0.000,0.000,0.000
1641080020351887104,2022-01-01-23:33:40,10.1.1.3,142,-0.320,-0.320,-0.320,0.000,0.000,0.000
1641080020551397120,2022-01-01-23:33:40,10.1.1.3,140,-0.310,-0.310,-0.310,0.000,0.000,0.000
1641080020772448000,2022-01-01-23:33:40,10.1.1.3,159,-0.300,-0.300,-0.300,0.000,0.000,0.000
1641080020974608896,2022-01-01-23:33:40,10.1.1.3,158,-0.290,-0.290,-0.290,0.000,0.000,0.000
1641080021173974016,2022-01-01-23:33:41,10.1.1.3,157,-0.280,-0.280,-0.280,0.000,0.000,0.000
1641080021376413952,2022-01-01-23:33:41,10.1.1.3,155,-0.270,-0.270,-0.270,0.000,0.000,0.000
1641080021573069056,2022-01-01-23:33:41,10.1.1.3,154,-0.260,-0.260,-0.260,0.000,0.000,0.000
1641080021773597952,2022-01-01-23:33:41,10.1.1.3,154,-0.250,-0.250,-0.250,0.000,0.000,0.000
1641080021975663872,2022-01-01-23:33:41,10.1.1.3,154,-0.240,-0.240,-0.240,0.000,0.000,0.000
1641080022174356992,2022-01-01-23:33:42,10.1.1.3,152,-0.230,-0.230,-0.230,0.000,0.000,0.000
1641080022374952192,2022-01-01-23:33:42,10.1.1.3,150,-0.220,-0.220,-0.220,0.000,0.000,0.000
1641080022574897152,2022-01-01-23:33:42,10.1.1.3,149,-0.210,-0.210,-0.210,0.000,0.000,0.000
1641080022776431104,2022-01-01-23:33:42,10.1.1.3,147,-0.200,-0.200,-0.200,0.000,0.000,0.000
1641080022977229056,2022-01-01-23:33:42,10.1.1.3,146,-0.190,-0.190,-0.190,0.000,0.000,0.000
1641080023198244096,2022-01-01-23:33:43,10.1.1.3,164,-0.180,-0.180,-0.180,0.000,0.000,0.000
1641080023397319168,2022-01-01-23:33:43,10.1.1.3,163,-0.170,-0.170,-0.170,0.000,0.000,0.000
1641080023600461056,2022-01-01-23:33:43,10.1.1.3,166,-0.160,-0.160,-0.160,0.000,0.000,0.000
1641080023801774080,2022-01-01-23:33:43,10.1.1.3,163,-0.150,-0.150,-0.150,0.000,0.000,0.000
1641080023996792064,2022-01-01-23:33:43,10.1.1.3,160,-0.140,-0.140,-0.140,0.000,0.000,0.000
1641080024197790976,2022-01-01-23:33:44,10.1.1.3,156,-0.130,-0.130,-0.130,0.000,0.000,0.000
1641080024401563904,2022-01-01-23:33:44,10.1.1.3,156,-0.120,-0.120,-0.120,0.000,0.000,0.000
1641080024598254848,2022-01-01-23:33:44,10.1.1.3,155,-0.110,-0.110,-0.110,0.000,0.000,0.000
1641080024798154240,2022-01-01-23:33:44,10.1.1.3,153,-0.100,-0.100,-0.100,0.000,0.000,0.000
1641080025002722048,2022-01-01-23:33:44,10.1.1.3,154,-0.090,-0.090,-0.090,0.000,0.000,0.000
1641080025199368960,2022-01-01-23:33:45,10.1.1.3,151,-0.080,-0.080,-0.080,0.000,0.000,0.000
1641080025401721088,2022-01-01-23:33:45,10.1.1.3,151,-0.070,-0.070,-0.070,0.000,0.000,0.000
1641080025599262976,2022-01-01-23:33:45,10.1.1.3,150,-0.060,-0.060,-0.060,0.000,0.000,0.000
1641080025802573056,2022-01-01-23:33:45,10.1.1.3,148,-0.050,-0.050,-0.050,0.000,0.000,0.000
1641080026020358912,2022-01-01-23:33:46,10.1.1.3,166,-0.040,-0.040,-0.040,0.000,0.000,0.000
1641080026220032000,2022-01-01-23:33:46,10.1.1.3,165,-0.030,-0.030,-0.030,0.000,0.000,0.000
1641080026420718848,2022-01-01-23:33:46,10.1.1.3,164,-0.020,-0.020,-0.020,0.000,0.000,0.000
1641080026627473152,2022-01-01-23:33:46,10.1.1.3,170,-0.010,-0.010,-0.010,0.000,0.000,0.000
1641080026819375872,2022-01-01-23:33:46,10.1.1.3,161,0.000,0.000,0.000,0.000,0.000,0.000
1641080027020482048,2022-01-01-23:33:47,10.1.1.3,160,-0.010,-0.010,-0.010,0.000,0.000,0.000
1641080027222258176,2022-01-01-23:33:47,10.1.1.3,159,-0.020,-0.020,-0.020,0.000,0.000,0.000
1641080027423788032,2022-01-01-23:33:47,10.1.1.3,157,-0.030,-0.030,-0.030,0.000,0.000,0.000
1641080027620600832,2022-01-01-23:33:47,10.1.1.3,154,-0.040,-0.040,-0.040,0.000,0.000,0.000
1641080027819466240,2022-01-01-23:33:47,10.1.1.3,153,-0.050,-0.050,-0.050,0.000,0.000,0.000
1641080028021403136,2022-01-01-23:33:48,10.1.1.3,153,-0.060,-0.060,-0.060,0.000,0.000,0.000
1641080028222749952,2022-01-01-23:33:48,10.1.1.3,153,-0.070,-0.070,-0.070,0.000,0.000,0.000
1641080028422655232,2022-01-01-23:33:48,10.1.1.3,152,-0.080,-0.080,-0.080,0.000,0.000,0.000
1641080028642106112,2022-01-01-23:33:48,10.1.1.3,169,-0.090,-0.090,-0.090,0.000,0.000,0.000
1641080028841841920,2022-01-01-23:33:48,10.1.1.3,168,-0.100,-0.100,-0.100,0.000,0.000,0.000
1641080029044617984,2022-01-01-23:33:49,10.1.1.3,169,-0.110,-0.110,-0.110,0.000,0.000,0.000
1641080029244781056,2022-01-01-23:33:49,10.1.1.3,166,-0.120,-0.120,-0.120,0.000,0.000,0.000
1641080029448754176,2022-01-01-23:33:49,10.1.1.3,170,-0.130,-0.130,-0.130,0.000,0.000,0.000
1641080029645659904,2022-01-01-23:33:49,10.1.1.3,164,-0.140,-0.140,-0.140,0.000,0.000,0.000
1641080029845043968,2022-01-01-23:33:49,10.1.1.3,165,-0.150,-0.150,-0.150,0.000,0.000,0.000
1641080030043569152,2022-01-01-23:33:50,10.1.1.3,161,-0.160,-0.160,-0.160,0.000,0.000,0.000
1641080030242240000,2022-01-01-23:33:50,10.1.1.3,160,-0.170,-0.170,-0.170,0.000,0.000,0.000
1641080030442266880,2022-01-01-23:33:50,10.1.1.3,159,-0.180,-0.180,-0.180,0.000,0.000,0.000
1641080030642024960,2022-01-01-23:33:50,10.1.1.3,155,-0.190,-0.190,-0.190,0.000,0.000,0.000
1641080030842565888,2022-01-01-23:33:50,10.1.1.3,154,-0.200,-0.200,-0.200,0.000,0.000,0.000
1641080031043187968,2022-01-01-23:33:51,10.1.1.3,154,-0.210,-0.210,-0.210,0.000,0.000,0.000
1641080031242885120,2022-01-01-23:33:51,10.1.1.3,153,-0.220,-0.220,-0.220,0.000,0.000,0.000
1641080031442419968,2022-01-01-23:33:51,10.1.1.3,152,-0.230,-0.230,-0.230,0.000,0.000,0.000
1641080031643922944,2022-01-01-23:33:51,10.1.1.3,152,-0.240,-0.240,-0.240,0.000,0.000,0.000
1641080031842892800,2022-01-01-23:33:51,10.1.1.3,150,-0.250,-0.250,-0.250,0.000,0.000,0.000
1641080032061893888,2022-01-01-23:33:52,10.1.1.3,169,-0.260,-0.260,-0.260,0.000,0.000,0.000
1641080032266298112,2022-01-01-23:33:52,10.1.1.3,171,-0.270,-0.270,-0.270,0.000,0.000,0.000
1641080032461890816,2022-01-01-23:33:52,10.1.1.3,166,-0.280,-0.280,-0.280,0.000,0.000,0.000
1641080032661936896,2022-01-01-23:33:52,10.1.1.3,165,-0.290,-0.290,-0.290,0.000,0.000,0.000
1641080032867794944,2022-01-01-23:33:52,10.1.1.3,165,-0.300,-0.300,-0.300,0.000,0.000,0.000
1641080033064225792,2022-01-01-23:33:53,10.1.1.3,164,-0.310,-0.310,-0.310,0.000,0.000,0.000
1641080033262469888,2022-01-01-23:33:53,10.1.1.3,161,-0.320,-0.320,-0.320,0.000,0.000,0.000
1641080033466365952,2022-01-01-23:33:53,10.1.1.3,159,-0.330,-0.330,-0.330,0.000,0.000,0.000
1641080033662252800,2022-01-01-23:33:53,10.1.1.3,153,-0.340,-0.340,-0.340,0.000,0.000,0.000
1641080033863091968,2022-01-01-23:33:53,10.1.1.3,153,-0.350,-0.350,-0.350,0.000,0.000,0.000
1641080034062953984,2022-01-01-23:33:54,10.1.1.3,151,-0.360,-0.360,-0.360,0.000,0.000,0.000
1641080034263781120,2022-01-01-23:33:54,10.1.1.3,151,-0.370,-0.370,-0.370,0.000,0.000,0.000
1641080034483289088,2022-01-01-23:33:54,10.1.1.3,169,-0.380,-0.380,-0.380,0.000,0.000,0.000
1641080034682599168,2022-01-01-23:33:54,10.1.1.3,168,-0.390,-0.390,-0.390,0.000,0.000,0.000
1641080034882942976,2022-01-01-23:33:54,10.1.1.3,167,-0.400,-0.400,-0.400,0.000,0.000,0.000
1641080035081948160,2022-01-01-23:33:55,10.1.1.3,165,-0.410,-0.410,-0.410,0.000,0.000,0.000
1641080035281650176,2022-01-01-23:33:55,10.1.1.3,163,-0.420,-0.420,-0.420,0.000,0.000,0.000
1641080035482709760,2022-01-01-23:33:55,10.1.1.3,163,-0.430,-0.430,-0.430,0.000,0.000,0.000
1641080035681828864,2022-01-01-23:33:55,10.1.1.3,162,-0.440,-0.440,-0.440,0.000,0.000,0.000
1641080035881762048,2022-01-01-23:33:55,10.1.1.3,161,-0.450,-0.450,-0.450,0.000,0.000,0.000
1641080036086551040,2022-01-01-23:33:56,10.1.1.3,165,-0.460,-0.460,-0.460,0.000,0.000,0.000
1641080036282578944,2022-01-01-23:33:56,10.1.1.3,156,-0.470,-0.470,-0.470,0.000,0.000,0.000
1641080036482105856,2022-01-01-23:33:56,10.1.1.3,155,-0.480,-0.480,-0.480,0.000,0.000,0.000
1641080036682256896,2022-01-01-23:33:56,10.1.1.3,154,-0.490,-0.490,-0.490,0.000,0.000,0.000
1641080036882522112,2022-01-01-23:33:56,10.1.1.3,153,-0.480,-0.480,-0.480,0.000,0.000,0.000
1641080037081872896,2022-01-01-23:33:57,10.1.1.3,152,-0.470,-0.470,-0.470,0.000,0.000,0.000
1641080037283375872,2022-01-01-23:33:57,10.1.1.3,153,-0.460,-0.460,-0.460,0.000,0.000,0.000
1641080037485287936,2022-01-01-23:33:57,10.1.1.3,154,-0.450,-0.450,-0.450,0.000,0.000,0.000
1641080037702915840,2022-01-01-23:33:57,10.1.1.3,171,-0.440,-0.440,-0.440,0.000,0.000,0.000
1641080037900468224,2022-01-01-23:33:57,10.1.1.3,166,-0.430,-0.430,-0.430,0.000,0.000,0.000
1641080038100980992,2022-01-01-23:33:58,10.1.1.3,166,-0.420,-0.420,-0.420,0.000,0.000,0.000
1641080038305342976,2022-01-01-23:33:58,10.1.1.3,164,-0.410,-0.410,-0.410,0.000,0.000,0.000
1641080038502769920,2022-01-01-23:33:58,10.1.1.3,163,-0.400,-0.400,-0.400,0.000,0.000,0.000
1641080038701189120,2022-01-01-23:33:58,10.1.1.3,161,-0.390,-0.390,-0.390,0.000,0.000,0.000
1641080038743706112,2022-01-01-23:33:58,10.1.1.3,-1,-0.390,-0.390,-0.390,0.000,0.000,0.000
1641080039099992064,2022-01-01-23:33:59,10.1.1.3,155,-0.370,-0.370,-0.370,0.000,0.000,0.000
1641080039302041088,2022-01-01-23:33:59,10.1.1.3,152,-0.360,-0.360,-0.360,0.000,0.000,0.000
1641080039499890944,2022-01-01-23:33:59,10.1.1.3,149,-0.350,-0.350,-0.350,0.000,0.000,0.000
1641080039701843968,2022-01-01-23:33:59,10.1.1.3,150,-0.340,-0.340,-0.340,0.000,0.000,0.000
1641080039925446912,2022-01-01-23:33:59,10.1.1.3,173,-0.330,-0.330,-0.330,0.000,0.000,0.000
1641080040124937984,2022-01-01-23:34:00,10.1.1.3,169,-0.320,-0.320,-0.320,0.000,0.000,0.000
1641080040320651008,2022-01-01-23:34:00,10.1.1.3,163,-0.310,-0.310,-0.310,0.000,0.000,0.000
1641080040519036160,2022-01-01-23:34:00,10.1.1.3,161,-0.300,-0.300,-0.300,0.000,0.000,0.000
1641080040719244032,2022-01-01-23:34:00,10.1.1.3,161,-0.290,-0.290,-0.290,0.000,0.000,0.000
1641080040919192064,2022-01-01-23:34:00,10.1.1.3,159,-0.280,-0.280,-0.280,0.000,0.000,0.000
1641080041119986944,2022-01-01-23:34:01,10.1.1.3,157,-0.270,-0.270,-0.270,0.000,0.000,0.000
1641080041319783936,2022-01-01-23:34:01,10.1.1.3,156,-0.260,-0.260,-0.260,0.000,0.000,0.000
1641080041519675136,2022-01-01-23:34:01,10.1.1.3,155,-0.250,-0.250,-0.250,0.000,0.000,0.000
1641080041719984896,2022-01-01-23:34:01,10.1.1.3,154,-0.240,-0.240,-0.240,0.000,0.000,0.000
1641080041917496832,2022-01-01-23:34:01,10.1.1.3,151,-0.230,-0.230,-0.230,0.000,0.000,0.000
1641080042119031808,2022-01-01-23:34:02,10.1.1.3,151,-0.220,-0.220,-0.220,0.000,0.000,0.000
1641080042318258944,2022-01-01-23:34:02,10.1.1.3,150,-0.210,-0.210,-0.210,0.000,0.000,0.000
1641080042517891840,2022-01-01-23:34:02,10.1.1.3,148,-0.200,-0.200,-0.200,0.000,0.000,0.000
1641080042719336960,2022-01-01-23:34:02,10.1.1.3,148,-0.190,-0.190,-0.190,0.000,0.000,0.000
1641080042917711104,2022-01-01-23:34:02,10.1.1.3,145,-0.180,-0.180,-0.180,0.000,0.000,0.000
1641080043138756096,2022-01-01-23:34:03,10.1.1.3,166,-0.170,-0.170,-0.170,0.000,0.000,0.000
1641080043337683968,2022-01-01-23:34:03,10.1.1.3,163,-0.160,-0.160,-0.160,0.000,0.000,0.000
1641080043536962048,2022-01-01-23:34:03,10.1.1.3,162,-0.150,-0.150,-0.150,0.000,0.000,0.000
1641080043739564032,2022-01-01-23:34:03,10.1.1.3,164,-0.140,-0.140,-0.140,0.000,0.000,0.000
1641080043938636032,2022-01-01-23:34:03,10.1.1.3,162,-0.130,-0.130,-0.130,0.000,0.000,0.000
1641080044136125952,2022-01-01-23:34:04,10.1.1.3,156,-0.120,-0.120,-0.120,0.000,0.000,0.000
1641080044336766976,2022-01-01-23:34:04,10.1.1.3,156,-0.110,-0.110,-0.110,0.000,0.000,0.000
1641080044536648960,2022-01-01-23:34:04,10.1.1.3,154,-0.100,-0.100,-0.100,0.000,0.000,0.000
1641080044735760896,2022-01-01-23:34:04,10.1.1.3,152,-0.090,-0.090,-0.090,0.000,0.000,0.000
1641080044937302016,2022-01-01-23:34:04,10.1.1.3,152,-0.080,-0.080,-0.080,0.000,0.000,0.000
1641080045135524864,2022-01-01-23:34:05,10.1.1.3,150,-0.070,-0.070,-0.070,0.000,0.000,0.000
1641080045334994176,2022-01-01-23:34:05,10.1.1.3,149,-0.060,-0.060,-0.060,0.000,0.000,0.000
1641080045535761152,2022-01-01-23:34:05,10.1.1.3,149,-0.050,-0.050,-0.050,0.000,0.000,0.000
1641080045735300096,2022-01-01-23:34:05,10.1.1.3,147,-0.040,-0.040,-0.040,0.000,0.000,0.000
