FedericoMungari/DigitalTwin_service/01_WiredScenario/Output/Output_script/script_ROSAPI_output_robots8_freq0_8.txt.csv
timestamp,node,latency,joint_1,joint_2,joint_3,joint_4,joint_5,joint_6
1640068711077192960,"2021-12-21,06:38:31",10.1.1.9,4423,0.000,0.000,0.000,0.000,0.000,0.000
1640068713432188928,"2021-12-21,06:38:33",10.1.1.9,362,-0.010,-0.010,-0.010,0.000,0.000,0.000
1640068713475169024,"2021-12-21,06:38:33",10.1.1.9,0.40507984161376953,-0.010,-0.010,-0.010,0.000,0.000,0.000
1640068713782747136,"2021-12-21,06:38:33",10.1.1.9,304,-0.020,-0.020,-0.020,0.000,0.000,0.000
1640068713808450816,"2021-12-21,06:38:33",10.1.1.9,0.32993102073669434,-0.020,-0.020,-0.020,0.000,0.000,0.000
1640068714101234944,"2021-12-21,06:38:34",10.1.1.9,291,-0.030,-0.030,-0.030,0.000,0.000,0.000
1640068714136203008,"2021-12-21,06:38:34",10.1.1.9,0.32589006423950195,-0.030,-0.030,-0.030,0.000,0.000,0.000
1640068714452446976,"2021-12-21,06:38:34",10.1.1.9,314,-0.040,-0.040,-0.040,0.000,0.000,0.000
1640068714469392896,"2021-12-21,06:38:34",10.1.1.9,0.33165407180786133,-0.040,-0.040,-0.040,0.000,0.000,0.000
1640068714801341184,"2021-12-21,06:38:34",10.1.1.9,330,-0.050,-0.050,-0.050,0.000,0.000,0.000
1640068714805625856,"2021-12-21,06:38:34",10.1.1.9,0.3349020481109619,-0.050,-0.050,-0.050,0.000,0.000,0.000
1640068715129936896,"2021-12-21,06:38:35",10.1.1.9,322,-0.060,-0.060,-0.060,0.000,0.000,0.000
1640068715157768960,"2021-12-21,06:38:35",10.1.1.9,0.3505280017852783,-0.060,-0.060,-0.060,0.000,0.000,0.000
1640068715487814912,"2021-12-21,06:38:35",10.1.1.9,0.3287069797515869,-0.070,-0.070,-0.070,0.000,0.000,0.000
1640068715849071104,"2021-12-21,06:38:35",10.1.1.9,359,-0.080,-0.080,-0.080,0.000,0.000,0.000
1640068715861332992,"2021-12-21,06:38:35",10.1.1.9,0.3716568946838379,-0.080,-0.080,-0.080,0.000,0.000,0.000
1640068716199945984,"2021-12-21,06:38:36",10.1.1.9,335,-0.090,-0.090,-0.090,0.000,0.000,0.000
1640068716212815104,"2021-12-21,06:38:36",10.1.1.9,0.34830212593078613,-0.090,-0.090,-0.090,0.000,0.000,0.000
1640068716528559872,"2021-12-21,06:38:36",10.1.1.9,314,-0.100,-0.100,-0.100,0.000,0.000,0.000
1640068716569900032,"2021-12-21,06:38:36",10.1.1.9,0.3557929992675781,-0.100,-0.100,-0.100,0.000,0.000,0.000
1640068716867139072,"2021-12-21,06:38:36",10.1.1.9,295,-0.110,-0.110,-0.110,0.000,0.000,0.000
1640068716887998208,"2021-12-21,06:38:36",10.1.1.9,0.3165872097015381,-0.110,-0.110,-0.110,0.000,0.000,0.000
1640068717197165056,"2021-12-21,06:38:37",10.1.1.9,307,-0.120,-0.120,-0.120,0.000,0.000,0.000
1640068717242408960,"2021-12-21,06:38:37",10.1.1.9,0.35292696952819824,-0.120,-0.120,-0.120,0.000,0.000,0.000
1640068717557133056,"2021-12-21,06:38:37",10.1.1.9,313,-0.130,-0.130,-0.130,0.000,0.000,0.000
1640068717576873984,"2021-12-21,06:38:37",10.1.1.9,0.3329939842224121,-0.130,-0.130,-0.130,0.000,0.000,0.000
1640068718045660928,"2021-12-21,06:38:38",10.1.1.9,467,-0.140,-0.140,-0.140,0.000,0.000,0.000
1640068718076998912,"2021-12-21,06:38:38",10.1.1.9,0.49862098693847656,-0.140,-0.140,-0.140,0.000,0.000,0.000
1640068718367501056,"2021-12-21,06:38:38",10.1.1.9,289,-0.150,-0.150,-0.150,0.000,0.000,0.000
1640068718392698880,"2021-12-21,06:38:38",10.1.1.9,0.31424403190612793,-0.150,-0.150,-0.150,0.000,0.000,0.000
1640068718700068096,"2021-12-21,06:38:38",10.1.1.9,305,-0.160,-0.160,-0.160,0.000,0.000,0.000
1640068718715784192,"2021-12-21,06:38:38",10.1.1.9,0.32107996940612793,-0.160,-0.160,-0.160,0.000,0.000,0.000
1640068719031017984,"2021-12-21,06:38:39",10.1.1.9,313,-0.170,-0.170,-0.170,0.000,0.000,0.000
1640068719040294912,"2021-12-21,06:38:39",10.1.1.9,0.3229219913482666,-0.170,-0.170,-0.170,0.000,0.000,0.000
1640068719341576192,"2021-12-21,06:38:39",10.1.1.9,298,-0.180,-0.180,-0.180,0.000,0.000,0.000
1640068719371815936,"2021-12-21,06:38:39",10.1.1.9,0.32919788360595703,-0.180,-0.180,-0.180,0.000,0.000,0.000
1640068719665126144,"2021-12-21,06:38:39",10.1.1.9,292,-0.190,-0.190,-0.190,0.000,0.000,0.000
1640068719686278144,"2021-12-21,06:38:39",10.1.1.9,0.3132040500640869,-0.190,-0.190,-0.190,0.000,0.000,0.000
1640068719985613056,"2021-12-21,06:38:39",10.1.1.9,297,-0.200,-0.200,-0.200,0.000,0.000,0.000
1640068720009689088,"2021-12-21,06:38:40",10.1.1.9,0.32205700874328613,-0.200,-0.200,-0.200,0.000,0.000,0.000
1640068720336460032,"2021-12-21,06:38:40",10.1.1.9,323,-0.210,-0.210,-0.210,0.000,0.000,0.000
1640068720352227840,"2021-12-21,06:38:40",10.1.1.9,0.3398151397705078,-0.210,-0.210,-0.210,0.000,0.000,0.000
1640068720696496128,"2021-12-21,06:38:40",10.1.1.9,342,-0.220,-0.220,-0.220,0.000,0.000,0.000
1640068720738060032,"2021-12-21,06:38:40",10.1.1.9,0.3831970691680908,-0.220,-0.220,-0.220,0.000,0.000,0.000
1640068721048749824,"2021-12-21,06:38:41",10.1.1.9,306,-0.230,-0.230,-0.230,0.000,0.000,0.000
1640068721070439936,"2021-12-21,06:38:41",10.1.1.9,0.32817506790161133,-0.230,-0.230,-0.230,0.000,0.000,0.000
1640068721389060864,"2021-12-21,06:38:41",10.1.1.9,316,-0.240,-0.240,-0.240,0.000,0.000,0.000
1640068721423108096,"2021-12-21,06:38:41",10.1.1.9,0.35103893280029297,-0.240,-0.240,-0.240,0.000,0.000,0.000
1640068721749938944,"2021-12-21,06:38:41",10.1.1.9,325,-0.250,-0.250,-0.250,0.000,0.000,0.000
1640068721763767040,"2021-12-21,06:38:41",10.1.1.9,0.33942294120788574,-0.250,-0.250,-0.250,0.000,0.000,0.000
1640068722091406080,"2021-12-21,06:38:42",10.1.1.9,326,-0.260,-0.260,-0.260,0.000,0.000,0.000
1640068722131501824,"2021-12-21,06:38:42",10.1.1.9,0.36640191078186035,-0.260,-0.260,-0.260,0.000,0.000,0.000
1640068722491777792,"2021-12-21,06:38:42",10.1.1.9,355,-0.270,-0.270,-0.270,0.000,0.000,0.000
1640068722517501184,"2021-12-21,06:38:42",10.1.1.9,0.38105320930480957,-0.270,-0.270,-0.270,0.000,0.000,0.000
1640068722813277952,"2021-12-21,06:38:42",10.1.1.9,294,-0.280,-0.280,-0.280,0.000,0.000,0.000
1640068722842032896,"2021-12-21,06:38:42",10.1.1.9,0.3232569694519043,-0.280,-0.280,-0.280,0.000,0.000,0.000
1640068723163659008,"2021-12-21,06:38:43",10.1.1.9,318,-0.290,-0.290,-0.290,0.000,0.000,0.000
1640068723198673920,"2021-12-21,06:38:43",10.1.1.9,0.35350894927978516,-0.290,-0.290,-0.290,0.000,0.000,0.000
1640068723495137024,"2021-12-21,06:38:43",10.1.1.9,294,-0.300,-0.300,-0.300,0.000,0.000,0.000
1640068723528318976,"2021-12-21,06:38:43",10.1.1.9,0.3264949321746826,-0.300,-0.300,-0.300,0.000,0.000,0.000
1640068723816803072,"2021-12-21,06:38:43",10.1.1.9,287,-0.310,-0.310,-0.310,0.000,0.000,0.000
1640068723841175040,"2021-12-21,06:38:43",10.1.1.9,0.3115079402923584,-0.310,-0.310,-0.310,0.000,0.000,0.000
1640068724134982144,"2021-12-21,06:38:44",10.1.1.9,292,-0.320,-0.320,-0.320,0.000,0.000,0.000
1640068724157895936,"2021-12-21,06:38:44",10.1.1.9,0.315399169921875,-0.320,-0.320,-0.320,0.000,0.000,0.000
1640068724485044992,"2021-12-21,06:38:44",10.1.1.9,325,-0.330,-0.330,-0.330,0.000,0.000,0.000
1640068724520436992,"2021-12-21,06:38:44",10.1.1.9,0.36095690727233887,-0.330,-0.330,-0.330,0.000,0.000,0.000
1640068724866620928,"2021-12-21,06:38:44",10.1.1.9,344,-0.340,-0.340,-0.340,0.000,0.000,0.000
1640068724891515904,"2021-12-21,06:38:44",10.1.1.9,0.3678450584411621,-0.340,-0.340,-0.340,0.000,0.000,0.000
1640068725226664960,"2021-12-21,06:38:45",10.1.1.9,328,-0.350,-0.350,-0.350,0.000,0.000,0.000
1640068725284867072,"2021-12-21,06:38:45",10.1.1.9,0.387070894241333,-0.350,-0.350,-0.350,0.000,0.000,0.000
1640068725607363840,"2021-12-21,06:38:45",10.1.1.9,321,-0.360,-0.360,-0.360,0.000,0.000,0.000
1640068725623642880,"2021-12-21,06:38:45",10.1.1.9,0.3373420238494873,-0.360,-0.360,-0.360,0.000,0.000,0.000
1640068725957927936,"2021-12-21,06:38:45",10.1.1.9,331,-0.370,-0.370,-0.370,0.000,0.000,0.000
1640068725971086080,"2021-12-21,06:38:45",10.1.1.9,0.34516191482543945,-0.370,-0.370,-0.370,0.000,0.000,0.000
1640068726327824128,"2021-12-21,06:38:46",10.1.1.9,354,-0.380,-0.380,-0.380,0.000,0.000,0.000
1640068726348614912,"2021-12-21,06:38:46",10.1.1.9,0.375324010848999,-0.380,-0.380,-0.380,0.000,0.000,0.000
1640068726687890176,"2021-12-21,06:38:46",10.1.1.9,337,-0.390,-0.390,-0.390,0.000,0.000,0.000
1640068726745928960,"2021-12-21,06:38:46",10.1.1.9,0.39573097229003906,-0.390,-0.390,-0.390,0.000,0.000,0.000
1640068727057925888,"2021-12-21,06:38:47",10.1.1.9,310,-0.400,-0.400,-0.400,0.000,0.000,0.000
1640068727103629056,"2021-12-21,06:38:47",10.1.1.9,0.35625696182250977,-0.400,-0.400,-0.400,0.000,0.000,0.000
1640068727418610944,"2021-12-21,06:38:47",10.1.1.9,313,-0.410,-0.410,-0.410,0.000,0.000,0.000
1640068727444888064,"2021-12-21,06:38:47",10.1.1.9,0.3399360179901123,-0.410,-0.410,-0.410,0.000,0.000,0.000
1640068727447598080,"2021-12-21,06:38:47",10.1.1.9,-9,-0.420,-0.420,-0.420,0.000,0.000,0.000
1640068727827367936,"2021-12-21,06:38:47",10.1.1.9,0.380856990814209,-0.420,-0.420,-0.420,0.000,0.000,0.000
1640068728157940992,"2021-12-21,06:38:48",10.1.1.9,329,-0.430,-0.430,-0.430,0.000,0.000,0.000
1640068728179908864,"2021-12-21,06:38:48",10.1.1.9,0.35115814208984375,-0.430,-0.430,-0.430,0.000,0.000,0.000
1640068728467947008,"2021-12-21,06:38:48",10.1.1.9,286,-0.440,-0.440,-0.440,0.000,0.000,0.000
1640068728496547072,"2021-12-21,06:38:48",10.1.1.9,0.31476593017578125,-0.440,-0.440,-0.440,0.000,0.000,0.000
1640068728798511872,"2021-12-21,06:38:48",10.1.1.9,300,-0.450,-0.450,-0.450,0.000,0.000,0.000
1640068728829539072,"2021-12-21,06:38:48",10.1.1.9,0.33144593238830566,-0.450,-0.450,-0.450,0.000,0.000,0.000
1640068729168737792,"2021-12-21,06:38:49",10.1.1.9,337,-0.460,-0.460,-0.460,0.000,0.000,0.000
1640068729188480000,"2021-12-21,06:38:49",10.1.1.9,0.35748791694641113,-0.460,-0.460,-0.460,0.000,0.000,0.000
1640068729518341120,"2021-12-21,06:38:49",10.1.1.9,328,-0.470,-0.470,-0.470,0.000,0.000,0.000
1640068729541701120,"2021-12-21,06:38:49",10.1.1.9,0.3505361080169678,-0.470,-0.470,-0.470,0.000,0.000,0.000
1640068729868717056,"2021-12-21,06:38:49",10.1.1.9,324,-0.480,-0.480,-0.480,0.000,0.000,0.000
1640068729903526144,"2021-12-21,06:38:49",10.1.1.9,0.35884904861450195,-0.480,-0.480,-0.480,0.000,0.000,0.000
1640068730238137088,"2021-12-21,06:38:50",10.1.1.9,332,-0.490,-0.490,-0.490,0.000,0.000,0.000
1640068730256395008,"2021-12-21,06:38:50",10.1.1.9,0.350754976272583,-0.490,-0.490,-0.490,0.000,0.000,0.000
1640068730578087168,"2021-12-21,06:38:50",10.1.1.9,320,-0.480,-0.480,-0.480,0.000,0.000,0.000
1640068730604850176,"2021-12-21,06:38:50",10.1.1.9,0.34680700302124023,-0.480,-0.480,-0.480,0.000,0.000,0.000
1640068730908077056,"2021-12-21,06:38:50",10.1.1.9,301,-0.470,-0.470,-0.470,0.000,0.000,0.000
1640068730943269120,"2021-12-21,06:38:50",10.1.1.9,0.33641695976257324,-0.470,-0.470,-0.470,0.000,0.000,0.000
1640068731297418240,"2021-12-21,06:38:51",10.1.1.9,351,-0.460,-0.460,-0.460,0.000,0.000,0.000
1640068731357660160,"2021-12-21,06:38:51",10.1.1.9,0.41222500801086426,-0.460,-0.460,-0.460,0.000,0.000,0.000
1640068731712161024,"2021-12-21,06:38:51",10.1.1.9,350,-0.450,-0.450,-0.450,0.000,0.000,0.000
1640068731736985088,"2021-12-21,06:38:51",10.1.1.9,0.3780500888824463,-0.450,-0.450,-0.450,0.000,0.000,0.000
1640068732087398144,"2021-12-21,06:38:52",10.1.1.9,348,-0.440,-0.440,-0.440,0.000,0.000,0.000
1640068732140889856,"2021-12-21,06:38:52",10.1.1.9,0.40223002433776855,-0.440,-0.440,-0.440,0.000,0.000,0.000
1640068732506405120,"2021-12-21,06:38:52",10.1.1.9,358,-0.430,-0.430,-0.430,0.000,0.000,0.000
1640068732519289088,"2021-12-21,06:38:52",10.1.1.9,0.37145185470581055,-0.430,-0.430,-0.430,0.000,0.000,0.000
1640068732886900992,"2021-12-21,06:38:52",10.1.1.9,364,-0.420,-0.420,-0.420,0.000,0.000,0.000
1640068732908380928,"2021-12-21,06:38:52",10.1.1.9,0.38601183891296387,-0.420,-0.420,-0.420,0.000,0.000,0.000
1640068733237680896,"2021-12-21,06:38:53",10.1.1.9,326,-0.410,-0.410,-0.410,0.000,0.000,0.000
1640068733245387008,"2021-12-21,06:38:53",10.1.1.9,0.334705114364624,-0.410,-0.410,-0.410,0.000,0.000,0.000
1640068733556366848,"2021-12-21,06:38:53",10.1.1.9,309,-0.400,-0.400,-0.400,0.000,0.000,0.000
1640068733595618048,"2021-12-21,06:38:53",10.1.1.9,0.3486599922180176,-0.400,-0.400,-0.400,0.000,0.000,0.000
1640068733895649792,"2021-12-21,06:38:53",10.1.1.9,298,-0.390,-0.390,-0.390,0.000,0.000,0.000
1640068733942321152,"2021-12-21,06:38:53",10.1.1.9,0.3454091548919678,-0.390,-0.390,-0.390,0.000,0.000,0.000
1640068734276993024,"2021-12-21,06:38:54",10.1.1.9,333,-0.380,-0.380,-0.380,0.000,0.000,0.000
1640068734307907072,"2021-12-21,06:38:54",10.1.1.9,0.36437511444091797,-0.380,-0.380,-0.380,0.000,0.000,0.000
1640068734615550976,"2021-12-21,06:38:54",10.1.1.9,306,-0.370,-0.370,-0.370,0.000,0.000,0.000
1640068734651223808,"2021-12-21,06:38:54",10.1.1.9,0.34189414978027344,-0.370,-0.370,-0.370,0.000,0.000,0.000
1640068734966257152,"2021-12-21,06:38:54",10.1.1.9,312,-0.360,-0.360,-0.360,0.000,0.000,0.000
1640068734993988096,"2021-12-21,06:38:54",10.1.1.9,0.3406870365142822,-0.360,-0.360,-0.360,0.000,0.000,0.000
1640068735315366144,"2021-12-21,06:38:55",10.1.1.9,318,-0.350,-0.350,-0.350,0.000,0.000,0.000
1640068735353421056,"2021-12-21,06:38:55",10.1.1.9,0.35637903213500977,-0.350,-0.350,-0.350,0.000,0.000,0.000
1640068735715471872,"2021-12-21,06:38:55",10.1.1.9,359,-0.340,-0.340,-0.340,0.000,0.000,0.000
1640068735756567040,"2021-12-21,06:38:55",10.1.1.9,0.4013080596923828,-0.340,-0.340,-0.340,0.000,0.000,0.000
1640068736113943040,"2021-12-21,06:38:56",10.1.1.9,356,-0.330,-0.330,-0.330,0.000,0.000,0.000
1640068736144210944,"2021-12-21,06:38:56",10.1.1.9,0.38640308380126953,-0.330,-0.330,-0.330,0.000,0.000,0.000
1640068736544328960,"2021-12-21,06:38:56",10.1.1.9,398,-0.320,-0.320,-0.320,0.000,0.000,0.000
1640068736584503808,"2021-12-21,06:38:56",10.1.1.9,0.4386918544769287,-0.320,-0.320,-0.320,0.000,0.000,0.000
1640068736912753152,"2021-12-21,06:38:56",10.1.1.9,326,-0.310,-0.310,-0.310,0.000,0.000,0.000
1640068736936186112,"2021-12-21,06:38:56",10.1.1.9,0.35046815872192383,-0.310,-0.310,-0.310,0.000,0.000,0.000
1640068737242541056,"2021-12-21,06:38:57",10.1.1.9,304,-0.300,-0.300,-0.300,0.000,0.000,0.000
1640068737266521856,"2021-12-21,06:38:57",10.1.1.9,0.32903313636779785,-0.300,-0.300,-0.300,0.000,0.000,0.000
1640068737582653952,"2021-12-21,06:38:57",10.1.1.9,314,-0.290,-0.290,-0.290,0.000,0.000,0.000
1640068737619453952,"2021-12-21,06:38:57",10.1.1.9,0.3509500026702881,-0.290,-0.290,-0.290,0.000,0.000,0.000
1640068737962779904,"2021-12-21,06:38:57",10.1.1.9,338,-0.280,-0.280,-0.280,0.000,0.000,0.000
1640068738027582976,"2021-12-21,06:38:58",10.1.1.9,0.40398192405700684,-0.280,-0.280,-0.280,0.000,0.000,0.000
1640068738363537920,"2021-12-21,06:38:58",10.1.1.9,333,-0.270,-0.270,-0.270,0.000,0.000,0.000
1640068738459378944,"2021-12-21,06:38:58",10.1.1.9,0.42962002754211426,-0.270,-0.270,-0.270,0.000,0.000,0.000
1640068738762091008,"2021-12-21,06:38:58",10.1.1.9,301,-0.260,-0.260,-0.260,0.000,0.000,0.000
1640068738800659968,"2021-12-21,06:38:58",10.1.1.9,0.33999085426330566,-0.260,-0.260,-0.260,0.000,0.000,0.000
1640068739120635904,"2021-12-21,06:38:59",10.1.1.9,318,-0.250,-0.250,-0.250,0.000,0.000,0.000
1640068739152797952,"2021-12-21,06:38:59",10.1.1.9,0.3504371643066406,-0.250,-0.250,-0.250,0.000,0.000,0.000
1640068739481537024,"2021-12-21,06:38:59",10.1.1.9,324,-0.240,-0.240,-0.240,0.000,0.000,0.000
1640068739499923968,"2021-12-21,06:38:59",10.1.1.9,0.343034029006958,-0.240,-0.240,-0.240,0.000,0.000,0.000
1640068739840238080,"2021-12-21,06:38:59",10.1.1.9,332,-0.230,-0.230,-0.230,0.000,0.000,0.000
1640068739874219776,"2021-12-21,06:38:59",10.1.1.9,0.36641597747802734,-0.230,-0.230,-0.230,0.000,0.000,0.000
1640068740238414080,"2021-12-21,06:39:00",10.1.1.9,358,-0.220,-0.220,-0.220,0.000,0.000,0.000
1640068740256237056,"2021-12-21,06:39:00",10.1.1.9,0.3768730163574219,-0.220,-0.220,-0.220,0.000,0.000,0.000
1640068740598606080,"2021-12-21,06:39:00",10.1.1.9,340,-0.210,-0.210,-0.210,0.000,0.000,0.000
1640068740630273024,"2021-12-21,06:39:00",10.1.1.9,0.3726320266723633,-0.210,-0.210,-0.210,0.000,0.000,0.000
1640068740977751040,"2021-12-21,06:39:00",10.1.1.9,343,-0.200,-0.200,-0.200,0.000,0.000,0.000
1640068741031542016,"2021-12-21,06:39:01",10.1.1.9,0.3976559638977051,-0.200,-0.200,-0.200,0.000,0.000,0.000
1640068741357317888,"2021-12-21,06:39:01",10.1.1.9,321,-0.190,-0.190,-0.190,0.000,0.000,0.000
1640068741401787904,"2021-12-21,06:39:01",10.1.1.9,0.3661990165710449,-0.190,-0.190,-0.190,0.000,0.000,0.000
1640068741717001984,"2021-12-21,06:39:01",10.1.1.9,313,-0.180,-0.180,-0.180,0.000,0.000,0.000
1640068741760260096,"2021-12-21,06:39:01",10.1.1.9,0.3563990592956543,-0.180,-0.180,-0.180,0.000,0.000,0.000
1640068742076183040,"2021-12-21,06:39:02",10.1.1.9,314,-0.170,-0.170,-0.170,0.000,0.000,0.000
1640068742093156096,"2021-12-21,06:39:02",10.1.1.9,0.3311278820037842,-0.170,-0.170,-0.170,0.000,0.000,0.000
1640068742437120000,"2021-12-21,06:39:02",10.1.1.9,341,-0.160,-0.160,-0.160,0.000,0.000,0.000
1640068742478926848,"2021-12-21,06:39:02",10.1.1.9,0.3843719959259033,-0.160,-0.160,-0.160,0.000,0.000,0.000
1640068742774998784,"2021-12-21,06:39:02",10.1.1.9,294,-0.150,-0.150,-0.150,0.000,0.000,0.000
1640068742827228160,"2021-12-21,06:39:02",10.1.1.9,0.3468148708343506,-0.150,-0.150,-0.150,0.000,0.000,0.000
1640068743154189056,"2021-12-21,06:39:03",10.1.1.9,325,-0.140,-0.140,-0.140,0.000,0.000,0.000
1640068743229555968,"2021-12-21,06:39:03",10.1.1.9,0.40100789070129395,-0.140,-0.140,-0.140,0.000,0.000,0.000
1640068743554127104,"2021-12-21,06:39:03",10.1.1.9,313,-0.130,-0.130,-0.130,0.000,0.000,0.000
1640068743601135104,"2021-12-21,06:39:03",10.1.1.9,0.3609650135040283,-0.130,-0.130,-0.130,0.000,0.000,0.000
1640068743944242944,"2021-12-21,06:39:03",10.1.1.9,341,-0.120,-0.120,-0.120,0.000,0.000,0.000
1640068743958776832,"2021-12-21,06:39:03",10.1.1.9,0.35565686225891113,-0.120,-0.120,-0.120,0.000,0.000,0.000
1640068744263202048,"2021-12-21,06:39:04",10.1.1.9,302,-0.110,-0.110,-0.110,0.000,0.000,0.000
1640068744297645056,"2021-12-21,06:39:04",10.1.1.9,0.33696794509887695,-0.110,-0.110,-0.110,0.000,0.000,0.000
1640068744653842944,"2021-12-21,06:39:04",10.1.1.9,353,-0.100,-0.100,-0.100,0.000,0.000,0.000
1640068744668571904,"2021-12-21,06:39:04",10.1.1.9,0.36847591400146484,-0.100,-0.100,-0.100,0.000,0.000,0.000
1640068744992444928,"2021-12-21,06:39:04",10.1.1.9,322,-0.090,-0.090,-0.090,0.000,0.000,0.000
1640068745013256192,"2021-12-21,06:39:05",10.1.1.9,0.3433990478515625,-0.090,-0.090,-0.090,0.000,0.000,0.000
1640068745352704000,"2021-12-21,06:39:05",10.1.1.9,335,-0.080,-0.080,-0.080,0.000,0.000,0.000
1640068745407177984,"2021-12-21,06:39:05",10.1.1.9,0.3898470401763916,-0.080,-0.080,-0.080,0.000,0.000,0.000
1640068745761218048,"2021-12-21,06:39:05",10.1.1.9,352,-0.070,-0.070,-0.070,0.000,0.000,0.000
1640068745790750976,"2021-12-21,06:39:05",10.1.1.9,0.3822760581970215,-0.070,-0.070,-0.070,0.000,0.000,0.000
1640068746155482112,"2021-12-21,06:39:06",10.1.1.9,361,-0.060,-0.060,-0.060,0.000,0.000,0.000
1640068746179440896,"2021-12-21,06:39:06",10.1.1.9,0.3866000175476074,-0.060,-0.060,-0.060,0.000,0.000,0.000
1640068746519633920,"2021-12-21,06:39:06",10.1.1.9,338,-0.050,-0.050,-0.050,0.000,0.000,0.000
1640068746570019840,"2021-12-21,06:39:06",10.1.1.9,0.3893430233001709,-0.050,-0.050,-0.050,0.000,0.000,0.000
1640068746888748032,"2021-12-21,06:39:06",10.1.1.9,317,-0.040,-0.040,-0.040,0.000,0.000,0.000
1640068746928494080,"2021-12-21,06:39:06",10.1.1.9,0.35712289810180664,-0.040,-0.040,-0.040,0.000,0.000,0.000
1640068747250992896,"2021-12-21,06:39:07",10.1.1.9,318,-0.030,-0.030,-0.030,0.000,0.000,0.000
1640068747266191872,"2021-12-21,06:39:07",10.1.1.9,0.33400702476501465,-0.030,-0.030,-0.030,0.000,0.000,0.000
1640068747568006144,"2021-12-21,06:39:07",10.1.1.9,300,-0.020,-0.020,-0.020,0.000,0.000,0.000
1640068747604594944,"2021-12-21,06:39:07",10.1.1.9,0.33710598945617676,-0.020,-0.020,-0.020,0.000,0.000,0.000
1640068747927747840,"2021-12-21,06:39:07",10.1.1.9,321,-0.010,-0.010,-0.010,0.000,0.000,0.000
1640068747949949952,"2021-12-21,06:39:07",10.1.1.9,0.34388303756713867,-0.010,-0.010,-0.010,0.000,0.000,0.000
1640068748299734016,"2021-12-21,06:39:08",10.1.1.9,348,0.000,0.000,0.000,0.000,0.000,0.000
1640068748343461888,"2021-12-21,06:39:08",10.1.1.9,0.39161205291748047,0.000,0.000,0.000,0.000,0.000,0.000
1640068748676683008,"2021-12-21,06:39:08",10.1.1.9,325,-0.010,-0.010,-0.010,0.000,0.000,0.000
1640068748727708160,"2021-12-21,06:39:08",10.1.1.9,0.37685203552246094,-0.010,-0.010,-0.010,0.000,0.000,0.000
1640068749086471168,"2021-12-21,06:39:09",10.1.1.9,354,-0.020,-0.020,-0.020,0.000,0.000,0.000
1640068749127438080,"2021-12-21,06:39:09",10.1.1.9,0.39611101150512695,-0.020,-0.020,-0.020,0.000,0.000,0.000
1640068749484967936,"2021-12-21,06:39:09",10.1.1.9,356,-0.030,-0.030,-0.030,0.000,0.000,0.000
1640068749503087104,"2021-12-21,06:39:09",10.1.1.9,0.3743560314178467,-0.030,-0.030,-0.030,0.000,0.000,0.000
1640068749835298048,"2021-12-21,06:39:09",10.1.1.9,330,-0.040,-0.040,-0.040,0.000,0.000,0.000
1640068749923417088,"2021-12-21,06:39:09",10.1.1.9,0.4184281826019287,-0.040,-0.040,-0.040,0.000,0.000,0.000
1640068750266103040,"2021-12-21,06:39:10",10.1.1.9,341,-0.050,-0.050,-0.050,0.000,0.000,0.000
1640068750294725888,"2021-12-21,06:39:10",10.1.1.9,0.37006616592407227,-0.050,-0.050,-0.050,0.000,0.000,0.000
1640068750626693120,"2021-12-21,06:39:10",10.1.1.9,328,-0.060,-0.060,-0.060,0.000,0.000,0.000
1640068750658597120,"2021-12-21,06:39:10",10.1.1.9,0.36020684242248535,-0.060,-0.060,-0.060,0.000,0.000,0.000
1640068750960463104,"2021-12-21,06:39:10",10.1.1.9,300,-0.070,-0.070,-0.070,0.000,0.000,0.000
1640068750990488064,"2021-12-21,06:39:10",10.1.1.9,0.330596923828125,-0.070,-0.070,-0.070,0.000,0.000,0.000
1640068751290332160,"2021-12-21,06:39:11",10.1.1.9,297,-0.080,-0.080,-0.080,0.000,0.000,0.000
1640068751320862976,"2021-12-21,06:39:11",10.1.1.9,0.3286259174346924,-0.080,-0.080,-0.080,0.000,0.000,0.000
1640068751681199104,"2021-12-21,06:39:11",10.1.1.9,0.3589777946472168,-0.090,-0.090,-0.090,0.000,0.000,0.000
1640068751682982912,"2021-12-21,06:39:11",10.1.1.9,360,-0.090,-0.090,-0.090,0.000,0.000,0.000
1640068752101206016,"2021-12-21,06:39:12",10.1.1.9,0.40669989585876465,-0.100,-0.100,-0.100,0.000,0.000,0.000
1640068752606203136,"2021-12-21,06:39:12",10.1.1.9,485,-0.110,-0.110,-0.110,0.000,0.000,0.000
1640068752635734016,"2021-12-21,06:39:12",10.1.1.9,0.5153839588165283,-0.110,-0.110,-0.110,0.000,0.000,0.000
1640068752958403072,"2021-12-21,06:39:12",10.1.1.9,321,-0.120,-0.120,-0.120,0.000,0.000,0.000
1640068753002211072,"2021-12-21,06:39:13",10.1.1.9,0.36518406867980957,-0.120,-0.120,-0.120,0.000,0.000,0.000
1640068753448946944,"2021-12-21,06:39:13",10.1.1.9,445,-0.130,-0.130,-0.130,0.000,0.000,0.000
1640068753501326080,"2021-12-21,06:39:13",10.1.1.9,0.4977271556854248,-0.130,-0.130,-0.130,0.000,0.000,0.000
1640068753875709952,"2021-12-21,06:39:13",10.1.1.9,0.37227702140808105,-0.140,-0.140,-0.140,0.000,0.000,0.000
1640068753876028160,"2021-12-21,06:39:13",10.1.1.9,372,-0.140,-0.140,-0.140,0.000,0.000,0.000
1640068754332360960,"2021-12-21,06:39:14",10.1.1.9,438,-0.150,-0.150,-0.150,0.000,0.000,0.000
1640068754382180864,"2021-12-21,06:39:14",10.1.1.9,0.48816680908203125,-0.150,-0.150,-0.150,0.000,0.000,0.000
1640068754702619136,"2021-12-21,06:39:14",10.1.1.9,318,-0.160,-0.160,-0.160,0.000,0.000,0.000
1640068754743556096,"2021-12-21,06:39:14",10.1.1.9,0.35947299003601074,-0.160,-0.160,-0.160,0.000,0.000,0.000
1640068755073837056,"2021-12-21,06:39:15",10.1.1.9,328,-0.170,-0.170,-0.170,0.000,0.000,0.000
1640068755160315136,"2021-12-21,06:39:15",10.1.1.9,0.4155430793762207,-0.170,-0.170,-0.170,0.000,0.000,0.000
1640068755463653120,"2021-12-21,06:39:15",10.1.1.9,302,-0.180,-0.180,-0.180,0.000,0.000,0.000
1640068755541678848,"2021-12-21,06:39:15",10.1.1.9,0.38018202781677246,-0.180,-0.180,-0.180,0.000,0.000,0.000
1640068755855065088,"2021-12-21,06:39:15",10.1.1.9,311,-0.190,-0.190,-0.190,0.000,0.000,0.000
1640068755907862016,"2021-12-21,06:39:15",10.1.1.9,0.364138126373291,-0.190,-0.190,-0.190,0.000,0.000,0.000
1640068756264946944,"2021-12-21,06:39:16",10.1.1.9,351,-0.200,-0.200,-0.200,0.000,0.000,0.000
1640068756373075968,"2021-12-21,06:39:16",10.1.1.9,0.46004605293273926,-0.200,-0.200,-0.200,0.000,0.000,0.000
1640068756716832000,"2021-12-21,06:39:16",10.1.1.9,342,-0.210,-0.210,-0.210,0.000,0.000,0.000
1640068756762793984,"2021-12-21,06:39:16",10.1.1.9,0.3849020004272461,-0.210,-0.210,-0.210,0.000,0.000,0.000
1640068757173841920,"2021-12-21,06:39:17",10.1.1.9,405,-0.220,-0.220,-0.220,0.000,0.000,0.000
1640068757198402048,"2021-12-21,06:39:17",10.1.1.9,0.4306669235229492,-0.220,-0.220,-0.220,0.000,0.000,0.000
1640068757517337088,"2021-12-21,06:39:17",10.1.1.9,317,-0.230,-0.230,-0.230,0.000,0.000,0.000
1640068757547148032,"2021-12-21,06:39:17",10.1.1.9,0.34717297554016113,-0.230,-0.230,-0.230,0.000,0.000,0.000
1640068757889305088,"2021-12-21,06:39:17",10.1.1.9,335,-0.240,-0.240,-0.240,0.000,0.000,0.000
1640068757914060032,"2021-12-21,06:39:17",10.1.1.9,0.3607349395751953,-0.240,-0.240,-0.240,0.000,0.000,0.000
1640068758217520896,"2021-12-21,06:39:18",10.1.1.9,302,-0.250,-0.250,-0.250,0.000,0.000,0.000
1640068758250224128,"2021-12-21,06:39:18",10.1.1.9,0.33472418785095215,-0.250,-0.250,-0.250,0.000,0.000,0.000
1640068758558587904,"2021-12-21,06:39:18",10.1.1.9,305,-0.260,-0.260,-0.260,0.000,0.000,0.000
1640068758571744000,"2021-12-21,06:39:18",10.1.1.9,0.31900978088378906,-0.260,-0.260,-0.260,0.000,0.000,0.000
1640068758899063040,"2021-12-21,06:39:18",10.1.1.9,325,-0.270,-0.270,-0.270,0.000,0.000,0.000
1640068758943272192,"2021-12-21,06:39:18",10.1.1.9,0.36986494064331055,-0.270,-0.270,-0.270,0.000,0.000,0.000
1640068759291462912,"2021-12-21,06:39:19",10.1.1.9,0.34622693061828613,-0.280,-0.280,-0.280,0.000,0.000,0.000
1640068759608262912,"2021-12-21,06:39:19",10.1.1.9,315,-0.290,-0.290,-0.290,0.000,0.000,0.000
1640068759644962048,"2021-12-21,06:39:19",10.1.1.9,0.35197997093200684,-0.290,-0.290,-0.290,0.000,0.000,0.000
1640068759969566208,"2021-12-21,06:39:19",10.1.1.9,322,-0.300,-0.300,-0.300,0.000,0.000,0.000
1640068760006903808,"2021-12-21,06:39:20",10.1.1.9,0.3601369857788086,-0.300,-0.300,-0.300,0.000,0.000,0.000
1640068760333630208,"2021-12-21,06:39:20",10.1.1.9,324,-0.310,-0.310,-0.310,0.000,0.000,0.000
1640068760366017024,"2021-12-21,06:39:20",10.1.1.9,0.35735297203063965,-0.310,-0.310,-0.310,0.000,0.000,0.000
1640068760658906880,"2021-12-21,06:39:20",10.1.1.9,291,-0.320,-0.320,-0.320,0.000,0.000,0.000
1640068760689554944,"2021-12-21,06:39:20",10.1.1.9,0.3220210075378418,-0.320,-0.320,-0.320,0.000,0.000,0.000
1640068761039400192,"2021-12-21,06:39:21",10.1.1.9,347,-0.330,-0.330,-0.330,0.000,0.000,0.000
1640068761046834944,"2021-12-21,06:39:21",10.1.1.9,0.35455894470214844,-0.330,-0.330,-0.330,0.000,0.000,0.000
1640068761399881984,"2021-12-21,06:39:21",10.1.1.9,351,-0.340,-0.340,-0.340,0.000,0.000,0.000
1640068761432676096,"2021-12-21,06:39:21",10.1.1.9,0.3842909336090088,-0.340,-0.340,-0.340,0.000,0.000,0.000
1640068761759108096,"2021-12-21,06:39:21",10.1.1.9,324,-0.350,-0.350,-0.350,0.000,0.000,0.000
1640068761769639936,"2021-12-21,06:39:21",10.1.1.9,0.33564114570617676,-0.350,-0.350,-0.350,0.000,0.000,0.000
1640068762099179008,"2021-12-21,06:39:22",10.1.1.9,328,-0.360,-0.360,-0.360,0.000,0.000,0.000
1640068762137063936,"2021-12-21,06:39:22",10.1.1.9,0.3659250736236572,-0.360,-0.360,-0.360,0.000,0.000,0.000
1640068762480321792,"2021-12-21,06:39:22",10.1.1.9,338,-0.370,-0.370,-0.370,0.000,0.000,0.000
1640068762497116160,"2021-12-21,06:39:22",10.1.1.9,0.3557870388031006,-0.370,-0.370,-0.370,0.000,0.000,0.000
1640068762849179136,"2021-12-21,06:39:22",10.1.1.9,350,-0.380,-0.380,-0.380,0.000,0.000,0.000
1640068762888430080,"2021-12-21,06:39:22",10.1.1.9,0.38991785049438477,-0.380,-0.380,-0.380,0.000,0.000,0.000
1640068763219360000,"2021-12-21,06:39:23",10.1.1.9,329,-0.390,-0.390,-0.390,0.000,0.000,0.000
1640068763228796928,"2021-12-21,06:39:23",10.1.1.9,0.33914613723754883,-0.390,-0.390,-0.390,0.000,0.000,0.000
1640068763559341824,"2021-12-21,06:39:23",10.1.1.9,327,-0.400,-0.400,-0.400,0.000,0.000,0.000
1640068763598148096,"2021-12-21,06:39:23",10.1.1.9,0.3666250705718994,-0.400,-0.400,-0.400,0.000,0.000,0.000
1640068763941124864,"2021-12-21,06:39:23",10.1.1.9,341,-0.410,-0.410,-0.410,0.000,0.000,0.000
1640068763993979904,"2021-12-21,06:39:23",10.1.1.9,0.39444589614868164,-0.410,-0.410,-0.410,0.000,0.000,0.000
1640068764338659072,"2021-12-21,06:39:24",10.1.1.9,343,-0.420,-0.420,-0.420,0.000,0.000,0.000
1640068764376656128,"2021-12-21,06:39:24",10.1.1.9,0.3813920021057129,-0.420,-0.420,-0.420,0.000,0.000,0.000
1640068764727544064,"2021-12-21,06:39:24",10.1.1.9,349,-0.430,-0.430,-0.430,0.000,0.000,0.000
1640068764753952000,"2021-12-21,06:39:24",10.1.1.9,0.37576889991760254,-0.430,-0.430,-0.430,0.000,0.000,0.000
1640068765087866112,"2021-12-21,06:39:25",10.1.1.9,332,-0.440,-0.440,-0.440,0.000,0.000,0.000
1640068765114780928,"2021-12-21,06:39:25",10.1.1.9,0.35936403274536133,-0.440,-0.440,-0.440,0.000,0.000,0.000
1640068765437094912,"2021-12-21,06:39:25",10.1.1.9,320,-0.450,-0.450,-0.450,0.000,0.000,0.000
1640068765450063872,"2021-12-21,06:39:25",10.1.1.9,0.3339369297027588,-0.450,-0.450,-0.450,0.000,0.000,0.000
1640068765767436032,"2021-12-21,06:39:25",10.1.1.9,316,-0.460,-0.460,-0.460,0.000,0.000,0.000
1640068765793893120,"2021-12-21,06:39:25",10.1.1.9,0.34243297576904297,-0.460,-0.460,-0.460,0.000,0.000,0.000
1640068766127307776,"2021-12-21,06:39:26",10.1.1.9,331,-0.470,-0.470,-0.470,0.000,0.000,0.000
1640068766137378048,"2021-12-21,06:39:26",10.1.1.9,0.34215283393859863,-0.470,-0.470,-0.470,0.000,0.000,0.000
1640068766536176896,"2021-12-21,06:39:26",10.1.1.9,396,-0.480,-0.480,-0.480,0.000,0.000,0.000
1640068766556530944,"2021-12-21,06:39:26",10.1.1.9,0.4169740676879883,-0.480,-0.480,-0.480,0.000,0.000,0.000
1640068766906639104,"2021-12-21,06:39:26",10.1.1.9,345,-0.490,-0.490,-0.490,0.000,0.000,0.000
1640068766955291904,"2021-12-21,06:39:26",10.1.1.9,0.39397311210632324,-0.490,-0.490,-0.490,0.000,0.000,0.000
1640068767278567168,"2021-12-21,06:39:27",10.1.1.9,321,-0.480,-0.480,-0.480,0.000,0.000,0.000
1640068767308701952,"2021-12-21,06:39:27",10.1.1.9,0.35187196731567383,-0.480,-0.480,-0.480,0.000,0.000,0.000
1640068767636301056,"2021-12-21,06:39:27",10.1.1.9,325,-0.470,-0.470,-0.470,0.000,0.000,0.000
1640068767681441024,"2021-12-21,06:39:27",10.1.1.9,0.3708968162536621,-0.470,-0.470,-0.470,0.000,0.000,0.000
1640068768015988992,"2021-12-21,06:39:28",10.1.1.9,329,-0.460,-0.460,-0.460,0.000,0.000,0.000
1640068768065413888,"2021-12-21,06:39:28",10.1.1.9,0.37938809394836426,-0.460,-0.460,-0.460,0.000,0.000,0.000
1640068768355921920,"2021-12-21,06:39:28",10.1.1.9,289,-0.450,-0.450,-0.450,0.000,0.000,0.000
1640068768393667072,"2021-12-21,06:39:28",10.1.1.9,0.3268771171569824,-0.450,-0.450,-0.450,0.000,0.000,0.000
1640068768724499968,"2021-12-21,06:39:28",10.1.1.9,329,-0.440,-0.440,-0.440,0.000,0.000,0.000
1640068768760430080,"2021-12-21,06:39:28",10.1.1.9,0.3654170036315918,-0.440,-0.440,-0.440,0.000,0.000,0.000
1640068769124579840,"2021-12-21,06:39:29",10.1.1.9,362,-0.430,-0.430,-0.430,0.000,0.000,0.000
1640068769188038144,"2021-12-21,06:39:29",10.1.1.9,0.42637109756469727,-0.430,-0.430,-0.430,0.000,0.000,0.000
1640068769494416896,"2021-12-21,06:39:29",10.1.1.9,304,-0.420,-0.420,-0.420,0.000,0.000,0.000
1640068769539853056,"2021-12-21,06:39:29",10.1.1.9,0.3504481315612793,-0.420,-0.420,-0.420,0.000,0.000,0.000
1640068769874966016,"2021-12-21,06:39:29",10.1.1.9,333,-0.410,-0.410,-0.410,0.000,0.000,0.000
1640068769901304064,"2021-12-21,06:39:29",10.1.1.9,0.36014389991760254,-0.410,-0.410,-0.410,0.000,0.000,0.000
1640068770232530944,"2021-12-21,06:39:30",10.1.1.9,328,-0.400,-0.400,-0.400,0.000,0.000,0.000
1640068770251311104,"2021-12-21,06:39:30",10.1.1.9,0.34744715690612793,-0.400,-0.400,-0.400,0.000,0.000,0.000
1640068770561718016,"2021-12-21,06:39:30",10.1.1.9,308,-0.390,-0.390,-0.390,0.000,0.000,0.000
1640068770639303936,"2021-12-21,06:39:30",10.1.1.9,0.3860299587249756,-0.390,-0.390,-0.390,0.000,0.000,0.000
1640068770962194944,"2021-12-21,06:39:30",10.1.1.9,320,-0.380,-0.380,-0.380,0.000,0.000,0.000
1640068771001885952,"2021-12-21,06:39:31",10.1.1.9,0.3607168197631836,-0.380,-0.380,-0.380,0.000,0.000,0.000
1640068771341538048,"2021-12-21,06:39:31",10.1.1.9,338,-0.370,-0.370,-0.370,0.000,0.000,0.000
1640068771437380096,"2021-12-21,06:39:31",10.1.1.9,0.4341111183166504,-0.370,-0.370,-0.370,0.000,0.000,0.000
1640068771750420992,"2021-12-21,06:39:31",10.1.1.9,311,-0.360,-0.360,-0.360,0.000,0.000,0.000
1640068771773061888,"2021-12-21,06:39:31",10.1.1.9,0.33443689346313477,-0.360,-0.360,-0.360,0.000,0.000,0.000
1640068772120201984,"2021-12-21,06:39:32",10.1.1.9,345,-0.350,-0.350,-0.350,0.000,0.000,0.000
1640068772181097984,"2021-12-21,06:39:32",10.1.1.9,0.4065840244293213,-0.350,-0.350,-0.350,0.000,0.000,0.000
1640068772539660032,"2021-12-21,06:39:32",10.1.1.9,356,-0.340,-0.340,-0.340,0.000,0.000,0.000
1640068772577923072,"2021-12-21,06:39:32",10.1.1.9,0.395313024520874,-0.340,-0.340,-0.340,0.000,0.000,0.000
1640068772898961920,"2021-12-21,06:39:32",10.1.1.9,318,-0.330,-0.330,-0.330,0.000,0.000,0.000
1640068772944430080,"2021-12-21,06:39:32",10.1.1.9,0.363616943359375,-0.330,-0.330,-0.330,0.000,0.000,0.000
1640068773329442048,"2021-12-21,06:39:33",10.1.1.9,383,-0.320,-0.320,-0.320,0.000,0.000,0.000
1640068773366839808,"2021-12-21,06:39:33",10.1.1.9,0.42087721824645996,-0.320,-0.320,-0.320,0.000,0.000,0.000
1640068773708658944,"2021-12-21,06:39:33",10.1.1.9,338,-0.310,-0.310,-0.310,0.000,0.000,0.000
1640068773747270144,"2021-12-21,06:39:33",10.1.1.9,0.37790489196777344,-0.310,-0.310,-0.310,0.000,0.000,0.000
1640068774057879040,"2021-12-21,06:39:34",10.1.1.9,309,-0.300,-0.300,-0.300,0.000,0.000,0.000
1640068774088663040,"2021-12-21,06:39:34",10.1.1.9,0.3398780822753906,-0.300,-0.300,-0.300,0.000,0.000,0.000
1640068774389519104,"2021-12-21,06:39:34",10.1.1.9,299,-0.290,-0.290,-0.290,0.000,0.000,0.000
1640068774429508864,"2021-12-21,06:39:34",10.1.1.9,0.33928489685058594,-0.290,-0.290,-0.290,0.000,0.000,0.000
1640068774769051136,"2021-12-21,06:39:34",10.1.1.9,337,-0.280,-0.280,-0.280,0.000,0.000,0.000
1640068774794074112,"2021-12-21,06:39:34",10.1.1.9,0.3623931407928467,-0.280,-0.280,-0.280,0.000,0.000,0.000
1640068775109252864,"2021-12-21,06:39:35",10.1.1.9,312,-0.270,-0.270,-0.270,0.000,0.000,0.000
1640068775137048064,"2021-12-21,06:39:35",10.1.1.9,0.34046006202697754,-0.270,-0.270,-0.270,0.000,0.000,0.000
1640068775486991872,"2021-12-21,06:39:35",10.1.1.9,348,-0.260,-0.260,-0.260,0.000,0.000,0.000
1640068775526648064,"2021-12-21,06:39:35",10.1.1.9,0.38819289207458496,-0.260,-0.260,-0.260,0.000,0.000,0.000
1640068775845545984,"2021-12-21,06:39:35",10.1.1.9,315,-0.250,-0.250,-0.250,0.000,0.000,0.000
1640068775930057984,"2021-12-21,06:39:35",10.1.1.9,0.4004800319671631,-0.250,-0.250,-0.250,0.000,0.000,0.000
1640068776284640000,"2021-12-21,06:39:36",10.1.1.9,352,-0.240,-0.240,-0.240,0.000,0.000,0.000
1640068776300591872,"2021-12-21,06:39:36",10.1.1.9,0.3680720329284668,-0.240,-0.240,-0.240,0.000,0.000,0.000
1640068776714739200,"2021-12-21,06:39:36",10.1.1.9,379,-0.230,-0.230,-0.230,0.000,0.000,0.000
1640068776739643136,"2021-12-21,06:39:36",10.1.1.9,0.40474915504455566,-0.230,-0.230,-0.230,0.000,0.000,0.000
1640068777053095936,"2021-12-21,06:39:37",10.1.1.9,311,-0.220,-0.220,-0.220,0.000,0.000,0.000
1640068777086148096,"2021-12-21,06:39:37",10.1.1.9,0.34473586082458496,-0.220,-0.220,-0.220,0.000,0.000,0.000
1640068777403134976,"2021-12-21,06:39:37",10.1.1.9,313,-0.210,-0.210,-0.210,0.000,0.000,0.000
1640068777439143936,"2021-12-21,06:39:37",10.1.1.9,0.34956884384155273,-0.210,-0.210,-0.210,0.000,0.000,0.000
1640068777761799168,"2021-12-21,06:39:37",10.1.1.9,321,-0.200,-0.200,-0.200,0.000,0.000,0.000
1640068777777595904,"2021-12-21,06:39:37",10.1.1.9,0.3369300365447998,-0.200,-0.200,-0.200,0.000,0.000,0.000
1640068778141822208,"2021-12-21,06:39:38",10.1.1.9,362,-0.190,-0.190,-0.190,0.000,0.000,0.000
1640068778237876992,"2021-12-21,06:39:38",10.1.1.9,0.45890188217163086,-0.190,-0.190,-0.190,0.000,0.000,0.000
1640068778541659136,"2021-12-21,06:39:38",10.1.1.9,302,-0.180,-0.180,-0.180,0.000,0.000,0.000
1640068778592296960,"2021-12-21,06:39:38",10.1.1.9,0.3529329299926758,-0.180,-0.180,-0.180,0.000,0.000,0.000
1640068778910484992,"2021-12-21,06:39:38",10.1.1.9,316,-0.170,-0.170,-0.170,0.000,0.000,0.000
1640068778978317056,"2021-12-21,06:39:38",10.1.1.9,0.38425612449645996,-0.170,-0.170,-0.170,0.000,0.000,0.000
1640068779291691008,"2021-12-21,06:39:39",10.1.1.9,311,-0.160,-0.160,-0.160,0.000,0.000,0.000
1640068779324687104,"2021-12-21,06:39:39",10.1.1.9,0.3444089889526367,-0.160,-0.160,-0.160,0.000,0.000,0.000
1640068779649716992,"2021-12-21,06:39:39",10.1.1.9,323,-0.150,-0.150,-0.150,0.000,0.000,0.000
1640068779686636800,"2021-12-21,06:39:39",10.1.1.9,0.3607370853424072,-0.150,-0.150,-0.150,0.000,0.000,0.000
1640068779998478848,"2021-12-21,06:39:39",10.1.1.9,308,-0.140,-0.140,-0.140,0.000,0.000,0.000
1640068780029521920,"2021-12-21,06:39:40",10.1.1.9,0.33968687057495117,-0.140,-0.140,-0.140,0.000,0.000,0.000
1640068780340044032,"2021-12-21,06:39:40",10.1.1.9,308,-0.130,-0.130,-0.130,0.000,0.000,0.000
1640068780366484992,"2021-12-21,06:39:40",10.1.1.9,0.33508896827697754,-0.130,-0.130,-0.130,0.000,0.000,0.000
1640068780724164864,"2021-12-21,06:39:40",10.1.1.9,355,-0.120,-0.120,-0.120,0.000,0.000,0.000
1640068780740711936,"2021-12-21,06:39:40",10.1.1.9,0.37223386764526367,-0.120,-0.120,-0.120,0.000,0.000,0.000
1640068781146722048,"2021-12-21,06:39:41",10.1.1.9,404,-0.110,-0.110,-0.110,0.000,0.000,0.000
1640068781199912960,"2021-12-21,06:39:41",10.1.1.9,0.4574010372161865,-0.110,-0.110,-0.110,0.000,0.000,0.000
1640068781526201856,"2021-12-21,06:39:41",10.1.1.9,324,-0.100,-0.100,-0.100,0.000,0.000,0.000
1640068781586078976,"2021-12-21,06:39:41",10.1.1.9,0.3844740390777588,-0.100,-0.100,-0.100,0.000,0.000,0.000
1640068781905626112,"2021-12-21,06:39:41",10.1.1.9,317,-0.090,-0.090,-0.090,0.000,0.000,0.000
1640068781923057920,"2021-12-21,06:39:41",10.1.1.9,0.33544206619262695,-0.090,-0.090,-0.090,0.000,0.000,0.000
1640068782275473152,"2021-12-21,06:39:42",10.1.1.9,348,-0.080,-0.080,-0.080,0.000,0.000,0.000
1640068782336705024,"2021-12-21,06:39:42",10.1.1.9,0.40961408615112305,-0.080,-0.080,-0.080,0.000,0.000,0.000
1640068782724641024,"2021-12-21,06:39:42",10.1.1.9,384,-0.070,-0.070,-0.070,0.000,0.000,0.000
1640068782758977024,"2021-12-21,06:39:42",10.1.1.9,0.4189469814300537,-0.070,-0.070,-0.070,0.000,0.000,0.000
1640068783073854976,"2021-12-21,06:39:43",10.1.1.9,313,-0.060,-0.060,-0.060,0.000,0.000,0.000
1640068783086443776,"2021-12-21,06:39:43",10.1.1.9,0.32584500312805176,-0.060,-0.060,-0.060,0.000,0.000,0.000
1640068783385401856,"2021-12-21,06:39:43",10.1.1.9,297,-0.050,-0.050,-0.050,0.000,0.000,0.000
1640068783411025152,"2021-12-21,06:39:43",10.1.1.9,0.3227839469909668,-0.050,-0.050,-0.050,0.000,0.000,0.000
1640068783758113024,"2021-12-21,06:39:43",10.1.1.9,342,-0.040,-0.040,-0.040,0.000,0.000,0.000
1640068783822268928,"2021-12-21,06:39:43",10.1.1.9,0.4065558910369873,-0.040,-0.040,-0.040,0.000,0.000,0.000
1640068784179502080,"2021-12-21,06:39:44",10.1.1.9,355,-0.030,-0.030,-0.030,0.000,0.000,0.000
1640068784194660864,"2021-12-21,06:39:44",10.1.1.9,0.3706691265106201,-0.030,-0.030,-0.030,0.000,0.000,0.000
1640068784561670912,"2021-12-21,06:39:44",10.1.1.9,365,-0.020,-0.020,-0.020,0.000,0.000,0.000
1640068784603836160,"2021-12-21,06:39:44",10.1.1.9,0.4078681468963623,-0.020,-0.020,-0.020,0.000,0.000,0.000
1640068784914093056,"2021-12-21,06:39:44",10.1.1.9,308,-0.010,-0.010,-0.010,0.000,0.000,0.000
1640068784947799040,"2021-12-21,06:39:44",10.1.1.9,0.3425309658050537,-0.010,-0.010,-0.010,0.000,0.000,0.000
1640068785256196096,"2021-12-21,06:39:45",10.1.1.9,306,0.000,0.000,0.000,0.000,0.000,0.000
1640068785316147200,"2021-12-21,06:39:45",10.1.1.9,0.3667771816253662,0.000,0.000,0.000,0.000,0.000,0.000
1640068785646996992,"2021-12-21,06:39:45",10.1.1.9,327,-0.010,-0.010,-0.010,0.000,0.000,0.000
1640068785683937024,"2021-12-21,06:39:45",10.1.1.9,0.36408281326293945,-0.010,-0.010,-0.010,0.000,0.000,0.000
1640068786007267072,"2021-12-21,06:39:46",10.1.1.9,321,-0.020,-0.020,-0.020,0.000,0.000,0.000
1640068786044097024,"2021-12-21,06:39:46",10.1.1.9,0.35857605934143066,-0.020,-0.020,-0.020,0.000,0.000,0.000
1640068786357342976,"2021-12-21,06:39:46",10.1.1.9,311,-0.030,-0.030,-0.030,0.000,0.000,0.000
1640068786396756992,"2021-12-21,06:39:46",10.1.1.9,0.3506128787994385,-0.030,-0.030,-0.030,0.000,0.000,0.000
1640068786758830080,"2021-12-21,06:39:46",10.1.1.9,357,-0.040,-0.040,-0.040,0.000,0.000,0.000
1640068786858983936,"2021-12-21,06:39:46",10.1.1.9,0.4579460620880127,-0.040,-0.040,-0.040,0.000,0.000,0.000
1640068787181078016,"2021-12-21,06:39:47",10.1.1.9,320,-0.050,-0.050,-0.050,0.000,0.000,0.000
1640068787233357056,"2021-12-21,06:39:47",10.1.1.9,0.3730020523071289,-0.050,-0.050,-0.050,0.000,0.000,0.000
1640068787591041024,"2021-12-21,06:39:47",10.1.1.9,355,-0.060,-0.060,-0.060,0.000,0.000,0.000
1640068787602177024,"2021-12-21,06:39:47",10.1.1.9,0.3664710521697998,-0.060,-0.060,-0.060,0.000,0.000,0.000
1640068787941807872,"2021-12-21,06:39:47",10.1.1.9,337,-0.070,-0.070,-0.070,0.000,0.000,0.000
1640068787997904896,"2021-12-21,06:39:47",10.1.1.9,0.39410901069641113,-0.070,-0.070,-0.070,0.000,0.000,0.000
1640068788344083968,"2021-12-21,06:39:48",10.1.1.9,340,-0.080,-0.080,-0.080,0.000,0.000,0.000
1640068788393384960,"2021-12-21,06:39:48",10.1.1.9,0.3896160125732422,-0.080,-0.080,-0.080,0.000,0.000,0.000
1640068788758157056,"2021-12-21,06:39:48",10.1.1.9,357,-0.090,-0.090,-0.090,0.000,0.000,0.000
1640068788783413760,"2021-12-21,06:39:48",10.1.1.9,0.3831021785736084,-0.090,-0.090,-0.090,0.000,0.000,0.000
1640068789174771968,"2021-12-21,06:39:49",10.1.1.9,388,-0.100,-0.100,-0.100,0.000,0.000,0.000
1640068789234543104,"2021-12-21,06:39:49",10.1.1.9,0.4484860897064209,-0.100,-0.100,-0.100,0.000,0.000,0.000
1640068789584726016,"2021-12-21,06:39:49",10.1.1.9,344,-0.110,-0.110,-0.110,0.000,0.000,0.000
1640068789633902080,"2021-12-21,06:39:49",10.1.1.9,0.3938429355621338,-0.110,-0.110,-0.110,0.000,0.000,0.000
1640068789964414976,"2021-12-21,06:39:49",10.1.1.9,328,-0.120,-0.120,-0.120,0.000,0.000,0.000
1640068790012506880,"2021-12-21,06:39:50",10.1.1.9,0.37689709663391113,-0.120,-0.120,-0.120,0.000,0.000,0.000
1640068790365988096,"2021-12-21,06:39:50",10.1.1.9,350,-0.130,-0.130,-0.130,0.000,0.000,0.000
1640068790385790976,"2021-12-21,06:39:50",10.1.1.9,0.3700120449066162,-0.130,-0.130,-0.130,0.000,0.000,0.000
1640068790696482816,"2021-12-21,06:39:50",10.1.1.9,306,-0.140,-0.140,-0.140,0.000,0.000,0.000
1640068790722390784,"2021-12-21,06:39:50",10.1.1.9,0.33287882804870605,-0.140,-0.140,-0.140,0.000,0.000,0.000
1640068791056495872,"2021-12-21,06:39:51",10.1.1.9,332,-0.150,-0.150,-0.150,0.000,0.000,0.000
1640068791077181952,"2021-12-21,06:39:51",10.1.1.9,0.3528740406036377,-0.150,-0.150,-0.150,0.000,0.000,0.000
1640068791377777152,"2021-12-21,06:39:51",10.1.1.9,297,-0.160,-0.160,-0.160,0.000,0.000,0.000
1640068791416662016,"2021-12-21,06:39:51",10.1.1.9,0.3361937999725342,-0.160,-0.160,-0.160,0.000,0.000,0.000
1640068791795867904,"2021-12-21,06:39:51",10.1.1.9,373,-0.170,-0.170,-0.170,0.000,0.000,0.000
1640068791816973824,"2021-12-21,06:39:51",10.1.1.9,0.39482593536376953,-0.170,-0.170,-0.170,0.000,0.000,0.000
1640068792196548864,"2021-12-21,06:39:52",10.1.1.9,377,-0.180,-0.180,-0.180,0.000,0.000,0.000
1640068792223699968,"2021-12-21,06:39:52",10.1.1.9,0.40434718132019043,-0.180,-0.180,-0.180,0.000,0.000,0.000
1640068792559820800,"2021-12-21,06:39:52",10.1.1.9,334,-0.190,-0.190,-0.190,0.000,0.000,0.000
1640068792588680960,"2021-12-21,06:39:52",10.1.1.9,0.36361098289489746,-0.190,-0.190,-0.190,0.000,0.000,0.000
1640068792957089792,"2021-12-21,06:39:52",10.1.1.9,366,-0.200,-0.200,-0.200,0.000,0.000,0.000
1640068793009051136,"2021-12-21,06:39:53",10.1.1.9,0.41884493827819824,-0.200,-0.200,-0.200,0.000,0.000,0.000
1640068793368415232,"2021-12-21,06:39:53",10.1.1.9,355,-0.210,-0.210,-0.210,0.000,0.000,0.000
1640068793415191040,"2021-12-21,06:39:53",10.1.1.9,0.4029519557952881,-0.210,-0.210,-0.210,0.000,0.000,0.000
1640068793729334016,"2021-12-21,06:39:53",10.1.1.9,312,-0.220,-0.220,-0.220,0.000,0.000,0.000
1640068793755859968,"2021-12-21,06:39:53",10.1.1.9,0.33908700942993164,-0.220,-0.220,-0.220,0.000,0.000,0.000
1640068794097195008,"2021-12-21,06:39:54",10.1.1.9,338,-0.230,-0.230,-0.230,0.000,0.000,0.000
1640068794161700096,"2021-12-21,06:39:54",10.1.1.9,0.40274500846862793,-0.230,-0.230,-0.230,0.000,0.000,0.000
1640068794507267840,"2021-12-21,06:39:54",10.1.1.9,342,-0.240,-0.240,-0.240,0.000,0.000,0.000
1640068794542459904,"2021-12-21,06:39:54",10.1.1.9,0.3785059452056885,-0.240,-0.240,-0.240,0.000,0.000,0.000
1640068794895170048,"2021-12-21,06:39:54",10.1.1.9,351,-0.250,-0.250,-0.250,0.000,0.000,0.000
1640068794944514048,"2021-12-21,06:39:54",10.1.1.9,0.40054893493652344,-0.250,-0.250,-0.250,0.000,0.000,0.000
1640068795327238144,"2021-12-21,06:39:55",10.1.1.9,381,-0.260,-0.260,-0.260,0.000,0.000,0.000
1640068795342298112,"2021-12-21,06:39:55",10.1.1.9,0.3962888717651367,-0.260,-0.260,-0.260,0.000,0.000,0.000
1640068795719188992,"2021-12-21,06:39:55",10.1.1.9,374,-0.270,-0.270,-0.270,0.000,0.000,0.000
1640068795745646080,"2021-12-21,06:39:55",10.1.1.9,0.40144801139831543,-0.270,-0.270,-0.270,0.000,0.000,0.000
1640068796067291904,"2021-12-21,06:39:56",10.1.1.9,319,-0.280,-0.280,-0.280,0.000,0.000,0.000
1640068796094188032,"2021-12-21,06:39:56",10.1.1.9,0.34621500968933105,-0.280,-0.280,-0.280,0.000,0.000,0.000
1640068796437684992,"2021-12-21,06:39:56",10.1.1.9,342,-0.290,-0.290,-0.290,0.000,0.000,0.000
1640068796460197888,"2021-12-21,06:39:56",10.1.1.9,0.3648090362548828,-0.290,-0.290,-0.290,0.000,0.000,0.000
1640068796826565120,"2021-12-21,06:39:56",10.1.1.9,364,-0.300,-0.300,-0.300,0.000,0.000,0.000
1640068796862270208,"2021-12-21,06:39:56",10.1.1.9,0.4006459712982178,-0.300,-0.300,-0.300,0.000,0.000,0.000
1640068797165618944,"2021-12-21,06:39:57",10.1.1.9,300,-0.310,-0.310,-0.310,0.000,0.000,0.000
1640068797207185152,"2021-12-21,06:39:57",10.1.1.9,0.34192800521850586,-0.310,-0.310,-0.310,0.000,0.000,0.000
1640068797555867904,"2021-12-21,06:39:57",10.1.1.9,345,-0.320,-0.320,-0.320,0.000,0.000,0.000
1640068797589559040,"2021-12-21,06:39:57",10.1.1.9,0.37922096252441406,-0.320,-0.320,-0.320,0.000,0.000,0.000
1640068797935430144,"2021-12-21,06:39:57",10.1.1.9,344,-0.330,-0.330,-0.330,0.000,0.000,0.000
1640068797960172800,"2021-12-21,06:39:57",10.1.1.9,0.36907196044921875,-0.330,-0.330,-0.330,0.000,0.000,0.000
1640068798266236928,"2021-12-21,06:39:58",10.1.1.9,304,-0.340,-0.340,-0.340,0.000,0.000,0.000
1640068798293225984,"2021-12-21,06:39:58",10.1.1.9,0.3318161964416504,-0.340,-0.340,-0.340,0.000,0.000,0.000
1640068798635865088,"2021-12-21,06:39:58",10.1.1.9,335,-0.350,-0.350,-0.350,0.000,0.000,0.000
1640068798680018944,"2021-12-21,06:39:58",10.1.1.9,0.37969183921813965,-0.350,-0.350,-0.350,0.000,0.000,0.000
1640068799004636160,"2021-12-21,06:39:59",10.1.1.9,320,-0.360,-0.360,-0.360,0.000,0.000,0.000
1640068799039168000,"2021-12-21,06:39:59",10.1.1.9,0.3553590774536133,-0.360,-0.360,-0.360,0.000,0.000,0.000
1640068799344607232,"2021-12-21,06:39:59",10.1.1.9,303,-0.370,-0.370,-0.370,0.000,0.000,0.000
1640068799432014080,"2021-12-21,06:39:59",10.1.1.9,0.3911588191986084,-0.370,-0.370,-0.370,0.000,0.000,0.000
1640068799795747072,"2021-12-21,06:39:59",10.1.1.9,362,-0.380,-0.380,-0.380,0.000,0.000,0.000
1640068799802257920,"2021-12-21,06:39:59",10.1.1.9,0.3686850070953369,-0.380,-0.380,-0.380,0.000,0.000,0.000
1640068800153899008,"2021-12-21,06:40:00",10.1.1.9,348,-0.390,-0.390,-0.390,0.000,0.000,0.000
1640068800190889984,"2021-12-21,06:40:00",10.1.1.9,0.38630104064941406,-0.390,-0.390,-0.390,0.000,0.000,0.000
1640068800592742912,"2021-12-21,06:40:00",10.1.1.9,390,-0.400,-0.400,-0.400,0.000,0.000,0.000
1640068800609431040,"2021-12-21,06:40:00",10.1.1.9,0.4073789119720459,-0.400,-0.400,-0.400,0.000,0.000,0.000
1640068800967183104,"2021-12-21,06:40:00",10.1.1.9,355,-0.410,-0.410,-0.410,0.000,0.000,0.000
1640068801019267072,"2021-12-21,06:40:01",10.1.1.9,0.40819287300109863,-0.410,-0.410,-0.410,0.000,0.000,0.000
1640068801442588928,"2021-12-21,06:40:01",10.1.1.9,421,-0.420,-0.420,-0.420,0.000,0.000,0.000
1640068801501996032,"2021-12-21,06:40:01",10.1.1.9,0.4812188148498535,-0.420,-0.420,-0.420,0.000,0.000,0.000
1640068801912004096,"2021-12-21,06:40:01",10.1.1.9,399,-0.430,-0.430,-0.430,0.000,0.000,0.000
1640068801943436032,"2021-12-21,06:40:01",10.1.1.9,0.4306511878967285,-0.430,-0.430,-0.430,0.000,0.000,0.000
1640068802300656128,"2021-12-21,06:40:02",10.1.1.9,355,-0.440,-0.440,-0.440,0.000,0.000,0.000
1640068802328109056,"2021-12-21,06:40:02",10.1.1.9,0.38339996337890625,-0.440,-0.440,-0.440,0.000,0.000,0.000
1640068802700380928,"2021-12-21,06:40:02",10.1.1.9,369,-0.450,-0.450,-0.450,0.000,0.000,0.000
1640068802720150016,"2021-12-21,06:40:02",10.1.1.9,0.3890070915222168,-0.450,-0.450,-0.450,0.000,0.000,0.000
1640068803090286080,"2021-12-21,06:40:03",10.1.1.9,368,-0.460,-0.460,-0.460,0.000,0.000,0.000
1640068803112665856,"2021-12-21,06:40:03",10.1.1.9,0.3910200595855713,-0.460,-0.460,-0.460,0.000,0.000,0.000
1640068803460552960,"2021-12-21,06:40:03",10.1.1.9,344,-0.470,-0.470,-0.470,0.000,0.000,0.000
1640068803509608960,"2021-12-21,06:40:03",10.1.1.9,0.39353084564208984,-0.470,-0.470,-0.470,0.000,0.000,0.000
1640068803820535808,"2021-12-21,06:40:03",10.1.1.9,309,-0.480,-0.480,-0.480,0.000,0.000,0.000
1640068803861778944,"2021-12-21,06:40:03",10.1.1.9,0.35073089599609375,-0.480,-0.480,-0.480,0.000,0.000,0.000
1640068804168988928,"2021-12-21,06:40:04",10.1.1.9,305,-0.490,-0.490,-0.490,0.000,0.000,0.000
1640068804197988096,"2021-12-21,06:40:04",10.1.1.9,0.3342099189758301,-0.490,-0.490,-0.490,0.000,0.000,0.000
1640068804518647040,"2021-12-21,06:40:04",10.1.1.9,314,-0.480,-0.480,-0.480,0.000,0.000,0.000
1640068804576957952,"2021-12-21,06:40:04",10.1.1.9,0.37233400344848633,-0.480,-0.480,-0.480,0.000,0.000,0.000
1640068804947698176,"2021-12-21,06:40:04",10.1.1.9,369,-0.470,-0.470,-0.470,0.000,0.000,0.000
1640068804979784960,"2021-12-21,06:40:04",10.1.1.9,0.401339054107666,-0.470,-0.470,-0.470,0.000,0.000,0.000
1640068805347479040,"2021-12-21,06:40:05",10.1.1.9,365,-0.460,-0.460,-0.460,0.000,0.000,0.000
1640068805400280832,"2021-12-21,06:40:05",10.1.1.9,0.4183039665222168,-0.460,-0.460,-0.460,0.000,0.000,0.000
1640068805796464896,"2021-12-21,06:40:05",10.1.1.9,385,-0.450,-0.450,-0.450,0.000,0.000,0.000
1640068805839705856,"2021-12-21,06:40:05",10.1.1.9,0.4284498691558838,-0.450,-0.450,-0.450,0.000,0.000,0.000
1640068806186029056,"2021-12-21,06:40:06",10.1.1.9,344,-0.440,-0.440,-0.440,0.000,0.000,0.000
1640068806249979136,"2021-12-21,06:40:06",10.1.1.9,0.4088168144226074,-0.440,-0.440,-0.440,0.000,0.000,0.000
1640068806587280128,"2021-12-21,06:40:06",10.1.1.9,333,-0.430,-0.430,-0.430,0.000,0.000,0.000
1640068806609329920,"2021-12-21,06:40:06",10.1.1.9,0.35542988777160645,-0.430,-0.430,-0.430,0.000,0.000,0.000
1640068806915410944,"2021-12-21,06:40:06",10.1.1.9,304,-0.420,-0.420,-0.420,0.000,0.000,0.000
1640068806990264832,"2021-12-21,06:40:06",10.1.1.9,0.37917423248291016,-0.420,-0.420,-0.420,0.000,0.000,0.000
1640068807314722048,"2021-12-21,06:40:07",10.1.1.9,323,-0.410,-0.410,-0.410,0.000,0.000,0.000
1640068807412713984,"2021-12-21,06:40:07",10.1.1.9,0.4211130142211914,-0.410,-0.410,-0.410,0.000,0.000,0.000
1640068807724158976,"2021-12-21,06:40:07",10.1.1.9,308,-0.400,-0.400,-0.400,0.000,0.000,0.000
1640068807760793088,"2021-12-21,06:40:07",10.1.1.9,0.34517908096313477,-0.400,-0.400,-0.400,0.000,0.000,0.000
1640068808084121856,"2021-12-21,06:40:08",10.1.1.9,318,-0.390,-0.390,-0.390,0.000,0.000,0.000
1640068808093978880,"2021-12-21,06:40:08",10.1.1.9,0.32872891426086426,-0.390,-0.390,-0.390,0.000,0.000,0.000
1640068808453910016,"2021-12-21,06:40:08",10.1.1.9,358,-0.380,-0.380,-0.380,0.000,0.000,0.000
1640068808486243840,"2021-12-21,06:40:08",10.1.1.9,0.39085912704467773,-0.380,-0.380,-0.380,0.000,0.000,0.000
1640068808852887040,"2021-12-21,06:40:08",10.1.1.9,354,-0.370,-0.370,-0.370,0.000,0.000,0.000
1640068808862415104,"2021-12-21,06:40:08",10.1.1.9,0.36383509635925293,-0.370,-0.370,-0.370,0.000,0.000,0.000
1640068809211767808,"2021-12-21,06:40:09",10.1.1.9,333,-0.360,-0.360,-0.360,0.000,0.000,0.000
1640068809256408832,"2021-12-21,06:40:09",10.1.1.9,0.3781569004058838,-0.360,-0.360,-0.360,0.000,0.000,0.000
1640068809591630848,"2021-12-21,06:40:09",10.1.1.9,333,-0.350,-0.350,-0.350,0.000,0.000,0.000
1640068809629101056,"2021-12-21,06:40:09",10.1.1.9,0.37082910537719727,-0.350,-0.350,-0.350,0.000,0.000,0.000
1640068809990891008,"2021-12-21,06:40:09",10.1.1.9,360,-0.340,-0.340,-0.340,0.000,0.000,0.000
1640068810020482048,"2021-12-21,06:40:10",10.1.1.9,0.3899979591369629,-0.340,-0.340,-0.340,0.000,0.000,0.000
1640068810380594944,"2021-12-21,06:40:10",10.1.1.9,354,-0.330,-0.330,-0.330,0.000,0.000,0.000
1640068810408902912,"2021-12-21,06:40:10",10.1.1.9,0.3830568790435791,-0.330,-0.330,-0.330,0.000,0.000,0.000
1640068810759463936,"2021-12-21,06:40:10",10.1.1.9,348,-0.320,-0.320,-0.320,0.000,0.000,0.000
1640068810791395072,"2021-12-21,06:40:10",10.1.1.9,0.3806331157684326,-0.320,-0.320,-0.320,0.000,0.000,0.000
1640068811149036032,"2021-12-21,06:40:11",10.1.1.9,353,-0.310,-0.310,-0.310,0.000,0.000,0.000
1640068811219543808,"2021-12-21,06:40:11",10.1.1.9,0.4236149787902832,-0.310,-0.310,-0.310,0.000,0.000,0.000
1640068811548732160,"2021-12-21,06:40:11",10.1.1.9,327,-0.300,-0.300,-0.300,0.000,0.000,0.000
1640068811609778944,"2021-12-21,06:40:11",10.1.1.9,0.38877010345458984,-0.300,-0.300,-0.300,0.000,0.000,0.000
1640068811959723008,"2021-12-21,06:40:11",10.1.1.9,348,-0.290,-0.290,-0.290,0.000,0.000,0.000
1640068812031900928,"2021-12-21,06:40:12",10.1.1.9,0.4202768802642822,-0.290,-0.290,-0.290,0.000,0.000,0.000
1640068812381366016,"2021-12-21,06:40:12",10.1.1.9,345,-0.280,-0.280,-0.280,0.000,0.000,0.000
1640068812393084160,"2021-12-21,06:40:12",10.1.1.9,0.35724401473999023,-0.280,-0.280,-0.280,0.000,0.000,0.000
1640068812765788928,"2021-12-21,06:40:12",10.1.1.9,371,-0.270,-0.270,-0.270,0.000,0.000,0.000
1640068812815737088,"2021-12-21,06:40:12",10.1.1.9,0.42144107818603516,-0.270,-0.270,-0.270,0.000,0.000,0.000
1640068813215937024,"2021-12-21,06:40:13",10.1.1.9,397,-0.260,-0.260,-0.260,0.000,0.000,0.000
1640068813267128832,"2021-12-21,06:40:13",10.1.1.9,0.4486069679260254,-0.260,-0.260,-0.260,0.000,0.000,0.000
1640068813655791104,"2021-12-21,06:40:13",10.1.1.9,384,-0.250,-0.250,-0.250,0.000,0.000,0.000
1640068813692209920,"2021-12-21,06:40:13",10.1.1.9,0.42089390754699707,-0.250,-0.250,-0.250,0.000,0.000,0.000
1640068814060741888,"2021-12-21,06:40:14",10.1.1.9,367,-0.240,-0.240,-0.240,0.000,0.000,0.000
1640068814130441984,"2021-12-21,06:40:14",10.1.1.9,0.43703699111938477,-0.240,-0.240,-0.240,0.000,0.000,0.000
1640068814445820160,"2021-12-21,06:40:14",10.1.1.9,313,-0.230,-0.230,-0.230,0.000,0.000,0.000
1640068814493361920,"2021-12-21,06:40:14",10.1.1.9,0.3610711097717285,-0.230,-0.230,-0.230,0.000,0.000,0.000
1640068814854144000,"2021-12-21,06:40:14",10.1.1.9,359,-0.220,-0.220,-0.220,0.000,0.000,0.000
1640068814918096896,"2021-12-21,06:40:14",10.1.1.9,0.42321205139160156,-0.220,-0.220,-0.220,0.000,0.000,0.000
1640068815276087040,"2021-12-21,06:40:15",10.1.1.9,355,-0.210,-0.210,-0.210,0.000,0.000,0.000
1640068815340128000,"2021-12-21,06:40:15",10.1.1.9,0.42036890983581543,-0.210,-0.210,-0.210,0.000,0.000,0.000
1640068815673078016,"2021-12-21,06:40:15",10.1.1.9,331,-0.200,-0.200,-0.200,0.000,0.000,0.000
1640068815740323072,"2021-12-21,06:40:15",10.1.1.9,0.39878010749816895,-0.200,-0.200,-0.200,0.000,0.000,0.000
1640068816079584000,"2021-12-21,06:40:16",10.1.1.9,337,-0.190,-0.190,-0.190,0.000,0.000,0.000
1640068816128467200,"2021-12-21,06:40:16",10.1.1.9,0.38657212257385254,-0.190,-0.190,-0.190,0.000,0.000,0.000
1640068816479453184,"2021-12-21,06:40:16",10.1.1.9,348,-0.180,-0.180,-0.180,0.000,0.000,0.000
1640068816526087936,"2021-12-21,06:40:16",10.1.1.9,0.3952620029449463,-0.180,-0.180,-0.180,0.000,0.000,0.000
1640068816866035968,"2021-12-21,06:40:16",10.1.1.9,335,-0.170,-0.170,-0.170,0.000,0.000,0.000
1640068816945956096,"2021-12-21,06:40:16",10.1.1.9,0.418316125869751,-0.170,-0.170,-0.170,0.000,0.000,0.000
1640068817282439936,"2021-12-21,06:40:17",10.1.1.9,333,-0.160,-0.160,-0.160,0.000,0.000,0.000
1640068817336673024,"2021-12-21,06:40:17",10.1.1.9,0.3881690502166748,-0.160,-0.160,-0.160,0.000,0.000,0.000
1640068817684007936,"2021-12-21,06:40:17",10.1.1.9,345,-0.150,-0.150,-0.150,0.000,0.000,0.000
1640068817714010112,"2021-12-21,06:40:17",10.1.1.9,0.3760089874267578,-0.150,-0.150,-0.150,0.000,0.000,0.000
1640068818044532992,"2021-12-21,06:40:18",10.1.1.9,327,-0.140,-0.140,-0.140,0.000,0.000,0.000
1640068818066544128,"2021-12-21,06:40:18",10.1.1.9,0.3493800163269043,-0.140,-0.140,-0.140,0.000,0.000,0.000
1640068818435586048,"2021-12-21,06:40:18",10.1.1.9,357,-0.130,-0.130,-0.130,0.000,0.000,0.000
1640068818472212992,"2021-12-21,06:40:18",10.1.1.9,0.39448094367980957,-0.130,-0.130,-0.130,0.000,0.000,0.000
1640068818796619776,"2021-12-21,06:40:18",10.1.1.9,322,-0.120,-0.120,-0.120,0.000,0.000,0.000
1640068818829224192,"2021-12-21,06:40:18",10.1.1.9,0.3554248809814453,-0.120,-0.120,-0.120,0.000,0.000,0.000
1640068819198103040,"2021-12-21,06:40:19",10.1.1.9,366,-0.110,-0.110,-0.110,0.000,0.000,0.000
1640068819249916928,"2021-12-21,06:40:19",10.1.1.9,0.4184589385986328,-0.110,-0.110,-0.110,0.000,0.000,0.000
1640068819638746880,"2021-12-21,06:40:19",10.1.1.9,380,-0.100,-0.100,-0.100,0.000,0.000,0.000
1640068819677044992,"2021-12-21,06:40:19",10.1.1.9,0.4193539619445801,-0.100,-0.100,-0.100,0.000,0.000,0.000
1640068820080589056,"2021-12-21,06:40:20",10.1.1.9,397,-0.090,-0.090,-0.090,0.000,0.000,0.000
1640068820127533824,"2021-12-21,06:40:20",10.1.1.9,0.4446098804473877,-0.090,-0.090,-0.090,0.000,0.000,0.000
1640068820500047872,"2021-12-21,06:40:20",10.1.1.9,370,-0.080,-0.080,-0.080,0.000,0.000,0.000
1640068820535717120,"2021-12-21,06:40:20",10.1.1.9,0.4067561626434326,-0.080,-0.080,-0.080,0.000,0.000,0.000
1640068820891644928,"2021-12-21,06:40:20",10.1.1.9,354,-0.070,-0.070,-0.070,0.000,0.000,0.000
1640068820920624128,"2021-12-21,06:40:20",10.1.1.9,0.38353395462036133,-0.070,-0.070,-0.070,0.000,0.000,0.000
1640068821285886976,"2021-12-21,06:40:21",10.1.1.9,363,-0.060,-0.060,-0.060,0.000,0.000,0.000
1640068821339878144,"2021-12-21,06:40:21",10.1.1.9,0.4176011085510254,-0.060,-0.060,-0.060,0.000,0.000,0.000
1640068821711941120,"2021-12-21,06:40:21",10.1.1.9,369,-0.050,-0.050,-0.050,0.000,0.000,0.000
1640068821776485888,"2021-12-21,06:40:21",10.1.1.9,0.43436694145202637,-0.050,-0.050,-0.050,0.000,0.000,0.000
1640068822132830976,"2021-12-21,06:40:22",10.1.1.9,354,-0.040,-0.040,-0.040,0.000,0.000,0.000
1640068822217227008,"2021-12-21,06:40:22",10.1.1.9,0.43926119804382324,-0.040,-0.040,-0.040,0.000,0.000,0.000
1640068822599226880,"2021-12-21,06:40:22",10.1.1.9,380,-0.030,-0.030,-0.030,0.000,0.000,0.000
1640068822636113920,"2021-12-21,06:40:22",10.1.1.9,0.4176328182220459,-0.030,-0.030,-0.030,0.000,0.000,0.000
1640068822993950976,"2021-12-21,06:40:22",10.1.1.9,350,-0.020,-0.020,-0.020,0.000,0.000,0.000
1640068823034440960,"2021-12-21,06:40:23",10.1.1.9,0.3911440372467041,-0.020,-0.020,-0.020,0.000,0.000,0.000
1640068823363136000,"2021-12-21,06:40:23",10.1.1.9,327,-0.010,-0.010,-0.010,0.000,0.000,0.000
1640068823385220096,"2021-12-21,06:40:23",10.1.1.9,0.34951210021972656,-0.010,-0.010,-0.010,0.000,0.000,0.000
1640068823725933056,"2021-12-21,06:40:23",10.1.1.9,339,0.000,0.000,0.000,0.000,0.000,0.000
1640068823759426048,"2021-12-21,06:40:23",10.1.1.9,0.3728451728820801,0.000,0.000,0.000,0.000,0.000,0.000
1640068824114550016,"2021-12-21,06:40:24",10.1.1.9,352,-0.010,-0.010,-0.010,0.000,0.000,0.000
1640068824129766912,"2021-12-21,06:40:24",10.1.1.9,0.3672659397125244,-0.010,-0.010,-0.010,0.000,0.000,0.000
1640068824444460032,"2021-12-21,06:40:24",10.1.1.9,311,-0.020,-0.020,-0.020,0.000,0.000,0.000
1640068824489345024,"2021-12-21,06:40:24",10.1.1.9,0.3565828800201416,-0.020,-0.020,-0.020,0.000,0.000,0.000
1640068824876939008,"2021-12-21,06:40:24",10.1.1.9,385,-0.030,-0.030,-0.030,0.000,0.000,0.000
1640068824927880960,"2021-12-21,06:40:24",10.1.1.9,0.4361109733581543,-0.030,-0.030,-0.030,0.000,0.000,0.000
1640068825284141056,"2021-12-21,06:40:25",10.1.1.9,354,-0.040,-0.040,-0.040,0.000,0.000,0.000
1640068825321054976,"2021-12-21,06:40:25",10.1.1.9,0.39179086685180664,-0.040,-0.040,-0.040,0.000,0.000,0.000
1640068825694340864,"2021-12-21,06:40:25",10.1.1.9,371,-0.050,-0.050,-0.050,0.000,0.000,0.000
1640068825742180096,"2021-12-21,06:40:25",10.1.1.9,0.4196760654449463,-0.050,-0.050,-0.050,0.000,0.000,0.000
1640068826113980928,"2021-12-21,06:40:26",10.1.1.9,368,-0.060,-0.060,-0.060,0.000,0.000,0.000
1640068826182745856,"2021-12-21,06:40:26",10.1.1.9,0.437791109085083,-0.060,-0.060,-0.060,0.000,0.000,0.000
1640068826493295872,"2021-12-21,06:40:26",10.1.1.9,308,-0.070,-0.070,-0.070,0.000,0.000,0.000
1640068826529839872,"2021-12-21,06:40:26",10.1.1.9,0.3457670211791992,-0.070,-0.070,-0.070,0.000,0.000,0.000
1640068826843851008,"2021-12-21,06:40:26",10.1.1.9,312,-0.080,-0.080,-0.080,0.000,0.000,0.000
1640068826914608896,"2021-12-21,06:40:26",10.1.1.9,0.3834249973297119,-0.080,-0.080,-0.080,0.000,0.000,0.000
1640068827253315072,"2021-12-21,06:40:27",10.1.1.9,337,-0.090,-0.090,-0.090,0.000,0.000,0.000
1640068827308840960,"2021-12-21,06:40:27",10.1.1.9,0.39268994331359863,-0.090,-0.090,-0.090,0.000,0.000,0.000
1640068827643953920,"2021-12-21,06:40:27",10.1.1.9,333,-0.100,-0.100,-0.100,0.000,0.000,0.000
1640068827730739968,"2021-12-21,06:40:27",10.1.1.9,0.42014288902282715,-0.100,-0.100,-0.100,0.000,0.000,0.000
1640068828063604992,"2021-12-21,06:40:28",10.1.1.9,329,-0.110,-0.110,-0.110,0.000,0.000,0.000
1640068828117187072,"2021-12-21,06:40:28",10.1.1.9,0.38313794136047363,-0.110,-0.110,-0.110,0.000,0.000,0.000
1640068828452801024,"2021-12-21,06:40:28",10.1.1.9,333,-0.120,-0.120,-0.120,0.000,0.000,0.000
1640068828511163904,"2021-12-21,06:40:28",10.1.1.9,0.39228010177612305,-0.120,-0.120,-0.120,0.000,0.000,0.000
1640068828833096960,"2021-12-21,06:40:28",10.1.1.9,316,-0.130,-0.130,-0.130,0.000,0.000,0.000
1640068828943852800,"2021-12-21,06:40:28",10.1.1.9,0.42770886421203613,-0.130,-0.130,-0.130,0.000,0.000,0.000
1640068829263098880,"2021-12-21,06:40:29",10.1.1.9,317,-0.140,-0.140,-0.140,0.000,0.000,0.000
1640068829292566016,"2021-12-21,06:40:29",10.1.1.9,0.3470609188079834,-0.140,-0.140,-0.140,0.000,0.000,0.000
1640068829612901888,"2021-12-21,06:40:29",10.1.1.9,318,-0.150,-0.150,-0.150,0.000,0.000,0.000
1640068829682748928,"2021-12-21,06:40:29",10.1.1.9,0.3880641460418701,-0.150,-0.150,-0.150,0.000,0.000,0.000
1640068830018078976,"2021-12-21,06:40:30",10.1.1.9,332,-0.160,-0.160,-0.160,0.000,0.000,0.000
1640068830081396992,"2021-12-21,06:40:30",10.1.1.9,0.39624619483947754,-0.160,-0.160,-0.160,0.000,0.000,0.000
1640068830441358080,"2021-12-21,06:40:30",10.1.1.9,358,-0.170,-0.170,-0.170,0.000,0.000,0.000
1640068830489805056,"2021-12-21,06:40:30",10.1.1.9,0.4064900875091553,-0.170,-0.170,-0.170,0.000,0.000,0.000
1640068830802313984,"2021-12-21,06:40:30",10.1.1.9,310,-0.180,-0.180,-0.180,0.000,0.000,0.000
1640068830840104960,"2021-12-21,06:40:30",10.1.1.9,0.34873199462890625,-0.180,-0.180,-0.180,0.000,0.000,0.000
1640068831202307840,"2021-12-21,06:40:31",10.1.1.9,360,-0.190,-0.190,-0.190,0.000,0.000,0.000
1640068831231899904,"2021-12-21,06:40:31",10.1.1.9,0.38936710357666016,-0.190,-0.190,-0.190,0.000,0.000,0.000
1640068831631681792,"2021-12-21,06:40:31",10.1.1.9,375,-0.200,-0.200,-0.200,0.000,0.000,0.000
1640068831726206976,"2021-12-21,06:40:31",10.1.1.9,0.47037482261657715,-0.200,-0.200,-0.200,0.000,0.000,0.000
1640068832060185856,"2021-12-21,06:40:32",10.1.1.9,323,-0.210,-0.210,-0.210,0.000,0.000,0.000
1640068832122281984,"2021-12-21,06:40:32",10.1.1.9,0.38486814498901367,-0.210,-0.210,-0.210,0.000,0.000,0.000
1640068832469670144,"2021-12-21,06:40:32",10.1.1.9,346,-0.220,-0.220,-0.220,0.000,0.000,0.000
1640068832515674112,"2021-12-21,06:40:32",10.1.1.9,0.3921630382537842,-0.220,-0.220,-0.220,0.000,0.000,0.000
1640068832882366976,"2021-12-21,06:40:32",10.1.1.9,355,-0.230,-0.230,-0.230,0.000,0.000,0.000
1640068832975393024,"2021-12-21,06:40:32",10.1.1.9,0.4483828544616699,-0.230,-0.230,-0.230,0.000,0.000,0.000
1640068833299303936,"2021-12-21,06:40:33",10.1.1.9,322,-0.240,-0.240,-0.240,0.000,0.000,0.000
1640068833379153920,"2021-12-21,06:40:33",10.1.1.9,0.4021110534667969,-0.240,-0.240,-0.240,0.000,0.000,0.000
1640068833728358912,"2021-12-21,06:40:33",10.1.1.9,342,-0.250,-0.250,-0.250,0.000,0.000,0.000
1640068833745245952,"2021-12-21,06:40:33",10.1.1.9,0.3588128089904785,-0.250,-0.250,-0.250,0.000,0.000,0.000
1640068834098225152,"2021-12-21,06:40:34",10.1.1.9,351,-0.260,-0.260,-0.260,0.000,0.000,0.000
1640068834132907008,"2021-12-21,06:40:34",10.1.1.9,0.3859679698944092,-0.260,-0.260,-0.260,0.000,0.000,0.000
1640068834449330944,"2021-12-21,06:40:34",10.1.1.9,314,-0.270,-0.270,-0.270,0.000,0.000,0.000
1640068834514000896,"2021-12-21,06:40:34",10.1.1.9,0.379472017288208,-0.270,-0.270,-0.270,0.000,0.000,0.000
1640068834836834816,"2021-12-21,06:40:34",10.1.1.9,320,-0.280,-0.280,-0.280,0.000,0.000,0.000
1640068834902715904,"2021-12-21,06:40:34",10.1.1.9,0.3863990306854248,-0.280,-0.280,-0.280,0.000,0.000,0.000
1640068835257380096,"2021-12-21,06:40:35",10.1.1.9,352,-0.290,-0.290,-0.290,0.000,0.000,0.000
1640068835295048960,"2021-12-21,06:40:35",10.1.1.9,0.39002203941345215,-0.290,-0.290,-0.290,0.000,0.000,0.000
1640068835607796992,"2021-12-21,06:40:35",10.1.1.9,311,-0.300,-0.300,-0.300,0.000,0.000,0.000
1640068835654715904,"2021-12-21,06:40:35",10.1.1.9,0.35823607444763184,-0.300,-0.300,-0.300,0.000,0.000,0.000
1640068836046423808,"2021-12-21,06:40:36",10.1.1.9,389,-0.310,-0.310,-0.310,0.000,0.000,0.000
1640068836123164928,"2021-12-21,06:40:36",10.1.1.9,0.4658329486846924,-0.310,-0.310,-0.310,0.000,0.000,0.000
1640068836485615872,"2021-12-21,06:40:36",10.1.1.9,358,-0.320,-0.320,-0.320,0.000,0.000,0.000
1640068836563656960,"2021-12-21,06:40:36",10.1.1.9,0.4362070560455322,-0.320,-0.320,-0.320,0.000,0.000,0.000
1640068836924438016,"2021-12-21,06:40:36",10.1.1.9,358,-0.330,-0.330,-0.330,0.000,0.000,0.000
1640068836981756928,"2021-12-21,06:40:36",10.1.1.9,0.4163930416107178,-0.330,-0.330,-0.330,0.000,0.000,0.000
1640068837315449856,"2021-12-21,06:40:37",10.1.1.9,332,-0.340,-0.340,-0.340,0.000,0.000,0.000
1640068837401128960,"2021-12-21,06:40:37",10.1.1.9,0.41796088218688965,-0.340,-0.340,-0.340,0.000,0.000,0.000
1640068837779098880,"2021-12-21,06:40:37",10.1.1.9,375,-0.350,-0.350,-0.350,0.000,0.000,0.000
1640068837828881920,"2021-12-21,06:40:37",10.1.1.9,0.4252791404724121,-0.350,-0.350,-0.350,0.000,0.000,0.000
1640068838162748928,"2021-12-21,06:40:38",10.1.1.9,331,-0.360,-0.360,-0.360,0.000,0.000,0.000
1640068838183348992,"2021-12-21,06:40:38",10.1.1.9,0.35182881355285645,-0.360,-0.360,-0.360,0.000,0.000,0.000
1640068838585501952,"2021-12-21,06:40:38",10.1.1.9,398,-0.370,-0.370,-0.370,0.000,0.000,0.000
1640068838692038144,"2021-12-21,06:40:38",10.1.1.9,0.5051388740539551,-0.370,-0.370,-0.370,0.000,0.000,0.000
1640068839111799040,"2021-12-21,06:40:39",10.1.1.9,410,-0.380,-0.380,-0.380,0.000,0.000,0.000
1640068839144783872,"2021-12-21,06:40:39",10.1.1.9,0.4431619644165039,-0.380,-0.380,-0.380,0.000,0.000,0.000
1640068839531126016,"2021-12-21,06:40:39",10.1.1.9,385,-0.390,-0.390,-0.390,0.000,0.000,0.000
1640068839577368064,"2021-12-21,06:40:39",10.1.1.9,0.4313809871673584,-0.390,-0.390,-0.390,0.000,0.000,0.000
1640068839920474880,"2021-12-21,06:40:39",10.1.1.9,334,-0.400,-0.400,-0.400,0.000,0.000,0.000
1640068839980259840,"2021-12-21,06:40:39",10.1.1.9,0.39435410499572754,-0.400,-0.400,-0.400,0.000,0.000,0.000
1640068840330161152,"2021-12-21,06:40:40",10.1.1.9,346,-0.410,-0.410,-0.410,0.000,0.000,0.000
1640068840359088896,"2021-12-21,06:40:40",10.1.1.9,0.37589406967163086,-0.410,-0.410,-0.410,0.000,0.000,0.000
1640068840719036160,"2021-12-21,06:40:40",10.1.1.9,355,-0.420,-0.420,-0.420,0.000,0.000,0.000
1640068840754617856,"2021-12-21,06:40:40",10.1.1.9,0.390653133392334,-0.420,-0.420,-0.420,0.000,0.000,0.000
1640068841118930944,"2021-12-21,06:40:41",10.1.1.9,362,-0.430,-0.430,-0.430,0.000,0.000,0.000
1640068841140775936,"2021-12-21,06:40:41",10.1.1.9,0.38446998596191406,-0.430,-0.430,-0.430,0.000,0.000,0.000
1640068841505405952,"2021-12-21,06:40:41",10.1.1.9,361,-0.440,-0.440,-0.440,0.000,0.000,0.000
1640068841536411904,"2021-12-21,06:40:41",10.1.1.9,0.39289307594299316,-0.440,-0.440,-0.440,0.000,0.000,0.000
1640068841887346944,"2021-12-21,06:40:41",10.1.1.9,347,-0.450,-0.450,-0.450,0.000,0.000,0.000
1640068841916656128,"2021-12-21,06:40:41",10.1.1.9,0.37720608711242676,-0.450,-0.450,-0.450,0.000,0.000,0.000
1640068842254251008,"2021-12-21,06:40:42",10.1.1.9,335,-0.460,-0.460,-0.460,0.000,0.000,0.000
1640068842309283072,"2021-12-21,06:40:42",10.1.1.9,0.39107418060302734,-0.460,-0.460,-0.460,0.000,0.000,0.000
1640068842652539904,"2021-12-21,06:40:42",10.1.1.9,341,-0.470,-0.470,-0.470,0.000,0.000,0.000
1640068842703279104,"2021-12-21,06:40:42",10.1.1.9,0.3926091194152832,-0.470,-0.470,-0.470,0.000,0.000,0.000
1640068843029030144,"2021-12-21,06:40:43",10.1.1.9,322,-0.480,-0.480,-0.480,0.000,0.000,0.000
1640068843054887936,"2021-12-21,06:40:43",10.1.1.9,0.3488321304321289,-0.480,-0.480,-0.480,0.000,0.000,0.000
1640068843456080896,"2021-12-21,06:40:43",10.1.1.9,393,-0.490,-0.490,-0.490,0.000,0.000,0.000
1640068843505688064,"2021-12-21,06:40:43",10.1.1.9,0.44310498237609863,-0.490,-0.490,-0.490,0.000,0.000,0.000
1640068843824199936,"2021-12-21,06:40:43",10.1.1.9,317,-0.480,-0.480,-0.480,0.000,0.000,0.000
1640068843862472960,"2021-12-21,06:40:43",10.1.1.9,0.3553900718688965,-0.480,-0.480,-0.480,0.000,0.000,0.000
1640068844213370112,"2021-12-21,06:40:44",10.1.1.9,349,-0.470,-0.470,-0.470,0.000,0.000,0.000
1640068844266855936,"2021-12-21,06:40:44",10.1.1.9,0.4027559757232666,-0.470,-0.470,-0.470,0.000,0.000,0.000
1640068844592664064,"2021-12-21,06:40:44",10.1.1.9,323,-0.460,-0.460,-0.460,0.000,0.000,0.000
1640068844691798016,"2021-12-21,06:40:44",10.1.1.9,0.422882080078125,-0.460,-0.460,-0.460,0.000,0.000,0.000
1640068845081970944,"2021-12-21,06:40:45",10.1.1.9,388,-0.450,-0.450,-0.450,0.000,0.000,0.000
1640068845171606016,"2021-12-21,06:40:45",10.1.1.9,0.4783329963684082,-0.450,-0.450,-0.450,0.000,0.000,0.000
1640068845491937024,"2021-12-21,06:40:45",10.1.1.9,318,-0.440,-0.440,-0.440,0.000,0.000,0.000
1640068845540471040,"2021-12-21,06:40:45",10.1.1.9,0.36733508110046387,-0.440,-0.440,-0.440,0.000,0.000,0.000
1640068845863398144,"2021-12-21,06:40:45",10.1.1.9,320,-0.430,-0.430,-0.430,0.000,0.000,0.000
1640068845921353984,"2021-12-21,06:40:45",10.1.1.9,0.37900304794311523,-0.430,-0.430,-0.430,0.000,0.000,0.000
1640068846299849984,"2021-12-21,06:40:46",10.1.1.9,372,-0.420,-0.420,-0.420,0.000,0.000,0.000
1640068846335535104,"2021-12-21,06:40:46",10.1.1.9,0.40822291374206543,-0.420,-0.420,-0.420,0.000,0.000,0.000
1640068846700040960,"2021-12-21,06:40:46",10.1.1.9,362,-0.410,-0.410,-0.410,0.000,0.000,0.000
1640068846767880960,"2021-12-21,06:40:46",10.1.1.9,0.4309859275817871,-0.410,-0.410,-0.410,0.000,0.000,0.000
1640068847129659904,"2021-12-21,06:40:47",10.1.1.9,360,-0.400,-0.400,-0.400,0.000,0.000,0.000
1640068847156050944,"2021-12-21,06:40:47",10.1.1.9,0.3867659568786621,-0.400,-0.400,-0.400,0.000,0.000,0.000
1640068847532032000,"2021-12-21,06:40:47",10.1.1.9,343,-0.390,-0.390,-0.390,0.000,0.000,0.000
1640068847593504000,"2021-12-21,06:40:47",10.1.1.9,0.40508294105529785,-0.390,-0.390,-0.390,0.000,0.000,0.000
1640068847953954048,"2021-12-21,06:40:47",10.1.1.9,357,-0.380,-0.380,-0.380,0.000,0.000,0.000
1640068847984869120,"2021-12-21,06:40:47",10.1.1.9,0.38904809951782227,-0.380,-0.380,-0.380,0.000,0.000,0.000
1640068848296099072,"2021-12-21,06:40:48",10.1.1.9,308,-0.370,-0.370,-0.370,0.000,0.000,0.000
1640068848336702208,"2021-12-21,06:40:48",10.1.1.9,0.3494710922241211,-0.370,-0.370,-0.370,0.000,0.000,0.000
1640068848687730944,"2021-12-21,06:40:48",10.1.1.9,346,-0.360,-0.360,-0.360,0.000,0.000,0.000
1640068848733489920,"2021-12-21,06:40:48",10.1.1.9,0.39214611053466797,-0.360,-0.360,-0.360,0.000,0.000,0.000
1640068849069506816,"2021-12-21,06:40:49",10.1.1.9,331,-0.350,-0.350,-0.350,0.000,0.000,0.000
1640068849083585024,"2021-12-21,06:40:49",10.1.1.9,0.3456888198852539,-0.350,-0.350,-0.350,0.000,0.000,0.000
1640068849450627072,"2021-12-21,06:40:49",10.1.1.9,364,-0.340,-0.340,-0.340,0.000,0.000,0.000
1640068849533096192,"2021-12-21,06:40:49",10.1.1.9,0.4465758800506592,-0.340,-0.340,-0.340,0.000,0.000,0.000
1640068849881551872,"2021-12-21,06:40:49",10.1.1.9,346,-0.330,-0.330,-0.330,0.000,0.000,0.000
1640068849924247040,"2021-12-21,06:40:49",10.1.1.9,0.3890089988708496,-0.330,-0.330,-0.330,0.000,0.000,0.000
1640068850273124096,"2021-12-21,06:40:50",10.1.1.9,347,-0.320,-0.320,-0.320,0.000,0.000,0.000
1640068850326003968,"2021-12-21,06:40:50",10.1.1.9,0.4001588821411133,-0.320,-0.320,-0.320,0.000,0.000,0.000
1640068850744503040,"2021-12-21,06:40:50",10.1.1.9,415,-0.310,-0.310,-0.310,0.000,0.000,0.000
1640068850772173824,"2021-12-21,06:40:50",10.1.1.9,0.4432840347290039,-0.310,-0.310,-0.310,0.000,0.000,0.000
1640068851127984128,"2021-12-21,06:40:51",10.1.1.9,351,-0.300,-0.300,-0.300,0.000,0.000,0.000
1640068851180788992,"2021-12-21,06:40:51",10.1.1.9,0.40480518341064453,-0.300,-0.300,-0.300,0.000,0.000,0.000
1640068851524523008,"2021-12-21,06:40:51",10.1.1.9,341,-0.290,-0.290,-0.290,0.000,0.000,0.000
1640068851579386112,"2021-12-21,06:40:51",10.1.1.9,0.39678287506103516,-0.290,-0.290,-0.290,0.000,0.000,0.000
1640068851948219904,"2021-12-21,06:40:51",10.1.1.9,366,-0.280,-0.280,-0.280,0.000,0.000,0.000
1640068852041613056,"2021-12-21,06:40:52",10.1.1.9,0.46030497550964355,-0.280,-0.280,-0.280,0.000,0.000,0.000
1640068852438966016,"2021-12-21,06:40:52",10.1.1.9,389,-0.270,-0.270,-0.270,0.000,0.000,0.000
1640068852455527936,"2021-12-21,06:40:52",10.1.1.9,0.4064598083496094,-0.270,-0.270,-0.270,0.000,0.000,0.000
1640068852824513792,"2021-12-21,06:40:52",10.1.1.9,367,-0.260,-0.260,-0.260,0.000,0.000,0.000
1640068852871203072,"2021-12-21,06:40:52",10.1.1.9,0.4140329360961914,-0.260,-0.260,-0.260,0.000,0.000,0.000
1640068853280076032,"2021-12-21,06:40:53",10.1.1.9,390,-0.250,-0.250,-0.250,0.000,0.000,0.000
1640068853331268096,"2021-12-21,06:40:53",10.1.1.9,0.4421229362487793,-0.250,-0.250,-0.250,0.000,0.000,0.000
1640068853666904832,"2021-12-21,06:40:53",10.1.1.9,333,-0.240,-0.240,-0.240,0.000,0.000,0.000
1640068853689093120,"2021-12-21,06:40:53",10.1.1.9,0.35610008239746094,-0.240,-0.240,-0.240,0.000,0.000,0.000
1640068854021658880,"2021-12-21,06:40:54",10.1.1.9,330,-0.230,-0.230,-0.230,0.000,0.000,0.000
1640068854052793856,"2021-12-21,06:40:54",10.1.1.9,0.36167097091674805,-0.230,-0.230,-0.230,0.000,0.000,0.000
1640068854411881984,"2021-12-21,06:40:54",10.1.1.9,357,-0.220,-0.220,-0.220,0.000,0.000,0.000
1640068854465647104,"2021-12-21,06:40:54",10.1.1.9,0.4111900329589844,-0.220,-0.220,-0.220,0.000,0.000,0.000
1640068854851433984,"2021-12-21,06:40:54",10.1.1.9,384,-0.210,-0.210,-0.210,0.000,0.000,0.000
1640068854925050112,"2021-12-21,06:40:54",10.1.1.9,0.45773887634277344,-0.210,-0.210,-0.210,0.000,0.000,0.000
1640068855355202816,"2021-12-21,06:40:55",10.1.1.9,428,-0.200,-0.200,-0.200,0.000,0.000,0.000
1640068855368726016,"2021-12-21,06:40:55",10.1.1.9,0.4419689178466797,-0.200,-0.200,-0.200,0.000,0.000,0.000
1640068855701915904,"2021-12-21,06:40:55",10.1.1.9,325,-0.190,-0.190,-0.190,0.000,0.000,0.000
1640068855791016192,"2021-12-21,06:40:55",10.1.1.9,0.414747953414917,-0.190,-0.190,-0.190,0.000,0.000,0.000
1640068856192744960,"2021-12-21,06:40:56",10.1.1.9,396,-0.180,-0.180,-0.180,0.000,0.000,0.000
1640068856213971968,"2021-12-21,06:40:56",10.1.1.9,0.41766810417175293,-0.180,-0.180,-0.180,0.000,0.000,0.000
1640068856583565824,"2021-12-21,06:40:56",10.1.1.9,368,-0.170,-0.170,-0.170,0.000,0.000,0.000
1640068856648904192,"2021-12-21,06:40:56",10.1.1.9,0.43351101875305176,-0.170,-0.170,-0.170,0.000,0.000,0.000
1640068857003081984,"2021-12-21,06:40:57",10.1.1.9,349,-0.160,-0.160,-0.160,0.000,0.000,0.000
1640068857068247040,"2021-12-21,06:40:57",10.1.1.9,0.4118189811706543,-0.160,-0.160,-0.160,0.000,0.000,0.000
1640068857413647872,"2021-12-21,06:40:57",10.1.1.9,343,-0.150,-0.150,-0.150,0.000,0.000,0.000
1640068857468175872,"2021-12-21,06:40:57",10.1.1.9,0.395888090133667,-0.150,-0.150,-0.150,0.000,0.000,0.000
1640068857833309952,"2021-12-21,06:40:57",10.1.1.9,361,-0.140,-0.140,-0.140,0.000,0.000,0.000
1640068857940339200,"2021-12-21,06:40:57",10.1.1.9,0.4687650203704834,-0.140,-0.140,-0.140,0.000,0.000,0.000
1640068858316323072,"2021-12-21,06:40:58",10.1.1.9,374,-0.130,-0.130,-0.130,0.000,0.000,0.000
1640068858361089024,"2021-12-21,06:40:58",10.1.1.9,0.41908907890319824,-0.130,-0.130,-0.130,0.000,0.000,0.000
1640068858736530176,"2021-12-21,06:40:58",10.1.1.9,369,-0.120,-0.120,-0.120,0.000,0.000,0.000
1640068858757958912,"2021-12-21,06:40:58",10.1.1.9,0.3881540298461914,-0.120,-0.120,-0.120,0.000,0.000,0.000
1640068859112791040,"2021-12-21,06:40:59",10.1.1.9,352,-0.110,-0.110,-0.110,0.000,0.000,0.000
1640068859160182016,"2021-12-21,06:40:59",10.1.1.9,0.39965295791625977,-0.110,-0.110,-0.110,0.000,0.000,0.000
1640068859492957952,"2021-12-21,06:40:59",10.1.1.9,329,-0.100,-0.100,-0.100,0.000,0.000,0.000
1640068859573633024,"2021-12-21,06:40:59",10.1.1.9,0.4104490280151367,-0.100,-0.100,-0.100,0.000,0.000,0.000
1640068859912851968,"2021-12-21,06:40:59",10.1.1.9,337,-0.090,-0.090,-0.090,0.000,0.000,0.000
1640068859951064064,"2021-12-21,06:40:59",10.1.1.9,0.3760859966278076,-0.090,-0.090,-0.090,0.000,0.000,0.000
1640068860282565120,"2021-12-21,06:41:00",10.1.1.9,327,-0.080,-0.080,-0.080,0.000,0.000,0.000
1640068860347179008,"2021-12-21,06:41:00",10.1.1.9,0.3920271396636963,-0.080,-0.080,-0.080,0.000,0.000,0.000
1640068860703469056,"2021-12-21,06:41:00",10.1.1.9,347,-0.070,-0.070,-0.070,0.000,0.000,0.000
1640068860778803200,"2021-12-21,06:41:00",10.1.1.9,0.42249107360839844,-0.070,-0.070,-0.070,0.000,0.000,0.000
1640068861182123008,"2021-12-21,06:41:01",10.1.1.9,401,-0.060,-0.060,-0.060,0.000,0.000,0.000
1640068861234596096,"2021-12-21,06:41:01",10.1.1.9,0.45431995391845703,-0.060,-0.060,-0.060,0.000,0.000,0.000
1640068861582118912,"2021-12-21,06:41:01",10.1.1.9,345,-0.050,-0.050,-0.050,0.000,0.000,0.000
1640068861625266944,"2021-12-21,06:41:01",10.1.1.9,0.3892478942871094,-0.050,-0.050,-0.050,0.000,0.000,0.000
1640068861941657088,"2021-12-21,06:41:01",10.1.1.9,314,-0.040,-0.040,-0.040,0.000,0.000,0.000
1640068861974319104,"2021-12-21,06:41:01",10.1.1.9,0.347398042678833,-0.040,-0.040,-0.040,0.000,0.000,0.000
1640068862341453056,"2021-12-21,06:41:02",10.1.1.9,365,-0.030,-0.030,-0.030,0.000,0.000,0.000
1640068862389393152,"2021-12-21,06:41:02",10.1.1.9,0.41379284858703613,-0.030,-0.030,-0.030,0.000,0.000,0.000
1640068862771995136,"2021-12-21,06:41:02",10.1.1.9,380,-0.020,-0.020,-0.020,0.000,0.000,0.000
1640068862812936960,"2021-12-21,06:41:02",10.1.1.9,0.4211101531982422,-0.020,-0.020,-0.020,0.000,0.000,0.000
1640068863171195904,"2021-12-21,06:41:03",10.1.1.9,355,-0.010,-0.010,-0.010,0.000,0.000,0.000
1640068863231520768,"2021-12-21,06:41:03",10.1.1.9,0.4158167839050293,-0.010,-0.010,-0.010,0.000,0.000,0.000
1640068863599961088,"2021-12-21,06:41:03",10.1.1.9,366,0.000,0.000,0.000,0.000,0.000,0.000
1640068863692545024,"2021-12-21,06:41:03",10.1.1.9,0.45877814292907715,0.000,0.000,0.000,0.000,0.000,0.000
1640068864040077824,"2021-12-21,06:41:04",10.1.1.9,334,-0.010,-0.010,-0.010,0.000,0.000,0.000
1640068864131064832,"2021-12-21,06:41:04",10.1.1.9,0.42613983154296875,-0.010,-0.010,-0.010,0.000,0.000,0.000
1640068864479625984,"2021-12-21,06:41:04",10.1.1.9,346,-0.020,-0.020,-0.020,0.000,0.000,0.000
1640068864521560064,"2021-12-21,06:41:04",10.1.1.9,0.3887190818786621,-0.020,-0.020,-0.020,0.000,0.000,0.000
1640068864881551872,"2021-12-21,06:41:04",10.1.1.9,358,-0.030,-0.030,-0.030,0.000,0.000,0.000
1640068864906212096,"2021-12-21,06:41:04",10.1.1.9,0.38291120529174805,-0.030,-0.030,-0.030,0.000,0.000,0.000
1640068865319795968,"2021-12-21,06:41:05",10.1.1.9,396,-0.040,-0.040,-0.040,0.000,0.000,0.000
1640068865366120192,"2021-12-21,06:41:05",10.1.1.9,0.4427659511566162,-0.040,-0.040,-0.040,0.000,0.000,0.000
1640068865757982976,"2021-12-21,06:41:05",10.1.1.9,388,-0.050,-0.050,-0.050,0.000,0.000,0.000
1640068865852286976,"2021-12-21,06:41:05",10.1.1.9,0.4833829402923584,-0.050,-0.050,-0.050,0.000,0.000,0.000
1640068866236953088,"2021-12-21,06:41:06",10.1.1.9,382,-0.060,-0.060,-0.060,0.000,0.000,0.000
1640068866351587072,"2021-12-21,06:41:06",10.1.1.9,0.49703192710876465,-0.060,-0.060,-0.060,0.000,0.000,0.000
1640068866717630976,"2021-12-21,06:41:06",10.1.1.9,362,-0.070,-0.070,-0.070,0.000,0.000,0.000
1640068866795984896,"2021-12-21,06:41:06",10.1.1.9,0.4410989284515381,-0.070,-0.070,-0.070,0.000,0.000,0.000
1640068867276902912,"2021-12-21,06:41:07",10.1.1.9,467,-0.080,-0.080,-0.080,0.000,0.000,0.000
1640068867354942976,"2021-12-21,06:41:07",10.1.1.9,0.5459630489349365,-0.080,-0.080,-0.080,0.000,0.000,0.000
1640068867718487040,"2021-12-21,06:41:07",10.1.1.9,361,-0.090,-0.090,-0.090,0.000,0.000,0.000
1640068867793101056,"2021-12-21,06:41:07",10.1.1.9,0.4288289546966553,-0.090,-0.090,-0.090,0.000,0.000,0.000
1640068868126091008,"2021-12-21,06:41:08",10.1.1.9,327,-0.100,-0.100,-0.100,0.000,0.000,0.000
1640068868202662912,"2021-12-21,06:41:08",10.1.1.9,0.4040849208831787,-0.100,-0.100,-0.100,0.000,0.000,0.000
1640068868625233920,"2021-12-21,06:41:08",10.1.1.9,405,-0.110,-0.110,-0.110,0.000,0.000,0.000
1640068868671170048,"2021-12-21,06:41:08",10.1.1.9,0.4513428211212158,-0.110,-0.110,-0.110,0.000,0.000,0.000
1640068869014838016,"2021-12-21,06:41:09",10.1.1.9,341,-0.120,-0.120,-0.120,0.000,0.000,0.000
1640068869069317120,"2021-12-21,06:41:09",10.1.1.9,0.39614105224609375,-0.120,-0.120,-0.120,0.000,0.000,0.000
1640068869473999872,"2021-12-21,06:41:09",10.1.1.9,393,-0.130,-0.130,-0.130,0.000,0.000,0.000
1640068869516062976,"2021-12-21,06:41:09",10.1.1.9,0.4353208541870117,-0.130,-0.130,-0.130,0.000,0.000,0.000
1640068869897511936,"2021-12-21,06:41:09",10.1.1.9,378,-0.140,-0.140,-0.140,0.000,0.000,0.000
1640068869982980096,"2021-12-21,06:41:09",10.1.1.9,0.46411609649658203,-0.140,-0.140,-0.140,0.000,0.000,0.000
1640068870302450944,"2021-12-21,06:41:10",10.1.1.9,317,-0.150,-0.150,-0.150,0.000,0.000,0.000
1640068870341164032,"2021-12-21,06:41:10",10.1.1.9,0.35643696784973145,-0.150,-0.150,-0.150,0.000,0.000,0.000
1640068870666095872,"2021-12-21,06:41:10",10.1.1.9,322,-0.160,-0.160,-0.160,0.000,0.000,0.000
1640068870710236160,"2021-12-21,06:41:10",10.1.1.9,0.3667759895324707,-0.160,-0.160,-0.160,0.000,0.000,0.000
1640068871061181184,"2021-12-21,06:41:11",10.1.1.9,348,-0.170,-0.170,-0.170,0.000,0.000,0.000
1640068871082691840,"2021-12-21,06:41:11",10.1.1.9,0.37055397033691406,-0.170,-0.170,-0.170,0.000,0.000,0.000
1640068871411612160,"2021-12-21,06:41:11",10.1.1.9,323,-0.180,-0.180,-0.180,0.000,0.000,0.000
1640068871496637184,"2021-12-21,06:41:11",10.1.1.9,0.40865087509155273,-0.180,-0.180,-0.180,0.000,0.000,0.000
1640068871880300032,"2021-12-21,06:41:11",10.1.1.9,381,-0.190,-0.190,-0.190,0.000,0.000,0.000
1640068871932365824,"2021-12-21,06:41:11",10.1.1.9,0.4338669776916504,-0.190,-0.190,-0.190,0.000,0.000,0.000
1640068872320323840,"2021-12-21,06:41:12",10.1.1.9,386,-0.200,-0.200,-0.200,0.000,0.000,0.000
1640068872415632896,"2021-12-21,06:41:12",10.1.1.9,0.4816880226135254,-0.200,-0.200,-0.200,0.000,0.000,0.000
1640068872768999168,"2021-12-21,06:41:12",10.1.1.9,349,-0.210,-0.210,-0.210,0.000,0.000,0.000
1640068872800473856,"2021-12-21,06:41:12",10.1.1.9,0.38102102279663086,-0.210,-0.210,-0.210,0.000,0.000,0.000
1640068873137651968,"2021-12-21,06:41:13",10.1.1.9,333,-0.220,-0.220,-0.220,0.000,0.000,0.000
1640068873188710912,"2021-12-21,06:41:13",10.1.1.9,0.38413500785827637,-0.220,-0.220,-0.220,0.000,0.000,0.000
1640068873539108096,"2021-12-21,06:41:13",10.1.1.9,346,-0.230,-0.230,-0.230,0.000,0.000,0.000
1640068873564716032,"2021-12-21,06:41:13",10.1.1.9,0.3726310729980469,-0.230,-0.230,-0.230,0.000,0.000,0.000
1640068873939441920,"2021-12-21,06:41:13",10.1.1.9,370,-0.240,-0.240,-0.240,0.000,0.000,0.000
1640068873992664064,"2021-12-21,06:41:13",10.1.1.9,0.4244699478149414,-0.240,-0.240,-0.240,0.000,0.000,0.000
1640068874306405120,"2021-12-21,06:41:14",10.1.1.9,310,-0.250,-0.250,-0.250,0.000,0.000,0.000
1640068874421440000,"2021-12-21,06:41:14",10.1.1.9,0.4255070686340332,-0.250,-0.250,-0.250,0.000,0.000,0.000
1640068874766014976,"2021-12-21,06:41:14",10.1.1.9,341,-0.260,-0.260,-0.260,0.000,0.000,0.000
1640068874850626048,"2021-12-21,06:41:14",10.1.1.9,0.42643189430236816,-0.260,-0.260,-0.260,0.000,0.000,0.000
1640068875224595968,"2021-12-21,06:41:15",10.1.1.9,368,-0.270,-0.270,-0.270,0.000,0.000,0.000
1640068875291908864,"2021-12-21,06:41:15",10.1.1.9,0.43396902084350586,-0.270,-0.270,-0.270,0.000,0.000,0.000
1640068875680568064,"2021-12-21,06:41:15",10.1.1.9,381,-0.280,-0.280,-0.280,0.000,0.000,0.000
1640068875749609984,"2021-12-21,06:41:15",10.1.1.9,0.4493560791015625,-0.280,-0.280,-0.280,0.000,0.000,0.000
1640068876135636992,"2021-12-21,06:41:16",10.1.1.9,380,-0.290,-0.290,-0.290,0.000,0.000,0.000
1640068876178639872,"2021-12-21,06:41:16",10.1.1.9,0.4244809150695801,-0.290,-0.290,-0.290,0.000,0.000,0.000
1640068876543312128,"2021-12-21,06:41:16",10.1.1.9,355,-0.300,-0.300,-0.300,0.000,0.000,0.000
1640068876624040960,"2021-12-21,06:41:16",10.1.1.9,0.4365060329437256,-0.300,-0.300,-0.300,0.000,0.000,0.000
1640068877063139840,"2021-12-21,06:41:17",10.1.1.9,426,-0.310,-0.310,-0.310,0.000,0.000,0.000
1640068877137948160,"2021-12-21,06:41:17",10.1.1.9,0.5014989376068115,-0.310,-0.310,-0.310,0.000,0.000,0.000
1640068877522002944,"2021-12-21,06:41:17",10.1.1.9,373,-0.320,-0.320,-0.320,0.000,0.000,0.000
1640068877601825024,"2021-12-21,06:41:17",10.1.1.9,0.4535191059112549,-0.320,-0.320,-0.320,0.000,0.000,0.000
1640068877980887808,"2021-12-21,06:41:17",10.1.1.9,376,-0.330,-0.330,-0.330,0.000,0.000,0.000
1640068878041410048,"2021-12-21,06:41:18",10.1.1.9,0.4370419979095459,-0.330,-0.330,-0.330,0.000,0.000,0.000
1640068878399485184,"2021-12-21,06:41:18",10.1.1.9,356,-0.340,-0.340,-0.340,0.000,0.000,0.000
1640068878445811968,"2021-12-21,06:41:18",10.1.1.9,0.40286684036254883,-0.340,-0.340,-0.340,0.000,0.000,0.000
1640068878918387968,"2021-12-21,06:41:18",10.1.1.9,468,-0.350,-0.350,-0.350,0.000,0.000,0.000
1640068879000286976,"2021-12-21,06:41:19",10.1.1.9,0.5507071018218994,-0.350,-0.350,-0.350,0.000,0.000,0.000
1640068879362458112,"2021-12-21,06:41:19",10.1.1.9,359,-0.360,-0.360,-0.360,0.000,0.000,0.000
1640068879459781888,"2021-12-21,06:41:19",10.1.1.9,0.45747900009155273,-0.360,-0.360,-0.360,0.000,0.000,0.000
1640068879823976960,"2021-12-21,06:41:19",10.1.1.9,359,-0.370,-0.370,-0.370,0.000,0.000,0.000
1640068879915885824,"2021-12-21,06:41:19",10.1.1.9,0.45117807388305664,-0.370,-0.370,-0.370,0.000,0.000,0.000
1640068880246094848,"2021-12-21,06:41:20",10.1.1.9,328,-0.380,-0.380,-0.380,0.000,0.000,0.000
1640068880408572928,"2021-12-21,06:41:20",10.1.1.9,0.49095702171325684,-0.380,-0.380,-0.380,0.000,0.000,0.000
1640068880819252992,"2021-12-21,06:41:20",10.1.1.9,407,-0.390,-0.390,-0.390,0.000,0.000,0.000
1640068880909921792,"2021-12-21,06:41:20",10.1.1.9,0.497999906539917,-0.390,-0.390,-0.390,0.000,0.000,0.000
1640068881363393024,"2021-12-21,06:41:21",10.1.1.9,435,-0.400,-0.400,-0.400,0.000,0.000,0.000
1640068881419138816,"2021-12-21,06:41:21",10.1.1.9,0.4910430908203125,-0.400,-0.400,-0.400,0.000,0.000,0.000
1640068881893445888,"2021-12-21,06:41:21",10.1.1.9,464,-0.410,-0.410,-0.410,0.000,0.000,0.000
1640068881980783872,"2021-12-21,06:41:21",10.1.1.9,0.5519850254058838,-0.410,-0.410,-0.410,0.000,0.000,0.000
1640068882316008960,"2021-12-21,06:41:22",10.1.1.9,332,-0.420,-0.420,-0.420,0.000,0.000,0.000
1640068882381329920,"2021-12-21,06:41:22",10.1.1.9,0.398043155670166,-0.420,-0.420,-0.420,0.000,0.000,0.000
1640068882766915072,"2021-12-21,06:41:22",10.1.1.9,382,-0.430,-0.430,-0.430,0.000,0.000,0.000
1640068882802311936,"2021-12-21,06:41:22",10.1.1.9,0.4179189205169678,-0.430,-0.430,-0.430,0.000,0.000,0.000
1640068883175019008,"2021-12-21,06:41:23",10.1.1.9,370,-0.440,-0.440,-0.440,0.000,0.000,0.000
1640068883185117952,"2021-12-21,06:41:23",10.1.1.9,0.38093996047973633,-0.440,-0.440,-0.440,0.000,0.000,0.000
1640068883498375936,"2021-12-21,06:41:23",10.1.1.9,311,-0.450,-0.450,-0.450,0.000,0.000,0.000
1640068883552226048,"2021-12-21,06:41:23",10.1.1.9,0.3651890754699707,-0.450,-0.450,-0.450,0.000,0.000,0.000
1640068883907134976,"2021-12-21,06:41:23",10.1.1.9,339,-0.460,-0.460,-0.460,0.000,0.000,0.000
1640068883967425024,"2021-12-21,06:41:23",10.1.1.9,0.41284704208374023,-0.460,-0.460,-0.460,0.000,0.000,0.000
1640068884340502016,"2021-12-21,06:41:24",10.1.1.9,356,-0.470,-0.470,-0.470,0.000,0.000,0.000
1640068884444142080,"2021-12-21,06:41:24",10.1.1.9,0.45983099937438965,-0.470,-0.470,-0.470,0.000,0.000,0.000
1640068884822279936,"2021-12-21,06:41:24",10.1.1.9,375,-0.480,-0.480,-0.480,0.000,0.000,0.000
1640068884876101120,"2021-12-21,06:41:24",10.1.1.9,0.42980194091796875,-0.480,-0.480,-0.480,0.000,0.000,0.000
1640068885241905920,"2021-12-21,06:41:25",10.1.1.9,364,-0.490,-0.490,-0.490,0.000,0.000,0.000
1640068885325054976,"2021-12-21,06:41:25",10.1.1.9,0.4472649097442627,-0.490,-0.490,-0.490,0.000,0.000,0.000
1640068885692420864,"2021-12-21,06:41:25",10.1.1.9,363,-0.480,-0.480,-0.480,0.000,0.000,0.000
1640068885773605120,"2021-12-21,06:41:25",10.1.1.9,0.4450860023498535,-0.480,-0.480,-0.480,0.000,0.000,0.000
1640068886123228160,"2021-12-21,06:41:26",10.1.1.9,342,-0.470,-0.470,-0.470,0.000,0.000,0.000
1640068886234679040,"2021-12-21,06:41:26",10.1.1.9,0.45426106452941895,-0.470,-0.470,-0.470,0.000,0.000,0.000
1640068886624962048,"2021-12-21,06:41:26",10.1.1.9,385,-0.460,-0.460,-0.460,0.000,0.000,0.000
1640068886715372032,"2021-12-21,06:41:26",10.1.1.9,0.4768240451812744,-0.460,-0.460,-0.460,0.000,0.000,0.000
1640068887116642048,"2021-12-21,06:41:27",10.1.1.9,396,-0.450,-0.450,-0.450,0.000,0.000,0.000
1640068887195574016,"2021-12-21,06:41:27",10.1.1.9,0.4767649173736572,-0.450,-0.450,-0.450,0.000,0.000,0.000
1640068887565291008,"2021-12-21,06:41:27",10.1.1.9,367,-0.440,-0.440,-0.440,0.000,0.000,0.000
1640068887657370112,"2021-12-21,06:41:27",10.1.1.9,0.45975494384765625,-0.440,-0.440,-0.440,0.000,0.000,0.000
1640068888015878912,"2021-12-21,06:41:28",10.1.1.9,354,-0.430,-0.430,-0.430,0.000,0.000,0.000
1640068888048968192,"2021-12-21,06:41:28",10.1.1.9,0.38762688636779785,-0.430,-0.430,-0.430,0.000,0.000,0.000
1640068888415838976,"2021-12-21,06:41:28",10.1.1.9,355,-0.420,-0.420,-0.420,0.000,0.000,0.000
1640068888492126976,"2021-12-21,06:41:28",10.1.1.9,0.43232297897338867,-0.420,-0.420,-0.420,0.000,0.000,0.000
1640068888916392960,"2021-12-21,06:41:28",10.1.1.9,417,-0.410,-0.410,-0.410,0.000,0.000,0.000
1640068888980393984,"2021-12-21,06:41:28",10.1.1.9,0.4816858768463135,-0.410,-0.410,-0.410,0.000,0.000,0.000
1640068889326978816,"2021-12-21,06:41:29",10.1.1.9,343,-0.400,-0.400,-0.400,0.000,0.000,0.000
1640068889384109056,"2021-12-21,06:41:29",10.1.1.9,0.4008810520172119,-0.400,-0.400,-0.400,0.000,0.000,0.000
1640068889777296896,"2021-12-21,06:41:29",10.1.1.9,391,-0.390,-0.390,-0.390,0.000,0.000,0.000
1640068889861558016,"2021-12-21,06:41:29",10.1.1.9,0.4754018783569336,-0.390,-0.390,-0.390,0.000,0.000,0.000
1640068890278175232,"2021-12-21,06:41:30",10.1.1.9,414,-0.380,-0.380,-0.380,0.000,0.000,0.000
1640068890332397824,"2021-12-21,06:41:30",10.1.1.9,0.4691329002380371,-0.380,-0.380,-0.380,0.000,0.000,0.000
1640068890717318912,"2021-12-21,06:41:30",10.1.1.9,380,-0.370,-0.370,-0.370,0.000,0.000,0.000
1640068890783410944,"2021-12-21,06:41:30",10.1.1.9,0.44703102111816406,-0.370,-0.370,-0.370,0.000,0.000,0.000
1640068891150477056,"2021-12-21,06:41:31",10.1.1.9,362,-0.360,-0.360,-0.360,0.000,0.000,0.000
1640068891263470848,"2021-12-21,06:41:31",10.1.1.9,0.4759821891784668,-0.360,-0.360,-0.360,0.000,0.000,0.000
1640068891656476928,"2021-12-21,06:41:31",10.1.1.9,381,-0.350,-0.350,-0.350,0.000,0.000,0.000
1640068891753885952,"2021-12-21,06:41:31",10.1.1.9,0.47919797897338867,-0.350,-0.350,-0.350,0.000,0.000,0.000
1640068892111979008,"2021-12-21,06:41:32",10.1.1.9,355,-0.340,-0.340,-0.340,0.000,0.000,0.000
1640068892194999808,"2021-12-21,06:41:32",10.1.1.9,0.43899989128112793,-0.340,-0.340,-0.340,0.000,0.000,0.000
1640068892546391040,"2021-12-21,06:41:32",10.1.1.9,349,-0.330,-0.330,-0.330,0.000,0.000,0.000
1640068892624357888,"2021-12-21,06:41:32",10.1.1.9,0.42707395553588867,-0.330,-0.330,-0.330,0.000,0.000,0.000
1640068893026088960,"2021-12-21,06:41:33",10.1.1.9,399,-0.320,-0.320,-0.320,0.000,0.000,0.000
1640068893113539072,"2021-12-21,06:41:33",10.1.1.9,0.48754096031188965,-0.320,-0.320,-0.320,0.000,0.000,0.000
1640068893436291840,"2021-12-21,06:41:33",10.1.1.9,319,-0.310,-0.310,-0.310,0.000,0.000,0.000
1640068893506222080,"2021-12-21,06:41:33",10.1.1.9,0.3897690773010254,-0.310,-0.310,-0.310,0.000,0.000,0.000
1640068893865947904,"2021-12-21,06:41:33",10.1.1.9,345,-0.300,-0.300,-0.300,0.000,0.000,0.000
1640068893910552064,"2021-12-21,06:41:33",10.1.1.9,0.3904459476470947,-0.300,-0.300,-0.300,0.000,0.000,0.000
1640068894264955136,"2021-12-21,06:41:34",10.1.1.9,352,-0.290,-0.290,-0.290,0.000,0.000,0.000
1640068894353281024,"2021-12-21,06:41:34",10.1.1.9,0.4408299922943115,-0.290,-0.290,-0.290,0.000,0.000,0.000
1640068894688898048,"2021-12-21,06:41:34",10.1.1.9,332,-0.280,-0.280,-0.280,0.000,0.000,0.000
1640068894762295040,"2021-12-21,06:41:34",10.1.1.9,0.4061160087585449,-0.280,-0.280,-0.280,0.000,0.000,0.000
1640068895124349184,"2021-12-21,06:41:35",10.1.1.9,359,-0.270,-0.270,-0.270,0.000,0.000,0.000
1640068895182347008,"2021-12-21,06:41:35",10.1.1.9,0.41780996322631836,-0.270,-0.270,-0.270,0.000,0.000,0.000
1640068895488149760,"2021-12-21,06:41:35",10.1.1.9,303,-0.260,-0.260,-0.260,0.000,0.000,0.000
1640068895553921024,"2021-12-21,06:41:35",10.1.1.9,0.3696157932281494,-0.260,-0.260,-0.260,0.000,0.000,0.000
1640068895933451008,"2021-12-21,06:41:35",10.1.1.9,376,-0.250,-0.250,-0.250,0.000,0.000,0.000
1640068896021140992,"2021-12-21,06:41:36",10.1.1.9,0.4644942283630371,-0.250,-0.250,-0.250,0.000,0.000,0.000
1640068896353990144,"2021-12-21,06:41:36",10.1.1.9,330,-0.240,-0.240,-0.240,0.000,0.000,0.000
1640068896448243968,"2021-12-21,06:41:36",10.1.1.9,0.4251410961151123,-0.240,-0.240,-0.240,0.000,0.000,0.000
1640068896795481856,"2021-12-21,06:41:36",10.1.1.9,338,-0.230,-0.230,-0.230,0.000,0.000,0.000
1640068896863163904,"2021-12-21,06:41:36",10.1.1.9,0.40610313415527344,-0.230,-0.230,-0.230,0.000,0.000,0.000
1640068897333225984,"2021-12-21,06:41:37",10.1.1.9,467,-0.220,-0.220,-0.220,0.000,0.000,0.000
1640068897422092800,"2021-12-21,06:41:37",10.1.1.9,0.556610107421875,-0.220,-0.220,-0.220,0.000,0.000,0.000
1640068897833218048,"2021-12-21,06:41:37",10.1.1.9,392,-0.210,-0.210,-0.210,0.000,0.000,0.000
1640068897876472832,"2021-12-21,06:41:37",10.1.1.9,0.43585801124572754,-0.210,-0.210,-0.210,0.000,0.000,0.000
1640068898283479040,"2021-12-21,06:41:38",10.1.1.9,396,-0.200,-0.200,-0.200,0.000,0.000,0.000
1640068898360802048,"2021-12-21,06:41:38",10.1.1.9,0.4739570617675781,-0.200,-0.200,-0.200,0.000,0.000,0.000
1640068898801132800,"2021-12-21,06:41:38",10.1.1.9,437,-0.190,-0.190,-0.190,0.000,0.000,0.000
1640068898837064960,"2021-12-21,06:41:38",10.1.1.9,0.4736809730529785,-0.190,-0.190,-0.190,0.000,0.000,0.000
1640068899200349952,"2021-12-21,06:41:39",10.1.1.9,357,-0.180,-0.180,-0.180,0.000,0.000,0.000
1640068899255693824,"2021-12-21,06:41:39",10.1.1.9,0.4080948829650879,-0.180,-0.180,-0.180,0.000,0.000,0.000
1640068899660851968,"2021-12-21,06:41:39",10.1.1.9,396,-0.170,-0.170,-0.170,0.000,0.000,0.000
1640068899696704000,"2021-12-21,06:41:39",10.1.1.9,0.4324779510498047,-0.170,-0.170,-0.170,0.000,0.000,0.000
1640068900010010112,"2021-12-21,06:41:40",10.1.1.9,311,-0.160,-0.160,-0.160,0.000,0.000,0.000
1640068900099927040,"2021-12-21,06:41:40",10.1.1.9,0.4019582271575928,-0.160,-0.160,-0.160,0.000,0.000,0.000
1640068900438235904,"2021-12-21,06:41:40",10.1.1.9,336,-0.150,-0.150,-0.150,0.000,0.000,0.000
1640068900509687040,"2021-12-21,06:41:40",10.1.1.9,0.40759778022766113,-0.150,-0.150,-0.150,0.000,0.000,0.000
1640068900898057984,"2021-12-21,06:41:40",10.1.1.9,384,-0.140,-0.140,-0.140,0.000,0.000,0.000
1640068900980987136,"2021-12-21,06:41:40",10.1.1.9,0.4669780731201172,-0.140,-0.140,-0.140,0.000,0.000,0.000
1640068901368556032,"2021-12-21,06:41:41",10.1.1.9,378,-0.130,-0.130,-0.130,0.000,0.000,0.000
1640068901460696064,"2021-12-21,06:41:41",10.1.1.9,0.47078895568847656,-0.130,-0.130,-0.130,0.000,0.000,0.000
1640068901837743104,"2021-12-21,06:41:41",10.1.1.9,374,-0.120,-0.120,-0.120,0.000,0.000,0.000
1640068901933017088,"2021-12-21,06:41:41",10.1.1.9,0.47028183937072754,-0.120,-0.120,-0.120,0.000,0.000,0.000
1640068902257116928,"2021-12-21,06:41:42",10.1.1.9,322,-0.110,-0.110,-0.110,0.000,0.000,0.000
1640068902357393920,"2021-12-21,06:41:42",10.1.1.9,0.4225480556488037,-0.110,-0.110,-0.110,0.000,0.000,0.000
1640068902685890816,"2021-12-21,06:41:42",10.1.1.9,325,-0.100,-0.100,-0.100,0.000,0.000,0.000
1640068902795964928,"2021-12-21,06:41:42",10.1.1.9,0.4359149932861328,-0.100,-0.100,-0.100,0.000,0.000,0.000
1640068903145487104,"2021-12-21,06:41:43",10.1.1.9,347,-0.090,-0.090,-0.090,0.000,0.000,0.000
1640068903220454912,"2021-12-21,06:41:43",10.1.1.9,0.42270898818969727,-0.090,-0.090,-0.090,0.000,0.000,0.000
1640068903574877952,"2021-12-21,06:41:43",10.1.1.9,353,-0.080,-0.080,-0.080,0.000,0.000,0.000
1640068903711844864,"2021-12-21,06:41:43",10.1.1.9,0.49002599716186523,-0.080,-0.080,-0.080,0.000,0.000,0.000
1640068904144263936,"2021-12-21,06:41:44",10.1.1.9,430,-0.070,-0.070,-0.070,0.000,0.000,0.000
1640068904234950912,"2021-12-21,06:41:44",10.1.1.9,0.5212290287017822,-0.070,-0.070,-0.070,0.000,0.000,0.000
1640068904632901888,"2021-12-21,06:41:44",10.1.1.9,385,-0.060,-0.060,-0.060,0.000,0.000,0.000
1640068904713978880,"2021-12-21,06:41:44",10.1.1.9,0.4666409492492676,-0.060,-0.060,-0.060,0.000,0.000,0.000
1640068905062601984,"2021-12-21,06:41:45",10.1.1.9,346,-0.050,-0.050,-0.050,0.000,0.000,0.000
1640068905127918080,"2021-12-21,06:41:45",10.1.1.9,0.4121260643005371,-0.050,-0.050,-0.050,0.000,0.000,0.000
1640068905536360960,"2021-12-21,06:41:45",10.1.1.9,404,-0.040,-0.040,-0.040,0.000,0.000,0.000
1640068905608809984,"2021-12-21,06:41:45",10.1.1.9,0.47743797302246094,-0.040,-0.040,-0.040,0.000,0.000,0.000
1640068905930704128,"2021-12-21,06:41:45",10.1.1.9,316,-0.030,-0.030,-0.030,0.000,0.000,0.000
1640068906040619008,"2021-12-21,06:41:46",10.1.1.9,0.4264500141143799,-0.030,-0.030,-0.030,0.000,0.000,0.000
1640068906410608128,"2021-12-21,06:41:46",10.1.1.9,363,-0.020,-0.020,-0.020,0.000,0.000,0.000
