FedericoMungari/DigitalTwin_service/01_WiredScenario/Output/Output_script/script_rosapi_2_output_robots10_freq0_5.txt
timestamp,date,node,latency,joint_1,joint_2,joint_3,joint_4,joint_5,joint_6
1644926756766755072,2022-02-15-12:05:56,10.1.1.6,4,-0.100,-0.100,-0.100,0.000,-0.000,-0.000
1644926756847832832,2022-02-15-12:05:56,10.1.1.6,34,-0.090,-0.090,-0.090,0.000,0.000,0.000
1644926756887249920,2022-02-15-12:05:56,10.1.1.6,22,-0.080,-0.080,-0.080,0.000,0.000,0.000
1644926756946115072,2022-02-15-12:05:56,10.1.1.6,31,-0.070,-0.070,-0.070,0.000,0.000,0.000
1644926756985941760,2022-02-15-12:05:56,10.1.1.6,21,-0.060,-0.060,-0.060,0.000,0.000,0.000
1644926757045953024,2022-02-15-12:05:57,10.1.1.6,29,-0.050,-0.050,-0.050,0.000,0.000,0.000
1644926757106436864,2022-02-15-12:05:57,10.1.1.6,39,-0.040,-0.040,-0.040,0.000,0.000,0.000
1644926757146502912,2022-02-15-12:05:57,10.1.1.6,28,-0.030,-0.030,-0.030,0.000,0.000,0.000
1644926757206317056,2022-02-15-12:05:57,10.1.1.6,35,-0.020,-0.020,-0.020,0.000,0.000,0.000
1644926757246684160,2022-02-15-12:05:57,10.1.1.6,24,-0.010,-0.010,-0.010,0.000,0.000,0.000
1644926757306958080,2022-02-15-12:05:57,10.1.1.6,33,0.000,0.000,0.000,0.000,0.000,0.000
1644926757346230016,2022-02-15-12:05:57,10.1.1.6,23,0.010,0.010,0.010,0.000,0.000,0.000
1644926757405718016,2022-02-15-12:05:57,10.1.1.6,32,0.020,0.020,0.020,0.000,0.000,0.000
1644926757446270976,2022-02-15-12:05:57,10.1.1.6,22,0.030,0.030,0.030,0.000,0.000,0.000
1644926757506127104,2022-02-15-12:05:57,10.1.1.6,31,0.040,0.040,0.040,0.000,0.000,0.000
1644926757547015936,2022-02-15-12:05:57,10.1.1.6,22,0.050,0.050,0.050,0.000,0.000,0.000
1644926757606936064,2022-02-15-12:05:57,10.1.1.6,30,0.060,0.060,0.060,0.000,0.000,0.000
1644926757646135040,2022-02-15-12:05:57,10.1.1.6,19,0.070,0.070,0.070,0.000,0.000,0.000
1644926757707392000,2022-02-15-12:05:57,10.1.1.6,29,0.080,0.080,0.080,0.000,0.000,0.000
1644926757767651072,2022-02-15-12:05:57,10.1.1.6,38,0.090,0.090,0.090,0.000,0.000,0.000
1644926757806153984,2022-02-15-12:05:57,10.1.1.6,27,0.100,0.100,0.100,0.000,0.000,0.000
1644926757866582016,2022-02-15-12:05:57,10.1.1.6,36,0.090,0.090,0.090,0.000,0.000,0.000
1644926757907987200,2022-02-15-12:05:57,10.1.1.6,26,0.080,0.080,0.080,0.000,0.000,0.000
1644926757966748928,2022-02-15-12:05:57,10.1.1.6,35,0.070,0.070,0.070,0.000,0.000,0.000
1644926758006918912,2022-02-15-12:05:58,10.1.1.6,24,0.060,0.060,0.060,0.000,0.000,0.000
1644926758066339072,2022-02-15-12:05:58,10.1.1.6,34,0.050,0.050,0.050,0.000,0.000,0.000
1644926758106319872,2022-02-15-12:05:58,10.1.1.6,22,0.040,0.040,0.040,0.000,0.000,0.000
1644926758166676992,2022-02-15-12:05:58,10.1.1.6,32,0.030,0.030,0.030,0.000,0.000,0.000
1644926758207258112,2022-02-15-12:05:58,10.1.1.6,22,0.020,0.020,0.020,0.000,0.000,0.000
1644926758266801152,2022-02-15-12:05:58,10.1.1.6,31,0.010,0.010,0.010,0.000,0.000,0.000
1644926758307096064,2022-02-15-12:05:58,10.1.1.6,21,0.000,0.000,0.000,0.000,0.000,0.000
1644926758366453760,2022-02-15-12:05:58,10.1.1.6,30,-0.010,-0.010,-0.010,0.000,0.000,0.000
1644926758406392064,2022-02-15-12:05:58,10.1.1.6,19,-0.019,-0.019,-0.019,0.000,0.000,0.000
1644926758467104000,2022-02-15-12:05:58,10.1.1.6,28,-0.030,-0.030,-0.030,0.000,0.000,0.000
1644926758527128064,2022-02-15-12:05:58,10.1.1.6,38,-0.040,-0.040,-0.040,0.000,0.000,0.000
1644926758567761920,2022-02-15-12:05:58,10.1.1.6,27,-0.050,-0.050,-0.050,0.000,0.000,0.000
1644926758626928128,2022-02-15-12:05:58,10.1.1.6,36,-0.060,-0.060,-0.060,0.000,0.000,0.000
1644926758667063040,2022-02-15-12:05:58,10.1.1.6,25,-0.070,-0.070,-0.070,0.000,0.000,0.000
1644926758726710016,2022-02-15-12:05:58,10.1.1.6,35,-0.080,-0.080,-0.080,0.000,0.000,0.000
1644926758766580224,2022-02-15-12:05:58,10.1.1.6,24,-0.090,-0.090,-0.090,0.000,0.000,0.000
1644926758826916096,2022-02-15-12:05:58,10.1.1.6,34,-0.100,-0.100,-0.100,0.000,0.000,0.000
1644926758865329920,2022-02-15-12:05:58,10.1.1.6,23,-0.090,-0.090,-0.090,0.000,0.000,0.000
1644926758926354944,2022-02-15-12:05:58,10.1.1.6,33,-0.080,-0.080,-0.080,0.000,0.000,0.000
1644926758966454016,2022-02-15-12:05:58,10.1.1.6,21,-0.070,-0.070,-0.070,0.000,0.000,0.000
1644926759026226944,2022-02-15-12:05:59,10.1.1.6,30,-0.060,-0.060,-0.060,0.000,0.000,0.000
1644926759066518016,2022-02-15-12:05:59,10.1.1.6,19,-0.051,-0.051,-0.051,0.000,0.000,0.000
1644926759127137024,2022-02-15-12:05:59,10.1.1.6,28,-0.040,-0.040,-0.040,0.000,0.000,0.000
1644926759227806208,2022-02-15-12:05:59,10.1.1.6,28,-0.020,-0.020,-0.020,0.000,0.000,0.000
1644926759287197184,2022-02-15-12:05:59,10.1.1.6,37,-0.010,-0.010,-0.010,0.000,0.000,0.000
1644926759327047168,2022-02-15-12:05:59,10.1.1.6,27,0.000,0.000,0.000,0.000,0.000,0.000
1644926759387128064,2022-02-15-12:05:59,10.1.1.6,36,0.010,0.010,0.010,0.000,0.000,0.000
1644926759426821120,2022-02-15-12:05:59,10.1.1.6,25,0.020,0.020,0.020,0.000,0.000,0.000
1644926759488599040,2022-02-15-12:05:59,10.1.1.6,34,0.030,0.030,0.030,0.000,0.000,0.000
1644926759526212864,2022-02-15-12:05:59,10.1.1.6,24,0.040,0.040,0.040,0.000,0.000,0.000
1644926759586091008,2022-02-15-12:05:59,10.1.1.6,33,0.050,0.050,0.050,0.000,0.000,0.000
1644926759627015168,2022-02-15-12:05:59,10.1.1.6,23,0.060,0.060,0.060,0.000,0.000,0.000
1644926759687292160,2022-02-15-12:05:59,10.1.1.6,32,0.070,0.070,0.070,0.000,0.000,0.000
1644926759726732032,2022-02-15-12:05:59,10.1.1.6,21,0.080,0.080,0.080,0.000,0.000,0.000
1644926759786521856,2022-02-15-12:05:59,10.1.1.6,30,0.090,0.090,0.090,0.000,0.000,0.000
1644926759826781952,2022-02-15-12:05:59,10.1.1.6,19,0.099,0.099,0.099,0.000,0.000,0.000
1644926759886235904,2022-02-15-12:05:59,10.1.1.6,28,0.090,0.090,0.090,0.000,0.000,0.000
1644926759947261952,2022-02-15-12:05:59,10.1.1.6,37,0.080,0.080,0.080,0.000,0.000,0.000
1644926759986814976,2022-02-15-12:05:59,10.1.1.6,27,0.070,0.070,0.070,0.000,0.000,0.000
1644926760046572032,2022-02-15-12:06:00,10.1.1.6,36,0.060,0.060,0.060,0.000,0.000,0.000
1644926760109566976,2022-02-15-12:06:00,10.1.1.6,39,0.050,0.050,0.050,0.000,0.000,0.000
1644926760146955008,2022-02-15-12:06:00,10.1.1.6,23,0.040,0.040,0.040,0.000,0.000,0.000
1644926760206556160,2022-02-15-12:06:00,10.1.1.6,32,0.030,0.030,0.030,0.000,0.000,0.000
1644926760246318080,2022-02-15-12:06:00,10.1.1.6,20,0.020,0.020,0.020,0.000,0.000,0.000
1644926760307522048,2022-02-15-12:06:00,10.1.1.6,31,0.010,0.010,0.010,0.000,0.000,0.000
1644926760346324992,2022-02-15-12:06:00,10.1.1.6,19,0.001,0.001,0.001,0.000,0.000,0.000
1644926760406370048,2022-02-15-12:06:00,10.1.1.6,29,-0.010,-0.010,-0.010,0.000,0.000,0.000
1644926760465564928,2022-02-15-12:06:00,10.1.1.6,38,-0.020,-0.020,-0.020,0.000,0.000,0.000
1644926760506917120,2022-02-15-12:06:00,10.1.1.6,28,-0.030,-0.030,-0.030,0.000,0.000,0.000
1644926760565821952,2022-02-15-12:06:00,10.1.1.6,37,-0.040,-0.040,-0.040,0.000,0.000,0.000
1644926760605986048,2022-02-15-12:06:00,10.1.1.6,26,-0.050,-0.050,-0.050,0.000,0.000,0.000
1644926760666296064,2022-02-15-12:06:00,10.1.1.6,33,-0.060,-0.060,-0.060,0.000,0.000,0.000
1644926760705650176,2022-02-15-12:06:00,10.1.1.6,22,-0.070,-0.070,-0.070,0.000,0.000,0.000
1644926760767094016,2022-02-15-12:06:00,10.1.1.6,32,-0.080,-0.080,-0.080,0.000,0.000,0.000
1644926760805298176,2022-02-15-12:06:00,10.1.1.6,21,-0.090,-0.090,-0.090,0.000,0.000,0.000
1644926760865401856,2022-02-15-12:06:00,10.1.1.6,30,-0.100,-0.100,-0.100,0.000,0.000,0.000
1644926760905394176,2022-02-15-12:06:00,10.1.1.6,20,-0.090,-0.090,-0.090,0.000,0.000,0.000
1644926760965630976,2022-02-15-12:06:00,10.1.1.6,29,-0.080,-0.080,-0.080,0.000,0.000,0.000
1644926761006360064,2022-02-15-12:06:01,10.1.1.6,18,-0.071,-0.071,-0.071,0.000,0.000,0.000
1644926761065391104,2022-02-15-12:06:01,10.1.1.6,27,-0.060,-0.060,-0.060,0.000,0.000,0.000
1644926761125551104,2022-02-15-12:06:01,10.1.1.6,36,-0.050,-0.050,-0.050,0.000,0.000,0.000
1644926761165637888,2022-02-15-12:06:01,10.1.1.6,25,-0.040,-0.040,-0.040,0.000,0.000,0.000
1644926761225789184,2022-02-15-12:06:01,10.1.1.6,34,-0.030,-0.030,-0.030,0.000,0.000,0.000
1644926761265080832,2022-02-15-12:06:01,10.1.1.6,24,-0.020,-0.020,-0.020,0.000,0.000,0.000
1644926761325835008,2022-02-15-12:06:01,10.1.1.6,34,-0.010,-0.010,-0.010,0.000,0.000,0.000
1644926761365150976,2022-02-15-12:06:01,10.1.1.6,23,0.000,0.000,0.000,0.000,0.000,0.000
1644926761425623040,2022-02-15-12:06:01,10.1.1.6,33,0.010,0.010,0.010,0.000,0.000,0.000
1644926761466061056,2022-02-15-12:06:01,10.1.1.6,22,0.020,0.020,0.020,0.000,0.000,0.000
1644926761525618176,2022-02-15-12:06:01,10.1.1.6,32,0.030,0.030,0.030,0.000,0.000,0.000
1644926761565978112,2022-02-15-12:06:01,10.1.1.6,22,0.040,0.040,0.040,0.000,0.000,0.000
1644926761625775104,2022-02-15-12:06:01,10.1.1.6,31,0.050,0.050,0.050,0.000,0.000,0.000
1644926761665468928,2022-02-15-12:06:01,10.1.1.6,21,0.060,0.060,0.060,0.000,0.000,0.000
1644926761725918976,2022-02-15-12:06:01,10.1.1.6,30,0.070,0.070,0.070,0.000,0.000,0.000
1644926761764795904,2022-02-15-12:06:01,10.1.1.6,19,0.080,0.080,0.080,0.000,0.000,0.000
1644926761825513984,2022-02-15-12:06:01,10.1.1.6,29,0.090,0.090,0.090,0.000,0.000,0.000
1644926761886459136,2022-02-15-12:06:01,10.1.1.6,38,0.100,0.100,0.100,0.000,0.000,0.000
1644926761926116096,2022-02-15-12:06:01,10.1.1.6,28,0.090,0.090,0.090,0.000,0.000,0.000
1644926761986501888,2022-02-15-12:06:01,10.1.1.6,37,0.080,0.080,0.080,0.000,0.000,0.000
1644926762027545856,2022-02-15-12:06:02,10.1.1.6,27,0.070,0.070,0.070,0.000,0.000,0.000
1644926762085601024,2022-02-15-12:06:02,10.1.1.6,37,0.060,0.060,0.060,0.000,0.000,0.000
1644926762126703104,2022-02-15-12:06:02,10.1.1.6,26,0.050,0.050,0.050,0.000,0.000,0.000
1644926762185796864,2022-02-15-12:06:02,10.1.1.6,35,0.040,0.040,0.040,0.000,0.000,0.000
1644926762226226944,2022-02-15-12:06:02,10.1.1.6,26,0.030,0.030,0.030,0.000,0.000,0.000
1644926762286697984,2022-02-15-12:06:02,10.1.1.6,34,0.020,0.020,0.020,0.000,0.000,0.000
1644926762326384896,2022-02-15-12:06:02,10.1.1.6,24,0.010,0.010,0.010,0.000,0.000,0.000
1644926762387190016,2022-02-15-12:06:02,10.1.1.6,34,0.000,0.000,0.000,0.000,0.000,0.000
1644926762426446848,2022-02-15-12:06:02,10.1.1.6,23,-0.010,-0.010,-0.010,0.000,0.000,0.000
1644926762486630912,2022-02-15-12:06:02,10.1.1.6,33,-0.020,-0.020,-0.020,0.000,0.000,0.000
1644926762526108928,2022-02-15-12:06:02,10.1.1.6,22,-0.030,-0.030,-0.030,0.000,0.000,0.000
1644926762587364864,2022-02-15-12:06:02,10.1.1.6,32,-0.040,-0.040,-0.040,0.000,0.000,0.000
1644926762626893056,2022-02-15-12:06:02,10.1.1.6,22,-0.050,-0.050,-0.050,0.000,0.000,0.000
1644926762686811904,2022-02-15-12:06:02,10.1.1.6,30,-0.060,-0.060,-0.060,0.000,0.000,0.000
1644926762726691840,2022-02-15-12:06:02,10.1.1.6,20,-0.070,-0.070,-0.070,0.000,0.000,0.000
1644926762827888128,2022-02-15-12:06:02,10.1.1.6,30,-0.080,-0.080,-0.080,0.000,0.000,0.000
1644926762865832960,2022-02-15-12:06:02,10.1.1.6,32,-0.090,-0.090,-0.090,0.000,0.000,0.000
1644926762907112960,2022-02-15-12:06:02,10.1.1.6,21,-0.100,-0.100,-0.100,0.000,0.000,0.000
1644926762966044928,2022-02-15-12:06:02,10.1.1.6,29,-0.090,-0.090,-0.090,0.000,0.000,0.000
1644926763006522880,2022-02-15-12:06:03,10.1.1.6,19,-0.081,-0.081,-0.081,0.000,0.000,0.000
1644926763066860032,2022-02-15-12:06:03,10.1.1.6,29,-0.070,-0.070,-0.070,0.000,0.000,0.000
1644926763126835968,2022-02-15-12:06:03,10.1.1.6,38,-0.060,-0.060,-0.060,0.000,0.000,0.000
1644926763167536896,2022-02-15-12:06:03,10.1.1.6,28,-0.050,-0.050,-0.050,0.000,0.000,0.000
1644926763227000832,2022-02-15-12:06:03,10.1.1.6,37,-0.040,-0.040,-0.040,0.000,0.000,0.000
1644926763266383872,2022-02-15-12:06:03,10.1.1.6,27,-0.030,-0.030,-0.030,0.000,0.000,0.000
1644926763366818816,2022-02-15-12:06:03,10.1.1.6,26,-0.010,-0.010,-0.010,0.000,0.000,0.000
1644926763427542016,2022-02-15-12:06:03,10.1.1.6,35,0.000,0.000,0.000,0.000,0.000,0.000
1644926763466094080,2022-02-15-12:06:03,10.1.1.6,24,0.010,0.010,0.010,0.000,0.000,0.000
1644926763525058048,2022-02-15-12:06:03,10.1.1.6,33,0.020,0.020,0.020,0.000,0.000,0.000
1644926763567065856,2022-02-15-12:06:03,10.1.1.6,22,0.030,0.030,0.030,0.000,0.000,0.000
1644926763625985024,2022-02-15-12:06:03,10.1.1.6,32,0.040,0.040,0.040,0.000,0.000,0.000
1644926763666258944,2022-02-15-12:06:03,10.1.1.6,21,0.050,0.050,0.050,0.000,0.000,0.000
1644926763728174080,2022-02-15-12:06:03,10.1.1.6,31,0.060,0.060,0.060,0.000,0.000,0.000
1644926763766835968,2022-02-15-12:06:03,10.1.1.6,20,0.070,0.070,0.070,0.000,0.000,0.000
1644926763827173888,2022-02-15-12:06:03,10.1.1.6,29,0.080,0.080,0.080,0.000,0.000,0.000
1644926763867106048,2022-02-15-12:06:03,10.1.1.6,19,0.090,0.090,0.090,0.000,0.000,0.000
1644926763927468032,2022-02-15-12:06:03,10.1.1.6,29,0.100,0.100,0.100,0.000,0.000,0.000
1644926763986479104,2022-02-15-12:06:03,10.1.1.6,38,0.090,0.090,0.090,0.000,0.000,0.000
1644926764027570944,2022-02-15-12:06:04,10.1.1.6,28,0.080,0.080,0.080,0.000,0.000,0.000
1644926764085570048,2022-02-15-12:06:04,10.1.1.6,37,0.070,0.070,0.070,0.000,0.000,0.000
1644926764125401088,2022-02-15-12:06:04,10.1.1.6,27,0.060,0.060,0.060,0.000,0.000,0.000
1644926764185498112,2022-02-15-12:06:04,10.1.1.6,35,0.050,0.050,0.050,0.000,0.000,0.000
1644926764226473216,2022-02-15-12:06:04,10.1.1.6,24,0.040,0.040,0.040,0.000,0.000,0.000
1644926764286627072,2022-02-15-12:06:04,10.1.1.6,33,0.030,0.030,0.030,0.000,0.000,0.000
1644926764326116096,2022-02-15-12:06:04,10.1.1.6,23,0.020,0.020,0.020,0.000,0.000,0.000
1644926764386408960,2022-02-15-12:06:04,10.1.1.6,33,0.010,0.010,0.010,0.000,0.000,0.000
1644926764425504000,2022-02-15-12:06:04,10.1.1.6,23,0.000,0.000,0.000,0.000,0.000,0.000
1644926764487286016,2022-02-15-12:06:04,10.1.1.6,32,-0.010,-0.010,-0.010,0.000,0.000,0.000
1644926764526659072,2022-02-15-12:06:04,10.1.1.6,22,-0.020,-0.020,-0.020,0.000,0.000,0.000
1644926764585565952,2022-02-15-12:06:04,10.1.1.6,32,-0.030,-0.030,-0.030,0.000,0.000,0.000
1644926764626804224,2022-02-15-12:06:04,10.1.1.6,21,-0.040,-0.040,-0.040,0.000,0.000,0.000
1644926764685607936,2022-02-15-12:06:04,10.1.1.6,30,-0.050,-0.050,-0.050,0.000,0.000,0.000
1644926764726825984,2022-02-15-12:06:04,10.1.1.6,20,-0.060,-0.060,-0.060,0.000,0.000,0.000
1644926764786493952,2022-02-15-12:06:04,10.1.1.6,29,-0.070,-0.070,-0.070,0.000,0.000,0.000
1644926764825857024,2022-02-15-12:06:04,10.1.1.6,19,-0.079,-0.079,-0.079,0.000,0.000,0.000
1644926764886724864,2022-02-15-12:06:04,10.1.1.6,28,-0.090,-0.090,-0.090,0.000,0.000,0.000
1644926764946178816,2022-02-15-12:06:04,10.1.1.6,37,-0.100,-0.100,-0.100,0.000,0.000,0.000
1644926764986469120,2022-02-15-12:06:04,10.1.1.6,27,-0.090,-0.090,-0.090,0.000,0.000,0.000
1644926765046972160,2022-02-15-12:06:05,10.1.1.6,37,-0.080,-0.080,-0.080,0.000,0.000,0.000
1644926765085549056,2022-02-15-12:06:05,10.1.1.6,26,-0.070,-0.070,-0.070,0.000,0.000,0.000
1644926765146857984,2022-02-15-12:06:05,10.1.1.6,36,-0.060,-0.060,-0.060,0.000,0.000,0.000
1644926765185761024,2022-02-15-12:06:05,10.1.1.6,25,-0.050,-0.050,-0.050,0.000,0.000,0.000
1644926765246833920,2022-02-15-12:06:05,10.1.1.6,35,-0.040,-0.040,-0.040,0.000,0.000,0.000
1644926765285555968,2022-02-15-12:06:05,10.1.1.6,23,-0.030,-0.030,-0.030,0.000,0.000,0.000
1644926765345345024,2022-02-15-12:06:05,10.1.1.6,33,-0.020,-0.020,-0.020,0.000,0.000,0.000
1644926765385558016,2022-02-15-12:06:05,10.1.1.6,23,-0.010,-0.010,-0.010,0.000,0.000,0.000
1644926765445972992,2022-02-15-12:06:05,10.1.1.6,33,0.000,0.000,0.000,0.000,0.000,0.000
1644926765485126144,2022-02-15-12:06:05,10.1.1.6,22,0.010,0.010,0.010,0.000,0.000,0.000
1644926765545434880,2022-02-15-12:06:05,10.1.1.6,31,0.020,0.020,0.020,0.000,0.000,0.000
1644926765585266944,2022-02-15-12:06:05,10.1.1.6,21,0.030,0.030,0.030,0.000,0.000,0.000
1644926765646473984,2022-02-15-12:06:05,10.1.1.6,30,0.040,0.040,0.040,0.000,0.000,0.000
1644926765688489984,2022-02-15-12:06:05,10.1.1.6,19,0.050,0.050,0.050,0.000,0.000,0.000
1644926765746167808,2022-02-15-12:06:05,10.1.1.6,29,0.060,0.060,0.060,0.000,0.000,0.000
1644926765805380096,2022-02-15-12:06:05,10.1.1.6,39,0.070,0.070,0.070,0.000,0.000,0.000
1644926765845210112,2022-02-15-12:06:05,10.1.1.6,28,0.080,0.080,0.080,0.000,0.000,0.000
1644926765906205952,2022-02-15-12:06:05,10.1.1.6,37,0.090,0.090,0.090,0.000,0.000,0.000
1644926765946261760,2022-02-15-12:06:05,10.1.1.6,26,0.100,0.100,0.100,0.000,0.000,0.000
1644926766006124032,2022-02-15-12:06:06,10.1.1.6,35,0.090,0.090,0.090,0.000,0.000,0.000
1644926766046071040,2022-02-15-12:06:06,10.1.1.6,24,0.080,0.080,0.080,0.000,0.000,0.000
1644926766105662976,2022-02-15-12:06:06,10.1.1.6,33,0.070,0.070,0.070,0.000,0.000,0.000
1644926766146569984,2022-02-15-12:06:06,10.1.1.6,23,0.060,0.060,0.060,0.000,0.000,0.000
1644926766207575040,2022-02-15-12:06:06,10.1.1.6,33,0.050,0.050,0.050,0.000,0.000,0.000
1644926766245338880,2022-02-15-12:06:06,10.1.1.6,22,0.040,0.040,0.040,0.000,0.000,0.000
1644926766306360064,2022-02-15-12:06:06,10.1.1.6,32,0.030,0.030,0.030,0.000,0.000,0.000
1644926766345530112,2022-02-15-12:06:06,10.1.1.6,21,0.020,0.020,0.020,0.000,0.000,0.000
1644926766406441984,2022-02-15-12:06:06,10.1.1.6,30,0.010,0.010,0.010,0.000,0.000,0.000
1644926766446108160,2022-02-15-12:06:06,10.1.1.6,20,0.000,0.000,0.000,0.000,0.000,0.000
1644926766505983232,2022-02-15-12:06:06,10.1.1.6,29,-0.010,-0.010,-0.010,0.000,0.000,0.000
1644926766546565888,2022-02-15-12:06:06,10.1.1.6,19,-0.019,-0.019,-0.019,0.000,0.000,0.000
1644926766605651968,2022-02-15-12:06:06,10.1.1.6,28,-0.030,-0.030,-0.030,0.000,0.000,0.000
1644926766666416896,2022-02-15-12:06:06,10.1.1.6,38,-0.040,-0.040,-0.040,0.000,0.000,0.000
1644926766705395968,2022-02-15-12:06:06,10.1.1.6,27,-0.050,-0.050,-0.050,0.000,0.000,0.000
1644926766765912064,2022-02-15-12:06:06,10.1.1.6,37,-0.060,-0.060,-0.060,0.000,0.000,0.000
1644926766806103040,2022-02-15-12:06:06,10.1.1.6,27,-0.070,-0.070,-0.070,0.000,0.000,0.000
1644926766865876992,2022-02-15-12:06:06,10.1.1.6,36,-0.080,-0.080,-0.080,0.000,0.000,0.000
1644926766905477888,2022-02-15-12:06:06,10.1.1.6,25,-0.090,-0.090,-0.090,0.000,0.000,0.000
1644926766966689024,2022-02-15-12:06:06,10.1.1.6,35,-0.100,-0.100,-0.100,0.000,0.000,0.000
1644926767007698176,2022-02-15-12:06:07,10.1.1.6,23,-0.090,-0.090,-0.090,0.000,0.000,0.000
1644926767066753024,2022-02-15-12:06:07,10.1.1.6,33,-0.080,-0.080,-0.080,0.000,0.000,0.000
1644926767106599168,2022-02-15-12:06:07,10.1.1.6,23,-0.070,-0.070,-0.070,0.000,0.000,0.000
1644926767166324992,2022-02-15-12:06:07,10.1.1.6,32,-0.060,-0.060,-0.060,0.000,0.000,0.000
1644926767205440000,2022-02-15-12:06:07,10.1.1.6,22,-0.050,-0.050,-0.050,0.000,0.000,0.000
1644926767271075840,2022-02-15-12:06:07,10.1.1.6,31,-0.040,-0.040,-0.040,0.000,0.000,0.000
1644926767327604992,2022-02-15-12:06:07,10.1.1.6,34,-0.030,-0.030,-0.030,0.000,0.000,0.000
1644926767366094080,2022-02-15-12:06:07,10.1.1.6,22,-0.020,-0.020,-0.020,0.000,0.000,0.000
1644926767426672896,2022-02-15-12:06:07,10.1.1.6,29,-0.010,-0.010,-0.010,0.000,0.000,0.000
1644926767486230016,2022-02-15-12:06:07,10.1.1.6,38,0.000,0.000,0.000,0.000,0.000,0.000
1644926767527043072,2022-02-15-12:06:07,10.1.1.6,27,0.010,0.010,0.010,0.000,0.000,0.000
1644926767585185024,2022-02-15-12:06:07,10.1.1.6,35,0.020,0.020,0.020,0.000,0.000,0.000
1644926767626215936,2022-02-15-12:06:07,10.1.1.6,25,0.030,0.030,0.030,0.000,0.000,0.000
1644926767687550976,2022-02-15-12:06:07,10.1.1.6,34,0.040,0.040,0.040,0.000,0.000,0.000
1644926767727026944,2022-02-15-12:06:07,10.1.1.6,22,0.050,0.050,0.050,0.000,0.000,0.000
1644926767785952000,2022-02-15-12:06:07,10.1.1.6,32,0.060,0.060,0.060,0.000,0.000,0.000
1644926767827820032,2022-02-15-12:06:07,10.1.1.6,21,0.070,0.070,0.070,0.000,0.000,0.000
1644926767885644800,2022-02-15-12:06:07,10.1.1.6,30,0.080,0.080,0.080,0.000,0.000,0.000
1644926767926439936,2022-02-15-12:06:07,10.1.1.6,20,0.090,0.090,0.090,0.000,0.000,0.000
1644926767986486784,2022-02-15-12:06:07,10.1.1.6,29,0.100,0.100,0.100,0.000,0.000,0.000
1644926768047403008,2022-02-15-12:06:08,10.1.1.6,38,0.090,0.090,0.090,0.000,0.000,0.000
1644926768086288896,2022-02-15-12:06:08,10.1.1.6,27,0.080,0.080,0.080,0.000,0.000,0.000
1644926768146550784,2022-02-15-12:06:08,10.1.1.6,36,0.070,0.070,0.070,0.000,0.000,0.000
1644926768186872832,2022-02-15-12:06:08,10.1.1.6,24,0.060,0.060,0.060,0.000,0.000,0.000
1644926768246215936,2022-02-15-12:06:08,10.1.1.6,34,0.050,0.050,0.050,0.000,0.000,0.000
1644926768286612992,2022-02-15-12:06:08,10.1.1.6,22,0.040,0.040,0.040,0.000,0.000,0.000
1644926768347044864,2022-02-15-12:06:08,10.1.1.6,30,0.030,0.030,0.030,0.000,0.000,0.000
1644926768387425024,2022-02-15-12:06:08,10.1.1.6,20,0.020,0.020,0.020,0.000,0.000,0.000
1644926768445399040,2022-02-15-12:06:08,10.1.1.6,29,0.010,0.010,0.010,0.000,0.000,0.000
1644926768487598848,2022-02-15-12:06:08,10.1.1.6,19,0.001,0.001,0.001,0.000,0.000,0.000
1644926768547504896,2022-02-15-12:06:08,10.1.1.6,28,-0.010,-0.010,-0.010,0.000,0.000,0.000
1644926768606257920,2022-02-15-12:06:08,10.1.1.6,37,-0.020,-0.020,-0.020,0.000,0.000,0.000
1644926768647449088,2022-02-15-12:06:08,10.1.1.6,27,-0.030,-0.030,-0.030,0.000,0.000,0.000
1644926768706976768,2022-02-15-12:06:08,10.1.1.6,36,-0.040,-0.040,-0.040,0.000,0.000,0.000
1644926768746537984,2022-02-15-12:06:08,10.1.1.6,24,-0.050,-0.050,-0.050,0.000,0.000,0.000
1644926768806723072,2022-02-15-12:06:08,10.1.1.6,33,-0.060,-0.060,-0.060,0.000,0.000,0.000
1644926768846424064,2022-02-15-12:06:08,10.1.1.6,23,-0.070,-0.070,-0.070,0.000,0.000,0.000
1644926768907027968,2022-02-15-12:06:08,10.1.1.6,32,-0.080,-0.080,-0.080,0.000,0.000,0.000
1644926768947055104,2022-02-15-12:06:08,10.1.1.6,22,-0.090,-0.090,-0.090,0.000,0.000,0.000
1644926769006094848,2022-02-15-12:06:09,10.1.1.6,31,-0.100,-0.100,-0.100,0.000,0.000,0.000
1644926769056091904,2022-02-15-12:06:09,10.1.1.6,31,-0.090,-0.090,-0.090,0.000,0.000,0.000
1644926769106096896,2022-02-15-12:06:09,10.1.1.6,30,-0.080,-0.080,-0.080,0.000,0.000,0.000
1644926769146482944,2022-02-15-12:06:09,10.1.1.6,19,-0.070,-0.070,-0.070,0.000,0.000,0.000
1644926769205466112,2022-02-15-12:06:09,10.1.1.6,28,-0.060,-0.060,-0.060,0.000,0.000,0.000
1644926769265136896,2022-02-15-12:06:09,10.1.1.6,37,-0.050,-0.050,-0.050,0.000,0.000,0.000
1644926769306247936,2022-02-15-12:06:09,10.1.1.6,27,-0.040,-0.040,-0.040,0.000,0.000,0.000
1644926769366242816,2022-02-15-12:06:09,10.1.1.6,36,-0.030,-0.030,-0.030,0.000,0.000,0.000
1644926769406522880,2022-02-15-12:06:09,10.1.1.6,24,-0.020,-0.020,-0.020,0.000,0.000,0.000
1644926769466310912,2022-02-15-12:06:09,10.1.1.6,33,-0.010,-0.010,-0.010,0.000,0.000,0.000
1644926769506305024,2022-02-15-12:06:09,10.1.1.6,21,0.000,0.000,0.000,0.000,0.000,0.000
1644926769567190016,2022-02-15-12:06:09,10.1.1.6,30,0.010,0.010,0.010,0.000,0.000,0.000
1644926769627363072,2022-02-15-12:06:09,10.1.1.6,38,0.020,0.020,0.020,0.000,0.000,0.000
1644926769666671872,2022-02-15-12:06:09,10.1.1.6,26,0.030,0.030,0.030,0.000,0.000,0.000
1644926769725132032,2022-02-15-12:06:09,10.1.1.6,34,0.040,0.040,0.040,0.000,0.000,0.000
1644926769766906112,2022-02-15-12:06:09,10.1.1.6,23,0.050,0.050,0.050,0.000,0.000,0.000
1644926769826107904,2022-02-15-12:06:09,10.1.1.6,32,0.060,0.060,0.060,0.000,0.000,0.000
1644926769867126016,2022-02-15-12:06:09,10.1.1.6,22,0.070,0.070,0.070,0.000,0.000,0.000
1644926769925512192,2022-02-15-12:06:09,10.1.1.6,30,0.080,0.080,0.080,0.000,0.000,0.000
1644926769985491968,2022-02-15-12:06:09,10.1.1.6,38,0.090,0.090,0.090,0.000,0.000,0.000
1644926770025893888,2022-02-15-12:06:10,10.1.1.6,27,0.100,0.100,0.100,0.000,0.000,0.000
1644926770086885888,2022-02-15-12:06:10,10.1.1.6,35,0.090,0.090,0.090,0.000,0.000,0.000
1644926770125672960,2022-02-15-12:06:10,10.1.1.6,24,0.080,0.080,0.080,0.000,0.000,0.000
1644926770186678784,2022-02-15-12:06:10,10.1.1.6,33,0.070,0.070,0.070,0.000,0.000,0.000
1644926770224963840,2022-02-15-12:06:10,10.1.1.6,23,0.060,0.060,0.060,0.000,0.000,0.000
1644926770287158016,2022-02-15-12:06:10,10.1.1.6,33,0.050,0.050,0.050,0.000,0.000,0.000
1644926770406946048,2022-02-15-12:06:10,10.1.1.6,24,0.030,0.030,0.030,0.000,0.000,0.000
1644926770467398912,2022-02-15-12:06:10,10.1.1.6,33,0.020,0.020,0.020,0.000,0.000,0.000
1644926770506568960,2022-02-15-12:06:10,10.1.1.6,22,0.010,0.010,0.010,0.000,0.000,0.000
1644926770567010048,2022-02-15-12:06:10,10.1.1.6,31,0.000,0.000,0.000,0.000,0.000,0.000
1644926770607800064,2022-02-15-12:06:10,10.1.1.6,21,-0.010,-0.010,-0.010,0.000,0.000,0.000
1644926770666852864,2022-02-15-12:06:10,10.1.1.6,29,-0.020,-0.020,-0.020,0.000,0.000,0.000
1644926770706103040,2022-02-15-12:06:10,10.1.1.6,19,-0.029,-0.029,-0.029,0.000,0.000,0.000
1644926770766330112,2022-02-15-12:06:10,10.1.1.6,28,-0.040,-0.040,-0.040,0.000,0.000,0.000
1644926770826978048,2022-02-15-12:06:10,10.1.1.6,37,-0.050,-0.050,-0.050,0.000,0.000,0.000
1644926770865566976,2022-02-15-12:06:10,10.1.1.6,26,-0.060,-0.060,-0.060,0.000,0.000,0.000
1644926770926328064,2022-02-15-12:06:10,10.1.1.6,34,-0.070,-0.070,-0.070,0.000,0.000,0.000
1644926770967417856,2022-02-15-12:06:10,10.1.1.6,23,-0.080,-0.080,-0.080,0.000,0.000,0.000
1644926771026478080,2022-02-15-12:06:11,10.1.1.6,33,-0.090,-0.090,-0.090,0.000,0.000,0.000
1644926771065468160,2022-02-15-12:06:11,10.1.1.6,22,-0.100,-0.100,-0.100,0.000,0.000,0.000
1644926771126870016,2022-02-15-12:06:11,10.1.1.6,31,-0.090,-0.090,-0.090,0.000,0.000,0.000
1644926771166817792,2022-02-15-12:06:11,10.1.1.6,20,-0.080,-0.080,-0.080,0.000,0.000,0.000
1644926771225487872,2022-02-15-12:06:11,10.1.1.6,29,-0.070,-0.070,-0.070,0.000,0.000,0.000
1644926771286627072,2022-02-15-12:06:11,10.1.1.6,38,-0.060,-0.060,-0.060,0.000,0.000,0.000
1644926771327536128,2022-02-15-12:06:11,10.1.1.6,27,-0.050,-0.050,-0.050,0.000,0.000,0.000
1644926771386502144,2022-02-15-12:06:11,10.1.1.6,35,-0.040,-0.040,-0.040,0.000,0.000,0.000
1644926771427463168,2022-02-15-12:06:11,10.1.1.6,25,-0.030,-0.030,-0.030,0.000,0.000,0.000
1644926771488559872,2022-02-15-12:06:11,10.1.1.6,33,-0.020,-0.020,-0.020,0.000,0.000,0.000
1644926771527442944,2022-02-15-12:06:11,10.1.1.6,23,-0.010,-0.010,-0.010,0.000,0.000,0.000
1644926771585457920,2022-02-15-12:06:11,10.1.1.6,32,0.000,0.000,0.000,0.000,0.000,0.000
1644926771625840896,2022-02-15-12:06:11,10.1.1.6,21,0.010,0.010,0.010,0.000,0.000,0.000
1644926771685449984,2022-02-15-12:06:11,10.1.1.6,31,0.020,0.020,0.020,0.000,0.000,0.000
1644926771726056960,2022-02-15-12:06:11,10.1.1.6,20,0.030,0.030,0.030,0.000,0.000,0.000
1644926771785391104,2022-02-15-12:06:11,10.1.1.6,29,0.040,0.040,0.040,0.000,0.000,0.000
1644926771922900992,2022-02-15-12:06:11,10.1.1.6,32,0.060,0.060,0.060,0.000,0.000,0.000
1644926772005361152,2022-02-15-12:06:12,10.1.1.6,29,0.070,0.070,0.070,0.000,0.000,0.000
1644926772066184960,2022-02-15-12:06:12,10.1.1.6,38,0.080,0.080,0.080,0.000,0.000,0.000
1644926772105529088,2022-02-15-12:06:12,10.1.1.6,26,0.090,0.090,0.090,0.000,0.000,0.000
1644926772165548032,2022-02-15-12:06:12,10.1.1.6,35,0.100,0.100,0.100,0.000,0.000,0.000
1644926772205399040,2022-02-15-12:06:12,10.1.1.6,24,0.090,0.090,0.090,0.000,0.000,0.000
1644926772265914880,2022-02-15-12:06:12,10.1.1.6,33,0.080,0.080,0.080,0.000,0.000,0.000
1644926772305169152,2022-02-15-12:06:12,10.1.1.6,22,0.070,0.070,0.070,0.000,0.000,0.000
1644926772367748864,2022-02-15-12:06:12,10.1.1.6,30,0.060,0.060,0.060,0.000,0.000,0.000
1644926772405904128,2022-02-15-12:06:12,10.1.1.6,19,0.050,0.050,0.050,0.000,0.000,0.000
1644926772467417088,2022-02-15-12:06:12,10.1.1.6,28,0.040,0.040,0.040,0.000,0.000,0.000
1644926772526679040,2022-02-15-12:06:12,10.1.1.6,36,0.030,0.030,0.030,0.000,0.000,0.000
1644926772567953152,2022-02-15-12:06:12,10.1.1.6,25,0.020,0.020,0.020,0.000,0.000,0.000
1644926772628143104,2022-02-15-12:06:12,10.1.1.6,35,0.010,0.010,0.010,0.000,0.000,0.000
1644926772666563072,2022-02-15-12:06:12,10.1.1.6,24,0.000,0.000,0.000,0.000,0.000,0.000
1644926772727418880,2022-02-15-12:06:12,10.1.1.6,33,-0.010,-0.010,-0.010,0.000,0.000,0.000
1644926772765953024,2022-02-15-12:06:12,10.1.1.6,22,-0.020,-0.020,-0.020,0.000,0.000,0.000
1644926772827023872,2022-02-15-12:06:12,10.1.1.6,31,-0.030,-0.030,-0.030,0.000,0.000,0.000
1644926772866203136,2022-02-15-12:06:12,10.1.1.6,20,-0.040,-0.040,-0.040,0.000,0.000,0.000
1644926772925466112,2022-02-15-12:06:12,10.1.1.6,29,-0.050,-0.050,-0.050,0.000,0.000,0.000
1644926772966027008,2022-02-15-12:06:12,10.1.1.6,19,-0.060,-0.060,-0.060,0.000,0.000,0.000
1644926773026177024,2022-02-15-12:06:13,10.1.1.6,28,-0.070,-0.070,-0.070,0.000,0.000,0.000
1644926773085308928,2022-02-15-12:06:13,10.1.1.6,36,-0.080,-0.080,-0.080,0.000,0.000,0.000
1644926773127748096,2022-02-15-12:06:13,10.1.1.6,26,-0.090,-0.090,-0.090,0.000,0.000,0.000
1644926773186289920,2022-02-15-12:06:13,10.1.1.6,35,-0.100,-0.100,-0.100,0.000,0.000,0.000
1644926773225466880,2022-02-15-12:06:13,10.1.1.6,23,-0.090,-0.090,-0.090,0.000,0.000,0.000
1644926773286072064,2022-02-15-12:06:13,10.1.1.6,32,-0.080,-0.080,-0.080,0.000,0.000,0.000
1644926773327444992,2022-02-15-12:06:13,10.1.1.6,22,-0.070,-0.070,-0.070,0.000,0.000,0.000
1644926773386561024,2022-02-15-12:06:13,10.1.1.6,32,-0.060,-0.060,-0.060,0.000,0.000,0.000
1644926773428000000,2022-02-15-12:06:13,10.1.1.6,21,-0.050,-0.050,-0.050,0.000,0.000,0.000
1644926773485805056,2022-02-15-12:06:13,10.1.1.6,30,-0.040,-0.040,-0.040,0.000,0.000,0.000
1644926773525907968,2022-02-15-12:06:13,10.1.1.6,19,-0.030,-0.030,-0.030,0.000,0.000,0.000
1644926773587085056,2022-02-15-12:06:13,10.1.1.6,27,-0.020,-0.020,-0.020,0.000,0.000,0.000
1644926773647283200,2022-02-15-12:06:13,10.1.1.6,36,-0.010,-0.010,-0.010,0.000,0.000,0.000
1644926773685520896,2022-02-15-12:06:13,10.1.1.6,25,0.000,0.000,0.000,0.000,0.000,0.000
1644926773746244864,2022-02-15-12:06:13,10.1.1.6,34,0.010,0.010,0.010,0.000,0.000,0.000
1644926773786644992,2022-02-15-12:06:13,10.1.1.6,23,0.020,0.020,0.020,0.000,0.000,0.000
1644926773845293056,2022-02-15-12:06:13,10.1.1.6,32,0.030,0.030,0.030,0.000,0.000,0.000
1644926773887269120,2022-02-15-12:06:13,10.1.1.6,21,0.040,0.040,0.040,0.000,0.000,0.000
1644926773945539840,2022-02-15-12:06:13,10.1.1.6,31,0.050,0.050,0.050,0.000,0.000,0.000
1644926773986291968,2022-02-15-12:06:13,10.1.1.6,20,0.060,0.060,0.060,0.000,0.000,0.000
1644926774046896896,2022-02-15-12:06:14,10.1.1.6,29,0.070,0.070,0.070,0.000,0.000,0.000
1644926774106273024,2022-02-15-12:06:14,10.1.1.6,38,0.080,0.080,0.080,0.000,0.000,0.000
1644926774146123776,2022-02-15-12:06:14,10.1.1.6,28,0.090,0.090,0.090,0.000,0.000,0.000
1644926774205221888,2022-02-15-12:06:14,10.1.1.6,37,0.100,0.100,0.100,0.000,0.000,0.000
1644926774246503168,2022-02-15-12:06:14,10.1.1.6,26,0.090,0.090,0.090,0.000,0.000,0.000
1644926774305357056,2022-02-15-12:06:14,10.1.1.6,35,0.080,0.080,0.080,0.000,0.000,0.000
1644926774347724032,2022-02-15-12:06:14,10.1.1.6,24,0.070,0.070,0.070,0.000,0.000,0.000
1644926774405422080,2022-02-15-12:06:14,10.1.1.6,33,0.060,0.060,0.060,0.000,0.000,0.000
1644926774445654016,2022-02-15-12:06:14,10.1.1.6,22,0.050,0.050,0.050,0.000,0.000,0.000
1644926774506789888,2022-02-15-12:06:14,10.1.1.6,31,0.040,0.040,0.040,0.000,0.000,0.000
1644926774545788928,2022-02-15-12:06:14,10.1.1.6,20,0.030,0.030,0.030,0.000,0.000,0.000
1644926774605273088,2022-02-15-12:06:14,10.1.1.6,28,0.020,0.020,0.020,0.000,0.000,0.000
1644926774666626816,2022-02-15-12:06:14,10.1.1.6,37,0.010,0.010,0.010,0.000,0.000,0.000
1644926774706183936,2022-02-15-12:06:14,10.1.1.6,26,0.000,0.000,0.000,0.000,0.000,0.000
1644926774766621184,2022-02-15-12:06:14,10.1.1.6,34,-0.010,-0.010,-0.010,0.000,0.000,0.000
1644926774806228992,2022-02-15-12:06:14,10.1.1.6,23,-0.020,-0.020,-0.020,0.000,0.000,0.000
1644926774865211136,2022-02-15-12:06:14,10.1.1.6,32,-0.030,-0.030,-0.030,0.000,0.000,0.000
1644926774907123968,2022-02-15-12:06:14,10.1.1.6,22,-0.040,-0.040,-0.040,0.000,0.000,0.000
1644926774965123840,2022-02-15-12:06:14,10.1.1.6,31,-0.050,-0.050,-0.050,0.000,0.000,0.000
1644926775006481920,2022-02-15-12:06:15,10.1.1.6,20,-0.060,-0.060,-0.060,0.000,0.000,0.000
1644926775067074048,2022-02-15-12:06:15,10.1.1.6,29,-0.070,-0.070,-0.070,0.000,0.000,0.000
1644926775129249024,2022-02-15-12:06:15,10.1.1.6,38,-0.080,-0.080,-0.080,0.000,0.000,0.000
1644926775166189824,2022-02-15-12:06:15,10.1.1.6,27,-0.090,-0.090,-0.090,0.000,0.000,0.000
1644926775227777024,2022-02-15-12:06:15,10.1.1.6,35,-0.100,-0.100,-0.100,0.000,0.000,0.000
1644926775266056960,2022-02-15-12:06:15,10.1.1.6,22,-0.090,-0.090,-0.090,0.000,0.000,0.000
1644926775326639872,2022-02-15-12:06:15,10.1.1.6,32,-0.080,-0.080,-0.080,0.000,0.000,0.000
1644926775366753024,2022-02-15-12:06:15,10.1.1.6,21,-0.070,-0.070,-0.070,0.000,0.000,0.000
1644926775428215040,2022-02-15-12:06:15,10.1.1.6,30,-0.060,-0.060,-0.060,0.000,0.000,0.000
1644926775485966848,2022-02-15-12:06:15,10.1.1.6,38,-0.050,-0.050,-0.050,0.000,0.000,0.000
1644926775525340928,2022-02-15-12:06:15,10.1.1.6,28,-0.040,-0.040,-0.040,0.000,0.000,0.000
1644926775585480960,2022-02-15-12:06:15,10.1.1.6,35,-0.030,-0.030,-0.030,0.000,0.000,0.000
1644926775625523968,2022-02-15-12:06:15,10.1.1.6,23,-0.020,-0.020,-0.020,0.000,0.000,0.000
1644926775687140864,2022-02-15-12:06:15,10.1.1.6,33,-0.010,-0.010,-0.010,0.000,0.000,0.000
1644926775727042048,2022-02-15-12:06:15,10.1.1.6,22,0.000,0.000,0.000,0.000,0.000,0.000
1644926775787106048,2022-02-15-12:06:15,10.1.1.6,31,0.010,0.010,0.010,0.000,0.000,0.000
1644926775826670848,2022-02-15-12:06:15,10.1.1.6,20,0.020,0.020,0.020,0.000,0.000,0.000
1644926775887651072,2022-02-15-12:06:15,10.1.1.6,29,0.030,0.030,0.030,0.000,0.000,0.000
1644926775946647040,2022-02-15-12:06:15,10.1.1.6,38,0.040,0.040,0.040,0.000,0.000,0.000
1644926775985615104,2022-02-15-12:06:15,10.1.1.6,27,0.050,0.050,0.050,0.000,0.000,0.000
1644926776045336064,2022-02-15-12:06:16,10.1.1.6,36,0.060,0.060,0.060,0.000,0.000,0.000
1644926776085702912,2022-02-15-12:06:16,10.1.1.6,25,0.070,0.070,0.070,0.000,0.000,0.000
1644926776145767936,2022-02-15-12:06:16,10.1.1.6,34,0.080,0.080,0.080,0.000,0.000,0.000
1644926776186845952,2022-02-15-12:06:16,10.1.1.6,24,0.090,0.090,0.090,0.000,0.000,0.000
1644926776245250048,2022-02-15-12:06:16,10.1.1.6,33,0.100,0.100,0.100,0.000,0.000,0.000
1644926776285765888,2022-02-15-12:06:16,10.1.1.6,22,0.090,0.090,0.090,0.000,0.000,0.000
1644926776347099904,2022-02-15-12:06:16,10.1.1.6,32,0.080,0.080,0.080,0.000,0.000,0.000
1644926776385715968,2022-02-15-12:06:16,10.1.1.6,21,0.070,0.070,0.070,0.000,0.000,0.000
1644926776445729024,2022-02-15-12:06:16,10.1.1.6,30,0.060,0.060,0.060,0.000,0.000,0.000
1644926776486161920,2022-02-15-12:06:16,10.1.1.6,19,0.050,0.050,0.050,0.000,0.000,0.000
1644926776546360064,2022-02-15-12:06:16,10.1.1.6,28,0.040,0.040,0.040,0.000,0.000,0.000
1644926776606676224,2022-02-15-12:06:16,10.1.1.6,36,0.030,0.030,0.030,0.000,0.000,0.000
1644926776646723072,2022-02-15-12:06:16,10.1.1.6,25,0.020,0.020,0.020,0.000,0.000,0.000
1644926776708091136,2022-02-15-12:06:16,10.1.1.6,37,0.010,0.010,0.010,0.000,0.000,0.000
1644926776745608960,2022-02-15-12:06:16,10.1.1.6,24,0.000,0.000,0.000,0.000,0.000,0.000
1644926776805847040,2022-02-15-12:06:16,10.1.1.6,33,-0.010,-0.010,-0.010,0.000,0.000,0.000
1644926776846734080,2022-02-15-12:06:16,10.1.1.6,22,-0.020,-0.020,-0.020,0.000,0.000,0.000
1644926776905433856,2022-02-15-12:06:16,10.1.1.6,31,-0.030,-0.030,-0.030,0.000,0.000,0.000
1644926776947022848,2022-02-15-12:06:16,10.1.1.6,20,-0.040,-0.040,-0.040,0.000,0.000,0.000
1644926777005716992,2022-02-15-12:06:17,10.1.1.6,29,-0.050,-0.050,-0.050,0.000,0.000,0.000
1644926777066647040,2022-02-15-12:06:17,10.1.1.6,38,-0.060,-0.060,-0.060,0.000,0.000,0.000
1644926777107217920,2022-02-15-12:06:17,10.1.1.6,26,-0.070,-0.070,-0.070,0.000,0.000,0.000
1644926777224204032,2022-02-15-12:06:17,10.1.1.6,23,-0.090,-0.090,-0.090,0.000,0.000,0.000
1644926777287313920,2022-02-15-12:06:17,10.1.1.6,37,-0.100,-0.100,-0.100,0.000,0.000,0.000
1644926777325726976,2022-02-15-12:06:17,10.1.1.6,26,-0.090,-0.090,-0.090,0.000,0.000,0.000
1644926777385204992,2022-02-15-12:06:17,10.1.1.6,35,-0.080,-0.080,-0.080,0.000,0.000,0.000
1644926777426575872,2022-02-15-12:06:17,10.1.1.6,23,-0.070,-0.070,-0.070,0.000,0.000,0.000
1644926777486849024,2022-02-15-12:06:17,10.1.1.6,32,-0.060,-0.060,-0.060,0.000,0.000,0.000
1644926777525393920,2022-02-15-12:06:17,10.1.1.6,22,-0.050,-0.050,-0.050,0.000,0.000,0.000
1644926777585485056,2022-02-15-12:06:17,10.1.1.6,31,-0.040,-0.040,-0.040,0.000,0.000,0.000
1644926777626596096,2022-02-15-12:06:17,10.1.1.6,19,-0.030,-0.030,-0.030,0.000,0.000,0.000
1644926777687140096,2022-02-15-12:06:17,10.1.1.6,29,-0.020,-0.020,-0.020,0.000,0.000,0.000
1644926777745733120,2022-02-15-12:06:17,10.1.1.6,38,-0.010,-0.010,-0.010,0.000,0.000,0.000
1644926777786297088,2022-02-15-12:06:17,10.1.1.6,27,0.000,0.000,0.000,0.000,0.000,0.000
1644926777845382912,2022-02-15-12:06:17,10.1.1.6,36,0.010,0.010,0.010,0.000,0.000,0.000
1644926777886539008,2022-02-15-12:06:17,10.1.1.6,25,0.020,0.020,0.020,0.000,0.000,0.000
1644926777945425152,2022-02-15-12:06:17,10.1.1.6,34,0.030,0.030,0.030,0.000,0.000,0.000
1644926777987781120,2022-02-15-12:06:17,10.1.1.6,23,0.040,0.040,0.040,0.000,0.000,0.000
1644926778046273024,2022-02-15-12:06:18,10.1.1.6,33,0.050,0.050,0.050,0.000,0.000,0.000
1644926778085906944,2022-02-15-12:06:18,10.1.1.6,22,0.060,0.060,0.060,0.000,0.000,0.000
1644926778149614080,2022-02-15-12:06:18,10.1.1.6,33,0.070,0.070,0.070,0.000,0.000,0.000
1644926778186949120,2022-02-15-12:06:18,10.1.1.6,19,0.080,0.080,0.080,0.000,0.000,0.000
1644926778245580800,2022-02-15-12:06:18,10.1.1.6,28,0.090,0.090,0.090,0.000,0.000,0.000
1644926778306512128,2022-02-15-12:06:18,10.1.1.6,37,0.100,0.100,0.100,0.000,0.000,0.000
1644926778347624960,2022-02-15-12:06:18,10.1.1.6,26,0.090,0.090,0.090,0.000,0.000,0.000
1644926778406658048,2022-02-15-12:06:18,10.1.1.6,35,0.080,0.080,0.080,0.000,0.000,0.000
1644926778447414016,2022-02-15-12:06:18,10.1.1.6,23,0.070,0.070,0.070,0.000,0.000,0.000
1644926778506784000,2022-02-15-12:06:18,10.1.1.6,33,0.060,0.060,0.060,0.000,0.000,0.000
1644926778548553984,2022-02-15-12:06:18,10.1.1.6,22,0.050,0.050,0.050,0.000,0.000,0.000
1644926778606467840,2022-02-15-12:06:18,10.1.1.6,31,0.040,0.040,0.040,0.000,0.000,0.000
1644926778647168000,2022-02-15-12:06:18,10.1.1.6,21,0.030,0.030,0.030,0.000,0.000,0.000
1644926778707716864,2022-02-15-12:06:18,10.1.1.6,30,0.020,0.020,0.020,0.000,0.000,0.000
1644926778766689024,2022-02-15-12:06:18,10.1.1.6,38,0.010,0.010,0.010,0.000,0.000,0.000
1644926778807697152,2022-02-15-12:06:18,10.1.1.6,27,0.000,0.000,0.000,0.000,0.000,0.000
1644926778866891008,2022-02-15-12:06:18,10.1.1.6,35,-0.010,-0.010,-0.010,0.000,0.000,0.000
1644926778907191040,2022-02-15-12:06:18,10.1.1.6,23,-0.020,-0.020,-0.020,0.000,0.000,0.000
1644926778966785024,2022-02-15-12:06:18,10.1.1.6,33,-0.030,-0.030,-0.030,0.000,0.000,0.000
1644926779008385792,2022-02-15-12:06:19,10.1.1.6,21,-0.040,-0.040,-0.040,0.000,0.000,0.000
1644926779067137024,2022-02-15-12:06:19,10.1.1.6,30,-0.050,-0.050,-0.050,0.000,0.000,0.000
1644926779127495168,2022-02-15-12:06:19,10.1.1.6,38,-0.060,-0.060,-0.060,0.000,0.000,0.000
1644926779166780928,2022-02-15-12:06:19,10.1.1.6,27,-0.070,-0.070,-0.070,0.000,0.000,0.000
1644926779227727872,2022-02-15-12:06:19,10.1.1.6,36,-0.080,-0.080,-0.080,0.000,0.000,0.000
1644926779266819072,2022-02-15-12:06:19,10.1.1.6,24,-0.090,-0.090,-0.090,0.000,0.000,0.000
1644926779326844928,2022-02-15-12:06:19,10.1.1.6,33,-0.100,-0.100,-0.100,0.000,0.000,0.000
1644926779367521024,2022-02-15-12:06:19,10.1.1.6,22,-0.090,-0.090,-0.090,0.000,0.000,0.000
1644926779427129088,2022-02-15-12:06:19,10.1.1.6,31,-0.080,-0.080,-0.080,0.000,0.000,0.000
1644926779467075072,2022-02-15-12:06:19,10.1.1.6,20,-0.070,-0.070,-0.070,0.000,0.000,0.000
1644926779526856960,2022-02-15-12:06:19,10.1.1.6,29,-0.060,-0.060,-0.060,0.000,0.000,0.000
1644926779587412992,2022-02-15-12:06:19,10.1.1.6,38,-0.050,-0.050,-0.050,0.000,0.000,0.000
1644926779627446784,2022-02-15-12:06:19,10.1.1.6,27,-0.040,-0.040,-0.040,0.000,0.000,0.000
1644926779686849024,2022-02-15-12:06:19,10.1.1.6,36,-0.030,-0.030,-0.030,0.000,0.000,0.000
1644926779727323136,2022-02-15-12:06:19,10.1.1.6,24,-0.020,-0.020,-0.020,0.000,0.000,0.000
1644926779787086848,2022-02-15-12:06:19,10.1.1.6,33,-0.010,-0.010,-0.010,0.000,0.000,0.000
1644926779828099840,2022-02-15-12:06:19,10.1.1.6,23,0.000,0.000,0.000,0.000,0.000,0.000
1644926779886814976,2022-02-15-12:06:19,10.1.1.6,32,0.010,0.010,0.010,0.000,0.000,0.000
1644926779927622144,2022-02-15-12:06:19,10.1.1.6,20,0.020,0.020,0.020,0.000,0.000,0.000
1644926779987211008,2022-02-15-12:06:19,10.1.1.6,29,0.030,0.030,0.030,0.000,0.000,0.000
1644926780047343104,2022-02-15-12:06:20,10.1.1.6,38,0.040,0.040,0.040,0.000,0.000,0.000
1644926780087755008,2022-02-15-12:06:20,10.1.1.6,27,0.050,0.050,0.050,0.000,0.000,0.000
1644926780146793984,2022-02-15-12:06:20,10.1.1.6,35,0.060,0.060,0.060,0.000,0.000,0.000
1644926780186587136,2022-02-15-12:06:20,10.1.1.6,24,0.070,0.070,0.070,0.000,0.000,0.000
1644926780246490112,2022-02-15-12:06:20,10.1.1.6,34,0.080,0.080,0.080,0.000,0.000,0.000
1644926780287627008,2022-02-15-12:06:20,10.1.1.6,22,0.090,0.090,0.090,0.000,0.000,0.000
1644926780346064128,2022-02-15-12:06:20,10.1.1.6,31,0.100,0.100,0.100,0.000,0.000,0.000
1644926780387088128,2022-02-15-12:06:20,10.1.1.6,21,0.090,0.090,0.090,0.000,0.000,0.000
1644926780505136128,2022-02-15-12:06:20,10.1.1.6,24,0.080,0.080,0.080,0.000,0.000,0.000
1644926780566690816,2022-02-15-12:06:20,10.1.1.6,33,0.070,0.070,0.070,0.000,0.000,0.000
1644926780606189056,2022-02-15-12:06:20,10.1.1.6,21,0.060,0.060,0.060,0.000,0.000,0.000
1644926780666054912,2022-02-15-12:06:20,10.1.1.6,29,0.050,0.050,0.050,0.000,0.000,0.000
1644926780726710016,2022-02-15-12:06:20,10.1.1.6,38,0.040,0.040,0.040,0.000,0.000,0.000
1644926780768677888,2022-02-15-12:06:20,10.1.1.6,28,0.030,0.030,0.030,0.000,0.000,0.000
1644926780827035904,2022-02-15-12:06:20,10.1.1.6,37,0.020,0.020,0.020,0.000,0.000,0.000
1644926780867516928,2022-02-15-12:06:20,10.1.1.6,26,0.010,0.010,0.010,0.000,0.000,0.000
1644926780927769856,2022-02-15-12:06:20,10.1.1.6,34,0.000,0.000,0.000,0.000,0.000,0.000
1644926780967632896,2022-02-15-12:06:20,10.1.1.6,24,-0.010,-0.010,-0.010,0.000,0.000,0.000
1644926781028441856,2022-02-15-12:06:21,10.1.1.6,33,-0.020,-0.020,-0.020,0.000,0.000,0.000
1644926781066586112,2022-02-15-12:06:21,10.1.1.6,22,-0.030,-0.030,-0.030,0.000,0.000,0.000
1644926781127955968,2022-02-15-12:06:21,10.1.1.6,32,-0.040,-0.040,-0.040,0.000,0.000,0.000
1644926781166585088,2022-02-15-12:06:21,10.1.1.6,21,-0.050,-0.050,-0.050,0.000,0.000,0.000
1644926781227894016,2022-02-15-12:06:21,10.1.1.6,30,-0.060,-0.060,-0.060,0.000,0.000,0.000
1644926781266340864,2022-02-15-12:06:21,10.1.1.6,19,-0.069,-0.069,-0.069,0.000,0.000,0.000
1644926781327308800,2022-02-15-12:06:21,10.1.1.6,26,-0.080,-0.080,-0.080,0.000,0.000,0.000
1644926781392997888,2022-02-15-12:06:21,10.1.1.6,35,-0.090,-0.090,-0.090,0.000,0.000,0.000
1644926781434294016,2022-02-15-12:06:21,10.1.1.6,24,-0.100,-0.100,-0.100,0.000,0.000,0.000
1644926781492669952,2022-02-15-12:06:21,10.1.1.6,30,-0.090,-0.090,-0.090,0.000,0.000,0.000
1644926781615084800,2022-02-15-12:06:21,10.1.1.6,31,-0.070,-0.070,-0.070,0.000,0.000,0.000
1644926781666123008,2022-02-15-12:06:21,10.1.1.6,35,-0.060,-0.060,-0.060,0.000,0.000,0.000
1644926781706428160,2022-02-15-12:06:21,10.1.1.6,25,-0.050,-0.050,-0.050,0.000,0.000,0.000
1644926781766946048,2022-02-15-12:06:21,10.1.1.6,32,-0.040,-0.040,-0.040,0.000,0.000,0.000
1644926781809571072,2022-02-15-12:06:21,10.1.1.6,22,-0.030,-0.030,-0.030,0.000,0.000,0.000
1644926781865793024,2022-02-15-12:06:21,10.1.1.6,30,-0.020,-0.020,-0.020,0.000,0.000,0.000
1644926781913438208,2022-02-15-12:06:21,10.1.1.6,19,-0.011,-0.011,-0.011,0.000,0.000,0.000
1644926781967099904,2022-02-15-12:06:21,10.1.1.6,27,0.000,0.000,0.000,0.000,0.000,0.000
1644926782032324096,2022-02-15-12:06:22,10.1.1.6,37,0.010,0.010,0.010,0.000,0.000,0.000
1644926782068443136,2022-02-15-12:06:22,10.1.1.6,27,0.020,0.020,0.020,0.000,0.000,0.000
1644926782126995968,2022-02-15-12:06:22,10.1.1.6,35,0.030,0.030,0.030,0.000,0.000,0.000
1644926782167359232,2022-02-15-12:06:22,10.1.1.6,22,0.040,0.040,0.040,0.000,0.000,0.000
1644926782227118848,2022-02-15-12:06:22,10.1.1.6,30,0.050,0.050,0.050,0.000,0.000,0.000
1644926782287524864,2022-02-15-12:06:22,10.1.1.6,38,0.060,0.060,0.060,0.000,0.000,0.000
1644926782326941952,2022-02-15-12:06:22,10.1.1.6,27,0.070,0.070,0.070,0.000,0.000,0.000
1644926782388380928,2022-02-15-12:06:22,10.1.1.6,36,0.080,0.080,0.080,0.000,0.000,0.000
1644926782425923072,2022-02-15-12:06:22,10.1.1.6,25,0.090,0.090,0.090,0.000,0.000,0.000
1644926782486959104,2022-02-15-12:06:22,10.1.1.6,33,0.100,0.100,0.100,0.000,0.000,0.000
1644926782525455872,2022-02-15-12:06:22,10.1.1.6,22,0.090,0.090,0.090,0.000,0.000,0.000
1644926782586925056,2022-02-15-12:06:22,10.1.1.6,32,0.080,0.080,0.080,0.000,0.000,0.000
1644926782626594048,2022-02-15-12:06:22,10.1.1.6,22,0.070,0.070,0.070,0.000,0.000,0.000
1644926782687894016,2022-02-15-12:06:22,10.1.1.6,30,0.060,0.060,0.060,0.000,0.000,0.000
1644926782725835008,2022-02-15-12:06:22,10.1.1.6,19,0.050,0.050,0.050,0.000,0.000,0.000
1644926782786248960,2022-02-15-12:06:22,10.1.1.6,29,0.040,0.040,0.040,0.000,0.000,0.000
1644926782845405184,2022-02-15-12:06:22,10.1.1.6,38,0.030,0.030,0.030,0.000,0.000,0.000
1644926782886902016,2022-02-15-12:06:22,10.1.1.6,27,0.020,0.020,0.020,0.000,0.000,0.000
1644926782946595840,2022-02-15-12:06:22,10.1.1.6,37,0.010,0.010,0.010,0.000,0.000,0.000
1644926782986316800,2022-02-15-12:06:22,10.1.1.6,25,0.000,0.000,0.000,0.000,0.000,0.000
1644926783046819072,2022-02-15-12:06:23,10.1.1.6,35,-0.010,-0.010,-0.010,0.000,0.000,0.000
1644926783085839104,2022-02-15-12:06:23,10.1.1.6,23,-0.020,-0.020,-0.020,0.000,0.000,0.000
1644926783145408000,2022-02-15-12:06:23,10.1.1.6,31,-0.030,-0.030,-0.030,0.000,0.000,0.000
1644926783186251008,2022-02-15-12:06:23,10.1.1.6,20,-0.039,-0.039,-0.039,0.000,0.000,0.000
1644926783245541120,2022-02-15-12:06:23,10.1.1.6,27,-0.050,-0.050,-0.050,0.000,0.000,0.000
1644926783307550976,2022-02-15-12:06:23,10.1.1.6,36,-0.060,-0.060,-0.060,0.000,0.000,0.000
1644926783345907968,2022-02-15-12:06:23,10.1.1.6,26,-0.070,-0.070,-0.070,0.000,0.000,0.000
1644926783406174976,2022-02-15-12:06:23,10.1.1.6,34,-0.080,-0.080,-0.080,0.000,0.000,0.000
1644926783447043840,2022-02-15-12:06:23,10.1.1.6,24,-0.090,-0.090,-0.090,0.000,0.000,0.000
1644926783507297024,2022-02-15-12:06:23,10.1.1.6,33,-0.100,-0.100,-0.100,0.000,0.000,0.000
1644926783548253952,2022-02-15-12:06:23,10.1.1.6,22,-0.090,-0.090,-0.090,0.000,0.000,0.000
1644926783606537216,2022-02-15-12:06:23,10.1.1.6,32,-0.080,-0.080,-0.080,0.000,0.000,0.000
1644926783646636032,2022-02-15-12:06:23,10.1.1.6,21,-0.070,-0.070,-0.070,0.000,0.000,0.000
1644926783705406976,2022-02-15-12:06:23,10.1.1.6,30,-0.060,-0.060,-0.060,0.000,0.000,0.000
1644926783747736832,2022-02-15-12:06:23,10.1.1.6,21,-0.051,-0.051,-0.051,0.000,0.000,0.000
1644926783806680064,2022-02-15-12:06:23,10.1.1.6,28,-0.040,-0.040,-0.040,0.000,0.000,0.000
1644926783866461952,2022-02-15-12:06:23,10.1.1.6,37,-0.030,-0.030,-0.030,0.000,0.000,0.000
1644926783906173952,2022-02-15-12:06:23,10.1.1.6,27,-0.020,-0.020,-0.020,0.000,0.000,0.000
1644926783965564928,2022-02-15-12:06:23,10.1.1.6,37,-0.010,-0.010,-0.010,0.000,0.000,0.000
1644926784006542848,2022-02-15-12:06:24,10.1.1.6,25,0.000,0.000,0.000,0.000,0.000,0.000
1644926784065707008,2022-02-15-12:06:24,10.1.1.6,34,0.010,0.010,0.010,0.000,0.000,0.000
1644926784106748160,2022-02-15-12:06:24,10.1.1.6,25,0.020,0.020,0.020,0.000,0.000,0.000
1644926784165925120,2022-02-15-12:06:24,10.1.1.6,34,0.030,0.030,0.030,0.000,0.000,0.000
1644926784206221056,2022-02-15-12:06:24,10.1.1.6,23,0.040,0.040,0.040,0.000,0.000,0.000
1644926784266227968,2022-02-15-12:06:24,10.1.1.6,32,0.050,0.050,0.050,0.000,0.000,0.000
1644926784305891072,2022-02-15-12:06:24,10.1.1.6,22,0.060,0.060,0.060,0.000,0.000,0.000
1644926784366831104,2022-02-15-12:06:24,10.1.1.6,31,0.070,0.070,0.070,0.000,0.000,0.000
1644926784406339840,2022-02-15-12:06:24,10.1.1.6,20,0.080,0.080,0.080,0.000,0.000,0.000
1644926784466244096,2022-02-15-12:06:24,10.1.1.6,30,0.090,0.090,0.090,0.000,0.000,0.000
1644926784506875136,2022-02-15-12:06:24,10.1.1.6,19,0.100,0.100,0.100,0.000,0.000,0.000
1644926784566339072,2022-02-15-12:06:24,10.1.1.6,29,0.090,0.090,0.090,0.000,0.000,0.000
1644926784626033152,2022-02-15-12:06:24,10.1.1.6,38,0.080,0.080,0.080,0.000,0.000,0.000
1644926784667289856,2022-02-15-12:06:24,10.1.1.6,28,0.070,0.070,0.070,0.000,0.000,0.000
1644926784725914880,2022-02-15-12:06:24,10.1.1.6,37,0.060,0.060,0.060,0.000,0.000,0.000
1644926784766236928,2022-02-15-12:06:24,10.1.1.6,26,0.050,0.050,0.050,0.000,0.000,0.000
1644926784826308864,2022-02-15-12:06:24,10.1.1.6,35,0.040,0.040,0.040,0.000,0.000,0.000
1644926784865358080,2022-02-15-12:06:24,10.1.1.6,23,0.030,0.030,0.030,0.000,0.000,0.000
1644926784926331136,2022-02-15-12:06:24,10.1.1.6,33,0.020,0.020,0.020,0.000,0.000,0.000
1644926784966799104,2022-02-15-12:06:24,10.1.1.6,23,0.010,0.010,0.010,0.000,0.000,0.000
1644926785026021888,2022-02-15-12:06:25,10.1.1.6,32,0.000,0.000,0.000,0.000,0.000,0.000
1644926785065635072,2022-02-15-12:06:25,10.1.1.6,21,-0.010,-0.010,-0.010,0.000,0.000,0.000
1644926785125401088,2022-02-15-12:06:25,10.1.1.6,30,-0.020,-0.020,-0.020,0.000,0.000,0.000
1644926785167459840,2022-02-15-12:06:25,10.1.1.6,19,-0.029,-0.029,-0.029,0.000,0.000,0.000
1644926785226507008,2022-02-15-12:06:25,10.1.1.6,28,-0.040,-0.040,-0.040,0.000,0.000,0.000
1644926785285149952,2022-02-15-12:06:25,10.1.1.6,37,-0.050,-0.050,-0.050,0.000,0.000,0.000
1644926785326836992,2022-02-15-12:06:25,10.1.1.6,26,-0.060,-0.060,-0.060,0.000,0.000,0.000
1644926785386519808,2022-02-15-12:06:25,10.1.1.6,36,-0.070,-0.070,-0.070,0.000,0.000,0.000
1644926785427320064,2022-02-15-12:06:25,10.1.1.6,25,-0.080,-0.080,-0.080,0.000,0.000,0.000
1644926785486316800,2022-02-15-12:06:25,10.1.1.6,34,-0.090,-0.090,-0.090,0.000,0.000,0.000
1644926785526093056,2022-02-15-12:06:25,10.1.1.6,23,-0.100,-0.100,-0.100,0.000,0.000,0.000
1644926785587325952,2022-02-15-12:06:25,10.1.1.6,32,-0.090,-0.090,-0.090,0.000,0.000,0.000
1644926785627963136,2022-02-15-12:06:25,10.1.1.6,21,-0.080,-0.080,-0.080,0.000,0.000,0.000
1644926785685168896,2022-02-15-12:06:25,10.1.1.6,30,-0.070,-0.070,-0.070,0.000,0.000,0.000
1644926785726938880,2022-02-15-12:06:25,10.1.1.6,20,-0.060,-0.060,-0.060,0.000,0.000,0.000
1644926785785763072,2022-02-15-12:06:25,10.1.1.6,29,-0.050,-0.050,-0.050,0.000,0.000,0.000
1644926785846817024,2022-02-15-12:06:25,10.1.1.6,37,-0.040,-0.040,-0.040,0.000,0.000,0.000
1644926785888092928,2022-02-15-12:06:25,10.1.1.6,27,-0.030,-0.030,-0.030,0.000,0.000,0.000
1644926785947670016,2022-02-15-12:06:25,10.1.1.6,36,-0.020,-0.020,-0.020,0.000,0.000,0.000
1644926785986804992,2022-02-15-12:06:25,10.1.1.6,25,-0.010,-0.010,-0.010,0.000,0.000,0.000
1644926786045571072,2022-02-15-12:06:26,10.1.1.6,34,0.000,0.000,0.000,0.000,0.000,0.000
1644926786088180992,2022-02-15-12:06:26,10.1.1.6,24,0.010,0.010,0.010,0.000,0.000,0.000
1644926786146970880,2022-02-15-12:06:26,10.1.1.6,31,0.020,0.020,0.020,0.000,0.000,0.000
1644926786186369792,2022-02-15-12:06:26,10.1.1.6,20,0.030,0.030,0.030,0.000,0.000,0.000
1644926786248308992,2022-02-15-12:06:26,10.1.1.6,29,0.040,0.040,0.040,0.000,0.000,0.000
1644926786307030016,2022-02-15-12:06:26,10.1.1.6,38,0.050,0.050,0.050,0.000,0.000,0.000
1644926786348644864,2022-02-15-12:06:26,10.1.1.6,28,0.060,0.060,0.060,0.000,0.000,0.000
1644926786406843904,2022-02-15-12:06:26,10.1.1.6,37,0.070,0.070,0.070,0.000,0.000,0.000
1644926786445966848,2022-02-15-12:06:26,10.1.1.6,26,0.080,0.080,0.080,0.000,0.000,0.000
1644926786506608128,2022-02-15-12:06:26,10.1.1.6,35,0.090,0.090,0.090,0.000,0.000,0.000
1644926786547187968,2022-02-15-12:06:26,10.1.1.6,24,0.100,0.100,0.100,0.000,0.000,0.000
1644926786606136064,2022-02-15-12:06:26,10.1.1.6,33,0.090,0.090,0.090,0.000,0.000,0.000
1644926786646870016,2022-02-15-12:06:26,10.1.1.6,23,0.080,0.080,0.080,0.000,0.000,0.000
1644926786706062080,2022-02-15-12:06:26,10.1.1.6,32,0.070,0.070,0.070,0.000,0.000,0.000
1644926786746603008,2022-02-15-12:06:26,10.1.1.6,20,0.060,0.060,0.060,0.000,0.000,0.000
1644926786805385984,2022-02-15-12:06:26,10.1.1.6,29,0.050,0.050,0.050,0.000,0.000,0.000
1644926786845575168,2022-02-15-12:06:26,10.1.1.6,19,0.041,0.041,0.041,0.000,0.000,0.000
1644926786906028032,2022-02-15-12:06:26,10.1.1.6,29,0.030,0.030,0.030,0.000,0.000,0.000
1644926786965424896,2022-02-15-12:06:26,10.1.1.6,38,0.020,0.020,0.020,0.000,0.000,0.000
1644926787006704128,2022-02-15-12:06:27,10.1.1.6,27,0.010,0.010,0.010,0.000,0.000,0.000
1644926787065995008,2022-02-15-12:06:27,10.1.1.6,35,0.000,0.000,0.000,0.000,0.000,0.000
1644926787106018048,2022-02-15-12:06:27,10.1.1.6,24,-0.010,-0.010,-0.010,0.000,0.000,0.000
1644926787166850048,2022-02-15-12:06:27,10.1.1.6,33,-0.020,-0.020,-0.020,0.000,0.000,0.000
1644926787205740032,2022-02-15-12:06:27,10.1.1.6,22,-0.030,-0.030,-0.030,0.000,0.000,0.000
1644926787265594112,2022-02-15-12:06:27,10.1.1.6,32,-0.040,-0.040,-0.040,0.000,0.000,0.000
1644926787306055168,2022-02-15-12:06:27,10.1.1.6,19,-0.050,-0.050,-0.050,0.000,0.000,0.000
1644926787366020864,2022-02-15-12:06:27,10.1.1.6,29,-0.060,-0.060,-0.060,0.000,0.000,0.000
1644926787426451968,2022-02-15-12:06:27,10.1.1.6,38,-0.070,-0.070,-0.070,0.000,0.000,0.000
1644926787465899008,2022-02-15-12:06:27,10.1.1.6,27,-0.080,-0.080,-0.080,0.000,0.000,0.000
1644926787525672960,2022-02-15-12:06:27,10.1.1.6,37,-0.090,-0.090,-0.090,0.000,0.000,0.000
1644926787565841920,2022-02-15-12:06:27,10.1.1.6,26,-0.100,-0.100,-0.100,0.000,0.000,0.000
1644926787626507008,2022-02-15-12:06:27,10.1.1.6,35,-0.090,-0.090,-0.090,0.000,0.000,0.000
1644926787667998976,2022-02-15-12:06:27,10.1.1.6,23,-0.080,-0.080,-0.080,0.000,0.000,0.000
1644926787726768128,2022-02-15-12:06:27,10.1.1.6,33,-0.070,-0.070,-0.070,0.000,0.000,0.000
1644926787766995968,2022-02-15-12:06:27,10.1.1.6,22,-0.060,-0.060,-0.060,0.000,0.000,0.000
1644926787826486016,2022-02-15-12:06:27,10.1.1.6,32,-0.050,-0.050,-0.050,0.000,0.000,0.000
1644926787866849024,2022-02-15-12:06:27,10.1.1.6,21,-0.040,-0.040,-0.040,0.000,0.000,0.000
1644926787927459840,2022-02-15-12:06:27,10.1.1.6,30,-0.030,-0.030,-0.030,0.000,0.000,0.000
1644926787986368000,2022-02-15-12:06:27,10.1.1.6,38,-0.020,-0.020,-0.020,0.000,0.000,0.000
1644926788026884096,2022-02-15-12:06:28,10.1.1.6,29,-0.010,-0.010,-0.010,0.000,0.000,0.000
1644926788086355968,2022-02-15-12:06:28,10.1.1.6,38,0.000,0.000,0.000,0.000,0.000,0.000
1644926788127791872,2022-02-15-12:06:28,10.1.1.6,27,0.010,0.010,0.010,0.000,0.000,0.000
1644926788185543936,2022-02-15-12:06:28,10.1.1.6,36,0.020,0.020,0.020,0.000,0.000,0.000
1644926788227611904,2022-02-15-12:06:28,10.1.1.6,26,0.030,0.030,0.030,0.000,0.000,0.000
1644926788285177088,2022-02-15-12:06:28,10.1.1.6,35,0.040,0.040,0.040,0.000,0.000,0.000
1644926788325890048,2022-02-15-12:06:28,10.1.1.6,22,0.050,0.050,0.050,0.000,0.000,0.000
1644926788385232896,2022-02-15-12:06:28,10.1.1.6,31,0.060,0.060,0.060,0.000,0.000,0.000
1644926788427767040,2022-02-15-12:06:28,10.1.1.6,21,0.070,0.070,0.070,0.000,0.000,0.000
1644926788486191104,2022-02-15-12:06:28,10.1.1.6,30,0.080,0.080,0.080,0.000,0.000,0.000
1644926788547763968,2022-02-15-12:06:28,10.1.1.6,39,0.090,0.090,0.090,0.000,0.000,0.000
1644926788587783936,2022-02-15-12:06:28,10.1.1.6,28,0.100,0.100,0.100,0.000,0.000,0.000
1644926788646673920,2022-02-15-12:06:28,10.1.1.6,36,0.090,0.090,0.090,0.000,0.000,0.000
1644926788688030976,2022-02-15-12:06:28,10.1.1.6,25,0.080,0.080,0.080,0.000,0.000,0.000
1644926788752006912,2022-02-15-12:06:28,10.1.1.6,34,0.070,0.070,0.070,0.000,0.000,0.000
1644926788787662080,2022-02-15-12:06:28,10.1.1.6,22,0.060,0.060,0.060,0.000,0.000,0.000
1644926788846822912,2022-02-15-12:06:28,10.1.1.6,32,0.050,0.050,0.050,0.000,0.000,0.000
1644926788889228032,2022-02-15-12:06:28,10.1.1.6,21,0.040,0.040,0.040,0.000,0.000,0.000
1644926788946984960,2022-02-15-12:06:28,10.1.1.6,30,0.030,0.030,0.030,0.000,0.000,0.000
1644926788986061056,2022-02-15-12:06:28,10.1.1.6,19,0.020,0.020,0.020,0.000,0.000,0.000
1644926789047971072,2022-02-15-12:06:29,10.1.1.6,30,0.010,0.010,0.010,0.000,0.000,0.000
1644926789147208960,2022-02-15-12:06:29,10.1.1.6,27,-0.010,-0.010,-0.010,0.000,0.000,0.000
1644926789206885120,2022-02-15-12:06:29,10.1.1.6,36,-0.020,-0.020,-0.020,0.000,0.000,0.000
1644926789245594880,2022-02-15-12:06:29,10.1.1.6,26,-0.030,-0.030,-0.030,0.000,0.000,0.000
1644926789306128128,2022-02-15-12:06:29,10.1.1.6,35,-0.040,-0.040,-0.040,0.000,0.000,0.000
1644926789346182144,2022-02-15-12:06:29,10.1.1.6,23,-0.050,-0.050,-0.050,0.000,0.000,0.000
1644926789407311872,2022-02-15-12:06:29,10.1.1.6,34,-0.060,-0.060,-0.060,0.000,0.000,0.000
1644926789446404096,2022-02-15-12:06:29,10.1.1.6,23,-0.070,-0.070,-0.070,0.000,0.000,0.000
1644926789506642176,2022-02-15-12:06:29,10.1.1.6,33,-0.080,-0.080,-0.080,0.000,0.000,0.000
1644926789546392064,2022-02-15-12:06:29,10.1.1.6,22,-0.090,-0.090,-0.090,0.000,0.000,0.000
1644926789605537024,2022-02-15-12:06:29,10.1.1.6,31,-0.100,-0.100,-0.100,0.000,0.000,0.000
1644926789646501120,2022-02-15-12:06:29,10.1.1.6,20,-0.090,-0.090,-0.090,0.000,0.000,0.000
1644926789706659072,2022-02-15-12:06:29,10.1.1.6,29,-0.080,-0.080,-0.080,0.000,0.000,0.000
1644926789768313856,2022-02-15-12:06:29,10.1.1.6,38,-0.070,-0.070,-0.070,0.000,0.000,0.000
1644926789807482880,2022-02-15-12:06:29,10.1.1.6,27,-0.060,-0.060,-0.060,0.000,0.000,0.000
1644926789865329152,2022-02-15-12:06:29,10.1.1.6,37,-0.050,-0.050,-0.050,0.000,0.000,0.000
1644926789905988096,2022-02-15-12:06:29,10.1.1.6,26,-0.040,-0.040,-0.040,0.000,0.000,0.000
1644926789965678848,2022-02-15-12:06:29,10.1.1.6,36,-0.030,-0.030,-0.030,0.000,0.000,0.000
1644926790007170816,2022-02-15-12:06:30,10.1.1.6,26,-0.020,-0.020,-0.020,0.000,0.000,0.000
1644926790066683136,2022-02-15-12:06:30,10.1.1.6,33,-0.010,-0.010,-0.010,0.000,0.000,0.000
1644926790106295040,2022-02-15-12:06:30,10.1.1.6,22,0.000,0.000,0.000,0.000,0.000,0.000
1644926790165069056,2022-02-15-12:06:30,10.1.1.6,31,0.010,0.010,0.010,0.000,0.000,0.000
1644926790227320064,2022-02-15-12:06:30,10.1.1.6,38,0.020,0.020,0.020,0.000,0.000,0.000
1644926790267276032,2022-02-15-12:06:30,10.1.1.6,27,0.030,0.030,0.030,0.000,0.000,0.000
1644926790326173952,2022-02-15-12:06:30,10.1.1.6,38,0.040,0.040,0.040,0.000,0.000,0.000
1644926790366393088,2022-02-15-12:06:30,10.1.1.6,26,0.050,0.050,0.050,0.000,0.000,0.000
1644926790426761984,2022-02-15-12:06:30,10.1.1.6,34,0.060,0.060,0.060,0.000,0.000,0.000
1644926790466465024,2022-02-15-12:06:30,10.1.1.6,23,0.070,0.070,0.070,0.000,0.000,0.000
1644926790526380032,2022-02-15-12:06:30,10.1.1.6,33,0.080,0.080,0.080,0.000,0.000,0.000
1644926790566828032,2022-02-15-12:06:30,10.1.1.6,22,0.090,0.090,0.090,0.000,0.000,0.000
1644926790627373824,2022-02-15-12:06:30,10.1.1.6,32,0.100,0.100,0.100,0.000,0.000,0.000
1644926790665873152,2022-02-15-12:06:30,10.1.1.6,21,0.090,0.090,0.090,0.000,0.000,0.000
1644926790727941120,2022-02-15-12:06:30,10.1.1.6,30,0.080,0.080,0.080,0.000,0.000,0.000
1644926790786746880,2022-02-15-12:06:30,10.1.1.6,39,0.070,0.070,0.070,0.000,0.000,0.000
1644926790825867776,2022-02-15-12:06:30,10.1.1.6,28,0.060,0.060,0.060,0.000,0.000,0.000
1644926790885405952,2022-02-15-12:06:30,10.1.1.6,37,0.050,0.050,0.050,0.000,0.000,0.000
1644926790925649920,2022-02-15-12:06:30,10.1.1.6,26,0.040,0.040,0.040,0.000,0.000,0.000
1644926790985598208,2022-02-15-12:06:30,10.1.1.6,35,0.030,0.030,0.030,0.000,0.000,0.000
1644926791028734976,2022-02-15-12:06:31,10.1.1.6,23,0.020,0.020,0.020,0.000,0.000,0.000
1644926791085380096,2022-02-15-12:06:31,10.1.1.6,32,0.010,0.010,0.010,0.000,0.000,0.000
1644926791126998016,2022-02-15-12:06:31,10.1.1.6,21,0.000,0.000,0.000,0.000,0.000,0.000
1644926791186251008,2022-02-15-12:06:31,10.1.1.6,30,-0.010,-0.010,-0.010,0.000,0.000,0.000
1644926791227119872,2022-02-15-12:06:31,10.1.1.6,19,-0.020,-0.020,-0.020,0.000,0.000,0.000
1644926791288059904,2022-02-15-12:06:31,10.1.1.6,29,-0.030,-0.030,-0.030,0.000,0.000,0.000
1644926791346344960,2022-02-15-12:06:31,10.1.1.6,38,-0.040,-0.040,-0.040,0.000,0.000,0.000
1644926791385932032,2022-02-15-12:06:31,10.1.1.6,25,-0.050,-0.050,-0.050,0.000,0.000,0.000
1644926791447163136,2022-02-15-12:06:31,10.1.1.6,33,-0.060,-0.060,-0.060,0.000,0.000,0.000
1644926791487514880,2022-02-15-12:06:31,10.1.1.6,22,-0.070,-0.070,-0.070,0.000,0.000,0.000
1644926791555068928,2022-02-15-12:06:31,10.1.1.6,32,-0.080,-0.080,-0.080,0.000,0.000,0.000
1644926791586352128,2022-02-15-12:06:31,10.1.1.6,21,-0.090,-0.090,-0.090,0.000,0.000,0.000
1644926791647747072,2022-02-15-12:06:31,10.1.1.6,30,-0.100,-0.100,-0.100,0.000,0.000,0.000
1644926791708059136,2022-02-15-12:06:31,10.1.1.6,38,-0.090,-0.090,-0.090,0.000,0.000,0.000
1644926791757703168,2022-02-15-12:06:31,10.1.1.6,27,-0.080,-0.080,-0.080,0.000,0.000,0.000
1644926791807034112,2022-02-15-12:06:31,10.1.1.6,36,-0.070,-0.070,-0.070,0.000,0.000,0.000
1644926791846833920,2022-02-15-12:06:31,10.1.1.6,25,-0.060,-0.060,-0.060,0.000,0.000,0.000
1644926791906585088,2022-02-15-12:06:31,10.1.1.6,23,-0.050,-0.050,-0.050,0.000,0.000,0.000
1644926791974562816,2022-02-15-12:06:31,10.1.1.6,32,-0.040,-0.040,-0.040,0.000,0.000,0.000
1644926792176072960,2022-02-15-12:06:32,10.1.1.6,28,0.000,0.000,0.000,0.000,0.000,0.000
1644926792235409920,2022-02-15-12:06:32,10.1.1.6,35,0.010,0.010,0.010,0.000,0.000,0.000
1644926792331571200,2022-02-15-12:06:32,10.1.1.6,36,0.030,0.030,0.030,0.000,0.000,0.000
1644926792366766848,2022-02-15-12:06:32,10.1.1.6,22,0.040,0.040,0.040,0.000,0.000,0.000
1644926792426214912,2022-02-15-12:06:32,10.1.1.6,32,0.050,0.050,0.050,0.000,0.000,0.000
1644926792466226944,2022-02-15-12:06:32,10.1.1.6,21,0.060,0.060,0.060,0.000,0.000,0.000
1644926792529831936,2022-02-15-12:06:32,10.1.1.6,31,0.070,0.070,0.070,0.000,0.000,0.000
1644926792586991104,2022-02-15-12:06:32,10.1.1.6,35,0.080,0.080,0.080,0.000,0.000,0.000
1644926792687855104,2022-02-15-12:06:32,10.1.1.6,28,0.100,0.100,0.100,0.000,0.000,0.000
1644926792807833856,2022-02-15-12:06:32,10.1.1.6,39,0.080,0.080,0.080,0.000,0.000,0.000
1644926792906387968,2022-02-15-12:06:32,10.1.1.6,26,0.060,0.060,0.060,0.000,0.000,0.000
1644926792970482176,2022-02-15-12:06:32,10.1.1.6,35,0.050,0.050,0.050,0.000,0.000,0.000
1644926793013051904,2022-02-15-12:06:33,10.1.1.6,25,0.040,0.040,0.040,0.000,0.000,0.000
1644926793109464832,2022-02-15-12:06:33,10.1.1.6,23,0.020,0.020,0.020,0.000,0.000,0.000
1644926793167177984,2022-02-15-12:06:33,10.1.1.6,32,0.010,0.010,0.010,0.000,0.000,0.000
1644926793205403136,2022-02-15-12:06:33,10.1.1.6,22,0.000,0.000,0.000,0.000,0.000,0.000
1644926793265778944,2022-02-15-12:06:33,10.1.1.6,31,-0.010,-0.010,-0.010,0.000,0.000,0.000
1644926793305854208,2022-02-15-12:06:33,10.1.1.6,21,-0.020,-0.020,-0.020,0.000,0.000,0.000
1644926793366516224,2022-02-15-12:06:33,10.1.1.6,30,-0.030,-0.030,-0.030,0.000,0.000,0.000
1644926793406099200,2022-02-15-12:06:33,10.1.1.6,20,-0.040,-0.040,-0.040,0.000,0.000,0.000
1644926793466521088,2022-02-15-12:06:33,10.1.1.6,29,-0.050,-0.050,-0.050,0.000,0.000,0.000
1644926793529457920,2022-02-15-12:06:33,10.1.1.6,38,-0.060,-0.060,-0.060,0.000,0.000,0.000
1644926793646494976,2022-02-15-12:06:33,10.1.1.6,28,-0.080,-0.080,-0.080,0.000,0.000,0.000
1644926793705996032,2022-02-15-12:06:33,10.1.1.6,38,-0.090,-0.090,-0.090,0.000,0.000,0.000
1644926793746231040,2022-02-15-12:06:33,10.1.1.6,27,-0.100,-0.100,-0.100,0.000,0.000,0.000
1644926793806418944,2022-02-15-12:06:33,10.1.1.6,37,-0.090,-0.090,-0.090,0.000,0.000,0.000
1644926793845950976,2022-02-15-12:06:33,10.1.1.6,26,-0.080,-0.080,-0.080,0.000,0.000,0.000
1644926793906276864,2022-02-15-12:06:33,10.1.1.6,35,-0.070,-0.070,-0.070,0.000,0.000,0.000
1644926793946329088,2022-02-15-12:06:33,10.1.1.6,25,-0.060,-0.060,-0.060,0.000,0.000,0.000
1644926794005473024,2022-02-15-12:06:34,10.1.1.6,34,-0.050,-0.050,-0.050,0.000,0.000,0.000
1644926794046089984,2022-02-15-12:06:34,10.1.1.6,23,-0.040,-0.040,-0.040,0.000,0.000,0.000
1644926794105472000,2022-02-15-12:06:34,10.1.1.6,33,-0.030,-0.030,-0.030,0.000,0.000,0.000
1644926794146430976,2022-02-15-12:06:34,10.1.1.6,23,-0.020,-0.020,-0.020,0.000,0.000,0.000
1644926794205888000,2022-02-15-12:06:34,10.1.1.6,32,-0.010,-0.010,-0.010,0.000,0.000,0.000
1644926794246457088,2022-02-15-12:06:34,10.1.1.6,21,0.000,0.000,0.000,0.000,0.000,0.000
1644926794306056960,2022-02-15-12:06:34,10.1.1.6,31,0.010,0.010,0.010,0.000,0.000,0.000
1644926794345825792,2022-02-15-12:06:34,10.1.1.6,20,0.020,0.020,0.020,0.000,0.000,0.000
1644926794405849088,2022-02-15-12:06:34,10.1.1.6,29,0.030,0.030,0.030,0.000,0.000,0.000
1644926794466428160,2022-02-15-12:06:34,10.1.1.6,38,0.040,0.040,0.040,0.000,0.000,0.000
1644926794506253056,2022-02-15-12:06:34,10.1.1.6,28,0.050,0.050,0.050,0.000,0.000,0.000
1644926794566162944,2022-02-15-12:06:34,10.1.1.6,37,0.060,0.060,0.060,0.000,0.000,0.000
1644926794605593088,2022-02-15-12:06:34,10.1.1.6,26,0.070,0.070,0.070,0.000,0.000,0.000
1644926794665939968,2022-02-15-12:06:34,10.1.1.6,36,0.080,0.080,0.080,0.000,0.000,0.000
1644926794706244864,2022-02-15-12:06:34,10.1.1.6,26,0.090,0.090,0.090,0.000,0.000,0.000
1644926794767066880,2022-02-15-12:06:34,10.1.1.6,36,0.100,0.100,0.100,0.000,0.000,0.000
1644926794805965056,2022-02-15-12:06:34,10.1.1.6,25,0.090,0.090,0.090,0.000,0.000,0.000
1644926794865886976,2022-02-15-12:06:34,10.1.1.6,34,0.080,0.080,0.080,0.000,0.000,0.000
1644926794905654016,2022-02-15-12:06:34,10.1.1.6,23,0.070,0.070,0.070,0.000,0.000,0.000
1644926794965435904,2022-02-15-12:06:34,10.1.1.6,32,0.060,0.060,0.060,0.000,0.000,0.000
1644926795005896960,2022-02-15-12:06:35,10.1.1.6,22,0.050,0.050,0.050,0.000,0.000,0.000
1644926795065999872,2022-02-15-12:06:35,10.1.1.6,31,0.040,0.040,0.040,0.000,0.000,0.000
1644926795106498048,2022-02-15-12:06:35,10.1.1.6,21,0.030,0.030,0.030,0.000,0.000,0.000
1644926795165445120,2022-02-15-12:06:35,10.1.1.6,30,0.020,0.020,0.020,0.000,0.000,0.000
1644926795205499904,2022-02-15-12:06:35,10.1.1.6,19,0.010,0.010,0.010,0.000,0.000,0.000
1644926795266171904,2022-02-15-12:06:35,10.1.1.6,29,0.000,0.000,0.000,0.000,0.000,0.000
1644926795305934080,2022-02-15-12:06:35,10.1.1.6,18,-0.009,-0.009,-0.009,0.000,0.000,0.000
1644926795365508096,2022-02-15-12:06:35,10.1.1.6,28,-0.020,-0.020,-0.020,0.000,0.000,0.000
1644926795427450880,2022-02-15-12:06:35,10.1.1.6,37,-0.030,-0.030,-0.030,0.000,0.000,0.000
1644926795465446912,2022-02-15-12:06:35,10.1.1.6,26,-0.040,-0.040,-0.040,0.000,0.000,0.000
1644926795525918976,2022-02-15-12:06:35,10.1.1.6,36,-0.050,-0.050,-0.050,0.000,0.000,0.000
1644926795566160896,2022-02-15-12:06:35,10.1.1.6,25,-0.060,-0.060,-0.060,0.000,0.000,0.000
1644926795625939968,2022-02-15-12:06:35,10.1.1.6,35,-0.070,-0.070,-0.070,0.000,0.000,0.000
1644926795665669888,2022-02-15-12:06:35,10.1.1.6,24,-0.080,-0.080,-0.080,0.000,0.000,0.000
1644926795725326080,2022-02-15-12:06:35,10.1.1.6,34,-0.090,-0.090,-0.090,0.000,0.000,0.000
1644926795765427968,2022-02-15-12:06:35,10.1.1.6,23,-0.100,-0.100,-0.100,0.000,0.000,0.000
1644926795825472000,2022-02-15-12:06:35,10.1.1.6,33,-0.090,-0.090,-0.090,0.000,0.000,0.000
1644926795866319872,2022-02-15-12:06:35,10.1.1.6,22,-0.080,-0.080,-0.080,0.000,0.000,0.000
1644926795925885952,2022-02-15-12:06:35,10.1.1.6,31,-0.070,-0.070,-0.070,0.000,0.000,0.000
1644926795965513984,2022-02-15-12:06:35,10.1.1.6,21,-0.060,-0.060,-0.060,0.000,0.000,0.000
1644926796026043904,2022-02-15-12:06:36,10.1.1.6,31,-0.050,-0.050,-0.050,0.000,0.000,0.000
1644926796066759168,2022-02-15-12:06:36,10.1.1.6,20,-0.040,-0.040,-0.040,0.000,0.000,0.000
1644926796125462016,2022-02-15-12:06:36,10.1.1.6,29,-0.030,-0.030,-0.030,0.000,0.000,0.000
1644926796165903104,2022-02-15-12:06:36,10.1.1.6,19,-0.021,-0.021,-0.021,0.000,0.000,0.000
1644926796226330112,2022-02-15-12:06:36,10.1.1.6,29,-0.010,-0.010,-0.010,0.000,0.000,0.000
1644926796286272000,2022-02-15-12:06:36,10.1.1.6,38,0.000,0.000,0.000,0.000,0.000,0.000
1644926796326723072,2022-02-15-12:06:36,10.1.1.6,27,0.010,0.010,0.010,0.000,0.000,0.000
1644926796385548032,2022-02-15-12:06:36,10.1.1.6,36,0.020,0.020,0.020,0.000,0.000,0.000
1644926796426390784,2022-02-15-12:06:36,10.1.1.6,26,0.030,0.030,0.030,0.000,0.000,0.000
1644926796486945024,2022-02-15-12:06:36,10.1.1.6,35,0.040,0.040,0.040,0.000,0.000,0.000
1644926796525927936,2022-02-15-12:06:36,10.1.1.6,24,0.050,0.050,0.050,0.000,0.000,0.000
1644926796585495040,2022-02-15-12:06:36,10.1.1.6,33,0.060,0.060,0.060,0.000,0.000,0.000
1644926796626321920,2022-02-15-12:06:36,10.1.1.6,23,0.070,0.070,0.070,0.000,0.000,0.000
1644926796685496064,2022-02-15-12:06:36,10.1.1.6,33,0.080,0.080,0.080,0.000,0.000,0.000
1644926796725879040,2022-02-15-12:06:36,10.1.1.6,22,0.090,0.090,0.090,0.000,0.000,0.000
1644926796785619968,2022-02-15-12:06:36,10.1.1.6,31,0.100,0.100,0.100,0.000,0.000,0.000
1644926796826195968,2022-02-15-12:06:36,10.1.1.6,20,0.090,0.090,0.090,0.000,0.000,0.000
1644926796885363968,2022-02-15-12:06:36,10.1.1.6,29,0.080,0.080,0.080,0.000,0.000,0.000
1644926796945698048,2022-02-15-12:06:36,10.1.1.6,38,0.070,0.070,0.070,0.000,0.000,0.000
1644926796985585920,2022-02-15-12:06:36,10.1.1.6,28,0.060,0.060,0.060,0.000,0.000,0.000
1644926797045545984,2022-02-15-12:06:37,10.1.1.6,37,0.050,0.050,0.050,0.000,0.000,0.000
1644926797085547008,2022-02-15-12:06:37,10.1.1.6,26,0.040,0.040,0.040,0.000,0.000,0.000
1644926797146627840,2022-02-15-12:06:37,10.1.1.6,36,0.030,0.030,0.030,0.000,0.000,0.000
1644926797185761024,2022-02-15-12:06:37,10.1.1.6,25,0.020,0.020,0.020,0.000,0.000,0.000
1644926797246351872,2022-02-15-12:06:37,10.1.1.6,35,0.010,0.010,0.010,0.000,0.000,0.000
1644926797285993984,2022-02-15-12:06:37,10.1.1.6,24,0.000,0.000,0.000,0.000,0.000,0.000
1644926797345735936,2022-02-15-12:06:37,10.1.1.6,34,-0.010,-0.010,-0.010,0.000,0.000,0.000
1644926797386137088,2022-02-15-12:06:37,10.1.1.6,23,-0.020,-0.020,-0.020,0.000,0.000,0.000
1644926797445357056,2022-02-15-12:06:37,10.1.1.6,33,-0.030,-0.030,-0.030,0.000,0.000,0.000
1644926797485956864,2022-02-15-12:06:37,10.1.1.6,22,-0.040,-0.040,-0.040,0.000,0.000,0.000
1644926797546061056,2022-02-15-12:06:37,10.1.1.6,32,-0.050,-0.050,-0.050,0.000,0.000,0.000
1644926797586385920,2022-02-15-12:06:37,10.1.1.6,21,-0.060,-0.060,-0.060,0.000,0.000,0.000
1644926797646213888,2022-02-15-12:06:37,10.1.1.6,31,-0.070,-0.070,-0.070,0.000,0.000,0.000
1644926797686167040,2022-02-15-12:06:37,10.1.1.6,20,-0.080,-0.080,-0.080,0.000,0.000,0.000
1644926797746592000,2022-02-15-12:06:37,10.1.1.6,30,-0.090,-0.090,-0.090,0.000,0.000,0.000
1644926797785988096,2022-02-15-12:06:37,10.1.1.6,19,-0.100,-0.100,-0.100,0.000,0.000,0.000
1644926797845936896,2022-02-15-12:06:37,10.1.1.6,28,-0.090,-0.090,-0.090,0.000,0.000,0.000
1644926797906006016,2022-02-15-12:06:37,10.1.1.6,38,-0.080,-0.080,-0.080,0.000,0.000,0.000
1644926797945415936,2022-02-15-12:06:37,10.1.1.6,27,-0.070,-0.070,-0.070,0.000,0.000,0.000
1644926798006385152,2022-02-15-12:06:38,10.1.1.6,37,-0.060,-0.060,-0.060,0.000,0.000,0.000
1644926798045399808,2022-02-15-12:06:38,10.1.1.6,26,-0.050,-0.050,-0.050,0.000,0.000,0.000
1644926798106333952,2022-02-15-12:06:38,10.1.1.6,35,-0.040,-0.040,-0.040,0.000,0.000,0.000
1644926798145750016,2022-02-15-12:06:38,10.1.1.6,25,-0.030,-0.030,-0.030,0.000,0.000,0.000
1644926798205664000,2022-02-15-12:06:38,10.1.1.6,35,-0.020,-0.020,-0.020,0.000,0.000,0.000
1644926798245618176,2022-02-15-12:06:38,10.1.1.6,23,-0.010,-0.010,-0.010,0.000,0.000,0.000
1644926798305562112,2022-02-15-12:06:38,10.1.1.6,33,0.000,0.000,0.000,0.000,0.000,0.000
1644926798346268928,2022-02-15-12:06:38,10.1.1.6,22,0.010,0.010,0.010,0.000,0.000,0.000
1644926798405324032,2022-02-15-12:06:38,10.1.1.6,32,0.020,0.020,0.020,0.000,0.000,0.000
1644926798445894912,2022-02-15-12:06:38,10.1.1.6,22,0.030,0.030,0.030,0.000,0.000,0.000
1644926798505744896,2022-02-15-12:06:38,10.1.1.6,31,0.040,0.040,0.040,0.000,0.000,0.000
1644926798546300928,2022-02-15-12:06:38,10.1.1.6,21,0.050,0.050,0.050,0.000,0.000,0.000
1644926798605624832,2022-02-15-12:06:38,10.1.1.6,29,0.060,0.060,0.060,0.000,0.000,0.000
1644926798645651200,2022-02-15-12:06:38,10.1.1.6,19,0.069,0.069,0.069,0.000,0.000,0.000
1644926798705615104,2022-02-15-12:06:38,10.1.1.6,27,0.080,0.080,0.080,0.000,0.000,0.000
1644926798765937152,2022-02-15-12:06:38,10.1.1.6,37,0.090,0.090,0.090,0.000,0.000,0.000
1644926798806104064,2022-02-15-12:06:38,10.1.1.6,27,0.100,0.100,0.100,0.000,0.000,0.000
1644926798866610944,2022-02-15-12:06:38,10.1.1.6,36,0.090,0.090,0.090,0.000,0.000,0.000
1644926798966614016,2022-02-15-12:06:38,10.1.1.6,31,0.070,0.070,0.070,0.000,0.000,0.000
1644926799006184192,2022-02-15-12:06:39,10.1.1.6,20,0.060,0.060,0.060,0.000,0.000,0.000
1644926799066209024,2022-02-15-12:06:39,10.1.1.6,30,0.050,0.050,0.050,0.000,0.000,0.000
1644926799108713984,2022-02-15-12:06:39,10.1.1.6,21,0.040,0.040,0.040,0.000,0.000,0.000
1644926799165658880,2022-02-15-12:06:39,10.1.1.6,29,0.030,0.030,0.030,0.000,0.000,0.000
1644926799209145088,2022-02-15-12:06:39,10.1.1.6,19,0.021,0.021,0.021,0.000,0.000,0.000
1644926799346179072,2022-02-15-12:06:39,10.1.1.6,31,0.000,0.000,0.000,0.000,0.000,0.000
1644926799385659904,2022-02-15-12:06:39,10.1.1.6,21,-0.010,-0.010,-0.010,0.000,0.000,0.000
1644926799445606912,2022-02-15-12:06:39,10.1.1.6,29,-0.020,-0.020,-0.020,0.000,0.000,0.000
1644926799485990912,2022-02-15-12:06:39,10.1.1.6,19,-0.030,-0.030,-0.030,0.000,0.000,0.000
1644926799545731072,2022-02-15-12:06:39,10.1.1.6,28,-0.040,-0.040,-0.040,0.000,0.000,0.000
1644926799605846784,2022-02-15-12:06:39,10.1.1.6,38,-0.050,-0.050,-0.050,0.000,0.000,0.000
1644926799645998080,2022-02-15-12:06:39,10.1.1.6,28,-0.060,-0.060,-0.060,0.000,0.000,0.000
1644926799706033920,2022-02-15-12:06:39,10.1.1.6,36,-0.070,-0.070,-0.070,0.000,0.000,0.000
1644926799746318080,2022-02-15-12:06:39,10.1.1.6,26,-0.080,-0.080,-0.080,0.000,0.000,0.000
1644926799805424896,2022-02-15-12:06:39,10.1.1.6,35,-0.090,-0.090,-0.090,0.000,0.000,0.000
1644926799845702912,2022-02-15-12:06:39,10.1.1.6,23,-0.100,-0.100,-0.100,0.000,0.000,0.000
1644926799908567040,2022-02-15-12:06:39,10.1.1.6,35,-0.090,-0.090,-0.090,0.000,0.000,0.000
1644926799947552000,2022-02-15-12:06:39,10.1.1.6,22,-0.080,-0.080,-0.080,0.000,0.000,0.000
1644926800016836864,2022-02-15-12:06:40,10.1.1.6,31,-0.070,-0.070,-0.070,0.000,0.000,0.000
1644926800066721792,2022-02-15-12:06:40,10.1.1.6,33,-0.060,-0.060,-0.060,0.000,0.000,0.000
1644926800105384960,2022-02-15-12:06:40,10.1.1.6,22,-0.050,-0.050,-0.050,0.000,0.000,0.000
1644926800167640064,2022-02-15-12:06:40,10.1.1.6,31,-0.040,-0.040,-0.040,0.000,0.000,0.000
1644926800206187008,2022-02-15-12:06:40,10.1.1.6,19,-0.031,-0.031,-0.031,0.000,0.000,0.000
1644926800265934080,2022-02-15-12:06:40,10.1.1.6,29,-0.020,-0.020,-0.020,0.000,0.000,0.000
1644926800325676032,2022-02-15-12:06:40,10.1.1.6,38,-0.010,-0.010,-0.010,0.000,0.000,0.000
1644926800365799936,2022-02-15-12:06:40,10.1.1.6,25,0.000,0.000,0.000,0.000,0.000,0.000
1644926800425911040,2022-02-15-12:06:40,10.1.1.6,34,0.010,0.010,0.010,0.000,0.000,0.000
1644926800467086080,2022-02-15-12:06:40,10.1.1.6,23,0.020,0.020,0.020,0.000,0.000,0.000
1644926800525976832,2022-02-15-12:06:40,10.1.1.6,30,0.030,0.030,0.030,0.000,0.000,0.000
1644926800586942976,2022-02-15-12:06:40,10.1.1.6,33,0.040,0.040,0.040,0.000,0.000,0.000
1644926800627950080,2022-02-15-12:06:40,10.1.1.6,22,0.050,0.050,0.050,0.000,0.000,0.000
1644926800685916928,2022-02-15-12:06:40,10.1.1.6,26,0.060,0.060,0.060,0.000,0.000,0.000
1644926800752950784,2022-02-15-12:06:40,10.1.1.6,35,0.070,0.070,0.070,0.000,0.000,0.000
1644926800785711104,2022-02-15-12:06:40,10.1.1.6,23,0.080,0.080,0.080,0.000,0.000,0.000
1644926800846321152,2022-02-15-12:06:40,10.1.1.6,31,0.090,0.090,0.090,0.000,0.000,0.000
1644926800899086848,2022-02-15-12:06:40,10.1.1.6,20,0.100,0.100,0.100,0.000,0.000,0.000
1644926800947858176,2022-02-15-12:06:40,10.1.1.6,26,0.090,0.090,0.090,0.000,0.000,0.000
1644926801006188032,2022-02-15-12:06:41,10.1.1.6,35,0.080,0.080,0.080,0.000,0.000,0.000
1644926801045843968,2022-02-15-12:06:41,10.1.1.6,24,0.070,0.070,0.070,0.000,0.000,0.000
1644926801105639936,2022-02-15-12:06:41,10.1.1.6,34,0.060,0.060,0.060,0.000,0.000,0.000
1644926801146554880,2022-02-15-12:06:41,10.1.1.6,23,0.050,0.050,0.050,0.000,0.000,0.000
1644926801206046976,2022-02-15-12:06:41,10.1.1.6,33,0.040,0.040,0.040,0.000,0.000,0.000
1644926801246129152,2022-02-15-12:06:41,10.1.1.6,22,0.030,0.030,0.030,0.000,0.000,0.000
1644926801305531904,2022-02-15-12:06:41,10.1.1.6,32,0.020,0.020,0.020,0.000,0.000,0.000
1644926801350039040,2022-02-15-12:06:41,10.1.1.6,21,0.010,0.010,0.010,0.000,0.000,0.000
1644926801405696000,2022-02-15-12:06:41,10.1.1.6,30,0.000,0.000,0.000,0.000,0.000,0.000
1644926801445548032,2022-02-15-12:06:41,10.1.1.6,19,-0.010,-0.010,-0.010,0.000,0.000,0.000
1644926801505764864,2022-02-15-12:06:41,10.1.1.6,29,-0.020,-0.020,-0.020,0.000,0.000,0.000
1644926801567894016,2022-02-15-12:06:41,10.1.1.6,37,-0.030,-0.030,-0.030,0.000,0.000,0.000
1644926801605856000,2022-02-15-12:06:41,10.1.1.6,26,-0.040,-0.040,-0.040,0.000,0.000,0.000
1644926801665347072,2022-02-15-12:06:41,10.1.1.6,34,-0.050,-0.050,-0.050,0.000,0.000,0.000
1644926801705185024,2022-02-15-12:06:41,10.1.1.6,23,-0.060,-0.060,-0.060,0.000,0.000,0.000
1644926801765291008,2022-02-15-12:06:41,10.1.1.6,33,-0.070,-0.070,-0.070,0.000,0.000,0.000
1644926801806170880,2022-02-15-12:06:41,10.1.1.6,21,-0.080,-0.080,-0.080,0.000,0.000,0.000
1644926801866290176,2022-02-15-12:06:41,10.1.1.6,30,-0.090,-0.090,-0.090,0.000,0.000,0.000
1644926801905716992,2022-02-15-12:06:41,10.1.1.6,20,-0.100,-0.100,-0.100,0.000,0.000,0.000
1644926801965581824,2022-02-15-12:06:41,10.1.1.6,29,-0.090,-0.090,-0.090,0.000,0.000,0.000
1644926802026338048,2022-02-15-12:06:42,10.1.1.6,38,-0.080,-0.080,-0.080,0.000,0.000,0.000
1644926802069139968,2022-02-15-12:06:42,10.1.1.6,29,-0.070,-0.070,-0.070,0.000,0.000,0.000
1644926802126121984,2022-02-15-12:06:42,10.1.1.6,35,-0.060,-0.060,-0.060,0.000,0.000,0.000
1644926802166782976,2022-02-15-12:06:42,10.1.1.6,25,-0.050,-0.050,-0.050,0.000,0.000,0.000
1644926802225670144,2022-02-15-12:06:42,10.1.1.6,34,-0.040,-0.040,-0.040,0.000,0.000,0.000
1644926802265153024,2022-02-15-12:06:42,10.1.1.6,23,-0.030,-0.030,-0.030,0.000,0.000,0.000
1644926802325166848,2022-02-15-12:06:42,10.1.1.6,33,-0.020,-0.020,-0.020,0.000,0.000,0.000
1644926802365046016,2022-02-15-12:06:42,10.1.1.6,20,-0.010,-0.010,-0.010,0.000,0.000,0.000
1644926802425339904,2022-02-15-12:06:42,10.1.1.6,29,0.000,0.000,0.000,0.000,0.000,0.000
1644926802485191168,2022-02-15-12:06:42,10.1.1.6,35,0.010,0.010,0.010,0.000,0.000,0.000
1644926802525484032,2022-02-15-12:06:42,10.1.1.6,24,0.020,0.020,0.020,0.000,0.000,0.000
1644926802585863168,2022-02-15-12:06:42,10.1.1.6,33,0.030,0.030,0.030,0.000,0.000,0.000
1644926802626980096,2022-02-15-12:06:42,10.1.1.6,23,0.040,0.040,0.040,0.000,0.000,0.000
1644926802685241856,2022-02-15-12:06:42,10.1.1.6,32,0.050,0.050,0.050,0.000,0.000,0.000
1644926802725723136,2022-02-15-12:06:42,10.1.1.6,22,0.060,0.060,0.060,0.000,0.000,0.000
1644926802785785856,2022-02-15-12:06:42,10.1.1.6,30,0.070,0.070,0.070,0.000,0.000,0.000
1644926802826672128,2022-02-15-12:06:42,10.1.1.6,20,0.080,0.080,0.080,0.000,0.000,0.000
1644926802885979904,2022-02-15-12:06:42,10.1.1.6,29,0.090,0.090,0.090,0.000,0.000,0.000
1644926802945800192,2022-02-15-12:06:42,10.1.1.6,38,0.100,0.100,0.100,0.000,0.000,0.000
1644926802985593088,2022-02-15-12:06:42,10.1.1.6,27,0.090,0.090,0.090,0.000,0.000,0.000
1644926803045367040,2022-02-15-12:06:43,10.1.1.6,36,0.080,0.080,0.080,0.000,0.000,0.000
1644926803085995008,2022-02-15-12:06:43,10.1.1.6,25,0.070,0.070,0.070,0.000,0.000,0.000
1644926803146366976,2022-02-15-12:06:43,10.1.1.6,34,0.060,0.060,0.060,0.000,0.000,0.000
1644926803186350080,2022-02-15-12:06:43,10.1.1.6,24,0.050,0.050,0.050,0.000,0.000,0.000
1644926803245660160,2022-02-15-12:06:43,10.1.1.6,33,0.040,0.040,0.040,0.000,0.000,0.000
1644926803290690816,2022-02-15-12:06:43,10.1.1.6,22,0.030,0.030,0.030,0.000,0.000,0.000
1644926803345870080,2022-02-15-12:06:43,10.1.1.6,29,0.020,0.020,0.020,0.000,0.000,0.000
1644926803405338880,2022-02-15-12:06:43,10.1.1.6,38,0.010,0.010,0.010,0.000,0.000,0.000
1644926803445671168,2022-02-15-12:06:43,10.1.1.6,27,0.000,0.000,0.000,0.000,0.000,0.000
1644926803507219968,2022-02-15-12:06:43,10.1.1.6,36,-0.010,-0.010,-0.010,0.000,0.000,0.000
1644926803547000832,2022-02-15-12:06:43,10.1.1.6,25,-0.020,-0.020,-0.020,0.000,0.000,0.000
1644926803605376000,2022-02-15-12:06:43,10.1.1.6,34,-0.030,-0.030,-0.030,0.000,0.000,0.000
1644926803646234880,2022-02-15-12:06:43,10.1.1.6,23,-0.040,-0.040,-0.040,0.000,0.000,0.000
1644926803705341184,2022-02-15-12:06:43,10.1.1.6,31,-0.050,-0.050,-0.050,0.000,0.000,0.000
1644926803746146048,2022-02-15-12:06:43,10.1.1.6,20,-0.060,-0.060,-0.060,0.000,0.000,0.000
1644926803805507072,2022-02-15-12:06:43,10.1.1.6,29,-0.070,-0.070,-0.070,0.000,0.000,0.000
1644926803865422080,2022-02-15-12:06:43,10.1.1.6,37,-0.080,-0.080,-0.080,0.000,0.000,0.000
1644926803906003968,2022-02-15-12:06:43,10.1.1.6,26,-0.090,-0.090,-0.090,0.000,0.000,0.000
1644926803965836032,2022-02-15-12:06:43,10.1.1.6,36,-0.100,-0.100,-0.100,0.000,0.000,0.000
1644926804006056192,2022-02-15-12:06:44,10.1.1.6,25,-0.090,-0.090,-0.090,0.000,0.000,0.000
1644926804067107840,2022-02-15-12:06:44,10.1.1.6,34,-0.080,-0.080,-0.080,0.000,0.000,0.000
1644926804107145984,2022-02-15-12:06:44,10.1.1.6,23,-0.070,-0.070,-0.070,0.000,0.000,0.000
1644926804165911040,2022-02-15-12:06:44,10.1.1.6,29,-0.060,-0.060,-0.060,0.000,0.000,0.000
1644926804226646784,2022-02-15-12:06:44,10.1.1.6,37,-0.050,-0.050,-0.050,0.000,0.000,0.000
1644926804270909184,2022-02-15-12:06:44,10.1.1.6,25,-0.040,-0.040,-0.040,0.000,0.000,0.000
1644926804325957120,2022-02-15-12:06:44,10.1.1.6,34,-0.030,-0.030,-0.030,0.000,0.000,0.000
1644926804366277888,2022-02-15-12:06:44,10.1.1.6,23,-0.020,-0.020,-0.020,0.000,0.000,0.000
1644926804425990144,2022-02-15-12:06:44,10.1.1.6,31,-0.010,-0.010,-0.010,0.000,0.000,0.000
1644926804465230848,2022-02-15-12:06:44,10.1.1.6,21,0.000,0.000,0.000,0.000,0.000,0.000
1644926804525687040,2022-02-15-12:06:44,10.1.1.6,29,0.010,0.010,0.010,0.000,0.000,0.000
1644926804585516032,2022-02-15-12:06:44,10.1.1.6,38,0.020,0.020,0.020,0.000,0.000,0.000
1644926804625704960,2022-02-15-12:06:44,10.1.1.6,28,0.030,0.030,0.030,0.000,0.000,0.000
1644926804686251008,2022-02-15-12:06:44,10.1.1.6,37,0.040,0.040,0.040,0.000,0.000,0.000
1644926804785551104,2022-02-15-12:06:44,10.1.1.6,23,0.060,0.060,0.060,0.000,0.000,0.000
1644926804845869056,2022-02-15-12:06:44,10.1.1.6,33,0.070,0.070,0.070,0.000,0.000,0.000
1644926804885231872,2022-02-15-12:06:44,10.1.1.6,20,0.080,0.080,0.080,0.000,0.000,0.000
1644926804946525952,2022-02-15-12:06:44,10.1.1.6,29,0.090,0.090,0.090,0.000,0.000,0.000
1644926804986726144,2022-02-15-12:06:44,10.1.1.6,19,0.099,0.099,0.099,0.000,0.000,0.000
1644926805046680064,2022-02-15-12:06:45,10.1.1.6,28,0.090,0.090,0.090,0.000,0.000,0.000
1644926805105863168,2022-02-15-12:06:45,10.1.1.6,37,0.080,0.080,0.080,0.000,0.000,0.000
1644926805145488896,2022-02-15-12:06:45,10.1.1.6,26,0.070,0.070,0.070,0.000,0.000,0.000
1644926805205577984,2022-02-15-12:06:45,10.1.1.6,30,0.060,0.060,0.060,0.000,0.000,0.000
1644926805245473024,2022-02-15-12:06:45,10.1.1.6,20,0.050,0.050,0.050,0.000,0.000,0.000
1644926805306195968,2022-02-15-12:06:45,10.1.1.6,28,0.040,0.040,0.040,0.000,0.000,0.000
1644926805366383104,2022-02-15-12:06:45,10.1.1.6,37,0.030,0.030,0.030,0.000,0.000,0.000
1644926805405956096,2022-02-15-12:06:45,10.1.1.6,26,0.020,0.020,0.020,0.000,0.000,0.000
1644926805465583104,2022-02-15-12:06:45,10.1.1.6,35,0.010,0.010,0.010,0.000,0.000,0.000
1644926805505489152,2022-02-15-12:06:45,10.1.1.6,24,0.000,0.000,0.000,0.000,0.000,0.000
1644926805565630976,2022-02-15-12:06:45,10.1.1.6,33,-0.010,-0.010,-0.010,0.000,0.000,0.000
1644926805666105088,2022-02-15-12:06:45,10.1.1.6,30,-0.030,-0.030,-0.030,0.000,0.000,0.000
1644926805726258944,2022-02-15-12:06:45,10.1.1.6,36,-0.040,-0.040,-0.040,0.000,0.000,0.000
1644926805765733888,2022-02-15-12:06:45,10.1.1.6,26,-0.050,-0.050,-0.050,0.000,0.000,0.000
1644926805826272000,2022-02-15-12:06:45,10.1.1.6,35,-0.060,-0.060,-0.060,0.000,0.000,0.000
1644926805865911040,2022-02-15-12:06:45,10.1.1.6,25,-0.070,-0.070,-0.070,0.000,0.000,0.000
1644926805933490944,2022-02-15-12:06:45,10.1.1.6,34,-0.080,-0.080,-0.080,0.000,0.000,0.000
1644926806026057984,2022-02-15-12:06:46,10.1.1.6,31,-0.100,-0.100,-0.100,0.000,0.000,0.000
1644926806065772032,2022-02-15-12:06:46,10.1.1.6,20,-0.090,-0.090,-0.090,0.000,0.000,0.000
1644926806125554176,2022-02-15-12:06:46,10.1.1.6,29,-0.080,-0.080,-0.080,0.000,0.000,0.000
1644926806165842944,2022-02-15-12:06:46,10.1.1.6,19,-0.071,-0.071,-0.071,0.000,0.000,0.000
1644926806226153984,2022-02-15-12:06:46,10.1.1.6,28,-0.060,-0.060,-0.060,0.000,0.000,0.000
1644926806286305024,2022-02-15-12:06:46,10.1.1.6,37,-0.050,-0.050,-0.050,0.000,0.000,0.000
1644926806325608960,2022-02-15-12:06:46,10.1.1.6,26,-0.040,-0.040,-0.040,0.000,0.000,0.000
1644926806386056960,2022-02-15-12:06:46,10.1.1.6,35,-0.030,-0.030,-0.030,0.000,0.000,0.000
1644926806425626880,2022-02-15-12:06:46,10.1.1.6,24,-0.020,-0.020,-0.020,0.000,0.000,0.000
1644926806486430976,2022-02-15-12:06:46,10.1.1.6,34,-0.010,-0.010,-0.010,0.000,0.000,0.000
1644926806525947136,2022-02-15-12:06:46,10.1.1.6,22,0.000,0.000,0.000,0.000,0.000,0.000
1644926806586116096,2022-02-15-12:06:46,10.1.1.6,31,0.010,0.010,0.010,0.000,0.000,0.000
1644926806626408960,2022-02-15-12:06:46,10.1.1.6,20,0.020,0.020,0.020,0.000,0.000,0.000
1644926806685893120,2022-02-15-12:06:46,10.1.1.6,30,0.030,0.030,0.030,0.000,0.000,0.000
1644926806725542144,2022-02-15-12:06:46,10.1.1.6,19,0.039,0.039,0.039,0.000,0.000,0.000
1644926806785420032,2022-02-15-12:06:46,10.1.1.6,27,0.050,0.050,0.050,0.000,0.000,0.000
1644926806845545984,2022-02-15-12:06:46,10.1.1.6,36,0.060,0.060,0.060,0.000,0.000,0.000
1644926806885358080,2022-02-15-12:06:46,10.1.1.6,25,0.070,0.070,0.070,0.000,0.000,0.000
1644926806945777920,2022-02-15-12:06:46,10.1.1.6,34,0.080,0.080,0.080,0.000,0.000,0.000
1644926806986232064,2022-02-15-12:06:46,10.1.1.6,23,0.090,0.090,0.090,0.000,0.000,0.000
1644926807045510912,2022-02-15-12:06:47,10.1.1.6,30,0.100,0.100,0.100,0.000,0.000,0.000
1644926807105871872,2022-02-15-12:06:47,10.1.1.6,38,0.090,0.090,0.090,0.000,0.000,0.000
1644926807145582848,2022-02-15-12:06:47,10.1.1.6,24,0.080,0.080,0.080,0.000,0.000,0.000
1644926807214152960,2022-02-15-12:06:47,10.1.1.6,32,0.070,0.070,0.070,0.000,0.000,0.000
1644926807247348992,2022-02-15-12:06:47,10.1.1.6,21,0.060,0.060,0.060,0.000,0.000,0.000
1644926807305423872,2022-02-15-12:06:47,10.1.1.6,29,0.050,0.050,0.050,0.000,0.000,0.000
1644926807365850880,2022-02-15-12:06:47,10.1.1.6,38,0.040,0.040,0.040,0.000,0.000,0.000
1644926807406176000,2022-02-15-12:06:47,10.1.1.6,27,0.030,0.030,0.030,0.000,0.000,0.000
1644926807466103040,2022-02-15-12:06:47,10.1.1.6,36,0.020,0.020,0.020,0.000,0.000,0.000
1644926807505760000,2022-02-15-12:06:47,10.1.1.6,25,0.010,0.010,0.010,0.000,0.000,0.000
1644926807565864192,2022-02-15-12:06:47,10.1.1.6,34,0.000,0.000,0.000,0.000,0.000,0.000
1644926807607510016,2022-02-15-12:06:47,10.1.1.6,23,-0.010,-0.010,-0.010,0.000,0.000,0.000
1644926807665981952,2022-02-15-12:06:47,10.1.1.6,31,-0.020,-0.020,-0.020,0.000,0.000,0.000
1644926807705712128,2022-02-15-12:06:47,10.1.1.6,21,-0.030,-0.030,-0.030,0.000,0.000,0.000
1644926807765660160,2022-02-15-12:06:47,10.1.1.6,30,-0.040,-0.040,-0.040,0.000,0.000,0.000
1644926807805475072,2022-02-15-12:06:47,10.1.1.6,19,-0.050,-0.050,-0.050,0.000,0.000,0.000
1644926807865985024,2022-02-15-12:06:47,10.1.1.6,28,-0.060,-0.060,-0.060,0.000,0.000,0.000
1644926807925801984,2022-02-15-12:06:47,10.1.1.6,36,-0.070,-0.070,-0.070,0.000,0.000,0.000
1644926807965297920,2022-02-15-12:06:47,10.1.1.6,25,-0.080,-0.080,-0.080,0.000,0.000,0.000
1644926808025476096,2022-02-15-12:06:48,10.1.1.6,34,-0.090,-0.090,-0.090,0.000,0.000,0.000
1644926808066155008,2022-02-15-12:06:48,10.1.1.6,23,-0.100,-0.100,-0.100,0.000,0.000,0.000
1644926808126676992,2022-02-15-12:06:48,10.1.1.6,33,-0.090,-0.090,-0.090,0.000,0.000,0.000
1644926808185633792,2022-02-15-12:06:48,10.1.1.6,34,-0.080,-0.080,-0.080,0.000,0.000,0.000
1644926808225538048,2022-02-15-12:06:48,10.1.1.6,22,-0.070,-0.070,-0.070,0.000,0.000,0.000
1644926808286304000,2022-02-15-12:06:48,10.1.1.6,31,-0.060,-0.060,-0.060,0.000,0.000,0.000
1644926808384887040,2022-02-15-12:06:48,10.1.1.6,24,-0.040,-0.040,-0.040,0.000,0.000,0.000
1644926808445465088,2022-02-15-12:06:48,10.1.1.6,34,-0.030,-0.030,-0.030,0.000,0.000,0.000
1644926808485407232,2022-02-15-12:06:48,10.1.1.6,23,-0.020,-0.020,-0.020,0.000,0.000,0.000
1644926808545201920,2022-02-15-12:06:48,10.1.1.6,31,-0.010,-0.010,-0.010,0.000,0.000,0.000
1644926808605638144,2022-02-15-12:06:48,10.1.1.6,40,0.000,0.000,0.000,0.000,0.000,0.000
1644926808645401856,2022-02-15-12:06:48,10.1.1.6,26,0.010,0.010,0.010,0.000,0.000,0.000
1644926808705528064,2022-02-15-12:06:48,10.1.1.6,36,0.020,0.020,0.020,0.000,0.000,0.000
1644926808745906176,2022-02-15-12:06:48,10.1.1.6,25,0.030,0.030,0.030,0.000,0.000,0.000
1644926808805524224,2022-02-15-12:06:48,10.1.1.6,34,0.040,0.040,0.040,0.000,0.000,0.000
1644926808845624064,2022-02-15-12:06:48,10.1.1.6,23,0.050,0.050,0.050,0.000,0.000,0.000
1644926808905554944,2022-02-15-12:06:48,10.1.1.6,33,0.060,0.060,0.060,0.000,0.000,0.000
1644926808945648896,2022-02-15-12:06:48,10.1.1.6,22,0.070,0.070,0.070,0.000,0.000,0.000
1644926809004929024,2022-02-15-12:06:49,10.1.1.6,31,0.080,0.080,0.080,0.000,0.000,0.000
1644926809045054976,2022-02-15-12:06:49,10.1.1.6,21,0.090,0.090,0.090,0.000,0.000,0.000
1644926809105676800,2022-02-15-12:06:49,10.1.1.6,30,0.100,0.100,0.100,0.000,0.000,0.000
1644926809146194944,2022-02-15-12:06:49,10.1.1.6,20,0.090,0.090,0.090,0.000,0.000,0.000
1644926809205883904,2022-02-15-12:06:49,10.1.1.6,29,0.080,0.080,0.080,0.000,0.000,0.000
1644926809266118144,2022-02-15-12:06:49,10.1.1.6,36,0.070,0.070,0.070,0.000,0.000,0.000
1644926809305531136,2022-02-15-12:06:49,10.1.1.6,26,0.060,0.060,0.060,0.000,0.000,0.000
1644926809365592832,2022-02-15-12:06:49,10.1.1.6,35,0.050,0.050,0.050,0.000,0.000,0.000
1644926809405394176,2022-02-15-12:06:49,10.1.1.6,25,0.040,0.040,0.040,0.000,0.000,0.000
1644926809466445824,2022-02-15-12:06:49,10.1.1.6,34,0.030,0.030,0.030,0.000,0.000,0.000
1644926809505840128,2022-02-15-12:06:49,10.1.1.6,24,0.020,0.020,0.020,0.000,0.000,0.000
1644926809565625856,2022-02-15-12:06:49,10.1.1.6,32,0.010,0.010,0.010,0.000,0.000,0.000
1644926809605420032,2022-02-15-12:06:49,10.1.1.6,21,0.000,0.000,0.000,0.000,0.000,0.000
1644926809665095168,2022-02-15-12:06:49,10.1.1.6,30,-0.010,-0.010,-0.010,0.000,0.000,0.000
1644926809725875968,2022-02-15-12:06:49,10.1.1.6,38,-0.020,-0.020,-0.020,0.000,0.000,0.000
1644926809765423104,2022-02-15-12:06:49,10.1.1.6,28,-0.030,-0.030,-0.030,0.000,0.000,0.000
1644926809827857920,2022-02-15-12:06:49,10.1.1.6,37,-0.040,-0.040,-0.040,0.000,0.000,0.000
1644926809865947136,2022-02-15-12:06:49,10.1.1.6,26,-0.050,-0.050,-0.050,0.000,0.000,0.000
1644926809928619008,2022-02-15-12:06:49,10.1.1.6,35,-0.060,-0.060,-0.060,0.000,0.000,0.000
1644926809966065920,2022-02-15-12:06:49,10.1.1.6,24,-0.070,-0.070,-0.070,0.000,0.000,0.000
1644926810026496768,2022-02-15-12:06:50,10.1.1.6,33,-0.080,-0.080,-0.080,0.000,0.000,0.000
1644926810066009088,2022-02-15-12:06:50,10.1.1.6,23,-0.090,-0.090,-0.090,0.000,0.000,0.000
1644926810125538048,2022-02-15-12:06:50,10.1.1.6,31,-0.100,-0.100,-0.100,0.000,0.000,0.000
1644926810165953024,2022-02-15-12:06:50,10.1.1.6,20,-0.090,-0.090,-0.090,0.000,0.000,0.000
1644926810226056960,2022-02-15-12:06:50,10.1.1.6,30,-0.080,-0.080,-0.080,0.000,0.000,0.000
1644926810265660160,2022-02-15-12:06:50,10.1.1.6,19,-0.070,-0.070,-0.070,0.000,0.000,0.000
1644926810326809856,2022-02-15-12:06:50,10.1.1.6,28,-0.060,-0.060,-0.060,0.000,0.000,0.000
1644926810385853952,2022-02-15-12:06:50,10.1.1.6,37,-0.050,-0.050,-0.050,0.000,0.000,0.000
1644926810425828096,2022-02-15-12:06:50,10.1.1.6,27,-0.040,-0.040,-0.040,0.000,0.000,0.000
1644926810486254080,2022-02-15-12:06:50,10.1.1.6,35,-0.030,-0.030,-0.030,0.000,0.000,0.000
1644926810526707968,2022-02-15-12:06:50,10.1.1.6,22,-0.020,-0.020,-0.020,0.000,0.000,0.000
1644926810585939968,2022-02-15-12:06:50,10.1.1.6,31,-0.010,-0.010,-0.010,0.000,0.000,0.000
1644926810626413056,2022-02-15-12:06:50,10.1.1.6,19,-0.000,-0.000,-0.000,0.000,0.000,0.000
1644926810686546176,2022-02-15-12:06:50,10.1.1.6,28,0.010,0.010,0.010,0.000,0.000,0.000
1644926810745968128,2022-02-15-12:06:50,10.1.1.6,38,0.020,0.020,0.020,0.000,0.000,0.000
1644926810791636992,2022-02-15-12:06:50,10.1.1.6,27,0.030,0.030,0.030,0.000,0.000,0.000
1644926810846020096,2022-02-15-12:06:50,10.1.1.6,34,0.040,0.040,0.040,0.000,0.000,0.000
1644926810885865984,2022-02-15-12:06:50,10.1.1.6,24,0.050,0.050,0.050,0.000,0.000,0.000
1644926810946063104,2022-02-15-12:06:50,10.1.1.6,32,0.060,0.060,0.060,0.000,0.000,0.000
1644926810986041088,2022-02-15-12:06:50,10.1.1.6,21,0.070,0.070,0.070,0.000,0.000,0.000
1644926811051228160,2022-02-15-12:06:51,10.1.1.6,30,0.080,0.080,0.080,0.000,0.000,0.000
1644926811087675136,2022-02-15-12:06:51,10.1.1.6,19,0.090,0.090,0.090,0.000,0.000,0.000
1644926811147525120,2022-02-15-12:06:51,10.1.1.6,26,0.100,0.100,0.100,0.000,0.000,0.000
1644926811205662976,2022-02-15-12:06:51,10.1.1.6,35,0.090,0.090,0.090,0.000,0.000,0.000
1644926811248750080,2022-02-15-12:06:51,10.1.1.6,23,0.080,0.080,0.080,0.000,0.000,0.000
1644926811308327936,2022-02-15-12:06:51,10.1.1.6,33,0.070,0.070,0.070,0.000,0.000,0.000
1644926811345905152,2022-02-15-12:06:51,10.1.1.6,21,0.060,0.060,0.060,0.000,0.000,0.000
1644926811406422016,2022-02-15-12:06:51,10.1.1.6,30,0.050,0.050,0.050,0.000,0.000,0.000
1644926811466303232,2022-02-15-12:06:51,10.1.1.6,38,0.040,0.040,0.040,0.000,0.000,0.000
1644926811508801024,2022-02-15-12:06:51,10.1.1.6,27,0.030,0.030,0.030,0.000,0.000,0.000
1644926811565942016,2022-02-15-12:06:51,10.1.1.6,36,0.020,0.020,0.020,0.000,0.000,0.000
1644926811605859072,2022-02-15-12:06:51,10.1.1.6,25,0.010,0.010,0.010,0.000,0.000,0.000
1644926811669459968,2022-02-15-12:06:51,10.1.1.6,34,0.000,0.000,0.000,0.000,0.000,0.000
1644926811705480960,2022-02-15-12:06:51,10.1.1.6,21,-0.010,-0.010,-0.010,0.000,0.000,0.000
1644926811765544960,2022-02-15-12:06:51,10.1.1.6,30,-0.020,-0.020,-0.020,0.000,0.000,0.000
1644926811805928960,2022-02-15-12:06:51,10.1.1.6,19,-0.029,-0.029,-0.029,0.000,0.000,0.000
1644926811866264064,2022-02-15-12:06:51,10.1.1.6,28,-0.040,-0.040,-0.040,0.000,0.000,0.000
1644926811926781952,2022-02-15-12:06:51,10.1.1.6,36,-0.050,-0.050,-0.050,0.000,0.000,0.000
1644926811965417984,2022-02-15-12:06:51,10.1.1.6,25,-0.060,-0.060,-0.060,0.000,0.000,0.000
1644926812026221056,2022-02-15-12:06:52,10.1.1.6,35,-0.070,-0.070,-0.070,0.000,0.000,0.000
1644926812065911040,2022-02-15-12:06:52,10.1.1.6,24,-0.080,-0.080,-0.080,0.000,0.000,0.000
1644926812125502208,2022-02-15-12:06:52,10.1.1.6,33,-0.090,-0.090,-0.090,0.000,0.000,0.000
1644926812165491200,2022-02-15-12:06:52,10.1.1.6,22,-0.100,-0.100,-0.100,0.000,0.000,0.000
1644926812227055104,2022-02-15-12:06:52,10.1.1.6,32,-0.090,-0.090,-0.090,0.000,0.000,0.000
1644926812265740032,2022-02-15-12:06:52,10.1.1.6,20,-0.080,-0.080,-0.080,0.000,0.000,0.000
1644926812325985024,2022-02-15-12:06:52,10.1.1.6,30,-0.070,-0.070,-0.070,0.000,0.000,0.000
1644926812385688064,2022-02-15-12:06:52,10.1.1.6,39,-0.060,-0.060,-0.060,0.000,0.000,0.000
1644926812425685760,2022-02-15-12:06:52,10.1.1.6,26,-0.050,-0.050,-0.050,0.000,0.000,0.000
1644926812485984000,2022-02-15-12:06:52,10.1.1.6,34,-0.040,-0.040,-0.040,0.000,0.000,0.000
1644926812529494016,2022-02-15-12:06:52,10.1.1.6,23,-0.030,-0.030,-0.030,0.000,0.000,0.000
1644926812585794816,2022-02-15-12:06:52,10.1.1.6,32,-0.020,-0.020,-0.020,0.000,0.000,0.000
1644926812625207808,2022-02-15-12:06:52,10.1.1.6,21,-0.010,-0.010,-0.010,0.000,0.000,0.000
1644926812686618112,2022-02-15-12:06:52,10.1.1.6,30,0.000,0.000,0.000,0.000,0.000,0.000
1644926812725436928,2022-02-15-12:06:52,10.1.1.6,20,0.010,0.010,0.010,0.000,0.000,0.000
1644926812786621184,2022-02-15-12:06:52,10.1.1.6,28,0.020,0.020,0.020,0.000,0.000,0.000
1644926812846014976,2022-02-15-12:06:52,10.1.1.6,38,0.030,0.030,0.030,0.000,0.000,0.000
1644926812886155008,2022-02-15-12:06:52,10.1.1.6,27,0.040,0.040,0.040,0.000,0.000,0.000
1644926812948334080,2022-02-15-12:06:52,10.1.1.6,35,0.050,0.050,0.050,0.000,0.000,0.000
1644926812985879808,2022-02-15-12:06:52,10.1.1.6,24,0.060,0.060,0.060,0.000,0.000,0.000
1644926813045156096,2022-02-15-12:06:53,10.1.1.6,33,0.070,0.070,0.070,0.000,0.000,0.000
1644926813087068160,2022-02-15-12:06:53,10.1.1.6,23,0.080,0.080,0.080,0.000,0.000,0.000
1644926813147166976,2022-02-15-12:06:53,10.1.1.6,31,0.090,0.090,0.090,0.000,0.000,0.000
1644926813188424960,2022-02-15-12:06:53,10.1.1.6,20,0.100,0.100,0.100,0.000,0.000,0.000
1644926813246135040,2022-02-15-12:06:53,10.1.1.6,26,0.090,0.090,0.090,0.000,0.000,0.000
1644926813305779968,2022-02-15-12:06:53,10.1.1.6,35,0.080,0.080,0.080,0.000,0.000,0.000
1644926813346426112,2022-02-15-12:06:53,10.1.1.6,24,0.070,0.070,0.070,0.000,0.000,0.000
1644926813407470080,2022-02-15-12:06:53,10.1.1.6,33,0.060,0.060,0.060,0.000,0.000,0.000
1644926813454572800,2022-02-15-12:06:53,10.1.1.6,22,0.050,0.050,0.050,0.000,0.000,0.000
1644926813509380096,2022-02-15-12:06:53,10.1.1.6,26,0.040,0.040,0.040,0.000,0.000,0.000
1644926813565704192,2022-02-15-12:06:53,10.1.1.6,35,0.030,0.030,0.030,0.000,0.000,0.000
1644926813605742848,2022-02-15-12:06:53,10.1.1.6,24,0.020,0.020,0.020,0.000,0.000,0.000
1644926813666387968,2022-02-15-12:06:53,10.1.1.6,33,0.010,0.010,0.010,0.000,0.000,0.000
1644926813705287936,2022-02-15-12:06:53,10.1.1.6,21,0.000,0.000,0.000,0.000,0.000,0.000
1644926813769246976,2022-02-15-12:06:53,10.1.1.6,30,-0.010,-0.010,-0.010,0.000,0.000,0.000
1644926813805587968,2022-02-15-12:06:53,10.1.1.6,19,-0.020,-0.020,-0.020,0.000,0.000,0.000
1644926813865331968,2022-02-15-12:06:53,10.1.1.6,29,-0.030,-0.030,-0.030,0.000,0.000,0.000
1644926813925826048,2022-02-15-12:06:53,10.1.1.6,38,-0.040,-0.040,-0.040,0.000,0.000,0.000
1644926813965843968,2022-02-15-12:06:53,10.1.1.6,27,-0.050,-0.050,-0.050,0.000,0.000,0.000
1644926814026087168,2022-02-15-12:06:54,10.1.1.6,35,-0.060,-0.060,-0.060,0.000,0.000,0.000
1644926814065681920,2022-02-15-12:06:54,10.1.1.6,23,-0.070,-0.070,-0.070,0.000,0.000,0.000
1644926814125390080,2022-02-15-12:06:54,10.1.1.6,32,-0.080,-0.080,-0.080,0.000,0.000,0.000
1644926814245208064,2022-02-15-12:06:54,10.1.1.6,29,-0.100,-0.100,-0.100,0.000,0.000,0.000
1644926814306016000,2022-02-15-12:06:54,10.1.1.6,38,-0.090,-0.090,-0.090,0.000,0.000,0.000
1644926814346908928,2022-02-15-12:06:54,10.1.1.6,27,-0.080,-0.080,-0.080,0.000,0.000,0.000
1644926814406318848,2022-02-15-12:06:54,10.1.1.6,37,-0.070,-0.070,-0.070,0.000,0.000,0.000
1644926814445154048,2022-02-15-12:06:54,10.1.1.6,26,-0.060,-0.060,-0.060,0.000,0.000,0.000
1644926814506427136,2022-02-15-12:06:54,10.1.1.6,36,-0.050,-0.050,-0.050,0.000,0.000,0.000
1644926814546416896,2022-02-15-12:06:54,10.1.1.6,24,-0.040,-0.040,-0.040,0.000,0.000,0.000
