FedericoMungari/DigitalTwin_service/01_WiredScenario/Output/Output_script/script_rosapi_2_subcommandoutput_robots1_freq0_1.txt
timestamp,date,node,latency,joint_1,joint_2,joint_3,joint_4,joint_5,joint_6
1644011706094471936,2022-02-04-21:55:06,10.1.1.2,6,-0.100,-0.100,-0.100,0.000,0.000,0.000
1644011706308172032,2022-02-04-21:55:06,10.1.1.2,16,-0.100,-0.100,-0.100,0.000,0.000,0.000
1644011706508151040,2022-02-04-21:55:06,10.1.1.2,15,-0.100,-0.100,-0.100,0.000,0.000,0.000
1644011706697690880,2022-02-04-21:55:06,10.1.1.2,2,-0.100,-0.100,-0.100,0.000,0.000,0.000
1644011706914761984,2022-02-04-21:55:06,10.1.1.2,18,-0.100,-0.100,-0.100,0.000,0.000,0.000
1644011707107609088,2022-02-04-21:55:07,10.1.1.2,10,-0.100,-0.100,-0.100,0.000,0.000,0.000
1644011707317846016,2022-02-04-21:55:07,10.1.1.2,19,-0.100,-0.100,-0.100,0.000,0.000,0.000
1644011707507986176,2022-02-04-21:55:07,10.1.1.2,8,-0.100,-0.100,-0.100,0.000,0.000,0.000
1644011707708289024,2022-02-04-21:55:07,10.1.1.2,4,-0.100,-0.100,-0.100,0.000,0.000,0.000
1644011707909065984,2022-02-04-21:55:07,10.1.1.2,4,-0.100,-0.100,-0.100,0.000,0.000,0.000
1644011708111574016,2022-02-04-21:55:08,10.1.1.2,2,-0.100,-0.100,-0.100,0.000,0.000,0.000
1644011708313668864,2022-02-04-21:55:08,10.1.1.2,3,-0.100,-0.100,-0.100,0.000,0.000,0.000
1644011708514308096,2022-02-04-21:55:08,10.1.1.2,1,-0.100,-0.100,-0.100,0.000,0.000,0.000
1644011708714294784,2022-02-04-21:55:08,10.1.1.2,1,-0.100,-0.100,-0.100,0.000,0.000,0.000
1644011708932296960,2022-02-04-21:55:08,10.1.1.2,17,-0.100,-0.100,-0.100,0.000,0.000,0.000
1644011709131928064,2022-02-04-21:55:09,10.1.1.2,16,-0.100,-0.100,-0.100,0.000,0.000,0.000
1644011709334852864,2022-02-04-21:55:09,10.1.1.2,17,-0.100,-0.100,-0.100,0.000,0.000,0.000
1644011709543681024,2022-02-04-21:55:09,10.1.1.2,25,-0.100,-0.100,-0.100,0.000,0.000,0.000
1644011709721451008,2022-02-04-21:55:09,10.1.1.2,2,-0.100,-0.100,-0.100,0.000,0.000,0.000
1644011709923034880,2022-02-04-21:55:09,10.1.1.2,2,-0.100,-0.100,-0.100,0.000,0.000,0.000
1644011710125818880,2022-02-04-21:55:10,10.1.1.2,4,-0.100,-0.100,-0.100,0.000,0.000,0.000
1644011710327286016,2022-02-04-21:55:10,10.1.1.2,4,-0.100,-0.100,-0.100,0.000,0.000,0.000
1644011710530073856,2022-02-04-21:55:10,10.1.1.2,4,-0.100,-0.100,-0.100,0.000,0.000,0.000
1644011710730896896,2022-02-04-21:55:10,10.1.1.2,4,-0.100,-0.100,-0.100,0.000,0.000,0.000
1644011710931386880,2022-02-04-21:55:10,10.1.1.2,4,-0.100,-0.100,-0.100,0.000,0.000,0.000
1644011711131764992,2022-02-04-21:55:11,10.1.1.2,1,-0.100,-0.100,-0.100,0.000,0.000,0.000
1644011711351430912,2022-02-04-21:55:11,10.1.1.2,19,-0.100,-0.100,-0.100,0.000,0.000,0.000
1644011711558494208,2022-02-04-21:55:11,10.1.1.2,23,-0.100,-0.100,-0.100,0.000,0.000,0.000
1644011711750895104,2022-02-04-21:55:11,10.1.1.2,16,-0.100,-0.100,-0.100,0.000,0.000,0.000
1644011711938842112,2022-02-04-21:55:11,10.1.1.2,3,-0.100,-0.100,-0.100,0.000,0.000,0.000
1644011712156303872,2022-02-04-21:55:12,10.1.1.2,19,-0.100,-0.100,-0.100,0.000,0.000,0.000
1644011712343705856,2022-02-04-21:55:12,10.1.1.2,5,-0.100,-0.100,-0.100,0.000,0.000,0.000
1644011712554667008,2022-02-04-21:55:12,10.1.1.2,15,-0.100,-0.100,-0.100,0.000,0.000,0.000
1644011712745799936,2022-02-04-21:55:12,10.1.1.2,5,-0.100,-0.100,-0.100,0.000,0.000,0.000
1644011712957155840,2022-02-04-21:55:12,10.1.1.2,16,-0.100,-0.100,-0.100,0.000,0.000,0.000
1644011713147392000,2022-02-04-21:55:13,10.1.1.2,5,-0.100,-0.100,-0.100,0.000,0.000,0.000
1644011713347107840,2022-02-04-21:55:13,10.1.1.2,3,-0.100,-0.100,-0.100,0.000,0.000,0.000
1644011713548713984,2022-02-04-21:55:13,10.1.1.2,4,-0.100,-0.100,-0.100,0.000,0.000,0.000
1644011713756133120,2022-02-04-21:55:13,10.1.1.2,10,-0.100,-0.100,-0.100,0.000,0.000,0.000
1644011713955982848,2022-02-04-21:55:13,10.1.1.2,8,-0.100,-0.100,-0.100,0.000,0.000,0.000
1644011714155646208,2022-02-04-21:55:14,10.1.1.2,8,-0.100,-0.100,-0.100,0.000,0.000,0.000
1644011714357667840,2022-02-04-21:55:14,10.1.1.2,8,-0.100,-0.100,-0.100,0.000,0.000,0.000
1644011714554904832,2022-02-04-21:55:14,10.1.1.2,5,-0.100,-0.100,-0.100,0.000,0.000,0.000
1644011714751425024,2022-02-04-21:55:14,10.1.1.2,1,-0.100,-0.100,-0.100,0.000,0.000,0.000
1644011714970035200,2022-02-04-21:55:14,10.1.1.2,16,-0.100,-0.100,-0.100,0.000,0.000,0.000
1644011715169714944,2022-02-04-21:55:15,10.1.1.2,15,-0.100,-0.100,-0.100,0.000,0.000,0.000
1644011715369618944,2022-02-04-21:55:15,10.1.1.2,14,-0.100,-0.100,-0.100,0.000,0.000,0.000
1644011715570465024,2022-02-04-21:55:15,10.1.1.2,14,-0.100,-0.100,-0.100,0.000,0.000,0.000
1644011715762063104,2022-02-04-21:55:15,10.1.1.2,4,-0.100,-0.100,-0.100,0.000,0.000,0.000
1644011715971024128,2022-02-04-21:55:15,10.1.1.2,9,-0.100,-0.100,-0.100,0.000,0.000,0.000
1644011716171201024,2022-02-04-21:55:16,10.1.1.2,6,-0.100,-0.100,-0.100,0.000,0.000,0.000
1644011716371470080,2022-02-04-21:55:16,10.1.1.2,5,-0.100,-0.100,-0.100,0.000,0.000,0.000
1644011716579070976,2022-02-04-21:55:16,10.1.1.2,12,-0.100,-0.100,-0.100,0.000,0.000,0.000
1644011716771138816,2022-02-04-21:55:16,10.1.1.2,3,-0.100,-0.100,-0.100,0.000,0.000,0.000
1644011716971790080,2022-02-04-21:55:16,10.1.1.2,3,-0.100,-0.100,-0.100,0.000,0.000,0.000
1644011717170648064,2022-02-04-21:55:17,10.1.1.2,1,-0.100,-0.100,-0.100,0.000,0.000,0.000
1644011717372990976,2022-02-04-21:55:17,10.1.1.2,1,-0.100,-0.100,-0.100,0.000,0.000,0.000
1644011717573028096,2022-02-04-21:55:17,10.1.1.2,1,-0.100,-0.100,-0.100,0.000,0.000,0.000
1644011717790808064,2022-02-04-21:55:17,10.1.1.2,18,-0.100,-0.100,-0.100,0.000,0.000,0.000
1644011717991188992,2022-02-04-21:55:17,10.1.1.2,17,-0.100,-0.100,-0.100,0.000,0.000,0.000
1644011718190771968,2022-02-04-21:55:18,10.1.1.2,15,-0.100,-0.100,-0.100,0.000,0.000,0.000
1644011718391691008,2022-02-04-21:55:18,10.1.1.2,15,-0.100,-0.100,-0.100,0.000,0.000,0.000
1644011718591196160,2022-02-04-21:55:18,10.1.1.2,14,-0.100,-0.100,-0.100,0.000,0.000,0.000
1644011718800357120,2022-02-04-21:55:18,10.1.1.2,22,-0.100,-0.100,-0.100,0.000,0.000,0.000
1644011718990776064,2022-02-04-21:55:18,10.1.1.2,10,-0.100,-0.100,-0.100,0.000,0.000,0.000
1644011719190761216,2022-02-04-21:55:19,10.1.1.2,8,-0.100,-0.100,-0.100,0.000,0.000,0.000
1644011719391355904,2022-02-04-21:55:19,10.1.1.2,8,-0.100,-0.100,-0.100,0.000,0.000,0.000
1644011719590995968,2022-02-04-21:55:19,10.1.1.2,6,-0.100,-0.100,-0.100,0.000,0.000,0.000
1644011719790610176,2022-02-04-21:55:19,10.1.1.2,4,-0.100,-0.100,-0.100,0.000,0.000,0.000
1644011720003227904,2022-02-04-21:55:20,10.1.1.2,16,-0.100,-0.100,-0.100,0.000,0.000,0.000
1644011720191240192,2022-02-04-21:55:20,10.1.1.2,3,-0.100,-0.100,-0.100,0.000,0.000,0.000
1644011720395549952,2022-02-04-21:55:20,10.1.1.2,4,-0.100,-0.100,-0.100,0.000,0.000,0.000
1644011720595727872,2022-02-04-21:55:20,10.1.1.2,3,-0.100,-0.100,-0.100,0.000,0.000,0.000
1644011720822469120,2022-02-04-21:55:20,10.1.1.2,29,-0.100,-0.100,-0.100,0.000,0.000,0.000
1644011721013470976,2022-02-04-21:55:21,10.1.1.2,18,-0.100,-0.100,-0.100,0.000,0.000,0.000
1644011721212892160,2022-02-04-21:55:21,10.1.1.2,17,-0.100,-0.100,-0.100,0.000,0.000,0.000
1644011721416142080,2022-02-04-21:55:21,10.1.1.2,18,-0.100,-0.100,-0.100,0.000,0.000,0.000
1644011721612950016,2022-02-04-21:55:21,10.1.1.2,15,-0.100,-0.100,-0.100,0.000,0.000,0.000
1644011721839621120,2022-02-04-21:55:21,10.1.1.2,40,-0.100,-0.100,-0.100,0.000,0.000,0.000
1644011722011318016,2022-02-04-21:55:22,10.1.1.2,11,-0.100,-0.100,-0.100,0.000,0.000,0.000
1644011722212431872,2022-02-04-21:55:22,10.1.1.2,3,-0.100,-0.100,-0.100,0.000,0.000,0.000
1644011722427390976,2022-02-04-21:55:22,10.1.1.2,17,-0.100,-0.100,-0.100,0.000,0.000,0.000
1644011722614810880,2022-02-04-21:55:22,10.1.1.2,3,-0.100,-0.100,-0.100,0.000,0.000,0.000
1644011722814775040,2022-02-04-21:55:22,10.1.1.2,1,-0.100,-0.100,-0.100,0.000,0.000,0.000
1644011723034172928,2022-02-04-21:55:23,10.1.1.2,19,-0.100,-0.100,-0.100,0.000,0.000,0.000
1644011723246436096,2022-02-04-21:55:23,10.1.1.2,30,-0.100,-0.100,-0.100,0.000,0.000,0.000
1644011723433444864,2022-02-04-21:55:23,10.1.1.2,17,-0.100,-0.100,-0.100,0.000,0.000,0.000
1644011723635410944,2022-02-04-21:55:23,10.1.1.2,18,-0.100,-0.100,-0.100,0.000,0.000,0.000
1644011723822263040,2022-02-04-21:55:23,10.1.1.2,3,-0.100,-0.100,-0.100,0.000,0.000,0.000
1644011724029733888,2022-02-04-21:55:24,10.1.1.2,9,-0.100,-0.100,-0.100,0.000,0.000,0.000
1644011724236339968,2022-02-04-21:55:24,10.1.1.2,15,-0.100,-0.100,-0.100,0.000,0.000,0.000
1644011724431655936,2022-02-04-21:55:24,10.1.1.2,8,-0.100,-0.100,-0.100,0.000,0.000,0.000
1644011724657206016,2022-02-04-21:55:24,10.1.1.2,33,-0.100,-0.100,-0.100,0.000,0.000,0.000
1644011724827941888,2022-02-04-21:55:24,10.1.1.2,2,-0.100,-0.100,-0.100,0.000,0.000,0.000
1644011725054867968,2022-02-04-21:55:25,10.1.1.2,27,-0.100,-0.100,-0.100,0.000,0.000,0.000
1644011725231714048,2022-02-04-21:55:25,10.1.1.2,2,-0.100,-0.100,-0.100,0.000,0.000,0.000
1644011725433481984,2022-02-04-21:55:25,10.1.1.2,1,-0.100,-0.100,-0.100,0.000,0.000,0.000
1644011725645442048,2022-02-04-21:55:25,10.1.1.2,5,-0.100,-0.100,-0.100,0.000,0.000,0.000
1644011725846582784,2022-02-04-21:55:25,10.1.1.2,5,-0.100,-0.100,-0.100,0.000,0.000,0.000
1644011726051868928,2022-02-04-21:55:26,10.1.1.2,8,-0.100,-0.100,-0.100,0.000,0.000,0.000
1644011726245968128,2022-02-04-21:55:26,10.1.1.2,2,-0.100,-0.100,-0.100,0.000,0.000,0.000
1644011726459425024,2022-02-04-21:55:26,10.1.1.2,13,-0.100,-0.100,-0.100,0.000,0.000,0.000
1644011726655830016,2022-02-04-21:55:26,10.1.1.2,9,-0.100,-0.100,-0.100,0.000,0.000,0.000
1644011726852848896,2022-02-04-21:55:26,10.1.1.2,4,-0.100,-0.100,-0.100,0.000,0.000,0.000
1644011727053108992,2022-02-04-21:55:27,10.1.1.2,3,-0.100,-0.100,-0.100,0.000,0.000,0.000
1644011727254887168,2022-02-04-21:55:27,10.1.1.2,4,-0.100,-0.100,-0.100,0.000,0.000,0.000
1644011727453239040,2022-02-04-21:55:27,10.1.1.2,1,-0.100,-0.100,-0.100,0.000,0.000,0.000
1644011727658082048,2022-02-04-21:55:27,10.1.1.2,5,-0.100,-0.100,-0.100,0.000,0.000,0.000
1644011727854733824,2022-02-04-21:55:27,10.1.1.2,0,-0.100,-0.100,-0.100,0.000,0.000,0.000
1644011728080038144,2022-02-04-21:55:28,10.1.1.2,25,-0.100,-0.100,-0.100,0.000,0.000,0.000
1644011728272023808,2022-02-04-21:55:28,10.1.1.2,16,-0.100,-0.100,-0.100,0.000,0.000,0.000
1644011728472027904,2022-02-04-21:55:28,10.1.1.2,15,-0.100,-0.100,-0.100,0.000,0.000,0.000
1644011728659614208,2022-02-04-21:55:28,10.1.1.2,1,-0.100,-0.100,-0.100,0.000,0.000,0.000
1644011728868280832,2022-02-04-21:55:28,10.1.1.2,9,-0.100,-0.100,-0.100,0.000,0.000,0.000
1644011729067629056,2022-02-04-21:55:29,10.1.1.2,7,-0.100,-0.100,-0.100,0.000,0.000,0.000
1644011729269312000,2022-02-04-21:55:29,10.1.1.2,8,-0.100,-0.100,-0.100,0.000,0.000,0.000
1644011729469708032,2022-02-04-21:55:29,10.1.1.2,7,-0.100,-0.100,-0.100,0.000,0.000,0.000
1644011729672418048,2022-02-04-21:55:29,10.1.1.2,5,-0.100,-0.100,-0.100,0.000,0.000,0.000
1644011729870194944,2022-02-04-21:55:29,10.1.1.2,2,-0.100,-0.100,-0.100,0.000,0.000,0.000
1644011730091576064,2022-02-04-21:55:30,10.1.1.2,20,-0.100,-0.100,-0.100,0.000,0.000,0.000
1644011730277319936,2022-02-04-21:55:30,10.1.1.2,5,-0.100,-0.100,-0.100,0.000,0.000,0.000
1644011730477893120,2022-02-04-21:55:30,10.1.1.2,5,-0.100,-0.100,-0.100,0.000,0.000,0.000
1644011730677180928,2022-02-04-21:55:30,10.1.1.2,1,-0.100,-0.100,-0.100,0.000,0.000,0.000
1644011730885126144,2022-02-04-21:55:30,10.1.1.2,4,-0.100,-0.100,-0.100,0.000,0.000,0.000
1644011731089199104,2022-02-04-21:55:31,10.1.1.2,4,-0.100,-0.100,-0.100,0.000,0.000,0.000
1644011731291682048,2022-02-04-21:55:31,10.1.1.2,4,-0.100,-0.100,-0.100,0.000,0.000,0.000
1644011731493181952,2022-02-04-21:55:31,10.1.1.2,5,-0.100,-0.100,-0.100,0.000,0.000,0.000
1644011731689730048,2022-02-04-21:55:31,10.1.1.2,1,-0.100,-0.100,-0.100,0.000,0.000,0.000
1644011731894936064,2022-02-04-21:55:31,10.1.1.2,4,-0.100,-0.100,-0.100,0.000,0.000,0.000
1644011732108891904,2022-02-04-21:55:32,10.1.1.2,18,-0.100,-0.100,-0.100,0.000,0.000,0.000
1644011732296140032,2022-02-04-21:55:32,10.1.1.2,4,-0.100,-0.100,-0.100,0.000,0.000,0.000
1644011732509358848,2022-02-04-21:55:32,10.1.1.2,16,-0.100,-0.100,-0.100,0.000,0.000,0.000
1644011732698962944,2022-02-04-21:55:32,10.1.1.2,5,-0.100,-0.100,-0.100,0.000,0.000,0.000
1644011732908598784,2022-02-04-21:55:32,10.1.1.2,13,-0.100,-0.100,-0.100,0.000,0.000,0.000
1644011733103779072,2022-02-04-21:55:33,10.1.1.2,4,-0.100,-0.100,-0.100,0.000,0.000,0.000
1644011733314359808,2022-02-04-21:55:33,10.1.1.2,14,-0.100,-0.100,-0.100,0.000,0.000,0.000
1644011733503159040,2022-02-04-21:55:33,10.1.1.2,2,-0.100,-0.100,-0.100,0.000,0.000,0.000
1644011733706615040,2022-02-04-21:55:33,10.1.1.2,4,-0.100,-0.100,-0.100,0.000,0.000,0.000
1644011733915280128,2022-02-04-21:55:33,10.1.1.2,12,-0.100,-0.100,-0.100,0.000,0.000,0.000
1644011734111907072,2022-02-04-21:55:34,10.1.1.2,8,-0.100,-0.100,-0.100,0.000,0.000,0.000
1644011734312480000,2022-02-04-21:55:34,10.1.1.2,7,-0.100,-0.100,-0.100,0.000,0.000,0.000
1644011734521619968,2022-02-04-21:55:34,10.1.1.2,16,-0.100,-0.100,-0.100,0.000,0.000,0.000
1644011734712729856,2022-02-04-21:55:34,10.1.1.2,1,-0.100,-0.100,-0.100,0.000,0.000,0.000
1644011734916763904,2022-02-04-21:55:34,10.1.1.2,4,-0.100,-0.100,-0.100,0.000,0.000,0.000
1644011735115237888,2022-02-04-21:55:35,10.1.1.2,-1,-0.100,-0.100,-0.100,0.000,0.000,0.000
1644011735360316928,2022-02-04-21:55:35,10.1.1.2,44,-0.100,-0.100,-0.100,0.000,0.000,0.000
1644011735519186944,2022-02-04-21:55:35,10.1.1.2,1,-0.100,-0.100,-0.100,0.000,0.000,0.000
1644011735722984960,2022-02-04-21:55:35,10.1.1.2,4,-0.100,-0.100,-0.100,0.000,0.000,0.000
1644011735921936896,2022-02-04-21:55:35,10.1.1.2,2,-0.100,-0.100,-0.100,0.000,0.000,0.000
1644011736125582080,2022-02-04-21:55:36,10.1.1.2,5,-0.100,-0.100,-0.100,0.000,0.000,0.000
1644011736326029056,2022-02-04-21:55:36,10.1.1.2,4,-0.100,-0.100,-0.100,0.000,0.000,0.000
1644011736527385088,2022-02-04-21:55:36,10.1.1.2,5,-0.100,-0.100,-0.100,0.000,0.000,0.000
1644011736728344832,2022-02-04-21:55:36,10.1.1.2,4,-0.100,-0.100,-0.100,0.000,0.000,0.000
1644011736927299072,2022-02-04-21:55:36,10.1.1.2,2,-0.100,-0.100,-0.100,0.000,0.000,0.000
1644011737127104000,2022-02-04-21:55:37,10.1.1.2,1,-0.100,-0.100,-0.100,0.000,0.000,0.000
1644011737328561152,2022-02-04-21:55:37,10.1.1.2,2,-0.100,-0.100,-0.100,0.000,0.000,0.000
1644011737529007872,2022-02-04-21:55:37,10.1.1.2,-1,-0.100,-0.100,-0.100,0.000,0.000,0.000
1644011737734118912,2022-02-04-21:55:37,10.1.1.2,4,-0.100,-0.100,-0.100,0.000,0.000,0.000
1644011737949799936,2022-02-04-21:55:37,10.1.1.2,19,-0.100,-0.100,-0.100,0.000,0.000,0.000
1644011738149803008,2022-02-04-21:55:38,10.1.1.2,18,-0.100,-0.100,-0.100,0.000,0.000,0.000
1644011738350372096,2022-02-04-21:55:38,10.1.1.2,18,-0.100,-0.100,-0.100,0.000,0.000,0.000
1644011738550385920,2022-02-04-21:55:38,10.1.1.2,17,-0.100,-0.100,-0.100,0.000,0.000,0.000
1644011738750747904,2022-02-04-21:55:38,10.1.1.2,16,-0.100,-0.100,-0.100,0.000,0.000,0.000
1644011738957638912,2022-02-04-21:55:38,10.1.1.2,23,-0.100,-0.100,-0.100,0.000,0.000,0.000
1644011739141516800,2022-02-04-21:55:39,10.1.1.2,4,-0.100,-0.100,-0.100,0.000,0.000,0.000
1644011739348999936,2022-02-04-21:55:39,10.1.1.2,12,-0.100,-0.100,-0.100,0.000,0.000,0.000
1644011739549884160,2022-02-04-21:55:39,10.1.1.2,12,-0.100,-0.100,-0.100,0.000,0.000,0.000
1644011739749856000,2022-02-04-21:55:39,10.1.1.2,11,-0.100,-0.100,-0.100,0.000,0.000,0.000
1644011739950300928,2022-02-04-21:55:39,10.1.1.2,9,-0.100,-0.100,-0.100,0.000,0.000,0.000
1644011740150897920,2022-02-04-21:55:40,10.1.1.2,9,-0.100,-0.100,-0.100,0.000,0.000,0.000
1644011740349788928,2022-02-04-21:55:40,10.1.1.2,7,-0.100,-0.100,-0.100,0.000,0.000,0.000
1644011740549786112,2022-02-04-21:55:40,10.1.1.2,6,-0.100,-0.100,-0.100,0.000,0.000,0.000
1644011740749474048,2022-02-04-21:55:40,10.1.1.2,5,-0.100,-0.100,-0.100,0.000,0.000,0.000
1644011740952481024,2022-02-04-21:55:40,10.1.1.2,4,-0.100,-0.100,-0.100,0.000,0.000,0.000
1644011741157579776,2022-02-04-21:55:41,10.1.1.2,9,-0.100,-0.100,-0.100,0.000,0.000,0.000
1644011741358996992,2022-02-04-21:55:41,10.1.1.2,9,-0.100,-0.100,-0.100,0.000,0.000,0.000
1644011741568242176,2022-02-04-21:55:41,10.1.1.2,17,-0.100,-0.100,-0.100,0.000,0.000,0.000
1644011741753719040,2022-02-04-21:55:41,10.1.1.2,-1,-0.100,-0.100,-0.100,0.000,0.000,0.000
1644011741958095104,2022-02-04-21:55:41,10.1.1.2,3,-0.100,-0.100,-0.100,0.000,0.000,0.000
1644011742167827968,2022-02-04-21:55:42,10.1.1.2,8,-0.100,-0.100,-0.100,0.000,0.000,0.000
1644011742376914944,2022-02-04-21:55:42,10.1.1.2,16,-0.100,-0.100,-0.100,0.000,0.000,0.000
1644011742577428224,2022-02-04-21:55:42,10.1.1.2,16,-0.100,-0.100,-0.100,0.000,0.000,0.000
1644011742775776000,2022-02-04-21:55:42,10.1.1.2,13,-0.100,-0.100,-0.100,0.000,0.000,0.000
1644011742978849792,2022-02-04-21:55:42,10.1.1.2,16,-0.100,-0.100,-0.100,0.000,0.000,0.000
1644011743169516032,2022-02-04-21:55:43,10.1.1.2,1,-0.100,-0.100,-0.100,0.000,0.000,0.000
1644011743387907072,2022-02-04-21:55:43,10.1.1.2,18,-0.100,-0.100,-0.100,0.000,0.000,0.000
1644011743575598080,2022-02-04-21:55:43,10.1.1.2,5,-0.100,-0.100,-0.100,0.000,0.000,0.000
1644011743790280192,2022-02-04-21:55:43,10.1.1.2,15,-0.100,-0.100,-0.100,0.000,0.000,0.000
1644011743987795200,2022-02-04-21:55:43,10.1.1.2,12,-0.100,-0.100,-0.100,0.000,0.000,0.000
1644011744188313856,2022-02-04-21:55:44,10.1.1.2,10,-0.100,-0.100,-0.100,0.000,0.000,0.000
1644011744402467072,2022-02-04-21:55:44,10.1.1.2,22,-0.100,-0.100,-0.100,0.000,0.000,0.000
1644011744586288896,2022-02-04-21:55:44,10.1.1.2,5,-0.100,-0.100,-0.100,0.000,0.000,0.000
1644011744795102976,2022-02-04-21:55:44,10.1.1.2,9,-0.100,-0.100,-0.100,0.000,0.000,0.000
1644011745010615040,2022-02-04-21:55:45,10.1.1.2,24,-0.100,-0.100,-0.100,0.000,0.000,0.000
1644011745197159168,2022-02-04-21:55:45,10.1.1.2,5,-0.100,-0.100,-0.100,0.000,0.000,0.000
1644011745395410944,2022-02-04-21:55:45,10.1.1.2,1,-0.100,-0.100,-0.100,0.000,0.000,0.000
1644011745596210944,2022-02-04-21:55:45,10.1.1.2,0,-0.100,-0.100,-0.100,0.000,0.000,0.000
1644011745801806080,2022-02-04-21:55:45,10.1.1.2,2,-0.100,-0.100,-0.100,0.000,0.000,0.000
1644011746009251072,2022-02-04-21:55:46,10.1.1.2,7,-0.100,-0.100,-0.100,0.000,0.000,0.000
1644011746208809984,2022-02-04-21:55:46,10.1.1.2,5,-0.100,-0.100,-0.100,0.000,0.000,0.000
1644011746409567232,2022-02-04-21:55:46,10.1.1.2,2,-0.100,-0.100,-0.100,0.000,0.000,0.000
1644011746611813120,2022-02-04-21:55:46,10.1.1.2,4,-0.100,-0.100,-0.100,0.000,0.000,0.000
1644011746809915136,2022-02-04-21:55:46,10.1.1.2,1,-0.100,-0.100,-0.100,0.000,0.000,0.000
1644011747030808832,2022-02-04-21:55:47,10.1.1.2,20,-0.100,-0.100,-0.100,0.000,0.000,0.000
1644011747229711104,2022-02-04-21:55:47,10.1.1.2,16,-0.100,-0.100,-0.100,0.000,0.000,0.000
1644011747428621056,2022-02-04-21:55:47,10.1.1.2,12,-0.100,-0.100,-0.100,0.000,0.000,0.000
1644011747629734912,2022-02-04-21:55:47,10.1.1.2,10,-0.100,-0.100,-0.100,0.000,0.000,0.000
1644011747829179136,2022-02-04-21:55:47,10.1.1.2,7,-0.100,-0.100,-0.100,0.000,0.000,0.000
1644011748029705984,2022-02-04-21:55:48,10.1.1.2,7,-0.100,-0.100,-0.100,0.000,0.000,0.000
1644011748228197120,2022-02-04-21:55:48,10.1.1.2,5,-0.100,-0.100,-0.100,0.000,0.000,0.000
1644011748428992000,2022-02-04-21:55:48,10.1.1.2,4,-0.100,-0.100,-0.100,0.000,0.000,0.000
1644011748630734080,2022-02-04-21:55:48,10.1.1.2,3,-0.100,-0.100,-0.100,0.000,0.000,0.000
1644011748834119936,2022-02-04-21:55:48,10.1.1.2,4,-0.100,-0.100,-0.100,0.000,0.000,0.000
1644011749035303168,2022-02-04-21:55:49,10.1.1.2,4,-0.100,-0.100,-0.100,0.000,0.000,0.000
1644011749235045888,2022-02-04-21:55:49,10.1.1.2,3,-0.100,-0.100,-0.100,0.000,0.000,0.000
1644011749477370112,2022-02-04-21:55:49,10.1.1.2,44,-0.100,-0.100,-0.100,0.000,0.000,0.000
1644011749637342976,2022-02-04-21:55:49,10.1.1.2,3,-0.100,-0.100,-0.100,0.000,0.000,0.000
1644011749838236928,2022-02-04-21:55:49,10.1.1.2,1,-0.100,-0.100,-0.100,0.000,0.000,0.000
1644011750058331136,2022-02-04-21:55:50,10.1.1.2,19,-0.100,-0.100,-0.100,0.000,0.000,0.000
1644011750247699968,2022-02-04-21:55:50,10.1.1.2,8,-0.100,-0.100,-0.100,0.000,0.000,0.000
1644011750448332032,2022-02-04-21:55:50,10.1.1.2,7,-0.100,-0.100,-0.100,0.000,0.000,0.000
1644011750647546112,2022-02-04-21:55:50,10.1.1.2,5,-0.100,-0.100,-0.100,0.000,0.000,0.000
1644011750848985856,2022-02-04-21:55:50,10.1.1.2,5,-0.100,-0.100,-0.100,0.000,0.000,0.000
1644011751049402112,2022-02-04-21:55:51,10.1.1.2,5,-0.100,-0.100,-0.100,0.000,0.000,0.000
1644011751248749056,2022-02-04-21:55:51,10.1.1.2,1,-0.100,-0.100,-0.100,0.000,0.000,0.000
1644011751468306944,2022-02-04-21:55:51,10.1.1.2,19,-0.100,-0.100,-0.100,0.000,0.000,0.000
1644011751667581952,2022-02-04-21:55:51,10.1.1.2,16,-0.100,-0.100,-0.100,0.000,0.000,0.000
1644011751853643776,2022-02-04-21:55:51,10.1.1.2,1,-0.100,-0.100,-0.100,0.000,0.000,0.000
1644011752058615040,2022-02-04-21:55:52,10.1.1.2,5,-0.100,-0.100,-0.100,0.000,0.000,0.000
1644011752259470080,2022-02-04-21:55:52,10.1.1.2,4,-0.100,-0.100,-0.100,0.000,0.000,0.000
1644011752482840064,2022-02-04-21:55:52,10.1.1.2,26,-0.100,-0.100,-0.100,0.000,0.000,0.000
1644011752673099008,2022-02-04-21:55:52,10.1.1.2,10,-0.100,-0.100,-0.100,0.000,0.000,0.000
1644011752872798976,2022-02-04-21:55:52,10.1.1.2,4,-0.100,-0.100,-0.100,0.000,0.000,0.000
1644011753073681152,2022-02-04-21:55:53,10.1.1.2,1,-0.100,-0.100,-0.100,0.000,0.000,0.000
1644011753278501888,2022-02-04-21:55:53,10.1.1.2,4,-0.100,-0.100,-0.100,0.000,0.000,0.000
1644011753479254016,2022-02-04-21:55:53,10.1.1.2,4,-0.100,-0.100,-0.100,0.000,0.000,0.000
1644011753688879872,2022-02-04-21:55:53,10.1.1.2,12,-0.100,-0.100,-0.100,0.000,0.000,0.000
1644011753910471936,2022-02-04-21:55:53,10.1.1.2,27,-0.100,-0.100,-0.100,0.000,0.000,0.000
1644011754087555840,2022-02-04-21:55:54,10.1.1.2,2,-0.100,-0.100,-0.100,0.000,0.000,0.000
1644011754287336192,2022-02-04-21:55:54,10.1.1.2,2,-0.100,-0.100,-0.100,0.000,0.000,0.000
1644011754496051968,2022-02-04-21:55:54,10.1.1.2,9,-0.100,-0.100,-0.100,0.000,0.000,0.000
1644011754691133952,2022-02-04-21:55:54,10.1.1.2,3,-0.100,-0.100,-0.100,0.000,0.000,0.000
1644011754894674944,2022-02-04-21:55:54,10.1.1.2,6,-0.100,-0.100,-0.100,0.000,0.000,0.000
1644011755096111104,2022-02-04-21:55:55,10.1.1.2,2,-0.100,-0.100,-0.100,0.000,0.000,0.000
1644011755299256064,2022-02-04-21:55:55,10.1.1.2,4,-0.100,-0.100,-0.100,0.000,0.000,0.000
1644011755501719040,2022-02-04-21:55:55,10.1.1.2,5,-0.100,-0.100,-0.100,0.000,0.000,0.000
1644011755703337984,2022-02-04-21:55:55,10.1.1.2,4,-0.100,-0.100,-0.100,0.000,0.000,0.000
1644011755913671936,2022-02-04-21:55:55,10.1.1.2,14,-0.100,-0.100,-0.100,0.000,0.000,0.000
1644011756114437120,2022-02-04-21:55:56,10.1.1.2,11,-0.100,-0.100,-0.100,0.000,0.000,0.000
1644011756308895232,2022-02-04-21:55:56,10.1.1.2,5,-0.100,-0.100,-0.100,0.000,0.000,0.000
1644011756511930112,2022-02-04-21:55:56,10.1.1.2,6,-0.100,-0.100,-0.100,0.000,0.000,0.000
1644011756715475968,2022-02-04-21:55:56,10.1.1.2,3,-0.100,-0.100,-0.100,0.000,0.000,0.000
1644011756941189888,2022-02-04-21:55:56,10.1.1.2,28,-0.100,-0.100,-0.100,0.000,0.000,0.000
1644011757140944128,2022-02-04-21:55:57,10.1.1.2,27,-0.100,-0.100,-0.100,0.000,0.000,0.000
1644011757331252992,2022-02-04-21:55:57,10.1.1.2,17,-0.100,-0.100,-0.100,0.000,0.000,0.000
1644011757531482880,2022-02-04-21:55:57,10.1.1.2,16,-0.100,-0.100,-0.100,0.000,0.000,0.000
1644011757734585088,2022-02-04-21:55:57,10.1.1.2,18,-0.100,-0.100,-0.100,0.000,0.000,0.000
1644011757932337920,2022-02-04-21:55:57,10.1.1.2,15,-0.100,-0.100,-0.100,0.000,0.000,0.000
1644011758132962048,2022-02-04-21:55:58,10.1.1.2,15,-0.100,-0.100,-0.100,0.000,0.000,0.000
1644011758319552000,2022-02-04-21:55:58,10.1.1.2,1,-0.100,-0.100,-0.100,0.000,0.000,0.000
1644011758530217984,2022-02-04-21:55:58,10.1.1.2,10,-0.100,-0.100,-0.100,0.000,0.000,0.000
1644011758730103040,2022-02-04-21:55:58,10.1.1.2,10,-0.100,-0.100,-0.100,0.000,0.000,0.000
1644011758929803008,2022-02-04-21:55:58,10.1.1.2,4,-0.100,-0.100,-0.100,0.000,0.000,0.000
1644011759146683904,2022-02-04-21:55:59,10.1.1.2,14,-0.100,-0.100,-0.100,0.000,0.000,0.000
1644011759334557184,2022-02-04-21:55:59,10.1.1.2,1,-0.100,-0.100,-0.100,0.000,0.000,0.000
1644011759535461888,2022-02-04-21:55:59,10.1.1.2,0,-0.100,-0.100,-0.100,0.000,0.000,0.000
1644011759755696896,2022-02-04-21:55:59,10.1.1.2,19,-0.100,-0.100,-0.100,0.000,0.000,0.000
1644011759940884224,2022-02-04-21:55:59,10.1.1.2,4,-0.100,-0.100,-0.100,0.000,0.000,0.000
1644011760151648000,2022-02-04-21:56:00,10.1.1.2,14,-0.100,-0.100,-0.100,0.000,0.000,0.000
1644011760338668032,2022-02-04-21:56:00,10.1.1.2,1,-0.100,-0.100,-0.100,0.000,0.000,0.000
1644011760544089088,2022-02-04-21:56:00,10.1.1.2,6,-0.100,-0.100,-0.100,0.000,0.000,0.000
1644011760743387904,2022-02-04-21:56:00,10.1.1.2,3,-0.100,-0.100,-0.100,0.000,0.000,0.000
1644011760955895808,2022-02-04-21:56:00,10.1.1.2,15,-0.100,-0.100,-0.100,0.000,0.000,0.000
1644011761151972096,2022-02-04-21:56:01,10.1.1.2,8,-0.100,-0.100,-0.100,0.000,0.000,0.000
1644011761352716032,2022-02-04-21:56:01,10.1.1.2,5,-0.100,-0.100,-0.100,0.000,0.000,0.000
1644011761556206080,2022-02-04-21:56:01,10.1.1.2,8,-0.100,-0.100,-0.100,0.000,0.000,0.000
1644011761761957888,2022-02-04-21:56:01,10.1.1.2,13,-0.100,-0.100,-0.100,0.000,0.000,0.000
1644011761952142080,2022-02-04-21:56:01,10.1.1.2,2,-0.100,-0.100,-0.100,0.000,0.000,0.000
1644011762153467904,2022-02-04-21:56:02,10.1.1.2,3,-0.100,-0.100,-0.100,0.000,0.000,0.000
1644011762352122112,2022-02-04-21:56:02,10.1.1.2,0,-0.100,-0.100,-0.100,0.000,0.000,0.000
1644011762554907136,2022-02-04-21:56:02,10.1.1.2,2,-0.100,-0.100,-0.100,0.000,0.000,0.000
1644011762761213184,2022-02-04-21:56:02,10.1.1.2,7,-0.100,-0.100,-0.100,0.000,0.000,0.000
1644011762977969920,2022-02-04-21:56:02,10.1.1.2,24,-0.100,-0.100,-0.100,0.000,0.000,0.000
1644011763172076032,2022-02-04-21:56:03,10.1.1.2,17,-0.100,-0.100,-0.100,0.000,0.000,0.000
1644011763378464000,2022-02-04-21:56:03,10.1.1.2,23,-0.100,-0.100,-0.100,0.000,0.000,0.000
1644011763559351040,2022-02-04-21:56:03,10.1.1.2,3,-0.100,-0.100,-0.100,0.000,0.000,0.000
1644011763760632064,2022-02-04-21:56:03,10.1.1.2,3,-0.100,-0.100,-0.100,0.000,0.000,0.000
1644011763974505984,2022-02-04-21:56:03,10.1.1.2,16,-0.100,-0.100,-0.100,0.000,0.000,0.000
1644011764164026880,2022-02-04-21:56:04,10.1.1.2,1,-0.100,-0.100,-0.100,0.000,0.000,0.000
1644011764374952192,2022-02-04-21:56:04,10.1.1.2,10,-0.100,-0.100,-0.100,0.000,0.000,0.000
1644011764568849920,2022-02-04-21:56:04,10.1.1.2,3,-0.100,-0.100,-0.100,0.000,0.000,0.000
1644011764775691008,2022-02-04-21:56:04,10.1.1.2,9,-0.100,-0.100,-0.100,0.000,0.000,0.000
1644011764974593024,2022-02-04-21:56:04,10.1.1.2,6,-0.100,-0.100,-0.100,0.000,0.000,0.000
1644011765198350848,2022-02-04-21:56:05,10.1.1.2,26,-0.100,-0.100,-0.100,0.000,0.000,0.000
1644011765379770880,2022-02-04-21:56:05,10.1.1.2,6,-0.100,-0.100,-0.100,0.000,0.000,0.000
1644011765579197952,2022-02-04-21:56:05,10.1.1.2,4,-0.100,-0.100,-0.100,0.000,0.000,0.000
1644011765780364032,2022-02-04-21:56:05,10.1.1.2,2,-0.100,-0.100,-0.100,0.000,0.000,0.000
1644011765987316992,2022-02-04-21:56:05,10.1.1.2,7,-0.100,-0.100,-0.100,0.000,0.000,0.000
1644011766189945088,2022-02-04-21:56:06,10.1.1.2,4,-0.100,-0.100,-0.100,0.000,0.000,0.000
1644011766392049920,2022-02-04-21:56:06,10.1.1.2,3,-0.100,-0.100,-0.100,0.000,0.000,0.000
1644011766594221056,2022-02-04-21:56:06,10.1.1.2,5,-0.100,-0.100,-0.100,0.000,0.000,0.000
1644011766794675200,2022-02-04-21:56:06,10.1.1.2,4,-0.100,-0.100,-0.100,0.000,0.000,0.000
1644011767009799936,2022-02-04-21:56:07,10.1.1.2,16,-0.100,-0.100,-0.100,0.000,0.000,0.000
1644011767208048128,2022-02-04-21:56:07,10.1.1.2,13,-0.100,-0.100,-0.100,0.000,0.000,0.000
1644011767408251136,2022-02-04-21:56:07,10.1.1.2,8,-0.100,-0.100,-0.100,0.000,0.000,0.000
1644011767620135936,2022-02-04-21:56:07,10.1.1.2,19,-0.100,-0.100,-0.100,0.000,0.000,0.000
1644011767808332800,2022-02-04-21:56:07,10.1.1.2,6,-0.100,-0.100,-0.100,0.000,0.000,0.000
1644011768009238016,2022-02-04-21:56:08,10.1.1.2,5,-0.100,-0.100,-0.100,0.000,0.000,0.000
1644011768209188096,2022-02-04-21:56:08,10.1.1.2,4,-0.100,-0.100,-0.100,0.000,0.000,0.000
1644011768407737088,2022-02-04-21:56:08,10.1.1.2,2,-0.100,-0.100,-0.100,0.000,0.000,0.000
1644011768611620864,2022-02-04-21:56:08,10.1.1.2,4,-0.100,-0.100,-0.100,0.000,0.000,0.000
1644011768815042048,2022-02-04-21:56:08,10.1.1.2,4,-0.100,-0.100,-0.100,0.000,0.000,0.000
1644011769015238912,2022-02-04-21:56:09,10.1.1.2,0,-0.100,-0.100,-0.100,0.000,0.000,0.000
1644011769233900032,2022-02-04-21:56:09,10.1.1.2,14,-0.100,-0.100,-0.100,0.000,0.000,0.000
1644011769425120000,2022-02-04-21:56:09,10.1.1.2,4,-0.100,-0.100,-0.100,0.000,0.000,0.000
1644011769631397120,2022-02-04-21:56:09,10.1.1.2,9,-0.100,-0.100,-0.100,0.000,0.000,0.000
1644011769831778048,2022-02-04-21:56:09,10.1.1.2,2,-0.100,-0.100,-0.100,0.000,0.000,0.000
1644011770031995136,2022-02-04-21:56:10,10.1.1.2,1,-0.100,-0.100,-0.100,0.000,0.000,0.000
1644011770236419840,2022-02-04-21:56:10,10.1.1.2,4,-0.100,-0.100,-0.100,0.000,0.000,0.000
1644011770435516160,2022-02-04-21:56:10,10.1.1.2,2,-0.100,-0.100,-0.100,0.000,0.000,0.000
1644011770636248064,2022-02-04-21:56:10,10.1.1.2,2,-0.100,-0.100,-0.100,0.000,0.000,0.000
1644011770837104128,2022-02-04-21:56:10,10.1.1.2,1,-0.100,-0.100,-0.100,0.000,0.000,0.000
1644011771037636096,2022-02-04-21:56:11,10.1.1.2,-1,-0.100,-0.100,-0.100,0.000,0.000,0.000
1644011771255819008,2022-02-04-21:56:11,10.1.1.2,15,-0.100,-0.100,-0.100,0.000,0.000,0.000
1644011771449590016,2022-02-04-21:56:11,10.1.1.2,9,-0.100,-0.100,-0.100,0.000,0.000,0.000
1644011771659638784,2022-02-04-21:56:11,10.1.1.2,18,-0.100,-0.100,-0.100,0.000,0.000,0.000
1644011771851012864,2022-02-04-21:56:11,10.1.1.2,8,-0.100,-0.100,-0.100,0.000,0.000,0.000
1644011772047068160,2022-02-04-21:56:12,10.1.1.2,3,-0.100,-0.100,-0.100,0.000,0.000,0.000
1644011772250263808,2022-02-04-21:56:12,10.1.1.2,5,-0.100,-0.100,-0.100,0.000,0.000,0.000
1644011772459176960,2022-02-04-21:56:12,10.1.1.2,9,-0.100,-0.100,-0.100,0.000,0.000,0.000
1644011772653949952,2022-02-04-21:56:12,10.1.1.2,3,-0.100,-0.100,-0.100,0.000,0.000,0.000
1644011772853980928,2022-02-04-21:56:12,10.1.1.2,2,-0.100,-0.100,-0.100,0.000,0.000,0.000
1644011773060646912,2022-02-04-21:56:13,10.1.1.2,7,-0.100,-0.100,-0.100,0.000,0.000,0.000
1644011773258333952,2022-02-04-21:56:13,10.1.1.2,2,-0.100,-0.100,-0.100,0.000,0.000,0.000
1644011773457943040,2022-02-04-21:56:13,10.1.1.2,1,-0.100,-0.100,-0.100,0.000,0.000,0.000
1644011773677376000,2022-02-04-21:56:13,10.1.1.2,19,-0.100,-0.100,-0.100,0.000,0.000,0.000
1644011773869859072,2022-02-04-21:56:13,10.1.1.2,10,-0.100,-0.100,-0.100,0.000,0.000,0.000
1644011774072939008,2022-02-04-21:56:14,10.1.1.2,13,-0.100,-0.100,-0.100,0.000,0.000,0.000
1644011774272824064,2022-02-04-21:56:14,10.1.1.2,12,-0.100,-0.100,-0.100,0.000,0.000,0.000
1644011774461849088,2022-02-04-21:56:14,10.1.1.2,0,-0.100,-0.100,-0.100,0.000,0.000,0.000
1644011774673953024,2022-02-04-21:56:14,10.1.1.2,11,-0.100,-0.100,-0.100,0.000,0.000,0.000
1644011774872602880,2022-02-04-21:56:14,10.1.1.2,9,-0.100,-0.100,-0.100,0.000,0.000,0.000
1644011775071816960,2022-02-04-21:56:15,10.1.1.2,7,-0.100,-0.100,-0.100,0.000,0.000,0.000
1644011775272989952,2022-02-04-21:56:15,10.1.1.2,3,-0.100,-0.100,-0.100,0.000,0.000,0.000
1644011775471365888,2022-02-04-21:56:15,10.1.1.2,1,-0.100,-0.100,-0.100,0.000,0.000,0.000
1644011775676760832,2022-02-04-21:56:15,10.1.1.2,6,-0.100,-0.100,-0.100,0.000,0.000,0.000
1644011775872256000,2022-02-04-21:56:15,10.1.1.2,0,-0.100,-0.100,-0.100,0.000,0.000,0.000
1644011776074886912,2022-02-04-21:56:16,10.1.1.2,1,-0.100,-0.100,-0.100,0.000,0.000,0.000
1644011776294253056,2022-02-04-21:56:16,10.1.1.2,19,-0.100,-0.100,-0.100,0.000,0.000,0.000
1644011776494606080,2022-02-04-21:56:16,10.1.1.2,15,-0.100,-0.100,-0.100,0.000,0.000,0.000
1644011776703389952,2022-02-04-21:56:16,10.1.1.2,23,-0.100,-0.100,-0.100,0.000,0.000,0.000
1644011776889688064,2022-02-04-21:56:16,10.1.1.2,6,-0.100,-0.100,-0.100,0.000,0.000,0.000
1644011777093335040,2022-02-04-21:56:17,10.1.1.2,9,-0.100,-0.100,-0.100,0.000,0.000,0.000
1644011777289256960,2022-02-04-21:56:17,10.1.1.2,4,-0.100,-0.100,-0.100,0.000,0.000,0.000
1644011777489186048,2022-02-04-21:56:17,10.1.1.2,3,-0.100,-0.100,-0.100,0.000,0.000,0.000
1644011777691590912,2022-02-04-21:56:17,10.1.1.2,3,-0.100,-0.100,-0.100,0.000,0.000,0.000
1644011777901211136,2022-02-04-21:56:17,10.1.1.2,12,-0.100,-0.100,-0.100,0.000,0.000,0.000
1644011778090505984,2022-02-04-21:56:18,10.1.1.2,-1,-0.100,-0.100,-0.100,0.000,0.000,0.000
1644011778291450112,2022-02-04-21:56:18,10.1.1.2,0,-0.100,-0.100,-0.100,0.000,0.000,0.000
1644011778510344960,2022-02-04-21:56:18,10.1.1.2,15,-0.100,-0.100,-0.100,0.000,0.000,0.000
1644011778698690816,2022-02-04-21:56:18,10.1.1.2,2,-0.100,-0.100,-0.100,0.000,0.000,0.000
1644011778902172160,2022-02-04-21:56:18,10.1.1.2,2,-0.100,-0.100,-0.100,0.000,0.000,0.000
1644011779108439808,2022-02-04-21:56:19,10.1.1.2,4,-0.100,-0.100,-0.100,0.000,0.000,0.000
1644011779308544000,2022-02-04-21:56:19,10.1.1.2,4,-0.100,-0.100,-0.100,0.000,0.000,0.000
1644011779509716992,2022-02-04-21:56:19,10.1.1.2,4,-0.100,-0.100,-0.100,0.000,0.000,0.000
1644011779713810944,2022-02-04-21:56:19,10.1.1.2,5,-0.100,-0.100,-0.100,0.000,0.000,0.000
1644011779911856896,2022-02-04-21:56:19,10.1.1.2,1,-0.100,-0.100,-0.100,0.000,0.000,0.000
1644011780116321024,2022-02-04-21:56:20,10.1.1.2,4,-0.100,-0.100,-0.100,0.000,0.000,0.000
1644011780315777024,2022-02-04-21:56:20,10.1.1.2,3,-0.100,-0.100,-0.100,0.000,0.000,0.000
1644011780559886848,2022-02-04-21:56:20,10.1.1.2,44,-0.100,-0.100,-0.100,0.000,0.000,0.000
1644011780721245952,2022-02-04-21:56:20,10.1.1.2,4,-0.100,-0.100,-0.100,0.000,0.000,0.000
1644011780922358016,2022-02-04-21:56:20,10.1.1.2,4,-0.100,-0.100,-0.100,0.000,0.000,0.000
1644011781137547008,2022-02-04-21:56:21,10.1.1.2,19,-0.100,-0.100,-0.100,0.000,0.000,0.000
1644011781329016832,2022-02-04-21:56:21,10.1.1.2,9,-0.100,-0.100,-0.100,0.000,0.000,0.000
1644011781527410944,2022-02-04-21:56:21,10.1.1.2,7,-0.100,-0.100,-0.100,0.000,0.000,0.000
1644011781730595072,2022-02-04-21:56:21,10.1.1.2,9,-0.100,-0.100,-0.100,0.000,0.000,0.000
1644011781926960896,2022-02-04-21:56:21,10.1.1.2,4,-0.100,-0.100,-0.100,0.000,0.000,0.000
1644011782132192000,2022-02-04-21:56:22,10.1.1.2,5,-0.100,-0.100,-0.100,0.000,0.000,0.000
1644011782329899008,2022-02-04-21:56:22,10.1.1.2,1,-0.100,-0.100,-0.100,0.000,0.000,0.000
1644011782537106944,2022-02-04-21:56:22,10.1.1.2,6,-0.100,-0.100,-0.100,0.000,0.000,0.000
1644011782735970048,2022-02-04-21:56:22,10.1.1.2,4,-0.100,-0.100,-0.100,0.000,0.000,0.000
1644011782937055232,2022-02-04-21:56:22,10.1.1.2,4,-0.100,-0.100,-0.100,0.000,0.000,0.000
1644011783137167872,2022-02-04-21:56:23,10.1.1.2,3,-0.100,-0.100,-0.100,0.000,0.000,0.000
1644011783341382912,2022-02-04-21:56:23,10.1.1.2,1,-0.100,-0.100,-0.100,0.000,0.000,0.000
1644011783555186944,2022-02-04-21:56:23,10.1.1.2,14,-0.100,-0.100,-0.100,0.000,0.000,0.000
1644011783754998016,2022-02-04-21:56:23,10.1.1.2,12,-0.100,-0.100,-0.100,0.000,0.000,0.000
1644011783948784128,2022-02-04-21:56:23,10.1.1.2,4,-0.100,-0.100,-0.100,0.000,0.000,0.000
1644011784148451072,2022-02-04-21:56:24,10.1.1.2,2,-0.100,-0.100,-0.100,0.000,0.000,0.000
1644011784359003136,2022-02-04-21:56:24,10.1.1.2,12,-0.100,-0.100,-0.100,0.000,0.000,0.000
1644011784548773120,2022-02-04-21:56:24,10.1.1.2,0,-0.100,-0.100,-0.100,0.000,0.000,0.000
1644011784753325056,2022-02-04-21:56:24,10.1.1.2,4,-0.100,-0.100,-0.100,0.000,0.000,0.000
1644011784953905152,2022-02-04-21:56:24,10.1.1.2,3,-0.100,-0.100,-0.100,0.000,0.000,0.000
1644011785156099072,2022-02-04-21:56:25,10.1.1.2,1,-0.100,-0.100,-0.100,0.000,0.000,0.000
1644011785359613952,2022-02-04-21:56:25,10.1.1.2,3,-0.100,-0.100,-0.100,0.000,0.000,0.000
1644011785563852032,2022-02-04-21:56:25,10.1.1.2,4,-0.100,-0.100,-0.100,0.000,0.000,0.000
1644011785782439936,2022-02-04-21:56:25,10.1.1.2,21,-0.100,-0.100,-0.100,0.000,0.000,0.000
1644011785963894016,2022-02-04-21:56:25,10.1.1.2,2,-0.100,-0.100,-0.100,0.000,0.000,0.000
1644011786169492992,2022-02-04-21:56:26,10.1.1.2,6,-0.100,-0.100,-0.100,0.000,0.000,0.000
1644011786366467072,2022-02-04-21:56:26,10.1.1.2,1,-0.100,-0.100,-0.100,0.000,0.000,0.000
1644011786570280192,2022-02-04-21:56:26,10.1.1.2,3,-0.100,-0.100,-0.100,0.000,0.000,0.000
1644011786768538880,2022-02-04-21:56:26,10.1.1.2,1,-0.100,-0.100,-0.100,0.000,0.000,0.000
1644011786974436096,2022-02-04-21:56:26,10.1.1.2,6,-0.100,-0.100,-0.100,0.000,0.000,0.000
1644011787170906112,2022-02-04-21:56:27,10.1.1.2,1,-0.100,-0.100,-0.100,0.000,0.000,0.000
1644011787374636032,2022-02-04-21:56:27,10.1.1.2,3,-0.100,-0.100,-0.100,0.000,0.000,0.000
1644011787572616960,2022-02-04-21:56:27,10.1.1.2,0,-0.100,-0.100,-0.100,0.000,0.000,0.000
1644011787777240064,2022-02-04-21:56:27,10.1.1.2,4,-0.100,-0.100,-0.100,0.000,0.000,0.000
1644011787978700032,2022-02-04-21:56:27,10.1.1.2,4,-0.100,-0.100,-0.100,0.000,0.000,0.000
1644011788179311872,2022-02-04-21:56:28,10.1.1.2,4,-0.100,-0.100,-0.100,0.000,0.000,0.000
1644011788379865856,2022-02-04-21:56:28,10.1.1.2,3,-0.100,-0.100,-0.100,0.000,0.000,0.000
1644011788594053888,2022-02-04-21:56:28,10.1.1.2,16,-0.100,-0.100,-0.100,0.000,0.000,0.000
1644011788795115008,2022-02-04-21:56:28,10.1.1.2,17,-0.100,-0.100,-0.100,0.000,0.000,0.000
1644011788997414144,2022-02-04-21:56:28,10.1.1.2,18,-0.100,-0.100,-0.100,0.000,0.000,0.000
1644011789181186048,2022-02-04-21:56:29,10.1.1.2,1,-0.100,-0.100,-0.100,0.000,0.000,0.000
1644011789389198080,2022-02-04-21:56:29,10.1.1.2,8,-0.100,-0.100,-0.100,0.000,0.000,0.000
1644011789590415872,2022-02-04-21:56:29,10.1.1.2,6,-0.100,-0.100,-0.100,0.000,0.000,0.000
1644011789793379072,2022-02-04-21:56:29,10.1.1.2,5,-0.100,-0.100,-0.100,0.000,0.000,0.000
1644011789991848960,2022-02-04-21:56:29,10.1.1.2,3,-0.100,-0.100,-0.100,0.000,0.000,0.000
1644011790192523008,2022-02-04-21:56:30,10.1.1.2,2,-0.100,-0.100,-0.100,0.000,0.000,0.000
1644011790393544960,2022-02-04-21:56:30,10.1.1.2,2,-0.100,-0.100,-0.100,0.000,0.000,0.000
1644011790594096896,2022-02-04-21:56:30,10.1.1.2,1,-0.100,-0.100,-0.100,0.000,0.000,0.000
1644011790794347008,2022-02-04-21:56:30,10.1.1.2,-1,-0.100,-0.100,-0.100,0.000,0.000,0.000
1644011791013509888,2022-02-04-21:56:31,10.1.1.2,19,-0.100,-0.100,-0.100,0.000,0.000,0.000
1644011791199342080,2022-02-04-21:56:31,10.1.1.2,3,-0.100,-0.100,-0.100,0.000,0.000,0.000
1644011791411184128,2022-02-04-21:56:31,10.1.1.2,5,-0.100,-0.100,-0.100,0.000,0.000,0.000
1644011791613091072,2022-02-04-21:56:31,10.1.1.2,4,-0.100,-0.100,-0.100,0.000,0.000,0.000
1644011791828353792,2022-02-04-21:56:31,10.1.1.2,18,-0.100,-0.100,-0.100,0.000,0.000,0.000
1644011792037228032,2022-02-04-21:56:32,10.1.1.2,26,-0.100,-0.100,-0.100,0.000,0.000,0.000
1644011792219193088,2022-02-04-21:56:32,10.1.1.2,3,-0.100,-0.100,-0.100,0.000,0.000,0.000
1644011792420193024,2022-02-04-21:56:32,10.1.1.2,1,-0.100,-0.100,-0.100,0.000,0.000,0.000
1644011792624258048,2022-02-04-21:56:32,10.1.1.2,4,-0.100,-0.100,-0.100,0.000,0.000,0.000
1644011792830108928,2022-02-04-21:56:32,10.1.1.2,4,-0.100,-0.100,-0.100,0.000,0.000,0.000
1644011793033849856,2022-02-04-21:56:33,10.1.1.2,4,-0.100,-0.100,-0.100,0.000,0.000,0.000
1644011793234461952,2022-02-04-21:56:33,10.1.1.2,3,-0.100,-0.100,-0.100,0.000,0.000,0.000
1644011793436300032,2022-02-04-21:56:33,10.1.1.2,4,-0.100,-0.100,-0.100,0.000,0.000,0.000
1644011793635173120,2022-02-04-21:56:33,10.1.1.2,1,-0.100,-0.100,-0.100,0.000,0.000,0.000
1644011793851421184,2022-02-04-21:56:33,10.1.1.2,17,-0.100,-0.100,-0.100,0.000,0.000,0.000
1644011794039358976,2022-02-04-21:56:34,10.1.1.2,2,-0.100,-0.100,-0.100,0.000,0.000,0.000
1644011794254940928,2022-02-04-21:56:34,10.1.1.2,17,-0.100,-0.100,-0.100,0.000,0.000,0.000
1644011794444505856,2022-02-04-21:56:34,10.1.1.2,5,-0.100,-0.100,-0.100,0.000,0.000,0.000
1644011794644339968,2022-02-04-21:56:34,10.1.1.2,4,-0.100,-0.100,-0.100,0.000,0.000,0.000
1644011794847042048,2022-02-04-21:56:34,10.1.1.2,5,-0.100,-0.100,-0.100,0.000,0.000,0.000
1644011795049308928,2022-02-04-21:56:35,10.1.1.2,3,-0.100,-0.100,-0.100,0.000,0.000,0.000
1644011795254306048,2022-02-04-21:56:35,10.1.1.2,7,-0.100,-0.100,-0.100,0.000,0.000,0.000
1644011795455499008,2022-02-04-21:56:35,10.1.1.2,5,-0.100,-0.100,-0.100,0.000,0.000,0.000
1644011795659225856,2022-02-04-21:56:35,10.1.1.2,4,-0.100,-0.100,-0.100,0.000,0.000,0.000
1644011795860861184,2022-02-04-21:56:35,10.1.1.2,1,-0.100,-0.100,-0.100,0.000,0.000,0.000
1644011796069065984,2022-02-04-21:56:36,10.1.1.2,4,-0.100,-0.100,-0.100,0.000,0.000,0.000
1644011796275533056,2022-02-04-21:56:36,10.1.1.2,10,-0.100,-0.100,-0.100,0.000,0.000,0.000
1644011796472000000,2022-02-04-21:56:36,10.1.1.2,1,-0.100,-0.100,-0.100,0.000,0.000,0.000
1644011796675546880,2022-02-04-21:56:36,10.1.1.2,0,-0.100,-0.100,-0.100,0.000,0.000,0.000
1644011796894205952,2022-02-04-21:56:36,10.1.1.2,17,-0.100,-0.100,-0.100,0.000,0.000,0.000
1644011797082413824,2022-02-04-21:56:37,10.1.1.2,4,-0.100,-0.100,-0.100,0.000,0.000,0.000
1644011797293114880,2022-02-04-21:56:37,10.1.1.2,14,-0.100,-0.100,-0.100,0.000,0.000,0.000
1644011797492646912,2022-02-04-21:56:37,10.1.1.2,12,-0.100,-0.100,-0.100,0.000,0.000,0.000
1644011797691156992,2022-02-04-21:56:37,10.1.1.2,7,-0.100,-0.100,-0.100,0.000,0.000,0.000
1644011797891503104,2022-02-04-21:56:37,10.1.1.2,7,-0.100,-0.100,-0.100,0.000,0.000,0.000
1644011798095685888,2022-02-04-21:56:38,10.1.1.2,10,-0.100,-0.100,-0.100,0.000,0.000,0.000
1644011798292829952,2022-02-04-21:56:38,10.1.1.2,5,-0.100,-0.100,-0.100,0.000,0.000,0.000
1644011798489448192,2022-02-04-21:56:38,10.1.1.2,1,-0.100,-0.100,-0.100,0.000,0.000,0.000
1644011798690331904,2022-02-04-21:56:38,10.1.1.2,0,-0.100,-0.100,-0.100,0.000,0.000,0.000
1644011798891053824,2022-02-04-21:56:38,10.1.1.2,0,-0.100,-0.100,-0.100,0.000,0.000,0.000
1644011799109947904,2022-02-04-21:56:39,10.1.1.2,18,-0.100,-0.100,-0.100,0.000,0.000,0.000
1644011799309655808,2022-02-04-21:56:39,10.1.1.2,9,-0.100,-0.100,-0.100,0.000,0.000,0.000
1644011799538595840,2022-02-04-21:56:39,10.1.1.2,37,-0.100,-0.100,-0.100,0.000,0.000,0.000
1644011799709327104,2022-02-04-21:56:39,10.1.1.2,6,-0.100,-0.100,-0.100,0.000,0.000,0.000
1644011799905160960,2022-02-04-21:56:39,10.1.1.2,1,-0.100,-0.100,-0.100,0.000,0.000,0.000
1644011800109234176,2022-02-04-21:56:40,10.1.1.2,2,-0.100,-0.100,-0.100,0.000,0.000,0.000
1644011800309323008,2022-02-04-21:56:40,10.1.1.2,1,-0.100,-0.100,-0.100,0.000,0.000,0.000
1644011800515309056,2022-02-04-21:56:40,10.1.1.2,5,-0.100,-0.100,-0.100,0.000,0.000,0.000
1644011800715095040,2022-02-04-21:56:40,10.1.1.2,1,-0.100,-0.100,-0.100,0.000,0.000,0.000
1644011800934010112,2022-02-04-21:56:40,10.1.1.2,19,-0.100,-0.100,-0.100,0.000,0.000,0.000
1644011801134531072,2022-02-04-21:56:41,10.1.1.2,18,-0.100,-0.100,-0.100,0.000,0.000,0.000
1644011801334270976,2022-02-04-21:56:41,10.1.1.2,15,-0.100,-0.100,-0.100,0.000,0.000,0.000
1644011801522139904,2022-02-04-21:56:41,10.1.1.2,2,-0.100,-0.100,-0.100,0.000,0.000,0.000
1644011801733838080,2022-02-04-21:56:41,10.1.1.2,3,-0.100,-0.100,-0.100,0.000,0.000,0.000
1644011801934461184,2022-02-04-21:56:41,10.1.1.2,3,-0.100,-0.100,-0.100,0.000,0.000,0.000
1644011802134624000,2022-02-04-21:56:42,10.1.1.2,2,-0.100,-0.100,-0.100,0.000,0.000,0.000
1644011802334930944,2022-02-04-21:56:42,10.1.1.2,1,-0.100,-0.100,-0.100,0.000,0.000,0.000
1644011802553723136,2022-02-04-21:56:42,10.1.1.2,19,-0.100,-0.100,-0.100,0.000,0.000,0.000
1644011802759331840,2022-02-04-21:56:42,10.1.1.2,24,-0.100,-0.100,-0.100,0.000,0.000,0.000
1644011802951767040,2022-02-04-21:56:42,10.1.1.2,16,-0.100,-0.100,-0.100,0.000,0.000,0.000
1644011803151663104,2022-02-04-21:56:43,10.1.1.2,14,-0.100,-0.100,-0.100,0.000,0.000,0.000
1644011803353844992,2022-02-04-21:56:43,10.1.1.2,15,-0.100,-0.100,-0.100,0.000,0.000,0.000
1644011803553211904,2022-02-04-21:56:43,10.1.1.2,13,-0.100,-0.100,-0.100,0.000,0.000,0.000
1644011803747903232,2022-02-04-21:56:43,10.1.1.2,4,-0.100,-0.100,-0.100,0.000,0.000,0.000
1644011803948310016,2022-02-04-21:56:43,10.1.1.2,4,-0.100,-0.100,-0.100,0.000,0.000,0.000
1644011804150193920,2022-02-04-21:56:44,10.1.1.2,5,-0.100,-0.100,-0.100,0.000,0.000,0.000
1644011804351571200,2022-02-04-21:56:44,10.1.1.2,4,-0.100,-0.100,-0.100,0.000,0.000,0.000
1644011804550930944,2022-02-04-21:56:44,10.1.1.2,3,-0.100,-0.100,-0.100,0.000,0.000,0.000
1644011804750740992,2022-02-04-21:56:44,10.1.1.2,1,-0.100,-0.100,-0.100,0.000,0.000,0.000
1644011804954201856,2022-02-04-21:56:44,10.1.1.2,1,-0.100,-0.100,-0.100,0.000,0.000,0.000
1644011805163060992,2022-02-04-21:56:45,10.1.1.2,5,-0.100,-0.100,-0.100,0.000,0.000,0.000
1644011805366971904,2022-02-04-21:56:45,10.1.1.2,7,-0.100,-0.100,-0.100,0.000,0.000,0.000
1644011805568923904,2022-02-04-21:56:45,10.1.1.2,8,-0.100,-0.100,-0.100,0.000,0.000,0.000
1644011805764305152,2022-02-04-21:56:45,10.1.1.2,3,-0.100,-0.100,-0.100,0.000,0.000,0.000
1644011805967313920,2022-02-04-21:56:45,10.1.1.2,4,-0.100,-0.100,-0.100,0.000,0.000,0.000
1644011806192198912,2022-02-04-21:56:46,10.1.1.2,28,-0.100,-0.100,-0.100,0.000,0.000,0.000
1644011806374638080,2022-02-04-21:56:46,10.1.1.2,10,-0.100,-0.100,-0.100,0.000,0.000,0.000
1644011806573685760,2022-02-04-21:56:46,10.1.1.2,5,-0.100,-0.100,-0.100,0.000,0.000,0.000
1644011806775002112,2022-02-04-21:56:46,10.1.1.2,1,-0.100,-0.100,-0.100,0.000,0.000,0.000
1644011806994139904,2022-02-04-21:56:46,10.1.1.2,17,-0.100,-0.100,-0.100,0.000,0.000,0.000
1644011807193885952,2022-02-04-21:56:47,10.1.1.2,16,-0.100,-0.100,-0.100,0.000,0.000,0.000
1644011807393534976,2022-02-04-21:56:47,10.1.1.2,15,-0.100,-0.100,-0.100,0.000,0.000,0.000
1644011807582408960,2022-02-04-21:56:47,10.1.1.2,3,-0.100,-0.100,-0.100,0.000,0.000,0.000
1644011807783514112,2022-02-04-21:56:47,10.1.1.2,3,-0.100,-0.100,-0.100,0.000,0.000,0.000
1644011807999848960,2022-02-04-21:56:47,10.1.1.2,19,-0.100,-0.100,-0.100,0.000,0.000,0.000
1644011808187449856,2022-02-04-21:56:48,10.1.1.2,4,-0.100,-0.100,-0.100,0.000,0.000,0.000
1644011808408626944,2022-02-04-21:56:48,10.1.1.2,24,-0.100,-0.100,-0.100,0.000,0.000,0.000
1644011808594189056,2022-02-04-21:56:48,10.1.1.2,9,-0.100,-0.100,-0.100,0.000,0.000,0.000
1644011808794512896,2022-02-04-21:56:48,10.1.1.2,8,-0.100,-0.100,-0.100,0.000,0.000,0.000
1644011808994146048,2022-02-04-21:56:48,10.1.1.2,7,-0.100,-0.100,-0.100,0.000,0.000,0.000
1644011809193548032,2022-02-04-21:56:49,10.1.1.2,2,-0.100,-0.100,-0.100,0.000,0.000,0.000
1644011809395365120,2022-02-04-21:56:49,10.1.1.2,3,-0.100,-0.100,-0.100,0.000,0.000,0.000
1644011809593530880,2022-02-04-21:56:49,10.1.1.2,0,-0.100,-0.100,-0.100,0.000,0.000,0.000
1644011809796694016,2022-02-04-21:56:49,10.1.1.2,-1,-0.100,-0.100,-0.100,0.000,0.000,0.000
1644011810001530880,2022-02-04-21:56:50,10.1.1.2,5,-0.100,-0.100,-0.100,0.000,0.000,0.000
1644011810212019968,2022-02-04-21:56:50,10.1.1.2,14,-0.100,-0.100,-0.100,0.000,0.000,0.000
1644011810420801024,2022-02-04-21:56:50,10.1.1.2,22,-0.100,-0.100,-0.100,0.000,0.000,0.000
1644011810604155904,2022-02-04-21:56:50,10.1.1.2,4,-0.100,-0.100,-0.100,0.000,0.000,0.000
1644011810812736000,2022-02-04-21:56:50,10.1.1.2,12,-0.100,-0.100,-0.100,0.000,0.000,0.000
1644011811015398912,2022-02-04-21:56:51,10.1.1.2,14,-0.100,-0.100,-0.100,0.000,0.000,0.000
1644011811211713024,2022-02-04-21:56:51,10.1.1.2,9,-0.100,-0.100,-0.100,0.000,0.000,0.000
1644011811414690048,2022-02-04-21:56:51,10.1.1.2,11,-0.100,-0.100,-0.100,0.000,0.000,0.000
1644011811607243008,2022-02-04-21:56:51,10.1.1.2,3,-0.100,-0.100,-0.100,0.000,0.000,0.000
1644011811807995136,2022-02-04-21:56:51,10.1.1.2,3,-0.100,-0.100,-0.100,0.000,0.000,0.000
1644011812008968960,2022-02-04-21:56:52,10.1.1.2,3,-0.100,-0.100,-0.100,0.000,0.000,0.000
1644011812207865856,2022-02-04-21:56:52,10.1.1.2,1,-0.100,-0.100,-0.100,0.000,0.000,0.000
1644011812410625024,2022-02-04-21:56:52,10.1.1.2,3,-0.100,-0.100,-0.100,0.000,0.000,0.000
1644011812610225920,2022-02-04-21:56:52,10.1.1.2,1,-0.100,-0.100,-0.100,0.000,0.000,0.000
1644011812811748096,2022-02-04-21:56:52,10.1.1.2,2,-0.100,-0.100,-0.100,0.000,0.000,0.000
1644011813059139072,2022-02-04-21:56:53,10.1.1.2,47,-0.100,-0.100,-0.100,0.000,0.000,0.000
1644011813259123200,2022-02-04-21:56:53,10.1.1.2,46,-0.100,-0.100,-0.100,0.000,0.000,0.000
1644011813420193792,2022-02-04-21:56:53,10.1.1.2,5,-0.100,-0.100,-0.100,0.000,0.000,0.000
1644011813620716032,2022-02-04-21:56:53,10.1.1.2,4,-0.100,-0.100,-0.100,0.000,0.000,0.000
1644011813821669120,2022-02-04-21:56:53,10.1.1.2,4,-0.100,-0.100,-0.100,0.000,0.000,0.000
1644011814033634048,2022-02-04-21:56:54,10.1.1.2,15,-0.100,-0.100,-0.100,0.000,0.000,0.000
1644011814244647936,2022-02-04-21:56:54,10.1.1.2,24,-0.100,-0.100,-0.100,0.000,0.000,0.000
1644011814430629888,2022-02-04-21:56:54,10.1.1.2,10,-0.100,-0.100,-0.100,0.000,0.000,0.000
1644011814631449856,2022-02-04-21:56:54,10.1.1.2,8,-0.100,-0.100,-0.100,0.000,0.000,0.000
1644011814858437888,2022-02-04-21:56:54,10.1.1.2,33,-0.100,-0.100,-0.100,0.000,0.000,0.000
1644011815030020864,2022-02-04-21:56:55,10.1.1.2,2,-0.100,-0.100,-0.100,0.000,0.000,0.000
1644011815233076992,2022-02-04-21:56:55,10.1.1.2,4,-0.100,-0.100,-0.100,0.000,0.000,0.000
1644011815433528064,2022-02-04-21:56:55,10.1.1.2,4,-0.100,-0.100,-0.100,0.000,0.000,0.000
1644011815636101888,2022-02-04-21:56:55,10.1.1.2,4,-0.100,-0.100,-0.100,0.000,0.000,0.000
1644011815833682176,2022-02-04-21:56:55,10.1.1.2,1,-0.100,-0.100,-0.100,0.000,0.000,0.000
1644011816060082944,2022-02-04-21:56:56,10.1.1.2,25,-0.100,-0.100,-0.100,0.000,0.000,0.000
1644011816260916992,2022-02-04-21:56:56,10.1.1.2,25,-0.100,-0.100,-0.100,0.000,0.000,0.000
1644011816439258112,2022-02-04-21:56:56,10.1.1.2,1,-0.100,-0.100,-0.100,0.000,0.000,0.000
1644011816645138944,2022-02-04-21:56:56,10.1.1.2,5,-0.100,-0.100,-0.100,0.000,0.000,0.000
1644011816852318976,2022-02-04-21:56:56,10.1.1.2,11,-0.100,-0.100,-0.100,0.000,0.000,0.000
1644011817049086976,2022-02-04-21:56:57,10.1.1.2,4,-0.100,-0.100,-0.100,0.000,0.000,0.000
1644011817250583040,2022-02-04-21:56:57,10.1.1.2,5,-0.100,-0.100,-0.100,0.000,0.000,0.000
1644011817459415040,2022-02-04-21:56:57,10.1.1.2,13,-0.100,-0.100,-0.100,0.000,0.000,0.000
1644011817653757952,2022-02-04-21:56:57,10.1.1.2,6,-0.100,-0.100,-0.100,0.000,0.000,0.000
1644011817859201792,2022-02-04-21:56:57,10.1.1.2,11,-0.100,-0.100,-0.100,0.000,0.000,0.000
1644011818053204992,2022-02-04-21:56:58,10.1.1.2,4,-0.100,-0.100,-0.100,0.000,0.000,0.000
1644011818267723008,2022-02-04-21:56:58,10.1.1.2,18,-0.100,-0.100,-0.100,0.000,0.000,0.000
1644011818452272896,2022-02-04-21:56:58,10.1.1.2,1,-0.100,-0.100,-0.100,0.000,0.000,0.000
1644011818653944064,2022-02-04-21:56:58,10.1.1.2,2,-0.100,-0.100,-0.100,0.000,0.000,0.000
1644011818870681088,2022-02-04-21:56:58,10.1.1.2,17,-0.100,-0.100,-0.100,0.000,0.000,0.000
1644011819058408960,2022-02-04-21:56:59,10.1.1.2,4,-0.100,-0.100,-0.100,0.000,0.000,0.000
1644011819255410944,2022-02-04-21:56:59,10.1.1.2,0,-0.100,-0.100,-0.100,0.000,0.000,0.000
1644011819460866816,2022-02-04-21:56:59,10.1.1.2,5,-0.100,-0.100,-0.100,0.000,0.000,0.000
1644011819660840960,2022-02-04-21:56:59,10.1.1.2,4,-0.100,-0.100,-0.100,0.000,0.000,0.000
1644011819861312000,2022-02-04-21:56:59,10.1.1.2,3,-0.100,-0.100,-0.100,0.000,0.000,0.000
1644011820072792064,2022-02-04-21:57:00,10.1.1.2,14,-0.100,-0.100,-0.100,0.000,0.000,0.000
1644011820279272192,2022-02-04-21:57:00,10.1.1.2,19,-0.100,-0.100,-0.100,0.000,0.000,0.000
1644011820472503808,2022-02-04-21:57:00,10.1.1.2,12,-0.100,-0.100,-0.100,0.000,0.000,0.000
1644011820672043008,2022-02-04-21:57:00,10.1.1.2,9,-0.100,-0.100,-0.100,0.000,0.000,0.000
1644011820871609856,2022-02-04-21:57:00,10.1.1.2,7,-0.100,-0.100,-0.100,0.000,0.000,0.000
1644011821075357952,2022-02-04-21:57:01,10.1.1.2,4,-0.100,-0.100,-0.100,0.000,0.000,0.000
1644011821279779072,2022-02-04-21:57:01,10.1.1.2,4,-0.100,-0.100,-0.100,0.000,0.000,0.000
1644011821493464064,2022-02-04-21:57:01,10.1.1.2,17,-0.100,-0.100,-0.100,0.000,0.000,0.000
1644011821682738176,2022-02-04-21:57:01,10.1.1.2,2,-0.100,-0.100,-0.100,0.000,0.000,0.000
1644011821893709824,2022-02-04-21:57:01,10.1.1.2,9,-0.100,-0.100,-0.100,0.000,0.000,0.000
1644011822092456192,2022-02-04-21:57:02,10.1.1.2,7,-0.100,-0.100,-0.100,0.000,0.000,0.000
1644011822293250048,2022-02-04-21:57:02,10.1.1.2,7,-0.100,-0.100,-0.100,0.000,0.000,0.000
1644011822493462016,2022-02-04-21:57:02,10.1.1.2,4,-0.100,-0.100,-0.100,0.000,0.000,0.000
1644011822692416000,2022-02-04-21:57:02,10.1.1.2,3,-0.100,-0.100,-0.100,0.000,0.000,0.000
1644011822894865152,2022-02-04-21:57:02,10.1.1.2,5,-0.100,-0.100,-0.100,0.000,0.000,0.000
1644011823102726912,2022-02-04-21:57:03,10.1.1.2,3,-0.100,-0.100,-0.100,0.000,0.000,0.000
1644011823320067840,2022-02-04-21:57:03,10.1.1.2,19,-0.100,-0.100,-0.100,0.000,0.000,0.000
1644011823510267904,2022-02-04-21:57:03,10.1.1.2,7,-0.100,-0.100,-0.100,0.000,0.000,0.000
1644011823707902976,2022-02-04-21:57:03,10.1.1.2,4,-0.100,-0.100,-0.100,0.000,0.000,0.000
1644011823909156096,2022-02-04-21:57:03,10.1.1.2,4,-0.100,-0.100,-0.100,0.000,0.000,0.000
1644011824107855104,2022-02-04-21:57:04,10.1.1.2,3,-0.100,-0.100,-0.100,0.000,0.000,0.000
1644011824309406976,2022-02-04-21:57:04,10.1.1.2,3,-0.100,-0.100,-0.100,0.000,0.000,0.000
1644011824511027968,2022-02-04-21:57:04,10.1.1.2,4,-0.100,-0.100,-0.100,0.000,0.000,0.000
1644011824711215104,2022-02-04-21:57:04,10.1.1.2,3,-0.100,-0.100,-0.100,0.000,0.000,0.000
1644011824914038784,2022-02-04-21:57:04,10.1.1.2,5,-0.100,-0.100,-0.100,0.000,0.000,0.000
1644011825146718976,2022-02-04-21:57:05,10.1.1.2,36,-0.100,-0.100,-0.100,0.000,0.000,0.000
1644011825315064832,2022-02-04-21:57:05,10.1.1.2,4,-0.100,-0.100,-0.100,0.000,0.000,0.000
1644011825516386048,2022-02-04-21:57:05,10.1.1.2,4,-0.100,-0.100,-0.100,0.000,0.000,0.000
1644011825759572992,2022-02-04-21:57:05,10.1.1.2,47,-0.100,-0.100,-0.100,0.000,0.000,0.000
1644011825924734976,2022-02-04-21:57:05,10.1.1.2,11,-0.100,-0.100,-0.100,0.000,0.000,0.000
1644011826118045952,2022-02-04-21:57:06,10.1.1.2,3,-0.100,-0.100,-0.100,0.000,0.000,0.000
1644011826321014784,2022-02-04-21:57:06,10.1.1.2,5,-0.100,-0.100,-0.100,0.000,0.000,0.000
1644011826529084928,2022-02-04-21:57:06,10.1.1.2,12,-0.100,-0.100,-0.100,0.000,0.000,0.000
1644011826743161856,2022-02-04-21:57:06,10.1.1.2,26,-0.100,-0.100,-0.100,0.000,0.000,0.000
1644011826921879040,2022-02-04-21:57:06,10.1.1.2,3,-0.100,-0.100,-0.100,0.000,0.000,0.000
1644011827123415040,2022-02-04-21:57:07,10.1.1.2,4,-0.100,-0.100,-0.100,0.000,0.000,0.000
1644011827323385856,2022-02-04-21:57:07,10.1.1.2,4,-0.100,-0.100,-0.100,0.000,0.000,0.000
1644011827535678976,2022-02-04-21:57:07,10.1.1.2,15,-0.100,-0.100,-0.100,0.000,0.000,0.000
1644011827726440960,2022-02-04-21:57:07,10.1.1.2,5,-0.100,-0.100,-0.100,0.000,0.000,0.000
1644011827923766016,2022-02-04-21:57:07,10.1.1.2,1,-0.100,-0.100,-0.100,0.000,0.000,0.000
1644011828129463040,2022-02-04-21:57:08,10.1.1.2,4,-0.100,-0.100,-0.100,0.000,0.000,0.000
1644011828331136000,2022-02-04-21:57:08,10.1.1.2,5,-0.100,-0.100,-0.100,0.000,0.000,0.000
1644011828531992064,2022-02-04-21:57:08,10.1.1.2,4,-0.100,-0.100,-0.100,0.000,0.000,0.000
1644011828732866048,2022-02-04-21:57:08,10.1.1.2,3,-0.100,-0.100,-0.100,0.000,0.000,0.000
1644011828930942976,2022-02-04-21:57:08,10.1.1.2,1,-0.100,-0.100,-0.100,0.000,0.000,0.000
1644011829136805888,2022-02-04-21:57:09,10.1.1.2,3,-0.100,-0.100,-0.100,0.000,0.000,0.000
1644011829338584832,2022-02-04-21:57:09,10.1.1.2,4,-0.100,-0.100,-0.100,0.000,0.000,0.000
1644011829538904064,2022-02-04-21:57:09,10.1.1.2,3,-0.100,-0.100,-0.100,0.000,0.000,0.000
1644011829758078208,2022-02-04-21:57:09,10.1.1.2,22,-0.100,-0.100,-0.100,0.000,0.000,0.000
1644011829948060928,2022-02-04-21:57:09,10.1.1.2,11,-0.100,-0.100,-0.100,0.000,0.000,0.000
1644011830155360000,2022-02-04-21:57:10,10.1.1.2,17,-0.100,-0.100,-0.100,0.000,0.000,0.000
1644011830348474112,2022-02-04-21:57:10,10.1.1.2,9,-0.100,-0.100,-0.100,0.000,0.000,0.000
1644011830548253184,2022-02-04-21:57:10,10.1.1.2,7,-0.100,-0.100,-0.100,0.000,0.000,0.000
1644011830748631040,2022-02-04-21:57:10,10.1.1.2,7,-0.100,-0.100,-0.100,0.000,0.000,0.000
1644011830947884032,2022-02-04-21:57:10,10.1.1.2,5,-0.100,-0.100,-0.100,0.000,0.000,0.000
1644011831167550208,2022-02-04-21:57:11,10.1.1.2,20,-0.100,-0.100,-0.100,0.000,0.000,0.000
1644011831351599872,2022-02-04-21:57:11,10.1.1.2,3,-0.100,-0.100,-0.100,0.000,0.000,0.000
1644011831553755136,2022-02-04-21:57:11,10.1.1.2,4,-0.100,-0.100,-0.100,0.000,0.000,0.000
1644011831754312960,2022-02-04-21:57:11,10.1.1.2,4,-0.100,-0.100,-0.100,0.000,0.000,0.000
1644011831957232896,2022-02-04-21:57:11,10.1.1.2,2,-0.100,-0.100,-0.100,0.000,0.000,0.000
1644011832193447168,2022-02-04-21:57:12,10.1.1.2,30,-0.100,-0.100,-0.100,0.000,0.000,0.000
1644011832373512960,2022-02-04-21:57:12,10.1.1.2,9,-0.100,-0.100,-0.100,0.000,0.000,0.000
1644011832575275776,2022-02-04-21:57:12,10.1.1.2,8,-0.100,-0.100,-0.100,0.000,0.000,0.000
1644011832775616000,2022-02-04-21:57:12,10.1.1.2,4,-0.100,-0.100,-0.100,0.000,0.000,0.000
1644011832981576960,2022-02-04-21:57:12,10.1.1.2,2,-0.100,-0.100,-0.100,0.000,0.000,0.000
1644011833192379904,2022-02-04-21:57:13,10.1.1.2,11,-0.100,-0.100,-0.100,0.000,0.000,0.000
1644011833394802176,2022-02-04-21:57:13,10.1.1.2,12,-0.100,-0.100,-0.100,0.000,0.000,0.000
1644011833588135936,2022-02-04-21:57:13,10.1.1.2,4,-0.100,-0.100,-0.100,0.000,0.000,0.000
1644011833801105920,2022-02-04-21:57:13,10.1.1.2,16,-0.100,-0.100,-0.100,0.000,0.000,0.000
1644011833990438912,2022-02-04-21:57:13,10.1.1.2,5,-0.100,-0.100,-0.100,0.000,0.000,0.000
1644011834191104768,2022-02-04-21:57:14,10.1.1.2,5,-0.100,-0.100,-0.100,0.000,0.000,0.000
1644011834391096064,2022-02-04-21:57:14,10.1.1.2,3,-0.100,-0.100,-0.100,0.000,0.000,0.000
1644011834590097920,2022-02-04-21:57:14,10.1.1.2,0,-0.100,-0.100,-0.100,0.000,0.000,0.000
1644011834794647808,2022-02-04-21:57:14,10.1.1.2,4,-0.100,-0.100,-0.100,0.000,0.000,0.000
1644011834995806976,2022-02-04-21:57:14,10.1.1.2,4,-0.100,-0.100,-0.100,0.000,0.000,0.000
1644011835207296000,2022-02-04-21:57:15,10.1.1.2,15,-0.100,-0.100,-0.100,0.000,0.000,0.000
1644011835397242112,2022-02-04-21:57:15,10.1.1.2,4,-0.100,-0.100,-0.100,0.000,0.000,0.000
1644011835600854016,2022-02-04-21:57:15,10.1.1.2,6,-0.100,-0.100,-0.100,0.000,0.000,0.000
1644011835813126144,2022-02-04-21:57:15,10.1.1.2,17,-0.100,-0.100,-0.100,0.000,0.000,0.000
1644011836010767872,2022-02-04-21:57:16,10.1.1.2,11,-0.100,-0.100,-0.100,0.000,0.000,0.000
1644011836262919936,2022-02-04-21:57:16,10.1.1.2,63,-0.100,-0.100,-0.100,0.000,0.000,0.000
1644011836434448128,2022-02-04-21:57:16,10.1.1.2,33,-0.100,-0.100,-0.100,0.000,0.000,0.000
1644011836615353088,2022-02-04-21:57:16,10.1.1.2,13,-0.100,-0.100,-0.100,0.000,0.000,0.000
1644011836807288832,2022-02-04-21:57:16,10.1.1.2,4,-0.100,-0.100,-0.100,0.000,0.000,0.000
1644011837022572032,2022-02-04-21:57:17,10.1.1.2,18,-0.100,-0.100,-0.100,0.000,0.000,0.000
1644011837208050944,2022-02-04-21:57:17,10.1.1.2,3,-0.100,-0.100,-0.100,0.000,0.000,0.000
1644011837417218816,2022-02-04-21:57:17,10.1.1.2,11,-0.100,-0.100,-0.100,0.000,0.000,0.000
1644011837615832064,2022-02-04-21:57:17,10.1.1.2,5,-0.100,-0.100,-0.100,0.000,0.000,0.000
1644011837821549824,2022-02-04-21:57:17,10.1.1.2,5,-0.100,-0.100,-0.100,0.000,0.000,0.000
1644011838022023936,2022-02-04-21:57:18,10.1.1.2,5,-0.100,-0.100,-0.100,0.000,0.000,0.000
1644011838224296960,2022-02-04-21:57:18,10.1.1.2,6,-0.100,-0.100,-0.100,0.000,0.000,0.000
1644011838422333952,2022-02-04-21:57:18,10.1.1.2,3,-0.100,-0.100,-0.100,0.000,0.000,0.000
1644011838633754112,2022-02-04-21:57:18,10.1.1.2,14,-0.100,-0.100,-0.100,0.000,0.000,0.000
1644011838861780992,2022-02-04-21:57:18,10.1.1.2,41,-0.100,-0.100,-0.100,0.000,0.000,0.000
1644011839023851008,2022-02-04-21:57:19,10.1.1.2,1,-0.100,-0.100,-0.100,0.000,0.000,0.000
1644011839228986880,2022-02-04-21:57:19,10.1.1.2,2,-0.100,-0.100,-0.100,0.000,0.000,0.000
1644011839430740224,2022-02-04-21:57:19,10.1.1.2,3,-0.100,-0.100,-0.100,0.000,0.000,0.000
1644011839650652928,2022-02-04-21:57:19,10.1.1.2,19,-0.100,-0.100,-0.100,0.000,0.000,0.000
1644011839906789120,2022-02-04-21:57:19,10.1.1.2,73,-0.100,-0.100,-0.100,0.000,0.000,0.000
1644011840047333120,2022-02-04-21:57:20,10.1.1.2,13,-0.100,-0.100,-0.100,0.000,0.000,0.000
1644011840250308864,2022-02-04-21:57:20,10.1.1.2,15,-0.100,-0.100,-0.100,0.000,0.000,0.000
1644011840450124032,2022-02-04-21:57:20,10.1.1.2,14,-0.100,-0.100,-0.100,0.000,0.000,0.000
1644011840647006976,2022-02-04-21:57:20,10.1.1.2,10,-0.100,-0.100,-0.100,0.000,0.000,0.000
1644011840854633984,2022-02-04-21:57:20,10.1.1.2,17,-0.100,-0.100,-0.100,0.000,0.000,0.000
1644011841070063104,2022-02-04-21:57:21,10.1.1.2,29,-0.100,-0.100,-0.100,0.000,0.000,0.000
1644011841249146112,2022-02-04-21:57:21,10.1.1.2,7,-0.100,-0.100,-0.100,0.000,0.000,0.000
1644011841448969984,2022-02-04-21:57:21,10.1.1.2,6,-0.100,-0.100,-0.100,0.000,0.000,0.000
1644011841648393984,2022-02-04-21:57:21,10.1.1.2,4,-0.100,-0.100,-0.100,0.000,0.000,0.000
1644011841849346048,2022-02-04-21:57:21,10.1.1.2,3,-0.100,-0.100,-0.100,0.000,0.000,0.000
1644011842049510912,2022-02-04-21:57:22,10.1.1.2,3,-0.100,-0.100,-0.100,0.000,0.000,0.000
1644011842255172864,2022-02-04-21:57:22,10.1.1.2,7,-0.100,-0.100,-0.100,0.000,0.000,0.000
1644011842454061056,2022-02-04-21:57:22,10.1.1.2,5,-0.100,-0.100,-0.100,0.000,0.000,0.000
1644011842653723904,2022-02-04-21:57:22,10.1.1.2,4,-0.100,-0.100,-0.100,0.000,0.000,0.000
1644011842854371072,2022-02-04-21:57:22,10.1.1.2,4,-0.100,-0.100,-0.100,0.000,0.000,0.000
1644011843067570944,2022-02-04-21:57:23,10.1.1.2,13,-0.100,-0.100,-0.100,0.000,0.000,0.000
1644011843267496960,2022-02-04-21:57:23,10.1.1.2,8,-0.100,-0.100,-0.100,0.000,0.000,0.000
1644011843467980032,2022-02-04-21:57:23,10.1.1.2,5,-0.100,-0.100,-0.100,0.000,0.000,0.000
1644011843670695936,2022-02-04-21:57:23,10.1.1.2,3,-0.100,-0.100,-0.100,0.000,0.000,0.000
1644011843887620864,2022-02-04-21:57:23,10.1.1.2,16,-0.100,-0.100,-0.100,0.000,0.000,0.000
1644011844088051968,2022-02-04-21:57:24,10.1.1.2,16,-0.100,-0.100,-0.100,0.000,0.000,0.000
1644011844287337984,2022-02-04-21:57:24,10.1.1.2,14,-0.100,-0.100,-0.100,0.000,0.000,0.000
1644011844488369920,2022-02-04-21:57:24,10.1.1.2,15,-0.100,-0.100,-0.100,0.000,0.000,0.000
1644011844678247936,2022-02-04-21:57:24,10.1.1.2,4,-0.100,-0.100,-0.100,0.000,0.000,0.000
1644011844879643904,2022-02-04-21:57:24,10.1.1.2,4,-0.100,-0.100,-0.100,0.000,0.000,0.000
1644011845092673024,2022-02-04-21:57:25,10.1.1.2,16,-0.100,-0.100,-0.100,0.000,0.000,0.000
1644011845293073920,2022-02-04-21:57:25,10.1.1.2,16,-0.100,-0.100,-0.100,0.000,0.000,0.000
1644011845483804928,2022-02-04-21:57:25,10.1.1.2,5,-0.100,-0.100,-0.100,0.000,0.000,0.000
1644011845683975936,2022-02-04-21:57:25,10.1.1.2,5,-0.100,-0.100,-0.100,0.000,0.000,0.000
1644011845916770048,2022-02-04-21:57:25,10.1.1.2,37,-0.100,-0.100,-0.100,0.000,0.000,0.000
1644011846136094208,2022-02-04-21:57:26,10.1.1.2,55,-0.100,-0.100,-0.100,0.000,0.000,0.000
1644011846297329920,2022-02-04-21:57:26,10.1.1.2,15,-0.100,-0.100,-0.100,0.000,0.000,0.000
1644011846532609024,2022-02-04-21:57:26,10.1.1.2,50,-0.100,-0.100,-0.100,0.000,0.000,0.000
1644011846694252032,2022-02-04-21:57:26,10.1.1.2,11,-0.100,-0.100,-0.100,0.000,0.000,0.000
1644011846887459072,2022-02-04-21:57:26,10.1.1.2,3,-0.100,-0.100,-0.100,0.000,0.000,0.000
1644011847086833920,2022-02-04-21:57:27,10.1.1.2,1,-0.100,-0.100,-0.100,0.000,0.000,0.000
1644011847296376832,2022-02-04-21:57:27,10.1.1.2,10,-0.100,-0.100,-0.100,0.000,0.000,0.000
1644011847492748032,2022-02-04-21:57:27,10.1.1.2,5,-0.100,-0.100,-0.100,0.000,0.000,0.000
1644011847728656128,2022-02-04-21:57:27,10.1.1.2,40,-0.100,-0.100,-0.100,0.000,0.000,0.000
1644011847890801920,2022-02-04-21:57:27,10.1.1.2,-1,-0.100,-0.100,-0.100,0.000,0.000,0.000
1644011848095630848,2022-02-04-21:57:28,10.1.1.2,4,-0.100,-0.100,-0.100,0.000,0.000,0.000
1644011848294553088,2022-02-04-21:57:28,10.1.1.2,1,-0.100,-0.100,-0.100,0.000,0.000,0.000
1644011848512289024,2022-02-04-21:57:28,10.1.1.2,18,-0.100,-0.100,-0.100,0.000,0.000,0.000
1644011848698563072,2022-02-04-21:57:28,10.1.1.2,4,-0.100,-0.100,-0.100,0.000,0.000,0.000
1644011848910987008,2022-02-04-21:57:28,10.1.1.2,15,-0.100,-0.100,-0.100,0.000,0.000,0.000
1644011849109777920,2022-02-04-21:57:29,10.1.1.2,13,-0.100,-0.100,-0.100,0.000,0.000,0.000
1644011849310932992,2022-02-04-21:57:29,10.1.1.2,10,-0.100,-0.100,-0.100,0.000,0.000,0.000
1644011849511374848,2022-02-04-21:57:29,10.1.1.2,9,-0.100,-0.100,-0.100,0.000,0.000,0.000
1644011849711492096,2022-02-04-21:57:29,10.1.1.2,8,-0.100,-0.100,-0.100,0.000,0.000,0.000
1644011849909784064,2022-02-04-21:57:29,10.1.1.2,4,-0.100,-0.100,-0.100,0.000,0.000,0.000
1644011850110435840,2022-02-04-21:57:30,10.1.1.2,4,-0.100,-0.100,-0.100,0.000,0.000,0.000
1644011850313698048,2022-02-04-21:57:30,10.1.1.2,7,-0.100,-0.100,-0.100,0.000,0.000,0.000
1644011850511641856,2022-02-04-21:57:30,10.1.1.2,4,-0.100,-0.100,-0.100,0.000,0.000,0.000
1644011850708592896,2022-02-04-21:57:30,10.1.1.2,0,-0.100,-0.100,-0.100,0.000,0.000,0.000
1644011850919225856,2022-02-04-21:57:30,10.1.1.2,4,-0.100,-0.100,-0.100,0.000,0.000,0.000
1644011851150804992,2022-02-04-21:57:31,10.1.1.2,35,-0.100,-0.100,-0.100,0.000,0.000,0.000
1644011851319261184,2022-02-04-21:57:31,10.1.1.2,2,-0.100,-0.100,-0.100,0.000,0.000,0.000
1644011851530601984,2022-02-04-21:57:31,10.1.1.2,12,-0.100,-0.100,-0.100,0.000,0.000,0.000
1644011851729353984,2022-02-04-21:57:31,10.1.1.2,9,-0.100,-0.100,-0.100,0.000,0.000,0.000
1644011851929342976,2022-02-04-21:57:31,10.1.1.2,8,-0.100,-0.100,-0.100,0.000,0.000,0.000
1644011852129122048,2022-02-04-21:57:32,10.1.1.2,4,-0.100,-0.100,-0.100,0.000,0.000,0.000
1644011852330300928,2022-02-04-21:57:32,10.1.1.2,4,-0.100,-0.100,-0.100,0.000,0.000,0.000
1644011852528051968,2022-02-04-21:57:32,10.1.1.2,1,-0.100,-0.100,-0.100,0.000,0.000,0.000
1644011852731444992,2022-02-04-21:57:32,10.1.1.2,3,-0.100,-0.100,-0.100,0.000,0.000,0.000
1644011852932632064,2022-02-04-21:57:32,10.1.1.2,4,-0.100,-0.100,-0.100,0.000,0.000,0.000
1644011853152122880,2022-02-04-21:57:33,10.1.1.2,19,-0.100,-0.100,-0.100,0.000,0.000,0.000
1644011853352871936,2022-02-04-21:57:33,10.1.1.2,19,-0.100,-0.100,-0.100,0.000,0.000,0.000
1644011853552503040,2022-02-04-21:57:33,10.1.1.2,18,-0.100,-0.100,-0.100,0.000,0.000,0.000
1644011853777672960,2022-02-04-21:57:33,10.1.1.2,42,-0.100,-0.100,-0.100,0.000,0.000,0.000
1644011853955920896,2022-02-04-21:57:33,10.1.1.2,19,-0.100,-0.100,-0.100,0.000,0.000,0.000
1644011854155255040,2022-02-04-21:57:34,10.1.1.2,18,-0.100,-0.100,-0.100,0.000,0.000,0.000
1644011854349421056,2022-02-04-21:57:34,10.1.1.2,11,-0.100,-0.100,-0.100,0.000,0.000,0.000
1644011854555468032,2022-02-04-21:57:34,10.1.1.2,16,-0.100,-0.100,-0.100,0.000,0.000,0.000
1644011854749739008,2022-02-04-21:57:34,10.1.1.2,10,-0.100,-0.100,-0.100,0.000,0.000,0.000
1644011854963048960,2022-02-04-21:57:34,10.1.1.2,22,-0.100,-0.100,-0.100,0.000,0.000,0.000
1644011855153458176,2022-02-04-21:57:35,10.1.1.2,5,-0.100,-0.100,-0.100,0.000,0.000,0.000
1644011855358934016,2022-02-04-21:57:35,10.1.1.2,1,-0.100,-0.100,-0.100,0.000,0.000,0.000
1644011855575934976,2022-02-04-21:57:35,10.1.1.2,16,-0.100,-0.100,-0.100,0.000,0.000,0.000
1644011855805938944,2022-02-04-21:57:35,10.1.1.2,45,-0.100,-0.100,-0.100,0.000,0.000,0.000
1644011855965565952,2022-02-04-21:57:35,10.1.1.2,4,-0.100,-0.100,-0.100,0.000,0.000,0.000
1644011856209714944,2022-02-04-21:57:36,10.1.1.2,48,-0.100,-0.100,-0.100,0.000,0.000,0.000
1644011856371407872,2022-02-04-21:57:36,10.1.1.2,8,-0.100,-0.100,-0.100,0.000,0.000,0.000
1644011856571079936,2022-02-04-21:57:36,10.1.1.2,4,-0.100,-0.100,-0.100,0.000,0.000,0.000
1644011856772555008,2022-02-04-21:57:36,10.1.1.2,4,-0.100,-0.100,-0.100,0.000,0.000,0.000
1644011856975212032,2022-02-04-21:57:36,10.1.1.2,5,-0.100,-0.100,-0.100,0.000,0.000,0.000
1644011857175052032,2022-02-04-21:57:37,10.1.1.2,4,-0.100,-0.100,-0.100,0.000,0.000,0.000
1644011857373090048,2022-02-04-21:57:37,10.1.1.2,-1,-0.100,-0.100,-0.100,0.000,0.000,0.000
1644011857580168960,2022-02-04-21:57:37,10.1.1.2,3,-0.100,-0.100,-0.100,0.000,0.000,0.000
1644011857786480896,2022-02-04-21:57:37,10.1.1.2,8,-0.100,-0.100,-0.100,0.000,0.000,0.000
1644011857983843072,2022-02-04-21:57:37,10.1.1.2,5,-0.100,-0.100,-0.100,0.000,0.000,0.000
1644011858183655936,2022-02-04-21:57:38,10.1.1.2,4,-0.100,-0.100,-0.100,0.000,0.000,0.000
1644011858390718976,2022-02-04-21:57:38,10.1.1.2,10,-0.100,-0.100,-0.100,0.000,0.000,0.000
1644011858595181056,2022-02-04-21:57:38,10.1.1.2,13,-0.100,-0.100,-0.100,0.000,0.000,0.000
1644011858801067008,2022-02-04-21:57:38,10.1.1.2,18,-0.100,-0.100,-0.100,0.000,0.000,0.000
1644011858998523904,2022-02-04-21:57:38,10.1.1.2,15,-0.100,-0.100,-0.100,0.000,0.000,0.000
1644011859193871872,2022-02-04-21:57:39,10.1.1.2,10,-0.100,-0.100,-0.100,0.000,0.000,0.000
1644011859393018880,2022-02-04-21:57:39,10.1.1.2,5,-0.100,-0.100,-0.100,0.000,0.000,0.000
1644011859593880064,2022-02-04-21:57:39,10.1.1.2,5,-0.100,-0.100,-0.100,0.000,0.000,0.000
1644011859794665984,2022-02-04-21:57:39,10.1.1.2,5,-0.100,-0.100,-0.100,0.000,0.000,0.000
1644011859993869056,2022-02-04-21:57:39,10.1.1.2,3,-0.100,-0.100,-0.100,0.000,0.000,0.000
1644011860194927872,2022-02-04-21:57:40,10.1.1.2,3,-0.100,-0.100,-0.100,0.000,0.000,0.000
1644011860396299008,2022-02-04-21:57:40,10.1.1.2,1,-0.100,-0.100,-0.100,0.000,0.000,0.000
1644011860614774016,2022-02-04-21:57:40,10.1.1.2,15,-0.100,-0.100,-0.100,0.000,0.000,0.000
1644011860800641024,2022-02-04-21:57:40,10.1.1.2,0,-0.100,-0.100,-0.100,0.000,0.000,0.000
1644011861011201024,2022-02-04-21:57:41,10.1.1.2,10,-0.100,-0.100,-0.100,0.000,0.000,0.000
1644011861210789888,2022-02-04-21:57:41,10.1.1.2,8,-0.100,-0.100,-0.100,0.000,0.000,0.000
1644011861411421184,2022-02-04-21:57:41,10.1.1.2,8,-0.100,-0.100,-0.100,0.000,0.000,0.000
1644011861611138048,2022-02-04-21:57:41,10.1.1.2,4,-0.100,-0.100,-0.100,0.000,0.000,0.000
1644011861811350016,2022-02-04-21:57:41,10.1.1.2,3,-0.100,-0.100,-0.100,0.000,0.000,0.000
1644011862012696064,2022-02-04-21:57:42,10.1.1.2,4,-0.100,-0.100,-0.100,0.000,0.000,0.000
1644011862213377024,2022-02-04-21:57:42,10.1.1.2,3,-0.100,-0.100,-0.100,0.000,0.000,0.000
1644011862411714048,2022-02-04-21:57:42,10.1.1.2,1,-0.100,-0.100,-0.100,0.000,0.000,0.000
1644011862612745984,2022-02-04-21:57:42,10.1.1.2,1,-0.100,-0.100,-0.100,0.000,0.000,0.000
1644011862817437952,2022-02-04-21:57:42,10.1.1.2,4,-0.100,-0.100,-0.100,0.000,0.000,0.000
1644011863015675136,2022-02-04-21:57:43,10.1.1.2,1,-0.100,-0.100,-0.100,0.000,0.000,0.000
1644011863257265920,2022-02-04-21:57:43,10.1.1.2,40,-0.100,-0.100,-0.100,0.000,0.000,0.000
1644011863428487168,2022-02-04-21:57:43,10.1.1.2,10,-0.100,-0.100,-0.100,0.000,0.000,0.000
1644011863635884032,2022-02-04-21:57:43,10.1.1.2,15,-0.100,-0.100,-0.100,0.000,0.000,0.000
1644011863888773888,2022-02-04-21:57:43,10.1.1.2,66,-0.100,-0.100,-0.100,0.000,0.000,0.000
1644011864028472064,2022-02-04-21:57:44,10.1.1.2,5,-0.100,-0.100,-0.100,0.000,0.000,0.000
1644011864230194176,2022-02-04-21:57:44,10.1.1.2,4,-0.100,-0.100,-0.100,0.000,0.000,0.000
1644011864432862976,2022-02-04-21:57:44,10.1.1.2,1,-0.100,-0.100,-0.100,0.000,0.000,0.000
1644011864637306880,2022-02-04-21:57:44,10.1.1.2,1,-0.100,-0.100,-0.100,0.000,0.000,0.000
1644011864839449856,2022-02-04-21:57:44,10.1.1.2,1,-0.100,-0.100,-0.100,0.000,0.000,0.000
1644011865053991936,2022-02-04-21:57:45,10.1.1.2,14,-0.100,-0.100,-0.100,0.000,0.000,0.000
1644011865259300864,2022-02-04-21:57:45,10.1.1.2,19,-0.100,-0.100,-0.100,0.000,0.000,0.000
1644011865454883072,2022-02-04-21:57:45,10.1.1.2,12,-0.100,-0.100,-0.100,0.000,0.000,0.000
1644011865653853952,2022-02-04-21:57:45,10.1.1.2,11,-0.100,-0.100,-0.100,0.000,0.000,0.000
1644011865853715968,2022-02-04-21:57:45,10.1.1.2,10,-0.100,-0.100,-0.100,0.000,0.000,0.000
1644011866053069056,2022-02-04-21:57:46,10.1.1.2,8,-0.100,-0.100,-0.100,0.000,0.000,0.000
1644011866258206976,2022-02-04-21:57:46,10.1.1.2,12,-0.100,-0.100,-0.100,0.000,0.000,0.000
1644011866454888192,2022-02-04-21:57:46,10.1.1.2,6,-0.100,-0.100,-0.100,0.000,0.000,0.000
1644011866653604096,2022-02-04-21:57:46,10.1.1.2,2,-0.100,-0.100,-0.100,0.000,0.000,0.000
1644011866854893056,2022-02-04-21:57:46,10.1.1.2,3,-0.100,-0.100,-0.100,0.000,0.000,0.000
1644011867055216128,2022-02-04-21:57:47,10.1.1.2,1,-0.100,-0.100,-0.100,0.000,0.000,0.000
1644011867259232000,2022-02-04-21:57:47,10.1.1.2,4,-0.100,-0.100,-0.100,0.000,0.000,0.000
1644011867474541824,2022-02-04-21:57:47,10.1.1.2,18,-0.100,-0.100,-0.100,0.000,0.000,0.000
1644011867676652032,2022-02-04-21:57:47,10.1.1.2,19,-0.100,-0.100,-0.100,0.000,0.000,0.000
1644011867875729920,2022-02-04-21:57:47,10.1.1.2,16,-0.100,-0.100,-0.100,0.000,0.000,0.000
1644011868075704064,2022-02-04-21:57:48,10.1.1.2,13,-0.100,-0.100,-0.100,0.000,0.000,0.000
1644011868269787136,2022-02-04-21:57:48,10.1.1.2,3,-0.100,-0.100,-0.100,0.000,0.000,0.000
1644011868473159936,2022-02-04-21:57:48,10.1.1.2,3,-0.100,-0.100,-0.100,0.000,0.000,0.000
1644011868692871936,2022-02-04-21:57:48,10.1.1.2,17,-0.100,-0.100,-0.100,0.000,0.000,0.000
1644011868902041856,2022-02-04-21:57:48,10.1.1.2,23,-0.100,-0.100,-0.100,0.000,0.000,0.000
1644011869102019072,2022-02-04-21:57:49,10.1.1.2,22,-0.100,-0.100,-0.100,0.000,0.000,0.000
1644011869292978944,2022-02-04-21:57:49,10.1.1.2,2,-0.100,-0.100,-0.100,0.000,0.000,0.000
1644011869507753984,2022-02-04-21:57:49,10.1.1.2,11,-0.100,-0.100,-0.100,0.000,0.000,0.000
1644011869707171072,2022-02-04-21:57:49,10.1.1.2,5,-0.100,-0.100,-0.100,0.000,0.000,0.000
1644011869907473920,2022-02-04-21:57:49,10.1.1.2,4,-0.100,-0.100,-0.100,0.000,0.000,0.000
1644011870108828928,2022-02-04-21:57:50,10.1.1.2,4,-0.100,-0.100,-0.100,0.000,0.000,0.000
1644011870311364864,2022-02-04-21:57:50,10.1.1.2,4,-0.100,-0.100,-0.100,0.000,0.000,0.000
1644011870512411136,2022-02-04-21:57:50,10.1.1.2,4,-0.100,-0.100,-0.100,0.000,0.000,0.000
1644011870710928896,2022-02-04-21:57:50,10.1.1.2,2,-0.100,-0.100,-0.100,0.000,0.000,0.000
1644011870914007808,2022-02-04-21:57:50,10.1.1.2,4,-0.100,-0.100,-0.100,0.000,0.000,0.000
1644011871115506944,2022-02-04-21:57:51,10.1.1.2,4,-0.100,-0.100,-0.100,0.000,0.000,0.000
1644011871316811008,2022-02-04-21:57:51,10.1.1.2,4,-0.100,-0.100,-0.100,0.000,0.000,0.000
1644011871528572928,2022-02-04-21:57:51,10.1.1.2,9,-0.100,-0.100,-0.100,0.000,0.000,0.000
1644011871727648000,2022-02-04-21:57:51,10.1.1.2,4,-0.100,-0.100,-0.100,0.000,0.000,0.000
1644011871928231936,2022-02-04-21:57:51,10.1.1.2,2,-0.100,-0.100,-0.100,0.000,0.000,0.000
1644011872129000960,2022-02-04-21:57:52,10.1.1.2,2,-0.100,-0.100,-0.100,0.000,0.000,0.000
1644011872346863104,2022-02-04-21:57:52,10.1.1.2,18,-0.100,-0.100,-0.100,0.000,0.000,0.000
1644011872531294208,2022-02-04-21:57:52,10.1.1.2,1,-0.100,-0.100,-0.100,0.000,0.000,0.000
1644011872735838976,2022-02-04-21:57:52,10.1.1.2,5,-0.100,-0.100,-0.100,0.000,0.000,0.000
1644011872950360064,2022-02-04-21:57:52,10.1.1.2,18,-0.100,-0.100,-0.100,0.000,0.000,0.000
1644011873149127936,2022-02-04-21:57:53,10.1.1.2,16,-0.100,-0.100,-0.100,0.000,0.000,0.000
1644011873348975872,2022-02-04-21:57:53,10.1.1.2,15,-0.100,-0.100,-0.100,0.000,0.000,0.000
1644011873549035008,2022-02-04-21:57:53,10.1.1.2,14,-0.100,-0.100,-0.100,0.000,0.000,0.000
1644011873739411968,2022-02-04-21:57:53,10.1.1.2,4,-0.100,-0.100,-0.100,0.000,0.000,0.000
1644011873965796096,2022-02-04-21:57:53,10.1.1.2,29,-0.100,-0.100,-0.100,0.000,0.000,0.000
1644011874155153152,2022-02-04-21:57:54,10.1.1.2,18,-0.100,-0.100,-0.100,0.000,0.000,0.000
1644011874347932928,2022-02-04-21:57:54,10.1.1.2,10,-0.100,-0.100,-0.100,0.000,0.000,0.000
1644011874548151040,2022-02-04-21:57:54,10.1.1.2,8,-0.100,-0.100,-0.100,0.000,0.000,0.000
1644011874744862976,2022-02-04-21:57:54,10.1.1.2,4,-0.100,-0.100,-0.100,0.000,0.000,0.000
1644011874944439808,2022-02-04-21:57:54,10.1.1.2,1,-0.100,-0.100,-0.100,0.000,0.000,0.000
1644011875153403136,2022-02-04-21:57:55,10.1.1.2,8,-0.100,-0.100,-0.100,0.000,0.000,0.000
1644011875353481984,2022-02-04-21:57:55,10.1.1.2,7,-0.100,-0.100,-0.100,0.000,0.000,0.000
1644011875552214016,2022-02-04-21:57:55,10.1.1.2,5,-0.100,-0.100,-0.100,0.000,0.000,0.000
1644011875752378880,2022-02-04-21:57:55,10.1.1.2,4,-0.100,-0.100,-0.100,0.000,0.000,0.000
1644011875983895040,2022-02-04-21:57:55,10.1.1.2,35,-0.100,-0.100,-0.100,0.000,0.000,0.000
1644011876152467968,2022-02-04-21:57:56,10.1.1.2,1,-0.100,-0.100,-0.100,0.000,0.000,0.000
1644011876354834944,2022-02-04-21:57:56,10.1.1.2,1,-0.100,-0.100,-0.100,0.000,0.000,0.000
1644011876573554944,2022-02-04-21:57:56,10.1.1.2,18,-0.100,-0.100,-0.100,0.000,0.000,0.000
1644011876774558976,2022-02-04-21:57:56,10.1.1.2,18,-0.100,-0.100,-0.100,0.000,0.000,0.000
1644011876976332032,2022-02-04-21:57:56,10.1.1.2,18,-0.100,-0.100,-0.100,0.000,0.000,0.000
1644011877175319808,2022-02-04-21:57:57,10.1.1.2,16,-0.100,-0.100,-0.100,0.000,0.000,0.000
1644011877372504832,2022-02-04-21:57:57,10.1.1.2,13,-0.100,-0.100,-0.100,0.000,0.000,0.000
1644011877579118848,2022-02-04-21:57:57,10.1.1.2,18,-0.100,-0.100,-0.100,0.000,0.000,0.000
1644011877772423936,2022-02-04-21:57:57,10.1.1.2,10,-0.100,-0.100,-0.100,0.000,0.000,0.000
1644011877973637120,2022-02-04-21:57:57,10.1.1.2,10,-0.100,-0.100,-0.100,0.000,0.000,0.000
1644011878178234112,2022-02-04-21:57:58,10.1.1.2,13,-0.100,-0.100,-0.100,0.000,0.000,0.000
1644011878373231872,2022-02-04-21:57:58,10.1.1.2,6,-0.100,-0.100,-0.100,0.000,0.000,0.000
1644011878573812992,2022-02-04-21:57:58,10.1.1.2,6,-0.100,-0.100,-0.100,0.000,0.000,0.000
1644011878771879936,2022-02-04-21:57:58,10.1.1.2,4,-0.100,-0.100,-0.100,0.000,0.000,0.000
1644011878972687872,2022-02-04-21:57:58,10.1.1.2,3,-0.100,-0.100,-0.100,0.000,0.000,0.000
1644011879174316032,2022-02-04-21:57:59,10.1.1.2,3,-0.100,-0.100,-0.100,0.000,0.000,0.000
1644011879375055104,2022-02-04-21:57:59,10.1.1.2,2,-0.100,-0.100,-0.100,0.000,0.000,0.000
1644011879593408000,2022-02-04-21:57:59,10.1.1.2,17,-0.100,-0.100,-0.100,0.000,0.000,0.000
1644011879792353024,2022-02-04-21:57:59,10.1.1.2,16,-0.100,-0.100,-0.100,0.000,0.000,0.000
1644011879993436928,2022-02-04-21:57:59,10.1.1.2,15,-0.100,-0.100,-0.100,0.000,0.000,0.000
1644011880226044928,2022-02-04-21:58:00,10.1.1.2,47,-0.100,-0.100,-0.100,0.000,0.000,0.000
1644011880384793088,2022-02-04-21:58:00,10.1.1.2,4,-0.100,-0.100,-0.100,0.000,0.000,0.000
1644011880597782016,2022-02-04-21:58:00,10.1.1.2,16,-0.100,-0.100,-0.100,0.000,0.000,0.000
1644011880789166080,2022-02-04-21:58:00,10.1.1.2,6,-0.100,-0.100,-0.100,0.000,0.000,0.000
1644011880990330880,2022-02-04-21:58:00,10.1.1.2,6,-0.100,-0.100,-0.100,0.000,0.000,0.000
1644011881191016960,2022-02-04-21:58:01,10.1.1.2,4,-0.100,-0.100,-0.100,0.000,0.000,0.000
1644011881396724992,2022-02-04-21:58:01,10.1.1.2,9,-0.100,-0.100,-0.100,0.000,0.000,0.000
1644011881596157184,2022-02-04-21:58:01,10.1.1.2,7,-0.100,-0.100,-0.100,0.000,0.000,0.000
1644011881795458048,2022-02-04-21:58:01,10.1.1.2,5,-0.100,-0.100,-0.100,0.000,0.000,0.000
1644011882018727168,2022-02-04-21:58:02,10.1.1.2,27,-0.100,-0.100,-0.100,0.000,0.000,0.000
1644011882224397824,2022-02-04-21:58:02,10.1.1.2,31,-0.100,-0.100,-0.100,0.000,0.000,0.000
1644011882407305984,2022-02-04-21:58:02,10.1.1.2,12,-0.100,-0.100,-0.100,0.000,0.000,0.000
1644011882602905088,2022-02-04-21:58:02,10.1.1.2,7,-0.100,-0.100,-0.100,0.000,0.000,0.000
1644011882812621056,2022-02-04-21:58:02,10.1.1.2,16,-0.100,-0.100,-0.100,0.000,0.000,0.000
1644011883022316032,2022-02-04-21:58:03,10.1.1.2,25,-0.100,-0.100,-0.100,0.000,0.000,0.000
1644011883212572160,2022-02-04-21:58:03,10.1.1.2,14,-0.100,-0.100,-0.100,0.000,0.000,0.000
1644011883400332032,2022-02-04-21:58:03,10.1.1.2,1,-0.100,-0.100,-0.100,0.000,0.000,0.000
1644011883618114048,2022-02-04-21:58:03,10.1.1.2,17,-0.100,-0.100,-0.100,0.000,0.000,0.000
1644011883808780800,2022-02-04-21:58:03,10.1.1.2,6,-0.100,-0.100,-0.100,0.000,0.000,0.000
1644011884008211968,2022-02-04-21:58:04,10.1.1.2,5,-0.100,-0.100,-0.100,0.000,0.000,0.000
1644011884207564032,2022-02-04-21:58:04,10.1.1.2,3,-0.100,-0.100,-0.100,0.000,0.000,0.000
1644011884410577152,2022-02-04-21:58:04,10.1.1.2,4,-0.100,-0.100,-0.100,0.000,0.000,0.000
1644011884611723776,2022-02-04-21:58:04,10.1.1.2,4,-0.100,-0.100,-0.100,0.000,0.000,0.000
1644011884808944896,2022-02-04-21:58:04,10.1.1.2,1,-0.100,-0.100,-0.100,0.000,0.000,0.000
1644011885010840832,2022-02-04-21:58:05,10.1.1.2,1,-0.100,-0.100,-0.100,0.000,0.000,0.000
1644011885230913024,2022-02-04-21:58:05,10.1.1.2,18,-0.100,-0.100,-0.100,0.000,0.000,0.000
1644011885414853120,2022-02-04-21:58:05,10.1.1.2,1,-0.100,-0.100,-0.100,0.000,0.000,0.000
1644011885635139072,2022-02-04-21:58:05,10.1.1.2,20,-0.100,-0.100,-0.100,0.000,0.000,0.000
1644011885829497088,2022-02-04-21:58:05,10.1.1.2,14,-0.100,-0.100,-0.100,0.000,0.000,0.000
1644011886029448960,2022-02-04-21:58:06,10.1.1.2,13,-0.100,-0.100,-0.100,0.000,0.000,0.000
1644011886229480960,2022-02-04-21:58:06,10.1.1.2,12,-0.100,-0.100,-0.100,0.000,0.000,0.000
1644011886437118976,2022-02-04-21:58:06,10.1.1.2,19,-0.100,-0.100,-0.100,0.000,0.000,0.000
1644011886638930176,2022-02-04-21:58:06,10.1.1.2,14,-0.100,-0.100,-0.100,0.000,0.000,0.000
1644011886829864960,2022-02-04-21:58:06,10.1.1.2,4,-0.100,-0.100,-0.100,0.000,0.000,0.000
1644011887031145984,2022-02-04-21:58:07,10.1.1.2,4,-0.100,-0.100,-0.100,0.000,0.000,0.000
1644011887231559936,2022-02-04-21:58:07,10.1.1.2,1,-0.100,-0.100,-0.100,0.000,0.000,0.000
1644011887439060992,2022-02-04-21:58:07,10.1.1.2,1,-0.100,-0.100,-0.100,0.000,0.000,0.000
1644011887650257152,2022-02-04-21:58:07,10.1.1.2,10,-0.100,-0.100,-0.100,0.000,0.000,0.000
1644011887846797824,2022-02-04-21:58:07,10.1.1.2,5,-0.100,-0.100,-0.100,0.000,0.000,0.000
1644011888046814976,2022-02-04-21:58:08,10.1.1.2,2,-0.100,-0.100,-0.100,0.000,0.000,0.000
1644011888254429184,2022-02-04-21:58:08,10.1.1.2,4,-0.100,-0.100,-0.100,0.000,0.000,0.000
1644011888456121856,2022-02-04-21:58:08,10.1.1.2,4,-0.100,-0.100,-0.100,0.000,0.000,0.000
1644011888654973952,2022-02-04-21:58:08,10.1.1.2,2,-0.100,-0.100,-0.100,0.000,0.000,0.000
1644011888873075968,2022-02-04-21:58:08,10.1.1.2,17,-0.100,-0.100,-0.100,0.000,0.000,0.000
1644011889073384960,2022-02-04-21:58:09,10.1.1.2,16,-0.100,-0.100,-0.100,0.000,0.000,0.000
1644011889259123968,2022-02-04-21:58:09,10.1.1.2,1,-0.100,-0.100,-0.100,0.000,0.000,0.000
1644011889473326080,2022-02-04-21:58:09,10.1.1.2,14,-0.100,-0.100,-0.100,0.000,0.000,0.000
1644011889672361984,2022-02-04-21:58:09,10.1.1.2,12,-0.100,-0.100,-0.100,0.000,0.000,0.000
1644011889872513024,2022-02-04-21:58:09,10.1.1.2,12,-0.100,-0.100,-0.100,0.000,0.000,0.000
1644011890062398976,2022-02-04-21:58:10,10.1.1.2,0,-0.100,-0.100,-0.100,0.000,0.000,0.000
1644011890269391104,2022-02-04-21:58:10,10.1.1.2,5,-0.100,-0.100,-0.100,0.000,0.000,0.000
1644011890469986048,2022-02-04-21:58:10,10.1.1.2,5,-0.100,-0.100,-0.100,0.000,0.000,0.000
1644011890673408000,2022-02-04-21:58:10,10.1.1.2,7,-0.100,-0.100,-0.100,0.000,0.000,0.000
1644011890873573120,2022-02-04-21:58:10,10.1.1.2,6,-0.100,-0.100,-0.100,0.000,0.000,0.000
1644011891073676032,2022-02-04-21:58:11,10.1.1.2,6,-0.100,-0.100,-0.100,0.000,0.000,0.000
1644011891270350080,2022-02-04-21:58:11,10.1.1.2,2,-0.100,-0.100,-0.100,0.000,0.000,0.000
1644011891500698112,2022-02-04-21:58:11,10.1.1.2,30,-0.100,-0.100,-0.100,0.000,0.000,0.000
1644011891690224896,2022-02-04-21:58:11,10.1.1.2,15,-0.100,-0.100,-0.100,0.000,0.000,0.000
1644011891895311104,2022-02-04-21:58:11,10.1.1.2,15,-0.100,-0.100,-0.100,0.000,0.000,0.000
1644011892094481920,2022-02-04-21:58:12,10.1.1.2,4,-0.100,-0.100,-0.100,0.000,0.000,0.000
1644011892295831808,2022-02-04-21:58:12,10.1.1.2,4,-0.100,-0.100,-0.100,0.000,0.000,0.000
1644011892498333952,2022-02-04-21:58:12,10.1.1.2,5,-0.100,-0.100,-0.100,0.000,0.000,0.000
1644011892711113984,2022-02-04-21:58:12,10.1.1.2,16,-0.100,-0.100,-0.100,0.000,0.000,0.000
1644011892910720000,2022-02-04-21:58:12,10.1.1.2,15,-0.100,-0.100,-0.100,0.000,0.000,0.000
1644011893112099840,2022-02-04-21:58:13,10.1.1.2,11,-0.100,-0.100,-0.100,0.000,0.000,0.000
1644011893301937152,2022-02-04-21:58:13,10.1.1.2,0,-0.100,-0.100,-0.100,0.000,0.000,0.000
1644011893508688896,2022-02-04-21:58:13,10.1.1.2,6,-0.100,-0.100,-0.100,0.000,0.000,0.000
1644011893711010816,2022-02-04-21:58:13,10.1.1.2,1,-0.100,-0.100,-0.100,0.000,0.000,0.000
1644011893912049920,2022-02-04-21:58:13,10.1.1.2,0,-0.100,-0.100,-0.100,0.000,0.000,0.000
1644011894113584128,2022-02-04-21:58:14,10.1.1.2,1,-0.100,-0.100,-0.100,0.000,0.000,0.000
1644011894321372160,2022-02-04-21:58:14,10.1.1.2,8,-0.100,-0.100,-0.100,0.000,0.000,0.000
1644011894518362880,2022-02-04-21:58:14,10.1.1.2,4,-0.100,-0.100,-0.100,0.000,0.000,0.000
1644011894728818944,2022-02-04-21:58:14,10.1.1.2,14,-0.100,-0.100,-0.100,0.000,0.000,0.000
1644011894919048960,2022-02-04-21:58:14,10.1.1.2,3,-0.100,-0.100,-0.100,0.000,0.000,0.000
1644011895126732032,2022-02-04-21:58:15,10.1.1.2,5,-0.100,-0.100,-0.100,0.000,0.000,0.000
1644011895325490944,2022-02-04-21:58:15,10.1.1.2,3,-0.100,-0.100,-0.100,0.000,0.000,0.000
1644011895527730944,2022-02-04-21:58:15,10.1.1.2,4,-0.100,-0.100,-0.100,0.000,0.000,0.000
1644011895737024000,2022-02-04-21:58:15,10.1.1.2,9,-0.100,-0.100,-0.100,0.000,0.000,0.000
1644011895936867072,2022-02-04-21:58:15,10.1.1.2,2,-0.100,-0.100,-0.100,0.000,0.000,0.000
1644011896137022976,2022-02-04-21:58:16,10.1.1.2,2,-0.100,-0.100,-0.100,0.000,0.000,0.000
1644011896337389056,2022-02-04-21:58:16,10.1.1.2,1,-0.100,-0.100,-0.100,0.000,0.000,0.000
1644011896538693888,2022-02-04-21:58:16,10.1.1.2,1,-0.100,-0.100,-0.100,0.000,0.000,0.000
1644011896758092032,2022-02-04-21:58:16,10.1.1.2,19,-0.100,-0.100,-0.100,0.000,0.000,0.000
1644011896958905856,2022-02-04-21:58:16,10.1.1.2,18,-0.100,-0.100,-0.100,0.000,0.000,0.000
1644011897156889856,2022-02-04-21:58:17,10.1.1.2,15,-0.100,-0.100,-0.100,0.000,0.000,0.000
1644011897364391936,2022-02-04-21:58:17,10.1.1.2,22,-0.100,-0.100,-0.100,0.000,0.000,0.000
1644011897549197824,2022-02-04-21:58:17,10.1.1.2,5,-0.100,-0.100,-0.100,0.000,0.000,0.000
1644011897746990080,2022-02-04-21:58:17,10.1.1.2,1,-0.100,-0.100,-0.100,0.000,0.000,0.000
1644011897959726080,2022-02-04-21:58:17,10.1.1.2,13,-0.100,-0.100,-0.100,0.000,0.000,0.000
1644011898156812800,2022-02-04-21:58:18,10.1.1.2,8,-0.100,-0.100,-0.100,0.000,0.000,0.000
1644011898357285888,2022-02-04-21:58:18,10.1.1.2,9,-0.100,-0.100,-0.100,0.000,0.000,0.000
1644011898557336064,2022-02-04-21:58:18,10.1.1.2,8,-0.100,-0.100,-0.100,0.000,0.000,0.000
1644011898767680768,2022-02-04-21:58:18,10.1.1.2,17,-0.100,-0.100,-0.100,0.000,0.000,0.000
1644011898957403904,2022-02-04-21:58:18,10.1.1.2,6,-0.100,-0.100,-0.100,0.000,0.000,0.000
1644011899156706048,2022-02-04-21:58:19,10.1.1.2,4,-0.100,-0.100,-0.100,0.000,0.000,0.000
1644011899356407040,2022-02-04-21:58:19,10.1.1.2,3,-0.100,-0.100,-0.100,0.000,0.000,0.000
1644011899557574144,2022-02-04-21:58:19,10.1.1.2,4,-0.100,-0.100,-0.100,0.000,0.000,0.000
1644011899757259008,2022-02-04-21:58:19,10.1.1.2,1,-0.100,-0.100,-0.100,0.000,0.000,0.000
1644011899960613888,2022-02-04-21:58:19,10.1.1.2,1,-0.100,-0.100,-0.100,0.000,0.000,0.000
1644011900191659008,2022-02-04-21:58:20,10.1.1.2,31,-0.100,-0.100,-0.100,0.000,0.000,0.000
1644011900403412224,2022-02-04-21:58:20,10.1.1.2,42,-0.100,-0.100,-0.100,0.000,0.000,0.000
1644011900564148992,2022-02-04-21:58:20,10.1.1.2,1,-0.100,-0.100,-0.100,0.000,0.000,0.000
1644011900767741952,2022-02-04-21:58:20,10.1.1.2,4,-0.100,-0.100,-0.100,0.000,0.000,0.000
1644011900971923968,2022-02-04-21:58:20,10.1.1.2,5,-0.100,-0.100,-0.100,0.000,0.000,0.000
1644011901170619904,2022-02-04-21:58:21,10.1.1.2,3,-0.100,-0.100,-0.100,0.000,0.000,0.000
1644011901371671808,2022-02-04-21:58:21,10.1.1.2,3,-0.100,-0.100,-0.100,0.000,0.000,0.000
1644011901574279168,2022-02-04-21:58:21,10.1.1.2,3,-0.100,-0.100,-0.100,0.000,0.000,0.000
1644011901773037056,2022-02-04-21:58:21,10.1.1.2,0,-0.100,-0.100,-0.100,0.000,0.000,0.000
1644011901992677888,2022-02-04-21:58:21,10.1.1.2,19,-0.100,-0.100,-0.100,0.000,0.000,0.000
1644011902192733952,2022-02-04-21:58:22,10.1.1.2,17,-0.100,-0.100,-0.100,0.000,0.000,0.000
1644011902398667008,2022-02-04-21:58:22,10.1.1.2,20,-0.100,-0.100,-0.100,0.000,0.000,0.000
1644011902591182080,2022-02-04-21:58:22,10.1.1.2,11,-0.100,-0.100,-0.100,0.000,0.000,0.000
1644011902791549952,2022-02-04-21:58:22,10.1.1.2,7,-0.100,-0.100,-0.100,0.000,0.000,0.000
1644011902994205952,2022-02-04-21:58:22,10.1.1.2,8,-0.100,-0.100,-0.100,0.000,0.000,0.000
1644011903191324928,2022-02-04-21:58:23,10.1.1.2,5,-0.100,-0.100,-0.100,0.000,0.000,0.000
1644011903391483904,2022-02-04-21:58:23,10.1.1.2,4,-0.100,-0.100,-0.100,0.000,0.000,0.000
1644011903592338176,2022-02-04-21:58:23,10.1.1.2,4,-0.100,-0.100,-0.100,0.000,0.000,0.000
1644011903793474816,2022-02-04-21:58:23,10.1.1.2,4,-0.100,-0.100,-0.100,0.000,0.000,0.000
1644011903998753024,2022-02-04-21:58:23,10.1.1.2,5,-0.100,-0.100,-0.100,0.000,0.000,0.000
1644011904211465984,2022-02-04-21:58:24,10.1.1.2,17,-0.100,-0.100,-0.100,0.000,0.000,0.000
1644011904411504896,2022-02-04-21:58:24,10.1.1.2,16,-0.100,-0.100,-0.100,0.000,0.000,0.000
1644011904619388160,2022-02-04-21:58:24,10.1.1.2,23,-0.100,-0.100,-0.100,0.000,0.000,0.000
1644011904798898944,2022-02-04-21:58:24,10.1.1.2,1,-0.100,-0.100,-0.100,0.000,0.000,0.000
1644011905000929024,2022-02-04-21:58:25,10.1.1.2,1,-0.100,-0.100,-0.100,0.000,0.000,0.000
1644011905212317952,2022-02-04-21:58:25,10.1.1.2,12,-0.100,-0.100,-0.100,0.000,0.000,0.000
1644011905415326208,2022-02-04-21:58:25,10.1.1.2,14,-0.100,-0.100,-0.100,0.000,0.000,0.000
1644011905611458048,2022-02-04-21:58:25,10.1.1.2,9,-0.100,-0.100,-0.100,0.000,0.000,0.000
1644011905811245056,2022-02-04-21:58:25,10.1.1.2,8,-0.100,-0.100,-0.100,0.000,0.000,0.000
1644011906012284160,2022-02-04-21:58:26,10.1.1.2,8,-0.100,-0.100,-0.100,0.000,0.000,0.000
1644011906213830912,2022-02-04-21:58:26,10.1.1.2,9,-0.100,-0.100,-0.100,0.000,0.000,0.000
1644011906408409088,2022-02-04-21:58:26,10.1.1.2,3,-0.100,-0.100,-0.100,0.000,0.000,0.000
1644011906607819008,2022-02-04-21:58:26,10.1.1.2,2,-0.100,-0.100,-0.100,0.000,0.000,0.000
1644011906813870848,2022-02-04-21:58:26,10.1.1.2,6,-0.100,-0.100,-0.100,0.000,0.000,0.000
1644011907012492032,2022-02-04-21:58:27,10.1.1.2,4,-0.100,-0.100,-0.100,0.000,0.000,0.000
1644011907231969024,2022-02-04-21:58:27,10.1.1.2,22,-0.100,-0.100,-0.100,0.000,0.000,0.000
1644011907417478912,2022-02-04-21:58:27,10.1.1.2,7,-0.100,-0.100,-0.100,0.000,0.000,0.000
1644011907638232064,2022-02-04-21:58:27,10.1.1.2,27,-0.100,-0.100,-0.100,0.000,0.000,0.000
1644011907828072960,2022-02-04-21:58:27,10.1.1.2,16,-0.100,-0.100,-0.100,0.000,0.000,0.000
1644011908030438912,2022-02-04-21:58:28,10.1.1.2,17,-0.100,-0.100,-0.100,0.000,0.000,0.000
1644011908219651072,2022-02-04-21:58:28,10.1.1.2,3,-0.100,-0.100,-0.100,0.000,0.000,0.000
1644011908421201920,2022-02-04-21:58:28,10.1.1.2,4,-0.100,-0.100,-0.100,0.000,0.000,0.000
1644011908658162944,2022-02-04-21:58:28,10.1.1.2,40,-0.100,-0.100,-0.100,0.000,0.000,0.000
1644011908823606016,2022-02-04-21:58:28,10.1.1.2,4,-0.100,-0.100,-0.100,0.000,0.000,0.000
1644011909028027136,2022-02-04-21:58:29,10.1.1.2,5,-0.100,-0.100,-0.100,0.000,0.000,0.000
1644011909229191168,2022-02-04-21:58:29,10.1.1.2,5,-0.100,-0.100,-0.100,0.000,0.000,0.000
1644011909427777024,2022-02-04-21:58:29,10.1.1.2,2,-0.100,-0.100,-0.100,0.000,0.000,0.000
1644011909631141888,2022-02-04-21:58:29,10.1.1.2,5,-0.100,-0.100,-0.100,0.000,0.000,0.000
1644011909828328960,2022-02-04-21:58:29,10.1.1.2,1,-0.100,-0.100,-0.100,0.000,0.000,0.000
1644011910051217152,2022-02-04-21:58:30,10.1.1.2,23,-0.100,-0.100,-0.100,0.000,0.000,0.000
1644011910247239168,2022-02-04-21:58:30,10.1.1.2,18,-0.100,-0.100,-0.100,0.000,0.000,0.000
1644011910436791808,2022-02-04-21:58:30,10.1.1.2,4,-0.100,-0.100,-0.100,0.000,0.000,0.000
1644011910637229824,2022-02-04-21:58:30,10.1.1.2,4,-0.100,-0.100,-0.100,0.000,0.000,0.000
1644011910839598848,2022-02-04-21:58:30,10.1.1.2,6,-0.100,-0.100,-0.100,0.000,0.000,0.000
1644011911050183168,2022-02-04-21:58:31,10.1.1.2,15,-0.100,-0.100,-0.100,0.000,0.000,0.000
1644011911250426880,2022-02-04-21:58:31,10.1.1.2,14,-0.100,-0.100,-0.100,0.000,0.000,0.000
1644011911449597952,2022-02-04-21:58:31,10.1.1.2,12,-0.100,-0.100,-0.100,0.000,0.000,0.000
1644011911650584064,2022-02-04-21:58:31,10.1.1.2,12,-0.100,-0.100,-0.100,0.000,0.000,0.000
1644011911857556992,2022-02-04-21:58:31,10.1.1.2,18,-0.100,-0.100,-0.100,0.000,0.000,0.000
1644011912050117120,2022-02-04-21:58:32,10.1.1.2,10,-0.100,-0.100,-0.100,0.000,0.000,0.000
1644011912248696064,2022-02-04-21:58:32,10.1.1.2,8,-0.100,-0.100,-0.100,0.000,0.000,0.000
1644011912452267008,2022-02-04-21:58:32,10.1.1.2,10,-0.100,-0.100,-0.100,0.000,0.000,0.000
1644011912647890176,2022-02-04-21:58:32,10.1.1.2,5,-0.100,-0.100,-0.100,0.000,0.000,0.000
1644011912849112064,2022-02-04-21:58:32,10.1.1.2,5,-0.100,-0.100,-0.100,0.000,0.000,0.000
1644011913049694976,2022-02-04-21:58:33,10.1.1.2,4,-0.100,-0.100,-0.100,0.000,0.000,0.000
1644011913249385216,2022-02-04-21:58:33,10.1.1.2,3,-0.100,-0.100,-0.100,0.000,0.000,0.000
1644011913451759104,2022-02-04-21:58:33,10.1.1.2,4,-0.100,-0.100,-0.100,0.000,0.000,0.000
1644011913650697984,2022-02-04-21:58:33,10.1.1.2,2,-0.100,-0.100,-0.100,0.000,0.000,0.000
1644011913850217984,2022-02-04-21:58:33,10.1.1.2,1,-0.100,-0.100,-0.100,0.000,0.000,0.000
1644011914051405056,2022-02-04-21:58:34,10.1.1.2,1,-0.100,-0.100,-0.100,0.000,0.000,0.000
1644011914252999168,2022-02-04-21:58:34,10.1.1.2,1,-0.100,-0.100,-0.100,0.000,0.000,0.000
1644011914471684096,2022-02-04-21:58:34,10.1.1.2,18,-0.100,-0.100,-0.100,0.000,0.000,0.000
1644011914671720960,2022-02-04-21:58:34,10.1.1.2,17,-0.100,-0.100,-0.100,0.000,0.000,0.000
1644011914874478080,2022-02-04-21:58:34,10.1.1.2,19,-0.100,-0.100,-0.100,0.000,0.000,0.000
1644011915081442048,2022-02-04-21:58:35,10.1.1.2,25,-0.100,-0.100,-0.100,0.000,0.000,0.000
1644011915274270976,2022-02-04-21:58:35,10.1.1.2,16,-0.100,-0.100,-0.100,0.000,0.000,0.000
1644011915475081984,2022-02-04-21:58:35,10.1.1.2,16,-0.100,-0.100,-0.100,0.000,0.000,0.000
1644011915674916864,2022-02-04-21:58:35,10.1.1.2,15,-0.100,-0.100,-0.100,0.000,0.000,0.000
1644011915874028800,2022-02-04-21:58:35,10.1.1.2,14,-0.100,-0.100,-0.100,0.000,0.000,0.000
1644011916063842048,2022-02-04-21:58:36,10.1.1.2,3,-0.100,-0.100,-0.100,0.000,0.000,0.000
1644011916265960960,2022-02-04-21:58:36,10.1.1.2,4,-0.100,-0.100,-0.100,0.000,0.000,0.000
1644011916471282944,2022-02-04-21:58:36,10.1.1.2,8,-0.100,-0.100,-0.100,0.000,0.000,0.000
1644011916688306176,2022-02-04-21:58:36,10.1.1.2,25,-0.100,-0.100,-0.100,0.000,0.000,0.000
1644011916870587136,2022-02-04-21:58:36,10.1.1.2,6,-0.100,-0.100,-0.100,0.000,0.000,0.000
1644011917069719040,2022-02-04-21:58:37,10.1.1.2,4,-0.100,-0.100,-0.100,0.000,0.000,0.000
1644011917268348928,2022-02-04-21:58:37,10.1.1.2,1,-0.100,-0.100,-0.100,0.000,0.000,0.000
1644011917470951936,2022-02-04-21:58:37,10.1.1.2,3,-0.100,-0.100,-0.100,0.000,0.000,0.000
1644011917674076928,2022-02-04-21:58:37,10.1.1.2,2,-0.100,-0.100,-0.100,0.000,0.000,0.000
1644011917875037952,2022-02-04-21:58:37,10.1.1.2,3,-0.100,-0.100,-0.100,0.000,0.000,0.000
1644011918078113024,2022-02-04-21:58:38,10.1.1.2,5,-0.100,-0.100,-0.100,0.000,0.000,0.000
1644011918276103936,2022-02-04-21:58:38,10.1.1.2,2,-0.100,-0.100,-0.100,0.000,0.000,0.000
1644011918476367104,2022-02-04-21:58:38,10.1.1.2,1,-0.100,-0.100,-0.100,0.000,0.000,0.000
1644011918691411968,2022-02-04-21:58:38,10.1.1.2,14,-0.100,-0.100,-0.100,0.000,0.000,0.000
1644011918882003968,2022-02-04-21:58:38,10.1.1.2,4,-0.100,-0.100,-0.100,0.000,0.000,0.000
1644011919086936832,2022-02-04-21:58:39,10.1.1.2,6,-0.100,-0.100,-0.100,0.000,0.000,0.000
1644011919286742016,2022-02-04-21:58:39,10.1.1.2,5,-0.100,-0.100,-0.100,0.000,0.000,0.000
1644011919497725952,2022-02-04-21:58:39,10.1.1.2,15,-0.100,-0.100,-0.100,0.000,0.000,0.000
1644011919701863168,2022-02-04-21:58:39,10.1.1.2,18,-0.100,-0.100,-0.100,0.000,0.000,0.000
1644011919886734848,2022-02-04-21:58:39,10.1.1.2,3,-0.100,-0.100,-0.100,0.000,0.000,0.000
1644011920154640896,2022-02-04-21:58:40,10.1.1.2,69,-0.100,-0.100,-0.100,0.000,0.000,0.000
1644011920288044032,2022-02-04-21:58:40,10.1.1.2,1,-0.100,-0.100,-0.100,0.000,0.000,0.000
1644011920489160960,2022-02-04-21:58:40,10.1.1.2,2,-0.100,-0.100,-0.100,0.000,0.000,0.000
1644011920689523968,2022-02-04-21:58:40,10.1.1.2,1,-0.100,-0.100,-0.100,0.000,0.000,0.000
1644011920889470208,2022-02-04-21:58:40,10.1.1.2,0,-0.100,-0.100,-0.100,0.000,0.000,0.000
1644011921109548032,2022-02-04-21:58:41,10.1.1.2,19,-0.100,-0.100,-0.100,0.000,0.000,0.000
1644011921294318848,2022-02-04-21:58:41,10.1.1.2,2,-0.100,-0.100,-0.100,0.000,0.000,0.000
1644011921511694848,2022-02-04-21:58:41,10.1.1.2,18,-0.100,-0.100,-0.100,0.000,0.000,0.000
1644011921694822912,2022-02-04-21:58:41,10.1.1.2,1,-0.100,-0.100,-0.100,0.000,0.000,0.000
1644011921899776000,2022-02-04-21:58:41,10.1.1.2,5,-0.100,-0.100,-0.100,0.000,0.000,0.000
1644011922100299008,2022-02-04-21:58:42,10.1.1.2,4,-0.100,-0.100,-0.100,0.000,0.000,0.000
1644011922301453056,2022-02-04-21:58:42,10.1.1.2,4,-0.100,-0.100,-0.100,0.000,0.000,0.000
1644011922500756992,2022-02-04-21:58:42,10.1.1.2,2,-0.100,-0.100,-0.100,0.000,0.000,0.000
1644011922706582016,2022-02-04-21:58:42,10.1.1.2,5,-0.100,-0.100,-0.100,0.000,0.000,0.000
1644011922914400000,2022-02-04-21:58:42,10.1.1.2,12,-0.100,-0.100,-0.100,0.000,0.000,0.000
1644011923109090048,2022-02-04-21:58:43,10.1.1.2,2,-0.100,-0.100,-0.100,0.000,0.000,0.000
1644011923310040832,2022-02-04-21:58:43,10.1.1.2,0,-0.100,-0.100,-0.100,0.000,0.000,0.000
1644011923515451904,2022-02-04-21:58:43,10.1.1.2,5,-0.100,-0.100,-0.100,0.000,0.000,0.000
1644011923716013824,2022-02-04-21:58:43,10.1.1.2,4,-0.100,-0.100,-0.100,0.000,0.000,0.000
1644011923917289984,2022-02-04-21:58:43,10.1.1.2,4,-0.100,-0.100,-0.100,0.000,0.000,0.000
1644011924118705152,2022-02-04-21:58:44,10.1.1.2,4,-0.100,-0.100,-0.100,0.000,0.000,0.000
1644011924320626944,2022-02-04-21:58:44,10.1.1.2,4,-0.100,-0.100,-0.100,0.000,0.000,0.000
1644011924522669056,2022-02-04-21:58:44,10.1.1.2,5,-0.100,-0.100,-0.100,0.000,0.000,0.000
1644011924724082944,2022-02-04-21:58:44,10.1.1.2,3,-0.100,-0.100,-0.100,0.000,0.000,0.000
1644011924922596096,2022-02-04-21:58:44,10.1.1.2,1,-0.100,-0.100,-0.100,0.000,0.000,0.000
1644011925137144064,2022-02-04-21:58:45,10.1.1.2,15,-0.100,-0.100,-0.100,0.000,0.000,0.000
1644011925325694976,2022-02-04-21:58:45,10.1.1.2,2,-0.100,-0.100,-0.100,0.000,0.000,0.000
1644011925531537152,2022-02-04-21:58:45,10.1.1.2,4,-0.100,-0.100,-0.100,0.000,0.000,0.000
1644011925732350208,2022-02-04-21:58:45,10.1.1.2,1,-0.100,-0.100,-0.100,0.000,0.000,0.000
1644011925934455040,2022-02-04-21:58:45,10.1.1.2,2,-0.100,-0.100,-0.100,0.000,0.000,0.000
1644011926139588096,2022-02-04-21:58:46,10.1.1.2,4,-0.100,-0.100,-0.100,0.000,0.000,0.000
1644011926338471936,2022-02-04-21:58:46,10.1.1.2,1,-0.100,-0.100,-0.100,0.000,0.000,0.000
