FedericoMungari/DigitalTwin_service/01_WiredScenario/Output/Output_script/script_rosapi_2_output_robots10_freq0_2.txt
timestamp,date,node,latency,joint_1,joint_2,joint_3,joint_4,joint_5,joint_6
1644926735138259968,2022-02-15-12:05:35,10.1.1.3,5,-0.100,-0.100,-0.100,-0.000,0.000,0.000
1644926735216811008,2022-02-15-12:05:35,10.1.1.3,33,-0.090,-0.090,-0.090,0.000,0.000,0.000
1644926735316632064,2022-02-15-12:05:35,10.1.1.3,31,-0.070,-0.070,-0.070,0.000,0.000,0.000
1644926735357019904,2022-02-15-12:05:35,10.1.1.3,21,-0.060,-0.060,-0.060,0.000,0.000,0.000
1644926735416945920,2022-02-15-12:05:35,10.1.1.3,31,-0.050,-0.050,-0.050,0.000,0.000,0.000
1644926735459932160,2022-02-15-12:05:35,10.1.1.3,20,-0.040,-0.040,-0.040,0.000,0.000,0.000
1644926735516360960,2022-02-15-12:05:35,10.1.1.3,30,-0.030,-0.030,-0.030,0.000,0.000,0.000
1644926735696690944,2022-02-15-12:05:35,10.1.1.3,28,0.000,0.000,0.000,0.000,0.000,0.000
1644926735756686848,2022-02-15-12:05:35,10.1.1.3,37,0.010,0.010,0.010,0.000,0.000,0.000
1644926735797007104,2022-02-15-12:05:35,10.1.1.3,27,0.020,0.020,0.020,0.000,0.000,0.000
1644926735856438016,2022-02-15-12:05:35,10.1.1.3,36,0.030,0.030,0.030,0.000,0.000,0.000
1644926735896868096,2022-02-15-12:05:35,10.1.1.3,24,0.040,0.040,0.040,0.000,0.000,0.000
1644926735957025024,2022-02-15-12:05:35,10.1.1.3,33,0.050,0.050,0.050,0.000,0.000,0.000
1644926735996506880,2022-02-15-12:05:35,10.1.1.3,23,0.060,0.060,0.060,0.000,0.000,0.000
1644926736056539136,2022-02-15-12:05:36,10.1.1.3,33,0.070,0.070,0.070,0.000,0.000,0.000
1644926736096749056,2022-02-15-12:05:36,10.1.1.3,21,0.080,0.080,0.080,0.000,0.000,0.000
1644926736156375808,2022-02-15-12:05:36,10.1.1.3,31,0.090,0.090,0.090,0.000,0.000,0.000
1644926736197102080,2022-02-15-12:05:36,10.1.1.3,20,0.100,0.100,0.100,0.000,0.000,0.000
1644926736256611072,2022-02-15-12:05:36,10.1.1.3,29,0.090,0.090,0.090,0.000,0.000,0.000
1644926736296466944,2022-02-15-12:05:36,10.1.1.3,19,0.081,0.081,0.081,0.000,0.000,0.000
1644926736356705024,2022-02-15-12:05:36,10.1.1.3,28,0.070,0.070,0.070,0.000,0.000,0.000
1644926736415980032,2022-02-15-12:05:36,10.1.1.3,37,0.060,0.060,0.060,0.000,0.000,0.000
1644926736456392960,2022-02-15-12:05:36,10.1.1.3,26,0.050,0.050,0.050,0.000,0.000,0.000
1644926736516560128,2022-02-15-12:05:36,10.1.1.3,33,0.040,0.040,0.040,0.000,0.000,0.000
1644926736557293824,2022-02-15-12:05:36,10.1.1.3,22,0.030,0.030,0.030,0.000,0.000,0.000
1644926736617328896,2022-02-15-12:05:36,10.1.1.3,32,0.020,0.020,0.020,0.000,0.000,0.000
1644926736656759040,2022-02-15-12:05:36,10.1.1.3,22,0.010,0.010,0.010,0.000,0.000,0.000
1644926736716681984,2022-02-15-12:05:36,10.1.1.3,31,0.000,0.000,0.000,0.000,0.000,0.000
1644926736756807936,2022-02-15-12:05:36,10.1.1.3,21,-0.010,-0.010,-0.010,0.000,0.000,0.000
1644926736816737792,2022-02-15-12:05:36,10.1.1.3,29,-0.020,-0.020,-0.020,0.000,0.000,0.000
1644926736878722816,2022-02-15-12:05:36,10.1.1.3,37,-0.030,-0.030,-0.030,0.000,0.000,0.000
1644926736917094912,2022-02-15-12:05:36,10.1.1.3,26,-0.040,-0.040,-0.040,0.000,0.000,0.000
1644926736976984064,2022-02-15-12:05:36,10.1.1.3,34,-0.050,-0.050,-0.050,0.000,0.000,0.000
1644926737016585216,2022-02-15-12:05:37,10.1.1.3,23,-0.060,-0.060,-0.060,0.000,0.000,0.000
1644926737077820928,2022-02-15-12:05:37,10.1.1.3,32,-0.070,-0.070,-0.070,0.000,0.000,0.000
1644926737116473856,2022-02-15-12:05:37,10.1.1.3,22,-0.080,-0.080,-0.080,0.000,0.000,0.000
1644926737177063936,2022-02-15-12:05:37,10.1.1.3,31,-0.090,-0.090,-0.090,0.000,0.000,0.000
1644926737216995072,2022-02-15-12:05:37,10.1.1.3,21,-0.100,-0.100,-0.100,0.000,0.000,0.000
1644926737277123840,2022-02-15-12:05:37,10.1.1.3,30,-0.090,-0.090,-0.090,0.000,0.000,0.000
1644926737319629824,2022-02-15-12:05:37,10.1.1.3,19,-0.080,-0.080,-0.080,0.000,0.000,0.000
1644926737377134080,2022-02-15-12:05:37,10.1.1.3,28,-0.070,-0.070,-0.070,0.000,0.000,0.000
1644926737437020160,2022-02-15-12:05:37,10.1.1.3,37,-0.060,-0.060,-0.060,0.000,0.000,0.000
1644926737476866048,2022-02-15-12:05:37,10.1.1.3,26,-0.050,-0.050,-0.050,0.000,0.000,0.000
1644926737538140160,2022-02-15-12:05:37,10.1.1.3,35,-0.040,-0.040,-0.040,0.000,0.000,0.000
1644926737576520960,2022-02-15-12:05:37,10.1.1.3,23,-0.030,-0.030,-0.030,0.000,0.000,0.000
1644926737636604160,2022-02-15-12:05:37,10.1.1.3,32,-0.020,-0.020,-0.020,0.000,0.000,0.000
1644926737677357056,2022-02-15-12:05:37,10.1.1.3,20,-0.010,-0.010,-0.010,0.000,0.000,0.000
1644926737737526016,2022-02-15-12:05:37,10.1.1.3,30,0.000,0.000,0.000,0.000,0.000,0.000
1644926737776696832,2022-02-15-12:05:37,10.1.1.3,19,0.010,0.010,0.010,0.000,0.000,0.000
1644926737836758016,2022-02-15-12:05:37,10.1.1.3,28,0.020,0.020,0.020,0.000,0.000,0.000
1644926737897970944,2022-02-15-12:05:37,10.1.1.3,37,0.030,0.030,0.030,0.000,0.000,0.000
1644926737936495104,2022-02-15-12:05:37,10.1.1.3,26,0.040,0.040,0.040,0.000,0.000,0.000
1644926737997024000,2022-02-15-12:05:37,10.1.1.3,34,0.050,0.050,0.050,0.000,0.000,0.000
1644926738036539136,2022-02-15-12:05:38,10.1.1.3,23,0.060,0.060,0.060,0.000,0.000,0.000
1644926738098349056,2022-02-15-12:05:38,10.1.1.3,33,0.070,0.070,0.070,0.000,0.000,0.000
1644926738137222912,2022-02-15-12:05:38,10.1.1.3,22,0.080,0.080,0.080,0.000,0.000,0.000
1644926738197104896,2022-02-15-12:05:38,10.1.1.3,30,0.090,0.090,0.090,0.000,0.000,0.000
1644926738238354944,2022-02-15-12:05:38,10.1.1.3,20,0.100,0.100,0.100,0.000,0.000,0.000
1644926738297088000,2022-02-15-12:05:38,10.1.1.3,28,0.090,0.090,0.090,0.000,0.000,0.000
1644926738356122112,2022-02-15-12:05:38,10.1.1.3,38,0.080,0.080,0.080,0.000,0.000,0.000
1644926738396164864,2022-02-15-12:05:38,10.1.1.3,27,0.070,0.070,0.070,0.000,0.000,0.000
1644926738456412160,2022-02-15-12:05:38,10.1.1.3,37,0.060,0.060,0.060,0.000,0.000,0.000
1644926738496524032,2022-02-15-12:05:38,10.1.1.3,25,0.050,0.050,0.050,0.000,0.000,0.000
1644926738557924096,2022-02-15-12:05:38,10.1.1.3,34,0.040,0.040,0.040,0.000,0.000,0.000
1644926738596340992,2022-02-15-12:05:38,10.1.1.3,24,0.030,0.030,0.030,0.000,0.000,0.000
1644926738656153088,2022-02-15-12:05:38,10.1.1.3,34,0.020,0.020,0.020,0.000,0.000,0.000
1644926738696146944,2022-02-15-12:05:38,10.1.1.3,22,0.010,0.010,0.010,0.000,0.000,0.000
1644926738756169984,2022-02-15-12:05:38,10.1.1.3,32,0.000,0.000,0.000,0.000,0.000,0.000
1644926738796444928,2022-02-15-12:05:38,10.1.1.3,21,-0.010,-0.010,-0.010,0.000,0.000,0.000
1644926738856480000,2022-02-15-12:05:38,10.1.1.3,30,-0.020,-0.020,-0.020,0.000,0.000,0.000
1644926738896726016,2022-02-15-12:05:38,10.1.1.3,19,-0.030,-0.030,-0.030,0.000,0.000,0.000
1644926738956617984,2022-02-15-12:05:38,10.1.1.3,29,-0.040,-0.040,-0.040,0.000,0.000,0.000
1644926739017117952,2022-02-15-12:05:39,10.1.1.3,38,-0.050,-0.050,-0.050,0.000,0.000,0.000
1644926739056730880,2022-02-15-12:05:39,10.1.1.3,27,-0.060,-0.060,-0.060,0.000,0.000,0.000
1644926739116987904,2022-02-15-12:05:39,10.1.1.3,37,-0.070,-0.070,-0.070,0.000,0.000,0.000
1644926739156328960,2022-02-15-12:05:39,10.1.1.3,25,-0.080,-0.080,-0.080,0.000,0.000,0.000
1644926739216509952,2022-02-15-12:05:39,10.1.1.3,35,-0.090,-0.090,-0.090,0.000,0.000,0.000
1644926739256705024,2022-02-15-12:05:39,10.1.1.3,24,-0.100,-0.100,-0.100,0.000,0.000,0.000
1644926739316642048,2022-02-15-12:05:39,10.1.1.3,33,-0.090,-0.090,-0.090,0.000,0.000,0.000
1644926739356666112,2022-02-15-12:05:39,10.1.1.3,21,-0.080,-0.080,-0.080,0.000,0.000,0.000
1644926739416688896,2022-02-15-12:05:39,10.1.1.3,29,-0.070,-0.070,-0.070,0.000,0.000,0.000
1644926739456098048,2022-02-15-12:05:39,10.1.1.3,19,-0.061,-0.061,-0.061,0.000,0.000,0.000
1644926739515950080,2022-02-15-12:05:39,10.1.1.3,28,-0.050,-0.050,-0.050,0.000,0.000,0.000
1644926739577025792,2022-02-15-12:05:39,10.1.1.3,37,-0.040,-0.040,-0.040,0.000,0.000,0.000
1644926739616409088,2022-02-15-12:05:39,10.1.1.3,26,-0.030,-0.030,-0.030,0.000,0.000,0.000
1644926739676616960,2022-02-15-12:05:39,10.1.1.3,35,-0.020,-0.020,-0.020,0.000,0.000,0.000
1644926739716770816,2022-02-15-12:05:39,10.1.1.3,24,-0.010,-0.010,-0.010,0.000,0.000,0.000
1644926739776175872,2022-02-15-12:05:39,10.1.1.3,33,0.000,0.000,0.000,0.000,0.000,0.000
1644926739816440064,2022-02-15-12:05:39,10.1.1.3,23,0.010,0.010,0.010,0.000,0.000,0.000
1644926739876621056,2022-02-15-12:05:39,10.1.1.3,32,0.020,0.020,0.020,0.000,0.000,0.000
1644926739917086976,2022-02-15-12:05:39,10.1.1.3,21,0.030,0.030,0.030,0.000,0.000,0.000
1644926739976419840,2022-02-15-12:05:39,10.1.1.3,30,0.040,0.040,0.040,0.000,0.000,0.000
1644926740016580096,2022-02-15-12:05:40,10.1.1.3,20,0.050,0.050,0.050,0.000,0.000,0.000
1644926740076705024,2022-02-15-12:05:40,10.1.1.3,29,0.060,0.060,0.060,0.000,0.000,0.000
1644926740137121024,2022-02-15-12:05:40,10.1.1.3,37,0.070,0.070,0.070,0.000,0.000,0.000
1644926740176558848,2022-02-15-12:05:40,10.1.1.3,25,0.080,0.080,0.080,0.000,0.000,0.000
1644926740236833024,2022-02-15-12:05:40,10.1.1.3,35,0.090,0.090,0.090,0.000,0.000,0.000
1644926740276314880,2022-02-15-12:05:40,10.1.1.3,24,0.100,0.100,0.100,0.000,0.000,0.000
1644926740337003008,2022-02-15-12:05:40,10.1.1.3,33,0.090,0.090,0.090,0.000,0.000,0.000
1644926740376784128,2022-02-15-12:05:40,10.1.1.3,22,0.080,0.080,0.080,0.000,0.000,0.000
1644926740436768000,2022-02-15-12:05:40,10.1.1.3,32,0.070,0.070,0.070,0.000,0.000,0.000
1644926740476532992,2022-02-15-12:05:40,10.1.1.3,20,0.060,0.060,0.060,0.000,0.000,0.000
1644926740537009920,2022-02-15-12:05:40,10.1.1.3,29,0.050,0.050,0.050,0.000,0.000,0.000
1644926740576477952,2022-02-15-12:05:40,10.1.1.3,19,0.040,0.040,0.040,0.000,0.000,0.000
1644926740637648128,2022-02-15-12:05:40,10.1.1.3,29,0.030,0.030,0.030,0.000,0.000,0.000
1644926740697541120,2022-02-15-12:05:40,10.1.1.3,38,0.020,0.020,0.020,0.000,0.000,0.000
1644926740736937984,2022-02-15-12:05:40,10.1.1.3,28,0.010,0.010,0.010,0.000,0.000,0.000
1644926740796288000,2022-02-15-12:05:40,10.1.1.3,36,0.000,0.000,0.000,0.000,0.000,0.000
1644926740836364032,2022-02-15-12:05:40,10.1.1.3,25,-0.010,-0.010,-0.010,0.000,0.000,0.000
1644926740896342016,2022-02-15-12:05:40,10.1.1.3,35,-0.020,-0.020,-0.020,0.000,0.000,0.000
1644926740936980992,2022-02-15-12:05:40,10.1.1.3,24,-0.030,-0.030,-0.030,0.000,0.000,0.000
1644926740997438976,2022-02-15-12:05:40,10.1.1.3,34,-0.040,-0.040,-0.040,0.000,0.000,0.000
1644926741036670976,2022-02-15-12:05:41,10.1.1.3,23,-0.050,-0.050,-0.050,0.000,0.000,0.000
1644926741096596992,2022-02-15-12:05:41,10.1.1.3,33,-0.060,-0.060,-0.060,0.000,0.000,0.000
1644926741137014016,2022-02-15-12:05:41,10.1.1.3,22,-0.070,-0.070,-0.070,0.000,0.000,0.000
1644926741197607168,2022-02-15-12:05:41,10.1.1.3,31,-0.080,-0.080,-0.080,0.000,0.000,0.000
1644926741238775040,2022-02-15-12:05:41,10.1.1.3,20,-0.090,-0.090,-0.090,0.000,0.000,0.000
1644926741297159936,2022-02-15-12:05:41,10.1.1.3,29,-0.100,-0.100,-0.100,0.000,0.000,0.000
1644926741356363008,2022-02-15-12:05:41,10.1.1.3,38,-0.090,-0.090,-0.090,0.000,0.000,0.000
1644926741396732928,2022-02-15-12:05:41,10.1.1.3,27,-0.080,-0.080,-0.080,0.000,0.000,0.000
1644926741457117952,2022-02-15-12:05:41,10.1.1.3,36,-0.070,-0.070,-0.070,0.000,0.000,0.000
1644926741496552960,2022-02-15-12:05:41,10.1.1.3,25,-0.060,-0.060,-0.060,0.000,0.000,0.000
1644926741557897216,2022-02-15-12:05:41,10.1.1.3,34,-0.050,-0.050,-0.050,0.000,0.000,0.000
1644926741596820992,2022-02-15-12:05:41,10.1.1.3,23,-0.040,-0.040,-0.040,0.000,0.000,0.000
1644926741656784128,2022-02-15-12:05:41,10.1.1.3,31,-0.030,-0.030,-0.030,0.000,0.000,0.000
1644926741696721152,2022-02-15-12:05:41,10.1.1.3,19,-0.020,-0.020,-0.020,0.000,0.000,0.000
1644926741756385024,2022-02-15-12:05:41,10.1.1.3,28,-0.010,-0.010,-0.010,0.000,0.000,0.000
1644926741816977920,2022-02-15-12:05:41,10.1.1.3,37,0.000,0.000,0.000,0.000,0.000,0.000
1644926741856574976,2022-02-15-12:05:41,10.1.1.3,27,0.010,0.010,0.010,0.000,0.000,0.000
1644926741917030144,2022-02-15-12:05:41,10.1.1.3,36,0.020,0.020,0.020,0.000,0.000,0.000
1644926741957072896,2022-02-15-12:05:41,10.1.1.3,25,0.030,0.030,0.030,0.000,0.000,0.000
1644926742016537856,2022-02-15-12:05:42,10.1.1.3,34,0.040,0.040,0.040,0.000,0.000,0.000
1644926742056802048,2022-02-15-12:05:42,10.1.1.3,24,0.050,0.050,0.050,0.000,0.000,0.000
1644926742116439040,2022-02-15-12:05:42,10.1.1.3,33,0.060,0.060,0.060,0.000,0.000,0.000
1644926742156941056,2022-02-15-12:05:42,10.1.1.3,22,0.070,0.070,0.070,0.000,0.000,0.000
1644926742216436992,2022-02-15-12:05:42,10.1.1.3,32,0.080,0.080,0.080,0.000,0.000,0.000
1644926742256423936,2022-02-15-12:05:42,10.1.1.3,22,0.090,0.090,0.090,0.000,0.000,0.000
1644926742317192960,2022-02-15-12:05:42,10.1.1.3,31,0.100,0.100,0.100,0.000,0.000,0.000
1644926742356642048,2022-02-15-12:05:42,10.1.1.3,21,0.090,0.090,0.090,0.000,0.000,0.000
1644926742416288000,2022-02-15-12:05:42,10.1.1.3,30,0.080,0.080,0.080,0.000,0.000,0.000
1644926742457794816,2022-02-15-12:05:42,10.1.1.3,20,0.070,0.070,0.070,0.000,0.000,0.000
1644926742516185088,2022-02-15-12:05:42,10.1.1.3,29,0.060,0.060,0.060,0.000,0.000,0.000
1644926742557009920,2022-02-15-12:05:42,10.1.1.3,19,0.050,0.050,0.050,0.000,0.000,0.000
1644926742617228032,2022-02-15-12:05:42,10.1.1.3,28,0.040,0.040,0.040,0.000,0.000,0.000
1644926742676489216,2022-02-15-12:05:42,10.1.1.3,38,0.030,0.030,0.030,0.000,0.000,0.000
1644926742716329984,2022-02-15-12:05:42,10.1.1.3,28,0.020,0.020,0.020,0.000,0.000,0.000
1644926742776951040,2022-02-15-12:05:42,10.1.1.3,38,0.010,0.010,0.010,0.000,0.000,0.000
1644926742816598784,2022-02-15-12:05:42,10.1.1.3,27,0.000,0.000,0.000,0.000,0.000,0.000
1644926742876972032,2022-02-15-12:05:42,10.1.1.3,36,-0.010,-0.010,-0.010,0.000,0.000,0.000
1644926742917490944,2022-02-15-12:05:42,10.1.1.3,26,-0.020,-0.020,-0.020,0.000,0.000,0.000
1644926742976695040,2022-02-15-12:05:42,10.1.1.3,35,-0.030,-0.030,-0.030,0.000,0.000,0.000
1644926743016817152,2022-02-15-12:05:43,10.1.1.3,25,-0.040,-0.040,-0.040,0.000,0.000,0.000
1644926743077921024,2022-02-15-12:05:43,10.1.1.3,34,-0.050,-0.050,-0.050,0.000,0.000,0.000
1644926743116445184,2022-02-15-12:05:43,10.1.1.3,23,-0.060,-0.060,-0.060,0.000,0.000,0.000
1644926743176552960,2022-02-15-12:05:43,10.1.1.3,33,-0.070,-0.070,-0.070,0.000,0.000,0.000
1644926743217228032,2022-02-15-12:05:43,10.1.1.3,23,-0.080,-0.080,-0.080,0.000,0.000,0.000
1644926743283130880,2022-02-15-12:05:43,10.1.1.3,31,-0.090,-0.090,-0.090,0.000,0.000,0.000
1644926743316772096,2022-02-15-12:05:43,10.1.1.3,20,-0.100,-0.100,-0.100,0.000,0.000,0.000
1644926743377047040,2022-02-15-12:05:43,10.1.1.3,30,-0.090,-0.090,-0.090,0.000,0.000,0.000
1644926743416683008,2022-02-15-12:05:43,10.1.1.3,19,-0.081,-0.081,-0.081,0.000,0.000,0.000
1644926743476339200,2022-02-15-12:05:43,10.1.1.3,28,-0.070,-0.070,-0.070,0.000,0.000,0.000
1644926743536994048,2022-02-15-12:05:43,10.1.1.3,38,-0.060,-0.060,-0.060,0.000,0.000,0.000
1644926743576555008,2022-02-15-12:05:43,10.1.1.3,27,-0.050,-0.050,-0.050,0.000,0.000,0.000
1644926743636733952,2022-02-15-12:05:43,10.1.1.3,36,-0.040,-0.040,-0.040,0.000,0.000,0.000
1644926743676965120,2022-02-15-12:05:43,10.1.1.3,26,-0.030,-0.030,-0.030,0.000,0.000,0.000
1644926743736709120,2022-02-15-12:05:43,10.1.1.3,35,-0.020,-0.020,-0.020,0.000,0.000,0.000
1644926743776407040,2022-02-15-12:05:43,10.1.1.3,25,-0.010,-0.010,-0.010,0.000,0.000,0.000
1644926743836352000,2022-02-15-12:05:43,10.1.1.3,34,0.000,0.000,0.000,0.000,0.000,0.000
1644926743877286912,2022-02-15-12:05:43,10.1.1.3,24,0.010,0.010,0.010,0.000,0.000,0.000
1644926743936702976,2022-02-15-12:05:43,10.1.1.3,34,0.020,0.020,0.020,0.000,0.000,0.000
1644926743976736000,2022-02-15-12:05:43,10.1.1.3,22,0.030,0.030,0.030,0.000,0.000,0.000
1644926744037451008,2022-02-15-12:05:44,10.1.1.3,31,0.040,0.040,0.040,0.000,0.000,0.000
1644926744077581056,2022-02-15-12:05:44,10.1.1.3,20,0.050,0.050,0.050,0.000,0.000,0.000
1644926744136848896,2022-02-15-12:05:44,10.1.1.3,30,0.060,0.060,0.060,0.000,0.000,0.000
1644926744176666112,2022-02-15-12:05:44,10.1.1.3,19,0.070,0.070,0.070,0.000,0.000,0.000
1644926744236614912,2022-02-15-12:05:44,10.1.1.3,29,0.080,0.080,0.080,0.000,0.000,0.000
1644926744276963840,2022-02-15-12:05:44,10.1.1.3,19,0.089,0.089,0.089,0.000,0.000,0.000
1644926744337136128,2022-02-15-12:05:44,10.1.1.3,28,0.100,0.100,0.100,0.000,0.000,0.000
1644926744397078016,2022-02-15-12:05:44,10.1.1.3,37,0.090,0.090,0.090,0.000,0.000,0.000
1644926744436374784,2022-02-15-12:05:44,10.1.1.3,27,0.080,0.080,0.080,0.000,0.000,0.000
1644926744496818944,2022-02-15-12:05:44,10.1.1.3,35,0.070,0.070,0.070,0.000,0.000,0.000
1644926744536758784,2022-02-15-12:05:44,10.1.1.3,23,0.060,0.060,0.060,0.000,0.000,0.000
1644926744596355072,2022-02-15-12:05:44,10.1.1.3,32,0.050,0.050,0.050,0.000,0.000,0.000
1644926744637590784,2022-02-15-12:05:44,10.1.1.3,22,0.040,0.040,0.040,0.000,0.000,0.000
1644926744696412160,2022-02-15-12:05:44,10.1.1.3,29,0.030,0.030,0.030,0.000,0.000,0.000
1644926744756849920,2022-02-15-12:05:44,10.1.1.3,38,0.020,0.020,0.020,0.000,0.000,0.000
1644926744796765184,2022-02-15-12:05:44,10.1.1.3,26,0.010,0.010,0.010,0.000,0.000,0.000
1644926744856755968,2022-02-15-12:05:44,10.1.1.3,34,0.000,0.000,0.000,0.000,0.000,0.000
1644926744896354048,2022-02-15-12:05:44,10.1.1.3,22,-0.010,-0.010,-0.010,0.000,0.000,0.000
1644926744957011968,2022-02-15-12:05:44,10.1.1.3,32,-0.020,-0.020,-0.020,0.000,0.000,0.000
1644926744996463104,2022-02-15-12:05:44,10.1.1.3,21,-0.030,-0.030,-0.030,0.000,0.000,0.000
1644926745057003008,2022-02-15-12:05:45,10.1.1.3,30,-0.040,-0.040,-0.040,0.000,0.000,0.000
1644926745096369920,2022-02-15-12:05:45,10.1.1.3,20,-0.050,-0.050,-0.050,0.000,0.000,0.000
1644926745156402176,2022-02-15-12:05:45,10.1.1.3,29,-0.060,-0.060,-0.060,0.000,0.000,0.000
1644926745196957184,2022-02-15-12:05:45,10.1.1.3,18,-0.069,-0.069,-0.069,0.000,0.000,0.000
1644926745256388864,2022-02-15-12:05:45,10.1.1.3,28,-0.080,-0.080,-0.080,0.000,0.000,0.000
1644926745316884992,2022-02-15-12:05:45,10.1.1.3,37,-0.090,-0.090,-0.090,0.000,0.000,0.000
1644926745356195072,2022-02-15-12:05:45,10.1.1.3,25,-0.100,-0.100,-0.100,0.000,0.000,0.000
1644926745416583936,2022-02-15-12:05:45,10.1.1.3,34,-0.090,-0.090,-0.090,0.000,0.000,0.000
1644926745457039104,2022-02-15-12:05:45,10.1.1.3,22,-0.080,-0.080,-0.080,0.000,0.000,0.000
1644926745516265984,2022-02-15-12:05:45,10.1.1.3,30,-0.070,-0.070,-0.070,0.000,0.000,0.000
1644926745556563968,2022-02-15-12:05:45,10.1.1.3,19,-0.060,-0.060,-0.060,0.000,0.000,0.000
1644926745616708096,2022-02-15-12:05:45,10.1.1.3,29,-0.050,-0.050,-0.050,0.000,0.000,0.000
1644926745656603136,2022-02-15-12:05:45,10.1.1.3,18,-0.041,-0.041,-0.041,0.000,0.000,0.000
1644926745716715008,2022-02-15-12:05:45,10.1.1.3,28,-0.030,-0.030,-0.030,0.000,0.000,0.000
1644926745780424960,2022-02-15-12:05:45,10.1.1.3,41,-0.020,-0.020,-0.020,0.000,0.000,0.000
1644926745816577792,2022-02-15-12:05:45,10.1.1.3,27,-0.010,-0.010,-0.010,0.000,0.000,0.000
1644926745876830208,2022-02-15-12:05:45,10.1.1.3,37,0.000,0.000,0.000,0.000,0.000,0.000
1644926745916788992,2022-02-15-12:05:45,10.1.1.3,26,0.010,0.010,0.010,0.000,0.000,0.000
1644926745976977152,2022-02-15-12:05:45,10.1.1.3,35,0.020,0.020,0.020,0.000,0.000,0.000
1644926746016779776,2022-02-15-12:05:46,10.1.1.3,24,0.030,0.030,0.030,0.000,0.000,0.000
1644926746077212928,2022-02-15-12:05:46,10.1.1.3,31,0.040,0.040,0.040,0.000,0.000,0.000
1644926746116420096,2022-02-15-12:05:46,10.1.1.3,19,0.050,0.050,0.050,0.000,0.000,0.000
1644926746176704768,2022-02-15-12:05:46,10.1.1.3,27,0.060,0.060,0.060,0.000,0.000,0.000
1644926746239077120,2022-02-15-12:05:46,10.1.1.3,37,0.070,0.070,0.070,0.000,0.000,0.000
1644926746277880832,2022-02-15-12:05:46,10.1.1.3,25,0.080,0.080,0.080,0.000,0.000,0.000
1644926746338232064,2022-02-15-12:05:46,10.1.1.3,35,0.090,0.090,0.090,0.000,0.000,0.000
1644926746382535936,2022-02-15-12:05:46,10.1.1.3,23,0.100,0.100,0.100,0.000,0.000,0.000
1644926746437086976,2022-02-15-12:05:46,10.1.1.3,32,0.090,0.090,0.090,0.000,0.000,0.000
1644926746476919040,2022-02-15-12:05:46,10.1.1.3,22,0.080,0.080,0.080,0.000,0.000,0.000
1644926746537463040,2022-02-15-12:05:46,10.1.1.3,31,0.070,0.070,0.070,0.000,0.000,0.000
1644926746577933056,2022-02-15-12:05:46,10.1.1.3,20,0.060,0.060,0.060,0.000,0.000,0.000
1644926746637371904,2022-02-15-12:05:46,10.1.1.3,30,0.050,0.050,0.050,0.000,0.000,0.000
1644926746697061120,2022-02-15-12:05:46,10.1.1.3,38,0.040,0.040,0.040,0.000,0.000,0.000
1644926746737123072,2022-02-15-12:05:46,10.1.1.3,27,0.030,0.030,0.030,0.000,0.000,0.000
1644926746797185024,2022-02-15-12:05:46,10.1.1.3,36,0.020,0.020,0.020,0.000,0.000,0.000
1644926746839510016,2022-02-15-12:05:46,10.1.1.3,25,0.010,0.010,0.010,0.000,0.000,0.000
1644926746897964032,2022-02-15-12:05:46,10.1.1.3,34,0.000,0.000,0.000,0.000,0.000,0.000
1644926746939891968,2022-02-15-12:05:46,10.1.1.3,23,-0.010,-0.010,-0.010,0.000,0.000,0.000
1644926746996787968,2022-02-15-12:05:46,10.1.1.3,33,-0.020,-0.020,-0.020,0.000,0.000,0.000
1644926747037696000,2022-02-15-12:05:47,10.1.1.3,22,-0.030,-0.030,-0.030,0.000,0.000,0.000
1644926747096823040,2022-02-15-12:05:47,10.1.1.3,32,-0.040,-0.040,-0.040,0.000,0.000,0.000
1644926747136750080,2022-02-15-12:05:47,10.1.1.3,21,-0.050,-0.050,-0.050,0.000,0.000,0.000
1644926747197137152,2022-02-15-12:05:47,10.1.1.3,30,-0.060,-0.060,-0.060,0.000,0.000,0.000
1644926747236826880,2022-02-15-12:05:47,10.1.1.3,19,-0.070,-0.070,-0.070,0.000,0.000,0.000
1644926747296726016,2022-02-15-12:05:47,10.1.1.3,27,-0.080,-0.080,-0.080,0.000,0.000,0.000
1644926747357971968,2022-02-15-12:05:47,10.1.1.3,36,-0.090,-0.090,-0.090,0.000,0.000,0.000
1644926747396384000,2022-02-15-12:05:47,10.1.1.3,25,-0.100,-0.100,-0.100,0.000,0.000,0.000
1644926747456659200,2022-02-15-12:05:47,10.1.1.3,34,-0.090,-0.090,-0.090,0.000,0.000,0.000
1644926747497438976,2022-02-15-12:05:47,10.1.1.3,24,-0.080,-0.080,-0.080,0.000,0.000,0.000
1644926747556838912,2022-02-15-12:05:47,10.1.1.3,33,-0.070,-0.070,-0.070,0.000,0.000,0.000
1644926747596882176,2022-02-15-12:05:47,10.1.1.3,22,-0.060,-0.060,-0.060,0.000,0.000,0.000
1644926747657024000,2022-02-15-12:05:47,10.1.1.3,31,-0.050,-0.050,-0.050,0.000,0.000,0.000
1644926747702477056,2022-02-15-12:05:47,10.1.1.3,20,-0.040,-0.040,-0.040,0.000,0.000,0.000
1644926747776495104,2022-02-15-12:05:47,10.1.1.3,37,-0.030,-0.030,-0.030,0.000,0.000,0.000
1644926747823534848,2022-02-15-12:05:47,10.1.1.3,27,-0.020,-0.020,-0.020,0.000,0.000,0.000
1644926747879753984,2022-02-15-12:05:47,10.1.1.3,36,-0.010,-0.010,-0.010,0.000,0.000,0.000
1644926747916305152,2022-02-15-12:05:47,10.1.1.3,26,0.000,0.000,0.000,0.000,0.000,0.000
1644926747976695040,2022-02-15-12:05:47,10.1.1.3,35,0.010,0.010,0.010,0.000,0.000,0.000
1644926748016699904,2022-02-15-12:05:48,10.1.1.3,23,0.020,0.020,0.020,0.000,0.000,0.000
1644926748077843968,2022-02-15-12:05:48,10.1.1.3,31,0.030,0.030,0.030,0.000,0.000,0.000
1644926748116905984,2022-02-15-12:05:48,10.1.1.3,20,0.040,0.040,0.040,0.000,0.000,0.000
1644926748176780032,2022-02-15-12:05:48,10.1.1.3,29,0.050,0.050,0.050,0.000,0.000,0.000
1644926748237431040,2022-02-15-12:05:48,10.1.1.3,38,0.060,0.060,0.060,0.000,0.000,0.000
1644926748276534016,2022-02-15-12:05:48,10.1.1.3,27,0.070,0.070,0.070,0.000,0.000,0.000
1644926748336626944,2022-02-15-12:05:48,10.1.1.3,36,0.080,0.080,0.080,0.000,0.000,0.000
1644926748376115200,2022-02-15-12:05:48,10.1.1.3,25,0.090,0.090,0.090,0.000,0.000,0.000
1644926748437412096,2022-02-15-12:05:48,10.1.1.3,34,0.100,0.100,0.100,0.000,0.000,0.000
1644926748496705024,2022-02-15-12:05:48,10.1.1.3,20,0.090,0.090,0.090,0.000,0.000,0.000
1644926748556973056,2022-02-15-12:05:48,10.1.1.3,38,0.080,0.080,0.080,0.000,0.000,0.000
1644926748596803072,2022-02-15-12:05:48,10.1.1.3,27,0.070,0.070,0.070,0.000,0.000,0.000
1644926748657256960,2022-02-15-12:05:48,10.1.1.3,36,0.060,0.060,0.060,0.000,0.000,0.000
1644926748696996096,2022-02-15-12:05:48,10.1.1.3,25,0.050,0.050,0.050,0.000,0.000,0.000
1644926748756859136,2022-02-15-12:05:48,10.1.1.3,34,0.040,0.040,0.040,0.000,0.000,0.000
1644926748797597952,2022-02-15-12:05:48,10.1.1.3,24,0.030,0.030,0.030,0.000,0.000,0.000
1644926748876880896,2022-02-15-12:05:48,10.1.1.3,36,0.020,0.020,0.020,0.000,0.000,0.000
1644926748916526080,2022-02-15-12:05:48,10.1.1.3,25,0.010,0.010,0.010,0.000,0.000,0.000
1644926748980278016,2022-02-15-12:05:48,10.1.1.3,36,0.000,0.000,0.000,0.000,0.000,0.000
1644926749017353984,2022-02-15-12:05:49,10.1.1.3,23,-0.010,-0.010,-0.010,0.000,0.000,0.000
1644926749077790976,2022-02-15-12:05:49,10.1.1.3,32,-0.020,-0.020,-0.020,0.000,0.000,0.000
1644926749116940032,2022-02-15-12:05:49,10.1.1.3,21,-0.030,-0.030,-0.030,0.000,0.000,0.000
1644926749176845056,2022-02-15-12:05:49,10.1.1.3,29,-0.040,-0.040,-0.040,0.000,0.000,0.000
1644926749216958976,2022-02-15-12:05:49,10.1.1.3,19,-0.049,-0.049,-0.049,0.000,0.000,0.000
1644926749276879104,2022-02-15-12:05:49,10.1.1.3,28,-0.060,-0.060,-0.060,0.000,0.000,0.000
1644926749336596992,2022-02-15-12:05:49,10.1.1.3,37,-0.070,-0.070,-0.070,0.000,0.000,0.000
1644926749376777984,2022-02-15-12:05:49,10.1.1.3,26,-0.080,-0.080,-0.080,0.000,0.000,0.000
1644926749436444160,2022-02-15-12:05:49,10.1.1.3,35,-0.090,-0.090,-0.090,0.000,0.000,0.000
1644926749500765952,2022-02-15-12:05:49,10.1.1.3,37,-0.100,-0.100,-0.100,0.000,0.000,0.000
1644926749537432832,2022-02-15-12:05:49,10.1.1.3,27,-0.090,-0.090,-0.090,0.000,0.000,0.000
1644926749597039872,2022-02-15-12:05:49,10.1.1.3,34,-0.080,-0.080,-0.080,0.000,0.000,0.000
1644926749636892928,2022-02-15-12:05:49,10.1.1.3,24,-0.070,-0.070,-0.070,0.000,0.000,0.000
1644926749706185984,2022-02-15-12:05:49,10.1.1.3,33,-0.060,-0.060,-0.060,0.000,0.000,0.000
1644926749736849152,2022-02-15-12:05:49,10.1.1.3,21,-0.050,-0.050,-0.050,0.000,0.000,0.000
1644926749798333952,2022-02-15-12:05:49,10.1.1.3,25,-0.040,-0.040,-0.040,0.000,0.000,0.000
1644926749856719104,2022-02-15-12:05:49,10.1.1.3,35,-0.030,-0.030,-0.030,0.000,0.000,0.000
1644926749897809152,2022-02-15-12:05:49,10.1.1.3,22,-0.020,-0.020,-0.020,0.000,0.000,0.000
1644926749956409088,2022-02-15-12:05:49,10.1.1.3,31,-0.010,-0.010,-0.010,0.000,0.000,0.000
1644926750001317888,2022-02-15-12:05:50,10.1.1.3,19,-0.000,-0.000,-0.000,0.000,0.000,0.000
1644926750056924160,2022-02-15-12:05:50,10.1.1.3,29,0.010,0.010,0.010,0.000,0.000,0.000
1644926750116587008,2022-02-15-12:05:50,10.1.1.3,38,0.020,0.020,0.020,0.000,0.000,0.000
1644926750157067008,2022-02-15-12:05:50,10.1.1.3,27,0.030,0.030,0.030,0.000,0.000,0.000
1644926750216495872,2022-02-15-12:05:50,10.1.1.3,36,0.040,0.040,0.040,0.000,0.000,0.000
1644926750256509184,2022-02-15-12:05:50,10.1.1.3,25,0.050,0.050,0.050,0.000,0.000,0.000
1644926750317032192,2022-02-15-12:05:50,10.1.1.3,35,0.060,0.060,0.060,0.000,0.000,0.000
1644926750356122112,2022-02-15-12:05:50,10.1.1.3,24,0.070,0.070,0.070,0.000,0.000,0.000
1644926750416560896,2022-02-15-12:05:50,10.1.1.3,33,0.080,0.080,0.080,0.000,0.000,0.000
1644926750456471808,2022-02-15-12:05:50,10.1.1.3,23,0.090,0.090,0.090,0.000,0.000,0.000
1644926750517366784,2022-02-15-12:05:50,10.1.1.3,32,0.100,0.100,0.100,0.000,0.000,0.000
1644926750597037056,2022-02-15-12:05:50,10.1.1.3,32,0.090,0.090,0.090,0.000,0.000,0.000
1644926750658243840,2022-02-15-12:05:50,10.1.1.3,36,0.080,0.080,0.080,0.000,0.000,0.000
1644926750697575168,2022-02-15-12:05:50,10.1.1.3,21,0.070,0.070,0.070,0.000,0.000,0.000
1644926750936548864,2022-02-15-12:05:50,10.1.1.3,31,0.030,0.030,0.030,0.000,0.000,0.000
1644926750980428032,2022-02-15-12:05:50,10.1.1.3,19,0.021,0.021,0.021,0.000,0.000,0.000
1644926751046935040,2022-02-15-12:05:51,10.1.1.3,28,0.010,0.010,0.010,0.000,0.000,0.000
1644926751099493120,2022-02-15-12:05:51,10.1.1.3,37,0.000,0.000,0.000,0.000,0.000,0.000
1644926751137100032,2022-02-15-12:05:51,10.1.1.3,27,-0.010,-0.010,-0.010,0.000,0.000,0.000
1644926751197252096,2022-02-15-12:05:51,10.1.1.3,36,-0.020,-0.020,-0.020,0.000,0.000,0.000
1644926751237359104,2022-02-15-12:05:51,10.1.1.3,26,-0.030,-0.030,-0.030,0.000,0.000,0.000
1644926751296560128,2022-02-15-12:05:51,10.1.1.3,34,-0.040,-0.040,-0.040,0.000,0.000,0.000
1644926751337112832,2022-02-15-12:05:51,10.1.1.3,24,-0.050,-0.050,-0.050,0.000,0.000,0.000
1644926751398185984,2022-02-15-12:05:51,10.1.1.3,33,-0.060,-0.060,-0.060,0.000,0.000,0.000
1644926751436893952,2022-02-15-12:05:51,10.1.1.3,23,-0.070,-0.070,-0.070,0.000,0.000,0.000
1644926751496324096,2022-02-15-12:05:51,10.1.1.3,32,-0.080,-0.080,-0.080,0.000,0.000,0.000
1644926751536871936,2022-02-15-12:05:51,10.1.1.3,21,-0.090,-0.090,-0.090,0.000,0.000,0.000
1644926751596452096,2022-02-15-12:05:51,10.1.1.3,30,-0.100,-0.100,-0.100,0.000,0.000,0.000
1644926751637705984,2022-02-15-12:05:51,10.1.1.3,19,-0.091,-0.091,-0.091,0.000,0.000,0.000
1644926751697742848,2022-02-15-12:05:51,10.1.1.3,28,-0.080,-0.080,-0.080,0.000,0.000,0.000
1644926751756425984,2022-02-15-12:05:51,10.1.1.3,36,-0.070,-0.070,-0.070,0.000,0.000,0.000
1644926751797069056,2022-02-15-12:05:51,10.1.1.3,24,-0.060,-0.060,-0.060,0.000,0.000,0.000
1644926751856900864,2022-02-15-12:05:51,10.1.1.3,34,-0.050,-0.050,-0.050,0.000,0.000,0.000
1644926751897157888,2022-02-15-12:05:51,10.1.1.3,23,-0.040,-0.040,-0.040,0.000,0.000,0.000
1644926751956805888,2022-02-15-12:05:51,10.1.1.3,32,-0.030,-0.030,-0.030,0.000,0.000,0.000
1644926751997144064,2022-02-15-12:05:51,10.1.1.3,22,-0.020,-0.020,-0.020,0.000,0.000,0.000
1644926752059636992,2022-02-15-12:05:52,10.1.1.3,31,-0.010,-0.010,-0.010,0.000,0.000,0.000
1644926752116750080,2022-02-15-12:05:52,10.1.1.3,34,0.000,0.000,0.000,0.000,0.000,0.000
1644926752156725760,2022-02-15-12:05:52,10.1.1.3,19,0.010,0.010,0.010,0.000,0.000,0.000
1644926752216581120,2022-02-15-12:05:52,10.1.1.3,28,0.020,0.020,0.020,0.000,0.000,0.000
1644926752276386048,2022-02-15-12:05:52,10.1.1.3,37,0.030,0.030,0.030,0.000,0.000,0.000
1644926752316726016,2022-02-15-12:05:52,10.1.1.3,24,0.040,0.040,0.040,0.000,0.000,0.000
1644926752377010944,2022-02-15-12:05:52,10.1.1.3,34,0.050,0.050,0.050,0.000,0.000,0.000
1644926752416870144,2022-02-15-12:05:52,10.1.1.3,23,0.060,0.060,0.060,0.000,0.000,0.000
1644926752476689152,2022-02-15-12:05:52,10.1.1.3,33,0.070,0.070,0.070,0.000,0.000,0.000
1644926752516879104,2022-02-15-12:05:52,10.1.1.3,22,0.080,0.080,0.080,0.000,0.000,0.000
1644926752576785152,2022-02-15-12:05:52,10.1.1.3,31,0.090,0.090,0.090,0.000,0.000,0.000
1644926752617746176,2022-02-15-12:05:52,10.1.1.3,21,0.100,0.100,0.100,0.000,0.000,0.000
1644926752685560064,2022-02-15-12:05:52,10.1.1.3,29,0.090,0.090,0.090,0.000,0.000,0.000
1644926752736953856,2022-02-15-12:05:52,10.1.1.3,36,0.080,0.080,0.080,0.000,0.000,0.000
1644926752776421120,2022-02-15-12:05:52,10.1.1.3,23,0.070,0.070,0.070,0.000,0.000,0.000
1644926752836850944,2022-02-15-12:05:52,10.1.1.3,32,0.060,0.060,0.060,0.000,0.000,0.000
1644926752876859904,2022-02-15-12:05:52,10.1.1.3,21,0.050,0.050,0.050,0.000,0.000,0.000
1644926752936686080,2022-02-15-12:05:52,10.1.1.3,31,0.040,0.040,0.040,0.000,0.000,0.000
1644926752976955904,2022-02-15-12:05:52,10.1.1.3,20,0.030,0.030,0.030,0.000,0.000,0.000
1644926753037859840,2022-02-15-12:05:53,10.1.1.3,30,0.020,0.020,0.020,0.000,0.000,0.000
1644926753098479872,2022-02-15-12:05:53,10.1.1.3,37,0.010,0.010,0.010,0.000,0.000,0.000
1644926753137295872,2022-02-15-12:05:53,10.1.1.3,19,0.001,0.001,0.001,0.000,0.000,0.000
1644926753197135872,2022-02-15-12:05:53,10.1.1.3,28,-0.010,-0.010,-0.010,0.000,0.000,0.000
1644926753256839936,2022-02-15-12:05:53,10.1.1.3,37,-0.020,-0.020,-0.020,0.000,0.000,0.000
1644926753296112128,2022-02-15-12:05:53,10.1.1.3,26,-0.030,-0.030,-0.030,0.000,0.000,0.000
1644926753357132032,2022-02-15-12:05:53,10.1.1.3,35,-0.040,-0.040,-0.040,0.000,0.000,0.000
1644926753396990976,2022-02-15-12:05:53,10.1.1.3,24,-0.050,-0.050,-0.050,0.000,0.000,0.000
1644926753457041152,2022-02-15-12:05:53,10.1.1.3,34,-0.060,-0.060,-0.060,0.000,0.000,0.000
1644926753496562944,2022-02-15-12:05:53,10.1.1.3,23,-0.070,-0.070,-0.070,0.000,0.000,0.000
1644926753556225024,2022-02-15-12:05:53,10.1.1.3,33,-0.080,-0.080,-0.080,0.000,0.000,0.000
1644926753596749056,2022-02-15-12:05:53,10.1.1.3,22,-0.090,-0.090,-0.090,0.000,0.000,0.000
1644926753656436992,2022-02-15-12:05:53,10.1.1.3,32,-0.100,-0.100,-0.100,0.000,0.000,0.000
1644926753696569856,2022-02-15-12:05:53,10.1.1.3,21,-0.090,-0.090,-0.090,0.000,0.000,0.000
1644926753756968960,2022-02-15-12:05:53,10.1.1.3,28,-0.080,-0.080,-0.080,0.000,0.000,0.000
1644926753816684032,2022-02-15-12:05:53,10.1.1.3,38,-0.070,-0.070,-0.070,0.000,0.000,0.000
1644926753856620032,2022-02-15-12:05:53,10.1.1.3,25,-0.060,-0.060,-0.060,0.000,0.000,0.000
1644926753916559104,2022-02-15-12:05:53,10.1.1.3,35,-0.050,-0.050,-0.050,0.000,0.000,0.000
1644926753956182016,2022-02-15-12:05:53,10.1.1.3,24,-0.040,-0.040,-0.040,0.000,0.000,0.000
1644926754016539136,2022-02-15-12:05:54,10.1.1.3,33,-0.030,-0.030,-0.030,0.000,0.000,0.000
1644926754056761088,2022-02-15-12:05:54,10.1.1.3,22,-0.020,-0.020,-0.020,0.000,0.000,0.000
1644926754117665024,2022-02-15-12:05:54,10.1.1.3,32,-0.010,-0.010,-0.010,0.000,0.000,0.000
1644926754156934912,2022-02-15-12:05:54,10.1.1.3,21,0.000,0.000,0.000,0.000,0.000,0.000
1644926754216800000,2022-02-15-12:05:54,10.1.1.3,31,0.010,0.010,0.010,0.000,0.000,0.000
1644926754256764928,2022-02-15-12:05:54,10.1.1.3,20,0.020,0.020,0.020,0.000,0.000,0.000
1644926754316087040,2022-02-15-12:05:54,10.1.1.3,29,0.030,0.030,0.030,0.000,0.000,0.000
1644926754356807936,2022-02-15-12:05:54,10.1.1.3,19,0.039,0.039,0.039,0.000,0.000,0.000
1644926754416843776,2022-02-15-12:05:54,10.1.1.3,28,0.050,0.050,0.050,0.000,0.000,0.000
1644926754476625920,2022-02-15-12:05:54,10.1.1.3,38,0.060,0.060,0.060,0.000,0.000,0.000
1644926754516274944,2022-02-15-12:05:54,10.1.1.3,27,0.070,0.070,0.070,0.000,0.000,0.000
1644926754576812032,2022-02-15-12:05:54,10.1.1.3,36,0.080,0.080,0.080,0.000,0.000,0.000
1644926754616521984,2022-02-15-12:05:54,10.1.1.3,25,0.090,0.090,0.090,0.000,0.000,0.000
1644926754676517120,2022-02-15-12:05:54,10.1.1.3,34,0.100,0.100,0.100,0.000,0.000,0.000
1644926754716744960,2022-02-15-12:05:54,10.1.1.3,23,0.090,0.090,0.090,0.000,0.000,0.000
1644926754777782016,2022-02-15-12:05:54,10.1.1.3,29,0.080,0.080,0.080,0.000,0.000,0.000
1644926754836880896,2022-02-15-12:05:54,10.1.1.3,37,0.070,0.070,0.070,0.000,0.000,0.000
1644926754876888064,2022-02-15-12:05:54,10.1.1.3,25,0.060,0.060,0.060,0.000,0.000,0.000
1644926754900603136,2022-02-15-12:05:54,10.1.1.3,-7,0.060,0.060,0.060,0.000,0.000,0.000
1644926754976583936,2022-02-15-12:05:54,10.1.1.3,22,0.040,0.040,0.040,0.000,0.000,0.000
1644926755036887808,2022-02-15-12:05:55,10.1.1.3,31,0.030,0.030,0.030,0.000,0.000,0.000
1644926755076419072,2022-02-15-12:05:55,10.1.1.3,21,0.020,0.020,0.020,0.000,0.000,0.000
1644926755136081920,2022-02-15-12:05:55,10.1.1.3,29,0.010,0.010,0.010,0.000,0.000,0.000
1644926755176943104,2022-02-15-12:05:55,10.1.1.3,19,0.001,0.001,0.001,0.000,0.000,0.000
1644926755237021952,2022-02-15-12:05:55,10.1.1.3,28,-0.010,-0.010,-0.010,0.000,0.000,0.000
1644926755296946176,2022-02-15-12:05:55,10.1.1.3,38,-0.020,-0.020,-0.020,0.000,0.000,0.000
1644926755337320192,2022-02-15-12:05:55,10.1.1.3,24,-0.030,-0.030,-0.030,0.000,0.000,0.000
1644926755397288960,2022-02-15-12:05:55,10.1.1.3,34,-0.040,-0.040,-0.040,0.000,0.000,0.000
1644926755437005056,2022-02-15-12:05:55,10.1.1.3,23,-0.050,-0.050,-0.050,0.000,0.000,0.000
1644926755496873984,2022-02-15-12:05:55,10.1.1.3,32,-0.060,-0.060,-0.060,0.000,0.000,0.000
1644926755537051904,2022-02-15-12:05:55,10.1.1.3,21,-0.070,-0.070,-0.070,0.000,0.000,0.000
1644926755597006080,2022-02-15-12:05:55,10.1.1.3,31,-0.080,-0.080,-0.080,0.000,0.000,0.000
1644926755657090048,2022-02-15-12:05:55,10.1.1.3,38,-0.090,-0.090,-0.090,0.000,0.000,0.000
1644926755701505024,2022-02-15-12:05:55,10.1.1.3,26,-0.100,-0.100,-0.100,0.000,0.000,0.000
1644926755756728832,2022-02-15-12:05:55,10.1.1.3,32,-0.090,-0.090,-0.090,0.000,0.000,0.000
1644926755800780032,2022-02-15-12:05:55,10.1.1.3,20,-0.080,-0.080,-0.080,0.000,0.000,0.000
1644926755856756992,2022-02-15-12:05:55,10.1.1.3,28,-0.070,-0.070,-0.070,0.000,0.000,0.000
1644926755916528896,2022-02-15-12:05:55,10.1.1.3,38,-0.060,-0.060,-0.060,0.000,0.000,0.000
1644926755956465920,2022-02-15-12:05:55,10.1.1.3,24,-0.050,-0.050,-0.050,0.000,0.000,0.000
1644926756016776192,2022-02-15-12:05:56,10.1.1.3,33,-0.040,-0.040,-0.040,0.000,0.000,0.000
1644926756056508928,2022-02-15-12:05:56,10.1.1.3,23,-0.030,-0.030,-0.030,0.000,0.000,0.000
1644926756116236800,2022-02-15-12:05:56,10.1.1.3,32,-0.020,-0.020,-0.020,0.000,0.000,0.000
1644926756156387072,2022-02-15-12:05:56,10.1.1.3,21,-0.010,-0.010,-0.010,0.000,0.000,0.000
1644926756216617984,2022-02-15-12:05:56,10.1.1.3,30,0.000,0.000,0.000,0.000,0.000,0.000
1644926756256643072,2022-02-15-12:05:56,10.1.1.3,19,0.010,0.010,0.010,0.000,0.000,0.000
1644926756316768000,2022-02-15-12:05:56,10.1.1.3,27,0.020,0.020,0.020,0.000,0.000,0.000
1644926756376945920,2022-02-15-12:05:56,10.1.1.3,36,0.030,0.030,0.030,0.000,0.000,0.000
1644926756416570880,2022-02-15-12:05:56,10.1.1.3,26,0.040,0.040,0.040,0.000,0.000,0.000
1644926756476919040,2022-02-15-12:05:56,10.1.1.3,35,0.050,0.050,0.050,0.000,0.000,0.000
1644926756516652032,2022-02-15-12:05:56,10.1.1.3,25,0.060,0.060,0.060,0.000,0.000,0.000
1644926756576540928,2022-02-15-12:05:56,10.1.1.3,35,0.070,0.070,0.070,0.000,0.000,0.000
1644926756617722112,2022-02-15-12:05:56,10.1.1.3,24,0.080,0.080,0.080,0.000,0.000,0.000
1644926756678977024,2022-02-15-12:05:56,10.1.1.3,32,0.090,0.090,0.090,0.000,0.000,0.000
1644926756717210112,2022-02-15-12:05:56,10.1.1.3,18,0.099,0.099,0.099,0.000,0.000,0.000
1644926756777178112,2022-02-15-12:05:56,10.1.1.3,27,0.090,0.090,0.090,0.000,0.000,0.000
1644926756836734976,2022-02-15-12:05:56,10.1.1.3,36,0.080,0.080,0.080,0.000,0.000,0.000
1644926756877856000,2022-02-15-12:05:56,10.1.1.3,25,0.070,0.070,0.070,0.000,0.000,0.000
1644926756936950016,2022-02-15-12:05:56,10.1.1.3,34,0.060,0.060,0.060,0.000,0.000,0.000
1644926756976627968,2022-02-15-12:05:56,10.1.1.3,24,0.050,0.050,0.050,0.000,0.000,0.000
1644926757036897792,2022-02-15-12:05:57,10.1.1.3,33,0.040,0.040,0.040,0.000,0.000,0.000
1644926757076975104,2022-02-15-12:05:57,10.1.1.3,23,0.030,0.030,0.030,0.000,0.000,0.000
1644926757136934144,2022-02-15-12:05:57,10.1.1.3,32,0.020,0.020,0.020,0.000,0.000,0.000
1644926757177601024,2022-02-15-12:05:57,10.1.1.3,21,0.010,0.010,0.010,0.000,0.000,0.000
1644926757237364992,2022-02-15-12:05:57,10.1.1.3,31,0.000,0.000,0.000,0.000,0.000,0.000
1644926757276750080,2022-02-15-12:05:57,10.1.1.3,20,-0.010,-0.010,-0.010,0.000,0.000,0.000
1644926757336435200,2022-02-15-12:05:57,10.1.1.3,30,-0.020,-0.020,-0.020,0.000,0.000,0.000
1644926757376445952,2022-02-15-12:05:57,10.1.1.3,20,-0.030,-0.030,-0.030,0.000,0.000,0.000
1644926757436888064,2022-02-15-12:05:57,10.1.1.3,28,-0.040,-0.040,-0.040,0.000,0.000,0.000
1644926757499208960,2022-02-15-12:05:57,10.1.1.3,38,-0.050,-0.050,-0.050,0.000,0.000,0.000
1644926757538067968,2022-02-15-12:05:57,10.1.1.3,27,-0.060,-0.060,-0.060,0.000,0.000,0.000
1644926757596890880,2022-02-15-12:05:57,10.1.1.3,36,-0.070,-0.070,-0.070,0.000,0.000,0.000
1644926757636817920,2022-02-15-12:05:57,10.1.1.3,26,-0.080,-0.080,-0.080,0.000,0.000,0.000
1644926757696446976,2022-02-15-12:05:57,10.1.1.3,35,-0.090,-0.090,-0.090,0.000,0.000,0.000
1644926757736834048,2022-02-15-12:05:57,10.1.1.3,25,-0.100,-0.100,-0.100,0.000,0.000,0.000
1644926757796649984,2022-02-15-12:05:57,10.1.1.3,34,-0.090,-0.090,-0.090,0.000,0.000,0.000
1644926757836489984,2022-02-15-12:05:57,10.1.1.3,24,-0.080,-0.080,-0.080,0.000,0.000,0.000
1644926757896944128,2022-02-15-12:05:57,10.1.1.3,33,-0.070,-0.070,-0.070,0.000,0.000,0.000
1644926757937349120,2022-02-15-12:05:57,10.1.1.3,22,-0.060,-0.060,-0.060,0.000,0.000,0.000
1644926757997611008,2022-02-15-12:05:57,10.1.1.3,31,-0.050,-0.050,-0.050,0.000,0.000,0.000
1644926758037520896,2022-02-15-12:05:58,10.1.1.3,20,-0.040,-0.040,-0.040,0.000,0.000,0.000
1644926758096685056,2022-02-15-12:05:58,10.1.1.3,29,-0.030,-0.030,-0.030,0.000,0.000,0.000
1644926758156871168,2022-02-15-12:05:58,10.1.1.3,38,-0.020,-0.020,-0.020,0.000,0.000,0.000
1644926758197284864,2022-02-15-12:05:58,10.1.1.3,27,-0.010,-0.010,-0.010,0.000,0.000,0.000
1644926758259852800,2022-02-15-12:05:58,10.1.1.3,36,0.000,0.000,0.000,0.000,0.000,0.000
1644926758297945088,2022-02-15-12:05:58,10.1.1.3,26,0.010,0.010,0.010,0.000,0.000,0.000
1644926758356986112,2022-02-15-12:05:58,10.1.1.3,35,0.020,0.020,0.020,0.000,0.000,0.000
1644926758397293056,2022-02-15-12:05:58,10.1.1.3,25,0.030,0.030,0.030,0.000,0.000,0.000
1644926758456839936,2022-02-15-12:05:58,10.1.1.3,34,0.040,0.040,0.040,0.000,0.000,0.000
1644926758497436928,2022-02-15-12:05:58,10.1.1.3,23,0.050,0.050,0.050,0.000,0.000,0.000
1644926758556518144,2022-02-15-12:05:58,10.1.1.3,32,0.060,0.060,0.060,0.000,0.000,0.000
1644926758598757120,2022-02-15-12:05:58,10.1.1.3,21,0.070,0.070,0.070,0.000,0.000,0.000
1644926758656431872,2022-02-15-12:05:58,10.1.1.3,29,0.080,0.080,0.080,0.000,0.000,0.000
1644926758696279040,2022-02-15-12:05:58,10.1.1.3,19,0.089,0.089,0.089,0.000,0.000,0.000
1644926758756045056,2022-02-15-12:05:58,10.1.1.3,27,0.100,0.100,0.100,0.000,0.000,0.000
1644926758816312064,2022-02-15-12:05:58,10.1.1.3,36,0.090,0.090,0.090,0.000,0.000,0.000
1644926758856566016,2022-02-15-12:05:58,10.1.1.3,24,0.080,0.080,0.080,0.000,0.000,0.000
1644926758916409856,2022-02-15-12:05:58,10.1.1.3,33,0.070,0.070,0.070,0.000,0.000,0.000
1644926758956843008,2022-02-15-12:05:58,10.1.1.3,23,0.060,0.060,0.060,0.000,0.000,0.000
1644926759016567040,2022-02-15-12:05:59,10.1.1.3,33,0.050,0.050,0.050,0.000,0.000,0.000
1644926759056420096,2022-02-15-12:05:59,10.1.1.3,22,0.040,0.040,0.040,0.000,0.000,0.000
1644926759116504064,2022-02-15-12:05:59,10.1.1.3,31,0.030,0.030,0.030,0.000,0.000,0.000
1644926759158428928,2022-02-15-12:05:59,10.1.1.3,20,0.020,0.020,0.020,0.000,0.000,0.000
1644926759216718848,2022-02-15-12:05:59,10.1.1.3,29,0.010,0.010,0.010,0.000,0.000,0.000
1644926759256738816,2022-02-15-12:05:59,10.1.1.3,19,0.001,0.001,0.001,0.000,0.000,0.000
1644926759316402944,2022-02-15-12:05:59,10.1.1.3,28,-0.010,-0.010,-0.010,0.000,0.000,0.000
1644926759376666112,2022-02-15-12:05:59,10.1.1.3,38,-0.020,-0.020,-0.020,0.000,0.000,0.000
1644926759416444928,2022-02-15-12:05:59,10.1.1.3,26,-0.030,-0.030,-0.030,0.000,0.000,0.000
1644926759476385024,2022-02-15-12:05:59,10.1.1.3,36,-0.040,-0.040,-0.040,0.000,0.000,0.000
1644926759517064192,2022-02-15-12:05:59,10.1.1.3,26,-0.050,-0.050,-0.050,0.000,0.000,0.000
1644926759576958976,2022-02-15-12:05:59,10.1.1.3,35,-0.060,-0.060,-0.060,0.000,0.000,0.000
1644926759616763136,2022-02-15-12:05:59,10.1.1.3,24,-0.070,-0.070,-0.070,0.000,0.000,0.000
1644926759677499904,2022-02-15-12:05:59,10.1.1.3,33,-0.080,-0.080,-0.080,0.000,0.000,0.000
1644926759716697088,2022-02-15-12:05:59,10.1.1.3,22,-0.090,-0.090,-0.090,0.000,0.000,0.000
1644926759776864000,2022-02-15-12:05:59,10.1.1.3,31,-0.100,-0.100,-0.100,0.000,0.000,0.000
1644926759817003008,2022-02-15-12:05:59,10.1.1.3,19,-0.090,-0.090,-0.090,0.000,0.000,0.000
1644926759876980992,2022-02-15-12:05:59,10.1.1.3,28,-0.080,-0.080,-0.080,0.000,0.000,0.000
1644926759936990976,2022-02-15-12:05:59,10.1.1.3,38,-0.070,-0.070,-0.070,0.000,0.000,0.000
1644926759976200960,2022-02-15-12:05:59,10.1.1.3,26,-0.060,-0.060,-0.060,0.000,0.000,0.000
1644926760037970944,2022-02-15-12:06:00,10.1.1.3,36,-0.050,-0.050,-0.050,0.000,0.000,0.000
1644926760077153024,2022-02-15-12:06:00,10.1.1.3,25,-0.040,-0.040,-0.040,0.000,0.000,0.000
1644926760137284096,2022-02-15-12:06:00,10.1.1.3,32,-0.030,-0.030,-0.030,0.000,0.000,0.000
1644926760177131776,2022-02-15-12:06:00,10.1.1.3,22,-0.020,-0.020,-0.020,0.000,0.000,0.000
1644926760236617984,2022-02-15-12:06:00,10.1.1.3,31,-0.010,-0.010,-0.010,0.000,0.000,0.000
1644926760277242880,2022-02-15-12:06:00,10.1.1.3,20,0.000,0.000,0.000,0.000,0.000,0.000
1644926760337157120,2022-02-15-12:06:00,10.1.1.3,29,0.010,0.010,0.010,0.000,0.000,0.000
1644926760396517888,2022-02-15-12:06:00,10.1.1.3,38,0.020,0.020,0.020,0.000,0.000,0.000
1644926760436814080,2022-02-15-12:06:00,10.1.1.3,28,0.030,0.030,0.030,0.000,0.000,0.000
1644926760497019136,2022-02-15-12:06:00,10.1.1.3,37,0.040,0.040,0.040,0.000,0.000,0.000
1644926760537363968,2022-02-15-12:06:00,10.1.1.3,27,0.050,0.050,0.050,0.000,0.000,0.000
1644926760596540928,2022-02-15-12:06:00,10.1.1.3,35,0.060,0.060,0.060,0.000,0.000,0.000
1644926760637000192,2022-02-15-12:06:00,10.1.1.3,24,0.070,0.070,0.070,0.000,0.000,0.000
1644926760696410880,2022-02-15-12:06:00,10.1.1.3,34,0.080,0.080,0.080,0.000,0.000,0.000
1644926760736876032,2022-02-15-12:06:00,10.1.1.3,23,0.090,0.090,0.090,0.000,0.000,0.000
1644926760796290048,2022-02-15-12:06:00,10.1.1.3,32,0.100,0.100,0.100,0.000,0.000,0.000
1644926760836594176,2022-02-15-12:06:00,10.1.1.3,22,0.090,0.090,0.090,0.000,0.000,0.000
1644926760896666880,2022-02-15-12:06:00,10.1.1.3,30,0.080,0.080,0.080,0.000,0.000,0.000
1644926760956733952,2022-02-15-12:06:00,10.1.1.3,38,0.070,0.070,0.070,0.000,0.000,0.000
1644926760996506880,2022-02-15-12:06:00,10.1.1.3,27,0.060,0.060,0.060,0.000,0.000,0.000
1644926761056905984,2022-02-15-12:06:01,10.1.1.3,36,0.050,0.050,0.050,0.000,0.000,0.000
1644926761096924928,2022-02-15-12:06:01,10.1.1.3,26,0.040,0.040,0.040,0.000,0.000,0.000
1644926761157116928,2022-02-15-12:06:01,10.1.1.3,35,0.030,0.030,0.030,0.000,0.000,0.000
1644926761196414976,2022-02-15-12:06:01,10.1.1.3,24,0.020,0.020,0.020,0.000,0.000,0.000
1644926761256950016,2022-02-15-12:06:01,10.1.1.3,34,0.010,0.010,0.010,0.000,0.000,0.000
1644926761296803072,2022-02-15-12:06:01,10.1.1.3,24,0.000,0.000,0.000,0.000,0.000,0.000
1644926761356834048,2022-02-15-12:06:01,10.1.1.3,33,-0.010,-0.010,-0.010,0.000,0.000,0.000
1644926761396416000,2022-02-15-12:06:01,10.1.1.3,23,-0.020,-0.020,-0.020,0.000,0.000,0.000
1644926761456749056,2022-02-15-12:06:01,10.1.1.3,32,-0.030,-0.030,-0.030,0.000,0.000,0.000
1644926761497602048,2022-02-15-12:06:01,10.1.1.3,21,-0.040,-0.040,-0.040,0.000,0.000,0.000
1644926761556827904,2022-02-15-12:06:01,10.1.1.3,30,-0.050,-0.050,-0.050,0.000,0.000,0.000
1644926761597431808,2022-02-15-12:06:01,10.1.1.3,20,-0.060,-0.060,-0.060,0.000,0.000,0.000
1644926761656686080,2022-02-15-12:06:01,10.1.1.3,29,-0.070,-0.070,-0.070,0.000,0.000,0.000
1644926761716523008,2022-02-15-12:06:01,10.1.1.3,38,-0.080,-0.080,-0.080,0.000,0.000,0.000
1644926761756994048,2022-02-15-12:06:01,10.1.1.3,28,-0.090,-0.090,-0.090,0.000,0.000,0.000
1644926761817064960,2022-02-15-12:06:01,10.1.1.3,38,-0.100,-0.100,-0.100,0.000,0.000,0.000
1644926761856813824,2022-02-15-12:06:01,10.1.1.3,27,-0.090,-0.090,-0.090,0.000,0.000,0.000
1644926761917246976,2022-02-15-12:06:01,10.1.1.3,37,-0.080,-0.080,-0.080,0.000,0.000,0.000
1644926761957021952,2022-02-15-12:06:01,10.1.1.3,25,-0.070,-0.070,-0.070,0.000,0.000,0.000
1644926762016987136,2022-02-15-12:06:02,10.1.1.3,35,-0.060,-0.060,-0.060,0.000,0.000,0.000
1644926762056754176,2022-02-15-12:06:02,10.1.1.3,23,-0.050,-0.050,-0.050,0.000,0.000,0.000
1644926762117180160,2022-02-15-12:06:02,10.1.1.3,33,-0.040,-0.040,-0.040,0.000,0.000,0.000
1644926762157095936,2022-02-15-12:06:02,10.1.1.3,23,-0.030,-0.030,-0.030,0.000,0.000,0.000
1644926762217022976,2022-02-15-12:06:02,10.1.1.3,32,-0.020,-0.020,-0.020,0.000,0.000,0.000
1644926762256594944,2022-02-15-12:06:02,10.1.1.3,22,-0.010,-0.010,-0.010,0.000,0.000,0.000
1644926762316837120,2022-02-15-12:06:02,10.1.1.3,31,0.000,0.000,0.000,0.000,0.000,0.000
1644926762357029888,2022-02-15-12:06:02,10.1.1.3,21,0.010,0.010,0.010,0.000,0.000,0.000
1644926762416507904,2022-02-15-12:06:02,10.1.1.3,30,0.020,0.020,0.020,0.000,0.000,0.000
1644926762457307136,2022-02-15-12:06:02,10.1.1.3,20,0.030,0.030,0.030,0.000,0.000,0.000
1644926762516150016,2022-02-15-12:06:02,10.1.1.3,29,0.040,0.040,0.040,0.000,0.000,0.000
1644926762576653056,2022-02-15-12:06:02,10.1.1.3,38,0.050,0.050,0.050,0.000,0.000,0.000
1644926762616455936,2022-02-15-12:06:02,10.1.1.3,27,0.060,0.060,0.060,0.000,0.000,0.000
1644926762677371904,2022-02-15-12:06:02,10.1.1.3,35,0.070,0.070,0.070,0.000,0.000,0.000
1644926762716422144,2022-02-15-12:06:02,10.1.1.3,25,0.080,0.080,0.080,0.000,0.000,0.000
1644926762896658944,2022-02-15-12:06:02,10.1.1.3,10,0.090,0.090,0.090,0.000,0.000,0.000
1644926762956402176,2022-02-15-12:06:02,10.1.1.3,19,0.080,0.080,0.080,0.000,0.000,0.000
1644926763017904128,2022-02-15-12:06:03,10.1.1.3,28,0.070,0.070,0.070,0.000,0.000,0.000
1644926763078948096,2022-02-15-12:06:03,10.1.1.3,38,0.060,0.060,0.060,0.000,0.000,0.000
1644926763117167104,2022-02-15-12:06:03,10.1.1.3,27,0.050,0.050,0.050,0.000,0.000,0.000
1644926763177274880,2022-02-15-12:06:03,10.1.1.3,36,0.040,0.040,0.040,0.000,0.000,0.000
1644926763217037824,2022-02-15-12:06:03,10.1.1.3,25,0.030,0.030,0.030,0.000,0.000,0.000
1644926763276386048,2022-02-15-12:06:03,10.1.1.3,34,0.020,0.020,0.020,0.000,0.000,0.000
1644926763316101120,2022-02-15-12:06:03,10.1.1.3,23,0.010,0.010,0.010,0.000,0.000,0.000
1644926763376753920,2022-02-15-12:06:03,10.1.1.3,33,0.000,0.000,0.000,0.000,0.000,0.000
1644926763417035008,2022-02-15-12:06:03,10.1.1.3,22,-0.010,-0.010,-0.010,0.000,0.000,0.000
1644926763476062976,2022-02-15-12:06:03,10.1.1.3,32,-0.020,-0.020,-0.020,0.000,0.000,0.000
1644926763516897792,2022-02-15-12:06:03,10.1.1.3,21,-0.030,-0.030,-0.030,0.000,0.000,0.000
1644926763576550912,2022-02-15-12:06:03,10.1.1.3,31,-0.040,-0.040,-0.040,0.000,0.000,0.000
1644926763616403200,2022-02-15-12:06:03,10.1.1.3,20,-0.050,-0.050,-0.050,0.000,0.000,0.000
1644926763676545024,2022-02-15-12:06:03,10.1.1.3,29,-0.060,-0.060,-0.060,0.000,0.000,0.000
1644926763736541952,2022-02-15-12:06:03,10.1.1.3,38,-0.070,-0.070,-0.070,0.000,0.000,0.000
1644926763776549120,2022-02-15-12:06:03,10.1.1.3,27,-0.080,-0.080,-0.080,0.000,0.000,0.000
1644926763836257024,2022-02-15-12:06:03,10.1.1.3,36,-0.090,-0.090,-0.090,0.000,0.000,0.000
1644926763876493824,2022-02-15-12:06:03,10.1.1.3,26,-0.100,-0.100,-0.100,0.000,0.000,0.000
1644926763936826880,2022-02-15-12:06:03,10.1.1.3,35,-0.090,-0.090,-0.090,0.000,0.000,0.000
1644926763976327936,2022-02-15-12:06:03,10.1.1.3,24,-0.080,-0.080,-0.080,0.000,0.000,0.000
1644926764036338176,2022-02-15-12:06:04,10.1.1.3,34,-0.070,-0.070,-0.070,0.000,0.000,0.000
1644926764076687104,2022-02-15-12:06:04,10.1.1.3,24,-0.060,-0.060,-0.060,0.000,0.000,0.000
1644926764136989184,2022-02-15-12:06:04,10.1.1.3,33,-0.050,-0.050,-0.050,0.000,0.000,0.000
1644926764176796928,2022-02-15-12:06:04,10.1.1.3,22,-0.040,-0.040,-0.040,0.000,0.000,0.000
1644926764236442112,2022-02-15-12:06:04,10.1.1.3,31,-0.030,-0.030,-0.030,0.000,0.000,0.000
1644926764276581888,2022-02-15-12:06:04,10.1.1.3,20,-0.020,-0.020,-0.020,0.000,0.000,0.000
1644926764396524032,2022-02-15-12:06:04,10.1.1.3,38,0.000,0.000,0.000,0.000,0.000,0.000
1644926764436353024,2022-02-15-12:06:04,10.1.1.3,27,0.010,0.010,0.010,0.000,0.000,0.000
1644926764496752896,2022-02-15-12:06:04,10.1.1.3,36,0.020,0.020,0.020,0.000,0.000,0.000
1644926764536453888,2022-02-15-12:06:04,10.1.1.3,25,0.030,0.030,0.030,0.000,0.000,0.000
1644926764596968960,2022-02-15-12:06:04,10.1.1.3,35,0.040,0.040,0.040,0.000,0.000,0.000
1644926764636915968,2022-02-15-12:06:04,10.1.1.3,24,0.050,0.050,0.050,0.000,0.000,0.000
1644926764696717056,2022-02-15-12:06:04,10.1.1.3,34,0.060,0.060,0.060,0.000,0.000,0.000
1644926764737245952,2022-02-15-12:06:04,10.1.1.3,22,0.070,0.070,0.070,0.000,0.000,0.000
1644926764796036864,2022-02-15-12:06:04,10.1.1.3,32,0.080,0.080,0.080,0.000,0.000,0.000
1644926764836803840,2022-02-15-12:06:04,10.1.1.3,21,0.090,0.090,0.090,0.000,0.000,0.000
1644926764897036032,2022-02-15-12:06:04,10.1.1.3,30,0.100,0.100,0.100,0.000,0.000,0.000
1644926764936794880,2022-02-15-12:06:04,10.1.1.3,20,0.090,0.090,0.090,0.000,0.000,0.000
1644926764996634112,2022-02-15-12:06:04,10.1.1.3,29,0.080,0.080,0.080,0.000,0.000,0.000
1644926765036523008,2022-02-15-12:06:05,10.1.1.3,19,0.070,0.070,0.070,0.000,0.000,0.000
1644926765097165056,2022-02-15-12:06:05,10.1.1.3,28,0.060,0.060,0.060,0.000,0.000,0.000
1644926765157275904,2022-02-15-12:06:05,10.1.1.3,37,0.050,0.050,0.050,0.000,0.000,0.000
1644926765196084992,2022-02-15-12:06:05,10.1.1.3,26,0.040,0.040,0.040,0.000,0.000,0.000
1644926765256463104,2022-02-15-12:06:05,10.1.1.3,36,0.030,0.030,0.030,0.000,0.000,0.000
1644926765298279936,2022-02-15-12:06:05,10.1.1.3,25,0.020,0.020,0.020,0.000,0.000,0.000
1644926765356374016,2022-02-15-12:06:05,10.1.1.3,34,0.010,0.010,0.010,0.000,0.000,0.000
1644926765396827904,2022-02-15-12:06:05,10.1.1.3,24,0.000,0.000,0.000,0.000,0.000,0.000
1644926765456176128,2022-02-15-12:06:05,10.1.1.3,33,-0.010,-0.010,-0.010,0.000,0.000,0.000
1644926765496660992,2022-02-15-12:06:05,10.1.1.3,23,-0.020,-0.020,-0.020,0.000,0.000,0.000
1644926765556609024,2022-02-15-12:06:05,10.1.1.3,32,-0.030,-0.030,-0.030,0.000,0.000,0.000
1644926765596848896,2022-02-15-12:06:05,10.1.1.3,22,-0.040,-0.040,-0.040,0.000,0.000,0.000
1644926765656884992,2022-02-15-12:06:05,10.1.1.3,31,-0.050,-0.050,-0.050,0.000,0.000,0.000
1644926765696315904,2022-02-15-12:06:05,10.1.1.3,20,-0.060,-0.060,-0.060,0.000,0.000,0.000
1644926765756679936,2022-02-15-12:06:05,10.1.1.3,30,-0.070,-0.070,-0.070,0.000,0.000,0.000
1644926765796497152,2022-02-15-12:06:05,10.1.1.3,18,-0.079,-0.079,-0.079,0.000,0.000,0.000
1644926765856317952,2022-02-15-12:06:05,10.1.1.3,28,-0.090,-0.090,-0.090,0.000,0.000,0.000
1644926765916555008,2022-02-15-12:06:05,10.1.1.3,38,-0.100,-0.100,-0.100,0.000,0.000,0.000
1644926765956495104,2022-02-15-12:06:05,10.1.1.3,26,-0.090,-0.090,-0.090,0.000,0.000,0.000
1644926766016609024,2022-02-15-12:06:06,10.1.1.3,35,-0.080,-0.080,-0.080,0.000,0.000,0.000
1644926766056626176,2022-02-15-12:06:06,10.1.1.3,25,-0.070,-0.070,-0.070,0.000,0.000,0.000
1644926766116686080,2022-02-15-12:06:06,10.1.1.3,34,-0.060,-0.060,-0.060,0.000,0.000,0.000
1644926766156585984,2022-02-15-12:06:06,10.1.1.3,24,-0.050,-0.050,-0.050,0.000,0.000,0.000
1644926766216561152,2022-02-15-12:06:06,10.1.1.3,33,-0.040,-0.040,-0.040,0.000,0.000,0.000
1644926766256689152,2022-02-15-12:06:06,10.1.1.3,23,-0.030,-0.030,-0.030,0.000,0.000,0.000
1644926766316881920,2022-02-15-12:06:06,10.1.1.3,32,-0.020,-0.020,-0.020,0.000,0.000,0.000
1644926766357018880,2022-02-15-12:06:06,10.1.1.3,21,-0.010,-0.010,-0.010,0.000,0.000,0.000
1644926766417044992,2022-02-15-12:06:06,10.1.1.3,30,0.000,0.000,0.000,0.000,0.000,0.000
1644926766456692992,2022-02-15-12:06:06,10.1.1.3,20,0.010,0.010,0.010,0.000,0.000,0.000
1644926766516244992,2022-02-15-12:06:06,10.1.1.3,29,0.020,0.020,0.020,0.000,0.000,0.000
1644926766556512000,2022-02-15-12:06:06,10.1.1.3,19,0.029,0.029,0.029,0.000,0.000,0.000
1644926766616962048,2022-02-15-12:06:06,10.1.1.3,28,0.040,0.040,0.040,0.000,0.000,0.000
1644926766676323840,2022-02-15-12:06:06,10.1.1.3,37,0.050,0.050,0.050,0.000,0.000,0.000
1644926766716898816,2022-02-15-12:06:06,10.1.1.3,27,0.060,0.060,0.060,0.000,0.000,0.000
1644926766776876032,2022-02-15-12:06:06,10.1.1.3,36,0.070,0.070,0.070,0.000,0.000,0.000
1644926766816771072,2022-02-15-12:06:06,10.1.1.3,26,0.080,0.080,0.080,0.000,0.000,0.000
1644926766876600064,2022-02-15-12:06:06,10.1.1.3,35,0.090,0.090,0.090,0.000,0.000,0.000
1644926766917027072,2022-02-15-12:06:06,10.1.1.3,24,0.100,0.100,0.100,0.000,0.000,0.000
1644926766976667904,2022-02-15-12:06:06,10.1.1.3,34,0.090,0.090,0.090,0.000,0.000,0.000
1644926767016621056,2022-02-15-12:06:07,10.1.1.3,24,0.080,0.080,0.080,0.000,0.000,0.000
1644926767076530944,2022-02-15-12:06:07,10.1.1.3,33,0.070,0.070,0.070,0.000,0.000,0.000
1644926767116785920,2022-02-15-12:06:07,10.1.1.3,22,0.060,0.060,0.060,0.000,0.000,0.000
1644926767177187072,2022-02-15-12:06:07,10.1.1.3,31,0.050,0.050,0.050,0.000,0.000,0.000
1644926767216952064,2022-02-15-12:06:07,10.1.1.3,21,0.040,0.040,0.040,0.000,0.000,0.000
1644926767340936960,2022-02-15-12:06:07,10.1.1.3,34,0.020,0.020,0.020,0.000,0.000,0.000
1644926767377031168,2022-02-15-12:06:07,10.1.1.3,23,0.010,0.010,0.010,0.000,0.000,0.000
1644926767436926976,2022-02-15-12:06:07,10.1.1.3,30,0.000,0.000,0.000,0.000,0.000,0.000
1644926767476422144,2022-02-15-12:06:07,10.1.1.3,19,-0.010,-0.010,-0.010,0.000,0.000,0.000
1644926767537242880,2022-02-15-12:06:07,10.1.1.3,28,-0.020,-0.020,-0.020,0.000,0.000,0.000
1644926767596617984,2022-02-15-12:06:07,10.1.1.3,38,-0.030,-0.030,-0.030,0.000,0.000,0.000
1644926767636583168,2022-02-15-12:06:07,10.1.1.3,27,-0.040,-0.040,-0.040,0.000,0.000,0.000
1644926767696847872,2022-02-15-12:06:07,10.1.1.3,36,-0.050,-0.050,-0.050,0.000,0.000,0.000
1644926767736900096,2022-02-15-12:06:07,10.1.1.3,25,-0.060,-0.060,-0.060,0.000,0.000,0.000
1644926767797334784,2022-02-15-12:06:07,10.1.1.3,34,-0.070,-0.070,-0.070,0.000,0.000,0.000
1644926767837021184,2022-02-15-12:06:07,10.1.1.3,23,-0.080,-0.080,-0.080,0.000,0.000,0.000
1644926767896337920,2022-02-15-12:06:07,10.1.1.3,33,-0.090,-0.090,-0.090,0.000,0.000,0.000
1644926767936969984,2022-02-15-12:06:07,10.1.1.3,22,-0.100,-0.100,-0.100,0.000,0.000,0.000
1644926767996457216,2022-02-15-12:06:07,10.1.1.3,32,-0.090,-0.090,-0.090,0.000,0.000,0.000
1644926768036910080,2022-02-15-12:06:08,10.1.1.3,21,-0.080,-0.080,-0.080,0.000,0.000,0.000
1644926768096754176,2022-02-15-12:06:08,10.1.1.3,31,-0.070,-0.070,-0.070,0.000,0.000,0.000
1644926768136580096,2022-02-15-12:06:08,10.1.1.3,20,-0.060,-0.060,-0.060,0.000,0.000,0.000
1644926768197434880,2022-02-15-12:06:08,10.1.1.3,29,-0.050,-0.050,-0.050,0.000,0.000,0.000
1644926768257174016,2022-02-15-12:06:08,10.1.1.3,37,-0.040,-0.040,-0.040,0.000,0.000,0.000
1644926768299299840,2022-02-15-12:06:08,10.1.1.3,27,-0.030,-0.030,-0.030,0.000,0.000,0.000
1644926768356379136,2022-02-15-12:06:08,10.1.1.3,34,-0.020,-0.020,-0.020,0.000,0.000,0.000
1644926768396868864,2022-02-15-12:06:08,10.1.1.3,23,-0.010,-0.010,-0.010,0.000,0.000,0.000
1644926768456308992,2022-02-15-12:06:08,10.1.1.3,33,0.000,0.000,0.000,0.000,0.000,0.000
1644926768496902912,2022-02-15-12:06:08,10.1.1.3,22,0.010,0.010,0.010,0.000,0.000,0.000
1644926768556941056,2022-02-15-12:06:08,10.1.1.3,31,0.020,0.020,0.020,0.000,0.000,0.000
1644926768596451072,2022-02-15-12:06:08,10.1.1.3,20,0.030,0.030,0.030,0.000,0.000,0.000
1644926768656472832,2022-02-15-12:06:08,10.1.1.3,29,0.040,0.040,0.040,0.000,0.000,0.000
1644926768716728064,2022-02-15-12:06:08,10.1.1.3,38,0.050,0.050,0.050,0.000,0.000,0.000
1644926768756609024,2022-02-15-12:06:08,10.1.1.3,26,0.060,0.060,0.060,0.000,0.000,0.000
1644926768777585920,2022-02-15-12:06:08,10.1.1.3,-6,0.060,0.060,0.060,0.000,0.000,0.000
1644926768856805120,2022-02-15-12:06:08,10.1.1.3,23,0.080,0.080,0.080,0.000,0.000,0.000
1644926768916562176,2022-02-15-12:06:08,10.1.1.3,32,0.090,0.090,0.090,0.000,0.000,0.000
1644926768956787968,2022-02-15-12:06:08,10.1.1.3,21,0.100,0.100,0.100,0.000,0.000,0.000
1644926769016790016,2022-02-15-12:06:09,10.1.1.3,30,0.090,0.090,0.090,0.000,0.000,0.000
1644926769057248000,2022-02-15-12:06:09,10.1.1.3,19,0.081,0.081,0.081,0.000,0.000,0.000
1644926769116830208,2022-02-15-12:06:09,10.1.1.3,27,0.070,0.070,0.070,0.000,0.000,0.000
1644926769177221888,2022-02-15-12:06:09,10.1.1.3,36,0.060,0.060,0.060,0.000,0.000,0.000
1644926769216902144,2022-02-15-12:06:09,10.1.1.3,25,0.050,0.050,0.050,0.000,0.000,0.000
1644926769276726016,2022-02-15-12:06:09,10.1.1.3,34,0.040,0.040,0.040,0.000,0.000,0.000
1644926769316850944,2022-02-15-12:06:09,10.1.1.3,24,0.030,0.030,0.030,0.000,0.000,0.000
1644926769376496128,2022-02-15-12:06:09,10.1.1.3,33,0.020,0.020,0.020,0.000,0.000,0.000
1644926769416833024,2022-02-15-12:06:09,10.1.1.3,22,0.010,0.010,0.010,0.000,0.000,0.000
1644926769476599040,2022-02-15-12:06:09,10.1.1.3,31,0.000,0.000,0.000,0.000,0.000,0.000
1644926769516408064,2022-02-15-12:06:09,10.1.1.3,19,-0.010,-0.010,-0.010,0.000,0.000,0.000
1644926769576457984,2022-02-15-12:06:09,10.1.1.3,29,-0.020,-0.020,-0.020,0.000,0.000,0.000
1644926769636459008,2022-02-15-12:06:09,10.1.1.3,37,-0.030,-0.030,-0.030,0.000,0.000,0.000
1644926769676772096,2022-02-15-12:06:09,10.1.1.3,26,-0.040,-0.040,-0.040,0.000,0.000,0.000
1644926769736392960,2022-02-15-12:06:09,10.1.1.3,35,-0.050,-0.050,-0.050,0.000,0.000,0.000
1644926769776900096,2022-02-15-12:06:09,10.1.1.3,25,-0.060,-0.060,-0.060,0.000,0.000,0.000
1644926769836749056,2022-02-15-12:06:09,10.1.1.3,34,-0.070,-0.070,-0.070,0.000,0.000,0.000
1644926769877242112,2022-02-15-12:06:09,10.1.1.3,23,-0.080,-0.080,-0.080,0.000,0.000,0.000
1644926769936644096,2022-02-15-12:06:09,10.1.1.3,32,-0.090,-0.090,-0.090,0.000,0.000,0.000
1644926769976877056,2022-02-15-12:06:09,10.1.1.3,21,-0.100,-0.100,-0.100,0.000,0.000,0.000
1644926770036416000,2022-02-15-12:06:10,10.1.1.3,31,-0.090,-0.090,-0.090,0.000,0.000,0.000
1644926770076893952,2022-02-15-12:06:10,10.1.1.3,19,-0.080,-0.080,-0.080,0.000,0.000,0.000
1644926770137008896,2022-02-15-12:06:10,10.1.1.3,29,-0.070,-0.070,-0.070,0.000,0.000,0.000
1644926770196312832,2022-02-15-12:06:10,10.1.1.3,38,-0.060,-0.060,-0.060,0.000,0.000,0.000
1644926770236331008,2022-02-15-12:06:10,10.1.1.3,27,-0.050,-0.050,-0.050,0.000,0.000,0.000
1644926770356581888,2022-02-15-12:06:10,10.1.1.3,34,-0.030,-0.030,-0.030,0.000,0.000,0.000
1644926770396617984,2022-02-15-12:06:10,10.1.1.3,23,-0.020,-0.020,-0.020,0.000,0.000,0.000
1644926770456656896,2022-02-15-12:06:10,10.1.1.3,32,-0.010,-0.010,-0.010,0.000,0.000,0.000
1644926770496504064,2022-02-15-12:06:10,10.1.1.3,21,0.000,0.000,0.000,0.000,0.000,0.000
1644926770556457984,2022-02-15-12:06:10,10.1.1.3,30,0.010,0.010,0.010,0.000,0.000,0.000
1644926770596539904,2022-02-15-12:06:10,10.1.1.3,20,0.020,0.020,0.020,0.000,0.000,0.000
1644926770656423168,2022-02-15-12:06:10,10.1.1.3,28,0.030,0.030,0.030,0.000,0.000,0.000
1644926770716718080,2022-02-15-12:06:10,10.1.1.3,38,0.040,0.040,0.040,0.000,0.000,0.000
1644926770756606208,2022-02-15-12:06:10,10.1.1.3,27,0.050,0.050,0.050,0.000,0.000,0.000
1644926770816931072,2022-02-15-12:06:10,10.1.1.3,36,0.060,0.060,0.060,0.000,0.000,0.000
1644926770856209152,2022-02-15-12:06:10,10.1.1.3,24,0.070,0.070,0.070,0.000,0.000,0.000
1644926770916613120,2022-02-15-12:06:10,10.1.1.3,33,0.080,0.080,0.080,0.000,0.000,0.000
1644926770956419072,2022-02-15-12:06:10,10.1.1.3,22,0.090,0.090,0.090,0.000,0.000,0.000
1644926771016673024,2022-02-15-12:06:11,10.1.1.3,32,0.100,0.100,0.100,0.000,0.000,0.000
1644926771056794880,2022-02-15-12:06:11,10.1.1.3,21,0.090,0.090,0.090,0.000,0.000,0.000
1644926771116719872,2022-02-15-12:06:11,10.1.1.3,30,0.080,0.080,0.080,0.000,0.000,0.000
1644926771156711168,2022-02-15-12:06:11,10.1.1.3,19,0.070,0.070,0.070,0.000,0.000,0.000
1644926771216457984,2022-02-15-12:06:11,10.1.1.3,29,0.060,0.060,0.060,0.000,0.000,0.000
1644926771256524032,2022-02-15-12:06:11,10.1.1.3,19,0.051,0.051,0.051,0.000,0.000,0.000
1644926771316653056,2022-02-15-12:06:11,10.1.1.3,26,0.040,0.040,0.040,0.000,0.000,0.000
1644926771376337152,2022-02-15-12:06:11,10.1.1.3,35,0.030,0.030,0.030,0.000,0.000,0.000
1644926771416760832,2022-02-15-12:06:11,10.1.1.3,25,0.020,0.020,0.020,0.000,0.000,0.000
1644926771476675072,2022-02-15-12:06:11,10.1.1.3,34,0.010,0.010,0.010,0.000,0.000,0.000
1644926771516514048,2022-02-15-12:06:11,10.1.1.3,23,0.000,0.000,0.000,0.000,0.000,0.000
1644926771576579072,2022-02-15-12:06:11,10.1.1.3,32,-0.010,-0.010,-0.010,0.000,0.000,0.000
1644926771616718080,2022-02-15-12:06:11,10.1.1.3,21,-0.020,-0.020,-0.020,0.000,0.000,0.000
1644926771676548864,2022-02-15-12:06:11,10.1.1.3,29,-0.030,-0.030,-0.030,0.000,0.000,0.000
1644926771716776960,2022-02-15-12:06:11,10.1.1.3,18,-0.039,-0.039,-0.039,0.000,0.000,0.000
1644926771776343040,2022-02-15-12:06:11,10.1.1.3,28,-0.050,-0.050,-0.050,0.000,0.000,0.000
1644926771837480192,2022-02-15-12:06:11,10.1.1.3,36,-0.060,-0.060,-0.060,0.000,0.000,0.000
1644926771956087040,2022-02-15-12:06:11,10.1.1.3,32,-0.080,-0.080,-0.080,0.000,0.000,0.000
1644926771996232960,2022-02-15-12:06:11,10.1.1.3,22,-0.090,-0.090,-0.090,0.000,0.000,0.000
1644926772056560896,2022-02-15-12:06:12,10.1.1.3,31,-0.100,-0.100,-0.100,0.000,0.000,0.000
1644926772096044032,2022-02-15-12:06:12,10.1.1.3,20,-0.090,-0.090,-0.090,0.000,0.000,0.000
1644926772156680960,2022-02-15-12:06:12,10.1.1.3,29,-0.080,-0.080,-0.080,0.000,0.000,0.000
1644926772196317952,2022-02-15-12:06:12,10.1.1.3,19,-0.070,-0.070,-0.070,0.000,0.000,0.000
1644926772256556032,2022-02-15-12:06:12,10.1.1.3,28,-0.060,-0.060,-0.060,0.000,0.000,0.000
1644926772316441088,2022-02-15-12:06:12,10.1.1.3,37,-0.050,-0.050,-0.050,0.000,0.000,0.000
1644926772356653824,2022-02-15-12:06:12,10.1.1.3,26,-0.040,-0.040,-0.040,0.000,0.000,0.000
1644926772416640000,2022-02-15-12:06:12,10.1.1.3,35,-0.030,-0.030,-0.030,0.000,0.000,0.000
1644926772456239104,2022-02-15-12:06:12,10.1.1.3,24,-0.020,-0.020,-0.020,0.000,0.000,0.000
1644926772516145920,2022-02-15-12:06:12,10.1.1.3,34,-0.010,-0.010,-0.010,0.000,0.000,0.000
1644926772556324864,2022-02-15-12:06:12,10.1.1.3,23,0.000,0.000,0.000,0.000,0.000,0.000
1644926772617309184,2022-02-15-12:06:12,10.1.1.3,32,0.010,0.010,0.010,0.000,0.000,0.000
1644926772656229120,2022-02-15-12:06:12,10.1.1.3,21,0.020,0.020,0.020,0.000,0.000,0.000
1644926772717346048,2022-02-15-12:06:12,10.1.1.3,30,0.030,0.030,0.030,0.000,0.000,0.000
1644926772756709120,2022-02-15-12:06:12,10.1.1.3,19,0.040,0.040,0.040,0.000,0.000,0.000
1644926772816742912,2022-02-15-12:06:12,10.1.1.3,28,0.050,0.050,0.050,0.000,0.000,0.000
1644926772876599040,2022-02-15-12:06:12,10.1.1.3,37,0.060,0.060,0.060,0.000,0.000,0.000
1644926772916251904,2022-02-15-12:06:12,10.1.1.3,26,0.070,0.070,0.070,0.000,0.000,0.000
1644926772976723968,2022-02-15-12:06:12,10.1.1.3,35,0.080,0.080,0.080,0.000,0.000,0.000
1644926773017716992,2022-02-15-12:06:13,10.1.1.3,25,0.090,0.090,0.090,0.000,0.000,0.000
1644926773077528832,2022-02-15-12:06:13,10.1.1.3,34,0.100,0.100,0.100,0.000,0.000,0.000
1644926773116861184,2022-02-15-12:06:13,10.1.1.3,23,0.090,0.090,0.090,0.000,0.000,0.000
1644926773176556032,2022-02-15-12:06:13,10.1.1.3,33,0.080,0.080,0.080,0.000,0.000,0.000
1644926773216880128,2022-02-15-12:06:13,10.1.1.3,22,0.070,0.070,0.070,0.000,0.000,0.000
1644926773276376064,2022-02-15-12:06:13,10.1.1.3,31,0.060,0.060,0.060,0.000,0.000,0.000
1644926773317218048,2022-02-15-12:06:13,10.1.1.3,21,0.050,0.050,0.050,0.000,0.000,0.000
1644926773377038848,2022-02-15-12:06:13,10.1.1.3,30,0.040,0.040,0.040,0.000,0.000,0.000
1644926773416758016,2022-02-15-12:06:13,10.1.1.3,19,0.030,0.030,0.030,0.000,0.000,0.000
1644926773477540096,2022-02-15-12:06:13,10.1.1.3,28,0.020,0.020,0.020,0.000,0.000,0.000
1644926773536696064,2022-02-15-12:06:13,10.1.1.3,37,0.010,0.010,0.010,0.000,0.000,0.000
1644926773577132032,2022-02-15-12:06:13,10.1.1.3,26,0.000,0.000,0.000,0.000,0.000,0.000
1644926773637070848,2022-02-15-12:06:13,10.1.1.3,34,-0.010,-0.010,-0.010,0.000,0.000,0.000
1644926773677854976,2022-02-15-12:06:13,10.1.1.3,24,-0.020,-0.020,-0.020,0.000,0.000,0.000
1644926773738060032,2022-02-15-12:06:13,10.1.1.3,32,-0.030,-0.030,-0.030,0.000,0.000,0.000
1644926773776557056,2022-02-15-12:06:13,10.1.1.3,21,-0.040,-0.040,-0.040,0.000,0.000,0.000
1644926773837037056,2022-02-15-12:06:13,10.1.1.3,30,-0.050,-0.050,-0.050,0.000,0.000,0.000
1644926773877288192,2022-02-15-12:06:13,10.1.1.3,19,-0.060,-0.060,-0.060,0.000,0.000,0.000
1644926773937881088,2022-02-15-12:06:13,10.1.1.3,28,-0.070,-0.070,-0.070,0.000,0.000,0.000
1644926773997404928,2022-02-15-12:06:13,10.1.1.3,37,-0.080,-0.080,-0.080,0.000,0.000,0.000
1644926774037161216,2022-02-15-12:06:14,10.1.1.3,26,-0.090,-0.090,-0.090,0.000,0.000,0.000
1644926774057602048,2022-02-15-12:06:14,10.1.1.3,-5,-0.090,-0.090,-0.090,0.000,0.000,0.000
1644926774136537088,2022-02-15-12:06:14,10.1.1.3,24,-0.090,-0.090,-0.090,0.000,0.000,0.000
1644926774196887040,2022-02-15-12:06:14,10.1.1.3,33,-0.080,-0.080,-0.080,0.000,0.000,0.000
1644926774236679936,2022-02-15-12:06:14,10.1.1.3,21,-0.070,-0.070,-0.070,0.000,0.000,0.000
1644926774296968960,2022-02-15-12:06:14,10.1.1.3,30,-0.060,-0.060,-0.060,0.000,0.000,0.000
1644926774337126912,2022-02-15-12:06:14,10.1.1.3,19,-0.050,-0.050,-0.050,0.000,0.000,0.000
1644926774396729856,2022-02-15-12:06:14,10.1.1.3,28,-0.040,-0.040,-0.040,0.000,0.000,0.000
1644926774456968960,2022-02-15-12:06:14,10.1.1.3,37,-0.030,-0.030,-0.030,0.000,0.000,0.000
1644926774500364032,2022-02-15-12:06:14,10.1.1.3,29,-0.020,-0.020,-0.020,0.000,0.000,0.000
1644926774557213184,2022-02-15-12:06:14,10.1.1.3,35,-0.010,-0.010,-0.010,0.000,0.000,0.000
1644926774596816896,2022-02-15-12:06:14,10.1.1.3,24,0.000,0.000,0.000,0.000,0.000,0.000
1644926774656724992,2022-02-15-12:06:14,10.1.1.3,33,0.010,0.010,0.010,0.000,0.000,0.000
1644926774697554176,2022-02-15-12:06:14,10.1.1.3,21,0.020,0.020,0.020,0.000,0.000,0.000
1644926774756423936,2022-02-15-12:06:14,10.1.1.3,30,0.030,0.030,0.030,0.000,0.000,0.000
1644926774796572928,2022-02-15-12:06:14,10.1.1.3,19,0.040,0.040,0.040,0.000,0.000,0.000
1644926774856506112,2022-02-15-12:06:14,10.1.1.3,28,0.050,0.050,0.050,0.000,0.000,0.000
1644926774916583168,2022-02-15-12:06:14,10.1.1.3,37,0.060,0.060,0.060,0.000,0.000,0.000
1644926774957146880,2022-02-15-12:06:14,10.1.1.3,26,0.070,0.070,0.070,0.000,0.000,0.000
1644926775016659968,2022-02-15-12:06:15,10.1.1.3,35,0.080,0.080,0.080,0.000,0.000,0.000
1644926775056591104,2022-02-15-12:06:15,10.1.1.3,24,0.090,0.090,0.090,0.000,0.000,0.000
1644926775116830976,2022-02-15-12:06:15,10.1.1.3,32,0.100,0.100,0.100,0.000,0.000,0.000
1644926775156505088,2022-02-15-12:06:15,10.1.1.3,20,0.090,0.090,0.090,0.000,0.000,0.000
1644926775216826880,2022-02-15-12:06:15,10.1.1.3,30,0.080,0.080,0.080,0.000,0.000,0.000
1644926775256477952,2022-02-15-12:06:15,10.1.1.3,19,0.070,0.070,0.070,0.000,0.000,0.000
1644926775316654080,2022-02-15-12:06:15,10.1.1.3,28,0.060,0.060,0.060,0.000,0.000,0.000
1644926775376705024,2022-02-15-12:06:15,10.1.1.3,37,0.050,0.050,0.050,0.000,0.000,0.000
1644926775416822016,2022-02-15-12:06:15,10.1.1.3,25,0.040,0.040,0.040,0.000,0.000,0.000
1644926775477033984,2022-02-15-12:06:15,10.1.1.3,35,0.030,0.030,0.030,0.000,0.000,0.000
1644926775517293824,2022-02-15-12:06:15,10.1.1.3,24,0.020,0.020,0.020,0.000,0.000,0.000
1644926775576785152,2022-02-15-12:06:15,10.1.1.3,32,0.010,0.010,0.010,0.000,0.000,0.000
1644926775617113088,2022-02-15-12:06:15,10.1.1.3,21,0.000,0.000,0.000,0.000,0.000,0.000
1644926775677073920,2022-02-15-12:06:15,10.1.1.3,29,-0.010,-0.010,-0.010,0.000,0.000,0.000
1644926775737033984,2022-02-15-12:06:15,10.1.1.3,38,-0.020,-0.020,-0.020,0.000,0.000,0.000
1644926775776905984,2022-02-15-12:06:15,10.1.1.3,26,-0.030,-0.030,-0.030,0.000,0.000,0.000
1644926775837358848,2022-02-15-12:06:15,10.1.1.3,35,-0.040,-0.040,-0.040,0.000,0.000,0.000
1644926775876813056,2022-02-15-12:06:15,10.1.1.3,24,-0.050,-0.050,-0.050,0.000,0.000,0.000
1644926775937489920,2022-02-15-12:06:15,10.1.1.3,33,-0.060,-0.060,-0.060,0.000,0.000,0.000
1644926775976797952,2022-02-15-12:06:15,10.1.1.3,22,-0.070,-0.070,-0.070,0.000,0.000,0.000
1644926776036897024,2022-02-15-12:06:16,10.1.1.3,31,-0.080,-0.080,-0.080,0.000,0.000,0.000
1644926776076919040,2022-02-15-12:06:16,10.1.1.3,20,-0.090,-0.090,-0.090,0.000,0.000,0.000
1644926776137753856,2022-02-15-12:06:16,10.1.1.3,28,-0.100,-0.100,-0.100,0.000,0.000,0.000
1644926776197212928,2022-02-15-12:06:16,10.1.1.3,38,-0.090,-0.090,-0.090,0.000,0.000,0.000
1644926776237584128,2022-02-15-12:06:16,10.1.1.3,26,-0.080,-0.080,-0.080,0.000,0.000,0.000
1644926776297938944,2022-02-15-12:06:16,10.1.1.3,35,-0.070,-0.070,-0.070,0.000,0.000,0.000
1644926776336393216,2022-02-15-12:06:16,10.1.1.3,25,-0.060,-0.060,-0.060,0.000,0.000,0.000
1644926776396285184,2022-02-15-12:06:16,10.1.1.3,34,-0.050,-0.050,-0.050,0.000,0.000,0.000
1644926776436739072,2022-02-15-12:06:16,10.1.1.3,24,-0.040,-0.040,-0.040,0.000,0.000,0.000
1644926776496557056,2022-02-15-12:06:16,10.1.1.3,33,-0.030,-0.030,-0.030,0.000,0.000,0.000
1644926776536658176,2022-02-15-12:06:16,10.1.1.3,23,-0.020,-0.020,-0.020,0.000,0.000,0.000
1644926776596979968,2022-02-15-12:06:16,10.1.1.3,32,-0.010,-0.010,-0.010,0.000,0.000,0.000
1644926776636286976,2022-02-15-12:06:16,10.1.1.3,21,0.000,0.000,0.000,0.000,0.000,0.000
1644926776696378880,2022-02-15-12:06:16,10.1.1.3,30,0.010,0.010,0.010,0.000,0.000,0.000
1644926776736975872,2022-02-15-12:06:16,10.1.1.3,19,0.020,0.020,0.020,0.000,0.000,0.000
1644926776796878080,2022-02-15-12:06:16,10.1.1.3,29,0.030,0.030,0.030,0.000,0.000,0.000
1644926776856206848,2022-02-15-12:06:16,10.1.1.3,38,0.040,0.040,0.040,0.000,0.000,0.000
1644926776897665024,2022-02-15-12:06:16,10.1.1.3,27,0.050,0.050,0.050,0.000,0.000,0.000
1644926776956818176,2022-02-15-12:06:16,10.1.1.3,35,0.060,0.060,0.060,0.000,0.000,0.000
1644926776996861952,2022-02-15-12:06:16,10.1.1.3,24,0.070,0.070,0.070,0.000,0.000,0.000
1644926777057046784,2022-02-15-12:06:17,10.1.1.3,34,0.080,0.080,0.080,0.000,0.000,0.000
1644926777097743872,2022-02-15-12:06:17,10.1.1.3,23,0.090,0.090,0.090,0.000,0.000,0.000
1644926777156539904,2022-02-15-12:06:17,10.1.1.3,33,0.100,0.100,0.100,0.000,0.000,0.000
1644926777199683072,2022-02-15-12:06:17,10.1.1.3,22,0.090,0.090,0.090,0.000,0.000,0.000
1644926777256773120,2022-02-15-12:06:17,10.1.1.3,31,0.080,0.080,0.080,0.000,0.000,0.000
1644926777296566016,2022-02-15-12:06:17,10.1.1.3,19,0.070,0.070,0.070,0.000,0.000,0.000
1644926777356359936,2022-02-15-12:06:17,10.1.1.3,28,0.060,0.060,0.060,0.000,0.000,0.000
1644926777416389888,2022-02-15-12:06:17,10.1.1.3,38,0.050,0.050,0.050,0.000,0.000,0.000
1644926777456823040,2022-02-15-12:06:17,10.1.1.3,27,0.040,0.040,0.040,0.000,0.000,0.000
1644926777516978944,2022-02-15-12:06:17,10.1.1.3,36,0.030,0.030,0.030,0.000,0.000,0.000
1644926777557310976,2022-02-15-12:06:17,10.1.1.3,25,0.020,0.020,0.020,0.000,0.000,0.000
1644926777616518144,2022-02-15-12:06:17,10.1.1.3,35,0.010,0.010,0.010,0.000,0.000,0.000
1644926777656584960,2022-02-15-12:06:17,10.1.1.3,25,0.000,0.000,0.000,0.000,0.000,0.000
1644926777716349952,2022-02-15-12:06:17,10.1.1.3,34,-0.010,-0.010,-0.010,0.000,0.000,0.000
1644926777757002240,2022-02-15-12:06:17,10.1.1.3,24,-0.020,-0.020,-0.020,0.000,0.000,0.000
1644926777816681984,2022-02-15-12:06:17,10.1.1.3,33,-0.030,-0.030,-0.030,0.000,0.000,0.000
1644926777856560896,2022-02-15-12:06:17,10.1.1.3,22,-0.040,-0.040,-0.040,0.000,0.000,0.000
1644926777916676096,2022-02-15-12:06:17,10.1.1.3,32,-0.050,-0.050,-0.050,0.000,0.000,0.000
1644926777956537856,2022-02-15-12:06:17,10.1.1.3,21,-0.060,-0.060,-0.060,0.000,0.000,0.000
1644926778016573952,2022-02-15-12:06:18,10.1.1.3,30,-0.070,-0.070,-0.070,0.000,0.000,0.000
1644926778056986112,2022-02-15-12:06:18,10.1.1.3,20,-0.080,-0.080,-0.080,0.000,0.000,0.000
1644926778116386816,2022-02-15-12:06:18,10.1.1.3,29,-0.090,-0.090,-0.090,0.000,0.000,0.000
1644926778156748032,2022-02-15-12:06:18,10.1.1.3,18,-0.099,-0.099,-0.099,0.000,0.000,0.000
1644926778216763904,2022-02-15-12:06:18,10.1.1.3,26,-0.090,-0.090,-0.090,0.000,0.000,0.000
1644926778276241152,2022-02-15-12:06:18,10.1.1.3,35,-0.080,-0.080,-0.080,0.000,0.000,0.000
1644926778316783872,2022-02-15-12:06:18,10.1.1.3,25,-0.070,-0.070,-0.070,0.000,0.000,0.000
1644926778376184064,2022-02-15-12:06:18,10.1.1.3,34,-0.060,-0.060,-0.060,0.000,0.000,0.000
1644926778416630016,2022-02-15-12:06:18,10.1.1.3,23,-0.050,-0.050,-0.050,0.000,0.000,0.000
1644926778476568064,2022-02-15-12:06:18,10.1.1.3,32,-0.040,-0.040,-0.040,0.000,0.000,0.000
1644926778516686848,2022-02-15-12:06:18,10.1.1.3,21,-0.030,-0.030,-0.030,0.000,0.000,0.000
1644926778576688128,2022-02-15-12:06:18,10.1.1.3,30,-0.020,-0.020,-0.020,0.000,0.000,0.000
1644926778616471040,2022-02-15-12:06:18,10.1.1.3,19,-0.010,-0.010,-0.010,0.000,0.000,0.000
1644926778676932096,2022-02-15-12:06:18,10.1.1.3,28,0.000,0.000,0.000,0.000,0.000,0.000
1644926778736843008,2022-02-15-12:06:18,10.1.1.3,37,0.010,0.010,0.010,0.000,0.000,0.000
1644926778776652032,2022-02-15-12:06:18,10.1.1.3,26,0.020,0.020,0.020,0.000,0.000,0.000
1644926778836705024,2022-02-15-12:06:18,10.1.1.3,35,0.030,0.030,0.030,0.000,0.000,0.000
1644926778876879872,2022-02-15-12:06:18,10.1.1.3,24,0.040,0.040,0.040,0.000,0.000,0.000
1644926778936830976,2022-02-15-12:06:18,10.1.1.3,33,0.050,0.050,0.050,0.000,0.000,0.000
1644926778976235008,2022-02-15-12:06:18,10.1.1.3,23,0.060,0.060,0.060,0.000,0.000,0.000
1644926779036845056,2022-02-15-12:06:19,10.1.1.3,32,0.070,0.070,0.070,0.000,0.000,0.000
1644926779077424896,2022-02-15-12:06:19,10.1.1.3,22,0.080,0.080,0.080,0.000,0.000,0.000
1644926779136642048,2022-02-15-12:06:19,10.1.1.3,31,0.090,0.090,0.090,0.000,0.000,0.000
1644926779176702976,2022-02-15-12:06:19,10.1.1.3,20,0.100,0.100,0.100,0.000,0.000,0.000
1644926779236735232,2022-02-15-12:06:19,10.1.1.3,29,0.090,0.090,0.090,0.000,0.000,0.000
1644926779277852928,2022-02-15-12:06:19,10.1.1.3,19,0.080,0.080,0.080,0.000,0.000,0.000
1644926779337070080,2022-02-15-12:06:19,10.1.1.3,28,0.070,0.070,0.070,0.000,0.000,0.000
1644926779396465920,2022-02-15-12:06:19,10.1.1.3,37,0.060,0.060,0.060,0.000,0.000,0.000
1644926779436680192,2022-02-15-12:06:19,10.1.1.3,26,0.050,0.050,0.050,0.000,0.000,0.000
1644926779496596992,2022-02-15-12:06:19,10.1.1.3,35,0.040,0.040,0.040,0.000,0.000,0.000
1644926779537095168,2022-02-15-12:06:19,10.1.1.3,25,0.030,0.030,0.030,0.000,0.000,0.000
1644926779596605184,2022-02-15-12:06:19,10.1.1.3,34,0.020,0.020,0.020,0.000,0.000,0.000
1644926779636439040,2022-02-15-12:06:19,10.1.1.3,24,0.010,0.010,0.010,0.000,0.000,0.000
1644926779696242176,2022-02-15-12:06:19,10.1.1.3,33,0.000,0.000,0.000,0.000,0.000,0.000
1644926779736910080,2022-02-15-12:06:19,10.1.1.3,22,-0.010,-0.010,-0.010,0.000,0.000,0.000
1644926779796248832,2022-02-15-12:06:19,10.1.1.3,32,-0.020,-0.020,-0.020,0.000,0.000,0.000
1644926779836514048,2022-02-15-12:06:19,10.1.1.3,21,-0.030,-0.030,-0.030,0.000,0.000,0.000
1644926779896729856,2022-02-15-12:06:19,10.1.1.3,30,-0.040,-0.040,-0.040,0.000,0.000,0.000
1644926779936815104,2022-02-15-12:06:19,10.1.1.3,19,-0.050,-0.050,-0.050,0.000,0.000,0.000
1644926779996795904,2022-02-15-12:06:19,10.1.1.3,29,-0.060,-0.060,-0.060,0.000,0.000,0.000
1644926780103744000,2022-02-15-12:06:20,10.1.1.3,27,-0.080,-0.080,-0.080,0.000,0.000,0.000
1644926780156609024,2022-02-15-12:06:20,10.1.1.3,36,-0.090,-0.090,-0.090,0.000,0.000,0.000
1644926780196734976,2022-02-15-12:06:20,10.1.1.3,25,-0.100,-0.100,-0.100,0.000,0.000,0.000
1644926780256894208,2022-02-15-12:06:20,10.1.1.3,35,-0.090,-0.090,-0.090,0.000,0.000,0.000
1644926780296945152,2022-02-15-12:06:20,10.1.1.3,24,-0.080,-0.080,-0.080,0.000,0.000,0.000
1644926780357058048,2022-02-15-12:06:20,10.1.1.3,33,-0.070,-0.070,-0.070,0.000,0.000,0.000
1644926780396840192,2022-02-15-12:06:20,10.1.1.3,23,-0.060,-0.060,-0.060,0.000,0.000,0.000
1644926780496825088,2022-02-15-12:06:20,10.1.1.3,36,-0.050,-0.050,-0.050,0.000,0.000,0.000
1644926780536539136,2022-02-15-12:06:20,10.1.1.3,24,-0.040,-0.040,-0.040,0.000,0.000,0.000
1644926780596876032,2022-02-15-12:06:20,10.1.1.3,33,-0.030,-0.030,-0.030,0.000,0.000,0.000
1644926780636781056,2022-02-15-12:06:20,10.1.1.3,23,-0.020,-0.020,-0.020,0.000,0.000,0.000
1644926780696686080,2022-02-15-12:06:20,10.1.1.3,32,-0.010,-0.010,-0.010,0.000,0.000,0.000
1644926780737054976,2022-02-15-12:06:20,10.1.1.3,21,0.000,0.000,0.000,0.000,0.000,0.000
1644926780796454912,2022-02-15-12:06:20,10.1.1.3,30,0.010,0.010,0.010,0.000,0.000,0.000
1644926780836560896,2022-02-15-12:06:20,10.1.1.3,19,0.019,0.019,0.019,0.000,0.000,0.000
1644926780896915968,2022-02-15-12:06:20,10.1.1.3,28,0.030,0.030,0.030,0.000,0.000,0.000
1644926780956439040,2022-02-15-12:06:20,10.1.1.3,37,0.040,0.040,0.040,0.000,0.000,0.000
1644926780996786944,2022-02-15-12:06:20,10.1.1.3,26,0.050,0.050,0.050,0.000,0.000,0.000
1644926781056581888,2022-02-15-12:06:21,10.1.1.3,34,0.060,0.060,0.060,0.000,0.000,0.000
1644926781098260992,2022-02-15-12:06:21,10.1.1.3,23,0.070,0.070,0.070,0.000,0.000,0.000
1644926781156400896,2022-02-15-12:06:21,10.1.1.3,32,0.080,0.080,0.080,0.000,0.000,0.000
1644926781196507904,2022-02-15-12:06:21,10.1.1.3,20,0.090,0.090,0.090,0.000,0.000,0.000
1644926781256232960,2022-02-15-12:06:21,10.1.1.3,29,0.100,0.100,0.100,0.000,0.000,0.000
1644926781317416960,2022-02-15-12:06:21,10.1.1.3,37,0.090,0.090,0.090,0.000,0.000,0.000
1644926781356600064,2022-02-15-12:06:21,10.1.1.3,25,0.080,0.080,0.080,0.000,0.000,0.000
1644926781417241088,2022-02-15-12:06:21,10.1.1.3,35,0.070,0.070,0.070,0.000,0.000,0.000
1644926781457789952,2022-02-15-12:06:21,10.1.1.3,23,0.060,0.060,0.060,0.000,0.000,0.000
1644926781516644864,2022-02-15-12:06:21,10.1.1.3,25,0.050,0.050,0.050,0.000,0.000,0.000
1644926781677458944,2022-02-15-12:06:21,10.1.1.3,25,0.020,0.020,0.020,0.000,0.000,0.000
1644926781746445824,2022-02-15-12:06:21,10.1.1.3,34,0.010,0.010,0.010,0.000,0.000,0.000
1644926781778307072,2022-02-15-12:06:21,10.1.1.3,22,0.000,0.000,0.000,0.000,0.000,0.000
1644926781837735936,2022-02-15-12:06:21,10.1.1.3,32,-0.010,-0.010,-0.010,0.000,0.000,0.000
1644926781876625152,2022-02-15-12:06:21,10.1.1.3,21,-0.020,-0.020,-0.020,0.000,0.000,0.000
1644926781937176064,2022-02-15-12:06:21,10.1.1.3,30,-0.030,-0.030,-0.030,0.000,0.000,0.000
1644926781976969984,2022-02-15-12:06:21,10.1.1.3,19,-0.040,-0.040,-0.040,0.000,0.000,0.000
1644926782037172992,2022-02-15-12:06:22,10.1.1.3,29,-0.050,-0.050,-0.050,0.000,0.000,0.000
1644926782096620032,2022-02-15-12:06:22,10.1.1.3,37,-0.060,-0.060,-0.060,0.000,0.000,0.000
1644926782136962048,2022-02-15-12:06:22,10.1.1.3,26,-0.070,-0.070,-0.070,0.000,0.000,0.000
1644926782196995072,2022-02-15-12:06:22,10.1.1.3,35,-0.080,-0.080,-0.080,0.000,0.000,0.000
1644926782237566976,2022-02-15-12:06:22,10.1.1.3,24,-0.090,-0.090,-0.090,0.000,0.000,0.000
1644926782297308928,2022-02-15-12:06:22,10.1.1.3,34,-0.100,-0.100,-0.100,0.000,0.000,0.000
1644926782336393216,2022-02-15-12:06:22,10.1.1.3,23,-0.090,-0.090,-0.090,0.000,0.000,0.000
1644926782396857088,2022-02-15-12:06:22,10.1.1.3,32,-0.080,-0.080,-0.080,0.000,0.000,0.000
1644926782436451840,2022-02-15-12:06:22,10.1.1.3,22,-0.070,-0.070,-0.070,0.000,0.000,0.000
1644926782497243904,2022-02-15-12:06:22,10.1.1.3,30,-0.060,-0.060,-0.060,0.000,0.000,0.000
1644926782537296896,2022-02-15-12:06:22,10.1.1.3,19,-0.050,-0.050,-0.050,0.000,0.000,0.000
1644926782597257984,2022-02-15-12:06:22,10.1.1.3,29,-0.040,-0.040,-0.040,0.000,0.000,0.000
1644926782657043968,2022-02-15-12:06:22,10.1.1.3,38,-0.030,-0.030,-0.030,0.000,0.000,0.000
1644926782696695040,2022-02-15-12:06:22,10.1.1.3,27,-0.020,-0.020,-0.020,0.000,0.000,0.000
1644926782756712960,2022-02-15-12:06:22,10.1.1.3,36,-0.010,-0.010,-0.010,0.000,0.000,0.000
1644926782796590080,2022-02-15-12:06:22,10.1.1.3,25,0.000,0.000,0.000,0.000,0.000,0.000
1644926782856782848,2022-02-15-12:06:22,10.1.1.3,34,0.010,0.010,0.010,0.000,0.000,0.000
1644926782896975872,2022-02-15-12:06:22,10.1.1.3,19,0.020,0.020,0.020,0.000,0.000,0.000
1644926782957277184,2022-02-15-12:06:22,10.1.1.3,28,0.030,0.030,0.030,0.000,0.000,0.000
1644926783016647936,2022-02-15-12:06:23,10.1.1.3,38,0.040,0.040,0.040,0.000,0.000,0.000
1644926783056952832,2022-02-15-12:06:23,10.1.1.3,27,0.050,0.050,0.050,0.000,0.000,0.000
1644926783116731904,2022-02-15-12:06:23,10.1.1.3,36,0.060,0.060,0.060,0.000,0.000,0.000
1644926783157193984,2022-02-15-12:06:23,10.1.1.3,25,0.070,0.070,0.070,0.000,0.000,0.000
1644926783216593152,2022-02-15-12:06:23,10.1.1.3,35,0.080,0.080,0.080,0.000,0.000,0.000
1644926783257186816,2022-02-15-12:06:23,10.1.1.3,24,0.090,0.090,0.090,0.000,0.000,0.000
1644926783317213184,2022-02-15-12:06:23,10.1.1.3,33,0.100,0.100,0.100,0.000,0.000,0.000
1644926783356385024,2022-02-15-12:06:23,10.1.1.3,22,0.090,0.090,0.090,0.000,0.000,0.000
1644926783416968960,2022-02-15-12:06:23,10.1.1.3,31,0.080,0.080,0.080,0.000,0.000,0.000
1644926783457054976,2022-02-15-12:06:23,10.1.1.3,21,0.070,0.070,0.070,0.000,0.000,0.000
1644926783517394944,2022-02-15-12:06:23,10.1.1.3,30,0.060,0.060,0.060,0.000,0.000,0.000
1644926783558187008,2022-02-15-12:06:23,10.1.1.3,20,0.050,0.050,0.050,0.000,0.000,0.000
1644926783616801024,2022-02-15-12:06:23,10.1.1.3,28,0.040,0.040,0.040,0.000,0.000,0.000
1644926783676685056,2022-02-15-12:06:23,10.1.1.3,38,0.030,0.030,0.030,0.000,0.000,0.000
1644926783716291840,2022-02-15-12:06:23,10.1.1.3,26,0.020,0.020,0.020,0.000,0.000,0.000
1644926783776941056,2022-02-15-12:06:23,10.1.1.3,34,0.010,0.010,0.010,0.000,0.000,0.000
1644926783816855808,2022-02-15-12:06:23,10.1.1.3,23,0.000,0.000,0.000,0.000,0.000,0.000
1644926783876688128,2022-02-15-12:06:23,10.1.1.3,32,-0.010,-0.010,-0.010,0.000,0.000,0.000
1644926783917856000,2022-02-15-12:06:23,10.1.1.3,21,-0.020,-0.020,-0.020,0.000,0.000,0.000
1644926783976823040,2022-02-15-12:06:23,10.1.1.3,30,-0.030,-0.030,-0.030,0.000,0.000,0.000
1644926784036977920,2022-02-15-12:06:24,10.1.1.3,38,-0.040,-0.040,-0.040,0.000,0.000,0.000
1644926784076965120,2022-02-15-12:06:24,10.1.1.3,27,-0.050,-0.050,-0.050,0.000,0.000,0.000
1644926784136545024,2022-02-15-12:06:24,10.1.1.3,36,-0.060,-0.060,-0.060,0.000,0.000,0.000
1644926784177153024,2022-02-15-12:06:24,10.1.1.3,26,-0.070,-0.070,-0.070,0.000,0.000,0.000
1644926784237323008,2022-02-15-12:06:24,10.1.1.3,34,-0.080,-0.080,-0.080,0.000,0.000,0.000
1644926784276933888,2022-02-15-12:06:24,10.1.1.3,23,-0.090,-0.090,-0.090,0.000,0.000,0.000
1644926784337254912,2022-02-15-12:06:24,10.1.1.3,32,-0.100,-0.100,-0.100,0.000,0.000,0.000
1644926784376528896,2022-02-15-12:06:24,10.1.1.3,21,-0.090,-0.090,-0.090,0.000,0.000,0.000
1644926784437181952,2022-02-15-12:06:24,10.1.1.3,30,-0.080,-0.080,-0.080,0.000,0.000,0.000
1644926784477664000,2022-02-15-12:06:24,10.1.1.3,20,-0.070,-0.070,-0.070,0.000,0.000,0.000
1644926784537859840,2022-02-15-12:06:24,10.1.1.3,29,-0.060,-0.060,-0.060,0.000,0.000,0.000
1644926784597088000,2022-02-15-12:06:24,10.1.1.3,38,-0.050,-0.050,-0.050,0.000,0.000,0.000
1644926784636732928,2022-02-15-12:06:24,10.1.1.3,27,-0.040,-0.040,-0.040,0.000,0.000,0.000
1644926784697724160,2022-02-15-12:06:24,10.1.1.3,37,-0.030,-0.030,-0.030,0.000,0.000,0.000
1644926784737570048,2022-02-15-12:06:24,10.1.1.3,26,-0.020,-0.020,-0.020,0.000,0.000,0.000
1644926784796758016,2022-02-15-12:06:24,10.1.1.3,34,-0.010,-0.010,-0.010,0.000,0.000,0.000
1644926784838539008,2022-02-15-12:06:24,10.1.1.3,23,0.000,0.000,0.000,0.000,0.000,0.000
1644926784898279936,2022-02-15-12:06:24,10.1.1.3,32,0.010,0.010,0.010,0.000,0.000,0.000
1644926784939204096,2022-02-15-12:06:24,10.1.1.3,21,0.020,0.020,0.020,0.000,0.000,0.000
1644926784997228032,2022-02-15-12:06:24,10.1.1.3,29,0.030,0.030,0.030,0.000,0.000,0.000
1644926785059052032,2022-02-15-12:06:25,10.1.1.3,37,0.040,0.040,0.040,0.000,0.000,0.000
1644926785096832000,2022-02-15-12:06:25,10.1.1.3,25,0.050,0.050,0.050,0.000,0.000,0.000
1644926785157074944,2022-02-15-12:06:25,10.1.1.3,33,0.060,0.060,0.060,0.000,0.000,0.000
1644926785197263104,2022-02-15-12:06:25,10.1.1.3,21,0.070,0.070,0.070,0.000,0.000,0.000
1644926785256972032,2022-02-15-12:06:25,10.1.1.3,30,0.080,0.080,0.080,0.000,0.000,0.000
1644926785299674112,2022-02-15-12:06:25,10.1.1.3,19,0.089,0.089,0.089,0.000,0.000,0.000
1644926785356848896,2022-02-15-12:06:25,10.1.1.3,28,0.100,0.100,0.100,0.000,0.000,0.000
1644926785416460032,2022-02-15-12:06:25,10.1.1.3,38,0.090,0.090,0.090,0.000,0.000,0.000
1644926785456450048,2022-02-15-12:06:25,10.1.1.3,27,0.080,0.080,0.080,0.000,0.000,0.000
1644926785518009856,2022-02-15-12:06:25,10.1.1.3,34,0.070,0.070,0.070,0.000,0.000,0.000
1644926785556605184,2022-02-15-12:06:25,10.1.1.3,22,0.060,0.060,0.060,0.000,0.000,0.000
1644926785617330176,2022-02-15-12:06:25,10.1.1.3,32,0.050,0.050,0.050,0.000,0.000,0.000
1644926785657012992,2022-02-15-12:06:25,10.1.1.3,21,0.040,0.040,0.040,0.000,0.000,0.000
1644926785717076992,2022-02-15-12:06:25,10.1.1.3,30,0.030,0.030,0.030,0.000,0.000,0.000
1644926785757356800,2022-02-15-12:06:25,10.1.1.3,18,0.021,0.021,0.021,0.000,0.000,0.000
1644926785816845056,2022-02-15-12:06:25,10.1.1.3,28,0.010,0.010,0.010,0.000,0.000,0.000
1644926785876300032,2022-02-15-12:06:25,10.1.1.3,37,0.000,0.000,0.000,0.000,0.000,0.000
1644926785916454144,2022-02-15-12:06:25,10.1.1.3,26,-0.010,-0.010,-0.010,0.000,0.000,0.000
1644926785976771072,2022-02-15-12:06:25,10.1.1.3,35,-0.020,-0.020,-0.020,0.000,0.000,0.000
1644926786016205056,2022-02-15-12:06:26,10.1.1.3,25,-0.030,-0.030,-0.030,0.000,0.000,0.000
1644926786076843008,2022-02-15-12:06:26,10.1.1.3,34,-0.040,-0.040,-0.040,0.000,0.000,0.000
1644926786116545024,2022-02-15-12:06:26,10.1.1.3,24,-0.050,-0.050,-0.050,0.000,0.000,0.000
1644926786176912128,2022-02-15-12:06:26,10.1.1.3,34,-0.060,-0.060,-0.060,0.000,0.000,0.000
1644926786216913920,2022-02-15-12:06:26,10.1.1.3,23,-0.070,-0.070,-0.070,0.000,0.000,0.000
1644926786276839936,2022-02-15-12:06:26,10.1.1.3,32,-0.080,-0.080,-0.080,0.000,0.000,0.000
1644926786316569088,2022-02-15-12:06:26,10.1.1.3,22,-0.090,-0.090,-0.090,0.000,0.000,0.000
1644926786377137920,2022-02-15-12:06:26,10.1.1.3,31,-0.100,-0.100,-0.100,0.000,0.000,0.000
1644926786416282880,2022-02-15-12:06:26,10.1.1.3,21,-0.090,-0.090,-0.090,0.000,0.000,0.000
1644926786477170944,2022-02-15-12:06:26,10.1.1.3,30,-0.080,-0.080,-0.080,0.000,0.000,0.000
1644926786516486912,2022-02-15-12:06:26,10.1.1.3,20,-0.070,-0.070,-0.070,0.000,0.000,0.000
1644926786576423936,2022-02-15-12:06:26,10.1.1.3,29,-0.060,-0.060,-0.060,0.000,0.000,0.000
1644926786616899840,2022-02-15-12:06:26,10.1.1.3,19,-0.051,-0.051,-0.051,0.000,0.000,0.000
1644926786676360960,2022-02-15-12:06:26,10.1.1.3,28,-0.040,-0.040,-0.040,0.000,0.000,0.000
1644926786736982016,2022-02-15-12:06:26,10.1.1.3,38,-0.030,-0.030,-0.030,0.000,0.000,0.000
1644926786776922880,2022-02-15-12:06:26,10.1.1.3,27,-0.020,-0.020,-0.020,0.000,0.000,0.000
1644926786837135104,2022-02-15-12:06:26,10.1.1.3,37,-0.010,-0.010,-0.010,0.000,0.000,0.000
1644926786876369920,2022-02-15-12:06:26,10.1.1.3,26,0.000,0.000,0.000,0.000,0.000,0.000
1644926786936839168,2022-02-15-12:06:26,10.1.1.3,36,0.010,0.010,0.010,0.000,0.000,0.000
1644926786976716032,2022-02-15-12:06:26,10.1.1.3,26,0.020,0.020,0.020,0.000,0.000,0.000
1644926787036918016,2022-02-15-12:06:27,10.1.1.3,36,0.030,0.030,0.030,0.000,0.000,0.000
1644926787076556800,2022-02-15-12:06:27,10.1.1.3,24,0.040,0.040,0.040,0.000,0.000,0.000
1644926787137068032,2022-02-15-12:06:27,10.1.1.3,34,0.050,0.050,0.050,0.000,0.000,0.000
1644926787176376064,2022-02-15-12:06:27,10.1.1.3,23,0.060,0.060,0.060,0.000,0.000,0.000
1644926787236280832,2022-02-15-12:06:27,10.1.1.3,32,0.070,0.070,0.070,0.000,0.000,0.000
1644926787276370944,2022-02-15-12:06:27,10.1.1.3,22,0.080,0.080,0.080,0.000,0.000,0.000
1644926787336535808,2022-02-15-12:06:27,10.1.1.3,32,0.090,0.090,0.090,0.000,0.000,0.000
1644926787376909056,2022-02-15-12:06:27,10.1.1.3,21,0.100,0.100,0.100,0.000,0.000,0.000
1644926787436539904,2022-02-15-12:06:27,10.1.1.3,31,0.090,0.090,0.090,0.000,0.000,0.000
1644926787476738048,2022-02-15-12:06:27,10.1.1.3,20,0.080,0.080,0.080,0.000,0.000,0.000
1644926787536508928,2022-02-15-12:06:27,10.1.1.3,29,0.070,0.070,0.070,0.000,0.000,0.000
1644926787576841216,2022-02-15-12:06:27,10.1.1.3,19,0.060,0.060,0.060,0.000,0.000,0.000
1644926787637885184,2022-02-15-12:06:27,10.1.1.3,29,0.050,0.050,0.050,0.000,0.000,0.000
1644926787696146944,2022-02-15-12:06:27,10.1.1.3,38,0.040,0.040,0.040,0.000,0.000,0.000
1644926787736631040,2022-02-15-12:06:27,10.1.1.3,28,0.030,0.030,0.030,0.000,0.000,0.000
1644926787796647936,2022-02-15-12:06:27,10.1.1.3,37,0.020,0.020,0.020,0.000,0.000,0.000
1644926787836244992,2022-02-15-12:06:27,10.1.1.3,26,0.010,0.010,0.010,0.000,0.000,0.000
1644926787897047040,2022-02-15-12:06:27,10.1.1.3,35,0.000,0.000,0.000,0.000,0.000,0.000
1644926787937256960,2022-02-15-12:06:27,10.1.1.3,25,-0.010,-0.010,-0.010,0.000,0.000,0.000
1644926787996694016,2022-02-15-12:06:27,10.1.1.3,34,-0.020,-0.020,-0.020,0.000,0.000,0.000
1644926788036665088,2022-02-15-12:06:28,10.1.1.3,24,-0.030,-0.030,-0.030,0.000,0.000,0.000
1644926788096750080,2022-02-15-12:06:28,10.1.1.3,33,-0.040,-0.040,-0.040,0.000,0.000,0.000
1644926788137120000,2022-02-15-12:06:28,10.1.1.3,23,-0.050,-0.050,-0.050,0.000,0.000,0.000
1644926788196624128,2022-02-15-12:06:28,10.1.1.3,33,-0.060,-0.060,-0.060,0.000,0.000,0.000
1644926788236805888,2022-02-15-12:06:28,10.1.1.3,22,-0.070,-0.070,-0.070,0.000,0.000,0.000
1644926788296583936,2022-02-15-12:06:28,10.1.1.3,31,-0.080,-0.080,-0.080,0.000,0.000,0.000
1644926788336582912,2022-02-15-12:06:28,10.1.1.3,21,-0.090,-0.090,-0.090,0.000,0.000,0.000
1644926788396609024,2022-02-15-12:06:28,10.1.1.3,30,-0.100,-0.100,-0.100,0.000,0.000,0.000
1644926788437336832,2022-02-15-12:06:28,10.1.1.3,20,-0.090,-0.090,-0.090,0.000,0.000,0.000
1644926788496314112,2022-02-15-12:06:28,10.1.1.3,30,-0.080,-0.080,-0.080,0.000,0.000,0.000
1644926788536553984,2022-02-15-12:06:28,10.1.1.3,19,-0.070,-0.070,-0.070,0.000,0.000,0.000
1644926788596803072,2022-02-15-12:06:28,10.1.1.3,29,-0.060,-0.060,-0.060,0.000,0.000,0.000
1644926788656228096,2022-02-15-12:06:28,10.1.1.3,38,-0.050,-0.050,-0.050,0.000,0.000,0.000
1644926788696749056,2022-02-15-12:06:28,10.1.1.3,27,-0.040,-0.040,-0.040,0.000,0.000,0.000
1644926788756320000,2022-02-15-12:06:28,10.1.1.3,37,-0.030,-0.030,-0.030,0.000,0.000,0.000
1644926788796472064,2022-02-15-12:06:28,10.1.1.3,26,-0.020,-0.020,-0.020,0.000,0.000,0.000
1644926788856816896,2022-02-15-12:06:28,10.1.1.3,36,-0.010,-0.010,-0.010,0.000,0.000,0.000
1644926788896950016,2022-02-15-12:06:28,10.1.1.3,25,0.000,0.000,0.000,0.000,0.000,0.000
1644926788957160960,2022-02-15-12:06:28,10.1.1.3,35,0.010,0.010,0.010,0.000,0.000,0.000
1644926788996606976,2022-02-15-12:06:28,10.1.1.3,25,0.020,0.020,0.020,0.000,0.000,0.000
1644926789056623104,2022-02-15-12:06:29,10.1.1.3,34,0.030,0.030,0.030,0.000,0.000,0.000
1644926789097024000,2022-02-15-12:06:29,10.1.1.3,23,0.040,0.040,0.040,0.000,0.000,0.000
1644926789156756992,2022-02-15-12:06:29,10.1.1.3,33,0.050,0.050,0.050,0.000,0.000,0.000
1644926789196811008,2022-02-15-12:06:29,10.1.1.3,22,0.060,0.060,0.060,0.000,0.000,0.000
1644926789256807168,2022-02-15-12:06:29,10.1.1.3,32,0.070,0.070,0.070,0.000,0.000,0.000
1644926789297300224,2022-02-15-12:06:29,10.1.1.3,21,0.080,0.080,0.080,0.000,0.000,0.000
1644926789357018112,2022-02-15-12:06:29,10.1.1.3,30,0.090,0.090,0.090,0.000,0.000,0.000
1644926789396728064,2022-02-15-12:06:29,10.1.1.3,20,0.100,0.100,0.100,0.000,0.000,0.000
1644926789456867072,2022-02-15-12:06:29,10.1.1.3,29,0.090,0.090,0.090,0.000,0.000,0.000
1644926789496506880,2022-02-15-12:06:29,10.1.1.3,19,0.081,0.081,0.081,0.000,0.000,0.000
1644926789556765184,2022-02-15-12:06:29,10.1.1.3,29,0.070,0.070,0.070,0.000,0.000,0.000
1644926789616349952,2022-02-15-12:06:29,10.1.1.3,38,0.060,0.060,0.060,0.000,0.000,0.000
1644926789656435968,2022-02-15-12:06:29,10.1.1.3,28,0.050,0.050,0.050,0.000,0.000,0.000
1644926789716312832,2022-02-15-12:06:29,10.1.1.3,37,0.040,0.040,0.040,0.000,0.000,0.000
1644926789756089856,2022-02-15-12:06:29,10.1.1.3,26,0.030,0.030,0.030,0.000,0.000,0.000
1644926789816977920,2022-02-15-12:06:29,10.1.1.3,36,0.020,0.020,0.020,0.000,0.000,0.000
1644926789856598016,2022-02-15-12:06:29,10.1.1.3,25,0.010,0.010,0.010,0.000,0.000,0.000
1644926789916852992,2022-02-15-12:06:29,10.1.1.3,35,0.000,0.000,0.000,0.000,0.000,0.000
1644926789956770816,2022-02-15-12:06:29,10.1.1.3,24,-0.010,-0.010,-0.010,0.000,0.000,0.000
1644926790016381952,2022-02-15-12:06:30,10.1.1.3,33,-0.020,-0.020,-0.020,0.000,0.000,0.000
1644926790057065984,2022-02-15-12:06:30,10.1.1.3,23,-0.030,-0.030,-0.030,0.000,0.000,0.000
1644926790116604928,2022-02-15-12:06:30,10.1.1.3,33,-0.040,-0.040,-0.040,0.000,0.000,0.000
1644926790156953088,2022-02-15-12:06:30,10.1.1.3,21,-0.050,-0.050,-0.050,0.000,0.000,0.000
1644926790216759808,2022-02-15-12:06:30,10.1.1.3,31,-0.060,-0.060,-0.060,0.000,0.000,0.000
1644926790256966144,2022-02-15-12:06:30,10.1.1.3,20,-0.070,-0.070,-0.070,0.000,0.000,0.000
1644926790316961024,2022-02-15-12:06:30,10.1.1.3,29,-0.080,-0.080,-0.080,0.000,0.000,0.000
1644926790376658944,2022-02-15-12:06:30,10.1.1.3,38,-0.090,-0.090,-0.090,0.000,0.000,0.000
1644926790416384000,2022-02-15-12:06:30,10.1.1.3,27,-0.100,-0.100,-0.100,0.000,0.000,0.000
1644926790476538880,2022-02-15-12:06:30,10.1.1.3,37,-0.090,-0.090,-0.090,0.000,0.000,0.000
1644926790516557056,2022-02-15-12:06:30,10.1.1.3,26,-0.080,-0.080,-0.080,0.000,0.000,0.000
1644926790576456960,2022-02-15-12:06:30,10.1.1.3,36,-0.070,-0.070,-0.070,0.000,0.000,0.000
1644926790616755968,2022-02-15-12:06:30,10.1.1.3,25,-0.060,-0.060,-0.060,0.000,0.000,0.000
1644926790677138176,2022-02-15-12:06:30,10.1.1.3,34,-0.050,-0.050,-0.050,0.000,0.000,0.000
1644926790716538880,2022-02-15-12:06:30,10.1.1.3,24,-0.040,-0.040,-0.040,0.000,0.000,0.000
1644926790776813056,2022-02-15-12:06:30,10.1.1.3,34,-0.030,-0.030,-0.030,0.000,0.000,0.000
1644926790817306112,2022-02-15-12:06:30,10.1.1.3,23,-0.020,-0.020,-0.020,0.000,0.000,0.000
1644926790877017088,2022-02-15-12:06:30,10.1.1.3,33,-0.010,-0.010,-0.010,0.000,0.000,0.000
1644926790916534016,2022-02-15-12:06:30,10.1.1.3,22,0.000,0.000,0.000,0.000,0.000,0.000
1644926790976304128,2022-02-15-12:06:30,10.1.1.3,32,0.010,0.010,0.010,0.000,0.000,0.000
1644926791016822016,2022-02-15-12:06:31,10.1.1.3,21,0.020,0.020,0.020,0.000,0.000,0.000
1644926791076983808,2022-02-15-12:06:31,10.1.1.3,31,0.030,0.030,0.030,0.000,0.000,0.000
1644926791116400896,2022-02-15-12:06:31,10.1.1.3,20,0.040,0.040,0.040,0.000,0.000,0.000
1644926791176583168,2022-02-15-12:06:31,10.1.1.3,30,0.050,0.050,0.050,0.000,0.000,0.000
1644926791216574976,2022-02-15-12:06:31,10.1.1.3,19,0.060,0.060,0.060,0.000,0.000,0.000
1644926791276444928,2022-02-15-12:06:31,10.1.1.3,29,0.070,0.070,0.070,0.000,0.000,0.000
1644926791336483072,2022-02-15-12:06:31,10.1.1.3,38,0.080,0.080,0.080,0.000,0.000,0.000
1644926791376715776,2022-02-15-12:06:31,10.1.1.3,28,0.090,0.090,0.090,0.000,0.000,0.000
1644926791436808960,2022-02-15-12:06:31,10.1.1.3,38,0.100,0.100,0.100,0.000,0.000,0.000
1644926791477039104,2022-02-15-12:06:31,10.1.1.3,27,0.090,0.090,0.090,0.000,0.000,0.000
1644926791536734976,2022-02-15-12:06:31,10.1.1.3,37,0.080,0.080,0.080,0.000,0.000,0.000
1644926791576716800,2022-02-15-12:06:31,10.1.1.3,26,0.070,0.070,0.070,0.000,0.000,0.000
1644926791636527104,2022-02-15-12:06:31,10.1.1.3,36,0.060,0.060,0.060,0.000,0.000,0.000
1644926791676582144,2022-02-15-12:06:31,10.1.1.3,25,0.050,0.050,0.050,0.000,0.000,0.000
1644926791798561024,2022-02-15-12:06:31,10.1.1.3,20,0.030,0.030,0.030,0.000,0.000,0.000
1644926791856785920,2022-02-15-12:06:31,10.1.1.3,29,0.020,0.020,0.020,0.000,0.000,0.000
1644926791903121920,2022-02-15-12:06:31,10.1.1.3,21,0.010,0.010,0.010,0.000,0.000,0.000
1644926791965099008,2022-02-15-12:06:31,10.1.1.3,29,0.000,0.000,0.000,0.000,0.000,0.000
1644926792258370048,2022-02-15-12:06:32,10.1.1.3,23,-0.060,-0.060,-0.060,0.000,0.000,0.000
1644926792317945856,2022-02-15-12:06:32,10.1.1.3,32,-0.070,-0.070,-0.070,0.000,0.000,0.000
1644926792357518080,2022-02-15-12:06:32,10.1.1.3,21,-0.080,-0.080,-0.080,0.000,0.000,0.000
1644926792417908992,2022-02-15-12:06:32,10.1.1.3,30,-0.090,-0.090,-0.090,0.000,0.000,0.000
1644926792459072000,2022-02-15-12:06:32,10.1.1.3,20,-0.100,-0.100,-0.100,0.000,0.000,0.000
1644926792519851008,2022-02-15-12:06:32,10.1.1.3,29,-0.090,-0.090,-0.090,0.000,0.000,0.000
1644926792696520192,2022-02-15-12:06:32,10.1.1.3,30,-0.060,-0.060,-0.060,0.000,0.000,0.000
1644926792744782080,2022-02-15-12:06:32,10.1.1.3,23,-0.051,-0.051,-0.051,0.000,0.000,0.000
1644926792805710080,2022-02-15-12:06:32,10.1.1.3,31,-0.040,-0.040,-0.040,0.000,0.000,0.000
