FedericoMungari/DigitalTwin_service/01_WiredScenario/Output/Output_script/script_rosapi_2_output_robots8_freq0_3.txt
timestamp,date,node,latency,joint_1,joint_2,joint_3,joint_4,joint_5,joint_6
1644350894901544960,2022-02-08-20:08:14,10.1.1.4,-8,-0.100,-0.100,-0.100,0.000,-0.000,0.000
1644350895041698816,2022-02-08-20:08:15,10.1.1.4,31,-0.090,-0.090,-0.090,0.000,0.000,0.000
1644350895140696064,2022-02-08-20:08:15,10.1.1.4,30,-0.080,-0.080,-0.080,0.000,0.000,0.000
1644350895241560832,2022-02-08-20:08:15,10.1.1.4,29,-0.070,-0.070,-0.070,0.000,0.000,0.000
1644350895340996864,2022-02-08-20:08:15,10.1.1.4,29,-0.060,-0.060,-0.060,0.000,0.000,0.000
1644350895441396992,2022-02-08-20:08:15,10.1.1.4,28,-0.050,-0.050,-0.050,0.000,0.000,0.000
1644350895543531008,2022-02-08-20:08:15,10.1.1.4,28,-0.040,-0.040,-0.040,0.000,0.000,0.000
1644350895641577984,2022-02-08-20:08:15,10.1.1.4,24,-0.030,-0.030,-0.030,0.000,0.000,0.000
1644350895741750016,2022-02-08-20:08:15,10.1.1.4,23,-0.020,-0.020,-0.020,0.000,0.000,0.000
1644350895841609984,2022-02-08-20:08:15,10.1.1.4,23,-0.010,-0.010,-0.010,0.000,0.000,0.000
1644350895940592128,2022-02-08-20:08:15,10.1.1.4,22,0.000,0.000,0.000,0.000,0.000,0.000
1644350896042803968,2022-02-08-20:08:16,10.1.1.4,22,0.010,0.010,0.010,0.000,0.000,0.000
1644350896141537024,2022-02-08-20:08:16,10.1.1.4,21,0.020,0.020,0.020,0.000,0.000,0.000
1644350896241859840,2022-02-08-20:08:16,10.1.1.4,21,0.030,0.030,0.030,0.000,0.000,0.000
1644350896343107072,2022-02-08-20:08:16,10.1.1.4,20,0.040,0.040,0.040,0.000,0.000,0.000
1644350896441606144,2022-02-08-20:08:16,10.1.1.4,19,0.049,0.049,0.049,0.000,0.000,0.000
1644350896562793984,2022-02-08-20:08:16,10.1.1.4,38,0.060,0.060,0.060,0.000,0.000,0.000
1644350896662524928,2022-02-08-20:08:16,10.1.1.4,38,0.070,0.070,0.070,0.000,0.000,0.000
1644350896762505984,2022-02-08-20:08:16,10.1.1.4,37,0.080,0.080,0.080,0.000,0.000,0.000
1644350896862982144,2022-02-08-20:08:16,10.1.1.4,36,0.090,0.090,0.090,0.000,0.000,0.000
1644350896962848000,2022-02-08-20:08:16,10.1.1.4,36,0.100,0.100,0.100,0.000,0.000,0.000
1644350897062177792,2022-02-08-20:08:17,10.1.1.4,34,0.090,0.090,0.090,0.000,0.000,0.000
1644350897161808896,2022-02-08-20:08:17,10.1.1.4,33,0.080,0.080,0.080,0.000,0.000,0.000
1644350897261926912,2022-02-08-20:08:17,10.1.1.4,33,0.070,0.070,0.070,0.000,0.000,0.000
1644350897362183936,2022-02-08-20:08:17,10.1.1.4,29,0.060,0.060,0.060,0.000,0.000,0.000
1644350897461259008,2022-02-08-20:08:17,10.1.1.4,28,0.050,0.050,0.050,0.000,0.000,0.000
1644350897561111808,2022-02-08-20:08:17,10.1.1.4,27,0.040,0.040,0.040,0.000,0.000,0.000
1644350897661693952,2022-02-08-20:08:17,10.1.1.4,27,0.030,0.030,0.030,0.000,0.000,0.000
1644350897761233152,2022-02-08-20:08:17,10.1.1.4,27,0.020,0.020,0.020,0.000,0.000,0.000
1644350897863127040,2022-02-08-20:08:17,10.1.1.4,26,0.010,0.010,0.010,0.000,0.000,0.000
1644350897961105152,2022-02-08-20:08:17,10.1.1.4,25,0.000,0.000,0.000,0.000,0.000,0.000
1644350898061454080,2022-02-08-20:08:18,10.1.1.4,25,-0.010,-0.010,-0.010,0.000,0.000,0.000
1644350898164217856,2022-02-08-20:08:18,10.1.1.4,23,-0.020,-0.020,-0.020,0.000,0.000,0.000
1644350898262533888,2022-02-08-20:08:18,10.1.1.4,22,-0.030,-0.030,-0.030,0.000,0.000,0.000
1644350898361740032,2022-02-08-20:08:18,10.1.1.4,21,-0.040,-0.040,-0.040,0.000,0.000,0.000
1644350898462540032,2022-02-08-20:08:18,10.1.1.4,21,-0.050,-0.050,-0.050,0.000,0.000,0.000
1644350898562993920,2022-02-08-20:08:18,10.1.1.4,19,-0.060,-0.060,-0.060,0.000,0.000,0.000
1644350898683633152,2022-02-08-20:08:18,10.1.1.4,38,-0.070,-0.070,-0.070,0.000,0.000,0.000
1644350898782301952,2022-02-08-20:08:18,10.1.1.4,38,-0.080,-0.080,-0.080,0.000,0.000,0.000
1644350898881614080,2022-02-08-20:08:18,10.1.1.4,36,-0.090,-0.090,-0.090,0.000,0.000,0.000
1644350898983683072,2022-02-08-20:08:18,10.1.1.4,35,-0.100,-0.100,-0.100,0.000,0.000,0.000
1644350899085190912,2022-02-08-20:08:19,10.1.1.4,33,-0.090,-0.090,-0.090,0.000,0.000,0.000
1644350899181530112,2022-02-08-20:08:19,10.1.1.4,32,-0.080,-0.080,-0.080,0.000,0.000,0.000
1644350899282031104,2022-02-08-20:08:19,10.1.1.4,31,-0.070,-0.070,-0.070,0.000,0.000,0.000
1644350899382324992,2022-02-08-20:08:19,10.1.1.4,29,-0.060,-0.060,-0.060,0.000,0.000,0.000
1644350899482241024,2022-02-08-20:08:19,10.1.1.4,27,-0.050,-0.050,-0.050,0.000,0.000,0.000
1644350899581705216,2022-02-08-20:08:19,10.1.1.4,27,-0.040,-0.040,-0.040,0.000,0.000,0.000
1644350899682514944,2022-02-08-20:08:19,10.1.1.4,26,-0.030,-0.030,-0.030,0.000,0.000,0.000
1644350899781910784,2022-02-08-20:08:19,10.1.1.4,25,-0.020,-0.020,-0.020,0.000,0.000,0.000
1644350899880867072,2022-02-08-20:08:19,10.1.1.4,22,-0.010,-0.010,-0.010,0.000,0.000,0.000
1644350899981267968,2022-02-08-20:08:19,10.1.1.4,21,0.000,0.000,0.000,0.000,0.000,0.000
1644350900080926976,2022-02-08-20:08:20,10.1.1.4,21,0.010,0.010,0.010,0.000,0.000,0.000
1644350900181670912,2022-02-08-20:08:20,10.1.1.4,19,0.019,0.019,0.019,0.000,0.000,0.000
1644350900302476800,2022-02-08-20:08:20,10.1.1.4,37,0.030,0.030,0.030,0.000,0.000,0.000
1644350900401331968,2022-02-08-20:08:20,10.1.1.4,36,0.040,0.040,0.040,0.000,0.000,0.000
1644350900500754944,2022-02-08-20:08:20,10.1.1.4,34,0.050,0.050,0.050,0.000,0.000,0.000
1644350900601366016,2022-02-08-20:08:20,10.1.1.4,33,0.060,0.060,0.060,0.000,0.000,0.000
1644350900701298944,2022-02-08-20:08:20,10.1.1.4,32,0.070,0.070,0.070,0.000,0.000,0.000
1644350900801340160,2022-02-08-20:08:20,10.1.1.4,31,0.080,0.080,0.080,0.000,0.000,0.000
1644350900901797120,2022-02-08-20:08:20,10.1.1.4,31,0.090,0.090,0.090,0.000,0.000,0.000
1644350901001007104,2022-02-08-20:08:21,10.1.1.4,30,0.100,0.100,0.100,0.000,0.000,0.000
1644350901103491072,2022-02-08-20:08:21,10.1.1.4,30,0.090,0.090,0.090,0.000,0.000,0.000
1644350901201607936,2022-02-08-20:08:21,10.1.1.4,28,0.080,0.080,0.080,0.000,0.000,0.000
1644350901301593088,2022-02-08-20:08:21,10.1.1.4,25,0.070,0.070,0.070,0.000,0.000,0.000
1644350901401794048,2022-02-08-20:08:21,10.1.1.4,24,0.060,0.060,0.060,0.000,0.000,0.000
1644350901500943872,2022-02-08-20:08:21,10.1.1.4,23,0.050,0.050,0.050,0.000,0.000,0.000
1644350901601974016,2022-02-08-20:08:21,10.1.1.4,23,0.040,0.040,0.040,0.000,0.000,0.000
1644350901702050816,2022-02-08-20:08:21,10.1.1.4,21,0.030,0.030,0.030,0.000,0.000,0.000
1644350901828257024,2022-02-08-20:08:21,10.1.1.4,36,0.020,0.020,0.020,0.000,0.000,0.000
1644350901938561024,2022-02-08-20:08:21,10.1.1.4,34,0.010,0.010,0.010,0.000,0.000,0.000
1644350902022619136,2022-02-08-20:08:22,10.1.1.4,33,0.000,0.000,0.000,0.000,0.000,0.000
1644350902122332928,2022-02-08-20:08:22,10.1.1.4,33,-0.010,-0.010,-0.010,0.000,0.000,0.000
1644350902222032896,2022-02-08-20:08:22,10.1.1.4,22,-0.020,-0.020,-0.020,0.000,0.000,0.000
1644350902342601984,2022-02-08-20:08:22,10.1.1.4,37,-0.030,-0.030,-0.030,0.000,0.000,0.000
1644350902441019904,2022-02-08-20:08:22,10.1.1.4,35,-0.040,-0.040,-0.040,0.000,0.000,0.000
1644350902542016000,2022-02-08-20:08:22,10.1.1.4,32,-0.050,-0.050,-0.050,0.000,0.000,0.000
1644350902641650944,2022-02-08-20:08:22,10.1.1.4,32,-0.060,-0.060,-0.060,0.000,0.000,0.000
1644350902741190912,2022-02-08-20:08:22,10.1.1.4,31,-0.070,-0.070,-0.070,0.000,0.000,0.000
1644350902841049856,2022-02-08-20:08:22,10.1.1.4,30,-0.080,-0.080,-0.080,0.000,0.000,0.000
1644350902941214976,2022-02-08-20:08:22,10.1.1.4,29,-0.090,-0.090,-0.090,0.000,0.000,0.000
1644350903042202112,2022-02-08-20:08:23,10.1.1.4,29,-0.100,-0.100,-0.100,0.000,0.000,0.000
1644350903141818112,2022-02-08-20:08:23,10.1.1.4,28,-0.090,-0.090,-0.090,0.000,0.000,0.000
1644350903242872832,2022-02-08-20:08:23,10.1.1.4,28,-0.080,-0.080,-0.080,0.000,0.000,0.000
1644350903342670080,2022-02-08-20:08:23,10.1.1.4,27,-0.070,-0.070,-0.070,0.000,0.000,0.000
1644350903442110976,2022-02-08-20:08:23,10.1.1.4,27,-0.060,-0.060,-0.060,0.000,0.000,0.000
1644350903542612992,2022-02-08-20:08:23,10.1.1.4,27,-0.050,-0.050,-0.050,0.000,0.000,0.000
1644350903641329920,2022-02-08-20:08:23,10.1.1.4,26,-0.040,-0.040,-0.040,0.000,0.000,0.000
1644350903741254144,2022-02-08-20:08:23,10.1.1.4,26,-0.030,-0.030,-0.030,0.000,0.000,0.000
1644350903841843968,2022-02-08-20:08:23,10.1.1.4,26,-0.020,-0.020,-0.020,0.000,0.000,0.000
1644350903941297152,2022-02-08-20:08:23,10.1.1.4,25,-0.010,-0.010,-0.010,0.000,0.000,0.000
1644350904041399040,2022-02-08-20:08:24,10.1.1.4,24,0.000,0.000,0.000,0.000,0.000,0.000
1644350904141075968,2022-02-08-20:08:24,10.1.1.4,24,0.010,0.010,0.010,0.000,0.000,0.000
1644350904242095104,2022-02-08-20:08:24,10.1.1.4,24,0.020,0.020,0.020,0.000,0.000,0.000
1644350904341734912,2022-02-08-20:08:24,10.1.1.4,22,0.030,0.030,0.030,0.000,0.000,0.000
1644350904441715968,2022-02-08-20:08:24,10.1.1.4,21,0.040,0.040,0.040,0.000,0.000,0.000
1644350904541868032,2022-02-08-20:08:24,10.1.1.4,21,0.050,0.050,0.050,0.000,0.000,0.000
1644350904641963008,2022-02-08-20:08:24,10.1.1.4,20,0.060,0.060,0.060,0.000,0.000,0.000
1644350904741625088,2022-02-08-20:08:24,10.1.1.4,20,0.070,0.070,0.070,0.000,0.000,0.000
1644350904841538816,2022-02-08-20:08:24,10.1.1.4,19,0.080,0.080,0.080,0.000,0.000,0.000
1644350904942440960,2022-02-08-20:08:24,10.1.1.4,19,0.089,0.089,0.089,0.000,0.000,0.000
1644350905042445824,2022-02-08-20:08:25,10.1.1.4,19,0.099,0.099,0.099,0.000,0.000,0.000
1644350905162159872,2022-02-08-20:08:25,10.1.1.4,38,0.090,0.090,0.090,0.000,0.000,0.000
1644350905261532928,2022-02-08-20:08:25,10.1.1.4,36,0.080,0.080,0.080,0.000,0.000,0.000
1644350905361404928,2022-02-08-20:08:25,10.1.1.4,35,0.070,0.070,0.070,0.000,0.000,0.000
1644350905461220864,2022-02-08-20:08:25,10.1.1.4,34,0.060,0.060,0.060,0.000,0.000,0.000
1644350905561285120,2022-02-08-20:08:25,10.1.1.4,33,0.050,0.050,0.050,0.000,0.000,0.000
1644350905660943872,2022-02-08-20:08:25,10.1.1.4,33,0.040,0.040,0.040,0.000,0.000,0.000
1644350905764064000,2022-02-08-20:08:25,10.1.1.4,22,0.030,0.030,0.030,0.000,0.000,0.000
1644350905861201152,2022-02-08-20:08:25,10.1.1.4,21,0.020,0.020,0.020,0.000,0.000,0.000
1644350905961644032,2022-02-08-20:08:25,10.1.1.4,21,0.010,0.010,0.010,0.000,0.000,0.000
1644350906061445120,2022-02-08-20:08:26,10.1.1.4,20,0.000,0.000,0.000,0.000,0.000,0.000
1644350906161537024,2022-02-08-20:08:26,10.1.1.4,20,-0.010,-0.010,-0.010,0.000,0.000,0.000
1644350906261404160,2022-02-08-20:08:26,10.1.1.4,20,-0.020,-0.020,-0.020,0.000,0.000,0.000
1644350906361816832,2022-02-08-20:08:26,10.1.1.4,19,-0.030,-0.030,-0.030,0.000,0.000,0.000
1644350906481591040,2022-02-08-20:08:26,10.1.1.4,38,-0.040,-0.040,-0.040,0.000,0.000,0.000
1644350906580908032,2022-02-08-20:08:26,10.1.1.4,37,-0.050,-0.050,-0.050,0.000,0.000,0.000
1644350906681575936,2022-02-08-20:08:26,10.1.1.4,36,-0.060,-0.060,-0.060,0.000,0.000,0.000
1644350906781650944,2022-02-08-20:08:26,10.1.1.4,36,-0.070,-0.070,-0.070,0.000,0.000,0.000
1644350906881266944,2022-02-08-20:08:26,10.1.1.4,35,-0.080,-0.080,-0.080,0.000,0.000,0.000
1644350907025125120,2022-02-08-20:08:27,10.1.1.4,35,-0.090,-0.090,-0.090,0.000,0.000,0.000
1644350907081922048,2022-02-08-20:08:27,10.1.1.4,33,-0.100,-0.100,-0.100,0.000,0.000,0.000
1644350907181847040,2022-02-08-20:08:27,10.1.1.4,33,-0.090,-0.090,-0.090,0.000,0.000,0.000
1644350907281308928,2022-02-08-20:08:27,10.1.1.4,31,-0.080,-0.080,-0.080,0.000,0.000,0.000
1644350907381390080,2022-02-08-20:08:27,10.1.1.4,31,-0.070,-0.070,-0.070,0.000,0.000,0.000
1644350907482258176,2022-02-08-20:08:27,10.1.1.4,31,-0.060,-0.060,-0.060,0.000,0.000,0.000
1644350907581989120,2022-02-08-20:08:27,10.1.1.4,30,-0.050,-0.050,-0.050,0.000,0.000,0.000
1644350907682225920,2022-02-08-20:08:27,10.1.1.4,30,-0.040,-0.040,-0.040,0.000,0.000,0.000
1644350907781243136,2022-02-08-20:08:27,10.1.1.4,29,-0.030,-0.030,-0.030,0.000,0.000,0.000
1644350907881746176,2022-02-08-20:08:27,10.1.1.4,29,-0.020,-0.020,-0.020,0.000,0.000,0.000
1644350907981916928,2022-02-08-20:08:27,10.1.1.4,28,-0.010,-0.010,-0.010,0.000,0.000,0.000
1644350908081583872,2022-02-08-20:08:28,10.1.1.4,27,0.000,0.000,0.000,0.000,0.000,0.000
1644350908181703168,2022-02-08-20:08:28,10.1.1.4,26,0.010,0.010,0.010,0.000,0.000,0.000
1644350908281650944,2022-02-08-20:08:28,10.1.1.4,25,0.020,0.020,0.020,0.000,0.000,0.000
1644350908381355008,2022-02-08-20:08:28,10.1.1.4,25,0.030,0.030,0.030,0.000,0.000,0.000
1644350908484303872,2022-02-08-20:08:28,10.1.1.4,24,0.040,0.040,0.040,0.000,0.000,0.000
1644350908581346048,2022-02-08-20:08:28,10.1.1.4,23,0.050,0.050,0.050,0.000,0.000,0.000
1644350908681677056,2022-02-08-20:08:28,10.1.1.4,23,0.060,0.060,0.060,0.000,0.000,0.000
1644350908782397952,2022-02-08-20:08:28,10.1.1.4,22,0.070,0.070,0.070,0.000,0.000,0.000
1644350908881715968,2022-02-08-20:08:28,10.1.1.4,21,0.080,0.080,0.080,0.000,0.000,0.000
1644350908982237184,2022-02-08-20:08:28,10.1.1.4,20,0.090,0.090,0.090,0.000,0.000,0.000
1644350909083463936,2022-02-08-20:08:29,10.1.1.4,19,0.100,0.100,0.100,0.000,0.000,0.000
1644350909202747136,2022-02-08-20:08:29,10.1.1.4,38,0.090,0.090,0.090,0.000,0.000,0.000
1644350909301561088,2022-02-08-20:08:29,10.1.1.4,37,0.080,0.080,0.080,0.000,0.000,0.000
1644350909401814016,2022-02-08-20:08:29,10.1.1.4,35,0.070,0.070,0.070,0.000,0.000,0.000
1644350909502438144,2022-02-08-20:08:29,10.1.1.4,33,0.060,0.060,0.060,0.000,0.000,0.000
1644350909601819136,2022-02-08-20:08:29,10.1.1.4,32,0.050,0.050,0.050,0.000,0.000,0.000
1644350909702191104,2022-02-08-20:08:29,10.1.1.4,32,0.040,0.040,0.040,0.000,0.000,0.000
1644350909802259968,2022-02-08-20:08:29,10.1.1.4,30,0.030,0.030,0.030,0.000,0.000,0.000
1644350909901737984,2022-02-08-20:08:29,10.1.1.4,28,0.020,0.020,0.020,0.000,0.000,0.000
1644350910002033920,2022-02-08-20:08:30,10.1.1.4,27,0.010,0.010,0.010,0.000,0.000,0.000
1644350910103105024,2022-02-08-20:08:30,10.1.1.4,27,0.000,0.000,0.000,0.000,0.000,0.000
1644350910202699008,2022-02-08-20:08:30,10.1.1.4,27,-0.010,-0.010,-0.010,0.000,0.000,0.000
1644350910302380032,2022-02-08-20:08:30,10.1.1.4,25,-0.020,-0.020,-0.020,0.000,0.000,0.000
1644350910401586176,2022-02-08-20:08:30,10.1.1.4,24,-0.030,-0.030,-0.030,0.000,0.000,0.000
1644350910501435136,2022-02-08-20:08:30,10.1.1.4,23,-0.040,-0.040,-0.040,0.000,0.000,0.000
1644350910601775872,2022-02-08-20:08:30,10.1.1.4,22,-0.050,-0.050,-0.050,0.000,0.000,0.000
1644350910701533184,2022-02-08-20:08:30,10.1.1.4,22,-0.060,-0.060,-0.060,0.000,0.000,0.000
1644350910801534976,2022-02-08-20:08:30,10.1.1.4,22,-0.070,-0.070,-0.070,0.000,0.000,0.000
1644350910902417920,2022-02-08-20:08:30,10.1.1.4,21,-0.080,-0.080,-0.080,0.000,0.000,0.000
1644350911001623040,2022-02-08-20:08:31,10.1.1.4,20,-0.090,-0.090,-0.090,0.000,0.000,0.000
1644350911102224128,2022-02-08-20:08:31,10.1.1.4,20,-0.100,-0.100,-0.100,0.000,0.000,0.000
1644350911203036160,2022-02-08-20:08:31,10.1.1.4,19,-0.090,-0.090,-0.090,0.000,0.000,0.000
1644350911322132224,2022-02-08-20:08:31,10.1.1.4,36,-0.080,-0.080,-0.080,0.000,0.000,0.000
1644350911421745920,2022-02-08-20:08:31,10.1.1.4,36,-0.070,-0.070,-0.070,0.000,0.000,0.000
1644350911522416128,2022-02-08-20:08:31,10.1.1.4,36,-0.060,-0.060,-0.060,0.000,0.000,0.000
1644350911622274048,2022-02-08-20:08:31,10.1.1.4,35,-0.050,-0.050,-0.050,0.000,0.000,0.000
1644350911721920000,2022-02-08-20:08:31,10.1.1.4,33,-0.040,-0.040,-0.040,0.000,0.000,0.000
1644350911821351168,2022-02-08-20:08:31,10.1.1.4,32,-0.030,-0.030,-0.030,0.000,0.000,0.000
1644350911921474048,2022-02-08-20:08:31,10.1.1.4,32,-0.020,-0.020,-0.020,0.000,0.000,0.000
1644350912022195200,2022-02-08-20:08:32,10.1.1.4,31,-0.010,-0.010,-0.010,0.000,0.000,0.000
1644350912121156096,2022-02-08-20:08:32,10.1.1.4,31,0.000,0.000,0.000,0.000,0.000,0.000
1644350912221676032,2022-02-08-20:08:32,10.1.1.4,30,0.010,0.010,0.010,0.000,0.000,0.000
1644350912323659776,2022-02-08-20:08:32,10.1.1.4,31,0.020,0.020,0.020,0.000,0.000,0.000
1644350912420900096,2022-02-08-20:08:32,10.1.1.4,28,0.030,0.030,0.030,0.000,0.000,0.000
1644350912522406144,2022-02-08-20:08:32,10.1.1.4,28,0.040,0.040,0.040,0.000,0.000,0.000
1644350912621965824,2022-02-08-20:08:32,10.1.1.4,27,0.050,0.050,0.050,0.000,0.000,0.000
1644350912745328896,2022-02-08-20:08:32,10.1.1.4,27,0.060,0.060,0.060,0.000,0.000,0.000
1644350912824337920,2022-02-08-20:08:32,10.1.1.4,22,0.070,0.070,0.070,0.000,0.000,0.000
1644350912922177024,2022-02-08-20:08:32,10.1.1.4,21,0.080,0.080,0.080,0.000,0.000,0.000
1644350913021524992,2022-02-08-20:08:33,10.1.1.4,20,0.090,0.090,0.090,0.000,0.000,0.000
1644350913121725952,2022-02-08-20:08:33,10.1.1.4,19,0.100,0.100,0.100,0.000,0.000,0.000
1644350913241843968,2022-02-08-20:08:33,10.1.1.4,31,0.090,0.090,0.090,0.000,0.000,0.000
1644350913342813952,2022-02-08-20:08:33,10.1.1.4,26,0.080,0.080,0.080,0.000,0.000,0.000
1644350913441655040,2022-02-08-20:08:33,10.1.1.4,26,0.070,0.070,0.070,0.000,0.000,0.000
1644350913541861120,2022-02-08-20:08:33,10.1.1.4,25,0.060,0.060,0.060,0.000,0.000,0.000
1644350913642195968,2022-02-08-20:08:33,10.1.1.4,24,0.050,0.050,0.050,0.000,0.000,0.000
1644350913741861120,2022-02-08-20:08:33,10.1.1.4,23,0.040,0.040,0.040,0.000,0.000,0.000
1644350913842274816,2022-02-08-20:08:33,10.1.1.4,22,0.030,0.030,0.030,0.000,0.000,0.000
1644350913941464064,2022-02-08-20:08:33,10.1.1.4,21,0.020,0.020,0.020,0.000,0.000,0.000
1644350914201825024,2022-02-08-20:08:34,10.1.1.4,39,0.000,0.000,0.000,0.000,0.000,0.000
1644350914302294016,2022-02-08-20:08:34,10.1.1.4,38,-0.010,-0.010,-0.010,0.000,0.000,0.000
1644350914402039040,2022-02-08-20:08:34,10.1.1.4,37,-0.020,-0.020,-0.020,0.000,0.000,0.000
1644350914501862912,2022-02-08-20:08:34,10.1.1.4,34,-0.030,-0.030,-0.030,0.000,0.000,0.000
1644350914602159104,2022-02-08-20:08:34,10.1.1.4,33,-0.040,-0.040,-0.040,0.000,0.000,0.000
1644350914701630976,2022-02-08-20:08:34,10.1.1.4,32,-0.050,-0.050,-0.050,0.000,0.000,0.000
1644350914802810880,2022-02-08-20:08:34,10.1.1.4,32,-0.060,-0.060,-0.060,0.000,0.000,0.000
1644350914901729024,2022-02-08-20:08:34,10.1.1.4,31,-0.070,-0.070,-0.070,0.000,0.000,0.000
1644350915008826112,2022-02-08-20:08:35,10.1.1.4,38,-0.080,-0.080,-0.080,0.000,0.000,0.000
1644350915102168064,2022-02-08-20:08:35,10.1.1.4,30,-0.090,-0.090,-0.090,0.000,0.000,0.000
1644350915201673984,2022-02-08-20:08:35,10.1.1.4,29,-0.100,-0.100,-0.100,0.000,0.000,0.000
1644350915302109952,2022-02-08-20:08:35,10.1.1.4,29,-0.090,-0.090,-0.090,0.000,0.000,0.000
1644350915402288896,2022-02-08-20:08:35,10.1.1.4,28,-0.080,-0.080,-0.080,0.000,0.000,0.000
1644350915501743104,2022-02-08-20:08:35,10.1.1.4,28,-0.070,-0.070,-0.070,0.000,0.000,0.000
1644350915602400000,2022-02-08-20:08:35,10.1.1.4,27,-0.060,-0.060,-0.060,0.000,0.000,0.000
1644350915702213888,2022-02-08-20:08:35,10.1.1.4,27,-0.050,-0.050,-0.050,0.000,0.000,0.000
1644350915810405888,2022-02-08-20:08:35,10.1.1.4,26,-0.040,-0.040,-0.040,0.000,0.000,0.000
1644350915901966080,2022-02-08-20:08:35,10.1.1.4,25,-0.030,-0.030,-0.030,0.000,0.000,0.000
1644350916021924864,2022-02-08-20:08:36,10.1.1.4,28,-0.020,-0.020,-0.020,0.000,0.000,0.000
1644350916121942016,2022-02-08-20:08:36,10.1.1.4,27,-0.010,-0.010,-0.010,0.000,0.000,0.000
1644350916221512960,2022-02-08-20:08:36,10.1.1.4,26,0.000,0.000,0.000,0.000,0.000,0.000
1644350916322500096,2022-02-08-20:08:36,10.1.1.4,26,0.010,0.010,0.010,0.000,0.000,0.000
1644350916422296064,2022-02-08-20:08:36,10.1.1.4,25,0.020,0.020,0.020,0.000,0.000,0.000
1644350916522077184,2022-02-08-20:08:36,10.1.1.4,23,0.030,0.030,0.030,0.000,0.000,0.000
1644350916622489088,2022-02-08-20:08:36,10.1.1.4,19,0.039,0.039,0.039,0.000,0.000,0.000
1644350916742324992,2022-02-08-20:08:36,10.1.1.4,38,0.050,0.050,0.050,0.000,0.000,0.000
1644350916842127104,2022-02-08-20:08:36,10.1.1.4,36,0.060,0.060,0.060,0.000,0.000,0.000
1644350916941744128,2022-02-08-20:08:36,10.1.1.4,36,0.070,0.070,0.070,0.000,0.000,0.000
1644350917043073792,2022-02-08-20:08:37,10.1.1.4,35,0.080,0.080,0.080,0.000,0.000,0.000
1644350917142305024,2022-02-08-20:08:37,10.1.1.4,34,0.090,0.090,0.090,0.000,0.000,0.000
1644350917242150144,2022-02-08-20:08:37,10.1.1.4,33,0.100,0.100,0.100,0.000,0.000,0.000
1644350917342746880,2022-02-08-20:08:37,10.1.1.4,32,0.090,0.090,0.090,0.000,0.000,0.000
1644350917441917952,2022-02-08-20:08:37,10.1.1.4,32,0.080,0.080,0.080,0.000,0.000,0.000
1644350917541394944,2022-02-08-20:08:37,10.1.1.4,32,0.070,0.070,0.070,0.000,0.000,0.000
1644350917641739008,2022-02-08-20:08:37,10.1.1.4,30,0.060,0.060,0.060,0.000,0.000,0.000
1644350917741218048,2022-02-08-20:08:37,10.1.1.4,30,0.050,0.050,0.050,0.000,0.000,0.000
1644350917841964032,2022-02-08-20:08:37,10.1.1.4,29,0.040,0.040,0.040,0.000,0.000,0.000
1644350917941401856,2022-02-08-20:08:37,10.1.1.4,29,0.030,0.030,0.030,0.000,0.000,0.000
1644350918041785856,2022-02-08-20:08:38,10.1.1.4,28,0.020,0.020,0.020,0.000,0.000,0.000
1644350918141539072,2022-02-08-20:08:38,10.1.1.4,28,0.010,0.010,0.010,0.000,0.000,0.000
1644350918241462016,2022-02-08-20:08:38,10.1.1.4,27,0.000,0.000,0.000,0.000,0.000,0.000
1644350918341764864,2022-02-08-20:08:38,10.1.1.4,26,-0.010,-0.010,-0.010,0.000,0.000,0.000
1644350918441606144,2022-02-08-20:08:38,10.1.1.4,26,-0.020,-0.020,-0.020,0.000,0.000,0.000
1644350918541739008,2022-02-08-20:08:38,10.1.1.4,25,-0.030,-0.030,-0.030,0.000,0.000,0.000
1644350918642443008,2022-02-08-20:08:38,10.1.1.4,25,-0.040,-0.040,-0.040,0.000,0.000,0.000
1644350918741841152,2022-02-08-20:08:38,10.1.1.4,24,-0.050,-0.050,-0.050,0.000,0.000,0.000
1644350918841489152,2022-02-08-20:08:38,10.1.1.4,23,-0.060,-0.060,-0.060,0.000,0.000,0.000
1644350918941168128,2022-02-08-20:08:38,10.1.1.4,22,-0.070,-0.070,-0.070,0.000,0.000,0.000
1644350919041157120,2022-02-08-20:08:39,10.1.1.4,22,-0.080,-0.080,-0.080,0.000,0.000,0.000
1644350919141722880,2022-02-08-20:08:39,10.1.1.4,21,-0.090,-0.090,-0.090,0.000,0.000,0.000
1644350919241550080,2022-02-08-20:08:39,10.1.1.4,21,-0.100,-0.100,-0.100,0.000,0.000,0.000
1644350919341458176,2022-02-08-20:08:39,10.1.1.4,20,-0.090,-0.090,-0.090,0.000,0.000,0.000
1644350919441647104,2022-02-08-20:08:39,10.1.1.4,20,-0.080,-0.080,-0.080,0.000,0.000,0.000
1644350919541835008,2022-02-08-20:08:39,10.1.1.4,19,-0.071,-0.071,-0.071,0.000,0.000,0.000
1644350919661544960,2022-02-08-20:08:39,10.1.1.4,39,-0.060,-0.060,-0.060,0.000,0.000,0.000
1644350919761796096,2022-02-08-20:08:39,10.1.1.4,38,-0.050,-0.050,-0.050,0.000,0.000,0.000
1644350919861967104,2022-02-08-20:08:39,10.1.1.4,37,-0.040,-0.040,-0.040,0.000,0.000,0.000
1644350919961513984,2022-02-08-20:08:39,10.1.1.4,37,-0.030,-0.030,-0.030,0.000,0.000,0.000
1644350920061956864,2022-02-08-20:08:40,10.1.1.4,36,-0.020,-0.020,-0.020,0.000,0.000,0.000
1644350920161863168,2022-02-08-20:08:40,10.1.1.4,36,-0.010,-0.010,-0.010,0.000,0.000,0.000
1644350920261810176,2022-02-08-20:08:40,10.1.1.4,35,0.000,0.000,0.000,0.000,0.000,0.000
1644350920361843200,2022-02-08-20:08:40,10.1.1.4,35,0.010,0.010,0.010,0.000,0.000,0.000
1644350920461626112,2022-02-08-20:08:40,10.1.1.4,33,0.020,0.020,0.020,0.000,0.000,0.000
1644350920561664000,2022-02-08-20:08:40,10.1.1.4,33,0.030,0.030,0.030,0.000,0.000,0.000
1644350920662408192,2022-02-08-20:08:40,10.1.1.4,32,0.040,0.040,0.040,0.000,0.000,0.000
1644350920761488896,2022-02-08-20:08:40,10.1.1.4,32,0.050,0.050,0.050,0.000,0.000,0.000
1644350920861097216,2022-02-08-20:08:40,10.1.1.4,31,0.060,0.060,0.060,0.000,0.000,0.000
1644350920961432832,2022-02-08-20:08:40,10.1.1.4,31,0.070,0.070,0.070,0.000,0.000,0.000
1644350921061729792,2022-02-08-20:08:41,10.1.1.4,29,0.080,0.080,0.080,0.000,0.000,0.000
1644350921162370048,2022-02-08-20:08:41,10.1.1.4,28,0.090,0.090,0.090,0.000,0.000,0.000
1644350921261899008,2022-02-08-20:08:41,10.1.1.4,27,0.100,0.100,0.100,0.000,0.000,0.000
1644350921362215168,2022-02-08-20:08:41,10.1.1.4,27,0.090,0.090,0.090,0.000,0.000,0.000
1644350921461283840,2022-02-08-20:08:41,10.1.1.4,27,0.080,0.080,0.080,0.000,0.000,0.000
1644350921562820864,2022-02-08-20:08:41,10.1.1.4,26,0.070,0.070,0.070,0.000,0.000,0.000
1644350921661469952,2022-02-08-20:08:41,10.1.1.4,26,0.060,0.060,0.060,0.000,0.000,0.000
1644350921761681152,2022-02-08-20:08:41,10.1.1.4,25,0.050,0.050,0.050,0.000,0.000,0.000
1644350921862220032,2022-02-08-20:08:41,10.1.1.4,24,0.040,0.040,0.040,0.000,0.000,0.000
1644350921962019840,2022-02-08-20:08:41,10.1.1.4,22,0.030,0.030,0.030,0.000,0.000,0.000
1644350922061758976,2022-02-08-20:08:42,10.1.1.4,22,0.020,0.020,0.020,0.000,0.000,0.000
1644350922162439936,2022-02-08-20:08:42,10.1.1.4,22,0.010,0.010,0.010,0.000,0.000,0.000
1644350922261748992,2022-02-08-20:08:42,10.1.1.4,20,0.000,0.000,0.000,0.000,0.000,0.000
1644350922361469952,2022-02-08-20:08:42,10.1.1.4,20,-0.010,-0.010,-0.010,0.000,0.000,0.000
1644350922461687040,2022-02-08-20:08:42,10.1.1.4,19,-0.019,-0.019,-0.019,0.000,0.000,0.000
1644350922582573056,2022-02-08-20:08:42,10.1.1.4,38,-0.030,-0.030,-0.030,0.000,0.000,0.000
1644350922681689088,2022-02-08-20:08:42,10.1.1.4,38,-0.040,-0.040,-0.040,0.000,0.000,0.000
1644350922810108928,2022-02-08-20:08:42,10.1.1.4,38,-0.050,-0.050,-0.050,0.000,0.000,0.000
1644350922901895168,2022-02-08-20:08:42,10.1.1.4,32,-0.060,-0.060,-0.060,0.000,0.000,0.000
1644350923000994048,2022-02-08-20:08:43,10.1.1.4,32,-0.070,-0.070,-0.070,0.000,0.000,0.000
1644350923121380096,2022-02-08-20:08:43,10.1.1.4,36,-0.080,-0.080,-0.080,0.000,0.000,0.000
1644350923222636032,2022-02-08-20:08:43,10.1.1.4,35,-0.090,-0.090,-0.090,0.000,0.000,0.000
1644350923321423104,2022-02-08-20:08:43,10.1.1.4,33,-0.100,-0.100,-0.100,0.000,0.000,0.000
1644350923421363968,2022-02-08-20:08:43,10.1.1.4,32,-0.090,-0.090,-0.090,0.000,0.000,0.000
1644350923521796096,2022-02-08-20:08:43,10.1.1.4,32,-0.080,-0.080,-0.080,0.000,0.000,0.000
1644350923622112000,2022-02-08-20:08:43,10.1.1.4,31,-0.070,-0.070,-0.070,0.000,0.000,0.000
1644350923722068992,2022-02-08-20:08:43,10.1.1.4,30,-0.060,-0.060,-0.060,0.000,0.000,0.000
1644350923822274048,2022-02-08-20:08:43,10.1.1.4,30,-0.050,-0.050,-0.050,0.000,0.000,0.000
1644350923921592832,2022-02-08-20:08:43,10.1.1.4,29,-0.040,-0.040,-0.040,0.000,0.000,0.000
1644350924021347072,2022-02-08-20:08:44,10.1.1.4,28,-0.030,-0.030,-0.030,0.000,0.000,0.000
1644350924121767936,2022-02-08-20:08:44,10.1.1.4,28,-0.020,-0.020,-0.020,0.000,0.000,0.000
1644350924221389056,2022-02-08-20:08:44,10.1.1.4,27,-0.010,-0.010,-0.010,0.000,0.000,0.000
1644350924321108992,2022-02-08-20:08:44,10.1.1.4,27,0.000,0.000,0.000,0.000,0.000,0.000
1644350924522748928,2022-02-08-20:08:44,10.1.1.4,24,0.020,0.020,0.020,0.000,0.000,0.000
1644350924622033152,2022-02-08-20:08:44,10.1.1.4,24,0.030,0.030,0.030,0.000,0.000,0.000
1644350924722448128,2022-02-08-20:08:44,10.1.1.4,23,0.040,0.040,0.040,0.000,0.000,0.000
1644350924829248000,2022-02-08-20:08:44,10.1.1.4,21,0.050,0.050,0.050,0.000,0.000,0.000
1644350924921519872,2022-02-08-20:08:44,10.1.1.4,21,0.060,0.060,0.060,0.000,0.000,0.000
1644350925021587968,2022-02-08-20:08:45,10.1.1.4,20,0.070,0.070,0.070,0.000,0.000,0.000
1644350925121203968,2022-02-08-20:08:45,10.1.1.4,20,0.080,0.080,0.080,0.000,0.000,0.000
1644350925242461952,2022-02-08-20:08:45,10.1.1.4,36,0.090,0.090,0.090,0.000,0.000,0.000
1644350925341157888,2022-02-08-20:08:45,10.1.1.4,34,0.100,0.100,0.100,0.000,0.000,0.000
1644350925441229056,2022-02-08-20:08:45,10.1.1.4,33,0.090,0.090,0.090,0.000,0.000,0.000
1644350925542358016,2022-02-08-20:08:45,10.1.1.4,32,0.080,0.080,0.080,0.000,0.000,0.000
1644350925641336832,2022-02-08-20:08:45,10.1.1.4,32,0.070,0.070,0.070,0.000,0.000,0.000
1644350925742088192,2022-02-08-20:08:45,10.1.1.4,31,0.060,0.060,0.060,0.000,0.000,0.000
1644350925844527872,2022-02-08-20:08:45,10.1.1.4,31,0.050,0.050,0.050,0.000,0.000,0.000
1644350925941366016,2022-02-08-20:08:45,10.1.1.4,29,0.040,0.040,0.040,0.000,0.000,0.000
1644350926041627904,2022-02-08-20:08:46,10.1.1.4,25,0.030,0.030,0.030,0.000,0.000,0.000
1644350926141740032,2022-02-08-20:08:46,10.1.1.4,24,0.020,0.020,0.020,0.000,0.000,0.000
1644350926241657856,2022-02-08-20:08:46,10.1.1.4,23,0.010,0.010,0.010,0.000,0.000,0.000
1644350926341829888,2022-02-08-20:08:46,10.1.1.4,23,0.000,0.000,0.000,0.000,0.000,0.000
1644350926442616064,2022-02-08-20:08:46,10.1.1.4,22,-0.010,-0.010,-0.010,0.000,0.000,0.000
1644350926541209088,2022-02-08-20:08:46,10.1.1.4,22,-0.020,-0.020,-0.020,0.000,0.000,0.000
1644350926641976064,2022-02-08-20:08:46,10.1.1.4,20,-0.030,-0.030,-0.030,0.000,0.000,0.000
1644350926741539072,2022-02-08-20:08:46,10.1.1.4,19,-0.040,-0.040,-0.040,0.000,0.000,0.000
1644350926841805824,2022-02-08-20:08:46,10.1.1.4,19,-0.050,-0.050,-0.050,0.000,0.000,0.000
1644350926962508032,2022-02-08-20:08:46,10.1.1.4,38,-0.060,-0.060,-0.060,0.000,0.000,0.000
1644350927061740032,2022-02-08-20:08:47,10.1.1.4,37,-0.070,-0.070,-0.070,0.000,0.000,0.000
1644350927162412800,2022-02-08-20:08:47,10.1.1.4,36,-0.080,-0.080,-0.080,0.000,0.000,0.000
1644350927261428224,2022-02-08-20:08:47,10.1.1.4,36,-0.090,-0.090,-0.090,0.000,0.000,0.000
1644350927361705984,2022-02-08-20:08:47,10.1.1.4,33,-0.100,-0.100,-0.100,0.000,0.000,0.000
1644350927461637120,2022-02-08-20:08:47,10.1.1.4,32,-0.090,-0.090,-0.090,0.000,0.000,0.000
1644350927562066944,2022-02-08-20:08:47,10.1.1.4,32,-0.080,-0.080,-0.080,0.000,0.000,0.000
1644350927661524992,2022-02-08-20:08:47,10.1.1.4,31,-0.070,-0.070,-0.070,0.000,0.000,0.000
1644350927761542144,2022-02-08-20:08:47,10.1.1.4,30,-0.060,-0.060,-0.060,0.000,0.000,0.000
1644350927861102080,2022-02-08-20:08:47,10.1.1.4,30,-0.050,-0.050,-0.050,0.000,0.000,0.000
1644350927961960192,2022-02-08-20:08:47,10.1.1.4,29,-0.040,-0.040,-0.040,0.000,0.000,0.000
1644350928061976832,2022-02-08-20:08:48,10.1.1.4,28,-0.030,-0.030,-0.030,0.000,0.000,0.000
1644350928161936896,2022-02-08-20:08:48,10.1.1.4,27,-0.020,-0.020,-0.020,0.000,0.000,0.000
1644350928261009920,2022-02-08-20:08:48,10.1.1.4,27,-0.010,-0.010,-0.010,0.000,0.000,0.000
1644350928482104064,2022-02-08-20:08:48,10.1.1.4,34,0.010,0.010,0.010,0.000,0.000,0.000
1644350928581340160,2022-02-08-20:08:48,10.1.1.4,33,0.020,0.020,0.020,0.000,0.000,0.000
1644350928681894144,2022-02-08-20:08:48,10.1.1.4,32,0.030,0.030,0.030,0.000,0.000,0.000
1644350928781233920,2022-02-08-20:08:48,10.1.1.4,31,0.040,0.040,0.040,0.000,0.000,0.000
1644350928881064960,2022-02-08-20:08:48,10.1.1.4,29,0.050,0.050,0.050,0.000,0.000,0.000
1644350928981946112,2022-02-08-20:08:48,10.1.1.4,29,0.060,0.060,0.060,0.000,0.000,0.000
1644350929081394944,2022-02-08-20:08:49,10.1.1.4,28,0.070,0.070,0.070,0.000,0.000,0.000
1644350929182828032,2022-02-08-20:08:49,10.1.1.4,24,0.080,0.080,0.080,0.000,0.000,0.000
1644350929281265920,2022-02-08-20:08:49,10.1.1.4,23,0.090,0.090,0.090,0.000,0.000,0.000
1644350929381223936,2022-02-08-20:08:49,10.1.1.4,22,0.100,0.100,0.100,0.000,0.000,0.000
1644350929481328128,2022-02-08-20:08:49,10.1.1.4,21,0.090,0.090,0.090,0.000,0.000,0.000
1644350929581382912,2022-02-08-20:08:49,10.1.1.4,20,0.080,0.080,0.080,0.000,0.000,0.000
1644350929682681088,2022-02-08-20:08:49,10.1.1.4,20,0.070,0.070,0.070,0.000,0.000,0.000
1644350929781417984,2022-02-08-20:08:49,10.1.1.4,19,0.060,0.060,0.060,0.000,0.000,0.000
1644350929882166016,2022-02-08-20:08:49,10.1.1.4,19,0.050,0.050,0.050,0.000,0.000,0.000
1644350930001741056,2022-02-08-20:08:50,10.1.1.4,37,0.040,0.040,0.040,0.000,0.000,0.000
1644350930101659136,2022-02-08-20:08:50,10.1.1.4,37,0.030,0.030,0.030,0.000,0.000,0.000
1644350930201099008,2022-02-08-20:08:50,10.1.1.4,36,0.020,0.020,0.020,0.000,0.000,0.000
1644350930302004224,2022-02-08-20:08:50,10.1.1.4,35,0.010,0.010,0.010,0.000,0.000,0.000
1644350930402573056,2022-02-08-20:08:50,10.1.1.4,35,0.000,0.000,0.000,0.000,0.000,0.000
1644350930503496960,2022-02-08-20:08:50,10.1.1.4,35,-0.010,-0.010,-0.010,0.000,0.000,0.000
1644350930601145856,2022-02-08-20:08:50,10.1.1.4,27,-0.020,-0.020,-0.020,0.000,0.000,0.000
1644350930701460992,2022-02-08-20:08:50,10.1.1.4,26,-0.030,-0.030,-0.030,0.000,0.000,0.000
1644350930801708032,2022-02-08-20:08:50,10.1.1.4,25,-0.040,-0.040,-0.040,0.000,0.000,0.000
1644350930901582080,2022-02-08-20:08:50,10.1.1.4,25,-0.050,-0.050,-0.050,0.000,0.000,0.000
1644350931001487872,2022-02-08-20:08:51,10.1.1.4,24,-0.060,-0.060,-0.060,0.000,0.000,0.000
1644350931102062080,2022-02-08-20:08:51,10.1.1.4,23,-0.070,-0.070,-0.070,0.000,0.000,0.000
1644350931227861760,2022-02-08-20:08:51,10.1.1.4,26,-0.080,-0.080,-0.080,0.000,0.000,0.000
1644350931323271936,2022-02-08-20:08:51,10.1.1.4,24,-0.090,-0.090,-0.090,0.000,0.000,0.000
1644350931442899968,2022-02-08-20:08:51,10.1.1.4,39,-0.100,-0.100,-0.100,0.000,0.000,0.000
1644350931531459072,2022-02-08-20:08:51,10.1.1.4,28,-0.090,-0.090,-0.090,0.000,0.000,0.000
1644350931655599104,2022-02-08-20:08:51,10.1.1.4,42,-0.080,-0.080,-0.080,0.000,0.000,0.000
1644350931741722112,2022-02-08-20:08:51,10.1.1.4,40,-0.070,-0.070,-0.070,0.000,0.000,0.000
1644350931822140928,2022-02-08-20:08:51,10.1.1.4,20,-0.060,-0.060,-0.060,0.000,0.000,0.000
1644350931942619136,2022-02-08-20:08:51,10.1.1.4,35,-0.050,-0.050,-0.050,0.000,0.000,0.000
1644350932043832064,2022-02-08-20:08:52,10.1.1.4,34,-0.040,-0.040,-0.040,0.000,0.000,0.000
1644350932143552000,2022-02-08-20:08:52,10.1.1.4,31,-0.030,-0.030,-0.030,0.000,0.000,0.000
1644350932253479936,2022-02-08-20:08:52,10.1.1.4,42,-0.020,-0.020,-0.020,0.000,0.000,0.000
1644350932343951872,2022-02-08-20:08:52,10.1.1.4,29,-0.010,-0.010,-0.010,0.000,0.000,0.000
1644350932457248000,2022-02-08-20:08:52,10.1.1.4,40,0.000,0.000,0.000,0.000,0.000,0.000
1644350932549321984,2022-02-08-20:08:52,10.1.1.4,31,0.010,0.010,0.010,0.000,0.000,0.000
1644350932642792960,2022-02-08-20:08:52,10.1.1.4,25,0.020,0.020,0.020,0.000,0.000,0.000
1644350932749053952,2022-02-08-20:08:52,10.1.1.4,30,0.030,0.030,0.030,0.000,0.000,0.000
1644350932843558912,2022-02-08-20:08:52,10.1.1.4,24,0.040,0.040,0.040,0.000,0.000,0.000
1644350932946578944,2022-02-08-20:08:52,10.1.1.4,24,0.050,0.050,0.050,0.000,0.000,0.000
1644350933041548032,2022-02-08-20:08:53,10.1.1.4,23,0.060,0.060,0.060,0.000,0.000,0.000
1644350933142899968,2022-02-08-20:08:53,10.1.1.4,23,0.070,0.070,0.070,0.000,0.000,0.000
1644350933242985984,2022-02-08-20:08:53,10.1.1.4,22,0.080,0.080,0.080,0.000,0.000,0.000
1644350933342567936,2022-02-08-20:08:53,10.1.1.4,22,0.090,0.090,0.090,0.000,0.000,0.000
1644350933442615040,2022-02-08-20:08:53,10.1.1.4,21,0.100,0.100,0.100,0.000,0.000,0.000
1644350933542685952,2022-02-08-20:08:53,10.1.1.4,21,0.090,0.090,0.090,0.000,0.000,0.000
1644350933783368192,2022-02-08-20:08:53,10.1.1.4,34,0.070,0.070,0.070,0.000,0.000,0.000
1644350933881815040,2022-02-08-20:08:53,10.1.1.4,34,0.060,0.060,0.060,0.000,0.000,0.000
1644350933982539008,2022-02-08-20:08:53,10.1.1.4,33,0.050,0.050,0.050,0.000,0.000,0.000
1644350934082017024,2022-02-08-20:08:54,10.1.1.4,33,0.040,0.040,0.040,0.000,0.000,0.000
1644350934181832192,2022-02-08-20:08:54,10.1.1.4,32,0.030,0.030,0.030,0.000,0.000,0.000
1644350934282192896,2022-02-08-20:08:54,10.1.1.4,32,0.020,0.020,0.020,0.000,0.000,0.000
1644350934383447808,2022-02-08-20:08:54,10.1.1.4,25,0.010,0.010,0.010,0.000,0.000,0.000
1644350934503287040,2022-02-08-20:08:54,10.1.1.4,37,0.000,0.000,0.000,0.000,0.000,0.000
1644350934602490880,2022-02-08-20:08:54,10.1.1.4,21,-0.010,-0.010,-0.010,0.000,0.000,0.000
1644350934701955072,2022-02-08-20:08:54,10.1.1.4,21,-0.020,-0.020,-0.020,0.000,0.000,0.000
1644350934801110016,2022-02-08-20:08:54,10.1.1.4,19,-0.030,-0.030,-0.030,0.000,0.000,0.000
1644350934903265024,2022-02-08-20:08:54,10.1.1.4,19,-0.039,-0.039,-0.039,0.000,0.000,0.000
1644350935022566144,2022-02-08-20:08:55,10.1.1.4,38,-0.050,-0.050,-0.050,0.000,0.000,0.000
1644350935122457088,2022-02-08-20:08:55,10.1.1.4,38,-0.060,-0.060,-0.060,0.000,0.000,0.000
1644350935222283008,2022-02-08-20:08:55,10.1.1.4,37,-0.070,-0.070,-0.070,0.000,0.000,0.000
1644350935322748928,2022-02-08-20:08:55,10.1.1.4,36,-0.080,-0.080,-0.080,0.000,0.000,0.000
1644350935422221056,2022-02-08-20:08:55,10.1.1.4,35,-0.090,-0.090,-0.090,0.000,0.000,0.000
1644350935522115840,2022-02-08-20:08:55,10.1.1.4,35,-0.100,-0.100,-0.100,0.000,0.000,0.000
1644350935621848064,2022-02-08-20:08:55,10.1.1.4,35,-0.090,-0.090,-0.090,0.000,0.000,0.000
1644350935721491200,2022-02-08-20:08:55,10.1.1.4,34,-0.080,-0.080,-0.080,0.000,0.000,0.000
1644350935821236992,2022-02-08-20:08:55,10.1.1.4,33,-0.070,-0.070,-0.070,0.000,0.000,0.000
1644350935922704896,2022-02-08-20:08:55,10.1.1.4,33,-0.060,-0.060,-0.060,0.000,0.000,0.000
1644350936022907136,2022-02-08-20:08:56,10.1.1.4,32,-0.050,-0.050,-0.050,0.000,0.000,0.000
1644350936121676800,2022-02-08-20:08:56,10.1.1.4,32,-0.040,-0.040,-0.040,0.000,0.000,0.000
1644350936223197952,2022-02-08-20:08:56,10.1.1.4,31,-0.030,-0.030,-0.030,0.000,0.000,0.000
1644350936322324992,2022-02-08-20:08:56,10.1.1.4,31,-0.020,-0.020,-0.020,0.000,0.000,0.000
1644350936421638912,2022-02-08-20:08:56,10.1.1.4,31,-0.010,-0.010,-0.010,0.000,0.000,0.000
1644350936522104064,2022-02-08-20:08:56,10.1.1.4,30,-0.000,-0.000,-0.000,0.000,0.000,0.000
1644350936622930944,2022-02-08-20:08:56,10.1.1.4,30,0.010,0.010,0.010,0.000,0.000,0.000
1644350936721326080,2022-02-08-20:08:56,10.1.1.4,29,0.020,0.020,0.020,0.000,0.000,0.000
1644350936822217984,2022-02-08-20:08:56,10.1.1.4,28,0.030,0.030,0.030,0.000,0.000,0.000
1644350936922060032,2022-02-08-20:08:56,10.1.1.4,28,0.040,0.040,0.040,0.000,0.000,0.000
1644350937021369088,2022-02-08-20:08:57,10.1.1.4,28,0.050,0.050,0.050,0.000,0.000,0.000
1644350937121292032,2022-02-08-20:08:57,10.1.1.4,27,0.060,0.060,0.060,0.000,0.000,0.000
1644350937221582848,2022-02-08-20:08:57,10.1.1.4,27,0.070,0.070,0.070,0.000,0.000,0.000
1644350937442086912,2022-02-08-20:08:57,10.1.1.4,25,0.090,0.090,0.090,0.000,0.000,0.000
1644350937541369088,2022-02-08-20:08:57,10.1.1.4,24,0.100,0.100,0.100,0.000,0.000,0.000
1644350937642144000,2022-02-08-20:08:57,10.1.1.4,23,0.090,0.090,0.090,0.000,0.000,0.000
1644350937741772032,2022-02-08-20:08:57,10.1.1.4,22,0.080,0.080,0.080,0.000,0.000,0.000
1644350937842192896,2022-02-08-20:08:57,10.1.1.4,20,0.070,0.070,0.070,0.000,0.000,0.000
1644350937942255104,2022-02-08-20:08:57,10.1.1.4,20,0.060,0.060,0.060,0.000,0.000,0.000
1644350938042650112,2022-02-08-20:08:58,10.1.1.4,19,0.050,0.050,0.050,0.000,0.000,0.000
1644350938141609984,2022-02-08-20:08:58,10.1.1.4,19,0.040,0.040,0.040,0.000,0.000,0.000
1644350938261903104,2022-02-08-20:08:58,10.1.1.4,38,0.030,0.030,0.030,0.000,0.000,0.000
1644350938362504960,2022-02-08-20:08:58,10.1.1.4,38,0.020,0.020,0.020,0.000,0.000,0.000
1644350938462688000,2022-02-08-20:08:58,10.1.1.4,37,0.010,0.010,0.010,0.000,0.000,0.000
1644350938562993152,2022-02-08-20:08:58,10.1.1.4,37,0.000,0.000,0.000,0.000,0.000,0.000
1644350938668898048,2022-02-08-20:08:58,10.1.1.4,36,-0.010,-0.010,-0.010,0.000,0.000,0.000
1644350938762970880,2022-02-08-20:08:58,10.1.1.4,35,-0.020,-0.020,-0.020,0.000,0.000,0.000
1644350938863096064,2022-02-08-20:08:58,10.1.1.4,33,-0.030,-0.030,-0.030,0.000,0.000,0.000
1644350938962928896,2022-02-08-20:08:58,10.1.1.4,32,-0.040,-0.040,-0.040,0.000,0.000,0.000
1644350939062517760,2022-02-08-20:08:59,10.1.1.4,31,-0.050,-0.050,-0.050,0.000,0.000,0.000
1644350939168754176,2022-02-08-20:08:59,10.1.1.4,29,-0.060,-0.060,-0.060,0.000,0.000,0.000
1644350939262813952,2022-02-08-20:08:59,10.1.1.4,28,-0.070,-0.070,-0.070,0.000,0.000,0.000
1644350939365325056,2022-02-08-20:08:59,10.1.1.4,20,-0.080,-0.080,-0.080,0.000,0.000,0.000
1644350939462151936,2022-02-08-20:08:59,10.1.1.4,19,-0.090,-0.090,-0.090,0.000,0.000,0.000
1644350939561459968,2022-02-08-20:08:59,10.1.1.4,19,-0.100,-0.100,-0.100,0.000,0.000,0.000
1644350939681867008,2022-02-08-20:08:59,10.1.1.4,38,-0.090,-0.090,-0.090,0.000,0.000,0.000
1644350939782231040,2022-02-08-20:08:59,10.1.1.4,38,-0.080,-0.080,-0.080,0.000,0.000,0.000
1644350939881753088,2022-02-08-20:08:59,10.1.1.4,37,-0.070,-0.070,-0.070,0.000,0.000,0.000
1644350939991287040,2022-02-08-20:08:59,10.1.1.4,36,-0.060,-0.060,-0.060,0.000,0.000,0.000
1644350940082235136,2022-02-08-20:09:00,10.1.1.4,36,-0.050,-0.050,-0.050,0.000,0.000,0.000
1644350940182419968,2022-02-08-20:09:00,10.1.1.4,36,-0.040,-0.040,-0.040,0.000,0.000,0.000
1644350940320262912,2022-02-08-20:09:00,10.1.1.4,35,-0.030,-0.030,-0.030,0.000,0.000,0.000
1644350940382371840,2022-02-08-20:09:00,10.1.1.4,34,-0.020,-0.020,-0.020,0.000,0.000,0.000
1644350940481147136,2022-02-08-20:09:00,10.1.1.4,34,-0.010,-0.010,-0.010,0.000,0.000,0.000
1644350940583197184,2022-02-08-20:09:00,10.1.1.4,33,0.000,0.000,0.000,0.000,0.000,0.000
1644350940682394880,2022-02-08-20:09:00,10.1.1.4,33,0.010,0.010,0.010,0.000,0.000,0.000
1644350940781754880,2022-02-08-20:09:00,10.1.1.4,32,0.020,0.020,0.020,0.000,0.000,0.000
1644350940881468928,2022-02-08-20:09:00,10.1.1.4,32,0.030,0.030,0.030,0.000,0.000,0.000
1644350940982599936,2022-02-08-20:09:00,10.1.1.4,31,0.040,0.040,0.040,0.000,0.000,0.000
1644350941082385152,2022-02-08-20:09:01,10.1.1.4,31,0.050,0.050,0.050,0.000,0.000,0.000
1644350941182635008,2022-02-08-20:09:01,10.1.1.4,30,0.060,0.060,0.060,0.000,0.000,0.000
1644350941281650944,2022-02-08-20:09:01,10.1.1.4,30,0.070,0.070,0.070,0.000,0.000,0.000
1644350941403186176,2022-02-08-20:09:01,10.1.1.4,29,0.080,0.080,0.080,0.000,0.000,0.000
1644350941501601024,2022-02-08-20:09:01,10.1.1.4,27,0.090,0.090,0.090,0.000,0.000,0.000
1644350941601769984,2022-02-08-20:09:01,10.1.1.4,26,0.100,0.100,0.100,0.000,0.000,0.000
1644350941702063104,2022-02-08-20:09:01,10.1.1.4,26,0.090,0.090,0.090,0.000,0.000,0.000
1644350941802284032,2022-02-08-20:09:01,10.1.1.4,25,0.080,0.080,0.080,0.000,0.000,0.000
1644350941921677056,2022-02-08-20:09:01,10.1.1.4,31,0.070,0.070,0.070,0.000,0.000,0.000
1644350942022095872,2022-02-08-20:09:02,10.1.1.4,30,0.060,0.060,0.060,0.000,0.000,0.000
1644350942121839104,2022-02-08-20:09:02,10.1.1.4,30,0.050,0.050,0.050,0.000,0.000,0.000
1644350942221672960,2022-02-08-20:09:02,10.1.1.4,29,0.040,0.040,0.040,0.000,0.000,0.000
1644350942321871104,2022-02-08-20:09:02,10.1.1.4,28,0.030,0.030,0.030,0.000,0.000,0.000
1644350942422464000,2022-02-08-20:09:02,10.1.1.4,28,0.020,0.020,0.020,0.000,0.000,0.000
1644350942548669952,2022-02-08-20:09:02,10.1.1.4,34,0.010,0.010,0.010,0.000,0.000,0.000
1644350942656528896,2022-02-08-20:09:02,10.1.1.4,33,0.000,0.000,0.000,0.000,0.000,0.000
1644350943702717952,2022-02-08-20:09:02,10.1.1.4,31,-0.010,-0.010,-0.010,0.000,0.000,0.000
1644350943761643776,2022-02-08-20:09:03,10.1.1.4,30,-0.020,-0.020,-0.020,0.000,0.000,0.000
1644350943861814016,2022-02-08-20:09:03,10.1.1.4,28,-0.030,-0.030,-0.030,0.000,0.000,0.000
1644350943962331904,2022-02-08-20:09:03,10.1.1.4,28,-0.040,-0.040,-0.040,0.000,0.000,0.000
1644350944063301120,2022-02-08-20:09:04,10.1.1.4,27,-0.050,-0.050,-0.050,0.000,0.000,0.000
1644350944162216960,2022-02-08-20:09:04,10.1.1.4,27,-0.060,-0.060,-0.060,0.000,0.000,0.000
1644350944262201088,2022-02-08-20:09:04,10.1.1.4,26,-0.070,-0.070,-0.070,0.000,0.000,0.000
1644350944363270912,2022-02-08-20:09:04,10.1.1.4,25,-0.080,-0.080,-0.080,0.000,0.000,0.000
1644350944461804032,2022-02-08-20:09:04,10.1.1.4,22,-0.090,-0.090,-0.090,0.000,0.000,0.000
1644350944562529024,2022-02-08-20:09:04,10.1.1.4,21,-0.100,-0.100,-0.100,0.000,0.000,0.000
1644350944682661888,2022-02-08-20:09:04,10.1.1.4,32,-0.090,-0.090,-0.090,0.000,0.000,0.000
1644350944789064960,2022-02-08-20:09:04,10.1.1.4,22,-0.080,-0.080,-0.080,0.000,0.000,0.000
1644350944881714176,2022-02-08-20:09:04,10.1.1.4,22,-0.070,-0.070,-0.070,0.000,0.000,0.000
1644350944984931072,2022-02-08-20:09:04,10.1.1.4,21,-0.060,-0.060,-0.060,0.000,0.000,0.000
1644350945082551040,2022-02-08-20:09:05,10.1.1.4,19,-0.050,-0.050,-0.050,0.000,0.000,0.000
1644350945183154944,2022-02-08-20:09:05,10.1.1.4,19,-0.041,-0.041,-0.041,0.000,0.000,0.000
1644350945302240000,2022-02-08-20:09:05,10.1.1.4,38,-0.030,-0.030,-0.030,0.000,0.000,0.000
1644350945408466176,2022-02-08-20:09:05,10.1.1.4,36,-0.020,-0.020,-0.020,0.000,0.000,0.000
1644350945502098944,2022-02-08-20:09:05,10.1.1.4,30,-0.010,-0.010,-0.010,0.000,0.000,0.000
1644350945612190976,2022-02-08-20:09:05,10.1.1.4,28,0.000,0.000,0.000,0.000,0.000,0.000
1644350945703404800,2022-02-08-20:09:05,10.1.1.4,25,0.010,0.010,0.010,0.000,0.000,0.000
1644350945803087872,2022-02-08-20:09:05,10.1.1.4,22,0.020,0.020,0.020,0.000,0.000,0.000
1644350945921348096,2022-02-08-20:09:05,10.1.1.4,38,0.030,0.030,0.030,0.000,0.000,0.000
1644350946022839040,2022-02-08-20:09:06,10.1.1.4,35,0.040,0.040,0.040,0.000,0.000,0.000
1644350946125547008,2022-02-08-20:09:06,10.1.1.4,33,0.050,0.050,0.050,0.000,0.000,0.000
1644350946223315968,2022-02-08-20:09:06,10.1.1.4,32,0.060,0.060,0.060,0.000,0.000,0.000
1644350946322809856,2022-02-08-20:09:06,10.1.1.4,32,0.070,0.070,0.070,0.000,0.000,0.000
1644350946423037952,2022-02-08-20:09:06,10.1.1.4,31,0.080,0.080,0.080,0.000,0.000,0.000
1644350946523124992,2022-02-08-20:09:06,10.1.1.4,30,0.090,0.090,0.090,0.000,0.000,0.000
1644350946622397952,2022-02-08-20:09:06,10.1.1.4,29,0.100,0.100,0.100,0.000,0.000,0.000
1644350946722841856,2022-02-08-20:09:06,10.1.1.4,28,0.090,0.090,0.090,0.000,0.000,0.000
1644350946823472896,2022-02-08-20:09:06,10.1.1.4,27,0.080,0.080,0.080,0.000,0.000,0.000
1644350946922266880,2022-02-08-20:09:06,10.1.1.4,27,0.070,0.070,0.070,0.000,0.000,0.000
1644350947022840064,2022-02-08-20:09:07,10.1.1.4,25,0.060,0.060,0.060,0.000,0.000,0.000
1644350947122499840,2022-02-08-20:09:07,10.1.1.4,22,0.050,0.050,0.050,0.000,0.000,0.000
1644350947222091008,2022-02-08-20:09:07,10.1.1.4,21,0.040,0.040,0.040,0.000,0.000,0.000
1644350947322248960,2022-02-08-20:09:07,10.1.1.4,21,0.030,0.030,0.030,0.000,0.000,0.000
1644350947421526784,2022-02-08-20:09:07,10.1.1.4,20,0.020,0.020,0.020,0.000,0.000,0.000
1644350947522483968,2022-02-08-20:09:07,10.1.1.4,19,0.010,0.010,0.010,0.000,0.000,0.000
1644350947622435072,2022-02-08-20:09:07,10.1.1.4,19,0.001,0.001,0.001,0.000,0.000,0.000
1644350947742348032,2022-02-08-20:09:07,10.1.1.4,38,-0.010,-0.010,-0.010,0.000,0.000,0.000
1644350947841960960,2022-02-08-20:09:07,10.1.1.4,37,-0.020,-0.020,-0.020,0.000,0.000,0.000
1644350947942209024,2022-02-08-20:09:07,10.1.1.4,36,-0.030,-0.030,-0.030,0.000,0.000,0.000
1644350948041825024,2022-02-08-20:09:08,10.1.1.4,35,-0.040,-0.040,-0.040,0.000,0.000,0.000
1644350948141878016,2022-02-08-20:09:08,10.1.1.4,34,-0.050,-0.050,-0.050,0.000,0.000,0.000
1644350948242311936,2022-02-08-20:09:08,10.1.1.4,33,-0.060,-0.060,-0.060,0.000,0.000,0.000
1644350948342912000,2022-02-08-20:09:08,10.1.1.4,32,-0.070,-0.070,-0.070,0.000,0.000,0.000
1644350948442387200,2022-02-08-20:09:08,10.1.1.4,32,-0.080,-0.080,-0.080,0.000,0.000,0.000
1644350948542491904,2022-02-08-20:09:08,10.1.1.4,29,-0.090,-0.090,-0.090,0.000,0.000,0.000
1644350948823009024,2022-02-08-20:09:08,10.1.1.4,24,-0.100,-0.100,-0.100,0.000,0.000,0.000
1644350948862072832,2022-02-08-20:09:08,10.1.1.4,27,-0.090,-0.090,-0.090,0.000,0.000,0.000
1644350948962737152,2022-02-08-20:09:08,10.1.1.4,19,-0.081,-0.081,-0.081,0.000,0.000,0.000
1644350949082899200,2022-02-08-20:09:09,10.1.1.4,34,-0.070,-0.070,-0.070,0.000,0.000,0.000
1644350949182315008,2022-02-08-20:09:09,10.1.1.4,33,-0.060,-0.060,-0.060,0.000,0.000,0.000
1644350949282635008,2022-02-08-20:09:09,10.1.1.4,33,-0.050,-0.050,-0.050,0.000,0.000,0.000
1644350949381819904,2022-02-08-20:09:09,10.1.1.4,32,-0.040,-0.040,-0.040,0.000,0.000,0.000
1644350949481762816,2022-02-08-20:09:09,10.1.1.4,32,-0.030,-0.030,-0.030,0.000,0.000,0.000
1644350949581795072,2022-02-08-20:09:09,10.1.1.4,31,-0.020,-0.020,-0.020,0.000,0.000,0.000
1644350949682427904,2022-02-08-20:09:09,10.1.1.4,31,-0.010,-0.010,-0.010,0.000,0.000,0.000
1644350949782216192,2022-02-08-20:09:09,10.1.1.4,30,0.000,0.000,0.000,0.000,0.000,0.000
1644350949882206976,2022-02-08-20:09:09,10.1.1.4,27,0.010,0.010,0.010,0.000,0.000,0.000
1644350949989492992,2022-02-08-20:09:09,10.1.1.4,27,0.020,0.020,0.020,0.000,0.000,0.000
1644350950082811136,2022-02-08-20:09:10,10.1.1.4,26,0.030,0.030,0.030,0.000,0.000,0.000
1644350950182560000,2022-02-08-20:09:10,10.1.1.4,26,0.040,0.040,0.040,0.000,0.000,0.000
1644350950282636032,2022-02-08-20:09:10,10.1.1.4,26,0.050,0.050,0.050,0.000,0.000,0.000
1644350950382679040,2022-02-08-20:09:10,10.1.1.4,25,0.060,0.060,0.060,0.000,0.000,0.000
1644350950482772992,2022-02-08-20:09:10,10.1.1.4,25,0.070,0.070,0.070,0.000,0.000,0.000
1644350950582885120,2022-02-08-20:09:10,10.1.1.4,24,0.080,0.080,0.080,0.000,0.000,0.000
1644350950681832192,2022-02-08-20:09:10,10.1.1.4,24,0.090,0.090,0.090,0.000,0.000,0.000
1644350950782341888,2022-02-08-20:09:10,10.1.1.4,23,0.100,0.100,0.100,0.000,0.000,0.000
1644350950882131968,2022-02-08-20:09:10,10.1.1.4,23,0.090,0.090,0.090,0.000,0.000,0.000
1644350950982060800,2022-02-08-20:09:10,10.1.1.4,21,0.080,0.080,0.080,0.000,0.000,0.000
1644350951082089984,2022-02-08-20:09:11,10.1.1.4,21,0.070,0.070,0.070,0.000,0.000,0.000
1644350951181732864,2022-02-08-20:09:11,10.1.1.4,20,0.060,0.060,0.060,0.000,0.000,0.000
1644350951304761856,2022-02-08-20:09:11,10.1.1.4,38,0.050,0.050,0.050,0.000,0.000,0.000
1644350951401575936,2022-02-08-20:09:11,10.1.1.4,38,0.040,0.040,0.040,0.000,0.000,0.000
1644350951502150912,2022-02-08-20:09:11,10.1.1.4,37,0.030,0.030,0.030,0.000,0.000,0.000
1644350951602544128,2022-02-08-20:09:11,10.1.1.4,36,0.020,0.020,0.020,0.000,0.000,0.000
1644350951702312960,2022-02-08-20:09:11,10.1.1.4,36,0.010,0.010,0.010,0.000,0.000,0.000
1644350951801734912,2022-02-08-20:09:11,10.1.1.4,35,0.000,0.000,0.000,0.000,0.000,0.000
1644350951901954816,2022-02-08-20:09:11,10.1.1.4,35,-0.010,-0.010,-0.010,0.000,0.000,0.000
1644350952002595072,2022-02-08-20:09:12,10.1.1.4,34,-0.020,-0.020,-0.020,0.000,0.000,0.000
1644350952101495040,2022-02-08-20:09:12,10.1.1.4,34,-0.030,-0.030,-0.030,0.000,0.000,0.000
1644350952201675776,2022-02-08-20:09:12,10.1.1.4,34,-0.040,-0.040,-0.040,0.000,0.000,0.000
1644350952301664000,2022-02-08-20:09:12,10.1.1.4,33,-0.050,-0.050,-0.050,0.000,0.000,0.000
1644350952402238976,2022-02-08-20:09:12,10.1.1.4,33,-0.060,-0.060,-0.060,0.000,0.000,0.000
1644350952502319104,2022-02-08-20:09:12,10.1.1.4,32,-0.070,-0.070,-0.070,0.000,0.000,0.000
1644350952603254016,2022-02-08-20:09:12,10.1.1.4,32,-0.080,-0.080,-0.080,0.000,0.000,0.000
1644350952701415936,2022-02-08-20:09:12,10.1.1.4,30,-0.090,-0.090,-0.090,0.000,0.000,0.000
1644350952801511168,2022-02-08-20:09:12,10.1.1.4,29,-0.100,-0.100,-0.100,0.000,0.000,0.000
1644350952901979904,2022-02-08-20:09:12,10.1.1.4,28,-0.090,-0.090,-0.090,0.000,0.000,0.000
1644350953002177024,2022-02-08-20:09:13,10.1.1.4,27,-0.080,-0.080,-0.080,0.000,0.000,0.000
1644350953102142976,2022-02-08-20:09:13,10.1.1.4,27,-0.070,-0.070,-0.070,0.000,0.000,0.000
1644350953202331904,2022-02-08-20:09:13,10.1.1.4,27,-0.060,-0.060,-0.060,0.000,0.000,0.000
1644350953302561024,2022-02-08-20:09:13,10.1.1.4,27,-0.050,-0.050,-0.050,0.000,0.000,0.000
1644350953402242816,2022-02-08-20:09:13,10.1.1.4,26,-0.040,-0.040,-0.040,0.000,0.000,0.000
1644350953501530880,2022-02-08-20:09:13,10.1.1.4,25,-0.030,-0.030,-0.030,0.000,0.000,0.000
1644350953601658112,2022-02-08-20:09:13,10.1.1.4,25,-0.020,-0.020,-0.020,0.000,0.000,0.000
1644350953702285056,2022-02-08-20:09:13,10.1.1.4,24,-0.010,-0.010,-0.010,0.000,0.000,0.000
1644350953801426944,2022-02-08-20:09:13,10.1.1.4,23,0.000,0.000,0.000,0.000,0.000,0.000
1644350953901997056,2022-02-08-20:09:13,10.1.1.4,23,0.010,0.010,0.010,0.000,0.000,0.000
1644350954002340096,2022-02-08-20:09:14,10.1.1.4,23,0.020,0.020,0.020,0.000,0.000,0.000
1644350954101735168,2022-02-08-20:09:14,10.1.1.4,22,0.030,0.030,0.030,0.000,0.000,0.000
1644350954202071040,2022-02-08-20:09:14,10.1.1.4,21,0.040,0.040,0.040,0.000,0.000,0.000
1644350954302501888,2022-02-08-20:09:14,10.1.1.4,20,0.050,0.050,0.050,0.000,0.000,0.000
1644350954402543104,2022-02-08-20:09:14,10.1.1.4,20,0.060,0.060,0.060,0.000,0.000,0.000
1644350954502690048,2022-02-08-20:09:14,10.1.1.4,20,0.070,0.070,0.070,0.000,0.000,0.000
1644350954604820992,2022-02-08-20:09:14,10.1.1.4,19,0.079,0.079,0.079,0.000,0.000,0.000
1644350954722525952,2022-02-08-20:09:14,10.1.1.4,38,0.090,0.090,0.090,0.000,0.000,0.000
1644350954822547968,2022-02-08-20:09:14,10.1.1.4,36,0.100,0.100,0.100,0.000,0.000,0.000
1644350954922144000,2022-02-08-20:09:14,10.1.1.4,36,0.090,0.090,0.090,0.000,0.000,0.000
1644350955022768128,2022-02-08-20:09:15,10.1.1.4,36,0.080,0.080,0.080,0.000,0.000,0.000
1644350955122068992,2022-02-08-20:09:15,10.1.1.4,35,0.070,0.070,0.070,0.000,0.000,0.000
1644350955222249984,2022-02-08-20:09:15,10.1.1.4,35,0.060,0.060,0.060,0.000,0.000,0.000
1644350955322170880,2022-02-08-20:09:15,10.1.1.4,35,0.050,0.050,0.050,0.000,0.000,0.000
1644350955421523200,2022-02-08-20:09:15,10.1.1.4,34,0.040,0.040,0.040,0.000,0.000,0.000
1644350955521832960,2022-02-08-20:09:15,10.1.1.4,33,0.030,0.030,0.030,0.000,0.000,0.000
1644350955623433984,2022-02-08-20:09:15,10.1.1.4,33,0.020,0.020,0.020,0.000,0.000,0.000
1644350955721815040,2022-02-08-20:09:15,10.1.1.4,32,0.010,0.010,0.010,0.000,0.000,0.000
1644350955822427136,2022-02-08-20:09:15,10.1.1.4,31,0.000,0.000,0.000,0.000,0.000,0.000
1644350955922204928,2022-02-08-20:09:15,10.1.1.4,31,-0.010,-0.010,-0.010,0.000,0.000,0.000
1644350956022569984,2022-02-08-20:09:16,10.1.1.4,30,-0.020,-0.020,-0.020,0.000,0.000,0.000
1644350956122323968,2022-02-08-20:09:16,10.1.1.4,30,-0.030,-0.030,-0.030,0.000,0.000,0.000
1644350956221359104,2022-02-08-20:09:16,10.1.1.4,29,-0.040,-0.040,-0.040,0.000,0.000,0.000
1644350956321954048,2022-02-08-20:09:16,10.1.1.4,28,-0.050,-0.050,-0.050,0.000,0.000,0.000
1644350956422096896,2022-02-08-20:09:16,10.1.1.4,28,-0.060,-0.060,-0.060,0.000,0.000,0.000
1644350956521743104,2022-02-08-20:09:16,10.1.1.4,27,-0.070,-0.070,-0.070,0.000,0.000,0.000
1644350956622347008,2022-02-08-20:09:16,10.1.1.4,27,-0.080,-0.080,-0.080,0.000,0.000,0.000
1644350956722216960,2022-02-08-20:09:16,10.1.1.4,26,-0.090,-0.090,-0.090,0.000,0.000,0.000
1644350956822066944,2022-02-08-20:09:16,10.1.1.4,26,-0.100,-0.100,-0.100,0.000,0.000,0.000
1644350956922472960,2022-02-08-20:09:16,10.1.1.4,26,-0.090,-0.090,-0.090,0.000,0.000,0.000
1644350957041806080,2022-02-08-20:09:17,10.1.1.4,32,-0.080,-0.080,-0.080,0.000,0.000,0.000
1644350957141366016,2022-02-08-20:09:17,10.1.1.4,31,-0.070,-0.070,-0.070,0.000,0.000,0.000
1644350957302787072,2022-02-08-20:09:17,10.1.1.4,34,-0.060,-0.060,-0.060,0.000,0.000,0.000
1644350957415472128,2022-02-08-20:09:17,10.1.1.4,23,-0.050,-0.050,-0.050,0.000,0.000,0.000
1644350957502018816,2022-02-08-20:09:17,10.1.1.4,20,-0.040,-0.040,-0.040,0.000,0.000,0.000
1644350957601772032,2022-02-08-20:09:17,10.1.1.4,19,-0.030,-0.030,-0.030,0.000,0.000,0.000
1644350957731174912,2022-02-08-20:09:17,10.1.1.4,35,-0.020,-0.020,-0.020,0.000,0.000,0.000
1644350957821477888,2022-02-08-20:09:17,10.1.1.4,35,-0.010,-0.010,-0.010,0.000,0.000,0.000
1644350957922514944,2022-02-08-20:09:17,10.1.1.4,34,0.000,0.000,0.000,0.000,0.000,0.000
1644350958121409792,2022-02-08-20:09:18,10.1.1.4,22,0.020,0.020,0.020,0.000,0.000,0.000
1644350958234093824,2022-02-08-20:09:18,10.1.1.4,21,0.030,0.030,0.030,0.000,0.000,0.000
1644350958321538048,2022-02-08-20:09:18,10.1.1.4,19,0.040,0.040,0.040,0.000,0.000,0.000
1644350958421969920,2022-02-08-20:09:18,10.1.1.4,18,0.049,0.049,0.049,0.000,0.000,0.000
1644350958542115072,2022-02-08-20:09:18,10.1.1.4,36,0.060,0.060,0.060,0.000,0.000,0.000
1644350958642324992,2022-02-08-20:09:18,10.1.1.4,35,0.070,0.070,0.070,0.000,0.000,0.000
1644350958742459904,2022-02-08-20:09:18,10.1.1.4,33,0.080,0.080,0.080,0.000,0.000,0.000
1644350958841867008,2022-02-08-20:09:18,10.1.1.4,32,0.090,0.090,0.090,0.000,0.000,0.000
1644350958942710016,2022-02-08-20:09:18,10.1.1.4,32,0.100,0.100,0.100,0.000,0.000,0.000
1644350959042402048,2022-02-08-20:09:19,10.1.1.4,31,0.090,0.090,0.090,0.000,0.000,0.000
1644350959144658176,2022-02-08-20:09:19,10.1.1.4,28,0.080,0.080,0.080,0.000,0.000,0.000
1644350959242183936,2022-02-08-20:09:19,10.1.1.4,28,0.070,0.070,0.070,0.000,0.000,0.000
1644350959342348032,2022-02-08-20:09:19,10.1.1.4,27,0.060,0.060,0.060,0.000,0.000,0.000
1644350959442200832,2022-02-08-20:09:19,10.1.1.4,26,0.050,0.050,0.050,0.000,0.000,0.000
1644350959541857024,2022-02-08-20:09:19,10.1.1.4,25,0.040,0.040,0.040,0.000,0.000,0.000
1644350959642736896,2022-02-08-20:09:19,10.1.1.4,23,0.030,0.030,0.030,0.000,0.000,0.000
1644350959742050048,2022-02-08-20:09:19,10.1.1.4,22,0.020,0.020,0.020,0.000,0.000,0.000
1644350959842482176,2022-02-08-20:09:19,10.1.1.4,20,0.010,0.010,0.010,0.000,0.000,0.000
1644350959962411008,2022-02-08-20:09:19,10.1.1.4,38,0.000,0.000,0.000,0.000,0.000,0.000
1644350960063163136,2022-02-08-20:09:20,10.1.1.4,37,-0.010,-0.010,-0.010,0.000,0.000,0.000
1644350960162439168,2022-02-08-20:09:20,10.1.1.4,34,-0.020,-0.020,-0.020,0.000,0.000,0.000
1644350960262940928,2022-02-08-20:09:20,10.1.1.4,31,-0.030,-0.030,-0.030,0.000,0.000,0.000
1644350960362687232,2022-02-08-20:09:20,10.1.1.4,29,-0.040,-0.040,-0.040,0.000,0.000,0.000
1644350960462401024,2022-02-08-20:09:20,10.1.1.4,28,-0.050,-0.050,-0.050,0.000,0.000,0.000
1644350960562685952,2022-02-08-20:09:20,10.1.1.4,27,-0.060,-0.060,-0.060,0.000,0.000,0.000
1644350960663126016,2022-02-08-20:09:20,10.1.1.4,27,-0.070,-0.070,-0.070,0.000,0.000,0.000
1644350960761921024,2022-02-08-20:09:20,10.1.1.4,26,-0.080,-0.080,-0.080,0.000,0.000,0.000
1644350960862097152,2022-02-08-20:09:20,10.1.1.4,24,-0.090,-0.090,-0.090,0.000,0.000,0.000
1644350960961692928,2022-02-08-20:09:20,10.1.1.4,22,-0.100,-0.100,-0.100,0.000,0.000,0.000
1644350961061918976,2022-02-08-20:09:21,10.1.1.4,21,-0.090,-0.090,-0.090,0.000,0.000,0.000
1644350961162228224,2022-02-08-20:09:21,10.1.1.4,20,-0.080,-0.080,-0.080,0.000,0.000,0.000
1644350961262406144,2022-02-08-20:09:21,10.1.1.4,20,-0.070,-0.070,-0.070,0.000,0.000,0.000
1644350961382964992,2022-02-08-20:09:21,10.1.1.4,38,-0.060,-0.060,-0.060,0.000,0.000,0.000
1644350961482018048,2022-02-08-20:09:21,10.1.1.4,37,-0.050,-0.050,-0.050,0.000,0.000,0.000
1644350961582739968,2022-02-08-20:09:21,10.1.1.4,36,-0.040,-0.040,-0.040,0.000,0.000,0.000
1644350961682033152,2022-02-08-20:09:21,10.1.1.4,36,-0.030,-0.030,-0.030,0.000,0.000,0.000
1644350961782469120,2022-02-08-20:09:21,10.1.1.4,35,-0.020,-0.020,-0.020,0.000,0.000,0.000
1644350961881510144,2022-02-08-20:09:21,10.1.1.4,34,-0.010,-0.010,-0.010,0.000,0.000,0.000
1644350961982027008,2022-02-08-20:09:21,10.1.1.4,34,0.000,0.000,0.000,0.000,0.000,0.000
1644350962082287104,2022-02-08-20:09:22,10.1.1.4,32,0.010,0.010,0.010,0.000,0.000,0.000
1644350962181780224,2022-02-08-20:09:22,10.1.1.4,32,0.020,0.020,0.020,0.000,0.000,0.000
1644350962281353984,2022-02-08-20:09:22,10.1.1.4,31,0.030,0.030,0.030,0.000,0.000,0.000
1644350962381537792,2022-02-08-20:09:22,10.1.1.4,30,0.040,0.040,0.040,0.000,0.000,0.000
1644350962481248000,2022-02-08-20:09:22,10.1.1.4,29,0.050,0.050,0.050,0.000,0.000,0.000
1644350962581860096,2022-02-08-20:09:22,10.1.1.4,27,0.060,0.060,0.060,0.000,0.000,0.000
1644350962681843968,2022-02-08-20:09:22,10.1.1.4,27,0.070,0.070,0.070,0.000,0.000,0.000
1644350962781299200,2022-02-08-20:09:22,10.1.1.4,26,0.080,0.080,0.080,0.000,0.000,0.000
1644350962881979904,2022-02-08-20:09:22,10.1.1.4,25,0.090,0.090,0.090,0.000,0.000,0.000
1644350962981439232,2022-02-08-20:09:22,10.1.1.4,24,0.100,0.100,0.100,0.000,0.000,0.000
1644350963082427136,2022-02-08-20:09:23,10.1.1.4,23,0.090,0.090,0.090,0.000,0.000,0.000
1644350963197125888,2022-02-08-20:09:23,10.1.1.4,22,0.080,0.080,0.080,0.000,0.000,0.000
1644350963281480192,2022-02-08-20:09:23,10.1.1.4,21,0.070,0.070,0.070,0.000,0.000,0.000
1644350963382093824,2022-02-08-20:09:23,10.1.1.4,20,0.060,0.060,0.060,0.000,0.000,0.000
1644350963481683968,2022-02-08-20:09:23,10.1.1.4,19,0.050,0.050,0.050,0.000,0.000,0.000
1644350963646827008,2022-02-08-20:09:23,10.1.1.4,39,0.040,0.040,0.040,0.000,0.000,0.000
1644350963702083072,2022-02-08-20:09:23,10.1.1.4,38,0.030,0.030,0.030,0.000,0.000,0.000
1644350963802094848,2022-02-08-20:09:23,10.1.1.4,37,0.020,0.020,0.020,0.000,0.000,0.000
1644350963901483008,2022-02-08-20:09:23,10.1.1.4,36,0.010,0.010,0.010,0.000,0.000,0.000
1644350964002567168,2022-02-08-20:09:24,10.1.1.4,35,0.000,0.000,0.000,0.000,0.000,0.000
1644350964101870080,2022-02-08-20:09:24,10.1.1.4,35,-0.010,-0.010,-0.010,0.000,0.000,0.000
1644350964202188032,2022-02-08-20:09:24,10.1.1.4,33,-0.020,-0.020,-0.020,0.000,0.000,0.000
1644350964302212864,2022-02-08-20:09:24,10.1.1.4,33,-0.030,-0.030,-0.030,0.000,0.000,0.000
1644350964402430976,2022-02-08-20:09:24,10.1.1.4,32,-0.040,-0.040,-0.040,0.000,0.000,0.000
1644350964502516992,2022-02-08-20:09:24,10.1.1.4,32,-0.050,-0.050,-0.050,0.000,0.000,0.000
1644350964601974016,2022-02-08-20:09:24,10.1.1.4,31,-0.060,-0.060,-0.060,0.000,0.000,0.000
1644350964702238976,2022-02-08-20:09:24,10.1.1.4,30,-0.070,-0.070,-0.070,0.000,0.000,0.000
1644350964802275840,2022-02-08-20:09:24,10.1.1.4,29,-0.080,-0.080,-0.080,0.000,0.000,0.000
1644350964902376960,2022-02-08-20:09:24,10.1.1.4,28,-0.090,-0.090,-0.090,0.000,0.000,0.000
1644350965003358976,2022-02-08-20:09:25,10.1.1.4,27,-0.100,-0.100,-0.100,0.000,0.000,0.000
1644350965102116096,2022-02-08-20:09:25,10.1.1.4,27,-0.090,-0.090,-0.090,0.000,0.000,0.000
1644350965202511104,2022-02-08-20:09:25,10.1.1.4,26,-0.080,-0.080,-0.080,0.000,0.000,0.000
1644350965302128128,2022-02-08-20:09:25,10.1.1.4,24,-0.070,-0.070,-0.070,0.000,0.000,0.000
1644350965402145024,2022-02-08-20:09:25,10.1.1.4,23,-0.060,-0.060,-0.060,0.000,0.000,0.000
1644350965502319104,2022-02-08-20:09:25,10.1.1.4,23,-0.050,-0.050,-0.050,0.000,0.000,0.000
1644350965602011904,2022-02-08-20:09:25,10.1.1.4,22,-0.040,-0.040,-0.040,0.000,0.000,0.000
1644350965702274048,2022-02-08-20:09:25,10.1.1.4,22,-0.030,-0.030,-0.030,0.000,0.000,0.000
1644350965801646080,2022-02-08-20:09:25,10.1.1.4,20,-0.020,-0.020,-0.020,0.000,0.000,0.000
1644350965902240000,2022-02-08-20:09:25,10.1.1.4,19,-0.010,-0.010,-0.010,0.000,0.000,0.000
1644350966001859840,2022-02-08-20:09:26,10.1.1.4,19,-0.000,-0.000,-0.000,0.000,0.000,0.000
1644350966122020864,2022-02-08-20:09:26,10.1.1.4,38,0.010,0.010,0.010,0.000,0.000,0.000
1644350966221619968,2022-02-08-20:09:26,10.1.1.4,36,0.020,0.020,0.020,0.000,0.000,0.000
1644350966321949952,2022-02-08-20:09:26,10.1.1.4,36,0.030,0.030,0.030,0.000,0.000,0.000
1644350966422141952,2022-02-08-20:09:26,10.1.1.4,35,0.040,0.040,0.040,0.000,0.000,0.000
1644350966522064896,2022-02-08-20:09:26,10.1.1.4,33,0.050,0.050,0.050,0.000,0.000,0.000
1644350966621797120,2022-02-08-20:09:26,10.1.1.4,32,0.060,0.060,0.060,0.000,0.000,0.000
1644350966721523968,2022-02-08-20:09:26,10.1.1.4,32,0.070,0.070,0.070,0.000,0.000,0.000
1644350966822267904,2022-02-08-20:09:26,10.1.1.4,31,0.080,0.080,0.080,0.000,0.000,0.000
1644350966922338048,2022-02-08-20:09:26,10.1.1.4,31,0.090,0.090,0.090,0.000,0.000,0.000
1644350967021865984,2022-02-08-20:09:27,10.1.1.4,30,0.100,0.100,0.100,0.000,0.000,0.000
1644350967122594048,2022-02-08-20:09:27,10.1.1.4,29,0.090,0.090,0.090,0.000,0.000,0.000
1644350967221582848,2022-02-08-20:09:27,10.1.1.4,28,0.080,0.080,0.080,0.000,0.000,0.000
1644350967321615104,2022-02-08-20:09:27,10.1.1.4,27,0.070,0.070,0.070,0.000,0.000,0.000
1644350967422016000,2022-02-08-20:09:27,10.1.1.4,27,0.060,0.060,0.060,0.000,0.000,0.000
1644350967522473984,2022-02-08-20:09:27,10.1.1.4,27,0.050,0.050,0.050,0.000,0.000,0.000
1644350967622066944,2022-02-08-20:09:27,10.1.1.4,26,0.040,0.040,0.040,0.000,0.000,0.000
1644350967722489088,2022-02-08-20:09:27,10.1.1.4,25,0.030,0.030,0.030,0.000,0.000,0.000
1644350967822545152,2022-02-08-20:09:27,10.1.1.4,25,0.020,0.020,0.020,0.000,0.000,0.000
1644350967922211840,2022-02-08-20:09:27,10.1.1.4,25,0.010,0.010,0.010,0.000,0.000,0.000
1644350968022403840,2022-02-08-20:09:28,10.1.1.4,24,0.000,0.000,0.000,0.000,0.000,0.000
1644350968122049024,2022-02-08-20:09:28,10.1.1.4,23,-0.010,-0.010,-0.010,0.000,0.000,0.000
1644350968221409024,2022-02-08-20:09:28,10.1.1.4,22,-0.020,-0.020,-0.020,0.000,0.000,0.000
1644350968321743872,2022-02-08-20:09:28,10.1.1.4,21,-0.030,-0.030,-0.030,0.000,0.000,0.000
1644350968422473984,2022-02-08-20:09:28,10.1.1.4,19,-0.040,-0.040,-0.040,0.000,0.000,0.000
1644350968522580992,2022-02-08-20:09:28,10.1.1.4,19,-0.050,-0.050,-0.050,0.000,0.000,0.000
1644350968621728000,2022-02-08-20:09:28,10.1.1.4,19,-0.059,-0.059,-0.059,0.000,0.000,0.000
1644350968741508864,2022-02-08-20:09:28,10.1.1.4,37,-0.070,-0.070,-0.070,0.000,0.000,0.000
1644350968842252032,2022-02-08-20:09:28,10.1.1.4,36,-0.080,-0.080,-0.080,0.000,0.000,0.000
1644350968942068224,2022-02-08-20:09:28,10.1.1.4,36,-0.090,-0.090,-0.090,0.000,0.000,0.000
1644350969041865984,2022-02-08-20:09:29,10.1.1.4,35,-0.100,-0.100,-0.100,0.000,0.000,0.000
1644350969141993984,2022-02-08-20:09:29,10.1.1.4,34,-0.090,-0.090,-0.090,0.000,0.000,0.000
1644350969241616896,2022-02-08-20:09:29,10.1.1.4,33,-0.080,-0.080,-0.080,0.000,0.000,0.000
1644350969343208960,2022-02-08-20:09:29,10.1.1.4,32,-0.070,-0.070,-0.070,0.000,0.000,0.000
1644350969442624000,2022-02-08-20:09:29,10.1.1.4,32,-0.060,-0.060,-0.060,0.000,0.000,0.000
1644350969543211008,2022-02-08-20:09:29,10.1.1.4,31,-0.050,-0.050,-0.050,0.000,0.000,0.000
1644350969643488000,2022-02-08-20:09:29,10.1.1.4,31,-0.040,-0.040,-0.040,0.000,0.000,0.000
1644350969743107072,2022-02-08-20:09:29,10.1.1.4,30,-0.030,-0.030,-0.030,0.000,0.000,0.000
1644350969843225088,2022-02-08-20:09:29,10.1.1.4,29,-0.020,-0.020,-0.020,0.000,0.000,0.000
1644350969943814144,2022-02-08-20:09:29,10.1.1.4,27,-0.010,-0.010,-0.010,0.000,0.000,0.000
1644350970043706880,2022-02-08-20:09:30,10.1.1.4,27,0.000,0.000,0.000,0.000,0.000,0.000
1644350970142968064,2022-02-08-20:09:30,10.1.1.4,26,0.010,0.010,0.010,0.000,0.000,0.000
1644350970243294976,2022-02-08-20:09:30,10.1.1.4,26,0.020,0.020,0.020,0.000,0.000,0.000
1644350970342515968,2022-02-08-20:09:30,10.1.1.4,25,0.030,0.030,0.030,0.000,0.000,0.000
1644350970442388992,2022-02-08-20:09:30,10.1.1.4,25,0.040,0.040,0.040,0.000,0.000,0.000
1644350970542675968,2022-02-08-20:09:30,10.1.1.4,25,0.050,0.050,0.050,0.000,0.000,0.000
1644350970643075072,2022-02-08-20:09:30,10.1.1.4,24,0.060,0.060,0.060,0.000,0.000,0.000
1644350970743155968,2022-02-08-20:09:30,10.1.1.4,23,0.070,0.070,0.070,0.000,0.000,0.000
1644350970842572032,2022-02-08-20:09:30,10.1.1.4,23,0.080,0.080,0.080,0.000,0.000,0.000
1644350970943152896,2022-02-08-20:09:30,10.1.1.4,23,0.090,0.090,0.090,0.000,0.000,0.000
1644350971043715072,2022-02-08-20:09:31,10.1.1.4,22,0.100,0.100,0.100,0.000,0.000,0.000
1644350971142829056,2022-02-08-20:09:31,10.1.1.4,21,0.090,0.090,0.090,0.000,0.000,0.000
1644350971243136768,2022-02-08-20:09:31,10.1.1.4,21,0.080,0.080,0.080,0.000,0.000,0.000
1644350971345128960,2022-02-08-20:09:31,10.1.1.4,20,0.070,0.070,0.070,0.000,0.000,0.000
1644350971443508992,2022-02-08-20:09:31,10.1.1.4,19,0.061,0.061,0.061,0.000,0.000,0.000
1644350971543122176,2022-02-08-20:09:31,10.1.1.4,19,0.050,0.050,0.050,0.000,0.000,0.000
1644350971664505088,2022-02-08-20:09:31,10.1.1.4,37,0.040,0.040,0.040,0.000,0.000,0.000
1644350971763282944,2022-02-08-20:09:31,10.1.1.4,35,0.030,0.030,0.030,0.000,0.000,0.000
1644350971863136000,2022-02-08-20:09:31,10.1.1.4,35,0.020,0.020,0.020,0.000,0.000,0.000
1644350971967493888,2022-02-08-20:09:31,10.1.1.4,34,0.010,0.010,0.010,0.000,0.000,0.000
1644350972062437120,2022-02-08-20:09:32,10.1.1.4,33,0.000,0.000,0.000,0.000,0.000,0.000
1644350972162693120,2022-02-08-20:09:32,10.1.1.4,33,-0.010,-0.010,-0.010,0.000,0.000,0.000
1644350972262873856,2022-02-08-20:09:32,10.1.1.4,32,-0.020,-0.020,-0.020,0.000,0.000,0.000
1644350972363155968,2022-02-08-20:09:32,10.1.1.4,31,-0.030,-0.030,-0.030,0.000,0.000,0.000
1644350972463293184,2022-02-08-20:09:32,10.1.1.4,31,-0.040,-0.040,-0.040,0.000,0.000,0.000
1644350972564331008,2022-02-08-20:09:32,10.1.1.4,30,-0.050,-0.050,-0.050,0.000,0.000,0.000
1644350972662255104,2022-02-08-20:09:32,10.1.1.4,28,-0.060,-0.060,-0.060,0.000,0.000,0.000
1644350972763514112,2022-02-08-20:09:32,10.1.1.4,27,-0.070,-0.070,-0.070,0.000,0.000,0.000
1644350972863471104,2022-02-08-20:09:32,10.1.1.4,27,-0.080,-0.080,-0.080,0.000,0.000,0.000
1644350972963091968,2022-02-08-20:09:32,10.1.1.4,26,-0.090,-0.090,-0.090,0.000,0.000,0.000
1644350973063503872,2022-02-08-20:09:33,10.1.1.4,26,-0.100,-0.100,-0.100,0.000,0.000,0.000
1644350973161750016,2022-02-08-20:09:33,10.1.1.4,25,-0.090,-0.090,-0.090,0.000,0.000,0.000
1644350973263817984,2022-02-08-20:09:33,10.1.1.4,25,-0.080,-0.080,-0.080,0.000,0.000,0.000
1644350973362767104,2022-02-08-20:09:33,10.1.1.4,24,-0.070,-0.070,-0.070,0.000,0.000,0.000
1644350973462859008,2022-02-08-20:09:33,10.1.1.4,22,-0.060,-0.060,-0.060,0.000,0.000,0.000
1644350973564434176,2022-02-08-20:09:33,10.1.1.4,22,-0.050,-0.050,-0.050,0.000,0.000,0.000
1644350973663977984,2022-02-08-20:09:33,10.1.1.4,21,-0.040,-0.040,-0.040,0.000,0.000,0.000
1644350973762777088,2022-02-08-20:09:33,10.1.1.4,21,-0.030,-0.030,-0.030,0.000,0.000,0.000
1644350973887236096,2022-02-08-20:09:33,10.1.1.4,19,-0.020,-0.020,-0.020,0.000,0.000,0.000
1644350973963233024,2022-02-08-20:09:33,10.1.1.4,19,-0.011,-0.011,-0.011,0.000,0.000,0.000
1644350974081955840,2022-02-08-20:09:34,10.1.1.4,38,0.000,0.000,0.000,0.000,0.000,0.000
1644350974182487040,2022-02-08-20:09:34,10.1.1.4,37,0.010,0.010,0.010,0.000,0.000,0.000
1644350974281725952,2022-02-08-20:09:34,10.1.1.4,36,0.020,0.020,0.020,0.000,0.000,0.000
1644350974383599872,2022-02-08-20:09:34,10.1.1.4,36,0.030,0.030,0.030,0.000,0.000,0.000
1644350974482337024,2022-02-08-20:09:34,10.1.1.4,35,0.040,0.040,0.040,0.000,0.000,0.000
1644350974582631168,2022-02-08-20:09:34,10.1.1.4,34,0.050,0.050,0.050,0.000,0.000,0.000
1644350974682071808,2022-02-08-20:09:34,10.1.1.4,34,0.060,0.060,0.060,0.000,0.000,0.000
1644350974783350016,2022-02-08-20:09:34,10.1.1.4,33,0.070,0.070,0.070,0.000,0.000,0.000
1644350974882425088,2022-02-08-20:09:34,10.1.1.4,31,0.080,0.080,0.080,0.000,0.000,0.000
1644350974982262016,2022-02-08-20:09:34,10.1.1.4,31,0.090,0.090,0.090,0.000,0.000,0.000
1644350975082089984,2022-02-08-20:09:35,10.1.1.4,30,0.100,0.100,0.100,0.000,0.000,0.000
1644350975182679808,2022-02-08-20:09:35,10.1.1.4,29,0.090,0.090,0.090,0.000,0.000,0.000
1644350975282407936,2022-02-08-20:09:35,10.1.1.4,28,0.080,0.080,0.080,0.000,0.000,0.000
1644350975442584064,2022-02-08-20:09:35,10.1.1.4,25,0.070,0.070,0.070,0.000,0.000,0.000
1644350975543898112,2022-02-08-20:09:35,10.1.1.4,21,0.060,0.060,0.060,0.000,0.000,0.000
1644350975642638848,2022-02-08-20:09:35,10.1.1.4,20,0.050,0.050,0.050,0.000,0.000,0.000
1644350975743124992,2022-02-08-20:09:35,10.1.1.4,19,0.040,0.040,0.040,0.000,0.000,0.000
1644350975843187968,2022-02-08-20:09:35,10.1.1.4,19,0.031,0.031,0.031,0.000,0.000,0.000
1644350976062700032,2022-02-08-20:09:36,10.1.1.4,26,0.010,0.010,0.010,0.000,0.000,0.000
1644350976188737024,2022-02-08-20:09:36,10.1.1.4,25,0.000,0.000,0.000,0.000,0.000,0.000
1644350976263485952,2022-02-08-20:09:36,10.1.1.4,24,-0.010,-0.010,-0.010,0.000,0.000,0.000
1644350976364957184,2022-02-08-20:09:36,10.1.1.4,24,-0.020,-0.020,-0.020,0.000,0.000,0.000
1644350976468961024,2022-02-08-20:09:36,10.1.1.4,20,-0.030,-0.030,-0.030,0.000,0.000,0.000
1644350976561949952,2022-02-08-20:09:36,10.1.1.4,19,-0.040,-0.040,-0.040,0.000,0.000,0.000
1644350976682009856,2022-02-08-20:09:36,10.1.1.4,38,-0.050,-0.050,-0.050,0.000,0.000,0.000
1644350976782066944,2022-02-08-20:09:36,10.1.1.4,38,-0.060,-0.060,-0.060,0.000,0.000,0.000
1644350976882062848,2022-02-08-20:09:36,10.1.1.4,37,-0.070,-0.070,-0.070,0.000,0.000,0.000
1644350976981564160,2022-02-08-20:09:36,10.1.1.4,36,-0.080,-0.080,-0.080,0.000,0.000,0.000
1644350977082458112,2022-02-08-20:09:37,10.1.1.4,35,-0.090,-0.090,-0.090,0.000,0.000,0.000
1644350977184557056,2022-02-08-20:09:37,10.1.1.4,33,-0.100,-0.100,-0.100,0.000,0.000,0.000
1644350977302472960,2022-02-08-20:09:37,10.1.1.4,25,-0.090,-0.090,-0.090,0.000,0.000,0.000
1644350977402790144,2022-02-08-20:09:37,10.1.1.4,25,-0.080,-0.080,-0.080,0.000,0.000,0.000
1644350977502850048,2022-02-08-20:09:37,10.1.1.4,24,-0.070,-0.070,-0.070,0.000,0.000,0.000
1644350977602027008,2022-02-08-20:09:37,10.1.1.4,23,-0.060,-0.060,-0.060,0.000,0.000,0.000
1644350977702807808,2022-02-08-20:09:37,10.1.1.4,23,-0.050,-0.050,-0.050,0.000,0.000,0.000
1644350977803059968,2022-02-08-20:09:37,10.1.1.4,22,-0.040,-0.040,-0.040,0.000,0.000,0.000
1644350977922780928,2022-02-08-20:09:37,10.1.1.4,30,-0.030,-0.030,-0.030,0.000,0.000,0.000
1644350978022274048,2022-02-08-20:09:38,10.1.1.4,29,-0.020,-0.020,-0.020,0.000,0.000,0.000
1644350978122925056,2022-02-08-20:09:38,10.1.1.4,28,-0.010,-0.010,-0.010,0.000,0.000,0.000
1644350978222543104,2022-02-08-20:09:38,10.1.1.4,27,0.000,0.000,0.000,0.000,0.000,0.000
1644350978322560000,2022-02-08-20:09:38,10.1.1.4,26,0.010,0.010,0.010,0.000,0.000,0.000
1644350978422590976,2022-02-08-20:09:38,10.1.1.4,25,0.020,0.020,0.020,0.000,0.000,0.000
1644350978523536896,2022-02-08-20:09:38,10.1.1.4,24,0.030,0.030,0.030,0.000,0.000,0.000
1644350978622530048,2022-02-08-20:09:38,10.1.1.4,24,0.040,0.040,0.040,0.000,0.000,0.000
1644350978723216896,2022-02-08-20:09:38,10.1.1.4,21,0.050,0.050,0.050,0.000,0.000,0.000
1644350978824774144,2022-02-08-20:09:38,10.1.1.4,21,0.060,0.060,0.060,0.000,0.000,0.000
1644350978922774016,2022-02-08-20:09:38,10.1.1.4,18,0.069,0.069,0.069,0.000,0.000,0.000
1644350979042840832,2022-02-08-20:09:39,10.1.1.4,38,0.080,0.080,0.080,0.000,0.000,0.000
1644350979142671104,2022-02-08-20:09:39,10.1.1.4,36,0.090,0.090,0.090,0.000,0.000,0.000
1644350979242672896,2022-02-08-20:09:39,10.1.1.4,35,0.100,0.100,0.100,0.000,0.000,0.000
1644350979343353088,2022-02-08-20:09:39,10.1.1.4,35,0.090,0.090,0.090,0.000,0.000,0.000
1644350979442702080,2022-02-08-20:09:39,10.1.1.4,33,0.080,0.080,0.080,0.000,0.000,0.000
1644350979543521792,2022-02-08-20:09:39,10.1.1.4,31,0.070,0.070,0.070,0.000,0.000,0.000
1644350979642914048,2022-02-08-20:09:39,10.1.1.4,31,0.060,0.060,0.060,0.000,0.000,0.000
1644350979743112960,2022-02-08-20:09:39,10.1.1.4,26,0.050,0.050,0.050,0.000,0.000,0.000
1644350979844877056,2022-02-08-20:09:39,10.1.1.4,25,0.040,0.040,0.040,0.000,0.000,0.000
1644350979942543872,2022-02-08-20:09:39,10.1.1.4,24,0.030,0.030,0.030,0.000,0.000,0.000
1644350980042411008,2022-02-08-20:09:40,10.1.1.4,23,0.020,0.020,0.020,0.000,0.000,0.000
1644350980142647040,2022-02-08-20:09:40,10.1.1.4,23,0.010,0.010,0.010,0.000,0.000,0.000
1644350980243105024,2022-02-08-20:09:40,10.1.1.4,22,0.000,0.000,0.000,0.000,0.000,0.000
1644350980343218944,2022-02-08-20:09:40,10.1.1.4,22,-0.010,-0.010,-0.010,0.000,0.000,0.000
1644350980442550784,2022-02-08-20:09:40,10.1.1.4,20,-0.020,-0.020,-0.020,0.000,0.000,0.000
1644350980542859008,2022-02-08-20:09:40,10.1.1.4,19,-0.029,-0.029,-0.029,0.000,0.000,0.000
1644350980663259904,2022-02-08-20:09:40,10.1.1.4,19,-0.039,-0.039,-0.039,0.000,0.000,0.000
1644350980782263040,2022-02-08-20:09:40,10.1.1.4,39,-0.050,-0.050,-0.050,0.000,0.000,0.000
1644350980881853184,2022-02-08-20:09:40,10.1.1.4,38,-0.060,-0.060,-0.060,0.000,0.000,0.000
1644350980983237120,2022-02-08-20:09:40,10.1.1.4,37,-0.070,-0.070,-0.070,0.000,0.000,0.000
1644350981083638784,2022-02-08-20:09:41,10.1.1.4,36,-0.080,-0.080,-0.080,0.000,0.000,0.000
1644350981184784896,2022-02-08-20:09:41,10.1.1.4,35,-0.090,-0.090,-0.090,0.000,0.000,0.000
1644350981282579968,2022-02-08-20:09:41,10.1.1.4,35,-0.100,-0.100,-0.100,0.000,0.000,0.000
1644350981382044928,2022-02-08-20:09:41,10.1.1.4,34,-0.090,-0.090,-0.090,0.000,0.000,0.000
1644350981482392064,2022-02-08-20:09:41,10.1.1.4,33,-0.080,-0.080,-0.080,0.000,0.000,0.000
1644350981582081024,2022-02-08-20:09:41,10.1.1.4,32,-0.070,-0.070,-0.070,0.000,0.000,0.000
1644350981682974976,2022-02-08-20:09:41,10.1.1.4,32,-0.060,-0.060,-0.060,0.000,0.000,0.000
1644350981782658048,2022-02-08-20:09:41,10.1.1.4,31,-0.050,-0.050,-0.050,0.000,0.000,0.000
1644350981882338048,2022-02-08-20:09:41,10.1.1.4,30,-0.040,-0.040,-0.040,0.000,0.000,0.000
1644350981983515904,2022-02-08-20:09:41,10.1.1.4,27,-0.030,-0.030,-0.030,0.000,0.000,0.000
1644350982082109952,2022-02-08-20:09:42,10.1.1.4,27,-0.020,-0.020,-0.020,0.000,0.000,0.000
1644350982182102016,2022-02-08-20:09:42,10.1.1.4,26,-0.010,-0.010,-0.010,0.000,0.000,0.000
1644350982282828032,2022-02-08-20:09:42,10.1.1.4,24,0.000,0.000,0.000,0.000,0.000,0.000
1644350982383592960,2022-02-08-20:09:42,10.1.1.4,23,0.010,0.010,0.010,0.000,0.000,0.000
1644350982482614016,2022-02-08-20:09:42,10.1.1.4,22,0.020,0.020,0.020,0.000,0.000,0.000
1644350982582587904,2022-02-08-20:09:42,10.1.1.4,21,0.030,0.030,0.030,0.000,0.000,0.000
1644350982682825216,2022-02-08-20:09:42,10.1.1.4,20,0.040,0.040,0.040,0.000,0.000,0.000
1644350982782736128,2022-02-08-20:09:42,10.1.1.4,20,0.050,0.050,0.050,0.000,0.000,0.000
1644350982902429952,2022-02-08-20:09:42,10.1.1.4,38,0.060,0.060,0.060,0.000,0.000,0.000
1644350983002435840,2022-02-08-20:09:43,10.1.1.4,37,0.070,0.070,0.070,0.000,0.000,0.000
1644350983103377152,2022-02-08-20:09:43,10.1.1.4,36,0.080,0.080,0.080,0.000,0.000,0.000
1644350983203700992,2022-02-08-20:09:43,10.1.1.4,36,0.090,0.090,0.090,0.000,0.000,0.000
1644350983301636864,2022-02-08-20:09:43,10.1.1.4,35,0.100,0.100,0.100,0.000,0.000,0.000
1644350983402961920,2022-02-08-20:09:43,10.1.1.4,34,0.090,0.090,0.090,0.000,0.000,0.000
1644350983502962944,2022-02-08-20:09:43,10.1.1.4,33,0.080,0.080,0.080,0.000,0.000,0.000
1644350983602694144,2022-02-08-20:09:43,10.1.1.4,32,0.070,0.070,0.070,0.000,0.000,0.000
1644350983702845184,2022-02-08-20:09:43,10.1.1.4,32,0.060,0.060,0.060,0.000,0.000,0.000
1644350983802625792,2022-02-08-20:09:43,10.1.1.4,31,0.050,0.050,0.050,0.000,0.000,0.000
1644350983903074048,2022-02-08-20:09:43,10.1.1.4,30,0.040,0.040,0.040,0.000,0.000,0.000
1644350984001804032,2022-02-08-20:09:44,10.1.1.4,30,0.030,0.030,0.030,0.000,0.000,0.000
1644350984103312128,2022-02-08-20:09:44,10.1.1.4,28,0.020,0.020,0.020,0.000,0.000,0.000
1644350984202064128,2022-02-08-20:09:44,10.1.1.4,28,0.010,0.010,0.010,0.000,0.000,0.000
1644350984302417920,2022-02-08-20:09:44,10.1.1.4,24,0.000,0.000,0.000,0.000,0.000,0.000
1644350984402308864,2022-02-08-20:09:44,10.1.1.4,22,-0.010,-0.010,-0.010,0.000,0.000,0.000
1644350984502475008,2022-02-08-20:09:44,10.1.1.4,22,-0.020,-0.020,-0.020,0.000,0.000,0.000
1644350984602732800,2022-02-08-20:09:44,10.1.1.4,21,-0.030,-0.030,-0.030,0.000,0.000,0.000
1644350984702385920,2022-02-08-20:09:44,10.1.1.4,20,-0.040,-0.040,-0.040,0.000,0.000,0.000
1644350984802290944,2022-02-08-20:09:44,10.1.1.4,20,-0.050,-0.050,-0.050,0.000,0.000,0.000
1644350984922466048,2022-02-08-20:09:44,10.1.1.4,38,-0.060,-0.060,-0.060,0.000,0.000,0.000
1644350985022768896,2022-02-08-20:09:45,10.1.1.4,36,-0.070,-0.070,-0.070,0.000,0.000,0.000
1644350985123384064,2022-02-08-20:09:45,10.1.1.4,36,-0.080,-0.080,-0.080,0.000,0.000,0.000
1644350985223010048,2022-02-08-20:09:45,10.1.1.4,35,-0.090,-0.090,-0.090,0.000,0.000,0.000
1644350985323105024,2022-02-08-20:09:45,10.1.1.4,33,-0.100,-0.100,-0.100,0.000,0.000,0.000
1644350985422988032,2022-02-08-20:09:45,10.1.1.4,31,-0.090,-0.090,-0.090,0.000,0.000,0.000
1644350985521910016,2022-02-08-20:09:45,10.1.1.4,31,-0.080,-0.080,-0.080,0.000,0.000,0.000
1644350985623030016,2022-02-08-20:09:45,10.1.1.4,31,-0.070,-0.070,-0.070,0.000,0.000,0.000
1644350985722619904,2022-02-08-20:09:45,10.1.1.4,30,-0.060,-0.060,-0.060,0.000,0.000,0.000
1644350985823065088,2022-02-08-20:09:45,10.1.1.4,29,-0.050,-0.050,-0.050,0.000,0.000,0.000
1644350985922606848,2022-02-08-20:09:45,10.1.1.4,28,-0.040,-0.040,-0.040,0.000,0.000,0.000
1644350986022392064,2022-02-08-20:09:46,10.1.1.4,28,-0.030,-0.030,-0.030,0.000,0.000,0.000
1644350986123169792,2022-02-08-20:09:46,10.1.1.4,28,-0.020,-0.020,-0.020,0.000,0.000,0.000
1644350986221790976,2022-02-08-20:09:46,10.1.1.4,27,-0.010,-0.010,-0.010,0.000,0.000,0.000
1644350986324338944,2022-02-08-20:09:46,10.1.1.4,27,0.000,0.000,0.000,0.000,0.000,0.000
1644350986444168192,2022-02-08-20:09:46,10.1.1.4,37,0.010,0.010,0.010,0.000,0.000,0.000
1644350986542906112,2022-02-08-20:09:46,10.1.1.4,37,0.020,0.020,0.020,0.000,0.000,0.000
1644350986643013120,2022-02-08-20:09:46,10.1.1.4,36,0.030,0.030,0.030,0.000,0.000,0.000
1644350986742742016,2022-02-08-20:09:46,10.1.1.4,36,0.040,0.040,0.040,0.000,0.000,0.000
1644350986842603008,2022-02-08-20:09:46,10.1.1.4,35,0.050,0.050,0.050,0.000,0.000,0.000
1644350986942169856,2022-02-08-20:09:46,10.1.1.4,35,0.060,0.060,0.060,0.000,0.000,0.000
1644350987042212864,2022-02-08-20:09:47,10.1.1.4,34,0.070,0.070,0.070,0.000,0.000,0.000
1644350987142738944,2022-02-08-20:09:47,10.1.1.4,34,0.080,0.080,0.080,0.000,0.000,0.000
1644350987241940992,2022-02-08-20:09:47,10.1.1.4,33,0.090,0.090,0.090,0.000,0.000,0.000
1644350987342025984,2022-02-08-20:09:47,10.1.1.4,32,0.100,0.100,0.100,0.000,0.000,0.000
1644350987442217984,2022-02-08-20:09:47,10.1.1.4,31,0.090,0.090,0.090,0.000,0.000,0.000
1644350987542385152,2022-02-08-20:09:47,10.1.1.4,31,0.080,0.080,0.080,0.000,0.000,0.000
1644350987642772992,2022-02-08-20:09:47,10.1.1.4,30,0.070,0.070,0.070,0.000,0.000,0.000
1644350987742418176,2022-02-08-20:09:47,10.1.1.4,27,0.060,0.060,0.060,0.000,0.000,0.000
1644350987842715904,2022-02-08-20:09:47,10.1.1.4,26,0.050,0.050,0.050,0.000,0.000,0.000
1644350987942567936,2022-02-08-20:09:47,10.1.1.4,26,0.040,0.040,0.040,0.000,0.000,0.000
1644350988041637888,2022-02-08-20:09:48,10.1.1.4,25,0.030,0.030,0.030,0.000,0.000,0.000
1644350988141907968,2022-02-08-20:09:48,10.1.1.4,25,0.020,0.020,0.020,0.000,0.000,0.000
1644350988242310144,2022-02-08-20:09:48,10.1.1.4,25,0.010,0.010,0.010,0.000,0.000,0.000
1644350988342006016,2022-02-08-20:09:48,10.1.1.4,24,0.000,0.000,0.000,0.000,0.000,0.000
1644350988442194944,2022-02-08-20:09:48,10.1.1.4,24,-0.010,-0.010,-0.010,0.000,0.000,0.000
1644350988542682880,2022-02-08-20:09:48,10.1.1.4,24,-0.020,-0.020,-0.020,0.000,0.000,0.000
1644350988641657088,2022-02-08-20:09:48,10.1.1.4,23,-0.030,-0.030,-0.030,0.000,0.000,0.000
1644350988742366976,2022-02-08-20:09:48,10.1.1.4,23,-0.040,-0.040,-0.040,0.000,0.000,0.000
1644350988841798144,2022-02-08-20:09:48,10.1.1.4,22,-0.050,-0.050,-0.050,0.000,0.000,0.000
1644350988941641984,2022-02-08-20:09:48,10.1.1.4,22,-0.060,-0.060,-0.060,0.000,0.000,0.000
1644350989041612032,2022-02-08-20:09:49,10.1.1.4,21,-0.070,-0.070,-0.070,0.000,0.000,0.000
1644350989142478080,2022-02-08-20:09:49,10.1.1.4,21,-0.080,-0.080,-0.080,0.000,0.000,0.000
1644350989241516032,2022-02-08-20:09:49,10.1.1.4,21,-0.090,-0.090,-0.090,0.000,0.000,0.000
1644350989342116096,2022-02-08-20:09:49,10.1.1.4,20,-0.100,-0.100,-0.100,0.000,0.000,0.000
1644350989442415104,2022-02-08-20:09:49,10.1.1.4,19,-0.090,-0.090,-0.090,0.000,0.000,0.000
1644350989542253056,2022-02-08-20:09:49,10.1.1.4,19,-0.081,-0.081,-0.081,0.000,0.000,0.000
1644350989643239936,2022-02-08-20:09:49,10.1.1.4,19,-0.071,-0.071,-0.071,0.000,0.000,0.000
1644350989762501888,2022-02-08-20:09:49,10.1.1.4,38,-0.060,-0.060,-0.060,0.000,0.000,0.000
1644350989862402816,2022-02-08-20:09:49,10.1.1.4,37,-0.050,-0.050,-0.050,0.000,0.000,0.000
1644350989963190016,2022-02-08-20:09:49,10.1.1.4,37,-0.040,-0.040,-0.040,0.000,0.000,0.000
1644350990062701056,2022-02-08-20:09:50,10.1.1.4,35,-0.030,-0.030,-0.030,0.000,0.000,0.000
1644350990162242816,2022-02-08-20:09:50,10.1.1.4,35,-0.020,-0.020,-0.020,0.000,0.000,0.000
1644350990262486016,2022-02-08-20:09:50,10.1.1.4,35,-0.010,-0.010,-0.010,0.000,0.000,0.000
1644350990361848064,2022-02-08-20:09:50,10.1.1.4,34,0.000,0.000,0.000,0.000,0.000,0.000
1644350990462503936,2022-02-08-20:09:50,10.1.1.4,33,0.010,0.010,0.010,0.000,0.000,0.000
1644350990562632192,2022-02-08-20:09:50,10.1.1.4,31,0.020,0.020,0.020,0.000,0.000,0.000
1644350990662422784,2022-02-08-20:09:50,10.1.1.4,31,0.030,0.030,0.030,0.000,0.000,0.000
1644350990763004160,2022-02-08-20:09:50,10.1.1.4,31,0.040,0.040,0.040,0.000,0.000,0.000
1644350990863133952,2022-02-08-20:09:50,10.1.1.4,30,0.050,0.050,0.050,0.000,0.000,0.000
1644350990963056128,2022-02-08-20:09:50,10.1.1.4,30,0.060,0.060,0.060,0.000,0.000,0.000
1644350991062715904,2022-02-08-20:09:51,10.1.1.4,30,0.070,0.070,0.070,0.000,0.000,0.000
1644350991163252224,2022-02-08-20:09:51,10.1.1.4,27,0.080,0.080,0.080,0.000,0.000,0.000
1644350991262721024,2022-02-08-20:09:51,10.1.1.4,25,0.090,0.090,0.090,0.000,0.000,0.000
1644350991361797120,2022-02-08-20:09:51,10.1.1.4,25,0.100,0.100,0.100,0.000,0.000,0.000
1644350991463099904,2022-02-08-20:09:51,10.1.1.4,24,0.090,0.090,0.090,0.000,0.000,0.000
1644350991565037056,2022-02-08-20:09:51,10.1.1.4,23,0.080,0.080,0.080,0.000,0.000,0.000
1644350991663089920,2022-02-08-20:09:51,10.1.1.4,22,0.070,0.070,0.070,0.000,0.000,0.000
1644350991782447104,2022-02-08-20:09:51,10.1.1.4,31,0.060,0.060,0.060,0.000,0.000,0.000
1644350991881633024,2022-02-08-20:09:51,10.1.1.4,30,0.050,0.050,0.050,0.000,0.000,0.000
1644350991983170048,2022-02-08-20:09:51,10.1.1.4,29,0.040,0.040,0.040,0.000,0.000,0.000
1644350992082937088,2022-02-08-20:09:52,10.1.1.4,27,0.030,0.030,0.030,0.000,0.000,0.000
1644350992182643968,2022-02-08-20:09:52,10.1.1.4,27,0.020,0.020,0.020,0.000,0.000,0.000
1644350992316448000,2022-02-08-20:09:52,10.1.1.4,37,0.010,0.010,0.010,0.000,0.000,0.000
1644350992402683904,2022-02-08-20:09:52,10.1.1.4,36,0.000,0.000,0.000,0.000,0.000,0.000
1644350992502504960,2022-02-08-20:09:52,10.1.1.4,36,-0.010,-0.010,-0.010,0.000,0.000,0.000
1644350992602962944,2022-02-08-20:09:52,10.1.1.4,35,-0.020,-0.020,-0.020,0.000,0.000,0.000
1644350992702436864,2022-02-08-20:09:52,10.1.1.4,35,-0.030,-0.030,-0.030,0.000,0.000,0.000
1644350992802859008,2022-02-08-20:09:52,10.1.1.4,35,-0.040,-0.040,-0.040,0.000,0.000,0.000
1644350992905492992,2022-02-08-20:09:52,10.1.1.4,34,-0.050,-0.050,-0.050,0.000,0.000,0.000
1644350993022830080,2022-02-08-20:09:53,10.1.1.4,31,-0.060,-0.060,-0.060,0.000,0.000,0.000
1644350993122905856,2022-02-08-20:09:53,10.1.1.4,30,-0.070,-0.070,-0.070,0.000,0.000,0.000
1644350993222755840,2022-02-08-20:09:53,10.1.1.4,30,-0.080,-0.080,-0.080,0.000,0.000,0.000
1644350993325099008,2022-02-08-20:09:53,10.1.1.4,27,-0.090,-0.090,-0.090,0.000,0.000,0.000
1644350993422403072,2022-02-08-20:09:53,10.1.1.4,24,-0.100,-0.100,-0.100,0.000,0.000,0.000
1644350993522834944,2022-02-08-20:09:53,10.1.1.4,22,-0.090,-0.090,-0.090,0.000,0.000,0.000
1644350993623589120,2022-02-08-20:09:53,10.1.1.4,22,-0.080,-0.080,-0.080,0.000,0.000,0.000
1644350993722749952,2022-02-08-20:09:53,10.1.1.4,20,-0.070,-0.070,-0.070,0.000,0.000,0.000
1644350993822819072,2022-02-08-20:09:53,10.1.1.4,19,-0.060,-0.060,-0.060,0.000,0.000,0.000
1644350993922910976,2022-02-08-20:09:53,10.1.1.4,19,-0.051,-0.051,-0.051,0.000,0.000,0.000
1644350994042839040,2022-02-08-20:09:54,10.1.1.4,38,-0.040,-0.040,-0.040,0.000,0.000,0.000
1644350994142526976,2022-02-08-20:09:54,10.1.1.4,37,-0.030,-0.030,-0.030,0.000,0.000,0.000
1644350994242825984,2022-02-08-20:09:54,10.1.1.4,37,-0.020,-0.020,-0.020,0.000,0.000,0.000
1644350994343203072,2022-02-08-20:09:54,10.1.1.4,36,-0.010,-0.010,-0.010,0.000,0.000,0.000
1644350994442351104,2022-02-08-20:09:54,10.1.1.4,35,0.000,0.000,0.000,0.000,0.000,0.000
1644350994542292224,2022-02-08-20:09:54,10.1.1.4,35,0.010,0.010,0.010,0.000,0.000,0.000
1644350994641714944,2022-02-08-20:09:54,10.1.1.4,34,0.020,0.020,0.020,0.000,0.000,0.000
1644350994742528000,2022-02-08-20:09:54,10.1.1.4,33,0.030,0.030,0.030,0.000,0.000,0.000
1644350994843010816,2022-02-08-20:09:54,10.1.1.4,33,0.040,0.040,0.040,0.000,0.000,0.000
1644350994942465024,2022-02-08-20:09:54,10.1.1.4,32,0.050,0.050,0.050,0.000,0.000,0.000
1644350995042490880,2022-02-08-20:09:55,10.1.1.4,31,0.060,0.060,0.060,0.000,0.000,0.000
1644350995142735872,2022-02-08-20:09:55,10.1.1.4,30,0.070,0.070,0.070,0.000,0.000,0.000
1644350995243369984,2022-02-08-20:09:55,10.1.1.4,30,0.080,0.080,0.080,0.000,0.000,0.000
1644350995343269120,2022-02-08-20:09:55,10.1.1.4,29,0.090,0.090,0.090,0.000,0.000,0.000
1644350995443040000,2022-02-08-20:09:55,10.1.1.4,28,0.100,0.100,0.100,0.000,0.000,0.000
1644350995543226112,2022-02-08-20:09:55,10.1.1.4,27,0.090,0.090,0.090,0.000,0.000,0.000
1644350995642846208,2022-02-08-20:09:55,10.1.1.4,26,0.080,0.080,0.080,0.000,0.000,0.000
1644350995742803200,2022-02-08-20:09:55,10.1.1.4,26,0.070,0.070,0.070,0.000,0.000,0.000
1644350995842107904,2022-02-08-20:09:55,10.1.1.4,25,0.060,0.060,0.060,0.000,0.000,0.000
1644350995943104000,2022-02-08-20:09:55,10.1.1.4,25,0.050,0.050,0.050,0.000,0.000,0.000
1644350996042568960,2022-02-08-20:09:56,10.1.1.4,24,0.040,0.040,0.040,0.000,0.000,0.000
1644350996143579904,2022-02-08-20:09:56,10.1.1.4,23,0.030,0.030,0.030,0.000,0.000,0.000
1644350996243261184,2022-02-08-20:09:56,10.1.1.4,22,0.020,0.020,0.020,0.000,0.000,0.000
1644350996343940864,2022-02-08-20:09:56,10.1.1.4,21,0.010,0.010,0.010,0.000,0.000,0.000
1644350996442135040,2022-02-08-20:09:56,10.1.1.4,20,0.000,0.000,0.000,0.000,0.000,0.000
1644350996543729152,2022-02-08-20:09:56,10.1.1.4,20,-0.010,-0.010,-0.010,0.000,0.000,0.000
1644350996641742848,2022-02-08-20:09:56,10.1.1.4,18,-0.019,-0.019,-0.019,0.000,0.000,0.000
1644350996761629952,2022-02-08-20:09:56,10.1.1.4,38,-0.030,-0.030,-0.030,0.000,0.000,0.000
1644350996862145792,2022-02-08-20:09:56,10.1.1.4,37,-0.040,-0.040,-0.040,0.000,0.000,0.000
1644350996963876096,2022-02-08-20:09:56,10.1.1.4,36,-0.050,-0.050,-0.050,0.000,0.000,0.000
1644350997062048000,2022-02-08-20:09:57,10.1.1.4,35,-0.060,-0.060,-0.060,0.000,0.000,0.000
1644350997162082816,2022-02-08-20:09:57,10.1.1.4,35,-0.070,-0.070,-0.070,0.000,0.000,0.000
1644350997443115008,2022-02-08-20:09:57,10.1.1.4,35,-0.090,-0.090,-0.090,0.000,0.000,0.000
1644350997543844864,2022-02-08-20:09:57,10.1.1.4,33,-0.100,-0.100,-0.100,0.000,0.000,0.000
1644350997644386048,2022-02-08-20:09:57,10.1.1.4,27,-0.090,-0.090,-0.090,0.000,0.000,0.000
1644350997742364928,2022-02-08-20:09:57,10.1.1.4,27,-0.080,-0.080,-0.080,0.000,0.000,0.000
1644350997843062016,2022-02-08-20:09:57,10.1.1.4,26,-0.070,-0.070,-0.070,0.000,0.000,0.000
1644350997942590976,2022-02-08-20:09:57,10.1.1.4,25,-0.060,-0.060,-0.060,0.000,0.000,0.000
1644350998043726080,2022-02-08-20:09:58,10.1.1.4,22,-0.050,-0.050,-0.050,0.000,0.000,0.000
1644350998142148096,2022-02-08-20:09:58,10.1.1.4,22,-0.040,-0.040,-0.040,0.000,0.000,0.000
1644350998242494976,2022-02-08-20:09:58,10.1.1.4,22,-0.030,-0.030,-0.030,0.000,0.000,0.000
1644350998343062016,2022-02-08-20:09:58,10.1.1.4,21,-0.020,-0.020,-0.020,0.000,0.000,0.000
1644350998442722048,2022-02-08-20:09:58,10.1.1.4,20,-0.010,-0.010,-0.010,0.000,0.000,0.000
1644350998544126976,2022-02-08-20:09:58,10.1.1.4,19,-0.000,-0.000,-0.000,0.000,0.000,0.000
1644350998662885888,2022-02-08-20:09:58,10.1.1.4,38,0.010,0.010,0.010,0.000,0.000,0.000
1644350998762790912,2022-02-08-20:09:58,10.1.1.4,38,0.020,0.020,0.020,0.000,0.000,0.000
1644350998866255104,2022-02-08-20:09:58,10.1.1.4,35,0.030,0.030,0.030,0.000,0.000,0.000
1644350998963465984,2022-02-08-20:09:58,10.1.1.4,34,0.040,0.040,0.040,0.000,0.000,0.000
1644350999062830080,2022-02-08-20:09:59,10.1.1.4,34,0.050,0.050,0.050,0.000,0.000,0.000
1644350999162715904,2022-02-08-20:09:59,10.1.1.4,33,0.060,0.060,0.060,0.000,0.000,0.000
1644350999266305024,2022-02-08-20:09:59,10.1.1.4,33,0.070,0.070,0.070,0.000,0.000,0.000
1644350999363680000,2022-02-08-20:09:59,10.1.1.4,32,0.080,0.080,0.080,0.000,0.000,0.000
1644350999463390976,2022-02-08-20:09:59,10.1.1.4,32,0.090,0.090,0.090,0.000,0.000,0.000
1644350999563579136,2022-02-08-20:09:59,10.1.1.4,31,0.100,0.100,0.100,0.000,0.000,0.000
1644350999662290944,2022-02-08-20:09:59,10.1.1.4,31,0.090,0.090,0.090,0.000,0.000,0.000
1644350999762733056,2022-02-08-20:09:59,10.1.1.4,30,0.080,0.080,0.080,0.000,0.000,0.000
1644350999862811136,2022-02-08-20:09:59,10.1.1.4,28,0.070,0.070,0.070,0.000,0.000,0.000
1644350999962985984,2022-02-08-20:09:59,10.1.1.4,27,0.060,0.060,0.060,0.000,0.000,0.000
1644351000062777088,2022-02-08-20:10:00,10.1.1.4,27,0.050,0.050,0.050,0.000,0.000,0.000
1644351000163228928,2022-02-08-20:10:00,10.1.1.4,26,0.040,0.040,0.040,0.000,0.000,0.000
1644351000262712832,2022-02-08-20:10:00,10.1.1.4,25,0.030,0.030,0.030,0.000,0.000,0.000
1644351000363200000,2022-02-08-20:10:00,10.1.1.4,24,0.020,0.020,0.020,0.000,0.000,0.000
1644351000462871040,2022-02-08-20:10:00,10.1.1.4,23,0.010,0.010,0.010,0.000,0.000,0.000
1644351000563191808,2022-02-08-20:10:00,10.1.1.4,22,0.000,0.000,0.000,0.000,0.000,0.000
1644351000665442816,2022-02-08-20:10:00,10.1.1.4,22,-0.010,-0.010,-0.010,0.000,0.000,0.000
1644351000762331904,2022-02-08-20:10:00,10.1.1.4,21,-0.020,-0.020,-0.020,0.000,0.000,0.000
1644351000863447040,2022-02-08-20:10:00,10.1.1.4,21,-0.030,-0.030,-0.030,0.000,0.000,0.000
1644351000962203136,2022-02-08-20:10:00,10.1.1.4,19,-0.040,-0.040,-0.040,0.000,0.000,0.000
1644351001063486208,2022-02-08-20:10:01,10.1.1.4,19,-0.049,-0.049,-0.049,0.000,0.000,0.000
1644351001182606080,2022-02-08-20:10:01,10.1.1.4,38,-0.060,-0.060,-0.060,0.000,0.000,0.000
1644351001282919936,2022-02-08-20:10:01,10.1.1.4,38,-0.070,-0.070,-0.070,0.000,0.000,0.000
1644351001383887104,2022-02-08-20:10:01,10.1.1.4,38,-0.080,-0.080,-0.080,0.000,0.000,0.000
1644351001482810112,2022-02-08-20:10:01,10.1.1.4,36,-0.090,-0.090,-0.090,0.000,0.000,0.000
1644351001582518016,2022-02-08-20:10:01,10.1.1.4,35,-0.100,-0.100,-0.100,0.000,0.000,0.000
1644351001683002112,2022-02-08-20:10:01,10.1.1.4,32,-0.090,-0.090,-0.090,0.000,0.000,0.000
1644351001782291968,2022-02-08-20:10:01,10.1.1.4,32,-0.080,-0.080,-0.080,0.000,0.000,0.000
1644351001882023936,2022-02-08-20:10:01,10.1.1.4,31,-0.070,-0.070,-0.070,0.000,0.000,0.000
1644351001982880000,2022-02-08-20:10:01,10.1.1.4,31,-0.060,-0.060,-0.060,0.000,0.000,0.000
1644351002082135040,2022-02-08-20:10:02,10.1.1.4,30,-0.050,-0.050,-0.050,0.000,0.000,0.000
1644351002182144000,2022-02-08-20:10:02,10.1.1.4,29,-0.040,-0.040,-0.040,0.000,0.000,0.000
1644351002282088960,2022-02-08-20:10:02,10.1.1.4,28,-0.030,-0.030,-0.030,0.000,0.000,0.000
1644351002382110208,2022-02-08-20:10:02,10.1.1.4,26,-0.020,-0.020,-0.020,0.000,0.000,0.000
1644351002602694144,2022-02-08-20:10:02,10.1.1.4,39,0.000,0.000,0.000,0.000,0.000,0.000
1644351002702654976,2022-02-08-20:10:02,10.1.1.4,38,0.010,0.010,0.010,0.000,0.000,0.000
1644351002802097152,2022-02-08-20:10:02,10.1.1.4,38,0.020,0.020,0.020,0.000,0.000,0.000
1644351002901771008,2022-02-08-20:10:02,10.1.1.4,37,0.030,0.030,0.030,0.000,0.000,0.000
1644351003001598976,2022-02-08-20:10:03,10.1.1.4,37,0.040,0.040,0.040,0.000,0.000,0.000
1644351003102696960,2022-02-08-20:10:03,10.1.1.4,36,0.050,0.050,0.050,0.000,0.000,0.000
1644351003202704896,2022-02-08-20:10:03,10.1.1.4,36,0.060,0.060,0.060,0.000,0.000,0.000
1644351003302412032,2022-02-08-20:10:03,10.1.1.4,35,0.070,0.070,0.070,0.000,0.000,0.000
1644351003402054912,2022-02-08-20:10:03,10.1.1.4,35,0.080,0.080,0.080,0.000,0.000,0.000
1644351003502063104,2022-02-08-20:10:03,10.1.1.4,35,0.090,0.090,0.090,0.000,0.000,0.000
1644351003602659072,2022-02-08-20:10:03,10.1.1.4,33,0.100,0.100,0.100,0.000,0.000,0.000
1644351003702439936,2022-02-08-20:10:03,10.1.1.4,32,0.090,0.090,0.090,0.000,0.000,0.000
1644351003801667072,2022-02-08-20:10:03,10.1.1.4,32,0.080,0.080,0.080,0.000,0.000,0.000
1644351003902242048,2022-02-08-20:10:03,10.1.1.4,31,0.070,0.070,0.070,0.000,0.000,0.000
1644351004001737216,2022-02-08-20:10:04,10.1.1.4,31,0.060,0.060,0.060,0.000,0.000,0.000
1644351004101608960,2022-02-08-20:10:04,10.1.1.4,31,0.050,0.050,0.050,0.000,0.000,0.000
1644351004202182144,2022-02-08-20:10:04,10.1.1.4,30,0.040,0.040,0.040,0.000,0.000,0.000
1644351004301893120,2022-02-08-20:10:04,10.1.1.4,30,0.030,0.030,0.030,0.000,0.000,0.000
1644351004401776128,2022-02-08-20:10:04,10.1.1.4,29,0.020,0.020,0.020,0.000,0.000,0.000
1644351004501626112,2022-02-08-20:10:04,10.1.1.4,29,0.010,0.010,0.010,0.000,0.000,0.000
1644351004602400000,2022-02-08-20:10:04,10.1.1.4,28,0.000,0.000,0.000,0.000,0.000,0.000
1644351004702061056,2022-02-08-20:10:04,10.1.1.4,28,-0.010,-0.010,-0.010,0.000,0.000,0.000
1644351004802358016,2022-02-08-20:10:04,10.1.1.4,28,-0.020,-0.020,-0.020,0.000,0.000,0.000
1644351004902667008,2022-02-08-20:10:04,10.1.1.4,27,-0.030,-0.030,-0.030,0.000,0.000,0.000
1644351005002531072,2022-02-08-20:10:05,10.1.1.4,27,-0.040,-0.040,-0.040,0.000,0.000,0.000
1644351005101891072,2022-02-08-20:10:05,10.1.1.4,26,-0.050,-0.050,-0.050,0.000,0.000,0.000
1644351005209611008,2022-02-08-20:10:05,10.1.1.4,23,-0.060,-0.060,-0.060,0.000,0.000,0.000
1644351005303452928,2022-02-08-20:10:05,10.1.1.4,23,-0.070,-0.070,-0.070,0.000,0.000,0.000
1644351005402526976,2022-02-08-20:10:05,10.1.1.4,22,-0.080,-0.080,-0.080,0.000,0.000,0.000
1644351005502483968,2022-02-08-20:10:05,10.1.1.4,21,-0.090,-0.090,-0.090,0.000,0.000,0.000
1644351005602912000,2022-02-08-20:10:05,10.1.1.4,19,-0.100,-0.100,-0.100,0.000,0.000,0.000
1644351005722599936,2022-02-08-20:10:05,10.1.1.4,35,-0.090,-0.090,-0.090,0.000,0.000,0.000
1644351005822653952,2022-02-08-20:10:05,10.1.1.4,35,-0.080,-0.080,-0.080,0.000,0.000,0.000
1644351005922648064,2022-02-08-20:10:05,10.1.1.4,34,-0.070,-0.070,-0.070,0.000,0.000,0.000
1644351006022799104,2022-02-08-20:10:06,10.1.1.4,34,-0.060,-0.060,-0.060,0.000,0.000,0.000
1644351006122061056,2022-02-08-20:10:06,10.1.1.4,33,-0.050,-0.050,-0.050,0.000,0.000,0.000
1644351006222924032,2022-02-08-20:10:06,10.1.1.4,31,-0.040,-0.040,-0.040,0.000,0.000,0.000
1644351006322123008,2022-02-08-20:10:06,10.1.1.4,31,-0.030,-0.030,-0.030,0.000,0.000,0.000
1644351006422712064,2022-02-08-20:10:06,10.1.1.4,31,-0.020,-0.020,-0.020,0.000,0.000,0.000
1644351006522299136,2022-02-08-20:10:06,10.1.1.4,30,-0.010,-0.010,-0.010,0.000,0.000,0.000
1644351006622450944,2022-02-08-20:10:06,10.1.1.4,30,0.000,0.000,0.000,0.000,0.000,0.000
1644351006722685184,2022-02-08-20:10:06,10.1.1.4,29,0.010,0.010,0.010,0.000,0.000,0.000
1644351006824317952,2022-02-08-20:10:06,10.1.1.4,28,0.020,0.020,0.020,0.000,0.000,0.000
1644351006922928128,2022-02-08-20:10:06,10.1.1.4,27,0.030,0.030,0.030,0.000,0.000,0.000
1644351007028654080,2022-02-08-20:10:07,10.1.1.4,27,0.040,0.040,0.040,0.000,0.000,0.000
1644351007122376960,2022-02-08-20:10:07,10.1.1.4,26,0.050,0.050,0.050,0.000,0.000,0.000
1644351007222689024,2022-02-08-20:10:07,10.1.1.4,25,0.060,0.060,0.060,0.000,0.000,0.000
1644351007322892032,2022-02-08-20:10:07,10.1.1.4,25,0.070,0.070,0.070,0.000,0.000,0.000
1644351007422514944,2022-02-08-20:10:07,10.1.1.4,25,0.080,0.080,0.080,0.000,0.000,0.000
1644351007522279936,2022-02-08-20:10:07,10.1.1.4,24,0.090,0.090,0.090,0.000,0.000,0.000
1644351007622840832,2022-02-08-20:10:07,10.1.1.4,24,0.100,0.100,0.100,0.000,0.000,0.000
1644351007722311936,2022-02-08-20:10:07,10.1.1.4,23,0.090,0.090,0.090,0.000,0.000,0.000
1644351007856233984,2022-02-08-20:10:07,10.1.1.4,35,0.080,0.080,0.080,0.000,0.000,0.000
1644351007943550976,2022-02-08-20:10:07,10.1.1.4,33,0.070,0.070,0.070,0.000,0.000,0.000
1644351008069176832,2022-02-08-20:10:08,10.1.1.4,33,0.060,0.060,0.060,0.000,0.000,0.000
1644351008142995968,2022-02-08-20:10:08,10.1.1.4,32,0.050,0.050,0.050,0.000,0.000,0.000
1644351008242272000,2022-02-08-20:10:08,10.1.1.4,31,0.040,0.040,0.040,0.000,0.000,0.000
1644351008343108864,2022-02-08-20:10:08,10.1.1.4,31,0.030,0.030,0.030,0.000,0.000,0.000
1644351008442737152,2022-02-08-20:10:08,10.1.1.4,31,0.020,0.020,0.020,0.000,0.000,0.000
1644351008544365056,2022-02-08-20:10:08,10.1.1.4,30,0.010,0.010,0.010,0.000,0.000,0.000
1644351008642824960,2022-02-08-20:10:08,10.1.1.4,30,0.000,0.000,0.000,0.000,0.000,0.000
1644351008882468096,2022-02-08-20:10:08,10.1.1.4,29,-0.020,-0.020,-0.020,0.000,0.000,0.000
1644351008983270912,2022-02-08-20:10:08,10.1.1.4,27,-0.030,-0.030,-0.030,0.000,0.000,0.000
