FedericoMungari/DigitalTwin_service/01_WiredScenario/Output/Output_script/script_rosapi_2_output_robots12_freq0_6.txt
timestamp,date,node,latency,joint_1,joint_2,joint_3,joint_4,joint_5,joint_6
1644939707113275136,2022-02-15-15:41:46,10.1.1.7,-240,-0.100,-0.100,-0.100,-0.000,0.000,0.000
1644939707431142144,2022-02-15-15:41:47,10.1.1.7,30,-0.070,-0.070,-0.070,0.000,0.000,0.000
1644939707712084992,2022-02-15-15:41:47,10.1.1.7,39,-0.020,-0.020,-0.020,0.000,0.000,0.000
1644939708935834880,2022-02-15-15:41:48,10.1.1.7,7,-0.020,-0.020,-0.020,0.000,0.000,0.000
1644939709210235136,2022-02-15-15:41:49,10.1.1.7,28,-0.070,-0.070,-0.070,0.000,0.000,0.000
1644939709511576064,2022-02-15-15:41:49,10.1.1.7,14,-0.070,-0.070,-0.070,0.000,0.000,0.000
1644939714622855936,2022-02-15-15:41:50,10.1.1.7,29,0.070,0.070,0.070,0.000,0.000,0.000
1644939720047538944,2022-02-15-15:41:55,10.1.1.7,29,0.090,0.090,0.090,0.000,0.000,0.000
1644939724929896960,2022-02-15-15:42:01,10.1.1.7,29,-0.080,-0.080,-0.080,0.000,0.000,0.000
1644939730442632960,2022-02-15-15:42:06,10.1.1.7,39,0.000,0.000,0.000,0.000,0.000,0.000
1644939736111668992,2022-02-15-15:42:11,10.1.1.7,40,0.090,0.090,0.090,0.000,0.000,0.000
1644939740394790912,2022-02-15-15:42:16,10.1.1.7,29,0.010,0.010,0.010,0.000,0.000,0.000
1644939741786916096,2022-02-15-15:42:21,10.1.1.7,29,-0.040,-0.040,-0.040,0.000,0.000,0.000
1644939746843281920,2022-02-15-15:42:23,10.1.1.7,5,-0.040,-0.040,-0.040,0.000,0.000,0.000
1644939750017949184,2022-02-15-15:42:27,10.1.1.7,-3886,-0.040,-0.040,-0.040,0.000,0.000,0.000
1644939750672045056,2022-02-15-15:42:30,10.1.1.7,8,-0.060,-0.060,-0.060,0.000,0.000,0.000
1644939751298862848,2022-02-15-15:42:31,10.1.1.7,30,0.050,0.050,0.050,0.000,0.000,0.000
1644939753879461888,2022-02-15-15:42:32,10.1.1.7,-14,0.050,0.050,0.050,0.000,0.000,0.000
1644939757266295040,2022-02-15-15:42:34,10.1.1.7,29,0.020,0.020,0.020,0.000,0.000,0.000
1644939758090672896,2022-02-15-15:42:38,10.1.1.7,39,-0.080,-0.080,-0.080,0.000,0.000,0.000
1644939761019342848,2022-02-15-15:42:38,10.1.1.7,29,0.010,0.010,0.010,0.000,0.000,0.000
1644939762889278976,2022-02-15-15:42:42,10.1.1.7,6,0.010,0.010,0.010,0.000,0.000,0.000
1644939766046892800,2022-02-15-15:42:45,10.1.1.7,20,-0.010,-0.010,-0.010,0.000,0.000,0.000
1644939766235544064,2022-02-15-15:42:46,10.1.1.7,38,0.010,0.010,0.010,0.000,0.000,0.000
1644939769329200896,2022-02-15-15:42:48,10.1.1.7,39,-0.010,-0.010,-0.010,0.000,0.000,0.000
1644939771973999872,2022-02-15-15:42:49,10.1.1.7,39,0.080,0.080,0.080,0.000,0.000,0.000
1644939775838546944,2022-02-15-15:42:54,10.1.1.7,38,-0.040,-0.040,-0.040,0.000,0.000,0.000
1644939776622139904,2022-02-15-15:42:56,10.1.1.7,29,-0.090,-0.090,-0.090,0.000,0.000,0.000
1644939776891341056,2022-02-15-15:42:56,10.1.1.7,20,-0.030,-0.030,-0.030,0.000,0.000,0.000
1644939776950704128,2022-02-15-15:42:56,10.1.1.7,29,-0.020,-0.020,-0.020,0.000,0.000,0.000
1644939777432305152,2022-02-15-15:42:57,10.1.1.7,28,0.070,0.070,0.070,0.000,0.000,0.000
1644939777750771968,2022-02-15-15:42:57,10.1.1.7,25,0.070,0.070,0.070,0.000,0.000,0.000
1644939777969750016,2022-02-15-15:42:57,10.1.1.7,38,0.030,0.030,0.030,0.000,0.000,0.000
1644939778802528000,2022-02-15-15:42:58,10.1.1.7,29,-0.030,-0.030,-0.030,0.000,0.000,0.000
1644939778830061056,2022-02-15-15:42:58,10.1.1.7,30,-0.040,-0.040,-0.040,0.000,0.000,0.000
1644939778890411008,2022-02-15-15:42:58,10.1.1.7,39,-0.050,-0.050,-0.050,0.000,0.000,0.000
1644939779190830080,2022-02-15-15:42:59,10.1.1.7,28,-0.090,-0.090,-0.090,0.000,0.000,0.000
1644939780010667008,2022-02-15-15:43:00,10.1.1.7,29,0.060,0.060,0.060,0.000,0.000,0.000
1644939780411267072,2022-02-15-15:43:00,10.1.1.7,14,0.060,0.060,0.060,0.000,0.000,0.000
1644939782769253120,2022-02-15-15:43:02,10.1.1.7,40,0.080,0.080,0.080,0.000,0.000,0.000
1644939784169886208,2022-02-15-15:43:04,10.1.1.7,21,-0.030,-0.030,-0.030,0.000,0.000,0.000
1644939785318507008,2022-02-15-15:43:05,10.1.1.7,29,0.030,0.030,0.030,0.000,0.000,0.000
1644939785914535936,2022-02-15-15:43:05,10.1.1.7,40,-0.090,-0.090,-0.090,0.000,0.000,0.000
1644939785996803072,2022-02-15-15:43:05,10.1.1.7,0,-0.090,-0.090,-0.090,0.000,0.000,0.000
1644939786094595072,2022-02-15-15:43:06,10.1.1.7,29,-0.080,-0.080,-0.080,0.000,0.000,0.000
1644939788055380224,2022-02-15-15:43:07,10.1.1.7,39,-0.040,-0.040,-0.040,0.000,0.000,0.000
1644939788090550784,2022-02-15-15:43:08,10.1.1.7,39,-0.050,-0.050,-0.050,0.000,0.000,0.000
1644939788571075840,2022-02-15-15:43:08,10.1.1.7,6,-0.050,-0.050,-0.050,0.000,0.000,0.000
1644939789873553152,2022-02-15-15:43:09,10.1.1.7,30,0.040,0.040,0.040,0.000,0.000,0.000
1644939790033266176,2022-02-15-15:43:10,10.1.1.7,19,0.050,0.050,0.050,0.000,0.000,0.000
1644939790093971968,2022-02-15-15:43:10,10.1.1.7,29,0.060,0.060,0.060,0.000,0.000,0.000
1644939790511207936,2022-02-15-15:43:10,10.1.1.7,20,0.060,0.060,0.060,0.000,0.000,0.000
1644939791842664960,2022-02-15-15:43:11,10.1.1.7,28,-0.100,-0.100,-0.100,0.000,0.000,0.000
1644939792036599040,2022-02-15-15:43:12,10.1.1.7,29,-0.060,-0.060,-0.060,0.000,0.000,0.000
1644939792371506944,2022-02-15-15:43:12,10.1.1.7,39,0.000,0.000,0.000,0.000,0.000,0.000
1644939795822355968,2022-02-15-15:43:13,10.1.1.7,19,0.040,0.040,0.040,0.000,0.000,0.000
1644939798241214976,2022-02-15-15:43:16,10.1.1.7,39,-0.020,-0.020,-0.020,0.000,0.000,0.000
1644939798855403776,2022-02-15-15:43:18,10.1.1.7,20,-0.090,-0.090,-0.090,0.000,0.000,0.000
1644939799390934016,2022-02-15-15:43:19,10.1.1.7,39,0.010,0.010,0.010,0.000,0.000,0.000
1644939800096987904,2022-02-15-15:43:19,10.1.1.7,39,0.090,0.090,0.090,0.000,0.000,0.000
1644939802104797952,2022-02-15-15:43:22,10.1.1.7,30,-0.020,-0.020,-0.020,0.000,0.000,0.000
1644939802551646976,2022-02-15-15:43:22,10.1.1.7,30,0.070,0.070,0.070,0.000,0.000,0.000
1644939802851567104,2022-02-15-15:43:22,10.1.1.7,23,0.070,0.070,0.070,0.000,0.000,0.000
1644939804708164864,2022-02-15-15:43:24,10.1.1.7,39,0.030,0.030,0.030,0.000,0.000,0.000
1644939804997779968,2022-02-15-15:43:24,10.1.1.7,29,0.090,0.090,0.090,0.000,0.000,0.000
1644939805088315136,2022-02-15-15:43:25,10.1.1.7,-9,0.090,0.090,0.090,0.000,0.000,0.000
1644939807039482112,2022-02-15-15:43:25,10.1.1.7,40,0.010,0.010,0.010,0.000,0.000,0.000
1644939809465128960,2022-02-15-15:43:27,10.1.1.7,30,-0.050,-0.050,-0.050,0.000,0.000,0.000
1644939809550812928,2022-02-15-15:43:29,10.1.1.7,39,-0.030,-0.030,-0.030,0.000,0.000,0.000
1644939810685334016,2022-02-15-15:43:30,10.1.1.7,28,0.050,0.050,0.050,0.000,0.000,0.000
1644939812439502080,2022-02-15-15:43:32,10.1.1.7,13,0.050,0.050,0.050,0.000,0.000,0.000
1644939812801477888,2022-02-15-15:43:32,10.1.1.7,29,0.070,0.070,0.070,0.000,0.000,0.000
1644939813102777088,2022-02-15-15:43:33,10.1.1.7,-6,0.070,0.070,0.070,0.000,0.000,0.000
1644939813750452992,2022-02-15-15:43:33,10.1.1.7,39,-0.050,-0.050,-0.050,0.000,0.000,0.000
1644939814210016000,2022-02-15-15:43:34,10.1.1.7,39,-0.060,-0.060,-0.060,0.000,0.000,0.000
1644939814825517056,2022-02-15-15:43:34,10.1.1.7,29,0.050,0.050,0.050,0.000,0.000,0.000
1644939815338865920,2022-02-15-15:43:35,10.1.1.7,8,0.050,0.050,0.050,0.000,0.000,0.000
1644939816831105024,2022-02-15-15:43:36,10.1.1.7,30,0.020,0.020,0.020,0.000,0.000,0.000
1644939817631283968,2022-02-15-15:43:37,10.1.1.7,9,0.020,0.020,0.020,0.000,0.000,0.000
1644939818211482880,2022-02-15-15:43:37,10.1.1.7,30,-0.030,-0.030,-0.030,0.000,0.000,0.000
1644939818398351872,2022-02-15-15:43:38,10.1.1.7,29,-0.060,-0.060,-0.060,0.000,0.000,0.000
1644939818790292992,2022-02-15-15:43:38,10.1.1.7,16,-0.060,-0.060,-0.060,0.000,0.000,0.000
1644939819170768128,2022-02-15-15:43:39,10.1.1.7,29,0.010,0.010,0.010,0.000,0.000,0.000
1644939820347920896,2022-02-15-15:43:40,10.1.1.7,-9,0.010,0.010,0.010,0.000,0.000,0.000
1644939821455256832,2022-02-15-15:43:41,10.1.1.7,28,-0.050,-0.050,-0.050,0.000,0.000,0.000
1644939823057563136,2022-02-15-15:43:42,10.1.1.7,28,0.060,0.060,0.060,0.000,0.000,0.000
1644939824010138112,2022-02-15-15:43:43,10.1.1.7,20,0.060,0.060,0.060,0.000,0.000,0.000
1644939824250475776,2022-02-15-15:43:44,10.1.1.7,39,0.010,0.010,0.010,0.000,0.000,0.000
1644939824290462976,2022-02-15-15:43:44,10.1.1.7,29,0.000,0.000,0.000,0.000,0.000,0.000
1644939824517020928,2022-02-15-15:43:44,10.1.1.7,39,-0.040,-0.040,-0.040,0.000,0.000,0.000
1644939825871959808,2022-02-15-15:43:45,10.1.1.7,-209,-0.040,-0.040,-0.040,0.000,0.000,0.000
1644939826991232000,2022-02-15-15:43:46,10.1.1.7,29,0.080,0.080,0.080,0.000,0.000,0.000
1644939827170700032,2022-02-15-15:43:47,10.1.1.7,30,0.040,0.040,0.040,0.000,0.000,0.000
1644939831055932928,2022-02-15-15:43:48,10.1.1.7,28,-0.080,-0.080,-0.080,0.000,0.000,0.000
1644939833048768000,2022-02-15-15:43:51,10.1.1.7,39,0.000,0.000,0.000,0.000,0.000,0.000
1644939833671339008,2022-02-15-15:43:53,10.1.1.7,29,0.080,0.080,0.080,0.000,0.000,0.000
1644939833730740992,2022-02-15-15:43:53,10.1.1.7,39,0.070,0.070,0.070,0.000,0.000,0.000
1644939834667025920,2022-02-15-15:43:54,10.1.1.7,40,0.010,0.010,0.010,0.000,0.000,0.000
1644939835831427072,2022-02-15-15:43:55,10.1.1.7,6,0.010,0.010,0.010,0.000,0.000,0.000
1644939837033252096,2022-02-15-15:43:57,10.1.1.7,28,0.020,0.020,0.020,0.000,0.000,0.000
1644939837751153920,2022-02-15-15:43:57,10.1.1.7,30,-0.080,-0.080,-0.080,0.000,0.000,0.000
1644939839041240832,2022-02-15-15:43:59,10.1.1.7,38,0.040,0.040,0.040,0.000,0.000,0.000
1644939839650952960,2022-02-15-15:43:59,10.1.1.7,29,-0.080,-0.080,-0.080,0.000,0.000,0.000
1644939839712035840,2022-02-15-15:43:59,10.1.1.7,39,-0.090,-0.090,-0.090,0.000,0.000,0.000
1644939839791924992,2022-02-15-15:43:59,10.1.1.7,17,-0.090,-0.090,-0.090,0.000,0.000,0.000
1644939840580282880,2022-02-15-15:44:00,10.1.1.7,39,0.040,0.040,0.040,0.000,0.000,0.000
1644939841070470144,2022-02-15-15:44:01,10.1.1.7,30,0.060,0.060,0.060,0.000,0.000,0.000
1644939842853438976,2022-02-15-15:44:02,10.1.1.7,7,0.060,0.060,0.060,0.000,0.000,0.000
1644939843279042048,2022-02-15-15:44:03,10.1.1.7,-18,0.060,0.060,0.060,0.000,0.000,0.000
1644939847260750080,2022-02-15-15:44:05,10.1.1.7,-65,0.060,0.060,0.060,0.000,0.000,0.000
1644939847346676224,2022-02-15-15:44:07,10.1.1.7,39,0.070,0.070,0.070,0.000,0.000,0.000
1644939849957668096,2022-02-15-15:44:09,10.1.1.7,17,0.070,0.070,0.070,0.000,0.000,0.000
1644939850270984960,2022-02-15-15:44:10,10.1.1.7,-2,0.070,0.070,0.070,0.000,0.000,0.000
1644939852929065984,2022-02-15-15:44:11,10.1.1.7,28,-0.080,-0.080,-0.080,0.000,0.000,0.000
1644939857242144000,2022-02-15-15:44:15,10.1.1.7,18,0.000,0.000,0.000,0.000,0.000,0.000
1644939863510334976,2022-02-15-15:44:20,10.1.1.7,-1074,0.000,0.000,0.000,0.000,0.000,0.000
1644939867177383936,2022-02-15-15:44:25,10.1.1.7,29,-0.100,-0.100,-0.100,0.000,0.000,0.000
1644939875768201216,2022-02-15-15:44:32,10.1.1.7,-124,-0.050,-0.050,-0.050,0.000,0.000,0.000
1644939878135181824,2022-02-15-15:44:37,10.1.1.7,30,-0.070,-0.070,-0.070,0.000,0.000,0.000
1644939878211298816,2022-02-15-15:44:38,10.1.1.7,29,-0.050,-0.050,-0.050,0.000,0.000,0.000
1644939885758831104,2022-02-15-15:44:45,10.1.1.7,29,0.030,0.030,0.030,0.000,0.000,0.000
1644939903621341952,2022-02-15-15:44:59,10.1.1.7,-2423,-0.050,-0.050,-0.050,0.000,0.000,0.000
1644939944438684928,2022-02-15-15:45:31,10.1.1.7,29,0.050,0.050,0.050,0.000,0.000,0.000
1644939947090134016,2022-02-15-15:45:47,10.1.1.7,29,0.020,0.020,0.020,0.000,0.000,0.000
1644939947150684160,2022-02-15-15:45:47,10.1.1.7,39,0.030,0.030,0.030,0.000,0.000,0.000
1644939947830305024,2022-02-15-15:45:47,10.1.1.7,9,0.030,0.030,0.030,0.000,0.000,0.000
1644939947911073024,2022-02-15-15:45:47,10.1.1.7,39,0.020,0.020,0.020,0.000,0.000,0.000
1644939948231329024,2022-02-15-15:45:48,10.1.1.7,39,-0.040,-0.040,-0.040,0.000,0.000,0.000
1644939948271087872,2022-02-15-15:45:48,10.1.1.7,29,-0.050,-0.050,-0.050,0.000,0.000,0.000
1644939948791631872,2022-02-15-15:45:48,10.1.1.7,6,-0.050,-0.050,-0.050,0.000,0.000,0.000
1644939949270001920,2022-02-15-15:45:49,10.1.1.7,29,0.040,0.040,0.040,0.000,0.000,0.000
1644939949871638016,2022-02-15-15:45:49,10.1.1.7,15,0.040,0.040,0.040,0.000,0.000,0.000
1644939950571314944,2022-02-15-15:45:50,10.1.1.7,39,-0.090,-0.090,-0.090,0.000,0.000,0.000
1644939950614868992,2022-02-15-15:45:50,10.1.1.7,29,-0.100,-0.100,-0.100,0.000,0.000,0.000
1644939950671021824,2022-02-15-15:45:50,10.1.1.7,39,-0.090,-0.090,-0.090,0.000,0.000,0.000
1644939950832274944,2022-02-15-15:45:50,10.1.1.7,40,-0.060,-0.060,-0.060,0.000,0.000,0.000
1644939952051521024,2022-02-15-15:45:52,10.1.1.7,39,0.020,0.020,0.020,0.000,0.000,0.000
1644939952091298048,2022-02-15-15:45:52,10.1.1.7,29,0.010,0.010,0.010,0.000,0.000,0.000
1644939952154417152,2022-02-15-15:45:52,10.1.1.7,38,0.000,0.000,0.000,0.000,0.000,0.000
1644939953079832064,2022-02-15-15:45:53,10.1.1.7,38,-0.040,-0.040,-0.040,0.000,0.000,0.000
1644939954594536192,2022-02-15-15:45:54,10.1.1.7,2,-0.040,-0.040,-0.040,0.000,0.000,0.000
1644939955190176000,2022-02-15-15:45:55,10.1.1.7,29,-0.050,-0.050,-0.050,0.000,0.000,0.000
1644939955577733120,2022-02-15-15:45:55,10.1.1.7,39,0.020,0.020,0.020,0.000,0.000,0.000
1644939956390695168,2022-02-15-15:45:56,10.1.1.7,16,0.020,0.020,0.020,0.000,0.000,0.000
1644939956590184960,2022-02-15-15:45:56,10.1.1.7,29,-0.010,-0.010,-0.010,0.000,0.000,0.000
1644939956650171136,2022-02-15-15:45:56,10.1.1.7,39,-0.020,-0.020,-0.020,0.000,0.000,0.000
1644939957490587904,2022-02-15-15:45:57,10.1.1.7,12,-0.020,-0.020,-0.020,0.000,0.000,0.000
1644939958615293952,2022-02-15-15:45:58,10.1.1.7,39,0.030,0.030,0.030,0.000,0.000,0.000
1644939959712034048,2022-02-15-15:45:59,10.1.1.7,39,-0.020,-0.020,-0.020,0.000,0.000,0.000
1644939960170877952,2022-02-15-15:46:00,10.1.1.7,39,0.070,0.070,0.070,0.000,0.000,0.000
1644939960453968896,2022-02-15-15:46:00,10.1.1.7,12,0.070,0.070,0.070,0.000,0.000,0.000
1644939961075136000,2022-02-15-15:46:01,10.1.1.7,39,-0.040,-0.040,-0.040,0.000,0.000,0.000
1644939961690195968,2022-02-15-15:46:01,10.1.1.7,29,-0.050,-0.050,-0.050,0.000,0.000,0.000
1644939963399204096,2022-02-15-15:46:03,10.1.1.7,15,-0.050,-0.050,-0.050,0.000,0.000,0.000
1644939963772515072,2022-02-15-15:46:03,10.1.1.7,-47,-0.080,-0.080,-0.080,0.000,0.000,0.000
1644939964470642176,2022-02-15-15:46:04,10.1.1.7,39,0.050,0.050,0.050,0.000,0.000,0.000
1644939964969935872,2022-02-15-15:46:04,10.1.1.7,15,0.050,0.050,0.050,0.000,0.000,0.000
1644939966291600896,2022-02-15-15:46:06,10.1.1.7,29,0.000,0.000,0.000,0.000,0.000,0.000
1644939967150747904,2022-02-15-15:46:07,10.1.1.7,20,0.030,0.030,0.030,0.000,0.000,0.000
1644939967209991936,2022-02-15-15:46:07,10.1.1.7,29,0.020,0.020,0.020,0.000,0.000,0.000
1644939968031371008,2022-02-15-15:46:08,10.1.1.7,29,-0.060,-0.060,-0.060,0.000,0.000,0.000
1644939968591041024,2022-02-15-15:46:08,10.1.1.7,29,0.050,0.050,0.050,0.000,0.000,0.000
1644939969090636032,2022-02-15-15:46:09,10.1.1.7,21,0.050,0.050,0.050,0.000,0.000,0.000
1644939969891150848,2022-02-15-15:46:09,10.1.1.7,39,-0.100,-0.100,-0.100,0.000,0.000,0.000
1644939970911827200,2022-02-15-15:46:10,10.1.1.7,39,0.100,0.100,0.100,0.000,0.000,0.000
1644939972689554944,2022-02-15-15:46:12,10.1.1.7,39,0.020,0.020,0.020,0.000,0.000,0.000
1644939973390888960,2022-02-15-15:46:13,10.1.1.7,30,0.040,0.040,0.040,0.000,0.000,0.000
1644939973450113024,2022-02-15-15:46:13,10.1.1.7,39,0.030,0.030,0.030,0.000,0.000,0.000
1644939973490514944,2022-02-15-15:46:13,10.1.1.7,29,0.020,0.020,0.020,0.000,0.000,0.000
1644939974613096960,2022-02-15-15:46:14,10.1.1.7,29,0.000,0.000,0.000,0.000,0.000,0.000
1644939975612814848,2022-02-15-15:46:15,10.1.1.7,14,0.000,0.000,0.000,0.000,0.000,0.000
1644939975930455808,2022-02-15-15:46:15,10.1.1.7,29,-0.060,-0.060,-0.060,0.000,0.000,0.000
1644939976329982976,2022-02-15-15:46:16,10.1.1.7,19,-0.060,-0.060,-0.060,0.000,0.000,0.000
1644939977009989888,2022-02-15-15:46:17,10.1.1.7,29,0.070,0.070,0.070,0.000,0.000,0.000
1644939977311956992,2022-02-15-15:46:17,10.1.1.7,19,0.070,0.070,0.070,0.000,0.000,0.000
1644939978111548928,2022-02-15-15:46:18,10.1.1.7,39,-0.080,-0.080,-0.080,0.000,0.000,0.000
1644939978289701888,2022-02-15-15:46:18,10.1.1.7,11,-0.080,-0.080,-0.080,0.000,0.000,0.000
1644939978410551040,2022-02-15-15:46:18,10.1.1.7,29,-0.060,-0.060,-0.060,0.000,0.000,0.000
1644939980030298880,2022-02-15-15:46:20,10.1.1.7,10,-0.060,-0.060,-0.060,0.000,0.000,0.000
1644939980110829056,2022-02-15-15:46:20,10.1.1.7,39,-0.070,-0.070,-0.070,0.000,0.000,0.000
1644939980391115776,2022-02-15-15:46:20,10.1.1.7,12,-0.070,-0.070,-0.070,0.000,0.000,0.000
1644939980471232768,2022-02-15-15:46:20,10.1.1.7,39,-0.060,-0.060,-0.060,0.000,0.000,0.000
1644939981590339840,2022-02-15-15:46:21,10.1.1.7,29,0.040,0.040,0.040,0.000,0.000,0.000
1644939981652952064,2022-02-15-15:46:21,10.1.1.7,39,0.030,0.030,0.030,0.000,0.000,0.000
1644939983050066944,2022-02-15-15:46:23,10.1.1.7,16,0.030,0.030,0.030,0.000,0.000,0.000
1644939983470086144,2022-02-15-15:46:23,10.1.1.7,28,0.090,0.090,0.090,0.000,0.000,0.000
1644939984289739008,2022-02-15-15:46:24,10.1.1.7,29,-0.070,-0.070,-0.070,0.000,0.000,0.000
1644939984590248960,2022-02-15-15:46:24,10.1.1.7,23,-0.070,-0.070,-0.070,0.000,0.000,0.000
1644939984709538816,2022-02-15-15:46:24,10.1.1.7,39,-0.050,-0.050,-0.050,0.000,0.000,0.000
1644939985175208960,2022-02-15-15:46:25,10.1.1.7,39,0.040,0.040,0.040,0.000,0.000,0.000
1644939985631188992,2022-02-15-15:46:25,10.1.1.7,39,0.070,0.070,0.070,0.000,0.000,0.000
1644939986090398976,2022-02-15-15:46:26,10.1.1.7,39,-0.020,-0.020,-0.020,0.000,0.000,0.000
1644939986849869056,2022-02-15-15:46:26,10.1.1.7,29,-0.030,-0.030,-0.030,0.000,0.000,0.000
1644939987249716992,2022-02-15-15:46:27,10.1.1.7,19,0.050,0.050,0.050,0.000,0.000,0.000
1644939987750149888,2022-02-15-15:46:27,10.1.1.7,9,0.050,0.050,0.050,0.000,0.000,0.000
1644939988189788160,2022-02-15-15:46:28,10.1.1.7,39,-0.030,-0.030,-0.030,0.000,0.000,0.000
1644939988549966080,2022-02-15-15:46:28,10.1.1.7,40,-0.100,-0.100,-0.100,0.000,0.000,0.000
1644939989069790976,2022-02-15-15:46:29,10.1.1.7,39,0.000,0.000,0.000,0.000,0.000,0.000
1644939989890775808,2022-02-15-15:46:29,10.1.1.7,39,0.040,0.040,0.040,0.000,0.000,0.000
1644939989929939968,2022-02-15-15:46:29,10.1.1.7,29,0.030,0.030,0.030,0.000,0.000,0.000
1644939990390155008,2022-02-15-15:46:30,10.1.1.7,29,-0.060,-0.060,-0.060,0.000,0.000,0.000
1644939990450126848,2022-02-15-15:46:30,10.1.1.7,39,-0.070,-0.070,-0.070,0.000,0.000,0.000
1644939990713833216,2022-02-15-15:46:30,10.1.1.7,40,-0.080,-0.080,-0.080,0.000,0.000,0.000
1644939991070537216,2022-02-15-15:46:31,10.1.1.7,39,-0.010,-0.010,-0.010,0.000,0.000,0.000
1644939991531753984,2022-02-15-15:46:31,10.1.1.7,29,0.080,0.080,0.080,0.000,0.000,0.000
1644939991711625216,2022-02-15-15:46:31,10.1.1.7,4,0.080,0.080,0.080,0.000,0.000,0.000
1644939992309590016,2022-02-15-15:46:32,10.1.1.7,39,-0.030,-0.030,-0.030,0.000,0.000,0.000
1644939993009902848,2022-02-15-15:46:33,10.1.1.7,25,-0.030,-0.030,-0.030,0.000,0.000,0.000
1644939994329952000,2022-02-15-15:46:34,10.1.1.7,17,-0.030,-0.030,-0.030,0.000,0.000,0.000
1644939995050976000,2022-02-15-15:46:35,10.1.1.7,22,-0.030,-0.030,-0.030,0.000,0.000,0.000
1644939995170317824,2022-02-15-15:46:35,10.1.1.7,39,-0.010,-0.010,-0.010,0.000,0.000,0.000
1644939995991152896,2022-02-15-15:46:35,10.1.1.7,39,0.050,0.050,0.050,0.000,0.000,0.000
1644939997513722880,2022-02-15-15:46:37,10.1.1.7,18,0.050,0.050,0.050,0.000,0.000,0.000
1644939998031429120,2022-02-15-15:46:38,10.1.1.7,20,0.050,0.050,0.050,0.000,0.000,0.000
1644939999549810944,2022-02-15-15:46:39,10.1.1.7,39,0.040,0.040,0.040,0.000,0.000,0.000
1644940000149710848,2022-02-15-15:46:40,10.1.1.7,10,0.040,0.040,0.040,0.000,0.000,0.000
1644940000231920896,2022-02-15-15:46:40,10.1.1.7,38,0.030,0.030,0.030,0.000,0.000,0.000
1644940000950237952,2022-02-15-15:46:40,10.1.1.7,39,-0.090,-0.090,-0.090,0.000,0.000,0.000
1644940001710014208,2022-02-15-15:46:41,10.1.1.7,29,0.060,0.060,0.060,0.000,0.000,0.000
1644940002070009088,2022-02-15-15:46:42,10.1.1.7,29,0.070,0.070,0.070,0.000,0.000,0.000
1644940002789433856,2022-02-15-15:46:42,10.1.1.7,29,-0.070,-0.070,-0.070,0.000,0.000,0.000
1644940003089297152,2022-02-15-15:46:43,10.1.1.7,20,-0.070,-0.070,-0.070,0.000,0.000,0.000
1644940003150334976,2022-02-15-15:46:43,10.1.1.7,29,-0.060,-0.060,-0.060,0.000,0.000,0.000
1644940003635153920,2022-02-15-15:46:43,10.1.1.7,39,0.030,0.030,0.030,0.000,0.000,0.000
1644940004334265088,2022-02-15-15:46:44,10.1.1.7,17,0.030,0.030,0.030,0.000,0.000,0.000
1644940005369744128,2022-02-15-15:46:45,10.1.1.7,29,-0.030,-0.030,-0.030,0.000,0.000,0.000
1644940006690479872,2022-02-15-15:46:46,10.1.1.7,12,-0.030,-0.030,-0.030,0.000,0.000,0.000
1644940007270457088,2022-02-15-15:46:47,10.1.1.7,29,-0.060,-0.060,-0.060,0.000,0.000,0.000
1644940007631079936,2022-02-15-15:46:47,10.1.1.7,29,0.010,0.010,0.010,0.000,0.000,0.000
1644940008050055936,2022-02-15-15:46:48,10.1.1.7,39,0.090,0.090,0.090,0.000,0.000,0.000
1644940008131553792,2022-02-15-15:46:48,10.1.1.7,17,0.090,0.090,0.090,0.000,0.000,0.000
1644940009170360064,2022-02-15-15:46:49,10.1.1.7,29,-0.090,-0.090,-0.090,0.000,0.000,0.000
1644940009831060992,2022-02-15-15:46:49,10.1.1.7,30,0.040,0.040,0.040,0.000,0.000,0.000
1644940009890914048,2022-02-15-15:46:49,10.1.1.7,39,0.050,0.050,0.050,0.000,0.000,0.000
1644940010290561792,2022-02-15-15:46:50,10.1.1.7,30,0.070,0.070,0.070,0.000,0.000,0.000
1644940010349920000,2022-02-15-15:46:50,10.1.1.7,38,0.060,0.060,0.060,0.000,0.000,0.000
1644940011210410240,2022-02-15-15:46:51,10.1.1.7,29,-0.090,-0.090,-0.090,0.000,0.000,0.000
1644940012230918912,2022-02-15-15:46:52,10.1.1.7,29,0.090,0.090,0.090,0.000,0.000,0.000
1644940012792221952,2022-02-15-15:46:52,10.1.1.7,29,-0.020,-0.020,-0.020,0.000,0.000,0.000
1644940013591088896,2022-02-15-15:46:53,10.1.1.7,15,-0.020,-0.020,-0.020,0.000,0.000,0.000
1644940013811198976,2022-02-15-15:46:53,10.1.1.7,30,0.020,0.020,0.020,0.000,0.000,0.000
1644940014330441984,2022-02-15-15:46:54,10.1.1.7,40,0.080,0.080,0.080,0.000,0.000,0.000
1644940015713622016,2022-02-15-15:46:55,10.1.1.7,39,-0.010,-0.010,-0.010,0.000,0.000,0.000
1644940016812756992,2022-02-15-15:46:56,10.1.1.7,12,-0.010,-0.010,-0.010,0.000,0.000,0.000
1644940017752745984,2022-02-15-15:46:57,10.1.1.7,10,-0.010,-0.010,-0.010,0.000,0.000,0.000
1644940018690200064,2022-02-15-15:46:58,10.1.1.7,39,0.030,0.030,0.030,0.000,0.000,0.000
1644940019990722816,2022-02-15-15:46:59,10.1.1.7,21,0.030,0.030,0.030,0.000,0.000,0.000
1644940020669790976,2022-02-15-15:47:00,10.1.1.7,39,0.040,0.040,0.040,0.000,0.000,0.000
1644940021370917120,2022-02-15-15:47:01,10.1.1.7,30,-0.100,-0.100,-0.100,0.000,0.000,0.000
1644940022231092992,2022-02-15-15:47:02,10.1.1.7,30,0.070,0.070,0.070,0.000,0.000,0.000
1644940022289244928,2022-02-15-15:47:02,10.1.1.7,39,0.080,0.080,0.080,0.000,0.000,0.000
1644940022470611200,2022-02-15-15:47:02,10.1.1.7,17,0.080,0.080,0.080,0.000,0.000,0.000
1644940024172765952,2022-02-15-15:47:04,10.1.1.7,39,0.050,0.050,0.050,0.000,0.000,0.000
1644940024429819136,2022-02-15-15:47:04,10.1.1.7,39,0.100,0.100,0.100,0.000,0.000,0.000
1644940025911441920,2022-02-15-15:47:05,10.1.1.7,19,-0.010,-0.010,-0.010,0.000,0.000,0.000
1644940026250859008,2022-02-15-15:47:06,10.1.1.7,39,0.050,0.050,0.050,0.000,0.000,0.000
1644940026454366976,2022-02-15-15:47:06,10.1.1.7,29,0.090,0.090,0.090,0.000,0.000,0.000
1644940026531888128,2022-02-15-15:47:06,10.1.1.7,7,0.090,0.090,0.090,0.000,0.000,0.000
1644940026969666048,2022-02-15-15:47:06,10.1.1.7,39,0.010,0.010,0.010,0.000,0.000,0.000
1644940027371373824,2022-02-15-15:47:07,10.1.1.7,30,-0.070,-0.070,-0.070,0.000,0.000,0.000
1644940027629654016,2022-02-15-15:47:07,10.1.1.7,29,-0.080,-0.080,-0.080,0.000,0.000,0.000
1644940028650296832,2022-02-15-15:47:08,10.1.1.7,28,0.080,0.080,0.080,0.000,0.000,0.000
1644940029011572992,2022-02-15-15:47:09,10.1.1.7,30,0.010,0.010,0.010,0.000,0.000,0.000
1644940029531034112,2022-02-15-15:47:09,10.1.1.7,39,-0.090,-0.090,-0.090,0.000,0.000,0.000
1644940029570884096,2022-02-15-15:47:09,10.1.1.7,28,-0.100,-0.100,-0.100,0.000,0.000,0.000
1644940029890518784,2022-02-15-15:47:09,10.1.1.7,38,-0.040,-0.040,-0.040,0.000,0.000,0.000
1644940030570702080,2022-02-15-15:47:10,10.1.1.7,39,0.090,0.090,0.090,0.000,0.000,0.000
1644940030655415040,2022-02-15-15:47:10,10.1.1.7,17,0.090,0.090,0.090,0.000,0.000,0.000
1644940032290863104,2022-02-15-15:47:12,10.1.1.7,40,0.020,0.020,0.020,0.000,0.000,0.000
1644940032690048000,2022-02-15-15:47:12,10.1.1.7,33,0.100,0.100,0.100,0.000,0.000,0.000
1644940032795830016,2022-02-15-15:47:12,10.1.1.7,29,0.080,0.080,0.080,0.000,0.000,0.000
1644940033611154944,2022-02-15-15:47:13,10.1.1.7,29,-0.080,-0.080,-0.080,0.000,0.000,0.000
1644940033791065856,2022-02-15-15:47:13,10.1.1.7,6,-0.080,-0.080,-0.080,0.000,0.000,0.000
1644940034129499904,2022-02-15-15:47:14,10.1.1.7,29,-0.020,-0.020,-0.020,0.000,0.000,0.000
1644940034491881984,2022-02-15-15:47:14,10.1.1.7,29,0.050,0.050,0.050,0.000,0.000,0.000
1644940034989929984,2022-02-15-15:47:14,10.1.1.7,19,0.050,0.050,0.050,0.000,0.000,0.000
1644940035310595072,2022-02-15-15:47:15,10.1.1.7,29,-0.010,-0.010,-0.010,0.000,0.000,0.000
1644940036211535872,2022-02-15-15:47:16,10.1.1.7,8,-0.010,-0.010,-0.010,0.000,0.000,0.000
1644940037350262016,2022-02-15-15:47:17,10.1.1.7,23,-0.010,-0.010,-0.010,0.000,0.000,0.000
1644940038129496064,2022-02-15-15:47:18,10.1.1.7,39,-0.040,-0.040,-0.040,0.000,0.000,0.000
1644940038598417920,2022-02-15-15:47:18,10.1.1.7,39,0.050,0.050,0.050,0.000,0.000,0.000
1644940038630477824,2022-02-15-15:47:18,10.1.1.7,29,0.060,0.060,0.060,0.000,0.000,0.000
1644940039031685120,2022-02-15-15:47:19,10.1.1.7,5,0.060,0.060,0.060,0.000,0.000,0.000
1644940039351563008,2022-02-15-15:47:19,10.1.1.7,18,0.000,0.000,0.000,0.000,0.000,0.000
1644940039571073024,2022-02-15-15:47:19,10.1.1.7,29,-0.040,-0.040,-0.040,0.000,0.000,0.000
1644940039634827008,2022-02-15-15:47:19,10.1.1.7,39,-0.050,-0.050,-0.050,0.000,0.000,0.000
1644940040139609088,2022-02-15-15:47:20,10.1.1.7,4,-0.050,-0.050,-0.050,0.000,0.000,0.000
1644940040311569920,2022-02-15-15:47:20,10.1.1.7,30,-0.020,-0.020,-0.020,0.000,0.000,0.000
1644940041511079168,2022-02-15-15:47:21,10.1.1.7,40,-0.010,-0.010,-0.010,0.000,0.000,0.000
1644940041550455040,2022-02-15-15:47:21,10.1.1.7,29,-0.020,-0.020,-0.020,0.000,0.000,0.000
1644940041870853888,2022-02-15-15:47:21,10.1.1.7,39,-0.080,-0.080,-0.080,0.000,0.000,0.000
1644940042049575168,2022-02-15-15:47:22,10.1.1.7,15,-0.080,-0.080,-0.080,0.000,0.000,0.000
1644940042270126080,2022-02-15-15:47:22,10.1.1.7,29,-0.040,-0.040,-0.040,0.000,0.000,0.000
1644940042849726976,2022-02-15-15:47:22,10.1.1.7,39,0.070,0.070,0.070,0.000,0.000,0.000
1644940043129901824,2022-02-15-15:47:23,10.1.1.7,14,0.070,0.070,0.070,0.000,0.000,0.000
1644940043550699008,2022-02-15-15:47:23,10.1.1.7,29,-0.010,-0.010,-0.010,0.000,0.000,0.000
1644940043910180096,2022-02-15-15:47:23,10.1.1.7,29,-0.080,-0.080,-0.080,0.000,0.000,0.000
1644940044090203904,2022-02-15-15:47:24,10.1.1.7,6,-0.080,-0.080,-0.080,0.000,0.000,0.000
1644940044569870080,2022-02-15-15:47:24,10.1.1.7,29,0.010,0.010,0.010,0.000,0.000,0.000
1644940045192823808,2022-02-15-15:47:25,10.1.1.7,29,0.070,0.070,0.070,0.000,0.000,0.000
1644940046010541056,2022-02-15-15:47:26,10.1.1.7,39,-0.090,-0.090,-0.090,0.000,0.000,0.000
1644940046092912896,2022-02-15-15:47:26,10.1.1.7,18,-0.090,-0.090,-0.090,0.000,0.000,0.000
1644940046671260160,2022-02-15-15:47:26,10.1.1.7,39,0.020,0.020,0.020,0.000,0.000,0.000
1644940047430797056,2022-02-15-15:47:27,10.1.1.7,39,0.030,0.030,0.030,0.000,0.000,0.000
1644940047471038208,2022-02-15-15:47:27,10.1.1.7,29,0.020,0.020,0.020,0.000,0.000,0.000
1644940048670105856,2022-02-15-15:47:28,10.1.1.7,9,0.020,0.020,0.020,0.000,0.000,0.000
1644940049492315904,2022-02-15-15:47:29,10.1.1.7,20,0.020,0.020,0.020,0.000,0.000,0.000
1644940050710328064,2022-02-15-15:47:30,10.1.1.7,21,0.020,0.020,0.020,0.000,0.000,0.000
1644940050829976064,2022-02-15-15:47:30,10.1.1.7,39,0.040,0.040,0.040,0.000,0.000,0.000
1644940051410799104,2022-02-15-15:47:31,10.1.1.7,8,0.040,0.040,0.040,0.000,0.000,0.000
1644940051850789120,2022-02-15-15:47:31,10.1.1.7,39,-0.040,-0.040,-0.040,0.000,0.000,0.000
1644940052430102016,2022-02-15-15:47:32,10.1.1.7,10,-0.040,-0.040,-0.040,0.000,0.000,0.000
1644940052510606080,2022-02-15-15:47:32,10.1.1.7,39,-0.030,-0.030,-0.030,0.000,0.000,0.000
1644940053009970944,2022-02-15-15:47:33,10.1.1.7,29,0.070,0.070,0.070,0.000,0.000,0.000
1644940053069273088,2022-02-15-15:47:33,10.1.1.7,39,0.080,0.080,0.080,0.000,0.000,0.000
1644940053249649152,2022-02-15-15:47:33,10.1.1.7,17,0.080,0.080,0.080,0.000,0.000,0.000
1644940053629853952,2022-02-15-15:47:33,10.1.1.7,39,0.010,0.010,0.010,0.000,0.000,0.000
1644940053669442816,2022-02-15-15:47:33,10.1.1.7,29,0.000,0.000,0.000,0.000,0.000,0.000
1644940054031603200,2022-02-15-15:47:34,10.1.1.7,29,-0.070,-0.070,-0.070,0.000,0.000,0.000
1644940054331425792,2022-02-15-15:47:34,10.1.1.7,21,-0.070,-0.070,-0.070,0.000,0.000,0.000
1644940054450311936,2022-02-15-15:47:34,10.1.1.7,39,-0.050,-0.050,-0.050,0.000,0.000,0.000
1644940055955279104,2022-02-15-15:47:35,10.1.1.7,2,-0.050,-0.050,-0.050,0.000,0.000,0.000
1644940056491588096,2022-02-15-15:47:36,10.1.1.7,23,-0.050,-0.050,-0.050,0.000,0.000,0.000
1644940056710553856,2022-02-15-15:47:36,10.1.1.7,39,-0.010,-0.010,-0.010,0.000,0.000,0.000
1644940056909405952,2022-02-15-15:47:36,10.1.1.7,30,0.030,0.030,0.030,0.000,0.000,0.000
1644940057309914112,2022-02-15-15:47:37,10.1.1.7,20,0.090,0.090,0.090,0.000,0.000,0.000
1644940058509861888,2022-02-15-15:47:38,10.1.1.7,39,-0.060,-0.060,-0.060,0.000,0.000,0.000
1644940059010180096,2022-02-15-15:47:39,10.1.1.7,29,0.040,0.040,0.040,0.000,0.000,0.000
1644940059529721856,2022-02-15-15:47:39,10.1.1.7,39,0.060,0.060,0.060,0.000,0.000,0.000
1644940060450768896,2022-02-15-15:47:40,10.1.1.7,39,-0.080,-0.080,-0.080,0.000,0.000,0.000
1644940061650599936,2022-02-15-15:47:41,10.1.1.7,29,0.050,0.050,0.050,0.000,0.000,0.000
1644940061909917184,2022-02-15-15:47:41,10.1.1.7,30,0.000,0.000,0.000,0.000,0.000,0.000
1644940061973421056,2022-02-15-15:47:41,10.1.1.7,39,-0.010,-0.010,-0.010,0.000,0.000,0.000
1644940062889992960,2022-02-15-15:47:42,10.1.1.7,23,-0.010,-0.010,-0.010,0.000,0.000,0.000
1644940063533349120,2022-02-15-15:47:43,10.1.1.7,30,0.090,0.090,0.090,0.000,0.000,0.000
1644940063591475968,2022-02-15-15:47:43,10.1.1.7,39,0.080,0.080,0.080,0.000,0.000,0.000
1644940064350935040,2022-02-15-15:47:44,10.1.1.7,29,-0.070,-0.070,-0.070,0.000,0.000,0.000
1644940064412097024,2022-02-15-15:47:44,10.1.1.7,39,-0.080,-0.080,-0.080,0.000,0.000,0.000
1644940064590390016,2022-02-15-15:47:44,10.1.1.7,16,-0.080,-0.080,-0.080,0.000,0.000,0.000
1644940064811131904,2022-02-15-15:47:44,10.1.1.7,29,-0.040,-0.040,-0.040,0.000,0.000,0.000
1644940065370300928,2022-02-15-15:47:45,10.1.1.7,29,0.070,0.070,0.070,0.000,0.000,0.000
1644940065669814016,2022-02-15-15:47:45,10.1.1.7,26,0.070,0.070,0.070,0.000,0.000,0.000
1644940066130295040,2022-02-15-15:47:46,10.1.1.7,29,-0.020,-0.020,-0.020,0.000,0.000,0.000
1644940066930496000,2022-02-15-15:47:46,10.1.1.7,20,-0.020,-0.020,-0.020,0.000,0.000,0.000
1644940066990392064,2022-02-15-15:47:46,10.1.1.7,30,-0.010,-0.010,-0.010,0.000,0.000,0.000
1644940067750434048,2022-02-15-15:47:47,10.1.1.7,30,0.060,0.060,0.060,0.000,0.000,0.000
1644940067811379968,2022-02-15-15:47:47,10.1.1.7,39,0.050,0.050,0.050,0.000,0.000,0.000
1644940068510240000,2022-02-15-15:47:48,10.1.1.7,29,-0.090,-0.090,-0.090,0.000,0.000,0.000
1644940068570036992,2022-02-15-15:47:48,10.1.1.7,39,-0.100,-0.100,-0.100,0.000,0.000,0.000
1644940068609829888,2022-02-15-15:47:48,10.1.1.7,28,-0.090,-0.090,-0.090,0.000,0.000,0.000
1644940069269925120,2022-02-15-15:47:49,10.1.1.7,31,0.040,0.040,0.040,0.000,0.000,0.000
1644940069869786880,2022-02-15-15:47:49,10.1.1.7,22,0.040,0.040,0.040,0.000,0.000,0.000
1644940069930541056,2022-02-15-15:47:49,10.1.1.7,31,0.030,0.030,0.030,0.000,0.000,0.000
1644940070029661952,2022-02-15-15:47:50,10.1.1.7,29,0.010,0.010,0.010,0.000,0.000,0.000
1644940071130793216,2022-02-15-15:47:51,10.1.1.7,9,0.010,0.010,0.010,0.000,0.000,0.000
1644940071189736960,2022-02-15-15:47:51,10.1.1.7,19,0.020,0.020,0.020,0.000,0.000,0.000
1644940071990106112,2022-02-15-15:47:51,10.1.1.7,10,0.020,0.020,0.020,0.000,0.000,0.000
1644940072109905920,2022-02-15-15:47:52,10.1.1.7,29,0.000,0.000,0.000,0.000,0.000,0.000
1644940072610518016,2022-02-15-15:47:52,10.1.1.7,20,-0.100,-0.100,-0.100,0.000,0.000,0.000
1644940072671662080,2022-02-15-15:47:52,10.1.1.7,29,-0.090,-0.090,-0.090,0.000,0.000,0.000
1644940073331011072,2022-02-15-15:47:53,10.1.1.7,30,0.040,0.040,0.040,0.000,0.000,0.000
1644940073689755904,2022-02-15-15:47:53,10.1.1.7,31,0.090,0.090,0.090,0.000,0.000,0.000
1644940073750227968,2022-02-15-15:47:53,10.1.1.7,39,0.080,0.080,0.080,0.000,0.000,0.000
1644940074350318080,2022-02-15-15:47:54,10.1.1.7,29,-0.040,-0.040,-0.040,0.000,0.000,0.000
1644940074951215872,2022-02-15-15:47:54,10.1.1.7,20,-0.040,-0.040,-0.040,0.000,0.000,0.000
1644940075010312192,2022-02-15-15:47:55,10.1.1.7,29,-0.030,-0.030,-0.030,0.000,0.000,0.000
1644940075670016000,2022-02-15-15:47:55,10.1.1.7,29,0.100,0.100,0.100,0.000,0.000,0.000
1644940076791079936,2022-02-15-15:47:56,10.1.1.7,29,-0.080,-0.080,-0.080,0.000,0.000,0.000
1644940078270329856,2022-02-15-15:47:58,10.1.1.7,39,-0.010,-0.010,-0.010,0.000,0.000,0.000
1644940078309969920,2022-02-15-15:47:58,10.1.1.7,29,-0.020,-0.020,-0.020,0.000,0.000,0.000
1644940079114671104,2022-02-15-15:47:59,10.1.1.7,15,-0.020,-0.020,-0.020,0.000,0.000,0.000
1644940080390363904,2022-02-15-15:48:00,10.1.1.7,15,-0.020,-0.020,-0.020,0.000,0.000,0.000
1644940080751048192,2022-02-15-15:48:00,10.1.1.7,20,-0.090,-0.090,-0.090,0.000,0.000,0.000
1644940080811523072,2022-02-15-15:48:00,10.1.1.7,29,-0.100,-0.100,-0.100,0.000,0.000,0.000
1644940080969702912,2022-02-15-15:48:00,10.1.1.7,29,-0.070,-0.070,-0.070,0.000,0.000,0.000
1644940081135629824,2022-02-15-15:48:01,10.1.1.7,30,-0.040,-0.040,-0.040,0.000,0.000,0.000
1644940081849406976,2022-02-15-15:48:01,10.1.1.7,39,0.100,0.100,0.100,0.000,0.000,0.000
1644940082349842176,2022-02-15-15:48:02,10.1.1.7,29,0.000,0.000,0.000,0.000,0.000,0.000
1644940083111293184,2022-02-15-15:48:03,10.1.1.7,24,-0.060,-0.060,-0.060,0.000,0.000,0.000
1644940083370735872,2022-02-15-15:48:03,10.1.1.7,29,-0.010,-0.010,-0.010,0.000,0.000,0.000
1644940084470272000,2022-02-15-15:48:04,10.1.1.7,10,-0.010,-0.010,-0.010,0.000,0.000,0.000
1644940084550071040,2022-02-15-15:48:04,10.1.1.7,39,-0.020,-0.020,-0.020,0.000,0.000,0.000
1644940085149683968,2022-02-15-15:48:05,10.1.1.7,30,-0.060,-0.060,-0.060,0.000,0.000,0.000
1644940086529666816,2022-02-15-15:48:06,10.1.1.7,40,-0.010,-0.010,-0.010,0.000,0.000,0.000
1644940087269329152,2022-02-15-15:48:07,10.1.1.7,20,-0.040,-0.040,-0.040,0.000,0.000,0.000
1644940087929646080,2022-02-15-15:48:07,10.1.1.7,20,0.090,0.090,0.090,0.000,0.000,0.000
1644940087989511936,2022-02-15-15:48:07,10.1.1.7,29,0.100,0.100,0.100,0.000,0.000,0.000
1644940088049912832,2022-02-15-15:48:08,10.1.1.7,39,0.090,0.090,0.090,0.000,0.000,0.000
1644940088949600000,2022-02-15-15:48:08,10.1.1.7,20,-0.090,-0.090,-0.090,0.000,0.000,0.000
1644940089052247040,2022-02-15-15:48:09,10.1.1.7,19,-0.090,-0.090,-0.090,0.000,0.000,0.000
1644940090969558016,2022-02-15-15:48:10,10.1.1.7,7,-0.090,-0.090,-0.090,0.000,0.000,0.000
1644940091070302976,2022-02-15-15:48:11,10.1.1.7,6,-0.090,-0.090,-0.090,0.000,0.000,0.000
1644940091549648896,2022-02-15-15:48:11,10.1.1.7,20,0.000,0.000,0.000,0.000,0.000,0.000
1644940091610817792,2022-02-15-15:48:11,10.1.1.7,29,0.010,0.010,0.010,0.000,0.000,0.000
1644940092509479936,2022-02-15-15:48:12,10.1.1.7,13,0.010,0.010,0.010,0.000,0.000,0.000
1644940093489765888,2022-02-15-15:48:13,10.1.1.7,31,-0.020,-0.020,-0.020,0.000,0.000,0.000
1644940093629434112,2022-02-15-15:48:13,10.1.1.7,20,0.010,0.010,0.010,0.000,0.000,0.000
1644940093689688832,2022-02-15-15:48:13,10.1.1.7,29,0.020,0.020,0.020,0.000,0.000,0.000
1644940093749921024,2022-02-15-15:48:13,10.1.1.7,39,0.030,0.030,0.030,0.000,0.000,0.000
1644940094429768960,2022-02-15-15:48:14,10.1.1.7,12,0.030,0.030,0.030,0.000,0.000,0.000
1644940094650939904,2022-02-15-15:48:14,10.1.1.7,29,-0.010,-0.010,-0.010,0.000,0.000,0.000
1644940095310016000,2022-02-15-15:48:15,10.1.1.7,29,-0.060,-0.060,-0.060,0.000,0.000,0.000
1644940095970067968,2022-02-15-15:48:15,10.1.1.7,31,0.070,0.070,0.070,0.000,0.000,0.000
1644940096130470912,2022-02-15-15:48:16,10.1.1.7,39,0.100,0.100,0.100,0.000,0.000,0.000
1644940096169810944,2022-02-15-15:48:16,10.1.1.7,29,0.090,0.090,0.090,0.000,0.000,0.000
1644940096869998848,2022-02-15-15:48:16,10.1.1.7,20,-0.050,-0.050,-0.050,0.000,0.000,0.000
1644940096930452224,2022-02-15-15:48:16,10.1.1.7,29,-0.060,-0.060,-0.060,0.000,0.000,0.000
1644940097329660928,2022-02-15-15:48:17,10.1.1.7,23,-0.060,-0.060,-0.060,0.000,0.000,0.000
1644940098150304000,2022-02-15-15:48:18,10.1.1.7,29,0.100,0.100,0.100,0.000,0.000,0.000
1644940100169492992,2022-02-15-15:48:20,10.1.1.7,22,0.100,0.100,0.100,0.000,0.000,0.000
1644940101049959936,2022-02-15-15:48:21,10.1.1.7,39,-0.070,-0.070,-0.070,0.000,0.000,0.000
1644940101330120960,2022-02-15-15:48:21,10.1.1.7,15,-0.070,-0.070,-0.070,0.000,0.000,0.000
1644940102890285056,2022-02-15-15:48:22,10.1.1.7,29,-0.030,-0.030,-0.030,0.000,0.000,0.000
1644940103549545984,2022-02-15-15:48:23,10.1.1.7,29,-0.040,-0.040,-0.040,0.000,0.000,0.000
1644940104110088960,2022-02-15-15:48:24,10.1.1.7,29,0.070,0.070,0.070,0.000,0.000,0.000
1644940104411350016,2022-02-15-15:48:24,10.1.1.7,25,0.070,0.070,0.070,0.000,0.000,0.000
1644940104930071040,2022-02-15-15:48:24,10.1.1.7,39,-0.030,-0.030,-0.030,0.000,0.000,0.000
1644940104970012928,2022-02-15-15:48:24,10.1.1.7,29,-0.040,-0.040,-0.040,0.000,0.000,0.000
1644940105570991104,2022-02-15-15:48:25,10.1.1.7,20,-0.040,-0.040,-0.040,0.000,0.000,0.000
1644940105631047936,2022-02-15-15:48:25,10.1.1.7,28,-0.030,-0.030,-0.030,0.000,0.000,0.000
1644940106390102016,2022-02-15-15:48:26,10.1.1.7,29,0.080,0.080,0.080,0.000,0.000,0.000
1644940107109778944,2022-02-15-15:48:27,10.1.1.7,39,-0.060,-0.060,-0.060,0.000,0.000,0.000
1644940107489876992,2022-02-15-15:48:27,10.1.1.7,15,-0.060,-0.060,-0.060,0.000,0.000,0.000
1644940109110131968,2022-02-15-15:48:29,10.1.1.7,12,-0.060,-0.060,-0.060,0.000,0.000,0.000
1644940109430093056,2022-02-15-15:48:29,10.1.1.7,30,-0.080,-0.080,-0.080,0.000,0.000,0.000
1644940111232356096,2022-02-15-15:48:31,10.1.1.7,11,-0.080,-0.080,-0.080,0.000,0.000,0.000
1644940111430729984,2022-02-15-15:48:31,10.1.1.7,7,-0.080,-0.080,-0.080,0.000,0.000,0.000
1644940112670876928,2022-02-15-15:48:32,10.1.1.7,31,0.040,0.040,0.040,0.000,0.000,0.000
1644940114090312960,2022-02-15-15:48:34,10.1.1.7,14,0.040,0.040,0.040,0.000,0.000,0.000
1644940114690534144,2022-02-15-15:48:34,10.1.1.7,6,0.040,0.040,0.040,0.000,0.000,0.000
1644940115129822976,2022-02-15-15:48:35,10.1.1.7,39,-0.040,-0.040,-0.040,0.000,0.000,0.000
1644940115711455232,2022-02-15-15:48:35,10.1.1.7,10,-0.040,-0.040,-0.040,0.000,0.000,0.000
1644940116651776000,2022-02-15-15:48:36,10.1.1.7,39,0.060,0.060,0.060,0.000,0.000,0.000
1644940118269895936,2022-02-15-15:48:38,10.1.1.7,25,0.060,0.060,0.060,0.000,0.000,0.000
1644940118670202112,2022-02-15-15:48:38,10.1.1.7,18,0.060,0.060,0.060,0.000,0.000,0.000
1644940120290348032,2022-02-15-15:48:40,10.1.1.7,9,0.060,0.060,0.060,0.000,0.000,0.000
1644940120709682944,2022-02-15-15:48:40,10.1.1.7,23,0.060,0.060,0.060,0.000,0.000,0.000
1644940121531011072,2022-02-15-15:48:41,10.1.1.7,30,-0.100,-0.100,-0.100,0.000,0.000,0.000
1644940122589339904,2022-02-15-15:48:42,10.1.1.7,19,0.090,0.090,0.090,0.000,0.000,0.000
1644940124469729792,2022-02-15-15:48:44,10.1.1.7,30,0.080,0.080,0.080,0.000,0.000,0.000
1644940124651110912,2022-02-15-15:48:44,10.1.1.7,6,0.080,0.080,0.080,0.000,0.000,0.000
1644940126490743040,2022-02-15-15:48:46,10.1.1.7,7,0.080,0.080,0.080,0.000,0.000,0.000
1644940126709690112,2022-02-15-15:48:46,10.1.1.7,24,0.080,0.080,0.080,0.000,0.000,0.000
1644940126971357184,2022-02-15-15:48:46,10.1.1.7,30,0.030,0.030,0.030,0.000,0.000,0.000
1644940128270318080,2022-02-15-15:48:48,10.1.1.7,12,0.030,0.030,0.030,0.000,0.000,0.000
1644940128991239936,2022-02-15-15:48:48,10.1.1.7,24,0.030,0.030,0.030,0.000,0.000,0.000
1644940130310599936,2022-02-15-15:48:50,10.1.1.7,24,0.030,0.030,0.030,0.000,0.000,0.000
1644940131010978048,2022-02-15-15:48:51,10.1.1.7,15,0.030,0.030,0.030,0.000,0.000,0.000
1644940132330665984,2022-02-15-15:48:52,10.1.1.7,18,0.030,0.030,0.030,0.000,0.000,0.000
1644940133032884992,2022-02-15-15:48:53,10.1.1.7,7,0.030,0.030,0.030,0.000,0.000,0.000
1644940134030929152,2022-02-15-15:48:54,10.1.1.7,41,-0.040,-0.040,-0.040,0.000,0.000,0.000
1644940135431153152,2022-02-15-15:48:55,10.1.1.7,24,-0.040,-0.040,-0.040,0.000,0.000,0.000
1644940135690181120,2022-02-15-15:48:55,10.1.1.7,30,-0.090,-0.090,-0.090,0.000,0.000,0.000
1644940135771266048,2022-02-15-15:48:55,10.1.1.7,9,-0.090,-0.090,-0.090,0.000,0.000,0.000
1644940137709409024,2022-02-15-15:48:57,10.1.1.7,7,-0.090,-0.090,-0.090,0.000,0.000,0.000
1644940137830172928,2022-02-15-15:48:57,10.1.1.7,26,-0.090,-0.090,-0.090,0.000,0.000,0.000
1644940139029863168,2022-02-15-15:48:59,10.1.1.7,39,0.060,0.060,0.060,0.000,0.000,0.000
1644940139610678784,2022-02-15-15:48:59,10.1.1.7,39,-0.050,-0.050,-0.050,0.000,0.000,0.000
1644940139874868992,2022-02-15-15:48:59,10.1.1.7,39,-0.100,-0.100,-0.100,0.000,0.000,0.000
1644940140070823936,2022-02-15-15:49:00,10.1.1.7,30,-0.060,-0.060,-0.060,0.000,0.000,0.000
1644940140569919232,2022-02-15-15:49:00,10.1.1.7,20,0.040,0.040,0.040,0.000,0.000,0.000
1644940140630328064,2022-02-15-15:49:00,10.1.1.7,29,0.050,0.050,0.050,0.000,0.000,0.000
1644940141090151936,2022-02-15-15:49:01,10.1.1.7,33,0.060,0.060,0.060,0.000,0.000,0.000
1644940141349731072,2022-02-15-15:49:01,10.1.1.7,39,0.010,0.010,0.010,0.000,0.000,0.000
1644940141390685184,2022-02-15-15:49:01,10.1.1.7,28,0.000,0.000,0.000,0.000,0.000,0.000
1644940142392164096,2022-02-15-15:49:02,10.1.1.7,9,0.000,0.000,0.000,0.000,0.000,0.000
1644940143350061056,2022-02-15-15:49:03,10.1.1.7,39,0.020,0.020,0.020,0.000,0.000,0.000
1644940143809736960,2022-02-15-15:49:03,10.1.1.7,39,-0.070,-0.070,-0.070,0.000,0.000,0.000
1644940144090148864,2022-02-15-15:49:04,10.1.1.7,6,-0.070,-0.070,-0.070,0.000,0.000,0.000
1644940145389436928,2022-02-15-15:49:05,10.1.1.7,30,0.020,0.020,0.020,0.000,0.000,0.000
1644940146571291904,2022-02-15-15:49:06,10.1.1.7,39,0.010,0.010,0.010,0.000,0.000,0.000
1644940146610147072,2022-02-15-15:49:06,10.1.1.7,29,0.020,0.020,0.020,0.000,0.000,0.000
1644940147429935104,2022-02-15-15:49:07,10.1.1.7,26,0.020,0.020,0.020,0.000,0.000,0.000
1644940147790333952,2022-02-15-15:49:07,10.1.1.7,29,-0.050,-0.050,-0.050,0.000,0.000,0.000
1644940148290707968,2022-02-15-15:49:08,10.1.1.7,19,-0.050,-0.050,-0.050,0.000,0.000,0.000
1644940149809249024,2022-02-15-15:49:09,10.1.1.7,13,-0.050,-0.050,-0.050,0.000,0.000,0.000
1644940150330208000,2022-02-15-15:49:10,10.1.1.7,27,-0.050,-0.050,-0.050,0.000,0.000,0.000
1644940150749515008,2022-02-15-15:49:10,10.1.1.7,39,0.030,0.030,0.030,0.000,0.000,0.000
1644940151430286848,2022-02-15-15:49:11,10.1.1.7,8,0.030,0.030,0.030,0.000,0.000,0.000
1644940152111035136,2022-02-15-15:49:12,10.1.1.7,29,-0.100,-0.100,-0.100,0.000,0.000,0.000
1644940153497188096,2022-02-15-15:49:13,10.1.1.7,40,0.030,0.030,0.030,0.000,0.000,0.000
1644940153951045888,2022-02-15-15:49:13,10.1.1.7,29,-0.060,-0.060,-0.060,0.000,0.000,0.000
1644940154349950976,2022-02-15-15:49:14,10.1.1.7,24,-0.060,-0.060,-0.060,0.000,0.000,0.000
1644940154709989120,2022-02-15-15:49:14,10.1.1.7,30,0.010,0.010,0.010,0.000,0.000,0.000
1644940155570511104,2022-02-15-15:49:15,10.1.1.7,30,0.020,0.020,0.020,0.000,0.000,0.000
1644940155631234048,2022-02-15-15:49:15,10.1.1.7,39,0.010,0.010,0.010,0.000,0.000,0.000
1644940156630678784,2022-02-15-15:49:16,10.1.1.7,29,-0.010,-0.010,-0.010,0.000,0.000,0.000
1644940157729947136,2022-02-15-15:49:17,10.1.1.7,12,-0.010,-0.010,-0.010,0.000,0.000,0.000
1644940157951795968,2022-02-15-15:49:17,10.1.1.7,29,-0.050,-0.050,-0.050,0.000,0.000,0.000
1644940158450104832,2022-02-15-15:49:18,10.1.1.7,23,-0.050,-0.050,-0.050,0.000,0.000,0.000
1644940158709598976,2022-02-15-15:49:18,10.1.1.7,30,0.000,0.000,0.000,0.000,0.000,0.000
1644940158768877056,2022-02-15-15:49:18,10.1.1.7,39,0.010,0.010,0.010,0.000,0.000,0.000
1644940158809763840,2022-02-15-15:49:18,10.1.1.7,29,0.020,0.020,0.020,0.000,0.000,0.000
1644940159469643008,2022-02-15-15:49:19,10.1.1.7,30,0.050,0.050,0.050,0.000,0.000,0.000
1644940160330660096,2022-02-15-15:49:20,10.1.1.7,30,-0.080,-0.080,-0.080,0.000,0.000,0.000
1644940162069832960,2022-02-15-15:49:22,10.1.1.7,30,-0.060,-0.060,-0.060,0.000,0.000,0.000
1644940162470014208,2022-02-15-15:49:22,10.1.1.7,17,-0.060,-0.060,-0.060,0.000,0.000,0.000
1644940162689875968,2022-02-15-15:49:22,10.1.1.7,30,-0.020,-0.020,-0.020,0.000,0.000,0.000
1644940162749854208,2022-02-15-15:49:22,10.1.1.7,39,-0.010,-0.010,-0.010,0.000,0.000,0.000
1644940162789100032,2022-02-15-15:49:22,10.1.1.7,29,0.000,0.000,0.000,0.000,0.000,0.000
1644940163149730816,2022-02-15-15:49:23,10.1.1.7,29,0.070,0.070,0.070,0.000,0.000,0.000
1644940163449521920,2022-02-15-15:49:23,10.1.1.7,16,0.070,0.070,0.070,0.000,0.000,0.000
1644940165149904128,2022-02-15-15:49:25,10.1.1.7,30,0.060,0.060,0.060,0.000,0.000,0.000
1644940165550205952,2022-02-15-15:49:25,10.1.1.7,22,0.060,0.060,0.060,0.000,0.000,0.000
1644940166169980160,2022-02-15-15:49:26,10.1.1.7,29,-0.060,-0.060,-0.060,0.000,0.000,0.000
1644940166530395904,2022-02-15-15:49:26,10.1.1.7,30,-0.070,-0.070,-0.070,0.000,0.000,0.000
1644940168269990912,2022-02-15-15:49:28,10.1.1.7,10,-0.070,-0.070,-0.070,0.000,0.000,0.000
1644940168590752000,2022-02-15-15:49:28,10.1.1.7,10,-0.070,-0.070,-0.070,0.000,0.000,0.000
1644940169229764864,2022-02-15-15:49:29,10.1.1.7,29,0.050,0.050,0.050,0.000,0.000,0.000
1644940169729021184,2022-02-15-15:49:29,10.1.1.7,20,0.050,0.050,0.050,0.000,0.000,0.000
1644940169789482240,2022-02-15-15:49:29,10.1.1.7,30,0.040,0.040,0.040,0.000,0.000,0.000
1644940170350269184,2022-02-15-15:49:30,10.1.1.7,30,-0.070,-0.070,-0.070,0.000,0.000,0.000
1644940170631962112,2022-02-15-15:49:30,10.1.1.7,7,-0.070,-0.070,-0.070,0.000,0.000,0.000
1644940171109869056,2022-02-15-15:49:31,10.1.1.7,32,0.020,0.020,0.020,0.000,0.000,0.000
1644940171209490176,2022-02-15-15:49:31,10.1.1.7,30,0.040,0.040,0.040,0.000,0.000,0.000
1644940171270070016,2022-02-15-15:49:31,10.1.1.7,39,0.050,0.050,0.050,0.000,0.000,0.000
1644940171749692928,2022-02-15-15:49:31,10.1.1.7,10,0.050,0.050,0.050,0.000,0.000,0.000
1644940171828999936,2022-02-15-15:49:31,10.1.1.7,39,0.040,0.040,0.040,0.000,0.000,0.000
1644940172489048064,2022-02-15-15:49:32,10.1.1.7,39,-0.090,-0.090,-0.090,0.000,0.000,0.000
1644940172530648064,2022-02-15-15:49:32,10.1.1.7,29,-0.100,-0.100,-0.100,0.000,0.000,0.000
1644940174131104000,2022-02-15-15:49:34,10.1.1.7,39,-0.010,-0.010,-0.010,0.000,0.000,0.000
1644940174529860096,2022-02-15-15:49:34,10.1.1.7,32,-0.090,-0.090,-0.090,0.000,0.000,0.000
1644940174610588160,2022-02-15-15:49:34,10.1.1.7,10,-0.090,-0.090,-0.090,0.000,0.000,0.000
1644940174690979840,2022-02-15-15:49:34,10.1.1.7,39,-0.080,-0.080,-0.080,0.000,0.000,0.000
1644940175229382912,2022-02-15-15:49:35,10.1.1.7,20,0.030,0.030,0.030,0.000,0.000,0.000
1644940175935620096,2022-02-15-15:49:35,10.1.1.7,5,0.030,0.030,0.030,0.000,0.000,0.000
1644940176209073152,2022-02-15-15:49:36,10.1.1.7,30,-0.020,-0.020,-0.020,0.000,0.000,0.000
1644940176269319168,2022-02-15-15:49:36,10.1.1.7,39,-0.030,-0.030,-0.030,0.000,0.000,0.000
1644940176929377024,2022-02-15-15:49:36,10.1.1.7,39,-0.040,-0.040,-0.040,0.000,0.000,0.000
1644940178270132992,2022-02-15-15:49:38,10.1.1.7,20,-0.020,-0.020,-0.020,0.000,0.000,0.000
1644940178330080000,2022-02-15-15:49:38,10.1.1.7,29,-0.030,-0.030,-0.030,0.000,0.000,0.000
1644940179030038016,2022-02-15-15:49:39,10.1.1.7,22,-0.030,-0.030,-0.030,0.000,0.000,0.000
1644940179250291200,2022-02-15-15:49:39,10.1.1.7,40,0.010,0.010,0.010,0.000,0.000,0.000
1644940179289120000,2022-02-15-15:49:39,10.1.1.7,29,0.020,0.020,0.020,0.000,0.000,0.000
1644940180089303040,2022-02-15-15:49:40,10.1.1.7,17,0.020,0.020,0.020,0.000,0.000,0.000
1644940181309915136,2022-02-15-15:49:41,10.1.1.7,13,0.020,0.020,0.020,0.000,0.000,0.000
1644940181989399808,2022-02-15-15:49:41,10.1.1.7,30,0.050,0.050,0.050,0.000,0.000,0.000
1644940182050068992,2022-02-15-15:49:42,10.1.1.7,39,0.040,0.040,0.040,0.000,0.000,0.000
1644940182609796096,2022-02-15-15:49:42,10.1.1.7,29,-0.070,-0.070,-0.070,0.000,0.000,0.000
1644940182910435072,2022-02-15-15:49:42,10.1.1.7,24,-0.070,-0.070,-0.070,0.000,0.000,0.000
1644940183429842944,2022-02-15-15:49:43,10.1.1.7,29,0.030,0.030,0.030,0.000,0.000,0.000
1644940183489372928,2022-02-15-15:49:43,10.1.1.7,39,0.040,0.040,0.040,0.000,0.000,0.000
1644940184071997952,2022-02-15-15:49:44,10.1.1.7,9,0.040,0.040,0.040,0.000,0.000,0.000
1644940184150183936,2022-02-15-15:49:44,10.1.1.7,39,0.030,0.030,0.030,0.000,0.000,0.000
1644940185449282816,2022-02-15-15:49:45,10.1.1.7,15,0.030,0.030,0.030,0.000,0.000,0.000
1644940186190867968,2022-02-15-15:49:46,10.1.1.7,22,0.030,0.030,0.030,0.000,0.000,0.000
1644940187509912064,2022-02-15-15:49:47,10.1.1.7,12,0.030,0.030,0.030,0.000,0.000,0.000
1644940187750065920,2022-02-15-15:49:47,10.1.1.7,39,0.070,0.070,0.070,0.000,0.000,0.000
1644940188070203136,2022-02-15-15:49:48,10.1.1.7,24,0.070,0.070,0.070,0.000,0.000,0.000
1644940188889436928,2022-02-15-15:49:48,10.1.1.7,29,-0.090,-0.090,-0.090,0.000,0.000,0.000
1644940188971111168,2022-02-15-15:49:48,10.1.1.7,8,-0.090,-0.090,-0.090,0.000,0.000,0.000
1644940190909185024,2022-02-15-15:49:50,10.1.1.7,16,-0.090,-0.090,-0.090,0.000,0.000,0.000
1644940191009975040,2022-02-15-15:49:51,10.1.1.7,15,-0.090,-0.090,-0.090,0.000,0.000,0.000
1644940191569533952,2022-02-15-15:49:51,10.1.1.7,19,0.020,0.020,0.020,0.000,0.000,0.000
1644940192369440000,2022-02-15-15:49:52,10.1.1.7,10,0.020,0.020,0.020,0.000,0.000,0.000
1644940192489649920,2022-02-15-15:49:52,10.1.1.7,29,0.000,0.000,0.000,0.000,0.000,0.000
1644940193489382144,2022-02-15-15:49:53,10.1.1.7,15,0.000,0.000,0.000,0.000,0.000,0.000
1644940194269912832,2022-02-15-15:49:54,10.1.1.7,30,0.050,0.050,0.050,0.000,0.000,0.000
1644940194690497024,2022-02-15-15:49:54,10.1.1.7,39,-0.030,-0.030,-0.030,0.000,0.000,0.000
1644940195189712128,2022-02-15-15:49:55,10.1.1.7,31,-0.070,-0.070,-0.070,0.000,0.000,0.000
1644940195289810944,2022-02-15-15:49:55,10.1.1.7,29,-0.050,-0.050,-0.050,0.000,0.000,0.000
1644940196409650176,2022-02-15-15:49:56,10.1.1.7,29,0.030,0.030,0.030,0.000,0.000,0.000
1644940197230909184,2022-02-15-15:49:57,10.1.1.7,40,-0.070,-0.070,-0.070,0.000,0.000,0.000
1644940198030684928,2022-02-15-15:49:58,10.1.1.7,29,0.090,0.090,0.090,0.000,0.000,0.000
1644940198109658880,2022-02-15-15:49:58,10.1.1.7,8,0.090,0.090,0.090,0.000,0.000,0.000
1644940199869854976,2022-02-15-15:49:59,10.1.1.7,40,0.050,0.050,0.050,0.000,0.000,0.000
1644940200350569984,2022-02-15-15:50:00,10.1.1.7,12,0.050,0.050,0.050,0.000,0.000,0.000
1644940200530082816,2022-02-15-15:50:00,10.1.1.7,39,0.020,0.020,0.020,0.000,0.000,0.000
1644940201490106112,2022-02-15-15:50:01,10.1.1.7,29,-0.030,-0.030,-0.030,0.000,0.000,0.000
1644940202150692864,2022-02-15-15:50:02,10.1.1.7,29,0.100,0.100,0.100,0.000,0.000,0.000
1644940202415640064,2022-02-15-15:50:02,10.1.1.7,30,0.050,0.050,0.050,0.000,0.000,0.000
1644940203953382912,2022-02-15-15:50:03,10.1.1.7,6,0.050,0.050,0.050,0.000,0.000,0.000
1644940204229920000,2022-02-15-15:50:04,10.1.1.7,29,0.100,0.100,0.100,0.000,0.000,0.000
1644940205549458944,2022-02-15-15:50:05,10.1.1.7,20,-0.040,-0.040,-0.040,0.000,0.000,0.000
1644940207009846016,2022-02-15-15:50:07,10.1.1.7,14,-0.040,-0.040,-0.040,0.000,0.000,0.000
1644940207630078976,2022-02-15-15:50:07,10.1.1.7,7,-0.040,-0.040,-0.040,0.000,0.000,0.000
1644940208429987840,2022-02-15-15:50:08,10.1.1.7,29,0.090,0.090,0.090,0.000,0.000,0.000
1644940209090116096,2022-02-15-15:50:09,10.1.1.7,29,-0.040,-0.040,-0.040,0.000,0.000,0.000
1644940209690244864,2022-02-15-15:50:09,10.1.1.7,24,-0.040,-0.040,-0.040,0.000,0.000,0.000
1644940210409630976,2022-02-15-15:50:10,10.1.1.7,29,0.100,0.100,0.100,0.000,0.000,0.000
1644940210509911040,2022-02-15-15:50:10,10.1.1.7,28,0.080,0.080,0.080,0.000,0.000,0.000
1644940210971805184,2022-02-15-15:50:10,10.1.1.7,31,-0.010,-0.010,-0.010,0.000,0.000,0.000
1644940211830830080,2022-02-15-15:50:11,10.1.1.7,30,-0.020,-0.020,-0.020,0.000,0.000,0.000
1644940213070668032,2022-02-15-15:50:13,10.1.1.7,19,-0.020,-0.020,-0.020,0.000,0.000,0.000
1644940213891470080,2022-02-15-15:50:13,10.1.1.7,24,-0.020,-0.020,-0.020,0.000,0.000,0.000
1644940215110161152,2022-02-15-15:50:15,10.1.1.7,11,-0.020,-0.020,-0.020,0.000,0.000,0.000
1644940215289644032,2022-02-15-15:50:15,10.1.1.7,39,-0.050,-0.050,-0.050,0.000,0.000,0.000
1644940215769232128,2022-02-15-15:50:15,10.1.1.7,14,-0.050,-0.050,-0.050,0.000,0.000,0.000
1644940216090920960,2022-02-15-15:50:16,10.1.1.7,31,0.010,0.010,0.010,0.000,0.000,0.000
1644940216989932032,2022-02-15-15:50:16,10.1.1.7,23,0.010,0.010,0.010,0.000,0.000,0.000
1644940218089950208,2022-02-15-15:50:18,10.1.1.7,9,0.010,0.010,0.010,0.000,0.000,0.000
1644940218769490944,2022-02-15-15:50:18,10.1.1.7,32,0.060,0.060,0.060,0.000,0.000,0.000
1644940218968861184,2022-02-15-15:50:18,10.1.1.7,29,0.020,0.020,0.020,0.000,0.000,0.000
1644940219569776896,2022-02-15-15:50:19,10.1.1.7,20,-0.100,-0.100,-0.100,0.000,0.000,0.000
1644940219629722112,2022-02-15-15:50:19,10.1.1.7,30,-0.090,-0.090,-0.090,0.000,0.000,0.000
1644940221533821184,2022-02-15-15:50:21,10.1.1.7,3,-0.090,-0.090,-0.090,0.000,0.000,0.000
1644940221650001920,2022-02-15-15:50:21,10.1.1.7,22,-0.090,-0.090,-0.090,0.000,0.000,0.000
1644940221809665792,2022-02-15-15:50:21,10.1.1.7,30,-0.060,-0.060,-0.060,0.000,0.000,0.000
1644940221868995840,2022-02-15-15:50:21,10.1.1.7,39,-0.050,-0.050,-0.050,0.000,0.000,0.000
1644940222670420992,2022-02-15-15:50:22,10.1.1.7,30,0.090,0.090,0.090,0.000,0.000,0.000
1644940224591433984,2022-02-15-15:50:24,10.1.1.7,13,0.090,0.090,0.090,0.000,0.000,0.000
1644940224691111168,2022-02-15-15:50:24,10.1.1.7,11,0.090,0.090,0.090,0.000,0.000,0.000
1644940226630002944,2022-02-15-15:50:26,10.1.1.7,7,0.090,0.090,0.090,0.000,0.000,0.000
1644940226749897984,2022-02-15-15:50:26,10.1.1.7,27,0.090,0.090,0.090,0.000,0.000,0.000
1644940228709863936,2022-02-15-15:50:28,10.1.1.7,7,0.090,0.090,0.090,0.000,0.000,0.000
1644940228832505088,2022-02-15-15:50:28,10.1.1.7,25,0.090,0.090,0.090,0.000,0.000,0.000
1644940229849658880,2022-02-15-15:50:29,10.1.1.7,30,-0.090,-0.090,-0.090,0.000,0.000,0.000
1644940230771117056,2022-02-15-15:50:30,10.1.1.7,30,0.090,0.090,0.090,0.000,0.000,0.000
1644940230853734912,2022-02-15-15:50:30,10.1.1.7,9,0.090,0.090,0.090,0.000,0.000,0.000
1644940231229614848,2022-02-15-15:50:31,10.1.1.7,30,0.020,0.020,0.020,0.000,0.000,0.000
1644940231989872896,2022-02-15-15:50:31,10.1.1.7,30,-0.070,-0.070,-0.070,0.000,0.000,0.000
1644940232909651968,2022-02-15-15:50:32,10.1.1.7,28,0.090,0.090,0.090,0.000,0.000,0.000
1644940233769306880,2022-02-15-15:50:33,10.1.1.7,29,-0.080,-0.080,-0.080,0.000,0.000,0.000
1644940233950958848,2022-02-15-15:50:33,10.1.1.7,7,-0.080,-0.080,-0.080,0.000,0.000,0.000
1644940234629291008,2022-02-15-15:50:34,10.1.1.7,30,0.050,0.050,0.050,0.000,0.000,0.000
1644940235129019136,2022-02-15-15:50:35,10.1.1.7,25,0.050,0.050,0.050,0.000,0.000,0.000
1644940235590106880,2022-02-15-15:50:35,10.1.1.7,31,-0.040,-0.040,-0.040,0.000,0.000,0.000
1644940236189840128,2022-02-15-15:50:36,10.1.1.7,24,-0.040,-0.040,-0.040,0.000,0.000,0.000
1644940237409903104,2022-02-15-15:50:37,10.1.1.7,30,0.000,0.000,0.000,0.000,0.000,0.000
1644940237469815040,2022-02-15-15:50:37,10.1.1.7,40,-0.010,-0.010,-0.010,0.000,0.000,0.000
1644940238351467008,2022-02-15-15:50:38,10.1.1.7,9,-0.010,-0.010,-0.010,0.000,0.000,0.000
1644940239470529024,2022-02-15-15:50:39,10.1.1.7,16,-0.010,-0.010,-0.010,0.000,0.000,0.000
1644940240389550080,2022-02-15-15:50:40,10.1.1.7,12,-0.010,-0.010,-0.010,0.000,0.000,0.000
1644940241509531904,2022-02-15-15:50:41,10.1.1.7,8,-0.010,-0.010,-0.010,0.000,0.000,0.000
1644940241891604992,2022-02-15-15:50:41,10.1.1.7,30,-0.080,-0.080,-0.080,0.000,0.000,0.000
1644940242071360000,2022-02-15-15:50:42,10.1.1.7,8,-0.080,-0.080,-0.080,0.000,0.000,0.000
1644940242649547008,2022-02-15-15:50:42,10.1.1.7,29,0.030,0.030,0.030,0.000,0.000,0.000
1644940243209614080,2022-02-15-15:50:43,10.1.1.7,30,0.060,0.060,0.060,0.000,0.000,0.000
1644940244830918912,2022-02-15-15:50:44,10.1.1.7,13,0.060,0.060,0.060,0.000,0.000,0.000
1644940245249489152,2022-02-15-15:50:45,10.1.1.7,23,0.060,0.060,0.060,0.000,0.000,0.000
1644940245409595904,2022-02-15-15:50:45,10.1.1.7,29,0.030,0.030,0.030,0.000,0.000,0.000
1644940246728910080,2022-02-15-15:50:46,10.1.1.7,18,0.030,0.030,0.030,0.000,0.000,0.000
1644940247290353920,2022-02-15-15:50:47,10.1.1.7,20,0.060,0.060,0.060,0.000,0.000,0.000
1644940248929347072,2022-02-15-15:50:48,10.1.1.7,21,0.060,0.060,0.060,0.000,0.000,0.000
1644940249090883072,2022-02-15-15:50:49,10.1.1.7,29,0.090,0.090,0.090,0.000,0.000,0.000
1644940249169318912,2022-02-15-15:50:49,10.1.1.7,8,0.090,0.090,0.090,0.000,0.000,0.000
1644940249550754048,2022-02-15-15:50:49,10.1.1.7,30,0.020,0.020,0.020,0.000,0.000,0.000
1644940250270844928,2022-02-15-15:50:50,10.1.1.7,30,-0.080,-0.080,-0.080,0.000,0.000,0.000
1644940251008850944,2022-02-15-15:50:51,10.1.1.7,29,0.060,0.060,0.060,0.000,0.000,0.000
1644940251409310976,2022-02-15-15:50:51,10.1.1.7,19,0.060,0.060,0.060,0.000,0.000,0.000
1644940253048886016,2022-02-15-15:50:53,10.1.1.7,18,0.060,0.060,0.060,0.000,0.000,0.000
1644940253449184768,2022-02-15-15:50:53,10.1.1.7,10,0.060,0.060,0.060,0.000,0.000,0.000
1644940254229981952,2022-02-15-15:50:54,10.1.1.7,29,-0.090,-0.090,-0.090,0.000,0.000,0.000
1644940254310305024,2022-02-15-15:50:54,10.1.1.7,8,-0.090,-0.090,-0.090,0.000,0.000,0.000
1644940256251504896,2022-02-15-15:50:56,10.1.1.7,8,-0.090,-0.090,-0.090,0.000,0.000,0.000
1644940256374375936,2022-02-15-15:50:56,10.1.1.7,27,-0.090,-0.090,-0.090,0.000,0.000,0.000
1644940257450948096,2022-02-15-15:50:57,10.1.1.7,32,0.080,0.080,0.080,0.000,0.000,0.000
1644940259270524928,2022-02-15-15:50:59,10.1.1.7,16,0.080,0.080,0.080,0.000,0.000,0.000
1644940259474940160,2022-02-15-15:50:59,10.1.1.7,9,0.080,0.080,0.080,0.000,0.000,0.000
1644940259909751040,2022-02-15-15:50:59,10.1.1.7,30,0.000,0.000,0.000,0.000,0.000,0.000
1644940260269864192,2022-02-15-15:51:00,10.1.1.7,30,-0.070,-0.070,-0.070,0.000,0.000,0.000
1644940260571297792,2022-02-15-15:51:00,10.1.1.7,23,-0.070,-0.070,-0.070,0.000,0.000,0.000
1644940262289144064,2022-02-15-15:51:02,10.1.1.7,13,-0.070,-0.070,-0.070,0.000,0.000,0.000
1644940262589255168,2022-02-15-15:51:02,10.1.1.7,8,-0.070,-0.070,-0.070,0.000,0.000,0.000
1644940264329550080,2022-02-15-15:51:04,10.1.1.7,25,-0.070,-0.070,-0.070,0.000,0.000,0.000
1644940264630297856,2022-02-15-15:51:04,10.1.1.7,20,-0.070,-0.070,-0.070,0.000,0.000,0.000
1644940266389939968,2022-02-15-15:51:06,10.1.1.7,22,-0.070,-0.070,-0.070,0.000,0.000,0.000
1644940266690045952,2022-02-15-15:51:06,10.1.1.7,17,-0.070,-0.070,-0.070,0.000,0.000,0.000
1644940267110569984,2022-02-15-15:51:07,10.1.1.7,30,0.010,0.010,0.010,0.000,0.000,0.000
1644940268010310912,2022-02-15-15:51:08,10.1.1.7,8,0.010,0.010,0.010,0.000,0.000,0.000
1644940269129005056,2022-02-15-15:51:09,10.1.1.7,15,0.010,0.010,0.010,0.000,0.000,0.000
1644940270050401024,2022-02-15-15:51:10,10.1.1.7,17,0.010,0.010,0.010,0.000,0.000,0.000
1644940271170063872,2022-02-15-15:51:11,10.1.1.7,24,0.010,0.010,0.010,0.000,0.000,0.000
1644940272069662976,2022-02-15-15:51:12,10.1.1.7,14,0.010,0.010,0.010,0.000,0.000,0.000
1644940272288957952,2022-02-15-15:51:12,10.1.1.7,30,-0.030,-0.030,-0.030,0.000,0.000,0.000
1644940272988996864,2022-02-15-15:51:12,10.1.1.7,17,-0.030,-0.030,-0.030,0.000,0.000,0.000
1644940274309266176,2022-02-15-15:51:14,10.1.1.7,17,-0.030,-0.030,-0.030,0.000,0.000,0.000
1644940274931561984,2022-02-15-15:51:14,10.1.1.7,30,-0.050,-0.050,-0.050,0.000,0.000,0.000
1644940276430062080,2022-02-15-15:51:16,10.1.1.7,11,-0.050,-0.050,-0.050,0.000,0.000,0.000
1644940276949716992,2022-02-15-15:51:16,10.1.1.7,26,-0.050,-0.050,-0.050,0.000,0.000,0.000
1644940277869810944,2022-02-15-15:51:17,10.1.1.7,30,0.070,0.070,0.070,0.000,0.000,0.000
1644940279589828096,2022-02-15-15:51:19,10.1.1.7,9,0.070,0.070,0.070,0.000,0.000,0.000
1644940279909917952,2022-02-15-15:51:19,10.1.1.7,23,0.070,0.070,0.070,0.000,0.000,0.000
1644940280688999936,2022-02-15-15:51:20,10.1.1.7,30,-0.080,-0.080,-0.080,0.000,0.000,0.000
1644940280890193920,2022-02-15-15:51:20,10.1.1.7,27,-0.080,-0.080,-0.080,0.000,0.000,0.000
1644940282708983808,2022-02-15-15:51:22,10.1.1.7,8,-0.080,-0.080,-0.080,0.000,0.000,0.000
1644940282930179072,2022-02-15-15:51:22,10.1.1.7,25,-0.080,-0.080,-0.080,0.000,0.000,0.000
1644940283189278976,2022-02-15-15:51:23,10.1.1.7,30,-0.030,-0.030,-0.030,0.000,0.000,0.000
1644940284489826048,2022-02-15-15:51:24,10.1.1.7,15,-0.030,-0.030,-0.030,0.000,0.000,0.000
1644940285210068992,2022-02-15-15:51:25,10.1.1.7,26,-0.030,-0.030,-0.030,0.000,0.000,0.000
1644940286389733120,2022-02-15-15:51:26,10.1.1.7,39,0.000,0.000,0.000,0.000,0.000,0.000
1644940287131362048,2022-02-15-15:51:27,10.1.1.7,20,-0.050,-0.050,-0.050,0.000,0.000,0.000
1644940288671671040,2022-02-15-15:51:28,10.1.1.7,23,-0.050,-0.050,-0.050,0.000,0.000,0.000
1644940288869782016,2022-02-15-15:51:28,10.1.1.7,20,-0.090,-0.090,-0.090,0.000,0.000,0.000
1644940288970969088,2022-02-15-15:51:28,10.1.1.7,18,-0.090,-0.090,-0.090,0.000,0.000,0.000
1644940290710691840,2022-02-15-15:51:30,10.1.1.7,29,-0.050,-0.050,-0.050,0.000,0.000,0.000
1644940291209744896,2022-02-15-15:51:31,10.1.1.7,23,-0.050,-0.050,-0.050,0.000,0.000,0.000
1644940292429490944,2022-02-15-15:51:32,10.1.1.7,30,0.010,0.010,0.010,0.000,0.000,0.000
1644940293530316032,2022-02-15-15:51:33,10.1.1.7,17,0.010,0.010,0.010,0.000,0.000,0.000
1644940294450720000,2022-02-15-15:51:34,10.1.1.7,19,0.010,0.010,0.010,0.000,0.000,0.000
1644940294630168832,2022-02-15-15:51:34,10.1.1.7,19,-0.020,-0.020,-0.020,0.000,0.000,0.000
1644940295449330944,2022-02-15-15:51:35,10.1.1.7,23,-0.020,-0.020,-0.020,0.000,0.000,0.000
1644940295969274880,2022-02-15-15:51:35,10.1.1.7,29,0.080,0.080,0.080,0.000,0.000,0.000
1644940296169608960,2022-02-15-15:51:36,10.1.1.7,20,0.080,0.080,0.080,0.000,0.000,0.000
1644940298037729024,2022-02-15-15:51:38,10.1.1.7,6,0.080,0.080,0.080,0.000,0.000,0.000
1644940298250066944,2022-02-15-15:51:38,10.1.1.7,18,0.080,0.080,0.080,0.000,0.000,0.000
1644940299089096960,2022-02-15-15:51:39,10.1.1.7,29,-0.080,-0.080,-0.080,0.000,0.000,0.000
1644940299269531136,2022-02-15-15:51:39,10.1.1.7,7,-0.080,-0.080,-0.080,0.000,0.000,0.000
1644940301110219008,2022-02-15-15:51:41,10.1.1.7,12,-0.080,-0.080,-0.080,0.000,0.000,0.000
1644940301309859072,2022-02-15-15:51:41,10.1.1.7,9,-0.080,-0.080,-0.080,0.000,0.000,0.000
1644940303150584832,2022-02-15-15:51:43,10.1.1.7,21,-0.080,-0.080,-0.080,0.000,0.000,0.000
1644940303349647104,2022-02-15-15:51:43,10.1.1.7,19,-0.080,-0.080,-0.080,0.000,0.000,0.000
1644940305189952000,2022-02-15-15:51:45,10.1.1.7,23,-0.080,-0.080,-0.080,0.000,0.000,0.000
1644940305389491200,2022-02-15-15:51:45,10.1.1.7,18,-0.080,-0.080,-0.080,0.000,0.000,0.000
1644940307269220096,2022-02-15-15:51:47,10.1.1.7,25,-0.080,-0.080,-0.080,0.000,0.000,0.000
1644940307471574016,2022-02-15-15:51:47,10.1.1.7,18,-0.080,-0.080,-0.080,0.000,0.000,0.000
1644940309290469888,2022-02-15-15:51:49,10.1.1.7,9,-0.080,-0.080,-0.080,0.000,0.000,0.000
1644940309490971136,2022-02-15-15:51:49,10.1.1.7,6,-0.080,-0.080,-0.080,0.000,0.000,0.000
1644940311349335808,2022-02-15-15:51:51,10.1.1.7,19,-0.080,-0.080,-0.080,0.000,0.000,0.000
1644940311549357824,2022-02-15-15:51:51,10.1.1.7,16,-0.080,-0.080,-0.080,0.000,0.000,0.000
1644940311970917888,2022-02-15-15:51:51,10.1.1.7,30,0.000,0.000,0.000,0.000,0.000,0.000
1644940312970597120,2022-02-15-15:51:52,10.1.1.7,13,0.000,0.000,0.000,0.000,0.000,0.000
1644940314010131968,2022-02-15-15:51:54,10.1.1.7,25,0.000,0.000,0.000,0.000,0.000,0.000
1644940315030544896,2022-02-15-15:51:55,10.1.1.7,26,0.000,0.000,0.000,0.000,0.000,0.000
1644940316049362944,2022-02-15-15:51:56,10.1.1.7,19,0.000,0.000,0.000,0.000,0.000,0.000
1644940317069231104,2022-02-15-15:51:57,10.1.1.7,15,0.000,0.000,0.000,0.000,0.000,0.000
1644940318110352896,2022-02-15-15:51:58,10.1.1.7,14,0.000,0.000,0.000,0.000,0.000,0.000
1644940318990608896,2022-02-15-15:51:58,10.1.1.7,30,0.030,0.030,0.030,0.000,0.000,0.000
1644940320210928896,2022-02-15-15:52:00,10.1.1.7,29,0.010,0.010,0.010,0.000,0.000,0.000
1644940321112422912,2022-02-15-15:52:01,10.1.1.7,12,0.010,0.010,0.010,0.000,0.000,0.000
1644940322230066176,2022-02-15-15:52:02,10.1.1.7,10,0.010,0.010,0.010,0.000,0.000,0.000
1644940322769242880,2022-02-15-15:52:02,10.1.1.7,39,0.090,0.090,0.090,0.000,0.000,0.000
1644940323968802816,2022-02-15-15:52:03,10.1.1.7,29,-0.060,-0.060,-0.060,0.000,0.000,0.000
1644940325628806144,2022-02-15-15:52:05,10.1.1.7,26,-0.060,-0.060,-0.060,0.000,0.000,0.000
1644940326029690880,2022-02-15-15:52:06,10.1.1.7,19,-0.060,-0.060,-0.060,0.000,0.000,0.000
1644940326832864000,2022-02-15-15:52:06,10.1.1.7,29,0.090,0.090,0.090,0.000,0.000,0.000
1644940326909359104,2022-02-15-15:52:06,10.1.1.7,22,0.090,0.090,0.090,0.000,0.000,0.000
1644940327330589184,2022-02-15-15:52:07,10.1.1.7,30,0.010,0.010,0.010,0.000,0.000,0.000
1644940328449757952,2022-02-15-15:52:08,10.1.1.7,13,0.010,0.010,0.010,0.000,0.000,0.000
1644940329369126912,2022-02-15-15:52:09,10.1.1.7,8,0.010,0.010,0.010,0.000,0.000,0.000
1644940330509218048,2022-02-15-15:52:10,10.1.1.7,22,0.010,0.010,0.010,0.000,0.000,0.000
1644940330889446144,2022-02-15-15:52:10,10.1.1.7,39,0.080,0.080,0.080,0.000,0.000,0.000
1644940331070380032,2022-02-15-15:52:11,10.1.1.7,8,0.080,0.080,0.080,0.000,0.000,0.000
1644940331349993984,2022-02-15-15:52:11,10.1.1.7,29,0.030,0.030,0.030,0.000,0.000,0.000
1644940332689235968,2022-02-15-15:52:12,10.1.1.7,21,0.030,0.030,0.030,0.000,0.000,0.000
1644940333430411008,2022-02-15-15:52:13,10.1.1.7,17,0.030,0.030,0.030,0.000,0.000,0.000
1644940334789490944,2022-02-15-15:52:14,10.1.1.7,26,0.030,0.030,0.030,0.000,0.000,0.000
1644940335489413888,2022-02-15-15:52:15,10.1.1.7,12,0.030,0.030,0.030,0.000,0.000,0.000
1644940336829731072,2022-02-15-15:52:16,10.1.1.7,21,0.030,0.030,0.030,0.000,0.000,0.000
1644940337549565952,2022-02-15-15:52:17,10.1.1.7,18,0.030,0.030,0.030,0.000,0.000,0.000
1644940338889673984,2022-02-15-15:52:18,10.1.1.7,16,0.030,0.030,0.030,0.000,0.000,0.000
1644940339608928000,2022-02-15-15:52:19,10.1.1.7,18,0.030,0.030,0.030,0.000,0.000,0.000
1644940340931112960,2022-02-15-15:52:20,10.1.1.7,17,0.030,0.030,0.030,0.000,0.000,0.000
1644940341650237952,2022-02-15-15:52:21,10.1.1.7,20,0.030,0.030,0.030,0.000,0.000,0.000
1644940342969176064,2022-02-15-15:52:22,10.1.1.7,17,0.030,0.030,0.030,0.000,0.000,0.000
1644940343688837888,2022-02-15-15:52:23,10.1.1.7,23,0.030,0.030,0.030,0.000,0.000,0.000
1644940344773061888,2022-02-15-15:52:24,10.1.1.7,31,-0.020,-0.020,-0.020,0.000,0.000,0.000
1644940345971193088,2022-02-15-15:52:25,10.1.1.7,12,-0.020,-0.020,-0.020,0.000,0.000,0.000
1644940346750565888,2022-02-15-15:52:26,10.1.1.7,29,-0.030,-0.030,-0.030,0.000,0.000,0.000
1644940348070982912,2022-02-15-15:52:28,10.1.1.7,6,-0.030,-0.030,-0.030,0.000,0.000,0.000
1644940348789551104,2022-02-15-15:52:28,10.1.1.7,10,-0.030,-0.030,-0.030,0.000,0.000,0.000
1644940349729338880,2022-02-15-15:52:29,10.1.1.7,30,0.050,0.050,0.050,0.000,0.000,0.000
1644940350790994944,2022-02-15-15:52:30,10.1.1.7,19,-0.040,-0.040,-0.040,0.000,0.000,0.000
1644940351570034944,2022-02-15-15:52:31,10.1.1.7,30,0.090,0.090,0.090,0.000,0.000,0.000
1644940353510518016,2022-02-15-15:52:33,10.1.1.7,14,0.090,0.090,0.090,0.000,0.000,0.000
1644940353611280896,2022-02-15-15:52:33,10.1.1.7,6,0.090,0.090,0.090,0.000,0.000,0.000
1644940355570811136,2022-02-15-15:52:35,10.1.1.7,26,0.090,0.090,0.090,0.000,0.000,0.000
1644940355669362944,2022-02-15-15:52:35,10.1.1.7,25,0.090,0.090,0.090,0.000,0.000,0.000
1644940356408978944,2022-02-15-15:52:36,10.1.1.7,39,-0.050,-0.050,-0.050,0.000,0.000,0.000
1644940356889723904,2022-02-15-15:52:36,10.1.1.7,9,-0.050,-0.050,-0.050,0.000,0.000,0.000
1644940358469394944,2022-02-15-15:52:38,10.1.1.7,17,-0.050,-0.050,-0.050,0.000,0.000,0.000
1644940358969188864,2022-02-15-15:52:38,10.1.1.7,8,-0.050,-0.050,-0.050,0.000,0.000,0.000
1644940360209688064,2022-02-15-15:52:40,10.1.1.7,30,0.010,0.010,0.010,0.000,0.000,0.000
1644940361311280896,2022-02-15-15:52:41,10.1.1.7,10,0.010,0.010,0.010,0.000,0.000,0.000
1644940362230135040,2022-02-15-15:52:42,10.1.1.7,8,0.010,0.010,0.010,0.000,0.000,0.000
1644940363368848128,2022-02-15-15:52:43,10.1.1.7,18,0.010,0.010,0.010,0.000,0.000,0.000
1644940363790571008,2022-02-15-15:52:43,10.1.1.7,30,0.090,0.090,0.090,0.000,0.000,0.000
1644940363870115072,2022-02-15-15:52:43,10.1.1.7,9,0.090,0.090,0.090,0.000,0.000,0.000
1644940364448750080,2022-02-15-15:52:44,10.1.1.7,31,-0.020,-0.020,-0.020,0.000,0.000,0.000
1644940365250829056,2022-02-15-15:52:45,10.1.1.7,19,-0.020,-0.020,-0.020,0.000,0.000,0.000
1644940366490103040,2022-02-15-15:52:46,10.1.1.7,26,-0.020,-0.020,-0.020,0.000,0.000,0.000
1644940367296151040,2022-02-15-15:52:47,10.1.1.7,13,-0.020,-0.020,-0.020,0.000,0.000,0.000
1644940368529886976,2022-02-15-15:52:48,10.1.1.7,21,-0.020,-0.020,-0.020,0.000,0.000,0.000
1644940369352102912,2022-02-15-15:52:49,10.1.1.7,20,-0.020,-0.020,-0.020,0.000,0.000,0.000
1644940370570842880,2022-02-15-15:52:50,10.1.1.7,7,-0.020,-0.020,-0.020,0.000,0.000,0.000
1644940371390172928,2022-02-15-15:52:51,10.1.1.7,11,-0.020,-0.020,-0.020,0.000,0.000,0.000
1644940372609117952,2022-02-15-15:52:52,10.1.1.7,13,-0.020,-0.020,-0.020,0.000,0.000,0.000
1644940373289078016,2022-02-15-15:52:53,10.1.1.7,29,-0.050,-0.050,-0.050,0.000,0.000,0.000
1644940374809777920,2022-02-15-15:52:54,10.1.1.7,26,-0.050,-0.050,-0.050,0.000,0.000,0.000
1644940375308762112,2022-02-15-15:52:55,10.1.1.7,17,-0.050,-0.050,-0.050,0.000,0.000,0.000
1644940375845459968,2022-02-15-15:52:55,10.1.1.7,30,0.050,0.050,0.050,0.000,0.000,0.000
1644940376329646080,2022-02-15-15:52:56,10.1.1.7,21,0.050,0.050,0.050,0.000,0.000,0.000
1644940376389676032,2022-02-15-15:52:56,10.1.1.7,30,0.040,0.040,0.040,0.000,0.000,0.000
1644940376950691840,2022-02-15-15:52:56,10.1.1.7,30,-0.070,-0.070,-0.070,0.000,0.000,0.000
1644940377250467072,2022-02-15-15:52:57,10.1.1.7,22,-0.070,-0.070,-0.070,0.000,0.000,0.000
1644940378094223872,2022-02-15-15:52:58,10.1.1.7,29,0.090,0.090,0.090,0.000,0.000,0.000
1644940378175736064,2022-02-15-15:52:58,10.1.1.7,9,0.090,0.090,0.090,0.000,0.000,0.000
1644940380109588992,2022-02-15-15:53:00,10.1.1.7,10,0.090,0.090,0.090,0.000,0.000,0.000
1644940380210649088,2022-02-15-15:53:00,10.1.1.7,9,0.090,0.090,0.090,0.000,0.000,0.000
1644940382149931008,2022-02-15-15:53:02,10.1.1.7,23,0.090,0.090,0.090,0.000,0.000,0.000
1644940382249093888,2022-02-15-15:53:02,10.1.1.7,22,0.090,0.090,0.090,0.000,0.000,0.000
1644940384171854848,2022-02-15-15:53:04,10.1.1.7,14,0.090,0.090,0.090,0.000,0.000,0.000
1644940384270048000,2022-02-15-15:53:04,10.1.1.7,13,0.090,0.090,0.090,0.000,0.000,0.000
1644940385710233856,2022-02-15-15:53:05,10.1.1.7,30,-0.010,-0.010,-0.010,0.000,0.000,0.000
1644940386831397120,2022-02-15-15:53:06,10.1.1.7,21,-0.010,-0.010,-0.010,0.000,0.000,0.000
1644940387750046976,2022-02-15-15:53:07,10.1.1.7,18,-0.010,-0.010,-0.010,0.000,0.000,0.000
1644940388869161984,2022-02-15-15:53:08,10.1.1.7,20,-0.010,-0.010,-0.010,0.000,0.000,0.000
1644940389769517824,2022-02-15-15:53:09,10.1.1.7,11,-0.010,-0.010,-0.010,0.000,0.000,0.000
1644940389851446016,2022-02-15-15:53:09,10.1.1.7,40,0.000,0.000,0.000,0.000,0.000,0.000
1644940390850078208,2022-02-15-15:53:10,10.1.1.7,25,0.000,0.000,0.000,0.000,0.000,0.000
1644940391109975040,2022-02-15-15:53:11,10.1.1.7,30,-0.050,-0.050,-0.050,0.000,0.000,0.000
1644940391611104000,2022-02-15-15:53:11,10.1.1.7,21,-0.050,-0.050,-0.050,0.000,0.000,0.000
1644940391769083904,2022-02-15-15:53:11,10.1.1.7,30,-0.020,-0.020,-0.020,0.000,0.000,0.000
1644940392428654080,2022-02-15-15:53:12,10.1.1.7,30,0.090,0.090,0.090,0.000,0.000,0.000
1644940394350172928,2022-02-15-15:53:14,10.1.1.7,14,0.090,0.090,0.090,0.000,0.000,0.000
1644940394448861952,2022-02-15-15:53:14,10.1.1.7,13,0.090,0.090,0.090,0.000,0.000,0.000
1644940396269884160,2022-02-15-15:53:16,10.1.1.7,30,0.060,0.060,0.060,0.000,0.000,0.000
1644940396671278080,2022-02-15-15:53:16,10.1.1.7,16,0.060,0.060,0.060,0.000,0.000,0.000
1644940398290009088,2022-02-15-15:53:18,10.1.1.7,10,0.060,0.060,0.060,0.000,0.000,0.000
1644940398709472768,2022-02-15-15:53:18,10.1.1.7,25,0.060,0.060,0.060,0.000,0.000,0.000
1644940400329619968,2022-02-15-15:53:20,10.1.1.7,19,0.060,0.060,0.060,0.000,0.000,0.000
1644940400730396928,2022-02-15-15:53:20,10.1.1.7,13,0.060,0.060,0.060,0.000,0.000,0.000
1644940402371632128,2022-02-15-15:53:22,10.1.1.7,18,0.060,0.060,0.060,0.000,0.000,0.000
1644940402770332928,2022-02-15-15:53:22,10.1.1.7,12,0.060,0.060,0.060,0.000,0.000,0.000
1644940402988965888,2022-02-15-15:53:22,10.1.1.7,29,0.020,0.020,0.020,0.000,0.000,0.000
1644940404230434816,2022-02-15-15:53:24,10.1.1.7,9,0.020,0.020,0.020,0.000,0.000,0.000
1644940405050578944,2022-02-15-15:53:25,10.1.1.7,9,0.020,0.020,0.020,0.000,0.000,0.000
1644940406248608000,2022-02-15-15:53:26,10.1.1.7,30,0.010,0.010,0.010,0.000,0.000,0.000
1644940407150820096,2022-02-15-15:53:27,10.1.1.7,6,0.010,0.010,0.010,0.000,0.000,0.000
1644940408268589056,2022-02-15-15:53:28,10.1.1.7,8,0.010,0.010,0.010,0.000,0.000,0.000
1644940409189609984,2022-02-15-15:53:29,10.1.1.7,10,0.010,0.010,0.010,0.000,0.000,0.000
1644940410331516928,2022-02-15-15:53:30,10.1.1.7,26,0.010,0.010,0.010,0.000,0.000,0.000
1644940410489191168,2022-02-15-15:53:30,10.1.1.7,30,0.040,0.040,0.040,0.000,0.000,0.000
1644940411140986880,2022-02-15-15:53:31,10.1.1.7,3,0.040,0.040,0.040,0.000,0.000,0.000
1644940412549201920,2022-02-15-15:53:32,10.1.1.7,15,0.040,0.040,0.040,0.000,0.000,0.000
1644940413169107968,2022-02-15-15:53:33,10.1.1.7,22,0.040,0.040,0.040,0.000,0.000,0.000
1644940414569426944,2022-02-15-15:53:34,10.1.1.7,8,0.040,0.040,0.040,0.000,0.000,0.000
1644940415189191936,2022-02-15-15:53:35,10.1.1.7,17,0.040,0.040,0.040,0.000,0.000,0.000
1644940416369553920,2022-02-15-15:53:36,10.1.1.7,31,-0.010,-0.010,-0.010,0.000,0.000,0.000
1644940416930114048,2022-02-15-15:53:36,10.1.1.7,34,0.100,0.100,0.100,0.000,0.000,0.000
1644940418969971968,2022-02-15-15:53:38,10.1.1.7,18,0.100,0.100,0.100,0.000,0.000,0.000
1644940421008649216,2022-02-15-15:53:41,10.1.1.7,11,0.100,0.100,0.100,0.000,0.000,0.000
1644940422210007808,2022-02-15-15:53:42,10.1.1.7,30,-0.070,-0.070,-0.070,0.000,0.000,0.000
1644940423929969920,2022-02-15-15:53:43,10.1.1.7,10,-0.070,-0.070,-0.070,0.000,0.000,0.000
1644940424248666880,2022-02-15-15:53:44,10.1.1.7,25,-0.070,-0.070,-0.070,0.000,0.000,0.000
1644940425750614784,2022-02-15-15:53:45,10.1.1.7,40,-0.020,-0.020,-0.020,0.000,0.000,0.000
1644940426549782016,2022-02-15-15:53:46,10.1.1.7,25,-0.020,-0.020,-0.020,0.000,0.000,0.000
1644940426748907008,2022-02-15-15:53:46,10.1.1.7,19,0.020,0.020,0.020,0.000,0.000,0.000
1644940427550523136,2022-02-15-15:53:47,10.1.1.7,8,0.020,0.020,0.020,0.000,0.000,0.000
1644940428768722944,2022-02-15-15:53:48,10.1.1.7,10,0.020,0.020,0.020,0.000,0.000,0.000
1644940429594518784,2022-02-15-15:53:49,10.1.1.7,2,0.020,0.020,0.020,0.000,0.000,0.000
1644940430850106112,2022-02-15-15:53:50,10.1.1.7,7,0.020,0.020,0.020,0.000,0.000,0.000
1644940431677937920,2022-02-15-15:53:51,10.1.1.7,8,0.020,0.020,0.020,0.000,0.000,0.000
1644940432889655040,2022-02-15-15:53:52,10.1.1.7,9,0.020,0.020,0.020,0.000,0.000,0.000
1644940433470078976,2022-02-15-15:53:53,10.1.1.7,30,0.070,0.070,0.070,0.000,0.000,0.000
1644940435169091072,2022-02-15-15:53:55,10.1.1.7,7,0.070,0.070,0.070,0.000,0.000,0.000
1644940435489563904,2022-02-15-15:53:55,10.1.1.7,24,0.070,0.070,0.070,0.000,0.000,0.000
1644940435949219840,2022-02-15-15:53:55,10.1.1.7,27,-0.020,-0.020,-0.020,0.000,0.000,0.000
1644940436749262080,2022-02-15-15:53:56,10.1.1.7,11,-0.020,-0.020,-0.020,0.000,0.000,0.000
1644940437970418944,2022-02-15-15:53:57,10.1.1.7,10,-0.020,-0.020,-0.020,0.000,0.000,0.000
1644940438548969984,2022-02-15-15:53:58,10.1.1.7,30,-0.070,-0.070,-0.070,0.000,0.000,0.000
1644940439208865024,2022-02-15-15:53:59,10.1.1.7,30,0.060,0.060,0.060,0.000,0.000,0.000
1644940439608999936,2022-02-15-15:53:59,10.1.1.7,26,0.060,0.060,0.060,0.000,0.000,0.000
1644940439769782016,2022-02-15-15:53:59,10.1.1.7,30,0.030,0.030,0.030,0.000,0.000,0.000
1644940441074489088,2022-02-15-15:54:01,10.1.1.7,5,0.030,0.030,0.030,0.000,0.000,0.000
1644940441792352000,2022-02-15-15:54:01,10.1.1.7,10,0.030,0.030,0.030,0.000,0.000,0.000
1644940443169164032,2022-02-15-15:54:03,10.1.1.7,23,0.030,0.030,0.030,0.000,0.000,0.000
1644940443242145024,2022-02-15-15:54:03,10.1.1.7,30,0.040,0.040,0.040,0.000,0.000,0.000
1644940443849044992,2022-02-15-15:54:03,10.1.1.7,16,0.040,0.040,0.040,0.000,0.000,0.000
1644940444009177856,2022-02-15-15:54:04,10.1.1.7,20,0.010,0.010,0.010,0.000,0.000,0.000
1644940445129391872,2022-02-15-15:54:05,10.1.1.7,10,0.010,0.010,0.010,0.000,0.000,0.000
1644940445209129984,2022-02-15-15:54:05,10.1.1.7,39,0.020,0.020,0.020,0.000,0.000,0.000
1644940445909288960,2022-02-15-15:54:05,10.1.1.7,30,0.040,0.040,0.040,0.000,0.000,0.000
1644940447309222912,2022-02-15-15:54:07,10.1.1.7,12,0.040,0.040,0.040,0.000,0.000,0.000
1644940447929991936,2022-02-15-15:54:07,10.1.1.7,23,0.040,0.040,0.040,0.000,0.000,0.000
1644940448289263872,2022-02-15-15:54:08,10.1.1.7,29,-0.030,-0.030,-0.030,0.000,0.000,0.000
1644940448989857792,2022-02-15-15:54:08,10.1.1.7,21,-0.030,-0.030,-0.030,0.000,0.000,0.000
1644940449910605056,2022-02-15-15:54:09,10.1.1.7,30,0.050,0.050,0.050,0.000,0.000,0.000
1644940451230876928,2022-02-15-15:54:11,10.1.1.7,30,0.010,0.010,0.010,0.000,0.000,0.000
1644940452130068992,2022-02-15-15:54:12,10.1.1.7,20,0.010,0.010,0.010,0.000,0.000,0.000
1644940453230559232,2022-02-15-15:54:13,10.1.1.7,6,0.010,0.010,0.010,0.000,0.000,0.000
1644940454149590016,2022-02-15-15:54:14,10.1.1.7,12,0.010,0.010,0.010,0.000,0.000,0.000
1644940455269555200,2022-02-15-15:54:15,10.1.1.7,8,0.010,0.010,0.010,0.000,0.000,0.000
1644940456208504064,2022-02-15-15:54:16,10.1.1.7,18,0.010,0.010,0.010,0.000,0.000,0.000
1644940457334973952,2022-02-15-15:54:17,10.1.1.7,2,0.010,0.010,0.010,0.000,0.000,0.000
1644940458269308928,2022-02-15-15:54:18,10.1.1.7,14,0.010,0.010,0.010,0.000,0.000,0.000
1644940459411164928,2022-02-15-15:54:19,10.1.1.7,15,0.010,0.010,0.010,0.000,0.000,0.000
1644940460330089984,2022-02-15-15:54:20,10.1.1.7,13,0.010,0.010,0.010,0.000,0.000,0.000
1644940461450910976,2022-02-15-15:54:21,10.1.1.7,12,0.010,0.010,0.010,0.000,0.000,0.000
1644940462370507008,2022-02-15-15:54:22,10.1.1.7,10,0.010,0.010,0.010,0.000,0.000,0.000
1644940462889387008,2022-02-15-15:54:22,10.1.1.7,20,-0.090,-0.090,-0.090,0.000,0.000,0.000
1644940462990156800,2022-02-15-15:54:22,10.1.1.7,19,-0.090,-0.090,-0.090,0.000,0.000,0.000
1644940464989375232,2022-02-15-15:54:24,10.1.1.7,22,-0.090,-0.090,-0.090,0.000,0.000,0.000
1644940465089377024,2022-02-15-15:54:25,10.1.1.7,20,-0.090,-0.090,-0.090,0.000,0.000,0.000
1644940466069221120,2022-02-15-15:54:26,10.1.1.7,30,0.100,0.100,0.100,0.000,0.000,0.000
1644940467410798080,2022-02-15-15:54:27,10.1.1.7,30,-0.040,-0.040,-0.040,0.000,0.000,0.000
1644940468550625024,2022-02-15-15:54:28,10.1.1.7,30,0.020,0.020,0.020,0.000,0.000,0.000
1644940469771970048,2022-02-15-15:54:29,10.1.1.7,30,0.020,0.020,0.020,0.000,0.000,0.000
1644940470568572160,2022-02-15-15:54:30,10.1.1.7,14,0.020,0.020,0.020,0.000,0.000,0.000
1644940471808573952,2022-02-15-15:54:31,10.1.1.7,19,0.020,0.020,0.020,0.000,0.000,0.000
1644940472632062976,2022-02-15-15:54:32,10.1.1.7,19,0.020,0.020,0.020,0.000,0.000,0.000
1644940473848599040,2022-02-15-15:54:33,10.1.1.7,20,0.020,0.020,0.020,0.000,0.000,0.000
1644940474669001216,2022-02-15-15:54:34,10.1.1.7,25,0.020,0.020,0.020,0.000,0.000,0.000
1644940475908708096,2022-02-15-15:54:35,10.1.1.7,24,0.020,0.020,0.020,0.000,0.000,0.000
1644940476729312000,2022-02-15-15:54:36,10.1.1.7,7,0.020,0.020,0.020,0.000,0.000,0.000
1644940477970530048,2022-02-15-15:54:37,10.1.1.7,21,0.020,0.020,0.020,0.000,0.000,0.000
1644940478769073920,2022-02-15-15:54:38,10.1.1.7,9,0.020,0.020,0.020,0.000,0.000,0.000
1644940479989705984,2022-02-15-15:54:39,10.1.1.7,8,0.020,0.020,0.020,0.000,0.000,0.000
1644940480810599168,2022-02-15-15:54:40,10.1.1.7,16,0.020,0.020,0.020,0.000,0.000,0.000
1644940481129455104,2022-02-15-15:54:41,10.1.1.7,31,-0.040,-0.040,-0.040,0.000,0.000,0.000
1644940481729849088,2022-02-15-15:54:41,10.1.1.7,23,-0.040,-0.040,-0.040,0.000,0.000,0.000
1644940483190059008,2022-02-15-15:54:43,10.1.1.7,19,-0.040,-0.040,-0.040,0.000,0.000,0.000
1644940483830183936,2022-02-15-15:54:43,10.1.1.7,24,-0.040,-0.040,-0.040,0.000,0.000,0.000
1644940485249197056,2022-02-15-15:54:45,10.1.1.7,14,-0.040,-0.040,-0.040,0.000,0.000,0.000
1644940485849703936,2022-02-15-15:54:45,10.1.1.7,7,-0.040,-0.040,-0.040,0.000,0.000,0.000
1644940487270322176,2022-02-15-15:54:47,10.1.1.7,9,-0.040,-0.040,-0.040,0.000,0.000,0.000
1644940487888503040,2022-02-15-15:54:47,10.1.1.7,21,-0.040,-0.040,-0.040,0.000,0.000,0.000
1644940489310375936,2022-02-15-15:54:49,10.1.1.7,8,-0.040,-0.040,-0.040,0.000,0.000,0.000
1644940489929921024,2022-02-15-15:54:49,10.1.1.7,6,-0.040,-0.040,-0.040,0.000,0.000,0.000
1644940491390396160,2022-02-15-15:54:51,10.1.1.7,26,-0.040,-0.040,-0.040,0.000,0.000,0.000
1644940492008312064,2022-02-15-15:54:52,10.1.1.7,14,-0.040,-0.040,-0.040,0.000,0.000,0.000
1644940493469257216,2022-02-15-15:54:53,10.1.1.7,26,-0.040,-0.040,-0.040,0.000,0.000,0.000
1644940494069907968,2022-02-15-15:54:54,10.1.1.7,17,-0.040,-0.040,-0.040,0.000,0.000,0.000
1644940495488962816,2022-02-15-15:54:55,10.1.1.7,14,-0.040,-0.040,-0.040,0.000,0.000,0.000
1644940496109541888,2022-02-15-15:54:56,10.1.1.7,24,-0.040,-0.040,-0.040,0.000,0.000,0.000
1644940497528777984,2022-02-15-15:54:57,10.1.1.7,13,-0.040,-0.040,-0.040,0.000,0.000,0.000
1644940498148904960,2022-02-15-15:54:58,10.1.1.7,23,-0.040,-0.040,-0.040,0.000,0.000,0.000
1644940499570779136,2022-02-15-15:54:59,10.1.1.7,18,-0.040,-0.040,-0.040,0.000,0.000,0.000
1644940500189323776,2022-02-15-15:55:00,10.1.1.7,22,-0.040,-0.040,-0.040,0.000,0.000,0.000
1644940501628443904,2022-02-15-15:55:01,10.1.1.7,21,-0.040,-0.040,-0.040,0.000,0.000,0.000
1644940502231406080,2022-02-15-15:55:02,10.1.1.7,5,-0.040,-0.040,-0.040,0.000,0.000,0.000
1644940503689733888,2022-02-15-15:55:03,10.1.1.7,8,-0.040,-0.040,-0.040,0.000,0.000,0.000
1644940504309068032,2022-02-15-15:55:04,10.1.1.7,8,-0.040,-0.040,-0.040,0.000,0.000,0.000
1644940505748945920,2022-02-15-15:55:05,10.1.1.7,24,-0.040,-0.040,-0.040,0.000,0.000,0.000
1644940506350315008,2022-02-15-15:55:06,10.1.1.7,14,-0.040,-0.040,-0.040,0.000,0.000,0.000
1644940507770242048,2022-02-15-15:55:07,10.1.1.7,12,-0.040,-0.040,-0.040,0.000,0.000,0.000
1644940507988732160,2022-02-15-15:55:07,10.1.1.7,30,-0.080,-0.080,-0.080,0.000,0.000,0.000
1644940508169361152,2022-02-15-15:55:08,10.1.1.7,7,-0.080,-0.080,-0.080,0.000,0.000,0.000
1644940510008339968,2022-02-15-15:55:10,10.1.1.7,26,-0.080,-0.080,-0.080,0.000,0.000,0.000
1644940510209884928,2022-02-15-15:55:10,10.1.1.7,23,-0.080,-0.080,-0.080,0.000,0.000,0.000
1644940510408864000,2022-02-15-15:55:10,10.1.1.7,21,-0.040,-0.040,-0.040,0.000,0.000,0.000
1644940510510322176,2022-02-15-15:55:10,10.1.1.7,20,-0.020,-0.020,-0.020,0.000,0.000,0.000
1644940511729266944,2022-02-15-15:55:11,10.1.1.7,24,-0.020,-0.020,-0.020,0.000,0.000,0.000
1644940512089533184,2022-02-15-15:55:12,10.1.1.7,30,-0.090,-0.090,-0.090,0.000,0.000,0.000
1644940512169243136,2022-02-15-15:55:12,10.1.1.7,8,-0.090,-0.090,-0.090,0.000,0.000,0.000
1644940514108866816,2022-02-15-15:55:14,10.1.1.7,20,-0.090,-0.090,-0.090,0.000,0.000,0.000
1644940514209120000,2022-02-15-15:55:14,10.1.1.7,18,-0.090,-0.090,-0.090,0.000,0.000,0.000
1644940514728678912,2022-02-15-15:55:14,10.1.1.7,29,0.010,0.010,0.010,0.000,0.000,0.000
1644940515628814080,2022-02-15-15:55:15,10.1.1.7,18,0.010,0.010,0.010,0.000,0.000,0.000
1644940516748672000,2022-02-15-15:55:16,10.1.1.7,21,0.010,0.010,0.010,0.000,0.000,0.000
1644940517648323072,2022-02-15-15:55:17,10.1.1.7,8,0.010,0.010,0.010,0.000,0.000,0.000
1644940518768909824,2022-02-15-15:55:18,10.1.1.7,14,0.010,0.010,0.010,0.000,0.000,0.000
1644940519228833024,2022-02-15-15:55:19,10.1.1.7,20,0.100,0.100,0.100,0.000,0.000,0.000
1644940521268402176,2022-02-15-15:55:21,10.1.1.7,24,0.100,0.100,0.100,0.000,0.000,0.000
1644940523309819904,2022-02-15-15:55:23,10.1.1.7,15,0.100,0.100,0.100,0.000,0.000,0.000
1644940525348807168,2022-02-15-15:55:25,10.1.1.7,24,0.100,0.100,0.100,0.000,0.000,0.000
1644940527388875008,2022-02-15-15:55:27,10.1.1.7,14,0.100,0.100,0.100,0.000,0.000,0.000
1644940529429266944,2022-02-15-15:55:29,10.1.1.7,17,0.100,0.100,0.100,0.000,0.000,0.000
1644940529749332992,2022-02-15-15:55:29,10.1.1.7,29,0.040,0.040,0.040,0.000,0.000,0.000
1644940531068517888,2022-02-15-15:55:31,10.1.1.7,27,0.020,0.020,0.020,0.000,0.000,0.000
1644940531869425152,2022-02-15-15:55:31,10.1.1.7,16,0.020,0.020,0.020,0.000,0.000,0.000
1644940533088742144,2022-02-15-15:55:33,10.1.1.7,21,0.020,0.020,0.020,0.000,0.000,0.000
1644940533889768960,2022-02-15-15:55:33,10.1.1.7,9,0.020,0.020,0.020,0.000,0.000,0.000
1644940535129376000,2022-02-15-15:55:35,10.1.1.7,21,0.020,0.020,0.020,0.000,0.000,0.000
1644940535930118912,2022-02-15-15:55:35,10.1.1.7,10,0.020,0.020,0.020,0.000,0.000,0.000
1644940536648786176,2022-02-15-15:55:36,10.1.1.7,20,-0.080,-0.080,-0.080,0.000,0.000,0.000
1644940538489517824,2022-02-15-15:55:38,10.1.1.7,27,-0.080,-0.080,-0.080,0.000,0.000,0.000
1644940538689064960,2022-02-15-15:55:38,10.1.1.7,24,-0.080,-0.080,-0.080,0.000,0.000,0.000
1644940540368488192,2022-02-15-15:55:40,10.1.1.7,29,-0.050,-0.050,-0.050,0.000,0.000,0.000
1644940540869549056,2022-02-15-15:55:40,10.1.1.7,18,-0.050,-0.050,-0.050,0.000,0.000,0.000
1644940542409004032,2022-02-15-15:55:42,10.1.1.7,16,-0.050,-0.050,-0.050,0.000,0.000,0.000
1644940542908972032,2022-02-15-15:55:42,10.1.1.7,9,-0.050,-0.050,-0.050,0.000,0.000,0.000
1644940544448802048,2022-02-15-15:55:44,10.1.1.7,25,-0.050,-0.050,-0.050,0.000,0.000,0.000
1644940544949785856,2022-02-15-15:55:44,10.1.1.7,18,-0.050,-0.050,-0.050,0.000,0.000,0.000
1644940546469793024,2022-02-15-15:55:46,10.1.1.7,16,-0.050,-0.050,-0.050,0.000,0.000,0.000
1644940546989437184,2022-02-15-15:55:46,10.1.1.7,26,-0.050,-0.050,-0.050,0.000,0.000,0.000
1644940548551099136,2022-02-15-15:55:48,10.1.1.7,16,-0.050,-0.050,-0.050,0.000,0.000,0.000
1644940549049532928,2022-02-15-15:55:49,10.1.1.7,9,-0.050,-0.050,-0.050,0.000,0.000,0.000
1644940550569053952,2022-02-15-15:55:50,10.1.1.7,9,-0.050,-0.050,-0.050,0.000,0.000,0.000
1644940551089370880,2022-02-15-15:55:51,10.1.1.7,21,-0.050,-0.050,-0.050,0.000,0.000,0.000
1644940552610200832,2022-02-15-15:55:52,10.1.1.7,19,-0.050,-0.050,-0.050,0.000,0.000,0.000
1644940553108347904,2022-02-15-15:55:53,10.1.1.7,11,-0.050,-0.050,-0.050,0.000,0.000,0.000
1644940554630511872,2022-02-15-15:55:54,10.1.1.7,8,-0.050,-0.050,-0.050,0.000,0.000,0.000
1644940555149558016,2022-02-15-15:55:55,10.1.1.7,9,-0.050,-0.050,-0.050,0.000,0.000,0.000
1644940556689635072,2022-02-15-15:55:56,10.1.1.7,20,-0.050,-0.050,-0.050,0.000,0.000,0.000
1644940557211073024,2022-02-15-15:55:57,10.1.1.7,23,-0.050,-0.050,-0.050,0.000,0.000,0.000
1644940558730251008,2022-02-15-15:55:58,10.1.1.7,14,-0.050,-0.050,-0.050,0.000,0.000,0.000
1644940559248598016,2022-02-15-15:55:59,10.1.1.7,25,-0.050,-0.050,-0.050,0.000,0.000,0.000
1644940560768749056,2022-02-15-15:56:00,10.1.1.7,25,-0.050,-0.050,-0.050,0.000,0.000,0.000
1644940561269590016,2022-02-15-15:56:01,10.1.1.7,20,-0.050,-0.050,-0.050,0.000,0.000,0.000
1644940562788925952,2022-02-15-15:56:02,10.1.1.7,13,-0.050,-0.050,-0.050,0.000,0.000,0.000
1644940563289145088,2022-02-15-15:56:03,10.1.1.7,8,-0.050,-0.050,-0.050,0.000,0.000,0.000
1644940564828406016,2022-02-15-15:56:04,10.1.1.7,27,-0.050,-0.050,-0.050,0.000,0.000,0.000
1644940565288139008,2022-02-15-15:56:05,10.1.1.7,29,-0.060,-0.060,-0.060,0.000,0.000,0.000
1644940566908513024,2022-02-15-15:56:06,10.1.1.7,13,-0.060,-0.060,-0.060,0.000,0.000,0.000
1644940567328328960,2022-02-15-15:56:07,10.1.1.7,26,-0.060,-0.060,-0.060,0.000,0.000,0.000
1644940567988385024,2022-02-15-15:56:07,10.1.1.7,19,0.070,0.070,0.070,0.000,0.000,0.000
1644940568288424960,2022-02-15-15:56:08,10.1.1.7,15,0.070,0.070,0.070,0.000,0.000,0.000
1644940570048367104,2022-02-15-15:56:10,10.1.1.7,17,0.070,0.070,0.070,0.000,0.000,0.000
1644940570370599936,2022-02-15-15:56:10,10.1.1.7,20,0.070,0.070,0.070,0.000,0.000,0.000
1644940572128834048,2022-02-15-15:56:12,10.1.1.7,22,0.070,0.070,0.070,0.000,0.000,0.000
1644940572430309888,2022-02-15-15:56:12,10.1.1.7,17,0.070,0.070,0.070,0.000,0.000,0.000
1644940574207879168,2022-02-15-15:56:14,10.1.1.7,13,0.070,0.070,0.070,0.000,0.000,0.000
1644940574528617984,2022-02-15-15:56:14,10.1.1.7,19,0.070,0.070,0.070,0.000,0.000,0.000
1644940576330113792,2022-02-15-15:56:16,10.1.1.7,20,0.070,0.070,0.070,0.000,0.000,0.000
1644940576631874048,2022-02-15-15:56:16,10.1.1.7,17,0.070,0.070,0.070,0.000,0.000,0.000
1644940578369338880,2022-02-15-15:56:18,10.1.1.7,16,0.070,0.070,0.070,0.000,0.000,0.000
1644940578669102848,2022-02-15-15:56:18,10.1.1.7,13,0.070,0.070,0.070,0.000,0.000,0.000
1644940580408470016,2022-02-15-15:56:20,10.1.1.7,18,0.070,0.070,0.070,0.000,0.000,0.000
1644940580708813824,2022-02-15-15:56:20,10.1.1.7,10,0.070,0.070,0.070,0.000,0.000,0.000
1644940582474714112,2022-02-15-15:56:22,10.1.1.7,8,0.070,0.070,0.070,0.000,0.000,0.000
1644940582791789056,2022-02-15-15:56:22,10.1.1.7,6,0.070,0.070,0.070,0.000,0.000,0.000
1644940584589176064,2022-02-15-15:56:24,10.1.1.7,16,0.070,0.070,0.070,0.000,0.000,0.000
1644940584889463808,2022-02-15-15:56:24,10.1.1.7,9,0.070,0.070,0.070,0.000,0.000,0.000
1644940586628379136,2022-02-15-15:56:26,10.1.1.7,24,0.070,0.070,0.070,0.000,0.000,0.000
1644940586929092864,2022-02-15-15:56:26,10.1.1.7,19,0.070,0.070,0.070,0.000,0.000,0.000
1644940587588654080,2022-02-15-15:56:27,10.1.1.7,19,-0.060,-0.060,-0.060,0.000,0.000,0.000
1644940587988637952,2022-02-15-15:56:27,10.1.1.7,14,-0.060,-0.060,-0.060,0.000,0.000,0.000
1644940589608957952,2022-02-15-15:56:29,10.1.1.7,16,-0.060,-0.060,-0.060,0.000,0.000,0.000
1644940590008348928,2022-02-15-15:56:30,10.1.1.7,10,-0.060,-0.060,-0.060,0.000,0.000,0.000
1644940591630046976,2022-02-15-15:56:31,10.1.1.7,10,-0.060,-0.060,-0.060,0.000,0.000,0.000
1644940592048943872,2022-02-15-15:56:32,10.1.1.7,25,-0.060,-0.060,-0.060,0.000,0.000,0.000
1644940593668886784,2022-02-15-15:56:33,10.1.1.7,27,-0.060,-0.060,-0.060,0.000,0.000,0.000
1644940594071799040,2022-02-15-15:56:34,10.1.1.7,18,-0.060,-0.060,-0.060,0.000,0.000,0.000
1644940595308794112,2022-02-15-15:56:35,10.1.1.7,30,0.020,0.020,0.020,0.000,0.000,0.000
1644940596528791040,2022-02-15-15:56:36,10.1.1.7,26,0.020,0.020,0.020,0.000,0.000,0.000
1644940597328478208,2022-02-15-15:56:37,10.1.1.7,17,0.020,0.020,0.020,0.000,0.000,0.000
1644940598548800000,2022-02-15-15:56:38,10.1.1.7,17,0.020,0.020,0.020,0.000,0.000,0.000
1644940599368105984,2022-02-15-15:56:39,10.1.1.7,25,0.020,0.020,0.020,0.000,0.000,0.000
1644940600587949056,2022-02-15-15:56:40,10.1.1.7,27,0.020,0.020,0.020,0.000,0.000,0.000
1644940601388796160,2022-02-15-15:56:41,10.1.1.7,9,0.020,0.020,0.020,0.000,0.000,0.000
1644940602608521984,2022-02-15-15:56:42,10.1.1.7,16,0.020,0.020,0.020,0.000,0.000,0.000
1644940603428544000,2022-02-15-15:56:43,10.1.1.7,26,0.020,0.020,0.020,0.000,0.000,0.000
1644940604648064000,2022-02-15-15:56:44,10.1.1.7,27,0.020,0.020,0.020,0.000,0.000,0.000
1644940605469572096,2022-02-15-15:56:45,10.1.1.7,26,0.020,0.020,0.020,0.000,0.000,0.000
1644940606688726784,2022-02-15-15:56:46,10.1.1.7,24,0.020,0.020,0.020,0.000,0.000,0.000
1644940607508923904,2022-02-15-15:56:47,10.1.1.7,22,0.020,0.020,0.020,0.000,0.000,0.000
1644940608789895168,2022-02-15-15:56:48,10.1.1.7,14,0.020,0.020,0.020,0.000,0.000,0.000
1644940609628133888,2022-02-15-15:56:49,10.1.1.7,18,0.020,0.020,0.020,0.000,0.000,0.000
1644940610888812032,2022-02-15-15:56:50,10.1.1.7,8,0.020,0.020,0.020,0.000,0.000,0.000
1644940611708975104,2022-02-15-15:56:51,10.1.1.7,19,0.020,0.020,0.020,0.000,0.000,0.000
1644940612928088064,2022-02-15-15:56:52,10.1.1.7,17,0.020,0.020,0.020,0.000,0.000,0.000
1644940613749867008,2022-02-15-15:56:53,10.1.1.7,16,0.020,0.020,0.020,0.000,0.000,0.000
1644940614988039936,2022-02-15-15:56:54,10.1.1.7,9,0.020,0.020,0.020,0.000,0.000,0.000
1644940615848231936,2022-02-15-15:56:55,10.1.1.7,16,0.020,0.020,0.020,0.000,0.000,0.000
1644940617088251136,2022-02-15-15:56:57,10.1.1.7,21,0.020,0.020,0.020,0.000,0.000,0.000
1644940617890326016,2022-02-15-15:56:57,10.1.1.7,9,0.020,0.020,0.020,0.000,0.000,0.000
1644940619109518080,2022-02-15-15:56:59,10.1.1.7,10,0.020,0.020,0.020,0.000,0.000,0.000
1644940619937683200,2022-02-15-15:56:59,10.1.1.7,16,0.020,0.020,0.020,0.000,0.000,0.000
1644940621150376960,2022-02-15-15:57:01,10.1.1.7,12,0.020,0.020,0.020,0.000,0.000,0.000
1644940621968344064,2022-02-15-15:57:01,10.1.1.7,13,0.020,0.020,0.020,0.000,0.000,0.000
1644940623210937088,2022-02-15-15:57:03,10.1.1.7,20,0.020,0.020,0.020,0.000,0.000,0.000
1644940624033036032,2022-02-15-15:57:04,10.1.1.7,27,0.020,0.020,0.020,0.000,0.000,0.000
1644940625249701888,2022-02-15-15:57:05,10.1.1.7,17,0.020,0.020,0.020,0.000,0.000,0.000
1644940626088755968,2022-02-15-15:57:06,10.1.1.7,20,0.020,0.020,0.020,0.000,0.000,0.000
1644940627328003840,2022-02-15-15:57:07,10.1.1.7,19,0.020,0.020,0.020,0.000,0.000,0.000
1644940628149147136,2022-02-15-15:57:08,10.1.1.7,18,0.020,0.020,0.020,0.000,0.000,0.000
1644940629368192000,2022-02-15-15:57:09,10.1.1.7,16,0.020,0.020,0.020,0.000,0.000,0.000
1644940630189084928,2022-02-15-15:57:10,10.1.1.7,17,0.020,0.020,0.020,0.000,0.000,0.000
1644940631431106048,2022-02-15-15:57:11,10.1.1.7,19,0.020,0.020,0.020,0.000,0.000,0.000
1644940632268780032,2022-02-15-15:57:12,10.1.1.7,9,0.020,0.020,0.020,0.000,0.000,0.000
1644940633508044032,2022-02-15-15:57:13,10.1.1.7,24,0.020,0.020,0.020,0.000,0.000,0.000
1644940634329349120,2022-02-15-15:57:14,10.1.1.7,22,0.020,0.020,0.020,0.000,0.000,0.000
1644940635549422080,2022-02-15-15:57:15,10.1.1.7,11,0.020,0.020,0.020,0.000,0.000,0.000
1644940636368025088,2022-02-15-15:57:16,10.1.1.7,9,0.020,0.020,0.020,0.000,0.000,0.000
1644940637629654784,2022-02-15-15:57:17,10.1.1.7,20,0.020,0.020,0.020,0.000,0.000,0.000
1644940638449001984,2022-02-15-15:57:18,10.1.1.7,27,0.020,0.020,0.020,0.000,0.000,0.000
1644940639648230144,2022-02-15-15:57:19,10.1.1.7,11,0.020,0.020,0.020,0.000,0.000,0.000
1644940640468280064,2022-02-15-15:57:20,10.1.1.7,18,0.020,0.020,0.020,0.000,0.000,0.000
1644940641691772928,2022-02-15-15:57:21,10.1.1.7,21,0.020,0.020,0.020,0.000,0.000,0.000
1644940642508404992,2022-02-15-15:57:22,10.1.1.7,22,0.020,0.020,0.020,0.000,0.000,0.000
1644940643710536960,2022-02-15-15:57:23,10.1.1.7,6,0.020,0.020,0.020,0.000,0.000,0.000
1644940644537616896,2022-02-15-15:57:24,10.1.1.7,5,0.020,0.020,0.020,0.000,0.000,0.000
1644940645769125888,2022-02-15-15:57:25,10.1.1.7,26,0.020,0.020,0.020,0.000,0.000,0.000
1644940646568711168,2022-02-15-15:57:26,10.1.1.7,16,0.020,0.020,0.020,0.000,0.000,0.000
1644940647789093888,2022-02-15-15:57:27,10.1.1.7,13,0.020,0.020,0.020,0.000,0.000,0.000
1644940648629987072,2022-02-15-15:57:28,10.1.1.7,20,0.020,0.020,0.020,0.000,0.000,0.000
1644940649848520960,2022-02-15-15:57:29,10.1.1.7,8,0.020,0.020,0.020,0.000,0.000,0.000
1644940650688254976,2022-02-15-15:57:30,10.1.1.7,13,0.020,0.020,0.020,0.000,0.000,0.000
1644940651928450048,2022-02-15-15:57:31,10.1.1.7,24,0.020,0.020,0.020,0.000,0.000,0.000
1644940652748094208,2022-02-15-15:57:32,10.1.1.7,22,0.020,0.020,0.020,0.000,0.000,0.000
1644940653968153856,2022-02-15-15:57:33,10.1.1.7,12,0.020,0.020,0.020,0.000,0.000,0.000
1644940654807860992,2022-02-15-15:57:34,10.1.1.7,19,0.020,0.020,0.020,0.000,0.000,0.000
1644940656048135168,2022-02-15-15:57:36,10.1.1.7,26,0.020,0.020,0.020,0.000,0.000,0.000
1644940656849149952,2022-02-15-15:57:36,10.1.1.7,8,0.020,0.020,0.020,0.000,0.000,0.000
1644940658089019904,2022-02-15-15:57:38,10.1.1.7,18,0.020,0.020,0.020,0.000,0.000,0.000
1644940658908956928,2022-02-15-15:57:38,10.1.1.7,9,0.020,0.020,0.020,0.000,0.000,0.000
1644940660161908992,2022-02-15-15:57:40,10.1.1.7,20,0.020,0.020,0.020,0.000,0.000,0.000
1644940660988462080,2022-02-15-15:57:40,10.1.1.7,23,0.020,0.020,0.020,0.000,0.000,0.000
1644940662193236992,2022-02-15-15:57:42,10.1.1.7,3,0.020,0.020,0.020,0.000,0.000,0.000
1644940663007795200,2022-02-15-15:57:43,10.1.1.7,9,0.020,0.020,0.020,0.000,0.000,0.000
1644940663489252096,2022-02-15-15:57:43,10.1.1.7,32,-0.070,-0.070,-0.070,0.000,0.000,0.000
1644940663773580032,2022-02-15-15:57:43,10.1.1.7,9,-0.070,-0.070,-0.070,0.000,0.000,0.000
1644940664449559040,2022-02-15-15:57:44,10.1.1.7,21,0.060,0.060,0.060,0.000,0.000,0.000
1644940664849579008,2022-02-15-15:57:44,10.1.1.7,15,0.060,0.060,0.060,0.000,0.000,0.000
1644940666487715840,2022-02-15-15:57:46,10.1.1.7,27,0.060,0.060,0.060,0.000,0.000,0.000
1644940666888491008,2022-02-15-15:57:46,10.1.1.7,15,0.060,0.060,0.060,0.000,0.000,0.000
1644940668528841984,2022-02-15-15:57:48,10.1.1.7,20,0.060,0.060,0.060,0.000,0.000,0.000
1644940668928855808,2022-02-15-15:57:48,10.1.1.7,15,0.060,0.060,0.060,0.000,0.000,0.000
1644940670589358080,2022-02-15-15:57:50,10.1.1.7,18,0.060,0.060,0.060,0.000,0.000,0.000
1644940670988566016,2022-02-15-15:57:50,10.1.1.7,9,0.060,0.060,0.060,0.000,0.000,0.000
1644940672648161024,2022-02-15-15:57:52,10.1.1.7,23,0.060,0.060,0.060,0.000,0.000,0.000
1644940673048558080,2022-02-15-15:57:53,10.1.1.7,17,0.060,0.060,0.060,0.000,0.000,0.000
1644940674688904960,2022-02-15-15:57:54,10.1.1.7,23,0.060,0.060,0.060,0.000,0.000,0.000
1644940675089060096,2022-02-15-15:57:55,10.1.1.7,16,0.060,0.060,0.060,0.000,0.000,0.000
1644940676708012032,2022-02-15-15:57:56,10.1.1.7,14,0.060,0.060,0.060,0.000,0.000,0.000
1644940677128356096,2022-02-15-15:57:57,10.1.1.7,21,0.060,0.060,0.060,0.000,0.000,0.000
1644940678808704000,2022-02-15-15:57:58,10.1.1.7,16,0.060,0.060,0.060,0.000,0.000,0.000
1644940679227653888,2022-02-15-15:57:59,10.1.1.7,27,0.060,0.060,0.060,0.000,0.000,0.000
1644940680888701952,2022-02-15-15:58:00,10.1.1.7,17,0.060,0.060,0.060,0.000,0.000,0.000
1644940681293044992,2022-02-15-15:58:01,10.1.1.7,7,0.060,0.060,0.060,0.000,0.000,0.000
1644940682968163840,2022-02-15-15:58:02,10.1.1.7,18,0.060,0.060,0.060,0.000,0.000,0.000
1644940683407772928,2022-02-15-15:58:03,10.1.1.7,22,0.060,0.060,0.060,0.000,0.000,0.000
1644940685278151936,2022-02-15-15:58:05,10.1.1.7,25,0.060,0.060,0.060,0.000,0.000,0.000
1644940685647625984,2022-02-15-15:58:05,10.1.1.7,18,0.060,0.060,0.060,0.000,0.000,0.000
1644940687288598016,2022-02-15-15:58:07,10.1.1.7,15,0.060,0.060,0.060,0.000,0.000,0.000
1644940687707753984,2022-02-15-15:58:07,10.1.1.7,25,0.060,0.060,0.060,0.000,0.000,0.000
