FedericoMungari/DigitalTwin_service/01_WiredScenario/Output/Output_script/script_rosapi_2_output_robots6_freq0_6.txt
timestamp,date,node,latency,joint_1,joint_2,joint_3,joint_4,joint_5,joint_6
1644347635819179008,2022-02-08-19:13:55,10.1.1.7,0,-0.100,-0.100,-0.100,0.000,-0.000,0.000
1644347635921910016,2022-02-08-19:13:55,10.1.1.7,19,-0.090,-0.090,-0.090,0.000,0.000,0.000
1644347636041747200,2022-02-08-19:13:56,10.1.1.7,38,-0.080,-0.080,-0.080,0.000,0.000,0.000
1644347636142126080,2022-02-08-19:13:56,10.1.1.7,37,-0.070,-0.070,-0.070,0.000,0.000,0.000
1644347636241240064,2022-02-08-19:13:56,10.1.1.7,37,-0.060,-0.060,-0.060,0.000,0.000,0.000
1644347636353196032,2022-02-08-19:13:56,10.1.1.7,34,-0.050,-0.050,-0.050,0.000,0.000,0.000
1644347636440651776,2022-02-08-19:13:56,10.1.1.7,31,-0.040,-0.040,-0.040,0.000,0.000,0.000
1644347636541605888,2022-02-08-19:13:56,10.1.1.7,25,-0.030,-0.030,-0.030,0.000,0.000,0.000
1644347636644988160,2022-02-08-19:13:56,10.1.1.7,22,-0.020,-0.020,-0.020,0.000,0.000,0.000
1644347636742556928,2022-02-08-19:13:56,10.1.1.7,21,-0.010,-0.010,-0.010,0.000,0.000,0.000
1644347636841353984,2022-02-08-19:13:56,10.1.1.7,20,0.000,0.000,0.000,0.000,0.000,0.000
1644347636961095168,2022-02-08-19:13:56,10.1.1.7,37,0.010,0.010,0.010,0.000,0.000,0.000
1644347637061983232,2022-02-08-19:13:57,10.1.1.7,37,0.020,0.020,0.020,0.000,0.000,0.000
1644347637161235968,2022-02-08-19:13:57,10.1.1.7,36,0.030,0.030,0.030,0.000,0.000,0.000
1644347637261423104,2022-02-08-19:13:57,10.1.1.7,35,0.040,0.040,0.040,0.000,0.000,0.000
1644347637361798144,2022-02-08-19:13:57,10.1.1.7,33,0.050,0.050,0.050,0.000,0.000,0.000
1644347637461873152,2022-02-08-19:13:57,10.1.1.7,32,0.060,0.060,0.060,0.000,0.000,0.000
1644347637561561088,2022-02-08-19:13:57,10.1.1.7,31,0.070,0.070,0.070,0.000,0.000,0.000
1644347637661406976,2022-02-08-19:13:57,10.1.1.7,31,0.080,0.080,0.080,0.000,0.000,0.000
1644347637761224960,2022-02-08-19:13:57,10.1.1.7,28,0.090,0.090,0.090,0.000,0.000,0.000
1644347637861662976,2022-02-08-19:13:57,10.1.1.7,28,0.100,0.100,0.100,0.000,0.000,0.000
1644347637962398976,2022-02-08-19:13:57,10.1.1.7,27,0.090,0.090,0.090,0.000,0.000,0.000
1644347638062108928,2022-02-08-19:13:58,10.1.1.7,26,0.080,0.080,0.080,0.000,0.000,0.000
1644347638160961024,2022-02-08-19:13:58,10.1.1.7,24,0.070,0.070,0.070,0.000,0.000,0.000
1644347638261260032,2022-02-08-19:13:58,10.1.1.7,23,0.060,0.060,0.060,0.000,0.000,0.000
1644347638362690048,2022-02-08-19:13:58,10.1.1.7,22,0.050,0.050,0.050,0.000,0.000,0.000
1644347638461201920,2022-02-08-19:13:58,10.1.1.7,21,0.040,0.040,0.040,0.000,0.000,0.000
1644347638561736192,2022-02-08-19:13:58,10.1.1.7,20,0.030,0.030,0.030,0.000,0.000,0.000
1644347638660975104,2022-02-08-19:13:58,10.1.1.7,19,0.020,0.020,0.020,0.000,0.000,0.000
1644347638761303040,2022-02-08-19:13:58,10.1.1.7,19,0.011,0.011,0.011,0.000,0.000,0.000
1644347638882089984,2022-02-08-19:13:58,10.1.1.7,38,0.000,0.000,0.000,0.000,0.000,0.000
1644347638980803072,2022-02-08-19:13:58,10.1.1.7,37,-0.010,-0.010,-0.010,0.000,0.000,0.000
1644347639082309888,2022-02-08-19:13:59,10.1.1.7,36,-0.020,-0.020,-0.020,0.000,0.000,0.000
1644347639181209088,2022-02-08-19:13:59,10.1.1.7,36,-0.030,-0.030,-0.030,0.000,0.000,0.000
1644347639281651968,2022-02-08-19:13:59,10.1.1.7,33,-0.040,-0.040,-0.040,0.000,0.000,0.000
1644347639381449984,2022-02-08-19:13:59,10.1.1.7,26,-0.050,-0.050,-0.050,0.000,0.000,0.000
1644347639481244160,2022-02-08-19:13:59,10.1.1.7,25,-0.060,-0.060,-0.060,0.000,0.000,0.000
1644347639581788928,2022-02-08-19:13:59,10.1.1.7,24,-0.070,-0.070,-0.070,0.000,0.000,0.000
1644347639681500928,2022-02-08-19:13:59,10.1.1.7,23,-0.080,-0.080,-0.080,0.000,0.000,0.000
1644347639782758912,2022-02-08-19:13:59,10.1.1.7,22,-0.090,-0.090,-0.090,0.000,0.000,0.000
1644347639881503232,2022-02-08-19:13:59,10.1.1.7,21,-0.100,-0.100,-0.100,0.000,0.000,0.000
1644347639981465088,2022-02-08-19:13:59,10.1.1.7,20,-0.090,-0.090,-0.090,0.000,0.000,0.000
1644347640102422016,2022-02-08-19:14:00,10.1.1.7,38,-0.080,-0.080,-0.080,0.000,0.000,0.000
1644347640200758016,2022-02-08-19:14:00,10.1.1.7,37,-0.070,-0.070,-0.070,0.000,0.000,0.000
1644347640300477952,2022-02-08-19:14:00,10.1.1.7,32,-0.060,-0.060,-0.060,0.000,0.000,0.000
1644347640400572160,2022-02-08-19:14:00,10.1.1.7,32,-0.050,-0.050,-0.050,0.000,0.000,0.000
1644347640501116928,2022-02-08-19:14:00,10.1.1.7,31,-0.040,-0.040,-0.040,0.000,0.000,0.000
1644347640700724992,2022-02-08-19:14:00,10.1.1.7,26,-0.020,-0.020,-0.020,0.000,0.000,0.000
1644347640800838912,2022-02-08-19:14:00,10.1.1.7,24,-0.010,-0.010,-0.010,0.000,0.000,0.000
1644347640901246976,2022-02-08-19:14:00,10.1.1.7,24,0.000,0.000,0.000,0.000,0.000,0.000
1644347641001647872,2022-02-08-19:14:01,10.1.1.7,23,0.010,0.010,0.010,0.000,0.000,0.000
1644347641101319936,2022-02-08-19:14:01,10.1.1.7,22,0.020,0.020,0.020,0.000,0.000,0.000
1644347641201448960,2022-02-08-19:14:01,10.1.1.7,22,0.030,0.030,0.030,0.000,0.000,0.000
1644347641301719808,2022-02-08-19:14:01,10.1.1.7,21,0.040,0.040,0.040,0.000,0.000,0.000
1644347641401561856,2022-02-08-19:14:01,10.1.1.7,19,0.049,0.049,0.049,0.000,0.000,0.000
1644347641521120000,2022-02-08-19:14:01,10.1.1.7,36,0.060,0.060,0.060,0.000,0.000,0.000
1644347641621560064,2022-02-08-19:14:01,10.1.1.7,35,0.070,0.070,0.070,0.000,0.000,0.000
1644347641721911040,2022-02-08-19:14:01,10.1.1.7,34,0.080,0.080,0.080,0.000,0.000,0.000
1644347641821227008,2022-02-08-19:14:01,10.1.1.7,33,0.090,0.090,0.090,0.000,0.000,0.000
1644347641922205952,2022-02-08-19:14:01,10.1.1.7,33,0.100,0.100,0.100,0.000,0.000,0.000
1644347642020988928,2022-02-08-19:14:02,10.1.1.7,28,0.090,0.090,0.090,0.000,0.000,0.000
1644347642121413120,2022-02-08-19:14:02,10.1.1.7,26,0.080,0.080,0.080,0.000,0.000,0.000
1644347642221904128,2022-02-08-19:14:02,10.1.1.7,26,0.070,0.070,0.070,0.000,0.000,0.000
1644347642321651968,2022-02-08-19:14:02,10.1.1.7,25,0.060,0.060,0.060,0.000,0.000,0.000
1644347642421287936,2022-02-08-19:14:02,10.1.1.7,24,0.050,0.050,0.050,0.000,0.000,0.000
1644347642521856000,2022-02-08-19:14:02,10.1.1.7,24,0.040,0.040,0.040,0.000,0.000,0.000
1644347642621402880,2022-02-08-19:14:02,10.1.1.7,23,0.030,0.030,0.030,0.000,0.000,0.000
1644347642721751808,2022-02-08-19:14:02,10.1.1.7,22,0.020,0.020,0.020,0.000,0.000,0.000
1644347642822587136,2022-02-08-19:14:02,10.1.1.7,21,0.010,0.010,0.010,0.000,0.000,0.000
1644347642921019136,2022-02-08-19:14:02,10.1.1.7,19,0.001,0.001,0.001,0.000,0.000,0.000
1644347643041742080,2022-02-08-19:14:03,10.1.1.7,38,-0.010,-0.010,-0.010,0.000,0.000,0.000
1644347643141088000,2022-02-08-19:14:03,10.1.1.7,37,-0.020,-0.020,-0.020,0.000,0.000,0.000
1644347643241254144,2022-02-08-19:14:03,10.1.1.7,36,-0.030,-0.030,-0.030,0.000,0.000,0.000
1644347643341277952,2022-02-08-19:14:03,10.1.1.7,35,-0.040,-0.040,-0.040,0.000,0.000,0.000
1644347643440859136,2022-02-08-19:14:03,10.1.1.7,35,-0.050,-0.050,-0.050,0.000,0.000,0.000
1644347643541434880,2022-02-08-19:14:03,10.1.1.7,34,-0.060,-0.060,-0.060,0.000,0.000,0.000
1644347643641166080,2022-02-08-19:14:03,10.1.1.7,33,-0.070,-0.070,-0.070,0.000,0.000,0.000
1644347643741702144,2022-02-08-19:14:03,10.1.1.7,33,-0.080,-0.080,-0.080,0.000,0.000,0.000
1644347643842798848,2022-02-08-19:14:03,10.1.1.7,32,-0.090,-0.090,-0.090,0.000,0.000,0.000
1644347643941313024,2022-02-08-19:14:03,10.1.1.7,31,-0.100,-0.100,-0.100,0.000,0.000,0.000
1644347644040829952,2022-02-08-19:14:04,10.1.1.7,31,-0.090,-0.090,-0.090,0.000,0.000,0.000
1644347644141289984,2022-02-08-19:14:04,10.1.1.7,29,-0.080,-0.080,-0.080,0.000,0.000,0.000
1644347644241244160,2022-02-08-19:14:04,10.1.1.7,28,-0.070,-0.070,-0.070,0.000,0.000,0.000
1644347644341588992,2022-02-08-19:14:04,10.1.1.7,28,-0.060,-0.060,-0.060,0.000,0.000,0.000
1644347644441453056,2022-02-08-19:14:04,10.1.1.7,27,-0.050,-0.050,-0.050,0.000,0.000,0.000
1644347644541972992,2022-02-08-19:14:04,10.1.1.7,27,-0.040,-0.040,-0.040,0.000,0.000,0.000
1644347644641458944,2022-02-08-19:14:04,10.1.1.7,26,-0.030,-0.030,-0.030,0.000,0.000,0.000
1644347644742473984,2022-02-08-19:14:04,10.1.1.7,25,-0.020,-0.020,-0.020,0.000,0.000,0.000
1644347644841317888,2022-02-08-19:14:04,10.1.1.7,25,-0.010,-0.010,-0.010,0.000,0.000,0.000
1644347644941873920,2022-02-08-19:14:04,10.1.1.7,24,0.000,0.000,0.000,0.000,0.000,0.000
1644347645041330176,2022-02-08-19:14:05,10.1.1.7,23,0.010,0.010,0.010,0.000,0.000,0.000
1644347645132816128,2022-02-08-19:14:05,10.1.1.7,-16,0.010,0.010,0.010,0.000,0.000,0.000
1644347645268876032,2022-02-08-19:14:05,10.1.1.7,21,0.030,0.030,0.030,0.000,0.000,0.000
1644347645363387136,2022-02-08-19:14:05,10.1.1.7,21,0.040,0.040,0.040,0.000,0.000,0.000
1644347645461325056,2022-02-08-19:14:05,10.1.1.7,20,0.050,0.050,0.050,0.000,0.000,0.000
1644347645581276928,2022-02-08-19:14:05,10.1.1.7,38,0.060,0.060,0.060,0.000,0.000,0.000
1644347645681235968,2022-02-08-19:14:05,10.1.1.7,37,0.070,0.070,0.070,0.000,0.000,0.000
1644347645781882112,2022-02-08-19:14:05,10.1.1.7,36,0.080,0.080,0.080,0.000,0.000,0.000
1644347645880947200,2022-02-08-19:14:05,10.1.1.7,35,0.090,0.090,0.090,0.000,0.000,0.000
1644347645980781056,2022-02-08-19:14:05,10.1.1.7,34,0.100,0.100,0.100,0.000,0.000,0.000
1644347646081096960,2022-02-08-19:14:06,10.1.1.7,33,0.090,0.090,0.090,0.000,0.000,0.000
1644347646182041856,2022-02-08-19:14:06,10.1.1.7,31,0.080,0.080,0.080,0.000,0.000,0.000
1644347646280900096,2022-02-08-19:14:06,10.1.1.7,28,0.070,0.070,0.070,0.000,0.000,0.000
1644347646381874944,2022-02-08-19:14:06,10.1.1.7,26,0.060,0.060,0.060,0.000,0.000,0.000
1644347646481540864,2022-02-08-19:14:06,10.1.1.7,24,0.050,0.050,0.050,0.000,0.000,0.000
1644347646581430016,2022-02-08-19:14:06,10.1.1.7,21,0.040,0.040,0.040,0.000,0.000,0.000
1644347646681042944,2022-02-08-19:14:06,10.1.1.7,20,0.030,0.030,0.030,0.000,0.000,0.000
1644347646802222080,2022-02-08-19:14:06,10.1.1.7,36,0.020,0.020,0.020,0.000,0.000,0.000
1644347646901225984,2022-02-08-19:14:06,10.1.1.7,32,0.010,0.010,0.010,0.000,0.000,0.000
1644347647001522944,2022-02-08-19:14:07,10.1.1.7,31,0.000,0.000,0.000,0.000,0.000,0.000
1644347647101253888,2022-02-08-19:14:07,10.1.1.7,29,-0.010,-0.010,-0.010,0.000,0.000,0.000
1644347647200931072,2022-02-08-19:14:07,10.1.1.7,28,-0.020,-0.020,-0.020,0.000,0.000,0.000
1644347647301480960,2022-02-08-19:14:07,10.1.1.7,27,-0.030,-0.030,-0.030,0.000,0.000,0.000
1644347647401047040,2022-02-08-19:14:07,10.1.1.7,26,-0.040,-0.040,-0.040,0.000,0.000,0.000
1644347647501256960,2022-02-08-19:14:07,10.1.1.7,26,-0.050,-0.050,-0.050,0.000,0.000,0.000
1644347647601555968,2022-02-08-19:14:07,10.1.1.7,25,-0.060,-0.060,-0.060,0.000,0.000,0.000
1644347647700731136,2022-02-08-19:14:07,10.1.1.7,23,-0.070,-0.070,-0.070,0.000,0.000,0.000
1644347647801165056,2022-02-08-19:14:07,10.1.1.7,22,-0.080,-0.080,-0.080,0.000,0.000,0.000
1644347647900685056,2022-02-08-19:14:07,10.1.1.7,22,-0.090,-0.090,-0.090,0.000,0.000,0.000
1644347648001650944,2022-02-08-19:14:08,10.1.1.7,21,-0.100,-0.100,-0.100,0.000,0.000,0.000
1644347648101257984,2022-02-08-19:14:08,10.1.1.7,19,-0.090,-0.090,-0.090,0.000,0.000,0.000
1644347648200998912,2022-02-08-19:14:08,10.1.1.7,19,-0.081,-0.081,-0.081,0.000,0.000,0.000
1644347648321094912,2022-02-08-19:14:08,10.1.1.7,38,-0.070,-0.070,-0.070,0.000,0.000,0.000
1644347648420922880,2022-02-08-19:14:08,10.1.1.7,36,-0.060,-0.060,-0.060,0.000,0.000,0.000
1644347648521380864,2022-02-08-19:14:08,10.1.1.7,35,-0.050,-0.050,-0.050,0.000,0.000,0.000
1644347648620696064,2022-02-08-19:14:08,10.1.1.7,34,-0.040,-0.040,-0.040,0.000,0.000,0.000
1644347648720978944,2022-02-08-19:14:08,10.1.1.7,34,-0.030,-0.030,-0.030,0.000,0.000,0.000
1644347648820751872,2022-02-08-19:14:08,10.1.1.7,28,-0.020,-0.020,-0.020,0.000,0.000,0.000
1644347648921492224,2022-02-08-19:14:08,10.1.1.7,26,-0.010,-0.010,-0.010,0.000,0.000,0.000
1644347649020647936,2022-02-08-19:14:09,10.1.1.7,26,0.000,0.000,0.000,0.000,0.000,0.000
1644347649121236992,2022-02-08-19:14:09,10.1.1.7,24,0.010,0.010,0.010,0.000,0.000,0.000
1644347649221510912,2022-02-08-19:14:09,10.1.1.7,24,0.020,0.020,0.020,0.000,0.000,0.000
1644347649321024768,2022-02-08-19:14:09,10.1.1.7,23,0.030,0.030,0.030,0.000,0.000,0.000
1644347649421415168,2022-02-08-19:14:09,10.1.1.7,21,0.040,0.040,0.040,0.000,0.000,0.000
1644347649520688896,2022-02-08-19:14:09,10.1.1.7,20,0.050,0.050,0.050,0.000,0.000,0.000
1644347649620711168,2022-02-08-19:14:09,10.1.1.7,19,0.060,0.060,0.060,0.000,0.000,0.000
1644347649741106944,2022-02-08-19:14:09,10.1.1.7,39,0.070,0.070,0.070,0.000,0.000,0.000
1644347649841517056,2022-02-08-19:14:09,10.1.1.7,37,0.080,0.080,0.080,0.000,0.000,0.000
1644347649941395968,2022-02-08-19:14:09,10.1.1.7,37,0.090,0.090,0.090,0.000,0.000,0.000
1644347650043211008,2022-02-08-19:14:10,10.1.1.7,36,0.100,0.100,0.100,0.000,0.000,0.000
1644347650140749056,2022-02-08-19:14:10,10.1.1.7,35,0.090,0.090,0.090,0.000,0.000,0.000
1644347650240695040,2022-02-08-19:14:10,10.1.1.7,34,0.080,0.080,0.080,0.000,0.000,0.000
1644347650340890880,2022-02-08-19:14:10,10.1.1.7,34,0.070,0.070,0.070,0.000,0.000,0.000
1644347650440836864,2022-02-08-19:14:10,10.1.1.7,33,0.060,0.060,0.060,0.000,0.000,0.000
1644347650541196032,2022-02-08-19:14:10,10.1.1.7,32,0.050,0.050,0.050,0.000,0.000,0.000
1644347650641745920,2022-02-08-19:14:10,10.1.1.7,32,0.040,0.040,0.040,0.000,0.000,0.000
1644347650741745920,2022-02-08-19:14:10,10.1.1.7,31,0.030,0.030,0.030,0.000,0.000,0.000
1644347650841363968,2022-02-08-19:14:10,10.1.1.7,31,0.020,0.020,0.020,0.000,0.000,0.000
1644347650940787200,2022-02-08-19:14:10,10.1.1.7,30,0.010,0.010,0.010,0.000,0.000,0.000
1644347651041105152,2022-02-08-19:14:11,10.1.1.7,29,0.000,0.000,0.000,0.000,0.000,0.000
1644347651141416192,2022-02-08-19:14:11,10.1.1.7,28,-0.010,-0.010,-0.010,0.000,0.000,0.000
1644347651241122048,2022-02-08-19:14:11,10.1.1.7,28,-0.020,-0.020,-0.020,0.000,0.000,0.000
1644347651341579008,2022-02-08-19:14:11,10.1.1.7,27,-0.030,-0.030,-0.030,0.000,0.000,0.000
1644347651441090048,2022-02-08-19:14:11,10.1.1.7,26,-0.040,-0.040,-0.040,0.000,0.000,0.000
1644347651541469184,2022-02-08-19:14:11,10.1.1.7,26,-0.050,-0.050,-0.050,0.000,0.000,0.000
1644347651641096960,2022-02-08-19:14:11,10.1.1.7,25,-0.060,-0.060,-0.060,0.000,0.000,0.000
1644347651741229056,2022-02-08-19:14:11,10.1.1.7,24,-0.070,-0.070,-0.070,0.000,0.000,0.000
1644347651841110016,2022-02-08-19:14:11,10.1.1.7,23,-0.080,-0.080,-0.080,0.000,0.000,0.000
1644347651941603840,2022-02-08-19:14:11,10.1.1.7,23,-0.090,-0.090,-0.090,0.000,0.000,0.000
1644347652041641984,2022-02-08-19:14:12,10.1.1.7,22,-0.100,-0.100,-0.100,0.000,0.000,0.000
1644347652142187008,2022-02-08-19:14:12,10.1.1.7,22,-0.090,-0.090,-0.090,0.000,0.000,0.000
1644347652241008896,2022-02-08-19:14:12,10.1.1.7,21,-0.080,-0.080,-0.080,0.000,0.000,0.000
1644347652341583104,2022-02-08-19:14:12,10.1.1.7,19,-0.070,-0.070,-0.070,0.000,0.000,0.000
1644347652441126144,2022-02-08-19:14:12,10.1.1.7,19,-0.061,-0.061,-0.061,0.000,0.000,0.000
1644347652561047040,2022-02-08-19:14:12,10.1.1.7,38,-0.050,-0.050,-0.050,0.000,0.000,0.000
1644347652661554944,2022-02-08-19:14:12,10.1.1.7,37,-0.040,-0.040,-0.040,0.000,0.000,0.000
1644347652762038016,2022-02-08-19:14:12,10.1.1.7,36,-0.030,-0.030,-0.030,0.000,0.000,0.000
1644347652861470976,2022-02-08-19:14:12,10.1.1.7,34,-0.020,-0.020,-0.020,0.000,0.000,0.000
1644347652961163008,2022-02-08-19:14:12,10.1.1.7,34,-0.010,-0.010,-0.010,0.000,0.000,0.000
1644347653061292032,2022-02-08-19:14:13,10.1.1.7,33,0.000,0.000,0.000,0.000,0.000,0.000
1644347653161377792,2022-02-08-19:14:13,10.1.1.7,33,0.010,0.010,0.010,0.000,0.000,0.000
1644347653260980992,2022-02-08-19:14:13,10.1.1.7,32,0.020,0.020,0.020,0.000,0.000,0.000
1644347653362297088,2022-02-08-19:14:13,10.1.1.7,32,0.030,0.030,0.030,0.000,0.000,0.000
1644347653461401856,2022-02-08-19:14:13,10.1.1.7,30,0.040,0.040,0.040,0.000,0.000,0.000
1644347653561070848,2022-02-08-19:14:13,10.1.1.7,30,0.050,0.050,0.050,0.000,0.000,0.000
1644347653660968960,2022-02-08-19:14:13,10.1.1.7,29,0.060,0.060,0.060,0.000,0.000,0.000
1644347653761699072,2022-02-08-19:14:13,10.1.1.7,28,0.070,0.070,0.070,0.000,0.000,0.000
1644347653862076160,2022-02-08-19:14:13,10.1.1.7,27,0.080,0.080,0.080,0.000,0.000,0.000
1644347653960963840,2022-02-08-19:14:13,10.1.1.7,27,0.090,0.090,0.090,0.000,0.000,0.000
1644347654062665984,2022-02-08-19:14:14,10.1.1.7,26,0.100,0.100,0.100,0.000,0.000,0.000
1644347654162505984,2022-02-08-19:14:14,10.1.1.7,23,0.090,0.090,0.090,0.000,0.000,0.000
1644347654261143040,2022-02-08-19:14:14,10.1.1.7,22,0.080,0.080,0.080,0.000,0.000,0.000
1644347654361795072,2022-02-08-19:14:14,10.1.1.7,22,0.070,0.070,0.070,0.000,0.000,0.000
1644347654461769984,2022-02-08-19:14:14,10.1.1.7,21,0.060,0.060,0.060,0.000,0.000,0.000
1644347654561507840,2022-02-08-19:14:14,10.1.1.7,21,0.050,0.050,0.050,0.000,0.000,0.000
1644347654662008064,2022-02-08-19:14:14,10.1.1.7,20,0.040,0.040,0.040,0.000,0.000,0.000
1644347654761197056,2022-02-08-19:14:14,10.1.1.7,20,0.030,0.030,0.030,0.000,0.000,0.000
1644347654861881856,2022-02-08-19:14:14,10.1.1.7,19,0.020,0.020,0.020,0.000,0.000,0.000
1644347654981283072,2022-02-08-19:14:14,10.1.1.7,38,0.010,0.010,0.010,0.000,0.000,0.000
1644347655081986816,2022-02-08-19:14:15,10.1.1.7,37,0.000,0.000,0.000,0.000,0.000,0.000
1644347655181122048,2022-02-08-19:14:15,10.1.1.7,36,-0.010,-0.010,-0.010,0.000,0.000,0.000
1644347655282112000,2022-02-08-19:14:15,10.1.1.7,36,-0.020,-0.020,-0.020,0.000,0.000,0.000
1644347655381165056,2022-02-08-19:14:15,10.1.1.7,35,-0.030,-0.030,-0.030,0.000,0.000,0.000
1644347655481236992,2022-02-08-19:14:15,10.1.1.7,34,-0.040,-0.040,-0.040,0.000,0.000,0.000
1644347655581062912,2022-02-08-19:14:15,10.1.1.7,33,-0.050,-0.050,-0.050,0.000,0.000,0.000
1644347655681179904,2022-02-08-19:14:15,10.1.1.7,32,-0.060,-0.060,-0.060,0.000,0.000,0.000
1644347655783155968,2022-02-08-19:14:15,10.1.1.7,32,-0.070,-0.070,-0.070,0.000,0.000,0.000
1644347655881266944,2022-02-08-19:14:15,10.1.1.7,31,-0.080,-0.080,-0.080,0.000,0.000,0.000
1644347655980861952,2022-02-08-19:14:15,10.1.1.7,29,-0.090,-0.090,-0.090,0.000,0.000,0.000
1644347656081213952,2022-02-08-19:14:16,10.1.1.7,27,-0.100,-0.100,-0.100,0.000,0.000,0.000
1644347656180686848,2022-02-08-19:14:16,10.1.1.7,26,-0.090,-0.090,-0.090,0.000,0.000,0.000
1644347656281508096,2022-02-08-19:14:16,10.1.1.7,26,-0.080,-0.080,-0.080,0.000,0.000,0.000
1644347656381548032,2022-02-08-19:14:16,10.1.1.7,25,-0.070,-0.070,-0.070,0.000,0.000,0.000
1644347656481616128,2022-02-08-19:14:16,10.1.1.7,23,-0.060,-0.060,-0.060,0.000,0.000,0.000
1644347656581511936,2022-02-08-19:14:16,10.1.1.7,22,-0.050,-0.050,-0.050,0.000,0.000,0.000
1644347656681214976,2022-02-08-19:14:16,10.1.1.7,19,-0.040,-0.040,-0.040,0.000,0.000,0.000
1644347656801691136,2022-02-08-19:14:16,10.1.1.7,38,-0.030,-0.030,-0.030,0.000,0.000,0.000
1644347656901082112,2022-02-08-19:14:16,10.1.1.7,37,-0.020,-0.020,-0.020,0.000,0.000,0.000
1644347657001473792,2022-02-08-19:14:17,10.1.1.7,37,-0.010,-0.010,-0.010,0.000,0.000,0.000
1644347657101654016,2022-02-08-19:14:17,10.1.1.7,36,0.000,0.000,0.000,0.000,0.000,0.000
1644347657201734912,2022-02-08-19:14:17,10.1.1.7,36,0.010,0.010,0.010,0.000,0.000,0.000
1644347657301822976,2022-02-08-19:14:17,10.1.1.7,35,0.020,0.020,0.020,0.000,0.000,0.000
1644347657401449984,2022-02-08-19:14:17,10.1.1.7,34,0.030,0.030,0.030,0.000,0.000,0.000
1644347657501293056,2022-02-08-19:14:17,10.1.1.7,33,0.040,0.040,0.040,0.000,0.000,0.000
1644347657601327872,2022-02-08-19:14:17,10.1.1.7,32,0.050,0.050,0.050,0.000,0.000,0.000
1644347657701549056,2022-02-08-19:14:17,10.1.1.7,31,0.060,0.060,0.060,0.000,0.000,0.000
1644347657801139200,2022-02-08-19:14:17,10.1.1.7,30,0.070,0.070,0.070,0.000,0.000,0.000
1644347657901405952,2022-02-08-19:14:17,10.1.1.7,29,0.080,0.080,0.080,0.000,0.000,0.000
1644347658001307136,2022-02-08-19:14:18,10.1.1.7,28,0.090,0.090,0.090,0.000,0.000,0.000
1644347658101286912,2022-02-08-19:14:18,10.1.1.7,27,0.100,0.100,0.100,0.000,0.000,0.000
1644347658201494016,2022-02-08-19:14:18,10.1.1.7,26,0.090,0.090,0.090,0.000,0.000,0.000
1644347658301363968,2022-02-08-19:14:18,10.1.1.7,26,0.080,0.080,0.080,0.000,0.000,0.000
1644347658400968960,2022-02-08-19:14:18,10.1.1.7,25,0.070,0.070,0.070,0.000,0.000,0.000
1644347658501553920,2022-02-08-19:14:18,10.1.1.7,24,0.060,0.060,0.060,0.000,0.000,0.000
1644347658602217984,2022-02-08-19:14:18,10.1.1.7,22,0.050,0.050,0.050,0.000,0.000,0.000
1644347658701316096,2022-02-08-19:14:18,10.1.1.7,22,0.040,0.040,0.040,0.000,0.000,0.000
1644347658800935936,2022-02-08-19:14:18,10.1.1.7,21,0.030,0.030,0.030,0.000,0.000,0.000
1644347658901519104,2022-02-08-19:14:18,10.1.1.7,20,0.020,0.020,0.020,0.000,0.000,0.000
1644347659001688064,2022-02-08-19:14:19,10.1.1.7,19,0.010,0.010,0.010,0.000,0.000,0.000
1644347659102032896,2022-02-08-19:14:19,10.1.1.7,18,0.001,0.001,0.001,0.000,0.000,0.000
1644347659221175040,2022-02-08-19:14:19,10.1.1.7,37,-0.010,-0.010,-0.010,0.000,0.000,0.000
1644347659321036032,2022-02-08-19:14:19,10.1.1.7,37,-0.020,-0.020,-0.020,0.000,0.000,0.000
1644347659421273088,2022-02-08-19:14:19,10.1.1.7,36,-0.030,-0.030,-0.030,0.000,0.000,0.000
1644347659520899072,2022-02-08-19:14:19,10.1.1.7,36,-0.040,-0.040,-0.040,0.000,0.000,0.000
1644347659621092096,2022-02-08-19:14:19,10.1.1.7,35,-0.050,-0.050,-0.050,0.000,0.000,0.000
1644347659721116928,2022-02-08-19:14:19,10.1.1.7,35,-0.060,-0.060,-0.060,0.000,0.000,0.000
1644347659821059840,2022-02-08-19:14:19,10.1.1.7,34,-0.070,-0.070,-0.070,0.000,0.000,0.000
1644347659920850944,2022-02-08-19:14:19,10.1.1.7,33,-0.080,-0.080,-0.080,0.000,0.000,0.000
1644347660020934144,2022-02-08-19:14:20,10.1.1.7,33,-0.090,-0.090,-0.090,0.000,0.000,0.000
1644347660121400064,2022-02-08-19:14:20,10.1.1.7,33,-0.100,-0.100,-0.100,0.000,0.000,0.000
1644347660221180928,2022-02-08-19:14:20,10.1.1.7,31,-0.090,-0.090,-0.090,0.000,0.000,0.000
1644347660321630976,2022-02-08-19:14:20,10.1.1.7,31,-0.080,-0.080,-0.080,0.000,0.000,0.000
1644347660424560896,2022-02-08-19:14:20,10.1.1.7,27,-0.070,-0.070,-0.070,0.000,0.000,0.000
1644347660521372928,2022-02-08-19:14:20,10.1.1.7,25,-0.060,-0.060,-0.060,0.000,0.000,0.000
1644347660620908032,2022-02-08-19:14:20,10.1.1.7,25,-0.050,-0.050,-0.050,0.000,0.000,0.000
1644347660721889024,2022-02-08-19:14:20,10.1.1.7,24,-0.040,-0.040,-0.040,0.000,0.000,0.000
1644347660821513984,2022-02-08-19:14:20,10.1.1.7,23,-0.030,-0.030,-0.030,0.000,0.000,0.000
1644347660921449984,2022-02-08-19:14:20,10.1.1.7,23,-0.020,-0.020,-0.020,0.000,0.000,0.000
1644347661020891904,2022-02-08-19:14:21,10.1.1.7,22,-0.010,-0.010,-0.010,0.000,0.000,0.000
1644347661121568000,2022-02-08-19:14:21,10.1.1.7,21,0.000,0.000,0.000,0.000,0.000,0.000
1644347661221204992,2022-02-08-19:14:21,10.1.1.7,21,0.010,0.010,0.010,0.000,0.000,0.000
1644347661321628928,2022-02-08-19:14:21,10.1.1.7,20,0.020,0.020,0.020,0.000,0.000,0.000
1644347661440619008,2022-02-08-19:14:21,10.1.1.7,38,0.030,0.030,0.030,0.000,0.000,0.000
1644347661541400832,2022-02-08-19:14:21,10.1.1.7,37,0.040,0.040,0.040,0.000,0.000,0.000
1644347661640815872,2022-02-08-19:14:21,10.1.1.7,37,0.050,0.050,0.050,0.000,0.000,0.000
1644347661741485056,2022-02-08-19:14:21,10.1.1.7,36,0.060,0.060,0.060,0.000,0.000,0.000
1644347661841540096,2022-02-08-19:14:21,10.1.1.7,36,0.070,0.070,0.070,0.000,0.000,0.000
1644347661941072896,2022-02-08-19:14:21,10.1.1.7,35,0.080,0.080,0.080,0.000,0.000,0.000
1644347662041209856,2022-02-08-19:14:22,10.1.1.7,34,0.090,0.090,0.090,0.000,0.000,0.000
1644347662141549056,2022-02-08-19:14:22,10.1.1.7,34,0.100,0.100,0.100,0.000,0.000,0.000
1644347662240994048,2022-02-08-19:14:22,10.1.1.7,33,0.090,0.090,0.090,0.000,0.000,0.000
1644347662341340160,2022-02-08-19:14:22,10.1.1.7,32,0.080,0.080,0.080,0.000,0.000,0.000
1644347662441606144,2022-02-08-19:14:22,10.1.1.7,31,0.070,0.070,0.070,0.000,0.000,0.000
1644347662540924160,2022-02-08-19:14:22,10.1.1.7,30,0.060,0.060,0.060,0.000,0.000,0.000
1644347662641086976,2022-02-08-19:14:22,10.1.1.7,29,0.050,0.050,0.050,0.000,0.000,0.000
1644347662741539840,2022-02-08-19:14:22,10.1.1.7,28,0.040,0.040,0.040,0.000,0.000,0.000
1644347662842021888,2022-02-08-19:14:22,10.1.1.7,27,0.030,0.030,0.030,0.000,0.000,0.000
1644347662944241152,2022-02-08-19:14:22,10.1.1.7,26,0.020,0.020,0.020,0.000,0.000,0.000
1644347663041285888,2022-02-08-19:14:23,10.1.1.7,26,0.010,0.010,0.010,0.000,0.000,0.000
1644347663141150976,2022-02-08-19:14:23,10.1.1.7,25,0.000,0.000,0.000,0.000,0.000,0.000
1644347663241431040,2022-02-08-19:14:23,10.1.1.7,25,-0.010,-0.010,-0.010,0.000,0.000,0.000
1644347663341206016,2022-02-08-19:14:23,10.1.1.7,24,-0.020,-0.020,-0.020,0.000,0.000,0.000
1644347663441648896,2022-02-08-19:14:23,10.1.1.7,24,-0.030,-0.030,-0.030,0.000,0.000,0.000
1644347663541475072,2022-02-08-19:14:23,10.1.1.7,23,-0.040,-0.040,-0.040,0.000,0.000,0.000
1644347663641201920,2022-02-08-19:14:23,10.1.1.7,22,-0.050,-0.050,-0.050,0.000,0.000,0.000
1644347663741275136,2022-02-08-19:14:23,10.1.1.7,22,-0.060,-0.060,-0.060,0.000,0.000,0.000
1644347663842427136,2022-02-08-19:14:23,10.1.1.7,21,-0.070,-0.070,-0.070,0.000,0.000,0.000
1644347663950541056,2022-02-08-19:14:23,10.1.1.7,19,-0.079,-0.079,-0.079,0.000,0.000,0.000
1644347664062680832,2022-02-08-19:14:24,10.1.1.7,38,-0.090,-0.090,-0.090,0.000,0.000,0.000
1644347664162384128,2022-02-08-19:14:24,10.1.1.7,36,-0.100,-0.100,-0.100,0.000,0.000,0.000
1644347664262110976,2022-02-08-19:14:24,10.1.1.7,36,-0.090,-0.090,-0.090,0.000,0.000,0.000
1644347664361160960,2022-02-08-19:14:24,10.1.1.7,35,-0.080,-0.080,-0.080,0.000,0.000,0.000
1644347664461870080,2022-02-08-19:14:24,10.1.1.7,35,-0.070,-0.070,-0.070,0.000,0.000,0.000
1644347664560733184,2022-02-08-19:14:24,10.1.1.7,34,-0.060,-0.060,-0.060,0.000,0.000,0.000
1644347664661510912,2022-02-08-19:14:24,10.1.1.7,33,-0.050,-0.050,-0.050,0.000,0.000,0.000
1644347664761372160,2022-02-08-19:14:24,10.1.1.7,33,-0.040,-0.040,-0.040,0.000,0.000,0.000
1644347664861381120,2022-02-08-19:14:24,10.1.1.7,32,-0.030,-0.030,-0.030,0.000,0.000,0.000
1644347664961551872,2022-02-08-19:14:24,10.1.1.7,32,-0.020,-0.020,-0.020,0.000,0.000,0.000
1644347665062242048,2022-02-08-19:14:25,10.1.1.7,31,-0.010,-0.010,-0.010,0.000,0.000,0.000
1644347665160794880,2022-02-08-19:14:25,10.1.1.7,30,0.000,0.000,0.000,0.000,0.000,0.000
1644347665261713152,2022-02-08-19:14:25,10.1.1.7,30,0.010,0.010,0.010,0.000,0.000,0.000
1644347665360729856,2022-02-08-19:14:25,10.1.1.7,29,0.020,0.020,0.020,0.000,0.000,0.000
1644347665461699840,2022-02-08-19:14:25,10.1.1.7,29,0.030,0.030,0.030,0.000,0.000,0.000
1644347665560668928,2022-02-08-19:14:25,10.1.1.7,28,0.040,0.040,0.040,0.000,0.000,0.000
1644347665661117952,2022-02-08-19:14:25,10.1.1.7,27,0.050,0.050,0.050,0.000,0.000,0.000
1644347665760980992,2022-02-08-19:14:25,10.1.1.7,27,0.060,0.060,0.060,0.000,0.000,0.000
1644347665860527104,2022-02-08-19:14:25,10.1.1.7,26,0.070,0.070,0.070,0.000,0.000,0.000
1644347665962511104,2022-02-08-19:14:25,10.1.1.7,26,0.080,0.080,0.080,0.000,0.000,0.000
1644347666062081024,2022-02-08-19:14:26,10.1.1.7,24,0.090,0.090,0.090,0.000,0.000,0.000
1644347666160784896,2022-02-08-19:14:26,10.1.1.7,23,0.100,0.100,0.100,0.000,0.000,0.000
1644347666261619200,2022-02-08-19:14:26,10.1.1.7,23,0.090,0.090,0.090,0.000,0.000,0.000
1644347666360989184,2022-02-08-19:14:26,10.1.1.7,22,0.080,0.080,0.080,0.000,0.000,0.000
1644347666460887808,2022-02-08-19:14:26,10.1.1.7,22,0.070,0.070,0.070,0.000,0.000,0.000
1644347666561199872,2022-02-08-19:14:26,10.1.1.7,21,0.060,0.060,0.060,0.000,0.000,0.000
1644347666661488896,2022-02-08-19:14:26,10.1.1.7,21,0.050,0.050,0.050,0.000,0.000,0.000
1644347666760998912,2022-02-08-19:14:26,10.1.1.7,20,0.040,0.040,0.040,0.000,0.000,0.000
1644347666860925952,2022-02-08-19:14:26,10.1.1.7,19,0.030,0.030,0.030,0.000,0.000,0.000
1644347666961022976,2022-02-08-19:14:26,10.1.1.7,19,0.020,0.020,0.020,0.000,0.000,0.000
1644347667081222912,2022-02-08-19:14:27,10.1.1.7,39,0.010,0.010,0.010,0.000,0.000,0.000
1644347667181384960,2022-02-08-19:14:27,10.1.1.7,37,0.000,0.000,0.000,0.000,0.000,0.000
1644347667281497856,2022-02-08-19:14:27,10.1.1.7,37,-0.010,-0.010,-0.010,0.000,0.000,0.000
1644347667381150976,2022-02-08-19:14:27,10.1.1.7,36,-0.020,-0.020,-0.020,0.000,0.000,0.000
1644347667480596992,2022-02-08-19:14:27,10.1.1.7,35,-0.030,-0.030,-0.030,0.000,0.000,0.000
1644347667582039040,2022-02-08-19:14:27,10.1.1.7,34,-0.040,-0.040,-0.040,0.000,0.000,0.000
1644347667684467200,2022-02-08-19:14:27,10.1.1.7,34,-0.050,-0.050,-0.050,0.000,0.000,0.000
1644347667781650176,2022-02-08-19:14:27,10.1.1.7,33,-0.060,-0.060,-0.060,0.000,0.000,0.000
1644347667881676032,2022-02-08-19:14:27,10.1.1.7,32,-0.070,-0.070,-0.070,0.000,0.000,0.000
1644347667986031104,2022-02-08-19:14:27,10.1.1.7,35,-0.080,-0.080,-0.080,0.000,0.000,0.000
1644347668081257984,2022-02-08-19:14:28,10.1.1.7,30,-0.090,-0.090,-0.090,0.000,0.000,0.000
1644347668181581056,2022-02-08-19:14:28,10.1.1.7,30,-0.100,-0.100,-0.100,0.000,0.000,0.000
1644347668281083136,2022-02-08-19:14:28,10.1.1.7,29,-0.090,-0.090,-0.090,0.000,0.000,0.000
1644347668382120960,2022-02-08-19:14:28,10.1.1.7,28,-0.080,-0.080,-0.080,0.000,0.000,0.000
1644347668480988928,2022-02-08-19:14:28,10.1.1.7,27,-0.070,-0.070,-0.070,0.000,0.000,0.000
1644347668582256128,2022-02-08-19:14:28,10.1.1.7,27,-0.060,-0.060,-0.060,0.000,0.000,0.000
1644347668681260032,2022-02-08-19:14:28,10.1.1.7,26,-0.050,-0.050,-0.050,0.000,0.000,0.000
1644347668782041088,2022-02-08-19:14:28,10.1.1.7,25,-0.040,-0.040,-0.040,0.000,0.000,0.000
1644347668881222912,2022-02-08-19:14:28,10.1.1.7,25,-0.030,-0.030,-0.030,0.000,0.000,0.000
1644347668981484800,2022-02-08-19:14:28,10.1.1.7,24,-0.020,-0.020,-0.020,0.000,0.000,0.000
1644347669081094144,2022-02-08-19:14:29,10.1.1.7,24,-0.010,-0.010,-0.010,0.000,0.000,0.000
1644347669181252096,2022-02-08-19:14:29,10.1.1.7,23,0.000,0.000,0.000,0.000,0.000,0.000
1644347669281254912,2022-02-08-19:14:29,10.1.1.7,23,0.010,0.010,0.010,0.000,0.000,0.000
1644347669381402880,2022-02-08-19:14:29,10.1.1.7,22,0.020,0.020,0.020,0.000,0.000,0.000
1644347669481010944,2022-02-08-19:14:29,10.1.1.7,22,0.030,0.030,0.030,0.000,0.000,0.000
1644347669581515008,2022-02-08-19:14:29,10.1.1.7,21,0.040,0.040,0.040,0.000,0.000,0.000
1644347669681175040,2022-02-08-19:14:29,10.1.1.7,21,0.050,0.050,0.050,0.000,0.000,0.000
1644347669781861120,2022-02-08-19:14:29,10.1.1.7,19,0.060,0.060,0.060,0.000,0.000,0.000
1644347669901336832,2022-02-08-19:14:29,10.1.1.7,39,0.070,0.070,0.070,0.000,0.000,0.000
1644347670000916992,2022-02-08-19:14:30,10.1.1.7,38,0.080,0.080,0.080,0.000,0.000,0.000
1644347670101496832,2022-02-08-19:14:30,10.1.1.7,37,0.090,0.090,0.090,0.000,0.000,0.000
1644347670201416960,2022-02-08-19:14:30,10.1.1.7,36,0.100,0.100,0.100,0.000,0.000,0.000
1644347670301120000,2022-02-08-19:14:30,10.1.1.7,36,0.090,0.090,0.090,0.000,0.000,0.000
1644347670401139968,2022-02-08-19:14:30,10.1.1.7,35,0.080,0.080,0.080,0.000,0.000,0.000
1644347670501286144,2022-02-08-19:14:30,10.1.1.7,35,0.070,0.070,0.070,0.000,0.000,0.000
1644347670601294080,2022-02-08-19:14:30,10.1.1.7,34,0.060,0.060,0.060,0.000,0.000,0.000
1644347670701356032,2022-02-08-19:14:30,10.1.1.7,33,0.050,0.050,0.050,0.000,0.000,0.000
1644347670801911040,2022-02-08-19:14:30,10.1.1.7,31,0.040,0.040,0.040,0.000,0.000,0.000
1644347670901017856,2022-02-08-19:14:30,10.1.1.7,31,0.030,0.030,0.030,0.000,0.000,0.000
1644347671001105152,2022-02-08-19:14:31,10.1.1.7,30,0.020,0.020,0.020,0.000,0.000,0.000
1644347671101300992,2022-02-08-19:14:31,10.1.1.7,30,0.010,0.010,0.010,0.000,0.000,0.000
1644347671201500928,2022-02-08-19:14:31,10.1.1.7,28,0.000,0.000,0.000,0.000,0.000,0.000
1644347671301078016,2022-02-08-19:14:31,10.1.1.7,26,-0.010,-0.010,-0.010,0.000,0.000,0.000
1644347671401227008,2022-02-08-19:14:31,10.1.1.7,25,-0.020,-0.020,-0.020,0.000,0.000,0.000
1644347671501966080,2022-02-08-19:14:31,10.1.1.7,25,-0.030,-0.030,-0.030,0.000,0.000,0.000
1644347671601191936,2022-02-08-19:14:31,10.1.1.7,24,-0.040,-0.040,-0.040,0.000,0.000,0.000
1644347671701981184,2022-02-08-19:14:31,10.1.1.7,24,-0.050,-0.050,-0.050,0.000,0.000,0.000
1644347671806135808,2022-02-08-19:14:31,10.1.1.7,23,-0.060,-0.060,-0.060,0.000,0.000,0.000
1644347671901967104,2022-02-08-19:14:31,10.1.1.7,22,-0.070,-0.070,-0.070,0.000,0.000,0.000
1644347672003038976,2022-02-08-19:14:32,10.1.1.7,20,-0.080,-0.080,-0.080,0.000,0.000,0.000
1644347672102947840,2022-02-08-19:14:32,10.1.1.7,19,-0.090,-0.090,-0.090,0.000,0.000,0.000
1644347672221683968,2022-02-08-19:14:32,10.1.1.7,38,-0.100,-0.100,-0.100,0.000,0.000,0.000
1644347672321208832,2022-02-08-19:14:32,10.1.1.7,37,-0.090,-0.090,-0.090,0.000,0.000,0.000
1644347672421769984,2022-02-08-19:14:32,10.1.1.7,36,-0.080,-0.080,-0.080,0.000,0.000,0.000
1644347672521425920,2022-02-08-19:14:32,10.1.1.7,36,-0.070,-0.070,-0.070,0.000,0.000,0.000
1644347672621143040,2022-02-08-19:14:32,10.1.1.7,34,-0.060,-0.060,-0.060,0.000,0.000,0.000
1644347672750147072,2022-02-08-19:14:32,10.1.1.7,48,-0.050,-0.050,-0.050,0.000,0.000,0.000
1644347672821506048,2022-02-08-19:14:32,10.1.1.7,25,-0.040,-0.040,-0.040,0.000,0.000,0.000
1644347672929563904,2022-02-08-19:14:32,10.1.1.7,31,-0.030,-0.030,-0.030,0.000,0.000,0.000
1644347673021388032,2022-02-08-19:14:33,10.1.1.7,24,-0.020,-0.020,-0.020,0.000,0.000,0.000
1644347673121225216,2022-02-08-19:14:33,10.1.1.7,23,-0.010,-0.010,-0.010,0.000,0.000,0.000
1644347673221754112,2022-02-08-19:14:33,10.1.1.7,23,0.000,0.000,0.000,0.000,0.000,0.000
1644347673322451968,2022-02-08-19:14:33,10.1.1.7,22,0.010,0.010,0.010,0.000,0.000,0.000
1644347673421412096,2022-02-08-19:14:33,10.1.1.7,21,0.020,0.020,0.020,0.000,0.000,0.000
1644347673522013952,2022-02-08-19:14:33,10.1.1.7,22,0.030,0.030,0.030,0.000,0.000,0.000
1644347673621691904,2022-02-08-19:14:33,10.1.1.7,21,0.040,0.040,0.040,0.000,0.000,0.000
1644347673722064896,2022-02-08-19:14:33,10.1.1.7,20,0.050,0.050,0.050,0.000,0.000,0.000
1644347673821755904,2022-02-08-19:14:33,10.1.1.7,19,0.059,0.059,0.059,0.000,0.000,0.000
1644347673941904896,2022-02-08-19:14:33,10.1.1.7,38,0.070,0.070,0.070,0.000,0.000,0.000
1644347674042110976,2022-02-08-19:14:34,10.1.1.7,37,0.080,0.080,0.080,0.000,0.000,0.000
1644347674141299968,2022-02-08-19:14:34,10.1.1.7,36,0.090,0.090,0.090,0.000,0.000,0.000
1644347674241835008,2022-02-08-19:14:34,10.1.1.7,34,0.100,0.100,0.100,0.000,0.000,0.000
1644347674341543936,2022-02-08-19:14:34,10.1.1.7,34,0.090,0.090,0.090,0.000,0.000,0.000
1644347674441435136,2022-02-08-19:14:34,10.1.1.7,32,0.080,0.080,0.080,0.000,0.000,0.000
1644347674541523968,2022-02-08-19:14:34,10.1.1.7,31,0.070,0.070,0.070,0.000,0.000,0.000
1644347674641190912,2022-02-08-19:14:34,10.1.1.7,28,0.060,0.060,0.060,0.000,0.000,0.000
1644347674741112832,2022-02-08-19:14:34,10.1.1.7,27,0.050,0.050,0.050,0.000,0.000,0.000
1644347674841569024,2022-02-08-19:14:34,10.1.1.7,27,0.040,0.040,0.040,0.000,0.000,0.000
1644347674941637120,2022-02-08-19:14:34,10.1.1.7,26,0.030,0.030,0.030,0.000,0.000,0.000
1644347675041594880,2022-02-08-19:14:35,10.1.1.7,26,0.020,0.020,0.020,0.000,0.000,0.000
1644347675142566912,2022-02-08-19:14:35,10.1.1.7,25,0.010,0.010,0.010,0.000,0.000,0.000
1644347675242211072,2022-02-08-19:14:35,10.1.1.7,23,0.000,0.000,0.000,0.000,0.000,0.000
1644347675341522944,2022-02-08-19:14:35,10.1.1.7,21,-0.010,-0.010,-0.010,0.000,0.000,0.000
1644347675441849088,2022-02-08-19:14:35,10.1.1.7,20,-0.020,-0.020,-0.020,0.000,0.000,0.000
1644347675541359872,2022-02-08-19:14:35,10.1.1.7,19,-0.030,-0.030,-0.030,0.000,0.000,0.000
1644347675663867904,2022-02-08-19:14:35,10.1.1.7,37,-0.040,-0.040,-0.040,0.000,0.000,0.000
1644347675760983040,2022-02-08-19:14:35,10.1.1.7,34,-0.050,-0.050,-0.050,0.000,0.000,0.000
1644347675861197824,2022-02-08-19:14:35,10.1.1.7,33,-0.060,-0.060,-0.060,0.000,0.000,0.000
1644347675960856832,2022-02-08-19:14:35,10.1.1.7,32,-0.070,-0.070,-0.070,0.000,0.000,0.000
1644347676061624064,2022-02-08-19:14:36,10.1.1.7,31,-0.080,-0.080,-0.080,0.000,0.000,0.000
1644347676161317120,2022-02-08-19:14:36,10.1.1.7,31,-0.090,-0.090,-0.090,0.000,0.000,0.000
1644347676261075968,2022-02-08-19:14:36,10.1.1.7,29,-0.100,-0.100,-0.100,0.000,0.000,0.000
1644347676361430784,2022-02-08-19:14:36,10.1.1.7,28,-0.090,-0.090,-0.090,0.000,0.000,0.000
1644347676461831936,2022-02-08-19:14:36,10.1.1.7,27,-0.080,-0.080,-0.080,0.000,0.000,0.000
1644347676560941824,2022-02-08-19:14:36,10.1.1.7,27,-0.070,-0.070,-0.070,0.000,0.000,0.000
1644347676661351936,2022-02-08-19:14:36,10.1.1.7,26,-0.060,-0.060,-0.060,0.000,0.000,0.000
1644347676760715008,2022-02-08-19:14:36,10.1.1.7,26,-0.050,-0.050,-0.050,0.000,0.000,0.000
1644347676861718784,2022-02-08-19:14:36,10.1.1.7,24,-0.040,-0.040,-0.040,0.000,0.000,0.000
1644347676968830976,2022-02-08-19:14:36,10.1.1.7,23,-0.030,-0.030,-0.030,0.000,0.000,0.000
1644347677061167104,2022-02-08-19:14:37,10.1.1.7,21,-0.020,-0.020,-0.020,0.000,0.000,0.000
1644347677161172992,2022-02-08-19:14:37,10.1.1.7,20,-0.010,-0.010,-0.010,0.000,0.000,0.000
1644347677261337088,2022-02-08-19:14:37,10.1.1.7,19,-0.000,-0.000,-0.000,0.000,0.000,0.000
1644347677361063936,2022-02-08-19:14:37,10.1.1.7,18,0.009,0.009,0.009,0.000,0.000,0.000
1644347677480696064,2022-02-08-19:14:37,10.1.1.7,38,0.020,0.020,0.020,0.000,0.000,0.000
1644347677580798976,2022-02-08-19:14:37,10.1.1.7,37,0.030,0.030,0.030,0.000,0.000,0.000
1644347677681221888,2022-02-08-19:14:37,10.1.1.7,37,0.040,0.040,0.040,0.000,0.000,0.000
1644347677780994048,2022-02-08-19:14:37,10.1.1.7,36,0.050,0.050,0.050,0.000,0.000,0.000
1644347677880786944,2022-02-08-19:14:37,10.1.1.7,35,0.060,0.060,0.060,0.000,0.000,0.000
1644347677981138944,2022-02-08-19:14:37,10.1.1.7,34,0.070,0.070,0.070,0.000,0.000,0.000
1644347678081032960,2022-02-08-19:14:38,10.1.1.7,34,0.080,0.080,0.080,0.000,0.000,0.000
1644347678181337088,2022-02-08-19:14:38,10.1.1.7,34,0.090,0.090,0.090,0.000,0.000,0.000
1644347678281554944,2022-02-08-19:14:38,10.1.1.7,33,0.100,0.100,0.100,0.000,0.000,0.000
1644347678381096960,2022-02-08-19:14:38,10.1.1.7,33,0.090,0.090,0.090,0.000,0.000,0.000
1644347678480692992,2022-02-08-19:14:38,10.1.1.7,31,0.080,0.080,0.080,0.000,0.000,0.000
1644347678580740096,2022-02-08-19:14:38,10.1.1.7,31,0.070,0.070,0.070,0.000,0.000,0.000
1644347678681278976,2022-02-08-19:14:38,10.1.1.7,29,0.060,0.060,0.060,0.000,0.000,0.000
1644347678780869888,2022-02-08-19:14:38,10.1.1.7,28,0.050,0.050,0.050,0.000,0.000,0.000
1644347678882725888,2022-02-08-19:14:38,10.1.1.7,26,0.040,0.040,0.040,0.000,0.000,0.000
1644347678980804864,2022-02-08-19:14:38,10.1.1.7,24,0.030,0.030,0.030,0.000,0.000,0.000
1644347679081278976,2022-02-08-19:14:39,10.1.1.7,23,0.020,0.020,0.020,0.000,0.000,0.000
1644347679181442048,2022-02-08-19:14:39,10.1.1.7,21,0.010,0.010,0.010,0.000,0.000,0.000
1644347679281250048,2022-02-08-19:14:39,10.1.1.7,20,0.000,0.000,0.000,0.000,0.000,0.000
1644347679381444096,2022-02-08-19:14:39,10.1.1.7,18,-0.009,-0.009,-0.009,0.000,0.000,0.000
1644347679501432064,2022-02-08-19:14:39,10.1.1.7,38,-0.020,-0.020,-0.020,0.000,0.000,0.000
1644347679605976064,2022-02-08-19:14:39,10.1.1.7,33,-0.030,-0.030,-0.030,0.000,0.000,0.000
1644347679702071808,2022-02-08-19:14:39,10.1.1.7,33,-0.040,-0.040,-0.040,0.000,0.000,0.000
1644347679801861120,2022-02-08-19:14:39,10.1.1.7,31,-0.050,-0.050,-0.050,0.000,0.000,0.000
1644347679901155072,2022-02-08-19:14:39,10.1.1.7,31,-0.060,-0.060,-0.060,0.000,0.000,0.000
1644347680001445888,2022-02-08-19:14:40,10.1.1.7,30,-0.070,-0.070,-0.070,0.000,0.000,0.000
1644347680101208832,2022-02-08-19:14:40,10.1.1.7,28,-0.080,-0.080,-0.080,0.000,0.000,0.000
1644347680201054208,2022-02-08-19:14:40,10.1.1.7,28,-0.090,-0.090,-0.090,0.000,0.000,0.000
1644347680301790976,2022-02-08-19:14:40,10.1.1.7,27,-0.100,-0.100,-0.100,0.000,0.000,0.000
1644347680401860096,2022-02-08-19:14:40,10.1.1.7,27,-0.090,-0.090,-0.090,0.000,0.000,0.000
1644347680504348928,2022-02-08-19:14:40,10.1.1.7,26,-0.080,-0.080,-0.080,0.000,0.000,0.000
1644347680601025024,2022-02-08-19:14:40,10.1.1.7,24,-0.070,-0.070,-0.070,0.000,0.000,0.000
1644347680700845056,2022-02-08-19:14:40,10.1.1.7,24,-0.060,-0.060,-0.060,0.000,0.000,0.000
1644347680801287936,2022-02-08-19:14:40,10.1.1.7,23,-0.050,-0.050,-0.050,0.000,0.000,0.000
1644347680901231104,2022-02-08-19:14:40,10.1.1.7,23,-0.040,-0.040,-0.040,0.000,0.000,0.000
1644347681001648896,2022-02-08-19:14:41,10.1.1.7,22,-0.030,-0.030,-0.030,0.000,0.000,0.000
1644347681101256960,2022-02-08-19:14:41,10.1.1.7,22,-0.020,-0.020,-0.020,0.000,0.000,0.000
1644347681219868928,2022-02-08-19:14:41,10.1.1.7,21,-0.010,-0.010,-0.010,0.000,0.000,0.000
1644347681401571072,2022-02-08-19:14:41,10.1.1.7,20,0.010,0.010,0.010,0.000,0.000,0.000
1644347681521306112,2022-02-08-19:14:41,10.1.1.7,38,0.020,0.020,0.020,0.000,0.000,0.000
1644347681624376064,2022-02-08-19:14:41,10.1.1.7,38,0.030,0.030,0.030,0.000,0.000,0.000
1644347681729764096,2022-02-08-19:14:41,10.1.1.7,37,0.040,0.040,0.040,0.000,0.000,0.000
1644347681820921856,2022-02-08-19:14:41,10.1.1.7,36,0.050,0.050,0.050,0.000,0.000,0.000
1644347681921406976,2022-02-08-19:14:41,10.1.1.7,35,0.060,0.060,0.060,0.000,0.000,0.000
1644347682021053184,2022-02-08-19:14:42,10.1.1.7,34,0.070,0.070,0.070,0.000,0.000,0.000
1644347682120774144,2022-02-08-19:14:42,10.1.1.7,31,0.080,0.080,0.080,0.000,0.000,0.000
1644347682221352192,2022-02-08-19:14:42,10.1.1.7,30,0.090,0.090,0.090,0.000,0.000,0.000
1644347682321434880,2022-02-08-19:14:42,10.1.1.7,30,0.100,0.100,0.100,0.000,0.000,0.000
1644347682422366976,2022-02-08-19:14:42,10.1.1.7,29,0.090,0.090,0.090,0.000,0.000,0.000
1644347682521893120,2022-02-08-19:14:42,10.1.1.7,23,0.080,0.080,0.080,0.000,0.000,0.000
1644347682620910848,2022-02-08-19:14:42,10.1.1.7,23,0.070,0.070,0.070,0.000,0.000,0.000
1644347682721128960,2022-02-08-19:14:42,10.1.1.7,22,0.060,0.060,0.060,0.000,0.000,0.000
1644347682821563904,2022-02-08-19:14:42,10.1.1.7,22,0.050,0.050,0.050,0.000,0.000,0.000
1644347682924706048,2022-02-08-19:14:42,10.1.1.7,19,0.041,0.041,0.041,0.000,0.000,0.000
1644347683041545984,2022-02-08-19:14:43,10.1.1.7,38,0.030,0.030,0.030,0.000,0.000,0.000
1644347683141829888,2022-02-08-19:14:43,10.1.1.7,37,0.020,0.020,0.020,0.000,0.000,0.000
1644347683241029888,2022-02-08-19:14:43,10.1.1.7,37,0.010,0.010,0.010,0.000,0.000,0.000
1644347683341561088,2022-02-08-19:14:43,10.1.1.7,37,0.000,0.000,0.000,0.000,0.000,0.000
1644347683441387008,2022-02-08-19:14:43,10.1.1.7,36,-0.010,-0.010,-0.010,0.000,0.000,0.000
1644347683541244928,2022-02-08-19:14:43,10.1.1.7,35,-0.020,-0.020,-0.020,0.000,0.000,0.000
1644347683640578048,2022-02-08-19:14:43,10.1.1.7,35,-0.030,-0.030,-0.030,0.000,0.000,0.000
1644347683741702144,2022-02-08-19:14:43,10.1.1.7,34,-0.040,-0.040,-0.040,0.000,0.000,0.000
1644347683802505984,2022-02-08-19:14:43,10.1.1.7,-7,-0.040,-0.040,-0.040,0.000,0.000,0.000
1644347683941556992,2022-02-08-19:14:43,10.1.1.7,33,-0.060,-0.060,-0.060,0.000,0.000,0.000
1644347684041552896,2022-02-08-19:14:44,10.1.1.7,33,-0.070,-0.070,-0.070,0.000,0.000,0.000
1644347684143704064,2022-02-08-19:14:44,10.1.1.7,32,-0.080,-0.080,-0.080,0.000,0.000,0.000
1644347684241694976,2022-02-08-19:14:44,10.1.1.7,32,-0.090,-0.090,-0.090,0.000,0.000,0.000
1644347684340684032,2022-02-08-19:14:44,10.1.1.7,31,-0.100,-0.100,-0.100,0.000,0.000,0.000
1644347684440978944,2022-02-08-19:14:44,10.1.1.7,30,-0.090,-0.090,-0.090,0.000,0.000,0.000
1644347684541168896,2022-02-08-19:14:44,10.1.1.7,30,-0.080,-0.080,-0.080,0.000,0.000,0.000
1644347684641127168,2022-02-08-19:14:44,10.1.1.7,29,-0.070,-0.070,-0.070,0.000,0.000,0.000
1644347684740847104,2022-02-08-19:14:44,10.1.1.7,28,-0.060,-0.060,-0.060,0.000,0.000,0.000
1644347684843933184,2022-02-08-19:14:44,10.1.1.7,28,-0.050,-0.050,-0.050,0.000,0.000,0.000
1644347684945487872,2022-02-08-19:14:44,10.1.1.7,30,-0.040,-0.040,-0.040,0.000,0.000,0.000
1644347685041006080,2022-02-08-19:14:45,10.1.1.7,26,-0.030,-0.030,-0.030,0.000,0.000,0.000
1644347685141221120,2022-02-08-19:14:45,10.1.1.7,25,-0.020,-0.020,-0.020,0.000,0.000,0.000
1644347685241086976,2022-02-08-19:14:45,10.1.1.7,24,-0.010,-0.010,-0.010,0.000,0.000,0.000
1644347685341223936,2022-02-08-19:14:45,10.1.1.7,23,0.000,0.000,0.000,0.000,0.000,0.000
1644347685441771008,2022-02-08-19:14:45,10.1.1.7,23,0.010,0.010,0.010,0.000,0.000,0.000
1644347685540955904,2022-02-08-19:14:45,10.1.1.7,22,0.020,0.020,0.020,0.000,0.000,0.000
1644347685641028864,2022-02-08-19:14:45,10.1.1.7,22,0.030,0.030,0.030,0.000,0.000,0.000
1644347685741797888,2022-02-08-19:14:45,10.1.1.7,21,0.040,0.040,0.040,0.000,0.000,0.000
1644347685842427904,2022-02-08-19:14:45,10.1.1.7,21,0.050,0.050,0.050,0.000,0.000,0.000
1644347685941060096,2022-02-08-19:14:45,10.1.1.7,20,0.060,0.060,0.060,0.000,0.000,0.000
1644347686040641024,2022-02-08-19:14:46,10.1.1.7,19,0.069,0.069,0.069,0.000,0.000,0.000
1644347686161339136,2022-02-08-19:14:46,10.1.1.7,36,0.080,0.080,0.080,0.000,0.000,0.000
1644347686261073152,2022-02-08-19:14:46,10.1.1.7,36,0.090,0.090,0.090,0.000,0.000,0.000
1644347686360732928,2022-02-08-19:14:46,10.1.1.7,34,0.100,0.100,0.100,0.000,0.000,0.000
1644347686460827136,2022-02-08-19:14:46,10.1.1.7,33,0.090,0.090,0.090,0.000,0.000,0.000
1644347686561435904,2022-02-08-19:14:46,10.1.1.7,33,0.080,0.080,0.080,0.000,0.000,0.000
1644347686660743936,2022-02-08-19:14:46,10.1.1.7,32,0.070,0.070,0.070,0.000,0.000,0.000
1644347686760668928,2022-02-08-19:14:46,10.1.1.7,32,0.060,0.060,0.060,0.000,0.000,0.000
1644347686861627136,2022-02-08-19:14:46,10.1.1.7,26,0.050,0.050,0.050,0.000,0.000,0.000
1644347686961416960,2022-02-08-19:14:46,10.1.1.7,25,0.040,0.040,0.040,0.000,0.000,0.000
1644347687184488960,2022-02-08-19:14:47,10.1.1.7,35,0.020,0.020,0.020,0.000,0.000,0.000
1644347687281362176,2022-02-08-19:14:47,10.1.1.7,31,0.010,0.010,0.010,0.000,0.000,0.000
1644347687386082816,2022-02-08-19:14:47,10.1.1.7,29,0.000,0.000,0.000,0.000,0.000,0.000
1644347687481585920,2022-02-08-19:14:47,10.1.1.7,26,-0.010,-0.010,-0.010,0.000,0.000,0.000
1644347687581420032,2022-02-08-19:14:47,10.1.1.7,24,-0.020,-0.020,-0.020,0.000,0.000,0.000
1644347687681094912,2022-02-08-19:14:47,10.1.1.7,24,-0.030,-0.030,-0.030,0.000,0.000,0.000
1644347687781385984,2022-02-08-19:14:47,10.1.1.7,22,-0.040,-0.040,-0.040,0.000,0.000,0.000
1644347687881138944,2022-02-08-19:14:47,10.1.1.7,22,-0.050,-0.050,-0.050,0.000,0.000,0.000
1644347687981076992,2022-02-08-19:14:47,10.1.1.7,21,-0.060,-0.060,-0.060,0.000,0.000,0.000
1644347688082151936,2022-02-08-19:14:48,10.1.1.7,20,-0.070,-0.070,-0.070,0.000,0.000,0.000
1644347688181391872,2022-02-08-19:14:48,10.1.1.7,19,-0.080,-0.080,-0.080,0.000,0.000,0.000
1644347688300937984,2022-02-08-19:14:48,10.1.1.7,37,-0.090,-0.090,-0.090,0.000,0.000,0.000
1644347688401360128,2022-02-08-19:14:48,10.1.1.7,33,-0.100,-0.100,-0.100,0.000,0.000,0.000
1644347688516186112,2022-02-08-19:14:48,10.1.1.7,33,-0.090,-0.090,-0.090,0.000,0.000,0.000
1644347688601102080,2022-02-08-19:14:48,10.1.1.7,32,-0.080,-0.080,-0.080,0.000,0.000,0.000
1644347688703789824,2022-02-08-19:14:48,10.1.1.7,31,-0.070,-0.070,-0.070,0.000,0.000,0.000
1644347688801271808,2022-02-08-19:14:48,10.1.1.7,30,-0.060,-0.060,-0.060,0.000,0.000,0.000
1644347688901478144,2022-02-08-19:14:48,10.1.1.7,29,-0.050,-0.050,-0.050,0.000,0.000,0.000
1644347689001296896,2022-02-08-19:14:49,10.1.1.7,28,-0.040,-0.040,-0.040,0.000,0.000,0.000
1644347689100919040,2022-02-08-19:14:49,10.1.1.7,27,-0.030,-0.030,-0.030,0.000,0.000,0.000
1644347689201036032,2022-02-08-19:14:49,10.1.1.7,27,-0.020,-0.020,-0.020,0.000,0.000,0.000
1644347689301172992,2022-02-08-19:14:49,10.1.1.7,26,-0.010,-0.010,-0.010,0.000,0.000,0.000
1644347689401508096,2022-02-08-19:14:49,10.1.1.7,25,0.000,0.000,0.000,0.000,0.000,0.000
1644347689501506048,2022-02-08-19:14:49,10.1.1.7,23,0.010,0.010,0.010,0.000,0.000,0.000
1644347689601103104,2022-02-08-19:14:49,10.1.1.7,21,0.020,0.020,0.020,0.000,0.000,0.000
1644347689702863104,2022-02-08-19:14:49,10.1.1.7,20,0.030,0.030,0.030,0.000,0.000,0.000
1644347689801302784,2022-02-08-19:14:49,10.1.1.7,19,0.039,0.039,0.039,0.000,0.000,0.000
1644347689921253888,2022-02-08-19:14:49,10.1.1.7,38,0.050,0.050,0.050,0.000,0.000,0.000
1644347690021186048,2022-02-08-19:14:50,10.1.1.7,37,0.060,0.060,0.060,0.000,0.000,0.000
1644347690120563968,2022-02-08-19:14:50,10.1.1.7,32,0.070,0.070,0.070,0.000,0.000,0.000
1644347690222046976,2022-02-08-19:14:50,10.1.1.7,32,0.080,0.080,0.080,0.000,0.000,0.000
1644347690322118144,2022-02-08-19:14:50,10.1.1.7,30,0.090,0.090,0.090,0.000,0.000,0.000
1644347690421489920,2022-02-08-19:14:50,10.1.1.7,30,0.100,0.100,0.100,0.000,0.000,0.000
1644347690520775936,2022-02-08-19:14:50,10.1.1.7,29,0.090,0.090,0.090,0.000,0.000,0.000
1644347690621475072,2022-02-08-19:14:50,10.1.1.7,28,0.080,0.080,0.080,0.000,0.000,0.000
1644347690724805120,2022-02-08-19:14:50,10.1.1.7,21,0.070,0.070,0.070,0.000,0.000,0.000
1644347690820791040,2022-02-08-19:14:50,10.1.1.7,20,0.060,0.060,0.060,0.000,0.000,0.000
1644347690921209088,2022-02-08-19:14:50,10.1.1.7,20,0.050,0.050,0.050,0.000,0.000,0.000
1644347691024311040,2022-02-08-19:14:51,10.1.1.7,22,0.040,0.040,0.040,0.000,0.000,0.000
1644347691121228032,2022-02-08-19:14:51,10.1.1.7,19,0.031,0.031,0.031,0.000,0.000,0.000
1644347691242171904,2022-02-08-19:14:51,10.1.1.7,36,0.020,0.020,0.020,0.000,0.000,0.000
1644347691341356032,2022-02-08-19:14:51,10.1.1.7,34,0.010,0.010,0.010,0.000,0.000,0.000
1644347691441634048,2022-02-08-19:14:51,10.1.1.7,33,0.000,0.000,0.000,0.000,0.000,0.000
1644347691541660160,2022-02-08-19:14:51,10.1.1.7,32,-0.010,-0.010,-0.010,0.000,0.000,0.000
1644347691642107136,2022-02-08-19:14:51,10.1.1.7,32,-0.020,-0.020,-0.020,0.000,0.000,0.000
1644347691741501952,2022-02-08-19:14:51,10.1.1.7,31,-0.030,-0.030,-0.030,0.000,0.000,0.000
1644347691842011904,2022-02-08-19:14:51,10.1.1.7,30,-0.040,-0.040,-0.040,0.000,0.000,0.000
1644347691944258816,2022-02-08-19:14:51,10.1.1.7,29,-0.050,-0.050,-0.050,0.000,0.000,0.000
1644347692040699904,2022-02-08-19:14:52,10.1.1.7,29,-0.060,-0.060,-0.060,0.000,0.000,0.000
1644347692140979968,2022-02-08-19:14:52,10.1.1.7,28,-0.070,-0.070,-0.070,0.000,0.000,0.000
1644347692241295104,2022-02-08-19:14:52,10.1.1.7,27,-0.080,-0.080,-0.080,0.000,0.000,0.000
1644347692341847040,2022-02-08-19:14:52,10.1.1.7,27,-0.090,-0.090,-0.090,0.000,0.000,0.000
1644347692441006848,2022-02-08-19:14:52,10.1.1.7,26,-0.100,-0.100,-0.100,0.000,0.000,0.000
1644347692540880896,2022-02-08-19:14:52,10.1.1.7,26,-0.090,-0.090,-0.090,0.000,0.000,0.000
1644347692641305088,2022-02-08-19:14:52,10.1.1.7,25,-0.080,-0.080,-0.080,0.000,0.000,0.000
1644347692741305088,2022-02-08-19:14:52,10.1.1.7,25,-0.070,-0.070,-0.070,0.000,0.000,0.000
1644347692841198080,2022-02-08-19:14:52,10.1.1.7,24,-0.060,-0.060,-0.060,0.000,0.000,0.000
1644347692941287168,2022-02-08-19:14:52,10.1.1.7,24,-0.050,-0.050,-0.050,0.000,0.000,0.000
1644347693041415936,2022-02-08-19:14:53,10.1.1.7,23,-0.040,-0.040,-0.040,0.000,0.000,0.000
1644347693141357056,2022-02-08-19:14:53,10.1.1.7,22,-0.030,-0.030,-0.030,0.000,0.000,0.000
1644347693241487872,2022-02-08-19:14:53,10.1.1.7,22,-0.020,-0.020,-0.020,0.000,0.000,0.000
1644347693341367040,2022-02-08-19:14:53,10.1.1.7,22,-0.010,-0.010,-0.010,0.000,0.000,0.000
1644347693441457152,2022-02-08-19:14:53,10.1.1.7,21,0.000,0.000,0.000,0.000,0.000,0.000
1644347693541070080,2022-02-08-19:14:53,10.1.1.7,20,0.010,0.010,0.010,0.000,0.000,0.000
1644347693640934912,2022-02-08-19:14:53,10.1.1.7,20,0.020,0.020,0.020,0.000,0.000,0.000
1644347693741319936,2022-02-08-19:14:53,10.1.1.7,19,0.030,0.030,0.030,0.000,0.000,0.000
1644347693841348864,2022-02-08-19:14:53,10.1.1.7,19,0.039,0.039,0.039,0.000,0.000,0.000
1644347693960953856,2022-02-08-19:14:53,10.1.1.7,38,0.050,0.050,0.050,0.000,0.000,0.000
1644347694061392128,2022-02-08-19:14:54,10.1.1.7,37,0.060,0.060,0.060,0.000,0.000,0.000
1644347694161283072,2022-02-08-19:14:54,10.1.1.7,37,0.070,0.070,0.070,0.000,0.000,0.000
1644347694261353984,2022-02-08-19:14:54,10.1.1.7,36,0.080,0.080,0.080,0.000,0.000,0.000
1644347694360945920,2022-02-08-19:14:54,10.1.1.7,35,0.090,0.090,0.090,0.000,0.000,0.000
1644347694460905984,2022-02-08-19:14:54,10.1.1.7,35,0.100,0.100,0.100,0.000,0.000,0.000
1644347694561048064,2022-02-08-19:14:54,10.1.1.7,34,0.090,0.090,0.090,0.000,0.000,0.000
1644347694661068800,2022-02-08-19:14:54,10.1.1.7,34,0.080,0.080,0.080,0.000,0.000,0.000
1644347694761150976,2022-02-08-19:14:54,10.1.1.7,33,0.070,0.070,0.070,0.000,0.000,0.000
1644347694861603072,2022-02-08-19:14:54,10.1.1.7,32,0.060,0.060,0.060,0.000,0.000,0.000
1644347694961334016,2022-02-08-19:14:54,10.1.1.7,32,0.050,0.050,0.050,0.000,0.000,0.000
1644347695061767168,2022-02-08-19:14:55,10.1.1.7,31,0.040,0.040,0.040,0.000,0.000,0.000
1644347695161075200,2022-02-08-19:14:55,10.1.1.7,31,0.030,0.030,0.030,0.000,0.000,0.000
1644347695260788992,2022-02-08-19:14:55,10.1.1.7,30,0.020,0.020,0.020,0.000,0.000,0.000
1644347695361048064,2022-02-08-19:14:55,10.1.1.7,28,0.010,0.010,0.010,0.000,0.000,0.000
1644347695461140992,2022-02-08-19:14:55,10.1.1.7,28,0.000,0.000,0.000,0.000,0.000,0.000
1644347695561531136,2022-02-08-19:14:55,10.1.1.7,27,-0.010,-0.010,-0.010,0.000,0.000,0.000
1644347695660934912,2022-02-08-19:14:55,10.1.1.7,27,-0.020,-0.020,-0.020,0.000,0.000,0.000
1644347695762077952,2022-02-08-19:14:55,10.1.1.7,25,-0.030,-0.030,-0.030,0.000,0.000,0.000
1644347695861968896,2022-02-08-19:14:55,10.1.1.7,24,-0.040,-0.040,-0.040,0.000,0.000,0.000
1644347695961483008,2022-02-08-19:14:55,10.1.1.7,23,-0.050,-0.050,-0.050,0.000,0.000,0.000
1644347696061497856,2022-02-08-19:14:56,10.1.1.7,22,-0.060,-0.060,-0.060,0.000,0.000,0.000
1644347696161769984,2022-02-08-19:14:56,10.1.1.7,22,-0.070,-0.070,-0.070,0.000,0.000,0.000
1644347696261516032,2022-02-08-19:14:56,10.1.1.7,21,-0.080,-0.080,-0.080,0.000,0.000,0.000
1644347696360861952,2022-02-08-19:14:56,10.1.1.7,20,-0.090,-0.090,-0.090,0.000,0.000,0.000
1644347696461515008,2022-02-08-19:14:56,10.1.1.7,19,-0.100,-0.100,-0.100,0.000,0.000,0.000
1644347696581017856,2022-02-08-19:14:56,10.1.1.7,38,-0.090,-0.090,-0.090,0.000,0.000,0.000
1644347696680794112,2022-02-08-19:14:56,10.1.1.7,38,-0.080,-0.080,-0.080,0.000,0.000,0.000
1644347696781133824,2022-02-08-19:14:56,10.1.1.7,37,-0.070,-0.070,-0.070,0.000,0.000,0.000
1644347696881468928,2022-02-08-19:14:56,10.1.1.7,37,-0.060,-0.060,-0.060,0.000,0.000,0.000
1644347696981754112,2022-02-08-19:14:56,10.1.1.7,36,-0.050,-0.050,-0.050,0.000,0.000,0.000
1644347697080951808,2022-02-08-19:14:57,10.1.1.7,36,-0.040,-0.040,-0.040,0.000,0.000,0.000
1644347697181800960,2022-02-08-19:14:57,10.1.1.7,35,-0.030,-0.030,-0.030,0.000,0.000,0.000
1644347697281398016,2022-02-08-19:14:57,10.1.1.7,33,-0.020,-0.020,-0.020,0.000,0.000,0.000
1644347697381757952,2022-02-08-19:14:57,10.1.1.7,33,-0.010,-0.010,-0.010,0.000,0.000,0.000
1644347697481480960,2022-02-08-19:14:57,10.1.1.7,31,0.000,0.000,0.000,0.000,0.000,0.000
1644347697581021952,2022-02-08-19:14:57,10.1.1.7,30,0.010,0.010,0.010,0.000,0.000,0.000
1644347697681776128,2022-02-08-19:14:57,10.1.1.7,29,0.020,0.020,0.020,0.000,0.000,0.000
1644347697781349888,2022-02-08-19:14:57,10.1.1.7,29,0.030,0.030,0.030,0.000,0.000,0.000
1644347697881751040,2022-02-08-19:14:57,10.1.1.7,28,0.040,0.040,0.040,0.000,0.000,0.000
1644347697981744128,2022-02-08-19:14:57,10.1.1.7,27,0.050,0.050,0.050,0.000,0.000,0.000
1644347698081569792,2022-02-08-19:14:58,10.1.1.7,26,0.060,0.060,0.060,0.000,0.000,0.000
1644347698181196032,2022-02-08-19:14:58,10.1.1.7,26,0.070,0.070,0.070,0.000,0.000,0.000
1644347698281097984,2022-02-08-19:14:58,10.1.1.7,25,0.080,0.080,0.080,0.000,0.000,0.000
1644347698381879040,2022-02-08-19:14:58,10.1.1.7,24,0.090,0.090,0.090,0.000,0.000,0.000
1644347698481092096,2022-02-08-19:14:58,10.1.1.7,24,0.100,0.100,0.100,0.000,0.000,0.000
1644347698581986816,2022-02-08-19:14:58,10.1.1.7,23,0.090,0.090,0.090,0.000,0.000,0.000
1644347698681345024,2022-02-08-19:14:58,10.1.1.7,22,0.080,0.080,0.080,0.000,0.000,0.000
1644347698781799936,2022-02-08-19:14:58,10.1.1.7,22,0.070,0.070,0.070,0.000,0.000,0.000
1644347698881616128,2022-02-08-19:14:58,10.1.1.7,20,0.060,0.060,0.060,0.000,0.000,0.000
1644347699002202112,2022-02-08-19:14:59,10.1.1.7,38,0.050,0.050,0.050,0.000,0.000,0.000
1644347699101430784,2022-02-08-19:14:59,10.1.1.7,37,0.040,0.040,0.040,0.000,0.000,0.000
1644347699201926912,2022-02-08-19:14:59,10.1.1.7,37,0.030,0.030,0.030,0.000,0.000,0.000
1644347699301601024,2022-02-08-19:14:59,10.1.1.7,36,0.020,0.020,0.020,0.000,0.000,0.000
1644347699403053056,2022-02-08-19:14:59,10.1.1.7,35,0.010,0.010,0.010,0.000,0.000,0.000
1644347699501768960,2022-02-08-19:14:59,10.1.1.7,34,0.000,0.000,0.000,0.000,0.000,0.000
1644347699602365952,2022-02-08-19:14:59,10.1.1.7,34,-0.010,-0.010,-0.010,0.000,0.000,0.000
1644347699703126784,2022-02-08-19:14:59,10.1.1.7,33,-0.020,-0.020,-0.020,0.000,0.000,0.000
1644347699802202112,2022-02-08-19:14:59,10.1.1.7,33,-0.030,-0.030,-0.030,0.000,0.000,0.000
1644347699904439808,2022-02-08-19:14:59,10.1.1.7,32,-0.040,-0.040,-0.040,0.000,0.000,0.000
1644347700019958016,2022-02-08-19:15:00,10.1.1.7,31,-0.050,-0.050,-0.050,0.000,0.000,0.000
1644347700201597952,2022-02-08-19:15:00,10.1.1.7,29,-0.070,-0.070,-0.070,0.000,0.000,0.000
1644347700301177088,2022-02-08-19:15:00,10.1.1.7,27,-0.080,-0.080,-0.080,0.000,0.000,0.000
1644347700401396992,2022-02-08-19:15:00,10.1.1.7,27,-0.090,-0.090,-0.090,0.000,0.000,0.000
1644347700501872128,2022-02-08-19:15:00,10.1.1.7,26,-0.100,-0.100,-0.100,0.000,0.000,0.000
1644347700601902848,2022-02-08-19:15:00,10.1.1.7,25,-0.090,-0.090,-0.090,0.000,0.000,0.000
1644347700701632000,2022-02-08-19:15:00,10.1.1.7,24,-0.080,-0.080,-0.080,0.000,0.000,0.000
1644347700801118976,2022-02-08-19:15:00,10.1.1.7,24,-0.070,-0.070,-0.070,0.000,0.000,0.000
1644347700901263104,2022-02-08-19:15:00,10.1.1.7,23,-0.060,-0.060,-0.060,0.000,0.000,0.000
1644347701001842944,2022-02-08-19:15:01,10.1.1.7,23,-0.050,-0.050,-0.050,0.000,0.000,0.000
1644347701101366016,2022-02-08-19:15:01,10.1.1.7,22,-0.040,-0.040,-0.040,0.000,0.000,0.000
1644347701203727872,2022-02-08-19:15:01,10.1.1.7,21,-0.030,-0.030,-0.030,0.000,0.000,0.000
1644347701301257984,2022-02-08-19:15:01,10.1.1.7,19,-0.020,-0.020,-0.020,0.000,0.000,0.000
1644347701421274880,2022-02-08-19:15:01,10.1.1.7,35,-0.010,-0.010,-0.010,0.000,0.000,0.000
1644347701521251072,2022-02-08-19:15:01,10.1.1.7,34,0.000,0.000,0.000,0.000,0.000,0.000
1644347701621228032,2022-02-08-19:15:01,10.1.1.7,33,0.010,0.010,0.010,0.000,0.000,0.000
1644347701820857088,2022-02-08-19:15:01,10.1.1.7,27,0.030,0.030,0.030,0.000,0.000,0.000
1644347701921174016,2022-02-08-19:15:01,10.1.1.7,26,0.040,0.040,0.040,0.000,0.000,0.000
1644347702021416960,2022-02-08-19:15:02,10.1.1.7,25,0.050,0.050,0.050,0.000,0.000,0.000
1644347702121881856,2022-02-08-19:15:02,10.1.1.7,25,0.060,0.060,0.060,0.000,0.000,0.000
1644347702221847040,2022-02-08-19:15:02,10.1.1.7,24,0.070,0.070,0.070,0.000,0.000,0.000
1644347702321832960,2022-02-08-19:15:02,10.1.1.7,23,0.080,0.080,0.080,0.000,0.000,0.000
1644347702421540864,2022-02-08-19:15:02,10.1.1.7,23,0.090,0.090,0.090,0.000,0.000,0.000
1644347702521702912,2022-02-08-19:15:02,10.1.1.7,22,0.100,0.100,0.100,0.000,0.000,0.000
1644347702621676800,2022-02-08-19:15:02,10.1.1.7,21,0.090,0.090,0.090,0.000,0.000,0.000
1644347702721438976,2022-02-08-19:15:02,10.1.1.7,21,0.080,0.080,0.080,0.000,0.000,0.000
1644347702821212160,2022-02-08-19:15:02,10.1.1.7,19,0.070,0.070,0.070,0.000,0.000,0.000
1644347702941679104,2022-02-08-19:15:02,10.1.1.7,38,0.060,0.060,0.060,0.000,0.000,0.000
1644347703041980928,2022-02-08-19:15:03,10.1.1.7,38,0.050,0.050,0.050,0.000,0.000,0.000
1644347703141953024,2022-02-08-19:15:03,10.1.1.7,37,0.040,0.040,0.040,0.000,0.000,0.000
1644347703241444096,2022-02-08-19:15:03,10.1.1.7,35,0.030,0.030,0.030,0.000,0.000,0.000
1644347703341667840,2022-02-08-19:15:03,10.1.1.7,34,0.020,0.020,0.020,0.000,0.000,0.000
1644347703441209088,2022-02-08-19:15:03,10.1.1.7,34,0.010,0.010,0.010,0.000,0.000,0.000
1644347703542462208,2022-02-08-19:15:03,10.1.1.7,33,0.000,0.000,0.000,0.000,0.000,0.000
1644347703642076928,2022-02-08-19:15:03,10.1.1.7,32,-0.010,-0.010,-0.010,0.000,0.000,0.000
1644347703741900032,2022-02-08-19:15:03,10.1.1.7,32,-0.020,-0.020,-0.020,0.000,0.000,0.000
1644347703841878784,2022-02-08-19:15:03,10.1.1.7,31,-0.030,-0.030,-0.030,0.000,0.000,0.000
1644347704044041984,2022-02-08-19:15:04,10.1.1.7,26,-0.050,-0.050,-0.050,0.000,0.000,0.000
1644347704141161984,2022-02-08-19:15:04,10.1.1.7,25,-0.060,-0.060,-0.060,0.000,0.000,0.000
1644347704241894912,2022-02-08-19:15:04,10.1.1.7,25,-0.070,-0.070,-0.070,0.000,0.000,0.000
1644347704341142784,2022-02-08-19:15:04,10.1.1.7,24,-0.080,-0.080,-0.080,0.000,0.000,0.000
1644347704441225984,2022-02-08-19:15:04,10.1.1.7,23,-0.090,-0.090,-0.090,0.000,0.000,0.000
1644347704542710016,2022-02-08-19:15:04,10.1.1.7,23,-0.100,-0.100,-0.100,0.000,0.000,0.000
1644347704641798912,2022-02-08-19:15:04,10.1.1.7,22,-0.090,-0.090,-0.090,0.000,0.000,0.000
1644347704742327808,2022-02-08-19:15:04,10.1.1.7,21,-0.080,-0.080,-0.080,0.000,0.000,0.000
1644347704842200064,2022-02-08-19:15:04,10.1.1.7,20,-0.070,-0.070,-0.070,0.000,0.000,0.000
1644347704942710016,2022-02-08-19:15:04,10.1.1.7,20,-0.060,-0.060,-0.060,0.000,0.000,0.000
1644347705041479168,2022-02-08-19:15:05,10.1.1.7,19,-0.051,-0.051,-0.051,0.000,0.000,0.000
1644347705162415104,2022-02-08-19:15:05,10.1.1.7,38,-0.040,-0.040,-0.040,0.000,0.000,0.000
1644347705283896064,2022-02-08-19:15:05,10.1.1.7,36,-0.030,-0.030,-0.030,0.000,0.000,0.000
1644347705361850112,2022-02-08-19:15:05,10.1.1.7,35,-0.020,-0.020,-0.020,0.000,0.000,0.000
1644347705461218048,2022-02-08-19:15:05,10.1.1.7,34,-0.010,-0.010,-0.010,0.000,0.000,0.000
1644347705561476096,2022-02-08-19:15:05,10.1.1.7,33,0.000,0.000,0.000,0.000,0.000,0.000
1644347705661218048,2022-02-08-19:15:05,10.1.1.7,33,0.010,0.010,0.010,0.000,0.000,0.000
1644347705761158912,2022-02-08-19:15:05,10.1.1.7,32,0.020,0.020,0.020,0.000,0.000,0.000
1644347705861670144,2022-02-08-19:15:05,10.1.1.7,31,0.030,0.030,0.030,0.000,0.000,0.000
1644347705961740032,2022-02-08-19:15:05,10.1.1.7,30,0.040,0.040,0.040,0.000,0.000,0.000
1644347706061636096,2022-02-08-19:15:06,10.1.1.7,30,0.050,0.050,0.050,0.000,0.000,0.000
1644347706161978112,2022-02-08-19:15:06,10.1.1.7,29,0.060,0.060,0.060,0.000,0.000,0.000
1644347706261462016,2022-02-08-19:15:06,10.1.1.7,28,0.070,0.070,0.070,0.000,0.000,0.000
1644347706362202880,2022-02-08-19:15:06,10.1.1.7,28,0.080,0.080,0.080,0.000,0.000,0.000
1644347706461376000,2022-02-08-19:15:06,10.1.1.7,27,0.090,0.090,0.090,0.000,0.000,0.000
1644347706561541120,2022-02-08-19:15:06,10.1.1.7,26,0.100,0.100,0.100,0.000,0.000,0.000
1644347706661931008,2022-02-08-19:15:06,10.1.1.7,26,0.090,0.090,0.090,0.000,0.000,0.000
1644347706761713152,2022-02-08-19:15:06,10.1.1.7,25,0.080,0.080,0.080,0.000,0.000,0.000
1644347706862734080,2022-02-08-19:15:06,10.1.1.7,25,0.070,0.070,0.070,0.000,0.000,0.000
1644347706961720832,2022-02-08-19:15:06,10.1.1.7,24,0.060,0.060,0.060,0.000,0.000,0.000
1644347707061796864,2022-02-08-19:15:07,10.1.1.7,23,0.050,0.050,0.050,0.000,0.000,0.000
1644347707161715968,2022-02-08-19:15:07,10.1.1.7,23,0.040,0.040,0.040,0.000,0.000,0.000
1644347707261347072,2022-02-08-19:15:07,10.1.1.7,22,0.030,0.030,0.030,0.000,0.000,0.000
1644347707361798144,2022-02-08-19:15:07,10.1.1.7,21,0.020,0.020,0.020,0.000,0.000,0.000
1644347707461729024,2022-02-08-19:15:07,10.1.1.7,19,0.011,0.011,0.011,0.000,0.000,0.000
1644347707581780992,2022-02-08-19:15:07,10.1.1.7,37,0.000,0.000,0.000,0.000,0.000,0.000
1644347707681844992,2022-02-08-19:15:07,10.1.1.7,36,-0.010,-0.010,-0.010,0.000,0.000,0.000
1644347707781750016,2022-02-08-19:15:07,10.1.1.7,35,-0.020,-0.020,-0.020,0.000,0.000,0.000
1644347707881675008,2022-02-08-19:15:07,10.1.1.7,34,-0.030,-0.030,-0.030,0.000,0.000,0.000
1644347707982206976,2022-02-08-19:15:07,10.1.1.7,34,-0.040,-0.040,-0.040,0.000,0.000,0.000
1644347708081839104,2022-02-08-19:15:08,10.1.1.7,32,-0.050,-0.050,-0.050,0.000,0.000,0.000
1644347708281737216,2022-02-08-19:15:08,10.1.1.7,26,-0.070,-0.070,-0.070,0.000,0.000,0.000
1644347708381803008,2022-02-08-19:15:08,10.1.1.7,25,-0.080,-0.080,-0.080,0.000,0.000,0.000
1644347708482711040,2022-02-08-19:15:08,10.1.1.7,24,-0.090,-0.090,-0.090,0.000,0.000,0.000
1644347708581989120,2022-02-08-19:15:08,10.1.1.7,22,-0.100,-0.100,-0.100,0.000,0.000,0.000
1644347708681922816,2022-02-08-19:15:08,10.1.1.7,22,-0.090,-0.090,-0.090,0.000,0.000,0.000
1644347708781757184,2022-02-08-19:15:08,10.1.1.7,20,-0.080,-0.080,-0.080,0.000,0.000,0.000
1644347708902035968,2022-02-08-19:15:08,10.1.1.7,30,-0.070,-0.070,-0.070,0.000,0.000,0.000
1644347709009421056,2022-02-08-19:15:09,10.1.1.7,28,-0.060,-0.060,-0.060,0.000,0.000,0.000
1644347709106107904,2022-02-08-19:15:09,10.1.1.7,24,-0.050,-0.050,-0.050,0.000,0.000,0.000
1644347709203959040,2022-02-08-19:15:09,10.1.1.7,22,-0.040,-0.040,-0.040,0.000,0.000,0.000
1644347709301150976,2022-02-08-19:15:09,10.1.1.7,21,-0.030,-0.030,-0.030,0.000,0.000,0.000
1644347709402628864,2022-02-08-19:15:09,10.1.1.7,20,-0.020,-0.020,-0.020,0.000,0.000,0.000
1644347709501456896,2022-02-08-19:15:09,10.1.1.7,20,-0.010,-0.010,-0.010,0.000,0.000,0.000
1644347709621499904,2022-02-08-19:15:09,10.1.1.7,37,0.000,0.000,0.000,0.000,0.000,0.000
1644347709720805888,2022-02-08-19:15:09,10.1.1.7,36,0.010,0.010,0.010,0.000,0.000,0.000
1644347709822060032,2022-02-08-19:15:09,10.1.1.7,36,0.020,0.020,0.020,0.000,0.000,0.000
1644347709921315072,2022-02-08-19:15:09,10.1.1.7,35,0.030,0.030,0.030,0.000,0.000,0.000
1644347710021220096,2022-02-08-19:15:10,10.1.1.7,34,0.040,0.040,0.040,0.000,0.000,0.000
1644347710121496064,2022-02-08-19:15:10,10.1.1.7,34,0.050,0.050,0.050,0.000,0.000,0.000
1644347710220835840,2022-02-08-19:15:10,10.1.1.7,33,0.060,0.060,0.060,0.000,0.000,0.000
1644347710321341952,2022-02-08-19:15:10,10.1.1.7,33,0.070,0.070,0.070,0.000,0.000,0.000
1644347710421150976,2022-02-08-19:15:10,10.1.1.7,32,0.080,0.080,0.080,0.000,0.000,0.000
1644347710521150976,2022-02-08-19:15:10,10.1.1.7,32,0.090,0.090,0.090,0.000,0.000,0.000
1644347710620975872,2022-02-08-19:15:10,10.1.1.7,31,0.100,0.100,0.100,0.000,0.000,0.000
1644347710721894912,2022-02-08-19:15:10,10.1.1.7,31,0.090,0.090,0.090,0.000,0.000,0.000
1644347710822215936,2022-02-08-19:15:10,10.1.1.7,30,0.080,0.080,0.080,0.000,0.000,0.000
1644347710921592832,2022-02-08-19:15:10,10.1.1.7,29,0.070,0.070,0.070,0.000,0.000,0.000
1644347711021212928,2022-02-08-19:15:11,10.1.1.7,28,0.060,0.060,0.060,0.000,0.000,0.000
1644347711121144064,2022-02-08-19:15:11,10.1.1.7,28,0.050,0.050,0.050,0.000,0.000,0.000
1644347711222182144,2022-02-08-19:15:11,10.1.1.7,27,0.040,0.040,0.040,0.000,0.000,0.000
1644347711321014016,2022-02-08-19:15:11,10.1.1.7,26,0.030,0.030,0.030,0.000,0.000,0.000
1644347711421821184,2022-02-08-19:15:11,10.1.1.7,26,0.020,0.020,0.020,0.000,0.000,0.000
1644347711521475072,2022-02-08-19:15:11,10.1.1.7,25,0.010,0.010,0.010,0.000,0.000,0.000
1644347711621913856,2022-02-08-19:15:11,10.1.1.7,24,0.000,0.000,0.000,0.000,0.000,0.000
1644347711721473024,2022-02-08-19:15:11,10.1.1.7,23,-0.010,-0.010,-0.010,0.000,0.000,0.000
1644347711821922048,2022-02-08-19:15:11,10.1.1.7,22,-0.020,-0.020,-0.020,0.000,0.000,0.000
1644347711921590016,2022-02-08-19:15:11,10.1.1.7,22,-0.030,-0.030,-0.030,0.000,0.000,0.000
1644347712021486080,2022-02-08-19:15:12,10.1.1.7,22,-0.040,-0.040,-0.040,0.000,0.000,0.000
1644347712121413120,2022-02-08-19:15:12,10.1.1.7,21,-0.050,-0.050,-0.050,0.000,0.000,0.000
1644347712222188032,2022-02-08-19:15:12,10.1.1.7,20,-0.060,-0.060,-0.060,0.000,0.000,0.000
1644347712341547008,2022-02-08-19:15:12,10.1.1.7,38,-0.070,-0.070,-0.070,0.000,0.000,0.000
1644347712441405952,2022-02-08-19:15:12,10.1.1.7,37,-0.080,-0.080,-0.080,0.000,0.000,0.000
1644347712541559808,2022-02-08-19:15:12,10.1.1.7,36,-0.090,-0.090,-0.090,0.000,0.000,0.000
1644347712641243904,2022-02-08-19:15:12,10.1.1.7,35,-0.100,-0.100,-0.100,0.000,0.000,0.000
1644347712741746944,2022-02-08-19:15:12,10.1.1.7,34,-0.090,-0.090,-0.090,0.000,0.000,0.000
1644347712841583872,2022-02-08-19:15:12,10.1.1.7,33,-0.080,-0.080,-0.080,0.000,0.000,0.000
1644347712942946816,2022-02-08-19:15:12,10.1.1.7,33,-0.070,-0.070,-0.070,0.000,0.000,0.000
1644347713042263040,2022-02-08-19:15:13,10.1.1.7,31,-0.060,-0.060,-0.060,0.000,0.000,0.000
1644347713142006016,2022-02-08-19:15:13,10.1.1.7,30,-0.050,-0.050,-0.050,0.000,0.000,0.000
1644347713241131008,2022-02-08-19:15:13,10.1.1.7,29,-0.040,-0.040,-0.040,0.000,0.000,0.000
1644347713361753088,2022-02-08-19:15:13,10.1.1.7,36,-0.030,-0.030,-0.030,0.000,0.000,0.000
1644347713461436160,2022-02-08-19:15:13,10.1.1.7,36,-0.020,-0.020,-0.020,0.000,0.000,0.000
1644347713561502976,2022-02-08-19:15:13,10.1.1.7,35,-0.010,-0.010,-0.010,0.000,0.000,0.000
1644347713661199104,2022-02-08-19:15:13,10.1.1.7,34,0.000,0.000,0.000,0.000,0.000,0.000
1644347713761061888,2022-02-08-19:15:13,10.1.1.7,33,0.010,0.010,0.010,0.000,0.000,0.000
1644347713861968128,2022-02-08-19:15:13,10.1.1.7,33,0.020,0.020,0.020,0.000,0.000,0.000
1644347713961011968,2022-02-08-19:15:13,10.1.1.7,32,0.030,0.030,0.030,0.000,0.000,0.000
1644347714061983232,2022-02-08-19:15:14,10.1.1.7,31,0.040,0.040,0.040,0.000,0.000,0.000
1644347714161752832,2022-02-08-19:15:14,10.1.1.7,31,0.050,0.050,0.050,0.000,0.000,0.000
1644347714261959168,2022-02-08-19:15:14,10.1.1.7,29,0.060,0.060,0.060,0.000,0.000,0.000
1644347714361798144,2022-02-08-19:15:14,10.1.1.7,28,0.070,0.070,0.070,0.000,0.000,0.000
1644347714461452032,2022-02-08-19:15:14,10.1.1.7,27,0.080,0.080,0.080,0.000,0.000,0.000
1644347714561068032,2022-02-08-19:15:14,10.1.1.7,26,0.090,0.090,0.090,0.000,0.000,0.000
1644347714661506048,2022-02-08-19:15:14,10.1.1.7,26,0.100,0.100,0.100,0.000,0.000,0.000
1644347714761193984,2022-02-08-19:15:14,10.1.1.7,24,0.090,0.090,0.090,0.000,0.000,0.000
1644347714861419008,2022-02-08-19:15:14,10.1.1.7,24,0.080,0.080,0.080,0.000,0.000,0.000
1644347714961026816,2022-02-08-19:15:14,10.1.1.7,23,0.070,0.070,0.070,0.000,0.000,0.000
1644347715061145088,2022-02-08-19:15:15,10.1.1.7,23,0.060,0.060,0.060,0.000,0.000,0.000
1644347715161145856,2022-02-08-19:15:15,10.1.1.7,22,0.050,0.050,0.050,0.000,0.000,0.000
1644347715261351168,2022-02-08-19:15:15,10.1.1.7,22,0.040,0.040,0.040,0.000,0.000,0.000
1644347715361047040,2022-02-08-19:15:15,10.1.1.7,22,0.030,0.030,0.030,0.000,0.000,0.000
1644347715461544960,2022-02-08-19:15:15,10.1.1.7,21,0.020,0.020,0.020,0.000,0.000,0.000
1644347715561435904,2022-02-08-19:15:15,10.1.1.7,19,0.010,0.010,0.010,0.000,0.000,0.000
1644347715682852864,2022-02-08-19:15:15,10.1.1.7,38,0.000,0.000,0.000,0.000,0.000,0.000
1644347715781587968,2022-02-08-19:15:15,10.1.1.7,37,-0.010,-0.010,-0.010,0.000,0.000,0.000
1644347715881084928,2022-02-08-19:15:15,10.1.1.7,36,-0.020,-0.020,-0.020,0.000,0.000,0.000
1644347715984334848,2022-02-08-19:15:15,10.1.1.7,38,-0.030,-0.030,-0.030,0.000,0.000,0.000
1644347716081094912,2022-02-08-19:15:16,10.1.1.7,34,-0.040,-0.040,-0.040,0.000,0.000,0.000
1644347716181852160,2022-02-08-19:15:16,10.1.1.7,34,-0.050,-0.050,-0.050,0.000,0.000,0.000
1644347716281417984,2022-02-08-19:15:16,10.1.1.7,33,-0.060,-0.060,-0.060,0.000,0.000,0.000
1644347716380947968,2022-02-08-19:15:16,10.1.1.7,33,-0.070,-0.070,-0.070,0.000,0.000,0.000
1644347716481553920,2022-02-08-19:15:16,10.1.1.7,32,-0.080,-0.080,-0.080,0.000,0.000,0.000
1644347716581547008,2022-02-08-19:15:16,10.1.1.7,31,-0.090,-0.090,-0.090,0.000,0.000,0.000
1644347716681395968,2022-02-08-19:15:16,10.1.1.7,31,-0.100,-0.100,-0.100,0.000,0.000,0.000
1644347716781163008,2022-02-08-19:15:16,10.1.1.7,30,-0.090,-0.090,-0.090,0.000,0.000,0.000
1644347716881380096,2022-02-08-19:15:16,10.1.1.7,29,-0.080,-0.080,-0.080,0.000,0.000,0.000
1644347716981720832,2022-02-08-19:15:16,10.1.1.7,28,-0.070,-0.070,-0.070,0.000,0.000,0.000
1644347717081792000,2022-02-08-19:15:17,10.1.1.7,27,-0.060,-0.060,-0.060,0.000,0.000,0.000
1644347717181865984,2022-02-08-19:15:17,10.1.1.7,26,-0.050,-0.050,-0.050,0.000,0.000,0.000
1644347717280969984,2022-02-08-19:15:17,10.1.1.7,25,-0.040,-0.040,-0.040,0.000,0.000,0.000
1644347717381427968,2022-02-08-19:15:17,10.1.1.7,25,-0.030,-0.030,-0.030,0.000,0.000,0.000
1644347717481463808,2022-02-08-19:15:17,10.1.1.7,24,-0.020,-0.020,-0.020,0.000,0.000,0.000
1644347717581593088,2022-02-08-19:15:17,10.1.1.7,23,-0.010,-0.010,-0.010,0.000,0.000,0.000
1644347717682234112,2022-02-08-19:15:17,10.1.1.7,23,0.000,0.000,0.000,0.000,0.000,0.000
1644347717781303040,2022-02-08-19:15:17,10.1.1.7,22,0.010,0.010,0.010,0.000,0.000,0.000
1644347717883260928,2022-02-08-19:15:17,10.1.1.7,22,0.020,0.020,0.020,0.000,0.000,0.000
1644347717981874944,2022-02-08-19:15:17,10.1.1.7,21,0.030,0.030,0.030,0.000,0.000,0.000
1644347718081649920,2022-02-08-19:15:18,10.1.1.7,20,0.040,0.040,0.040,0.000,0.000,0.000
1644347718201293056,2022-02-08-19:15:18,10.1.1.7,38,0.050,0.050,0.050,0.000,0.000,0.000
1644347718300966144,2022-02-08-19:15:18,10.1.1.7,37,0.060,0.060,0.060,0.000,0.000,0.000
1644347718401513984,2022-02-08-19:15:18,10.1.1.7,36,0.070,0.070,0.070,0.000,0.000,0.000
1644347718501071104,2022-02-08-19:15:18,10.1.1.7,36,0.080,0.080,0.080,0.000,0.000,0.000
1644347718601708800,2022-02-08-19:15:18,10.1.1.7,35,0.090,0.090,0.090,0.000,0.000,0.000
1644347718701072896,2022-02-08-19:15:18,10.1.1.7,34,0.100,0.100,0.100,0.000,0.000,0.000
1644347718801312000,2022-02-08-19:15:18,10.1.1.7,34,0.090,0.090,0.090,0.000,0.000,0.000
1644347718901635840,2022-02-08-19:15:18,10.1.1.7,33,0.080,0.080,0.080,0.000,0.000,0.000
1644347719001806848,2022-02-08-19:15:19,10.1.1.7,32,0.070,0.070,0.070,0.000,0.000,0.000
1644347719100902912,2022-02-08-19:15:19,10.1.1.7,32,0.060,0.060,0.060,0.000,0.000,0.000
1644347719201943040,2022-02-08-19:15:19,10.1.1.7,31,0.050,0.050,0.050,0.000,0.000,0.000
1644347719301861888,2022-02-08-19:15:19,10.1.1.7,31,0.040,0.040,0.040,0.000,0.000,0.000
1644347719401093120,2022-02-08-19:15:19,10.1.1.7,30,0.030,0.030,0.030,0.000,0.000,0.000
1644347719501227008,2022-02-08-19:15:19,10.1.1.7,29,0.020,0.020,0.020,0.000,0.000,0.000
1644347719601826816,2022-02-08-19:15:19,10.1.1.7,29,0.010,0.010,0.010,0.000,0.000,0.000
1644347719700956160,2022-02-08-19:15:19,10.1.1.7,27,-0.000,-0.000,-0.000,0.000,0.000,0.000
1644347719801683968,2022-02-08-19:15:19,10.1.1.7,27,-0.010,-0.010,-0.010,0.000,0.000,0.000
1644347719901776128,2022-02-08-19:15:19,10.1.1.7,26,-0.020,-0.020,-0.020,0.000,0.000,0.000
1644347720001889024,2022-02-08-19:15:20,10.1.1.7,26,-0.030,-0.030,-0.030,0.000,0.000,0.000
1644347720101116928,2022-02-08-19:15:20,10.1.1.7,25,-0.040,-0.040,-0.040,0.000,0.000,0.000
1644347720201012992,2022-02-08-19:15:20,10.1.1.7,23,-0.050,-0.050,-0.050,0.000,0.000,0.000
1644347720301462016,2022-02-08-19:15:20,10.1.1.7,23,-0.060,-0.060,-0.060,0.000,0.000,0.000
1644347720401393920,2022-02-08-19:15:20,10.1.1.7,22,-0.070,-0.070,-0.070,0.000,0.000,0.000
1644347720501064960,2022-02-08-19:15:20,10.1.1.7,21,-0.080,-0.080,-0.080,0.000,0.000,0.000
1644347720601960960,2022-02-08-19:15:20,10.1.1.7,21,-0.090,-0.090,-0.090,0.000,0.000,0.000
1644347720700957952,2022-02-08-19:15:20,10.1.1.7,20,-0.100,-0.100,-0.100,0.000,0.000,0.000
1644347720801383936,2022-02-08-19:15:20,10.1.1.7,20,-0.090,-0.090,-0.090,0.000,0.000,0.000
1644347720901480960,2022-02-08-19:15:20,10.1.1.7,19,-0.080,-0.080,-0.080,0.000,0.000,0.000
1644347721021985024,2022-02-08-19:15:21,10.1.1.7,38,-0.070,-0.070,-0.070,0.000,0.000,0.000
1644347721121485056,2022-02-08-19:15:21,10.1.1.7,37,-0.060,-0.060,-0.060,0.000,0.000,0.000
1644347721221082880,2022-02-08-19:15:21,10.1.1.7,37,-0.050,-0.050,-0.050,0.000,0.000,0.000
1644347721321598976,2022-02-08-19:15:21,10.1.1.7,36,-0.040,-0.040,-0.040,0.000,0.000,0.000
1644347721421632000,2022-02-08-19:15:21,10.1.1.7,35,-0.030,-0.030,-0.030,0.000,0.000,0.000
1644347721521294080,2022-02-08-19:15:21,10.1.1.7,34,-0.020,-0.020,-0.020,0.000,0.000,0.000
1644347721721133056,2022-02-08-19:15:21,10.1.1.7,33,0.000,0.000,0.000,0.000,0.000,0.000
1644347721821325056,2022-02-08-19:15:21,10.1.1.7,33,0.010,0.010,0.010,0.000,0.000,0.000
1644347721921564160,2022-02-08-19:15:21,10.1.1.7,32,0.020,0.020,0.020,0.000,0.000,0.000
1644347722021171968,2022-02-08-19:15:22,10.1.1.7,31,0.030,0.030,0.030,0.000,0.000,0.000
1644347722121764864,2022-02-08-19:15:22,10.1.1.7,30,0.040,0.040,0.040,0.000,0.000,0.000
1644347722221842944,2022-02-08-19:15:22,10.1.1.7,29,0.050,0.050,0.050,0.000,0.000,0.000
1644347722321757184,2022-02-08-19:15:22,10.1.1.7,28,0.060,0.060,0.060,0.000,0.000,0.000
1644347722421617152,2022-02-08-19:15:22,10.1.1.7,27,0.070,0.070,0.070,0.000,0.000,0.000
1644347722520979968,2022-02-08-19:15:22,10.1.1.7,26,0.080,0.080,0.080,0.000,0.000,0.000
1644347722621780992,2022-02-08-19:15:22,10.1.1.7,26,0.090,0.090,0.090,0.000,0.000,0.000
1644347722721657088,2022-02-08-19:15:22,10.1.1.7,25,0.100,0.100,0.100,0.000,0.000,0.000
1644347722821094144,2022-02-08-19:15:22,10.1.1.7,25,0.090,0.090,0.090,0.000,0.000,0.000
1644347722921889024,2022-02-08-19:15:22,10.1.1.7,24,0.080,0.080,0.080,0.000,0.000,0.000
1644347723021469184,2022-02-08-19:15:23,10.1.1.7,23,0.070,0.070,0.070,0.000,0.000,0.000
1644347723121313024,2022-02-08-19:15:23,10.1.1.7,23,0.060,0.060,0.060,0.000,0.000,0.000
1644347723222060800,2022-02-08-19:15:23,10.1.1.7,22,0.050,0.050,0.050,0.000,0.000,0.000
1644347723322439936,2022-02-08-19:15:23,10.1.1.7,21,0.040,0.040,0.040,0.000,0.000,0.000
1644347723421801216,2022-02-08-19:15:23,10.1.1.7,20,0.030,0.030,0.030,0.000,0.000,0.000
1644347723520990976,2022-02-08-19:15:23,10.1.1.7,20,0.020,0.020,0.020,0.000,0.000,0.000
1644347723641668096,2022-02-08-19:15:23,10.1.1.7,37,0.010,0.010,0.010,0.000,0.000,0.000
1644347723741164032,2022-02-08-19:15:23,10.1.1.7,37,0.000,0.000,0.000,0.000,0.000,0.000
1644347723841416960,2022-02-08-19:15:23,10.1.1.7,36,-0.010,-0.010,-0.010,0.000,0.000,0.000
1644347723941318144,2022-02-08-19:15:23,10.1.1.7,36,-0.020,-0.020,-0.020,0.000,0.000,0.000
1644347724040942080,2022-02-08-19:15:24,10.1.1.7,35,-0.030,-0.030,-0.030,0.000,0.000,0.000
1644347724141000960,2022-02-08-19:15:24,10.1.1.7,33,-0.040,-0.040,-0.040,0.000,0.000,0.000
1644347724241103872,2022-02-08-19:15:24,10.1.1.7,32,-0.050,-0.050,-0.050,0.000,0.000,0.000
1644347724341592064,2022-02-08-19:15:24,10.1.1.7,31,-0.060,-0.060,-0.060,0.000,0.000,0.000
1644347724441978880,2022-02-08-19:15:24,10.1.1.7,31,-0.070,-0.070,-0.070,0.000,0.000,0.000
1644347724542607104,2022-02-08-19:15:24,10.1.1.7,29,-0.080,-0.080,-0.080,0.000,0.000,0.000
1644347724641319936,2022-02-08-19:15:24,10.1.1.7,29,-0.090,-0.090,-0.090,0.000,0.000,0.000
1644347724741088000,2022-02-08-19:15:24,10.1.1.7,28,-0.100,-0.100,-0.100,0.000,0.000,0.000
1644347724841486848,2022-02-08-19:15:24,10.1.1.7,28,-0.090,-0.090,-0.090,0.000,0.000,0.000
1644347724941154048,2022-02-08-19:15:24,10.1.1.7,27,-0.080,-0.080,-0.080,0.000,0.000,0.000
1644347725041852928,2022-02-08-19:15:25,10.1.1.7,26,-0.070,-0.070,-0.070,0.000,0.000,0.000
1644347725141524992,2022-02-08-19:15:25,10.1.1.7,26,-0.060,-0.060,-0.060,0.000,0.000,0.000
1644347725240844032,2022-02-08-19:15:25,10.1.1.7,25,-0.050,-0.050,-0.050,0.000,0.000,0.000
1644347725341097216,2022-02-08-19:15:25,10.1.1.7,24,-0.040,-0.040,-0.040,0.000,0.000,0.000
1644347725440969984,2022-02-08-19:15:25,10.1.1.7,23,-0.030,-0.030,-0.030,0.000,0.000,0.000
1644347725541523968,2022-02-08-19:15:25,10.1.1.7,22,-0.020,-0.020,-0.020,0.000,0.000,0.000
1644347725641204224,2022-02-08-19:15:25,10.1.1.7,22,-0.010,-0.010,-0.010,0.000,0.000,0.000
1644347725741605120,2022-02-08-19:15:25,10.1.1.7,21,0.000,0.000,0.000,0.000,0.000,0.000
1644347725841393920,2022-02-08-19:15:25,10.1.1.7,20,0.010,0.010,0.010,0.000,0.000,0.000
1644347725941353984,2022-02-08-19:15:25,10.1.1.7,19,0.020,0.020,0.020,0.000,0.000,0.000
1644347726041196032,2022-02-08-19:15:26,10.1.1.7,19,0.029,0.029,0.029,0.000,0.000,0.000
1644347726161138176,2022-02-08-19:15:26,10.1.1.7,38,0.040,0.040,0.040,0.000,0.000,0.000
1644347726261409024,2022-02-08-19:15:26,10.1.1.7,37,0.050,0.050,0.050,0.000,0.000,0.000
1644347726361316864,2022-02-08-19:15:26,10.1.1.7,36,0.060,0.060,0.060,0.000,0.000,0.000
1644347726461049088,2022-02-08-19:15:26,10.1.1.7,35,0.070,0.070,0.070,0.000,0.000,0.000
1644347726561367040,2022-02-08-19:15:26,10.1.1.7,34,0.080,0.080,0.080,0.000,0.000,0.000
1644347726661315840,2022-02-08-19:15:26,10.1.1.7,34,0.090,0.090,0.090,0.000,0.000,0.000
1644347726761734912,2022-02-08-19:15:26,10.1.1.7,33,0.100,0.100,0.100,0.000,0.000,0.000
1644347726862142976,2022-02-08-19:15:26,10.1.1.7,32,0.090,0.090,0.090,0.000,0.000,0.000
1644347726961453056,2022-02-08-19:15:26,10.1.1.7,31,0.080,0.080,0.080,0.000,0.000,0.000
1644347727061861120,2022-02-08-19:15:27,10.1.1.7,31,0.070,0.070,0.070,0.000,0.000,0.000
1644347727161580032,2022-02-08-19:15:27,10.1.1.7,30,0.060,0.060,0.060,0.000,0.000,0.000
1644347727261032960,2022-02-08-19:15:27,10.1.1.7,29,0.050,0.050,0.050,0.000,0.000,0.000
1644347727361313024,2022-02-08-19:15:27,10.1.1.7,28,0.040,0.040,0.040,0.000,0.000,0.000
1644347727460866816,2022-02-08-19:15:27,10.1.1.7,28,0.030,0.030,0.030,0.000,0.000,0.000
1644347727561615104,2022-02-08-19:15:27,10.1.1.7,27,0.020,0.020,0.020,0.000,0.000,0.000
1644347727661139968,2022-02-08-19:15:27,10.1.1.7,26,0.010,0.010,0.010,0.000,0.000,0.000
1644347727761748992,2022-02-08-19:15:27,10.1.1.7,26,0.000,0.000,0.000,0.000,0.000,0.000
1644347727862162176,2022-02-08-19:15:27,10.1.1.7,25,-0.010,-0.010,-0.010,0.000,0.000,0.000
1644347727961723136,2022-02-08-19:15:27,10.1.1.7,24,-0.020,-0.020,-0.020,0.000,0.000,0.000
1644347728061217024,2022-02-08-19:15:28,10.1.1.7,23,-0.030,-0.030,-0.030,0.000,0.000,0.000
1644347728161531904,2022-02-08-19:15:28,10.1.1.7,23,-0.040,-0.040,-0.040,0.000,0.000,0.000
1644347728261827840,2022-02-08-19:15:28,10.1.1.7,22,-0.050,-0.050,-0.050,0.000,0.000,0.000
1644347728361252096,2022-02-08-19:15:28,10.1.1.7,22,-0.060,-0.060,-0.060,0.000,0.000,0.000
1644347728461721856,2022-02-08-19:15:28,10.1.1.7,21,-0.070,-0.070,-0.070,0.000,0.000,0.000
1644347728581238016,2022-02-08-19:15:28,10.1.1.7,35,-0.080,-0.080,-0.080,0.000,0.000,0.000
1644347728681249024,2022-02-08-19:15:28,10.1.1.7,33,-0.090,-0.090,-0.090,0.000,0.000,0.000
1644347728781666048,2022-02-08-19:15:28,10.1.1.7,32,-0.100,-0.100,-0.100,0.000,0.000,0.000
1644347728881364224,2022-02-08-19:15:28,10.1.1.7,32,-0.090,-0.090,-0.090,0.000,0.000,0.000
1644347728981506048,2022-02-08-19:15:28,10.1.1.7,31,-0.080,-0.080,-0.080,0.000,0.000,0.000
1644347729081078016,2022-02-08-19:15:29,10.1.1.7,30,-0.070,-0.070,-0.070,0.000,0.000,0.000
1644347729181179136,2022-02-08-19:15:29,10.1.1.7,28,-0.060,-0.060,-0.060,0.000,0.000,0.000
1644347729281116928,2022-02-08-19:15:29,10.1.1.7,27,-0.050,-0.050,-0.050,0.000,0.000,0.000
1644347729381274112,2022-02-08-19:15:29,10.1.1.7,27,-0.040,-0.040,-0.040,0.000,0.000,0.000
1644347729481180928,2022-02-08-19:15:29,10.1.1.7,26,-0.030,-0.030,-0.030,0.000,0.000,0.000
1644347729580966912,2022-02-08-19:15:29,10.1.1.7,26,-0.020,-0.020,-0.020,0.000,0.000,0.000
1644347729681741056,2022-02-08-19:15:29,10.1.1.7,25,-0.010,-0.010,-0.010,0.000,0.000,0.000
1644347729781570048,2022-02-08-19:15:29,10.1.1.7,24,0.000,0.000,0.000,0.000,0.000,0.000
1644347729880947200,2022-02-08-19:15:29,10.1.1.7,23,0.010,0.010,0.010,0.000,0.000,0.000
1644347729981448960,2022-02-08-19:15:29,10.1.1.7,23,0.020,0.020,0.020,0.000,0.000,0.000
1644347730081502976,2022-02-08-19:15:30,10.1.1.7,22,0.030,0.030,0.030,0.000,0.000,0.000
1644347730181616896,2022-02-08-19:15:30,10.1.1.7,21,0.040,0.040,0.040,0.000,0.000,0.000
1644347730281378048,2022-02-08-19:15:30,10.1.1.7,21,0.050,0.050,0.050,0.000,0.000,0.000
1644347730380969984,2022-02-08-19:15:30,10.1.1.7,20,0.060,0.060,0.060,0.000,0.000,0.000
1644347730481556992,2022-02-08-19:15:30,10.1.1.7,19,0.069,0.069,0.069,0.000,0.000,0.000
1644347730601163008,2022-02-08-19:15:30,10.1.1.7,38,0.080,0.080,0.080,0.000,0.000,0.000
1644347730702380800,2022-02-08-19:15:30,10.1.1.7,37,0.090,0.090,0.090,0.000,0.000,0.000
1644347730801198080,2022-02-08-19:15:30,10.1.1.7,37,0.100,0.100,0.100,0.000,0.000,0.000
1644347730901464064,2022-02-08-19:15:30,10.1.1.7,36,0.090,0.090,0.090,0.000,0.000,0.000
1644347731001457920,2022-02-08-19:15:31,10.1.1.7,36,0.080,0.080,0.080,0.000,0.000,0.000
1644347731101176064,2022-02-08-19:15:31,10.1.1.7,35,0.070,0.070,0.070,0.000,0.000,0.000
1644347731201831936,2022-02-08-19:15:31,10.1.1.7,34,0.060,0.060,0.060,0.000,0.000,0.000
1644347731401726976,2022-02-08-19:15:31,10.1.1.7,33,0.040,0.040,0.040,0.000,0.000,0.000
1644347731501390080,2022-02-08-19:15:31,10.1.1.7,32,0.030,0.030,0.030,0.000,0.000,0.000
1644347731601597952,2022-02-08-19:15:31,10.1.1.7,31,0.020,0.020,0.020,0.000,0.000,0.000
1644347731701127936,2022-02-08-19:15:31,10.1.1.7,31,0.010,0.010,0.010,0.000,0.000,0.000
1644347731801701120,2022-02-08-19:15:31,10.1.1.7,30,0.000,0.000,0.000,0.000,0.000,0.000
1644347731901319936,2022-02-08-19:15:31,10.1.1.7,30,-0.010,-0.010,-0.010,0.000,0.000,0.000
1644347732001040896,2022-02-08-19:15:32,10.1.1.7,29,-0.020,-0.020,-0.020,0.000,0.000,0.000
1644347732101494016,2022-02-08-19:15:32,10.1.1.7,28,-0.030,-0.030,-0.030,0.000,0.000,0.000
1644347732202405888,2022-02-08-19:15:32,10.1.1.7,27,-0.040,-0.040,-0.040,0.000,0.000,0.000
1644347732301650944,2022-02-08-19:15:32,10.1.1.7,26,-0.050,-0.050,-0.050,0.000,0.000,0.000
1644347732408771072,2022-02-08-19:15:32,10.1.1.7,25,-0.060,-0.060,-0.060,0.000,0.000,0.000
1644347732501530880,2022-02-08-19:15:32,10.1.1.7,24,-0.070,-0.070,-0.070,0.000,0.000,0.000
1644347732600864768,2022-02-08-19:15:32,10.1.1.7,23,-0.080,-0.080,-0.080,0.000,0.000,0.000
1644347732700684032,2022-02-08-19:15:32,10.1.1.7,23,-0.090,-0.090,-0.090,0.000,0.000,0.000
1644347732801392128,2022-02-08-19:15:32,10.1.1.7,23,-0.100,-0.100,-0.100,0.000,0.000,0.000
1644347732901430016,2022-02-08-19:15:32,10.1.1.7,22,-0.090,-0.090,-0.090,0.000,0.000,0.000
1644347733001167104,2022-02-08-19:15:33,10.1.1.7,22,-0.080,-0.080,-0.080,0.000,0.000,0.000
1644347733100844032,2022-02-08-19:15:33,10.1.1.7,21,-0.070,-0.070,-0.070,0.000,0.000,0.000
1644347733200797952,2022-02-08-19:15:33,10.1.1.7,21,-0.060,-0.060,-0.060,0.000,0.000,0.000
1644347733301688832,2022-02-08-19:15:33,10.1.1.7,20,-0.050,-0.050,-0.050,0.000,0.000,0.000
1644347733401487104,2022-02-08-19:15:33,10.1.1.7,19,-0.040,-0.040,-0.040,0.000,0.000,0.000
1644347733522105856,2022-02-08-19:15:33,10.1.1.7,38,-0.030,-0.030,-0.030,0.000,0.000,0.000
1644347733621505024,2022-02-08-19:15:33,10.1.1.7,32,-0.020,-0.020,-0.020,0.000,0.000,0.000
1644347733826391040,2022-02-08-19:15:33,10.1.1.7,30,0.000,0.000,0.000,0.000,0.000,0.000
1644347733929449984,2022-02-08-19:15:33,10.1.1.7,21,0.010,0.010,0.010,0.000,0.000,0.000
1644347734021210880,2022-02-08-19:15:34,10.1.1.7,21,0.020,0.020,0.020,0.000,0.000,0.000
1644347734121094912,2022-02-08-19:15:34,10.1.1.7,20,0.030,0.030,0.030,0.000,0.000,0.000
1644347734220679936,2022-02-08-19:15:34,10.1.1.7,20,0.040,0.040,0.040,0.000,0.000,0.000
1644347734341939968,2022-02-08-19:15:34,10.1.1.7,38,0.050,0.050,0.050,0.000,0.000,0.000
1644347734441840896,2022-02-08-19:15:34,10.1.1.7,35,0.060,0.060,0.060,0.000,0.000,0.000
1644347734541436928,2022-02-08-19:15:34,10.1.1.7,34,0.070,0.070,0.070,0.000,0.000,0.000
1644347734641716992,2022-02-08-19:15:34,10.1.1.7,33,0.080,0.080,0.080,0.000,0.000,0.000
1644347734741689088,2022-02-08-19:15:34,10.1.1.7,32,0.090,0.090,0.090,0.000,0.000,0.000
1644347734841104896,2022-02-08-19:15:34,10.1.1.7,31,0.100,0.100,0.100,0.000,0.000,0.000
1644347734942240000,2022-02-08-19:15:34,10.1.1.7,30,0.090,0.090,0.090,0.000,0.000,0.000
1644347735041868800,2022-02-08-19:15:35,10.1.1.7,29,0.080,0.080,0.080,0.000,0.000,0.000
1644347735142228992,2022-02-08-19:15:35,10.1.1.7,29,0.070,0.070,0.070,0.000,0.000,0.000
1644347735241411840,2022-02-08-19:15:35,10.1.1.7,27,0.060,0.060,0.060,0.000,0.000,0.000
1644347735342231040,2022-02-08-19:15:35,10.1.1.7,27,0.050,0.050,0.050,0.000,0.000,0.000
1644347735442158848,2022-02-08-19:15:35,10.1.1.7,26,0.040,0.040,0.040,0.000,0.000,0.000
1644347735541559808,2022-02-08-19:15:35,10.1.1.7,25,0.030,0.030,0.030,0.000,0.000,0.000
1644347735641527040,2022-02-08-19:15:35,10.1.1.7,25,0.020,0.020,0.020,0.000,0.000,0.000
1644347735741606912,2022-02-08-19:15:35,10.1.1.7,24,0.010,0.010,0.010,0.000,0.000,0.000
1644347735841795072,2022-02-08-19:15:35,10.1.1.7,23,0.000,0.000,0.000,0.000,0.000,0.000
1644347735941452032,2022-02-08-19:15:35,10.1.1.7,22,-0.010,-0.010,-0.010,0.000,0.000,0.000
1644347736042601216,2022-02-08-19:15:36,10.1.1.7,21,-0.020,-0.020,-0.020,0.000,0.000,0.000
1644347736142003968,2022-02-08-19:15:36,10.1.1.7,21,-0.030,-0.030,-0.030,0.000,0.000,0.000
1644347736241123840,2022-02-08-19:15:36,10.1.1.7,19,-0.040,-0.040,-0.040,0.000,0.000,0.000
1644347736362091008,2022-02-08-19:15:36,10.1.1.7,37,-0.050,-0.050,-0.050,0.000,0.000,0.000
1644347736461699072,2022-02-08-19:15:36,10.1.1.7,36,-0.060,-0.060,-0.060,0.000,0.000,0.000
1644347736561682944,2022-02-08-19:15:36,10.1.1.7,35,-0.070,-0.070,-0.070,0.000,0.000,0.000
1644347736661530112,2022-02-08-19:15:36,10.1.1.7,35,-0.080,-0.080,-0.080,0.000,0.000,0.000
1644347736761011968,2022-02-08-19:15:36,10.1.1.7,34,-0.090,-0.090,-0.090,0.000,0.000,0.000
1644347736861552896,2022-02-08-19:15:36,10.1.1.7,34,-0.100,-0.100,-0.100,0.000,0.000,0.000
1644347736961153024,2022-02-08-19:15:36,10.1.1.7,33,-0.090,-0.090,-0.090,0.000,0.000,0.000
1644347737061104128,2022-02-08-19:15:37,10.1.1.7,32,-0.080,-0.080,-0.080,0.000,0.000,0.000
1644347737160964864,2022-02-08-19:15:37,10.1.1.7,32,-0.070,-0.070,-0.070,0.000,0.000,0.000
1644347737363055872,2022-02-08-19:15:37,10.1.1.7,28,-0.050,-0.050,-0.050,0.000,0.000,0.000
1644347737461487104,2022-02-08-19:15:37,10.1.1.7,27,-0.040,-0.040,-0.040,0.000,0.000,0.000
1644347737561217024,2022-02-08-19:15:37,10.1.1.7,26,-0.030,-0.030,-0.030,0.000,0.000,0.000
1644347737661559040,2022-02-08-19:15:37,10.1.1.7,25,-0.020,-0.020,-0.020,0.000,0.000,0.000
1644347737761470976,2022-02-08-19:15:37,10.1.1.7,24,-0.010,-0.010,-0.010,0.000,0.000,0.000
1644347737862353152,2022-02-08-19:15:37,10.1.1.7,23,0.000,0.000,0.000,0.000,0.000,0.000
1644347737961568000,2022-02-08-19:15:37,10.1.1.7,22,0.010,0.010,0.010,0.000,0.000,0.000
1644347738061001984,2022-02-08-19:15:38,10.1.1.7,21,0.020,0.020,0.020,0.000,0.000,0.000
1644347738161667072,2022-02-08-19:15:38,10.1.1.7,20,0.030,0.030,0.030,0.000,0.000,0.000
1644347738261509888,2022-02-08-19:15:38,10.1.1.7,19,0.040,0.040,0.040,0.000,0.000,0.000
1644347738381956096,2022-02-08-19:15:38,10.1.1.7,39,0.050,0.050,0.050,0.000,0.000,0.000
1644347738481969152,2022-02-08-19:15:38,10.1.1.7,37,0.060,0.060,0.060,0.000,0.000,0.000
1644347738581428992,2022-02-08-19:15:38,10.1.1.7,36,0.070,0.070,0.070,0.000,0.000,0.000
1644347738680866048,2022-02-08-19:15:38,10.1.1.7,35,0.080,0.080,0.080,0.000,0.000,0.000
1644347738781560064,2022-02-08-19:15:38,10.1.1.7,34,0.090,0.090,0.090,0.000,0.000,0.000
1644347738881891072,2022-02-08-19:15:38,10.1.1.7,33,0.100,0.100,0.100,0.000,0.000,0.000
1644347738981017088,2022-02-08-19:15:38,10.1.1.7,31,0.090,0.090,0.090,0.000,0.000,0.000
1644347739080837120,2022-02-08-19:15:39,10.1.1.7,30,0.080,0.080,0.080,0.000,0.000,0.000
1644347739181505024,2022-02-08-19:15:39,10.1.1.7,28,0.070,0.070,0.070,0.000,0.000,0.000
1644347739282228992,2022-02-08-19:15:39,10.1.1.7,26,0.060,0.060,0.060,0.000,0.000,0.000
1644347739380916992,2022-02-08-19:15:39,10.1.1.7,25,0.050,0.050,0.050,0.000,0.000,0.000
1644347739481089024,2022-02-08-19:15:39,10.1.1.7,25,0.040,0.040,0.040,0.000,0.000,0.000
1644347739581501952,2022-02-08-19:15:39,10.1.1.7,23,0.030,0.030,0.030,0.000,0.000,0.000
1644347739681214976,2022-02-08-19:15:39,10.1.1.7,23,0.020,0.020,0.020,0.000,0.000,0.000
1644347739781850112,2022-02-08-19:15:39,10.1.1.7,22,0.010,0.010,0.010,0.000,0.000,0.000
1644347739902333952,2022-02-08-19:15:39,10.1.1.7,39,0.000,0.000,0.000,0.000,0.000,0.000
1644347740012908032,2022-02-08-19:15:40,10.1.1.7,33,-0.010,-0.010,-0.010,0.000,0.000,0.000
1644347740101289984,2022-02-08-19:15:40,10.1.1.7,25,-0.020,-0.020,-0.020,0.000,0.000,0.000
1644347740201026048,2022-02-08-19:15:40,10.1.1.7,23,-0.030,-0.030,-0.030,0.000,0.000,0.000
1644347740301139968,2022-02-08-19:15:40,10.1.1.7,22,-0.040,-0.040,-0.040,0.000,0.000,0.000
1644347740401361920,2022-02-08-19:15:40,10.1.1.7,20,-0.050,-0.050,-0.050,0.000,0.000,0.000
1644347740501803008,2022-02-08-19:15:40,10.1.1.7,19,-0.059,-0.059,-0.059,0.000,0.000,0.000
1644347740623582976,2022-02-08-19:15:40,10.1.1.7,38,-0.070,-0.070,-0.070,0.000,0.000,0.000
1644347740724029184,2022-02-08-19:15:40,10.1.1.7,35,-0.080,-0.080,-0.080,0.000,0.000,0.000
1644347740821139200,2022-02-08-19:15:40,10.1.1.7,34,-0.090,-0.090,-0.090,0.000,0.000,0.000
1644347740921220096,2022-02-08-19:15:40,10.1.1.7,33,-0.100,-0.100,-0.100,0.000,0.000,0.000
1644347741021470976,2022-02-08-19:15:41,10.1.1.7,33,-0.090,-0.090,-0.090,0.000,0.000,0.000
1644347741121393920,2022-02-08-19:15:41,10.1.1.7,32,-0.080,-0.080,-0.080,0.000,0.000,0.000
1644347741221422080,2022-02-08-19:15:41,10.1.1.7,32,-0.070,-0.070,-0.070,0.000,0.000,0.000
1644347741321168896,2022-02-08-19:15:41,10.1.1.7,31,-0.060,-0.060,-0.060,0.000,0.000,0.000
1644347741421160960,2022-02-08-19:15:41,10.1.1.7,31,-0.050,-0.050,-0.050,0.000,0.000,0.000
1644347741521477888,2022-02-08-19:15:41,10.1.1.7,31,-0.040,-0.040,-0.040,0.000,0.000,0.000
1644347741621263872,2022-02-08-19:15:41,10.1.1.7,30,-0.030,-0.030,-0.030,0.000,0.000,0.000
1644347741721071872,2022-02-08-19:15:41,10.1.1.7,28,-0.020,-0.020,-0.020,0.000,0.000,0.000
1644347741821628160,2022-02-08-19:15:41,10.1.1.7,27,-0.010,-0.010,-0.010,0.000,0.000,0.000
1644347741921555968,2022-02-08-19:15:41,10.1.1.7,25,0.000,0.000,0.000,0.000,0.000,0.000
1644347742021190912,2022-02-08-19:15:42,10.1.1.7,25,0.010,0.010,0.010,0.000,0.000,0.000
1644347742121176064,2022-02-08-19:15:42,10.1.1.7,24,0.020,0.020,0.020,0.000,0.000,0.000
1644347742221522176,2022-02-08-19:15:42,10.1.1.7,23,0.030,0.030,0.030,0.000,0.000,0.000
1644347742321276928,2022-02-08-19:15:42,10.1.1.7,22,0.040,0.040,0.040,0.000,0.000,0.000
1644347742421534976,2022-02-08-19:15:42,10.1.1.7,21,0.050,0.050,0.050,0.000,0.000,0.000
1644347742521421056,2022-02-08-19:15:42,10.1.1.7,21,0.060,0.060,0.060,0.000,0.000,0.000
1644347742622027008,2022-02-08-19:15:42,10.1.1.7,20,0.070,0.070,0.070,0.000,0.000,0.000
1644347742720760064,2022-02-08-19:15:42,10.1.1.7,19,0.079,0.079,0.079,0.000,0.000,0.000
1644347742841867008,2022-02-08-19:15:42,10.1.1.7,38,0.090,0.090,0.090,0.000,0.000,0.000
1644347742941199104,2022-02-08-19:15:42,10.1.1.7,37,0.100,0.100,0.100,0.000,0.000,0.000
1644347743041933056,2022-02-08-19:15:43,10.1.1.7,37,0.090,0.090,0.090,0.000,0.000,0.000
1644347743141971200,2022-02-08-19:15:43,10.1.1.7,36,0.080,0.080,0.080,0.000,0.000,0.000
1644347743241446144,2022-02-08-19:15:43,10.1.1.7,35,0.070,0.070,0.070,0.000,0.000,0.000
1644347743341032960,2022-02-08-19:15:43,10.1.1.7,34,0.060,0.060,0.060,0.000,0.000,0.000
1644347743440922880,2022-02-08-19:15:43,10.1.1.7,34,0.050,0.050,0.050,0.000,0.000,0.000
1644347743542787072,2022-02-08-19:15:43,10.1.1.7,33,0.040,0.040,0.040,0.000,0.000,0.000
1644347743643651840,2022-02-08-19:15:43,10.1.1.7,33,0.030,0.030,0.030,0.000,0.000,0.000
1644347743741928192,2022-02-08-19:15:43,10.1.1.7,32,0.020,0.020,0.020,0.000,0.000,0.000
1644347743841425920,2022-02-08-19:15:43,10.1.1.7,31,0.010,0.010,0.010,0.000,0.000,0.000
1644347743941865984,2022-02-08-19:15:43,10.1.1.7,28,0.000,0.000,0.000,0.000,0.000,0.000
1644347744041306880,2022-02-08-19:15:44,10.1.1.7,28,-0.010,-0.010,-0.010,0.000,0.000,0.000
1644347744141829120,2022-02-08-19:15:44,10.1.1.7,27,-0.020,-0.020,-0.020,0.000,0.000,0.000
1644347744241138944,2022-02-08-19:15:44,10.1.1.7,27,-0.030,-0.030,-0.030,0.000,0.000,0.000
1644347744341600768,2022-02-08-19:15:44,10.1.1.7,26,-0.040,-0.040,-0.040,0.000,0.000,0.000
1644347744442110976,2022-02-08-19:15:44,10.1.1.7,25,-0.050,-0.050,-0.050,0.000,0.000,0.000
1644347744541473024,2022-02-08-19:15:44,10.1.1.7,24,-0.060,-0.060,-0.060,0.000,0.000,0.000
1644347744641709056,2022-02-08-19:15:44,10.1.1.7,24,-0.070,-0.070,-0.070,0.000,0.000,0.000
1644347744761558016,2022-02-08-19:15:44,10.1.1.7,37,-0.080,-0.080,-0.080,0.000,0.000,0.000
1644347744861548800,2022-02-08-19:15:44,10.1.1.7,36,-0.090,-0.090,-0.090,0.000,0.000,0.000
1644347744961918208,2022-02-08-19:15:44,10.1.1.7,36,-0.100,-0.100,-0.100,0.000,0.000,0.000
1644347745061494016,2022-02-08-19:15:45,10.1.1.7,35,-0.090,-0.090,-0.090,0.000,0.000,0.000
1644347745160964864,2022-02-08-19:15:45,10.1.1.7,34,-0.080,-0.080,-0.080,0.000,0.000,0.000
1644347745261154816,2022-02-08-19:15:45,10.1.1.7,33,-0.070,-0.070,-0.070,0.000,0.000,0.000
1644347745361915136,2022-02-08-19:15:45,10.1.1.7,33,-0.060,-0.060,-0.060,0.000,0.000,0.000
1644347745462009856,2022-02-08-19:15:45,10.1.1.7,33,-0.050,-0.050,-0.050,0.000,0.000,0.000
1644347745561928960,2022-02-08-19:15:45,10.1.1.7,32,-0.040,-0.040,-0.040,0.000,0.000,0.000
1644347745662857984,2022-02-08-19:15:45,10.1.1.7,32,-0.030,-0.030,-0.030,0.000,0.000,0.000
1644347745761858816,2022-02-08-19:15:45,10.1.1.7,31,-0.020,-0.020,-0.020,0.000,0.000,0.000
1644347745861954816,2022-02-08-19:15:45,10.1.1.7,31,-0.010,-0.010,-0.010,0.000,0.000,0.000
1644347745961550080,2022-02-08-19:15:45,10.1.1.7,31,0.000,0.000,0.000,0.000,0.000,0.000
1644347746061414912,2022-02-08-19:15:46,10.1.1.7,29,0.010,0.010,0.010,0.000,0.000,0.000
1644347746161672960,2022-02-08-19:15:46,10.1.1.7,27,0.020,0.020,0.020,0.000,0.000,0.000
1644347746261168896,2022-02-08-19:15:46,10.1.1.7,27,0.030,0.030,0.030,0.000,0.000,0.000
1644347746361325056,2022-02-08-19:15:46,10.1.1.7,27,0.040,0.040,0.040,0.000,0.000,0.000
1644347746461061888,2022-02-08-19:15:46,10.1.1.7,26,0.050,0.050,0.050,0.000,0.000,0.000
1644347746562011904,2022-02-08-19:15:46,10.1.1.7,26,0.060,0.060,0.060,0.000,0.000,0.000
1644347746660676096,2022-02-08-19:15:46,10.1.1.7,25,0.070,0.070,0.070,0.000,0.000,0.000
1644347746761447936,2022-02-08-19:15:46,10.1.1.7,25,0.080,0.080,0.080,0.000,0.000,0.000
1644347746861420032,2022-02-08-19:15:46,10.1.1.7,24,0.090,0.090,0.090,0.000,0.000,0.000
1644347746961432064,2022-02-08-19:15:46,10.1.1.7,23,0.100,0.100,0.100,0.000,0.000,0.000
1644347747061366016,2022-02-08-19:15:47,10.1.1.7,23,0.090,0.090,0.090,0.000,0.000,0.000
1644347747161516032,2022-02-08-19:15:47,10.1.1.7,22,0.080,0.080,0.080,0.000,0.000,0.000
1644347747261286144,2022-02-08-19:15:47,10.1.1.7,22,0.070,0.070,0.070,0.000,0.000,0.000
1644347747361611008,2022-02-08-19:15:47,10.1.1.7,22,0.060,0.060,0.060,0.000,0.000,0.000
1644347747461383168,2022-02-08-19:15:47,10.1.1.7,21,0.050,0.050,0.050,0.000,0.000,0.000
1644347747561402112,2022-02-08-19:15:47,10.1.1.7,20,0.040,0.040,0.040,0.000,0.000,0.000
1644347747661051136,2022-02-08-19:15:47,10.1.1.7,20,0.030,0.030,0.030,0.000,0.000,0.000
1644347747761782784,2022-02-08-19:15:47,10.1.1.7,19,0.020,0.020,0.020,0.000,0.000,0.000
1644347747861166848,2022-02-08-19:15:47,10.1.1.7,19,0.010,0.010,0.010,0.000,0.000,0.000
1644347747981571072,2022-02-08-19:15:47,10.1.1.7,38,0.000,0.000,0.000,0.000,0.000,0.000
1644347748081093120,2022-02-08-19:15:48,10.1.1.7,38,-0.010,-0.010,-0.010,0.000,0.000,0.000
1644347748182596096,2022-02-08-19:15:48,10.1.1.7,36,-0.020,-0.020,-0.020,0.000,0.000,0.000
1644347748287106048,2022-02-08-19:15:48,10.1.1.7,35,-0.030,-0.030,-0.030,0.000,0.000,0.000
1644347748380709888,2022-02-08-19:15:48,10.1.1.7,35,-0.040,-0.040,-0.040,0.000,0.000,0.000
1644347748481210112,2022-02-08-19:15:48,10.1.1.7,34,-0.050,-0.050,-0.050,0.000,0.000,0.000
