FedericoMungari/DigitalTwin_service/01_WiredScenario/Output/Output_script/script_rosapi_2_output_robots4_freq0_4.txt
timestamp,date,node,latency,joint_1,joint_2,joint_3,joint_4,joint_5,joint_6
1641079830133218048,2022-01-01-23:30:30,10.1.1.5,153,-0.010,-0.010,-0.010,0.000,0.000,0.000
1641079830333463808,2022-01-01-23:30:30,10.1.1.5,151,-0.020,-0.020,-0.020,0.000,0.000,0.000
1641079830535186176,2022-01-01-23:30:30,10.1.1.5,151,-0.030,-0.030,-0.030,0.000,0.000,0.000
1641079830734040064,2022-01-01-23:30:30,10.1.1.5,148,-0.040,-0.040,-0.040,0.000,0.000,0.000
1641079830935564032,2022-01-01-23:30:30,10.1.1.5,149,-0.050,-0.050,-0.050,0.000,0.000,0.000
1641079831134565120,2022-01-01-23:30:31,10.1.1.5,146,-0.060,-0.060,-0.060,0.000,0.000,0.000
1641079831334831872,2022-01-01-23:30:31,10.1.1.5,146,-0.070,-0.070,-0.070,0.000,0.000,0.000
1641079831534514944,2022-01-01-23:30:31,10.1.1.5,144,-0.080,-0.080,-0.080,0.000,0.000,0.000
1641079831736471808,2022-01-01-23:30:31,10.1.1.5,146,-0.090,-0.090,-0.090,0.000,0.000,0.000
1641079831936161024,2022-01-01-23:30:31,10.1.1.5,145,-0.100,-0.100,-0.100,0.000,0.000,0.000
1641079832156131072,2022-01-01-23:30:32,10.1.1.5,164,-0.110,-0.110,-0.110,0.000,0.000,0.000
1641079832336410880,2022-01-01-23:30:32,10.1.1.5,143,-0.120,-0.120,-0.120,0.000,0.000,0.000
1641079832555844096,2022-01-01-23:30:32,10.1.1.5,160,-0.130,-0.130,-0.130,0.000,0.000,0.000
1641079832756692992,2022-01-01-23:30:32,10.1.1.5,160,-0.140,-0.140,-0.140,0.000,0.000,0.000
1641079832946803968,2022-01-01-23:30:32,10.1.1.5,149,-0.150,-0.150,-0.150,0.000,0.000,0.000
1641079833158642176,2022-01-01-23:30:33,10.1.1.5,159,-0.160,-0.160,-0.160,0.000,0.000,0.000
1641079833357188096,2022-01-01-23:30:33,10.1.1.5,157,-0.170,-0.170,-0.170,0.000,0.000,0.000
1641079833557188864,2022-01-01-23:30:33,10.1.1.5,156,-0.180,-0.180,-0.180,0.000,0.000,0.000
1641079833749838080,2022-01-01-23:30:33,10.1.1.5,145,-0.190,-0.190,-0.190,0.000,0.000,0.000
1641079833947369984,2022-01-01-23:30:33,10.1.1.5,144,-0.200,-0.200,-0.200,0.000,0.000,0.000
1641079834158849024,2022-01-01-23:30:34,10.1.1.5,154,-0.210,-0.210,-0.210,0.000,0.000,0.000
1641079834358455808,2022-01-01-23:30:34,10.1.1.5,150,-0.220,-0.220,-0.220,0.000,0.000,0.000
1641079834558934016,2022-01-01-23:30:34,10.1.1.5,147,-0.230,-0.230,-0.230,0.000,0.000,0.000
1641079834757563136,2022-01-01-23:30:34,10.1.1.5,144,-0.240,-0.240,-0.240,0.000,0.000,0.000
1641079834978138880,2022-01-01-23:30:34,10.1.1.5,163,-0.250,-0.250,-0.250,0.000,0.000,0.000
1641079835178600192,2022-01-01-23:30:35,10.1.1.5,162,-0.260,-0.260,-0.260,0.000,0.000,0.000
1641079835379996160,2022-01-01-23:30:35,10.1.1.5,161,-0.270,-0.270,-0.270,0.000,0.000,0.000
1641079835581708800,2022-01-01-23:30:35,10.1.1.5,161,-0.280,-0.280,-0.280,0.000,0.000,0.000
1641079835778304000,2022-01-01-23:30:35,10.1.1.5,157,-0.290,-0.290,-0.290,0.000,0.000,0.000
1641079835979049984,2022-01-01-23:30:35,10.1.1.5,157,-0.300,-0.300,-0.300,0.000,0.000,0.000
1641079836177704960,2022-01-01-23:30:36,10.1.1.5,153,-0.310,-0.310,-0.310,0.000,0.000,0.000
1641079836399588096,2022-01-01-23:30:36,10.1.1.5,173,-0.320,-0.320,-0.320,0.000,0.000,0.000
1641079836581304064,2022-01-01-23:30:36,10.1.1.5,153,-0.330,-0.330,-0.330,0.000,0.000,0.000
1641079836782084096,2022-01-01-23:30:36,10.1.1.5,152,-0.340,-0.340,-0.340,0.000,0.000,0.000
1641079836980854016,2022-01-01-23:30:36,10.1.1.5,148,-0.350,-0.350,-0.350,0.000,0.000,0.000
1641079837179287040,2022-01-01-23:30:37,10.1.1.5,146,-0.360,-0.360,-0.360,0.000,0.000,0.000
1641079837378787072,2022-01-01-23:30:37,10.1.1.5,145,-0.370,-0.370,-0.370,0.000,0.000,0.000
1641079837599812864,2022-01-01-23:30:37,10.1.1.5,165,-0.380,-0.380,-0.380,0.000,0.000,0.000
1641079837801747200,2022-01-01-23:30:37,10.1.1.5,166,-0.390,-0.390,-0.390,0.000,0.000,0.000
1641079837999303168,2022-01-01-23:30:37,10.1.1.5,163,-0.400,-0.400,-0.400,0.000,0.000,0.000
1641079838199642880,2022-01-01-23:30:38,10.1.1.5,162,-0.410,-0.410,-0.410,0.000,0.000,0.000
1641079838399297024,2022-01-01-23:30:38,10.1.1.5,160,-0.420,-0.420,-0.420,0.000,0.000,0.000
1641079838600385792,2022-01-01-23:30:38,10.1.1.5,160,-0.430,-0.430,-0.430,0.000,0.000,0.000
1641079838800733952,2022-01-01-23:30:38,10.1.1.5,156,-0.440,-0.440,-0.440,0.000,0.000,0.000
1641079839001713920,2022-01-01-23:30:39,10.1.1.5,155,-0.450,-0.450,-0.450,0.000,0.000,0.000
1641079839199440128,2022-01-01-23:30:39,10.1.1.5,152,-0.460,-0.460,-0.460,0.000,0.000,0.000
1641079839400461056,2022-01-01-23:30:39,10.1.1.5,152,-0.470,-0.470,-0.470,0.000,0.000,0.000
1641079839620201216,2022-01-01-23:30:39,10.1.1.5,171,-0.480,-0.480,-0.480,0.000,0.000,0.000
1641079839799771136,2022-01-01-23:30:39,10.1.1.5,149,-0.490,-0.490,-0.490,0.000,0.000,0.000
1641079840000963840,2022-01-01-23:30:40,10.1.1.5,147,-0.480,-0.480,-0.480,0.000,0.000,0.000
1641079840200225024,2022-01-01-23:30:40,10.1.1.5,146,-0.470,-0.470,-0.470,0.000,0.000,0.000
1641079840419922176,2022-01-01-23:30:40,10.1.1.5,165,-0.460,-0.460,-0.460,0.000,0.000,0.000
1641079840620329984,2022-01-01-23:30:40,10.1.1.5,163,-0.450,-0.450,-0.450,0.000,0.000,0.000
1641079840820858112,2022-01-01-23:30:40,10.1.1.5,161,-0.440,-0.440,-0.440,0.000,0.000,0.000
1641079841021133824,2022-01-01-23:30:41,10.1.1.5,160,-0.430,-0.430,-0.430,0.000,0.000,0.000
1641079841062966016,2022-01-01-23:30:41,10.1.1.5,-2,-0.430,-0.430,-0.430,0.000,0.000,0.000
1641079841420691968,2022-01-01-23:30:41,10.1.1.5,156,-0.410,-0.410,-0.410,0.000,0.000,0.000
1641079841619867136,2022-01-01-23:30:41,10.1.1.5,155,-0.400,-0.400,-0.400,0.000,0.000,0.000
1641079841820038912,2022-01-01-23:30:41,10.1.1.5,153,-0.390,-0.390,-0.390,0.000,0.000,0.000
1641079842039283968,2022-01-01-23:30:42,10.1.1.5,172,-0.380,-0.380,-0.380,0.000,0.000,0.000
1641079842219088128,2022-01-01-23:30:42,10.1.1.5,151,-0.370,-0.370,-0.370,0.000,0.000,0.000
1641079842438585088,2022-01-01-23:30:42,10.1.1.5,170,-0.360,-0.360,-0.360,0.000,0.000,0.000
1641079842622392064,2022-01-01-23:30:42,10.1.1.5,150,-0.350,-0.350,-0.350,0.000,0.000,0.000
1641079842819969024,2022-01-01-23:30:42,10.1.1.5,148,-0.340,-0.340,-0.340,0.000,0.000,0.000
1641079843020907008,2022-01-01-23:30:43,10.1.1.5,148,-0.330,-0.330,-0.330,0.000,0.000,0.000
1641079843238969088,2022-01-01-23:30:43,10.1.1.5,165,-0.320,-0.320,-0.320,0.000,0.000,0.000
1641079843438433024,2022-01-01-23:30:43,10.1.1.5,158,-0.310,-0.310,-0.310,0.000,0.000,0.000
1641079843629864960,2022-01-01-23:30:43,10.1.1.5,148,-0.300,-0.300,-0.300,0.000,0.000,0.000
1641079843852878080,2022-01-01-23:30:43,10.1.1.5,168,-0.290,-0.290,-0.290,0.000,0.000,0.000
1641079844038393856,2022-01-01-23:30:44,10.1.1.5,153,-0.280,-0.280,-0.280,0.000,0.000,0.000
1641079844239005184,2022-01-01-23:30:44,10.1.1.5,153,-0.270,-0.270,-0.270,0.000,0.000,0.000
1641079844439127040,2022-01-01-23:30:44,10.1.1.5,152,-0.260,-0.260,-0.260,0.000,0.000,0.000
1641079844638632960,2022-01-01-23:30:44,10.1.1.5,151,-0.250,-0.250,-0.250,0.000,0.000,0.000
1641079844837629952,2022-01-01-23:30:44,10.1.1.5,145,-0.240,-0.240,-0.240,0.000,0.000,0.000
1641079845053498112,2022-01-01-23:30:45,10.1.1.5,157,-0.230,-0.230,-0.230,0.000,0.000,0.000
1641079845260952832,2022-01-01-23:30:45,10.1.1.5,163,-0.220,-0.220,-0.220,0.000,0.000,0.000
1641079845448411904,2022-01-01-23:30:45,10.1.1.5,150,-0.210,-0.210,-0.210,0.000,0.000,0.000
1641079845660713984,2022-01-01-23:30:45,10.1.1.5,162,-0.200,-0.200,-0.200,0.000,0.000,0.000
1641079845858071040,2022-01-01-23:30:45,10.1.1.5,152,-0.190,-0.190,-0.190,0.000,0.000,0.000
1641079846062249984,2022-01-01-23:30:46,10.1.1.5,155,-0.180,-0.180,-0.180,0.000,0.000,0.000
1641079846257761024,2022-01-01-23:30:46,10.1.1.5,150,-0.170,-0.170,-0.170,0.000,0.000,0.000
1641079846457057024,2022-01-01-23:30:46,10.1.1.5,149,-0.160,-0.160,-0.160,0.000,0.000,0.000
1641079846658284032,2022-01-01-23:30:46,10.1.1.5,148,-0.150,-0.150,-0.150,0.000,0.000,0.000
1641079846857357056,2022-01-01-23:30:46,10.1.1.5,145,-0.140,-0.140,-0.140,0.000,0.000,0.000
1641079847058176000,2022-01-01-23:30:47,10.1.1.5,145,-0.130,-0.130,-0.130,0.000,0.000,0.000
1641079847257293056,2022-01-01-23:30:47,10.1.1.5,143,-0.120,-0.120,-0.120,0.000,0.000,0.000
1641079847468506112,2022-01-01-23:30:47,10.1.1.5,153,-0.110,-0.110,-0.110,0.000,0.000,0.000
1641079847669852928,2022-01-01-23:30:47,10.1.1.5,150,-0.100,-0.100,-0.100,0.000,0.000,0.000
1641079847877656832,2022-01-01-23:30:47,10.1.1.5,157,-0.090,-0.090,-0.090,0.000,0.000,0.000
1641079848077153024,2022-01-01-23:30:48,10.1.1.5,156,-0.080,-0.080,-0.080,0.000,0.000,0.000
1641079848277497088,2022-01-01-23:30:48,10.1.1.5,155,-0.070,-0.070,-0.070,0.000,0.000,0.000
1641079848476467968,2022-01-01-23:30:48,10.1.1.5,153,-0.060,-0.060,-0.060,0.000,0.000,0.000
1641079848677752064,2022-01-01-23:30:48,10.1.1.5,153,-0.050,-0.050,-0.050,0.000,0.000,0.000
1641079848877368832,2022-01-01-23:30:48,10.1.1.5,152,-0.040,-0.040,-0.040,0.000,0.000,0.000
1641079849099255040,2022-01-01-23:30:49,10.1.1.5,173,-0.030,-0.030,-0.030,0.000,0.000,0.000
1641079849276544000,2022-01-01-23:30:49,10.1.1.5,149,-0.020,-0.020,-0.020,0.000,0.000,0.000
1641079849475730944,2022-01-01-23:30:49,10.1.1.5,143,-0.010,-0.010,-0.010,0.000,0.000,0.000
1641079849677512960,2022-01-01-23:30:49,10.1.1.5,144,-0.000,-0.000,-0.000,0.000,0.000,0.000
1641079849895816192,2022-01-01-23:30:49,10.1.1.5,160,-0.010,-0.010,-0.010,0.000,0.000,0.000
1641079849937448960,2022-01-01-23:30:49,10.1.1.5,-1,-0.010,-0.010,-0.010,0.000,0.000,0.000
1641079850286648064,2022-01-01-23:30:50,10.1.1.5,148,-0.030,-0.030,-0.030,0.000,0.000,0.000
1641079850495051008,2022-01-01-23:30:50,10.1.1.5,156,-0.040,-0.040,-0.040,0.000,0.000,0.000
1641079850685102848,2022-01-01-23:30:50,10.1.1.5,145,-0.050,-0.050,-0.050,0.000,0.000,0.000
1641079850897070848,2022-01-01-23:30:50,10.1.1.5,156,-0.060,-0.060,-0.060,0.000,0.000,0.000
1641079851094364928,2022-01-01-23:30:51,10.1.1.5,152,-0.070,-0.070,-0.070,0.000,0.000,0.000
1641079851294706944,2022-01-01-23:30:51,10.1.1.5,150,-0.080,-0.080,-0.080,0.000,0.000,0.000
1641079851494683904,2022-01-01-23:30:51,10.1.1.5,150,-0.090,-0.090,-0.090,0.000,0.000,0.000
1641079851694777856,2022-01-01-23:30:51,10.1.1.5,148,-0.100,-0.100,-0.100,0.000,0.000,0.000
1641079851893944064,2022-01-01-23:30:51,10.1.1.5,146,-0.110,-0.110,-0.110,0.000,0.000,0.000
1641079852093596928,2022-01-01-23:30:52,10.1.1.5,142,-0.120,-0.120,-0.120,0.000,0.000,0.000
1641079852294118912,2022-01-01-23:30:52,10.1.1.5,140,-0.130,-0.130,-0.130,0.000,0.000,0.000
1641079852513870080,2022-01-01-23:30:52,10.1.1.5,158,-0.140,-0.140,-0.140,0.000,0.000,0.000
1641079852713484032,2022-01-01-23:30:52,10.1.1.5,157,-0.150,-0.150,-0.150,0.000,0.000,0.000
1641079852913316864,2022-01-01-23:30:52,10.1.1.5,156,-0.160,-0.160,-0.160,0.000,0.000,0.000
1641079853105084928,2022-01-01-23:30:53,10.1.1.5,146,-0.170,-0.170,-0.170,0.000,0.000,0.000
1641079853313272832,2022-01-01-23:30:53,10.1.1.5,153,-0.180,-0.180,-0.180,0.000,0.000,0.000
1641079853511966976,2022-01-01-23:30:53,10.1.1.5,151,-0.190,-0.190,-0.190,0.000,0.000,0.000
1641079853711642880,2022-01-01-23:30:53,10.1.1.5,150,-0.200,-0.200,-0.200,0.000,0.000,0.000
1641079853902579968,2022-01-01-23:30:53,10.1.1.5,140,-0.210,-0.210,-0.210,0.000,0.000,0.000
1641079854103655168,2022-01-01-23:30:54,10.1.1.5,139,-0.220,-0.220,-0.220,0.000,0.000,0.000
1641079854314691072,2022-01-01-23:30:54,10.1.1.5,149,-0.230,-0.230,-0.230,0.000,0.000,0.000
1641079854511503872,2022-01-01-23:30:54,10.1.1.5,145,-0.240,-0.240,-0.240,0.000,0.000,0.000
1641079854712083968,2022-01-01-23:30:54,10.1.1.5,143,-0.250,-0.250,-0.250,0.000,0.000,0.000
1641079854912580864,2022-01-01-23:30:54,10.1.1.5,142,-0.260,-0.260,-0.260,0.000,0.000,0.000
1641079855111169024,2022-01-01-23:30:55,10.1.1.5,139,-0.270,-0.270,-0.270,0.000,0.000,0.000
1641079855311265024,2022-01-01-23:30:55,10.1.1.5,138,-0.280,-0.280,-0.280,0.000,0.000,0.000
1641079855524357120,2022-01-01-23:30:55,10.1.1.5,148,-0.290,-0.290,-0.290,0.000,0.000,0.000
1641079855731472896,2022-01-01-23:30:55,10.1.1.5,152,-0.300,-0.300,-0.300,0.000,0.000,0.000
1641079855930910976,2022-01-01-23:30:55,10.1.1.5,147,-0.310,-0.310,-0.310,0.000,0.000,0.000
1641079856131348992,2022-01-01-23:30:56,10.1.1.5,146,-0.320,-0.320,-0.320,0.000,0.000,0.000
1641079856329985024,2022-01-01-23:30:56,10.1.1.5,144,-0.330,-0.330,-0.330,0.000,0.000,0.000
1641079856529849088,2022-01-01-23:30:56,10.1.1.5,142,-0.340,-0.340,-0.340,0.000,0.000,0.000
1641079856731197952,2022-01-01-23:30:56,10.1.1.5,141,-0.350,-0.350,-0.350,0.000,0.000,0.000
1641079856930541056,2022-01-01-23:30:56,10.1.1.5,140,-0.360,-0.360,-0.360,0.000,0.000,0.000
1641079857129498880,2022-01-01-23:30:57,10.1.1.5,138,-0.370,-0.370,-0.370,0.000,0.000,0.000
1641079857329261056,2022-01-01-23:30:57,10.1.1.5,136,-0.380,-0.380,-0.380,0.000,0.000,0.000
1641079857548465920,2022-01-01-23:30:57,10.1.1.5,153,-0.390,-0.390,-0.390,0.000,0.000,0.000
1641079857749104128,2022-01-01-23:30:57,10.1.1.5,152,-0.400,-0.400,-0.400,0.000,0.000,0.000
1641079857948209920,2022-01-01-23:30:57,10.1.1.5,150,-0.410,-0.410,-0.410,0.000,0.000,0.000
1641079858147684096,2022-01-01-23:30:58,10.1.1.5,149,-0.420,-0.420,-0.420,0.000,0.000,0.000
1641079858346656000,2022-01-01-23:30:58,10.1.1.5,146,-0.430,-0.430,-0.430,0.000,0.000,0.000
1641079858548075008,2022-01-01-23:30:58,10.1.1.5,145,-0.440,-0.440,-0.440,0.000,0.000,0.000
1641079858767862016,2022-01-01-23:30:58,10.1.1.5,160,-0.450,-0.450,-0.450,0.000,0.000,0.000
1641079858946633216,2022-01-01-23:30:58,10.1.1.5,138,-0.460,-0.460,-0.460,0.000,0.000,0.000
1641079859146004992,2022-01-01-23:30:59,10.1.1.5,136,-0.470,-0.470,-0.470,0.000,0.000,0.000
1641079859345544192,2022-01-01-23:30:59,10.1.1.5,134,-0.480,-0.480,-0.480,0.000,0.000,0.000
1641079859546381056,2022-01-01-23:30:59,10.1.1.5,134,-0.490,-0.490,-0.490,0.000,0.000,0.000
1641079859746521856,2022-01-01-23:30:59,10.1.1.5,133,-0.480,-0.480,-0.480,0.000,0.000,0.000
1641079859966123008,2022-01-01-23:30:59,10.1.1.5,152,-0.470,-0.470,-0.470,0.000,0.000,0.000
1641079860166022912,2022-01-01-23:31:00,10.1.1.5,151,-0.460,-0.460,-0.460,0.000,0.000,0.000
1641079860366797056,2022-01-01-23:31:00,10.1.1.5,151,-0.450,-0.450,-0.450,0.000,0.000,0.000
1641079860557376000,2022-01-01-23:31:00,10.1.1.5,140,-0.440,-0.440,-0.440,0.000,0.000,0.000
1641079860767924992,2022-01-01-23:31:00,10.1.1.5,148,-0.430,-0.430,-0.430,0.000,0.000,0.000
1641079860965414912,2022-01-01-23:31:00,10.1.1.5,145,-0.420,-0.420,-0.420,0.000,0.000,0.000
1641079861164722944,2022-01-01-23:31:01,10.1.1.5,143,-0.410,-0.410,-0.410,0.000,0.000,0.000
1641079861355458048,2022-01-01-23:31:01,10.1.1.5,131,-0.400,-0.400,-0.400,0.000,0.000,0.000
1641079861566864896,2022-01-01-23:31:01,10.1.1.5,142,-0.390,-0.390,-0.390,0.000,0.000,0.000
1641079861772933888,2022-01-01-23:31:01,10.1.1.5,146,-0.380,-0.380,-0.380,0.000,0.000,0.000
1641079861964006912,2022-01-01-23:31:01,10.1.1.5,136,-0.370,-0.370,-0.370,0.000,0.000,0.000
1641079862172624128,2022-01-01-23:31:02,10.1.1.5,143,-0.360,-0.360,-0.360,0.000,0.000,0.000
1641079862363728128,2022-01-01-23:31:02,10.1.1.5,133,-0.350,-0.350,-0.350,0.000,0.000,0.000
1641079862582384128,2022-01-01-23:31:02,10.1.1.5,150,-0.340,-0.340,-0.340,0.000,0.000,0.000
1641079862783787008,2022-01-01-23:31:02,10.1.1.5,148,-0.330,-0.330,-0.330,0.000,0.000,0.000
1641079862974076160,2022-01-01-23:31:02,10.1.1.5,137,-0.320,-0.320,-0.320,0.000,0.000,0.000
1641079863171809792,2022-01-01-23:31:03,10.1.1.5,131,-0.310,-0.310,-0.310,0.000,0.000,0.000
1641079863382422016,2022-01-01-23:31:03,10.1.1.5,137,-0.300,-0.300,-0.300,0.000,0.000,0.000
1641079863571805952,2022-01-01-23:31:03,10.1.1.5,126,-0.290,-0.290,-0.290,0.000,0.000,0.000
1641079863780329984,2022-01-01-23:31:03,10.1.1.5,135,-0.280,-0.280,-0.280,0.000,0.000,0.000
1641079863980438016,2022-01-01-23:31:03,10.1.1.5,134,-0.270,-0.270,-0.270,0.000,0.000,0.000
1641079864180195072,2022-01-01-23:31:04,10.1.1.5,133,-0.260,-0.260,-0.260,0.000,0.000,0.000
1641079864379635968,2022-01-01-23:31:04,10.1.1.5,131,-0.250,-0.250,-0.250,0.000,0.000,0.000
1641079864599208192,2022-01-01-23:31:04,10.1.1.5,150,-0.240,-0.240,-0.240,0.000,0.000,0.000
1641079864778772992,2022-01-01-23:31:04,10.1.1.5,127,-0.230,-0.230,-0.230,0.000,0.000,0.000
1641079864979064064,2022-01-01-23:31:04,10.1.1.5,126,-0.220,-0.220,-0.220,0.000,0.000,0.000
1641079865179826944,2022-01-01-23:31:05,10.1.1.5,126,-0.210,-0.210,-0.210,0.000,0.000,0.000
1641079865400619008,2022-01-01-23:31:05,10.1.1.5,146,-0.200,-0.200,-0.200,0.000,0.000,0.000
1641079865599621888,2022-01-01-23:31:05,10.1.1.5,143,-0.190,-0.190,-0.190,0.000,0.000,0.000
1641079865797488896,2022-01-01-23:31:05,10.1.1.5,141,-0.180,-0.180,-0.180,0.000,0.000,0.000
1641079865992876032,2022-01-01-23:31:05,10.1.1.5,135,-0.170,-0.170,-0.170,0.000,0.000,0.000
1641079866198804992,2022-01-01-23:31:06,10.1.1.5,138,-0.160,-0.160,-0.160,0.000,0.000,0.000
1641079866397349120,2022-01-01-23:31:06,10.1.1.5,135,-0.150,-0.150,-0.150,0.000,0.000,0.000
1641079866597549824,2022-01-01-23:31:06,10.1.1.5,134,-0.140,-0.140,-0.140,0.000,0.000,0.000
1641079866795779840,2022-01-01-23:31:06,10.1.1.5,132,-0.130,-0.130,-0.130,0.000,0.000,0.000
1641079866996714240,2022-01-01-23:31:06,10.1.1.5,132,-0.120,-0.120,-0.120,0.000,0.000,0.000
1641079867196235008,2022-01-01-23:31:07,10.1.1.5,128,-0.110,-0.110,-0.110,0.000,0.000,0.000
1641079867395174912,2022-01-01-23:31:07,10.1.1.5,126,-0.100,-0.100,-0.100,0.000,0.000,0.000
1641079867595709184,2022-01-01-23:31:07,10.1.1.5,124,-0.090,-0.090,-0.090,0.000,0.000,0.000
1641079867814348032,2022-01-01-23:31:07,10.1.1.5,142,-0.080,-0.080,-0.080,0.000,0.000,0.000
1641079867994447104,2022-01-01-23:31:07,10.1.1.5,121,-0.070,-0.070,-0.070,0.000,0.000,0.000
1641079868214780160,2022-01-01-23:31:08,10.1.1.5,140,-0.060,-0.060,-0.060,0.000,0.000,0.000
1641079868413743104,2022-01-01-23:31:08,10.1.1.5,138,-0.050,-0.050,-0.050,0.000,0.000,0.000
1641079868612878080,2022-01-01-23:31:08,10.1.1.5,137,-0.040,-0.040,-0.040,0.000,0.000,0.000
1641079868814734848,2022-01-01-23:31:08,10.1.1.5,138,-0.030,-0.030,-0.030,0.000,0.000,0.000
1641079869006056960,2022-01-01-23:31:09,10.1.1.5,128,-0.020,-0.020,-0.020,0.000,0.000,0.000
1641079869214296064,2022-01-01-23:31:09,10.1.1.5,136,-0.010,-0.010,-0.010,0.000,0.000,0.000
1641079869412153856,2022-01-01-23:31:09,10.1.1.5,132,0.000,0.000,0.000,0.000,0.000,0.000
1641079869613950976,2022-01-01-23:31:09,10.1.1.5,132,-0.010,-0.010,-0.010,0.000,0.000,0.000
1641079869811922944,2022-01-01-23:31:09,10.1.1.5,129,-0.020,-0.020,-0.020,0.000,0.000,0.000
1641079870011347968,2022-01-01-23:31:10,10.1.1.5,126,-0.030,-0.030,-0.030,0.000,0.000,0.000
1641079870231373056,2022-01-01-23:31:10,10.1.1.5,145,-0.040,-0.040,-0.040,0.000,0.000,0.000
1641079870411397888,2022-01-01-23:31:10,10.1.1.5,124,-0.050,-0.050,-0.050,0.000,0.000,0.000
1641079870612025856,2022-01-01-23:31:10,10.1.1.5,123,-0.060,-0.060,-0.060,0.000,0.000,0.000
1641079870810142976,2022-01-01-23:31:10,10.1.1.5,120,-0.070,-0.070,-0.070,0.000,0.000,0.000
1641079871009778944,2022-01-01-23:31:11,10.1.1.5,117,-0.080,-0.080,-0.080,0.000,0.000,0.000
1641079871210967040,2022-01-01-23:31:11,10.1.1.5,118,-0.090,-0.090,-0.090,0.000,0.000,0.000
1641079871430539008,2022-01-01-23:31:11,10.1.1.5,136,-0.100,-0.100,-0.100,0.000,0.000,0.000
1641079871631994112,2022-01-01-23:31:11,10.1.1.5,136,-0.110,-0.110,-0.110,0.000,0.000,0.000
1641079871828620800,2022-01-01-23:31:11,10.1.1.5,131,-0.120,-0.120,-0.120,0.000,0.000,0.000
1641079872029826048,2022-01-01-23:31:12,10.1.1.5,131,-0.130,-0.130,-0.130,0.000,0.000,0.000
1641079872229245952,2022-01-01-23:31:12,10.1.1.5,129,-0.140,-0.140,-0.140,0.000,0.000,0.000
1641079872422208000,2022-01-01-23:31:12,10.1.1.5,120,-0.150,-0.150,-0.150,0.000,0.000,0.000
1641079872627016960,2022-01-01-23:31:12,10.1.1.5,123,-0.160,-0.160,-0.160,0.000,0.000,0.000
1641079872827568128,2022-01-01-23:31:12,10.1.1.5,120,-0.170,-0.170,-0.170,0.000,0.000,0.000
1641079873027643904,2022-01-01-23:31:13,10.1.1.5,118,-0.180,-0.180,-0.180,0.000,0.000,0.000
1641079873231343872,2022-01-01-23:31:13,10.1.1.5,121,-0.190,-0.190,-0.190,0.000,0.000,0.000
1641079873426800896,2022-01-01-23:31:13,10.1.1.5,116,-0.200,-0.200,-0.200,0.000,0.000,0.000
1641079873627768064,2022-01-01-23:31:13,10.1.1.5,115,-0.210,-0.210,-0.210,0.000,0.000,0.000
1641079873826940160,2022-01-01-23:31:13,10.1.1.5,114,-0.220,-0.220,-0.220,0.000,0.000,0.000
1641079874027136000,2022-01-01-23:31:14,10.1.1.5,113,-0.230,-0.230,-0.230,0.000,0.000,0.000
1641079874246139136,2022-01-01-23:31:14,10.1.1.5,131,-0.240,-0.240,-0.240,0.000,0.000,0.000
1641079874446403072,2022-01-01-23:31:14,10.1.1.5,129,-0.250,-0.250,-0.250,0.000,0.000,0.000
1641079874646611968,2022-01-01-23:31:14,10.1.1.5,128,-0.260,-0.260,-0.260,0.000,0.000,0.000
1641079874844803072,2022-01-01-23:31:14,10.1.1.5,125,-0.270,-0.270,-0.270,0.000,0.000,0.000
1641079875043796992,2022-01-01-23:31:15,10.1.1.5,122,-0.280,-0.280,-0.280,0.000,0.000,0.000
1641079875243710976,2022-01-01-23:31:15,10.1.1.5,121,-0.290,-0.290,-0.290,0.000,0.000,0.000
1641079875444248064,2022-01-01-23:31:15,10.1.1.5,120,-0.300,-0.300,-0.300,0.000,0.000,0.000
1641079875643141120,2022-01-01-23:31:15,10.1.1.5,117,-0.310,-0.310,-0.310,0.000,0.000,0.000
1641079875842984960,2022-01-01-23:31:15,10.1.1.5,116,-0.320,-0.320,-0.320,0.000,0.000,0.000
1641079876042320128,2022-01-01-23:31:16,10.1.1.5,114,-0.330,-0.330,-0.330,0.000,0.000,0.000
1641079876241462016,2022-01-01-23:31:16,10.1.1.5,112,-0.340,-0.340,-0.340,0.000,0.000,0.000
1641079876442918144,2022-01-01-23:31:16,10.1.1.5,113,-0.350,-0.350,-0.350,0.000,0.000,0.000
1641079876641968128,2022-01-01-23:31:16,10.1.1.5,110,-0.360,-0.360,-0.360,0.000,0.000,0.000
1641079876841629952,2022-01-01-23:31:16,10.1.1.5,108,-0.370,-0.370,-0.370,0.000,0.000,0.000
1641079877053245952,2022-01-01-23:31:17,10.1.1.5,118,-0.380,-0.380,-0.380,0.000,0.000,0.000
1641079877261027072,2022-01-01-23:31:17,10.1.1.5,124,-0.390,-0.390,-0.390,0.000,0.000,0.000
1641079877460499968,2022-01-01-23:31:17,10.1.1.5,120,-0.400,-0.400,-0.400,0.000,0.000,0.000
1641079877650258944,2022-01-01-23:31:17,10.1.1.5,108,-0.410,-0.410,-0.410,0.000,0.000,0.000
1641079877862561024,2022-01-01-23:31:17,10.1.1.5,117,-0.420,-0.420,-0.420,0.000,0.000,0.000
1641079878059511040,2022-01-01-23:31:18,10.1.1.5,116,-0.430,-0.430,-0.430,0.000,0.000,0.000
1641079878258672896,2022-01-01-23:31:18,10.1.1.5,113,-0.440,-0.440,-0.440,0.000,0.000,0.000
1641079878478771968,2022-01-01-23:31:18,10.1.1.5,132,-0.450,-0.450,-0.450,0.000,0.000,0.000
1641079878658649856,2022-01-01-23:31:18,10.1.1.5,111,-0.460,-0.460,-0.460,0.000,0.000,0.000
1641079878858844160,2022-01-01-23:31:18,10.1.1.5,110,-0.470,-0.470,-0.470,0.000,0.000,0.000
1641079879058567168,2022-01-01-23:31:19,10.1.1.5,108,-0.480,-0.480,-0.480,0.000,0.000,0.000
1641079879258228992,2022-01-01-23:31:19,10.1.1.5,106,-0.490,-0.490,-0.490,0.000,0.000,0.000
1641079879461436160,2022-01-01-23:31:19,10.1.1.5,109,-0.480,-0.480,-0.480,0.000,0.000,0.000
1641079879677442048,2022-01-01-23:31:19,10.1.1.5,124,-0.470,-0.470,-0.470,0.000,0.000,0.000
1641079879877172992,2022-01-01-23:31:19,10.1.1.5,121,-0.460,-0.460,-0.460,0.000,0.000,0.000
1641079880076425984,2022-01-01-23:31:20,10.1.1.5,118,-0.450,-0.450,-0.450,0.000,0.000,0.000
1641079880277092096,2022-01-01-23:31:20,10.1.1.5,118,-0.440,-0.440,-0.440,0.000,0.000,0.000
1641079880475788032,2022-01-01-23:31:20,10.1.1.5,115,-0.430,-0.430,-0.430,0.000,0.000,0.000
1641079880675865856,2022-01-01-23:31:20,10.1.1.5,114,-0.420,-0.420,-0.420,0.000,0.000,0.000
1641079880874651904,2022-01-01-23:31:20,10.1.1.5,112,-0.410,-0.410,-0.410,0.000,0.000,0.000
1641079881075776000,2022-01-01-23:31:21,10.1.1.5,111,-0.400,-0.400,-0.400,0.000,0.000,0.000
1641079881295685120,2022-01-01-23:31:21,10.1.1.5,129,-0.390,-0.390,-0.390,0.000,0.000,0.000
1641079881474731008,2022-01-01-23:31:21,10.1.1.5,107,-0.380,-0.380,-0.380,0.000,0.000,0.000
1641079881674053888,2022-01-01-23:31:21,10.1.1.5,105,-0.370,-0.370,-0.370,0.000,0.000,0.000
1641079881894761984,2022-01-01-23:31:21,10.1.1.5,125,-0.360,-0.360,-0.360,0.000,0.000,0.000
1641079882075277056,2022-01-01-23:31:22,10.1.1.5,103,-0.350,-0.350,-0.350,0.000,0.000,0.000
1641079882295314944,2022-01-01-23:31:22,10.1.1.5,122,-0.340,-0.340,-0.340,0.000,0.000,0.000
1641079882495316992,2022-01-01-23:31:22,10.1.1.5,120,-0.330,-0.330,-0.330,0.000,0.000,0.000
1641079882697460992,2022-01-01-23:31:22,10.1.1.5,120,-0.320,-0.320,-0.320,0.000,0.000,0.000
1641079882898921984,2022-01-01-23:31:22,10.1.1.5,119,-0.310,-0.310,-0.310,0.000,0.000,0.000
1641079883099621120,2022-01-01-23:31:23,10.1.1.5,120,-0.300,-0.300,-0.300,0.000,0.000,0.000
1641079883301561088,2022-01-01-23:31:23,10.1.1.5,120,-0.290,-0.290,-0.290,0.000,0.000,0.000
1641079883381721088,2022-01-01-23:31:23,10.1.1.5,-1,-0.290,-0.290,-0.290,0.000,0.000,0.000
1641079883702951936,2022-01-01-23:31:23,10.1.1.5,120,-0.270,-0.270,-0.270,0.000,0.000,0.000
1641079883903523072,2022-01-01-23:31:23,10.1.1.5,120,-0.260,-0.260,-0.260,0.000,0.000,0.000
1641079884105864960,2022-01-01-23:31:24,10.1.1.5,121,-0.250,-0.250,-0.250,0.000,0.000,0.000
1641079884327195904,2022-01-01-23:31:24,10.1.1.5,141,-0.240,-0.240,-0.240,0.000,0.000,0.000
1641079884507302144,2022-01-01-23:31:24,10.1.1.5,119,-0.230,-0.230,-0.230,0.000,0.000,0.000
1641079884591173888,2022-01-01-23:31:24,10.1.1.5,-1,-0.230,-0.230,-0.230,0.000,0.000,0.000
1641079884918427904,2022-01-01-23:31:24,10.1.1.5,127,-0.210,-0.210,-0.210,0.000,0.000,0.000
1641079885108280832,2022-01-01-23:31:25,10.1.1.5,116,-0.200,-0.200,-0.200,0.000,0.000,0.000
1641079885330488832,2022-01-01-23:31:25,10.1.1.5,138,-0.190,-0.190,-0.190,0.000,0.000,0.000
1641079885532089088,2022-01-01-23:31:25,10.1.1.5,138,-0.180,-0.180,-0.180,0.000,0.000,0.000
1641079885732090112,2022-01-01-23:31:25,10.1.1.5,137,-0.170,-0.170,-0.170,0.000,0.000,0.000
1641079885932903168,2022-01-01-23:31:25,10.1.1.5,137,-0.160,-0.160,-0.160,0.000,0.000,0.000
1641079886134309120,2022-01-01-23:31:26,10.1.1.5,138,-0.150,-0.150,-0.150,0.000,0.000,0.000
1641079886335318016,2022-01-01-23:31:26,10.1.1.5,137,-0.140,-0.140,-0.140,0.000,0.000,0.000
1641079886535523840,2022-01-01-23:31:26,10.1.1.5,137,-0.130,-0.130,-0.130,0.000,0.000,0.000
1641079886736578048,2022-01-01-23:31:26,10.1.1.5,138,-0.120,-0.120,-0.120,0.000,0.000,0.000
1641079886937259008,2022-01-01-23:31:26,10.1.1.5,138,-0.110,-0.110,-0.110,0.000,0.000,0.000
1641079887137833216,2022-01-01-23:31:27,10.1.1.5,138,-0.100,-0.100,-0.100,0.000,0.000,0.000
1641079887338480896,2022-01-01-23:31:27,10.1.1.5,137,-0.090,-0.090,-0.090,0.000,0.000,0.000
1641079887538803200,2022-01-01-23:31:27,10.1.1.5,137,-0.080,-0.080,-0.080,0.000,0.000,0.000
1641079887739800064,2022-01-01-23:31:27,10.1.1.5,137,-0.070,-0.070,-0.070,0.000,0.000,0.000
1641079887941122048,2022-01-01-23:31:27,10.1.1.5,136,-0.060,-0.060,-0.060,0.000,0.000,0.000
1641079888157026048,2022-01-01-23:31:28,10.1.1.5,151,-0.050,-0.050,-0.050,0.000,0.000,0.000
1641079888341719040,2022-01-01-23:31:28,10.1.1.5,135,-0.040,-0.040,-0.040,0.000,0.000,0.000
1641079888543542016,2022-01-01-23:31:28,10.1.1.5,136,-0.030,-0.030,-0.030,0.000,0.000,0.000
1641079888743993088,2022-01-01-23:31:28,10.1.1.5,136,-0.020,-0.020,-0.020,0.000,0.000,0.000
1641079888957799936,2022-01-01-23:31:28,10.1.1.5,149,-0.010,-0.010,-0.010,0.000,0.000,0.000
1641079889145265152,2022-01-01-23:31:29,10.1.1.5,136,0.000,0.000,0.000,0.000,0.000,0.000
1641079889345305856,2022-01-01-23:31:29,10.1.1.5,135,-0.010,-0.010,-0.010,0.000,0.000,0.000
1641079889545762048,2022-01-01-23:31:29,10.1.1.5,134,-0.020,-0.020,-0.020,0.000,0.000,0.000
1641079889746226176,2022-01-01-23:31:29,10.1.1.5,134,-0.030,-0.030,-0.030,0.000,0.000,0.000
1641079889948486144,2022-01-01-23:31:29,10.1.1.5,135,-0.040,-0.040,-0.040,0.000,0.000,0.000
1641079890147727104,2022-01-01-23:31:30,10.1.1.5,134,-0.050,-0.050,-0.050,0.000,0.000,0.000
1641079890368363008,2022-01-01-23:31:30,10.1.1.5,154,-0.060,-0.060,-0.060,0.000,0.000,0.000
1641079890570424064,2022-01-01-23:31:30,10.1.1.5,155,-0.070,-0.070,-0.070,0.000,0.000,0.000
1641079890770212864,2022-01-01-23:31:30,10.1.1.5,153,-0.080,-0.080,-0.080,0.000,0.000,0.000
1641079890970983936,2022-01-01-23:31:30,10.1.1.5,153,-0.090,-0.090,-0.090,0.000,0.000,0.000
1641079891171819008,2022-01-01-23:31:31,10.1.1.5,153,-0.100,-0.100,-0.100,0.000,0.000,0.000
1641079891370595072,2022-01-01-23:31:31,10.1.1.5,150,-0.110,-0.110,-0.110,0.000,0.000,0.000
1641079891572421120,2022-01-01-23:31:31,10.1.1.5,143,-0.120,-0.120,-0.120,0.000,0.000,0.000
1641079891772182016,2022-01-01-23:31:31,10.1.1.5,142,-0.130,-0.130,-0.130,0.000,0.000,0.000
1641079891974247936,2022-01-01-23:31:31,10.1.1.5,144,-0.140,-0.140,-0.140,0.000,0.000,0.000
1641079892193713920,2022-01-01-23:31:32,10.1.1.5,161,-0.150,-0.150,-0.150,0.000,0.000,0.000
1641079892374494976,2022-01-01-23:31:32,10.1.1.5,141,-0.160,-0.160,-0.160,0.000,0.000,0.000
1641079892594171904,2022-01-01-23:31:32,10.1.1.5,159,-0.170,-0.170,-0.170,0.000,0.000,0.000
1641079892795536128,2022-01-01-23:31:32,10.1.1.5,158,-0.180,-0.180,-0.180,0.000,0.000,0.000
1641079892995502848,2022-01-01-23:31:32,10.1.1.5,158,-0.190,-0.190,-0.190,0.000,0.000,0.000
1641079893194878976,2022-01-01-23:31:33,10.1.1.5,156,-0.200,-0.200,-0.200,0.000,0.000,0.000
1641079893397057024,2022-01-01-23:31:33,10.1.1.5,158,-0.210,-0.210,-0.210,0.000,0.000,0.000
1641079893595983872,2022-01-01-23:31:33,10.1.1.5,154,-0.220,-0.220,-0.220,0.000,0.000,0.000
1641079893797790976,2022-01-01-23:31:33,10.1.1.5,154,-0.230,-0.230,-0.230,0.000,0.000,0.000
1641079893997755904,2022-01-01-23:31:33,10.1.1.5,153,-0.240,-0.240,-0.240,0.000,0.000,0.000
1641079894197725952,2022-01-01-23:31:34,10.1.1.5,152,-0.250,-0.250,-0.250,0.000,0.000,0.000
1641079894396476928,2022-01-01-23:31:34,10.1.1.5,149,-0.260,-0.260,-0.260,0.000,0.000,0.000
1641079894622607104,2022-01-01-23:31:34,10.1.1.5,173,-0.270,-0.270,-0.270,0.000,0.000,0.000
1641079894818164992,2022-01-01-23:31:34,10.1.1.5,168,-0.280,-0.280,-0.280,0.000,0.000,0.000
1641079894997918976,2022-01-01-23:31:34,10.1.1.5,146,-0.290,-0.290,-0.290,0.000,0.000,0.000
1641079895198299904,2022-01-01-23:31:35,10.1.1.5,146,-0.300,-0.300,-0.300,0.000,0.000,0.000
1641079895400038912,2022-01-01-23:31:35,10.1.1.5,147,-0.310,-0.310,-0.310,0.000,0.000,0.000
1641079895599513088,2022-01-01-23:31:35,10.1.1.5,145,-0.320,-0.320,-0.320,0.000,0.000,0.000
1641079895819456000,2022-01-01-23:31:35,10.1.1.5,164,-0.330,-0.330,-0.330,0.000,0.000,0.000
1641079896020143872,2022-01-01-23:31:36,10.1.1.5,164,-0.340,-0.340,-0.340,0.000,0.000,0.000
1641079896220848128,2022-01-01-23:31:36,10.1.1.5,163,-0.350,-0.350,-0.350,0.000,0.000,0.000
1641079896421726976,2022-01-01-23:31:36,10.1.1.5,163,-0.360,-0.360,-0.360,0.000,0.000,0.000
1641079896620435968,2022-01-01-23:31:36,10.1.1.5,161,-0.370,-0.370,-0.370,0.000,0.000,0.000
1641079896821382912,2022-01-01-23:31:36,10.1.1.5,160,-0.380,-0.380,-0.380,0.000,0.000,0.000
1641079897020689920,2022-01-01-23:31:37,10.1.1.5,158,-0.390,-0.390,-0.390,0.000,0.000,0.000
1641079897221158912,2022-01-01-23:31:37,10.1.1.5,158,-0.400,-0.400,-0.400,0.000,0.000,0.000
1641079897421950208,2022-01-01-23:31:37,10.1.1.5,158,-0.410,-0.410,-0.410,0.000,0.000,0.000
1641079897621475840,2022-01-01-23:31:37,10.1.1.5,156,-0.420,-0.420,-0.420,0.000,0.000,0.000
1641079897823077888,2022-01-01-23:31:37,10.1.1.5,157,-0.430,-0.430,-0.430,0.000,0.000,0.000
1641079898023072000,2022-01-01-23:31:38,10.1.1.5,155,-0.440,-0.440,-0.440,0.000,0.000,0.000
1641079898222852864,2022-01-01-23:31:38,10.1.1.5,155,-0.450,-0.450,-0.450,0.000,0.000,0.000
1641079898422082816,2022-01-01-23:31:38,10.1.1.5,153,-0.460,-0.460,-0.460,0.000,0.000,0.000
1641079898623394048,2022-01-01-23:31:38,10.1.1.5,153,-0.470,-0.470,-0.470,0.000,0.000,0.000
1641079898823569152,2022-01-01-23:31:38,10.1.1.5,152,-0.480,-0.480,-0.480,0.000,0.000,0.000
1641079899021982976,2022-01-01-23:31:39,10.1.1.5,150,-0.490,-0.490,-0.490,0.000,0.000,0.000
1641079899222828032,2022-01-01-23:31:39,10.1.1.5,150,-0.480,-0.480,-0.480,0.000,0.000,0.000
1641079899422957056,2022-01-01-23:31:39,10.1.1.5,149,-0.470,-0.470,-0.470,0.000,0.000,0.000
1641079899643465984,2022-01-01-23:31:39,10.1.1.5,167,-0.460,-0.460,-0.460,0.000,0.000,0.000
1641079899844134144,2022-01-01-23:31:39,10.1.1.5,167,-0.450,-0.450,-0.450,0.000,0.000,0.000
1641079900043535104,2022-01-01-23:31:40,10.1.1.5,166,-0.440,-0.440,-0.440,0.000,0.000,0.000
1641079900244012032,2022-01-01-23:31:40,10.1.1.5,165,-0.430,-0.430,-0.430,0.000,0.000,0.000
1641079900446365184,2022-01-01-23:31:40,10.1.1.5,166,-0.420,-0.420,-0.420,0.000,0.000,0.000
1641079900644310016,2022-01-01-23:31:40,10.1.1.5,163,-0.410,-0.410,-0.410,0.000,0.000,0.000
1641079900844530176,2022-01-01-23:31:40,10.1.1.5,162,-0.400,-0.400,-0.400,0.000,0.000,0.000
1641079901044087040,2022-01-01-23:31:41,10.1.1.5,160,-0.390,-0.390,-0.390,0.000,0.000,0.000
1641079901245099008,2022-01-01-23:31:41,10.1.1.5,160,-0.380,-0.380,-0.380,0.000,0.000,0.000
1641079901445452032,2022-01-01-23:31:41,10.1.1.5,159,-0.370,-0.370,-0.370,0.000,0.000,0.000
1641079901645347072,2022-01-01-23:31:41,10.1.1.5,159,-0.360,-0.360,-0.360,0.000,0.000,0.000
1641079901845478144,2022-01-01-23:31:41,10.1.1.5,158,-0.350,-0.350,-0.350,0.000,0.000,0.000
1641079902045556992,2022-01-01-23:31:42,10.1.1.5,157,-0.340,-0.340,-0.340,0.000,0.000,0.000
1641079902246983936,2022-01-01-23:31:42,10.1.1.5,158,-0.330,-0.330,-0.330,0.000,0.000,0.000
1641079902446247168,2022-01-01-23:31:42,10.1.1.5,156,-0.320,-0.320,-0.320,0.000,0.000,0.000
1641079902645571840,2022-01-01-23:31:42,10.1.1.5,155,-0.310,-0.310,-0.310,0.000,0.000,0.000
1641079902845510912,2022-01-01-23:31:42,10.1.1.5,153,-0.300,-0.300,-0.300,0.000,0.000,0.000
1641079903045854976,2022-01-01-23:31:43,10.1.1.5,153,-0.290,-0.290,-0.290,0.000,0.000,0.000
1641079903266068992,2022-01-01-23:31:43,10.1.1.5,171,-0.280,-0.280,-0.280,0.000,0.000,0.000
1641079903465540864,2022-01-01-23:31:43,10.1.1.5,170,-0.270,-0.270,-0.270,0.000,0.000,0.000
1641079903667394048,2022-01-01-23:31:43,10.1.1.5,170,-0.260,-0.260,-0.260,0.000,0.000,0.000
1641079903857431040,2022-01-01-23:31:43,10.1.1.5,156,-0.250,-0.250,-0.250,0.000,0.000,0.000
1641079904065565952,2022-01-01-23:31:44,10.1.1.5,166,-0.240,-0.240,-0.240,0.000,0.000,0.000
1641079904265794048,2022-01-01-23:31:44,10.1.1.5,165,-0.230,-0.230,-0.230,0.000,0.000,0.000
1641079904465884928,2022-01-01-23:31:44,10.1.1.5,164,-0.220,-0.220,-0.220,0.000,0.000,0.000
1641079904666999040,2022-01-01-23:31:44,10.1.1.5,164,-0.210,-0.210,-0.210,0.000,0.000,0.000
1641079904865218048,2022-01-01-23:31:44,10.1.1.5,159,-0.200,-0.200,-0.200,0.000,0.000,0.000
1641079905065860864,2022-01-01-23:31:45,10.1.1.5,158,-0.190,-0.190,-0.190,0.000,0.000,0.000
1641079905266010112,2022-01-01-23:31:45,10.1.1.5,157,-0.180,-0.180,-0.180,0.000,0.000,0.000
1641079905465790976,2022-01-01-23:31:45,10.1.1.5,155,-0.170,-0.170,-0.170,0.000,0.000,0.000
1641079905666182144,2022-01-01-23:31:45,10.1.1.5,153,-0.160,-0.160,-0.160,0.000,0.000,0.000
1641079905866630144,2022-01-01-23:31:45,10.1.1.5,153,-0.150,-0.150,-0.150,0.000,0.000,0.000
1641079906065496832,2022-01-01-23:31:46,10.1.1.5,151,-0.140,-0.140,-0.140,0.000,0.000,0.000
1641079906287168000,2022-01-01-23:31:46,10.1.1.5,172,-0.130,-0.130,-0.130,0.000,0.000,0.000
1641079906485570816,2022-01-01-23:31:46,10.1.1.5,169,-0.120,-0.120,-0.120,0.000,0.000,0.000
1641079906675735040,2022-01-01-23:31:46,10.1.1.5,156,-0.110,-0.110,-0.110,0.000,0.000,0.000
1641079906886179072,2022-01-01-23:31:46,10.1.1.5,165,-0.100,-0.100,-0.100,0.000,0.000,0.000
1641079907078428928,2022-01-01-23:31:47,10.1.1.5,156,-0.090,-0.090,-0.090,0.000,0.000,0.000
1641079907285564928,2022-01-01-23:31:47,10.1.1.5,161,-0.080,-0.080,-0.080,0.000,0.000,0.000
1641079907486476800,2022-01-01-23:31:47,10.1.1.5,161,-0.070,-0.070,-0.070,0.000,0.000,0.000
1641079907686073088,2022-01-01-23:31:47,10.1.1.5,158,-0.060,-0.060,-0.060,0.000,0.000,0.000
1641079907884346112,2022-01-01-23:31:47,10.1.1.5,156,-0.050,-0.050,-0.050,0.000,0.000,0.000
1641079908085808128,2022-01-01-23:31:48,10.1.1.5,156,-0.040,-0.040,-0.040,0.000,0.000,0.000
1641079908305970944,2022-01-01-23:31:48,10.1.1.5,176,-0.030,-0.030,-0.030,0.000,0.000,0.000
1641079908486183936,2022-01-01-23:31:48,10.1.1.5,155,-0.020,-0.020,-0.020,0.000,0.000,0.000
1641079908705249024,2022-01-01-23:31:48,10.1.1.5,173,-0.010,-0.010,-0.010,0.000,0.000,0.000
1641079908885734144,2022-01-01-23:31:48,10.1.1.5,152,-0.000,-0.000,-0.000,0.000,0.000,0.000
1641079909086146048,2022-01-01-23:31:49,10.1.1.5,151,-0.010,-0.010,-0.010,0.000,0.000,0.000
1641079909306560000,2022-01-01-23:31:49,10.1.1.5,169,-0.020,-0.020,-0.020,0.000,0.000,0.000
1641079909505794048,2022-01-01-23:31:49,10.1.1.5,167,-0.030,-0.030,-0.030,0.000,0.000,0.000
1641079909704540928,2022-01-01-23:31:49,10.1.1.5,165,-0.040,-0.040,-0.040,0.000,0.000,0.000
1641079909905447936,2022-01-01-23:31:49,10.1.1.5,163,-0.050,-0.050,-0.050,0.000,0.000,0.000
1641079910104850944,2022-01-01-23:31:50,10.1.1.5,159,-0.060,-0.060,-0.060,0.000,0.000,0.000
1641079910307176960,2022-01-01-23:31:50,10.1.1.5,158,-0.070,-0.070,-0.070,0.000,0.000,0.000
1641079910504856064,2022-01-01-23:31:50,10.1.1.5,154,-0.080,-0.080,-0.080,0.000,0.000,0.000
1641079910716730112,2022-01-01-23:31:50,10.1.1.5,163,-0.090,-0.090,-0.090,0.000,0.000,0.000
1641079910904808960,2022-01-01-23:31:50,10.1.1.5,152,-0.100,-0.100,-0.100,0.000,0.000,0.000
1641079911104069120,2022-01-01-23:31:51,10.1.1.5,150,-0.110,-0.110,-0.110,0.000,0.000,0.000
1641079911323180032,2022-01-01-23:31:51,10.1.1.5,166,-0.120,-0.120,-0.120,0.000,0.000,0.000
1641079911523521792,2022-01-01-23:31:51,10.1.1.5,165,-0.130,-0.130,-0.130,0.000,0.000,0.000
1641079911723496960,2022-01-01-23:31:51,10.1.1.5,165,-0.140,-0.140,-0.140,0.000,0.000,0.000
1641079911924251136,2022-01-01-23:31:51,10.1.1.5,164,-0.150,-0.150,-0.150,0.000,0.000,0.000
1641079912115001856,2022-01-01-23:31:52,10.1.1.5,154,-0.160,-0.160,-0.160,0.000,0.000,0.000
1641079912324933120,2022-01-01-23:31:52,10.1.1.5,162,-0.170,-0.170,-0.170,0.000,0.000,0.000
1641079912522679040,2022-01-01-23:31:52,10.1.1.5,157,-0.180,-0.180,-0.180,0.000,0.000,0.000
1641079912722438144,2022-01-01-23:31:52,10.1.1.5,156,-0.190,-0.190,-0.190,0.000,0.000,0.000
1641079912924308992,2022-01-01-23:31:52,10.1.1.5,157,-0.200,-0.200,-0.200,0.000,0.000,0.000
1641079913123532032,2022-01-01-23:31:53,10.1.1.5,155,-0.210,-0.210,-0.210,0.000,0.000,0.000
1641079913322994944,2022-01-01-23:31:53,10.1.1.5,154,-0.220,-0.220,-0.220,0.000,0.000,0.000
1641079913524472064,2022-01-01-23:31:53,10.1.1.5,153,-0.230,-0.230,-0.230,0.000,0.000,0.000
1641079913742681856,2022-01-01-23:31:53,10.1.1.5,170,-0.240,-0.240,-0.240,0.000,0.000,0.000
1641079913923384064,2022-01-01-23:31:53,10.1.1.5,149,-0.250,-0.250,-0.250,0.000,0.000,0.000
1641079914142362112,2022-01-01-23:31:54,10.1.1.5,166,-0.260,-0.260,-0.260,0.000,0.000,0.000
1641079914335447040,2022-01-01-23:31:54,10.1.1.5,159,-0.270,-0.270,-0.270,0.000,0.000,0.000
1641079914533931008,2022-01-01-23:31:54,10.1.1.5,157,-0.280,-0.280,-0.280,0.000,0.000,0.000
1641079914733995008,2022-01-01-23:31:54,10.1.1.5,156,-0.290,-0.290,-0.290,0.000,0.000,0.000
1641079914942327040,2022-01-01-23:31:54,10.1.1.5,163,-0.300,-0.300,-0.300,0.000,0.000,0.000
1641079915135813120,2022-01-01-23:31:55,10.1.1.5,155,-0.310,-0.310,-0.310,0.000,0.000,0.000
1641079915343142144,2022-01-01-23:31:55,10.1.1.5,160,-0.320,-0.320,-0.320,0.000,0.000,0.000
1641079915535800832,2022-01-01-23:31:55,10.1.1.5,152,-0.330,-0.330,-0.330,0.000,0.000,0.000
1641079915740783104,2022-01-01-23:31:55,10.1.1.5,155,-0.340,-0.340,-0.340,0.000,0.000,0.000
1641079915961758976,2022-01-01-23:31:55,10.1.1.5,171,-0.350,-0.350,-0.350,0.000,0.000,0.000
1641079916141038848,2022-01-01-23:31:56,10.1.1.5,150,-0.360,-0.360,-0.360,0.000,0.000,0.000
1641079916353138944,2022-01-01-23:31:56,10.1.1.5,160,-0.370,-0.370,-0.370,0.000,0.000,0.000
1641079916559632896,2022-01-01-23:31:56,10.1.1.5,164,-0.380,-0.380,-0.380,0.000,0.000,0.000
1641079916760443904,2022-01-01-23:31:56,10.1.1.5,163,-0.390,-0.390,-0.390,0.000,0.000,0.000
1641079916951282944,2022-01-01-23:31:56,10.1.1.5,151,-0.400,-0.400,-0.400,0.000,0.000,0.000
1641079917152116992,2022-01-01-23:31:57,10.1.1.5,151,-0.410,-0.410,-0.410,0.000,0.000,0.000
1641079917360055808,2022-01-01-23:31:57,10.1.1.5,158,-0.420,-0.420,-0.420,0.000,0.000,0.000
1641079917559387904,2022-01-01-23:31:57,10.1.1.5,156,-0.430,-0.430,-0.430,0.000,0.000,0.000
1641079917751091968,2022-01-01-23:31:57,10.1.1.5,145,-0.440,-0.440,-0.440,0.000,0.000,0.000
1641079917958403072,2022-01-01-23:31:57,10.1.1.5,154,-0.450,-0.450,-0.450,0.000,0.000,0.000
1641079918158716928,2022-01-01-23:31:58,10.1.1.5,153,-0.460,-0.460,-0.460,0.000,0.000,0.000
1641079918358516992,2022-01-01-23:31:58,10.1.1.5,152,-0.470,-0.470,-0.470,0.000,0.000,0.000
1641079918558147072,2022-01-01-23:31:58,10.1.1.5,150,-0.480,-0.480,-0.480,0.000,0.000,0.000
1641079918757571840,2022-01-01-23:31:58,10.1.1.5,149,-0.490,-0.490,-0.490,0.000,0.000,0.000
1641079918976662016,2022-01-01-23:31:58,10.1.1.5,166,-0.480,-0.480,-0.480,0.000,0.000,0.000
1641079919157572864,2022-01-01-23:31:59,10.1.1.5,145,-0.470,-0.470,-0.470,0.000,0.000,0.000
1641079919357134080,2022-01-01-23:31:59,10.1.1.5,143,-0.460,-0.460,-0.460,0.000,0.000,0.000
1641079919577400064,2022-01-01-23:31:59,10.1.1.5,162,-0.450,-0.450,-0.450,0.000,0.000,0.000
1641079919777147904,2022-01-01-23:31:59,10.1.1.5,160,-0.440,-0.440,-0.440,0.000,0.000,0.000
1641079919976516864,2022-01-01-23:31:59,10.1.1.5,158,-0.430,-0.430,-0.430,0.000,0.000,0.000
1641079920176875008,2022-01-01-23:32:00,10.1.1.5,157,-0.420,-0.420,-0.420,0.000,0.000,0.000
1641079920376222976,2022-01-01-23:32:00,10.1.1.5,155,-0.410,-0.410,-0.410,0.000,0.000,0.000
1641079920569637120,2022-01-01-23:32:00,10.1.1.5,148,-0.400,-0.400,-0.400,0.000,0.000,0.000
1641079920775377920,2022-01-01-23:32:00,10.1.1.5,151,-0.390,-0.390,-0.390,0.000,0.000,0.000
1641079920975496960,2022-01-01-23:32:00,10.1.1.5,151,-0.380,-0.380,-0.380,0.000,0.000,0.000
1641079921175888128,2022-01-01-23:32:01,10.1.1.5,149,-0.370,-0.370,-0.370,0.000,0.000,0.000
1641079921375224064,2022-01-01-23:32:01,10.1.1.5,147,-0.360,-0.360,-0.360,0.000,0.000,0.000
1641079921574017024,2022-01-01-23:32:01,10.1.1.5,146,-0.350,-0.350,-0.350,0.000,0.000,0.000
1641079921776992000,2022-01-01-23:32:01,10.1.1.5,148,-0.340,-0.340,-0.340,0.000,0.000,0.000
1641079921974098944,2022-01-01-23:32:01,10.1.1.5,144,-0.330,-0.330,-0.330,0.000,0.000,0.000
1641079922175019008,2022-01-01-23:32:02,10.1.1.5,144,-0.320,-0.320,-0.320,0.000,0.000,0.000
1641079922373920000,2022-01-01-23:32:02,10.1.1.5,142,-0.310,-0.310,-0.310,0.000,0.000,0.000
1641079922573828096,2022-01-01-23:32:02,10.1.1.5,141,-0.300,-0.300,-0.300,0.000,0.000,0.000
1641079922773475840,2022-01-01-23:32:02,10.1.1.5,140,-0.290,-0.290,-0.290,0.000,0.000,0.000
1641079922994256896,2022-01-01-23:32:02,10.1.1.5,159,-0.280,-0.280,-0.280,0.000,0.000,0.000
1641079923194569984,2022-01-01-23:32:03,10.1.1.5,159,-0.270,-0.270,-0.270,0.000,0.000,0.000
1641079923384077056,2022-01-01-23:32:03,10.1.1.5,146,-0.260,-0.260,-0.260,0.000,0.000,0.000
1641079923592251904,2022-01-01-23:32:03,10.1.1.5,153,-0.250,-0.250,-0.250,0.000,0.000,0.000
1641079923792297984,2022-01-01-23:32:03,10.1.1.5,151,-0.240,-0.240,-0.240,0.000,0.000,0.000
1641079923992578048,2022-01-01-23:32:03,10.1.1.5,150,-0.230,-0.230,-0.230,0.000,0.000,0.000
1641079924192066048,2022-01-01-23:32:04,10.1.1.5,149,-0.220,-0.220,-0.220,0.000,0.000,0.000
1641079924391411968,2022-01-01-23:32:04,10.1.1.5,148,-0.210,-0.210,-0.210,0.000,0.000,0.000
1641079924592328960,2022-01-01-23:32:04,10.1.1.5,147,-0.200,-0.200,-0.200,0.000,0.000,0.000
1641079924790853888,2022-01-01-23:32:04,10.1.1.5,144,-0.190,-0.190,-0.190,0.000,0.000,0.000
1641079924990278912,2022-01-01-23:32:04,10.1.1.5,143,-0.180,-0.180,-0.180,0.000,0.000,0.000
1641079925190010112,2022-01-01-23:32:05,10.1.1.5,142,-0.170,-0.170,-0.170,0.000,0.000,0.000
1641079925389977088,2022-01-01-23:32:05,10.1.1.5,140,-0.160,-0.160,-0.160,0.000,0.000,0.000
1641079925589008128,2022-01-01-23:32:05,10.1.1.5,138,-0.150,-0.150,-0.150,0.000,0.000,0.000
1641079925789307136,2022-01-01-23:32:05,10.1.1.5,137,-0.140,-0.140,-0.140,0.000,0.000,0.000
1641079925989690112,2022-01-01-23:32:05,10.1.1.5,137,-0.130,-0.130,-0.130,0.000,0.000,0.000
1641079926188461056,2022-01-01-23:32:06,10.1.1.5,135,-0.120,-0.120,-0.120,0.000,0.000,0.000
1641079926409838848,2022-01-01-23:32:06,10.1.1.5,155,-0.110,-0.110,-0.110,0.000,0.000,0.000
1641079926610316032,2022-01-01-23:32:06,10.1.1.5,152,-0.100,-0.100,-0.100,0.000,0.000,0.000
1641079926807770880,2022-01-01-23:32:06,10.1.1.5,149,-0.090,-0.090,-0.090,0.000,0.000,0.000
1641079926999881984,2022-01-01-23:32:06,10.1.1.5,138,-0.080,-0.080,-0.080,0.000,0.000,0.000
1641079927203180032,2022-01-01-23:32:07,10.1.1.5,139,-0.070,-0.070,-0.070,0.000,0.000,0.000
1641079927408183040,2022-01-01-23:32:07,10.1.1.5,143,-0.060,-0.060,-0.060,0.000,0.000,0.000
1641079927606348032,2022-01-01-23:32:07,10.1.1.5,139,-0.050,-0.050,-0.050,0.000,0.000,0.000
1641079927807162112,2022-01-01-23:32:07,10.1.1.5,138,-0.040,-0.040,-0.040,0.000,0.000,0.000
1641079928006712064,2022-01-01-23:32:08,10.1.1.5,136,-0.030,-0.030,-0.030,0.000,0.000,0.000
1641079928206712064,2022-01-01-23:32:08,10.1.1.5,135,-0.020,-0.020,-0.020,0.000,0.000,0.000
1641079928406151936,2022-01-01-23:32:08,10.1.1.5,133,-0.010,-0.010,-0.010,0.000,0.000,0.000
1641079928607975936,2022-01-01-23:32:08,10.1.1.5,134,-0.000,-0.000,-0.000,0.000,0.000,0.000
1641079928826220032,2022-01-01-23:32:08,10.1.1.5,151,-0.010,-0.010,-0.010,0.000,0.000,0.000
1641079929025469184,2022-01-01-23:32:09,10.1.1.5,146,-0.020,-0.020,-0.020,0.000,0.000,0.000
1641079929226306816,2022-01-01-23:32:09,10.1.1.5,146,-0.030,-0.030,-0.030,0.000,0.000,0.000
1641079929424704000,2022-01-01-23:32:09,10.1.1.5,143,-0.040,-0.040,-0.040,0.000,0.000,0.000
1641079929617793024,2022-01-01-23:32:09,10.1.1.5,133,-0.050,-0.050,-0.050,0.000,0.000,0.000
1641079929825638144,2022-01-01-23:32:09,10.1.1.5,140,-0.060,-0.060,-0.060,0.000,0.000,0.000
1641079930043831040,2022-01-01-23:32:10,10.1.1.5,157,-0.070,-0.070,-0.070,0.000,0.000,0.000
1641079930224132096,2022-01-01-23:32:10,10.1.1.5,136,-0.080,-0.080,-0.080,0.000,0.000,0.000
1641079930423955968,2022-01-01-23:32:10,10.1.1.5,134,-0.090,-0.090,-0.090,0.000,0.000,0.000
1641079930638089984,2022-01-01-23:32:10,10.1.1.5,147,-0.100,-0.100,-0.100,0.000,0.000,0.000
1641079930823122944,2022-01-01-23:32:10,10.1.1.5,131,-0.110,-0.110,-0.110,0.000,0.000,0.000
1641079931022115072,2022-01-01-23:32:11,10.1.1.5,128,-0.120,-0.120,-0.120,0.000,0.000,0.000
1641079931242702848,2022-01-01-23:32:11,10.1.1.5,146,-0.130,-0.130,-0.130,0.000,0.000,0.000
1641079931432847104,2022-01-01-23:32:11,10.1.1.5,135,-0.140,-0.140,-0.140,0.000,0.000,0.000
1641079931634424064,2022-01-01-23:32:11,10.1.1.5,136,-0.150,-0.150,-0.150,0.000,0.000,0.000
1641079931841146880,2022-01-01-23:32:11,10.1.1.5,142,-0.160,-0.160,-0.160,0.000,0.000,0.000
1641079932044284160,2022-01-01-23:32:12,10.1.1.5,144,-0.170,-0.170,-0.170,0.000,0.000,0.000
1641079932240935936,2022-01-01-23:32:12,10.1.1.5,138,-0.180,-0.180,-0.180,0.000,0.000,0.000
1641079932440495104,2022-01-01-23:32:12,10.1.1.5,137,-0.190,-0.190,-0.190,0.000,0.000,0.000
1641079932640382976,2022-01-01-23:32:12,10.1.1.5,136,-0.200,-0.200,-0.200,0.000,0.000,0.000
1641079932840340992,2022-01-01-23:32:12,10.1.1.5,135,-0.210,-0.210,-0.210,0.000,0.000,0.000
1641079933040123904,2022-01-01-23:32:13,10.1.1.5,134,-0.220,-0.220,-0.220,0.000,0.000,0.000
1641079933239668992,2022-01-01-23:32:13,10.1.1.5,132,-0.230,-0.230,-0.230,0.000,0.000,0.000
1641079933438988032,2022-01-01-23:32:13,10.1.1.5,130,-0.240,-0.240,-0.240,0.000,0.000,0.000
1641079933638264064,2022-01-01-23:32:13,10.1.1.5,128,-0.250,-0.250,-0.250,0.000,0.000,0.000
1641079933850852864,2022-01-01-23:32:13,10.1.1.5,139,-0.260,-0.260,-0.260,0.000,0.000,0.000
1641079934051000064,2022-01-01-23:32:14,10.1.1.5,138,-0.270,-0.270,-0.270,0.000,0.000,0.000
1641079934257988864,2022-01-01-23:32:14,10.1.1.5,143,-0.280,-0.280,-0.280,0.000,0.000,0.000
1641079934458168064,2022-01-01-23:32:14,10.1.1.5,140,-0.290,-0.290,-0.290,0.000,0.000,0.000
1641079934657879040,2022-01-01-23:32:14,10.1.1.5,139,-0.300,-0.300,-0.300,0.000,0.000,0.000
1641079934857389824,2022-01-01-23:32:14,10.1.1.5,138,-0.310,-0.310,-0.310,0.000,0.000,0.000
1641079935048146944,2022-01-01-23:32:15,10.1.1.5,127,-0.320,-0.320,-0.320,0.000,0.000,0.000
1641079935256791040,2022-01-01-23:32:15,10.1.1.5,134,-0.330,-0.330,-0.330,0.000,0.000,0.000
1641079935456249088,2022-01-01-23:32:15,10.1.1.5,133,-0.340,-0.340,-0.340,0.000,0.000,0.000
1641079935646672896,2022-01-01-23:32:15,10.1.1.5,122,-0.350,-0.350,-0.350,0.000,0.000,0.000
1641079935856884992,2022-01-01-23:32:15,10.1.1.5,131,-0.360,-0.360,-0.360,0.000,0.000,0.000
1641079936056123904,2022-01-01-23:32:16,10.1.1.5,129,-0.370,-0.370,-0.370,0.000,0.000,0.000
1641079936255361024,2022-01-01-23:32:16,10.1.1.5,127,-0.380,-0.380,-0.380,0.000,0.000,0.000
1641079936454937088,2022-01-01-23:32:16,10.1.1.5,126,-0.390,-0.390,-0.390,0.000,0.000,0.000
1641079936655025920,2022-01-01-23:32:16,10.1.1.5,124,-0.400,-0.400,-0.400,0.000,0.000,0.000
1641079936855174912,2022-01-01-23:32:16,10.1.1.5,122,-0.410,-0.410,-0.410,0.000,0.000,0.000
1641079937073069056,2022-01-01-23:32:17,10.1.1.5,138,-0.420,-0.420,-0.420,0.000,0.000,0.000
1641079937267363072,2022-01-01-23:32:17,10.1.1.5,131,-0.430,-0.430,-0.430,0.000,0.000,0.000
1641079937472269056,2022-01-01-23:32:17,10.1.1.5,135,-0.440,-0.440,-0.440,0.000,0.000,0.000
1641079937673331968,2022-01-01-23:32:17,10.1.1.5,135,-0.450,-0.450,-0.450,0.000,0.000,0.000
1641079937874347008,2022-01-01-23:32:17,10.1.1.5,135,-0.460,-0.460,-0.460,0.000,0.000,0.000
1641079938073214976,2022-01-01-23:32:18,10.1.1.5,133,-0.470,-0.470,-0.470,0.000,0.000,0.000
1641079938272232960,2022-01-01-23:32:18,10.1.1.5,131,-0.480,-0.480,-0.480,0.000,0.000,0.000
1641079938462459136,2022-01-01-23:32:18,10.1.1.5,120,-0.490,-0.490,-0.490,0.000,0.000,0.000
1641079938662116096,2022-01-01-23:32:18,10.1.1.5,118,-0.480,-0.480,-0.480,0.000,0.000,0.000
1641079938870760960,2022-01-01-23:32:18,10.1.1.5,126,-0.470,-0.470,-0.470,0.000,0.000,0.000
1641079939070300160,2022-01-01-23:32:19,10.1.1.5,124,-0.460,-0.460,-0.460,0.000,0.000,0.000
1641079939269498112,2022-01-01-23:32:19,10.1.1.5,122,-0.450,-0.450,-0.450,0.000,0.000,0.000
1641079939471305984,2022-01-01-23:32:19,10.1.1.5,121,-0.440,-0.440,-0.440,0.000,0.000,0.000
1641079939692715008,2022-01-01-23:32:19,10.1.1.5,142,-0.430,-0.430,-0.430,0.000,0.000,0.000
1641079939870126080,2022-01-01-23:32:19,10.1.1.5,118,-0.420,-0.420,-0.420,0.000,0.000,0.000
1641079940091099904,2022-01-01-23:32:20,10.1.1.5,135,-0.410,-0.410,-0.410,0.000,0.000,0.000
1641079940288784896,2022-01-01-23:32:20,10.1.1.5,134,-0.400,-0.400,-0.400,0.000,0.000,0.000
1641079940488401920,2022-01-01-23:32:20,10.1.1.5,133,-0.390,-0.390,-0.390,0.000,0.000,0.000
1641079940687877888,2022-01-01-23:32:20,10.1.1.5,132,-0.380,-0.380,-0.380,0.000,0.000,0.000
1641079940887787008,2022-01-01-23:32:20,10.1.1.5,131,-0.370,-0.370,-0.370,0.000,0.000,0.000
1641079941087603200,2022-01-01-23:32:21,10.1.1.5,128,-0.360,-0.360,-0.360,0.000,0.000,0.000
1641079941288385024,2022-01-01-23:32:21,10.1.1.5,127,-0.350,-0.350,-0.350,0.000,0.000,0.000
1641079941487111936,2022-01-01-23:32:21,10.1.1.5,125,-0.340,-0.340,-0.340,0.000,0.000,0.000
1641079941686286080,2022-01-01-23:32:21,10.1.1.5,123,-0.330,-0.330,-0.330,0.000,0.000,0.000
1641079941887389952,2022-01-01-23:32:21,10.1.1.5,123,-0.320,-0.320,-0.320,0.000,0.000,0.000
1641079942088051200,2022-01-01-23:32:22,10.1.1.5,120,-0.310,-0.310,-0.310,0.000,0.000,0.000
1641079942285639936,2022-01-01-23:32:22,10.1.1.5,117,-0.300,-0.300,-0.300,0.000,0.000,0.000
1641079942486094848,2022-01-01-23:32:22,10.1.1.5,114,-0.290,-0.290,-0.290,0.000,0.000,0.000
1641079942686569984,2022-01-01-23:32:22,10.1.1.5,114,-0.280,-0.280,-0.280,0.000,0.000,0.000
1641079942885760000,2022-01-01-23:32:22,10.1.1.5,113,-0.270,-0.270,-0.270,0.000,0.000,0.000
1641079943084201984,2022-01-01-23:32:23,10.1.1.5,110,-0.260,-0.260,-0.260,0.000,0.000,0.000
1641079943297647104,2022-01-01-23:32:23,10.1.1.5,119,-0.250,-0.250,-0.250,0.000,0.000,0.000
1641079943503424768,2022-01-01-23:32:23,10.1.1.5,128,-0.240,-0.240,-0.240,0.000,0.000,0.000
1641079943703315968,2022-01-01-23:32:23,10.1.1.5,126,-0.230,-0.230,-0.230,0.000,0.000,0.000
1641079943903213056,2022-01-01-23:32:23,10.1.1.5,125,-0.220,-0.220,-0.220,0.000,0.000,0.000
1641079944103131136,2022-01-01-23:32:24,10.1.1.5,124,-0.210,-0.210,-0.210,0.000,0.000,0.000
1641079944295464960,2022-01-01-23:32:24,10.1.1.5,116,-0.200,-0.200,-0.200,0.000,0.000,0.000
1641079944502952192,2022-01-01-23:32:24,10.1.1.5,120,-0.190,-0.190,-0.190,0.000,0.000,0.000
1641079944702408192,2022-01-01-23:32:24,10.1.1.5,119,-0.180,-0.180,-0.180,0.000,0.000,0.000
1641079944903090944,2022-01-01-23:32:24,10.1.1.5,119,-0.170,-0.170,-0.170,0.000,0.000,0.000
1641079945101666048,2022-01-01-23:32:25,10.1.1.5,117,-0.160,-0.160,-0.160,0.000,0.000,0.000
1641079945300664832,2022-01-01-23:32:25,10.1.1.5,115,-0.150,-0.150,-0.150,0.000,0.000,0.000
1641079945500755968,2022-01-01-23:32:25,10.1.1.5,114,-0.140,-0.140,-0.140,0.000,0.000,0.000
1641079945701950976,2022-01-01-23:32:25,10.1.1.5,114,-0.130,-0.130,-0.130,0.000,0.000,0.000
1641079945899651072,2022-01-01-23:32:25,10.1.1.5,111,-0.120,-0.120,-0.120,0.000,0.000,0.000
1641079946119899136,2022-01-01-23:32:26,10.1.1.5,131,-0.110,-0.110,-0.110,0.000,0.000,0.000
1641079946302587136,2022-01-01-23:32:26,10.1.1.5,113,-0.100,-0.100,-0.100,0.000,0.000,0.000
1641079946523889920,2022-01-01-23:32:26,10.1.1.5,133,-0.090,-0.090,-0.090,0.000,0.000,0.000
1641079946725006080,2022-01-01-23:32:26,10.1.1.5,134,-0.080,-0.080,-0.080,0.000,0.000,0.000
1641079946925082880,2022-01-01-23:32:26,10.1.1.5,132,-0.070,-0.070,-0.070,0.000,0.000,0.000
1641079947126595072,2022-01-01-23:32:27,10.1.1.5,131,-0.060,-0.060,-0.060,0.000,0.000,0.000
1641079947327024896,2022-01-01-23:32:27,10.1.1.5,132,-0.050,-0.050,-0.050,0.000,0.000,0.000
1641079947527352064,2022-01-01-23:32:27,10.1.1.5,130,-0.040,-0.040,-0.040,0.000,0.000,0.000
1641079947720415232,2022-01-01-23:32:27,10.1.1.5,121,-0.030,-0.030,-0.030,0.000,0.000,0.000
1641079947929633024,2022-01-01-23:32:27,10.1.1.5,128,-0.020,-0.020,-0.020,0.000,0.000,0.000
1641079948129551872,2022-01-01-23:32:28,10.1.1.5,127,-0.010,-0.010,-0.010,0.000,0.000,0.000
1641079948331140096,2022-01-01-23:32:28,10.1.1.5,128,0.000,0.000,0.000,0.000,0.000,0.000
1641079948531130112,2022-01-01-23:32:28,10.1.1.5,125,-0.010,-0.010,-0.010,0.000,0.000,0.000
1641079948733618944,2022-01-01-23:32:28,10.1.1.5,127,-0.020,-0.020,-0.020,0.000,0.000,0.000
1641079948932758016,2022-01-01-23:32:28,10.1.1.5,125,-0.030,-0.030,-0.030,0.000,0.000,0.000
1641079949133673984,2022-01-01-23:32:29,10.1.1.5,125,-0.040,-0.040,-0.040,0.000,0.000,0.000
1641079949354983936,2022-01-01-23:32:29,10.1.1.5,146,-0.050,-0.050,-0.050,0.000,0.000,0.000
1641079949535543808,2022-01-01-23:32:29,10.1.1.5,125,-0.060,-0.060,-0.060,0.000,0.000,0.000
1641079949737158912,2022-01-01-23:32:29,10.1.1.5,125,-0.070,-0.070,-0.070,0.000,0.000,0.000
1641079949947164928,2022-01-01-23:32:29,10.1.1.5,135,-0.080,-0.080,-0.080,0.000,0.000,0.000
1641079950137998080,2022-01-01-23:32:30,10.1.1.5,124,-0.090,-0.090,-0.090,0.000,0.000,0.000
1641079950351328000,2022-01-01-23:32:30,10.1.1.5,134,-0.100,-0.100,-0.100,0.000,0.000,0.000
1641079950558718976,2022-01-01-23:32:30,10.1.1.5,142,-0.110,-0.110,-0.110,0.000,0.000,0.000
1641079950759587072,2022-01-01-23:32:30,10.1.1.5,142,-0.120,-0.120,-0.120,0.000,0.000,0.000
1641079950960238080,2022-01-01-23:32:30,10.1.1.5,139,-0.130,-0.130,-0.130,0.000,0.000,0.000
1641079951161179904,2022-01-01-23:32:31,10.1.1.5,139,-0.140,-0.140,-0.140,0.000,0.000,0.000
1641079951360745984,2022-01-01-23:32:31,10.1.1.5,137,-0.150,-0.150,-0.150,0.000,0.000,0.000
1641079951582833152,2022-01-01-23:32:31,10.1.1.5,157,-0.160,-0.160,-0.160,0.000,0.000,0.000
1641079951774596864,2022-01-01-23:32:31,10.1.1.5,146,-0.170,-0.170,-0.170,0.000,0.000,0.000
1641079951984946944,2022-01-01-23:32:31,10.1.1.5,155,-0.180,-0.180,-0.180,0.000,0.000,0.000
1641079952168616960,2022-01-01-23:32:32,10.1.1.5,136,-0.190,-0.190,-0.190,0.000,0.000,0.000
1641079952366044928,2022-01-01-23:32:32,10.1.1.5,133,-0.200,-0.200,-0.200,0.000,0.000,0.000
1641079952568101888,2022-01-01-23:32:32,10.1.1.5,134,-0.210,-0.210,-0.210,0.000,0.000,0.000
1641079952785562112,2022-01-01-23:32:32,10.1.1.5,150,-0.220,-0.220,-0.220,0.000,0.000,0.000
1641079952986392064,2022-01-01-23:32:32,10.1.1.5,150,-0.230,-0.230,-0.230,0.000,0.000,0.000
1641079953187099904,2022-01-01-23:32:33,10.1.1.5,147,-0.240,-0.240,-0.240,0.000,0.000,0.000
1641079953379802880,2022-01-01-23:32:33,10.1.1.5,139,-0.250,-0.250,-0.250,0.000,0.000,0.000
1641079953588318208,2022-01-01-23:32:33,10.1.1.5,146,-0.260,-0.260,-0.260,0.000,0.000,0.000
1641079953790045952,2022-01-01-23:32:33,10.1.1.5,147,-0.270,-0.270,-0.270,0.000,0.000,0.000
1641079953989572096,2022-01-01-23:32:33,10.1.1.5,145,-0.280,-0.280,-0.280,0.000,0.000,0.000
1641079954190833920,2022-01-01-23:32:34,10.1.1.5,144,-0.290,-0.290,-0.290,0.000,0.000,0.000
1641079954390841856,2022-01-01-23:32:34,10.1.1.5,144,-0.300,-0.300,-0.300,0.000,0.000,0.000
1641079954591053056,2022-01-01-23:32:34,10.1.1.5,142,-0.310,-0.310,-0.310,0.000,0.000,0.000
1641079954792130048,2022-01-01-23:32:34,10.1.1.5,142,-0.320,-0.320,-0.320,0.000,0.000,0.000
1641079954991631104,2022-01-01-23:32:34,10.1.1.5,141,-0.330,-0.330,-0.330,0.000,0.000,0.000
1641079955192139008,2022-01-01-23:32:35,10.1.1.5,140,-0.340,-0.340,-0.340,0.000,0.000,0.000
1641079955391792128,2022-01-01-23:32:35,10.1.1.5,138,-0.350,-0.350,-0.350,0.000,0.000,0.000
1641079955613409024,2022-01-01-23:32:35,10.1.1.5,158,-0.360,-0.360,-0.360,0.000,0.000,0.000
1641079955813963008,2022-01-01-23:32:35,10.1.1.5,158,-0.370,-0.370,-0.370,0.000,0.000,0.000
1641079956014647040,2022-01-01-23:32:36,10.1.1.5,157,-0.380,-0.380,-0.380,0.000,0.000,0.000
1641079956214479872,2022-01-01-23:32:36,10.1.1.5,155,-0.390,-0.390,-0.390,0.000,0.000,0.000
1641079956414542080,2022-01-01-23:32:36,10.1.1.5,154,-0.400,-0.400,-0.400,0.000,0.000,0.000
1641079956614950912,2022-01-01-23:32:36,10.1.1.5,154,-0.410,-0.410,-0.410,0.000,0.000,0.000
1641079956816508928,2022-01-01-23:32:36,10.1.1.5,155,-0.420,-0.420,-0.420,0.000,0.000,0.000
1641079957014393088,2022-01-01-23:32:37,10.1.1.5,152,-0.430,-0.430,-0.430,0.000,0.000,0.000
1641079957215944960,2022-01-01-23:32:37,10.1.1.5,152,-0.440,-0.440,-0.440,0.000,0.000,0.000
1641079957415826176,2022-01-01-23:32:37,10.1.1.5,152,-0.450,-0.450,-0.450,0.000,0.000,0.000
1641079957616361984,2022-01-01-23:32:37,10.1.1.5,151,-0.460,-0.460,-0.460,0.000,0.000,0.000
1641079957817490176,2022-01-01-23:32:37,10.1.1.5,151,-0.470,-0.470,-0.470,0.000,0.000,0.000
1641079958038486016,2022-01-01-23:32:38,10.1.1.5,172,-0.480,-0.480,-0.480,0.000,0.000,0.000
1641079958217293056,2022-01-01-23:32:38,10.1.1.5,149,-0.490,-0.490,-0.490,0.000,0.000,0.000
1641079958438144000,2022-01-01-23:32:38,10.1.1.5,168,-0.480,-0.480,-0.480,0.000,0.000,0.000
1641079958617327872,2022-01-01-23:32:38,10.1.1.5,146,-0.470,-0.470,-0.470,0.000,0.000,0.000
1641079958818240768,2022-01-01-23:32:38,10.1.1.5,146,-0.460,-0.460,-0.460,0.000,0.000,0.000
1641079959017786880,2022-01-01-23:32:39,10.1.1.5,144,-0.450,-0.450,-0.450,0.000,0.000,0.000
1641079959219518976,2022-01-01-23:32:39,10.1.1.5,145,-0.440,-0.440,-0.440,0.000,0.000,0.000
1641079959439794176,2022-01-01-23:32:39,10.1.1.5,165,-0.430,-0.430,-0.430,0.000,0.000,0.000
1641079959640436992,2022-01-01-23:32:39,10.1.1.5,164,-0.420,-0.420,-0.420,0.000,0.000,0.000
1641079959840192000,2022-01-01-23:32:39,10.1.1.5,162,-0.410,-0.410,-0.410,0.000,0.000,0.000
1641079960039732992,2022-01-01-23:32:40,10.1.1.5,158,-0.400,-0.400,-0.400,0.000,0.000,0.000
1641079960239334144,2022-01-01-23:32:40,10.1.1.5,157,-0.390,-0.390,-0.390,0.000,0.000,0.000
1641079960440659968,2022-01-01-23:32:40,10.1.1.5,157,-0.380,-0.380,-0.380,0.000,0.000,0.000
1641079960639497984,2022-01-01-23:32:40,10.1.1.5,155,-0.370,-0.370,-0.370,0.000,0.000,0.000
1641079960840171008,2022-01-01-23:32:40,10.1.1.5,154,-0.360,-0.360,-0.360,0.000,0.000,0.000
1641079961043102976,2022-01-01-23:32:41,10.1.1.5,154,-0.350,-0.350,-0.350,0.000,0.000,0.000
1641079961240324096,2022-01-01-23:32:41,10.1.1.5,147,-0.340,-0.340,-0.340,0.000,0.000,0.000
1641079961460140032,2022-01-01-23:32:41,10.1.1.5,165,-0.330,-0.330,-0.330,0.000,0.000,0.000
1641079961663870208,2022-01-01-23:32:41,10.1.1.5,167,-0.320,-0.320,-0.320,0.000,0.000,0.000
1641079961853657856,2022-01-01-23:32:41,10.1.1.5,155,-0.310,-0.310,-0.310,0.000,0.000,0.000
1641079962065808128,2022-01-01-23:32:42,10.1.1.5,163,-0.300,-0.300,-0.300,0.000,0.000,0.000
1641079962256161024,2022-01-01-23:32:42,10.1.1.5,152,-0.290,-0.290,-0.290,0.000,0.000,0.000
1641079962482827776,2022-01-01-23:32:42,10.1.1.5,178,-0.280,-0.280,-0.280,0.000,0.000,0.000
1641079962662394880,2022-01-01-23:32:42,10.1.1.5,156,-0.270,-0.270,-0.270,0.000,0.000,0.000
1641079962863372032,2022-01-01-23:32:42,10.1.1.5,156,-0.260,-0.260,-0.260,0.000,0.000,0.000
1641079963061564928,2022-01-01-23:32:43,10.1.1.5,153,-0.250,-0.250,-0.250,0.000,0.000,0.000
1641079963262140928,2022-01-01-23:32:43,10.1.1.5,152,-0.240,-0.240,-0.240,0.000,0.000,0.000
1641079963463042048,2022-01-01-23:32:43,10.1.1.5,152,-0.230,-0.230,-0.230,0.000,0.000,0.000
1641079963683171072,2022-01-01-23:32:43,10.1.1.5,171,-0.220,-0.220,-0.220,0.000,0.000,0.000
1641079963862899968,2022-01-01-23:32:43,10.1.1.5,150,-0.210,-0.210,-0.210,0.000,0.000,0.000
1641079964065453056,2022-01-01-23:32:44,10.1.1.5,151,-0.200,-0.200,-0.200,0.000,0.000,0.000
1641079964282407936,2022-01-01-23:32:44,10.1.1.5,167,-0.190,-0.190,-0.190,0.000,0.000,0.000
1641079964482471936,2022-01-01-23:32:44,10.1.1.5,166,-0.180,-0.180,-0.180,0.000,0.000,0.000
1641079964683227904,2022-01-01-23:32:44,10.1.1.5,165,-0.170,-0.170,-0.170,0.000,0.000,0.000
1641079964883307008,2022-01-01-23:32:44,10.1.1.5,164,-0.160,-0.160,-0.160,0.000,0.000,0.000
1641079965082983936,2022-01-01-23:32:45,10.1.1.5,162,-0.150,-0.150,-0.150,0.000,0.000,0.000
1641079965281862144,2022-01-01-23:32:45,10.1.1.5,158,-0.140,-0.140,-0.140,0.000,0.000,0.000
1641079965502600960,2022-01-01-23:32:45,10.1.1.5,177,-0.130,-0.130,-0.130,0.000,0.000,0.000
1641079965683115008,2022-01-01-23:32:45,10.1.1.5,155,-0.120,-0.120,-0.120,0.000,0.000,0.000
1641079965883218944,2022-01-01-23:32:45,10.1.1.5,155,-0.110,-0.110,-0.110,0.000,0.000,0.000
1641079966103431936,2022-01-01-23:32:46,10.1.1.5,174,-0.100,-0.100,-0.100,0.000,0.000,0.000
1641079966283154944,2022-01-01-23:32:46,10.1.1.5,152,-0.090,-0.090,-0.090,0.000,0.000,0.000
1641079966482320128,2022-01-01-23:32:46,10.1.1.5,150,-0.080,-0.080,-0.080,0.000,0.000,0.000
1641079966683228928,2022-01-01-23:32:46,10.1.1.5,150,-0.070,-0.070,-0.070,0.000,0.000,0.000
1641079966883104000,2022-01-01-23:32:46,10.1.1.5,149,-0.060,-0.060,-0.060,0.000,0.000,0.000
1641079967106897152,2022-01-01-23:32:47,10.1.1.5,171,-0.050,-0.050,-0.050,0.000,0.000,0.000
1641079967302649856,2022-01-01-23:32:47,10.1.1.5,165,-0.040,-0.040,-0.040,0.000,0.000,0.000
1641079967503222016,2022-01-01-23:32:47,10.1.1.5,164,-0.030,-0.030,-0.030,0.000,0.000,0.000
1641079967703890944,2022-01-01-23:32:47,10.1.1.5,164,-0.020,-0.020,-0.020,0.000,0.000,0.000
1641079967907244032,2022-01-01-23:32:47,10.1.1.5,165,-0.010,-0.010,-0.010,0.000,0.000,0.000
1641079968127590912,2022-01-01-23:32:48,10.1.1.5,180,0.000,0.000,0.000,0.000,0.000,0.000
1641079968303357952,2022-01-01-23:32:48,10.1.1.5,155,-0.010,-0.010,-0.010,0.000,0.000,0.000
1641079968503675904,2022-01-01-23:32:48,10.1.1.5,154,-0.020,-0.020,-0.020,0.000,0.000,0.000
1641079968703807232,2022-01-01-23:32:48,10.1.1.5,153,-0.030,-0.030,-0.030,0.000,0.000,0.000
1641079968902560000,2022-01-01-23:32:48,10.1.1.5,151,-0.040,-0.040,-0.040,0.000,0.000,0.000
1641079969103277056,2022-01-01-23:32:49,10.1.1.5,151,-0.050,-0.050,-0.050,0.000,0.000,0.000
1641079969304317952,2022-01-01-23:32:49,10.1.1.5,151,-0.060,-0.060,-0.060,0.000,0.000,0.000
1641079969524879872,2022-01-01-23:32:49,10.1.1.5,170,-0.070,-0.070,-0.070,0.000,0.000,0.000
1641079969724204032,2022-01-01-23:32:49,10.1.1.5,166,-0.080,-0.080,-0.080,0.000,0.000,0.000
1641079969914174976,2022-01-01-23:32:49,10.1.1.5,155,-0.090,-0.090,-0.090,0.000,0.000,0.000
1641079970123302912,2022-01-01-23:32:50,10.1.1.5,162,-0.100,-0.100,-0.100,0.000,0.000,0.000
1641079970322260992,2022-01-01-23:32:50,10.1.1.5,159,-0.110,-0.110,-0.110,0.000,0.000,0.000
1641079970522675968,2022-01-01-23:32:50,10.1.1.5,159,-0.120,-0.120,-0.120,0.000,0.000,0.000
1641079970722022912,2022-01-01-23:32:50,10.1.1.5,155,-0.130,-0.130,-0.130,0.000,0.000,0.000
1641079970922281984,2022-01-01-23:32:50,10.1.1.5,155,-0.140,-0.140,-0.140,0.000,0.000,0.000
1641079971122500864,2022-01-01-23:32:51,10.1.1.5,154,-0.150,-0.150,-0.150,0.000,0.000,0.000
1641079971323564032,2022-01-01-23:32:51,10.1.1.5,154,-0.160,-0.160,-0.160,0.000,0.000,0.000
1641079971524349952,2022-01-01-23:32:51,10.1.1.5,152,-0.170,-0.170,-0.170,0.000,0.000,0.000
1641079971725357056,2022-01-01-23:32:51,10.1.1.5,153,-0.180,-0.180,-0.180,0.000,0.000,0.000
1641079971922691072,2022-01-01-23:32:51,10.1.1.5,148,-0.190,-0.190,-0.190,0.000,0.000,0.000
1641079972143075072,2022-01-01-23:32:52,10.1.1.5,168,-0.200,-0.200,-0.200,0.000,0.000,0.000
1641079972342614784,2022-01-01-23:32:52,10.1.1.5,167,-0.210,-0.210,-0.210,0.000,0.000,0.000
1641079972541481984,2022-01-01-23:32:52,10.1.1.5,164,-0.220,-0.220,-0.220,0.000,0.000,0.000
1641079972742779904,2022-01-01-23:32:52,10.1.1.5,164,-0.230,-0.230,-0.230,0.000,0.000,0.000
1641079972944871936,2022-01-01-23:32:52,10.1.1.5,165,-0.240,-0.240,-0.240,0.000,0.000,0.000
1641079973142105088,2022-01-01-23:32:53,10.1.1.5,161,-0.250,-0.250,-0.250,0.000,0.000,0.000
1641079973331984128,2022-01-01-23:32:53,10.1.1.5,150,-0.260,-0.260,-0.260,0.000,0.000,0.000
1641079973536593920,2022-01-01-23:32:53,10.1.1.5,154,-0.270,-0.270,-0.270,0.000,0.000,0.000
1641079973741842944,2022-01-01-23:32:53,10.1.1.5,158,-0.280,-0.280,-0.280,0.000,0.000,0.000
1641079973943162880,2022-01-01-23:32:53,10.1.1.5,159,-0.290,-0.290,-0.290,0.000,0.000,0.000
1641079974142803968,2022-01-01-23:32:54,10.1.1.5,158,-0.300,-0.300,-0.300,0.000,0.000,0.000
1641079974341988096,2022-01-01-23:32:54,10.1.1.5,156,-0.310,-0.310,-0.310,0.000,0.000,0.000
1641079974540646912,2022-01-01-23:32:54,10.1.1.5,153,-0.320,-0.320,-0.320,0.000,0.000,0.000
1641079974761879808,2022-01-01-23:32:54,10.1.1.5,173,-0.330,-0.330,-0.330,0.000,0.000,0.000
1641079974943595776,2022-01-01-23:32:54,10.1.1.5,154,-0.340,-0.340,-0.340,0.000,0.000,0.000
1641079975162120960,2022-01-01-23:32:55,10.1.1.5,171,-0.350,-0.350,-0.350,0.000,0.000,0.000
1641079975340194048,2022-01-01-23:32:55,10.1.1.5,147,-0.360,-0.360,-0.360,0.000,0.000,0.000
1641079975540764160,2022-01-01-23:32:55,10.1.1.5,146,-0.370,-0.370,-0.370,0.000,0.000,0.000
1641079975762916096,2022-01-01-23:32:55,10.1.1.5,166,-0.380,-0.380,-0.380,0.000,0.000,0.000
1641079975960417024,2022-01-01-23:32:55,10.1.1.5,164,-0.390,-0.390,-0.390,0.000,0.000,0.000
1641079976160698880,2022-01-01-23:32:56,10.1.1.5,163,-0.400,-0.400,-0.400,0.000,0.000,0.000
1641079976351022848,2022-01-01-23:32:56,10.1.1.5,152,-0.410,-0.410,-0.410,0.000,0.000,0.000
1641079976559101184,2022-01-01-23:32:56,10.1.1.5,159,-0.420,-0.420,-0.420,0.000,0.000,0.000
1641079976758519040,2022-01-01-23:32:56,10.1.1.5,156,-0.430,-0.430,-0.430,0.000,0.000,0.000
1641079976960624896,2022-01-01-23:32:56,10.1.1.5,157,-0.440,-0.440,-0.440,0.000,0.000,0.000
1641079977159746816,2022-01-01-23:32:57,10.1.1.5,151,-0.450,-0.450,-0.450,0.000,0.000,0.000
1641079977359005952,2022-01-01-23:32:57,10.1.1.5,149,-0.460,-0.460,-0.460,0.000,0.000,0.000
1641079977558949120,2022-01-01-23:32:57,10.1.1.5,146,-0.470,-0.470,-0.470,0.000,0.000,0.000
1641079977758742016,2022-01-01-23:32:57,10.1.1.5,145,-0.480,-0.480,-0.480,0.000,0.000,0.000
1641079977959047168,2022-01-01-23:32:57,10.1.1.5,144,-0.490,-0.490,-0.490,0.000,0.000,0.000
1641079978180922880,2022-01-01-23:32:58,10.1.1.5,165,-0.480,-0.480,-0.480,0.000,0.000,0.000
1641079978369003008,2022-01-01-23:32:58,10.1.1.5,152,-0.470,-0.470,-0.470,0.000,0.000,0.000
1641079978578355200,2022-01-01-23:32:58,10.1.1.5,160,-0.460,-0.460,-0.460,0.000,0.000,0.000
1641079978780131072,2022-01-01-23:32:58,10.1.1.5,160,-0.450,-0.450,-0.450,0.000,0.000,0.000
1641079978977478912,2022-01-01-23:32:58,10.1.1.5,156,-0.440,-0.440,-0.440,0.000,0.000,0.000
1641079979177808128,2022-01-01-23:32:59,10.1.1.5,156,-0.430,-0.430,-0.430,0.000,0.000,0.000
1641079979377330944,2022-01-01-23:32:59,10.1.1.5,154,-0.420,-0.420,-0.420,0.000,0.000,0.000
1641079979576982016,2022-01-01-23:32:59,10.1.1.5,153,-0.410,-0.410,-0.410,0.000,0.000,0.000
1641079979777029120,2022-01-01-23:32:59,10.1.1.5,152,-0.400,-0.400,-0.400,0.000,0.000,0.000
1641079979976023808,2022-01-01-23:32:59,10.1.1.5,150,-0.390,-0.390,-0.390,0.000,0.000,0.000
1641079980176866048,2022-01-01-23:33:00,10.1.1.5,150,-0.380,-0.380,-0.380,0.000,0.000,0.000
1641079980399549952,2022-01-01-23:33:00,10.1.1.5,172,-0.370,-0.370,-0.370,0.000,0.000,0.000
1641079980595931136,2022-01-01-23:33:00,10.1.1.5,167,-0.360,-0.360,-0.360,0.000,0.000,0.000
1641079980775393024,2022-01-01-23:33:00,10.1.1.5,144,-0.350,-0.350,-0.350,0.000,0.000,0.000
1641079980976363776,2022-01-01-23:33:00,10.1.1.5,144,-0.340,-0.340,-0.340,0.000,0.000,0.000
1641079981175920128,2022-01-01-23:33:01,10.1.1.5,142,-0.330,-0.330,-0.330,0.000,0.000,0.000
1641079981395614976,2022-01-01-23:33:01,10.1.1.5,159,-0.320,-0.320,-0.320,0.000,0.000,0.000
1641079981595136768,2022-01-01-23:33:01,10.1.1.5,157,-0.310,-0.310,-0.310,0.000,0.000,0.000
1641079981784194048,2022-01-01-23:33:01,10.1.1.5,144,-0.300,-0.300,-0.300,0.000,0.000,0.000
1641079981995521024,2022-01-01-23:33:01,10.1.1.5,154,-0.290,-0.290,-0.290,0.000,0.000,0.000
1641079982187817984,2022-01-01-23:33:02,10.1.1.5,145,-0.280,-0.280,-0.280,0.000,0.000,0.000
1641079982395746048,2022-01-01-23:33:02,10.1.1.5,152,-0.270,-0.270,-0.270,0.000,0.000,0.000
1641079982594193920,2022-01-01-23:33:02,10.1.1.5,150,-0.260,-0.260,-0.260,0.000,0.000,0.000
1641079982814019840,2022-01-01-23:33:02,10.1.1.5,169,-0.250,-0.250,-0.250,0.000,0.000,0.000
1641079982994093824,2022-01-01-23:33:02,10.1.1.5,147,-0.240,-0.240,-0.240,0.000,0.000,0.000
1641079983193965056,2022-01-01-23:33:03,10.1.1.5,145,-0.230,-0.230,-0.230,0.000,0.000,0.000
1641079983393153024,2022-01-01-23:33:03,10.1.1.5,144,-0.220,-0.220,-0.220,0.000,0.000,0.000
1641079983592834048,2022-01-01-23:33:03,10.1.1.5,143,-0.210,-0.210,-0.210,0.000,0.000,0.000
1641079983792529152,2022-01-01-23:33:03,10.1.1.5,141,-0.200,-0.200,-0.200,0.000,0.000,0.000
1641079983993912832,2022-01-01-23:33:03,10.1.1.5,141,-0.190,-0.190,-0.190,0.000,0.000,0.000
1641079984191840000,2022-01-01-23:33:04,10.1.1.5,138,-0.180,-0.180,-0.180,0.000,0.000,0.000
1641079984393403904,2022-01-01-23:33:04,10.1.1.5,139,-0.170,-0.170,-0.170,0.000,0.000,0.000
1641079984612077824,2022-01-01-23:33:04,10.1.1.5,157,-0.160,-0.160,-0.160,0.000,0.000,0.000
1641079984811784960,2022-01-01-23:33:04,10.1.1.5,156,-0.150,-0.150,-0.150,0.000,0.000,0.000
1641079985011569920,2022-01-01-23:33:05,10.1.1.5,154,-0.140,-0.140,-0.140,0.000,0.000,0.000
1641079985203247104,2022-01-01-23:33:05,10.1.1.5,145,-0.130,-0.130,-0.130,0.000,0.000,0.000
1641079985411506944,2022-01-01-23:33:05,10.1.1.5,153,-0.120,-0.120,-0.120,0.000,0.000,0.000
1641079985610680064,2022-01-01-23:33:05,10.1.1.5,151,-0.110,-0.110,-0.110,0.000,0.000,0.000
1641079985809622016,2022-01-01-23:33:05,10.1.1.5,149,-0.100,-0.100,-0.100,0.000,0.000,0.000
1641079986010468096,2022-01-01-23:33:06,10.1.1.5,148,-0.090,-0.090,-0.090,0.000,0.000,0.000
1641079986209815040,2022-01-01-23:33:06,10.1.1.5,146,-0.080,-0.080,-0.080,0.000,0.000,0.000
1641079986405129984,2022-01-01-23:33:06,10.1.1.5,140,-0.070,-0.070,-0.070,0.000,0.000,0.000
1641079986622976000,2022-01-01-23:33:06,10.1.1.5,157,-0.060,-0.060,-0.060,0.000,0.000,0.000
1641079986809704960,2022-01-01-23:33:06,10.1.1.5,143,-0.050,-0.050,-0.050,0.000,0.000,0.000
1641079987009392896,2022-01-01-23:33:07,10.1.1.5,142,-0.040,-0.040,-0.040,0.000,0.000,0.000
1641079987208858880,2022-01-01-23:33:07,10.1.1.5,140,-0.030,-0.030,-0.030,0.000,0.000,0.000
1641079987409494016,2022-01-01-23:33:07,10.1.1.5,138,-0.020,-0.020,-0.020,0.000,0.000,0.000
1641079987628179200,2022-01-01-23:33:07,10.1.1.5,157,-0.010,-0.010,-0.010,0.000,0.000,0.000
1641079987808850176,2022-01-01-23:33:07,10.1.1.5,136,0.000,0.000,0.000,0.000,0.000,0.000
1641079988028135936,2022-01-01-23:33:08,10.1.1.5,154,-0.010,-0.010,-0.010,0.000,0.000,0.000
1641079988227515904,2022-01-01-23:33:08,10.1.1.5,151,-0.020,-0.020,-0.020,0.000,0.000,0.000
1641079988428741888,2022-01-01-23:33:08,10.1.1.5,151,-0.030,-0.030,-0.030,0.000,0.000,0.000
1641079988626691072,2022-01-01-23:33:08,10.1.1.5,147,-0.040,-0.040,-0.040,0.000,0.000,0.000
1641079988827014912,2022-01-01-23:33:08,10.1.1.5,147,-0.050,-0.050,-0.050,0.000,0.000,0.000
1641079989026274048,2022-01-01-23:33:09,10.1.1.5,145,-0.060,-0.060,-0.060,0.000,0.000,0.000
1641079989226108928,2022-01-01-23:33:09,10.1.1.5,144,-0.070,-0.070,-0.070,0.000,0.000,0.000
1641079989424887040,2022-01-01-23:33:09,10.1.1.5,142,-0.080,-0.080,-0.080,0.000,0.000,0.000
1641079989625231872,2022-01-01-23:33:09,10.1.1.5,141,-0.090,-0.090,-0.090,0.000,0.000,0.000
1641079989827266048,2022-01-01-23:33:09,10.1.1.5,142,-0.100,-0.100,-0.100,0.000,0.000,0.000
1641079990025070848,2022-01-01-23:33:10,10.1.1.5,136,-0.110,-0.110,-0.110,0.000,0.000,0.000
1641079990225428992,2022-01-01-23:33:10,10.1.1.5,136,-0.120,-0.120,-0.120,0.000,0.000,0.000
1641079990425622016,2022-01-01-23:33:10,10.1.1.5,136,-0.130,-0.130,-0.130,0.000,0.000,0.000
1641079990624279040,2022-01-01-23:33:10,10.1.1.5,133,-0.140,-0.140,-0.140,0.000,0.000,0.000
1641079990843524096,2022-01-01-23:33:10,10.1.1.5,151,-0.150,-0.150,-0.150,0.000,0.000,0.000
1641079991023758848,2022-01-01-23:33:11,10.1.1.5,130,-0.160,-0.160,-0.160,0.000,0.000,0.000
1641079991244860928,2022-01-01-23:33:11,10.1.1.5,150,-0.170,-0.170,-0.170,0.000,0.000,0.000
1641079991444922880,2022-01-01-23:33:11,10.1.1.5,149,-0.180,-0.180,-0.180,0.000,0.000,0.000
1641079991644088064,2022-01-01-23:33:11,10.1.1.5,146,-0.190,-0.190,-0.190,0.000,0.000,0.000
1641079991841792000,2022-01-01-23:33:11,10.1.1.5,144,-0.200,-0.200,-0.200,0.000,0.000,0.000
1641079992042516992,2022-01-01-23:33:12,10.1.1.5,143,-0.210,-0.210,-0.210,0.000,0.000,0.000
1641079992241316096,2022-01-01-23:33:12,10.1.1.5,139,-0.220,-0.220,-0.220,0.000,0.000,0.000
1641079992433075968,2022-01-01-23:33:12,10.1.1.5,128,-0.230,-0.230,-0.230,0.000,0.000,0.000
1641079992641334016,2022-01-01-23:33:12,10.1.1.5,134,-0.240,-0.240,-0.240,0.000,0.000,0.000
1641079992841541888,2022-01-01-23:33:12,10.1.1.5,133,-0.250,-0.250,-0.250,0.000,0.000,0.000
1641079993040626176,2022-01-01-23:33:13,10.1.1.5,130,-0.260,-0.260,-0.260,0.000,0.000,0.000
1641079993239376128,2022-01-01-23:33:13,10.1.1.5,128,-0.270,-0.270,-0.270,0.000,0.000,0.000
1641079993459844096,2022-01-01-23:33:13,10.1.1.5,144,-0.280,-0.280,-0.280,0.000,0.000,0.000
1641079993660724992,2022-01-01-23:33:13,10.1.1.5,144,-0.290,-0.290,-0.290,0.000,0.000,0.000
1641079993860165120,2022-01-01-23:33:13,10.1.1.5,142,-0.300,-0.300,-0.300,0.000,0.000,0.000
1641079994059056128,2022-01-01-23:33:14,10.1.1.5,139,-0.310,-0.310,-0.310,0.000,0.000,0.000
1641079994258963968,2022-01-01-23:33:14,10.1.1.5,138,-0.320,-0.320,-0.320,0.000,0.000,0.000
1641079994458898944,2022-01-01-23:33:14,10.1.1.5,137,-0.330,-0.330,-0.330,0.000,0.000,0.000
1641079994658472960,2022-01-01-23:33:14,10.1.1.5,135,-0.340,-0.340,-0.340,0.000,0.000,0.000
1641079994860281088,2022-01-01-23:33:14,10.1.1.5,136,-0.350,-0.350,-0.350,0.000,0.000,0.000
1641079995058315008,2022-01-01-23:33:15,10.1.1.5,133,-0.360,-0.360,-0.360,0.000,0.000,0.000
1641079995257369088,2022-01-01-23:33:15,10.1.1.5,131,-0.370,-0.370,-0.370,0.000,0.000,0.000
1641079995457694976,2022-01-01-23:33:15,10.1.1.5,130,-0.380,-0.380,-0.380,0.000,0.000,0.000
1641079995657892096,2022-01-01-23:33:15,10.1.1.5,129,-0.390,-0.390,-0.390,0.000,0.000,0.000
1641079995857156864,2022-01-01-23:33:15,10.1.1.5,126,-0.400,-0.400,-0.400,0.000,0.000,0.000
1641079996056492032,2022-01-01-23:33:16,10.1.1.5,125,-0.410,-0.410,-0.410,0.000,0.000,0.000
1641079996256155904,2022-01-01-23:33:16,10.1.1.5,123,-0.420,-0.420,-0.420,0.000,0.000,0.000
1641079996476840960,2022-01-01-23:33:16,10.1.1.5,142,-0.430,-0.430,-0.430,0.000,0.000,0.000
1641079996665914112,2022-01-01-23:33:16,10.1.1.5,129,-0.440,-0.440,-0.440,0.000,0.000,0.000
1641079996878225920,2022-01-01-23:33:16,10.1.1.5,137,-0.450,-0.450,-0.450,0.000,0.000,0.000
1641079997075174144,2022-01-01-23:33:17,10.1.1.5,134,-0.460,-0.460,-0.460,0.000,0.000,0.000
1641079997275269120,2022-01-01-23:33:17,10.1.1.5,133,-0.470,-0.470,-0.470,0.000,0.000,0.000
1641079997475223040,2022-01-01-23:33:17,10.1.1.5,132,-0.480,-0.480,-0.480,0.000,0.000,0.000
1641079997674936064,2022-01-01-23:33:17,10.1.1.5,128,-0.490,-0.490,-0.490,0.000,0.000,0.000
1641079997873830144,2022-01-01-23:33:17,10.1.1.5,125,-0.480,-0.480,-0.480,0.000,0.000,0.000
1641079998073993984,2022-01-01-23:33:18,10.1.1.5,124,-0.470,-0.470,-0.470,0.000,0.000,0.000
1641079998273592064,2022-01-01-23:33:18,10.1.1.5,122,-0.460,-0.460,-0.460,0.000,0.000,0.000
1641079998472985856,2022-01-01-23:33:18,10.1.1.5,119,-0.450,-0.450,-0.450,0.000,0.000,0.000
1641079998693819136,2022-01-01-23:33:18,10.1.1.5,138,-0.440,-0.440,-0.440,0.000,0.000,0.000
1641079998892451072,2022-01-01-23:33:18,10.1.1.5,137,-0.430,-0.430,-0.430,0.000,0.000,0.000
1641079999092217088,2022-01-01-23:33:19,10.1.1.5,135,-0.420,-0.420,-0.420,0.000,0.000,0.000
1641079999292137984,2022-01-01-23:33:19,10.1.1.5,134,-0.410,-0.410,-0.410,0.000,0.000,0.000
1641079999491899136,2022-01-01-23:33:19,10.1.1.5,132,-0.400,-0.400,-0.400,0.000,0.000,0.000
1641079999692212992,2022-01-01-23:33:19,10.1.1.5,132,-0.390,-0.390,-0.390,0.000,0.000,0.000
1641079999891653120,2022-01-01-23:33:19,10.1.1.5,131,-0.380,-0.380,-0.380,0.000,0.000,0.000
1641080000089986048,2022-01-01-23:33:20,10.1.1.5,127,-0.370,-0.370,-0.370,0.000,0.000,0.000
1641080000291130112,2022-01-01-23:33:20,10.1.1.5,126,-0.360,-0.360,-0.360,0.000,0.000,0.000
1641080000490235136,2022-01-01-23:33:20,10.1.1.5,123,-0.350,-0.350,-0.350,0.000,0.000,0.000
1641080000692143872,2022-01-01-23:33:20,10.1.1.5,123,-0.340,-0.340,-0.340,0.000,0.000,0.000
1641080000890552064,2022-01-01-23:33:20,10.1.1.5,121,-0.330,-0.330,-0.330,0.000,0.000,0.000
1641080001089534976,2022-01-01-23:33:21,10.1.1.5,118,-0.320,-0.320,-0.320,0.000,0.000,0.000
1641080001290242816,2022-01-01-23:33:21,10.1.1.5,118,-0.310,-0.310,-0.310,0.000,0.000,0.000
1641080001488253184,2022-01-01-23:33:21,10.1.1.5,115,-0.300,-0.300,-0.300,0.000,0.000,0.000
1641080001708530944,2022-01-01-23:33:21,10.1.1.5,135,-0.290,-0.290,-0.290,0.000,0.000,0.000
1641080001908296960,2022-01-01-23:33:21,10.1.1.5,131,-0.280,-0.280,-0.280,0.000,0.000,0.000
1641080002107710976,2022-01-01-23:33:22,10.1.1.5,131,-0.270,-0.270,-0.270,0.000,0.000,0.000
1641080002306791168,2022-01-01-23:33:22,10.1.1.5,128,-0.260,-0.260,-0.260,0.000,0.000,0.000
1641080002508011008,2022-01-01-23:33:22,10.1.1.5,128,-0.250,-0.250,-0.250,0.000,0.000,0.000
1641080002698166016,2022-01-01-23:33:22,10.1.1.5,116,-0.240,-0.240,-0.240,0.000,0.000,0.000
1641080002907367936,2022-01-01-23:33:22,10.1.1.5,126,-0.230,-0.230,-0.230,0.000,0.000,0.000
1641080003106672128,2022-01-01-23:33:23,10.1.1.5,124,-0.220,-0.220,-0.220,0.000,0.000,0.000
1641080003306010880,2022-01-01-23:33:23,10.1.1.5,122,-0.210,-0.210,-0.210,0.000,0.000,0.000
1641080003507313920,2022-01-01-23:33:23,10.1.1.5,123,-0.200,-0.200,-0.200,0.000,0.000,0.000
1641080003706185216,2022-01-01-23:33:23,10.1.1.5,120,-0.190,-0.190,-0.190,0.000,0.000,0.000
1641080003924890880,2022-01-01-23:33:23,10.1.1.5,137,-0.180,-0.180,-0.180,0.000,0.000,0.000
1641080004114942976,2022-01-01-23:33:24,10.1.1.5,127,-0.170,-0.170,-0.170,0.000,0.000,0.000
1641080004304101888,2022-01-01-23:33:24,10.1.1.5,115,-0.160,-0.160,-0.160,0.000,0.000,0.000
1641080004506396928,2022-01-01-23:33:24,10.1.1.5,116,-0.150,-0.150,-0.150,0.000,0.000,0.000
1641080004703598080,2022-01-01-23:33:24,10.1.1.5,113,-0.140,-0.140,-0.140,0.000,0.000,0.000
1641080004903665152,2022-01-01-23:33:24,10.1.1.5,112,-0.130,-0.130,-0.130,0.000,0.000,0.000
1641080005102170112,2022-01-01-23:33:25,10.1.1.5,110,-0.120,-0.120,-0.120,0.000,0.000,0.000
1641080005302372864,2022-01-01-23:33:25,10.1.1.5,109,-0.110,-0.110,-0.110,0.000,0.000,0.000
1641080005523852032,2022-01-01-23:33:25,10.1.1.5,129,-0.100,-0.100,-0.100,0.000,0.000,0.000
1641080005721494016,2022-01-01-23:33:25,10.1.1.5,126,-0.090,-0.090,-0.090,0.000,0.000,0.000
1641080005921394944,2022-01-01-23:33:25,10.1.1.5,125,-0.080,-0.080,-0.080,0.000,0.000,0.000
1641080006121972992,2022-01-01-23:33:26,10.1.1.5,124,-0.070,-0.070,-0.070,0.000,0.000,0.000
1641080006322029056,2022-01-01-23:33:26,10.1.1.5,122,-0.060,-0.060,-0.060,0.000,0.000,0.000
1641080006523602944,2022-01-01-23:33:26,10.1.1.5,121,-0.050,-0.050,-0.050,0.000,0.000,0.000
1641080006720249856,2022-01-01-23:33:26,10.1.1.5,118,-0.040,-0.040,-0.040,0.000,0.000,0.000
1641080006920137984,2022-01-01-23:33:26,10.1.1.5,117,-0.030,-0.030,-0.030,0.000,0.000,0.000
1641080007119805952,2022-01-01-23:33:27,10.1.1.5,116,-0.020,-0.020,-0.020,0.000,0.000,0.000
1641080007320290048,2022-01-01-23:33:27,10.1.1.5,115,-0.010,-0.010,-0.010,0.000,0.000,0.000
1641080007520754944,2022-01-01-23:33:27,10.1.1.5,115,0.000,0.000,0.000,0.000,0.000,0.000
1641080007738711040,2022-01-01-23:33:27,10.1.1.5,132,-0.010,-0.010,-0.010,0.000,0.000,0.000
1641080007919387136,2022-01-01-23:33:27,10.1.1.5,112,-0.020,-0.020,-0.020,0.000,0.000,0.000
1641080008134472960,2022-01-01-23:33:28,10.1.1.5,126,-0.030,-0.030,-0.030,0.000,0.000,0.000
1641080008318632960,2022-01-01-23:33:28,10.1.1.5,110,-0.040,-0.040,-0.040,0.000,0.000,0.000
1641080008517061888,2022-01-01-23:33:28,10.1.1.5,106,-0.050,-0.050,-0.050,0.000,0.000,0.000
1641080008716929792,2022-01-01-23:33:28,10.1.1.5,104,-0.060,-0.060,-0.060,0.000,0.000,0.000
1641080008918253056,2022-01-01-23:33:28,10.1.1.5,105,-0.070,-0.070,-0.070,0.000,0.000,0.000
1641080009116599040,2022-01-01-23:33:29,10.1.1.5,102,-0.080,-0.080,-0.080,0.000,0.000,0.000
1641080009217466112,2022-01-01-23:33:29,10.1.1.5,-1,-0.080,-0.080,-0.080,0.000,0.000,0.000
1641080009536667136,2022-01-01-23:33:29,10.1.1.5,118,-0.100,-0.100,-0.100,0.000,0.000,0.000
1641080009735742208,2022-01-01-23:33:29,10.1.1.5,117,-0.110,-0.110,-0.110,0.000,0.000,0.000
1641080009925304832,2022-01-01-23:33:29,10.1.1.5,105,-0.120,-0.120,-0.120,0.000,0.000,0.000
1641080010131161856,2022-01-01-23:33:30,10.1.1.5,108,-0.130,-0.130,-0.130,0.000,0.000,0.000
1641080010337684992,2022-01-01-23:33:30,10.1.1.5,113,-0.140,-0.140,-0.140,0.000,0.000,0.000
1641080010538587136,2022-01-01-23:33:30,10.1.1.5,114,-0.150,-0.150,-0.150,0.000,0.000,0.000
1641080010739264000,2022-01-01-23:33:30,10.1.1.5,114,-0.160,-0.160,-0.160,0.000,0.000,0.000
1641080010940798976,2022-01-01-23:33:30,10.1.1.5,112,-0.170,-0.170,-0.170,0.000,0.000,0.000
1641080011141719040,2022-01-01-23:33:31,10.1.1.5,112,-0.180,-0.180,-0.180,0.000,0.000,0.000
1641080011342538240,2022-01-01-23:33:31,10.1.1.5,112,-0.190,-0.190,-0.190,0.000,0.000,0.000
1641080011543628032,2022-01-01-23:33:31,10.1.1.5,110,-0.200,-0.200,-0.200,0.000,0.000,0.000
1641080011763632128,2022-01-01-23:33:31,10.1.1.5,127,-0.210,-0.210,-0.210,0.000,0.000,0.000
1641080011968015872,2022-01-01-23:33:31,10.1.1.5,129,-0.220,-0.220,-0.220,0.000,0.000,0.000
1641080012166251776,2022-01-01-23:33:32,10.1.1.5,126,-0.230,-0.230,-0.230,0.000,0.000,0.000
1641080012367278080,2022-01-01-23:33:32,10.1.1.5,127,-0.240,-0.240,-0.240,0.000,0.000,0.000
1641080012567470080,2022-01-01-23:33:32,10.1.1.5,126,-0.250,-0.250,-0.250,0.000,0.000,0.000
1641080012769458944,2022-01-01-23:33:32,10.1.1.5,127,-0.260,-0.260,-0.260,0.000,0.000,0.000
1641080012969655040,2022-01-01-23:33:32,10.1.1.5,127,-0.270,-0.270,-0.270,0.000,0.000,0.000
1641080013170757120,2022-01-01-23:33:33,10.1.1.5,127,-0.280,-0.280,-0.280,0.000,0.000,0.000
1641080013371831808,2022-01-01-23:33:33,10.1.1.5,127,-0.290,-0.290,-0.290,0.000,0.000,0.000
1641080013571787008,2022-01-01-23:33:33,10.1.1.5,126,-0.300,-0.300,-0.300,0.000,0.000,0.000
1641080013773860096,2022-01-01-23:33:33,10.1.1.5,126,-0.310,-0.310,-0.310,0.000,0.000,0.000
1641080013975259904,2022-01-01-23:33:33,10.1.1.5,127,-0.320,-0.320,-0.320,0.000,0.000,0.000
1641080014186672896,2022-01-01-23:33:34,10.1.1.5,136,-0.330,-0.330,-0.330,0.000,0.000,0.000
1641080014375382016,2022-01-01-23:33:34,10.1.1.5,126,-0.340,-0.340,-0.340,0.000,0.000,0.000
1641080014576811008,2022-01-01-23:33:34,10.1.1.5,127,-0.350,-0.350,-0.350,0.000,0.000,0.000
1641080014776939008,2022-01-01-23:33:34,10.1.1.5,126,-0.360,-0.360,-0.360,0.000,0.000,0.000
1641080014978153984,2022-01-01-23:33:34,10.1.1.5,127,-0.370,-0.370,-0.370,0.000,0.000,0.000
1641080015179845120,2022-01-01-23:33:35,10.1.1.5,127,-0.380,-0.380,-0.380,0.000,0.000,0.000
1641080015399732224,2022-01-01-23:33:35,10.1.1.5,147,-0.390,-0.390,-0.390,0.000,0.000,0.000
1641080015580167936,2022-01-01-23:33:35,10.1.1.5,126,-0.400,-0.400,-0.400,0.000,0.000,0.000
1641080015801147904,2022-01-01-23:33:35,10.1.1.5,146,-0.410,-0.410,-0.410,0.000,0.000,0.000
1641080016002023936,2022-01-01-23:33:36,10.1.1.5,146,-0.420,-0.420,-0.420,0.000,0.000,0.000
1641080016203939072,2022-01-01-23:33:36,10.1.1.5,146,-0.430,-0.430,-0.430,0.000,0.000,0.000
1641080016397644032,2022-01-01-23:33:36,10.1.1.5,137,-0.440,-0.440,-0.440,0.000,0.000,0.000
1641080016604064000,2022-01-01-23:33:36,10.1.1.5,141,-0.450,-0.450,-0.450,0.000,0.000,0.000
1641080016804598016,2022-01-01-23:33:36,10.1.1.5,139,-0.460,-0.460,-0.460,0.000,0.000,0.000
1641080017029634048,2022-01-01-23:33:37,10.1.1.5,162,-0.470,-0.470,-0.470,0.000,0.000,0.000
1641080017226882816,2022-01-01-23:33:37,10.1.1.5,159,-0.480,-0.480,-0.480,0.000,0.000,0.000
1641080017428481024,2022-01-01-23:33:37,10.1.1.5,159,-0.490,-0.490,-0.490,0.000,0.000,0.000
1641080017609370880,2022-01-01-23:33:37,10.1.1.5,139,-0.480,-0.480,-0.480,0.000,0.000,0.000
1641080017828798976,2022-01-01-23:33:37,10.1.1.5,158,-0.470,-0.470,-0.470,0.000,0.000,0.000
1641080018028107008,2022-01-01-23:33:38,10.1.1.5,156,-0.460,-0.460,-0.460,0.000,0.000,0.000
1641080018208035840,2022-01-01-23:33:38,10.1.1.5,135,-0.450,-0.450,-0.450,0.000,0.000,0.000
1641080018428848128,2022-01-01-23:33:38,10.1.1.5,152,-0.440,-0.440,-0.440,0.000,0.000,0.000
1641080018629842944,2022-01-01-23:33:38,10.1.1.5,151,-0.430,-0.430,-0.430,0.000,0.000,0.000
1641080018829660928,2022-01-01-23:33:38,10.1.1.5,149,-0.420,-0.420,-0.420,0.000,0.000,0.000
1641080019022489088,2022-01-01-23:33:39,10.1.1.5,141,-0.410,-0.410,-0.410,0.000,0.000,0.000
1641080019231881984,2022-01-01-23:33:39,10.1.1.5,148,-0.400,-0.400,-0.400,0.000,0.000,0.000
1641080019431898112,2022-01-01-23:33:39,10.1.1.5,146,-0.390,-0.390,-0.390,0.000,0.000,0.000
1641080019644566016,2022-01-01-23:33:39,10.1.1.5,158,-0.380,-0.380,-0.380,0.000,0.000,0.000
1641080019833734144,2022-01-01-23:33:39,10.1.1.5,146,-0.370,-0.370,-0.370,0.000,0.000,0.000
1641080020034054912,2022-01-01-23:33:40,10.1.1.5,146,-0.360,-0.360,-0.360,0.000,0.000,0.000
1641080020235300096,2022-01-01-23:33:40,10.1.1.5,146,-0.350,-0.350,-0.350,0.000,0.000,0.000
1641080020454319104,2022-01-01-23:33:40,10.1.1.5,164,-0.340,-0.340,-0.340,0.000,0.000,0.000
1641080020634531072,2022-01-01-23:33:40,10.1.1.5,142,-0.330,-0.330,-0.330,0.000,0.000,0.000
1641080020835022080,2022-01-01-23:33:40,10.1.1.5,142,-0.320,-0.320,-0.320,0.000,0.000,0.000
1641080021035759872,2022-01-01-23:33:41,10.1.1.5,142,-0.310,-0.310,-0.310,0.000,0.000,0.000
1641080021256334080,2022-01-01-23:33:41,10.1.1.5,161,-0.300,-0.300,-0.300,0.000,0.000,0.000
1641080021455954176,2022-01-01-23:33:41,10.1.1.5,160,-0.290,-0.290,-0.290,0.000,0.000,0.000
1641080021656173824,2022-01-01-23:33:41,10.1.1.5,158,-0.280,-0.280,-0.280,0.000,0.000,0.000
1641080021850996992,2022-01-01-23:33:41,10.1.1.5,152,-0.270,-0.270,-0.270,0.000,0.000,0.000
1641080022057614080,2022-01-01-23:33:42,10.1.1.5,158,-0.260,-0.260,-0.260,0.000,0.000,0.000
1641080022257956096,2022-01-01-23:33:42,10.1.1.5,158,-0.250,-0.250,-0.250,0.000,0.000,0.000
1641080022458231040,2022-01-01-23:33:42,10.1.1.5,157,-0.240,-0.240,-0.240,0.000,0.000,0.000
1641080022659079168,2022-01-01-23:33:42,10.1.1.5,157,-0.230,-0.230,-0.230,0.000,0.000,0.000
1641080022858203904,2022-01-01-23:33:42,10.1.1.5,155,-0.220,-0.220,-0.220,0.000,0.000,0.000
1641080023058782976,2022-01-01-23:33:43,10.1.1.5,155,-0.210,-0.210,-0.210,0.000,0.000,0.000
1641080023259521024,2022-01-01-23:33:43,10.1.1.5,155,-0.200,-0.200,-0.200,0.000,0.000,0.000
1641080023459710976,2022-01-01-23:33:43,10.1.1.5,155,-0.190,-0.190,-0.190,0.000,0.000,0.000
1641080023661565952,2022-01-01-23:33:43,10.1.1.5,156,-0.180,-0.180,-0.180,0.000,0.000,0.000
1641080023879405056,2022-01-01-23:33:43,10.1.1.5,172,-0.170,-0.170,-0.170,0.000,0.000,0.000
1641080024059493120,2022-01-01-23:33:44,10.1.1.5,152,-0.160,-0.160,-0.160,0.000,0.000,0.000
1641080024280713984,2022-01-01-23:33:44,10.1.1.5,172,-0.150,-0.150,-0.150,0.000,0.000,0.000
1641080024460355072,2022-01-01-23:33:44,10.1.1.5,151,-0.140,-0.140,-0.140,0.000,0.000,0.000
1641080024660631808,2022-01-01-23:33:44,10.1.1.5,150,-0.130,-0.130,-0.130,0.000,0.000,0.000
1641080024860194048,2022-01-01-23:33:44,10.1.1.5,149,-0.120,-0.120,-0.120,0.000,0.000,0.000
1641080025061943040,2022-01-01-23:33:45,10.1.1.5,149,-0.110,-0.110,-0.110,0.000,0.000,0.000
1641080025261411840,2022-01-01-23:33:45,10.1.1.5,148,-0.100,-0.100,-0.100,0.000,0.000,0.000
1641080025462883072,2022-01-01-23:33:45,10.1.1.5,148,-0.090,-0.090,-0.090,0.000,0.000,0.000
1641080025682398976,2022-01-01-23:33:45,10.1.1.5,167,-0.080,-0.080,-0.080,0.000,0.000,0.000
1641080025882770944,2022-01-01-23:33:45,10.1.1.5,166,-0.070,-0.070,-0.070,0.000,0.000,0.000
1641080026083076096,2022-01-01-23:33:46,10.1.1.5,166,-0.060,-0.060,-0.060,0.000,0.000,0.000
1641080026283479808,2022-01-01-23:33:46,10.1.1.5,166,-0.050,-0.050,-0.050,0.000,0.000,0.000
1641080026473488128,2022-01-01-23:33:46,10.1.1.5,153,-0.040,-0.040,-0.040,0.000,0.000,0.000
1641080026683958016,2022-01-01-23:33:46,10.1.1.5,163,-0.030,-0.030,-0.030,0.000,0.000,0.000
1641080026882686976,2022-01-01-23:33:46,10.1.1.5,161,-0.020,-0.020,-0.020,0.000,0.000,0.000
1641080027082840832,2022-01-01-23:33:47,10.1.1.5,160,-0.010,-0.010,-0.010,0.000,0.000,0.000
1641080027302722048,2022-01-01-23:33:47,10.1.1.5,178,0.000,0.000,0.000,0.000,0.000,0.000
1641080027485167872,2022-01-01-23:33:47,10.1.1.5,158,-0.010,-0.010,-0.010,0.000,0.000,0.000
1641080027682496000,2022-01-01-23:33:47,10.1.1.5,153,-0.020,-0.020,-0.020,0.000,0.000,0.000
1641080027883497984,2022-01-01-23:33:47,10.1.1.5,152,-0.030,-0.030,-0.030,0.000,0.000,0.000
1641080028083723008,2022-01-01-23:33:48,10.1.1.5,151,-0.040,-0.040,-0.040,0.000,0.000,0.000
1641080028283655936,2022-01-01-23:33:48,10.1.1.5,150,-0.050,-0.050,-0.050,0.000,0.000,0.000
1641080028498853888,2022-01-01-23:33:48,10.1.1.5,160,-0.060,-0.060,-0.060,0.000,0.000,0.000
1641080028704616192,2022-01-01-23:33:48,10.1.1.5,164,-0.070,-0.070,-0.070,0.000,0.000,0.000
1641080028898083840,2022-01-01-23:33:48,10.1.1.5,155,-0.080,-0.080,-0.080,0.000,0.000,0.000
1641080029103426816,2022-01-01-23:33:49,10.1.1.5,158,-0.090,-0.090,-0.090,0.000,0.000,0.000
1641080029305243136,2022-01-01-23:33:49,10.1.1.5,159,-0.100,-0.100,-0.100,0.000,0.000,0.000
1641080029524732160,2022-01-01-23:33:49,10.1.1.5,177,-0.110,-0.110,-0.110,0.000,0.000,0.000
1641080029704849920,2022-01-01-23:33:49,10.1.1.5,156,-0.120,-0.120,-0.120,0.000,0.000,0.000
1641080029904372992,2022-01-01-23:33:49,10.1.1.5,155,-0.130,-0.130,-0.130,0.000,0.000,0.000
1641080030104672000,2022-01-01-23:33:50,10.1.1.5,154,-0.140,-0.140,-0.140,0.000,0.000,0.000
1641080030323844864,2022-01-01-23:33:50,10.1.1.5,172,-0.150,-0.150,-0.150,0.000,0.000,0.000
1641080030506256128,2022-01-01-23:33:50,10.1.1.5,154,-0.160,-0.160,-0.160,0.000,0.000,0.000
1641080030704939008,2022-01-01-23:33:50,10.1.1.5,152,-0.170,-0.170,-0.170,0.000,0.000,0.000
1641080030925797888,2022-01-01-23:33:50,10.1.1.5,171,-0.180,-0.180,-0.180,0.000,0.000,0.000
1641080031127002880,2022-01-01-23:33:51,10.1.1.5,169,-0.190,-0.190,-0.190,0.000,0.000,0.000
1641080031327366144,2022-01-01-23:33:51,10.1.1.5,168,-0.200,-0.200,-0.200,0.000,0.000,0.000
1641080031527113984,2022-01-01-23:33:51,10.1.1.5,167,-0.210,-0.210,-0.210,0.000,0.000,0.000
1641080031726543872,2022-01-01-23:33:51,10.1.1.5,164,-0.220,-0.220,-0.220,0.000,0.000,0.000
1641080031915538944,2022-01-01-23:33:51,10.1.1.5,152,-0.230,-0.230,-0.230,0.000,0.000,0.000
1641080032127141888,2022-01-01-23:33:52,10.1.1.5,161,-0.240,-0.240,-0.240,0.000,0.000,0.000
1641080032327183872,2022-01-01-23:33:52,10.1.1.5,160,-0.250,-0.250,-0.250,0.000,0.000,0.000
1641080032526010112,2022-01-01-23:33:52,10.1.1.5,159,-0.260,-0.260,-0.260,0.000,0.000,0.000
1641080032725637888,2022-01-01-23:33:52,10.1.1.5,157,-0.270,-0.270,-0.270,0.000,0.000,0.000
1641080032925300992,2022-01-01-23:33:52,10.1.1.5,156,-0.280,-0.280,-0.280,0.000,0.000,0.000
1641080033127386112,2022-01-01-23:33:53,10.1.1.5,157,-0.290,-0.290,-0.290,0.000,0.000,0.000
1641080033328033024,2022-01-01-23:33:53,10.1.1.5,156,-0.300,-0.300,-0.300,0.000,0.000,0.000
1641080033527278848,2022-01-01-23:33:53,10.1.1.5,155,-0.310,-0.310,-0.310,0.000,0.000,0.000
1641080033735358976,2022-01-01-23:33:53,10.1.1.5,162,-0.320,-0.320,-0.320,0.000,0.000,0.000
1641080033925050112,2022-01-01-23:33:53,10.1.1.5,150,-0.330,-0.330,-0.330,0.000,0.000,0.000
1641080034147352064,2022-01-01-23:33:54,10.1.1.5,171,-0.340,-0.340,-0.340,0.000,0.000,0.000
1641080034345268992,2022-01-01-23:33:54,10.1.1.5,168,-0.350,-0.350,-0.350,0.000,0.000,0.000
1641080034545669120,2022-01-01-23:33:54,10.1.1.5,167,-0.360,-0.360,-0.360,0.000,0.000,0.000
1641080034745336064,2022-01-01-23:33:54,10.1.1.5,165,-0.370,-0.370,-0.370,0.000,0.000,0.000
1641080034947112192,2022-01-01-23:33:54,10.1.1.5,167,-0.380,-0.380,-0.380,0.000,0.000,0.000
1641080035147345920,2022-01-01-23:33:55,10.1.1.5,166,-0.390,-0.390,-0.390,0.000,0.000,0.000
1641080035346408960,2022-01-01-23:33:55,10.1.1.5,163,-0.400,-0.400,-0.400,0.000,0.000,0.000
1641080035545611008,2022-01-01-23:33:55,10.1.1.5,160,-0.410,-0.410,-0.410,0.000,0.000,0.000
1641080035744091136,2022-01-01-23:33:55,10.1.1.5,157,-0.420,-0.420,-0.420,0.000,0.000,0.000
1641080035946059008,2022-01-01-23:33:55,10.1.1.5,158,-0.430,-0.430,-0.430,0.000,0.000,0.000
1641080036144808960,2022-01-01-23:33:56,10.1.1.5,156,-0.440,-0.440,-0.440,0.000,0.000,0.000
1641080036345071104,2022-01-01-23:33:56,10.1.1.5,155,-0.450,-0.450,-0.450,0.000,0.000,0.000
1641080036545110016,2022-01-01-23:33:56,10.1.1.5,154,-0.460,-0.460,-0.460,0.000,0.000,0.000
1641080036764493056,2022-01-01-23:33:56,10.1.1.5,173,-0.470,-0.470,-0.470,0.000,0.000,0.000
1641080036945113856,2022-01-01-23:33:56,10.1.1.5,153,-0.480,-0.480,-0.480,0.000,0.000,0.000
1641080037146970880,2022-01-01-23:33:57,10.1.1.5,153,-0.490,-0.490,-0.490,0.000,0.000,0.000
1641080037344787968,2022-01-01-23:33:57,10.1.1.5,150,-0.480,-0.480,-0.480,0.000,0.000,0.000
1641080037563340800,2022-01-01-23:33:57,10.1.1.5,168,-0.470,-0.470,-0.470,0.000,0.000,0.000
1641080037763990016,2022-01-01-23:33:57,10.1.1.5,167,-0.460,-0.460,-0.460,0.000,0.000,0.000
1641080037956173824,2022-01-01-23:33:57,10.1.1.5,158,-0.450,-0.450,-0.450,0.000,0.000,0.000
1641080038157202944,2022-01-01-23:33:58,10.1.1.5,155,-0.440,-0.440,-0.440,0.000,0.000,0.000
1641080038363232000,2022-01-01-23:33:58,10.1.1.5,163,-0.430,-0.430,-0.430,0.000,0.000,0.000
1641080038562983936,2022-01-01-23:33:58,10.1.1.5,162,-0.420,-0.420,-0.420,0.000,0.000,0.000
1641080038763529984,2022-01-01-23:33:58,10.1.1.5,162,-0.410,-0.410,-0.410,0.000,0.000,0.000
1641080038963305984,2022-01-01-23:33:58,10.1.1.5,160,-0.400,-0.400,-0.400,0.000,0.000,0.000
1641080039163016192,2022-01-01-23:33:59,10.1.1.5,159,-0.390,-0.390,-0.390,0.000,0.000,0.000
1641080039362935040,2022-01-01-23:33:59,10.1.1.5,158,-0.380,-0.380,-0.380,0.000,0.000,0.000
1641080039565828096,2022-01-01-23:33:59,10.1.1.5,160,-0.370,-0.370,-0.370,0.000,0.000,0.000
1641080039762535168,2022-01-01-23:33:59,10.1.1.5,156,-0.360,-0.360,-0.360,0.000,0.000,0.000
1641080039963218944,2022-01-01-23:33:59,10.1.1.5,156,-0.350,-0.350,-0.350,0.000,0.000,0.000
1641080040163120896,2022-01-01-23:34:00,10.1.1.5,155,-0.340,-0.340,-0.340,0.000,0.000,0.000
1641080040363091968,2022-01-01-23:34:00,10.1.1.5,154,-0.330,-0.330,-0.330,0.000,0.000,0.000
1641080040561533952,2022-01-01-23:34:00,10.1.1.5,152,-0.320,-0.320,-0.320,0.000,0.000,0.000
1641080040761728000,2022-01-01-23:34:00,10.1.1.5,152,-0.310,-0.310,-0.310,0.000,0.000,0.000
1641080040961875968,2022-01-01-23:34:00,10.1.1.5,149,-0.300,-0.300,-0.300,0.000,0.000,0.000
1641080041182508032,2022-01-01-23:34:01,10.1.1.5,167,-0.290,-0.290,-0.290,0.000,0.000,0.000
1641080041381767936,2022-01-01-23:34:01,10.1.1.5,165,-0.280,-0.280,-0.280,0.000,0.000,0.000
1641080041581079040,2022-01-01-23:34:01,10.1.1.5,163,-0.270,-0.270,-0.270,0.000,0.000,0.000
1641080041776495104,2022-01-01-23:34:01,10.1.1.5,157,-0.260,-0.260,-0.260,0.000,0.000,0.000
1641080041979429888,2022-01-01-23:34:01,10.1.1.5,155,-0.250,-0.250,-0.250,0.000,0.000,0.000
1641080042181757952,2022-01-01-23:34:02,10.1.1.5,152,-0.240,-0.240,-0.240,0.000,0.000,0.000
1641080042381136896,2022-01-01-23:34:02,10.1.1.5,151,-0.230,-0.230,-0.230,0.000,0.000,0.000
1641080042581523968,2022-01-01-23:34:02,10.1.1.5,150,-0.220,-0.220,-0.220,0.000,0.000,0.000
1641080042780216832,2022-01-01-23:34:02,10.1.1.5,148,-0.210,-0.210,-0.210,0.000,0.000,0.000
1641080042979672832,2022-01-01-23:34:02,10.1.1.5,146,-0.200,-0.200,-0.200,0.000,0.000,0.000
1641080043199471104,2022-01-01-23:34:03,10.1.1.5,164,-0.190,-0.190,-0.190,0.000,0.000,0.000
1641080043400003072,2022-01-01-23:34:03,10.1.1.5,164,-0.180,-0.180,-0.180,0.000,0.000,0.000
1641080043600420096,2022-01-01-23:34:03,10.1.1.5,163,-0.170,-0.170,-0.170,0.000,0.000,0.000
1641080043799851008,2022-01-01-23:34:03,10.1.1.5,160,-0.160,-0.160,-0.160,0.000,0.000,0.000
1641080043999866112,2022-01-01-23:34:03,10.1.1.5,159,-0.150,-0.150,-0.150,0.000,0.000,0.000
1641080044200372992,2022-01-01-23:34:04,10.1.1.5,159,-0.140,-0.140,-0.140,0.000,0.000,0.000
1641080044398297088,2022-01-01-23:34:04,10.1.1.5,155,-0.130,-0.130,-0.130,0.000,0.000,0.000
1641080044598896128,2022-01-01-23:34:04,10.1.1.5,155,-0.120,-0.120,-0.120,0.000,0.000,0.000
1641080044799633920,2022-01-01-23:34:04,10.1.1.5,154,-0.110,-0.110,-0.110,0.000,0.000,0.000
1641080044999321088,2022-01-01-23:34:04,10.1.1.5,153,-0.100,-0.100,-0.100,0.000,0.000,0.000
1641080045201847040,2022-01-01-23:34:05,10.1.1.5,152,-0.090,-0.090,-0.090,0.000,0.000,0.000
1641080045398572800,2022-01-01-23:34:05,10.1.1.5,146,-0.080,-0.080,-0.080,0.000,0.000,0.000
1641080045608993024,2022-01-01-23:34:05,10.1.1.5,154,-0.070,-0.070,-0.070,0.000,0.000,0.000
1641080045817223936,2022-01-01-23:34:05,10.1.1.5,161,-0.060,-0.060,-0.060,0.000,0.000,0.000
1641080046017538048,2022-01-01-23:34:06,10.1.1.5,160,-0.050,-0.050,-0.050,0.000,0.000,0.000
1641080046218457856,2022-01-01-23:34:06,10.1.1.5,160,-0.040,-0.040,-0.040,0.000,0.000,0.000
