FedericoMungari/DigitalTwin_service/01_WiredScenario/Output/Output_script/script_rosapi_2_output_robots10_freq0_9.txt
timestamp,date,node,latency,joint_1,joint_2,joint_3,joint_4,joint_5,joint_6
1641220955061094912,2022-01-03-14:42:35,10.1.1.10,180,-0.010,-0.010,-0.010,0.000,0.000,0.000
1641220955249373952,2022-01-03-14:42:35,10.1.1.10,165,-0.020,-0.020,-0.020,0.000,0.000,0.000
1641220955459644160,2022-01-03-14:42:35,10.1.1.10,174,-0.030,-0.030,-0.030,0.000,0.000,0.000
1641220955668896000,2022-01-03-14:42:35,10.1.1.10,183,-0.040,-0.040,-0.040,0.000,0.000,0.000
1641220955859991040,2022-01-03-14:42:35,10.1.1.10,172,-0.050,-0.050,-0.050,0.000,0.000,0.000
1641220956058810112,2022-01-03-14:42:36,10.1.1.10,171,-0.060,-0.060,-0.060,0.000,0.000,0.000
1641220956258477824,2022-01-03-14:42:36,10.1.1.10,170,-0.070,-0.070,-0.070,0.000,0.000,0.000
1641220956457932032,2022-01-03-14:42:36,10.1.1.10,169,-0.080,-0.080,-0.080,0.000,0.000,0.000
1641220956657968896,2022-01-03-14:42:36,10.1.1.10,168,-0.090,-0.090,-0.090,0.000,0.000,0.000
1641220956857656064,2022-01-03-14:42:36,10.1.1.10,167,-0.100,-0.100,-0.100,0.000,0.000,0.000
1641220957057261824,2022-01-03-14:42:37,10.1.1.10,166,-0.110,-0.110,-0.110,0.000,0.000,0.000
1641220957266774016,2022-01-03-14:42:37,10.1.1.10,175,-0.120,-0.120,-0.120,0.000,0.000,0.000
1641220957456569856,2022-01-03-14:42:37,10.1.1.10,164,-0.130,-0.130,-0.130,0.000,0.000,0.000
1641220957656327936,2022-01-03-14:42:37,10.1.1.10,163,-0.140,-0.140,-0.140,0.000,0.000,0.000
1641220957859266048,2022-01-03-14:42:37,10.1.1.10,166,-0.150,-0.150,-0.150,0.000,0.000,0.000
1641220958065090816,2022-01-03-14:42:38,10.1.1.10,171,-0.160,-0.160,-0.160,0.000,0.000,0.000
1641220958255122944,2022-01-03-14:42:38,10.1.1.10,161,-0.170,-0.170,-0.170,0.000,0.000,0.000
1641220958464532992,2022-01-03-14:42:38,10.1.1.10,169,-0.180,-0.180,-0.180,0.000,0.000,0.000
1641220958663958016,2022-01-03-14:42:38,10.1.1.10,167,-0.190,-0.190,-0.190,0.000,0.000,0.000
1641220958883794176,2022-01-03-14:42:38,10.1.1.10,185,-0.200,-0.200,-0.200,0.000,0.000,0.000
1641220959064024064,2022-01-03-14:42:39,10.1.1.10,165,-0.210,-0.210,-0.210,0.000,0.000,0.000
1641220959273432064,2022-01-03-14:42:39,10.1.1.10,174,-0.220,-0.220,-0.220,0.000,0.000,0.000
1641220959462621952,2022-01-03-14:42:39,10.1.1.10,162,-0.230,-0.230,-0.230,0.000,0.000,0.000
1641220959662838016,2022-01-03-14:42:39,10.1.1.10,162,-0.240,-0.240,-0.240,0.000,0.000,0.000
1641220959872741888,2022-01-03-14:42:39,10.1.1.10,171,-0.250,-0.250,-0.250,0.000,0.000,0.000
1641220960072683008,2022-01-03-14:42:40,10.1.1.10,170,-0.260,-0.260,-0.260,0.000,0.000,0.000
1641220960261392128,2022-01-03-14:42:40,10.1.1.10,159,-0.270,-0.270,-0.270,0.000,0.000,0.000
1641220960471270144,2022-01-03-14:42:40,10.1.1.10,167,-0.280,-0.280,-0.280,0.000,0.000,0.000
1641220960660660992,2022-01-03-14:42:40,10.1.1.10,156,-0.290,-0.290,-0.290,0.000,0.000,0.000
1641220960860655104,2022-01-03-14:42:40,10.1.1.10,156,-0.300,-0.300,-0.300,0.000,0.000,0.000
1641220961070324992,2022-01-03-14:42:41,10.1.1.10,165,-0.310,-0.310,-0.310,0.000,0.000,0.000
1641220961271764992,2022-01-03-14:42:41,10.1.1.10,166,-0.320,-0.320,-0.320,0.000,0.000,0.000
1641220961473773056,2022-01-03-14:42:41,10.1.1.10,167,-0.330,-0.330,-0.330,0.000,0.000,0.000
1641220961683859968,2022-01-03-14:42:41,10.1.1.10,177,-0.340,-0.340,-0.340,0.000,0.000,0.000
1641220962086348032,2022-01-03-14:42:42,10.1.1.10,177,-0.360,-0.360,-0.360,0.000,0.000,0.000
1641220962287273984,2022-01-03-14:42:42,10.1.1.10,177,-0.370,-0.370,-0.370,0.000,0.000,0.000
1641220962478493952,2022-01-03-14:42:42,10.1.1.10,168,-0.380,-0.380,-0.380,0.000,0.000,0.000
1641220962688876032,2022-01-03-14:42:42,10.1.1.10,177,-0.390,-0.390,-0.390,0.000,0.000,0.000
1641220962879070976,2022-01-03-14:42:42,10.1.1.10,167,-0.400,-0.400,-0.400,0.000,0.000,0.000
1641220963089876992,2022-01-03-14:42:43,10.1.1.10,177,-0.410,-0.410,-0.410,0.000,0.000,0.000
1641220963291683072,2022-01-03-14:42:43,10.1.1.10,178,-0.420,-0.420,-0.420,0.000,0.000,0.000
1641220963485232128,2022-01-03-14:42:43,10.1.1.10,171,-0.430,-0.430,-0.430,0.000,0.000,0.000
1641220963691785216,2022-01-03-14:42:43,10.1.1.10,177,-0.440,-0.440,-0.440,0.000,0.000,0.000
1641220963893495040,2022-01-03-14:42:43,10.1.1.10,178,-0.450,-0.450,-0.450,0.000,0.000,0.000
1641220964096209152,2022-01-03-14:42:44,10.1.1.10,179,-0.460,-0.460,-0.460,0.000,0.000,0.000
1641220964294188032,2022-01-03-14:42:44,10.1.1.10,177,-0.470,-0.470,-0.470,0.000,0.000,0.000
1641220964496002048,2022-01-03-14:42:44,10.1.1.10,179,-0.480,-0.480,-0.480,0.000,0.000,0.000
1641220964708332032,2022-01-03-14:42:44,10.1.1.10,187,-0.490,-0.490,-0.490,0.000,0.000,0.000
1641220964896454144,2022-01-03-14:42:44,10.1.1.10,177,-0.480,-0.480,-0.480,0.000,0.000,0.000
1641220965108093952,2022-01-03-14:42:45,10.1.1.10,186,-0.470,-0.470,-0.470,0.000,0.000,0.000
1641220965317415936,2022-01-03-14:42:45,10.1.1.10,193,-0.460,-0.460,-0.460,0.000,0.000,0.000
1641220965514436864,2022-01-03-14:42:45,10.1.1.10,189,-0.450,-0.450,-0.450,0.000,0.000,0.000
1641220965717787904,2022-01-03-14:42:45,10.1.1.10,192,-0.440,-0.440,-0.440,0.000,0.000,0.000
1641220965909161216,2022-01-03-14:42:45,10.1.1.10,183,-0.430,-0.430,-0.430,0.000,0.000,0.000
1641220966108856064,2022-01-03-14:42:46,10.1.1.10,181,-0.420,-0.420,-0.420,0.000,0.000,0.000
1641220966309819904,2022-01-03-14:42:46,10.1.1.10,181,-0.410,-0.410,-0.410,0.000,0.000,0.000
1641220966519324928,2022-01-03-14:42:46,10.1.1.10,190,-0.400,-0.400,-0.400,0.000,0.000,0.000
1641220966710132992,2022-01-03-14:42:46,10.1.1.10,180,-0.390,-0.390,-0.390,0.000,0.000,0.000
1641220966920419840,2022-01-03-14:42:46,10.1.1.10,189,-0.380,-0.380,-0.380,0.000,0.000,0.000
1641220967120922112,2022-01-03-14:42:47,10.1.1.10,189,-0.370,-0.370,-0.370,0.000,0.000,0.000
1641220967311302912,2022-01-03-14:42:47,10.1.1.10,179,-0.360,-0.360,-0.360,0.000,0.000,0.000
1641220967521278976,2022-01-03-14:42:47,10.1.1.10,188,-0.350,-0.350,-0.350,0.000,0.000,0.000
1641220967724823040,2022-01-03-14:42:47,10.1.1.10,190,-0.340,-0.340,-0.340,0.000,0.000,0.000
1641220967932337152,2022-01-03-14:42:47,10.1.1.10,196,-0.330,-0.330,-0.330,0.000,0.000,0.000
1641220968133046016,2022-01-03-14:42:48,10.1.1.10,196,-0.320,-0.320,-0.320,0.000,0.000,0.000
1641220968333726976,2022-01-03-14:42:48,10.1.1.10,195,-0.310,-0.310,-0.310,0.000,0.000,0.000
1641220968523386112,2022-01-03-14:42:48,10.1.1.10,184,-0.300,-0.300,-0.300,0.000,0.000,0.000
1641220968735311872,2022-01-03-14:42:48,10.1.1.10,195,-0.290,-0.290,-0.290,0.000,0.000,0.000
1641220968934114048,2022-01-03-14:42:48,10.1.1.10,187,-0.280,-0.280,-0.280,0.000,0.000,0.000
1641220969143749120,2022-01-03-14:42:49,10.1.1.10,196,-0.270,-0.270,-0.270,0.000,0.000,0.000
1641220969343710976,2022-01-03-14:42:49,10.1.1.10,195,-0.260,-0.260,-0.260,0.000,0.000,0.000
1641220969544110080,2022-01-03-14:42:49,10.1.1.10,194,-0.250,-0.250,-0.250,0.000,0.000,0.000
1641220969743810816,2022-01-03-14:42:49,10.1.1.10,192,-0.240,-0.240,-0.240,0.000,0.000,0.000
1641220969936064000,2022-01-03-14:42:49,10.1.1.10,184,-0.230,-0.230,-0.230,0.000,0.000,0.000
1641220970151174144,2022-01-03-14:42:50,10.1.1.10,198,-0.220,-0.220,-0.220,0.000,0.000,0.000
1641220970334807040,2022-01-03-14:42:50,10.1.1.10,182,-0.210,-0.210,-0.210,0.000,0.000,0.000
1641220970544670976,2022-01-03-14:42:50,10.1.1.10,190,-0.200,-0.200,-0.200,0.000,0.000,0.000
1641220970736033792,2022-01-03-14:42:50,10.1.1.10,180,-0.190,-0.190,-0.190,0.000,0.000,0.000
1641220971365797888,2022-01-03-14:42:51,10.1.1.10,198,-0.160,-0.160,-0.160,0.000,0.000,0.000
1641220971567890944,2022-01-03-14:42:51,10.1.1.10,195,-0.150,-0.150,-0.150,0.000,0.000,0.000
1641220971755474944,2022-01-03-14:42:51,10.1.1.10,182,-0.140,-0.140,-0.140,0.000,0.000,0.000
1641220971965154048,2022-01-03-14:42:51,10.1.1.10,191,-0.130,-0.130,-0.130,0.000,0.000,0.000
1641220972159193088,2022-01-03-14:42:52,10.1.1.10,184,-0.120,-0.120,-0.120,0.000,0.000,0.000
1641220972364381184,2022-01-03-14:42:52,10.1.1.10,189,-0.110,-0.110,-0.110,0.000,0.000,0.000
1641220972579503104,2022-01-03-14:42:52,10.1.1.10,200,-0.100,-0.100,-0.100,0.000,0.000,0.000
1641220972975220992,2022-01-03-14:42:52,10.1.1.10,194,-0.080,-0.080,-0.080,0.000,0.000,0.000
1641220973174457088,2022-01-03-14:42:53,10.1.1.10,193,-0.070,-0.070,-0.070,0.000,0.000,0.000
1641220973375113984,2022-01-03-14:42:53,10.1.1.10,193,-0.060,-0.060,-0.060,0.000,0.000,0.000
1641220973576370944,2022-01-03-14:42:53,10.1.1.10,194,-0.050,-0.050,-0.050,0.000,0.000,0.000
1641220973774849024,2022-01-03-14:42:53,10.1.1.10,191,-0.040,-0.040,-0.040,0.000,0.000,0.000
1641220973984666112,2022-01-03-14:42:53,10.1.1.10,200,-0.030,-0.030,-0.030,0.000,0.000,0.000
1641220974164554240,2022-01-03-14:42:54,10.1.1.10,179,-0.020,-0.020,-0.020,0.000,0.000,0.000
1641220974374820864,2022-01-03-14:42:54,10.1.1.10,189,-0.010,-0.010,-0.010,0.000,0.000,0.000
1641220974585763840,2022-01-03-14:42:54,10.1.1.10,198,0.000,0.000,0.000,0.000,0.000,0.000
1641220974784672000,2022-01-03-14:42:54,10.1.1.10,194,-0.010,-0.010,-0.010,0.000,0.000,0.000
1641220974976276992,2022-01-03-14:42:54,10.1.1.10,185,-0.020,-0.020,-0.020,0.000,0.000,0.000
1641220975174625024,2022-01-03-14:42:55,10.1.1.10,182,-0.030,-0.030,-0.030,0.000,0.000,0.000
1641220975374315008,2022-01-03-14:42:55,10.1.1.10,182,-0.040,-0.040,-0.040,0.000,0.000,0.000
1641220975574168832,2022-01-03-14:42:55,10.1.1.10,181,-0.050,-0.050,-0.050,0.000,0.000,0.000
1641220975785512960,2022-01-03-14:42:55,10.1.1.10,191,-0.060,-0.060,-0.060,0.000,0.000,0.000
1641220976194092032,2022-01-03-14:42:56,10.1.1.10,193,-0.080,-0.080,-0.080,0.000,0.000,0.000
1641220976583777024,2022-01-03-14:42:56,10.1.1.10,182,-0.100,-0.100,-0.100,0.000,0.000,0.000
1641220976793751040,2022-01-03-14:42:56,10.1.1.10,191,-0.110,-0.110,-0.110,0.000,0.000,0.000
1641220977002625024,2022-01-03-14:42:57,10.1.1.10,200,-0.120,-0.120,-0.120,0.000,0.000,0.000
1641220977182384896,2022-01-03-14:42:57,10.1.1.10,179,-0.130,-0.130,-0.130,0.000,0.000,0.000
1641220977392879104,2022-01-03-14:42:57,10.1.1.10,189,-0.140,-0.140,-0.140,0.000,0.000,0.000
1641220977592581120,2022-01-03-14:42:57,10.1.1.10,188,-0.150,-0.150,-0.150,0.000,0.000,0.000
1641220977792398848,2022-01-03-14:42:57,10.1.1.10,187,-0.160,-0.160,-0.160,0.000,0.000,0.000
1641220977992448000,2022-01-03-14:42:57,10.1.1.10,187,-0.170,-0.170,-0.170,0.000,0.000,0.000
1641220978200716032,2022-01-03-14:42:58,10.1.1.10,195,-0.180,-0.180,-0.180,0.000,0.000,0.000
1641220978391355904,2022-01-03-14:42:58,10.1.1.10,185,-0.190,-0.190,-0.190,0.000,0.000,0.000
1641220978592000000,2022-01-03-14:42:58,10.1.1.10,184,-0.200,-0.200,-0.200,0.000,0.000,0.000
1641220978800584960,2022-01-03-14:42:58,10.1.1.10,192,-0.210,-0.210,-0.210,0.000,0.000,0.000
1641220978990531072,2022-01-03-14:42:58,10.1.1.10,182,-0.220,-0.220,-0.220,0.000,0.000,0.000
1641220979199964160,2022-01-03-14:42:59,10.1.1.10,190,-0.230,-0.230,-0.230,0.000,0.000,0.000
1641220979599652096,2022-01-03-14:42:59,10.1.1.10,180,-0.250,-0.250,-0.250,0.000,0.000,0.000
1641220979799292160,2022-01-03-14:42:59,10.1.1.10,176,-0.260,-0.260,-0.260,0.000,0.000,0.000
1641220980012933120,2022-01-03-14:43:00,10.1.1.10,188,-0.270,-0.270,-0.270,0.000,0.000,0.000
1641220980208993792,2022-01-03-14:43:00,10.1.1.10,183,-0.280,-0.280,-0.280,0.000,0.000,0.000
1641220980419308032,2022-01-03-14:43:00,10.1.1.10,193,-0.290,-0.290,-0.290,0.000,0.000,0.000
1641220980618436096,2022-01-03-14:43:00,10.1.1.10,190,-0.300,-0.300,-0.300,0.000,0.000,0.000
1641220980818970880,2022-01-03-14:43:00,10.1.1.10,190,-0.310,-0.310,-0.310,0.000,0.000,0.000
1641220981018428928,2022-01-03-14:43:01,10.1.1.10,189,-0.320,-0.320,-0.320,0.000,0.000,0.000
1641220981217613056,2022-01-03-14:43:01,10.1.1.10,184,-0.330,-0.330,-0.330,0.000,0.000,0.000
1641220981417044992,2022-01-03-14:43:01,10.1.1.10,182,-0.340,-0.340,-0.340,0.000,0.000,0.000
1641220981616780032,2022-01-03-14:43:01,10.1.1.10,182,-0.350,-0.350,-0.350,0.000,0.000,0.000
1641220981816553984,2022-01-03-14:43:01,10.1.1.10,181,-0.360,-0.360,-0.360,0.000,0.000,0.000
1641220982026715904,2022-01-03-14:43:02,10.1.1.10,191,-0.370,-0.370,-0.370,0.000,0.000,0.000
1641220982216320000,2022-01-03-14:43:02,10.1.1.10,180,-0.380,-0.380,-0.380,0.000,0.000,0.000
1641220982416197120,2022-01-03-14:43:02,10.1.1.10,180,-0.390,-0.390,-0.390,0.000,0.000,0.000
1641220982625821184,2022-01-03-14:43:02,10.1.1.10,189,-0.400,-0.400,-0.400,0.000,0.000,0.000
1641220982835292160,2022-01-03-14:43:02,10.1.1.10,197,-0.410,-0.410,-0.410,0.000,0.000,0.000
1641220983015538944,2022-01-03-14:43:03,10.1.1.10,177,-0.420,-0.420,-0.420,0.000,0.000,0.000
1641220983235374848,2022-01-03-14:43:03,10.1.1.10,196,-0.430,-0.430,-0.430,0.000,0.000,0.000
1641220983415265024,2022-01-03-14:43:03,10.1.1.10,176,-0.440,-0.440,-0.440,0.000,0.000,0.000
1641220983624992000,2022-01-03-14:43:03,10.1.1.10,185,-0.450,-0.450,-0.450,0.000,0.000,0.000
1641220983834662912,2022-01-03-14:43:03,10.1.1.10,194,-0.460,-0.460,-0.460,0.000,0.000,0.000
1641220984034864896,2022-01-03-14:43:04,10.1.1.10,193,-0.470,-0.470,-0.470,0.000,0.000,0.000
1641220984213702912,2022-01-03-14:43:04,10.1.1.10,171,-0.480,-0.480,-0.480,0.000,0.000,0.000
1641220984434241024,2022-01-03-14:43:04,10.1.1.10,191,-0.490,-0.490,-0.490,0.000,0.000,0.000
1641220984633543936,2022-01-03-14:43:04,10.1.1.10,189,-0.480,-0.480,-0.480,0.000,0.000,0.000
1641220984812776960,2022-01-03-14:43:04,10.1.1.10,168,-0.470,-0.470,-0.470,0.000,0.000,0.000
1641220985033329920,2022-01-03-14:43:05,10.1.1.10,188,-0.460,-0.460,-0.460,0.000,0.000,0.000
1641220985223383808,2022-01-03-14:43:05,10.1.1.10,178,-0.450,-0.450,-0.450,0.000,0.000,0.000
1641220985424352768,2022-01-03-14:43:05,10.1.1.10,178,-0.440,-0.440,-0.440,0.000,0.000,0.000
1641220985621921024,2022-01-03-14:43:05,10.1.1.10,175,-0.430,-0.430,-0.430,0.000,0.000,0.000
1641220985821694976,2022-01-03-14:43:05,10.1.1.10,172,-0.420,-0.420,-0.420,0.000,0.000,0.000
1641220986021053184,2022-01-03-14:43:06,10.1.1.10,171,-0.410,-0.410,-0.410,0.000,0.000,0.000
1641220986230982912,2022-01-03-14:43:06,10.1.1.10,179,-0.400,-0.400,-0.400,0.000,0.000,0.000
1641220986430962176,2022-01-03-14:43:06,10.1.1.10,179,-0.390,-0.390,-0.390,0.000,0.000,0.000
1641220986621675008,2022-01-03-14:43:06,10.1.1.10,169,-0.380,-0.380,-0.380,0.000,0.000,0.000
1641220986830444032,2022-01-03-14:43:06,10.1.1.10,177,-0.370,-0.370,-0.370,0.000,0.000,0.000
1641220987023762944,2022-01-03-14:43:07,10.1.1.10,169,-0.360,-0.360,-0.360,0.000,0.000,0.000
1641220987240262912,2022-01-03-14:43:07,10.1.1.10,184,-0.350,-0.350,-0.350,0.000,0.000,0.000
1641220987440192000,2022-01-03-14:43:07,10.1.1.10,183,-0.340,-0.340,-0.340,0.000,0.000,0.000
1641220987640041216,2022-01-03-14:43:07,10.1.1.10,182,-0.330,-0.330,-0.330,0.000,0.000,0.000
1641220987829202944,2022-01-03-14:43:07,10.1.1.10,170,-0.320,-0.320,-0.320,0.000,0.000,0.000
1641220988028072192,2022-01-03-14:43:08,10.1.1.10,167,-0.310,-0.310,-0.310,0.000,0.000,0.000
1641220988238513920,2022-01-03-14:43:08,10.1.1.10,175,-0.300,-0.300,-0.300,0.000,0.000,0.000
1641220988448579072,2022-01-03-14:43:08,10.1.1.10,183,-0.290,-0.290,-0.290,0.000,0.000,0.000
1641220988647563008,2022-01-03-14:43:08,10.1.1.10,181,-0.280,-0.280,-0.280,0.000,0.000,0.000
1641220988842121984,2022-01-03-14:43:08,10.1.1.10,175,-0.270,-0.270,-0.270,0.000,0.000,0.000
1641220989057279232,2022-01-03-14:43:09,10.1.1.10,180,-0.260,-0.260,-0.260,0.000,0.000,0.000
1641220989267011840,2022-01-03-14:43:09,10.1.1.10,182,-0.250,-0.250,-0.250,0.000,0.000,0.000
1641220989462198016,2022-01-03-14:43:09,10.1.1.10,171,-0.240,-0.240,-0.240,0.000,0.000,0.000
1641220989656040960,2022-01-03-14:43:09,10.1.1.10,164,-0.230,-0.230,-0.230,0.000,0.000,0.000
1641220989856254976,2022-01-03-14:43:09,10.1.1.10,164,-0.220,-0.220,-0.220,0.000,0.000,0.000
1641220990056518144,2022-01-03-14:43:10,10.1.1.10,163,-0.210,-0.210,-0.210,0.000,0.000,0.000
1641220990255002880,2022-01-03-14:43:10,10.1.1.10,161,-0.200,-0.200,-0.200,0.000,0.000,0.000
1641220990455163904,2022-01-03-14:43:10,10.1.1.10,160,-0.190,-0.190,-0.190,0.000,0.000,0.000
1641220990674526976,2022-01-03-14:43:10,10.1.1.10,179,-0.180,-0.180,-0.180,0.000,0.000,0.000
1641220990867623168,2022-01-03-14:43:10,10.1.1.10,171,-0.170,-0.170,-0.170,0.000,0.000,0.000
1641220990909778944,2022-01-03-14:43:10,10.1.1.10,-4,-0.170,-0.170,-0.170,0.000,0.000,0.000
1641220991283866880,2022-01-03-14:43:11,10.1.1.10,178,-0.150,-0.150,-0.150,0.000,0.000,0.000
1641220991477344000,2022-01-03-14:43:11,10.1.1.10,169,-0.140,-0.140,-0.140,0.000,0.000,0.000
1641220991676251904,2022-01-03-14:43:11,10.1.1.10,169,-0.130,-0.130,-0.130,0.000,0.000,0.000
1641220991872252928,2022-01-03-14:43:11,10.1.1.10,164,-0.120,-0.120,-0.120,0.000,0.000,0.000
1641220992072690944,2022-01-03-14:43:12,10.1.1.10,164,-0.110,-0.110,-0.110,0.000,0.000,0.000
1641220992272326912,2022-01-03-14:43:12,10.1.1.10,163,-0.100,-0.100,-0.100,0.000,0.000,0.000
1641220992471909120,2022-01-03-14:43:12,10.1.1.10,162,-0.090,-0.090,-0.090,0.000,0.000,0.000
1641220992671463936,2022-01-03-14:43:12,10.1.1.10,161,-0.080,-0.080,-0.080,0.000,0.000,0.000
1641220992891556864,2022-01-03-14:43:12,10.1.1.10,175,-0.070,-0.070,-0.070,0.000,0.000,0.000
1641220993094027008,2022-01-03-14:43:13,10.1.1.10,177,-0.060,-0.060,-0.060,0.000,0.000,0.000
1641220993302941952,2022-01-03-14:43:13,10.1.1.10,184,-0.050,-0.050,-0.050,0.000,0.000,0.000
1641220993482868992,2022-01-03-14:43:13,10.1.1.10,163,-0.040,-0.040,-0.040,0.000,0.000,0.000
1641220993695363072,2022-01-03-14:43:13,10.1.1.10,174,-0.030,-0.030,-0.030,0.000,0.000,0.000
1641220993895695872,2022-01-03-14:43:13,10.1.1.10,174,-0.020,-0.020,-0.020,0.000,0.000,0.000
1641220994085494016,2022-01-03-14:43:14,10.1.1.10,163,-0.010,-0.010,-0.010,0.000,0.000,0.000
1641220994297359104,2022-01-03-14:43:14,10.1.1.10,174,0.000,0.000,0.000,0.000,0.000,0.000
1641220994487960064,2022-01-03-14:43:14,10.1.1.10,164,-0.010,-0.010,-0.010,0.000,0.000,0.000
1641220994698599936,2022-01-03-14:43:14,10.1.1.10,174,-0.020,-0.020,-0.020,0.000,0.000,0.000
1641220994899260928,2022-01-03-14:43:14,10.1.1.10,174,-0.030,-0.030,-0.030,0.000,0.000,0.000
1641220995100462080,2022-01-03-14:43:15,10.1.1.10,174,-0.040,-0.040,-0.040,0.000,0.000,0.000
1641220995313054208,2022-01-03-14:43:15,10.1.1.10,186,-0.050,-0.050,-0.050,0.000,0.000,0.000
1641220995501719040,2022-01-03-14:43:15,10.1.1.10,172,-0.060,-0.060,-0.060,0.000,0.000,0.000
1641220995712502016,2022-01-03-14:43:15,10.1.1.10,182,-0.070,-0.070,-0.070,0.000,0.000,0.000
1641220995904195072,2022-01-03-14:43:15,10.1.1.10,173,-0.080,-0.080,-0.080,0.000,0.000,0.000
1641220996104993024,2022-01-03-14:43:16,10.1.1.10,173,-0.090,-0.090,-0.090,0.000,0.000,0.000
1641220996319611904,2022-01-03-14:43:16,10.1.1.10,187,-0.100,-0.100,-0.100,0.000,0.000,0.000
1641220996506159104,2022-01-03-14:43:16,10.1.1.10,173,-0.110,-0.110,-0.110,0.000,0.000,0.000
1641220996716308224,2022-01-03-14:43:16,10.1.1.10,172,-0.120,-0.120,-0.120,0.000,0.000,0.000
1641220996927123968,2022-01-03-14:43:16,10.1.1.10,182,-0.130,-0.130,-0.130,0.000,0.000,0.000
1641220997137319936,2022-01-03-14:43:17,10.1.1.10,191,-0.140,-0.140,-0.140,0.000,0.000,0.000
1641220997327227136,2022-01-03-14:43:17,10.1.1.10,180,-0.150,-0.150,-0.150,0.000,0.000,0.000
1641220997538439936,2022-01-03-14:43:17,10.1.1.10,190,-0.160,-0.160,-0.160,0.000,0.000,0.000
1641220997739259904,2022-01-03-14:43:17,10.1.1.10,190,-0.170,-0.170,-0.170,0.000,0.000,0.000
1641220997939246848,2022-01-03-14:43:17,10.1.1.10,189,-0.180,-0.180,-0.180,0.000,0.000,0.000
1641220998139939072,2022-01-03-14:43:18,10.1.1.10,189,-0.190,-0.190,-0.190,0.000,0.000,0.000
1641220998339642880,2022-01-03-14:43:18,10.1.1.10,185,-0.200,-0.200,-0.200,0.000,0.000,0.000
1641220998540365824,2022-01-03-14:43:18,10.1.1.10,186,-0.210,-0.210,-0.210,0.000,0.000,0.000
1641220998740765952,2022-01-03-14:43:18,10.1.1.10,186,-0.220,-0.220,-0.220,0.000,0.000,0.000
1641220998951108864,2022-01-03-14:43:18,10.1.1.10,195,-0.230,-0.230,-0.230,0.000,0.000,0.000
1641220999142352128,2022-01-03-14:43:19,10.1.1.10,186,-0.240,-0.240,-0.240,0.000,0.000,0.000
1641220999549499904,2022-01-03-14:43:19,10.1.1.10,188,-0.260,-0.260,-0.260,0.000,0.000,0.000
1641220999742556928,2022-01-03-14:43:19,10.1.1.10,183,-0.270,-0.270,-0.270,0.000,0.000,0.000
1641220999952811008,2022-01-03-14:43:19,10.1.1.10,192,-0.280,-0.280,-0.280,0.000,0.000,0.000
1641221000142905856,2022-01-03-14:43:20,10.1.1.10,181,-0.290,-0.290,-0.290,0.000,0.000,0.000
1641221000348324096,2022-01-03-14:43:20,10.1.1.10,186,-0.300,-0.300,-0.300,0.000,0.000,0.000
1641221000553658112,2022-01-03-14:43:20,10.1.1.10,190,-0.310,-0.310,-0.310,0.000,0.000,0.000
1641221000755142912,2022-01-03-14:43:20,10.1.1.10,191,-0.320,-0.320,-0.320,0.000,0.000,0.000
1641221000955638016,2022-01-03-14:43:20,10.1.1.10,191,-0.330,-0.330,-0.330,0.000,0.000,0.000
1641221001164347904,2022-01-03-14:43:21,10.1.1.10,199,-0.340,-0.340,-0.340,0.000,0.000,0.000
1641221001364697088,2022-01-03-14:43:21,10.1.1.10,199,-0.350,-0.350,-0.350,0.000,0.000,0.000
1641221001559648000,2022-01-03-14:43:21,10.1.1.10,193,-0.360,-0.360,-0.360,0.000,0.000,0.000
1641221001755003904,2022-01-03-14:43:21,10.1.1.10,187,-0.370,-0.370,-0.370,0.000,0.000,0.000
1641221001955507968,2022-01-03-14:43:21,10.1.1.10,187,-0.380,-0.380,-0.380,0.000,0.000,0.000
1641221002155015936,2022-01-03-14:43:22,10.1.1.10,186,-0.390,-0.390,-0.390,0.000,0.000,0.000
1641221002365808896,2022-01-03-14:43:22,10.1.1.10,196,-0.400,-0.400,-0.400,0.000,0.000,0.000
1641221002555335168,2022-01-03-14:43:22,10.1.1.10,186,-0.410,-0.410,-0.410,0.000,0.000,0.000
1641221002755579904,2022-01-03-14:43:22,10.1.1.10,185,-0.420,-0.420,-0.420,0.000,0.000,0.000
1641221002955124992,2022-01-03-14:43:22,10.1.1.10,184,-0.430,-0.430,-0.430,0.000,0.000,0.000
1641221003164686080,2022-01-03-14:43:23,10.1.1.10,193,-0.440,-0.440,-0.440,0.000,0.000,0.000
1641221003365179904,2022-01-03-14:43:23,10.1.1.10,193,-0.450,-0.450,-0.450,0.000,0.000,0.000
1641221003555385088,2022-01-03-14:43:23,10.1.1.10,182,-0.460,-0.460,-0.460,0.000,0.000,0.000
1641221003755898880,2022-01-03-14:43:23,10.1.1.10,182,-0.470,-0.470,-0.470,0.000,0.000,0.000
1641221003956000000,2022-01-03-14:43:23,10.1.1.10,182,-0.480,-0.480,-0.480,0.000,0.000,0.000
1641221004165453056,2022-01-03-14:43:24,10.1.1.10,191,-0.490,-0.490,-0.490,0.000,0.000,0.000
1641221005175632896,2022-01-03-14:43:25,10.1.1.10,190,-0.440,-0.440,-0.440,0.000,0.000,0.000
1641221005375725056,2022-01-03-14:43:25,10.1.1.10,190,-0.430,-0.430,-0.430,0.000,0.000,0.000
1641221005575227136,2022-01-03-14:43:25,10.1.1.10,189,-0.420,-0.420,-0.420,0.000,0.000,0.000
1641221005785458176,2022-01-03-14:43:25,10.1.1.10,199,-0.410,-0.410,-0.410,0.000,0.000,0.000
1641221005977370880,2022-01-03-14:43:25,10.1.1.10,190,-0.400,-0.400,-0.400,0.000,0.000,0.000
1641221006176354816,2022-01-03-14:43:26,10.1.1.10,186,-0.390,-0.390,-0.390,0.000,0.000,0.000
1641221006387222016,2022-01-03-14:43:26,10.1.1.10,199,-0.380,-0.380,-0.380,0.000,0.000,0.000
1641221006575517952,2022-01-03-14:43:26,10.1.1.10,186,-0.370,-0.370,-0.370,0.000,0.000,0.000
1641221006778227968,2022-01-03-14:43:26,10.1.1.10,187,-0.360,-0.360,-0.360,0.000,0.000,0.000
1641221006984161024,2022-01-03-14:43:26,10.1.1.10,193,-0.350,-0.350,-0.350,0.000,0.000,0.000
1641221007187046144,2022-01-03-14:43:27,10.1.1.10,195,-0.340,-0.340,-0.340,0.000,0.000,0.000
1641221007392025856,2022-01-03-14:43:27,10.1.1.10,199,-0.330,-0.330,-0.330,0.000,0.000,0.000
1641221007784406784,2022-01-03-14:43:27,10.1.1.10,181,-0.310,-0.310,-0.310,0.000,0.000,0.000
1641221007983560192,2022-01-03-14:43:27,10.1.1.10,179,-0.300,-0.300,-0.300,0.000,0.000,0.000
1641221008205411840,2022-01-03-14:43:28,10.1.1.10,200,-0.290,-0.290,-0.290,0.000,0.000,0.000
1641221008395297024,2022-01-03-14:43:28,10.1.1.10,189,-0.280,-0.280,-0.280,0.000,0.000,0.000
1641221008604001024,2022-01-03-14:43:28,10.1.1.10,197,-0.270,-0.270,-0.270,0.000,0.000,0.000
1641221008803776000,2022-01-03-14:43:28,10.1.1.10,196,-0.260,-0.260,-0.260,0.000,0.000,0.000
1641221008993745152,2022-01-03-14:43:28,10.1.1.10,185,-0.250,-0.250,-0.250,0.000,0.000,0.000
1641221009193131008,2022-01-03-14:43:29,10.1.1.10,184,-0.240,-0.240,-0.240,0.000,0.000,0.000
1641221009402661120,2022-01-03-14:43:29,10.1.1.10,193,-0.230,-0.230,-0.230,0.000,0.000,0.000
1641221009602683904,2022-01-03-14:43:29,10.1.1.10,192,-0.220,-0.220,-0.220,0.000,0.000,0.000
1641221009802926080,2022-01-03-14:43:29,10.1.1.10,192,-0.210,-0.210,-0.210,0.000,0.000,0.000
1641221010002199808,2022-01-03-14:43:30,10.1.1.10,191,-0.200,-0.200,-0.200,0.000,0.000,0.000
1641221010194195968,2022-01-03-14:43:30,10.1.1.10,182,-0.190,-0.190,-0.190,0.000,0.000,0.000
1641221010392879872,2022-01-03-14:43:30,10.1.1.10,180,-0.180,-0.180,-0.180,0.000,0.000,0.000
1641221010592390144,2022-01-03-14:43:30,10.1.1.10,179,-0.170,-0.170,-0.170,0.000,0.000,0.000
1641221010793276160,2022-01-03-14:43:30,10.1.1.10,179,-0.160,-0.160,-0.160,0.000,0.000,0.000
1641221011001466880,2022-01-03-14:43:31,10.1.1.10,187,-0.150,-0.150,-0.150,0.000,0.000,0.000
1641221011200772096,2022-01-03-14:43:31,10.1.1.10,185,-0.140,-0.140,-0.140,0.000,0.000,0.000
1641221011400276992,2022-01-03-14:43:31,10.1.1.10,184,-0.130,-0.130,-0.130,0.000,0.000,0.000
1641221011600302080,2022-01-03-14:43:31,10.1.1.10,184,-0.120,-0.120,-0.120,0.000,0.000,0.000
1641221011800542208,2022-01-03-14:43:31,10.1.1.10,184,-0.110,-0.110,-0.110,0.000,0.000,0.000
1641221011999912960,2022-01-03-14:43:31,10.1.1.10,182,-0.100,-0.100,-0.100,0.000,0.000,0.000
1641221012399166208,2022-01-03-14:43:32,10.1.1.10,181,-0.080,-0.080,-0.080,0.000,0.000,0.000
1641221012619281152,2022-01-03-14:43:32,10.1.1.10,200,-0.070,-0.070,-0.070,0.000,0.000,0.000
1641221012799096064,2022-01-03-14:43:32,10.1.1.10,179,-0.060,-0.060,-0.060,0.000,0.000,0.000
1641221012999005184,2022-01-03-14:43:32,10.1.1.10,178,-0.050,-0.050,-0.050,0.000,0.000,0.000
1641221013199822848,2022-01-03-14:43:33,10.1.1.10,178,-0.040,-0.040,-0.040,0.000,0.000,0.000
1641221013397836032,2022-01-03-14:43:33,10.1.1.10,175,-0.030,-0.030,-0.030,0.000,0.000,0.000
1641221013598247168,2022-01-03-14:43:33,10.1.1.10,175,-0.020,-0.020,-0.020,0.000,0.000,0.000
1641221013797549056,2022-01-03-14:43:33,10.1.1.10,173,-0.010,-0.010,-0.010,0.000,0.000,0.000
1641221014001430016,2022-01-03-14:43:34,10.1.1.10,176,-0.000,-0.000,-0.000,0.000,0.000,0.000
1641221014216809984,2022-01-03-14:43:34,10.1.1.10,191,-0.010,-0.010,-0.010,0.000,0.000,0.000
1641221014407540992,2022-01-03-14:43:34,10.1.1.10,182,-0.020,-0.020,-0.020,0.000,0.000,0.000
1641221014616299008,2022-01-03-14:43:34,10.1.1.10,190,-0.030,-0.030,-0.030,0.000,0.000,0.000
1641221014816673024,2022-01-03-14:43:34,10.1.1.10,189,-0.040,-0.040,-0.040,0.000,0.000,0.000
1641221015006283008,2022-01-03-14:43:35,10.1.1.10,178,-0.050,-0.050,-0.050,0.000,0.000,0.000
1641221015206322944,2022-01-03-14:43:35,10.1.1.10,178,-0.060,-0.060,-0.060,0.000,0.000,0.000
1641221015416326144,2022-01-03-14:43:35,10.1.1.10,186,-0.070,-0.070,-0.070,0.000,0.000,0.000
1641221015605827072,2022-01-03-14:43:35,10.1.1.10,175,-0.080,-0.080,-0.080,0.000,0.000,0.000
1641221015806830848,2022-01-03-14:43:35,10.1.1.10,174,-0.090,-0.090,-0.090,0.000,0.000,0.000
1641221016008179968,2022-01-03-14:43:36,10.1.1.10,174,-0.100,-0.100,-0.100,0.000,0.000,0.000
1641221016215588096,2022-01-03-14:43:36,10.1.1.10,180,-0.110,-0.110,-0.110,0.000,0.000,0.000
1641221016428622848,2022-01-03-14:43:36,10.1.1.10,192,-0.120,-0.120,-0.120,0.000,0.000,0.000
1641221016624912896,2022-01-03-14:43:36,10.1.1.10,188,-0.130,-0.130,-0.130,0.000,0.000,0.000
1641221016830446080,2022-01-03-14:43:36,10.1.1.10,193,-0.140,-0.140,-0.140,0.000,0.000,0.000
1641221017053595904,2022-01-03-14:43:37,10.1.1.10,195,-0.150,-0.150,-0.150,0.000,0.000,0.000
1641221017243376896,2022-01-03-14:43:37,10.1.1.10,183,-0.160,-0.160,-0.160,0.000,0.000,0.000
1641221017453267968,2022-01-03-14:43:37,10.1.1.10,192,-0.170,-0.170,-0.170,0.000,0.000,0.000
1641221017643603200,2022-01-03-14:43:37,10.1.1.10,173,-0.180,-0.180,-0.180,0.000,0.000,0.000
1641221017843929088,2022-01-03-14:43:37,10.1.1.10,173,-0.190,-0.190,-0.190,0.000,0.000,0.000
1641221018042733056,2022-01-03-14:43:38,10.1.1.10,170,-0.200,-0.200,-0.200,0.000,0.000,0.000
1641221018242078976,2022-01-03-14:43:38,10.1.1.10,169,-0.210,-0.210,-0.210,0.000,0.000,0.000
1641221018441476096,2022-01-03-14:43:38,10.1.1.10,168,-0.220,-0.220,-0.220,0.000,0.000,0.000
1641221018643292928,2022-01-03-14:43:38,10.1.1.10,169,-0.230,-0.230,-0.230,0.000,0.000,0.000
1641221018841528832,2022-01-03-14:43:38,10.1.1.10,167,-0.240,-0.240,-0.240,0.000,0.000,0.000
1641221019049300992,2022-01-03-14:43:39,10.1.1.10,173,-0.250,-0.250,-0.250,0.000,0.000,0.000
1641221019253430016,2022-01-03-14:43:39,10.1.1.10,173,-0.260,-0.260,-0.260,0.000,0.000,0.000
1641221019473895936,2022-01-03-14:43:39,10.1.1.10,179,-0.270,-0.270,-0.270,0.000,0.000,0.000
1641221019694298112,2022-01-03-14:43:39,10.1.1.10,198,-0.280,-0.280,-0.280,0.000,0.000,0.000
1641221019870093056,2022-01-03-14:43:39,10.1.1.10,173,-0.290,-0.290,-0.290,0.000,0.000,0.000
1641221020096119040,2022-01-03-14:43:40,10.1.1.10,198,-0.300,-0.300,-0.300,0.000,0.000,0.000
1641221020269769984,2022-01-03-14:43:40,10.1.1.10,168,-0.310,-0.310,-0.310,0.000,0.000,0.000
1641221020469579008,2022-01-03-14:43:40,10.1.1.10,166,-0.320,-0.320,-0.320,0.000,0.000,0.000
1641221020674236928,2022-01-03-14:43:40,10.1.1.10,170,-0.330,-0.330,-0.330,0.000,0.000,0.000
1641221020878312960,2022-01-03-14:43:40,10.1.1.10,173,-0.340,-0.340,-0.340,0.000,0.000,0.000
1641221021078640896,2022-01-03-14:43:41,10.1.1.10,173,-0.350,-0.350,-0.350,0.000,0.000,0.000
1641221021277327104,2022-01-03-14:43:41,10.1.1.10,169,-0.360,-0.360,-0.360,0.000,0.000,0.000
1641221021477380864,2022-01-03-14:43:41,10.1.1.10,168,-0.370,-0.370,-0.370,0.000,0.000,0.000
1641221021686647040,2022-01-03-14:43:41,10.1.1.10,174,-0.380,-0.380,-0.380,0.000,0.000,0.000
1641221021886944000,2022-01-03-14:43:41,10.1.1.10,173,-0.390,-0.390,-0.390,0.000,0.000,0.000
1641221022086103040,2022-01-03-14:43:42,10.1.1.10,171,-0.400,-0.400,-0.400,0.000,0.000,0.000
1641221022295533056,2022-01-03-14:43:42,10.1.1.10,179,-0.410,-0.410,-0.410,0.000,0.000,0.000
1641221022505712128,2022-01-03-14:43:42,10.1.1.10,188,-0.420,-0.420,-0.420,0.000,0.000,0.000
1641221022705169920,2022-01-03-14:43:42,10.1.1.10,187,-0.430,-0.430,-0.430,0.000,0.000,0.000
1641221022884850944,2022-01-03-14:43:42,10.1.1.10,165,-0.440,-0.440,-0.440,0.000,0.000,0.000
1641221023105012992,2022-01-03-14:43:43,10.1.1.10,184,-0.450,-0.450,-0.450,0.000,0.000,0.000
1641221023284826880,2022-01-03-14:43:43,10.1.1.10,163,-0.460,-0.460,-0.460,0.000,0.000,0.000
1641221023496012032,2022-01-03-14:43:43,10.1.1.10,173,-0.470,-0.470,-0.470,0.000,0.000,0.000
1641221023704536832,2022-01-03-14:43:43,10.1.1.10,180,-0.480,-0.480,-0.480,0.000,0.000,0.000
1641221023894381056,2022-01-03-14:43:43,10.1.1.10,166,-0.490,-0.490,-0.490,0.000,0.000,0.000
1641221024106694912,2022-01-03-14:43:44,10.1.1.10,177,-0.480,-0.480,-0.480,0.000,0.000,0.000
1641221024312786944,2022-01-03-14:43:44,10.1.1.10,170,-0.470,-0.470,-0.470,0.000,0.000,0.000
1641221024520752896,2022-01-03-14:43:44,10.1.1.10,177,-0.460,-0.460,-0.460,0.000,0.000,0.000
1641221024712940032,2022-01-03-14:43:44,10.1.1.10,165,-0.450,-0.450,-0.450,0.000,0.000,0.000
1641221024912956928,2022-01-03-14:43:44,10.1.1.10,164,-0.440,-0.440,-0.440,0.000,0.000,0.000
1641221025112417024,2022-01-03-14:43:45,10.1.1.10,163,-0.430,-0.430,-0.430,0.000,0.000,0.000
1641221025317598976,2022-01-03-14:43:45,10.1.1.10,167,-0.420,-0.420,-0.420,0.000,0.000,0.000
1641221025516593920,2022-01-03-14:43:45,10.1.1.10,165,-0.410,-0.410,-0.410,0.000,0.000,0.000
1641221025731738112,2022-01-03-14:43:45,10.1.1.10,179,-0.400,-0.400,-0.400,0.000,0.000,0.000
1641221025917699072,2022-01-03-14:43:45,10.1.1.10,165,-0.390,-0.390,-0.390,0.000,0.000,0.000
1641221026127484160,2022-01-03-14:43:46,10.1.1.10,173,-0.380,-0.380,-0.380,0.000,0.000,0.000
1641221026347239936,2022-01-03-14:43:46,10.1.1.10,182,-0.370,-0.370,-0.370,0.000,0.000,0.000
1641221026538876928,2022-01-03-14:43:46,10.1.1.10,171,-0.360,-0.360,-0.360,0.000,0.000,0.000
1641221026749375232,2022-01-03-14:43:46,10.1.1.10,181,-0.350,-0.350,-0.350,0.000,0.000,0.000
1641221026941097984,2022-01-03-14:43:46,10.1.1.10,171,-0.340,-0.340,-0.340,0.000,0.000,0.000
1641221026974406912,2022-01-03-14:43:46,10.1.1.10,-2,-0.340,-0.340,-0.340,0.000,0.000,0.000
1641221027356462080,2022-01-03-14:43:47,10.1.1.10,184,-0.320,-0.320,-0.320,0.000,0.000,0.000
1641221027552983040,2022-01-03-14:43:47,10.1.1.10,180,-0.310,-0.310,-0.310,0.000,0.000,0.000
1641221027753641984,2022-01-03-14:43:47,10.1.1.10,180,-0.300,-0.300,-0.300,0.000,0.000,0.000
1641221027954721024,2022-01-03-14:43:47,10.1.1.10,180,-0.290,-0.290,-0.290,0.000,0.000,0.000
1641221028155770112,2022-01-03-14:43:48,10.1.1.10,180,-0.280,-0.280,-0.280,0.000,0.000,0.000
1641221028355755008,2022-01-03-14:43:48,10.1.1.10,180,-0.270,-0.270,-0.270,0.000,0.000,0.000
1641221028556557824,2022-01-03-14:43:48,10.1.1.10,179,-0.260,-0.260,-0.260,0.000,0.000,0.000
1641221028756841984,2022-01-03-14:43:48,10.1.1.10,179,-0.250,-0.250,-0.250,0.000,0.000,0.000
1641221028967705088,2022-01-03-14:43:48,10.1.1.10,189,-0.240,-0.240,-0.240,0.000,0.000,0.000
1641221029161050112,2022-01-03-14:43:49,10.1.1.10,181,-0.230,-0.230,-0.230,0.000,0.000,0.000
1641221029378621952,2022-01-03-14:43:49,10.1.1.10,197,-0.220,-0.220,-0.220,0.000,0.000,0.000
1641221029558621952,2022-01-03-14:43:49,10.1.1.10,176,-0.210,-0.210,-0.210,0.000,0.000,0.000
1641221029758737920,2022-01-03-14:43:49,10.1.1.10,176,-0.200,-0.200,-0.200,0.000,0.000,0.000
1641221029959610112,2022-01-03-14:43:49,10.1.1.10,175,-0.190,-0.190,-0.190,0.000,0.000,0.000
1641221030180080896,2022-01-03-14:43:50,10.1.1.10,194,-0.180,-0.180,-0.180,0.000,0.000,0.000
1641221030370904064,2022-01-03-14:43:50,10.1.1.10,184,-0.170,-0.170,-0.170,0.000,0.000,0.000
1641221030583252992,2022-01-03-14:43:50,10.1.1.10,195,-0.160,-0.160,-0.160,0.000,0.000,0.000
1641221030774130944,2022-01-03-14:43:50,10.1.1.10,185,-0.150,-0.150,-0.150,0.000,0.000,0.000
1641221030981950976,2022-01-03-14:43:50,10.1.1.10,193,-0.140,-0.140,-0.140,0.000,0.000,0.000
1641221031181974016,2022-01-03-14:43:51,10.1.1.10,191,-0.130,-0.130,-0.130,0.000,0.000,0.000
1641221031373348096,2022-01-03-14:43:51,10.1.1.10,182,-0.120,-0.120,-0.120,0.000,0.000,0.000
1641221031583166976,2022-01-03-14:43:51,10.1.1.10,191,-0.110,-0.110,-0.110,0.000,0.000,0.000
1641221031773778944,2022-01-03-14:43:51,10.1.1.10,181,-0.100,-0.100,-0.100,0.000,0.000,0.000
1641221031984289792,2022-01-03-14:43:51,10.1.1.10,190,-0.090,-0.090,-0.090,0.000,0.000,0.000
1641221032174267136,2022-01-03-14:43:52,10.1.1.10,179,-0.080,-0.080,-0.080,0.000,0.000,0.000
1641221032384120064,2022-01-03-14:43:52,10.1.1.10,188,-0.070,-0.070,-0.070,0.000,0.000,0.000
1641221032595487232,2022-01-03-14:43:52,10.1.1.10,199,-0.060,-0.060,-0.060,0.000,0.000,0.000
1641221032796892928,2022-01-03-14:43:52,10.1.1.10,199,-0.050,-0.050,-0.050,0.000,0.000,0.000
1641221032984761088,2022-01-03-14:43:52,10.1.1.10,182,-0.040,-0.040,-0.040,0.000,0.000,0.000
1641221033195586816,2022-01-03-14:43:53,10.1.1.10,191,-0.030,-0.030,-0.030,0.000,0.000,0.000
1641221033395044096,2022-01-03-14:43:53,10.1.1.10,189,-0.020,-0.020,-0.020,0.000,0.000,0.000
1641221033596462080,2022-01-03-14:43:53,10.1.1.10,187,-0.010,-0.010,-0.010,0.000,0.000,0.000
1641221033805326080,2022-01-03-14:43:53,10.1.1.10,196,0.000,0.000,0.000,0.000,0.000,0.000
1641221034006019072,2022-01-03-14:43:54,10.1.1.10,195,-0.010,-0.010,-0.010,0.000,0.000,0.000
1641221034195117056,2022-01-03-14:43:54,10.1.1.10,184,-0.020,-0.020,-0.020,0.000,0.000,0.000
1641221034405312000,2022-01-03-14:43:54,10.1.1.10,193,-0.030,-0.030,-0.030,0.000,0.000,0.000
1641221034608578048,2022-01-03-14:43:54,10.1.1.10,194,-0.040,-0.040,-0.040,0.000,0.000,0.000
1641221034807301888,2022-01-03-14:43:54,10.1.1.10,190,-0.050,-0.050,-0.050,0.000,0.000,0.000
1641221035205805056,2022-01-03-14:43:55,10.1.1.10,188,-0.070,-0.070,-0.070,0.000,0.000,0.000
1641221035405682944,2022-01-03-14:43:55,10.1.1.10,187,-0.080,-0.080,-0.080,0.000,0.000,0.000
1641221035618221056,2022-01-03-14:43:55,10.1.1.10,198,-0.090,-0.090,-0.090,0.000,0.000,0.000
1641221036017036800,2022-01-03-14:43:56,10.1.1.10,195,-0.110,-0.110,-0.110,0.000,0.000,0.000
1641221036215545856,2022-01-03-14:43:56,10.1.1.10,193,-0.120,-0.120,-0.120,0.000,0.000,0.000
1641221036423161856,2022-01-03-14:43:56,10.1.1.10,200,-0.130,-0.130,-0.130,0.000,0.000,0.000
1641221036615709184,2022-01-03-14:43:56,10.1.1.10,191,-0.140,-0.140,-0.140,0.000,0.000,0.000
1641221036817502976,2022-01-03-14:43:56,10.1.1.10,191,-0.150,-0.150,-0.150,0.000,0.000,0.000
1641221037026684928,2022-01-03-14:43:57,10.1.1.10,200,-0.160,-0.160,-0.160,0.000,0.000,0.000
1641221037215853824,2022-01-03-14:43:57,10.1.1.10,187,-0.170,-0.170,-0.170,0.000,0.000,0.000
1641221037415662080,2022-01-03-14:43:57,10.1.1.10,186,-0.180,-0.180,-0.180,0.000,0.000,0.000
1641221037616262912,2022-01-03-14:43:57,10.1.1.10,186,-0.190,-0.190,-0.190,0.000,0.000,0.000
1641221037815922944,2022-01-03-14:43:57,10.1.1.10,185,-0.200,-0.200,-0.200,0.000,0.000,0.000
1641221038015550976,2022-01-03-14:43:58,10.1.1.10,183,-0.210,-0.210,-0.210,0.000,0.000,0.000
1641221038215746048,2022-01-03-14:43:58,10.1.1.10,183,-0.220,-0.220,-0.220,0.000,0.000,0.000
1641221038425512192,2022-01-03-14:43:58,10.1.1.10,192,-0.230,-0.230,-0.230,0.000,0.000,0.000
1641221038815382016,2022-01-03-14:43:58,10.1.1.10,181,-0.250,-0.250,-0.250,0.000,0.000,0.000
1641221039026260992,2022-01-03-14:43:59,10.1.1.10,191,-0.260,-0.260,-0.260,0.000,0.000,0.000
1641221039227758848,2022-01-03-14:43:59,10.1.1.10,191,-0.270,-0.270,-0.270,0.000,0.000,0.000
1641221039424840960,2022-01-03-14:43:59,10.1.1.10,186,-0.280,-0.280,-0.280,0.000,0.000,0.000
1641221039624535040,2022-01-03-14:43:59,10.1.1.10,184,-0.290,-0.290,-0.290,0.000,0.000,0.000
1641221040235219968,2022-01-03-14:44:00,10.1.1.10,193,-0.320,-0.320,-0.320,0.000,0.000,0.000
1641221040424254976,2022-01-03-14:44:00,10.1.1.10,181,-0.330,-0.330,-0.330,0.000,0.000,0.000
1641221040635062016,2022-01-03-14:44:00,10.1.1.10,191,-0.340,-0.340,-0.340,0.000,0.000,0.000
1641221040834213888,2022-01-03-14:44:00,10.1.1.10,190,-0.350,-0.350,-0.350,0.000,0.000,0.000
1641221041038779904,2022-01-03-14:44:01,10.1.1.10,194,-0.360,-0.360,-0.360,0.000,0.000,0.000
1641221041223678208,2022-01-03-14:44:01,10.1.1.10,179,-0.370,-0.370,-0.370,0.000,0.000,0.000
1641221041443674112,2022-01-03-14:44:01,10.1.1.10,198,-0.380,-0.380,-0.380,0.000,0.000,0.000
1641221041633889024,2022-01-03-14:44:01,10.1.1.10,186,-0.390,-0.390,-0.390,0.000,0.000,0.000
1641221041841072128,2022-01-03-14:44:01,10.1.1.10,193,-0.400,-0.400,-0.400,0.000,0.000,0.000
1641221042043542016,2022-01-03-14:44:02,10.1.1.10,190,-0.410,-0.410,-0.410,0.000,0.000,0.000
1641221042243001088,2022-01-03-14:44:02,10.1.1.10,186,-0.420,-0.420,-0.420,0.000,0.000,0.000
1641221042452572160,2022-01-03-14:44:02,10.1.1.10,195,-0.430,-0.430,-0.430,0.000,0.000,0.000
1641221043051129088,2022-01-03-14:44:03,10.1.1.10,192,-0.460,-0.460,-0.460,0.000,0.000,0.000
1641221043650615808,2022-01-03-14:44:03,10.1.1.10,190,-0.490,-0.490,-0.490,0.000,0.000,0.000
1641221043840524032,2022-01-03-14:44:03,10.1.1.10,179,-0.480,-0.480,-0.480,0.000,0.000,0.000
1641221044062274816,2022-01-03-14:44:04,10.1.1.10,200,-0.470,-0.470,-0.470,0.000,0.000,0.000
1641221044250510080,2022-01-03-14:44:04,10.1.1.10,188,-0.460,-0.460,-0.460,0.000,0.000,0.000
1641221044459819008,2022-01-03-14:44:04,10.1.1.10,196,-0.450,-0.450,-0.450,0.000,0.000,0.000
1641221044649967872,2022-01-03-14:44:04,10.1.1.10,186,-0.440,-0.440,-0.440,0.000,0.000,0.000
1641221044859644928,2022-01-03-14:44:04,10.1.1.10,194,-0.430,-0.430,-0.430,0.000,0.000,0.000
1641221045049409024,2022-01-03-14:44:05,10.1.1.10,183,-0.420,-0.420,-0.420,0.000,0.000,0.000
1641221045260418816,2022-01-03-14:44:05,10.1.1.10,193,-0.410,-0.410,-0.410,0.000,0.000,0.000
1641221045458638848,2022-01-03-14:44:05,10.1.1.10,191,-0.400,-0.400,-0.400,0.000,0.000,0.000
1641221045657875968,2022-01-03-14:44:05,10.1.1.10,189,-0.390,-0.390,-0.390,0.000,0.000,0.000
1641221045865159936,2022-01-03-14:44:05,10.1.1.10,194,-0.380,-0.380,-0.380,0.000,0.000,0.000
1641221046074402048,2022-01-03-14:44:06,10.1.1.10,198,-0.370,-0.370,-0.370,0.000,0.000,0.000
1641221046279217920,2022-01-03-14:44:06,10.1.1.10,181,-0.360,-0.360,-0.360,0.000,0.000,0.000
1641221046477615104,2022-01-03-14:44:06,10.1.1.10,178,-0.350,-0.350,-0.350,0.000,0.000,0.000
1641221046696717056,2022-01-03-14:44:06,10.1.1.10,194,-0.340,-0.340,-0.340,0.000,0.000,0.000
1641221046877037056,2022-01-03-14:44:06,10.1.1.10,174,-0.330,-0.330,-0.330,0.000,0.000,0.000
1641221047088145920,2022-01-03-14:44:07,10.1.1.10,184,-0.320,-0.320,-0.320,0.000,0.000,0.000
1641221047287147008,2022-01-03-14:44:07,10.1.1.10,183,-0.310,-0.310,-0.310,0.000,0.000,0.000
1641221047495880960,2022-01-03-14:44:07,10.1.1.10,191,-0.300,-0.300,-0.300,0.000,0.000,0.000
1641221047688599040,2022-01-03-14:44:07,10.1.1.10,181,-0.290,-0.290,-0.290,0.000,0.000,0.000
1641221047891730176,2022-01-03-14:44:07,10.1.1.10,181,-0.280,-0.280,-0.280,0.000,0.000,0.000
1641221048114160128,2022-01-03-14:44:08,10.1.1.10,185,-0.270,-0.270,-0.270,0.000,0.000,0.000
1641221048305392896,2022-01-03-14:44:08,10.1.1.10,174,-0.260,-0.260,-0.260,0.000,0.000,0.000
1641221048510436096,2022-01-03-14:44:08,10.1.1.10,177,-0.250,-0.250,-0.250,0.000,0.000,0.000
1641221048703942912,2022-01-03-14:44:08,10.1.1.10,171,-0.240,-0.240,-0.240,0.000,0.000,0.000
1641221048904403968,2022-01-03-14:44:08,10.1.1.10,170,-0.230,-0.230,-0.230,0.000,0.000,0.000
1641221049104489984,2022-01-03-14:44:09,10.1.1.10,170,-0.220,-0.220,-0.220,0.000,0.000,0.000
1641221049303395072,2022-01-03-14:44:09,10.1.1.10,168,-0.210,-0.210,-0.210,0.000,0.000,0.000
1641221049517651200,2022-01-03-14:44:09,10.1.1.10,178,-0.200,-0.200,-0.200,0.000,0.000,0.000
1641221049724192000,2022-01-03-14:44:09,10.1.1.10,187,-0.190,-0.190,-0.190,0.000,0.000,0.000
1641221049923755008,2022-01-03-14:44:09,10.1.1.10,186,-0.180,-0.180,-0.180,0.000,0.000,0.000
1641221050122407936,2022-01-03-14:44:10,10.1.1.10,184,-0.170,-0.170,-0.170,0.000,0.000,0.000
1641221050323380992,2022-01-03-14:44:10,10.1.1.10,182,-0.160,-0.160,-0.160,0.000,0.000,0.000
1641221050512345088,2022-01-03-14:44:10,10.1.1.10,170,-0.150,-0.150,-0.150,0.000,0.000,0.000
1641221050722692864,2022-01-03-14:44:10,10.1.1.10,179,-0.140,-0.140,-0.140,0.000,0.000,0.000
1641221050921427968,2022-01-03-14:44:10,10.1.1.10,177,-0.130,-0.130,-0.130,0.000,0.000,0.000
1641221051112989952,2022-01-03-14:44:11,10.1.1.10,168,-0.120,-0.120,-0.120,0.000,0.000,0.000
1641221051321615872,2022-01-03-14:44:11,10.1.1.10,176,-0.110,-0.110,-0.110,0.000,0.000,0.000
1641221051521428224,2022-01-03-14:44:11,10.1.1.10,175,-0.100,-0.100,-0.100,0.000,0.000,0.000
1641221051736691968,2022-01-03-14:44:11,10.1.1.10,190,-0.090,-0.090,-0.090,0.000,0.000,0.000
1641221051930427904,2022-01-03-14:44:11,10.1.1.10,183,-0.080,-0.080,-0.080,0.000,0.000,0.000
1641221052119718144,2022-01-03-14:44:12,10.1.1.10,171,-0.070,-0.070,-0.070,0.000,0.000,0.000
1641221052329946112,2022-01-03-14:44:12,10.1.1.10,181,-0.060,-0.060,-0.060,0.000,0.000,0.000
1641221052539019008,2022-01-03-14:44:12,10.1.1.10,179,-0.050,-0.050,-0.050,0.000,0.000,0.000
1641221052728871936,2022-01-03-14:44:12,10.1.1.10,167,-0.040,-0.040,-0.040,0.000,0.000,0.000
1641221052947918848,2022-01-03-14:44:12,10.1.1.10,177,-0.030,-0.030,-0.030,0.000,0.000,0.000
1641221053137625856,2022-01-03-14:44:13,10.1.1.10,166,-0.020,-0.020,-0.020,0.000,0.000,0.000
1641221053337239040,2022-01-03-14:44:13,10.1.1.10,165,-0.010,-0.010,-0.010,0.000,0.000,0.000
1641221053549794048,2022-01-03-14:44:13,10.1.1.10,177,0.000,0.000,0.000,0.000,0.000,0.000
1641221053746471936,2022-01-03-14:44:13,10.1.1.10,173,-0.010,-0.010,-0.010,0.000,0.000,0.000
1641221053953165056,2022-01-03-14:44:13,10.1.1.10,178,-0.020,-0.020,-0.020,0.000,0.000,0.000
1641221054146285056,2022-01-03-14:44:14,10.1.1.10,168,-0.030,-0.030,-0.030,0.000,0.000,0.000
1641221054345597952,2022-01-03-14:44:14,10.1.1.10,164,-0.040,-0.040,-0.040,0.000,0.000,0.000
1641221054547472128,2022-01-03-14:44:14,10.1.1.10,165,-0.050,-0.050,-0.050,0.000,0.000,0.000
1641221054745537024,2022-01-03-14:44:14,10.1.1.10,161,-0.060,-0.060,-0.060,0.000,0.000,0.000
1641221054955192064,2022-01-03-14:44:14,10.1.1.10,169,-0.070,-0.070,-0.070,0.000,0.000,0.000
1641221055165585152,2022-01-03-14:44:15,10.1.1.10,177,-0.080,-0.080,-0.080,0.000,0.000,0.000
1641221055355268864,2022-01-03-14:44:15,10.1.1.10,166,-0.090,-0.090,-0.090,0.000,0.000,0.000
1641221055564163072,2022-01-03-14:44:15,10.1.1.10,173,-0.100,-0.100,-0.100,0.000,0.000,0.000
1641221055754152960,2022-01-03-14:44:15,10.1.1.10,163,-0.110,-0.110,-0.110,0.000,0.000,0.000
1641221055954145024,2022-01-03-14:44:15,10.1.1.10,162,-0.120,-0.120,-0.120,0.000,0.000,0.000
1641221056153521920,2022-01-03-14:44:16,10.1.1.10,161,-0.130,-0.130,-0.130,0.000,0.000,0.000
1641221056353244160,2022-01-03-14:44:16,10.1.1.10,160,-0.140,-0.140,-0.140,0.000,0.000,0.000
1641221056552196096,2022-01-03-14:44:16,10.1.1.10,158,-0.150,-0.150,-0.150,0.000,0.000,0.000
1641221056774898176,2022-01-03-14:44:16,10.1.1.10,180,-0.160,-0.160,-0.160,0.000,0.000,0.000
1641221056972068096,2022-01-03-14:44:16,10.1.1.10,173,-0.170,-0.170,-0.170,0.000,0.000,0.000
1641221057176779008,2022-01-03-14:44:17,10.1.1.10,173,-0.180,-0.180,-0.180,0.000,0.000,0.000
1641221057363555840,2022-01-03-14:44:17,10.1.1.10,162,-0.190,-0.190,-0.190,0.000,0.000,0.000
1641221057564929024,2022-01-03-14:44:17,10.1.1.10,162,-0.200,-0.200,-0.200,0.000,0.000,0.000
1641221057785661952,2022-01-03-14:44:17,10.1.1.10,182,-0.210,-0.210,-0.210,0.000,0.000,0.000
1641221057967040000,2022-01-03-14:44:17,10.1.1.10,162,-0.220,-0.220,-0.220,0.000,0.000,0.000
1641221058168323072,2022-01-03-14:44:18,10.1.1.10,163,-0.230,-0.230,-0.230,0.000,0.000,0.000
1641221058388519168,2022-01-03-14:44:18,10.1.1.10,183,-0.240,-0.240,-0.240,0.000,0.000,0.000
1641221058589217792,2022-01-03-14:44:18,10.1.1.10,181,-0.250,-0.250,-0.250,0.000,0.000,0.000
1641221058790502144,2022-01-03-14:44:18,10.1.1.10,182,-0.260,-0.260,-0.260,0.000,0.000,0.000
1641221059011037952,2022-01-03-14:44:19,10.1.1.10,195,-0.270,-0.270,-0.270,0.000,0.000,0.000
1641221059192740864,2022-01-03-14:44:19,10.1.1.10,175,-0.280,-0.280,-0.280,0.000,0.000,0.000
1641221059392532224,2022-01-03-14:44:19,10.1.1.10,175,-0.290,-0.290,-0.290,0.000,0.000,0.000
1641221059593581056,2022-01-03-14:44:19,10.1.1.10,175,-0.300,-0.300,-0.300,0.000,0.000,0.000
1641221059814276096,2022-01-03-14:44:19,10.1.1.10,196,-0.310,-0.310,-0.310,0.000,0.000,0.000
1641221059995209984,2022-01-03-14:44:19,10.1.1.10,176,-0.320,-0.320,-0.320,0.000,0.000,0.000
1641221060195488000,2022-01-03-14:44:20,10.1.1.10,174,-0.330,-0.330,-0.330,0.000,0.000,0.000
1641221060399940864,2022-01-03-14:44:20,10.1.1.10,177,-0.340,-0.340,-0.340,0.000,0.000,0.000
1641221060596528896,2022-01-03-14:44:20,10.1.1.10,172,-0.350,-0.350,-0.350,0.000,0.000,0.000
1641221060817472000,2022-01-03-14:44:20,10.1.1.10,192,-0.360,-0.360,-0.360,0.000,0.000,0.000
1641221061018578944,2022-01-03-14:44:21,10.1.1.10,192,-0.370,-0.370,-0.370,0.000,0.000,0.000
1641221061218262016,2022-01-03-14:44:21,10.1.1.10,188,-0.380,-0.380,-0.380,0.000,0.000,0.000
1641221061419101952,2022-01-03-14:44:21,10.1.1.10,183,-0.390,-0.390,-0.390,0.000,0.000,0.000
1641221061620037120,2022-01-03-14:44:21,10.1.1.10,184,-0.400,-0.400,-0.400,0.000,0.000,0.000
1641221061820063232,2022-01-03-14:44:21,10.1.1.10,183,-0.410,-0.410,-0.410,0.000,0.000,0.000
1641221062220731136,2022-01-03-14:44:22,10.1.1.10,181,-0.430,-0.430,-0.430,0.000,0.000,0.000
1641221062432427776,2022-01-03-14:44:22,10.1.1.10,192,-0.440,-0.440,-0.440,0.000,0.000,0.000
1641221062631938048,2022-01-03-14:44:22,10.1.1.10,186,-0.450,-0.450,-0.450,0.000,0.000,0.000
1641221062832483072,2022-01-03-14:44:22,10.1.1.10,186,-0.460,-0.460,-0.460,0.000,0.000,0.000
1641221063033585920,2022-01-03-14:44:23,10.1.1.10,186,-0.470,-0.470,-0.470,0.000,0.000,0.000
1641221063244771072,2022-01-03-14:44:23,10.1.1.10,196,-0.480,-0.480,-0.480,0.000,0.000,0.000
1641221063433037056,2022-01-03-14:44:23,10.1.1.10,184,-0.490,-0.490,-0.490,0.000,0.000,0.000
1641221063634278912,2022-01-03-14:44:23,10.1.1.10,184,-0.480,-0.480,-0.480,0.000,0.000,0.000
1641221063834891008,2022-01-03-14:44:23,10.1.1.10,184,-0.470,-0.470,-0.470,0.000,0.000,0.000
1641221064034661888,2022-01-03-14:44:24,10.1.1.10,183,-0.460,-0.460,-0.460,0.000,0.000,0.000
1641221064235197952,2022-01-03-14:44:24,10.1.1.10,183,-0.450,-0.450,-0.450,0.000,0.000,0.000
1641221064435384064,2022-01-03-14:44:24,10.1.1.10,182,-0.440,-0.440,-0.440,0.000,0.000,0.000
1641221064634785792,2022-01-03-14:44:24,10.1.1.10,180,-0.430,-0.430,-0.430,0.000,0.000,0.000
1641221065045312000,2022-01-03-14:44:25,10.1.1.10,187,-0.410,-0.410,-0.410,0.000,0.000,0.000
1641221065245534976,2022-01-03-14:44:25,10.1.1.10,186,-0.400,-0.400,-0.400,0.000,0.000,0.000
1641221065445230080,2022-01-03-14:44:25,10.1.1.10,185,-0.390,-0.390,-0.390,0.000,0.000,0.000
1641221065645939200,2022-01-03-14:44:25,10.1.1.10,184,-0.380,-0.380,-0.380,0.000,0.000,0.000
1641221065863598080,2022-01-03-14:44:25,10.1.1.10,201,-0.370,-0.370,-0.370,0.000,0.000,0.000
1641221066056358144,2022-01-03-14:44:26,10.1.1.10,192,-0.360,-0.360,-0.360,0.000,0.000,0.000
1641221066256311808,2022-01-03-14:44:26,10.1.1.10,190,-0.350,-0.350,-0.350,0.000,0.000,0.000
1641221066466310144,2022-01-03-14:44:26,10.1.1.10,200,-0.340,-0.340,-0.340,0.000,0.000,0.000
1641221066656680960,2022-01-03-14:44:26,10.1.1.10,189,-0.330,-0.330,-0.330,0.000,0.000,0.000
1641221066866118912,2022-01-03-14:44:26,10.1.1.10,197,-0.320,-0.320,-0.320,0.000,0.000,0.000
1641221067066376960,2022-01-03-14:44:27,10.1.1.10,196,-0.310,-0.310,-0.310,0.000,0.000,0.000
1641221067268681984,2022-01-03-14:44:27,10.1.1.10,198,-0.300,-0.300,-0.300,0.000,0.000,0.000
1641221067457246976,2022-01-03-14:44:27,10.1.1.10,186,-0.290,-0.290,-0.290,0.000,0.000,0.000
1641221067657053952,2022-01-03-14:44:27,10.1.1.10,185,-0.280,-0.280,-0.280,0.000,0.000,0.000
1641221067856289024,2022-01-03-14:44:27,10.1.1.10,182,-0.270,-0.270,-0.270,0.000,0.000,0.000
1641221068070498048,2022-01-03-14:44:28,10.1.1.10,196,-0.260,-0.260,-0.260,0.000,0.000,0.000
1641221068257540096,2022-01-03-14:44:28,10.1.1.10,183,-0.250,-0.250,-0.250,0.000,0.000,0.000
1641221068476562944,2022-01-03-14:44:28,10.1.1.10,197,-0.240,-0.240,-0.240,0.000,0.000,0.000
1641221068676402176,2022-01-03-14:44:28,10.1.1.10,196,-0.230,-0.230,-0.230,0.000,0.000,0.000
1641221068876424960,2022-01-03-14:44:28,10.1.1.10,195,-0.220,-0.220,-0.220,0.000,0.000,0.000
1641221069076302080,2022-01-03-14:44:29,10.1.1.10,194,-0.210,-0.210,-0.210,0.000,0.000,0.000
1641221069276055040,2022-01-03-14:44:29,10.1.1.10,193,-0.200,-0.200,-0.200,0.000,0.000,0.000
1641221069477144832,2022-01-03-14:44:29,10.1.1.10,194,-0.190,-0.190,-0.190,0.000,0.000,0.000
1641221069676409856,2022-01-03-14:44:29,10.1.1.10,192,-0.180,-0.180,-0.180,0.000,0.000,0.000
1641221069879486208,2022-01-03-14:44:29,10.1.1.10,195,-0.170,-0.170,-0.170,0.000,0.000,0.000
1641221070076133120,2022-01-03-14:44:30,10.1.1.10,190,-0.160,-0.160,-0.160,0.000,0.000,0.000
1641221070293862144,2022-01-03-14:44:30,10.1.1.10,190,-0.150,-0.150,-0.150,0.000,0.000,0.000
1641221070477387008,2022-01-03-14:44:30,10.1.1.10,183,-0.140,-0.140,-0.140,0.000,0.000,0.000
1641221070686786048,2022-01-03-14:44:30,10.1.1.10,191,-0.130,-0.130,-0.130,0.000,0.000,0.000
1641221071290163968,2022-01-03-14:44:31,10.1.1.10,192,-0.100,-0.100,-0.100,0.000,0.000,0.000
1641221071486073856,2022-01-03-14:44:31,10.1.1.10,183,-0.090,-0.090,-0.090,0.000,0.000,0.000
1641221071686476032,2022-01-03-14:44:31,10.1.1.10,183,-0.080,-0.080,-0.080,0.000,0.000,0.000
1641221071895563008,2022-01-03-14:44:31,10.1.1.10,191,-0.070,-0.070,-0.070,0.000,0.000,0.000
1641221072096251136,2022-01-03-14:44:32,10.1.1.10,191,-0.060,-0.060,-0.060,0.000,0.000,0.000
1641221072295159040,2022-01-03-14:44:32,10.1.1.10,188,-0.050,-0.050,-0.050,0.000,0.000,0.000
1641221072698344960,2022-01-03-14:44:32,10.1.1.10,188,-0.030,-0.030,-0.030,0.000,0.000,0.000
1641221072906744832,2022-01-03-14:44:32,10.1.1.10,195,-0.020,-0.020,-0.020,0.000,0.000,0.000
1641221073298692864,2022-01-03-14:44:33,10.1.1.10,186,0.000,0.000,0.000,0.000,0.000,0.000
1641221073505480960,2022-01-03-14:44:33,10.1.1.10,192,-0.010,-0.010,-0.010,0.000,0.000,0.000
1641221073705288960,2022-01-03-14:44:33,10.1.1.10,189,-0.020,-0.020,-0.020,0.000,0.000,0.000
1641221073903422208,2022-01-03-14:44:33,10.1.1.10,186,-0.030,-0.030,-0.030,0.000,0.000,0.000
1641221074104812032,2022-01-03-14:44:34,10.1.1.10,186,-0.040,-0.040,-0.040,0.000,0.000,0.000
1641221074314592000,2022-01-03-14:44:34,10.1.1.10,195,-0.050,-0.050,-0.050,0.000,0.000,0.000
1641221074520451072,2022-01-03-14:44:34,10.1.1.10,198,-0.060,-0.060,-0.060,0.000,0.000,0.000
1641221074703334144,2022-01-03-14:44:34,10.1.1.10,182,-0.070,-0.070,-0.070,0.000,0.000,0.000
1641221074903215872,2022-01-03-14:44:34,10.1.1.10,180,-0.080,-0.080,-0.080,0.000,0.000,0.000
1641221075121907968,2022-01-03-14:44:35,10.1.1.10,198,-0.090,-0.090,-0.090,0.000,0.000,0.000
1641221075303672064,2022-01-03-14:44:35,10.1.1.10,179,-0.100,-0.100,-0.100,0.000,0.000,0.000
1641221075521889024,2022-01-03-14:44:35,10.1.1.10,196,-0.110,-0.110,-0.110,0.000,0.000,0.000
1641221075718353920,2022-01-03-14:44:35,10.1.1.10,192,-0.120,-0.120,-0.120,0.000,0.000,0.000
1641221075921283072,2022-01-03-14:44:35,10.1.1.10,191,-0.130,-0.130,-0.130,0.000,0.000,0.000
1641221076121184000,2022-01-03-14:44:36,10.1.1.10,189,-0.140,-0.140,-0.140,0.000,0.000,0.000
1641221076321325056,2022-01-03-14:44:36,10.1.1.10,189,-0.150,-0.150,-0.150,0.000,0.000,0.000
1641221076520982016,2022-01-03-14:44:36,10.1.1.10,188,-0.160,-0.160,-0.160,0.000,0.000,0.000
1641221076720211968,2022-01-03-14:44:36,10.1.1.10,185,-0.170,-0.170,-0.170,0.000,0.000,0.000
1641221076919954944,2022-01-03-14:44:36,10.1.1.10,184,-0.180,-0.180,-0.180,0.000,0.000,0.000
1641221077120493824,2022-01-03-14:44:37,10.1.1.10,184,-0.190,-0.190,-0.190,0.000,0.000,0.000
1641221077320486144,2022-01-03-14:44:37,10.1.1.10,183,-0.200,-0.200,-0.200,0.000,0.000,0.000
1641221077729846016,2022-01-03-14:44:37,10.1.1.10,192,-0.220,-0.220,-0.220,0.000,0.000,0.000
1641221078118819072,2022-01-03-14:44:38,10.1.1.10,179,-0.240,-0.240,-0.240,0.000,0.000,0.000
1641221078340424960,2022-01-03-14:44:38,10.1.1.10,196,-0.250,-0.250,-0.250,0.000,0.000,0.000
1641221078526225920,2022-01-03-14:44:38,10.1.1.10,181,-0.260,-0.260,-0.260,0.000,0.000,0.000
1641221078748007936,2022-01-03-14:44:38,10.1.1.10,185,-0.270,-0.270,-0.270,0.000,0.000,0.000
1641221078937309952,2022-01-03-14:44:38,10.1.1.10,174,-0.280,-0.280,-0.280,0.000,0.000,0.000
1641221079137137920,2022-01-03-14:44:39,10.1.1.10,173,-0.290,-0.290,-0.290,0.000,0.000,0.000
1641221079336815104,2022-01-03-14:44:39,10.1.1.10,172,-0.300,-0.300,-0.300,0.000,0.000,0.000
1641221079556840960,2022-01-03-14:44:39,10.1.1.10,192,-0.310,-0.310,-0.310,0.000,0.000,0.000
1641221079747649792,2022-01-03-14:44:39,10.1.1.10,179,-0.320,-0.320,-0.320,0.000,0.000,0.000
1641221079956568064,2022-01-03-14:44:39,10.1.1.10,185,-0.330,-0.330,-0.330,0.000,0.000,0.000
1641221080151456000,2022-01-03-14:44:40,10.1.1.10,177,-0.340,-0.340,-0.340,0.000,0.000,0.000
1641221080356604160,2022-01-03-14:44:40,10.1.1.10,176,-0.350,-0.350,-0.350,0.000,0.000,0.000
1641221080571055872,2022-01-03-14:44:40,10.1.1.10,190,-0.360,-0.360,-0.360,0.000,0.000,0.000
1641221080769723904,2022-01-03-14:44:40,10.1.1.10,184,-0.370,-0.370,-0.370,0.000,0.000,0.000
1641221080965563136,2022-01-03-14:44:40,10.1.1.10,182,-0.380,-0.380,-0.380,0.000,0.000,0.000
1641221081165016832,2022-01-03-14:44:41,10.1.1.10,181,-0.390,-0.390,-0.390,0.000,0.000,0.000
1641221081365492992,2022-01-03-14:44:41,10.1.1.10,180,-0.400,-0.400,-0.400,0.000,0.000,0.000
1641221081565267200,2022-01-03-14:44:41,10.1.1.10,179,-0.410,-0.410,-0.410,0.000,0.000,0.000
1641221081763920128,2022-01-03-14:44:41,10.1.1.10,177,-0.420,-0.420,-0.420,0.000,0.000,0.000
1641221081965209088,2022-01-03-14:44:41,10.1.1.10,177,-0.430,-0.430,-0.430,0.000,0.000,0.000
1641221082168879104,2022-01-03-14:44:42,10.1.1.10,180,-0.440,-0.440,-0.440,0.000,0.000,0.000
1641221082368011008,2022-01-03-14:44:42,10.1.1.10,179,-0.450,-0.450,-0.450,0.000,0.000,0.000
1641221082570269184,2022-01-03-14:44:42,10.1.1.10,180,-0.460,-0.460,-0.460,0.000,0.000,0.000
1641221082770057984,2022-01-03-14:44:42,10.1.1.10,179,-0.470,-0.470,-0.470,0.000,0.000,0.000
1641221082969309952,2022-01-03-14:44:42,10.1.1.10,177,-0.480,-0.480,-0.480,0.000,0.000,0.000
1641221083169095936,2022-01-03-14:44:43,10.1.1.10,175,-0.490,-0.490,-0.490,0.000,0.000,0.000
1641221083368132096,2022-01-03-14:44:43,10.1.1.10,171,-0.480,-0.480,-0.480,0.000,0.000,0.000
1641221083565371136,2022-01-03-14:44:43,10.1.1.10,169,-0.470,-0.470,-0.470,0.000,0.000,0.000
1641221083766798848,2022-01-03-14:44:43,10.1.1.10,169,-0.460,-0.460,-0.460,0.000,0.000,0.000
1641221083964941056,2022-01-03-14:44:43,10.1.1.10,167,-0.450,-0.450,-0.450,0.000,0.000,0.000
1641221084166444032,2022-01-03-14:44:44,10.1.1.10,168,-0.440,-0.440,-0.440,0.000,0.000,0.000
1641221084372940032,2022-01-03-14:44:44,10.1.1.10,174,-0.430,-0.430,-0.430,0.000,0.000,0.000
1641221084585815040,2022-01-03-14:44:44,10.1.1.10,186,-0.420,-0.420,-0.420,0.000,0.000,0.000
1641221084784547072,2022-01-03-14:44:44,10.1.1.10,184,-0.410,-0.410,-0.410,0.000,0.000,0.000
1641221084984253952,2022-01-03-14:44:44,10.1.1.10,183,-0.400,-0.400,-0.400,0.000,0.000,0.000
1641221085183371008,2022-01-03-14:44:45,10.1.1.10,180,-0.390,-0.390,-0.390,0.000,0.000,0.000
1641221085205805056,2022-01-03-14:44:45,10.1.1.10,-3,-0.390,-0.390,-0.390,0.000,0.000,0.000
1641221085582626048,2022-01-03-14:44:45,10.1.1.10,168,-0.370,-0.370,-0.370,0.000,0.000,0.000
1641221085785744896,2022-01-03-14:44:45,10.1.1.10,170,-0.360,-0.360,-0.360,0.000,0.000,0.000
1641221085984216832,2022-01-03-14:44:45,10.1.1.10,168,-0.350,-0.350,-0.350,0.000,0.000,0.000
1641221086183804160,2022-01-03-14:44:46,10.1.1.10,167,-0.340,-0.340,-0.340,0.000,0.000,0.000
1641221086383507968,2022-01-03-14:44:46,10.1.1.10,166,-0.330,-0.330,-0.330,0.000,0.000,0.000
1641221086594283008,2022-01-03-14:44:46,10.1.1.10,176,-0.320,-0.320,-0.320,0.000,0.000,0.000
1641221086801037056,2022-01-03-14:44:46,10.1.1.10,182,-0.310,-0.310,-0.310,0.000,0.000,0.000
1641221086824333824,2022-01-03-14:44:46,10.1.1.10,-1,-0.310,-0.310,-0.310,0.000,0.000,0.000
1641221087199004928,2022-01-03-14:44:47,10.1.1.10,174,-0.290,-0.290,-0.290,0.000,0.000,0.000
1641221087399773952,2022-01-03-14:44:47,10.1.1.10,174,-0.280,-0.280,-0.280,0.000,0.000,0.000
1641221087602504960,2022-01-03-14:44:47,10.1.1.10,174,-0.270,-0.270,-0.270,0.000,0.000,0.000
1641221087799437056,2022-01-03-14:44:47,10.1.1.10,170,-0.260,-0.260,-0.260,0.000,0.000,0.000
1641221087998734848,2022-01-03-14:44:47,10.1.1.10,169,-0.250,-0.250,-0.250,0.000,0.000,0.000
1641221088198797824,2022-01-03-14:44:48,10.1.1.10,168,-0.240,-0.240,-0.240,0.000,0.000,0.000
1641221088397911040,2022-01-03-14:44:48,10.1.1.10,167,-0.230,-0.230,-0.230,0.000,0.000,0.000
1641221088598552064,2022-01-03-14:44:48,10.1.1.10,166,-0.220,-0.220,-0.220,0.000,0.000,0.000
1641221088801393152,2022-01-03-14:44:48,10.1.1.10,169,-0.210,-0.210,-0.210,0.000,0.000,0.000
1641221088997113856,2022-01-03-14:44:48,10.1.1.10,163,-0.200,-0.200,-0.200,0.000,0.000,0.000
1641221089198651904,2022-01-03-14:44:49,10.1.1.10,163,-0.190,-0.190,-0.190,0.000,0.000,0.000
1641221089417138944,2022-01-03-14:44:49,10.1.1.10,176,-0.180,-0.180,-0.180,0.000,0.000,0.000
1641221089615660032,2022-01-03-14:44:49,10.1.1.10,174,-0.170,-0.170,-0.170,0.000,0.000,0.000
1641221089816246016,2022-01-03-14:44:49,10.1.1.10,174,-0.160,-0.160,-0.160,0.000,0.000,0.000
1641221090015151104,2022-01-03-14:44:50,10.1.1.10,172,-0.150,-0.150,-0.150,0.000,0.000,0.000
1641221090216892928,2022-01-03-14:44:50,10.1.1.10,172,-0.140,-0.140,-0.140,0.000,0.000,0.000
1641221090417074944,2022-01-03-14:44:50,10.1.1.10,172,-0.130,-0.130,-0.130,0.000,0.000,0.000
1641221090617383936,2022-01-03-14:44:50,10.1.1.10,172,-0.120,-0.120,-0.120,0.000,0.000,0.000
1641221090832518144,2022-01-03-14:44:50,10.1.1.10,186,-0.110,-0.110,-0.110,0.000,0.000,0.000
1641221091020680960,2022-01-03-14:44:51,10.1.1.10,170,-0.100,-0.100,-0.100,0.000,0.000,0.000
1641221091221321984,2022-01-03-14:44:51,10.1.1.10,164,-0.090,-0.090,-0.090,0.000,0.000,0.000
1641221091422120192,2022-01-03-14:44:51,10.1.1.10,164,-0.080,-0.080,-0.080,0.000,0.000,0.000
1641221091643110144,2022-01-03-14:44:51,10.1.1.10,184,-0.070,-0.070,-0.070,0.000,0.000,0.000
1641221091844285952,2022-01-03-14:44:51,10.1.1.10,185,-0.060,-0.060,-0.060,0.000,0.000,0.000
1641221092047721984,2022-01-03-14:44:52,10.1.1.10,187,-0.050,-0.050,-0.050,0.000,0.000,0.000
1641221092245517056,2022-01-03-14:44:52,10.1.1.10,185,-0.040,-0.040,-0.040,0.000,0.000,0.000
1641221092446393856,2022-01-03-14:44:52,10.1.1.10,185,-0.030,-0.030,-0.030,0.000,0.000,0.000
1641221092649355008,2022-01-03-14:44:52,10.1.1.10,187,-0.020,-0.020,-0.020,0.000,0.000,0.000
1641221092848012032,2022-01-03-14:44:52,10.1.1.10,186,-0.010,-0.010,-0.010,0.000,0.000,0.000
1641221093051045888,2022-01-03-14:44:53,10.1.1.10,188,0.000,0.000,0.000,0.000,0.000,0.000
1641221093250732800,2022-01-03-14:44:53,10.1.1.10,186,-0.010,-0.010,-0.010,0.000,0.000,0.000
1641221093448594944,2022-01-03-14:44:53,10.1.1.10,184,-0.020,-0.020,-0.020,0.000,0.000,0.000
1641221093649878016,2022-01-03-14:44:53,10.1.1.10,185,-0.030,-0.030,-0.030,0.000,0.000,0.000
1641221093851319040,2022-01-03-14:44:53,10.1.1.10,185,-0.040,-0.040,-0.040,0.000,0.000,0.000
1641221094051301888,2022-01-03-14:44:54,10.1.1.10,184,-0.050,-0.050,-0.050,0.000,0.000,0.000
1641221094251728128,2022-01-03-14:44:54,10.1.1.10,183,-0.060,-0.060,-0.060,0.000,0.000,0.000
1641221094452037120,2022-01-03-14:44:54,10.1.1.10,183,-0.070,-0.070,-0.070,0.000,0.000,0.000
1641221094652918016,2022-01-03-14:44:54,10.1.1.10,184,-0.080,-0.080,-0.080,0.000,0.000,0.000
1641221094853310976,2022-01-03-14:44:54,10.1.1.10,184,-0.090,-0.090,-0.090,0.000,0.000,0.000
1641221095055386112,2022-01-03-14:44:55,10.1.1.10,185,-0.100,-0.100,-0.100,0.000,0.000,0.000
1641221095257373184,2022-01-03-14:44:55,10.1.1.10,186,-0.110,-0.110,-0.110,0.000,0.000,0.000
1641221095456928000,2022-01-03-14:44:55,10.1.1.10,185,-0.120,-0.120,-0.120,0.000,0.000,0.000
1641221095655729152,2022-01-03-14:44:55,10.1.1.10,184,-0.130,-0.130,-0.130,0.000,0.000,0.000
1641221095857712896,2022-01-03-14:44:55,10.1.1.10,185,-0.140,-0.140,-0.140,0.000,0.000,0.000
1641221096055421184,2022-01-03-14:44:56,10.1.1.10,182,-0.150,-0.150,-0.150,0.000,0.000,0.000
1641221096255844096,2022-01-03-14:44:56,10.1.1.10,182,-0.160,-0.160,-0.160,0.000,0.000,0.000
1641221096456312832,2022-01-03-14:44:56,10.1.1.10,182,-0.170,-0.170,-0.170,0.000,0.000,0.000
1641221096656182016,2022-01-03-14:44:56,10.1.1.10,182,-0.180,-0.180,-0.180,0.000,0.000,0.000
1641221096856979968,2022-01-03-14:44:56,10.1.1.10,181,-0.190,-0.190,-0.190,0.000,0.000,0.000
1641221097057640960,2022-01-03-14:44:57,10.1.1.10,181,-0.200,-0.200,-0.200,0.000,0.000,0.000
1641221097257952000,2022-01-03-14:44:57,10.1.1.10,180,-0.210,-0.210,-0.210,0.000,0.000,0.000
1641221097458324992,2022-01-03-14:44:57,10.1.1.10,179,-0.220,-0.220,-0.220,0.000,0.000,0.000
1641221097678062848,2022-01-03-14:44:57,10.1.1.10,198,-0.230,-0.230,-0.230,0.000,0.000,0.000
1641221097877816832,2022-01-03-14:44:57,10.1.1.10,197,-0.240,-0.240,-0.240,0.000,0.000,0.000
1641221098079057920,2022-01-03-14:44:58,10.1.1.10,198,-0.250,-0.250,-0.250,0.000,0.000,0.000
1641221098279057920,2022-01-03-14:44:58,10.1.1.10,197,-0.260,-0.260,-0.260,0.000,0.000,0.000
1641221098479252224,2022-01-03-14:44:58,10.1.1.10,197,-0.270,-0.270,-0.270,0.000,0.000,0.000
1641221098679081984,2022-01-03-14:44:58,10.1.1.10,196,-0.280,-0.280,-0.280,0.000,0.000,0.000
1641221098878490880,2022-01-03-14:44:58,10.1.1.10,195,-0.290,-0.290,-0.290,0.000,0.000,0.000
1641221099078500096,2022-01-03-14:44:59,10.1.1.10,193,-0.300,-0.300,-0.300,0.000,0.000,0.000
1641221099278523904,2022-01-03-14:44:59,10.1.1.10,192,-0.310,-0.310,-0.310,0.000,0.000,0.000
1641221099879538944,2022-01-03-14:44:59,10.1.1.10,189,-0.340,-0.340,-0.340,0.000,0.000,0.000
1641221100079611904,2022-01-03-14:45:00,10.1.1.10,188,-0.350,-0.350,-0.350,0.000,0.000,0.000
1641221100280318976,2022-01-03-14:45:00,10.1.1.10,188,-0.360,-0.360,-0.360,0.000,0.000,0.000
1641221100479862016,2022-01-03-14:45:00,10.1.1.10,187,-0.370,-0.370,-0.370,0.000,0.000,0.000
1641221100682027008,2022-01-03-14:45:00,10.1.1.10,187,-0.380,-0.380,-0.380,0.000,0.000,0.000
1641221100879878144,2022-01-03-14:45:00,10.1.1.10,186,-0.390,-0.390,-0.390,0.000,0.000,0.000
1641221101079862016,2022-01-03-14:45:01,10.1.1.10,186,-0.400,-0.400,-0.400,0.000,0.000,0.000
1641221101280422912,2022-01-03-14:45:01,10.1.1.10,186,-0.410,-0.410,-0.410,0.000,0.000,0.000
1641221101479680000,2022-01-03-14:45:01,10.1.1.10,185,-0.420,-0.420,-0.420,0.000,0.000,0.000
1641221101690614016,2022-01-03-14:45:01,10.1.1.10,183,-0.430,-0.430,-0.430,0.000,0.000,0.000
1641221101878596096,2022-01-03-14:45:01,10.1.1.10,181,-0.440,-0.440,-0.440,0.000,0.000,0.000
1641221102099081984,2022-01-03-14:45:02,10.1.1.10,189,-0.450,-0.450,-0.450,0.000,0.000,0.000
1641221102301883904,2022-01-03-14:45:02,10.1.1.10,190,-0.460,-0.460,-0.460,0.000,0.000,0.000
1641221102499584000,2022-01-03-14:45:02,10.1.1.10,189,-0.470,-0.470,-0.470,0.000,0.000,0.000
1641221102698841088,2022-01-03-14:45:02,10.1.1.10,187,-0.480,-0.480,-0.480,0.000,0.000,0.000
1641221102900379904,2022-01-03-14:45:02,10.1.1.10,189,-0.490,-0.490,-0.490,0.000,0.000,0.000
1641221103099335936,2022-01-03-14:45:03,10.1.1.10,187,-0.480,-0.480,-0.480,0.000,0.000,0.000
1641221103299535872,2022-01-03-14:45:03,10.1.1.10,187,-0.470,-0.470,-0.470,0.000,0.000,0.000
1641221103501463808,2022-01-03-14:45:03,10.1.1.10,188,-0.460,-0.460,-0.460,0.000,0.000,0.000
1641221103697915904,2022-01-03-14:45:03,10.1.1.10,184,-0.450,-0.450,-0.450,0.000,0.000,0.000
1641221103907887104,2022-01-03-14:45:03,10.1.1.10,185,-0.440,-0.440,-0.440,0.000,0.000,0.000
1641221104098683136,2022-01-03-14:45:04,10.1.1.10,183,-0.430,-0.430,-0.430,0.000,0.000,0.000
1641221104298636800,2022-01-03-14:45:04,10.1.1.10,181,-0.420,-0.420,-0.420,0.000,0.000,0.000
1641221104506469888,2022-01-03-14:45:04,10.1.1.10,188,-0.410,-0.410,-0.410,0.000,0.000,0.000
1641221104717752832,2022-01-03-14:45:04,10.1.1.10,198,-0.400,-0.400,-0.400,0.000,0.000,0.000
1641221105118260992,2022-01-03-14:45:05,10.1.1.10,197,-0.380,-0.380,-0.380,0.000,0.000,0.000
1641221105317774080,2022-01-03-14:45:05,10.1.1.10,196,-0.370,-0.370,-0.370,0.000,0.000,0.000
1641221105520621056,2022-01-03-14:45:05,10.1.1.10,196,-0.360,-0.360,-0.360,0.000,0.000,0.000
1641221105716940032,2022-01-03-14:45:05,10.1.1.10,194,-0.350,-0.350,-0.350,0.000,0.000,0.000
1641221105919055872,2022-01-03-14:45:05,10.1.1.10,195,-0.340,-0.340,-0.340,0.000,0.000,0.000
1641221106116695808,2022-01-03-14:45:06,10.1.1.10,192,-0.330,-0.330,-0.330,0.000,0.000,0.000
1641221106316593920,2022-01-03-14:45:06,10.1.1.10,190,-0.320,-0.320,-0.320,0.000,0.000,0.000
1641221106516134912,2022-01-03-14:45:06,10.1.1.10,188,-0.310,-0.310,-0.310,0.000,0.000,0.000
1641221106716495872,2022-01-03-14:45:06,10.1.1.10,188,-0.300,-0.300,-0.300,0.000,0.000,0.000
1641221106915837952,2022-01-03-14:45:06,10.1.1.10,187,-0.290,-0.290,-0.290,0.000,0.000,0.000
1641221107119066880,2022-01-03-14:45:07,10.1.1.10,190,-0.280,-0.280,-0.280,0.000,0.000,0.000
1641221107315165952,2022-01-03-14:45:07,10.1.1.10,185,-0.270,-0.270,-0.270,0.000,0.000,0.000
1641221107514959104,2022-01-03-14:45:07,10.1.1.10,184,-0.260,-0.260,-0.260,0.000,0.000,0.000
1641221107719981056,2022-01-03-14:45:07,10.1.1.10,188,-0.250,-0.250,-0.250,0.000,0.000,0.000
1641221107914816000,2022-01-03-14:45:07,10.1.1.10,182,-0.240,-0.240,-0.240,0.000,0.000,0.000
1641221108113960960,2022-01-03-14:45:08,10.1.1.10,181,-0.230,-0.230,-0.230,0.000,0.000,0.000
1641221108314243072,2022-01-03-14:45:08,10.1.1.10,181,-0.220,-0.220,-0.220,0.000,0.000,0.000
1641221108514554880,2022-01-03-14:45:08,10.1.1.10,180,-0.210,-0.210,-0.210,0.000,0.000,0.000
1641221108713603072,2022-01-03-14:45:08,10.1.1.10,179,-0.200,-0.200,-0.200,0.000,0.000,0.000
1641221108926923008,2022-01-03-14:45:08,10.1.1.10,191,-0.190,-0.190,-0.190,0.000,0.000,0.000
1641221109113874944,2022-01-03-14:45:09,10.1.1.10,177,-0.180,-0.180,-0.180,0.000,0.000,0.000
1641221109321385984,2022-01-03-14:45:09,10.1.1.10,184,-0.170,-0.170,-0.170,0.000,0.000,0.000
1641221109512872960,2022-01-03-14:45:09,10.1.1.10,174,-0.160,-0.160,-0.160,0.000,0.000,0.000
1641221109712798208,2022-01-03-14:45:09,10.1.1.10,174,-0.150,-0.150,-0.150,0.000,0.000,0.000
1641221109932361984,2022-01-03-14:45:09,10.1.1.10,192,-0.140,-0.140,-0.140,0.000,0.000,0.000
1641221110132327168,2022-01-03-14:45:10,10.1.1.10,192,-0.130,-0.130,-0.130,0.000,0.000,0.000
1641221110332504064,2022-01-03-14:45:10,10.1.1.10,191,-0.120,-0.120,-0.120,0.000,0.000,0.000
1641221110534281984,2022-01-03-14:45:10,10.1.1.10,190,-0.110,-0.110,-0.110,0.000,0.000,0.000
1641221110732420864,2022-01-03-14:45:10,10.1.1.10,189,-0.100,-0.100,-0.100,0.000,0.000,0.000
1641221110935085056,2022-01-03-14:45:10,10.1.1.10,192,-0.090,-0.090,-0.090,0.000,0.000,0.000
1641221111131956992,2022-01-03-14:45:11,10.1.1.10,188,-0.080,-0.080,-0.080,0.000,0.000,0.000
1641221111332096000,2022-01-03-14:45:11,10.1.1.10,187,-0.070,-0.070,-0.070,0.000,0.000,0.000
1641221111531537152,2022-01-03-14:45:11,10.1.1.10,186,-0.060,-0.060,-0.060,0.000,0.000,0.000
1641221111731382016,2022-01-03-14:45:11,10.1.1.10,185,-0.050,-0.050,-0.050,0.000,0.000,0.000
1641221111932993792,2022-01-03-14:45:11,10.1.1.10,187,-0.040,-0.040,-0.040,0.000,0.000,0.000
1641221112133240832,2022-01-03-14:45:12,10.1.1.10,186,-0.030,-0.030,-0.030,0.000,0.000,0.000
1641221112333480960,2022-01-03-14:45:12,10.1.1.10,186,-0.020,-0.020,-0.020,0.000,0.000,0.000
1641221112540687104,2022-01-03-14:45:12,10.1.1.10,193,-0.010,-0.010,-0.010,0.000,0.000,0.000
1641221112729594112,2022-01-03-14:45:12,10.1.1.10,178,0.000,0.000,0.000,0.000,0.000,0.000
1641221112949024000,2022-01-03-14:45:12,10.1.1.10,186,-0.010,-0.010,-0.010,0.000,0.000,0.000
1641221113148605952,2022-01-03-14:45:13,10.1.1.10,184,-0.020,-0.020,-0.020,0.000,0.000,0.000
1641221113350295040,2022-01-03-14:45:13,10.1.1.10,186,-0.030,-0.030,-0.030,0.000,0.000,0.000
1641221113550141184,2022-01-03-14:45:13,10.1.1.10,185,-0.040,-0.040,-0.040,0.000,0.000,0.000
1641221113747983104,2022-01-03-14:45:13,10.1.1.10,182,-0.050,-0.050,-0.050,0.000,0.000,0.000
1641221113950651904,2022-01-03-14:45:13,10.1.1.10,184,-0.060,-0.060,-0.060,0.000,0.000,0.000
1641221114151702784,2022-01-03-14:45:14,10.1.1.10,185,-0.070,-0.070,-0.070,0.000,0.000,0.000
1641221114348642048,2022-01-03-14:45:14,10.1.1.10,180,-0.080,-0.080,-0.080,0.000,0.000,0.000
1641221114548065792,2022-01-03-14:45:14,10.1.1.10,178,-0.090,-0.090,-0.090,0.000,0.000,0.000
1641221114751365888,2022-01-03-14:45:14,10.1.1.10,181,-0.100,-0.100,-0.100,0.000,0.000,0.000
1641221114948826112,2022-01-03-14:45:14,10.1.1.10,178,-0.110,-0.110,-0.110,0.000,0.000,0.000
1641221115148567040,2022-01-03-14:45:15,10.1.1.10,177,-0.120,-0.120,-0.120,0.000,0.000,0.000
1641221115351320064,2022-01-03-14:45:15,10.1.1.10,179,-0.130,-0.130,-0.130,0.000,0.000,0.000
1641221115546191104,2022-01-03-14:45:15,10.1.1.10,173,-0.140,-0.140,-0.140,0.000,0.000,0.000
1641221115745372928,2022-01-03-14:45:15,10.1.1.10,172,-0.150,-0.150,-0.150,0.000,0.000,0.000
1641221115944482048,2022-01-03-14:45:15,10.1.1.10,170,-0.160,-0.160,-0.160,0.000,0.000,0.000
1641221116146776832,2022-01-03-14:45:16,10.1.1.10,172,-0.170,-0.170,-0.170,0.000,0.000,0.000
1641221116344183808,2022-01-03-14:45:16,10.1.1.10,169,-0.180,-0.180,-0.180,0.000,0.000,0.000
1641221116555827968,2022-01-03-14:45:16,10.1.1.10,180,-0.190,-0.190,-0.190,0.000,0.000,0.000
1641221116743526912,2022-01-03-14:45:16,10.1.1.10,167,-0.200,-0.200,-0.200,0.000,0.000,0.000
1641221116946067200,2022-01-03-14:45:16,10.1.1.10,169,-0.210,-0.210,-0.210,0.000,0.000,0.000
1641221117142276096,2022-01-03-14:45:17,10.1.1.10,165,-0.220,-0.220,-0.220,0.000,0.000,0.000
1641221117342444800,2022-01-03-14:45:17,10.1.1.10,165,-0.230,-0.230,-0.230,0.000,0.000,0.000
1641221117541698048,2022-01-03-14:45:17,10.1.1.10,163,-0.240,-0.240,-0.240,0.000,0.000,0.000
1641221117741746944,2022-01-03-14:45:17,10.1.1.10,163,-0.250,-0.250,-0.250,0.000,0.000,0.000
1641221117961357056,2022-01-03-14:45:17,10.1.1.10,182,-0.260,-0.260,-0.260,0.000,0.000,0.000
1641221118163431936,2022-01-03-14:45:18,10.1.1.10,182,-0.270,-0.270,-0.270,0.000,0.000,0.000
1641221118360893952,2022-01-03-14:45:18,10.1.1.10,180,-0.280,-0.280,-0.280,0.000,0.000,0.000
1641221118560631040,2022-01-03-14:45:18,10.1.1.10,179,-0.290,-0.290,-0.290,0.000,0.000,0.000
1641221118760615168,2022-01-03-14:45:18,10.1.1.10,178,-0.300,-0.300,-0.300,0.000,0.000,0.000
1641221118960315904,2022-01-03-14:45:18,10.1.1.10,177,-0.310,-0.310,-0.310,0.000,0.000,0.000
1641221119160306944,2022-01-03-14:45:19,10.1.1.10,177,-0.320,-0.320,-0.320,0.000,0.000,0.000
1641221119360357888,2022-01-03-14:45:19,10.1.1.10,176,-0.330,-0.330,-0.330,0.000,0.000,0.000
1641221119559890944,2022-01-03-14:45:19,10.1.1.10,175,-0.340,-0.340,-0.340,0.000,0.000,0.000
1641221119760758016,2022-01-03-14:45:19,10.1.1.10,175,-0.350,-0.350,-0.350,0.000,0.000,0.000
1641221119962144000,2022-01-03-14:45:19,10.1.1.10,176,-0.360,-0.360,-0.360,0.000,0.000,0.000
1641221120161426176,2022-01-03-14:45:20,10.1.1.10,174,-0.370,-0.370,-0.370,0.000,0.000,0.000
1641221120361423104,2022-01-03-14:45:20,10.1.1.10,170,-0.380,-0.380,-0.380,0.000,0.000,0.000
1641221120562959872,2022-01-03-14:45:20,10.1.1.10,170,-0.390,-0.390,-0.390,0.000,0.000,0.000
1641221120757421056,2022-01-03-14:45:20,10.1.1.10,165,-0.400,-0.400,-0.400,0.000,0.000,0.000
1641221120958264064,2022-01-03-14:45:20,10.1.1.10,165,-0.410,-0.410,-0.410,0.000,0.000,0.000
1641221121156910848,2022-01-03-14:45:21,10.1.1.10,162,-0.420,-0.420,-0.420,0.000,0.000,0.000
1641221121416709888,2022-01-03-14:45:21,10.1.1.10,176,-0.430,-0.430,-0.430,0.000,0.000,0.000
1641221121615539968,2022-01-03-14:45:21,10.1.1.10,174,-0.440,-0.440,-0.440,0.000,0.000,0.000
1641221121815454976,2022-01-03-14:45:21,10.1.1.10,174,-0.450,-0.450,-0.450,0.000,0.000,0.000
1641221122015342080,2022-01-03-14:45:22,10.1.1.10,173,-0.460,-0.460,-0.460,0.000,0.000,0.000
1641221122218832128,2022-01-03-14:45:22,10.1.1.10,176,-0.470,-0.470,-0.470,0.000,0.000,0.000
1641221122420434944,2022-01-03-14:45:22,10.1.1.10,177,-0.480,-0.480,-0.480,0.000,0.000,0.000
1641221122618333184,2022-01-03-14:45:22,10.1.1.10,174,-0.490,-0.490,-0.490,0.000,0.000,0.000
1641221122819464960,2022-01-03-14:45:22,10.1.1.10,175,-0.480,-0.480,-0.480,0.000,0.000,0.000
1641221123021864960,2022-01-03-14:45:23,10.1.1.10,176,-0.470,-0.470,-0.470,0.000,0.000,0.000
1641221123220948992,2022-01-03-14:45:23,10.1.1.10,175,-0.460,-0.460,-0.460,0.000,0.000,0.000
1641221123422597888,2022-01-03-14:45:23,10.1.1.10,175,-0.450,-0.450,-0.450,0.000,0.000,0.000
1641221123622836992,2022-01-03-14:45:23,10.1.1.10,172,-0.440,-0.440,-0.440,0.000,0.000,0.000
1641221123823672064,2022-01-03-14:45:23,10.1.1.10,171,-0.430,-0.430,-0.430,0.000,0.000,0.000
1641221124024585984,2022-01-03-14:45:24,10.1.1.10,172,-0.420,-0.420,-0.420,0.000,0.000,0.000
1641221124225231872,2022-01-03-14:45:24,10.1.1.10,172,-0.410,-0.410,-0.410,0.000,0.000,0.000
1641221124426445056,2022-01-03-14:45:24,10.1.1.10,173,-0.400,-0.400,-0.400,0.000,0.000,0.000
1641221124626429184,2022-01-03-14:45:24,10.1.1.10,172,-0.390,-0.390,-0.390,0.000,0.000,0.000
1641221124827217152,2022-01-03-14:45:24,10.1.1.10,172,-0.380,-0.380,-0.380,0.000,0.000,0.000
1641221125028211968,2022-01-03-14:45:25,10.1.1.10,173,-0.370,-0.370,-0.370,0.000,0.000,0.000
1641221125233937920,2022-01-03-14:45:25,10.1.1.10,178,-0.360,-0.360,-0.360,0.000,0.000,0.000
1641221125450306048,2022-01-03-14:45:25,10.1.1.10,191,-0.350,-0.350,-0.350,0.000,0.000,0.000
1641221125649668864,2022-01-03-14:45:25,10.1.1.10,190,-0.340,-0.340,-0.340,0.000,0.000,0.000
1641221125850539008,2022-01-03-14:45:25,10.1.1.10,190,-0.330,-0.330,-0.330,0.000,0.000,0.000
1641221126053229056,2022-01-03-14:45:26,10.1.1.10,192,-0.320,-0.320,-0.320,0.000,0.000,0.000
1641221126251961088,2022-01-03-14:45:26,10.1.1.10,190,-0.310,-0.310,-0.310,0.000,0.000,0.000
1641221126452280064,2022-01-03-14:45:26,10.1.1.10,190,-0.300,-0.300,-0.300,0.000,0.000,0.000
1641221126653347072,2022-01-03-14:45:26,10.1.1.10,191,-0.290,-0.290,-0.290,0.000,0.000,0.000
1641221126853394944,2022-01-03-14:45:26,10.1.1.10,186,-0.280,-0.280,-0.280,0.000,0.000,0.000
1641221127255408896,2022-01-03-14:45:27,10.1.1.10,179,-0.260,-0.260,-0.260,0.000,0.000,0.000
1641221127496967168,2022-01-03-14:45:27,10.1.1.10,180,-0.250,-0.250,-0.250,0.000,0.000,0.000
1641221127916414976,2022-01-03-14:45:27,10.1.1.10,197,-0.230,-0.230,-0.230,0.000,0.000,0.000
1641221128119472896,2022-01-03-14:45:28,10.1.1.10,199,-0.220,-0.220,-0.220,0.000,0.000,0.000
1641221128320471040,2022-01-03-14:45:28,10.1.1.10,200,-0.210,-0.210,-0.210,0.000,0.000,0.000
1641221128518886144,2022-01-03-14:45:28,10.1.1.10,193,-0.200,-0.200,-0.200,0.000,0.000,0.000
1641221128718447872,2022-01-03-14:45:28,10.1.1.10,192,-0.190,-0.190,-0.190,0.000,0.000,0.000
1641221128917771008,2022-01-03-14:45:28,10.1.1.10,191,-0.180,-0.180,-0.180,0.000,0.000,0.000
1641221129117628928,2022-01-03-14:45:29,10.1.1.10,190,-0.170,-0.170,-0.170,0.000,0.000,0.000
1641221129317960960,2022-01-03-14:45:29,10.1.1.10,190,-0.160,-0.160,-0.160,0.000,0.000,0.000
1641221129520427008,2022-01-03-14:45:29,10.1.1.10,191,-0.150,-0.150,-0.150,0.000,0.000,0.000
1641221129720112128,2022-01-03-14:45:29,10.1.1.10,190,-0.140,-0.140,-0.140,0.000,0.000,0.000
1641221130119113984,2022-01-03-14:45:30,10.1.1.10,186,-0.120,-0.120,-0.120,0.000,0.000,0.000
1641221130317883136,2022-01-03-14:45:30,10.1.1.10,184,-0.110,-0.110,-0.110,0.000,0.000,0.000
1641221130522830848,2022-01-03-14:45:30,10.1.1.10,188,-0.100,-0.100,-0.100,0.000,0.000,0.000
1641221130721793792,2022-01-03-14:45:30,10.1.1.10,183,-0.090,-0.090,-0.090,0.000,0.000,0.000
1641221130920836864,2022-01-03-14:45:30,10.1.1.10,183,-0.080,-0.080,-0.080,0.000,0.000,0.000
1641221131141190912,2022-01-03-14:45:31,10.1.1.10,195,-0.070,-0.070,-0.070,0.000,0.000,0.000
1641221131341656064,2022-01-03-14:45:31,10.1.1.10,192,-0.060,-0.060,-0.060,0.000,0.000,0.000
1641221131540772864,2022-01-03-14:45:31,10.1.1.10,190,-0.050,-0.050,-0.050,0.000,0.000,0.000
1641221131740251136,2022-01-03-14:45:31,10.1.1.10,189,-0.040,-0.040,-0.040,0.000,0.000,0.000
1641221131939987968,2022-01-03-14:45:31,10.1.1.10,188,-0.030,-0.030,-0.030,0.000,0.000,0.000
1641221132140176128,2022-01-03-14:45:32,10.1.1.10,188,-0.020,-0.020,-0.020,0.000,0.000,0.000
1641221132543245056,2022-01-03-14:45:32,10.1.1.10,190,0.000,0.000,0.000,0.000,0.000,0.000
1641221132744435968,2022-01-03-14:45:32,10.1.1.10,190,-0.010,-0.010,-0.010,0.000,0.000,0.000
1641221132944727040,2022-01-03-14:45:32,10.1.1.10,189,-0.020,-0.020,-0.020,0.000,0.000,0.000
1641221133144715008,2022-01-03-14:45:33,10.1.1.10,189,-0.030,-0.030,-0.030,0.000,0.000,0.000
1641221133345918976,2022-01-03-14:45:33,10.1.1.10,187,-0.040,-0.040,-0.040,0.000,0.000,0.000
1641221133544014848,2022-01-03-14:45:33,10.1.1.10,184,-0.050,-0.050,-0.050,0.000,0.000,0.000
1641221133743938048,2022-01-03-14:45:33,10.1.1.10,183,-0.060,-0.060,-0.060,0.000,0.000,0.000
1641221133944026112,2022-01-03-14:45:33,10.1.1.10,182,-0.070,-0.070,-0.070,0.000,0.000,0.000
1641221134143830016,2022-01-03-14:45:34,10.1.1.10,181,-0.080,-0.080,-0.080,0.000,0.000,0.000
1641221134563607040,2022-01-03-14:45:34,10.1.1.10,199,-0.100,-0.100,-0.100,0.000,0.000,0.000
1641221134763403776,2022-01-03-14:45:34,10.1.1.10,198,-0.110,-0.110,-0.110,0.000,0.000,0.000
1641221134975776000,2022-01-03-14:45:34,10.1.1.10,198,-0.120,-0.120,-0.120,0.000,0.000,0.000
1641221135371620864,2022-01-03-14:45:35,10.1.1.10,193,-0.140,-0.140,-0.140,0.000,0.000,0.000
1641221135563505920,2022-01-03-14:45:35,10.1.1.10,184,-0.150,-0.150,-0.150,0.000,0.000,0.000
1641221135763539200,2022-01-03-14:45:35,10.1.1.10,183,-0.160,-0.160,-0.160,0.000,0.000,0.000
1641221135963747072,2022-01-03-14:45:35,10.1.1.10,182,-0.170,-0.170,-0.170,0.000,0.000,0.000
1641221136163331072,2022-01-03-14:45:36,10.1.1.10,181,-0.180,-0.180,-0.180,0.000,0.000,0.000
1641221136392527104,2022-01-03-14:45:36,10.1.1.10,209,-0.190,-0.190,-0.190,0.000,0.000,0.000
1641221136583022080,2022-01-03-14:45:36,10.1.1.10,190,-0.200,-0.200,-0.200,0.000,0.000,0.000
1641221136783286016,2022-01-03-14:45:36,10.1.1.10,188,-0.210,-0.210,-0.210,0.000,0.000,0.000
1641221136983973888,2022-01-03-14:45:36,10.1.1.10,187,-0.220,-0.220,-0.220,0.000,0.000,0.000
1641221137182665984,2022-01-03-14:45:37,10.1.1.10,184,-0.230,-0.230,-0.230,0.000,0.000,0.000
1641221137382811904,2022-01-03-14:45:37,10.1.1.10,183,-0.240,-0.240,-0.240,0.000,0.000,0.000
1641221137581938944,2022-01-03-14:45:37,10.1.1.10,181,-0.250,-0.250,-0.250,0.000,0.000,0.000
1641221137782491904,2022-01-03-14:45:37,10.1.1.10,181,-0.260,-0.260,-0.260,0.000,0.000,0.000
1641221137981818880,2022-01-03-14:45:37,10.1.1.10,180,-0.270,-0.270,-0.270,0.000,0.000,0.000
1641221138181832960,2022-01-03-14:45:38,10.1.1.10,179,-0.280,-0.280,-0.280,0.000,0.000,0.000
1641221138381537024,2022-01-03-14:45:38,10.1.1.10,179,-0.290,-0.290,-0.290,0.000,0.000,0.000
1641221138600950016,2022-01-03-14:45:38,10.1.1.10,197,-0.300,-0.300,-0.300,0.000,0.000,0.000
1641221138800643840,2022-01-03-14:45:38,10.1.1.10,196,-0.310,-0.310,-0.310,0.000,0.000,0.000
1641221139000410112,2022-01-03-14:45:39,10.1.1.10,194,-0.320,-0.320,-0.320,0.000,0.000,0.000
1641221139400420864,2022-01-03-14:45:39,10.1.1.10,192,-0.340,-0.340,-0.340,0.000,0.000,0.000
1641221139611213824,2022-01-03-14:45:39,10.1.1.10,195,-0.350,-0.350,-0.350,0.000,0.000,0.000
1641221139799358976,2022-01-03-14:45:39,10.1.1.10,176,-0.360,-0.360,-0.360,0.000,0.000,0.000
1641221140019589888,2022-01-03-14:45:40,10.1.1.10,193,-0.370,-0.370,-0.370,0.000,0.000,0.000
1641221140226280960,2022-01-03-14:45:40,10.1.1.10,193,-0.380,-0.380,-0.380,0.000,0.000,0.000
1641221140420425984,2022-01-03-14:45:40,10.1.1.10,191,-0.390,-0.390,-0.390,0.000,0.000,0.000
1641221140618823168,2022-01-03-14:45:40,10.1.1.10,187,-0.400,-0.400,-0.400,0.000,0.000,0.000
1641221140819283968,2022-01-03-14:45:40,10.1.1.10,186,-0.410,-0.410,-0.410,0.000,0.000,0.000
1641221141018119936,2022-01-03-14:45:41,10.1.1.10,185,-0.420,-0.420,-0.420,0.000,0.000,0.000
1641221141227346944,2022-01-03-14:45:41,10.1.1.10,192,-0.430,-0.430,-0.430,0.000,0.000,0.000
1641221141417701120,2022-01-03-14:45:41,10.1.1.10,180,-0.440,-0.440,-0.440,0.000,0.000,0.000
1641221141617573888,2022-01-03-14:45:41,10.1.1.10,179,-0.450,-0.450,-0.450,0.000,0.000,0.000
1641221141817394944,2022-01-03-14:45:41,10.1.1.10,177,-0.460,-0.460,-0.460,0.000,0.000,0.000
1641221142017352960,2022-01-03-14:45:42,10.1.1.10,177,-0.470,-0.470,-0.470,0.000,0.000,0.000
1641221142217232896,2022-01-03-14:45:42,10.1.1.10,174,-0.480,-0.480,-0.480,0.000,0.000,0.000
1641221142436687872,2022-01-03-14:45:42,10.1.1.10,193,-0.490,-0.490,-0.490,0.000,0.000,0.000
1641221142643659008,2022-01-03-14:45:42,10.1.1.10,199,-0.480,-0.480,-0.480,0.000,0.000,0.000
1641221142838486784,2022-01-03-14:45:42,10.1.1.10,194,-0.470,-0.470,-0.470,0.000,0.000,0.000
1641221143036393984,2022-01-03-14:45:43,10.1.1.10,189,-0.460,-0.460,-0.460,0.000,0.000,0.000
1641221143235672832,2022-01-03-14:45:43,10.1.1.10,177,-0.450,-0.450,-0.450,0.000,0.000,0.000
1641221143436165120,2022-01-03-14:45:43,10.1.1.10,177,-0.440,-0.440,-0.440,0.000,0.000,0.000
1641221143655111168,2022-01-03-14:45:43,10.1.1.10,191,-0.430,-0.430,-0.430,0.000,0.000,0.000
1641221143856132864,2022-01-03-14:45:43,10.1.1.10,191,-0.420,-0.420,-0.420,0.000,0.000,0.000
1641221144057633024,2022-01-03-14:45:44,10.1.1.10,192,-0.410,-0.410,-0.410,0.000,0.000,0.000
1641221144255109120,2022-01-03-14:45:44,10.1.1.10,189,-0.400,-0.400,-0.400,0.000,0.000,0.000
1641221144454276096,2022-01-03-14:45:44,10.1.1.10,188,-0.390,-0.390,-0.390,0.000,0.000,0.000
1641221144654108928,2022-01-03-14:45:44,10.1.1.10,187,-0.380,-0.380,-0.380,0.000,0.000,0.000
1641221144853629184,2022-01-03-14:45:44,10.1.1.10,183,-0.370,-0.370,-0.370,0.000,0.000,0.000
1641221145054174976,2022-01-03-14:45:45,10.1.1.10,182,-0.360,-0.360,-0.360,0.000,0.000,0.000
1641221145253929984,2022-01-03-14:45:45,10.1.1.10,181,-0.350,-0.350,-0.350,0.000,0.000,0.000
1641221145452878848,2022-01-03-14:45:45,10.1.1.10,179,-0.340,-0.340,-0.340,0.000,0.000,0.000
1641221145653253120,2022-01-03-14:45:45,10.1.1.10,178,-0.330,-0.330,-0.330,0.000,0.000,0.000
1641221145852081920,2022-01-03-14:45:45,10.1.1.10,174,-0.320,-0.320,-0.320,0.000,0.000,0.000
1641221146070179840,2022-01-03-14:45:46,10.1.1.10,192,-0.310,-0.310,-0.310,0.000,0.000,0.000
1641221146252448000,2022-01-03-14:45:46,10.1.1.10,173,-0.300,-0.300,-0.300,0.000,0.000,0.000
1641221146451513088,2022-01-03-14:45:46,10.1.1.10,171,-0.290,-0.290,-0.290,0.000,0.000,0.000
1641221146651144960,2022-01-03-14:45:46,10.1.1.10,171,-0.280,-0.280,-0.280,0.000,0.000,0.000
1641221146850821120,2022-01-03-14:45:46,10.1.1.10,169,-0.270,-0.270,-0.270,0.000,0.000,0.000
1641221147051047168,2022-01-03-14:45:47,10.1.1.10,169,-0.260,-0.260,-0.260,0.000,0.000,0.000
1641221147250096128,2022-01-03-14:45:47,10.1.1.10,167,-0.250,-0.250,-0.250,0.000,0.000,0.000
1641221147470036992,2022-01-03-14:45:47,10.1.1.10,186,-0.240,-0.240,-0.240,0.000,0.000,0.000
1641221147669715968,2022-01-03-14:45:47,10.1.1.10,184,-0.230,-0.230,-0.230,0.000,0.000,0.000
1641221147869492992,2022-01-03-14:45:47,10.1.1.10,183,-0.220,-0.220,-0.220,0.000,0.000,0.000
1641221148069209088,2022-01-03-14:45:48,10.1.1.10,181,-0.210,-0.210,-0.210,0.000,0.000,0.000
1641221148270544896,2022-01-03-14:45:48,10.1.1.10,182,-0.200,-0.200,-0.200,0.000,0.000,0.000
1641221148468306176,2022-01-03-14:45:48,10.1.1.10,178,-0.190,-0.190,-0.190,0.000,0.000,0.000
1641221148667560192,2022-01-03-14:45:48,10.1.1.10,177,-0.180,-0.180,-0.180,0.000,0.000,0.000
1641221148868017920,2022-01-03-14:45:48,10.1.1.10,176,-0.170,-0.170,-0.170,0.000,0.000,0.000
1641221149067291904,2022-01-03-14:45:49,10.1.1.10,174,-0.160,-0.160,-0.160,0.000,0.000,0.000
1641221149272342016,2022-01-03-14:45:49,10.1.1.10,178,-0.150,-0.150,-0.150,0.000,0.000,0.000
1641221149466927104,2022-01-03-14:45:49,10.1.1.10,172,-0.140,-0.140,-0.140,0.000,0.000,0.000
1641221149666706944,2022-01-03-14:45:49,10.1.1.10,171,-0.130,-0.130,-0.130,0.000,0.000,0.000
1641221149866460160,2022-01-03-14:45:49,10.1.1.10,170,-0.120,-0.120,-0.120,0.000,0.000,0.000
1641221150066458880,2022-01-03-14:45:50,10.1.1.10,170,-0.110,-0.110,-0.110,0.000,0.000,0.000
1641221150265356032,2022-01-03-14:45:50,10.1.1.10,168,-0.100,-0.100,-0.100,0.000,0.000,0.000
1641221150476172800,2022-01-03-14:45:50,10.1.1.10,177,-0.090,-0.090,-0.090,0.000,0.000,0.000
1641221150665244160,2022-01-03-14:45:50,10.1.1.10,165,-0.080,-0.080,-0.080,0.000,0.000,0.000
1641221150864846848,2022-01-03-14:45:50,10.1.1.10,163,-0.070,-0.070,-0.070,0.000,0.000,0.000
1641221151064416768,2022-01-03-14:45:51,10.1.1.10,162,-0.060,-0.060,-0.060,0.000,0.000,0.000
1641221151264683008,2022-01-03-14:45:51,10.1.1.10,162,-0.050,-0.050,-0.050,0.000,0.000,0.000
1641221151492301056,2022-01-03-14:45:51,10.1.1.10,189,-0.040,-0.040,-0.040,0.000,0.000,0.000
1641221151683491840,2022-01-03-14:45:51,10.1.1.10,178,-0.030,-0.030,-0.030,0.000,0.000,0.000
1641221151883032064,2022-01-03-14:45:51,10.1.1.10,177,-0.020,-0.020,-0.020,0.000,0.000,0.000
1641221152084850176,2022-01-03-14:45:52,10.1.1.10,177,-0.010,-0.010,-0.010,0.000,0.000,0.000
1641221152283205888,2022-01-03-14:45:52,10.1.1.10,170,0.000,0.000,0.000,0.000,0.000,0.000
1641221152482441984,2022-01-03-14:45:52,10.1.1.10,168,-0.010,-0.010,-0.010,0.000,0.000,0.000
1641221152682065920,2022-01-03-14:45:52,10.1.1.10,166,-0.020,-0.020,-0.020,0.000,0.000,0.000
1641221152881614848,2022-01-03-14:45:52,10.1.1.10,165,-0.030,-0.030,-0.030,0.000,0.000,0.000
1641221153081549056,2022-01-03-14:45:53,10.1.1.10,162,-0.040,-0.040,-0.040,0.000,0.000,0.000
1641221153280890880,2022-01-03-14:45:53,10.1.1.10,159,-0.050,-0.050,-0.050,0.000,0.000,0.000
1641221153481097984,2022-01-03-14:45:53,10.1.1.10,158,-0.060,-0.060,-0.060,0.000,0.000,0.000
1641221153704850944,2022-01-03-14:45:53,10.1.1.10,181,-0.070,-0.070,-0.070,0.000,0.000,0.000
1641221153899694080,2022-01-03-14:45:53,10.1.1.10,171,-0.080,-0.080,-0.080,0.000,0.000,0.000
1641221154099988992,2022-01-03-14:45:54,10.1.1.10,171,-0.090,-0.090,-0.090,0.000,0.000,0.000
1641221154306014976,2022-01-03-14:45:54,10.1.1.10,176,-0.100,-0.100,-0.100,0.000,0.000,0.000
1641221154503896832,2022-01-03-14:45:54,10.1.1.10,170,-0.110,-0.110,-0.110,0.000,0.000,0.000
1641221154703512064,2022-01-03-14:45:54,10.1.1.10,170,-0.120,-0.120,-0.120,0.000,0.000,0.000
1641221154904992000,2022-01-03-14:45:54,10.1.1.10,170,-0.130,-0.130,-0.130,0.000,0.000,0.000
1641221155105457152,2022-01-03-14:45:55,10.1.1.10,170,-0.140,-0.140,-0.140,0.000,0.000,0.000
1641221155306401024,2022-01-03-14:45:55,10.1.1.10,170,-0.150,-0.150,-0.150,0.000,0.000,0.000
1641221155507630080,2022-01-03-14:45:55,10.1.1.10,171,-0.160,-0.160,-0.160,0.000,0.000,0.000
1641221155707901952,2022-01-03-14:45:55,10.1.1.10,171,-0.170,-0.170,-0.170,0.000,0.000,0.000
1641221155908958976,2022-01-03-14:45:55,10.1.1.10,171,-0.180,-0.180,-0.180,0.000,0.000,0.000
1641221156109716992,2022-01-03-14:45:56,10.1.1.10,171,-0.190,-0.190,-0.190,0.000,0.000,0.000
1641221156310377984,2022-01-03-14:45:56,10.1.1.10,171,-0.200,-0.200,-0.200,0.000,0.000,0.000
1641221156510946048,2022-01-03-14:45:56,10.1.1.10,170,-0.210,-0.210,-0.210,0.000,0.000,0.000
1641221156712297984,2022-01-03-14:45:56,10.1.1.10,170,-0.220,-0.220,-0.220,0.000,0.000,0.000
1641221156912775936,2022-01-03-14:45:56,10.1.1.10,171,-0.230,-0.230,-0.230,0.000,0.000,0.000
1641221157113542144,2022-01-03-14:45:57,10.1.1.10,171,-0.240,-0.240,-0.240,0.000,0.000,0.000
1641221157314657024,2022-01-03-14:45:57,10.1.1.10,172,-0.250,-0.250,-0.250,0.000,0.000,0.000
1641221157534457856,2022-01-03-14:45:57,10.1.1.10,191,-0.260,-0.260,-0.260,0.000,0.000,0.000
1641221157735496960,2022-01-03-14:45:57,10.1.1.10,191,-0.270,-0.270,-0.270,0.000,0.000,0.000
1641221157935537152,2022-01-03-14:45:57,10.1.1.10,191,-0.280,-0.280,-0.280,0.000,0.000,0.000
1641221158136442880,2022-01-03-14:45:58,10.1.1.10,182,-0.290,-0.290,-0.290,0.000,0.000,0.000
1641221158336827904,2022-01-03-14:45:58,10.1.1.10,182,-0.300,-0.300,-0.300,0.000,0.000,0.000
1641221158537168128,2022-01-03-14:45:58,10.1.1.10,179,-0.310,-0.310,-0.310,0.000,0.000,0.000
1641221158739185152,2022-01-03-14:45:58,10.1.1.10,181,-0.320,-0.320,-0.320,0.000,0.000,0.000
1641221158938045952,2022-01-03-14:45:58,10.1.1.10,178,-0.330,-0.330,-0.330,0.000,0.000,0.000
1641221159138894080,2022-01-03-14:45:59,10.1.1.10,178,-0.340,-0.340,-0.340,0.000,0.000,0.000
1641221159338644992,2022-01-03-14:45:59,10.1.1.10,178,-0.350,-0.350,-0.350,0.000,0.000,0.000
1641221159539313152,2022-01-03-14:45:59,10.1.1.10,178,-0.360,-0.360,-0.360,0.000,0.000,0.000
1641221159739557120,2022-01-03-14:45:59,10.1.1.10,177,-0.370,-0.370,-0.370,0.000,0.000,0.000
1641221159939742976,2022-01-03-14:45:59,10.1.1.10,177,-0.380,-0.380,-0.380,0.000,0.000,0.000
1641221160361326080,2022-01-03-14:46:00,10.1.1.10,197,-0.400,-0.400,-0.400,0.000,0.000,0.000
1641221160761746944,2022-01-03-14:46:00,10.1.1.10,196,-0.420,-0.420,-0.420,0.000,0.000,0.000
1641221160966366976,2022-01-03-14:46:00,10.1.1.10,200,-0.430,-0.430,-0.430,0.000,0.000,0.000
1641221161161890048,2022-01-03-14:46:01,10.1.1.10,195,-0.440,-0.440,-0.440,0.000,0.000,0.000
1641221161363209984,2022-01-03-14:46:01,10.1.1.10,195,-0.450,-0.450,-0.450,0.000,0.000,0.000
1641221161562462976,2022-01-03-14:46:01,10.1.1.10,194,-0.460,-0.460,-0.460,0.000,0.000,0.000
1641221161763351040,2022-01-03-14:46:01,10.1.1.10,195,-0.470,-0.470,-0.470,0.000,0.000,0.000
1641221161963496960,2022-01-03-14:46:01,10.1.1.10,194,-0.480,-0.480,-0.480,0.000,0.000,0.000
1641221162163197952,2022-01-03-14:46:02,10.1.1.10,194,-0.490,-0.490,-0.490,0.000,0.000,0.000
1641221162364214784,2022-01-03-14:46:02,10.1.1.10,194,-0.480,-0.480,-0.480,0.000,0.000,0.000
1641221162566284800,2022-01-03-14:46:02,10.1.1.10,195,-0.470,-0.470,-0.470,0.000,0.000,0.000
1641221162763655936,2022-01-03-14:46:02,10.1.1.10,192,-0.460,-0.460,-0.460,0.000,0.000,0.000
1641221162965696000,2022-01-03-14:46:02,10.1.1.10,194,-0.450,-0.450,-0.450,0.000,0.000,0.000
1641221163164481024,2022-01-03-14:46:03,10.1.1.10,190,-0.440,-0.440,-0.440,0.000,0.000,0.000
1641221163364420864,2022-01-03-14:46:03,10.1.1.10,189,-0.430,-0.430,-0.430,0.000,0.000,0.000
1641221163564350976,2022-01-03-14:46:03,10.1.1.10,185,-0.420,-0.420,-0.420,0.000,0.000,0.000
1641221163764017152,2022-01-03-14:46:03,10.1.1.10,184,-0.410,-0.410,-0.410,0.000,0.000,0.000
1641221163963885056,2022-01-03-14:46:03,10.1.1.10,183,-0.400,-0.400,-0.400,0.000,0.000,0.000
1641221164164203776,2022-01-03-14:46:04,10.1.1.10,183,-0.390,-0.390,-0.390,0.000,0.000,0.000
1641221164364356096,2022-01-03-14:46:04,10.1.1.10,182,-0.380,-0.380,-0.380,0.000,0.000,0.000
1641221164564378880,2022-01-03-14:46:04,10.1.1.10,182,-0.370,-0.370,-0.370,0.000,0.000,0.000
1641221164764636160,2022-01-03-14:46:04,10.1.1.10,181,-0.360,-0.360,-0.360,0.000,0.000,0.000
1641221164984646144,2022-01-03-14:46:04,10.1.1.10,200,-0.350,-0.350,-0.350,0.000,0.000,0.000
1641221165385131008,2022-01-03-14:46:05,10.1.1.10,199,-0.330,-0.330,-0.330,0.000,0.000,0.000
1641221165586076928,2022-01-03-14:46:05,10.1.1.10,199,-0.320,-0.320,-0.320,0.000,0.000,0.000
1641221165784493056,2022-01-03-14:46:05,10.1.1.10,196,-0.310,-0.310,-0.310,0.000,0.000,0.000
1641221165984546048,2022-01-03-14:46:05,10.1.1.10,195,-0.300,-0.300,-0.300,0.000,0.000,0.000
1641221166184717056,2022-01-03-14:46:06,10.1.1.10,194,-0.290,-0.290,-0.290,0.000,0.000,0.000
1641221166384696064,2022-01-03-14:46:06,10.1.1.10,194,-0.280,-0.280,-0.280,0.000,0.000,0.000
1641221166584461824,2022-01-03-14:46:06,10.1.1.10,193,-0.270,-0.270,-0.270,0.000,0.000,0.000
1641221166784737024,2022-01-03-14:46:06,10.1.1.10,193,-0.260,-0.260,-0.260,0.000,0.000,0.000
1641221166983768832,2022-01-03-14:46:06,10.1.1.10,191,-0.250,-0.250,-0.250,0.000,0.000,0.000
1641221167184560896,2022-01-03-14:46:07,10.1.1.10,191,-0.240,-0.240,-0.240,0.000,0.000,0.000
1641221167383356928,2022-01-03-14:46:07,10.1.1.10,190,-0.230,-0.230,-0.230,0.000,0.000,0.000
1641221167583919104,2022-01-03-14:46:07,10.1.1.10,190,-0.220,-0.220,-0.220,0.000,0.000,0.000
1641221167785784832,2022-01-03-14:46:07,10.1.1.10,191,-0.210,-0.210,-0.210,0.000,0.000,0.000
1641221167983171840,2022-01-03-14:46:07,10.1.1.10,187,-0.200,-0.200,-0.200,0.000,0.000,0.000
1641221168183482880,2022-01-03-14:46:08,10.1.1.10,186,-0.190,-0.190,-0.190,0.000,0.000,0.000
1641221168391347968,2022-01-03-14:46:08,10.1.1.10,193,-0.180,-0.180,-0.180,0.000,0.000,0.000
1641221168582353152,2022-01-03-14:46:08,10.1.1.10,183,-0.170,-0.170,-0.170,0.000,0.000,0.000
1641221168782607104,2022-01-03-14:46:08,10.1.1.10,182,-0.160,-0.160,-0.160,0.000,0.000,0.000
1641221169183080960,2022-01-03-14:46:09,10.1.1.10,181,-0.140,-0.140,-0.140,0.000,0.000,0.000
1641221169383429120,2022-01-03-14:46:09,10.1.1.10,181,-0.130,-0.130,-0.130,0.000,0.000,0.000
1641221169582895104,2022-01-03-14:46:09,10.1.1.10,180,-0.120,-0.120,-0.120,0.000,0.000,0.000
1641221169782653184,2022-01-03-14:46:09,10.1.1.10,179,-0.110,-0.110,-0.110,0.000,0.000,0.000
1641221170002042112,2022-01-03-14:46:10,10.1.1.10,196,-0.100,-0.100,-0.100,0.000,0.000,0.000
1641221170201896960,2022-01-03-14:46:10,10.1.1.10,194,-0.090,-0.090,-0.090,0.000,0.000,0.000
1641221170401415168,2022-01-03-14:46:10,10.1.1.10,193,-0.080,-0.080,-0.080,0.000,0.000,0.000
1641221170601489152,2022-01-03-14:46:10,10.1.1.10,192,-0.070,-0.070,-0.070,0.000,0.000,0.000
1641221170801383936,2022-01-03-14:46:10,10.1.1.10,192,-0.060,-0.060,-0.060,0.000,0.000,0.000
1641221171001142016,2022-01-03-14:46:11,10.1.1.10,190,-0.050,-0.050,-0.050,0.000,0.000,0.000
1641221171201220864,2022-01-03-14:46:11,10.1.1.10,190,-0.040,-0.040,-0.040,0.000,0.000,0.000
1641221171401068800,2022-01-03-14:46:11,10.1.1.10,190,-0.030,-0.030,-0.030,0.000,0.000,0.000
1641221171600754944,2022-01-03-14:46:11,10.1.1.10,189,-0.020,-0.020,-0.020,0.000,0.000,0.000
1641221171800178944,2022-01-03-14:46:11,10.1.1.10,188,-0.010,-0.010,-0.010,0.000,0.000,0.000
1641221172000749056,2022-01-03-14:46:12,10.1.1.10,183,0.000,0.000,0.000,0.000,0.000,0.000
1641221172201381888,2022-01-03-14:46:12,10.1.1.10,183,-0.010,-0.010,-0.010,0.000,0.000,0.000
1641221172400387072,2022-01-03-14:46:12,10.1.1.10,181,-0.020,-0.020,-0.020,0.000,0.000,0.000
1641221172599132160,2022-01-03-14:46:12,10.1.1.10,177,-0.030,-0.030,-0.030,0.000,0.000,0.000
1641221172800067840,2022-01-03-14:46:12,10.1.1.10,177,-0.040,-0.040,-0.040,0.000,0.000,0.000
1641221173001609984,2022-01-03-14:46:13,10.1.1.10,178,-0.050,-0.050,-0.050,0.000,0.000,0.000
1641221173218777856,2022-01-03-14:46:13,10.1.1.10,194,-0.060,-0.060,-0.060,0.000,0.000,0.000
1641221173418683904,2022-01-03-14:46:13,10.1.1.10,194,-0.070,-0.070,-0.070,0.000,0.000,0.000
1641221173619127040,2022-01-03-14:46:13,10.1.1.10,194,-0.080,-0.080,-0.080,0.000,0.000,0.000
1641221173819341056,2022-01-03-14:46:13,10.1.1.10,194,-0.090,-0.090,-0.090,0.000,0.000,0.000
1641221174017666048,2022-01-03-14:46:14,10.1.1.10,191,-0.100,-0.100,-0.100,0.000,0.000,0.000
1641221174217670912,2022-01-03-14:46:14,10.1.1.10,191,-0.110,-0.110,-0.110,0.000,0.000,0.000
1641221174417465088,2022-01-03-14:46:14,10.1.1.10,190,-0.120,-0.120,-0.120,0.000,0.000,0.000
1641221174616858112,2022-01-03-14:46:14,10.1.1.10,189,-0.130,-0.130,-0.130,0.000,0.000,0.000
1641221174816372992,2022-01-03-14:46:14,10.1.1.10,188,-0.140,-0.140,-0.140,0.000,0.000,0.000
1641221175016683008,2022-01-03-14:46:15,10.1.1.10,188,-0.150,-0.150,-0.150,0.000,0.000,0.000
1641221175216445952,2022-01-03-14:46:15,10.1.1.10,187,-0.160,-0.160,-0.160,0.000,0.000,0.000
1641221175418034944,2022-01-03-14:46:15,10.1.1.10,188,-0.170,-0.170,-0.170,0.000,0.000,0.000
1641221175615601152,2022-01-03-14:46:15,10.1.1.10,184,-0.180,-0.180,-0.180,0.000,0.000,0.000
1641221175815821824,2022-01-03-14:46:15,10.1.1.10,182,-0.190,-0.190,-0.190,0.000,0.000,0.000
1641221176015727872,2022-01-03-14:46:16,10.1.1.10,182,-0.200,-0.200,-0.200,0.000,0.000,0.000
1641221176214947072,2022-01-03-14:46:16,10.1.1.10,181,-0.210,-0.210,-0.210,0.000,0.000,0.000
1641221176414992128,2022-01-03-14:46:16,10.1.1.10,180,-0.220,-0.220,-0.220,0.000,0.000,0.000
1641221176615004928,2022-01-03-14:46:16,10.1.1.10,180,-0.230,-0.230,-0.230,0.000,0.000,0.000
1641221176814212096,2022-01-03-14:46:16,10.1.1.10,176,-0.240,-0.240,-0.240,0.000,0.000,0.000
1641221177014055936,2022-01-03-14:46:17,10.1.1.10,176,-0.250,-0.250,-0.250,0.000,0.000,0.000
1641221177213353984,2022-01-03-14:46:17,10.1.1.10,174,-0.260,-0.260,-0.260,0.000,0.000,0.000
1641221177413857024,2022-01-03-14:46:17,10.1.1.10,174,-0.270,-0.270,-0.270,0.000,0.000,0.000
1641221177612973824,2022-01-03-14:46:17,10.1.1.10,173,-0.280,-0.280,-0.280,0.000,0.000,0.000
1641221177812645888,2022-01-03-14:46:17,10.1.1.10,172,-0.290,-0.290,-0.290,0.000,0.000,0.000
1641221178013626112,2022-01-03-14:46:18,10.1.1.10,172,-0.300,-0.300,-0.300,0.000,0.000,0.000
