FedericoMungari/DigitalTwin_service/01_WiredScenario/Output/Output_script/script_ROSAPI_output_robots8_freq0_7.txt.csv
timestamp,node,latency,joint_1,joint_2,joint_3,joint_4,joint_5,joint_6
1640068716845814016,"2021-12-21,06:38:36",10.1.1.8,4494,0.000,0.000,0.000,0.000,0.000,0.000
1640068719160850176,"2021-12-21,06:38:39",10.1.1.8,0.31696105003356934,-0.010,-0.010,-0.010,0.000,0.000,0.000
1640068719161728000,"2021-12-21,06:38:39",10.1.1.8,318,-0.010,-0.010,-0.010,0.000,0.000,0.000
1640068719450908928,"2021-12-21,06:38:39",10.1.1.8,286,-0.020,-0.020,-0.020,0.000,0.000,0.000
1640068719479175936,"2021-12-21,06:38:39",10.1.1.8,0.3151390552520752,-0.020,-0.020,-0.020,0.000,0.000,0.000
1640068719794521088,"2021-12-21,06:38:39",10.1.1.8,314,-0.030,-0.030,-0.030,0.000,0.000,0.000
1640068719806524928,"2021-12-21,06:38:39",10.1.1.8,0.3261690139770508,-0.030,-0.030,-0.030,0.000,0.000,0.000
1640068720104218880,"2021-12-21,06:38:40",10.1.1.8,296,-0.040,-0.040,-0.040,0.000,0.000,0.000
1640068720139862016,"2021-12-21,06:38:40",10.1.1.8,0.33198118209838867,-0.040,-0.040,-0.040,0.000,0.000,0.000
1640068720465071872,"2021-12-21,06:38:40",10.1.1.8,323,-0.050,-0.050,-0.050,0.000,0.000,0.000
1640068720474181888,"2021-12-21,06:38:40",10.1.1.8,0.33298206329345703,-0.050,-0.050,-0.050,0.000,0.000,0.000
1640068720766352896,"2021-12-21,06:38:40",10.1.1.8,290,-0.060,-0.060,-0.060,0.000,0.000,0.000
1640068720799042048,"2021-12-21,06:38:40",10.1.1.8,0.32361698150634766,-0.060,-0.060,-0.060,0.000,0.000,0.000
1640068721137664000,"2021-12-21,06:38:41",10.1.1.8,337,-0.070,-0.070,-0.070,0.000,0.000,0.000
1640068721149539072,"2021-12-21,06:38:41",10.1.1.8,0.3492391109466553,-0.070,-0.070,-0.070,0.000,0.000,0.000
1640068721448386816,"2021-12-21,06:38:41",10.1.1.8,296,-0.080,-0.080,-0.080,0.000,0.000,0.000
1640068721478172160,"2021-12-21,06:38:41",10.1.1.8,0.3268589973449707,-0.080,-0.080,-0.080,0.000,0.000,0.000
1640068721779251200,"2021-12-21,06:38:41",10.1.1.8,299,-0.090,-0.090,-0.090,0.000,0.000,0.000
1640068721803284992,"2021-12-21,06:38:41",10.1.1.8,0.32365894317626953,-0.090,-0.090,-0.090,0.000,0.000,0.000
1640068722109837056,"2021-12-21,06:38:42",10.1.1.8,304,-0.100,-0.100,-0.100,0.000,0.000,0.000
1640068722139892224,"2021-12-21,06:38:42",10.1.1.8,0.33508896827697754,-0.100,-0.100,-0.100,0.000,0.000,0.000
1640068722453548800,"2021-12-21,06:38:42",10.1.1.8,309,-0.110,-0.110,-0.110,0.000,0.000,0.000
1640068722479435008,"2021-12-21,06:38:42",10.1.1.8,0.33797502517700195,-0.110,-0.110,-0.110,0.000,0.000,0.000
1640068722813769216,"2021-12-21,06:38:42",10.1.1.8,331,-0.120,-0.120,-0.120,0.000,0.000,0.000
1640068722832813056,"2021-12-21,06:38:42",10.1.1.8,0.35102200508117676,-0.120,-0.120,-0.120,0.000,0.000,0.000
1640068723132653824,"2021-12-21,06:38:43",10.1.1.8,298,-0.130,-0.130,-0.130,0.000,0.000,0.000
1640068723167251968,"2021-12-21,06:38:43",10.1.1.8,0.3320481777191162,-0.130,-0.130,-0.130,0.000,0.000,0.000
1640068723463782144,"2021-12-21,06:38:43",10.1.1.8,294,-0.140,-0.140,-0.140,0.000,0.000,0.000
1640068723485842944,"2021-12-21,06:38:43",10.1.1.8,0.31682586669921875,-0.140,-0.140,-0.140,0.000,0.000,0.000
1640068723806000896,"2021-12-21,06:38:43",10.1.1.8,318,-0.150,-0.150,-0.150,0.000,0.000,0.000
1640068723816088064,"2021-12-21,06:38:43",10.1.1.8,0.3288559913635254,-0.150,-0.150,-0.150,0.000,0.000,0.000
1640068724133780992,"2021-12-21,06:38:44",10.1.1.8,315,-0.160,-0.160,-0.160,0.000,0.000,0.000
1640068724208066048,"2021-12-21,06:38:44",10.1.1.8,0.3900890350341797,-0.160,-0.160,-0.160,0.000,0.000,0.000
1640068724514650112,"2021-12-21,06:38:44",10.1.1.8,303,-0.170,-0.170,-0.170,0.000,0.000,0.000
1640068724556279808,"2021-12-21,06:38:44",10.1.1.8,0.3453528881072998,-0.170,-0.170,-0.170,0.000,0.000,0.000
1640068724855956992,"2021-12-21,06:38:44",10.1.1.8,297,-0.180,-0.180,-0.180,0.000,0.000,0.000
1640068724891928064,"2021-12-21,06:38:44",10.1.1.8,0.33363986015319824,-0.180,-0.180,-0.180,0.000,0.000,0.000
1640068725224912896,"2021-12-21,06:38:45",10.1.1.8,331,-0.190,-0.190,-0.190,0.000,0.000,0.000
1640068725258675200,"2021-12-21,06:38:45",10.1.1.8,0.36544299125671387,-0.190,-0.190,-0.190,0.000,0.000,0.000
1640068725586117888,"2021-12-21,06:38:45",10.1.1.8,325,-0.200,-0.200,-0.200,0.000,0.000,0.000
1640068725611762944,"2021-12-21,06:38:45",10.1.1.8,0.3509180545806885,-0.200,-0.200,-0.200,0.000,0.000,0.000
1640068725946002944,"2021-12-21,06:38:45",10.1.1.8,332,-0.210,-0.210,-0.210,0.000,0.000,0.000
1640068725968997888,"2021-12-21,06:38:45",10.1.1.8,0.3556530475616455,-0.210,-0.210,-0.210,0.000,0.000,0.000
1640068726306502144,"2021-12-21,06:38:46",10.1.1.8,334,-0.220,-0.220,-0.220,0.000,0.000,0.000
1640068726358772992,"2021-12-21,06:38:46",10.1.1.8,0.38728809356689453,-0.220,-0.220,-0.220,0.000,0.000,0.000
1640068726696150016,"2021-12-21,06:38:46",10.1.1.8,335,-0.230,-0.230,-0.230,0.000,0.000,0.000
1640068726710024192,"2021-12-21,06:38:46",10.1.1.8,0.3497350215911865,-0.230,-0.230,-0.230,0.000,0.000,0.000
1640068727016226048,"2021-12-21,06:38:47",10.1.1.8,303,-0.240,-0.240,-0.240,0.000,0.000,0.000
1640068727064384000,"2021-12-21,06:38:47",10.1.1.8,0.35179996490478516,-0.240,-0.240,-0.240,0.000,0.000,0.000
1640068727357671936,"2021-12-21,06:38:47",10.1.1.8,291,-0.250,-0.250,-0.250,0.000,0.000,0.000
1640068727385555968,"2021-12-21,06:38:47",10.1.1.8,0.3191380500793457,-0.250,-0.250,-0.250,0.000,0.000,0.000
1640068727698006016,"2021-12-21,06:38:47",10.1.1.8,310,-0.260,-0.260,-0.260,0.000,0.000,0.000
1640068727706962176,"2021-12-21,06:38:47",10.1.1.8,0.31958699226379395,-0.260,-0.260,-0.260,0.000,0.000,0.000
1640068728007131136,"2021-12-21,06:38:48",10.1.1.8,298,-0.270,-0.270,-0.270,0.000,0.000,0.000
1640068728040064000,"2021-12-21,06:38:48",10.1.1.8,0.3317148685455322,-0.270,-0.270,-0.270,0.000,0.000,0.000
1640068728348301824,"2021-12-21,06:38:48",10.1.1.8,306,-0.280,-0.280,-0.280,0.000,0.000,0.000
1640068728373539072,"2021-12-21,06:38:48",10.1.1.8,0.3320600986480713,-0.280,-0.280,-0.280,0.000,0.000,0.000
1640068728667032064,"2021-12-21,06:38:48",10.1.1.8,291,-0.290,-0.290,-0.290,0.000,0.000,0.000
1640068728696376064,"2021-12-21,06:38:48",10.1.1.8,0.32072997093200684,-0.290,-0.290,-0.290,0.000,0.000,0.000
1640068729031501056,"2021-12-21,06:38:49",10.1.1.8,332,-0.300,-0.300,-0.300,0.000,0.000,0.000
1640068729050860800,"2021-12-21,06:38:49",10.1.1.8,0.3517940044403076,-0.300,-0.300,-0.300,0.000,0.000,0.000
1640068729338403072,"2021-12-21,06:38:49",10.1.1.8,285,-0.310,-0.310,-0.310,0.000,0.000,0.000
1640068729368733952,"2021-12-21,06:38:49",10.1.1.8,0.31600403785705566,-0.310,-0.310,-0.310,0.000,0.000,0.000
1640068729687604992,"2021-12-21,06:38:49",10.1.1.8,317,-0.320,-0.320,-0.320,0.000,0.000,0.000
1640068729689174784,"2021-12-21,06:38:49",10.1.1.8,0.3191521167755127,-0.320,-0.320,-0.320,0.000,0.000,0.000
1640068729986752000,"2021-12-21,06:38:49",10.1.1.8,296,-0.330,-0.330,-0.330,0.000,0.000,0.000
1640068730022200064,"2021-12-21,06:38:50",10.1.1.8,0.3318009376525879,-0.330,-0.330,-0.330,0.000,0.000,0.000
1640068730356806912,"2021-12-21,06:38:50",10.1.1.8,332,-0.340,-0.340,-0.340,0.000,0.000,0.000
1640068730369539072,"2021-12-21,06:38:50",10.1.1.8,0.34488797187805176,-0.340,-0.340,-0.340,0.000,0.000,0.000
1640068730687516928,"2021-12-21,06:38:50",10.1.1.8,314,-0.350,-0.350,-0.350,0.000,0.000,0.000
1640068730720410112,"2021-12-21,06:38:50",10.1.1.8,0.3482851982116699,-0.350,-0.350,-0.350,0.000,0.000,0.000
1640068731037035008,"2021-12-21,06:38:51",10.1.1.8,315,-0.360,-0.360,-0.360,0.000,0.000,0.000
1640068731081104128,"2021-12-21,06:38:51",10.1.1.8,0.35938000679016113,-0.360,-0.360,-0.360,0.000,0.000,0.000
1640068731396549888,"2021-12-21,06:38:51",10.1.1.8,314,-0.370,-0.370,-0.370,0.000,0.000,0.000
1640068731470071040,"2021-12-21,06:38:51",10.1.1.8,0.3876199722290039,-0.370,-0.370,-0.370,0.000,0.000,0.000
1640068731767014912,"2021-12-21,06:38:51",10.1.1.8,295,-0.380,-0.380,-0.380,0.000,0.000,0.000
1640068731794814976,"2021-12-21,06:38:51",10.1.1.8,0.32335495948791504,-0.380,-0.380,-0.380,0.000,0.000,0.000
1640068732105875968,"2021-12-21,06:38:52",10.1.1.8,308,-0.390,-0.390,-0.390,0.000,0.000,0.000
1640068732155054080,"2021-12-21,06:38:52",10.1.1.8,0.3580000400543213,-0.390,-0.390,-0.390,0.000,0.000,0.000
1640068732475608064,"2021-12-21,06:38:52",10.1.1.8,318,-0.400,-0.400,-0.400,0.000,0.000,0.000
1640068732512933888,"2021-12-21,06:38:52",10.1.1.8,0.355741024017334,-0.400,-0.400,-0.400,0.000,0.000,0.000
1640068732855091968,"2021-12-21,06:38:52",10.1.1.8,340,-0.410,-0.410,-0.410,0.000,0.000,0.000
1640068732889270016,"2021-12-21,06:38:52",10.1.1.8,0.37508702278137207,-0.410,-0.410,-0.410,0.000,0.000,0.000
1640068733235033088,"2021-12-21,06:38:53",10.1.1.8,344,-0.420,-0.420,-0.420,0.000,0.000,0.000
1640068733266184960,"2021-12-21,06:38:53",10.1.1.8,0.3756899833679199,-0.420,-0.420,-0.420,0.000,0.000,0.000
1640068733604721920,"2021-12-21,06:38:53",10.1.1.8,336,-0.430,-0.430,-0.430,0.000,0.000,0.000
1640068733648641024,"2021-12-21,06:38:53",10.1.1.8,0.3808732032775879,-0.430,-0.430,-0.430,0.000,0.000,0.000
1640068733934400000,"2021-12-21,06:38:53",10.1.1.8,284,-0.440,-0.440,-0.440,0.000,0.000,0.000
1640068733965699072,"2021-12-21,06:38:53",10.1.1.8,0.3157949447631836,-0.440,-0.440,-0.440,0.000,0.000,0.000
1640068734304236032,"2021-12-21,06:38:54",10.1.1.8,337,-0.450,-0.450,-0.450,0.000,0.000,0.000
1640068734336955136,"2021-12-21,06:38:54",10.1.1.8,0.36984705924987793,-0.450,-0.450,-0.450,0.000,0.000,0.000
1640068734664859904,"2021-12-21,06:38:54",10.1.1.8,325,-0.460,-0.460,-0.460,0.000,0.000,0.000
1640068734669715968,"2021-12-21,06:38:54",10.1.1.8,0.32763099670410156,-0.460,-0.460,-0.460,0.000,0.000,0.000
1640068734984204032,"2021-12-21,06:38:54",10.1.1.8,313,-0.470,-0.470,-0.470,0.000,0.000,0.000
1640068735017310976,"2021-12-21,06:38:55",10.1.1.8,0.3463411331176758,-0.470,-0.470,-0.470,0.000,0.000,0.000
1640068735357073152,"2021-12-21,06:38:55",10.1.1.8,338,-0.480,-0.480,-0.480,0.000,0.000,0.000
1640068735366130176,"2021-12-21,06:38:55",10.1.1.8,0.34749889373779297,-0.480,-0.480,-0.480,0.000,0.000,0.000
1640068735742654208,"2021-12-21,06:38:55",10.1.1.8,374,-0.490,-0.490,-0.490,0.000,0.000,0.000
1640068735756139008,"2021-12-21,06:38:55",10.1.1.8,0.38832807540893555,-0.490,-0.490,-0.490,0.000,0.000,0.000
1640068736173367040,"2021-12-21,06:38:56",10.1.1.8,410,-0.480,-0.480,-0.480,0.000,0.000,0.000
1640068736187652096,"2021-12-21,06:38:56",10.1.1.8,0.4249110221862793,-0.480,-0.480,-0.480,0.000,0.000,0.000
1640068736512506880,"2021-12-21,06:38:56",10.1.1.8,321,-0.470,-0.470,-0.470,0.000,0.000,0.000
1640068736548939008,"2021-12-21,06:38:56",10.1.1.8,0.35765886306762695,-0.470,-0.470,-0.470,0.000,0.000,0.000
1640068736941540864,"2021-12-21,06:38:56",10.1.1.8,390,-0.460,-0.460,-0.460,0.000,0.000,0.000
1640068736996001024,"2021-12-21,06:38:56",10.1.1.8,0.4442470073699951,-0.460,-0.460,-0.460,0.000,0.000,0.000
1640068737361110016,"2021-12-21,06:38:57",10.1.1.8,363,-0.450,-0.450,-0.450,0.000,0.000,0.000
1640068737394896128,"2021-12-21,06:38:57",10.1.1.8,0.39746809005737305,-0.450,-0.450,-0.450,0.000,0.000,0.000
1640068737741352192,"2021-12-21,06:38:57",10.1.1.8,344,-0.440,-0.440,-0.440,0.000,0.000,0.000
1640068737759161856,"2021-12-21,06:38:57",10.1.1.8,0.36230897903442383,-0.440,-0.440,-0.440,0.000,0.000,0.000
1640068738100332032,"2021-12-21,06:38:58",10.1.1.8,339,-0.430,-0.430,-0.430,0.000,0.000,0.000
1640068738145300992,"2021-12-21,06:38:58",10.1.1.8,0.3846161365509033,-0.430,-0.430,-0.430,0.000,0.000,0.000
1640068738490062848,"2021-12-21,06:38:58",10.1.1.8,342,-0.420,-0.420,-0.420,0.000,0.000,0.000
1640068738507983872,"2021-12-21,06:38:58",10.1.1.8,0.3610529899597168,-0.420,-0.420,-0.420,0.000,0.000,0.000
1640068738830654976,"2021-12-21,06:38:58",10.1.1.8,320,-0.410,-0.410,-0.410,0.000,0.000,0.000
1640068738906259968,"2021-12-21,06:38:58",10.1.1.8,0.3962900638580322,-0.410,-0.410,-0.410,0.000,0.000,0.000
1640068739250169088,"2021-12-21,06:38:59",10.1.1.8,341,-0.400,-0.400,-0.400,0.000,0.000,0.000
1640068739275019008,"2021-12-21,06:38:59",10.1.1.8,0.3666369915008545,-0.400,-0.400,-0.400,0.000,0.000,0.000
1640068739601280000,"2021-12-21,06:38:59",10.1.1.8,322,-0.390,-0.390,-0.390,0.000,0.000,0.000
1640068739634341888,"2021-12-21,06:38:59",10.1.1.8,0.3579089641571045,-0.390,-0.390,-0.390,0.000,0.000,0.000
1640068739957725952,"2021-12-21,06:38:59",10.1.1.8,320,-0.380,-0.380,-0.380,0.000,0.000,0.000
1640068739977992960,"2021-12-21,06:38:59",10.1.1.8,0.3407268524169922,-0.380,-0.380,-0.380,0.000,0.000,0.000
1640068740316980992,"2021-12-21,06:39:00",10.1.1.8,337,-0.370,-0.370,-0.370,0.000,0.000,0.000
1640068740340189952,"2021-12-21,06:39:00",10.1.1.8,0.3609619140625,-0.370,-0.370,-0.370,0.000,0.000,0.000
1640068740706633216,"2021-12-21,06:39:00",10.1.1.8,360,-0.360,-0.360,-0.360,0.000,0.000,0.000
1640068740736453120,"2021-12-21,06:39:00",10.1.1.8,0.39069414138793945,-0.360,-0.360,-0.360,0.000,0.000,0.000
1640068741076232960,"2021-12-21,06:39:01",10.1.1.8,338,-0.350,-0.350,-0.350,0.000,0.000,0.000
1640068741090009856,"2021-12-21,06:39:01",10.1.1.8,0.3521740436553955,-0.350,-0.350,-0.350,0.000,0.000,0.000
1640068741455552000,"2021-12-21,06:39:01",10.1.1.8,363,-0.340,-0.340,-0.340,0.000,0.000,0.000
1640068741496416000,"2021-12-21,06:39:01",10.1.1.8,0.4048330783843994,-0.340,-0.340,-0.340,0.000,0.000,0.000
1640068741855181056,"2021-12-21,06:39:01",10.1.1.8,356,-0.330,-0.330,-0.330,0.000,0.000,0.000
1640068741893897984,"2021-12-21,06:39:01",10.1.1.8,0.39572691917419434,-0.330,-0.330,-0.330,0.000,0.000,0.000
1640068742204675072,"2021-12-21,06:39:02",10.1.1.8,308,-0.320,-0.320,-0.320,0.000,0.000,0.000
1640068742241117952,"2021-12-21,06:39:02",10.1.1.8,0.34505486488342285,-0.320,-0.320,-0.320,0.000,0.000,0.000
1640068742564228096,"2021-12-21,06:39:02",10.1.1.8,321,-0.310,-0.310,-0.310,0.000,0.000,0.000
1640068742606949120,"2021-12-21,06:39:02",10.1.1.8,0.3645040988922119,-0.310,-0.310,-0.310,0.000,0.000,0.000
1640068742953630976,"2021-12-21,06:39:02",10.1.1.8,345,-0.300,-0.300,-0.300,0.000,0.000,0.000
1640068742972534016,"2021-12-21,06:39:02",10.1.1.8,0.3642251491546631,-0.300,-0.300,-0.300,0.000,0.000,0.000
1640068743284763136,"2021-12-21,06:39:03",10.1.1.8,310,-0.290,-0.290,-0.290,0.000,0.000,0.000
1640068743319736832,"2021-12-21,06:39:03",10.1.1.8,0.34535884857177734,-0.290,-0.290,-0.290,0.000,0.000,0.000
1640068743663102976,"2021-12-21,06:39:03",10.1.1.8,341,-0.280,-0.280,-0.280,0.000,0.000,0.000
1640068743718504960,"2021-12-21,06:39:03",10.1.1.8,0.3974449634552002,-0.280,-0.280,-0.280,0.000,0.000,0.000
1640068744053348096,"2021-12-21,06:39:04",10.1.1.8,333,-0.270,-0.270,-0.270,0.000,0.000,0.000
1640068744141860864,"2021-12-21,06:39:04",10.1.1.8,0.42194104194641113,-0.270,-0.270,-0.270,0.000,0.000,0.000
1640068744492072960,"2021-12-21,06:39:04",10.1.1.8,348,-0.260,-0.260,-0.260,0.000,0.000,0.000
1640068744552124928,"2021-12-21,06:39:04",10.1.1.8,0.40821290016174316,-0.260,-0.260,-0.260,0.000,0.000,0.000
1640068744930445056,"2021-12-21,06:39:04",10.1.1.8,376,-0.250,-0.250,-0.250,0.000,0.000,0.000
1640068744957634048,"2021-12-21,06:39:04",10.1.1.8,0.40408802032470703,-0.250,-0.250,-0.250,0.000,0.000,0.000
1640068745291143936,"2021-12-21,06:39:05",10.1.1.8,332,-0.240,-0.240,-0.240,0.000,0.000,0.000
1640068745297064960,"2021-12-21,06:39:05",10.1.1.8,0.3381209373474121,-0.240,-0.240,-0.240,0.000,0.000,0.000
1640068745631516928,"2021-12-21,06:39:05",10.1.1.8,333,-0.230,-0.230,-0.230,0.000,0.000,0.000
1640068745650763008,"2021-12-21,06:39:05",10.1.1.8,0.35251379013061523,-0.230,-0.230,-0.230,0.000,0.000,0.000
1640068745961985024,"2021-12-21,06:39:05",10.1.1.8,307,-0.220,-0.220,-0.220,0.000,0.000,0.000
1640068746004352000,"2021-12-21,06:39:06",10.1.1.8,0.3509521484375,-0.220,-0.220,-0.220,0.000,0.000,0.000
1640068746328404992,"2021-12-21,06:39:06",10.1.1.8,321,-0.210,-0.210,-0.210,0.000,0.000,0.000
1640068746367080960,"2021-12-21,06:39:06",10.1.1.8,0.36044907569885254,-0.210,-0.210,-0.210,0.000,0.000,0.000
1640068746689480960,"2021-12-21,06:39:06",10.1.1.8,320,-0.200,-0.200,-0.200,0.000,0.000,0.000
1640068746719059968,"2021-12-21,06:39:06",10.1.1.8,0.3499128818511963,-0.200,-0.200,-0.200,0.000,0.000,0.000
1640068747077531136,"2021-12-21,06:39:07",10.1.1.8,357,-0.190,-0.190,-0.190,0.000,0.000,0.000
1640068747160996864,"2021-12-21,06:39:07",10.1.1.8,0.4406399726867676,-0.190,-0.190,-0.190,0.000,0.000,0.000
1640068747506854144,"2021-12-21,06:39:07",10.1.1.8,343,-0.180,-0.180,-0.180,0.000,0.000,0.000
1640068747559484928,"2021-12-21,06:39:07",10.1.1.8,0.3959329128265381,-0.180,-0.180,-0.180,0.000,0.000,0.000
1640068747885911040,"2021-12-21,06:39:07",10.1.1.8,324,-0.170,-0.170,-0.170,0.000,0.000,0.000
1640068747897722112,"2021-12-21,06:39:07",10.1.1.8,0.3365509510040283,-0.170,-0.170,-0.170,0.000,0.000,0.000
1640068748336141056,"2021-12-21,06:39:08",10.1.1.8,0.4364798069000244,-0.160,-0.160,-0.160,0.000,0.000,0.000
1640068748336524032,"2021-12-21,06:39:08",10.1.1.8,436,-0.160,-0.160,-0.160,0.000,0.000,0.000
1640068748715548928,"2021-12-21,06:39:08",10.1.1.8,375,-0.150,-0.150,-0.150,0.000,0.000,0.000
1640068748770204160,"2021-12-21,06:39:08",10.1.1.8,0.4307870864868164,-0.150,-0.150,-0.150,0.000,0.000,0.000
1640068749145245952,"2021-12-21,06:39:09",10.1.1.8,373,-0.140,-0.140,-0.140,0.000,0.000,0.000
1640068749187798016,"2021-12-21,06:39:09",10.1.1.8,0.41587090492248535,-0.140,-0.140,-0.140,0.000,0.000,0.000
1640068749534498816,"2021-12-21,06:39:09",10.1.1.8,344,-0.130,-0.130,-0.130,0.000,0.000,0.000
1640068749583375104,"2021-12-21,06:39:09",10.1.1.8,0.39339590072631836,-0.130,-0.130,-0.130,0.000,0.000,0.000
1640068749923019776,"2021-12-21,06:39:09",10.1.1.8,331,-0.120,-0.120,-0.120,0.000,0.000,0.000
1640068749926498816,"2021-12-21,06:39:09",10.1.1.8,0.3348231315612793,-0.120,-0.120,-0.120,0.000,0.000,0.000
1640068750274544128,"2021-12-21,06:39:10",10.1.1.8,346,-0.110,-0.110,-0.110,0.000,0.000,0.000
1640068750346358016,"2021-12-21,06:39:10",10.1.1.8,0.4185221195220947,-0.110,-0.110,-0.110,0.000,0.000,0.000
1640068750726499072,"2021-12-21,06:39:10",10.1.1.8,376,-0.100,-0.100,-0.100,0.000,0.000,0.000
1640068750757741056,"2021-12-21,06:39:10",10.1.1.8,0.40732383728027344,-0.100,-0.100,-0.100,0.000,0.000,0.000
1640068751134290944,"2021-12-21,06:39:11",10.1.1.8,363,-0.090,-0.090,-0.090,0.000,0.000,0.000
1640068751145518080,"2021-12-21,06:39:11",10.1.1.8,0.37735891342163086,-0.090,-0.090,-0.090,0.000,0.000,0.000
1640068751520459008,"2021-12-21,06:39:11",10.1.1.8,372,-0.080,-0.080,-0.080,0.000,0.000,0.000
1640068751593605120,"2021-12-21,06:39:11",10.1.1.8,0.4460129737854004,-0.080,-0.080,-0.080,0.000,0.000,0.000
1640068751923398144,"2021-12-21,06:39:11",10.1.1.8,328,-0.070,-0.070,-0.070,0.000,0.000,0.000
1640068751969826816,"2021-12-21,06:39:11",10.1.1.8,0.3747987747192383,-0.070,-0.070,-0.070,0.000,0.000,0.000
1640068752316781056,"2021-12-21,06:39:12",10.1.1.8,0.34430909156799316,-0.060,-0.060,-0.060,0.000,0.000,0.000
1640068752806682112,"2021-12-21,06:39:12",10.1.1.8,470,-0.050,-0.050,-0.050,0.000,0.000,0.000
1640068752851686912,"2021-12-21,06:39:12",10.1.1.8,0.5155580043792725,-0.050,-0.050,-0.050,0.000,0.000,0.000
1640068753192796928,"2021-12-21,06:39:13",10.1.1.8,338,-0.040,-0.040,-0.040,0.000,0.000,0.000
1640068753290252032,"2021-12-21,06:39:13",10.1.1.8,0.435776948928833,-0.040,-0.040,-0.040,0.000,0.000,0.000
1640068753629057024,"2021-12-21,06:39:13",10.1.1.8,337,-0.030,-0.030,-0.030,0.000,0.000,0.000
1640068753657861120,"2021-12-21,06:39:13",10.1.1.8,0.3659799098968506,-0.030,-0.030,-0.030,0.000,0.000,0.000
1640068753997550848,"2021-12-21,06:39:13",10.1.1.8,337,-0.020,-0.020,-0.020,0.000,0.000,0.000
1640068754044051968,"2021-12-21,06:39:14",10.1.1.8,0.38387513160705566,-0.020,-0.020,-0.020,0.000,0.000,0.000
1640068754451663104,"2021-12-21,06:39:14",10.1.1.8,366,-0.010,-0.010,-0.010,0.000,0.000,0.000
1640068754529836800,"2021-12-21,06:39:14",10.1.1.8,0.44503211975097656,-0.010,-0.010,-0.010,0.000,0.000,0.000
1640068754882374912,"2021-12-21,06:39:14",10.1.1.8,351,0.000,0.000,0.000,0.000,0.000,0.000
1640068754912599040,"2021-12-21,06:39:14",10.1.1.8,0.3814079761505127,0.000,0.000,0.000,0.000,0.000,0.000
1640068755312808960,"2021-12-21,06:39:15",10.1.1.8,397,-0.010,-0.010,-0.010,0.000,0.000,0.000
1640068755326703104,"2021-12-21,06:39:15",10.1.1.8,0.4115941524505615,-0.010,-0.010,-0.010,0.000,0.000,0.000
1640068755674364160,"2021-12-21,06:39:15",10.1.1.8,342,-0.020,-0.020,-0.020,0.000,0.000,0.000
1640068755720709120,"2021-12-21,06:39:15",10.1.1.8,0.3886141777038574,-0.020,-0.020,-0.020,0.000,0.000,0.000
1640068756075054848,"2021-12-21,06:39:16",10.1.1.8,352,-0.030,-0.030,-0.030,0.000,0.000,0.000
1640068756115837184,"2021-12-21,06:39:16",10.1.1.8,0.393474817276001,-0.030,-0.030,-0.030,0.000,0.000,0.000
1640068756424880896,"2021-12-21,06:39:16",10.1.1.8,307,-0.040,-0.040,-0.040,0.000,0.000,0.000
1640068756465810176,"2021-12-21,06:39:16",10.1.1.8,0.3483259677886963,-0.040,-0.040,-0.040,0.000,0.000,0.000
1640068756765441792,"2021-12-21,06:39:16",10.1.1.8,297,-0.050,-0.050,-0.050,0.000,0.000,0.000
1640068756795454976,"2021-12-21,06:39:16",10.1.1.8,0.3274381160736084,-0.050,-0.050,-0.050,0.000,0.000,0.000
1640068757216093952,"2021-12-21,06:39:17",10.1.1.8,409,-0.060,-0.060,-0.060,0.000,0.000,0.000
1640068757232712960,"2021-12-21,06:39:17",10.1.1.8,0.4269750118255615,-0.060,-0.060,-0.060,0.000,0.000,0.000
1640068757586262016,"2021-12-21,06:39:17",10.1.1.8,351,-0.070,-0.070,-0.070,0.000,0.000,0.000
1640068757603332096,"2021-12-21,06:39:17",10.1.1.8,0.3690459728240967,-0.070,-0.070,-0.070,0.000,0.000,0.000
1640068757946241024,"2021-12-21,06:39:17",10.1.1.8,341,-0.080,-0.080,-0.080,0.000,0.000,0.000
1640068757969712128,"2021-12-21,06:39:17",10.1.1.8,0.3649740219116211,-0.080,-0.080,-0.080,0.000,0.000,0.000
1640068758296389120,"2021-12-21,06:39:18",10.1.1.8,324,-0.090,-0.090,-0.090,0.000,0.000,0.000
1640068758311862016,"2021-12-21,06:39:18",10.1.1.8,0.3399479389190674,-0.090,-0.090,-0.090,0.000,0.000,0.000
1640068758637059840,"2021-12-21,06:39:18",10.1.1.8,323,-0.100,-0.100,-0.100,0.000,0.000,0.000
1640068758647682048,"2021-12-21,06:39:18",10.1.1.8,0.33370304107666016,-0.100,-0.100,-0.100,0.000,0.000,0.000
1640068758997562880,"2021-12-21,06:39:18",10.1.1.8,346,-0.110,-0.110,-0.110,0.000,0.000,0.000
1640068759009346048,"2021-12-21,06:39:19",10.1.1.8,0.35889291763305664,-0.110,-0.110,-0.110,0.000,0.000,0.000
1640068759307461888,"2021-12-21,06:39:19",10.1.1.8,296,-0.120,-0.120,-0.120,0.000,0.000,0.000
1640068759354244096,"2021-12-21,06:39:19",10.1.1.8,0.34314990043640137,-0.120,-0.120,-0.120,0.000,0.000,0.000
1640068759677443072,"2021-12-21,06:39:19",10.1.1.8,321,-0.130,-0.130,-0.130,0.000,0.000,0.000
1640068759690661888,"2021-12-21,06:39:19",10.1.1.8,0.3348860740661621,-0.130,-0.130,-0.130,0.000,0.000,0.000
1640068760027623936,"2021-12-21,06:39:20",10.1.1.8,333,-0.140,-0.140,-0.140,0.000,0.000,0.000
1640068760031147008,"2021-12-21,06:39:20",10.1.1.8,0.33704209327697754,-0.140,-0.140,-0.140,0.000,0.000,0.000
1640068760377454080,"2021-12-21,06:39:20",10.1.1.8,341,-0.150,-0.150,-0.150,0.000,0.000,0.000
1640068760476967936,"2021-12-21,06:39:20",10.1.1.8,0.4405670166015625,-0.150,-0.150,-0.150,0.000,0.000,0.000
1640068760787643904,"2021-12-21,06:39:20",10.1.1.8,309,-0.160,-0.160,-0.160,0.000,0.000,0.000
1640068760804420096,"2021-12-21,06:39:20",10.1.1.8,0.32622718811035156,-0.160,-0.160,-0.160,0.000,0.000,0.000
1640068761118159104,"2021-12-21,06:39:21",10.1.1.8,312,-0.170,-0.170,-0.170,0.000,0.000,0.000
1640068761155885056,"2021-12-21,06:39:21",10.1.1.8,0.34983110427856445,-0.170,-0.170,-0.170,0.000,0.000,0.000
1640068761567984128,"2021-12-21,06:39:21",10.1.1.8,407,-0.180,-0.180,-0.180,0.000,0.000,0.000
1640068761614286848,"2021-12-21,06:39:21",10.1.1.8,0.45357203483581543,-0.180,-0.180,-0.180,0.000,0.000,0.000
1640068761959235840,"2021-12-21,06:39:21",10.1.1.8,343,-0.190,-0.190,-0.190,0.000,0.000,0.000
1640068761974972928,"2021-12-21,06:39:21",10.1.1.8,0.35905003547668457,-0.190,-0.190,-0.190,0.000,0.000,0.000
1640068762287570944,"2021-12-21,06:39:22",10.1.1.8,310,-0.200,-0.200,-0.200,0.000,0.000,0.000
1640068762324420864,"2021-12-21,06:39:22",10.1.1.8,0.34523606300354004,-0.200,-0.200,-0.200,0.000,0.000,0.000
1640068762667454976,"2021-12-21,06:39:22",10.1.1.8,338,-0.210,-0.210,-0.210,0.000,0.000,0.000
1640068762721088000,"2021-12-21,06:39:22",10.1.1.8,0.39203715324401855,-0.210,-0.210,-0.210,0.000,0.000,0.000
1640068763037704960,"2021-12-21,06:39:23",10.1.1.8,314,-0.220,-0.220,-0.220,0.000,0.000,0.000
1640068763053602048,"2021-12-21,06:39:23",10.1.1.8,0.33041810989379883,-0.220,-0.220,-0.220,0.000,0.000,0.000
1640068763377218048,"2021-12-21,06:39:23",10.1.1.8,322,-0.230,-0.230,-0.230,0.000,0.000,0.000
1640068763446942976,"2021-12-21,06:39:23",10.1.1.8,0.3919718265533447,-0.230,-0.230,-0.230,0.000,0.000,0.000
1640068763768163072,"2021-12-21,06:39:23",10.1.1.8,318,-0.240,-0.240,-0.240,0.000,0.000,0.000
1640068763806169088,"2021-12-21,06:39:23",10.1.1.8,0.3566269874572754,-0.240,-0.240,-0.240,0.000,0.000,0.000
1640068764127419904,"2021-12-21,06:39:24",10.1.1.8,319,-0.250,-0.250,-0.250,0.000,0.000,0.000
1640068764158644992,"2021-12-21,06:39:24",10.1.1.8,0.3509809970855713,-0.250,-0.250,-0.250,0.000,0.000,0.000
1640068764487863040,"2021-12-21,06:39:24",10.1.1.8,326,-0.260,-0.260,-0.260,0.000,0.000,0.000
1640068764500614912,"2021-12-21,06:39:24",10.1.1.8,0.33974385261535645,-0.260,-0.260,-0.260,0.000,0.000,0.000
1640068764838258944,"2021-12-21,06:39:24",10.1.1.8,335,-0.270,-0.270,-0.270,0.000,0.000,0.000
1640068764874053888,"2021-12-21,06:39:24",10.1.1.8,0.37140417098999023,-0.270,-0.270,-0.270,0.000,0.000,0.000
1640068765249839104,"2021-12-21,06:39:25",10.1.1.8,374,-0.280,-0.280,-0.280,0.000,0.000,0.000
1640068765269704960,"2021-12-21,06:39:25",10.1.1.8,0.3939659595489502,-0.280,-0.280,-0.280,0.000,0.000,0.000
1640068765597384960,"2021-12-21,06:39:25",10.1.1.8,326,-0.290,-0.290,-0.290,0.000,0.000,0.000
1640068765632865024,"2021-12-21,06:39:25",10.1.1.8,0.36190295219421387,-0.290,-0.290,-0.290,0.000,0.000,0.000
1640068765948288000,"2021-12-21,06:39:25",10.1.1.8,313,-0.300,-0.300,-0.300,0.000,0.000,0.000
1640068765982408960,"2021-12-21,06:39:25",10.1.1.8,0.34770703315734863,-0.300,-0.300,-0.300,0.000,0.000,0.000
1640068766325204992,"2021-12-21,06:39:26",10.1.1.8,331,-0.310,-0.310,-0.310,0.000,0.000,0.000
1640068766347923968,"2021-12-21,06:39:26",10.1.1.8,0.34473419189453125,-0.310,-0.310,-0.310,0.000,0.000,0.000
1640068766659228928,"2021-12-21,06:39:26",10.1.1.8,309,-0.320,-0.320,-0.320,0.000,0.000,0.000
1640068766681298944,"2021-12-21,06:39:26",10.1.1.8,0.3312258720397949,-0.320,-0.320,-0.320,0.000,0.000,0.000
1640068767024616960,"2021-12-21,06:39:27",10.1.1.8,341,-0.330,-0.330,-0.330,0.000,0.000,0.000
1640068767083517184,"2021-12-21,06:39:27",10.1.1.8,0.39992499351501465,-0.330,-0.330,-0.330,0.000,0.000,0.000
1640068767425307136,"2021-12-21,06:39:27",10.1.1.8,339,-0.340,-0.340,-0.340,0.000,0.000,0.000
1640068767456523776,"2021-12-21,06:39:27",10.1.1.8,0.3711531162261963,-0.340,-0.340,-0.340,0.000,0.000,0.000
1640068767784231936,"2021-12-21,06:39:27",10.1.1.8,326,-0.350,-0.350,-0.350,0.000,0.000,0.000
1640068767825638912,"2021-12-21,06:39:27",10.1.1.8,0.36757397651672363,-0.350,-0.350,-0.350,0.000,0.000,0.000
1640068768184024064,"2021-12-21,06:39:28",10.1.1.8,357,-0.360,-0.360,-0.360,0.000,0.000,0.000
1640068768209672960,"2021-12-21,06:39:28",10.1.1.8,0.38275599479675293,-0.360,-0.360,-0.360,0.000,0.000,0.000
1640068768554397952,"2021-12-21,06:39:28",10.1.1.8,343,-0.370,-0.370,-0.370,0.000,0.000,0.000
1640068768609500928,"2021-12-21,06:39:28",10.1.1.8,0.39861583709716797,-0.370,-0.370,-0.370,0.000,0.000,0.000
1640068768912791040,"2021-12-21,06:39:28",10.1.1.8,301,-0.380,-0.380,-0.380,0.000,0.000,0.000
1640068768946580992,"2021-12-21,06:39:28",10.1.1.8,0.3357858657836914,-0.380,-0.380,-0.380,0.000,0.000,0.000
1640068769262284032,"2021-12-21,06:39:29",10.1.1.8,313,-0.390,-0.390,-0.390,0.000,0.000,0.000
1640068769280514048,"2021-12-21,06:39:29",10.1.1.8,0.3321549892425537,-0.390,-0.390,-0.390,0.000,0.000,0.000
1640068769611964928,"2021-12-21,06:39:29",10.1.1.8,326,-0.400,-0.400,-0.400,0.000,0.000,0.000
1640068769620093184,"2021-12-21,06:39:29",10.1.1.8,0.3342289924621582,-0.400,-0.400,-0.400,0.000,0.000,0.000
1640068769951712000,"2021-12-21,06:39:29",10.1.1.8,329,-0.410,-0.410,-0.410,0.000,0.000,0.000
1640068769979948032,"2021-12-21,06:39:29",10.1.1.8,0.35796523094177246,-0.410,-0.410,-0.410,0.000,0.000,0.000
1640068770342240000,"2021-12-21,06:39:30",10.1.1.8,360,-0.420,-0.420,-0.420,0.000,0.000,0.000
1640068770347992064,"2021-12-21,06:39:30",10.1.1.8,0.3663759231567383,-0.420,-0.420,-0.420,0.000,0.000,0.000
1640068770705693952,"2021-12-21,06:39:30",10.1.1.8,355,-0.430,-0.430,-0.430,0.000,0.000,0.000
1640068770742590976,"2021-12-21,06:39:30",10.1.1.8,0.39291906356811523,-0.430,-0.430,-0.430,0.000,0.000,0.000
1640068771090882048,"2021-12-21,06:39:31",10.1.1.8,343,-0.440,-0.440,-0.440,0.000,0.000,0.000
1640068771182631936,"2021-12-21,06:39:31",10.1.1.8,0.4355959892272949,-0.440,-0.440,-0.440,0.000,0.000,0.000
1640068771493648896,"2021-12-21,06:39:31",10.1.1.8,307,-0.450,-0.450,-0.450,0.000,0.000,0.000
1640068771518523904,"2021-12-21,06:39:31",10.1.1.8,0.33277010917663574,-0.450,-0.450,-0.450,0.000,0.000,0.000
1640068771849879040,"2021-12-21,06:39:31",10.1.1.8,328,-0.460,-0.460,-0.460,0.000,0.000,0.000
1640068771874633984,"2021-12-21,06:39:31",10.1.1.8,0.35369110107421875,-0.460,-0.460,-0.460,0.000,0.000,0.000
1640068772208806144,"2021-12-21,06:39:32",10.1.1.8,331,-0.470,-0.470,-0.470,0.000,0.000,0.000
1640068772235753984,"2021-12-21,06:39:32",10.1.1.8,0.35869812965393066,-0.470,-0.470,-0.470,0.000,0.000,0.000
1640068772587924992,"2021-12-21,06:39:32",10.1.1.8,341,-0.480,-0.480,-0.480,0.000,0.000,0.000
1640068772617192960,"2021-12-21,06:39:32",10.1.1.8,0.3709230422973633,-0.480,-0.480,-0.480,0.000,0.000,0.000
1640068772949620992,"2021-12-21,06:39:32",10.1.1.8,0.33111095428466797,-0.490,-0.490,-0.490,0.000,0.000,0.000
1640068773307883008,"2021-12-21,06:39:33",10.1.1.8,349,-0.480,-0.480,-0.480,0.000,0.000,0.000
1640068773384867072,"2021-12-21,06:39:33",10.1.1.8,0.4269449710845947,-0.480,-0.480,-0.480,0.000,0.000,0.000
1640068773737040896,"2021-12-21,06:39:33",10.1.1.8,349,-0.470,-0.470,-0.470,0.000,0.000,0.000
1640068773759550208,"2021-12-21,06:39:33",10.1.1.8,0.37255001068115234,-0.470,-0.470,-0.470,0.000,0.000,0.000
1640068774065960960,"2021-12-21,06:39:34",10.1.1.8,301,-0.460,-0.460,-0.460,0.000,0.000,0.000
1640068774125696000,"2021-12-21,06:39:34",10.1.1.8,0.36144495010375977,-0.460,-0.460,-0.460,0.000,0.000,0.000
1640068774455153920,"2021-12-21,06:39:34",10.1.1.8,327,-0.450,-0.450,-0.450,0.000,0.000,0.000
1640068774491844864,"2021-12-21,06:39:34",10.1.1.8,0.3642079830169678,-0.450,-0.450,-0.450,0.000,0.000,0.000
1640068774795539968,"2021-12-21,06:39:34",10.1.1.8,301,-0.440,-0.440,-0.440,0.000,0.000,0.000
1640068774837950976,"2021-12-21,06:39:34",10.1.1.8,0.34378480911254883,-0.440,-0.440,-0.440,0.000,0.000,0.000
1640068775174696960,"2021-12-21,06:39:35",10.1.1.8,335,-0.430,-0.430,-0.430,0.000,0.000,0.000
1640068775233117952,"2021-12-21,06:39:35",10.1.1.8,0.3936879634857178,-0.430,-0.430,-0.430,0.000,0.000,0.000
1640068775554070016,"2021-12-21,06:39:35",10.1.1.8,319,-0.420,-0.420,-0.420,0.000,0.000,0.000
1640068775583539968,"2021-12-21,06:39:35",10.1.1.8,0.34909796714782715,-0.420,-0.420,-0.420,0.000,0.000,0.000
1640068775883301888,"2021-12-21,06:39:35",10.1.1.8,293,-0.410,-0.410,-0.410,0.000,0.000,0.000
1640068775922802944,"2021-12-21,06:39:35",10.1.1.8,0.3327939510345459,-0.410,-0.410,-0.410,0.000,0.000,0.000
1640068776233248000,"2021-12-21,06:39:36",10.1.1.8,305,-0.400,-0.400,-0.400,0.000,0.000,0.000
1640068776273129984,"2021-12-21,06:39:36",10.1.1.8,0.34571003913879395,-0.400,-0.400,-0.400,0.000,0.000,0.000
1640068776663077120,"2021-12-21,06:39:36",10.1.1.8,388,-0.390,-0.390,-0.390,0.000,0.000,0.000
1640068776674838016,"2021-12-21,06:39:36",10.1.1.8,0.40032100677490234,-0.390,-0.390,-0.390,0.000,0.000,0.000
1640068776991873024,"2021-12-21,06:39:36",10.1.1.8,315,-0.380,-0.380,-0.380,0.000,0.000,0.000
1640068777010284800,"2021-12-21,06:39:37",10.1.1.8,0.33366894721984863,-0.380,-0.380,-0.380,0.000,0.000,0.000
1640068777351954944,"2021-12-21,06:39:37",10.1.1.8,339,-0.370,-0.370,-0.370,0.000,0.000,0.000
1640068777367913984,"2021-12-21,06:39:37",10.1.1.8,0.35580992698669434,-0.370,-0.370,-0.370,0.000,0.000,0.000
1640068777692684800,"2021-12-21,06:39:37",10.1.1.8,322,-0.360,-0.360,-0.360,0.000,0.000,0.000
1640068777742194944,"2021-12-21,06:39:37",10.1.1.8,0.37169909477233887,-0.360,-0.360,-0.360,0.000,0.000,0.000
1640068778090375936,"2021-12-21,06:39:38",10.1.1.8,345,-0.350,-0.350,-0.350,0.000,0.000,0.000
1640068778133840128,"2021-12-21,06:39:38",10.1.1.8,0.3894369602203369,-0.350,-0.350,-0.350,0.000,0.000,0.000
1640068778465886976,"2021-12-21,06:39:38",10.1.1.8,328,-0.340,-0.340,-0.340,0.000,0.000,0.000
1640068778489875200,"2021-12-21,06:39:38",10.1.1.8,0.3523719310760498,-0.340,-0.340,-0.340,0.000,0.000,0.000
1640068778829143040,"2021-12-21,06:39:38",10.1.1.8,337,-0.330,-0.330,-0.330,0.000,0.000,0.000
1640068778888067840,"2021-12-21,06:39:38",10.1.1.8,0.39628100395202637,-0.330,-0.330,-0.330,0.000,0.000,0.000
1640068779228627968,"2021-12-21,06:39:39",10.1.1.8,334,-0.320,-0.320,-0.320,0.000,0.000,0.000
1640068779245191936,"2021-12-21,06:39:39",10.1.1.8,0.351531982421875,-0.320,-0.320,-0.320,0.000,0.000,0.000
1640068779559374080,"2021-12-21,06:39:39",10.1.1.8,312,-0.310,-0.310,-0.310,0.000,0.000,0.000
1640068779600111872,"2021-12-21,06:39:39",10.1.1.8,0.35354089736938477,-0.310,-0.310,-0.310,0.000,0.000,0.000
1640068779947344128,"2021-12-21,06:39:39",10.1.1.8,345,-0.300,-0.300,-0.300,0.000,0.000,0.000
1640068779962119168,"2021-12-21,06:39:39",10.1.1.8,0.36056089401245117,-0.300,-0.300,-0.300,0.000,0.000,0.000
1640068780297480960,"2021-12-21,06:39:40",10.1.1.8,333,-0.290,-0.290,-0.290,0.000,0.000,0.000
1640068780347865088,"2021-12-21,06:39:40",10.1.1.8,0.38407087326049805,-0.290,-0.290,-0.290,0.000,0.000,0.000
1640068780705741056,"2021-12-21,06:39:40",10.1.1.8,356,-0.280,-0.280,-0.280,0.000,0.000,0.000
1640068780763851776,"2021-12-21,06:39:40",10.1.1.8,0.4143078327178955,-0.280,-0.280,-0.280,0.000,0.000,0.000
1640068781155514880,"2021-12-21,06:39:41",10.1.1.8,387,-0.270,-0.270,-0.270,0.000,0.000,0.000
1640068781172892160,"2021-12-21,06:39:41",10.1.1.8,0.4049551486968994,-0.270,-0.270,-0.270,0.000,0.000,0.000
1640068781505116928,"2021-12-21,06:39:41",10.1.1.8,327,-0.260,-0.260,-0.260,0.000,0.000,0.000
1640068781527798016,"2021-12-21,06:39:41",10.1.1.8,0.3504619598388672,-0.260,-0.260,-0.260,0.000,0.000,0.000
1640068781844038912,"2021-12-21,06:39:41",10.1.1.8,314,-0.250,-0.250,-0.250,0.000,0.000,0.000
1640068781878310912,"2021-12-21,06:39:41",10.1.1.8,0.34914684295654297,-0.250,-0.250,-0.250,0.000,0.000,0.000
1640068782193444864,"2021-12-21,06:39:42",10.1.1.8,313,-0.240,-0.240,-0.240,0.000,0.000,0.000
1640068782230292992,"2021-12-21,06:39:42",10.1.1.8,0.3507511615753174,-0.240,-0.240,-0.240,0.000,0.000,0.000
1640068782543306240,"2021-12-21,06:39:42",10.1.1.8,311,-0.230,-0.230,-0.230,0.000,0.000,0.000
1640068782550468864,"2021-12-21,06:39:42",10.1.1.8,0.31871795654296875,-0.230,-0.230,-0.230,0.000,0.000,0.000
1640068782862280960,"2021-12-21,06:39:42",10.1.1.8,310,-0.220,-0.220,-0.220,0.000,0.000,0.000
1640068782915354880,"2021-12-21,06:39:42",10.1.1.8,0.36366987228393555,-0.220,-0.220,-0.220,0.000,0.000,0.000
1640068783244050944,"2021-12-21,06:39:43",10.1.1.8,325,-0.210,-0.210,-0.210,0.000,0.000,0.000
1640068783271912960,"2021-12-21,06:39:43",10.1.1.8,0.3532888889312744,-0.210,-0.210,-0.210,0.000,0.000,0.000
1640068783637355008,"2021-12-21,06:39:43",10.1.1.8,357,-0.200,-0.200,-0.200,0.000,0.000,0.000
1640068783694490880,"2021-12-21,06:39:43",10.1.1.8,0.41496706008911133,-0.200,-0.200,-0.200,0.000,0.000,0.000
1640068784027312896,"2021-12-21,06:39:44",10.1.1.8,331,-0.190,-0.190,-0.190,0.000,0.000,0.000
1640068784086561792,"2021-12-21,06:39:44",10.1.1.8,0.3903539180755615,-0.190,-0.190,-0.190,0.000,0.000,0.000
1640068784400374016,"2021-12-21,06:39:44",10.1.1.8,311,-0.180,-0.180,-0.180,0.000,0.000,0.000
1640068784451565056,"2021-12-21,06:39:44",10.1.1.8,0.36356592178344727,-0.180,-0.180,-0.180,0.000,0.000,0.000
1640068784801201152,"2021-12-21,06:39:44",10.1.1.8,348,-0.170,-0.170,-0.170,0.000,0.000,0.000
1640068784816740096,"2021-12-21,06:39:44",10.1.1.8,0.3639190196990967,-0.170,-0.170,-0.170,0.000,0.000,0.000
1640068785153527040,"2021-12-21,06:39:45",10.1.1.8,335,-0.160,-0.160,-0.160,0.000,0.000,0.000
1640068785178849024,"2021-12-21,06:39:45",10.1.1.8,0.3604769706726074,-0.160,-0.160,-0.160,0.000,0.000,0.000
1640068785507741952,"2021-12-21,06:39:45",10.1.1.8,326,-0.150,-0.150,-0.150,0.000,0.000,0.000
1640068785536966912,"2021-12-21,06:39:45",10.1.1.8,0.3557000160217285,-0.150,-0.150,-0.150,0.000,0.000,0.000
1640068785875068928,"2021-12-21,06:39:45",10.1.1.8,333,-0.140,-0.140,-0.140,0.000,0.000,0.000
1640068785895127040,"2021-12-21,06:39:45",10.1.1.8,0.35362887382507324,-0.140,-0.140,-0.140,0.000,0.000,0.000
1640068786216610816,"2021-12-21,06:39:46",10.1.1.8,318,-0.130,-0.130,-0.130,0.000,0.000,0.000
1640068786248656896,"2021-12-21,06:39:46",10.1.1.8,0.3516111373901367,-0.130,-0.130,-0.130,0.000,0.000,0.000
1640068786587922176,"2021-12-21,06:39:46",10.1.1.8,337,-0.120,-0.120,-0.120,0.000,0.000,0.000
1640068786660227072,"2021-12-21,06:39:46",10.1.1.8,0.4094820022583008,-0.120,-0.120,-0.120,0.000,0.000,0.000
1640068787029166848,"2021-12-21,06:39:47",10.1.1.8,364,-0.110,-0.110,-0.110,0.000,0.000,0.000
1640068787126437888,"2021-12-21,06:39:47",10.1.1.8,0.4622530937194824,-0.110,-0.110,-0.110,0.000,0.000,0.000
1640068787469462016,"2021-12-21,06:39:47",10.1.1.8,341,-0.100,-0.100,-0.100,0.000,0.000,0.000
1640068787502265856,"2021-12-21,06:39:47",10.1.1.8,0.37455105781555176,-0.100,-0.100,-0.100,0.000,0.000,0.000
1640068787870536960,"2021-12-21,06:39:47",10.1.1.8,366,-0.090,-0.090,-0.090,0.000,0.000,0.000
1640068787898179072,"2021-12-21,06:39:47",10.1.1.8,0.39446520805358887,-0.090,-0.090,-0.090,0.000,0.000,0.000
1640068788291228928,"2021-12-21,06:39:48",10.1.1.8,388,-0.080,-0.080,-0.080,0.000,0.000,0.000
1640068788363770880,"2021-12-21,06:39:48",10.1.1.8,0.4607579708099365,-0.080,-0.080,-0.080,0.000,0.000,0.000
1640068788725598208,"2021-12-21,06:39:48",10.1.1.8,360,-0.070,-0.070,-0.070,0.000,0.000,0.000
1640068788789680128,"2021-12-21,06:39:48",10.1.1.8,0.4245419502258301,-0.070,-0.070,-0.070,0.000,0.000,0.000
1640068789112251904,"2021-12-21,06:39:49",10.1.1.8,320,-0.060,-0.060,-0.060,0.000,0.000,0.000
1640068789145840896,"2021-12-21,06:39:49",10.1.1.8,0.3546290397644043,-0.060,-0.060,-0.060,0.000,0.000,0.000
1640068789489824000,"2021-12-21,06:39:49",10.1.1.8,337,-0.050,-0.050,-0.050,0.000,0.000,0.000
1640068789542067968,"2021-12-21,06:39:49",10.1.1.8,0.39494800567626953,-0.050,-0.050,-0.050,0.000,0.000,0.000
1640068789854291968,"2021-12-21,06:39:49",10.1.1.8,309,-0.040,-0.040,-0.040,0.000,0.000,0.000
1640068789888406016,"2021-12-21,06:39:49",10.1.1.8,0.3443889617919922,-0.040,-0.040,-0.040,0.000,0.000,0.000
1640068790193896960,"2021-12-21,06:39:50",10.1.1.8,304,-0.030,-0.030,-0.030,0.000,0.000,0.000
1640068790236262144,"2021-12-21,06:39:50",10.1.1.8,0.346513032913208,-0.030,-0.030,-0.030,0.000,0.000,0.000
1640068790573827072,"2021-12-21,06:39:50",10.1.1.8,335,-0.020,-0.020,-0.020,0.000,0.000,0.000
1640068790595730944,"2021-12-21,06:39:50",10.1.1.8,0.35759401321411133,-0.020,-0.020,-0.020,0.000,0.000,0.000
1640068790925064192,"2021-12-21,06:39:50",10.1.1.8,327,-0.010,-0.010,-0.010,0.000,0.000,0.000
1640068790952226048,"2021-12-21,06:39:50",10.1.1.8,0.3547971248626709,-0.010,-0.010,-0.010,0.000,0.000,0.000
1640068791295883008,"2021-12-21,06:39:51",10.1.1.8,341,0.000,0.000,0.000,0.000,0.000,0.000
1640068791364989952,"2021-12-21,06:39:51",10.1.1.8,0.41056084632873535,0.000,0.000,0.000,0.000,0.000,0.000
1640068791726105088,"2021-12-21,06:39:51",10.1.1.8,359,-0.010,-0.010,-0.010,0.000,0.000,0.000
1640068791751064064,"2021-12-21,06:39:51",10.1.1.8,0.384660005569458,-0.010,-0.010,-0.010,0.000,0.000,0.000
1640068792084925952,"2021-12-21,06:39:52",10.1.1.8,331,-0.020,-0.020,-0.020,0.000,0.000,0.000
1640068792125287168,"2021-12-21,06:39:52",10.1.1.8,0.37201714515686035,-0.020,-0.020,-0.020,0.000,0.000,0.000
1640068792456285952,"2021-12-21,06:39:52",10.1.1.8,329,-0.030,-0.030,-0.030,0.000,0.000,0.000
1640068792529665024,"2021-12-21,06:39:52",10.1.1.8,0.40265989303588867,-0.030,-0.030,-0.030,0.000,0.000,0.000
1640068792855316992,"2021-12-21,06:39:52",10.1.1.8,323,-0.040,-0.040,-0.040,0.000,0.000,0.000
1640068792918844928,"2021-12-21,06:39:52",10.1.1.8,0.3875401020050049,-0.040,-0.040,-0.040,0.000,0.000,0.000
1640068793247404032,"2021-12-21,06:39:53",10.1.1.8,324,-0.050,-0.050,-0.050,0.000,0.000,0.000
1640068793296823040,"2021-12-21,06:39:53",10.1.1.8,0.37436509132385254,-0.050,-0.050,-0.050,0.000,0.000,0.000
1640068793636812032,"2021-12-21,06:39:53",10.1.1.8,337,-0.060,-0.060,-0.060,0.000,0.000,0.000
1640068793718085888,"2021-12-21,06:39:53",10.1.1.8,0.41903209686279297,-0.060,-0.060,-0.060,0.000,0.000,0.000
1640068794075885056,"2021-12-21,06:39:54",10.1.1.8,353,-0.070,-0.070,-0.070,0.000,0.000,0.000
1640068794133556992,"2021-12-21,06:39:54",10.1.1.8,0.4110879898071289,-0.070,-0.070,-0.070,0.000,0.000,0.000
1640068794496384000,"2021-12-21,06:39:54",10.1.1.8,360,-0.080,-0.080,-0.080,0.000,0.000,0.000
1640068794525033984,"2021-12-21,06:39:54",10.1.1.8,0.38962793350219727,-0.080,-0.080,-0.080,0.000,0.000,0.000
1640068794845593856,"2021-12-21,06:39:54",10.1.1.8,319,-0.090,-0.090,-0.090,0.000,0.000,0.000
1640068794927350016,"2021-12-21,06:39:54",10.1.1.8,0.39378786087036133,-0.090,-0.090,-0.090,0.000,0.000,0.000
1640068795305701120,"2021-12-21,06:39:55",10.1.1.8,374,-0.100,-0.100,-0.100,0.000,0.000,0.000
1640068795348971008,"2021-12-21,06:39:55",10.1.1.8,0.41767215728759766,-0.100,-0.100,-0.100,0.000,0.000,0.000
1640068795675570944,"2021-12-21,06:39:55",10.1.1.8,323,-0.110,-0.110,-0.110,0.000,0.000,0.000
1640068795724769024,"2021-12-21,06:39:55",10.1.1.8,0.37249088287353516,-0.110,-0.110,-0.110,0.000,0.000,0.000
1640068796055654912,"2021-12-21,06:39:56",10.1.1.8,328,-0.120,-0.120,-0.120,0.000,0.000,0.000
1640068796129387008,"2021-12-21,06:39:56",10.1.1.8,0.40250301361083984,-0.120,-0.120,-0.120,0.000,0.000,0.000
1640068796459856896,"2021-12-21,06:39:56",10.1.1.8,326,-0.130,-0.130,-0.130,0.000,0.000,0.000
1640068796499960832,"2021-12-21,06:39:56",10.1.1.8,0.36749792098999023,-0.130,-0.130,-0.130,0.000,0.000,0.000
1640068796855799808,"2021-12-21,06:39:56",10.1.1.8,353,-0.140,-0.140,-0.140,0.000,0.000,0.000
1640068796900269056,"2021-12-21,06:39:56",10.1.1.8,0.3970189094543457,-0.140,-0.140,-0.140,0.000,0.000,0.000
1640068797254396928,"2021-12-21,06:39:57",10.1.1.8,350,-0.150,-0.150,-0.150,0.000,0.000,0.000
1640068797303112960,"2021-12-21,06:39:57",10.1.1.8,0.39905309677124023,-0.150,-0.150,-0.150,0.000,0.000,0.000
1640068797624297984,"2021-12-21,06:39:57",10.1.1.8,319,-0.160,-0.160,-0.160,0.000,0.000,0.000
1640068797690656000,"2021-12-21,06:39:57",10.1.1.8,0.38630199432373047,-0.160,-0.160,-0.160,0.000,0.000,0.000
1640068798036397056,"2021-12-21,06:39:58",10.1.1.8,343,-0.170,-0.170,-0.170,0.000,0.000,0.000
1640068798108845056,"2021-12-21,06:39:58",10.1.1.8,0.4165229797363281,-0.170,-0.170,-0.170,0.000,0.000,0.000
1640068798444020992,"2021-12-21,06:39:58",10.1.1.8,333,-0.180,-0.180,-0.180,0.000,0.000,0.000
1640068798485057024,"2021-12-21,06:39:58",10.1.1.8,0.37444210052490234,-0.180,-0.180,-0.180,0.000,0.000,0.000
1640068798823368960,"2021-12-21,06:39:58",10.1.1.8,336,-0.190,-0.190,-0.190,0.000,0.000,0.000
1640068798839483136,"2021-12-21,06:39:58",10.1.1.8,0.3530158996582031,-0.190,-0.190,-0.190,0.000,0.000,0.000
1640068799202970112,"2021-12-21,06:39:59",10.1.1.8,358,-0.200,-0.200,-0.200,0.000,0.000,0.000
1640068799247261952,"2021-12-21,06:39:59",10.1.1.8,0.4027419090270996,-0.200,-0.200,-0.200,0.000,0.000,0.000
1640068799652324864,"2021-12-21,06:39:59",10.1.1.8,402,-0.210,-0.210,-0.210,0.000,0.000,0.000
1640068799720534016,"2021-12-21,06:39:59",10.1.1.8,0.4703822135925293,-0.210,-0.210,-0.210,0.000,0.000,0.000
1640068800071938048,"2021-12-21,06:40:00",10.1.1.8,347,-0.220,-0.220,-0.220,0.000,0.000,0.000
1640068800129661184,"2021-12-21,06:40:00",10.1.1.8,0.40526390075683594,-0.220,-0.220,-0.220,0.000,0.000,0.000
1640068800472333056,"2021-12-21,06:40:00",10.1.1.8,340,-0.230,-0.230,-0.230,0.000,0.000,0.000
1640068800508838912,"2021-12-21,06:40:00",10.1.1.8,0.37715792655944824,-0.230,-0.230,-0.230,0.000,0.000,0.000
1640068800867301888,"2021-12-21,06:40:00",10.1.1.8,356,-0.240,-0.240,-0.240,0.000,0.000,0.000
1640068800943229952,"2021-12-21,06:40:00",10.1.1.8,0.4326341152191162,-0.240,-0.240,-0.240,0.000,0.000,0.000
1640068801260958976,"2021-12-21,06:40:01",10.1.1.8,315,-0.250,-0.250,-0.250,0.000,0.000,0.000
1640068801304065024,"2021-12-21,06:40:01",10.1.1.8,0.35884785652160645,-0.250,-0.250,-0.250,0.000,0.000,0.000
1640068801631366912,"2021-12-21,06:40:01",10.1.1.8,324,-0.260,-0.260,-0.260,0.000,0.000,0.000
1640068801708136960,"2021-12-21,06:40:01",10.1.1.8,0.4015209674835205,-0.260,-0.260,-0.260,0.000,0.000,0.000
1640068802020483072,"2021-12-21,06:40:02",10.1.1.8,310,-0.270,-0.270,-0.270,0.000,0.000,0.000
1640068802048393984,"2021-12-21,06:40:02",10.1.1.8,0.3383328914642334,-0.270,-0.270,-0.270,0.000,0.000,0.000
1640068802369812992,"2021-12-21,06:40:02",10.1.1.8,319,-0.280,-0.280,-0.280,0.000,0.000,0.000
1640068802404033792,"2021-12-21,06:40:02",10.1.1.8,0.35390305519104004,-0.280,-0.280,-0.280,0.000,0.000,0.000
1640068802749895168,"2021-12-21,06:40:02",10.1.1.8,343,-0.290,-0.290,-0.290,0.000,0.000,0.000
1640068802780963840,"2021-12-21,06:40:02",10.1.1.8,0.3744218349456787,-0.290,-0.290,-0.290,0.000,0.000,0.000
1640068803218851072,"2021-12-21,06:40:03",10.1.1.8,436,-0.300,-0.300,-0.300,0.000,0.000,0.000
1640068803272144128,"2021-12-21,06:40:03",10.1.1.8,0.4898569583892822,-0.300,-0.300,-0.300,0.000,0.000,0.000
1640068803661794816,"2021-12-21,06:40:03",10.1.1.8,379,-0.310,-0.310,-0.310,0.000,0.000,0.000
1640068803691237888,"2021-12-21,06:40:03",10.1.1.8,0.4122769832611084,-0.310,-0.310,-0.310,0.000,0.000,0.000
1640068804067779072,"2021-12-21,06:40:04",10.1.1.8,372,-0.320,-0.320,-0.320,0.000,0.000,0.000
1640068804078418944,"2021-12-21,06:40:04",10.1.1.8,0.3831660747528076,-0.320,-0.320,-0.320,0.000,0.000,0.000
1640068804407371008,"2021-12-21,06:40:04",10.1.1.8,326,-0.330,-0.330,-0.330,0.000,0.000,0.000
1640068804449132800,"2021-12-21,06:40:04",10.1.1.8,0.3690609931945801,-0.330,-0.330,-0.330,0.000,0.000,0.000
1640068804848109056,"2021-12-21,06:40:04",10.1.1.8,392,-0.340,-0.340,-0.340,0.000,0.000,0.000
1640068804869446912,"2021-12-21,06:40:04",10.1.1.8,0.41370487213134766,-0.340,-0.340,-0.340,0.000,0.000,0.000
1640068805166477824,"2021-12-21,06:40:05",10.1.1.8,295,-0.350,-0.350,-0.350,0.000,0.000,0.000
1640068805198898176,"2021-12-21,06:40:05",10.1.1.8,0.32750606536865234,-0.350,-0.350,-0.350,0.000,0.000,0.000
1640068805536161024,"2021-12-21,06:40:05",10.1.1.8,333,-0.360,-0.360,-0.360,0.000,0.000,0.000
1640068805554915840,"2021-12-21,06:40:05",10.1.1.8,0.3520638942718506,-0.360,-0.360,-0.360,0.000,0.000,0.000
1640068805884996864,"2021-12-21,06:40:05",10.1.1.8,328,-0.370,-0.370,-0.370,0.000,0.000,0.000
1640068805931937024,"2021-12-21,06:40:05",10.1.1.8,0.37496089935302734,-0.370,-0.370,-0.370,0.000,0.000,0.000
1640068806294583040,"2021-12-21,06:40:06",10.1.1.8,348,-0.380,-0.380,-0.380,0.000,0.000,0.000
1640068806325640960,"2021-12-21,06:40:06",10.1.1.8,0.37946105003356934,-0.380,-0.380,-0.380,0.000,0.000,0.000
1640068806705671936,"2021-12-21,06:40:06",10.1.1.8,377,-0.390,-0.390,-0.390,0.000,0.000,0.000
1640068806736826880,"2021-12-21,06:40:06",10.1.1.8,0.4093759059906006,-0.390,-0.390,-0.390,0.000,0.000,0.000
1640068807073697024,"2021-12-21,06:40:07",10.1.1.8,335,-0.400,-0.400,-0.400,0.000,0.000,0.000
1640068807115250944,"2021-12-21,06:40:07",10.1.1.8,0.37672901153564453,-0.400,-0.400,-0.400,0.000,0.000,0.000
1640068807433896960,"2021-12-21,06:40:07",10.1.1.8,313,-0.410,-0.410,-0.410,0.000,0.000,0.000
1640068807469267968,"2021-12-21,06:40:07",10.1.1.8,0.3490409851074219,-0.410,-0.410,-0.410,0.000,0.000,0.000
1640068807802656768,"2021-12-21,06:40:07",10.1.1.8,331,-0.420,-0.420,-0.420,0.000,0.000,0.000
1640068807838287104,"2021-12-21,06:40:07",10.1.1.8,0.3668539524078369,-0.420,-0.420,-0.420,0.000,0.000,0.000
1640068808192480000,"2021-12-21,06:40:08",10.1.1.8,350,-0.430,-0.430,-0.430,0.000,0.000,0.000
1640068808226153984,"2021-12-21,06:40:08",10.1.1.8,0.3845829963684082,-0.430,-0.430,-0.430,0.000,0.000,0.000
1640068808593489920,"2021-12-21,06:40:08",10.1.1.8,365,-0.440,-0.440,-0.440,0.000,0.000,0.000
1640068808638180864,"2021-12-21,06:40:08",10.1.1.8,0.41047096252441406,-0.440,-0.440,-0.440,0.000,0.000,0.000
1640068808946326016,"2021-12-21,06:40:08",10.1.1.8,306,-0.450,-0.450,-0.450,0.000,0.000,0.000
1640068808989028864,"2021-12-21,06:40:08",10.1.1.8,0.3486490249633789,-0.450,-0.450,-0.450,0.000,0.000,0.000
1640068809340823040,"2021-12-21,06:40:09",10.1.1.8,348,-0.460,-0.460,-0.460,0.000,0.000,0.000
1640068809354567936,"2021-12-21,06:40:09",10.1.1.8,0.36295485496520996,-0.460,-0.460,-0.460,0.000,0.000,0.000
1640068809690887936,"2021-12-21,06:40:09",10.1.1.8,334,-0.470,-0.470,-0.470,0.000,0.000,0.000
1640068809715549952,"2021-12-21,06:40:09",10.1.1.8,0.35931897163391113,-0.470,-0.470,-0.470,0.000,0.000,0.000
1640068810060312064,"2021-12-21,06:40:10",10.1.1.8,342,-0.480,-0.480,-0.480,0.000,0.000,0.000
1640068810148662016,"2021-12-21,06:40:10",10.1.1.8,0.4317150115966797,-0.480,-0.480,-0.480,0.000,0.000,0.000
1640068810479948032,"2021-12-21,06:40:10",10.1.1.8,328,-0.490,-0.490,-0.490,0.000,0.000,0.000
1640068810524513024,"2021-12-21,06:40:10",10.1.1.8,0.37339115142822266,-0.490,-0.490,-0.490,0.000,0.000,0.000
1640068810859566848,"2021-12-21,06:40:10",10.1.1.8,333,-0.480,-0.480,-0.480,0.000,0.000,0.000
1640068810921432064,"2021-12-21,06:40:10",10.1.1.8,0.39550209045410156,-0.480,-0.480,-0.480,0.000,0.000,0.000
1640068811259185920,"2021-12-21,06:40:11",10.1.1.8,334,-0.470,-0.470,-0.470,0.000,0.000,0.000
1640068811273987072,"2021-12-21,06:40:11",10.1.1.8,0.34891510009765625,-0.470,-0.470,-0.470,0.000,0.000,0.000
1640068811590816000,"2021-12-21,06:40:11",10.1.1.8,314,-0.460,-0.460,-0.460,0.000,0.000,0.000
1640068811673728000,"2021-12-21,06:40:11",10.1.1.8,0.3977189064025879,-0.460,-0.460,-0.460,0.000,0.000,0.000
1640068811996495872,"2021-12-21,06:40:11",10.1.1.8,318,-0.450,-0.450,-0.450,0.000,0.000,0.000
1640068812042224896,"2021-12-21,06:40:12",10.1.1.8,0.364271879196167,-0.450,-0.450,-0.450,0.000,0.000,0.000
1640068812380114176,"2021-12-21,06:40:12",10.1.1.8,335,-0.440,-0.440,-0.440,0.000,0.000,0.000
1640068812424544000,"2021-12-21,06:40:12",10.1.1.8,0.38065099716186523,-0.440,-0.440,-0.440,0.000,0.000,0.000
1640068812765031168,"2021-12-21,06:40:12",10.1.1.8,330,-0.430,-0.430,-0.430,0.000,0.000,0.000
1640068812811536128,"2021-12-21,06:40:12",10.1.1.8,0.3770890235900879,-0.430,-0.430,-0.430,0.000,0.000,0.000
1640068813160434944,"2021-12-21,06:40:13",10.1.1.8,340,-0.420,-0.420,-0.420,0.000,0.000,0.000
1640068813184931072,"2021-12-21,06:40:13",10.1.1.8,0.37154102325439453,-0.420,-0.420,-0.420,0.000,0.000,0.000
1640068813574172928,"2021-12-21,06:40:13",10.1.1.8,379,-0.410,-0.410,-0.410,0.000,0.000,0.000
1640068813612468992,"2021-12-21,06:40:13",10.1.1.8,0.4175891876220703,-0.410,-0.410,-0.410,0.000,0.000,0.000
1640068813953305856,"2021-12-21,06:40:13",10.1.1.8,339,-0.400,-0.400,-0.400,0.000,0.000,0.000
1640068814011584000,"2021-12-21,06:40:14",10.1.1.8,0.3973698616027832,-0.400,-0.400,-0.400,0.000,0.000,0.000
1640068814342350848,"2021-12-21,06:40:14",10.1.1.8,328,-0.390,-0.390,-0.390,0.000,0.000,0.000
1640068814390109952,"2021-12-21,06:40:14",10.1.1.8,0.37493395805358887,-0.390,-0.390,-0.390,0.000,0.000,0.000
1640068814732572928,"2021-12-21,06:40:14",10.1.1.8,340,-0.380,-0.380,-0.380,0.000,0.000,0.000
1640068814779019008,"2021-12-21,06:40:14",10.1.1.8,0.38727807998657227,-0.380,-0.380,-0.380,0.000,0.000,0.000
1640068815122270208,"2021-12-21,06:40:15",10.1.1.8,341,-0.370,-0.370,-0.370,0.000,0.000,0.000
1640068815179282944,"2021-12-21,06:40:15",10.1.1.8,0.3984551429748535,-0.370,-0.370,-0.370,0.000,0.000,0.000
1640068815525778176,"2021-12-21,06:40:15",10.1.1.8,343,-0.360,-0.360,-0.360,0.000,0.000,0.000
1640068815549388800,"2021-12-21,06:40:15",10.1.1.8,0.3668489456176758,-0.360,-0.360,-0.360,0.000,0.000,0.000
1640068815903650048,"2021-12-21,06:40:15",10.1.1.8,351,-0.350,-0.350,-0.350,0.000,0.000,0.000
1640068815984360960,"2021-12-21,06:40:15",10.1.1.8,0.4327681064605713,-0.350,-0.350,-0.350,0.000,0.000,0.000
1640068816318049024,"2021-12-21,06:40:16",10.1.1.8,332,-0.340,-0.340,-0.340,0.000,0.000,0.000
1640068816364365056,"2021-12-21,06:40:16",10.1.1.8,0.37753796577453613,-0.340,-0.340,-0.340,0.000,0.000,0.000
1640068816720137984,"2021-12-21,06:40:16",10.1.1.8,345,-0.330,-0.330,-0.330,0.000,0.000,0.000
1640068816780402944,"2021-12-21,06:40:16",10.1.1.8,0.4058949947357178,-0.330,-0.330,-0.330,0.000,0.000,0.000
1640068817110595072,"2021-12-21,06:40:17",10.1.1.8,327,-0.320,-0.320,-0.320,0.000,0.000,0.000
1640068817157687808,"2021-12-21,06:40:17",10.1.1.8,0.3750131130218506,-0.320,-0.320,-0.320,0.000,0.000,0.000
1640068817522313216,"2021-12-21,06:40:17",10.1.1.8,353,-0.310,-0.310,-0.310,0.000,0.000,0.000
1640068817580674048,"2021-12-21,06:40:17",10.1.1.8,0.4126749038696289,-0.310,-0.310,-0.310,0.000,0.000,0.000
1640068817893528064,"2021-12-21,06:40:17",10.1.1.8,311,-0.300,-0.300,-0.300,0.000,0.000,0.000
1640068817935869952,"2021-12-21,06:40:17",10.1.1.8,0.35355186462402344,-0.300,-0.300,-0.300,0.000,0.000,0.000
1640068818304153088,"2021-12-21,06:40:18",10.1.1.8,362,-0.290,-0.290,-0.290,0.000,0.000,0.000
1640068818332673024,"2021-12-21,06:40:18",10.1.1.8,0.3903799057006836,-0.290,-0.290,-0.290,0.000,0.000,0.000
1640068818657107200,"2021-12-21,06:40:18",10.1.1.8,322,-0.280,-0.280,-0.280,0.000,0.000,0.000
1640068818732359936,"2021-12-21,06:40:18",10.1.1.8,0.39731502532958984,-0.280,-0.280,-0.280,0.000,0.000,0.000
1640068819071218944,"2021-12-21,06:40:19",10.1.1.8,336,-0.270,-0.270,-0.270,0.000,0.000,0.000
1640068819143697920,"2021-12-21,06:40:19",10.1.1.8,0.4090240001678467,-0.270,-0.270,-0.270,0.000,0.000,0.000
1640068819477612032,"2021-12-21,06:40:19",10.1.1.8,332,-0.260,-0.260,-0.260,0.000,0.000,0.000
1640068819559353088,"2021-12-21,06:40:19",10.1.1.8,0.41396498680114746,-0.260,-0.260,-0.260,0.000,0.000,0.000
1640068819908464896,"2021-12-21,06:40:19",10.1.1.8,347,-0.250,-0.250,-0.250,0.000,0.000,0.000
1640068819936770048,"2021-12-21,06:40:19",10.1.1.8,0.3762021064758301,-0.250,-0.250,-0.250,0.000,0.000,0.000
1640068820259463936,"2021-12-21,06:40:20",10.1.1.8,320,-0.240,-0.240,-0.240,0.000,0.000,0.000
1640068820284462848,"2021-12-21,06:40:20",10.1.1.8,0.34618711471557617,-0.240,-0.240,-0.240,0.000,0.000,0.000
1640068820675454976,"2021-12-21,06:40:20",10.1.1.8,382,-0.230,-0.230,-0.230,0.000,0.000,0.000
1640068820699675136,"2021-12-21,06:40:20",10.1.1.8,0.4068870544433594,-0.230,-0.230,-0.230,0.000,0.000,0.000
1640068821142769152,"2021-12-21,06:40:21",10.1.1.8,441,-0.220,-0.220,-0.220,0.000,0.000,0.000
1640068821171042048,"2021-12-21,06:40:21",10.1.1.8,0.469757080078125,-0.220,-0.220,-0.220,0.000,0.000,0.000
1640068821503696896,"2021-12-21,06:40:21",10.1.1.8,330,-0.210,-0.210,-0.210,0.000,0.000,0.000
1640068821512214016,"2021-12-21,06:40:21",10.1.1.8,0.33919310569763184,-0.210,-0.210,-0.210,0.000,0.000,0.000
1640068821855725056,"2021-12-21,06:40:21",10.1.1.8,339,-0.200,-0.200,-0.200,0.000,0.000,0.000
1640068821889053184,"2021-12-21,06:40:21",10.1.1.8,0.37254810333251953,-0.200,-0.200,-0.200,0.000,0.000,0.000
1640068822246448896,"2021-12-21,06:40:22",10.1.1.8,353,-0.190,-0.190,-0.190,0.000,0.000,0.000
1640068822275609856,"2021-12-21,06:40:22",10.1.1.8,0.3852100372314453,-0.190,-0.190,-0.190,0.000,0.000,0.000
1640068822624752128,"2021-12-21,06:40:22",10.1.1.8,347,-0.180,-0.180,-0.180,0.000,0.000,0.000
1640068822683563008,"2021-12-21,06:40:22",10.1.1.8,0.4064040184020996,-0.180,-0.180,-0.180,0.000,0.000,0.000
1640068823092139008,"2021-12-21,06:40:23",10.1.1.8,406,-0.170,-0.170,-0.170,0.000,0.000,0.000
1640068823149331968,"2021-12-21,06:40:23",10.1.1.8,0.4636571407318115,-0.170,-0.170,-0.170,0.000,0.000,0.000
1640068823534076928,"2021-12-21,06:40:23",10.1.1.8,382,-0.160,-0.160,-0.160,0.000,0.000,0.000
1640068823558718976,"2021-12-21,06:40:23",10.1.1.8,0.4071950912475586,-0.160,-0.160,-0.160,0.000,0.000,0.000
1640068823882245120,"2021-12-21,06:40:23",10.1.1.8,322,-0.150,-0.150,-0.150,0.000,0.000,0.000
1640068823953584896,"2021-12-21,06:40:23",10.1.1.8,0.39350104331970215,-0.150,-0.150,-0.150,0.000,0.000,0.000
1640068824303490048,"2021-12-21,06:40:24",10.1.1.8,348,-0.140,-0.140,-0.140,0.000,0.000,0.000
1640068824341708800,"2021-12-21,06:40:24",10.1.1.8,0.3864021301269531,-0.140,-0.140,-0.140,0.000,0.000,0.000
1640068824673385984,"2021-12-21,06:40:24",10.1.1.8,329,-0.130,-0.130,-0.130,0.000,0.000,0.000
1640068824738746880,"2021-12-21,06:40:24",10.1.1.8,0.394550085067749,-0.130,-0.130,-0.130,0.000,0.000,0.000
1640068825065362944,"2021-12-21,06:40:25",10.1.1.8,321,-0.120,-0.120,-0.120,0.000,0.000,0.000
1640068825088007936,"2021-12-21,06:40:25",10.1.1.8,0.34655094146728516,-0.120,-0.120,-0.120,0.000,0.000,0.000
1640068825432519936,"2021-12-21,06:40:25",10.1.1.8,341,-0.110,-0.110,-0.110,0.000,0.000,0.000
1640068825475827968,"2021-12-21,06:40:25",10.1.1.8,0.38417696952819824,-0.110,-0.110,-0.110,0.000,0.000,0.000
1640068825863396864,"2021-12-21,06:40:25",10.1.1.8,385,-0.100,-0.100,-0.100,0.000,0.000,0.000
1640068825888093952,"2021-12-21,06:40:25",10.1.1.8,0.41086816787719727,-0.100,-0.100,-0.100,0.000,0.000,0.000
1640068826254482944,"2021-12-21,06:40:26",10.1.1.8,361,-0.090,-0.090,-0.090,0.000,0.000,0.000
1640068826294967040,"2021-12-21,06:40:26",10.1.1.8,0.4021780490875244,-0.090,-0.090,-0.090,0.000,0.000,0.000
1640068826644691968,"2021-12-21,06:40:26",10.1.1.8,347,-0.080,-0.080,-0.080,0.000,0.000,0.000
1640068826680172032,"2021-12-21,06:40:26",10.1.1.8,0.3831040859222412,-0.080,-0.080,-0.080,0.000,0.000,0.000
1640068827052975872,"2021-12-21,06:40:27",10.1.1.8,365,-0.070,-0.070,-0.070,0.000,0.000,0.000
1640068827101378816,"2021-12-21,06:40:27",10.1.1.8,0.4139838218688965,-0.070,-0.070,-0.070,0.000,0.000,0.000
1640068827462171136,"2021-12-21,06:40:27",10.1.1.8,357,-0.060,-0.060,-0.060,0.000,0.000,0.000
1640068827485410816,"2021-12-21,06:40:27",10.1.1.8,0.38044214248657227,-0.060,-0.060,-0.060,0.000,0.000,0.000
1640068827773047808,"2021-12-21,06:40:27",10.1.1.8,285,-0.050,-0.050,-0.050,0.000,0.000,0.000
1640068827840282880,"2021-12-21,06:40:27",10.1.1.8,0.3533492088317871,-0.050,-0.050,-0.050,0.000,0.000,0.000
1640068828202188032,"2021-12-21,06:40:28",10.1.1.8,360,-0.040,-0.040,-0.040,0.000,0.000,0.000
1640068828270013952,"2021-12-21,06:40:28",10.1.1.8,0.4282350540161133,-0.040,-0.040,-0.040,0.000,0.000,0.000
1640068828583569920,"2021-12-21,06:40:28",10.1.1.8,312,-0.030,-0.030,-0.030,0.000,0.000,0.000
1640068828630511104,"2021-12-21,06:40:28",10.1.1.8,0.35921406745910645,-0.030,-0.030,-0.030,0.000,0.000,0.000
1640068828963965952,"2021-12-21,06:40:28",10.1.1.8,330,-0.020,-0.020,-0.020,0.000,0.000,0.000
1640068828999828224,"2021-12-21,06:40:28",10.1.1.8,0.36624789237976074,-0.020,-0.020,-0.020,0.000,0.000,0.000
1640068829371140864,"2021-12-21,06:40:29",10.1.1.8,362,-0.010,-0.010,-0.010,0.000,0.000,0.000
1640068829438381056,"2021-12-21,06:40:29",10.1.1.8,0.43025994300842285,-0.010,-0.010,-0.010,0.000,0.000,0.000
1640068829832130048,"2021-12-21,06:40:29",10.1.1.8,391,0.000,0.000,0.000,0.000,0.000,0.000
1640068829859092992,"2021-12-21,06:40:29",10.1.1.8,0.4191019535064697,0.000,0.000,0.000,0.000,0.000,0.000
1640068830190956032,"2021-12-21,06:40:30",10.1.1.8,330,-0.010,-0.010,-0.010,0.000,0.000,0.000
1640068830269874176,"2021-12-21,06:40:30",10.1.1.8,0.4094231128692627,-0.010,-0.010,-0.010,0.000,0.000,0.000
1640068830651396096,"2021-12-21,06:40:30",10.1.1.8,0.3753480911254883,-0.020,-0.020,-0.020,0.000,0.000,0.000
1640068830651134976,"2021-12-21,06:40:30",10.1.1.8,372,-0.020,-0.020,-0.020,0.000,0.000,0.000
1640068831010286080,"2021-12-21,06:40:31",10.1.1.8,353,-0.030,-0.030,-0.030,0.000,0.000,0.000
1640068831119203072,"2021-12-21,06:40:31",10.1.1.8,0.4629180431365967,-0.030,-0.030,-0.030,0.000,0.000,0.000
1640068831431649024,"2021-12-21,06:40:31",10.1.1.8,309,-0.040,-0.040,-0.040,0.000,0.000,0.000
1640068831487858176,"2021-12-21,06:40:31",10.1.1.8,0.36684298515319824,-0.040,-0.040,-0.040,0.000,0.000,0.000
1640068831810307072,"2021-12-21,06:40:31",10.1.1.8,320,-0.050,-0.050,-0.050,0.000,0.000,0.000
1640068831947107072,"2021-12-21,06:40:31",10.1.1.8,0.4577360153198242,-0.050,-0.050,-0.050,0.000,0.000,0.000
1640068832319664896,"2021-12-21,06:40:32",10.1.1.8,370,-0.060,-0.060,-0.060,0.000,0.000,0.000
1640068832366362112,"2021-12-21,06:40:32",10.1.1.8,0.41697001457214355,-0.060,-0.060,-0.060,0.000,0.000,0.000
1640068832788455936,"2021-12-21,06:40:32",10.1.1.8,420,-0.070,-0.070,-0.070,0.000,0.000,0.000
1640068832832276224,"2021-12-21,06:40:32",10.1.1.8,0.464630126953125,-0.070,-0.070,-0.070,0.000,0.000,0.000
1640068833160267008,"2021-12-21,06:40:33",10.1.1.8,325,-0.080,-0.080,-0.080,0.000,0.000,0.000
1640068833248621056,"2021-12-21,06:40:33",10.1.1.8,0.4136958122253418,-0.080,-0.080,-0.080,0.000,0.000,0.000
1640068833597601024,"2021-12-21,06:40:33",10.1.1.8,346,-0.090,-0.090,-0.090,0.000,0.000,0.000
1640068833623001088,"2021-12-21,06:40:33",10.1.1.8,0.37186098098754883,-0.090,-0.090,-0.090,0.000,0.000,0.000
1640068833938638848,"2021-12-21,06:40:33",10.1.1.8,312,-0.100,-0.100,-0.100,0.000,0.000,0.000
1640068833998562048,"2021-12-21,06:40:33",10.1.1.8,0.372481107711792,-0.100,-0.100,-0.100,0.000,0.000,0.000
1640068834326345984,"2021-12-21,06:40:34",10.1.1.8,326,-0.110,-0.110,-0.110,0.000,0.000,0.000
1640068834384052992,"2021-12-21,06:40:34",10.1.1.8,0.38412904739379883,-0.110,-0.110,-0.110,0.000,0.000,0.000
1640068834746262016,"2021-12-21,06:40:34",10.1.1.8,360,-0.120,-0.120,-0.120,0.000,0.000,0.000
1640068834784684800,"2021-12-21,06:40:34",10.1.1.8,0.39861106872558594,-0.120,-0.120,-0.120,0.000,0.000,0.000
1640068835136017920,"2021-12-21,06:40:35",10.1.1.8,349,-0.130,-0.130,-0.130,0.000,0.000,0.000
1640068835214246144,"2021-12-21,06:40:35",10.1.1.8,0.4279670715332031,-0.130,-0.130,-0.130,0.000,0.000,0.000
1640068835565359104,"2021-12-21,06:40:35",10.1.1.8,348,-0.140,-0.140,-0.140,0.000,0.000,0.000
1640068835634469888,"2021-12-21,06:40:35",10.1.1.8,0.41825294494628906,-0.140,-0.140,-0.140,0.000,0.000,0.000
1640068836014693120,"2021-12-21,06:40:36",10.1.1.8,378,-0.150,-0.150,-0.150,0.000,0.000,0.000
1640068836103454976,"2021-12-21,06:40:36",10.1.1.8,0.4668459892272949,-0.150,-0.150,-0.150,0.000,0.000,0.000
1640068836526014208,"2021-12-21,06:40:36",10.1.1.8,415,-0.160,-0.160,-0.160,0.000,0.000,0.000
1640068836580815104,"2021-12-21,06:40:36",10.1.1.8,0.4705500602722168,-0.160,-0.160,-0.160,0.000,0.000,0.000
1640068836942696192,"2021-12-21,06:40:36",10.1.1.8,358,-0.170,-0.170,-0.170,0.000,0.000,0.000
1640068837010438912,"2021-12-21,06:40:37",10.1.1.8,0.42635011672973633,-0.170,-0.170,-0.170,0.000,0.000,0.000
1640068837362737920,"2021-12-21,06:40:37",10.1.1.8,350,-0.180,-0.180,-0.180,0.000,0.000,0.000
1640068837419699968,"2021-12-21,06:40:37",10.1.1.8,0.40740299224853516,-0.180,-0.180,-0.180,0.000,0.000,0.000
1640068837762358016,"2021-12-21,06:40:37",10.1.1.8,341,-0.190,-0.190,-0.190,0.000,0.000,0.000
1640068837823750144,"2021-12-21,06:40:37",10.1.1.8,0.4028289318084717,-0.190,-0.190,-0.190,0.000,0.000,0.000
1640068838201901824,"2021-12-21,06:40:38",10.1.1.8,373,-0.200,-0.200,-0.200,0.000,0.000,0.000
1640068838252882944,"2021-12-21,06:40:38",10.1.1.8,0.42426109313964844,-0.200,-0.200,-0.200,0.000,0.000,0.000
1640068838670799872,"2021-12-21,06:40:38",10.1.1.8,415,-0.210,-0.210,-0.210,0.000,0.000,0.000
1640068838733472000,"2021-12-21,06:40:38",10.1.1.8,0.4783790111541748,-0.210,-0.210,-0.210,0.000,0.000,0.000
1640068839132461056,"2021-12-21,06:40:39",10.1.1.8,397,-0.220,-0.220,-0.220,0.000,0.000,0.000
1640068839170167808,"2021-12-21,06:40:39",10.1.1.8,0.43527913093566895,-0.220,-0.220,-0.220,0.000,0.000,0.000
1640068839529472000,"2021-12-21,06:40:39",10.1.1.8,354,-0.230,-0.230,-0.230,0.000,0.000,0.000
1640068839589884160,"2021-12-21,06:40:39",10.1.1.8,0.4146568775177002,-0.230,-0.230,-0.230,0.000,0.000,0.000
1640068839920357888,"2021-12-21,06:40:39",10.1.1.8,327,-0.240,-0.240,-0.240,0.000,0.000,0.000
1640068839962791936,"2021-12-21,06:40:39",10.1.1.8,0.36983704566955566,-0.240,-0.240,-0.240,0.000,0.000,0.000
1640068840338646016,"2021-12-21,06:40:40",10.1.1.8,372,-0.250,-0.250,-0.250,0.000,0.000,0.000
1640068840401798912,"2021-12-21,06:40:40",10.1.1.8,0.43595385551452637,-0.250,-0.250,-0.250,0.000,0.000,0.000
1640068840768621056,"2021-12-21,06:40:40",10.1.1.8,363,-0.260,-0.260,-0.260,0.000,0.000,0.000
1640068840801688832,"2021-12-21,06:40:40",10.1.1.8,0.39653491973876953,-0.260,-0.260,-0.260,0.000,0.000,0.000
1640068841177495040,"2021-12-21,06:40:41",10.1.1.8,374,-0.270,-0.270,-0.270,0.000,0.000,0.000
1640068841191582976,"2021-12-21,06:40:41",10.1.1.8,0.38835883140563965,-0.270,-0.270,-0.270,0.000,0.000,0.000
1640068841526748928,"2021-12-21,06:40:41",10.1.1.8,333,-0.280,-0.280,-0.280,0.000,0.000,0.000
1640068841595254016,"2021-12-21,06:40:41",10.1.1.8,0.4021790027618408,-0.280,-0.280,-0.280,0.000,0.000,0.000
1640068841947577856,"2021-12-21,06:40:41",10.1.1.8,348,-0.290,-0.290,-0.290,0.000,0.000,0.000
1640068841995474176,"2021-12-21,06:40:41",10.1.1.8,0.3962409496307373,-0.290,-0.290,-0.290,0.000,0.000,0.000
1640068842317696000,"2021-12-21,06:40:42",10.1.1.8,319,-0.300,-0.300,-0.300,0.000,0.000,0.000
1640068842349344000,"2021-12-21,06:40:42",10.1.1.8,0.351593017578125,-0.300,-0.300,-0.300,0.000,0.000,0.000
1640068842685592064,"2021-12-21,06:40:42",10.1.1.8,333,-0.310,-0.310,-0.310,0.000,0.000,0.000
1640068842752801024,"2021-12-21,06:40:42",10.1.1.8,0.40119004249572754,-0.310,-0.310,-0.310,0.000,0.000,0.000
1640068843057596928,"2021-12-21,06:40:43",10.1.1.8,302,-0.320,-0.320,-0.320,0.000,0.000,0.000
1640068843099373056,"2021-12-21,06:40:43",10.1.1.8,0.344257116317749,-0.320,-0.320,-0.320,0.000,0.000,0.000
1640068843483328000,"2021-12-21,06:40:43",10.1.1.8,382,-0.330,-0.330,-0.330,0.000,0.000,0.000
1640068843578825984,"2021-12-21,06:40:43",10.1.1.8,0.4781661033630371,-0.330,-0.330,-0.330,0.000,0.000,0.000
1640068843903223040,"2021-12-21,06:40:43",10.1.1.8,322,-0.340,-0.340,-0.340,0.000,0.000,0.000
1640068843996798976,"2021-12-21,06:40:43",10.1.1.8,0.4163379669189453,-0.340,-0.340,-0.340,0.000,0.000,0.000
1640068844372739072,"2021-12-21,06:40:44",10.1.1.8,368,-0.350,-0.350,-0.350,0.000,0.000,0.000
1640068844414854912,"2021-12-21,06:40:44",10.1.1.8,0.4111299514770508,-0.350,-0.350,-0.350,0.000,0.000,0.000
1640068844761108992,"2021-12-21,06:40:44",10.1.1.8,344,-0.360,-0.360,-0.360,0.000,0.000,0.000
1640068844854818048,"2021-12-21,06:40:44",10.1.1.8,0.4381229877471924,-0.360,-0.360,-0.360,0.000,0.000,0.000
1640068845292463104,"2021-12-21,06:40:45",10.1.1.8,430,-0.370,-0.370,-0.370,0.000,0.000,0.000
1640068845322156032,"2021-12-21,06:40:45",10.1.1.8,0.4600100517272949,-0.370,-0.370,-0.370,0.000,0.000,0.000
1640068845689832960,"2021-12-21,06:40:45",10.1.1.8,366,-0.380,-0.380,-0.380,0.000,0.000,0.000
1640068845739998976,"2021-12-21,06:40:45",10.1.1.8,0.41646599769592285,-0.380,-0.380,-0.380,0.000,0.000,0.000
1640068846054172160,"2021-12-21,06:40:46",10.1.1.8,311,-0.390,-0.390,-0.390,0.000,0.000,0.000
1640068846085208832,"2021-12-21,06:40:46",10.1.1.8,0.34366297721862793,-0.390,-0.390,-0.390,0.000,0.000,0.000
1640068846433892864,"2021-12-21,06:40:46",10.1.1.8,342,-0.400,-0.400,-0.400,0.000,0.000,0.000
1640068846450587904,"2021-12-21,06:40:46",10.1.1.8,0.3607289791107178,-0.400,-0.400,-0.400,0.000,0.000,0.000
1640068846877665024,"2021-12-21,06:40:46",10.1.1.8,407,-0.410,-0.410,-0.410,0.000,0.000,0.000
1640068846903995904,"2021-12-21,06:40:46",10.1.1.8,0.4336569309234619,-0.410,-0.410,-0.410,0.000,0.000,0.000
1640068847238560000,"2021-12-21,06:40:47",10.1.1.8,333,-0.420,-0.420,-0.420,0.000,0.000,0.000
1640068847259876096,"2021-12-21,06:40:47",10.1.1.8,0.35440611839294434,-0.420,-0.420,-0.420,0.000,0.000,0.000
1640068847632375040,"2021-12-21,06:40:47",10.1.1.8,371,-0.430,-0.430,-0.430,0.000,0.000,0.000
1640068847672507136,"2021-12-21,06:40:47",10.1.1.8,0.4112851619720459,-0.430,-0.430,-0.430,0.000,0.000,0.000
1640068848073415936,"2021-12-21,06:40:48",10.1.1.8,399,-0.440,-0.440,-0.440,0.000,0.000,0.000
1640068848087474944,"2021-12-21,06:40:48",10.1.1.8,0.4131479263305664,-0.440,-0.440,-0.440,0.000,0.000,0.000
1640068848404731904,"2021-12-21,06:40:48",10.1.1.8,311,-0.450,-0.450,-0.450,0.000,0.000,0.000
1640068848440929792,"2021-12-21,06:40:48",10.1.1.8,0.34751296043395996,-0.450,-0.450,-0.450,0.000,0.000,0.000
1640068848817074944,"2021-12-21,06:40:48",10.1.1.8,374,-0.460,-0.460,-0.460,0.000,0.000,0.000
1640068848884974080,"2021-12-21,06:40:48",10.1.1.8,0.44218015670776367,-0.460,-0.460,-0.460,0.000,0.000,0.000
1640068849218126080,"2021-12-21,06:40:49",10.1.1.8,328,-0.470,-0.470,-0.470,0.000,0.000,0.000
1640068849251646976,"2021-12-21,06:40:49",10.1.1.8,0.36124610900878906,-0.470,-0.470,-0.470,0.000,0.000,0.000
1640068849649609216,"2021-12-21,06:40:49",10.1.1.8,395,-0.480,-0.480,-0.480,0.000,0.000,0.000
1640068849722672896,"2021-12-21,06:40:49",10.1.1.8,0.4682731628417969,-0.480,-0.480,-0.480,0.000,0.000,0.000
1640068850072052992,"2021-12-21,06:40:50",10.1.1.8,347,-0.490,-0.490,-0.490,0.000,0.000,0.000
1640068850164773888,"2021-12-21,06:40:50",10.1.1.8,0.4401700496673584,-0.490,-0.490,-0.490,0.000,0.000,0.000
1640068850502790912,"2021-12-21,06:40:50",10.1.1.8,324,-0.480,-0.480,-0.480,0.000,0.000,0.000
1640068850544052992,"2021-12-21,06:40:50",10.1.1.8,0.3657100200653076,-0.480,-0.480,-0.480,0.000,0.000,0.000
1640068850889970944,"2021-12-21,06:40:50",10.1.1.8,344,-0.470,-0.470,-0.470,0.000,0.000,0.000
1640068850952516096,"2021-12-21,06:40:50",10.1.1.8,0.4071078300476074,-0.470,-0.470,-0.470,0.000,0.000,0.000
1640068851295133952,"2021-12-21,06:40:51",10.1.1.8,341,-0.460,-0.460,-0.460,0.000,0.000,0.000
1640068851386248192,"2021-12-21,06:40:51",10.1.1.8,0.43236804008483887,-0.460,-0.460,-0.460,0.000,0.000,0.000
1640068851755881984,"2021-12-21,06:40:51",10.1.1.8,366,-0.450,-0.450,-0.450,0.000,0.000,0.000
1640068851813703936,"2021-12-21,06:40:51",10.1.1.8,0.4240291118621826,-0.450,-0.450,-0.450,0.000,0.000,0.000
1640068852197732864,"2021-12-21,06:40:52",10.1.1.8,373,-0.440,-0.440,-0.440,0.000,0.000,0.000
1640068852254797056,"2021-12-21,06:40:52",10.1.1.8,0.43057799339294434,-0.440,-0.440,-0.440,0.000,0.000,0.000
1640068852637703936,"2021-12-21,06:40:52",10.1.1.8,378,-0.430,-0.430,-0.430,0.000,0.000,0.000
1640068852691222016,"2021-12-21,06:40:52",10.1.1.8,0.43202900886535645,-0.430,-0.430,-0.430,0.000,0.000,0.000
1640068853048454144,"2021-12-21,06:40:53",10.1.1.8,355,-0.420,-0.420,-0.420,0.000,0.000,0.000
1640068853115147008,"2021-12-21,06:40:53",10.1.1.8,0.4221210479736328,-0.420,-0.420,-0.420,0.000,0.000,0.000
1640068853428980224,"2021-12-21,06:40:53",10.1.1.8,310,-0.410,-0.410,-0.410,0.000,0.000,0.000
1640068853538816000,"2021-12-21,06:40:53",10.1.1.8,0.42083287239074707,-0.410,-0.410,-0.410,0.000,0.000,0.000
1640068853899812096,"2021-12-21,06:40:53",10.1.1.8,356,-0.400,-0.400,-0.400,0.000,0.000,0.000
1640068853980633856,"2021-12-21,06:40:53",10.1.1.8,0.43777894973754883,-0.400,-0.400,-0.400,0.000,0.000,0.000
1640068854292311040,"2021-12-21,06:40:54",10.1.1.8,309,-0.390,-0.390,-0.390,0.000,0.000,0.000
1640068854385448960,"2021-12-21,06:40:54",10.1.1.8,0.4024050235748291,-0.390,-0.390,-0.390,0.000,0.000,0.000
1640068854770234112,"2021-12-21,06:40:54",10.1.1.8,371,-0.380,-0.380,-0.380,0.000,0.000,0.000
1640068854852046080,"2021-12-21,06:40:54",10.1.1.8,0.45583415031433105,-0.380,-0.380,-0.380,0.000,0.000,0.000
1640068855261370880,"2021-12-21,06:40:55",10.1.1.8,403,-0.370,-0.370,-0.370,0.000,0.000,0.000
1640068855318545152,"2021-12-21,06:40:55",10.1.1.8,0.46083712577819824,-0.370,-0.370,-0.370,0.000,0.000,0.000
1640068855642692096,"2021-12-21,06:40:55",10.1.1.8,322,-0.360,-0.360,-0.360,0.000,0.000,0.000
1640068855693850112,"2021-12-21,06:40:55",10.1.1.8,0.37403202056884766,-0.360,-0.360,-0.360,0.000,0.000,0.000
1640068856011379968,"2021-12-21,06:40:56",10.1.1.8,316,-0.350,-0.350,-0.350,0.000,0.000,0.000
1640068856088075008,"2021-12-21,06:40:56",10.1.1.8,0.3929471969604492,-0.350,-0.350,-0.350,0.000,0.000,0.000
1640068856412736768,"2021-12-21,06:40:56",10.1.1.8,322,-0.340,-0.340,-0.340,0.000,0.000,0.000
1640068856430042112,"2021-12-21,06:40:56",10.1.1.8,0.3402140140533447,-0.340,-0.340,-0.340,0.000,0.000,0.000
1640068856792834048,"2021-12-21,06:40:56",10.1.1.8,357,-0.330,-0.330,-0.330,0.000,0.000,0.000
1640068856803877120,"2021-12-21,06:40:56",10.1.1.8,0.3682880401611328,-0.330,-0.330,-0.330,0.000,0.000,0.000
1640068857181868032,"2021-12-21,06:40:57",10.1.1.8,371,-0.320,-0.320,-0.320,0.000,0.000,0.000
1640068857240783104,"2021-12-21,06:40:57",10.1.1.8,0.4301319122314453,-0.320,-0.320,-0.320,0.000,0.000,0.000
1640068857602035968,"2021-12-21,06:40:57",10.1.1.8,359,-0.310,-0.310,-0.310,0.000,0.000,0.000
1640068857683365120,"2021-12-21,06:40:57",10.1.1.8,0.4409937858581543,-0.310,-0.310,-0.310,0.000,0.000,0.000
1640068858032526080,"2021-12-21,06:40:58",10.1.1.8,347,-0.300,-0.300,-0.300,0.000,0.000,0.000
1640068858089886976,"2021-12-21,06:40:58",10.1.1.8,0.4052419662475586,-0.300,-0.300,-0.300,0.000,0.000,0.000
1640068858522874112,"2021-12-21,06:40:58",10.1.1.8,423,-0.290,-0.290,-0.290,0.000,0.000,0.000
1640068858550105088,"2021-12-21,06:40:58",10.1.1.8,0.45121002197265625,-0.290,-0.290,-0.290,0.000,0.000,0.000
1640068858882034176,"2021-12-21,06:40:58",10.1.1.8,327,-0.280,-0.280,-0.280,0.000,0.000,0.000
1640068858931438080,"2021-12-21,06:40:58",10.1.1.8,0.37737298011779785,-0.280,-0.280,-0.280,0.000,0.000,0.000
1640068859275602176,"2021-12-21,06:40:59",10.1.1.8,341,-0.270,-0.270,-0.270,0.000,0.000,0.000
1640068859301084160,"2021-12-21,06:40:59",10.1.1.8,0.36735105514526367,-0.270,-0.270,-0.270,0.000,0.000,0.000
1640068859702023936,"2021-12-21,06:40:59",10.1.1.8,393,-0.260,-0.260,-0.260,0.000,0.000,0.000
1640068859718494976,"2021-12-21,06:40:59",10.1.1.8,0.4102320671081543,-0.260,-0.260,-0.260,0.000,0.000,0.000
1640068860061132800,"2021-12-21,06:41:00",10.1.1.8,336,-0.250,-0.250,-0.250,0.000,0.000,0.000
1640068860122072064,"2021-12-21,06:41:00",10.1.1.8,0.3971090316772461,-0.250,-0.250,-0.250,0.000,0.000,0.000
1640068860441363968,"2021-12-21,06:41:00",10.1.1.8,317,-0.240,-0.240,-0.240,0.000,0.000,0.000
1640068860472178944,"2021-12-21,06:41:00",10.1.1.8,0.3485889434814453,-0.240,-0.240,-0.240,0.000,0.000,0.000
1640068860831577088,"2021-12-21,06:41:00",10.1.1.8,352,-0.230,-0.230,-0.230,0.000,0.000,0.000
1640068860920955904,"2021-12-21,06:41:00",10.1.1.8,0.4416821002960205,-0.230,-0.230,-0.230,0.000,0.000,0.000
1640068861320827904,"2021-12-21,06:41:01",10.1.1.8,397,-0.220,-0.220,-0.220,0.000,0.000,0.000
1640068861349745152,"2021-12-21,06:41:01",10.1.1.8,0.42679786682128906,-0.220,-0.220,-0.220,0.000,0.000,0.000
1640068861722078976,"2021-12-21,06:41:01",10.1.1.8,367,-0.210,-0.210,-0.210,0.000,0.000,0.000
1640068861754009856,"2021-12-21,06:41:01",10.1.1.8,0.3983321189880371,-0.210,-0.210,-0.210,0.000,0.000,0.000
1640068862140211968,"2021-12-21,06:41:02",10.1.1.8,384,-0.200,-0.200,-0.200,0.000,0.000,0.000
1640068862182432000,"2021-12-21,06:41:02",10.1.1.8,0.4269120693206787,-0.200,-0.200,-0.200,0.000,0.000,0.000
1640068862541032960,"2021-12-21,06:41:02",10.1.1.8,356,-0.190,-0.190,-0.190,0.000,0.000,0.000
1640068862642541056,"2021-12-21,06:41:02",10.1.1.8,0.45816683769226074,-0.190,-0.190,-0.190,0.000,0.000,0.000
1640068863010498048,"2021-12-21,06:41:03",10.1.1.8,366,-0.180,-0.180,-0.180,0.000,0.000,0.000
1640068863085899008,"2021-12-21,06:41:03",10.1.1.8,0.4414961338043213,-0.180,-0.180,-0.180,0.000,0.000,0.000
1640068863429497088,"2021-12-21,06:41:03",10.1.1.8,340,-0.170,-0.170,-0.170,0.000,0.000,0.000
1640068863481605888,"2021-12-21,06:41:03",10.1.1.8,0.3930549621582031,-0.170,-0.170,-0.170,0.000,0.000,0.000
1640068863829986048,"2021-12-21,06:41:03",10.1.1.8,342,-0.160,-0.160,-0.160,0.000,0.000,0.000
1640068863888582912,"2021-12-21,06:41:03",10.1.1.8,0.40160298347473145,-0.160,-0.160,-0.160,0.000,0.000,0.000
1640068864260337152,"2021-12-21,06:41:04",10.1.1.8,369,-0.150,-0.150,-0.150,0.000,0.000,0.000
1640068864299358976,"2021-12-21,06:41:04",10.1.1.8,0.40853095054626465,-0.150,-0.150,-0.150,0.000,0.000,0.000
1640068864701131008,"2021-12-21,06:41:04",10.1.1.8,399,-0.140,-0.140,-0.140,0.000,0.000,0.000
1640068864748706048,"2021-12-21,06:41:04",10.1.1.8,0.4472360610961914,-0.140,-0.140,-0.140,0.000,0.000,0.000
1640068865137528064,"2021-12-21,06:41:05",10.1.1.8,387,-0.130,-0.130,-0.130,0.000,0.000,0.000
1640068865238749952,"2021-12-21,06:41:05",10.1.1.8,0.48861098289489746,-0.130,-0.130,-0.130,0.000,0.000,0.000
1640068865627770880,"2021-12-21,06:41:05",10.1.1.8,386,-0.120,-0.120,-0.120,0.000,0.000,0.000
1640068865649210880,"2021-12-21,06:41:05",10.1.1.8,0.40780091285705566,-0.120,-0.120,-0.120,0.000,0.000,0.000
1640068865976651008,"2021-12-21,06:41:05",10.1.1.8,323,-0.110,-0.110,-0.110,0.000,0.000,0.000
1640068866010006784,"2021-12-21,06:41:06",10.1.1.8,0.3562610149383545,-0.110,-0.110,-0.110,0.000,0.000,0.000
1640068866396166144,"2021-12-21,06:41:06",10.1.1.8,381,-0.100,-0.100,-0.100,0.000,0.000,0.000
1640068866505084160,"2021-12-21,06:41:06",10.1.1.8,0.49007701873779297,-0.100,-0.100,-0.100,0.000,0.000,0.000
1640068866837157120,"2021-12-21,06:41:06",10.1.1.8,329,-0.090,-0.090,-0.090,0.000,0.000,0.000
1640068866912142080,"2021-12-21,06:41:06",10.1.1.8,0.4045979976654053,-0.090,-0.090,-0.090,0.000,0.000,0.000
1640068867285062144,"2021-12-21,06:41:07",10.1.1.8,368,-0.080,-0.080,-0.080,0.000,0.000,0.000
1640068867311130880,"2021-12-21,06:41:07",10.1.1.8,0.39426183700561523,-0.080,-0.080,-0.080,0.000,0.000,0.000
1640068867668154880,"2021-12-21,06:41:07",10.1.1.8,350,-0.070,-0.070,-0.070,0.000,0.000,0.000
1640068867690351872,"2021-12-21,06:41:07",10.1.1.8,0.3723721504211426,-0.070,-0.070,-0.070,0.000,0.000,0.000
1640068868014256128,"2021-12-21,06:41:08",10.1.1.8,313,-0.060,-0.060,-0.060,0.000,0.000,0.000
1640068868051002112,"2021-12-21,06:41:08",10.1.1.8,0.35022902488708496,-0.060,-0.060,-0.060,0.000,0.000,0.000
1640068868384545024,"2021-12-21,06:41:08",10.1.1.8,331,-0.050,-0.050,-0.050,0.000,0.000,0.000
1640068868468080896,"2021-12-21,06:41:08",10.1.1.8,0.414780855178833,-0.050,-0.050,-0.050,0.000,0.000,0.000
1640068868823822848,"2021-12-21,06:41:08",10.1.1.8,352,-0.040,-0.040,-0.040,0.000,0.000,0.000
1640068868844875008,"2021-12-21,06:41:08",10.1.1.8,0.3736441135406494,-0.040,-0.040,-0.040,0.000,0.000,0.000
1640068869163353088,"2021-12-21,06:41:09",10.1.1.8,314,-0.030,-0.030,-0.030,0.000,0.000,0.000
1640068869242260992,"2021-12-21,06:41:09",10.1.1.8,0.3943169116973877,-0.030,-0.030,-0.030,0.000,0.000,0.000
1640068869532187904,"2021-12-21,06:41:09",10.1.1.8,287,-0.020,-0.020,-0.020,0.000,0.000,0.000
1640068869567699968,"2021-12-21,06:41:09",10.1.1.8,0.3232719898223877,-0.020,-0.020,-0.020,0.000,0.000,0.000
1640068869912945920,"2021-12-21,06:41:09",10.1.1.8,343,-0.010,-0.010,-0.010,0.000,0.000,0.000
1640068869963737856,"2021-12-21,06:41:09",10.1.1.8,0.39428114891052246,-0.010,-0.010,-0.010,0.000,0.000,0.000
1640068870360811008,"2021-12-21,06:41:10",10.1.1.8,395,0.000,0.000,0.000,0.000,0.000,0.000
1640068870431427840,"2021-12-21,06:41:10",10.1.1.8,0.46369099617004395,0.000,0.000,0.000,0.000,0.000,0.000
1640068870826498048,"2021-12-21,06:41:10",10.1.1.8,393,-0.010,-0.010,-0.010,0.000,0.000,0.000
1640068870900908032,"2021-12-21,06:41:10",10.1.1.8,0.468048095703125,-0.010,-0.010,-0.010,0.000,0.000,0.000
1640068871311593984,"2021-12-21,06:41:11",10.1.1.8,397,-0.020,-0.020,-0.020,0.000,0.000,0.000
1640068871382112000,"2021-12-21,06:41:11",10.1.1.8,0.4680969715118408,-0.020,-0.020,-0.020,0.000,0.000,0.000
1640068871730000128,"2021-12-21,06:41:11",10.1.1.8,337,-0.030,-0.030,-0.030,0.000,0.000,0.000
1640068871826739200,"2021-12-21,06:41:11",10.1.1.8,0.4346959590911865,-0.030,-0.030,-0.030,0.000,0.000,0.000
1640068872290060032,"2021-12-21,06:41:12",10.1.1.8,454,-0.040,-0.040,-0.040,0.000,0.000,0.000
1640068872306305792,"2021-12-21,06:41:12",10.1.1.8,0.4707920551300049,-0.040,-0.040,-0.040,0.000,0.000,0.000
1640068872648274944,"2021-12-21,06:41:12",10.1.1.8,338,-0.050,-0.050,-0.050,0.000,0.000,0.000
1640068872701026048,"2021-12-21,06:41:12",10.1.1.8,0.3911428451538086,-0.050,-0.050,-0.050,0.000,0.000,0.000
1640068873058829056,"2021-12-21,06:41:13",10.1.1.8,353,-0.060,-0.060,-0.060,0.000,0.000,0.000
1640068873094110976,"2021-12-21,06:41:13",10.1.1.8,0.38886284828186035,-0.060,-0.060,-0.060,0.000,0.000,0.000
1640068873460125952,"2021-12-21,06:41:13",10.1.1.8,358,-0.070,-0.070,-0.070,0.000,0.000,0.000
1640068873500824064,"2021-12-21,06:41:13",10.1.1.8,0.4031970500946045,-0.070,-0.070,-0.070,0.000,0.000,0.000
1640068873907057152,"2021-12-21,06:41:13",10.1.1.8,404,-0.080,-0.080,-0.080,0.000,0.000,0.000
1640068873922571776,"2021-12-21,06:41:13",10.1.1.8,0.42017507553100586,-0.080,-0.080,-0.080,0.000,0.000,0.000
1640068874355550976,"2021-12-21,06:41:14",10.1.1.8,430,-0.090,-0.090,-0.090,0.000,0.000,0.000
1640068874419849984,"2021-12-21,06:41:14",10.1.1.8,0.49511098861694336,-0.090,-0.090,-0.090,0.000,0.000,0.000
1640068874803993856,"2021-12-21,06:41:14",10.1.1.8,381,-0.100,-0.100,-0.100,0.000,0.000,0.000
1640068874850227968,"2021-12-21,06:41:14",10.1.1.8,0.4274940490722656,-0.100,-0.100,-0.100,0.000,0.000,0.000
1640068875264389888,"2021-12-21,06:41:15",10.1.1.8,382,-0.110,-0.110,-0.110,0.000,0.000,0.000
1640068875310684928,"2021-12-21,06:41:15",10.1.1.8,0.4300398826599121,-0.110,-0.110,-0.110,0.000,0.000,0.000
1640068875684145920,"2021-12-21,06:41:15",10.1.1.8,350,-0.120,-0.120,-0.120,0.000,0.000,0.000
1640068875746625792,"2021-12-21,06:41:15",10.1.1.8,0.413283109664917,-0.120,-0.120,-0.120,0.000,0.000,0.000
1640068876134136832,"2021-12-21,06:41:16",10.1.1.8,384,-0.130,-0.130,-0.130,0.000,0.000,0.000
1640068876220284928,"2021-12-21,06:41:16",10.1.1.8,0.46956801414489746,-0.130,-0.130,-0.130,0.000,0.000,0.000
1640068876592460032,"2021-12-21,06:41:16",10.1.1.8,364,-0.140,-0.140,-0.140,0.000,0.000,0.000
1640068876620584960,"2021-12-21,06:41:16",10.1.1.8,0.39271998405456543,-0.140,-0.140,-0.140,0.000,0.000,0.000
1640068876981095168,"2021-12-21,06:41:16",10.1.1.8,358,-0.150,-0.150,-0.150,0.000,0.000,0.000
1640068877013114880,"2021-12-21,06:41:17",10.1.1.8,0.39052891731262207,-0.150,-0.150,-0.150,0.000,0.000,0.000
1640068877384665088,"2021-12-21,06:41:17",10.1.1.8,369,-0.160,-0.160,-0.160,0.000,0.000,0.000
1640068877469128960,"2021-12-21,06:41:17",10.1.1.8,0.45406603813171387,-0.160,-0.160,-0.160,0.000,0.000,0.000
1640068877881046016,"2021-12-21,06:41:17",10.1.1.8,410,-0.170,-0.170,-0.170,0.000,0.000,0.000
1640068877925169920,"2021-12-21,06:41:17",10.1.1.8,0.45455503463745117,-0.170,-0.170,-0.170,0.000,0.000,0.000
1640068878280914176,"2021-12-21,06:41:18",10.1.1.8,346,-0.180,-0.180,-0.180,0.000,0.000,0.000
1640068878360878080,"2021-12-21,06:41:18",10.1.1.8,0.4270060062408447,-0.180,-0.180,-0.180,0.000,0.000,0.000
1640068878718084096,"2021-12-21,06:41:18",10.1.1.8,342,-0.190,-0.190,-0.190,0.000,0.000,0.000
1640068878786046976,"2021-12-21,06:41:18",10.1.1.8,0.41044116020202637,-0.190,-0.190,-0.190,0.000,0.000,0.000
1640068879150705152,"2021-12-21,06:41:19",10.1.1.8,353,-0.200,-0.200,-0.200,0.000,0.000,0.000
1640068879239158016,"2021-12-21,06:41:19",10.1.1.8,0.4419369697570801,-0.200,-0.200,-0.200,0.000,0.000,0.000
1640068879581876992,"2021-12-21,06:41:19",10.1.1.8,340,-0.210,-0.210,-0.210,0.000,0.000,0.000
1640068879639270144,"2021-12-21,06:41:19",10.1.1.8,0.3980889320373535,-0.210,-0.210,-0.210,0.000,0.000,0.000
1640068880115183104,"2021-12-21,06:41:20",10.1.1.8,472,-0.220,-0.220,-0.220,0.000,0.000,0.000
1640068880171153920,"2021-12-21,06:41:20",10.1.1.8,0.528831958770752,-0.220,-0.220,-0.220,0.000,0.000,0.000
1640068880516554240,"2021-12-21,06:41:20",10.1.1.8,343,-0.230,-0.230,-0.230,0.000,0.000,0.000
1640068880574574080,"2021-12-21,06:41:20",10.1.1.8,0.40120601654052734,-0.230,-0.230,-0.230,0.000,0.000,0.000
1640068881012419072,"2021-12-21,06:41:21",10.1.1.8,436,-0.240,-0.240,-0.240,0.000,0.000,0.000
1640068881043628032,"2021-12-21,06:41:21",10.1.1.8,0.46762514114379883,-0.240,-0.240,-0.240,0.000,0.000,0.000
1640068881473669120,"2021-12-21,06:41:21",10.1.1.8,427,-0.250,-0.250,-0.250,0.000,0.000,0.000
1640068881567735808,"2021-12-21,06:41:21",10.1.1.8,0.5224661827087402,-0.250,-0.250,-0.250,0.000,0.000,0.000
1640068881955440896,"2021-12-21,06:41:21",10.1.1.8,385,-0.260,-0.260,-0.260,0.000,0.000,0.000
1640068882014543104,"2021-12-21,06:41:22",10.1.1.8,0.4448058605194092,-0.260,-0.260,-0.260,0.000,0.000,0.000
1640068882353348864,"2021-12-21,06:41:22",10.1.1.8,336,-0.270,-0.270,-0.270,0.000,0.000,0.000
1640068882446912000,"2021-12-21,06:41:22",10.1.1.8,0.4302189350128174,-0.270,-0.270,-0.270,0.000,0.000,0.000
1640068882837169920,"2021-12-21,06:41:22",10.1.1.8,388,-0.280,-0.280,-0.280,0.000,0.000,0.000
1640068882954540032,"2021-12-21,06:41:22",10.1.1.8,0.5060670375823975,-0.280,-0.280,-0.280,0.000,0.000,0.000
1640068883397607168,"2021-12-21,06:41:23",10.1.1.8,441,-0.290,-0.290,-0.290,0.000,0.000,0.000
1640068883428459776,"2021-12-21,06:41:23",10.1.1.8,0.4725379943847656,-0.290,-0.290,-0.290,0.000,0.000,0.000
1640068883948849920,"2021-12-21,06:41:23",10.1.1.8,500,-0.300,-0.300,-0.300,0.000,0.000,0.000
1640068884004208128,"2021-12-21,06:41:24",10.1.1.8,0.5559639930725098,-0.300,-0.300,-0.300,0.000,0.000,0.000
1640068884369402880,"2021-12-21,06:41:24",10.1.1.8,363,-0.310,-0.310,-0.310,0.000,0.000,0.000
1640068884483942912,"2021-12-21,06:41:24",10.1.1.8,0.4775848388671875,-0.310,-0.310,-0.310,0.000,0.000,0.000
1640068884911983104,"2021-12-21,06:41:24",10.1.1.8,426,-0.320,-0.320,-0.320,0.000,0.000,0.000
1640068884974729984,"2021-12-21,06:41:24",10.1.1.8,0.48913002014160156,-0.320,-0.320,-0.320,0.000,0.000,0.000
1640068885341393920,"2021-12-21,06:41:25",10.1.1.8,363,-0.330,-0.330,-0.330,0.000,0.000,0.000
1640068885434351872,"2021-12-21,06:41:25",10.1.1.8,0.4564669132232666,-0.330,-0.330,-0.330,0.000,0.000,0.000
1640068885811687936,"2021-12-21,06:41:25",10.1.1.8,375,-0.340,-0.340,-0.340,0.000,0.000,0.000
1640068885876833024,"2021-12-21,06:41:25",10.1.1.8,0.4411468505859375,-0.340,-0.340,-0.340,0.000,0.000,0.000
1640068886212410880,"2021-12-21,06:41:26",10.1.1.8,334,-0.350,-0.350,-0.350,0.000,0.000,0.000
1640068886236151040,"2021-12-21,06:41:26",10.1.1.8,0.35793399810791016,-0.350,-0.350,-0.350,0.000,0.000,0.000
1640068886624102144,"2021-12-21,06:41:26",10.1.1.8,380,-0.360,-0.360,-0.360,0.000,0.000,0.000
1640068886732562176,"2021-12-21,06:41:26",10.1.1.8,0.4884960651397705,-0.360,-0.360,-0.360,0.000,0.000,0.000
1640068887127304960,"2021-12-21,06:41:27",10.1.1.8,392,-0.370,-0.370,-0.370,0.000,0.000,0.000
1640068887164129024,"2021-12-21,06:41:27",10.1.1.8,0.42978906631469727,-0.370,-0.370,-0.370,0.000,0.000,0.000
1640068887504529920,"2021-12-21,06:41:27",10.1.1.8,338,-0.380,-0.380,-0.380,0.000,0.000,0.000
1640068887546610176,"2021-12-21,06:41:27",10.1.1.8,0.3807249069213867,-0.380,-0.380,-0.380,0.000,0.000,0.000
1640068887902013952,"2021-12-21,06:41:27",10.1.1.8,352,-0.390,-0.390,-0.390,0.000,0.000,0.000
1640068887964109056,"2021-12-21,06:41:27",10.1.1.8,0.4143359661102295,-0.390,-0.390,-0.390,0.000,0.000,0.000
1640068888304375808,"2021-12-21,06:41:28",10.1.1.8,336,-0.400,-0.400,-0.400,0.000,0.000,0.000
1640068888414550016,"2021-12-21,06:41:28",10.1.1.8,0.4471771717071533,-0.400,-0.400,-0.400,0.000,0.000,0.000
1640068888855214080,"2021-12-21,06:41:28",10.1.1.8,438,-0.410,-0.410,-0.410,0.000,0.000,0.000
1640068888888477952,"2021-12-21,06:41:28",10.1.1.8,0.4721221923828125,-0.410,-0.410,-0.410,0.000,0.000,0.000
1640068889234770176,"2021-12-21,06:41:29",10.1.1.8,343,-0.420,-0.420,-0.420,0.000,0.000,0.000
1640068889351748096,"2021-12-21,06:41:29",10.1.1.8,0.46105504035949707,-0.420,-0.420,-0.420,0.000,0.000,0.000
1640068889695798016,"2021-12-21,06:41:29",10.1.1.8,336,-0.430,-0.430,-0.430,0.000,0.000,0.000
1640068889741795072,"2021-12-21,06:41:29",10.1.1.8,0.3826429843902588,-0.430,-0.430,-0.430,0.000,0.000,0.000
1640068890058656000,"2021-12-21,06:41:30",10.1.1.8,314,-0.440,-0.440,-0.440,0.000,0.000,0.000
1640068890104043008,"2021-12-21,06:41:30",10.1.1.8,0.36000514030456543,-0.440,-0.440,-0.440,0.000,0.000,0.000
1640068890478516224,"2021-12-21,06:41:30",10.1.1.8,373,-0.450,-0.450,-0.450,0.000,0.000,0.000
1640068890536115968,"2021-12-21,06:41:30",10.1.1.8,0.4307370185852051,-0.450,-0.450,-0.450,0.000,0.000,0.000
1640068890911961088,"2021-12-21,06:41:30",10.1.1.8,364,-0.460,-0.460,-0.460,0.000,0.000,0.000
1640068891063805952,"2021-12-21,06:41:31",10.1.1.8,0.5167050361633301,-0.460,-0.460,-0.460,0.000,0.000,0.000
1640068891448291072,"2021-12-21,06:41:31",10.1.1.8,381,-0.470,-0.470,-0.470,0.000,0.000,0.000
1640068891545978112,"2021-12-21,06:41:31",10.1.1.8,0.48090696334838867,-0.470,-0.470,-0.470,0.000,0.000,0.000
1640068891895068928,"2021-12-21,06:41:31",10.1.1.8,346,-0.480,-0.480,-0.480,0.000,0.000,0.000
1640068891957017856,"2021-12-21,06:41:31",10.1.1.8,0.40855884552001953,-0.480,-0.480,-0.480,0.000,0.000,0.000
1640068892368345856,"2021-12-21,06:41:32",10.1.1.8,409,-0.490,-0.490,-0.490,0.000,0.000,0.000
1640068892403036160,"2021-12-21,06:41:32",10.1.1.8,0.4443960189819336,-0.490,-0.490,-0.490,0.000,0.000,0.000
1640068892734468864,"2021-12-21,06:41:32",10.1.1.8,329,-0.480,-0.480,-0.480,0.000,0.000,0.000
1640068892807318016,"2021-12-21,06:41:32",10.1.1.8,0.4026660919189453,-0.480,-0.480,-0.480,0.000,0.000,0.000
1640068893225059072,"2021-12-21,06:41:33",10.1.1.8,405,-0.470,-0.470,-0.470,0.000,0.000,0.000
1640068893282164224,"2021-12-21,06:41:33",10.1.1.8,0.46245813369750977,-0.470,-0.470,-0.470,0.000,0.000,0.000
1640068893721425920,"2021-12-21,06:41:33",10.1.1.8,436,-0.460,-0.460,-0.460,0.000,0.000,0.000
1640068893758853888,"2021-12-21,06:41:33",10.1.1.8,0.4744710922241211,-0.460,-0.460,-0.460,0.000,0.000,0.000
1640068894117767936,"2021-12-21,06:41:34",10.1.1.8,350,-0.450,-0.450,-0.450,0.000,0.000,0.000
1640068894197832960,"2021-12-21,06:41:34",10.1.1.8,0.42702817916870117,-0.450,-0.450,-0.450,0.000,0.000,0.000
1640068894594166016,"2021-12-21,06:41:34",10.1.1.8,391,-0.440,-0.440,-0.440,0.000,0.000,0.000
1640068894645509888,"2021-12-21,06:41:34",10.1.1.8,0.4428400993347168,-0.440,-0.440,-0.440,0.000,0.000,0.000
1640068895074904832,"2021-12-21,06:41:35",10.1.1.8,426,-0.430,-0.430,-0.430,0.000,0.000,0.000
1640068895123454208,"2021-12-21,06:41:35",10.1.1.8,0.4752650260925293,-0.430,-0.430,-0.430,0.000,0.000,0.000
1640068895444241152,"2021-12-21,06:41:35",10.1.1.8,317,-0.420,-0.420,-0.420,0.000,0.000,0.000
1640068895553381888,"2021-12-21,06:41:35",10.1.1.8,0.42847609519958496,-0.420,-0.420,-0.420,0.000,0.000,0.000
1640068895943437056,"2021-12-21,06:41:35",10.1.1.8,383,-0.410,-0.410,-0.410,0.000,0.000,0.000
1640068895986115072,"2021-12-21,06:41:35",10.1.1.8,0.4265258312225342,-0.410,-0.410,-0.410,0.000,0.000,0.000
1640068896351813120,"2021-12-21,06:41:36",10.1.1.8,349,-0.400,-0.400,-0.400,0.000,0.000,0.000
1640068896485100032,"2021-12-21,06:41:36",10.1.1.8,0.48284387588500977,-0.400,-0.400,-0.400,0.000,0.000,0.000
1640068896853758976,"2021-12-21,06:41:36",10.1.1.8,362,-0.390,-0.390,-0.390,0.000,0.000,0.000
1640068896900692992,"2021-12-21,06:41:36",10.1.1.8,0.41152095794677734,-0.390,-0.390,-0.390,0.000,0.000,0.000
1640068897311809024,"2021-12-21,06:41:37",10.1.1.8,404,-0.380,-0.380,-0.380,0.000,0.000,0.000
1640068897364800000,"2021-12-21,06:41:37",10.1.1.8,0.4569869041442871,-0.380,-0.380,-0.380,0.000,0.000,0.000
1640068897732748032,"2021-12-21,06:41:37",10.1.1.8,366,-0.370,-0.370,-0.370,0.000,0.000,0.000
1640068897805502976,"2021-12-21,06:41:37",10.1.1.8,0.4392099380493164,-0.370,-0.370,-0.370,0.000,0.000,0.000
1640068898160301056,"2021-12-21,06:41:38",10.1.1.8,352,-0.360,-0.360,-0.360,0.000,0.000,0.000
1640068898254323968,"2021-12-21,06:41:38",10.1.1.8,0.4466099739074707,-0.360,-0.360,-0.360,0.000,0.000,0.000
1640068898600468992,"2021-12-21,06:41:38",10.1.1.8,343,-0.350,-0.350,-0.350,0.000,0.000,0.000
1640068898678252032,"2021-12-21,06:41:38",10.1.1.8,0.4209859371185303,-0.350,-0.350,-0.350,0.000,0.000,0.000
1640068899066637056,"2021-12-21,06:41:39",10.1.1.8,386,-0.340,-0.340,-0.340,0.000,0.000,0.000
1640068899132638976,"2021-12-21,06:41:39",10.1.1.8,0.45287108421325684,-0.340,-0.340,-0.340,0.000,0.000,0.000
1640068899508732160,"2021-12-21,06:41:39",10.1.1.8,374,-0.330,-0.330,-0.330,0.000,0.000,0.000
1640068899566787072,"2021-12-21,06:41:39",10.1.1.8,0.4323101043701172,-0.330,-0.330,-0.330,0.000,0.000,0.000
1640068899897042944,"2021-12-21,06:41:39",10.1.1.8,328,-0.320,-0.320,-0.320,0.000,0.000,0.000
1640068899936713984,"2021-12-21,06:41:39",10.1.1.8,0.3679630756378174,-0.320,-0.320,-0.320,0.000,0.000,0.000
1640068900287725056,"2021-12-21,06:41:40",10.1.1.8,349,-0.310,-0.310,-0.310,0.000,0.000,0.000
1640068900344055808,"2021-12-21,06:41:40",10.1.1.8,0.4058539867401123,-0.310,-0.310,-0.310,0.000,0.000,0.000
1640068900667319040,"2021-12-21,06:41:40",10.1.1.8,321,-0.300,-0.300,-0.300,0.000,0.000,0.000
1640068900757137152,"2021-12-21,06:41:40",10.1.1.8,0.4108741283416748,-0.300,-0.300,-0.300,0.000,0.000,0.000
1640068901143013120,"2021-12-21,06:41:41",10.1.1.8,383,-0.290,-0.290,-0.290,0.000,0.000,0.000
1640068901232934912,"2021-12-21,06:41:41",10.1.1.8,0.4736959934234619,-0.290,-0.290,-0.290,0.000,0.000,0.000
1640068901686343936,"2021-12-21,06:41:41",10.1.1.8,450,-0.280,-0.280,-0.280,0.000,0.000,0.000
1640068901760559104,"2021-12-21,06:41:41",10.1.1.8,0.5252470970153809,-0.280,-0.280,-0.280,0.000,0.000,0.000
1640068902092986112,"2021-12-21,06:41:42",10.1.1.8,330,-0.270,-0.270,-0.270,0.000,0.000,0.000
1640068902176300032,"2021-12-21,06:41:42",10.1.1.8,0.4140439033508301,-0.270,-0.270,-0.270,0.000,0.000,0.000
1640068902515214848,"2021-12-21,06:41:42",10.1.1.8,332,-0.260,-0.260,-0.260,0.000,0.000,0.000
1640068902601541120,"2021-12-21,06:41:42",10.1.1.8,0.4193539619445801,-0.260,-0.260,-0.260,0.000,0.000,0.000
1640068902994324992,"2021-12-21,06:41:42",10.1.1.8,390,-0.250,-0.250,-0.250,0.000,0.000,0.000
1640068903021265152,"2021-12-21,06:41:43",10.1.1.8,0.4169881343841553,-0.250,-0.250,-0.250,0.000,0.000,0.000
1640068903403734016,"2021-12-21,06:41:43",10.1.1.8,366,-0.240,-0.240,-0.240,0.000,0.000,0.000
1640068903472681984,"2021-12-21,06:41:43",10.1.1.8,0.4359769821166992,-0.240,-0.240,-0.240,0.000,0.000,0.000
1640068903828048896,"2021-12-21,06:41:43",10.1.1.8,353,-0.230,-0.230,-0.230,0.000,0.000,0.000
1640068903938985984,"2021-12-21,06:41:43",10.1.1.8,0.4647040367126465,-0.230,-0.230,-0.230,0.000,0.000,0.000
1640068904445199872,"2021-12-21,06:41:44",10.1.1.8,504,-0.220,-0.220,-0.220,0.000,0.000,0.000
1640068904540101120,"2021-12-21,06:41:44",10.1.1.8,0.5998120307922363,-0.220,-0.220,-0.220,0.000,0.000,0.000
1640068904921714176,"2021-12-21,06:41:44",10.1.1.8,379,-0.210,-0.210,-0.210,0.000,0.000,0.000
1640068905039531008,"2021-12-21,06:41:45",10.1.1.8,0.49721598625183105,-0.210,-0.210,-0.210,0.000,0.000,0.000
1640068905441217792,"2021-12-21,06:41:45",10.1.1.8,399,-0.200,-0.200,-0.200,0.000,0.000,0.000
1640068905556958976,"2021-12-21,06:41:45",10.1.1.8,0.5148739814758301,-0.200,-0.200,-0.200,0.000,0.000,0.000
1640068906062323968,"2021-12-21,06:41:46",10.1.1.8,502,-0.190,-0.190,-0.190,0.000,0.000,0.000
1640068906107431936,"2021-12-21,06:41:46",10.1.1.8,0.547368049621582,-0.190,-0.190,-0.190,0.000,0.000,0.000
1640068906539491840,"2021-12-21,06:41:46",10.1.1.8,429,-0.180,-0.180,-0.180,0.000,0.000,0.000
1640068906573314816,"2021-12-21,06:41:46",10.1.1.8,0.46297693252563477,-0.180,-0.180,-0.180,0.000,0.000,0.000
1640068906898148096,"2021-12-21,06:41:46",10.1.1.8,322,-0.170,-0.170,-0.170,0.000,0.000,0.000
1640068906996649984,"2021-12-21,06:41:46",10.1.1.8,0.4211161136627197,-0.170,-0.170,-0.170,0.000,0.000,0.000
1640068907379600896,"2021-12-21,06:41:47",10.1.1.8,380,-0.160,-0.160,-0.160,0.000,0.000,0.000
1640068907465203968,"2021-12-21,06:41:47",10.1.1.8,0.46601295471191406,-0.160,-0.160,-0.160,0.000,0.000,0.000
1640068907829672192,"2021-12-21,06:41:47",10.1.1.8,356,-0.150,-0.150,-0.150,0.000,0.000,0.000
1640068907906455040,"2021-12-21,06:41:47",10.1.1.8,0.4359269142150879,-0.150,-0.150,-0.150,0.000,0.000,0.000
1640068908196884992,"2021-12-21,06:41:48",10.1.1.8,280,-0.140,-0.140,-0.140,0.000,0.000,0.000
1640068908274017024,"2021-12-21,06:41:48",10.1.1.8,0.35791993141174316,-0.140,-0.140,-0.140,0.000,0.000,0.000
1640068908656820992,"2021-12-21,06:41:48",10.1.1.8,376,-0.130,-0.130,-0.130,0.000,0.000,0.000
1640068908703412992,"2021-12-21,06:41:48",10.1.1.8,0.423663854598999,-0.130,-0.130,-0.130,0.000,0.000,0.000
1640068909059613952,"2021-12-21,06:41:49",10.1.1.8,353,-0.120,-0.120,-0.120,0.000,0.000,0.000
1640068909113838848,"2021-12-21,06:41:49",10.1.1.8,0.40829896926879883,-0.120,-0.120,-0.120,0.000,0.000,0.000
1640068909435774976,"2021-12-21,06:41:49",10.1.1.8,317,-0.110,-0.110,-0.110,0.000,0.000,0.000
1640068909536751872,"2021-12-21,06:41:49",10.1.1.8,0.4198019504547119,-0.110,-0.110,-0.110,0.000,0.000,0.000
1640068909843600896,"2021-12-21,06:41:49",10.1.1.8,304,-0.100,-0.100,-0.100,0.000,0.000,0.000
1640068909881155840,"2021-12-21,06:41:49",10.1.1.8,0.3421640396118164,-0.100,-0.100,-0.100,0.000,0.000,0.000
1640068910243358976,"2021-12-21,06:41:50",10.1.1.8,359,-0.090,-0.090,-0.090,0.000,0.000,0.000
1640068910318916096,"2021-12-21,06:41:50",10.1.1.8,0.4355950355529785,-0.090,-0.090,-0.090,0.000,0.000,0.000
1640068910703465984,"2021-12-21,06:41:50",10.1.1.8,382,-0.080,-0.080,-0.080,0.000,0.000,0.000
1640068910776908032,"2021-12-21,06:41:50",10.1.1.8,0.4521811008453369,-0.080,-0.080,-0.080,0.000,0.000,0.000
1640068911161745152,"2021-12-21,06:41:51",10.1.1.8,383,-0.070,-0.070,-0.070,0.000,0.000,0.000
1640068911239921152,"2021-12-21,06:41:51",10.1.1.8,0.46134185791015625,-0.070,-0.070,-0.070,0.000,0.000,0.000
1640068911621982208,"2021-12-21,06:41:51",10.1.1.8,380,-0.060,-0.060,-0.060,0.000,0.000,0.000
1640068911663098112,"2021-12-21,06:41:51",10.1.1.8,0.41802310943603516,-0.060,-0.060,-0.060,0.000,0.000,0.000
1640068912022594048,"2021-12-21,06:41:52",10.1.1.8,353,-0.050,-0.050,-0.050,0.000,0.000,0.000
1640068912127793920,"2021-12-21,06:41:52",10.1.1.8,0.4585249423980713,-0.050,-0.050,-0.050,0.000,0.000,0.000
1640068912481470208,"2021-12-21,06:41:52",10.1.1.8,352,-0.040,-0.040,-0.040,0.000,0.000,0.000
1640068912601652992,"2021-12-21,06:41:52",10.1.1.8,0.4722621440887451,-0.040,-0.040,-0.040,0.000,0.000,0.000
1640068912985307904,"2021-12-21,06:41:52",10.1.1.8,381,-0.030,-0.030,-0.030,0.000,0.000,0.000
1640068913035474176,"2021-12-21,06:41:53",10.1.1.8,0.43179893493652344,-0.030,-0.030,-0.030,0.000,0.000,0.000
