FedericoMungari/DigitalTwin_service/01_WiredScenario/Output/Output_script/script_rosapi_2_output_robots10_freq0_1.txt
timestamp,date,node,latency,joint_1,joint_2,joint_3,joint_4,joint_5,joint_6
1644362129207865856,2022-02-08-23:15:29,10.1.1.2,6,-0.100,-0.100,-0.100,-0.000,0.000,0.000
1644362129327200768,2022-02-08-23:15:29,10.1.1.2,26,-0.090,-0.090,-0.090,0.000,0.000,0.000
1644362129427169024,2022-02-08-23:15:29,10.1.1.2,25,-0.080,-0.080,-0.080,0.000,0.000,0.000
1644362129527453952,2022-02-08-23:15:29,10.1.1.2,25,-0.070,-0.070,-0.070,0.000,0.000,0.000
1644362129627142912,2022-02-08-23:15:29,10.1.1.2,24,-0.060,-0.060,-0.060,0.000,0.000,0.000
1644362130547216896,2022-02-08-23:15:30,10.1.1.2,39,0.030,0.030,0.030,0.000,0.000,0.000
1644362130646861056,2022-02-08-23:15:30,10.1.1.2,39,0.040,0.040,0.040,0.000,0.000,0.000
1644362130749229824,2022-02-08-23:15:30,10.1.1.2,39,0.050,0.050,0.050,0.000,0.000,0.000
1644362130846713088,2022-02-08-23:15:30,10.1.1.2,38,0.060,0.060,0.060,0.000,0.000,0.000
1644362130947138048,2022-02-08-23:15:30,10.1.1.2,37,0.070,0.070,0.070,0.000,0.000,0.000
1644362131046874880,2022-02-08-23:15:31,10.1.1.2,37,0.080,0.080,0.080,0.000,0.000,0.000
1644362131147612160,2022-02-08-23:15:31,10.1.1.2,36,0.090,0.090,0.090,0.000,0.000,0.000
1644362131247164928,2022-02-08-23:15:31,10.1.1.2,36,0.100,0.100,0.100,0.000,0.000,0.000
1644362131362051840,2022-02-08-23:15:31,10.1.1.2,35,0.090,0.090,0.090,0.000,0.000,0.000
1644362131747334912,2022-02-08-23:15:31,10.1.1.2,32,0.050,0.050,0.050,0.000,0.000,0.000
1644362131867301888,2022-02-08-23:15:31,10.1.1.2,37,0.040,0.040,0.040,0.000,0.000,0.000
1644362131967457024,2022-02-08-23:15:31,10.1.1.2,36,0.030,0.030,0.030,0.000,0.000,0.000
1644362132068460032,2022-02-08-23:15:32,10.1.1.2,36,0.020,0.020,0.020,0.000,0.000,0.000
1644362132167431168,2022-02-08-23:15:32,10.1.1.2,35,0.010,0.010,0.010,0.000,0.000,0.000
1644362133068419072,2022-02-08-23:15:33,10.1.1.2,30,-0.080,-0.080,-0.080,0.000,0.000,0.000
1644362133167133184,2022-02-08-23:15:33,10.1.1.2,29,-0.090,-0.090,-0.090,0.000,0.000,0.000
1644362133268214016,2022-02-08-23:15:33,10.1.1.2,28,-0.100,-0.100,-0.100,0.000,0.000,0.000
1644362133366856960,2022-02-08-23:15:33,10.1.1.2,28,-0.090,-0.090,-0.090,0.000,0.000,0.000
1644362133467001856,2022-02-08-23:15:33,10.1.1.2,27,-0.080,-0.080,-0.080,0.000,0.000,0.000
1644362133567259904,2022-02-08-23:15:33,10.1.1.2,27,-0.070,-0.070,-0.070,0.000,0.000,0.000
1644362133666942976,2022-02-08-23:15:33,10.1.1.2,26,-0.060,-0.060,-0.060,0.000,0.000,0.000
1644362133767134976,2022-02-08-23:15:33,10.1.1.2,26,-0.050,-0.050,-0.050,0.000,0.000,0.000
1644362133867141888,2022-02-08-23:15:33,10.1.1.2,26,-0.040,-0.040,-0.040,0.000,0.000,0.000
1644362133966733824,2022-02-08-23:15:33,10.1.1.2,25,-0.030,-0.030,-0.030,0.000,0.000,0.000
1644362134066940928,2022-02-08-23:15:34,10.1.1.2,25,-0.020,-0.020,-0.020,0.000,0.000,0.000
1644362134867558912,2022-02-08-23:15:34,10.1.1.2,20,0.060,0.060,0.060,0.000,0.000,0.000
1644362134989459968,2022-02-08-23:15:34,10.1.1.2,38,0.070,0.070,0.070,0.000,0.000,0.000
1644362135086739968,2022-02-08-23:15:35,10.1.1.2,37,0.080,0.080,0.080,0.000,0.000,0.000
1644362135187112960,2022-02-08-23:15:35,10.1.1.2,37,0.090,0.090,0.090,0.000,0.000,0.000
1644362135287394048,2022-02-08-23:15:35,10.1.1.2,36,0.100,0.100,0.100,0.000,0.000,0.000
1644362135386904064,2022-02-08-23:15:35,10.1.1.2,36,0.090,0.090,0.090,0.000,0.000,0.000
1644362135487195904,2022-02-08-23:15:35,10.1.1.2,35,0.080,0.080,0.080,0.000,0.000,0.000
1644362135587270144,2022-02-08-23:15:35,10.1.1.2,35,0.070,0.070,0.070,0.000,0.000,0.000
1644362135687900160,2022-02-08-23:15:35,10.1.1.2,35,0.060,0.060,0.060,0.000,0.000,0.000
1644362136789076992,2022-02-08-23:15:36,10.1.1.2,28,-0.050,-0.050,-0.050,0.000,0.000,0.000
1644362136887769088,2022-02-08-23:15:36,10.1.1.2,27,-0.060,-0.060,-0.060,0.000,0.000,0.000
1644362136987934208,2022-02-08-23:15:36,10.1.1.2,27,-0.070,-0.070,-0.070,0.000,0.000,0.000
1644362137087152896,2022-02-08-23:15:37,10.1.1.2,26,-0.080,-0.080,-0.080,0.000,0.000,0.000
1644362137187286016,2022-02-08-23:15:37,10.1.1.2,25,-0.090,-0.090,-0.090,0.000,0.000,0.000
1644362137376283904,2022-02-08-23:15:37,10.1.1.2,-16,-0.090,-0.090,-0.090,0.000,0.000,0.000
1644362138106781952,2022-02-08-23:15:38,10.1.1.2,39,-0.020,-0.020,-0.020,0.000,0.000,0.000
1644362138207035904,2022-02-08-23:15:38,10.1.1.2,39,-0.010,-0.010,-0.010,0.000,0.000,0.000
1644362138317255936,2022-02-08-23:15:38,10.1.1.2,47,0.000,0.000,0.000,0.000,0.000,0.000
1644362138407659008,2022-02-08-23:15:38,10.1.1.2,37,0.010,0.010,0.010,0.000,0.000,0.000
1644362138507420160,2022-02-08-23:15:38,10.1.1.2,37,0.020,0.020,0.020,0.000,0.000,0.000
1644362138606617088,2022-02-08-23:15:38,10.1.1.2,36,0.030,0.030,0.030,0.000,0.000,0.000
1644362138707246080,2022-02-08-23:15:38,10.1.1.2,36,0.040,0.040,0.040,0.000,0.000,0.000
1644362138806595072,2022-02-08-23:15:38,10.1.1.2,35,0.050,0.050,0.050,0.000,0.000,0.000
1644362139326445056,2022-02-08-23:15:39,10.1.1.2,38,0.100,0.100,0.100,0.000,0.000,0.000
1644362139427046144,2022-02-08-23:15:39,10.1.1.2,37,0.090,0.090,0.090,0.000,0.000,0.000
1644362139526777856,2022-02-08-23:15:39,10.1.1.2,37,0.080,0.080,0.080,0.000,0.000,0.000
1644362139628002048,2022-02-08-23:15:39,10.1.1.2,36,0.070,0.070,0.070,0.000,0.000,0.000
1644362140727150080,2022-02-08-23:15:40,10.1.1.2,28,-0.040,-0.040,-0.040,0.000,0.000,0.000
1644362140827693824,2022-02-08-23:15:40,10.1.1.2,28,-0.050,-0.050,-0.050,0.000,0.000,0.000
1644362141827716096,2022-02-08-23:15:41,10.1.1.2,20,-0.050,-0.050,-0.050,0.000,0.000,0.000
1644362142052172032,2022-02-08-23:15:42,10.1.1.2,44,-0.030,-0.030,-0.030,0.000,0.000,0.000
1644362142150568960,2022-02-08-23:15:42,10.1.1.2,38,-0.020,-0.020,-0.020,0.000,0.000,0.000
1644362142247865856,2022-02-08-23:15:42,10.1.1.2,38,-0.010,-0.010,-0.010,0.000,0.000,0.000
1644362142347672832,2022-02-08-23:15:42,10.1.1.2,38,-0.000,-0.000,-0.000,0.000,0.000,0.000
1644362142448039168,2022-02-08-23:15:42,10.1.1.2,36,0.010,0.010,0.010,0.000,0.000,0.000
1644362142547207168,2022-02-08-23:15:42,10.1.1.2,36,0.020,0.020,0.020,0.000,0.000,0.000
1644362142647519232,2022-02-08-23:15:42,10.1.1.2,35,0.030,0.030,0.030,0.000,0.000,0.000
1644362143547595008,2022-02-08-23:15:43,10.1.1.2,28,0.080,0.080,0.080,0.000,0.000,0.000
1644362143747891968,2022-02-08-23:15:43,10.1.1.2,25,0.060,0.060,0.060,0.000,0.000,0.000
1644362144767149824,2022-02-08-23:15:44,10.1.1.2,39,-0.040,-0.040,-0.040,0.000,0.000,0.000
1644362144866769920,2022-02-08-23:15:44,10.1.1.2,38,-0.050,-0.050,-0.050,0.000,0.000,0.000
1644362144967000064,2022-02-08-23:15:44,10.1.1.2,38,-0.060,-0.060,-0.060,0.000,0.000,0.000
1644362145067959040,2022-02-08-23:15:45,10.1.1.2,37,-0.070,-0.070,-0.070,0.000,0.000,0.000
1644362145646970880,2022-02-08-23:15:45,10.1.1.2,9,-0.070,-0.070,-0.070,0.000,0.000,0.000
1644362145767534080,2022-02-08-23:15:45,10.1.1.2,28,-0.060,-0.060,-0.060,0.000,0.000,0.000
1644362145866766848,2022-02-08-23:15:45,10.1.1.2,28,-0.050,-0.050,-0.050,0.000,0.000,0.000
1644362145966835968,2022-02-08-23:15:45,10.1.1.2,27,-0.040,-0.040,-0.040,0.000,0.000,0.000
1644362146066641152,2022-02-08-23:15:46,10.1.1.2,27,-0.030,-0.030,-0.030,0.000,0.000,0.000
1644362146167218944,2022-02-08-23:15:46,10.1.1.2,26,-0.020,-0.020,-0.020,0.000,0.000,0.000
1644362146267069952,2022-02-08-23:15:46,10.1.1.2,26,-0.010,-0.010,-0.010,0.000,0.000,0.000
1644362146366774016,2022-02-08-23:15:46,10.1.1.2,25,0.000,0.000,0.000,0.000,0.000,0.000
1644362146471494912,2022-02-08-23:15:46,10.1.1.2,25,0.010,0.010,0.010,0.000,0.000,0.000
1644362148228830208,2022-02-08-23:15:48,10.1.1.2,31,0.020,0.020,0.020,0.000,0.000,0.000
1644362148436414976,2022-02-08-23:15:48,10.1.1.2,28,0.000,0.000,0.000,0.000,0.000,0.000
1644362148528008960,2022-02-08-23:15:48,10.1.1.2,27,-0.010,-0.010,-0.010,0.000,0.000,0.000
1644362148767072000,2022-02-08-23:15:48,10.1.1.2,37,-0.030,-0.030,-0.030,0.000,0.000,0.000
1644362148867603968,2022-02-08-23:15:48,10.1.1.2,37,-0.040,-0.040,-0.040,0.000,0.000,0.000
1644362148967235072,2022-02-08-23:15:48,10.1.1.2,37,-0.050,-0.050,-0.050,0.000,0.000,0.000
1644362149266916864,2022-02-08-23:15:49,10.1.1.2,28,-0.080,-0.080,-0.080,0.000,0.000,0.000
1644362149367543808,2022-02-08-23:15:49,10.1.1.2,27,-0.090,-0.090,-0.090,0.000,0.000,0.000
1644362149549637120,2022-02-08-23:15:49,10.1.1.2,2,-0.090,-0.090,-0.090,0.000,0.000,0.000
1644362149690396928,2022-02-08-23:15:49,10.1.1.2,39,-0.080,-0.080,-0.080,0.000,0.000,0.000
1644362150130502912,2022-02-08-23:15:50,10.1.1.2,37,-0.040,-0.040,-0.040,0.000,0.000,0.000
1644362150227323136,2022-02-08-23:15:50,10.1.1.2,35,-0.030,-0.030,-0.030,0.000,0.000,0.000
1644362150326972928,2022-02-08-23:15:50,10.1.1.2,35,-0.020,-0.020,-0.020,0.000,0.000,0.000
1644362150827002112,2022-02-08-23:15:50,10.1.1.2,28,0.030,0.030,0.030,0.000,0.000,0.000
1644362150928091136,2022-02-08-23:15:50,10.1.1.2,28,0.040,0.040,0.040,0.000,0.000,0.000
1644362151647571968,2022-02-08-23:15:51,10.1.1.2,27,0.090,0.090,0.090,0.000,0.000,0.000
1644362151748251904,2022-02-08-23:15:51,10.1.1.2,26,0.080,0.080,0.080,0.000,0.000,0.000
1644362151847014912,2022-02-08-23:15:51,10.1.1.2,25,0.070,0.070,0.070,0.000,0.000,0.000
1644362151948000000,2022-02-08-23:15:51,10.1.1.2,25,0.060,0.060,0.060,0.000,0.000,0.000
1644362152247903232,2022-02-08-23:15:52,10.1.1.2,20,0.030,0.030,0.030,0.000,0.000,0.000
1644362152369849856,2022-02-08-23:15:52,10.1.1.2,38,0.020,0.020,0.020,0.000,0.000,0.000
1644362152467938816,2022-02-08-23:15:52,10.1.1.2,38,0.010,0.010,0.010,0.000,0.000,0.000
1644362152570754048,2022-02-08-23:15:52,10.1.1.2,38,0.000,0.000,0.000,0.000,0.000,0.000
1644362152666914048,2022-02-08-23:15:52,10.1.1.2,38,-0.010,-0.010,-0.010,0.000,0.000,0.000
1644362152770711808,2022-02-08-23:15:52,10.1.1.2,37,-0.020,-0.020,-0.020,0.000,0.000,0.000
1644362152867193856,2022-02-08-23:15:52,10.1.1.2,37,-0.030,-0.030,-0.030,0.000,0.000,0.000
1644362152967245056,2022-02-08-23:15:52,10.1.1.2,36,-0.040,-0.040,-0.040,0.000,0.000,0.000
1644362153114761984,2022-02-08-23:15:53,10.1.1.2,36,-0.050,-0.050,-0.050,0.000,0.000,0.000
1644362153166699008,2022-02-08-23:15:53,10.1.1.2,35,-0.060,-0.060,-0.060,0.000,0.000,0.000
1644362153767691008,2022-02-08-23:15:53,10.1.1.2,27,-0.080,-0.080,-0.080,0.000,0.000,0.000
1644362153866908928,2022-02-08-23:15:53,10.1.1.2,26,-0.070,-0.070,-0.070,0.000,0.000,0.000
1644362153968604928,2022-02-08-23:15:53,10.1.1.2,26,-0.060,-0.060,-0.060,0.000,0.000,0.000
1644362154068561920,2022-02-08-23:15:54,10.1.1.2,25,-0.050,-0.050,-0.050,0.000,0.000,0.000
1644362154167727104,2022-02-08-23:15:54,10.1.1.2,25,-0.040,-0.040,-0.040,0.000,0.000,0.000
1644362155188416000,2022-02-08-23:15:55,10.1.1.2,39,0.060,0.060,0.060,0.000,0.000,0.000
1644362155324898048,2022-02-08-23:15:55,10.1.1.2,38,0.070,0.070,0.070,0.000,0.000,0.000
1644362155387460864,2022-02-08-23:15:55,10.1.1.2,37,0.080,0.080,0.080,0.000,0.000,0.000
1644362155487431168,2022-02-08-23:15:55,10.1.1.2,37,0.090,0.090,0.090,0.000,0.000,0.000
1644362155587328000,2022-02-08-23:15:55,10.1.1.2,36,0.100,0.100,0.100,0.000,0.000,0.000
1644362155687366912,2022-02-08-23:15:55,10.1.1.2,36,0.090,0.090,0.090,0.000,0.000,0.000
1644362155788049920,2022-02-08-23:15:55,10.1.1.2,36,0.080,0.080,0.080,0.000,0.000,0.000
1644362155887584000,2022-02-08-23:15:55,10.1.1.2,35,0.070,0.070,0.070,0.000,0.000,0.000
1644362155987063808,2022-02-08-23:15:55,10.1.1.2,35,0.060,0.060,0.060,0.000,0.000,0.000
1644362156087579136,2022-02-08-23:15:56,10.1.1.2,35,0.050,0.050,0.050,0.000,0.000,0.000
1644362156787979008,2022-02-08-23:15:56,10.1.1.2,29,-0.020,-0.020,-0.020,0.000,0.000,0.000
1644362156887187968,2022-02-08-23:15:56,10.1.1.2,29,-0.030,-0.030,-0.030,0.000,0.000,0.000
1644362156987298048,2022-02-08-23:15:56,10.1.1.2,28,-0.040,-0.040,-0.040,0.000,0.000,0.000
1644362157087596032,2022-02-08-23:15:57,10.1.1.2,28,-0.050,-0.050,-0.050,0.000,0.000,0.000
1644362158107414016,2022-02-08-23:15:58,10.1.1.2,10,-0.050,-0.050,-0.050,0.000,0.000,0.000
1644362158227727872,2022-02-08-23:15:58,10.1.1.2,29,-0.040,-0.040,-0.040,0.000,0.000,0.000
1644362158327748096,2022-02-08-23:15:58,10.1.1.2,28,-0.030,-0.030,-0.030,0.000,0.000,0.000
1644362158427373824,2022-02-08-23:15:58,10.1.1.2,28,-0.020,-0.020,-0.020,0.000,0.000,0.000
1644362158530711808,2022-02-08-23:15:58,10.1.1.2,27,-0.010,-0.010,-0.010,0.000,0.000,0.000
1644362158627501056,2022-02-08-23:15:58,10.1.1.2,26,0.000,0.000,0.000,0.000,0.000,0.000
1644362158727570176,2022-02-08-23:15:58,10.1.1.2,26,0.010,0.010,0.010,0.000,0.000,0.000
1644362158831019008,2022-02-08-23:15:58,10.1.1.2,26,0.020,0.020,0.020,0.000,0.000,0.000
1644362158928514048,2022-02-08-23:15:58,10.1.1.2,25,0.030,0.030,0.030,0.000,0.000,0.000
1644362160027033088,2022-02-08-23:16:00,10.1.1.2,20,0.060,0.060,0.060,0.000,0.000,0.000
1644362160147460864,2022-02-08-23:16:00,10.1.1.2,39,0.050,0.050,0.050,0.000,0.000,0.000
1644362160247240960,2022-02-08-23:16:00,10.1.1.2,39,0.040,0.040,0.040,0.000,0.000,0.000
1644362160347215872,2022-02-08-23:16:00,10.1.1.2,38,0.030,0.030,0.030,0.000,0.000,0.000
1644362160448065024,2022-02-08-23:16:00,10.1.1.2,38,0.020,0.020,0.020,0.000,0.000,0.000
1644362160548782080,2022-02-08-23:16:00,10.1.1.2,38,0.010,0.010,0.010,0.000,0.000,0.000
1644362160647109888,2022-02-08-23:16:00,10.1.1.2,37,0.000,0.000,0.000,0.000,0.000,0.000
1644362160747934208,2022-02-08-23:16:00,10.1.1.2,36,-0.010,-0.010,-0.010,0.000,0.000,0.000
1644362160848615936,2022-02-08-23:16:00,10.1.1.2,35,-0.020,-0.020,-0.020,0.000,0.000,0.000
1644362160948098816,2022-02-08-23:16:00,10.1.1.2,35,-0.030,-0.030,-0.030,0.000,0.000,0.000
1644362161747761920,2022-02-08-23:16:01,10.1.1.2,30,-0.090,-0.090,-0.090,0.000,0.000,0.000
1644362161846803968,2022-02-08-23:16:01,10.1.1.2,30,-0.080,-0.080,-0.080,0.000,0.000,0.000
1644362161947101184,2022-02-08-23:16:01,10.1.1.2,30,-0.070,-0.070,-0.070,0.000,0.000,0.000
1644362162047749120,2022-02-08-23:16:02,10.1.1.2,29,-0.060,-0.060,-0.060,0.000,0.000,0.000
1644362162146863104,2022-02-08-23:16:02,10.1.1.2,28,-0.050,-0.050,-0.050,0.000,0.000,0.000
1644362162251688960,2022-02-08-23:16:02,10.1.1.2,28,-0.040,-0.040,-0.040,0.000,0.000,0.000
1644362162359970048,2022-02-08-23:16:02,10.1.1.2,27,-0.030,-0.030,-0.030,0.000,0.000,0.000
1644362162446886912,2022-02-08-23:16:02,10.1.1.2,26,-0.020,-0.020,-0.020,0.000,0.000,0.000
1644362162546833152,2022-02-08-23:16:02,10.1.1.2,26,-0.010,-0.010,-0.010,0.000,0.000,0.000
1644362162646646016,2022-02-08-23:16:02,10.1.1.2,25,0.000,0.000,0.000,0.000,0.000,0.000
1644362163666960128,2022-02-08-23:16:03,10.1.1.2,39,0.100,0.100,0.100,0.000,0.000,0.000
1644362163766742016,2022-02-08-23:16:03,10.1.1.2,39,0.090,0.090,0.090,0.000,0.000,0.000
1644362163866631936,2022-02-08-23:16:03,10.1.1.2,38,0.080,0.080,0.080,0.000,0.000,0.000
1644362163967372800,2022-02-08-23:16:03,10.1.1.2,38,0.070,0.070,0.070,0.000,0.000,0.000
1644362164067012096,2022-02-08-23:16:04,10.1.1.2,37,0.060,0.060,0.060,0.000,0.000,0.000
1644362164166113024,2022-02-08-23:16:04,10.1.1.2,36,0.050,0.050,0.050,0.000,0.000,0.000
1644362164266918912,2022-02-08-23:16:04,10.1.1.2,35,0.040,0.040,0.040,0.000,0.000,0.000
1644362164366525952,2022-02-08-23:16:04,10.1.1.2,34,0.030,0.030,0.030,0.000,0.000,0.000
1644362165567650048,2022-02-08-23:16:05,10.1.1.2,29,-0.090,-0.090,-0.090,0.000,0.000,0.000
1644362165666567168,2022-02-08-23:16:05,10.1.1.2,28,-0.100,-0.100,-0.100,0.000,0.000,0.000
1644362165767472896,2022-02-08-23:16:05,10.1.1.2,28,-0.090,-0.090,-0.090,0.000,0.000,0.000
1644362165867489024,2022-02-08-23:16:05,10.1.1.2,26,-0.080,-0.080,-0.080,0.000,0.000,0.000
1644362165966849024,2022-02-08-23:16:05,10.1.1.2,26,-0.070,-0.070,-0.070,0.000,0.000,0.000
1644362166067014912,2022-02-08-23:16:06,10.1.1.2,25,-0.060,-0.060,-0.060,0.000,0.000,0.000
1644362167186363904,2022-02-08-23:16:07,10.1.1.2,39,0.050,0.050,0.050,0.000,0.000,0.000
1644362167287122944,2022-02-08-23:16:07,10.1.1.2,39,0.060,0.060,0.060,0.000,0.000,0.000
1644362167386498048,2022-02-08-23:16:07,10.1.1.2,38,0.070,0.070,0.070,0.000,0.000,0.000
1644362167587044096,2022-02-08-23:16:07,10.1.1.2,36,0.090,0.090,0.090,0.000,0.000,0.000
1644362167686630912,2022-02-08-23:16:07,10.1.1.2,34,0.100,0.100,0.100,0.000,0.000,0.000
1644362168486439936,2022-02-08-23:16:08,10.1.1.2,28,0.020,0.020,0.020,0.000,0.000,0.000
1644362168587049984,2022-02-08-23:16:08,10.1.1.2,28,0.010,0.010,0.010,0.000,0.000,0.000
1644362168686928896,2022-02-08-23:16:08,10.1.1.2,27,0.000,0.000,0.000,0.000,0.000,0.000
1644362168787347200,2022-02-08-23:16:08,10.1.1.2,27,-0.010,-0.010,-0.010,0.000,0.000,0.000
1644362168886807040,2022-02-08-23:16:08,10.1.1.2,26,-0.020,-0.020,-0.020,0.000,0.000,0.000
1644362168987347968,2022-02-08-23:16:08,10.1.1.2,26,-0.030,-0.030,-0.030,0.000,0.000,0.000
1644362169087214080,2022-02-08-23:16:09,10.1.1.2,25,-0.040,-0.040,-0.040,0.000,0.000,0.000
1644362169187290880,2022-02-08-23:16:09,10.1.1.2,25,-0.050,-0.050,-0.050,0.000,0.000,0.000
1644362169287454976,2022-02-08-23:16:09,10.1.1.2,24,-0.060,-0.060,-0.060,0.000,0.000,0.000
1644362170087124992,2022-02-08-23:16:10,10.1.1.2,21,-0.060,-0.060,-0.060,0.000,0.000,0.000
1644362170307461120,2022-02-08-23:16:10,10.1.1.2,40,-0.040,-0.040,-0.040,0.000,0.000,0.000
1644362170406802944,2022-02-08-23:16:10,10.1.1.2,39,-0.030,-0.030,-0.030,0.000,0.000,0.000
1644362170507172096,2022-02-08-23:16:10,10.1.1.2,38,-0.020,-0.020,-0.020,0.000,0.000,0.000
1644362170607302912,2022-02-08-23:16:10,10.1.1.2,38,-0.010,-0.010,-0.010,0.000,0.000,0.000
1644362170707895040,2022-02-08-23:16:10,10.1.1.2,38,0.000,0.000,0.000,0.000,0.000,0.000
1644362170807228928,2022-02-08-23:16:10,10.1.1.2,37,0.010,0.010,0.010,0.000,0.000,0.000
1644362170907639040,2022-02-08-23:16:10,10.1.1.2,36,0.020,0.020,0.020,0.000,0.000,0.000
1644362171006878976,2022-02-08-23:16:11,10.1.1.2,35,0.030,0.030,0.030,0.000,0.000,0.000
1644362171106810112,2022-02-08-23:16:11,10.1.1.2,35,0.040,0.040,0.040,0.000,0.000,0.000
1644362171206679040,2022-02-08-23:16:11,10.1.1.2,34,0.050,0.050,0.050,0.000,0.000,0.000
1644362172107111936,2022-02-08-23:16:12,10.1.1.2,29,0.060,0.060,0.060,0.000,0.000,0.000
1644362172207110912,2022-02-08-23:16:12,10.1.1.2,28,0.050,0.050,0.050,0.000,0.000,0.000
1644362172307578112,2022-02-08-23:16:12,10.1.1.2,28,0.040,0.040,0.040,0.000,0.000,0.000
1644362172406949120,2022-02-08-23:16:12,10.1.1.2,26,0.030,0.030,0.030,0.000,0.000,0.000
1644362172507934976,2022-02-08-23:16:12,10.1.1.2,26,0.020,0.020,0.020,0.000,0.000,0.000
1644362172606961920,2022-02-08-23:16:12,10.1.1.2,25,0.010,0.010,0.010,0.000,0.000,0.000
1644362173626888960,2022-02-08-23:16:13,10.1.1.2,39,-0.090,-0.090,-0.090,0.000,0.000,0.000
1644362173728867072,2022-02-08-23:16:13,10.1.1.2,38,-0.100,-0.100,-0.100,0.000,0.000,0.000
1644362173827384832,2022-02-08-23:16:13,10.1.1.2,37,-0.090,-0.090,-0.090,0.000,0.000,0.000
1644362173927070976,2022-02-08-23:16:13,10.1.1.2,37,-0.080,-0.080,-0.080,0.000,0.000,0.000
1644362174026582016,2022-02-08-23:16:14,10.1.1.2,36,-0.070,-0.070,-0.070,0.000,0.000,0.000
1644362174127387136,2022-02-08-23:16:14,10.1.1.2,35,-0.060,-0.060,-0.060,0.000,0.000,0.000
1644362174327769088,2022-02-08-23:16:14,10.1.1.2,34,-0.040,-0.040,-0.040,0.000,0.000,0.000
1644362175126436096,2022-02-08-23:16:15,10.1.1.2,29,0.040,0.040,0.040,0.000,0.000,0.000
1644362175226589952,2022-02-08-23:16:15,10.1.1.2,29,0.050,0.050,0.050,0.000,0.000,0.000
1644362175326649856,2022-02-08-23:16:15,10.1.1.2,29,0.060,0.060,0.060,0.000,0.000,0.000
1644362175426838016,2022-02-08-23:16:15,10.1.1.2,28,0.070,0.070,0.070,0.000,0.000,0.000
1644362175627571200,2022-02-08-23:16:15,10.1.1.2,27,0.090,0.090,0.090,0.000,0.000,0.000
1644362175726893824,2022-02-08-23:16:15,10.1.1.2,26,0.100,0.100,0.100,0.000,0.000,0.000
1644362175827433984,2022-02-08-23:16:15,10.1.1.2,26,0.090,0.090,0.090,0.000,0.000,0.000
1644362175927090944,2022-02-08-23:16:15,10.1.1.2,24,0.080,0.080,0.080,0.000,0.000,0.000
1644362177048069120,2022-02-08-23:16:17,10.1.1.2,39,-0.030,-0.030,-0.030,0.000,0.000,0.000
1644362177146769152,2022-02-08-23:16:17,10.1.1.2,38,-0.040,-0.040,-0.040,0.000,0.000,0.000
1644362177246375168,2022-02-08-23:16:17,10.1.1.2,38,-0.050,-0.050,-0.050,0.000,0.000,0.000
1644362177347120128,2022-02-08-23:16:17,10.1.1.2,37,-0.060,-0.060,-0.060,0.000,0.000,0.000
1644362177447376128,2022-02-08-23:16:17,10.1.1.2,37,-0.070,-0.070,-0.070,0.000,0.000,0.000
1644362177548194816,2022-02-08-23:16:17,10.1.1.2,37,-0.080,-0.080,-0.080,0.000,0.000,0.000
1644362177647052032,2022-02-08-23:16:17,10.1.1.2,36,-0.090,-0.090,-0.090,0.000,0.000,0.000
1644362177826763008,2022-02-08-23:16:17,10.1.1.2,13,-0.090,-0.090,-0.090,0.000,0.000,0.000
1644362178647290112,2022-02-08-23:16:18,10.1.1.2,30,-0.010,-0.010,-0.010,0.000,0.000,0.000
1644362178746646784,2022-02-08-23:16:18,10.1.1.2,29,0.000,0.000,0.000,0.000,0.000,0.000
1644362178847348992,2022-02-08-23:16:18,10.1.1.2,28,0.010,0.010,0.010,0.000,0.000,0.000
1644362178947699968,2022-02-08-23:16:18,10.1.1.2,28,0.020,0.020,0.020,0.000,0.000,0.000
1644362179047579136,2022-02-08-23:16:19,10.1.1.2,27,0.030,0.030,0.030,0.000,0.000,0.000
1644362179147183872,2022-02-08-23:16:19,10.1.1.2,27,0.040,0.040,0.040,0.000,0.000,0.000
1644362179246882816,2022-02-08-23:16:19,10.1.1.2,25,0.050,0.050,0.050,0.000,0.000,0.000
1644362179347261952,2022-02-08-23:16:19,10.1.1.2,24,0.060,0.060,0.060,0.000,0.000,0.000
1644362180147682816,2022-02-08-23:16:20,10.1.1.2,20,0.060,0.060,0.060,0.000,0.000,0.000
1644362180267371008,2022-02-08-23:16:20,10.1.1.2,39,0.050,0.050,0.050,0.000,0.000,0.000
1644362180367760896,2022-02-08-23:16:20,10.1.1.2,38,0.040,0.040,0.040,0.000,0.000,0.000
1644362180467058944,2022-02-08-23:16:20,10.1.1.2,38,0.030,0.030,0.030,0.000,0.000,0.000
1644362180567431936,2022-02-08-23:16:20,10.1.1.2,37,0.020,0.020,0.020,0.000,0.000,0.000
1644362180667229952,2022-02-08-23:16:20,10.1.1.2,37,0.010,0.010,0.010,0.000,0.000,0.000
1644362180768443136,2022-02-08-23:16:20,10.1.1.2,35,0.000,0.000,0.000,0.000,0.000,0.000
1644362180867561984,2022-02-08-23:16:20,10.1.1.2,34,-0.010,-0.010,-0.010,0.000,0.000,0.000
1644362181566940928,2022-02-08-23:16:21,10.1.1.2,28,-0.080,-0.080,-0.080,0.000,0.000,0.000
1644362181667060992,2022-02-08-23:16:21,10.1.1.2,28,-0.090,-0.090,-0.090,0.000,0.000,0.000
1644362181766788096,2022-02-08-23:16:21,10.1.1.2,28,-0.100,-0.100,-0.100,0.000,0.000,0.000
1644362181867378944,2022-02-08-23:16:21,10.1.1.2,27,-0.090,-0.090,-0.090,0.000,0.000,0.000
1644362181966839040,2022-02-08-23:16:21,10.1.1.2,26,-0.080,-0.080,-0.080,0.000,0.000,0.000
1644362182066977024,2022-02-08-23:16:22,10.1.1.2,26,-0.070,-0.070,-0.070,0.000,0.000,0.000
1644362182166601984,2022-02-08-23:16:22,10.1.1.2,26,-0.060,-0.060,-0.060,0.000,0.000,0.000
1644362182267474944,2022-02-08-23:16:22,10.1.1.2,25,-0.050,-0.050,-0.050,0.000,0.000,0.000
1644362183087233024,2022-02-08-23:16:23,10.1.1.2,39,0.030,0.030,0.030,0.000,0.000,0.000
1644362183187166976,2022-02-08-23:16:23,10.1.1.2,39,0.040,0.040,0.040,0.000,0.000,0.000
1644362183287169024,2022-02-08-23:16:23,10.1.1.2,38,0.050,0.050,0.050,0.000,0.000,0.000
1644362183387753984,2022-02-08-23:16:23,10.1.1.2,38,0.060,0.060,0.060,0.000,0.000,0.000
1644362183487528192,2022-02-08-23:16:23,10.1.1.2,37,0.070,0.070,0.070,0.000,0.000,0.000
1644362183687202048,2022-02-08-23:16:23,10.1.1.2,29,0.090,0.090,0.090,0.000,0.000,0.000
1644362183787520768,2022-02-08-23:16:23,10.1.1.2,28,0.100,0.100,0.100,0.000,0.000,0.000
1644362183888000000,2022-02-08-23:16:23,10.1.1.2,27,0.090,0.090,0.090,0.000,0.000,0.000
1644362183987885824,2022-02-08-23:16:23,10.1.1.2,26,0.080,0.080,0.080,0.000,0.000,0.000
1644362184087308032,2022-02-08-23:16:24,10.1.1.2,25,0.070,0.070,0.070,0.000,0.000,0.000
1644362184187005952,2022-02-08-23:16:24,10.1.1.2,24,0.060,0.060,0.060,0.000,0.000,0.000
1644362185107095040,2022-02-08-23:16:25,10.1.1.2,39,-0.030,-0.030,-0.030,0.000,0.000,0.000
1644362185208648960,2022-02-08-23:16:25,10.1.1.2,37,-0.040,-0.040,-0.040,0.000,0.000,0.000
1644362185309954816,2022-02-08-23:16:25,10.1.1.2,37,-0.050,-0.050,-0.050,0.000,0.000,0.000
1644362185407100928,2022-02-08-23:16:25,10.1.1.2,37,-0.060,-0.060,-0.060,0.000,0.000,0.000
1644362185509937920,2022-02-08-23:16:25,10.1.1.2,35,-0.070,-0.070,-0.070,0.000,0.000,0.000
1644362186007465984,2022-02-08-23:16:26,10.1.1.2,29,-0.080,-0.080,-0.080,0.000,0.000,0.000
1644362186108552960,2022-02-08-23:16:26,10.1.1.2,29,-0.070,-0.070,-0.070,0.000,0.000,0.000
1644362186207173120,2022-02-08-23:16:26,10.1.1.2,28,-0.060,-0.060,-0.060,0.000,0.000,0.000
1644362186307540992,2022-02-08-23:16:26,10.1.1.2,28,-0.050,-0.050,-0.050,0.000,0.000,0.000
1644362186409169920,2022-02-08-23:16:26,10.1.1.2,26,-0.040,-0.040,-0.040,0.000,0.000,0.000
1644362186509816832,2022-02-08-23:16:26,10.1.1.2,25,-0.030,-0.030,-0.030,0.000,0.000,0.000
1644362186967153152,2022-02-08-23:16:26,10.1.1.2,39,0.010,0.010,0.010,0.000,0.000,0.000
1644362187067495168,2022-02-08-23:16:27,10.1.1.2,38,0.020,0.020,0.020,0.000,0.000,0.000
1644362187167579904,2022-02-08-23:16:27,10.1.1.2,38,0.030,0.030,0.030,0.000,0.000,0.000
1644362187266876928,2022-02-08-23:16:27,10.1.1.2,37,0.040,0.040,0.040,0.000,0.000,0.000
1644362187366744064,2022-02-08-23:16:27,10.1.1.2,35,0.050,0.050,0.050,0.000,0.000,0.000
1644362187467396096,2022-02-08-23:16:27,10.1.1.2,35,0.060,0.060,0.060,0.000,0.000,0.000
1644362187866632960,2022-02-08-23:16:27,10.1.1.2,29,0.100,0.100,0.100,0.000,0.000,0.000
1644362187969118976,2022-02-08-23:16:27,10.1.1.2,28,0.090,0.090,0.090,0.000,0.000,0.000
1644362188066564096,2022-02-08-23:16:28,10.1.1.2,27,0.080,0.080,0.080,0.000,0.000,0.000
1644362188167067904,2022-02-08-23:16:28,10.1.1.2,26,0.070,0.070,0.070,0.000,0.000,0.000
1644362188266967040,2022-02-08-23:16:28,10.1.1.2,25,0.060,0.060,0.060,0.000,0.000,0.000
1644362189186918912,2022-02-08-23:16:29,10.1.1.2,38,-0.030,-0.030,-0.030,0.000,0.000,0.000
1644362189287607808,2022-02-08-23:16:29,10.1.1.2,38,-0.040,-0.040,-0.040,0.000,0.000,0.000
1644362189387031040,2022-02-08-23:16:29,10.1.1.2,37,-0.050,-0.050,-0.050,0.000,0.000,0.000
1644362189487413760,2022-02-08-23:16:29,10.1.1.2,37,-0.060,-0.060,-0.060,0.000,0.000,0.000
1644362189587229952,2022-02-08-23:16:29,10.1.1.2,35,-0.070,-0.070,-0.070,0.000,0.000,0.000
1644362189687271168,2022-02-08-23:16:29,10.1.1.2,35,-0.080,-0.080,-0.080,0.000,0.000,0.000
1644362189787746048,2022-02-08-23:16:29,10.1.1.2,35,-0.090,-0.090,-0.090,0.000,0.000,0.000
1644362189887456768,2022-02-08-23:16:29,10.1.1.2,34,-0.100,-0.100,-0.100,0.000,0.000,0.000
1644362190587294208,2022-02-08-23:16:30,10.1.1.2,29,-0.030,-0.030,-0.030,0.000,0.000,0.000
1644362190687511040,2022-02-08-23:16:30,10.1.1.2,29,-0.020,-0.020,-0.020,0.000,0.000,0.000
1644362190787357184,2022-02-08-23:16:30,10.1.1.2,28,-0.010,-0.010,-0.010,0.000,0.000,0.000
1644362190888512000,2022-02-08-23:16:30,10.1.1.2,27,0.000,0.000,0.000,0.000,0.000,0.000
1644362190986978048,2022-02-08-23:16:30,10.1.1.2,26,0.010,0.010,0.010,0.000,0.000,0.000
1644362191087425024,2022-02-08-23:16:31,10.1.1.2,26,0.020,0.020,0.020,0.000,0.000,0.000
1644362191187299072,2022-02-08-23:16:31,10.1.1.2,25,0.030,0.030,0.030,0.000,0.000,0.000
1644362191741907968,2022-02-08-23:16:31,10.1.1.2,37,0.080,0.080,0.080,0.000,0.000,0.000
1644362191828026112,2022-02-08-23:16:31,10.1.1.2,28,0.090,0.090,0.090,0.000,0.000,0.000
1644362192007698176,2022-02-08-23:16:32,10.1.1.2,12,0.090,0.090,0.090,0.000,0.000,0.000
1644362192427635968,2022-02-08-23:16:32,10.1.1.2,29,0.050,0.050,0.050,0.000,0.000,0.000
1644362192526993920,2022-02-08-23:16:32,10.1.1.2,29,0.040,0.040,0.040,0.000,0.000,0.000
1644362192631900160,2022-02-08-23:16:32,10.1.1.2,28,0.030,0.030,0.030,0.000,0.000,0.000
1644362192727169024,2022-02-08-23:16:32,10.1.1.2,28,0.020,0.020,0.020,0.000,0.000,0.000
1644362192828002816,2022-02-08-23:16:32,10.1.1.2,27,0.010,0.010,0.010,0.000,0.000,0.000
1644362192927107072,2022-02-08-23:16:32,10.1.1.2,27,0.000,0.000,0.000,0.000,0.000,0.000
1644362193027371776,2022-02-08-23:16:33,10.1.1.2,27,-0.010,-0.010,-0.010,0.000,0.000,0.000
1644362193128297984,2022-02-08-23:16:33,10.1.1.2,26,-0.020,-0.020,-0.020,0.000,0.000,0.000
1644362193227649024,2022-02-08-23:16:33,10.1.1.2,25,-0.030,-0.030,-0.030,0.000,0.000,0.000
1644362193327699968,2022-02-08-23:16:33,10.1.1.2,25,-0.040,-0.040,-0.040,0.000,0.000,0.000
1644362194346822144,2022-02-08-23:16:34,10.1.1.2,39,-0.060,-0.060,-0.060,0.000,0.000,0.000
1644362194446758144,2022-02-08-23:16:34,10.1.1.2,38,-0.050,-0.050,-0.050,0.000,0.000,0.000
1644362194547079168,2022-02-08-23:16:34,10.1.1.2,38,-0.040,-0.040,-0.040,0.000,0.000,0.000
1644362194647130112,2022-02-08-23:16:34,10.1.1.2,37,-0.030,-0.030,-0.030,0.000,0.000,0.000
1644362194747309056,2022-02-08-23:16:34,10.1.1.2,37,-0.020,-0.020,-0.020,0.000,0.000,0.000
1644362194847012096,2022-02-08-23:16:34,10.1.1.2,37,-0.010,-0.010,-0.010,0.000,0.000,0.000
1644362194946862848,2022-02-08-23:16:34,10.1.1.2,36,0.000,0.000,0.000,0.000,0.000,0.000
1644362195849262080,2022-02-08-23:16:35,10.1.1.2,29,0.090,0.090,0.090,0.000,0.000,0.000
1644362195948187136,2022-02-08-23:16:35,10.1.1.2,28,0.100,0.100,0.100,0.000,0.000,0.000
1644362196047211776,2022-02-08-23:16:36,10.1.1.2,27,0.090,0.090,0.090,0.000,0.000,0.000
1644362196147366912,2022-02-08-23:16:36,10.1.1.2,27,0.080,0.080,0.080,0.000,0.000,0.000
1644362196247297024,2022-02-08-23:16:36,10.1.1.2,26,0.070,0.070,0.070,0.000,0.000,0.000
1644362196347387904,2022-02-08-23:16:36,10.1.1.2,26,0.060,0.060,0.060,0.000,0.000,0.000
1644362196446906112,2022-02-08-23:16:36,10.1.1.2,25,0.050,0.050,0.050,0.000,0.000,0.000
1644362196547815936,2022-02-08-23:16:36,10.1.1.2,24,0.040,0.040,0.040,0.000,0.000,0.000
1644362197267549952,2022-02-08-23:16:37,10.1.1.2,39,-0.030,-0.030,-0.030,0.000,0.000,0.000
1644362197368290816,2022-02-08-23:16:37,10.1.1.2,38,-0.040,-0.040,-0.040,0.000,0.000,0.000
1644362197466756096,2022-02-08-23:16:37,10.1.1.2,38,-0.050,-0.050,-0.050,0.000,0.000,0.000
1644362197566637056,2022-02-08-23:16:37,10.1.1.2,38,-0.060,-0.060,-0.060,0.000,0.000,0.000
1644362197667179008,2022-02-08-23:16:37,10.1.1.2,37,-0.070,-0.070,-0.070,0.000,0.000,0.000
1644362197767875840,2022-02-08-23:16:37,10.1.1.2,37,-0.080,-0.080,-0.080,0.000,0.000,0.000
1644362197867528960,2022-02-08-23:16:37,10.1.1.2,36,-0.090,-0.090,-0.090,0.000,0.000,0.000
1644362197967601920,2022-02-08-23:16:37,10.1.1.2,35,-0.100,-0.100,-0.100,0.000,0.000,0.000
1644362198067442944,2022-02-08-23:16:38,10.1.1.2,34,-0.090,-0.090,-0.090,0.000,0.000,0.000
1644362198867088128,2022-02-08-23:16:38,10.1.1.2,29,-0.010,-0.010,-0.010,0.000,0.000,0.000
1644362198967291136,2022-02-08-23:16:38,10.1.1.2,29,0.000,0.000,0.000,0.000,0.000,0.000
1644362199067183872,2022-02-08-23:16:39,10.1.1.2,28,0.010,0.010,0.010,0.000,0.000,0.000
1644362199167406080,2022-02-08-23:16:39,10.1.1.2,28,0.020,0.020,0.020,0.000,0.000,0.000
1644362199267081984,2022-02-08-23:16:39,10.1.1.2,27,0.030,0.030,0.030,0.000,0.000,0.000
1644362199367470080,2022-02-08-23:16:39,10.1.1.2,27,0.040,0.040,0.040,0.000,0.000,0.000
1644362199466737920,2022-02-08-23:16:39,10.1.1.2,26,0.050,0.050,0.050,0.000,0.000,0.000
1644362199567840000,2022-02-08-23:16:39,10.1.1.2,26,0.060,0.060,0.060,0.000,0.000,0.000
1644362199668009984,2022-02-08-23:16:39,10.1.1.2,25,0.070,0.070,0.070,0.000,0.000,0.000
1644362199767333120,2022-02-08-23:16:39,10.1.1.2,25,0.080,0.080,0.080,0.000,0.000,0.000
1644362199867001088,2022-02-08-23:16:39,10.1.1.2,24,0.090,0.090,0.090,0.000,0.000,0.000
1644362200053627904,2022-02-08-23:16:40,10.1.1.2,3,0.090,0.090,0.090,0.000,0.000,0.000
1644362200567049984,2022-02-08-23:16:40,10.1.1.2,20,0.040,0.040,0.040,0.000,0.000,0.000
1644362200667592960,2022-02-08-23:16:40,10.1.1.2,20,0.030,0.030,0.030,0.000,0.000,0.000
1644362200787926016,2022-02-08-23:16:40,10.1.1.2,38,0.020,0.020,0.020,0.000,0.000,0.000
1644362200887371008,2022-02-08-23:16:40,10.1.1.2,38,0.010,0.010,0.010,0.000,0.000,0.000
1644362200987792128,2022-02-08-23:16:40,10.1.1.2,37,0.000,0.000,0.000,0.000,0.000,0.000
1644362201088707072,2022-02-08-23:16:41,10.1.1.2,37,-0.010,-0.010,-0.010,0.000,0.000,0.000
1644362201187578880,2022-02-08-23:16:41,10.1.1.2,36,-0.020,-0.020,-0.020,0.000,0.000,0.000
1644362201288347904,2022-02-08-23:16:41,10.1.1.2,35,-0.030,-0.030,-0.030,0.000,0.000,0.000
1644362201387533056,2022-02-08-23:16:41,10.1.1.2,35,-0.040,-0.040,-0.040,0.000,0.000,0.000
1644362201489635840,2022-02-08-23:16:41,10.1.1.2,33,-0.050,-0.050,-0.050,0.000,0.000,0.000
1644362202188751872,2022-02-08-23:16:42,10.1.1.2,29,-0.080,-0.080,-0.080,0.000,0.000,0.000
1644362202287009024,2022-02-08-23:16:42,10.1.1.2,28,-0.070,-0.070,-0.070,0.000,0.000,0.000
1644362202388008192,2022-02-08-23:16:42,10.1.1.2,28,-0.060,-0.060,-0.060,0.000,0.000,0.000
1644362202488627968,2022-02-08-23:16:42,10.1.1.2,27,-0.050,-0.050,-0.050,0.000,0.000,0.000
1644362202588329984,2022-02-08-23:16:42,10.1.1.2,27,-0.040,-0.040,-0.040,0.000,0.000,0.000
1644362202687323136,2022-02-08-23:16:42,10.1.1.2,26,-0.030,-0.030,-0.030,0.000,0.000,0.000
1644362202787481088,2022-02-08-23:16:42,10.1.1.2,25,-0.020,-0.020,-0.020,0.000,0.000,0.000
1644362202887486976,2022-02-08-23:16:42,10.1.1.2,25,-0.010,-0.010,-0.010,0.000,0.000,0.000
1644362203386953216,2022-02-08-23:16:43,10.1.1.2,20,0.040,0.040,0.040,0.000,0.000,0.000
1644362203507721984,2022-02-08-23:16:43,10.1.1.2,39,0.050,0.050,0.050,0.000,0.000,0.000
1644362203607212032,2022-02-08-23:16:43,10.1.1.2,38,0.060,0.060,0.060,0.000,0.000,0.000
1644362203707514880,2022-02-08-23:16:43,10.1.1.2,38,0.070,0.070,0.070,0.000,0.000,0.000
1644362203807027200,2022-02-08-23:16:43,10.1.1.2,37,0.080,0.080,0.080,0.000,0.000,0.000
1644362203907619072,2022-02-08-23:16:43,10.1.1.2,37,0.090,0.090,0.090,0.000,0.000,0.000
1644362204008517120,2022-02-08-23:16:44,10.1.1.2,36,0.100,0.100,0.100,0.000,0.000,0.000
1644362204109262848,2022-02-08-23:16:44,10.1.1.2,36,0.090,0.090,0.090,0.000,0.000,0.000
1644362204207480064,2022-02-08-23:16:44,10.1.1.2,34,0.080,0.080,0.080,0.000,0.000,0.000
1644362204909236992,2022-02-08-23:16:44,10.1.1.2,30,0.010,0.010,0.010,0.000,0.000,0.000
1644362205008246016,2022-02-08-23:16:45,10.1.1.2,29,0.000,0.000,0.000,0.000,0.000,0.000
1644362205108129024,2022-02-08-23:16:45,10.1.1.2,29,-0.010,-0.010,-0.010,0.000,0.000,0.000
1644362205208070144,2022-02-08-23:16:45,10.1.1.2,28,-0.020,-0.020,-0.020,0.000,0.000,0.000
1644362205308883968,2022-02-08-23:16:45,10.1.1.2,27,-0.030,-0.030,-0.030,0.000,0.000,0.000
1644362205407460096,2022-02-08-23:16:45,10.1.1.2,26,-0.040,-0.040,-0.040,0.000,0.000,0.000
1644362205507392000,2022-02-08-23:16:45,10.1.1.2,26,-0.050,-0.050,-0.050,0.000,0.000,0.000
1644362205610765056,2022-02-08-23:16:45,10.1.1.2,25,-0.060,-0.060,-0.060,0.000,0.000,0.000
1644362206393603072,2022-02-08-23:16:46,10.1.1.2,0,-0.060,-0.060,-0.060,0.000,0.000,0.000
1644362206527651072,2022-02-08-23:16:46,10.1.1.2,39,-0.050,-0.050,-0.050,0.000,0.000,0.000
1644362206627237120,2022-02-08-23:16:46,10.1.1.2,39,-0.040,-0.040,-0.040,0.000,0.000,0.000
1644362206727420160,2022-02-08-23:16:46,10.1.1.2,38,-0.030,-0.030,-0.030,0.000,0.000,0.000
1644362206827848960,2022-02-08-23:16:46,10.1.1.2,37,-0.020,-0.020,-0.020,0.000,0.000,0.000
1644362206926968064,2022-02-08-23:16:46,10.1.1.2,37,-0.010,-0.010,-0.010,0.000,0.000,0.000
1644362207027246080,2022-02-08-23:16:47,10.1.1.2,36,0.000,0.000,0.000,0.000,0.000,0.000
1644362207126943232,2022-02-08-23:16:47,10.1.1.2,35,0.010,0.010,0.010,0.000,0.000,0.000
1644362207226877952,2022-02-08-23:16:47,10.1.1.2,35,0.020,0.020,0.020,0.000,0.000,0.000
1644362208028481024,2022-02-08-23:16:48,10.1.1.2,29,0.100,0.100,0.100,0.000,0.000,0.000
1644362208127654912,2022-02-08-23:16:48,10.1.1.2,28,0.090,0.090,0.090,0.000,0.000,0.000
1644362208227160064,2022-02-08-23:16:48,10.1.1.2,27,0.080,0.080,0.080,0.000,0.000,0.000
1644362208327311104,2022-02-08-23:16:48,10.1.1.2,26,0.070,0.070,0.070,0.000,0.000,0.000
1644362208428400128,2022-02-08-23:16:48,10.1.1.2,26,0.060,0.060,0.060,0.000,0.000,0.000
1644362208528340992,2022-02-08-23:16:48,10.1.1.2,25,0.050,0.050,0.050,0.000,0.000,0.000
1644362208627348992,2022-02-08-23:16:48,10.1.1.2,24,0.040,0.040,0.040,0.000,0.000,0.000
1644362209048036096,2022-02-08-23:16:49,10.1.1.2,38,0.000,0.000,0.000,0.000,0.000,0.000
1644362209147898880,2022-02-08-23:16:49,10.1.1.2,38,-0.010,-0.010,-0.010,0.000,0.000,0.000
1644362209247073024,2022-02-08-23:16:49,10.1.1.2,37,-0.020,-0.020,-0.020,0.000,0.000,0.000
1644362209346868992,2022-02-08-23:16:49,10.1.1.2,37,-0.030,-0.030,-0.030,0.000,0.000,0.000
1644362209447033856,2022-02-08-23:16:49,10.1.1.2,36,-0.040,-0.040,-0.040,0.000,0.000,0.000
1644362209548412160,2022-02-08-23:16:49,10.1.1.2,36,-0.050,-0.050,-0.050,0.000,0.000,0.000
1644362209647974912,2022-02-08-23:16:49,10.1.1.2,35,-0.060,-0.060,-0.060,0.000,0.000,0.000
1644362209746876928,2022-02-08-23:16:49,10.1.1.2,35,-0.070,-0.070,-0.070,0.000,0.000,0.000
1644362210253616128,2022-02-08-23:16:50,10.1.1.2,29,-0.080,-0.080,-0.080,0.000,0.000,0.000
1644362210347240960,2022-02-08-23:16:50,10.1.1.2,28,-0.070,-0.070,-0.070,0.000,0.000,0.000
1644362210448491008,2022-02-08-23:16:50,10.1.1.2,27,-0.060,-0.060,-0.060,0.000,0.000,0.000
1644362210547835136,2022-02-08-23:16:50,10.1.1.2,27,-0.050,-0.050,-0.050,0.000,0.000,0.000
1644362210646720000,2022-02-08-23:16:50,10.1.1.2,25,-0.040,-0.040,-0.040,0.000,0.000,0.000
1644362210750340096,2022-02-08-23:16:50,10.1.1.2,25,-0.030,-0.030,-0.030,0.000,0.000,0.000
1644362211166529792,2022-02-08-23:16:51,10.1.1.2,39,0.010,0.010,0.010,0.000,0.000,0.000
1644362211267508992,2022-02-08-23:16:51,10.1.1.2,39,0.020,0.020,0.020,0.000,0.000,0.000
1644362211366818048,2022-02-08-23:16:51,10.1.1.2,38,0.030,0.030,0.030,0.000,0.000,0.000
1644362211467256064,2022-02-08-23:16:51,10.1.1.2,37,0.040,0.040,0.040,0.000,0.000,0.000
1644362211567655936,2022-02-08-23:16:51,10.1.1.2,37,0.050,0.050,0.050,0.000,0.000,0.000
1644362211666900992,2022-02-08-23:16:51,10.1.1.2,36,0.060,0.060,0.060,0.000,0.000,0.000
1644362211766940160,2022-02-08-23:16:51,10.1.1.2,36,0.070,0.070,0.070,0.000,0.000,0.000
1644362211867510016,2022-02-08-23:16:51,10.1.1.2,36,0.080,0.080,0.080,0.000,0.000,0.000
1644362211967184128,2022-02-08-23:16:51,10.1.1.2,35,0.090,0.090,0.090,0.000,0.000,0.000
1644362212147453184,2022-02-08-23:16:52,10.1.1.2,13,0.090,0.090,0.090,0.000,0.000,0.000
1644362212767475968,2022-02-08-23:16:52,10.1.1.2,29,0.030,0.030,0.030,0.000,0.000,0.000
1644362212867549952,2022-02-08-23:16:52,10.1.1.2,28,0.020,0.020,0.020,0.000,0.000,0.000
1644362212966885120,2022-02-08-23:16:52,10.1.1.2,28,0.010,0.010,0.010,0.000,0.000,0.000
1644362213066797056,2022-02-08-23:16:53,10.1.1.2,27,0.000,0.000,0.000,0.000,0.000,0.000
1644362213167643136,2022-02-08-23:16:53,10.1.1.2,27,-0.010,-0.010,-0.010,0.000,0.000,0.000
1644362213267297024,2022-02-08-23:16:53,10.1.1.2,27,-0.020,-0.020,-0.020,0.000,0.000,0.000
1644362213367109120,2022-02-08-23:16:53,10.1.1.2,26,-0.030,-0.030,-0.030,0.000,0.000,0.000
1644362213466851072,2022-02-08-23:16:53,10.1.1.2,26,-0.040,-0.040,-0.040,0.000,0.000,0.000
1644362213587405824,2022-02-08-23:16:53,10.1.1.2,39,-0.050,-0.050,-0.050,0.000,0.000,0.000
1644362213686955008,2022-02-08-23:16:53,10.1.1.2,37,-0.060,-0.060,-0.060,0.000,0.000,0.000
1644362213786947072,2022-02-08-23:16:53,10.1.1.2,37,-0.070,-0.070,-0.070,0.000,0.000,0.000
1644362213886917120,2022-02-08-23:16:53,10.1.1.2,37,-0.080,-0.080,-0.080,0.000,0.000,0.000
1644362213987413760,2022-02-08-23:16:53,10.1.1.2,36,-0.090,-0.090,-0.090,0.000,0.000,0.000
1644362214086998016,2022-02-08-23:16:54,10.1.1.2,35,-0.100,-0.100,-0.100,0.000,0.000,0.000
1644362214787121920,2022-02-08-23:16:54,10.1.1.2,29,-0.030,-0.030,-0.030,0.000,0.000,0.000
1644362214887496960,2022-02-08-23:16:54,10.1.1.2,28,-0.020,-0.020,-0.020,0.000,0.000,0.000
1644362214987217920,2022-02-08-23:16:54,10.1.1.2,28,-0.010,-0.010,-0.010,0.000,0.000,0.000
1644362215087333888,2022-02-08-23:16:55,10.1.1.2,27,0.000,0.000,0.000,0.000,0.000,0.000
1644362215187339008,2022-02-08-23:16:55,10.1.1.2,27,0.010,0.010,0.010,0.000,0.000,0.000
1644362215287197184,2022-02-08-23:16:55,10.1.1.2,26,0.020,0.020,0.020,0.000,0.000,0.000
1644362215387108096,2022-02-08-23:16:55,10.1.1.2,25,0.030,0.030,0.030,0.000,0.000,0.000
1644362215487162112,2022-02-08-23:16:55,10.1.1.2,24,0.040,0.040,0.040,0.000,0.000,0.000
1644362216008194816,2022-02-08-23:16:56,10.1.1.2,39,0.090,0.090,0.090,0.000,0.000,0.000
1644362216107215872,2022-02-08-23:16:56,10.1.1.2,38,0.100,0.100,0.100,0.000,0.000,0.000
1644362216207156992,2022-02-08-23:16:56,10.1.1.2,37,0.090,0.090,0.090,0.000,0.000,0.000
1644362216307430912,2022-02-08-23:16:56,10.1.1.2,37,0.080,0.080,0.080,0.000,0.000,0.000
1644362216407641856,2022-02-08-23:16:56,10.1.1.2,36,0.070,0.070,0.070,0.000,0.000,0.000
1644362216507555840,2022-02-08-23:16:56,10.1.1.2,35,0.060,0.060,0.060,0.000,0.000,0.000
1644362216907373056,2022-02-08-23:16:56,10.1.1.2,28,0.020,0.020,0.020,0.000,0.000,0.000
1644362217006817024,2022-02-08-23:16:57,10.1.1.2,27,0.010,0.010,0.010,0.000,0.000,0.000
1644362217107111936,2022-02-08-23:16:57,10.1.1.2,27,0.000,0.000,0.000,0.000,0.000,0.000
1644362217207040000,2022-02-08-23:16:57,10.1.1.2,26,-0.010,-0.010,-0.010,0.000,0.000,0.000
1644362217307630080,2022-02-08-23:16:57,10.1.1.2,26,-0.020,-0.020,-0.020,0.000,0.000,0.000
1644362217407244800,2022-02-08-23:16:57,10.1.1.2,25,-0.030,-0.030,-0.030,0.000,0.000,0.000
1644362217507145984,2022-02-08-23:16:57,10.1.1.2,24,-0.040,-0.040,-0.040,0.000,0.000,0.000
1644362218226694144,2022-02-08-23:16:58,10.1.1.2,39,-0.090,-0.090,-0.090,0.000,0.000,0.000
1644362218327041024,2022-02-08-23:16:58,10.1.1.2,38,-0.080,-0.080,-0.080,0.000,0.000,0.000
1644362218427330048,2022-02-08-23:16:58,10.1.1.2,37,-0.070,-0.070,-0.070,0.000,0.000,0.000
1644362218528729856,2022-02-08-23:16:58,10.1.1.2,37,-0.060,-0.060,-0.060,0.000,0.000,0.000
1644362218626842880,2022-02-08-23:16:58,10.1.1.2,35,-0.050,-0.050,-0.050,0.000,0.000,0.000
1644362218727418880,2022-02-08-23:16:58,10.1.1.2,35,-0.040,-0.040,-0.040,0.000,0.000,0.000
1644362218927084800,2022-02-08-23:16:58,10.1.1.2,34,-0.020,-0.020,-0.020,0.000,0.000,0.000
1644362219627072000,2022-02-08-23:16:59,10.1.1.2,29,0.050,0.050,0.050,0.000,0.000,0.000
1644362219727176960,2022-02-08-23:16:59,10.1.1.2,28,0.060,0.060,0.060,0.000,0.000,0.000
1644362219828352000,2022-02-08-23:16:59,10.1.1.2,28,0.070,0.070,0.070,0.000,0.000,0.000
1644362219927892992,2022-02-08-23:16:59,10.1.1.2,28,0.080,0.080,0.080,0.000,0.000,0.000
1644362220027812096,2022-02-08-23:17:00,10.1.1.2,27,0.090,0.090,0.090,0.000,0.000,0.000
1644362220127718912,2022-02-08-23:17:00,10.1.1.2,26,0.100,0.100,0.100,0.000,0.000,0.000
1644362220227655936,2022-02-08-23:17:00,10.1.1.2,26,0.090,0.090,0.090,0.000,0.000,0.000
1644362220326929152,2022-02-08-23:17:00,10.1.1.2,26,0.080,0.080,0.080,0.000,0.000,0.000
1644362220427202048,2022-02-08-23:17:00,10.1.1.2,25,0.070,0.070,0.070,0.000,0.000,0.000
1644362220527134976,2022-02-08-23:17:00,10.1.1.2,25,0.060,0.060,0.060,0.000,0.000,0.000
1644362221427504128,2022-02-08-23:17:01,10.1.1.2,20,-0.030,-0.030,-0.030,0.000,0.000,0.000
1644362221649810944,2022-02-08-23:17:01,10.1.1.2,39,-0.050,-0.050,-0.050,0.000,0.000,0.000
1644362221747694080,2022-02-08-23:17:01,10.1.1.2,38,-0.060,-0.060,-0.060,0.000,0.000,0.000
1644362221848244992,2022-02-08-23:17:01,10.1.1.2,38,-0.070,-0.070,-0.070,0.000,0.000,0.000
1644362221948188928,2022-02-08-23:17:01,10.1.1.2,37,-0.080,-0.080,-0.080,0.000,0.000,0.000
1644362222046649856,2022-02-08-23:17:02,10.1.1.2,37,-0.090,-0.090,-0.090,0.000,0.000,0.000
1644362222147488000,2022-02-08-23:17:02,10.1.1.2,36,-0.100,-0.100,-0.100,0.000,0.000,0.000
1644362222247589120,2022-02-08-23:17:02,10.1.1.2,36,-0.090,-0.090,-0.090,0.000,0.000,0.000
1644362222347408896,2022-02-08-23:17:02,10.1.1.2,35,-0.080,-0.080,-0.080,0.000,0.000,0.000
1644362222450938112,2022-02-08-23:17:02,10.1.1.2,34,-0.070,-0.070,-0.070,0.000,0.000,0.000
1644362222547897088,2022-02-08-23:17:02,10.1.1.2,34,-0.060,-0.060,-0.060,0.000,0.000,0.000
1644362223482678784,2022-02-08-23:17:03,10.1.1.2,29,0.030,0.030,0.030,0.000,0.000,0.000
1644362223547846912,2022-02-08-23:17:03,10.1.1.2,28,0.040,0.040,0.040,0.000,0.000,0.000
1644362223647378944,2022-02-08-23:17:03,10.1.1.2,27,0.050,0.050,0.050,0.000,0.000,0.000
1644362223773680896,2022-02-08-23:17:03,10.1.1.2,27,0.060,0.060,0.060,0.000,0.000,0.000
1644362223847023104,2022-02-08-23:17:03,10.1.1.2,26,0.070,0.070,0.070,0.000,0.000,0.000
1644362223947597056,2022-02-08-23:17:03,10.1.1.2,26,0.080,0.080,0.080,0.000,0.000,0.000
1644362224048902144,2022-02-08-23:17:04,10.1.1.2,25,0.090,0.090,0.090,0.000,0.000,0.000
1644362224147499008,2022-02-08-23:17:04,10.1.1.2,25,0.100,0.100,0.100,0.000,0.000,0.000
1644362224247764992,2022-02-08-23:17:04,10.1.1.2,25,0.090,0.090,0.090,0.000,0.000,0.000
1644362224347886080,2022-02-08-23:17:04,10.1.1.2,24,0.080,0.080,0.080,0.000,0.000,0.000
1644362224551214080,2022-02-08-23:17:04,10.1.1.2,24,0.060,0.060,0.060,0.000,0.000,0.000
1644362224647675136,2022-02-08-23:17:04,10.1.1.2,23,0.050,0.050,0.050,0.000,0.000,0.000
1644362225367618048,2022-02-08-23:17:05,10.1.1.2,39,-0.020,-0.020,-0.020,0.000,0.000,0.000
1644362225469278976,2022-02-08-23:17:05,10.1.1.2,39,-0.030,-0.030,-0.030,0.000,0.000,0.000
1644362225567724032,2022-02-08-23:17:05,10.1.1.2,38,-0.040,-0.040,-0.040,0.000,0.000,0.000
1644362225767923200,2022-02-08-23:17:05,10.1.1.2,29,-0.060,-0.060,-0.060,0.000,0.000,0.000
1644362225867849216,2022-02-08-23:17:05,10.1.1.2,29,-0.070,-0.070,-0.070,0.000,0.000,0.000
1644362225967608064,2022-02-08-23:17:05,10.1.1.2,28,-0.080,-0.080,-0.080,0.000,0.000,0.000
1644362226068218880,2022-02-08-23:17:06,10.1.1.2,28,-0.090,-0.090,-0.090,0.000,0.000,0.000
1644362226168463104,2022-02-08-23:17:06,10.1.1.2,27,-0.100,-0.100,-0.100,0.000,0.000,0.000
1644362226267823872,2022-02-08-23:17:06,10.1.1.2,26,-0.090,-0.090,-0.090,0.000,0.000,0.000
1644362226367896064,2022-02-08-23:17:06,10.1.1.2,26,-0.080,-0.080,-0.080,0.000,0.000,0.000
1644362226467343104,2022-02-08-23:17:06,10.1.1.2,25,-0.070,-0.070,-0.070,0.000,0.000,0.000
1644362226567843840,2022-02-08-23:17:06,10.1.1.2,25,-0.060,-0.060,-0.060,0.000,0.000,0.000
1644362227191714048,2022-02-08-23:17:07,10.1.1.2,38,0.000,0.000,0.000,0.000,0.000,0.000
1644362227291561984,2022-02-08-23:17:07,10.1.1.2,37,0.010,0.010,0.010,0.000,0.000,0.000
1644362227389111040,2022-02-08-23:17:07,10.1.1.2,37,0.020,0.020,0.020,0.000,0.000,0.000
1644362227491277056,2022-02-08-23:17:07,10.1.1.2,37,0.030,0.030,0.030,0.000,0.000,0.000
1644362227590413056,2022-02-08-23:17:07,10.1.1.2,36,0.040,0.040,0.040,0.000,0.000,0.000
1644362227688460032,2022-02-08-23:17:07,10.1.1.2,35,0.050,0.050,0.050,0.000,0.000,0.000
1644362227787571968,2022-02-08-23:17:07,10.1.1.2,34,0.060,0.060,0.060,0.000,0.000,0.000
1644362227887811072,2022-02-08-23:17:07,10.1.1.2,34,0.070,0.070,0.070,0.000,0.000,0.000
1644362227989323008,2022-02-08-23:17:07,10.1.1.2,34,0.080,0.080,0.080,0.000,0.000,0.000
1644362228368752896,2022-02-08-23:17:08,10.1.1.2,12,0.080,0.080,0.080,0.000,0.000,0.000
1644362228788171008,2022-02-08-23:17:08,10.1.1.2,29,0.040,0.040,0.040,0.000,0.000,0.000
1644362228889095936,2022-02-08-23:17:08,10.1.1.2,28,0.030,0.030,0.030,0.000,0.000,0.000
1644362228988881152,2022-02-08-23:17:08,10.1.1.2,28,0.020,0.020,0.020,0.000,0.000,0.000
1644362229091500032,2022-02-08-23:17:09,10.1.1.2,27,0.010,0.010,0.010,0.000,0.000,0.000
1644362229188199168,2022-02-08-23:17:09,10.1.1.2,27,0.000,0.000,0.000,0.000,0.000,0.000
1644362229290512128,2022-02-08-23:17:09,10.1.1.2,26,-0.010,-0.010,-0.010,0.000,0.000,0.000
1644362229387801856,2022-02-08-23:17:09,10.1.1.2,26,-0.020,-0.020,-0.020,0.000,0.000,0.000
1644362229488982016,2022-02-08-23:17:09,10.1.1.2,25,-0.030,-0.030,-0.030,0.000,0.000,0.000
1644362229588724992,2022-02-08-23:17:09,10.1.1.2,25,-0.040,-0.040,-0.040,0.000,0.000,0.000
1644362229688188160,2022-02-08-23:17:09,10.1.1.2,24,-0.050,-0.050,-0.050,0.000,0.000,0.000
1644362230511883008,2022-02-08-23:17:10,10.1.1.2,41,-0.070,-0.070,-0.070,0.000,0.000,0.000
1644362230609358080,2022-02-08-23:17:10,10.1.1.2,38,-0.060,-0.060,-0.060,0.000,0.000,0.000
1644362230708129792,2022-02-08-23:17:10,10.1.1.2,37,-0.050,-0.050,-0.050,0.000,0.000,0.000
1644362230807631104,2022-02-08-23:17:10,10.1.1.2,37,-0.040,-0.040,-0.040,0.000,0.000,0.000
1644362230911484928,2022-02-08-23:17:10,10.1.1.2,35,-0.030,-0.030,-0.030,0.000,0.000,0.000
1644362231008075008,2022-02-08-23:17:11,10.1.1.2,35,-0.020,-0.020,-0.020,0.000,0.000,0.000
1644362231108182016,2022-02-08-23:17:11,10.1.1.2,34,-0.010,-0.010,-0.010,0.000,0.000,0.000
1644362231208084224,2022-02-08-23:17:11,10.1.1.2,34,0.000,0.000,0.000,0.000,0.000,0.000
1644362231911505920,2022-02-08-23:17:11,10.1.1.2,29,0.070,0.070,0.070,0.000,0.000,0.000
1644362232008307968,2022-02-08-23:17:12,10.1.1.2,28,0.080,0.080,0.080,0.000,0.000,0.000
1644362232110863872,2022-02-08-23:17:12,10.1.1.2,28,0.090,0.090,0.090,0.000,0.000,0.000
1644362232208409088,2022-02-08-23:17:12,10.1.1.2,27,0.100,0.100,0.100,0.000,0.000,0.000
1644362232310465024,2022-02-08-23:17:12,10.1.1.2,26,0.090,0.090,0.090,0.000,0.000,0.000
1644362232410629120,2022-02-08-23:17:12,10.1.1.2,25,0.080,0.080,0.080,0.000,0.000,0.000
1644362232509372928,2022-02-08-23:17:12,10.1.1.2,24,0.070,0.070,0.070,0.000,0.000,0.000
1644362232608445952,2022-02-08-23:17:12,10.1.1.2,23,0.060,0.060,0.060,0.000,0.000,0.000
1644362233130902016,2022-02-08-23:17:13,10.1.1.2,37,0.010,0.010,0.010,0.000,0.000,0.000
1644362233228403968,2022-02-08-23:17:13,10.1.1.2,37,0.000,0.000,0.000,0.000,0.000,0.000
1644362233318816000,2022-02-08-23:17:13,10.1.1.2,27,-0.010,-0.010,-0.010,0.000,0.000,0.000
1644362233428438784,2022-02-08-23:17:13,10.1.1.2,36,-0.020,-0.020,-0.020,0.000,0.000,0.000
1644362233532207104,2022-02-08-23:17:13,10.1.1.2,35,-0.030,-0.030,-0.030,0.000,0.000,0.000
1644362233627772160,2022-02-08-23:17:13,10.1.1.2,34,-0.040,-0.040,-0.040,0.000,0.000,0.000
1644362233729583104,2022-02-08-23:17:13,10.1.1.2,34,-0.050,-0.050,-0.050,0.000,0.000,0.000
1644362234328146944,2022-02-08-23:17:14,10.1.1.2,29,-0.090,-0.090,-0.090,0.000,0.000,0.000
1644362234428001024,2022-02-08-23:17:14,10.1.1.2,29,-0.080,-0.080,-0.080,0.000,0.000,0.000
1644362234528790016,2022-02-08-23:17:14,10.1.1.2,28,-0.070,-0.070,-0.070,0.000,0.000,0.000
1644362234627568128,2022-02-08-23:17:14,10.1.1.2,28,-0.060,-0.060,-0.060,0.000,0.000,0.000
1644362234727835904,2022-02-08-23:17:14,10.1.1.2,27,-0.050,-0.050,-0.050,0.000,0.000,0.000
1644362234828113920,2022-02-08-23:17:14,10.1.1.2,27,-0.040,-0.040,-0.040,0.000,0.000,0.000
1644362234928081920,2022-02-08-23:17:14,10.1.1.2,26,-0.030,-0.030,-0.030,0.000,0.000,0.000
1644362235027885056,2022-02-08-23:17:15,10.1.1.2,26,-0.020,-0.020,-0.020,0.000,0.000,0.000
1644362235128065024,2022-02-08-23:17:15,10.1.1.2,25,-0.010,-0.010,-0.010,0.000,0.000,0.000
1644362235227849984,2022-02-08-23:17:15,10.1.1.2,25,0.000,0.000,0.000,0.000,0.000,0.000
1644362235331793152,2022-02-08-23:17:15,10.1.1.2,24,0.010,0.010,0.010,0.000,0.000,0.000
1644362236248302080,2022-02-08-23:17:16,10.1.1.2,39,0.100,0.100,0.100,0.000,0.000,0.000
1644362236347994112,2022-02-08-23:17:16,10.1.1.2,38,0.090,0.090,0.090,0.000,0.000,0.000
1644362236448932864,2022-02-08-23:17:16,10.1.1.2,37,0.080,0.080,0.080,0.000,0.000,0.000
1644362236549537024,2022-02-08-23:17:16,10.1.1.2,35,0.070,0.070,0.070,0.000,0.000,0.000
1644362236648269824,2022-02-08-23:17:16,10.1.1.2,35,0.060,0.060,0.060,0.000,0.000,0.000
1644362236748208128,2022-02-08-23:17:16,10.1.1.2,34,0.050,0.050,0.050,0.000,0.000,0.000
1644362237749655040,2022-02-08-23:17:17,10.1.1.2,29,-0.050,-0.050,-0.050,0.000,0.000,0.000
1644362237868154112,2022-02-08-23:17:17,10.1.1.2,48,-0.060,-0.060,-0.060,0.000,0.000,0.000
1644362237948498944,2022-02-08-23:17:17,10.1.1.2,28,-0.070,-0.070,-0.070,0.000,0.000,0.000
1644362238048254976,2022-02-08-23:17:18,10.1.1.2,28,-0.080,-0.080,-0.080,0.000,0.000,0.000
1644362238148275968,2022-02-08-23:17:18,10.1.1.2,27,-0.090,-0.090,-0.090,0.000,0.000,0.000
1644362238248076032,2022-02-08-23:17:18,10.1.1.2,26,-0.100,-0.100,-0.100,0.000,0.000,0.000
1644362238349790976,2022-02-08-23:17:18,10.1.1.2,26,-0.090,-0.090,-0.090,0.000,0.000,0.000
1644362238448837120,2022-02-08-23:17:18,10.1.1.2,25,-0.080,-0.080,-0.080,0.000,0.000,0.000
1644362238549679104,2022-02-08-23:17:18,10.1.1.2,25,-0.070,-0.070,-0.070,0.000,0.000,0.000
1644362238650944000,2022-02-08-23:17:18,10.1.1.2,24,-0.060,-0.060,-0.060,0.000,0.000,0.000
1644362239148704000,2022-02-08-23:17:19,10.1.1.2,20,-0.010,-0.010,-0.010,0.000,0.000,0.000
1644362239268482048,2022-02-08-23:17:19,10.1.1.2,39,0.000,0.000,0.000,0.000,0.000,0.000
1644362239369110016,2022-02-08-23:17:19,10.1.1.2,38,0.010,0.010,0.010,0.000,0.000,0.000
1644362239467952128,2022-02-08-23:17:19,10.1.1.2,38,0.020,0.020,0.020,0.000,0.000,0.000
1644362239568523008,2022-02-08-23:17:19,10.1.1.2,37,0.030,0.030,0.030,0.000,0.000,0.000
1644362239669737984,2022-02-08-23:17:19,10.1.1.2,37,0.040,0.040,0.040,0.000,0.000,0.000
1644362239768071936,2022-02-08-23:17:19,10.1.1.2,37,0.050,0.050,0.050,0.000,0.000,0.000
1644362239868065024,2022-02-08-23:17:19,10.1.1.2,36,0.060,0.060,0.060,0.000,0.000,0.000
1644362239969396224,2022-02-08-23:17:19,10.1.1.2,35,0.070,0.070,0.070,0.000,0.000,0.000
1644362240071533824,2022-02-08-23:17:20,10.1.1.2,35,0.080,0.080,0.080,0.000,0.000,0.000
1644362240168584192,2022-02-08-23:17:20,10.1.1.2,34,0.090,0.090,0.090,0.000,0.000,0.000
1644362240267972864,2022-02-08-23:17:20,10.1.1.2,34,0.100,0.100,0.100,0.000,0.000,0.000
1644362240872008960,2022-02-08-23:17:20,10.1.1.2,30,0.040,0.040,0.040,0.000,0.000,0.000
1644362241070717184,2022-02-08-23:17:21,10.1.1.2,29,0.020,0.020,0.020,0.000,0.000,0.000
1644362241167987200,2022-02-08-23:17:21,10.1.1.2,28,0.010,0.010,0.010,0.000,0.000,0.000
1644362241268305152,2022-02-08-23:17:21,10.1.1.2,28,0.000,0.000,0.000,0.000,0.000,0.000
1644362241368161024,2022-02-08-23:17:21,10.1.1.2,27,-0.010,-0.010,-0.010,0.000,0.000,0.000
1644362241468121088,2022-02-08-23:17:21,10.1.1.2,27,-0.020,-0.020,-0.020,0.000,0.000,0.000
1644362241568758016,2022-02-08-23:17:21,10.1.1.2,26,-0.030,-0.030,-0.030,0.000,0.000,0.000
1644362241668175104,2022-02-08-23:17:21,10.1.1.2,26,-0.040,-0.040,-0.040,0.000,0.000,0.000
1644362241769381120,2022-02-08-23:17:21,10.1.1.2,25,-0.050,-0.050,-0.050,0.000,0.000,0.000
1644362241868689920,2022-02-08-23:17:21,10.1.1.2,24,-0.060,-0.060,-0.060,0.000,0.000,0.000
1644362241968359936,2022-02-08-23:17:21,10.1.1.2,24,-0.070,-0.070,-0.070,0.000,0.000,0.000
1644362242069492224,2022-02-08-23:17:22,10.1.1.2,23,-0.080,-0.080,-0.080,0.000,0.000,0.000
1644362242448702208,2022-02-08-23:17:22,10.1.1.2,0,-0.080,-0.080,-0.080,0.000,0.000,0.000
1644362242589118976,2022-02-08-23:17:22,10.1.1.2,39,-0.070,-0.070,-0.070,0.000,0.000,0.000
1644362242688236032,2022-02-08-23:17:22,10.1.1.2,39,-0.060,-0.060,-0.060,0.000,0.000,0.000
1644362242788635904,2022-02-08-23:17:22,10.1.1.2,38,-0.050,-0.050,-0.050,0.000,0.000,0.000
1644362242888435968,2022-02-08-23:17:22,10.1.1.2,38,-0.040,-0.040,-0.040,0.000,0.000,0.000
1644362242989542912,2022-02-08-23:17:22,10.1.1.2,37,-0.030,-0.030,-0.030,0.000,0.000,0.000
1644362243089025024,2022-02-08-23:17:23,10.1.1.2,37,-0.020,-0.020,-0.020,0.000,0.000,0.000
1644362243189740800,2022-02-08-23:17:23,10.1.1.2,36,-0.010,-0.010,-0.010,0.000,0.000,0.000
1644362243288296960,2022-02-08-23:17:23,10.1.1.2,36,0.000,0.000,0.000,0.000,0.000,0.000
1644362243388793088,2022-02-08-23:17:23,10.1.1.2,35,0.010,0.010,0.010,0.000,0.000,0.000
1644362243488549888,2022-02-08-23:17:23,10.1.1.2,35,0.020,0.020,0.020,0.000,0.000,0.000
1644362243588506880,2022-02-08-23:17:23,10.1.1.2,34,0.030,0.030,0.030,0.000,0.000,0.000
1644362243688705024,2022-02-08-23:17:23,10.1.1.2,34,0.040,0.040,0.040,0.000,0.000,0.000
1644362244187961088,2022-02-08-23:17:24,10.1.1.2,29,0.090,0.090,0.090,0.000,0.000,0.000
1644362244288152832,2022-02-08-23:17:24,10.1.1.2,29,0.100,0.100,0.100,0.000,0.000,0.000
1644362244389369088,2022-02-08-23:17:24,10.1.1.2,28,0.090,0.090,0.090,0.000,0.000,0.000
1644362244488177920,2022-02-08-23:17:24,10.1.1.2,27,0.080,0.080,0.080,0.000,0.000,0.000
1644362244588304896,2022-02-08-23:17:24,10.1.1.2,26,0.070,0.070,0.070,0.000,0.000,0.000
1644362244688128000,2022-02-08-23:17:24,10.1.1.2,26,0.060,0.060,0.060,0.000,0.000,0.000
1644362244789249792,2022-02-08-23:17:24,10.1.1.2,26,0.050,0.050,0.050,0.000,0.000,0.000
1644362244890146048,2022-02-08-23:17:24,10.1.1.2,25,0.040,0.040,0.040,0.000,0.000,0.000
1644362244989383936,2022-02-08-23:17:24,10.1.1.2,25,0.030,0.030,0.030,0.000,0.000,0.000
1644362245087763968,2022-02-08-23:17:25,10.1.1.2,24,0.020,0.020,0.020,0.000,0.000,0.000
1644362245188307968,2022-02-08-23:17:25,10.1.1.2,23,0.010,0.010,0.010,0.000,0.000,0.000
1644362245508802816,2022-02-08-23:17:25,10.1.1.2,38,-0.020,-0.020,-0.020,0.000,0.000,0.000
1644362245608354048,2022-02-08-23:17:25,10.1.1.2,37,-0.030,-0.030,-0.030,0.000,0.000,0.000
1644362245708178944,2022-02-08-23:17:25,10.1.1.2,37,-0.040,-0.040,-0.040,0.000,0.000,0.000
1644362245808036096,2022-02-08-23:17:25,10.1.1.2,36,-0.050,-0.050,-0.050,0.000,0.000,0.000
1644362245907988992,2022-02-08-23:17:25,10.1.1.2,35,-0.060,-0.060,-0.060,0.000,0.000,0.000
1644362246008097024,2022-02-08-23:17:26,10.1.1.2,35,-0.070,-0.070,-0.070,0.000,0.000,0.000
1644362246107637760,2022-02-08-23:17:26,10.1.1.2,34,-0.080,-0.080,-0.080,0.000,0.000,0.000
1644362246207789056,2022-02-08-23:17:26,10.1.1.2,34,-0.090,-0.090,-0.090,0.000,0.000,0.000
1644362246307562240,2022-02-08-23:17:26,10.1.1.2,33,-0.100,-0.100,-0.100,0.000,0.000,0.000
1644362246407491072,2022-02-08-23:17:26,10.1.1.2,33,-0.090,-0.090,-0.090,0.000,0.000,0.000
1644362247008420864,2022-02-08-23:17:27,10.1.1.2,29,-0.030,-0.030,-0.030,0.000,0.000,0.000
1644362247109318144,2022-02-08-23:17:27,10.1.1.2,29,-0.020,-0.020,-0.020,0.000,0.000,0.000
1644362247208211968,2022-02-08-23:17:27,10.1.1.2,28,-0.010,-0.010,-0.010,0.000,0.000,0.000
1644362247307954176,2022-02-08-23:17:27,10.1.1.2,27,0.000,0.000,0.000,0.000,0.000,0.000
1644362247409061888,2022-02-08-23:17:27,10.1.1.2,28,0.010,0.010,0.010,0.000,0.000,0.000
1644362247508288000,2022-02-08-23:17:27,10.1.1.2,27,0.020,0.020,0.020,0.000,0.000,0.000
1644362247608033792,2022-02-08-23:17:27,10.1.1.2,26,0.030,0.030,0.030,0.000,0.000,0.000
1644362247708765952,2022-02-08-23:17:27,10.1.1.2,26,0.040,0.040,0.040,0.000,0.000,0.000
1644362247808902912,2022-02-08-23:17:27,10.1.1.2,26,0.050,0.050,0.050,0.000,0.000,0.000
1644362247908555008,2022-02-08-23:17:27,10.1.1.2,25,0.060,0.060,0.060,0.000,0.000,0.000
1644362248008964096,2022-02-08-23:17:28,10.1.1.2,25,0.070,0.070,0.070,0.000,0.000,0.000
1644362248107863808,2022-02-08-23:17:28,10.1.1.2,24,0.080,0.080,0.080,0.000,0.000,0.000
1644362248208489984,2022-02-08-23:17:28,10.1.1.2,24,0.090,0.090,0.090,0.000,0.000,0.000
1644362248389262848,2022-02-08-23:17:28,10.1.1.2,2,0.090,0.090,0.090,0.000,0.000,0.000
1644362249027829760,2022-02-08-23:17:29,10.1.1.2,39,0.030,0.030,0.030,0.000,0.000,0.000
1644362249128705024,2022-02-08-23:17:29,10.1.1.2,39,0.020,0.020,0.020,0.000,0.000,0.000
1644362249227948800,2022-02-08-23:17:29,10.1.1.2,37,0.010,0.010,0.010,0.000,0.000,0.000
1644362249327646976,2022-02-08-23:17:29,10.1.1.2,36,0.000,0.000,0.000,0.000,0.000,0.000
1644362249428054016,2022-02-08-23:17:29,10.1.1.2,36,-0.010,-0.010,-0.010,0.000,0.000,0.000
1644362249528188928,2022-02-08-23:17:29,10.1.1.2,35,-0.020,-0.020,-0.020,0.000,0.000,0.000
1644362249627655936,2022-02-08-23:17:29,10.1.1.2,34,-0.030,-0.030,-0.030,0.000,0.000,0.000
1644362249727809792,2022-02-08-23:17:29,10.1.1.2,34,-0.040,-0.040,-0.040,0.000,0.000,0.000
1644362250627777024,2022-02-08-23:17:30,10.1.1.2,29,-0.070,-0.070,-0.070,0.000,0.000,0.000
1644362250728777984,2022-02-08-23:17:30,10.1.1.2,29,-0.060,-0.060,-0.060,0.000,0.000,0.000
1644362250828710912,2022-02-08-23:17:30,10.1.1.2,28,-0.050,-0.050,-0.050,0.000,0.000,0.000
1644362250928209920,2022-02-08-23:17:30,10.1.1.2,28,-0.040,-0.040,-0.040,0.000,0.000,0.000
1644362251028864000,2022-02-08-23:17:31,10.1.1.2,27,-0.030,-0.030,-0.030,0.000,0.000,0.000
1644362251128241152,2022-02-08-23:17:31,10.1.1.2,26,-0.020,-0.020,-0.020,0.000,0.000,0.000
1644362251231532032,2022-02-08-23:17:31,10.1.1.2,26,-0.010,-0.010,-0.010,0.000,0.000,0.000
1644362251329067008,2022-02-08-23:17:31,10.1.1.2,26,0.000,0.000,0.000,0.000,0.000,0.000
1644362251428244224,2022-02-08-23:17:31,10.1.1.2,25,0.010,0.010,0.010,0.000,0.000,0.000
1644362251528048896,2022-02-08-23:17:31,10.1.1.2,24,0.020,0.020,0.020,0.000,0.000,0.000
1644362251628732928,2022-02-08-23:17:31,10.1.1.2,24,0.030,0.030,0.030,0.000,0.000,0.000
1644362251728611072,2022-02-08-23:17:31,10.1.1.2,23,0.040,0.040,0.040,0.000,0.000,0.000
1644362252447998976,2022-02-08-23:17:32,10.1.1.2,39,0.090,0.090,0.090,0.000,0.000,0.000
1644362252552503040,2022-02-08-23:17:32,10.1.1.2,39,0.080,0.080,0.080,0.000,0.000,0.000
1644362252648809984,2022-02-08-23:17:32,10.1.1.2,38,0.070,0.070,0.070,0.000,0.000,0.000
1644362252748222976,2022-02-08-23:17:32,10.1.1.2,38,0.060,0.060,0.060,0.000,0.000,0.000
1644362252849456128,2022-02-08-23:17:32,10.1.1.2,37,0.050,0.050,0.050,0.000,0.000,0.000
1644362252949326080,2022-02-08-23:17:32,10.1.1.2,37,0.040,0.040,0.040,0.000,0.000,0.000
1644362253049568000,2022-02-08-23:17:33,10.1.1.2,36,0.030,0.030,0.030,0.000,0.000,0.000
1644362253149035008,2022-02-08-23:17:33,10.1.1.2,36,0.020,0.020,0.020,0.000,0.000,0.000
1644362253248368896,2022-02-08-23:17:33,10.1.1.2,35,0.010,0.010,0.010,0.000,0.000,0.000
1644362253348967936,2022-02-08-23:17:33,10.1.1.2,35,0.000,0.000,0.000,0.000,0.000,0.000
1644362253449008896,2022-02-08-23:17:33,10.1.1.2,34,-0.010,-0.010,-0.010,0.000,0.000,0.000
1644362253548645120,2022-02-08-23:17:33,10.1.1.2,34,-0.020,-0.020,-0.020,0.000,0.000,0.000
1644362253648953856,2022-02-08-23:17:33,10.1.1.2,33,-0.030,-0.030,-0.030,0.000,0.000,0.000
1644362253748653824,2022-02-08-23:17:33,10.1.1.2,33,-0.040,-0.040,-0.040,0.000,0.000,0.000
1644362253848733952,2022-02-08-23:17:33,10.1.1.2,33,-0.050,-0.050,-0.050,0.000,0.000,0.000
1644362254369319936,2022-02-08-23:17:34,10.1.1.2,25,-0.100,-0.100,-0.100,0.000,0.000,0.000
1644362254449445120,2022-02-08-23:17:34,10.1.1.2,23,-0.090,-0.090,-0.090,0.000,0.000,0.000
1644362255148827904,2022-02-08-23:17:35,10.1.1.2,20,-0.020,-0.020,-0.020,0.000,0.000,0.000
1644362255269434880,2022-02-08-23:17:35,10.1.1.2,39,-0.010,-0.010,-0.010,0.000,0.000,0.000
1644362255368849920,2022-02-08-23:17:35,10.1.1.2,38,0.000,0.000,0.000,0.000,0.000,0.000
1644362255468717056,2022-02-08-23:17:35,10.1.1.2,38,0.010,0.010,0.010,0.000,0.000,0.000
1644362255568679936,2022-02-08-23:17:35,10.1.1.2,37,0.020,0.020,0.020,0.000,0.000,0.000
1644362255668272128,2022-02-08-23:17:35,10.1.1.2,36,0.030,0.030,0.030,0.000,0.000,0.000
1644362255768403968,2022-02-08-23:17:35,10.1.1.2,35,0.040,0.040,0.040,0.000,0.000,0.000
1644362255868418048,2022-02-08-23:17:35,10.1.1.2,34,0.050,0.050,0.050,0.000,0.000,0.000
1644362255969491968,2022-02-08-23:17:35,10.1.1.2,34,0.060,0.060,0.060,0.000,0.000,0.000
1644362256749816832,2022-02-08-23:17:36,10.1.1.2,10,0.060,0.060,0.060,0.000,0.000,0.000
1644362256968480000,2022-02-08-23:17:36,10.1.1.2,29,0.040,0.040,0.040,0.000,0.000,0.000
1644362257068679936,2022-02-08-23:17:37,10.1.1.2,29,0.030,0.030,0.030,0.000,0.000,0.000
1644362257168801024,2022-02-08-23:17:37,10.1.1.2,28,0.020,0.020,0.020,0.000,0.000,0.000
1644362257268276992,2022-02-08-23:17:37,10.1.1.2,27,0.010,0.010,0.010,0.000,0.000,0.000
1644362257490046976,2022-02-08-23:17:37,10.1.1.2,26,-0.010,-0.010,-0.010,0.000,0.000,0.000
1644362257588912896,2022-02-08-23:17:37,10.1.1.2,25,-0.020,-0.020,-0.020,0.000,0.000,0.000
1644362257680131072,2022-02-08-23:17:37,10.1.1.2,-37,-0.020,-0.020,-0.020,0.000,0.000,0.000
1644362257808824064,2022-02-08-23:17:37,10.1.1.2,34,-0.040,-0.040,-0.040,0.000,0.000,0.000
1644362257908444928,2022-02-08-23:17:37,10.1.1.2,33,-0.050,-0.050,-0.050,0.000,0.000,0.000
1644362258809075968,2022-02-08-23:17:38,10.1.1.2,28,-0.060,-0.060,-0.060,0.000,0.000,0.000
1644362258909171968,2022-02-08-23:17:38,10.1.1.2,28,-0.050,-0.050,-0.050,0.000,0.000,0.000
1644362259011968000,2022-02-08-23:17:39,10.1.1.2,27,-0.040,-0.040,-0.040,0.000,0.000,0.000
1644362259112158976,2022-02-08-23:17:39,10.1.1.2,27,-0.030,-0.030,-0.030,0.000,0.000,0.000
1644362259208712960,2022-02-08-23:17:39,10.1.1.2,26,-0.020,-0.020,-0.020,0.000,0.000,0.000
1644362259308502016,2022-02-08-23:17:39,10.1.1.2,25,-0.010,-0.010,-0.010,0.000,0.000,0.000
1644362259409097984,2022-02-08-23:17:39,10.1.1.2,25,-0.000,-0.000,-0.000,0.000,0.000,0.000
1644362259508711936,2022-02-08-23:17:39,10.1.1.2,24,0.010,0.010,0.010,0.000,0.000,0.000
1644362259609880064,2022-02-08-23:17:39,10.1.1.2,24,0.020,0.020,0.020,0.000,0.000,0.000
1644362259709222912,2022-02-08-23:17:39,10.1.1.2,23,0.030,0.030,0.030,0.000,0.000,0.000
1644362260530157056,2022-02-08-23:17:40,10.1.1.2,38,0.090,0.090,0.090,0.000,0.000,0.000
1644362260629010944,2022-02-08-23:17:40,10.1.1.2,38,0.080,0.080,0.080,0.000,0.000,0.000
1644362260728924160,2022-02-08-23:17:40,10.1.1.2,37,0.070,0.070,0.070,0.000,0.000,0.000
1644362260834721024,2022-02-08-23:17:40,10.1.1.2,37,0.060,0.060,0.060,0.000,0.000,0.000
1644362261729182976,2022-02-08-23:17:41,10.1.1.2,28,-0.030,-0.030,-0.030,0.000,0.000,0.000
1644362261828578048,2022-02-08-23:17:41,10.1.1.2,28,-0.040,-0.040,-0.040,0.000,0.000,0.000
1644362261928739072,2022-02-08-23:17:41,10.1.1.2,28,-0.050,-0.050,-0.050,0.000,0.000,0.000
1644362262029301760,2022-02-08-23:17:42,10.1.1.2,27,-0.060,-0.060,-0.060,0.000,0.000,0.000
1644362262129056000,2022-02-08-23:17:42,10.1.1.2,26,-0.070,-0.070,-0.070,0.000,0.000,0.000
1644362262228920064,2022-02-08-23:17:42,10.1.1.2,26,-0.080,-0.080,-0.080,0.000,0.000,0.000
1644362262329835008,2022-02-08-23:17:42,10.1.1.2,25,-0.090,-0.090,-0.090,0.000,0.000,0.000
1644362262429348096,2022-02-08-23:17:42,10.1.1.2,25,-0.100,-0.100,-0.100,0.000,0.000,0.000
1644362262529278976,2022-02-08-23:17:42,10.1.1.2,24,-0.090,-0.090,-0.090,0.000,0.000,0.000
1644362262629293056,2022-02-08-23:17:42,10.1.1.2,23,-0.080,-0.080,-0.080,0.000,0.000,0.000
1644362262728604928,2022-02-08-23:17:42,10.1.1.2,23,-0.070,-0.070,-0.070,0.000,0.000,0.000
1644362263329042944,2022-02-08-23:17:43,10.1.1.2,20,-0.010,-0.010,-0.010,0.000,0.000,0.000
1644362263449271040,2022-02-08-23:17:43,10.1.1.2,39,0.000,0.000,0.000,0.000,0.000,0.000
1644362263549197824,2022-02-08-23:17:43,10.1.1.2,39,0.010,0.010,0.010,0.000,0.000,0.000
1644362263648732928,2022-02-08-23:17:43,10.1.1.2,38,0.020,0.020,0.020,0.000,0.000,0.000
1644362263748593152,2022-02-08-23:17:43,10.1.1.2,36,0.030,0.030,0.030,0.000,0.000,0.000
1644362263848762880,2022-02-08-23:17:43,10.1.1.2,36,0.040,0.040,0.040,0.000,0.000,0.000
1644362263948535040,2022-02-08-23:17:43,10.1.1.2,35,0.050,0.050,0.050,0.000,0.000,0.000
1644362264049484032,2022-02-08-23:17:44,10.1.1.2,35,0.060,0.060,0.060,0.000,0.000,0.000
1644362264149204992,2022-02-08-23:17:44,10.1.1.2,35,0.070,0.070,0.070,0.000,0.000,0.000
1644362264249608960,2022-02-08-23:17:44,10.1.1.2,34,0.080,0.080,0.080,0.000,0.000,0.000
1644362264349175040,2022-02-08-23:17:44,10.1.1.2,34,0.090,0.090,0.090,0.000,0.000,0.000
1644362264449403904,2022-02-08-23:17:44,10.1.1.2,33,0.100,0.100,0.100,0.000,0.000,0.000
1644362264548712960,2022-02-08-23:17:44,10.1.1.2,32,0.090,0.090,0.090,0.000,0.000,0.000
1644362265349128960,2022-02-08-23:17:45,10.1.1.2,28,0.010,0.010,0.010,0.000,0.000,0.000
1644362265449284096,2022-02-08-23:17:45,10.1.1.2,27,0.000,0.000,0.000,0.000,0.000,0.000
1644362265548897024,2022-02-08-23:17:45,10.1.1.2,26,-0.010,-0.010,-0.010,0.000,0.000,0.000
1644362265648531968,2022-02-08-23:17:45,10.1.1.2,26,-0.020,-0.020,-0.020,0.000,0.000,0.000
1644362265748666112,2022-02-08-23:17:45,10.1.1.2,25,-0.030,-0.030,-0.030,0.000,0.000,0.000
1644362265848946944,2022-02-08-23:17:45,10.1.1.2,25,-0.040,-0.040,-0.040,0.000,0.000,0.000
1644362265950854912,2022-02-08-23:17:45,10.1.1.2,24,-0.050,-0.050,-0.050,0.000,0.000,0.000
1644362266048948992,2022-02-08-23:17:46,10.1.1.2,24,-0.060,-0.060,-0.060,0.000,0.000,0.000
1644362266151329024,2022-02-08-23:17:46,10.1.1.2,23,-0.070,-0.070,-0.070,0.000,0.000,0.000
1644362266249794048,2022-02-08-23:17:46,10.1.1.2,22,-0.080,-0.080,-0.080,0.000,0.000,0.000
1644362266629182976,2022-02-08-23:17:46,10.1.1.2,1,-0.080,-0.080,-0.080,0.000,0.000,0.000
1644362266871237120,2022-02-08-23:17:46,10.1.1.2,40,-0.060,-0.060,-0.060,0.000,0.000,0.000
1644362266969004032,2022-02-08-23:17:46,10.1.1.2,39,-0.050,-0.050,-0.050,0.000,0.000,0.000
1644362267068715008,2022-02-08-23:17:47,10.1.1.2,39,-0.040,-0.040,-0.040,0.000,0.000,0.000
1644362267168847104,2022-02-08-23:17:47,10.1.1.2,38,-0.030,-0.030,-0.030,0.000,0.000,0.000
1644362267268956928,2022-02-08-23:17:47,10.1.1.2,38,-0.020,-0.020,-0.020,0.000,0.000,0.000
1644362267369227008,2022-02-08-23:17:47,10.1.1.2,36,-0.010,-0.010,-0.010,0.000,0.000,0.000
1644362267469755904,2022-02-08-23:17:47,10.1.1.2,36,0.000,0.000,0.000,0.000,0.000,0.000
1644362267568770048,2022-02-08-23:17:47,10.1.1.2,36,0.010,0.010,0.010,0.000,0.000,0.000
1644362267669895936,2022-02-08-23:17:47,10.1.1.2,35,0.020,0.020,0.020,0.000,0.000,0.000
1644362267768836864,2022-02-08-23:17:47,10.1.1.2,35,0.030,0.030,0.030,0.000,0.000,0.000
1644362267868621056,2022-02-08-23:17:47,10.1.1.2,34,0.040,0.040,0.040,0.000,0.000,0.000
1644362267969049088,2022-02-08-23:17:47,10.1.1.2,34,0.050,0.050,0.050,0.000,0.000,0.000
1644362268068957184,2022-02-08-23:17:48,10.1.1.2,33,0.060,0.060,0.060,0.000,0.000,0.000
1644362268173000960,2022-02-08-23:17:48,10.1.1.2,33,0.070,0.070,0.070,0.000,0.000,0.000
1644362268749638144,2022-02-08-23:17:48,10.1.1.2,9,0.070,0.070,0.070,0.000,0.000,0.000
1644362268869821952,2022-02-08-23:17:48,10.1.1.2,28,0.060,0.060,0.060,0.000,0.000,0.000
1644362268969238016,2022-02-08-23:17:48,10.1.1.2,28,0.050,0.050,0.050,0.000,0.000,0.000
1644362269069683968,2022-02-08-23:17:49,10.1.1.2,28,0.040,0.040,0.040,0.000,0.000,0.000
1644362269169815040,2022-02-08-23:17:49,10.1.1.2,27,0.030,0.030,0.030,0.000,0.000,0.000
1644362269270543104,2022-02-08-23:17:49,10.1.1.2,27,0.020,0.020,0.020,0.000,0.000,0.000
1644362269373058048,2022-02-08-23:17:49,10.1.1.2,26,0.010,0.010,0.010,0.000,0.000,0.000
1644362269469698816,2022-02-08-23:17:49,10.1.1.2,26,0.000,0.000,0.000,0.000,0.000,0.000
1644362269569680896,2022-02-08-23:17:49,10.1.1.2,25,-0.010,-0.010,-0.010,0.000,0.000,0.000
1644362269671962112,2022-02-08-23:17:49,10.1.1.2,25,-0.020,-0.020,-0.020,0.000,0.000,0.000
1644362269771830016,2022-02-08-23:17:49,10.1.1.2,24,-0.030,-0.030,-0.030,0.000,0.000,0.000
1644362269869767936,2022-02-08-23:17:49,10.1.1.2,24,-0.040,-0.040,-0.040,0.000,0.000,0.000
1644362269970125056,2022-02-08-23:17:49,10.1.1.2,23,-0.050,-0.050,-0.050,0.000,0.000,0.000
1644362270068922880,2022-02-08-23:17:50,10.1.1.2,23,-0.060,-0.060,-0.060,0.000,0.000,0.000
1644362270729712128,2022-02-08-23:17:50,10.1.1.2,24,-0.080,-0.080,-0.080,0.000,0.000,0.000
1644362270830068992,2022-02-08-23:17:50,10.1.1.2,23,-0.070,-0.070,-0.070,0.000,0.000,0.000
1644362270930327808,2022-02-08-23:17:50,10.1.1.2,23,-0.060,-0.060,-0.060,0.000,0.000,0.000
1644362271448852992,2022-02-08-23:17:51,10.1.1.2,39,-0.010,-0.010,-0.010,0.000,0.000,0.000
1644362271549387008,2022-02-08-23:17:51,10.1.1.2,39,0.000,0.000,0.000,0.000,0.000,0.000
1644362271650855936,2022-02-08-23:17:51,10.1.1.2,38,0.010,0.010,0.010,0.000,0.000,0.000
1644362271749531136,2022-02-08-23:17:51,10.1.1.2,37,0.020,0.020,0.020,0.000,0.000,0.000
1644362271849647104,2022-02-08-23:17:51,10.1.1.2,36,0.030,0.030,0.030,0.000,0.000,0.000
1644362271949698048,2022-02-08-23:17:51,10.1.1.2,36,0.040,0.040,0.040,0.000,0.000,0.000
1644362272052540928,2022-02-08-23:17:52,10.1.1.2,35,0.050,0.050,0.050,0.000,0.000,0.000
1644362272151730176,2022-02-08-23:17:52,10.1.1.2,34,0.060,0.060,0.060,0.000,0.000,0.000
1644362272251116032,2022-02-08-23:17:52,10.1.1.2,33,0.070,0.070,0.070,0.000,0.000,0.000
1644362272351918848,2022-02-08-23:17:52,10.1.1.2,32,0.080,0.080,0.080,0.000,0.000,0.000
1644362272730688000,2022-02-08-23:17:52,10.1.1.2,8,0.080,0.080,0.080,0.000,0.000,0.000
1644362272852911104,2022-02-08-23:17:52,10.1.1.2,28,0.070,0.070,0.070,0.000,0.000,0.000
1644362272952559872,2022-02-08-23:17:52,10.1.1.2,27,0.060,0.060,0.060,0.000,0.000,0.000
1644362273052168960,2022-02-08-23:17:53,10.1.1.2,27,0.050,0.050,0.050,0.000,0.000,0.000
1644362273154448896,2022-02-08-23:17:53,10.1.1.2,26,0.040,0.040,0.040,0.000,0.000,0.000
1644362273251836928,2022-02-08-23:17:53,10.1.1.2,26,0.030,0.030,0.030,0.000,0.000,0.000
1644362273351505152,2022-02-08-23:17:53,10.1.1.2,25,0.020,0.020,0.020,0.000,0.000,0.000
1644362273455971072,2022-02-08-23:17:53,10.1.1.2,24,0.010,0.010,0.010,0.000,0.000,0.000
1644362274211911936,2022-02-08-23:17:54,10.1.1.2,28,-0.060,-0.060,-0.060,0.000,0.000,0.000
1644362274311117824,2022-02-08-23:17:54,10.1.1.2,28,-0.070,-0.070,-0.070,0.000,0.000,0.000
1644362274409772032,2022-02-08-23:17:54,10.1.1.2,27,-0.080,-0.080,-0.080,0.000,0.000,0.000
1644362274511645184,2022-02-08-23:17:54,10.1.1.2,26,-0.090,-0.090,-0.090,0.000,0.000,0.000
1644362274657118976,2022-02-08-23:17:54,10.1.1.2,26,-0.100,-0.100,-0.100,0.000,0.000,0.000
1644362274709549824,2022-02-08-23:17:54,10.1.1.2,25,-0.090,-0.090,-0.090,0.000,0.000,0.000
1644362274809447168,2022-02-08-23:17:54,10.1.1.2,24,-0.080,-0.080,-0.080,0.000,0.000,0.000
1644362274908886016,2022-02-08-23:17:54,10.1.1.2,24,-0.070,-0.070,-0.070,0.000,0.000,0.000
1644362275009443072,2022-02-08-23:17:55,10.1.1.2,24,-0.060,-0.060,-0.060,0.000,0.000,0.000
1644362275108946176,2022-02-08-23:17:55,10.1.1.2,23,-0.050,-0.050,-0.050,0.000,0.000,0.000
1644362275829063936,2022-02-08-23:17:55,10.1.1.2,39,0.020,0.020,0.020,0.000,0.000,0.000
1644362275928865792,2022-02-08-23:17:55,10.1.1.2,38,0.030,0.030,0.030,0.000,0.000,0.000
1644362276029594880,2022-02-08-23:17:56,10.1.1.2,37,0.040,0.040,0.040,0.000,0.000,0.000
1644362276128971008,2022-02-08-23:17:56,10.1.1.2,37,0.050,0.050,0.050,0.000,0.000,0.000
1644362276229512960,2022-02-08-23:17:56,10.1.1.2,36,0.060,0.060,0.060,0.000,0.000,0.000
1644362276329191936,2022-02-08-23:17:56,10.1.1.2,35,0.070,0.070,0.070,0.000,0.000,0.000
1644362276429732096,2022-02-08-23:17:56,10.1.1.2,34,0.080,0.080,0.080,0.000,0.000,0.000
1644362276529879040,2022-02-08-23:17:56,10.1.1.2,34,0.090,0.090,0.090,0.000,0.000,0.000
1644362276629265920,2022-02-08-23:17:56,10.1.1.2,33,0.100,0.100,0.100,0.000,0.000,0.000
1644362276729892864,2022-02-08-23:17:56,10.1.1.2,33,0.090,0.090,0.090,0.000,0.000,0.000
1644362276829593856,2022-02-08-23:17:56,10.1.1.2,33,0.080,0.080,0.080,0.000,0.000,0.000
1644362277128910080,2022-02-08-23:17:57,10.1.1.2,30,0.050,0.050,0.050,0.000,0.000,0.000
1644362277229049856,2022-02-08-23:17:57,10.1.1.2,29,0.040,0.040,0.040,0.000,0.000,0.000
1644362277329691904,2022-02-08-23:17:57,10.1.1.2,29,0.030,0.030,0.030,0.000,0.000,0.000
1644362277430361088,2022-02-08-23:17:57,10.1.1.2,28,0.020,0.020,0.020,0.000,0.000,0.000
1644362277528897024,2022-02-08-23:17:57,10.1.1.2,28,0.010,0.010,0.010,0.000,0.000,0.000
1644362277629657856,2022-02-08-23:17:57,10.1.1.2,28,0.000,0.000,0.000,0.000,0.000,0.000
1644362277729195008,2022-02-08-23:17:57,10.1.1.2,26,-0.010,-0.010,-0.010,0.000,0.000,0.000
1644362277829936128,2022-02-08-23:17:57,10.1.1.2,25,-0.020,-0.020,-0.020,0.000,0.000,0.000
1644362277928963072,2022-02-08-23:17:57,10.1.1.2,25,-0.030,-0.030,-0.030,0.000,0.000,0.000
1644362278029406976,2022-02-08-23:17:58,10.1.1.2,25,-0.040,-0.040,-0.040,0.000,0.000,0.000
1644362278129626112,2022-02-08-23:17:58,10.1.1.2,24,-0.050,-0.050,-0.050,0.000,0.000,0.000
1644362278229954048,2022-02-08-23:17:58,10.1.1.2,23,-0.060,-0.060,-0.060,0.000,0.000,0.000
1644362278329700096,2022-02-08-23:17:58,10.1.1.2,23,-0.070,-0.070,-0.070,0.000,0.000,0.000
1644362278429085952,2022-02-08-23:17:58,10.1.1.2,23,-0.080,-0.080,-0.080,0.000,0.000,0.000
1644362278529463040,2022-02-08-23:17:58,10.1.1.2,22,-0.090,-0.090,-0.090,0.000,0.000,0.000
1644362278710084864,2022-02-08-23:17:58,10.1.1.2,0,-0.090,-0.090,-0.090,0.000,0.000,0.000
1644362279050087936,2022-02-08-23:17:59,10.1.1.2,39,-0.060,-0.060,-0.060,0.000,0.000,0.000
1644362279150669056,2022-02-08-23:17:59,10.1.1.2,39,-0.050,-0.050,-0.050,0.000,0.000,0.000
1644362279249441024,2022-02-08-23:17:59,10.1.1.2,38,-0.040,-0.040,-0.040,0.000,0.000,0.000
1644362279350104064,2022-02-08-23:17:59,10.1.1.2,38,-0.030,-0.030,-0.030,0.000,0.000,0.000
1644362279449438208,2022-02-08-23:17:59,10.1.1.2,37,-0.020,-0.020,-0.020,0.000,0.000,0.000
1644362279550050048,2022-02-08-23:17:59,10.1.1.2,36,-0.010,-0.010,-0.010,0.000,0.000,0.000
1644362279649118976,2022-02-08-23:17:59,10.1.1.2,36,0.000,0.000,0.000,0.000,0.000,0.000
1644362279749159168,2022-02-08-23:17:59,10.1.1.2,35,0.010,0.010,0.010,0.000,0.000,0.000
1644362279849602816,2022-02-08-23:17:59,10.1.1.2,35,0.020,0.020,0.020,0.000,0.000,0.000
1644362279949559808,2022-02-08-23:17:59,10.1.1.2,35,0.030,0.030,0.030,0.000,0.000,0.000
1644362280049071104,2022-02-08-23:18:00,10.1.1.2,34,0.040,0.040,0.040,0.000,0.000,0.000
1644362280150050048,2022-02-08-23:18:00,10.1.1.2,34,0.050,0.050,0.050,0.000,0.000,0.000
1644362280248902912,2022-02-08-23:18:00,10.1.1.2,33,0.060,0.060,0.060,0.000,0.000,0.000
1644362280349107968,2022-02-08-23:18:00,10.1.1.2,32,0.070,0.070,0.070,0.000,0.000,0.000
1644362280849302016,2022-02-08-23:18:00,10.1.1.2,29,0.080,0.080,0.080,0.000,0.000,0.000
1644362280949265920,2022-02-08-23:18:00,10.1.1.2,28,0.070,0.070,0.070,0.000,0.000,0.000
1644362281049314048,2022-02-08-23:18:01,10.1.1.2,28,0.060,0.060,0.060,0.000,0.000,0.000
1644362281149940992,2022-02-08-23:18:01,10.1.1.2,28,0.050,0.050,0.050,0.000,0.000,0.000
1644362281249260032,2022-02-08-23:18:01,10.1.1.2,27,0.040,0.040,0.040,0.000,0.000,0.000
1644362281348994048,2022-02-08-23:18:01,10.1.1.2,27,0.030,0.030,0.030,0.000,0.000,0.000
1644362281449108992,2022-02-08-23:18:01,10.1.1.2,26,0.020,0.020,0.020,0.000,0.000,0.000
1644362281551023104,2022-02-08-23:18:01,10.1.1.2,26,0.010,0.010,0.010,0.000,0.000,0.000
1644362281649928192,2022-02-08-23:18:01,10.1.1.2,25,0.000,0.000,0.000,0.000,0.000,0.000
1644362281748995072,2022-02-08-23:18:01,10.1.1.2,24,-0.010,-0.010,-0.010,0.000,0.000,0.000
1644362281849061888,2022-02-08-23:18:01,10.1.1.2,24,-0.020,-0.020,-0.020,0.000,0.000,0.000
1644362281949417984,2022-02-08-23:18:01,10.1.1.2,24,-0.030,-0.030,-0.030,0.000,0.000,0.000
1644362282069861888,2022-02-08-23:18:02,10.1.1.2,38,-0.040,-0.040,-0.040,0.000,0.000,0.000
1644362282169676032,2022-02-08-23:18:02,10.1.1.2,37,-0.050,-0.050,-0.050,0.000,0.000,0.000
1644362282269701888,2022-02-08-23:18:02,10.1.1.2,36,-0.060,-0.060,-0.060,0.000,0.000,0.000
1644362282370409984,2022-02-08-23:18:02,10.1.1.2,35,-0.070,-0.070,-0.070,0.000,0.000,0.000
1644362282470017792,2022-02-08-23:18:02,10.1.1.2,35,-0.080,-0.080,-0.080,0.000,0.000,0.000
1644362282569318144,2022-02-08-23:18:02,10.1.1.2,33,-0.090,-0.090,-0.090,0.000,0.000,0.000
1644362282668770048,2022-02-08-23:18:02,10.1.1.2,33,-0.100,-0.100,-0.100,0.000,0.000,0.000
1644362282768982784,2022-02-08-23:18:02,10.1.1.2,32,-0.090,-0.090,-0.090,0.000,0.000,0.000
1644362283369380864,2022-02-08-23:18:03,10.1.1.2,29,-0.030,-0.030,-0.030,0.000,0.000,0.000
1644362283469466880,2022-02-08-23:18:03,10.1.1.2,29,-0.020,-0.020,-0.020,0.000,0.000,0.000
1644362283569626112,2022-02-08-23:18:03,10.1.1.2,28,-0.010,-0.010,-0.010,0.000,0.000,0.000
1644362283669976832,2022-02-08-23:18:03,10.1.1.2,27,0.000,0.000,0.000,0.000,0.000,0.000
1644362283769453056,2022-02-08-23:18:03,10.1.1.2,27,0.010,0.010,0.010,0.000,0.000,0.000
1644362283869921024,2022-02-08-23:18:03,10.1.1.2,26,0.020,0.020,0.020,0.000,0.000,0.000
1644362283969508864,2022-02-08-23:18:03,10.1.1.2,26,0.030,0.030,0.030,0.000,0.000,0.000
1644362284069558016,2022-02-08-23:18:04,10.1.1.2,25,0.040,0.040,0.040,0.000,0.000,0.000
1644362284169320192,2022-02-08-23:18:04,10.1.1.2,25,0.050,0.050,0.050,0.000,0.000,0.000
1644362284270141952,2022-02-08-23:18:04,10.1.1.2,24,0.060,0.060,0.060,0.000,0.000,0.000
1644362284370176000,2022-02-08-23:18:04,10.1.1.2,24,0.070,0.070,0.070,0.000,0.000,0.000
1644362284470127104,2022-02-08-23:18:04,10.1.1.2,24,0.080,0.080,0.080,0.000,0.000,0.000
1644362284570406912,2022-02-08-23:18:04,10.1.1.2,24,0.090,0.090,0.090,0.000,0.000,0.000
1644362284669601792,2022-02-08-23:18:04,10.1.1.2,22,0.100,0.100,0.100,0.000,0.000,0.000
1644362284769679104,2022-02-08-23:18:04,10.1.1.2,22,0.090,0.090,0.090,0.000,0.000,0.000
1644362285190675968,2022-02-08-23:18:05,10.1.1.2,38,0.050,0.050,0.050,0.000,0.000,0.000
1644362285290236928,2022-02-08-23:18:05,10.1.1.2,37,0.040,0.040,0.040,0.000,0.000,0.000
1644362285390191104,2022-02-08-23:18:05,10.1.1.2,37,0.030,0.030,0.030,0.000,0.000,0.000
1644362285610408192,2022-02-08-23:18:05,10.1.1.2,35,0.010,0.010,0.010,0.000,0.000,0.000
1644362285709534976,2022-02-08-23:18:05,10.1.1.2,34,0.000,0.000,0.000,0.000,0.000,0.000
1644362285809762048,2022-02-08-23:18:05,10.1.1.2,33,-0.010,-0.010,-0.010,0.000,0.000,0.000
1644362285910386176,2022-02-08-23:18:05,10.1.1.2,33,-0.020,-0.020,-0.020,0.000,0.000,0.000
1644362286010376960,2022-02-08-23:18:06,10.1.1.2,32,-0.030,-0.030,-0.030,0.000,0.000,0.000
1644362286110456832,2022-02-08-23:18:06,10.1.1.2,32,-0.040,-0.040,-0.040,0.000,0.000,0.000
1644362286409867008,2022-02-08-23:18:06,10.1.1.2,29,-0.070,-0.070,-0.070,0.000,0.000,0.000
1644362286510982144,2022-02-08-23:18:06,10.1.1.2,29,-0.080,-0.080,-0.080,0.000,0.000,0.000
1644362286609939200,2022-02-08-23:18:06,10.1.1.2,29,-0.090,-0.090,-0.090,0.000,0.000,0.000
1644362286709660928,2022-02-08-23:18:06,10.1.1.2,28,-0.100,-0.100,-0.100,0.000,0.000,0.000
1644362286810112000,2022-02-08-23:18:06,10.1.1.2,27,-0.090,-0.090,-0.090,0.000,0.000,0.000
1644362286909831936,2022-02-08-23:18:06,10.1.1.2,27,-0.080,-0.080,-0.080,0.000,0.000,0.000
1644362287012125952,2022-02-08-23:18:07,10.1.1.2,26,-0.070,-0.070,-0.070,0.000,0.000,0.000
1644362287110264064,2022-02-08-23:18:07,10.1.1.2,26,-0.060,-0.060,-0.060,0.000,0.000,0.000
1644362287210439936,2022-02-08-23:18:07,10.1.1.2,25,-0.050,-0.050,-0.050,0.000,0.000,0.000
1644362287310045952,2022-02-08-23:18:07,10.1.1.2,25,-0.040,-0.040,-0.040,0.000,0.000,0.000
1644362287410419968,2022-02-08-23:18:07,10.1.1.2,24,-0.030,-0.030,-0.030,0.000,0.000,0.000
1644362287511276032,2022-02-08-23:18:07,10.1.1.2,23,-0.020,-0.020,-0.020,0.000,0.000,0.000
1644362287611171840,2022-02-08-23:18:07,10.1.1.2,23,-0.010,-0.010,-0.010,0.000,0.000,0.000
1644362287712184832,2022-02-08-23:18:07,10.1.1.2,23,0.000,0.000,0.000,0.000,0.000,0.000
1644362287811862016,2022-02-08-23:18:07,10.1.1.2,21,0.010,0.010,0.010,0.000,0.000,0.000
1644362288331592192,2022-02-08-23:18:08,10.1.1.2,39,0.060,0.060,0.060,0.000,0.000,0.000
1644362288431403008,2022-02-08-23:18:08,10.1.1.2,38,0.070,0.070,0.070,0.000,0.000,0.000
1644362288533005056,2022-02-08-23:18:08,10.1.1.2,38,0.080,0.080,0.080,0.000,0.000,0.000
1644362288630012160,2022-02-08-23:18:08,10.1.1.2,37,0.090,0.090,0.090,0.000,0.000,0.000
1644362288731141120,2022-02-08-23:18:08,10.1.1.2,36,0.100,0.100,0.100,0.000,0.000,0.000
1644362288830087936,2022-02-08-23:18:08,10.1.1.2,35,0.090,0.090,0.090,0.000,0.000,0.000
1644362288930088960,2022-02-08-23:18:08,10.1.1.2,34,0.080,0.080,0.080,0.000,0.000,0.000
1644362289030193152,2022-02-08-23:18:09,10.1.1.2,33,0.070,0.070,0.070,0.000,0.000,0.000
1644362289129889024,2022-02-08-23:18:09,10.1.1.2,32,0.060,0.060,0.060,0.000,0.000,0.000
1644362289229718016,2022-02-08-23:18:09,10.1.1.2,32,0.050,0.050,0.050,0.000,0.000,0.000
1644362289430372096,2022-02-08-23:18:09,10.1.1.2,31,0.030,0.030,0.030,0.000,0.000,0.000
1644362289929843968,2022-02-08-23:18:09,10.1.1.2,28,-0.020,-0.020,-0.020,0.000,0.000,0.000
1644362290129349120,2022-02-08-23:18:10,10.1.1.2,28,-0.040,-0.040,-0.040,0.000,0.000,0.000
1644362290229711104,2022-02-08-23:18:10,10.1.1.2,26,-0.050,-0.050,-0.050,0.000,0.000,0.000
1644362290330793984,2022-02-08-23:18:10,10.1.1.2,26,-0.060,-0.060,-0.060,0.000,0.000,0.000
1644362290430083072,2022-02-08-23:18:10,10.1.1.2,25,-0.070,-0.070,-0.070,0.000,0.000,0.000
1644362290533420032,2022-02-08-23:18:10,10.1.1.2,24,-0.080,-0.080,-0.080,0.000,0.000,0.000
1644362290630744832,2022-02-08-23:18:10,10.1.1.2,23,-0.090,-0.090,-0.090,0.000,0.000,0.000
1644362290730318080,2022-02-08-23:18:10,10.1.1.2,23,-0.100,-0.100,-0.100,0.000,0.000,0.000
1644362290829489920,2022-02-08-23:18:10,10.1.1.2,23,-0.090,-0.090,-0.090,0.000,0.000,0.000
1644362290930265856,2022-02-08-23:18:10,10.1.1.2,23,-0.080,-0.080,-0.080,0.000,0.000,0.000
1644362291030432000,2022-02-08-23:18:11,10.1.1.2,22,-0.070,-0.070,-0.070,0.000,0.000,0.000
1644362291150043136,2022-02-08-23:18:11,10.1.1.2,34,-0.060,-0.060,-0.060,0.000,0.000,0.000
1644362291250502144,2022-02-08-23:18:11,10.1.1.2,33,-0.050,-0.050,-0.050,0.000,0.000,0.000
1644362291349911808,2022-02-08-23:18:11,10.1.1.2,33,-0.040,-0.040,-0.040,0.000,0.000,0.000
1644362291449565952,2022-02-08-23:18:11,10.1.1.2,32,-0.030,-0.030,-0.030,0.000,0.000,0.000
1644362291550386944,2022-02-08-23:18:11,10.1.1.2,32,-0.020,-0.020,-0.020,0.000,0.000,0.000
1644362291849580032,2022-02-08-23:18:11,10.1.1.2,30,0.010,0.010,0.010,0.000,0.000,0.000
1644362292149980928,2022-02-08-23:18:12,10.1.1.2,29,0.040,0.040,0.040,0.000,0.000,0.000
1644362292250365952,2022-02-08-23:18:12,10.1.1.2,28,0.050,0.050,0.050,0.000,0.000,0.000
1644362292349783808,2022-02-08-23:18:12,10.1.1.2,27,0.060,0.060,0.060,0.000,0.000,0.000
1644362292449910016,2022-02-08-23:18:12,10.1.1.2,27,0.070,0.070,0.070,0.000,0.000,0.000
1644362292551495168,2022-02-08-23:18:12,10.1.1.2,26,0.080,0.080,0.080,0.000,0.000,0.000
1644362292650278144,2022-02-08-23:18:12,10.1.1.2,26,0.090,0.090,0.090,0.000,0.000,0.000
1644362292749965056,2022-02-08-23:18:12,10.1.1.2,25,0.100,0.100,0.100,0.000,0.000,0.000
1644362292850275072,2022-02-08-23:18:12,10.1.1.2,24,0.090,0.090,0.090,0.000,0.000,0.000
1644362292949704960,2022-02-08-23:18:12,10.1.1.2,24,0.080,0.080,0.080,0.000,0.000,0.000
1644362293050131200,2022-02-08-23:18:13,10.1.1.2,24,0.070,0.070,0.070,0.000,0.000,0.000
1644362293150881024,2022-02-08-23:18:13,10.1.1.2,24,0.060,0.060,0.060,0.000,0.000,0.000
1644362293250267904,2022-02-08-23:18:13,10.1.1.2,23,0.050,0.050,0.050,0.000,0.000,0.000
1644362293349359872,2022-02-08-23:18:13,10.1.1.2,22,0.040,0.040,0.040,0.000,0.000,0.000
1644362293449691904,2022-02-08-23:18:13,10.1.1.2,22,0.030,0.030,0.030,0.000,0.000,0.000
1644362293549880064,2022-02-08-23:18:13,10.1.1.2,21,0.020,0.020,0.020,0.000,0.000,0.000
1644362293949616896,2022-02-08-23:18:13,10.1.1.2,20,-0.020,-0.020,-0.020,0.000,0.000,0.000
1644362294170750976,2022-02-08-23:18:14,10.1.1.2,39,-0.040,-0.040,-0.040,0.000,0.000,0.000
1644362294270267904,2022-02-08-23:18:14,10.1.1.2,38,-0.050,-0.050,-0.050,0.000,0.000,0.000
1644362294470215936,2022-02-08-23:18:14,10.1.1.2,37,-0.070,-0.070,-0.070,0.000,0.000,0.000
1644362294570342144,2022-02-08-23:18:14,10.1.1.2,36,-0.080,-0.080,-0.080,0.000,0.000,0.000
1644362294670075904,2022-02-08-23:18:14,10.1.1.2,36,-0.090,-0.090,-0.090,0.000,0.000,0.000
1644362294769974016,2022-02-08-23:18:14,10.1.1.2,34,-0.100,-0.100,-0.100,0.000,0.000,0.000
1644362294870390016,2022-02-08-23:18:14,10.1.1.2,34,-0.090,-0.090,-0.090,0.000,0.000,0.000
1644362294969982976,2022-02-08-23:18:14,10.1.1.2,33,-0.080,-0.080,-0.080,0.000,0.000,0.000
1644362295069924096,2022-02-08-23:18:15,10.1.1.2,32,-0.070,-0.070,-0.070,0.000,0.000,0.000
1644362295169740032,2022-02-08-23:18:15,10.1.1.2,32,-0.060,-0.060,-0.060,0.000,0.000,0.000
1644362295270021888,2022-02-08-23:18:15,10.1.1.2,31,-0.050,-0.050,-0.050,0.000,0.000,0.000
1644362295390275840,2022-02-08-23:18:15,10.1.1.2,25,-0.040,-0.040,-0.040,0.000,0.000,0.000
1644362295491046912,2022-02-08-23:18:15,10.1.1.2,24,-0.030,-0.030,-0.030,0.000,0.000,0.000
1644362295590141184,2022-02-08-23:18:15,10.1.1.2,23,-0.020,-0.020,-0.020,0.000,0.000,0.000
1644362295692526080,2022-02-08-23:18:15,10.1.1.2,23,-0.010,-0.010,-0.010,0.000,0.000,0.000
1644362296110481920,2022-02-08-23:18:16,10.1.1.2,39,0.030,0.030,0.030,0.000,0.000,0.000
1644362296210310912,2022-02-08-23:18:16,10.1.1.2,37,0.040,0.040,0.040,0.000,0.000,0.000
1644362296310596096,2022-02-08-23:18:16,10.1.1.2,36,0.050,0.050,0.050,0.000,0.000,0.000
1644362296429892096,2022-02-08-23:18:16,10.1.1.2,38,0.060,0.060,0.060,0.000,0.000,0.000
1644362296529856000,2022-02-08-23:18:16,10.1.1.2,37,0.070,0.070,0.070,0.000,0.000,0.000
1644362296630625024,2022-02-08-23:18:16,10.1.1.2,37,0.080,0.080,0.080,0.000,0.000,0.000
1644362296730663936,2022-02-08-23:18:16,10.1.1.2,36,0.090,0.090,0.090,0.000,0.000,0.000
1644362296830019072,2022-02-08-23:18:16,10.1.1.2,36,0.100,0.100,0.100,0.000,0.000,0.000
1644362296930865920,2022-02-08-23:18:16,10.1.1.2,34,0.090,0.090,0.090,0.000,0.000,0.000
1644362297030108928,2022-02-08-23:18:17,10.1.1.2,34,0.080,0.080,0.080,0.000,0.000,0.000
1644362297130852096,2022-02-08-23:18:17,10.1.1.2,33,0.070,0.070,0.070,0.000,0.000,0.000
1644362297230000896,2022-02-08-23:18:17,10.1.1.2,32,0.060,0.060,0.060,0.000,0.000,0.000
1644362297730429952,2022-02-08-23:18:17,10.1.1.2,26,0.010,0.010,0.010,0.000,0.000,0.000
1644362297830127104,2022-02-08-23:18:17,10.1.1.2,24,0.000,0.000,0.000,0.000,0.000,0.000
1644362297930691840,2022-02-08-23:18:17,10.1.1.2,24,-0.010,-0.010,-0.010,0.000,0.000,0.000
1644362298030491136,2022-02-08-23:18:18,10.1.1.2,24,-0.020,-0.020,-0.020,0.000,0.000,0.000
1644362298129844992,2022-02-08-23:18:18,10.1.1.2,23,-0.030,-0.030,-0.030,0.000,0.000,0.000
1644362298230030080,2022-02-08-23:18:18,10.1.1.2,23,-0.040,-0.040,-0.040,0.000,0.000,0.000
1644362298330533888,2022-02-08-23:18:18,10.1.1.2,22,-0.050,-0.050,-0.050,0.000,0.000,0.000
1644362298630492928,2022-02-08-23:18:18,10.1.1.2,20,-0.080,-0.080,-0.080,0.000,0.000,0.000
1644362298850467840,2022-02-08-23:18:18,10.1.1.2,36,-0.100,-0.100,-0.100,0.000,0.000,0.000
1644362298950505984,2022-02-08-23:18:18,10.1.1.2,35,-0.090,-0.090,-0.090,0.000,0.000,0.000
1644362299049964032,2022-02-08-23:18:19,10.1.1.2,35,-0.080,-0.080,-0.080,0.000,0.000,0.000
1644362299150192128,2022-02-08-23:18:19,10.1.1.2,34,-0.070,-0.070,-0.070,0.000,0.000,0.000
1644362299250268928,2022-02-08-23:18:19,10.1.1.2,33,-0.060,-0.060,-0.060,0.000,0.000,0.000
1644362299350224128,2022-02-08-23:18:19,10.1.1.2,33,-0.050,-0.050,-0.050,0.000,0.000,0.000
1644362299450802176,2022-02-08-23:18:19,10.1.1.2,32,-0.040,-0.040,-0.040,0.000,0.000,0.000
1644362299850590976,2022-02-08-23:18:19,10.1.1.2,30,0.000,0.000,0.000,0.000,0.000,0.000
1644362299950788096,2022-02-08-23:18:19,10.1.1.2,29,0.010,0.010,0.010,0.000,0.000,0.000
1644362300050678016,2022-02-08-23:18:20,10.1.1.2,29,0.020,0.020,0.020,0.000,0.000,0.000
1644362300150392064,2022-02-08-23:18:20,10.1.1.2,28,0.030,0.030,0.030,0.000,0.000,0.000
1644362300250336000,2022-02-08-23:18:20,10.1.1.2,28,0.040,0.040,0.040,0.000,0.000,0.000
1644362300350444032,2022-02-08-23:18:20,10.1.1.2,27,0.050,0.050,0.050,0.000,0.000,0.000
1644362300450067968,2022-02-08-23:18:20,10.1.1.2,25,0.060,0.060,0.060,0.000,0.000,0.000
1644362300550506240,2022-02-08-23:18:20,10.1.1.2,24,0.070,0.070,0.070,0.000,0.000,0.000
1644362300649981952,2022-02-08-23:18:20,10.1.1.2,24,0.080,0.080,0.080,0.000,0.000,0.000
1644362300750098944,2022-02-08-23:18:20,10.1.1.2,23,0.090,0.090,0.090,0.000,0.000,0.000
1644362300849572864,2022-02-08-23:18:20,10.1.1.2,23,0.100,0.100,0.100,0.000,0.000,0.000
1644362300950514176,2022-02-08-23:18:20,10.1.1.2,22,0.090,0.090,0.090,0.000,0.000,0.000
1644362301050533120,2022-02-08-23:18:21,10.1.1.2,22,0.080,0.080,0.080,0.000,0.000,0.000
1644362301150790912,2022-02-08-23:18:21,10.1.1.2,21,0.070,0.070,0.070,0.000,0.000,0.000
1644362301470458112,2022-02-08-23:18:21,10.1.1.2,39,0.040,0.040,0.040,0.000,0.000,0.000
1644362301570012160,2022-02-08-23:18:21,10.1.1.2,38,0.030,0.030,0.030,0.000,0.000,0.000
1644362301670080000,2022-02-08-23:18:21,10.1.1.2,37,0.020,0.020,0.020,0.000,0.000,0.000
1644362301770398976,2022-02-08-23:18:21,10.1.1.2,37,0.010,0.010,0.010,0.000,0.000,0.000
1644362301870487040,2022-02-08-23:18:21,10.1.1.2,33,0.000,0.000,0.000,0.000,0.000,0.000
1644362301970448896,2022-02-08-23:18:21,10.1.1.2,32,-0.010,-0.010,-0.010,0.000,0.000,0.000
1644362302071095040,2022-02-08-23:18:22,10.1.1.2,31,-0.020,-0.020,-0.020,0.000,0.000,0.000
1644362302370593024,2022-02-08-23:18:22,10.1.1.2,29,-0.050,-0.050,-0.050,0.000,0.000,0.000
1644362302471972096,2022-02-08-23:18:22,10.1.1.2,29,-0.060,-0.060,-0.060,0.000,0.000,0.000
1644362302569863936,2022-02-08-23:18:22,10.1.1.2,28,-0.070,-0.070,-0.070,0.000,0.000,0.000
1644362302670391040,2022-02-08-23:18:22,10.1.1.2,28,-0.080,-0.080,-0.080,0.000,0.000,0.000
1644362302770430976,2022-02-08-23:18:22,10.1.1.2,24,-0.090,-0.090,-0.090,0.000,0.000,0.000
1644362302871630848,2022-02-08-23:18:22,10.1.1.2,24,-0.100,-0.100,-0.100,0.000,0.000,0.000
1644362302970248960,2022-02-08-23:18:22,10.1.1.2,23,-0.090,-0.090,-0.090,0.000,0.000,0.000
1644362303070380032,2022-02-08-23:18:23,10.1.1.2,22,-0.080,-0.080,-0.080,0.000,0.000,0.000
1644362303195219968,2022-02-08-23:18:23,10.1.1.2,33,-0.070,-0.070,-0.070,0.000,0.000,0.000
1644362303294731008,2022-02-08-23:18:23,10.1.1.2,33,-0.060,-0.060,-0.060,0.000,0.000,0.000
1644362303390487808,2022-02-08-23:18:23,10.1.1.2,32,-0.050,-0.050,-0.050,0.000,0.000,0.000
1644362303491031040,2022-02-08-23:18:23,10.1.1.2,31,-0.040,-0.040,-0.040,0.000,0.000,0.000
1644362303990644992,2022-02-08-23:18:23,10.1.1.2,21,0.010,0.010,0.010,0.000,0.000,0.000
1644362304311187968,2022-02-08-23:18:24,10.1.1.2,39,0.040,0.040,0.040,0.000,0.000,0.000
1644362304410206976,2022-02-08-23:18:24,10.1.1.2,38,0.050,0.050,0.050,0.000,0.000,0.000
1644362304509799936,2022-02-08-23:18:24,10.1.1.2,37,0.060,0.060,0.060,0.000,0.000,0.000
1644362304611518976,2022-02-08-23:18:24,10.1.1.2,36,0.070,0.070,0.070,0.000,0.000,0.000
1644362304710318080,2022-02-08-23:18:24,10.1.1.2,35,0.080,0.080,0.080,0.000,0.000,0.000
1644362304810395904,2022-02-08-23:18:24,10.1.1.2,34,0.090,0.090,0.090,0.000,0.000,0.000
1644362304910167040,2022-02-08-23:18:24,10.1.1.2,34,0.100,0.100,0.100,0.000,0.000,0.000
1644362305010468096,2022-02-08-23:18:25,10.1.1.2,33,0.090,0.090,0.090,0.000,0.000,0.000
1644362305110402048,2022-02-08-23:18:25,10.1.1.2,32,0.080,0.080,0.080,0.000,0.000,0.000
1644362305210969856,2022-02-08-23:18:25,10.1.1.2,31,0.070,0.070,0.070,0.000,0.000,0.000
1644362305511087872,2022-02-08-23:18:25,10.1.1.2,29,0.040,0.040,0.040,0.000,0.000,0.000
1644362305610582016,2022-02-08-23:18:25,10.1.1.2,28,0.030,0.030,0.030,0.000,0.000,0.000
1644362305709974016,2022-02-08-23:18:25,10.1.1.2,28,0.020,0.020,0.020,0.000,0.000,0.000
1644362305810830080,2022-02-08-23:18:25,10.1.1.2,27,0.010,0.010,0.010,0.000,0.000,0.000
1644362305910413056,2022-02-08-23:18:25,10.1.1.2,26,0.000,0.000,0.000,0.000,0.000,0.000
1644362306010436096,2022-02-08-23:18:26,10.1.1.2,25,-0.010,-0.010,-0.010,0.000,0.000,0.000
1644362306110599936,2022-02-08-23:18:26,10.1.1.2,25,-0.020,-0.020,-0.020,0.000,0.000,0.000
1644362306211173120,2022-02-08-23:18:26,10.1.1.2,24,-0.030,-0.030,-0.030,0.000,0.000,0.000
1644362306310579968,2022-02-08-23:18:26,10.1.1.2,23,-0.040,-0.040,-0.040,0.000,0.000,0.000
1644362306410550016,2022-02-08-23:18:26,10.1.1.2,23,-0.050,-0.050,-0.050,0.000,0.000,0.000
1644362306510334976,2022-02-08-23:18:26,10.1.1.2,22,-0.060,-0.060,-0.060,0.000,0.000,0.000
1644362306611377920,2022-02-08-23:18:26,10.1.1.2,21,-0.070,-0.070,-0.070,0.000,0.000,0.000
1644362307030328064,2022-02-08-23:18:27,10.1.1.2,39,-0.090,-0.090,-0.090,0.000,0.000,0.000
1644362307140590848,2022-02-08-23:18:27,10.1.1.2,48,-0.080,-0.080,-0.080,0.000,0.000,0.000
1644362307230392832,2022-02-08-23:18:27,10.1.1.2,37,-0.070,-0.070,-0.070,0.000,0.000,0.000
1644362307330568960,2022-02-08-23:18:27,10.1.1.2,36,-0.060,-0.060,-0.060,0.000,0.000,0.000
1644362307430577152,2022-02-08-23:18:27,10.1.1.2,35,-0.050,-0.050,-0.050,0.000,0.000,0.000
1644362307597616896,2022-02-08-23:18:27,10.1.1.2,34,-0.040,-0.040,-0.040,0.000,0.000,0.000
1644362307731766016,2022-02-08-23:18:27,10.1.1.2,29,-0.020,-0.020,-0.020,0.000,0.000,0.000
1644362307834054912,2022-02-08-23:18:27,10.1.1.2,29,-0.010,-0.010,-0.010,0.000,0.000,0.000
1644362307900832000,2022-02-08-23:18:27,10.1.1.2,-32,-0.010,-0.010,-0.010,0.000,0.000,0.000
1644362308030589952,2022-02-08-23:18:28,10.1.1.2,28,0.010,0.010,0.010,0.000,0.000,0.000
1644362308130994944,2022-02-08-23:18:28,10.1.1.2,27,0.020,0.020,0.020,0.000,0.000,0.000
1644362308230040064,2022-02-08-23:18:28,10.1.1.2,26,0.030,0.030,0.030,0.000,0.000,0.000
1644362308330769920,2022-02-08-23:18:28,10.1.1.2,25,0.040,0.040,0.040,0.000,0.000,0.000
1644362308430392064,2022-02-08-23:18:28,10.1.1.2,24,0.050,0.050,0.050,0.000,0.000,0.000
1644362308531218944,2022-02-08-23:18:28,10.1.1.2,23,0.060,0.060,0.060,0.000,0.000,0.000
1644362308630991872,2022-02-08-23:18:28,10.1.1.2,23,0.070,0.070,0.070,0.000,0.000,0.000
1644362308731350016,2022-02-08-23:18:28,10.1.1.2,22,0.080,0.080,0.080,0.000,0.000,0.000
1644362309110612992,2022-02-08-23:18:29,10.1.1.2,-1,0.080,0.080,0.080,0.000,0.000,0.000
1644362309250836992,2022-02-08-23:18:29,10.1.1.2,38,0.070,0.070,0.070,0.000,0.000,0.000
1644362309351342080,2022-02-08-23:18:29,10.1.1.2,37,0.060,0.060,0.060,0.000,0.000,0.000
1644362309450814976,2022-02-08-23:18:29,10.1.1.2,36,0.050,0.050,0.050,0.000,0.000,0.000
1644362309551538944,2022-02-08-23:18:29,10.1.1.2,35,0.040,0.040,0.040,0.000,0.000,0.000
1644362309773165824,2022-02-08-23:18:29,10.1.1.2,39,0.020,0.020,0.020,0.000,0.000,0.000
1644362309871047936,2022-02-08-23:18:29,10.1.1.2,38,0.010,0.010,0.010,0.000,0.000,0.000
1644362309971673088,2022-02-08-23:18:29,10.1.1.2,37,0.000,0.000,0.000,0.000,0.000,0.000
1644362310070801920,2022-02-08-23:18:30,10.1.1.2,36,-0.010,-0.010,-0.010,0.000,0.000,0.000
1644362310170285824,2022-02-08-23:18:30,10.1.1.2,34,-0.020,-0.020,-0.020,0.000,0.000,0.000
1644362310270488064,2022-02-08-23:18:30,10.1.1.2,34,-0.030,-0.030,-0.030,0.000,0.000,0.000
1644362310370470144,2022-02-08-23:18:30,10.1.1.2,33,-0.040,-0.040,-0.040,0.000,0.000,0.000
1644362310470554112,2022-02-08-23:18:30,10.1.1.2,32,-0.050,-0.050,-0.050,0.000,0.000,0.000
1644362310670736128,2022-02-08-23:18:30,10.1.1.2,28,-0.070,-0.070,-0.070,0.000,0.000,0.000
1644362310770576128,2022-02-08-23:18:30,10.1.1.2,26,-0.080,-0.080,-0.080,0.000,0.000,0.000
1644362310870487808,2022-02-08-23:18:30,10.1.1.2,24,-0.090,-0.090,-0.090,0.000,0.000,0.000
1644362311050686976,2022-02-08-23:18:31,10.1.1.2,3,-0.090,-0.090,-0.090,0.000,0.000,0.000
1644362311290505984,2022-02-08-23:18:31,10.1.1.2,39,-0.070,-0.070,-0.070,0.000,0.000,0.000
1644362311392590080,2022-02-08-23:18:31,10.1.1.2,38,-0.060,-0.060,-0.060,0.000,0.000,0.000
1644362311490935040,2022-02-08-23:18:31,10.1.1.2,38,-0.050,-0.050,-0.050,0.000,0.000,0.000
1644362311590672128,2022-02-08-23:18:31,10.1.1.2,36,-0.040,-0.040,-0.040,0.000,0.000,0.000
1644362311691203072,2022-02-08-23:18:31,10.1.1.2,35,-0.030,-0.030,-0.030,0.000,0.000,0.000
1644362311791155968,2022-02-08-23:18:31,10.1.1.2,34,-0.020,-0.020,-0.020,0.000,0.000,0.000
1644362311891320832,2022-02-08-23:18:31,10.1.1.2,33,-0.010,-0.010,-0.010,0.000,0.000,0.000
1644362311992113152,2022-02-08-23:18:31,10.1.1.2,32,0.000,0.000,0.000,0.000,0.000,0.000
1644362312091458048,2022-02-08-23:18:32,10.1.1.2,32,0.010,0.010,0.010,0.000,0.000,0.000
1644362312191243008,2022-02-08-23:18:32,10.1.1.2,31,0.020,0.020,0.020,0.000,0.000,0.000
1644362312449542144,2022-02-08-23:18:32,10.1.1.2,29,0.040,0.040,0.040,0.000,0.000,0.000
1644362312490715136,2022-02-08-23:18:32,10.1.1.2,27,0.050,0.050,0.050,0.000,0.000,0.000
