FedericoMungari/DigitalTwin_service/01_WiredScenario/Output/Output_script/script_rosapi_2_output_robots6_freq0_2.txt
timestamp,date,node,latency,joint_1,joint_2,joint_3,joint_4,joint_5,joint_6
1643279371399346944,2022-01-27-10:29:31,10.1.1.3,37,-0.011,-0.011,-0.011,0.000,0.000,0.000
1643279371579046912,2022-01-27-10:29:31,10.1.1.3,17,-0.020,-0.020,-0.020,0.000,0.000,0.000
1643279371797421824,2022-01-27-10:29:31,10.1.1.3,33,-0.031,-0.031,-0.031,0.000,0.000,0.000
1643279371997395968,2022-01-27-10:29:31,10.1.1.3,32,-0.041,-0.041,-0.041,0.000,0.000,0.000
1643279372199084032,2022-01-27-10:29:32,10.1.1.3,32,-0.051,-0.051,-0.051,0.000,0.000,0.000
1643279372397607168,2022-01-27-10:29:32,10.1.1.3,28,-0.061,-0.061,-0.061,0.000,0.000,0.000
1643279372596630016,2022-01-27-10:29:32,10.1.1.3,26,-0.071,-0.071,-0.071,0.000,0.000,0.000
1643279372800681216,2022-01-27-10:29:32,10.1.1.3,29,-0.080,-0.080,-0.080,0.000,0.000,0.000
1643279372997516032,2022-01-27-10:29:32,10.1.1.3,24,-0.090,-0.090,-0.090,0.000,0.000,0.000
1643279373200436992,2022-01-27-10:29:33,10.1.1.3,25,-0.100,-0.100,-0.100,0.000,0.000,0.000
1643279373396809216,2022-01-27-10:29:33,10.1.1.3,21,-0.110,-0.110,-0.110,0.000,0.000,0.000
1643279373596344832,2022-01-27-10:29:33,10.1.1.3,19,-0.120,-0.120,-0.120,0.000,0.000,0.000
1643279373796402944,2022-01-27-10:29:33,10.1.1.3,17,-0.130,-0.130,-0.130,0.000,0.000,0.000
1643279373995217152,2022-01-27-10:29:33,10.1.1.3,14,-0.140,-0.140,-0.140,0.000,0.000,0.000
1643279374197332992,2022-01-27-10:29:34,10.1.1.3,15,-0.150,-0.150,-0.150,0.000,0.000,0.000
1643279374417196032,2022-01-27-10:29:34,10.1.1.3,34,-0.161,-0.161,-0.161,0.000,0.000,0.000
1643279374615883008,2022-01-27-10:29:34,10.1.1.3,28,-0.171,-0.171,-0.171,0.000,0.000,0.000
1643279374816387840,2022-01-27-10:29:34,10.1.1.3,27,-0.181,-0.181,-0.181,0.000,0.000,0.000
1643279375015838976,2022-01-27-10:29:35,10.1.1.3,24,-0.191,-0.191,-0.191,0.000,0.000,0.000
1643279375215805952,2022-01-27-10:29:35,10.1.1.3,23,-0.200,-0.200,-0.200,0.000,0.000,0.000
1643279375416179968,2022-01-27-10:29:35,10.1.1.3,23,-0.210,-0.210,-0.210,0.000,0.000,0.000
1643279375636147968,2022-01-27-10:29:35,10.1.1.3,36,-0.221,-0.221,-0.221,0.000,0.000,0.000
1643279375816114944,2022-01-27-10:29:35,10.1.1.3,15,-0.230,-0.230,-0.230,0.000,0.000,0.000
1643279376016078080,2022-01-27-10:29:36,10.1.1.3,15,-0.240,-0.240,-0.240,0.000,0.000,0.000
1643279376235258112,2022-01-27-10:29:36,10.1.1.3,32,-0.251,-0.251,-0.251,0.000,0.000,0.000
1643279376436296960,2022-01-27-10:29:36,10.1.1.3,32,-0.261,-0.261,-0.261,0.000,0.000,0.000
1643279376635047936,2022-01-27-10:29:36,10.1.1.3,30,-0.271,-0.271,-0.271,0.000,0.000,0.000
1643279376836555008,2022-01-27-10:29:36,10.1.1.3,30,-0.281,-0.281,-0.281,0.000,0.000,0.000
1643279377035211008,2022-01-27-10:29:37,10.1.1.3,28,-0.291,-0.291,-0.291,0.000,0.000,0.000
1643279377236197888,2022-01-27-10:29:37,10.1.1.3,28,-0.301,-0.301,-0.301,0.000,0.000,0.000
1643279377457351936,2022-01-27-10:29:37,10.1.1.3,40,-0.311,-0.311,-0.311,0.000,0.000,0.000
1643279377655677952,2022-01-27-10:29:37,10.1.1.3,37,-0.321,-0.321,-0.321,0.000,0.000,0.000
1643279377856093952,2022-01-27-10:29:37,10.1.1.3,37,-0.331,-0.331,-0.331,0.000,0.000,0.000
1643279378036300800,2022-01-27-10:29:38,10.1.1.3,16,-0.340,-0.340,-0.340,0.000,0.000,0.000
1643279378237449984,2022-01-27-10:29:38,10.1.1.3,17,-0.350,-0.350,-0.350,0.000,0.000,0.000
1643279378456148992,2022-01-27-10:29:38,10.1.1.3,34,-0.361,-0.361,-0.361,0.000,0.000,0.000
1643279378658152960,2022-01-27-10:29:38,10.1.1.3,34,-0.371,-0.371,-0.371,0.000,0.000,0.000
1643279378856004864,2022-01-27-10:29:38,10.1.1.3,31,-0.381,-0.381,-0.381,0.000,0.000,0.000
1643279379055597056,2022-01-27-10:29:39,10.1.1.3,29,-0.391,-0.391,-0.391,0.000,0.000,0.000
1643279379256246016,2022-01-27-10:29:39,10.1.1.3,29,-0.401,-0.401,-0.401,0.000,0.000,0.000
1643279379458746880,2022-01-27-10:29:39,10.1.1.3,30,-0.411,-0.411,-0.411,0.000,0.000,0.000
1643279379659106048,2022-01-27-10:29:39,10.1.1.3,28,-0.420,-0.420,-0.420,0.000,0.000,0.000
1643279379858338048,2022-01-27-10:29:39,10.1.1.3,26,-0.430,-0.430,-0.430,0.000,0.000,0.000
1643279380058292992,2022-01-27-10:29:40,10.1.1.3,25,-0.440,-0.440,-0.440,0.000,0.000,0.000
1643279380278188032,2022-01-27-10:29:40,10.1.1.3,44,-0.451,-0.451,-0.451,0.000,0.000,0.000
1643279380479111936,2022-01-27-10:29:40,10.1.1.3,42,-0.461,-0.461,-0.461,0.000,0.000,0.000
1643279380655486976,2022-01-27-10:29:40,10.1.1.3,17,-0.470,-0.470,-0.470,0.000,0.000,0.000
1643279380877558016,2022-01-27-10:29:40,10.1.1.3,39,-0.481,-0.481,-0.481,0.000,0.000,0.000
1643279381055757056,2022-01-27-10:29:41,10.1.1.3,16,-0.490,-0.490,-0.490,0.000,0.000,0.000
1643279381255960064,2022-01-27-10:29:41,10.1.1.3,14,-0.480,-0.480,-0.480,0.000,0.000,0.000
1643279381476107008,2022-01-27-10:29:41,10.1.1.3,34,-0.469,-0.469,-0.469,0.000,0.000,0.000
1643279381675055872,2022-01-27-10:29:41,10.1.1.3,32,-0.459,-0.459,-0.459,0.000,0.000,0.000
1643279381878237952,2022-01-27-10:29:41,10.1.1.3,35,-0.449,-0.449,-0.449,0.000,0.000,0.000
1643279382076766976,2022-01-27-10:29:42,10.1.1.3,31,-0.440,-0.440,-0.440,0.000,0.000,0.000
1643279382275691008,2022-01-27-10:29:42,10.1.1.3,29,-0.429,-0.429,-0.429,0.000,0.000,0.000
1643279382475481088,2022-01-27-10:29:42,10.1.1.3,27,-0.419,-0.419,-0.419,0.000,0.000,0.000
1643279382675230976,2022-01-27-10:29:42,10.1.1.3,26,-0.409,-0.409,-0.409,0.000,0.000,0.000
1643279382875313920,2022-01-27-10:29:42,10.1.1.3,25,-0.399,-0.399,-0.399,0.000,0.000,0.000
1643279383075193856,2022-01-27-10:29:43,10.1.1.3,25,-0.389,-0.389,-0.389,0.000,0.000,0.000
1643279383276850944,2022-01-27-10:29:43,10.1.1.3,25,-0.379,-0.379,-0.379,0.000,0.000,0.000
1643279383475364864,2022-01-27-10:29:43,10.1.1.3,23,-0.370,-0.370,-0.370,0.000,0.000,0.000
1643279383696302848,2022-01-27-10:29:43,10.1.1.3,40,-0.359,-0.359,-0.359,0.000,0.000,0.000
1643279383896054016,2022-01-27-10:29:43,10.1.1.3,39,-0.349,-0.349,-0.349,0.000,0.000,0.000
1643279384098951936,2022-01-27-10:29:44,10.1.1.3,37,-0.339,-0.339,-0.339,0.000,0.000,0.000
1643279384298024960,2022-01-27-10:29:44,10.1.1.3,33,-0.329,-0.329,-0.329,0.000,0.000,0.000
1643279384498508032,2022-01-27-10:29:44,10.1.1.3,33,-0.319,-0.319,-0.319,0.000,0.000,0.000
1643279384697558016,2022-01-27-10:29:44,10.1.1.3,31,-0.309,-0.309,-0.309,0.000,0.000,0.000
1643279384896595968,2022-01-27-10:29:44,10.1.1.3,28,-0.299,-0.299,-0.299,0.000,0.000,0.000
1643279385095655936,2022-01-27-10:29:45,10.1.1.3,27,-0.289,-0.289,-0.289,0.000,0.000,0.000
1643279385297139968,2022-01-27-10:29:45,10.1.1.3,27,-0.280,-0.280,-0.280,0.000,0.000,0.000
1643279385497431040,2022-01-27-10:29:45,10.1.1.3,27,-0.269,-0.269,-0.269,0.000,0.000,0.000
1643279385697652992,2022-01-27-10:29:45,10.1.1.3,24,-0.260,-0.260,-0.260,0.000,0.000,0.000
1643279385899388160,2022-01-27-10:29:45,10.1.1.3,23,-0.250,-0.250,-0.250,0.000,0.000,0.000
1643279386095555072,2022-01-27-10:29:46,10.1.1.3,17,-0.240,-0.240,-0.240,0.000,0.000,0.000
1643279386300921856,2022-01-27-10:29:46,10.1.1.3,20,-0.230,-0.230,-0.230,0.000,0.000,0.000
1643279386516403968,2022-01-27-10:29:46,10.1.1.3,34,-0.219,-0.219,-0.219,0.000,0.000,0.000
1643279386718882048,2022-01-27-10:29:46,10.1.1.3,35,-0.209,-0.209,-0.209,0.000,0.000,0.000
1643279386917980928,2022-01-27-10:29:46,10.1.1.3,33,-0.199,-0.199,-0.199,0.000,0.000,0.000
1643279387119240960,2022-01-27-10:29:47,10.1.1.3,29,-0.189,-0.189,-0.189,0.000,0.000,0.000
1643279387315704064,2022-01-27-10:29:47,10.1.1.3,25,-0.180,-0.180,-0.180,0.000,0.000,0.000
1643279387515683840,2022-01-27-10:29:47,10.1.1.3,25,-0.169,-0.169,-0.169,0.000,0.000,0.000
1643279387716752896,2022-01-27-10:29:47,10.1.1.3,25,-0.159,-0.159,-0.159,0.000,0.000,0.000
1643279387935472896,2022-01-27-10:29:47,10.1.1.3,40,-0.149,-0.149,-0.149,0.000,0.000,0.000
1643279388140261888,2022-01-27-10:29:48,10.1.1.3,41,-0.139,-0.139,-0.139,0.000,0.000,0.000
1643279388316779008,2022-01-27-10:29:48,10.1.1.3,15,-0.130,-0.130,-0.130,0.000,0.000,0.000
1643279388514723072,2022-01-27-10:29:48,10.1.1.3,11,-0.120,-0.120,-0.120,0.000,0.000,0.000
1643279388737329920,2022-01-27-10:29:48,10.1.1.3,31,-0.109,-0.109,-0.109,0.000,0.000,0.000
1643279388941598976,2022-01-27-10:29:48,10.1.1.3,33,-0.099,-0.099,-0.099,0.000,0.000,0.000
1643279389137047040,2022-01-27-10:29:49,10.1.1.3,25,-0.090,-0.090,-0.090,0.000,0.000,0.000
1643279389336244992,2022-01-27-10:29:49,10.1.1.3,22,-0.080,-0.080,-0.080,0.000,0.000,0.000
1643279389538192128,2022-01-27-10:29:49,10.1.1.3,23,-0.070,-0.070,-0.070,0.000,0.000,0.000
1643279389737001984,2022-01-27-10:29:49,10.1.1.3,20,-0.060,-0.060,-0.060,0.000,0.000,0.000
1643279389955584000,2022-01-27-10:29:49,10.1.1.3,37,-0.049,-0.049,-0.049,0.000,0.000,0.000
1643279390158955008,2022-01-27-10:29:50,10.1.1.3,36,-0.039,-0.039,-0.039,0.000,0.000,0.000
1643279390356359936,2022-01-27-10:29:50,10.1.1.3,33,-0.029,-0.029,-0.029,0.000,0.000,0.000
1643279390559709184,2022-01-27-10:29:50,10.1.1.3,30,-0.019,-0.019,-0.019,0.000,0.000,0.000
1643279390757138944,2022-01-27-10:29:50,10.1.1.3,24,-0.010,-0.010,-0.010,0.000,0.000,0.000
1643279390937995008,2022-01-27-10:29:50,10.1.1.3,4,-0.001,-0.001,-0.001,0.000,0.000,0.000
1643279391177562112,2022-01-27-10:29:51,10.1.1.3,41,-0.011,-0.011,-0.011,0.000,0.000,0.000
1643279391375793920,2022-01-27-10:29:51,10.1.1.3,35,-0.021,-0.021,-0.021,0.000,0.000,0.000
1643279391575021056,2022-01-27-10:29:51,10.1.1.3,27,-0.031,-0.031,-0.031,0.000,0.000,0.000
1643279391776606208,2022-01-27-10:29:51,10.1.1.3,26,-0.040,-0.040,-0.040,0.000,0.000,0.000
1643279391985115136,2022-01-27-10:29:51,10.1.1.3,30,-0.050,-0.050,-0.050,0.000,0.000,0.000
1643279392176243968,2022-01-27-10:29:52,10.1.1.3,20,-0.060,-0.060,-0.060,0.000,0.000,0.000
1643279392387587072,2022-01-27-10:29:52,10.1.1.3,31,-0.070,-0.070,-0.070,0.000,0.000,0.000
1643279392579195136,2022-01-27-10:29:52,10.1.1.3,20,-0.080,-0.080,-0.080,0.000,0.000,0.000
1643279392793024000,2022-01-27-10:29:52,10.1.1.3,31,-0.090,-0.090,-0.090,0.000,0.000,0.000
1643279392975454976,2022-01-27-10:29:52,10.1.1.3,12,-0.100,-0.100,-0.100,0.000,0.000,0.000
1643279393197742848,2022-01-27-10:29:53,10.1.1.3,33,-0.111,-0.111,-0.111,0.000,0.000,0.000
1643279393398926848,2022-01-27-10:29:53,10.1.1.3,33,-0.121,-0.121,-0.121,0.000,0.000,0.000
1643279393612724992,2022-01-27-10:29:53,10.1.1.3,46,-0.131,-0.131,-0.131,0.000,0.000,0.000
1643279393817127936,2022-01-27-10:29:53,10.1.1.3,44,-0.141,-0.141,-0.141,0.000,0.000,0.000
1643279394023051008,2022-01-27-10:29:54,10.1.1.3,43,-0.151,-0.151,-0.151,0.000,0.000,0.000
1643279394214961152,2022-01-27-10:29:54,10.1.1.3,31,-0.161,-0.161,-0.161,0.000,0.000,0.000
1643279394418121216,2022-01-27-10:29:54,10.1.1.3,29,-0.171,-0.171,-0.171,0.000,0.000,0.000
1643279394636838912,2022-01-27-10:29:54,10.1.1.3,44,-0.181,-0.181,-0.181,0.000,0.000,0.000
1643279394841519104,2022-01-27-10:29:54,10.1.1.3,48,-0.191,-0.191,-0.191,0.000,0.000,0.000
1643279395038004992,2022-01-27-10:29:55,10.1.1.3,43,-0.201,-0.201,-0.201,0.000,0.000,0.000
1643279395236599040,2022-01-27-10:29:55,10.1.1.3,38,-0.211,-0.211,-0.211,0.000,0.000,0.000
1643279395416263936,2022-01-27-10:29:55,10.1.1.3,16,-0.220,-0.220,-0.220,0.000,0.000,0.000
1643279395637818112,2022-01-27-10:29:55,10.1.1.3,33,-0.231,-0.231,-0.231,0.000,0.000,0.000
1643279395837431808,2022-01-27-10:29:55,10.1.1.3,31,-0.241,-0.241,-0.241,0.000,0.000,0.000
1643279396037178112,2022-01-27-10:29:56,10.1.1.3,28,-0.251,-0.251,-0.251,0.000,0.000,0.000
1643279396234513920,2022-01-27-10:29:56,10.1.1.3,19,-0.260,-0.260,-0.260,0.000,0.000,0.000
1643279396456000000,2022-01-27-10:29:56,10.1.1.3,39,-0.271,-0.271,-0.271,0.000,0.000,0.000
1643279396656356096,2022-01-27-10:29:56,10.1.1.3,38,-0.281,-0.281,-0.281,0.000,0.000,0.000
1643279396836199936,2022-01-27-10:29:56,10.1.1.3,17,-0.290,-0.290,-0.290,0.000,0.000,0.000
1643279397036290048,2022-01-27-10:29:57,10.1.1.3,15,-0.300,-0.300,-0.300,0.000,0.000,0.000
1643279397255057152,2022-01-27-10:29:57,10.1.1.3,32,-0.311,-0.311,-0.311,0.000,0.000,0.000
1643279397455287808,2022-01-27-10:29:57,10.1.1.3,28,-0.321,-0.321,-0.321,0.000,0.000,0.000
1643279397656024832,2022-01-27-10:29:57,10.1.1.3,27,-0.331,-0.331,-0.331,0.000,0.000,0.000
1643279397875543040,2022-01-27-10:29:57,10.1.1.3,45,-0.341,-0.341,-0.341,0.000,0.000,0.000
1643279398077761792,2022-01-27-10:29:58,10.1.1.3,45,-0.351,-0.351,-0.351,0.000,0.000,0.000
1643279398255191040,2022-01-27-10:29:58,10.1.1.3,18,-0.360,-0.360,-0.360,0.000,0.000,0.000
1643279398458110976,2022-01-27-10:29:58,10.1.1.3,19,-0.370,-0.370,-0.370,0.000,0.000,0.000
1643279398654941184,2022-01-27-10:29:58,10.1.1.3,14,-0.380,-0.380,-0.380,0.000,0.000,0.000
1643279398858913792,2022-01-27-10:29:58,10.1.1.3,17,-0.390,-0.390,-0.390,0.000,0.000,0.000
1643279399075591168,2022-01-27-10:29:59,10.1.1.3,29,-0.401,-0.401,-0.401,0.000,0.000,0.000
1643279399277072896,2022-01-27-10:29:59,10.1.1.3,29,-0.411,-0.411,-0.411,0.000,0.000,0.000
1643279399482470912,2022-01-27-10:29:59,10.1.1.3,33,-0.420,-0.420,-0.420,0.000,0.000,0.000
1643279399677593856,2022-01-27-10:29:59,10.1.1.3,26,-0.430,-0.430,-0.430,0.000,0.000,0.000
1643279399876097792,2022-01-27-10:29:59,10.1.1.3,21,-0.440,-0.440,-0.440,0.000,0.000,0.000
1643279400080473856,2022-01-27-10:30:00,10.1.1.3,20,-0.450,-0.450,-0.450,0.000,0.000,0.000
1643279400299273984,2022-01-27-10:30:00,10.1.1.3,33,-0.461,-0.461,-0.461,0.000,0.000,0.000
1643279400495269888,2022-01-27-10:30:00,10.1.1.3,28,-0.471,-0.471,-0.471,0.000,0.000,0.000
1643279400694644992,2022-01-27-10:30:00,10.1.1.3,27,-0.481,-0.481,-0.481,0.000,0.000,0.000
1643279400874814976,2022-01-27-10:30:00,10.1.1.3,5,-0.490,-0.490,-0.490,0.000,0.000,0.000
1643279401095788032,2022-01-27-10:30:01,10.1.1.3,22,-0.480,-0.480,-0.480,0.000,0.000,0.000
1643279401300544000,2022-01-27-10:30:01,10.1.1.3,22,-0.470,-0.470,-0.470,0.000,0.000,0.000
1643279401516283136,2022-01-27-10:30:01,10.1.1.3,38,-0.459,-0.459,-0.459,0.000,0.000,0.000
1643279401699853056,2022-01-27-10:30:01,10.1.1.3,20,-0.450,-0.450,-0.450,0.000,0.000,0.000
1643279401918365952,2022-01-27-10:30:01,10.1.1.3,37,-0.439,-0.439,-0.439,0.000,0.000,0.000
1643279402121161984,2022-01-27-10:30:02,10.1.1.3,35,-0.429,-0.429,-0.429,0.000,0.000,0.000
1643279402319796992,2022-01-27-10:30:02,10.1.1.3,27,-0.419,-0.419,-0.419,0.000,0.000,0.000
1643279402517927936,2022-01-27-10:30:02,10.1.1.3,28,-0.410,-0.410,-0.410,0.000,0.000,0.000
1643279402737718016,2022-01-27-10:30:02,10.1.1.3,46,-0.399,-0.399,-0.399,0.000,0.000,0.000
1643279402938396928,2022-01-27-10:30:02,10.1.1.3,45,-0.389,-0.389,-0.389,0.000,0.000,0.000
1643279403138106112,2022-01-27-10:30:03,10.1.1.3,39,-0.379,-0.379,-0.379,0.000,0.000,0.000
1643279403319502080,2022-01-27-10:30:03,10.1.1.3,18,-0.370,-0.370,-0.370,0.000,0.000,0.000
1643279403536850944,2022-01-27-10:30:03,10.1.1.3,30,-0.359,-0.359,-0.359,0.000,0.000,0.000
1643279403735540992,2022-01-27-10:30:03,10.1.1.3,27,-0.349,-0.349,-0.349,0.000,0.000,0.000
1643279403936177920,2022-01-27-10:30:03,10.1.1.3,27,-0.339,-0.339,-0.339,0.000,0.000,0.000
1643279404135136000,2022-01-27-10:30:04,10.1.1.3,24,-0.330,-0.330,-0.330,0.000,0.000,0.000
1643279404338007808,2022-01-27-10:30:04,10.1.1.3,21,-0.320,-0.320,-0.320,0.000,0.000,0.000
1643279404556143872,2022-01-27-10:30:04,10.1.1.3,41,-0.309,-0.309,-0.309,0.000,0.000,0.000
1643279404734787072,2022-01-27-10:30:04,10.1.1.3,17,-0.300,-0.300,-0.300,0.000,0.000,0.000
1643279404935997952,2022-01-27-10:30:04,10.1.1.3,14,-0.290,-0.290,-0.290,0.000,0.000,0.000
1643279405156611840,2022-01-27-10:30:05,10.1.1.3,33,-0.279,-0.279,-0.279,0.000,0.000,0.000
1643279405357170176,2022-01-27-10:30:05,10.1.1.3,33,-0.269,-0.269,-0.269,0.000,0.000,0.000
1643279405558032896,2022-01-27-10:30:05,10.1.1.3,30,-0.259,-0.259,-0.259,0.000,0.000,0.000
1643279405755353088,2022-01-27-10:30:05,10.1.1.3,27,-0.249,-0.249,-0.249,0.000,0.000,0.000
1643279405956461824,2022-01-27-10:30:05,10.1.1.3,27,-0.239,-0.239,-0.239,0.000,0.000,0.000
1643279406160154112,2022-01-27-10:30:06,10.1.1.3,30,-0.229,-0.229,-0.229,0.000,0.000,0.000
1643279406375994880,2022-01-27-10:30:06,10.1.1.3,41,-0.219,-0.219,-0.219,0.000,0.000,0.000
1643279406555421952,2022-01-27-10:30:06,10.1.1.3,17,-0.210,-0.210,-0.210,0.000,0.000,0.000
1643279406757252096,2022-01-27-10:30:06,10.1.1.3,18,-0.200,-0.200,-0.200,0.000,0.000,0.000
1643279406955645184,2022-01-27-10:30:06,10.1.1.3,15,-0.190,-0.190,-0.190,0.000,0.000,0.000
1643279407177197824,2022-01-27-10:30:07,10.1.1.3,36,-0.179,-0.179,-0.179,0.000,0.000,0.000
1643279407376485120,2022-01-27-10:30:07,10.1.1.3,34,-0.169,-0.169,-0.169,0.000,0.000,0.000
1643279407576476928,2022-01-27-10:30:07,10.1.1.3,29,-0.159,-0.159,-0.159,0.000,0.000,0.000
1643279407774589184,2022-01-27-10:30:07,10.1.1.3,25,-0.149,-0.149,-0.149,0.000,0.000,0.000
1643279407976377856,2022-01-27-10:30:07,10.1.1.3,26,-0.139,-0.139,-0.139,0.000,0.000,0.000
1643279408176173824,2022-01-27-10:30:08,10.1.1.3,25,-0.130,-0.130,-0.130,0.000,0.000,0.000
1643279408378274048,2022-01-27-10:30:08,10.1.1.3,25,-0.120,-0.120,-0.120,0.000,0.000,0.000
1643279408579314944,2022-01-27-10:30:08,10.1.1.3,23,-0.110,-0.110,-0.110,0.000,0.000,0.000
1643279408775744000,2022-01-27-10:30:08,10.1.1.3,19,-0.100,-0.100,-0.100,0.000,0.000,0.000
1643279408975907072,2022-01-27-10:30:08,10.1.1.3,16,-0.090,-0.090,-0.090,0.000,0.000,0.000
1643279409178868992,2022-01-27-10:30:09,10.1.1.3,19,-0.080,-0.080,-0.080,0.000,0.000,0.000
1643279409396868864,2022-01-27-10:30:09,10.1.1.3,34,-0.069,-0.069,-0.069,0.000,0.000,0.000
1643279409598874112,2022-01-27-10:30:09,10.1.1.3,34,-0.059,-0.059,-0.059,0.000,0.000,0.000
1643279409798758912,2022-01-27-10:30:09,10.1.1.3,31,-0.049,-0.049,-0.049,0.000,0.000,0.000
1643279409997634816,2022-01-27-10:30:09,10.1.1.3,29,-0.039,-0.039,-0.039,0.000,0.000,0.000
1643279410198522112,2022-01-27-10:30:10,10.1.1.3,29,-0.030,-0.030,-0.030,0.000,0.000,0.000
1643279410398538240,2022-01-27-10:30:10,10.1.1.3,28,-0.019,-0.019,-0.019,0.000,0.000,0.000
1643279410618120960,2022-01-27-10:30:10,10.1.1.3,45,-0.009,-0.009,-0.009,0.000,0.000,0.000
1643279410815085056,2022-01-27-10:30:10,10.1.1.3,38,-0.001,-0.001,-0.001,0.000,0.000,0.000
1643279410997547008,2022-01-27-10:30:10,10.1.1.3,19,-0.010,-0.010,-0.010,0.000,0.000,0.000
1643279411216025088,2022-01-27-10:30:11,10.1.1.3,36,-0.021,-0.021,-0.021,0.000,0.000,0.000
1643279411417180160,2022-01-27-10:30:11,10.1.1.3,35,-0.031,-0.031,-0.031,0.000,0.000,0.000
1643279411617431040,2022-01-27-10:30:11,10.1.1.3,35,-0.041,-0.041,-0.041,0.000,0.000,0.000
1643279411817564928,2022-01-27-10:30:11,10.1.1.3,32,-0.051,-0.051,-0.051,0.000,0.000,0.000
1643279412017900032,2022-01-27-10:30:12,10.1.1.3,31,-0.061,-0.061,-0.061,0.000,0.000,0.000
1643279412215603200,2022-01-27-10:30:12,10.1.1.3,28,-0.071,-0.071,-0.071,0.000,0.000,0.000
1643279412415447040,2022-01-27-10:30:12,10.1.1.3,23,-0.080,-0.080,-0.080,0.000,0.000,0.000
1643279412617306112,2022-01-27-10:30:12,10.1.1.3,24,-0.090,-0.090,-0.090,0.000,0.000,0.000
1643279412817643776,2022-01-27-10:30:12,10.1.1.3,19,-0.100,-0.100,-0.100,0.000,0.000,0.000
1643279413018432000,2022-01-27-10:30:13,10.1.1.3,13,-0.110,-0.110,-0.110,0.000,0.000,0.000
1643279413237852160,2022-01-27-10:30:13,10.1.1.3,26,-0.120,-0.120,-0.120,0.000,0.000,0.000
1643279413455412992,2022-01-27-10:30:13,10.1.1.3,40,-0.131,-0.131,-0.131,0.000,0.000,0.000
1643279413661086208,2022-01-27-10:30:13,10.1.1.3,42,-0.141,-0.141,-0.141,0.000,0.000,0.000
1643279413855723008,2022-01-27-10:30:13,10.1.1.3,35,-0.151,-0.151,-0.151,0.000,0.000,0.000
1643279414055900928,2022-01-27-10:30:14,10.1.1.3,34,-0.161,-0.161,-0.161,0.000,0.000,0.000
1643279414237332992,2022-01-27-10:30:14,10.1.1.3,14,-0.170,-0.170,-0.170,0.000,0.000,0.000
1643279414457240064,2022-01-27-10:30:14,10.1.1.3,33,-0.181,-0.181,-0.181,0.000,0.000,0.000
1643279414654611968,2022-01-27-10:30:14,10.1.1.3,30,-0.191,-0.191,-0.191,0.000,0.000,0.000
1643279414859442944,2022-01-27-10:30:14,10.1.1.3,32,-0.200,-0.200,-0.200,0.000,0.000,0.000
1643279415061979136,2022-01-27-10:30:15,10.1.1.3,19,-0.210,-0.210,-0.210,0.000,0.000,0.000
1643279415274832128,2022-01-27-10:30:15,10.1.1.3,29,-0.221,-0.221,-0.221,0.000,0.000,0.000
1643279415474308096,2022-01-27-10:30:15,10.1.1.3,27,-0.231,-0.231,-0.231,0.000,0.000,0.000
1643279415679158016,2022-01-27-10:30:15,10.1.1.3,30,-0.241,-0.241,-0.241,0.000,0.000,0.000
1643279415878236160,2022-01-27-10:30:15,10.1.1.3,27,-0.251,-0.251,-0.251,0.000,0.000,0.000
1643279416095897856,2022-01-27-10:30:16,10.1.1.3,43,-0.261,-0.261,-0.261,0.000,0.000,0.000
1643279416295284992,2022-01-27-10:30:16,10.1.1.3,35,-0.271,-0.271,-0.271,0.000,0.000,0.000
1643279416495155200,2022-01-27-10:30:16,10.1.1.3,33,-0.281,-0.281,-0.281,0.000,0.000,0.000
1643279416697242880,2022-01-27-10:30:16,10.1.1.3,34,-0.291,-0.291,-0.291,0.000,0.000,0.000
1643279416897136896,2022-01-27-10:30:16,10.1.1.3,31,-0.301,-0.301,-0.301,0.000,0.000,0.000
1643279417096201984,2022-01-27-10:30:17,10.1.1.3,29,-0.311,-0.311,-0.311,0.000,0.000,0.000
1643279417298310144,2022-01-27-10:30:17,10.1.1.3,29,-0.321,-0.321,-0.321,0.000,0.000,0.000
1643279417496655872,2022-01-27-10:30:17,10.1.1.3,26,-0.331,-0.331,-0.331,0.000,0.000,0.000
1643279417716844032,2022-01-27-10:30:17,10.1.1.3,44,-0.341,-0.341,-0.341,0.000,0.000,0.000
1643279417914200064,2022-01-27-10:30:17,10.1.1.3,40,-0.351,-0.351,-0.351,0.000,0.000,0.000
1643279418094497792,2022-01-27-10:30:18,10.1.1.3,18,-0.360,-0.360,-0.360,0.000,0.000,0.000
1643279418316750080,2022-01-27-10:30:18,10.1.1.3,37,-0.371,-0.371,-0.371,0.000,0.000,0.000
1643279418501117952,2022-01-27-10:30:18,10.1.1.3,20,-0.380,-0.380,-0.380,0.000,0.000,0.000
1643279418716865024,2022-01-27-10:30:18,10.1.1.3,35,-0.391,-0.391,-0.391,0.000,0.000,0.000
1643279418915541760,2022-01-27-10:30:18,10.1.1.3,32,-0.401,-0.401,-0.401,0.000,0.000,0.000
1643279419117227008,2022-01-27-10:30:19,10.1.1.3,28,-0.411,-0.411,-0.411,0.000,0.000,0.000
1643279419339848960,2022-01-27-10:30:19,10.1.1.3,44,-0.421,-0.421,-0.421,0.000,0.000,0.000
1643279419515511040,2022-01-27-10:30:19,10.1.1.3,18,-0.430,-0.430,-0.430,0.000,0.000,0.000
1643279419737164032,2022-01-27-10:30:19,10.1.1.3,39,-0.441,-0.441,-0.441,0.000,0.000,0.000
1643279419938750976,2022-01-27-10:30:19,10.1.1.3,38,-0.451,-0.451,-0.451,0.000,0.000,0.000
1643279420136560896,2022-01-27-10:30:20,10.1.1.3,34,-0.461,-0.461,-0.461,0.000,0.000,0.000
1643279420335112192,2022-01-27-10:30:20,10.1.1.3,31,-0.471,-0.471,-0.471,0.000,0.000,0.000
1643279420546072832,2022-01-27-10:30:20,10.1.1.3,34,-0.481,-0.481,-0.481,0.000,0.000,0.000
1643279420720238080,2022-01-27-10:30:20,10.1.1.3,2,-0.490,-0.490,-0.490,0.000,0.000,0.000
1643279420963572992,2022-01-27-10:30:20,10.1.1.3,45,-0.479,-0.479,-0.479,0.000,0.000,0.000
1643279421155014144,2022-01-27-10:30:21,10.1.1.3,34,-0.469,-0.469,-0.469,0.000,0.000,0.000
1643279421355309056,2022-01-27-10:30:21,10.1.1.3,32,-0.460,-0.460,-0.460,0.000,0.000,0.000
1643279421557562112,2022-01-27-10:30:21,10.1.1.3,34,-0.449,-0.449,-0.449,0.000,0.000,0.000
1643279421755100928,2022-01-27-10:30:21,10.1.1.3,30,-0.439,-0.439,-0.439,0.000,0.000,0.000
1643279421957197824,2022-01-27-10:30:21,10.1.1.3,31,-0.429,-0.429,-0.429,0.000,0.000,0.000
1643279422160742144,2022-01-27-10:30:22,10.1.1.3,32,-0.419,-0.419,-0.419,0.000,0.000,0.000
1643279422355643136,2022-01-27-10:30:22,10.1.1.3,22,-0.410,-0.410,-0.410,0.000,0.000,0.000
1643279422555269120,2022-01-27-10:30:22,10.1.1.3,20,-0.400,-0.400,-0.400,0.000,0.000,0.000
1643279422776932864,2022-01-27-10:30:22,10.1.1.3,38,-0.389,-0.389,-0.389,0.000,0.000,0.000
1643279422957426944,2022-01-27-10:30:22,10.1.1.3,15,-0.380,-0.380,-0.380,0.000,0.000,0.000
1643279423175880960,2022-01-27-10:30:23,10.1.1.3,34,-0.369,-0.369,-0.369,0.000,0.000,0.000
1643279423375118848,2022-01-27-10:30:23,10.1.1.3,32,-0.359,-0.359,-0.359,0.000,0.000,0.000
1643279423575737856,2022-01-27-10:30:23,10.1.1.3,29,-0.349,-0.349,-0.349,0.000,0.000,0.000
1643279423776050944,2022-01-27-10:30:23,10.1.1.3,28,-0.339,-0.339,-0.339,0.000,0.000,0.000
1643279423974989824,2022-01-27-10:30:23,10.1.1.3,25,-0.329,-0.329,-0.329,0.000,0.000,0.000
1643279424177517824,2022-01-27-10:30:24,10.1.1.3,27,-0.319,-0.319,-0.319,0.000,0.000,0.000
1643279424378513152,2022-01-27-10:30:24,10.1.1.3,20,-0.310,-0.310,-0.310,0.000,0.000,0.000
1643279424577858816,2022-01-27-10:30:24,10.1.1.3,19,-0.300,-0.300,-0.300,0.000,0.000,0.000
1643279424796321024,2022-01-27-10:30:24,10.1.1.3,36,-0.289,-0.289,-0.289,0.000,0.000,0.000
1643279424999182080,2022-01-27-10:30:24,10.1.1.3,35,-0.279,-0.279,-0.279,0.000,0.000,0.000
1643279425204763904,2022-01-27-10:30:25,10.1.1.3,41,-0.269,-0.269,-0.269,0.000,0.000,0.000
1643279425398631168,2022-01-27-10:30:25,10.1.1.3,32,-0.259,-0.259,-0.259,0.000,0.000,0.000
1643279425594814976,2022-01-27-10:30:25,10.1.1.3,25,-0.249,-0.249,-0.249,0.000,0.000,0.000
1643279425796024064,2022-01-27-10:30:25,10.1.1.3,26,-0.240,-0.240,-0.240,0.000,0.000,0.000
1643279425995666944,2022-01-27-10:30:25,10.1.1.3,25,-0.229,-0.229,-0.229,0.000,0.000,0.000
1643279426195444992,2022-01-27-10:30:26,10.1.1.3,24,-0.220,-0.220,-0.220,0.000,0.000,0.000
1643279426396670976,2022-01-27-10:30:26,10.1.1.3,24,-0.210,-0.210,-0.210,0.000,0.000,0.000
1643279426616573952,2022-01-27-10:30:26,10.1.1.3,40,-0.199,-0.199,-0.199,0.000,0.000,0.000
1643279426815951104,2022-01-27-10:30:26,10.1.1.3,37,-0.189,-0.189,-0.189,0.000,0.000,0.000
1643279426998004992,2022-01-27-10:30:26,10.1.1.3,18,-0.180,-0.180,-0.180,0.000,0.000,0.000
1643279427215756800,2022-01-27-10:30:27,10.1.1.3,33,-0.169,-0.169,-0.169,0.000,0.000,0.000
1643279427415920128,2022-01-27-10:30:27,10.1.1.3,31,-0.159,-0.159,-0.159,0.000,0.000,0.000
1643279427614993152,2022-01-27-10:30:27,10.1.1.3,28,-0.150,-0.150,-0.150,0.000,0.000,0.000
1643279427817841152,2022-01-27-10:30:27,10.1.1.3,30,-0.139,-0.139,-0.139,0.000,0.000,0.000
1643279428016617984,2022-01-27-10:30:28,10.1.1.3,28,-0.129,-0.129,-0.129,0.000,0.000,0.000
1643279428218087936,2022-01-27-10:30:28,10.1.1.3,28,-0.119,-0.119,-0.119,0.000,0.000,0.000
1643279428416104960,2022-01-27-10:30:28,10.1.1.3,25,-0.109,-0.109,-0.109,0.000,0.000,0.000
1643279428615703040,2022-01-27-10:30:28,10.1.1.3,24,-0.100,-0.100,-0.100,0.000,0.000,0.000
1643279428817074944,2022-01-27-10:30:28,10.1.1.3,24,-0.090,-0.090,-0.090,0.000,0.000,0.000
1643279429017298944,2022-01-27-10:30:29,10.1.1.3,24,-0.080,-0.080,-0.080,0.000,0.000,0.000
1643279429237643008,2022-01-27-10:30:29,10.1.1.3,43,-0.069,-0.069,-0.069,0.000,0.000,0.000
1643279429416785920,2022-01-27-10:30:29,10.1.1.3,20,-0.060,-0.060,-0.060,0.000,0.000,0.000
1643279429637985024,2022-01-27-10:30:29,10.1.1.3,39,-0.049,-0.049,-0.049,0.000,0.000,0.000
1643279429817105152,2022-01-27-10:30:29,10.1.1.3,17,-0.040,-0.040,-0.040,0.000,0.000,0.000
1643279430016463104,2022-01-27-10:30:30,10.1.1.3,16,-0.030,-0.030,-0.030,0.000,0.000,0.000
1643279430236592128,2022-01-27-10:30:30,10.1.1.3,35,-0.019,-0.019,-0.019,0.000,0.000,0.000
1643279430436343808,2022-01-27-10:30:30,10.1.1.3,33,-0.009,-0.009,-0.009,0.000,0.000,0.000
1643279430617472768,2022-01-27-10:30:30,10.1.1.3,13,-0.000,-0.000,-0.000,0.000,0.000,0.000
1643279430838032896,2022-01-27-10:30:30,10.1.1.3,33,-0.011,-0.011,-0.011,0.000,0.000,0.000
1643279431037971968,2022-01-27-10:30:31,10.1.1.3,31,-0.021,-0.021,-0.021,0.000,0.000,0.000
1643279431238415104,2022-01-27-10:30:31,10.1.1.3,29,-0.031,-0.031,-0.031,0.000,0.000,0.000
1643279431437299968,2022-01-27-10:30:31,10.1.1.3,27,-0.041,-0.041,-0.041,0.000,0.000,0.000
1643279431636640000,2022-01-27-10:30:31,10.1.1.3,21,-0.050,-0.050,-0.050,0.000,0.000,0.000
1643279431857585920,2022-01-27-10:30:31,10.1.1.3,39,-0.061,-0.061,-0.061,0.000,0.000,0.000
1643279432036379136,2022-01-27-10:30:32,10.1.1.3,16,-0.070,-0.070,-0.070,0.000,0.000,0.000
1643279432239062016,2022-01-27-10:30:32,10.1.1.3,18,-0.080,-0.080,-0.080,0.000,0.000,0.000
1643279432437449984,2022-01-27-10:30:32,10.1.1.3,15,-0.090,-0.090,-0.090,0.000,0.000,0.000
1643279432657794048,2022-01-27-10:30:32,10.1.1.3,34,-0.101,-0.101,-0.101,0.000,0.000,0.000
1643279432859098880,2022-01-27-10:30:32,10.1.1.3,32,-0.111,-0.111,-0.111,0.000,0.000,0.000
1643279433061146880,2022-01-27-10:30:33,10.1.1.3,36,-0.121,-0.121,-0.121,0.000,0.000,0.000
1643279433254594048,2022-01-27-10:30:33,10.1.1.3,28,-0.131,-0.131,-0.131,0.000,0.000,0.000
1643279433459553024,2022-01-27-10:30:33,10.1.1.3,32,-0.140,-0.140,-0.140,0.000,0.000,0.000
1643279433662501120,2022-01-27-10:30:33,10.1.1.3,33,-0.150,-0.150,-0.150,0.000,0.000,0.000
1643279433857361152,2022-01-27-10:30:33,10.1.1.3,27,-0.160,-0.160,-0.160,0.000,0.000,0.000
1643279434055870976,2022-01-27-10:30:34,10.1.1.3,24,-0.170,-0.170,-0.170,0.000,0.000,0.000
1643279434256824064,2022-01-27-10:30:34,10.1.1.3,23,-0.180,-0.180,-0.180,0.000,0.000,0.000
1643279434475928064,2022-01-27-10:30:34,10.1.1.3,40,-0.191,-0.191,-0.191,0.000,0.000,0.000
1643279434656215808,2022-01-27-10:30:34,10.1.1.3,16,-0.200,-0.200,-0.200,0.000,0.000,0.000
1643279434875538176,2022-01-27-10:30:34,10.1.1.3,33,-0.211,-0.211,-0.211,0.000,0.000,0.000
1643279435076942848,2022-01-27-10:30:35,10.1.1.3,32,-0.221,-0.221,-0.221,0.000,0.000,0.000
1643279435275432192,2022-01-27-10:30:35,10.1.1.3,30,-0.231,-0.231,-0.231,0.000,0.000,0.000
1643279435478443008,2022-01-27-10:30:35,10.1.1.3,29,-0.241,-0.241,-0.241,0.000,0.000,0.000
1643279435675843072,2022-01-27-10:30:35,10.1.1.3,28,-0.251,-0.251,-0.251,0.000,0.000,0.000
1643279435876909056,2022-01-27-10:30:35,10.1.1.3,21,-0.260,-0.260,-0.260,0.000,0.000,0.000
1643279436098390016,2022-01-27-10:30:36,10.1.1.3,42,-0.271,-0.271,-0.271,0.000,0.000,0.000
1643279436294292992,2022-01-27-10:30:36,10.1.1.3,37,-0.281,-0.281,-0.281,0.000,0.000,0.000
1643279436494352128,2022-01-27-10:30:36,10.1.1.3,35,-0.291,-0.291,-0.291,0.000,0.000,0.000
1643279436695049984,2022-01-27-10:30:36,10.1.1.3,34,-0.301,-0.301,-0.301,0.000,0.000,0.000
1643279436896116992,2022-01-27-10:30:36,10.1.1.3,35,-0.311,-0.311,-0.311,0.000,0.000,0.000
1643279437097445888,2022-01-27-10:30:37,10.1.1.3,34,-0.321,-0.321,-0.321,0.000,0.000,0.000
1643279437295376128,2022-01-27-10:30:37,10.1.1.3,32,-0.331,-0.331,-0.331,0.000,0.000,0.000
1643279437495779072,2022-01-27-10:30:37,10.1.1.3,31,-0.341,-0.341,-0.341,0.000,0.000,0.000
1643279437698683904,2022-01-27-10:30:37,10.1.1.3,33,-0.351,-0.351,-0.351,0.000,0.000,0.000
1643279437897795840,2022-01-27-10:30:37,10.1.1.3,31,-0.361,-0.361,-0.361,0.000,0.000,0.000
1643279438095237120,2022-01-27-10:30:38,10.1.1.3,28,-0.371,-0.371,-0.371,0.000,0.000,0.000
1643279438298171904,2022-01-27-10:30:38,10.1.1.3,29,-0.381,-0.381,-0.381,0.000,0.000,0.000
1643279438496436992,2022-01-27-10:30:38,10.1.1.3,27,-0.391,-0.391,-0.391,0.000,0.000,0.000
1643279438696454144,2022-01-27-10:30:38,10.1.1.3,26,-0.401,-0.401,-0.401,0.000,0.000,0.000
1643279438898195968,2022-01-27-10:30:38,10.1.1.3,22,-0.410,-0.410,-0.410,0.000,0.000,0.000
1643279439099984896,2022-01-27-10:30:39,10.1.1.3,21,-0.420,-0.420,-0.420,0.000,0.000,0.000
1643279439314740992,2022-01-27-10:30:39,10.1.1.3,34,-0.431,-0.431,-0.431,0.000,0.000,0.000
1643279439514949120,2022-01-27-10:30:39,10.1.1.3,32,-0.441,-0.441,-0.441,0.000,0.000,0.000
1643279439715850240,2022-01-27-10:30:39,10.1.1.3,33,-0.451,-0.451,-0.451,0.000,0.000,0.000
1643279439915739136,2022-01-27-10:30:39,10.1.1.3,30,-0.461,-0.461,-0.461,0.000,0.000,0.000
1643279440115494912,2022-01-27-10:30:40,10.1.1.3,27,-0.471,-0.471,-0.471,0.000,0.000,0.000
1643279440316282112,2022-01-27-10:30:40,10.1.1.3,26,-0.481,-0.481,-0.481,0.000,0.000,0.000
1643279440500446208,2022-01-27-10:30:40,10.1.1.3,11,-0.490,-0.490,-0.490,0.000,0.000,0.000
1643279440714881024,2022-01-27-10:30:40,10.1.1.3,24,-0.480,-0.480,-0.480,0.000,0.000,0.000
1643279440934706944,2022-01-27-10:30:40,10.1.1.3,41,-0.469,-0.469,-0.469,0.000,0.000,0.000
1643279441136015872,2022-01-27-10:30:41,10.1.1.3,35,-0.459,-0.459,-0.459,0.000,0.000,0.000
1643279441337131008,2022-01-27-10:30:41,10.1.1.3,34,-0.449,-0.449,-0.449,0.000,0.000,0.000
1643279441535032064,2022-01-27-10:30:41,10.1.1.3,28,-0.439,-0.439,-0.439,0.000,0.000,0.000
1643279441735636992,2022-01-27-10:30:41,10.1.1.3,28,-0.429,-0.429,-0.429,0.000,0.000,0.000
1643279441938268928,2022-01-27-10:30:41,10.1.1.3,29,-0.419,-0.419,-0.419,0.000,0.000,0.000
1643279442135366912,2022-01-27-10:30:42,10.1.1.3,25,-0.409,-0.409,-0.409,0.000,0.000,0.000
1643279442358028800,2022-01-27-10:30:42,10.1.1.3,45,-0.399,-0.399,-0.399,0.000,0.000,0.000
1643279442556544000,2022-01-27-10:30:42,10.1.1.3,36,-0.389,-0.389,-0.389,0.000,0.000,0.000
1643279442754627840,2022-01-27-10:30:42,10.1.1.3,32,-0.379,-0.379,-0.379,0.000,0.000,0.000
1643279442956254976,2022-01-27-10:30:42,10.1.1.3,32,-0.369,-0.369,-0.369,0.000,0.000,0.000
1643279443159387136,2022-01-27-10:30:43,10.1.1.3,33,-0.359,-0.359,-0.359,0.000,0.000,0.000
1643279443356636928,2022-01-27-10:30:43,10.1.1.3,26,-0.349,-0.349,-0.349,0.000,0.000,0.000
1643279443555869952,2022-01-27-10:30:43,10.1.1.3,24,-0.340,-0.340,-0.340,0.000,0.000,0.000
1643279443755255040,2022-01-27-10:30:43,10.1.1.3,20,-0.330,-0.330,-0.330,0.000,0.000,0.000
1643279443940076032,2022-01-27-10:30:43,10.1.1.3,-1,-0.321,-0.321,-0.321,0.000,0.000,0.000
1643279444177081088,2022-01-27-10:30:44,10.1.1.3,37,-0.309,-0.309,-0.309,0.000,0.000,0.000
1643279444376064000,2022-01-27-10:30:44,10.1.1.3,34,-0.299,-0.299,-0.299,0.000,0.000,0.000
1643279444578578944,2022-01-27-10:30:44,10.1.1.3,36,-0.289,-0.289,-0.289,0.000,0.000,0.000
1643279444778605824,2022-01-27-10:30:44,10.1.1.3,33,-0.279,-0.279,-0.279,0.000,0.000,0.000
1643279444975119104,2022-01-27-10:30:44,10.1.1.3,27,-0.269,-0.269,-0.269,0.000,0.000,0.000
1643279445176888832,2022-01-27-10:30:45,10.1.1.3,26,-0.259,-0.259,-0.259,0.000,0.000,0.000
1643279445374508032,2022-01-27-10:30:45,10.1.1.3,22,-0.250,-0.250,-0.250,0.000,0.000,0.000
1643279445597104128,2022-01-27-10:30:45,10.1.1.3,40,-0.239,-0.239,-0.239,0.000,0.000,0.000
1643279445775571968,2022-01-27-10:30:45,10.1.1.3,17,-0.230,-0.230,-0.230,0.000,0.000,0.000
1643279445996956160,2022-01-27-10:30:45,10.1.1.3,38,-0.219,-0.219,-0.219,0.000,0.000,0.000
1643279446176482048,2022-01-27-10:30:46,10.1.1.3,16,-0.210,-0.210,-0.210,0.000,0.000,0.000
1643279446397639936,2022-01-27-10:30:46,10.1.1.3,36,-0.199,-0.199,-0.199,0.000,0.000,0.000
1643279446595949824,2022-01-27-10:30:46,10.1.1.3,34,-0.189,-0.189,-0.189,0.000,0.000,0.000
1643279446796709120,2022-01-27-10:30:46,10.1.1.3,33,-0.179,-0.179,-0.179,0.000,0.000,0.000
1643279446994106880,2022-01-27-10:30:46,10.1.1.3,30,-0.169,-0.169,-0.169,0.000,0.000,0.000
1643279447195821056,2022-01-27-10:30:47,10.1.1.3,30,-0.159,-0.159,-0.159,0.000,0.000,0.000
1643279447397017856,2022-01-27-10:30:47,10.1.1.3,29,-0.149,-0.149,-0.149,0.000,0.000,0.000
1643279447599762944,2022-01-27-10:30:47,10.1.1.3,30,-0.139,-0.139,-0.139,0.000,0.000,0.000
1643279447799122944,2022-01-27-10:30:47,10.1.1.3,28,-0.130,-0.130,-0.130,0.000,0.000,0.000
1643279447995488000,2022-01-27-10:30:47,10.1.1.3,23,-0.120,-0.120,-0.120,0.000,0.000,0.000
1643279448198223104,2022-01-27-10:30:48,10.1.1.3,23,-0.110,-0.110,-0.110,0.000,0.000,0.000
1643279448398562816,2022-01-27-10:30:48,10.1.1.3,17,-0.100,-0.100,-0.100,0.000,0.000,0.000
1643279448598833920,2022-01-27-10:30:48,10.1.1.3,17,-0.090,-0.090,-0.090,0.000,0.000,0.000
1643279448818841856,2022-01-27-10:30:48,10.1.1.3,34,-0.079,-0.079,-0.079,0.000,0.000,0.000
1643279449017314816,2022-01-27-10:30:49,10.1.1.3,31,-0.069,-0.069,-0.069,0.000,0.000,0.000
1643279449217614848,2022-01-27-10:30:49,10.1.1.3,30,-0.059,-0.059,-0.059,0.000,0.000,0.000
1643279449419648000,2022-01-27-10:30:49,10.1.1.3,27,-0.050,-0.050,-0.050,0.000,0.000,0.000
1643279449639361024,2022-01-27-10:30:49,10.1.1.3,43,-0.039,-0.039,-0.039,0.000,0.000,0.000
1643279449836909056,2022-01-27-10:30:49,10.1.1.3,38,-0.029,-0.029,-0.029,0.000,0.000,0.000
1643279450037635072,2022-01-27-10:30:50,10.1.1.3,37,-0.019,-0.019,-0.019,0.000,0.000,0.000
1643279450238465024,2022-01-27-10:30:50,10.1.1.3,36,-0.009,-0.009,-0.009,0.000,0.000,0.000
1643279450414257920,2022-01-27-10:30:50,10.1.1.3,7,-0.000,-0.000,-0.000,0.000,0.000,0.000
1643279450634438144,2022-01-27-10:30:50,10.1.1.3,16,-0.010,-0.010,-0.010,0.000,0.000,0.000
1643279450857038848,2022-01-27-10:30:50,10.1.1.3,37,-0.021,-0.021,-0.021,0.000,0.000,0.000
1643279451035757056,2022-01-27-10:30:51,10.1.1.3,14,-0.030,-0.030,-0.030,0.000,0.000,0.000
1643279451255969024,2022-01-27-10:30:51,10.1.1.3,33,-0.041,-0.041,-0.041,0.000,0.000,0.000
1643279451455346944,2022-01-27-10:30:51,10.1.1.3,32,-0.051,-0.051,-0.051,0.000,0.000,0.000
1643279451659195904,2022-01-27-10:30:51,10.1.1.3,33,-0.061,-0.061,-0.061,0.000,0.000,0.000
1643279451856416000,2022-01-27-10:30:51,10.1.1.3,27,-0.071,-0.071,-0.071,0.000,0.000,0.000
1643279452059874048,2022-01-27-10:30:52,10.1.1.3,25,-0.080,-0.080,-0.080,0.000,0.000,0.000
1643279452255197952,2022-01-27-10:30:52,10.1.1.3,22,-0.090,-0.090,-0.090,0.000,0.000,0.000
1643279452458638080,2022-01-27-10:30:52,10.1.1.3,21,-0.100,-0.100,-0.100,0.000,0.000,0.000
1643279452656644096,2022-01-27-10:30:52,10.1.1.3,20,-0.110,-0.110,-0.110,0.000,0.000,0.000
1643279452855914240,2022-01-27-10:30:52,10.1.1.3,16,-0.120,-0.120,-0.120,0.000,0.000,0.000
1643279453075825920,2022-01-27-10:30:53,10.1.1.3,34,-0.131,-0.131,-0.131,0.000,0.000,0.000
1643279453275984896,2022-01-27-10:30:53,10.1.1.3,30,-0.141,-0.141,-0.141,0.000,0.000,0.000
1643279453479186176,2022-01-27-10:30:53,10.1.1.3,31,-0.150,-0.150,-0.150,0.000,0.000,0.000
1643279453675996160,2022-01-27-10:30:53,10.1.1.3,26,-0.161,-0.161,-0.161,0.000,0.000,0.000
1643279453896790016,2022-01-27-10:30:53,10.1.1.3,40,-0.171,-0.171,-0.171,0.000,0.000,0.000
1643279454098383872,2022-01-27-10:30:54,10.1.1.3,39,-0.181,-0.181,-0.181,0.000,0.000,0.000
1643279454296147968,2022-01-27-10:30:54,10.1.1.3,36,-0.191,-0.191,-0.191,0.000,0.000,0.000
1643279454496655104,2022-01-27-10:30:54,10.1.1.3,35,-0.201,-0.201,-0.201,0.000,0.000,0.000
1643279454696048128,2022-01-27-10:30:54,10.1.1.3,32,-0.211,-0.211,-0.211,0.000,0.000,0.000
1643279454897337856,2022-01-27-10:30:54,10.1.1.3,28,-0.221,-0.221,-0.221,0.000,0.000,0.000
1643279455095149056,2022-01-27-10:30:55,10.1.1.3,25,-0.230,-0.230,-0.230,0.000,0.000,0.000
1643279455314996992,2022-01-27-10:30:55,10.1.1.3,44,-0.241,-0.241,-0.241,0.000,0.000,0.000
1643279455515005952,2022-01-27-10:30:55,10.1.1.3,37,-0.251,-0.251,-0.251,0.000,0.000,0.000
1643279455696576000,2022-01-27-10:30:55,10.1.1.3,15,-0.260,-0.260,-0.260,0.000,0.000,0.000
1643279455916569856,2022-01-27-10:30:55,10.1.1.3,32,-0.271,-0.271,-0.271,0.000,0.000,0.000
1643279456114272000,2022-01-27-10:30:56,10.1.1.3,29,-0.281,-0.281,-0.281,0.000,0.000,0.000
1643279456313733120,2022-01-27-10:30:56,10.1.1.3,26,-0.291,-0.291,-0.291,0.000,0.000,0.000
1643279456536648960,2022-01-27-10:30:56,10.1.1.3,45,-0.301,-0.301,-0.301,0.000,0.000,0.000
1643279456716162816,2022-01-27-10:30:56,10.1.1.3,22,-0.310,-0.310,-0.310,0.000,0.000,0.000
1643279456914967040,2022-01-27-10:30:56,10.1.1.3,20,-0.320,-0.320,-0.320,0.000,0.000,0.000
1643279457116578048,2022-01-27-10:30:57,10.1.1.3,18,-0.330,-0.330,-0.330,0.000,0.000,0.000
1643279457316371968,2022-01-27-10:30:57,10.1.1.3,19,-0.340,-0.340,-0.340,0.000,0.000,0.000
1643279457536173056,2022-01-27-10:30:57,10.1.1.3,37,-0.351,-0.351,-0.351,0.000,0.000,0.000
1643279457717294848,2022-01-27-10:30:57,10.1.1.3,17,-0.360,-0.360,-0.360,0.000,0.000,0.000
1643279457935006976,2022-01-27-10:30:57,10.1.1.3,32,-0.371,-0.371,-0.371,0.000,0.000,0.000
1643279458138874880,2022-01-27-10:30:58,10.1.1.3,33,-0.381,-0.381,-0.381,0.000,0.000,0.000
1643279458337618176,2022-01-27-10:30:58,10.1.1.3,31,-0.391,-0.391,-0.391,0.000,0.000,0.000
1643279458536626176,2022-01-27-10:30:58,10.1.1.3,28,-0.401,-0.401,-0.401,0.000,0.000,0.000
1643279458736166912,2022-01-27-10:30:58,10.1.1.3,26,-0.410,-0.410,-0.410,0.000,0.000,0.000
1643279458934603008,2022-01-27-10:30:58,10.1.1.3,24,-0.421,-0.421,-0.421,0.000,0.000,0.000
1643279459157411072,2022-01-27-10:30:59,10.1.1.3,45,-0.431,-0.431,-0.431,0.000,0.000,0.000
1643279459355688192,2022-01-27-10:30:59,10.1.1.3,42,-0.441,-0.441,-0.441,0.000,0.000,0.000
1643279459556623104,2022-01-27-10:30:59,10.1.1.3,41,-0.451,-0.451,-0.451,0.000,0.000,0.000
1643279459737865984,2022-01-27-10:30:59,10.1.1.3,20,-0.460,-0.460,-0.460,0.000,0.000,0.000
1643279459955360000,2022-01-27-10:30:59,10.1.1.3,35,-0.471,-0.471,-0.471,0.000,0.000,0.000
1643279460154557952,2022-01-27-10:31:00,10.1.1.3,33,-0.481,-0.481,-0.481,0.000,0.000,0.000
1643279460335518976,2022-01-27-10:31:00,10.1.1.3,8,-0.490,-0.490,-0.490,0.000,0.000,0.000
1643279460555278080,2022-01-27-10:31:00,10.1.1.3,26,-0.479,-0.479,-0.479,0.000,0.000,0.000
1643279460755436800,2022-01-27-10:31:00,10.1.1.3,25,-0.470,-0.470,-0.470,0.000,0.000,0.000
1643279460977544192,2022-01-27-10:31:00,10.1.1.3,46,-0.459,-0.459,-0.459,0.000,0.000,0.000
1643279461174396160,2022-01-27-10:31:01,10.1.1.3,42,-0.449,-0.449,-0.449,0.000,0.000,0.000
1643279461376116992,2022-01-27-10:31:01,10.1.1.3,43,-0.439,-0.439,-0.439,0.000,0.000,0.000
1643279461577786880,2022-01-27-10:31:01,10.1.1.3,43,-0.429,-0.429,-0.429,0.000,0.000,0.000
1643279461755621888,2022-01-27-10:31:01,10.1.1.3,20,-0.420,-0.420,-0.420,0.000,0.000,0.000
1643279461957293056,2022-01-27-10:31:01,10.1.1.3,20,-0.410,-0.410,-0.410,0.000,0.000,0.000
1643279462174990848,2022-01-27-10:31:02,10.1.1.3,36,-0.399,-0.399,-0.399,0.000,0.000,0.000
1643279462360285952,2022-01-27-10:31:02,10.1.1.3,21,-0.390,-0.390,-0.390,0.000,0.000,0.000
1643279462574976000,2022-01-27-10:31:02,10.1.1.3,33,-0.379,-0.379,-0.379,0.000,0.000,0.000
1643279462775757056,2022-01-27-10:31:02,10.1.1.3,33,-0.369,-0.369,-0.369,0.000,0.000,0.000
1643279462979269888,2022-01-27-10:31:02,10.1.1.3,36,-0.359,-0.359,-0.359,0.000,0.000,0.000
1643279463176980992,2022-01-27-10:31:03,10.1.1.3,31,-0.349,-0.349,-0.349,0.000,0.000,0.000
1643279463377660928,2022-01-27-10:31:03,10.1.1.3,30,-0.339,-0.339,-0.339,0.000,0.000,0.000
1643279463575886848,2022-01-27-10:31:03,10.1.1.3,27,-0.329,-0.329,-0.329,0.000,0.000,0.000
1643279463776953088,2022-01-27-10:31:03,10.1.1.3,26,-0.320,-0.320,-0.320,0.000,0.000,0.000
1643279463974663936,2022-01-27-10:31:03,10.1.1.3,22,-0.310,-0.310,-0.310,0.000,0.000,0.000
1643279464174956032,2022-01-27-10:31:04,10.1.1.3,19,-0.300,-0.300,-0.300,0.000,0.000,0.000
1643279464374912000,2022-01-27-10:31:04,10.1.1.3,14,-0.290,-0.290,-0.290,0.000,0.000,0.000
1643279464628418048,2022-01-27-10:31:04,10.1.1.3,66,-0.279,-0.279,-0.279,0.000,0.000,0.000
1643279464797699840,2022-01-27-10:31:04,10.1.1.3,34,-0.270,-0.270,-0.270,0.000,0.000,0.000
1643279464998105088,2022-01-27-10:31:04,10.1.1.3,33,-0.259,-0.259,-0.259,0.000,0.000,0.000
1643279465197721856,2022-01-27-10:31:05,10.1.1.3,32,-0.250,-0.250,-0.250,0.000,0.000,0.000
1643279465400166144,2022-01-27-10:31:05,10.1.1.3,33,-0.239,-0.239,-0.239,0.000,0.000,0.000
1643279465597223936,2022-01-27-10:31:05,10.1.1.3,19,-0.230,-0.230,-0.230,0.000,0.000,0.000
1643279465825982208,2022-01-27-10:31:05,10.1.1.3,45,-0.219,-0.219,-0.219,0.000,0.000,0.000
1643279466050311168,2022-01-27-10:31:06,10.1.1.3,60,-0.209,-0.209,-0.209,0.000,0.000,0.000
1643279466215347968,2022-01-27-10:31:06,10.1.1.3,23,-0.200,-0.200,-0.200,0.000,0.000,0.000
1643279466414045952,2022-01-27-10:31:06,10.1.1.3,21,-0.190,-0.190,-0.190,0.000,0.000,0.000
1643279466634209024,2022-01-27-10:31:06,10.1.1.3,39,-0.179,-0.179,-0.179,0.000,0.000,0.000
1643279466834574080,2022-01-27-10:31:06,10.1.1.3,38,-0.169,-0.169,-0.169,0.000,0.000,0.000
1643279467034221824,2022-01-27-10:31:07,10.1.1.3,31,-0.159,-0.159,-0.159,0.000,0.000,0.000
1643279467235307008,2022-01-27-10:31:07,10.1.1.3,31,-0.149,-0.149,-0.149,0.000,0.000,0.000
1643279467434056960,2022-01-27-10:31:07,10.1.1.3,28,-0.139,-0.139,-0.139,0.000,0.000,0.000
1643279467634274048,2022-01-27-10:31:07,10.1.1.3,27,-0.129,-0.129,-0.129,0.000,0.000,0.000
1643279467834722048,2022-01-27-10:31:07,10.1.1.3,25,-0.119,-0.119,-0.119,0.000,0.000,0.000
1643279468035382016,2022-01-27-10:31:08,10.1.1.3,23,-0.110,-0.110,-0.110,0.000,0.000,0.000
1643279468239330048,2022-01-27-10:31:08,10.1.1.3,22,-0.100,-0.100,-0.100,0.000,0.000,0.000
1643279468437935104,2022-01-27-10:31:08,10.1.1.3,19,-0.090,-0.090,-0.090,0.000,0.000,0.000
1643279468634747136,2022-01-27-10:31:08,10.1.1.3,15,-0.080,-0.080,-0.080,0.000,0.000,0.000
1643279468856967936,2022-01-27-10:31:08,10.1.1.3,36,-0.069,-0.069,-0.069,0.000,0.000,0.000
1643279469056036864,2022-01-27-10:31:09,10.1.1.3,34,-0.059,-0.059,-0.059,0.000,0.000,0.000
1643279469255557120,2022-01-27-10:31:09,10.1.1.3,29,-0.049,-0.049,-0.049,0.000,0.000,0.000
1643279469457276160,2022-01-27-10:31:09,10.1.1.3,29,-0.040,-0.040,-0.040,0.000,0.000,0.000
1643279469655356928,2022-01-27-10:31:09,10.1.1.3,15,-0.030,-0.030,-0.030,0.000,0.000,0.000
1643279469877001984,2022-01-27-10:31:09,10.1.1.3,35,-0.019,-0.019,-0.019,0.000,0.000,0.000
1643279470075122944,2022-01-27-10:31:10,10.1.1.3,21,-0.010,-0.010,-0.010,0.000,0.000,0.000
1643279470276873984,2022-01-27-10:31:10,10.1.1.3,21,-0.000,-0.000,-0.000,0.000,0.000,0.000
1643279470496344064,2022-01-27-10:31:10,10.1.1.3,40,-0.011,-0.011,-0.011,0.000,0.000,0.000
1643279470677593856,2022-01-27-10:31:10,10.1.1.3,18,-0.020,-0.020,-0.020,0.000,0.000,0.000
1643279470874768896,2022-01-27-10:31:10,10.1.1.3,15,-0.030,-0.030,-0.030,0.000,0.000,0.000
1643279471096162048,2022-01-27-10:31:11,10.1.1.3,32,-0.041,-0.041,-0.041,0.000,0.000,0.000
1643279471297329920,2022-01-27-10:31:11,10.1.1.3,29,-0.051,-0.051,-0.051,0.000,0.000,0.000
1643279471496485120,2022-01-27-10:31:11,10.1.1.3,27,-0.061,-0.061,-0.061,0.000,0.000,0.000
1643279471701797120,2022-01-27-10:31:11,10.1.1.3,27,-0.070,-0.070,-0.070,0.000,0.000,0.000
1643279471896689920,2022-01-27-10:31:11,10.1.1.3,18,-0.080,-0.080,-0.080,0.000,0.000,0.000
1643279472095556096,2022-01-27-10:31:12,10.1.1.3,8,-0.090,-0.090,-0.090,0.000,0.000,0.000
1643279472316091136,2022-01-27-10:31:12,10.1.1.3,27,-0.101,-0.101,-0.101,0.000,0.000,0.000
1643279472516302080,2022-01-27-10:31:12,10.1.1.3,21,-0.110,-0.110,-0.110,0.000,0.000,0.000
1643279472715729920,2022-01-27-10:31:12,10.1.1.3,18,-0.120,-0.120,-0.120,0.000,0.000,0.000
1643279472936982016,2022-01-27-10:31:12,10.1.1.3,32,-0.131,-0.131,-0.131,0.000,0.000,0.000
1643279473136965888,2022-01-27-10:31:13,10.1.1.3,29,-0.141,-0.141,-0.141,0.000,0.000,0.000
1643279473340073216,2022-01-27-10:31:13,10.1.1.3,32,-0.151,-0.151,-0.151,0.000,0.000,0.000
1643279473556941056,2022-01-27-10:31:13,10.1.1.3,37,-0.161,-0.161,-0.161,0.000,0.000,0.000
1643279473759107072,2022-01-27-10:31:13,10.1.1.3,38,-0.171,-0.171,-0.171,0.000,0.000,0.000
1643279473956823040,2022-01-27-10:31:13,10.1.1.3,32,-0.181,-0.181,-0.181,0.000,0.000,0.000
1643279474155844096,2022-01-27-10:31:14,10.1.1.3,25,-0.190,-0.190,-0.190,0.000,0.000,0.000
1643279474356123904,2022-01-27-10:31:14,10.1.1.3,24,-0.200,-0.200,-0.200,0.000,0.000,0.000
1643279474556126208,2022-01-27-10:31:14,10.1.1.3,20,-0.210,-0.210,-0.210,0.000,0.000,0.000
1643279474756012800,2022-01-27-10:31:14,10.1.1.3,19,-0.220,-0.220,-0.220,0.000,0.000,0.000
1643279474976450048,2022-01-27-10:31:14,10.1.1.3,35,-0.231,-0.231,-0.231,0.000,0.000,0.000
1643279475177826816,2022-01-27-10:31:15,10.1.1.3,27,-0.240,-0.240,-0.240,0.000,0.000,0.000
1643279475397699072,2022-01-27-10:31:15,10.1.1.3,31,-0.251,-0.251,-0.251,0.000,0.000,0.000
1643279475595532800,2022-01-27-10:31:15,10.1.1.3,28,-0.260,-0.260,-0.260,0.000,0.000,0.000
1643279475798195968,2022-01-27-10:31:15,10.1.1.3,29,-0.271,-0.271,-0.271,0.000,0.000,0.000
1643279476017144832,2022-01-27-10:31:16,10.1.1.3,41,-0.281,-0.281,-0.281,0.000,0.000,0.000
1643279476199140096,2022-01-27-10:31:16,10.1.1.3,20,-0.290,-0.290,-0.290,0.000,0.000,0.000
1643279476400902144,2022-01-27-10:31:16,10.1.1.3,20,-0.300,-0.300,-0.300,0.000,0.000,0.000
1643279476621624064,2022-01-27-10:31:16,10.1.1.3,26,-0.310,-0.310,-0.310,0.000,0.000,0.000
1643279476837764864,2022-01-27-10:31:16,10.1.1.3,36,-0.321,-0.321,-0.321,0.000,0.000,0.000
1643279477036695040,2022-01-27-10:31:17,10.1.1.3,32,-0.331,-0.331,-0.331,0.000,0.000,0.000
1643279477236697856,2022-01-27-10:31:17,10.1.1.3,30,-0.341,-0.341,-0.341,0.000,0.000,0.000
1643279477435905024,2022-01-27-10:31:17,10.1.1.3,28,-0.351,-0.351,-0.351,0.000,0.000,0.000
1643279477637015040,2022-01-27-10:31:17,10.1.1.3,28,-0.361,-0.361,-0.361,0.000,0.000,0.000
1643279477856496128,2022-01-27-10:31:17,10.1.1.3,45,-0.371,-0.371,-0.371,0.000,0.000,0.000
1643279478039566080,2022-01-27-10:31:18,10.1.1.3,21,-0.380,-0.380,-0.380,0.000,0.000,0.000
1643279478258784000,2022-01-27-10:31:18,10.1.1.3,37,-0.391,-0.391,-0.391,0.000,0.000,0.000
1643279478458516992,2022-01-27-10:31:18,10.1.1.3,34,-0.401,-0.401,-0.401,0.000,0.000,0.000
1643279478655075072,2022-01-27-10:31:18,10.1.1.3,29,-0.411,-0.411,-0.411,0.000,0.000,0.000
1643279478853553152,2022-01-27-10:31:18,10.1.1.3,27,-0.421,-0.421,-0.421,0.000,0.000,0.000
1643279479076101120,2022-01-27-10:31:19,10.1.1.3,46,-0.431,-0.431,-0.431,0.000,0.000,0.000
1643279479278141952,2022-01-27-10:31:19,10.1.1.3,46,-0.441,-0.441,-0.441,0.000,0.000,0.000
1643279479460226048,2022-01-27-10:31:19,10.1.1.3,20,-0.450,-0.450,-0.450,0.000,0.000,0.000
1643279479678185984,2022-01-27-10:31:19,10.1.1.3,37,-0.461,-0.461,-0.461,0.000,0.000,0.000
1643279479877285120,2022-01-27-10:31:19,10.1.1.3,33,-0.471,-0.471,-0.471,0.000,0.000,0.000
1643279480078286848,2022-01-27-10:31:20,10.1.1.3,34,-0.481,-0.481,-0.481,0.000,0.000,0.000
1643279480258982912,2022-01-27-10:31:20,10.1.1.3,11,-0.490,-0.490,-0.490,0.000,0.000,0.000
1643279480480056064,2022-01-27-10:31:20,10.1.1.3,31,-0.479,-0.479,-0.479,0.000,0.000,0.000
1643279480675339008,2022-01-27-10:31:20,10.1.1.3,25,-0.470,-0.470,-0.470,0.000,0.000,0.000
1643279480877751040,2022-01-27-10:31:20,10.1.1.3,26,-0.460,-0.460,-0.460,0.000,0.000,0.000
1643279481095643136,2022-01-27-10:31:21,10.1.1.3,43,-0.449,-0.449,-0.449,0.000,0.000,0.000
1643279481278500096,2022-01-27-10:31:21,10.1.1.3,23,-0.440,-0.440,-0.440,0.000,0.000,0.000
1643279481499099136,2022-01-27-10:31:21,10.1.1.3,42,-0.429,-0.429,-0.429,0.000,0.000,0.000
1643279481675663872,2022-01-27-10:31:21,10.1.1.3,16,-0.420,-0.420,-0.420,0.000,0.000,0.000
1643279481901655040,2022-01-27-10:31:21,10.1.1.3,39,-0.409,-0.409,-0.409,0.000,0.000,0.000
1643279482098126848,2022-01-27-10:31:22,10.1.1.3,32,-0.399,-0.399,-0.399,0.000,0.000,0.000
1643279482300664064,2022-01-27-10:31:22,10.1.1.3,35,-0.389,-0.389,-0.389,0.000,0.000,0.000
1643279482499398912,2022-01-27-10:31:22,10.1.1.3,32,-0.379,-0.379,-0.379,0.000,0.000,0.000
1643279482696954880,2022-01-27-10:31:22,10.1.1.3,28,-0.369,-0.369,-0.369,0.000,0.000,0.000
1643279482895078912,2022-01-27-10:31:22,10.1.1.3,24,-0.359,-0.359,-0.359,0.000,0.000,0.000
1643279483095695104,2022-01-27-10:31:23,10.1.1.3,21,-0.350,-0.350,-0.350,0.000,0.000,0.000
1643279483317931008,2022-01-27-10:31:23,10.1.1.3,42,-0.339,-0.339,-0.339,0.000,0.000,0.000
1643279483516283904,2022-01-27-10:31:23,10.1.1.3,39,-0.329,-0.329,-0.329,0.000,0.000,0.000
1643279483697193984,2022-01-27-10:31:23,10.1.1.3,18,-0.320,-0.320,-0.320,0.000,0.000,0.000
1643279483916333824,2022-01-27-10:31:23,10.1.1.3,34,-0.309,-0.309,-0.309,0.000,0.000,0.000
1643279484114896896,2022-01-27-10:31:24,10.1.1.3,30,-0.299,-0.299,-0.299,0.000,0.000,0.000
1643279484316889088,2022-01-27-10:31:24,10.1.1.3,30,-0.289,-0.289,-0.289,0.000,0.000,0.000
1643279484515350016,2022-01-27-10:31:24,10.1.1.3,27,-0.279,-0.279,-0.279,0.000,0.000,0.000
1643279484715244032,2022-01-27-10:31:24,10.1.1.3,26,-0.269,-0.269,-0.269,0.000,0.000,0.000
1643279484936472064,2022-01-27-10:31:24,10.1.1.3,44,-0.259,-0.259,-0.259,0.000,0.000,0.000
1643279485135055104,2022-01-27-10:31:25,10.1.1.3,37,-0.249,-0.249,-0.249,0.000,0.000,0.000
1643279485316236032,2022-01-27-10:31:25,10.1.1.3,15,-0.240,-0.240,-0.240,0.000,0.000,0.000
1643279485534953984,2022-01-27-10:31:25,10.1.1.3,33,-0.229,-0.229,-0.229,0.000,0.000,0.000
1643279485737201920,2022-01-27-10:31:25,10.1.1.3,34,-0.219,-0.219,-0.219,0.000,0.000,0.000
1643279485936001024,2022-01-27-10:31:25,10.1.1.3,29,-0.209,-0.209,-0.209,0.000,0.000,0.000
1643279486136612864,2022-01-27-10:31:26,10.1.1.3,30,-0.199,-0.199,-0.199,0.000,0.000,0.000
1643279486358983936,2022-01-27-10:31:26,10.1.1.3,40,-0.189,-0.189,-0.189,0.000,0.000,0.000
1643279486556219136,2022-01-27-10:31:26,10.1.1.3,34,-0.179,-0.179,-0.179,0.000,0.000,0.000
1643279486754145024,2022-01-27-10:31:26,10.1.1.3,26,-0.169,-0.169,-0.169,0.000,0.000,0.000
1643279486957067008,2022-01-27-10:31:26,10.1.1.3,21,-0.160,-0.160,-0.160,0.000,0.000,0.000
1643279487176219904,2022-01-27-10:31:27,10.1.1.3,38,-0.149,-0.149,-0.149,0.000,0.000,0.000
1643279487376417024,2022-01-27-10:31:27,10.1.1.3,32,-0.139,-0.139,-0.139,0.000,0.000,0.000
1643279487578972928,2022-01-27-10:31:27,10.1.1.3,31,-0.129,-0.129,-0.129,0.000,0.000,0.000
1643279487775890176,2022-01-27-10:31:27,10.1.1.3,24,-0.120,-0.120,-0.120,0.000,0.000,0.000
1643279487977582848,2022-01-27-10:31:27,10.1.1.3,25,-0.110,-0.110,-0.110,0.000,0.000,0.000
1643279488179522048,2022-01-27-10:31:28,10.1.1.3,14,-0.100,-0.100,-0.100,0.000,0.000,0.000
1643279488398249984,2022-01-27-10:31:28,10.1.1.3,30,-0.089,-0.089,-0.089,0.000,0.000,0.000
1643279488597955840,2022-01-27-10:31:28,10.1.1.3,19,-0.080,-0.080,-0.080,0.000,0.000,0.000
1643279488816452096,2022-01-27-10:31:28,10.1.1.3,36,-0.069,-0.069,-0.069,0.000,0.000,0.000
1643279489005361152,2022-01-27-10:31:29,10.1.1.3,25,-0.060,-0.060,-0.060,0.000,0.000,0.000
1643279489214513920,2022-01-27-10:31:29,10.1.1.3,25,-0.049,-0.049,-0.049,0.000,0.000,0.000
1643279489417740032,2022-01-27-10:31:29,10.1.1.3,27,-0.039,-0.039,-0.039,0.000,0.000,0.000
1643279489623023104,2022-01-27-10:31:29,10.1.1.3,32,-0.029,-0.029,-0.029,0.000,0.000,0.000
1643279489836008192,2022-01-27-10:31:29,10.1.1.3,42,-0.019,-0.019,-0.019,0.000,0.000,0.000
1643279490036329984,2022-01-27-10:31:30,10.1.1.3,37,-0.009,-0.009,-0.009,0.000,0.000,0.000
1643279490237597952,2022-01-27-10:31:30,10.1.1.3,29,-0.001,-0.001,-0.001,0.000,0.000,0.000
1643279490457400064,2022-01-27-10:31:30,10.1.1.3,38,-0.011,-0.011,-0.011,0.000,0.000,0.000
1643279490636616960,2022-01-27-10:31:30,10.1.1.3,15,-0.020,-0.020,-0.020,0.000,0.000,0.000
1643279490856600064,2022-01-27-10:31:30,10.1.1.3,34,-0.031,-0.031,-0.031,0.000,0.000,0.000
1643279491056050944,2022-01-27-10:31:31,10.1.1.3,30,-0.041,-0.041,-0.041,0.000,0.000,0.000
1643279491253931008,2022-01-27-10:31:31,10.1.1.3,26,-0.051,-0.051,-0.051,0.000,0.000,0.000
1643279491454279936,2022-01-27-10:31:31,10.1.1.3,24,-0.061,-0.061,-0.061,0.000,0.000,0.000
1643279491655607040,2022-01-27-10:31:31,10.1.1.3,23,-0.070,-0.070,-0.070,0.000,0.000,0.000
1643279491854322944,2022-01-27-10:31:31,10.1.1.3,15,-0.080,-0.080,-0.080,0.000,0.000,0.000
1643279492054780928,2022-01-27-10:31:32,10.1.1.3,14,-0.090,-0.090,-0.090,0.000,0.000,0.000
1643279492255052032,2022-01-27-10:31:32,10.1.1.3,12,-0.100,-0.100,-0.100,0.000,0.000,0.000
1643279492477184000,2022-01-27-10:31:32,10.1.1.3,32,-0.111,-0.111,-0.111,0.000,0.000,0.000
1643279492675819008,2022-01-27-10:31:32,10.1.1.3,29,-0.121,-0.121,-0.121,0.000,0.000,0.000
1643279492877702912,2022-01-27-10:31:32,10.1.1.3,28,-0.131,-0.131,-0.131,0.000,0.000,0.000
1643279493078814976,2022-01-27-10:31:33,10.1.1.3,22,-0.140,-0.140,-0.140,0.000,0.000,0.000
1643279493296515072,2022-01-27-10:31:33,10.1.1.3,37,-0.151,-0.151,-0.151,0.000,0.000,0.000
1643279493498656000,2022-01-27-10:31:33,10.1.1.3,39,-0.161,-0.161,-0.161,0.000,0.000,0.000
1643279493697936128,2022-01-27-10:31:33,10.1.1.3,36,-0.171,-0.171,-0.171,0.000,0.000,0.000
1643279493896696064,2022-01-27-10:31:33,10.1.1.3,31,-0.181,-0.181,-0.181,0.000,0.000,0.000
1643279494100593152,2022-01-27-10:31:34,10.1.1.3,32,-0.191,-0.191,-0.191,0.000,0.000,0.000
1643279494296402944,2022-01-27-10:31:34,10.1.1.3,16,-0.200,-0.200,-0.200,0.000,0.000,0.000
1643279494522376960,2022-01-27-10:31:34,10.1.1.3,38,-0.211,-0.211,-0.211,0.000,0.000,0.000
1643279494716912128,2022-01-27-10:31:34,10.1.1.3,29,-0.221,-0.221,-0.221,0.000,0.000,0.000
1643279494921196032,2022-01-27-10:31:34,10.1.1.3,30,-0.231,-0.231,-0.231,0.000,0.000,0.000
1643279495141634048,2022-01-27-10:31:35,10.1.1.3,42,-0.241,-0.241,-0.241,0.000,0.000,0.000
1643279495337256960,2022-01-27-10:31:35,10.1.1.3,36,-0.251,-0.251,-0.251,0.000,0.000,0.000
1643279495540112896,2022-01-27-10:31:35,10.1.1.3,31,-0.261,-0.261,-0.261,0.000,0.000,0.000
1643279495736792064,2022-01-27-10:31:35,10.1.1.3,26,-0.270,-0.270,-0.270,0.000,0.000,0.000
1643279495961308928,2022-01-27-10:31:35,10.1.1.3,46,-0.281,-0.281,-0.281,0.000,0.000,0.000
1643279496159943936,2022-01-27-10:31:36,10.1.1.3,30,-0.291,-0.291,-0.291,0.000,0.000,0.000
1643279496377636864,2022-01-27-10:31:36,10.1.1.3,43,-0.301,-0.301,-0.301,0.000,0.000,0.000
1643279496578792960,2022-01-27-10:31:36,10.1.1.3,42,-0.311,-0.311,-0.311,0.000,0.000,0.000
1643279496760677120,2022-01-27-10:31:36,10.1.1.3,22,-0.320,-0.320,-0.320,0.000,0.000,0.000
1643279496977658112,2022-01-27-10:31:36,10.1.1.3,36,-0.331,-0.331,-0.331,0.000,0.000,0.000
1643279497177583872,2022-01-27-10:31:37,10.1.1.3,35,-0.341,-0.341,-0.341,0.000,0.000,0.000
1643279497380353024,2022-01-27-10:31:37,10.1.1.3,35,-0.351,-0.351,-0.351,0.000,0.000,0.000
1643279497580930048,2022-01-27-10:31:37,10.1.1.3,31,-0.361,-0.361,-0.361,0.000,0.000,0.000
1643279497777260032,2022-01-27-10:31:37,10.1.1.3,28,-0.370,-0.370,-0.370,0.000,0.000,0.000
1643279497981317888,2022-01-27-10:31:37,10.1.1.3,30,-0.381,-0.381,-0.381,0.000,0.000,0.000
1643279498178960128,2022-01-27-10:31:38,10.1.1.3,22,-0.390,-0.390,-0.390,0.000,0.000,0.000
1643279498395969024,2022-01-27-10:31:38,10.1.1.3,34,-0.401,-0.401,-0.401,0.000,0.000,0.000
1643279498595802112,2022-01-27-10:31:38,10.1.1.3,30,-0.410,-0.410,-0.410,0.000,0.000,0.000
1643279498796616960,2022-01-27-10:31:38,10.1.1.3,29,-0.421,-0.421,-0.421,0.000,0.000,0.000
1643279498996873984,2022-01-27-10:31:38,10.1.1.3,28,-0.431,-0.431,-0.431,0.000,0.000,0.000
1643279499216364032,2022-01-27-10:31:39,10.1.1.3,45,-0.441,-0.441,-0.441,0.000,0.000,0.000
1643279499416187136,2022-01-27-10:31:39,10.1.1.3,43,-0.451,-0.451,-0.451,0.000,0.000,0.000
1643279499616049920,2022-01-27-10:31:39,10.1.1.3,41,-0.461,-0.461,-0.461,0.000,0.000,0.000
1643279499814977024,2022-01-27-10:31:39,10.1.1.3,37,-0.471,-0.471,-0.471,0.000,0.000,0.000
1643279500021857024,2022-01-27-10:31:40,10.1.1.3,41,-0.481,-0.481,-0.481,0.000,0.000,0.000
1643279500216367872,2022-01-27-10:31:40,10.1.1.3,28,-0.489,-0.489,-0.489,0.000,0.000,0.000
1643279500438075136,2022-01-27-10:31:40,10.1.1.3,47,-0.479,-0.479,-0.479,0.000,0.000,0.000
1643279500620187904,2022-01-27-10:31:40,10.1.1.3,25,-0.470,-0.470,-0.470,0.000,0.000,0.000
1643279500804316160,2022-01-27-10:31:40,10.1.1.3,-7,-0.461,-0.461,-0.461,0.000,0.000,0.000
1643279501037654016,2022-01-27-10:31:41,10.1.1.3,34,-0.449,-0.449,-0.449,0.000,0.000,0.000
1643279501236388096,2022-01-27-10:31:41,10.1.1.3,32,-0.439,-0.439,-0.439,0.000,0.000,0.000
1643279501460333056,2022-01-27-10:31:41,10.1.1.3,43,-0.429,-0.429,-0.429,0.000,0.000,0.000
1643279501635947008,2022-01-27-10:31:41,10.1.1.3,18,-0.420,-0.420,-0.420,0.000,0.000,0.000
1643279501858669056,2022-01-27-10:31:41,10.1.1.3,40,-0.409,-0.409,-0.409,0.000,0.000,0.000
1643279502035403008,2022-01-27-10:31:42,10.1.1.3,15,-0.400,-0.400,-0.400,0.000,0.000,0.000
1643279502255924992,2022-01-27-10:31:42,10.1.1.3,33,-0.389,-0.389,-0.389,0.000,0.000,0.000
1643279502458400000,2022-01-27-10:31:42,10.1.1.3,33,-0.379,-0.379,-0.379,0.000,0.000,0.000
1643279502655479040,2022-01-27-10:31:42,10.1.1.3,29,-0.369,-0.369,-0.369,0.000,0.000,0.000
1643279502856280064,2022-01-27-10:31:42,10.1.1.3,28,-0.359,-0.359,-0.359,0.000,0.000,0.000
1643279503057143040,2022-01-27-10:31:43,10.1.1.3,28,-0.349,-0.349,-0.349,0.000,0.000,0.000
1643279503255009792,2022-01-27-10:31:43,10.1.1.3,20,-0.340,-0.340,-0.340,0.000,0.000,0.000
1643279503475817984,2022-01-27-10:31:43,10.1.1.3,38,-0.329,-0.329,-0.329,0.000,0.000,0.000
1643279503655222016,2022-01-27-10:31:43,10.1.1.3,16,-0.320,-0.320,-0.320,0.000,0.000,0.000
1643279503881037056,2022-01-27-10:31:43,10.1.1.3,40,-0.309,-0.309,-0.309,0.000,0.000,0.000
1643279504075671040,2022-01-27-10:31:44,10.1.1.3,30,-0.299,-0.299,-0.299,0.000,0.000,0.000
1643279504275699968,2022-01-27-10:31:44,10.1.1.3,25,-0.289,-0.289,-0.289,0.000,0.000,0.000
1643279504477639936,2022-01-27-10:31:44,10.1.1.3,19,-0.280,-0.280,-0.280,0.000,0.000,0.000
1643279504696204032,2022-01-27-10:31:44,10.1.1.3,36,-0.269,-0.269,-0.269,0.000,0.000,0.000
1643279504903059968,2022-01-27-10:31:44,10.1.1.3,41,-0.259,-0.259,-0.259,0.000,0.000,0.000
1643279505101286912,2022-01-27-10:31:45,10.1.1.3,40,-0.249,-0.249,-0.249,0.000,0.000,0.000
1643279505297182976,2022-01-27-10:31:45,10.1.1.3,33,-0.239,-0.239,-0.239,0.000,0.000,0.000
1643279505497405952,2022-01-27-10:31:45,10.1.1.3,29,-0.229,-0.229,-0.229,0.000,0.000,0.000
1643279505721082880,2022-01-27-10:31:45,10.1.1.3,49,-0.219,-0.219,-0.219,0.000,0.000,0.000
1643279505897325056,2022-01-27-10:31:45,10.1.1.3,25,-0.210,-0.210,-0.210,0.000,0.000,0.000
1643279506118673920,2022-01-27-10:31:46,10.1.1.3,45,-0.199,-0.199,-0.199,0.000,0.000,0.000
1643279506296904960,2022-01-27-10:31:46,10.1.1.3,22,-0.190,-0.190,-0.190,0.000,0.000,0.000
1643279506495524864,2022-01-27-10:31:46,10.1.1.3,20,-0.180,-0.180,-0.180,0.000,0.000,0.000
1643279506695388928,2022-01-27-10:31:46,10.1.1.3,19,-0.170,-0.170,-0.170,0.000,0.000,0.000
1643279506917960960,2022-01-27-10:31:46,10.1.1.3,40,-0.159,-0.159,-0.159,0.000,0.000,0.000
1643279507120204032,2022-01-27-10:31:47,10.1.1.3,40,-0.149,-0.149,-0.149,0.000,0.000,0.000
1643279507318424064,2022-01-27-10:31:47,10.1.1.3,37,-0.139,-0.139,-0.139,0.000,0.000,0.000
1643279507521377024,2022-01-27-10:31:47,10.1.1.3,39,-0.129,-0.129,-0.129,0.000,0.000,0.000
1643279507717263104,2022-01-27-10:31:47,10.1.1.3,32,-0.119,-0.119,-0.119,0.000,0.000,0.000
1643279507915323136,2022-01-27-10:31:47,10.1.1.3,26,-0.109,-0.109,-0.109,0.000,0.000,0.000
1643279508097108992,2022-01-27-10:31:48,10.1.1.3,-1,-0.100,-0.100,-0.100,0.000,0.000,0.000
1643279508314385920,2022-01-27-10:31:48,10.1.1.3,17,-0.090,-0.090,-0.090,0.000,0.000,0.000
1643279508517092096,2022-01-27-10:31:48,10.1.1.3,18,-0.080,-0.080,-0.080,0.000,0.000,0.000
1643279508735646976,2022-01-27-10:31:48,10.1.1.3,35,-0.069,-0.069,-0.069,0.000,0.000,0.000
1643279508935708160,2022-01-27-10:31:48,10.1.1.3,32,-0.059,-0.059,-0.059,0.000,0.000,0.000
1643279509139437056,2022-01-27-10:31:49,10.1.1.3,35,-0.049,-0.049,-0.049,0.000,0.000,0.000
1643279509336018176,2022-01-27-10:31:49,10.1.1.3,29,-0.040,-0.040,-0.040,0.000,0.000,0.000
1643279509562532864,2022-01-27-10:31:49,10.1.1.3,49,-0.029,-0.029,-0.029,0.000,0.000,0.000
1643279509740953856,2022-01-27-10:31:49,10.1.1.3,24,-0.020,-0.020,-0.020,0.000,0.000,0.000
1643279509958249216,2022-01-27-10:31:49,10.1.1.3,41,-0.009,-0.009,-0.009,0.000,0.000,0.000
1643279510138909952,2022-01-27-10:31:50,10.1.1.3,19,-0.000,-0.000,-0.000,0.000,0.000,0.000
1643279510343074048,2022-01-27-10:31:50,10.1.1.3,23,-0.010,-0.010,-0.010,0.000,0.000,0.000
1643279510555444992,2022-01-27-10:31:50,10.1.1.3,34,-0.021,-0.021,-0.021,0.000,0.000,0.000
1643279510755698944,2022-01-27-10:31:50,10.1.1.3,31,-0.031,-0.031,-0.031,0.000,0.000,0.000
1643279510956891904,2022-01-27-10:31:50,10.1.1.3,31,-0.041,-0.041,-0.041,0.000,0.000,0.000
1643279511176372992,2022-01-27-10:31:51,10.1.1.3,44,-0.051,-0.051,-0.051,0.000,0.000,0.000
1643279511355845888,2022-01-27-10:31:51,10.1.1.3,24,-0.060,-0.060,-0.060,0.000,0.000,0.000
1643279511556562944,2022-01-27-10:31:51,10.1.1.3,20,-0.070,-0.070,-0.070,0.000,0.000,0.000
1643279511756709120,2022-01-27-10:31:51,10.1.1.3,19,-0.080,-0.080,-0.080,0.000,0.000,0.000
1643279511961767936,2022-01-27-10:31:51,10.1.1.3,24,-0.090,-0.090,-0.090,0.000,0.000,0.000
1643279512161905152,2022-01-27-10:31:52,10.1.1.3,22,-0.100,-0.100,-0.100,0.000,0.000,0.000
1643279512357191936,2022-01-27-10:31:52,10.1.1.3,17,-0.110,-0.110,-0.110,0.000,0.000,0.000
1643279512557900800,2022-01-27-10:31:52,10.1.1.3,15,-0.120,-0.120,-0.120,0.000,0.000,0.000
1643279512779436032,2022-01-27-10:31:52,10.1.1.3,36,-0.131,-0.131,-0.131,0.000,0.000,0.000
1643279512981700864,2022-01-27-10:31:52,10.1.1.3,38,-0.141,-0.141,-0.141,0.000,0.000,0.000
1643279513177067008,2022-01-27-10:31:53,10.1.1.3,31,-0.150,-0.150,-0.150,0.000,0.000,0.000
1643279513376167168,2022-01-27-10:31:53,10.1.1.3,29,-0.161,-0.161,-0.161,0.000,0.000,0.000
1643279513577363968,2022-01-27-10:31:53,10.1.1.3,28,-0.171,-0.171,-0.171,0.000,0.000,0.000
1643279513782057984,2022-01-27-10:31:53,10.1.1.3,28,-0.180,-0.180,-0.180,0.000,0.000,0.000
1643279513982096896,2022-01-27-10:31:53,10.1.1.3,26,-0.190,-0.190,-0.190,0.000,0.000,0.000
1643279514198221056,2022-01-27-10:31:54,10.1.1.3,35,-0.201,-0.201,-0.201,0.000,0.000,0.000
1643279514397979904,2022-01-27-10:31:54,10.1.1.3,30,-0.211,-0.211,-0.211,0.000,0.000,0.000
1643279514596707072,2022-01-27-10:31:54,10.1.1.3,29,-0.221,-0.221,-0.221,0.000,0.000,0.000
1643279514799024128,2022-01-27-10:31:54,10.1.1.3,30,-0.231,-0.231,-0.231,0.000,0.000,0.000
1643279515000997120,2022-01-27-10:31:55,10.1.1.3,31,-0.241,-0.241,-0.241,0.000,0.000,0.000
1643279515202982912,2022-01-27-10:31:55,10.1.1.3,32,-0.251,-0.251,-0.251,0.000,0.000,0.000
1643279515427046912,2022-01-27-10:31:55,10.1.1.3,54,-0.261,-0.261,-0.261,0.000,0.000,0.000
1643279515619392000,2022-01-27-10:31:55,10.1.1.3,44,-0.271,-0.271,-0.271,0.000,0.000,0.000
1643279515823581952,2022-01-27-10:31:55,10.1.1.3,46,-0.281,-0.281,-0.281,0.000,0.000,0.000
1643279516000033024,2022-01-27-10:31:55,10.1.1.3,22,-0.290,-0.290,-0.290,0.000,0.000,0.000
1643279516217310976,2022-01-27-10:31:56,10.1.1.3,38,-0.301,-0.301,-0.301,0.000,0.000,0.000
1643279516416121856,2022-01-27-10:31:56,10.1.1.3,35,-0.311,-0.311,-0.311,0.000,0.000,0.000
1643279516615547904,2022-01-27-10:31:56,10.1.1.3,34,-0.321,-0.321,-0.321,0.000,0.000,0.000
1643279516819130880,2022-01-27-10:31:56,10.1.1.3,36,-0.331,-0.331,-0.331,0.000,0.000,0.000
1643279517018948096,2022-01-27-10:31:57,10.1.1.3,31,-0.341,-0.341,-0.341,0.000,0.000,0.000
1643279517215357184,2022-01-27-10:31:57,10.1.1.3,30,-0.351,-0.351,-0.351,0.000,0.000,0.000
1643279517415842048,2022-01-27-10:31:57,10.1.1.3,30,-0.361,-0.361,-0.361,0.000,0.000,0.000
1643279517617638144,2022-01-27-10:31:57,10.1.1.3,28,-0.371,-0.371,-0.371,0.000,0.000,0.000
1643279517816474880,2022-01-27-10:31:57,10.1.1.3,24,-0.380,-0.380,-0.380,0.000,0.000,0.000
1643279518019020032,2022-01-27-10:31:58,10.1.1.3,21,-0.390,-0.390,-0.390,0.000,0.000,0.000
1643279518237238784,2022-01-27-10:31:58,10.1.1.3,38,-0.401,-0.401,-0.401,0.000,0.000,0.000
1643279518441111040,2022-01-27-10:31:58,10.1.1.3,41,-0.411,-0.411,-0.411,0.000,0.000,0.000
1643279518637708032,2022-01-27-10:31:58,10.1.1.3,37,-0.421,-0.421,-0.421,0.000,0.000,0.000
1643279518836747776,2022-01-27-10:31:58,10.1.1.3,34,-0.431,-0.431,-0.431,0.000,0.000,0.000
1643279519036179968,2022-01-27-10:31:59,10.1.1.3,29,-0.441,-0.441,-0.441,0.000,0.000,0.000
1643279519236384000,2022-01-27-10:31:59,10.1.1.3,27,-0.451,-0.451,-0.451,0.000,0.000,0.000
1643279519454482944,2022-01-27-10:31:59,10.1.1.3,38,-0.461,-0.461,-0.461,0.000,0.000,0.000
1643279519655684864,2022-01-27-10:31:59,10.1.1.3,37,-0.471,-0.471,-0.471,0.000,0.000,0.000
1643279519856761856,2022-01-27-10:31:59,10.1.1.3,37,-0.481,-0.481,-0.481,0.000,0.000,0.000
1643279520055747072,2022-01-27-10:32:00,10.1.1.3,34,-0.489,-0.489,-0.489,0.000,0.000,0.000
1643279520255981056,2022-01-27-10:32:00,10.1.1.3,29,-0.479,-0.479,-0.479,0.000,0.000,0.000
1643279520459255808,2022-01-27-10:32:00,10.1.1.3,32,-0.469,-0.469,-0.469,0.000,0.000,0.000
1643279520660594944,2022-01-27-10:32:00,10.1.1.3,28,-0.460,-0.460,-0.460,0.000,0.000,0.000
1643279520876276992,2022-01-27-10:32:00,10.1.1.3,42,-0.449,-0.449,-0.449,0.000,0.000,0.000
1643279521076158976,2022-01-27-10:32:01,10.1.1.3,38,-0.439,-0.439,-0.439,0.000,0.000,0.000
1643279521274588160,2022-01-27-10:32:01,10.1.1.3,33,-0.429,-0.429,-0.429,0.000,0.000,0.000
1643279521475259904,2022-01-27-10:32:01,10.1.1.3,22,-0.420,-0.420,-0.420,0.000,0.000,0.000
1643279521696197888,2022-01-27-10:32:01,10.1.1.3,41,-0.409,-0.409,-0.409,0.000,0.000,0.000
1643279521895858176,2022-01-27-10:32:01,10.1.1.3,38,-0.399,-0.399,-0.399,0.000,0.000,0.000
1643279522099111936,2022-01-27-10:32:02,10.1.1.3,39,-0.389,-0.389,-0.389,0.000,0.000,0.000
1643279522296143104,2022-01-27-10:32:02,10.1.1.3,34,-0.379,-0.379,-0.379,0.000,0.000,0.000
1643279522494929920,2022-01-27-10:32:02,10.1.1.3,32,-0.369,-0.369,-0.369,0.000,0.000,0.000
1643279522702276864,2022-01-27-10:32:02,10.1.1.3,33,-0.359,-0.359,-0.359,0.000,0.000,0.000
1643279522898347008,2022-01-27-10:32:02,10.1.1.3,30,-0.349,-0.349,-0.349,0.000,0.000,0.000
1643279523119090176,2022-01-27-10:32:03,10.1.1.3,45,-0.339,-0.339,-0.339,0.000,0.000,0.000
1643279523319109888,2022-01-27-10:32:03,10.1.1.3,39,-0.329,-0.329,-0.329,0.000,0.000,0.000
1643279523518168832,2022-01-27-10:32:03,10.1.1.3,33,-0.319,-0.319,-0.319,0.000,0.000,0.000
1643279523717057024,2022-01-27-10:32:03,10.1.1.3,31,-0.309,-0.309,-0.309,0.000,0.000,0.000
1643279523913945856,2022-01-27-10:32:03,10.1.1.3,27,-0.299,-0.299,-0.299,0.000,0.000,0.000
1643279524128442880,2022-01-27-10:32:04,10.1.1.3,41,-0.289,-0.289,-0.289,0.000,0.000,0.000
1643279524337827072,2022-01-27-10:32:04,10.1.1.3,40,-0.279,-0.279,-0.279,0.000,0.000,0.000
1643279524539185920,2022-01-27-10:32:04,10.1.1.3,35,-0.269,-0.269,-0.269,0.000,0.000,0.000
1643279524739206912,2022-01-27-10:32:04,10.1.1.3,30,-0.259,-0.259,-0.259,0.000,0.000,0.000
1643279524954279936,2022-01-27-10:32:04,10.1.1.3,41,-0.249,-0.249,-0.249,0.000,0.000,0.000
1643279525135554048,2022-01-27-10:32:05,10.1.1.3,19,-0.240,-0.240,-0.240,0.000,0.000,0.000
1643279525335910144,2022-01-27-10:32:05,10.1.1.3,18,-0.230,-0.230,-0.230,0.000,0.000,0.000
1643279525533790208,2022-01-27-10:32:05,10.1.1.3,13,-0.220,-0.220,-0.220,0.000,0.000,0.000
1643279525754126080,2022-01-27-10:32:05,10.1.1.3,32,-0.209,-0.209,-0.209,0.000,0.000,0.000
1643279525954214144,2022-01-27-10:32:05,10.1.1.3,28,-0.199,-0.199,-0.199,0.000,0.000,0.000
1643279526154124032,2022-01-27-10:32:06,10.1.1.3,26,-0.189,-0.189,-0.189,0.000,0.000,0.000
1643279526355803904,2022-01-27-10:32:06,10.1.1.3,24,-0.179,-0.179,-0.179,0.000,0.000,0.000
1643279526554972928,2022-01-27-10:32:06,10.1.1.3,19,-0.170,-0.170,-0.170,0.000,0.000,0.000
1643279526755023872,2022-01-27-10:32:06,10.1.1.3,17,-0.160,-0.160,-0.160,0.000,0.000,0.000
1643279526954433792,2022-01-27-10:32:06,10.1.1.3,16,-0.150,-0.150,-0.150,0.000,0.000,0.000
1643279527176304128,2022-01-27-10:32:07,10.1.1.3,35,-0.139,-0.139,-0.139,0.000,0.000,0.000
1643279527361828096,2022-01-27-10:32:07,10.1.1.3,19,-0.130,-0.130,-0.130,0.000,0.000,0.000
1643279527575575040,2022-01-27-10:32:07,10.1.1.3,29,-0.119,-0.119,-0.119,0.000,0.000,0.000
1643279527775336960,2022-01-27-10:32:07,10.1.1.3,27,-0.109,-0.109,-0.109,0.000,0.000,0.000
1643279527977477120,2022-01-27-10:32:07,10.1.1.3,28,-0.099,-0.099,-0.099,0.000,0.000,0.000
1643279528177192960,2022-01-27-10:32:08,10.1.1.3,15,-0.090,-0.090,-0.090,0.000,0.000,0.000
1643279528400898816,2022-01-27-10:32:08,10.1.1.3,37,-0.079,-0.079,-0.079,0.000,0.000,0.000
1643279528599401984,2022-01-27-10:32:08,10.1.1.3,34,-0.069,-0.069,-0.069,0.000,0.000,0.000
1643279528797988864,2022-01-27-10:32:08,10.1.1.3,31,-0.059,-0.059,-0.059,0.000,0.000,0.000
1643279529000200960,2022-01-27-10:32:08,10.1.1.3,31,-0.049,-0.049,-0.049,0.000,0.000,0.000
1643279529200495872,2022-01-27-10:32:09,10.1.1.3,30,-0.040,-0.040,-0.040,0.000,0.000,0.000
1643279529398365952,2022-01-27-10:32:09,10.1.1.3,23,-0.030,-0.030,-0.030,0.000,0.000,0.000
1643279529597870080,2022-01-27-10:32:09,10.1.1.3,19,-0.020,-0.020,-0.020,0.000,0.000,0.000
1643279529821060864,2022-01-27-10:32:09,10.1.1.3,37,-0.009,-0.009,-0.009,0.000,0.000,0.000
1643279530001063168,2022-01-27-10:32:10,10.1.1.3,13,-0.000,-0.000,-0.000,0.000,0.000,0.000
1643279530217083904,2022-01-27-10:32:10,10.1.1.3,25,-0.010,-0.010,-0.010,0.000,0.000,0.000
1643279530437243904,2022-01-27-10:32:10,10.1.1.3,38,-0.021,-0.021,-0.021,0.000,0.000,0.000
1643279530638248960,2022-01-27-10:32:10,10.1.1.3,36,-0.031,-0.031,-0.031,0.000,0.000,0.000
1643279530836915968,2022-01-27-10:32:10,10.1.1.3,32,-0.041,-0.041,-0.041,0.000,0.000,0.000
1643279531035721984,2022-01-27-10:32:11,10.1.1.3,29,-0.051,-0.051,-0.051,0.000,0.000,0.000
1643279531235779072,2022-01-27-10:32:11,10.1.1.3,28,-0.061,-0.061,-0.061,0.000,0.000,0.000
1643279531436704000,2022-01-27-10:32:11,10.1.1.3,27,-0.071,-0.071,-0.071,0.000,0.000,0.000
1643279531636182016,2022-01-27-10:32:11,10.1.1.3,19,-0.080,-0.080,-0.080,0.000,0.000,0.000
1643279531841104128,2022-01-27-10:32:11,10.1.1.3,23,-0.090,-0.090,-0.090,0.000,0.000,0.000
1643279532035470848,2022-01-27-10:32:12,10.1.1.3,13,-0.100,-0.100,-0.100,0.000,0.000,0.000
1643279532257100032,2022-01-27-10:32:12,10.1.1.3,32,-0.111,-0.111,-0.111,0.000,0.000,0.000
1643279532456259072,2022-01-27-10:32:12,10.1.1.3,24,-0.120,-0.120,-0.120,0.000,0.000,0.000
1643279532657381120,2022-01-27-10:32:12,10.1.1.3,22,-0.130,-0.130,-0.130,0.000,0.000,0.000
1643279532876143872,2022-01-27-10:32:12,10.1.1.3,38,-0.141,-0.141,-0.141,0.000,0.000,0.000
1643279533078857984,2022-01-27-10:32:13,10.1.1.3,34,-0.151,-0.151,-0.151,0.000,0.000,0.000
1643279533278918144,2022-01-27-10:32:13,10.1.1.3,27,-0.160,-0.160,-0.160,0.000,0.000,0.000
1643279533480235008,2022-01-27-10:32:13,10.1.1.3,24,-0.170,-0.170,-0.170,0.000,0.000,0.000
1643279533696814080,2022-01-27-10:32:13,10.1.1.3,39,-0.181,-0.181,-0.181,0.000,0.000,0.000
1643279533877337088,2022-01-27-10:32:13,10.1.1.3,19,-0.190,-0.190,-0.190,0.000,0.000,0.000
1643279534100860160,2022-01-27-10:32:14,10.1.1.3,39,-0.201,-0.201,-0.201,0.000,0.000,0.000
1643279534296493056,2022-01-27-10:32:14,10.1.1.3,33,-0.211,-0.211,-0.211,0.000,0.000,0.000
1643279534501476096,2022-01-27-10:32:14,10.1.1.3,37,-0.221,-0.221,-0.221,0.000,0.000,0.000
1643279534702275072,2022-01-27-10:32:14,10.1.1.3,34,-0.231,-0.231,-0.231,0.000,0.000,0.000
1643279534903592960,2022-01-27-10:32:14,10.1.1.3,34,-0.241,-0.241,-0.241,0.000,0.000,0.000
1643279535097436928,2022-01-27-10:32:15,10.1.1.3,27,-0.251,-0.251,-0.251,0.000,0.000,0.000
1643279535318661888,2022-01-27-10:32:15,10.1.1.3,42,-0.261,-0.261,-0.261,0.000,0.000,0.000
1643279535496887808,2022-01-27-10:32:15,10.1.1.3,16,-0.270,-0.270,-0.270,0.000,0.000,0.000
1643279535715488000,2022-01-27-10:32:15,10.1.1.3,33,-0.281,-0.281,-0.281,0.000,0.000,0.000
1643279535914310912,2022-01-27-10:32:15,10.1.1.3,31,-0.291,-0.291,-0.291,0.000,0.000,0.000
1643279536115761920,2022-01-27-10:32:16,10.1.1.3,31,-0.301,-0.301,-0.301,0.000,0.000,0.000
1643279536316493056,2022-01-27-10:32:16,10.1.1.3,29,-0.311,-0.311,-0.311,0.000,0.000,0.000
1643279536514344960,2022-01-27-10:32:16,10.1.1.3,26,-0.321,-0.321,-0.321,0.000,0.000,0.000
1643279536714958848,2022-01-27-10:32:16,10.1.1.3,25,-0.331,-0.331,-0.331,0.000,0.000,0.000
1643279536937452032,2022-01-27-10:32:16,10.1.1.3,43,-0.341,-0.341,-0.341,0.000,0.000,0.000
1643279537138176000,2022-01-27-10:32:17,10.1.1.3,42,-0.351,-0.351,-0.351,0.000,0.000,0.000
1643279537322024960,2022-01-27-10:32:17,10.1.1.3,22,-0.360,-0.360,-0.360,0.000,0.000,0.000
1643279537539331840,2022-01-27-10:32:17,10.1.1.3,38,-0.371,-0.371,-0.371,0.000,0.000,0.000
1643279537736787968,2022-01-27-10:32:17,10.1.1.3,32,-0.381,-0.381,-0.381,0.000,0.000,0.000
1643279537937987072,2022-01-27-10:32:17,10.1.1.3,31,-0.391,-0.391,-0.391,0.000,0.000,0.000
1643279538156404992,2022-01-27-10:32:18,10.1.1.3,44,-0.401,-0.401,-0.401,0.000,0.000,0.000
1643279538356744960,2022-01-27-10:32:18,10.1.1.3,40,-0.411,-0.411,-0.411,0.000,0.000,0.000
1643279538557560064,2022-01-27-10:32:18,10.1.1.3,40,-0.421,-0.421,-0.421,0.000,0.000,0.000
1643279538757291008,2022-01-27-10:32:18,10.1.1.3,39,-0.431,-0.431,-0.431,0.000,0.000,0.000
1643279538954245120,2022-01-27-10:32:18,10.1.1.3,31,-0.441,-0.441,-0.441,0.000,0.000,0.000
1643279539156904960,2022-01-27-10:32:19,10.1.1.3,31,-0.451,-0.451,-0.451,0.000,0.000,0.000
1643279539354885120,2022-01-27-10:32:19,10.1.1.3,27,-0.461,-0.461,-0.461,0.000,0.000,0.000
1643279539555137024,2022-01-27-10:32:19,10.1.1.3,26,-0.471,-0.471,-0.471,0.000,0.000,0.000
1643279539776077056,2022-01-27-10:32:19,10.1.1.3,40,-0.481,-0.481,-0.481,0.000,0.000,0.000
1643279539954446080,2022-01-27-10:32:19,10.1.1.3,17,-0.490,-0.490,-0.490,0.000,0.000,0.000
1643279540154990848,2022-01-27-10:32:20,10.1.1.3,16,-0.480,-0.480,-0.480,0.000,0.000,0.000
1643279540376009984,2022-01-27-10:32:20,10.1.1.3,35,-0.469,-0.469,-0.469,0.000,0.000,0.000
1643279540563281920,2022-01-27-10:32:20,10.1.1.3,21,-0.460,-0.460,-0.460,0.000,0.000,0.000
1643279540774764032,2022-01-27-10:32:20,10.1.1.3,22,-0.450,-0.450,-0.450,0.000,0.000,0.000
1643279540976211968,2022-01-27-10:32:20,10.1.1.3,20,-0.440,-0.440,-0.440,0.000,0.000,0.000
1643279541178371072,2022-01-27-10:32:21,10.1.1.3,22,-0.430,-0.430,-0.430,0.000,0.000,0.000
1643279541375346944,2022-01-27-10:32:21,10.1.1.3,18,-0.420,-0.420,-0.420,0.000,0.000,0.000
1643279541577497088,2022-01-27-10:32:21,10.1.1.3,18,-0.410,-0.410,-0.410,0.000,0.000,0.000
1643279541794582016,2022-01-27-10:32:21,10.1.1.3,34,-0.399,-0.399,-0.399,0.000,0.000,0.000
1643279541994280960,2022-01-27-10:32:21,10.1.1.3,33,-0.389,-0.389,-0.389,0.000,0.000,0.000
1643279542196152832,2022-01-27-10:32:22,10.1.1.3,33,-0.379,-0.379,-0.379,0.000,0.000,0.000
1643279542396239872,2022-01-27-10:32:22,10.1.1.3,28,-0.369,-0.369,-0.369,0.000,0.000,0.000
1643279542596115200,2022-01-27-10:32:22,10.1.1.3,25,-0.359,-0.359,-0.359,0.000,0.000,0.000
1643279542815279104,2022-01-27-10:32:22,10.1.1.3,44,-0.349,-0.349,-0.349,0.000,0.000,0.000
1643279542996953856,2022-01-27-10:32:22,10.1.1.3,20,-0.340,-0.340,-0.340,0.000,0.000,0.000
1643279543195907072,2022-01-27-10:32:23,10.1.1.3,15,-0.330,-0.330,-0.330,0.000,0.000,0.000
1643279543417272064,2022-01-27-10:32:23,10.1.1.3,35,-0.319,-0.319,-0.319,0.000,0.000,0.000
1643279543615227904,2022-01-27-10:32:23,10.1.1.3,29,-0.309,-0.309,-0.309,0.000,0.000,0.000
1643279543815630080,2022-01-27-10:32:23,10.1.1.3,28,-0.299,-0.299,-0.299,0.000,0.000,0.000
1643279544014912000,2022-01-27-10:32:24,10.1.1.3,25,-0.290,-0.290,-0.290,0.000,0.000,0.000
1643279544235537152,2022-01-27-10:32:24,10.1.1.3,45,-0.279,-0.279,-0.279,0.000,0.000,0.000
1643279544415500032,2022-01-27-10:32:24,10.1.1.3,16,-0.270,-0.270,-0.270,0.000,0.000,0.000
1643279544634393088,2022-01-27-10:32:24,10.1.1.3,33,-0.259,-0.259,-0.259,0.000,0.000,0.000
1643279544837763072,2022-01-27-10:32:24,10.1.1.3,33,-0.249,-0.249,-0.249,0.000,0.000,0.000
1643279545035636992,2022-01-27-10:32:25,10.1.1.3,27,-0.239,-0.239,-0.239,0.000,0.000,0.000
1643279545234534912,2022-01-27-10:32:25,10.1.1.3,24,-0.230,-0.230,-0.230,0.000,0.000,0.000
1643279545436323840,2022-01-27-10:32:25,10.1.1.3,24,-0.220,-0.220,-0.220,0.000,0.000,0.000
1643279545634752000,2022-01-27-10:32:25,10.1.1.3,20,-0.210,-0.210,-0.210,0.000,0.000,0.000
1643279545855063040,2022-01-27-10:32:25,10.1.1.3,33,-0.199,-0.199,-0.199,0.000,0.000,0.000
1643279546054025984,2022-01-27-10:32:26,10.1.1.3,30,-0.189,-0.189,-0.189,0.000,0.000,0.000
1643279546254800128,2022-01-27-10:32:26,10.1.1.3,25,-0.179,-0.179,-0.179,0.000,0.000,0.000
1643279546455328000,2022-01-27-10:32:26,10.1.1.3,25,-0.169,-0.169,-0.169,0.000,0.000,0.000
1643279546674531840,2022-01-27-10:32:26,10.1.1.3,43,-0.159,-0.159,-0.159,0.000,0.000,0.000
1643279546857332992,2022-01-27-10:32:26,10.1.1.3,25,-0.150,-0.150,-0.150,0.000,0.000,0.000
1643279547078643968,2022-01-27-10:32:27,10.1.1.3,46,-0.139,-0.139,-0.139,0.000,0.000,0.000
1643279547259776000,2022-01-27-10:32:27,10.1.1.3,26,-0.130,-0.130,-0.130,0.000,0.000,0.000
1643279547455710976,2022-01-27-10:32:27,10.1.1.3,21,-0.120,-0.120,-0.120,0.000,0.000,0.000
1643279547657277184,2022-01-27-10:32:27,10.1.1.3,21,-0.110,-0.110,-0.110,0.000,0.000,0.000
1643279547861129984,2022-01-27-10:32:27,10.1.1.3,25,-0.100,-0.100,-0.100,0.000,0.000,0.000
1643279548057046016,2022-01-27-10:32:28,10.1.1.3,19,-0.090,-0.090,-0.090,0.000,0.000,0.000
1643279548256614912,2022-01-27-10:32:28,10.1.1.3,17,-0.080,-0.080,-0.080,0.000,0.000,0.000
1643279548479206912,2022-01-27-10:32:28,10.1.1.3,39,-0.069,-0.069,-0.069,0.000,0.000,0.000
1643279548676662016,2022-01-27-10:32:28,10.1.1.3,35,-0.059,-0.059,-0.059,0.000,0.000,0.000
1643279548879079936,2022-01-27-10:32:28,10.1.1.3,35,-0.049,-0.049,-0.049,0.000,0.000,0.000
1643279549074980096,2022-01-27-10:32:29,10.1.1.3,26,-0.039,-0.039,-0.039,0.000,0.000,0.000
1643279549275439104,2022-01-27-10:32:29,10.1.1.3,26,-0.029,-0.029,-0.029,0.000,0.000,0.000
1643279549475680000,2022-01-27-10:32:29,10.1.1.3,25,-0.019,-0.019,-0.019,0.000,0.000,0.000
1643279549697083904,2022-01-27-10:32:29,10.1.1.3,43,-0.009,-0.009,-0.009,0.000,0.000,0.000
1643279549856275200,2022-01-27-10:32:29,10.1.1.3,2,-0.001,-0.001,-0.001,0.000,0.000,0.000
1643279550081780992,2022-01-27-10:32:30,10.1.1.3,25,-0.010,-0.010,-0.010,0.000,0.000,0.000
1643279550276249856,2022-01-27-10:32:30,10.1.1.3,19,-0.020,-0.020,-0.020,0.000,0.000,0.000
1643279550494364928,2022-01-27-10:32:30,10.1.1.3,35,-0.031,-0.031,-0.031,0.000,0.000,0.000
1643279550684616960,2022-01-27-10:32:30,10.1.1.3,24,-0.040,-0.040,-0.040,0.000,0.000,0.000
1643279550897382912,2022-01-27-10:32:30,10.1.1.3,36,-0.051,-0.051,-0.051,0.000,0.000,0.000
1643279551097136128,2022-01-27-10:32:31,10.1.1.3,35,-0.061,-0.061,-0.061,0.000,0.000,0.000
1643279551296217856,2022-01-27-10:32:31,10.1.1.3,32,-0.071,-0.071,-0.071,0.000,0.000,0.000
1643279551503177984,2022-01-27-10:32:31,10.1.1.3,37,-0.081,-0.081,-0.081,0.000,0.000,0.000
1643279551697230080,2022-01-27-10:32:31,10.1.1.3,21,-0.090,-0.090,-0.090,0.000,0.000,0.000
1643279551894920960,2022-01-27-10:32:31,10.1.1.3,17,-0.100,-0.100,-0.100,0.000,0.000,0.000
1643279552094744064,2022-01-27-10:32:32,10.1.1.3,15,-0.110,-0.110,-0.110,0.000,0.000,0.000
1643279552294394112,2022-01-27-10:32:32,10.1.1.3,13,-0.120,-0.120,-0.120,0.000,0.000,0.000
1643279552518372096,2022-01-27-10:32:32,10.1.1.3,35,-0.131,-0.131,-0.131,0.000,0.000,0.000
1643279552717664000,2022-01-27-10:32:32,10.1.1.3,33,-0.141,-0.141,-0.141,0.000,0.000,0.000
1643279552917964032,2022-01-27-10:32:32,10.1.1.3,32,-0.151,-0.151,-0.151,0.000,0.000,0.000
1643279553117172992,2022-01-27-10:32:33,10.1.1.3,30,-0.161,-0.161,-0.161,0.000,0.000,0.000
1643279553316833024,2022-01-27-10:32:33,10.1.1.3,29,-0.171,-0.171,-0.171,0.000,0.000,0.000
1643279553517415936,2022-01-27-10:32:33,10.1.1.3,26,-0.181,-0.181,-0.181,0.000,0.000,0.000
1643279553736984064,2022-01-27-10:32:33,10.1.1.3,41,-0.191,-0.191,-0.191,0.000,0.000,0.000
1643279553918433024,2022-01-27-10:32:33,10.1.1.3,18,-0.200,-0.200,-0.200,0.000,0.000,0.000
1643279554136455936,2022-01-27-10:32:34,10.1.1.3,31,-0.211,-0.211,-0.211,0.000,0.000,0.000
1643279554338906880,2022-01-27-10:32:34,10.1.1.3,32,-0.221,-0.221,-0.221,0.000,0.000,0.000
1643279554535557120,2022-01-27-10:32:34,10.1.1.3,27,-0.231,-0.231,-0.231,0.000,0.000,0.000
1643279554757497088,2022-01-27-10:32:34,10.1.1.3,47,-0.241,-0.241,-0.241,0.000,0.000,0.000
1643279554935373056,2022-01-27-10:32:34,10.1.1.3,22,-0.250,-0.250,-0.250,0.000,0.000,0.000
1643279555159729920,2022-01-27-10:32:35,10.1.1.3,40,-0.261,-0.261,-0.261,0.000,0.000,0.000
1643279555357666048,2022-01-27-10:32:35,10.1.1.3,35,-0.271,-0.271,-0.271,0.000,0.000,0.000
1643279555557019904,2022-01-27-10:32:35,10.1.1.3,33,-0.281,-0.281,-0.281,0.000,0.000,0.000
1643279555758001152,2022-01-27-10:32:35,10.1.1.3,29,-0.291,-0.291,-0.291,0.000,0.000,0.000
1643279555954091008,2022-01-27-10:32:35,10.1.1.3,23,-0.300,-0.300,-0.300,0.000,0.000,0.000
1643279556154577920,2022-01-27-10:32:36,10.1.1.3,21,-0.310,-0.310,-0.310,0.000,0.000,0.000
1643279556357885952,2022-01-27-10:32:36,10.1.1.3,20,-0.320,-0.320,-0.320,0.000,0.000,0.000
1643279556554220800,2022-01-27-10:32:36,10.1.1.3,17,-0.330,-0.330,-0.330,0.000,0.000,0.000
1643279556755472896,2022-01-27-10:32:36,10.1.1.3,16,-0.340,-0.340,-0.340,0.000,0.000,0.000
1643279556955169792,2022-01-27-10:32:36,10.1.1.3,14,-0.350,-0.350,-0.350,0.000,0.000,0.000
1643279557176774144,2022-01-27-10:32:37,10.1.1.3,34,-0.361,-0.361,-0.361,0.000,0.000,0.000
1643279557375361792,2022-01-27-10:32:37,10.1.1.3,31,-0.371,-0.371,-0.371,0.000,0.000,0.000
1643279557574612992,2022-01-27-10:32:37,10.1.1.3,28,-0.381,-0.381,-0.381,0.000,0.000,0.000
1643279557775209984,2022-01-27-10:32:37,10.1.1.3,26,-0.391,-0.391,-0.391,0.000,0.000,0.000
1643279557974760960,2022-01-27-10:32:37,10.1.1.3,24,-0.400,-0.400,-0.400,0.000,0.000,0.000
1643279558175488000,2022-01-27-10:32:38,10.1.1.3,23,-0.410,-0.410,-0.410,0.000,0.000,0.000
1643279558378038784,2022-01-27-10:32:38,10.1.1.3,25,-0.420,-0.420,-0.420,0.000,0.000,0.000
1643279558576461056,2022-01-27-10:32:38,10.1.1.3,22,-0.430,-0.430,-0.430,0.000,0.000,0.000
1643279558775315968,2022-01-27-10:32:38,10.1.1.3,18,-0.440,-0.440,-0.440,0.000,0.000,0.000
1643279558976722944,2022-01-27-10:32:38,10.1.1.3,18,-0.450,-0.450,-0.450,0.000,0.000,0.000
1643279559199491072,2022-01-27-10:32:39,10.1.1.3,40,-0.461,-0.461,-0.461,0.000,0.000,0.000
1643279559398514944,2022-01-27-10:32:39,10.1.1.3,38,-0.471,-0.471,-0.471,0.000,0.000,0.000
1643279559596739072,2022-01-27-10:32:39,10.1.1.3,31,-0.481,-0.481,-0.481,0.000,0.000,0.000
1643279559776418816,2022-01-27-10:32:39,10.1.1.3,8,-0.490,-0.490,-0.490,0.000,0.000,0.000
1643279559996884224,2022-01-27-10:32:39,10.1.1.3,26,-0.480,-0.480,-0.480,0.000,0.000,0.000
1643279560198385920,2022-01-27-10:32:40,10.1.1.3,29,-0.470,-0.470,-0.470,0.000,0.000,0.000
1643279560415479808,2022-01-27-10:32:40,10.1.1.3,43,-0.459,-0.459,-0.459,0.000,0.000,0.000
1643279560615247872,2022-01-27-10:32:40,10.1.1.3,40,-0.449,-0.449,-0.449,0.000,0.000,0.000
1643279560819046912,2022-01-27-10:32:40,10.1.1.3,43,-0.439,-0.439,-0.439,0.000,0.000,0.000
1643279561016359936,2022-01-27-10:32:41,10.1.1.3,40,-0.429,-0.429,-0.429,0.000,0.000,0.000
1643279561215517952,2022-01-27-10:32:41,10.1.1.3,31,-0.419,-0.419,-0.419,0.000,0.000,0.000
1643279561415208192,2022-01-27-10:32:41,10.1.1.3,27,-0.409,-0.409,-0.409,0.000,0.000,0.000
1643279561635845888,2022-01-27-10:32:41,10.1.1.3,41,-0.399,-0.399,-0.399,0.000,0.000,0.000
1643279561836101888,2022-01-27-10:32:41,10.1.1.3,40,-0.389,-0.389,-0.389,0.000,0.000,0.000
1643279562037352192,2022-01-27-10:32:42,10.1.1.3,37,-0.379,-0.379,-0.379,0.000,0.000,0.000
1643279562239102976,2022-01-27-10:32:42,10.1.1.3,37,-0.369,-0.369,-0.369,0.000,0.000,0.000
1643279562438777856,2022-01-27-10:32:42,10.1.1.3,35,-0.359,-0.359,-0.359,0.000,0.000,0.000
1643279562635284992,2022-01-27-10:32:42,10.1.1.3,31,-0.349,-0.349,-0.349,0.000,0.000,0.000
1643279562835331072,2022-01-27-10:32:42,10.1.1.3,28,-0.339,-0.339,-0.339,0.000,0.000,0.000
1643279563036147200,2022-01-27-10:32:43,10.1.1.3,26,-0.329,-0.329,-0.329,0.000,0.000,0.000
1643279563259804928,2022-01-27-10:32:43,10.1.1.3,48,-0.319,-0.319,-0.319,0.000,0.000,0.000
1643279563453625856,2022-01-27-10:32:43,10.1.1.3,41,-0.309,-0.309,-0.309,0.000,0.000,0.000
1643279563656321024,2022-01-27-10:32:43,10.1.1.3,31,-0.299,-0.299,-0.299,0.000,0.000,0.000
1643279563855462912,2022-01-27-10:32:43,10.1.1.3,29,-0.289,-0.289,-0.289,0.000,0.000,0.000
1643279564075963904,2022-01-27-10:32:44,10.1.1.3,46,-0.279,-0.279,-0.279,0.000,0.000,0.000
1643279564255063040,2022-01-27-10:32:44,10.1.1.3,19,-0.270,-0.270,-0.270,0.000,0.000,0.000
1643279564478840064,2022-01-27-10:32:44,10.1.1.3,40,-0.259,-0.259,-0.259,0.000,0.000,0.000
1643279564657378816,2022-01-27-10:32:44,10.1.1.3,19,-0.250,-0.250,-0.250,0.000,0.000,0.000
1643279564876915968,2022-01-27-10:32:44,10.1.1.3,36,-0.239,-0.239,-0.239,0.000,0.000,0.000
1643279565078964992,2022-01-27-10:32:45,10.1.1.3,37,-0.229,-0.229,-0.229,0.000,0.000,0.000
1643279565280308992,2022-01-27-10:32:45,10.1.1.3,38,-0.219,-0.219,-0.219,0.000,0.000,0.000
1643279565479516928,2022-01-27-10:32:45,10.1.1.3,34,-0.210,-0.210,-0.210,0.000,0.000,0.000
1643279565680370944,2022-01-27-10:32:45,10.1.1.3,35,-0.199,-0.199,-0.199,0.000,0.000,0.000
1643279565879100160,2022-01-27-10:32:45,10.1.1.3,30,-0.189,-0.189,-0.189,0.000,0.000,0.000
1643279566075681024,2022-01-27-10:32:46,10.1.1.3,25,-0.179,-0.179,-0.179,0.000,0.000,0.000
1643279566295931136,2022-01-27-10:32:46,10.1.1.3,45,-0.169,-0.169,-0.169,0.000,0.000,0.000
1643279566474982912,2022-01-27-10:32:46,10.1.1.3,21,-0.160,-0.160,-0.160,0.000,0.000,0.000
1643279566674530048,2022-01-27-10:32:46,10.1.1.3,19,-0.150,-0.150,-0.150,0.000,0.000,0.000
1643279566877371136,2022-01-27-10:32:46,10.1.1.3,20,-0.140,-0.140,-0.140,0.000,0.000,0.000
1643279567077598976,2022-01-27-10:32:47,10.1.1.3,17,-0.130,-0.130,-0.130,0.000,0.000,0.000
1643279567275572992,2022-01-27-10:32:47,10.1.1.3,14,-0.120,-0.120,-0.120,0.000,0.000,0.000
1643279567475916032,2022-01-27-10:32:47,10.1.1.3,14,-0.110,-0.110,-0.110,0.000,0.000,0.000
1643279567700123136,2022-01-27-10:32:47,10.1.1.3,38,-0.099,-0.099,-0.099,0.000,0.000,0.000
1643279567895462144,2022-01-27-10:32:47,10.1.1.3,32,-0.089,-0.089,-0.089,0.000,0.000,0.000
1643279568096708096,2022-01-27-10:32:48,10.1.1.3,31,-0.079,-0.079,-0.079,0.000,0.000,0.000
1643279568296532992,2022-01-27-10:32:48,10.1.1.3,26,-0.069,-0.069,-0.069,0.000,0.000,0.000
1643279568513874944,2022-01-27-10:32:48,10.1.1.3,40,-0.059,-0.059,-0.059,0.000,0.000,0.000
1643279568697395968,2022-01-27-10:32:48,10.1.1.3,17,-0.050,-0.050,-0.050,0.000,0.000,0.000
1643279568895257088,2022-01-27-10:32:48,10.1.1.3,14,-0.040,-0.040,-0.040,0.000,0.000,0.000
1643279569118328064,2022-01-27-10:32:49,10.1.1.3,36,-0.029,-0.029,-0.029,0.000,0.000,0.000
1643279569318592000,2022-01-27-10:32:49,10.1.1.3,35,-0.019,-0.019,-0.019,0.000,0.000,0.000
1643279569513939968,2022-01-27-10:32:49,10.1.1.3,30,-0.009,-0.009,-0.009,0.000,0.000,0.000
1643279569695616000,2022-01-27-10:32:49,10.1.1.3,10,-0.000,-0.000,-0.000,0.000,0.000,0.000
1643279569914768896,2022-01-27-10:32:49,10.1.1.3,28,-0.011,-0.011,-0.011,0.000,0.000,0.000
1643279570116596992,2022-01-27-10:32:50,10.1.1.3,28,-0.021,-0.021,-0.021,0.000,0.000,0.000
1643279570315481856,2022-01-27-10:32:50,10.1.1.3,26,-0.031,-0.031,-0.031,0.000,0.000,0.000
1643279570514637056,2022-01-27-10:32:50,10.1.1.3,23,-0.040,-0.040,-0.040,0.000,0.000,0.000
1643279570738322944,2022-01-27-10:32:50,10.1.1.3,46,-0.051,-0.051,-0.051,0.000,0.000,0.000
1643279570916657920,2022-01-27-10:32:50,10.1.1.3,19,-0.060,-0.060,-0.060,0.000,0.000,0.000
1643279571115312128,2022-01-27-10:32:51,10.1.1.3,16,-0.070,-0.070,-0.070,0.000,0.000,0.000
1643279571316273920,2022-01-27-10:32:51,10.1.1.3,17,-0.080,-0.080,-0.080,0.000,0.000,0.000
1643279571518113024,2022-01-27-10:32:51,10.1.1.3,18,-0.090,-0.090,-0.090,0.000,0.000,0.000
1643279571715276032,2022-01-27-10:32:51,10.1.1.3,13,-0.100,-0.100,-0.100,0.000,0.000,0.000
1643279571934982912,2022-01-27-10:32:51,10.1.1.3,31,-0.111,-0.111,-0.111,0.000,0.000,0.000
1643279572134995968,2022-01-27-10:32:52,10.1.1.3,30,-0.121,-0.121,-0.121,0.000,0.000,0.000
1643279572334919936,2022-01-27-10:32:52,10.1.1.3,29,-0.131,-0.131,-0.131,0.000,0.000,0.000
1643279572537193984,2022-01-27-10:32:52,10.1.1.3,29,-0.141,-0.141,-0.141,0.000,0.000,0.000
1643279572734108928,2022-01-27-10:32:52,10.1.1.3,25,-0.151,-0.151,-0.151,0.000,0.000,0.000
1643279572936715008,2022-01-27-10:32:52,10.1.1.3,26,-0.161,-0.161,-0.161,0.000,0.000,0.000
1643279573136054016,2022-01-27-10:32:53,10.1.1.3,23,-0.170,-0.170,-0.170,0.000,0.000,0.000
1643279573356982016,2022-01-27-10:32:53,10.1.1.3,37,-0.181,-0.181,-0.181,0.000,0.000,0.000
1643279573555272960,2022-01-27-10:32:53,10.1.1.3,31,-0.191,-0.191,-0.191,0.000,0.000,0.000
1643279573757491968,2022-01-27-10:32:53,10.1.1.3,28,-0.201,-0.201,-0.201,0.000,0.000,0.000
1643279573957472000,2022-01-27-10:32:53,10.1.1.3,30,-0.211,-0.211,-0.211,0.000,0.000,0.000
1643279574155163136,2022-01-27-10:32:54,10.1.1.3,26,-0.221,-0.221,-0.221,0.000,0.000,0.000
1643279574358326016,2022-01-27-10:32:54,10.1.1.3,28,-0.230,-0.230,-0.230,0.000,0.000,0.000
1643279574557487104,2022-01-27-10:32:54,10.1.1.3,26,-0.240,-0.240,-0.240,0.000,0.000,0.000
1643279574777031936,2022-01-27-10:32:54,10.1.1.3,42,-0.251,-0.251,-0.251,0.000,0.000,0.000
1643279574975661056,2022-01-27-10:32:54,10.1.1.3,38,-0.261,-0.261,-0.261,0.000,0.000,0.000
1643279575154656000,2022-01-27-10:32:55,10.1.1.3,16,-0.270,-0.270,-0.270,0.000,0.000,0.000
1643279575374737152,2022-01-27-10:32:55,10.1.1.3,35,-0.281,-0.281,-0.281,0.000,0.000,0.000
1643279575575508224,2022-01-27-10:32:55,10.1.1.3,35,-0.291,-0.291,-0.291,0.000,0.000,0.000
1643279575775536128,2022-01-27-10:32:55,10.1.1.3,34,-0.301,-0.301,-0.301,0.000,0.000,0.000
1643279575980493056,2022-01-27-10:32:55,10.1.1.3,38,-0.311,-0.311,-0.311,0.000,0.000,0.000
1643279576176320000,2022-01-27-10:32:56,10.1.1.3,31,-0.321,-0.321,-0.321,0.000,0.000,0.000
1643279576377123072,2022-01-27-10:32:56,10.1.1.3,32,-0.331,-0.331,-0.331,0.000,0.000,0.000
1643279576575004928,2022-01-27-10:32:56,10.1.1.3,28,-0.341,-0.341,-0.341,0.000,0.000,0.000
1643279576777337088,2022-01-27-10:32:56,10.1.1.3,26,-0.350,-0.350,-0.350,0.000,0.000,0.000
1643279576977133056,2022-01-27-10:32:56,10.1.1.3,25,-0.360,-0.360,-0.360,0.000,0.000,0.000
1643279577174460928,2022-01-27-10:32:57,10.1.1.3,21,-0.370,-0.370,-0.370,0.000,0.000,0.000
1643279577375202816,2022-01-27-10:32:57,10.1.1.3,17,-0.380,-0.380,-0.380,0.000,0.000,0.000
1643279577596434944,2022-01-27-10:32:57,10.1.1.3,35,-0.391,-0.391,-0.391,0.000,0.000,0.000
1643279577794729984,2022-01-27-10:32:57,10.1.1.3,27,-0.400,-0.400,-0.400,0.000,0.000,0.000
1643279578016835072,2022-01-27-10:32:58,10.1.1.3,46,-0.411,-0.411,-0.411,0.000,0.000,0.000
1643279578215877120,2022-01-27-10:32:58,10.1.1.3,38,-0.421,-0.421,-0.421,0.000,0.000,0.000
1643279578415592960,2022-01-27-10:32:58,10.1.1.3,34,-0.431,-0.431,-0.431,0.000,0.000,0.000
1643279578616326144,2022-01-27-10:32:58,10.1.1.3,34,-0.441,-0.441,-0.441,0.000,0.000,0.000
1643279578818624000,2022-01-27-10:32:58,10.1.1.3,34,-0.451,-0.451,-0.451,0.000,0.000,0.000
1643279579022414848,2022-01-27-10:32:59,10.1.1.3,36,-0.461,-0.461,-0.461,0.000,0.000,0.000
1643279579215559936,2022-01-27-10:32:59,10.1.1.3,26,-0.471,-0.471,-0.471,0.000,0.000,0.000
1643279579418664960,2022-01-27-10:32:59,10.1.1.3,27,-0.480,-0.480,-0.480,0.000,0.000,0.000
1643279579596016896,2022-01-27-10:32:59,10.1.1.3,4,-0.490,-0.490,-0.490,0.000,0.000,0.000
1643279579814491904,2022-01-27-10:32:59,10.1.1.3,18,-0.480,-0.480,-0.480,0.000,0.000,0.000
1643279580014412032,2022-01-27-10:33:00,10.1.1.3,16,-0.470,-0.470,-0.470,0.000,0.000,0.000
1643279580214688000,2022-01-27-10:33:00,10.1.1.3,16,-0.460,-0.460,-0.460,0.000,0.000,0.000
1643279580434272000,2022-01-27-10:33:00,10.1.1.3,34,-0.449,-0.449,-0.449,0.000,0.000,0.000
1643279580635143936,2022-01-27-10:33:00,10.1.1.3,33,-0.439,-0.439,-0.439,0.000,0.000,0.000
1643279580835475968,2022-01-27-10:33:00,10.1.1.3,32,-0.429,-0.429,-0.429,0.000,0.000,0.000
1643279581036400128,2022-01-27-10:33:01,10.1.1.3,32,-0.419,-0.419,-0.419,0.000,0.000,0.000
1643279581235461888,2022-01-27-10:33:01,10.1.1.3,27,-0.409,-0.409,-0.409,0.000,0.000,0.000
1643279581434102016,2022-01-27-10:33:01,10.1.1.3,21,-0.400,-0.400,-0.400,0.000,0.000,0.000
1643279581655719936,2022-01-27-10:33:01,10.1.1.3,41,-0.389,-0.389,-0.389,0.000,0.000,0.000
1643279581835376896,2022-01-27-10:33:01,10.1.1.3,18,-0.380,-0.380,-0.380,0.000,0.000,0.000
1643279582036818944,2022-01-27-10:33:02,10.1.1.3,18,-0.370,-0.370,-0.370,0.000,0.000,0.000
1643279582256984832,2022-01-27-10:33:02,10.1.1.3,37,-0.359,-0.359,-0.359,0.000,0.000,0.000
1643279582455344896,2022-01-27-10:33:02,10.1.1.3,34,-0.349,-0.349,-0.349,0.000,0.000,0.000
1643279582656638976,2022-01-27-10:33:02,10.1.1.3,31,-0.339,-0.339,-0.339,0.000,0.000,0.000
1643279582857079040,2022-01-27-10:33:02,10.1.1.3,30,-0.329,-0.329,-0.329,0.000,0.000,0.000
1643279583057149952,2022-01-27-10:33:03,10.1.1.3,26,-0.320,-0.320,-0.320,0.000,0.000,0.000
1643279583256947968,2022-01-27-10:33:03,10.1.1.3,24,-0.310,-0.310,-0.310,0.000,0.000,0.000
1643279583479218944,2022-01-27-10:33:03,10.1.1.3,41,-0.299,-0.299,-0.299,0.000,0.000,0.000
1643279583676820992,2022-01-27-10:33:03,10.1.1.3,40,-0.289,-0.289,-0.289,0.000,0.000,0.000
1643279583857971968,2022-01-27-10:33:03,10.1.1.3,21,-0.280,-0.280,-0.280,0.000,0.000,0.000
1643279584074412032,2022-01-27-10:33:04,10.1.1.3,36,-0.269,-0.269,-0.269,0.000,0.000,0.000
1643279584255696128,2022-01-27-10:33:04,10.1.1.3,15,-0.260,-0.260,-0.260,0.000,0.000,0.000
1643279584477541888,2022-01-27-10:33:04,10.1.1.3,35,-0.249,-0.249,-0.249,0.000,0.000,0.000
1643279584674494976,2022-01-27-10:33:04,10.1.1.3,28,-0.239,-0.239,-0.239,0.000,0.000,0.000
1643279584875456000,2022-01-27-10:33:04,10.1.1.3,28,-0.229,-0.229,-0.229,0.000,0.000,0.000
1643279585076329984,2022-01-27-10:33:05,10.1.1.3,27,-0.219,-0.219,-0.219,0.000,0.000,0.000
1643279585294578944,2022-01-27-10:33:05,10.1.1.3,43,-0.209,-0.209,-0.209,0.000,0.000,0.000
1643279585477857024,2022-01-27-10:33:05,10.1.1.3,23,-0.200,-0.200,-0.200,0.000,0.000,0.000
1643279585694125056,2022-01-27-10:33:05,10.1.1.3,38,-0.189,-0.189,-0.189,0.000,0.000,0.000
1643279585895090176,2022-01-27-10:33:05,10.1.1.3,38,-0.179,-0.179,-0.179,0.000,0.000,0.000
1643279586074053120,2022-01-27-10:33:06,10.1.1.3,16,-0.170,-0.170,-0.170,0.000,0.000,0.000
1643279586276342016,2022-01-27-10:33:06,10.1.1.3,17,-0.160,-0.160,-0.160,0.000,0.000,0.000
1643279586475924992,2022-01-27-10:33:06,10.1.1.3,16,-0.150,-0.150,-0.150,0.000,0.000,0.000
1643279586695385088,2022-01-27-10:33:06,10.1.1.3,32,-0.139,-0.139,-0.139,0.000,0.000,0.000
1643279586894007808,2022-01-27-10:33:06,10.1.1.3,29,-0.130,-0.130,-0.130,0.000,0.000,0.000
1643279587095467008,2022-01-27-10:33:07,10.1.1.3,28,-0.119,-0.119,-0.119,0.000,0.000,0.000
1643279587293991168,2022-01-27-10:33:07,10.1.1.3,24,-0.109,-0.109,-0.109,0.000,0.000,0.000
1643279587495749120,2022-01-27-10:33:07,10.1.1.3,25,-0.099,-0.099,-0.099,0.000,0.000,0.000
1643279587696155904,2022-01-27-10:33:07,10.1.1.3,23,-0.090,-0.090,-0.090,0.000,0.000,0.000
1643279587895342080,2022-01-27-10:33:07,10.1.1.3,20,-0.080,-0.080,-0.080,0.000,0.000,0.000
1643279588116677888,2022-01-27-10:33:08,10.1.1.3,39,-0.069,-0.069,-0.069,0.000,0.000,0.000
1643279588315376128,2022-01-27-10:33:08,10.1.1.3,36,-0.059,-0.059,-0.059,0.000,0.000,0.000
1643279588518467072,2022-01-27-10:33:08,10.1.1.3,39,-0.049,-0.049,-0.049,0.000,0.000,0.000
1643279588716124160,2022-01-27-10:33:08,10.1.1.3,36,-0.039,-0.039,-0.039,0.000,0.000,0.000
1643279588917150976,2022-01-27-10:33:08,10.1.1.3,34,-0.029,-0.029,-0.029,0.000,0.000,0.000
1643279589116456960,2022-01-27-10:33:09,10.1.1.3,34,-0.019,-0.019,-0.019,0.000,0.000,0.000
1643279589314533120,2022-01-27-10:33:09,10.1.1.3,28,-0.009,-0.009,-0.009,0.000,0.000,0.000
1643279589494082048,2022-01-27-10:33:09,10.1.1.3,6,-0.000,-0.000,-0.000,0.000,0.000,0.000
1643279589716815104,2022-01-27-10:33:09,10.1.1.3,28,-0.011,-0.011,-0.011,0.000,0.000,0.000
1643279589918593024,2022-01-27-10:33:09,10.1.1.3,29,-0.020,-0.020,-0.020,0.000,0.000,0.000
1643279590114953984,2022-01-27-10:33:10,10.1.1.3,24,-0.030,-0.030,-0.030,0.000,0.000,0.000
1643279590313883904,2022-01-27-10:33:10,10.1.1.3,23,-0.041,-0.041,-0.041,0.000,0.000,0.000
1643279590515739904,2022-01-27-10:33:10,10.1.1.3,23,-0.050,-0.050,-0.050,0.000,0.000,0.000
1643279590734636032,2022-01-27-10:33:10,10.1.1.3,39,-0.061,-0.061,-0.061,0.000,0.000,0.000
1643279590918505984,2022-01-27-10:33:10,10.1.1.3,22,-0.070,-0.070,-0.070,0.000,0.000,0.000
1643279591114940928,2022-01-27-10:33:11,10.1.1.3,17,-0.080,-0.080,-0.080,0.000,0.000,0.000
