FedericoMungari/DigitalTwin_service/01_WiredScenario/Output/Output_script/script_rosapi_2_output_robots8_freq0_1.txt
timestamp,date,node,latency,joint_1,joint_2,joint_3,joint_4,joint_5,joint_6
1641207845334241024,2022-01-03-11:04:05,10.1.1.2,179,-0.010,-0.010,-0.010,0.000,0.000,0.000
1641207845533469952,2022-01-03-11:04:05,10.1.1.2,177,-0.020,-0.020,-0.020,0.000,0.000,0.000
1641207845735710976,2022-01-03-11:04:05,10.1.1.2,176,-0.030,-0.030,-0.030,0.000,0.000,0.000
1641207845934417920,2022-01-03-11:04:05,10.1.1.2,176,-0.040,-0.040,-0.040,0.000,0.000,0.000
1641207846133349888,2022-01-03-11:04:06,10.1.1.2,174,-0.050,-0.050,-0.050,0.000,0.000,0.000
1641207846333317120,2022-01-03-11:04:06,10.1.1.2,170,-0.060,-0.060,-0.060,0.000,0.000,0.000
1641207846532363776,2022-01-03-11:04:06,10.1.1.2,168,-0.070,-0.070,-0.070,0.000,0.000,0.000
1641207846732009984,2022-01-03-11:04:06,10.1.1.2,167,-0.080,-0.080,-0.080,0.000,0.000,0.000
1641207846933847040,2022-01-03-11:04:06,10.1.1.2,168,-0.090,-0.090,-0.090,0.000,0.000,0.000
1641207847131620864,2022-01-03-11:04:07,10.1.1.2,166,-0.100,-0.100,-0.100,0.000,0.000,0.000
1641207847330982912,2022-01-03-11:04:07,10.1.1.2,164,-0.110,-0.110,-0.110,0.000,0.000,0.000
1641207847530411008,2022-01-03-11:04:07,10.1.1.2,162,-0.120,-0.120,-0.120,0.000,0.000,0.000
1641207847730541056,2022-01-03-11:04:07,10.1.1.2,162,-0.130,-0.130,-0.130,0.000,0.000,0.000
1641207847930315008,2022-01-03-11:04:07,10.1.1.2,161,-0.140,-0.140,-0.140,0.000,0.000,0.000
1641207848130043904,2022-01-03-11:04:08,10.1.1.2,160,-0.150,-0.150,-0.150,0.000,0.000,0.000
1641207848349798912,2022-01-03-11:04:08,10.1.1.2,178,-0.160,-0.160,-0.160,0.000,0.000,0.000
1641207848552345088,2022-01-03-11:04:08,10.1.1.2,179,-0.170,-0.170,-0.170,0.000,0.000,0.000
1641207848748728064,2022-01-03-11:04:08,10.1.1.2,175,-0.180,-0.180,-0.180,0.000,0.000,0.000
1641207848948628992,2022-01-03-11:04:08,10.1.1.2,174,-0.190,-0.190,-0.190,0.000,0.000,0.000
1641207849148818944,2022-01-03-11:04:09,10.1.1.2,173,-0.200,-0.200,-0.200,0.000,0.000,0.000
1641207849350158848,2022-01-03-11:04:09,10.1.1.2,174,-0.210,-0.210,-0.210,0.000,0.000,0.000
1641207849551060992,2022-01-03-11:04:09,10.1.1.2,173,-0.220,-0.220,-0.220,0.000,0.000,0.000
1641207849752600832,2022-01-03-11:04:09,10.1.1.2,174,-0.230,-0.230,-0.230,0.000,0.000,0.000
1641207849953569024,2022-01-03-11:04:09,10.1.1.2,173,-0.240,-0.240,-0.240,0.000,0.000,0.000
1641207850154018048,2022-01-03-11:04:10,10.1.1.2,172,-0.250,-0.250,-0.250,0.000,0.000,0.000
1641207850354640896,2022-01-03-11:04:10,10.1.1.2,172,-0.260,-0.260,-0.260,0.000,0.000,0.000
1641207850556018944,2022-01-03-11:04:10,10.1.1.2,172,-0.270,-0.270,-0.270,0.000,0.000,0.000
1641207850756995840,2022-01-03-11:04:10,10.1.1.2,172,-0.280,-0.280,-0.280,0.000,0.000,0.000
1641207850957228800,2022-01-03-11:04:10,10.1.1.2,171,-0.290,-0.290,-0.290,0.000,0.000,0.000
1641207851159239168,2022-01-03-11:04:11,10.1.1.2,170,-0.300,-0.300,-0.300,0.000,0.000,0.000
1641207851358757120,2022-01-03-11:04:11,10.1.1.2,168,-0.310,-0.310,-0.310,0.000,0.000,0.000
1641207851580966912,2022-01-03-11:04:11,10.1.1.2,189,-0.320,-0.320,-0.320,0.000,0.000,0.000
1641207851780796928,2022-01-03-11:04:11,10.1.1.2,188,-0.330,-0.330,-0.330,0.000,0.000,0.000
1641207851985294080,2022-01-03-11:04:11,10.1.1.2,191,-0.340,-0.340,-0.340,0.000,0.000,0.000
1641207852181480960,2022-01-03-11:04:12,10.1.1.2,184,-0.350,-0.350,-0.350,0.000,0.000,0.000
1641207852382319872,2022-01-03-11:04:12,10.1.1.2,184,-0.360,-0.360,-0.360,0.000,0.000,0.000
1641207852586275072,2022-01-03-11:04:12,10.1.1.2,187,-0.370,-0.370,-0.370,0.000,0.000,0.000
1641207852783718144,2022-01-03-11:04:12,10.1.1.2,184,-0.380,-0.380,-0.380,0.000,0.000,0.000
1641207852984169984,2022-01-03-11:04:12,10.1.1.2,183,-0.390,-0.390,-0.390,0.000,0.000,0.000
1641207853184803072,2022-01-03-11:04:13,10.1.1.2,184,-0.400,-0.400,-0.400,0.000,0.000,0.000
1641207853385050112,2022-01-03-11:04:13,10.1.1.2,184,-0.410,-0.410,-0.410,0.000,0.000,0.000
1641207853586435072,2022-01-03-11:04:13,10.1.1.2,183,-0.420,-0.420,-0.420,0.000,0.000,0.000
1641207853786845952,2022-01-03-11:04:13,10.1.1.2,183,-0.430,-0.430,-0.430,0.000,0.000,0.000
1641207853987132928,2022-01-03-11:04:13,10.1.1.2,183,-0.440,-0.440,-0.440,0.000,0.000,0.000
1641207854186147840,2022-01-03-11:04:14,10.1.1.2,181,-0.450,-0.450,-0.450,0.000,0.000,0.000
1641207854387234048,2022-01-03-11:04:14,10.1.1.2,182,-0.460,-0.460,-0.460,0.000,0.000,0.000
1641207854588792064,2022-01-03-11:04:14,10.1.1.2,183,-0.470,-0.470,-0.470,0.000,0.000,0.000
1641207854788758016,2022-01-03-11:04:14,10.1.1.2,182,-0.480,-0.480,-0.480,0.000,0.000,0.000
1641207854990387968,2022-01-03-11:04:14,10.1.1.2,183,-0.490,-0.490,-0.490,0.000,0.000,0.000
1641207855188024064,2022-01-03-11:04:15,10.1.1.2,180,-0.480,-0.480,-0.480,0.000,0.000,0.000
1641207855388352000,2022-01-03-11:04:15,10.1.1.2,179,-0.470,-0.470,-0.470,0.000,0.000,0.000
1641207855591481088,2022-01-03-11:04:15,10.1.1.2,181,-0.460,-0.460,-0.460,0.000,0.000,0.000
1641207855788763904,2022-01-03-11:04:15,10.1.1.2,178,-0.450,-0.450,-0.450,0.000,0.000,0.000
1641207856009771008,2022-01-03-11:04:16,10.1.1.2,197,-0.440,-0.440,-0.440,0.000,0.000,0.000
1641207856209902080,2022-01-03-11:04:16,10.1.1.2,197,-0.430,-0.430,-0.430,0.000,0.000,0.000
1641207856410042880,2022-01-03-11:04:16,10.1.1.2,196,-0.420,-0.420,-0.420,0.000,0.000,0.000
1641207856610358016,2022-01-03-11:04:16,10.1.1.2,196,-0.410,-0.410,-0.410,0.000,0.000,0.000
1641207856809556992,2022-01-03-11:04:16,10.1.1.2,194,-0.400,-0.400,-0.400,0.000,0.000,0.000
1641207857010144000,2022-01-03-11:04:17,10.1.1.2,194,-0.390,-0.390,-0.390,0.000,0.000,0.000
1641207857210423040,2022-01-03-11:04:17,10.1.1.2,194,-0.380,-0.380,-0.380,0.000,0.000,0.000
1641207857410705152,2022-01-03-11:04:17,10.1.1.2,193,-0.370,-0.370,-0.370,0.000,0.000,0.000
1641207857610481920,2022-01-03-11:04:17,10.1.1.2,192,-0.360,-0.360,-0.360,0.000,0.000,0.000
1641207857812302080,2022-01-03-11:04:17,10.1.1.2,192,-0.350,-0.350,-0.350,0.000,0.000,0.000
1641207858011298048,2022-01-03-11:04:18,10.1.1.2,191,-0.340,-0.340,-0.340,0.000,0.000,0.000
1641207858211170816,2022-01-03-11:04:18,10.1.1.2,190,-0.330,-0.330,-0.330,0.000,0.000,0.000
1641207858411184128,2022-01-03-11:04:18,10.1.1.2,189,-0.320,-0.320,-0.320,0.000,0.000,0.000
1641207858611859200,2022-01-03-11:04:18,10.1.1.2,189,-0.310,-0.310,-0.310,0.000,0.000,0.000
1641207858810874112,2022-01-03-11:04:18,10.1.1.2,186,-0.300,-0.300,-0.300,0.000,0.000,0.000
1641207859011624960,2022-01-03-11:04:19,10.1.1.2,187,-0.290,-0.290,-0.290,0.000,0.000,0.000
1641207859211521024,2022-01-03-11:04:19,10.1.1.2,186,-0.280,-0.280,-0.280,0.000,0.000,0.000
1641207859412332032,2022-01-03-11:04:19,10.1.1.2,184,-0.270,-0.270,-0.270,0.000,0.000,0.000
1641207859631234816,2022-01-03-11:04:19,10.1.1.2,196,-0.260,-0.260,-0.260,0.000,0.000,0.000
1641207859831180032,2022-01-03-11:04:19,10.1.1.2,195,-0.250,-0.250,-0.250,0.000,0.000,0.000
1641207860030944000,2022-01-03-11:04:20,10.1.1.2,194,-0.240,-0.240,-0.240,0.000,0.000,0.000
1641207860230978048,2022-01-03-11:04:20,10.1.1.2,193,-0.230,-0.230,-0.230,0.000,0.000,0.000
1641207860431173120,2022-01-03-11:04:20,10.1.1.2,193,-0.220,-0.220,-0.220,0.000,0.000,0.000
1641207860633608960,2022-01-03-11:04:20,10.1.1.2,195,-0.210,-0.210,-0.210,0.000,0.000,0.000
1641207861038522112,2022-01-03-11:04:21,10.1.1.2,197,-0.190,-0.190,-0.190,0.000,0.000,0.000
1641207861234905856,2022-01-03-11:04:21,10.1.1.2,188,-0.180,-0.180,-0.180,0.000,0.000,0.000
1641207861431288064,2022-01-03-11:04:21,10.1.1.2,186,-0.170,-0.170,-0.170,0.000,0.000,0.000
1641207861631067136,2022-01-03-11:04:21,10.1.1.2,184,-0.160,-0.160,-0.160,0.000,0.000,0.000
1641207861830430976,2022-01-03-11:04:21,10.1.1.2,182,-0.150,-0.150,-0.150,0.000,0.000,0.000
1641207862031729920,2022-01-03-11:04:22,10.1.1.2,181,-0.140,-0.140,-0.140,0.000,0.000,0.000
1641207862230191872,2022-01-03-11:04:22,10.1.1.2,179,-0.130,-0.130,-0.130,0.000,0.000,0.000
1641207862429910016,2022-01-03-11:04:22,10.1.1.2,178,-0.120,-0.120,-0.120,0.000,0.000,0.000
1641207862650520064,2022-01-03-11:04:22,10.1.1.2,198,-0.110,-0.110,-0.110,0.000,0.000,0.000
1641207862850593024,2022-01-03-11:04:22,10.1.1.2,197,-0.100,-0.100,-0.100,0.000,0.000,0.000
1641207863057671936,2022-01-03-11:04:23,10.1.1.2,196,-0.090,-0.090,-0.090,0.000,0.000,0.000
1641207863250320896,2022-01-03-11:04:23,10.1.1.2,192,-0.080,-0.080,-0.080,0.000,0.000,0.000
1641207863451344128,2022-01-03-11:04:23,10.1.1.2,192,-0.070,-0.070,-0.070,0.000,0.000,0.000
1641207863649275904,2022-01-03-11:04:23,10.1.1.2,184,-0.060,-0.060,-0.060,0.000,0.000,0.000
1641207863849189120,2022-01-03-11:04:23,10.1.1.2,182,-0.050,-0.050,-0.050,0.000,0.000,0.000
1641207864049884928,2022-01-03-11:04:24,10.1.1.2,183,-0.040,-0.040,-0.040,0.000,0.000,0.000
1641207864249510144,2022-01-03-11:04:24,10.1.1.2,181,-0.030,-0.030,-0.030,0.000,0.000,0.000
1641207864449345024,2022-01-03-11:04:24,10.1.1.2,180,-0.020,-0.020,-0.020,0.000,0.000,0.000
1641207864649271040,2022-01-03-11:04:24,10.1.1.2,180,-0.010,-0.010,-0.010,0.000,0.000,0.000
1641207864849031936,2022-01-03-11:04:24,10.1.1.2,178,-0.000,-0.000,-0.000,0.000,0.000,0.000
1641207865048975872,2022-01-03-11:04:25,10.1.1.2,178,-0.010,-0.010,-0.010,0.000,0.000,0.000
1641207865268776960,2022-01-03-11:04:25,10.1.1.2,196,-0.020,-0.020,-0.020,0.000,0.000,0.000
1641207865668410112,2022-01-03-11:04:25,10.1.1.2,194,-0.040,-0.040,-0.040,0.000,0.000,0.000
1641207865868354048,2022-01-03-11:04:25,10.1.1.2,192,-0.050,-0.050,-0.050,0.000,0.000,0.000
1641207866068593920,2022-01-03-11:04:26,10.1.1.2,192,-0.060,-0.060,-0.060,0.000,0.000,0.000
1641207866268702976,2022-01-03-11:04:26,10.1.1.2,191,-0.070,-0.070,-0.070,0.000,0.000,0.000
1641207866468198912,2022-01-03-11:04:26,10.1.1.2,188,-0.080,-0.080,-0.080,0.000,0.000,0.000
1641207866668783872,2022-01-03-11:04:26,10.1.1.2,187,-0.090,-0.090,-0.090,0.000,0.000,0.000
1641207866867069952,2022-01-03-11:04:26,10.1.1.2,186,-0.100,-0.100,-0.100,0.000,0.000,0.000
1641207867066699008,2022-01-03-11:04:27,10.1.1.2,185,-0.110,-0.110,-0.110,0.000,0.000,0.000
1641207867267677184,2022-01-03-11:04:27,10.1.1.2,185,-0.120,-0.120,-0.120,0.000,0.000,0.000
1641207867466406144,2022-01-03-11:04:27,10.1.1.2,183,-0.130,-0.130,-0.130,0.000,0.000,0.000
1641207867666321920,2022-01-03-11:04:27,10.1.1.2,181,-0.140,-0.140,-0.140,0.000,0.000,0.000
1641207867869812992,2022-01-03-11:04:27,10.1.1.2,184,-0.150,-0.150,-0.150,0.000,0.000,0.000
1641207868067490048,2022-01-03-11:04:28,10.1.1.2,181,-0.160,-0.160,-0.160,0.000,0.000,0.000
1641207868265628928,2022-01-03-11:04:28,10.1.1.2,177,-0.170,-0.170,-0.170,0.000,0.000,0.000
1641207868465020928,2022-01-03-11:04:28,10.1.1.2,175,-0.180,-0.180,-0.180,0.000,0.000,0.000
1641207868664825088,2022-01-03-11:04:28,10.1.1.2,174,-0.190,-0.190,-0.190,0.000,0.000,0.000
1641207868867588096,2022-01-03-11:04:28,10.1.1.2,176,-0.200,-0.200,-0.200,0.000,0.000,0.000
1641207869084465152,2022-01-03-11:04:29,10.1.1.2,192,-0.210,-0.210,-0.210,0.000,0.000,0.000
1641207869284142080,2022-01-03-11:04:29,10.1.1.2,186,-0.220,-0.220,-0.220,0.000,0.000,0.000
1641207869483648000,2022-01-03-11:04:29,10.1.1.2,185,-0.230,-0.230,-0.230,0.000,0.000,0.000
1641207869684001024,2022-01-03-11:04:29,10.1.1.2,185,-0.240,-0.240,-0.240,0.000,0.000,0.000
1641207869884427008,2022-01-03-11:04:29,10.1.1.2,185,-0.250,-0.250,-0.250,0.000,0.000,0.000
1641207870082840832,2022-01-03-11:04:30,10.1.1.2,183,-0.260,-0.260,-0.260,0.000,0.000,0.000
1641207870283056128,2022-01-03-11:04:30,10.1.1.2,182,-0.270,-0.270,-0.270,0.000,0.000,0.000
1641207870484850944,2022-01-03-11:04:30,10.1.1.2,183,-0.280,-0.280,-0.280,0.000,0.000,0.000
1641207870682134016,2022-01-03-11:04:30,10.1.1.2,179,-0.290,-0.290,-0.290,0.000,0.000,0.000
1641207870881762048,2022-01-03-11:04:30,10.1.1.2,178,-0.300,-0.300,-0.300,0.000,0.000,0.000
1641207871082040064,2022-01-03-11:04:31,10.1.1.2,178,-0.310,-0.310,-0.310,0.000,0.000,0.000
1641207871281524992,2022-01-03-11:04:31,10.1.1.2,177,-0.320,-0.320,-0.320,0.000,0.000,0.000
1641207871481336064,2022-01-03-11:04:31,10.1.1.2,176,-0.330,-0.330,-0.330,0.000,0.000,0.000
1641207871681358080,2022-01-03-11:04:31,10.1.1.2,176,-0.340,-0.340,-0.340,0.000,0.000,0.000
1641207871880939008,2022-01-03-11:04:31,10.1.1.2,175,-0.350,-0.350,-0.350,0.000,0.000,0.000
1641207872080386048,2022-01-03-11:04:32,10.1.1.2,174,-0.360,-0.360,-0.360,0.000,0.000,0.000
1641207872280660992,2022-01-03-11:04:32,10.1.1.2,173,-0.370,-0.370,-0.370,0.000,0.000,0.000
1641207872480560896,2022-01-03-11:04:32,10.1.1.2,173,-0.380,-0.380,-0.380,0.000,0.000,0.000
1641207872680360960,2022-01-03-11:04:32,10.1.1.2,172,-0.390,-0.390,-0.390,0.000,0.000,0.000
1641207872878968064,2022-01-03-11:04:32,10.1.1.2,170,-0.400,-0.400,-0.400,0.000,0.000,0.000
1641207873078924032,2022-01-03-11:04:33,10.1.1.2,169,-0.410,-0.410,-0.410,0.000,0.000,0.000
1641207873288982016,2022-01-03-11:04:33,10.1.1.2,179,-0.420,-0.420,-0.420,0.000,0.000,0.000
1641207873498835200,2022-01-03-11:04:33,10.1.1.2,187,-0.430,-0.430,-0.430,0.000,0.000,0.000
1641207873698780928,2022-01-03-11:04:33,10.1.1.2,186,-0.440,-0.440,-0.440,0.000,0.000,0.000
1641207873897933056,2022-01-03-11:04:33,10.1.1.2,184,-0.450,-0.450,-0.450,0.000,0.000,0.000
1641207874097858816,2022-01-03-11:04:34,10.1.1.2,183,-0.460,-0.460,-0.460,0.000,0.000,0.000
1641207874302962176,2022-01-03-11:04:34,10.1.1.2,188,-0.470,-0.470,-0.470,0.000,0.000,0.000
1641207874499032064,2022-01-03-11:04:34,10.1.1.2,183,-0.480,-0.480,-0.480,0.000,0.000,0.000
1641207874716852992,2022-01-03-11:04:34,10.1.1.2,171,-0.490,-0.490,-0.490,0.000,0.000,0.000
1641207874917274112,2022-01-03-11:04:34,10.1.1.2,167,-0.480,-0.480,-0.480,0.000,0.000,0.000
1641207875116571904,2022-01-03-11:04:35,10.1.1.2,166,-0.470,-0.470,-0.470,0.000,0.000,0.000
1641207875336163072,2022-01-03-11:04:35,10.1.1.2,184,-0.460,-0.460,-0.460,0.000,0.000,0.000
1641207875535378944,2022-01-03-11:04:35,10.1.1.2,183,-0.450,-0.450,-0.450,0.000,0.000,0.000
1641207875735877888,2022-01-03-11:04:35,10.1.1.2,182,-0.440,-0.440,-0.440,0.000,0.000,0.000
1641207875934595072,2022-01-03-11:04:35,10.1.1.2,180,-0.430,-0.430,-0.430,0.000,0.000,0.000
1641207876134285824,2022-01-03-11:04:36,10.1.1.2,179,-0.420,-0.420,-0.420,0.000,0.000,0.000
1641207876334316032,2022-01-03-11:04:36,10.1.1.2,178,-0.410,-0.410,-0.410,0.000,0.000,0.000
1641207876534621952,2022-01-03-11:04:36,10.1.1.2,178,-0.400,-0.400,-0.400,0.000,0.000,0.000
1641207876733195008,2022-01-03-11:04:36,10.1.1.2,175,-0.390,-0.390,-0.390,0.000,0.000,0.000
1641207876933821952,2022-01-03-11:04:36,10.1.1.2,175,-0.380,-0.380,-0.380,0.000,0.000,0.000
1641207877132508160,2022-01-03-11:04:37,10.1.1.2,173,-0.370,-0.370,-0.370,0.000,0.000,0.000
1641207877332869120,2022-01-03-11:04:37,10.1.1.2,172,-0.360,-0.360,-0.360,0.000,0.000,0.000
1641207877531984128,2022-01-03-11:04:37,10.1.1.2,170,-0.350,-0.350,-0.350,0.000,0.000,0.000
1641207877733288960,2022-01-03-11:04:37,10.1.1.2,169,-0.340,-0.340,-0.340,0.000,0.000,0.000
1641207877932027136,2022-01-03-11:04:37,10.1.1.2,168,-0.330,-0.330,-0.330,0.000,0.000,0.000
1641207878132663040,2022-01-03-11:04:38,10.1.1.2,168,-0.320,-0.320,-0.320,0.000,0.000,0.000
1641207878330574080,2022-01-03-11:04:38,10.1.1.2,165,-0.310,-0.310,-0.310,0.000,0.000,0.000
1641207878533360896,2022-01-03-11:04:38,10.1.1.2,166,-0.300,-0.300,-0.300,0.000,0.000,0.000
1641207878730279936,2022-01-03-11:04:38,10.1.1.2,163,-0.290,-0.290,-0.290,0.000,0.000,0.000
1641207878932076032,2022-01-03-11:04:38,10.1.1.2,164,-0.280,-0.280,-0.280,0.000,0.000,0.000
1641207879129636096,2022-01-03-11:04:39,10.1.1.2,161,-0.270,-0.270,-0.270,0.000,0.000,0.000
1641207879329377024,2022-01-03-11:04:39,10.1.1.2,159,-0.260,-0.260,-0.260,0.000,0.000,0.000
1641207879538579968,2022-01-03-11:04:39,10.1.1.2,167,-0.250,-0.250,-0.250,0.000,0.000,0.000
1641207879749232896,2022-01-03-11:04:39,10.1.1.2,177,-0.240,-0.240,-0.240,0.000,0.000,0.000
1641207879948689920,2022-01-03-11:04:39,10.1.1.2,176,-0.230,-0.230,-0.230,0.000,0.000,0.000
1641207880148945920,2022-01-03-11:04:40,10.1.1.2,176,-0.220,-0.220,-0.220,0.000,0.000,0.000
1641207880347568896,2022-01-03-11:04:40,10.1.1.2,174,-0.210,-0.210,-0.210,0.000,0.000,0.000
1641207880548237056,2022-01-03-11:04:40,10.1.1.2,174,-0.200,-0.200,-0.200,0.000,0.000,0.000
1641207880747543040,2022-01-03-11:04:40,10.1.1.2,172,-0.190,-0.190,-0.190,0.000,0.000,0.000
1641207880947236096,2022-01-03-11:04:40,10.1.1.2,172,-0.180,-0.180,-0.180,0.000,0.000,0.000
1641207881148356864,2022-01-03-11:04:41,10.1.1.2,172,-0.170,-0.170,-0.170,0.000,0.000,0.000
1641207881350102784,2022-01-03-11:04:41,10.1.1.2,172,-0.160,-0.160,-0.160,0.000,0.000,0.000
1641207881549602048,2022-01-03-11:04:41,10.1.1.2,171,-0.150,-0.150,-0.150,0.000,0.000,0.000
1641207881750913024,2022-01-03-11:04:41,10.1.1.2,172,-0.140,-0.140,-0.140,0.000,0.000,0.000
1641207881953999104,2022-01-03-11:04:41,10.1.1.2,174,-0.130,-0.130,-0.130,0.000,0.000,0.000
1641207882166477824,2022-01-03-11:04:42,10.1.1.2,173,-0.120,-0.120,-0.120,0.000,0.000,0.000
1641207882353555968,2022-01-03-11:04:42,10.1.1.2,171,-0.110,-0.110,-0.110,0.000,0.000,0.000
1641207882574793984,2022-01-03-11:04:42,10.1.1.2,180,-0.100,-0.100,-0.100,0.000,0.000,0.000
1641207882775783168,2022-01-03-11:04:42,10.1.1.2,171,-0.090,-0.090,-0.090,0.000,0.000,0.000
1641207882977456128,2022-01-03-11:04:42,10.1.1.2,172,-0.080,-0.080,-0.080,0.000,0.000,0.000
1641207883177614848,2022-01-03-11:04:43,10.1.1.2,172,-0.070,-0.070,-0.070,0.000,0.000,0.000
1641207883378278144,2022-01-03-11:04:43,10.1.1.2,172,-0.060,-0.060,-0.060,0.000,0.000,0.000
1641207883579389184,2022-01-03-11:04:43,10.1.1.2,172,-0.050,-0.050,-0.050,0.000,0.000,0.000
1641207883779323136,2022-01-03-11:04:43,10.1.1.2,172,-0.040,-0.040,-0.040,0.000,0.000,0.000
1641207883982383104,2022-01-03-11:04:43,10.1.1.2,174,-0.030,-0.030,-0.030,0.000,0.000,0.000
1641207884181250048,2022-01-03-11:04:44,10.1.1.2,172,-0.020,-0.020,-0.020,0.000,0.000,0.000
1641207884384662016,2022-01-03-11:04:44,10.1.1.2,175,-0.010,-0.010,-0.010,0.000,0.000,0.000
1641207884582493952,2022-01-03-11:04:44,10.1.1.2,172,0.000,0.000,0.000,0.000,0.000,0.000
1641207884784178944,2022-01-03-11:04:44,10.1.1.2,174,-0.010,-0.010,-0.010,0.000,0.000,0.000
1641207884993952000,2022-01-03-11:04:44,10.1.1.2,182,-0.020,-0.020,-0.020,0.000,0.000,0.000
1641207885204222976,2022-01-03-11:04:45,10.1.1.2,191,-0.030,-0.030,-0.030,0.000,0.000,0.000
1641207885405710080,2022-01-03-11:04:45,10.1.1.2,192,-0.040,-0.040,-0.040,0.000,0.000,0.000
1641207885606120960,2022-01-03-11:04:45,10.1.1.2,191,-0.050,-0.050,-0.050,0.000,0.000,0.000
1641207885813090048,2022-01-03-11:04:45,10.1.1.2,198,-0.060,-0.060,-0.060,0.000,0.000,0.000
1641207886008261888,2022-01-03-11:04:46,10.1.1.2,193,-0.070,-0.070,-0.070,0.000,0.000,0.000
1641207886205975040,2022-01-03-11:04:46,10.1.1.2,190,-0.080,-0.080,-0.080,0.000,0.000,0.000
1641207886414968064,2022-01-03-11:04:46,10.1.1.2,198,-0.090,-0.090,-0.090,0.000,0.000,0.000
1641207886607220992,2022-01-03-11:04:46,10.1.1.2,190,-0.100,-0.100,-0.100,0.000,0.000,0.000
1641207886806818048,2022-01-03-11:04:46,10.1.1.2,189,-0.110,-0.110,-0.110,0.000,0.000,0.000
1641207887007390976,2022-01-03-11:04:47,10.1.1.2,189,-0.120,-0.120,-0.120,0.000,0.000,0.000
1641207887207962112,2022-01-03-11:04:47,10.1.1.2,188,-0.130,-0.130,-0.130,0.000,0.000,0.000
1641207887408310784,2022-01-03-11:04:47,10.1.1.2,188,-0.140,-0.140,-0.140,0.000,0.000,0.000
1641207887608582144,2022-01-03-11:04:47,10.1.1.2,188,-0.150,-0.150,-0.150,0.000,0.000,0.000
1641207887809169920,2022-01-03-11:04:47,10.1.1.2,188,-0.160,-0.160,-0.160,0.000,0.000,0.000
1641207888009131008,2022-01-03-11:04:48,10.1.1.2,188,-0.170,-0.170,-0.170,0.000,0.000,0.000
1641207888209404928,2022-01-03-11:04:48,10.1.1.2,187,-0.180,-0.180,-0.180,0.000,0.000,0.000
1641207888410126848,2022-01-03-11:04:48,10.1.1.2,187,-0.190,-0.190,-0.190,0.000,0.000,0.000
1641207888609232896,2022-01-03-11:04:48,10.1.1.2,186,-0.200,-0.200,-0.200,0.000,0.000,0.000
1641207888810338048,2022-01-03-11:04:48,10.1.1.2,186,-0.210,-0.210,-0.210,0.000,0.000,0.000
1641207889010422016,2022-01-03-11:04:49,10.1.1.2,186,-0.220,-0.220,-0.220,0.000,0.000,0.000
1641207889210395136,2022-01-03-11:04:49,10.1.1.2,185,-0.230,-0.230,-0.230,0.000,0.000,0.000
1641207889410711040,2022-01-03-11:04:49,10.1.1.2,184,-0.240,-0.240,-0.240,0.000,0.000,0.000
1641207889610761984,2022-01-03-11:04:49,10.1.1.2,183,-0.250,-0.250,-0.250,0.000,0.000,0.000
1641207889814737152,2022-01-03-11:04:49,10.1.1.2,187,-0.260,-0.260,-0.260,0.000,0.000,0.000
1641207890011180032,2022-01-03-11:04:50,10.1.1.2,182,-0.270,-0.270,-0.270,0.000,0.000,0.000
1641207890211100928,2022-01-03-11:04:50,10.1.1.2,181,-0.280,-0.280,-0.280,0.000,0.000,0.000
1641207890639697152,2022-01-03-11:04:50,10.1.1.2,197,-0.300,-0.300,-0.300,0.000,0.000,0.000
1641207890831123968,2022-01-03-11:04:50,10.1.1.2,187,-0.310,-0.310,-0.310,0.000,0.000,0.000
1641207891030757888,2022-01-03-11:04:51,10.1.1.2,182,-0.320,-0.320,-0.320,0.000,0.000,0.000
1641207891231110144,2022-01-03-11:04:51,10.1.1.2,181,-0.330,-0.330,-0.330,0.000,0.000,0.000
1641207891433451008,2022-01-03-11:04:51,10.1.1.2,183,-0.340,-0.340,-0.340,0.000,0.000,0.000
1641207891631462144,2022-01-03-11:04:51,10.1.1.2,180,-0.350,-0.350,-0.350,0.000,0.000,0.000
1641207891851885056,2022-01-03-11:04:51,10.1.1.2,200,-0.360,-0.360,-0.360,0.000,0.000,0.000
1641207892052012032,2022-01-03-11:04:52,10.1.1.2,199,-0.370,-0.370,-0.370,0.000,0.000,0.000
1641207892251400960,2022-01-03-11:04:52,10.1.1.2,197,-0.380,-0.380,-0.380,0.000,0.000,0.000
1641207892452131072,2022-01-03-11:04:52,10.1.1.2,197,-0.390,-0.390,-0.390,0.000,0.000,0.000
1641207892650900992,2022-01-03-11:04:52,10.1.1.2,194,-0.400,-0.400,-0.400,0.000,0.000,0.000
1641207892851511040,2022-01-03-11:04:52,10.1.1.2,194,-0.410,-0.410,-0.410,0.000,0.000,0.000
1641207893050603008,2022-01-03-11:04:53,10.1.1.2,192,-0.420,-0.420,-0.420,0.000,0.000,0.000
1641207893251437824,2022-01-03-11:04:53,10.1.1.2,192,-0.430,-0.430,-0.430,0.000,0.000,0.000
1641207893451111936,2022-01-03-11:04:53,10.1.1.2,191,-0.440,-0.440,-0.440,0.000,0.000,0.000
1641207893651526912,2022-01-03-11:04:53,10.1.1.2,191,-0.450,-0.450,-0.450,0.000,0.000,0.000
1641207893850852096,2022-01-03-11:04:53,10.1.1.2,190,-0.460,-0.460,-0.460,0.000,0.000,0.000
1641207894050945024,2022-01-03-11:04:54,10.1.1.2,189,-0.470,-0.470,-0.470,0.000,0.000,0.000
1641207894251131136,2022-01-03-11:04:54,10.1.1.2,188,-0.480,-0.480,-0.480,0.000,0.000,0.000
1641207894450148096,2022-01-03-11:04:54,10.1.1.2,187,-0.490,-0.490,-0.490,0.000,0.000,0.000
1641207894651089920,2022-01-03-11:04:54,10.1.1.2,187,-0.480,-0.480,-0.480,0.000,0.000,0.000
1641207894850571008,2022-01-03-11:04:54,10.1.1.2,186,-0.470,-0.470,-0.470,0.000,0.000,0.000
1641207895050151168,2022-01-03-11:04:55,10.1.1.2,184,-0.460,-0.460,-0.460,0.000,0.000,0.000
1641207895250642176,2022-01-03-11:04:55,10.1.1.2,183,-0.450,-0.450,-0.450,0.000,0.000,0.000
1641207895450450944,2022-01-03-11:04:55,10.1.1.2,182,-0.440,-0.440,-0.440,0.000,0.000,0.000
1641207895649772032,2022-01-03-11:04:55,10.1.1.2,181,-0.430,-0.430,-0.430,0.000,0.000,0.000
1641207895849798912,2022-01-03-11:04:55,10.1.1.2,180,-0.420,-0.420,-0.420,0.000,0.000,0.000
1641207896049335040,2022-01-03-11:04:56,10.1.1.2,179,-0.410,-0.410,-0.410,0.000,0.000,0.000
1641207896249383936,2022-01-03-11:04:56,10.1.1.2,178,-0.400,-0.400,-0.400,0.000,0.000,0.000
1641207896449078016,2022-01-03-11:04:56,10.1.1.2,178,-0.390,-0.390,-0.390,0.000,0.000,0.000
1641207896668800000,2022-01-03-11:04:56,10.1.1.2,195,-0.380,-0.380,-0.380,0.000,0.000,0.000
1641207896869206784,2022-01-03-11:04:56,10.1.1.2,194,-0.370,-0.370,-0.370,0.000,0.000,0.000
1641207897068905984,2022-01-03-11:04:57,10.1.1.2,193,-0.360,-0.360,-0.360,0.000,0.000,0.000
1641207897268845056,2022-01-03-11:04:57,10.1.1.2,193,-0.350,-0.350,-0.350,0.000,0.000,0.000
1641207897468768000,2022-01-03-11:04:57,10.1.1.2,192,-0.340,-0.340,-0.340,0.000,0.000,0.000
1641207897668282112,2022-01-03-11:04:57,10.1.1.2,191,-0.330,-0.330,-0.330,0.000,0.000,0.000
1641207897868745984,2022-01-03-11:04:57,10.1.1.2,190,-0.320,-0.320,-0.320,0.000,0.000,0.000
1641207898068332032,2022-01-03-11:04:58,10.1.1.2,188,-0.310,-0.310,-0.310,0.000,0.000,0.000
1641207898267826944,2022-01-03-11:04:58,10.1.1.2,187,-0.300,-0.300,-0.300,0.000,0.000,0.000
1641207898469881088,2022-01-03-11:04:58,10.1.1.2,188,-0.290,-0.290,-0.290,0.000,0.000,0.000
1641207898667084032,2022-01-03-11:04:58,10.1.1.2,185,-0.280,-0.280,-0.280,0.000,0.000,0.000
1641207898867139072,2022-01-03-11:04:58,10.1.1.2,184,-0.270,-0.270,-0.270,0.000,0.000,0.000
1641207899067704064,2022-01-03-11:04:59,10.1.1.2,183,-0.260,-0.260,-0.260,0.000,0.000,0.000
1641207899267384064,2022-01-03-11:04:59,10.1.1.2,182,-0.250,-0.250,-0.250,0.000,0.000,0.000
1641207899466777088,2022-01-03-11:04:59,10.1.1.2,181,-0.240,-0.240,-0.240,0.000,0.000,0.000
1641207899667414016,2022-01-03-11:04:59,10.1.1.2,180,-0.230,-0.230,-0.230,0.000,0.000,0.000
1641207899866228224,2022-01-03-11:04:59,10.1.1.2,179,-0.220,-0.220,-0.220,0.000,0.000,0.000
1641207900065956096,2022-01-03-11:05:00,10.1.1.2,178,-0.210,-0.210,-0.210,0.000,0.000,0.000
1641207900265670144,2022-01-03-11:05:00,10.1.1.2,176,-0.200,-0.200,-0.200,0.000,0.000,0.000
1641207900465286912,2022-01-03-11:05:00,10.1.1.2,175,-0.190,-0.190,-0.190,0.000,0.000,0.000
1641207900665134848,2022-01-03-11:05:00,10.1.1.2,174,-0.180,-0.180,-0.180,0.000,0.000,0.000
1641207900865462016,2022-01-03-11:05:00,10.1.1.2,174,-0.170,-0.170,-0.170,0.000,0.000,0.000
1641207901085942016,2022-01-03-11:05:01,10.1.1.2,194,-0.160,-0.160,-0.160,0.000,0.000,0.000
1641207901284851200,2022-01-03-11:05:01,10.1.1.2,192,-0.150,-0.150,-0.150,0.000,0.000,0.000
1641207901484221952,2022-01-03-11:05:01,10.1.1.2,190,-0.140,-0.140,-0.140,0.000,0.000,0.000
1641207901684078080,2022-01-03-11:05:01,10.1.1.2,189,-0.130,-0.130,-0.130,0.000,0.000,0.000
1641207901883284992,2022-01-03-11:05:01,10.1.1.2,188,-0.120,-0.120,-0.120,0.000,0.000,0.000
1641207902086468096,2022-01-03-11:05:02,10.1.1.2,190,-0.110,-0.110,-0.110,0.000,0.000,0.000
1641207902283127040,2022-01-03-11:05:02,10.1.1.2,187,-0.100,-0.100,-0.100,0.000,0.000,0.000
1641207902483130880,2022-01-03-11:05:02,10.1.1.2,186,-0.090,-0.090,-0.090,0.000,0.000,0.000
1641207902682290944,2022-01-03-11:05:02,10.1.1.2,184,-0.080,-0.080,-0.080,0.000,0.000,0.000
1641207902884884224,2022-01-03-11:05:02,10.1.1.2,186,-0.070,-0.070,-0.070,0.000,0.000,0.000
1641207903082170112,2022-01-03-11:05:03,10.1.1.2,182,-0.060,-0.060,-0.060,0.000,0.000,0.000
1641207903282392064,2022-01-03-11:05:03,10.1.1.2,182,-0.050,-0.050,-0.050,0.000,0.000,0.000
1641207903482177024,2022-01-03-11:05:03,10.1.1.2,181,-0.040,-0.040,-0.040,0.000,0.000,0.000
1641207903681001984,2022-01-03-11:05:03,10.1.1.2,179,-0.030,-0.030,-0.030,0.000,0.000,0.000
1641207903881128960,2022-01-03-11:05:03,10.1.1.2,179,-0.020,-0.020,-0.020,0.000,0.000,0.000
1641207904080914944,2022-01-03-11:05:04,10.1.1.2,178,-0.010,-0.010,-0.010,0.000,0.000,0.000
1641207904280262912,2022-01-03-11:05:04,10.1.1.2,176,0.000,0.000,0.000,0.000,0.000,0.000
1641207904480643072,2022-01-03-11:05:04,10.1.1.2,176,-0.010,-0.010,-0.010,0.000,0.000,0.000
1641207904680336896,2022-01-03-11:05:04,10.1.1.2,174,-0.020,-0.020,-0.020,0.000,0.000,0.000
1641207904881233920,2022-01-03-11:05:04,10.1.1.2,174,-0.030,-0.030,-0.030,0.000,0.000,0.000
1641207905080389120,2022-01-03-11:05:05,10.1.1.2,173,-0.040,-0.040,-0.040,0.000,0.000,0.000
1641207905279293184,2022-01-03-11:05:05,10.1.1.2,171,-0.050,-0.050,-0.050,0.000,0.000,0.000
1641207905481956096,2022-01-03-11:05:05,10.1.1.2,173,-0.060,-0.060,-0.060,0.000,0.000,0.000
1641207905678745088,2022-01-03-11:05:05,10.1.1.2,169,-0.070,-0.070,-0.070,0.000,0.000,0.000
1641207905878642176,2022-01-03-11:05:05,10.1.1.2,169,-0.080,-0.080,-0.080,0.000,0.000,0.000
1641207906078366976,2022-01-03-11:05:06,10.1.1.2,168,-0.090,-0.090,-0.090,0.000,0.000,0.000
1641207906278413056,2022-01-03-11:05:06,10.1.1.2,167,-0.100,-0.100,-0.100,0.000,0.000,0.000
1641207906497757952,2022-01-03-11:05:06,10.1.1.2,186,-0.110,-0.110,-0.110,0.000,0.000,0.000
1641207906697284864,2022-01-03-11:05:06,10.1.1.2,185,-0.120,-0.120,-0.120,0.000,0.000,0.000
1641207906897228032,2022-01-03-11:05:06,10.1.1.2,184,-0.130,-0.130,-0.130,0.000,0.000,0.000
1641207907097609984,2022-01-03-11:05:07,10.1.1.2,184,-0.140,-0.140,-0.140,0.000,0.000,0.000
1641207907296041984,2022-01-03-11:05:07,10.1.1.2,182,-0.150,-0.150,-0.150,0.000,0.000,0.000
1641207907496340992,2022-01-03-11:05:07,10.1.1.2,181,-0.160,-0.160,-0.160,0.000,0.000,0.000
1641207907695894016,2022-01-03-11:05:07,10.1.1.2,180,-0.170,-0.170,-0.170,0.000,0.000,0.000
1641207907896559872,2022-01-03-11:05:07,10.1.1.2,180,-0.180,-0.180,-0.180,0.000,0.000,0.000
1641207908094928128,2022-01-03-11:05:08,10.1.1.2,177,-0.190,-0.190,-0.190,0.000,0.000,0.000
1641207908295095808,2022-01-03-11:05:08,10.1.1.2,177,-0.200,-0.200,-0.200,0.000,0.000,0.000
1641207908494296064,2022-01-03-11:05:08,10.1.1.2,175,-0.210,-0.210,-0.210,0.000,0.000,0.000
1641207908701512960,2022-01-03-11:05:08,10.1.1.2,182,-0.220,-0.220,-0.220,0.000,0.000,0.000
1641207908893768960,2022-01-03-11:05:08,10.1.1.2,172,-0.230,-0.230,-0.230,0.000,0.000,0.000
1641207909093501952,2022-01-03-11:05:09,10.1.1.2,171,-0.240,-0.240,-0.240,0.000,0.000,0.000
1641207909293312000,2022-01-03-11:05:09,10.1.1.2,170,-0.250,-0.250,-0.250,0.000,0.000,0.000
1641207909492444928,2022-01-03-11:05:09,10.1.1.2,169,-0.260,-0.260,-0.260,0.000,0.000,0.000
1641207909692467968,2022-01-03-11:05:09,10.1.1.2,168,-0.270,-0.270,-0.270,0.000,0.000,0.000
1641207909892976128,2022-01-03-11:05:09,10.1.1.2,168,-0.280,-0.280,-0.280,0.000,0.000,0.000
1641207910092336896,2022-01-03-11:05:10,10.1.1.2,167,-0.290,-0.290,-0.290,0.000,0.000,0.000
1641207910291874816,2022-01-03-11:05:10,10.1.1.2,166,-0.300,-0.300,-0.300,0.000,0.000,0.000
1641207910492278016,2022-01-03-11:05:10,10.1.1.2,166,-0.310,-0.310,-0.310,0.000,0.000,0.000
1641207910691001856,2022-01-03-11:05:10,10.1.1.2,164,-0.320,-0.320,-0.320,0.000,0.000,0.000
1641207910890391040,2022-01-03-11:05:10,10.1.1.2,162,-0.330,-0.330,-0.330,0.000,0.000,0.000
1641207911090373120,2022-01-03-11:05:11,10.1.1.2,161,-0.340,-0.340,-0.340,0.000,0.000,0.000
1641207911289901056,2022-01-03-11:05:11,10.1.1.2,160,-0.350,-0.350,-0.350,0.000,0.000,0.000
1641207911489772032,2022-01-03-11:05:11,10.1.1.2,159,-0.360,-0.360,-0.360,0.000,0.000,0.000
1641207911689490176,2022-01-03-11:05:11,10.1.1.2,158,-0.370,-0.370,-0.370,0.000,0.000,0.000
1641207911909334016,2022-01-03-11:05:11,10.1.1.2,177,-0.380,-0.380,-0.380,0.000,0.000,0.000
1641207912108392960,2022-01-03-11:05:12,10.1.1.2,176,-0.390,-0.390,-0.390,0.000,0.000,0.000
1641207912308214016,2022-01-03-11:05:12,10.1.1.2,175,-0.400,-0.400,-0.400,0.000,0.000,0.000
1641207912508150016,2022-01-03-11:05:12,10.1.1.2,174,-0.410,-0.410,-0.410,0.000,0.000,0.000
1641207912707665920,2022-01-03-11:05:12,10.1.1.2,173,-0.420,-0.420,-0.420,0.000,0.000,0.000
1641207912913536000,2022-01-03-11:05:12,10.1.1.2,178,-0.430,-0.430,-0.430,0.000,0.000,0.000
1641207913106828032,2022-01-03-11:05:13,10.1.1.2,170,-0.440,-0.440,-0.440,0.000,0.000,0.000
1641207913306685952,2022-01-03-11:05:13,10.1.1.2,169,-0.450,-0.450,-0.450,0.000,0.000,0.000
1641207913506758912,2022-01-03-11:05:13,10.1.1.2,168,-0.460,-0.460,-0.460,0.000,0.000,0.000
1641207913705952000,2022-01-03-11:05:13,10.1.1.2,167,-0.470,-0.470,-0.470,0.000,0.000,0.000
1641207913905282048,2022-01-03-11:05:13,10.1.1.2,166,-0.480,-0.480,-0.480,0.000,0.000,0.000
1641207914106251008,2022-01-03-11:05:14,10.1.1.2,165,-0.490,-0.490,-0.490,0.000,0.000,0.000
1641207914307374848,2022-01-03-11:05:14,10.1.1.2,165,-0.480,-0.480,-0.480,0.000,0.000,0.000
1641207914507819776,2022-01-03-11:05:14,10.1.1.2,165,-0.470,-0.470,-0.470,0.000,0.000,0.000
1641207914709507072,2022-01-03-11:05:14,10.1.1.2,166,-0.460,-0.460,-0.460,0.000,0.000,0.000
1641207914911205120,2022-01-03-11:05:14,10.1.1.2,167,-0.450,-0.450,-0.450,0.000,0.000,0.000
1641207915111581184,2022-01-03-11:05:15,10.1.1.2,167,-0.440,-0.440,-0.440,0.000,0.000,0.000
1641207915312484096,2022-01-03-11:05:15,10.1.1.2,167,-0.430,-0.430,-0.430,0.000,0.000,0.000
1641207915514755840,2022-01-03-11:05:15,10.1.1.2,169,-0.420,-0.420,-0.420,0.000,0.000,0.000
1641207915714472960,2022-01-03-11:05:15,10.1.1.2,168,-0.410,-0.410,-0.410,0.000,0.000,0.000
1641207915915846144,2022-01-03-11:05:15,10.1.1.2,169,-0.400,-0.400,-0.400,0.000,0.000,0.000
1641207916116014080,2022-01-03-11:05:16,10.1.1.2,168,-0.390,-0.390,-0.390,0.000,0.000,0.000
1641207916316732928,2022-01-03-11:05:16,10.1.1.2,168,-0.380,-0.380,-0.380,0.000,0.000,0.000
1641207916517287936,2022-01-03-11:05:16,10.1.1.2,168,-0.370,-0.370,-0.370,0.000,0.000,0.000
1641207916718537216,2022-01-03-11:05:16,10.1.1.2,168,-0.360,-0.360,-0.360,0.000,0.000,0.000
1641207916919128832,2022-01-03-11:05:16,10.1.1.2,168,-0.350,-0.350,-0.350,0.000,0.000,0.000
1641207917139965184,2022-01-03-11:05:17,10.1.1.2,187,-0.340,-0.340,-0.340,0.000,0.000,0.000
1641207917340154880,2022-01-03-11:05:17,10.1.1.2,186,-0.330,-0.330,-0.330,0.000,0.000,0.000
1641207917540500992,2022-01-03-11:05:17,10.1.1.2,186,-0.320,-0.320,-0.320,0.000,0.000,0.000
1641207917741027072,2022-01-03-11:05:17,10.1.1.2,186,-0.310,-0.310,-0.310,0.000,0.000,0.000
1641207917941931008,2022-01-03-11:05:17,10.1.1.2,186,-0.300,-0.300,-0.300,0.000,0.000,0.000
1641207918142023168,2022-01-03-11:05:18,10.1.1.2,185,-0.290,-0.290,-0.290,0.000,0.000,0.000
1641207918343442944,2022-01-03-11:05:18,10.1.1.2,186,-0.280,-0.280,-0.280,0.000,0.000,0.000
1641207918544730880,2022-01-03-11:05:18,10.1.1.2,186,-0.270,-0.270,-0.270,0.000,0.000,0.000
1641207918746076160,2022-01-03-11:05:18,10.1.1.2,187,-0.260,-0.260,-0.260,0.000,0.000,0.000
1641207918944740096,2022-01-03-11:05:18,10.1.1.2,185,-0.250,-0.250,-0.250,0.000,0.000,0.000
1641207919144766208,2022-01-03-11:05:19,10.1.1.2,184,-0.240,-0.240,-0.240,0.000,0.000,0.000
1641207919345298176,2022-01-03-11:05:19,10.1.1.2,184,-0.230,-0.230,-0.230,0.000,0.000,0.000
1641207919545646848,2022-01-03-11:05:19,10.1.1.2,184,-0.220,-0.220,-0.220,0.000,0.000,0.000
1641207919745708032,2022-01-03-11:05:19,10.1.1.2,183,-0.210,-0.210,-0.210,0.000,0.000,0.000
1641207919946996992,2022-01-03-11:05:19,10.1.1.2,184,-0.200,-0.200,-0.200,0.000,0.000,0.000
1641207920147479040,2022-01-03-11:05:20,10.1.1.2,183,-0.190,-0.190,-0.190,0.000,0.000,0.000
1641207920349689088,2022-01-03-11:05:20,10.1.1.2,185,-0.180,-0.180,-0.180,0.000,0.000,0.000
1641207920547399936,2022-01-03-11:05:20,10.1.1.2,182,-0.170,-0.170,-0.170,0.000,0.000,0.000
1641207920747586048,2022-01-03-11:05:20,10.1.1.2,182,-0.160,-0.160,-0.160,0.000,0.000,0.000
1641207920948254976,2022-01-03-11:05:20,10.1.1.2,182,-0.150,-0.150,-0.150,0.000,0.000,0.000
1641207921148027904,2022-01-03-11:05:21,10.1.1.2,181,-0.140,-0.140,-0.140,0.000,0.000,0.000
1641207921351068928,2022-01-03-11:05:21,10.1.1.2,184,-0.130,-0.130,-0.130,0.000,0.000,0.000
1641207921549172992,2022-01-03-11:05:21,10.1.1.2,180,-0.120,-0.120,-0.120,0.000,0.000,0.000
1641207921748958976,2022-01-03-11:05:21,10.1.1.2,179,-0.110,-0.110,-0.110,0.000,0.000,0.000
1641207921949559808,2022-01-03-11:05:21,10.1.1.2,179,-0.100,-0.100,-0.100,0.000,0.000,0.000
1641207922169485056,2022-01-03-11:05:22,10.1.1.2,198,-0.090,-0.090,-0.090,0.000,0.000,0.000
1641207922368720896,2022-01-03-11:05:22,10.1.1.2,196,-0.080,-0.080,-0.080,0.000,0.000,0.000
1641207922569200896,2022-01-03-11:05:22,10.1.1.2,195,-0.070,-0.070,-0.070,0.000,0.000,0.000
1641207922769057024,2022-01-03-11:05:22,10.1.1.2,193,-0.060,-0.060,-0.060,0.000,0.000,0.000
1641207922969988096,2022-01-03-11:05:22,10.1.1.2,194,-0.050,-0.050,-0.050,0.000,0.000,0.000
1641207923169639168,2022-01-03-11:05:23,10.1.1.2,193,-0.040,-0.040,-0.040,0.000,0.000,0.000
1641207923369894912,2022-01-03-11:05:23,10.1.1.2,192,-0.030,-0.030,-0.030,0.000,0.000,0.000
1641207923572568832,2022-01-03-11:05:23,10.1.1.2,194,-0.020,-0.020,-0.020,0.000,0.000,0.000
1641207923770305024,2022-01-03-11:05:23,10.1.1.2,190,-0.010,-0.010,-0.010,0.000,0.000,0.000
1641207923970181888,2022-01-03-11:05:23,10.1.1.2,186,0.000,0.000,0.000,0.000,0.000,0.000
1641207924169726976,2022-01-03-11:05:24,10.1.1.2,184,-0.010,-0.010,-0.010,0.000,0.000,0.000
1641207924370185984,2022-01-03-11:05:24,10.1.1.2,184,-0.020,-0.020,-0.020,0.000,0.000,0.000
1641207924570373888,2022-01-03-11:05:24,10.1.1.2,184,-0.030,-0.030,-0.030,0.000,0.000,0.000
1641207924770032896,2022-01-03-11:05:24,10.1.1.2,183,-0.040,-0.040,-0.040,0.000,0.000,0.000
1641207924970413056,2022-01-03-11:05:24,10.1.1.2,182,-0.050,-0.050,-0.050,0.000,0.000,0.000
1641207925170493952,2022-01-03-11:05:25,10.1.1.2,182,-0.060,-0.060,-0.060,0.000,0.000,0.000
1641207925370304000,2022-01-03-11:05:25,10.1.1.2,181,-0.070,-0.070,-0.070,0.000,0.000,0.000
1641207925570955008,2022-01-03-11:05:25,10.1.1.2,181,-0.080,-0.080,-0.080,0.000,0.000,0.000
1641207925770060032,2022-01-03-11:05:25,10.1.1.2,180,-0.090,-0.090,-0.090,0.000,0.000,0.000
1641207925969831936,2022-01-03-11:05:25,10.1.1.2,178,-0.100,-0.100,-0.100,0.000,0.000,0.000
1641207926189753088,2022-01-03-11:05:26,10.1.1.2,197,-0.110,-0.110,-0.110,0.000,0.000,0.000
1641207926389559040,2022-01-03-11:05:26,10.1.1.2,196,-0.120,-0.120,-0.120,0.000,0.000,0.000
1641207926589684992,2022-01-03-11:05:26,10.1.1.2,196,-0.130,-0.130,-0.130,0.000,0.000,0.000
1641207926789946112,2022-01-03-11:05:26,10.1.1.2,195,-0.140,-0.140,-0.140,0.000,0.000,0.000
1641207926990374144,2022-01-03-11:05:26,10.1.1.2,195,-0.150,-0.150,-0.150,0.000,0.000,0.000
1641207927190071040,2022-01-03-11:05:27,10.1.1.2,194,-0.160,-0.160,-0.160,0.000,0.000,0.000
1641207927390362112,2022-01-03-11:05:27,10.1.1.2,194,-0.170,-0.170,-0.170,0.000,0.000,0.000
1641207927589382912,2022-01-03-11:05:27,10.1.1.2,191,-0.180,-0.180,-0.180,0.000,0.000,0.000
1641207927790172928,2022-01-03-11:05:27,10.1.1.2,190,-0.190,-0.190,-0.190,0.000,0.000,0.000
1641207927989384960,2022-01-03-11:05:27,10.1.1.2,190,-0.200,-0.200,-0.200,0.000,0.000,0.000
1641207928189285888,2022-01-03-11:05:28,10.1.1.2,189,-0.210,-0.210,-0.210,0.000,0.000,0.000
1641207928389705984,2022-01-03-11:05:28,10.1.1.2,189,-0.220,-0.220,-0.220,0.000,0.000,0.000
1641207928589639936,2022-01-03-11:05:28,10.1.1.2,188,-0.230,-0.230,-0.230,0.000,0.000,0.000
1641207928789437952,2022-01-03-11:05:28,10.1.1.2,187,-0.240,-0.240,-0.240,0.000,0.000,0.000
1641207928989455104,2022-01-03-11:05:28,10.1.1.2,186,-0.250,-0.250,-0.250,0.000,0.000,0.000
1641207929188678144,2022-01-03-11:05:29,10.1.1.2,185,-0.260,-0.260,-0.260,0.000,0.000,0.000
1641207929388567808,2022-01-03-11:05:29,10.1.1.2,184,-0.270,-0.270,-0.270,0.000,0.000,0.000
1641207929588797952,2022-01-03-11:05:29,10.1.1.2,183,-0.280,-0.280,-0.280,0.000,0.000,0.000
1641207929788631040,2022-01-03-11:05:29,10.1.1.2,183,-0.290,-0.290,-0.290,0.000,0.000,0.000
1641207929988278016,2022-01-03-11:05:29,10.1.1.2,182,-0.300,-0.300,-0.300,0.000,0.000,0.000
1641207930187652096,2022-01-03-11:05:30,10.1.1.2,181,-0.310,-0.310,-0.310,0.000,0.000,0.000
1641207930387671040,2022-01-03-11:05:30,10.1.1.2,180,-0.320,-0.320,-0.320,0.000,0.000,0.000
1641207930587358976,2022-01-03-11:05:30,10.1.1.2,178,-0.330,-0.330,-0.330,0.000,0.000,0.000
1641207930787854848,2022-01-03-11:05:30,10.1.1.2,177,-0.340,-0.340,-0.340,0.000,0.000,0.000
1641207931007406848,2022-01-03-11:05:31,10.1.1.2,196,-0.350,-0.350,-0.350,0.000,0.000,0.000
1641207931208784128,2022-01-03-11:05:31,10.1.1.2,196,-0.360,-0.360,-0.360,0.000,0.000,0.000
1641207931406637056,2022-01-03-11:05:31,10.1.1.2,194,-0.370,-0.370,-0.370,0.000,0.000,0.000
1641207931611144192,2022-01-03-11:05:31,10.1.1.2,198,-0.380,-0.380,-0.380,0.000,0.000,0.000
1641207931806266112,2022-01-03-11:05:31,10.1.1.2,192,-0.390,-0.390,-0.390,0.000,0.000,0.000
1641207932006184192,2022-01-03-11:05:32,10.1.1.2,191,-0.400,-0.400,-0.400,0.000,0.000,0.000
1641207932205565952,2022-01-03-11:05:32,10.1.1.2,189,-0.410,-0.410,-0.410,0.000,0.000,0.000
1641207932406097920,2022-01-03-11:05:32,10.1.1.2,189,-0.420,-0.420,-0.420,0.000,0.000,0.000
1641207932605757952,2022-01-03-11:05:32,10.1.1.2,187,-0.430,-0.430,-0.430,0.000,0.000,0.000
1641207932805346048,2022-01-03-11:05:32,10.1.1.2,186,-0.440,-0.440,-0.440,0.000,0.000,0.000
1641207933005111040,2022-01-03-11:05:33,10.1.1.2,186,-0.450,-0.450,-0.450,0.000,0.000,0.000
1641207933204371968,2022-01-03-11:05:33,10.1.1.2,184,-0.460,-0.460,-0.460,0.000,0.000,0.000
1641207933404916992,2022-01-03-11:05:33,10.1.1.2,184,-0.470,-0.470,-0.470,0.000,0.000,0.000
1641207933604686080,2022-01-03-11:05:33,10.1.1.2,183,-0.480,-0.480,-0.480,0.000,0.000,0.000
1641207933804243200,2022-01-03-11:05:33,10.1.1.2,182,-0.490,-0.490,-0.490,0.000,0.000,0.000
1641207934004396032,2022-01-03-11:05:34,10.1.1.2,181,-0.480,-0.480,-0.480,0.000,0.000,0.000
1641207934203891968,2022-01-03-11:05:34,10.1.1.2,180,-0.470,-0.470,-0.470,0.000,0.000,0.000
1641207934402900992,2022-01-03-11:05:34,10.1.1.2,177,-0.460,-0.460,-0.460,0.000,0.000,0.000
1641207934602752000,2022-01-03-11:05:34,10.1.1.2,176,-0.450,-0.450,-0.450,0.000,0.000,0.000
1641207934802763008,2022-01-03-11:05:34,10.1.1.2,176,-0.440,-0.440,-0.440,0.000,0.000,0.000
1641207935002535936,2022-01-03-11:05:35,10.1.1.2,175,-0.430,-0.430,-0.430,0.000,0.000,0.000
1641207935202522112,2022-01-03-11:05:35,10.1.1.2,174,-0.420,-0.420,-0.420,0.000,0.000,0.000
1641207935402232832,2022-01-03-11:05:35,10.1.1.2,173,-0.410,-0.410,-0.410,0.000,0.000,0.000
1641207935601427968,2022-01-03-11:05:35,10.1.1.2,172,-0.400,-0.400,-0.400,0.000,0.000,0.000
1641207935801762048,2022-01-03-11:05:35,10.1.1.2,172,-0.390,-0.390,-0.390,0.000,0.000,0.000
1641207936001616896,2022-01-03-11:05:36,10.1.1.2,171,-0.380,-0.380,-0.380,0.000,0.000,0.000
1641207936202743040,2022-01-03-11:05:36,10.1.1.2,172,-0.370,-0.370,-0.370,0.000,0.000,0.000
1641207936420683008,2022-01-03-11:05:36,10.1.1.2,189,-0.360,-0.360,-0.360,0.000,0.000,0.000
1641207936622825984,2022-01-03-11:05:36,10.1.1.2,190,-0.350,-0.350,-0.350,0.000,0.000,0.000
1641207936820018944,2022-01-03-11:05:36,10.1.1.2,186,-0.340,-0.340,-0.340,0.000,0.000,0.000
1641207937019642112,2022-01-03-11:05:37,10.1.1.2,185,-0.330,-0.330,-0.330,0.000,0.000,0.000
1641207937219609856,2022-01-03-11:05:37,10.1.1.2,185,-0.320,-0.320,-0.320,0.000,0.000,0.000
1641207937422112000,2022-01-03-11:05:37,10.1.1.2,187,-0.310,-0.310,-0.310,0.000,0.000,0.000
1641207937618958848,2022-01-03-11:05:37,10.1.1.2,183,-0.300,-0.300,-0.300,0.000,0.000,0.000
1641207937819403008,2022-01-03-11:05:37,10.1.1.2,182,-0.290,-0.290,-0.290,0.000,0.000,0.000
1641207938018318848,2022-01-03-11:05:38,10.1.1.2,181,-0.280,-0.280,-0.280,0.000,0.000,0.000
1641207938218347008,2022-01-03-11:05:38,10.1.1.2,180,-0.270,-0.270,-0.270,0.000,0.000,0.000
1641207938417916928,2022-01-03-11:05:38,10.1.1.2,179,-0.260,-0.260,-0.260,0.000,0.000,0.000
1641207938617692928,2022-01-03-11:05:38,10.1.1.2,178,-0.250,-0.250,-0.250,0.000,0.000,0.000
1641207938818039808,2022-01-03-11:05:38,10.1.1.2,177,-0.240,-0.240,-0.240,0.000,0.000,0.000
1641207939017137152,2022-01-03-11:05:39,10.1.1.2,175,-0.230,-0.230,-0.230,0.000,0.000,0.000
1641207939216846848,2022-01-03-11:05:39,10.1.1.2,174,-0.220,-0.220,-0.220,0.000,0.000,0.000
1641207939416457984,2022-01-03-11:05:39,10.1.1.2,173,-0.210,-0.210,-0.210,0.000,0.000,0.000
1641207939616126976,2022-01-03-11:05:39,10.1.1.2,172,-0.200,-0.200,-0.200,0.000,0.000,0.000
1641207939815907072,2022-01-03-11:05:39,10.1.1.2,172,-0.190,-0.190,-0.190,0.000,0.000,0.000
1641207940015597056,2022-01-03-11:05:40,10.1.1.2,170,-0.180,-0.180,-0.180,0.000,0.000,0.000
1641207940217701888,2022-01-03-11:05:40,10.1.1.2,172,-0.170,-0.170,-0.170,0.000,0.000,0.000
1641207940415070976,2022-01-03-11:05:40,10.1.1.2,169,-0.160,-0.160,-0.160,0.000,0.000,0.000
1641207940614594048,2022-01-03-11:05:40,10.1.1.2,168,-0.150,-0.150,-0.150,0.000,0.000,0.000
1641207940814696960,2022-01-03-11:05:40,10.1.1.2,167,-0.140,-0.140,-0.140,0.000,0.000,0.000
1641207941014478080,2022-01-03-11:05:41,10.1.1.2,166,-0.130,-0.130,-0.130,0.000,0.000,0.000
1641207941214039040,2022-01-03-11:05:41,10.1.1.2,164,-0.120,-0.120,-0.120,0.000,0.000,0.000
1641207941413531136,2022-01-03-11:05:41,10.1.1.2,163,-0.110,-0.110,-0.110,0.000,0.000,0.000
1641207941614688000,2022-01-03-11:05:41,10.1.1.2,163,-0.100,-0.100,-0.100,0.000,0.000,0.000
1641207941833611008,2022-01-03-11:05:41,10.1.1.2,181,-0.090,-0.090,-0.090,0.000,0.000,0.000
1641207942032660992,2022-01-03-11:05:42,10.1.1.2,180,-0.080,-0.080,-0.080,0.000,0.000,0.000
1641207942232508928,2022-01-03-11:05:42,10.1.1.2,179,-0.070,-0.070,-0.070,0.000,0.000,0.000
1641207942432238080,2022-01-03-11:05:42,10.1.1.2,177,-0.060,-0.060,-0.060,0.000,0.000,0.000
1641207942645816064,2022-01-03-11:05:42,10.1.1.2,190,-0.050,-0.050,-0.050,0.000,0.000,0.000
1641207942831595776,2022-01-03-11:05:42,10.1.1.2,175,-0.040,-0.040,-0.040,0.000,0.000,0.000
1641207943031002880,2022-01-03-11:05:43,10.1.1.2,174,-0.030,-0.030,-0.030,0.000,0.000,0.000
1641207943231225856,2022-01-03-11:05:43,10.1.1.2,173,-0.020,-0.020,-0.020,0.000,0.000,0.000
1641207943430424832,2022-01-03-11:05:43,10.1.1.2,170,-0.010,-0.010,-0.010,0.000,0.000,0.000
1641207943630908928,2022-01-03-11:05:43,10.1.1.2,170,0.000,0.000,0.000,0.000,0.000,0.000
1641207943829320960,2022-01-03-11:05:43,10.1.1.2,168,-0.010,-0.010,-0.010,0.000,0.000,0.000
1641207944029319936,2022-01-03-11:05:44,10.1.1.2,167,-0.020,-0.020,-0.020,0.000,0.000,0.000
1641207944229224960,2022-01-03-11:05:44,10.1.1.2,166,-0.030,-0.030,-0.030,0.000,0.000,0.000
1641207944428451072,2022-01-03-11:05:44,10.1.1.2,164,-0.040,-0.040,-0.040,0.000,0.000,0.000
1641207944633382912,2022-01-03-11:05:44,10.1.1.2,168,-0.050,-0.050,-0.050,0.000,0.000,0.000
1641207944848512768,2022-01-03-11:05:44,10.1.1.2,175,-0.060,-0.060,-0.060,0.000,0.000,0.000
1641207945047774976,2022-01-03-11:05:45,10.1.1.2,173,-0.070,-0.070,-0.070,0.000,0.000,0.000
1641207945247822080,2022-01-03-11:05:45,10.1.1.2,172,-0.080,-0.080,-0.080,0.000,0.000,0.000
1641207945447315968,2022-01-03-11:05:45,10.1.1.2,171,-0.090,-0.090,-0.090,0.000,0.000,0.000
1641207945647183872,2022-01-03-11:05:45,10.1.1.2,169,-0.100,-0.100,-0.100,0.000,0.000,0.000
1641207945847021056,2022-01-03-11:05:45,10.1.1.2,169,-0.110,-0.110,-0.110,0.000,0.000,0.000
1641207946050700032,2022-01-03-11:05:46,10.1.1.2,172,-0.120,-0.120,-0.120,0.000,0.000,0.000
1641207946248467968,2022-01-03-11:05:46,10.1.1.2,168,-0.130,-0.130,-0.130,0.000,0.000,0.000
1641207946449174784,2022-01-03-11:05:46,10.1.1.2,169,-0.140,-0.140,-0.140,0.000,0.000,0.000
1641207946649511936,2022-01-03-11:05:46,10.1.1.2,169,-0.150,-0.150,-0.150,0.000,0.000,0.000
1641207946850572032,2022-01-03-11:05:46,10.1.1.2,169,-0.160,-0.160,-0.160,0.000,0.000,0.000
1641207947051918080,2022-01-03-11:05:47,10.1.1.2,170,-0.170,-0.170,-0.170,0.000,0.000,0.000
1641207947252365056,2022-01-03-11:05:47,10.1.1.2,169,-0.180,-0.180,-0.180,0.000,0.000,0.000
1641207947453564928,2022-01-03-11:05:47,10.1.1.2,170,-0.190,-0.190,-0.190,0.000,0.000,0.000
1641207947655750144,2022-01-03-11:05:47,10.1.1.2,171,-0.200,-0.200,-0.200,0.000,0.000,0.000
1641207947855369984,2022-01-03-11:05:47,10.1.1.2,170,-0.210,-0.210,-0.210,0.000,0.000,0.000
1641207948056491008,2022-01-03-11:05:48,10.1.1.2,170,-0.220,-0.220,-0.220,0.000,0.000,0.000
1641207948256838912,2022-01-03-11:05:48,10.1.1.2,169,-0.230,-0.230,-0.230,0.000,0.000,0.000
1641207948457683200,2022-01-03-11:05:48,10.1.1.2,168,-0.240,-0.240,-0.240,0.000,0.000,0.000
1641207948658212864,2022-01-03-11:05:48,10.1.1.2,168,-0.250,-0.250,-0.250,0.000,0.000,0.000
1641207949080595968,2022-01-03-11:05:49,10.1.1.2,187,-0.270,-0.270,-0.270,0.000,0.000,0.000
1641207949281153792,2022-01-03-11:05:49,10.1.1.2,186,-0.280,-0.280,-0.280,0.000,0.000,0.000
1641207949481786880,2022-01-03-11:05:49,10.1.1.2,185,-0.290,-0.290,-0.290,0.000,0.000,0.000
1641207949681579008,2022-01-03-11:05:49,10.1.1.2,184,-0.300,-0.300,-0.300,0.000,0.000,0.000
1641207949882204160,2022-01-03-11:05:49,10.1.1.2,184,-0.310,-0.310,-0.310,0.000,0.000,0.000
1641207950083193088,2022-01-03-11:05:50,10.1.1.2,185,-0.320,-0.320,-0.320,0.000,0.000,0.000
1641207950283796992,2022-01-03-11:05:50,10.1.1.2,185,-0.330,-0.330,-0.330,0.000,0.000,0.000
1641207950484608768,2022-01-03-11:05:50,10.1.1.2,185,-0.340,-0.340,-0.340,0.000,0.000,0.000
1641207950684644864,2022-01-03-11:05:50,10.1.1.2,184,-0.350,-0.350,-0.350,0.000,0.000,0.000
1641207950884488960,2022-01-03-11:05:50,10.1.1.2,183,-0.360,-0.360,-0.360,0.000,0.000,0.000
1641207951086461184,2022-01-03-11:05:51,10.1.1.2,184,-0.370,-0.370,-0.370,0.000,0.000,0.000
1641207951286138112,2022-01-03-11:05:51,10.1.1.2,183,-0.380,-0.380,-0.380,0.000,0.000,0.000
1641207951486265856,2022-01-03-11:05:51,10.1.1.2,181,-0.390,-0.390,-0.390,0.000,0.000,0.000
1641207951687584000,2022-01-03-11:05:51,10.1.1.2,181,-0.400,-0.400,-0.400,0.000,0.000,0.000
1641207951886564864,2022-01-03-11:05:51,10.1.1.2,178,-0.410,-0.410,-0.410,0.000,0.000,0.000
1641207952091092224,2022-01-03-11:05:52,10.1.1.2,179,-0.420,-0.420,-0.420,0.000,0.000,0.000
1641207952287667968,2022-01-03-11:05:52,10.1.1.2,178,-0.430,-0.430,-0.430,0.000,0.000,0.000
1641207952487644928,2022-01-03-11:05:52,10.1.1.2,177,-0.440,-0.440,-0.440,0.000,0.000,0.000
1641207952687848960,2022-01-03-11:05:52,10.1.1.2,176,-0.450,-0.450,-0.450,0.000,0.000,0.000
1641207952907922944,2022-01-03-11:05:52,10.1.1.2,196,-0.460,-0.460,-0.460,0.000,0.000,0.000
1641207953112126976,2022-01-03-11:05:53,10.1.1.2,196,-0.470,-0.470,-0.470,0.000,0.000,0.000
1641207953309184000,2022-01-03-11:05:53,10.1.1.2,194,-0.480,-0.480,-0.480,0.000,0.000,0.000
1641207953508943104,2022-01-03-11:05:53,10.1.1.2,194,-0.490,-0.490,-0.490,0.000,0.000,0.000
1641207953709422080,2022-01-03-11:05:53,10.1.1.2,193,-0.480,-0.480,-0.480,0.000,0.000,0.000
1641207953909534976,2022-01-03-11:05:53,10.1.1.2,190,-0.470,-0.470,-0.470,0.000,0.000,0.000
1641207954109916928,2022-01-03-11:05:54,10.1.1.2,190,-0.460,-0.460,-0.460,0.000,0.000,0.000
1641207954312107008,2022-01-03-11:05:54,10.1.1.2,191,-0.450,-0.450,-0.450,0.000,0.000,0.000
1641207954510523136,2022-01-03-11:05:54,10.1.1.2,188,-0.440,-0.440,-0.440,0.000,0.000,0.000
1641207954709673984,2022-01-03-11:05:54,10.1.1.2,187,-0.430,-0.430,-0.430,0.000,0.000,0.000
1641207954909813760,2022-01-03-11:05:54,10.1.1.2,187,-0.420,-0.420,-0.420,0.000,0.000,0.000
1641207955110177024,2022-01-03-11:05:55,10.1.1.2,187,-0.410,-0.410,-0.410,0.000,0.000,0.000
1641207955310162176,2022-01-03-11:05:55,10.1.1.2,186,-0.400,-0.400,-0.400,0.000,0.000,0.000
1641207955510208000,2022-01-03-11:05:55,10.1.1.2,185,-0.390,-0.390,-0.390,0.000,0.000,0.000
1641207955710191872,2022-01-03-11:05:55,10.1.1.2,185,-0.380,-0.380,-0.380,0.000,0.000,0.000
1641207955910678016,2022-01-03-11:05:55,10.1.1.2,184,-0.370,-0.370,-0.370,0.000,0.000,0.000
1641207956110939904,2022-01-03-11:05:56,10.1.1.2,184,-0.360,-0.360,-0.360,0.000,0.000,0.000
1641207956310679808,2022-01-03-11:05:56,10.1.1.2,183,-0.350,-0.350,-0.350,0.000,0.000,0.000
1641207956510180096,2022-01-03-11:05:56,10.1.1.2,181,-0.340,-0.340,-0.340,0.000,0.000,0.000
1641207956710550016,2022-01-03-11:05:56,10.1.1.2,181,-0.330,-0.330,-0.330,0.000,0.000,0.000
1641207956910330112,2022-01-03-11:05:56,10.1.1.2,180,-0.320,-0.320,-0.320,0.000,0.000,0.000
1641207957110153984,2022-01-03-11:05:57,10.1.1.2,179,-0.310,-0.310,-0.310,0.000,0.000,0.000
1641207957330436096,2022-01-03-11:05:57,10.1.1.2,199,-0.300,-0.300,-0.300,0.000,0.000,0.000
1641207957532936960,2022-01-03-11:05:57,10.1.1.2,199,-0.290,-0.290,-0.290,0.000,0.000,0.000
1641207957730846976,2022-01-03-11:05:57,10.1.1.2,197,-0.280,-0.280,-0.280,0.000,0.000,0.000
1641207957930500096,2022-01-03-11:05:57,10.1.1.2,196,-0.270,-0.270,-0.270,0.000,0.000,0.000
1641207958130656000,2022-01-03-11:05:58,10.1.1.2,194,-0.260,-0.260,-0.260,0.000,0.000,0.000
1641207958332161024,2022-01-03-11:05:58,10.1.1.2,195,-0.250,-0.250,-0.250,0.000,0.000,0.000
1641207958531308032,2022-01-03-11:05:58,10.1.1.2,193,-0.240,-0.240,-0.240,0.000,0.000,0.000
1641207958730195968,2022-01-03-11:05:58,10.1.1.2,192,-0.230,-0.230,-0.230,0.000,0.000,0.000
1641207958929936896,2022-01-03-11:05:58,10.1.1.2,191,-0.220,-0.220,-0.220,0.000,0.000,0.000
1641207959130351104,2022-01-03-11:05:59,10.1.1.2,191,-0.210,-0.210,-0.210,0.000,0.000,0.000
1641207959330342912,2022-01-03-11:05:59,10.1.1.2,190,-0.200,-0.200,-0.200,0.000,0.000,0.000
1641207959530710016,2022-01-03-11:05:59,10.1.1.2,190,-0.190,-0.190,-0.190,0.000,0.000,0.000
1641207959730139136,2022-01-03-11:05:59,10.1.1.2,189,-0.180,-0.180,-0.180,0.000,0.000,0.000
1641207959929516032,2022-01-03-11:05:59,10.1.1.2,188,-0.170,-0.170,-0.170,0.000,0.000,0.000
1641207960130503936,2022-01-03-11:06:00,10.1.1.2,188,-0.160,-0.160,-0.160,0.000,0.000,0.000
1641207960330177024,2022-01-03-11:06:00,10.1.1.2,187,-0.150,-0.150,-0.150,0.000,0.000,0.000
1641207960529884928,2022-01-03-11:06:00,10.1.1.2,186,-0.140,-0.140,-0.140,0.000,0.000,0.000
1641207960729949952,2022-01-03-11:06:00,10.1.1.2,185,-0.130,-0.130,-0.130,0.000,0.000,0.000
1641207960932950016,2022-01-03-11:06:00,10.1.1.2,187,-0.120,-0.120,-0.120,0.000,0.000,0.000
1641207961129039104,2022-01-03-11:06:01,10.1.1.2,182,-0.110,-0.110,-0.110,0.000,0.000,0.000
1641207961328861952,2022-01-03-11:06:01,10.1.1.2,181,-0.100,-0.100,-0.100,0.000,0.000,0.000
1641207961528916992,2022-01-03-11:06:01,10.1.1.2,181,-0.090,-0.090,-0.090,0.000,0.000,0.000
1641207961728656896,2022-01-03-11:06:01,10.1.1.2,180,-0.080,-0.080,-0.080,0.000,0.000,0.000
1641207961928595968,2022-01-03-11:06:01,10.1.1.2,178,-0.070,-0.070,-0.070,0.000,0.000,0.000
1641207962134126848,2022-01-03-11:06:02,10.1.1.2,183,-0.060,-0.060,-0.060,0.000,0.000,0.000
1641207962348180992,2022-01-03-11:06:02,10.1.1.2,196,-0.050,-0.050,-0.050,0.000,0.000,0.000
1641207962547837952,2022-01-03-11:06:02,10.1.1.2,195,-0.040,-0.040,-0.040,0.000,0.000,0.000
1641207962747965952,2022-01-03-11:06:02,10.1.1.2,195,-0.030,-0.030,-0.030,0.000,0.000,0.000
1641207962948118016,2022-01-03-11:06:02,10.1.1.2,194,-0.020,-0.020,-0.020,0.000,0.000,0.000
1641207963147289088,2022-01-03-11:06:03,10.1.1.2,193,-0.010,-0.010,-0.010,0.000,0.000,0.000
1641207963347574016,2022-01-03-11:06:03,10.1.1.2,192,0.000,0.000,0.000,0.000,0.000,0.000
1641207963547228928,2022-01-03-11:06:03,10.1.1.2,192,-0.010,-0.010,-0.010,0.000,0.000,0.000
1641207963747212032,2022-01-03-11:06:03,10.1.1.2,191,-0.020,-0.020,-0.020,0.000,0.000,0.000
1641207963946819072,2022-01-03-11:06:03,10.1.1.2,190,-0.030,-0.030,-0.030,0.000,0.000,0.000
1641207964146514944,2022-01-03-11:06:04,10.1.1.2,190,-0.040,-0.040,-0.040,0.000,0.000,0.000
1641207964346217984,2022-01-03-11:06:04,10.1.1.2,189,-0.050,-0.050,-0.050,0.000,0.000,0.000
1641207964548839936,2022-01-03-11:06:04,10.1.1.2,191,-0.060,-0.060,-0.060,0.000,0.000,0.000
1641207964747298048,2022-01-03-11:06:04,10.1.1.2,189,-0.070,-0.070,-0.070,0.000,0.000,0.000
1641207964945558016,2022-01-03-11:06:04,10.1.1.2,186,-0.080,-0.080,-0.080,0.000,0.000,0.000
1641207965144916992,2022-01-03-11:06:05,10.1.1.2,185,-0.090,-0.090,-0.090,0.000,0.000,0.000
1641207965345165056,2022-01-03-11:06:05,10.1.1.2,185,-0.100,-0.100,-0.100,0.000,0.000,0.000
1641207965544566016,2022-01-03-11:06:05,10.1.1.2,183,-0.110,-0.110,-0.110,0.000,0.000,0.000
1641207965745645056,2022-01-03-11:06:05,10.1.1.2,184,-0.120,-0.120,-0.120,0.000,0.000,0.000
1641207965944339968,2022-01-03-11:06:05,10.1.1.2,182,-0.130,-0.130,-0.130,0.000,0.000,0.000
1641207966145991936,2022-01-03-11:06:06,10.1.1.2,183,-0.140,-0.140,-0.140,0.000,0.000,0.000
1641207966355070208,2022-01-03-11:06:06,10.1.1.2,192,-0.150,-0.150,-0.150,0.000,0.000,0.000
1641207966544462080,2022-01-03-11:06:06,10.1.1.2,180,-0.160,-0.160,-0.160,0.000,0.000,0.000
1641207966743515904,2022-01-03-11:06:06,10.1.1.2,179,-0.170,-0.170,-0.170,0.000,0.000,0.000
1641207966942846976,2022-01-03-11:06:06,10.1.1.2,178,-0.180,-0.180,-0.180,0.000,0.000,0.000
1641207967142683904,2022-01-03-11:06:07,10.1.1.2,177,-0.190,-0.190,-0.190,0.000,0.000,0.000
1641207967342212864,2022-01-03-11:06:07,10.1.1.2,176,-0.200,-0.200,-0.200,0.000,0.000,0.000
1641207967542598912,2022-01-03-11:06:07,10.1.1.2,175,-0.210,-0.210,-0.210,0.000,0.000,0.000
1641207967742910976,2022-01-03-11:06:07,10.1.1.2,175,-0.220,-0.220,-0.220,0.000,0.000,0.000
1641207967941863936,2022-01-03-11:06:07,10.1.1.2,173,-0.230,-0.230,-0.230,0.000,0.000,0.000
1641207968142707968,2022-01-03-11:06:08,10.1.1.2,173,-0.240,-0.240,-0.240,0.000,0.000,0.000
1641207968343902208,2022-01-03-11:06:08,10.1.1.2,174,-0.250,-0.250,-0.250,0.000,0.000,0.000
1641207968541336064,2022-01-03-11:06:08,10.1.1.2,171,-0.260,-0.260,-0.260,0.000,0.000,0.000
1641207968760780032,2022-01-03-11:06:08,10.1.1.2,188,-0.270,-0.270,-0.270,0.000,0.000,0.000
1641207968960925952,2022-01-03-11:06:08,10.1.1.2,188,-0.280,-0.280,-0.280,0.000,0.000,0.000
1641207969161393920,2022-01-03-11:06:09,10.1.1.2,188,-0.290,-0.290,-0.290,0.000,0.000,0.000
1641207969360312064,2022-01-03-11:06:09,10.1.1.2,186,-0.300,-0.300,-0.300,0.000,0.000,0.000
1641207969563203072,2022-01-03-11:06:09,10.1.1.2,188,-0.310,-0.310,-0.310,0.000,0.000,0.000
1641207969759345152,2022-01-03-11:06:09,10.1.1.2,184,-0.320,-0.320,-0.320,0.000,0.000,0.000
1641207969959492096,2022-01-03-11:06:09,10.1.1.2,184,-0.330,-0.330,-0.330,0.000,0.000,0.000
1641207970159044864,2022-01-03-11:06:10,10.1.1.2,183,-0.340,-0.340,-0.340,0.000,0.000,0.000
1641207970358448128,2022-01-03-11:06:10,10.1.1.2,182,-0.350,-0.350,-0.350,0.000,0.000,0.000
1641207970558036992,2022-01-03-11:06:10,10.1.1.2,180,-0.360,-0.360,-0.360,0.000,0.000,0.000
1641207970758692096,2022-01-03-11:06:10,10.1.1.2,181,-0.370,-0.370,-0.370,0.000,0.000,0.000
1641207970957699072,2022-01-03-11:06:10,10.1.1.2,179,-0.380,-0.380,-0.380,0.000,0.000,0.000
1641207971157527040,2022-01-03-11:06:11,10.1.1.2,178,-0.390,-0.390,-0.390,0.000,0.000,0.000
1641207971356924160,2022-01-03-11:06:11,10.1.1.2,177,-0.400,-0.400,-0.400,0.000,0.000,0.000
1641207971556806144,2022-01-03-11:06:11,10.1.1.2,176,-0.410,-0.410,-0.410,0.000,0.000,0.000
1641207971756325888,2022-01-03-11:06:11,10.1.1.2,175,-0.420,-0.420,-0.420,0.000,0.000,0.000
1641207971956513024,2022-01-03-11:06:11,10.1.1.2,174,-0.430,-0.430,-0.430,0.000,0.000,0.000
1641207972156088064,2022-01-03-11:06:12,10.1.1.2,173,-0.440,-0.440,-0.440,0.000,0.000,0.000
1641207972354981888,2022-01-03-11:06:12,10.1.1.2,172,-0.450,-0.450,-0.450,0.000,0.000,0.000
1641207972555320064,2022-01-03-11:06:12,10.1.1.2,171,-0.460,-0.460,-0.460,0.000,0.000,0.000
1641207972755454976,2022-01-03-11:06:12,10.1.1.2,170,-0.470,-0.470,-0.470,0.000,0.000,0.000
1641207972954490880,2022-01-03-11:06:12,10.1.1.2,169,-0.480,-0.480,-0.480,0.000,0.000,0.000
1641207973156409856,2022-01-03-11:06:13,10.1.1.2,170,-0.490,-0.490,-0.490,0.000,0.000,0.000
1641207973354265856,2022-01-03-11:06:13,10.1.1.2,167,-0.480,-0.480,-0.480,0.000,0.000,0.000
1641207973554339840,2022-01-03-11:06:13,10.1.1.2,167,-0.470,-0.470,-0.470,0.000,0.000,0.000
1641207973753305856,2022-01-03-11:06:13,10.1.1.2,166,-0.460,-0.460,-0.460,0.000,0.000,0.000
1641207973952891136,2022-01-03-11:06:13,10.1.1.2,165,-0.450,-0.450,-0.450,0.000,0.000,0.000
1641207974152566784,2022-01-03-11:06:14,10.1.1.2,164,-0.440,-0.440,-0.440,0.000,0.000,0.000
1641207974352064000,2022-01-03-11:06:14,10.1.1.2,163,-0.430,-0.430,-0.430,0.000,0.000,0.000
1641207974551974912,2022-01-03-11:06:14,10.1.1.2,162,-0.420,-0.420,-0.420,0.000,0.000,0.000
1641207974751843072,2022-01-03-11:06:14,10.1.1.2,161,-0.410,-0.410,-0.410,0.000,0.000,0.000
1641207974951493120,2022-01-03-11:06:14,10.1.1.2,161,-0.400,-0.400,-0.400,0.000,0.000,0.000
1641207975151415040,2022-01-03-11:06:15,10.1.1.2,160,-0.390,-0.390,-0.390,0.000,0.000,0.000
1641207975370754048,2022-01-03-11:06:15,10.1.1.2,179,-0.380,-0.380,-0.380,0.000,0.000,0.000
1641207975570866176,2022-01-03-11:06:15,10.1.1.2,178,-0.370,-0.370,-0.370,0.000,0.000,0.000
1641207975770172160,2022-01-03-11:06:15,10.1.1.2,170,-0.360,-0.360,-0.360,0.000,0.000,0.000
1641207975970010112,2022-01-03-11:06:15,10.1.1.2,169,-0.350,-0.350,-0.350,0.000,0.000,0.000
1641207976169622016,2022-01-03-11:06:16,10.1.1.2,168,-0.340,-0.340,-0.340,0.000,0.000,0.000
1641207976374469120,2022-01-03-11:06:16,10.1.1.2,173,-0.330,-0.330,-0.330,0.000,0.000,0.000
1641207976568950016,2022-01-03-11:06:16,10.1.1.2,167,-0.320,-0.320,-0.320,0.000,0.000,0.000
1641207976768873984,2022-01-03-11:06:16,10.1.1.2,166,-0.310,-0.310,-0.310,0.000,0.000,0.000
1641207976968920832,2022-01-03-11:06:16,10.1.1.2,165,-0.300,-0.300,-0.300,0.000,0.000,0.000
1641207977169466880,2022-01-03-11:06:17,10.1.1.2,165,-0.290,-0.290,-0.290,0.000,0.000,0.000
1641207977367373056,2022-01-03-11:06:17,10.1.1.2,162,-0.280,-0.280,-0.280,0.000,0.000,0.000
1641207977567550976,2022-01-03-11:06:17,10.1.1.2,162,-0.270,-0.270,-0.270,0.000,0.000,0.000
1641207977766771200,2022-01-03-11:06:17,10.1.1.2,160,-0.260,-0.260,-0.260,0.000,0.000,0.000
1641207977966654976,2022-01-03-11:06:17,10.1.1.2,158,-0.250,-0.250,-0.250,0.000,0.000,0.000
1641207978168692224,2022-01-03-11:06:18,10.1.1.2,159,-0.240,-0.240,-0.240,0.000,0.000,0.000
1641207978368564992,2022-01-03-11:06:18,10.1.1.2,159,-0.230,-0.230,-0.230,0.000,0.000,0.000
1641207978569972992,2022-01-03-11:06:18,10.1.1.2,159,-0.220,-0.220,-0.220,0.000,0.000,0.000
1641207978771131904,2022-01-03-11:06:18,10.1.1.2,160,-0.210,-0.210,-0.210,0.000,0.000,0.000
1641207978973228032,2022-01-03-11:06:18,10.1.1.2,162,-0.200,-0.200,-0.200,0.000,0.000,0.000
1641207979193000192,2022-01-03-11:06:19,10.1.1.2,181,-0.190,-0.190,-0.190,0.000,0.000,0.000
1641207979393824000,2022-01-03-11:06:19,10.1.1.2,182,-0.180,-0.180,-0.180,0.000,0.000,0.000
1641207979595049984,2022-01-03-11:06:19,10.1.1.2,182,-0.170,-0.170,-0.170,0.000,0.000,0.000
1641207979795229952,2022-01-03-11:06:19,10.1.1.2,182,-0.160,-0.160,-0.160,0.000,0.000,0.000
1641207979996811008,2022-01-03-11:06:19,10.1.1.2,183,-0.150,-0.150,-0.150,0.000,0.000,0.000
1641207980197366016,2022-01-03-11:06:20,10.1.1.2,183,-0.140,-0.140,-0.140,0.000,0.000,0.000
1641207980397916160,2022-01-03-11:06:20,10.1.1.2,183,-0.130,-0.130,-0.130,0.000,0.000,0.000
1641207980598393088,2022-01-03-11:06:20,10.1.1.2,183,-0.120,-0.120,-0.120,0.000,0.000,0.000
1641207980801063168,2022-01-03-11:06:20,10.1.1.2,183,-0.110,-0.110,-0.110,0.000,0.000,0.000
1641207981000230144,2022-01-03-11:06:21,10.1.1.2,183,-0.100,-0.100,-0.100,0.000,0.000,0.000
1641207981200432128,2022-01-03-11:06:21,10.1.1.2,183,-0.090,-0.090,-0.090,0.000,0.000,0.000
1641207981400935936,2022-01-03-11:06:21,10.1.1.2,182,-0.080,-0.080,-0.080,0.000,0.000,0.000
1641207981601797120,2022-01-03-11:06:21,10.1.1.2,183,-0.070,-0.070,-0.070,0.000,0.000,0.000
1641207981802754048,2022-01-03-11:06:21,10.1.1.2,183,-0.060,-0.060,-0.060,0.000,0.000,0.000
1641207982004829952,2022-01-03-11:06:22,10.1.1.2,185,-0.050,-0.050,-0.050,0.000,0.000,0.000
1641207982204374016,2022-01-03-11:06:22,10.1.1.2,184,-0.040,-0.040,-0.040,0.000,0.000,0.000
1641207982406680064,2022-01-03-11:06:22,10.1.1.2,185,-0.030,-0.030,-0.030,0.000,0.000,0.000
1641207982604728832,2022-01-03-11:06:22,10.1.1.2,182,-0.020,-0.020,-0.020,0.000,0.000,0.000
1641207982805214976,2022-01-03-11:06:22,10.1.1.2,182,-0.010,-0.010,-0.010,0.000,0.000,0.000
1641207983006781184,2022-01-03-11:06:23,10.1.1.2,183,0.000,0.000,0.000,0.000,0.000,0.000
1641207983206419968,2022-01-03-11:06:23,10.1.1.2,182,-0.010,-0.010,-0.010,0.000,0.000,0.000
1641207983410835968,2022-01-03-11:06:23,10.1.1.2,186,-0.020,-0.020,-0.020,0.000,0.000,0.000
1641207983609672192,2022-01-03-11:06:23,10.1.1.2,181,-0.030,-0.030,-0.030,0.000,0.000,0.000
1641207983809096960,2022-01-03-11:06:23,10.1.1.2,180,-0.040,-0.040,-0.040,0.000,0.000,0.000
1641207984012658176,2022-01-03-11:06:24,10.1.1.2,183,-0.050,-0.050,-0.050,0.000,0.000,0.000
1641207984227788800,2022-01-03-11:06:24,10.1.1.2,194,-0.060,-0.060,-0.060,0.000,0.000,0.000
1641207984428141056,2022-01-03-11:06:24,10.1.1.2,193,-0.070,-0.070,-0.070,0.000,0.000,0.000
1641207984628444928,2022-01-03-11:06:24,10.1.1.2,193,-0.080,-0.080,-0.080,0.000,0.000,0.000
1641207984828499968,2022-01-03-11:06:24,10.1.1.2,193,-0.090,-0.090,-0.090,0.000,0.000,0.000
1641207985029295872,2022-01-03-11:06:25,10.1.1.2,192,-0.100,-0.100,-0.100,0.000,0.000,0.000
1641207985225723904,2022-01-03-11:06:25,10.1.1.2,188,-0.110,-0.110,-0.110,0.000,0.000,0.000
1641207985429970944,2022-01-03-11:06:25,10.1.1.2,191,-0.120,-0.120,-0.120,0.000,0.000,0.000
1641207985630046976,2022-01-03-11:06:25,10.1.1.2,191,-0.130,-0.130,-0.130,0.000,0.000,0.000
1641207985830014976,2022-01-03-11:06:25,10.1.1.2,190,-0.140,-0.140,-0.140,0.000,0.000,0.000
1641207986029980928,2022-01-03-11:06:26,10.1.1.2,190,-0.150,-0.150,-0.150,0.000,0.000,0.000
1641207986230307072,2022-01-03-11:06:26,10.1.1.2,190,-0.160,-0.160,-0.160,0.000,0.000,0.000
1641207986430155008,2022-01-03-11:06:26,10.1.1.2,188,-0.170,-0.170,-0.170,0.000,0.000,0.000
1641207986630942976,2022-01-03-11:06:26,10.1.1.2,188,-0.180,-0.180,-0.180,0.000,0.000,0.000
1641207986830359808,2022-01-03-11:06:26,10.1.1.2,188,-0.190,-0.190,-0.190,0.000,0.000,0.000
1641207987031217152,2022-01-03-11:06:27,10.1.1.2,188,-0.200,-0.200,-0.200,0.000,0.000,0.000
1641207987232428032,2022-01-03-11:06:27,10.1.1.2,188,-0.210,-0.210,-0.210,0.000,0.000,0.000
1641207987430844160,2022-01-03-11:06:27,10.1.1.2,186,-0.220,-0.220,-0.220,0.000,0.000,0.000
1641207987631043072,2022-01-03-11:06:27,10.1.1.2,184,-0.230,-0.230,-0.230,0.000,0.000,0.000
1641207987831866880,2022-01-03-11:06:27,10.1.1.2,185,-0.240,-0.240,-0.240,0.000,0.000,0.000
1641207988030850048,2022-01-03-11:06:28,10.1.1.2,183,-0.250,-0.250,-0.250,0.000,0.000,0.000
1641207988230982144,2022-01-03-11:06:28,10.1.1.2,183,-0.260,-0.260,-0.260,0.000,0.000,0.000
1641207988431394048,2022-01-03-11:06:28,10.1.1.2,183,-0.270,-0.270,-0.270,0.000,0.000,0.000
1641207988631292160,2022-01-03-11:06:28,10.1.1.2,182,-0.280,-0.280,-0.280,0.000,0.000,0.000
1641207988831592192,2022-01-03-11:06:28,10.1.1.2,181,-0.290,-0.290,-0.290,0.000,0.000,0.000
1641207989030874880,2022-01-03-11:06:29,10.1.1.2,180,-0.300,-0.300,-0.300,0.000,0.000,0.000
1641207989231493888,2022-01-03-11:06:29,10.1.1.2,180,-0.310,-0.310,-0.310,0.000,0.000,0.000
1641207989451059968,2022-01-03-11:06:29,10.1.1.2,198,-0.320,-0.320,-0.320,0.000,0.000,0.000
1641207989651716096,2022-01-03-11:06:29,10.1.1.2,198,-0.330,-0.330,-0.330,0.000,0.000,0.000
1641207989852112128,2022-01-03-11:06:29,10.1.1.2,198,-0.340,-0.340,-0.340,0.000,0.000,0.000
1641207990051472896,2022-01-03-11:06:30,10.1.1.2,197,-0.350,-0.350,-0.350,0.000,0.000,0.000
1641207990254198016,2022-01-03-11:06:30,10.1.1.2,196,-0.360,-0.360,-0.360,0.000,0.000,0.000
1641207990451255040,2022-01-03-11:06:30,10.1.1.2,195,-0.370,-0.370,-0.370,0.000,0.000,0.000
1641207990651164928,2022-01-03-11:06:30,10.1.1.2,194,-0.380,-0.380,-0.380,0.000,0.000,0.000
1641207990851140096,2022-01-03-11:06:30,10.1.1.2,193,-0.390,-0.390,-0.390,0.000,0.000,0.000
1641207991050755072,2022-01-03-11:06:31,10.1.1.2,193,-0.400,-0.400,-0.400,0.000,0.000,0.000
1641207991252427008,2022-01-03-11:06:31,10.1.1.2,194,-0.410,-0.410,-0.410,0.000,0.000,0.000
1641207991450761984,2022-01-03-11:06:31,10.1.1.2,191,-0.420,-0.420,-0.420,0.000,0.000,0.000
1641207991650987008,2022-01-03-11:06:31,10.1.1.2,191,-0.430,-0.430,-0.430,0.000,0.000,0.000
1641207991853082880,2022-01-03-11:06:31,10.1.1.2,192,-0.440,-0.440,-0.440,0.000,0.000,0.000
1641207992050667008,2022-01-03-11:06:32,10.1.1.2,189,-0.450,-0.450,-0.450,0.000,0.000,0.000
1641207992250510080,2022-01-03-11:06:32,10.1.1.2,188,-0.460,-0.460,-0.460,0.000,0.000,0.000
1641207992450144000,2022-01-03-11:06:32,10.1.1.2,185,-0.470,-0.470,-0.470,0.000,0.000,0.000
1641207992649774080,2022-01-03-11:06:32,10.1.1.2,184,-0.480,-0.480,-0.480,0.000,0.000,0.000
1641207992850394112,2022-01-03-11:06:32,10.1.1.2,184,-0.490,-0.490,-0.490,0.000,0.000,0.000
1641207993049622016,2022-01-03-11:06:33,10.1.1.2,182,-0.480,-0.480,-0.480,0.000,0.000,0.000
1641207993250046976,2022-01-03-11:06:33,10.1.1.2,182,-0.470,-0.470,-0.470,0.000,0.000,0.000
1641207993449399040,2022-01-03-11:06:33,10.1.1.2,181,-0.460,-0.460,-0.460,0.000,0.000,0.000
1641207993648952064,2022-01-03-11:06:33,10.1.1.2,179,-0.450,-0.450,-0.450,0.000,0.000,0.000
1641207993848825856,2022-01-03-11:06:33,10.1.1.2,179,-0.440,-0.440,-0.440,0.000,0.000,0.000
1641207994049648896,2022-01-03-11:06:34,10.1.1.2,179,-0.430,-0.430,-0.430,0.000,0.000,0.000
1641207994249795840,2022-01-03-11:06:34,10.1.1.2,179,-0.420,-0.420,-0.420,0.000,0.000,0.000
1641207994469083904,2022-01-03-11:06:34,10.1.1.2,197,-0.410,-0.410,-0.410,0.000,0.000,0.000
1641207994668772864,2022-01-03-11:06:34,10.1.1.2,196,-0.400,-0.400,-0.400,0.000,0.000,0.000
1641207994869645056,2022-01-03-11:06:34,10.1.1.2,196,-0.390,-0.390,-0.390,0.000,0.000,0.000
1641207995068325888,2022-01-03-11:06:35,10.1.1.2,194,-0.380,-0.380,-0.380,0.000,0.000,0.000
1641207995267879936,2022-01-03-11:06:35,10.1.1.2,193,-0.370,-0.370,-0.370,0.000,0.000,0.000
1641207995467641088,2022-01-03-11:06:35,10.1.1.2,193,-0.360,-0.360,-0.360,0.000,0.000,0.000
1641207995668782080,2022-01-03-11:06:35,10.1.1.2,193,-0.350,-0.350,-0.350,0.000,0.000,0.000
1641207995867371008,2022-01-03-11:06:35,10.1.1.2,192,-0.340,-0.340,-0.340,0.000,0.000,0.000
1641207996067374848,2022-01-03-11:06:36,10.1.1.2,191,-0.330,-0.330,-0.330,0.000,0.000,0.000
1641207996266576128,2022-01-03-11:06:36,10.1.1.2,189,-0.320,-0.320,-0.320,0.000,0.000,0.000
1641207996466558976,2022-01-03-11:06:36,10.1.1.2,188,-0.310,-0.310,-0.310,0.000,0.000,0.000
1641207996666095872,2022-01-03-11:06:36,10.1.1.2,187,-0.300,-0.300,-0.300,0.000,0.000,0.000
1641207996865847040,2022-01-03-11:06:36,10.1.1.2,186,-0.290,-0.290,-0.290,0.000,0.000,0.000
1641207997065579776,2022-01-03-11:06:37,10.1.1.2,185,-0.280,-0.280,-0.280,0.000,0.000,0.000
1641207997265692928,2022-01-03-11:06:37,10.1.1.2,185,-0.270,-0.270,-0.270,0.000,0.000,0.000
1641207997465773056,2022-01-03-11:06:37,10.1.1.2,184,-0.260,-0.260,-0.260,0.000,0.000,0.000
1641207997664701952,2022-01-03-11:06:37,10.1.1.2,183,-0.250,-0.250,-0.250,0.000,0.000,0.000
1641207997864851968,2022-01-03-11:06:37,10.1.1.2,182,-0.240,-0.240,-0.240,0.000,0.000,0.000
1641207998064635904,2022-01-03-11:06:38,10.1.1.2,181,-0.230,-0.230,-0.230,0.000,0.000,0.000
1641207998264453888,2022-01-03-11:06:38,10.1.1.2,180,-0.220,-0.220,-0.220,0.000,0.000,0.000
1641207998464279040,2022-01-03-11:06:38,10.1.1.2,180,-0.210,-0.210,-0.210,0.000,0.000,0.000
1641207998664397056,2022-01-03-11:06:38,10.1.1.2,180,-0.200,-0.200,-0.200,0.000,0.000,0.000
1641207998864263936,2022-01-03-11:06:38,10.1.1.2,179,-0.190,-0.190,-0.190,0.000,0.000,0.000
1641207999067292928,2022-01-03-11:06:39,10.1.1.2,181,-0.180,-0.180,-0.180,0.000,0.000,0.000
1641207999266479872,2022-01-03-11:06:39,10.1.1.2,180,-0.170,-0.170,-0.170,0.000,0.000,0.000
1641207999463238912,2022-01-03-11:06:39,10.1.1.2,175,-0.160,-0.160,-0.160,0.000,0.000,0.000
1641207999662748928,2022-01-03-11:06:39,10.1.1.2,174,-0.150,-0.150,-0.150,0.000,0.000,0.000
1641207999863725056,2022-01-03-11:06:39,10.1.1.2,174,-0.140,-0.140,-0.140,0.000,0.000,0.000
1641208000062066944,2022-01-03-11:06:40,10.1.1.2,172,-0.130,-0.130,-0.130,0.000,0.000,0.000
1641208000261794048,2022-01-03-11:06:40,10.1.1.2,171,-0.120,-0.120,-0.120,0.000,0.000,0.000
1641208000461396992,2022-01-03-11:06:40,10.1.1.2,170,-0.110,-0.110,-0.110,0.000,0.000,0.000
1641208000681967872,2022-01-03-11:06:40,10.1.1.2,190,-0.100,-0.100,-0.100,0.000,0.000,0.000
1641208000881715968,2022-01-03-11:06:40,10.1.1.2,188,-0.090,-0.090,-0.090,0.000,0.000,0.000
1641208001081101056,2022-01-03-11:06:41,10.1.1.2,187,-0.080,-0.080,-0.080,0.000,0.000,0.000
1641208001280424960,2022-01-03-11:06:41,10.1.1.2,185,-0.070,-0.070,-0.070,0.000,0.000,0.000
1641208001480796928,2022-01-03-11:06:41,10.1.1.2,185,-0.060,-0.060,-0.060,0.000,0.000,0.000
1641208001677402112,2022-01-03-11:06:41,10.1.1.2,180,-0.050,-0.050,-0.050,0.000,0.000,0.000
1641208001879442944,2022-01-03-11:06:41,10.1.1.2,182,-0.040,-0.040,-0.040,0.000,0.000,0.000
1641208002099456000,2022-01-03-11:06:42,10.1.1.2,172,-0.030,-0.030,-0.030,0.000,0.000,0.000
1641208002298968064,2022-01-03-11:06:42,10.1.1.2,168,-0.020,-0.020,-0.020,0.000,0.000,0.000
1641208002519457024,2022-01-03-11:06:42,10.1.1.2,187,-0.010,-0.010,-0.010,0.000,0.000,0.000
1641208002718574080,2022-01-03-11:06:42,10.1.1.2,185,0.000,0.000,0.000,0.000,0.000,0.000
1641208002918679040,2022-01-03-11:06:42,10.1.1.2,185,-0.010,-0.010,-0.010,0.000,0.000,0.000
1641208003118351104,2022-01-03-11:06:43,10.1.1.2,184,-0.020,-0.020,-0.020,0.000,0.000,0.000
1641208003318046976,2022-01-03-11:06:43,10.1.1.2,183,-0.030,-0.030,-0.030,0.000,0.000,0.000
1641208003518156032,2022-01-03-11:06:43,10.1.1.2,182,-0.040,-0.040,-0.040,0.000,0.000,0.000
1641208003719122944,2022-01-03-11:06:43,10.1.1.2,181,-0.050,-0.050,-0.050,0.000,0.000,0.000
1641208003916817920,2022-01-03-11:06:43,10.1.1.2,179,-0.060,-0.060,-0.060,0.000,0.000,0.000
1641208004116647936,2022-01-03-11:06:44,10.1.1.2,179,-0.070,-0.070,-0.070,0.000,0.000,0.000
1641208004316505856,2022-01-03-11:06:44,10.1.1.2,178,-0.080,-0.080,-0.080,0.000,0.000,0.000
1641208004517628928,2022-01-03-11:06:44,10.1.1.2,178,-0.090,-0.090,-0.090,0.000,0.000,0.000
1641208004715617024,2022-01-03-11:06:44,10.1.1.2,172,-0.100,-0.100,-0.100,0.000,0.000,0.000
1641208004915513088,2022-01-03-11:06:44,10.1.1.2,171,-0.110,-0.110,-0.110,0.000,0.000,0.000
1641208005116331008,2022-01-03-11:06:45,10.1.1.2,171,-0.120,-0.120,-0.120,0.000,0.000,0.000
1641208005314723072,2022-01-03-11:06:45,10.1.1.2,168,-0.130,-0.130,-0.130,0.000,0.000,0.000
1641208005514518016,2022-01-03-11:06:45,10.1.1.2,167,-0.140,-0.140,-0.140,0.000,0.000,0.000
1641208005714277888,2022-01-03-11:06:45,10.1.1.2,167,-0.150,-0.150,-0.150,0.000,0.000,0.000
1641208005914315008,2022-01-03-11:06:45,10.1.1.2,166,-0.160,-0.160,-0.160,0.000,0.000,0.000
1641208006113844992,2022-01-03-11:06:46,10.1.1.2,164,-0.170,-0.170,-0.170,0.000,0.000,0.000
1641208006313335808,2022-01-03-11:06:46,10.1.1.2,164,-0.180,-0.180,-0.180,0.000,0.000,0.000
1641208006513372928,2022-01-03-11:06:46,10.1.1.2,162,-0.190,-0.190,-0.190,0.000,0.000,0.000
1641208006713232896,2022-01-03-11:06:46,10.1.1.2,162,-0.200,-0.200,-0.200,0.000,0.000,0.000
1641208006932431872,2022-01-03-11:06:46,10.1.1.2,181,-0.210,-0.210,-0.210,0.000,0.000,0.000
1641208007131696896,2022-01-03-11:06:47,10.1.1.2,179,-0.220,-0.220,-0.220,0.000,0.000,0.000
1641208007334948096,2022-01-03-11:06:47,10.1.1.2,181,-0.230,-0.230,-0.230,0.000,0.000,0.000
1641208007531310080,2022-01-03-11:06:47,10.1.1.2,178,-0.240,-0.240,-0.240,0.000,0.000,0.000
1641208007730809088,2022-01-03-11:06:47,10.1.1.2,175,-0.250,-0.250,-0.250,0.000,0.000,0.000
1641208007931660800,2022-01-03-11:06:47,10.1.1.2,176,-0.260,-0.260,-0.260,0.000,0.000,0.000
1641208008132307968,2022-01-03-11:06:48,10.1.1.2,176,-0.270,-0.270,-0.270,0.000,0.000,0.000
1641208008333014016,2022-01-03-11:06:48,10.1.1.2,173,-0.280,-0.280,-0.280,0.000,0.000,0.000
1641208008530196992,2022-01-03-11:06:48,10.1.1.2,161,-0.290,-0.290,-0.290,0.000,0.000,0.000
1641208008732158976,2022-01-03-11:06:48,10.1.1.2,162,-0.300,-0.300,-0.300,0.000,0.000,0.000
1641208008949124096,2022-01-03-11:06:48,10.1.1.2,177,-0.310,-0.310,-0.310,0.000,0.000,0.000
1641208009150140928,2022-01-03-11:06:49,10.1.1.2,177,-0.320,-0.320,-0.320,0.000,0.000,0.000
1641208009348978944,2022-01-03-11:06:49,10.1.1.2,175,-0.330,-0.330,-0.330,0.000,0.000,0.000
1641208009548958976,2022-01-03-11:06:49,10.1.1.2,173,-0.340,-0.340,-0.340,0.000,0.000,0.000
1641208009749470976,2022-01-03-11:06:49,10.1.1.2,172,-0.350,-0.350,-0.350,0.000,0.000,0.000
1641208009947520000,2022-01-03-11:06:49,10.1.1.2,168,-0.360,-0.360,-0.360,0.000,0.000,0.000
1641208010148064000,2022-01-03-11:06:50,10.1.1.2,168,-0.370,-0.370,-0.370,0.000,0.000,0.000
1641208010351219968,2022-01-03-11:06:50,10.1.1.2,169,-0.380,-0.380,-0.380,0.000,0.000,0.000
1641208010550379008,2022-01-03-11:06:50,10.1.1.2,167,-0.390,-0.390,-0.390,0.000,0.000,0.000
1641208010751353856,2022-01-03-11:06:50,10.1.1.2,168,-0.400,-0.400,-0.400,0.000,0.000,0.000
1641208010954826240,2022-01-03-11:06:50,10.1.1.2,171,-0.410,-0.410,-0.410,0.000,0.000,0.000
1641208011154278912,2022-01-03-11:06:51,10.1.1.2,170,-0.420,-0.420,-0.420,0.000,0.000,0.000
1641208011354418944,2022-01-03-11:06:51,10.1.1.2,169,-0.430,-0.430,-0.430,0.000,0.000,0.000
1641208011555505152,2022-01-03-11:06:51,10.1.1.2,169,-0.440,-0.440,-0.440,0.000,0.000,0.000
1641208011756807168,2022-01-03-11:06:51,10.1.1.2,170,-0.450,-0.450,-0.450,0.000,0.000,0.000
1641208011957513984,2022-01-03-11:06:51,10.1.1.2,170,-0.460,-0.460,-0.460,0.000,0.000,0.000
1641208012158179072,2022-01-03-11:06:52,10.1.1.2,170,-0.470,-0.470,-0.470,0.000,0.000,0.000
1641208012358416128,2022-01-03-11:06:52,10.1.1.2,170,-0.480,-0.480,-0.480,0.000,0.000,0.000
1641208012560014848,2022-01-03-11:06:52,10.1.1.2,169,-0.490,-0.490,-0.490,0.000,0.000,0.000
1641208012759646976,2022-01-03-11:06:52,10.1.1.2,168,-0.480,-0.480,-0.480,0.000,0.000,0.000
1641208012980547072,2022-01-03-11:06:52,10.1.1.2,189,-0.470,-0.470,-0.470,0.000,0.000,0.000
1641208013181662208,2022-01-03-11:06:53,10.1.1.2,189,-0.460,-0.460,-0.460,0.000,0.000,0.000
1641208013381833984,2022-01-03-11:06:53,10.1.1.2,188,-0.450,-0.450,-0.450,0.000,0.000,0.000
1641208013584578048,2022-01-03-11:06:53,10.1.1.2,190,-0.440,-0.440,-0.440,0.000,0.000,0.000
1641208013783122944,2022-01-03-11:06:53,10.1.1.2,188,-0.430,-0.430,-0.430,0.000,0.000,0.000
1641208013991507968,2022-01-03-11:06:53,10.1.1.2,196,-0.420,-0.420,-0.420,0.000,0.000,0.000
1641208014184582912,2022-01-03-11:06:54,10.1.1.2,187,-0.410,-0.410,-0.410,0.000,0.000,0.000
1641208014385477120,2022-01-03-11:06:54,10.1.1.2,187,-0.400,-0.400,-0.400,0.000,0.000,0.000
1641208014585103872,2022-01-03-11:06:54,10.1.1.2,186,-0.390,-0.390,-0.390,0.000,0.000,0.000
1641208014785583872,2022-01-03-11:06:54,10.1.1.2,186,-0.380,-0.380,-0.380,0.000,0.000,0.000
1641208014986062080,2022-01-03-11:06:54,10.1.1.2,186,-0.370,-0.370,-0.370,0.000,0.000,0.000
1641208015188331008,2022-01-03-11:06:55,10.1.1.2,187,-0.360,-0.360,-0.360,0.000,0.000,0.000
1641208015386752000,2022-01-03-11:06:55,10.1.1.2,185,-0.350,-0.350,-0.350,0.000,0.000,0.000
1641208015587038976,2022-01-03-11:06:55,10.1.1.2,185,-0.340,-0.340,-0.340,0.000,0.000,0.000
1641208015787972096,2022-01-03-11:06:55,10.1.1.2,185,-0.330,-0.330,-0.330,0.000,0.000,0.000
1641208015988389888,2022-01-03-11:06:55,10.1.1.2,185,-0.320,-0.320,-0.320,0.000,0.000,0.000
1641208016188564992,2022-01-03-11:06:56,10.1.1.2,184,-0.310,-0.310,-0.310,0.000,0.000,0.000
1641208016388994816,2022-01-03-11:06:56,10.1.1.2,183,-0.300,-0.300,-0.300,0.000,0.000,0.000
1641208016588920064,2022-01-03-11:06:56,10.1.1.2,182,-0.290,-0.290,-0.290,0.000,0.000,0.000
1641208016790685952,2022-01-03-11:06:56,10.1.1.2,183,-0.280,-0.280,-0.280,0.000,0.000,0.000
1641208016989680896,2022-01-03-11:06:56,10.1.1.2,181,-0.270,-0.270,-0.270,0.000,0.000,0.000
1641208017189795072,2022-01-03-11:06:57,10.1.1.2,181,-0.260,-0.260,-0.260,0.000,0.000,0.000
1641208017390502912,2022-01-03-11:06:57,10.1.1.2,179,-0.250,-0.250,-0.250,0.000,0.000,0.000
1641208017810318080,2022-01-03-11:06:57,10.1.1.2,198,-0.230,-0.230,-0.230,0.000,0.000,0.000
1641208018010395904,2022-01-03-11:06:58,10.1.1.2,197,-0.220,-0.220,-0.220,0.000,0.000,0.000
1641208018191753984,2022-01-03-11:06:58,10.1.1.2,178,-0.210,-0.210,-0.210,0.000,0.000,0.000
1641208018410747904,2022-01-03-11:06:58,10.1.1.2,196,-0.200,-0.200,-0.200,0.000,0.000,0.000
1641208018591180032,2022-01-03-11:06:58,10.1.1.2,176,-0.190,-0.190,-0.190,0.000,0.000,0.000
1641208018810792960,2022-01-03-11:06:58,10.1.1.2,195,-0.180,-0.180,-0.180,0.000,0.000,0.000
1641208019011739136,2022-01-03-11:06:59,10.1.1.2,196,-0.170,-0.170,-0.170,0.000,0.000,0.000
1641208019211836160,2022-01-03-11:06:59,10.1.1.2,195,-0.160,-0.160,-0.160,0.000,0.000,0.000
1641208019412247040,2022-01-03-11:06:59,10.1.1.2,194,-0.150,-0.150,-0.150,0.000,0.000,0.000
1641208019611403008,2022-01-03-11:06:59,10.1.1.2,192,-0.140,-0.140,-0.140,0.000,0.000,0.000
1641208019811310080,2022-01-03-11:06:59,10.1.1.2,192,-0.130,-0.130,-0.130,0.000,0.000,0.000
1641208020011522048,2022-01-03-11:07:00,10.1.1.2,192,-0.120,-0.120,-0.120,0.000,0.000,0.000
1641208020211944192,2022-01-03-11:07:00,10.1.1.2,191,-0.110,-0.110,-0.110,0.000,0.000,0.000
1641208020411981056,2022-01-03-11:07:00,10.1.1.2,190,-0.100,-0.100,-0.100,0.000,0.000,0.000
1641208020612200960,2022-01-03-11:07:00,10.1.1.2,189,-0.090,-0.090,-0.090,0.000,0.000,0.000
1641208020811655936,2022-01-03-11:07:00,10.1.1.2,188,-0.080,-0.080,-0.080,0.000,0.000,0.000
1641208021012765952,2022-01-03-11:07:01,10.1.1.2,187,-0.070,-0.070,-0.070,0.000,0.000,0.000
1641208021212347904,2022-01-03-11:07:01,10.1.1.2,186,-0.060,-0.060,-0.060,0.000,0.000,0.000
1641208021412375808,2022-01-03-11:07:01,10.1.1.2,186,-0.050,-0.050,-0.050,0.000,0.000,0.000
1641208021612068864,2022-01-03-11:07:01,10.1.1.2,184,-0.040,-0.040,-0.040,0.000,0.000,0.000
1641208021813147904,2022-01-03-11:07:01,10.1.1.2,185,-0.030,-0.030,-0.030,0.000,0.000,0.000
1641208022012075776,2022-01-03-11:07:02,10.1.1.2,183,-0.020,-0.020,-0.020,0.000,0.000,0.000
1641208022212304128,2022-01-03-11:07:02,10.1.1.2,182,-0.010,-0.010,-0.010,0.000,0.000,0.000
1641208022411425024,2022-01-03-11:07:02,10.1.1.2,180,-0.000,-0.000,-0.000,0.000,0.000,0.000
1641208022631373824,2022-01-03-11:07:02,10.1.1.2,199,-0.010,-0.010,-0.010,0.000,0.000,0.000
1641208022831418112,2022-01-03-11:07:02,10.1.1.2,199,-0.020,-0.020,-0.020,0.000,0.000,0.000
1641208023031270912,2022-01-03-11:07:03,10.1.1.2,197,-0.030,-0.030,-0.030,0.000,0.000,0.000
1641208023231805184,2022-01-03-11:07:03,10.1.1.2,197,-0.040,-0.040,-0.040,0.000,0.000,0.000
1641208023430948096,2022-01-03-11:07:03,10.1.1.2,195,-0.050,-0.050,-0.050,0.000,0.000,0.000
1641208023631171840,2022-01-03-11:07:03,10.1.1.2,195,-0.060,-0.060,-0.060,0.000,0.000,0.000
1641208023832422912,2022-01-03-11:07:03,10.1.1.2,194,-0.070,-0.070,-0.070,0.000,0.000,0.000
1641208024231863040,2022-01-03-11:07:04,10.1.1.2,190,-0.090,-0.090,-0.090,0.000,0.000,0.000
1641208024431312128,2022-01-03-11:07:04,10.1.1.2,181,-0.100,-0.100,-0.100,0.000,0.000,0.000
1641208024630693888,2022-01-03-11:07:04,10.1.1.2,180,-0.110,-0.110,-0.110,0.000,0.000,0.000
1641208024850439936,2022-01-03-11:07:04,10.1.1.2,199,-0.120,-0.120,-0.120,0.000,0.000,0.000
1641208025050801920,2022-01-03-11:07:05,10.1.1.2,199,-0.130,-0.130,-0.130,0.000,0.000,0.000
1641208025250243840,2022-01-03-11:07:05,10.1.1.2,197,-0.140,-0.140,-0.140,0.000,0.000,0.000
1641208025449968128,2022-01-03-11:07:05,10.1.1.2,196,-0.150,-0.150,-0.150,0.000,0.000,0.000
1641208025851121920,2022-01-03-11:07:05,10.1.1.2,196,-0.170,-0.170,-0.170,0.000,0.000,0.000
1641208026049967104,2022-01-03-11:07:06,10.1.1.2,193,-0.180,-0.180,-0.180,0.000,0.000,0.000
1641208026249305856,2022-01-03-11:07:06,10.1.1.2,186,-0.190,-0.190,-0.190,0.000,0.000,0.000
1641208026449440000,2022-01-03-11:07:06,10.1.1.2,185,-0.200,-0.200,-0.200,0.000,0.000,0.000
1641208026649862912,2022-01-03-11:07:06,10.1.1.2,185,-0.210,-0.210,-0.210,0.000,0.000,0.000
1641208026848916992,2022-01-03-11:07:06,10.1.1.2,183,-0.220,-0.220,-0.220,0.000,0.000,0.000
1641208027048685056,2022-01-03-11:07:07,10.1.1.2,182,-0.230,-0.230,-0.230,0.000,0.000,0.000
1641208027248593920,2022-01-03-11:07:07,10.1.1.2,181,-0.240,-0.240,-0.240,0.000,0.000,0.000
1641208027448523008,2022-01-03-11:07:07,10.1.1.2,181,-0.250,-0.250,-0.250,0.000,0.000,0.000
1641208027648484096,2022-01-03-11:07:07,10.1.1.2,180,-0.260,-0.260,-0.260,0.000,0.000,0.000
1641208027848963072,2022-01-03-11:07:07,10.1.1.2,180,-0.270,-0.270,-0.270,0.000,0.000,0.000
1641208028047961088,2022-01-03-11:07:08,10.1.1.2,179,-0.280,-0.280,-0.280,0.000,0.000,0.000
1641208028247767808,2022-01-03-11:07:08,10.1.1.2,178,-0.290,-0.290,-0.290,0.000,0.000,0.000
1641208028448032000,2022-01-03-11:07:08,10.1.1.2,177,-0.300,-0.300,-0.300,0.000,0.000,0.000
1641208028666699008,2022-01-03-11:07:08,10.1.1.2,195,-0.310,-0.310,-0.310,0.000,0.000,0.000
1641208028866884096,2022-01-03-11:07:08,10.1.1.2,195,-0.320,-0.320,-0.320,0.000,0.000,0.000
1641208029066784000,2022-01-03-11:07:09,10.1.1.2,194,-0.330,-0.330,-0.330,0.000,0.000,0.000
1641208029265944832,2022-01-03-11:07:09,10.1.1.2,193,-0.340,-0.340,-0.340,0.000,0.000,0.000
1641208029465652992,2022-01-03-11:07:09,10.1.1.2,191,-0.350,-0.350,-0.350,0.000,0.000,0.000
1641208029665410048,2022-01-03-11:07:09,10.1.1.2,191,-0.360,-0.360,-0.360,0.000,0.000,0.000
1641208029865641984,2022-01-03-11:07:09,10.1.1.2,190,-0.370,-0.370,-0.370,0.000,0.000,0.000
1641208030065392896,2022-01-03-11:07:10,10.1.1.2,190,-0.380,-0.380,-0.380,0.000,0.000,0.000
1641208030265405952,2022-01-03-11:07:10,10.1.1.2,189,-0.390,-0.390,-0.390,0.000,0.000,0.000
1641208030464875008,2022-01-03-11:07:10,10.1.1.2,188,-0.400,-0.400,-0.400,0.000,0.000,0.000
1641208030665170944,2022-01-03-11:07:10,10.1.1.2,187,-0.410,-0.410,-0.410,0.000,0.000,0.000
1641208030864988160,2022-01-03-11:07:10,10.1.1.2,187,-0.420,-0.420,-0.420,0.000,0.000,0.000
1641208031065978112,2022-01-03-11:07:11,10.1.1.2,187,-0.430,-0.430,-0.430,0.000,0.000,0.000
1641208031266146816,2022-01-03-11:07:11,10.1.1.2,186,-0.440,-0.440,-0.440,0.000,0.000,0.000
1641208031665057792,2022-01-03-11:07:11,10.1.1.2,183,-0.460,-0.460,-0.460,0.000,0.000,0.000
1641208031863735040,2022-01-03-11:07:11,10.1.1.2,182,-0.470,-0.470,-0.470,0.000,0.000,0.000
1641208032064045056,2022-01-03-11:07:12,10.1.1.2,182,-0.480,-0.480,-0.480,0.000,0.000,0.000
1641208032265073152,2022-01-03-11:07:12,10.1.1.2,183,-0.490,-0.490,-0.490,0.000,0.000,0.000
1641208032462395904,2022-01-03-11:07:12,10.1.1.2,179,-0.480,-0.480,-0.480,0.000,0.000,0.000
1641208032662451968,2022-01-03-11:07:12,10.1.1.2,177,-0.470,-0.470,-0.470,0.000,0.000,0.000
1641208032862694144,2022-01-03-11:07:12,10.1.1.2,177,-0.460,-0.460,-0.460,0.000,0.000,0.000
1641208033061821952,2022-01-03-11:07:13,10.1.1.2,176,-0.450,-0.450,-0.450,0.000,0.000,0.000
1641208033262936064,2022-01-03-11:07:13,10.1.1.2,176,-0.440,-0.440,-0.440,0.000,0.000,0.000
1641208033460956928,2022-01-03-11:07:13,10.1.1.2,174,-0.430,-0.430,-0.430,0.000,0.000,0.000
1641208033660700928,2022-01-03-11:07:13,10.1.1.2,173,-0.420,-0.420,-0.420,0.000,0.000,0.000
1641208033860871168,2022-01-03-11:07:13,10.1.1.2,172,-0.410,-0.410,-0.410,0.000,0.000,0.000
1641208034060185856,2022-01-03-11:07:14,10.1.1.2,171,-0.400,-0.400,-0.400,0.000,0.000,0.000
1641208034260643840,2022-01-03-11:07:14,10.1.1.2,170,-0.390,-0.390,-0.390,0.000,0.000,0.000
1641208034459707904,2022-01-03-11:07:14,10.1.1.2,169,-0.380,-0.380,-0.380,0.000,0.000,0.000
1641208034660244992,2022-01-03-11:07:14,10.1.1.2,169,-0.370,-0.370,-0.370,0.000,0.000,0.000
1641208034878888960,2022-01-03-11:07:14,10.1.1.2,187,-0.360,-0.360,-0.360,0.000,0.000,0.000
1641208035078574848,2022-01-03-11:07:15,10.1.1.2,187,-0.350,-0.350,-0.350,0.000,0.000,0.000
1641208035278348800,2022-01-03-11:07:15,10.1.1.2,186,-0.340,-0.340,-0.340,0.000,0.000,0.000
1641208035478307840,2022-01-03-11:07:15,10.1.1.2,185,-0.330,-0.330,-0.330,0.000,0.000,0.000
1641208035678391808,2022-01-03-11:07:15,10.1.1.2,185,-0.320,-0.320,-0.320,0.000,0.000,0.000
1641208035857795840,2022-01-03-11:07:15,10.1.1.2,163,-0.310,-0.310,-0.310,0.000,0.000,0.000
1641208036090838016,2022-01-03-11:07:16,10.1.1.2,195,-0.300,-0.300,-0.300,0.000,0.000,0.000
1641208036277684992,2022-01-03-11:07:16,10.1.1.2,181,-0.290,-0.290,-0.290,0.000,0.000,0.000
1641208036477335040,2022-01-03-11:07:16,10.1.1.2,180,-0.280,-0.280,-0.280,0.000,0.000,0.000
1641208036676378112,2022-01-03-11:07:16,10.1.1.2,178,-0.270,-0.270,-0.270,0.000,0.000,0.000
1641208036876143872,2022-01-03-11:07:16,10.1.1.2,178,-0.260,-0.260,-0.260,0.000,0.000,0.000
1641208037076685056,2022-01-03-11:07:17,10.1.1.2,176,-0.250,-0.250,-0.250,0.000,0.000,0.000
1641208037276568832,2022-01-03-11:07:17,10.1.1.2,176,-0.240,-0.240,-0.240,0.000,0.000,0.000
1641208037474989824,2022-01-03-11:07:17,10.1.1.2,174,-0.230,-0.230,-0.230,0.000,0.000,0.000
1641208037674952960,2022-01-03-11:07:17,10.1.1.2,173,-0.220,-0.220,-0.220,0.000,0.000,0.000
1641208037874476800,2022-01-03-11:07:17,10.1.1.2,172,-0.210,-0.210,-0.210,0.000,0.000,0.000
1641208038073924096,2022-01-03-11:07:18,10.1.1.2,171,-0.200,-0.200,-0.200,0.000,0.000,0.000
1641208038273475840,2022-01-03-11:07:18,10.1.1.2,170,-0.190,-0.190,-0.190,0.000,0.000,0.000
1641208038473795840,2022-01-03-11:07:18,10.1.1.2,170,-0.180,-0.180,-0.180,0.000,0.000,0.000
1641208038673242112,2022-01-03-11:07:18,10.1.1.2,168,-0.170,-0.170,-0.170,0.000,0.000,0.000
1641208038876408064,2022-01-03-11:07:18,10.1.1.2,171,-0.160,-0.160,-0.160,0.000,0.000,0.000
1641208039073394176,2022-01-03-11:07:19,10.1.1.2,166,-0.150,-0.150,-0.150,0.000,0.000,0.000
1641208039272356096,2022-01-03-11:07:19,10.1.1.2,165,-0.140,-0.140,-0.140,0.000,0.000,0.000
1641208039471563008,2022-01-03-11:07:19,10.1.1.2,163,-0.130,-0.130,-0.130,0.000,0.000,0.000
1641208039672343040,2022-01-03-11:07:19,10.1.1.2,163,-0.120,-0.120,-0.120,0.000,0.000,0.000
1641208039872567808,2022-01-03-11:07:19,10.1.1.2,162,-0.110,-0.110,-0.110,0.000,0.000,0.000
1641208040071139072,2022-01-03-11:07:20,10.1.1.2,160,-0.100,-0.100,-0.100,0.000,0.000,0.000
1641208040271313920,2022-01-03-11:07:20,10.1.1.2,159,-0.090,-0.090,-0.090,0.000,0.000,0.000
1641208040491294976,2022-01-03-11:07:20,10.1.1.2,177,-0.080,-0.080,-0.080,0.000,0.000,0.000
1641208040690236928,2022-01-03-11:07:20,10.1.1.2,174,-0.070,-0.070,-0.070,0.000,0.000,0.000
1641208040889336064,2022-01-03-11:07:20,10.1.1.2,174,-0.060,-0.060,-0.060,0.000,0.000,0.000
1641208041089329920,2022-01-03-11:07:21,10.1.1.2,172,-0.050,-0.050,-0.050,0.000,0.000,0.000
1641208041288825088,2022-01-03-11:07:21,10.1.1.2,171,-0.040,-0.040,-0.040,0.000,0.000,0.000
1641208041488480000,2022-01-03-11:07:21,10.1.1.2,170,-0.030,-0.030,-0.030,0.000,0.000,0.000
1641208041688442112,2022-01-03-11:07:21,10.1.1.2,170,-0.020,-0.020,-0.020,0.000,0.000,0.000
1641208041888758016,2022-01-03-11:07:21,10.1.1.2,169,-0.010,-0.010,-0.010,0.000,0.000,0.000
1641208042088141056,2022-01-03-11:07:22,10.1.1.2,168,0.000,0.000,0.000,0.000,0.000,0.000
1641208042288457984,2022-01-03-11:07:22,10.1.1.2,167,-0.010,-0.010,-0.010,0.000,0.000,0.000
1641208042487814912,2022-01-03-11:07:22,10.1.1.2,166,-0.020,-0.020,-0.020,0.000,0.000,0.000
1641208042687463168,2022-01-03-11:07:22,10.1.1.2,165,-0.030,-0.030,-0.030,0.000,0.000,0.000
1641208042887057920,2022-01-03-11:07:22,10.1.1.2,164,-0.040,-0.040,-0.040,0.000,0.000,0.000
1641208043087328000,2022-01-03-11:07:23,10.1.1.2,164,-0.050,-0.050,-0.050,0.000,0.000,0.000
1641208043288409856,2022-01-03-11:07:23,10.1.1.2,165,-0.060,-0.060,-0.060,0.000,0.000,0.000
1641208043491735808,2022-01-03-11:07:23,10.1.1.2,166,-0.070,-0.070,-0.070,0.000,0.000,0.000
1641208043689798144,2022-01-03-11:07:23,10.1.1.2,159,-0.080,-0.080,-0.080,0.000,0.000,0.000
1641208043911248896,2022-01-03-11:07:23,10.1.1.2,171,-0.090,-0.090,-0.090,0.000,0.000,0.000
1641208044112369920,2022-01-03-11:07:24,10.1.1.2,172,-0.100,-0.100,-0.100,0.000,0.000,0.000
1641208044313492992,2022-01-03-11:07:24,10.1.1.2,173,-0.110,-0.110,-0.110,0.000,0.000,0.000
1641208044514214912,2022-01-03-11:07:24,10.1.1.2,172,-0.120,-0.120,-0.120,0.000,0.000,0.000
1641208044715233024,2022-01-03-11:07:24,10.1.1.2,172,-0.130,-0.130,-0.130,0.000,0.000,0.000
1641208044925208064,2022-01-03-11:07:24,10.1.1.2,181,-0.140,-0.140,-0.140,0.000,0.000,0.000
1641208045116983808,2022-01-03-11:07:25,10.1.1.2,172,-0.150,-0.150,-0.150,0.000,0.000,0.000
1641208045317550848,2022-01-03-11:07:25,10.1.1.2,172,-0.160,-0.160,-0.160,0.000,0.000,0.000
1641208045518814208,2022-01-03-11:07:25,10.1.1.2,172,-0.170,-0.170,-0.170,0.000,0.000,0.000
1641208045718425088,2022-01-03-11:07:25,10.1.1.2,171,-0.180,-0.180,-0.180,0.000,0.000,0.000
1641208045919275008,2022-01-03-11:07:25,10.1.1.2,171,-0.190,-0.190,-0.190,0.000,0.000,0.000
1641208046121579008,2022-01-03-11:07:26,10.1.1.2,173,-0.200,-0.200,-0.200,0.000,0.000,0.000
1641208046340646912,2022-01-03-11:07:26,10.1.1.2,188,-0.210,-0.210,-0.210,0.000,0.000,0.000
1641208046541693952,2022-01-03-11:07:26,10.1.1.2,188,-0.220,-0.220,-0.220,0.000,0.000,0.000
1641208046742836992,2022-01-03-11:07:26,10.1.1.2,188,-0.230,-0.230,-0.230,0.000,0.000,0.000
1641208046942656000,2022-01-03-11:07:26,10.1.1.2,186,-0.240,-0.240,-0.240,0.000,0.000,0.000
1641208047143330048,2022-01-03-11:07:27,10.1.1.2,186,-0.250,-0.250,-0.250,0.000,0.000,0.000
1641208047343741952,2022-01-03-11:07:27,10.1.1.2,186,-0.260,-0.260,-0.260,0.000,0.000,0.000
1641208047544261888,2022-01-03-11:07:27,10.1.1.2,185,-0.270,-0.270,-0.270,0.000,0.000,0.000
1641208047744802048,2022-01-03-11:07:27,10.1.1.2,185,-0.280,-0.280,-0.280,0.000,0.000,0.000
1641208047945591808,2022-01-03-11:07:27,10.1.1.2,185,-0.290,-0.290,-0.290,0.000,0.000,0.000
1641208048145519104,2022-01-03-11:07:28,10.1.1.2,184,-0.300,-0.300,-0.300,0.000,0.000,0.000
1641208048345464832,2022-01-03-11:07:28,10.1.1.2,184,-0.310,-0.310,-0.310,0.000,0.000,0.000
1641208048546448896,2022-01-03-11:07:28,10.1.1.2,184,-0.320,-0.320,-0.320,0.000,0.000,0.000
1641208048747476992,2022-01-03-11:07:28,10.1.1.2,184,-0.330,-0.330,-0.330,0.000,0.000,0.000
1641208048947774976,2022-01-03-11:07:28,10.1.1.2,184,-0.340,-0.340,-0.340,0.000,0.000,0.000
1641208049146840064,2022-01-03-11:07:29,10.1.1.2,182,-0.350,-0.350,-0.350,0.000,0.000,0.000
1641208049347340032,2022-01-03-11:07:29,10.1.1.2,182,-0.360,-0.360,-0.360,0.000,0.000,0.000
1641208049548243968,2022-01-03-11:07:29,10.1.1.2,182,-0.370,-0.370,-0.370,0.000,0.000,0.000
1641208049750091008,2022-01-03-11:07:29,10.1.1.2,184,-0.380,-0.380,-0.380,0.000,0.000,0.000
1641208049952541184,2022-01-03-11:07:29,10.1.1.2,185,-0.390,-0.390,-0.390,0.000,0.000,0.000
1641208050148843008,2022-01-03-11:07:30,10.1.1.2,181,-0.400,-0.400,-0.400,0.000,0.000,0.000
1641208050349449984,2022-01-03-11:07:30,10.1.1.2,181,-0.410,-0.410,-0.410,0.000,0.000,0.000
1641208050551027968,2022-01-03-11:07:30,10.1.1.2,182,-0.420,-0.420,-0.420,0.000,0.000,0.000
1641208050771405824,2022-01-03-11:07:30,10.1.1.2,199,-0.430,-0.430,-0.430,0.000,0.000,0.000
1641208050969897984,2022-01-03-11:07:30,10.1.1.2,197,-0.440,-0.440,-0.440,0.000,0.000,0.000
1641208051169805056,2022-01-03-11:07:31,10.1.1.2,196,-0.450,-0.450,-0.450,0.000,0.000,0.000
1641208051370237952,2022-01-03-11:07:31,10.1.1.2,196,-0.460,-0.460,-0.460,0.000,0.000,0.000
1641208051570460928,2022-01-03-11:07:31,10.1.1.2,196,-0.470,-0.470,-0.470,0.000,0.000,0.000
1641208051769921024,2022-01-03-11:07:31,10.1.1.2,195,-0.480,-0.480,-0.480,0.000,0.000,0.000
1641208051970832128,2022-01-03-11:07:31,10.1.1.2,195,-0.490,-0.490,-0.490,0.000,0.000,0.000
1641208052170820096,2022-01-03-11:07:32,10.1.1.2,193,-0.480,-0.480,-0.480,0.000,0.000,0.000
1641208052370534912,2022-01-03-11:07:32,10.1.1.2,192,-0.470,-0.470,-0.470,0.000,0.000,0.000
1641208052571512064,2022-01-03-11:07:32,10.1.1.2,191,-0.460,-0.460,-0.460,0.000,0.000,0.000
1641208052771325184,2022-01-03-11:07:32,10.1.1.2,191,-0.450,-0.450,-0.450,0.000,0.000,0.000
1641208052971212032,2022-01-03-11:07:32,10.1.1.2,190,-0.440,-0.440,-0.440,0.000,0.000,0.000
1641208053173778176,2022-01-03-11:07:33,10.1.1.2,192,-0.430,-0.430,-0.430,0.000,0.000,0.000
1641208053372473856,2022-01-03-11:07:33,10.1.1.2,190,-0.420,-0.420,-0.420,0.000,0.000,0.000
1641208053579853056,2022-01-03-11:07:33,10.1.1.2,197,-0.410,-0.410,-0.410,0.000,0.000,0.000
1641208053780985088,2022-01-03-11:07:33,10.1.1.2,197,-0.400,-0.400,-0.400,0.000,0.000,0.000
1641208053971247872,2022-01-03-11:07:33,10.1.1.2,186,-0.390,-0.390,-0.390,0.000,0.000,0.000
1641208054171056896,2022-01-03-11:07:34,10.1.1.2,185,-0.380,-0.380,-0.380,0.000,0.000,0.000
1641208054370690048,2022-01-03-11:07:34,10.1.1.2,183,-0.370,-0.370,-0.370,0.000,0.000,0.000
1641208054570770944,2022-01-03-11:07:34,10.1.1.2,182,-0.360,-0.360,-0.360,0.000,0.000,0.000
1641208054776994048,2022-01-03-11:07:34,10.1.1.2,188,-0.350,-0.350,-0.350,0.000,0.000,0.000
1641208054970683136,2022-01-03-11:07:34,10.1.1.2,180,-0.340,-0.340,-0.340,0.000,0.000,0.000
1641208055172233984,2022-01-03-11:07:35,10.1.1.2,180,-0.330,-0.330,-0.330,0.000,0.000,0.000
1641208055391459840,2022-01-03-11:07:35,10.1.1.2,199,-0.320,-0.320,-0.320,0.000,0.000,0.000
1641208055591328000,2022-01-03-11:07:35,10.1.1.2,197,-0.310,-0.310,-0.310,0.000,0.000,0.000
1641208055790743040,2022-01-03-11:07:35,10.1.1.2,195,-0.300,-0.300,-0.300,0.000,0.000,0.000
1641208055990926080,2022-01-03-11:07:35,10.1.1.2,195,-0.290,-0.290,-0.290,0.000,0.000,0.000
1641208056190740992,2022-01-03-11:07:36,10.1.1.2,193,-0.280,-0.280,-0.280,0.000,0.000,0.000
1641208056389945856,2022-01-03-11:07:36,10.1.1.2,191,-0.270,-0.270,-0.270,0.000,0.000,0.000
1641208056590589952,2022-01-03-11:07:36,10.1.1.2,191,-0.260,-0.260,-0.260,0.000,0.000,0.000
1641208056790252800,2022-01-03-11:07:36,10.1.1.2,190,-0.250,-0.250,-0.250,0.000,0.000,0.000
1641208056990159104,2022-01-03-11:07:36,10.1.1.2,189,-0.240,-0.240,-0.240,0.000,0.000,0.000
1641208057189675008,2022-01-03-11:07:37,10.1.1.2,188,-0.230,-0.230,-0.230,0.000,0.000,0.000
1641208057389985024,2022-01-03-11:07:37,10.1.1.2,187,-0.220,-0.220,-0.220,0.000,0.000,0.000
1641208057590599936,2022-01-03-11:07:37,10.1.1.2,187,-0.210,-0.210,-0.210,0.000,0.000,0.000
1641208057790597888,2022-01-03-11:07:37,10.1.1.2,186,-0.200,-0.200,-0.200,0.000,0.000,0.000
1641208057989787136,2022-01-03-11:07:37,10.1.1.2,183,-0.190,-0.190,-0.190,0.000,0.000,0.000
1641208058189504000,2022-01-03-11:07:38,10.1.1.2,183,-0.180,-0.180,-0.180,0.000,0.000,0.000
1641208058389931008,2022-01-03-11:07:38,10.1.1.2,182,-0.170,-0.170,-0.170,0.000,0.000,0.000
1641208058589477888,2022-01-03-11:07:38,10.1.1.2,181,-0.160,-0.160,-0.160,0.000,0.000,0.000
1641208058788764928,2022-01-03-11:07:38,10.1.1.2,180,-0.150,-0.150,-0.150,0.000,0.000,0.000
1641208058988346112,2022-01-03-11:07:38,10.1.1.2,179,-0.140,-0.140,-0.140,0.000,0.000,0.000
1641208059190848000,2022-01-03-11:07:39,10.1.1.2,181,-0.130,-0.130,-0.130,0.000,0.000,0.000
1641208059390824192,2022-01-03-11:07:39,10.1.1.2,180,-0.120,-0.120,-0.120,0.000,0.000,0.000
1641208059608251136,2022-01-03-11:07:39,10.1.1.2,196,-0.110,-0.110,-0.110,0.000,0.000,0.000
1641208059794234112,2022-01-03-11:07:39,10.1.1.2,182,-0.100,-0.100,-0.100,0.000,0.000,0.000
1641208060008658944,2022-01-03-11:07:40,10.1.1.2,194,-0.090,-0.090,-0.090,0.000,0.000,0.000
1641208060208434944,2022-01-03-11:07:40,10.1.1.2,193,-0.080,-0.080,-0.080,0.000,0.000,0.000
1641208060407653120,2022-01-03-11:07:40,10.1.1.2,192,-0.070,-0.070,-0.070,0.000,0.000,0.000
1641208060607448064,2022-01-03-11:07:40,10.1.1.2,189,-0.060,-0.060,-0.060,0.000,0.000,0.000
1641208060807382016,2022-01-03-11:07:40,10.1.1.2,188,-0.050,-0.050,-0.050,0.000,0.000,0.000
1641208061006560000,2022-01-03-11:07:41,10.1.1.2,187,-0.040,-0.040,-0.040,0.000,0.000,0.000
1641208061206855168,2022-01-03-11:07:41,10.1.1.2,186,-0.030,-0.030,-0.030,0.000,0.000,0.000
1641208061408147968,2022-01-03-11:07:41,10.1.1.2,187,-0.020,-0.020,-0.020,0.000,0.000,0.000
1641208061606332928,2022-01-03-11:07:41,10.1.1.2,184,-0.010,-0.010,-0.010,0.000,0.000,0.000
1641208061806206976,2022-01-03-11:07:41,10.1.1.2,182,0.000,0.000,0.000,0.000,0.000,0.000
1641208062005572096,2022-01-03-11:07:42,10.1.1.2,175,-0.010,-0.010,-0.010,0.000,0.000,0.000
1641208062225903104,2022-01-03-11:07:42,10.1.1.2,193,-0.020,-0.020,-0.020,0.000,0.000,0.000
1641208062426333952,2022-01-03-11:07:42,10.1.1.2,192,-0.030,-0.030,-0.030,0.000,0.000,0.000
1641208062626585856,2022-01-03-11:07:42,10.1.1.2,191,-0.040,-0.040,-0.040,0.000,0.000,0.000
